hehonglu123/Motion-Primitive-Planning/ILC/recorded_data/realrobot/from_NX/iteration_28/run_4.csv
timestamp, cmd_num, J1, J2, J3, J4, J5, J6
0.000359, -1, 39.6291, 32.4471, 11.8316, 12.5437, 113.713, -48.8735
0.002886, -1, 39.6291, 32.4471, 11.8316, 12.5437, 113.713, -48.8735
0.00829, -1, 39.6291, 32.4471, 11.8315, 12.5437, 113.713, -48.8736
0.029594, -1, 39.6291, 32.4471, 11.8316, 12.5437, 113.713, -48.8735
0.032389, -1, 39.6291, 32.4471, 11.8316, 12.5437, 113.713, -48.8735
0.035047, -1, 39.6291, 32.4471, 11.8316, 12.5437, 113.713, -48.8735
0.03909, -1, 39.6291, 32.4471, 11.8316, 12.5437, 113.713, -48.8736
0.047894, -1, 39.6291, 32.447, 11.8316, 12.5437, 113.713, -48.8736
0.055929, -1, 39.6286, 32.447, 11.8316, 12.5436, 113.713, -48.8736
0.192147, -1, 38.5067, 31.8778, 12.0464, 12.5522, 113.137, -50.3472
0.193506, -1, 38.4234, 31.8341, 12.0654, 12.5534, 113.089, -50.4684
0.195014, -1, 38.4234, 31.8341, 12.0654, 12.5534, 113.089, -50.4684
0.197007, -1, 38.3381, 31.7894, 12.0848, 12.5546, 113.04, -50.5916
0.199108, -1, 38.3381, 31.7894, 12.0848, 12.5546, 113.04, -50.5916
0.201187, -1, 38.2511, 31.7439, 12.1042, 12.5558, 112.991, -50.7165
0.202409, -1, 38.2511, 31.7439, 12.1042, 12.5558, 112.991, -50.7165
0.20596, -1, 38.1626, 31.6976, 12.1237, 12.557, 112.941, -50.8426
0.207331, -1, 38.1626, 31.6976, 12.1237, 12.557, 112.941, -50.8426
0.20931, -1, 38.0727, 31.6507, 12.1432, 12.5582, 112.891, -50.9698
0.210594, -1, 38.0727, 31.6507, 12.1432, 12.5582, 112.891, -50.9698
0.213388, -1, 37.9815, 31.6033, 12.1627, 12.5594, 112.84, -51.0978
0.214773, -1, 37.9815, 31.6033, 12.1627, 12.5594, 112.84, -51.0978
0.216808, -1, 37.8891, 31.5554, 12.1821, 12.5607, 112.789, -51.2265
0.218096, -1, 37.8891, 31.5554, 12.1821, 12.5607, 112.789, -51.2265
0.221362, -1, 37.7957, 31.5071, 12.2016, 12.5619, 112.738, -51.3556
0.224524, -1, 37.7016, 31.4585, 12.221, 12.5631, 112.687, -51.4849
0.226004, -1, 37.7016, 31.4585, 12.221, 12.5631, 112.687, -51.4849
0.227209, -1, 37.7016, 31.4585, 12.221, 12.5631, 112.687, -51.4849
0.229476, -1, 37.6067, 31.4097, 12.2403, 12.5643, 112.636, -51.6145
0.230682, -1, 37.6067, 31.4097, 12.2403, 12.5643, 112.636, -51.6145
0.232677, -1, 37.5113, 31.3608, 12.2597, 12.5656, 112.585, -51.7443
0.241908, -1, 37.3196, 31.2628, 12.2985, 12.5681, 112.482, -52.0038
0.248718, -1, 37.2236, 31.2139, 12.3373, 12.5704, 112.38, -52.2634
0.2565, -1, 37.0314, 31.116, 12.3567, 12.5718, 112.277, -52.5236
0.263908, -1, 36.8391, 31.0183, 12.3954, 12.5744, 112.225, -52.6537
0.271919, -1, 36.6473, 30.9205, 12.4342, 12.5769, 112.122, -52.9142
0.279953, -1, 36.4556, 30.8228, 12.4731, 12.5795, 112.019, -53.1744
0.287918, -1, 36.264, 30.725, 12.512, 12.5822, 111.916, -53.4348
0.295922, -1, 36.0724, 30.6271, 12.5508, 12.5847, 111.814, -53.6953
0.303949, -1, 35.8809, 30.5292, 12.5898, 12.5873, 111.711, -53.956
0.311947, -1, 35.6894, 30.4311, 12.6287, 12.5898, 111.608, -54.2163
0.319921, -1, 35.4973, 30.333, 12.6676, 12.5924, 111.505, -54.4767
0.327919, -1, 35.3052, 30.2348, 12.7063, 12.595, 111.401, -54.7371
0.335901, -1, 35.1127, 30.1365, 12.7452, 12.5976, 111.298, -54.9979
0.343998, -1, 34.9203, 30.038, 12.7842, 12.6002, 111.195, -55.2587
0.35193, -1, 34.7281, 29.9395, 12.823, 12.6028, 111.092, -55.5192
0.359947, -1, 34.5358, 29.8411, 12.8618, 12.6053, 110.989, -55.78
0.367997, -1, 34.3437, 29.7427, 12.9009, 12.6079, 110.886, -56.041
0.375903, -1, 34.1516, 29.6443, 12.9397, 12.6105, 110.783, -56.3018
0.383899, -1, 33.9597, 29.5461, 12.9787, 12.6131, 110.68, -56.5625
0.391984, -1, 33.768, 29.4477, 13.0177, 12.6158, 110.577, -56.8233
0.400944, -1, 33.5762, 29.3493, 13.0565, 12.6184, 110.474, -57.0843
0.407905, -1, 33.384, 29.2509, 13.0954, 12.621, 110.371, -57.3455
0.415985, -1, 33.1915, 29.1524, 13.1344, 12.6236, 110.268, -57.6063
0.423906, -1, 32.9988, 29.0538, 13.1732, 12.6262, 110.164, -57.8674
0.43197, -1, 32.8058, 28.9552, 13.2121, 12.6289, 110.062, -58.1286
0.439918, -1, 32.6125, 28.8566, 13.2511, 12.6316, 109.958, -58.39
0.447919, -1, 32.419, 28.7579, 13.2899, 12.6342, 109.855, -58.6511
0.455969, -1, 32.2251, 28.6592, 13.3288, 12.6369, 109.753, -58.9121
0.463911, -1, 32.031, 28.5604, 13.3677, 12.6396, 109.649, -59.1731
0.471936, -1, 31.8371, 28.4616, 13.4066, 12.6423, 109.546, -59.4345
0.480001, -1, 31.6435, 28.3629, 13.4457, 12.645, 109.443, -59.6959
0.487943, -1, 31.45, 28.2642, 13.4846, 12.6479, 109.34, -59.957
0.495907, -1, 31.257, 28.1656, 13.5235, 12.6506, 109.237, -60.2183
0.503965, -1, 31.0644, 28.0672, 13.5627, 12.6534, 109.134, -60.4797
0.511931, -1, 30.8721, 27.9686, 13.6017, 12.6562, 109.031, -60.7412
0.645907, -1, 27.6847, 26.3389, 14.2449, 12.6995, 107.327, -65.0582
0.647871, -1, 27.6847, 26.3389, 14.2643, 12.7007, 107.275, -65.1889
0.649343, -1, 27.5885, 26.2895, 14.2643, 12.7007, 107.275, -65.1889
0.650542, -1, 27.5885, 26.2895, 14.2643, 12.7007, 107.275, -65.1889
0.653296, -1, 27.4924, 26.24, 14.2837, 12.7019, 107.223, -65.3197
0.654551, -1, 27.4924, 26.24, 14.2837, 12.7019, 107.223, -65.3197
0.65669, -1, 27.3963, 26.1905, 14.3032, 12.7031, 107.172, -65.4506
0.660147, -1, 27.3003, 26.141, 14.3228, 12.7043, 107.12, -65.5814
0.661601, -1, 27.3003, 26.141, 14.3228, 12.7043, 107.12, -65.5814
0.662804, -1, 27.3003, 26.141, 14.3228, 12.7043, 107.12, -65.5814
0.664977, -1, 27.2041, 26.0915, 14.3423, 12.7055, 107.068, -65.7121
0.66622, -1, 27.2041, 26.0915, 14.3423, 12.7055, 107.068, -65.7121
0.66816, -1, 27.1079, 26.042, 14.3617, 12.7066, 107.016, -65.843
0.669544, -1, 27.1079, 26.042, 14.3617, 12.7066, 107.016, -65.843
0.670835, -1, 27.1079, 26.042, 14.3617, 12.7066, 107.016, -65.843
0.674791, -1, 27.0117, 25.9926, 14.3811, 12.7078, 106.965, -65.9738
0.677519, -1, 26.9154, 25.9432, 14.4006, 12.7089, 106.913, -66.1048
0.678756, -1, 26.9154, 25.9432, 14.4006, 12.7089, 106.913, -66.1048
0.680841, -1, 26.8191, 25.8938, 14.4201, 12.7101, 106.862, -66.2358
0.682958, -1, 26.8191, 25.8938, 14.4201, 12.7101, 106.862, -66.2358
0.685055, -1, 26.7226, 25.8443, 14.4397, 12.7112, 106.81, -66.3666
0.686822, -1, 26.7226, 25.8443, 14.4397, 12.7112, 106.81, -66.3666
0.696293, -1, 26.4324, 25.696, 14.498, 12.7147, 106.655, -66.7591
0.702894, -1, 26.3355, 25.6466, 14.5174, 12.7158, 106.604, -66.89
0.712528, -1, 26.0445, 25.4983, 14.5759, 12.7192, 106.449, -67.283
0.720408, -1, 25.8502, 25.3994, 14.6148, 12.7215, 106.345, -67.5447
0.728518, -1, 25.656, 25.3005, 14.6539, 12.7238, 106.243, -67.8062
0.73643, -1, 25.4621, 25.2018, 14.6928, 12.726, 106.139, -68.0677
0.74446, -1, 25.3652, 25.1525, 14.7318, 12.7284, 106.036, -68.3295
0.752643, -1, 25.1716, 25.0538, 14.7709, 12.7307, 105.933, -68.5915
0.759889, -1, 24.9783, 24.955, 14.7904, 12.7319, 105.881, -68.7221
0.767899, -1, 24.7852, 24.8562, 14.8293, 12.7342, 105.778, -68.9837
0.775943, -1, 24.5925, 24.7574, 14.8683, 12.7366, 105.675, -69.2454
0.78289, -1, 24.4001, 24.6584, 14.9073, 12.739, 105.571, -69.5073
0.791889, -1, 24.2076, 24.5596, 14.9463, 12.7414, 105.468, -69.7688
0.799903, -1, 24.015, 24.4608, 14.9853, 12.7437, 105.365, -70.0302
0.807891, -1, 23.8222, 24.3619, 15.0243, 12.7461, 105.261, -70.2918
0.816056, -1, 23.6293, 24.2631, 15.0631, 12.7485, 105.158, -70.5536
0.823889, -1, 23.436, 24.1642, 15.1021, 12.7508, 105.054, -70.8152
0.833353, -1, 23.1454, 24.0158, 15.1604, 12.7545, 104.899, -71.2079
0.839934, -1, 23.0485, 23.9663, 15.1799, 12.7557, 104.848, -71.3387
0.847919, -1, 22.8545, 23.8675, 15.2188, 12.7581, 104.744, -71.6007
0.855906, -1, 22.6605, 23.7687, 15.2578, 12.7606, 104.641, -71.8626
0.86398, -1, 22.4668, 23.67, 15.2967, 12.7631, 104.538, -72.1239
0.8719, -1, 22.2734, 23.5714, 15.3357, 12.7656, 104.434, -72.3852
0.879929, -1, 22.0802, 23.4726, 15.3746, 12.7682, 104.331, -72.6468
0.888861, -1, 21.8871, 23.3739, 15.4136, 12.7708, 104.227, -72.9084
0.895887, -1, 21.6946, 23.2752, 15.4526, 12.7734, 104.124, -73.1698
0.904876, -1, 21.5024, 23.1764, 15.4915, 12.7761, 104.021, -73.4312
0.911953, -1, 21.3102, 23.0777, 15.5305, 12.7787, 103.918, -73.6927
0.919883, -1, 21.1178, 22.9791, 15.5695, 12.7814, 103.815, -73.9545
0.927895, -1, 20.9254, 22.8804, 15.6084, 12.7841, 103.712, -74.2157
0.935944, -1, 20.733, 22.7818, 15.6473, 12.7868, 103.609, -74.4768
0.943896, -1, 20.5403, 22.6832, 15.6862, 12.7895, 103.505, -74.7381
0.951952, -1, 20.3472, 22.5845, 15.7251, 12.7922, 103.403, -74.9994
0.959882, -1, 20.1535, 22.4858, 15.7641, 12.7949, 103.299, -75.2607
0.96789, -1, 19.9599, 22.387, 15.8029, 12.7977, 103.196, -75.5217
0.975953, -1, 19.7663, 22.2883, 15.8416, 12.8004, 103.094, -75.783
0.983917, -1, 19.5727, 22.1897, 15.8806, 12.8031, 102.991, -76.0443
0.991879, -1, 19.3793, 22.0912, 15.9195, 12.8058, 102.887, -76.3055
0.999953, -1, 19.1862, 21.9925, 15.9583, 12.8085, 102.785, -76.5663
1.00789, -1, 18.9934, 21.8938, 15.9973, 12.8114, 102.681, -76.8271
1.0159, -1, 18.8008, 21.7952, 16.0361, 12.814, 102.578, -77.0881
1.02397, -1, 18.6088, 21.6965, 16.0748, 12.8167, 102.475, -77.3491
1.03192, -1, 18.417, 21.5979, 16.1138, 12.8195, 102.372, -77.6098
1.03988, -1, 18.225, 21.4994, 16.1526, 12.8222, 102.27, -77.8705
1.04796, -1, 18.0331, 21.4009, 16.1914, 12.8247, 102.167, -78.1313
1.05588, -1, 17.8413, 21.3025, 16.2304, 12.8273, 102.064, -78.3923
1.06394, -1, 17.6493, 21.2042, 16.2692, 12.8298, 101.961, -78.6527
1.07188, -1, 17.4569, 21.1059, 16.308, 12.8323, 101.858, -78.9132
1.07998, -1, 17.2641, 21.0075, 16.3469, 12.8348, 101.755, -79.1737
1.08796, -1, 17.071, 20.9093, 16.3857, 12.8372, 101.652, -79.4343
1.09574, -1, 16.878, 20.8111, 16.4245, 12.8396, 101.549, -79.695
1.10404, -1, 16.6849, 20.7129, 16.4633, 12.8419, 101.446, -79.9553
1.11198, -1, 16.492, 20.6147, 16.502, 12.8443, 101.344, -80.2158
1.11999, -1, 16.2992, 20.5163, 16.5408, 12.8466, 101.241, -80.4765
1.12806, -1, 16.1068, 20.418, 16.5795, 12.8489, 101.138, -80.7371
1.13599, -1, 15.9149, 20.3196, 16.6182, 12.8512, 101.036, -80.9972
1.14294, -1, 15.819, 20.2703, 16.6376, 12.8524, 100.985, -81.1273
1.15201, -1, 15.5318, 20.1226, 16.6956, 12.856, 100.831, -81.5173
1.15886, -1, 15.4362, 20.0735, 16.7149, 12.8571, 100.779, -81.6474
1.16805, -1, 15.1494, 19.9261, 16.773, 12.8606, 100.625, -82.0375
1.17487, -1, 15.0538, 19.8769, 16.7924, 12.8617, 100.574, -82.1673
1.18414, -1, 14.7669, 19.7297, 16.8504, 12.8651, 100.42, -82.5572
1.19087, -1, 14.6712, 19.6806, 16.8698, 12.8663, 100.369, -82.6872
1.20032, -1, 14.3836, 19.5334, 16.9278, 12.8697, 100.215, -83.077
1.20833, -1, 14.1914, 19.4354, 16.9665, 12.872, 100.113, -83.3365
1.2149, -1, 14.0952, 19.3864, 16.9859, 12.8731, 100.061, -83.4662
1.22443, -1, 13.8067, 19.2396, 17.0438, 12.8766, 99.9075, -83.8557
1.23242, -1, 13.6142, 19.1418, 17.0825, 12.8788, 99.805, -84.1152
1.24052, -1, 13.4218, 19.0439, 17.1212, 12.8812, 99.7024, -84.3745
1.24848, -1, 13.3258, 18.9949, 17.1597, 12.8835, 99.6003, -84.6338
1.25651, -1, 13.134, 18.897, 17.1789, 12.8847, 99.5491, -84.8932
1.2645, -1, 12.9426, 18.7991, 17.2176, 12.887, 99.4466, -85.1525
1.27187, -1, 12.7515, 18.7011, 17.2562, 12.8893, 99.3442, -85.2821
1.27986, -1, 12.5606, 18.6032, 17.2947, 12.8918, 99.242, -85.5409
1.28787, -1, 12.3702, 18.5055, 17.3333, 12.8942, 99.1397, -85.7999
1.29587, -1, 12.1801, 18.4076, 17.3717, 12.8966, 99.0375, -86.059
1.30393, -1, 11.9898, 18.31, 17.4103, 12.899, 98.9355, -86.3178
1.31129, -1, 11.7994, 18.2124, 17.449, 12.9014, 98.8334, -86.5764
1.31995, -1, 11.6088, 18.1148, 17.4874, 12.9039, 98.7316, -86.8351
1.32788, -1, 11.4179, 18.0171, 17.526, 12.9063, 98.6296, -87.0937
1.33564, -1, 11.2267, 17.9196, 17.5646, 12.9087, 98.5277, -87.3524
1.34287, -1, 11.0353, 17.8221, 17.6031, 12.9111, 98.4259, -87.6106
1.35189, -1, 10.8438, 17.7247, 17.6415, 12.9137, 98.3238, -87.8688
1.35969, -1, 10.6521, 17.6272, 17.68, 12.9161, 98.2218, -88.1271
1.3679, -1, 10.4607, 17.5297, 17.7183, 12.9187, 98.1202, -88.3855
1.37586, -1, 10.2695, 17.4322, 17.7568, 12.9211, 98.0182, -88.6437
1.38371, -1, 10.0787, 17.3346, 17.7952, 12.9237, 97.9163, -88.9016
1.39292, -1, 9.88825, 17.237, 17.8335, 12.9264, 97.8146, -89.1596
1.39986, -1, 9.69808, 17.1395, 17.8718, 12.929, 97.7125, -89.4178
1.40796, -1, 9.50847, 17.042, 17.9101, 12.9318, 97.6106, -89.6757
1.41585, -1, 9.3192, 16.9447, 17.9484, 12.9345, 97.5088, -89.9334
1.42386, -1, 9.12989, 16.8473, 17.9869, 12.9372, 97.4069, -90.1908
1.43195, -1, 8.94052, 16.7501, 18.0252, 12.9399, 97.305, -90.4485
1.43986, -1, 8.75097, 16.6529, 18.0635, 12.9425, 97.2035, -90.706
1.44794, -1, 8.56134, 16.5557, 18.102, 12.9451, 97.1017, -90.9631
1.45588, -1, 8.37158, 16.4587, 18.1403, 12.9479, 97.0004, -91.2204
1.46386, -1, 8.18125, 16.3617, 18.1786, 12.9505, 96.8988, -91.4775
1.47194, -1, 7.99077, 16.2648, 18.217, 12.9532, 96.7972, -91.7348
1.47988, -1, 7.80031, 16.1679, 18.2552, 12.9559, 96.6958, -91.9917
1.48793, -1, 7.60976, 16.071, 18.2935, 12.9585, 96.5942, -92.2483
1.49593, -1, 7.41935, 15.9741, 18.3319, 12.9611, 96.4928, -92.5051
1.50388, -1, 7.2292, 15.8772, 18.37, 12.9636, 96.3916, -92.7619
1.51185, -1, 7.03935, 15.7801, 18.4082, 12.9663, 96.2902, -93.0186
1.51996, -1, 6.84984, 15.6832, 18.4465, 12.9689, 96.1889, -93.2751
1.52791, -1, 6.66093, 15.5863, 18.4846, 12.9713, 96.0883, -93.5314
1.53588, -1, 6.47246, 15.4895, 18.5226, 12.9739, 95.9871, -93.7879
1.54394, -1, 6.28424, 15.3928, 18.5608, 12.9764, 95.886, -94.0444
1.55192, -1, 6.09612, 15.296, 18.5989, 12.9789, 95.7853, -94.3004
1.55985, -1, 5.9079, 15.1993, 18.6371, 12.9813, 95.6842, -94.5562
1.56795, -1, 5.71951, 15.1026, 18.6753, 12.9836, 95.5832, -94.8122
1.57667, -1, 5.53106, 15.0061, 18.7133, 12.9859, 95.4827, -95.0682
1.58397, -1, 5.34228, 14.9095, 18.7515, 12.9883, 95.3818, -95.3238
1.59194, -1, 5.15308, 14.8131, 18.7897, 12.9905, 95.2811, -95.5792
1.60065, -1, 4.96366, 14.7168, 18.8277, 12.9928, 95.1805, -95.8348
1.60803, -1, 4.7743, 14.6204, 18.8657, 12.9951, 95.0797, -96.0904
1.61597, -1, 4.58482, 14.524, 18.9038, 12.9972, 94.9789, -96.3456
1.62512, -1, 4.39562, 14.4277, 18.9418, 12.9995, 94.8782, -96.6005
1.63171, -1, 4.30115, 14.3795, 18.9608, 13.0006, 94.8277, -96.8553
1.63986, -1, 4.01792, 14.2348, 19.0178, 13.004, 94.6765, -97.1105
1.64791, -1, 3.82989, 14.1386, 19.0557, 13.0063, 94.5758, -97.3656
1.656, -1, 3.64237, 14.0424, 19.0937, 13.0085, 94.475, -97.6203
1.66287, -1, 3.54873, 13.9943, 19.1127, 13.0097, 94.4246, -97.7476
1.6709, -1, 3.36171, 13.8982, 19.1505, 13.012, 94.3242, -98.0023
1.67885, -1, 3.17465, 13.8021, 19.1883, 13.0143, 94.2233, -98.2571
1.68909, -1, 2.89425, 13.6581, 19.2452, 13.0176, 94.0724, -98.6388
1.6962, -1, 2.70716, 13.562, 19.2831, 13.0199, 93.9718, -98.8929
1.70287, -1, 2.61354, 13.514, 19.3021, 13.021, 93.9216, -99.02
1.71313, -1, 2.33248, 13.3702, 19.3588, 13.0244, 93.771, -99.4012
1.71894, -1, 2.2386, 13.3223, 19.3776, 13.0256, 93.7208, -99.5283
1.72859, -1, 1.95656, 13.1786, 19.4345, 13.0288, 93.5704, -99.9088
1.7373, -1, 1.76848, 13.0827, 19.4722, 13.0312, 93.4706, -100.162
1.74292, -1, 1.67436, 13.0348, 19.4911, 13.0323, 93.4206, -100.289
1.75251, -1, 1.39215, 12.8911, 19.5478, 13.0356, 93.2703, -100.67
1.7613, -1, 1.29821, 12.8431, 19.5667, 13.0368, 93.2204, -100.796
1.76689, -1, 1.11058, 12.7473, 19.6043, 13.0392, 93.1204, -101.049
1.777, -1, 0.830125, 12.6039, 19.661, 13.0428, 92.9704, -101.429
1.78386, -1, 0.736878, 12.5562, 19.6798, 13.0439, 92.9207, -101.556
1.79091, -1, 0.550702, 12.4606, 19.7174, 13.0463, 92.8208, -101.809
1.7999, -1, 0.364889, 12.3652, 19.755, 13.0488, 92.7209, -102.061
1.80784, -1, 0.179338, 12.2699, 19.7927, 13.0512, 92.6216, -102.314
1.81488, -1, -0.00606044, 12.1745, 19.8302, 13.0537, 92.522, -102.567
1.82388, -1, -0.191625, 12.0792, 19.8679, 13.0561, 92.4224, -102.819
1.83185, -1, -0.377376, 11.9841, 19.9055, 13.0586, 92.323, -103.072
1.83884, -1, -0.563464, 11.8889, 19.943, 13.0611, 92.2235, -103.324
1.84784, -1, -0.749764, 11.794, 19.9806, 13.0636, 92.1241, -103.576
1.85584, -1, -0.936217, 11.6989, 20.0181, 13.066, 92.0247, -103.828
1.86284, -1, -1.12295, 11.6038, 20.0555, 13.0686, 91.9253, -104.08
1.87185, -1, -1.30991, 11.5087, 20.093, 13.071, 91.826, -104.331
1.87985, -1, -1.49676, 11.4137, 20.1305, 13.0736, 91.7269, -104.583
1.88944, -1, -1.6833, 11.3185, 20.1679, 13.0762, 91.6277, -104.96
1.89584, -1, -1.86952, 11.2235, 20.2053, 13.0787, 91.5284, -105.086
1.90384, -1, -2.05538, 11.1285, 20.2427, 13.0814, 91.4294, -105.337
1.91192, -1, -2.24044, 11.0337, 20.2801, 13.084, 91.3301, -105.588
1.91987, -1, -2.42522, 10.9388, 20.3174, 13.0867, 91.2309, -105.839
1.92784, -1, -2.6097, 10.8441, 20.3548, 13.0893, 91.132, -106.09
1.93592, -1, -2.79368, 10.7494, 20.392, 13.092, 91.0328, -106.341
1.94384, -1, -2.97764, 10.6546, 20.4294, 13.0946, 90.9336, -106.592
1.95198, -1, -3.16176, 10.5599, 20.4668, 13.0972, 90.835, -106.842
1.95985, -1, -3.34606, 10.4654, 20.5039, 13.0998, 90.736, -107.093
1.96784, -1, -3.53071, 10.3708, 20.5412, 13.1024, 90.637, -107.343
1.97592, -1, -3.71542, 10.2765, 20.5785, 13.105, 90.5384, -107.593
1.98384, -1, -3.90053, 10.1821, 20.6157, 13.1074, 90.4394, -107.843
1.99187, -1, -4.08579, 10.0877, 20.653, 13.1098, 90.3408, -108.093
1.99993, -1, -4.27134, 9.99335, 20.6901, 13.1123, 90.2423, -108.343
2.00784, -1, -4.45691, 9.89898, 20.7272, 13.1147, 90.1436, -108.593
2.01594, -1, -4.6422, 9.80466, 20.7646, 13.117, 90.0451, -108.843
2.02384, -1, -4.82713, 9.71044, 20.8017, 13.1194, 89.9468, -109.092
2.03186, -1, -5.01164, 9.61634, 20.8387, 13.1219, 89.8482, -109.342
2.03993, -1, -5.19538, 9.52233, 20.8759, 13.1242, 89.7498, -109.591
2.04784, -1, -5.37873, 9.4283, 20.913, 13.1266, 89.6515, -109.84
2.05584, -1, -5.56171, 9.33442, 20.95, 13.1288, 89.553, -110.089
2.06392, -1, -5.74427, 9.24049, 20.9872, 13.1311, 89.4548, -110.337
2.07184, -1, -5.92663, 9.14658, 21.0242, 13.1334, 89.3568, -110.586
2.07989, -1, -6.10904, 9.05272, 21.0611, 13.1357, 89.2586, -110.835
2.08798, -1, -6.29169, 8.95893, 21.0982, 13.1379, 89.1606, -111.083
2.09595, -1, -6.4747, 8.86522, 21.1352, 13.1402, 89.0628, -111.332
2.1035, -1, -6.65781, 8.77153, 21.1719, 13.1423, 88.9648, -111.58
2.11201, -1, -6.84139, 8.67789, 21.2089, 13.1444, 88.8667, -111.828
2.11996, -1, -7.02522, 8.58427, 21.2458, 13.1465, 88.769, -112.076
2.12795, -1, -7.20946, 8.49071, 21.2826, 13.1486, 88.6711, -112.324
2.13604, -1, -7.39368, 8.39707, 21.3196, 13.1508, 88.5733, -112.571
2.14284, -1, -7.48559, 8.35024, 21.338, 13.1519, 88.5246, -112.695
2.15187, -1, -7.76092, 8.21007, 21.3931, 13.1551, 88.3781, -113.066
2.16002, -1, -7.94402, 8.11668, 21.4301, 13.1574, 88.2807, -113.313
2.16687, -1, -8.03543, 8.06998, 21.4485, 13.1585, 88.2322, -113.437
2.17606, -1, -8.30846, 7.93003, 21.5036, 13.1619, 88.086, -113.808
2.18284, -1, -8.39924, 7.8834, 21.522, 13.163, 88.0373, -113.931
2.19208, -1, -8.67086, 7.74357, 21.5773, 13.1664, 87.8913, -114.301
2.19883, -1, -8.76125, 7.69697, 21.5957, 13.1676, 87.8425, -114.424
2.20829, -1, -9.03234, 7.55726, 21.6508, 13.1708, 87.6964, -114.794
2.21629, -1, -9.21341, 7.46421, 21.6875, 13.1732, 87.5993, -115.041
2.22449, -1, -9.39466, 7.37136, 21.7242, 13.1754, 87.5021, -115.287
2.23242, -1, -9.5763, 7.27849, 21.7609, 13.1775, 87.405, -115.533
2.24039, -1, -9.75827, 7.18566, 21.7976, 13.1798, 87.308, -115.779
2.24848, -1, -9.94065, 7.09292, 21.8341, 13.182, 87.2106, -116.025
2.25648, -1, -10.0319, 7.04654, 21.8707, 13.1842, 87.1134, -116.271
2.26383, -1, -10.2146, 6.95376, 21.889, 13.1854, 87.065, -116.394
2.27259, -1, -10.3972, 6.86102, 21.9256, 13.1887, 86.9193, -116.762
2.27983, -1, -10.5796, 6.76829, 21.9622, 13.1898, 86.8707, -116.885
2.28783, -1, -10.7616, 6.67567, 21.9988, 13.1921, 86.7738, -117.13
2.29588, -1, -10.9432, 6.5831, 22.0352, 13.1945, 86.6768, -117.376
2.30383, -1, -11.1241, 6.49057, 22.0717, 13.1969, 86.58, -117.621
2.31184, -1, -11.3042, 6.39806, 22.1083, 13.1993, 86.4835, -117.866
2.31982, -1, -11.484, 6.30556, 22.1447, 13.2018, 86.3867, -118.11
2.32788, -1, -11.6634, 6.21313, 22.1812, 13.2042, 86.2901, -118.355
2.33589, -1, -11.8426, 6.12071, 22.2177, 13.2067, 86.1935, -118.6
2.34383, -1, -12.0219, 6.0284, 22.2542, 13.2091, 86.0968, -118.844
2.35183, -1, -12.2013, 5.93621, 22.2905, 13.2115, 86.0004, -119.088
2.3599, -1, -12.381, 5.84419, 22.327, 13.214, 85.9041, -119.332
2.36785, -1, -12.5611, 5.75213, 22.3633, 13.2166, 85.8077, -119.577
2.37583, -1, -12.7415, 5.66013, 22.3995, 13.219, 85.7114, -119.82
2.3839, -1, -12.9224, 5.56821, 22.436, 13.2215, 85.6156, -120.064
2.39358, -1, -13.1035, 5.47626, 22.4722, 13.2239, 85.4715, -120.43
2.39983, -1, -13.2847, 5.38424, 22.5085, 13.2263, 85.4235, -120.552
2.40791, -1, -13.4658, 5.2923, 22.5448, 13.2288, 85.3278, -120.795
2.41584, -1, -13.6464, 5.20042, 22.581, 13.2313, 85.2319, -121.038
2.42386, -1, -13.8266, 5.10859, 22.6171, 13.2339, 85.1361, -121.281
2.43184, -1, -14.0062, 5.01677, 22.6533, 13.2365, 85.0405, -121.524
2.43986, -1, -14.1848, 4.92505, 22.6895, 13.239, 84.9449, -121.767
2.44789, -1, -14.3631, 4.83332, 22.7256, 13.2416, 84.8492, -122.01
2.45584, -1, -14.541, 4.74167, 22.7618, 13.2442, 84.7538, -122.252
2.46383, -1, -14.7187, 4.65004, 22.798, 13.2467, 84.6581, -122.495
2.47192, -1, -14.8964, 4.55851, 22.8341, 13.2492, 84.5623, -122.737
2.47983, -1, -15.074, 4.46705, 22.8702, 13.2517, 84.4667, -122.98
2.48785, -1, -15.2521, 4.37576, 22.9064, 13.2541, 84.371, -123.221
2.496, -1, -15.4305, 4.28442, 22.9424, 13.2565, 84.2753, -123.463
2.50388, -1, -15.6094, 4.19314, 22.9784, 13.2588, 84.1799, -123.705
2.51182, -1, -15.7886, 4.10188, 23.0144, 13.2611, 84.0843, -123.947
2.51991, -1, -15.9678, 4.01067, 23.0503, 13.2634, 83.9888, -124.188
2.52783, -1, -16.1474, 3.91937, 23.0864, 13.2655, 83.8934, -124.43
2.53585, -1, -16.3272, 3.82813, 23.1224, 13.2677, 83.798, -124.671
2.54391, -1, -16.5066, 3.73694, 23.1582, 13.2699, 83.7026, -124.913
2.55183, -1, -16.6855, 3.64583, 23.1941, 13.2721, 83.6072, -125.154
2.55982, -1, -16.8639, 3.55471, 23.2299, 13.2745, 83.5117, -125.395
2.56867, -1, -17.0416, 3.4637, 23.2658, 13.2766, 83.4164, -125.636
2.57582, -1, -17.2184, 3.37276, 23.3016, 13.2789, 83.3211, -125.876
2.58392, -1, -17.3949, 3.28187, 23.3375, 13.2811, 83.2261, -126.117
2.5927, -1, -17.5712, 3.19099, 23.3732, 13.2832, 83.131, -126.358
2.59992, -1, -17.7473, 3.10035, 23.4091, 13.2854, 83.0362, -126.598
2.60802, -1, -17.9233, 3.00974, 23.445, 13.2875, 82.9415, -126.838
2.61674, -1, -18.0995, 2.91924, 23.4807, 13.2897, 82.8465, -127.078
2.62394, -1, -18.276, 2.82888, 23.5164, 13.2918, 82.7518, -127.319
2.63202, -1, -18.453, 2.73845, 23.5522, 13.2939, 82.6573, -127.558
2.64075, -1, -18.6305, 2.64808, 23.5879, 13.2959, 82.5625, -127.798
2.64803, -1, -18.8082, 2.55778, 23.6236, 13.2979, 82.468, -128.037
2.65594, -1, -18.9862, 2.46734, 23.6593, 13.2999, 82.3736, -128.277
2.66479, -1, -19.1646, 2.37685, 23.6949, 13.3019, 82.2791, -128.516
2.67198, -1, -19.3427, 2.28652, 23.7305, 13.3039, 82.1848, -128.755
2.68005, -1, -19.5204, 2.19611, 23.7661, 13.306, 82.0909, -128.995
2.68683, -1, -19.609, 2.15089, 23.7839, 13.3072, 82.0437, -129.114
2.69482, -1, -19.7858, 2.06055, 23.8192, 13.3093, 81.9496, -129.353
2.70418, -1, -20.0497, 1.92518, 23.8726, 13.3125, 81.8085, -129.711
2.71092, -1, -20.1374, 1.88006, 23.8903, 13.3136, 81.7614, -129.831
2.71883, -1, -20.3124, 1.78988, 23.9258, 13.3158, 81.6674, -130.069
2.72836, -1, -20.5744, 1.65475, 23.9791, 13.3191, 81.5266, -130.427
2.73636, -1, -20.7489, 1.56477, 24.0145, 13.3213, 81.4325, -130.665
2.74461, -1, -20.9235, 1.4749, 24.0499, 13.3235, 81.3387, -130.903
2.75239, -1, -21.011, 1.38519, 24.0854, 13.3256, 81.2452, -131.141
2.76041, -1, -21.1861, 1.34032, 24.1032, 13.3279, 81.1513, -131.379
2.76857, -1, -21.3617, 1.25054, 24.1386, 13.329, 81.0573, -131.617
2.77582, -1, -21.5375, 1.1609, 24.1739, 13.3311, 81.0104, -131.736
2.78381, -1, -21.7136, 1.07129, 24.2093, 13.3333, 80.9167, -131.973
2.79321, -1, -21.9782, 0.936826, 24.2624, 13.3366, 80.7759, -132.329
2.79889, -1, -22.0665, 0.892036, 24.28, 13.3376, 80.729, -132.447
2.80788, -1, -22.243, 0.802497, 24.3154, 13.3397, 80.6356, -132.685
2.81481, -1, -22.4194, 0.712984, 24.3506, 13.342, 80.5418, -132.922
2.82381, -1, -22.5951, 0.623451, 24.3857, 13.3444, 80.4482, -133.159
2.8319, -1, -22.7705, 0.534018, 24.421, 13.3467, 80.3548, -133.395
2.83883, -1, -22.945, 0.444587, 24.4562, 13.3491, 80.261, -133.632
2.84781, -1, -23.1188, 0.355183, 24.4913, 13.3516, 80.1675, -133.869
2.85586, -1, -23.2923, 0.265855, 24.5264, 13.354, 80.0742, -134.106
2.86281, -1, -23.4654, 0.176595, 24.5616, 13.3565, 79.9806, -134.342
2.87183, -1, -23.6386, 0.0874597, 24.5967, 13.3588, 79.8873, -134.578
2.87882, -1, -23.8118, -0.001657, 24.6319, 13.3612, 79.7942, -134.814
2.88781, -1, -23.9852, -0.0906393, 24.667, 13.3637, 79.701, -135.051
2.89681, -1, -24.1589, -0.179585, 24.702, 13.3662, 79.6079, -135.286
2.90389, -1, -24.3329, -0.268545, 24.7371, 13.3686, 79.5149, -135.522
2.91288, -1, -24.5071, -0.357433, 24.7723, 13.3711, 79.4218, -135.758
2.91982, -1, -24.6818, -0.446336, 24.8073, 13.3735, 79.3288, -135.993
2.92791, -1, -24.8567, -0.535267, 24.8423, 13.3758, 79.2357, -136.229
2.93581, -1, -25.0318, -0.624126, 24.8774, 13.3782, 79.1428, -136.464
2.94383, -1, -25.2067, -0.71298, 24.9124, 13.3806, 79.0498, -136.699
2.95187, -1, -25.3812, -0.801734, 24.9474, 13.383, 78.957, -136.934
2.95983, -1, -25.5553, -0.890559, 24.9825, 13.3855, 78.8644, -137.169
2.96781, -1, -25.729, -0.979316, 25.0173, 13.388, 78.7716, -137.404
2.97587, -1, -25.9019, -1.06796, 25.0522, 13.3904, 78.6791, -137.639
2.98381, -1, -26.0744, -1.15667, 25.0873, 13.3928, 78.5868, -137.873
2.99188, -1, -26.2465, -1.24532, 25.1222, 13.3952, 78.494, -138.108
2.99986, -1, -26.4182, -1.33381, 25.1569, 13.3977, 78.4014, -138.342
3.00785, -1, -26.5901, -1.42223, 25.1919, 13.3999, 78.3092, -138.577
3.01588, -1, -26.7621, -1.51057, 25.2269, 13.4021, 78.2166, -138.811
3.02381, -1, -26.9343, -1.59875, 25.2617, 13.4044, 78.1242, -139.045
3.03181, -1, -27.1068, -1.68695, 25.2966, 13.4066, 78.0322, -139.279
3.03996, -1, -27.2794, -1.7752, 25.3315, 13.4088, 77.9399, -139.513
3.04781, -1, -27.4522, -1.86328, 25.3663, 13.411, 77.8478, -139.746
3.05581, -1, -27.6253, -1.95137, 25.401, 13.4131, 77.7559, -139.98
3.06388, -1, -27.7986, -2.03962, 25.4359, 13.4152, 77.6638, -140.213
3.07181, -1, -27.9719, -2.12764, 25.4707, 13.4173, 77.5717, -140.446
3.07982, -1, -28.1452, -2.21566, 25.5054, 13.4194, 77.4798, -140.68
3.08792, -1, -28.3183, -2.30373, 25.5403, 13.4214, 77.3877, -140.913
3.09593, -1, -28.491, -2.39182, 25.575, 13.4235, 77.2956, -141.146
3.10398, -1, -28.6634, -2.47975, 25.6097, 13.4256, 77.2035, -141.379
3.11192, -1, -28.8353, -2.56775, 25.6444, 13.4277, 77.1116, -141.612
3.11995, -1, -29.0063, -2.65574, 25.6791, 13.4299, 77.0197, -141.844
3.12799, -1, -29.1769, -2.74361, 25.7137, 13.4321, 76.9277, -142.077
3.13593, -1, -29.3475, -2.83143, 25.7484, 13.4341, 76.8361, -142.309
3.14381, -1, -29.5182, -2.91911, 25.7831, 13.4363, 76.7441, -142.542
3.15192, -1, -29.689, -3.00669, 25.8176, 13.4383, 76.6522, -142.774
3.15988, -1, -29.86, -3.09423, 25.8523, 13.4403, 76.5606, -143.007
3.16794, -1, -30.031, -3.18171, 25.8869, 13.4424, 76.4686, -143.239
3.17681, -1, -30.2019, -3.26921, 25.9215, 13.4445, 76.377, -143.471
3.18399, -1, -30.3731, -3.35662, 25.956, 13.4465, 76.2855, -143.702
3.19085, -1, -30.4588, -3.40032, 25.9733, 13.4475, 76.2397, -143.818
3.20108, -1, -30.7165, -3.53161, 26.0251, 13.4506, 76.1025, -144.166
3.20818, -1, -30.8883, -3.61896, 26.0596, 13.4527, 76.0112, -144.397
3.2148, -1, -30.9743, -3.66266, 26.0769, 13.4537, 75.9655, -144.513
3.22518, -1, -31.2318, -3.79371, 26.1287, 13.4567, 75.8284, -144.86
3.23092, -1, -31.3176, -3.8374, 26.1459, 13.4577, 75.7827, -144.976
3.24039, -1, -31.5741, -3.96836, 26.1976, 13.4609, 75.6459, -145.323
3.24924, -1, -31.7445, -4.05561, 26.232, 13.4631, 75.5546, -145.554
3.25487, -1, -31.8296, -4.09927, 26.2492, 13.4642, 75.509, -145.669
3.26446, -1, -31.9994, -4.23011, 26.3008, 13.4675, 75.3725, -146.015
3.27181, -1, -32.1689, -4.27365, 26.3181, 13.4686, 75.3269, -146.131
3.27887, -1, -32.3381, -4.36074, 26.3524, 13.4708, 75.2358, -146.362
3.28785, -1, -32.5077, -4.44773, 26.3867, 13.473, 75.145, -146.592
3.29581, -1, -32.6774, -4.53465, 26.4211, 13.4751, 75.054, -146.822
3.30286, -1, -32.8471, -4.62155, 26.4555, 13.4773, 74.9632, -147.052
3.31193, -1, -33.0168, -4.70845, 26.4897, 13.4794, 74.8724, -147.283
3.3198, -1, -33.1865, -4.79538, 26.524, 13.4816, 74.782, -147.513
3.32683, -1, -33.3564, -4.88222, 26.5583, 13.4838, 74.6912, -147.743
3.33583, -1, -33.5266, -4.96917, 26.5926, 13.4861, 74.6006, -147.973
3.34384, -1, -33.697, -5.05605, 26.6268, 13.4882, 74.5103, -148.203
3.3508, -1, -33.8672, -5.14281, 26.6611, 13.4905, 74.4195, -148.433
3.35983, -1, -34.0375, -5.22954, 26.6952, 13.4927, 74.329, -148.662
3.36781, -1, -34.2076, -5.31629, 26.7293, 13.495, 74.2387, -148.892
3.3748, -1, -34.3778, -5.40293, 26.7636, 13.4972, 74.148, -149.121
3.38379, -1, -34.5476, -5.48958, 26.7978, 13.4996, 74.0573, -149.35
3.39182, -1, -34.7168, -5.5763, 26.8318, 13.5019, 73.9669, -149.58
3.40079, -1, -34.8855, -5.66293, 26.866, 13.5043, 73.8763, -149.809
3.40779, -1, -35.054, -5.74946, 26.9002, 13.5068, 73.7857, -150.038
3.4158, -1, -35.2223, -5.83593, 26.9342, 13.5093, 73.6955, -150.267
3.42391, -1, -35.3906, -5.92228, 26.9683, 13.5117, 73.6051, -150.496
3.43183, -1, -35.5591, -6.00847, 27.0025, 13.5141, 73.5148, -150.725
3.44002, -1, -35.7277, -6.09473, 27.0364, 13.5164, 73.4245, -150.953
3.4478, -1, -35.8962, -6.1809, 27.0705, 13.5188, 73.3343, -151.182
3.45579, -1, -36.0647, -6.26699, 27.1046, 13.5213, 73.2438, -151.41
3.4646, -1, -36.2331, -6.35312, 27.1385, 13.5237, 73.1534, -151.639
3.47179, -1, -36.4018, -6.43937, 27.1724, 13.526, 73.0632, -151.867
3.47979, -1, -36.5707, -6.52559, 27.2065, 13.5284, 72.9726, -152.096
3.48871, -1, -36.7395, -6.61179, 27.2404, 13.5307, 72.8824, -152.324
3.49492, -1, -36.9085, -6.69795, 27.2743, 13.533, 72.7924, -152.552
3.50383, -1, -37.0775, -6.78412, 27.3083, 13.5352, 72.7022, -152.78
3.51574, -1, -37.3306, -6.91328, 27.3591, 13.5387, 72.5674, -153.122
3.51979, -1, -37.4148, -6.95629, 27.376, 13.5398, 72.5225, -153.235
3.5278, -1, -37.5829, -7.04238, 27.41, 13.542, 72.4326, -153.463
3.53586, -1, -37.7507, -7.12841, 27.444, 13.5443, 72.3427, -153.69
3.54381, -1, -37.9184, -7.2144, 27.4778, 13.5466, 72.2529, -153.918
3.5518, -1, -38.0857, -7.30029, 27.5116, 13.5488, 72.1632, -154.145
3.55986, -1, -38.2532, -7.38615, 27.5456, 13.551, 72.0734, -154.373
3.5678, -1, -38.4205, -7.47187, 27.5794, 13.5532, 71.9838, -154.6
3.57595, -1, -38.5877, -7.55755, 27.6132, 13.5552, 71.8944, -154.827
3.58386, -1, -38.755, -7.64324, 27.6471, 13.5573, 71.8046, -155.054
3.59183, -1, -38.9223, -7.72894, 27.6809, 13.5594, 71.7151, -155.281
3.60012, -1, -39.0896, -7.81454, 27.7146, 13.5615, 71.626, -155.508
3.60788, -1, -39.2571, -7.9002, 27.7484, 13.5635, 71.5365, -155.735
3.6159, -1, -39.4247, -7.98593, 27.7823, 13.5655, 71.4471, -155.962
3.62433, -1, -39.5923, -8.07149, 27.8159, 13.5675, 71.3578, -156.189
3.63137, -1, -39.6761, -8.15704, 27.8495, 13.5694, 71.2685, -156.415
3.63992, -1, -39.9276, -8.24251, 27.8833, 13.5713, 71.1791, -156.641
3.64845, -1, -40.0951, -8.32794, 27.917, 13.5733, 71.0897, -156.868
3.65583, -1, -40.2626, -8.4133, 27.9506, 13.5752, 71.0006, -157.094
3.66409, -1, -40.4298, -8.49867, 27.9844, 13.5772, 70.9111, -157.32
3.67271, -1, -40.5969, -8.58406, 28.018, 13.5792, 70.822, -157.547
3.67997, -1, -40.7639, -8.66945, 28.0515, 13.5812, 70.733, -157.772
3.68684, -1, -40.8472, -8.71211, 28.0683, 13.5822, 70.6884, -157.885
3.69688, -1, -41.0968, -8.84011, 28.1189, 13.5853, 70.5546, -158.224
3.70414, -1, -41.263, -8.92534, 28.1524, 13.5873, 70.4656, -158.45
3.71078, -1, -41.3461, -8.9679, 28.1691, 13.5883, 70.421, -158.563
3.72105, -1, -41.5954, -9.09563, 28.2196, 13.5912, 70.2871, -158.901
3.72829, -1, -41.7618, -9.18072, 28.2531, 13.5932, 70.1981, -159.126
3.73481, -1, -41.8449, -9.22326, 28.2699, 13.5942, 70.1536, -159.239
3.74535, -1, -42.0946, -9.35079, 28.3204, 13.5973, 70.02, -159.578
3.75086, -1, -42.1777, -9.39333, 28.3372, 13.5983, 69.9754, -159.69
3.76057, -1, -42.427, -9.52091, 28.3874, 13.6013, 69.8423, -160.028
3.76921, -1, -42.5102, -9.56339, 28.4041, 13.6023, 69.7976, -160.253
3.77487, -1, -42.6766, -9.6484, 28.4377, 13.6043, 69.7088, -160.366
3.78482, -1, -42.9263, -9.77586, 28.4878, 13.6074, 69.5757, -160.704
3.79178, -1, -43.0095, -9.81833, 28.5045, 13.6084, 69.5312, -160.816
3.79982, -1, -43.1758, -9.90328, 28.5381, 13.6105, 69.4424, -161.041
3.80682, -1, -43.342, -9.98822, 28.5715, 13.6126, 69.3537, -161.265
3.81579, -1, -43.508, -10.0731, 28.605, 13.6147, 69.2653, -161.49
3.82384, -1, -43.6739, -10.1581, 28.6385, 13.6167, 69.1765, -161.715
3.83081, -1, -43.8398, -10.243, 28.672, 13.6189, 69.088, -161.94
3.8398, -1, -44.0055, -10.3278, 28.7054, 13.621, 68.9997, -162.164
3.84778, -1, -44.1709, -10.4125, 28.7388, 13.6232, 68.911, -162.388
3.85584, -1, -44.3361, -10.4971, 28.7724, 13.6254, 68.8224, -162.613
3.86386, -1, -44.5013, -10.5817, 28.8057, 13.6276, 68.7338, -162.837
3.87178, -1, -44.6665, -10.6662, 28.839, 13.6298, 68.6452, -163.061
3.87987, -1, -44.8318, -10.7507, 28.8726, 13.632, 68.5566, -163.285
3.88779, -1, -44.9971, -10.8351, 28.906, 13.6342, 68.4682, -163.509
3.89579, -1, -45.1624, -10.9197, 28.9393, 13.6364, 68.3799, -163.733
3.9048, -1, -45.3277, -11.0042, 28.9728, 13.6386, 68.2913, -163.957
3.91182, -1, -45.493, -11.0887, 29.0061, 13.6409, 68.2029, -164.181
3.92082, -1, -45.6582, -11.1731, 29.0393, 13.6432, 68.1149, -164.405
3.92794, -1, -45.8236, -11.2576, 29.0726, 13.6455, 68.0264, -164.629
3.93581, -1, -45.9878, -11.3415, 29.1061, 13.6478, 67.938, -164.852
3.94383, -1, -46.1491, -11.4239, 29.1395, 13.6501, 67.85, -165.075
3.95185, -1, -46.3061, -11.5033, 29.1731, 13.6525, 67.7625, -165.296
3.95978, -1, -46.4563, -11.5782, 29.2066, 13.6548, 67.6774, -165.512
3.96778, -1, -46.5974, -11.6481, 29.2388, 13.6571, 67.5959, -165.717
3.97585, -1, -46.7269, -11.7113, 29.2686, 13.6594, 67.5213, -165.907
3.98383, -1, -46.8418, -11.7674, 29.295, 13.6614, 67.4544, -166.075
3.99178, -1, -46.9404, -11.8165, 29.317, 13.663, 67.3986, -166.217
3.99985, -1, -47.0229, -11.8593, 29.3336, 13.6643, 67.354, -166.33
4.00781, -1, -47.0899, -11.896, 29.3448, 13.6651, 67.3205, -166.414
4.01579, -1, -47.1422, -11.9254, 29.3519, 13.6655, 67.2973, -166.473
4.0239, -1, -47.1809, -11.9474, 29.3558, 13.6657, 67.2824, -166.51
4.03177, -1, -47.2085, -11.9628, 29.3576, 13.6658, 67.2736, -166.533
4.03978, -1, -47.2265, -11.9727, 29.3584, 13.6659, 67.2689, -166.545
4.04787, -1, -47.2372, -11.9785, 29.3587, 13.6659, 67.2665, -166.55
4.0558, -1, -47.2428, -11.9814, 29.3589, 13.666, 67.2654, -166.553
4.06383, 2, -47.2448, -11.9827, 29.3591, 13.666, 67.2649, -166.554
4.07184, 2, -47.2448, -11.9832, 29.3592, 13.6661, 67.2647, -166.555
4.07981, 2, -47.2446, -11.9834, 29.3592, 13.6661, 67.2646, -166.555
4.08778, 2, -47.2445, -11.9835, 29.3593, 13.6661, 67.2645, -166.555
4.09589, 2, -47.245, -11.9836, 29.3593, 13.6661, 67.2645, -166.555
4.10396, 2, -47.2459, -11.9839, 29.3593, 13.6661, 67.2645, -166.555
4.11198, 2, -47.2472, -11.9844, 29.3594, 13.6661, 67.2645, -166.555
4.12001, 2, -47.2489, -11.9851, 29.3594, 13.6661, 67.2645, -166.555
4.12788, 2, -47.2505, -11.986, 29.3593, 13.6661, 67.2645, -166.555
4.13589, 2, -47.2519, -11.9868, 29.3593, 13.6661, 67.2645, -166.555
4.14401, 2, -47.2528, -11.9875, 29.3593, 13.6661, 67.2644, -166.555
4.15178, 2, -47.2532, -11.9878, 29.3593, 13.6661, 67.2645, -166.555
4.15981, 2, -47.2534, -11.988, 29.3594, 13.666, 67.2645, -166.555
4.16788, 2, -47.2534, -11.9881, 29.3594, 13.6661, 67.2645, -166.555
4.1759, 2, -47.2532, -11.9881, 29.3594, 13.666, 67.2645, -166.555
4.18397, 2, -47.2527, -11.9881, 29.3594, 13.666, 67.2645, -166.555
4.1924, 2, -47.2522, -11.9881, 29.3594, 13.6661, 67.2645, -166.555
4.20006, 2, -47.2519, -11.988, 29.3594, 13.6661, 67.2645, -166.555
4.20683, 2, -47.2518, -11.988, 29.3594, 13.6661, 67.2645, -166.555
4.21661, 2, -47.2517, -11.9881, 29.3594, 13.6661, 67.2645, -166.555
4.22427, 2, -47.2518, -11.9883, 29.3594, 13.6661, 67.2645, -166.555
4.2323, 2, -47.2521, -11.9886, 29.3594, 13.666, 67.2645, -166.555
4.2408, 2, -47.2527, -11.989, 29.3594, 13.666, 67.2645, -166.555
4.24836, 2, -47.2533, -11.9893, 29.3594, 13.666, 67.2645, -166.555
4.25635, 2, -47.2536, -11.9894, 29.3594, 13.666, 67.2645, -166.555
4.26473, 2, -47.2537, -11.9895, 29.3594, 13.666, 67.2645, -166.555
4.27231, 2, -47.2537, -11.9895, 29.3594, 13.666, 67.2645, -166.555
4.27977, 2, -47.2536, -11.9895, 29.3594, 13.6661, 67.2645, -166.555
4.28782, 2, -47.2535, -11.9895, 29.3594, 13.6661, 67.2645, -166.555
4.29578, 2, -47.2531, -11.9894, 29.3594, 13.6661, 67.2645, -166.555
4.30383, 2, -47.2528, -11.9893, 29.3594, 13.666, 67.2645, -166.555
4.31182, 2, -47.2525, -11.9893, 29.3594, 13.666, 67.2645, -166.555
4.31977, 2, -47.2523, -11.9893, 29.3594, 13.666, 67.2645, -166.555
4.32777, 2, -47.2521, -11.9894, 29.3594, 13.6661, 67.2645, -166.555
4.33583, 2, -47.252, -11.9894, 29.3594, 13.666, 67.2645, -166.555
4.34385, 2, -47.252, -11.9895, 29.3594, 13.666, 67.2645, -166.555
4.35177, 2, -47.2521, -11.9895, 29.3594, 13.666, 67.2645, -166.555
4.35982, 2, -47.2521, -11.9896, 29.3594, 13.666, 67.2645, -166.555
4.36777, 2, -47.2521, -11.9896, 29.3594, 13.666, 67.2645, -166.555
4.37577, 2, -47.2522, -11.9896, 29.3594, 13.666, 67.2645, -166.555
4.3839, 2, -47.2521, -11.9896, 29.3594, 13.666, 67.2645, -166.555
4.39176, 2, -47.2521, -11.9895, 29.3594, 13.666, 67.2645, -166.555
4.39976, 2, -47.252, -11.9894, 29.3594, 13.666, 67.2645, -166.555
4.40877, 2, -47.2519, -11.9894, 29.3594, 13.666, 67.2645, -166.555
4.41581, 2, -47.2518, -11.9893, 29.3594, 13.666, 67.2645, -166.555
4.42476, 2, -47.2517, -11.9893, 29.3594, 13.666, 67.2645, -166.555
4.43183, 2, -47.2516, -11.9893, 29.3594, 13.666, 67.2645, -166.555
4.43978, 2, -47.2515, -11.9893, 29.3594, 13.666, 67.2645, -166.555
4.44777, 2, -47.2514, -11.9893, 29.3594, 13.666, 67.2646, -166.555
4.45585, 2, -47.2514, -11.9894, 29.3594, 13.666, 67.2646, -166.555
4.46382, 2, -47.2513, -11.9894, 29.3594, 13.666, 67.2646, -166.555
4.47176, 2, -47.2512, -11.9894, 29.3594, 13.666, 67.2646, -166.555
4.47983, 2, -47.2512, -11.9894, 29.3594, 13.666, 67.2646, -166.555
4.48778, 2, -47.2511, -11.9893, 29.3594, 13.666, 67.2646, -166.555
4.49578, 2, -47.2511, -11.9893, 29.3594, 13.666, 67.2646, -166.555
4.50388, 2, -47.251, -11.9892, 29.3594, 13.6659, 67.2646, -166.555
4.51179, 2, -47.2509, -11.9892, 29.3594, 13.6659, 67.2646, -166.555
4.51976, 2, -47.2508, -11.9891, 29.3594, 13.666, 67.2646, -166.555
4.52783, 2, -47.2506, -11.9891, 29.3594, 13.666, 67.2646, -166.555
4.53577, 2, -47.2506, -11.9891, 29.3594, 13.6659, 67.2646, -166.555
4.54382, 2, -47.2505, -11.9891, 29.3594, 13.666, 67.2647, -166.555
4.55196, 2, -47.2505, -11.9891, 29.3594, 13.6659, 67.2647, -166.555
4.55976, 2, -47.2504, -11.9891, 29.3594, 13.6659, 67.2647, -166.555
4.56776, 2, -47.2503, -11.9891, 29.3594, 13.666, 67.2646, -166.555
4.57585, 2, -47.2501, -11.9891, 29.3594, 13.666, 67.2647, -166.555
4.58386, 2, -47.25, -11.9891, 29.3594, 13.6659, 67.2647, -166.555
4.59176, 2, -47.2499, -11.9891, 29.3594, 13.6659, 67.2647, -166.555
4.59987, 2, -47.2498, -11.989, 29.3594, 13.6659, 67.2647, -166.555
4.60787, 2, -47.2497, -11.989, 29.3594, 13.6659, 67.2647, -166.555
4.61587, 2, -47.2496, -11.9889, 29.3594, 13.6659, 67.2647, -166.555
4.62399, 2, -47.2495, -11.9888, 29.3594, 13.6659, 67.2647, -166.555
4.63186, 2, -47.2494, -11.9888, 29.3594, 13.6659, 67.2647, -166.555
4.63986, 2, -47.2493, -11.9888, 29.3594, 13.666, 67.2647, -166.555
4.64795, 2, -47.2491, -11.9888, 29.3594, 13.6659, 67.2647, -166.555
4.65578, 2, -47.2491, -11.9888, 29.3594, 13.6659, 67.2647, -166.555
4.66385, 2, -47.249, -11.9888, 29.3594, 13.6658, 67.2647, -166.555
4.67186, 2, -47.2489, -11.9888, 29.3594, 13.6659, 67.2647, -166.555
4.68017, 2, -47.2489, -11.9888, 29.3594, 13.6658, 67.2647, -166.555
4.68681, 2, -47.2488, -11.9888, 29.3594, 13.6659, 67.2648, -166.555
4.69635, 2, -47.2488, -11.9887, 29.3594, 13.6659, 67.2648, -166.555
4.70409, 2, -47.2487, -11.9887, 29.3594, 13.6659, 67.2648, -166.555
4.71082, 2, -47.2487, -11.9887, 29.3594, 13.6659, 67.2648, -166.555
4.72057, 2, -47.2485, -11.9886, 29.3594, 13.6658, 67.2648, -166.555
4.72834, 2, -47.2484, -11.9885, 29.3594, 13.6658, 67.2648, -166.555
4.73627, 2, -47.2483, -11.9885, 29.3594, 13.6658, 67.2647, -166.555
4.74479, 2, -47.2483, -11.9885, 29.3594, 13.6657, 67.2647, -166.555
4.75234, 2, -47.2483, -11.9885, 29.3594, 13.6658, 67.2647, -166.555
4.76031, 2, -47.2482, -11.9885, 29.3594, 13.6658, 67.2648, -166.555
4.76859, 2, -47.2482, -11.9885, 29.3594, 13.6658, 67.2648, -166.555
4.77657, 2, -47.2482, -11.9885, 29.3594, 13.6658, 67.2648, -166.555
4.78381, 2, -47.2482, -11.9885, 29.3594, 13.6658, 67.2648, -166.555
4.79263, 2, -47.2482, -11.9885, 29.3594, 13.6658, 67.2648, -166.555
4.79975, 2, -47.2481, -11.9884, 29.3594, 13.6658, 67.2649, -166.555
4.80775, 2, -47.2481, -11.9884, 29.3594, 13.6658, 67.2649, -166.555
4.81581, 2, -47.2481, -11.9883, 29.3594, 13.6658, 67.2648, -166.555
4.82381, 2, -47.248, -11.9882, 29.3594, 13.6657, 67.2648, -166.554
4.83175, 2, -47.248, -11.9882, 29.3594, 13.6657, 67.2648, -166.554
4.8398, 2, -47.2479, -11.9882, 29.3594, 13.6657, 67.2648, -166.554
4.84778, 2, -47.2478, -11.9881, 29.3594, 13.6656, 67.2648, -166.554
4.85576, 2, -47.2477, -11.9881, 29.3594, 13.6656, 67.2648, -166.554
4.86386, 2, -47.2477, -11.9881, 29.3594, 13.6656, 67.2648, -166.554
4.87175, 2, -47.2477, -11.9881, 29.3594, 13.6656, 67.2648, -166.554
4.87975, 2, -47.2476, -11.9881, 29.3594, 13.6656, 67.2649, -166.554
4.88783, 2, -47.2476, -11.9881, 29.3594, 13.6656, 67.2649, -166.554
4.89576, 2, -47.2476, -11.9881, 29.3594, 13.6656, 67.2649, -166.554
4.90381, 2, -47.2476, -11.9881, 29.3594, 13.6656, 67.2649, -166.554
4.91358, 2, -47.2476, -11.988, 29.3594, 13.6656, 67.2649, -166.554
4.91978, 2, -47.2475, -11.988, 29.3594, 13.6656, 67.2649, -166.554
4.92875, 2, -47.2475, -11.9879, 29.3594, 13.6656, 67.2649, -166.554
4.93583, 2, -47.2474, -11.9879, 29.3594, 13.6656, 67.2649, -166.554
4.94382, 2, -47.2473, -11.9878, 29.3594, 13.6655, 67.265, -166.554
4.95175, 2, -47.2473, -11.9878, 29.3594, 13.6655, 67.2649, -166.554
4.95981, 2, -47.2472, -11.9878, 29.3594, 13.6655, 67.265, -166.554
4.96775, 2, -47.2471, -11.9878, 29.3594, 13.6655, 67.265, -166.554
4.97576, 2, -47.2471, -11.9878, 29.3594, 13.6655, 67.265, -166.554
4.98387, 2, -47.2471, -11.9878, 29.3594, 13.6655, 67.2649, -166.554
4.99175, 2, -47.2471, -11.9878, 29.3594, 13.6655, 67.265, -166.554
4.99975, 2, -47.2471, -11.9877, 29.3594, 13.6654, 67.265, -166.554
5.00781, 2, -47.2471, -11.9877, 29.3594, 13.6654, 67.265, -166.554
5.0158, 2, -47.247, -11.9877, 29.3594, 13.6654, 67.265, -166.554
5.0238, 2, -47.247, -11.9876, 29.3594, 13.6654, 67.265, -166.554
5.03181, 2, -47.2469, -11.9876, 29.3594, 13.6654, 67.2651, -166.554
5.03975, 2, -47.2468, -11.9875, 29.3594, 13.6654, 67.265, -166.554
5.04774, 2, -47.2467, -11.9875, 29.3594, 13.6654, 67.265, -166.554
5.05584, 2, -47.2466, -11.9875, 29.3594, 13.6654, 67.2651, -166.554
5.06576, 2, -47.2465, -11.9875, 29.3594, 13.6654, 67.265, -166.554
5.07175, 2, -47.2465, -11.9874, 29.3594, 13.6654, 67.265, -166.554
5.07981, 2, -47.2465, -11.9874, 29.3594, 13.6653, 67.265, -166.554
5.08778, 2, -47.2464, -11.9874, 29.3594, 13.6653, 67.2651, -166.554
5.09521, 2, -47.2464, -11.9874, 29.3594, 13.6653, 67.2651, -166.554
5.10322, 2, -47.2464, -11.9874, 29.3594, 13.6653, 67.2651, -166.554
5.11186, 2, -47.2464, -11.9874, 29.3594, 13.6653, 67.2651, -166.554
5.11984, 2, -47.2464, -11.9873, 29.3594, 13.6653, 67.265, -166.554
5.12791, 2, -47.2464, -11.9873, 29.3594, 13.6653, 67.2651, -166.554
5.13608, 2, -47.2463, -11.9873, 29.3594, 13.6653, 67.2651, -166.554
5.14353, 4, -47.2462, -11.9872, 29.3593, 13.6652, 67.2651, -166.554
5.15192, 4, -47.2461, -11.9872, 29.3594, 13.6652, 67.2651, -166.554
5.15976, 4, -47.2461, -11.9872, 29.3594, 13.6652, 67.2651, -166.554
5.16778, 4, -47.246, -11.9872, 29.3594, 13.6651, 67.2652, -166.554
5.17585, 4, -47.246, -11.9872, 29.3593, 13.6651, 67.2652, -166.554
5.184, 4, -47.246, -11.9871, 29.3594, 13.6651, 67.2652, -166.554
5.1908, 4, -47.2459, -11.9871, 29.3594, 13.6651, 67.2652, -166.554
5.20014, 4, -47.2459, -11.9871, 29.3594, 13.6651, 67.2652, -166.554
5.20675, 4, -47.2459, -11.9871, 29.3594, 13.6651, 67.2652, -166.554
5.2161, 4, -47.2458, -11.9871, 29.3594, 13.6651, 67.2652, -166.554
5.22274, 4, -47.2458, -11.987, 29.3594, 13.6651, 67.2652, -166.554
5.23231, 4, -47.2457, -11.987, 29.3594, 13.665, 67.2652, -166.554
5.24057, 4, -47.2457, -11.9869, 29.3594, 13.6651, 67.2652, -166.553
5.25549, 4, -47.2456, -11.9869, 29.3594, 13.6651, 67.2652, -166.553
5.2582, 4, -47.2456, -11.9869, 29.3593, 13.6651, 67.2652, -166.553
5.26484, 4, -47.2455, -11.9869, 29.3593, 13.665, 67.2652, -166.553
5.27282, 4, -47.2455, -11.9868, 29.3594, 13.665, 67.2653, -166.553
5.28105, 4, -47.2454, -11.9868, 29.3594, 13.665, 67.2653, -166.553
5.28852, 4, -47.2454, -11.9868, 29.3594, 13.665, 67.2653, -166.553
5.30163, 4, -47.2454, -11.9868, 29.3594, 13.665, 67.2653, -166.553
5.30473, 4, -47.2454, -11.9868, 29.3594, 13.665, 67.2653, -166.553
5.31383, 4, -47.2454, -11.9868, 29.3594, 13.6649, 67.2653, -166.553
5.31901, 4, -47.2454, -11.9868, 29.3594, 13.6649, 67.2653, -166.553
5.33085, 4, -47.2453, -11.9867, 29.3593, 13.6649, 67.2653, -166.553
5.33595, 4, -47.2453, -11.9867, 29.3593, 13.665, 67.2653, -166.553
5.34599, 4, -47.2453, -11.9867, 29.3593, 13.665, 67.2653, -166.553
5.35392, 4, -47.2452, -11.9866, 29.3593, 13.6649, 67.2653, -166.553
5.35994, 4, -47.2452, -11.9866, 29.3593, 13.6649, 67.2653, -166.553
5.37317, 4, -47.2451, -11.9866, 29.3593, 13.6649, 67.2653, -166.553
5.37588, 4, -47.2451, -11.9866, 29.3593, 13.6649, 67.2653, -166.553
5.38708, 4, -47.245, -11.9866, 29.3594, 13.6648, 67.2654, -166.553
5.3919, 4, -47.2449, -11.9866, 29.3594, 13.6648, 67.2653, -166.553
5.40022, 4, -47.245, -11.9866, 29.3594, 13.6648, 67.2653, -166.553
5.40788, 4, -47.2454, -11.9868, 29.3595, 13.6649, 67.2654, -166.553
5.41802, 4, -47.2482, -11.9889, 29.3617, 13.6668, 67.266, -166.553
5.4269, 4, -47.2525, -11.9933, 29.3672, 13.6764, 67.2684, -166.552
5.43438, 4, -47.2596, -12.0022, 29.3799, 13.7014, 67.2747, -166.548
5.43989, 5, -47.2647, -12.0088, 29.3903, 13.722, 67.2804, -166.543
5.44857, 5, -47.2792, -12.0282, 29.4231, 13.7884, 67.2989, -166.529
5.45958, 5, -47.3158, -12.0771, 29.5139, 13.9778, 67.3523, -166.486
5.46395, 5, -47.333, -12.0996, 29.5585, 14.0721, 67.3783, -166.464
5.47239, 5, -47.3763, -12.155, 29.673, 14.3169, 67.4458, -166.408
5.47989, 5, -47.4322, -12.2252, 29.8237, 14.6437, 67.5351, -166.333
5.48706, 5, -47.5009, -12.3106, 30.0127, 15.0547, 67.6459, -166.238
5.49922, 5, -47.5818, -12.4111, 30.3671, 15.8184, 67.8492, -166.064
5.50494, 5, -47.6743, -12.5255, 30.502, 16.1063, 67.9251, -165.999
5.51449, 5, -47.8311, -12.7197, 30.9498, 17.0453, 68.1689, -165.789
5.51998, 5, -47.8871, -12.7895, 31.1105, 17.3773, 68.2535, -165.716
5.52822, 5, -48.0033, -12.9348, 31.4449, 18.0574, 68.4249, -165.567
5.54026, 5, -48.1231, -13.0853, 31.7904, 18.7492, 68.5958, -165.344
5.54395, 5, -48.2442, -13.2377, 32.1419, 19.4431, 68.7643, -165.271
5.55198, 5, -48.364, -13.3882, 32.4947, 20.1275, 68.9287, -165.124
5.55986, 5, -48.4789, -13.534, 32.8449, 20.7937, 69.0892, -164.973
5.56956, 6, -48.5844, -13.6722, 33.1858, 21.4303, 69.2479, -164.808
5.57794, 6, -48.676, -13.8, 33.5126, 22.0267, 69.4069, -164.615
5.58589, 7, -48.7495, -13.9183, 33.8208, 22.5779, 69.5692, -164.38
5.59195, 7, -48.8019, -14.0287, 34.1092, 23.0796, 69.7368, -164.09
5.60051, 7, -48.8323, -14.1312, 34.3772, 23.5341, 69.9114, -163.736
5.60799, 8, -48.8416, -14.2242, 34.6263, 23.9484, 70.0947, -163.316
5.61603, 8, -48.8323, -14.3077, 34.8613, 24.3311, 70.2864, -162.831
5.62409, 9, -48.8074, -14.3833, 35.0852, 24.6926, 70.4875, -162.292
5.63206, 9, -48.77, -14.4533, 35.3015, 25.0424, 70.6972, -161.709
5.64, 10, -48.7221, -14.5196, 35.5149, 25.3885, 70.9155, -161.098
5.64809, 10, -48.6648, -14.5838, 35.7275, 25.7357, 71.1408, -160.469
5.65604, 11, -48.5991, -14.6468, 35.9399, 26.0867, 71.3719, -159.83
5.66421, 11, -48.527, -14.7093, 36.1528, 26.4429, 71.6062, -159.191
5.67312, 11, -48.4502, -14.7719, 36.3652, 26.8056, 71.8427, -158.551
5.68567, 12, -48.3311, -14.8657, 36.68, 27.3626, 72.2002, -157.589
5.68884, 13, -48.2911, -14.8962, 36.7843, 27.5519, 72.3202, -157.267
5.69637, 13, -48.2111, -14.9553, 36.9916, 27.9364, 72.5615, -156.621
5.70456, 13, -48.1297, -15.0132, 37.1966, 28.3281, 72.8052, -155.971
5.71248, 14, -48.0454, -15.0721, 37.4005, 28.7262, 73.0513, -155.316
5.72054, 15, -47.9577, -15.1321, 37.604, 29.1287, 73.2993, -154.662
5.73068, 15, -47.8664, -15.1916, 37.8056, 29.5334, 73.5472, -154.009
5.73668, 16, -47.7701, -15.2502, 38.0052, 29.9384, 73.7936, -153.359
5.74505, 16, -47.667, -15.3092, 38.2034, 30.3415, 74.0372, -152.713
5.75253, 17, -47.5568, -15.37, 38.3987, 30.7415, 74.2763, -152.073
5.76066, 17, -47.4412, -15.4324, 38.5902, 31.1371, 74.5097, -151.438
5.77757, 18, -47.3208, -15.5274, 38.8724, 31.7216, 74.9577, -150.189
5.77948, 18, -47.1955, -15.5596, 38.9651, 31.9143, 74.9577, -150.189
5.78465, 19, -47.0648, -15.6256, 39.1482, 32.2975, 75.1726, -149.577
5.79425, 19, -46.9284, -15.6949, 39.3295, 32.6788, 75.3825, -148.97
5.80062, 19, -46.8581, -15.7306, 39.4198, 32.8691, 75.4858, -148.37
5.80786, 20, -46.7135, -15.8035, 39.5995, 33.249, 75.6892, -148.073
5.81691, 20, -46.4878, -15.9156, 39.8645, 33.8172, 75.9864, -147.192
5.82394, 21, -46.4105, -15.9539, 39.9518, 34.0062, 76.0835, -146.901
5.83429, 22, -46.1724, -16.0717, 40.2112, 34.5718, 76.3683, -146.039
5.8419, 22, -46.0084, -16.1522, 40.381, 34.9466, 76.5527, -145.472
5.84988, 23, -45.8397, -16.2339, 40.5476, 35.3189, 76.7329, -144.911
5.85588, 23, -45.7532, -16.2753, 40.6298, 35.5038, 76.8212, -144.632
5.86681, 24, -45.4828, -16.4032, 40.8723, 36.0528, 77.0787, -143.803
5.87087, 24, -45.3889, -16.447, 40.9511, 36.2332, 77.1618, -143.53
5.87996, 25, -45.1956, -16.536, 41.1052, 36.5887, 77.3234, -142.987
5.88792, 25, -44.9956, -16.6257, 41.2551, 36.9359, 77.4784, -142.449
5.90197, 26, -44.5753, -16.8069, 41.5415, 37.6044, 77.7691, -141.385
5.90405, 26, -44.5753, -16.8069, 41.5415, 37.6044, 77.7691, -141.385
5.91234, 27, -44.3543, -16.8994, 41.6771, 37.926, 77.9065, -140.859
5.91894, 27, -44.1264, -16.9921, 41.8072, 38.2396, 78.0391, -140.334
5.92777, 27, -43.8922, -17.0845, 41.9314, 38.5456, 78.1681, -139.811
5.93592, 28, -43.6509, -17.1762, 42.0493, 38.8441, 78.2941, -139.288
5.94687, 29, -43.2752, -17.3113, 42.2134, 39.2768, 78.4777, -138.505
5.95566, 29, -43.0164, -17.3991, 42.3141, 39.5556, 78.5968, -137.983
5.96391, 30, -42.751, -17.4845, 42.4076, 39.8263, 78.7128, -137.461
5.96786, 30, -42.6154, -17.5263, 42.4516, 39.9585, 78.7701, -137.2
5.977, 31, -42.338, -17.6079, 42.5341, 40.2169, 78.8826, -136.68
5.98728, 31, -41.9071, -17.7258, 42.6446, 40.5889, 79.0464, -135.899
5.9919, 31, -41.7598, -17.7639, 42.6779, 40.7087, 79.0999, -135.638
6.00133, 32, -41.4603, -17.8382, 42.7396, 40.9419, 79.2046, -135.118
6.00786, 32, -41.1542, -17.9096, 42.7944, 41.1667, 79.3067, -134.6
6.01586, 33, -40.8417, -17.9777, 42.8422, 41.3836, 79.4064, -134.083
6.02493, 34, -40.5221, -18.0429, 42.8829, 41.5921, 79.5031, -133.566
6.03189, 34, -40.1971, -18.1057, 42.9162, 41.7924, 79.5972, -133.051
6.04001, 34, -39.8675, -18.1658, 42.9423, 41.9847, 79.6889, -132.536
6.04785, 35, -39.5322, -18.2227, 42.9613, 42.1695, 79.7778, -132.023
6.05783, 36, -39.1908, -18.2762, 42.9733, 42.3468, 79.8647, -131.511
6.06399, 36, -38.842, -18.3264, 42.9783, 42.5161, 79.9492, -131
6.07504, 37, -38.306, -18.3954, 42.9734, 42.756, 80.072, -130.236
6.07985, 37, -38.1245, -18.4167, 42.9684, 42.8322, 80.1119, -129.983
6.08867, 37, -37.7573, -18.4563, 42.9531, 42.9791, 80.1905, -129.476
6.09703, 38, -37.3852, -18.4925, 42.9312, 43.1186, 80.2666, -128.971
6.1049, 39, -37.0085, -18.5253, 42.9027, 43.2504, 80.3409, -128.468
6.11197, 39, -36.6271, -18.5546, 42.8674, 43.3751, 80.4125, -127.967
6.12003, 40, -36.2408, -18.5801, 42.8253, 43.4924, 80.4829, -127.468
6.12936, 40, -35.8485, -18.6019, 42.7768, 43.6025, 80.5509, -126.971
6.13598, 41, -35.4504, -18.6197, 42.7217, 43.7055, 80.6177, -126.475
6.14482, 41, -35.0466, -18.6336, 42.6601, 43.8008, 80.6815, -125.981
6.15294, 42, -34.638, -18.6442, 42.5921, 43.8896, 80.7444, -125.49
6.16017, 42, -34.2261, -18.6514, 42.5176, 43.9708, 80.8043, -125.001
6.17184, 43, -33.6026, -18.6563, 42.3943, 44.0795, 80.8921, -124.272
6.1774, 43, -33.3927, -18.6563, 42.3502, 44.1122, 80.9201, -124.03
6.18416, 44, -32.9686, -18.6534, 42.2577, 44.1726, 80.9748, -123.547
6.19223, 44, -32.5383, -18.6468, 42.1595, 44.2251, 81.029, -123.068
6.20033, 45, -32.1015, -18.6365, 42.0555, 44.2706, 81.0806, -122.591
6.20903, 45, -31.6592, -18.6224, 41.9455, 44.3092, 81.1308, -122.116
6.21755, 46, -31.2133, -18.6048, 41.8294, 44.34, 81.1799, -121.643
6.22526, 46, -30.7656, -18.5839, 41.7075, 44.3629, 81.2263, -121.172
6.23525, 47, -30.3153, -18.5591, 41.5798, 44.3781, 81.2713, -120.705
6.24127, 47, -29.8608, -18.53, 41.4461, 44.3861, 81.316, -120.239
6.24954, 47, -29.3999, -18.4963, 41.3065, 44.3874, 81.3589, -119.775
6.25726, 48, -28.9326, -18.4585, 41.1607, 44.38, 81.4007, -119.312
6.26477, 48, -28.4598, -18.4163, 41.009, 44.364, 81.4425, -118.852
6.27086, 49, -28.2219, -18.3935, 40.9309, 44.3528, 81.4635, -118.623
6.28293, 50, -27.505, -18.3185, 40.6875, 44.3042, 81.5245, -117.936
6.29022, 50, -27.0232, -18.2623, 40.517, 44.2602, 81.5655, -117.479
6.29712, 50, -26.5356, -18.2005, 40.34, 44.2074, 81.6079, -117.023
6.30761, 51, -26.0401, -18.1332, 40.1566, 44.1441, 81.6502, -116.568
6.31187, 51, -25.7896, -18.0974, 40.0622, 44.109, 81.6714, -116.341
6.32197, 52, -25.0304, -17.9821, 39.7677, 43.9882, 81.7371, -115.661
6.32956, 53, -24.7761, -17.9411, 39.6664, 43.9427, 81.7595, -115.208
6.33593, 53, -24.2662, -17.8549, 39.4593, 43.8443, 81.8042, -114.981
6.34388, 54, -23.7523, -17.7627, 39.2444, 43.7358, 81.8498, -114.529
6.3519, 54, -23.2318, -17.6641, 39.0219, 43.6168, 81.8981, -114.078
6.36174, 55, -22.4353, -17.5045, 38.6753, 43.4179, 81.9729, -113.4
6.37087, 55, -21.8971, -17.3901, 38.4344, 43.2707, 82.0263, -112.948
6.37589, 56, -21.6271, -17.3308, 38.3116, 43.1927, 82.054, -112.722
6.38664, 56, -20.813, -17.1443, 37.9331, 42.9411, 82.1385, -112.045
6.39191, 57, -20.5392, -17.0793, 37.8033, 42.8514, 82.168, -111.819
6.39991, 57, -19.9847, -16.9451, 37.5391, 42.6634, 82.228, -111.368
6.40792, 58, -19.4208, -16.8048, 37.268, 42.4633, 82.2891, -110.918
6.41831, 58, -18.8502, -16.6582, 36.9901, 42.1395, 82.3852, -110.243
6.42607, 59, -17.9888, -16.4272, 36.5611, 41.9079, 82.4518, -109.793
6.43194, 59, -17.7003, -16.3477, 36.4145, 41.7873, 82.4865, -109.568
6.44001, 60, -17.1177, -16.1855, 36.1167, 41.5363, 82.5571, -109.119
6.44833, 60, -16.5248, -16.0185, 35.8124, 41.2725, 82.6306, -108.669
6.45876, 61, -15.6207, -15.7579, 35.3467, 40.8522, 82.7432, -107.995
6.46292, 61, -15.3174, -15.6687, 35.1887, 40.7057, 82.7818, -107.771
6.47399, 62, -14.7089, -15.4873, 34.8692, 40.2476, 82.8996, -107.097
6.47987, 62, -14.095, -15.3018, 34.5446, 40.0884, 82.94, -106.873
6.48885, 63, -13.4718, -15.1109, 34.2165, 39.7604, 83.022, -106.424
6.49591, 63, -12.8393, -14.9135, 33.8834, 39.4186, 83.1066, -105.975
6.50297, 64, -12.2003, -14.7106, 33.5454, 39.063, 83.1944, -105.525
6.51144, 64, -11.5575, -14.5025, 33.2012, 38.6937, 83.2857, -105.074
6.52079, 65, -10.9081, -14.2874, 32.8507, 38.3096, 83.3816, -104.621
6.53143, 65, -9.91318, -13.9506, 32.3123, 37.703, 83.5355, -103.939
6.53586, 66, -9.57651, -13.835, 32.1302, 37.4918, 83.5896, -103.71
6.54716, 66, -8.89738, -13.5986, 31.7618, 37.0561, 83.7031, -103.022
6.55193, 67, -8.21346, -13.3548, 31.387, 36.6023, 83.823, -102.791
6.56087, 67, -7.52281, -13.1037, 31.0048, 36.1305, 83.9499, -102.329
6.56791, 68, -6.82311, -12.8449, 30.6168, 35.6422, 84.0843, -101.865
6.57588, 68, -6.11578, -12.5795, 30.225, 35.139, 84.2256, -101.398
6.58502, 69, -5.40383, -12.3091, 29.8296, 34.6237, 84.3733, -100.932
6.59192, 69, -4.68795, -12.0319, 29.4316, 34.0971, 84.5259, -100.463
6.59999, 70, -3.96532, -11.7485, 29.033, 33.5621, 84.6831, -99.9939
6.61134, 70, -2.86663, -11.3088, 28.4375, 32.7394, 84.9264, -99.287
6.61598, 71, -2.49669, -11.158, 28.2393, 32.4593, 85.0099, -99.0507
6.62432, 71, -1.75115, -10.8515, 27.8409, 31.8886, 85.182, -98.5767
6.63197, 72, -0.997637, -10.538, 27.4401, 31.3025, 85.363, -98.0991
6.64004, 72, -0.236897, -10.2192, 27.0363, 30.6975, 85.5536, -97.6185
6.65019, 73, 0.530084, -9.89379, 26.6292, 30.0766, 85.754, -97.1342
6.6561, 73, 1.30297, -9.56043, 26.2197, 29.4417, 85.9636, -96.6478
6.66593, 74, 2.08107, -9.22024, 25.809, 28.7946, 86.1821, -96.1591
6.67204, 74, 2.86213, -8.87454, 25.4, 28.1387, 86.4088, -95.6682
6.68217, 75, 3.64527, -8.52308, 24.9953, 27.4754, 86.6425, -95.1758
6.68818, 75, 4.43069, -8.16436, 24.5954, 26.8074, 86.8818, -94.6825
6.6986, 76, 5.21784, -7.79996, 24.2011, 26.1396, 87.1268, -94.1888
6.70453, 76, 6.00535, -7.42961, 23.8124, 25.4706, 87.3772, -93.6934
6.72223, 77, 7.58101, -6.66973, 23.0517, 24.1364, 87.8975, -92.6998
6.72562, 77, 7.97616, -6.47463, 22.8641, 23.8024, 88.033, -92.4506
6.73619, 78, 9.16335, -5.87518, 22.307, 22.7947, 88.4557, -91.7
6.74241, 78, 9.16335, -5.87518, 22.307, 22.7947, 88.4557, -91.4478
6.74472, 78, 9.95553, -5.46563, 21.9402, 22.1152, 88.754, -91.1947
6.75224, 79, 10.7482, -5.04925, 21.5764, 21.4296, 89.0654, -90.6846
6.7616, 80, 11.539, -4.6247, 21.2156, 20.7414, 89.3895, -90.1692
6.76838, 80, 12.3257, -4.19012, 20.8599, 20.0522, 89.7237, -89.6478
6.77728, 80, 12.7165, -3.96883, 20.5094, 19.3692, 90.0668, -89.1199
6.78422, 81, 13.4932, -3.5208, 20.3365, 19.0316, 90.2411, -88.854
6.79174, 81, 14.2636, -3.06644, 19.9962, 18.3672, 90.5946, -88.3186
6.79971, 82, 15.0266, -2.60499, 19.6653, 17.718, 90.9527, -87.7803
6.8077, 82, 15.7815, -2.13538, 19.3446, 17.0854, 91.3152, -87.2397
6.81574, 83, 16.5254, -1.65839, 19.033, 16.4708, 91.6819, -86.6973
6.82369, 83, 17.2571, -1.17583, 18.7308, 15.8751, 92.054, -86.1542
6.83169, 84, 17.9747, -0.688343, 18.437, 15.2969, 92.4318, -85.6121
6.83869, 84, 18.6759, -0.197054, 18.152, 14.7378, 92.8166, -85.0715
6.84772, 85, 19.3597, 0.298738, 17.8731, 14.1979, 93.209, -84.532
6.85469, 85, 20.025, 0.800216, 17.6006, 13.6777, 93.6095, -83.9948
6.86392, 86, 20.6726, 1.3066, 17.3345, 13.1774, 94.0168, -83.4597
6.87183, 86, 21.3042, 1.8169, 17.0743, 12.6972, 94.4294, -82.9258
6.87969, 86, 21.9222, 2.33366, 16.8211, 12.2372, 94.8479, -82.3906
6.88772, 87, 22.5281, 2.86029, 16.573, 11.7967, 95.2727, -81.8527
6.89572, 87, 23.1234, 3.39719, 16.3292, 11.3746, 95.7044, -81.3103
6.90273, 88, 23.7089, 3.94157, 16.0888, 10.9687, 96.1437, -80.7622
6.91173, 88, 24.284, 4.49284, 15.8508, 10.5784, 96.5898, -80.2049
6.92073, 89, 24.848, 5.0541, 15.6177, 10.2034, 97.0428, -79.6382
6.92769, 89, 25.4027, 5.62719, 15.3896, 9.84408, 97.5018, -79.0602
6.93587, 90, 25.9525, 6.21076, 15.1651, 9.50073, 97.9656, -78.4704
6.94472, 90, 26.4979, 6.8036, 14.9455, 9.17309, 98.434, -77.8667
6.95094, 91, 27.0336, 7.40537, 14.7316, 8.86274, 98.907, -77.2491
6.95973, 91, 27.5556, 8.01697, 14.5233, 8.57051, 99.385, -76.6196
6.96767, 92, 28.066, 8.63943, 14.3196, 8.29792, 99.8685, -75.9774
6.9757, 92, 28.5689, 9.27225, 14.1201, 8.04659, 100.357, -75.3243
6.98367, 93, 29.065, 9.91425, 13.9249, 7.81631, 100.85, -74.6633
6.99168, 93, 29.5504, 10.5632, 13.7353, 7.60843, 101.345, -73.9947
6.99968, 94, 30.0226, 11.2182, 13.5527, 7.42306, 101.841, -73.318
7.00769, 94, 30.4804, 11.8772, 13.3767, 7.26093, 102.336, -72.6353
7.01574, 95, 30.924, 12.5391, 13.207, 7.12207, 102.829, -71.9481
7.02371, 95, 31.3539, 13.2033, 13.0449, 7.0068, 103.32, -71.2543
7.0317, 96, 31.7702, 13.8699, 12.8904, 6.91473, 103.807, -70.5548
7.03975, 96, 32.1711, 14.5375, 12.7423, 6.84669, 104.29, -69.851
7.04766, 97, 32.5553, 15.2053, 12.6003, 6.80216, 104.77, -69.1412
7.0557, 97, 32.9232, 15.8713, 12.4653, 6.77852, 105.243, -68.4259
7.06389, 98, 33.2751, 16.534, 12.3383, 6.77613, 105.71, -67.7097
7.07168, 98, 33.6118, 17.1911, 12.2202, 6.79559, 106.168, -66.9921
7.07965, 99, 33.9337, 17.841, 12.1115, 6.83427, 106.615, -66.2745
7.08776, 99, 34.2417, 18.4823, 12.013, 6.89247, 107.049, -65.5621
7.09591, 100, 34.5377, 19.1139, 11.9245, 6.96878, 107.468, -64.8549
7.10404, 100, 34.8222, 19.7354, 11.8455, 7.06175, 107.871, -64.1537
7.11173, 100, 35.0942, 20.3451, 11.7757, 7.17077, 108.257, -63.4622
7.11977, 101, 35.353, 20.9417, 11.7138, 7.29396, 108.627, -62.7804
7.12804, 101, 35.5988, 21.5249, 11.66, 7.42948, 108.98, -62.1086
7.13581, 102, 35.8304, 22.0932, 11.6138, 7.57502, 109.317, -61.449
7.14378, 102, 36.0482, 22.6465, 11.5749, 7.72853, 109.638, -60.8031
7.15185, 103, 36.2557, 23.1846, 11.5432, 7.88812, 109.944, -60.1704
7.16021, 103, 36.4564, 23.7078, 11.5192, 8.05298, 110.235, -59.5514
7.16772, 103, 36.652, 24.2173, 11.5036, 8.22398, 110.511, -58.947
7.17579, 104, 36.8425, 24.7133, 11.4956, 8.40209, 110.77, -58.3543
7.18385, 104, 37.0286, 25.1963, 11.4939, 8.58912, 111.011, -57.771
7.19183, 104, 37.2098, 25.6668, 11.4983, 8.78523, 111.234, -57.1957
7.20057, 104, 37.3827, 26.1237, 11.508, 8.98987, 111.439, -56.6282
7.20791, 104, 37.5449, 26.5673, 11.5212, 9.20263, 111.629, -56.0678
7.21599, 104, 37.6988, 26.9976, 11.5373, 9.42054, 111.805, -55.5162
7.2248, 104, 37.8488, 27.4157, 11.5558, 9.64107, 111.971, -54.9771
7.23209, 104, 37.9976, 27.8203, 11.5757, 9.86149, 112.127, -54.4546
7.23868, 104, 38.0712, 28.0174, 11.5858, 9.97061, 112.202, -54.2005
7.24824, 104, 38.2863, 28.5873, 11.6157, 10.2924, 112.416, -53.468
7.25628, 104, 38.423, 28.9495, 11.6346, 10.4999, 112.549, -53.0081
7.26431, 104, 38.5526, 29.2952, 11.6526, 10.7, 112.675, -52.5716
7.27224, 104, 38.6146, 29.6234, 11.6698, 10.8922, 112.793, -52.1605
7.28034, 104, 38.7326, 29.9325, 11.6856, 11.0755, 112.903, -51.7739
7.28767, 104, 38.8426, 30.0802, 11.6931, 11.1636, 112.956, -51.5897
7.29572, 104, 38.9451, 30.362, 11.7075, 11.3327, 113.054, -51.2405
7.30378, 104, 39.0398, 30.624, 11.7206, 11.4914, 113.146, -50.9172
7.31172, 104, 39.1264, 30.8663, 11.7324, 11.6395, 113.23, -50.6187
7.31971, 104, 39.2047, 31.0892, 11.7432, 11.7762, 113.307, -50.3456
7.3287, 104, 39.2745, 31.2918, 11.7532, 11.9015, 113.408, -49.9831
7.33572, 104, 39.3364, 31.4749, 11.7623, 12.015, 113.438, -49.875
7.34367, 104, 39.3908, 31.6388, 11.7703, 12.1165, 113.494, -49.6772
7.35173, 104, 39.4386, 31.7832, 11.7773, 12.2059, 113.542, -49.5047
7.35969, 104, 39.4803, 31.9091, 11.7837, 12.2831, 113.583, -49.3567
7.3677, 104, 39.5159, 32.0177, 11.7896, 12.3481, 113.617, -49.2323
7.37576, 104, 39.5452, 32.1096, 11.7947, 12.4018, 113.645, -49.131
7.38367, 104, 39.5694, 32.186, 11.7993, 12.4435, 113.667, -49.05
7.39167, 104, 39.589, 32.2487, 11.8034, 12.4758, 113.683, -48.9888
7.39973, 104, 39.6045, 32.2994, 11.8072, 12.5, 113.695, -48.9442
7.40767, 104, 39.6167, 32.3393, 11.8106, 12.5171, 113.703, -48.9132
7.41568, 104, 39.626, 32.3693, 11.8136, 12.5288, 113.708, -48.8927
7.4257, 104, 39.635, 32.4006, 11.8176, 12.5387, 113.712, -48.8763
7.43167, 104, 39.6369, 32.4082, 11.8187, 12.5406, 113.713, -48.8734
7.43968, 104, 39.6395, 32.4195, 11.8204, 12.5428, 113.714, -48.8701
7.44775, 104, 39.6409, 32.4265, 11.8217, 12.5439, 113.714, -48.8687
7.45568, 105, 39.6413, 32.431, 11.8227, 12.5445, 113.714, -48.8681
7.46367, 105, 39.6409, 32.434, 11.8236, 12.5448, 113.714, -48.868
7.47176, 105, 39.64, 32.4361, 11.8244, 12.545, 113.714, -48.8681
7.47967, 105, 39.6389, 32.4377, 11.8251, 12.5451, 113.715, -48.8683
7.48769, 105, 39.6375, 32.4391, 11.8257, 12.5452, 113.714, -48.8685
7.49576, 105, 39.6364, 32.4403, 11.8262, 12.5452, 113.714, -48.8688
7.50372, 105, 39.6357, 32.4416, 11.8267, 12.5452, 113.714, -48.8691
7.51167, 105, 39.6352, 32.4428, 11.8273, 12.5452, 113.714, -48.8694
7.51974, 105, 39.6349, 32.4439, 11.828, 12.5452, 113.714, -48.8697
7.52769, 105, 39.6346, 32.4449, 11.8285, 12.5452, 113.714, -48.8699
7.53571, 105, 39.6344, 32.4456, 11.8289, 12.5452, 113.714, -48.8702
7.54374, 105, 39.6341, 32.4463, 11.8292, 12.5452, 113.714, -48.8704
7.55164, 105, 39.6338, 32.4467, 11.8295, 12.5452, 113.714, -48.8706
7.55967, 105, 39.6335, 32.4469, 11.8298, 12.5452, 113.714, -48.8707
7.5678, 105, 39.6332, 32.447, 11.83, 12.5452, 113.714, -48.8708
