hehonglu123/Motion-Primitive-Planning/simulation/robotstudio_sim/scripts/greedy_output/wood_0.2/curve_exe_v170_z10.csv
timestamp, cmd_num, J1, J2, J3, J4, J5, J6
0, -1, 5.92128, -7.07788, 21.5527, 27.9311, -45.5051, 2.90528
0.003, -1, 5.92128, -7.07788, 21.5527, 27.9311, -45.5051, 2.90528
0.006, -1, 5.92128, -7.07788, 21.5527, 27.9311, -45.5051, 2.90528
0.008, -1, 5.92128, -7.07788, 21.5527, 27.9311, -45.5051, 2.90528
0.011, -1, 5.92128, -7.07788, 21.5527, 27.9311, -45.5051, 2.90528
0.016, -1, 5.92128, -7.07788, 21.5527, 27.9311, -45.5051, 2.90528
0.02, -1, 5.92128, -7.07788, 21.5527, 27.9311, -45.5051, 2.90528
0.024, -1, 5.92128, -7.07788, 21.5527, 27.9311, -45.5051, 2.90528
0.028, -1, 5.92128, -7.07788, 21.5527, 27.9311, -45.5051, 2.90528
0.032, -1, 5.92128, -7.07788, 21.5527, 27.9311, -45.5051, 2.90528
0.036, -1, 5.92127, -7.07785, 21.5527, 27.9311, -45.5051, 2.90528
0.04, -1, 5.92124, -7.07773, 21.5527, 27.9311, -45.5051, 2.90528
0.044, -1, 5.92115, -7.07742, 21.5528, 27.9311, -45.5051, 2.90528
0.048, -1, 5.92096, -7.07678, 21.553, 27.931, -45.5051, 2.90527
0.052, -1, 5.92065, -7.07569, 21.5533, 27.931, -45.5053, 2.90527
0.056, -1, 5.92018, -7.07402, 21.5537, 27.9308, -45.5056, 2.90525
0.06, -1, 5.91953, -7.07163, 21.5545, 27.9305, -45.5061, 2.90521
0.064, -1, 5.91865, -7.06839, 21.5555, 27.9299, -45.5072, 2.90515
0.068, -1, 5.91753, -7.06413, 21.557, 27.929, -45.509, 2.90505
0.072, -1, 5.91613, -7.05859, 21.5591, 27.9275, -45.5118, 2.90491
0.076, -1, 5.9144, -7.05149, 21.5618, 27.9254, -45.5159, 2.90469
0.08, -1, 5.91232, -7.04249, 21.5655, 27.9225, -45.5217, 2.90439
0.084, -1, 5.90985, -7.03139, 21.5702, 27.9184, -45.5296, 2.90398
0.088, -1, 5.907, -7.01811, 21.5761, 27.9131, -45.5402, 2.90344
0.092, -1, 5.90379, -7.00272, 21.5834, 27.9061, -45.554, 2.90274
0.096, -1, 5.90027, -6.98537, 21.5922, 27.8973, -45.5715, 2.90185
0.1, -1, 5.89647, -6.96619, 21.6028, 27.8864, -45.5933, 2.90076
0.104, -1, 5.89241, -6.94527, 21.6152, 27.8731, -45.6198, 2.89944
0.108, -1, 5.88807, -6.92256, 21.6295, 27.8573, -45.6513, 2.89787
0.112, -1, 5.88346, -6.89798, 21.6459, 27.8389, -45.6883, 2.89604
0.116, -1, 5.87857, -6.87148, 21.6645, 27.8176, -45.7308, 2.89394
0.12, -1, 5.8734, -6.84306, 21.6852, 27.7936, -45.779, 2.89155
0.124, -1, 5.86795, -6.81282, 21.7081, 27.7667, -45.833, 2.88889
0.128, -1, 5.86226, -6.78084, 21.7331, 27.737, -45.8926, 2.88595
0.131, -1, 5.85633, -6.74716, 21.7602, 27.7047, -45.9575, 2.88275
0.136, -1, 5.85014, -6.7117, 21.7892, 27.6698, -46.0276, 2.8793
0.139, -1, 5.84366, -6.67429, 21.8201, 27.6327, -46.1022, 2.87563
0.144, -1, 5.83685, -6.63473, 21.8527, 27.5934, -46.1811, 2.87175
0.148, -1, 5.82967, -6.59287, 21.8868, 27.5523, -46.2637, 2.86768
0.152, -1, 5.82211, -6.54873, 21.9224, 27.5096, -46.3494, 2.86346
0.156, -1, 5.81418, -6.50244, 21.9592, 27.4656, -46.4378, 2.85911
0.16, -1, 5.80588, -6.45422, 21.997, 27.4205, -46.5285, 2.85464
0.164, -1, 5.79725, -6.40429, 22.0358, 27.3744, -46.6209, 2.85009
0.168, -1, 5.78831, -6.35288, 22.0753, 27.3277, -46.7148, 2.84546
0.172, -1, 5.77909, -6.30018, 22.1154, 27.2803, -46.8098, 2.84077
0.176, -1, 5.7696, -6.24634, 22.156, 27.2326, -46.9057, 2.83604
0.18, -1, 5.75988, -6.19154, 22.1969, 27.1845, -47.0021, 2.83128
0.184, -1, 5.74995, -6.13593, 22.2382, 27.1362, -47.0991, 2.82649
0.188, -1, 5.73987, -6.0797, 22.2798, 27.0877, -47.1963, 2.82169
0.192, -1, 5.72967, -6.02299, 22.3215, 27.0391, -47.2938, 2.81687
0.196, -1, 5.71939, -5.96596, 22.3633, 26.9904, -47.3915, 2.81205
0.2, -1, 5.70905, -5.90868, 22.4053, 26.9416, -47.4893, 2.80721
0.204, -1, 5.69866, -5.85123, 22.4473, 26.8927, -47.5873, 2.80237
0.208, -1, 5.68825, -5.79364, 22.4894, 26.8438, -47.6853, 2.79753
0.212, -1, 5.67781, -5.73596, 22.5315, 26.7949, -47.7835, 2.79267
0.216, -1, 5.66735, -5.67819, 22.5736, 26.7459, -47.8817, 2.78782
0.22, -1, 5.65688, -5.62035, 22.6159, 26.6969, -47.98, 2.78296
0.224, -1, 5.64639, -5.56245, 22.6581, 26.6478, -48.0784, 2.7781
0.228, -1, 5.6359, -5.50449, 22.7004, 26.5987, -48.1769, 2.77323
0.232, -1, 5.62539, -5.44649, 22.7427, 26.5495, -48.2755, 2.76836
0.236, -1, 5.61488, -5.38844, 22.785, 26.5003, -48.3741, 2.76348
0.24, -1, 5.60435, -5.33035, 22.8274, 26.4511, -48.4728, 2.75861
0.244, -1, 5.59382, -5.27221, 22.8698, 26.4019, -48.5716, 2.75373
0.248, -1, 5.58329, -5.21403, 22.9123, 26.3526, -48.6704, 2.74884
0.252, -1, 5.57274, -5.15581, 22.9547, 26.3033, -48.7693, 2.74395
0.256, -1, 5.56218, -5.09754, 22.9972, 26.2539, -48.8683, 2.73906
0.26, -1, 5.55162, -5.03924, 23.0397, 26.2045, -48.9673, 2.73417
0.264, -1, 5.54105, -4.98089, 23.0823, 26.1551, -49.0664, 2.72927
0.268, -1, 5.53048, -4.9225, 23.1249, 26.1056, -49.1656, 2.72437
0.272, -1, 5.5199, -4.86408, 23.1675, 26.0561, -49.2648, 2.71946
0.276, -1, 5.5093, -4.80561, 23.2101, 26.0066, -49.3642, 2.71455
0.28, -1, 5.49871, -4.7471, 23.2528, 25.957, -49.4635, 2.70964
0.284, -1, 5.4881, -4.68855, 23.2955, 25.9074, -49.563, 2.70473
0.288, -1, 5.47749, -4.62996, 23.3383, 25.8578, -49.6625, 2.69981
0.292, -1, 5.46687, -4.57134, 23.381, 25.8082, -49.7621, 2.69489
0.296, -1, 5.45624, -4.51267, 23.4238, 25.7585, -49.8618, 2.68996
0.3, -1, 5.44561, -4.45396, 23.4666, 25.7087, -49.9615, 2.68503
0.304, -1, 5.43496, -4.39521, 23.5095, 25.659, -50.0613, 2.6801
0.308, -1, 5.42432, -4.33642, 23.5524, 25.6092, -50.1612, 2.67516
0.312, -1, 5.41366, -4.27759, 23.5953, 25.5593, -50.2611, 2.67022
0.316, -1, 5.403, -4.21873, 23.6382, 25.5095, -50.3611, 2.66528
0.32, -1, 5.39233, -4.15982, 23.6812, 25.4596, -50.4611, 2.66034
0.324, -1, 5.38165, -4.10087, 23.7242, 25.4096, -50.5613, 2.65539
0.328, -1, 5.37096, -4.04189, 23.7672, 25.3597, -50.6615, 2.65044
0.332, -1, 5.36027, -3.98286, 23.8102, 25.3097, -50.7617, 2.64548
0.336, -1, 5.34957, -3.9238, 23.8533, 25.2596, -50.8621, 2.64052
0.34, -1, 5.33887, -3.86469, 23.8964, 25.2095, -50.9625, 2.63556
0.344, -1, 5.32815, -3.80555, 23.9396, 25.1594, -51.0629, 2.6306
0.348, -1, 5.31743, -3.74637, 23.9827, 25.1093, -51.1635, 2.62563
0.352, -1, 5.30671, -3.68715, 24.0259, 25.0592, -51.264, 2.62066
0.356, -1, 5.29597, -3.62789, 24.0691, 25.009, -51.3647, 2.61568
0.36, -1, 5.28523, -3.56859, 24.1124, 24.9587, -51.4654, 2.6107
0.364, -1, 5.27448, -3.50925, 24.1557, 24.9085, -51.5662, 2.60572
0.368, -1, 5.26373, -3.44988, 24.199, 24.8582, -51.6671, 2.60074
0.372, -1, 5.25296, -3.39046, 24.2423, 24.8078, -51.768, 2.59575
0.376, -1, 5.24219, -3.33101, 24.2857, 24.7575, -51.869, 2.59076
0.38, -1, 5.23142, -3.27152, 24.3291, 24.7071, -51.9701, 2.58576
0.384, -1, 5.22063, -3.21199, 24.3725, 24.6566, -52.0712, 2.58076
0.388, -1, 5.20984, -3.15242, 24.4159, 24.6062, -52.1724, 2.57576
0.392, -1, 5.19905, -3.09281, 24.4594, 24.5557, -52.2736, 2.57076
0.396, -1, 5.18824, -3.03317, 24.5029, 24.5052, -52.3749, 2.56575
0.4, -1, 5.17743, -2.97349, 24.5464, 24.4546, -52.4763, 2.56074
0.404, -1, 5.16662, -2.91377, 24.59, 24.404, -52.5778, 2.55573
0.408, -1, 5.15579, -2.85401, 24.6336, 24.3534, -52.6793, 2.55071
0.412, -1, 5.14496, -2.79421, 24.6772, 24.3027, -52.7808, 2.54569
0.416, -1, 5.13412, -2.73438, 24.7208, 24.252, -52.8825, 2.54067
0.42, -1, 5.12328, -2.67451, 24.7645, 24.2013, -52.9842, 2.53564
0.424, -1, 5.11242, -2.6146, 24.8082, 24.1506, -53.0859, 2.53061
0.428, -1, 5.10157, -2.55466, 24.8519, 24.0998, -53.1878, 2.52558
0.432, -1, 5.0907, -2.49467, 24.8957, 24.049, -53.2897, 2.52054
0.436, -1, 5.07983, -2.43465, 24.9395, 23.9981, -53.3916, 2.51551
0.44, -1, 5.06895, -2.3746, 24.9833, 23.9473, -53.4936, 2.51046
0.444, -1, 5.05806, -2.3145, 25.0271, 23.8964, -53.5957, 2.50542
0.448, -1, 5.04717, -2.25437, 25.0709, 23.8454, -53.6979, 2.50037
0.452, -1, 5.03627, -2.1942, 25.1148, 23.7945, -53.8001, 2.49532
0.456, -1, 5.02537, -2.134, 25.1587, 23.7435, -53.9023, 2.49026
0.46, -1, 5.01446, -2.07376, 25.2027, 23.6924, -54.0047, 2.48521
0.464, -1, 5.00354, -2.01348, 25.2466, 23.6414, -54.1071, 2.48015
0.468, -1, 4.99261, -1.95317, 25.2906, 23.5903, -54.2095, 2.47508
0.472, -1, 4.98168, -1.89282, 25.3347, 23.5391, -54.312, 2.47002
0.476, -1, 4.97074, -1.83243, 25.3787, 23.488, -54.4146, 2.46495
0.48, -1, 4.9598, -1.77201, 25.4228, 23.4368, -54.5172, 2.45987
0.484, -1, 4.94884, -1.71155, 25.4669, 23.3856, -54.6199, 2.4548
0.488, -1, 4.93789, -1.65105, 25.511, 23.3343, -54.7227, 2.44972
0.492, -1, 4.92692, -1.59052, 25.5551, 23.2831, -54.8255, 2.44464
0.496, -1, 4.91595, -1.52995, 25.5993, 23.2318, -54.9284, 2.43955
0.5, -1, 4.90497, -1.46935, 25.6435, 23.1804, -55.0313, 2.43447
0.504, -1, 4.89399, -1.40871, 25.6877, 23.1291, -55.1343, 2.42937
0.508, -1, 4.883, -1.34804, 25.732, 23.0777, -55.2374, 2.42428
0.512, -1, 4.872, -1.28733, 25.7763, 23.0262, -55.3405, 2.41918
0.516, -1, 4.861, -1.22658, 25.8206, 22.9748, -55.4437, 2.41408
0.52, -1, 4.84999, -1.1658, 25.8649, 22.9233, -55.547, 2.40898
0.524, -1, 4.83897, -1.10498, 25.9093, 22.8718, -55.6503, 2.40388
0.528, -1, 4.82795, -1.04413, 25.9537, 22.8202, -55.7536, 2.39877
0.532, -1, 4.81692, -0.983247, 25.9981, 22.7686, -55.8571, 2.39366
0.536, -1, 4.80589, -0.922325, 26.0425, 22.717, -55.9606, 2.38854
0.54, -1, 4.79485, -0.861369, 26.087, 22.6654, -56.0641, 2.38342
0.544, -1, 4.7838, -0.800377, 26.1315, 22.6137, -56.1677, 2.3783
0.548, -1, 4.77274, -0.739351, 26.176, 22.562, -56.2714, 2.37318
0.552, -1, 4.76168, -0.67829, 26.2205, 22.5103, -56.3751, 2.36805
0.556, -1, 4.75061, -0.617195, 26.2651, 22.4586, -56.4789, 2.36293
0.56, -1, 4.73954, -0.556065, 26.3096, 22.4068, -56.5827, 2.35779
0.564, -1, 4.72846, -0.4949, 26.3543, 22.355, -56.6866, 2.35266
0.568, -1, 4.71738, -0.433701, 26.3989, 22.3031, -56.7906, 2.34752
0.572, -1, 4.70628, -0.372468, 26.4436, 22.2512, -56.8946, 2.34238
0.576, -1, 4.69519, -0.311201, 26.4882, 22.1993, -56.9987, 2.33724
0.58, -1, 4.68408, -0.2499, 26.533, 22.1474, -57.1028, 2.33209
0.584, -1, 4.67297, -0.188565, 26.5777, 22.0955, -57.207, 2.32694
0.588, -1, 4.66186, -0.127196, 26.6224, 22.0435, -57.3112, 2.32179
0.592, -1, 4.65073, -0.0657938, 26.6672, 21.9915, -57.4155, 2.31663
0.596, -1, 4.63961, -0.0043576, 26.712, 21.9394, -57.5199, 2.31148
0.6, -1, 4.62847, 0.0571122, 26.7569, 21.8873, -57.6243, 2.30632
0.604, -1, 4.61733, 0.118615, 26.8017, 21.8352, -57.7288, 2.30115
0.608, -1, 4.60618, 0.180152, 26.8466, 21.7831, -57.8333, 2.29599
0.612, -1, 4.59503, 0.241722, 26.8915, 21.731, -57.9379, 2.29082
0.616, -1, 4.58387, 0.303325, 26.9365, 21.6788, -58.0425, 2.28565
0.62, -1, 4.57271, 0.364961, 26.9814, 21.6266, -58.1472, 2.28047
0.624, -1, 4.56154, 0.426629, 27.0264, 21.5743, -58.252, 2.27529
0.628, -1, 4.55036, 0.488331, 27.0714, 21.522, -58.3568, 2.27011
0.632, -1, 4.53918, 0.550065, 27.1164, 21.4697, -58.4617, 2.26493
0.636, -1, 4.52799, 0.611832, 27.1615, 21.4174, -58.5666, 2.25974
0.64, -1, 4.5168, 0.673632, 27.2066, 21.3651, -58.6716, 2.25456
0.644, -1, 4.5056, 0.735464, 27.2517, 21.3127, -58.7766, 2.24937
0.648, -1, 4.49439, 0.797328, 27.2968, 21.2603, -58.8817, 2.24417
0.652, -1, 4.48318, 0.859224, 27.3419, 21.2079, -58.9868, 2.23898
0.656, -1, 4.47196, 0.921152, 27.3871, 21.1554, -59.092, 2.23378
0.66, -1, 4.46074, 0.983112, 27.4323, 21.1029, -59.1973, 2.22857
0.664, -1, 4.44951, 1.0451, 27.4775, 21.0504, -59.3026, 2.22337
0.668, -1, 4.43828, 1.10713, 27.5227, 20.9979, -59.4079, 2.21816
0.672, -1, 4.42703, 1.16918, 27.568, 20.9453, -59.5133, 2.21295
0.676, -1, 4.41579, 1.23127, 27.6133, 20.8927, -59.6188, 2.20774
0.68, -1, 4.40454, 1.29339, 27.6586, 20.8401, -59.7243, 2.20253
0.684, -1, 4.39328, 1.35554, 27.7039, 20.7874, -59.8299, 2.19731
0.688, -1, 4.38202, 1.41772, 27.7493, 20.7347, -59.9355, 2.19209
0.692, -1, 4.37075, 1.47993, 27.7946, 20.682, -60.0412, 2.18687
0.696, -1, 4.35947, 1.54217, 27.84, 20.6293, -60.1469, 2.18164
0.7, -1, 4.34819, 1.60444, 27.8855, 20.5766, -60.2527, 2.17641
0.704, -1, 4.33691, 1.66675, 27.9309, 20.5238, -60.3585, 2.17118
0.708, -1, 4.32562, 1.72908, 27.9764, 20.471, -60.4644, 2.16595
0.712, -1, 4.31432, 1.79145, 28.0219, 20.4182, -60.5704, 2.16071
0.716, -1, 4.30302, 1.85384, 28.0674, 20.3653, -60.6764, 2.15547
0.72, -1, 4.29171, 1.91627, 28.1129, 20.3124, -60.7824, 2.15023
0.724, -1, 4.2804, 1.97872, 28.1585, 20.2595, -60.8885, 2.14499
0.728, -1, 4.26908, 2.04121, 28.204, 20.2066, -60.9946, 2.13974
0.732, -1, 4.25776, 2.10372, 28.2496, 20.1536, -61.1008, 2.1345
0.736, -1, 4.24643, 2.16627, 28.2952, 20.1006, -61.2071, 2.12925
0.74, -1, 4.23509, 2.22884, 28.3409, 20.0476, -61.3134, 2.12399
0.744, -1, 4.22375, 2.29145, 28.3865, 19.9946, -61.4197, 2.11874
0.748, -1, 4.21241, 2.35408, 28.4322, 19.9415, -61.5261, 2.11348
0.752, -1, 4.20106, 2.41674, 28.4779, 19.8885, -61.6325, 2.10822
0.756, -1, 4.1897, 2.47943, 28.5237, 19.8353, -61.739, 2.10295
0.76, -1, 4.17834, 2.54215, 28.5694, 19.7822, -61.8456, 2.09769
0.764, -1, 4.16698, 2.6049, 28.6152, 19.7291, -61.9522, 2.09242
0.768, -1, 4.1556, 2.66768, 28.661, 19.6759, -62.0588, 2.08715
0.772, -1, 4.14423, 2.73048, 28.7068, 19.6227, -62.1655, 2.08188
0.776, -1, 4.13285, 2.79332, 28.7526, 19.5694, -62.2722, 2.0766
0.78, -1, 4.12146, 2.85618, 28.7985, 19.5162, -62.379, 2.07132
0.784, -1, 4.11007, 2.91907, 28.8443, 19.4629, -62.4858, 2.06604
0.788, -1, 4.09867, 2.98199, 28.8902, 19.4096, -62.5927, 2.06076
0.792, -1, 4.08727, 3.04493, 28.9361, 19.3563, -62.6996, 2.05548
0.796, -1, 4.07586, 3.10791, 28.9821, 19.3029, -62.8066, 2.05019
0.8, -1, 4.06445, 3.17091, 29.028, 19.2496, -62.9136, 2.0449
0.804, -1, 4.05303, 3.23394, 29.074, 19.1962, -63.0207, 2.03961
0.808, -1, 4.04161, 3.297, 29.12, 19.1428, -63.1278, 2.03432
0.812, -1, 4.03019, 3.36008, 29.166, 19.0893, -63.235, 2.02902
0.816, -1, 4.01875, 3.42319, 29.212, 19.0359, -63.3422, 2.02372
0.82, -1, 4.00732, 3.48633, 29.2581, 18.9824, -63.4494, 2.01842
0.824, -1, 3.99588, 3.54949, 29.3041, 18.9289, -63.5567, 2.01312
0.828, -1, 3.98443, 3.61268, 29.3502, 18.8753, -63.6641, 2.00781
0.832, -1, 3.97298, 3.6759, 29.3963, 18.8218, -63.7715, 2.00251
0.836, -1, 3.96152, 3.73914, 29.4425, 18.7682, -63.8789, 1.9972
0.84, -1, 3.95006, 3.80241, 29.4886, 18.7146, -63.9864, 1.99188
0.844, -1, 3.9386, 3.86571, 29.5348, 18.661, -64.0939, 1.98657
0.848, -1, 3.92713, 3.92904, 29.581, 18.6074, -64.2014, 1.98125
0.852, -1, 3.91565, 3.99239, 29.6272, 18.5537, -64.3091, 1.97594
0.856, -1, 3.90417, 4.05577, 29.6734, 18.5, -64.4167, 1.97062
0.86, -1, 3.89269, 4.11917, 29.7196, 18.4463, -64.5244, 1.96529
0.864, -1, 3.8812, 4.1826, 29.7659, 18.3926, -64.6321, 1.95997
0.868, -1, 3.8697, 4.24605, 29.8122, 18.3388, -64.7399, 1.95464
0.872, -1, 3.85821, 4.30953, 29.8585, 18.285, -64.8478, 1.94931
0.876, -1, 3.8467, 4.37304, 29.9048, 18.2312, -64.9556, 1.94398
0.88, -1, 3.83519, 4.43657, 29.9511, 18.1774, -65.0636, 1.93865
0.884, -1, 3.82368, 4.50013, 29.9975, 18.1236, -65.1715, 1.93331
0.888, -1, 3.81217, 4.56371, 30.0439, 18.0697, -65.2795, 1.92797
0.892, -1, 3.80064, 4.62732, 30.0903, 18.0158, -65.3876, 1.92263
0.896, -1, 3.78912, 4.69095, 30.1367, 17.9619, -65.4957, 1.91729
0.9, -1, 3.77759, 4.75461, 30.1831, 17.908, -65.6038, 1.91195
0.904, -1, 3.76605, 4.8183, 30.2296, 17.8541, -65.712, 1.9066
0.908, -1, 3.75451, 4.882, 30.276, 17.8001, -65.8202, 1.90125
0.912, -1, 3.74297, 4.94574, 30.3225, 17.7461, -65.9285, 1.8959
0.916, -1, 3.73142, 5.00949, 30.369, 17.6921, -66.0368, 1.89055
0.92, -1, 3.71987, 5.07327, 30.4155, 17.6381, -66.1451, 1.88519
0.924, -1, 3.70831, 5.13708, 30.4621, 17.584, -66.2535, 1.87984
0.928, -1, 3.69675, 5.20091, 30.5086, 17.5299, -66.3619, 1.87448
0.932, -1, 3.68518, 5.26477, 30.5552, 17.4759, -66.4704, 1.86912
0.936, -1, 3.67361, 5.32865, 30.6018, 17.4217, -66.5789, 1.86375
0.94, -1, 3.66203, 5.39255, 30.6484, 17.3676, -66.6874, 1.85839
0.944, -1, 3.65045, 5.45648, 30.695, 17.3135, -66.796, 1.85302
0.948, -1, 3.63887, 5.52043, 30.7417, 17.2593, -66.9047, 1.84765
0.952, -1, 3.62728, 5.58441, 30.7883, 17.2051, -67.0133, 1.84228
0.956, -1, 3.61569, 5.64841, 30.835, 17.1509, -67.1221, 1.83691
0.96, -1, 3.60409, 5.71244, 30.8817, 17.0966, -67.2308, 1.83154
0.964, -1, 3.59249, 5.77648, 30.9284, 17.0424, -67.3396, 1.82616
0.968, -1, 3.58088, 5.84056, 30.9752, 16.9881, -67.4484, 1.82078
0.972, -1, 3.56927, 5.90465, 31.0219, 16.9338, -67.5573, 1.8154
0.976, -1, 3.55766, 5.96877, 31.0687, 16.8795, -67.6662, 1.81002
0.98, -1, 3.54604, 6.03291, 31.1155, 16.8251, -67.7752, 1.80463
0.984, -1, 3.53442, 6.09708, 31.1623, 16.7708, -67.8842, 1.79924
0.988, -1, 3.52279, 6.16127, 31.2091, 16.7164, -67.9932, 1.79385
0.992, -1, 3.51116, 6.22548, 31.2559, 16.662, -68.1023, 1.78846
0.996, -1, 3.49953, 6.28972, 31.3028, 16.6076, -68.2114, 1.78307
1, -1, 3.48789, 6.35397, 31.3496, 16.5532, -68.3206, 1.77768
1.004, -1, 3.47625, 6.41825, 31.3965, 16.4987, -68.4298, 1.77228
1.008, -1, 3.4646, 6.48256, 31.4434, 16.4443, -68.539, 1.76688
1.012, -1, 3.45295, 6.54688, 31.4903, 16.3898, -68.6483, 1.76148
1.016, -1, 3.44129, 6.61123, 31.5373, 16.3352, -68.7576, 1.75608
1.02, -1, 3.42963, 6.6756, 31.5842, 16.2807, -68.8669, 1.75067
1.024, -1, 3.41797, 6.74, 31.6312, 16.2262, -68.9763, 1.74527
1.027, -1, 3.4063, 6.80441, 31.6782, 16.1716, -69.0857, 1.73986
1.032, -1, 3.39463, 6.86885, 31.7252, 16.117, -69.1952, 1.73445
1.036, -1, 3.38295, 6.93331, 31.7722, 16.0624, -69.3047, 1.72904
1.04, -1, 3.37127, 6.99779, 31.8192, 16.0078, -69.4142, 1.72363
1.044, -1, 3.35959, 7.0623, 31.8663, 15.9531, -69.5238, 1.71821
1.048, -1, 3.3479, 7.12682, 31.9133, 15.8985, -69.6334, 1.71279
1.052, -1, 3.33621, 7.19137, 31.9604, 15.8438, -69.743, 1.70737
1.055, -1, 3.32451, 7.25594, 32.0075, 15.7891, -69.8527, 1.70195
1.06, -1, 3.31281, 7.32053, 32.0546, 15.7344, -69.9624, 1.69653
1.064, -1, 3.30111, 7.38514, 32.1017, 15.6797, -70.0722, 1.69111
1.068, -1, 3.2894, 7.44977, 32.1489, 15.6249, -70.182, 1.68568
1.072, -1, 3.27769, 7.51443, 32.196, 15.5701, -70.2918, 1.68025
1.076, -1, 3.26597, 7.5791, 32.2432, 15.5154, -70.4016, 1.67482
1.08, -1, 3.25425, 7.6438, 32.2904, 15.4606, -70.5115, 1.66939
1.084, -1, 3.24253, 7.70852, 32.3376, 15.4057, -70.6215, 1.66396
1.088, -1, 3.23081, 7.77325, 32.3848, 15.3509, -70.7314, 1.65852
1.091, -1, 3.21908, 7.83801, 32.4321, 15.296, -70.8414, 1.65309
1.096, -1, 3.20734, 7.90279, 32.4793, 15.2412, -70.9515, 1.64765
1.1, -1, 3.1956, 7.96759, 32.5266, 15.1863, -71.0616, 1.64221
1.104, -1, 3.18386, 8.03241, 32.5738, 15.1314, -71.1717, 1.63677
1.108, -1, 3.17212, 8.09725, 32.6211, 15.0764, -71.2818, 1.63132
1.112, -1, 3.16037, 8.16211, 32.6684, 15.0215, -71.392, 1.62588
1.116, -1, 3.14862, 8.22699, 32.7158, 14.9665, -71.5022, 1.62043
1.119, -1, 3.13686, 8.29189, 32.7631, 14.9115, -71.6124, 1.61498
1.124, -1, 3.1251, 8.35681, 32.8104, 14.8566, -71.7227, 1.60953
1.128, -1, 3.11334, 8.42175, 32.8578, 14.8015, -71.833, 1.60408
1.132, -1, 3.10157, 8.4867, 32.9052, 14.7465, -71.9433, 1.59863
1.136, -1, 3.08981, 8.55168, 32.9526, 14.6915, -72.0537, 1.59317
1.14, -1, 3.07803, 8.61668, 33, 14.6364, -72.1641, 1.58772
1.144, -1, 3.06626, 8.6817, 33.0474, 14.5813, -72.2746, 1.58226
1.147, -1, 3.05448, 8.74673, 33.0948, 14.5262, -72.385, 1.5768
1.152, -1, 3.04269, 8.81179, 33.1423, 14.4711, -72.4956, 1.57134
1.156, -1, 3.03091, 8.87686, 33.1898, 14.416, -72.6061, 1.56587
1.16, -1, 3.01912, 8.94195, 33.2372, 14.3609, -72.7167, 1.56041
1.164, -1, 3.00732, 9.00706, 33.2847, 14.3057, -72.8273, 1.55494
1.168, -1, 2.99553, 9.07219, 33.3322, 14.2505, -72.9379, 1.54948
1.172, -1, 2.98373, 9.13734, 33.3797, 14.1954, -73.0486, 1.54401
1.175, -1, 2.97192, 9.20251, 33.4273, 14.1402, -73.1593, 1.53854
1.18, -1, 2.96011, 9.26769, 33.4748, 14.0849, -73.27, 1.53306
1.184, -1, 2.9483, 9.3329, 33.5224, 14.0297, -73.3807, 1.52759
1.188, -1, 2.93649, 9.39812, 33.5699, 13.9744, -73.4915, 1.52211
1.192, -1, 2.92467, 9.46336, 33.6175, 13.9192, -73.6024, 1.51664
1.196, -1, 2.91285, 9.52861, 33.6651, 13.8639, -73.7132, 1.51116
1.2, -1, 2.90103, 9.59389, 33.7127, 13.8086, -73.8241, 1.50568
1.204, -1, 2.8892, 9.65918, 33.7604, 13.7533, -73.935, 1.5002
1.208, -1, 2.87737, 9.72449, 33.808, 13.698, -74.0459, 1.49471
1.212, -1, 2.86554, 9.78982, 33.8556, 13.6426, -74.1569, 1.48923
1.216, -1, 2.85371, 9.85516, 33.9033, 13.5873, -74.2679, 1.48374
1.22, -1, 2.84187, 9.92052, 33.951, 13.5319, -74.3789, 1.47826
1.224, -1, 2.83002, 9.9859, 33.9987, 13.4765, -74.49, 1.47277
1.228, -1, 2.81818, 10.0513, 34.0464, 13.4211, -74.6011, 1.46728
1.232, -1, 2.80633, 10.1167, 34.0941, 13.3657, -74.7122, 1.46179
1.236, -1, 2.79448, 10.1821, 34.1418, 13.3103, -74.8233, 1.45629
1.24, -1, 2.78262, 10.2476, 34.1895, 13.2549, -74.9345, 1.4508
1.244, -1, 2.77077, 10.313, 34.2373, 13.1994, -75.0457, 1.4453
1.248, -1, 2.75891, 10.3785, 34.285, 13.1439, -75.1569, 1.43981
1.252, -1, 2.74704, 10.444, 34.3328, 13.0885, -75.2682, 1.43431
1.256, -1, 2.73518, 10.5095, 34.3806, 13.033, -75.3794, 1.42881
1.26, -1, 2.72331, 10.5751, 34.4284, 12.9774, -75.4908, 1.42331
1.264, -1, 2.71143, 10.6406, 34.4762, 12.9219, -75.6021, 1.4178
1.267, -1, 2.69956, 10.7062, 34.524, 12.8664, -75.7135, 1.4123
1.272, -1, 2.68768, 10.7718, 34.5718, 12.8108, -75.8249, 1.40679
1.276, -1, 2.6758, 10.8374, 34.6197, 12.7553, -75.9363, 1.40129
1.28, -1, 2.66391, 10.903, 34.6675, 12.6997, -76.0477, 1.39578
1.284, -1, 2.65202, 10.9686, 34.7154, 12.6441, -76.1592, 1.39027
1.288, -1, 2.64013, 11.0342, 34.7633, 12.5885, -76.2707, 1.38476
1.292, -1, 2.62824, 11.0999, 34.8112, 12.5329, -76.3822, 1.37925
1.295, -1, 2.61634, 11.1656, 34.8591, 12.4772, -76.4938, 1.37373
1.3, -1, 2.60444, 11.2313, 34.907, 12.4216, -76.6054, 1.36822
1.304, -1, 2.59254, 11.297, 34.9549, 12.3659, -76.717, 1.3627
1.308, -1, 2.58063, 11.3627, 35.0028, 12.3102, -76.8287, 1.35718
1.312, -1, 2.56872, 11.4285, 35.0508, 12.2546, -76.9403, 1.35166
1.316, -1, 2.55681, 11.4942, 35.0988, 12.1988, -77.052, 1.34614
1.32, -1, 2.5449, 11.56, 35.1467, 12.1431, -77.1638, 1.34062
1.324, -1, 2.53298, 11.6258, 35.1947, 12.0874, -77.2755, 1.3351
1.328, -1, 2.52106, 11.6916, 35.2427, 12.0316, -77.3873, 1.32957
1.332, -1, 2.50914, 11.7574, 35.2907, 11.9759, -77.4991, 1.32405
1.336, -1, 2.49721, 11.8233, 35.3388, 11.9201, -77.611, 1.31852
1.34, -1, 2.48528, 11.8891, 35.3868, 11.8643, -77.7228, 1.31299
1.344, -1, 2.47335, 11.955, 35.4348, 11.8085, -77.8347, 1.30746
1.348, -1, 2.46141, 12.0209, 35.4829, 11.7527, -77.9467, 1.30193
1.352, -1, 2.44948, 12.0868, 35.531, 11.6969, -78.0586, 1.2964
1.356, -1, 2.43754, 12.1527, 35.579, 11.641, -78.1706, 1.29086
1.36, -1, 2.42559, 12.2187, 35.6271, 11.5852, -78.2826, 1.28533
1.364, -1, 2.41364, 12.2846, 35.6752, 11.5293, -78.3946, 1.27979
1.368, -1, 2.40169, 12.3506, 35.7234, 11.4734, -78.5067, 1.27425
1.372, -1, 2.38974, 12.4166, 35.7715, 11.4175, -78.6188, 1.26871
1.376, -1, 2.37779, 12.4826, 35.8196, 11.3616, -78.7309, 1.26317
1.38, -1, 2.36583, 12.5486, 35.8678, 11.3057, -78.843, 1.25763
1.384, -1, 2.35387, 12.6146, 35.9159, 11.2498, -78.9552, 1.25208
1.388, -1, 2.3419, 12.6807, 35.9641, 11.1938, -79.0674, 1.24654
1.392, -1, 2.32993, 12.7468, 36.0123, 11.1378, -79.1796, 1.24099
1.396, -1, 2.31796, 12.8128, 36.0605, 11.0819, -79.2919, 1.23544
1.4, -1, 2.30599, 12.8789, 36.1087, 11.0259, -79.4042, 1.2299
1.404, -1, 2.29402, 12.9451, 36.1569, 10.9699, -79.5165, 1.22435
1.408, -1, 2.28204, 13.0112, 36.2052, 10.9138, -79.6288, 1.21879
1.412, -1, 2.27005, 13.0773, 36.2534, 10.8578, -79.7411, 1.21324
1.416, -1, 2.25807, 13.1435, 36.3017, 10.8018, -79.8535, 1.20769
1.42, -1, 2.24608, 13.2097, 36.3499, 10.7457, -79.966, 1.20213
1.424, -1, 2.23409, 13.2759, 36.3982, 10.6896, -80.0784, 1.19657
1.428, -1, 2.2221, 13.3421, 36.4465, 10.6335, -80.1909, 1.19101
1.432, -1, 2.2101, 13.4083, 36.4948, 10.5774, -80.3034, 1.18545
1.436, -1, 2.1981, 13.4746, 36.5431, 10.5213, -80.4159, 1.17989
1.44, -1, 2.1861, 13.5408, 36.5915, 10.4652, -80.5284, 1.17433
1.444, -1, 2.1741, 13.6071, 36.6398, 10.4091, -80.641, 1.16877
1.448, -1, 2.16209, 13.6734, 36.6881, 10.3529, -80.7536, 1.1632
1.452, -1, 2.15008, 13.7397, 36.7365, 10.2967, -80.8662, 1.15764
1.456, -1, 2.13807, 13.806, 36.7849, 10.2406, -80.9789, 1.15207
1.46, -1, 2.12605, 13.8723, 36.8333, 10.1844, -81.0916, 1.1465
1.464, -1, 2.11403, 13.9387, 36.8817, 10.1282, -81.2043, 1.14093
1.468, -1, 2.10201, 14.0051, 36.9301, 10.0719, -81.317, 1.13536
1.472, -1, 2.08999, 14.0714, 36.9785, 10.0157, -81.4298, 1.12978
1.476, -1, 2.07796, 14.1378, 37.0269, 9.95946, -81.5425, 1.12421
1.48, -1, 2.06593, 14.2043, 37.0753, 9.9032, -81.6554, 1.11864
1.484, -1, 2.0539, 14.2707, 37.1238, 9.84693, -81.7682, 1.11306
1.488, -1, 2.04186, 14.3371, 37.1723, 9.79065, -81.8811, 1.10748
1.492, -1, 2.02982, 14.4036, 37.2207, 9.73435, -81.9939, 1.1019
1.496, -1, 2.01778, 14.4701, 37.2692, 9.67804, -82.1069, 1.09632
1.5, -1, 2.00574, 14.5366, 37.3177, 9.62171, -82.2198, 1.09074
1.504, -1, 1.99369, 14.6031, 37.3662, 9.56538, -82.3328, 1.08516
1.508, -1, 1.98164, 14.6696, 37.4147, 9.50903, -82.4458, 1.07957
1.512, -1, 1.96959, 14.7361, 37.4633, 9.45266, -82.5588, 1.07398
1.516, -1, 1.95754, 14.8027, 37.5118, 9.39629, -82.6718, 1.0684
1.52, -1, 1.94548, 14.8692, 37.5604, 9.3399, -82.7849, 1.06281
1.524, -1, 1.93342, 14.9358, 37.6089, 9.2835, -82.898, 1.05722
1.528, -1, 1.92135, 15.0024, 37.6575, 9.22708, -83.0111, 1.05163
1.532, -1, 1.90929, 15.069, 37.7061, 9.17066, -83.1243, 1.04604
1.536, -1, 1.89722, 15.1357, 37.7547, 9.11422, -83.2375, 1.04044
1.54, -1, 1.88515, 15.2023, 37.8033, 9.05776, -83.3507, 1.03485
1.544, -1, 1.87307, 15.269, 37.8519, 9.0013, -83.4639, 1.02925
1.548, -1, 1.861, 15.3356, 37.9005, 8.94482, -83.5771, 1.02366
1.552, -1, 1.84892, 15.4023, 37.9492, 8.88833, -83.6904, 1.01806
1.556, -1, 1.83684, 15.469, 37.9978, 8.83183, -83.8037, 1.01246
1.56, -1, 1.82475, 15.5358, 38.0465, 8.77531, -83.9171, 1.00686
1.564, -1, 1.81266, 15.6025, 38.0951, 8.71878, -84.0304, 1.00125
1.568, -1, 1.80057, 15.6692, 38.1438, 8.66224, -84.1438, 0.99565
1.572, -1, 1.78848, 15.736, 38.1925, 8.60569, -84.2572, 0.990045
1.576, -1, 1.77638, 15.8028, 38.2412, 8.54912, -84.3706, 0.984439
1.58, -1, 1.76429, 15.8696, 38.2899, 8.49254, -84.4841, 0.978832
1.584, -1, 1.75218, 15.9364, 38.3387, 8.43595, -84.5976, 0.973224
1.588, -1, 1.74008, 16.0032, 38.3874, 8.37934, -84.7111, 0.967614
1.592, -1, 1.72797, 16.07, 38.4361, 8.32273, -84.8246, 0.962003
1.596, -1, 1.71586, 16.1369, 38.4849, 8.2661, -84.9381, 0.956391
1.6, -1, 1.70375, 16.2038, 38.5337, 8.20945, -85.0517, 0.950777
1.604, -1, 1.69164, 16.2706, 38.5825, 8.1528, -85.1653, 0.945162
1.608, -1, 1.67952, 16.3375, 38.6312, 8.09613, -85.279, 0.939546
1.612, -1, 1.6674, 16.4044, 38.6801, 8.03945, -85.3926, 0.933929
1.616, -1, 1.65528, 16.4714, 38.7289, 7.98276, -85.5063, 0.928311
1.62, -1, 1.64315, 16.5383, 38.7777, 7.92606, -85.62, 0.922691
1.624, -1, 1.63103, 16.6053, 38.8265, 7.86934, -85.7337, 0.917071
1.628, -1, 1.6189, 16.6722, 38.8754, 7.81261, -85.8475, 0.911449
1.632, -1, 1.60676, 16.7392, 38.9242, 7.75587, -85.9613, 0.905825
1.636, -1, 1.59463, 16.8062, 38.9731, 7.69912, -86.0751, 0.900201
1.64, -1, 1.58249, 16.8732, 39.022, 7.64235, -86.1889, 0.894575
1.644, -1, 1.57035, 16.9403, 39.0708, 7.58558, -86.3027, 0.888948
1.648, -1, 1.5582, 17.0073, 39.1197, 7.52879, -86.4166, 0.88332
1.652, -1, 1.54606, 17.0743, 39.1686, 7.47199, -86.5305, 0.877691
1.656, -1, 1.53391, 17.1414, 39.2176, 7.41517, -86.6445, 0.87206
1.66, -1, 1.52176, 17.2085, 39.2665, 7.35834, -86.7584, 0.866428
1.664, -1, 1.5096, 17.2756, 39.3154, 7.30151, -86.8724, 0.860795
1.668, -1, 1.49744, 17.3427, 39.3644, 7.24465, -86.9864, 0.855161
1.672, -1, 1.48528, 17.4099, 39.4133, 7.18779, -87.1004, 0.849526
1.676, -1, 1.47312, 17.477, 39.4623, 7.13091, -87.2145, 0.843889
1.68, -1, 1.46095, 17.5442, 39.5113, 7.07402, -87.3285, 0.838251
1.684, -1, 1.44879, 17.6113, 39.5603, 7.01712, -87.4426, 0.832612
1.688, -1, 1.43661, 17.6785, 39.6093, 6.9602, -87.5568, 0.826971
1.692, -1, 1.42444, 17.7457, 39.6583, 6.90328, -87.6709, 0.821329
1.696, -1, 1.41226, 17.813, 39.7073, 6.84633, -87.7851, 0.815686
1.7, -1, 1.40008, 17.8802, 39.7564, 6.78938, -87.8993, 0.810041
1.704, -1, 1.3879, 17.9475, 39.8054, 6.73241, -88.0136, 0.804395
1.708, -1, 1.37572, 18.0147, 39.8545, 6.67543, -88.1278, 0.798748
1.712, -1, 1.36353, 18.082, 39.9036, 6.61843, -88.2421, 0.7931
1.716, -1, 1.35134, 18.1493, 39.9527, 6.56142, -88.3564, 0.78745
1.72, -1, 1.33914, 18.2166, 40.0018, 6.5044, -88.4708, 0.781799
1.724, -1, 1.32695, 18.284, 40.0509, 6.44736, -88.5851, 0.776146
1.728, -1, 1.31475, 18.3513, 40.1, 6.39032, -88.6995, 0.770492
1.732, -1, 1.30254, 18.4187, 40.1491, 6.33325, -88.814, 0.764837
1.736, -1, 1.29034, 18.4861, 40.1983, 6.27617, -88.9284, 0.759181
1.74, -1, 1.27813, 18.5535, 40.2474, 6.21908, -89.0429, 0.753523
1.744, -1, 1.26592, 18.6209, 40.2966, 6.16198, -89.1574, 0.747863
1.748, -1, 1.25371, 18.6883, 40.3458, 6.10486, -89.2719, 0.742203
1.752, -1, 1.24149, 18.7557, 40.395, 6.04773, -89.3865, 0.73654
1.756, -1, 1.22927, 18.8232, 40.4442, 5.99058, -89.5011, 0.730877
1.76, -1, 1.21704, 18.8907, 40.4934, 5.93342, -89.6157, 0.725212
1.764, -1, 1.20482, 18.9582, 40.5426, 5.87625, -89.7304, 0.719546
1.768, -1, 1.19259, 19.0257, 40.5919, 5.81906, -89.845, 0.713878
1.772, -1, 1.18036, 19.0932, 40.6411, 5.76185, -89.9597, 0.708209
1.776, -1, 1.16812, 19.1608, 40.6904, 5.70464, -90.0745, 0.702539
1.78, -1, 1.15588, 19.2283, 40.7396, 5.6474, -90.1892, 0.696867
1.784, -1, 1.14364, 19.2959, 40.7889, 5.59016, -90.304, 0.691193
1.788, -1, 1.1314, 19.3635, 40.8382, 5.5329, -90.4189, 0.685519
1.792, -1, 1.11915, 19.4311, 40.8875, 5.47562, -90.5337, 0.679843
1.796, -1, 1.1069, 19.4988, 40.9369, 5.41833, -90.6486, 0.674165
1.8, -1, 1.09464, 19.5664, 40.9862, 5.36103, -90.7635, 0.668486
1.804, -1, 1.08239, 19.6341, 41.0356, 5.30371, -90.8784, 0.662805
1.808, -1, 1.07013, 19.7018, 41.0849, 5.24638, -90.9934, 0.657123
1.812, -1, 1.05786, 19.7695, 41.1343, 5.18903, -91.1084, 0.65144
1.816, -1, 1.0456, 19.8372, 41.1837, 5.13167, -91.2234, 0.645755
1.82, -1, 1.03333, 19.9049, 41.2331, 5.07429, -91.3385, 0.640069
1.824, -1, 1.02105, 19.9727, 41.2825, 5.0169, -91.4536, 0.634381
1.828, -1, 1.00878, 20.0405, 41.3319, 4.95949, -91.5687, 0.628692
1.832, -1, 0.996499, 20.1082, 41.3814, 4.90207, -91.6838, 0.623001
1.836, -1, 0.984217, 20.176, 41.4308, 4.84464, -91.799, 0.617309
1.84, -1, 0.971931, 20.2439, 41.4803, 4.78718, -91.9142, 0.611615
1.844, -1, 0.959642, 20.3117, 41.5298, 4.72972, -92.0294, 0.60592
1.848, -1, 0.94735, 20.3796, 41.5793, 4.67224, -92.1447, 0.600223
1.852, -1, 0.935055, 20.4475, 41.6288, 4.61474, -92.26, 0.594525
1.856, -1, 0.922756, 20.5153, 41.6783, 4.55723, -92.3753, 0.588825
1.86, -1, 0.910455, 20.5833, 41.7278, 4.4997, -92.4907, 0.583124
1.864, -1, 0.898149, 20.6512, 41.7774, 4.44216, -92.6061, 0.577421
1.868, -1, 0.885841, 20.7191, 41.8269, 4.3846, -92.7215, 0.571717
1.872, -1, 0.873529, 20.7871, 41.8765, 4.32702, -92.8369, 0.566011
1.876, -1, 0.861214, 20.8551, 41.9261, 4.26943, -92.9524, 0.560304
1.88, -1, 0.848896, 20.9231, 41.9757, 4.21183, -93.0679, 0.554595
1.884, -1, 0.836574, 20.9911, 42.0253, 4.15421, -93.1834, 0.548885
1.888, -1, 0.824249, 21.0592, 42.0749, 4.09657, -93.299, 0.543173
1.892, -1, 0.811921, 21.1272, 42.1246, 4.03892, -93.4146, 0.537459
1.896, -1, 0.799589, 21.1953, 42.1742, 3.98126, -93.5303, 0.531744
1.9, -1, 0.787254, 21.2634, 42.2239, 3.92357, -93.6459, 0.526027
1.904, -1, 0.774916, 21.3315, 42.2736, 3.86587, -93.7616, 0.520309
1.908, -1, 0.762574, 21.3996, 42.3233, 3.80816, -93.8774, 0.514589
1.912, -1, 0.750229, 21.4678, 42.373, 3.75043, -93.9931, 0.508868
1.916, -1, 0.73788, 21.536, 42.4227, 3.69268, -94.1089, 0.503145
1.92, -1, 0.725528, 21.6042, 42.4724, 3.63492, -94.2248, 0.497421
1.924, -1, 0.713172, 21.6724, 42.5222, 3.57714, -94.3406, 0.491694
1.928, -1, 0.700813, 21.7406, 42.5719, 3.51934, -94.4565, 0.485967
1.932, -1, 0.688451, 21.8088, 42.6217, 3.46153, -94.5724, 0.480237
1.936, -1, 0.676085, 21.8771, 42.6715, 3.40371, -94.6884, 0.474506
1.94, -1, 0.663715, 21.9454, 42.7213, 3.34586, -94.8044, 0.468774
1.944, -1, 0.651342, 22.0137, 42.7711, 3.288, -94.9204, 0.46304
1.948, -1, 0.638966, 22.082, 42.821, 3.23012, -95.0365, 0.457304
1.952, -1, 0.626586, 22.1504, 42.8708, 3.17223, -95.1526, 0.451566
1.956, -1, 0.614202, 22.2187, 42.9207, 3.11432, -95.2687, 0.445827
1.96, -1, 0.601815, 22.2871, 42.9705, 3.0564, -95.3848, 0.440086
1.964, -1, 0.589424, 22.3555, 43.0204, 2.99845, -95.501, 0.434344
1.968, -1, 0.57703, 22.424, 43.0703, 2.94049, -95.6172, 0.4286
1.972, -1, 0.564632, 22.4924, 43.1203, 2.88252, -95.7335, 0.422854
1.976, -1, 0.552231, 22.5609, 43.1702, 2.82452, -95.8498, 0.417107
1.98, -1, 0.539826, 22.6293, 43.2201, 2.76651, -95.9661, 0.411358
1.984, -1, 0.527418, 22.6978, 43.2701, 2.70849, -96.0825, 0.405607
1.988, -1, 0.515005, 22.7664, 43.3201, 2.65044, -96.1989, 0.399855
1.992, -1, 0.502589, 22.8349, 43.3701, 2.59238, -96.3153, 0.394101
1.996, -1, 0.49017, 22.9035, 43.4201, 2.5343, -96.4318, 0.388345
1.999, -1, 0.477746, 22.9721, 43.4701, 2.47621, -96.5482, 0.382587
2.004, -1, 0.465319, 23.0407, 43.5201, 2.4181, -96.6648, 0.376828
2.008, -1, 0.452889, 23.1093, 43.5702, 2.35997, -96.7813, 0.371067
2.012, -1, 0.440454, 23.1779, 43.6202, 2.30182, -96.8979, 0.365305
2.015, -1, 0.428016, 23.2466, 43.6703, 2.24366, -97.0146, 0.35954
2.019, -1, 0.415573, 23.3153, 43.7204, 2.18547, -97.1312, 0.353774
2.024, -1, 0.403127, 23.384, 43.7705, 2.12727, -97.2479, 0.348006
2.028, -1, 0.390677, 23.4527, 43.8207, 2.06906, -97.3647, 0.342237
2.031, -1, 0.378223, 23.5215, 43.8708, 2.01082, -97.4815, 0.336465
2.036, -1, 0.365765, 23.5902, 43.921, 1.95257, -97.5983, 0.330692
2.04, -1, 0.353303, 23.659, 43.9711, 1.89429, -97.7151, 0.324917
2.044, -1, 0.340838, 23.7279, 44.0213, 1.836, -97.832, 0.31914
2.048, -1, 0.328368, 23.7967, 44.0715, 1.77769, -97.9489, 0.313362
2.051, -1, 0.315894, 23.8656, 44.1217, 1.71937, -98.0659, 0.307581
2.055, -1, 0.303417, 23.9344, 44.172, 1.66102, -98.1829, 0.301799
2.06, -1, 0.290935, 24.0033, 44.2222, 1.60265, -98.2999, 0.296014
2.064, -1, 0.27845, 24.0723, 44.2725, 1.54427, -98.417, 0.290228
2.068, -1, 0.26596, 24.1412, 44.3228, 1.48587, -98.5341, 0.28444
2.071, -1, 0.253466, 24.2102, 44.3731, 1.42744, -98.6513, 0.27865
2.076, -1, 0.240968, 24.2792, 44.4234, 1.369, -98.7685, 0.272858
2.08, -1, 0.228466, 24.3482, 44.4738, 1.31054, -98.8857, 0.267064
2.084, -1, 0.21596, 24.4172, 44.5241, 1.25206, -99.003, 0.261268
2.087, -1, 0.20345, 24.4863, 44.5745, 1.19355, -99.1203, 0.255471
2.092, -1, 0.190935, 24.5554, 44.6249, 1.13503, -99.2376, 0.249671
2.096, -1, 0.178417, 24.6245, 44.6753, 1.07649, -99.355, 0.243869
2.1, -1, 0.165894, 24.6936, 44.7257, 1.01793, -99.4724, 0.238066
2.104, -1, 0.153367, 24.7628, 44.7761, 0.959349, -99.5899, 0.23226
2.107, -1, 0.140843, 24.8319, 44.8266, 0.900749, -99.7074, 0.226452
2.111, -1, 0.128341, 24.9011, 44.877, 0.842129, -99.825, 0.220643
2.116, -1, 0.115907, 24.9701, 44.9275, 0.783495, -99.9425, 0.214832
2.12, -1, 0.103598, 25.0388, 44.9779, 0.72486, -100.06, 0.209022
2.124, -1, 0.091476, 25.1071, 45.0283, 0.666254, -100.178, 0.203214
2.127, -1, 0.0795973, 25.1747, 45.0785, 0.607727, -100.295, 0.197415
2.132, -1, 0.0680116, 25.2416, 45.1285, 0.549359, -100.412, 0.191632
2.136, -1, 0.056759, 25.3075, 45.1782, 0.491264, -100.529, 0.185877
2.14, -1, 0.0458634, 25.3721, 45.2274, 0.433595, -100.644, 0.180164
2.143, -1, 0.0353338, 25.4353, 45.276, 0.376546, -100.759, 0.174514
2.148, -1, 0.0251727, 25.4968, 45.3237, 0.320351, -100.872, 0.168948
2.152, -1, 0.0153817, 25.5565, 45.3705, 0.265282, -100.982, 0.163495
2.156, -1, 0.00595639, 25.6141, 45.4159, 0.21164, -101.09, 0.158183
2.16, -1, -0.00311872, 25.6695, 45.4598, 0.159748, -101.194, 0.153045
2.163, -1, -0.0118656, 25.7227, 45.502, 0.109935, -101.294, 0.148113
2.168, -1, -0.0203006, 25.7736, 45.5421, 0.0625171, -101.389, 0.143418
2.172, -1, -0.0284235, 25.822, 45.5801, 0.0177841, -101.479, 0.138988
2.176, -1, -0.0362158, 25.8679, 45.6156, -0.0240159, -101.563, 0.134848
2.179, -1, -0.0436528, 25.911, 45.6485, -0.0626835, -101.64, 0.131018
2.184, -1, -0.0507173, 25.9513, 45.6788, -0.0980733, -101.711, 0.127512
2.188, -1, -0.0574062, 25.9886, 45.7063, -0.130098, -101.775, 0.124339
2.192, -1, -0.0637268, 26.0231, 45.731, -0.158731, -101.833, 0.121501
2.196, -1, -0.0696903, 26.0548, 45.7529, -0.18401, -101.883, 0.118994
2.199, -1, -0.0753023, 26.0837, 45.7722, -0.206036, -101.927, 0.116809
2.204, -1, -0.0805533, 26.1099, 45.789, -0.224969, -101.965, 0.11493
2.208, -1, -0.0854155, 26.1333, 45.8034, -0.241023, -101.997, 0.113336
2.212, -1, -0.0898554, 26.154, 45.8155, -0.254447, -102.024, 0.112001
2.216, -1, -0.0938517, 26.172, 45.8256, -0.265512, -102.046, 0.110901
2.219, -1, -0.0974092, 26.1874, 45.834, -0.274495, -102.064, 0.110007
2.224, -1, -0.100561, 26.2005, 45.8407, -0.281666, -102.079, 0.109293
2.228, -1, -0.103355, 26.2115, 45.8461, -0.287284, -102.09, 0.108733
2.232, -1, -0.105836, 26.2207, 45.8503, -0.291595, -102.098, 0.108302
2.235, -1, -0.108025, 26.2283, 45.8536, -0.294829, -102.105, 0.107979
2.24, -1, -0.109923, 26.2345, 45.856, -0.297199, -102.11, 0.107742
2.244, -1, -0.111523, 26.2395, 45.8579, -0.298895, -102.113, 0.107571
2.248, 2, -0.11282, 26.2433, 45.8592, -0.300085, -102.115, 0.107451
2.252, 2, -0.113824, 26.2462, 45.8601, -0.300905, -102.117, 0.107369
2.255, 2, -0.114561, 26.2483, 45.8608, -0.301465, -102.118, 0.107312
2.259, 2, -0.115079, 26.2498, 45.8612, -0.301845, -102.119, 0.107274
2.264, 2, -0.115434, 26.2508, 45.8615, -0.302102, -102.119, 0.107248
2.268, 2, -0.115674, 26.2515, 45.8618, -0.302276, -102.12, 0.10723
2.272, 2, -0.115837, 26.2519, 45.8619, -0.302395, -102.12, 0.107218
2.275, 2, -0.115947, 26.2522, 45.862, -0.302475, -102.12, 0.10721
2.28, 2, -0.116022, 26.2525, 45.862, -0.302529, -102.12, 0.107204
2.284, 2, -0.116072, 26.2526, 45.8621, -0.302566, -102.12, 0.107201
2.288, 2, -0.116107, 26.2527, 45.8621, -0.30259, -102.12, 0.107198
2.291, 2, -0.11613, 26.2528, 45.8621, -0.302607, -102.12, 0.107197
2.296, 2, -0.116146, 26.2528, 45.8622, -0.302619, -102.12, 0.107195
2.3, 2, -0.116156, 26.2528, 45.8622, -0.302626, -102.12, 0.107195
2.304, 2, -0.116163, 26.2529, 45.8622, -0.302632, -102.12, 0.107194
2.308, 2, -0.116168, 26.2529, 45.8622, -0.302635, -102.12, 0.107194
2.311, 2, -0.116172, 26.2529, 45.8622, -0.302638, -102.12, 0.107193
2.316, 2, -0.116174, 26.2529, 45.8622, -0.302639, -102.12, 0.107193
2.32, 2, -0.116175, 26.2529, 45.8622, -0.30264, -102.12, 0.107193
2.324, 2, -0.116176, 26.2529, 45.8622, -0.302641, -102.12, 0.107193
2.328, 2, -0.116177, 26.2529, 45.8622, -0.302642, -102.12, 0.107193
2.331, 2, -0.116178, 26.2529, 45.8622, -0.302642, -102.12, 0.107193
2.336, 2, -0.116178, 26.2529, 45.8622, -0.302642, -102.12, 0.107193
2.34, 2, -0.116178, 26.2529, 45.8622, -0.302642, -102.12, 0.107193
2.344, 2, -0.116178, 26.2529, 45.8622, -0.302642, -102.12, 0.107193
2.347, 2, -0.116178, 26.2529, 45.8622, -0.302642, -102.12, 0.107193
2.352, 2, -0.116179, 26.2529, 45.8622, -0.302642, -102.12, 0.107193
2.356, 2, -0.116179, 26.2529, 45.8622, -0.302643, -102.12, 0.107193
2.36, 2, -0.116179, 26.2529, 45.8622, -0.302643, -102.12, 0.107193
2.364, 2, -0.116179, 26.2529, 45.8622, -0.302643, -102.12, 0.107193
2.367, 2, -0.116179, 26.2529, 45.8622, -0.302643, -102.12, 0.107193
2.372, 2, -0.116179, 26.2529, 45.8622, -0.302643, -102.12, 0.107193
2.376, 2, -0.116179, 26.2529, 45.8622, -0.302643, -102.12, 0.107193
2.38, 2, -0.116179, 26.2529, 45.8622, -0.302643, -102.12, 0.107193
2.383, 2, -0.116179, 26.2529, 45.8622, -0.302643, -102.12, 0.107193
2.388, 2, -0.116179, 26.2529, 45.8622, -0.302643, -102.12, 0.107193
2.392, 2, -0.116179, 26.2529, 45.8622, -0.302643, -102.12, 0.107193
2.396, 2, -0.116179, 26.2529, 45.8622, -0.302643, -102.12, 0.107193
2.4, 2, -0.116179, 26.2529, 45.8622, -0.302643, -102.12, 0.107193
2.403, 2, -0.116179, 26.2529, 45.8622, -0.302643, -102.12, 0.107193
2.408, 2, -0.116179, 26.2529, 45.8622, -0.302643, -102.12, 0.107193
2.412, 2, -0.116179, 26.2529, 45.8622, -0.302643, -102.12, 0.107193
2.416, 2, -0.116179, 26.2529, 45.8622, -0.302643, -102.12, 0.107193
2.42, 2, -0.116179, 26.2529, 45.8622, -0.302643, -102.12, 0.107193
2.423, 2, -0.116179, 26.2529, 45.8622, -0.302643, -102.12, 0.107193
2.428, 2, -0.116179, 26.2529, 45.8622, -0.302643, -102.12, 0.107193
2.432, 2, -0.116179, 26.2529, 45.8622, -0.302643, -102.12, 0.107193
2.436, 2, -0.116179, 26.2529, 45.8622, -0.302643, -102.12, 0.107193
2.439, 2, -0.116179, 26.2529, 45.8622, -0.302643, -102.12, 0.107193
2.444, 2, -0.116179, 26.2529, 45.8622, -0.302643, -102.12, 0.107193
2.448, 2, -0.116179, 26.2529, 45.8622, -0.302643, -102.12, 0.107193
2.452, 2, -0.116179, 26.2529, 45.8622, -0.302643, -102.12, 0.107193
2.456, 2, -0.116179, 26.2529, 45.8622, -0.302643, -102.12, 0.107193
2.459, 2, -0.116179, 26.2529, 45.8622, -0.302643, -102.12, 0.107193
2.464, 2, -0.116179, 26.2529, 45.8622, -0.302643, -102.12, 0.107193
2.468, 2, -0.116179, 26.2529, 45.8622, -0.302643, -102.12, 0.107193
2.472, 2, -0.116179, 26.2529, 45.8622, -0.302643, -102.12, 0.107193
2.476, 2, -0.116179, 26.2529, 45.8622, -0.302643, -102.12, 0.107193
2.479, 2, -0.116179, 26.2529, 45.8622, -0.302643, -102.12, 0.107193
2.484, 2, -0.116179, 26.2529, 45.8622, -0.302643, -102.12, 0.107193
2.488, 2, -0.116179, 26.2529, 45.8622, -0.302643, -102.12, 0.107193
2.492, 2, -0.116179, 26.2529, 45.8622, -0.302643, -102.12, 0.107193
2.495, 2, -0.116179, 26.2529, 45.8622, -0.302643, -102.12, 0.107193
2.5, 2, -0.116179, 26.2529, 45.8622, -0.302643, -102.12, 0.107193
2.504, 2, -0.116179, 26.2529, 45.8622, -0.302643, -102.12, 0.107193
2.508, 2, -0.116179, 26.2529, 45.8622, -0.302643, -102.12, 0.107193
2.512, 2, -0.116179, 26.2529, 45.8622, -0.302643, -102.12, 0.107193
2.515, 2, -0.116179, 26.2529, 45.8622, -0.302643, -102.12, 0.107193
2.52, 2, -0.116179, 26.2529, 45.8622, -0.302643, -102.12, 0.107193
2.524, 2, -0.116179, 26.2529, 45.8622, -0.302643, -102.12, 0.107193
2.528, 2, -0.116179, 26.2529, 45.8622, -0.302643, -102.12, 0.107193
2.531, 2, -0.116179, 26.2529, 45.8622, -0.302643, -102.12, 0.107193
2.536, 2, -0.116179, 26.2529, 45.8622, -0.302643, -102.12, 0.107193
2.54, 2, -0.116179, 26.2529, 45.8622, -0.302643, -102.12, 0.107193
2.544, 2, -0.116179, 26.2529, 45.8622, -0.302643, -102.12, 0.107193
2.548, 2, -0.116179, 26.2529, 45.8622, -0.302643, -102.12, 0.107193
2.551, 2, -0.116179, 26.2529, 45.8622, -0.302643, -102.12, 0.107193
2.556, 2, -0.116179, 26.2529, 45.8622, -0.302643, -102.12, 0.107193
2.56, 2, -0.116179, 26.2529, 45.8622, -0.302643, -102.12, 0.107193
2.564, 2, -0.116179, 26.2529, 45.8622, -0.302643, -102.12, 0.107193
2.568, 2, -0.116179, 26.2529, 45.8622, -0.302643, -102.12, 0.107193
2.571, 2, -0.116179, 26.2529, 45.8622, -0.302643, -102.12, 0.107193
2.576, 2, -0.116179, 26.2529, 45.8622, -0.302643, -102.12, 0.107193
2.58, 2, -0.116179, 26.2529, 45.8622, -0.302643, -102.12, 0.107193
2.584, 2, -0.116179, 26.2529, 45.8622, -0.302643, -102.12, 0.107193
2.587, 2, -0.116179, 26.2529, 45.8622, -0.302643, -102.12, 0.107193
2.592, 2, -0.116179, 26.2529, 45.8622, -0.302643, -102.12, 0.107193
2.596, 2, -0.116179, 26.2529, 45.8622, -0.302643, -102.12, 0.107193
2.6, 2, -0.116179, 26.2529, 45.8622, -0.302643, -102.12, 0.107193
2.604, 2, -0.116179, 26.2529, 45.8622, -0.302643, -102.12, 0.107193
2.607, 2, -0.116179, 26.2529, 45.8622, -0.302643, -102.12, 0.107193
2.612, 2, -0.116179, 26.2529, 45.8622, -0.302643, -102.12, 0.107193
2.616, 2, -0.116179, 26.2529, 45.8622, -0.302643, -102.12, 0.107193
2.62, 2, -0.116179, 26.2529, 45.8622, -0.302643, -102.12, 0.107193
2.624, 2, -0.116179, 26.2529, 45.8622, -0.302643, -102.12, 0.107193
2.627, 2, -0.116179, 26.2529, 45.8622, -0.302643, -102.12, 0.107193
2.632, 2, -0.116179, 26.2529, 45.8622, -0.302643, -102.12, 0.107193
2.636, 2, -0.116179, 26.2529, 45.8622, -0.302643, -102.12, 0.107193
2.64, 2, -0.116179, 26.2529, 45.8622, -0.302643, -102.12, 0.107193
2.643, 2, -0.116179, 26.2529, 45.8622, -0.302643, -102.12, 0.107193
2.648, 2, -0.116179, 26.2529, 45.8622, -0.302643, -102.12, 0.107193
2.652, 2, -0.116179, 26.2529, 45.8622, -0.302643, -102.12, 0.107193
2.656, 2, -0.116179, 26.2529, 45.8622, -0.302643, -102.12, 0.107193
2.66, 2, -0.116179, 26.2529, 45.8622, -0.302643, -102.12, 0.107193
2.663, 2, -0.116179, 26.2529, 45.8622, -0.302643, -102.12, 0.107193
2.668, 2, -0.116179, 26.2529, 45.8622, -0.302643, -102.12, 0.107193
2.672, 2, -0.116179, 26.2529, 45.8622, -0.302643, -102.12, 0.107193
2.676, 2, -0.116179, 26.2529, 45.8622, -0.302643, -102.12, 0.107193
2.679, 2, -0.116179, 26.2529, 45.8622, -0.302643, -102.12, 0.107193
2.684, 2, -0.116179, 26.2529, 45.8622, -0.302643, -102.12, 0.107193
2.688, 2, -0.116179, 26.2529, 45.8622, -0.302643, -102.12, 0.107193
2.692, 2, -0.116179, 26.2529, 45.8622, -0.302643, -102.12, 0.107193
2.696, 2, -0.116179, 26.2529, 45.8622, -0.302643, -102.12, 0.107193
2.699, 2, -0.116179, 26.2529, 45.8622, -0.302643, -102.12, 0.107193
2.704, 2, -0.116179, 26.2529, 45.8622, -0.302643, -102.12, 0.107193
2.708, 2, -0.116179, 26.2529, 45.8622, -0.302643, -102.12, 0.107193
2.712, 2, -0.116179, 26.2529, 45.8622, -0.302643, -102.12, 0.107193
2.716, 2, -0.116179, 26.2529, 45.8622, -0.302643, -102.12, 0.107193
2.719, 2, -0.116179, 26.2529, 45.8622, -0.302643, -102.12, 0.107193
2.724, 2, -0.116179, 26.2529, 45.8622, -0.302643, -102.12, 0.107193
2.728, 2, -0.116179, 26.2529, 45.8622, -0.302643, -102.12, 0.107193
2.732, 2, -0.116179, 26.2529, 45.8622, -0.302643, -102.12, 0.107193
2.735, 2, -0.116179, 26.2529, 45.8622, -0.302643, -102.12, 0.107193
2.74, 2, -0.116179, 26.2529, 45.8622, -0.302643, -102.12, 0.107193
2.744, 2, -0.116179, 26.2529, 45.8622, -0.302643, -102.12, 0.107193
2.748, 2, -0.116179, 26.2529, 45.8622, -0.302643, -102.12, 0.107193
2.752, 2, -0.116179, 26.2529, 45.8622, -0.302643, -102.12, 0.107193
2.755, 2, -0.116179, 26.2529, 45.8622, -0.302643, -102.12, 0.107193
2.76, 2, -0.116179, 26.2529, 45.8622, -0.302643, -102.12, 0.107193
2.764, 2, -0.116179, 26.2529, 45.8622, -0.302643, -102.12, 0.107193
2.768, 2, -0.116179, 26.2529, 45.8622, -0.302643, -102.12, 0.107193
2.772, 2, -0.116179, 26.2529, 45.8622, -0.302643, -102.12, 0.107193
2.775, 2, -0.116179, 26.2529, 45.8622, -0.302643, -102.12, 0.107193
2.78, 2, -0.116179, 26.2529, 45.8622, -0.302643, -102.12, 0.107193
2.784, 2, -0.116179, 26.2529, 45.8622, -0.302643, -102.12, 0.107193
2.788, 2, -0.116179, 26.2529, 45.8622, -0.302643, -102.12, 0.107193
2.791, 2, -0.116179, 26.2529, 45.8622, -0.302643, -102.12, 0.107193
2.796, 2, -0.116179, 26.2529, 45.8622, -0.302643, -102.12, 0.107193
2.8, 2, -0.116179, 26.2529, 45.8622, -0.302643, -102.12, 0.107193
2.804, 2, -0.116179, 26.2529, 45.8622, -0.302643, -102.12, 0.107193
2.808, 2, -0.116179, 26.2529, 45.8622, -0.302643, -102.12, 0.107193
2.811, 2, -0.116179, 26.2529, 45.8622, -0.302643, -102.12, 0.107193
2.816, 2, -0.116179, 26.2529, 45.8622, -0.302643, -102.12, 0.107193
2.82, 2, -0.116179, 26.2529, 45.8622, -0.302643, -102.12, 0.107193
2.824, 2, -0.116179, 26.2529, 45.8622, -0.302643, -102.12, 0.107193
2.828, 2, -0.116179, 26.2529, 45.8622, -0.302643, -102.12, 0.107193
2.831, 2, -0.116179, 26.2529, 45.8622, -0.302643, -102.12, 0.107193
2.836, 2, -0.116179, 26.2529, 45.8622, -0.302643, -102.12, 0.107193
2.84, 2, -0.116179, 26.2529, 45.8622, -0.302643, -102.12, 0.107193
2.844, 2, -0.116179, 26.2529, 45.8622, -0.302643, -102.12, 0.107193
2.847, 2, -0.116179, 26.2529, 45.8622, -0.302643, -102.12, 0.107193
2.852, 2, -0.116179, 26.2529, 45.8622, -0.302643, -102.12, 0.107193
2.856, 2, -0.116179, 26.2529, 45.8622, -0.302643, -102.12, 0.107193
2.86, 2, -0.116179, 26.2529, 45.8622, -0.302643, -102.12, 0.107193
2.864, 2, -0.116179, 26.2529, 45.8622, -0.302643, -102.12, 0.107193
2.867, 2, -0.116179, 26.2529, 45.8622, -0.302643, -102.12, 0.107193
2.872, 2, -0.116179, 26.2529, 45.8622, -0.302643, -102.12, 0.107193
2.876, 2, -0.116179, 26.2529, 45.8622, -0.302643, -102.12, 0.107193
2.88, 2, -0.116179, 26.2529, 45.8622, -0.302643, -102.12, 0.107193
2.883, 2, -0.116179, 26.2529, 45.8622, -0.302643, -102.12, 0.107193
2.888, 2, -0.116179, 26.2529, 45.8622, -0.302643, -102.12, 0.107193
2.892, 2, -0.116179, 26.2529, 45.8622, -0.302643, -102.12, 0.107193
2.896, 2, -0.116179, 26.2529, 45.8622, -0.302643, -102.12, 0.107193
2.9, 2, -0.116179, 26.2529, 45.8622, -0.302643, -102.12, 0.107193
2.903, 2, -0.116179, 26.2529, 45.8622, -0.302643, -102.12, 0.107193
2.908, 2, -0.116179, 26.2529, 45.8622, -0.302643, -102.12, 0.107193
2.912, 2, -0.116179, 26.2529, 45.8622, -0.302643, -102.12, 0.107193
2.916, 2, -0.116179, 26.2529, 45.8622, -0.302643, -102.12, 0.107193
2.92, 2, -0.116179, 26.2529, 45.8622, -0.302643, -102.12, 0.107193
2.923, 2, -0.116179, 26.2529, 45.8622, -0.302643, -102.12, 0.107193
2.928, 2, -0.116179, 26.2529, 45.8622, -0.302643, -102.12, 0.107193
2.932, 2, -0.116179, 26.2529, 45.8622, -0.302643, -102.12, 0.107193
2.936, 2, -0.116179, 26.2529, 45.8622, -0.302643, -102.12, 0.107193
2.939, 2, -0.116179, 26.2529, 45.8622, -0.302643, -102.12, 0.107193
2.944, 2, -0.116179, 26.2529, 45.8622, -0.302643, -102.12, 0.107193
2.948, 2, -0.116179, 26.2529, 45.8622, -0.302643, -102.12, 0.107193
2.952, 2, -0.116179, 26.2529, 45.8622, -0.302643, -102.12, 0.107193
2.956, 2, -0.116179, 26.2529, 45.8622, -0.302643, -102.12, 0.107193
2.959, 2, -0.116179, 26.2529, 45.8622, -0.302643, -102.12, 0.107193
2.964, 2, -0.116179, 26.2529, 45.8622, -0.302643, -102.12, 0.107193
2.968, 2, -0.116179, 26.2529, 45.8622, -0.302643, -102.12, 0.107193
2.972, 2, -0.116179, 26.2529, 45.8622, -0.302643, -102.12, 0.107193
2.976, 2, -0.116179, 26.2529, 45.8622, -0.302643, -102.12, 0.107193
2.98, 2, -0.116179, 26.2529, 45.8622, -0.302643, -102.12, 0.107193
2.984, 2, -0.116179, 26.2529, 45.8622, -0.302643, -102.12, 0.107193
2.988, 2, -0.116179, 26.2529, 45.8622, -0.302643, -102.12, 0.107193
2.992, 2, -0.116179, 26.2529, 45.8622, -0.302643, -102.12, 0.107193
2.995, 2, -0.116179, 26.2529, 45.8622, -0.302643, -102.12, 0.107193
3, 2, -0.116179, 26.2529, 45.8622, -0.302643, -102.12, 0.107193
3.004, 2, -0.116179, 26.2529, 45.8622, -0.302643, -102.12, 0.107193
3.008, 2, -0.116179, 26.2529, 45.8622, -0.302643, -102.12, 0.107193
3.012, 2, -0.116179, 26.2529, 45.8622, -0.302643, -102.12, 0.107193
3.015, 2, -0.116179, 26.2529, 45.8622, -0.302643, -102.12, 0.107193
3.02, 2, -0.116179, 26.2529, 45.8622, -0.302643, -102.12, 0.107193
3.024, 2, -0.116179, 26.2529, 45.8622, -0.302643, -102.12, 0.107193
3.028, 2, -0.116179, 26.2529, 45.8622, -0.302643, -102.12, 0.107193
3.031, 2, -0.116179, 26.2529, 45.8622, -0.302643, -102.12, 0.107193
3.036, 2, -0.116179, 26.2529, 45.8622, -0.302643, -102.12, 0.107193
3.04, 2, -0.116179, 26.2529, 45.8622, -0.302643, -102.12, 0.107193
3.044, 2, -0.116179, 26.2529, 45.8622, -0.302643, -102.12, 0.107193
3.048, 2, -0.116179, 26.2529, 45.8622, -0.302643, -102.12, 0.107193
3.051, 2, -0.116179, 26.2529, 45.8622, -0.302643, -102.12, 0.107193
3.056, 2, -0.116179, 26.2529, 45.8622, -0.302643, -102.12, 0.107193
3.06, 2, -0.116179, 26.2529, 45.8622, -0.302643, -102.12, 0.107193
3.064, 2, -0.116179, 26.2529, 45.8622, -0.302643, -102.12, 0.107193
3.068, 2, -0.116179, 26.2529, 45.8622, -0.302643, -102.12, 0.107193
3.071, 2, -0.116179, 26.2529, 45.8622, -0.302643, -102.12, 0.107193
3.076, 2, -0.116179, 26.2529, 45.8622, -0.302643, -102.12, 0.107193
3.08, 2, -0.116179, 26.2529, 45.8622, -0.302643, -102.12, 0.107193
3.084, 2, -0.116179, 26.2529, 45.8622, -0.302643, -102.12, 0.107193
3.087, 2, -0.116179, 26.2529, 45.8622, -0.302643, -102.12, 0.107193
3.092, 2, -0.116179, 26.2529, 45.8622, -0.302643, -102.12, 0.107193
3.096, 2, -0.116179, 26.2529, 45.8622, -0.302643, -102.12, 0.107193
3.1, 2, -0.116179, 26.2529, 45.8622, -0.302643, -102.12, 0.107193
3.104, 2, -0.116179, 26.2529, 45.8622, -0.302643, -102.12, 0.107193
3.107, 2, -0.116179, 26.2529, 45.8622, -0.302643, -102.12, 0.107193
3.112, 2, -0.116179, 26.2529, 45.8622, -0.302643, -102.12, 0.107193
3.116, 2, -0.116179, 26.2529, 45.8622, -0.302643, -102.12, 0.107193
3.12, 2, -0.116179, 26.2529, 45.8622, -0.302643, -102.12, 0.107193
3.124, 2, -0.116179, 26.2529, 45.8622, -0.302643, -102.12, 0.107193
3.128, 2, -0.116179, 26.2529, 45.8622, -0.302643, -102.12, 0.107193
3.132, 2, -0.116179, 26.2529, 45.8622, -0.302643, -102.12, 0.107193
3.136, 2, -0.116179, 26.2529, 45.8622, -0.302643, -102.12, 0.107193
3.14, 2, -0.116179, 26.2529, 45.8622, -0.302643, -102.12, 0.107193
3.143, 2, -0.116179, 26.2529, 45.8622, -0.302643, -102.12, 0.107193
3.148, 2, -0.116179, 26.2529, 45.8622, -0.302643, -102.12, 0.107193
3.152, 2, -0.116179, 26.2529, 45.8622, -0.302643, -102.12, 0.107193
3.156, 2, -0.116179, 26.2529, 45.8622, -0.302643, -102.12, 0.107193
3.16, 2, -0.116179, 26.2529, 45.8622, -0.302643, -102.12, 0.107193
3.163, 2, -0.116179, 26.2529, 45.8622, -0.302643, -102.12, 0.107193
3.168, 2, -0.116179, 26.2529, 45.8622, -0.302643, -102.12, 0.107193
3.172, 2, -0.116179, 26.2529, 45.8622, -0.302643, -102.12, 0.107193
3.176, 2, -0.116179, 26.2529, 45.8622, -0.302643, -102.12, 0.107193
3.179, 2, -0.116179, 26.2529, 45.8622, -0.302643, -102.12, 0.107193
3.184, 2, -0.116179, 26.2529, 45.8622, -0.302643, -102.12, 0.107193
3.188, 2, -0.116179, 26.2529, 45.8622, -0.302643, -102.12, 0.107193
3.192, 2, -0.116179, 26.2529, 45.8622, -0.302643, -102.12, 0.107193
3.196, 2, -0.116179, 26.2529, 45.8622, -0.302643, -102.12, 0.107193
3.199, 2, -0.116179, 26.2529, 45.8622, -0.302643, -102.12, 0.107193
3.204, 2, -0.116179, 26.2529, 45.8622, -0.302643, -102.12, 0.107193
3.208, 2, -0.116179, 26.2529, 45.8622, -0.302643, -102.12, 0.107193
3.212, 2, -0.116179, 26.2529, 45.8622, -0.302643, -102.12, 0.107193
3.216, 2, -0.116179, 26.2529, 45.8622, -0.302643, -102.12, 0.107193
3.22, 2, -0.116179, 26.2529, 45.8622, -0.302643, -102.12, 0.107193
3.224, 2, -0.116179, 26.2529, 45.8622, -0.302643, -102.12, 0.107193
3.228, 2, -0.116179, 26.2529, 45.8622, -0.302643, -102.12, 0.107193
3.232, 2, -0.116179, 26.2529, 45.8622, -0.302643, -102.12, 0.107193
3.235, 2, -0.116179, 26.2529, 45.8622, -0.302643, -102.12, 0.107193
3.24, 2, -0.116179, 26.2529, 45.8622, -0.302643, -102.12, 0.107193
3.244, 2, -0.116179, 26.2529, 45.8622, -0.302643, -102.12, 0.107193
3.248, 2, -0.116179, 26.2529, 45.8622, -0.302643, -102.12, 0.107193
3.252, 2, -0.116179, 26.2529, 45.8622, -0.302643, -102.12, 0.107193
3.255, 2, -0.116179, 26.2529, 45.8622, -0.302643, -102.12, 0.107193
3.26, 2, -0.116179, 26.2529, 45.8622, -0.302643, -102.12, 0.107193
3.264, 2, -0.116179, 26.2529, 45.8622, -0.302643, -102.12, 0.107193
3.268, 2, -0.116179, 26.2529, 45.8622, -0.302643, -102.12, 0.107193
3.272, 2, -0.116179, 26.2529, 45.8622, -0.302643, -102.12, 0.107193
3.276, 2, -0.116179, 26.2529, 45.8622, -0.302643, -102.12, 0.107193
3.28, 2, -0.116179, 26.2529, 45.8622, -0.302643, -102.12, 0.107193
3.284, 2, -0.116179, 26.2529, 45.8622, -0.302643, -102.12, 0.107193
3.288, 2, -0.116179, 26.2529, 45.8622, -0.302643, -102.12, 0.107193
3.291, 2, -0.116179, 26.2529, 45.8622, -0.302643, -102.12, 0.107193
3.296, 2, -0.116179, 26.2529, 45.8622, -0.302643, -102.12, 0.107193
3.3, 2, -0.116179, 26.2529, 45.8622, -0.302643, -102.12, 0.107193
3.304, 4, -0.116179, 26.2529, 45.8622, -0.302643, -102.12, 0.107193
3.308, 4, -0.116179, 26.2529, 45.8622, -0.302643, -102.12, 0.107193
3.312, 4, -0.116179, 26.2529, 45.8622, -0.302643, -102.12, 0.107193
3.316, 4, -0.116179, 26.2529, 45.8622, -0.302643, -102.12, 0.107193
3.32, 4, -0.116179, 26.2529, 45.8622, -0.302643, -102.12, 0.107193
3.324, 4, -0.116179, 26.2529, 45.8622, -0.302643, -102.12, 0.107193
3.328, 4, -0.116179, 26.2529, 45.8622, -0.302643, -102.12, 0.107193
3.332, 4, -0.116179, 26.2529, 45.8622, -0.302643, -102.12, 0.107193
3.336, 4, -0.116179, 26.2529, 45.8622, -0.302643, -102.12, 0.107193
3.34, 4, -0.116179, 26.2529, 45.8622, -0.302643, -102.12, 0.107193
3.344, 4, -0.116179, 26.2529, 45.8622, -0.302643, -102.12, 0.107193
3.347, 4, -0.116179, 26.2529, 45.8622, -0.302643, -102.12, 0.107193
3.352, 4, -0.116179, 26.2529, 45.8622, -0.302643, -102.12, 0.107193
3.356, 4, -0.116179, 26.2529, 45.8622, -0.302643, -102.12, 0.107193
3.36, 4, -0.116179, 26.2529, 45.8622, -0.302643, -102.12, 0.107193
3.364, 4, -0.116179, 26.2529, 45.8622, -0.302643, -102.12, 0.107193
3.368, 4, -0.116179, 26.2529, 45.8622, -0.302643, -102.12, 0.107193
3.372, 4, -0.116179, 26.2529, 45.8622, -0.302643, -102.12, 0.107193
3.376, 4, -0.116179, 26.2529, 45.8622, -0.302643, -102.12, 0.107193
3.38, 4, -0.116179, 26.2529, 45.8622, -0.302643, -102.12, 0.107193
3.383, 4, -0.116179, 26.2529, 45.8622, -0.302643, -102.12, 0.107193
3.388, 4, -0.116179, 26.2529, 45.8622, -0.302643, -102.12, 0.107193
3.392, 4, -0.116179, 26.2529, 45.8622, -0.302643, -102.12, 0.107193
3.396, 4, -0.116179, 26.2529, 45.8622, -0.302643, -102.12, 0.107193
3.4, 4, -0.116179, 26.2529, 45.8622, -0.302643, -102.12, 0.107193
3.403, 4, -0.116179, 26.2529, 45.8622, -0.302643, -102.12, 0.107193
3.408, 4, -0.116179, 26.2529, 45.8622, -0.302643, -102.12, 0.107193
3.414, 4, -0.116179, 26.2529, 45.8622, -0.302643, -102.12, 0.107193
3.416, 4, -0.116179, 26.2529, 45.8622, -0.302643, -102.12, 0.107193
3.42, 4, -0.116179, 26.2529, 45.8622, -0.302643, -102.12, 0.107193
3.424, 4, -0.116179, 26.2529, 45.8622, -0.302643, -102.12, 0.107193
3.428, 4, -0.116179, 26.2529, 45.8622, -0.302643, -102.12, 0.107193
3.432, 4, -0.116178, 26.2529, 45.8622, -0.302643, -102.12, 0.107193
3.436, 4, -0.116171, 26.2529, 45.8622, -0.302643, -102.12, 0.107192
3.439, 4, -0.116143, 26.2527, 45.8622, -0.302643, -102.12, 0.107189
3.444, 4, -0.116073, 26.2524, 45.8622, -0.302642, -102.12, 0.107177
3.448, 4, -0.11593, 26.2518, 45.8623, -0.302638, -102.12, 0.107139
3.452, 4, -0.11569, 26.2506, 45.8623, -0.302629, -102.12, 0.107046
3.456, 4, -0.115332, 26.2489, 45.8624, -0.302606, -102.12, 0.10685
3.46, 4, -0.11484, 26.2464, 45.8626, -0.302562, -102.12, 0.106479
3.464, 4, -0.11421, 26.2431, 45.8628, -0.302482, -102.119, 0.105841
3.468, 4, -0.113444, 26.2387, 45.863, -0.302351, -102.117, 0.104819
3.472, 4, -0.112547, 26.2333, 45.8634, -0.302151, -102.115, 0.103275
3.476, 4, -0.111521, 26.2266, 45.8638, -0.301858, -102.112, 0.101058
3.48, 5, -0.110367, 26.2184, 45.8643, -0.301453, -102.108, 0.098001
3.484, 5, -0.109093, 26.2087, 45.8649, -0.300908, -102.102, 0.0939295
3.488, 5, -0.107724, 26.1972, 45.8656, -0.300201, -102.095, 0.0886653
3.492, 5, -0.106304, 26.184, 45.8664, -0.299307, -102.086, 0.0820359
3.495, 5, -0.104879, 26.1692, 45.8673, -0.298203, -102.074, 0.0738862
3.5, 5, -0.103489, 26.1528, 45.8682, -0.296873, -102.06, 0.0640904
3.504, 5, -0.102158, 26.1347, 45.8693, -0.295303, -102.044, 0.0525627
3.508, 5, -0.100893, 26.1149, 45.8705, -0.293489, -102.025, 0.0392636
3.512, 5, -0.099678, 26.0935, 45.8718, -0.291432, -102.004, 0.0242019
3.516, 5, -0.0984818, 26.0703, 45.8732, -0.28914, -101.98, 0.00743188
3.52, 5, -0.097269, 26.0453, 45.8746, -0.286626, -101.953, -0.0109537
3.524, 5, -0.0960139, 26.0185, 45.8762, -0.283908, -101.925, -0.0308318
3.528, 5, -0.0947009, 25.9901, 45.8778, -0.281007, -101.895, -0.0520572
3.531, 5, -0.093316, 25.96, 45.8795, -0.277944, -101.863, -0.0744685
3.536, 5, -0.09184, 25.9285, 45.8813, -0.274744, -101.829, -0.0978949
3.54, 5, -0.0902485, 25.8956, 45.8832, -0.27143, -101.795, -0.122164
3.544, 5, -0.088519, 25.8615, 45.8851, -0.268027, -101.759, -0.147109
3.548, 5, -0.0866365, 25.8261, 45.887, -0.264555, -101.723, -0.172577
3.552, 5, -0.0845957, 25.7897, 45.889, -0.261033, -101.686, -0.198436
3.556, 5, -0.0824033, 25.7524, 45.891, -0.257475, -101.649, -0.224578
3.56, 5, -0.0800795, 25.7143, 45.8931, -0.253893, -101.611, -0.25092
3.564, 5, -0.0776532, 25.6756, 45.8951, -0.250295, -101.574, -0.277399
3.568, 5, -0.0751537, 25.6366, 45.8971, -0.246687, -101.536, -0.303975
3.572, 5, -0.072604, 25.5973, 45.8992, -0.243071, -101.498, -0.330616
3.576, 5, -0.0700204, 25.5578, 45.9012, -0.239451, -101.46, -0.357304
3.58, 5, -0.0674137, 25.5182, 45.9032, -0.235828, -101.422, -0.384025
3.584, 5, -0.0647914, 25.4785, 45.9051, -0.232204, -101.384, -0.410769
3.587, 5, -0.0621585, 25.4388, 45.9071, -0.228579, -101.345, -0.437532
3.592, 5, -0.0595183, 25.399, 45.909, -0.224954, -101.307, -0.464308
3.596, 5, -0.0568733, 25.3593, 45.9109, -0.221328, -101.269, -0.491095
3.6, 5, -0.0542249, 25.3195, 45.9128, -0.217703, -101.231, -0.51789
3.604, 5, -0.0515743, 25.2798, 45.9146, -0.214079, -101.193, -0.544694
3.608, 5, -0.048922, 25.24, 45.9164, -0.210455, -101.155, -0.571504
3.612, 5, -0.0462687, 25.2003, 45.9182, -0.206832, -101.116, -0.59832
3.616, 5, -0.0436146, 25.1605, 45.92, -0.20321, -101.078, -0.625141
3.62, 5, -0.04096, 25.1208, 45.9217, -0.199588, -101.04, -0.651969
3.624, 5, -0.038305, 25.0811, 45.9234, -0.195968, -101.002, -0.678801
3.628, 5, -0.0356498, 25.0414, 45.9251, -0.192348, -100.963, -0.705639
3.632, 5, -0.0329943, 25.0018, 45.9267, -0.188728, -100.925, -0.732481
3.636, 5, -0.0303387, 24.9621, 45.9283, -0.18511, -100.887, -0.759329
3.64, 5, -0.0276829, 24.9225, 45.9299, -0.181492, -100.848, -0.786181
3.644, 5, -0.025027, 24.8828, 45.9315, -0.177876, -100.81, -0.813039
3.648, 5, -0.0223711, 24.8432, 45.933, -0.17426, -100.772, -0.839901
3.652, 5, -0.019715, 24.8036, 45.9345, -0.170645, -100.733, -0.866769
3.656, 5, -0.0170589, 24.764, 45.936, -0.16703, -100.695, -0.893641
3.66, 5, -0.0144027, 24.7245, 45.9375, -0.163417, -100.657, -0.920518
3.664, 5, -0.0117465, 24.6849, 45.9389, -0.159804, -100.618, -0.9474
3.668, 5, -0.00909021, 24.6454, 45.9403, -0.156192, -100.58, -0.974287
3.672, 5, -0.00643386, 24.6059, 45.9417, -0.152581, -100.541, -1.00118
3.676, 5, -0.00377746, 24.5664, 45.943, -0.148971, -100.503, -1.02808
3.679, 5, -0.00112099, 24.5269, 45.9443, -0.145361, -100.465, -1.05498
3.684, 5, 0.00153552, 24.4874, 45.9456, -0.141752, -100.426, -1.08188
3.688, 5, 0.00419208, 24.448, 45.9469, -0.138144, -100.388, -1.10879
3.692, 5, 0.0068487, 24.4085, 45.9481, -0.134537, -100.349, -1.13571
3.696, 5, 0.00950537, 24.3691, 45.9493, -0.13093, -100.311, -1.16263
3.7, 5, 0.0121621, 24.3297, 45.9505, -0.127325, -100.272, -1.18956
3.704, 5, 0.0148189, 24.2903, 45.9516, -0.12372, -100.234, -1.21649
3.708, 5, 0.0174757, 24.2509, 45.9527, -0.120115, -100.195, -1.24342
3.712, 5, 0.0201325, 24.2116, 45.9538, -0.116512, -100.157, -1.27036
3.716, 5, 0.0227895, 24.1722, 45.9549, -0.112909, -100.118, -1.29731
3.72, 5, 0.0254464, 24.1329, 45.9559, -0.109307, -100.08, -1.32426
3.724, 5, 0.0281034, 24.0936, 45.9569, -0.105706, -100.041, -1.35121
3.728, 5, 0.0307605, 24.0543, 45.9579, -0.102105, -100.002, -1.37817
3.732, 5, 0.0334176, 24.015, 45.9589, -0.0985055, -99.9638, -1.40514
3.735, 5, 0.0360747, 23.9757, 45.9598, -0.0949065, -99.9253, -1.43211
3.74, 5, 0.0387319, 23.9365, 45.9607, -0.0913081, -99.8867, -1.45908
3.744, 5, 0.0413892, 23.8972, 45.9616, -0.0877105, -99.848, -1.48606
3.748, 5, 0.0440471, 23.858, 45.9624, -0.0841135, -99.8094, -1.51305
3.752, 5, 0.0467098, 23.8188, 45.9632, -0.0805171, -99.7708, -1.54004
3.756, 5, 0.0493896, 23.7797, 45.964, -0.0769206, -99.7322, -1.56703
3.76, 5, 0.0521083, 23.7405, 45.9648, -0.0733217, -99.6935, -1.59403
3.764, 5, 0.0548936, 23.7013, 45.9655, -0.0697149, -99.6548, -1.62104
3.768, 5, 0.0577728, 23.6622, 45.9662, -0.0660895, -99.6162, -1.64806
3.772, 5, 0.0607683, 23.623, 45.9669, -0.0624279, -99.5775, -1.6751
3.776, 5, 0.0638946, 23.5839, 45.9676, -0.0587038, -99.5388, -1.70218
3.78, 5, 0.0671553, 23.5448, 45.9683, -0.0548822, -99.5, -1.7293
3.784, 5, 0.0705434, 23.5057, 45.9689, -0.0509193, -99.4613, -1.75648
3.788, 5, 0.074048, 23.4666, 45.9695, -0.0467638, -99.4225, -1.78374
3.792, 5, 0.0776633, 23.4275, 45.9701, -0.0423587, -99.3837, -1.81112
3.796, 5, 0.0813922, 23.3885, 45.9706, -0.0376426, -99.3449, -1.83862
3.8, 5, 0.0852443, 23.3494, 45.9712, -0.0325512, -99.3061, -1.86629
3.804, 5, 0.0892326, 23.3104, 45.9717, -0.0270187, -99.2672, -1.89414
3.808, 5, 0.0933698, 23.2713, 45.9722, -0.020979, -99.2283, -1.9222
3.812, 5, 0.0976683, 23.2323, 45.9726, -0.0143684, -99.1894, -1.95051
3.816, 5, 0.102141, 23.1933, 45.973, -0.00712724, -99.1504, -1.97907
3.82, 5, 0.106802, 23.1542, 45.9734, 0.000797555, -99.1114, -2.00792
3.824, 5, 0.111669, 23.1152, 45.9738, 0.00945124, -99.0723, -2.03708
3.828, 5, 0.11676, 23.0762, 45.9741, 0.0188704, -99.0332, -2.06656
3.832, 5, 0.1221, 23.0372, 45.9744, 0.0290832, -98.9941, -2.09637
3.836, 5, 0.127711, 22.9982, 45.9747, 0.0401106, -98.955, -2.12653
3.84, 5, 0.133612, 22.9593, 45.9749, 0.051968, -98.9158, -2.15704
3.844, 5, 0.139817, 22.9203, 45.9751, 0.0646667, -98.8765, -2.18791
3.848, 5, 0.146336, 22.8813, 45.9753, 0.0782148, -98.8373, -2.21914
3.852, 5, 0.153175, 22.8424, 45.9754, 0.0926186, -98.798, -2.25074
3.856, 5, 0.160342, 22.8034, 45.9755, 0.107883, -98.7586, -2.28271
3.86, 6, 0.167839, 22.7645, 45.9756, 0.124011, -98.7193, -2.31505
3.864, 6, 0.175673, 22.7256, 45.9756, 0.141006, -98.6799, -2.34777
3.868, 6, 0.183845, 22.6867, 45.9756, 0.158869, -98.6404, -2.38087
3.872, 6, 0.192359, 22.6478, 45.9756, 0.177602, -98.601, -2.41435
3.876, 6, 0.201217, 22.6089, 45.9755, 0.197206, -98.5614, -2.44822
3.88, 6, 0.210419, 22.57, 45.9754, 0.217681, -98.5219, -2.48247
3.884, 6, 0.219966, 22.5312, 45.9753, 0.239029, -98.4823, -2.51711
3.888, 6, 0.229859, 22.4924, 45.9751, 0.261249, -98.4427, -2.55214
3.892, 6, 0.240098, 22.4535, 45.9749, 0.284341, -98.4031, -2.58756
3.896, 6, 0.250683, 22.4147, 45.9746, 0.308306, -98.3635, -2.62338
3.9, 6, 0.261613, 22.376, 45.9743, 0.333142, -98.3238, -2.65959
3.904, 6, 0.272887, 22.3372, 45.974, 0.35885, -98.2841, -2.6962
3.908, 6, 0.284505, 22.2985, 45.9736, 0.385427, -98.2443, -2.73321
3.912, 6, 0.296463, 22.2597, 45.9732, 0.412874, -98.2046, -2.77061
3.916, 6, 0.308761, 22.221, 45.9727, 0.441188, -98.1648, -2.80842
3.92, 6, 0.321396, 22.1824, 45.9722, 0.470367, -98.125, -2.84663
3.924, 6, 0.334367, 22.1437, 45.9717, 0.50041, -98.0852, -2.88525
3.928, 6, 0.347668, 22.1051, 45.9711, 0.531313, -98.0453, -2.92427
3.932, 6, 0.361291, 22.0665, 45.9704, 0.563073, -98.0054, -2.9637
3.936, 6, 0.375218, 22.0279, 45.9697, 0.595684, -97.9656, -3.00353
3.94, 6, 0.38943, 21.9893, 45.969, 0.629136, -97.9257, -3.04377
3.944, 6, 0.403907, 21.9508, 45.9682, 0.663414, -97.8857, -3.0844
3.948, 6, 0.418629, 21.9123, 45.9673, 0.698496, -97.8458, -3.12543
3.952, 6, 0.43358, 21.8739, 45.9664, 0.734349, -97.8059, -3.16683
3.956, 6, 0.44874, 21.8354, 45.9655, 0.770935, -97.7659, -3.2086
3.96, 6, 0.464095, 21.797, 45.9645, 0.808206, -97.7259, -3.25071
3.964, 6, 0.479629, 21.7587, 45.9634, 0.846107, -97.686, -3.29315
3.968, 6, 0.495325, 21.7203, 45.9623, 0.884578, -97.646, -3.33588
3.972, 6, 0.511164, 21.682, 45.9611, 0.923556, -97.606, -3.37888
3.976, 6, 0.527132, 21.6437, 45.9599, 0.962976, -97.566, -3.42213
3.98, 6, 0.543226, 21.6055, 45.9586, 1.00277, -97.526, -3.4656
3.984, 6, 0.559452, 21.5673, 45.9573, 1.04288, -97.4861, -3.50925
3.988, 6, 0.57582, 21.5291, 45.9559, 1.08324, -97.4461, -3.55307
3.992, 6, 0.592336, 21.491, 45.9545, 1.12379, -97.4061, -3.59704
3.996, 6, 0.609001, 21.4529, 45.9531, 1.16448, -97.3662, -3.64112
3.999, 6, 0.625807, 21.4149, 45.9516, 1.20528, -97.3263, -3.6853
4.004, 6, 0.642738, 21.3768, 45.95, 1.24614, -97.2863, -3.72958
4.008, 6, 0.659768, 21.3389, 45.9484, 1.28706, -97.2464, -3.77393
4.012, 6, 0.676872, 21.3009, 45.9468, 1.328, -97.2066, -3.81836
4.016, 6, 0.694025, 21.263, 45.9451, 1.36896, -97.1667, -3.86285
4.02, 6, 0.711213, 21.2252, 45.9434, 1.40993, -97.1268, -3.90741
4.024, 6, 0.728423, 21.1873, 45.9416, 1.45091, -97.087, -3.95203
4.028, 6, 0.745649, 21.1496, 45.9398, 1.49188, -97.0471, -3.99671
4.032, 6, 0.762884, 21.1118, 45.9379, 1.53286, -97.0073, -4.04145
4.036, 6, 0.780127, 21.0741, 45.936, 1.57383, -96.9675, -4.08625
4.04, 6, 0.797373, 21.0365, 45.934, 1.6148, -96.9278, -4.1311
4.044, 6, 0.814622, 20.9988, 45.932, 1.65576, -96.888, -4.17601
4.048, 6, 0.831873, 20.9613, 45.9299, 1.69672, -96.8483, -4.22098
4.052, 6, 0.849125, 20.9237, 45.9278, 1.73767, -96.8085, -4.26601
4.056, 6, 0.866377, 20.8862, 45.9256, 1.77862, -96.7688, -4.3111
4.06, 6, 0.883629, 20.8488, 45.9234, 1.81956, -96.7291, -4.35624
4.064, 6, 0.900881, 20.8113, 45.9211, 1.86049, -96.6895, -4.40144
4.068, 6, 0.918132, 20.774, 45.9188, 1.90142, -96.6498, -4.44669
4.072, 6, 0.935382, 20.7366, 45.9164, 1.94234, -96.6102, -4.49201
4.076, 6, 0.952632, 20.6993, 45.914, 1.98326, -96.5706, -4.53737
4.08, 6, 0.969881, 20.6621, 45.9115, 2.02417, -96.531, -4.5828
4.084, 6, 0.98713, 20.6249, 45.909, 2.06507, -96.4914, -4.62828
4.088, 6, 1.00438, 20.5877, 45.9065, 2.10597, -96.4518, -4.67382
4.092, 6, 1.02162, 20.5505, 45.9039, 2.14686, -96.4123, -4.71942
4.096, 6, 1.03887, 20.5135, 45.9012, 2.18775, -96.3727, -4.76507
4.1, 6, 1.05611, 20.4764, 45.8985, 2.22863, -96.3332, -4.81078
4.104, 6, 1.07336, 20.4394, 45.8957, 2.2695, -96.2938, -4.85655
4.108, 6, 1.0906, 20.4024, 45.8929, 2.31037, -96.2543, -4.90237
4.112, 6, 1.10784, 20.3655, 45.89, 2.35123, -96.2148, -4.94825
4.116, 6, 1.12508, 20.3286, 45.8871, 2.39208, -96.1754, -4.99419
4.12, 6, 1.14232, 20.2918, 45.8842, 2.43293, -96.136, -5.04018
4.124, 6, 1.15956, 20.255, 45.8812, 2.47377, -96.0966, -5.08623
4.128, 6, 1.1768, 20.2182, 45.8781, 2.51461, -96.0573, -5.13233
4.132, 6, 1.19403, 20.1815, 45.875, 2.55544, -96.0179, -5.17849
4.136, 6, 1.21128, 20.1448, 45.8719, 2.59626, -95.9786, -5.22471
4.14, 6, 1.22854, 20.1082, 45.8687, 2.63708, -95.9393, -5.27099
4.144, 6, 1.24584, 20.0716, 45.8654, 2.6779, -95.9, -5.31732
4.148, 6, 1.2632, 20.035, 45.8621, 2.71873, -95.8607, -5.36372
4.152, 6, 1.28065, 19.9985, 45.8588, 2.75956, -95.8215, -5.41018
4.156, 6, 1.2982, 19.962, 45.8554, 2.80043, -95.7823, -5.45671
4.16, 6, 1.31586, 19.9255, 45.852, 2.84136, -95.743, -5.50334
4.164, 6, 1.33364, 19.8891, 45.8485, 2.88239, -95.7038, -5.55006
4.168, 6, 1.35154, 19.8527, 45.845, 2.92354, -95.6646, -5.5969
4.172, 6, 1.36955, 19.8163, 45.8414, 2.96487, -95.6254, -5.64387
4.176, 6, 1.38768, 19.78, 45.8377, 3.00643, -95.5862, -5.69101
4.18, 6, 1.40592, 19.7437, 45.8341, 3.04828, -95.547, -5.73832
4.184, 6, 1.42429, 19.7075, 45.8303, 3.09048, -95.5078, -5.78585
4.188, 6, 1.44279, 19.6713, 45.8265, 3.13309, -95.4685, -5.8336
4.192, 6, 1.46142, 19.6351, 45.8226, 3.17617, -95.4293, -5.88161
4.196, 6, 1.48019, 19.599, 45.8187, 3.21978, -95.39, -5.9299
4.2, 6, 1.49913, 19.5629, 45.8147, 3.26397, -95.3507, -5.97849
4.204, 6, 1.51824, 19.5268, 45.8106, 3.3088, -95.3114, -6.02741
4.208, 6, 1.53755, 19.4908, 45.8064, 3.35431, -95.272, -6.07666
4.212, 6, 1.55706, 19.4549, 45.8022, 3.40053, -95.2327, -6.12627
4.216, 6, 1.57682, 19.4189, 45.7979, 3.44749, -95.1933, -6.17625
4.22, 6, 1.59683, 19.383, 45.7934, 3.49522, -95.1539, -6.22661
4.224, 6, 1.61711, 19.3472, 45.7889, 3.54372, -95.1145, -6.27735
4.228, 6, 1.63767, 19.3114, 45.7843, 3.59302, -95.075, -6.32849
4.232, 6, 1.65854, 19.2757, 45.7796, 3.64313, -95.0356, -6.38003
4.236, 6, 1.6797, 19.24, 45.7749, 3.69405, -94.9961, -6.43198
4.24, 7, 1.70117, 19.2043, 45.77, 3.74578, -94.9566, -6.48433
4.244, 7, 1.72296, 19.1687, 45.765, 3.79835, -94.9171, -6.53711
4.248, 7, 1.74507, 19.1332, 45.7599, 3.85174, -94.8775, -6.59031
4.252, 7, 1.7675, 19.0977, 45.7548, 3.90596, -94.838, -6.64393
4.256, 7, 1.79025, 19.0623, 45.7495, 3.96103, -94.7984, -6.69798
4.26, 7, 1.81333, 19.027, 45.7441, 4.01693, -94.7588, -6.75246
4.264, 7, 1.83673, 18.9917, 45.7386, 4.07367, -94.7192, -6.80738
4.268, 7, 1.86047, 18.9564, 45.733, 4.13125, -94.6796, -6.86273
4.272, 7, 1.88453, 18.9213, 45.7273, 4.18968, -94.6399, -6.91852
4.276, 7, 1.90891, 18.8862, 45.7215, 4.24895, -94.6003, -6.97475
4.28, 7, 1.93363, 18.8511, 45.7155, 4.30906, -94.5606, -7.03142
4.284, 7, 1.95867, 18.8162, 45.7095, 4.37002, -94.521, -7.08853
4.288, 7, 1.98404, 18.7813, 45.7033, 4.43181, -94.4813, -7.14609
4.292, 7, 2.00972, 18.7464, 45.697, 4.49443, -94.4416, -7.20409
4.296, 7, 2.03573, 18.7117, 45.6906, 4.55789, -94.4019, -7.26254
4.3, 7, 2.06206, 18.677, 45.6841, 4.62218, -94.3623, -7.32143
4.304, 7, 2.08871, 18.6424, 45.6774, 4.68729, -94.3226, -7.38077
4.308, 7, 2.11567, 18.6078, 45.6707, 4.75322, -94.283, -7.44056
4.312, 7, 2.14293, 18.5733, 45.6638, 4.81996, -94.2433, -7.50078
4.316, 7, 2.17047, 18.539, 45.6567, 4.88751, -94.2036, -7.56146
4.32, 7, 2.19828, 18.5046, 45.6496, 4.95586, -94.164, -7.62257
4.324, 7, 2.22633, 18.4704, 45.6423, 5.02498, -94.1244, -7.68412
4.328, 7, 2.25461, 18.4362, 45.6349, 5.09487, -94.0848, -7.7461
4.332, 7, 2.2831, 18.4021, 45.6274, 5.16548, -94.0452, -7.80849
4.336, 7, 2.31177, 18.3681, 45.6197, 5.23677, -94.0056, -7.87128
4.34, 7, 2.34062, 18.3342, 45.612, 5.30871, -93.9661, -7.93446
4.344, 7, 2.36962, 18.3004, 45.6041, 5.38124, -93.9266, -7.99799
4.348, 7, 2.39877, 18.2666, 45.5961, 5.45429, -93.8871, -8.06186
4.352, 7, 2.42805, 18.2329, 45.5879, 5.52781, -93.8476, -8.12604
4.356, 7, 2.45745, 18.1993, 45.5797, 5.60175, -93.8082, -8.1905
4.36, 7, 2.48697, 18.1658, 45.5714, 5.67603, -93.7689, -8.25522
4.364, 7, 2.51661, 18.1324, 45.5629, 5.75059, -93.7296, -8.32017
4.368, 7, 2.54639, 18.099, 45.5544, 5.82537, -93.6904, -8.38532
4.372, 7, 2.57631, 18.0657, 45.5457, 5.90033, -93.6512, -8.45066
4.376, 7, 2.60636, 18.0325, 45.537, 5.97541, -93.6121, -8.51616
4.38, 7, 2.63653, 17.9994, 45.5282, 6.05058, -93.573, -8.58181
4.384, 7, 2.66681, 17.9664, 45.5193, 6.12581, -93.534, -8.64759
4.388, 7, 2.69717, 17.9334, 45.5102, 6.20107, -93.4951, -8.7135
4.392, 7, 2.72759, 17.9005, 45.5011, 6.27635, -93.4563, -8.77952
4.396, 7, 2.75804, 17.8678, 45.4919, 6.35165, -93.4175, -8.84565
4.4, 7, 2.78852, 17.8351, 45.4827, 6.42694, -93.3788, -8.91189
4.404, 7, 2.81901, 17.8024, 45.4733, 6.50223, -93.3402, -8.97824
4.408, 7, 2.8495, 17.7699, 45.4638, 6.57751, -93.3017, -9.0447
4.412, 7, 2.87999, 17.7375, 45.4543, 6.65279, -93.2632, -9.11126
4.416, 7, 2.91048, 17.7051, 45.4446, 6.72805, -93.2248, -9.17792
4.42, 7, 2.94096, 17.6728, 45.4349, 6.8033, -93.1865, -9.24468
4.424, 7, 2.97144, 17.6406, 45.425, 6.87854, -93.1483, -9.31155
4.428, 7, 3.00191, 17.6085, 45.4151, 6.95377, -93.1101, -9.37852
4.432, 7, 3.03238, 17.5765, 45.4051, 7.02899, -93.0721, -9.44559
4.436, 7, 3.06283, 17.5446, 45.395, 7.10419, -93.034, -9.51276
4.44, 7, 3.09328, 17.5127, 45.3848, 7.17937, -92.9961, -9.58003
4.444, 7, 3.12371, 17.4809, 45.3745, 7.25455, -92.9583, -9.6474
4.448, 7, 3.15414, 17.4492, 45.3641, 7.32971, -92.9205, -9.71487
4.452, 7, 3.18455, 17.4177, 45.3536, 7.40485, -92.8828, -9.78244
4.456, 7, 3.21496, 17.3861, 45.343, 7.47998, -92.8452, -9.85012
4.46, 7, 3.24535, 17.3547, 45.3324, 7.5551, -92.8077, -9.91789
4.464, 7, 3.27574, 17.3234, 45.3216, 7.6302, -92.7702, -9.98576
4.468, 7, 3.30612, 17.2921, 45.3108, 7.70529, -92.7329, -10.0537
4.472, 7, 3.33648, 17.261, 45.2998, 7.78036, -92.6956, -10.1218
4.476, 7, 3.36683, 17.2299, 45.2888, 7.85542, -92.6584, -10.19
4.48, 7, 3.39718, 17.1989, 45.2777, 7.93046, -92.6212, -10.2582
4.484, 7, 3.42751, 17.168, 45.2665, 8.00548, -92.5842, -10.3266
4.488, 7, 3.45783, 17.1372, 45.2552, 8.0805, -92.5472, -10.3951
4.492, 7, 3.48814, 17.1064, 45.2438, 8.15549, -92.5104, -10.4636
4.496, 7, 3.51844, 17.0758, 45.2323, 8.23047, -92.4736, -10.5323
4.5, 7, 3.54873, 17.0452, 45.2208, 8.30544, -92.4368, -10.601
4.504, 7, 3.579, 17.0147, 45.2091, 8.38039, -92.4002, -10.6699
4.508, 7, 3.60927, 16.9843, 45.1973, 8.45533, -92.3637, -10.7389
4.512, 7, 3.63952, 16.954, 45.1855, 8.53024, -92.3272, -10.8079
4.516, 7, 3.66976, 16.9238, 45.1736, 8.60515, -92.2908, -10.8771
4.52, 7, 3.69999, 16.8937, 45.1615, 8.68003, -92.2545, -10.9463
4.524, 7, 3.73021, 16.8637, 45.1494, 8.75491, -92.2183, -11.0156
4.528, 7, 3.76041, 16.8337, 45.1372, 8.82976, -92.1822, -11.0851
4.532, 7, 3.7906, 16.8038, 45.1249, 8.9046, -92.1461, -11.1546
4.536, 7, 3.82078, 16.7741, 45.1126, 8.97942, -92.1102, -11.2242
4.54, 7, 3.85095, 16.7444, 45.1001, 9.05423, -92.0743, -11.294
4.544, 7, 3.88111, 16.7148, 45.0875, 9.12902, -92.0385, -11.3638
4.548, 7, 3.91126, 16.6853, 45.0749, 9.2038, -92.0028, -11.4337
4.552, 7, 3.94143, 16.6558, 45.0621, 9.27855, -91.9672, -11.5037
4.556, 7, 3.97162, 16.6265, 45.0493, 9.3533, -91.9317, -11.5738
4.56, 7, 4.00186, 16.5972, 45.0364, 9.42805, -91.8963, -11.644
4.564, 7, 4.03216, 16.5681, 45.0234, 9.5028, -91.8609, -11.7143
4.568, 7, 4.06255, 16.539, 45.0103, 9.57758, -91.8257, -11.7847
4.572, 7, 4.09302, 16.51, 44.9971, 9.65241, -91.7905, -11.8552
4.576, 7, 4.12359, 16.4812, 44.9838, 9.72733, -91.7554, -11.9259
4.58, 7, 4.15425, 16.4524, 44.9704, 9.80238, -91.7204, -11.9966
4.584, 7, 4.18501, 16.4237, 44.9569, 9.87759, -91.6855, -12.0674
4.588, 7, 4.21586, 16.3951, 44.9432, 9.95302, -91.6507, -12.1384
4.592, 7, 4.2468, 16.3666, 44.9295, 10.0287, -91.6159, -12.2095
4.596, 7, 4.27785, 16.3382, 44.9156, 10.1047, -91.5812, -12.2808
4.6, 7, 4.30899, 16.31, 44.9016, 10.1811, -91.5466, -12.3522
4.604, 7, 4.34023, 16.2818, 44.8874, 10.258, -91.5121, -12.4237
4.608, 7, 4.37158, 16.2538, 44.8731, 10.3353, -91.4776, -12.4954
4.612, 7, 4.40304, 16.2259, 44.8587, 10.4131, -91.4433, -12.5673
4.616, 7, 4.43463, 16.1981, 44.844, 10.4914, -91.409, -12.6394
4.62, 7, 4.46636, 16.1704, 44.8292, 10.5704, -91.3747, -12.7116
4.624, 7, 4.49826, 16.1428, 44.8142, 10.65, -91.3406, -12.7841
4.628, 7, 4.53033, 16.1154, 44.799, 10.7301, -91.3065, -12.8567
4.632, 7, 4.56259, 16.0881, 44.7837, 10.811, -91.2726, -12.9295
4.636, 8, 4.59507, 16.061, 44.7681, 10.8924, -91.2387, -13.0025
4.64, 8, 4.62776, 16.0339, 44.7524, 10.9746, -91.2048, -13.0758
4.644, 8, 4.66068, 16.007, 44.7364, 11.0574, -91.1711, -13.1492
4.648, 8, 4.69382, 15.9803, 44.7203, 11.1408, -91.1375, -13.2228
4.652, 8, 4.72719, 15.9537, 44.7039, 11.2249, -91.1039, -13.2966
4.656, 8, 4.7608, 15.9273, 44.6874, 11.3097, -91.0704, -13.3707
4.66, 8, 4.79464, 15.901, 44.6706, 11.3951, -91.037, -13.4449
4.664, 8, 4.82871, 15.8748, 44.6537, 11.4812, -91.0037, -13.5194
4.668, 8, 4.86302, 15.8488, 44.6365, 11.568, -90.9706, -13.594
4.672, 8, 4.89756, 15.8229, 44.6192, 11.6554, -90.9375, -13.6689
4.676, 8, 4.93233, 15.7972, 44.6016, 11.7435, -90.9044, -13.744
4.68, 8, 4.96734, 15.7717, 44.5838, 11.8322, -90.8715, -13.8193
4.684, 8, 5.00257, 15.7463, 44.5658, 11.9217, -90.8387, -13.8948
4.688, 8, 5.03804, 15.7211, 44.5476, 12.0117, -90.806, -13.9705
4.692, 8, 5.07372, 15.696, 44.5291, 12.1025, -90.7734, -14.0464
4.696, 8, 5.10962, 15.6711, 44.5105, 12.1938, -90.741, -14.1225
4.7, 8, 5.14572, 15.6463, 44.4916, 12.2859, -90.7086, -14.1989
4.704, 8, 5.182, 15.6217, 44.4725, 12.3785, -90.6763, -14.2755
4.708, 8, 5.21845, 15.5972, 44.4532, 12.4718, -90.6441, -14.3523
4.712, 8, 5.25503, 15.5729, 44.4337, 12.5657, -90.6121, -14.4292
4.716, 8, 5.29175, 15.5488, 44.414, 12.6602, -90.5802, -14.5064
4.72, 8, 5.32858, 15.5247, 44.3941, 12.7552, -90.5484, -14.5838
4.724, 8, 5.36551, 15.5009, 44.3739, 12.8508, -90.5167, -14.6614
4.728, 8, 5.40255, 15.4772, 44.3536, 12.9468, -90.4851, -14.7392
4.732, 8, 5.43969, 15.4536, 44.3331, 13.0432, -90.4537, -14.8172
4.736, 8, 5.47692, 15.4302, 44.3124, 13.14, -90.4223, -14.8953
4.74, 8, 5.51423, 15.4069, 44.2916, 13.2371, -90.3911, -14.9737
4.744, 8, 5.55163, 15.3838, 44.2705, 13.3344, -90.3601, -15.0521
4.748, 8, 5.58913, 15.3607, 44.2493, 13.432, -90.3292, -15.1307
4.752, 8, 5.62671, 15.3379, 44.228, 13.5297, -90.2983, -15.2095
4.756, 8, 5.66438, 15.3151, 44.2065, 13.6275, -90.2677, -15.2884
4.76, 8, 5.70213, 15.2925, 44.1849, 13.7254, -90.2372, -15.3674
4.764, 8, 5.73996, 15.27, 44.1631, 13.8234, -90.2068, -15.4466
4.768, 8, 5.77785, 15.2477, 44.1413, 13.9213, -90.1765, -15.5258
4.772, 8, 5.81577, 15.2254, 44.1192, 14.0193, -90.1464, -15.6052
4.776, 8, 5.85371, 15.2033, 44.0971, 14.1173, -90.1164, -15.6847
4.78, 8, 5.89166, 15.1813, 44.0748, 14.2152, -90.0866, -15.7643
4.784, 8, 5.9296, 15.1595, 44.0524, 14.3131, -90.0569, -15.844
4.788, 8, 5.96752, 15.1377, 44.0299, 14.411, -90.0273, -15.9239
4.792, 8, 6.00542, 15.1161, 44.0072, 14.5088, -89.9979, -16.0038
4.796, 8, 6.0433, 15.0946, 43.9844, 14.6067, -89.9686, -16.0839
4.8, 8, 6.08115, 15.0732, 43.9615, 14.7044, -89.9395, -16.164
4.804, 8, 6.11897, 15.052, 43.9385, 14.8022, -89.9105, -16.2443
4.808, 8, 6.15676, 15.0309, 43.9153, 14.8999, -89.8816, -16.3246
4.812, 8, 6.19453, 15.0098, 43.892, 14.9975, -89.8529, -16.4051
4.816, 8, 6.23225, 14.989, 43.8686, 15.0952, -89.8243, -16.4857
4.82, 8, 6.26995, 14.9682, 43.8451, 15.1927, -89.7959, -16.5664
4.824, 8, 6.30762, 14.9475, 43.8214, 15.2903, -89.7676, -16.6472
4.828, 8, 6.34525, 14.927, 43.7976, 15.3878, -89.7395, -16.7281
4.832, 8, 6.38285, 14.9066, 43.7737, 15.4852, -89.7115, -16.8091
4.836, 8, 6.42042, 14.8863, 43.7497, 15.5827, -89.6836, -16.8902
4.84, 8, 6.45795, 14.8662, 43.7255, 15.68, -89.6559, -16.9714
4.844, 8, 6.49545, 14.8461, 43.7013, 15.7774, -89.6283, -17.0527
4.848, 8, 6.53292, 14.8262, 43.6769, 15.8747, -89.6009, -17.1341
4.852, 8, 6.57035, 14.8064, 43.6523, 15.9719, -89.5736, -17.2157
4.856, 8, 6.60775, 14.7868, 43.6277, 16.0691, -89.5465, -17.2973
4.86, 8, 6.64511, 14.7672, 43.6029, 16.1663, -89.5195, -17.379
4.864, 8, 6.68244, 14.7478, 43.578, 16.2634, -89.4926, -17.4608
4.868, 8, 6.71974, 14.7285, 43.553, 16.3605, -89.4659, -17.5427
4.872, 8, 6.757, 14.7093, 43.5278, 16.4575, -89.4394, -17.6247
4.876, 8, 6.79422, 14.6902, 43.5025, 16.5545, -89.413, -17.7068
4.88, 8, 6.83141, 14.6713, 43.4771, 16.6514, -89.3867, -17.7891
4.884, 8, 6.86857, 14.6525, 43.4516, 16.7483, -89.3606, -17.8714
4.888, 8, 6.90568, 14.6338, 43.426, 16.8452, -89.3346, -17.9538
4.892, 8, 6.94277, 14.6152, 43.4002, 16.942, -89.3088, -18.0363
4.896, 8, 6.97982, 14.5967, 43.3743, 17.0387, -89.2831, -18.1189
4.9, 8, 7.01683, 14.5784, 43.3483, 17.1354, -89.2576, -18.2016
4.904, 8, 7.0538, 14.5602, 43.3222, 17.2321, -89.2322, -18.2844
4.908, 8, 7.09074, 14.5421, 43.2959, 17.3287, -89.207, -18.3672
4.912, 8, 7.12764, 14.5241, 43.2696, 17.4253, -89.1819, -18.4502
4.916, 8, 7.16451, 14.5063, 43.2431, 17.5218, -89.157, -18.5333
4.92, 8, 7.20134, 14.4886, 43.2165, 17.6183, -89.1322, -18.6165
4.924, 8, 7.23813, 14.471, 43.1897, 17.7147, -89.1075, -18.6997
4.928, 8, 7.27489, 14.4535, 43.1629, 17.8111, -89.0831, -18.7831
4.932, 8, 7.3116, 14.4361, 43.1359, 17.9074, -89.0587, -18.8665
4.936, 8, 7.34828, 14.4189, 43.1088, 18.0037, -89.0345, -18.9501
4.94, 8, 7.38493, 14.4018, 43.0816, 18.0999, -89.0105, -19.0337
4.944, 8, 7.42153, 14.3848, 43.0542, 18.1961, -88.9866, -19.1174
4.948, 8, 7.4581, 14.3679, 43.0267, 18.2922, -88.9629, -19.2012
4.952, 8, 7.49463, 14.3512, 42.9992, 18.3883, -88.9393, -19.2851
4.956, 8, 7.53112, 14.3345, 42.9715, 18.4843, -88.9159, -19.3691
4.96, 8, 7.56757, 14.318, 42.9436, 18.5803, -88.8926, -19.4532
4.964, 8, 7.60398, 14.3016, 42.9157, 18.6762, -88.8695, -19.5373
4.968, 8, 7.64036, 14.2854, 42.8876, 18.7721, -88.8465, -19.6216
4.972, 8, 7.67669, 14.2692, 42.8594, 18.8679, -88.8237, -19.7059
4.976, 8, 7.71299, 14.2532, 42.8311, 18.9636, -88.801, -19.7903
4.98, 8, 7.74924, 14.2373, 42.8027, 19.0594, -88.7785, -19.8748
4.984, 8, 7.78546, 14.2215, 42.7741, 19.155, -88.7561, -19.9594
4.988, 8, 7.82164, 14.2059, 42.7455, 19.2506, -88.7339, -20.0441
4.992, 8, 7.85778, 14.1903, 42.7167, 19.3462, -88.7118, -20.1289
4.996, 8, 7.89388, 14.1749, 42.6878, 19.4417, -88.6899, -20.2137
5, 8, 7.92993, 14.1596, 42.6588, 19.5371, -88.6682, -20.2986
5.004, 8, 7.96595, 14.1445, 42.6296, 19.6325, -88.6466, -20.3837
5.008, 8, 8.00193, 14.1294, 42.6004, 19.7278, -88.6251, -20.4688
5.012, 8, 8.03786, 14.1145, 42.571, 19.8231, -88.6038, -20.5539
5.016, 8, 8.07376, 14.0997, 42.5415, 19.9184, -88.5827, -20.6392
5.02, 8, 8.10961, 14.085, 42.5119, 20.0135, -88.5617, -20.7245
5.024, 8, 8.14543, 14.0704, 42.4822, 20.1086, -88.5409, -20.81
5.028, 8, 8.1812, 14.056, 42.4523, 20.2037, -88.5203, -20.8955
5.032, 8, 8.21693, 14.0417, 42.4223, 20.2987, -88.4997, -20.981
5.036, 8, 8.25262, 14.0275, 42.3923, 20.3936, -88.4794, -21.0667
5.04, 8, 8.28826, 14.0134, 42.362, 20.4885, -88.4592, -21.1524
5.044, 8, 8.32386, 13.9994, 42.3317, 20.5834, -88.4392, -21.2382
5.048, 8, 8.35941, 13.9856, 42.3013, 20.6782, -88.4193, -21.3239
5.052, 8, 8.39492, 13.9719, 42.2707, 20.7729, -88.3996, -21.4097
5.056, 8, 8.43038, 13.9583, 42.2401, 20.8676, -88.38, -21.4954
5.06, 8, 8.46579, 13.9449, 42.2093, 20.9622, -88.3606, -21.581
5.064, 8, 8.50116, 13.9316, 42.1784, 21.0568, -88.3415, -21.6665
5.068, 8, 8.53647, 13.9184, 42.1473, 21.1514, -88.3224, -21.7517
5.072, 8, 8.57174, 13.9054, 42.1162, 21.2459, -88.3036, -21.8367
5.076, 8, 8.60696, 13.8924, 42.0849, 21.3404, -88.285, -21.9213
5.08, 8, 8.64213, 13.8797, 42.0535, 21.4349, -88.2665, -22.0055
5.084, 8, 8.67725, 13.867, 42.0219, 21.5293, -88.2483, -22.0892
5.088, 8, 8.71232, 13.8545, 41.9903, 21.6237, -88.2302, -22.1724
5.092, 8, 8.74734, 13.8421, 41.9585, 21.7182, -88.2124, -22.2551
5.096, 8, 8.78232, 13.8299, 41.9266, 21.8126, -88.1947, -22.3371
5.1, 8, 8.81724, 13.8178, 41.8945, 21.9069, -88.1773, -22.4185
5.104, 8, 8.85211, 13.8059, 41.8623, 22.0013, -88.1601, -22.4992
5.108, 8, 8.88694, 13.7941, 41.83, 22.0957, -88.1431, -22.5792
5.112, 8, 8.92171, 13.7824, 41.7975, 22.1901, -88.1262, -22.6585
5.116, 9, 8.95643, 13.7709, 41.7649, 22.2844, -88.1096, -22.737
5.12, 9, 8.99109, 13.7595, 41.7322, 22.3788, -88.0933, -22.8149
5.124, 9, 9.0257, 13.7483, 41.6993, 22.4731, -88.0771, -22.892
5.128, 9, 9.06026, 13.7372, 41.6663, 22.5674, -88.0611, -22.9684
5.132, 9, 9.09476, 13.7263, 41.6332, 22.6618, -88.0453, -23.044
5.136, 9, 9.12921, 13.7155, 41.5999, 22.7561, -88.0297, -23.1189
5.14, 9, 9.1636, 13.7048, 41.5665, 22.8504, -88.0144, -23.193
5.144, 9, 9.19793, 13.6943, 41.5329, 22.9447, -87.9992, -23.2664
5.148, 9, 9.23221, 13.684, 41.4992, 23.039, -87.9842, -23.3391
5.152, 9, 9.26643, 13.6737, 41.4654, 23.1333, -87.9694, -23.411
5.156, 9, 9.30059, 13.6636, 41.4314, 23.2275, -87.9548, -23.4822
5.16, 9, 9.3347, 13.6537, 41.3973, 23.3218, -87.9404, -23.5527
5.164, 9, 9.36875, 13.6439, 41.3631, 23.4161, -87.9262, -23.6224
5.168, 9, 9.40275, 13.6342, 41.3287, 23.5103, -87.9121, -23.6913
5.172, 9, 9.43669, 13.6246, 41.2942, 23.6046, -87.8982, -23.7595
5.176, 9, 9.47058, 13.6152, 41.2596, 23.6988, -87.8846, -23.827
5.18, 9, 9.50442, 13.6059, 41.2248, 23.793, -87.8711, -23.8937
5.184, 9, 9.53821, 13.5967, 41.1899, 23.8873, -87.8578, -23.9597
5.188, 9, 9.57194, 13.5877, 41.1549, 23.9815, -87.8446, -24.025
5.192, 9, 9.60562, 13.5787, 41.1197, 24.0757, -87.8316, -24.0896
5.196, 9, 9.63926, 13.5699, 41.0845, 24.1699, -87.8188, -24.1536
5.2, 9, 9.67284, 13.5612, 41.0491, 24.2641, -87.8062, -24.2169
5.204, 9, 9.70637, 13.5527, 41.0135, 24.3583, -87.7937, -24.2796
5.208, 9, 9.73985, 13.5442, 40.9779, 24.4524, -87.7814, -24.3419
5.212, 9, 9.77328, 13.5358, 40.9422, 24.5465, -87.7692, -24.4036
5.216, 9, 9.80665, 13.5276, 40.9063, 24.6406, -87.7572, -24.465
5.22, 9, 9.83998, 13.5194, 40.8703, 24.7347, -87.7453, -24.526
5.224, 9, 9.87326, 13.5114, 40.8342, 24.8287, -87.7335, -24.5867
5.228, 9, 9.90648, 13.5035, 40.798, 24.9227, -87.7219, -24.6472
5.232, 9, 9.93966, 13.4956, 40.7617, 25.0166, -87.7104, -24.7076
5.236, 9, 9.97278, 13.4879, 40.7253, 25.1105, -87.6991, -24.7678
5.24, 9, 10.0059, 13.4802, 40.6888, 25.2044, -87.6878, -24.828
5.244, 9, 10.0389, 13.4727, 40.6522, 25.2982, -87.6767, -24.8881
5.248, 9, 10.0719, 13.4653, 40.6154, 25.3919, -87.6657, -24.9483
5.252, 9, 10.1048, 13.4579, 40.5786, 25.4855, -87.6548, -25.0084
5.256, 9, 10.1377, 13.4507, 40.5416, 25.5792, -87.644, -25.0686
5.26, 9, 10.1705, 13.4435, 40.5046, 25.6727, -87.6334, -25.1289
5.264, 9, 10.2033, 13.4364, 40.4674, 25.7662, -87.6228, -25.1892
5.268, 9, 10.2361, 13.4294, 40.4302, 25.8596, -87.6124, -25.2495
5.272, 9, 10.2688, 13.4226, 40.3928, 25.9529, -87.6021, -25.3099
5.276, 9, 10.3014, 13.4158, 40.3554, 26.0462, -87.5919, -25.3704
5.28, 9, 10.334, 13.4091, 40.3178, 26.1395, -87.5818, -25.4309
5.284, 9, 10.3666, 13.4025, 40.2801, 26.2326, -87.5718, -25.4914
5.288, 9, 10.3991, 13.3959, 40.2423, 26.3257, -87.562, -25.5521
5.292, 9, 10.4316, 13.3895, 40.2044, 26.4187, -87.5522, -25.6128
5.296, 9, 10.464, 13.3832, 40.1664, 26.5117, -87.5426, -25.6735
5.3, 9, 10.4964, 13.3769, 40.1284, 26.6046, -87.5331, -25.7343
5.304, 9, 10.5287, 13.3708, 40.0902, 26.6974, -87.5237, -25.7952
5.308, 9, 10.561, 13.3647, 40.0519, 26.7902, -87.5145, -25.8561
5.312, 9, 10.5933, 13.3588, 40.0135, 26.8829, -87.5053, -25.9171
5.316, 9, 10.6255, 13.3529, 39.9749, 26.9755, -87.4963, -25.9782
5.32, 9, 10.6576, 13.3471, 39.9363, 27.0681, -87.4873, -26.0393
5.324, 9, 10.6897, 13.3414, 39.8976, 27.1606, -87.4785, -26.1004
5.328, 9, 10.7218, 13.3359, 39.8588, 27.253, -87.4698, -26.1616
5.332, 9, 10.7538, 13.3304, 39.8199, 27.3454, -87.4613, -26.2229
5.336, 9, 10.7858, 13.3249, 39.7809, 27.4377, -87.4528, -26.2842
5.34, 9, 10.8177, 13.3196, 39.7417, 27.5299, -87.4445, -26.3456
5.344, 9, 10.8495, 13.3144, 39.7025, 27.6221, -87.4362, -26.407
5.348, 9, 10.8812, 13.3092, 39.6632, 27.7141, -87.4281, -26.4685
5.352, 9, 10.9128, 13.3042, 39.6238, 27.8061, -87.4201, -26.5299
5.356, 9, 10.9443, 13.2992, 39.5843, 27.898, -87.4122, -26.5913
5.36, 9, 10.9757, 13.2943, 39.5447, 27.9898, -87.4045, -26.6526
5.364, 9, 11.007, 13.2895, 39.505, 28.0814, -87.3969, -26.7138
5.368, 9, 11.0382, 13.2848, 39.4653, 28.1729, -87.3894, -26.7748
5.372, 9, 11.0693, 13.2801, 39.4255, 28.2642, -87.382, -26.8355
5.376, 9, 11.1002, 13.2755, 39.3856, 28.3552, -87.3748, -26.8958
5.38, 9, 11.1311, 13.271, 39.3457, 28.446, -87.3678, -26.9557
5.384, 9, 11.1618, 13.2665, 39.3058, 28.5366, -87.3608, -27.0151
5.388, 9, 11.1923, 13.2621, 39.2658, 28.6268, -87.354, -27.0738
5.392, 9, 11.2228, 13.2578, 39.2259, 28.7168, -87.3474, -27.132
5.396, 9, 11.2531, 13.2535, 39.1859, 28.8063, -87.3409, -27.1893
5.4, 9, 11.2833, 13.2492, 39.146, 28.8955, -87.3346, -27.2459
5.404, 9, 11.3134, 13.245, 39.1061, 28.9843, -87.3285, -27.3017
5.408, 9, 11.3433, 13.2409, 39.0662, 29.0727, -87.3224, -27.3565
5.412, 9, 11.3731, 13.2367, 39.0263, 29.1607, -87.3166, -27.4104
5.416, 9, 11.4027, 13.2326, 38.9865, 29.2482, -87.3109, -27.4634
5.42, 9, 11.4321, 13.2285, 38.9467, 29.3353, -87.3053, -27.5155
5.424, 9, 11.4613, 13.2245, 38.907, 29.422, -87.2999, -27.5665
5.428, 9, 11.4903, 13.2205, 38.8673, 29.5082, -87.2947, -27.6166
5.432, 10, 11.5191, 13.2164, 38.8277, 29.594, -87.2896, -27.6657
5.436, 10, 11.5477, 13.2124, 38.7881, 29.6793, -87.2846, -27.7138
5.44, 10, 11.5761, 13.2084, 38.7486, 29.7642, -87.2798, -27.7609
5.444, 10, 11.6043, 13.2045, 38.7092, 29.8486, -87.2751, -27.807
5.448, 10, 11.6323, 13.2005, 38.6698, 29.9325, -87.2705, -27.8521
5.452, 10, 11.6601, 13.1965, 38.6305, 30.0161, -87.2661, -27.8962
5.456, 10, 11.6877, 13.1925, 38.5913, 30.0991, -87.2618, -27.9393
5.46, 10, 11.7151, 13.1886, 38.5522, 30.1818, -87.2576, -27.9813
5.464, 10, 11.7423, 13.1846, 38.5131, 30.2639, -87.2536, -28.0224
5.468, 10, 11.7692, 13.1806, 38.4741, 30.3456, -87.2497, -28.0624
5.472, 10, 11.796, 13.1766, 38.4352, 30.4269, -87.2458, -28.1014
5.476, 10, 11.8225, 13.1726, 38.3963, 30.5077, -87.2421, -28.1394
5.48, 10, 11.8489, 13.1687, 38.3575, 30.5881, -87.2385, -28.1764
5.484, 10, 11.875, 13.1647, 38.3188, 30.6681, -87.2351, -28.2123
5.488, 10, 11.901, 13.1606, 38.2802, 30.7476, -87.2317, -28.2473
5.492, 10, 11.9268, 13.1566, 38.2417, 30.8267, -87.2284, -28.2813
5.496, 10, 11.9523, 13.1526, 38.2032, 30.9053, -87.2253, -28.3142
5.5, 10, 11.9777, 13.1486, 38.1649, 30.9835, -87.2222, -28.3462
5.504, 10, 12.0029, 13.1445, 38.1265, 31.0613, -87.2192, -28.3772
5.508, 10, 12.0279, 13.1405, 38.0883, 31.1387, -87.2163, -28.4072
5.512, 10, 12.0528, 13.1364, 38.0502, 31.2156, -87.2135, -28.4362
5.516, 10, 12.0776, 13.1323, 38.0121, 31.2922, -87.2108, -28.4643
5.52, 10, 12.1022, 13.1283, 37.9741, 31.3683, -87.2082, -28.4915
5.524, 10, 12.1267, 13.1242, 37.9361, 31.4441, -87.2057, -28.5178
5.528, 10, 12.151, 13.1201, 37.8982, 31.5196, -87.2032, -28.5432
5.532, 10, 12.1753, 13.1161, 37.8603, 31.5947, -87.2009, -28.5679
5.536, 10, 12.1994, 13.112, 37.8225, 31.6695, -87.1985, -28.5919
5.54, 10, 12.2234, 13.108, 37.7846, 31.744, -87.1963, -28.6153
5.544, 10, 12.2473, 13.1039, 37.7468, 31.8183, -87.1941, -28.6381
5.548, 10, 12.2711, 13.0999, 37.709, 31.8924, -87.192, -28.6604
5.552, 10, 12.2948, 13.0959, 37.6712, 31.9662, -87.1899, -28.6824
5.556, 10, 12.3184, 13.092, 37.6334, 32.0399, -87.1879, -28.704
5.56, 10, 12.3419, 13.088, 37.5955, 32.1135, -87.186, -28.7254
5.564, 10, 12.3653, 13.0841, 37.5576, 32.1869, -87.1841, -28.7466
5.568, 10, 12.3887, 13.0802, 37.5197, 32.2603, -87.1822, -28.7677
5.572, 10, 12.4119, 13.0764, 37.4817, 32.3335, -87.1804, -28.7887
5.576, 10, 12.435, 13.0726, 37.4436, 32.4067, -87.1786, -28.8097
5.58, 10, 12.4581, 13.0688, 37.4055, 32.4799, -87.1769, -28.8306
5.584, 10, 12.4811, 13.0651, 37.3674, 32.553, -87.1752, -28.8516
5.588, 10, 12.5041, 13.0614, 37.3291, 32.626, -87.1736, -28.8726
5.592, 10, 12.527, 13.0578, 37.2908, 32.699, -87.172, -28.8936
5.596, 10, 12.5499, 13.0542, 37.2525, 32.772, -87.1704, -28.9146
5.6, 10, 12.5728, 13.0506, 37.2141, 32.8449, -87.169, -28.9357
5.604, 10, 12.5956, 13.0471, 37.1756, 32.9178, -87.1675, -28.9568
5.608, 10, 12.6184, 13.0436, 37.137, 32.9906, -87.1661, -28.9779
5.612, 10, 12.6411, 13.0402, 37.0984, 33.0634, -87.1647, -28.9991
5.616, 10, 12.6637, 13.0368, 37.0597, 33.1361, -87.1634, -29.0203
5.62, 10, 12.6862, 13.0334, 37.021, 33.2088, -87.1621, -29.0415
5.624, 10, 12.7087, 13.0301, 36.9822, 33.2814, -87.1608, -29.0626
5.628, 10, 12.731, 13.0267, 36.9434, 33.3539, -87.1596, -29.0836
5.632, 10, 12.7533, 13.0234, 36.9045, 33.4263, -87.1584, -29.1044
5.636, 10, 12.7754, 13.02, 36.8657, 33.4986, -87.1572, -29.125
5.64, 10, 12.7974, 13.0167, 36.8268, 33.5707, -87.1561, -29.1453
5.644, 10, 12.8193, 13.0133, 36.7879, 33.6426, -87.155, -29.1651
5.648, 10, 12.8411, 13.0099, 36.7491, 33.7142, -87.1538, -29.1844
5.652, 10, 12.8627, 13.0065, 36.7103, 33.7856, -87.1527, -29.203
5.656, 10, 12.8843, 13.003, 36.6716, 33.8566, -87.1515, -29.2209
5.66, 10, 12.9057, 12.9994, 36.633, 33.9273, -87.1503, -29.238
5.664, 10, 12.927, 12.9958, 36.5944, 33.9977, -87.1491, -29.2542
5.668, 10, 12.9482, 12.9922, 36.556, 34.0676, -87.1479, -29.2693
5.672, 10, 12.9692, 12.9884, 36.5178, 34.137, -87.1466, -29.2834
5.676, 10, 12.9901, 12.9846, 36.4796, 34.2061, -87.1453, -29.2964
5.68, 10, 13.0108, 12.9806, 36.4416, 34.2746, -87.1439, -29.3082
5.684, 10, 13.0314, 12.9766, 36.4038, 34.3426, -87.1425, -29.3188
5.688, 10, 13.0517, 12.9724, 36.3662, 34.4102, -87.141, -29.3282
5.692, 10, 13.0719, 12.9682, 36.3288, 34.4773, -87.1395, -29.3363
5.696, 10, 13.0918, 12.9638, 36.2915, 34.5438, -87.1379, -29.3433
5.7, 11, 13.1115, 12.9592, 36.2544, 34.6099, -87.1362, -29.3489
5.704, 11, 13.1311, 12.9546, 36.2175, 34.6754, -87.1344, -29.3534
5.708, 11, 13.1504, 12.9497, 36.1809, 34.7405, -87.1326, -29.3566
5.712, 11, 13.1694, 12.9448, 36.1444, 34.805, -87.1307, -29.3586
5.716, 11, 13.1883, 12.9397, 36.1081, 34.8691, -87.1288, -29.3594
5.72, 11, 13.2069, 12.9345, 36.072, 34.9326, -87.1267, -29.3589
5.724, 11, 13.2253, 12.9291, 36.0362, 34.9957, -87.1246, -29.3572
5.728, 11, 13.2435, 12.9236, 36.0005, 35.0583, -87.1224, -29.3542
5.732, 11, 13.2615, 12.9179, 35.965, 35.1203, -87.1201, -29.35
5.736, 11, 13.2792, 12.9121, 35.9298, 35.1819, -87.1178, -29.3446
5.74, 11, 13.2968, 12.9061, 35.8948, 35.243, -87.1153, -29.3379
5.744, 11, 13.3141, 12.9, 35.8599, 35.3036, -87.1128, -29.3301
5.748, 11, 13.3311, 12.8938, 35.8253, 35.3637, -87.1101, -29.3209
5.752, 11, 13.348, 12.8873, 35.7909, 35.4233, -87.1074, -29.3105
5.756, 11, 13.3647, 12.8808, 35.7567, 35.4825, -87.1046, -29.2989
5.76, 11, 13.3812, 12.8741, 35.7227, 35.5411, -87.1017, -29.286
5.764, 11, 13.3974, 12.8672, 35.6889, 35.5993, -87.0987, -29.2719
5.768, 11, 13.4135, 12.8602, 35.6554, 35.6569, -87.0955, -29.2565
5.772, 11, 13.4295, 12.8531, 35.622, 35.7141, -87.0923, -29.2399
5.776, 11, 13.4452, 12.8459, 35.5888, 35.7709, -87.089, -29.2221
5.78, 11, 13.4609, 12.8385, 35.5558, 35.8272, -87.0856, -29.2032
5.784, 11, 13.4764, 12.831, 35.523, 35.8831, -87.0821, -29.1831
5.788, 11, 13.4918, 12.8235, 35.4903, 35.9386, -87.0784, -29.162
5.792, 11, 13.5071, 12.8158, 35.4578, 35.9937, -87.0747, -29.14
5.796, 11, 13.5222, 12.808, 35.4254, 36.0485, -87.071, -29.117
5.8, 11, 13.5373, 12.8002, 35.3931, 36.103, -87.0671, -29.0933
5.804, 11, 13.5523, 12.7923, 35.3609, 36.1573, -87.0632, -29.0689
5.808, 11, 13.5671, 12.7843, 35.3287, 36.2113, -87.0592, -29.044
5.812, 11, 13.5819, 12.7763, 35.2967, 36.2651, -87.0552, -29.0185
5.816, 11, 13.5965, 12.7682, 35.2646, 36.3188, -87.0511, -28.9927
5.82, 11, 13.6111, 12.7601, 35.2326, 36.3724, -87.047, -28.9666
5.824, 11, 13.6255, 12.7519, 35.2006, 36.4259, -87.0428, -28.9403
5.828, 11, 13.6399, 12.7438, 35.1686, 36.4793, -87.0387, -28.9138
5.832, 11, 13.6542, 12.7356, 35.1365, 36.5327, -87.0345, -28.8873
5.836, 11, 13.6683, 12.7273, 35.1045, 36.586, -87.0303, -28.8607
5.84, 11, 13.6823, 12.7191, 35.0724, 36.6393, -87.0261, -28.834
5.844, 11, 13.6962, 12.7107, 35.0404, 36.6926, -87.0218, -28.8073
5.848, 11, 13.7099, 12.7023, 35.0083, 36.7458, -87.0175, -28.7806
5.852, 11, 13.7235, 12.6939, 34.9763, 36.7989, -87.0132, -28.7538
5.856, 11, 13.7369, 12.6853, 34.9443, 36.8519, -87.0088, -28.7268
5.86, 11, 13.7502, 12.6766, 34.9123, 36.9047, -87.0043, -28.6995
5.864, 11, 13.7633, 12.6678, 34.8804, 36.9573, -86.9997, -28.672
5.868, 11, 13.7763, 12.6589, 34.8487, 37.0096, -86.9949, -28.6441
5.872, 11, 13.7892, 12.6498, 34.8171, 37.0615, -86.99, -28.6156
5.876, 11, 13.802, 12.6405, 34.7858, 37.113, -86.9848, -28.5865
5.88, 11, 13.8146, 12.631, 34.7546, 37.164, -86.9793, -28.5568
5.884, 11, 13.827, 12.6213, 34.7238, 37.2145, -86.9736, -28.5262
5.888, 11, 13.8393, 12.6113, 34.6932, 37.2642, -86.9675, -28.4946
5.892, 11, 13.8514, 12.6011, 34.663, 37.3133, -86.9611, -28.4621
