hehonglu123/Motion-Primitive-Planning/simulation/robotstudio_sim/scripts/greedy_output/wood_1/curve_exe_v150_z10.csv
timestamp, cmd_num, J1, J2, J3, J4, J5, J6
0, -1, 5.84923, -7.16989, 21.5661, 27.7695, -45.2187, 2.89185
0.002, -1, 5.84923, -7.16989, 21.5661, 27.7695, -45.2187, 2.89185
0.006, -1, 5.84923, -7.16989, 21.5661, 27.7695, -45.2187, 2.89185
0.008, -1, 5.84923, -7.16989, 21.5661, 27.7695, -45.2187, 2.89185
0.011, -1, 5.84923, -7.16989, 21.5661, 27.7695, -45.2187, 2.89185
0.016, -1, 5.84923, -7.16989, 21.5661, 27.7695, -45.2187, 2.89185
0.02, -1, 5.84923, -7.16989, 21.5661, 27.7695, -45.2187, 2.89185
0.024, -1, 5.84923, -7.16989, 21.5661, 27.7695, -45.2187, 2.89185
0.028, -1, 5.84923, -7.16989, 21.5661, 27.7695, -45.2187, 2.89185
0.032, -1, 5.84923, -7.16989, 21.5661, 27.7695, -45.2187, 2.89185
0.036, -1, 5.84922, -7.16986, 21.5661, 27.7695, -45.2187, 2.89185
0.04, -1, 5.84918, -7.16974, 21.5661, 27.7695, -45.2187, 2.89185
0.044, -1, 5.84909, -7.16943, 21.5662, 27.7695, -45.2187, 2.89185
0.048, -1, 5.8489, -7.16879, 21.5663, 27.7695, -45.2187, 2.89185
0.052, -1, 5.84857, -7.1677, 21.5666, 27.7694, -45.2188, 2.89184
0.056, -1, 5.84808, -7.16602, 21.5671, 27.7692, -45.2191, 2.89182
0.06, -1, 5.84739, -7.16364, 21.5678, 27.7689, -45.2197, 2.89179
0.064, -1, 5.84648, -7.1604, 21.5688, 27.7683, -45.2208, 2.89174
0.068, -1, 5.8453, -7.15613, 21.5703, 27.7674, -45.2226, 2.89166
0.072, -1, 5.84383, -7.15059, 21.5724, 27.7659, -45.2254, 2.89153
0.076, -1, 5.84202, -7.14348, 21.5751, 27.7637, -45.2295, 2.89135
0.08, -1, 5.83983, -7.13448, 21.5788, 27.7606, -45.2353, 2.8911
0.084, -1, 5.83725, -7.12337, 21.5834, 27.7564, -45.2433, 2.89075
0.088, -1, 5.83426, -7.11007, 21.5893, 27.7509, -45.2539, 2.89029
0.092, -1, 5.83091, -7.09466, 21.5966, 27.7437, -45.2678, 2.8897
0.096, -1, 5.82722, -7.07728, 21.6054, 27.7346, -45.2854, 2.88895
0.1, -1, 5.82324, -7.05807, 21.6159, 27.7233, -45.3072, 2.88803
0.104, -1, 5.81896, -7.03709, 21.6283, 27.7095, -45.3338, 2.88691
0.108, -1, 5.81438, -7.01431, 21.6425, 27.6932, -45.3655, 2.88558
0.112, -1, 5.8095, -6.98966, 21.6589, 27.6741, -45.4026, 2.88402
0.116, -1, 5.8043, -6.96305, 21.6774, 27.6521, -45.4453, 2.88224
0.12, -1, 5.79879, -6.93453, 21.6981, 27.6272, -45.4938, 2.88022
0.124, -1, 5.79298, -6.90416, 21.7209, 27.5994, -45.548, 2.87796
0.128, -1, 5.78689, -6.87204, 21.7459, 27.5686, -45.6079, 2.87547
0.131, -1, 5.78053, -6.83822, 21.7729, 27.5351, -45.6732, 2.87276
0.136, -1, 5.77389, -6.8026, 21.8018, 27.499, -45.7436, 2.86983
0.139, -1, 5.76694, -6.76503, 21.8327, 27.4605, -45.8187, 2.86672
0.144, -1, 5.75963, -6.7253, 21.8652, 27.4198, -45.8981, 2.86342
0.148, -1, 5.75194, -6.68328, 21.8993, 27.3772, -45.9812, 2.85997
0.152, -1, 5.74384, -6.63895, 21.9348, 27.3329, -46.0674, 2.85639
0.156, -1, 5.73536, -6.59247, 21.9716, 27.2873, -46.1565, 2.85269
0.16, -1, 5.7265, -6.54404, 22.0094, 27.2404, -46.2477, 2.8489
0.164, -1, 5.71729, -6.49391, 22.0481, 27.1926, -46.3408, 2.84503
0.168, -1, 5.70775, -6.44227, 22.0876, 27.1441, -46.4354, 2.8411
0.172, -1, 5.69791, -6.38932, 22.1276, 27.095, -46.5311, 2.83711
0.176, -1, 5.68779, -6.33524, 22.1682, 27.0454, -46.6277, 2.8331
0.18, -1, 5.67742, -6.28017, 22.2092, 26.9955, -46.7249, 2.82905
0.184, -1, 5.66684, -6.22429, 22.2505, 26.9453, -46.8225, 2.82498
0.188, -1, 5.65609, -6.16776, 22.292, 26.895, -46.9205, 2.8209
0.192, -1, 5.64522, -6.11077, 22.3337, 26.8445, -47.0188, 2.8168
0.196, -1, 5.63425, -6.05344, 22.3755, 26.7939, -47.1172, 2.8127
0.2, -1, 5.62323, -5.99586, 22.4174, 26.7433, -47.2158, 2.80859
0.204, -1, 5.61216, -5.93811, 22.4594, 26.6926, -47.3145, 2.80448
0.208, -1, 5.60105, -5.88022, 22.5015, 26.6418, -47.4133, 2.80036
0.212, -1, 5.58992, -5.82223, 22.5436, 26.5909, -47.5122, 2.79624
0.216, -1, 5.57877, -5.76415, 22.5858, 26.5401, -47.6112, 2.79211
0.22, -1, 5.56761, -5.706, 22.628, 26.4892, -47.7103, 2.78798
0.224, -1, 5.55643, -5.64779, 22.6702, 26.4382, -47.8094, 2.78384
0.228, -1, 5.54524, -5.58953, 22.7125, 26.3872, -47.9087, 2.77971
0.232, -1, 5.53404, -5.53122, 22.7548, 26.3362, -48.008, 2.77557
0.236, -1, 5.52283, -5.47285, 22.7972, 26.2851, -48.1074, 2.77142
0.24, -1, 5.51161, -5.41445, 22.8395, 26.234, -48.2068, 2.76728
0.244, -1, 5.50038, -5.35599, 22.8819, 26.1828, -48.3064, 2.76313
0.248, -1, 5.48915, -5.2975, 22.9244, 26.1316, -48.406, 2.75898
0.252, -1, 5.4779, -5.23896, 22.9668, 26.0804, -48.5057, 2.75482
0.256, -1, 5.46665, -5.18038, 23.0093, 26.0292, -48.6054, 2.75066
0.26, -1, 5.45539, -5.12176, 23.0518, 25.9779, -48.7052, 2.7465
0.264, -1, 5.44412, -5.06309, 23.0944, 25.9265, -48.8051, 2.74234
0.268, -1, 5.43284, -5.00439, 23.137, 25.8752, -48.9051, 2.73817
0.272, -1, 5.42156, -4.94564, 23.1796, 25.8238, -49.0051, 2.734
0.276, -1, 5.41027, -4.88685, 23.2222, 25.7723, -49.1052, 2.72983
0.28, -1, 5.39897, -4.82802, 23.2649, 25.7209, -49.2053, 2.72565
0.284, -1, 5.38766, -4.76915, 23.3076, 25.6693, -49.3056, 2.72147
0.288, -1, 5.37634, -4.71024, 23.3503, 25.6178, -49.4059, 2.71729
0.292, -1, 5.36502, -4.65129, 23.3931, 25.5662, -49.5063, 2.71311
0.296, -1, 5.35369, -4.5923, 23.4359, 25.5146, -49.6067, 2.70892
0.3, -1, 5.34235, -4.53327, 23.4787, 25.4629, -49.7072, 2.70473
0.304, -1, 5.331, -4.47419, 23.5216, 25.4113, -49.8078, 2.70054
0.308, -1, 5.31964, -4.41508, 23.5645, 25.3595, -49.9085, 2.69634
0.312, -1, 5.30828, -4.35593, 23.6074, 25.3078, -50.0092, 2.69214
0.316, -1, 5.29691, -4.29673, 23.6503, 25.256, -50.11, 2.68794
0.32, -1, 5.28553, -4.2375, 23.6933, 25.2042, -50.2108, 2.68373
0.324, -1, 5.27415, -4.17822, 23.7363, 25.1523, -50.3118, 2.67953
0.328, -1, 5.26275, -4.11891, 23.7793, 25.1004, -50.4128, 2.67532
0.332, -1, 5.25135, -4.05955, 23.8224, 25.0485, -50.5138, 2.6711
0.336, -1, 5.23994, -4.00015, 23.8654, 24.9965, -50.615, 2.66689
0.34, -1, 5.22852, -3.94072, 23.9085, 24.9445, -50.7162, 2.66267
0.344, -1, 5.2171, -3.88125, 23.9517, 24.8924, -50.8174, 2.65845
0.348, -1, 5.20567, -3.82173, 23.9949, 24.8404, -50.9188, 2.65422
0.352, -1, 5.19423, -3.76218, 24.0381, 24.7883, -51.0202, 2.64999
0.356, -1, 5.18278, -3.70258, 24.0813, 24.7361, -51.1216, 2.64576
0.36, -1, 5.17132, -3.64295, 24.1245, 24.6839, -51.2232, 2.64153
0.364, -1, 5.15986, -3.58328, 24.1678, 24.6317, -51.3248, 2.6373
0.368, -1, 5.14839, -3.52357, 24.2111, 24.5795, -51.4264, 2.63306
0.372, -1, 5.13692, -3.46382, 24.2545, 24.5272, -51.5282, 2.62882
0.376, -1, 5.12543, -3.40403, 24.2979, 24.4749, -51.63, 2.62457
0.38, -1, 5.11394, -3.3442, 24.3413, 24.4225, -51.7318, 2.62032
0.384, -1, 5.10244, -3.28433, 24.3847, 24.3701, -51.8338, 2.61608
0.388, -1, 5.09093, -3.22443, 24.4281, 24.3177, -51.9358, 2.61182
0.392, -1, 5.07942, -3.16448, 24.4716, 24.2653, -52.0378, 2.60757
0.396, -1, 5.06789, -3.1045, 24.5151, 24.2128, -52.14, 2.60331
0.4, -1, 5.05636, -3.04448, 24.5587, 24.1603, -52.2422, 2.59905
0.404, -1, 5.04483, -2.98442, 24.6022, 24.1077, -52.3444, 2.59479
0.408, -1, 5.03328, -2.92432, 24.6458, 24.0551, -52.4468, 2.59052
0.412, -1, 5.02173, -2.86419, 24.6895, 24.0025, -52.5492, 2.58625
0.416, -1, 5.01017, -2.80401, 24.7331, 23.9499, -52.6516, 2.58198
0.42, -1, 4.99861, -2.7438, 24.7768, 23.8972, -52.7542, 2.57771
0.424, -1, 4.98703, -2.68355, 24.8205, 23.8445, -52.8567, 2.57343
0.428, -1, 4.97545, -2.62326, 24.8642, 23.7917, -52.9594, 2.56915
0.432, -1, 4.96386, -2.56294, 24.908, 23.7389, -53.0621, 2.56487
0.436, -1, 4.95227, -2.50258, 24.9518, 23.6861, -53.1649, 2.56058
0.44, -1, 4.94067, -2.44218, 24.9956, 23.6333, -53.2677, 2.5563
0.444, -1, 4.92906, -2.38174, 25.0394, 23.5804, -53.3706, 2.55201
0.448, -1, 4.91744, -2.32126, 25.0833, 23.5275, -53.4736, 2.54771
0.452, -1, 4.90582, -2.26075, 25.1272, 23.4745, -53.5766, 2.54342
0.456, -1, 4.89419, -2.2002, 25.1711, 23.4215, -53.6797, 2.53912
0.46, -1, 4.88255, -2.13962, 25.215, 23.3685, -53.7829, 2.53482
0.464, -1, 4.8709, -2.07899, 25.259, 23.3155, -53.8861, 2.53052
0.468, -1, 4.85925, -2.01834, 25.303, 23.2624, -53.9894, 2.52621
0.472, -1, 4.84759, -1.95764, 25.347, 23.2093, -54.0927, 2.5219
0.476, -1, 4.83593, -1.89691, 25.3911, 23.1562, -54.1962, 2.51759
0.48, -1, 4.82425, -1.83614, 25.4352, 23.103, -54.2996, 2.51328
0.484, -1, 4.81257, -1.77533, 25.4793, 23.0498, -54.4032, 2.50896
0.488, -1, 4.80089, -1.71449, 25.5234, 22.9965, -54.5068, 2.50464
0.492, -1, 4.78919, -1.65361, 25.5676, 22.9433, -54.6104, 2.50032
0.496, -1, 4.77749, -1.5927, 25.6118, 22.89, -54.7141, 2.496
0.5, -1, 4.76578, -1.53175, 25.656, 22.8367, -54.8179, 2.49167
0.504, -1, 4.75407, -1.47076, 25.7002, 22.7833, -54.9217, 2.48734
0.508, -1, 4.74235, -1.40974, 25.7445, 22.7299, -55.0256, 2.48301
0.512, -1, 4.73062, -1.34868, 25.7888, 22.6765, -55.1296, 2.47868
0.516, -1, 4.71888, -1.28759, 25.8331, 22.623, -55.2336, 2.47434
0.52, -1, 4.70714, -1.22646, 25.8774, 22.5695, -55.3377, 2.47
0.524, -1, 4.69539, -1.1653, 25.9218, 22.516, -55.4419, 2.46566
0.528, -1, 4.68364, -1.1041, 25.9662, 22.4625, -55.5461, 2.46131
0.532, -1, 4.67188, -1.04286, 26.0106, 22.4089, -55.6503, 2.45697
0.536, -1, 4.66011, -0.981592, 26.0551, 22.3553, -55.7547, 2.45262
0.54, -1, 4.64833, -0.920287, 26.0995, 22.3016, -55.859, 2.44827
0.544, -1, 4.63655, -0.858947, 26.144, 22.248, -55.9635, 2.44391
0.548, -1, 4.62476, -0.797572, 26.1885, 22.1943, -56.068, 2.43956
0.552, -1, 4.61296, -0.736162, 26.2331, 22.1405, -56.1726, 2.4352
0.556, -1, 4.60116, -0.674718, 26.2777, 22.0868, -56.2772, 2.43084
0.56, -1, 4.58935, -0.613239, 26.3223, 22.033, -56.3818, 2.42647
0.564, -1, 4.57753, -0.551726, 26.3669, 21.9791, -56.4866, 2.42211
0.568, -1, 4.56571, -0.490178, 26.4115, 21.9253, -56.5914, 2.41774
0.572, -1, 4.55388, -0.428596, 26.4562, 21.8714, -56.6962, 2.41336
0.576, -1, 4.54205, -0.36698, 26.5009, 21.8175, -56.8012, 2.40899
0.58, -1, 4.5302, -0.30533, 26.5456, 21.7635, -56.9061, 2.40462
0.584, -1, 4.51835, -0.243646, 26.5904, 21.7096, -57.0112, 2.40024
0.588, -1, 4.5065, -0.181928, 26.6351, 21.6556, -57.1162, 2.39586
0.592, -1, 4.49464, -0.120176, 26.6799, 21.6015, -57.2214, 2.39147
0.596, -1, 4.48277, -0.0583912, 26.7247, 21.5475, -57.3266, 2.38709
0.6, -1, 4.47089, 0.00342721, 26.7696, 21.4934, -57.4318, 2.3827
0.604, -1, 4.45901, 0.0652789, 26.8144, 21.4393, -57.5372, 2.37831
0.608, -1, 4.44713, 0.127164, 26.8593, 21.3851, -57.6425, 2.37392
0.612, -1, 4.43523, 0.189082, 26.9043, 21.3309, -57.748, 2.36952
0.616, -1, 4.42333, 0.251033, 26.9492, 21.2767, -57.8534, 2.36512
0.62, -1, 4.41143, 0.313017, 26.9942, 21.2225, -57.959, 2.36072
0.624, -1, 4.39951, 0.375033, 27.0391, 21.1682, -58.0646, 2.35632
0.628, -1, 4.3876, 0.437083, 27.0841, 21.1139, -58.1702, 2.35192
0.632, -1, 4.37567, 0.499165, 27.1292, 21.0596, -58.2759, 2.34751
0.636, -1, 4.36374, 0.561279, 27.1742, 21.0053, -58.3817, 2.3431
0.64, -1, 4.3518, 0.623425, 27.2193, 20.9509, -58.4875, 2.33869
0.644, -1, 4.33986, 0.685604, 27.2644, 20.8965, -58.5934, 2.33427
0.648, -1, 4.32791, 0.747815, 27.3096, 20.8421, -58.6993, 2.32986
0.652, -1, 4.31595, 0.810057, 27.3547, 20.7876, -58.8053, 2.32544
0.656, -1, 4.30399, 0.872332, 27.3999, 20.7331, -58.9113, 2.32102
0.66, -1, 4.29202, 0.934638, 27.4451, 20.6786, -59.0174, 2.3166
0.664, -1, 4.28005, 0.996975, 27.4903, 20.624, -59.1236, 2.31217
0.668, -1, 4.26807, 1.05934, 27.5355, 20.5695, -59.2298, 2.30775
0.672, -1, 4.25608, 1.12174, 27.5808, 20.5149, -59.336, 2.30332
0.676, -1, 4.24409, 1.18418, 27.6261, 20.4602, -59.4423, 2.29888
0.68, -1, 4.23209, 1.24664, 27.6714, 20.4056, -59.5487, 2.29445
0.684, -1, 4.22009, 1.30913, 27.7167, 20.3509, -59.6551, 2.29001
0.688, -1, 4.20808, 1.37166, 27.7621, 20.2962, -59.7615, 2.28558
0.692, -1, 4.19606, 1.43421, 27.8075, 20.2415, -59.8681, 2.28114
0.696, -1, 4.18404, 1.4968, 27.8529, 20.1867, -59.9746, 2.27669
0.7, -1, 4.17201, 1.55941, 27.8983, 20.1319, -60.0812, 2.27225
0.704, -1, 4.15998, 1.62206, 27.9437, 20.0771, -60.1879, 2.2678
0.708, -1, 4.14794, 1.68473, 27.9892, 20.0223, -60.2946, 2.26335
0.712, -1, 4.13589, 1.74744, 28.0347, 19.9674, -60.4014, 2.2589
0.716, -1, 4.12384, 1.81018, 28.0802, 19.9125, -60.5082, 2.25445
0.72, -1, 4.11179, 1.87294, 28.1257, 19.8576, -60.6151, 2.24999
0.724, -1, 4.09973, 1.93574, 28.1713, 19.8026, -60.722, 2.24554
0.728, -1, 4.08766, 1.99856, 28.2168, 19.7477, -60.829, 2.24108
0.732, -1, 4.07558, 2.06141, 28.2624, 19.6927, -60.936, 2.23661
0.736, -1, 4.06351, 2.1243, 28.308, 19.6376, -61.0431, 2.23215
0.74, -1, 4.05142, 2.18721, 28.3537, 19.5826, -61.1502, 2.22768
0.744, -1, 4.03933, 2.25015, 28.3993, 19.5275, -61.2574, 2.22322
0.748, -1, 4.02724, 2.31312, 28.445, 19.4724, -61.3646, 2.21875
0.752, -1, 4.01513, 2.37612, 28.4907, 19.4173, -61.4719, 2.21428
0.756, -1, 4.00303, 2.43914, 28.5364, 19.3621, -61.5792, 2.2098
0.76, -1, 3.99092, 2.5022, 28.5822, 19.307, -61.6865, 2.20533
0.764, -1, 3.9788, 2.56528, 28.6279, 19.2518, -61.7939, 2.20085
0.768, -1, 3.96668, 2.62839, 28.6737, 19.1965, -61.9014, 2.19637
0.772, -1, 3.95455, 2.69153, 28.7195, 19.1413, -62.0089, 2.19189
0.776, -1, 3.94242, 2.7547, 28.7653, 19.086, -62.1165, 2.1874
0.78, -1, 3.93028, 2.81789, 28.8112, 19.0307, -62.2241, 2.18292
0.784, -1, 3.91813, 2.88112, 28.857, 18.9754, -62.3317, 2.17843
0.788, -1, 3.90598, 2.94436, 28.9029, 18.9201, -62.4394, 2.17394
0.792, -1, 3.89383, 3.00764, 28.9488, 18.8647, -62.5471, 2.16945
0.796, -1, 3.88167, 3.07094, 28.9947, 18.8093, -62.6549, 2.16495
0.8, -1, 3.86951, 3.13427, 29.0407, 18.7539, -62.7628, 2.16046
0.804, -1, 3.85734, 3.19763, 29.0866, 18.6985, -62.8706, 2.15596
0.808, -1, 3.84516, 3.26101, 29.1326, 18.643, -62.9786, 2.15146
0.812, -1, 3.83298, 3.32442, 29.1786, 18.5875, -63.0865, 2.14696
0.816, -1, 3.8208, 3.38786, 29.2246, 18.532, -63.1946, 2.14246
0.82, -1, 3.80861, 3.45132, 29.2707, 18.4765, -63.3026, 2.13795
0.824, -1, 3.79641, 3.51481, 29.3167, 18.4209, -63.4107, 2.13345
0.828, -1, 3.78421, 3.57832, 29.3628, 18.3654, -63.5189, 2.12894
0.832, -1, 3.772, 3.64187, 29.4089, 18.3098, -63.627, 2.12443
0.836, -1, 3.75979, 3.70543, 29.455, 18.2541, -63.7353, 2.11992
0.84, -1, 3.74758, 3.76903, 29.5011, 18.1985, -63.8436, 2.1154
0.844, -1, 3.73536, 3.83265, 29.5473, 18.1428, -63.9519, 2.11089
0.848, -1, 3.72313, 3.89629, 29.5934, 18.0871, -64.0602, 2.10637
0.852, -1, 3.7109, 3.95996, 29.6396, 18.0314, -64.1687, 2.10185
0.856, -1, 3.69867, 4.02365, 29.6858, 17.9757, -64.2771, 2.09733
0.86, -1, 3.68643, 4.08737, 29.732, 17.92, -64.3856, 2.0928
0.864, -1, 3.67419, 4.15112, 29.7783, 17.8642, -64.4941, 2.08828
0.868, -1, 3.66194, 4.21489, 29.8245, 17.8084, -64.6027, 2.08375
0.872, -1, 3.64968, 4.27869, 29.8708, 17.7526, -64.7113, 2.07923
0.876, -1, 3.63742, 4.34251, 29.9171, 17.6967, -64.82, 2.07469
0.88, -1, 3.62516, 4.40635, 29.9634, 17.6409, -64.9287, 2.07016
0.884, -1, 3.61289, 4.47022, 30.0097, 17.585, -65.0375, 2.06563
0.888, -1, 3.60062, 4.53411, 30.0561, 17.5291, -65.1462, 2.06109
0.892, -1, 3.58834, 4.59803, 30.1024, 17.4731, -65.2551, 2.05656
0.896, -1, 3.57606, 4.66197, 30.1488, 17.4172, -65.364, 2.05202
0.9, -1, 3.56377, 4.72594, 30.1952, 17.3612, -65.4729, 2.04748
0.904, -1, 3.55148, 4.78993, 30.2416, 17.3052, -65.5818, 2.04294
0.908, -1, 3.53918, 4.85394, 30.2881, 17.2492, -65.6908, 2.03839
0.912, -1, 3.52688, 4.91798, 30.3345, 17.1932, -65.7999, 2.03385
0.916, -1, 3.51458, 4.98204, 30.381, 17.1371, -65.9089, 2.0293
0.92, -1, 3.50227, 5.04612, 30.4275, 17.0811, -66.0181, 2.02475
0.924, -1, 3.48995, 5.11023, 30.474, 17.025, -66.1272, 2.0202
0.928, -1, 3.47763, 5.17437, 30.5205, 16.9688, -66.2364, 2.01565
0.932, -1, 3.46531, 5.23853, 30.5671, 16.9127, -66.3456, 2.01109
0.936, -1, 3.45298, 5.30271, 30.6136, 16.8566, -66.4549, 2.00654
0.94, -1, 3.44065, 5.36691, 30.6602, 16.8004, -66.5642, 2.00198
0.944, -1, 3.42831, 5.43114, 30.7068, 16.7442, -66.6736, 1.99742
0.948, -1, 3.41597, 5.49539, 30.7534, 16.688, -66.783, 1.99286
0.952, -1, 3.40363, 5.55966, 30.8, 16.6317, -66.8924, 1.9883
0.956, -1, 3.39128, 5.62396, 30.8466, 16.5755, -67.0019, 1.98373
0.96, -1, 3.37892, 5.68827, 30.8933, 16.5192, -67.1114, 1.97917
0.964, -1, 3.36656, 5.75262, 30.94, 16.4629, -67.221, 1.9746
0.968, -1, 3.3542, 5.81698, 30.9867, 16.4066, -67.3306, 1.97003
0.972, -1, 3.34183, 5.88137, 31.0334, 16.3502, -67.4402, 1.96546
0.976, -1, 3.32946, 5.94578, 31.0801, 16.2939, -67.5499, 1.96089
0.98, -1, 3.31708, 6.01021, 31.1268, 16.2375, -67.6596, 1.95632
0.984, -1, 3.3047, 6.07466, 31.1736, 16.1811, -67.7693, 1.95174
0.988, -1, 3.29232, 6.13914, 31.2203, 16.1247, -67.8791, 1.94716
0.992, -1, 3.27993, 6.20364, 31.2671, 16.0683, -67.9889, 1.94259
0.996, -1, 3.26754, 6.26816, 31.3139, 16.0118, -68.0988, 1.93801
1, -1, 3.25514, 6.3327, 31.3608, 15.9553, -68.2087, 1.93342
1.004, -1, 3.24274, 6.39726, 31.4076, 15.8988, -68.3186, 1.92884
1.008, -1, 3.23033, 6.46185, 31.4544, 15.8423, -68.4286, 1.92426
1.012, -1, 3.21792, 6.52645, 31.5013, 15.7858, -68.5386, 1.91967
1.016, -1, 3.20551, 6.59108, 31.5482, 15.7292, -68.6486, 1.91508
1.02, -1, 3.19309, 6.65573, 31.5951, 15.6727, -68.7587, 1.9105
1.024, -1, 3.18067, 6.7204, 31.642, 15.6161, -68.8688, 1.9059
1.027, -1, 3.16824, 6.78509, 31.6889, 15.5595, -68.979, 1.90131
1.032, -1, 3.15581, 6.8498, 31.7359, 15.5029, -69.0892, 1.89672
1.036, -1, 3.14338, 6.91454, 31.7828, 15.4462, -69.1994, 1.89212
1.04, -1, 3.13094, 6.97929, 31.8298, 15.3896, -69.3096, 1.88753
1.044, -1, 3.1185, 7.04407, 31.8768, 15.3329, -69.4199, 1.88293
1.048, -1, 3.10605, 7.10886, 31.9238, 15.2762, -69.5303, 1.87833
1.052, -1, 3.0936, 7.17368, 31.9708, 15.2195, -69.6406, 1.87373
1.055, -1, 3.08115, 7.23851, 32.0178, 15.1628, -69.751, 1.86913
1.06, -1, 3.06869, 7.30337, 32.0649, 15.106, -69.8614, 1.86452
1.064, -1, 3.05623, 7.36825, 32.1119, 15.0492, -69.9719, 1.85992
1.068, -1, 3.04376, 7.43314, 32.159, 14.9925, -70.0824, 1.85531
1.072, -1, 3.03129, 7.49806, 32.2061, 14.9357, -70.1929, 1.8507
1.076, -1, 3.01882, 7.56299, 32.2532, 14.8788, -70.3035, 1.84609
1.08, -1, 3.00634, 7.62795, 32.3003, 14.822, -70.4141, 1.84148
1.084, -1, 2.99386, 7.69292, 32.3474, 14.7652, -70.5247, 1.83687
1.088, -1, 2.98137, 7.75792, 32.3946, 14.7083, -70.6354, 1.83226
1.091, -1, 2.96889, 7.82293, 32.4417, 14.6514, -70.7461, 1.82764
1.096, -1, 2.9564, 7.88797, 32.4889, 14.5945, -70.8568, 1.82303
1.1, -1, 2.9439, 7.95302, 32.5361, 14.5376, -70.9676, 1.81841
1.104, -1, 2.9314, 8.01809, 32.5833, 14.4806, -71.0784, 1.81379
1.108, -1, 2.9189, 8.08318, 32.6305, 14.4237, -71.1892, 1.80917
1.112, -1, 2.90639, 8.14829, 32.6777, 14.3667, -71.3001, 1.80455
1.116, -1, 2.89388, 8.21341, 32.725, 14.3097, -71.411, 1.79993
1.119, -1, 2.88137, 8.27856, 32.7722, 14.2527, -71.5219, 1.7953
1.124, -1, 2.86885, 8.34373, 32.8195, 14.1957, -71.6328, 1.79068
1.128, -1, 2.85633, 8.40891, 32.8668, 14.1387, -71.7438, 1.78605
1.132, -1, 2.84381, 8.47411, 32.9141, 14.0816, -71.8548, 1.78142
1.136, -1, 2.83128, 8.53933, 32.9614, 14.0246, -71.9659, 1.77679
1.14, -1, 2.81875, 8.60456, 33.0087, 13.9675, -72.077, 1.77216
1.144, -1, 2.80622, 8.66982, 33.0561, 13.9104, -72.1881, 1.76753
1.147, -1, 2.79368, 8.73509, 33.1034, 13.8533, -72.2992, 1.7629
1.152, -1, 2.78114, 8.80038, 33.1508, 13.7961, -72.4104, 1.75826
1.156, -1, 2.7686, 8.86569, 33.1981, 13.739, -72.5216, 1.75363
1.16, -1, 2.75605, 8.93101, 33.2455, 13.6818, -72.6328, 1.74899
1.164, -1, 2.7435, 8.99636, 33.2929, 13.6247, -72.7441, 1.74435
1.168, -1, 2.73094, 9.06171, 33.3403, 13.5675, -72.8554, 1.73971
1.172, -1, 2.71838, 9.12709, 33.3878, 13.5103, -72.9667, 1.73507
1.175, -1, 2.70582, 9.19248, 33.4352, 13.4531, -73.078, 1.73043
1.18, -1, 2.69326, 9.25789, 33.4826, 13.3958, -73.1894, 1.72579
1.184, -1, 2.68069, 9.32332, 33.5301, 13.3386, -73.3008, 1.72114
1.188, -1, 2.66812, 9.38876, 33.5776, 13.2813, -73.4122, 1.7165
1.192, -1, 2.65555, 9.45422, 33.6251, 13.224, -73.5237, 1.71185
1.196, -1, 2.64297, 9.5197, 33.6726, 13.1667, -73.6352, 1.7072
1.2, -1, 2.63039, 9.58519, 33.7201, 13.1094, -73.7467, 1.70255
1.204, -1, 2.61781, 9.6507, 33.7676, 13.0521, -73.8582, 1.6979
1.208, -1, 2.60522, 9.71622, 33.8151, 12.9948, -73.9698, 1.69325
1.212, -1, 2.59264, 9.78176, 33.8626, 12.9374, -74.0814, 1.6886
1.216, -1, 2.58004, 9.84732, 33.9102, 12.8801, -74.193, 1.68395
1.22, -1, 2.56745, 9.91289, 33.9578, 12.8227, -74.3046, 1.67929
1.224, -1, 2.55485, 9.97847, 34.0053, 12.7653, -74.4163, 1.67464
1.228, -1, 2.54225, 10.0441, 34.0529, 12.7079, -74.528, 1.66998
1.232, -1, 2.52964, 10.1097, 34.1005, 12.6505, -74.6397, 1.66532
1.236, -1, 2.51704, 10.1753, 34.1481, 12.5931, -74.7515, 1.66066
1.24, -1, 2.50443, 10.241, 34.1958, 12.5356, -74.8633, 1.656
1.244, -1, 2.49181, 10.3066, 34.2434, 12.4782, -74.9751, 1.65134
1.248, -1, 2.4792, 10.3723, 34.291, 12.4207, -75.0869, 1.64668
1.252, -1, 2.46658, 10.438, 34.3387, 12.3632, -75.1987, 1.64202
1.256, -1, 2.45396, 10.5037, 34.3863, 12.3057, -75.3106, 1.63735
1.26, -1, 2.44133, 10.5695, 34.434, 12.2482, -75.4225, 1.63269
1.264, -1, 2.4287, 10.6352, 34.4817, 12.1907, -75.5345, 1.62802
1.267, -1, 2.41607, 10.701, 34.5294, 12.1332, -75.6464, 1.62335
1.272, -1, 2.40344, 10.7667, 34.5771, 12.0756, -75.7584, 1.61869
1.276, -1, 2.3908, 10.8325, 34.6248, 12.0181, -75.8704, 1.61402
1.28, -1, 2.37816, 10.8983, 34.6726, 11.9605, -75.9825, 1.60935
1.284, -1, 2.36552, 10.9641, 34.7203, 11.9029, -76.0945, 1.60467
1.288, -1, 2.35287, 11.03, 34.768, 11.8453, -76.2066, 1.6
1.292, -1, 2.34023, 11.0958, 34.8158, 11.7877, -76.3187, 1.59533
1.295, -1, 2.32758, 11.1617, 34.8636, 11.7301, -76.4309, 1.59065
1.3, -1, 2.31492, 11.2275, 34.9114, 11.6724, -76.543, 1.58598
1.304, -1, 2.30226, 11.2934, 34.9592, 11.6148, -76.6552, 1.5813
1.308, -1, 2.28961, 11.3593, 35.007, 11.5571, -76.7674, 1.57662
1.312, -1, 2.27694, 11.4253, 35.0548, 11.4994, -76.8797, 1.57194
1.316, -1, 2.26428, 11.4912, 35.1026, 11.4417, -76.9919, 1.56726
1.32, -1, 2.25161, 11.5572, 35.1505, 11.384, -77.1042, 1.56258
1.324, -1, 2.23894, 11.6231, 35.1983, 11.3263, -77.2166, 1.5579
1.328, -1, 2.22626, 11.6891, 35.2462, 11.2686, -77.3289, 1.55321
1.332, -1, 2.21359, 11.7551, 35.294, 11.2108, -77.4413, 1.54853
1.336, -1, 2.20091, 11.8211, 35.3419, 11.1531, -77.5537, 1.54384
1.34, -1, 2.18822, 11.8871, 35.3898, 11.0953, -77.6661, 1.53916
1.344, -1, 2.17554, 11.9532, 35.4377, 11.0375, -77.7785, 1.53447
1.348, -1, 2.16285, 12.0192, 35.4856, 10.9797, -77.891, 1.52978
1.352, -1, 2.15016, 12.0853, 35.5336, 10.9219, -78.0035, 1.52509
1.356, -1, 2.13746, 12.1514, 35.5815, 10.8641, -78.116, 1.5204
1.36, -1, 2.12477, 12.2175, 35.6295, 10.8063, -78.2286, 1.51571
1.364, -1, 2.11207, 12.2836, 35.6774, 10.7484, -78.3411, 1.51101
1.368, -1, 2.09936, 12.3498, 35.7254, 10.6905, -78.4537, 1.50632
1.372, -1, 2.08666, 12.4159, 35.7734, 10.6327, -78.5664, 1.50163
1.376, -1, 2.07395, 12.4821, 35.8214, 10.5748, -78.679, 1.49693
1.38, -1, 2.06124, 12.5482, 35.8694, 10.5169, -78.7917, 1.49223
1.384, -1, 2.04852, 12.6144, 35.9174, 10.459, -78.9044, 1.48753
1.388, -1, 2.03581, 12.6806, 35.9654, 10.401, -79.0171, 1.48284
1.392, -1, 2.02309, 12.7468, 36.0134, 10.3431, -79.1298, 1.47813
1.396, -1, 2.01037, 12.8131, 36.0615, 10.2852, -79.2426, 1.47343
1.4, -1, 1.99764, 12.8793, 36.1095, 10.2272, -79.3554, 1.46873
1.404, -1, 1.98491, 12.9456, 36.1576, 10.1692, -79.4682, 1.46403
1.408, -1, 1.97218, 13.0119, 36.2057, 10.1112, -79.5811, 1.45932
1.412, -1, 1.95945, 13.0782, 36.2537, 10.0532, -79.694, 1.45462
1.416, -1, 1.94671, 13.1445, 36.3018, 9.9952, -79.8068, 1.44991
1.42, -1, 1.93397, 13.2108, 36.3499, 9.93717, -79.9198, 1.4452
1.424, -1, 1.92123, 13.2771, 36.3981, 9.87913, -80.0327, 1.4405
1.428, -1, 1.90849, 13.3435, 36.4462, 9.82108, -80.1457, 1.43579
1.432, -1, 1.89574, 13.4098, 36.4943, 9.76301, -80.2587, 1.43107
1.436, -1, 1.88299, 13.4762, 36.5425, 9.70494, -80.3717, 1.42636
1.44, -1, 1.87024, 13.5426, 36.5906, 9.64684, -80.4847, 1.42165
1.444, -1, 1.85748, 13.609, 36.6388, 9.58874, -80.5978, 1.41694
1.448, -1, 1.84472, 13.6754, 36.687, 9.53063, -80.7109, 1.41222
1.452, -1, 1.83196, 13.7419, 36.7352, 9.4725, -80.824, 1.40751
1.456, -1, 1.8192, 13.8083, 36.7834, 9.41436, -80.9371, 1.40279
1.46, -1, 1.80643, 13.8748, 36.8316, 9.3562, -81.0503, 1.39807
1.464, -1, 1.79366, 13.9413, 36.8798, 9.29804, -81.1635, 1.39335
1.468, -1, 1.78089, 14.0077, 36.928, 9.23986, -81.2767, 1.38863
1.472, -1, 1.76811, 14.0743, 36.9763, 9.18167, -81.39, 1.38391
1.476, -1, 1.75534, 14.1408, 37.0245, 9.12347, -81.5032, 1.37919
1.48, -1, 1.74256, 14.2073, 37.0728, 9.06525, -81.6165, 1.37447
1.484, -1, 1.72977, 14.2739, 37.1211, 9.00702, -81.7298, 1.36975
1.488, -1, 1.71699, 14.3404, 37.1693, 8.94878, -81.8431, 1.36502
1.492, -1, 1.7042, 14.407, 37.2176, 8.89053, -81.9565, 1.3603
1.496, -1, 1.69141, 14.4736, 37.2659, 8.83227, -82.0699, 1.35557
1.5, -1, 1.67861, 14.5402, 37.3143, 8.77399, -82.1833, 1.35084
1.504, -1, 1.66582, 14.6068, 37.3626, 8.7157, -82.2967, 1.34611
1.508, -1, 1.65302, 14.6734, 37.4109, 8.6574, -82.4101, 1.34138
1.512, -1, 1.64022, 14.7401, 37.4592, 8.59909, -82.5236, 1.33665
1.516, -1, 1.62741, 14.8067, 37.5076, 8.54077, -82.6371, 1.33192
1.52, -1, 1.61461, 14.8734, 37.556, 8.48243, -82.7506, 1.32719
1.524, -1, 1.6018, 14.9401, 37.6043, 8.42408, -82.8642, 1.32245
1.528, -1, 1.58898, 15.0068, 37.6527, 8.36572, -82.9778, 1.31772
1.532, -1, 1.57617, 15.0735, 37.7011, 8.30735, -83.0913, 1.31298
1.536, -1, 1.56335, 15.1403, 37.7495, 8.24896, -83.205, 1.30825
1.54, -1, 1.55053, 15.207, 37.7979, 8.19057, -83.3186, 1.30351
1.544, -1, 1.53771, 15.2737, 37.8464, 8.13216, -83.4323, 1.29877
1.548, -1, 1.52488, 15.3405, 37.8948, 8.07374, -83.5459, 1.29403
1.552, -1, 1.51206, 15.4073, 37.9432, 8.0153, -83.6596, 1.28929
1.556, -1, 1.49923, 15.4741, 37.9917, 7.95686, -83.7734, 1.28455
1.56, -1, 1.48639, 15.5409, 38.0401, 7.8984, -83.8871, 1.27981
1.564, -1, 1.47356, 15.6077, 38.0886, 7.83993, -84.0009, 1.27507
1.568, -1, 1.46072, 15.6746, 38.1371, 7.78145, -84.1147, 1.27032
1.572, -1, 1.44788, 15.7414, 38.1856, 7.72296, -84.2285, 1.26558
1.576, -1, 1.43503, 15.8083, 38.2341, 7.66446, -84.3424, 1.26083
1.58, -1, 1.42219, 15.8752, 38.2826, 7.60594, -84.4562, 1.25608
1.584, -1, 1.40934, 15.9421, 38.3311, 7.54742, -84.5701, 1.25134
1.588, -1, 1.39649, 16.009, 38.3796, 7.48888, -84.6841, 1.24659
1.592, -1, 1.38363, 16.0759, 38.4282, 7.43033, -84.798, 1.24184
1.596, -1, 1.37078, 16.1428, 38.4767, 7.37177, -84.9119, 1.23709
1.6, -1, 1.35792, 16.2097, 38.5253, 7.31319, -85.0259, 1.23233
1.604, -1, 1.34506, 16.2767, 38.5739, 7.25461, -85.1399, 1.22758
1.608, -1, 1.33219, 16.3437, 38.6224, 7.19601, -85.254, 1.22283
1.612, -1, 1.31933, 16.4107, 38.671, 7.1374, -85.368, 1.21807
1.616, -1, 1.30646, 16.4777, 38.7196, 7.07878, -85.4821, 1.21332
1.62, -1, 1.29359, 16.5447, 38.7682, 7.02015, -85.5962, 1.20856
1.624, -1, 1.28071, 16.6117, 38.8168, 6.96151, -85.7103, 1.2038
1.628, -1, 1.26784, 16.6787, 38.8655, 6.90285, -85.8244, 1.19905
1.632, -1, 1.25496, 16.7458, 38.9141, 6.84419, -85.9386, 1.19429
1.636, -1, 1.24207, 16.8128, 38.9628, 6.78551, -86.0528, 1.18953
1.64, -1, 1.22919, 16.8799, 39.0114, 6.72682, -86.167, 1.18476
1.644, -1, 1.2163, 16.947, 39.0601, 6.66812, -86.2812, 1.18
1.648, -1, 1.20341, 17.0141, 39.1088, 6.60941, -86.3955, 1.17524
1.652, -1, 1.19052, 17.0812, 39.1574, 6.55068, -86.5097, 1.17048
1.656, -1, 1.17762, 17.1484, 39.2061, 6.49195, -86.624, 1.16571
1.66, -1, 1.16473, 17.2155, 39.2548, 6.4332, -86.7384, 1.16094
1.664, -1, 1.15182, 17.2827, 39.3035, 6.37444, -86.8527, 1.15618
1.668, -1, 1.13892, 17.3498, 39.3523, 6.31567, -86.9671, 1.15141
1.672, -1, 1.12602, 17.417, 39.401, 6.25688, -87.0815, 1.14664
1.676, -1, 1.11311, 17.4842, 39.4497, 6.19809, -87.1959, 1.14187
1.68, -1, 1.10019, 17.5514, 39.4985, 6.13928, -87.3103, 1.1371
1.684, -1, 1.08728, 17.6187, 39.5473, 6.08046, -87.4248, 1.13233
1.688, -1, 1.07436, 17.6859, 39.596, 6.02162, -87.5393, 1.12756
1.692, -1, 1.06144, 17.7532, 39.6448, 5.96278, -87.6538, 1.12278
1.696, -1, 1.04852, 17.8204, 39.6936, 5.90392, -87.7683, 1.11801
1.7, -1, 1.0356, 17.8877, 39.7424, 5.84504, -87.8829, 1.11323
1.704, -1, 1.02267, 17.955, 39.7912, 5.78616, -87.9975, 1.10845
1.708, -1, 1.00974, 18.0224, 39.8401, 5.72726, -88.1121, 1.10368
1.712, -1, 0.996805, 18.0897, 39.8889, 5.66835, -88.2267, 1.0989
1.716, -1, 0.983868, 18.157, 39.9378, 5.60943, -88.3414, 1.09412
1.72, -1, 0.970929, 18.2244, 39.9866, 5.55049, -88.4561, 1.08934
1.724, -1, 0.957987, 18.2918, 40.0355, 5.49154, -88.5708, 1.08455
1.728, -1, 0.945042, 18.3592, 40.0844, 5.43258, -88.6855, 1.07977
1.732, -1, 0.932094, 18.4266, 40.1333, 5.3736, -88.8003, 1.07498
1.736, -1, 0.919143, 18.494, 40.1822, 5.31461, -88.9151, 1.0702
1.74, -1, 0.906189, 18.5614, 40.2311, 5.25561, -89.0299, 1.06541
1.744, -1, 0.893232, 18.6289, 40.28, 5.19659, -89.1448, 1.06063
1.748, -1, 0.880272, 18.6963, 40.329, 5.13756, -89.2596, 1.05584
1.752, -1, 0.86731, 18.7638, 40.3779, 5.07852, -89.3745, 1.05105
1.756, -1, 0.854344, 18.8313, 40.4269, 5.01946, -89.4894, 1.04626
1.76, -1, 0.841375, 18.8988, 40.4758, 4.96039, -89.6044, 1.04146
1.764, -1, 0.828404, 18.9664, 40.5248, 4.9013, -89.7194, 1.03667
1.768, -1, 0.815429, 19.0339, 40.5738, 4.8422, -89.8344, 1.03188
1.772, -1, 0.802451, 19.1015, 40.6228, 4.78309, -89.9494, 1.02708
1.776, -1, 0.78947, 19.1691, 40.6718, 4.72397, -90.0645, 1.02228
1.78, -1, 0.776486, 19.2366, 40.7209, 4.66483, -90.1795, 1.01749
1.784, -1, 0.7635, 19.3043, 40.7699, 4.60567, -90.2946, 1.01269
1.788, -1, 0.75051, 19.3719, 40.819, 4.5465, -90.4098, 1.00789
1.792, -1, 0.737517, 19.4395, 40.868, 4.48732, -90.5249, 1.00309
1.796, -1, 0.72452, 19.5072, 40.9171, 4.42813, -90.6401, 0.998284
1.8, -1, 0.711521, 19.5749, 40.9662, 4.36892, -90.7554, 0.99348
1.804, -1, 0.698519, 19.6425, 41.0153, 4.30969, -90.8706, 0.988676
1.808, -1, 0.685513, 19.7102, 41.0644, 4.25045, -90.9859, 0.98387
1.812, -1, 0.672505, 19.778, 41.1135, 4.1912, -91.1012, 0.979063
1.816, -1, 0.659493, 19.8457, 41.1626, 4.13193, -91.2165, 0.974255
1.82, -1, 0.646478, 19.9135, 41.2118, 4.07265, -91.3319, 0.969446
1.824, -1, 0.633459, 19.9812, 41.261, 4.01335, -91.4473, 0.964635
1.828, -1, 0.620438, 20.049, 41.3101, 3.95404, -91.5627, 0.959824
1.832, -1, 0.607413, 20.1168, 41.3593, 3.89472, -91.6781, 0.955011
1.836, -1, 0.594386, 20.1847, 41.4085, 3.83538, -91.7936, 0.950197
1.84, -1, 0.581355, 20.2525, 41.4577, 3.77602, -91.9091, 0.945382
1.844, -1, 0.56832, 20.3203, 41.5069, 3.71665, -92.0246, 0.940566
1.848, -1, 0.555283, 20.3882, 41.5562, 3.65727, -92.1402, 0.935748
1.852, -1, 0.542242, 20.4561, 41.6054, 3.59787, -92.2558, 0.930929
1.856, -1, 0.529198, 20.524, 41.6547, 3.53846, -92.3714, 0.926109
1.86, -1, 0.51615, 20.5919, 41.7039, 3.47903, -92.4871, 0.921288
1.864, -1, 0.5031, 20.6599, 41.7532, 3.41958, -92.6027, 0.916466
1.868, -1, 0.490046, 20.7278, 41.8025, 3.36012, -92.7184, 0.911642
1.872, -1, 0.476988, 20.7958, 41.8518, 3.30065, -92.8342, 0.906817
1.876, -1, 0.463927, 20.8638, 41.9011, 3.24116, -92.9499, 0.901991
1.88, -1, 0.450863, 20.9318, 41.9505, 3.18165, -93.0657, 0.897164
1.884, -1, 0.437796, 20.9998, 41.9998, 3.12213, -93.1816, 0.892335
1.888, -1, 0.424725, 21.0679, 42.0492, 3.0626, -93.2974, 0.887505
1.892, -1, 0.411651, 21.1359, 42.0985, 3.00304, -93.4133, 0.882674
1.896, -1, 0.398573, 21.204, 42.1479, 2.94348, -93.5292, 0.877842
1.9, -1, 0.385492, 21.2721, 42.1973, 2.88389, -93.6452, 0.873008
1.904, -1, 0.372407, 21.3402, 42.2467, 2.8243, -93.7611, 0.868173
1.908, -1, 0.359319, 21.4084, 42.2961, 2.76468, -93.8771, 0.863337
1.912, -1, 0.346228, 21.4765, 42.3456, 2.70505, -93.9932, 0.8585
1.916, -1, 0.333133, 21.5447, 42.395, 2.64541, -94.1092, 0.853661
1.92, -1, 0.320035, 21.6129, 42.4445, 2.58575, -94.2253, 0.848821
1.924, -1, 0.306933, 21.6811, 42.494, 2.52607, -94.3415, 0.84398
1.928, -1, 0.293827, 21.7493, 42.5434, 2.46637, -94.4576, 0.839137
1.932, -1, 0.280718, 21.8176, 42.5929, 2.40666, -94.5738, 0.834293
1.936, -1, 0.267606, 21.8858, 42.6425, 2.34694, -94.69, 0.829448
1.94, -1, 0.25449, 21.9541, 42.692, 2.2872, -94.8063, 0.824601
1.944, -1, 0.24137, 22.0224, 42.7415, 2.22744, -94.9226, 0.819753
1.948, -1, 0.228247, 22.0907, 42.7911, 2.16767, -95.0389, 0.814904
1.952, -1, 0.21512, 22.1591, 42.8406, 2.10787, -95.1553, 0.810054
1.956, -1, 0.20199, 22.2274, 42.8902, 2.04807, -95.2716, 0.805202
1.96, -1, 0.188856, 22.2958, 42.9398, 1.98824, -95.388, 0.800349
1.964, -1, 0.175718, 22.3642, 42.9894, 1.9284, -95.5045, 0.795494
1.968, -1, 0.162577, 22.4326, 43.0391, 1.86855, -95.621, 0.790638
1.972, -1, 0.149432, 22.501, 43.0887, 1.80867, -95.7375, 0.785781
1.976, -1, 0.136284, 22.5695, 43.1383, 1.74878, -95.854, 0.780923
1.98, -1, 0.123131, 22.6379, 43.188, 1.68888, -95.9706, 0.776063
1.984, -1, 0.109975, 22.7064, 43.2377, 1.62895, -96.0872, 0.771201
1.988, -1, 0.0968157, 22.7749, 43.2874, 1.56901, -96.2039, 0.766339
1.992, -1, 0.0836523, 22.8435, 43.3371, 1.50905, -96.3205, 0.761475
1.996, -1, 0.0704851, 22.912, 43.3868, 1.44908, -96.4372, 0.756609
1.999, -1, 0.0573141, 22.9806, 43.4365, 1.38909, -96.554, 0.751742
2.004, -1, 0.0441391, 23.0492, 43.4863, 1.32908, -96.6708, 0.746874
2.008, -1, 0.0309603, 23.1178, 43.5361, 1.26905, -96.7876, 0.742005
2.012, -1, 0.0177775, 23.1864, 43.5858, 1.20901, -96.9044, 0.737134
2.015, -1, 0.00459071, 23.255, 43.6356, 1.14895, -97.0213, 0.732261
2.019, -1, -0.0086, 23.3237, 43.6854, 1.08887, -97.1382, 0.727387
2.024, -1, -0.0217947, 23.3924, 43.7353, 1.02877, -97.2551, 0.722512
2.028, -1, -0.0349934, 23.4611, 43.7851, 0.968657, -97.3721, 0.717635
2.031, -1, -0.0481961, 23.5298, 43.8349, 0.908525, -97.4891, 0.712757
2.036, -1, -0.0614028, 23.5986, 43.8848, 0.848374, -97.6062, 0.707877
2.04, -1, -0.0746136, 23.6674, 43.9347, 0.788204, -97.7233, 0.702996
2.044, -1, -0.0878285, 23.7362, 43.9846, 0.728016, -97.8404, 0.698113
2.048, -1, -0.101047, 23.805, 44.0345, 0.66781, -97.9576, 0.693229
2.051, -1, -0.11427, 23.8738, 44.0844, 0.607584, -98.0748, 0.688343
2.055, -1, -0.127497, 23.9427, 44.1344, 0.547339, -98.192, 0.683456
2.06, -1, -0.140729, 24.0115, 44.1843, 0.487075, -98.3093, 0.678567
2.064, -1, -0.153964, 24.0804, 44.2343, 0.426792, -98.4266, 0.673676
2.068, -1, -0.167204, 24.1494, 44.2843, 0.366489, -98.5439, 0.668784
2.071, -1, -0.180447, 24.2183, 44.3343, 0.306167, -98.6613, 0.663891
2.076, -1, -0.193695, 24.2873, 44.3843, 0.245825, -98.7787, 0.658996
2.08, -1, -0.206948, 24.3563, 44.4344, 0.185463, -98.8962, 0.654099
2.084, -1, -0.220205, 24.4253, 44.4844, 0.125081, -99.0137, 0.6492
2.087, -1, -0.233466, 24.4943, 44.5345, 0.0646796, -99.1312, 0.6443
2.092, -1, -0.246731, 24.5634, 44.5846, 0.00425804, -99.2488, 0.639398
2.096, -1, -0.260001, 24.6324, 44.6347, -0.0561837, -99.3664, 0.634495
2.1, -1, -0.273275, 24.7016, 44.6848, -0.116646, -99.4841, 0.62959
2.104, -1, -0.286551, 24.7707, 44.735, -0.177128, -99.6018, 0.624684
2.107, -1, -0.299815, 24.8398, 44.7851, -0.23763, -99.7195, 0.619775
2.111, -1, -0.313036, 24.9088, 44.8353, -0.298149, -99.8373, 0.614866
2.116, -1, -0.326167, 24.9777, 44.8854, -0.358676, -99.9551, 0.609956
2.12, -1, -0.339154, 25.0462, 44.9355, -0.419193, -100.073, 0.605047
2.124, -1, -0.35195, 25.1143, 44.9855, -0.479662, -100.191, 0.600142
2.127, -1, -0.36452, 25.1819, 45.0354, -0.540025, -100.308, 0.595246
2.132, -1, -0.376842, 25.2488, 45.085, -0.6002, -100.425, 0.590365
2.136, -1, -0.388909, 25.3149, 45.1344, -0.660076, -100.542, 0.585509
2.14, -1, -0.40071, 25.38, 45.1833, -0.719519, -100.657, 0.580689
2.143, -1, -0.412224, 25.444, 45.2317, -0.778365, -100.772, 0.575917
2.148, -1, -0.423412, 25.5065, 45.2793, -0.836424, -100.885, 0.571209
2.152, -1, -0.43423, 25.5674, 45.3261, -0.893472, -100.996, 0.566584
2.156, -1, -0.444636, 25.6262, 45.3717, -0.949254, -101.105, 0.562062
2.16, -1, -0.454615, 25.6828, 45.416, -1.00348, -101.21, 0.557666
2.163, -1, -0.464179, 25.7372, 45.4587, -1.05584, -101.312, 0.553422
2.168, -1, -0.47336, 25.7892, 45.4996, -1.10602, -101.41, 0.549354
2.172, -1, -0.482178, 25.8389, 45.5385, -1.15371, -101.503, 0.545489
2.176, -1, -0.490636, 25.8861, 45.5752, -1.19861, -101.59, 0.541848
2.179, -1, -0.498712, 25.9306, 45.6095, -1.2405, -101.672, 0.538453
2.184, -1, -0.506379, 25.9724, 45.6412, -1.27917, -101.747, 0.535317
2.188, -1, -0.513614, 26.0112, 45.6703, -1.31448, -101.816, 0.532454
2.192, -1, -0.520417, 26.0471, 45.6966, -1.34633, -101.878, 0.52987
2.196, -1, -0.526806, 26.0801, 45.7201, -1.3747, -101.933, 0.527569
2.199, -1, -0.532811, 26.1102, 45.741, -1.39961, -101.981, 0.525546
2.204, -1, -0.538463, 26.1377, 45.7592, -1.42117, -102.023, 0.523796
2.208, -1, -0.543767, 26.1626, 45.7748, -1.43953, -102.059, 0.522304
2.212, -1, -0.548703, 26.1849, 45.7882, -1.45493, -102.089, 0.521052
2.216, -1, -0.553231, 26.2046, 45.7993, -1.46762, -102.113, 0.520019
2.219, -1, -0.557325, 26.2217, 45.8085, -1.47792, -102.133, 0.51918
2.224, -1, -0.560984, 26.2363, 45.8159, -1.48613, -102.149, 0.518511
2.228, -1, -0.564229, 26.2486, 45.8219, -1.49255, -102.162, 0.517987
2.232, -1, -0.567087, 26.2589, 45.8265, -1.49748, -102.171, 0.517585
2.235, -1, -0.569581, 26.2673, 45.8301, -1.50117, -102.178, 0.517283
2.24, -1, -0.571726, 26.2742, 45.8328, -1.50389, -102.184, 0.51706
2.244, -1, -0.57353, 26.2796, 45.8348, -1.50583, -102.187, 0.5169
2.248, 2, -0.574998, 26.2839, 45.8362, -1.5072, -102.19, 0.516787
2.252, 2, -0.576141, 26.2871, 45.8373, -1.50815, -102.192, 0.516709
2.255, 2, -0.576989, 26.2894, 45.838, -1.5088, -102.193, 0.516656
2.259, 2, -0.577589, 26.2911, 45.8385, -1.50924, -102.194, 0.51662
2.264, 2, -0.578001, 26.2922, 45.8389, -1.50954, -102.194, 0.516595
2.268, 2, -0.57828, 26.2929, 45.8391, -1.50974, -102.195, 0.516578
2.272, 2, -0.57847, 26.2934, 45.8392, -1.50987, -102.195, 0.516567
2.275, 2, -0.578598, 26.2938, 45.8393, -1.50997, -102.195, 0.516559
2.28, 2, -0.578685, 26.294, 45.8394, -1.51003, -102.195, 0.516554
2.284, 2, -0.578744, 26.2942, 45.8395, -1.51007, -102.195, 0.516551
2.288, 2, -0.578784, 26.2943, 45.8395, -1.5101, -102.196, 0.516548
2.291, 2, -0.578811, 26.2944, 45.8395, -1.51012, -102.196, 0.516547
2.296, 2, -0.578829, 26.2944, 45.8395, -1.51013, -102.196, 0.516546
2.3, 2, -0.578841, 26.2945, 45.8396, -1.51014, -102.196, 0.516545
2.304, 2, -0.57885, 26.2945, 45.8396, -1.51015, -102.196, 0.516544
2.308, 2, -0.578855, 26.2945, 45.8396, -1.51015, -102.196, 0.516544
2.311, 2, -0.578859, 26.2945, 45.8396, -1.51016, -102.196, 0.516544
2.316, 2, -0.578862, 26.2945, 45.8396, -1.51016, -102.196, 0.516544
2.32, 2, -0.578864, 26.2945, 45.8396, -1.51016, -102.196, 0.516543
2.324, 2, -0.578865, 26.2945, 45.8396, -1.51016, -102.196, 0.516543
2.328, 2, -0.578866, 26.2945, 45.8396, -1.51016, -102.196, 0.516543
2.331, 2, -0.578866, 26.2945, 45.8396, -1.51016, -102.196, 0.516543
2.336, 2, -0.578866, 26.2945, 45.8396, -1.51016, -102.196, 0.516543
2.34, 2, -0.578867, 26.2945, 45.8396, -1.51016, -102.196, 0.516543
2.344, 2, -0.578867, 26.2945, 45.8396, -1.51016, -102.196, 0.516543
2.347, 2, -0.578867, 26.2945, 45.8396, -1.51016, -102.196, 0.516543
2.352, 2, -0.578867, 26.2945, 45.8396, -1.51016, -102.196, 0.516543
2.356, 2, -0.578867, 26.2945, 45.8396, -1.51016, -102.196, 0.516543
2.36, 2, -0.578867, 26.2945, 45.8396, -1.51016, -102.196, 0.516543
2.364, 2, -0.578867, 26.2945, 45.8396, -1.51016, -102.196, 0.516543
2.367, 2, -0.578867, 26.2945, 45.8396, -1.51016, -102.196, 0.516543
2.372, 2, -0.578867, 26.2945, 45.8396, -1.51016, -102.196, 0.516543
2.376, 2, -0.578867, 26.2945, 45.8396, -1.51016, -102.196, 0.516543
2.38, 2, -0.578867, 26.2945, 45.8396, -1.51016, -102.196, 0.516543
2.383, 2, -0.578867, 26.2945, 45.8396, -1.51016, -102.196, 0.516543
2.388, 2, -0.578867, 26.2945, 45.8396, -1.51016, -102.196, 0.516543
2.392, 2, -0.578867, 26.2945, 45.8396, -1.51016, -102.196, 0.516543
2.396, 2, -0.578867, 26.2945, 45.8396, -1.51016, -102.196, 0.516543
2.4, 2, -0.578867, 26.2945, 45.8396, -1.51016, -102.196, 0.516543
2.403, 2, -0.578867, 26.2945, 45.8396, -1.51016, -102.196, 0.516543
2.408, 2, -0.578867, 26.2945, 45.8396, -1.51016, -102.196, 0.516543
2.412, 2, -0.578867, 26.2945, 45.8396, -1.51016, -102.196, 0.516543
2.416, 2, -0.578867, 26.2945, 45.8396, -1.51016, -102.196, 0.516543
2.42, 2, -0.578867, 26.2945, 45.8396, -1.51016, -102.196, 0.516543
2.423, 2, -0.578867, 26.2945, 45.8396, -1.51016, -102.196, 0.516543
2.428, 2, -0.578867, 26.2945, 45.8396, -1.51016, -102.196, 0.516543
2.432, 2, -0.578867, 26.2945, 45.8396, -1.51016, -102.196, 0.516543
2.436, 2, -0.578867, 26.2945, 45.8396, -1.51016, -102.196, 0.516543
2.439, 2, -0.578867, 26.2945, 45.8396, -1.51016, -102.196, 0.516543
2.444, 2, -0.578867, 26.2945, 45.8396, -1.51016, -102.196, 0.516543
2.448, 2, -0.578867, 26.2945, 45.8396, -1.51016, -102.196, 0.516543
2.452, 2, -0.578867, 26.2945, 45.8396, -1.51016, -102.196, 0.516543
2.456, 2, -0.578867, 26.2945, 45.8396, -1.51016, -102.196, 0.516543
2.459, 2, -0.578867, 26.2945, 45.8396, -1.51016, -102.196, 0.516543
2.464, 2, -0.578867, 26.2945, 45.8396, -1.51016, -102.196, 0.516543
2.468, 2, -0.578867, 26.2945, 45.8396, -1.51016, -102.196, 0.516543
2.472, 2, -0.578867, 26.2945, 45.8396, -1.51016, -102.196, 0.516543
2.476, 2, -0.578867, 26.2945, 45.8396, -1.51016, -102.196, 0.516543
2.479, 2, -0.578867, 26.2945, 45.8396, -1.51016, -102.196, 0.516543
2.484, 2, -0.578867, 26.2945, 45.8396, -1.51016, -102.196, 0.516543
2.488, 2, -0.578867, 26.2945, 45.8396, -1.51016, -102.196, 0.516543
2.492, 2, -0.578867, 26.2945, 45.8396, -1.51016, -102.196, 0.516543
2.495, 2, -0.578867, 26.2945, 45.8396, -1.51016, -102.196, 0.516543
2.5, 2, -0.578867, 26.2945, 45.8396, -1.51016, -102.196, 0.516543
2.504, 2, -0.578867, 26.2945, 45.8396, -1.51016, -102.196, 0.516543
2.508, 2, -0.578867, 26.2945, 45.8396, -1.51016, -102.196, 0.516543
2.512, 2, -0.578867, 26.2945, 45.8396, -1.51016, -102.196, 0.516543
2.515, 2, -0.578867, 26.2945, 45.8396, -1.51016, -102.196, 0.516543
2.52, 2, -0.578867, 26.2945, 45.8396, -1.51016, -102.196, 0.516543
2.524, 2, -0.578867, 26.2945, 45.8396, -1.51016, -102.196, 0.516543
2.528, 2, -0.578867, 26.2945, 45.8396, -1.51016, -102.196, 0.516543
2.531, 2, -0.578867, 26.2945, 45.8396, -1.51016, -102.196, 0.516543
2.536, 2, -0.578867, 26.2945, 45.8396, -1.51016, -102.196, 0.516543
2.54, 2, -0.578867, 26.2945, 45.8396, -1.51016, -102.196, 0.516543
2.544, 2, -0.578867, 26.2945, 45.8396, -1.51016, -102.196, 0.516543
2.548, 2, -0.578867, 26.2945, 45.8396, -1.51016, -102.196, 0.516543
2.551, 2, -0.578867, 26.2945, 45.8396, -1.51016, -102.196, 0.516543
2.556, 2, -0.578867, 26.2945, 45.8396, -1.51016, -102.196, 0.516543
2.56, 2, -0.578867, 26.2945, 45.8396, -1.51016, -102.196, 0.516543
2.564, 2, -0.578867, 26.2945, 45.8396, -1.51016, -102.196, 0.516543
2.568, 2, -0.578867, 26.2945, 45.8396, -1.51016, -102.196, 0.516543
2.571, 2, -0.578867, 26.2945, 45.8396, -1.51016, -102.196, 0.516543
2.576, 2, -0.578867, 26.2945, 45.8396, -1.51016, -102.196, 0.516543
2.58, 2, -0.578867, 26.2945, 45.8396, -1.51016, -102.196, 0.516543
2.584, 2, -0.578867, 26.2945, 45.8396, -1.51016, -102.196, 0.516543
2.587, 2, -0.578867, 26.2945, 45.8396, -1.51016, -102.196, 0.516543
2.592, 2, -0.578867, 26.2945, 45.8396, -1.51016, -102.196, 0.516543
2.596, 2, -0.578867, 26.2945, 45.8396, -1.51016, -102.196, 0.516543
2.6, 2, -0.578867, 26.2945, 45.8396, -1.51016, -102.196, 0.516543
2.604, 2, -0.578867, 26.2945, 45.8396, -1.51016, -102.196, 0.516543
2.607, 2, -0.578867, 26.2945, 45.8396, -1.51016, -102.196, 0.516543
2.612, 2, -0.578867, 26.2945, 45.8396, -1.51016, -102.196, 0.516543
2.616, 2, -0.578867, 26.2945, 45.8396, -1.51016, -102.196, 0.516543
2.62, 2, -0.578867, 26.2945, 45.8396, -1.51016, -102.196, 0.516543
2.624, 2, -0.578867, 26.2945, 45.8396, -1.51016, -102.196, 0.516543
2.627, 2, -0.578867, 26.2945, 45.8396, -1.51016, -102.196, 0.516543
2.632, 2, -0.578867, 26.2945, 45.8396, -1.51016, -102.196, 0.516543
2.636, 2, -0.578867, 26.2945, 45.8396, -1.51016, -102.196, 0.516543
2.64, 2, -0.578867, 26.2945, 45.8396, -1.51016, -102.196, 0.516543
2.643, 2, -0.578867, 26.2945, 45.8396, -1.51016, -102.196, 0.516543
2.648, 2, -0.578867, 26.2945, 45.8396, -1.51016, -102.196, 0.516543
2.652, 2, -0.578867, 26.2945, 45.8396, -1.51016, -102.196, 0.516543
2.656, 2, -0.578867, 26.2945, 45.8396, -1.51016, -102.196, 0.516543
2.66, 2, -0.578867, 26.2945, 45.8396, -1.51016, -102.196, 0.516543
2.663, 2, -0.578867, 26.2945, 45.8396, -1.51016, -102.196, 0.516543
2.668, 2, -0.578867, 26.2945, 45.8396, -1.51016, -102.196, 0.516543
2.672, 2, -0.578867, 26.2945, 45.8396, -1.51016, -102.196, 0.516543
2.676, 2, -0.578867, 26.2945, 45.8396, -1.51016, -102.196, 0.516543
2.679, 2, -0.578867, 26.2945, 45.8396, -1.51016, -102.196, 0.516543
2.684, 2, -0.578867, 26.2945, 45.8396, -1.51016, -102.196, 0.516543
2.688, 2, -0.578867, 26.2945, 45.8396, -1.51016, -102.196, 0.516543
2.692, 2, -0.578867, 26.2945, 45.8396, -1.51016, -102.196, 0.516543
2.696, 2, -0.578867, 26.2945, 45.8396, -1.51016, -102.196, 0.516543
2.699, 2, -0.578867, 26.2945, 45.8396, -1.51016, -102.196, 0.516543
2.704, 2, -0.578867, 26.2945, 45.8396, -1.51016, -102.196, 0.516543
2.708, 2, -0.578867, 26.2945, 45.8396, -1.51016, -102.196, 0.516543
2.712, 2, -0.578867, 26.2945, 45.8396, -1.51016, -102.196, 0.516543
2.716, 2, -0.578867, 26.2945, 45.8396, -1.51016, -102.196, 0.516543
2.719, 2, -0.578867, 26.2945, 45.8396, -1.51016, -102.196, 0.516543
2.724, 2, -0.578867, 26.2945, 45.8396, -1.51016, -102.196, 0.516543
2.728, 2, -0.578867, 26.2945, 45.8396, -1.51016, -102.196, 0.516543
2.732, 2, -0.578867, 26.2945, 45.8396, -1.51016, -102.196, 0.516543
2.735, 2, -0.578867, 26.2945, 45.8396, -1.51016, -102.196, 0.516543
2.74, 2, -0.578867, 26.2945, 45.8396, -1.51016, -102.196, 0.516543
2.744, 2, -0.578867, 26.2945, 45.8396, -1.51016, -102.196, 0.516543
2.748, 2, -0.578867, 26.2945, 45.8396, -1.51016, -102.196, 0.516543
2.752, 2, -0.578867, 26.2945, 45.8396, -1.51016, -102.196, 0.516543
2.755, 2, -0.578867, 26.2945, 45.8396, -1.51016, -102.196, 0.516543
2.76, 2, -0.578867, 26.2945, 45.8396, -1.51016, -102.196, 0.516543
2.764, 2, -0.578867, 26.2945, 45.8396, -1.51016, -102.196, 0.516543
2.768, 2, -0.578867, 26.2945, 45.8396, -1.51016, -102.196, 0.516543
2.772, 2, -0.578867, 26.2945, 45.8396, -1.51016, -102.196, 0.516543
2.775, 2, -0.578867, 26.2945, 45.8396, -1.51016, -102.196, 0.516543
2.78, 2, -0.578867, 26.2945, 45.8396, -1.51016, -102.196, 0.516543
2.784, 2, -0.578867, 26.2945, 45.8396, -1.51016, -102.196, 0.516543
2.788, 2, -0.578867, 26.2945, 45.8396, -1.51016, -102.196, 0.516543
2.791, 2, -0.578867, 26.2945, 45.8396, -1.51016, -102.196, 0.516543
2.796, 2, -0.578867, 26.2945, 45.8396, -1.51016, -102.196, 0.516543
2.8, 2, -0.578867, 26.2945, 45.8396, -1.51016, -102.196, 0.516543
2.804, 2, -0.578867, 26.2945, 45.8396, -1.51016, -102.196, 0.516543
2.808, 2, -0.578867, 26.2945, 45.8396, -1.51016, -102.196, 0.516543
2.811, 2, -0.578867, 26.2945, 45.8396, -1.51016, -102.196, 0.516543
2.816, 2, -0.578867, 26.2945, 45.8396, -1.51016, -102.196, 0.516543
2.82, 2, -0.578867, 26.2945, 45.8396, -1.51016, -102.196, 0.516543
2.824, 2, -0.578867, 26.2945, 45.8396, -1.51016, -102.196, 0.516543
2.828, 2, -0.578867, 26.2945, 45.8396, -1.51016, -102.196, 0.516543
2.831, 2, -0.578867, 26.2945, 45.8396, -1.51016, -102.196, 0.516543
2.836, 2, -0.578867, 26.2945, 45.8396, -1.51016, -102.196, 0.516543
2.84, 2, -0.578867, 26.2945, 45.8396, -1.51016, -102.196, 0.516543
2.844, 2, -0.578867, 26.2945, 45.8396, -1.51016, -102.196, 0.516543
2.847, 2, -0.578867, 26.2945, 45.8396, -1.51016, -102.196, 0.516543
2.852, 2, -0.578867, 26.2945, 45.8396, -1.51016, -102.196, 0.516543
2.856, 2, -0.578867, 26.2945, 45.8396, -1.51016, -102.196, 0.516543
2.86, 2, -0.578867, 26.2945, 45.8396, -1.51016, -102.196, 0.516543
2.864, 2, -0.578867, 26.2945, 45.8396, -1.51016, -102.196, 0.516543
2.867, 2, -0.578867, 26.2945, 45.8396, -1.51016, -102.196, 0.516543
2.872, 2, -0.578867, 26.2945, 45.8396, -1.51016, -102.196, 0.516543
2.876, 2, -0.578867, 26.2945, 45.8396, -1.51016, -102.196, 0.516543
2.88, 2, -0.578867, 26.2945, 45.8396, -1.51016, -102.196, 0.516543
2.883, 2, -0.578867, 26.2945, 45.8396, -1.51016, -102.196, 0.516543
2.888, 2, -0.578867, 26.2945, 45.8396, -1.51016, -102.196, 0.516543
2.892, 2, -0.578867, 26.2945, 45.8396, -1.51016, -102.196, 0.516543
2.896, 2, -0.578867, 26.2945, 45.8396, -1.51016, -102.196, 0.516543
2.9, 2, -0.578867, 26.2945, 45.8396, -1.51016, -102.196, 0.516543
2.903, 2, -0.578867, 26.2945, 45.8396, -1.51016, -102.196, 0.516543
2.908, 2, -0.578867, 26.2945, 45.8396, -1.51016, -102.196, 0.516543
2.912, 2, -0.578867, 26.2945, 45.8396, -1.51016, -102.196, 0.516543
2.916, 2, -0.578867, 26.2945, 45.8396, -1.51016, -102.196, 0.516543
2.92, 2, -0.578867, 26.2945, 45.8396, -1.51016, -102.196, 0.516543
2.923, 2, -0.578867, 26.2945, 45.8396, -1.51016, -102.196, 0.516543
2.928, 2, -0.578867, 26.2945, 45.8396, -1.51016, -102.196, 0.516543
2.932, 2, -0.578867, 26.2945, 45.8396, -1.51016, -102.196, 0.516543
2.936, 2, -0.578867, 26.2945, 45.8396, -1.51016, -102.196, 0.516543
2.939, 2, -0.578867, 26.2945, 45.8396, -1.51016, -102.196, 0.516543
2.944, 2, -0.578867, 26.2945, 45.8396, -1.51016, -102.196, 0.516543
2.948, 2, -0.578867, 26.2945, 45.8396, -1.51016, -102.196, 0.516543
2.952, 2, -0.578867, 26.2945, 45.8396, -1.51016, -102.196, 0.516543
2.956, 2, -0.578867, 26.2945, 45.8396, -1.51016, -102.196, 0.516543
2.959, 2, -0.578867, 26.2945, 45.8396, -1.51016, -102.196, 0.516543
2.964, 2, -0.578867, 26.2945, 45.8396, -1.51016, -102.196, 0.516543
2.968, 2, -0.578867, 26.2945, 45.8396, -1.51016, -102.196, 0.516543
2.972, 2, -0.578867, 26.2945, 45.8396, -1.51016, -102.196, 0.516543
2.976, 2, -0.578867, 26.2945, 45.8396, -1.51016, -102.196, 0.516543
2.98, 2, -0.578867, 26.2945, 45.8396, -1.51016, -102.196, 0.516543
2.984, 2, -0.578867, 26.2945, 45.8396, -1.51016, -102.196, 0.516543
2.988, 2, -0.578867, 26.2945, 45.8396, -1.51016, -102.196, 0.516543
2.992, 2, -0.578867, 26.2945, 45.8396, -1.51016, -102.196, 0.516543
2.995, 2, -0.578867, 26.2945, 45.8396, -1.51016, -102.196, 0.516543
3, 2, -0.578867, 26.2945, 45.8396, -1.51016, -102.196, 0.516543
3.004, 2, -0.578867, 26.2945, 45.8396, -1.51016, -102.196, 0.516543
3.008, 2, -0.578867, 26.2945, 45.8396, -1.51016, -102.196, 0.516543
3.012, 2, -0.578867, 26.2945, 45.8396, -1.51016, -102.196, 0.516543
3.015, 2, -0.578867, 26.2945, 45.8396, -1.51016, -102.196, 0.516543
3.02, 2, -0.578867, 26.2945, 45.8396, -1.51016, -102.196, 0.516543
3.024, 2, -0.578867, 26.2945, 45.8396, -1.51016, -102.196, 0.516543
3.028, 2, -0.578867, 26.2945, 45.8396, -1.51016, -102.196, 0.516543
3.031, 2, -0.578867, 26.2945, 45.8396, -1.51016, -102.196, 0.516543
3.036, 2, -0.578867, 26.2945, 45.8396, -1.51016, -102.196, 0.516543
3.04, 2, -0.578867, 26.2945, 45.8396, -1.51016, -102.196, 0.516543
3.044, 2, -0.578867, 26.2945, 45.8396, -1.51016, -102.196, 0.516543
3.048, 2, -0.578867, 26.2945, 45.8396, -1.51016, -102.196, 0.516543
3.051, 2, -0.578867, 26.2945, 45.8396, -1.51016, -102.196, 0.516543
3.056, 2, -0.578867, 26.2945, 45.8396, -1.51016, -102.196, 0.516543
3.06, 2, -0.578867, 26.2945, 45.8396, -1.51016, -102.196, 0.516543
3.064, 2, -0.578867, 26.2945, 45.8396, -1.51016, -102.196, 0.516543
3.068, 2, -0.578867, 26.2945, 45.8396, -1.51016, -102.196, 0.516543
3.071, 2, -0.578867, 26.2945, 45.8396, -1.51016, -102.196, 0.516543
3.076, 2, -0.578867, 26.2945, 45.8396, -1.51016, -102.196, 0.516543
3.08, 2, -0.578867, 26.2945, 45.8396, -1.51016, -102.196, 0.516543
3.084, 2, -0.578867, 26.2945, 45.8396, -1.51016, -102.196, 0.516543
3.087, 2, -0.578867, 26.2945, 45.8396, -1.51016, -102.196, 0.516543
3.092, 2, -0.578867, 26.2945, 45.8396, -1.51016, -102.196, 0.516543
3.096, 2, -0.578867, 26.2945, 45.8396, -1.51016, -102.196, 0.516543
3.1, 2, -0.578867, 26.2945, 45.8396, -1.51016, -102.196, 0.516543
3.104, 2, -0.578867, 26.2945, 45.8396, -1.51016, -102.196, 0.516543
3.107, 2, -0.578867, 26.2945, 45.8396, -1.51016, -102.196, 0.516543
3.112, 2, -0.578867, 26.2945, 45.8396, -1.51016, -102.196, 0.516543
3.116, 2, -0.578867, 26.2945, 45.8396, -1.51016, -102.196, 0.516543
3.12, 2, -0.578867, 26.2945, 45.8396, -1.51016, -102.196, 0.516543
3.124, 2, -0.578867, 26.2945, 45.8396, -1.51016, -102.196, 0.516543
3.128, 2, -0.578867, 26.2945, 45.8396, -1.51016, -102.196, 0.516543
3.132, 2, -0.578867, 26.2945, 45.8396, -1.51016, -102.196, 0.516543
3.136, 2, -0.578867, 26.2945, 45.8396, -1.51016, -102.196, 0.516543
3.14, 2, -0.578867, 26.2945, 45.8396, -1.51016, -102.196, 0.516543
3.143, 2, -0.578867, 26.2945, 45.8396, -1.51016, -102.196, 0.516543
3.148, 2, -0.578867, 26.2945, 45.8396, -1.51016, -102.196, 0.516543
3.152, 2, -0.578867, 26.2945, 45.8396, -1.51016, -102.196, 0.516543
3.156, 2, -0.578867, 26.2945, 45.8396, -1.51016, -102.196, 0.516543
3.16, 2, -0.578867, 26.2945, 45.8396, -1.51016, -102.196, 0.516543
3.163, 2, -0.578867, 26.2945, 45.8396, -1.51016, -102.196, 0.516543
3.168, 2, -0.578867, 26.2945, 45.8396, -1.51016, -102.196, 0.516543
3.172, 2, -0.578867, 26.2945, 45.8396, -1.51016, -102.196, 0.516543
3.176, 2, -0.578867, 26.2945, 45.8396, -1.51016, -102.196, 0.516543
3.179, 2, -0.578867, 26.2945, 45.8396, -1.51016, -102.196, 0.516543
3.184, 2, -0.578867, 26.2945, 45.8396, -1.51016, -102.196, 0.516543
3.188, 2, -0.578867, 26.2945, 45.8396, -1.51016, -102.196, 0.516543
3.192, 2, -0.578867, 26.2945, 45.8396, -1.51016, -102.196, 0.516543
3.196, 2, -0.578867, 26.2945, 45.8396, -1.51016, -102.196, 0.516543
3.199, 2, -0.578867, 26.2945, 45.8396, -1.51016, -102.196, 0.516543
3.204, 2, -0.578867, 26.2945, 45.8396, -1.51016, -102.196, 0.516543
3.208, 2, -0.578867, 26.2945, 45.8396, -1.51016, -102.196, 0.516543
3.212, 2, -0.578867, 26.2945, 45.8396, -1.51016, -102.196, 0.516543
3.216, 2, -0.578867, 26.2945, 45.8396, -1.51016, -102.196, 0.516543
3.22, 2, -0.578867, 26.2945, 45.8396, -1.51016, -102.196, 0.516543
3.224, 2, -0.578867, 26.2945, 45.8396, -1.51016, -102.196, 0.516543
3.228, 2, -0.578867, 26.2945, 45.8396, -1.51016, -102.196, 0.516543
3.232, 2, -0.578867, 26.2945, 45.8396, -1.51016, -102.196, 0.516543
3.235, 2, -0.578867, 26.2945, 45.8396, -1.51016, -102.196, 0.516543
3.24, 2, -0.578867, 26.2945, 45.8396, -1.51016, -102.196, 0.516543
3.244, 2, -0.578867, 26.2945, 45.8396, -1.51016, -102.196, 0.516543
3.248, 2, -0.578867, 26.2945, 45.8396, -1.51016, -102.196, 0.516543
3.252, 2, -0.578867, 26.2945, 45.8396, -1.51016, -102.196, 0.516543
3.255, 2, -0.578867, 26.2945, 45.8396, -1.51016, -102.196, 0.516543
3.26, 2, -0.578867, 26.2945, 45.8396, -1.51016, -102.196, 0.516543
3.264, 2, -0.578867, 26.2945, 45.8396, -1.51016, -102.196, 0.516543
3.268, 2, -0.578867, 26.2945, 45.8396, -1.51016, -102.196, 0.516543
3.272, 2, -0.578867, 26.2945, 45.8396, -1.51016, -102.196, 0.516543
3.276, 2, -0.578867, 26.2945, 45.8396, -1.51016, -102.196, 0.516543
3.28, 2, -0.578867, 26.2945, 45.8396, -1.51016, -102.196, 0.516543
3.284, 2, -0.578867, 26.2945, 45.8396, -1.51016, -102.196, 0.516543
3.288, 2, -0.578867, 26.2945, 45.8396, -1.51016, -102.196, 0.516543
3.291, 2, -0.578867, 26.2945, 45.8396, -1.51016, -102.196, 0.516543
3.296, 2, -0.578867, 26.2945, 45.8396, -1.51016, -102.196, 0.516543
3.3, 2, -0.578867, 26.2945, 45.8396, -1.51016, -102.196, 0.516543
3.304, 4, -0.578867, 26.2945, 45.8396, -1.51016, -102.196, 0.516543
3.308, 4, -0.578867, 26.2945, 45.8396, -1.51016, -102.196, 0.516543
3.312, 4, -0.578867, 26.2945, 45.8396, -1.51016, -102.196, 0.516543
3.316, 4, -0.578867, 26.2945, 45.8396, -1.51016, -102.196, 0.516543
3.32, 4, -0.578867, 26.2945, 45.8396, -1.51016, -102.196, 0.516543
3.324, 4, -0.578867, 26.2945, 45.8396, -1.51016, -102.196, 0.516543
3.328, 4, -0.578867, 26.2945, 45.8396, -1.51016, -102.196, 0.516543
3.332, 4, -0.578867, 26.2945, 45.8396, -1.51016, -102.196, 0.516543
3.336, 4, -0.578867, 26.2945, 45.8396, -1.51016, -102.196, 0.516543
3.34, 4, -0.578867, 26.2945, 45.8396, -1.51016, -102.196, 0.516543
3.344, 4, -0.578867, 26.2945, 45.8396, -1.51016, -102.196, 0.516543
3.347, 4, -0.578867, 26.2945, 45.8396, -1.51016, -102.196, 0.516543
3.352, 4, -0.578867, 26.2945, 45.8396, -1.51016, -102.196, 0.516543
3.356, 4, -0.578867, 26.2945, 45.8396, -1.51016, -102.196, 0.516543
3.36, 4, -0.578867, 26.2945, 45.8396, -1.51016, -102.196, 0.516543
3.364, 4, -0.578867, 26.2945, 45.8396, -1.51016, -102.196, 0.516543
3.368, 4, -0.578867, 26.2945, 45.8396, -1.51016, -102.196, 0.516543
3.372, 4, -0.578867, 26.2945, 45.8396, -1.51016, -102.196, 0.516543
3.376, 4, -0.578867, 26.2945, 45.8396, -1.51016, -102.196, 0.516543
3.38, 4, -0.578867, 26.2945, 45.8396, -1.51016, -102.196, 0.516543
3.383, 4, -0.578867, 26.2945, 45.8396, -1.51016, -102.196, 0.516543
3.388, 4, -0.578867, 26.2945, 45.8396, -1.51016, -102.196, 0.516543
3.392, 4, -0.578867, 26.2945, 45.8396, -1.51016, -102.196, 0.516543
3.396, 4, -0.578867, 26.2945, 45.8396, -1.51016, -102.196, 0.516543
3.4, 4, -0.578867, 26.2945, 45.8396, -1.51016, -102.196, 0.516543
3.403, 4, -0.578867, 26.2945, 45.8396, -1.51016, -102.196, 0.516543
3.408, 4, -0.578867, 26.2945, 45.8396, -1.51016, -102.196, 0.516543
3.412, 4, -0.578867, 26.2945, 45.8396, -1.51016, -102.196, 0.516543
3.416, 4, -0.578867, 26.2945, 45.8396, -1.51016, -102.196, 0.516543
3.42, 4, -0.578867, 26.2945, 45.8396, -1.51016, -102.196, 0.516543
3.424, 4, -0.578867, 26.2945, 45.8396, -1.51016, -102.196, 0.516543
3.428, 4, -0.578867, 26.2945, 45.8396, -1.51016, -102.196, 0.516543
3.432, 4, -0.578864, 26.2945, 45.8396, -1.51016, -102.196, 0.516543
3.436, 4, -0.578841, 26.2945, 45.8396, -1.51016, -102.196, 0.516542
3.439, 4, -0.578751, 26.2944, 45.8396, -1.51016, -102.196, 0.516538
3.444, 4, -0.578521, 26.294, 45.8396, -1.51015, -102.196, 0.516523
3.448, 4, -0.578068, 26.2934, 45.8397, -1.51011, -102.196, 0.516476
3.452, 4, -0.577322, 26.2923, 45.8398, -1.51002, -102.195, 0.51636
3.456, 4, -0.576238, 26.2905, 45.8399, -1.50983, -102.195, 0.516115
3.46, 4, -0.574791, 26.288, 45.8402, -1.50946, -102.195, 0.515653
3.464, 4, -0.572988, 26.2847, 45.8405, -1.50883, -102.194, 0.514857
3.468, 4, -0.570856, 26.2804, 45.8408, -1.50781, -102.193, 0.513584
3.472, 4, -0.568422, 26.275, 45.8413, -1.50628, -102.19, 0.511668
3.476, 5, -0.565687, 26.2685, 45.8418, -1.50408, -102.187, 0.508926
3.48, 5, -0.562625, 26.2607, 45.8425, -1.50106, -102.183, 0.505163
3.484, 5, -0.55921, 26.2514, 45.8433, -1.49706, -102.177, 0.500181
3.488, 5, -0.55544, 26.2406, 45.8441, -1.49193, -102.17, 0.493782
3.492, 5, -0.551339, 26.2282, 45.8451, -1.4855, -102.161, 0.48578
3.495, 5, -0.546945, 26.2143, 45.8462, -1.47765, -102.149, 0.47601
3.5, 5, -0.542292, 26.1989, 45.8474, -1.46829, -102.136, 0.464346
3.504, 5, -0.537403, 26.1821, 45.8487, -1.45734, -102.12, 0.450708
3.508, 5, -0.53228, 26.1637, 45.8501, -1.44479, -102.102, 0.435068
3.512, 5, -0.526899, 26.1438, 45.8515, -1.43065, -102.081, 0.417453
3.516, 5, -0.521216, 26.1224, 45.8531, -1.41501, -102.059, 0.397943
3.52, 5, -0.515194, 26.0993, 45.8547, -1.39795, -102.034, 0.376657
3.524, 5, -0.508824, 26.0746, 45.8565, -1.3796, -102.007, 0.353744
3.528, 5, -0.502126, 26.0484, 45.8583, -1.3601, -101.979, 0.329377
3.531, 5, -0.495119, 26.0207, 45.8602, -1.3396, -101.949, 0.303738
3.536, 5, -0.487805, 25.9918, 45.8623, -1.31825, -101.918, 0.277016
3.54, 5, -0.480163, 25.9616, 45.8643, -1.2962, -101.886, 0.249399
3.544, 5, -0.472166, 25.9303, 45.8665, -1.27361, -101.853, 0.221062
3.548, 5, -0.463793, 25.8981, 45.8687, -1.25059, -101.819, 0.192165
3.552, 5, -0.455033, 25.8649, 45.8709, -1.22726, -101.785, 0.162844
3.556, 5, -0.445898, 25.831, 45.8732, -1.20371, -101.751, 0.133211
3.56, 5, -0.436434, 25.7964, 45.8755, -1.18, -101.717, 0.103352
3.564, 5, -0.426713, 25.7614, 45.8778, -1.15619, -101.682, 0.0733277
3.568, 5, -0.416806, 25.7261, 45.8802, -1.13231, -101.647, 0.0431827
3.572, 5, -0.406774, 25.6906, 45.8825, -1.10839, -101.613, 0.0129465
3.576, 5, -0.396655, 25.6549, 45.8848, -1.08444, -101.578, -0.0173608
3.58, 5, -0.386478, 25.6191, 45.887, -1.06047, -101.543, -0.0477255
3.584, 5, -0.376262, 25.5833, 45.8893, -1.03649, -101.508, -0.0781385
3.587, 5, -0.366018, 25.5475, 45.8915, -1.0125, -101.473, -0.108593
3.592, 5, -0.355756, 25.5116, 45.8937, -0.988513, -101.438, -0.139086
3.596, 5, -0.345481, 25.4758, 45.8959, -0.964524, -101.403, -0.169613
3.6, 5, -0.335198, 25.4399, 45.898, -0.940538, -101.368, -0.200174
3.604, 5, -0.324909, 25.4041, 45.9001, -0.916553, -101.333, -0.230765
3.608, 5, -0.314615, 25.3682, 45.9022, -0.892573, -101.298, -0.261388
3.612, 5, -0.304318, 25.3324, 45.9043, -0.868596, -101.263, -0.292041
3.616, 5, -0.294019, 25.2966, 45.9063, -0.844623, -101.228, -0.322723
3.62, 5, -0.283719, 25.2608, 45.9083, -0.820654, -101.193, -0.353436
3.624, 5, -0.273417, 25.2251, 45.9102, -0.796691, -101.158, -0.384177
3.628, 5, -0.263114, 25.1893, 45.9122, -0.772731, -101.123, -0.414948
3.632, 5, -0.25281, 25.1536, 45.9141, -0.748777, -101.088, -0.445748
3.636, 5, -0.242506, 25.1179, 45.9159, -0.724827, -101.053, -0.476576
3.64, 5, -0.232201, 25.0822, 45.9178, -0.700882, -101.018, -0.507435
3.644, 5, -0.221896, 25.0465, 45.9196, -0.676941, -100.983, -0.538322
3.648, 5, -0.21159, 25.0109, 45.9214, -0.653005, -100.948, -0.569238
3.652, 5, -0.201283, 24.9752, 45.9231, -0.629074, -100.913, -0.600183
3.656, 5, -0.190977, 24.9396, 45.9248, -0.605148, -100.878, -0.631158
3.66, 5, -0.180669, 24.904, 45.9265, -0.581226, -100.843, -0.662162
3.664, 5, -0.170362, 24.8685, 45.9282, -0.557309, -100.808, -0.693194
3.668, 5, -0.160054, 24.8329, 45.9298, -0.533397, -100.773, -0.724256
3.672, 5, -0.149745, 24.7974, 45.9314, -0.509489, -100.739, -0.755347
3.676, 5, -0.139437, 24.7618, 45.933, -0.485587, -100.704, -0.786468
3.679, 5, -0.129127, 24.7264, 45.9345, -0.461688, -100.669, -0.817617
3.684, 5, -0.118818, 24.6909, 45.936, -0.437795, -100.634, -0.848796
3.688, 5, -0.108508, 24.6554, 45.9375, -0.413906, -100.599, -0.880004
3.692, 5, -0.0981979, 24.62, 45.939, -0.390021, -100.563, -0.911241
3.696, 5, -0.0878873, 24.5846, 45.9404, -0.366141, -100.528, -0.942507
3.7, 5, -0.0775765, 24.5492, 45.9418, -0.342266, -100.493, -0.973803
3.704, 5, -0.0672653, 24.5138, 45.9431, -0.318395, -100.458, -1.00513
3.708, 5, -0.0569538, 24.4784, 45.9444, -0.294529, -100.423, -1.03648
3.712, 5, -0.0466419, 24.4431, 45.9457, -0.270667, -100.388, -1.06786
3.716, 5, -0.0363298, 24.4078, 45.947, -0.24681, -100.353, -1.09928
3.72, 5, -0.0260174, 24.3725, 45.9482, -0.222957, -100.318, -1.13072
3.724, 5, -0.0157047, 24.3372, 45.9494, -0.199108, -100.283, -1.16219
3.728, 5, -0.00539169, 24.302, 45.9506, -0.175264, -100.248, -1.19369
3.732, 5, 0.00492153, 24.2667, 45.9518, -0.151425, -100.213, -1.22522
3.735, 5, 0.015235, 24.2315, 45.9529, -0.127589, -100.178, -1.25677
3.74, 5, 0.0255487, 24.1963, 45.954, -0.103759, -100.143, -1.28836
3.744, 5, 0.0358627, 24.1612, 45.955, -0.079932, -100.108, -1.31998
3.748, 5, 0.0461769, 24.126, 45.956, -0.0561097, -100.073, -1.35162
3.752, 5, 0.0564914, 24.0909, 45.957, -0.0322918, -100.038, -1.3833
3.756, 5, 0.0668061, 24.0558, 45.958, -0.00847821, -100.003, -1.415
3.76, 5, 0.0771211, 24.0207, 45.9589, 0.0153311, -99.9683, -1.44673
3.764, 5, 0.0874363, 23.9856, 45.9598, 0.0391362, -99.9333, -1.47849
3.768, 5, 0.0977518, 23.9506, 45.9607, 0.062937, -99.8983, -1.51028
3.772, 5, 0.108067, 23.9156, 45.9616, 0.0867335, -99.8633, -1.5421
3.776, 5, 0.118383, 23.8805, 45.9624, 0.110526, -99.8283, -1.57395
3.78, 5, 0.128699, 23.8456, 45.9632, 0.134314, -99.7933, -1.60583
3.784, 5, 0.139016, 23.8106, 45.9639, 0.158098, -99.7583, -1.63774
3.788, 5, 0.149332, 23.7757, 45.9646, 0.181878, -99.7233, -1.66967
3.792, 5, 0.159649, 23.7407, 45.9653, 0.205653, -99.6883, -1.70164
3.796, 5, 0.169966, 23.7058, 45.966, 0.229425, -99.6533, -1.73363
3.8, 5, 0.180283, 23.6709, 45.9666, 0.253192, -99.6183, -1.76565
3.804, 5, 0.1906, 23.6361, 45.9672, 0.276955, -99.5832, -1.79771
3.808, 5, 0.200917, 23.6012, 45.9678, 0.300714, -99.5482, -1.82979
3.812, 5, 0.211235, 23.5664, 45.9684, 0.324469, -99.5132, -1.8619
3.816, 5, 0.221552, 23.5316, 45.9689, 0.34822, -99.4782, -1.89404
3.82, 5, 0.23187, 23.4969, 45.9694, 0.371967, -99.4432, -1.9262
3.824, 5, 0.242188, 23.4621, 45.9698, 0.39571, -99.4082, -1.9584
3.828, 5, 0.252506, 23.4274, 45.9702, 0.419449, -99.3732, -1.99063
3.832, 5, 0.262824, 23.3927, 45.9706, 0.443183, -99.3382, -2.02288
3.836, 5, 0.273143, 23.358, 45.971, 0.466914, -99.3032, -2.05517
3.84, 5, 0.283461, 23.3233, 45.9713, 0.490641, -99.2682, -2.08748
3.844, 5, 0.293779, 23.2886, 45.9716, 0.514364, -99.2332, -2.11982
3.848, 5, 0.304098, 23.254, 45.9719, 0.538082, -99.1982, -2.15219
3.852, 5, 0.314417, 23.2194, 45.9722, 0.561797, -99.1633, -2.1846
3.856, 5, 0.324735, 23.1848, 45.9724, 0.585508, -99.1283, -2.21702
3.86, 5, 0.335054, 23.1503, 45.9726, 0.609215, -99.0933, -2.24948
3.864, 5, 0.345373, 23.1157, 45.9727, 0.632919, -99.0583, -2.28197
3.868, 5, 0.355692, 23.0812, 45.9728, 0.656618, -99.0233, -2.31449
3.872, 5, 0.366011, 23.0467, 45.9729, 0.680313, -98.9883, -2.34703
3.876, 5, 0.37633, 23.0122, 45.973, 0.704005, -98.9533, -2.37961
3.88, 5, 0.386649, 22.9778, 45.973, 0.727693, -98.9184, -2.41221
3.884, 5, 0.396968, 22.9433, 45.973, 0.751377, -98.8834, -2.44484
3.888, 5, 0.407287, 22.9089, 45.973, 0.775057, -98.8484, -2.4775
3.892, 5, 0.417607, 22.8745, 45.973, 0.798733, -98.8134, -2.51019
3.896, 5, 0.427926, 22.8402, 45.9729, 0.822405, -98.7784, -2.54291
3.9, 5, 0.438245, 22.8058, 45.9728, 0.846074, -98.7435, -2.57566
3.904, 5, 0.448564, 22.7715, 45.9726, 0.869739, -98.7085, -2.60844
3.908, 5, 0.458884, 22.7372, 45.9725, 0.893401, -98.6735, -2.64124
3.912, 5, 0.469203, 22.7029, 45.9723, 0.917058, -98.6386, -2.67408
3.916, 5, 0.479522, 22.6687, 45.972, 0.940712, -98.6036, -2.70694
3.92, 5, 0.489841, 22.6344, 45.9718, 0.964362, -98.5687, -2.73983
3.924, 5, 0.50016, 22.6002, 45.9715, 0.988009, -98.5337, -2.77276
3.928, 5, 0.510479, 22.566, 45.9712, 1.01165, -98.4987, -2.80571
3.932, 5, 0.520798, 22.5319, 45.9708, 1.03529, -98.4638, -2.83869
3.936, 5, 0.531117, 22.4977, 45.9704, 1.05893, -98.4288, -2.87169
3.94, 5, 0.541436, 22.4636, 45.97, 1.08256, -98.3939, -2.90473
3.944, 5, 0.551755, 22.4295, 45.9696, 1.10619, -98.359, -2.9378
3.948, 5, 0.562074, 22.3954, 45.9691, 1.12981, -98.324, -2.97089
3.952, 5, 0.572393, 22.3613, 45.9686, 1.15343, -98.2891, -3.00402
3.956, 5, 0.582712, 22.3273, 45.9681, 1.17705, -98.2541, -3.03717
3.96, 5, 0.59303, 22.2933, 45.9675, 1.20067, -98.2192, -3.07035
3.964, 5, 0.603349, 22.2593, 45.9669, 1.22428, -98.1843, -3.10356
3.968, 5, 0.613667, 22.2253, 45.9663, 1.24788, -98.1494, -3.1368
3.972, 5, 0.623986, 22.1914, 45.9657, 1.27149, -98.1144, -3.17007
3.976, 5, 0.634304, 22.1574, 45.965, 1.29509, -98.0795, -3.20337
3.98, 5, 0.644622, 22.1235, 45.9643, 1.31868, -98.0446, -3.23669
3.984, 5, 0.65494, 22.0897, 45.9636, 1.34228, -98.0097, -3.27005
3.988, 5, 0.665258, 22.0558, 45.9628, 1.36587, -97.9748, -3.30343
3.992, 5, 0.675575, 22.022, 45.962, 1.38945, -97.9399, -3.33685
3.996, 5, 0.685893, 21.9882, 45.9612, 1.41304, -97.905, -3.37029
3.999, 5, 0.69621, 21.9544, 45.9603, 1.43662, -97.8701, -3.40376
4.004, 5, 0.706528, 21.9206, 45.9594, 1.46019, -97.8352, -3.43726
4.008, 5, 0.716845, 21.8869, 45.9585, 1.48377, -97.8003, -3.47079
4.012, 5, 0.727162, 21.8531, 45.9576, 1.50734, -97.7654, -3.50434
4.016, 5, 0.737479, 21.8194, 45.9566, 1.5309, -97.7305, -3.53793
4.02, 5, 0.747795, 21.7858, 45.9556, 1.55446, -97.6956, -3.57154
4.024, 5, 0.758112, 21.7521, 45.9546, 1.57802, -97.6608, -3.60519
4.028, 5, 0.768428, 21.7185, 45.9535, 1.60158, -97.6259, -3.63886
4.032, 5, 0.778744, 21.6849, 45.9524, 1.62513, -97.591, -3.67256
4.036, 5, 0.78906, 21.6513, 45.9513, 1.64868, -97.5562, -3.70629
4.04, 5, 0.799375, 21.6177, 45.9501, 1.67223, -97.5213, -3.74005
4.044, 5, 0.809691, 21.5842, 45.949, 1.69577, -97.4865, -3.77384
4.048, 5, 0.820006, 21.5507, 45.9478, 1.71931, -97.4516, -3.80765
4.052, 5, 0.830321, 21.5172, 45.9465, 1.74285, -97.4168, -3.8415
4.056, 5, 0.840635, 21.4837, 45.9453, 1.76639, -97.3819, -3.87537
4.06, 5, 0.85095, 21.4503, 45.944, 1.78992, -97.3471, -3.90927
4.064, 5, 0.861264, 21.4168, 45.9426, 1.81344, -97.3123, -3.94321
4.068, 5, 0.871578, 21.3834, 45.9413, 1.83697, -97.2774, -3.97717
4.072, 5, 0.881892, 21.3501, 45.9399, 1.86049, -97.2426, -4.01115
4.076, 5, 0.892205, 21.3167, 45.9385, 1.88401, -97.2078, -4.04517
4.08, 5, 0.902518, 21.2834, 45.937, 1.90752, -97.173, -4.07922
4.084, 5, 0.912831, 21.2501, 45.9356, 1.93104, -97.1382, -4.11329
4.088, 5, 0.923144, 21.2168, 45.9341, 1.95455, -97.1034, -4.1474
4.092, 5, 0.933456, 21.1835, 45.9325, 1.97805, -97.0686, -4.18153
4.096, 5, 0.943768, 21.1503, 45.931, 2.00155, -97.0338, -4.21569
4.1, 5, 0.954079, 21.1171, 45.9294, 2.02505, -96.999, -4.24988
4.104, 5, 0.964391, 21.0839, 45.9277, 2.04855, -96.9642, -4.2841
4.108, 5, 0.974702, 21.0507, 45.9261, 2.07205, -96.9294, -4.31835
4.112, 5, 0.985012, 21.0176, 45.9244, 2.09554, -96.8947, -4.35262
4.116, 5, 0.995323, 20.9845, 45.9227, 2.11903, -96.8599, -4.38693
4.12, 5, 1.00563, 20.9514, 45.921, 2.14251, -96.8251, -4.42126
4.124, 5, 1.01594, 20.9183, 45.9192, 2.16599, -96.7904, -4.45563
4.128, 5, 1.02625, 20.8853, 45.9174, 2.18947, -96.7556, -4.49002
4.132, 5, 1.03656, 20.8522, 45.9156, 2.21295, -96.7209, -4.52444
4.136, 5, 1.04687, 20.8192, 45.9137, 2.23642, -96.6862, -4.55888
4.14, 5, 1.05718, 20.7863, 45.9118, 2.25989, -96.6514, -4.59336
4.144, 5, 1.06749, 20.7533, 45.9099, 2.28336, -96.6167, -4.62787
4.148, 5, 1.07779, 20.7204, 45.908, 2.30683, -96.582, -4.6624
4.152, 5, 1.0881, 20.6875, 45.906, 2.33029, -96.5473, -4.69697
4.156, 5, 1.09841, 20.6546, 45.904, 2.35375, -96.5126, -4.73156
4.16, 5, 1.10871, 20.6217, 45.902, 2.37721, -96.4779, -4.76618
4.164, 5, 1.11902, 20.5889, 45.8999, 2.40066, -96.4432, -4.80083
4.168, 5, 1.12932, 20.5561, 45.8978, 2.42411, -96.4085, -4.8355
4.172, 5, 1.13963, 20.5233, 45.8957, 2.44756, -96.3738, -4.87021
4.176, 5, 1.14993, 20.4906, 45.8936, 2.47101, -96.3391, -4.90494
4.18, 5, 1.16024, 20.4578, 45.8914, 2.49445, -96.3044, -4.93971
4.184, 5, 1.17054, 20.4251, 45.8892, 2.51789, -96.2698, -4.9745
4.188, 5, 1.18085, 20.3924, 45.887, 2.54133, -96.2351, -5.00932
4.192, 5, 1.19115, 20.3598, 45.8847, 2.56476, -96.2005, -5.04417
4.196, 5, 1.20145, 20.3271, 45.8824, 2.5882, -96.1658, -5.07905
4.2, 5, 1.21175, 20.2945, 45.8801, 2.61163, -96.1312, -5.11395
4.204, 5, 1.22205, 20.2619, 45.8777, 2.63505, -96.0965, -5.14889
4.208, 5, 1.23235, 20.2294, 45.8754, 2.65848, -96.0619, -5.18385
4.212, 5, 1.24266, 20.1968, 45.8729, 2.6819, -96.0273, -5.21885
4.216, 5, 1.25296, 20.1643, 45.8705, 2.70532, -95.9927, -5.25387
4.22, 5, 1.26325, 20.1318, 45.868, 2.72874, -95.9581, -5.28892
4.224, 5, 1.27355, 20.0993, 45.8655, 2.75215, -95.9235, -5.32399
4.228, 5, 1.28385, 20.0669, 45.863, 2.77556, -95.8889, -5.3591
4.232, 5, 1.29415, 20.0345, 45.8605, 2.79897, -95.8543, -5.39423
4.236, 5, 1.30445, 20.0021, 45.8579, 2.82238, -95.8197, -5.4294
4.24, 5, 1.31474, 19.9697, 45.8553, 2.84579, -95.7852, -5.46459
4.244, 5, 1.32504, 19.9374, 45.8526, 2.86919, -95.7506, -5.49981
4.248, 5, 1.33534, 19.905, 45.85, 2.89259, -95.7161, -5.53506
4.252, 5, 1.34563, 19.8727, 45.8473, 2.91599, -95.6815, -5.57034
4.256, 5, 1.35593, 19.8405, 45.8445, 2.93938, -95.647, -5.60564
4.26, 5, 1.36622, 19.8082, 45.8418, 2.96277, -95.6124, -5.64098
4.264, 5, 1.37651, 19.776, 45.839, 2.98616, -95.5779, -5.67634
4.268, 5, 1.38681, 19.7438, 45.8362, 3.00955, -95.5434, -5.71173
4.272, 5, 1.3971, 19.7116, 45.8333, 3.03294, -95.5089, -5.74715
4.276, 5, 1.40739, 19.6795, 45.8304, 3.05632, -95.4744, -5.7826
4.28, 5, 1.41768, 19.6474, 45.8275, 3.0797, -95.4399, -5.81808
4.284, 5, 1.42797, 19.6153, 45.8246, 3.10308, -95.4054, -5.85358
4.288, 5, 1.43826, 19.5832, 45.8217, 3.12646, -95.3709, -5.88912
4.292, 5, 1.44855, 19.5512, 45.8187, 3.14983, -95.3365, -5.92468
4.296, 5, 1.45884, 19.5191, 45.8157, 3.1732, -95.302, -5.96027
4.3, 5, 1.46913, 19.4871, 45.8126, 3.19657, -95.2675, -5.99589
4.304, 5, 1.47942, 19.4552, 45.8095, 3.21994, -95.2331, -6.03154
4.308, 5, 1.48971, 19.4232, 45.8064, 3.2433, -95.1987, -6.06721
4.312, 5, 1.49999, 19.3913, 45.8033, 3.26667, -95.1642, -6.10292
4.316, 5, 1.51028, 19.3594, 45.8001, 3.29003, -95.1298, -6.13865
4.32, 5, 1.52056, 19.3275, 45.7969, 3.31339, -95.0954, -6.17441
4.324, 5, 1.53085, 19.2957, 45.7937, 3.33674, -95.061, -6.2102
4.328, 5, 1.54113, 19.2639, 45.7905, 3.3601, -95.0266, -6.24602
4.332, 5, 1.55141, 19.2321, 45.7872, 3.38345, -94.9922, -6.28187
4.336, 5, 1.5617, 19.2003, 45.7839, 3.4068, -94.9578, -6.31774
4.34, 5, 1.57198, 19.1686, 45.7806, 3.43015, -94.9235, -6.35365
4.344, 5, 1.58229, 19.1369, 45.7772, 3.45349, -94.8891, -6.38958
4.348, 5, 1.59266, 19.1052, 45.7738, 3.47684, -94.8548, -6.42554
4.352, 5, 1.60312, 19.0735, 45.7704, 3.5002, -94.8204, -6.46153
4.356, 5, 1.61372, 19.0418, 45.767, 3.52359, -94.7861, -6.49757
4.36, 5, 1.62449, 19.0102, 45.7635, 3.54703, -94.7518, -6.53365
4.364, 5, 1.63546, 18.9786, 45.76, 3.57057, -94.7174, -6.56979
4.368, 5, 1.64662, 18.947, 45.7565, 3.59426, -94.6831, -6.60601
4.372, 5, 1.65796, 18.9155, 45.753, 3.61819, -94.6488, -6.64233
4.376, 5, 1.66947, 18.884, 45.7494, 3.64242, -94.6145, -6.67879
4.38, 5, 1.68114, 18.8525, 45.7458, 3.66707, -94.5801, -6.71541
4.384, 5, 1.69299, 18.821, 45.7421, 3.69223, -94.5458, -6.75223
4.388, 5, 1.70503, 18.7895, 45.7384, 3.718, -94.5114, -6.78929
4.392, 5, 1.7173, 18.7581, 45.7346, 3.74451, -94.477, -6.82662
4.396, 5, 1.72983, 18.7268, 45.7307, 3.77184, -94.4426, -6.86425
4.4, 5, 1.74266, 18.6954, 45.7268, 3.80013, -94.4082, -6.90224
4.404, 5, 1.75579, 18.6641, 45.7228, 3.82945, -94.3737, -6.9406
4.408, 5, 1.76927, 18.6329, 45.7187, 3.85991, -94.3392, -6.97938
4.412, 5, 1.78311, 18.6017, 45.7145, 3.89158, -94.3047, -7.01859
4.416, 5, 1.79736, 18.5705, 45.7102, 3.92454, -94.2701, -7.05827
4.42, 5, 1.81204, 18.5394, 45.7058, 3.95883, -94.2355, -7.09844
4.424, 5, 1.82721, 18.5083, 45.7012, 3.9945, -94.2009, -7.13911
4.428, 5, 1.84289, 18.4773, 45.6966, 4.03159, -94.1662, -7.1803
4.432, 5, 1.85911, 18.4464, 45.6918, 4.07013, -94.1315, -7.22202
4.436, 5, 1.8759, 18.4155, 45.687, 4.11015, -94.0968, -7.26428
4.44, 5, 1.89325, 18.3846, 45.682, 4.15168, -94.062, -7.30709
4.444, 6, 1.91119, 18.3539, 45.6768, 4.19474, -94.0273, -7.35047
4.448, 6, 1.92973, 18.3232, 45.6716, 4.23937, -93.9925, -7.39443
4.452, 6, 1.94886, 18.2926, 45.6661, 4.28559, -93.9576, -7.43898
4.456, 6, 1.96862, 18.262, 45.6606, 4.33341, -93.9228, -7.48413
4.46, 6, 1.98899, 18.2316, 45.6549, 4.38287, -93.8879, -7.52988
4.464, 6, 2.00998, 18.2012, 45.649, 4.43399, -93.853, -7.57626
4.468, 6, 2.0316, 18.1709, 45.643, 4.48677, -93.8181, -7.62325
4.472, 6, 2.05385, 18.1407, 45.6369, 4.54124, -93.7831, -7.67089
4.476, 6, 2.07673, 18.1106, 45.6306, 4.5974, -93.7482, -7.71916
4.48, 6, 2.10024, 18.0805, 45.6241, 4.65526, -93.7133, -7.76807
4.484, 6, 2.12437, 18.0506, 45.6174, 4.71481, -93.6783, -7.81763
4.488, 6, 2.14912, 18.0208, 45.6106, 4.77606, -93.6433, -7.86784
4.492, 6, 2.17449, 17.9911, 45.6036, 4.83898, -93.6084, -7.91869
4.496, 6, 2.20047, 17.9614, 45.5964, 4.90357, -93.5734, -7.97018
4.5, 6, 2.22705, 17.9319, 45.5891, 4.9698, -93.5384, -8.02232
4.504, 6, 2.25423, 17.9025, 45.5815, 5.03763, -93.5035, -8.07509
4.508, 6, 2.28201, 17.8732, 45.5738, 5.10705, -93.4686, -8.12848
4.512, 6, 2.31036, 17.8439, 45.566, 5.17801, -93.4336, -8.18249
4.516, 6, 2.33927, 17.8148, 45.5579, 5.25048, -93.3987, -8.23712
4.52, 6, 2.36871, 17.7858, 45.5497, 5.32442, -93.3638, -8.29234
4.524, 6, 2.39863, 17.7569, 45.5413, 5.39979, -93.329, -8.34815
4.528, 6, 2.429, 17.7281, 45.5327, 5.47653, -93.2942, -8.40453
4.532, 6, 2.45978, 17.6994, 45.5239, 5.55458, -93.2594, -8.46146
4.536, 6, 2.49095, 17.6709, 45.515, 5.63385, -93.2246, -8.51892
4.54, 6, 2.52249, 17.6424, 45.5059, 5.71427, -93.1899, -8.57688
4.544, 6, 2.55435, 17.614, 45.4966, 5.79574, -93.1552, -8.63531
4.548, 6, 2.58652, 17.5857, 45.4872, 5.87815, -93.1206, -8.69418
4.552, 6, 2.61893, 17.5575, 45.4776, 5.96141, -93.086, -8.75345
4.556, 6, 2.65155, 17.5295, 45.4679, 6.0454, -93.0515, -8.81308
4.56, 6, 2.68435, 17.5015, 45.4581, 6.13004, -93.017, -8.87304
4.564, 6, 2.71733, 17.4736, 45.4481, 6.2152, -92.9826, -8.93329
4.568, 6, 2.75049, 17.4458, 45.438, 6.30079, -92.9483, -8.9938
4.572, 6, 2.78384, 17.4181, 45.4278, 6.38671, -92.914, -9.05454
4.576, 6, 2.8174, 17.3905, 45.4174, 6.47288, -92.8798, -9.11548
4.58, 6, 2.85117, 17.363, 45.407, 6.55923, -92.8457, -9.17658
4.584, 6, 2.88512, 17.3355, 45.3965, 6.6457, -92.8116, -9.23784
4.588, 6, 2.91922, 17.3082, 45.3859, 6.73225, -92.7777, -9.29924
4.592, 6, 2.95343, 17.281, 45.3751, 6.81885, -92.7438, -9.36077
4.596, 6, 2.98771, 17.2538, 45.3643, 6.90548, -92.7099, -9.42241
4.6, 6, 3.02203, 17.2267, 45.3534, 6.99212, -92.6762, -9.48417
4.604, 6, 3.05638, 17.1997, 45.3423, 7.07877, -92.6425, -9.54604
4.608, 6, 3.09075, 17.1728, 45.3312, 7.16541, -92.609, -9.60802
4.612, 6, 3.12511, 17.146, 45.3199, 7.25205, -92.5755, -9.67011
4.616, 6, 3.15948, 17.1193, 45.3086, 7.33868, -92.5421, -9.7323
4.62, 6, 3.19385, 17.0926, 45.2972, 7.42529, -92.5087, -9.7946
4.624, 6, 3.2282, 17.0661, 45.2856, 7.51189, -92.4755, -9.857
4.628, 6, 3.26255, 17.0396, 45.274, 7.59848, -92.4423, -9.9195
4.632, 6, 3.29688, 17.0133, 45.2622, 7.68505, -92.4092, -9.98211
4.636, 6, 3.33121, 16.987, 45.2504, 7.7716, -92.3762, -10.0448
4.64, 6, 3.36552, 16.9608, 45.2385, 7.85814, -92.3433, -10.1076
4.644, 6, 3.39982, 16.9347, 45.2264, 7.94466, -92.3105, -10.1706
4.648, 6, 3.4341, 16.9086, 45.2143, 8.03116, -92.2777, -10.2336
4.652, 6, 3.46838, 16.8827, 45.202, 8.11765, -92.2451, -10.2967
4.656, 6, 3.50263, 16.8569, 45.1897, 8.20411, -92.2125, -10.3599
4.66, 6, 3.53688, 16.8311, 45.1772, 8.29056, -92.18, -10.4232
4.664, 6, 3.57111, 16.8054, 45.1647, 8.377, -92.1476, -10.4867
4.668, 6, 3.60533, 16.7798, 45.152, 8.46341, -92.1152, -10.5502
4.672, 6, 3.63953, 16.7544, 45.1393, 8.5498, -92.083, -10.6138
4.676, 6, 3.67372, 16.7289, 45.1264, 8.63618, -92.0509, -10.6775
4.68, 6, 3.70789, 16.7036, 45.1135, 8.72254, -92.0188, -10.7413
4.684, 6, 3.74205, 16.6784, 45.1004, 8.80887, -91.9868, -10.8053
4.688, 6, 3.77619, 16.6533, 45.0873, 8.89519, -91.9549, -10.8693
4.692, 6, 3.81032, 16.6282, 45.074, 8.98149, -91.9231, -10.9334
4.696, 6, 3.84443, 16.6033, 45.0607, 9.06777, -91.8914, -10.9976
4.7, 6, 3.87853, 16.5784, 45.0472, 9.15403, -91.8598, -11.0619
4.704, 6, 3.91261, 16.5536, 45.0337, 9.24027, -91.8282, -11.1264
4.708, 6, 3.94667, 16.5289, 45.02, 9.32649, -91.7968, -11.1909
4.712, 6, 3.98072, 16.5043, 45.0063, 9.41269, -91.7654, -11.2555
4.716, 6, 4.01476, 16.4798, 44.9925, 9.49887, -91.7341, -11.3202
4.72, 6, 4.04878, 16.4554, 44.9785, 9.58503, -91.7029, -11.385
4.724, 6, 4.08278, 16.431, 44.9645, 9.67116, -91.6719, -11.4499
4.728, 6, 4.11676, 16.4068, 44.9503, 9.75728, -91.6409, -11.5149
4.732, 6, 4.15073, 16.3826, 44.9361, 9.84338, -91.6099, -11.58
4.736, 6, 4.18468, 16.3585, 44.9217, 9.92945, -91.5791, -11.6452
4.74, 6, 4.21862, 16.3346, 44.9073, 10.0155, -91.5484, -11.7105
4.744, 6, 4.25254, 16.3107, 44.8927, 10.1015, -91.5177, -11.7759
4.748, 6, 4.28644, 16.2869, 44.8781, 10.1875, -91.4872, -11.8413
4.752, 6, 4.32033, 16.2631, 44.8634, 10.2735, -91.4567, -11.9069
4.756, 6, 4.35419, 16.2395, 44.8485, 10.3595, -91.4264, -11.9726
4.76, 6, 4.38805, 16.216, 44.8336, 10.4454, -91.3961, -12.0383
4.764, 6, 4.42188, 16.1925, 44.8186, 10.5314, -91.3659, -12.1042
4.768, 6, 4.45569, 16.1692, 44.8034, 10.6173, -91.3358, -12.1702
4.772, 6, 4.48949, 16.1459, 44.7882, 10.7031, -91.3058, -12.2362
4.776, 6, 4.52327, 16.1228, 44.7729, 10.789, -91.2759, -12.3023
4.78, 6, 4.55703, 16.0997, 44.7574, 10.8748, -91.2461, -12.3686
4.784, 6, 4.59078, 16.0767, 44.7419, 10.9606, -91.2164, -12.4349
4.788, 6, 4.6245, 16.0538, 44.7263, 11.0464, -91.1868, -12.5013
4.792, 6, 4.65821, 16.031, 44.7105, 11.1322, -91.1572, -12.5678
4.796, 6, 4.6919, 16.0082, 44.6947, 11.2179, -91.1278, -12.6344
4.8, 6, 4.72557, 15.9856, 44.6788, 11.3036, -91.0985, -12.7011
4.804, 6, 4.75922, 15.9631, 44.6628, 11.3893, -91.0693, -12.7679
4.808, 6, 4.79285, 15.9406, 44.6467, 11.475, -91.0401, -12.8348
4.812, 6, 4.82646, 15.9182, 44.6305, 11.5606, -91.0111, -12.9018
4.816, 6, 4.86006, 15.896, 44.6141, 11.6463, -90.9821, -12.9688
4.82, 6, 4.89363, 15.8738, 44.5977, 11.7319, -90.9533, -13.036
4.824, 6, 4.92718, 15.8517, 44.5812, 11.8174, -90.9245, -13.1032
4.828, 6, 4.96072, 15.8297, 44.5646, 11.903, -90.8958, -13.1705
4.832, 6, 4.99424, 15.8078, 44.5479, 11.9885, -90.8673, -13.238
4.836, 6, 5.02773, 15.786, 44.5311, 12.074, -90.8388, -13.3055
4.84, 6, 5.06121, 15.7642, 44.5142, 12.1594, -90.8104, -13.3731
4.844, 6, 5.09466, 15.7426, 44.4972, 12.2449, -90.7822, -13.4408
4.848, 6, 5.1281, 15.7211, 44.4801, 12.3303, -90.754, -13.5085
4.852, 6, 5.16151, 15.6996, 44.4629, 12.4157, -90.7259, -13.5764
4.856, 6, 5.19491, 15.6782, 44.4456, 12.5011, -90.698, -13.6444
4.86, 6, 5.22828, 15.657, 44.4283, 12.5864, -90.6701, -13.7124
4.864, 6, 5.26164, 15.6358, 44.4108, 12.6717, -90.6423, -13.7805
4.868, 6, 5.29497, 15.6147, 44.3932, 12.757, -90.6147, -13.8488
4.872, 6, 5.32828, 15.5937, 44.3755, 12.8423, -90.5871, -13.9171
4.876, 6, 5.36157, 15.5728, 44.3578, 12.9275, -90.5596, -13.9855
4.88, 6, 5.39484, 15.552, 44.3399, 13.0127, -90.5323, -14.0539
4.884, 6, 5.42809, 15.5312, 44.3219, 13.0979, -90.505, -14.1225
4.888, 6, 5.46131, 15.5106, 44.3039, 13.183, -90.4778, -14.1912
4.892, 6, 5.49452, 15.4901, 44.2857, 13.2681, -90.4508, -14.2599
4.896, 6, 5.5277, 15.4696, 44.2675, 13.3532, -90.4238, -14.3287
4.9, 6, 5.56086, 15.4493, 44.2491, 13.4383, -90.3969, -14.3976
4.904, 6, 5.594, 15.429, 44.2307, 13.5234, -90.3702, -14.4666
4.908, 6, 5.62711, 15.4088, 44.2121, 13.6084, -90.3435, -14.5357
4.912, 6, 5.66021, 15.3887, 44.1935, 13.6933, -90.317, -14.6049
4.916, 6, 5.69328, 15.3687, 44.1748, 13.7783, -90.2905, -14.6741
4.92, 6, 5.72633, 15.3488, 44.1559, 13.8632, -90.2642, -14.7434
4.924, 6, 5.75936, 15.329, 44.137, 13.9481, -90.238, -14.8129
4.928, 6, 5.79236, 15.3093, 44.118, 14.033, -90.2118, -14.8824
4.932, 6, 5.82534, 15.2897, 44.0989, 14.1178, -90.1858, -14.9519
4.936, 6, 5.8583, 15.2701, 44.0797, 14.2027, -90.1599, -15.0216
4.94, 6, 5.89123, 15.2507, 44.0604, 14.2874, -90.134, -15.0914
4.944, 6, 5.92414, 15.2314, 44.041, 14.3722, -90.1083, -15.1612
4.948, 6, 5.95703, 15.2121, 44.0215, 14.4569, -90.0827, -15.2311
4.952, 6, 5.98989, 15.1929, 44.0019, 14.5416, -90.0572, -15.3011
4.956, 6, 6.02273, 15.1739, 43.9822, 14.6263, -90.0318, -15.3712
4.96, 6, 6.05555, 15.1549, 43.9624, 14.7109, -90.0066, -15.4413
4.964, 6, 6.08834, 15.136, 43.9425, 14.7955, -89.9814, -15.5116
4.968, 6, 6.12111, 15.1172, 43.9226, 14.8801, -89.9563, -15.5819
4.972, 6, 6.15385, 15.0985, 43.9025, 14.9646, -89.9313, -15.6523
4.976, 6, 6.18657, 15.0799, 43.8823, 15.0491, -89.9065, -15.7228
4.98, 6, 6.21927, 15.0614, 43.8621, 15.1336, -89.8817, -15.7933
4.984, 6, 6.25194, 15.0429, 43.8417, 15.2181, -89.8571, -15.864
4.988, 6, 6.28458, 15.0246, 43.8213, 15.3025, -89.8326, -15.9347
4.992, 6, 6.3172, 15.0064, 43.8007, 15.3869, -89.8081, -16.0055
4.996, 6, 6.3498, 14.9882, 43.7801, 15.4712, -89.7838, -16.0764
5, 6, 6.38237, 14.9702, 43.7594, 15.5555, -89.7596, -16.1473
5.004, 6, 6.41492, 14.9522, 43.7386, 15.6398, -89.7355, -16.2184
5.008, 6, 6.44744, 14.9343, 43.7176, 15.7241, -89.7115, -16.2895
5.012, 6, 6.47993, 14.9165, 43.6966, 15.8083, -89.6877, -16.3607
5.016, 6, 6.5124, 14.8989, 43.6755, 15.8925, -89.6639, -16.432
5.02, 6, 6.54484, 14.8813, 43.6543, 15.9767, -89.6402, -16.5033
5.024, 6, 6.57726, 14.8638, 43.633, 16.0608, -89.6167, -16.5747
5.028, 6, 6.60965, 14.8464, 43.6117, 16.1449, -89.5933, -16.6462
5.032, 6, 6.64202, 14.8291, 43.5902, 16.229, -89.5699, -16.7178
5.036, 6, 6.67435, 14.8118, 43.5686, 16.313, -89.5467, -16.7895
5.04, 6, 6.70667, 14.7947, 43.547, 16.397, -89.5236, -16.8612
5.044, 6, 6.73895, 14.7777, 43.5252, 16.481, -89.5007, -16.933
5.048, 6, 6.77121, 14.7607, 43.5033, 16.5649, -89.4778, -17.0049
5.052, 6, 6.80344, 14.7439, 43.4814, 16.6488, -89.455, -17.0768
5.056, 6, 6.83565, 14.7271, 43.4594, 16.7327, -89.4324, -17.1489
5.06, 6, 6.86783, 14.7105, 43.4372, 16.8165, -89.4099, -17.221
5.064, 6, 6.89998, 14.6939, 43.415, 16.9003, -89.3874, -17.2931
5.068, 6, 6.93211, 14.6774, 43.3927, 16.984, -89.3651, -17.3654
5.072, 6, 6.9642, 14.661, 43.3703, 17.0678, -89.3429, -17.4377
5.076, 6, 6.99627, 14.6448, 43.3478, 17.1514, -89.3209, -17.5101
5.08, 6, 7.02832, 14.6286, 43.3252, 17.2351, -89.2989, -17.5826
5.084, 6, 7.06033, 14.6124, 43.3025, 17.3187, -89.2771, -17.6551
5.088, 6, 7.09232, 14.5964, 43.2797, 17.4023, -89.2553, -17.7277
5.092, 6, 7.12428, 14.5805, 43.2569, 17.4858, -89.2337, -17.8004
5.096, 6, 7.15621, 14.5647, 43.2339, 17.5694, -89.2122, -17.8732
5.1, 6, 7.18812, 14.549, 43.2109, 17.6528, -89.1908, -17.946
5.104, 6, 7.21999, 14.5333, 43.1877, 17.7363, -89.1695, -18.0189
5.108, 6, 7.25184, 14.5178, 43.1645, 17.8197, -89.1484, -18.0919
5.112, 6, 7.28366, 14.5023, 43.1412, 17.903, -89.1273, -18.1649
5.116, 6, 7.31545, 14.487, 43.1177, 17.9863, -89.1064, -18.238
5.12, 6, 7.34721, 14.4717, 43.0942, 18.0696, -89.0855, -18.3112
5.124, 6, 7.37895, 14.4565, 43.0706, 18.1529, -89.0648, -18.3844
5.128, 6, 7.41065, 14.4414, 43.0469, 18.2361, -89.0442, -18.4577
5.132, 6, 7.44233, 14.4264, 43.0232, 18.3193, -89.0238, -18.5311
5.136, 6, 7.47398, 14.4115, 42.9993, 18.4024, -89.0034, -18.6046
5.14, 6, 7.50559, 14.3967, 42.9753, 18.4855, -88.9831, -18.6781
5.144, 6, 7.53718, 14.382, 42.9513, 18.5685, -88.963, -18.7517
5.148, 6, 7.56874, 14.3674, 42.9271, 18.6515, -88.943, -18.8253
5.152, 6, 7.60028, 14.3528, 42.9029, 18.7345, -88.9231, -18.899
5.156, 6, 7.63178, 14.3384, 42.8785, 18.8174, -88.9033, -18.9728
5.16, 6, 7.66325, 14.3241, 42.8541, 18.9003, -88.8836, -19.0466
5.164, 6, 7.69469, 14.3098, 42.8296, 18.9832, -88.8641, -19.1206
5.168, 6, 7.72611, 14.2956, 42.805, 19.066, -88.8446, -19.1945
5.172, 6, 7.75749, 14.2816, 42.7803, 19.1488, -88.8253, -19.2686
5.176, 6, 7.78885, 14.2676, 42.7556, 19.2315, -88.8061, -19.3427
5.18, 6, 7.82017, 14.2537, 42.7307, 19.3142, -88.787, -19.4168
5.184, 6, 7.85146, 14.2399, 42.7057, 19.3969, -88.768, -19.4911
5.188, 6, 7.88273, 14.2262, 42.6807, 19.4795, -88.7492, -19.5654
5.192, 6, 7.91396, 14.2126, 42.6555, 19.562, -88.7304, -19.6397
5.196, 6, 7.94516, 14.1991, 42.6303, 19.6446, -88.7118, -19.7141
5.2, 6, 7.97634, 14.1857, 42.605, 19.727, -88.6933, -19.7886
5.204, 6, 8.00748, 14.1723, 42.5796, 19.8095, -88.6749, -19.8632
5.208, 6, 8.03859, 14.1591, 42.5541, 19.8919, -88.6566, -19.9378
5.212, 6, 8.06967, 14.1459, 42.5285, 19.9742, -88.6385, -20.0124
5.216, 6, 8.10072, 14.1329, 42.5028, 20.0565, -88.6204, -20.0872
5.22, 6, 8.13174, 14.1199, 42.4771, 20.1388, -88.6025, -20.1619
5.224, 6, 8.16273, 14.107, 42.4512, 20.221, -88.5847, -20.2368
5.228, 6, 8.19368, 14.0943, 42.4253, 20.3032, -88.567, -20.3117
5.232, 6, 8.22461, 14.0816, 42.3992, 20.3854, -88.5494, -20.3867
5.236, 6, 8.2555, 14.069, 42.3731, 20.4674, -88.532, -20.4617
5.24, 6, 8.28636, 14.0565, 42.3469, 20.5495, -88.5146, -20.5368
5.244, 6, 8.3172, 14.0441, 42.3206, 20.6315, -88.4974, -20.6119
5.248, 6, 8.34799, 14.0317, 42.2942, 20.7135, -88.4803, -20.6871
5.252, 6, 8.37876, 14.0195, 42.2677, 20.7954, -88.4634, -20.7624
5.256, 6, 8.4095, 14.0074, 42.2412, 20.8772, -88.4465, -20.8377
5.26, 6, 8.4402, 13.9953, 42.2145, 20.9591, -88.4297, -20.9131
5.264, 6, 8.47088, 13.9834, 42.1878, 21.0409, -88.4131, -20.9885
5.268, 6, 8.50152, 13.9715, 42.161, 21.1226, -88.3966, -21.064
5.272, 6, 8.53212, 13.9597, 42.1341, 21.2043, -88.3802, -21.1396
5.276, 6, 8.5627, 13.948, 42.107, 21.2859, -88.364, -21.2152
5.28, 6, 8.59324, 13.9365, 42.08, 21.3675, -88.3478, -21.2908
5.284, 6, 8.62375, 13.925, 42.0528, 21.4491, -88.3318, -21.3665
5.288, 6, 8.65423, 13.9135, 42.0255, 21.5306, -88.3159, -21.4423
5.292, 6, 8.68468, 13.9022, 41.9982, 21.612, -88.3001, -21.5181
5.296, 6, 8.71509, 13.891, 41.9707, 21.6934, -88.2844, -21.594
5.3, 6, 8.74547, 13.8799, 41.9432, 21.7748, -88.2688, -21.6699
5.304, 6, 8.77581, 13.8688, 41.9156, 21.8561, -88.2534, -21.7459
5.308, 6, 8.80613, 13.8579, 41.8879, 21.9374, -88.2381, -21.8219
5.312, 6, 8.83641, 13.847, 41.8601, 22.0186, -88.2229, -21.898
5.316, 6, 8.86665, 13.8363, 41.8322, 22.0997, -88.2078, -21.9742
5.32, 6, 8.89687, 13.8256, 41.8043, 22.1809, -88.1929, -22.0504
5.324, 6, 8.92705, 13.815, 41.7762, 22.2619, -88.178, -22.1266
5.328, 6, 8.9572, 13.8045, 41.7481, 22.343, -88.1633, -22.2029
5.332, 6, 8.98731, 13.7941, 41.7199, 22.4239, -88.1487, -22.2793
5.336, 6, 9.01739, 13.7838, 41.6916, 22.5049, -88.1342, -22.3557
5.34, 6, 9.04743, 13.7735, 41.6632, 22.5857, -88.1199, -22.4321
5.344, 6, 9.07745, 13.7634, 41.6347, 22.6665, -88.1057, -22.5086
5.348, 6, 9.10742, 13.7534, 41.6061, 22.7473, -88.0915, -22.5852
5.352, 6, 9.13737, 13.7434, 41.5775, 22.828, -88.0775, -22.6618
5.356, 6, 9.16728, 13.7336, 41.5488, 22.9087, -88.0637, -22.7384
5.36, 6, 9.19715, 13.7238, 41.5199, 22.9893, -88.0499, -22.8151
5.364, 6, 9.22699, 13.7141, 41.491, 23.0699, -88.0363, -22.8919
5.368, 6, 9.2568, 13.7045, 41.462, 23.1504, -88.0228, -22.9687
5.372, 6, 9.28657, 13.695, 41.433, 23.2309, -88.0094, -23.0455
5.376, 6, 9.31631, 13.6856, 41.4038, 23.3113, -87.9961, -23.1224
5.38, 6, 9.34601, 13.6763, 41.3746, 23.3917, -87.983, -23.1993
5.384, 6, 9.37568, 13.6671, 41.3452, 23.472, -87.9699, -23.2763
5.388, 6, 9.40531, 13.6579, 41.3158, 23.5523, -87.957, -23.3534
5.392, 6, 9.43491, 13.6489, 41.2863, 23.6325, -87.9443, -23.4304
5.396, 6, 9.46448, 13.6399, 41.2567, 23.7126, -87.9316, -23.5076
5.4, 6, 9.49401, 13.6311, 41.2271, 23.7927, -87.919, -23.5847
5.404, 6, 9.5235, 13.6223, 41.1973, 23.8728, -87.9066, -23.6619
5.408, 6, 9.55296, 13.6136, 41.1675, 23.9528, -87.8943, -23.7392
5.412, 6, 9.58238, 13.605, 41.1375, 24.0327, -87.8821, -23.8165
5.416, 6, 9.61177, 13.5965, 41.1075, 24.1126, -87.8701, -23.8939
5.42, 6, 9.64112, 13.5881, 41.0774, 24.1925, -87.8581, -23.9713
5.424, 6, 9.67044, 13.5798, 41.0473, 24.2722, -87.8463, -24.0487
5.428, 6, 9.69972, 13.5715, 41.017, 24.352, -87.8346, -24.1262
5.432, 6, 9.72896, 13.5634, 40.9867, 24.4317, -87.823, -24.2037
5.436, 6, 9.75817, 13.5553, 40.9562, 24.5113, -87.8116, -24.2813
5.44, 6, 9.78735, 13.5473, 40.9257, 24.5908, -87.8002, -24.3589
5.444, 6, 9.81649, 13.5395, 40.8951, 24.6703, -87.789, -24.4365
5.448, 6, 9.84559, 13.5317, 40.8644, 24.7498, -87.7779, -24.5142
5.452, 6, 9.87466, 13.524, 40.8337, 24.8292, -87.7669, -24.592
5.456, 6, 9.90369, 13.5163, 40.8028, 24.9085, -87.7561, -24.6697
5.46, 6, 9.93268, 13.5088, 40.7719, 24.9878, -87.7453, -24.7475
5.464, 6, 9.96164, 13.5014, 40.7409, 25.067, -87.7347, -24.8254
5.468, 6, 9.99056, 13.494, 40.7098, 25.1462, -87.7242, -24.9033
5.472, 6, 10.0194, 13.4868, 40.6786, 25.2253, -87.7138, -24.9812
5.476, 6, 10.0483, 13.4796, 40.6474, 25.3044, -87.7036, -25.0592
5.48, 6, 10.0771, 13.4725, 40.616, 25.3834, -87.6935, -25.1372
5.484, 6, 10.1059, 13.4655, 40.5846, 25.4623, -87.6834, -25.2153
5.488, 6, 10.1346, 13.4586, 40.5531, 25.5412, -87.6736, -25.2934
5.492, 6, 10.1633, 13.4518, 40.5215, 25.62, -87.6638, -25.3715
5.496, 6, 10.192, 13.4451, 40.4898, 25.6988, -87.6541, -25.4497
5.5, 6, 10.2206, 13.4385, 40.4581, 25.7775, -87.6446, -25.5279
5.504, 6, 10.2492, 13.4319, 40.4263, 25.8562, -87.6352, -25.6061
5.508, 6, 10.2778, 13.4254, 40.3943, 25.9348, -87.6259, -25.6844
5.512, 6, 10.3063, 13.4191, 40.3623, 26.0133, -87.6167, -25.7627
5.516, 6, 10.3348, 13.4128, 40.3303, 26.0918, -87.6077, -25.8411
5.52, 6, 10.3632, 13.4066, 40.2981, 26.1702, -87.5988, -25.9195
5.524, 6, 10.3916, 13.4005, 40.2659, 26.2485, -87.5899, -25.9979
5.528, 6, 10.42, 13.3945, 40.2335, 26.3268, -87.5813, -26.0763
5.532, 6, 10.4483, 13.3885, 40.2011, 26.4051, -87.5727, -26.1548
5.536, 6, 10.4766, 13.3827, 40.1686, 26.4832, -87.5642, -26.2334
5.54, 6, 10.5049, 13.3769, 40.1361, 26.5613, -87.5559, -26.3119
5.544, 6, 10.5331, 13.3712, 40.1034, 26.6394, -87.5477, -26.3905
5.548, 6, 10.5613, 13.3657, 40.0707, 26.7174, -87.5396, -26.4692
5.552, 6, 10.5894, 13.3602, 40.0379, 26.7953, -87.5317, -26.5478
5.556, 6, 10.6175, 13.3547, 40.005, 26.8732, -87.5238, -26.6265
5.56, 6, 10.6456, 13.3494, 39.972, 26.951, -87.5161, -26.7053
5.564, 6, 10.6736, 13.3442, 39.939, 27.0287, -87.5085, -26.784
5.568, 6, 10.7016, 13.339, 39.9058, 27.1064, -87.501, -26.8628
5.572, 6, 10.7296, 13.334, 39.8726, 27.184, -87.4936, -26.9417
5.576, 6, 10.7575, 13.329, 39.8393, 27.2616, -87.4864, -27.0205
5.58, 6, 10.7853, 13.3241, 39.806, 27.3391, -87.4793, -27.0994
5.584, 6, 10.8132, 13.3193, 39.7725, 27.4165, -87.4723, -27.1783
5.588, 6, 10.841, 13.3146, 39.739, 27.4939, -87.4654, -27.2573
5.592, 6, 10.8687, 13.3099, 39.7054, 27.5712, -87.4586, -27.3362
5.596, 6, 10.8963, 13.3054, 39.6717, 27.6484, -87.452, -27.4152
5.6, 6, 10.9239, 13.3009, 39.6379, 27.7256, -87.4455, -27.4941
5.604, 6, 10.9514, 13.2965, 39.6041, 27.8027, -87.4391, -27.5728
5.608, 6, 10.9788, 13.2922, 39.5702, 27.8797, -87.4328, -27.6514
5.612, 6, 11.0061, 13.2879, 39.5362, 27.9566, -87.4266, -27.7297
5.616, 6, 11.0334, 13.2837, 39.5022, 28.0335, -87.4206, -27.8075
5.62, 6, 11.0605, 13.2795, 39.4681, 28.1102, -87.4147, -27.8848
5.624, 6, 11.0875, 13.2755, 39.434, 28.1868, -87.409, -27.9613
5.628, 6, 11.1144, 13.2715, 39.3998, 28.2632, -87.4033, -28.037
5.632, 6, 11.1412, 13.2675, 39.3656, 28.3396, -87.3978, -28.1116
5.636, 6, 11.1678, 13.2636, 39.3314, 28.4157, -87.3925, -28.1849
5.64, 6, 11.1944, 13.2597, 39.2972, 28.4917, -87.3872, -28.2569
5.644, 6, 11.2208, 13.2559, 39.2629, 28.5675, -87.3821, -28.3274
5.648, 6, 11.2472, 13.2521, 39.2286, 28.643, -87.3772, -28.3962
5.652, 6, 11.2734, 13.2483, 39.1944, 28.7184, -87.3724, -28.4632
5.656, 6, 11.2995, 13.2446, 39.1601, 28.7935, -87.3677, -28.5283
5.66, 6, 11.3255, 13.2409, 39.1258, 28.8684, -87.3631, -28.5915
5.664, 6, 11.3513, 13.2373, 39.0916, 28.9431, -87.3587, -28.6527
5.668, 6, 11.377, 13.2336, 39.0574, 29.0175, -87.3544, -28.7118
5.672, 6, 11.4026, 13.23, 39.0231, 29.0916, -87.3502, -28.7688
5.676, 6, 11.4279, 13.2264, 38.9889, 29.1655, -87.3461, -28.8237
5.68, 6, 11.4531, 13.2228, 38.9547, 29.2391, -87.3421, -28.8766
5.684, 7, 11.4782, 13.2192, 38.9206, 29.3125, -87.3383, -28.9273
5.688, 7, 11.503, 13.2156, 38.8865, 29.3856, -87.3345, -28.9759
5.692, 7, 11.5277, 13.212, 38.8523, 29.4584, -87.3308, -29.0224
5.696, 7, 11.5522, 13.2084, 38.8183, 29.531, -87.3272, -29.0667
5.7, 7, 11.5765, 13.2048, 38.7842, 29.6034, -87.3237, -29.109
5.704, 7, 11.6007, 13.2012, 38.7502, 29.6755, -87.3202, -29.1491
5.708, 7, 11.6246, 13.1976, 38.7162, 29.7473, -87.3169, -29.1871
5.712, 7, 11.6484, 13.194, 38.6822, 29.8189, -87.3135, -29.2229
5.716, 7, 11.672, 13.1904, 38.6482, 29.8902, -87.3103, -29.2567
5.72, 7, 11.6954, 13.1868, 38.6143, 29.9613, -87.3071, -29.2883
5.724, 7, 11.7186, 13.1831, 38.5805, 30.0322, -87.304, -29.3178
5.728, 7, 11.7417, 13.1795, 38.5466, 30.1028, -87.3009, -29.3452
5.732, 7, 11.7646, 13.1758, 38.5128, 30.1732, -87.2979, -29.3705
5.736, 7, 11.7873, 13.1721, 38.479, 30.2434, -87.2949, -29.3937
5.74, 7, 11.8098, 13.1684, 38.4453, 30.3133, -87.2919, -29.4148
5.744, 7, 11.8322, 13.1647, 38.4116, 30.383, -87.289, -29.4337
5.748, 7, 11.8544, 13.1609, 38.3779, 30.4524, -87.2862, -29.4505
5.752, 7, 11.8765, 13.1571, 38.3443, 30.5216, -87.2833, -29.4653
5.756, 7, 11.8984, 13.1533, 38.3107, 30.5906, -87.2805, -29.4779
5.76, 7, 11.9202, 13.1494, 38.2772, 30.6594, -87.2778, -29.4885
5.764, 7, 11.9418, 13.1456, 38.2437, 30.7279, -87.275, -29.497
5.768, 7, 11.9634, 13.1417, 38.2102, 30.7963, -87.2723, -29.5035
5.772, 7, 11.9848, 13.1377, 38.1768, 30.8644, -87.2696, -29.5081
5.776, 7, 12.0061, 13.1338, 38.1434, 30.9324, -87.2669, -29.5108
5.78, 7, 12.0273, 13.1298, 38.1101, 31.0002, -87.2642, -29.5119
5.784, 7, 12.0485, 13.1258, 38.0767, 31.0679, -87.2615, -29.5114
5.788, 7, 12.0695, 13.1218, 38.0434, 31.1353, -87.2589, -29.5095
5.792, 7, 12.0904, 13.1178, 38.0101, 31.2027, -87.2562, -29.5063
5.796, 7, 12.1113, 13.1137, 37.9768, 31.27, -87.2535, -29.502
5.8, 7, 12.132, 13.1097, 37.9435, 31.3371, -87.2509, -29.4968
5.804, 7, 12.1527, 13.1056, 37.9102, 31.4042, -87.2482, -29.4909
5.808, 7, 12.1732, 13.1015, 37.8769, 31.4712, -87.2456, -29.4843
5.812, 7, 12.1937, 13.0975, 37.8435, 31.5381, -87.2429, -29.4773
5.816, 7, 12.2141, 13.0934, 37.8102, 31.605, -87.2403, -29.4699
5.82, 7, 12.2344, 13.0893, 37.7768, 31.6719, -87.2376, -29.4623
5.824, 7, 12.2547, 13.0852, 37.7433, 31.7387, -87.235, -29.4546
5.828, 7, 12.2749, 13.0812, 37.7098, 31.8055, -87.2324, -29.4467
5.832, 7, 12.2951, 13.0771, 37.6763, 31.8722, -87.2297, -29.4389
5.836, 7, 12.3152, 13.0731, 37.6427, 31.939, -87.2271, -29.431
5.84, 7, 12.3353, 13.0691, 37.6091, 32.0057, -87.2245, -29.4231
5.844, 7, 12.3553, 13.0651, 37.5754, 32.0724, -87.2219, -29.4152
5.848, 7, 12.3754, 13.0611, 37.5417, 32.1391, -87.2193, -29.4073
5.852, 7, 12.3954, 13.0572, 37.5079, 32.2058, -87.2166, -29.3995
5.856, 7, 12.4154, 13.0533, 37.4741, 32.2724, -87.214, -29.3917
5.86, 7, 12.4353, 13.0494, 37.4403, 32.3391, -87.2114, -29.384
5.864, 7, 12.4553, 13.0455, 37.4063, 32.4057, -87.2088, -29.3763
5.868, 7, 12.4752, 13.0416, 37.3724, 32.4723, -87.2062, -29.3686
5.872, 7, 12.4951, 13.0378, 37.3383, 32.5389, -87.2036, -29.361
5.876, 7, 12.515, 13.0339, 37.3043, 32.6054, -87.201, -29.3535
5.88, 7, 12.5349, 13.0301, 37.2701, 32.672, -87.1985, -29.3459
5.884, 7, 12.5547, 13.0264, 37.236, 32.7385, -87.1959, -29.3384
5.888, 7, 12.5746, 13.0226, 37.2017, 32.8051, -87.1933, -29.331
5.892, 7, 12.5944, 13.0189, 37.1675, 32.8716, -87.1907, -29.3236
5.896, 7, 12.6142, 13.0152, 37.1331, 32.9381, -87.1882, -29.3163
5.9, 7, 12.6339, 13.0115, 37.0988, 33.0045, -87.1856, -29.309
5.904, 7, 12.6537, 13.0078, 37.0643, 33.071, -87.1831, -29.3017
