hehonglu123/Motion-Primitive-Planning/simulation/roboguide/data/robot_pose_test/Curve_exec_movel_ori0_x0_y0.csv
timestamp,J1,J2,J3,J4,J5,J6
 0,  18.6420,   8.3360, -35.3580, -34.7470,  32.8020,  25.2540
 8,  18.6420,   8.3360, -35.3580, -34.7470,  32.8020,  25.2540
 16,  18.6420,   8.3360, -35.3581, -34.7468,  32.8021,  25.2539
 32,  18.6391,   8.3354, -35.3615, -34.7365,  32.8069,  25.2451
 40,  18.6391,   8.3354, -35.3615, -34.7365,  32.8069,  25.2451
 48,  18.6363,   8.3348, -35.3648, -34.7266,  32.8115,  25.2366
 56,  18.6322,   8.3340, -35.3698, -34.7117,  32.8184,  25.2239
 64,  18.6264,   8.3328, -35.3767, -34.6910,  32.8280,  25.2062
 72,  18.6187,   8.3313, -35.3859, -34.6634,  32.8409,  25.1826
 80,  18.6088,   8.3292, -35.3977, -34.6280,  32.8574,  25.1524
 88,  18.5964,   8.3268, -35.4124, -34.5838,  32.8780,  25.1147
 96,  18.5813,   8.3237, -35.4304, -34.5299,  32.9032,  25.0688
 104,  18.5632,   8.3201, -35.4520, -34.4654,  32.9334,  25.0137
 112,  18.5418,   8.3159, -35.4774, -34.3893,  32.9692,  24.9489
 120,  18.5168,   8.3110, -35.5070, -34.3007,  33.0109,  24.8733
 128,  18.4880,   8.3054, -35.5411, -34.1987,  33.0592,  24.7864
 136,  18.4550,   8.2991, -35.5801, -34.0824,  33.1145,  24.6874
 144,  18.4176,   8.2920, -35.6241, -33.9510,  33.1772,  24.5756
 160,  18.2759,   8.2663, -35.7896, -33.4580,  33.4157,  24.1566
 168,  18.2759,   8.2663, -35.7896, -33.4580,  33.4157,  24.1566
 176,  18.2179,   8.2562, -35.8568, -33.2582,  33.5136,  23.9871
 184,  18.1540,   8.2453, -35.9306, -33.0394,  33.6218,  23.8017
 192,  18.0839,   8.2338, -36.0111, -32.8011,  33.7407,  23.5999
 200,  18.0073,   8.2216, -36.0985, -32.5426,  33.8710,  23.3812
 208,  17.9239,   8.2088, -36.1931, -32.2633,  34.0133,  23.1453
 216,  17.8333,   8.1955, -36.2951, -31.9628,  34.1682,  22.8919
 224,  17.7353,   8.1818, -36.4046, -31.6407,  34.3363,  22.6206
 232,  17.6299,   8.1679, -36.5216, -31.2975,  34.5178,  22.3320
 240,  17.5168,   8.1539, -36.6459, -30.9336,  34.7130,  22.0266
 248,  17.3961,   8.1400, -36.7774, -30.5496,  34.9221,  21.7050
 256,  17.2677,   8.1263, -36.9159, -30.1462,  35.1454,  21.3678
 264,  17.1316,   8.1131, -37.0612, -29.7239,  35.3830,  21.0156
 272,  16.9876,   8.1007, -37.2131, -29.2834,  35.6352,  20.6491
 288,  16.5081,   8.0697, -37.7067, -27.8593,  36.4819,  19.4707
 296,  16.5081,   8.0697, -37.7067, -27.8593,  36.4819,  19.4707
 304,  16.3322,   8.0625, -37.8831, -27.3529,  36.7949,  19.0541
 312,  16.1484,   8.0572, -38.0647, -26.8326,  37.1234,  18.6275
 320,  15.9568,   8.0541, -38.2511, -26.2998,  37.4669,  18.1922
 328,  15.7578,   8.0536, -38.4417, -25.7561,  37.8253,  17.7495
 336,  15.5515,   8.0558, -38.6359, -25.2028,  38.1983,  17.3008
 344,  15.3382,   8.0612, -38.8334, -24.6413,  38.5854,  16.8472
 352,  15.1180,   8.0699, -39.0335, -24.0729,  38.9865,  16.3901
 360,  14.8912,   8.0822, -39.2357, -23.4989,  39.4011,  15.9305
 368,  14.6581,   8.0984, -39.4396, -22.9205,  39.8288,  15.4694
 376,  14.4189,   8.1186, -39.6447, -22.3389,  40.2694,  15.0080
 384,  14.1737,   8.1431, -39.8505, -21.7550,  40.7222,  14.5472
 392,  13.9229,   8.1721, -40.0565, -21.1701,  41.1870,  14.0879
 400,  13.6668,   8.2059, -40.2623, -20.5850,  41.6631,  13.6310
 416,  12.8688,   8.3368, -40.8738, -18.8376,  43.1554,  12.2821
 424,  12.8688,   8.3368, -40.8738, -18.8376,  43.1554,  12.2821
 432,  12.5939,   8.3909, -41.0743, -18.2606,  43.6723,  11.8421
 440,  12.3150,   8.4503, -41.2725, -17.6874,  44.1980,  11.4078
 448,  12.0323,   8.5152, -41.4681, -17.1189,  44.7319,  10.9798
 456,  11.7463,   8.5856, -41.6606, -16.5555,  45.2734,  10.5587
 464,  11.4573,   8.6616, -41.8497, -15.9978,  45.8219,  10.1448
 472,  11.1654,   8.7432, -42.0352, -15.4465,  46.3768,   9.7384
 480,  10.8711,   8.8303, -42.2166, -14.9018,  46.9373,   9.3400
 488,  10.5748,   8.9229, -42.3939, -14.3644,  47.5029,   8.9499
 496,  10.2766,   9.0210, -42.5666, -13.8346,  48.0729,   8.5682
 504,   9.9770,   9.1245, -42.7345, -13.3127,  48.6465,   8.1953
 512,   9.6763,   9.2333, -42.8976, -12.7990,  49.2231,   7.8313
 520,   9.3745,   9.3474, -43.0556, -12.2935,  49.8026,   7.4759
 528,   9.0717,   9.4670, -43.2084, -11.7958,  50.3848,   7.1291
 544,   8.1579,   9.8605, -43.6325, -10.3484,  52.1462,   6.1379
 552,   8.1579,   9.8605, -43.6325, -10.3484,  52.1462,   6.1379
 560,   7.8516,  10.0039, -43.7615,  -9.8805,  52.7378,   5.8234
 568,   7.5446,  10.1538, -43.8840,  -9.4197,  53.3314,   5.5166
 576,   7.2370,  10.3102, -43.9995,  -8.9659,  53.9268,   5.2172
 584,   6.9287,  10.4733, -44.1080,  -8.5188,  54.5239,   4.9253
 592,   6.6200,  10.6434, -44.2090,  -8.0784,  55.1225,   4.6405
 600,   6.3109,  10.8205, -44.3023,  -7.6445,  55.7225,   4.3629
 608,   6.0014,  11.0048, -44.3877,  -7.2171,  56.3236,   4.0922
 616,   5.6917,  11.1964, -44.4649,  -6.7960,  56.9257,   3.8283
 624,   5.3819,  11.3955, -44.5337,  -6.3812,  57.5286,   3.5712
 632,   5.0720,  11.6022, -44.5937,  -5.9725,  58.1321,   3.3206
 640,   4.7622,  11.8165, -44.6448,  -5.5698,  58.7360,   3.0764
 648,   4.4526,  12.0387, -44.6866,  -5.1732,  59.3402,   2.8386
 656,   4.1432,  12.2687, -44.7190,  -4.7824,  59.9443,   2.6070
 672,   3.2181,  13.0068, -44.7567,  -3.6451,  61.7546,   1.9483
 680,   3.2181,  13.0068, -44.7567,  -3.6451,  61.7546,   1.9483
 688,   2.9111,  13.2691, -44.7487,  -3.2774,  62.3566,   1.7405
 696,   2.6049,  13.5397, -44.7300,  -2.9154,  62.9575,   1.5382
 704,   2.2998,  13.8185, -44.7003,  -2.5590,  63.5570,   1.3415
 712,   1.9959,  14.1056, -44.6594,  -2.2082,  64.1548,   1.1503
 720,   1.6933,  14.4010, -44.6072,  -1.8629,  64.7507,    .9643
 728,   1.3923,  14.7043, -44.5435,  -1.5235,  65.3440,    .7837
 736,   1.0932,  15.0153, -44.4684,  -1.1898,  65.9343,    .6084
 744,    .7960,  15.3338, -44.3820,   -.8618,  66.5215,    .4381
 752,    .5008,  15.6597, -44.2842,   -.5395,  67.1053,    .2727
 760,    .2078,  15.9927, -44.1751,   -.2228,  67.6855,    .1122
 768,   -.0830,  16.3327, -44.0547,    .0884,  68.2619,   -.0437
 776,   -.3716,  16.6795, -43.9231,    .3943,  68.8344,   -.1951
 784,   -.6578,  17.0328, -43.7803,    .6947,  69.4028,   -.3422
 800,  -1.5015,  18.1306, -43.2851,   1.5647,  71.0810,   -.7588
 808,  -1.5015,  18.1306, -43.2851,   1.5647,  71.0810,   -.7588
 816,  -1.7778,  18.5086, -43.0978,   1.8447,  71.6314,   -.8901
 824,  -2.0517,  18.8925, -42.8998,   2.1199,  72.1775,  -1.0180
 832,  -2.3232,  19.2818, -42.6912,   2.3905,  72.7190,  -1.1425
 840,  -2.5923,  19.6762, -42.4724,   2.6566,  73.2559,  -1.2639
 848,  -2.8590,  20.0755, -42.2435,   2.9182,  73.7882,  -1.3822
 856,  -3.1232,  20.4792, -42.0049,   3.1755,  74.3157,  -1.4976
 864,  -3.3850,  20.8870, -41.7568,   3.4285,  74.8384,  -1.6103
 872,  -3.6443,  21.2987, -41.4994,   3.6773,  75.3561,  -1.7204
 880,  -3.9013,  21.7141, -41.2332,   3.9220,  75.8690,  -1.8281
 888,  -4.1558,  22.1327, -40.9582,   4.1627,  76.3768,  -1.9334
 896,  -4.4079,  22.5543, -40.6748,   4.3995,  76.8796,  -2.0365
 904,  -4.6576,  22.9788, -40.3833,   4.6324,  77.3774,  -2.1376
 912,  -4.9050,  23.4057, -40.0839,   4.8616,  77.8702,  -2.2367
 928,  -5.6332,  24.6991, -39.1408,   5.5274,  79.3180,  -2.5236
 936,  -5.6332,  24.6991, -39.1408,   5.5274,  79.3180,  -2.5236
 944,  -5.8714,  25.1336, -38.8124,   5.7424,  79.7905,  -2.6161
 952,  -6.1074,  25.5695, -38.4774,   5.9539,  80.2581,  -2.7073
 960,  -6.3413,  26.0066, -38.1361,   6.1623,  80.7206,  -2.7972
 968,  -6.5731,  26.4445, -37.7887,   6.3674,  81.1783,  -2.8860
 976,  -6.8028,  26.8832, -37.4355,   6.5694,  81.6311,  -2.9737
 984,  -7.0305,  27.3225, -37.0767,   6.7684,  82.0791,  -3.0604
 992,  -7.2563,  27.7621, -36.7126,   6.9644,  82.5224,  -3.1463
 1000,  -7.4801,  28.2020, -36.3435,   7.1575,  82.9610,  -3.2313
 1008,  -7.7021,  28.6418, -35.9695,   7.3477,  83.3949,  -3.3157
 1016,  -7.9223,  29.0816, -35.5910,   7.5353,  83.8244,  -3.3995
 1024,  -8.1407,  29.5211, -35.2081,   7.7200,  84.2493,  -3.4827
 1032,  -8.3571,  29.9600, -34.8210,   7.9019,  84.6691,  -3.5654
 1040,  -8.5712,  30.3978, -34.4303,   8.0807,  85.0836,  -3.6474
 1056,  -9.1981,  31.6996, -33.2410,   8.5971,  86.2906,  -3.8898
 1064,  -9.1981,  31.6996, -33.2410,   8.5971,  86.2906,  -3.8898
 1072,  -9.4012,  32.1282, -32.8405,   8.7621,  86.6795,  -3.9693
 1080,  -9.6011,  32.5532, -32.4389,   8.9233,  87.0612,  -4.0480
 1088,  -9.7975,  32.9743, -32.0367,   9.0807,  87.4352,  -4.1260
 1096,  -9.9904,  33.3909, -31.6345,   9.2341,  87.8013,  -4.2031
 1104, -10.1796,  33.8026, -31.2329,   9.3834,  88.1593,  -4.2795
 1112, -10.3648,  34.2090, -30.8325,   9.5285,  88.5088,  -4.3549
 1120, -10.5460,  34.6095, -30.4339,   9.6695,  88.8495,  -4.4294
 1128, -10.7229,  35.0038, -30.0378,   9.8061,  89.1814,  -4.5029
 1136, -10.8956,  35.3912, -29.6448,   9.9384,  89.5040,  -4.5753
 1144, -11.0638,  35.7715, -29.2555,  10.0663,  89.8173,  -4.6467
 1152, -11.2273,  36.1440, -28.8707,  10.1897,  90.1211,  -4.7168
 1160, -11.3862,  36.5085, -28.4910,  10.3087,  90.4151,  -4.7857
 1168, -11.5402,  36.8643, -28.1172,  10.4231,  90.6992,  -4.8532
 1184, -11.9719,  37.8756, -27.0380,  10.7391,  91.4906,  -5.0468
 1192, -11.9719,  37.8756, -27.0380,  10.7391,  91.4906,  -5.0468
 1200, -12.1054,  38.1925, -26.6947,  10.8353,  91.7337,  -5.1080
 1208, -12.2334,  38.4984, -26.3610,  10.9269,  91.9661,  -5.1674
 1216, -12.3560,  38.7930, -26.0375,  11.0139,  92.1879,  -5.2249
 1224, -12.4730,  39.0759, -25.7249,  11.0964,  92.3989,  -5.2803
 1232, -12.5844,  39.3469, -25.4236,  11.1744,  92.5993,  -5.3337
 1240, -12.6904,  39.6061, -25.1337,  11.2480,  92.7894,  -5.3850
 1248, -12.7911,  39.8536, -24.8555,  11.3175,  92.9694,  -5.4342
 1256, -12.8864,  40.0892, -24.5892,  11.3829,  93.1394,  -5.4812
 1264, -12.9766,  40.3131, -24.3349,  11.4443,  93.2998,  -5.5261
 1272, -13.0616,  40.5251, -24.0930,  11.5018,  93.4505,  -5.5688
 1280, -13.1415,  40.7254, -23.8635,  11.5556,  93.5920,  -5.6093
 1288, -13.2164,  40.9140, -23.6466,  11.6057,  93.7242,  -5.6476
 1296, -13.2864,  41.0907, -23.4425,  11.6522,  93.8474,  -5.6836
 1312, -13.4671,  41.5504, -22.9081,  11.7713,  94.1644,  -5.7778
 1320, -13.4671,  41.5504, -22.9081,  11.7713,  94.1644,  -5.7778
 1328, -13.5180,  41.6806, -22.7558,  11.8045,  94.2533,  -5.8046
 1336, -13.5644,  41.7999, -22.6159,  11.8347,  94.3344,  -5.8293
 1344, -13.6068,  41.9089, -22.4878,  11.8621,  94.4082,  -5.8519
 1352, -13.6452,  42.0080, -22.3711,  11.8869,  94.4751,  -5.8724
 1360, -13.6799,  42.0977, -22.2653,  11.9092,  94.5354,  -5.8911
 1368, -13.7111,  42.1784, -22.1699,  11.9292,  94.5895,  -5.9079
 1376, -13.7389,  42.2507, -22.0844,  11.9470,  94.6378,  -5.9230
 1384, -13.7636,  42.3149, -22.0082,  11.9628,  94.6806,  -5.9364
 1392, -13.7854,  42.3716, -21.9410,  11.9767,  94.7183,  -5.9483
 1400, -13.8044,  42.4212, -21.8820,  11.9888,  94.7513,  -5.9587
 1408, -13.8209,  42.4642, -21.8309,  11.9992,  94.7798,  -5.9677
 1416, -13.8351,  42.5011, -21.7870,  12.0082,  94.8042,  -5.9754
 1424, -13.8470,  42.5323, -21.7498,  12.0157,  94.8249,  -5.9820
 1440, -13.8716,  42.5967, -21.6730,  12.0313,  94.8674,  -5.9955
 1448, -13.8716,  42.5967, -21.6730,  12.0313,  94.8674,  -5.9955
 1456, -13.8767,  42.6100, -21.6572,  12.0345,  94.8762,  -5.9983
 1464, -13.8805,  42.6200, -21.6453,  12.0369,  94.8828,  -6.0004
 1472, -13.8832,  42.6272, -21.6367,  12.0386,  94.8875,  -6.0019
 1480, -13.8851,  42.6320, -21.6310,  12.0398,  94.8907,  -6.0029
 1488, -13.8862,  42.6349, -21.6275,  12.0405,  94.8926,  -6.0036
 1496, -13.8868,  42.6364, -21.6257,  12.0408,  94.8936,  -6.0039
 1504, -13.8870,  42.6369, -21.6251,  12.0410,  94.8939,  -6.0040
