hehonglu123/Motion-Primitive-Planning/simulation/roboguide/data/robot_pose_test/Curve_exec_movec_ori0_x0_y-1000.csv
timestamp,J1,J2,J3,J4,J5,J6
 0, -18.6421,   8.3361, -35.3582,  34.7472,  32.8015, -25.2543
 8, -18.6421,   8.3361, -35.3582,  34.7472,  32.8015, -25.2543
 16, -18.6421,   8.3361, -35.3581,  34.7472,  32.8016, -25.2543
 24, -18.6421,   8.3366, -35.3578,  34.7470,  32.8019, -25.2540
 32, -18.6423,   8.3377, -35.3571,  34.7464,  32.8029, -25.2534
 40, -18.6426,   8.3398, -35.3555,  34.7453,  32.8048, -25.2522
 48, -18.6432,   8.3433, -35.3530,  34.7435,  32.8079, -25.2502
 56, -18.6438,   8.3487, -35.3492,  34.7405,  32.8125, -25.2471
 64, -18.6443,   8.3563, -35.3438,  34.7358,  32.8187, -25.2423
 72, -18.6449,   8.3664, -35.3365,  34.7293,  32.8269, -25.2358
 80, -18.6455,   8.3795, -35.3270,  34.7208,  32.8374, -25.2274
 88, -18.6463,   8.3958, -35.3152,  34.7102,  32.8505, -25.2170
 96, -18.6474,   8.4158, -35.3007,  34.6974,  32.8665, -25.2043
 104, -18.6487,   8.4397, -35.2834,  34.6823,  32.8857, -25.1892
 112, -18.6504,   8.4679, -35.2629,  34.6647,  32.9085, -25.1715
 128, -18.6590,   8.5819, -35.1803,  34.5961,  33.0014, -25.1020
 136, -18.6590,   8.5819, -35.1803,  34.5961,  33.0014, -25.1020
 144, -18.6632,   8.6308, -35.1448,  34.5676,  33.0416, -25.0729
 152, -18.6683,   8.6857, -35.1050,  34.5363,  33.0869, -25.0407
 160, -18.6744,   8.7470, -35.0607,  34.5020,  33.1377, -25.0052
 168, -18.6816,   8.8149, -35.0114,  34.4647,  33.1943, -24.9664
 176, -18.6899,   8.8898, -34.9571,  34.4244,  33.2569, -24.9242
 184, -18.6995,   8.9720, -34.8974,  34.3810,  33.3259, -24.8785
 192, -18.7105,   9.0620, -34.8322,  34.3345,  33.4017, -24.8292
 200, -18.7230,   9.1598, -34.7611,  34.2850,  33.4845, -24.7765
 208, -18.7371,   9.2660, -34.6839,  34.2324,  33.5746, -24.7201
 216, -18.7529,   9.3808, -34.6003,  34.1767,  33.6723, -24.6601
 224, -18.7706,   9.5045, -34.5101,  34.1181,  33.7779, -24.5965
 232, -18.7901,   9.6370, -34.4134,  34.0567,  33.8915, -24.5295
 240, -18.8116,   9.7785, -34.3100,  33.9927,  34.0130, -24.4593
 256, -18.8886,  10.2556, -33.9598,  33.7878,  34.4249, -24.2314
 264, -18.8886,  10.2556, -33.9598,  33.7878,  34.4249, -24.2314
 272, -18.9192,  10.4320, -33.8299,  33.7166,  34.5783, -24.1509
 280, -18.9523,  10.6169, -33.6935,  33.6446,  34.7397, -24.0686
 288, -18.9882,  10.8103, -33.5504,  33.5719,  34.9090, -23.9846
 296, -19.0268,  11.0121, -33.4008,  33.4988,  35.0864, -23.8992
 304, -19.0682,  11.2224, -33.2446,  33.4253,  35.2717, -23.8126
 312, -19.1124,  11.4410, -33.0817,  33.3518,  35.4648, -23.7248
 320, -19.1595,  11.6679, -32.9122,  33.2784,  35.6659, -23.6362
 328, -19.2094,  11.9031, -32.7359,  33.2053,  35.8747, -23.5469
 336, -19.2623,  12.1465, -32.5530,  33.1326,  36.0914, -23.4571
 344, -19.3182,  12.3981, -32.3633,  33.0605,  36.3157, -23.3669
 352, -19.3770,  12.6578, -32.1668,  32.9893,  36.5478, -23.2765
 360, -19.4388,  12.9256, -31.9635,  32.9189,  36.7875, -23.1861
 368, -19.5037,  13.2014, -31.7534,  32.8496,  37.0347, -23.0958
 384, -19.7168,  14.0769, -31.0813,  32.6496,  37.8215, -22.8272
 392, -19.7168,  14.0769, -31.0813,  32.6496,  37.8215, -22.8272
 400, -19.7940,  14.3845, -30.8432,  32.5860,  38.0985, -22.7390
 408, -19.8743,  14.7000, -30.5980,  32.5240,  38.3827, -22.6516
 416, -19.9578,  15.0232, -30.3457,  32.4639,  38.6741, -22.5652
 424, -20.0443,  15.3538, -30.0864,  32.4058,  38.9724, -22.4801
 432, -20.1339,  15.6915, -29.8205,  32.3499,  39.2771, -22.3964
 440, -20.2265,  16.0358, -29.5480,  32.2964,  39.5879, -22.3145
 448, -20.3221,  16.3864, -29.2692,  32.2455,  39.9045, -22.2344
 456, -20.4208,  16.7428, -28.9845,  32.1976,  40.2267, -22.1566
 464, -20.5228,  17.1047, -28.6941,  32.1530,  40.5541, -22.0814
 472, -20.6280,  17.4715, -28.3984,  32.1119,  40.8865, -22.0088
 480, -20.7364,  17.8430, -28.0975,  32.0743,  41.2234, -21.9391
 488, -20.8478,  18.2187, -27.7917,  32.0404,  41.5647, -21.8724
 496, -20.9623,  18.5984, -27.4813,  32.0100,  41.9098, -21.8086
 512, -21.3234,  19.7568, -26.5251,  31.9413,  42.9660, -21.6364
 520, -21.3234,  19.7568, -26.5251,  31.9413,  42.9660, -21.6364
 528, -21.4495,  20.1483, -26.1990,  31.9258,  43.3239, -21.5855
 536, -21.5782,  20.5418, -25.8697,  31.9141,  43.6842, -21.5379
 544, -21.7097,  20.9370, -25.5375,  31.9061,  44.0467, -21.4937
 552, -21.8437,  21.3334, -25.2027,  31.9019,  44.4111, -21.4528
 560, -21.9803,  21.7308, -24.8657,  31.9013,  44.7770, -21.4154
 568, -22.1193,  22.1288, -24.5268,  31.9044,  45.1443, -21.3813
 576, -22.2607,  22.5270, -24.1862,  31.9110,  45.5127, -21.3505
 584, -22.4045,  22.9250, -23.8444,  31.9213,  45.8819, -21.3232
 592, -22.5506,  23.3225, -23.5016,  31.9351,  46.2516, -21.2991
 600, -22.6988,  23.7191, -23.1584,  31.9524,  46.6217, -21.2784
 608, -22.8492,  24.1145, -22.8149,  31.9732,  46.9919, -21.2609
 616, -23.0017,  24.5082, -22.4717,  31.9973,  47.3620, -21.2467
 624, -23.1561,  24.9001, -22.1290,  32.0247,  47.7319, -21.2356
 640, -23.6322,  26.0632, -21.1058,  32.1263,  48.8405, -21.2207
 648, -23.6322,  26.0632, -21.1058,  32.1263,  48.8405, -21.2207
 656, -23.7951,  26.4463, -20.7671,  32.1663,  49.2100, -21.2215
 664, -23.9600,  26.8269, -20.4300,  32.2090,  49.5795, -21.2248
 672, -24.1265,  27.2049, -20.0947,  32.2539,  49.9490, -21.2303
 680, -24.2946,  27.5802, -19.7614,  32.3009,  50.3187, -21.2380
 688, -24.4645,  27.9525, -19.4304,  32.3500,  50.6887, -21.2477
 696, -24.6360,  28.3218, -19.1021,  32.4009,  51.0589, -21.2592
 704, -24.8090,  28.6879, -18.7766,  32.4537,  51.4296, -21.2725
 712, -24.9837,  29.0506, -18.4543,  32.5081,  51.8009, -21.2874
 720, -25.1600,  29.4099, -18.1353,  32.5641,  52.1728, -21.3038
 728, -25.3378,  29.7656, -17.8201,  32.6216,  52.5454, -21.3215
 736, -25.5172,  30.1175, -17.5088,  32.6804,  52.9189, -21.3405
 744, -25.6981,  30.4654, -17.2018,  32.7405,  53.2934, -21.3606
 752, -25.8805,  30.8094, -16.8993,  32.8017,  53.6688, -21.3818
 768, -26.4367,  31.8155, -16.0218,  32.9915,  54.8027, -21.4500
 776, -26.4367,  31.8155, -16.0218,  32.9915,  54.8027, -21.4500
 784, -26.6250,  32.1418, -15.7403,  33.0565,  55.1834, -21.4739
 792, -26.8147,  32.4633, -15.4648,  33.1223,  55.5658, -21.4983
 800, -27.0058,  32.7800, -15.1955,  33.1887,  55.9498, -21.5230
 808, -27.1984,  33.0916, -14.9327,  33.2558,  56.3357, -21.5479
 816, -27.3923,  33.3980, -14.6768,  33.3233,  56.7235, -21.5729
 824, -27.5876,  33.6991, -14.4280,  33.3913,  57.1133, -21.5979
 832, -27.7842,  33.9945, -14.1871,  33.4597,  57.5053, -21.6226
 840, -27.9819,  34.2839, -13.9542,  33.5281,  57.8994, -21.6469
 848, -28.1805,  34.5676, -13.7293,  33.5966,  58.2953, -21.6707
 856, -28.3801,  34.8455, -13.5123,  33.6650,  58.6932, -21.6940
 864, -28.5805,  35.1176, -13.3034,  33.7334,  59.0931, -21.7167
 872, -28.7818,  35.3840, -13.1026,  33.8017,  59.4950, -21.7387
 880, -28.9839,  35.6445, -12.9100,  33.8699,  59.8990, -21.7600
 896, -29.5948,  36.3916, -12.3822,  34.0732,  61.1235, -21.8190
 904, -29.5948,  36.3916, -12.3822,  34.0732,  61.1235, -21.8190
 912, -29.7998,  36.6290, -12.2231,  34.1405,  61.5360, -21.8368
 920, -30.0056,  36.8606, -12.0726,  34.2075,  61.9508, -21.8536
 928, -30.2119,  37.0864, -11.9308,  34.2743,  62.3678, -21.8693
 936, -30.4189,  37.3064, -11.7976,  34.3407,  62.7870, -21.8839
 944, -30.6264,  37.5207, -11.6732,  34.4068,  63.2086, -21.8973
 952, -30.8346,  37.7291, -11.5576,  34.4726,  63.6326, -21.9095
 960, -31.0432,  37.9318, -11.4508,  34.5380,  64.0589, -21.9203
 968, -31.2523,  38.1287, -11.3530,  34.6031,  64.4877, -21.9299
 976, -31.4619,  38.3198, -11.2642,  34.6678,  64.9189, -21.9380
 984, -31.6719,  38.5052, -11.1843,  34.7322,  65.3527, -21.9448
 992, -31.8823,  38.6849, -11.1135,  34.7961,  65.7889, -21.9500
 1000, -32.0932,  38.8588, -11.0517,  34.8597,  66.2278, -21.9538
 1008, -32.3043,  39.0270, -10.9991,  34.9229,  66.6692, -21.9559
 1024, -32.9397,  39.4979, -10.8959,  35.1102,  68.0093, -21.9526
 1032, -32.9397,  39.4979, -10.8959,  35.1102,  68.0093, -21.9526
 1040, -33.1520,  39.6441, -10.8792,  35.1717,  68.4613, -21.9482
 1048, -33.3644,  39.7850, -10.8714,  35.2328,  68.9162, -21.9419
 1056, -33.5769,  39.9208, -10.8723,  35.2934,  69.3740, -21.9338
 1064, -33.7895,  40.0515, -10.8818,  35.3535,  69.8345, -21.9240
 1072, -34.0021,  40.1774, -10.8996,  35.4132,  70.2977, -21.9123
 1080, -34.2146,  40.2985, -10.9256,  35.4723,  70.7636, -21.8989
 1088, -34.4270,  40.4151, -10.9594,  35.5310,  71.2320, -21.8836
 1096, -34.6393,  40.5273, -11.0010,  35.5892,  71.7029, -21.8666
 1104, -34.8513,  40.6352, -11.0501,  35.6470,  72.1762, -21.8479
 1112, -35.0630,  40.7389, -11.1064,  35.7042,  72.6519, -21.8274
 1120, -35.2743,  40.8387, -11.1698,  35.7611,  73.1298, -21.8052
 1128, -35.4853,  40.9347, -11.2401,  35.8174,  73.6099, -21.7813
 1136, -35.6958,  41.0271, -11.3170,  35.8733,  74.0922, -21.7556
 1152, -36.3237,  41.2835, -11.5852,  36.0382,  75.5508, -21.6688
 1160, -36.3237,  41.2835, -11.5852,  36.0382,  75.5508, -21.6688
 1168, -36.5317,  41.3627, -11.6865,  36.0923,  76.0406, -21.6366
 1176, -36.7388,  41.4388, -11.7932,  36.1459,  76.5322, -21.6028
 1184, -36.9452,  41.5122, -11.9052,  36.1990,  77.0254, -21.5674
 1192, -37.1506,  41.5830, -12.0224,  36.2517,  77.5200, -21.5305
 1200, -37.3551,  41.6512, -12.1443,  36.3039,  78.0161, -21.4920
 1208, -37.5584,  41.7169, -12.2712,  36.3555,  78.5136, -21.4519
 1216, -37.7603,  41.7801, -12.4030,  36.4064,  79.0124, -21.4100
 1224, -37.9608,  41.8409, -12.5395,  36.4565,  79.5124, -21.3664
 1232, -38.1598,  41.8995, -12.6805,  36.5058,  80.0136, -21.3212
 1240, -38.3573,  41.9561, -12.8256,  36.5545,  80.5158, -21.2743
 1248, -38.5534,  42.0107, -12.9747,  36.6025,  81.0190, -21.2258
 1256, -38.7479,  42.0634, -13.1275,  36.6500,  81.5228, -21.1759
 1264, -38.9408,  42.1143, -13.2838,  36.6970,  82.0267, -21.1247
 1280, -39.5080,  42.2569, -13.7698,  36.8351,  83.5350, -20.9638
 1288, -39.5080,  42.2569, -13.7698,  36.8351,  83.5350, -20.9638
 1296, -39.6930,  42.3013, -13.9366,  36.8802,  84.0351, -20.9081
 1304, -39.8756,  42.3442, -14.1054,  36.9249,  84.5332, -20.8515
 1312, -40.0559,  42.3856, -14.2758,  36.9691,  85.0288, -20.7941
 1320, -40.2336,  42.4257, -14.4476,  37.0130,  85.5214, -20.7360
 1328, -40.4088,  42.4644, -14.6205,  37.0564,  86.0107, -20.6773
 1336, -40.5812,  42.5018, -14.7942,  37.0994,  86.4963, -20.6180
 1344, -40.7507,  42.5378, -14.9685,  37.1419,  86.9775, -20.5582
 1352, -40.9173,  42.5727, -15.1431,  37.1840,  87.4542, -20.4981
 1360, -41.0808,  42.6062, -15.3177,  37.2256,  87.9258, -20.4377
 1368, -41.2412,  42.6386, -15.4922,  37.2668,  88.3918, -20.3771
 1376, -41.3982,  42.6698, -15.6663,  37.3074,  88.8519, -20.3163
 1384, -41.5519,  42.6998, -15.8396,  37.3474,  89.3056, -20.2555
 1392, -41.7020,  42.7286, -16.0121,  37.3869,  89.7525, -20.1947
 1408, -42.1310,  42.8086, -16.5203,  37.5021,  91.0478, -20.0140
 1416, -42.1310,  42.8086, -16.5203,  37.5021,  91.0478, -20.0140
 1424, -42.2668,  42.8335, -16.6853,  37.5395,  91.4628, -19.9549
 1432, -42.3989,  42.8576, -16.8477,  37.5764,  91.8688, -19.8966
 1440, -42.5272,  42.8807, -17.0072,  37.6126,  92.2653, -19.8390
 1448, -42.6516,  42.9030, -17.1636,  37.6482,  92.6520, -19.7823
 1456, -42.7721,  42.9244, -17.3169,  37.6831,  93.0287, -19.7266
 1464, -42.8887,  42.9448, -17.4671,  37.7173,  93.3955, -19.6717
 1472, -43.0014,  42.9644, -17.6142,  37.7507,  93.7523, -19.6178
 1480, -43.1103,  42.9830, -17.7581,  37.7833,  94.0992, -19.5648
 1488, -43.2154,  43.0007, -17.8990,  37.8151,  94.4362, -19.5127
 1496, -43.3166,  43.0175, -18.0366,  37.8461,  94.7633, -19.4616
 1504, -43.4141,  43.0332, -18.1712,  37.8761,  95.0804, -19.4115
 1512, -43.5078,  43.0481, -18.3025,  37.9053,  95.3876, -19.3623
 1520, -43.5977,  43.0620, -18.4305,  37.9335,  95.6848, -19.3141
 1536, -43.8452,  43.0980, -18.7952,  38.0121,  96.5165, -19.1757
 1544, -43.8452,  43.0980, -18.7952,  38.0121,  96.5165, -19.1757
 1552, -43.9203,  43.1082, -18.9101,  38.0362,  96.7738, -19.1318
 1560, -43.9918,  43.1174, -19.0216,  38.0593,  97.0210, -19.0889
 1568, -44.0597,  43.1257, -19.1296,  38.0813,  97.2583, -19.0472
 1576, -44.1240,  43.1332, -19.2341,  38.1022,  97.4855, -19.0066
 1584, -44.1848,  43.1398, -19.3351,  38.1220,  97.7026, -18.9672
 1592, -44.2420,  43.1455, -19.4325,  38.1406,  97.9098, -18.9291
 1600, -44.2957,  43.1504, -19.5262,  38.1581,  98.1068, -18.8922
 1608, -44.3460,  43.1545, -19.6162,  38.1744,  98.2938, -18.8567
 1616, -44.3929,  43.1579, -19.7021,  38.1897,  98.4707, -18.8225
 1624, -44.4368,  43.1608, -19.7837,  38.2040,  98.6373, -18.7901
 1632, -44.4775,  43.1633, -19.8608,  38.2172,  98.7936, -18.7593
 1640, -44.5151,  43.1654, -19.9333,  38.2295,  98.9397, -18.7302
 1648, -44.5498,  43.1670, -20.0013,  38.2408,  99.0755, -18.7028
 1664, -44.6364,  43.1697, -20.1781,  38.2689,  99.4230, -18.6313
 1672, -44.6364,  43.1697, -20.1781,  38.2689,  99.4230, -18.6313
 1680, -44.6600,  43.1700, -20.2284,  38.2765,  99.5201, -18.6108
 1688, -44.6812,  43.1700, -20.2746,  38.2832,  99.6085, -18.5919
 1696, -44.7002,  43.1699, -20.3169,  38.2892,  99.6885, -18.5746
 1704, -44.7170,  43.1695, -20.3554,  38.2945,  99.7607, -18.5588
 1712, -44.7318,  43.1690, -20.3902,  38.2991,  99.8255, -18.5444
 1720, -44.7448,  43.1683, -20.4215,  38.3030,  99.8831, -18.5315
 1728, -44.7561,  43.1676, -20.4494,  38.3064,  99.9340, -18.5199
 1736, -44.7659,  43.1669, -20.4741,  38.3093,  99.9786, -18.5096
 1744, -44.7742,  43.1661, -20.4958,  38.3117, 100.0174, -18.5006
 1752, -44.7812,  43.1654, -20.5146,  38.3137, 100.0507, -18.4927
 1760, -44.7870,  43.1646, -20.5306,  38.3153, 100.0789, -18.4860
 1768, -44.7918,  43.1640, -20.5441,  38.3166, 100.1024, -18.4803
 1776, -44.7957,  43.1635, -20.5552,  38.3176, 100.1217, -18.4757
 1792, -44.8032,  43.1626, -20.5757,  38.3197, 100.1580, -18.4670
 1800, -44.8032,  43.1626, -20.5757,  38.3197, 100.1580, -18.4670
 1808, -44.8047,  43.1627, -20.5789,  38.3202, 100.1644, -18.4657
 1816, -44.8059,  43.1629, -20.5809,  38.3206, 100.1686, -18.4649
 1824, -44.8065,  43.1629, -20.5821,  38.3208, 100.1711, -18.4644
 1832, -44.8069,  43.1630, -20.5827,  38.3209, 100.1724, -18.4641
 1840, -44.8070,  43.1630, -20.5830,  38.3210, 100.1729, -18.4640
