hehonglu123/Motion-Primitive-Planning/ILC/recorded_data/realrobot/wood/iteration_25/run_0.csv
timestamp, cmd_num, J1, J2, J3, J4, J5, J6
0.001075, -1, 11.3758, 13.6139, 17.3357, -145.52, -97.9266, 142.516
0.004935, -1, 11.3758, 13.6139, 17.3357, -145.52, -97.9266, 142.516
0.00779, -1, 11.3758, 13.6139, 17.3357, -145.52, -97.9266, 142.516
0.029985, -1, 11.3758, 13.6139, 17.3357, -145.52, -97.9266, 142.516
0.031301, -1, 11.3758, 13.6139, 17.3357, -145.52, -97.9266, 142.516
0.034539, -1, 11.3758, 13.6139, 17.3357, -145.52, -97.9265, 142.516
0.039679, -1, 11.3758, 13.6139, 17.3357, -145.52, -97.9265, 142.516
0.049284, -1, 11.3758, 13.6139, 17.3357, -145.52, -97.9265, 142.516
0.055713, -1, 11.3752, 13.6139, 17.3357, -145.52, -97.9265, 142.516
0.064704, -1, 11.3726, 13.6137, 17.3356, -145.52, -97.9265, 142.516
0.071691, -1, 11.3662, 13.6129, 17.3352, -145.52, -97.9265, 142.515
0.079719, -1, 11.3551, 13.6112, 17.3345, -145.52, -97.9265, 142.514
0.087666, -1, 11.3376, 13.6078, 17.3335, -145.521, -97.9264, 142.507
0.095657, -1, 11.3109, 13.6018, 17.3325, -145.525, -97.9258, 142.486
0.103729, -1, 11.2726, 13.5926, 17.3317, -145.531, -97.9243, 142.446
0.111817, -1, 11.2225, 13.5802, 17.3318, -145.543, -97.921, 142.381
0.119673, -1, 11.1608, 13.5647, 17.3333, -145.56, -97.9156, 142.285
0.128069, -1, 11.0876, 13.5455, 17.3371, -145.583, -97.9079, 142.154
0.13565, -1, 11.0024, 13.5224, 17.3433, -145.612, -97.8978, 141.989
0.143653, -1, 10.9056, 13.496, 17.3517, -145.645, -97.8856, 141.791
0.152454, -1, 10.798, 13.4662, 17.3619, -145.684, -97.8719, 141.565
0.159649, -1, 10.6795, 13.4332, 17.373, -145.727, -97.8571, 141.319
0.16768, -1, 10.5505, 13.3974, 17.3841, -145.771, -97.8415, 141.058
0.176495, -1, 10.4123, 13.3594, 17.3947, -145.817, -97.8257, 140.789
0.183646, -1, 10.2674, 13.3197, 17.4049, -145.865, -97.8094, 140.514
0.191649, -1, 10.1179, 13.2791, 17.4148, -145.912, -97.7928, 140.237
0.20052, -1, 9.96555, 13.2379, 17.4248, -145.96, -97.7758, 139.959
0.207669, -1, 9.81083, 13.1964, 17.4348, -146.008, -97.7586, 139.679
0.215653, -1, 9.65527, 13.1548, 17.4448, -146.056, -97.7413, 139.4
0.224463, -1, 9.50008, 13.1135, 17.4548, -146.104, -97.7242, 139.12
0.231656, -1, 9.34533, 13.0721, 17.4647, -146.152, -97.7074, 138.841
0.239702, -1, 9.1909, 13.0309, 17.4746, -146.2, -97.6906, 138.561
0.249078, -1, 9.03691, 12.9897, 17.4847, -146.248, -97.6738, 138.281
0.255741, -1, 8.88319, 12.9486, 17.4948, -146.296, -97.657, 138.001
0.26382, -1, 8.72966, 12.9075, 17.505, -146.344, -97.6398, 137.722
0.272085, -1, 8.57663, 12.8663, 17.5151, -146.392, -97.6224, 137.441
0.279816, -1, 8.42385, 12.8249, 17.5252, -146.44, -97.6048, 137.161
0.287849, -1, 8.27086, 12.7835, 17.5355, -146.488, -97.5874, 136.881
0.296098, -1, 8.11739, 12.7419, 17.5456, -146.536, -97.5703, 136.601
0.30331, -1, 8.04051, 12.7211, 17.5508, -146.56, -97.5619, 136.321
0.311829, -1, 7.8089, 12.6585, 17.5661, -146.632, -97.5368, 136.04
0.321269, -1, 7.65403, 12.6168, 17.5762, -146.68, -97.5201, 135.76
0.327753, -1, 7.49907, 12.5751, 17.5864, -146.728, -97.5033, 135.48
0.335938, -1, 7.34396, 12.5336, 17.5966, -146.776, -97.4861, 135.199
0.343896, -1, 7.18894, 12.492, 17.6069, -146.824, -97.4687, 134.919
0.35196, -1, 7.03386, 12.4506, 17.6172, -146.873, -97.4514, 134.639
0.493597, -1, 4.3198, 11.7246, 17.7991, -147.715, -97.152, 129.725
0.494822, -1, 4.3198, 11.7246, 17.7991, -147.715, -97.152, 129.725
0.496086, -1, 4.3198, 11.7246, 17.7991, -147.715, -97.152, 129.725
0.498135, -1, 4.24209, 11.7039, 17.8044, -147.74, -97.1435, 129.585
0.499444, -1, 4.24209, 11.7039, 17.8044, -147.74, -97.1435, 129.585
0.502103, -1, 4.16445, 11.6832, 17.8096, -147.764, -97.1349, 129.444
0.503367, -1, 4.16445, 11.6832, 17.8096, -147.764, -97.1349, 129.444
0.505834, -1, 4.08692, 11.6625, 17.8149, -147.788, -97.1264, 129.304
0.507084, -1, 4.08692, 11.6625, 17.8149, -147.788, -97.1264, 129.304
0.508942, -1, 4.08692, 11.6625, 17.8149, -147.788, -97.1264, 129.163
0.510478, -1, 4.00953, 11.6418, 17.8201, -147.812, -97.118, 129.163
0.511687, -1, 4.00953, 11.6418, 17.8201, -147.812, -97.118, 129.163
0.514497, -1, 3.93224, 11.6211, 17.8252, -147.836, -97.1095, 129.022
0.515807, -1, 3.93224, 11.6211, 17.8252, -147.836, -97.1095, 129.022
0.517959, -1, 3.85503, 11.6003, 17.8304, -147.86, -97.1011, 128.882
0.519464, -1, 3.85503, 11.6003, 17.8304, -147.86, -97.1011, 128.882
0.521271, -1, 3.77788, 11.5796, 17.8356, -147.885, -97.0927, 128.741
0.522717, -1, 3.77788, 11.5796, 17.8356, -147.885, -97.0927, 128.741
0.523934, -1, 3.77788, 11.5796, 17.8356, -147.885, -97.0927, 128.741
0.526679, -1, 3.70068, 11.5588, 17.8408, -147.909, -97.0843, 128.601
0.527873, -1, 3.70068, 11.5588, 17.8408, -147.909, -97.0843, 128.601
0.529956, -1, 3.62343, 11.538, 17.846, -147.933, -97.0758, 128.46
0.538618, -1, 3.46887, 11.4964, 17.8563, -147.981, -97.0586, 128.178
0.543714, -1, 3.39149, 11.4755, 17.8616, -148.005, -97.0499, 128.037
0.553655, -1, 3.15896, 11.413, 17.8773, -148.078, -97.0235, 127.615
0.559636, -1, 3.08136, 11.3921, 17.8825, -148.102, -97.0148, 127.475
0.567713, -1, 2.92604, 11.3503, 17.893, -148.15, -96.9975, 127.193
0.575657, -1, 2.77044, 11.3086, 17.9034, -148.198, -96.9805, 126.911
0.583658, -1, 2.61457, 11.2669, 17.9137, -148.246, -96.9637, 126.629
0.591635, -1, 2.45846, 11.2251, 17.9242, -148.295, -96.947, 126.348
0.599641, -1, 2.30207, 11.1834, 17.9347, -148.343, -96.9301, 126.065
0.607705, -1, 2.14543, 11.1416, 17.9452, -148.391, -96.913, 125.784
0.6157, -1, 1.98863, 11.0999, 17.9556, -148.44, -96.8956, 125.502
0.623676, -1, 1.83201, 11.0583, 17.966, -148.488, -96.8781, 125.22
0.631703, -1, 1.6756, 11.0166, 17.9765, -148.536, -96.8607, 124.938
0.639703, -1, 1.51935, 10.9748, 17.987, -148.585, -96.8436, 124.656
0.647635, -1, 1.36344, 10.9332, 17.9974, -148.634, -96.8267, 124.374
0.786337, -1, -1.29018, 10.2225, 18.1749, -149.458, -96.5355, 119.569
0.788411, -1, -1.36862, 10.2015, 18.1801, -149.482, -96.5271, 119.427
0.789601, -1, -1.36862, 10.2015, 18.1801, -149.482, -96.5271, 119.427
0.791543, -1, -1.44705, 10.1807, 18.1853, -149.507, -96.5187, 119.285
0.7929, -1, -1.44705, 10.1807, 18.1853, -149.507, -96.5187, 119.285
0.794188, -1, -1.44705, 10.1807, 18.1853, -149.507, -96.5187, 119.285
0.796294, -1, -1.52543, 10.1598, 18.1905, -149.531, -96.5103, 119.144
0.799405, -1, -1.52543, 10.1598, 18.1905, -149.531, -96.5018, 119.002
0.800772, -1, -1.60366, 10.1389, 18.1958, -149.555, -96.5018, 119.002
0.801968, -1, -1.60366, 10.1389, 18.1958, -149.555, -96.5018, 119.002
0.804938, -1, -1.68174, 10.1179, 18.2011, -149.58, -96.4933, 118.86
0.807689, -1, -1.75975, 10.097, 18.2063, -149.604, -96.4848, 118.719
0.809138, -1, -1.75975, 10.097, 18.2063, -149.604, -96.4848, 118.719
0.810336, -1, -1.75975, 10.097, 18.2063, -149.604, -96.4848, 118.719
0.812523, -1, -1.83768, 10.0761, 18.2116, -149.628, -96.4762, 118.577
0.818558, -1, -1.9155, 10.0551, 18.2168, -149.652, -96.4674, 118.435
0.820623, -1, -1.99321, 10.0342, 18.222, -149.677, -96.4586, 118.293
0.821838, -1, -1.99321, 10.0342, 18.222, -149.677, -96.4586, 118.293
0.823713, -1, -2.07082, 10.0133, 18.2273, -149.701, -96.4497, 118.152
0.825073, -1, -2.07082, 10.0133, 18.2273, -149.701, -96.4497, 118.152
0.826416, -1, -2.07082, 10.0133, 18.2273, -149.701, -96.4497, 118.152
0.829075, -1, -2.14838, 9.99232, 18.2325, -149.725, -96.4409, 118.01
0.834588, -1, -2.22592, 9.97139, 18.2377, -149.75, -96.4322, 117.868
0.839864, -1, -2.38113, 9.92954, 18.2481, -149.798, -96.4148, 117.585
0.847944, -1, -2.53673, 9.88757, 18.2586, -149.847, -96.3978, 117.301
0.855994, -1, -2.69256, 9.84566, 18.269, -149.896, -96.3809, 117.017
0.862679, -1, -2.77061, 9.82471, 18.2742, -149.92, -96.3725, 116.875
0.872166, -1, -3.00545, 9.76177, 18.2898, -149.992, -96.3472, 116.45
0.880203, -1, -3.16243, 9.71989, 18.3002, -150.042, -96.33, 116.166
0.888187, -1, -3.3199, 9.67792, 18.3107, -150.09, -96.3125, 115.882
0.896214, -1, -3.47766, 9.63589, 18.3212, -150.138, -96.2949, 115.598
0.904259, -1, -3.63544, 9.59402, 18.3317, -150.187, -96.2774, 115.314
0.912238, -1, -3.71435, 9.57309, 18.3421, -150.236, -96.2602, 115.03
0.920373, -1, -3.95141, 9.51011, 18.3525, -150.285, -96.2432, 114.745
0.927635, -1, -4.03037, 9.48912, 18.3577, -150.309, -96.2347, 114.603
0.935624, -1, -4.18818, 9.44723, 18.3681, -150.358, -96.2178, 114.319
0.943713, -1, -4.34595, 9.40524, 18.3785, -150.406, -96.2007, 114.035
0.951696, -1, -4.50346, 9.36325, 18.3888, -150.456, -96.1833, 113.75
0.959641, -1, -4.66043, 9.32124, 18.3992, -150.505, -96.1656, 113.465
0.967679, -1, -4.81696, 9.2792, 18.4096, -150.553, -96.1478, 113.18
0.975625, -1, -4.97327, 9.23713, 18.4202, -150.602, -96.1303, 112.896
0.983626, -1, -5.12931, 9.19512, 18.4307, -150.651, -96.1132, 112.611
0.991676, -1, -5.28519, 9.15307, 18.4413, -150.699, -96.0961, 112.326
0.999729, -1, -5.44118, 9.11094, 18.4518, -150.749, -96.0792, 112.041
1.00762, -1, -5.5974, 9.06888, 18.4623, -150.797, -96.0623, 111.757
1.01567, -1, -5.75394, 9.02681, 18.4727, -150.846, -96.0452, 111.472
1.02364, -1, -5.91081, 8.98466, 18.4832, -150.895, -96.0277, 111.187
1.03169, -1, -6.06817, 8.94257, 18.4935, -150.944, -96.0101, 110.902
1.03962, -1, -6.22616, 8.90042, 18.5039, -150.992, -95.9925, 110.617
1.04763, -1, -6.38446, 8.85829, 18.5142, -151.042, -95.9753, 110.331
1.05669, -1, -6.54282, 8.81623, 18.5246, -151.091, -95.9582, 110.046
1.06363, -1, -6.70134, 8.77405, 18.5352, -151.139, -95.9411, 109.761
1.07262, -1, -6.86009, 8.73191, 18.5457, -151.189, -95.9241, 109.475
1.0797, -1, -7.01861, 8.68981, 18.5563, -151.238, -95.9069, 109.19
1.08762, -1, -7.17712, 8.64765, 18.5667, -151.286, -95.8895, 108.904
1.0957, -1, -7.33545, 8.60547, 18.5771, -151.336, -95.8717, 108.619
1.10363, -1, -7.49351, 8.56317, 18.5876, -151.385, -95.854, 108.333
1.11162, -1, -7.65121, 8.52083, 18.5981, -151.434, -95.8365, 108.047
1.11976, -1, -7.80856, 8.47858, 18.6085, -151.483, -95.8193, 107.761
1.12763, -1, -7.9655, 8.43629, 18.619, -151.532, -95.8022, 107.476
1.13563, -1, -8.12215, 8.39392, 18.6293, -151.581, -95.7853, 107.19
1.14413, -1, -8.2787, 8.3516, 18.6399, -151.63, -95.7683, 106.904
1.15072, -1, -8.43534, 8.30923, 18.6504, -151.679, -95.7511, 106.618
1.15964, -1, -8.59235, 8.26686, 18.661, -151.728, -95.7336, 106.332
1.16842, -1, -8.74972, 8.22459, 18.6715, -151.777, -95.7159, 106.045
1.17562, -1, -8.90742, 8.18221, 18.6818, -151.826, -95.6983, 105.759
1.18363, -1, -9.0655, 8.13989, 18.6923, -151.875, -95.681, 105.473
1.19245, -1, -9.22399, 8.09763, 18.7028, -151.925, -95.6638, 105.186
1.19963, -1, -9.38289, 8.05527, 18.7132, -151.973, -95.6467, 104.899
1.20763, -1, -9.54198, 8.01295, 18.7237, -152.023, -95.6296, 104.613
1.21642, -1, -9.70113, 7.97071, 18.7342, -152.072, -95.6123, 104.326
1.22362, -1, -9.86042, 7.92844, 18.7447, -152.121, -95.5948, 104.039
1.23187, -1, -10.0198, 7.88607, 18.7554, -152.171, -95.5769, 103.751
1.24042, -1, -10.1791, 7.84363, 18.766, -152.22, -95.559, 103.465
1.24768, -1, -10.3382, 7.80115, 18.7766, -152.269, -95.5414, 103.178
1.25597, -1, -10.4972, 7.75865, 18.7872, -152.319, -95.5242, 102.891
1.26451, -1, -10.6556, 7.71617, 18.7976, -152.368, -95.5072, 102.604
1.27174, -1, -10.8138, 7.67365, 18.8081, -152.417, -95.4902, 102.317
1.28025, -1, -10.9716, 7.63109, 18.8186, -152.466, -95.473, 102.03
1.28858, -1, -11.1292, 7.58861, 18.829, -152.516, -95.4556, 101.742
1.29569, -1, -11.2866, 7.54616, 18.8396, -152.565, -95.4379, 101.455
1.30434, -1, -11.444, 7.50373, 18.85, -152.614, -95.4201, 101.168
1.31254, -1, -11.6015, 7.46125, 18.8606, -152.664, -95.4025, 100.88
1.31966, -1, -11.7594, 7.41883, 18.8712, -152.712, -95.3851, 100.592
1.32876, -1, -11.9178, 7.37643, 18.8818, -152.762, -95.3679, 100.304
1.33653, -1, -12.0766, 7.33404, 18.8924, -152.811, -95.3507, 100.017
1.34388, -1, -12.2358, 7.29166, 18.9029, -152.861, -95.3334, 99.7289
1.35273, -1, -12.3954, 7.24924, 18.9134, -152.911, -95.316, 99.4407
1.36121, -1, -12.5552, 7.20682, 18.924, -152.96, -95.2983, 99.1527
1.36804, -1, -12.7151, 7.16439, 18.9345, -153.009, -95.2802, 98.8649
1.37461, -1, -12.7952, 7.14316, 18.9398, -153.034, -95.2712, 98.721
1.38572, -1, -13.0354, 7.07936, 18.9556, -153.108, -95.2447, 98.2888
1.39218, -1, -13.1954, 7.03676, 18.9662, -153.158, -95.2274, 98.0006
1.40017, -1, -13.3551, 6.99417, 18.9768, -153.207, -95.2103, 97.7126
1.40896, -1, -13.5146, 6.95144, 18.9874, -153.256, -95.1931, 97.4241
1.41626, -1, -13.6738, 6.90864, 18.998, -153.306, -95.1758, 97.1353
1.42443, -1, -13.7534, 6.88729, 19.0033, -153.331, -95.1671, 96.991
1.43161, -1, -13.9121, 6.84458, 19.0137, -153.38, -95.1495, 96.7026
1.43965, -1, -14.0705, 6.80185, 19.0242, -153.429, -95.1317, 96.414
1.44761, -1, -14.2287, 6.75921, 19.0348, -153.479, -95.1139, 96.125
1.45568, -1, -14.3869, 6.71654, 19.0453, -153.528, -95.0964, 95.8359
1.46365, -1, -14.5452, 6.67384, 19.0559, -153.577, -95.0791, 95.547
1.4716, -1, -14.7038, 6.63131, 19.0665, -153.627, -95.0619, 95.2578
1.47961, -1, -14.8628, 6.58876, 19.077, -153.677, -95.0448, 94.9683
1.48766, -1, -15.0221, 6.54605, 19.0878, -153.726, -95.0274, 94.6792
1.49561, -1, -15.1819, 6.50343, 19.0985, -153.776, -95.0096, 94.3903
1.50361, -1, -15.342, 6.46083, 19.1092, -153.826, -94.9915, 94.1012
1.51162, -1, -15.5025, 6.41808, 19.1198, -153.875, -94.9736, 93.8117
1.51961, -1, -15.6633, 6.37539, 19.1304, -153.925, -94.956, 93.5224
1.52769, -1, -15.8241, 6.33262, 19.1411, -153.975, -94.9386, 93.2332
1.5356, -1, -15.9849, 6.28974, 19.1517, -154.024, -94.9214, 92.9437
1.54361, -1, -16.1458, 6.24689, 19.1623, -154.074, -94.9043, 92.6539
1.5526, -1, -16.3065, 6.20398, 19.1728, -154.124, -94.8871, 92.3644
1.5596, -1, -16.467, 6.161, 19.1833, -154.173, -94.8695, 92.0748
1.56862, -1, -16.6274, 6.11804, 19.1939, -154.223, -94.8517, 91.7846
1.57567, -1, -16.7871, 6.07511, 19.2046, -154.273, -94.8338, 91.4945
1.58362, -1, -16.9465, 6.03213, 19.2152, -154.323, -94.8161, 91.2044
1.59161, -1, -17.1058, 5.98919, 19.2258, -154.372, -94.7986, 90.9142
1.59967, -1, -17.2649, 5.94625, 19.2364, -154.422, -94.7812, 90.6238
1.60762, -1, -17.4239, 5.90342, 19.247, -154.472, -94.764, 90.3333
1.6156, -1, -17.5833, 5.8606, 19.2577, -154.522, -94.7466, 90.0432
1.62373, -1, -17.7427, 5.81778, 19.2684, -154.571, -94.7289, 89.7531
1.63162, -1, -17.9023, 5.775, 19.2791, -154.621, -94.7111, 89.4625
1.63967, -1, -18.0624, 5.73219, 19.2897, -154.671, -94.6929, 89.1719
1.64761, -1, -18.2229, 5.6894, 19.3003, -154.721, -94.675, 88.8814
1.65561, -1, -18.3838, 5.64661, 19.3111, -154.771, -94.6574, 88.5908
1.66367, -1, -18.5452, 5.60365, 19.3218, -154.821, -94.64, 88.2997
1.6716, -1, -18.7067, 5.56067, 19.3325, -154.871, -94.6227, 88.0089
1.67961, -1, -18.8684, 5.51772, 19.3431, -154.921, -94.6054, 87.718
1.68768, -1, -19.0301, 5.4747, 19.3536, -154.971, -94.5878, 87.4268
1.6957, -1, -19.1916, 5.43153, 19.3643, -155.02, -94.5701, 87.1354
1.70361, -1, -19.3531, 5.38841, 19.3749, -155.071, -94.552, 86.8441
1.71167, -1, -19.5144, 5.34523, 19.3855, -155.12, -94.5339, 86.5525
1.7196, -1, -19.6753, 5.30199, 19.3961, -155.17, -94.5162, 86.2608
1.72774, -1, -19.8359, 5.25885, 19.4068, -155.221, -94.4985, 85.9689
1.73561, -1, -19.9964, 5.21565, 19.4175, -155.27, -94.4812, 85.6774
1.74362, -1, -20.1564, 5.17249, 19.4283, -155.32, -94.4638, 85.3859
1.75191, -1, -20.3161, 5.12953, 19.4392, -155.371, -94.4463, 85.0941
1.75971, -1, -20.476, 5.0865, 19.45, -155.42, -94.4284, 84.8021
1.7677, -1, -20.6361, 5.0434, 19.4607, -155.471, -94.4103, 84.5104
1.77609, -1, -20.7965, 5.00046, 19.4714, -155.521, -94.3922, 84.2185
1.78372, -1, -20.9572, 4.95746, 19.4821, -155.571, -94.3745, 83.9263
1.79177, -1, -21.1182, 4.91438, 19.4927, -155.621, -94.357, 83.6341
1.80031, -1, -21.2797, 4.87128, 19.5034, -155.672, -94.3397, 83.3422
1.80761, -1, -21.4418, 4.82807, 19.514, -155.721, -94.3225, 83.05
1.81563, -1, -21.6039, 4.7848, 19.5248, -155.772, -94.3051, 82.7574
1.82457, -1, -21.7661, 4.74159, 19.5355, -155.822, -94.2875, 82.4649
1.83172, -1, -21.9286, 4.69821, 19.5462, -155.872, -94.2695, 82.1722
1.83972, -1, -22.0911, 4.65481, 19.5571, -155.922, -94.2515, 81.8795
1.8487, -1, -22.2536, 4.61146, 19.5677, -155.973, -94.2337, 81.5866
1.8559, -1, -22.416, 4.56801, 19.5784, -156.023, -94.2161, 81.2939
1.86402, -1, -22.578, 4.5246, 19.5891, -156.073, -94.1986, 81.0012
1.8706, -1, -22.6589, 4.50289, 19.5945, -156.098, -94.1899, 80.8548
1.8801, -1, -22.9011, 4.43774, 19.6105, -156.173, -94.1637, 80.4152
1.88824, -1, -23.0623, 4.39442, 19.6212, -156.224, -94.1458, 80.1223
1.89705, -1, -23.2233, 4.35111, 19.6318, -156.274, -94.1276, 79.8293
1.90266, -1, -23.3037, 4.32943, 19.6373, -156.299, -94.1185, 79.6825
1.91222, -1, -23.545, 4.26452, 19.6536, -156.375, -94.0912, 79.2422
1.9211, -1, -23.6255, 4.24288, 19.659, -156.425, -94.0735, 78.9491
1.92759, -1, -23.7866, 4.19958, 19.6697, -156.45, -94.0647, 78.8024
1.93564, -1, -23.9479, 4.15631, 19.6804, -156.501, -94.0472, 78.5087
1.94361, -1, -24.1096, 4.11291, 19.6911, -156.551, -94.0297, 78.2148
1.95159, -1, -24.2718, 4.06954, 19.7019, -156.602, -94.0122, 77.9209
1.95971, -1, -24.4345, 4.02614, 19.7126, -156.652, -93.9943, 77.627
1.9676, -1, -24.5974, 3.98262, 19.7232, -156.702, -93.9762, 77.3327
1.9746, -1, -24.7606, 3.93904, 19.7339, -156.753, -93.9581, 77.0383
1.98359, -1, -24.924, 3.89551, 19.7446, -156.803, -93.9403, 76.7445
1.9916, -1, -25.0874, 3.85195, 19.7555, -156.854, -93.9226, 76.4502
1.99966, -1, -25.2507, 3.80838, 19.7664, -156.904, -93.9051, 76.1559
2.00759, -1, -25.4138, 3.76479, 19.7773, -156.955, -93.8876, 75.8615
2.0156, -1, -25.5767, 3.72112, 19.788, -157.005, -93.87, 75.5672
2.02265, -1, -25.7393, 3.67752, 19.7987, -157.055, -93.8521, 75.2727
2.03159, -1, -25.9018, 3.63409, 19.8095, -157.106, -93.8337, 74.9779
2.03961, -1, -26.064, 3.59057, 19.8203, -157.156, -93.8153, 74.6833
2.04766, -1, -26.2258, 3.54709, 19.831, -157.207, -93.7972, 74.3887
2.05719, -1, -26.3873, 3.50372, 19.8418, -157.258, -93.7794, 74.0939
2.0636, -1, -26.549, 3.46022, 19.8526, -157.308, -93.7617, 73.7986
2.07259, -1, -26.7109, 3.41671, 19.8634, -157.359, -93.7442, 73.5036
2.07959, -1, -26.8732, 3.37326, 19.8743, -157.41, -93.7265, 73.2084
2.09034, -1, -27.0358, 3.32966, 19.8851, -157.46, -93.7085, 72.765
2.0956, -1, -27.1987, 3.2861, 19.8959, -157.511, -93.6903, 72.6173
2.10366, -1, -27.3619, 3.24251, 19.9066, -157.561, -93.6719, 72.3221
2.11159, -1, -27.5255, 3.19875, 19.9174, -157.612, -93.6539, 72.0267
2.1196, -1, -27.6894, 3.15506, 19.9283, -157.663, -93.636, 71.7313
2.12772, -1, -27.8534, 3.11144, 19.939, -157.713, -93.6182, 71.4355
2.13559, -1, -28.0177, 3.06771, 19.9498, -157.764, -93.6005, 71.14
2.14359, -1, -28.1819, 3.02399, 19.9606, -157.815, -93.5828, 70.8442
2.15165, -1, -28.3462, 2.98025, 19.9714, -157.865, -93.5647, 70.5479
2.1596, -1, -28.5102, 2.93651, 19.9824, -157.916, -93.5464, 70.252
2.16759, -1, -28.674, 2.89285, 19.9932, -157.967, -93.5279, 69.9561
2.17566, -1, -28.8375, 2.84913, 20.004, -158.018, -93.5097, 69.6598
2.18359, -1, -29.0005, 2.80542, 20.0147, -158.069, -93.4917, 69.3633
2.19159, -1, -29.1633, 2.76177, 20.0255, -158.12, -93.474, 69.0668
2.19968, -1, -29.326, 2.71809, 20.0364, -158.17, -93.4564, 68.7702
2.20759, -1, -29.4887, 2.6744, 20.0472, -158.221, -93.4387, 68.4734
2.21559, -1, -29.6514, 2.63065, 20.058, -158.272, -93.4207, 68.1764
2.22365, -1, -29.8144, 2.58686, 20.0688, -158.323, -93.4024, 67.8798
2.23159, -1, -29.9775, 2.54311, 20.0798, -158.374, -93.3839, 67.5831
2.23959, -1, -30.1409, 2.49921, 20.0908, -158.425, -93.3656, 67.2861
2.24769, -1, -30.3047, 2.45521, 20.1018, -158.476, -93.3476, 66.989
2.25567, -1, -30.469, 2.4113, 20.1127, -158.527, -93.3298, 66.6922
2.2637, -1, -30.6338, 2.36726, 20.1235, -158.578, -93.3121, 66.395
2.27175, -1, -30.7988, 2.32326, 20.1343, -158.629, -93.2943, 66.0973
2.27974, -1, -30.9639, 2.2793, 20.1452, -158.68, -93.2762, 65.8001
2.28769, -1, -31.1289, 2.23522, 20.1561, -158.731, -93.2578, 65.503
2.29582, -1, -31.294, 2.19127, 20.167, -158.782, -93.2393, 65.2056
2.30359, -1, -31.459, 2.14738, 20.1778, -158.833, -93.221, 64.9077
2.31161, -1, -31.6236, 2.10333, 20.1886, -158.884, -93.203, 64.61
2.31973, -1, -31.7881, 2.05933, 20.1996, -158.935, -93.1852, 64.3121
2.32762, -1, -31.9524, 2.0154, 20.2106, -158.987, -93.1676, 64.014
2.33574, -1, -32.1164, 1.97136, 20.2215, -159.037, -93.15, 63.7157
2.344, -1, -32.28, 1.92734, 20.2324, -159.089, -93.1321, 63.418
2.35182, -1, -32.4435, 1.88332, 20.2433, -159.14, -93.1139, 63.12
2.36002, -1, -32.6071, 1.83915, 20.2543, -159.191, -93.0955, 62.8217
2.36659, -1, -32.689, 1.81708, 20.2598, -159.217, -93.0863, 62.6726
2.37598, -1, -32.935, 1.7509, 20.2762, -159.294, -93.0592, 62.2251
2.38415, -1, -33.0993, 1.7066, 20.2871, -159.345, -93.0413, 61.9266
2.39309, -1, -33.264, 1.66239, 20.2979, -159.396, -93.0236, 61.6278
2.40019, -1, -33.429, 1.61815, 20.3089, -159.447, -93.0057, 61.3293
2.40819, -1, -33.5945, 1.57386, 20.3199, -159.499, -92.9876, 61.0308
2.41704, -1, -33.6773, 1.5296, 20.3308, -159.55, -92.9692, 60.7319
2.42413, -1, -33.8431, 1.50749, 20.3363, -159.575, -92.9504, 60.4327
2.43224, -1, -34.009, 1.46325, 20.3471, -159.627, -92.9319, 60.1337
2.43964, -1, -34.1749, 1.41907, 20.3581, -159.678, -92.9228, 59.9841
2.44759, -1, -34.341, 1.37485, 20.3691, -159.729, -92.9047, 59.6845
2.45562, -1, -34.507, 1.33063, 20.38, -159.781, -92.8868, 59.3848
2.46364, -1, -34.6728, 1.28644, 20.3909, -159.833, -92.8691, 59.0853
2.47158, -1, -34.838, 1.24222, 20.4018, -159.884, -92.8512, 58.7861
2.47969, -1, -35.003, 1.19799, 20.4129, -159.935, -92.833, 58.4865
2.48759, -1, -35.1677, 1.15369, 20.424, -159.987, -92.8144, 58.1865
2.49557, -1, -35.3323, 1.10937, 20.435, -160.038, -92.7959, 57.8869
2.50362, -1, -35.4963, 1.06523, 20.4462, -160.089, -92.7776, 57.5871
2.51158, -1, -35.6586, 1.02141, 20.4574, -160.141, -92.7596, 57.2873
2.51963, -1, -35.818, 0.978166, 20.469, -160.191, -92.7416, 56.9887
2.52764, -1, -35.9736, 0.936086, 20.4809, -160.242, -92.7239, 56.6936
2.53563, -1, -36.1238, 0.895635, 20.4928, -160.292, -92.7064, 56.4044
2.54358, -1, -36.2664, 0.857392, 20.5047, -160.339, -92.6892, 56.1256
2.55316, -1, -36.3994, 0.822085, 20.5162, -160.384, -92.665, 55.7402
2.55963, -1, -36.5212, 0.789844, 20.5268, -160.424, -92.6576, 55.6238
2.56758, -1, -36.6301, 0.76106, 20.5361, -160.46, -92.6444, 55.4127
2.5766, -1, -36.7247, 0.736024, 20.5434, -160.49, -92.6334, 55.2346
2.58357, -1, -36.8046, 0.714834, 20.5484, -160.514, -92.6247, 55.0918
2.59159, -1, -36.8707, 0.697453, 20.5513, -160.533, -92.6183, 54.9837
2.59971, -1, -36.9238, 0.683496, 20.5526, -160.546, -92.6138, 54.9074
2.60758, -1, -36.9641, 0.672702, 20.553, -160.555, -92.611, 54.8559
2.61554, -1, -36.9935, 0.665001, 20.5527, -160.561, -92.6093, 54.8247
2.62363, -1, -37.0137, 0.660004, 20.5523, -160.564, -92.6084, 54.8069
2.63164, -1, -37.0261, 0.657058, 20.5519, -160.566, -92.6079, 54.7979
2.63961, 2, -37.0326, 0.655479, 20.5518, -160.567, -92.6077, 54.7937
2.64765, 2, -37.0348, 0.654743, 20.5517, -160.567, -92.6076, 54.7918
2.65558, 2, -37.0346, 0.654424, 20.5516, -160.568, -92.6076, 54.7909
2.66357, 2, -37.0339, 0.654312, 20.5516, -160.568, -92.6075, 54.7906
2.67164, 2, -37.0336, 0.654232, 20.5516, -160.568, -92.6075, 54.7904
2.67963, 2, -37.034, 0.65417, 20.5516, -160.568, -92.6075, 54.7903
2.68758, 2, -37.035, 0.654131, 20.5515, -160.568, -92.6076, 54.7903
2.69563, 2, -37.0361, 0.65402, 20.5513, -160.568, -92.6076, 54.7903
2.70357, 2, -37.0376, 0.653817, 20.5511, -160.568, -92.6076, 54.7904
2.71156, 2, -37.039, 0.653558, 20.5509, -160.568, -92.6076, 54.7904
2.7197, 2, -37.0402, 0.653299, 20.5508, -160.568, -92.6077, 54.7904
2.72759, 2, -37.0412, 0.653093, 20.5505, -160.568, -92.6077, 54.7905
2.73557, 2, -37.0416, 0.652986, 20.5504, -160.568, -92.6077, 54.7906
2.74364, 2, -37.0416, 0.652937, 20.5502, -160.568, -92.6078, 54.7908
2.75161, 2, -37.0412, 0.652926, 20.55, -160.568, -92.6079, 54.7909
2.75971, 2, -37.0404, 0.652966, 20.55, -160.568, -92.6079, 54.7911
2.76775, 2, -37.0394, 0.653018, 20.5499, -160.568, -92.6079, 54.7913
2.77576, 2, -37.0379, 0.653081, 20.5499, -160.568, -92.608, 54.7915
2.78368, 2, -37.0364, 0.65314, 20.5498, -160.568, -92.608, 54.7916
2.79174, 2, -37.0353, 0.653167, 20.5497, -160.568, -92.608, 54.7917
2.79979, 2, -37.0346, 0.653161, 20.5496, -160.567, -92.608, 54.7918
2.80759, 2, -37.0344, 0.653128, 20.5496, -160.567, -92.608, 54.7918
2.81566, 2, -37.0344, 0.6531, 20.5496, -160.567, -92.6081, 54.7919
2.8236, 2, -37.0346, 0.653028, 20.5496, -160.568, -92.608, 54.792
2.83162, 2, -37.0348, 0.652975, 20.5496, -160.567, -92.608, 54.792
2.83985, 2, -37.0354, 0.652943, 20.5495, -160.567, -92.608, 54.7921
2.84812, 2, -37.0361, 0.652925, 20.5495, -160.567, -92.6081, 54.7921
2.85581, 2, -37.0369, 0.652938, 20.5495, -160.567, -92.6081, 54.7921
2.86393, 2, -37.0375, 0.652934, 20.5495, -160.567, -92.6081, 54.7922
2.8724, 2, -37.0379, 0.652969, 20.5495, -160.567, -92.6081, 54.7922
2.88003, 2, -37.0381, 0.652991, 20.5495, -160.567, -92.6081, 54.7922
2.88656, 2, -37.0381, 0.652997, 20.5495, -160.567, -92.6081, 54.7922
2.89655, 2, -37.0381, 0.653016, 20.5495, -160.567, -92.6081, 54.7922
2.90414, 2, -37.0377, 0.653031, 20.5495, -160.567, -92.6081, 54.7923
2.91218, 2, -37.0373, 0.653026, 20.5495, -160.567, -92.6081, 54.7924
2.92059, 2, -37.037, 0.653017, 20.5495, -160.567, -92.6081, 54.7924
2.92817, 2, -37.0369, 0.653007, 20.5494, -160.567, -92.6081, 54.7925
2.9362, 2, -37.0368, 0.652984, 20.5494, -160.567, -92.6081, 54.7925
2.94449, 2, -37.0367, 0.652959, 20.5494, -160.567, -92.6082, 54.7927
2.95156, 2, -37.0367, 0.652949, 20.5494, -160.567, -92.6082, 54.7927
2.95967, 2, -37.0367, 0.652946, 20.5494, -160.567, -92.6082, 54.7927
2.96765, 2, -37.0368, 0.652948, 20.5494, -160.567, -92.6082, 54.7927
2.97556, 2, -37.0368, 0.652964, 20.5493, -160.567, -92.6081, 54.7928
2.98361, 2, -37.0369, 0.652969, 20.5494, -160.567, -92.6081, 54.7928
2.99156, 2, -37.0372, 0.652973, 20.5494, -160.567, -92.6082, 54.7929
2.99962, 2, -37.0373, 0.652985, 20.5494, -160.567, -92.6083, 54.7929
3.00762, 2, -37.0374, 0.652993, 20.5493, -160.567, -92.6082, 54.793
3.01556, 2, -37.0374, 0.653002, 20.5493, -160.567, -92.6083, 54.793
3.02356, 2, -37.0374, 0.652998, 20.5493, -160.567, -92.6083, 54.7931
3.03164, 2, -37.0374, 0.652992, 20.5493, -160.567, -92.6083, 54.7932
3.03962, 2, -37.0374, 0.652977, 20.5493, -160.567, -92.6083, 54.7932
3.04757, 2, -37.0374, 0.65297, 20.5493, -160.567, -92.6083, 54.7932
3.05563, 2, -37.0373, 0.652966, 20.5493, -160.567, -92.6083, 54.7933
3.06545, 2, -37.0373, 0.652952, 20.5492, -160.567, -92.6083, 54.7933
3.07156, 2, -37.0373, 0.652956, 20.5492, -160.567, -92.6084, 54.7934
3.07968, 2, -37.0373, 0.652972, 20.5492, -160.567, -92.6083, 54.7934
3.08861, 2, -37.0373, 0.652975, 20.5492, -160.567, -92.6083, 54.7935
3.09558, 2, -37.0373, 0.652993, 20.5492, -160.567, -92.6083, 54.7935
3.10365, 2, -37.0373, 0.653013, 20.5492, -160.567, -92.6083, 54.7936
3.11156, 2, -37.0373, 0.653018, 20.5492, -160.567, -92.6083, 54.7936
3.11962, 2, -37.0373, 0.653006, 20.5492, -160.567, -92.6084, 54.7936
3.12764, 2, -37.0372, 0.652983, 20.5492, -160.567, -92.6084, 54.7937
3.13562, 2, -37.0372, 0.652973, 20.5492, -160.567, -92.6083, 54.7938
3.14356, 2, -37.0372, 0.65298, 20.5491, -160.567, -92.6083, 54.7938
3.15162, 2, -37.0372, 0.652971, 20.5492, -160.567, -92.6083, 54.7939
3.15961, 2, -37.0372, 0.652979, 20.5492, -160.567, -92.6083, 54.7939
3.16757, 2, -37.0372, 0.65296, 20.5491, -160.567, -92.6084, 54.7939
3.17563, 2, -37.0372, 0.652962, 20.5491, -160.567, -92.6084, 54.7939
3.18355, 2, -37.0372, 0.65298, 20.5491, -160.567, -92.6084, 54.794
3.19156, 2, -37.0372, 0.652983, 20.5491, -160.567, -92.6084, 54.794
3.19968, 2, -37.0372, 0.653011, 20.5491, -160.567, -92.6084, 54.794
3.20756, 2, -37.0371, 0.65301, 20.5491, -160.567, -92.6084, 54.794
3.21556, 2, -37.0371, 0.652997, 20.5491, -160.567, -92.6084, 54.7941
3.22362, 2, -37.0371, 0.653003, 20.5491, -160.567, -92.6084, 54.7941
3.23156, 2, -37.0371, 0.653006, 20.5491, -160.567, -92.6084, 54.7942
3.23961, 2, -37.0371, 0.653008, 20.5491, -160.567, -92.6084, 54.7942
3.24763, 2, -37.0371, 0.653008, 20.5491, -160.567, -92.6084, 54.7943
3.25559, 2, -37.0371, 0.653009, 20.5491, -160.567, -92.6084, 54.7942
3.26366, 2, -37.0371, 0.652997, 20.5491, -160.567, -92.6084, 54.7943
3.27173, 2, -37.037, 0.652984, 20.549, -160.567, -92.6084, 54.7943
3.2797, 2, -37.037, 0.653011, 20.549, -160.567, -92.6084, 54.7944
3.28767, 2, -37.037, 0.65301, 20.549, -160.567, -92.6084, 54.7944
3.29573, 2, -37.037, 0.653009, 20.549, -160.567, -92.6084, 54.7944
3.30372, 2, -37.037, 0.653009, 20.549, -160.567, -92.6084, 54.7944
3.31167, 2, -37.037, 0.653038, 20.549, -160.567, -92.6084, 54.7945
3.3198, 2, -37.037, 0.65303, 20.549, -160.567, -92.6084, 54.7945
3.3276, 2, -37.037, 0.653037, 20.549, -160.567, -92.6084, 54.7945
3.33567, 2, -37.037, 0.653022, 20.549, -160.567, -92.6084, 54.7945
3.34379, 2, -37.037, 0.653026, 20.549, -160.567, -92.6084, 54.7945
3.35173, 2, -37.0369, 0.653035, 20.5489, -160.567, -92.6084, 54.7945
3.36018, 2, -37.0369, 0.653016, 20.5489, -160.567, -92.6084, 54.7945
3.36792, 2, -37.0369, 0.653, 20.5489, -160.567, -92.6084, 54.7946
3.37591, 2, -37.0369, 0.652993, 20.5489, -160.567, -92.6085, 54.7947
3.38261, 2, -37.0369, 0.652991, 20.5489, -160.567, -92.6085, 54.7947
3.39211, 2, -37.0369, 0.652993, 20.5489, -160.567, -92.6085, 54.7947
3.40014, 2, -37.0368, 0.653026, 20.5489, -160.567, -92.6085, 54.7947
3.40857, 2, -37.0369, 0.653042, 20.5489, -160.567, -92.6085, 54.7947
3.41618, 2, -37.0368, 0.653054, 20.5489, -160.567, -92.6085, 54.7948
3.42412, 2, -37.0368, 0.65305, 20.5489, -160.567, -92.6085, 54.7948
3.4322, 2, -37.0368, 0.653057, 20.5488, -160.567, -92.6085, 54.7948
3.4403, 2, -37.0368, 0.653068, 20.5488, -160.567, -92.6085, 54.7948
3.44756, 2, -37.0368, 0.653073, 20.5488, -160.567, -92.6085, 54.7949
3.45555, 2, -37.0368, 0.653075, 20.5488, -160.566, -92.6085, 54.7949
3.46359, 2, -37.0367, 0.653058, 20.5488, -160.566, -92.6085, 54.795
3.47161, 2, -37.0367, 0.653039, 20.5488, -160.566, -92.6085, 54.795
3.47961, 2, -37.0367, 0.653023, 20.5488, -160.566, -92.6085, 54.7949
3.48761, 2, -37.0367, 0.653026, 20.5488, -160.566, -92.6085, 54.795
3.49554, 2, -37.0367, 0.653043, 20.5488, -160.566, -92.6085, 54.795
3.50355, 2, -37.0367, 0.653035, 20.5488, -160.566, -92.6085, 54.795
3.51159, 2, -37.0366, 0.653028, 20.5488, -160.566, -92.6085, 54.795
3.5196, 2, -37.0366, 0.653036, 20.5487, -160.566, -92.6085, 54.795
3.52756, 2, -37.0366, 0.653051, 20.5487, -160.566, -92.6085, 54.795
3.53562, 2, -37.0366, 0.653054, 20.5487, -160.566, -92.6085, 54.795
3.54354, 2, -37.0367, 0.653041, 20.5487, -160.566, -92.6085, 54.7951
3.55154, 2, -37.0366, 0.65306, 20.5487, -160.566, -92.6085, 54.7951
3.56055, 2, -37.0366, 0.653069, 20.5487, -160.566, -92.6085, 54.7951
3.56755, 2, -37.0366, 0.653055, 20.5487, -160.566, -92.6085, 54.7951
3.57661, 2, -37.0366, 0.653056, 20.5487, -160.566, -92.6085, 54.7951
3.58361, 2, -37.0366, 0.653049, 20.5487, -160.566, -92.6085, 54.7951
3.59154, 2, -37.0366, 0.653027, 20.5487, -160.566, -92.6085, 54.795
3.59973, 2, -37.0366, 0.653028, 20.5487, -160.566, -92.6085, 54.7951
3.60765, 2, -37.0366, 0.653025, 20.5487, -160.566, -92.6086, 54.7951
3.61554, 2, -37.0366, 0.653016, 20.5486, -160.566, -92.6086, 54.7951
3.62354, 2, -37.0366, 0.653031, 20.5486, -160.566, -92.6086, 54.7951
3.63161, 2, -37.0366, 0.653037, 20.5486, -160.566, -92.6086, 54.7951
3.63986, 2, -37.0366, 0.65304, 20.5486, -160.566, -92.6086, 54.7952
3.64781, 2, -37.0366, 0.653053, 20.5486, -160.566, -92.6086, 54.7952
3.65554, 2, -37.0365, 0.653066, 20.5486, -160.566, -92.6085, 54.7952
3.66358, 2, -37.0365, 0.653072, 20.5486, -160.566, -92.6086, 54.7951
3.67161, 2, -37.0365, 0.653075, 20.5486, -160.566, -92.6086, 54.7952
3.67959, 2, -37.0365, 0.653057, 20.5486, -160.566, -92.6086, 54.7951
3.68755, 2, -37.0365, 0.65305, 20.5486, -160.566, -92.6086, 54.7951
3.69561, 2, -37.0365, 0.653053, 20.5486, -160.566, -92.6086, 54.7951
3.70356, 2, -37.0364, 0.653048, 20.5486, -160.566, -92.6086, 54.7951
3.71153, 2, -37.0365, 0.653027, 20.5486, -160.566, -92.6086, 54.7951
3.71966, 2, -37.0365, 0.653046, 20.5486, -160.566, -92.6087, 54.7951
3.72754, 4, -37.0364, 0.653034, 20.5485, -160.566, -92.6087, 54.7952
3.73555, 4, -37.0364, 0.653031, 20.5485, -160.566, -92.6086, 54.7952
3.74361, 4, -37.0364, 0.653045, 20.5485, -160.566, -92.6086, 54.7952
3.75156, 4, -37.0364, 0.653044, 20.5485, -160.566, -92.6086, 54.7952
3.75963, 4, -37.0363, 0.653054, 20.5485, -160.566, -92.6086, 54.7952
3.76772, 4, -37.0364, 0.653055, 20.5485, -160.566, -92.6087, 54.7952
3.77565, 4, -37.0363, 0.65306, 20.5485, -160.566, -92.6087, 54.7952
3.78364, 4, -37.0363, 0.653058, 20.5485, -160.566, -92.6087, 54.7952
3.79173, 4, -37.0363, 0.653031, 20.5485, -160.566, -92.6087, 54.7952
3.7997, 4, -37.0363, 0.653038, 20.5485, -160.566, -92.6087, 54.7952
3.80778, 4, -37.0363, 0.653051, 20.5485, -160.566, -92.6087, 54.7952
3.81554, 4, -37.0363, 0.653054, 20.5484, -160.566, -92.6087, 54.7952
3.82357, 4, -37.0363, 0.653041, 20.5484, -160.566, -92.6087, 54.7952
3.83193, 4, -37.0363, 0.653031, 20.5484, -160.566, -92.6087, 54.7952
3.86146, 4, -37.0362, 0.65307, 20.5484, -160.566, -92.6087, 54.7952
3.86591, 4, -37.0362, 0.653072, 20.5484, -160.566, -92.6087, 54.7951
3.86856, 4, -37.0362, 0.653074, 20.5484, -160.566, -92.6087, 54.7952
3.86983, 4, -37.0362, 0.653074, 20.5484, -160.566, -92.6087, 54.7952
3.87194, 4, -37.0361, 0.653064, 20.5484, -160.566, -92.6087, 54.7952
3.87995, 4, -37.0354, 0.652912, 20.5484, -160.566, -92.6087, 54.7952
3.88804, 4, -37.0329, 0.651957, 20.5486, -160.566, -92.6087, 54.7952
3.89615, 4, -37.0272, 0.649031, 20.5494, -160.566, -92.6087, 54.7952
3.9041, 4, -37.0176, 0.643002, 20.552, -160.566, -92.6087, 54.7952
3.91251, 4, -37.0042, 0.633412, 20.5574, -160.565, -92.6087, 54.7952
3.92117, 4, -36.986, 0.619688, 20.5672, -160.563, -92.6087, 54.7952
3.92805, 5, -36.9748, 0.611113, 20.5742, -160.562, -92.6087, 54.7952
3.93637, 5, -36.9483, 0.578892, 20.6047, -160.556, -92.6085, 54.7952
3.94731, 5, -36.8991, 0.551667, 20.6336, -160.55, -92.608, 54.7951
3.95148, 5, -36.8803, 0.536469, 20.6506, -160.546, -92.6077, 54.7951
3.95959, 5, -36.8389, 0.502572, 20.6893, -160.538, -92.6068, 54.7951
3.96759, 5, -36.7924, 0.463825, 20.7333, -160.528, -92.6054, 54.7951
3.97559, 5, -36.7408, 0.420787, 20.7819, -160.517, -92.6038, 54.795
3.98541, 5, -36.6549, 0.349514, 20.8602, -160.499, -92.6012, 54.7951
3.99169, 5, -36.6242, 0.324442, 20.8873, -160.493, -92.6003, 54.7951
4.00092, 5, -36.527, 0.24628, 20.97, -160.475, -92.5975, 54.7951
4.00752, 5, -36.4935, 0.219597, 20.9977, -160.469, -92.5965, 54.795
4.0161, 5, -36.4257, 0.165893, 21.0532, -160.456, -92.5946, 54.795
4.0235, 5, -36.3572, 0.111924, 21.1089, -160.445, -92.5926, 54.795
4.03159, 5, -36.2885, 0.0578765, 21.1644, -160.433, -92.5906, 54.795
4.04182, 5, -36.1852, -0.0228722, 21.2478, -160.414, -92.5875, 54.7951
4.04752, 5, -36.1509, -0.0496817, 21.2755, -160.408, -92.5865, 54.7952
4.05557, 5, -36.0822, -0.1031, 21.331, -160.396, -92.5845, 54.7953
4.06371, 5, -36.0136, -0.15627, 21.3864, -160.383, -92.5824, 54.7955
4.07234, 5, -35.9451, -0.209241, 21.4417, -160.37, -92.5803, 54.7959
4.07959, 5, -35.8766, -0.262019, 21.4969, -160.357, -92.5781, 54.7964
4.08869, 5, -35.8078, -0.314684, 21.5521, -160.344, -92.5761, 54.7972
4.10035, 5, -35.7043, -0.393754, 21.6346, -160.326, -92.5729, 54.7986
4.1035, 5, -35.6697, -0.420092, 21.662, -160.319, -92.5718, 54.7991
4.11491, 5, -35.5653, -0.499262, 21.7438, -160.3, -92.5687, 54.801
4.11975, 5, -35.5304, -0.525675, 21.7711, -160.294, -92.5676, 54.8018
4.12753, 5, -35.4604, -0.578522, 21.8254, -160.282, -92.5654, 54.8033
4.1356, 5, -35.3902, -0.631351, 21.8795, -160.269, -92.5633, 54.8049
4.14375, 5, -35.3197, -0.684142, 21.9336, -160.256, -92.5611, 54.8066
4.15158, 5, -35.2492, -0.736915, 21.9876, -160.243, -92.5589, 54.8086
4.15967, 5, -35.1786, -0.789367, 22.0414, -160.229, -92.5568, 54.8106
4.16768, 5, -35.108, -0.841619, 22.0951, -160.216, -92.5545, 54.8128
4.1765, 5, -35.0374, -0.893803, 22.1488, -160.203, -92.5523, 54.8152
4.18354, 5, -34.9668, -0.945631, 22.2023, -160.19, -92.55, 54.8176
4.19169, 5, -34.8964, -0.997249, 22.2556, -160.177, -92.5476, 54.8201
4.19965, 5, -34.8259, -1.04869, 22.309, -160.164, -92.5454, 54.8228
4.20753, 5, -34.7554, -1.10014, 22.362, -160.151, -92.543, 54.8256
4.21553, 5, -34.6848, -1.15154, 22.4149, -160.138, -92.5407, 54.8285
4.22359, 5, -34.6139, -1.20286, 22.4677, -160.125, -92.5384, 54.8315
4.23153, 5, -34.5429, -1.25432, 22.5202, -160.112, -92.536, 54.8345
4.24118, 5, -34.4717, -1.30572, 22.5726, -160.099, -92.5337, 54.8377
4.24769, 5, -34.4003, -1.35715, 22.6249, -160.085, -92.5313, 54.841
4.25653, 5, -34.3287, -1.40855, 22.6771, -160.071, -92.529, 54.8443
4.26359, 5, -34.257, -1.45984, 22.729, -160.057, -92.5266, 54.8479
4.2717, 5, -34.1852, -1.51098, 22.781, -160.044, -92.5241, 54.8516
4.28019, 5, -34.1132, -1.56187, 22.8327, -160.03, -92.5217, 54.8554
4.28762, 5, -34.0412, -1.61259, 22.8844, -160.017, -92.5193, 54.8593
4.29585, 5, -33.969, -1.66304, 22.936, -160.003, -92.517, 54.8632
4.30378, 5, -33.8968, -1.71326, 22.9874, -159.99, -92.5146, 54.8673
4.31169, 5, -33.8247, -1.7633, 23.0387, -159.976, -92.5122, 54.8714
4.31993, 5, -33.7526, -1.81327, 23.0898, -159.962, -92.5098, 54.8756
4.32765, 5, -33.6803, -1.86319, 23.1407, -159.948, -92.5075, 54.8799
4.33633, 5, -33.608, -1.91298, 23.1915, -159.933, -92.5051, 54.8843
4.34369, 5, -33.5353, -1.96305, 23.2421, -159.919, -92.5028, 54.8885
4.35166, 5, -33.4625, -2.01339, 23.2927, -159.905, -92.5005, 54.8926
4.36076, 5, -33.3896, -2.06401, 23.3431, -159.891, -92.4982, 54.8957
4.36815, 5, -33.3169, -2.11502, 23.3934, -159.877, -92.4958, 54.8974
4.37643, 6, -33.2444, -2.16654, 23.4439, -159.863, -92.4935, 54.8977
4.38473, 6, -33.1723, -2.21891, 23.4945, -159.848, -92.4908, 54.8959
4.392, 6, -33.1005, -2.27215, 23.5457, -159.833, -92.4876, 54.8905
4.39852, 6, -33.0648, -2.29909, 23.5715, -159.825, -92.4857, 54.8855
4.4089, 7, -32.9584, -2.38168, 23.6507, -159.798, -92.478, 54.8642
4.41644, 7, -32.8882, -2.43823, 23.7049, -159.779, -92.4707, 54.8465
4.42596, 7, -32.8184, -2.49631, 23.7608, -159.758, -92.4615, 54.8279
4.43206, 7, -32.7837, -2.52593, 23.7893, -159.748, -92.45, 54.8096
4.44006, 7, -32.715, -2.58635, 23.8473, -159.725, -92.4435, 54.8008
4.44758, 8, -32.6468, -2.6484, 23.9068, -159.702, -92.429, 54.7836
4.45553, 8, -32.5794, -2.71225, 23.9675, -159.677, -92.4125, 54.7666
4.46661, 8, -32.4798, -2.81128, 24.0607, -159.637, -92.3843, 54.7398
4.47173, 8, -32.4469, -2.84508, 24.0923, -159.623, -92.374, 54.7303
4.48176, 9, -32.3493, -2.94869, 24.1885, -159.581, -92.3414, 54.6994
4.48755, 9, -32.317, -2.98389, 24.2211, -159.567, -92.33, 54.6882
4.49567, 9, -32.253, -3.05526, 24.287, -159.537, -92.3064, 54.6645
4.50372, 9, -32.1895, -3.12801, 24.3539, -159.505, -92.2815, 54.639
4.51151, 9, -32.1266, -3.20198, 24.4218, -159.473, -92.2547, 54.6125
4.51952, 9, -32.0642, -3.27724, 24.4907, -159.441, -92.2262, 54.5846
4.52756, 10, -32.0024, -3.35377, 24.5605, -159.407, -92.1965, 54.5551
4.53552, 10, -31.9412, -3.4317, 24.6314, -159.372, -92.1657, 54.5239
4.54365, 10, -31.8807, -3.51105, 24.7034, -159.336, -92.1337, 54.4905
4.55156, 10, -31.8206, -3.59181, 24.7764, -159.3, -92.0997, 54.4555
4.55951, 10, -31.7611, -3.67407, 24.8505, -159.262, -92.064, 54.4194
4.56751, 11, -31.7022, -3.75772, 24.9255, -159.223, -92.0277, 54.3821
4.57652, 11, -31.6438, -3.84293, 25.0015, -159.184, -91.9903, 54.343
4.58351, 11, -31.5859, -3.9296, 25.0784, -159.144, -91.9508, 54.3018
4.59265, 11, -31.5285, -4.01769, 25.1561, -159.103, -91.9098, 54.2591
4.60041, 11, -31.4717, -4.10725, 25.2351, -159.06, -91.8681, 54.2156
4.60752, 12, -31.4154, -4.19834, 25.315, -159.017, -91.8248, 54.1704
4.61669, 12, -31.3596, -4.29082, 25.396, -158.973, -91.7793, 54.1232
4.62397, 12, -31.3043, -4.38467, 25.4781, -158.927, -91.7334, 54.0742
4.63151, 12, -31.2495, -4.47984, 25.5612, -158.881, -91.6861, 54.0244
4.64036, 12, -31.1952, -4.5764, 25.6454, -158.835, -91.6367, 53.9729
4.64754, 13, -31.1415, -4.67442, 25.7304, -158.786, -91.5868, 53.9192
4.65553, 13, -31.0882, -4.77379, 25.8164, -158.738, -91.5352, 53.8647
4.66643, 13, -31.0093, -4.92559, 25.9474, -158.663, -91.4547, 53.7804
4.67165, 13, -30.9833, -4.97699, 25.9916, -158.637, -91.4276, 53.7511
4.67956, 13, -30.9316, -5.08084, 26.0808, -158.586, -91.3717, 53.6918
4.68747, 14, -30.8805, -5.18602, 26.1712, -158.534, -91.3144, 53.6317
4.69553, 14, -30.83, -5.29276, 26.2625, -158.479, -91.2567, 53.5694
4.70358, 14, -30.7801, -5.40098, 26.3548, -158.426, -91.1964, 53.5058
4.71151, 14, -30.7306, -5.51066, 26.4479, -158.371, -91.136, 53.4415
4.72075, 14, -30.6816, -5.62188, 26.5419, -158.314, -91.0733, 53.3748
4.72871, 15, -30.6331, -5.73461, 26.6372, -158.258, -91.0094, 53.3071
4.73553, 15, -30.5851, -5.84874, 26.7335, -158.199, -90.9444, 53.2383
4.74373, 15, -30.5376, -5.96405, 26.8311, -158.141, -90.8776, 53.1673
4.75261, 15, -30.4907, -6.08079, 26.9297, -158.081, -90.8103, 53.0957
4.75956, 15, -30.4441, -6.19905, 27.0292, -158.02, -90.7407, 53.0221
4.76764, 15, -30.3982, -6.31859, 27.1295, -157.959, -90.6705, 52.9465
4.77559, 16, -30.3528, -6.43974, 27.2308, -157.896, -90.5981, 52.8704
4.78365, 16, -30.3078, -6.56236, 27.3333, -157.833, -90.5254, 52.7917
4.79181, 16, -30.2633, -6.68629, 27.4369, -157.768, -90.4507, 52.7126
4.80049, 16, -30.2194, -6.81179, 27.5417, -157.704, -90.375, 52.6315
4.80767, 16, -30.1759, -6.93885, 27.6475, -157.637, -90.2977, 52.5493
4.81568, 17, -30.1329, -7.06744, 27.7541, -157.571, -90.2194, 52.4659
4.82369, 17, -30.0905, -7.19767, 27.8615, -157.503, -90.1396, 52.381
4.83163, 17, -30.0485, -7.32932, 27.9699, -157.434, -90.0583, 52.2953
4.84101, 17, -30.0071, -7.46218, 28.0795, -157.364, -89.976, 52.2074
4.85028, 17, -29.9661, -7.59643, 28.1904, -157.294, -89.8922, 52.1189
4.85579, 18, -29.9256, -7.73221, 28.3024, -157.223, -89.8072, 52.0285
4.86375, 18, -29.8856, -7.8694, 28.4152, -157.15, -89.7206, 51.9373
4.87223, 18, -29.8462, -8.00804, 28.5288, -157.077, -89.6334, 51.844
4.87992, 18, -29.8071, -8.14773, 28.6433, -157.002, -89.5446, 51.7499
4.888, 18, -29.7685, -8.28881, 28.7591, -156.927, -89.4544, 51.654
4.89608, 19, -29.7304, -8.43131, 28.8762, -156.851, -89.3633, 51.5575
4.90411, 19, -29.6927, -8.57543, 28.9943, -156.774, -89.2708, 51.4594
4.91208, 19, -29.6555, -8.72107, 29.1132, -156.697, -89.1768, 51.3607
4.92334, 19, -29.6188, -8.86794, 29.2328, -156.618, -89.0821, 51.2606
4.92808, 19, -29.6006, -8.94184, 29.293, -156.579, -88.9861, 51.1596
4.93604, 20, -29.5646, -9.09079, 29.4141, -156.498, -88.8888, 51.0571
4.9435, 20, -29.5291, -9.24117, 29.5365, -156.418, -88.8399, 51.0055
4.95155, 20, -29.4939, -9.3932, 29.66, -156.336, -88.7414, 50.9011
4.95961, 20, -29.4593, -9.54641, 29.7843, -156.253, -88.6415, 50.7957
4.96764, 20, -29.4252, -9.70069, 29.9094, -156.17, -88.5407, 50.689
4.97561, 21, -29.3916, -9.85628, 30.0356, -156.086, -88.4388, 50.5811
4.98361, 21, -29.3584, -10.0134, 30.1627, -156, -88.3355, 50.4724
4.99167, 21, -29.3254, -10.172, 30.2909, -155.914, -88.2315, 50.3624
4.99971, 21, -29.2931, -10.3318, 30.4202, -155.827, -88.1264, 50.2516
5.00751, 21, -29.2611, -10.4924, 30.5502, -155.74, -88.0199, 50.1401
5.01573, 22, -29.2296, -10.6543, 30.6811, -155.651, -87.9128, 50.0274
5.02364, 22, -29.1984, -10.8177, 30.8129, -155.561, -87.8046, 49.9141
5.03151, 22, -29.1675, -10.9824, 30.9458, -155.471, -87.6953, 49.7998
5.04202, 22, -29.1222, -11.231, 31.1466, -155.333, -87.5297, 49.6265
5.04764, 22, -29.1072, -11.3144, 31.2141, -155.287, -87.4739, 49.5686
5.05744, 23, -29.0629, -11.5672, 31.4178, -155.147, -87.3054, 49.3928
5.06425, 23, -29.0483, -11.6522, 31.4861, -155.1, -87.2487, 49.334
5.07151, 23, -29.0193, -11.8231, 31.6233, -155.005, -87.1345, 49.2155
5.0805, 23, -28.9908, -11.9947, 31.7612, -154.91, -87.0199, 49.0965
5.09097, 23, -28.9488, -12.2544, 31.9699, -154.765, -86.8458, 48.9171
5.09563, 23, -28.935, -12.3418, 32.0399, -154.716, -86.7874, 48.8569
5.10348, 24, -28.9076, -12.5173, 32.1806, -154.618, -86.6697, 48.7363
5.11156, 24, -28.8805, -12.6932, 32.322, -154.519, -86.5511, 48.6154
5.11966, 24, -28.8537, -12.8699, 32.464, -154.419, -86.432, 48.4933
5.12985, 24, -28.8144, -13.1378, 32.6787, -154.268, -86.2512, 48.3094
5.13549, 24, -28.8014, -13.2277, 32.7508, -154.217, -86.1908, 48.2479
5.14363, 25, -28.7757, -13.4079, 32.8955, -154.114, -86.0692, 48.1245
5.15156, 25, -28.7503, -13.5888, 33.0407, -154.011, -85.9467, 48.0011
5.15949, 25, -28.725, -13.771, 33.1865, -153.907, -85.8239, 47.8777
5.16773, 25, -28.6999, -13.9546, 33.3331, -153.803, -85.6999, 47.7539
5.17654, 25, -28.6751, -14.1388, 33.4806, -153.697, -85.5756, 47.6299
5.18449, 26, -28.6507, -14.3235, 33.6288, -153.591, -85.4505, 47.5061
5.19251, 26, -28.6266, -14.5093, 33.7773, -153.484, -85.3249, 47.3817
5.20055, 26, -28.6028, -14.6966, 33.9266, -153.376, -85.1989, 47.2573
5.20849, 26, -28.5791, -14.8845, 34.0768, -153.268, -85.0719, 47.1332
5.21599, 26, -28.5555, -15.0724, 34.2276, -153.158, -84.9447, 47.009
5.22363, 27, -28.5322, -15.2611, 34.3787, -153.048, -84.8167, 46.8851
5.2315, 27, -28.5092, -15.4509, 34.5304, -152.938, -84.6885, 46.7619
5.24159, 27, -28.4863, -15.641, 34.6827, -152.826, -84.5595, 46.6385
5.24794, 27, -28.4635, -15.8314, 34.8359, -152.714, -84.4302, 46.5153
5.2555, 27, -28.4412, -16.023, 34.9894, -152.601, -84.3006, 46.3926
5.26349, 28, -28.4189, -16.2161, 35.1429, -152.488, -84.1704, 46.2701
5.27182, 28, -28.3965, -16.4097, 35.2971, -152.374, -84.04, 46.148
5.27958, 28, -28.3743, -16.6038, 35.4521, -152.259, -83.909, 46.0264
5.28783, 28, -28.3524, -16.799, 35.6076, -152.144, -83.7781, 45.9056
5.29574, 28, -28.3304, -16.995, 35.7631, -152.027, -83.6465, 45.7854
5.30445, 29, -28.3086, -17.1913, 35.9191, -151.91, -83.5148, 45.6662
5.31205, 29, -28.287, -17.3877, 36.0758, -151.793, -83.3827, 45.5475
5.3199, 29, -28.2655, -17.5851, 36.2332, -151.675, -83.2502, 45.4297
5.3289, 29, -28.244, -17.7831, 36.3907, -151.556, -83.1173, 45.3127
5.33552, 29, -28.2225, -17.9809, 36.5482, -151.436, -82.9842, 45.1962
5.34388, 29, -28.2014, -18.179, 36.7066, -151.316, -82.8509, 45.081
5.35245, 30, -28.1802, -18.378, 36.8655, -151.195, -82.7174, 44.967
5.35966, 30, -28.1589, -18.5773, 37.0242, -151.073, -82.5839, 44.8544
5.36878, 30, -28.1377, -18.7765, 37.1826, -150.951, -82.4502, 44.7435
5.37672, 30, -28.1164, -18.9765, 37.3414, -150.829, -82.3165, 44.6341
5.38391, 30, -28.095, -19.1774, 37.5006, -150.706, -82.1823, 44.527
5.3929, 31, -28.0734, -19.3782, 37.6597, -150.583, -82.0486, 44.421
5.40008, 31, -28.0519, -19.5787, 37.8186, -150.459, -81.9144, 44.3169
5.40888, 31, -28.0304, -19.7797, 37.9779, -150.334, -81.7804, 44.2146
5.41694, 31, -28.0088, -19.9807, 38.1379, -150.209, -81.6462, 44.1135
5.42497, 31, -27.9869, -20.1813, 38.2979, -150.083, -81.5118, 44.0142
5.43288, 32, -27.9651, -20.3817, 38.4575, -149.957, -81.3776, 43.9165
5.44229, 32, -27.9541, -20.4822, 38.5372, -149.894, -81.3105, 43.8213
5.44836, 32, -27.9317, -20.6837, 38.777, -149.704, -81.1095, 43.7279
5.45756, 32, -27.8979, -20.9852, 38.937, -149.576, -80.9755, 43.6374
5.46349, 32, -27.8865, -21.0855, 39.0167, -149.513, -80.9088, 43.5932
5.47152, 33, -27.8636, -21.2864, 39.1755, -149.385, -80.7757, 43.5066
5.47949, 33, -27.8404, -21.4871, 39.3344, -149.257, -80.6429, 43.4236
5.48757, 33, -27.8168, -21.687, 39.4933, -149.13, -80.5105, 43.343
5.49565, 33, -27.7926, -21.8861, 39.6515, -149.002, -80.3786, 43.2661
5.50346, 33, -27.7679, -22.0854, 39.8088, -148.875, -80.2472, 43.1921
5.51291, 34, -27.73, -22.3829, 40.044, -148.683, -80.0507, 43.0879
5.51949, 34, -27.7172, -22.4815, 40.1224, -148.62, -79.9853, 43.0548
5.52749, 34, -27.6911, -22.6785, 40.2787, -148.492, -79.8545, 42.9902
5.53548, 34, -27.6647, -22.8755, 40.4341, -148.364, -79.724, 42.9296
5.54365, 34, -27.6377, -23.0719, 40.5892, -148.236, -79.5932, 42.8724
5.55146, 35, -27.6103, -23.2675, 40.7445, -148.108, -79.4627, 42.8177
5.55955, 35, -27.5828, -23.4632, 40.8996, -147.98, -79.332, 42.7666
5.56777, 35, -27.5551, -23.6594, 41.054, -147.851, -79.2017, 42.7193
5.57629, 35, -27.5271, -23.8551, 41.2082, -147.722, -79.0716, 42.6753
5.58349, 35, -27.4989, -24.0501, 41.3624, -147.592, -78.9415, 42.6344
5.59152, 36, -27.4705, -24.2454, 41.5168, -147.461, -78.812, 42.5968
5.60053, 36, -27.4416, -24.4404, 41.6705, -147.331, -78.6823, 42.5636
5.60747, 36, -27.4124, -24.6347, 41.8237, -147.2, -78.5536, 42.5344
5.61665, 36, -27.3829, -24.8283, 41.9767, -147.069, -78.4248, 42.5096
5.62366, 36, -27.3527, -25.0218, 42.1293, -146.938, -78.2966, 42.4889
5.63168, 37, -27.3217, -25.2147, 42.281, -146.807, -78.1689, 42.4729
5.64025, 37, -27.2898, -25.4062, 42.4315, -146.676, -78.0415, 42.4613
5.64748, 37, -27.257, -25.5966, 42.5809, -146.546, -77.9145, 42.4547
5.65555, 37, -27.2233, -25.7863, 42.7294, -146.417, -77.7877, 42.4518
5.66697, 37, -27.171, -26.0683, 42.95, -146.224, -77.5984, 42.4543
5.67163, 37, -27.1531, -26.1614, 43.0228, -146.16, -77.5353, 42.4583
5.68048, 38, -27.1166, -26.3466, 43.1675, -146.032, -77.41, 42.471
5.68849, 38, -27.0794, -26.5312, 43.3114, -145.905, -77.2852, 42.4888
5.6961, 38, -27.0413, -26.7145, 43.4545, -145.778, -77.1608, 42.512
5.70445, 38, -27.0024, -26.8962, 43.5966, -145.651, -77.0369, 42.5407
5.71148, 38, -26.9627, -27.0771, 43.7378, -145.525, -76.9134, 42.5753
5.71949, 39, -26.9223, -27.2577, 43.8782, -145.398, -76.7906, 42.6161
5.72755, 39, -26.8812, -27.4374, 44.0178, -145.272, -76.6677, 42.6626
5.73548, 39, -26.8391, -27.6159, 44.1565, -145.146, -76.5453, 42.7145
5.74363, 39, -26.7963, -27.7935, 44.2942, -145.02, -76.423, 42.7725
5.75245, 39, -26.7528, -27.971, 44.4307, -144.895, -76.3007, 42.8374
5.75955, 40, -26.7083, -28.1475, 44.5663, -144.77, -76.1786, 42.9076
5.76814, 40, -26.6627, -28.3222, 44.7008, -144.646, -76.0566, 42.9848
5.77563, 40, -26.6163, -28.4956, 44.8341, -144.523, -75.9353, 43.0682
5.78364, 40, -26.5689, -28.6681, 44.9661, -144.4, -75.814, 43.1576
5.79258, 40, -26.5204, -28.8394, 45.0968, -144.278, -75.6935, 43.2544
5.79973, 41, -26.4709, -29.0087, 45.2263, -144.157, -75.5733, 43.3574
5.80759, 41, -26.4204, -29.1764, 45.3545, -144.036, -75.4534, 43.4673
5.81746, 41, -26.3686, -29.343, 45.4813, -143.916, -75.3341, 43.584
5.82449, 41, -26.3155, -29.5084, 45.6068, -143.798, -75.215, 43.7078
5.83157, 41, -26.2613, -29.6717, 45.7306, -143.68, -75.0967, 43.8388
5.83952, 42, -26.2056, -29.833, 45.8525, -143.564, -74.9787, 43.9772
5.85251, 42, -26.1191, -30.0718, 46.0318, -143.392, -74.8027, 44.1985
5.85568, 42, -26.0895, -30.1505, 46.0905, -143.336, -74.7445, 44.2756
5.86783, 42, -25.998, -30.3828, 46.2632, -143.17, -74.5699, 44.518
5.87209, 42, -25.9668, -30.459, 46.3198, -143.116, -74.5121, 44.6023
5.88016, 43, -25.9028, -30.6098, 46.4311, -143.009, -74.3968, 44.7764
5.88869, 43, -25.8371, -30.7583, 46.5402, -142.904, -74.2819, 44.9584
5.89638, 43, -25.7698, -30.9047, 46.6471, -142.8, -74.1676, 45.1481
5.90487, 43, -25.7008, -31.0488, 46.7523, -142.699, -74.0532, 45.3455
5.91206, 43, -25.6304, -31.1905, 46.8555, -142.599, -73.9398, 45.5505
5.92011, 43, -25.5584, -31.3302, 46.9567, -142.501, -73.8268, 45.7631
5.92896, 44, -25.4848, -31.4678, 47.0558, -142.405, -73.7142, 45.9837
5.93605, 44, -25.4472, -31.5358, 47.1045, -142.312, -73.6025, 46.2124
5.9453, 44, -25.3708, -31.7366, 47.2467, -142.22, -73.4912, 46.4493
5.95296, 44, -25.2927, -31.8671, 47.3385, -142.131, -73.3807, 46.6943
5.95951, 44, -25.2128, -31.9313, 47.3835, -142.088, -73.3257, 46.8199
5.96747, 45, -25.131, -32.0578, 47.4718, -142.003, -73.2161, 47.0774
5.9766, 45, -25.0045, -32.2422, 47.5995, -141.882, -73.0527, 47.4795
5.98348, 45, -24.9612, -32.3023, 47.6406, -141.842, -72.9985, 47.6176
5.99284, 45, -24.8283, -32.4778, 47.7594, -141.729, -72.8362, 48.0443
6.00088, 45, -24.7827, -32.5908, 47.8348, -141.657, -72.7289, 48.3394
6.00747, 46, -24.6899, -32.6459, 47.8714, -141.623, -72.6755, 48.4902
6.01832, 46, -24.5462, -32.8064, 47.9769, -141.524, -72.5161, 48.9548
6.02367, 46, -24.4971, -32.8582, 48.0105, -141.493, -72.4635, 49.1137
6.03144, 46, -24.3972, -32.959, 48.0754, -141.435, -72.3587, 49.4383
6.0395, 46, -24.295, -33.0561, 48.1368, -141.379, -72.255, 49.7711
6.04901, 47, -24.1375, -33.1946, 48.2225, -141.304, -72.1018, 50.285
6.05547, 47, -24.0837, -33.2388, 48.2492, -141.281, -72.0512, 50.4605
6.06346, 47, -23.9743, -33.3241, 48.3, -141.237, -71.9509, 50.8178
6.07347, 47, -23.8051, -33.4445, 48.3692, -141.181, -71.8028, 51.3697
6.07948, 47, -23.7473, -33.4827, 48.3903, -141.165, -71.7539, 51.5581
6.08753, 48, -23.6296, -33.5555, 48.4296, -141.136, -71.6572, 51.9414
6.09562, 48, -23.5093, -33.624, 48.4647, -141.11, -71.5623, 52.3334
6.10351, 48, -23.3865, -33.6879, 48.4957, -141.09, -71.4688, 52.7348
6.11152, 48, -23.2612, -33.7469, 48.5226, -141.075, -71.3769, 53.1457
6.11969, 48, -23.1332, -33.8009, 48.5451, -141.065, -71.2872, 53.5655
6.12746, 49, -23.0023, -33.8497, 48.5632, -141.06, -71.1994, 53.9947
6.13547, 49, -22.8684, -33.8933, 48.5769, -141.059, -71.1131, 54.4314
6.14347, 49, -22.7316, -33.9313, 48.5858, -141.064, -71.0295, 54.8756
6.15153, 49, -22.5918, -33.9636, 48.5901, -141.075, -70.9476, 55.3277
6.15952, 49, -22.4493, -33.9903, 48.5901, -141.092, -70.8683, 55.7868
6.16764, 50, -22.3039, -34.0109, 48.585, -141.116, -70.7913, 56.2536
6.17828, 50, -22.081, -34.0303, 48.5679, -141.162, -70.6813, 56.9669
6.18348, 50, -22.0054, -34.0336, 48.5596, -141.18, -70.6462, 57.2086
6.19431, 50, -21.7739, -34.0347, 48.5269, -141.245, -70.5453, 57.9453
6.19964, 50, -21.6952, -34.0319, 48.5132, -141.27, -70.5134, 58.1946
6.20748, 51, -21.5355, -34.0213, 48.4815, -141.324, -70.4528, 58.6983
6.21549, 51, -21.3729, -34.0039, 48.4447, -141.385, -70.3948, 59.2078
6.22362, 51, -21.2077, -33.9796, 48.4023, -141.452, -70.3411, 59.724
6.23153, 51, -21.0399, -33.9482, 48.3542, -141.525, -70.2912, 60.246
6.23947, 51, -20.8696, -33.9096, 48.3005, -141.604, -70.2445, 60.774
6.24762, 51, -20.6968, -33.8636, 48.241, -141.689, -70.2024, 61.3069
6.25676, 52, -20.5212, -33.8097, 48.1755, -141.781, -70.1652, 61.8468
6.26347, 52, -20.3428, -33.7479, 48.1041, -141.88, -70.1324, 62.3933
6.27298, 52, -20.1616, -33.678, 48.0266, -141.984, -70.104, 62.9464
6.27971, 52, -19.9778, -33.5999, 47.9428, -142.095, -70.0807, 63.505
6.28762, 52, -19.7914, -33.5134, 47.8527, -142.213, -70.0628, 64.0703
6.29559, 53, -19.6029, -33.4183, 47.7564, -142.336, -70.0504, 64.6409
6.30357, 53, -19.4126, -33.315, 47.6542, -142.466, -70.0436, 65.2165
6.31164, 53, -19.2202, -33.2036, 47.546, -142.602, -70.0415, 65.7954
6.31946, 53, -19.0261, -33.084, 47.4321, -142.742, -70.0447, 66.3779
6.32783, 53, -18.8303, -32.9561, 47.3121, -142.888, -70.0539, 66.9633
6.33646, 54, -18.6326, -32.8198, 47.1863, -143.039, -70.0694, 67.5499
6.34353, 54, -18.4331, -32.6753, 47.0548, -143.194, -70.0915, 68.1373
6.35158, 54, -18.2317, -32.5226, 46.9179, -143.354, -70.1205, 68.7261
6.35976, 54, -18.0289, -32.3616, 46.7752, -143.518, -70.1554, 69.3168
6.36773, 54, -17.8248, -32.1917, 46.6266, -143.686, -70.1968, 69.9088
6.37606, 55, -17.6199, -32.0125, 46.4718, -143.86, -70.2465, 70.5035
6.38433, 55, -17.4138, -31.8241, 46.3106, -144.038, -70.3037, 71.1028
6.39256, 55, -17.206, -31.6263, 46.1426, -144.221, -70.3687, 71.7064
6.40086, 55, -16.9965, -31.4183, 45.9671, -144.409, -70.4431, 72.3141
6.41176, 55, -16.7853, -31.1994, 45.784, -144.602, -70.5259, 72.9272
6.41605, 56, -16.5723, -30.9701, 45.5942, -144.8, -70.6184, 73.5452
6.4241, 56, -16.3581, -30.7302, 45.3974, -145.002, -70.7195, 74.1671
6.43237, 56, -16.1431, -30.4792, 45.1925, -145.209, -70.8302, 74.7917
6.44052, 56, -15.928, -30.2176, 44.9809, -145.419, -70.9503, 75.4196
6.44804, 56, -15.8205, -30.0829, 44.8731, -145.526, -71.0797, 76.0496
6.45542, 57, -15.6051, -29.8052, 44.6523, -145.741, -71.148, 76.3649
6.46348, 57, -15.3885, -29.5173, 44.424, -145.959, -71.2918, 76.9962
6.47152, 57, -15.1709, -29.2191, 44.19, -146.179, -71.4453, 77.6288
6.47945, 57, -14.9525, -28.9109, 43.9496, -146.402, -71.6084, 78.2618
6.48745, 57, -14.7345, -28.5945, 43.7033, -146.625, -71.7811, 78.8929
6.49555, 58, -14.5169, -28.2696, 43.453, -146.85, -71.9626, 79.5223
6.50361, 58, -14.3004, -27.9376, 43.198, -147.074, -72.152, 80.148
6.51344, 58, -13.9782, -27.4248, 42.8096, -147.407, -72.4501, 81.0755
6.51946, 58, -13.8717, -27.2505, 42.6786, -147.517, -72.5529, 81.381
6.52751, 58, -13.6595, -26.8966, 42.4143, -147.736, -72.7637, 81.9877
6.53547, 58, -13.4486, -26.5365, 42.1477, -147.953, -72.9811, 82.5881
6.54345, 59, -13.239, -26.169, 41.8771, -148.167, -73.2058, 83.1822
6.55169, 59, -13.0314, -25.795, 41.6031, -148.38, -73.4379, 83.7711
6.55942, 59, -12.8255, -25.4141, 41.3255, -148.591, -73.6785, 84.3567
6.56745, 59, -12.6205, -25.0265, 41.0435, -148.801, -73.9274, 84.9391
6.57647, 59, -12.4166, -24.6308, 40.7577, -149.009, -74.1856, 85.5176
6.58345, 60, -12.2137, -24.2274, 40.467, -149.215, -74.4527, 86.0931
6.59246, 60, -12.0122, -23.8167, 40.1728, -149.42, -74.7289, 86.6658
6.5996, 60, -11.812, -23.3997, 39.8749, -149.623, -75.0138, 87.2353
6.60975, 60, -11.5149, -22.7628, 39.4238, -149.922, -75.4564, 88.0797
6.61545, 60, -11.417, -22.548, 39.2724, -150.02, -75.6075, 88.3587
6.62346, 61, -11.2232, -22.1156, 38.969, -150.213, -75.9143, 88.9114
6.63156, 61, -11.0316, -21.6793, 38.6648, -150.401, -76.2262, 89.456
6.63945, 61, -10.8423, -21.2396, 38.3603, -150.584, -76.5422, 89.9907
6.65026, 61, -10.5628, -20.5739, 37.9043, -150.849, -77.0239, 90.7747
6.65558, 61, -10.4708, -20.3503, 37.7523, -150.935, -77.1862, 91.0312
6.66358, 62, -10.2887, -19.9008, 37.4489, -151.103, -77.514, 91.5377
6.67147, 62, -10.1096, -19.4483, 37.1449, -151.265, -77.8463, 92.0354
6.67959, 62, -9.93309, -18.9941, 36.8411, -151.424, -78.1835, 92.5249
6.69146, 62, -9.67339, -18.3085, 36.3834, -151.652, -78.6989, 93.2463
6.69551, 62, -9.58806, -18.0792, 36.2309, -151.726, -78.8731, 93.4827
6.70342, 63, -9.41906, -17.62, 35.9259, -151.871, -79.2247, 93.9496
6.7115, 63, -9.25221, -17.1595, 35.6221, -152.01, -79.5801, 94.4068
6.71951, 63, -9.08771, -16.6973, 35.3197, -152.144, -79.9381, 94.854
6.72757, 63, -8.92578, -16.2332, 35.0186, -152.272, -80.2986, 95.2911
6.73545, 63, -8.76635, -15.7666, 34.7193, -152.395, -80.6611, 95.7172
6.74345, 63, -8.60951, -15.2981, 34.4213, -152.512, -81.0262, 96.1336
6.75194, 64, -8.45507, -14.8281, 34.1254, -152.625, -81.3944, 96.5395
6.75978, 64, -8.30295, -14.3564, 33.8292, -152.732, -81.7666, 96.9358
6.76773, 64, -8.15318, -13.8842, 33.5335, -152.835, -82.1431, 97.3231
6.77611, 64, -8.00571, -13.4121, 33.238, -152.933, -82.5239, 97.7002
6.78378, 65, -7.86062, -12.941, 32.9437, -153.026, -82.9081, 98.0665
6.79247, 65, -7.71812, -12.4711, 32.6514, -153.114, -83.2943, 98.4213
6.80032, 65, -7.57854, -12.0023, 32.3621, -153.195, -83.6812, 98.7625
6.80801, 65, -7.44202, -11.5345, 32.0772, -153.271, -84.0677, 99.0896
6.81646, 65, -7.30853, -11.0674, 31.7959, -153.341, -84.453, 99.4021
6.82487, 66, -7.17804, -10.6018, 31.5195, -153.403, -84.8371, 99.6999
6.83442, 66, -7.04994, -10.139, 31.2465, -153.461, -85.2198, 99.9824
6.83955, 66, -6.92398, -9.67994, 30.9774, -153.513, -85.6022, 100.249
6.84754, 66, -6.80003, -9.22632, 30.7123, -153.56, -85.9841, 100.501
6.85556, 66, -6.67824, -8.77911, 30.4504, -153.601, -86.3646, 100.737
6.86364, 66, -6.55876, -8.33774, 30.1931, -153.636, -86.743, 100.956
6.87172, 67, -6.44183, -7.90281, 29.9409, -153.666, -87.1177, 101.157
6.8802, 67, -6.32792, -7.47406, 29.695, -153.69, -87.4881, 101.341
6.88885, 67, -6.21688, -7.0511, 29.4565, -153.708, -87.8527, 101.507
6.89593, 67, -6.10856, -6.63375, 29.2245, -153.72, -88.2113, 101.656
6.90479, 67, -6.0027, -6.22299, 28.9993, -153.727, -88.5643, 101.786
6.91254, 68, -5.89894, -5.81883, 28.7805, -153.73, -88.9127, 101.899
6.92008, 68, -5.797, -5.42027, 28.566, -153.729, -89.2577, 101.995
6.9281, 68, -5.69678, -5.02771, 28.3554, -153.723, -89.6002, 102.073
6.93609, 68, -5.5982, -4.64058, 28.1488, -153.712, -89.9417, 102.134
6.94408, 68, -5.54949, -4.44906, 28.0465, -153.697, -90.2823, 102.175
6.95222, 69, -5.4534, -4.069, 27.7442, -153.677, -90.6222, 102.199
6.96103, 69, -5.35901, -3.69234, 27.548, -153.653, -90.9617, 102.206
6.96751, 69, -5.26636, -3.31939, 27.4514, -153.639, -91.1312, 102.202
6.97799, 69, -5.1307, -2.76706, 27.1659, -153.592, -91.6387, 102.157
6.98363, 69, -5.08638, -2.58465, 27.0725, -153.574, -91.8073, 102.132
6.9927, 70, -4.95551, -2.04252, 26.799, -153.515, -92.311, 102.022
6.99952, 70, -4.91252, -1.86393, 26.7097, -153.494, -92.4781, 101.974
7.00751, 70, -4.82753, -1.5105, 26.5333, -153.447, -92.8114, 101.863
7.01543, 70, -4.74358, -1.16257, 26.3611, -153.398, -93.1425, 101.729
7.02348, 70, -4.6607, -0.819584, 26.1934, -153.346, -93.4715, 101.573
7.03156, 71, -4.57888, -0.483231, 26.0295, -153.29, -93.7975, 101.395
7.03944, 71, -4.49804, -0.153224, 25.8696, -153.232, -94.1204, 101.197
7.04754, 71, -4.41829, 0.16976, 25.715, -153.17, -94.4399, 100.978
7.05544, 71, -4.33945, 0.486434, 25.566, -153.107, -94.7551, 100.738
7.0635, 71, -4.26133, 0.796881, 25.4218, -153.042, -95.0667, 100.478
7.0731, 72, -4.18412, 1.10031, 25.2141, -152.94, -95.5269, 100.051
7.07959, 72, -4.10747, 1.39735, 25.1471, -152.905, -95.6786, 99.8983
7.08757, 72, -4.03106, 1.68729, 25.0158, -152.834, -95.9794, 99.5783
7.0965, 72, -3.95493, 1.97087, 24.888, -152.763, -96.2777, 99.2377
7.1036, 72, -3.8789, 2.24856, 24.7634, -152.69, -96.5734, 98.8765
7.11167, 72, -3.80293, 2.51988, 24.6418, -152.617, -96.8667, 98.4937
7.11944, 73, -3.7271, 2.78561, 24.5232, -152.544, -97.1576, 98.0886
7.12841, 73, -3.65106, 3.04512, 24.408, -152.47, -97.4462, 97.6612
7.13545, 73, -3.57477, 3.29794, 24.2963, -152.396, -97.732, 97.211
7.14344, 73, -3.49806, 3.54481, 24.1883, -152.323, -98.0149, 96.7394
7.15246, 73, -3.42102, 3.78476, 24.0843, -152.252, -98.2943, 96.2469
7.15958, 74, -3.34332, 4.0163, 23.9843, -152.18, -98.5696, 95.7348
7.16755, 74, -3.26491, 4.23975, 23.888, -152.111, -98.8398, 95.2052
7.17868, 74, -3.18584, 4.45468, 23.7515, -152.01, -99.2342, 94.3841
7.18343, 74, -3.10613, 4.65968, 23.7082, -151.977, -99.3624, 94.1041
7.1915, 74, -3.02573, 4.85499, 23.6247, -151.914, -99.6132, 93.5354
7.19945, 75, -2.94443, 5.0408, 23.5456, -151.853, -99.8557, 92.9576
7.20933, 75, -2.86216, 5.21625, 23.4708, -151.796, -100.09, 92.3722
7.21549, 75, -2.7789, 5.38064, 23.3999, -151.74, -100.314, 91.78
7.22343, 75, -2.6948, 5.53429, 23.333, -151.689, -100.529, 91.1808
7.23158, 75, -2.60978, 5.6771, 23.2702, -151.64, -100.735, 90.5753
7.23948, 76, -2.52377, 5.80862, 23.2115, -151.594, -100.931, 89.9629
7.24749, 76, -2.4368, 5.92862, 23.1572, -151.553, -101.119, 89.3422
7.25556, 76, -2.34899, 6.03684, 23.1072, -151.516, -101.297, 88.7123
7.26359, 76, -2.26045, 6.13282, 23.0615, -151.483, -101.465, 88.0743
7.27146, 76, -2.17105, 6.21629, 23.0204, -151.452, -101.624, 87.4299
7.27966, 77, -2.08088, 6.2868, 22.9844, -151.427, -101.771, 86.7797
7.28889, 77, -1.98978, 6.34431, 22.9535, -151.405, -101.905, 86.1275
7.29553, 77, -1.89768, 6.38845, 22.9283, -151.387, -102.027, 85.477
7.30543, 77, -1.8048, 6.41843, 22.9088, -151.374, -102.134, 84.8289
7.31167, 77, -1.71103, 6.43439, 22.8952, -151.364, -102.226, 84.1841
7.31959, 78, -1.61642, 6.43597, 22.8874, -151.358, -102.303, 83.5442
7.33033, 78, -1.52111, 6.42242, 22.885, -151.354, -102.365, 82.9087
7.33648, 78, -1.42519, 6.3936, 22.8882, -151.354, -102.411, 82.2761
7.34418, 78, -1.32889, 6.34919, 22.8975, -151.357, -102.441, 81.6481
7.35153, 78, -1.2323, 6.28862, 22.9128, -151.363, -102.456, 81.0254
7.3599, 78, -1.13551, 6.21197, 22.9349, -151.373, -102.455, 80.4081
7.36848, 79, -1.03863, 6.11912, 22.9639, -151.386, -102.436, 79.7971
7.37582, 79, -0.941584, 6.01019, 23.0003, -151.402, -102.399, 79.195
7.38454, 79, -0.844637, 5.8851, 23.0441, -151.421, -102.345, 78.6025
7.39184, 79, -0.747614, 5.74335, 23.0955, -151.442, -102.273, 78.019
7.40054, 79, -0.650567, 5.58513, 23.1545, -151.467, -102.183, 77.4461
7.40876, 80, -0.553541, 5.41036, 23.2209, -151.493, -102.075, 76.8839
7.41599, 80, -0.456465, 5.2192, 23.2952, -151.52, -101.948, 76.3323
7.42501, 80, -0.359462, 5.0113, 23.3777, -151.55, -101.803, 75.79
7.4322, 80, -0.262625, 4.78562, 23.4683, -151.581, -101.638, 75.2572
7.44099, 80, -0.165919, 4.54168, 23.5675, -151.614, -101.455, 74.7341
7.44881, 81, -0.117602, 4.41331, 23.6204, -151.63, -101.356, 74.4764
7.4574, 81, 0.0270383, 4.00311, 23.7924, -151.682, -101.031, 73.716
7.46859, 81, 0.171248, 3.55493, 23.9858, -151.736, -100.662, 72.9767
7.47146, 81, 0.171248, 3.55493, 23.9858, -151.736, -100.662, 72.9767
7.47944, 81, 0.26711, 3.23463, 24.1269, -151.773, -100.392, 72.4958
7.48757, 82, 0.362679, 2.89731, 24.2779, -151.81, -100.103, 72.0248
7.49546, 82, 0.458088, 2.54337, 24.4382, -151.847, -99.795, 71.5628
7.50348, 82, 0.553215, 2.17333, 24.6079, -151.885, -99.4678, 71.1105
7.51142, 82, 0.648091, 1.7872, 24.7872, -151.923, -99.1227, 70.6679
7.51943, 82, 0.742868, 1.3847, 24.9761, -151.959, -98.7601, 70.2355
7.52744, 83, 0.837597, 0.966041, 25.1739, -151.995, -98.3804, 69.8137
7.53738, 83, 0.979629, 0.311014, 25.4892, -152.048, -97.7807, 69.1997
7.54486, 83, 1.02701, -0.14389, 25.7119, -152.081, -97.3615, 68.8038
7.55305, 83, 1.16928, -0.613456, 25.9429, -152.113, -96.9268, 68.4175
7.56222, 83, 1.26419, -1.09696, 26.1835, -152.144, -96.477, 68.0412
7.56764, 84, 1.31175, -1.34392, 26.3076, -152.159, -96.2464, 67.8567
7.5754, 84, 1.40705, -1.84824, 26.563, -152.188, -95.7735, 67.4938
7.58443, 84, 1.50247, -2.3655, 26.829, -152.215, -95.286, 67.1382
7.59152, 84, 1.59832, -2.89655, 27.1051, -152.241, -94.7823, 66.7904
7.60047, 84, 1.69445, -3.44081, 27.3914, -152.265, -94.2637, 66.4497
7.60744, 84, 1.79107, -3.99846, 27.6885, -152.287, -93.7301, 66.1154
7.62359, 85, 1.9852, -5.15075, 28.3125, -152.327, -92.6177, 65.47
7.62645, 85, 2.03396, -5.44561, 28.4744, -152.336, -92.3311, 65.3135
7.63146, 85, 2.08278, -5.74295, 28.6387, -152.344, -92.042, 65.1591
7.64234, 85, 2.22994, -6.64771, 29.145, -152.364, -91.1592, 64.7088
7.64762, 85, 2.27935, -6.95327, 29.3179, -152.369, -90.8597, 64.5634
7.65543, 86, 2.37862, -7.56982, 29.6696, -152.378, -90.2536, 64.28
7.66349, 86, 2.47889, -8.19244, 30.0283, -152.383, -89.6386, 64.0069
7.67164, 86, 2.58019, -8.82135, 30.3934, -152.386, -89.0154, 63.7445
7.682, 86, 2.73359, -9.77448, 30.9515, -152.386, -88.0725, 63.3728
7.68748, 86, 2.78535, -10.0943, 31.1402, -152.385, -87.756, 63.2547
7.6955, 87, 2.88954, -10.7367, 31.5218, -152.378, -87.1185, 63.0274
7.70341, 87, 2.9943, -11.3816, 31.9077, -152.368, -86.476, 62.812
7.71142, 87, 3.10033, -12.0293, 32.2982, -152.355, -85.8282, 62.609
7.71942, 87, 3.20698, -12.6792, 32.6932, -152.337, -85.1766, 62.419
7.72749, 87, 3.31434, -13.3314, 33.0933, -152.315, -84.5216, 62.2415
7.73549, 88, 3.42254, -13.9863, 33.4985, -152.29, -83.8613, 62.0773
7.74548, 88, 3.53122, -14.6435, 33.9081, -152.261, -83.1963, 61.9264
7.75157, 88, 3.64056, -15.3024, 34.3228, -152.227, -82.5265, 61.7892
7.7595, 88, 3.75045, -15.9622, 34.7423, -152.189, -81.8519, 61.6661
7.76742, 88, 3.86076, -16.6223, 35.1659, -152.146, -81.1751, 61.5586
7.77546, 89, 3.97132, -17.2812, 35.5934, -152.099, -80.4959, 61.4673
7.78357, 89, 4.08208, -17.938, 36.0233, -152.046, -79.8147, 61.3936
7.79151, 89, 4.19299, -18.5921, 36.455, -151.988, -79.131, 61.338
7.80204, 89, 4.30414, -19.2431, 36.8877, -151.925, -78.4466, 61.3017
7.8077, 89, 4.41526, -19.8891, 37.3197, -151.855, -77.7664, 61.2848
7.81642, 90, 4.52659, -20.5294, 37.7501, -151.782, -77.0896, 61.2881
7.82352, 90, 4.63861, -21.1648, 38.1795, -151.702, -76.415, 61.3159
7.83142, 90, 4.75091, -21.7951, 38.6072, -151.617, -75.7438, 61.3673
7.83951, 90, 4.8633, -22.4205, 39.033, -151.526, -75.0769, 61.4425
7.84744, 90, 4.97552, -23.0408, 39.4574, -151.43, -74.4157, 61.5442
7.85587, 91, 5.08759, -23.6568, 39.8807, -151.328, -73.7566, 61.6719
7.86362, 91, 5.19949, -24.2683, 40.3035, -151.219, -73.0976, 61.8276
7.8716, 91, 5.31077, -24.8739, 40.7262, -151.103, -72.4389, 62.0117
7.88055, 91, 5.42119, -25.4738, 41.1484, -150.981, -71.7788, 62.2253
7.88782, 91, 5.53084, -26.0668, 41.5701, -150.852, -71.1182, 62.4691
7.89584, 91, 5.64001, -26.6528, 41.991, -150.716, -70.4591, 62.7443
7.90433, 92, 5.74927, -27.2316, 42.4098, -150.575, -69.8015, 63.0509
7.91189, 92, 5.85907, -27.8021, 42.8248, -150.428, -69.1468, 63.3884
7.92082, 92, 5.96951, -28.3641, 43.2348, -150.276, -68.495, 63.7573
7.9288, 92, 6.08075, -28.9162, 43.6391, -150.12, -67.8476, 64.1578
7.93599, 92, 6.1933, -29.4574, 44.0371, -149.961, -67.2073, 64.5894
7.94403, 93, 6.3074, -29.9881, 44.4283, -149.8, -66.5724, 65.0534
7.9607, 93, 6.54185, -31.0196, 45.1931, -149.472, -65.3135, 66.0771
7.96194, 93, 6.54185, -31.0196, 45.1931, -149.472, -65.3135, 66.0771
7.96741, 93, 6.6018, -31.2726, 45.3811, -149.39, -65.0003, 66.3545
7.97548, 93, 6.72343, -31.7744, 45.7535, -149.225, -64.3745, 66.9376
7.98338, 94, 6.84727, -32.2707, 46.1225, -149.059, -63.7482, 67.5626
7.99142, 94, 6.97348, -32.7623, 46.4888, -148.892, -63.1164, 68.2343
7.99944, 94, 7.10178, -33.2483, 46.8537, -148.725, -62.478, 68.9586
8.00973, 94, 7.29841, -33.9631, 47.3971, -148.477, -61.5088, 70.1434
8.01541, 94, 7.36555, -34.1976, 47.5764, -148.396, -61.1827, 70.5645
8.02337, 95, 7.50293, -34.6603, 47.9295, -148.239, -60.5303, 71.4479
8.03287, 95, 7.71881, -35.3348, 48.4429, -148.022, -59.5575, 72.8576
8.0394, 95, 7.79376, -35.554, 48.6083, -147.956, -59.236, 73.3481
8.04901, 95, 8.02859, -36.1896, 49.0847, -147.78, -58.2834, 74.8752
8.05547, 95, 8.11029, -36.3921, 49.2357, -147.73, -57.9702, 75.4011
8.06551, 96, 8.36567, -36.9692, 49.6651, -147.607, -57.0487, 77.0268
8.07148, 96, 8.45416, -37.1508, 49.7997, -147.576, -56.7487, 77.5838
8.07947, 96, 8.63536, -37.4964, 50.0565, -147.53, -56.1592, 78.719
8.08741, 96, 8.82174, -37.8172, 50.296, -147.504, -55.5848, 79.8757
8.09549, 96, 9.01274, -38.1122, 50.516, -147.498, -55.028, 81.049
8.10444, 96, 9.20702, -38.3823, 50.7166, -147.513, -54.4914, 82.2335
8.11144, 97, 9.40295, -38.6269, 50.8979, -147.55, -53.9776, 83.4277
8.11944, 97, 9.59923, -38.8462, 51.0584, -147.609, -53.4888, 84.6261
8.12739, 97, 9.79471, -39.041, 51.1987, -147.688, -53.0268, 85.8183
8.13556, 97, 9.98877, -39.2109, 51.3194, -147.783, -52.5936, 86.9978
8.14342, 97, 10.1802, -39.355, 51.4204, -147.894, -52.1903, 88.1565
8.15141, 97, 10.3681, -39.4738, 51.5024, -148.017, -51.8177, 89.2887
8.15936, 98, 10.5522, -39.5674, 51.5661, -148.151, -51.4759, 90.3864
8.16742, 98, 10.7339, -39.6368, 51.6119, -148.294, -51.1643, 91.4513
8.17547, 98, 10.914, -39.6836, 51.6402, -148.448, -50.8807, 92.4916
8.1834, 98, 11.0924, -39.7072, 51.6512, -148.612, -50.6212, 93.5212
8.1914, 98, 11.2687, -39.7074, 51.6457, -148.789, -50.3827, 94.5541
8.19947, 98, 11.4438, -39.6842, 51.6229, -148.979, -50.1629, 95.6012
8.20737, 98, 11.6193, -39.6371, 51.5823, -149.182, -49.962, 96.6697
8.21542, 99, 11.7945, -39.5667, 51.5239, -149.399, -49.7817, 97.7594
8.22344, 99, 11.9682, -39.4738, 51.4472, -149.627, -49.6245, 98.8655
8.2314, 99, 12.139, -39.3582, 51.3519, -149.864, -49.4938, 99.9767
8.23949, 99, 12.3062, -39.2202, 51.2385, -150.106, -49.3924, 101.084
8.24746, 99, 12.4681, -39.0601, 51.1078, -150.35, -49.3221, 102.173
8.25594, 99, 12.6225, -38.8777, 50.9612, -150.593, -49.2825, 103.238
8.26351, 100, 12.7685, -38.6713, 50.7989, -150.833, -49.2742, 104.273
8.27146, 100, 12.9056, -38.4407, 50.62, -151.068, -49.298, 105.278
8.28025, 100, 13.0336, -38.1874, 50.424, -151.297, -49.3533, 106.255
8.28749, 100, 13.1532, -37.9122, 50.2116, -151.52, -49.4397, 107.209
8.29596, 100, 13.2646, -37.6161, 49.9814, -151.737, -49.5575, 108.138
8.30428, 100, 13.3679, -37.2969, 49.733, -151.947, -49.7059, 109.046
8.31157, 101, 13.463, -36.9538, 49.4681, -152.15, -49.8845, 109.933
8.31956, 101, 13.5501, -36.5853, 49.1858, -152.345, -50.0928, 110.795
8.32755, 101, 13.6295, -36.1908, 48.8866, -152.53, -50.3309, 111.636
8.33622, 101, 13.7006, -35.7708, 48.5691, -152.706, -50.5992, 112.452
8.3436, 101, 13.7635, -35.327, 48.2337, -152.872, -50.899, 113.247
8.36358, 102, 13.8828, -34.1171, 47.3176, -153.238, -51.7918, 115.139
8.36495, 102, 13.8828, -34.1171, 47.3176, -153.238, -51.7918, 115.139
8.3685, 102, 13.8997, -33.857, 47.1214, -153.302, -51.9951, 115.501
8.37558, 102, 13.9263, -33.3181, 46.7164, -153.421, -52.4265, 116.206
8.38449, 102, 13.9438, -32.7558, 46.2967, -153.525, -52.8903, 116.884
8.39205, 102, 13.9527, -32.1705, 45.8624, -153.617, -53.3845, 117.537
8.4004, 103, 13.9536, -31.5628, 45.4134, -153.693, -53.907, 118.164
8.40872, 103, 13.9473, -30.9354, 44.9508, -153.757, -54.456, 118.765
8.41589, 103, 13.9344, -30.2908, 44.4761, -153.807, -55.0294, 119.34
8.4245, 103, 13.9156, -29.6307, 43.9902, -153.843, -55.6245, 119.892
8.43281, 103, 13.8914, -28.9557, 43.4955, -153.868, -56.2392, 120.417
8.44013, 103, 13.8625, -28.2684, 42.994, -153.881, -56.8701, 120.917
8.44798, 104, 13.8463, -27.9207, 42.4875, -153.884, -57.5137, 121.39
8.45667, 104, 13.8111, -27.2185, 42.2329, -153.882, -57.8399, 121.618
8.46339, 104, 13.7717, -26.5093, 41.7222, -153.868, -58.5021, 122.056
8.47244, 104, 13.7066, -25.4351, 40.9543, -153.833, -59.5156, 122.673
8.47942, 104, 13.6837, -25.0756, 40.6983, -153.817, -59.8579, 122.87
8.48739, 104, 13.6366, -24.355, 40.1868, -153.779, -60.5466, 123.251
8.4955, 104, 13.5879, -23.6329, 39.6762, -153.733, -61.2401, 123.62
8.50338, 104, 13.5378, -22.91, 39.1669, -153.684, -61.9384, 123.981
8.51145, 104, 13.487, -22.187, 38.6588, -153.628, -62.6396, 124.337
8.51947, 104, 13.4357, -21.4632, 38.1524, -153.568, -63.343, 124.688
8.52738, 104, 13.384, -20.7398, 37.6474, -153.504, -64.0468, 125.038
8.53704, 104, 13.3061, -19.655, 36.893, -153.399, -65.1035, 125.56
8.54344, 104, 13.28, -19.2934, 36.6425, -153.363, -65.4567, 125.733
8.55145, 104, 13.2277, -18.5698, 36.1429, -153.286, -66.1637, 126.079
8.55938, 104, 13.1755, -17.8462, 35.6456, -153.206, -66.8716, 126.425
8.56745, 104, 13.1236, -17.122, 35.1508, -153.121, -67.5798, 126.769
8.57546, 104, 13.0719, -16.3978, 34.6577, -153.033, -68.2869, 127.114
8.58339, 104, 13.0206, -15.6737, 34.1669, -152.94, -68.996, 127.458
8.5924, 104, 12.9697, -14.9489, 33.6782, -152.844, -69.7069, 127.801
8.60046, 104, 12.9191, -14.2234, 33.1918, -152.744, -70.4182, 128.144
8.60739, 104, 12.869, -13.498, 32.7083, -152.64, -71.128, 128.488
8.61547, 104, 12.8191, -12.7723, 32.2274, -152.532, -71.8384, 128.832
8.62339, 104, 12.7694, -12.0466, 31.7491, -152.421, -72.551, 129.176
8.63144, 104, 12.7201, -11.3216, 31.2733, -152.305, -73.2634, 129.522
8.63946, 104, 12.6712, -10.5963, 30.7999, -152.185, -73.9764, 129.867
8.64741, 104, 12.6225, -9.87052, 30.3296, -152.062, -74.6894, 130.213
8.6554, 104, 12.5742, -9.14487, 29.8623, -151.935, -75.402, 130.56
8.66345, 104, 12.5266, -8.41887, 29.398, -151.803, -76.1163, 130.908
8.67144, 104, 12.4795, -7.69298, 28.9372, -151.667, -76.8309, 131.257
8.67939, 104, 12.4328, -6.96761, 28.4795, -151.528, -77.5467, 131.607
8.68745, 104, 12.3869, -6.24282, 28.0252, -151.384, -78.2614, 131.959
8.6954, 104, 12.3413, -5.51826, 27.5745, -151.236, -78.9749, 132.311
8.70339, 104, 12.2963, -4.79471, 27.1274, -151.083, -79.6898, 132.665
8.7115, 104, 12.2524, -4.07262, 26.6847, -150.927, -80.405, 133.02
8.71938, 104, 12.2094, -3.35348, 26.2472, -150.767, -81.1189, 133.375
8.72739, 104, 12.1675, -2.63968, 25.8148, -150.603, -81.8285, 133.731
8.73547, 104, 12.127, -1.93209, 25.3887, -150.435, -82.5343, 134.088
8.74345, 104, 12.0876, -1.2318, 24.9703, -150.265, -83.2362, 134.443
8.75158, 104, 12.0491, -0.5404, 24.5602, -150.092, -83.9301, 134.796
8.75938, 104, 12.0117, 0.140878, 24.1601, -149.917, -84.6135, 135.145
8.76749, 104, 11.9751, 0.81119, 23.7711, -149.742, -85.2837, 135.491
8.77546, 104, 11.9397, 1.46883, 23.3945, -149.566, -85.9395, 135.832
8.78343, 104, 11.9056, 2.11317, 23.0304, -149.389, -86.5817, 136.166
8.79153, 104, 11.8725, 2.74179, 22.6787, -149.214, -87.2078, 136.495
8.79954, 104, 11.8404, 3.3545, 22.3396, -149.039, -87.818, 136.816
8.80749, 104, 11.8099, 3.95073, 22.0138, -148.866, -88.4118, 137.131
8.81573, 104, 11.7805, 4.53011, 21.7005, -148.693, -88.9875, 137.439
8.82356, 104, 11.7523, 5.09311, 21.3994, -148.522, -89.5464, 137.741
8.83202, 104, 11.7255, 5.63887, 21.1095, -148.353, -90.0901, 138.035
8.83939, 104, 11.6997, 6.16729, 20.8321, -148.186, -90.6173, 138.322
8.84815, 104, 11.6751, 6.67932, 20.566, -148.021, -91.1283, 138.602
8.85542, 104, 11.6518, 7.17428, 20.3118, -147.859, -91.6225, 138.874
8.86349, 104, 11.6296, 7.6522, 20.069, -147.7, -92.0993, 139.139
8.8717, 104, 11.6085, 8.11386, 19.8367, -147.543, -92.5595, 139.396
8.87959, 104, 11.5885, 8.55878, 19.6155, -147.39, -93.0032, 139.646
8.88768, 104, 11.5697, 8.98621, 19.4053, -147.24, -93.4303, 139.887
8.89586, 104, 11.552, 9.39642, 19.2051, -147.094, -93.8404, 140.12
8.9045, 104, 11.5354, 9.78898, 19.0153, -146.952, -94.2336, 140.345
8.91196, 104, 11.5199, 10.1636, 18.8365, -146.814, -94.6088, 140.561
8.92096, 104, 11.5054, 10.5189, 18.668, -146.682, -94.9661, 140.767
8.92792, 104, 11.4919, 10.8553, 18.5097, -146.555, -95.3043, 140.963
8.93649, 104, 11.4794, 11.1721, 18.3625, -146.434, -95.6228, 141.149
8.94401, 104, 11.468, 11.4682, 18.226, -146.32, -95.9209, 141.323
8.95201, 104, 11.4576, 11.7439, 18.0998, -146.213, -96.1982, 141.486
8.96011, 104, 11.4528, 11.9981, 17.9844, -146.113, -96.4539, 141.637
8.96743, 104, 11.4438, 12.1171, 17.9307, -146.066, -96.5736, 141.708
8.97634, 104, 11.4315, 12.4431, 17.7852, -145.936, -96.8998, 141.901
8.98345, 104, 11.4279, 12.5413, 17.7419, -145.897, -96.9975, 141.959
8.99143, 104, 11.4211, 12.7215, 17.663, -145.825, -97.1764, 142.066
8.99938, 104, 11.4151, 12.8808, 17.5943, -145.763, -97.3333, 142.16
9.00744, 104, 11.4097, 13.0201, 17.5352, -145.708, -97.4683, 142.241
9.01538, 104, 11.4047, 13.1403, 17.4856, -145.661, -97.5822, 142.309
9.02348, 104, 11.4002, 13.242, 17.4449, -145.624, -97.6755, 142.365
9.03147, 104, 11.3961, 13.3263, 17.4121, -145.593, -97.7505, 142.41
9.03937, 104, 11.3924, 13.3954, 17.3868, -145.569, -97.8078, 142.445
9.04739, 104, 11.3889, 13.4511, 17.3682, -145.551, -97.85, 142.47
9.05696, 104, 11.3847, 13.5125, 17.3498, -145.534, -97.8916, 142.495
9.06508, 104, 11.3825, 13.541, 17.3427, -145.527, -97.9083, 142.504
9.07144, 104, 11.3816, 13.5524, 17.3402, -145.525, -97.9142, 142.508
9.0795, 104, 11.3801, 13.5703, 17.3367, -145.522, -97.9218, 142.512
9.08911, 104, 11.3789, 13.5826, 17.3348, -145.519, -97.927, 142.514
9.09537, 104, 11.378, 13.591, 17.3338, -145.519, -97.9278, 142.515
9.10345, 105, 11.3774, 13.5966, 17.3334, -145.519, -97.9288, 142.515
9.11143, 105, 11.3769, 13.6002, 17.3332, -145.519, -97.9292, 142.516
9.11937, 105, 11.3766, 13.6028, 17.3331, -145.518, -97.9294, 142.516
9.12745, 105, 11.3763, 13.6049, 17.333, -145.518, -97.9295, 142.516
9.13537, 105, 11.3761, 13.6067, 17.333, -145.518, -97.9295, 142.516
9.14337, 105, 11.3759, 13.6083, 17.333, -145.518, -97.9295, 142.516
9.15153, 105, 11.3758, 13.6097, 17.333, -145.518, -97.9295, 142.516
9.15937, 105, 11.3757, 13.6109, 17.333, -145.518, -97.9294, 142.516
9.16738, 105, 11.3756, 13.6118, 17.333, -145.518, -97.9293, 142.516
9.17544, 105, 11.3756, 13.6127, 17.333, -145.518, -97.9292, 142.516
9.18337, 105, 11.3756, 13.6132, 17.3331, -145.519, -97.929, 142.516
9.19143, 105, 11.3755, 13.6137, 17.3331, -145.519, -97.9289, 142.516
9.19941, 105, 11.3756, 13.614, 17.3331, -145.519, -97.9288, 142.516
9.20738, 105, 11.3756, 13.6142, 17.3332, -145.519, -97.9286, 142.516
9.21537, 105, 11.3755, 13.6142, 17.3332, -145.519, -97.9286, 142.516
