hehonglu123/Motion-Primitive-Planning/ILC/recorded_data/realrobot/wood/iteration_25/run_1.csv
timestamp, cmd_num, J1, J2, J3, J4, J5, J6
0.000379, -1, 11.3755, 13.6151, 17.3347, -145.521, -97.9263, 142.516
0.004315, -1, 11.3755, 13.6151, 17.3347, -145.521, -97.9263, 142.516
0.007825, -1, 11.3755, 13.6151, 17.3347, -145.521, -97.9263, 142.516
0.029286, -1, 11.3755, 13.6151, 17.3347, -145.521, -97.9263, 142.516
0.030528, -1, 11.3755, 13.6151, 17.3347, -145.521, -97.9263, 142.516
0.034309, -1, 11.3755, 13.6151, 17.3348, -145.521, -97.9263, 142.516
0.040399, -1, 11.3755, 13.6151, 17.3348, -145.521, -97.9263, 142.516
0.048096, -1, 11.3753, 13.6151, 17.3347, -145.521, -97.9263, 142.516
0.055939, -1, 11.3739, 13.615, 17.3347, -145.521, -97.9263, 142.516
0.064429, -1, 11.3694, 13.6146, 17.3346, -145.521, -97.9263, 142.516
0.071917, -1, 11.3607, 13.6134, 17.3342, -145.521, -97.9263, 142.515
0.080493, -1, 11.3467, 13.611, 17.3336, -145.522, -97.9262, 142.512
0.088681, -1, 11.3369, 13.6064, 17.3328, -145.524, -97.9258, 142.498
0.096115, -1, 11.2924, 13.5989, 17.332, -145.529, -97.9247, 142.469
0.103319, -1, 11.2717, 13.5939, 17.3318, -145.533, -97.9236, 142.446
0.112353, -1, 11.192, 13.5742, 17.3325, -145.553, -97.9178, 142.337
0.11944, -1, 11.1597, 13.5661, 17.3336, -145.562, -97.9148, 142.285
0.127318, -1, 11.0864, 13.5471, 17.3376, -145.585, -97.9069, 142.154
0.135414, -1, 11.0011, 13.5241, 17.3441, -145.614, -97.8968, 141.989
0.143303, -1, 10.9043, 13.4978, 17.3527, -145.648, -97.8846, 141.791
0.151316, -1, 10.7967, 13.4681, 17.3631, -145.687, -97.8708, 141.565
0.160648, -1, 10.6148, 13.4178, 17.38, -145.751, -97.8483, 141.19
0.167298, -1, 10.549, 13.3996, 17.3856, -145.774, -97.8405, 141.058
0.176799, -1, 10.3392, 13.342, 17.4014, -145.843, -97.8166, 140.652
0.184869, -1, 10.1917, 13.302, 17.4115, -145.891, -97.8001, 140.376
0.193078, -1, 10.0407, 13.2612, 17.4216, -145.938, -97.7834, 140.098
0.19934, -1, 9.9641, 13.2405, 17.4266, -145.962, -97.7749, 139.959
0.207392, -1, 9.80941, 13.1992, 17.4367, -146.01, -97.7576, 139.68
0.216937, -1, 9.57608, 13.1371, 17.4518, -146.082, -97.7318, 139.26
0.224891, -1, 9.49855, 13.1165, 17.4567, -146.106, -97.7233, 138.981
0.231369, -1, 9.34383, 13.0753, 17.4666, -146.154, -97.7066, 138.841
0.241256, -1, 9.18941, 13.0341, 17.4766, -146.202, -97.6814, 138.421
0.247597, -1, 9.03549, 12.993, 17.4867, -146.25, -97.6731, 138.282
0.255377, -1, 8.88171, 12.9519, 17.4968, -146.298, -97.6562, 138.002
0.263302, -1, 8.72813, 12.9109, 17.507, -146.346, -97.6391, 137.722
0.272083, -1, 8.57513, 12.8697, 17.517, -146.393, -97.6216, 137.442
0.279318, -1, 8.42231, 12.8285, 17.5272, -146.442, -97.6041, 137.161
0.287303, -1, 8.26937, 12.7871, 17.5374, -146.489, -97.5867, 136.881
0.295436, -1, 8.11597, 12.7456, 17.5476, -146.537, -97.5697, 136.601
0.303302, -1, 7.96209, 12.7039, 17.5578, -146.586, -97.5529, 136.321
0.311301, -1, 7.80757, 12.6622, 17.5679, -146.633, -97.5362, 136.04
0.320095, -1, 7.65267, 12.6205, 17.578, -146.681, -97.5196, 135.76
0.328386, -1, 7.4977, 12.5788, 17.5882, -146.729, -97.5028, 135.48
0.33536, -1, 7.34267, 12.5373, 17.5984, -146.777, -97.4856, 135.199
0.344109, -1, 7.18772, 12.4958, 17.6086, -146.825, -97.4682, 134.919
0.35136, -1, 7.03264, 12.4543, 17.6189, -146.874, -97.4509, 134.639
0.359319, -1, 6.87747, 12.4129, 17.6292, -146.921, -97.4339, 134.359
0.368109, -1, 6.72251, 12.3716, 17.6395, -146.969, -97.4169, 134.078
0.503384, -1, 4.08599, 11.6656, 17.8158, -147.788, -97.1262, 129.304
0.504825, -1, 4.08599, 11.6656, 17.8158, -147.788, -97.1262, 129.304
0.506101, -1, 4.08599, 11.6656, 17.8158, -147.788, -97.1262, 129.304
0.508096, -1, 4.00861, 11.6449, 17.821, -147.812, -97.1178, 129.163
0.509412, -1, 4.00861, 11.6449, 17.821, -147.812, -97.1178, 129.163
0.511164, -1, 4.00861, 11.6449, 17.821, -147.812, -97.1178, 129.023
0.513425, -1, 3.93133, 11.6241, 17.8262, -147.836, -97.1093, 129.023
0.516396, -1, 3.85413, 11.6034, 17.8313, -147.861, -97.1009, 128.882
0.517631, -1, 3.85413, 11.6034, 17.8313, -147.861, -97.1009, 128.882
0.519614, -1, 3.77697, 11.5826, 17.8365, -147.885, -97.0925, 128.741
0.521068, -1, 3.77697, 11.5826, 17.8365, -147.885, -97.0925, 128.741
0.522298, -1, 3.77697, 11.5826, 17.8365, -147.885, -97.0925, 128.741
0.525066, -1, 3.69979, 11.5618, 17.8417, -147.909, -97.0841, 128.601
0.526256, -1, 3.69979, 11.5618, 17.8417, -147.909, -97.0841, 128.601
0.528477, -1, 3.62259, 11.541, 17.8469, -147.933, -97.0756, 128.46
0.531954, -1, 3.54535, 11.5202, 17.852, -147.957, -97.067, 128.319
0.533291, -1, 3.54535, 11.5202, 17.852, -147.957, -97.067, 128.319
0.534512, -1, 3.54535, 11.5202, 17.852, -147.957, -97.067, 128.319
0.537414, -1, 3.46804, 11.4993, 17.8572, -147.981, -97.0584, 128.178
0.538632, -1, 3.46804, 11.4993, 17.8572, -147.981, -97.0584, 128.178
0.540742, -1, 3.39066, 11.4784, 17.8624, -148.006, -97.0497, 128.037
0.543743, -1, 3.31321, 11.4576, 17.8676, -148.03, -97.0409, 127.897
0.551888, -1, 3.15814, 11.4159, 17.8781, -148.078, -97.0233, 127.616
0.561262, -1, 3.00284, 11.3741, 17.8885, -148.126, -97.0059, 127.334
0.567809, -1, 2.84746, 11.3323, 17.8989, -148.175, -96.9888, 127.052
0.576405, -1, 2.69178, 11.2905, 17.9092, -148.222, -96.9719, 126.77
0.583881, -1, 2.53581, 11.2487, 17.9196, -148.271, -96.9551, 126.489
0.592456, -1, 2.37958, 11.207, 17.9301, -148.319, -96.9383, 126.207
0.600025, -1, 2.30134, 11.1861, 17.9405, -148.367, -96.9214, 125.925
0.607291, -1, 2.14469, 11.1444, 17.9457, -148.391, -96.9128, 125.784
0.615348, -1, 1.98786, 11.1026, 17.9561, -148.44, -96.8954, 125.502
0.62468, -1, 1.75308, 11.0401, 17.9717, -148.512, -96.8692, 125.079
0.631289, -1, 1.6749, 11.0193, 17.9769, -148.536, -96.8605, 124.938
0.640552, -1, 1.44071, 10.9566, 17.9927, -148.61, -96.835, 124.515
0.647292, -1, 1.36276, 10.9358, 17.9979, -148.634, -96.8265, 124.374
0.65543, -1, 1.20701, 10.8941, 18.0082, -148.682, -96.8096, 124.092
0.795615, -1, -1.52588, 10.162, 18.1905, -149.531, -96.5101, 119.144
0.796802, -1, -1.52588, 10.162, 18.1905, -149.531, -96.5101, 119.144
0.798827, -1, -1.60406, 10.141, 18.1958, -149.555, -96.5016, 119.002
0.800134, -1, -1.60406, 10.141, 18.1958, -149.555, -96.5016, 119.002
0.802739, -1, -1.68213, 10.1201, 18.2011, -149.58, -96.4932, 118.861
0.804844, -1, -1.68213, 10.1201, 18.2011, -149.58, -96.4932, 118.861
0.806932, -1, -1.76015, 10.0991, 18.2064, -149.604, -96.4846, 118.719
0.809955, -1, -1.83807, 10.0782, 18.2116, -149.628, -96.4759, 118.577
0.811445, -1, -1.83807, 10.0782, 18.2116, -149.628, -96.4759, 118.577
0.812714, -1, -1.83807, 10.0782, 18.2116, -149.628, -96.4759, 118.577
0.814742, -1, -1.9159, 10.0573, 18.2168, -149.653, -96.4672, 118.435
0.816142, -1, -1.9159, 10.0573, 18.2168, -149.653, -96.4672, 118.435
0.818158, -1, -1.99364, 10.0363, 18.222, -149.677, -96.4585, 118.294
0.819426, -1, -1.99364, 10.0363, 18.222, -149.677, -96.4585, 118.294
0.820611, -1, -1.99364, 10.0363, 18.222, -149.677, -96.4585, 118.294
0.828162, -1, -2.14884, 9.9944, 18.2325, -149.726, -96.4408, 118.01
0.830214, -1, -2.2264, 9.97347, 18.2376, -149.75, -96.432, 117.868
0.831486, -1, -2.2264, 9.97347, 18.2376, -149.75, -96.432, 117.868
0.832665, -1, -2.2264, 9.97347, 18.2376, -149.75, -96.432, 117.868
0.834779, -1, -2.30399, 9.95255, 18.2428, -149.774, -96.4233, 117.726
0.836148, -1, -2.30399, 9.95255, 18.2428, -149.774, -96.4233, 117.726
0.837942, -1, -2.38162, 9.93161, 18.2481, -149.798, -96.4146, 117.585
0.842489, -1, -2.45937, 9.91061, 18.2533, -149.823, -96.4061, 117.443
0.847286, -1, -2.53717, 9.88961, 18.2585, -149.847, -96.3976, 117.301
0.855414, -1, -2.69297, 9.84766, 18.2689, -149.896, -96.3808, 117.017
0.863354, -1, -2.84919, 9.80569, 18.2793, -149.944, -96.364, 116.733
0.871285, -1, -3.00585, 9.76372, 18.2897, -149.993, -96.3471, 116.45
0.87933, -1, -3.16289, 9.72182, 18.3001, -150.042, -96.3299, 116.166
0.887357, -1, -3.32027, 9.67982, 18.3106, -150.09, -96.3124, 115.882
0.89534, -1, -3.47806, 9.63778, 18.3211, -150.139, -96.2948, 115.598
0.903294, -1, -3.63585, 9.59586, 18.3316, -150.188, -96.2774, 115.314
0.911358, -1, -3.79371, 9.55395, 18.3419, -150.236, -96.2601, 115.03
0.919308, -1, -3.95167, 9.5119, 18.3523, -150.285, -96.2431, 114.745
0.927324, -1, -4.10957, 9.46996, 18.3627, -150.334, -96.2261, 114.461
0.935491, -1, -4.26739, 9.42801, 18.3731, -150.383, -96.2091, 114.177
0.943382, -1, -4.42507, 9.38597, 18.3835, -150.431, -96.1919, 113.892
0.95145, -1, -4.58232, 9.34398, 18.3938, -150.48, -96.1743, 113.607
0.95941, -1, -4.73904, 9.30194, 18.4042, -150.529, -96.1565, 113.323
0.967392, -1, -4.89546, 9.25984, 18.4147, -150.578, -96.1389, 113.038
0.97552, -1, -5.05163, 9.21775, 18.4253, -150.627, -96.1215, 112.753
0.983297, -1, -5.20752, 9.17571, 18.4358, -150.675, -96.1045, 112.468
0.991341, -1, -5.36347, 9.13358, 18.4464, -150.724, -96.0875, 112.184
0.999412, -1, -5.51954, 9.09141, 18.4568, -150.773, -96.0706, 111.899
1.00736, -1, -5.67585, 9.04934, 18.4672, -150.822, -96.0536, 111.614
1.01568, -1, -5.83258, 9.00717, 18.4777, -150.871, -96.0363, 111.329
1.02357, -1, -5.98967, 8.96497, 18.4881, -150.92, -96.0187, 111.045
1.03153, -1, -6.14733, 8.92284, 18.4984, -150.968, -96.0011, 110.759
1.03972, -1, -6.30546, 8.88071, 18.5088, -151.017, -95.9837, 110.474
1.04772, -1, -6.46381, 8.8386, 18.5191, -151.067, -95.9665, 110.189
1.0564, -1, -6.62227, 8.79651, 18.5296, -151.115, -95.9494, 109.904
1.06415, -1, -6.781, 8.75434, 18.5402, -151.164, -95.9324, 109.618
1.07182, -1, -6.93963, 8.71221, 18.5507, -151.214, -95.9154, 109.332
1.0805, -1, -7.09817, 8.67011, 18.5613, -151.262, -95.8981, 109.047
1.08796, -1, -7.25663, 8.62791, 18.5716, -151.311, -95.8805, 108.762
1.09653, -1, -7.41487, 8.58567, 18.582, -151.361, -95.8628, 108.476
1.10379, -1, -7.49383, 8.56452, 18.5873, -151.385, -95.8539, 108.333
1.11242, -1, -7.73017, 8.50109, 18.603, -151.459, -95.8278, 107.904
1.11931, -1, -7.80882, 8.47997, 18.6083, -151.483, -95.8192, 107.762
1.12728, -1, -7.96584, 8.43769, 18.6187, -151.532, -95.8021, 107.476
1.13534, -1, -8.12251, 8.39534, 18.629, -151.581, -95.7852, 107.19
1.14332, -1, -8.27901, 8.35303, 18.6395, -151.63, -95.7682, 106.904
1.1525, -1, -8.51411, 8.28946, 18.6554, -151.703, -95.7423, 106.475
1.1593, -1, -8.59266, 8.2683, 18.6607, -151.728, -95.7335, 106.332
1.16728, -1, -8.75003, 8.22605, 18.6712, -151.777, -95.7157, 106.045
1.17669, -1, -8.9867, 8.16247, 18.6867, -151.85, -95.6895, 105.616
1.18328, -1, -9.06581, 8.1413, 18.692, -151.875, -95.6808, 105.473
1.19281, -1, -9.3037, 8.07787, 18.7077, -151.949, -95.6552, 105.043
1.20083, -1, -9.46268, 8.03548, 18.7181, -151.998, -95.638, 104.756
1.2091, -1, -9.62176, 7.99319, 18.7286, -152.048, -95.6209, 104.469
1.21531, -1, -9.70133, 7.97206, 18.7339, -152.072, -95.6122, 104.326
1.2248, -1, -9.86069, 7.92979, 18.7444, -152.121, -95.5857, 103.895
1.23294, -1, -10.0201, 7.88736, 18.755, -152.171, -95.5678, 103.608
1.23929, -1, -10.1793, 7.84489, 18.7657, -152.22, -95.5589, 103.465
1.24734, -1, -10.3384, 7.80237, 18.7762, -152.269, -95.5413, 103.178
1.25528, -1, -10.4973, 7.75984, 18.7868, -152.319, -95.524, 102.891
1.26329, -1, -10.6559, 7.71737, 18.7972, -152.368, -95.507, 102.604
1.27136, -1, -10.814, 7.6748, 18.8077, -152.417, -95.4901, 102.317
1.27928, -1, -10.972, 7.63217, 18.8182, -152.466, -95.4729, 102.03
1.28736, -1, -11.1295, 7.58965, 18.8286, -152.516, -95.4556, 101.742
1.29527, -1, -11.2869, 7.54715, 18.8391, -152.565, -95.4378, 101.455
1.30328, -1, -11.4442, 7.50465, 18.8496, -152.615, -95.42, 101.168
1.31136, -1, -11.6018, 7.46213, 18.8601, -152.664, -95.4024, 100.88
1.31928, -1, -11.7597, 7.41966, 18.8707, -152.713, -95.385, 100.592
1.32732, -1, -11.9181, 7.37725, 18.8813, -152.762, -95.3677, 100.304
1.33536, -1, -12.0768, 7.33483, 18.8919, -152.812, -95.3505, 100.017
1.34328, -1, -12.236, 7.29243, 18.9024, -152.861, -95.3333, 99.7288
1.35128, -1, -12.3956, 7.24998, 18.9129, -152.911, -95.3159, 99.4407
1.35971, -1, -12.5554, 7.20755, 18.9235, -152.96, -95.2981, 99.1528
1.36728, -1, -12.7153, 7.1651, 18.934, -153.009, -95.2801, 98.8649
1.37527, -1, -12.8754, 7.1226, 18.9446, -153.059, -95.2623, 98.5769
1.38407, -1, -13.0355, 7.08002, 18.9551, -153.108, -95.2447, 98.2888
1.39236, -1, -13.1955, 7.03743, 18.9657, -153.158, -95.2274, 98.0007
1.39928, -1, -13.3553, 6.99478, 18.9763, -153.208, -95.2102, 97.7126
1.40806, -1, -13.5148, 6.95204, 18.9869, -153.257, -95.193, 97.4241
1.41634, -1, -13.674, 6.90925, 18.9975, -153.306, -95.1758, 97.1353
1.42328, -1, -13.833, 6.86651, 19.008, -153.356, -95.1583, 96.8468
1.43228, -1, -13.9917, 6.82378, 19.0184, -153.405, -95.1405, 96.5583
1.43936, -1, -14.1499, 6.78109, 19.029, -153.454, -95.1227, 96.2695
1.44738, -1, -14.3081, 6.73843, 19.0396, -153.504, -95.1051, 95.9804
1.45651, -1, -14.4663, 6.69569, 19.0501, -153.553, -95.0877, 95.6915
1.46338, -1, -14.6247, 6.65301, 19.0606, -153.602, -95.0704, 95.4024
1.47145, -1, -14.7835, 6.61048, 19.0712, -153.652, -95.0533, 95.113
1.47983, -1, -14.9427, 6.56784, 19.0818, -153.701, -95.0359, 94.8237
1.48729, -1, -15.1022, 6.52516, 19.0926, -153.751, -95.0184, 94.5348
1.49539, -1, -15.2621, 6.48257, 19.1033, -153.801, -95.0005, 94.2457
1.50485, -1, -15.4225, 6.43993, 19.114, -153.85, -94.9825, 93.9563
1.51137, -1, -15.5831, 6.39719, 19.1246, -153.9, -94.9646, 93.667
1.51965, -1, -15.7438, 6.35449, 19.1352, -153.95, -94.9472, 93.3779
1.5291, -1, -15.9046, 6.31165, 19.1459, -154, -94.9299, 93.0884
1.53554, -1, -16.0655, 6.26874, 19.1565, -154.05, -94.9128, 92.7987
1.5437, -1, -16.2262, 6.22592, 19.1671, -154.099, -94.8956, 92.509
1.55323, -1, -16.3868, 6.1829, 19.1776, -154.148, -94.8782, 92.2195
1.55973, -1, -16.5473, 6.1399, 19.1881, -154.198, -94.8605, 91.9296
1.56787, -1, -16.7074, 6.09696, 19.1987, -154.248, -94.8427, 91.6394
1.57737, -1, -16.8671, 6.05394, 19.2094, -154.298, -94.8248, 91.3493
1.58401, -1, -17.0264, 6.01099, 19.22, -154.348, -94.8073, 91.0593
1.59192, -1, -17.1856, 5.96804, 19.2306, -154.397, -94.7898, 90.769
1.60062, -1, -17.2651, 5.94656, 19.2359, -154.447, -94.7726, 90.4785
1.60785, -1, -17.4242, 5.90374, 19.2466, -154.472, -94.7552, 90.1883
1.61643, -1, -17.6632, 5.83953, 19.2626, -154.547, -94.7377, 89.8981
1.62327, -1, -17.7429, 5.81813, 19.268, -154.571, -94.7289, 89.753
1.63131, -1, -17.9025, 5.77535, 19.2787, -154.622, -94.7109, 89.4626
1.63927, -1, -18.0626, 5.73256, 19.2893, -154.672, -94.6928, 89.172
1.65002, -1, -18.3034, 5.66842, 19.3053, -154.746, -94.666, 88.7363
1.65655, -1, -18.4646, 5.62554, 19.316, -154.796, -94.6485, 88.4453
1.66329, -1, -18.5453, 5.60406, 19.3214, -154.821, -94.6399, 88.2997
1.67127, -1, -18.7069, 5.56111, 19.3321, -154.871, -94.6226, 88.0089
1.67932, -1, -18.8685, 5.51812, 19.3427, -154.921, -94.6053, 87.718
1.68885, -1, -19.111, 5.45346, 19.3586, -154.996, -94.5789, 87.2812
1.69848, -1, -19.2725, 5.41029, 19.3692, -155.046, -94.5609, 86.9895
1.70328, -1, -19.3532, 5.38873, 19.3745, -155.071, -94.5518, 86.844
1.71287, -1, -19.595, 5.32395, 19.3905, -155.145, -94.5249, 86.4065
1.72169, -1, -19.6754, 5.30233, 19.4011, -155.195, -94.5073, 86.1146
1.72888, -1, -19.8361, 5.25917, 19.4064, -155.221, -94.4898, 85.823
1.73626, -1, -19.9966, 5.21596, 19.4172, -155.27, -94.4811, 85.6772
1.74432, -1, -20.1566, 5.17279, 19.428, -155.32, -94.4637, 85.3857
1.75227, -1, -20.3163, 5.12982, 19.4388, -155.371, -94.4461, 85.0938
1.75935, -1, -20.4763, 5.08678, 19.4497, -155.42, -94.4284, 84.8019
1.76726, -1, -20.6364, 5.04367, 19.4604, -155.471, -94.4102, 84.5102
1.77527, -1, -20.7967, 5.00075, 19.4711, -155.521, -94.3922, 84.2184
1.78334, -1, -20.9574, 4.95774, 19.4818, -155.571, -94.3744, 83.9261
1.79126, -1, -21.1184, 4.91463, 19.4925, -155.621, -94.357, 83.6341
1.79926, -1, -21.2799, 4.87154, 19.5031, -155.672, -94.3397, 83.3422
1.80733, -1, -21.4419, 4.82833, 19.5138, -155.722, -94.3225, 83.0499
1.81526, -1, -21.604, 4.78506, 19.5245, -155.772, -94.3051, 82.7573
1.82328, -1, -21.7663, 4.74186, 19.5353, -155.822, -94.2874, 82.4647
1.83135, -1, -21.9287, 4.69849, 19.546, -155.872, -94.2696, 82.1722
1.83926, -1, -22.0912, 4.6551, 19.5568, -155.923, -94.2514, 81.8794
1.84731, -1, -22.2537, 4.61177, 19.5675, -155.973, -94.2337, 81.5864
1.85533, -1, -22.4161, 4.5683, 19.5782, -156.023, -94.2161, 81.2937
1.86331, -1, -22.5781, 4.52489, 19.5889, -156.074, -94.1985, 81.0011
1.87127, -1, -22.7399, 4.48147, 19.5996, -156.124, -94.1811, 80.7083
1.87932, -1, -22.9012, 4.43804, 19.6103, -156.173, -94.1636, 80.4151
1.88728, -1, -23.0624, 4.39472, 19.621, -156.224, -94.1457, 80.1221
1.89534, -1, -23.2234, 4.35141, 19.6317, -156.274, -94.1275, 79.829
1.90328, -1, -23.3843, 4.30809, 19.6426, -156.325, -94.1092, 79.5355
1.91127, -1, -23.5452, 4.26484, 19.6534, -156.375, -94.0912, 79.2421
1.91957, -1, -23.7062, 4.22156, 19.6642, -156.425, -94.0734, 78.949
1.92732, -1, -23.8674, 4.17826, 19.6749, -156.476, -94.0558, 78.6555
1.93531, -1, -24.0288, 4.13492, 19.6856, -156.526, -94.0384, 78.3617
1.94361, -1, -24.1908, 4.09152, 19.6964, -156.576, -94.021, 78.0678
1.95135, -1, -24.3532, 4.04812, 19.7071, -156.627, -94.0033, 77.774
1.95942, -1, -24.5161, 4.00466, 19.7177, -156.678, -93.9853, 77.4798
1.96779, -1, -24.6792, 3.96111, 19.7284, -156.727, -93.9671, 77.1854
1.97538, -1, -24.8425, 3.91756, 19.7391, -156.778, -93.9491, 76.8913
1.98328, -1, -25.006, 3.87401, 19.7499, -156.829, -93.9314, 76.5972
1.99191, -1, -25.1692, 3.83044, 19.7608, -156.879, -93.9138, 76.3029
2.00026, -1, -25.3324, 3.78687, 19.7717, -156.93, -93.8963, 76.0084
2.00736, -1, -25.4954, 3.74322, 19.7826, -156.98, -93.8788, 75.7142
2.01622, -1, -25.6581, 3.69954, 19.7932, -157.03, -93.861, 75.4197
2.0234, -1, -25.8207, 3.65601, 19.804, -157.081, -93.8429, 75.125
2.0318, -1, -25.983, 3.61251, 19.8148, -157.131, -93.8245, 74.8303
2.04047, -1, -26.1451, 3.56895, 19.8256, -157.181, -93.8062, 74.5358
2.04759, -1, -26.3067, 3.52551, 19.8364, -157.233, -93.7883, 74.2411
2.05577, -1, -26.4683, 3.48209, 19.8471, -157.283, -93.7705, 73.9459
2.06456, -1, -26.63, 3.43856, 19.8578, -157.333, -93.7529, 73.6507
2.07175, -1, -26.7921, 3.39505, 19.8688, -157.384, -93.7353, 73.3556
2.08002, -1, -26.9545, 3.35149, 19.8796, -157.435, -93.7175, 73.0603
2.08894, -1, -27.1173, 3.30783, 19.8905, -157.486, -93.6994, 72.7646
2.09636, -1, -27.2803, 3.26427, 19.9013, -157.536, -93.681, 72.4693
2.10391, -1, -27.362, 3.22052, 19.912, -157.587, -93.6628, 72.1741
2.11299, -1, -27.6077, 3.17673, 19.9228, -157.637, -93.6448, 71.8787
2.12035, -1, -27.7715, 3.13311, 19.9336, -157.688, -93.6271, 71.583
2.1273, -1, -27.8536, 3.11128, 19.9389, -157.713, -93.6182, 71.4352
2.13526, -1, -28.0178, 3.06754, 19.9498, -157.764, -93.6005, 71.1397
2.14325, -1, -28.1821, 3.02381, 19.9606, -157.815, -93.5828, 70.8438
2.15242, -1, -28.4284, 2.9582, 19.9768, -157.891, -93.5555, 70.3997
2.15925, -1, -28.5104, 2.93633, 19.9823, -157.916, -93.5463, 70.2518
2.16857, -1, -28.7559, 2.8708, 19.9986, -157.992, -93.5187, 69.8079
2.17525, -1, -28.8376, 2.8489, 20.004, -158.018, -93.5096, 69.6597
2.18325, -1, -29.0006, 2.80515, 20.0147, -158.069, -93.4916, 69.3632
2.19131, -1, -29.1634, 2.76146, 20.0255, -158.12, -93.474, 69.0669
2.20087, -1, -29.4075, 2.69589, 20.0418, -158.196, -93.4474, 68.6218
2.20968, -1, -29.5702, 2.65217, 20.0526, -158.247, -93.4296, 68.3248
2.21532, -1, -29.6516, 2.63028, 20.058, -158.273, -93.4205, 68.1764
2.22505, -1, -29.8962, 2.56456, 20.0743, -158.349, -93.3931, 67.7315
2.23126, -1, -29.9778, 2.54269, 20.0798, -158.374, -93.3839, 67.5831
2.24025, -1, -30.1411, 2.49878, 20.0908, -158.425, -93.3656, 67.2861
2.24725, -1, -30.3049, 2.45479, 20.1017, -158.476, -93.3476, 66.9889
2.25525, -1, -30.4692, 2.41089, 20.1127, -158.527, -93.3298, 66.692
2.26334, -1, -30.634, 2.36686, 20.1234, -158.577, -93.3121, 66.3948
2.27126, -1, -30.7991, 2.32288, 20.1343, -158.628, -93.2943, 66.0972
2.27924, -1, -30.9641, 2.27894, 20.1452, -158.68, -93.2762, 65.8
2.28728, -1, -31.1292, 2.23485, 20.156, -158.73, -93.2578, 65.5028
2.29525, -1, -31.2942, 2.19093, 20.1669, -158.782, -93.2393, 65.2053
2.30331, -1, -31.4591, 2.14705, 20.1777, -158.833, -93.2209, 64.9075
2.31125, -1, -31.6237, 2.10298, 20.1885, -158.884, -93.2029, 64.6099
2.31925, -1, -31.7883, 2.05902, 20.1995, -158.935, -93.1852, 64.3119
2.32732, -1, -31.9526, 2.01509, 20.2104, -158.987, -93.1676, 64.0138
2.33527, -1, -32.1166, 1.97107, 20.2214, -159.037, -93.1499, 63.7156
2.34325, -1, -32.2802, 1.92706, 20.2323, -159.089, -93.1321, 63.4179
2.35131, -1, -32.4437, 1.88304, 20.2432, -159.14, -93.1138, 63.1199
2.35925, -1, -32.6074, 1.83887, 20.2542, -159.191, -93.0955, 62.8216
2.3673, -1, -32.7712, 1.79479, 20.2651, -159.243, -93.0772, 62.5231
2.37531, -1, -32.9352, 1.75071, 20.276, -159.294, -93.0592, 62.225
2.38325, -1, -33.0995, 1.70644, 20.2869, -159.345, -93.0413, 61.9264
2.39125, -1, -33.2642, 1.66227, 20.2978, -159.397, -93.0235, 61.6276
2.39931, -1, -33.4292, 1.61809, 20.3087, -159.447, -93.0056, 61.3291
2.40726, -1, -33.5947, 1.57382, 20.3197, -159.499, -92.9875, 61.0305
2.41544, -1, -33.7603, 1.52959, 20.3307, -159.55, -92.9691, 60.7316
2.42325, -1, -33.9262, 1.48536, 20.3416, -159.601, -92.9503, 60.4324
2.4313, -1, -34.0921, 1.44114, 20.3524, -159.653, -92.9318, 60.1333
2.4394, -1, -34.2581, 1.39698, 20.3634, -159.704, -92.9137, 59.834
2.44735, -1, -34.4243, 1.35276, 20.3744, -159.755, -92.8957, 59.5342
2.45536, -1, -34.5902, 1.30855, 20.3853, -159.807, -92.8779, 59.2345
2.46341, -1, -34.7557, 1.26437, 20.3962, -159.858, -92.8602, 58.9353
2.47135, -1, -34.9209, 1.22012, 20.4071, -159.909, -92.8421, 58.6358
2.47934, -1, -35.0858, 1.17586, 20.4182, -159.961, -92.8238, 58.3361
2.48743, -1, -35.2504, 1.13157, 20.4293, -160.012, -92.8052, 58.0363
2.49527, -1, -35.4147, 1.0873, 20.4404, -160.064, -92.7867, 57.7365
2.5033, -1, -35.5779, 1.04332, 20.4516, -160.115, -92.7685, 57.4366
2.51136, -1, -35.7389, 0.999749, 20.4629, -160.166, -92.7505, 57.1371
2.51939, -1, -35.8965, 0.957048, 20.4747, -160.217, -92.7327, 56.8401
2.52745, -1, -36.0496, 0.915748, 20.4866, -160.267, -92.7151, 56.5476
2.53598, -1, -36.1963, 0.876326, 20.4985, -160.315, -92.6978, 56.2629
2.54435, -1, -36.3344, 0.839529, 20.5103, -160.362, -92.6809, 55.9916
2.55162, -1, -36.4619, 0.805773, 20.5215, -160.405, -92.665, 55.7399
2.56014, -1, -36.5775, 0.775151, 20.5315, -160.443, -92.6507, 55.5139
2.56776, -1, -36.6793, 0.748206, 20.5398, -160.476, -92.6386, 55.3189
2.57634, -1, -36.7665, 0.725101, 20.546, -160.503, -92.6287, 55.1585
2.58387, -1, -36.8394, 0.705834, 20.5499, -160.524, -92.6212, 55.0332
2.59244, -1, -36.899, 0.690182, 20.5519, -160.54, -92.6158, 54.942
2.59989, -1, -36.9456, 0.677828, 20.5527, -160.551, -92.6122, 54.8787
2.60836, -1, -36.9801, 0.668574, 20.5528, -160.559, -92.61, 54.8382
2.61521, -1, -36.9936, 0.665097, 20.5526, -160.561, -92.6092, 54.8247
2.62428, -1, -37.0209, 0.658371, 20.552, -160.565, -92.6081, 54.8016
2.63128, -1, -37.0262, 0.657079, 20.5518, -160.566, -92.6079, 54.7979
2.6392, 2, -37.0327, 0.655496, 20.5517, -160.567, -92.6077, 54.7937
2.64837, 2, -37.0348, 0.65458, 20.5516, -160.567, -92.6076, 54.7913
2.65528, 2, -37.0345, 0.654468, 20.5516, -160.568, -92.6075, 54.7909
2.66324, 2, -37.0338, 0.654339, 20.5515, -160.568, -92.6075, 54.7905
2.67261, 2, -37.0336, 0.654235, 20.5515, -160.568, -92.6075, 54.7904
2.67928, 2, -37.0339, 0.654205, 20.5515, -160.568, -92.6076, 54.7904
2.68724, 2, -37.035, 0.65417, 20.5514, -160.568, -92.6076, 54.7904
2.69675, 2, -37.0369, 0.653956, 20.5512, -160.568, -92.6076, 54.7904
2.70517, 2, -37.0384, 0.653716, 20.551, -160.568, -92.6077, 54.7904
2.71123, 2, -37.0391, 0.653572, 20.5509, -160.568, -92.6077, 54.7905
2.72082, 2, -37.0407, 0.653231, 20.5507, -160.568, -92.6077, 54.7906
2.72912, 2, -37.0414, 0.653049, 20.5505, -160.568, -92.6077, 54.7907
2.73524, 2, -37.0416, 0.653, 20.5504, -160.568, -92.6077, 54.7907
2.74424, 2, -37.0416, 0.652943, 20.5502, -160.568, -92.6078, 54.7908
2.75129, 2, -37.0411, 0.652947, 20.5501, -160.568, -92.6078, 54.791
2.76029, 2, -37.0403, 0.652987, 20.55, -160.568, -92.6079, 54.7912
2.76823, 2, -37.0393, 0.653043, 20.55, -160.568, -92.608, 54.7913
2.77626, 2, -37.0377, 0.653115, 20.5499, -160.568, -92.608, 54.7915
2.78323, 2, -37.0363, 0.653168, 20.5498, -160.568, -92.608, 54.7917
2.79125, 2, -37.0352, 0.65318, 20.5497, -160.568, -92.6081, 54.7918
2.79931, 2, -37.0345, 0.653185, 20.5497, -160.568, -92.6081, 54.7919
2.80724, 2, -37.0342, 0.653159, 20.5497, -160.568, -92.608, 54.7919
2.81523, 2, -37.0343, 0.653108, 20.5496, -160.568, -92.6081, 54.7919
2.8233, 2, -37.0345, 0.653055, 20.5496, -160.568, -92.6081, 54.7919
2.83123, 2, -37.0347, 0.65301, 20.5496, -160.567, -92.6081, 54.792
2.83925, 2, -37.0354, 0.652985, 20.5496, -160.567, -92.6081, 54.792
2.84731, 2, -37.0361, 0.652963, 20.5496, -160.567, -92.6081, 54.792
2.85523, 2, -37.0369, 0.652956, 20.5496, -160.568, -92.6081, 54.792
2.86324, 2, -37.0375, 0.652967, 20.5496, -160.567, -92.6081, 54.7921
2.87133, 2, -37.0379, 0.652978, 20.5495, -160.568, -92.6081, 54.7922
2.87923, 2, -37.038, 0.653024, 20.5495, -160.567, -92.6081, 54.7922
2.88724, 2, -37.0381, 0.653053, 20.5495, -160.567, -92.6081, 54.7922
2.8953, 2, -37.038, 0.653066, 20.5495, -160.568, -92.6081, 54.7922
2.90323, 2, -37.0376, 0.653061, 20.5495, -160.567, -92.6081, 54.7923
2.91123, 2, -37.0372, 0.653033, 20.5495, -160.567, -92.6081, 54.7923
2.91931, 2, -37.0369, 0.65302, 20.5495, -160.567, -92.6081, 54.7924
2.92727, 2, -37.0367, 0.653007, 20.5495, -160.567, -92.6081, 54.7925
2.93529, 2, -37.0366, 0.652983, 20.5495, -160.567, -92.6081, 54.7926
2.94339, 2, -37.0365, 0.652962, 20.5495, -160.567, -92.6082, 54.7926
2.95132, 2, -37.0366, 0.652937, 20.5495, -160.567, -92.6082, 54.7927
2.95934, 2, -37.0366, 0.652951, 20.5494, -160.567, -92.6082, 54.7927
2.96741, 2, -37.0367, 0.65297, 20.5494, -160.567, -92.6082, 54.7927
2.97534, 2, -37.0368, 0.652979, 20.5494, -160.567, -92.6082, 54.7928
2.98333, 2, -37.037, 0.653001, 20.5494, -160.567, -92.6082, 54.7928
2.99141, 2, -37.0372, 0.653031, 20.5494, -160.567, -92.6082, 54.7929
2.99927, 2, -37.0373, 0.653037, 20.5494, -160.567, -92.6082, 54.7929
3.00729, 2, -37.0374, 0.653022, 20.5494, -160.567, -92.6082, 54.793
3.01537, 2, -37.0374, 0.653033, 20.5494, -160.567, -92.6083, 54.7931
3.02335, 2, -37.0373, 0.65302, 20.5494, -160.567, -92.6082, 54.7931
3.03139, 2, -37.0374, 0.653002, 20.5494, -160.567, -92.6083, 54.7931
3.03987, 2, -37.0373, 0.652993, 20.5494, -160.567, -92.6083, 54.7932
3.0483, 2, -37.0373, 0.652982, 20.5493, -160.567, -92.6083, 54.7933
3.05571, 2, -37.0373, 0.652972, 20.5493, -160.567, -92.6083, 54.7933
3.06408, 2, -37.0372, 0.652968, 20.5493, -160.567, -92.6083, 54.7933
3.07239, 2, -37.0372, 0.652984, 20.5493, -160.567, -92.6083, 54.7933
3.07973, 2, -37.0372, 0.652997, 20.5493, -160.567, -92.6083, 54.7933
3.08833, 2, -37.0372, 0.65301, 20.5493, -160.567, -92.6083, 54.7934
3.09599, 2, -37.0372, 0.653028, 20.5493, -160.567, -92.6083, 54.7935
3.10384, 2, -37.0373, 0.653054, 20.5493, -160.567, -92.6083, 54.7935
3.11236, 2, -37.0372, 0.653048, 20.5493, -160.567, -92.6083, 54.7936
3.11922, 2, -37.0372, 0.653057, 20.5493, -160.567, -92.6083, 54.7936
3.12826, 2, -37.0372, 0.65304, 20.5493, -160.567, -92.6084, 54.7937
3.13608, 2, -37.0373, 0.653023, 20.5493, -160.567, -92.6084, 54.7937
3.14322, 2, -37.0373, 0.653034, 20.5492, -160.567, -92.6084, 54.7938
3.15122, 2, -37.0373, 0.65302, 20.5492, -160.567, -92.6083, 54.7938
3.16068, 2, -37.0372, 0.653, 20.5492, -160.567, -92.6083, 54.7939
3.16723, 2, -37.0372, 0.653003, 20.5492, -160.567, -92.6083, 54.7939
3.17654, 2, -37.0372, 0.653007, 20.5492, -160.567, -92.6084, 54.7939
3.18497, 2, -37.0372, 0.653019, 20.5492, -160.567, -92.6084, 54.7939
3.19286, 2, -37.0372, 0.653032, 20.5492, -160.567, -92.6084, 54.7939
3.20075, 2, -37.0371, 0.653038, 20.5492, -160.567, -92.6084, 54.794
3.20907, 2, -37.0372, 0.653041, 20.5492, -160.567, -92.6084, 54.794
3.21522, 2, -37.0372, 0.653052, 20.5492, -160.567, -92.6084, 54.794
3.22479, 2, -37.0371, 0.653069, 20.5492, -160.567, -92.6084, 54.7941
3.23308, 2, -37.0371, 0.653073, 20.5492, -160.567, -92.6084, 54.7941
3.23921, 2, -37.0371, 0.653074, 20.5491, -160.567, -92.6084, 54.7942
3.24821, 2, -37.0371, 0.653065, 20.5491, -160.567, -92.6084, 54.7942
3.25707, 2, -37.0371, 0.653035, 20.5491, -160.567, -92.6084, 54.7943
3.26322, 2, -37.0371, 0.653021, 20.5491, -160.567, -92.6084, 54.7943
3.27124, 2, -37.0371, 0.653014, 20.5491, -160.567, -92.6084, 54.7943
3.27928, 2, -37.0371, 0.653022, 20.5491, -160.567, -92.6084, 54.7943
3.28723, 2, -37.037, 0.653023, 20.5491, -160.567, -92.6085, 54.7943
3.29523, 2, -37.037, 0.653045, 20.5491, -160.567, -92.6084, 54.7944
3.30328, 2, -37.037, 0.653051, 20.5491, -160.567, -92.6084, 54.7944
3.31122, 2, -37.037, 0.653058, 20.5491, -160.567, -92.6085, 54.7944
3.31922, 2, -37.0369, 0.653057, 20.549, -160.567, -92.6084, 54.7945
3.32729, 2, -37.0369, 0.653049, 20.5491, -160.567, -92.6084, 54.7945
3.33521, 2, -37.037, 0.653057, 20.549, -160.567, -92.6085, 54.7945
3.34324, 2, -37.0369, 0.653068, 20.549, -160.567, -92.6085, 54.7945
3.35128, 2, -37.0369, 0.653062, 20.549, -160.567, -92.6084, 54.7945
3.35922, 2, -37.037, 0.653044, 20.549, -160.567, -92.6084, 54.7945
3.36727, 2, -37.0369, 0.653032, 20.549, -160.567, -92.6085, 54.7946
3.37532, 2, -37.0369, 0.653031, 20.549, -160.567, -92.6085, 54.7947
3.38322, 2, -37.0369, 0.653056, 20.549, -160.567, -92.6085, 54.7947
3.39121, 2, -37.0369, 0.653038, 20.549, -160.567, -92.6085, 54.7947
3.39928, 2, -37.0369, 0.653051, 20.549, -160.567, -92.6085, 54.7946
3.40722, 2, -37.0368, 0.653036, 20.549, -160.567, -92.6085, 54.7947
3.41522, 2, -37.0369, 0.653051, 20.5489, -160.567, -92.6085, 54.7948
3.42328, 2, -37.0368, 0.653065, 20.5489, -160.567, -92.6084, 54.7948
3.43125, 2, -37.0368, 0.65306, 20.5489, -160.567, -92.6085, 54.7948
3.43928, 2, -37.0368, 0.653062, 20.5489, -160.567, -92.6085, 54.7948
3.44737, 2, -37.0367, 0.65307, 20.5489, -160.567, -92.6085, 54.7948
3.45531, 2, -37.0367, 0.653055, 20.5489, -160.567, -92.6085, 54.7949
3.46333, 2, -37.0367, 0.653056, 20.5489, -160.567, -92.6085, 54.7949
3.47138, 2, -37.0367, 0.65306, 20.5489, -160.566, -92.6085, 54.7948
3.47932, 2, -37.0367, 0.653058, 20.5489, -160.567, -92.6085, 54.7948
3.48729, 2, -37.0367, 0.653042, 20.5489, -160.566, -92.6085, 54.7949
3.49541, 2, -37.0367, 0.653043, 20.5488, -160.566, -92.6085, 54.7949
3.50325, 2, -37.0367, 0.65305, 20.5488, -160.566, -92.6085, 54.7949
3.51127, 2, -37.0367, 0.653057, 20.5488, -160.566, -92.6085, 54.7949
3.51933, 2, -37.0367, 0.653068, 20.5488, -160.566, -92.6085, 54.7949
3.52745, 2, -37.0367, 0.653073, 20.5488, -160.566, -92.6085, 54.7949
3.53544, 2, -37.0366, 0.653064, 20.5488, -160.566, -92.6085, 54.795
3.54355, 2, -37.0366, 0.653053, 20.5488, -160.566, -92.6086, 54.7949
3.55162, 2, -37.0366, 0.65304, 20.5488, -160.566, -92.6085, 54.795
3.56025, 2, -37.0366, 0.65306, 20.5488, -160.566, -92.6085, 54.795
3.56775, 2, -37.0366, 0.653069, 20.5488, -160.566, -92.6085, 54.795
3.57637, 2, -37.0366, 0.653055, 20.5488, -160.566, -92.6085, 54.795
3.58373, 2, -37.0366, 0.653048, 20.5487, -160.566, -92.6085, 54.795
3.59234, 2, -37.0366, 0.653045, 20.5487, -160.566, -92.6085, 54.7951
3.59986, 2, -37.0366, 0.653044, 20.5487, -160.566, -92.6085, 54.7951
3.60831, 2, -37.0366, 0.653062, 20.5487, -160.566, -92.6085, 54.7951
3.61583, 2, -37.0366, 0.653067, 20.5487, -160.566, -92.6085, 54.7951
3.6243, 2, -37.0366, 0.653061, 20.5487, -160.566, -92.6086, 54.7951
3.63122, 2, -37.0366, 0.653066, 20.5487, -160.566, -92.6086, 54.7951
3.6405, 2, -37.0366, 0.653074, 20.5487, -160.566, -92.6085, 54.7951
3.6494, 2, -37.0365, 0.653075, 20.5487, -160.566, -92.6085, 54.7951
3.65525, 2, -37.0365, 0.653076, 20.5487, -160.566, -92.6085, 54.7951
3.66447, 2, -37.0365, 0.653077, 20.5487, -160.566, -92.6086, 54.7951
3.6712, 2, -37.0365, 0.653077, 20.5487, -160.566, -92.6086, 54.7951
3.68057, 2, -37.0365, 0.653064, 20.5487, -160.566, -92.6087, 54.7951
3.68722, 2, -37.0365, 0.653068, 20.5487, -160.566, -92.6086, 54.7951
3.69715, 2, -37.0365, 0.653043, 20.5486, -160.566, -92.6086, 54.7951
3.70323, 2, -37.0365, 0.653054, 20.5486, -160.566, -92.6086, 54.7952
3.71285, 2, -37.0365, 0.65307, 20.5486, -160.566, -92.6086, 54.7951
3.72077, 2, -37.0365, 0.653063, 20.5486, -160.566, -92.6086, 54.7951
3.72725, 4, -37.0365, 0.653056, 20.5486, -160.566, -92.6086, 54.7951
3.73685, 4, -37.0365, 0.65307, 20.5486, -160.566, -92.6087, 54.7951
3.74532, 4, -37.0365, 0.653074, 20.5486, -160.566, -92.6087, 54.7952
3.75127, 4, -37.0365, 0.653075, 20.5486, -160.566, -92.6087, 54.7952
3.76025, 4, -37.0364, 0.653076, 20.5486, -160.566, -92.6086, 54.7951
3.76819, 4, -37.0364, 0.653076, 20.5486, -160.566, -92.6086, 54.7952
3.7762, 4, -37.0364, 0.653077, 20.5486, -160.566, -92.6087, 54.7951
3.78427, 4, -37.0364, 0.653077, 20.5486, -160.566, -92.6086, 54.7951
3.7922, 4, -37.0364, 0.653077, 20.5486, -160.566, -92.6087, 54.7951
3.80019, 4, -37.0364, 0.653077, 20.5485, -160.566, -92.6087, 54.7951
3.80825, 4, -37.0364, 0.653077, 20.5485, -160.566, -92.6087, 54.7951
3.81521, 4, -37.0364, 0.653077, 20.5485, -160.566, -92.6086, 54.7952
3.82327, 4, -37.0364, 0.653077, 20.5485, -160.566, -92.6086, 54.7952
3.84978, 4, -37.0362, 0.653085, 20.5485, -160.566, -92.6087, 54.7952
3.8553, 4, -37.0362, 0.653081, 20.5485, -160.566, -92.6087, 54.7952
3.85769, 4, -37.0362, 0.653081, 20.5485, -160.566, -92.6087, 54.7952
3.85972, 4, -37.0363, 0.653079, 20.5485, -160.566, -92.6086, 54.7952
3.86437, 4, -37.0363, 0.653079, 20.5485, -160.566, -92.6086, 54.7952
3.87216, 4, -37.0362, 0.653078, 20.5485, -160.566, -92.6086, 54.7952
3.8792, 4, -37.0355, 0.652926, 20.5485, -160.566, -92.6087, 54.7952
3.88721, 4, -37.033, 0.651963, 20.5486, -160.566, -92.6087, 54.7951
3.89681, 4, -37.0272, 0.649044, 20.5495, -160.566, -92.6087, 54.7952
3.90502, 4, -37.0177, 0.643054, 20.5519, -160.566, -92.6087, 54.7952
3.91126, 4, -37.0042, 0.633423, 20.5574, -160.565, -92.6087, 54.7952
3.91942, 4, -36.9861, 0.619681, 20.5671, -160.563, -92.6087, 54.7952
3.92735, 5, -36.9623, 0.601416, 20.5827, -160.56, -92.6087, 54.7952
3.93525, 5, -36.9331, 0.578808, 20.6046, -160.556, -92.6085, 54.7952
3.94338, 5, -36.899, 0.551596, 20.6335, -160.55, -92.6081, 54.7951
3.95129, 5, -36.8602, 0.520051, 20.6691, -160.542, -92.6073, 54.7951
3.95929, 5, -36.8163, 0.483617, 20.7105, -160.533, -92.6061, 54.795
3.96739, 5, -36.7672, 0.442707, 20.7569, -160.522, -92.6046, 54.7949
3.97545, 5, -36.7132, 0.3977, 20.8072, -160.511, -92.6029, 54.7949
3.98419, 5, -36.6549, 0.349396, 20.86, -160.499, -92.6011, 54.7949
3.99127, 5, -36.5926, 0.298728, 20.9144, -160.487, -92.5993, 54.7949
3.99947, 5, -36.527, 0.2462, 20.9697, -160.475, -92.5974, 54.7949
4.00818, 5, -36.4598, 0.19269, 21.0252, -160.462, -92.5955, 54.7949
4.01546, 5, -36.3915, 0.138846, 21.0808, -160.45, -92.5935, 54.795
4.02365, 5, -36.3229, 0.0848417, 21.1364, -160.438, -92.5916, 54.795
4.03223, 5, -36.2541, 0.0308569, 21.1919, -160.426, -92.5896, 54.795
4.03948, 5, -36.1852, -0.022939, 21.2475, -160.414, -92.5875, 54.7951
4.04826, 5, -36.1166, -0.0764476, 21.303, -160.402, -92.5855, 54.7952
4.05648, 5, -36.0479, -0.129708, 21.3584, -160.389, -92.5834, 54.7953
4.06399, 5, -35.9794, -0.182791, 21.4138, -160.377, -92.5813, 54.7957
4.07236, 5, -35.9108, -0.235704, 21.4691, -160.364, -92.5792, 54.7961
4.0797, 5, -35.8421, -0.288439, 21.5243, -160.351, -92.5771, 54.7968
4.0883, 5, -35.7733, -0.34115, 21.5795, -160.338, -92.575, 54.7976
4.098, 5, -35.7042, -0.393913, 21.6344, -160.326, -92.5729, 54.7987
4.10445, 5, -35.6349, -0.446655, 21.6892, -160.313, -92.5708, 54.7999
4.11238, 5, -35.5653, -0.49949, 21.7438, -160.3, -92.5687, 54.8011
4.11969, 5, -35.5304, -0.52591, 21.771, -160.294, -92.5676, 54.8018
4.134, 5, -35.3901, -0.631622, 21.8795, -160.269, -92.5633, 54.805
4.1363, 5, -35.3549, -0.65801, 21.9066, -160.263, -92.5622, 54.8059
4.14319, 5, -35.3197, -0.68439, 21.9336, -160.256, -92.5611, 54.8068
4.15266, 5, -35.214, -0.763389, 22.0145, -160.236, -92.5578, 54.8097
4.1607, 5, -35.1434, -0.815683, 22.0683, -160.223, -92.5556, 54.8118
4.1672, 5, -35.108, -0.841823, 22.0952, -160.216, -92.5545, 54.8129
4.17681, 5, -35.0021, -0.919944, 22.1756, -160.196, -92.5511, 54.8164
4.1856, 5, -34.9317, -0.971659, 22.2291, -160.183, -92.5489, 54.8189
4.1912, 5, -34.8965, -0.99747, 22.2558, -160.177, -92.5477, 54.8202
4.20163, 5, -34.7907, -1.07467, 22.3357, -160.158, -92.5443, 54.8241
4.21122, 5, -34.7201, -1.12618, 22.3887, -160.145, -92.5419, 54.827
4.21515, 5, -34.6848, -1.15186, 22.4151, -160.138, -92.5408, 54.8284
4.22474, 5, -34.5784, -1.2289, 22.4942, -160.119, -92.5373, 54.833
4.23119, 5, -34.5429, -1.25464, 22.5204, -160.112, -92.5361, 54.8345
4.23919, 5, -34.4717, -1.30604, 22.5729, -160.099, -92.5337, 54.8377
4.24817, 5, -34.4003, -1.35743, 22.6252, -160.085, -92.5313, 54.841
4.25534, 5, -34.3287, -1.40881, 22.6773, -160.071, -92.5289, 54.8444
4.26339, 5, -34.2571, -1.46007, 22.7293, -160.057, -92.5266, 54.848
4.27123, 5, -34.1853, -1.51113, 22.7813, -160.044, -92.5242, 54.8516
4.27925, 5, -34.1133, -1.56197, 22.833, -160.03, -92.5217, 54.8555
4.28725, 5, -34.0412, -1.61266, 22.8846, -160.017, -92.5194, 54.8593
4.29519, 5, -33.969, -1.66308, 22.9362, -160.003, -92.517, 54.8634
4.30352, 5, -33.8968, -1.71328, 22.9876, -159.99, -92.5145, 54.8674
4.31129, 5, -33.8248, -1.76335, 23.0389, -159.976, -92.5122, 54.8715
4.31919, 5, -33.7526, -1.81335, 23.09, -159.962, -92.5098, 54.8757
4.32734, 5, -33.6803, -1.86329, 23.1408, -159.948, -92.5074, 54.88
4.33554, 5, -33.608, -1.91313, 23.1915, -159.933, -92.5051, 54.8844
4.34333, 5, -33.5353, -1.96322, 23.2422, -159.919, -92.5028, 54.8887
4.35128, 5, -33.4625, -2.01354, 23.2927, -159.905, -92.5005, 54.8927
4.35919, 5, -33.3896, -2.06416, 23.3431, -159.891, -92.4982, 54.8958
4.36718, 5, -33.3169, -2.11512, 23.3934, -159.877, -92.4959, 54.8975
4.37645, 6, -33.2444, -2.1666, 23.4438, -159.863, -92.4935, 54.8978
4.38336, 6, -33.1723, -2.21895, 23.4944, -159.848, -92.4908, 54.8959
4.39217, 6, -33.1005, -2.27213, 23.5456, -159.833, -92.4877, 54.8904
4.39997, 7, -33.0293, -2.3263, 23.5975, -159.816, -92.4835, 54.8792
4.4082, 7, -32.9585, -2.38162, 23.6506, -159.798, -92.478, 54.8641
4.41526, 7, -32.8882, -2.43817, 23.7049, -159.779, -92.4707, 54.8464
4.42664, 7, -32.7837, -2.52585, 23.7892, -159.747, -92.456, 54.8186
4.43141, 7, -32.7492, -2.55584, 23.818, -159.736, -92.45, 54.8096
4.43919, 8, -32.6808, -2.61712, 23.8767, -159.714, -92.4365, 54.792
4.44756, 8, -32.613, -2.68005, 23.9369, -159.689, -92.421, 54.775
4.45541, 8, -32.546, -2.7448, 23.9982, -159.664, -92.4036, 54.7578
4.46419, 8, -32.4797, -2.8112, 24.0606, -159.637, -92.3843, 54.7398
4.4713, 8, -32.4142, -2.87918, 24.124, -159.609, -92.3634, 54.7204
4.47952, 9, -32.3492, -2.94857, 24.1884, -159.581, -92.3414, 54.6993
4.48779, 9, -32.2849, -3.01921, 24.2538, -159.552, -92.3183, 54.6766
4.49624, 9, -32.2212, -3.09124, 24.3203, -159.521, -92.2941, 54.6519
4.50357, 9, -32.1579, -3.16458, 24.3877, -159.489, -92.2684, 54.6259
4.5122, 9, -32.0953, -3.23915, 24.456, -159.457, -92.2406, 54.5987
4.51929, 9, -32.0332, -3.31509, 24.5254, -159.424, -92.2114, 54.5701
4.52741, 10, -31.9717, -3.3923, 24.5958, -159.39, -92.1812, 54.5398
4.53542, 10, -31.9109, -3.47101, 24.6672, -159.354, -92.1499, 54.5074
4.54349, 10, -31.8505, -3.55112, 24.7397, -159.318, -92.117, 54.4731
4.55172, 10, -31.7908, -3.63263, 24.8133, -159.281, -92.0819, 54.4375
4.56052, 10, -31.7316, -3.71562, 24.8878, -159.243, -92.046, 54.4009
4.56762, 11, -31.6729, -3.80008, 24.9633, -159.204, -92.0092, 54.3627
4.57699, 11, -31.6148, -3.88598, 25.0397, -159.164, -91.9709, 54.3225
4.58464, 11, -31.5571, -3.97331, 25.117, -159.124, -91.9304, 54.2805
4.59182, 11, -31.5, -4.06219, 25.1953, -159.082, -91.8891, 54.2373
4.60105, 11, -31.4435, -4.15252, 25.2748, -159.039, -91.8467, 54.193
4.60775, 12, -31.4154, -4.24429, 25.3552, -158.996, -91.8022, 54.1468
4.61623, 12, -31.3318, -4.33743, 25.4368, -158.951, -91.7564, 54.0985
4.62609, 12, -31.2768, -4.43195, 25.5194, -158.905, -91.7101, 54.0492
4.63253, 12, -31.2223, -4.5278, 25.6031, -158.859, -91.6616, 53.9986
4.64026, 12, -31.1683, -4.62511, 25.6877, -158.811, -91.6118, 53.9461
4.6472, 13, -31.1415, -4.6743, 25.7304, -158.787, -91.5868, 53.919
4.65642, 13, -31.0618, -4.82394, 25.8597, -158.714, -91.5085, 53.8366
4.66323, 13, -31.0355, -4.87456, 25.9034, -158.689, -91.4816, 53.8085
4.67247, 13, -30.9575, -5.02875, 26.0359, -158.612, -91.4001, 53.7211
4.67933, 13, -30.9317, -5.08084, 26.0806, -158.586, -91.3718, 53.6914
4.68723, 14, -30.8805, -5.18607, 26.171, -158.534, -91.3146, 53.6313
4.69673, 14, -30.805, -5.34682, 26.3084, -158.453, -91.2267, 53.5373
4.70509, 14, -30.7553, -5.45573, 26.4011, -158.399, -91.1662, 53.4737
4.71257, 14, -30.7306, -5.51077, 26.4477, -158.37, -91.105, 53.4084
4.71925, 14, -30.6816, -5.62204, 26.5419, -158.314, -91.0732, 53.3748
4.72878, 15, -30.609, -5.79163, 26.6851, -158.229, -90.9773, 53.273
4.73693, 15, -30.5851, -5.84883, 26.782, -158.17, -90.9109, 53.2031
4.74474, 15, -30.5376, -5.96416, 26.831, -158.141, -90.8443, 53.1316
4.75366, 15, -30.4907, -6.08089, 26.9296, -158.081, -90.7755, 53.0594
4.7617, 15, -30.4442, -6.25871, 27.0791, -157.99, -90.7057, 52.9844
4.76813, 16, -30.3982, -6.31864, 27.1294, -157.959, -90.6704, 52.9467
4.77617, 16, -30.3528, -6.43981, 27.2307, -157.896, -90.598, 52.8705
4.7843, 16, -30.3079, -6.56245, 27.3332, -157.833, -90.5253, 52.7918
4.79218, 16, -30.2634, -6.68643, 27.4369, -157.768, -90.4506, 52.7125
4.80259, 16, -30.1976, -6.8753, 27.5944, -157.671, -90.3364, 52.5904
4.80842, 17, -30.1759, -6.93901, 27.6474, -157.637, -90.2977, 52.5493
4.81616, 17, -30.1329, -7.06768, 27.754, -157.57, -90.2194, 52.4659
4.82323, 17, -30.0904, -7.19792, 27.8614, -157.503, -90.1396, 52.3811
4.83134, 17, -30.0484, -7.32956, 27.9699, -157.434, -90.0582, 52.2953
4.83917, 17, -30.007, -7.46244, 28.0795, -157.364, -89.976, 52.2074
4.84717, 17, -29.966, -7.59669, 28.1904, -157.294, -89.8921, 52.1189
4.85526, 18, -29.9255, -7.73242, 28.3024, -157.222, -89.8071, 52.0285
4.86323, 18, -29.8855, -7.86963, 28.4152, -157.15, -89.7206, 51.9373
4.87117, 18, -29.8461, -8.00817, 28.5288, -157.076, -89.6333, 51.8442
4.87932, 18, -29.807, -8.14787, 28.6434, -157.002, -89.5446, 51.7502
4.88728, 18, -29.7684, -8.28898, 28.7592, -156.927, -89.4543, 51.6542
4.89519, 19, -29.7303, -8.43146, 28.8762, -156.851, -89.3633, 51.5577
4.9041, 19, -29.6927, -8.57555, 28.9943, -156.774, -89.2707, 51.4595
4.91316, 19, -29.6555, -8.72123, 29.1132, -156.697, -89.1768, 51.3607
4.91917, 19, -29.6188, -8.86817, 29.2329, -156.618, -89.082, 51.2606
4.92794, 19, -29.5825, -9.01628, 29.3534, -156.539, -88.9861, 51.1595
4.93622, 20, -29.5468, -9.16598, 29.4751, -156.458, -88.8888, 51.0569
4.94326, 20, -29.5114, -9.31716, 29.5981, -156.377, -88.7908, 50.9532
4.9534, 20, -29.4766, -9.46986, 29.722, -156.295, -88.6916, 50.8485
4.95974, 20, -29.4422, -9.62355, 29.8467, -156.212, -88.5912, 50.7423
4.96823, 20, -29.4083, -9.77848, 29.9723, -156.128, -88.4899, 50.6352
4.97528, 21, -29.3749, -9.93479, 30.0989, -156.043, -88.3874, 50.5266
4.98418, 21, -29.3418, -10.0927, 30.2266, -155.957, -88.2835, 50.4173
4.99126, 21, -29.3091, -10.252, 30.3553, -155.871, -88.179, 50.307
4.99977, 21, -29.277, -10.4121, 30.4849, -155.784, -88.0733, 50.1957
5.00782, 21, -29.2452, -10.5734, 30.6154, -155.696, -87.9665, 50.0837
5.01595, 22, -29.2139, -10.736, 30.7468, -155.606, -87.8589, 49.9708
5.02424, 22, -29.1829, -10.9001, 30.8791, -155.516, -87.7501, 49.8569
5.03175, 22, -29.1523, -11.0651, 31.0124, -155.425, -87.6406, 49.7423
5.04036, 22, -29.1221, -11.2311, 31.1466, -155.333, -87.5298, 49.6264
5.04743, 22, -29.0923, -11.3983, 31.2817, -155.241, -87.4179, 49.5101
5.05599, 23, -29.0629, -11.5672, 31.4178, -155.147, -87.3055, 49.3928
5.06439, 23, -29.0338, -11.7376, 31.5546, -155.053, -87.1917, 49.2748
5.07164, 23, -29.005, -11.9088, 31.6922, -154.958, -87.0774, 49.1564
5.0808, 23, -28.9768, -12.0808, 31.8305, -154.862, -86.9622, 49.0372
5.08993, 23, -28.9488, -12.2543, 31.9699, -154.765, -86.8459, 48.9173
5.09634, 23, -28.9213, -12.4293, 32.1101, -154.667, -86.7287, 48.797
5.10458, 24, -28.894, -12.605, 32.2512, -154.568, -86.6105, 48.6761
5.11177, 24, -28.8671, -12.7812, 32.393, -154.469, -86.4917, 48.5545
5.12094, 24, -28.8406, -12.9586, 32.5354, -154.369, -86.372, 48.4324
5.12971, 24, -28.8144, -13.1376, 32.6788, -154.268, -86.2512, 48.3096
5.13829, 24, -28.7885, -13.3177, 32.8232, -154.166, -86.1301, 48.1863
5.14511, 25, -28.7629, -13.4981, 32.9682, -154.063, -86.0079, 48.0631
5.15222, 25, -28.7376, -13.6795, 33.1137, -153.96, -85.8854, 47.9397
5.16068, 25, -28.7124, -13.8624, 33.2599, -153.855, -85.762, 47.816
5.16923, 25, -28.6875, -14.0464, 33.407, -153.75, -85.6377, 47.6921
5.17522, 25, -28.6751, -14.1386, 33.4808, -153.697, -85.5755, 47.6301
5.18463, 26, -28.6386, -14.4158, 33.7032, -153.537, -85.3876, 47.444
5.19258, 26, -28.6146, -14.6024, 33.8521, -153.43, -85.262, 47.3197
5.20064, 26, -28.5909, -14.7902, 34.0018, -153.322, -85.1355, 47.1954
5.20716, 26, -28.579, -14.8841, 34.0769, -153.268, -85.0719, 47.1332
5.2167, 26, -28.5437, -15.1664, 34.3033, -153.103, -84.8807, 46.9469
5.22514, 27, -28.5206, -15.3557, 34.4546, -152.993, -84.7526, 46.8234
5.23131, 27, -28.5091, -15.4506, 34.5305, -152.938, -84.6885, 46.7617
5.23921, 27, -28.4862, -15.6408, 34.6828, -152.826, -84.5595, 46.6383
5.24885, 27, -28.4635, -15.8312, 34.9128, -152.658, -84.3654, 46.4538
5.257, 27, -28.4411, -16.0228, 34.9895, -152.601, -84.2355, 46.3311
5.26338, 28, -28.4189, -16.2159, 35.1431, -152.488, -84.1704, 46.27
5.27116, 28, -28.3965, -16.4096, 35.2973, -152.374, -84.04, 46.1479
5.28029, 28, -28.3743, -16.6036, 35.4523, -152.259, -83.909, 46.0265
5.28738, 28, -28.3524, -16.7987, 35.6077, -152.144, -83.7781, 45.9056
5.29617, 28, -28.3305, -16.9948, 35.7633, -152.028, -83.6464, 45.7854
5.30417, 29, -28.3086, -17.191, 35.9193, -151.911, -83.5148, 45.6662
5.31224, 29, -28.287, -17.3874, 36.0761, -151.793, -83.3827, 45.5476
5.32014, 29, -28.2655, -17.5848, 36.2335, -151.675, -83.2502, 45.4296
5.33068, 29, -28.2332, -17.8817, 36.4696, -151.496, -83.0508, 45.2543
5.33637, 29, -28.2226, -17.9806, 36.5484, -151.436, -82.9842, 45.1962
5.34312, 30, -28.2014, -18.1787, 36.7068, -151.316, -82.8508, 45.0811
5.35215, 30, -28.1802, -18.3777, 36.8657, -151.195, -82.7174, 44.9671
5.36304, 30, -28.1483, -18.6766, 37.1036, -151.012, -82.517, 44.7986
5.36814, 30, -28.1376, -18.7762, 37.1829, -150.951, -82.4501, 44.7435
5.37627, 30, -28.1164, -18.9762, 37.3416, -150.829, -82.3166, 44.6342
5.3841, 31, -28.0949, -19.1771, 37.5008, -150.706, -82.1824, 44.527
5.39125, 31, -28.0734, -19.378, 37.66, -150.583, -82.0487, 44.4211
5.39915, 31, -28.0519, -19.5786, 37.8188, -150.459, -81.9143, 44.317
5.40723, 31, -28.0304, -19.7794, 37.9781, -150.334, -81.7804, 44.2146
5.41516, 31, -28.0087, -19.9805, 38.1381, -150.209, -81.6462, 44.1135
5.42315, 31, -27.9869, -20.181, 38.2982, -150.083, -81.5118, 44.0142
5.43152, 32, -27.9651, -20.3815, 38.4578, -149.957, -81.3775, 43.9165
5.441, 32, -27.9429, -20.5827, 38.6173, -149.83, -81.2434, 43.8213
5.44718, 32, -27.9204, -20.7841, 38.7774, -149.704, -81.1095, 43.728
5.45566, 32, -27.8978, -20.985, 38.9373, -149.576, -80.9755, 43.6376
5.46423, 32, -27.8751, -21.1858, 39.0964, -149.449, -80.8423, 43.5496
5.47126, 33, -27.852, -21.3867, 39.2552, -149.321, -80.7092, 43.465
5.4814, 33, -27.8286, -21.5869, 39.4142, -149.194, -80.5767, 43.3832
5.48745, 33, -27.8047, -21.7863, 39.5728, -149.066, -80.4444, 43.3045
5.49889, 33, -27.7803, -21.9855, 39.7305, -148.938, -80.3129, 43.1926
5.50493, 33, -27.7554, -22.1847, 39.8874, -148.811, -80.1815, 43.1568
5.51214, 34, -27.7301, -22.3827, 40.0442, -148.683, -80.0507, 43.0884
5.51922, 34, -27.7042, -22.5798, 40.2008, -148.556, -79.92, 43.0227
5.52722, 34, -27.6779, -22.7768, 40.3567, -148.428, -79.7892, 42.96
5.53632, 34, -27.6513, -22.9735, 40.5118, -148.3, -79.6586, 42.9013
5.54421, 34, -27.6241, -23.1694, 40.6671, -148.172, -79.5279, 42.8453
5.55143, 35, -27.5965, -23.365, 40.8223, -148.044, -79.3974, 42.7922
5.55959, 35, -27.569, -23.561, 40.9771, -147.915, -79.2667, 42.7432
5.56823, 35, -27.5412, -23.757, 41.1314, -147.786, -79.1366, 42.6976
5.57566, 35, -27.5131, -23.9523, 41.2855, -147.657, -79.0064, 42.655
5.58859, 35, -27.4705, -24.2451, 41.517, -147.461, -78.812, 42.5971
5.59235, 36, -27.456, -24.3428, 41.5939, -147.396, -78.7471, 42.5799
5.59974, 36, -27.4271, -24.5375, 41.7474, -147.265, -78.6179, 42.5487
5.60846, 36, -27.3977, -24.7314, 41.9004, -147.134, -78.4892, 42.5217
5.61731, 36, -27.3679, -24.9249, 42.0533, -147.003, -78.3606, 42.4989
5.62391, 36, -27.3374, -25.1184, 42.2055, -146.872, -78.2328, 42.4805
5.63222, 37, -27.3059, -25.3106, 42.3565, -146.741, -78.1051, 42.4667
5.63917, 37, -27.2898, -25.4062, 42.4315, -146.676, -78.0414, 42.4615
5.6472, 37, -27.257, -25.5965, 42.5809, -146.546, -77.9145, 42.4548
5.65739, 37, -27.2062, -25.8808, 42.8033, -146.352, -77.7245, 42.4515
5.6653, 37, -27.1711, -26.0683, 42.95, -146.224, -77.5984, 42.4541
5.67116, 37, -27.1531, -26.1614, 43.0228, -146.16, -77.5354, 42.4581
5.67915, 38, -27.1166, -26.3466, 43.1674, -146.032, -77.4101, 42.4706
5.68721, 38, -27.0794, -26.5312, 43.3112, -145.905, -77.2852, 42.4883
5.69735, 38, -27.0219, -26.8054, 43.5255, -145.714, -77.0988, 42.525
5.70562, 38, -26.9826, -26.9866, 43.6673, -145.588, -76.9751, 42.5564
5.71302, 38, -26.9426, -27.1674, 43.808, -145.461, -76.8521, 42.594
5.71912, 39, -26.9223, -27.2576, 43.8781, -145.398, -76.7906, 42.6152
5.72716, 39, -26.8812, -27.4373, 44.0176, -145.272, -76.6677, 42.6617
5.73901, 39, -26.8178, -27.7046, 44.2254, -145.083, -76.4841, 42.7416
5.74472, 39, -26.7963, -27.7934, 44.2941, -145.02, -76.4229, 42.8032
5.75272, 39, -26.7527, -27.9709, 44.4307, -144.895, -76.3007, 42.8364
5.7602, 40, -26.7082, -28.1474, 44.5661, -144.77, -76.1786, 42.9065
5.76716, 40, -26.6627, -28.3221, 44.7007, -144.646, -76.0566, 42.9839
5.7752, 40, -26.6162, -28.4955, 44.834, -144.523, -75.9353, 43.0674
5.78338, 40, -26.5689, -28.668, 44.9661, -144.4, -75.814, 43.157
5.79118, 40, -26.5204, -28.8392, 45.0968, -144.278, -75.6935, 43.2539
5.79914, 41, -26.4709, -29.0086, 45.2262, -144.157, -75.5733, 43.357
5.80717, 41, -26.4203, -29.1763, 45.3544, -144.036, -75.4533, 43.4671
5.81522, 41, -26.3685, -29.343, 45.4813, -143.916, -75.3341, 43.5839
5.82314, 41, -26.3155, -29.5083, 45.6068, -143.798, -75.215, 43.7077
5.83135, 41, -26.2612, -29.6716, 45.7306, -143.68, -75.0967, 43.8387
5.84018, 42, -26.2055, -29.833, 45.8525, -143.564, -74.9787, 43.9771
5.84813, 42, -26.1483, -29.9926, 45.9725, -143.449, -74.8611, 44.1228
5.85619, 42, -26.0895, -30.1504, 46.0903, -143.336, -74.7444, 44.2753
5.86414, 42, -26.0289, -30.306, 46.206, -143.225, -74.6279, 44.4352
5.87214, 42, -25.9667, -30.459, 46.3197, -143.116, -74.5121, 44.6022
5.88042, 43, -25.9028, -30.6098, 46.431, -143.009, -74.3969, 44.7765
5.88734, 43, -25.8371, -30.7583, 46.5401, -142.904, -74.2819, 44.9586
5.89517, 43, -25.7698, -30.9047, 46.6471, -142.801, -74.1675, 45.1481
5.90658, 43, -25.6658, -31.1199, 46.804, -142.649, -73.9964, 45.447
5.91231, 43, -25.6304, -31.1905, 46.8554, -142.599, -73.9398, 45.5504
5.92018, 44, -25.5584, -31.3302, 46.9567, -142.501, -73.8267, 45.7631
5.92732, 44, -25.4848, -31.4678, 47.0558, -142.405, -73.7143, 45.9838
5.93528, 44, -25.4092, -31.6034, 47.1525, -142.312, -73.6025, 46.2126
5.94337, 44, -25.332, -31.7366, 47.2467, -142.22, -73.4912, 46.4495
5.95118, 44, -25.253, -31.8671, 47.3385, -142.131, -73.3807, 46.6945
5.9595, 45, -25.1721, -31.9949, 47.4279, -142.045, -73.2709, 46.9476
5.96772, 45, -25.0893, -32.12, 47.515, -141.962, -73.1613, 47.2094
5.97619, 45, -25.0044, -32.2423, 47.5995, -141.882, -73.0526, 47.4796
5.98341, 45, -24.9174, -32.3617, 47.6809, -141.804, -72.9442, 47.7579
5.99211, 45, -24.8282, -32.4779, 47.7594, -141.729, -72.8363, 48.0444
5.99933, 45, -24.7366, -32.5909, 47.8348, -141.657, -72.729, 48.3394
6.00726, 46, -24.6427, -32.7004, 47.9073, -141.589, -72.6221, 48.6432
6.01517, 46, -24.5462, -32.8065, 47.9769, -141.524, -72.5161, 48.9549
6.02325, 46, -24.4474, -32.9092, 48.0433, -141.464, -72.411, 49.2749
6.03253, 46, -24.3463, -33.0081, 48.1065, -141.407, -72.3067, 49.6037
6.04105, 46, -24.243, -33.1033, 48.1662, -141.353, -72.2039, 49.9404
6.04814, 47, -24.1374, -33.1947, 48.2225, -141.304, -72.1019, 50.2851
6.05542, 47, -24.0292, -33.282, 48.2751, -141.259, -72.0009, 50.6383
6.06419, 47, -23.9184, -33.3654, 48.324, -141.217, -71.9014, 50.9998
6.07153, 47, -23.805, -33.4446, 48.3692, -141.181, -71.8028, 51.3699
6.07958, 47, -23.6888, -33.5197, 48.4105, -141.15, -71.7054, 51.7488
6.08889, 48, -23.5698, -33.5904, 48.4477, -141.123, -71.6097, 52.1363
6.09602, 48, -23.4482, -33.6565, 48.4808, -141.1, -71.5153, 52.5329
6.10422, 48, -23.3241, -33.718, 48.5098, -141.082, -71.4225, 52.9393
6.1123, 48, -23.1975, -33.7744, 48.5346, -141.069, -71.3319, 53.3547
6.11971, 48, -23.1332, -33.8007, 48.5453, -141.062, -71.243, 53.7792
6.12831, 49, -22.9357, -33.872, 48.5708, -141.059, -71.156, 54.2122
6.14225, 49, -22.7316, -33.9311, 48.5861, -141.064, -71.0295, 54.8757
6.14437, 49, -22.6621, -33.9479, 48.5888, -141.068, -70.9883, 55.1009
6.15126, 49, -22.5919, -33.9634, 48.5903, -141.075, -70.9476, 55.3277
6.16535, 50, -22.304, -34.0107, 48.5851, -141.116, -70.7912, 56.2538
6.16708, 50, -22.304, -34.0107, 48.5851, -141.116, -70.7912, 56.2538
6.17645, 50, -22.0811, -34.03, 48.5679, -141.162, -70.6814, 56.9669
6.18316, 50, -22.0054, -34.0333, 48.5596, -141.18, -70.6462, 57.2087
6.19275, 50, -21.774, -34.0344, 48.5268, -141.245, -70.5454, 57.9454
6.20058, 50, -21.6158, -34.0273, 48.4979, -141.297, -70.4827, 58.4457
6.20905, 51, -21.4546, -34.0132, 48.4636, -141.353, -70.4235, 58.9522
6.21668, 51, -21.373, -34.0037, 48.424, -141.418, -70.3675, 59.4652
6.22468, 51, -21.1241, -33.9646, 48.3787, -141.487, -70.3159, 59.9842
6.23536, 51, -20.9551, -33.9297, 48.3278, -141.564, -70.2674, 60.5093
6.2393, 51, -20.8696, -33.9096, 48.3003, -141.604, -70.2446, 60.7739
6.24708, 52, -20.6968, -33.8636, 48.2407, -141.69, -70.2024, 61.307
6.25613, 52, -20.5212, -33.8096, 48.1752, -141.781, -70.1653, 61.8468
6.26791, 52, -20.2526, -33.714, 48.0658, -141.931, -70.1176, 62.669
6.27208, 52, -20.1616, -33.678, 48.0262, -141.984, -70.104, 62.9464
6.27921, 52, -19.9778, -33.5999, 47.9424, -142.095, -70.0807, 63.505
6.28716, 52, -19.7915, -33.5133, 47.8523, -142.213, -70.0628, 64.0701
6.29613, 53, -19.603, -33.4183, 47.7561, -142.336, -70.0505, 64.6408
6.30313, 53, -19.4126, -33.315, 47.6539, -142.466, -70.0436, 65.2165
6.31131, 53, -19.2202, -33.2035, 47.5457, -142.602, -70.0416, 65.7953
6.32154, 53, -18.9284, -33.021, 47.3725, -142.815, -70.0484, 66.6703
6.32714, 53, -18.8302, -32.9559, 47.3118, -142.888, -70.0538, 66.9633
6.33548, 54, -18.6327, -32.8197, 47.186, -143.039, -70.0694, 67.5498
6.34788, 54, -18.3326, -32.5998, 46.9867, -143.273, -70.1052, 68.4317
6.35208, 54, -18.2317, -32.5225, 46.9176, -143.354, -70.1205, 68.7262
6.36254, 54, -17.927, -32.2777, 46.7015, -143.602, -70.1753, 69.6127
6.36836, 54, -17.8248, -32.1917, 46.6265, -143.687, -70.1969, 69.9088
6.37611, 55, -17.62, -32.0125, 46.4716, -143.86, -70.2465, 70.5035
6.38412, 55, -17.4138, -31.824, 46.3104, -144.037, -70.3037, 71.1026
6.39219, 55, -17.206, -31.6262, 46.1425, -144.22, -70.3687, 71.7062
6.40018, 55, -16.9965, -31.4182, 45.967, -144.409, -70.4432, 72.3142
6.40811, 55, -16.7852, -31.1992, 45.7838, -144.602, -70.526, 72.9273
6.41536, 56, -16.5724, -30.9699, 45.5942, -144.8, -70.6184, 73.5452
6.42419, 56, -16.3581, -30.7301, 45.3973, -145.002, -70.7195, 74.1671
6.43115, 56, -16.143, -30.4789, 45.1923, -145.209, -70.8302, 74.7917
6.43953, 56, -15.9279, -30.2174, 44.9808, -145.419, -70.9504, 75.4194
6.44816, 56, -15.713, -29.9453, 44.7635, -145.633, -71.0797, 76.0496
6.45518, 57, -15.4969, -29.6623, 44.5388, -145.85, -71.2188, 76.6804
6.4634, 57, -15.2798, -29.3694, 44.3076, -146.069, -71.3673, 77.3123
6.47122, 57, -15.0617, -29.066, 44.0705, -146.29, -71.5258, 77.9455
6.4795, 57, -14.8434, -28.7536, 43.8269, -146.513, -71.6936, 78.5777
6.4894, 57, -14.6256, -28.433, 43.5786, -146.738, -71.8709, 79.2079
6.49541, 58, -14.4085, -28.1044, 43.3259, -146.962, -72.0565, 79.8358
6.5052, 58, -14.1925, -27.7683, 43.0689, -147.185, -72.2496, 80.4591
6.51289, 58, -13.9782, -27.4245, 42.8093, -147.407, -72.4501, 81.0755
6.52012, 58, -13.7654, -27.0742, 42.5465, -147.627, -72.6575, 81.6853
6.5273, 58, -13.5539, -26.7171, 42.2812, -147.845, -72.8716, 82.2887
6.53547, 59, -13.3435, -26.3536, 42.0128, -148.06, -73.0925, 82.886
6.54407, 59, -13.135, -25.9827, 41.7404, -148.274, -73.3208, 83.4771
6.55142, 59, -12.9283, -25.6053, 41.4648, -148.486, -73.5572, 84.0644
6.56228, 59, -12.723, -25.221, 41.1848, -148.696, -73.8019, 84.6483
6.56791, 59, -12.5185, -24.8295, 40.9011, -148.905, -74.0555, 85.2289
6.57555, 59, -12.315, -24.4298, 40.6127, -149.112, -74.3181, 85.8057
6.58445, 60, -12.1127, -24.0226, 40.32, -149.318, -74.5897, 86.3799
6.5921, 60, -11.9118, -23.6089, 40.024, -149.522, -74.8703, 86.951
6.60015, 60, -11.7123, -23.1884, 39.7247, -149.723, -75.1595, 87.5182
6.60769, 60, -11.5149, -22.7625, 39.4237, -149.922, -75.4564, 88.0797
6.61622, 60, -11.3198, -22.3319, 39.1206, -150.117, -75.7601, 88.636
6.62371, 61, -11.2232, -22.1153, 38.9688, -150.213, -76.0697, 89.1848
6.63212, 61, -10.9366, -21.4595, 38.5122, -150.493, -76.3837, 89.7247
6.63995, 61, -10.8422, -21.2392, 38.3601, -150.674, -76.7018, 90.2542
6.64859, 61, -10.6553, -20.5737, 37.9041, -150.849, -77.0239, 90.7748
6.65618, 61, -10.3794, -20.1255, 37.6005, -151.02, -77.3496, 91.2856
6.66312, 62, -10.2887, -19.9005, 37.4488, -151.103, -77.514, 91.5377
6.67238, 62, -10.021, -19.2215, 36.993, -151.345, -78.0142, 92.2811
6.67915, 62, -9.93304, -18.9939, 36.841, -151.424, -78.1835, 92.5251
6.68868, 62, -9.67338, -18.3084, 36.3832, -151.653, -78.6989, 93.2464
6.69658, 62, -9.58805, -18.0791, 36.0783, -151.799, -79.0484, 93.7173
6.70456, 63, -9.33531, -17.3897, 35.7735, -151.941, -79.402, 94.1796
6.71371, 63, -9.16964, -16.9285, 35.4706, -152.078, -79.7587, 94.6316
6.71916, 63, -9.0877, -16.6971, 35.3195, -152.144, -79.938, 94.854
6.72899, 63, -8.84577, -16.0001, 34.8687, -152.334, -80.4795, 95.5055
6.73675, 63, -8.68766, -15.5325, 34.57, -152.454, -80.8433, 95.9267
6.7449, 64, -8.53202, -15.0629, 34.2732, -152.569, -81.2099, 96.3379
6.7528, 64, -8.45508, -14.8277, 34.1254, -152.679, -81.58, 96.7387
6.76012, 64, -8.30297, -14.356, 33.8292, -152.732, -81.7666, 96.9357
6.76889, 64, -8.15323, -13.8839, 33.5335, -152.835, -82.1432, 97.3231
6.7761, 64, -8.00574, -13.4119, 33.2379, -152.933, -82.524, 97.7004
6.78407, 65, -7.86067, -12.9406, 32.9435, -153.026, -82.9082, 98.0666
6.79372, 65, -7.64799, -12.2364, 32.506, -153.155, -83.4877, 98.5938
6.80009, 65, -7.57855, -12.0022, 32.362, -153.195, -83.6813, 98.7627
6.8081, 65, -7.44205, -11.5344, 32.077, -153.271, -84.0677, 99.0897
6.81631, 65, -7.30854, -11.0673, 31.7957, -153.34, -84.453, 99.4023
6.82352, 66, -7.17813, -10.6016, 31.5193, -153.403, -84.8371, 99.7
6.83118, 66, -7.05007, -10.1389, 31.2463, -153.461, -85.2198, 99.9824
6.8399, 66, -6.92405, -9.67994, 30.9772, -153.514, -85.6022, 100.249
6.84711, 66, -6.80009, -9.22622, 30.7121, -153.56, -85.9841, 100.501
6.85511, 66, -6.6783, -8.77883, 30.4501, -153.601, -86.3646, 100.737
6.86423, 67, -6.55884, -8.33755, 30.193, -153.636, -86.7429, 100.955
6.87449, 67, -6.44183, -7.90257, 29.9408, -153.666, -87.3035, 101.251
6.87911, 67, -6.32793, -7.47359, 29.6948, -153.69, -87.4881, 101.341
6.88898, 67, -6.21695, -7.0505, 29.4564, -153.708, -87.8526, 101.507
6.89511, 67, -6.10863, -6.63329, 29.2245, -153.72, -88.2112, 101.656
6.90317, 67, -6.00276, -6.22247, 28.9991, -153.727, -88.5643, 101.786
6.91112, 68, -5.89903, -5.81834, 28.7803, -153.73, -88.9127, 101.899
6.92392, 68, -5.74672, -5.22284, 28.4602, -153.726, -89.4292, 102.037
6.92811, 68, -5.69683, -5.02727, 28.3554, -153.723, -89.6003, 102.074
6.93513, 68, -5.59824, -4.63995, 28.1487, -153.712, -89.9417, 102.134
6.94425, 68, -5.50123, -4.25808, 27.9448, -153.697, -90.2823, 102.176
6.95122, 69, -5.40599, -3.87967, 27.7441, -153.677, -90.6222, 102.199
6.95916, 69, -5.31255, -3.50502, 27.5479, -153.653, -90.9617, 102.206
6.96733, 69, -5.22069, -3.13384, 27.3555, -153.625, -91.3005, 102.192
6.9752, 69, -5.13075, -2.76661, 27.1659, -153.592, -91.6388, 102.157
6.98327, 69, -5.04242, -2.4025, 26.9804, -153.555, -91.9755, 102.101
6.99146, 70, -4.95552, -2.04229, 26.799, -153.515, -92.3111, 102.022
7.00007, 70, -4.86986, -1.6862, 26.6209, -153.471, -92.6451, 101.922
7.00728, 70, -4.78544, -1.33559, 26.4464, -153.423, -92.9772, 101.799
7.01599, 70, -4.70198, -0.990151, 26.2766, -153.373, -93.3074, 101.654
7.0241, 70, -4.61967, -0.650499, 26.1109, -153.318, -93.6349, 101.487
7.03126, 71, -4.53838, -0.317321, 25.9489, -153.261, -93.9593, 101.299
7.0403, 71, -4.45814, 0.00921551, 25.7915, -153.202, -94.2807, 101.09
7.05164, 71, -4.37888, 0.48647, 25.5659, -153.107, -94.7551, 100.738
7.05617, 71, -4.30041, 0.642603, 25.4932, -153.075, -94.9114, 100.61
7.06467, 71, -4.22272, 0.949495, 25.3514, -153.008, -95.2211, 100.34
7.07244, 72, -4.14585, 1.24971, 25.2141, -152.94, -95.5269, 100.051
7.08034, 72, -4.06934, 1.54305, 25.081, -152.87, -95.8293, 99.7408
7.08756, 72, -3.99311, 1.82953, 24.9515, -152.799, -96.1288, 99.4105
7.09648, 72, -3.91705, 2.1103, 24.8253, -152.726, -96.4258, 99.0597
7.10363, 72, -3.841, 2.38483, 24.7022, -152.654, -96.7203, 98.6877
7.11242, 73, -3.7651, 2.6532, 24.5821, -152.58, -97.0125, 98.2937
7.12067, 73, -3.68921, 2.91585, 24.4651, -152.507, -97.3022, 97.8777
7.12917, 73, -3.61298, 3.17196, 24.3516, -152.433, -97.5895, 97.4388
7.13657, 73, -3.57475, 3.42184, 24.2417, -152.36, -97.8739, 96.9778
7.14392, 73, -3.49809, 3.5445, 24.1357, -152.287, -98.155, 96.4959
7.15117, 73, -3.42106, 3.78446, 24.0843, -152.252, -98.2943, 96.2468
7.15911, 74, -3.34335, 4.01606, 23.9842, -152.18, -98.5696, 95.7348
7.16826, 74, -3.22556, 4.34806, 23.8414, -152.077, -98.9729, 94.9347
7.17515, 74, -3.18592, 4.45433, 23.7959, -152.043, -99.1044, 94.6608
7.1831, 74, -3.10617, 4.6594, 23.7081, -151.977, -99.3624, 94.1039
7.19285, 75, -2.98523, 4.94877, 23.5846, -151.883, -99.7356, 93.2476
7.19931, 75, -2.94449, 5.04047, 23.5456, -151.853, -99.8558, 92.9575
7.2071, 75, -2.86223, 5.216, 23.4707, -151.796, -100.09, 92.3721
7.21875, 75, -2.73706, 5.4585, 23.3659, -151.714, -100.423, 91.481
7.22502, 75, -2.65247, 5.60686, 23.301, -151.664, -100.633, 90.8786
7.23285, 75, -2.56692, 5.74405, 23.2403, -151.617, -100.834, 90.2698
7.24148, 76, -2.48039, 5.86981, 23.1838, -151.574, -101.026, 89.6536
7.2487, 76, -2.43676, 5.92839, 23.1317, -151.535, -101.209, 89.0282
7.2569, 76, -2.34891, 6.03664, 23.1072, -151.516, -101.297, 88.7121
7.26409, 76, -2.26038, 6.13257, 23.0615, -151.483, -101.465, 88.0743
7.27292, 76, -2.17101, 6.21603, 23.0205, -151.439, -101.699, 87.1052
7.2792, 77, -2.08081, 6.28659, 22.9844, -151.426, -101.771, 86.7795
7.28718, 77, -1.98971, 6.34409, 22.9536, -151.405, -101.905, 86.1275
7.29534, 77, -1.89765, 6.38818, 22.9284, -151.387, -102.027, 85.4769
7.3041, 77, -1.80474, 6.41817, 22.9089, -151.374, -102.134, 84.8288
7.31209, 77, -1.71095, 6.43414, 22.8953, -151.364, -102.226, 84.184
7.32024, 78, -1.61635, 6.43571, 22.8875, -151.357, -102.303, 83.5442
7.32728, 78, -1.52109, 6.42221, 22.8851, -151.354, -102.365, 82.9087
7.33516, 78, -1.42519, 6.39337, 22.8883, -151.354, -102.411, 82.2761
7.34651, 78, -1.28062, 6.32074, 22.9044, -151.359, -102.451, 81.336
7.35232, 78, -1.2323, 6.28846, 22.9129, -151.363, -102.456, 81.0253
7.36015, 79, -1.13552, 6.21185, 22.935, -151.373, -102.455, 80.4079
7.36809, 79, -1.03861, 6.11905, 22.964, -151.386, -102.436, 79.7972
7.37827, 79, -0.893095, 5.9496, 23.0213, -151.411, -102.374, 78.8975
7.38309, 79, -0.844615, 5.885, 23.0442, -151.421, -102.345, 78.6023
7.39115, 79, -0.747633, 5.7433, 23.0955, -151.442, -102.273, 78.019
7.39936, 80, -0.650616, 5.58516, 23.1545, -151.467, -102.183, 77.4459
7.40712, 80, -0.553535, 5.4104, 23.2209, -151.493, -102.075, 76.8837
7.4151, 80, -0.456456, 5.21921, 23.2952, -151.52, -101.948, 76.3321
7.42493, 80, -0.359455, 5.01132, 23.3776, -151.55, -101.803, 75.7898
7.43575, 80, -0.214238, 4.66582, 23.5167, -151.597, -101.549, 74.9942
7.44009, 80, -0.165928, 4.54163, 23.5674, -151.614, -101.455, 74.7339
7.44722, 81, -0.0693187, 4.2807, 23.6754, -151.647, -101.253, 74.2207
7.45529, 81, 0.0269888, 4.00301, 23.7924, -151.682, -101.031, 73.716
7.46509, 81, 0.123177, 3.70831, 23.9189, -151.717, -100.79, 73.2207
7.47215, 81, 0.219178, 3.3969, 24.055, -151.754, -100.53, 72.7349
7.48024, 81, 0.314924, 3.0678, 24.2012, -151.792, -100.25, 72.2591
7.48809, 82, 0.410473, 2.72225, 24.3569, -151.829, -99.9515, 71.7926
7.49615, 82, 0.505728, 2.35999, 24.5218, -151.866, -99.6336, 71.3354
7.50408, 82, 0.60076, 1.98222, 24.6962, -151.904, -99.2975, 70.8881
7.51132, 82, 0.695538, 1.58776, 24.8804, -151.941, -98.9436, 70.4503
7.51912, 82, 0.79022, 1.17702, 25.0738, -151.977, -98.5722, 70.0234
7.52748, 83, 0.884951, 0.751166, 25.2763, -152.012, -98.1846, 69.6064
7.53614, 83, 0.979599, 0.310688, 25.4892, -152.048, -97.7806, 69.1998
7.54323, 83, 1.07441, -0.144269, 25.712, -152.081, -97.3615, 68.8039
7.55426, 83, 1.16919, -0.613692, 25.9429, -152.113, -96.9268, 68.4176
7.55972, 83, 1.26411, -1.09719, 26.1835, -152.143, -96.4769, 68.0412
7.56816, 84, 1.35936, -1.59464, 26.4342, -152.173, -96.0118, 67.6742
7.57547, 84, 1.45477, -2.10555, 26.6947, -152.201, -95.5317, 67.3151
7.58358, 84, 1.55039, -2.62965, 26.966, -152.228, -95.0361, 66.9636
7.59225, 84, 1.64641, -3.1672, 27.2469, -152.252, -94.5248, 66.6193
7.59971, 84, 1.74287, -3.71824, 27.5388, -152.276, -93.9986, 66.2816
7.61239, 85, 1.8881, -4.56947, 27.9955, -152.307, -93.1812, 65.7888
7.61567, 85, 1.8881, -4.85903, 28.1529, -152.317, -92.9012, 65.6285
7.62418, 85, 2.03402, -5.44584, 28.4745, -152.335, -92.3311, 65.3136
7.63355, 85, 2.13172, -6.04264, 28.8054, -152.351, -91.7504, 65.0067
7.64042, 85, 2.23002, -6.64807, 29.1451, -152.364, -91.159, 64.7088
7.64819, 86, 2.32905, -7.26108, 29.4931, -152.374, -90.5579, 64.4205
7.65509, 86, 2.37879, -7.57015, 29.6698, -152.378, -90.2538, 64.2799
7.66855, 86, 2.58032, -8.82176, 30.3937, -152.386, -89.0152, 63.7445
7.67109, 86, 2.58032, -8.82176, 30.3937, -152.386, -89.0152, 63.7445
7.67908, 86, 2.68228, -9.45628, 30.7644, -152.387, -88.3878, 63.4938
7.68838, 86, 2.83741, -10.4155, 31.3303, -152.382, -87.4381, 63.1395
7.69729, 87, 2.94184, -11.0591, 31.7143, -152.374, -86.7978, 62.918
7.70315, 87, 2.99437, -11.382, 31.9078, -152.368, -86.4758, 62.8119
7.7134, 87, 3.15364, -12.3544, 32.4952, -152.346, -85.5027, 62.5123
7.71913, 87, 3.20705, -12.6795, 32.6933, -152.337, -85.1766, 62.4189
7.72867, 87, 3.36843, -13.6588, 33.2955, -152.303, -84.192, 62.1576
7.7375, 88, 3.47685, -14.3149, 33.7029, -152.276, -83.5294, 62.0001
7.74316, 88, 3.53128, -14.6438, 33.9084, -152.261, -83.1964, 61.9263
7.75351, 88, 3.69548, -15.6325, 34.5321, -152.209, -82.1895, 61.7257
7.76152, 88, 3.80555, -16.2926, 34.9537, -152.168, -81.5138, 61.6106
7.76951, 88, 3.86072, -16.9523, 35.3795, -152.123, -80.8357, 61.5107
7.7751, 89, 3.97122, -17.2817, 35.5937, -152.099, -80.4957, 61.4673
7.78407, 89, 4.082, -17.9387, 36.0237, -152.046, -79.8145, 61.3937
7.79565, 89, 4.24847, -18.9186, 36.6716, -151.957, -78.7888, 61.3174
7.80026, 89, 4.30408, -19.2435, 36.888, -151.925, -78.4467, 61.3017
7.80805, 89, 4.41526, -19.8895, 37.3199, -151.855, -77.7663, 61.2847
7.81607, 90, 4.52661, -20.53, 37.7503, -151.782, -77.0896, 61.288
7.82309, 90, 4.63865, -21.1653, 38.1797, -151.702, -76.4149, 61.3158
7.83115, 90, 4.75093, -21.7956, 38.6076, -151.617, -75.7437, 61.3672
7.8391, 90, 4.86328, -22.4209, 39.0334, -151.527, -75.0769, 61.4424
7.8473, 90, 4.97553, -23.041, 39.4578, -151.43, -74.4157, 61.544
7.8561, 91, 5.08764, -23.6571, 39.881, -151.328, -73.7564, 61.6717
7.86307, 91, 5.1995, -24.2686, 40.3038, -151.219, -73.0976, 61.8274
7.87207, 91, 5.31072, -24.8741, 40.7265, -151.103, -72.4391, 62.0117
7.87911, 91, 5.42122, -25.4739, 41.1487, -150.981, -71.7789, 62.2254
7.88706, 91, 5.53089, -26.067, 41.5705, -150.852, -71.1182, 62.4692
7.89653, 92, 5.64002, -26.6531, 41.9913, -150.716, -70.4592, 62.7442
7.90307, 92, 5.74924, -27.2318, 42.4101, -150.575, -69.8016, 63.0509
7.91213, 92, 5.85902, -27.8022, 42.8251, -150.428, -69.1467, 63.3885
7.9191, 92, 5.9694, -28.364, 43.2348, -150.276, -68.4951, 63.7574
7.92711, 92, 6.08064, -28.9161, 43.6392, -150.12, -67.8475, 64.158
7.93629, 93, 6.19318, -29.4575, 44.0373, -149.961, -67.2073, 64.5895
7.94311, 93, 6.30723, -29.9881, 44.4285, -149.8, -66.5725, 65.0535
7.95157, 93, 6.42335, -30.5082, 44.8138, -149.637, -65.9415, 65.5489
7.95918, 93, 6.54175, -31.0194, 45.1933, -149.472, -65.3135, 66.0773
7.96722, 93, 6.66226, -31.5243, 45.5682, -149.307, -64.6873, 66.6412
7.9762, 93, 6.78508, -32.0232, 45.9385, -149.142, -64.0618, 67.2448
7.98317, 94, 6.91011, -32.5173, 46.3062, -148.975, -63.433, 67.8922
7.99129, 94, 7.03738, -33.0064, 46.6717, -148.808, -62.7981, 68.5896
7.99971, 94, 7.16661, -33.4884, 47.0357, -148.642, -62.1567, 69.3407
8.00717, 94, 7.29834, -33.9631, 47.3973, -148.477, -61.5087, 70.1435
8.01526, 94, 7.43364, -34.4303, 47.754, -148.317, -60.8562, 70.9996
8.02311, 95, 7.57341, -34.8878, 48.1034, -148.164, -60.205, 71.9078
8.03206, 95, 7.71877, -35.3349, 48.4429, -148.022, -59.5576, 72.8577
8.03922, 95, 7.87034, -35.77, 48.7709, -147.893, -58.9164, 73.8488
8.04722, 95, 8.02856, -36.1896, 49.0847, -147.78, -58.2835, 74.875
8.05532, 95, 8.19366, -36.5895, 49.3829, -147.684, -57.6596, 75.9357
8.06336, 96, 8.36568, -36.9692, 49.6652, -147.607, -57.0487, 77.0271
8.07144, 96, 8.54408, -37.3265, 49.9302, -147.55, -56.4523, 78.1485
8.08028, 96, 8.72793, -37.66, 50.1786, -147.515, -55.87, 79.2949
8.08753, 96, 8.91672, -37.9677, 50.4085, -147.498, -55.3041, 80.4612
8.09563, 96, 9.10958, -38.2503, 50.6187, -147.503, -54.757, 81.6399
8.10508, 96, 9.30496, -38.5079, 50.8099, -147.529, -54.2315, 82.8303
8.11241, 97, 9.50116, -38.7397, 50.9809, -147.577, -53.73, 84.0269
8.11973, 97, 9.69709, -38.9466, 51.1311, -147.646, -53.2542, 85.2239
8.12817, 97, 9.89198, -39.1292, 51.2616, -147.733, -52.8065, 86.4102
8.13624, 97, 9.98879, -39.211, 51.3195, -147.783, -52.3881, 87.5806
8.14362, 97, 10.1802, -39.3551, 51.4205, -147.894, -52.1903, 88.1566
8.15291, 97, 10.4605, -39.5237, 51.5367, -148.083, -51.643, 89.8422
8.16082, 98, 10.6434, -39.605, 51.5913, -148.221, -51.3165, 90.9226
8.1682, 98, 10.8242, -39.663, 51.6284, -148.37, -51.0193, 91.9739
8.17512, 98, 10.914, -39.6835, 51.6403, -148.448, -50.8807, 92.4914
8.18526, 98, 11.1809, -39.7101, 51.6506, -148.699, -50.4994, 94.0372
8.19117, 98, 11.2688, -39.7073, 51.6458, -148.789, -50.3826, 94.5544
8.20121, 98, 11.5316, -39.6635, 51.6048, -149.079, -50.06, 96.133
8.20713, 98, 11.6194, -39.637, 51.5824, -149.182, -49.962, 96.6699
8.21662, 99, 11.8817, -39.523, 51.4879, -149.512, -49.7001, 98.3115
8.22494, 99, 12.0541, -39.4187, 51.4019, -149.745, -49.5557, 99.4211
8.23263, 99, 12.2232, -39.2919, 51.2975, -149.985, -49.4393, 100.532
8.24062, 99, 12.3879, -39.1429, 51.1753, -150.228, -49.3536, 101.631
8.24962, 99, 12.5463, -38.9717, 51.0365, -150.472, -49.2984, 102.71
8.2567, 99, 12.6226, -38.7776, 50.882, -150.713, -49.2745, 103.759
8.2646, 100, 12.7685, -38.6712, 50.7989, -150.833, -49.2743, 104.273
8.27292, 100, 12.9056, -38.4407, 50.62, -151.067, -49.322, 105.77
8.28012, 100, 13.0336, -38.1874, 50.4239, -151.297, -49.3534, 106.255
8.28805, 100, 13.1532, -37.912, 50.2115, -151.52, -49.4399, 107.209
8.29607, 100, 13.2647, -37.6158, 49.9814, -151.737, -49.5576, 108.138
8.3041, 100, 13.3679, -37.2967, 49.733, -151.948, -49.706, 109.046
8.31207, 101, 13.463, -36.9536, 49.4681, -152.15, -49.8845, 109.933
8.32005, 101, 13.5502, -36.5851, 49.1857, -152.345, -50.0928, 110.795
8.3281, 101, 13.6295, -36.1904, 48.8865, -152.53, -50.331, 111.636
8.33617, 101, 13.7006, -35.7703, 48.5691, -152.706, -50.5993, 112.452
8.35525, 102, 13.8419, -34.6181, 47.6971, -153.101, -51.4098, 114.4
8.35653, 102, 13.8419, -34.6181, 47.6971, -153.101, -51.4098, 114.4
8.359, 102, 13.8636, -34.3703, 47.5095, -153.171, -51.5967, 114.773
8.36805, 102, 13.8997, -33.8565, 47.1212, -153.302, -51.9951, 115.501
8.37609, 102, 13.9263, -33.3179, 46.7165, -153.421, -52.4266, 116.206
8.38411, 102, 13.9439, -32.7554, 46.2967, -153.525, -52.8904, 116.884
8.39205, 102, 13.9527, -32.17, 45.8623, -153.617, -53.3846, 117.537
8.40111, 103, 13.9536, -31.5623, 45.4133, -153.693, -53.907, 118.164
8.40809, 103, 13.9473, -30.9351, 44.9508, -153.757, -54.456, 118.765
8.41509, 103, 13.9344, -30.2904, 44.4758, -153.807, -55.0296, 119.341
8.4231, 103, 13.9156, -29.6303, 43.9899, -153.843, -55.6245, 119.892
8.43115, 103, 13.8914, -28.9555, 43.4955, -153.868, -56.2391, 120.417
8.4391, 103, 13.8625, -28.268, 42.9939, -153.881, -56.8702, 120.917
8.44713, 104, 13.8292, -27.5702, 42.4874, -153.884, -57.5137, 121.39
8.4551, 104, 13.7919, -26.8643, 41.9777, -153.876, -58.1694, 121.84
8.4631, 104, 13.7506, -26.1521, 41.4662, -153.859, -58.8375, 122.266
8.47124, 104, 13.7065, -25.4348, 40.9542, -153.833, -59.5157, 122.673
8.47947, 104, 13.6604, -24.715, 40.4424, -153.799, -60.2018, 123.062
8.48716, 104, 13.6125, -23.9934, 39.9311, -153.757, -60.8929, 123.437
8.49552, 104, 13.5629, -23.2708, 39.4212, -153.709, -61.5886, 123.801
8.50322, 104, 13.5124, -22.5479, 38.9125, -153.657, -62.2888, 124.159
8.51123, 104, 13.4614, -21.8245, 38.4054, -153.598, -62.9912, 124.513
8.51975, 104, 13.4099, -21.1008, 37.8998, -153.537, -63.6949, 124.864
8.52818, 104, 13.358, -20.3777, 37.3955, -153.47, -64.3988, 125.213
8.53514, 104, 13.306, -19.6545, 36.893, -153.399, -65.1036, 125.56
8.54408, 104, 13.2538, -18.931, 36.3924, -153.325, -65.8102, 125.906
8.55129, 104, 13.2015, -18.2073, 35.8936, -153.246, -66.5175, 126.252
8.5593, 104, 13.1495, -17.4837, 35.3977, -153.164, -67.2257, 126.597
8.56815, 104, 13.0976, -16.7595, 34.904, -153.077, -67.9333, 126.941
8.57542, 104, 13.0461, -16.0353, 34.412, -152.987, -68.6412, 127.286
8.5835, 104, 12.9951, -15.3107, 33.9223, -152.892, -69.3514, 127.629
8.59217, 104, 12.9443, -14.5858, 33.4348, -152.794, -70.0624, 127.973
8.6004, 104, 12.8938, -13.8603, 32.9498, -152.692, -70.7733, 128.316
8.60766, 104, 12.8439, -13.1347, 32.4674, -152.586, -71.4831, 128.66
8.6162, 104, 12.7941, -12.4087, 31.9877, -152.477, -72.1945, 129.004
8.62442, 104, 12.7446, -11.6837, 31.511, -152.363, -72.907, 129.349
8.63175, 104, 12.6955, -10.9587, 31.0363, -152.246, -73.6198, 129.694
8.64015, 104, 12.6468, -10.2332, 30.5642, -152.124, -74.333, 130.04
8.64842, 104, 12.6225, -9.87038, 30.3296, -152.062, -74.6892, 130.213
8.65582, 104, 12.5742, -9.14473, 29.8624, -151.935, -75.402, 130.56
8.66412, 104, 12.5029, -8.05551, 29.1671, -151.736, -76.4736, 131.082
8.67113, 104, 12.4794, -7.69258, 28.9371, -151.667, -76.8311, 131.257
8.67907, 104, 12.4327, -6.96733, 28.4794, -151.528, -77.5467, 131.607
8.68839, 104, 12.364, -5.88037, 27.7992, -151.31, -78.6181, 132.135
8.69505, 104, 12.3413, -5.51814, 27.5743, -151.236, -78.975, 132.311
8.70444, 104, 12.2742, -4.43346, 26.9055, -151.006, -80.0472, 132.842
8.71116, 104, 12.2523, -4.07257, 26.6846, -150.927, -80.405, 133.02
8.7216, 104, 12.1883, -2.99575, 26.0301, -150.685, -81.4742, 133.553
8.7271, 104, 12.1675, -2.63952, 25.8146, -150.603, -81.8285, 133.731
8.73662, 104, 12.1072, -1.58064, 25.1781, -150.35, -82.8861, 134.266
8.7446, 104, 12.0681, -0.88464, 24.7641, -150.179, -83.5842, 134.619
8.75271, 104, 12.0302, -0.198239, 24.3589, -150.005, -84.2733, 134.971
8.76068, 104, 12.0116, 0.141219, 23.964, -149.83, -84.9505, 135.319
8.76804, 104, 11.975, 0.811598, 23.7711, -149.742, -85.2837, 135.491
8.77604, 104, 11.9396, 1.46922, 23.3945, -149.566, -85.9394, 135.832
8.78411, 104, 11.9055, 2.11353, 23.0303, -149.389, -86.5816, 136.166
8.79112, 104, 11.8724, 2.74223, 22.6785, -149.214, -87.2078, 136.495
8.80003, 104, 11.8403, 3.35497, 22.3394, -149.039, -87.818, 136.816
8.80809, 104, 11.8099, 3.95117, 22.0137, -148.866, -88.4116, 137.131
8.81606, 104, 11.7804, 4.53047, 21.7005, -148.693, -88.9874, 137.439
8.82404, 104, 11.7524, 5.09341, 21.3994, -148.522, -89.5464, 137.741
8.83204, 104, 11.7256, 5.63919, 21.1095, -148.353, -90.09, 138.035
8.84005, 104, 11.6998, 6.16748, 20.8321, -148.186, -90.6173, 138.322
8.84804, 104, 11.6752, 6.67937, 20.566, -148.021, -91.1283, 138.602
8.85606, 104, 11.6519, 7.17436, 20.3117, -147.859, -91.6227, 138.874
8.86409, 104, 11.6296, 7.65242, 20.0689, -147.7, -92.0994, 139.139
8.87111, 104, 11.6085, 8.11406, 19.8365, -147.543, -92.5594, 139.396
8.88004, 104, 11.5885, 8.55874, 19.6155, -147.389, -93.0032, 139.646
8.88958, 104, 11.5698, 8.98601, 19.4053, -147.24, -93.4303, 139.887
8.89605, 104, 11.552, 9.3963, 19.2051, -147.094, -93.8405, 140.12
8.90403, 104, 11.5355, 9.78889, 19.0153, -146.952, -94.2336, 140.345
8.9121, 104, 11.5199, 10.1632, 18.8365, -146.814, -94.6089, 140.56
8.9201, 104, 11.5054, 10.5184, 18.6679, -146.682, -94.9661, 140.767
8.92704, 104, 11.4919, 10.8546, 18.5096, -146.555, -95.3044, 140.963
8.93504, 104, 11.4794, 11.1713, 18.3624, -146.434, -95.6227, 141.149
8.94403, 104, 11.4679, 11.4673, 18.226, -146.32, -95.9208, 141.323
8.9521, 104, 11.4575, 11.7428, 18.0998, -146.213, -96.1981, 141.486
8.96003, 104, 11.4481, 11.997, 17.9844, -146.112, -96.4538, 141.637
8.96715, 104, 11.4394, 12.2298, 17.8796, -146.02, -96.6878, 141.775
8.97514, 104, 11.4314, 12.4419, 17.7851, -145.936, -96.8998, 141.901
8.98319, 104, 11.4243, 12.633, 17.7011, -145.86, -97.0898, 142.015
8.99132, 104, 11.418, 12.8028, 17.6273, -145.793, -97.2576, 142.115
8.99916, 104, 11.4123, 12.9519, 17.5635, -145.734, -97.4036, 142.202
9.00714, 104, 11.4071, 13.0817, 17.5092, -145.683, -97.5278, 142.277
9.01521, 104, 11.4024, 13.1927, 17.4642, -145.642, -97.6315, 142.338
9.02304, 104, 11.3981, 13.2855, 17.4275, -145.608, -97.7153, 142.388
9.03114, 104, 11.3941, 13.362, 17.3985, -145.581, -97.7812, 142.428
9.03916, 104, 11.3905, 13.4243, 17.3768, -145.56, -97.8306, 142.459
9.04747, 104, 11.3873, 13.4739, 17.3609, -145.544, -97.8665, 142.48
9.05521, 104, 11.3847, 13.5121, 17.3498, -145.534, -97.8916, 142.495
9.06333, 104, 11.3825, 13.5406, 17.3427, -145.527, -97.9083, 142.505
9.07146, 104, 11.3808, 13.5618, 17.3382, -145.523, -97.9186, 142.51
9.08003, 104, 11.3794, 13.5769, 17.3356, -145.521, -97.9242, 142.513
9.08748, 104, 11.3784, 13.587, 17.3343, -145.52, -97.9271, 142.514
9.09601, 105, 11.3777, 13.5939, 17.3336, -145.519, -97.9284, 142.515
9.10413, 105, 11.3772, 13.5984, 17.3333, -145.519, -97.929, 142.515
9.11173, 105, 11.3768, 13.6015, 17.3331, -145.519, -97.9293, 142.516
9.1202, 105, 11.3764, 13.6038, 17.3331, -145.519, -97.9295, 142.516
9.1276, 105, 11.3763, 13.6058, 17.333, -145.518, -97.9295, 142.516
9.13611, 105, 11.3761, 13.6075, 17.333, -145.518, -97.9295, 142.516
9.14303, 105, 11.376, 13.6082, 17.333, -145.518, -97.9295, 142.516
9.15207, 105, 11.3758, 13.6103, 17.333, -145.519, -97.9294, 142.516
9.1599, 105, 11.3758, 13.6113, 17.333, -145.519, -97.9293, 142.516
9.16823, 105, 11.3757, 13.6122, 17.3331, -145.519, -97.9292, 142.516
9.17503, 105, 11.3757, 13.6126, 17.3331, -145.519, -97.9291, 142.516
9.18447, 105, 11.3757, 13.6135, 17.3331, -145.519, -97.929, 142.516
9.1911, 105, 11.3757, 13.6137, 17.3331, -145.519, -97.9289, 142.516
9.19899, 105, 11.3757, 13.614, 17.3331, -145.519, -97.9288, 142.516
9.20838, 105, 11.3757, 13.6142, 17.3332, -145.519, -97.9286, 142.516
9.21527, 105, 11.3757, 13.6142, 17.3332, -145.519, -97.9285, 142.516
