hehonglu123/Motion-Primitive-Planning/simulation/robotstudio_sim/scripts/fitting_output_new/threshold1/curve_exe_v5000_fine.csv
timestamp, cmd_num, J1, J2, J3, J4, J5, J6
0, 1, -22.0728, 43.349, 24.0533, -33.0633, -59.3054, 146.227
0.002, 1, -22.0728, 43.349, 24.0533, -33.0633, -59.3054, 146.227
0.004, 1, -22.0728, 43.349, 24.0533, -33.0633, -59.3054, 146.227
0.008, 1, -22.0728, 43.349, 24.0533, -33.0633, -59.3054, 146.227
0.011, 1, -22.0728, 43.349, 24.0533, -33.0633, -59.3054, 146.227
0.016, 1, -22.0728, 43.349, 24.0533, -33.0633, -59.3054, 146.227
0.02, 1, -22.0728, 43.349, 24.0533, -33.0633, -59.3054, 146.227
0.024, 1, -22.0728, 43.349, 24.0533, -33.0633, -59.3054, 146.227
0.028, 1, -22.0728, 43.349, 24.0533, -33.0633, -59.3054, 146.227
0.032, 1, -22.0728, 43.349, 24.0533, -33.0633, -59.3054, 146.227
0.036, 1, -22.0728, 43.349, 24.0533, -33.0633, -59.3054, 146.227
0.04, 1, -22.0727, 43.349, 24.0533, -33.0633, -59.3054, 146.227
0.044, 1, -22.0725, 43.3489, 24.0533, -33.0633, -59.3054, 146.227
0.048, 1, -22.072, 43.3489, 24.0533, -33.0633, -59.3054, 146.227
0.052, 1, -22.071, 43.3489, 24.0533, -33.0632, -59.3054, 146.227
0.056, 1, -22.0694, 43.3488, 24.0533, -33.063, -59.3054, 146.227
0.06, 1, -22.0672, 43.3487, 24.0532, -33.0625, -59.3054, 146.227
0.064, 1, -22.0642, 43.3485, 24.053, -33.0616, -59.3054, 146.226
0.068, 1, -22.0604, 43.3483, 24.0527, -33.06, -59.3054, 146.225
0.072, 1, -22.0558, 43.3481, 24.052, -33.0574, -59.3053, 146.222
0.076, 1, -22.0502, 43.3479, 24.051, -33.0534, -59.3051, 146.219
0.08, 1, -22.0434, 43.3477, 24.0495, -33.0476, -59.3049, 146.215
0.084, 1, -22.0351, 43.3476, 24.0474, -33.0394, -59.3045, 146.208
0.088, 1, -22.0252, 43.3474, 24.0443, -33.0283, -59.304, 146.2
0.092, 1, -22.0133, 43.3474, 24.0403, -33.0135, -59.3032, 146.188
0.096, 1, -21.9994, 43.3475, 24.035, -32.9944, -59.3022, 146.173
0.1, 1, -21.9834, 43.3478, 24.0282, -32.9703, -59.3009, 146.154
0.104, 1, -21.9651, 43.3483, 24.0197, -32.9403, -59.2992, 146.131
0.108, 1, -21.9443, 43.3491, 24.0094, -32.9038, -59.2971, 146.102
0.112, 1, -21.9211, 43.3502, 23.9969, -32.8603, -59.2946, 146.068
0.116, 1, -21.8951, 43.3516, 23.9822, -32.8091, -59.2915, 146.028
0.12, 1, -21.8664, 43.3535, 23.9651, -32.7499, -59.288, 145.982
0.124, 1, -21.8351, 43.3557, 23.9455, -32.6824, -59.2839, 145.929
0.128, 1, -21.801, 43.3583, 23.9235, -32.6063, -59.2792, 145.869
0.131, 1, -21.7643, 43.3614, 23.8988, -32.5216, -59.274, 145.803
0.136, 1, -21.7251, 43.365, 23.8717, -32.4286, -59.2682, 145.731
0.139, 1, -21.6834, 43.3689, 23.8422, -32.3275, -59.2619, 145.652
0.144, 1, -21.6391, 43.3732, 23.8104, -32.2189, -59.2552, 145.567
0.148, 1, -21.5923, 43.3778, 23.7766, -32.1033, -59.2479, 145.477
0.152, 1, -21.543, 43.3827, 23.7409, -31.9813, -59.2403, 145.382
0.156, 1, -21.4914, 43.3879, 23.7035, -31.8537, -59.2324, 145.282
0.16, 1, -21.4376, 43.3932, 23.6647, -31.7212, -59.2241, 145.178
0.164, 1, -21.382, 43.3986, 23.6247, -31.5846, -59.2156, 145.072
0.168, 1, -21.3247, 43.4041, 23.5838, -31.4445, -59.2069, 144.962
0.172, 1, -21.2658, 43.4097, 23.542, -31.3016, -59.198, 144.851
0.176, 1, -21.2054, 43.4153, 23.4996, -31.1565, -59.189, 144.738
0.18, 1, -21.1437, 43.4209, 23.4567, -31.0098, -59.1799, 144.623
0.184, 1, -21.0806, 43.4265, 23.4136, -30.8618, -59.1708, 144.507
0.188, 1, -21.0165, 43.4321, 23.3702, -30.7129, -59.1616, 144.391
0.192, 1, -20.9514, 43.4376, 23.3266, -30.5634, -59.1524, 144.274
0.196, 1, -20.8856, 43.4431, 23.2829, -30.4134, -59.1432, 144.157
0.2, 1, -20.8193, 43.4485, 23.2391, -30.2631, -59.134, 144.04
0.204, 1, -20.7526, 43.454, 23.1953, -30.1125, -59.1248, 143.922
0.208, 1, -20.6857, 43.4594, 23.1513, -29.9616, -59.1155, 143.804
0.212, 1, -20.6186, 43.4649, 23.1074, -29.8106, -59.1063, 143.686
0.216, 1, -20.5514, 43.4703, 23.0634, -29.6595, -59.097, 143.568
0.22, 1, -20.484, 43.4758, 23.0193, -29.5082, -59.0878, 143.45
0.224, 1, -20.4166, 43.4813, 22.9753, -29.3567, -59.0785, 143.332
0.228, 1, -20.349, 43.4867, 22.9312, -29.2052, -59.0692, 143.213
0.232, 1, -20.2815, 43.4922, 22.887, -29.0535, -59.0599, 143.095
0.236, 1, -20.2138, 43.4976, 22.8429, -28.9018, -59.0506, 142.976
0.24, 1, -20.1461, 43.5031, 22.7987, -28.7499, -59.0413, 142.858
0.244, 1, -20.0784, 43.5086, 22.7544, -28.5979, -59.032, 142.739
0.248, 1, -20.0106, 43.514, 22.7102, -28.4459, -59.0227, 142.62
0.252, 1, -19.9427, 43.5195, 22.6659, -28.2937, -59.0134, 142.501
0.256, 1, -19.8748, 43.525, 22.6215, -28.1414, -59.0041, 142.382
0.26, 1, -19.8069, 43.5305, 22.5772, -27.989, -58.9948, 142.263
0.264, 1, -19.7389, 43.536, 22.5328, -27.8365, -58.9854, 142.144
0.268, 1, -19.6709, 43.5414, 22.4884, -27.6839, -58.9761, 142.025
0.272, 1, -19.6028, 43.5469, 22.444, -27.5312, -58.9667, 141.906
0.276, 1, -19.5347, 43.5524, 22.3995, -27.3785, -58.9574, 141.786
0.28, 1, -19.4665, 43.5579, 22.355, -27.2256, -58.948, 141.667
0.284, 1, -19.3983, 43.5634, 22.3105, -27.0726, -58.9386, 141.548
0.288, 1, -19.33, 43.569, 22.2659, -26.9195, -58.9293, 141.428
0.292, 1, -19.2617, 43.5745, 22.2213, -26.7663, -58.9199, 141.308
0.296, 1, -19.1934, 43.58, 22.1767, -26.613, -58.9105, 141.189
0.3, 1, -19.125, 43.5855, 22.1321, -26.4596, -58.9011, 141.069
0.304, 1, -19.0565, 43.591, 22.0874, -26.306, -58.8917, 140.949
0.308, 1, -18.988, 43.5965, 22.0427, -26.1524, -58.8823, 140.829
0.312, 1, -18.9195, 43.6021, 21.9979, -25.9987, -58.8729, 140.709
0.316, 1, -18.8509, 43.6076, 21.9532, -25.8449, -58.8635, 140.589
0.32, 1, -18.7823, 43.6131, 21.9084, -25.691, -58.8541, 140.468
0.324, 1, -18.7136, 43.6187, 21.8635, -25.5369, -58.8446, 140.348
0.328, 1, -18.6449, 43.6242, 21.8187, -25.3828, -58.8352, 140.228
0.332, 1, -18.5761, 43.6298, 21.7738, -25.2286, -58.8258, 140.107
0.336, 1, -18.5073, 43.6353, 21.7289, -25.0742, -58.8163, 139.987
0.34, 1, -18.4384, 43.6409, 21.6839, -24.9198, -58.8069, 139.866
0.344, 1, -18.3695, 43.6465, 21.6389, -24.7652, -58.7974, 139.745
0.348, 1, -18.3006, 43.652, 21.5939, -24.6106, -58.7879, 139.624
0.352, 1, -18.2316, 43.6576, 21.5489, -24.4558, -58.7785, 139.503
0.356, 1, -18.1625, 43.6632, 21.5038, -24.301, -58.769, 139.383
0.36, 1, -18.0934, 43.6687, 21.4587, -24.146, -58.7595, 139.261
0.364, 1, -18.0243, 43.6743, 21.4136, -23.9909, -58.75, 139.14
0.368, 1, -17.9551, 43.6799, 21.3684, -23.8357, -58.7405, 139.019
0.372, 1, -17.8858, 43.6855, 21.3232, -23.6804, -58.731, 138.898
0.376, 1, -17.8166, 43.6911, 21.278, -23.5251, -58.7215, 138.776
0.38, 1, -17.7472, 43.6967, 21.2327, -23.3696, -58.712, 138.655
0.384, 1, -17.6778, 43.7023, 21.1874, -23.2139, -58.7024, 138.533
0.388, 1, -17.6084, 43.7079, 21.1421, -23.0582, -58.6929, 138.412
0.392, 1, -17.5389, 43.7135, 21.0968, -22.9024, -58.6834, 138.29
0.396, 1, -17.4694, 43.7191, 21.0514, -22.7465, -58.6738, 138.168
0.4, 1, -17.3999, 43.7247, 21.006, -22.5904, -58.6643, 138.046
0.404, 1, -17.3302, 43.7303, 20.9605, -22.4343, -58.6547, 137.924
0.408, 1, -17.2606, 43.7359, 20.9151, -22.278, -58.6451, 137.802
0.412, 1, -17.1909, 43.7416, 20.8695, -22.1217, -58.6356, 137.68
0.416, 1, -17.1211, 43.7472, 20.824, -21.9652, -58.626, 137.558
0.42, 1, -17.0513, 43.7528, 20.7784, -21.8086, -58.6164, 137.436
0.424, 1, -16.9814, 43.7585, 20.7328, -21.652, -58.6068, 137.313
0.428, 1, -16.9115, 43.7641, 20.6872, -21.4952, -58.5972, 137.191
0.432, 1, -16.8416, 43.7697, 20.6415, -21.3383, -58.5876, 137.068
0.436, 1, -16.7716, 43.7754, 20.5958, -21.1813, -58.578, 136.946
0.44, 1, -16.7015, 43.781, 20.5501, -21.0242, -58.5684, 136.823
0.444, 1, -16.6314, 43.7867, 20.5044, -20.8669, -58.5587, 136.7
0.448, 1, -16.5613, 43.7924, 20.4586, -20.7096, -58.5491, 136.577
0.452, 1, -16.4911, 43.798, 20.4127, -20.5522, -58.5395, 136.454
0.456, 1, -16.4209, 43.8037, 20.3669, -20.3946, -58.5298, 136.331
0.46, 1, -16.3506, 43.8094, 20.321, -20.237, -58.5202, 136.208
0.464, 1, -16.2802, 43.815, 20.2751, -20.0792, -58.5105, 136.085
0.468, 1, -16.2099, 43.8207, 20.2292, -19.9214, -58.5009, 135.961
0.472, 1, -16.1394, 43.8264, 20.1832, -19.7634, -58.4912, 135.838
0.476, 1, -16.0689, 43.8321, 20.1372, -19.6053, -58.4815, 135.715
0.48, 1, -15.9984, 43.8378, 20.0911, -19.4471, -58.4718, 135.591
0.484, 1, -15.9278, 43.8435, 20.0451, -19.2888, -58.4621, 135.467
0.488, 1, -15.8572, 43.8492, 19.9989, -19.1304, -58.4524, 135.344
0.492, 1, -15.7865, 43.8549, 19.9528, -18.9719, -58.4427, 135.22
0.496, 1, -15.7158, 43.8606, 19.9066, -18.8133, -58.433, 135.096
0.5, 1, -15.645, 43.8663, 19.8604, -18.6545, -58.4233, 134.972
0.504, 1, -15.5742, 43.872, 19.8142, -18.4957, -58.4136, 134.848
0.508, 1, -15.5034, 43.8777, 19.768, -18.3367, -58.4038, 134.724
0.512, 1, -15.4324, 43.8835, 19.7217, -18.1777, -58.3941, 134.599
0.516, 1, -15.3615, 43.8892, 19.6753, -18.0185, -58.3844, 134.475
0.52, 1, -15.2905, 43.8949, 19.629, -17.8592, -58.3746, 134.351
0.524, 1, -15.2194, 43.9007, 19.5826, -17.6999, -58.3649, 134.226
0.528, 1, -15.1483, 43.9064, 19.5362, -17.5404, -58.3551, 134.102
0.532, 1, -15.0771, 43.9121, 19.4897, -17.3808, -58.3453, 133.977
0.536, 1, -15.0059, 43.9179, 19.4432, -17.2211, -58.3355, 133.852
0.54, 1, -14.9347, 43.9236, 19.3967, -17.0613, -58.3258, 133.727
0.544, 1, -14.8634, 43.9294, 19.3502, -16.9013, -58.316, 133.602
0.548, 1, -14.792, 43.9351, 19.3036, -16.7413, -58.3062, 133.477
0.552, 1, -14.7206, 43.9409, 19.257, -16.5812, -58.2964, 133.352
0.556, 1, -14.6492, 43.9467, 19.2104, -16.4209, -58.2866, 133.227
0.56, 1, -14.5777, 43.9524, 19.1637, -16.2605, -58.2767, 133.102
0.564, 1, -14.5061, 43.9582, 19.117, -16.1001, -58.2669, 132.976
0.568, 1, -14.4346, 43.964, 19.0703, -15.9395, -58.2571, 132.851
0.572, 1, -14.3629, 43.9698, 19.0235, -15.7788, -58.2472, 132.725
0.576, 1, -14.2912, 43.9755, 18.9767, -15.618, -58.2374, 132.6
0.58, 1, -14.2195, 43.9813, 18.9299, -15.4571, -58.2276, 132.474
0.584, 1, -14.1477, 43.9871, 18.883, -15.2961, -58.2177, 132.348
0.588, 1, -14.0759, 43.9929, 18.8361, -15.135, -58.2078, 132.223
0.592, 1, -14.004, 43.9987, 18.7892, -14.9737, -58.198, 132.097
0.596, 1, -13.932, 44.0045, 18.7422, -14.8124, -58.1881, 131.971
0.6, 1, -13.8601, 44.0103, 18.6952, -14.6509, -58.1782, 131.844
0.604, 1, -13.788, 44.0162, 18.6482, -14.4894, -58.1683, 131.718
0.608, 1, -13.7159, 44.022, 18.6012, -14.3277, -58.1584, 131.592
0.612, 1, -13.6438, 44.0278, 18.5541, -14.1659, -58.1485, 131.466
0.616, 1, -13.5716, 44.0336, 18.507, -14.004, -58.1386, 131.339
0.62, 1, -13.4994, 44.0394, 18.4598, -13.842, -58.1287, 131.213
0.624, 1, -13.4271, 44.0453, 18.4126, -13.6799, -58.1188, 131.086
0.628, 1, -13.3548, 44.0511, 18.3654, -13.5177, -58.1088, 130.959
0.632, 1, -13.2825, 44.057, 18.3182, -13.3554, -58.0989, 130.832
0.636, 1, -13.21, 44.0628, 18.2709, -13.1929, -58.0889, 130.706
0.64, 1, -13.1376, 44.0686, 18.2236, -13.0304, -58.079, 130.579
0.644, 1, -13.0651, 44.0745, 18.1762, -12.8677, -58.069, 130.451
0.648, 1, -12.9925, 44.0803, 18.1289, -12.705, -58.0591, 130.324
0.652, 1, -12.9199, 44.0862, 18.0815, -12.5421, -58.0491, 130.197
0.656, 1, -12.8472, 44.0921, 18.034, -12.3791, -58.0391, 130.07
0.66, 1, -12.7745, 44.0979, 17.9866, -12.2161, -58.0291, 129.942
0.664, 1, -12.7018, 44.1038, 17.9391, -12.0529, -58.0191, 129.815
0.668, 1, -12.629, 44.1097, 17.8915, -11.8896, -58.0091, 129.687
0.672, 1, -12.5561, 44.1156, 17.844, -11.7261, -57.9991, 129.56
0.676, 1, -12.4832, 44.1214, 17.7964, -11.5626, -57.9891, 129.432
0.68, 1, -12.4103, 44.1273, 17.7488, -11.399, -57.9791, 129.304
0.684, 1, -12.3373, 44.1332, 17.7011, -11.2353, -57.9691, 129.176
0.688, 1, -12.2643, 44.1391, 17.6534, -11.0715, -57.9591, 129.048
0.692, 1, -12.1912, 44.145, 17.6057, -10.9075, -57.949, 128.92
0.696, 1, -12.118, 44.1509, 17.558, -10.7435, -57.939, 128.792
0.7, 1, -12.0449, 44.1568, 17.5102, -10.5793, -57.9289, 128.664
0.704, 1, -11.9716, 44.1627, 17.4624, -10.4151, -57.9189, 128.536
0.708, 1, -11.8984, 44.1687, 17.4146, -10.2507, -57.9088, 128.407
0.712, 1, -11.825, 44.1746, 17.3667, -10.0863, -57.8987, 128.279
0.716, 1, -11.7517, 44.1805, 17.3188, -9.9217, -57.8887, 128.15
0.72, 1, -11.6783, 44.1864, 17.2709, -9.75703, -57.8786, 128.022
0.724, 1, -11.6048, 44.1923, 17.2229, -9.59226, -57.8685, 127.893
0.728, 1, -11.5313, 44.1983, 17.1749, -9.42739, -57.8584, 127.764
0.732, 1, -11.4578, 44.2042, 17.1269, -9.26241, -57.8483, 127.635
0.736, 1, -11.3842, 44.2101, 17.0789, -9.09733, -57.8382, 127.506
0.74, 1, -11.3105, 44.2161, 17.0308, -8.93215, -57.8281, 127.377
0.744, 1, -11.2369, 44.222, 16.9827, -8.76687, -57.818, 127.248
0.748, 1, -11.1631, 44.228, 16.9346, -8.60148, -57.8078, 127.119
0.752, 1, -11.0893, 44.2339, 16.8864, -8.43599, -57.7977, 126.99
0.756, 1, -11.0155, 44.2399, 16.8382, -8.2704, -57.7876, 126.86
0.76, 1, -10.9417, 44.2459, 16.79, -8.10472, -57.7774, 126.731
0.764, 1, -10.8678, 44.2518, 16.7417, -7.93893, -57.7673, 126.601
0.768, 1, -10.7938, 44.2578, 16.6934, -7.77304, -57.7571, 126.472
0.772, 1, -10.7198, 44.2638, 16.6451, -7.60705, -57.747, 126.342
0.776, 1, -10.6458, 44.2697, 16.5968, -7.44096, -57.7368, 126.212
0.78, 1, -10.5717, 44.2757, 16.5484, -7.27477, -57.7266, 126.083
0.784, 1, -10.4975, 44.2817, 16.5, -7.10849, -57.7164, 125.953
0.788, 1, -10.4234, 44.2877, 16.4516, -6.9421, -57.7063, 125.823
0.792, 1, -10.3491, 44.2937, 16.4032, -6.77562, -57.6961, 125.693
0.796, 1, -10.2749, 44.2997, 16.3547, -6.60904, -57.6859, 125.563
0.8, 1, -10.2006, 44.3057, 16.3062, -6.44236, -57.6757, 125.432
0.804, 1, -10.1262, 44.3117, 16.2576, -6.27558, -57.6655, 125.302
0.808, 1, -10.0518, 44.3177, 16.209, -6.10871, -57.6552, 125.172
0.812, 1, -9.97741, 44.3237, 16.1605, -5.94174, -57.645, 125.041
0.816, 1, -9.90293, 44.3297, 16.1118, -5.77468, -57.6348, 124.911
0.82, 1, -9.82841, 44.3357, 16.0632, -5.60752, -57.6246, 124.78
0.824, 1, -9.75385, 44.3417, 16.0145, -5.44026, -57.6143, 124.65
0.828, 1, -9.67925, 44.3477, 15.9658, -5.27291, -57.6041, 124.519
0.832, 1, -9.6046, 44.3538, 15.9171, -5.10546, -57.5938, 124.388
0.836, 1, -9.52991, 44.3598, 15.8683, -4.93792, -57.5836, 124.257
0.84, 1, -9.45517, 44.3658, 15.8195, -4.77028, -57.5733, 124.126
0.844, 1, -9.3804, 44.3719, 15.7707, -4.60255, -57.563, 123.995
0.848, 1, -9.30558, 44.3779, 15.7218, -4.43473, -57.5528, 123.864
0.852, 1, -9.23073, 44.3839, 15.673, -4.26681, -57.5425, 123.733
0.856, 1, -9.15583, 44.39, 15.6241, -4.0988, -57.5322, 123.602
0.86, 1, -9.08089, 44.396, 15.5751, -3.9307, -57.5219, 123.47
0.864, 1, -9.00591, 44.4021, 15.5262, -3.7625, -57.5116, 123.339
0.868, 1, -8.93089, 44.4081, 15.4772, -3.59421, -57.5013, 123.208
0.872, 1, -8.85583, 44.4142, 15.4282, -3.42583, -57.491, 123.076
0.876, 1, -8.78072, 44.4203, 15.3792, -3.25736, -57.4807, 122.944
0.88, 1, -8.70559, 44.4263, 15.3301, -3.0888, -57.4704, 122.813
0.884, 1, -8.63041, 44.4324, 15.281, -2.92014, -57.46, 122.681
0.888, 1, -8.55519, 44.4385, 15.2319, -2.7514, -57.4497, 122.549
0.892, 1, -8.47993, 44.4445, 15.1828, -2.58257, -57.4394, 122.417
0.896, 1, -8.40464, 44.4506, 15.1336, -2.41365, -57.429, 122.285
0.9, 1, -8.3293, 44.4567, 15.0844, -2.24464, -57.4187, 122.153
0.904, 1, -8.25393, 44.4628, 15.0352, -2.07554, -57.4083, 122.021
0.908, 1, -8.17852, 44.4689, 14.986, -1.90636, -57.398, 121.889
0.912, 1, -8.10307, 44.475, 14.9367, -1.73709, -57.3876, 121.757
0.916, 1, -8.02758, 44.4811, 14.8874, -1.56774, -57.3772, 121.625
0.92, 1, -7.95206, 44.4872, 14.8381, -1.3983, -57.3669, 121.492
0.924, 1, -7.8765, 44.4933, 14.7888, -1.22878, -57.3565, 121.36
0.928, 1, -7.8009, 44.4994, 14.7394, -1.05918, -57.3461, 121.227
0.932, 1, -7.72527, 44.5055, 14.69, -0.889493, -57.3357, 121.095
0.936, 1, -7.6496, 44.5116, 14.6406, -0.719727, -57.3253, 120.962
0.94, 1, -7.5739, 44.5177, 14.5912, -0.549881, -57.3149, 120.829
0.944, 1, -7.49816, 44.5238, 14.5417, -0.379956, -57.3045, 120.697
0.948, 1, -7.42238, 44.5299, 14.4922, -0.209952, -57.2941, 120.564
0.952, 1, -7.34657, 44.536, 14.4427, -0.0398702, -57.2837, 120.431
0.956, 1, -7.27073, 44.5422, 14.3932, 0.130288, -57.2733, 120.298
0.96, 1, -7.19485, 44.5483, 14.3436, 0.300523, -57.2629, 120.165
0.964, 1, -7.11894, 44.5544, 14.2941, 0.470834, -57.2524, 120.032
0.968, 1, -7.043, 44.5606, 14.2445, 0.641219, -57.242, 119.899
0.972, 1, -6.96702, 44.5667, 14.1949, 0.811678, -57.2316, 119.766
0.976, 1, -6.89101, 44.5728, 14.1452, 0.982209, -57.2211, 119.633
0.98, 1, -6.81497, 44.579, 14.0956, 1.15281, -57.2107, 119.499
0.984, 1, -6.7389, 44.5851, 14.0459, 1.32349, -57.2002, 119.366
0.988, 1, -6.66279, 44.5912, 13.9962, 1.49423, -57.1898, 119.233
0.992, 1, -6.58666, 44.5974, 13.9465, 1.66504, -57.1793, 119.099
0.996, 1, -6.51049, 44.6035, 13.8968, 1.83593, -57.1689, 118.966
1, 1, -6.4343, 44.6097, 13.847, 2.00688, -57.1584, 118.832
1.004, 1, -6.35807, 44.6158, 13.7972, 2.17789, -57.1479, 118.699
1.008, 1, -6.28182, 44.622, 13.7474, 2.34897, -57.1375, 118.565
1.012, 1, -6.20554, 44.6282, 13.6976, 2.52012, -57.127, 118.431
1.016, 1, -6.12923, 44.6343, 13.6478, 2.69133, -57.1165, 118.298
1.02, 1, -6.05289, 44.6405, 13.5979, 2.86261, -57.106, 118.164
1.024, 1, -5.97652, 44.6467, 13.5481, 3.03394, -57.0955, 118.03
1.027, 1, -5.90013, 44.6528, 13.4982, 3.20534, -57.085, 117.896
1.032, 1, -5.82371, 44.659, 13.4483, 3.3768, -57.0745, 117.762
1.036, 1, -5.74726, 44.6652, 13.3984, 3.54832, -57.064, 117.628
1.04, 1, -5.67078, 44.6713, 13.3484, 3.7199, -57.0535, 117.494
1.044, 1, -5.59429, 44.6775, 13.2985, 3.89153, -57.043, 117.36
1.048, 1, -5.51776, 44.6837, 13.2485, 4.06323, -57.0325, 117.226
1.052, 1, -5.44121, 44.6899, 13.1985, 4.23498, -57.022, 117.092
1.055, 1, -5.36464, 44.6961, 13.1485, 4.40678, -57.0115, 116.958
1.06, 1, -5.28804, 44.7022, 13.0985, 4.57864, -57.001, 116.823
1.064, 1, -5.21142, 44.7084, 13.0485, 4.75055, -56.9904, 116.689
1.068, 1, -5.13477, 44.7146, 12.9984, 4.92251, -56.9799, 116.555
1.072, 1, -5.0581, 44.7208, 12.9483, 5.09453, -56.9694, 116.42
1.076, 1, -4.98141, 44.727, 12.8983, 5.26659, -56.9588, 116.286
1.08, 1, -4.9047, 44.7332, 12.8482, 5.43871, -56.9483, 116.151
1.084, 1, -4.82797, 44.7394, 12.7981, 5.61088, -56.9378, 116.017
1.088, 1, -4.75121, 44.7456, 12.7479, 5.78309, -56.9272, 115.882
1.091, 1, -4.67443, 44.7518, 12.6978, 5.95535, -56.9167, 115.748
1.096, 1, -4.59764, 44.758, 12.6476, 6.12765, -56.9061, 115.613
1.1, 1, -4.52082, 44.7642, 12.5975, 6.3, -56.8956, 115.479
1.104, 1, -4.44398, 44.7704, 12.5473, 6.4724, -56.885, 115.344
1.108, 1, -4.36712, 44.7766, 12.4971, 6.64484, -56.8745, 115.209
1.112, 1, -4.29025, 44.7828, 12.4469, 6.81732, -56.8639, 115.075
1.116, 1, -4.21336, 44.789, 12.3967, 6.98984, -56.8533, 114.94
1.119, 1, -4.13644, 44.7952, 12.3465, 7.1624, -56.8428, 114.805
1.124, 1, -4.05952, 44.8014, 12.2962, 7.335, -56.8322, 114.67
1.128, 1, -3.98257, 44.8077, 12.246, 7.50765, -56.8216, 114.535
1.132, 1, -3.90561, 44.8139, 12.1957, 7.68033, -56.8111, 114.4
1.136, 1, -3.82863, 44.8201, 12.1455, 7.85304, -56.8005, 114.266
1.14, 1, -3.75164, 44.8263, 12.0952, 8.02579, -56.7899, 114.131
1.144, 1, -3.67464, 44.8325, 12.0449, 8.19858, -56.7793, 113.996
1.147, 1, -3.59762, 44.8387, 11.9946, 8.3714, -56.7688, 113.861
1.152, 1, -3.52058, 44.845, 11.9443, 8.54425, -56.7582, 113.726
1.156, 1, -3.44354, 44.8512, 11.894, 8.71713, -56.7476, 113.591
1.16, 1, -3.36648, 44.8574, 11.8436, 8.89005, -56.737, 113.455
1.164, 1, -3.28941, 44.8636, 11.7933, 9.06299, -56.7264, 113.32
1.168, 1, -3.21233, 44.8699, 11.743, 9.23596, -56.7158, 113.185
1.172, 1, -3.13524, 44.8761, 11.6926, 9.40895, -56.7052, 113.05
1.175, 1, -3.05813, 44.8823, 11.6422, 9.58197, -56.6946, 112.915
1.18, 1, -2.98102, 44.8885, 11.5919, 9.75501, -56.6841, 112.78
1.184, 1, -2.9039, 44.8948, 11.5415, 9.92808, -56.6735, 112.645
1.188, 1, -2.82676, 44.901, 11.4911, 10.1012, -56.6629, 112.509
1.192, 1, -2.74962, 44.9072, 11.4408, 10.2743, -56.6523, 112.374
1.196, 1, -2.67248, 44.9135, 11.3904, 10.4474, -56.6417, 112.239
1.2, 1, -2.59532, 44.9197, 11.34, 10.6205, -56.6311, 112.104
1.204, 1, -2.51816, 44.9259, 11.2896, 10.7937, -56.6205, 111.968
1.208, 1, -2.44099, 44.9322, 11.2392, 10.9668, -56.6099, 111.833
1.212, 1, -2.36382, 44.9384, 11.1888, 11.14, -56.5993, 111.698
1.216, 1, -2.28664, 44.9446, 11.1384, 11.3132, -56.5887, 111.563
1.22, 1, -2.20946, 44.9509, 11.0879, 11.4864, -56.5781, 111.427
1.224, 1, -2.13227, 44.9571, 11.0375, 11.6596, -56.5675, 111.292
1.228, 1, -2.05508, 44.9633, 10.9871, 11.8328, -56.5569, 111.157
1.232, 1, -1.97789, 44.9696, 10.9367, 12.006, -56.5462, 111.021
1.236, 1, -1.9007, 44.9758, 10.8863, 12.1793, -56.5356, 110.886
1.24, 1, -1.82351, 44.982, 10.8359, 12.3525, -56.525, 110.751
1.244, 1, -1.74631, 44.9883, 10.7854, 12.5257, -56.5144, 110.616
1.248, 1, -1.66912, 44.9945, 10.735, 12.6989, -56.5038, 110.48
1.252, 1, -1.59193, 45.0007, 10.6846, 12.8722, -56.4932, 110.345
1.256, 1, -1.51474, 45.007, 10.6342, 13.0454, -56.4826, 110.21
1.26, 1, -1.43755, 45.0132, 10.5838, 13.2186, -56.472, 110.074
1.264, 1, -1.36036, 45.0195, 10.5334, 13.3918, -56.4614, 109.939
1.267, 1, -1.28318, 45.0257, 10.4829, 13.565, -56.4508, 109.804
1.272, 1, -1.206, 45.0319, 10.4325, 13.7382, -56.4402, 109.668
1.276, 1, -1.12883, 45.0382, 10.3821, 13.9114, -56.4296, 109.533
1.28, 1, -1.05166, 45.0444, 10.3317, 14.0846, -56.419, 109.398
1.284, 1, -0.974497, 45.0506, 10.2813, 14.2577, -56.4084, 109.263
1.288, 1, -0.89734, 45.0569, 10.2309, 14.4309, -56.3978, 109.127
1.292, 1, -0.820191, 45.0631, 10.1805, 14.604, -56.3872, 108.992
1.295, 1, -0.743049, 45.0693, 10.1302, 14.7771, -56.3766, 108.857
1.3, 1, -0.665915, 45.0756, 10.0798, 14.9502, -56.366, 108.722
1.304, 1, -0.588791, 45.0818, 10.0294, 15.1233, -56.3554, 108.586
1.308, 1, -0.511675, 45.088, 9.97903, 15.2963, -56.3448, 108.451
1.312, 1, -0.43457, 45.0942, 9.92867, 15.4693, -56.3342, 108.316
1.316, 1, -0.357476, 45.1005, 9.87831, 15.6423, -56.3236, 108.181
1.32, 1, -0.280392, 45.1067, 9.82797, 15.8153, -56.313, 108.046
1.324, 1, -0.203321, 45.1129, 9.77763, 15.9883, -56.3025, 107.911
1.328, 1, -0.126262, 45.1191, 9.72729, 16.1612, -56.2919, 107.776
1.332, 1, -0.0492166, 45.1254, 9.67697, 16.3341, -56.2813, 107.641
1.336, 1, 0.0278155, 45.1316, 9.62666, 16.507, -56.2707, 107.506
1.34, 1, 0.104833, 45.1378, 9.57635, 16.6798, -56.2601, 107.371
1.344, 1, 0.181836, 45.144, 9.52606, 16.8526, -56.2495, 107.236
1.348, 1, 0.258823, 45.1503, 9.47577, 17.0254, -56.239, 107.101
1.352, 1, 0.335795, 45.1565, 9.4255, 17.1981, -56.2284, 106.966
1.356, 1, 0.412749, 45.1627, 9.37523, 17.3708, -56.2178, 106.831
1.36, 1, 0.489687, 45.1689, 9.32498, 17.5434, -56.2072, 106.696
1.364, 1, 0.566607, 45.1751, 9.27474, 17.716, -56.1967, 106.561
1.368, 1, 0.643509, 45.1813, 9.22451, 17.8886, -56.1861, 106.426
1.372, 1, 0.720392, 45.1875, 9.1743, 18.0611, -56.1756, 106.292
1.376, 1, 0.797255, 45.1938, 9.12409, 18.2336, -56.165, 106.157
1.38, 1, 0.874098, 45.2, 9.0739, 18.4061, -56.1544, 106.022
1.384, 1, 0.95092, 45.2062, 9.02372, 18.5785, -56.1439, 105.887
1.388, 1, 1.02772, 45.2124, 8.97356, 18.7508, -56.1333, 105.753
1.392, 1, 1.1045, 45.2186, 8.92341, 18.9231, -56.1228, 105.618
1.396, 1, 1.18125, 45.2248, 8.87328, 19.0953, -56.1122, 105.484
1.4, 1, 1.25798, 45.231, 8.82316, 19.2675, -56.1017, 105.349
1.404, 1, 1.33469, 45.2372, 8.77306, 19.4397, -56.0912, 105.215
1.408, 1, 1.41137, 45.2434, 8.72297, 19.6117, -56.0806, 105.08
1.412, 1, 1.48803, 45.2496, 8.6729, 19.7838, -56.0701, 104.946
1.416, 1, 1.56466, 45.2558, 8.62284, 19.9557, -56.0596, 104.812
1.42, 1, 1.64126, 45.262, 8.5728, 20.1277, -56.049, 104.677
1.424, 1, 1.71784, 45.2681, 8.52278, 20.2995, -56.0385, 104.543
1.428, 1, 1.79439, 45.2743, 8.47278, 20.4713, -56.028, 104.409
1.432, 1, 1.87091, 45.2805, 8.4228, 20.643, -56.0175, 104.275
1.436, 1, 1.9474, 45.2867, 8.37283, 20.8147, -56.007, 104.141
1.44, 1, 2.02386, 45.2929, 8.32289, 20.9863, -55.9965, 104.007
1.444, 1, 2.10029, 45.299, 8.27296, 21.1578, -55.986, 103.873
1.448, 1, 2.17669, 45.3052, 8.22305, 21.3293, -55.9755, 103.739
1.452, 1, 2.25306, 45.3114, 8.17317, 21.5007, -55.965, 103.605
1.456, 1, 2.3294, 45.3176, 8.1233, 21.672, -55.9545, 103.471
1.46, 1, 2.4057, 45.3237, 8.07346, 21.8432, -55.944, 103.337
1.464, 1, 2.48197, 45.3299, 8.02364, 22.0144, -55.9335, 103.203
1.468, 1, 2.55821, 45.336, 7.97384, 22.1855, -55.9231, 103.07
1.472, 1, 2.63441, 45.3422, 7.92406, 22.3565, -55.9126, 102.936
1.476, 1, 2.71058, 45.3484, 7.87431, 22.5274, -55.9021, 102.803
1.48, 1, 2.78671, 45.3545, 7.82458, 22.6983, -55.8917, 102.669
1.484, 1, 2.86281, 45.3607, 7.77487, 22.8691, -55.8812, 102.536
1.488, 1, 2.93887, 45.3668, 7.72519, 23.0397, -55.8708, 102.403
1.492, 1, 3.01489, 45.3729, 7.67553, 23.2103, -55.8603, 102.269
1.496, 1, 3.09087, 45.3791, 7.6259, 23.3809, -55.8499, 102.136
1.5, 1, 3.16681, 45.3852, 7.57629, 23.5513, -55.8395, 102.003
1.504, 1, 3.24271, 45.3914, 7.52671, 23.7216, -55.829, 101.87
1.508, 1, 3.31858, 45.3975, 7.47716, 23.8919, -55.8186, 101.737
1.512, 1, 3.3944, 45.4036, 7.42763, 24.062, -55.8082, 101.604
1.516, 1, 3.47018, 45.4097, 7.37813, 24.2321, -55.7978, 101.471
1.52, 1, 3.54592, 45.4159, 7.32866, 24.4021, -55.7874, 101.338
1.524, 1, 3.62161, 45.422, 7.27921, 24.572, -55.777, 101.206
1.528, 1, 3.69727, 45.4281, 7.2298, 24.7417, -55.7666, 101.073
1.532, 1, 3.77288, 45.4342, 7.18041, 24.9114, -55.7562, 100.94
1.536, 1, 3.84844, 45.4403, 7.13105, 25.081, -55.7458, 100.808
1.54, 1, 3.92396, 45.4464, 7.08172, 25.2505, -55.7354, 100.676
1.544, 1, 3.99943, 45.4525, 7.03242, 25.4198, -55.7251, 100.543
1.548, 1, 4.07486, 45.4586, 6.98315, 25.5891, -55.7147, 100.411
1.552, 1, 4.15024, 45.4647, 6.93391, 25.7583, -55.7044, 100.279
1.556, 1, 4.22558, 45.4708, 6.8847, 25.9273, -55.694, 100.147
1.56, 1, 4.30086, 45.4769, 6.83553, 26.0963, -55.6837, 100.015
1.564, 1, 4.3761, 45.4829, 6.78638, 26.2651, -55.6733, 99.883
1.568, 1, 4.45129, 45.489, 6.73727, 26.4339, -55.663, 99.7512
1.572, 1, 4.52643, 45.4951, 6.68819, 26.6025, -55.6527, 99.6195
1.576, 1, 4.60152, 45.5012, 6.63914, 26.771, -55.6424, 99.4879
1.58, 1, 4.67656, 45.5072, 6.59013, 26.9394, -55.632, 99.3563
1.584, 1, 4.75155, 45.5133, 6.54114, 27.1077, -55.6217, 99.2249
1.588, 1, 4.82648, 45.5193, 6.4922, 27.2758, -55.6115, 99.0935
1.592, 1, 4.90137, 45.5254, 6.44328, 27.4439, -55.6012, 98.9623
1.596, 1, 4.9762, 45.5314, 6.39441, 27.6118, -55.5909, 98.8311
1.6, 1, 5.05097, 45.5375, 6.34556, 27.7796, -55.5806, 98.7
1.604, 1, 5.1257, 45.5435, 6.29675, 27.9473, -55.5703, 98.569
1.608, 1, 5.20037, 45.5496, 6.24798, 28.1149, -55.5601, 98.4381
1.612, 1, 5.27498, 45.5556, 6.19924, 28.2823, -55.5498, 98.3073
1.616, 1, 5.34954, 45.5616, 6.15054, 28.4496, -55.5396, 98.1766
1.62, 1, 5.42405, 45.5676, 6.10188, 28.6168, -55.5294, 98.046
1.624, 1, 5.4985, 45.5736, 6.05325, 28.7839, -55.5191, 97.9155
1.628, 1, 5.57289, 45.5797, 6.00466, 28.9508, -55.5089, 97.7851
1.632, 1, 5.64723, 45.5857, 5.95611, 29.1176, -55.4987, 97.6548
1.636, 1, 5.72151, 45.5917, 5.90759, 29.2843, -55.4885, 97.5246
1.64, 1, 5.79573, 45.5977, 5.85912, 29.4508, -55.4783, 97.3945
1.644, 1, 5.86989, 45.6037, 5.81068, 29.6173, -55.4681, 97.2645
1.648, 1, 5.94399, 45.6096, 5.76228, 29.7835, -55.4579, 97.1346
1.652, 1, 6.01804, 45.6156, 5.71392, 29.9497, -55.4478, 97.0049
1.656, 1, 6.09202, 45.6216, 5.6656, 30.1157, -55.4376, 96.8752
1.66, 1, 6.16595, 45.6276, 5.61731, 30.2816, -55.4274, 96.7456
1.664, 1, 6.23981, 45.6336, 5.56907, 30.4473, -55.4173, 96.6161
1.668, 1, 6.31361, 45.6395, 5.52087, 30.6129, -55.4072, 96.4868
1.672, 1, 6.38735, 45.6455, 5.4727, 30.7784, -55.397, 96.3575
1.676, 1, 6.46103, 45.6514, 5.42458, 30.9437, -55.3869, 96.2284
1.68, 1, 6.53465, 45.6574, 5.3765, 31.1089, -55.3768, 96.0993
1.684, 1, 6.6082, 45.6633, 5.32846, 31.274, -55.3667, 95.9704
1.688, 1, 6.68169, 45.6693, 5.28046, 31.4389, -55.3566, 95.8416
1.692, 1, 6.75511, 45.6752, 5.2325, 31.6036, -55.3465, 95.7129
1.696, 1, 6.82848, 45.6811, 5.18459, 31.7683, -55.3364, 95.5843
1.7, 1, 6.90177, 45.687, 5.13671, 31.9327, -55.3264, 95.4558
1.704, 1, 6.97501, 45.693, 5.08888, 32.0971, -55.3163, 95.3274
1.708, 1, 7.04818, 45.6989, 5.04109, 32.2612, -55.3063, 95.1992
1.712, 1, 7.12128, 45.7048, 4.99335, 32.4253, -55.2962, 95.071
1.716, 1, 7.19432, 45.7107, 4.94564, 32.5892, -55.2862, 94.943
1.72, 1, 7.26729, 45.7166, 4.89798, 32.7529, -55.2762, 94.8151
1.724, 1, 7.34019, 45.7225, 4.85037, 32.9165, -55.2661, 94.6873
1.728, 1, 7.41303, 45.7284, 4.80279, 33.0799, -55.2561, 94.5597
1.732, 1, 7.4858, 45.7342, 4.75527, 33.2432, -55.2461, 94.4321
1.736, 1, 7.5585, 45.7401, 4.70778, 33.4064, -55.2362, 94.3047
1.74, 1, 7.63113, 45.746, 4.66034, 33.5693, -55.2262, 94.1774
1.744, 1, 7.7037, 45.7518, 4.61295, 33.7322, -55.2162, 94.0502
1.748, 1, 7.7762, 45.7577, 4.5656, 33.8948, -55.2063, 93.9231
1.752, 1, 7.84862, 45.7636, 4.5183, 34.0574, -55.1963, 93.7962
1.756, 1, 7.92098, 45.7694, 4.47104, 34.2197, -55.1864, 93.6693
1.76, 1, 7.99327, 45.7752, 4.42382, 34.3819, -55.1764, 93.5426
1.764, 1, 8.06549, 45.7811, 4.37666, 34.544, -55.1665, 93.416
1.768, 1, 8.13764, 45.7869, 4.32954, 34.7059, -55.1566, 93.2896
1.772, 1, 8.20971, 45.7927, 4.28246, 34.8676, -55.1467, 93.1633
1.776, 1, 8.28172, 45.7986, 4.23544, 35.0292, -55.1368, 93.037
1.78, 1, 8.35365, 45.8044, 4.18845, 35.1906, -55.1269, 92.911
1.784, 1, 8.42551, 45.8102, 4.14152, 35.3518, -55.1171, 92.785
1.788, 1, 8.4973, 45.816, 4.09463, 35.5129, -55.1072, 92.6592
1.792, 1, 8.56902, 45.8218, 4.0478, 35.6738, -55.0974, 92.5335
1.796, 1, 8.64067, 45.8276, 4.001, 35.8346, -55.0875, 92.4079
1.8, 1, 8.71224, 45.8333, 3.95426, 35.9952, -55.0777, 92.2825
1.804, 1, 8.78374, 45.8391, 3.90757, 36.1556, -55.0679, 92.1571
1.808, 1, 8.85516, 45.8449, 3.86092, 36.3158, -55.058, 92.032
1.812, 1, 8.92651, 45.8507, 3.81432, 36.4759, -55.0482, 91.9069
1.816, 1, 8.99779, 45.8564, 3.76777, 36.6359, -55.0385, 91.782
1.82, 1, 9.06899, 45.8622, 3.72127, 36.7956, -55.0287, 91.6572
1.824, 1, 9.14012, 45.8679, 3.67482, 36.9552, -55.0189, 91.5325
1.828, 1, 9.21117, 45.8737, 3.62841, 37.1146, -55.0091, 91.408
1.832, 1, 9.28214, 45.8794, 3.58206, 37.2739, -54.9994, 91.2836
1.836, 1, 9.35305, 45.8851, 3.53575, 37.433, -54.9897, 91.1593
1.84, 1, 9.42387, 45.8908, 3.4895, 37.5919, -54.9799, 91.0352
1.844, 1, 9.49462, 45.8966, 3.44329, 37.7506, -54.9702, 90.9112
1.848, 1, 9.56529, 45.9023, 3.39714, 37.9092, -54.9605, 90.7873
1.852, 1, 9.63589, 45.908, 3.35104, 38.0676, -54.9508, 90.6636
1.856, 1, 9.70641, 45.9137, 3.30498, 38.2258, -54.9411, 90.54
1.86, 1, 9.77685, 45.9194, 3.25898, 38.3839, -54.9314, 90.4165
1.864, 1, 9.84721, 45.9251, 3.21302, 38.5417, -54.9218, 90.2932
1.868, 1, 9.9175, 45.9307, 3.16712, 38.6994, -54.9121, 90.17
1.872, 1, 9.98771, 45.9364, 3.12127, 38.857, -54.9025, 90.047
1.876, 1, 10.0578, 45.9421, 3.07547, 39.0143, -54.8928, 89.924
1.88, 1, 10.1279, 45.9477, 3.02972, 39.1715, -54.8832, 89.8013
1.884, 1, 10.1979, 45.9534, 2.98402, 39.3285, -54.8736, 89.6786
1.888, 1, 10.2678, 45.959, 2.93838, 39.4853, -54.864, 89.5561
1.892, 1, 10.3376, 45.9647, 2.89278, 39.642, -54.8544, 89.4338
1.896, 1, 10.4073, 45.9703, 2.84724, 39.7984, -54.8448, 89.3115
1.9, 1, 10.477, 45.9759, 2.80175, 39.9547, -54.8353, 89.1895
1.904, 1, 10.5466, 45.9816, 2.75631, 40.1108, -54.8257, 89.0675
1.908, 1, 10.6161, 45.9872, 2.71093, 40.2668, -54.8162, 88.9457
1.912, 1, 10.6855, 45.9928, 2.66559, 40.4225, -54.8066, 88.8241
1.916, 1, 10.7548, 45.9984, 2.62031, 40.5781, -54.7971, 88.7025
1.92, 1, 10.8241, 46.004, 2.57508, 40.7335, -54.7876, 88.5811
1.924, 1, 10.8933, 46.0096, 2.5299, 40.8887, -54.7781, 88.4599
1.928, 1, 10.9624, 46.0152, 2.48478, 41.0437, -54.7686, 88.3388
1.932, 1, 11.0314, 46.0207, 2.43971, 41.1986, -54.7591, 88.2178
1.936, 1, 11.1003, 46.0263, 2.39469, 41.3532, -54.7497, 88.097
1.94, 1, 11.1692, 46.0319, 2.34972, 41.5077, -54.7402, 87.9763
1.944, 1, 11.238, 46.0374, 2.30481, 41.662, -54.7308, 87.8558
1.948, 1, 11.3067, 46.043, 2.25995, 41.8161, -54.7213, 87.7354
1.952, 1, 11.3753, 46.0485, 2.21514, 41.9701, -54.7119, 87.6152
1.956, 1, 11.4438, 46.0541, 2.17038, 42.1238, -54.7025, 87.4951
1.96, 1, 11.5123, 46.0596, 2.12568, 42.2774, -54.6931, 87.3751
1.964, 1, 11.5807, 46.0651, 2.08103, 42.4308, -54.6837, 87.2553
1.968, 1, 11.649, 46.0706, 2.03644, 42.584, -54.6743, 87.1356
1.972, 1, 11.7172, 46.0761, 1.9919, 42.7371, -54.665, 87.016
1.976, 1, 11.7853, 46.0816, 1.94741, 42.8899, -54.6556, 86.8966
1.98, 1, 11.8534, 46.0871, 1.90297, 43.0426, -54.6463, 86.7774
1.984, 1, 11.9213, 46.0926, 1.85859, 43.195, -54.6369, 86.6583
1.988, 1, 11.9892, 46.0981, 1.81426, 43.3474, -54.6276, 86.5393
1.992, 1, 12.057, 46.1036, 1.76998, 43.4995, -54.6183, 86.4205
1.996, 1, 12.1248, 46.1091, 1.72576, 43.6514, -54.609, 86.3018
1.999, 1, 12.1924, 46.1145, 1.68159, 43.8032, -54.5997, 86.1833
2.004, 1, 12.26, 46.12, 1.63747, 43.9547, -54.5904, 86.0649
2.008, 1, 12.3275, 46.1254, 1.59341, 44.1061, -54.5812, 85.9466
2.012, 1, 12.3949, 46.1309, 1.5494, 44.2573, -54.5719, 85.8285
2.015, 1, 12.4622, 46.1363, 1.50545, 44.4083, -54.5626, 85.7105
2.019, 1, 12.5294, 46.1418, 1.46154, 44.5591, -54.5534, 85.5927
2.024, 1, 12.5966, 46.1472, 1.4177, 44.7098, -54.5442, 85.4751
2.028, 1, 12.6636, 46.1526, 1.3739, 44.8602, -54.535, 85.3575
2.031, 1, 12.7306, 46.158, 1.33016, 45.0105, -54.5258, 85.2401
2.036, 1, 12.7975, 46.1634, 1.28647, 45.1606, -54.5166, 85.1229
2.04, 1, 12.8644, 46.1688, 1.24284, 45.3105, -54.5074, 85.0058
2.044, 1, 12.9311, 46.1742, 1.19926, 45.4603, -54.4983, 84.8888
2.048, 1, 12.9978, 46.1796, 1.15573, 45.6098, -54.4891, 84.772
2.051, 1, 13.0643, 46.185, 1.11226, 45.7591, -54.48, 84.6553
2.055, 1, 13.1308, 46.1903, 1.06884, 45.9083, -54.4708, 84.5388
2.06, 1, 13.1972, 46.1957, 1.02548, 46.0573, -54.4617, 84.4224
2.064, 1, 13.2636, 46.2011, 0.982165, 46.2061, -54.4526, 84.3062
2.068, 1, 13.3298, 46.2064, 0.938908, 46.3547, -54.4435, 84.1901
2.071, 1, 13.396, 46.2118, 0.895704, 46.5032, -54.4344, 84.0742
2.076, 1, 13.4621, 46.2171, 0.852555, 46.6514, -54.4253, 83.9584
2.08, 1, 13.5281, 46.2224, 0.809459, 46.7995, -54.4163, 83.8427
2.084, 1, 13.594, 46.2278, 0.766417, 46.9473, -54.4072, 83.7272
2.087, 1, 13.6598, 46.2331, 0.723429, 47.095, -54.3982, 83.6118
2.092, 1, 13.7256, 46.2384, 0.680494, 47.2425, -54.3891, 83.4966
2.096, 1, 13.7913, 46.2437, 0.637614, 47.3899, -54.3801, 83.3815
2.1, 1, 13.8569, 46.249, 0.594787, 47.537, -54.3711, 83.2666
2.104, 1, 13.9224, 46.2543, 0.552015, 47.6839, -54.3621, 83.1518
2.107, 1, 13.9878, 46.2596, 0.509296, 47.8307, -54.3531, 83.0372
2.111, 1, 14.0531, 46.2648, 0.466631, 47.9773, -54.3442, 82.9226
2.116, 1, 14.1184, 46.2701, 0.424019, 48.1237, -54.3352, 82.8083
2.12, 1, 14.1836, 46.2754, 0.381462, 48.2699, -54.3263, 82.6941
2.124, 1, 14.2487, 46.2806, 0.338959, 48.4159, -54.3173, 82.58
2.127, 1, 14.3137, 46.2859, 0.296509, 48.5618, -54.3084, 82.4661
2.132, 1, 14.3786, 46.2911, 0.254113, 48.7074, -54.2995, 82.3523
2.136, 1, 14.4435, 46.2964, 0.211771, 48.8529, -54.2906, 82.2387
2.14, 1, 14.5082, 46.3016, 0.169483, 48.9982, -54.2817, 82.1252
2.143, 1, 14.5729, 46.3068, 0.127248, 49.1433, -54.2728, 82.0118
2.148, 1, 14.6375, 46.312, 0.0850672, 49.2882, -54.2639, 81.8986
2.152, 1, 14.7021, 46.3173, 0.0429402, 49.4329, -54.2551, 81.7856
2.156, 1, 14.7665, 46.3225, 0.000866892, 49.5775, -54.2462, 81.6727
2.16, 1, 14.8309, 46.3277, -0.0411527, 49.7219, -54.2374, 81.5599
2.163, 1, 14.8951, 46.3329, -0.0831186, 49.866, -54.2285, 81.4473
2.168, 1, 14.9593, 46.338, -0.125031, 50.01, -54.2197, 81.3348
2.172, 1, 15.0234, 46.3432, -0.166889, 50.1538, -54.2109, 81.2224
2.176, 1, 15.0875, 46.3484, -0.208694, 50.2975, -54.2021, 81.1103
2.179, 1, 15.1514, 46.3536, -0.250445, 50.4409, -54.1933, 80.9982
2.184, 1, 15.2153, 46.3587, -0.292143, 50.5842, -54.1846, 80.8863
2.188, 1, 15.279, 46.3639, -0.333787, 50.7272, -54.1758, 80.7745
2.192, 1, 15.3428, 46.369, -0.375378, 50.8701, -54.1671, 80.6629
2.196, 1, 15.4064, 46.3742, -0.416915, 51.0128, -54.1583, 80.5514
2.199, 1, 15.4699, 46.3793, -0.458399, 51.1553, -54.1496, 80.4401
2.204, 1, 15.5334, 46.3844, -0.499829, 51.2977, -54.1409, 80.3289
2.208, 1, 15.5967, 46.3895, -0.541205, 51.4398, -54.1322, 80.2179
2.212, 1, 15.66, 46.3946, -0.582529, 51.5818, -54.1235, 80.107
2.216, 1, 15.7232, 46.3997, -0.623798, 51.7236, -54.1148, 79.9962
2.219, 1, 15.7864, 46.4048, -0.665015, 51.8652, -54.1062, 79.8856
2.224, 1, 15.8494, 46.4099, -0.706179, 52.0066, -54.0975, 79.7751
2.228, 1, 15.9124, 46.415, -0.747289, 52.1479, -54.0888, 79.6648
2.232, 1, 15.9753, 46.4201, -0.788346, 52.2889, -54.0802, 79.5546
2.235, 1, 16.0381, 46.4252, -0.829351, 52.4298, -54.0716, 79.4446
2.24, 1, 16.1008, 46.4302, -0.870302, 52.5705, -54.063, 79.3347
2.244, 1, 16.1635, 46.4353, -0.911201, 52.711, -54.0544, 79.2249
2.248, 1, 16.226, 46.4404, -0.952046, 52.8514, -54.0458, 79.1153
2.252, 1, 16.2885, 46.4454, -0.99284, 52.9915, -54.0372, 79.0058
2.255, 1, 16.3509, 46.4504, -1.03358, 53.1315, -54.0286, 78.8965
2.259, 1, 16.4132, 46.4555, -1.07427, 53.2713, -54.0201, 78.7873
2.264, 1, 16.4755, 46.4605, -1.1149, 53.4109, -54.0115, 78.6782
2.268, 1, 16.5377, 46.4655, -1.15549, 53.5503, -54.003, 78.5693
2.272, 1, 16.5997, 46.4705, -1.19602, 53.6896, -53.9945, 78.4605
2.275, 1, 16.6617, 46.4755, -1.2365, 53.8286, -53.986, 78.3519
2.28, 1, 16.7237, 46.4805, -1.27693, 53.9675, -53.9775, 78.2434
2.284, 1, 16.7855, 46.4855, -1.3173, 54.1063, -53.969, 78.135
2.288, 1, 16.8473, 46.4905, -1.35762, 54.2448, -53.9605, 78.0268
2.291, 1, 16.909, 46.4955, -1.3979, 54.3832, -53.952, 77.9187
2.296, 1, 16.9706, 46.5005, -1.43812, 54.5213, -53.9436, 77.8108
2.3, 1, 17.0321, 46.5055, -1.47828, 54.6593, -53.9351, 77.703
2.304, 1, 17.0935, 46.5104, -1.5184, 54.7972, -53.9267, 77.5953
2.308, 1, 17.1549, 46.5154, -1.55847, 54.9348, -53.9182, 77.4878
2.311, 1, 17.2162, 46.5203, -1.59848, 55.0723, -53.9098, 77.3804
2.316, 1, 17.2774, 46.5253, -1.63844, 55.2096, -53.9014, 77.2732
2.32, 1, 17.3386, 46.5302, -1.67835, 55.3467, -53.893, 77.166
2.324, 1, 17.3996, 46.5351, -1.71821, 55.4837, -53.8846, 77.0591
2.328, 1, 17.4606, 46.5401, -1.75802, 55.6204, -53.8763, 76.9522
2.331, 1, 17.5215, 46.545, -1.79778, 55.757, -53.8679, 76.8455
2.336, 1, 17.5823, 46.5499, -1.83749, 55.8935, -53.8596, 76.739
2.34, 1, 17.6431, 46.5548, -1.87715, 56.0297, -53.8512, 76.6325
2.344, 1, 17.7037, 46.5597, -1.91675, 56.1658, -53.8429, 76.5262
2.347, 1, 17.7643, 46.5646, -1.95631, 56.3017, -53.8346, 76.4201
2.352, 1, 17.8248, 46.5695, -1.99581, 56.4374, -53.8263, 76.3141
2.356, 1, 17.8853, 46.5744, -2.03527, 56.573, -53.818, 76.2082
2.36, 1, 17.9456, 46.5792, -2.07467, 56.7083, -53.8097, 76.1024
2.364, 1, 18.0059, 46.5841, -2.11403, 56.8435, -53.8014, 75.9968
2.367, 1, 18.0661, 46.589, -2.15333, 56.9786, -53.7931, 75.8913
2.372, 1, 18.1262, 46.5938, -2.19258, 57.1134, -53.7849, 75.786
2.376, 1, 18.1863, 46.5987, -2.23179, 57.2481, -53.7766, 75.6808
2.38, 1, 18.2463, 46.6035, -2.27094, 57.3827, -53.7684, 75.5757
2.383, 1, 18.3062, 46.6083, -2.31005, 57.517, -53.7602, 75.4707
2.388, 1, 18.366, 46.6132, -2.3491, 57.6512, -53.752, 75.3659
2.392, 1, 18.4257, 46.618, -2.38811, 57.7852, -53.7438, 75.2612
2.396, 1, 18.4854, 46.6228, -2.42706, 57.919, -53.7356, 75.1567
2.4, 1, 18.545, 46.6276, -2.46597, 58.0527, -53.7274, 75.0523
2.403, 1, 18.6045, 46.6324, -2.50483, 58.1862, -53.7192, 74.948
2.408, 1, 18.664, 46.6372, -2.54363, 58.3195, -53.711, 74.8438
2.412, 1, 18.7233, 46.642, -2.58239, 58.4527, -53.7029, 74.7398
2.416, 1, 18.7826, 46.6468, -2.6211, 58.5857, -53.6947, 74.6359
2.42, 1, 18.8418, 46.6516, -2.65976, 58.7185, -53.6866, 74.5322
2.423, 1, 18.901, 46.6564, -2.69837, 58.8512, -53.6785, 74.4286
2.428, 1, 18.9601, 46.6612, -2.73693, 58.9837, -53.6704, 74.3251
2.432, 1, 19.0191, 46.6659, -2.77545, 59.116, -53.6623, 74.2217
2.436, 1, 19.078, 46.6707, -2.81391, 59.2481, -53.6542, 74.1185
2.439, 1, 19.1368, 46.6754, -2.85233, 59.3801, -53.6461, 74.0154
2.444, 1, 19.1956, 46.6802, -2.8907, 59.5119, -53.638, 73.9124
2.448, 1, 19.2543, 46.6849, -2.92902, 59.6436, -53.63, 73.8096
2.452, 1, 19.3129, 46.6897, -2.96729, 59.7751, -53.6219, 73.7068
2.456, 1, 19.3715, 46.6944, -3.00551, 59.9064, -53.6139, 73.6043
2.459, 1, 19.4299, 46.6991, -3.04369, 60.0376, -53.6059, 73.5018
2.464, 1, 19.4883, 46.7038, -3.08181, 60.1685, -53.5978, 73.3995
2.468, 1, 19.5467, 46.7085, -3.11989, 60.2994, -53.5898, 73.2973
2.472, 1, 19.6049, 46.7132, -3.15792, 60.43, -53.5818, 73.1952
2.476, 1, 19.6631, 46.7179, -3.19591, 60.5605, -53.5738, 73.0933
2.479, 1, 19.7212, 46.7226, -3.23384, 60.6909, -53.5659, 72.9915
2.484, 1, 19.7793, 46.7273, -3.27173, 60.821, -53.5579, 72.8898
2.488, 1, 19.8372, 46.732, -3.30957, 60.9511, -53.5499, 72.7882
2.492, 1, 19.8951, 46.7367, -3.34737, 61.0809, -53.542, 72.6868
2.495, 1, 19.9529, 46.7413, -3.38511, 61.2106, -53.5341, 72.5855
2.5, 1, 20.0107, 46.746, -3.42281, 61.3401, -53.5261, 72.4843
2.504, 1, 20.0684, 46.7507, -3.46046, 61.4695, -53.5182, 72.3833
2.508, 1, 20.126, 46.7553, -3.49807, 61.5987, -53.5103, 72.2823
2.512, 1, 20.1835, 46.76, -3.53562, 61.7277, -53.5024, 72.1815
2.515, 1, 20.241, 46.7646, -3.57314, 61.8566, -53.4945, 72.0809
2.52, 1, 20.2983, 46.7692, -3.6106, 61.9853, -53.4866, 71.9803
2.524, 1, 20.3557, 46.7739, -3.64802, 62.1138, -53.4788, 71.8799
2.528, 1, 20.4129, 46.7785, -3.68539, 62.2422, -53.4709, 71.7796
2.531, 1, 20.4701, 46.7831, -3.72271, 62.3705, -53.463, 71.6794
2.536, 1, 20.5272, 46.7877, -3.75999, 62.4986, -53.4552, 71.5794
2.54, 1, 20.5842, 46.7923, -3.79722, 62.6265, -53.4474, 71.4795
2.544, 1, 20.6412, 46.7969, -3.83441, 62.7542, -53.4396, 71.3797
2.548, 1, 20.6981, 46.8015, -3.87155, 62.8818, -53.4317, 71.28
2.551, 1, 20.7549, 46.8061, -3.90864, 63.0093, -53.4239, 71.1805
2.556, 1, 20.8116, 46.8107, -3.94569, 63.1366, -53.4162, 71.081
2.56, 1, 20.8683, 46.8153, -3.98269, 63.2637, -53.4084, 70.9817
2.564, 1, 20.9249, 46.8198, -4.01964, 63.3907, -53.4006, 70.8825
2.568, 1, 20.9815, 46.8244, -4.05655, 63.5175, -53.3928, 70.7835
2.571, 1, 21.038, 46.829, -4.09342, 63.6441, -53.3851, 70.6846
2.576, 1, 21.0944, 46.8335, -4.13024, 63.7706, -53.3773, 70.5857
2.58, 1, 21.1507, 46.8381, -4.16701, 63.897, -53.3696, 70.487
2.584, 1, 21.207, 46.8426, -4.20374, 64.0232, -53.3619, 70.3885
2.587, 1, 21.2632, 46.8471, -4.24042, 64.1492, -53.3542, 70.29
2.592, 1, 21.3193, 46.8517, -4.27706, 64.2751, -53.3465, 70.1917
2.596, 1, 21.3753, 46.8562, -4.31366, 64.4008, -53.3388, 70.0935
2.6, 1, 21.4313, 46.8607, -4.35021, 64.5264, -53.3311, 69.9954
2.604, 1, 21.4873, 46.8652, -4.38671, 64.6518, -53.3234, 69.8974
2.607, 1, 21.5431, 46.8697, -4.42317, 64.7771, -53.3157, 69.7996
2.612, 1, 21.5989, 46.8743, -4.45959, 64.9022, -53.3081, 69.7018
2.616, 1, 21.6546, 46.8787, -4.49596, 65.0271, -53.3004, 69.6042
2.62, 1, 21.7103, 46.8832, -4.53229, 65.152, -53.2928, 69.5067
2.624, 1, 21.7659, 46.8877, -4.56858, 65.2766, -53.2851, 69.4093
2.627, 1, 21.8214, 46.8922, -4.60482, 65.4011, -53.2775, 69.3121
2.632, 1, 21.8768, 46.8967, -4.64101, 65.5255, -53.2699, 69.2149
2.636, 1, 21.9322, 46.9012, -4.67717, 65.6497, -53.2623, 69.1179
2.64, 1, 21.9875, 46.9056, -4.71328, 65.7738, -53.2547, 69.021
2.643, 1, 22.0428, 46.9101, -4.74934, 65.8977, -53.2471, 68.9242
2.648, 1, 22.098, 46.9145, -4.78537, 66.0215, -53.2395, 68.8275
2.652, 1, 22.1531, 46.919, -4.82135, 66.1451, -53.232, 68.7309
2.656, 1, 22.2081, 46.9234, -4.85728, 66.2685, -53.2244, 68.6345
2.66, 1, 22.2631, 46.9279, -4.89318, 66.3919, -53.2169, 68.5382
2.663, 1, 22.318, 46.9323, -4.92903, 66.515, -53.2093, 68.4419
2.668, 1, 22.3729, 46.9367, -4.96484, 66.6381, -53.2018, 68.3458
2.672, 1, 22.4277, 46.9412, -5.0006, 66.7609, -53.1943, 68.2498
2.676, 1, 22.4824, 46.9456, -5.03633, 66.8837, -53.1868, 68.154
2.679, 1, 22.5371, 46.95, -5.07201, 67.0063, -53.1793, 68.0582
2.684, 1, 22.5917, 46.9544, -5.10765, 67.1287, -53.1718, 67.9626
2.688, 1, 22.6462, 46.9588, -5.14324, 67.251, -53.1643, 67.867
2.692, 1, 22.7007, 46.9632, -5.1788, 67.3732, -53.1568, 67.7716
2.696, 1, 22.7551, 46.9676, -5.21431, 67.4952, -53.1493, 67.6763
2.699, 1, 22.8094, 46.972, -5.24978, 67.617, -53.1419, 67.5811
2.704, 1, 22.8637, 46.9764, -5.28521, 67.7388, -53.1344, 67.486
2.708, 1, 22.9179, 46.9808, -5.3206, 67.8604, -53.127, 67.391
2.712, 1, 22.972, 46.9851, -5.35594, 67.9818, -53.1195, 67.2962
2.716, 1, 23.0261, 46.9895, -5.39125, 68.1031, -53.1121, 67.2014
2.719, 1, 23.0801, 46.9939, -5.42651, 68.2242, -53.1047, 67.1068
2.724, 1, 23.1341, 46.9982, -5.46173, 68.3453, -53.0973, 67.0123
2.728, 1, 23.188, 47.0026, -5.49691, 68.4661, -53.0899, 66.9179
2.732, 1, 23.2418, 47.0069, -5.53205, 68.5869, -53.0825, 66.8235
2.735, 1, 23.2956, 47.0112, -5.56715, 68.7074, -53.0751, 66.7293
2.74, 1, 23.3493, 47.0156, -5.60221, 68.8279, -53.0677, 66.6353
2.744, 1, 23.4029, 47.0199, -5.63723, 68.9482, -53.0604, 66.5413
2.748, 1, 23.4565, 47.0242, -5.6722, 69.0684, -53.053, 66.4474
2.752, 1, 23.51, 47.0286, -5.70714, 69.1884, -53.0457, 66.3536
2.755, 1, 23.5635, 47.0329, -5.74203, 69.3083, -53.0383, 66.26
2.76, 1, 23.6169, 47.0372, -5.77689, 69.4281, -53.031, 66.1664
2.764, 1, 23.6702, 47.0415, -5.81171, 69.5477, -53.0237, 66.073
2.768, 1, 23.7235, 47.0458, -5.84648, 69.6672, -53.0164, 65.9797
2.772, 1, 23.7767, 47.0501, -5.88122, 69.7865, -53.009, 65.8865
2.775, 1, 23.8298, 47.0544, -5.91591, 69.9057, -53.0018, 65.7933
2.78, 1, 23.8829, 47.0587, -5.95057, 70.0248, -52.9945, 65.7003
2.784, 1, 23.936, 47.063, -5.98518, 70.1437, -52.9872, 65.6074
2.788, 1, 23.9889, 47.0672, -6.01976, 70.2625, -52.9799, 65.5146
2.791, 1, 24.0418, 47.0715, -6.0543, 70.3811, -52.9726, 65.4219
2.796, 1, 24.0947, 47.0758, -6.08879, 70.4997, -52.9654, 65.3294
2.8, 1, 24.1475, 47.08, -6.12325, 70.6181, -52.9581, 65.2369
2.804, 1, 24.2002, 47.0843, -6.15767, 70.7363, -52.9509, 65.1445
2.808, 1, 24.2529, 47.0885, -6.19205, 70.8544, -52.9437, 65.0522
2.811, 1, 24.3055, 47.0928, -6.22639, 70.9724, -52.9364, 64.9601
2.816, 1, 24.358, 47.097, -6.26069, 71.0903, -52.9292, 64.868
2.82, 1, 24.4105, 47.1013, -6.29496, 71.208, -52.922, 64.7761
2.824, 1, 24.4629, 47.1055, -6.32918, 71.3256, -52.9148, 64.6842
2.828, 1, 24.5153, 47.1097, -6.36337, 71.443, -52.9076, 64.5925
2.831, 1, 24.5676, 47.114, -6.39751, 71.5603, -52.9005, 64.5008
2.836, 1, 24.6199, 47.1182, -6.43162, 71.6775, -52.8933, 64.4093
2.84, 1, 24.6721, 47.1224, -6.46569, 71.7946, -52.8861, 64.3178
2.844, 1, 24.7242, 47.1266, -6.49972, 71.9115, -52.879, 64.2265
2.847, 1, 24.7763, 47.1308, -6.53372, 72.0283, -52.8718, 64.1353
2.852, 1, 24.8283, 47.135, -6.56768, 72.145, -52.8647, 64.0441
2.856, 1, 24.8802, 47.1392, -6.60159, 72.2615, -52.8575, 63.9531
2.86, 1, 24.9321, 47.1434, -6.63547, 72.3779, -52.8504, 63.8622
2.864, 1, 24.984, 47.1476, -6.66932, 72.4942, -52.8433, 63.7713
2.867, 1, 25.0358, 47.1518, -6.70312, 72.6103, -52.8362, 63.6806
2.872, 1, 25.0875, 47.1559, -6.73689, 72.7263, -52.8291, 63.59
2.876, 1, 25.1392, 47.1601, -6.77062, 72.8422, -52.822, 63.4995
2.88, 1, 25.1908, 47.1643, -6.80431, 72.958, -52.8149, 63.409
2.883, 1, 25.2423, 47.1684, -6.83796, 73.0736, -52.8078, 63.3187
2.888, 1, 25.2938, 47.1726, -6.87158, 73.1891, -52.8007, 63.2285
2.892, 1, 25.3453, 47.1767, -6.90516, 73.3045, -52.7937, 63.1384
2.896, 1, 25.3967, 47.1809, -6.93871, 73.4197, -52.7866, 63.0484
2.9, 1, 25.448, 47.185, -6.97221, 73.5349, -52.7796, 62.9584
2.903, 1, 25.4993, 47.1892, -7.00568, 73.6499, -52.7725, 62.8686
2.908, 1, 25.5505, 47.1933, -7.03911, 73.7647, -52.7655, 62.7789
2.912, 1, 25.6016, 47.1974, -7.07251, 73.8795, -52.7585, 62.6892
2.916, 1, 25.6527, 47.2016, -7.10587, 73.9941, -52.7515, 62.5997
2.92, 1, 25.7038, 47.2057, -7.13919, 74.1086, -52.7445, 62.5103
2.923, 1, 25.7548, 47.2098, -7.17248, 74.2229, -52.7375, 62.4209
2.928, 1, 25.8057, 47.2139, -7.20573, 74.3372, -52.7305, 62.3317
2.932, 1, 25.8566, 47.218, -7.23894, 74.4513, -52.7235, 62.2426
2.936, 1, 25.9074, 47.2221, -7.27212, 74.5653, -52.7165, 62.1535
2.939, 1, 25.9582, 47.2262, -7.30526, 74.6791, -52.7095, 62.0646
2.944, 1, 26.0089, 47.2303, -7.33837, 74.7929, -52.7026, 61.9757
2.948, 1, 26.0596, 47.2344, -7.37144, 74.9065, -52.6956, 61.887
2.952, 1, 26.1102, 47.2385, -7.40447, 75.02, -52.6887, 61.7983
2.956, 1, 26.1607, 47.2426, -7.43747, 75.1334, -52.6817, 61.7098
2.959, 1, 26.2112, 47.2467, -7.47043, 75.2466, -52.6748, 61.6213
2.964, 1, 26.2617, 47.2507, -7.50336, 75.3598, -52.6679, 61.5329
2.968, 1, 26.3121, 47.2548, -7.53625, 75.4728, -52.6609, 61.4446
2.972, 1, 26.3624, 47.2589, -7.56911, 75.5857, -52.654, 61.3565
2.976, 1, 26.4127, 47.2629, -7.60193, 75.6984, -52.6471, 61.2684
2.98, 1, 26.4629, 47.267, -7.63472, 75.8111, -52.6402, 61.1804
2.984, 1, 26.5131, 47.271, -7.66747, 75.9236, -52.6333, 61.0925
2.988, 1, 26.5632, 47.2751, -7.70019, 76.036, -52.6265, 61.0047
2.992, 1, 26.6133, 47.2791, -7.73287, 76.1483, -52.6196, 60.917
2.995, 1, 26.6633, 47.2832, -7.76552, 76.2605, -52.6127, 60.8293
3, 1, 26.7133, 47.2872, -7.79813, 76.3725, -52.6059, 60.7418
3.004, 1, 26.7632, 47.2912, -7.83071, 76.4845, -52.599, 60.6544
3.008, 1, 26.813, 47.2952, -7.86326, 76.5963, -52.5922, 60.567
3.012, 1, 26.8628, 47.2993, -7.89577, 76.708, -52.5853, 60.4798
3.015, 1, 26.9126, 47.3033, -7.92825, 76.8195, -52.5785, 60.3926
3.02, 1, 26.9623, 47.3073, -7.96069, 76.931, -52.5717, 60.3055
3.024, 1, 27.0119, 47.3113, -7.9931, 77.0424, -52.5649, 60.2186
3.028, 1, 27.0615, 47.3153, -8.02547, 77.1536, -52.558, 60.1317
3.031, 1, 27.1111, 47.3193, -8.05781, 77.2647, -52.5512, 60.0449
3.036, 1, 27.1606, 47.3233, -8.09012, 77.3757, -52.5444, 59.9582
3.04, 1, 27.21, 47.3273, -8.12239, 77.4866, -52.5377, 59.8715
3.044, 1, 27.2594, 47.3313, -8.15463, 77.5974, -52.5309, 59.785
3.048, 1, 27.3087, 47.3353, -8.18684, 77.708, -52.5241, 59.6986
3.051, 1, 27.358, 47.3393, -8.21902, 77.8186, -52.5173, 59.6122
3.056, 1, 27.4073, 47.3432, -8.25116, 77.929, -52.5106, 59.526
3.06, 1, 27.4564, 47.3472, -8.28326, 78.0393, -52.5038, 59.4398
3.064, 1, 27.5056, 47.3512, -8.31534, 78.1495, -52.4971, 59.3537
3.068, 1, 27.5547, 47.3551, -8.34738, 78.2596, -52.4903, 59.2677
3.071, 1, 27.6037, 47.3591, -8.37939, 78.3696, -52.4836, 59.1818
3.076, 1, 27.6527, 47.363, -8.41136, 78.4794, -52.4769, 59.096
3.08, 1, 27.7016, 47.367, -8.44331, 78.5892, -52.4702, 59.0103
3.084, 1, 27.7505, 47.3709, -8.47522, 78.6988, -52.4634, 58.9246
3.087, 1, 27.7993, 47.3749, -8.5071, 78.8083, -52.4567, 58.8391
3.092, 1, 27.8481, 47.3788, -8.53894, 78.9178, -52.45, 58.7536
3.096, 1, 27.8969, 47.3828, -8.57076, 79.0271, -52.4434, 58.6682
3.1, 1, 27.9456, 47.3867, -8.60254, 79.1363, -52.4367, 58.5829
3.104, 1, 27.9942, 47.3906, -8.63429, 79.2453, -52.43, 58.4977
3.107, 1, 28.0428, 47.3945, -8.66601, 79.3543, -52.4233, 58.4126
3.112, 1, 28.0913, 47.3985, -8.69769, 79.4632, -52.4167, 58.3275
3.116, 1, 28.1398, 47.4024, -8.72935, 79.5719, -52.41, 58.2426
3.12, 1, 28.1883, 47.4063, -8.76097, 79.6806, -52.4033, 58.1577
3.124, 1, 28.2366, 47.4102, -8.79256, 79.7891, -52.3967, 58.0729
3.128, 1, 28.285, 47.4141, -8.82412, 79.8975, -52.3901, 57.9882
3.132, 1, 28.3333, 47.418, -8.85564, 80.0059, -52.3834, 57.9036
3.136, 1, 28.3815, 47.4219, -8.88714, 80.1141, -52.3768, 57.8191
3.14, 1, 28.4297, 47.4258, -8.9186, 80.2222, -52.3702, 57.7347
3.143, 1, 28.4779, 47.4297, -8.95004, 80.3302, -52.3636, 57.6503
3.148, 1, 28.526, 47.4335, -8.98144, 80.4381, -52.357, 57.566
3.152, 1, 28.5741, 47.4374, -9.01281, 80.5459, -52.3504, 57.4818
3.156, 1, 28.6221, 47.4413, -9.04415, 80.6535, -52.3438, 57.3977
3.16, 1, 28.67, 47.4452, -9.07546, 80.7611, -52.3372, 57.3137
3.163, 1, 28.7179, 47.449, -9.10674, 80.8686, -52.3306, 57.2297
3.168, 1, 28.7658, 47.4529, -9.13798, 80.9759, -52.324, 57.1459
3.172, 1, 28.8136, 47.4568, -9.1692, 81.0832, -52.3175, 57.0621
3.176, 1, 28.8614, 47.4606, -9.20039, 81.1903, -52.3109, 56.9784
3.179, 1, 28.9091, 47.4645, -9.23154, 81.2973, -52.3044, 56.8948
3.184, 1, 28.9568, 47.4683, -9.26266, 81.4043, -52.2978, 56.8112
3.188, 1, 29.0044, 47.4722, -9.29376, 81.5111, -52.2913, 56.7278
3.192, 1, 29.052, 47.476, -9.32482, 81.6179, -52.2847, 56.6444
3.196, 1, 29.0996, 47.4799, -9.35586, 81.7245, -52.2782, 56.5611
3.199, 1, 29.1471, 47.4837, -9.38686, 81.831, -52.2717, 56.4779
3.204, 1, 29.1945, 47.4875, -9.41784, 81.9374, -52.2652, 56.3948
3.208, 1, 29.2419, 47.4913, -9.44878, 82.0437, -52.2587, 56.3117
3.212, 1, 29.2893, 47.4952, -9.47969, 82.1499, -52.2522, 56.2288
3.216, 1, 29.3366, 47.499, -9.51058, 82.2561, -52.2457, 56.1459
3.22, 1, 29.3839, 47.5028, -9.54143, 82.3621, -52.2392, 56.0631
3.224, 1, 29.4311, 47.5066, -9.57226, 82.468, -52.2327, 55.9804
3.228, 1, 29.4783, 47.5104, -9.60305, 82.5738, -52.2262, 55.8977
3.232, 1, 29.5254, 47.5142, -9.63382, 82.6795, -52.2198, 55.8151
3.235, 1, 29.5725, 47.518, -9.66455, 82.7851, -52.2133, 55.7326
3.24, 1, 29.6195, 47.5218, -9.69526, 82.8906, -52.2068, 55.6502
3.244, 1, 29.6665, 47.5256, -9.72594, 82.996, -52.2004, 55.5679
3.248, 1, 29.7135, 47.5294, -9.75659, 83.1013, -52.1939, 55.4856
3.252, 1, 29.7604, 47.5332, -9.78721, 83.2065, -52.1875, 55.4035
3.255, 1, 29.8072, 47.537, -9.8178, 83.3116, -52.1811, 55.3214
3.26, 1, 29.854, 47.5408, -9.84836, 83.4166, -52.1746, 55.2393
3.264, 1, 29.9008, 47.5445, -9.87889, 83.5215, -52.1682, 55.1574
3.268, 1, 29.9475, 47.5483, -9.90939, 83.6263, -52.1618, 55.0755
3.272, 1, 29.9942, 47.5521, -9.93987, 83.731, -52.1554, 54.9938
3.276, 1, 30.0409, 47.5559, -9.97031, 83.8356, -52.149, 54.912
3.28, 1, 30.0875, 47.5596, -10.0007, 83.9401, -52.1426, 54.8304
3.284, 1, 30.134, 47.5634, -10.0311, 84.0445, -52.1362, 54.7488
3.288, 1, 30.1805, 47.5671, -10.0615, 84.1488, -52.1298, 54.6674
3.291, 1, 30.227, 47.5709, -10.0918, 84.253, -52.1234, 54.586
3.296, 1, 30.2734, 47.5746, -10.1221, 84.3572, -52.1171, 54.5046
3.3, 1, 30.3198, 47.5784, -10.1524, 84.4612, -52.1107, 54.4234
3.304, 1, 30.3661, 47.5821, -10.1826, 84.5651, -52.1043, 54.3422
3.308, 1, 30.4124, 47.5859, -10.2129, 84.6689, -52.098, 54.2611
3.312, 1, 30.4587, 47.5896, -10.243, 84.7727, -52.0916, 54.1801
3.316, 1, 30.5049, 47.5933, -10.2732, 84.8763, -52.0853, 54.0991
3.32, 1, 30.551, 47.597, -10.3033, 84.9798, -52.0789, 54.0182
3.324, 1, 30.5972, 47.6008, -10.3334, 85.0833, -52.0726, 53.9374
3.328, 1, 30.6432, 47.6045, -10.3635, 85.1866, -52.0663, 53.8567
3.332, 1, 30.6893, 47.6082, -10.3936, 85.2898, -52.0599, 53.7761
3.336, 1, 30.7353, 47.6119, -10.4236, 85.393, -52.0536, 53.6955
3.34, 1, 30.7812, 47.6156, -10.4536, 85.4961, -52.0473, 53.615
3.344, 1, 30.8271, 47.6193, -10.4836, 85.599, -52.041, 53.5345
3.347, 1, 30.873, 47.623, -10.5135, 85.7019, -52.0347, 53.4542
3.352, 1, 30.9188, 47.6267, -10.5434, 85.8047, -52.0284, 53.3739
3.356, 1, 30.9646, 47.6304, -10.5733, 85.9074, -52.0221, 53.2937
3.36, 1, 31.0103, 47.6341, -10.6032, 86.0099, -52.0159, 53.2136
3.364, 1, 31.056, 47.6378, -10.633, 86.1124, -52.0096, 53.1335
3.368, 1, 31.1017, 47.6415, -10.6628, 86.2149, -52.0033, 53.0535
3.372, 1, 31.1473, 47.6452, -10.6926, 86.3172, -51.9971, 52.9736
3.376, 1, 31.1929, 47.6489, -10.7223, 86.4194, -51.9908, 52.8937
3.38, 1, 31.2384, 47.6525, -10.7521, 86.5215, -51.9846, 52.814
3.383, 1, 31.2839, 47.6562, -10.7818, 86.6235, -51.9783, 52.7342
3.388, 1, 31.3294, 47.6599, -10.8114, 86.7255, -51.9721, 52.6546
3.392, 1, 31.3748, 47.6635, -10.8411, 86.8273, -51.9658, 52.5751
3.396, 1, 31.4202, 47.6672, -10.8707, 86.9291, -51.9596, 52.4956
3.4, 1, 31.4655, 47.6709, -10.9003, 87.0308, -51.9534, 52.4161
3.403, 1, 31.5108, 47.6745, -10.9299, 87.1323, -51.9472, 52.3368
3.408, 1, 31.5561, 47.6782, -10.9594, 87.2338, -51.9409, 52.2575
3.412, 1, 31.6013, 47.6818, -10.9889, 87.3352, -51.9347, 52.1783
3.416, 1, 31.6464, 47.6855, -11.0184, 87.4366, -51.9285, 52.0992
3.42, 1, 31.6916, 47.6891, -11.0479, 87.5378, -51.9223, 52.0201
3.424, 1, 31.7367, 47.6928, -11.0773, 87.6389, -51.9161, 51.9411
3.428, 1, 31.7817, 47.6964, -11.1067, 87.74, -51.91, 51.8622
3.432, 1, 31.8267, 47.7, -11.1361, 87.8409, -51.9038, 51.7833
3.436, 1, 31.8717, 47.7037, -11.1654, 87.9418, -51.8976, 51.7045
3.439, 1, 31.9166, 47.7073, -11.1948, 88.0425, -51.8914, 51.6258
3.444, 1, 31.9615, 47.7109, -11.2241, 88.1432, -51.8853, 51.5472
3.448, 1, 32.0064, 47.7145, -11.2534, 88.2438, -51.8791, 51.4686
3.452, 1, 32.0512, 47.7182, -11.2826, 88.3443, -51.873, 51.3901
3.456, 1, 32.096, 47.7218, -11.3118, 88.4448, -51.8668, 51.3116
3.46, 1, 32.1407, 47.7254, -11.341, 88.5451, -51.8607, 51.2332
3.464, 1, 32.1854, 47.729, -11.3702, 88.6454, -51.8545, 51.1549
3.468, 1, 32.2301, 47.7326, -11.3994, 88.7455, -51.8484, 51.0767
3.472, 1, 32.2747, 47.7362, -11.4285, 88.8456, -51.8423, 50.9985
3.476, 1, 32.3193, 47.7398, -11.4576, 88.9456, -51.8362, 50.9204
3.48, 1, 32.3638, 47.7434, -11.4867, 89.0455, -51.83, 50.8424
3.484, 1, 32.4083, 47.747, -11.5157, 89.1453, -51.8239, 50.7644
3.488, 1, 32.4528, 47.7506, -11.5448, 89.245, -51.8178, 50.6865
3.492, 1, 32.4972, 47.7542, -11.5738, 89.3447, -51.8117, 50.6086
3.495, 1, 32.5416, 47.7577, -11.6027, 89.4443, -51.8056, 50.5309
3.5, 1, 32.586, 47.7613, -11.6317, 89.5437, -51.7995, 50.4532
3.504, 1, 32.6303, 47.7649, -11.6606, 89.6431, -51.7934, 50.3755
3.508, 1, 32.6746, 47.7685, -11.6895, 89.7424, -51.7874, 50.2979
3.512, 1, 32.7188, 47.7721, -11.7184, 89.8417, -51.7813, 50.2204
3.516, 1, 32.763, 47.7756, -11.7473, 89.9408, -51.7752, 50.143
3.52, 1, 32.8072, 47.7792, -11.7761, 90.0399, -51.7692, 50.0656
3.524, 1, 32.8513, 47.7827, -11.8049, 90.1388, -51.7631, 49.9883
3.528, 1, 32.8954, 47.7863, -11.8337, 90.2377, -51.757, 49.911
3.531, 1, 32.9394, 47.7899, -11.8624, 90.3365, -51.751, 49.8339
3.536, 1, 32.9835, 47.7934, -11.8912, 90.4352, -51.745, 49.7567
3.54, 1, 33.0275, 47.797, -11.9199, 90.5339, -51.7389, 49.6797
3.544, 1, 33.0714, 47.8005, -11.9486, 90.6325, -51.7329, 49.6027
3.548, 1, 33.1153, 47.8041, -11.9772, 90.7309, -51.7269, 49.5258
3.552, 1, 33.1592, 47.8076, -12.0059, 90.8293, -51.7208, 49.4489
3.556, 1, 33.203, 47.8111, -12.0345, 90.9276, -51.7148, 49.3721
3.56, 1, 33.2468, 47.8147, -12.0631, 91.0259, -51.7088, 49.2954
3.564, 1, 33.2906, 47.8182, -12.0916, 91.124, -51.7028, 49.2187
3.568, 1, 33.3343, 47.8217, -12.1202, 91.2221, -51.6968, 49.1421
3.572, 1, 33.378, 47.8253, -12.1487, 91.3201, -51.6908, 49.0656
3.576, 1, 33.4216, 47.8288, -12.1772, 91.418, -51.6848, 48.9891
3.58, 1, 33.4652, 47.8323, -12.2057, 91.5158, -51.6788, 48.9127
3.584, 1, 33.5088, 47.8358, -12.2341, 91.6135, -51.6728, 48.8363
3.587, 1, 33.5524, 47.8393, -12.2625, 91.7112, -51.6668, 48.76
3.592, 1, 33.5959, 47.8429, -12.291, 91.8088, -51.6609, 48.6838
3.596, 1, 33.6394, 47.8464, -12.3193, 91.9063, -51.6549, 48.6077
3.6, 1, 33.6828, 47.8499, -12.3477, 92.0037, -51.6489, 48.5316
3.604, 1, 33.7262, 47.8534, -12.376, 92.1011, -51.643, 48.4555
3.608, 1, 33.7696, 47.8569, -12.4043, 92.1983, -51.637, 48.3795
3.612, 1, 33.8129, 47.8604, -12.4326, 92.2955, -51.6311, 48.3036
3.616, 1, 33.8562, 47.8639, -12.4609, 92.3926, -51.6251, 48.2278
3.62, 1, 33.8994, 47.8674, -12.4891, 92.4896, -51.6192, 48.152
3.624, 1, 33.9427, 47.8709, -12.5173, 92.5866, -51.6133, 48.0762
3.628, 1, 33.9859, 47.8743, -12.5455, 92.6835, -51.6073, 48.0006
3.632, 1, 34.029, 47.8778, -12.5737, 92.7802, -51.6014, 47.925
3.636, 1, 34.0721, 47.8813, -12.6019, 92.877, -51.5955, 47.8494
3.64, 1, 34.1152, 47.8848, -12.63, 92.9736, -51.5896, 47.7739
3.644, 1, 34.1583, 47.8883, -12.6581, 93.0702, -51.5836, 47.6985
3.648, 1, 34.2013, 47.8917, -12.6862, 93.1666, -51.5777, 47.6231
3.652, 1, 34.2443, 47.8952, -12.7142, 93.263, -51.5718, 47.5478
3.656, 1, 34.2872, 47.8987, -12.7423, 93.3594, -51.5659, 47.4726
3.66, 1, 34.3301, 47.9021, -12.7703, 93.4556, -51.5601, 47.3974
3.664, 1, 34.373, 47.9056, -12.7983, 93.5518, -51.5542, 47.3223
3.668, 1, 34.4159, 47.9091, -12.8262, 93.6479, -51.5483, 47.2472
3.672, 1, 34.4587, 47.9125, -12.8542, 93.7439, -51.5424, 47.1722
3.676, 1, 34.5015, 47.916, -12.8821, 93.8399, -51.5365, 47.0973
3.679, 1, 34.5442, 47.9194, -12.91, 93.9357, -51.5307, 47.0224
3.684, 1, 34.5869, 47.9229, -12.9379, 94.0315, -51.5248, 46.9475
3.688, 1, 34.6296, 47.9263, -12.9657, 94.1272, -51.5189, 46.8728
3.692, 1, 34.6722, 47.9298, -12.9936, 94.2229, -51.5131, 46.7981
3.696, 1, 34.7148, 47.9332, -13.0214, 94.3184, -51.5072, 46.7234
3.7, 1, 34.7574, 47.9366, -13.0492, 94.4139, -51.5014, 46.6488
3.704, 1, 34.8, 47.9401, -13.077, 94.5093, -51.4955, 46.5743
3.708, 1, 34.8425, 47.9435, -13.1047, 94.6047, -51.4897, 46.4998
3.712, 1, 34.885, 47.9469, -13.1324, 94.6999, -51.4839, 46.4254
3.716, 1, 34.9274, 47.9504, -13.1601, 94.7951, -51.478, 46.351
3.72, 1, 34.9697, 47.9538, -13.1878, 94.8903, -51.4722, 46.2767
3.724, 1, 35.0119, 47.9572, -13.2155, 94.9853, -51.4664, 46.2025
3.728, 1, 35.0538, 47.9607, -13.2432, 95.0802, -51.4606, 46.1283
3.732, 1, 35.0954, 47.9642, -13.2709, 95.1751, -51.4548, 46.0542
3.735, 1, 35.1367, 47.9677, -13.2985, 95.2698, -51.449, 45.9802
3.74, 1, 35.1776, 47.9712, -13.3262, 95.3643, -51.4433, 45.9064
3.744, 1, 35.218, 47.9748, -13.3538, 95.4585, -51.4375, 45.8328
3.748, 1, 35.2579, 47.9785, -13.3814, 95.5524, -51.4318, 45.7594
3.752, 1, 35.2971, 47.9822, -13.4089, 95.6459, -51.4262, 45.6864
3.756, 1, 35.3354, 47.986, -13.4364, 95.7386, -51.4206, 45.6139
3.76, 1, 35.3726, 47.99, -13.4637, 95.8305, -51.4151, 45.5421
3.764, 1, 35.4086, 47.9941, -13.4909, 95.9212, -51.4096, 45.4712
3.768, 1, 35.4431, 47.9982, -13.5177, 96.0103, -51.4044, 45.4015
3.772, 1, 35.4763, 48.0025, -13.5441, 96.0974, -51.3992, 45.3334
3.776, 1, 35.5081, 48.0066, -13.5699, 96.182, -51.3942, 45.2672
3.78, 1, 35.5386, 48.0107, -13.5947, 96.2636, -51.3894, 45.2033
3.784, 1, 35.568, 48.0146, -13.6185, 96.3417, -51.3848, 45.1422
3.788, 1, 35.596, 48.0182, -13.641, 96.4158, -51.3805, 45.0843
3.792, 1, 35.6227, 48.0216, -13.6621, 96.4854, -51.3764, 45.0298
3.796, 1, 35.6481, 48.0247, -13.6816, 96.5502, -51.3725, 44.9792
3.8, 1, 35.672, 48.0273, -13.6995, 96.6098, -51.3689, 44.9326
3.804, 1, 35.6946, 48.0296, -13.7156, 96.664, -51.3657, 44.8902
3.808, 1, 35.7159, 48.0315, -13.7298, 96.7127, -51.3627, 44.8522
3.812, 1, 35.7361, 48.0328, -13.7422, 96.7558, -51.36, 44.8185
3.816, 1, 35.7553, 48.0337, -13.7527, 96.7934, -51.3577, 44.7892
3.82, 1, 35.7733, 48.0342, -13.7614, 96.8258, -51.3555, 44.7639
3.824, 1, 35.7901, 48.0344, -13.7686, 96.8532, -51.3537, 44.7426
3.828, 1, 35.8054, 48.0342, -13.7743, 96.8762, -51.3521, 44.7247
3.832, 1, 35.8191, 48.0339, -13.7788, 96.895, -51.3508, 44.7101
3.836, 2, 35.8312, 48.0334, -13.7822, 96.9103, -51.3497, 44.6982
3.84, 2, 35.8417, 48.0329, -13.7848, 96.9225, -51.3488, 44.6888
3.844, 2, 35.8509, 48.0323, -13.7867, 96.932, -51.348, 44.6815
3.848, 2, 35.859, 48.0317, -13.788, 96.9393, -51.3474, 44.6758
3.852, 2, 35.8661, 48.0312, -13.7888, 96.9447, -51.3469, 44.6716
3.856, 2, 35.8723, 48.0306, -13.7893, 96.9487, -51.3466, 44.6686
3.86, 2, 35.8775, 48.0301, -13.7896, 96.9516, -51.3463, 44.6664
3.864, 2, 35.8818, 48.0297, -13.7897, 96.9536, -51.3461, 44.6648
3.868, 2, 35.8852, 48.0294, -13.7898, 96.955, -51.3459, 44.6638
3.872, 2, 35.8878, 48.0291, -13.7898, 96.956, -51.3458, 44.6631
3.876, 2, 35.8896, 48.0289, -13.7898, 96.9566, -51.3458, 44.6626
3.88, 2, 35.8908, 48.0288, -13.7898, 96.9571, -51.3457, 44.6622
3.884, 2, 35.8916, 48.0287, -13.7898, 96.9574, -51.3457, 44.662
3.888, 2, 35.8922, 48.0287, -13.7898, 96.9576, -51.3456, 44.6619
3.892, 2, 35.8926, 48.0286, -13.7898, 96.9577, -51.3456, 44.6618
3.896, 2, 35.8929, 48.0286, -13.7898, 96.9578, -51.3456, 44.6617
3.9, 2, 35.893, 48.0286, -13.7898, 96.9578, -51.3456, 44.6616
3.904, 2, 35.8932, 48.0286, -13.7898, 96.9579, -51.3456, 44.6616
3.908, 2, 35.8932, 48.0286, -13.7898, 96.9579, -51.3456, 44.6616
3.912, 2, 35.8933, 48.0286, -13.7898, 96.9579, -51.3456, 44.6616
3.916, 2, 35.8933, 48.0286, -13.7898, 96.958, -51.3456, 44.6616
3.92, 2, 35.8934, 48.0286, -13.7898, 96.958, -51.3456, 44.6616
3.924, 2, 35.8934, 48.0286, -13.7898, 96.958, -51.3456, 44.6615
3.928, 2, 35.8934, 48.0286, -13.7898, 96.958, -51.3456, 44.6615
3.932, 2, 35.8934, 48.0286, -13.7898, 96.958, -51.3456, 44.6615
3.936, 2, 35.8934, 48.0286, -13.7898, 96.958, -51.3456, 44.6615
3.94, 2, 35.8934, 48.0286, -13.7898, 96.958, -51.3456, 44.6615
3.944, 2, 35.8934, 48.0286, -13.7898, 96.958, -51.3456, 44.6615
3.948, 2, 35.8934, 48.0286, -13.7898, 96.958, -51.3456, 44.6615
3.952, 2, 35.8934, 48.0286, -13.7898, 96.958, -51.3456, 44.6615
3.956, 2, 35.8934, 48.0286, -13.7898, 96.958, -51.3456, 44.6615
3.96, 2, 35.8934, 48.0286, -13.7898, 96.958, -51.3456, 44.6615
3.964, 2, 35.8934, 48.0286, -13.7898, 96.958, -51.3456, 44.6615
3.968, 2, 35.8934, 48.0286, -13.7898, 96.958, -51.3456, 44.6615
3.972, 2, 35.8934, 48.0286, -13.7898, 96.958, -51.3456, 44.6615
3.976, 2, 35.8934, 48.0286, -13.7898, 96.958, -51.3456, 44.6615
3.98, 2, 35.8934, 48.0286, -13.7898, 96.958, -51.3456, 44.6615
3.984, 2, 35.8934, 48.0286, -13.7898, 96.958, -51.3456, 44.6615
3.988, 2, 35.8934, 48.0286, -13.7898, 96.958, -51.3456, 44.6615
3.992, 2, 35.8934, 48.0286, -13.7898, 96.958, -51.3456, 44.6615
3.996, 2, 35.8934, 48.0286, -13.7898, 96.958, -51.3456, 44.6615
3.999, 2, 35.8934, 48.0286, -13.7898, 96.958, -51.3456, 44.6615
4.004, 2, 35.8934, 48.0286, -13.7898, 96.958, -51.3456, 44.6615
4.008, 2, 35.8934, 48.0286, -13.7898, 96.958, -51.3456, 44.6615
4.012, 2, 35.8934, 48.0286, -13.7898, 96.958, -51.3456, 44.6615
4.016, 2, 35.8934, 48.0286, -13.7898, 96.958, -51.3456, 44.6615
4.02, 2, 35.8934, 48.0286, -13.7898, 96.958, -51.3456, 44.6615
4.024, 2, 35.8934, 48.0286, -13.7898, 96.958, -51.3456, 44.6615
4.028, 2, 35.8934, 48.0286, -13.7898, 96.958, -51.3456, 44.6615
4.032, 2, 35.8934, 48.0286, -13.7898, 96.958, -51.3456, 44.6615
4.036, 2, 35.8934, 48.0286, -13.7898, 96.958, -51.3456, 44.6615
4.04, 2, 35.8934, 48.0286, -13.7898, 96.958, -51.3456, 44.6615
4.044, 2, 35.8934, 48.0286, -13.7898, 96.958, -51.3456, 44.6615
4.048, 2, 35.8934, 48.0286, -13.7898, 96.958, -51.3456, 44.6615
4.052, 2, 35.8934, 48.0286, -13.7898, 96.958, -51.3456, 44.6615
4.056, 2, 35.8934, 48.0286, -13.7898, 96.958, -51.3456, 44.6615
4.06, 2, 35.8934, 48.0286, -13.7898, 96.958, -51.3456, 44.6615
4.064, 2, 35.8934, 48.0286, -13.7898, 96.958, -51.3456, 44.6615
4.068, 2, 35.8934, 48.0286, -13.7898, 96.958, -51.3456, 44.6615
4.072, 2, 35.8934, 48.0286, -13.7898, 96.958, -51.3456, 44.6615
4.076, 2, 35.8934, 48.0286, -13.7898, 96.958, -51.3456, 44.6615
4.08, 2, 35.8934, 48.0286, -13.7898, 96.958, -51.3456, 44.6615
4.084, 2, 35.8934, 48.0286, -13.7898, 96.958, -51.3456, 44.6615
4.088, 2, 35.8934, 48.0286, -13.7898, 96.958, -51.3456, 44.6615
4.092, 2, 35.8934, 48.0286, -13.7898, 96.958, -51.3456, 44.6615
4.096, 2, 35.8934, 48.0286, -13.7898, 96.958, -51.3456, 44.6615
4.1, 2, 35.8934, 48.0286, -13.7898, 96.958, -51.3456, 44.6615
4.104, 2, 35.8934, 48.0286, -13.7898, 96.958, -51.3456, 44.6615
4.108, 2, 35.8934, 48.0286, -13.7898, 96.958, -51.3456, 44.6615
4.112, 2, 35.8934, 48.0286, -13.7898, 96.958, -51.3456, 44.6615
4.116, 2, 35.8934, 48.0286, -13.7898, 96.958, -51.3456, 44.6615
4.12, 2, 35.8934, 48.0286, -13.7898, 96.958, -51.3456, 44.6615
4.124, 2, 35.8934, 48.0286, -13.7898, 96.958, -51.3456, 44.6615
4.128, 2, 35.8934, 48.0286, -13.7898, 96.958, -51.3456, 44.6615
4.132, 2, 35.8934, 48.0286, -13.7898, 96.958, -51.3456, 44.6615
4.136, 2, 35.8934, 48.0286, -13.7898, 96.958, -51.3456, 44.6615
4.14, 2, 35.8934, 48.0286, -13.7898, 96.958, -51.3456, 44.6615
4.144, 2, 35.8934, 48.0286, -13.7898, 96.958, -51.3456, 44.6615
4.148, 2, 35.8934, 48.0286, -13.7898, 96.958, -51.3456, 44.6615
4.152, 2, 35.8934, 48.0286, -13.7898, 96.958, -51.3456, 44.6615
4.156, 2, 35.8934, 48.0286, -13.7898, 96.958, -51.3456, 44.6615
4.16, 2, 35.8934, 48.0286, -13.7898, 96.958, -51.3456, 44.6615
4.164, 2, 35.8934, 48.0286, -13.7898, 96.958, -51.3456, 44.6615
4.168, 2, 35.8934, 48.0286, -13.7898, 96.958, -51.3456, 44.6615
4.172, 2, 35.8934, 48.0286, -13.7898, 96.958, -51.3456, 44.6615
4.176, 2, 35.8934, 48.0286, -13.7898, 96.958, -51.3456, 44.6615
4.18, 2, 35.8934, 48.0286, -13.7898, 96.958, -51.3456, 44.6615
4.184, 2, 35.8934, 48.0286, -13.7898, 96.958, -51.3456, 44.6615
4.188, 2, 35.8934, 48.0286, -13.7898, 96.958, -51.3456, 44.6615
4.192, 2, 35.8934, 48.0286, -13.7898, 96.958, -51.3456, 44.6615
4.196, 2, 35.8934, 48.0286, -13.7898, 96.958, -51.3456, 44.6615
4.2, 2, 35.8934, 48.0286, -13.7898, 96.958, -51.3456, 44.6615
4.204, 2, 35.8934, 48.0286, -13.7898, 96.958, -51.3456, 44.6615
4.208, 2, 35.8934, 48.0286, -13.7898, 96.958, -51.3456, 44.6615
4.212, 2, 35.8934, 48.0286, -13.7898, 96.958, -51.3456, 44.6615
4.216, 2, 35.8934, 48.0286, -13.7898, 96.958, -51.3456, 44.6615
4.22, 2, 35.8934, 48.0286, -13.7898, 96.958, -51.3456, 44.6615
4.224, 2, 35.8934, 48.0286, -13.7898, 96.958, -51.3456, 44.6615
4.228, 2, 35.8934, 48.0286, -13.7898, 96.958, -51.3456, 44.6615
4.232, 2, 35.8934, 48.0286, -13.7898, 96.958, -51.3456, 44.6615
4.236, 2, 35.8934, 48.0286, -13.7898, 96.958, -51.3456, 44.6615
4.24, 2, 35.8934, 48.0286, -13.7898, 96.958, -51.3456, 44.6615
4.244, 2, 35.8934, 48.0286, -13.7898, 96.958, -51.3456, 44.6615
4.248, 2, 35.8934, 48.0286, -13.7898, 96.958, -51.3456, 44.6615
4.252, 2, 35.8934, 48.0286, -13.7898, 96.958, -51.3456, 44.6615
4.256, 2, 35.8934, 48.0286, -13.7898, 96.958, -51.3456, 44.6615
4.26, 2, 35.8934, 48.0286, -13.7898, 96.958, -51.3456, 44.6615
4.264, 2, 35.8934, 48.0286, -13.7898, 96.958, -51.3456, 44.6615
4.268, 2, 35.8934, 48.0286, -13.7898, 96.958, -51.3456, 44.6615
4.272, 2, 35.8934, 48.0286, -13.7898, 96.958, -51.3456, 44.6615
4.276, 2, 35.8934, 48.0286, -13.7898, 96.958, -51.3456, 44.6615
4.28, 2, 35.8934, 48.0286, -13.7898, 96.958, -51.3456, 44.6615
4.284, 2, 35.8934, 48.0286, -13.7898, 96.958, -51.3456, 44.6615
4.288, 2, 35.8934, 48.0286, -13.7898, 96.958, -51.3456, 44.6615
4.292, 2, 35.8934, 48.0286, -13.7898, 96.958, -51.3456, 44.6615
4.296, 2, 35.8934, 48.0286, -13.7898, 96.958, -51.3456, 44.6615
4.3, 2, 35.8934, 48.0286, -13.7898, 96.958, -51.3456, 44.6615
4.304, 2, 35.8934, 48.0286, -13.7898, 96.958, -51.3456, 44.6615
4.308, 2, 35.8934, 48.0286, -13.7898, 96.958, -51.3456, 44.6615
4.312, 2, 35.8934, 48.0286, -13.7898, 96.958, -51.3456, 44.6615
4.316, 2, 35.8934, 48.0286, -13.7898, 96.958, -51.3456, 44.6615
4.32, 2, 35.8934, 48.0286, -13.7898, 96.958, -51.3456, 44.6615
4.324, 2, 35.8934, 48.0286, -13.7898, 96.958, -51.3456, 44.6615
4.328, 2, 35.8934, 48.0286, -13.7898, 96.958, -51.3456, 44.6615
4.332, 2, 35.8934, 48.0286, -13.7898, 96.958, -51.3456, 44.6615
4.336, 2, 35.8934, 48.0286, -13.7898, 96.958, -51.3456, 44.6615
4.34, 2, 35.8934, 48.0286, -13.7898, 96.958, -51.3456, 44.6615
4.344, 2, 35.8934, 48.0286, -13.7898, 96.958, -51.3456, 44.6615
4.348, 2, 35.8934, 48.0286, -13.7898, 96.958, -51.3456, 44.6615
4.352, 2, 35.8934, 48.0286, -13.7898, 96.958, -51.3456, 44.6615
4.356, 2, 35.8934, 48.0286, -13.7898, 96.958, -51.3456, 44.6615
4.36, 2, 35.8934, 48.0286, -13.7898, 96.958, -51.3456, 44.6615
4.364, 2, 35.8934, 48.0286, -13.7898, 96.958, -51.3456, 44.6615
4.368, 2, 35.8934, 48.0286, -13.7898, 96.958, -51.3456, 44.6615
4.372, 2, 35.8934, 48.0286, -13.7898, 96.958, -51.3456, 44.6615
4.376, 2, 35.8934, 48.0286, -13.7898, 96.958, -51.3456, 44.6615
4.38, 2, 35.8934, 48.0286, -13.7898, 96.958, -51.3456, 44.6615
4.384, 2, 35.8934, 48.0286, -13.7898, 96.958, -51.3456, 44.6615
4.388, 2, 35.8934, 48.0286, -13.7898, 96.958, -51.3456, 44.6615
4.392, 2, 35.8934, 48.0286, -13.7898, 96.958, -51.3456, 44.6615
4.396, 2, 35.8934, 48.0286, -13.7898, 96.958, -51.3456, 44.6615
4.4, 2, 35.8934, 48.0286, -13.7898, 96.958, -51.3456, 44.6615
4.404, 2, 35.8934, 48.0286, -13.7898, 96.958, -51.3456, 44.6615
4.408, 2, 35.8934, 48.0286, -13.7898, 96.958, -51.3456, 44.6615
4.412, 2, 35.8934, 48.0286, -13.7898, 96.958, -51.3456, 44.6615
4.416, 2, 35.8934, 48.0286, -13.7898, 96.958, -51.3456, 44.6615
4.42, 2, 35.8934, 48.0286, -13.7898, 96.958, -51.3456, 44.6615
4.424, 2, 35.8934, 48.0286, -13.7898, 96.958, -51.3456, 44.6615
4.428, 2, 35.8934, 48.0286, -13.7898, 96.958, -51.3456, 44.6615
4.432, 2, 35.8934, 48.0286, -13.7898, 96.958, -51.3456, 44.6615
4.436, 2, 35.8934, 48.0286, -13.7898, 96.958, -51.3456, 44.6615
4.44, 2, 35.8934, 48.0286, -13.7898, 96.958, -51.3456, 44.6615
4.444, 2, 35.8934, 48.0286, -13.7898, 96.958, -51.3456, 44.6615
4.448, 2, 35.8934, 48.0286, -13.7898, 96.958, -51.3456, 44.6615
4.452, 2, 35.8934, 48.0286, -13.7898, 96.958, -51.3456, 44.6615
4.456, 2, 35.8934, 48.0286, -13.7898, 96.958, -51.3456, 44.6615
4.46, 2, 35.8934, 48.0286, -13.7898, 96.958, -51.3456, 44.6615
4.464, 2, 35.8934, 48.0286, -13.7898, 96.958, -51.3456, 44.6615
4.468, 2, 35.8934, 48.0286, -13.7898, 96.958, -51.3456, 44.6615
4.472, 2, 35.8934, 48.0286, -13.7898, 96.958, -51.3456, 44.6615
4.476, 2, 35.8934, 48.0286, -13.7898, 96.958, -51.3456, 44.6615
4.48, 2, 35.8934, 48.0286, -13.7898, 96.958, -51.3456, 44.6615
4.484, 2, 35.8934, 48.0286, -13.7898, 96.958, -51.3456, 44.6615
4.488, 2, 35.8934, 48.0286, -13.7898, 96.958, -51.3456, 44.6615
4.492, 2, 35.8934, 48.0286, -13.7898, 96.958, -51.3456, 44.6615
4.496, 2, 35.8934, 48.0286, -13.7898, 96.958, -51.3456, 44.6615
4.5, 2, 35.8934, 48.0286, -13.7898, 96.958, -51.3456, 44.6615
4.504, 2, 35.8934, 48.0286, -13.7898, 96.958, -51.3456, 44.6615
4.508, 2, 35.8934, 48.0286, -13.7898, 96.958, -51.3456, 44.6615
4.512, 2, 35.8934, 48.0286, -13.7898, 96.958, -51.3456, 44.6615
4.516, 2, 35.8934, 48.0286, -13.7898, 96.958, -51.3456, 44.6615
4.52, 2, 35.8934, 48.0286, -13.7898, 96.958, -51.3456, 44.6615
4.524, 2, 35.8934, 48.0286, -13.7898, 96.958, -51.3456, 44.6615
4.528, 2, 35.8934, 48.0286, -13.7898, 96.958, -51.3456, 44.6615
4.532, 2, 35.8934, 48.0286, -13.7898, 96.958, -51.3456, 44.6615
4.536, 2, 35.8934, 48.0286, -13.7898, 96.958, -51.3456, 44.6615
4.54, 2, 35.8934, 48.0286, -13.7898, 96.958, -51.3456, 44.6615
4.544, 2, 35.8934, 48.0286, -13.7898, 96.958, -51.3456, 44.6615
4.548, 2, 35.8934, 48.0286, -13.7898, 96.958, -51.3456, 44.6615
4.552, 2, 35.8934, 48.0286, -13.7898, 96.958, -51.3456, 44.6615
4.556, 2, 35.8934, 48.0286, -13.7898, 96.958, -51.3456, 44.6615
4.56, 2, 35.8934, 48.0286, -13.7898, 96.958, -51.3456, 44.6615
4.564, 2, 35.8934, 48.0286, -13.7898, 96.958, -51.3456, 44.6615
4.568, 2, 35.8934, 48.0286, -13.7898, 96.958, -51.3456, 44.6615
4.572, 2, 35.8934, 48.0286, -13.7898, 96.958, -51.3456, 44.6615
4.576, 2, 35.8934, 48.0286, -13.7898, 96.958, -51.3456, 44.6615
4.58, 2, 35.8934, 48.0286, -13.7898, 96.958, -51.3456, 44.6615
4.584, 2, 35.8934, 48.0286, -13.7898, 96.958, -51.3456, 44.6615
4.588, 2, 35.8934, 48.0286, -13.7898, 96.958, -51.3456, 44.6615
4.592, 2, 35.8934, 48.0286, -13.7898, 96.958, -51.3456, 44.6615
4.596, 2, 35.8934, 48.0286, -13.7898, 96.958, -51.3456, 44.6615
4.6, 2, 35.8934, 48.0286, -13.7898, 96.958, -51.3456, 44.6615
4.604, 2, 35.8934, 48.0286, -13.7898, 96.958, -51.3456, 44.6615
4.608, 2, 35.8934, 48.0286, -13.7898, 96.958, -51.3456, 44.6615
4.612, 2, 35.8934, 48.0286, -13.7898, 96.958, -51.3456, 44.6615
4.616, 2, 35.8934, 48.0286, -13.7898, 96.958, -51.3456, 44.6615
4.62, 2, 35.8934, 48.0286, -13.7898, 96.958, -51.3456, 44.6615
4.624, 2, 35.8934, 48.0286, -13.7898, 96.958, -51.3456, 44.6615
4.628, 2, 35.8934, 48.0286, -13.7898, 96.958, -51.3456, 44.6615
4.632, 2, 35.8934, 48.0286, -13.7898, 96.958, -51.3456, 44.6615
4.636, 2, 35.8934, 48.0286, -13.7898, 96.958, -51.3456, 44.6615
4.64, 2, 35.8934, 48.0286, -13.7898, 96.958, -51.3456, 44.6615
4.644, 2, 35.8934, 48.0286, -13.7898, 96.958, -51.3456, 44.6615
4.648, 2, 35.8934, 48.0286, -13.7898, 96.958, -51.3456, 44.6615
4.652, 2, 35.8934, 48.0286, -13.7898, 96.958, -51.3456, 44.6615
4.656, 2, 35.8934, 48.0286, -13.7898, 96.958, -51.3456, 44.6615
4.66, 2, 35.8934, 48.0286, -13.7898, 96.958, -51.3456, 44.6615
4.664, 2, 35.8934, 48.0286, -13.7898, 96.958, -51.3456, 44.6615
4.668, 2, 35.8934, 48.0286, -13.7898, 96.958, -51.3456, 44.6615
4.672, 2, 35.8934, 48.0286, -13.7898, 96.958, -51.3456, 44.6615
4.676, 2, 35.8934, 48.0286, -13.7898, 96.958, -51.3456, 44.6615
4.68, 2, 35.8934, 48.0286, -13.7898, 96.958, -51.3456, 44.6615
4.684, 2, 35.8934, 48.0286, -13.7898, 96.958, -51.3456, 44.6615
4.688, 2, 35.8934, 48.0286, -13.7898, 96.958, -51.3456, 44.6615
4.692, 2, 35.8934, 48.0286, -13.7898, 96.958, -51.3456, 44.6615
4.696, 2, 35.8934, 48.0286, -13.7898, 96.958, -51.3456, 44.6615
4.7, 2, 35.8934, 48.0286, -13.7898, 96.958, -51.3456, 44.6615
4.704, 2, 35.8934, 48.0286, -13.7898, 96.958, -51.3456, 44.6615
4.708, 2, 35.8934, 48.0286, -13.7898, 96.958, -51.3456, 44.6615
4.712, 2, 35.8934, 48.0286, -13.7898, 96.958, -51.3456, 44.6615
4.716, 2, 35.8934, 48.0286, -13.7898, 96.958, -51.3456, 44.6615
4.72, 2, 35.8934, 48.0286, -13.7898, 96.958, -51.3456, 44.6615
4.724, 2, 35.8934, 48.0286, -13.7898, 96.958, -51.3456, 44.6615
4.728, 2, 35.8934, 48.0286, -13.7898, 96.958, -51.3456, 44.6615
4.732, 2, 35.8934, 48.0286, -13.7898, 96.958, -51.3456, 44.6615
4.736, 2, 35.8934, 48.0286, -13.7898, 96.958, -51.3456, 44.6615
4.74, 2, 35.8934, 48.0286, -13.7898, 96.958, -51.3456, 44.6615
4.744, 2, 35.8934, 48.0286, -13.7898, 96.958, -51.3456, 44.6615
4.748, 2, 35.8934, 48.0286, -13.7898, 96.958, -51.3456, 44.6615
4.752, 2, 35.8934, 48.0286, -13.7898, 96.958, -51.3456, 44.6615
4.756, 2, 35.8934, 48.0286, -13.7898, 96.958, -51.3456, 44.6615
4.76, 2, 35.8934, 48.0286, -13.7898, 96.958, -51.3456, 44.6615
4.764, 2, 35.8934, 48.0286, -13.7898, 96.958, -51.3456, 44.6615
4.768, 2, 35.8934, 48.0286, -13.7898, 96.958, -51.3456, 44.6615
4.772, 2, 35.8934, 48.0286, -13.7898, 96.958, -51.3456, 44.6615
4.776, 2, 35.8934, 48.0286, -13.7898, 96.958, -51.3456, 44.6615
4.78, 2, 35.8934, 48.0286, -13.7898, 96.958, -51.3456, 44.6615
4.784, 2, 35.8934, 48.0286, -13.7898, 96.958, -51.3456, 44.6615
4.788, 2, 35.8934, 48.0286, -13.7898, 96.958, -51.3456, 44.6615
4.792, 2, 35.8934, 48.0286, -13.7898, 96.958, -51.3456, 44.6615
4.796, 2, 35.8934, 48.0286, -13.7898, 96.958, -51.3456, 44.6615
4.8, 2, 35.8934, 48.0286, -13.7898, 96.958, -51.3456, 44.6615
4.804, 2, 35.8934, 48.0286, -13.7898, 96.958, -51.3456, 44.6615
4.808, 2, 35.8934, 48.0286, -13.7898, 96.958, -51.3456, 44.6615
4.812, 2, 35.8934, 48.0286, -13.7898, 96.958, -51.3456, 44.6615
4.816, 2, 35.8934, 48.0286, -13.7898, 96.958, -51.3456, 44.6615
4.82, 2, 35.8934, 48.0286, -13.7898, 96.958, -51.3456, 44.6615
4.824, 2, 35.8934, 48.0286, -13.7898, 96.958, -51.3456, 44.6615
4.828, 2, 35.8934, 48.0286, -13.7898, 96.958, -51.3456, 44.6615
4.832, 2, 35.8934, 48.0286, -13.7898, 96.958, -51.3456, 44.6615
4.836, 3, 35.8934, 48.0286, -13.7898, 96.958, -51.3456, 44.6615
4.84, 3, 35.8934, 48.0286, -13.7898, 96.958, -51.3456, 44.6615
4.844, 3, 35.8934, 48.0286, -13.7898, 96.958, -51.3456, 44.6615
4.848, 3, 35.8934, 48.0286, -13.7898, 96.958, -51.3456, 44.6615
4.852, 3, 35.8934, 48.0286, -13.7898, 96.958, -51.3456, 44.6615
4.856, 3, 35.8934, 48.0286, -13.7898, 96.958, -51.3456, 44.6615
4.86, 3, 35.8934, 48.0286, -13.7898, 96.958, -51.3456, 44.6615
4.864, 3, 35.8934, 48.0286, -13.7898, 96.958, -51.3456, 44.6615
4.868, 3, 35.8934, 48.0286, -13.7898, 96.958, -51.3456, 44.6615
4.872, 4, 35.8934, 48.0286, -13.7898, 96.958, -51.3456, 44.6615
4.876, 4, 35.8934, 48.0286, -13.7898, 96.958, -51.3456, 44.6615
4.88, 4, 35.8934, 48.0286, -13.7898, 96.958, -51.3456, 44.6615
4.884, 4, 35.8934, 48.0286, -13.7898, 96.958, -51.3456, 44.6615
4.888, 4, 35.8934, 48.0286, -13.7898, 96.958, -51.3456, 44.6615
4.892, 4, 35.8934, 48.0286, -13.7898, 96.958, -51.3456, 44.6615
4.896, 4, 35.8934, 48.0286, -13.7898, 96.958, -51.3456, 44.6615
4.9, 4, 35.8934, 48.0286, -13.7898, 96.958, -51.3456, 44.6615
4.904, 4, 35.8934, 48.0286, -13.7898, 96.958, -51.3456, 44.6615
4.908, 4, 35.8934, 48.0286, -13.7898, 96.958, -51.3456, 44.6615
4.912, 4, 35.8934, 48.0286, -13.7898, 96.958, -51.3456, 44.6615
4.916, 4, 35.8934, 48.0286, -13.7898, 96.958, -51.3456, 44.6615
4.92, 4, 35.8934, 48.0286, -13.7898, 96.958, -51.3456, 44.6615
4.924, 4, 35.8934, 48.0286, -13.7898, 96.958, -51.3456, 44.6615
4.928, 4, 35.8934, 48.0286, -13.7898, 96.958, -51.3456, 44.6615
4.932, 4, 35.8934, 48.0286, -13.7898, 96.958, -51.3456, 44.6615
4.936, 4, 35.8934, 48.0286, -13.7898, 96.958, -51.3456, 44.6615
4.94, 4, 35.8934, 48.0286, -13.7898, 96.958, -51.3456, 44.6615
4.944, 4, 35.8934, 48.0286, -13.7898, 96.958, -51.3456, 44.6615
4.948, 4, 35.8934, 48.0286, -13.7898, 96.958, -51.3456, 44.6615
4.952, 4, 35.8934, 48.0286, -13.7898, 96.958, -51.3456, 44.6615
4.956, 4, 35.8934, 48.0286, -13.7898, 96.958, -51.3456, 44.6615
4.96, 4, 35.8934, 48.0286, -13.7898, 96.958, -51.3456, 44.6615
4.964, 4, 35.8934, 48.0286, -13.7898, 96.958, -51.3456, 44.6615
4.968, 4, 35.8934, 48.0286, -13.7898, 96.958, -51.3456, 44.6615
4.972, 5, 35.8934, 48.0286, -13.7898, 96.958, -51.3456, 44.6615
4.976, 5, 35.8934, 48.0286, -13.7898, 96.958, -51.3456, 44.6615
4.98, 5, 35.8934, 48.0286, -13.7898, 96.958, -51.3456, 44.6615
4.984, 5, 35.8934, 48.0286, -13.7898, 96.958, -51.3456, 44.6615
4.988, 5, 35.8934, 48.0286, -13.7898, 96.958, -51.3456, 44.6615
4.992, 5, 35.8934, 48.0286, -13.7898, 96.958, -51.3456, 44.6615
4.996, 5, 35.8934, 48.0286, -13.7898, 96.958, -51.3456, 44.6615
5, 5, 35.8934, 48.0286, -13.7898, 96.958, -51.3456, 44.6615
5.004, 5, 35.8934, 48.0286, -13.7898, 96.958, -51.3456, 44.6615
5.008, 5, 35.8934, 48.0286, -13.7898, 96.958, -51.3456, 44.6615
5.012, 5, 35.8934, 48.0288, -13.7898, 96.958, -51.3456, 44.6615
5.016, 5, 35.8932, 48.0291, -13.7898, 96.958, -51.3457, 44.6615
5.02, 5, 35.893, 48.0299, -13.7899, 96.958, -51.3458, 44.6614
5.024, 5, 35.8927, 48.0312, -13.79, 96.9581, -51.3462, 44.6611
5.028, 5, 35.8921, 48.033, -13.7902, 96.9582, -51.3469, 44.6606
5.032, 5, 35.8914, 48.0357, -13.7905, 96.9584, -51.3483, 44.6596
5.036, 5, 35.8905, 48.0392, -13.791, 96.9588, -51.3507, 44.6579
5.04, 5, 35.8893, 48.0437, -13.7919, 96.9593, -51.3546, 44.6552
5.044, 5, 35.888, 48.0495, -13.7931, 96.9602, -51.3606, 44.651
5.048, 5, 35.8864, 48.0567, -13.7947, 96.9614, -51.3693, 44.6449
5.052, 5, 35.8846, 48.0656, -13.797, 96.9632, -51.3814, 44.6364
5.056, 5, 35.8826, 48.0764, -13.8001, 96.9655, -51.398, 44.6248
5.06, 5, 35.8804, 48.0894, -13.8041, 96.9685, -51.42, 44.6094
5.064, 5, 35.878, 48.1047, -13.8091, 96.9724, -51.4484, 44.5895
5.068, 5, 35.8754, 48.1225, -13.8154, 96.9773, -51.4843, 44.5644
5.072, 5, 35.8726, 48.1428, -13.8231, 96.9833, -51.529, 44.5333
5.076, 5, 35.8697, 48.1659, -13.8324, 96.9904, -51.5834, 44.4955
5.08, 5, 35.8665, 48.192, -13.8433, 96.9989, -51.6487, 44.4502
5.084, 5, 35.8631, 48.2213, -13.8561, 97.0088, -51.7257, 44.3968
5.088, 5, 35.8594, 48.2542, -13.8709, 97.02, -51.8154, 44.3348
5.092, 5, 35.8555, 48.2906, -13.8877, 97.0326, -51.9186, 44.2637
5.096, 5, 35.8512, 48.331, -13.9066, 97.0467, -52.0359, 44.1831
5.1, 5, 35.8465, 48.3754, -13.9277, 97.0621, -52.1681, 44.0926
5.104, 5, 35.8414, 48.4239, -13.9509, 97.0788, -52.3155, 43.992
5.108, 5, 35.8359, 48.4768, -13.9764, 97.0967, -52.4786, 43.8811
5.112, 5, 35.8299, 48.5342, -14.0039, 97.1156, -52.6577, 43.7598
5.116, 5, 35.8232, 48.5962, -14.0337, 97.1354, -52.853, 43.6281
5.12, 5, 35.816, 48.663, -14.0654, 97.1559, -53.0649, 43.486
5.124, 5, 35.808, 48.7345, -14.0991, 97.1769, -53.2933, 43.3335
5.128, 5, 35.7993, 48.811, -14.1348, 97.1982, -53.5385, 43.1707
5.132, 5, 35.7897, 48.8923, -14.1721, 97.2195, -53.8006, 42.9977
5.136, 5, 35.7793, 48.9784, -14.2112, 97.2406, -54.0797, 42.8146
5.14, 5, 35.768, 49.0694, -14.2517, 97.2612, -54.376, 42.6214
5.144, 5, 35.7558, 49.1648, -14.2936, 97.2811, -54.6894, 42.4184
5.148, 5, 35.7427, 49.2646, -14.3368, 97.2998, -55.0202, 42.2056
5.152, 5, 35.7288, 49.3683, -14.381, 97.3171, -55.3681, 41.9832
5.156, 5, 35.714, 49.4756, -14.426, 97.3328, -55.7332, 41.7517
5.16, 5, 35.6985, 49.5862, -14.4715, 97.3465, -56.1149, 41.5112
5.164, 5, 35.6821, 49.6997, -14.5174, 97.3578, -56.5129, 41.2624
5.168, 5, 35.665, 49.8159, -14.5634, 97.3665, -56.9263, 41.0059
5.172, 5, 35.6471, 49.9343, -14.609, 97.3724, -57.3542, 40.7423
5.176, 5, 35.6285, 50.0545, -14.6541, 97.3751, -57.7955, 40.4725
5.18, 5, 35.6093, 50.1759, -14.6982, 97.3745, -58.2487, 40.1975
5.184, 5, 35.5895, 50.2978, -14.7412, 97.3704, -58.7122, 39.9183
5.188, 5, 35.5691, 50.4198, -14.7827, 97.3626, -59.1842, 39.636
5.192, 5, 35.5483, 50.5416, -14.8224, 97.3512, -59.6626, 39.3519
5.196, 5, 35.527, 50.663, -14.8601, 97.3362, -60.1453, 39.0673
5.2, 5, 35.5053, 50.784, -14.8956, 97.3175, -60.63, 38.7835
5.204, 5, 35.4832, 50.9044, -14.9287, 97.2954, -61.1145, 38.5018
5.208, 5, 35.4608, 51.024, -14.9592, 97.2699, -61.5965, 38.2234
5.212, 5, 35.4383, 51.1423, -14.9871, 97.2412, -62.0739, 37.9493
5.216, 5, 35.4156, 51.259, -15.0123, 97.2098, -62.5448, 37.6806
5.22, 5, 35.3927, 51.3736, -15.0348, 97.1757, -63.0075, 37.4183
5.224, 5, 35.3697, 51.4856, -15.0545, 97.1394, -63.4604, 37.163
5.228, 5, 35.3464, 51.5947, -15.0716, 97.1011, -63.9021, 36.9153
5.232, 5, 35.3228, 51.7006, -15.0861, 97.0613, -64.3313, 36.676
5.236, 5, 35.2989, 51.8032, -15.0982, 97.0201, -64.7471, 36.4453
5.24, 5, 35.2748, 51.9021, -15.108, 96.978, -65.1486, 36.2236
5.244, 5, 35.2508, 51.997, -15.1156, 96.9353, -65.5351, 36.0111
5.248, 5, 35.2269, 52.0878, -15.1213, 96.8924, -65.9062, 35.808
5.252, 5, 35.2035, 52.1741, -15.1251, 96.8494, -66.2614, 35.6144
5.256, 5, 35.1806, 52.256, -15.1273, 96.8067, -66.6004, 35.4303
5.26, 5, 35.1584, 52.3333, -15.1281, 96.7647, -66.9228, 35.2558
5.264, 5, 35.137, 52.4061, -15.1277, 96.7235, -67.2284, 35.091
5.268, 5, 35.1164, 52.4744, -15.1262, 96.6834, -67.5169, 34.9358
5.272, 5, 35.0967, 52.5383, -15.1238, 96.6447, -67.7881, 34.7904
5.276, 5, 35.0778, 52.598, -15.1208, 96.6076, -68.0419, 34.6546
5.28, 5, 35.0597, 52.6537, -15.1172, 96.5723, -68.2782, 34.5285
5.284, 5, 35.0426, 52.7054, -15.1134, 96.5389, -68.497, 34.412
5.288, 5, 35.0263, 52.7534, -15.1093, 96.5076, -68.6984, 34.3049
5.292, 5, 35.0109, 52.7977, -15.1051, 96.4784, -68.8827, 34.2071
5.296, 5, 34.9965, 52.8384, -15.101, 96.4515, -69.0502, 34.1183
5.3, 5, 34.983, 52.8755, -15.0969, 96.4269, -69.2015, 34.0383
5.304, 5, 34.9705, 52.9094, -15.0931, 96.4046, -69.337, 33.9667
5.308, 5, 34.9589, 52.94, -15.0895, 96.3845, -69.4574, 33.9032
5.312, 5, 34.9481, 52.9678, -15.0862, 96.3667, -69.5634, 33.8473
5.316, 5, 34.9382, 52.9929, -15.0832, 96.351, -69.6559, 33.7986
5.32, 5, 34.929, 53.0154, -15.0806, 96.3374, -69.7357, 33.7567
5.324, 5, 34.9205, 53.0356, -15.0784, 96.3257, -69.8038, 33.7209
5.328, 5, 34.9128, 53.0535, -15.0764, 96.3157, -69.8613, 33.6907
5.332, 5, 34.9059, 53.0693, -15.0749, 96.3074, -69.9092, 33.6655
5.336, 5, 34.8997, 53.0832, -15.0736, 96.3005, -69.9486, 33.6448
5.34, 5, 34.8942, 53.0954, -15.0725, 96.2949, -69.9806, 33.6281
5.344, 6, 34.8893, 53.1062, -15.0717, 96.2905, -70.006, 33.6147
5.348, 6, 34.8848, 53.1157, -15.0712, 96.2869, -70.0259, 33.6043
5.352, 6, 34.8807, 53.1242, -15.0707, 96.2843, -70.0412, 33.5963
5.356, 6, 34.877, 53.1315, -15.0705, 96.2822, -70.0525, 33.5904
5.36, 6, 34.8737, 53.1378, -15.0703, 96.2808, -70.0608, 33.586
5.364, 6, 34.8708, 53.1429, -15.0702, 96.2797, -70.0668, 33.5829
5.368, 6, 34.8684, 53.1468, -15.0702, 96.279, -70.0709, 33.5808
5.372, 6, 34.8665, 53.1498, -15.0702, 96.2785, -70.0738, 33.5793
5.376, 6, 34.8651, 53.1519, -15.0702, 96.2781, -70.0758, 33.5782
5.38, 6, 34.864, 53.1535, -15.0701, 96.2779, -70.0771, 33.5776
5.384, 6, 34.8632, 53.1546, -15.0701, 96.2777, -70.078, 33.5771
5.388, 6, 34.8622, 53.1556, -15.07, 96.2776, -70.0787, 33.5768
5.392, 6, 34.8609, 53.1566, -15.0698, 96.2774, -70.0792, 33.5767
5.396, 6, 34.8592, 53.1579, -15.0694, 96.2769, -70.0799, 33.5767
5.4, 6, 34.857, 53.1596, -15.0685, 96.2761, -70.0808, 33.5771
5.404, 6, 34.8542, 53.1618, -15.0671, 96.2746, -70.0823, 33.5779
5.408, 6, 34.8509, 53.1644, -15.0647, 96.2721, -70.0848, 33.5793
5.412, 6, 34.8469, 53.1676, -15.0612, 96.268, -70.0887, 33.5816
5.416, 6, 34.8424, 53.1713, -15.0559, 96.2619, -70.0946, 33.5852
5.42, 6, 34.8372, 53.1755, -15.0484, 96.253, -70.103, 33.5903
5.424, 6, 34.8312, 53.1801, -15.038, 96.2406, -70.1147, 33.5975
5.428, 6, 34.8244, 53.1852, -15.0239, 96.2238, -70.1304, 33.6072
5.432, 6, 34.8167, 53.1905, -15.0056, 96.2019, -70.151, 33.6199
5.436, 6, 34.8084, 53.1955, -14.9825, 96.1738, -70.1774, 33.6361
5.44, 6, 34.7997, 53.1999, -14.9543, 96.1387, -70.2102, 33.6562
5.444, 6, 34.7909, 53.203, -14.9207, 96.0961, -70.25, 33.6808
5.448, 6, 34.7823, 53.2046, -14.8814, 96.0453, -70.2973, 33.7098
5.452, 6, 34.774, 53.2045, -14.8365, 95.9865, -70.3522, 33.7434
5.456, 6, 34.7662, 53.2028, -14.7861, 95.9197, -70.4143, 33.7814
5.46, 6, 34.7589, 53.1994, -14.7303, 95.8458, -70.483, 33.8235
5.464, 6, 34.7523, 53.1945, -14.6697, 95.7655, -70.5576, 33.8689
5.468, 6, 34.7461, 53.1885, -14.6051, 95.6801, -70.6367, 33.9171
5.472, 6, 34.7402, 53.1815, -14.5373, 95.5912, -70.7192, 33.9671
5.476, 6, 34.7346, 53.1739, -14.4678, 95.5002, -70.8035, 34.0182
5.48, 6, 34.7289, 53.1662, -14.3976, 95.4088, -70.8881, 34.0693
5.484, 6, 34.723, 53.1587, -14.3281, 95.3187, -70.9715, 34.1195
5.488, 6, 34.7164, 53.152, -14.2606, 95.2315, -71.052, 34.1679
5.492, 6, 34.7092, 53.1467, -14.196, 95.1488, -71.1285, 34.2138
5.496, 6, 34.7013, 53.1428, -14.1354, 95.0716, -71.1998, 34.2563
5.5, 6, 34.6927, 53.1405, -14.0795, 95.0009, -71.265, 34.2952
5.504, 6, 34.6838, 53.1397, -14.0288, 94.9374, -71.3236, 34.33
5.508, 6, 34.6746, 53.1403, -13.9836, 94.8813, -71.3754, 34.3606
5.512, 6, 34.6654, 53.1421, -13.944, 94.8326, -71.4203, 34.3871
5.516, 6, 34.6565, 53.1447, -13.9098, 94.791, -71.4587, 34.4097
5.52, 6, 34.6482, 53.148, -13.8808, 94.7561, -71.491, 34.4287
5.524, 6, 34.6405, 53.1516, -13.8565, 94.7271, -71.5178, 34.4443
5.528, 6, 34.6335, 53.1555, -13.8366, 94.7035, -71.5395, 34.457
5.532, 7, 34.6273, 53.1593, -13.8205, 94.6847, -71.557, 34.4672
5.536, 7, 34.6218, 53.163, -13.8076, 94.6698, -71.5707, 34.4751
5.54, 7, 34.6168, 53.1664, -13.7976, 94.6584, -71.5813, 34.4813
5.544, 7, 34.6124, 53.1695, -13.79, 94.6497, -71.5893, 34.4859
5.548, 7, 34.6085, 53.1722, -13.7842, 94.6433, -71.5953, 34.4893
5.552, 7, 34.6051, 53.1744, -13.78, 94.6387, -71.5996, 34.4918
5.556, 7, 34.6022, 53.1763, -13.7769, 94.6354, -71.6026, 34.4935
5.56, 7, 34.5998, 53.1777, -13.7747, 94.6331, -71.6047, 34.4948
5.564, 7, 34.598, 53.1788, -13.7732, 94.6316, -71.6062, 34.4956
5.568, 7, 34.5966, 53.1795, -13.7722, 94.6305, -71.6072, 34.4962
5.572, 7, 34.5954, 53.1802, -13.7715, 94.6298, -71.6079, 34.4965
5.576, 7, 34.5942, 53.1808, -13.7709, 94.6293, -71.6084, 34.4968
5.58, 7, 34.5926, 53.1815, -13.7705, 94.6289, -71.6089, 34.497
5.584, 7, 34.5906, 53.1826, -13.77, 94.6284, -71.6096, 34.497
5.588, 7, 34.5879, 53.184, -13.7692, 94.6278, -71.6106, 34.497
5.592, 7, 34.5845, 53.1858, -13.7681, 94.6268, -71.6125, 34.4969
5.596, 7, 34.5803, 53.1881, -13.7663, 94.6252, -71.6156, 34.4966
5.6, 7, 34.5754, 53.1909, -13.7635, 94.6227, -71.6204, 34.4962
5.604, 7, 34.5697, 53.1943, -13.7594, 94.619, -71.6277, 34.4954
5.608, 7, 34.5629, 53.1982, -13.7536, 94.6135, -71.6383, 34.4943
5.612, 7, 34.5549, 53.2028, -13.7453, 94.6059, -71.6531, 34.4928
5.616, 7, 34.5456, 53.2079, -13.7341, 94.5956, -71.6731, 34.4907
5.62, 7, 34.5348, 53.2136, -13.7191, 94.582, -71.6994, 34.488
5.624, 7, 34.5224, 53.2196, -13.6996, 94.5645, -71.7334, 34.4844
5.628, 7, 34.5084, 53.2257, -13.6751, 94.5423, -71.7762, 34.4799
5.632, 7, 34.4928, 53.232, -13.6448, 94.5149, -71.8292, 34.4743
5.636, 7, 34.4755, 53.2381, -13.6082, 94.4816, -71.8934, 34.4675
5.64, 7, 34.4563, 53.244, -13.5649, 94.4418, -71.97, 34.4593
5.644, 7, 34.4352, 53.2497, -13.5144, 94.395, -72.0601, 34.4497
5.648, 7, 34.4122, 53.2549, -13.4564, 94.3407, -72.1643, 34.4385
5.652, 7, 34.3872, 53.2596, -13.3905, 94.2786, -72.2835, 34.4257
5.656, 7, 34.3602, 53.2636, -13.3165, 94.2083, -72.4181, 34.4111
5.66, 7, 34.3315, 53.2667, -13.2342, 94.1298, -72.5684, 34.3947
5.664, 7, 34.3009, 53.2689, -13.1436, 94.043, -72.7342, 34.3765
5.668, 7, 34.2685, 53.2701, -13.0446, 93.948, -72.9154, 34.3565
5.672, 7, 34.2342, 53.2705, -12.9373, 93.8451, -73.1114, 34.3347
5.676, 7, 34.1982, 53.2699, -12.8217, 93.7347, -73.3213, 34.3112
5.68, 7, 34.1605, 53.2684, -12.6983, 93.6173, -73.5443, 34.2861
5.684, 7, 34.1215, 53.2659, -12.5674, 93.4935, -73.7789, 34.2594
5.688, 7, 34.0817, 53.2621, -12.4296, 93.364, -74.0238, 34.2313
5.692, 7, 34.0413, 53.2572, -12.286, 93.2298, -74.2773, 34.202
5.696, 7, 34.0007, 53.251, -12.1374, 93.0917, -74.5376, 34.1717
5.7, 7, 33.9599, 53.2439, -11.9851, 92.9507, -74.8027, 34.1405
5.704, 7, 33.9188, 53.2363, -11.8304, 92.8082, -75.0704, 34.1087
5.708, 7, 33.8773, 53.2284, -11.6743, 92.665, -75.3387, 34.0765
5.712, 7, 33.8353, 53.2206, -11.5183, 92.5225, -75.6054, 34.0443
5.716, 7, 33.7929, 53.213, -11.3636, 92.3816, -75.8685, 34.0121
5.72, 7, 33.7504, 53.2057, -11.2112, 92.2435, -76.126, 33.9804
5.724, 7, 33.7082, 53.1988, -11.0625, 92.1091, -76.3762, 33.9493
5.728, 7, 33.6666, 53.1922, -10.9183, 91.9794, -76.6173, 33.9191
5.732, 7, 33.6258, 53.186, -10.7797, 91.855, -76.848, 33.89
5.736, 7, 33.586, 53.1804, -10.6475, 91.7369, -77.067, 33.8621
5.74, 7, 33.5473, 53.1754, -10.5225, 91.6255, -77.2731, 33.8356
5.744, 7, 33.5098, 53.1712, -10.4051, 91.5213, -77.4656, 33.8107
5.748, 7, 33.4738, 53.1676, -10.2959, 91.4246, -77.644, 33.7874
5.752, 7, 33.4395, 53.1647, -10.195, 91.3356, -77.808, 33.7659
5.756, 7, 33.4071, 53.1624, -10.1027, 91.2544, -77.9576, 33.7462
5.76, 7, 33.3768, 53.1606, -10.0188, 91.181, -78.0928, 33.7282
5.764, 7, 33.3486, 53.1594, -9.94343, 91.115, -78.2141, 33.712
5.768, 7, 33.3227, 53.1585, -9.8762, 91.0564, -78.3218, 33.6976
5.772, 7, 33.2989, 53.1583, -9.81686, 91.0048, -78.4165, 33.6848
5.776, 7, 33.2771, 53.1586, -9.76505, 90.9599, -78.4989, 33.6737
5.78, 7, 33.2572, 53.1596, -9.72032, 90.9212, -78.5699, 33.664
5.784, 7, 33.2392, 53.1612, -9.68216, 90.8883, -78.6302, 33.6558
5.788, 7, 33.2229, 53.1634, -9.65001, 90.8608, -78.6808, 33.6489
5.792, 7, 33.2085, 53.166, -9.62327, 90.8379, -78.7227, 33.6432
5.796, 7, 33.1957, 53.1688, -9.60135, 90.8192, -78.757, 33.6385
5.8, 8, 33.1846, 53.1716, -9.58365, 90.8042, -78.7846, 33.6347
5.804, 8, 33.175, 53.1744, -9.56956, 90.7923, -78.8064, 33.6317
5.808, 8, 33.1667, 53.1769, -9.55856, 90.7831, -78.8234, 33.6294
5.812, 8, 33.1594, 53.1793, -9.55012, 90.776, -78.8363, 33.6276
5.816, 8, 33.153, 53.1813, -9.54378, 90.7708, -78.846, 33.6263
5.82, 8, 33.1475, 53.1831, -9.5391, 90.767, -78.8531, 33.6253
5.824, 8, 33.1428, 53.1846, -9.53574, 90.7642, -78.8582, 33.6246
5.828, 8, 33.1389, 53.1859, -9.53335, 90.7623, -78.8617, 33.6241
5.832, 8, 33.1359, 53.1868, -9.5317, 90.761, -78.8642, 33.6238
5.836, 8, 33.1336, 53.1875, -9.53055, 90.7601, -78.8658, 33.6236
5.84, 8, 33.1318, 53.1879, -9.52975, 90.7595, -78.867, 33.6234
5.844, 8, 33.1301, 53.1881, -9.52912, 90.759, -78.8678, 33.6233
5.848, 8, 33.1284, 53.1881, -9.52852, 90.7587, -78.8683, 33.6233
5.852, 8, 33.1263, 53.1878, -9.52777, 90.7583, -78.8688, 33.6235
5.856, 8, 33.1238, 53.1871, -9.52665, 90.7577, -78.8692, 33.6238
5.86, 8, 33.1208, 53.1859, -9.52487, 90.7568, -78.8697, 33.6244
5.864, 8, 33.1172, 53.1842, -9.52209, 90.7554, -78.8703, 33.6256
5.868, 8, 33.1129, 53.1816, -9.51786, 90.7531, -78.8712, 33.6274
5.872, 8, 33.1079, 53.1779, -9.51166, 90.7497, -78.8724, 33.6302
5.876, 8, 33.102, 53.1728, -9.50285, 90.7448, -78.8741, 33.6343
5.88, 8, 33.0951, 53.1661, -9.49072, 90.7378, -78.8764, 33.6401
5.884, 8, 33.0869, 53.1576, -9.47446, 90.7284, -78.8795, 33.6479
5.888, 8, 33.0773, 53.1469, -9.45319, 90.7159, -78.8836, 33.6583
5.892, 8, 33.0664, 53.1339, -9.42599, 90.6998, -78.8887, 33.6717
5.896, 8, 33.0541, 53.1185, -9.39195, 90.6795, -78.8952, 33.6887
5.9, 8, 33.0406, 53.1003, -9.35019, 90.6543, -78.9032, 33.7097
5.904, 8, 33.0259, 53.0794, -9.29993, 90.6238, -78.9128, 33.735
5.908, 8, 33.0103, 53.0555, -9.24059, 90.5875, -78.9242, 33.7652
5.912, 8, 32.9938, 53.0287, -9.17179, 90.5452, -78.9375, 33.8003
5.916, 8, 32.9767, 52.9989, -9.09342, 90.4967, -78.9527, 33.8405
5.92, 8, 32.9591, 52.9664, -9.00568, 90.4422, -78.9698, 33.8856
5.924, 8, 32.9412, 52.9314, -8.90908, 90.382, -78.9887, 33.9354
5.928, 8, 32.9231, 52.8941, -8.80444, 90.3166, -79.0092, 33.9894
5.932, 8, 32.9051, 52.8548, -8.69289, 90.2467, -79.0313, 34.0469
5.936, 8, 32.8872, 52.8138, -8.57577, 90.1733, -79.0546, 34.1074
5.94, 8, 32.8692, 52.7715, -8.45463, 90.0972, -79.0788, 34.1698
5.944, 8, 32.8511, 52.7282, -8.33116, 90.0197, -79.1036, 34.2334
5.948, 8, 32.8328, 52.6845, -8.20709, 89.9418, -79.1287, 34.2972
5.952, 8, 32.8141, 52.6409, -8.08415, 89.8646, -79.1536, 34.3603
5.956, 8, 32.7948, 52.5978, -7.96397, 89.7892, -79.1782, 34.4218
5.96, 8, 32.775, 52.5558, -7.84802, 89.7167, -79.202, 34.4808
5.964, 8, 32.7549, 52.5153, -7.73759, 89.6477, -79.2248, 34.5369
5.968, 8, 32.7346, 52.4768, -7.63369, 89.583, -79.2464, 34.5894
5.972, 8, 32.7145, 52.4404, -7.5371, 89.523, -79.2665, 34.6379
5.976, 8, 32.695, 52.4066, -7.44831, 89.4681, -79.2851, 34.6824
5.98, 8, 32.6763, 52.3754, -7.36762, 89.4183, -79.3021, 34.7226
5.984, 8, 32.6588, 52.3471, -7.29506, 89.3736, -79.3174, 34.7586
5.988, 8, 32.6424, 52.3215, -7.23053, 89.334, -79.3311, 34.7905
5.992, 8, 32.6273, 52.2987, -7.17373, 89.2992, -79.3432, 34.8184
5.996, 8, 32.6135, 52.2786, -7.1243, 89.2691, -79.3537, 34.8426
6, 8, 32.6009, 52.261, -7.08176, 89.2432, -79.3628, 34.8633
6.004, 8, 32.5897, 52.2458, -7.04557, 89.2214, -79.3706, 34.8808
6.008, 8, 32.5797, 52.2327, -7.01515, 89.203, -79.3772, 34.8955
6.012, 8, 32.5709, 52.2217, -6.98992, 89.1879, -79.3826, 34.9076
6.016, 8, 32.5632, 52.2125, -6.96928, 89.1756, -79.3871, 34.9174
6.02, 9, 32.5566, 52.205, -6.95265, 89.1657, -79.3906, 34.9253
6.024, 9, 32.5508, 52.1988, -6.93946, 89.158, -79.3935, 34.9315
6.028, 9, 32.5456, 52.1938, -6.92919, 89.152, -79.3957, 34.9363
6.032, 9, 32.5409, 52.1899, -6.92135, 89.1475, -79.3974, 34.9398
6.036, 9, 32.5368, 52.1868, -6.91549, 89.1442, -79.3987, 34.9425
