hehonglu123/Motion-Primitive-Planning/simulation/robotstudio_sim/multimove/wood/qp5_50L/curve_exe_v100_z10.csv
timestamp, cmd_num, J1, J2, J3, J4, J5, J6, J1_2, J2_2, J3_2, J4_2, J5_2, J6_2
0, -1, 5.56404, -6.35979, 32.447, -147.852, -101.722, 56.7464, 11.9786, 3.51811, 5.96829, -10.3851, -93.8996, -89.3619
0.004, -1, 5.56404, -6.35979, 32.447, -147.852, -101.722, 56.7464, 11.9786, 3.51811, 5.96829, -10.3851, -93.8996, -89.3619
0.008, -1, 5.56404, -6.35979, 32.447, -147.852, -101.722, 56.7464, 11.9786, 3.51811, 5.96829, -10.3851, -93.8996, -89.3619
0.011, -1, 5.56404, -6.35979, 32.447, -147.852, -101.722, 56.7464, 11.9786, 3.51811, 5.96829, -10.3851, -93.8996, -89.3619
0.012, -1, 5.56404, -6.35979, 32.447, -147.852, -101.722, 56.7464, 11.9786, 3.51811, 5.96829, -10.3851, -93.8996, -89.3619
0.016, -1, 5.56404, -6.35979, 32.447, -147.852, -101.722, 56.7464, 11.9786, 3.51811, 5.96829, -10.3851, -93.8996, -89.3619
0.02, -1, 5.56404, -6.35979, 32.447, -147.852, -101.722, 56.7464, 11.9786, 3.51811, 5.96829, -10.3851, -93.8996, -89.3619
0.024, -1, 5.56404, -6.35979, 32.447, -147.852, -101.722, 56.7464, 11.9786, 3.51811, 5.96829, -10.3851, -93.8996, -89.3619
0.028, -1, 5.56404, -6.35979, 32.447, -147.852, -101.722, 56.7464, 11.9786, 3.51811, 5.96829, -10.3851, -93.8996, -89.3619
0.032, -1, 5.56404, -6.35979, 32.447, -147.852, -101.722, 56.7464, 11.9786, 3.51811, 5.96829, -10.3851, -93.8996, -89.3619
0.036, -1, 5.56404, -6.35979, 32.447, -147.852, -101.722, 56.7464, 11.9786, 3.51811, 5.96829, -10.3851, -93.8996, -89.3619
0.04, -1, 5.56397, -6.35979, 32.447, -147.852, -101.722, 56.7464, 11.9786, 3.51811, 5.96829, -10.3851, -93.8996, -89.3619
0.044, -1, 5.56361, -6.35975, 32.447, -147.852, -101.722, 56.7464, 11.9786, 3.51811, 5.96829, -10.3851, -93.8996, -89.3619
0.048, -1, 5.56259, -6.35963, 32.4469, -147.852, -101.722, 56.7464, 11.9786, 3.51811, 5.96829, -10.3851, -93.8996, -89.3619
0.052, -1, 5.56058, -6.35938, 32.4466, -147.852, -101.722, 56.7464, 11.9786, 3.51811, 5.96829, -10.3851, -93.8996, -89.3619
0.056, -1, 5.55736, -6.35894, 32.446, -147.852, -101.722, 56.7464, 11.9785, 3.51809, 5.96829, -10.3851, -93.8996, -89.3619
0.06, -1, 5.55281, -6.35829, 32.4452, -147.852, -101.722, 56.7464, 11.9783, 3.51801, 5.9683, -10.3851, -93.8996, -89.3619
0.064, -1, 5.54674, -6.35738, 32.444, -147.853, -101.722, 56.7464, 11.9778, 3.51785, 5.96832, -10.385, -93.8996, -89.3619
0.068, -1, 5.53899, -6.35617, 32.4424, -147.853, -101.721, 56.7463, 11.9769, 3.51756, 5.96834, -10.3847, -93.8997, -89.362
0.072, -1, 5.52934, -6.3546, 32.4401, -147.855, -101.72, 56.7462, 11.9755, 3.5171, 5.96836, -10.3842, -93.8998, -89.362
0.076, -1, 5.51743, -6.35262, 32.4372, -147.856, -101.719, 56.7461, 11.9733, 3.51643, 5.96835, -10.3833, -93.8999, -89.3621
0.08, -1, 5.50272, -6.35013, 32.4335, -147.859, -101.717, 56.746, 11.9702, 3.5155, 5.9683, -10.3818, -93.9002, -89.3622
0.084, -1, 5.48457, -6.34707, 32.4288, -147.862, -101.715, 56.7458, 11.9661, 3.51428, 5.96817, -10.3795, -93.9007, -89.3623
0.088, -1, 5.46243, -6.34336, 32.4229, -147.867, -101.711, 56.7455, 11.9607, 3.51273, 5.96794, -10.3761, -93.9013, -89.3626
0.092, -1, 5.43608, -6.33898, 32.4157, -147.873, -101.707, 56.7451, 11.9539, 3.5108, 5.96756, -10.3714, -93.9022, -89.363
0.096, -1, 5.4057, -6.33399, 32.4073, -147.88, -101.702, 56.7446, 11.9454, 3.50842, 5.96702, -10.3652, -93.9033, -89.3634
0.1, -1, 5.3715, -6.32846, 32.3976, -147.889, -101.695, 56.744, 11.935, 3.50554, 5.96629, -10.3573, -93.9048, -89.3641
0.104, -1, 5.3335, -6.32239, 32.3867, -147.9, -101.687, 56.7433, 11.9224, 3.50211, 5.96534, -10.3473, -93.9067, -89.3649
0.108, -1, 5.29154, -6.31578, 32.3744, -147.913, -101.678, 56.7425, 11.9078, 3.49816, 5.96414, -10.3353, -93.9089, -89.3658
0.112, -1, 5.2455, -6.3086, 32.3607, -147.928, -101.667, 56.7415, 11.8912, 3.49372, 5.96267, -10.321, -93.9115, -89.3669
0.116, -1, 5.1952, -6.30081, 32.3457, -147.945, -101.655, 56.7404, 11.8726, 3.48882, 5.96091, -10.3045, -93.9146, -89.3683
0.12, -1, 5.14046, -6.29236, 32.3292, -147.964, -101.641, 56.7392, 11.8522, 3.4835, 5.95887, -10.2859, -93.918, -89.3697
0.124, -1, 5.08128, -6.28323, 32.3113, -147.984, -101.626, 56.7379, 11.8302, 3.47779, 5.95659, -10.2654, -93.9218, -89.3714
0.128, -1, 5.01797, -6.27346, 32.2922, -148.006, -101.611, 56.7365, 11.8067, 3.47172, 5.95409, -10.2432, -93.9259, -89.3732
0.131, -1, 4.95113, -6.26312, 32.2719, -148.029, -101.594, 56.735, 11.7817, 3.46526, 5.95146, -10.2196, -93.9303, -89.375
0.136, -1, 4.88141, -6.25229, 32.2507, -148.053, -101.576, 56.7334, 11.7554, 3.45843, 5.94873, -10.1951, -93.9348, -89.377
0.139, -1, 4.80919, -6.241, 32.2287, -148.079, -101.558, 56.7318, 11.7279, 3.45124, 5.94597, -10.1699, -93.9395, -89.379
0.144, -1, 4.73453, -6.22926, 32.2058, -148.105, -101.539, 56.7301, 11.6994, 3.44376, 5.9432, -10.1443, -93.9442, -89.381
0.148, -1, 4.65733, -6.21706, 32.1823, -148.131, -101.52, 56.7284, 11.6703, 3.43606, 5.94044, -10.1184, -93.949, -89.3831
0.152, -1, 4.57771, -6.20442, 32.1581, -148.158, -101.501, 56.7267, 11.6406, 3.42821, 5.9377, -10.0925, -93.9538, -89.3852
0.156, -1, 4.4959, -6.19141, 32.1335, -148.185, -101.481, 56.7249, 11.6107, 3.42026, 5.93498, -10.0665, -93.9586, -89.3872
0.16, -1, 4.4122, -6.17808, 32.1084, -148.212, -101.462, 56.7232, 11.5807, 3.41229, 5.93225, -10.0405, -93.9634, -89.3893
0.164, -1, 4.32698, -6.16453, 32.0831, -148.239, -101.442, 56.7214, 11.5507, 3.40431, 5.92954, -10.0145, -93.9682, -89.3914
0.168, -1, 4.24082, -6.15085, 32.0577, -148.266, -101.422, 56.7197, 11.5207, 3.39633, 5.92682, -9.98848, -93.9731, -89.3934
0.172, -1, 4.15427, -6.13713, 32.0322, -148.294, -101.403, 56.7179, 11.4907, 3.38836, 5.9241, -9.96251, -93.9779, -89.3955
0.176, -1, 4.06766, -6.1234, 32.0067, -148.321, -101.383, 56.7162, 11.4607, 3.38039, 5.92139, -9.93654, -93.9827, -89.3976
0.18, -1, 3.98107, -6.10967, 31.9812, -148.348, -101.363, 56.7144, 11.4308, 3.37242, 5.91868, -9.91058, -93.9875, -89.3996
0.184, -1, 3.89451, -6.09595, 31.9557, -148.375, -101.344, 56.7127, 11.4008, 3.36445, 5.91596, -9.88463, -93.9923, -89.4017
0.188, -1, 3.80798, -6.08224, 31.9302, -148.402, -101.324, 56.7109, 11.3709, 3.35649, 5.91325, -9.8587, -93.9971, -89.4037
0.192, -1, 3.72148, -6.06853, 31.9047, -148.429, -101.305, 56.7092, 11.3409, 3.34853, 5.91054, -9.83277, -94.0019, -89.4058
0.196, -1, 3.63501, -6.05482, 31.8793, -148.456, -101.285, 56.7074, 11.311, 3.34057, 5.90783, -9.80685, -94.0067, -89.4079
0.2, -1, 3.54858, -6.04112, 31.8538, -148.483, -101.265, 56.7057, 11.2811, 3.33262, 5.90512, -9.78094, -94.0115, -89.4099
0.204, -1, 3.46217, -6.02743, 31.8284, -148.51, -101.246, 56.704, 11.2512, 3.32467, 5.90241, -9.75503, -94.0163, -89.412
0.208, -1, 3.3758, -6.01374, 31.8029, -148.537, -101.226, 56.7022, 11.2213, 3.31672, 5.89971, -9.72914, -94.0211, -89.414
0.212, -1, 3.28946, -6.00005, 31.7775, -148.565, -101.207, 56.7005, 11.1914, 3.30877, 5.897, -9.70326, -94.0259, -89.4161
0.216, -1, 3.20314, -5.98637, 31.7521, -148.592, -101.187, 56.6987, 11.1615, 3.30083, 5.89429, -9.67739, -94.0307, -89.4181
0.22, -1, 3.11686, -5.9727, 31.7267, -148.619, -101.168, 56.697, 11.1316, 3.29289, 5.89159, -9.65152, -94.0355, -89.4202
0.224, -1, 3.03061, -5.95903, 31.7013, -148.646, -101.148, 56.6952, 11.1018, 3.28495, 5.88889, -9.62567, -94.0402, -89.4222
0.228, -1, 2.94439, -5.94536, 31.6759, -148.673, -101.128, 56.6935, 11.0719, 3.27702, 5.88619, -9.59982, -94.045, -89.4243
0.232, -1, 2.8582, -5.9317, 31.6505, -148.7, -101.109, 56.6917, 11.0421, 3.26909, 5.88348, -9.57399, -94.0498, -89.4263
0.236, -1, 2.77204, -5.91805, 31.6252, -148.727, -101.089, 56.69, 11.0123, 3.26116, 5.88078, -9.54816, -94.0546, -89.4284
0.24, -1, 2.68591, -5.9044, 31.5998, -148.754, -101.07, 56.6883, 10.9825, 3.25323, 5.87809, -9.52234, -94.0594, -89.4305
0.244, -1, 2.59982, -5.89075, 31.5744, -148.781, -101.05, 56.6865, 10.9527, 3.24531, 5.87539, -9.49653, -94.0642, -89.4325
0.248, -1, 2.51375, -5.87711, 31.5491, -148.808, -101.031, 56.6848, 10.9229, 3.23739, 5.87269, -9.47073, -94.0689, -89.4345
0.252, -1, 2.42771, -5.86347, 31.5238, -148.835, -101.011, 56.6831, 10.8931, 3.22947, 5.86999, -9.44494, -94.0737, -89.4366
0.256, -1, 2.34171, -5.84984, 31.4984, -148.861, -100.992, 56.6813, 10.8633, 3.22156, 5.8673, -9.41916, -94.0785, -89.4386
0.26, -1, 2.25573, -5.83622, 31.4731, -148.888, -100.972, 56.6796, 10.8336, 3.21364, 5.8646, -9.39339, -94.0833, -89.4407
0.264, -1, 2.16979, -5.82259, 31.4478, -148.915, -100.953, 56.6778, 10.8038, 3.20573, 5.86191, -9.36762, -94.088, -89.4427
0.268, -1, 2.08388, -5.80898, 31.4225, -148.942, -100.933, 56.6761, 10.7741, 3.19783, 5.85922, -9.34187, -94.0928, -89.4448
0.272, -1, 1.99799, -5.79536, 31.3972, -148.969, -100.914, 56.6744, 10.7444, 3.18992, 5.85653, -9.31612, -94.0976, -89.4468
0.276, -1, 1.91214, -5.78176, 31.3719, -148.996, -100.894, 56.6726, 10.7146, 3.18202, 5.85383, -9.29039, -94.1023, -89.4489
0.28, -1, 1.82631, -5.76815, 31.3467, -149.023, -100.875, 56.6709, 10.6849, 3.17413, 5.85114, -9.26466, -94.1071, -89.4509
0.284, -1, 1.74052, -5.75456, 31.3214, -149.05, -100.856, 56.6692, 10.6552, 3.16623, 5.84846, -9.23894, -94.1119, -89.4529
0.288, -1, 1.65476, -5.74096, 31.2962, -149.077, -100.836, 56.6674, 10.6255, 3.15834, 5.84577, -9.21323, -94.1166, -89.455
0.292, -1, 1.56902, -5.72737, 31.2709, -149.104, -100.817, 56.6657, 10.5959, 3.15045, 5.84308, -9.18753, -94.1214, -89.457
0.296, -1, 1.48332, -5.71379, 31.2457, -149.13, -100.797, 56.664, 10.5662, 3.14256, 5.84039, -9.16184, -94.1261, -89.4591
0.3, -1, 1.39765, -5.70021, 31.2204, -149.157, -100.778, 56.6622, 10.5366, 3.13468, 5.83771, -9.13616, -94.1309, -89.4611
0.304, -1, 1.312, -5.68664, 31.1952, -149.184, -100.758, 56.6605, 10.5069, 3.1268, 5.83503, -9.11049, -94.1357, -89.4632
0.308, -1, 1.22639, -5.67307, 31.17, -149.211, -100.739, 56.6588, 10.4773, 3.11892, 5.83234, -9.08482, -94.1404, -89.4652
0.312, -1, 1.14081, -5.6595, 31.1448, -149.238, -100.72, 56.6571, 10.4476, 3.11104, 5.82966, -9.05917, -94.1451, -89.4672
0.316, -1, 1.05525, -5.64594, 31.1196, -149.265, -100.7, 56.6553, 10.418, 3.10317, 5.82698, -9.03352, -94.1499, -89.4693
0.32, -1, 0.969731, -5.63239, 31.0944, -149.291, -100.681, 56.6536, 10.3884, 3.0953, 5.8243, -9.00788, -94.1546, -89.4713
0.324, -1, 0.884238, -5.61884, 31.0693, -149.318, -100.661, 56.6519, 10.3588, 3.08743, 5.82162, -8.98226, -94.1594, -89.4733
0.328, -1, 0.798775, -5.60529, 31.0441, -149.345, -100.642, 56.6501, 10.3293, 3.07957, 5.81894, -8.95664, -94.1641, -89.4754
0.332, -1, 0.713341, -5.59175, 31.0189, -149.372, -100.623, 56.6484, 10.2997, 3.0717, 5.81626, -8.93103, -94.1689, -89.4774
0.336, -1, 0.627938, -5.57822, 30.9938, -149.398, -100.603, 56.6467, 10.2701, 3.06384, 5.81359, -8.90542, -94.1736, -89.4794
0.34, -1, 0.542565, -5.56468, 30.9687, -149.425, -100.584, 56.645, 10.2406, 3.05599, 5.81091, -8.87983, -94.1784, -89.4815
0.344, -1, 0.457221, -5.55116, 30.9435, -149.452, -100.565, 56.6432, 10.211, 3.04813, 5.80824, -8.85425, -94.1831, -89.4835
0.348, -1, 0.371908, -5.53764, 30.9184, -149.479, -100.545, 56.6415, 10.1815, 3.04028, 5.80556, -8.82867, -94.1878, -89.4855
0.352, -1, 0.286624, -5.52412, 30.8933, -149.505, -100.526, 56.6398, 10.152, 3.03243, 5.80289, -8.80311, -94.1926, -89.4876
0.356, -1, 0.201371, -5.51061, 30.8682, -149.532, -100.507, 56.6381, 10.1225, 3.02459, 5.80022, -8.77755, -94.1973, -89.4896
0.36, -1, 0.116147, -5.4971, 30.8431, -149.559, -100.487, 56.6364, 10.093, 3.01675, 5.79755, -8.75201, -94.202, -89.4916
0.364, -1, 0.0309527, -5.4836, 30.818, -149.586, -100.468, 56.6346, 10.0635, 3.00891, 5.79488, -8.72647, -94.2068, -89.4936
0.368, -1, -0.0542115, -5.4701, 30.7929, -149.612, -100.449, 56.6329, 10.034, 3.00107, 5.79221, -8.70094, -94.2115, -89.4957
0.372, -1, -0.139346, -5.4566, 30.7679, -149.639, -100.429, 56.6312, 10.0045, 2.99323, 5.78954, -8.67542, -94.2162, -89.4977
0.376, -1, -0.224451, -5.44312, 30.7428, -149.666, -100.41, 56.6295, 9.97509, 2.9854, 5.78687, -8.64991, -94.2209, -89.4997
0.38, -1, -0.309525, -5.42963, 30.7177, -149.692, -100.391, 56.6278, 9.94564, 2.97757, 5.78421, -8.6244, -94.2257, -89.5018
0.384, -1, -0.39457, -5.41615, 30.6927, -149.719, -100.371, 56.626, 9.9162, 2.96975, 5.78154, -8.59891, -94.2304, -89.5038
0.388, -1, -0.479586, -5.40268, 30.6677, -149.746, -100.352, 56.6243, 9.88677, 2.96192, 5.77888, -8.57342, -94.2351, -89.5058
0.392, -1, -0.564571, -5.38921, 30.6426, -149.772, -100.333, 56.6226, 9.85736, 2.9541, 5.77621, -8.54795, -94.2398, -89.5078
0.396, -1, -0.649527, -5.37574, 30.6176, -149.799, -100.314, 56.6209, 9.82795, 2.94628, 5.77355, -8.52248, -94.2445, -89.5098
0.4, -1, -0.734453, -5.36228, 30.5926, -149.825, -100.294, 56.6192, 9.79855, 2.93847, 5.77089, -8.49702, -94.2493, -89.5119
0.404, -1, -0.81935, -5.34883, 30.5676, -149.852, -100.275, 56.6175, 9.76917, 2.93066, 5.76823, -8.47157, -94.254, -89.5139
0.408, -1, -0.904216, -5.33537, 30.5426, -149.879, -100.256, 56.6157, 9.73979, 2.92285, 5.76557, -8.44613, -94.2587, -89.5159
0.412, -1, -0.989054, -5.32193, 30.5176, -149.905, -100.237, 56.614, 9.71043, 2.91504, 5.76291, -8.4207, -94.2634, -89.5179
0.416, -1, -1.07386, -5.30849, 30.4927, -149.932, -100.217, 56.6123, 9.68107, 2.90724, 5.76025, -8.39528, -94.2681, -89.52
0.42, -1, -1.15864, -5.29505, 30.4677, -149.958, -100.198, 56.6106, 9.65173, 2.89944, 5.75759, -8.36986, -94.2728, -89.522
0.424, -1, -1.24339, -5.28162, 30.4428, -149.985, -100.179, 56.6089, 9.62239, 2.89164, 5.75494, -8.34446, -94.2775, -89.524
0.428, -1, -1.32811, -5.26819, 30.4178, -150.011, -100.16, 56.6072, 9.59307, 2.88384, 5.75228, -8.31906, -94.2822, -89.526
0.432, -1, -1.41279, -5.25477, 30.3929, -150.038, -100.141, 56.6055, 9.56376, 2.87605, 5.74963, -8.29368, -94.2869, -89.528
0.436, -1, -1.49745, -5.24135, 30.3679, -150.064, -100.121, 56.6038, 9.53445, 2.86826, 5.74698, -8.2683, -94.2916, -89.53
0.44, -1, -1.58208, -5.22794, 30.343, -150.091, -100.102, 56.6021, 9.50516, 2.86047, 5.74432, -8.24293, -94.2963, -89.532
0.444, -1, -1.66668, -5.21453, 30.3181, -150.117, -100.083, 56.6003, 9.47587, 2.85268, 5.74167, -8.21757, -94.301, -89.5341
0.448, -1, -1.75125, -5.20112, 30.2932, -150.144, -100.064, 56.5986, 9.4466, 2.8449, 5.73902, -8.19222, -94.3057, -89.5361
0.452, -1, -1.8358, -5.18772, 30.2683, -150.17, -100.045, 56.5969, 9.41734, 2.83712, 5.73637, -8.16687, -94.3104, -89.5381
0.456, -1, -1.92031, -5.17433, 30.2434, -150.197, -100.026, 56.5952, 9.38809, 2.82934, 5.73372, -8.14154, -94.3151, -89.5401
0.46, -1, -2.00479, -5.16094, 30.2185, -150.223, -100.006, 56.5935, 9.35884, 2.82157, 5.73108, -8.11621, -94.3198, -89.5421
0.464, -1, -2.08924, -5.14755, 30.1937, -150.25, -99.9873, 56.5918, 9.32961, 2.8138, 5.72843, -8.0909, -94.3245, -89.5441
0.468, -1, -2.17367, -5.13417, 30.1688, -150.276, -99.9682, 56.5901, 9.30039, 2.80603, 5.72578, -8.06559, -94.3291, -89.5461
0.472, -1, -2.25806, -5.1208, 30.144, -150.303, -99.949, 56.5884, 9.27118, 2.79826, 5.72314, -8.04029, -94.3338, -89.5481
0.476, -1, -2.34242, -5.10742, 30.1191, -150.329, -99.9299, 56.5867, 9.24198, 2.7905, 5.72049, -8.015, -94.3385, -89.5501
0.48, -1, -2.42676, -5.09406, 30.0943, -150.356, -99.9108, 56.585, 9.21279, 2.78274, 5.71785, -7.98972, -94.3432, -89.5522
0.484, -1, -2.51106, -5.0807, 30.0695, -150.382, -99.8917, 56.5833, 9.1836, 2.77498, 5.71521, -7.96445, -94.3479, -89.5542
0.488, -1, -2.59534, -5.06734, 30.0446, -150.408, -99.8726, 56.5816, 9.15443, 2.76722, 5.71257, -7.93919, -94.3526, -89.5562
0.492, -1, -2.67959, -5.05398, 30.0198, -150.435, -99.8535, 56.5799, 9.12527, 2.75947, 5.70993, -7.91393, -94.3572, -89.5582
0.496, -1, -2.76381, -5.04064, 29.995, -150.461, -99.8344, 56.5782, 9.09612, 2.75172, 5.70729, -7.88869, -94.3619, -89.5602
0.5, -1, -2.84799, -5.02729, 29.9702, -150.488, -99.8153, 56.5765, 9.06698, 2.74397, 5.70465, -7.86345, -94.3666, -89.5622
0.504, -1, -2.93215, -5.01395, 29.9455, -150.514, -99.7962, 56.5748, 9.03785, 2.73623, 5.70201, -7.83822, -94.3713, -89.5642
0.508, -1, -3.01628, -5.00062, 29.9207, -150.54, -99.7771, 56.5731, 9.00873, 2.72849, 5.69937, -7.813, -94.3759, -89.5662
0.512, -1, -3.10038, -4.98729, 29.8959, -150.567, -99.7581, 56.5714, 8.97962, 2.72075, 5.69674, -7.78779, -94.3806, -89.5682
0.516, -1, -3.18445, -4.97397, 29.8712, -150.593, -99.739, 56.5697, 8.95052, 2.71301, 5.6941, -7.76259, -94.3853, -89.5702
0.52, -1, -3.26849, -4.96065, 29.8464, -150.619, -99.7199, 56.568, 8.92143, 2.70528, 5.69147, -7.7374, -94.3899, -89.5722
0.524, -1, -3.35251, -4.94733, 29.8217, -150.646, -99.7009, 56.5663, 8.89235, 2.69755, 5.68884, -7.71221, -94.3946, -89.5742
0.528, -1, -3.43649, -4.93402, 29.797, -150.672, -99.6819, 56.5646, 8.86328, 2.68982, 5.6862, -7.68704, -94.3993, -89.5762
0.532, -1, -3.52044, -4.92071, 29.7722, -150.698, -99.6628, 56.5629, 8.83422, 2.68209, 5.68357, -7.66187, -94.4039, -89.5782
0.536, -1, -3.60437, -4.90741, 29.7475, -150.725, -99.6438, 56.5612, 8.80517, 2.67437, 5.68094, -7.63671, -94.4086, -89.5802
0.54, -1, -3.68826, -4.89411, 29.7228, -150.751, -99.6248, 56.5595, 8.77613, 2.66665, 5.67831, -7.61156, -94.4132, -89.5822
0.544, -1, -3.77213, -4.88082, 29.6981, -150.777, -99.6058, 56.5578, 8.7471, 2.65893, 5.67569, -7.58642, -94.4179, -89.5842
0.548, -1, -3.85597, -4.86753, 29.6734, -150.803, -99.5868, 56.5561, 8.71808, 2.65121, 5.67306, -7.56129, -94.4225, -89.5862
0.552, -1, -3.93978, -4.85425, 29.6488, -150.83, -99.5678, 56.5544, 8.68907, 2.6435, 5.67043, -7.53617, -94.4272, -89.5882
0.556, -1, -4.02355, -4.84097, 29.6241, -150.856, -99.5488, 56.5527, 8.66008, 2.63579, 5.66781, -7.51105, -94.4318, -89.5902
0.56, -1, -4.10731, -4.8277, 29.5994, -150.882, -99.5298, 56.551, 8.63109, 2.62808, 5.66518, -7.48595, -94.4365, -89.5922
0.564, -1, -4.19103, -4.81443, 29.5748, -150.908, -99.5108, 56.5494, 8.60211, 2.62038, 5.66256, -7.46085, -94.4411, -89.5942
0.568, -1, -4.27472, -4.80116, 29.5501, -150.935, -99.4918, 56.5477, 8.57314, 2.61268, 5.65993, -7.43576, -94.4458, -89.5961
0.572, -1, -4.35838, -4.7879, 29.5255, -150.961, -99.4729, 56.546, 8.54418, 2.60498, 5.65731, -7.41068, -94.4504, -89.5981
0.576, -1, -4.44202, -4.77465, 29.5009, -150.987, -99.4539, 56.5443, 8.51523, 2.59728, 5.65469, -7.38561, -94.4551, -89.6001
0.58, -1, -4.52563, -4.76139, 29.4762, -151.013, -99.4349, 56.5426, 8.48629, 2.58959, 5.65207, -7.36055, -94.4597, -89.6021
0.584, -1, -4.60921, -4.74815, 29.4516, -151.04, -99.416, 56.5409, 8.45736, 2.5819, 5.64945, -7.33549, -94.4644, -89.6041
0.588, -1, -4.69276, -4.73491, 29.427, -151.066, -99.3971, 56.5392, 8.42844, 2.57421, 5.64683, -7.31045, -94.469, -89.6061
0.592, -1, -4.77628, -4.72167, 29.4024, -151.092, -99.3781, 56.5375, 8.39954, 2.56652, 5.64422, -7.28541, -94.4736, -89.6081
0.596, -1, -4.85977, -4.70844, 29.3779, -151.118, -99.3592, 56.5358, 8.37064, 2.55884, 5.6416, -7.26039, -94.4783, -89.6101
0.6, -1, -4.94323, -4.69521, 29.3533, -151.144, -99.3403, 56.5342, 8.34175, 2.55116, 5.63898, -7.23537, -94.4829, -89.6121
0.604, -1, -5.02667, -4.68198, 29.3287, -151.17, -99.3214, 56.5325, 8.31287, 2.54348, 5.63637, -7.21036, -94.4875, -89.614
0.608, -1, -5.11008, -4.66876, 29.3041, -151.196, -99.3024, 56.5308, 8.284, 2.5358, 5.63375, -7.18535, -94.4922, -89.616
0.612, -1, -5.19346, -4.65555, 29.2796, -151.223, -99.2835, 56.5291, 8.25514, 2.52813, 5.63114, -7.16036, -94.4968, -89.618
0.616, -1, -5.27681, -4.64234, 29.2551, -151.249, -99.2646, 56.5274, 8.22629, 2.52046, 5.62853, -7.13537, -94.5014, -89.62
0.62, -1, -5.36013, -4.62913, 29.2305, -151.275, -99.2458, 56.5257, 8.19745, 2.51279, 5.62592, -7.1104, -94.506, -89.622
0.624, -1, -5.44342, -4.61593, 29.206, -151.301, -99.2269, 56.5241, 8.16861, 2.50513, 5.62331, -7.08543, -94.5107, -89.624
0.628, -1, -5.52669, -4.60273, 29.1815, -151.327, -99.208, 56.5224, 8.13979, 2.49747, 5.6207, -7.06047, -94.5153, -89.6259
0.632, -1, -5.60993, -4.58954, 29.157, -151.353, -99.1891, 56.5207, 8.11098, 2.48981, 5.61809, -7.03551, -94.5199, -89.6279
0.636, -1, -5.69314, -4.57635, 29.1325, -151.379, -99.1703, 56.519, 8.08218, 2.48215, 5.61548, -7.01057, -94.5245, -89.6299
0.64, -1, -5.77632, -4.56317, 29.108, -151.405, -99.1514, 56.5173, 8.05339, 2.47449, 5.61287, -6.98563, -94.5291, -89.6319
0.644, -1, -5.85947, -4.54999, 29.0835, -151.431, -99.1326, 56.5156, 8.0246, 2.46684, 5.61027, -6.96071, -94.5338, -89.6339
0.648, -1, -5.9426, -4.53681, 29.059, -151.457, -99.1137, 56.514, 7.99583, 2.45919, 5.60766, -6.93579, -94.5384, -89.6358
0.652, -1, -6.0257, -4.52364, 29.0345, -151.483, -99.0949, 56.5123, 7.96707, 2.45154, 5.60506, -6.91088, -94.543, -89.6378
0.656, -1, -6.10877, -4.51047, 29.0101, -151.509, -99.076, 56.5106, 7.93831, 2.4439, 5.60245, -6.88598, -94.5476, -89.6398
0.66, -1, -6.19181, -4.49731, 28.9856, -151.535, -99.0572, 56.5089, 7.90957, 2.43626, 5.59985, -6.86108, -94.5522, -89.6418
0.664, -1, -6.27483, -4.48415, 28.9612, -151.561, -99.0384, 56.5073, 7.88084, 2.42862, 5.59725, -6.8362, -94.5568, -89.6438
0.668, -1, -6.35781, -4.471, 28.9367, -151.587, -99.0196, 56.5056, 7.85211, 2.42098, 5.59465, -6.81132, -94.5614, -89.6457
0.672, -1, -6.44077, -4.45785, 28.9123, -151.613, -99.0008, 56.5039, 7.8234, 2.41335, 5.59205, -6.78645, -94.566, -89.6477
0.676, -1, -6.5237, -4.44471, 28.8879, -151.639, -98.982, 56.5022, 7.79469, 2.40571, 5.58945, -6.76159, -94.5706, -89.6497
0.68, -1, -6.60661, -4.43157, 28.8635, -151.665, -98.9632, 56.5006, 7.76599, 2.39809, 5.58685, -6.73674, -94.5752, -89.6517
0.684, -1, -6.68948, -4.41843, 28.8391, -151.691, -98.9444, 56.4989, 7.73731, 2.39046, 5.58425, -6.7119, -94.5798, -89.6536
0.688, -1, -6.77233, -4.4053, 28.8147, -151.717, -98.9256, 56.4972, 7.70863, 2.38283, 5.58166, -6.68706, -94.5844, -89.6556
0.692, -1, -6.85515, -4.39218, 28.7903, -151.743, -98.9068, 56.4955, 7.67996, 2.37521, 5.57906, -6.66223, -94.589, -89.6576
0.696, -1, -6.93794, -4.37905, 28.7659, -151.769, -98.8881, 56.4939, 7.65131, 2.36759, 5.57647, -6.63742, -94.5936, -89.6595
0.7, -1, -7.02071, -4.36594, 28.7415, -151.795, -98.8693, 56.4922, 7.62266, 2.35998, 5.57387, -6.61261, -94.5982, -89.6615
0.704, -1, -7.10344, -4.35282, 28.7172, -151.821, -98.8505, 56.4905, 7.59402, 2.35236, 5.57128, -6.5878, -94.6028, -89.6635
0.708, -1, -7.18615, -4.33971, 28.6928, -151.847, -98.8318, 56.4888, 7.56539, 2.34475, 5.56869, -6.56301, -94.6074, -89.6655
0.712, -1, -7.26883, -4.32661, 28.6685, -151.873, -98.813, 56.4872, 7.53677, 2.33714, 5.5661, -6.53823, -94.612, -89.6674
0.716, -1, -7.35149, -4.31351, 28.6441, -151.899, -98.7943, 56.4855, 7.50816, 2.32954, 5.56351, -6.51345, -94.6166, -89.6694
0.72, -1, -7.43411, -4.30041, 28.6198, -151.925, -98.7756, 56.4838, 7.47956, 2.32193, 5.56092, -6.48868, -94.6212, -89.6714
0.724, -1, -7.51671, -4.28732, 28.5955, -151.951, -98.7568, 56.4822, 7.45097, 2.31433, 5.55833, -6.46392, -94.6257, -89.6733
0.728, -1, -7.59928, -4.27423, 28.5712, -151.976, -98.7381, 56.4805, 7.42239, 2.30673, 5.55574, -6.43917, -94.6303, -89.6753
0.732, -1, -7.68182, -4.26115, 28.5469, -152.002, -98.7194, 56.4788, 7.39382, 2.29914, 5.55315, -6.41442, -94.6349, -89.6773
0.736, -1, -7.76434, -4.24807, 28.5226, -152.028, -98.7007, 56.4772, 7.36526, 2.29154, 5.55057, -6.38969, -94.6395, -89.6792
0.74, -1, -7.84683, -4.235, 28.4983, -152.054, -98.682, 56.4755, 7.33671, 2.28395, 5.54798, -6.36496, -94.6441, -89.6812
0.744, -1, -7.92929, -4.22193, 28.474, -152.08, -98.6633, 56.4738, 7.30817, 2.27636, 5.5454, -6.34024, -94.6487, -89.6831
0.748, -1, -8.01172, -4.20886, 28.4497, -152.106, -98.6446, 56.4722, 7.27963, 2.26878, 5.54281, -6.31553, -94.6532, -89.6851
0.752, -1, -8.09412, -4.1958, 28.4255, -152.131, -98.6259, 56.4705, 7.25111, 2.26119, 5.54023, -6.29083, -94.6578, -89.6871
0.756, -1, -8.1765, -4.18275, 28.4012, -152.157, -98.6073, 56.4688, 7.2226, 2.25361, 5.53765, -6.26614, -94.6624, -89.689
0.76, -1, -8.25885, -4.16969, 28.3769, -152.183, -98.5886, 56.4672, 7.19409, 2.24604, 5.53507, -6.24145, -94.6669, -89.691
0.764, -1, -8.34117, -4.15665, 28.3527, -152.209, -98.5699, 56.4655, 7.1656, 2.23846, 5.53249, -6.21677, -94.6715, -89.693
0.768, -1, -8.42346, -4.1436, 28.3285, -152.235, -98.5513, 56.4639, 7.13711, 2.23089, 5.52991, -6.1921, -94.6761, -89.6949
0.772, -1, -8.50573, -4.13056, 28.3042, -152.26, -98.5326, 56.4622, 7.10864, 2.22332, 5.52733, -6.16744, -94.6807, -89.6969
0.776, -1, -8.58797, -4.11753, 28.28, -152.286, -98.514, 56.4605, 7.08017, 2.21575, 5.52476, -6.14279, -94.6852, -89.6988
0.78, -1, -8.67018, -4.1045, 28.2558, -152.312, -98.4953, 56.4589, 7.05171, 2.20818, 5.52218, -6.11814, -94.6898, -89.7008
0.784, -1, -8.75236, -4.09147, 28.2316, -152.338, -98.4767, 56.4572, 7.02327, 2.20062, 5.5196, -6.09351, -94.6943, -89.7027
0.788, -1, -8.83452, -4.07845, 28.2074, -152.363, -98.4581, 56.4556, 6.99483, 2.19306, 5.51703, -6.06888, -94.6989, -89.7047
0.792, -1, -8.91665, -4.06544, 28.1832, -152.389, -98.4395, 56.4539, 6.9664, 2.1855, 5.51445, -6.04426, -94.7035, -89.7066
0.796, -1, -8.99875, -4.05242, 28.1591, -152.415, -98.4208, 56.4522, 6.93798, 2.17795, 5.51188, -6.01965, -94.708, -89.7086
0.8, -1, -9.08083, -4.03941, 28.1349, -152.441, -98.4022, 56.4506, 6.90957, 2.17039, 5.50931, -5.99504, -94.7126, -89.7106
0.804, -1, -9.16287, -4.02641, 28.1107, -152.466, -98.3836, 56.4489, 6.88118, 2.16284, 5.50674, -5.97045, -94.7171, -89.7125
0.808, -1, -9.24489, -4.01341, 28.0866, -152.492, -98.365, 56.4473, 6.85279, 2.15529, 5.50417, -5.94586, -94.7217, -89.7145
0.812, -1, -9.32689, -4.00041, 28.0624, -152.518, -98.3465, 56.4456, 6.8244, 2.14775, 5.5016, -5.92128, -94.7262, -89.7164
0.816, -1, -9.40885, -3.98742, 28.0383, -152.543, -98.3279, 56.444, 6.79603, 2.14021, 5.49903, -5.89671, -94.7308, -89.7184
0.82, -1, -9.49079, -3.97444, 28.0142, -152.569, -98.3093, 56.4423, 6.76767, 2.13267, 5.49646, -5.87215, -94.7353, -89.7203
0.824, -1, -9.5727, -3.96145, 27.9901, -152.595, -98.2907, 56.4406, 6.73932, 2.12513, 5.49389, -5.8476, -94.7399, -89.7223
0.828, -1, -9.65458, -3.94848, 27.966, -152.62, -98.2722, 56.439, 6.71098, 2.11759, 5.49133, -5.82305, -94.7444, -89.7242
0.832, -1, -9.73644, -3.9355, 27.9418, -152.646, -98.2536, 56.4373, 6.68264, 2.11006, 5.48876, -5.79851, -94.749, -89.7262
0.836, -1, -9.81827, -3.92253, 27.9178, -152.672, -98.2351, 56.4357, 6.65432, 2.10253, 5.4862, -5.77398, -94.7535, -89.7281
0.84, -1, -9.90007, -3.90957, 27.8937, -152.697, -98.2165, 56.434, 6.62601, 2.095, 5.48363, -5.74946, -94.7581, -89.7301
0.844, -1, -9.98184, -3.89661, 27.8696, -152.723, -98.198, 56.4324, 6.5977, 2.08748, 5.48107, -5.72495, -94.7626, -89.732
0.848, -1, -10.0636, -3.88365, 27.8455, -152.749, -98.1794, 56.4307, 6.56941, 2.07995, 5.47851, -5.70044, -94.7671, -89.734
0.852, -1, -10.1453, -3.8707, 27.8214, -152.774, -98.1609, 56.4291, 6.54112, 2.07243, 5.47595, -5.67595, -94.7717, -89.7359
0.856, -1, -10.227, -3.85775, 27.7974, -152.8, -98.1424, 56.4274, 6.51284, 2.06491, 5.47339, -5.65146, -94.7762, -89.7378
0.86, -1, -10.3087, -3.84481, 27.7733, -152.825, -98.1239, 56.4258, 6.48458, 2.0574, 5.47083, -5.62698, -94.7807, -89.7398
0.864, -1, -10.3903, -3.83187, 27.7493, -152.851, -98.1054, 56.4241, 6.45632, 2.04989, 5.46827, -5.60251, -94.7853, -89.7417
0.868, -1, -10.4719, -3.81893, 27.7253, -152.877, -98.0869, 56.4225, 6.42807, 2.04238, 5.46571, -5.57804, -94.7898, -89.7437
0.872, -1, -10.5535, -3.806, 27.7013, -152.902, -98.0684, 56.4208, 6.39983, 2.03487, 5.46315, -5.55359, -94.7943, -89.7456
0.876, -1, -10.6351, -3.79307, 27.6772, -152.928, -98.0499, 56.4192, 6.3716, 2.02736, 5.4606, -5.52914, -94.7989, -89.7476
0.88, -1, -10.7166, -3.78015, 27.6532, -152.953, -98.0314, 56.4175, 6.34338, 2.01986, 5.45804, -5.5047, -94.8034, -89.7495
0.884, -1, -10.7981, -3.76723, 27.6292, -152.979, -98.0129, 56.4159, 6.31517, 2.01236, 5.45549, -5.48027, -94.8079, -89.7514
0.888, -1, -10.8796, -3.75432, 27.6052, -153.004, -97.9945, 56.4142, 6.28697, 2.00486, 5.45293, -5.45584, -94.8124, -89.7534
0.892, -1, -10.961, -3.74141, 27.5813, -153.03, -97.976, 56.4126, 6.25878, 1.99737, 5.45038, -5.43143, -94.817, -89.7553
0.896, -1, -11.0424, -3.72851, 27.5573, -153.055, -97.9575, 56.4109, 6.2306, 1.98988, 5.44783, -5.40702, -94.8215, -89.7573
0.9, -1, -11.1238, -3.71561, 27.5333, -153.081, -97.9391, 56.4093, 6.20242, 1.98238, 5.44528, -5.38262, -94.826, -89.7592
0.904, -1, -11.2052, -3.70271, 27.5094, -153.106, -97.9206, 56.4077, 6.17426, 1.9749, 5.44273, -5.35823, -94.8305, -89.7611
0.908, -1, -11.2865, -3.68982, 27.4854, -153.132, -97.9022, 56.406, 6.14611, 1.96741, 5.44018, -5.33385, -94.835, -89.7631
0.912, -1, -11.3678, -3.67693, 27.4615, -153.157, -97.8838, 56.4044, 6.11796, 1.95993, 5.43763, -5.30947, -94.8395, -89.765
0.916, -1, -11.4491, -3.66405, 27.4375, -153.183, -97.8653, 56.4027, 6.08982, 1.95245, 5.43508, -5.28511, -94.844, -89.7669
0.92, -1, -11.5304, -3.65117, 27.4136, -153.208, -97.8469, 56.4011, 6.0617, 1.94497, 5.43254, -5.26075, -94.8486, -89.7689
0.924, -1, -11.6116, -3.63829, 27.3897, -153.234, -97.8285, 56.3995, 6.03358, 1.9375, 5.42999, -5.2364, -94.8531, -89.7708
0.928, -1, -11.6928, -3.62542, 27.3658, -153.259, -97.8101, 56.3978, 6.00547, 1.93002, 5.42745, -5.21206, -94.8576, -89.7727
0.932, -1, -11.774, -3.61256, 27.3419, -153.285, -97.7917, 56.3962, 5.97738, 1.92255, 5.4249, -5.18772, -94.8621, -89.7747
0.936, -1, -11.8551, -3.59969, 27.318, -153.31, -97.7733, 56.3945, 5.94929, 1.91508, 5.42236, -5.1634, -94.8666, -89.7766
0.94, -1, -11.9363, -3.58684, 27.2941, -153.335, -97.7549, 56.3929, 5.92121, 1.90762, 5.41982, -5.13908, -94.8711, -89.7785
0.944, -1, -12.0174, -3.57398, 27.2702, -153.361, -97.7365, 56.3913, 5.89314, 1.90016, 5.41728, -5.11477, -94.8756, -89.7805
0.948, -1, -12.0984, -3.56113, 27.2463, -153.386, -97.7181, 56.3896, 5.86508, 1.8927, 5.41473, -5.09047, -94.8801, -89.7824
0.952, -1, -12.1795, -3.54829, 27.2225, -153.412, -97.6998, 56.388, 5.83703, 1.88524, 5.4122, -5.06617, -94.8846, -89.7843
0.956, -1, -12.2605, -3.53545, 27.1986, -153.437, -97.6814, 56.3863, 5.80898, 1.87778, 5.40966, -5.04189, -94.8891, -89.7863
0.96, -1, -12.3415, -3.52261, 27.1748, -153.462, -97.663, 56.3847, 5.78095, 1.87033, 5.40712, -5.01761, -94.8936, -89.7882
0.964, -1, -12.4224, -3.50978, 27.1509, -153.488, -97.6447, 56.3831, 5.75293, 1.86288, 5.40458, -4.99334, -94.8981, -89.7901
0.968, -1, -12.5034, -3.49695, 27.1271, -153.513, -97.6263, 56.3814, 5.72491, 1.85543, 5.40204, -4.96908, -94.9026, -89.792
0.972, -1, -12.5843, -3.48413, 27.1033, -153.538, -97.608, 56.3798, 5.69691, 1.84799, 5.39951, -4.94482, -94.9071, -89.794
0.976, -1, -12.6651, -3.47131, 27.0794, -153.564, -97.5896, 56.3782, 5.66891, 1.84054, 5.39697, -4.92058, -94.9116, -89.7959
0.98, -1, -12.746, -3.4585, 27.0556, -153.589, -97.5713, 56.3765, 5.64093, 1.8331, 5.39444, -4.89634, -94.916, -89.7978
0.984, -1, -12.8268, -3.44569, 27.0318, -153.614, -97.553, 56.3749, 5.61295, 1.82566, 5.39191, -4.87211, -94.9205, -89.7997
0.988, -1, -12.9076, -3.43288, 27.008, -153.64, -97.5347, 56.3733, 5.58498, 1.81823, 5.38937, -4.84789, -94.925, -89.8017
0.992, -1, -12.9884, -3.42008, 26.9843, -153.665, -97.5164, 56.3716, 5.55702, 1.81079, 5.38684, -4.82368, -94.9295, -89.8036
0.996, -1, -13.0691, -3.40728, 26.9605, -153.69, -97.4981, 56.37, 5.52907, 1.80336, 5.38431, -4.79947, -94.934, -89.8055
1, -1, -13.1499, -3.39449, 26.9367, -153.716, -97.4798, 56.3684, 5.50113, 1.79594, 5.38178, -4.77528, -94.9385, -89.8074
1.004, -1, -13.2306, -3.3817, 26.913, -153.741, -97.4615, 56.3667, 5.4732, 1.78851, 5.37925, -4.75109, -94.9429, -89.8093
1.008, -1, -13.3112, -3.36891, 26.8892, -153.766, -97.4432, 56.3651, 5.44528, 1.78109, 5.37672, -4.7269, -94.9474, -89.8113
1.012, -1, -13.3919, -3.35613, 26.8655, -153.791, -97.4249, 56.3635, 5.41737, 1.77367, 5.3742, -4.70273, -94.9519, -89.8132
1.016, -1, -13.4725, -3.34335, 26.8417, -153.817, -97.4066, 56.3619, 5.38947, 1.76625, 5.37167, -4.67857, -94.9564, -89.8151
1.02, -1, -13.5531, -3.33058, 26.818, -153.842, -97.3884, 56.3602, 5.36157, 1.75883, 5.36915, -4.65441, -94.9609, -89.817
1.024, -1, -13.6336, -3.31781, 26.7943, -153.867, -97.3701, 56.3586, 5.33369, 1.75142, 5.36662, -4.63026, -94.9653, -89.8189
1.027, -1, -13.7142, -3.30505, 26.7705, -153.892, -97.3518, 56.357, 5.30581, 1.74401, 5.3641, -4.60612, -94.9698, -89.8209
1.032, -1, -13.7947, -3.29229, 26.7468, -153.918, -97.3336, 56.3554, 5.27795, 1.7366, 5.36157, -4.58199, -94.9743, -89.8228
1.036, -1, -13.8751, -3.27953, 26.7231, -153.943, -97.3153, 56.3537, 5.25009, 1.72919, 5.35905, -4.55786, -94.9787, -89.8247
1.04, -1, -13.9556, -3.26678, 26.6995, -153.968, -97.2971, 56.3521, 5.22224, 1.72179, 5.35653, -4.53374, -94.9832, -89.8266
1.044, -1, -14.036, -3.25403, 26.6758, -153.993, -97.2789, 56.3505, 5.1944, 1.71439, 5.35401, -4.50963, -94.9877, -89.8285
1.048, -1, -14.1164, -3.24129, 26.6521, -154.019, -97.2606, 56.3489, 5.16657, 1.70699, 5.35149, -4.48553, -94.9921, -89.8304
1.052, -1, -14.1968, -3.22855, 26.6284, -154.044, -97.2424, 56.3472, 5.13876, 1.69959, 5.34897, -4.46144, -94.9966, -89.8324
1.055, -1, -14.2771, -3.21582, 26.6048, -154.069, -97.2242, 56.3456, 5.11094, 1.6922, 5.34645, -4.43736, -95.001, -89.8343
1.06, -1, -14.3575, -3.20309, 26.5811, -154.094, -97.206, 56.344, 5.08314, 1.68481, 5.34394, -4.41328, -95.0055, -89.8362
1.064, -1, -14.4377, -3.19036, 26.5575, -154.119, -97.1878, 56.3424, 5.05535, 1.67742, 5.34142, -4.38921, -95.01, -89.8381
1.068, -1, -14.518, -3.17764, 26.5338, -154.144, -97.1696, 56.3407, 5.02757, 1.67003, 5.3389, -4.36515, -95.0144, -89.84
1.072, -1, -14.5983, -3.16492, 26.5102, -154.169, -97.1514, 56.3391, 4.99979, 1.66265, 5.33639, -4.34109, -95.0189, -89.8419
1.076, -1, -14.6785, -3.15221, 26.4866, -154.195, -97.1332, 56.3375, 4.97203, 1.65526, 5.33387, -4.31705, -95.0233, -89.8438
1.08, -1, -14.7587, -3.1395, 26.463, -154.22, -97.115, 56.3359, 4.94427, 1.64788, 5.33136, -4.29301, -95.0278, -89.8457
1.084, -1, -14.8388, -3.12679, 26.4394, -154.245, -97.0969, 56.3343, 4.91652, 1.64051, 5.32885, -4.26898, -95.0322, -89.8476
1.088, -1, -14.919, -3.11409, 26.4158, -154.27, -97.0787, 56.3326, 4.88879, 1.63313, 5.32634, -4.24496, -95.0367, -89.8495
1.091, -1, -14.9991, -3.10139, 26.3922, -154.295, -97.0605, 56.331, 4.86106, 1.62576, 5.32383, -4.22094, -95.0411, -89.8514
1.096, -1, -15.0792, -3.0887, 26.3686, -154.32, -97.0424, 56.3294, 4.83334, 1.61839, 5.32132, -4.19694, -95.0456, -89.8534
1.1, -1, -15.1592, -3.07601, 26.345, -154.345, -97.0242, 56.3278, 4.80562, 1.61102, 5.31881, -4.17294, -95.05, -89.8553
1.104, -1, -15.2393, -3.06332, 26.3215, -154.37, -97.0061, 56.3262, 4.77792, 1.60366, 5.3163, -4.14895, -95.0545, -89.8572
1.108, -1, -15.3193, -3.05064, 26.2979, -154.395, -96.9879, 56.3246, 4.75023, 1.5963, 5.31379, -4.12496, -95.0589, -89.8591
1.112, -1, -15.3993, -3.03797, 26.2743, -154.42, -96.9698, 56.3229, 4.72254, 1.58894, 5.31129, -4.10099, -95.0633, -89.861
1.116, -1, -15.4792, -3.02529, 26.2508, -154.446, -96.9517, 56.3213, 4.69487, 1.58158, 5.30878, -4.07702, -95.0678, -89.8629
1.119, -1, -15.5592, -3.01262, 26.2273, -154.471, -96.9336, 56.3197, 4.6672, 1.57422, 5.30627, -4.05306, -95.0722, -89.8648
1.124, -1, -15.6391, -2.99996, 26.2037, -154.496, -96.9154, 56.3181, 4.63954, 1.56687, 5.30377, -4.0291, -95.0767, -89.8667
1.128, -1, -15.7189, -2.9873, 26.1802, -154.521, -96.8973, 56.3165, 4.61189, 1.55952, 5.30126, -4.00516, -95.0811, -89.8686
1.132, -1, -15.7988, -2.97464, 26.1567, -154.546, -96.8792, 56.3149, 4.58425, 1.55218, 5.29876, -3.98122, -95.0855, -89.8705
1.136, -1, -15.8786, -2.96199, 26.1332, -154.571, -96.8611, 56.3133, 4.55662, 1.54483, 5.29626, -3.95729, -95.09, -89.8724
1.14, -1, -15.9584, -2.94934, 26.1097, -154.596, -96.843, 56.3116, 4.52899, 1.53749, 5.29376, -3.93336, -95.0944, -89.8743
1.144, -1, -16.0382, -2.93669, 26.0862, -154.621, -96.825, 56.31, 4.50138, 1.53014, 5.29125, -3.90945, -95.0988, -89.8762
1.147, -1, -16.118, -2.92405, 26.0627, -154.646, -96.8069, 56.3084, 4.47377, 1.52281, 5.28876, -3.88554, -95.1032, -89.8781
1.152, -1, -16.1977, -2.91142, 26.0392, -154.671, -96.7888, 56.3068, 4.44617, 1.51547, 5.28626, -3.86164, -95.1077, -89.88
1.156, -1, -16.2774, -2.89878, 26.0158, -154.696, -96.7707, 56.3052, 4.41859, 1.50813, 5.28376, -3.83775, -95.1121, -89.8819
1.16, -1, -16.3571, -2.88615, 25.9923, -154.721, -96.7527, 56.3036, 4.39101, 1.5008, 5.28126, -3.81386, -95.1165, -89.8838
1.164, -1, -16.4367, -2.87353, 25.9688, -154.746, -96.7346, 56.302, 4.36343, 1.49347, 5.27877, -3.78998, -95.1209, -89.8857
1.168, -1, -16.5164, -2.86091, 25.9454, -154.771, -96.7166, 56.3004, 4.33587, 1.48614, 5.27627, -3.76611, -95.1254, -89.8876
1.172, -1, -16.596, -2.84829, 25.922, -154.795, -96.6985, 56.2988, 4.30832, 1.47882, 5.27377, -3.74225, -95.1298, -89.8895
1.175, -1, -16.6755, -2.83568, 25.8985, -154.82, -96.6805, 56.2972, 4.28077, 1.47149, 5.27128, -3.71839, -95.1342, -89.8914
1.18, -1, -16.7551, -2.82307, 25.8751, -154.845, -96.6624, 56.2956, 4.25324, 1.46417, 5.26879, -3.69455, -95.1386, -89.8932
1.184, -1, -16.8346, -2.81046, 25.8517, -154.87, -96.6444, 56.2939, 4.22571, 1.45685, 5.26629, -3.67071, -95.143, -89.8951
1.188, -1, -16.9141, -2.79786, 25.8283, -154.895, -96.6264, 56.2923, 4.19819, 1.44954, 5.2638, -3.64687, -95.1474, -89.897
1.192, -1, -16.9936, -2.78527, 25.8049, -154.92, -96.6084, 56.2907, 4.17068, 1.44222, 5.26131, -3.62305, -95.1518, -89.8989
1.196, -1, -17.0731, -2.77267, 25.7815, -154.945, -96.5903, 56.2891, 4.14318, 1.43491, 5.25882, -3.59923, -95.1563, -89.9008
1.2, -1, -17.1525, -2.76008, 25.7581, -154.97, -96.5723, 56.2875, 4.11569, 1.4276, 5.25633, -3.57542, -95.1607, -89.9027
1.204, -1, -17.2319, -2.7475, 25.7347, -154.995, -96.5543, 56.2859, 4.0882, 1.42029, 5.25384, -3.55162, -95.1651, -89.9046
1.208, -1, -17.3113, -2.73492, 25.7113, -155.02, -96.5363, 56.2843, 4.06073, 1.41299, 5.25136, -3.52782, -95.1695, -89.9065
1.212, -1, -17.3906, -2.72234, 25.688, -155.044, -96.5184, 56.2827, 4.03326, 1.40569, 5.24887, -3.50404, -95.1739, -89.9084
1.216, -1, -17.47, -2.70977, 25.6646, -155.069, -96.5004, 56.2811, 4.0058, 1.39839, 5.24638, -3.48026, -95.1783, -89.9103
1.22, -1, -17.5493, -2.6972, 25.6413, -155.094, -96.4824, 56.2795, 3.97835, 1.39109, 5.2439, -3.45648, -95.1827, -89.9122
1.224, -1, -17.6285, -2.68463, 25.6179, -155.119, -96.4644, 56.2779, 3.95091, 1.38379, 5.24141, -3.43272, -95.1871, -89.914
1.228, -1, -17.7078, -2.67207, 25.5946, -155.144, -96.4464, 56.2763, 3.92348, 1.3765, 5.23893, -3.40896, -95.1915, -89.9159
1.232, -1, -17.787, -2.65952, 25.5712, -155.169, -96.4285, 56.2747, 3.89606, 1.36921, 5.23645, -3.38521, -95.1959, -89.9178
1.236, -1, -17.8662, -2.64696, 25.5479, -155.193, -96.4105, 56.2731, 3.86864, 1.36192, 5.23396, -3.36147, -95.2003, -89.9197
1.24, -1, -17.9454, -2.63441, 25.5246, -155.218, -96.3926, 56.2715, 3.84123, 1.35463, 5.23148, -3.33773, -95.2047, -89.9216
1.244, -1, -18.0245, -2.62187, 25.5013, -155.243, -96.3746, 56.2699, 3.81384, 1.34735, 5.229, -3.31401, -95.2091, -89.9235
1.248, -1, -18.1037, -2.60933, 25.478, -155.268, -96.3567, 56.2683, 3.78645, 1.34007, 5.22652, -3.29029, -95.2135, -89.9253
1.252, -1, -18.1828, -2.59679, 25.4547, -155.293, -96.3388, 56.2667, 3.75907, 1.33279, 5.22404, -3.26658, -95.2179, -89.9272
1.256, -1, -18.2618, -2.58425, 25.4314, -155.317, -96.3208, 56.2651, 3.7317, 1.32551, 5.22156, -3.24287, -95.2223, -89.9291
1.26, -1, -18.3409, -2.57173, 25.4081, -155.342, -96.3029, 56.2635, 3.70433, 1.31824, 5.21909, -3.21917, -95.2266, -89.931
1.264, -1, -18.4199, -2.5592, 25.3849, -155.367, -96.285, 56.2619, 3.67698, 1.31096, 5.21661, -3.19548, -95.231, -89.9329
1.267, -1, -18.4989, -2.54668, 25.3616, -155.392, -96.2671, 56.2603, 3.64963, 1.30369, 5.21413, -3.1718, -95.2354, -89.9348
1.272, -1, -18.5779, -2.53416, 25.3383, -155.416, -96.2492, 56.2587, 3.6223, 1.29643, 5.21166, -3.14813, -95.2398, -89.9366
1.276, -1, -18.6569, -2.52165, 25.3151, -155.441, -96.2313, 56.2571, 3.59497, 1.28916, 5.20919, -3.12446, -95.2442, -89.9385
1.28, -1, -18.7358, -2.50914, 25.2919, -155.466, -96.2134, 56.2555, 3.56765, 1.2819, 5.20671, -3.1008, -95.2486, -89.9404
1.284, -1, -18.8147, -2.49663, 25.2686, -155.491, -96.1955, 56.2539, 3.54034, 1.27464, 5.20424, -3.07715, -95.2529, -89.9423
1.288, -1, -18.8936, -2.48413, 25.2454, -155.515, -96.1776, 56.2524, 3.51303, 1.26738, 5.20177, -3.0535, -95.2573, -89.9442
1.292, -1, -18.9724, -2.47163, 25.2222, -155.54, -96.1598, 56.2508, 3.48574, 1.26012, 5.1993, -3.02986, -95.2617, -89.946
1.295, -1, -19.0513, -2.45914, 25.199, -155.565, -96.1419, 56.2492, 3.45846, 1.25287, 5.19682, -3.00623, -95.2661, -89.9479
1.3, -1, -19.1301, -2.44665, 25.1758, -155.589, -96.124, 56.2476, 3.43118, 1.24561, 5.19436, -2.98261, -95.2704, -89.9498
1.304, -1, -19.2088, -2.43416, 25.1526, -155.614, -96.1062, 56.246, 3.40391, 1.23836, 5.19189, -2.95899, -95.2748, -89.9517
1.308, -1, -19.2876, -2.42168, 25.1294, -155.639, -96.0883, 56.2444, 3.37665, 1.23112, 5.18942, -2.93539, -95.2792, -89.9535
1.312, -1, -19.3663, -2.4092, 25.1062, -155.664, -96.0704, 56.2428, 3.3494, 1.22387, 5.18695, -2.91179, -95.2836, -89.9554
1.316, -1, -19.445, -2.39673, 25.083, -155.688, -96.0526, 56.2412, 3.32216, 1.21663, 5.18448, -2.88819, -95.2879, -89.9573
1.32, -1, -19.5237, -2.38426, 25.0598, -155.713, -96.0348, 56.2396, 3.29492, 1.20939, 5.18202, -2.86461, -95.2923, -89.9592
1.324, -1, -19.6024, -2.37179, 25.0367, -155.737, -96.0169, 56.238, 3.2677, 1.20215, 5.17955, -2.84103, -95.2967, -89.961
1.328, -1, -19.681, -2.35933, 25.0135, -155.762, -95.9991, 56.2364, 3.24048, 1.19491, 5.17709, -2.81746, -95.301, -89.9629
1.332, -1, -19.7596, -2.34687, 24.9904, -155.787, -95.9813, 56.2349, 3.21327, 1.18768, 5.17463, -2.79389, -95.3054, -89.9648
1.336, -1, -19.8382, -2.33441, 24.9672, -155.811, -95.9635, 56.2333, 3.18607, 1.18045, 5.17216, -2.77034, -95.3098, -89.9666
1.34, -1, -19.9167, -2.32196, 24.9441, -155.836, -95.9457, 56.2317, 3.15888, 1.17322, 5.1697, -2.74679, -95.3141, -89.9685
1.344, -1, -19.9953, -2.30952, 24.921, -155.861, -95.9279, 56.2301, 3.1317, 1.16599, 5.16724, -2.72325, -95.3185, -89.9704
1.348, -1, -20.0738, -2.29707, 24.8979, -155.885, -95.9101, 56.2285, 3.10453, 1.15877, 5.16478, -2.69971, -95.3228, -89.9723
1.352, -1, -20.1522, -2.28463, 24.8748, -155.91, -95.8923, 56.2269, 3.07736, 1.15155, 5.16232, -2.67619, -95.3272, -89.9741
1.356, -1, -20.2307, -2.2722, 24.8517, -155.934, -95.8745, 56.2253, 3.0502, 1.14433, 5.15986, -2.65267, -95.3316, -89.976
1.36, -1, -20.3091, -2.25977, 24.8286, -155.959, -95.8567, 56.2238, 3.02306, 1.13711, 5.1574, -2.62916, -95.3359, -89.9779
1.364, -1, -20.3875, -2.24734, 24.8055, -155.984, -95.8389, 56.2222, 2.99592, 1.12989, 5.15494, -2.60565, -95.3403, -89.9797
1.368, -1, -20.4659, -2.23492, 24.7824, -156.008, -95.8212, 56.2206, 2.96878, 1.12268, 5.15249, -2.58216, -95.3446, -89.9816
1.372, -1, -20.5443, -2.2225, 24.7593, -156.033, -95.8034, 56.219, 2.94166, 1.11547, 5.15003, -2.55867, -95.349, -89.9835
1.376, -1, -20.6226, -2.21008, 24.7363, -156.057, -95.7856, 56.2174, 2.91455, 1.10826, 5.14758, -2.53518, -95.3533, -89.9853
1.38, -1, -20.7009, -2.19767, 24.7132, -156.082, -95.7679, 56.2158, 2.88744, 1.10105, 5.14512, -2.51171, -95.3577, -89.9872
1.384, -1, -20.7792, -2.18526, 24.6901, -156.106, -95.7501, 56.2143, 2.86034, 1.09385, 5.14267, -2.48824, -95.362, -89.989
1.388, -1, -20.8575, -2.17286, 24.6671, -156.131, -95.7324, 56.2127, 2.83326, 1.08665, 5.14022, -2.46478, -95.3663, -89.9909
1.392, -1, -20.9357, -2.16046, 24.6441, -156.155, -95.7147, 56.2111, 2.80617, 1.07945, 5.13776, -2.44133, -95.3707, -89.9928
1.396, -1, -21.0139, -2.14806, 24.621, -156.18, -95.6969, 56.2095, 2.7791, 1.07225, 5.13531, -2.41788, -95.375, -89.9946
1.4, -1, -21.0921, -2.13567, 24.598, -156.204, -95.6792, 56.2079, 2.75204, 1.06505, 5.13286, -2.39445, -95.3794, -89.9965
1.404, -1, -21.1703, -2.12328, 24.575, -156.229, -95.6615, 56.2064, 2.72499, 1.05786, 5.13041, -2.37102, -95.3837, -89.9984
1.408, -1, -21.2484, -2.11089, 24.552, -156.253, -95.6438, 56.2048, 2.69794, 1.05067, 5.12796, -2.34759, -95.388, -90.0002
1.412, -1, -21.3265, -2.09851, 24.529, -156.278, -95.6261, 56.2032, 2.6709, 1.04348, 5.12552, -2.32418, -95.3924, -90.0021
1.416, -1, -21.4046, -2.08614, 24.506, -156.302, -95.6083, 56.2016, 2.64387, 1.03629, 5.12307, -2.30077, -95.3967, -90.0039
1.42, -1, -21.4827, -2.07376, 24.483, -156.327, -95.5907, 56.2001, 2.61685, 1.02911, 5.12062, -2.27737, -95.401, -90.0058
1.424, -1, -21.5607, -2.0614, 24.46, -156.351, -95.573, 56.1985, 2.58984, 1.02193, 5.11818, -2.25397, -95.4054, -90.0076
1.428, -1, -21.6387, -2.04903, 24.437, -156.376, -95.5553, 56.1969, 2.56283, 1.01475, 5.11573, -2.23059, -95.4097, -90.0095
1.432, -1, -21.7167, -2.03667, 24.4141, -156.4, -95.5376, 56.1953, 2.53584, 1.00757, 5.11329, -2.20721, -95.414, -90.0114
1.436, -1, -21.7947, -2.02431, 24.3911, -156.424, -95.5199, 56.1937, 2.50885, 1.0004, 5.11084, -2.18384, -95.4184, -90.0132
1.44, -1, -21.8726, -2.01196, 24.3682, -156.449, -95.5023, 56.1922, 2.48187, 0.993225, 5.1084, -2.16047, -95.4227, -90.0151
1.444, -1, -21.9505, -1.99961, 24.3452, -156.473, -95.4846, 56.1906, 2.4549, 0.986054, 5.10596, -2.13711, -95.427, -90.0169
1.448, -1, -22.0284, -1.98726, 24.3223, -156.498, -95.4669, 56.189, 2.42794, 0.978886, 5.10352, -2.11376, -95.4313, -90.0188
1.452, -1, -22.1063, -1.97492, 24.2994, -156.522, -95.4493, 56.1875, 2.40099, 0.97172, 5.10108, -2.09042, -95.4357, -90.0206
1.456, -1, -22.1842, -1.96258, 24.2764, -156.546, -95.4316, 56.1859, 2.37404, 0.964556, 5.09864, -2.06709, -95.44, -90.0225
1.46, -1, -22.262, -1.95025, 24.2535, -156.571, -95.414, 56.1843, 2.34711, 0.957395, 5.0962, -2.04376, -95.4443, -90.0243
1.464, -1, -22.3398, -1.93792, 24.2306, -156.595, -95.3963, 56.1827, 2.32018, 0.950236, 5.09376, -2.02044, -95.4486, -90.0262
1.468, -1, -22.4175, -1.92559, 24.2077, -156.62, -95.3787, 56.1812, 2.29326, 0.943079, 5.09132, -1.99712, -95.4529, -90.028
1.472, -1, -22.4953, -1.91327, 24.1848, -156.644, -95.3611, 56.1796, 2.26635, 0.935924, 5.08889, -1.97382, -95.4573, -90.0299
1.476, -1, -22.573, -1.90095, 24.1619, -156.668, -95.3435, 56.178, 2.23945, 0.928771, 5.08645, -1.95052, -95.4616, -90.0317
1.48, -1, -22.6507, -1.88863, 24.1391, -156.693, -95.3259, 56.1765, 2.21255, 0.921621, 5.08402, -1.92723, -95.4659, -90.0336
1.484, -1, -22.7284, -1.87632, 24.1162, -156.717, -95.3082, 56.1749, 2.18567, 0.914473, 5.08158, -1.90394, -95.4702, -90.0354
1.488, -1, -22.806, -1.86402, 24.0933, -156.741, -95.2906, 56.1733, 2.15879, 0.907327, 5.07915, -1.88066, -95.4745, -90.0373
1.492, -1, -22.8837, -1.85171, 24.0705, -156.766, -95.273, 56.1717, 2.13192, 0.900183, 5.07672, -1.8574, -95.4788, -90.0391
1.496, -1, -22.9613, -1.83941, 24.0476, -156.79, -95.2554, 56.1702, 2.10506, 0.893042, 5.07428, -1.83413, -95.4831, -90.041
1.5, -1, -23.0388, -1.82712, 24.0248, -156.814, -95.2379, 56.1686, 2.07821, 0.885903, 5.07185, -1.81088, -95.4874, -90.0428
1.504, -1, -23.1164, -1.81483, 24.0019, -156.839, -95.2203, 56.167, 2.05136, 0.878766, 5.06942, -1.78763, -95.4917, -90.0447
1.508, -1, -23.1939, -1.80254, 23.9791, -156.863, -95.2027, 56.1655, 2.02453, 0.871631, 5.06699, -1.76439, -95.496, -90.0465
1.512, -1, -23.2714, -1.79025, 23.9563, -156.887, -95.1851, 56.1639, 1.9977, 0.864499, 5.06456, -1.74116, -95.5004, -90.0484
1.516, -1, -23.3489, -1.77797, 23.9335, -156.911, -95.1676, 56.1623, 1.97088, 0.857369, 5.06213, -1.71793, -95.5047, -90.0502
1.52, -1, -23.4264, -1.7657, 23.9107, -156.936, -95.15, 56.1608, 1.94407, 0.850241, 5.05971, -1.69471, -95.5089, -90.0521
1.524, -1, -23.5038, -1.75342, 23.8878, -156.96, -95.1324, 56.1592, 1.91727, 0.843115, 5.05728, -1.6715, -95.5132, -90.0539
1.528, -1, -23.5812, -1.74115, 23.8651, -156.984, -95.1149, 56.1577, 1.89047, 0.835991, 5.05485, -1.64829, -95.5175, -90.0557
1.532, -1, -23.6586, -1.72889, 23.8423, -157.008, -95.0974, 56.1561, 1.86369, 0.82887, 5.05243, -1.6251, -95.5218, -90.0576
1.536, -1, -23.7359, -1.71663, 23.8195, -157.033, -95.0798, 56.1545, 1.83691, 0.821751, 5.05, -1.60191, -95.5261, -90.0594
1.54, -1, -23.8133, -1.70437, 23.7967, -157.057, -95.0623, 56.153, 1.81014, 0.814634, 5.04758, -1.57872, -95.5304, -90.0613
1.544, -1, -23.8906, -1.69212, 23.774, -157.081, -95.0448, 56.1514, 1.78338, 0.807519, 5.04516, -1.55555, -95.5347, -90.0631
1.548, -1, -23.9679, -1.67987, 23.7512, -157.105, -95.0272, 56.1498, 1.75663, 0.800407, 5.04274, -1.53238, -95.539, -90.0649
1.552, -1, -24.0451, -1.66762, 23.7284, -157.13, -95.0097, 56.1483, 1.72989, 0.793297, 5.04031, -1.50922, -95.5433, -90.0668
1.556, -1, -24.1224, -1.65538, 23.7057, -157.154, -94.9922, 56.1467, 1.70315, 0.786189, 5.03789, -1.48607, -95.5476, -90.0686
1.56, -1, -24.1996, -1.64314, 23.683, -157.178, -94.9747, 56.1452, 1.67643, 0.779083, 5.03547, -1.46292, -95.5519, -90.0705
1.564, -1, -24.2768, -1.63091, 23.6602, -157.202, -94.9572, 56.1436, 1.64971, 0.771979, 5.03305, -1.43978, -95.5562, -90.0723
1.568, -1, -24.354, -1.61868, 23.6375, -157.226, -94.9397, 56.142, 1.623, 0.764878, 5.03064, -1.41665, -95.5604, -90.0741
1.572, -1, -24.4311, -1.60645, 23.6148, -157.251, -94.9222, 56.1405, 1.59629, 0.757779, 5.02822, -1.39352, -95.5647, -90.076
1.576, -1, -24.5082, -1.59423, 23.5921, -157.275, -94.9047, 56.1389, 1.5696, 0.750682, 5.0258, -1.3704, -95.569, -90.0778
1.58, -1, -24.5853, -1.58201, 23.5694, -157.299, -94.8873, 56.1374, 1.54292, 0.743587, 5.02338, -1.34729, -95.5733, -90.0797
1.584, -1, -24.6624, -1.56979, 23.5467, -157.323, -94.8698, 56.1358, 1.51624, 0.736494, 5.02097, -1.32419, -95.5776, -90.0815
1.588, -1, -24.7394, -1.55758, 23.524, -157.347, -94.8523, 56.1343, 1.48957, 0.729404, 5.01855, -1.30109, -95.5818, -90.0833
1.592, -1, -24.8165, -1.54537, 23.5013, -157.371, -94.8349, 56.1327, 1.46291, 0.722316, 5.01614, -1.278, -95.5861, -90.0852
1.596, -1, -24.8935, -1.53317, 23.4786, -157.395, -94.8174, 56.1311, 1.43626, 0.71523, 5.01373, -1.25492, -95.5904, -90.087
1.6, -1, -24.9704, -1.52097, 23.456, -157.42, -94.7999, 56.1296, 1.40961, 0.708146, 5.01131, -1.23185, -95.5947, -90.0888
1.604, -1, -25.0474, -1.50877, 23.4333, -157.444, -94.7825, 56.128, 1.38298, 0.701065, 5.0089, -1.20878, -95.5989, -90.0906
1.608, -1, -25.1243, -1.49658, 23.4107, -157.468, -94.7651, 56.1265, 1.35635, 0.693985, 5.00649, -1.18572, -95.6032, -90.0925
1.612, -1, -25.2012, -1.48439, 23.388, -157.492, -94.7476, 56.1249, 1.32973, 0.686908, 5.00408, -1.16267, -95.6075, -90.0943
1.616, -1, -25.2781, -1.4722, 23.3654, -157.516, -94.7302, 56.1234, 1.30312, 0.679833, 5.00167, -1.13962, -95.6117, -90.0961
1.62, -1, -25.3549, -1.46002, 23.3428, -157.54, -94.7128, 56.1218, 1.27652, 0.672761, 4.99926, -1.11658, -95.616, -90.098
1.624, -1, -25.4318, -1.44784, 23.3201, -157.564, -94.6954, 56.1203, 1.24992, 0.66569, 4.99686, -1.09355, -95.6203, -90.0998
1.628, -1, -25.5086, -1.43567, 23.2975, -157.588, -94.6779, 56.1187, 1.22334, 0.658622, 4.99445, -1.07053, -95.6245, -90.1016
1.632, -1, -25.5854, -1.4235, 23.2749, -157.612, -94.6605, 56.1172, 1.19676, 0.651556, 4.99204, -1.04751, -95.6288, -90.1035
1.636, -1, -25.6621, -1.41133, 23.2523, -157.636, -94.6431, 56.1156, 1.17019, 0.644492, 4.98964, -1.0245, -95.6331, -90.1053
1.64, -1, -25.7389, -1.39917, 23.2297, -157.66, -94.6257, 56.1141, 1.14363, 0.63743, 4.98723, -1.00149, -95.6373, -90.1071
1.644, -1, -25.8156, -1.38701, 23.2071, -157.684, -94.6083, 56.1125, 1.11708, 0.63037, 4.98483, -0.978499, -95.6416, -90.1089
1.648, -1, -25.8923, -1.37486, 23.1845, -157.708, -94.591, 56.111, 1.09053, 0.623313, 4.98242, -0.95551, -95.6458, -90.1108
1.652, -1, -25.9689, -1.36271, 23.162, -157.732, -94.5736, 56.1094, 1.064, 0.616258, 4.98002, -0.932528, -95.6501, -90.1126
1.656, -1, -26.0456, -1.35056, 23.1394, -157.756, -94.5562, 56.1079, 1.03747, 0.609205, 4.97762, -0.909554, -95.6544, -90.1144
1.66, -1, -26.1222, -1.33842, 23.1168, -157.78, -94.5388, 56.1063, 1.01095, 0.602154, 4.97522, -0.886586, -95.6586, -90.1162
1.664, -1, -26.1988, -1.32628, 23.0943, -157.804, -94.5215, 56.1048, 0.984436, 0.595106, 4.97282, -0.863626, -95.6628, -90.1181
1.668, -1, -26.2754, -1.31414, 23.0717, -157.828, -94.5041, 56.1032, 0.957932, 0.588059, 4.97042, -0.840673, -95.6671, -90.1199
1.672, -1, -26.3519, -1.30201, 23.0492, -157.852, -94.4868, 56.1017, 0.931437, 0.581015, 4.96802, -0.817727, -95.6714, -90.1217
1.676, -1, -26.4284, -1.28988, 23.0266, -157.876, -94.4694, 56.1001, 0.90495, 0.573973, 4.96562, -0.794788, -95.6756, -90.1235
1.68, -1, -26.5049, -1.27776, 23.0041, -157.9, -94.4521, 56.0986, 0.878471, 0.566933, 4.96322, -0.771856, -95.6798, -90.1254
1.684, -1, -26.5814, -1.26563, 22.9816, -157.924, -94.4347, 56.0971, 0.852, 0.559895, 4.96083, -0.748931, -95.6841, -90.1272
1.688, -1, -26.6578, -1.25352, 22.9591, -157.948, -94.4174, 56.0955, 0.825538, 0.55286, 4.95843, -0.726013, -95.6883, -90.129
1.692, -1, -26.7343, -1.2414, 22.9366, -157.972, -94.4001, 56.094, 0.799084, 0.545826, 4.95604, -0.703103, -95.6926, -90.1308
1.696, -1, -26.8107, -1.22929, 22.9141, -157.996, -94.3828, 56.0924, 0.772637, 0.538795, 4.95364, -0.680199, -95.6968, -90.1326
1.7, -1, -26.8871, -1.21719, 22.8916, -158.02, -94.3654, 56.0909, 0.746199, 0.531766, 4.95125, -0.657303, -95.7011, -90.1344
1.704, -1, -26.9634, -1.20509, 22.8691, -158.044, -94.3481, 56.0893, 0.71977, 0.52474, 4.94885, -0.634414, -95.7053, -90.1363
1.708, -1, -27.0397, -1.19299, 22.8466, -158.068, -94.3308, 56.0878, 0.693348, 0.517715, 4.94646, -0.611532, -95.7095, -90.1381
1.712, -1, -27.1161, -1.18089, 22.8242, -158.092, -94.3135, 56.0863, 0.666935, 0.510692, 4.94407, -0.588656, -95.7138, -90.1399
1.716, -1, -27.1923, -1.1688, 22.8017, -158.116, -94.2962, 56.0847, 0.640529, 0.503672, 4.94168, -0.565788, -95.718, -90.1417
1.72, -1, -27.2686, -1.15671, 22.7792, -158.14, -94.2789, 56.0832, 0.614132, 0.496654, 4.93929, -0.542927, -95.7222, -90.1435
1.724, -1, -27.3449, -1.14463, 22.7568, -158.164, -94.2617, 56.0816, 0.587743, 0.489638, 4.9369, -0.520073, -95.7265, -90.1453
1.728, -1, -27.4211, -1.13255, 22.7344, -158.187, -94.2444, 56.0801, 0.561362, 0.482624, 4.93451, -0.497226, -95.7307, -90.1472
1.732, -1, -27.4973, -1.12047, 22.7119, -158.211, -94.2271, 56.0786, 0.534988, 0.475612, 4.93212, -0.474386, -95.7349, -90.149
1.736, -1, -27.5734, -1.1084, 22.6895, -158.235, -94.2098, 56.077, 0.508623, 0.468603, 4.92974, -0.451553, -95.7392, -90.1508
1.74, -1, -27.6496, -1.09633, 22.6671, -158.259, -94.1926, 56.0755, 0.482266, 0.461595, 4.92735, -0.428726, -95.7434, -90.1526
1.744, -1, -27.7257, -1.08426, 22.6446, -158.283, -94.1753, 56.0739, 0.455916, 0.45459, 4.92496, -0.405907, -95.7476, -90.1544
1.748, -1, -27.8018, -1.0722, 22.6222, -158.307, -94.1581, 56.0724, 0.429575, 0.447587, 4.92258, -0.383094, -95.7518, -90.1562
1.752, -1, -27.8779, -1.06014, 22.5998, -158.331, -94.1408, 56.0709, 0.403241, 0.440585, 4.92019, -0.360288, -95.7561, -90.158
1.756, -1, -27.954, -1.04809, 22.5774, -158.354, -94.1236, 56.0693, 0.376915, 0.433586, 4.91781, -0.337489, -95.7603, -90.1598
1.76, -1, -28.03, -1.03604, 22.555, -158.378, -94.1063, 56.0678, 0.350597, 0.426589, 4.91543, -0.314696, -95.7645, -90.1617
1.764, -1, -28.106, -1.02399, 22.5327, -158.402, -94.0891, 56.0663, 0.324287, 0.419594, 4.91305, -0.29191, -95.7687, -90.1635
1.768, -1, -28.182, -1.01195, 22.5103, -158.426, -94.0719, 56.0647, 0.297984, 0.412601, 4.91066, -0.269131, -95.7729, -90.1653
1.772, -1, -28.258, -0.999906, 22.4879, -158.45, -94.0546, 56.0632, 0.27169, 0.40561, 4.90828, -0.246359, -95.7772, -90.1671
1.776, -1, -28.3339, -0.987869, 22.4656, -158.473, -94.0374, 56.0617, 0.245403, 0.398621, 4.9059, -0.223593, -95.7814, -90.1689
1.78, -1, -28.4098, -0.975836, 22.4432, -158.497, -94.0202, 56.0601, 0.219123, 0.391635, 4.90352, -0.200834, -95.7856, -90.1707
1.784, -1, -28.4857, -0.963806, 22.4209, -158.521, -94.003, 56.0586, 0.192852, 0.38465, 4.90114, -0.178082, -95.7898, -90.1725
1.788, -1, -28.5616, -0.95178, 22.3985, -158.545, -93.9858, 56.0571, 0.166588, 0.377667, 4.89877, -0.155337, -95.794, -90.1743
1.792, -1, -28.6375, -0.939757, 22.3762, -158.569, -93.9686, 56.0555, 0.140332, 0.370687, 4.89639, -0.132598, -95.7982, -90.1761
1.796, -1, -28.7133, -0.927738, 22.3538, -158.592, -93.9514, 56.054, 0.114084, 0.363708, 4.89401, -0.109866, -95.8024, -90.1779
1.8, -1, -28.7891, -0.915723, 22.3315, -158.616, -93.9342, 56.0525, 0.0878439, 0.356732, 4.89164, -0.0871406, -95.8066, -90.1797
1.804, -1, -28.8649, -0.903711, 22.3092, -158.64, -93.917, 56.0509, 0.0616112, 0.349757, 4.88926, -0.0644219, -95.8109, -90.1815
1.808, -1, -28.9406, -0.891702, 22.2869, -158.664, -93.8999, 56.0494, 0.0353863, 0.342785, 4.88689, -0.04171, -95.8151, -90.1833
1.812, -1, -29.0164, -0.879697, 22.2646, -158.687, -93.8827, 56.0479, 0.00916905, 0.335815, 4.88451, -0.0190048, -95.8193, -90.1851
1.816, -1, -29.0921, -0.867696, 22.2423, -158.711, -93.8655, 56.0463, -0.0170404, 0.328846, 4.88214, 0.00369371, -95.8235, -90.1869
1.82, -1, -29.1678, -0.855698, 22.22, -158.735, -93.8484, 56.0448, -0.0432422, 0.32188, 4.87977, 0.0263855, -95.8277, -90.1887
1.824, -1, -29.2435, -0.843704, 22.1977, -158.758, -93.8312, 56.0433, -0.0694362, 0.314916, 4.8774, 0.0490707, -95.8319, -90.1905
1.828, -1, -29.3191, -0.831713, 22.1754, -158.782, -93.8141, 56.0418, -0.0956225, 0.307954, 4.87502, 0.0717491, -95.8361, -90.1923
1.832, -1, -29.3948, -0.819726, 22.1532, -158.806, -93.7969, 56.0402, -0.121801, 0.300994, 4.87265, 0.0944209, -95.8403, -90.1941
1.836, -1, -29.4704, -0.807742, 22.1309, -158.83, -93.7798, 56.0387, -0.147972, 0.294036, 4.87029, 0.117086, -95.8445, -90.1959
1.84, -1, -29.546, -0.795762, 22.1087, -158.853, -93.7626, 56.0372, -0.174135, 0.28708, 4.86792, 0.139744, -95.8487, -90.1977
1.844, -1, -29.6215, -0.783785, 22.0864, -158.877, -93.7455, 56.0356, -0.20029, 0.280126, 4.86555, 0.162396, -95.8529, -90.1995
1.848, -1, -29.6971, -0.771812, 22.0642, -158.901, -93.7284, 56.0341, -0.226438, 0.273174, 4.86318, 0.185041, -95.8571, -90.2013
1.852, -1, -29.7726, -0.759843, 22.0419, -158.924, -93.7113, 56.0326, -0.252578, 0.266225, 4.86081, 0.207679, -95.8613, -90.2031
1.856, -1, -29.8481, -0.747876, 22.0197, -158.948, -93.6942, 56.0311, -0.278711, 0.259277, 4.85845, 0.230311, -95.8654, -90.2049
1.86, -1, -29.9236, -0.735914, 21.9975, -158.972, -93.677, 56.0295, -0.304835, 0.252331, 4.85608, 0.252936, -95.8696, -90.2067
1.864, -1, -29.999, -0.723955, 21.9752, -158.995, -93.6599, 56.028, -0.330952, 0.245388, 4.85372, 0.275555, -95.8738, -90.2085
1.868, -1, -30.0744, -0.711999, 21.953, -159.019, -93.6428, 56.0265, -0.357061, 0.238446, 4.85135, 0.298166, -95.878, -90.2103
1.872, -1, -30.1498, -0.700047, 21.9308, -159.042, -93.6257, 56.025, -0.383163, 0.231506, 4.84899, 0.320771, -95.8822, -90.2121
1.876, -1, -30.2252, -0.688099, 21.9086, -159.066, -93.6086, 56.0234, -0.409257, 0.224569, 4.84663, 0.34337, -95.8864, -90.2139
1.88, -1, -30.3006, -0.676154, 21.8864, -159.09, -93.5916, 56.0219, -0.435343, 0.217633, 4.84427, 0.365962, -95.8906, -90.2157
1.884, -1, -30.3759, -0.664212, 21.8642, -159.113, -93.5745, 56.0204, -0.461422, 0.2107, 4.8419, 0.388547, -95.8947, -90.2175
1.888, -1, -30.4513, -0.652275, 21.8421, -159.137, -93.5574, 56.0189, -0.487493, 0.203769, 4.83954, 0.411125, -95.8989, -90.2193
1.892, -1, -30.5266, -0.64034, 21.8199, -159.16, -93.5403, 56.0174, -0.513556, 0.196839, 4.83718, 0.433697, -95.9031, -90.2211
1.896, -1, -30.6018, -0.628409, 21.7977, -159.184, -93.5233, 56.0158, -0.539611, 0.189912, 4.83482, 0.456262, -95.9073, -90.2229
1.9, -1, -30.6771, -0.616482, 21.7756, -159.208, -93.5062, 56.0143, -0.565659, 0.182987, 4.83247, 0.478821, -95.9115, -90.2247
1.904, -1, -30.7523, -0.604558, 21.7534, -159.231, -93.4892, 56.0128, -0.591699, 0.176063, 4.83011, 0.501373, -95.9156, -90.2265
1.908, -1, -30.8275, -0.592638, 21.7313, -159.255, -93.4721, 56.0113, -0.617732, 0.169142, 4.82775, 0.523918, -95.9198, -90.2282
1.912, -1, -30.9027, -0.580721, 21.7091, -159.278, -93.4551, 56.0098, -0.643757, 0.162223, 4.8254, 0.546457, -95.924, -90.23
1.916, -1, -30.9779, -0.568807, 21.687, -159.302, -93.438, 56.0082, -0.669774, 0.155306, 4.82304, 0.568989, -95.9282, -90.2318
1.92, -1, -31.053, -0.556897, 21.6649, -159.325, -93.421, 56.0067, -0.695784, 0.148391, 4.82068, 0.591515, -95.9323, -90.2336
1.924, -1, -31.1281, -0.544991, 21.6428, -159.349, -93.404, 56.0052, -0.721786, 0.141478, 4.81833, 0.614033, -95.9365, -90.2354
1.928, -1, -31.2032, -0.533088, 21.6206, -159.373, -93.3869, 56.0037, -0.74778, 0.134567, 4.81598, 0.636546, -95.9407, -90.2372
1.932, -1, -31.2783, -0.521189, 21.5985, -159.396, -93.3699, 56.0022, -0.773767, 0.127658, 4.81362, 0.659051, -95.9448, -90.239
1.936, -1, -31.3534, -0.509293, 21.5764, -159.42, -93.3529, 56.0007, -0.799746, 0.120751, 4.81127, 0.68155, -95.949, -90.2408
1.94, -1, -31.4284, -0.4974, 21.5543, -159.443, -93.3359, 55.9991, -0.825718, 0.113846, 4.80892, 0.704043, -95.9532, -90.2426
1.944, -1, -31.5034, -0.485511, 21.5322, -159.467, -93.3189, 55.9976, -0.851682, 0.106943, 4.80657, 0.726529, -95.9573, -90.2443
1.948, -1, -31.5784, -0.473626, 21.5102, -159.49, -93.3019, 55.9961, -0.877638, 0.100042, 4.80422, 0.749008, -95.9615, -90.2461
1.952, -1, -31.6534, -0.461744, 21.4881, -159.514, -93.2849, 55.9946, -0.903587, 0.0931429, 4.80187, 0.771481, -95.9657, -90.2479
1.956, -1, -31.7283, -0.449865, 21.466, -159.537, -93.2679, 55.9931, -0.929528, 0.086246, 4.79952, 0.793947, -95.9698, -90.2497
1.96, -1, -31.8032, -0.43799, 21.444, -159.561, -93.2509, 55.9916, -0.955461, 0.0793511, 4.79717, 0.816406, -95.974, -90.2515
1.964, -1, -31.8781, -0.426119, 21.4219, -159.584, -93.2339, 55.9901, -0.981387, 0.0724583, 4.79482, 0.838859, -95.9781, -90.2533
1.968, -1, -31.953, -0.414251, 21.3999, -159.607, -93.2169, 55.9885, -1.00731, 0.0655675, 4.79248, 0.861305, -95.9823, -90.255
1.972, -1, -32.0279, -0.402386, 21.3778, -159.631, -93.2, 55.987, -1.03322, 0.0586787, 4.79013, 0.883745, -95.9864, -90.2568
1.976, -1, -32.1027, -0.390525, 21.3558, -159.654, -93.183, 55.9855, -1.05912, 0.0517919, 4.78779, 0.906178, -95.9906, -90.2586
1.98, -1, -32.1775, -0.378668, 21.3337, -159.678, -93.166, 55.984, -1.08501, 0.0449072, 4.78544, 0.928605, -95.9948, -90.2604
1.984, -1, -32.2523, -0.366813, 21.3117, -159.701, -93.1491, 55.9825, -1.1109, 0.0380244, 4.7831, 0.951025, -95.9989, -90.2622
1.988, -1, -32.3271, -0.354963, 21.2897, -159.725, -93.1321, 55.981, -1.13678, 0.0311437, 4.78075, 0.973438, -96.0031, -90.2639
1.992, -1, -32.4018, -0.343116, 21.2677, -159.748, -93.1152, 55.9795, -1.16266, 0.024265, 4.77841, 0.995845, -96.0072, -90.2657
1.996, -1, -32.4766, -0.331272, 21.2457, -159.772, -93.0983, 55.978, -1.18852, 0.0173883, 4.77607, 1.01825, -96.0114, -90.2675
1.999, -1, -32.5513, -0.319432, 21.2237, -159.795, -93.0813, 55.9765, -1.21438, 0.0105136, 4.77373, 1.04064, -96.0155, -90.2693
2.004, -1, -32.6259, -0.307595, 21.2017, -159.818, -93.0644, 55.975, -1.24023, 0.00364095, 4.77138, 1.06303, -96.0196, -90.2711
2.008, -1, -32.7006, -0.295761, 21.1797, -159.842, -93.0475, 55.9734, -1.26607, -0.00322971, 4.76904, 1.08541, -96.0238, -90.2728
2.012, -1, -32.7752, -0.283931, 21.1577, -159.865, -93.0305, 55.9719, -1.29191, -0.0100984, 4.7667, 1.10778, -96.0279, -90.2746
2.015, -1, -32.8499, -0.272105, 21.1358, -159.888, -93.0136, 55.9704, -1.31773, -0.016965, 4.76436, 1.13015, -96.0321, -90.2764
2.019, -1, -32.9244, -0.260282, 21.1138, -159.912, -92.9967, 55.9689, -1.34355, -0.0238296, 4.76203, 1.15251, -96.0362, -90.2782
2.024, -1, -32.999, -0.248463, 21.0918, -159.935, -92.9798, 55.9674, -1.36937, -0.0306923, 4.75969, 1.17486, -96.0404, -90.2799
2.028, -1, -33.0736, -0.236647, 21.0699, -159.959, -92.9629, 55.9659, -1.39517, -0.0375529, 4.75735, 1.19721, -96.0445, -90.2817
2.031, -1, -33.1481, -0.224834, 21.0479, -159.982, -92.946, 55.9644, -1.42097, -0.0444115, 4.75502, 1.21955, -96.0486, -90.2835
2.036, -1, -33.2226, -0.213025, 21.026, -160.005, -92.9291, 55.9629, -1.44676, -0.0512681, 4.75268, 1.24189, -96.0528, -90.2853
2.04, -1, -33.2971, -0.201219, 21.0041, -160.029, -92.9122, 55.9614, -1.47254, -0.0581228, 4.75035, 1.26422, -96.0569, -90.287
2.044, -1, -33.3716, -0.189417, 20.9821, -160.052, -92.8954, 55.9599, -1.49831, -0.0649754, 4.74801, 1.28654, -96.061, -90.2888
2.048, -1, -33.446, -0.177618, 20.9602, -160.075, -92.8785, 55.9584, -1.52408, -0.071826, 4.74568, 1.30885, -96.0652, -90.2906
2.051, -1, -33.5204, -0.165823, 20.9383, -160.099, -92.8616, 55.9569, -1.54984, -0.0786746, 4.74335, 1.33116, -96.0693, -90.2924
2.055, -1, -33.5948, -0.154031, 20.9164, -160.122, -92.8447, 55.9554, -1.57559, -0.0855212, 4.74102, 1.35347, -96.0734, -90.2941
2.06, -1, -33.6692, -0.142242, 20.8945, -160.145, -92.8279, 55.9539, -1.60134, -0.0923658, 4.73869, 1.37576, -96.0776, -90.2959
2.064, -1, -33.7435, -0.130457, 20.8726, -160.169, -92.811, 55.9524, -1.62707, -0.0992084, 4.73636, 1.39805, -96.0817, -90.2977
2.068, -1, -33.8179, -0.118676, 20.8507, -160.192, -92.7942, 55.9509, -1.6528, -0.106049, 4.73403, 1.42033, -96.0858, -90.2994
2.071, -1, -33.8922, -0.106897, 20.8288, -160.215, -92.7773, 55.9494, -1.67852, -0.112888, 4.7317, 1.44261, -96.0899, -90.3012
2.076, -1, -33.9665, -0.0951227, 20.807, -160.238, -92.7605, 55.9479, -1.70424, -0.119724, 4.72937, 1.46488, -96.0941, -90.303
2.08, -1, -34.0408, -0.0833514, 20.7851, -160.262, -92.7436, 55.9464, -1.72995, -0.126559, 4.72704, 1.48714, -96.0982, -90.3047
2.084, -1, -34.115, -0.0715835, 20.7632, -160.285, -92.7268, 55.9449, -1.75565, -0.133392, 4.72471, 1.5094, -96.1023, -90.3065
2.087, -1, -34.1892, -0.0598191, 20.7414, -160.308, -92.71, 55.9434, -1.78134, -0.140222, 4.72239, 1.53165, -96.1064, -90.3083
2.092, -1, -34.2634, -0.0480581, 20.7195, -160.331, -92.6932, 55.9419, -1.80702, -0.147051, 4.72006, 1.55389, -96.1105, -90.31
2.096, -1, -34.3376, -0.0363005, 20.6977, -160.355, -92.6763, 55.9404, -1.8327, -0.153878, 4.71774, 1.57613, -96.1147, -90.3118
2.1, -1, -34.4118, -0.0245464, 20.6758, -160.378, -92.6595, 55.9389, -1.85837, -0.160702, 4.71541, 1.59836, -96.1188, -90.3136
2.104, -1, -34.4859, -0.0127956, 20.654, -160.401, -92.6427, 55.9374, -1.88403, -0.167525, 4.71309, 1.62059, -96.1229, -90.3153
2.107, -1, -34.56, -0.00104832, 20.6322, -160.424, -92.6259, 55.9359, -1.90969, -0.174346, 4.71077, 1.6428, -96.127, -90.3171
2.111, -1, -34.6341, 0.0106956, 20.6104, -160.448, -92.6091, 55.9344, -1.93533, -0.181164, 4.70845, 1.66502, -96.1311, -90.3189
2.116, -1, -34.7082, 0.022436, 20.5886, -160.471, -92.5923, 55.9329, -1.96097, -0.187981, 4.70612, 1.68722, -96.1352, -90.3206
2.12, -1, -34.7822, 0.0341731, 20.5667, -160.494, -92.5755, 55.9314, -1.9866, -0.194796, 4.7038, 1.70942, -96.1393, -90.3224
2.124, -1, -34.8563, 0.0459067, 20.5449, -160.517, -92.5588, 55.9299, -2.01223, -0.201609, 4.70148, 1.73161, -96.1435, -90.3242
2.127, -1, -34.9303, 0.0576369, 20.5232, -160.54, -92.542, 55.9284, -2.03785, -0.208419, 4.69916, 1.7538, -96.1476, -90.3259
2.132, -1, -35.0043, 0.0693638, 20.5014, -160.564, -92.5252, 55.9269, -2.06346, -0.215228, 4.69684, 1.77598, -96.1517, -90.3277
2.136, -1, -35.0782, 0.0810871, 20.4796, -160.587, -92.5084, 55.9254, -2.08906, -0.222035, 4.69453, 1.79815, -96.1558, -90.3294
2.14, -1, -35.1522, 0.0928071, 20.4578, -160.61, -92.4917, 55.9239, -2.11465, -0.22884, 4.69221, 1.82032, -96.1599, -90.3312
2.143, -1, -35.2261, 0.104524, 20.436, -160.633, -92.4749, 55.9224, -2.14024, -0.235643, 4.68989, 1.84248, -96.164, -90.333
2.148, -1, -35.3, 0.116237, 20.4143, -160.656, -92.4582, 55.9209, -2.16582, -0.242444, 4.68758, 1.86463, -96.1681, -90.3347
2.152, -1, -35.3739, 0.127947, 20.3925, -160.679, -92.4414, 55.9194, -2.19139, -0.249242, 4.68526, 1.88678, -96.1722, -90.3365
2.156, -1, -35.4478, 0.139653, 20.3708, -160.703, -92.4247, 55.9179, -2.21696, -0.256039, 4.68295, 1.90892, -96.1763, -90.3382
2.16, -1, -35.5216, 0.151356, 20.349, -160.726, -92.4079, 55.9165, -2.24252, -0.262834, 4.68063, 1.93105, -96.1804, -90.34
2.163, -1, -35.5954, 0.163056, 20.3273, -160.749, -92.3912, 55.915, -2.26807, -0.269627, 4.67832, 1.95318, -96.1845, -90.3418
2.168, -1, -35.6692, 0.174752, 20.3056, -160.772, -92.3745, 55.9135, -2.29361, -0.276418, 4.67601, 1.9753, -96.1886, -90.3435
2.172, -1, -35.743, 0.186445, 20.2838, -160.795, -92.3577, 55.912, -2.31914, -0.283207, 4.67369, 1.99741, -96.1927, -90.3453
2.176, -1, -35.8167, 0.198134, 20.2621, -160.818, -92.341, 55.9105, -2.34467, -0.289995, 4.67138, 2.01952, -96.1968, -90.347
2.179, -1, -35.8905, 0.20982, 20.2404, -160.841, -92.3243, 55.909, -2.37019, -0.29678, 4.66907, 2.04162, -96.2009, -90.3488
2.184, -1, -35.9642, 0.221502, 20.2187, -160.864, -92.3076, 55.9075, -2.39571, -0.303563, 4.66676, 2.06372, -96.205, -90.3505
2.188, -1, -36.0378, 0.233182, 20.197, -160.887, -92.2909, 55.906, -2.42121, -0.310344, 4.66445, 2.08581, -96.2091, -90.3523
2.192, -1, -36.1115, 0.244857, 20.1753, -160.911, -92.2742, 55.9045, -2.44671, -0.317123, 4.66214, 2.10789, -96.2131, -90.354
2.196, -1, -36.1852, 0.25653, 20.1536, -160.934, -92.2575, 55.9031, -2.4722, -0.3239, 4.65984, 2.12997, -96.2172, -90.3558
2.199, -1, -36.2588, 0.268199, 20.132, -160.957, -92.2408, 55.9016, -2.49769, -0.330676, 4.65753, 2.15204, -96.2213, -90.3575
2.204, -1, -36.3324, 0.279865, 20.1103, -160.98, -92.2241, 55.9001, -2.52316, -0.337449, 4.65522, 2.1741, -96.2254, -90.3593
2.208, -1, -36.406, 0.291527, 20.0886, -161.003, -92.2074, 55.8986, -2.54863, -0.34422, 4.65292, 2.19616, -96.2295, -90.361
2.212, -1, -36.4795, 0.303186, 20.067, -161.026, -92.1908, 55.8971, -2.57409, -0.35099, 4.65061, 2.21821, -96.2336, -90.3628
2.216, -1, -36.5531, 0.314841, 20.0453, -161.049, -92.1741, 55.8956, -2.59955, -0.357757, 4.6483, 2.24025, -96.2377, -90.3645
2.219, -1, -36.6266, 0.326493, 20.0237, -161.072, -92.1574, 55.8941, -2.62499, -0.364522, 4.646, 2.26229, -96.2417, -90.3663
2.224, -1, -36.7001, 0.338142, 20.002, -161.095, -92.1407, 55.8927, -2.65043, -0.371286, 4.6437, 2.28432, -96.2458, -90.368
2.228, -1, -36.7735, 0.349788, 19.9804, -161.118, -92.1241, 55.8912, -2.67586, -0.378047, 4.6414, 2.30635, -96.2499, -90.3698
2.232, -1, -36.847, 0.36143, 19.9588, -161.141, -92.1074, 55.8897, -2.70129, -0.384807, 4.63909, 2.32837, -96.254, -90.3715
2.235, -1, -36.9204, 0.373068, 19.9371, -161.164, -92.0908, 55.8882, -2.72671, -0.391565, 4.63679, 2.35038, -96.258, -90.3733
2.24, -1, -36.9938, 0.384704, 19.9155, -161.187, -92.0742, 55.8867, -2.75212, -0.39832, 4.63449, 2.37239, -96.2621, -90.375
2.244, -1, -37.0672, 0.396336, 19.8939, -161.21, -92.0575, 55.8852, -2.77752, -0.405074, 4.63219, 2.39439, -96.2662, -90.3768
2.248, -1, -37.1406, 0.407964, 19.8723, -161.233, -92.0409, 55.8838, -2.80291, -0.411826, 4.62989, 2.41638, -96.2703, -90.3785
2.252, -1, -37.2139, 0.419589, 19.8507, -161.256, -92.0243, 55.8823, -2.8283, -0.418575, 4.62759, 2.43837, -96.2743, -90.3803
2.255, -1, -37.2873, 0.431211, 19.8291, -161.279, -92.0076, 55.8808, -2.85368, -0.425323, 4.62529, 2.46035, -96.2784, -90.382
2.259, -1, -37.3606, 0.442829, 19.8075, -161.302, -91.991, 55.8793, -2.87906, -0.432069, 4.623, 2.48232, -96.2825, -90.3838
2.264, -1, -37.4339, 0.454445, 19.7859, -161.325, -91.9744, 55.8778, -2.90442, -0.438813, 4.6207, 2.50429, -96.2866, -90.3855
2.268, -1, -37.5071, 0.466056, 19.7644, -161.348, -91.9578, 55.8763, -2.92978, -0.445555, 4.6184, 2.52625, -96.2906, -90.3873
2.272, -1, -37.5804, 0.477665, 19.7428, -161.371, -91.9412, 55.8749, -2.95513, -0.452295, 4.61611, 2.54821, -96.2947, -90.389
2.275, -1, -37.6536, 0.48927, 19.7212, -161.394, -91.9246, 55.8734, -2.98047, -0.459033, 4.61381, 2.57015, -96.2988, -90.3907
2.28, -1, -37.7268, 0.500871, 19.6997, -161.417, -91.908, 55.8719, -3.00581, -0.465769, 4.61152, 2.5921, -96.3028, -90.3925
2.284, -1, -37.7999, 0.51247, 19.6781, -161.44, -91.8914, 55.8704, -3.03114, -0.472504, 4.60923, 2.61403, -96.3069, -90.3942
2.288, -1, -37.8731, 0.524065, 19.6566, -161.462, -91.8748, 55.869, -3.05646, -0.479236, 4.60693, 2.63596, -96.3109, -90.396
2.291, -1, -37.9462, 0.535656, 19.6351, -161.485, -91.8582, 55.8675, -3.08178, -0.485966, 4.60464, 2.65789, -96.315, -90.3977
2.296, -1, -38.0194, 0.547245, 19.6135, -161.508, -91.8417, 55.866, -3.10708, -0.492695, 4.60235, 2.6798, -96.3191, -90.3995
2.3, -1, -38.0924, 0.55883, 19.592, -161.531, -91.8251, 55.8645, -3.13238, -0.499421, 4.60006, 2.70171, -96.3231, -90.4012
2.304, -1, -38.1655, 0.570411, 19.5705, -161.554, -91.8085, 55.863, -3.15768, -0.506145, 4.59777, 2.72362, -96.3272, -90.4029
2.308, -1, -38.2386, 0.581989, 19.549, -161.577, -91.792, 55.8616, -3.18296, -0.512868, 4.59548, 2.74552, -96.3312, -90.4047
2.311, -1, -38.3116, 0.593564, 19.5275, -161.6, -91.7754, 55.8601, -3.20824, -0.519589, 4.59319, 2.76741, -96.3353, -90.4064
2.316, -1, -38.3846, 0.605136, 19.506, -161.623, -91.7589, 55.8586, -3.23351, -0.526307, 4.5909, 2.78929, -96.3393, -90.4081
2.32, -1, -38.4576, 0.616704, 19.4845, -161.646, -91.7423, 55.8571, -3.25877, -0.533024, 4.58862, 2.81117, -96.3434, -90.4099
2.324, -1, -38.5306, 0.628269, 19.463, -161.668, -91.7258, 55.8557, -3.28403, -0.539739, 4.58633, 2.83305, -96.3474, -90.4116
2.328, -1, -38.6035, 0.639831, 19.4415, -161.691, -91.7092, 55.8542, -3.30928, -0.546452, 4.58404, 2.85491, -96.3515, -90.4134
2.331, -1, -38.6764, 0.651389, 19.42, -161.714, -91.6927, 55.8527, -3.33452, -0.553163, 4.58176, 2.87677, -96.3555, -90.4151
2.336, -1, -38.7493, 0.662944, 19.3986, -161.737, -91.6762, 55.8513, -3.35976, -0.559872, 4.57947, 2.89863, -96.3596, -90.4168
2.34, -1, -38.8222, 0.674495, 19.3771, -161.76, -91.6596, 55.8498, -3.38498, -0.566579, 4.57719, 2.92048, -96.3636, -90.4186
2.344, -1, -38.8951, 0.686044, 19.3557, -161.783, -91.6431, 55.8483, -3.4102, -0.573284, 4.5749, 2.94232, -96.3677, -90.4203
2.347, -1, -38.9679, 0.697588, 19.3342, -161.806, -91.6266, 55.8468, -3.43542, -0.579987, 4.57262, 2.96415, -96.3717, -90.422
2.352, -1, -39.0407, 0.70913, 19.3128, -161.828, -91.6101, 55.8454, -3.46062, -0.586688, 4.57034, 2.98598, -96.3758, -90.4238
2.356, -1, -39.1135, 0.720668, 19.2913, -161.851, -91.5936, 55.8439, -3.48582, -0.593388, 4.56806, 3.0078, -96.3798, -90.4255
2.36, -1, -39.1863, 0.732203, 19.2699, -161.874, -91.5771, 55.8424, -3.51101, -0.600085, 4.56578, 3.02962, -96.3838, -90.4272
2.364, -1, -39.2591, 0.743735, 19.2485, -161.897, -91.5606, 55.841, -3.53619, -0.60678, 4.5635, 3.05143, -96.3879, -90.429
2.367, -1, -39.3318, 0.755263, 19.2271, -161.92, -91.5441, 55.8395, -3.56137, -0.613474, 4.56122, 3.07323, -96.3919, -90.4307
2.372, -1, -39.4045, 0.766788, 19.2057, -161.942, -91.5276, 55.838, -3.58654, -0.620166, 4.55894, 3.09503, -96.396, -90.4324
2.376, -1, -39.4772, 0.77831, 19.1842, -161.965, -91.5111, 55.8366, -3.6117, -0.626855, 4.55666, 3.11682, -96.4, -90.4342
2.38, -1, -39.5499, 0.789829, 19.1628, -161.988, -91.4947, 55.8351, -3.63686, -0.633543, 4.55438, 3.13861, -96.404, -90.4359
2.383, -1, -39.6225, 0.801344, 19.1415, -162.011, -91.4782, 55.8336, -3.662, -0.640229, 4.55211, 3.16039, -96.4081, -90.4376
2.388, -1, -39.6952, 0.812856, 19.1201, -162.033, -91.4617, 55.8321, -3.68714, -0.646913, 4.54983, 3.18216, -96.4121, -90.4393
2.392, -1, -39.7678, 0.824364, 19.0987, -162.056, -91.4453, 55.8307, -3.71228, -0.653595, 4.54755, 3.20393, -96.4161, -90.4411
2.396, -1, -39.8404, 0.83587, 19.0773, -162.079, -91.4288, 55.8292, -3.7374, -0.660275, 4.54528, 3.22569, -96.4201, -90.4428
2.4, -1, -39.9129, 0.847372, 19.0559, -162.102, -91.4124, 55.8278, -3.76252, -0.666953, 4.543, 3.24744, -96.4242, -90.4445
2.403, -1, -39.9855, 0.858871, 19.0346, -162.124, -91.3959, 55.8263, -3.78763, -0.67363, 4.54073, 3.26919, -96.4282, -90.4463
2.408, -1, -40.058, 0.870367, 19.0132, -162.147, -91.3795, 55.8248, -3.81274, -0.680304, 4.53846, 3.29093, -96.4322, -90.448
2.412, -1, -40.1305, 0.881859, 18.9919, -162.17, -91.363, 55.8234, -3.83784, -0.686977, 4.53619, 3.31267, -96.4362, -90.4497
2.416, -1, -40.203, 0.893348, 18.9705, -162.193, -91.3466, 55.8219, -3.86293, -0.693648, 4.53391, 3.3344, -96.4403, -90.4514
2.42, -1, -40.2755, 0.904834, 18.9492, -162.215, -91.3302, 55.8204, -3.88801, -0.700317, 4.53164, 3.35612, -96.4443, -90.4532
2.423, -1, -40.3479, 0.916317, 18.9279, -162.238, -91.3138, 55.819, -3.91309, -0.706984, 4.52937, 3.37784, -96.4483, -90.4549
2.428, -1, -40.4204, 0.927796, 18.9065, -162.261, -91.2973, 55.8175, -3.93816, -0.713649, 4.5271, 3.39955, -96.4523, -90.4566
2.432, -1, -40.4928, 0.939272, 18.8852, -162.283, -91.2809, 55.816, -3.96322, -0.720312, 4.52483, 3.42126, -96.4564, -90.4583
2.436, -1, -40.5652, 0.950745, 18.8639, -162.306, -91.2645, 55.8146, -3.98827, -0.726974, 4.52256, 3.44296, -96.4604, -90.4601
2.439, -1, -40.6375, 0.962215, 18.8426, -162.329, -91.2481, 55.8131, -4.01332, -0.733633, 4.5203, 3.46465, -96.4644, -90.4618
2.444, -1, -40.7099, 0.973682, 18.8213, -162.351, -91.2317, 55.8117, -4.03836, -0.740291, 4.51803, 3.48634, -96.4684, -90.4635
2.448, -1, -40.7822, 0.985145, 18.8, -162.374, -91.2153, 55.8102, -4.0634, -0.746947, 4.51576, 3.50802, -96.4724, -90.4652
2.452, -1, -40.8545, 0.996606, 18.7787, -162.397, -91.1989, 55.8087, -4.08843, -0.753601, 4.5135, 3.52969, -96.4764, -90.4669
2.456, -1, -40.9268, 1.00806, 18.7574, -162.419, -91.1825, 55.8073, -4.11345, -0.760253, 4.51123, 3.55136, -96.4805, -90.4687
2.459, -1, -40.9991, 1.01952, 18.7361, -162.442, -91.1661, 55.8058, -4.13846, -0.766903, 4.50897, 3.57302, -96.4845, -90.4704
2.464, -1, -41.0713, 1.03097, 18.7148, -162.465, -91.1498, 55.8044, -4.16347, -0.773552, 4.5067, 3.59468, -96.4885, -90.4721
2.468, -1, -41.1435, 1.04241, 18.6936, -162.487, -91.1334, 55.8029, -4.18847, -0.780198, 4.50444, 3.61633, -96.4925, -90.4738
2.472, -1, -41.2157, 1.05386, 18.6723, -162.51, -91.117, 55.8014, -4.21346, -0.786843, 4.50218, 3.63798, -96.4965, -90.4755
2.476, -1, -41.2879, 1.0653, 18.6511, -162.532, -91.1007, 55.8, -4.23845, -0.793486, 4.49991, 3.65962, -96.5005, -90.4773
2.479, -1, -41.3601, 1.07674, 18.6298, -162.555, -91.0843, 55.7985, -4.26342, -0.800127, 4.49765, 3.68125, -96.5045, -90.479
2.484, -1, -41.4322, 1.08817, 18.6086, -162.578, -91.0679, 55.7971, -4.2884, -0.806766, 4.49539, 3.70287, -96.5085, -90.4807
2.488, -1, -41.5044, 1.0996, 18.5873, -162.6, -91.0516, 55.7956, -4.31336, -0.813404, 4.49313, 3.7245, -96.5125, -90.4824
2.492, -1, -41.5765, 1.11103, 18.5661, -162.623, -91.0352, 55.7941, -4.33832, -0.820039, 4.49087, 3.74611, -96.5165, -90.4841
2.495, -1, -41.6485, 1.12246, 18.5449, -162.645, -91.0189, 55.7927, -4.36327, -0.826673, 4.48861, 3.76772, -96.5205, -90.4858
2.5, -1, -41.7206, 1.13388, 18.5237, -162.668, -91.0026, 55.7912, -4.38822, -0.833305, 4.48635, 3.78932, -96.5245, -90.4876
2.504, -1, -41.7927, 1.1453, 18.5024, -162.691, -90.9862, 55.7898, -4.41315, -0.839935, 4.48409, 3.81092, -96.5285, -90.4893
2.508, -1, -41.8647, 1.15671, 18.4812, -162.713, -90.9699, 55.7883, -4.43808, -0.846563, 4.48184, 3.83251, -96.5325, -90.491
2.512, -1, -41.9367, 1.16813, 18.46, -162.736, -90.9536, 55.7869, -4.46301, -0.853189, 4.47958, 3.85409, -96.5365, -90.4927
2.515, -1, -42.0087, 1.17954, 18.4388, -162.758, -90.9373, 55.7854, -4.48792, -0.859814, 4.47732, 3.87567, -96.5405, -90.4944
2.52, -1, -42.0806, 1.19094, 18.4176, -162.781, -90.9209, 55.784, -4.51283, -0.866436, 4.47507, 3.89725, -96.5445, -90.4961
2.524, -1, -42.1526, 1.20235, 18.3965, -162.803, -90.9046, 55.7825, -4.53774, -0.873057, 4.47281, 3.91881, -96.5485, -90.4978
2.528, -1, -42.2245, 1.21375, 18.3753, -162.826, -90.8883, 55.7811, -4.56263, -0.879676, 4.47056, 3.94037, -96.5525, -90.4996
2.531, -1, -42.2964, 1.22514, 18.3541, -162.848, -90.872, 55.7796, -4.58752, -0.886294, 4.46831, 3.96193, -96.5565, -90.5013
2.536, -1, -42.3683, 1.23654, 18.3329, -162.871, -90.8557, 55.7781, -4.6124, -0.892909, 4.46605, 3.98348, -96.5605, -90.503
2.54, -1, -42.4402, 1.24793, 18.3118, -162.894, -90.8394, 55.7767, -4.63728, -0.899523, 4.4638, 4.00502, -96.5645, -90.5047
2.544, -1, -42.512, 1.25931, 18.2906, -162.916, -90.8231, 55.7752, -4.66215, -0.906134, 4.46155, 4.02656, -96.5685, -90.5064
2.548, -1, -42.5838, 1.2707, 18.2695, -162.939, -90.8069, 55.7738, -4.68701, -0.912744, 4.4593, 4.04809, -96.5724, -90.5081
2.551, -1, -42.6556, 1.28208, 18.2483, -162.961, -90.7906, 55.7723, -4.71186, -0.919352, 4.45705, 4.06962, -96.5764, -90.5098
2.556, -1, -42.7274, 1.29346, 18.2272, -162.984, -90.7743, 55.7709, -4.73671, -0.925959, 4.4548, 4.09114, -96.5804, -90.5115
2.56, -1, -42.7992, 1.30483, 18.206, -163.006, -90.758, 55.7694, -4.76155, -0.932563, 4.45255, 4.11265, -96.5844, -90.5132
2.564, -1, -42.8709, 1.31621, 18.1849, -163.029, -90.7418, 55.768, -4.78639, -0.939166, 4.4503, 4.13416, -96.5884, -90.515
2.568, -1, -42.9427, 1.32757, 18.1638, -163.051, -90.7255, 55.7665, -4.81122, -0.945767, 4.44805, 4.15566, -96.5924, -90.5167
2.571, -1, -43.0144, 1.33894, 18.1427, -163.073, -90.7093, 55.7651, -4.83604, -0.952366, 4.44581, 4.17715, -96.5963, -90.5184
2.576, -1, -43.0861, 1.3503, 18.1216, -163.096, -90.693, 55.7636, -4.86085, -0.958963, 4.44356, 4.19864, -96.6003, -90.5201
2.58, -1, -43.1577, 1.36166, 18.1005, -163.118, -90.6768, 55.7622, -4.88566, -0.965558, 4.44131, 4.22013, -96.6043, -90.5218
2.584, -1, -43.2294, 1.37302, 18.0794, -163.141, -90.6605, 55.7608, -4.91046, -0.972152, 4.43907, 4.24161, -96.6083, -90.5235
2.587, -1, -43.301, 1.38437, 18.0583, -163.163, -90.6443, 55.7593, -4.93525, -0.978744, 4.43682, 4.26308, -96.6123, -90.5252
2.592, -1, -43.3726, 1.39572, 18.0372, -163.186, -90.628, 55.7579, -4.96004, -0.985334, 4.43458, 4.28455, -96.6162, -90.5269
2.596, -1, -43.4442, 1.40707, 18.0161, -163.208, -90.6118, 55.7564, -4.98482, -0.991922, 4.43233, 4.30601, -96.6202, -90.5286
2.6, -1, -43.5158, 1.41841, 17.995, -163.231, -90.5956, 55.755, -5.00959, -0.998509, 4.43009, 4.32746, -96.6242, -90.5303
2.604, -1, -43.5873, 1.42975, 17.974, -163.253, -90.5794, 55.7535, -5.03436, -1.00509, 4.42785, 4.34891, -96.6282, -90.532
2.607, -1, -43.6589, 1.44109, 17.9529, -163.275, -90.5631, 55.7521, -5.05912, -1.01168, 4.42561, 4.37035, -96.6321, -90.5337
2.612, -1, -43.7303, 1.45242, 17.9318, -163.298, -90.5469, 55.7506, -5.08387, -1.01826, 4.42337, 4.39179, -96.6361, -90.5354
2.616, -1, -43.8015, 1.46372, 17.9108, -163.32, -90.5307, 55.7492, -5.10862, -1.02484, 4.42112, 4.41322, -96.6401, -90.5371
2.62, -1, -43.8721, 1.47496, 17.8899, -163.343, -90.5145, 55.7477, -5.13336, -1.03141, 4.41888, 4.43465, -96.644, -90.5388
2.624, -1, -43.9418, 1.48611, 17.8691, -163.365, -90.4984, 55.7463, -5.15808, -1.03799, 4.41665, 4.45607, -96.648, -90.5405
2.627, -1, -44.0106, 1.49713, 17.8485, -163.387, -90.4822, 55.7449, -5.18276, -1.04454, 4.4144, 4.47747, -96.652, -90.5422
2.632, -1, -44.0779, 1.50794, 17.8281, -163.409, -90.4662, 55.7434, -5.20734, -1.05107, 4.41216, 4.49886, -96.6559, -90.5439
2.636, -1, -44.1435, 1.51847, 17.8082, -163.431, -90.4502, 55.742, -5.23174, -1.05753, 4.40992, 4.52019, -96.6599, -90.5456
2.64, -1, -44.207, 1.52866, 17.7887, -163.453, -90.4345, 55.7406, -5.25586, -1.0639, 4.40767, 4.54142, -96.6638, -90.5473
2.643, -1, -44.2684, 1.53849, 17.7699, -163.475, -90.419, 55.7392, -5.27954, -1.07013, 4.40542, 4.56248, -96.6677, -90.549
2.648, -1, -44.3278, 1.54795, 17.7516, -163.496, -90.4039, 55.7379, -5.30257, -1.07616, 4.40319, 4.58323, -96.6715, -90.5506
2.652, -1, -44.385, 1.55704, 17.7341, -163.516, -90.3892, 55.7365, -5.32475, -1.08192, 4.40098, 4.60353, -96.6753, -90.5522
2.656, -1, -44.4398, 1.56573, 17.7172, -163.535, -90.3751, 55.7353, -5.34594, -1.08741, 4.39883, 4.62315, -96.6789, -90.5538
2.66, -1, -44.492, 1.57399, 17.7013, -163.554, -90.3618, 55.7341, -5.36602, -1.09258, 4.39676, 4.64186, -96.6824, -90.5553
2.663, -1, -44.5414, 1.58181, 17.6862, -163.571, -90.3492, 55.733, -5.38484, -1.09744, 4.39482, 4.65943, -96.6856, -90.5567
2.668, -1, -44.5878, 1.58915, 17.6721, -163.587, -90.3376, 55.7319, -5.4023, -1.10196, 4.39304, 4.67561, -96.6886, -90.558
2.672, -1, -44.6307, 1.59596, 17.6591, -163.602, -90.3269, 55.731, -5.41836, -1.10614, 4.39146, 4.69024, -96.6913, -90.5592
2.676, -1, -44.6703, 1.60224, 17.6472, -163.615, -90.3173, 55.7301, -5.43297, -1.11, 4.39008, 4.70318, -96.6937, -90.5602
2.679, -1, -44.7066, 1.60802, 17.6364, -163.627, -90.3088, 55.7293, -5.44602, -1.11348, 4.38892, 4.71437, -96.6958, -90.5611
2.684, -1, -44.7401, 1.61338, 17.6266, -163.637, -90.3015, 55.7287, -5.45741, -1.11655, 4.38796, 4.72384, -96.6975, -90.5618
2.688, -1, -44.771, 1.61833, 17.6178, -163.646, -90.2952, 55.7281, -5.46714, -1.11921, 4.38719, 4.73165, -96.699, -90.5624
2.692, -1, -44.7991, 1.62287, 17.6099, -163.653, -90.2899, 55.7277, -5.47528, -1.12147, 4.3866, 4.73793, -96.7001, -90.5629
2.696, -1, -44.8242, 1.62695, 17.6031, -163.659, -90.2856, 55.7273, -5.48195, -1.12335, 4.38616, 4.74281, -96.701, -90.5633
2.699, -1, -44.8462, 1.63053, 17.5972, -163.664, -90.2822, 55.727, -5.48729, -1.12488, 4.38586, 4.74647, -96.7017, -90.5636
2.704, -1, -44.865, 1.63358, 17.5923, -163.667, -90.2796, 55.7268, -5.49149, -1.12611, 4.38566, 4.7491, -96.7022, -90.5638
2.708, -1, -44.8806, 1.63612, 17.5883, -163.67, -90.2776, 55.7266, -5.49475, -1.1271, 4.38556, 4.75089, -96.7026, -90.5639
2.712, -1, -44.8935, 1.63819, 17.5851, -163.672, -90.2761, 55.7265, -5.4972, -1.12786, 4.38552, 4.75204, -96.7028, -90.564
2.716, -1, -44.9041, 1.63985, 17.5827, -163.674, -90.2751, 55.7264, -5.49895, -1.12842, 4.38551, 4.75272, -96.7029, -90.5641
2.719, -1, -44.913, 1.64119, 17.5807, -163.674, -90.2744, 55.7263, -5.50012, -1.12881, 4.38553, 4.75309, -96.703, -90.5641
2.724, -1, -44.9204, 1.64224, 17.5792, -163.675, -90.2739, 55.7263, -5.50085, -1.12905, 4.38555, 4.75326, -96.703, -90.5641
2.728, -1, -44.9262, 1.64304, 17.5781, -163.675, -90.2736, 55.7263, -5.50124, -1.12918, 4.38556, 4.75334, -96.703, -90.5641
2.732, -1, -44.9306, 1.64361, 17.5774, -163.676, -90.2735, 55.7263, -5.50141, -1.12924, 4.38557, 4.75336, -96.703, -90.5641
2.735, -1, -44.9337, 1.64398, 17.5769, -163.676, -90.2734, 55.7263, -5.50146, -1.12926, 4.38557, 4.75337, -96.703, -90.5641
2.74, -1, -44.9355, 1.64419, 17.5766, -163.676, -90.2734, 55.7263, -5.50146, -1.12926, 4.38557, 4.75337, -96.703, -90.5641
2.744, 2, -44.9363, 1.64428, 17.5765, -163.676, -90.2734, 55.7263, -5.50146, -1.12926, 4.38557, 4.75337, -96.703, -90.5641
2.748, 2, -44.9366, 1.6443, 17.5765, -163.676, -90.2734, 55.7263, -5.50146, -1.12926, 4.38557, 4.75337, -96.703, -90.5641
2.752, 2, -44.9366, 1.6443, 17.5765, -163.676, -90.2734, 55.7263, -5.50146, -1.12926, 4.38557, 4.75337, -96.703, -90.5641
2.755, 2, -44.9367, 1.6443, 17.5765, -163.676, -90.2734, 55.7263, -5.50146, -1.12926, 4.38557, 4.75337, -96.703, -90.5641
2.76, 2, -44.9367, 1.6443, 17.5765, -163.676, -90.2734, 55.7263, -5.50146, -1.12926, 4.38557, 4.75337, -96.703, -90.5641
2.764, 2, -44.9367, 1.6443, 17.5765, -163.676, -90.2734, 55.7263, -5.50146, -1.12926, 4.38557, 4.75337, -96.703, -90.5641
2.768, 2, -44.9367, 1.6443, 17.5765, -163.676, -90.2734, 55.7263, -5.50146, -1.12926, 4.38557, 4.75337, -96.703, -90.5641
2.772, 2, -44.9367, 1.6443, 17.5765, -163.676, -90.2734, 55.7263, -5.50146, -1.12926, 4.38557, 4.75337, -96.703, -90.5641
2.775, 2, -44.9367, 1.6443, 17.5765, -163.676, -90.2734, 55.7263, -5.50146, -1.12926, 4.38557, 4.75337, -96.703, -90.5641
2.78, 2, -44.9367, 1.6443, 17.5765, -163.676, -90.2734, 55.7263, -5.50146, -1.12926, 4.38557, 4.75337, -96.703, -90.5641
2.784, 2, -44.9367, 1.6443, 17.5765, -163.676, -90.2734, 55.7263, -5.50146, -1.12926, 4.38557, 4.75337, -96.703, -90.5641
2.788, 2, -44.9367, 1.6443, 17.5765, -163.676, -90.2734, 55.7263, -5.50146, -1.12926, 4.38557, 4.75337, -96.703, -90.5641
2.791, 2, -44.9367, 1.6443, 17.5765, -163.676, -90.2734, 55.7263, -5.50146, -1.12926, 4.38557, 4.75337, -96.703, -90.5641
2.796, 2, -44.9367, 1.6443, 17.5765, -163.676, -90.2734, 55.7263, -5.50146, -1.12926, 4.38557, 4.75337, -96.703, -90.5641
2.8, 2, -44.9367, 1.6443, 17.5765, -163.676, -90.2734, 55.7263, -5.50146, -1.12926, 4.38557, 4.75337, -96.703, -90.5641
2.804, 2, -44.9367, 1.6443, 17.5765, -163.676, -90.2734, 55.7263, -5.50146, -1.12926, 4.38557, 4.75337, -96.703, -90.5641
2.808, 2, -44.9367, 1.6443, 17.5765, -163.676, -90.2734, 55.7263, -5.50146, -1.12926, 4.38557, 4.75337, -96.703, -90.5641
2.811, 2, -44.9367, 1.6443, 17.5765, -163.676, -90.2734, 55.7263, -5.50146, -1.12926, 4.38557, 4.75337, -96.703, -90.5641
2.816, 2, -44.9367, 1.6443, 17.5765, -163.676, -90.2734, 55.7263, -5.50146, -1.12926, 4.38557, 4.75337, -96.703, -90.5641
2.82, 2, -44.9367, 1.6443, 17.5765, -163.676, -90.2734, 55.7263, -5.50146, -1.12926, 4.38557, 4.75337, -96.703, -90.5641
2.824, 2, -44.9367, 1.6443, 17.5765, -163.676, -90.2734, 55.7263, -5.50146, -1.12926, 4.38557, 4.75337, -96.703, -90.5641
2.828, 2, -44.9367, 1.6443, 17.5765, -163.676, -90.2734, 55.7263, -5.50146, -1.12926, 4.38557, 4.75337, -96.703, -90.5641
2.831, 2, -44.9367, 1.6443, 17.5765, -163.676, -90.2734, 55.7263, -5.50146, -1.12926, 4.38557, 4.75337, -96.703, -90.5641
2.836, 2, -44.9367, 1.6443, 17.5765, -163.676, -90.2734, 55.7263, -5.50146, -1.12926, 4.38557, 4.75337, -96.703, -90.5641
2.84, 2, -44.9367, 1.6443, 17.5765, -163.676, -90.2734, 55.7263, -5.50146, -1.12926, 4.38557, 4.75337, -96.703, -90.5641
2.844, 2, -44.9367, 1.6443, 17.5765, -163.676, -90.2734, 55.7263, -5.50146, -1.12926, 4.38557, 4.75337, -96.703, -90.5641
2.847, 2, -44.9367, 1.6443, 17.5765, -163.676, -90.2734, 55.7263, -5.50146, -1.12926, 4.38557, 4.75337, -96.703, -90.5641
2.852, 2, -44.9367, 1.6443, 17.5765, -163.676, -90.2734, 55.7263, -5.50146, -1.12926, 4.38557, 4.75337, -96.703, -90.5641
2.856, 2, -44.9367, 1.6443, 17.5765, -163.676, -90.2734, 55.7263, -5.50146, -1.12926, 4.38557, 4.75337, -96.703, -90.5641
2.86, 2, -44.9367, 1.6443, 17.5765, -163.676, -90.2734, 55.7263, -5.50146, -1.12926, 4.38557, 4.75337, -96.703, -90.5641
2.864, 2, -44.9367, 1.6443, 17.5765, -163.676, -90.2734, 55.7263, -5.50146, -1.12926, 4.38557, 4.75337, -96.703, -90.5641
2.867, 2, -44.9367, 1.6443, 17.5765, -163.676, -90.2734, 55.7263, -5.50146, -1.12926, 4.38557, 4.75337, -96.703, -90.5641
2.872, 2, -44.9367, 1.6443, 17.5765, -163.676, -90.2734, 55.7263, -5.50146, -1.12926, 4.38557, 4.75337, -96.703, -90.5641
2.876, 2, -44.9367, 1.6443, 17.5765, -163.676, -90.2734, 55.7263, -5.50146, -1.12926, 4.38557, 4.75337, -96.703, -90.5641
2.88, 2, -44.9367, 1.6443, 17.5765, -163.676, -90.2734, 55.7263, -5.50146, -1.12926, 4.38557, 4.75337, -96.703, -90.5641
2.883, 2, -44.9367, 1.6443, 17.5765, -163.676, -90.2734, 55.7263, -5.50146, -1.12926, 4.38557, 4.75337, -96.703, -90.5641
2.888, 2, -44.9367, 1.6443, 17.5765, -163.676, -90.2734, 55.7263, -5.50146, -1.12926, 4.38557, 4.75337, -96.703, -90.5641
2.892, 2, -44.9367, 1.6443, 17.5765, -163.676, -90.2734, 55.7263, -5.50146, -1.12926, 4.38557, 4.75337, -96.703, -90.5641
2.896, 2, -44.9367, 1.6443, 17.5765, -163.676, -90.2734, 55.7263, -5.50146, -1.12926, 4.38557, 4.75337, -96.703, -90.5641
2.9, 2, -44.9367, 1.6443, 17.5765, -163.676, -90.2734, 55.7263, -5.50146, -1.12926, 4.38557, 4.75337, -96.703, -90.5641
2.903, 2, -44.9367, 1.6443, 17.5765, -163.676, -90.2734, 55.7263, -5.50146, -1.12926, 4.38557, 4.75337, -96.703, -90.5641
2.908, 2, -44.9367, 1.6443, 17.5765, -163.676, -90.2734, 55.7263, -5.50146, -1.12926, 4.38557, 4.75337, -96.703, -90.5641
2.912, 2, -44.9367, 1.6443, 17.5765, -163.676, -90.2734, 55.7263, -5.50146, -1.12926, 4.38557, 4.75337, -96.703, -90.5641
2.916, 2, -44.9367, 1.6443, 17.5765, -163.676, -90.2734, 55.7263, -5.50146, -1.12926, 4.38557, 4.75337, -96.703, -90.5641
2.92, 2, -44.9367, 1.6443, 17.5765, -163.676, -90.2734, 55.7263, -5.50146, -1.12926, 4.38557, 4.75337, -96.703, -90.5641
2.923, 2, -44.9367, 1.6443, 17.5765, -163.676, -90.2734, 55.7263, -5.50146, -1.12926, 4.38557, 4.75337, -96.703, -90.5641
2.928, 2, -44.9367, 1.6443, 17.5765, -163.676, -90.2734, 55.7263, -5.50146, -1.12926, 4.38557, 4.75337, -96.703, -90.5641
2.932, 2, -44.9367, 1.6443, 17.5765, -163.676, -90.2734, 55.7263, -5.50146, -1.12926, 4.38557, 4.75337, -96.703, -90.5641
2.936, 2, -44.9367, 1.6443, 17.5765, -163.676, -90.2734, 55.7263, -5.50146, -1.12926, 4.38557, 4.75337, -96.703, -90.5641
2.939, 2, -44.9367, 1.6443, 17.5765, -163.676, -90.2734, 55.7263, -5.50146, -1.12926, 4.38557, 4.75337, -96.703, -90.5641
2.944, 2, -44.9367, 1.6443, 17.5765, -163.676, -90.2734, 55.7263, -5.50146, -1.12926, 4.38557, 4.75337, -96.703, -90.5641
2.948, 2, -44.9367, 1.6443, 17.5765, -163.676, -90.2734, 55.7263, -5.50146, -1.12926, 4.38557, 4.75337, -96.703, -90.5641
2.952, 2, -44.9367, 1.6443, 17.5765, -163.676, -90.2734, 55.7263, -5.50146, -1.12926, 4.38557, 4.75337, -96.703, -90.5641
2.956, 2, -44.9367, 1.6443, 17.5765, -163.676, -90.2734, 55.7263, -5.50146, -1.12926, 4.38557, 4.75337, -96.703, -90.5641
2.959, 2, -44.9367, 1.6443, 17.5765, -163.676, -90.2734, 55.7263, -5.50146, -1.12926, 4.38557, 4.75337, -96.703, -90.5641
2.964, 2, -44.9367, 1.6443, 17.5765, -163.676, -90.2734, 55.7263, -5.50146, -1.12926, 4.38557, 4.75337, -96.703, -90.5641
2.968, 2, -44.9367, 1.6443, 17.5765, -163.676, -90.2734, 55.7263, -5.50146, -1.12926, 4.38557, 4.75337, -96.703, -90.5641
2.972, 2, -44.9367, 1.6443, 17.5765, -163.676, -90.2734, 55.7263, -5.50146, -1.12926, 4.38557, 4.75337, -96.703, -90.5641
2.976, 2, -44.9367, 1.6443, 17.5765, -163.676, -90.2734, 55.7263, -5.50146, -1.12926, 4.38557, 4.75337, -96.703, -90.5641
2.98, 2, -44.9367, 1.6443, 17.5765, -163.676, -90.2734, 55.7263, -5.50146, -1.12926, 4.38557, 4.75337, -96.703, -90.5641
2.984, 2, -44.9367, 1.6443, 17.5765, -163.676, -90.2734, 55.7263, -5.50146, -1.12926, 4.38557, 4.75337, -96.703, -90.5641
2.988, 2, -44.9367, 1.6443, 17.5765, -163.676, -90.2734, 55.7263, -5.50146, -1.12926, 4.38557, 4.75337, -96.703, -90.5641
2.992, 2, -44.9367, 1.6443, 17.5765, -163.676, -90.2734, 55.7263, -5.50146, -1.12926, 4.38557, 4.75337, -96.703, -90.5641
2.995, 2, -44.9367, 1.6443, 17.5765, -163.676, -90.2734, 55.7263, -5.50146, -1.12926, 4.38557, 4.75337, -96.703, -90.5641
3, 2, -44.9367, 1.6443, 17.5765, -163.676, -90.2734, 55.7263, -5.50146, -1.12926, 4.38557, 4.75337, -96.703, -90.5641
3.004, 2, -44.9367, 1.6443, 17.5765, -163.676, -90.2734, 55.7263, -5.50146, -1.12926, 4.38557, 4.75337, -96.703, -90.5641
3.008, 2, -44.9367, 1.6443, 17.5765, -163.676, -90.2734, 55.7263, -5.50146, -1.12926, 4.38557, 4.75337, -96.703, -90.5641
3.012, 2, -44.9367, 1.6443, 17.5765, -163.676, -90.2734, 55.7263, -5.50146, -1.12926, 4.38557, 4.75337, -96.703, -90.5641
3.015, 2, -44.9367, 1.6443, 17.5765, -163.676, -90.2734, 55.7263, -5.50146, -1.12926, 4.38557, 4.75337, -96.703, -90.5641
3.02, 2, -44.9367, 1.6443, 17.5765, -163.676, -90.2734, 55.7263, -5.50146, -1.12926, 4.38557, 4.75337, -96.703, -90.5641
3.024, 2, -44.9367, 1.6443, 17.5765, -163.676, -90.2734, 55.7263, -5.50146, -1.12926, 4.38557, 4.75337, -96.703, -90.5641
3.028, 2, -44.9367, 1.6443, 17.5765, -163.676, -90.2734, 55.7263, -5.50146, -1.12926, 4.38557, 4.75337, -96.703, -90.5641
3.031, 2, -44.9367, 1.6443, 17.5765, -163.676, -90.2734, 55.7263, -5.50146, -1.12926, 4.38557, 4.75337, -96.703, -90.5641
3.036, 2, -44.9367, 1.6443, 17.5765, -163.676, -90.2734, 55.7263, -5.50146, -1.12926, 4.38557, 4.75337, -96.703, -90.5641
3.04, 2, -44.9367, 1.6443, 17.5765, -163.676, -90.2734, 55.7263, -5.50146, -1.12926, 4.38557, 4.75337, -96.703, -90.5641
3.044, 2, -44.9367, 1.6443, 17.5765, -163.676, -90.2734, 55.7263, -5.50146, -1.12926, 4.38557, 4.75337, -96.703, -90.5641
3.048, 2, -44.9367, 1.6443, 17.5765, -163.676, -90.2734, 55.7263, -5.50146, -1.12926, 4.38557, 4.75337, -96.703, -90.5641
3.051, 2, -44.9367, 1.6443, 17.5765, -163.676, -90.2734, 55.7263, -5.50146, -1.12926, 4.38557, 4.75337, -96.703, -90.5641
3.056, 2, -44.9367, 1.6443, 17.5765, -163.676, -90.2734, 55.7263, -5.50146, -1.12926, 4.38557, 4.75337, -96.703, -90.5641
3.06, 2, -44.9367, 1.6443, 17.5765, -163.676, -90.2734, 55.7263, -5.50146, -1.12926, 4.38557, 4.75337, -96.703, -90.5641
3.064, 2, -44.9367, 1.6443, 17.5765, -163.676, -90.2734, 55.7263, -5.50146, -1.12926, 4.38557, 4.75337, -96.703, -90.5641
3.068, 2, -44.9367, 1.6443, 17.5765, -163.676, -90.2734, 55.7263, -5.50146, -1.12926, 4.38557, 4.75337, -96.703, -90.5641
3.071, 2, -44.9367, 1.6443, 17.5765, -163.676, -90.2734, 55.7263, -5.50146, -1.12926, 4.38557, 4.75337, -96.703, -90.5641
3.076, 2, -44.9367, 1.6443, 17.5765, -163.676, -90.2734, 55.7263, -5.50146, -1.12926, 4.38557, 4.75337, -96.703, -90.5641
3.08, 2, -44.9367, 1.6443, 17.5765, -163.676, -90.2734, 55.7263, -5.50146, -1.12926, 4.38557, 4.75337, -96.703, -90.5641
3.084, 2, -44.9367, 1.6443, 17.5765, -163.676, -90.2734, 55.7263, -5.50146, -1.12926, 4.38557, 4.75337, -96.703, -90.5641
3.087, 2, -44.9367, 1.6443, 17.5765, -163.676, -90.2734, 55.7263, -5.50146, -1.12926, 4.38557, 4.75337, -96.703, -90.5641
3.092, 2, -44.9367, 1.6443, 17.5765, -163.676, -90.2734, 55.7263, -5.50146, -1.12926, 4.38557, 4.75337, -96.703, -90.5641
3.096, 2, -44.9367, 1.6443, 17.5765, -163.676, -90.2734, 55.7263, -5.50146, -1.12926, 4.38557, 4.75337, -96.703, -90.5641
3.1, 2, -44.9367, 1.6443, 17.5765, -163.676, -90.2734, 55.7263, -5.50146, -1.12926, 4.38557, 4.75337, -96.703, -90.5641
3.104, 2, -44.9367, 1.6443, 17.5765, -163.676, -90.2734, 55.7263, -5.50146, -1.12926, 4.38557, 4.75337, -96.703, -90.5641
3.107, 2, -44.9367, 1.6443, 17.5765, -163.676, -90.2734, 55.7263, -5.50146, -1.12926, 4.38557, 4.75337, -96.703, -90.5641
3.112, 2, -44.9367, 1.6443, 17.5765, -163.676, -90.2734, 55.7263, -5.50146, -1.12926, 4.38557, 4.75337, -96.703, -90.5641
3.116, 2, -44.9367, 1.6443, 17.5765, -163.676, -90.2734, 55.7263, -5.50146, -1.12926, 4.38557, 4.75337, -96.703, -90.5641
3.12, 2, -44.9367, 1.6443, 17.5765, -163.676, -90.2734, 55.7263, -5.50146, -1.12926, 4.38557, 4.75337, -96.703, -90.5641
3.124, 2, -44.9367, 1.6443, 17.5765, -163.676, -90.2734, 55.7263, -5.50146, -1.12926, 4.38557, 4.75337, -96.703, -90.5641
3.128, 2, -44.9367, 1.6443, 17.5765, -163.676, -90.2734, 55.7263, -5.50146, -1.12926, 4.38557, 4.75337, -96.703, -90.5641
3.132, 2, -44.9367, 1.6443, 17.5765, -163.676, -90.2734, 55.7263, -5.50146, -1.12926, 4.38557, 4.75337, -96.703, -90.5641
3.136, 2, -44.9367, 1.6443, 17.5765, -163.676, -90.2734, 55.7263, -5.50146, -1.12926, 4.38557, 4.75337, -96.703, -90.5641
3.14, 2, -44.9367, 1.6443, 17.5765, -163.676, -90.2734, 55.7263, -5.50146, -1.12926, 4.38557, 4.75337, -96.703, -90.5641
3.143, 2, -44.9367, 1.6443, 17.5765, -163.676, -90.2734, 55.7263, -5.50146, -1.12926, 4.38557, 4.75337, -96.703, -90.5641
3.148, 2, -44.9367, 1.6443, 17.5765, -163.676, -90.2734, 55.7263, -5.50146, -1.12926, 4.38557, 4.75337, -96.703, -90.5641
3.152, 2, -44.9367, 1.6443, 17.5765, -163.676, -90.2734, 55.7263, -5.50146, -1.12926, 4.38557, 4.75337, -96.703, -90.5641
3.156, 2, -44.9367, 1.6443, 17.5765, -163.676, -90.2734, 55.7263, -5.50146, -1.12926, 4.38557, 4.75337, -96.703, -90.5641
3.16, 2, -44.9367, 1.6443, 17.5765, -163.676, -90.2734, 55.7263, -5.50146, -1.12926, 4.38557, 4.75337, -96.703, -90.5641
