hehonglu123/Motion-Primitive-Planning/simulation/robotstudio_sim/multimove/wood/qp5_50L/curve_exe_v500_z10.csv
timestamp, cmd_num, J1, J2, J3, J4, J5, J6, J1_2, J2_2, J3_2, J4_2, J5_2, J6_2
0.002, -1, 0.639043, -9.05582, 33.4436, -148.051, -103.564, 55.9008, 19.2987, 2.4683, 7.03084, -13.7559, -93.9209, -92.2854
0.005, -1, 0.639043, -9.05582, 33.4436, -148.051, -103.564, 55.9008, 19.2987, 2.4683, 7.03084, -13.7559, -93.9209, -92.2854
0.009, -1, 0.639043, -9.05582, 33.4436, -148.051, -103.564, 55.9008, 19.2987, 2.4683, 7.03084, -13.7559, -93.9209, -92.2854
0.012, -1, 0.639043, -9.05582, 33.4436, -148.051, -103.564, 55.9008, 19.2987, 2.4683, 7.03084, -13.7559, -93.9209, -92.2854
0.014, -1, 0.639043, -9.05582, 33.4436, -148.051, -103.564, 55.9008, 19.2987, 2.4683, 7.03084, -13.7559, -93.9209, -92.2854
0.018, -1, 0.639043, -9.05582, 33.4436, -148.051, -103.564, 55.9008, 19.2987, 2.4683, 7.03084, -13.7559, -93.9209, -92.2854
0.02, -1, 0.639043, -9.05582, 33.4436, -148.051, -103.564, 55.9008, 19.2987, 2.4683, 7.03084, -13.7559, -93.9209, -92.2854
0.024, -1, 0.639043, -9.05582, 33.4436, -148.051, -103.564, 55.9008, 19.2987, 2.4683, 7.03084, -13.7559, -93.9209, -92.2854
0.028, -1, 0.639043, -9.05582, 33.4436, -148.051, -103.564, 55.9008, 19.2987, 2.4683, 7.03084, -13.7559, -93.9209, -92.2854
0.032, -1, 0.639043, -9.05582, 33.4436, -148.051, -103.564, 55.9008, 19.2987, 2.4683, 7.03084, -13.7559, -93.9209, -92.2854
0.036, -1, 0.639043, -9.05582, 33.4436, -148.051, -103.564, 55.9008, 19.2987, 2.4683, 7.03084, -13.7559, -93.9209, -92.2854
0.04, -1, 0.638979, -9.05581, 33.4436, -148.051, -103.564, 55.9008, 19.2987, 2.4683, 7.03084, -13.7559, -93.9209, -92.2854
0.044, -1, 0.638619, -9.05575, 33.4436, -148.051, -103.564, 55.9008, 19.2987, 2.4683, 7.03084, -13.7559, -93.9209, -92.2854
0.048, -1, 0.6376, -9.05558, 33.4434, -148.051, -103.564, 55.9008, 19.2987, 2.4683, 7.03084, -13.7559, -93.9209, -92.2854
0.052, -1, 0.635579, -9.05519, 33.4431, -148.051, -103.564, 55.9008, 19.2987, 2.4683, 7.03084, -13.7559, -93.9209, -92.2854
0.056, -1, 0.632344, -9.05453, 33.4425, -148.051, -103.564, 55.9008, 19.2986, 2.46828, 7.03085, -13.7559, -93.9209, -92.2854
0.06, -1, 0.627741, -9.05354, 33.4416, -148.051, -103.563, 55.9008, 19.2982, 2.46821, 7.03086, -13.7559, -93.9209, -92.2854
0.064, -1, 0.621595, -9.05216, 33.4403, -148.052, -103.563, 55.9008, 19.2974, 2.46805, 7.03088, -13.7557, -93.9209, -92.2854
0.068, -1, 0.613732, -9.05032, 33.4385, -148.052, -103.562, 55.9008, 19.296, 2.46777, 7.0309, -13.7554, -93.921, -92.2853
0.072, -1, 0.603951, -9.04795, 33.436, -148.054, -103.561, 55.9008, 19.2937, 2.46733, 7.0309, -13.7547, -93.9211, -92.2853
0.076, -1, 0.591919, -9.04497, 33.4327, -148.056, -103.559, 55.9008, 19.2902, 2.46669, 7.03084, -13.7534, -93.9213, -92.2852
0.08, -1, 0.577115, -9.04126, 33.4285, -148.059, -103.557, 55.9007, 19.2853, 2.46582, 7.03069, -13.7512, -93.9216, -92.285
0.084, -1, 0.5589, -9.0367, 33.4231, -148.062, -103.554, 55.9007, 19.2787, 2.46469, 7.03038, -13.748, -93.9221, -92.2847
0.088, -1, 0.536736, -9.03118, 33.4163, -148.067, -103.549, 55.9006, 19.2701, 2.46328, 7.02987, -13.7432, -93.9228, -92.2843
0.092, -1, 0.510427, -9.02469, 33.4081, -148.074, -103.544, 55.9006, 19.2593, 2.46154, 7.02909, -13.7367, -93.9238, -92.2837
0.096, -1, 0.480115, -9.01731, 33.3983, -148.082, -103.536, 55.9005, 19.2458, 2.45943, 7.028, -13.728, -93.9251, -92.2829
0.1, -1, 0.44599, -9.00912, 33.387, -148.092, -103.528, 55.9004, 19.2292, 2.45689, 7.02655, -13.717, -93.9268, -92.2819
0.104, -1, 0.40805, -9.00015, 33.3741, -148.105, -103.517, 55.9002, 19.2094, 2.45391, 7.0247, -13.7033, -93.9288, -92.2807
0.108, -1, 0.366168, -8.99036, 33.3596, -148.119, -103.505, 55.9001, 19.1864, 2.4505, 7.0224, -13.6867, -93.9313, -92.2791
0.112, -1, 0.320226, -8.97974, 33.3434, -148.135, -103.491, 55.8999, 19.1602, 2.44669, 7.01962, -13.6672, -93.9342, -92.2773
0.116, -1, 0.270071, -8.96821, 33.3255, -148.154, -103.476, 55.8997, 19.1311, 2.44252, 7.01636, -13.6448, -93.9376, -92.2752
0.12, -1, 0.21554, -8.95572, 33.3059, -148.174, -103.458, 55.8995, 19.0991, 2.43801, 7.01264, -13.6196, -93.9414, -92.2729
0.124, -1, 0.156652, -8.94224, 33.2847, -148.196, -103.44, 55.8992, 19.0646, 2.43319, 7.0085, -13.592, -93.9455, -92.2703
0.128, -1, 0.0937411, -8.92782, 33.262, -148.22, -103.42, 55.8989, 19.0278, 2.42809, 7.00401, -13.5622, -93.95, -92.2675
0.131, -1, 0.0274176, -8.91259, 33.238, -148.245, -103.398, 55.8987, 18.9888, 2.42267, 6.99927, -13.5307, -93.9548, -92.2645
0.136, -1, -0.0416876, -8.89666, 33.2129, -148.271, -103.376, 55.8984, 18.9478, 2.41693, 6.99438, -13.4979, -93.9597, -92.2614
0.139, -1, -0.113211, -8.88008, 33.1868, -148.299, -103.353, 55.898, 18.905, 2.41088, 6.98941, -13.4643, -93.9647, -92.2583
0.144, -1, -0.187111, -8.86285, 33.1599, -148.327, -103.329, 55.8977, 18.8608, 2.4046, 6.98442, -13.4302, -93.9699, -92.2551
0.148, -1, -0.263431, -8.84497, 33.1322, -148.355, -103.305, 55.8974, 18.8156, 2.39811, 6.97943, -13.3958, -93.9751, -92.2519
0.152, -1, -0.342047, -8.82648, 33.1039, -148.384, -103.28, 55.8971, 18.7698, 2.3915, 6.97446, -13.3612, -93.9802, -92.2487
0.156, -1, -0.422713, -8.80748, 33.0751, -148.413, -103.256, 55.8968, 18.7236, 2.38481, 6.96951, -13.3267, -93.9854, -92.2455
0.16, -1, -0.505158, -8.78804, 33.0459, -148.442, -103.231, 55.8964, 18.6773, 2.37809, 6.96456, -13.2921, -93.9906, -92.2422
0.164, -1, -0.588989, -8.7683, 33.0165, -148.471, -103.206, 55.8961, 18.631, 2.37137, 6.95962, -13.2575, -93.9958, -92.239
0.168, -1, -0.673654, -8.7484, 32.9869, -148.501, -103.181, 55.8958, 18.5847, 2.36465, 6.95468, -13.2229, -94.001, -92.2358
0.172, -1, -0.758636, -8.72844, 32.9573, -148.53, -103.156, 55.8955, 18.5384, 2.35794, 6.94974, -13.1884, -94.0062, -92.2326
0.176, -1, -0.843654, -8.70848, 32.9277, -148.559, -103.132, 55.8951, 18.4921, 2.35123, 6.94481, -13.1539, -94.0114, -92.2294
0.18, -1, -0.928639, -8.68853, 32.8981, -148.588, -103.107, 55.8948, 18.4459, 2.34452, 6.93987, -13.1193, -94.0166, -92.2262
0.184, -1, -1.01359, -8.66858, 32.8685, -148.617, -103.082, 55.8945, 18.3996, 2.33781, 6.93494, -13.0848, -94.0218, -92.223
0.188, -1, -1.0985, -8.64865, 32.839, -148.646, -103.057, 55.8942, 18.3534, 2.33111, 6.93002, -13.0504, -94.027, -92.2198
0.192, -1, -1.18338, -8.62872, 32.8094, -148.675, -103.033, 55.8938, 18.3072, 2.32441, 6.92509, -13.0159, -94.0322, -92.2166
0.196, -1, -1.26821, -8.6088, 32.7799, -148.704, -103.008, 55.8935, 18.2611, 2.31771, 6.92017, -12.9814, -94.0373, -92.2134
0.2, -1, -1.35302, -8.58889, 32.7504, -148.734, -102.983, 55.8932, 18.2149, 2.31102, 6.91524, -12.947, -94.0425, -92.2102
0.204, -1, -1.43778, -8.56899, 32.7209, -148.763, -102.958, 55.8929, 18.1688, 2.30433, 6.91032, -12.9126, -94.0477, -92.207
0.208, -1, -1.52251, -8.5491, 32.6914, -148.792, -102.934, 55.8925, 18.1227, 2.29764, 6.90541, -12.8782, -94.0529, -92.2038
0.212, -1, -1.6072, -8.52921, 32.6619, -148.821, -102.909, 55.8922, 18.0766, 2.29096, 6.90049, -12.8438, -94.058, -92.2006
0.216, -1, -1.69186, -8.50934, 32.6324, -148.85, -102.884, 55.8919, 18.0306, 2.28427, 6.89558, -12.8094, -94.0632, -92.1974
0.22, -1, -1.77648, -8.48947, 32.6029, -148.879, -102.86, 55.8916, 17.9845, 2.27759, 6.89067, -12.775, -94.0684, -92.1942
0.224, -1, -1.86106, -8.46961, 32.5735, -148.908, -102.835, 55.8912, 17.9385, 2.27092, 6.88576, -12.7407, -94.0735, -92.191
0.228, -1, -1.94561, -8.44977, 32.5441, -148.937, -102.81, 55.8909, 17.8925, 2.26424, 6.88085, -12.7063, -94.0787, -92.1878
0.232, -1, -2.03012, -8.42992, 32.5146, -148.966, -102.786, 55.8906, 17.8465, 2.25757, 6.87594, -12.672, -94.0838, -92.1846
0.236, -1, -2.11459, -8.41009, 32.4852, -148.995, -102.761, 55.8903, 17.8005, 2.2509, 6.87104, -12.6377, -94.089, -92.1814
0.24, -1, -2.19903, -8.39027, 32.4558, -149.024, -102.736, 55.8899, 17.7546, 2.24424, 6.86614, -12.6034, -94.0941, -92.1782
0.244, -1, -2.28343, -8.37045, 32.4264, -149.053, -102.712, 55.8896, 17.7087, 2.23758, 6.86124, -12.5691, -94.0993, -92.175
0.248, -1, -2.3678, -8.35065, 32.3971, -149.081, -102.687, 55.8893, 17.6627, 2.23092, 6.85634, -12.5349, -94.1045, -92.1718
0.252, -1, -2.45213, -8.33085, 32.3677, -149.11, -102.663, 55.889, 17.6169, 2.22426, 6.85145, -12.5006, -94.1096, -92.1686
0.256, -1, -2.53642, -8.31106, 32.3384, -149.139, -102.638, 55.8887, 17.571, 2.21761, 6.84656, -12.4664, -94.1147, -92.1655
0.26, -1, -2.62068, -8.29127, 32.309, -149.168, -102.613, 55.8883, 17.5251, 2.21096, 6.84167, -12.4322, -94.1199, -92.1623
0.264, -1, -2.7049, -8.2715, 32.2797, -149.197, -102.589, 55.888, 17.4793, 2.20431, 6.83678, -12.398, -94.125, -92.1591
0.268, -1, -2.78909, -8.25174, 32.2504, -149.226, -102.564, 55.8877, 17.4335, 2.19766, 6.83189, -12.3638, -94.1302, -92.1559
0.272, -1, -2.87324, -8.23198, 32.2211, -149.255, -102.54, 55.8874, 17.3877, 2.19102, 6.82701, -12.3296, -94.1353, -92.1527
0.276, -1, -2.95735, -8.21223, 32.1918, -149.284, -102.515, 55.887, 17.3419, 2.18438, 6.82213, -12.2954, -94.1404, -92.1496
0.28, -1, -3.04143, -8.19249, 32.1625, -149.312, -102.491, 55.8867, 17.2962, 2.17774, 6.81725, -12.2613, -94.1456, -92.1464
0.284, -1, -3.12548, -8.17276, 32.1333, -149.341, -102.466, 55.8864, 17.2505, 2.17111, 6.81237, -12.2272, -94.1507, -92.1432
0.288, -1, -3.20948, -8.15304, 32.104, -149.37, -102.442, 55.8861, 17.2047, 2.16448, 6.80749, -12.193, -94.1558, -92.14
0.292, -1, -3.29346, -8.13332, 32.0748, -149.399, -102.417, 55.8858, 17.159, 2.15785, 6.80262, -12.1589, -94.161, -92.1369
0.296, -1, -3.37739, -8.11362, 32.0456, -149.428, -102.393, 55.8854, 17.1134, 2.15122, 6.79775, -12.1248, -94.1661, -92.1337
0.3, -1, -3.46129, -8.09392, 32.0164, -149.456, -102.368, 55.8851, 17.0677, 2.1446, 6.79288, -12.0908, -94.1712, -92.1305
0.304, -1, -3.54516, -8.07423, 31.9872, -149.485, -102.344, 55.8848, 17.0221, 2.13798, 6.78801, -12.0567, -94.1763, -92.1274
0.308, -1, -3.62899, -8.05455, 31.958, -149.514, -102.319, 55.8845, 16.9765, 2.13136, 6.78314, -12.0227, -94.1814, -92.1242
0.312, -1, -3.71279, -8.03487, 31.9288, -149.543, -102.295, 55.8842, 16.9309, 2.12475, 6.77828, -11.9886, -94.1866, -92.121
0.316, -1, -3.79654, -8.01521, 31.8996, -149.571, -102.271, 55.8838, 16.8853, 2.11814, 6.77342, -11.9546, -94.1917, -92.1179
0.32, -1, -3.88027, -7.99555, 31.8705, -149.6, -102.246, 55.8835, 16.8397, 2.11153, 6.76856, -11.9206, -94.1968, -92.1147
0.324, -1, -3.96396, -7.9759, 31.8414, -149.629, -102.222, 55.8832, 16.7942, 2.10492, 6.7637, -11.8866, -94.2019, -92.1116
0.328, -1, -4.04761, -7.95626, 31.8122, -149.657, -102.197, 55.8829, 16.7487, 2.09832, 6.75884, -11.8527, -94.207, -92.1084
0.332, -1, -4.13123, -7.93663, 31.7831, -149.686, -102.173, 55.8825, 16.7032, 2.09172, 6.75399, -11.8187, -94.2121, -92.1052
0.336, -1, -4.21481, -7.91701, 31.754, -149.715, -102.149, 55.8822, 16.6577, 2.08512, 6.74914, -11.7848, -94.2172, -92.1021
0.34, -1, -4.29836, -7.89739, 31.7249, -149.743, -102.124, 55.8819, 16.6122, 2.07853, 6.74429, -11.7508, -94.2223, -92.0989
0.344, -1, -4.38187, -7.87779, 31.6959, -149.772, -102.1, 55.8816, 16.5668, 2.07194, 6.73944, -11.7169, -94.2274, -92.0958
0.348, -1, -4.46535, -7.85819, 31.6668, -149.801, -102.075, 55.8813, 16.5214, 2.06535, 6.7346, -11.683, -94.2325, -92.0926
0.352, -1, -4.54879, -7.8386, 31.6378, -149.829, -102.051, 55.8809, 16.4759, 2.05876, 6.72976, -11.6491, -94.2376, -92.0895
0.356, -1, -4.6322, -7.81902, 31.6087, -149.858, -102.027, 55.8806, 16.4306, 2.05218, 6.72491, -11.6152, -94.2427, -92.0863
0.36, -1, -4.71557, -7.79944, 31.5797, -149.886, -102.003, 55.8803, 16.3852, 2.0456, 6.72008, -11.5814, -94.2478, -92.0832
0.364, -1, -4.79891, -7.77988, 31.5507, -149.915, -101.978, 55.88, 16.3398, 2.03902, 6.71524, -11.5475, -94.2529, -92.08
0.368, -1, -4.88221, -7.76032, 31.5217, -149.944, -101.954, 55.8797, 16.2945, 2.03244, 6.7104, -11.5137, -94.2579, -92.0769
0.372, -1, -4.96547, -7.74077, 31.4927, -149.972, -101.93, 55.8794, 16.2492, 2.02587, 6.70557, -11.4799, -94.263, -92.0737
0.376, -1, -5.04871, -7.72123, 31.4637, -150.001, -101.905, 55.879, 16.2039, 2.0193, 6.70074, -11.4461, -94.2681, -92.0706
0.38, -1, -5.1319, -7.7017, 31.4347, -150.029, -101.881, 55.8787, 16.1586, 2.01273, 6.69591, -11.4123, -94.2732, -92.0674
0.384, -1, -5.21506, -7.68217, 31.4058, -150.058, -101.857, 55.8784, 16.1134, 2.00617, 6.69108, -11.3785, -94.2783, -92.0643
0.388, -1, -5.29819, -7.66265, 31.3768, -150.086, -101.833, 55.8781, 16.0682, 1.99961, 6.68626, -11.3448, -94.2833, -92.0612
0.392, -1, -5.38128, -7.64315, 31.3479, -150.115, -101.808, 55.8778, 16.0229, 1.99305, 6.68144, -11.311, -94.2884, -92.058
0.396, -1, -5.46434, -7.62365, 31.319, -150.143, -101.784, 55.8774, 15.9777, 1.98649, 6.67662, -11.2773, -94.2935, -92.0549
0.4, -1, -5.54736, -7.60415, 31.2901, -150.172, -101.76, 55.8771, 15.9326, 1.97994, 6.6718, -11.2436, -94.2985, -92.0518
0.404, -1, -5.63035, -7.58467, 31.2612, -150.2, -101.736, 55.8768, 15.8874, 1.97339, 6.66698, -11.2099, -94.3036, -92.0486
0.408, -1, -5.7133, -7.5652, 31.2323, -150.228, -101.712, 55.8765, 15.8423, 1.96684, 6.66217, -11.1762, -94.3087, -92.0455
0.412, -1, -5.79622, -7.54573, 31.2035, -150.257, -101.687, 55.8762, 15.7972, 1.96029, 6.65735, -11.1425, -94.3137, -92.0424
0.416, -1, -5.8791, -7.52627, 31.1746, -150.285, -101.663, 55.8759, 15.7521, 1.95375, 6.65254, -11.1088, -94.3188, -92.0392
0.42, -1, -5.96195, -7.50682, 31.1458, -150.314, -101.639, 55.8755, 15.707, 1.94721, 6.64773, -11.0752, -94.3239, -92.0361
0.424, -1, -6.04476, -7.48738, 31.1169, -150.342, -101.615, 55.8752, 15.6619, 1.94067, 6.64293, -11.0416, -94.3289, -92.033
0.428, -1, -6.12754, -7.46794, 31.0881, -150.37, -101.591, 55.8749, 15.6169, 1.93414, 6.63812, -11.0079, -94.334, -92.0298
0.432, -1, -6.21029, -7.44851, 31.0593, -150.399, -101.567, 55.8746, 15.5718, 1.92761, 6.63332, -10.9743, -94.339, -92.0267
0.436, -1, -6.293, -7.4291, 31.0305, -150.427, -101.543, 55.8743, 15.5268, 1.92108, 6.62852, -10.9408, -94.3441, -92.0236
0.44, -1, -6.37567, -7.40969, 31.0017, -150.456, -101.518, 55.874, 15.4818, 1.91455, 6.62372, -10.9072, -94.3491, -92.0205
0.444, -1, -6.45831, -7.39028, 30.9729, -150.484, -101.494, 55.8736, 15.4369, 1.90803, 6.61892, -10.8736, -94.3542, -92.0173
0.448, -1, -6.54092, -7.37089, 30.9442, -150.512, -101.47, 55.8733, 15.3919, 1.90151, 6.61413, -10.8401, -94.3592, -92.0142
0.452, -1, -6.62349, -7.3515, 30.9154, -150.54, -101.446, 55.873, 15.347, 1.89499, 6.60934, -10.8065, -94.3642, -92.0111
0.456, -1, -6.70603, -7.33213, 30.8867, -150.569, -101.422, 55.8727, 15.3021, 1.88848, 6.60455, -10.773, -94.3693, -92.008
0.46, -1, -6.78853, -7.31276, 30.858, -150.597, -101.398, 55.8724, 15.2572, 1.88196, 6.59976, -10.7395, -94.3743, -92.0049
0.464, -1, -6.871, -7.29339, 30.8293, -150.625, -101.374, 55.8721, 15.2123, 1.87546, 6.59497, -10.706, -94.3793, -92.0018
0.468, -1, -6.95343, -7.27404, 30.8006, -150.654, -101.35, 55.8717, 15.1674, 1.86895, 6.59019, -10.6725, -94.3844, -91.9986
0.472, -1, -7.03583, -7.25469, 30.7719, -150.682, -101.326, 55.8714, 15.1226, 1.86244, 6.5854, -10.6391, -94.3894, -91.9955
0.476, -1, -7.1182, -7.23536, 30.7432, -150.71, -101.302, 55.8711, 15.0778, 1.85594, 6.58062, -10.6056, -94.3944, -91.9924
0.48, -1, -7.20053, -7.21603, 30.7145, -150.738, -101.278, 55.8708, 15.033, 1.84944, 6.57584, -10.5722, -94.3995, -91.9893
0.484, -1, -7.28283, -7.19671, 30.6859, -150.767, -101.254, 55.8705, 14.9882, 1.84295, 6.57107, -10.5388, -94.4045, -91.9862
0.488, -1, -7.36509, -7.17739, 30.6573, -150.795, -101.23, 55.8702, 14.9434, 1.83645, 6.56629, -10.5054, -94.4095, -91.9831
0.492, -1, -7.44732, -7.15809, 30.6286, -150.823, -101.206, 55.8699, 14.8987, 1.82996, 6.56152, -10.472, -94.4145, -91.98
0.496, -1, -7.52951, -7.13879, 30.6, -150.851, -101.182, 55.8695, 14.854, 1.82348, 6.55675, -10.4386, -94.4195, -91.9769
0.5, -1, -7.61167, -7.1195, 30.5714, -150.879, -101.158, 55.8692, 14.8093, 1.81699, 6.55198, -10.4052, -94.4246, -91.9738
0.504, -1, -7.6938, -7.10022, 30.5428, -150.907, -101.134, 55.8689, 14.7646, 1.81051, 6.54721, -10.3719, -94.4296, -91.9707
0.508, -1, -7.77589, -7.08095, 30.5142, -150.936, -101.11, 55.8686, 14.7199, 1.80403, 6.54245, -10.3385, -94.4346, -91.9676
0.512, -1, -7.85795, -7.06168, 30.4857, -150.964, -101.086, 55.8683, 14.6753, 1.79755, 6.53769, -10.3052, -94.4396, -91.9645
0.516, -1, -7.93997, -7.04242, 30.4571, -150.992, -101.062, 55.868, 14.6306, 1.79108, 6.53293, -10.2719, -94.4446, -91.9614
0.52, -1, -8.02196, -7.02317, 30.4286, -151.02, -101.038, 55.8676, 14.586, 1.7846, 6.52817, -10.2386, -94.4496, -91.9583
0.524, -1, -8.10392, -7.00393, 30.4, -151.048, -101.014, 55.8673, 14.5414, 1.77813, 6.52341, -10.2053, -94.4546, -91.9552
0.528, -1, -8.18584, -6.9847, 30.3715, -151.076, -100.991, 55.867, 14.4968, 1.77167, 6.51865, -10.172, -94.4596, -91.9521
0.532, -1, -8.26773, -6.96547, 30.343, -151.104, -100.967, 55.8667, 14.4523, 1.7652, 6.5139, -10.1388, -94.4646, -91.949
0.536, -1, -8.34959, -6.94626, 30.3145, -151.132, -100.943, 55.8664, 14.4077, 1.75874, 6.50915, -10.1055, -94.4696, -91.9459
0.54, -1, -8.43141, -6.92705, 30.286, -151.16, -100.919, 55.8661, 14.3632, 1.75228, 6.5044, -10.0723, -94.4746, -91.9428
0.544, -1, -8.5132, -6.90784, 30.2575, -151.188, -100.895, 55.8658, 14.3187, 1.74583, 6.49966, -10.0391, -94.4796, -91.9397
0.548, -1, -8.59495, -6.88865, 30.2291, -151.216, -100.871, 55.8655, 14.2742, 1.73937, 6.49491, -10.0059, -94.4846, -91.9367
0.552, -1, -8.67667, -6.86946, 30.2006, -151.244, -100.847, 55.8651, 14.2297, 1.73292, 6.49017, -9.97269, -94.4896, -91.9336
0.556, -1, -8.75836, -6.85028, 30.1722, -151.272, -100.824, 55.8648, 14.1853, 1.72648, 6.48543, -9.93952, -94.4946, -91.9305
0.56, -1, -8.84002, -6.83111, 30.1438, -151.3, -100.8, 55.8645, 14.1409, 1.72003, 6.48069, -9.90636, -94.4995, -91.9274
0.564, -1, -8.92164, -6.81195, 30.1153, -151.328, -100.776, 55.8642, 14.0964, 1.71359, 6.47595, -9.87321, -94.5045, -91.9243
0.568, -1, -9.00323, -6.7928, 30.0869, -151.356, -100.752, 55.8639, 14.0521, 1.70715, 6.47121, -9.84008, -94.5095, -91.9212
0.572, -1, -9.08478, -6.77365, 30.0585, -151.384, -100.728, 55.8636, 14.0077, 1.70071, 6.46648, -9.80695, -94.5145, -91.9182
0.576, -1, -9.16631, -6.75451, 30.0302, -151.412, -100.705, 55.8633, 13.9633, 1.69428, 6.46175, -9.77385, -94.5195, -91.9151
0.58, -1, -9.2478, -6.73538, 30.0018, -151.44, -100.681, 55.863, 13.919, 1.68784, 6.45702, -9.74075, -94.5244, -91.912
0.584, -1, -9.32925, -6.71625, 29.9734, -151.468, -100.657, 55.8626, 13.8746, 1.68141, 6.45229, -9.70767, -94.5294, -91.9089
0.588, -1, -9.41068, -6.69714, 29.9451, -151.496, -100.633, 55.8623, 13.8303, 1.67499, 6.44756, -9.6746, -94.5344, -91.9058
0.592, -1, -9.49207, -6.67803, 29.9167, -151.524, -100.61, 55.862, 13.786, 1.66856, 6.44284, -9.64155, -94.5393, -91.9028
0.596, -1, -9.57342, -6.65893, 29.8884, -151.552, -100.586, 55.8617, 13.7418, 1.66214, 6.43812, -9.6085, -94.5443, -91.8997
0.6, -1, -9.65475, -6.63983, 29.8601, -151.58, -100.562, 55.8614, 13.6975, 1.65572, 6.4334, -9.57548, -94.5493, -91.8966
0.604, -1, -9.73604, -6.62075, 29.8318, -151.608, -100.538, 55.8611, 13.6533, 1.6493, 6.42868, -9.54246, -94.5542, -91.8936
0.608, -1, -9.8173, -6.60167, 29.8035, -151.635, -100.515, 55.8608, 13.6091, 1.64289, 6.42396, -9.50946, -94.5592, -91.8905
0.612, -1, -9.89853, -6.5826, 29.7752, -151.663, -100.491, 55.8605, 13.5649, 1.63648, 6.41925, -9.47647, -94.5642, -91.8874
0.616, -1, -9.97972, -6.56354, 29.747, -151.691, -100.467, 55.8601, 13.5207, 1.63007, 6.41454, -9.4435, -94.5691, -91.8844
0.62, -1, -10.0609, -6.54448, 29.7187, -151.719, -100.444, 55.8598, 13.4765, 1.62366, 6.40982, -9.41053, -94.5741, -91.8813
0.624, -1, -10.142, -6.52543, 29.6905, -151.747, -100.42, 55.8595, 13.4324, 1.61726, 6.40512, -9.37759, -94.579, -91.8782
0.628, -1, -10.2231, -6.50639, 29.6622, -151.775, -100.396, 55.8592, 13.3882, 1.61086, 6.40041, -9.34465, -94.584, -91.8752
0.632, -1, -10.3042, -6.48736, 29.634, -151.802, -100.373, 55.8589, 13.3441, 1.60446, 6.3957, -9.31173, -94.5889, -91.8721
0.636, -1, -10.3852, -6.46834, 29.6058, -151.83, -100.349, 55.8586, 13.3, 1.59806, 6.391, -9.27882, -94.5939, -91.869
0.64, -1, -10.4662, -6.44932, 29.5776, -151.858, -100.326, 55.8583, 13.256, 1.59167, 6.3863, -9.24592, -94.5988, -91.866
0.644, -1, -10.5472, -6.43031, 29.5494, -151.886, -100.302, 55.858, 13.2119, 1.58528, 6.3816, -9.21304, -94.6038, -91.8629
0.648, -1, -10.6281, -6.41131, 29.5212, -151.913, -100.278, 55.8577, 13.1679, 1.57889, 6.3769, -9.18017, -94.6087, -91.8599
0.652, -1, -10.709, -6.39231, 29.4931, -151.941, -100.255, 55.8574, 13.1238, 1.5725, 6.37221, -9.14732, -94.6136, -91.8568
0.656, -1, -10.7899, -6.37333, 29.4649, -151.969, -100.231, 55.857, 13.0798, 1.56612, 6.36751, -9.11447, -94.6186, -91.8538
0.66, -1, -10.8707, -6.35435, 29.4368, -151.997, -100.208, 55.8567, 13.0358, 1.55974, 6.36282, -9.08164, -94.6235, -91.8507
0.664, -1, -10.9515, -6.33538, 29.4086, -152.024, -100.184, 55.8564, 12.9919, 1.55336, 6.35813, -9.04883, -94.6284, -91.8476
0.668, -1, -11.0323, -6.31641, 29.3805, -152.052, -100.16, 55.8561, 12.9479, 1.54698, 6.35344, -9.01602, -94.6334, -91.8446
0.672, -1, -11.113, -6.29746, 29.3524, -152.08, -100.137, 55.8558, 12.904, 1.54061, 6.34876, -8.98323, -94.6383, -91.8416
0.676, -1, -11.1938, -6.27851, 29.3243, -152.107, -100.113, 55.8555, 12.8601, 1.53424, 6.34407, -8.95045, -94.6432, -91.8385
0.68, -1, -11.2744, -6.25957, 29.2962, -152.135, -100.09, 55.8552, 12.8162, 1.52787, 6.33939, -8.91769, -94.6482, -91.8355
0.684, -1, -11.3551, -6.24063, 29.2681, -152.163, -100.066, 55.8549, 12.7723, 1.5215, 6.33471, -8.88494, -94.6531, -91.8324
0.688, -1, -11.4357, -6.22171, 29.2401, -152.19, -100.043, 55.8546, 12.7284, 1.51514, 6.33003, -8.8522, -94.658, -91.8294
0.692, -1, -11.5163, -6.20279, 29.212, -152.218, -100.019, 55.8543, 12.6846, 1.50878, 6.32535, -8.81947, -94.6629, -91.8263
0.696, -1, -11.5968, -6.18388, 29.184, -152.246, -99.9959, 55.854, 12.6407, 1.50242, 6.32068, -8.78676, -94.6678, -91.8233
0.7, -1, -11.6773, -6.16498, 29.156, -152.273, -99.9724, 55.8536, 12.5969, 1.49607, 6.316, -8.75406, -94.6727, -91.8202
0.704, -1, -11.7578, -6.14608, 29.1279, -152.301, -99.9489, 55.8533, 12.5531, 1.48971, 6.31133, -8.72138, -94.6777, -91.8172
0.708, -1, -11.8383, -6.12719, 29.0999, -152.328, -99.9255, 55.853, 12.5094, 1.48336, 6.30666, -8.6887, -94.6826, -91.8142
0.712, -1, -11.9187, -6.10831, 29.0719, -152.356, -99.902, 55.8527, 12.4656, 1.47702, 6.302, -8.65604, -94.6875, -91.8111
0.716, -1, -11.9991, -6.08944, 29.0439, -152.383, -99.8786, 55.8524, 12.4219, 1.47067, 6.29733, -8.6234, -94.6924, -91.8081
0.72, -1, -12.0794, -6.07057, 29.016, -152.411, -99.8551, 55.8521, 12.3781, 1.46433, 6.29267, -8.59076, -94.6973, -91.8051
0.724, -1, -12.1597, -6.05172, 28.988, -152.439, -99.8317, 55.8518, 12.3344, 1.45799, 6.288, -8.55814, -94.7022, -91.802
0.728, -1, -12.24, -6.03286, 28.96, -152.466, -99.8083, 55.8515, 12.2907, 1.45165, 6.28334, -8.52553, -94.7071, -91.799
0.732, -1, -12.3203, -6.01402, 28.9321, -152.494, -99.7849, 55.8512, 12.2471, 1.44531, 6.27868, -8.49294, -94.712, -91.796
0.736, -1, -12.4005, -5.99519, 28.9042, -152.521, -99.7615, 55.8509, 12.2034, 1.43898, 6.27403, -8.46035, -94.7169, -91.7929
0.74, -1, -12.4807, -5.97636, 28.8762, -152.549, -99.7381, 55.8506, 12.1598, 1.43265, 6.26937, -8.42779, -94.7218, -91.7899
0.744, -1, -12.5609, -5.95754, 28.8483, -152.576, -99.7147, 55.8503, 12.1161, 1.42632, 6.26472, -8.39523, -94.7267, -91.7869
0.748, -1, -12.641, -5.93872, 28.8204, -152.604, -99.6914, 55.85, 12.0725, 1.42, 6.26007, -8.36269, -94.7316, -91.7838
0.752, -1, -12.7211, -5.91992, 28.7926, -152.631, -99.668, 55.8497, 12.0289, 1.41367, 6.25542, -8.33016, -94.7365, -91.7808
0.756, -1, -12.8012, -5.90112, 28.7647, -152.658, -99.6447, 55.8493, 11.9854, 1.40735, 6.25077, -8.29764, -94.7413, -91.7778
0.76, -1, -12.8812, -5.88233, 28.7368, -152.686, -99.6213, 55.849, 11.9418, 1.40104, 6.24613, -8.26513, -94.7462, -91.7748
0.764, -1, -12.9612, -5.86355, 28.709, -152.713, -99.598, 55.8487, 11.8983, 1.39472, 6.24148, -8.23264, -94.7511, -91.7718
0.768, -1, -13.0412, -5.84477, 28.6811, -152.741, -99.5747, 55.8484, 11.8548, 1.38841, 6.23684, -8.20016, -94.756, -91.7687
0.772, -1, -13.1211, -5.826, 28.6533, -152.768, -99.5513, 55.8481, 11.8113, 1.3821, 6.2322, -8.1677, -94.7609, -91.7657
0.776, -1, -13.201, -5.80724, 28.6255, -152.796, -99.528, 55.8478, 11.7678, 1.37579, 6.22756, -8.13524, -94.7658, -91.7627
0.78, -1, -13.2809, -5.78849, 28.5977, -152.823, -99.5048, 55.8475, 11.7243, 1.36949, 6.22293, -8.1028, -94.7706, -91.7597
0.784, -1, -13.3608, -5.76974, 28.5699, -152.85, -99.4815, 55.8472, 11.6809, 1.36318, 6.21829, -8.07038, -94.7755, -91.7567
0.788, -1, -13.4406, -5.751, 28.5421, -152.878, -99.4582, 55.8469, 11.6374, 1.35688, 6.21366, -8.03796, -94.7804, -91.7536
0.792, -1, -13.5204, -5.73227, 28.5143, -152.905, -99.4349, 55.8466, 11.594, 1.35059, 6.20903, -8.00556, -94.7853, -91.7506
0.796, -1, -13.6001, -5.71355, 28.4865, -152.932, -99.4117, 55.8463, 11.5506, 1.34429, 6.2044, -7.97317, -94.7901, -91.7476
0.8, -1, -13.6798, -5.69483, 28.4588, -152.96, -99.3884, 55.846, 11.5072, 1.338, 6.19977, -7.94079, -94.795, -91.7446
0.804, -1, -13.7595, -5.67612, 28.431, -152.987, -99.3652, 55.8457, 11.4639, 1.33171, 6.19515, -7.90843, -94.7999, -91.7416
0.808, -1, -13.8392, -5.65742, 28.4033, -153.014, -99.342, 55.8454, 11.4205, 1.32542, 6.19053, -7.87608, -94.8047, -91.7386
0.812, -1, -13.9188, -5.63873, 28.3756, -153.042, -99.3187, 55.8451, 11.3772, 1.31913, 6.1859, -7.84374, -94.8096, -91.7356
0.816, -1, -13.9984, -5.62004, 28.3479, -153.069, -99.2955, 55.8448, 11.3339, 1.31285, 6.18128, -7.81142, -94.8144, -91.7326
0.82, -1, -14.078, -5.60136, 28.3202, -153.096, -99.2723, 55.8445, 11.2906, 1.30657, 6.17667, -7.7791, -94.8193, -91.7296
0.824, -1, -14.1575, -5.58269, 28.2925, -153.123, -99.2491, 55.8442, 11.2473, 1.30029, 6.17205, -7.74681, -94.8242, -91.7266
0.828, -1, -14.237, -5.56402, 28.2648, -153.151, -99.226, 55.8438, 11.2041, 1.29402, 6.16744, -7.71452, -94.829, -91.7236
0.832, -1, -14.3165, -5.54536, 28.2371, -153.178, -99.2028, 55.8435, 11.1608, 1.28774, 6.16282, -7.68225, -94.8339, -91.7206
0.836, -1, -14.3959, -5.52671, 28.2095, -153.205, -99.1796, 55.8432, 11.1176, 1.28147, 6.15821, -7.64998, -94.8387, -91.7176
0.84, -1, -14.4753, -5.50807, 28.1818, -153.232, -99.1565, 55.8429, 11.0744, 1.27521, 6.1536, -7.61773, -94.8436, -91.7146
0.844, -1, -14.5547, -5.48944, 28.1542, -153.26, -99.1333, 55.8426, 11.0312, 1.26894, 6.149, -7.5855, -94.8484, -91.7116
0.848, -1, -14.634, -5.47081, 28.1266, -153.287, -99.1102, 55.8423, 10.988, 1.26268, 6.14439, -7.55328, -94.8532, -91.7086
0.852, -1, -14.7133, -5.45219, 28.099, -153.314, -99.087, 55.842, 10.9449, 1.25642, 6.13979, -7.52107, -94.8581, -91.7056
0.856, -1, -14.7926, -5.43357, 28.0714, -153.341, -99.0639, 55.8417, 10.9017, 1.25016, 6.13519, -7.48887, -94.8629, -91.7026
0.86, -1, -14.8719, -5.41497, 28.0438, -153.368, -99.0408, 55.8414, 10.8586, 1.2439, 6.13059, -7.45668, -94.8678, -91.6996
0.864, -1, -14.9511, -5.39637, 28.0162, -153.396, -99.0177, 55.8411, 10.8155, 1.23765, 6.12599, -7.42451, -94.8726, -91.6966
0.868, -1, -15.0303, -5.37778, 27.9886, -153.423, -98.9946, 55.8408, 10.7724, 1.2314, 6.12139, -7.39235, -94.8774, -91.6936
0.872, -1, -15.1094, -5.35919, 27.9611, -153.45, -98.9715, 55.8405, 10.7293, 1.22515, 6.1168, -7.3602, -94.8823, -91.6906
0.876, -1, -15.1886, -5.34062, 27.9335, -153.477, -98.9485, 55.8402, 10.6863, 1.21891, 6.11221, -7.32807, -94.8871, -91.6876
0.88, -1, -15.2677, -5.32205, 27.906, -153.504, -98.9254, 55.8399, 10.6432, 1.21266, 6.10761, -7.29595, -94.8919, -91.6846
0.884, -1, -15.3467, -5.30348, 27.8784, -153.531, -98.9023, 55.8396, 10.6002, 1.20642, 6.10303, -7.26384, -94.8967, -91.6817
0.888, -1, -15.4257, -5.28493, 27.8509, -153.558, -98.8793, 55.8393, 10.5572, 1.20018, 6.09844, -7.23174, -94.9016, -91.6787
0.892, -1, -15.5047, -5.26638, 27.8234, -153.585, -98.8563, 55.839, 10.5142, 1.19395, 6.09385, -7.19965, -94.9064, -91.6757
0.896, -1, -15.5837, -5.24784, 27.7959, -153.612, -98.8332, 55.8387, 10.4712, 1.18771, 6.08927, -7.16758, -94.9112, -91.6727
0.9, -1, -15.6627, -5.22931, 27.7684, -153.639, -98.8102, 55.8384, 10.4283, 1.18148, 6.08469, -7.13552, -94.916, -91.6697
0.904, -1, -15.7416, -5.21078, 27.741, -153.667, -98.7872, 55.8381, 10.3853, 1.17525, 6.08011, -7.10348, -94.9208, -91.6667
0.908, -1, -15.8204, -5.19226, 27.7135, -153.694, -98.7642, 55.8378, 10.3424, 1.16903, 6.07553, -7.07144, -94.9257, -91.6638
0.912, -1, -15.8993, -5.17375, 27.6861, -153.721, -98.7412, 55.8375, 10.2995, 1.1628, 6.07095, -7.03942, -94.9305, -91.6608
0.916, -1, -15.9781, -5.15525, 27.6586, -153.748, -98.7182, 55.8372, 10.2566, 1.15658, 6.06638, -7.00741, -94.9353, -91.6578
0.92, -1, -16.0569, -5.13675, 27.6312, -153.775, -98.6952, 55.8369, 10.2138, 1.15036, 6.06181, -6.97542, -94.9401, -91.6548
0.924, -1, -16.1356, -5.11826, 27.6038, -153.802, -98.6723, 55.8366, 10.1709, 1.14415, 6.05723, -6.94343, -94.9449, -91.6519
0.928, -1, -16.2144, -5.09978, 27.5764, -153.829, -98.6493, 55.8363, 10.1281, 1.13793, 6.05267, -6.91146, -94.9497, -91.6489
0.932, -1, -16.2931, -5.0813, 27.549, -153.856, -98.6264, 55.836, 10.0853, 1.13172, 6.0481, -6.8795, -94.9545, -91.6459
0.936, -1, -16.3717, -5.06283, 27.5216, -153.883, -98.6034, 55.8357, 10.0424, 1.12551, 6.04353, -6.84756, -94.9593, -91.6429
0.94, -1, -16.4504, -5.04437, 27.4942, -153.91, -98.5805, 55.8354, 9.99966, 1.1193, 6.03897, -6.81562, -94.9641, -91.64
0.944, -1, -16.529, -5.02592, 27.4668, -153.936, -98.5576, 55.8351, 9.95689, 1.1131, 6.03441, -6.7837, -94.9689, -91.637
0.948, -1, -16.6075, -5.00747, 27.4395, -153.963, -98.5347, 55.8348, 9.91413, 1.1069, 6.02985, -6.75179, -94.9737, -91.634
0.952, -1, -16.6861, -4.98903, 27.4121, -153.99, -98.5118, 55.8345, 9.8714, 1.1007, 6.02529, -6.7199, -94.9785, -91.6311
0.956, -1, -16.7646, -4.9706, 27.3848, -154.017, -98.4889, 55.8342, 9.82868, 1.0945, 6.02073, -6.68801, -94.9833, -91.6281
0.96, -1, -16.843, -4.95218, 27.3575, -154.044, -98.466, 55.8339, 9.78597, 1.08831, 6.01618, -6.65614, -94.9881, -91.6251
0.964, -1, -16.9215, -4.93376, 27.3302, -154.071, -98.4431, 55.8336, 9.74328, 1.08211, 6.01162, -6.62428, -94.9929, -91.6222
0.968, -1, -16.9999, -4.91535, 27.3029, -154.098, -98.4202, 55.8333, 9.70061, 1.07593, 6.00707, -6.59243, -94.9977, -91.6192
0.972, -1, -17.0783, -4.89695, 27.2756, -154.125, -98.3974, 55.833, 9.65796, 1.06974, 6.00252, -6.5606, -95.0024, -91.6163
0.976, -1, -17.1567, -4.87855, 27.2483, -154.152, -98.3745, 55.8327, 9.61532, 1.06355, 5.99797, -6.52878, -95.0072, -91.6133
0.98, -1, -17.235, -4.86016, 27.221, -154.179, -98.3517, 55.8324, 9.5727, 1.05737, 5.99343, -6.49697, -95.012, -91.6103
0.984, -1, -17.3133, -4.84178, 27.1938, -154.205, -98.3289, 55.8321, 9.5301, 1.05119, 5.98888, -6.46517, -95.0168, -91.6074
0.988, -1, -17.3915, -4.8234, 27.1665, -154.232, -98.306, 55.8318, 9.48751, 1.04501, 5.98434, -6.43339, -95.0216, -91.6044
0.992, -1, -17.4698, -4.80503, 27.1393, -154.259, -98.2832, 55.8315, 9.44494, 1.03884, 5.9798, -6.40161, -95.0263, -91.6015
0.996, -1, -17.548, -4.78667, 27.1121, -154.286, -98.2604, 55.8312, 9.40238, 1.03266, 5.97526, -6.36985, -95.0311, -91.5985
1, -1, -17.6262, -4.76832, 27.0849, -154.313, -98.2376, 55.8309, 9.35984, 1.02649, 5.97072, -6.3381, -95.0359, -91.5956
1.004, -1, -17.7043, -4.74997, 27.0576, -154.339, -98.2148, 55.8306, 9.31732, 1.02032, 5.96619, -6.30637, -95.0407, -91.5926
1.008, -1, -17.7824, -4.73163, 27.0305, -154.366, -98.1921, 55.8303, 9.27481, 1.01416, 5.96165, -6.27464, -95.0454, -91.5897
1.012, -1, -17.8605, -4.7133, 27.0033, -154.393, -98.1693, 55.83, 9.23232, 1.00799, 5.95712, -6.24293, -95.0502, -91.5867
1.016, -1, -17.9386, -4.69497, 26.9761, -154.42, -98.1465, 55.8297, 9.18985, 1.00183, 5.95259, -6.21123, -95.055, -91.5838
1.02, -1, -18.0166, -4.67665, 26.9489, -154.446, -98.1238, 55.8294, 9.14739, 0.995673, 5.94806, -6.17954, -95.0597, -91.5808
1.024, -1, -18.0946, -4.65834, 26.9218, -154.473, -98.101, 55.8291, 9.10494, 0.989517, 5.94353, -6.14787, -95.0645, -91.5779
1.027, -1, -18.1726, -4.64004, 26.8946, -154.5, -98.0783, 55.8288, 9.06252, 0.983362, 5.93901, -6.1162, -95.0692, -91.5749
1.032, -1, -18.2505, -4.62174, 26.8675, -154.527, -98.0556, 55.8285, 9.02011, 0.97721, 5.93449, -6.08455, -95.074, -91.572
1.036, -1, -18.3284, -4.60345, 26.8404, -154.553, -98.0328, 55.8282, 8.97771, 0.97106, 5.92996, -6.05291, -95.0788, -91.569
1.04, -1, -18.4063, -4.58516, 26.8133, -154.58, -98.0101, 55.8279, 8.93533, 0.964913, 5.92544, -6.02128, -95.0835, -91.5661
1.044, -1, -18.4841, -4.56688, 26.7861, -154.607, -97.9874, 55.8276, 8.89297, 0.958767, 5.92093, -5.98966, -95.0883, -91.5632
1.048, -1, -18.562, -4.54861, 26.7591, -154.633, -97.9647, 55.8273, 8.85062, 0.952625, 5.91641, -5.95806, -95.093, -91.5602
1.052, -1, -18.6398, -4.53035, 26.732, -154.66, -97.942, 55.827, 8.80829, 0.946484, 5.91189, -5.92646, -95.0978, -91.5573
1.055, -1, -18.7175, -4.51209, 26.7049, -154.687, -97.9194, 55.8267, 8.76598, 0.940346, 5.90738, -5.89488, -95.1025, -91.5544
1.06, -1, -18.7953, -4.49384, 26.6778, -154.713, -97.8967, 55.8264, 8.72368, 0.93421, 5.90287, -5.86331, -95.1073, -91.5514
1.064, -1, -18.873, -4.4756, 26.6508, -154.74, -97.874, 55.8261, 8.68139, 0.928076, 5.89836, -5.83175, -95.112, -91.5485
1.068, -1, -18.9506, -4.45736, 26.6237, -154.767, -97.8514, 55.8258, 8.63912, 0.921944, 5.89385, -5.80021, -95.1167, -91.5455
1.072, -1, -19.0283, -4.43913, 26.5967, -154.793, -97.8287, 55.8255, 8.59687, 0.915815, 5.88934, -5.76867, -95.1215, -91.5426
1.076, -1, -19.1059, -4.42091, 26.5697, -154.82, -97.8061, 55.8252, 8.55464, 0.909688, 5.88484, -5.73715, -95.1262, -91.5397
1.08, -1, -19.1835, -4.40269, 26.5427, -154.847, -97.7835, 55.8249, 8.51242, 0.903564, 5.88033, -5.70564, -95.131, -91.5368
1.084, -1, -19.2611, -4.38448, 26.5157, -154.873, -97.7609, 55.8246, 8.47021, 0.897442, 5.87583, -5.67414, -95.1357, -91.5338
1.088, -1, -19.3386, -4.36628, 26.4887, -154.9, -97.7383, 55.8243, 8.42802, 0.891322, 5.87133, -5.64265, -95.1404, -91.5309
1.091, -1, -19.4161, -4.34808, 26.4617, -154.926, -97.7157, 55.824, 8.38585, 0.885204, 5.86683, -5.61118, -95.1452, -91.528
1.096, -1, -19.4936, -4.3299, 26.4347, -154.953, -97.6931, 55.8237, 8.34369, 0.879089, 5.86234, -5.57971, -95.1499, -91.525
1.1, -1, -19.571, -4.31171, 26.4078, -154.979, -97.6705, 55.8234, 8.30155, 0.872975, 5.85784, -5.54826, -95.1546, -91.5221
1.104, -1, -19.6484, -4.29354, 26.3808, -155.006, -97.6479, 55.8231, 8.25942, 0.866865, 5.85335, -5.51682, -95.1593, -91.5192
1.108, -1, -19.7258, -4.27537, 26.3539, -155.032, -97.6253, 55.8228, 8.21731, 0.860756, 5.84886, -5.48539, -95.1641, -91.5163
1.112, -1, -19.8032, -4.25721, 26.3269, -155.059, -97.6028, 55.8225, 8.17522, 0.85465, 5.84437, -5.45398, -95.1688, -91.5134
1.116, -1, -19.8805, -4.23905, 26.3, -155.085, -97.5802, 55.8222, 8.13314, 0.848546, 5.83988, -5.42257, -95.1735, -91.5104
1.119, -1, -19.9578, -4.2209, 26.2731, -155.112, -97.5577, 55.8219, 8.09108, 0.842444, 5.83539, -5.39118, -95.1782, -91.5075
1.124, -1, -20.0351, -4.20276, 26.2462, -155.138, -97.5352, 55.8216, 8.04903, 0.836345, 5.83091, -5.3598, -95.1829, -91.5046
1.128, -1, -20.1123, -4.18463, 26.2193, -155.165, -97.5126, 55.8213, 8.007, 0.830247, 5.82642, -5.32843, -95.1877, -91.5017
1.132, -1, -20.1895, -4.1665, 26.1924, -155.191, -97.4901, 55.821, 7.96498, 0.824153, 5.82194, -5.29707, -95.1924, -91.4988
1.136, -1, -20.2667, -4.14838, 26.1656, -155.218, -97.4676, 55.8208, 7.92298, 0.81806, 5.81746, -5.26572, -95.1971, -91.4958
1.14, -1, -20.3439, -4.13027, 26.1387, -155.244, -97.4451, 55.8205, 7.881, 0.811969, 5.81298, -5.23439, -95.2018, -91.4929
1.144, -1, -20.421, -4.11216, 26.1118, -155.271, -97.4226, 55.8202, 7.83903, 0.805881, 5.80851, -5.20306, -95.2065, -91.49
1.147, -1, -20.4981, -4.09406, 26.085, -155.297, -97.4001, 55.8199, 7.79707, 0.799796, 5.80403, -5.17175, -95.2112, -91.4871
1.152, -1, -20.5752, -4.07596, 26.0582, -155.324, -97.3777, 55.8196, 7.75513, 0.793712, 5.79956, -5.14045, -95.2159, -91.4842
1.156, -1, -20.6522, -4.05788, 26.0313, -155.35, -97.3552, 55.8193, 7.71321, 0.787631, 5.79509, -5.10916, -95.2206, -91.4813
1.16, -1, -20.7292, -4.03979, 26.0045, -155.376, -97.3327, 55.819, 7.6713, 0.781552, 5.79062, -5.07789, -95.2253, -91.4784
1.164, -1, -20.8062, -4.02172, 25.9777, -155.403, -97.3103, 55.8187, 7.62941, 0.775475, 5.78615, -5.04662, -95.23, -91.4755
1.168, -1, -20.8832, -4.00365, 25.9509, -155.429, -97.2878, 55.8184, 7.58754, 0.7694, 5.78168, -5.01537, -95.2347, -91.4726
1.172, -1, -20.9601, -3.98559, 25.9242, -155.456, -97.2654, 55.8181, 7.54568, 0.763328, 5.77722, -4.98412, -95.2394, -91.4697
1.175, -1, -21.037, -3.96754, 25.8974, -155.482, -97.243, 55.8178, 7.50383, 0.757258, 5.77275, -4.95289, -95.2441, -91.4668
1.18, -1, -21.1139, -3.94949, 25.8706, -155.508, -97.2206, 55.8175, 7.462, 0.75119, 5.76829, -4.92168, -95.2488, -91.4639
1.184, -1, -21.1907, -3.93145, 25.8439, -155.535, -97.1982, 55.8172, 7.42019, 0.745124, 5.76383, -4.89047, -95.2535, -91.4609
1.188, -1, -21.2675, -3.91341, 25.8171, -155.561, -97.1758, 55.8169, 7.37839, 0.739061, 5.75937, -4.85927, -95.2582, -91.458
1.192, -1, -21.3443, -3.89539, 25.7904, -155.587, -97.1534, 55.8166, 7.33661, 0.733, 5.75492, -4.82809, -95.2629, -91.4551
1.196, -1, -21.421, -3.87737, 25.7637, -155.614, -97.131, 55.8163, 7.29484, 0.726941, 5.75046, -4.79692, -95.2675, -91.4522
1.2, -1, -21.4978, -3.85935, 25.737, -155.64, -97.1086, 55.816, 7.25309, 0.720885, 5.74601, -4.76576, -95.2722, -91.4493
1.204, -1, -21.5745, -3.84134, 25.7102, -155.666, -97.0862, 55.8157, 7.21135, 0.71483, 5.74156, -4.73461, -95.2769, -91.4465
1.208, -1, -21.6511, -3.82334, 25.6836, -155.693, -97.0639, 55.8154, 7.16963, 0.708778, 5.73711, -4.70347, -95.2816, -91.4436
1.212, -1, -21.7278, -3.80535, 25.6569, -155.719, -97.0415, 55.8152, 7.12792, 0.702728, 5.73266, -4.67234, -95.2863, -91.4407
1.216, -1, -21.8044, -3.78736, 25.6302, -155.745, -97.0192, 55.8149, 7.08623, 0.696681, 5.72821, -4.64123, -95.2909, -91.4378
1.22, -1, -21.881, -3.76938, 25.6035, -155.771, -96.9969, 55.8146, 7.04456, 0.690635, 5.72377, -4.61012, -95.2956, -91.4349
1.224, -1, -21.9576, -3.75141, 25.5769, -155.798, -96.9745, 55.8143, 7.0029, 0.684592, 5.71932, -4.57903, -95.3003, -91.432
1.228, -1, -22.0341, -3.73344, 25.5502, -155.824, -96.9522, 55.814, 6.96126, 0.678551, 5.71488, -4.54795, -95.305, -91.4291
1.232, -1, -22.1106, -3.71548, 25.5236, -155.85, -96.9299, 55.8137, 6.91963, 0.672513, 5.71044, -4.51688, -95.3096, -91.4262
1.236, -1, -22.1871, -3.69752, 25.497, -155.876, -96.9076, 55.8134, 6.87801, 0.666476, 5.706, -4.48582, -95.3143, -91.4233
1.24, -1, -22.2635, -3.67957, 25.4704, -155.902, -96.8853, 55.8131, 6.83642, 0.660442, 5.70156, -4.45478, -95.319, -91.4204
1.244, -1, -22.3399, -3.66163, 25.4438, -155.929, -96.863, 55.8128, 6.79483, 0.65441, 5.69713, -4.42374, -95.3236, -91.4175
1.248, -1, -22.4163, -3.6437, 25.4172, -155.955, -96.8408, 55.8125, 6.75327, 0.64838, 5.6927, -4.39272, -95.3283, -91.4147
1.252, -1, -22.4927, -3.62577, 25.3906, -155.981, -96.8185, 55.8122, 6.71171, 0.642353, 5.68826, -4.36171, -95.333, -91.4118
1.256, -1, -22.569, -3.60785, 25.364, -156.007, -96.7962, 55.8119, 6.67018, 0.636327, 5.68383, -4.33071, -95.3376, -91.4089
1.26, -1, -22.6453, -3.58993, 25.3374, -156.033, -96.774, 55.8116, 6.62866, 0.630304, 5.6794, -4.29972, -95.3423, -91.406
1.264, -1, -22.7216, -3.57203, 25.3109, -156.06, -96.7517, 55.8113, 6.58715, 0.624283, 5.67498, -4.26874, -95.3469, -91.4031
1.267, -1, -22.7978, -3.55413, 25.2843, -156.086, -96.7295, 55.8111, 6.54566, 0.618264, 5.67055, -4.23777, -95.3516, -91.4003
1.272, -1, -22.8741, -3.53623, 25.2578, -156.112, -96.7073, 55.8108, 6.50418, 0.612248, 5.66613, -4.20682, -95.3562, -91.3974
1.276, -1, -22.9502, -3.51834, 25.2313, -156.138, -96.6851, 55.8105, 6.46272, 0.606234, 5.66171, -4.17588, -95.3609, -91.3945
1.28, -1, -23.0264, -3.50046, 25.2048, -156.164, -96.6628, 55.8102, 6.42128, 0.600222, 5.65728, -4.14494, -95.3655, -91.3916
1.284, -1, -23.1025, -3.48258, 25.1783, -156.19, -96.6406, 55.8099, 6.37985, 0.594212, 5.65287, -4.11402, -95.3702, -91.3887
1.288, -1, -23.1787, -3.46472, 25.1518, -156.216, -96.6184, 55.8096, 6.33843, 0.588204, 5.64845, -4.08311, -95.3748, -91.3859
1.292, -1, -23.2547, -3.44685, 25.1253, -156.242, -96.5963, 55.8093, 6.29704, 0.582199, 5.64403, -4.05222, -95.3795, -91.383
1.295, -1, -23.3308, -3.429, 25.0988, -156.268, -96.5741, 55.809, 6.25565, 0.576196, 5.63962, -4.02133, -95.3841, -91.3801
1.3, -1, -23.4068, -3.41115, 25.0723, -156.294, -96.5519, 55.8087, 6.21428, 0.570195, 5.63521, -3.99045, -95.3888, -91.3773
1.304, -1, -23.4828, -3.39331, 25.0459, -156.321, -96.5298, 55.8084, 6.17293, 0.564196, 5.63079, -3.95959, -95.3934, -91.3744
1.308, -1, -23.5588, -3.37547, 25.0194, -156.347, -96.5076, 55.8081, 6.13159, 0.558199, 5.62639, -3.92874, -95.398, -91.3715
1.312, -1, -23.6347, -3.35764, 24.993, -156.373, -96.4855, 55.8078, 6.09027, 0.552205, 5.62198, -3.8979, -95.4027, -91.3686
1.316, -1, -23.7106, -3.33982, 24.9665, -156.399, -96.4633, 55.8076, 6.04896, 0.546212, 5.61757, -3.86707, -95.4073, -91.3658
1.32, -1, -23.7865, -3.322, 24.9401, -156.425, -96.4412, 55.8073, 6.00766, 0.540222, 5.61317, -3.83625, -95.4119, -91.3629
1.324, -1, -23.8624, -3.30419, 24.9137, -156.451, -96.4191, 55.807, 5.96639, 0.534235, 5.60876, -3.80544, -95.4166, -91.36
1.328, -1, -23.9382, -3.28639, 24.8873, -156.477, -96.397, 55.8067, 5.92512, 0.528249, 5.60436, -3.77465, -95.4212, -91.3572
1.332, -1, -24.014, -3.26859, 24.8609, -156.503, -96.3748, 55.8064, 5.88388, 0.522265, 5.59996, -3.74386, -95.4258, -91.3543
1.336, -1, -24.0898, -3.2508, 24.8345, -156.529, -96.3528, 55.8061, 5.84264, 0.516284, 5.59557, -3.71309, -95.4305, -91.3515
1.34, -1, -24.1655, -3.23302, 24.8082, -156.555, -96.3307, 55.8058, 5.80143, 0.510305, 5.59117, -3.68232, -95.4351, -91.3486
1.344, -1, -24.2412, -3.21524, 24.7818, -156.581, -96.3086, 55.8055, 5.76022, 0.504328, 5.58677, -3.65157, -95.4397, -91.3457
1.348, -1, -24.3169, -3.19747, 24.7555, -156.606, -96.2865, 55.8052, 5.71904, 0.498354, 5.58238, -3.62083, -95.4443, -91.3429
1.352, -1, -24.3926, -3.17971, 24.7291, -156.632, -96.2644, 55.8049, 5.67786, 0.492381, 5.57799, -3.59011, -95.4489, -91.34
1.356, -1, -24.4682, -3.16195, 24.7028, -156.658, -96.2424, 55.8047, 5.6367, 0.486411, 5.5736, -3.55939, -95.4536, -91.3372
1.36, -1, -24.5438, -3.1442, 24.6765, -156.684, -96.2203, 55.8044, 5.59556, 0.480443, 5.56921, -3.52868, -95.4582, -91.3343
1.364, -1, -24.6194, -3.12646, 24.6502, -156.71, -96.1983, 55.8041, 5.55444, 0.474477, 5.56482, -3.49799, -95.4628, -91.3315
1.368, -1, -24.695, -3.10872, 24.6238, -156.736, -96.1763, 55.8038, 5.51332, 0.468513, 5.56044, -3.4673, -95.4674, -91.3286
1.372, -1, -24.7705, -3.09099, 24.5976, -156.762, -96.1542, 55.8035, 5.47223, 0.462551, 5.55605, -3.43663, -95.472, -91.3258
1.376, -1, -24.846, -3.07326, 24.5713, -156.788, -96.1322, 55.8032, 5.43114, 0.456592, 5.55167, -3.40597, -95.4766, -91.3229
1.38, -1, -24.9215, -3.05554, 24.545, -156.814, -96.1102, 55.8029, 5.39008, 0.450634, 5.54729, -3.37532, -95.4812, -91.32
1.384, -1, -24.9969, -3.03783, 24.5187, -156.84, -96.0882, 55.8026, 5.34902, 0.444679, 5.54291, -3.34468, -95.4858, -91.3172
1.388, -1, -25.0723, -3.02012, 24.4925, -156.865, -96.0662, 55.8023, 5.30799, 0.438726, 5.53854, -3.31405, -95.4904, -91.3144
1.392, -1, -25.1477, -3.00243, 24.4662, -156.891, -96.0442, 55.8021, 5.26696, 0.432776, 5.53416, -3.28343, -95.495, -91.3115
1.396, -1, -25.2231, -2.98473, 24.44, -156.917, -96.0223, 55.8018, 5.22596, 0.426827, 5.52979, -3.25283, -95.4996, -91.3087
1.4, -1, -25.2984, -2.96705, 24.4138, -156.943, -96.0003, 55.8015, 5.18496, 0.42088, 5.52541, -3.22223, -95.5042, -91.3058
1.404, -1, -25.3737, -2.94937, 24.3875, -156.969, -95.9783, 55.8012, 5.14398, 0.414936, 5.52104, -3.19165, -95.5088, -91.303
1.408, -1, -25.449, -2.93169, 24.3613, -156.995, -95.9564, 55.8009, 5.10302, 0.408994, 5.51667, -3.16108, -95.5134, -91.3001
1.412, -1, -25.5242, -2.91402, 24.3351, -157.02, -95.9344, 55.8006, 5.06207, 0.403054, 5.51231, -3.13052, -95.518, -91.2973
1.416, -1, -25.5995, -2.89636, 24.3089, -157.046, -95.9125, 55.8003, 5.02114, 0.397116, 5.50794, -3.09997, -95.5226, -91.2944
1.42, -1, -25.6747, -2.87871, 24.2828, -157.072, -95.8906, 55.8, 4.98022, 0.391181, 5.50358, -3.06943, -95.5272, -91.2916
1.424, -1, -25.7498, -2.86106, 24.2566, -157.098, -95.8687, 55.7998, 4.93932, 0.385247, 5.49921, -3.0389, -95.5318, -91.2888
1.428, -1, -25.825, -2.84342, 24.2304, -157.123, -95.8467, 55.7995, 4.89843, 0.379316, 5.49485, -3.00838, -95.5364, -91.2859
1.432, -1, -25.9001, -2.82578, 24.2043, -157.149, -95.8248, 55.7992, 4.85756, 0.373387, 5.49049, -2.97788, -95.541, -91.2831
1.436, -1, -25.9752, -2.80816, 24.1781, -157.175, -95.8029, 55.7989, 4.8167, 0.36746, 5.48613, -2.94738, -95.5455, -91.2803
1.44, -1, -26.0502, -2.79053, 24.152, -157.201, -95.7811, 55.7986, 4.77585, 0.361535, 5.48178, -2.9169, -95.5501, -91.2774
1.444, -1, -26.1253, -2.77292, 24.1259, -157.226, -95.7592, 55.7983, 4.73502, 0.355612, 5.47742, -2.88643, -95.5547, -91.2746
1.448, -1, -26.2003, -2.75531, 24.0998, -157.252, -95.7373, 55.798, 4.69421, 0.349691, 5.47307, -2.85597, -95.5593, -91.2718
1.452, -1, -26.2752, -2.7377, 24.0737, -157.278, -95.7154, 55.7977, 4.65341, 0.343773, 5.46871, -2.82552, -95.5639, -91.2689
1.456, -1, -26.3502, -2.72011, 24.0476, -157.304, -95.6936, 55.7975, 4.61263, 0.337857, 5.46436, -2.79508, -95.5684, -91.2661
1.46, -1, -26.4251, -2.70252, 24.0215, -157.329, -95.6717, 55.7972, 4.57186, 0.331943, 5.46001, -2.76465, -95.573, -91.2633
1.464, -1, -26.5, -2.68493, 23.9954, -157.355, -95.6499, 55.7969, 4.5311, 0.326031, 5.45567, -2.73423, -95.5776, -91.2604
1.468, -1, -26.5749, -2.66736, 23.9694, -157.381, -95.6281, 55.7966, 4.49036, 0.320121, 5.45132, -2.70383, -95.5822, -91.2576
1.472, -1, -26.6497, -2.64978, 23.9433, -157.406, -95.6062, 55.7963, 4.44963, 0.314213, 5.44698, -2.67343, -95.5867, -91.2548
1.476, -1, -26.7245, -2.63222, 23.9173, -157.432, -95.5844, 55.796, 4.40892, 0.308307, 5.44263, -2.64305, -95.5913, -91.252
1.48, -1, -26.7993, -2.61466, 23.8912, -157.458, -95.5626, 55.7957, 4.36823, 0.302404, 5.43829, -2.61267, -95.5959, -91.2491
1.484, -1, -26.8741, -2.59711, 23.8652, -157.483, -95.5408, 55.7954, 4.32754, 0.296503, 5.43395, -2.58231, -95.6004, -91.2463
1.488, -1, -26.9488, -2.57956, 23.8392, -157.509, -95.519, 55.7952, 4.28688, 0.290603, 5.42962, -2.55196, -95.605, -91.2435
1.492, -1, -27.0235, -2.56202, 23.8132, -157.534, -95.4972, 55.7949, 4.24622, 0.284706, 5.42528, -2.52162, -95.6096, -91.2407
1.496, -1, -27.0982, -2.54449, 23.7872, -157.56, -95.4754, 55.7946, 4.20559, 0.278811, 5.42094, -2.49129, -95.6141, -91.2378
1.5, -1, -27.1729, -2.52696, 23.7612, -157.586, -95.4537, 55.7943, 4.16496, 0.272918, 5.41661, -2.46097, -95.6187, -91.235
1.504, -1, -27.2475, -2.50944, 23.7352, -157.611, -95.4319, 55.794, 4.12436, 0.267028, 5.41228, -2.43066, -95.6232, -91.2322
1.508, -1, -27.3221, -2.49193, 23.7092, -157.637, -95.4102, 55.7937, 4.08376, 0.261139, 5.40795, -2.40037, -95.6278, -91.2294
1.512, -1, -27.3967, -2.47442, 23.6833, -157.662, -95.3884, 55.7934, 4.04318, 0.255253, 5.40362, -2.37008, -95.6323, -91.2266
1.516, -1, -27.4712, -2.45692, 23.6573, -157.688, -95.3667, 55.7932, 4.00262, 0.249368, 5.39929, -2.33981, -95.6369, -91.2237
1.52, -1, -27.5457, -2.43942, 23.6314, -157.713, -95.3449, 55.7929, 3.96207, 0.243486, 5.39497, -2.30954, -95.6414, -91.2209
1.524, -1, -27.6202, -2.42193, 23.6054, -157.739, -95.3232, 55.7926, 3.92153, 0.237606, 5.39065, -2.27929, -95.646, -91.2181
1.528, -1, -27.6947, -2.40445, 23.5795, -157.765, -95.3015, 55.7923, 3.88101, 0.231728, 5.38632, -2.24905, -95.6505, -91.2153
1.532, -1, -27.7691, -2.38697, 23.5536, -157.79, -95.2798, 55.792, 3.84051, 0.225852, 5.382, -2.21882, -95.6551, -91.2125
1.536, -1, -27.8435, -2.3695, 23.5277, -157.816, -95.2581, 55.7917, 3.80001, 0.219979, 5.37768, -2.1886, -95.6596, -91.2097
1.54, -1, -27.9179, -2.35204, 23.5018, -157.841, -95.2364, 55.7914, 3.75954, 0.214107, 5.37337, -2.15839, -95.6641, -91.2069
1.544, -1, -27.9923, -2.33458, 23.4759, -157.867, -95.2147, 55.7912, 3.71907, 0.208237, 5.36905, -2.12819, -95.6687, -91.2041
1.548, -1, -28.0666, -2.31713, 23.45, -157.892, -95.1931, 55.7909, 3.67863, 0.20237, 5.36474, -2.098, -95.6732, -91.2013
1.552, -1, -28.1409, -2.29968, 23.4241, -157.917, -95.1714, 55.7906, 3.63819, 0.196505, 5.36042, -2.06782, -95.6778, -91.1985
1.556, -1, -28.2152, -2.28224, 23.3983, -157.943, -95.1497, 55.7903, 3.59777, 0.190641, 5.35611, -2.03766, -95.6823, -91.1956
1.56, -1, -28.2894, -2.26481, 23.3724, -157.968, -95.1281, 55.79, 3.55737, 0.18478, 5.3518, -2.0075, -95.6868, -91.1928
1.564, -1, -28.3637, -2.24739, 23.3466, -157.994, -95.1064, 55.7897, 3.51698, 0.178921, 5.3475, -1.97736, -95.6914, -91.19
1.568, -1, -28.4379, -2.22996, 23.3208, -158.019, -95.0848, 55.7895, 3.4766, 0.173065, 5.34319, -1.94722, -95.6959, -91.1872
1.572, -1, -28.512, -2.21255, 23.2949, -158.045, -95.0632, 55.7892, 3.43624, 0.16721, 5.33888, -1.9171, -95.7004, -91.1844
1.576, -1, -28.5862, -2.19514, 23.2691, -158.07, -95.0415, 55.7889, 3.3959, 0.161357, 5.33458, -1.88699, -95.7049, -91.1816
1.58, -1, -28.6603, -2.17774, 23.2433, -158.096, -95.0199, 55.7886, 3.35557, 0.155506, 5.33028, -1.85689, -95.7095, -91.1788
1.584, -1, -28.7344, -2.16035, 23.2175, -158.121, -94.9983, 55.7883, 3.31525, 0.149658, 5.32598, -1.8268, -95.714, -91.176
1.588, -1, -28.8085, -2.14296, 23.1917, -158.146, -94.9767, 55.788, 3.27494, 0.143811, 5.32168, -1.79672, -95.7185, -91.1732
1.592, -1, -28.8825, -2.12557, 23.166, -158.172, -94.9551, 55.7878, 3.23465, 0.137967, 5.31738, -1.76665, -95.723, -91.1704
1.596, -1, -28.9565, -2.1082, 23.1402, -158.197, -94.9335, 55.7875, 3.19438, 0.132124, 5.31309, -1.73659, -95.7275, -91.1676
1.6, -1, -29.0305, -2.09082, 23.1144, -158.222, -94.912, 55.7872, 3.15412, 0.126284, 5.30879, -1.70654, -95.7321, -91.1649
1.604, -1, -29.1045, -2.07346, 23.0887, -158.248, -94.8904, 55.7869, 3.11387, 0.120446, 5.3045, -1.6765, -95.7366, -91.1621
1.608, -1, -29.1784, -2.0561, 23.0629, -158.273, -94.8688, 55.7866, 3.07364, 0.11461, 5.30021, -1.64648, -95.7411, -91.1593
1.612, -1, -29.2523, -2.03875, 23.0372, -158.299, -94.8473, 55.7863, 3.03342, 0.108775, 5.29592, -1.61646, -95.7456, -91.1565
1.616, -1, -29.3262, -2.0214, 23.0115, -158.324, -94.8257, 55.7861, 2.99321, 0.102943, 5.29163, -1.58645, -95.7501, -91.1537
1.62, -1, -29.4001, -2.00406, 22.9858, -158.349, -94.8042, 55.7858, 2.95302, 0.097113, 5.28734, -1.55646, -95.7546, -91.1509
1.624, -1, -29.4739, -1.98673, 22.9601, -158.374, -94.7827, 55.7855, 2.91285, 0.0912848, 5.28306, -1.52647, -95.7591, -91.1481
1.628, -1, -29.5477, -1.9694, 22.9344, -158.4, -94.7611, 55.7852, 2.87268, 0.0854587, 5.27877, -1.49649, -95.7636, -91.1453
1.632, -1, -29.6215, -1.95207, 22.9087, -158.425, -94.7396, 55.7849, 2.83253, 0.0796345, 5.27449, -1.46653, -95.7681, -91.1425
1.636, -1, -29.6953, -1.93476, 22.883, -158.45, -94.7181, 55.7846, 2.7924, 0.0738124, 5.27021, -1.43657, -95.7726, -91.1397
1.64, -1, -29.769, -1.91745, 22.8573, -158.476, -94.6966, 55.7844, 2.75228, 0.0679923, 5.26593, -1.40663, -95.7771, -91.137
1.644, -1, -29.8427, -1.90014, 22.8317, -158.501, -94.6751, 55.7841, 2.71217, 0.0621742, 5.26165, -1.3767, -95.7816, -91.1342
1.648, -1, -29.9164, -1.88284, 22.806, -158.526, -94.6536, 55.7838, 2.67207, 0.056358, 5.25738, -1.34677, -95.7861, -91.1314
1.652, -1, -29.99, -1.86555, 22.7804, -158.551, -94.6322, 55.7835, 2.63199, 0.0505439, 5.2531, -1.31686, -95.7906, -91.1286
1.656, -1, -30.0637, -1.84826, 22.7547, -158.577, -94.6107, 55.7832, 2.59193, 0.0447318, 5.24883, -1.28696, -95.7951, -91.1258
1.66, -1, -30.1373, -1.83098, 22.7291, -158.602, -94.5892, 55.7829, 2.55187, 0.0389217, 5.24455, -1.25706, -95.7996, -91.1231
1.664, -1, -30.2109, -1.81371, 22.7035, -158.627, -94.5678, 55.7827, 2.51183, 0.0331135, 5.24028, -1.22718, -95.8041, -91.1203
1.668, -1, -30.2844, -1.79644, 22.6779, -158.652, -94.5463, 55.7824, 2.47181, 0.0273074, 5.23601, -1.19731, -95.8086, -91.1175
1.672, -1, -30.3579, -1.77917, 22.6523, -158.678, -94.5249, 55.7821, 2.4318, 0.0215032, 5.23175, -1.16744, -95.8131, -91.1147
1.676, -1, -30.4315, -1.76192, 22.6267, -158.703, -94.5034, 55.7818, 2.3918, 0.0157011, 5.22748, -1.13759, -95.8176, -91.112
1.68, -1, -30.5049, -1.74466, 22.6011, -158.728, -94.482, 55.7815, 2.35181, 0.00990091, 5.22321, -1.10775, -95.8221, -91.1092
1.684, -1, -30.5784, -1.72742, 22.5755, -158.753, -94.4606, 55.7813, 2.31184, 0.00410274, 5.21895, -1.07792, -95.8266, -91.1064
1.688, -1, -30.6518, -1.71018, 22.55, -158.778, -94.4392, 55.781, 2.27189, -0.00169346, 5.21469, -1.0481, -95.831, -91.1036
1.692, -1, -30.7252, -1.69295, 22.5244, -158.803, -94.4178, 55.7807, 2.23194, -0.00748766, 5.21043, -1.01829, -95.8355, -91.1009
1.696, -1, -30.7986, -1.67572, 22.4989, -158.829, -94.3964, 55.7804, 2.19201, -0.0132799, 5.20617, -0.988485, -95.84, -91.0981
1.7, -1, -30.872, -1.6585, 22.4733, -158.854, -94.375, 55.7801, 2.1521, -0.0190701, 5.20191, -0.958695, -95.8445, -91.0953
1.704, -1, -30.9453, -1.64128, 22.4478, -158.879, -94.3536, 55.7799, 2.1122, -0.0248584, 5.19766, -0.928914, -95.849, -91.0925
1.708, -1, -31.0186, -1.62407, 22.4223, -158.904, -94.3322, 55.7796, 2.07231, -0.0306446, 5.1934, -0.899144, -95.8534, -91.0898
1.712, -1, -31.0919, -1.60687, 22.3968, -158.929, -94.3109, 55.7793, 2.03243, -0.0364289, 5.18915, -0.869384, -95.8579, -91.087
1.716, -1, -31.1651, -1.58967, 22.3713, -158.954, -94.2895, 55.779, 1.99257, -0.0422113, 5.1849, -0.839634, -95.8624, -91.0842
1.72, -1, -31.2383, -1.57247, 22.3458, -158.979, -94.2681, 55.7787, 1.95272, -0.0479916, 5.18065, -0.809894, -95.8668, -91.0815
1.724, -1, -31.3116, -1.55529, 22.3203, -159.005, -94.2468, 55.7785, 1.91289, -0.05377, 5.1764, -0.780164, -95.8713, -91.0787
1.728, -1, -31.3847, -1.53811, 22.2948, -159.03, -94.2254, 55.7782, 1.87307, -0.0595464, 5.17215, -0.750445, -95.8758, -91.076
1.732, -1, -31.4579, -1.52093, 22.2693, -159.055, -94.2041, 55.7779, 1.83326, -0.0653208, 5.1679, -0.720735, -95.8802, -91.0732
1.736, -1, -31.531, -1.50376, 22.2439, -159.08, -94.1828, 55.7776, 1.79347, -0.0710932, 5.16366, -0.691036, -95.8847, -91.0704
1.74, -1, -31.6041, -1.4866, 22.2184, -159.105, -94.1615, 55.7773, 1.75369, -0.0768637, 5.15942, -0.661347, -95.8892, -91.0677
1.744, -1, -31.6772, -1.46944, 22.193, -159.13, -94.1402, 55.7771, 1.71392, -0.0826322, 5.15518, -0.631668, -95.8936, -91.0649
1.748, -1, -31.7502, -1.45229, 22.1676, -159.155, -94.1189, 55.7768, 1.67417, -0.0883987, 5.15094, -0.601999, -95.8981, -91.0621
1.752, -1, -31.8233, -1.43515, 22.1421, -159.18, -94.0976, 55.7765, 1.63443, -0.0941633, 5.1467, -0.572341, -95.9025, -91.0594
1.756, -1, -31.8963, -1.41801, 22.1167, -159.205, -94.0763, 55.7762, 1.59471, -0.0999259, 5.14246, -0.542692, -95.907, -91.0566
1.76, -1, -31.9693, -1.40087, 22.0913, -159.23, -94.055, 55.7759, 1.55499, -0.105687, 5.13822, -0.513054, -95.9115, -91.0539
1.764, -1, -32.0422, -1.38374, 22.0659, -159.255, -94.0337, 55.7757, 1.5153, -0.111445, 5.13399, -0.483425, -95.9159, -91.0511
1.768, -1, -32.1151, -1.36662, 22.0405, -159.28, -94.0124, 55.7754, 1.47561, -0.117202, 5.12976, -0.453807, -95.9204, -91.0484
1.772, -1, -32.188, -1.34951, 22.0151, -159.305, -93.9912, 55.7751, 1.43594, -0.122957, 5.12552, -0.424199, -95.9248, -91.0456
1.776, -1, -32.2609, -1.33239, 21.9898, -159.33, -93.9699, 55.7748, 1.39628, -0.12871, 5.12129, -0.394601, -95.9293, -91.0429
1.78, -1, -32.3338, -1.31529, 21.9644, -159.355, -93.9487, 55.7745, 1.35664, -0.13446, 5.11707, -0.365013, -95.9337, -91.0401
1.784, -1, -32.4066, -1.29819, 21.939, -159.38, -93.9275, 55.7743, 1.31701, -0.140209, 5.11284, -0.335435, -95.9382, -91.0374
1.788, -1, -32.4794, -1.2811, 21.9137, -159.405, -93.9062, 55.774, 1.27739, -0.145956, 5.10861, -0.305867, -95.9426, -91.0346
1.792, -1, -32.5522, -1.26401, 21.8884, -159.43, -93.885, 55.7737, 1.23778, -0.151701, 5.10439, -0.276309, -95.947, -91.0319
1.796, -1, -32.625, -1.24693, 21.863, -159.455, -93.8638, 55.7734, 1.19819, -0.157444, 5.10017, -0.246761, -95.9515, -91.0291
1.8, -1, -32.6977, -1.22985, 21.8377, -159.48, -93.8426, 55.7731, 1.15862, -0.163185, 5.09594, -0.217223, -95.9559, -91.0264
1.804, -1, -32.7704, -1.21278, 21.8124, -159.505, -93.8214, 55.7729, 1.11905, -0.168925, 5.09172, -0.187695, -95.9604, -91.0236
1.808, -1, -32.8431, -1.19572, 21.7871, -159.53, -93.8002, 55.7726, 1.0795, -0.174662, 5.08751, -0.158177, -95.9648, -91.0209
1.812, -1, -32.9157, -1.17866, 21.7618, -159.554, -93.779, 55.7723, 1.03997, -0.180397, 5.08329, -0.128669, -95.9692, -91.0181
1.816, -1, -32.9884, -1.16161, 21.7365, -159.579, -93.7578, 55.772, 1.00044, -0.18613, 5.07907, -0.0991717, -95.9737, -91.0154
1.82, -1, -33.061, -1.14456, 21.7112, -159.604, -93.7366, 55.7718, 0.960933, -0.191862, 5.07486, -0.0696839, -95.9781, -91.0126
1.824, -1, -33.1336, -1.12752, 21.686, -159.629, -93.7155, 55.7715, 0.921437, -0.197591, 5.07065, -0.0402061, -95.9825, -91.0099
1.828, -1, -33.2061, -1.11049, 21.6607, -159.654, -93.6943, 55.7712, 0.881954, -0.203319, 5.06643, -0.0107383, -95.987, -91.0072
1.832, -1, -33.2786, -1.09346, 21.6354, -159.679, -93.6731, 55.7709, 0.842484, -0.209044, 5.06222, 0.0187195, -95.9914, -91.0044
1.836, -1, -33.3512, -1.07643, 21.6102, -159.704, -93.652, 55.7706, 0.803027, -0.214768, 5.05802, 0.0481674, -95.9958, -91.0017
1.84, -1, -33.4236, -1.05941, 21.585, -159.729, -93.6309, 55.7704, 0.763584, -0.220489, 5.05381, 0.0776053, -96.0002, -90.9989
1.844, -1, -33.4961, -1.0424, 21.5597, -159.753, -93.6097, 55.7701, 0.724155, -0.226209, 5.0496, 0.107033, -96.0047, -90.9962
1.848, -1, -33.5685, -1.0254, 21.5345, -159.778, -93.5886, 55.7698, 0.684738, -0.231927, 5.0454, 0.136451, -96.0091, -90.9935
1.852, -1, -33.6409, -1.00839, 21.5093, -159.803, -93.5675, 55.7695, 0.645335, -0.237643, 5.0412, 0.165859, -96.0135, -90.9907
1.856, -1, -33.7133, -0.9914, 21.4841, -159.828, -93.5464, 55.7693, 0.605945, -0.243357, 5.03699, 0.195257, -96.0179, -90.988
1.86, -1, -33.7857, -0.97441, 21.4589, -159.853, -93.5253, 55.769, 0.566569, -0.249069, 5.03279, 0.224645, -96.0223, -90.9853
1.864, -1, -33.858, -0.957427, 21.4337, -159.878, -93.5042, 55.7687, 0.527206, -0.254779, 5.0286, 0.254024, -96.0268, -90.9825
1.868, -1, -33.9304, -0.940449, 21.4085, -159.902, -93.4831, 55.7684, 0.487856, -0.260487, 5.0244, 0.283392, -96.0312, -90.9798
1.872, -1, -34.0026, -0.923477, 21.3834, -159.927, -93.462, 55.7681, 0.448519, -0.266193, 5.0202, 0.31275, -96.0356, -90.9771
1.876, -1, -34.0749, -0.906511, 21.3582, -159.952, -93.4409, 55.7679, 0.409196, -0.271897, 5.01601, 0.342099, -96.04, -90.9743
1.88, -1, -34.1471, -0.88955, 21.3331, -159.977, -93.4199, 55.7676, 0.369886, -0.2776, 5.01182, 0.371438, -96.0444, -90.9716
1.884, -1, -34.2194, -0.872595, 21.3079, -160.001, -93.3988, 55.7673, 0.330589, -0.2833, 5.00762, 0.400766, -96.0488, -90.9689
1.888, -1, -34.2916, -0.855646, 21.2828, -160.026, -93.3778, 55.767, 0.291305, -0.288999, 5.00343, 0.430085, -96.0532, -90.9662
1.892, -1, -34.3637, -0.838703, 21.2577, -160.051, -93.3567, 55.7668, 0.252035, -0.294695, 4.99924, 0.459394, -96.0576, -90.9634
1.896, -1, -34.4359, -0.821765, 21.2326, -160.076, -93.3357, 55.7665, 0.212778, -0.30039, 4.99506, 0.488693, -96.062, -90.9607
1.9, -1, -34.508, -0.804833, 21.2074, -160.1, -93.3147, 55.7662, 0.173534, -0.306083, 4.99087, 0.517982, -96.0664, -90.958
1.904, -1, -34.5801, -0.787907, 21.1823, -160.125, -93.2936, 55.7659, 0.134303, -0.311773, 4.98669, 0.547262, -96.0708, -90.9553
1.908, -1, -34.6521, -0.770986, 21.1573, -160.15, -93.2726, 55.7657, 0.0950858, -0.317462, 4.9825, 0.576531, -96.0752, -90.9525
1.912, -1, -34.7242, -0.754071, 21.1322, -160.174, -93.2516, 55.7654, 0.0558815, -0.323149, 4.97832, 0.605791, -96.0796, -90.9498
1.916, -1, -34.7962, -0.737162, 21.1071, -160.199, -93.2306, 55.7651, 0.0166904, -0.328835, 4.97414, 0.635041, -96.084, -90.9471
1.92, -1, -34.8682, -0.720259, 21.082, -160.224, -93.2096, 55.7648, -0.0224875, -0.334518, 4.96996, 0.66428, -96.0884, -90.9444
1.924, -1, -34.9402, -0.703361, 21.057, -160.249, -93.1886, 55.7646, -0.0616522, -0.340199, 4.96579, 0.693511, -96.0928, -90.9417
1.928, -1, -35.0121, -0.686469, 21.0319, -160.273, -93.1676, 55.7643, -0.100804, -0.345878, 4.96161, 0.722731, -96.0972, -90.9389
1.932, -1, -35.0841, -0.669582, 21.0069, -160.298, -93.1467, 55.764, -0.139942, -0.351556, 4.95744, 0.751941, -96.1016, -90.9362
1.936, -1, -35.156, -0.652701, 20.9818, -160.323, -93.1257, 55.7637, -0.179068, -0.357231, 4.95326, 0.781142, -96.106, -90.9335
1.94, -1, -35.2278, -0.635826, 20.9568, -160.347, -93.1047, 55.7635, -0.21818, -0.362905, 4.94909, 0.810333, -96.1104, -90.9308
1.944, -1, -35.2997, -0.618956, 20.9318, -160.372, -93.0838, 55.7632, -0.257279, -0.368577, 4.94492, 0.839514, -96.1148, -90.9281
1.948, -1, -35.3715, -0.602093, 20.9068, -160.396, -93.0628, 55.7629, -0.296365, -0.374247, 4.94075, 0.868685, -96.1191, -90.9254
1.952, -1, -35.4433, -0.585234, 20.8818, -160.421, -93.0419, 55.7626, -0.335438, -0.379915, 4.93658, 0.897847, -96.1235, -90.9227
1.956, -1, -35.5151, -0.568382, 20.8568, -160.446, -93.021, 55.7624, -0.374497, -0.385581, 4.93242, 0.926999, -96.1279, -90.92
1.96, -1, -35.5869, -0.551535, 20.8318, -160.47, -93, 55.7621, -0.413544, -0.391245, 4.92825, 0.956141, -96.1323, -90.9172
1.964, -1, -35.6586, -0.534694, 20.8069, -160.495, -92.9791, 55.7618, -0.452578, -0.396907, 4.92409, 0.985273, -96.1367, -90.9145
1.968, -1, -35.7303, -0.517858, 20.7819, -160.519, -92.9582, 55.7615, -0.491598, -0.402567, 4.91993, 1.0144, -96.1411, -90.9118
1.972, -1, -35.802, -0.501028, 20.7569, -160.544, -92.9373, 55.7613, -0.530606, -0.408226, 4.91577, 1.04351, -96.1454, -90.9091
1.976, -1, -35.8736, -0.484204, 20.732, -160.569, -92.9164, 55.761, -0.5696, -0.413882, 4.91161, 1.07261, -96.1498, -90.9064
1.98, -1, -35.9453, -0.467385, 20.707, -160.593, -92.8955, 55.7607, -0.608581, -0.419537, 4.90745, 1.1017, -96.1542, -90.9037
1.984, -1, -36.0169, -0.450572, 20.6821, -160.618, -92.8746, 55.7604, -0.64755, -0.42519, 4.90329, 1.13079, -96.1585, -90.901
1.988, -1, -36.0885, -0.433764, 20.6572, -160.642, -92.8538, 55.7602, -0.686505, -0.430841, 4.89914, 1.15986, -96.1629, -90.8983
1.992, -1, -36.1601, -0.416962, 20.6323, -160.667, -92.8329, 55.7599, -0.725447, -0.43649, 4.89498, 1.18893, -96.1673, -90.8956
1.996, -1, -36.2316, -0.400166, 20.6074, -160.691, -92.812, 55.7596, -0.764376, -0.442137, 4.89083, 1.21798, -96.1717, -90.8929
1.999, -1, -36.3031, -0.383375, 20.5825, -160.716, -92.7912, 55.7593, -0.803293, -0.447782, 4.88668, 1.24703, -96.176, -90.8902
2.004, -1, -36.3746, -0.36659, 20.5576, -160.74, -92.7703, 55.7591, -0.842196, -0.453426, 4.88253, 1.27606, -96.1804, -90.8875
2.008, -1, -36.4461, -0.349811, 20.5327, -160.765, -92.7495, 55.7588, -0.881086, -0.459067, 4.87838, 1.30509, -96.1847, -90.8848
2.012, -1, -36.5175, -0.333037, 20.5078, -160.789, -92.7287, 55.7585, -0.919964, -0.464707, 4.87424, 1.3341, -96.1891, -90.8821
2.015, -1, -36.5889, -0.316269, 20.483, -160.814, -92.7078, 55.7582, -0.958828, -0.470344, 4.87009, 1.36311, -96.1935, -90.8794
2.019, -1, -36.6603, -0.299506, 20.4581, -160.838, -92.687, 55.758, -0.997679, -0.47598, 4.86595, 1.3921, -96.1978, -90.8767
2.024, -1, -36.7317, -0.282749, 20.4333, -160.863, -92.6662, 55.7577, -1.03652, -0.481614, 4.8618, 1.42109, -96.2022, -90.874
2.028, -1, -36.8031, -0.265998, 20.4084, -160.887, -92.6454, 55.7574, -1.07534, -0.487246, 4.85766, 1.45007, -96.2065, -90.8713
2.031, -1, -36.8744, -0.249252, 20.3836, -160.912, -92.6246, 55.7571, -1.11416, -0.492876, 4.85352, 1.47903, -96.2109, -90.8686
2.036, -1, -36.9457, -0.232511, 20.3588, -160.936, -92.6038, 55.7569, -1.15296, -0.498505, 4.84938, 1.50799, -96.2152, -90.8659
2.04, -1, -37.017, -0.215777, 20.3339, -160.961, -92.583, 55.7566, -1.19174, -0.504131, 4.84525, 1.53694, -96.2196, -90.8632
2.044, -1, -37.0882, -0.199047, 20.3091, -160.985, -92.5622, 55.7563, -1.23052, -0.509756, 4.84111, 1.56588, -96.2239, -90.8605
2.048, -1, -37.1595, -0.182324, 20.2843, -161.009, -92.5415, 55.7561, -1.26928, -0.515378, 4.83698, 1.59481, -96.2283, -90.8578
2.051, -1, -37.2307, -0.165606, 20.2595, -161.034, -92.5207, 55.7558, -1.30803, -0.520999, 4.83284, 1.62373, -96.2326, -90.8552
2.055, -1, -37.3018, -0.148893, 20.2348, -161.058, -92.4999, 55.7555, -1.34676, -0.526618, 4.82871, 1.65264, -96.237, -90.8525
2.06, -1, -37.373, -0.132186, 20.21, -161.083, -92.4792, 55.7552, -1.38548, -0.532235, 4.82458, 1.68154, -96.2413, -90.8498
2.064, -1, -37.4441, -0.115485, 20.1852, -161.107, -92.4584, 55.755, -1.42419, -0.53785, 4.82045, 1.71043, -96.2457, -90.8471
2.068, -1, -37.5153, -0.0987888, 20.1605, -161.131, -92.4377, 55.7547, -1.46289, -0.543464, 4.81632, 1.73931, -96.25, -90.8444
2.071, -1, -37.5863, -0.0820985, 20.1357, -161.156, -92.417, 55.7544, -1.50157, -0.549075, 4.8122, 1.76818, -96.2544, -90.8417
2.076, -1, -37.6574, -0.0654137, 20.111, -161.18, -92.3962, 55.7541, -1.54024, -0.554685, 4.80807, 1.79704, -96.2587, -90.839
2.08, -1, -37.7285, -0.0487344, 20.0862, -161.204, -92.3755, 55.7539, -1.5789, -0.560293, 4.80395, 1.82589, -96.263, -90.8364
2.084, -1, -37.7995, -0.0320607, 20.0615, -161.229, -92.3548, 55.7536, -1.61755, -0.565899, 4.79983, 1.85473, -96.2674, -90.8337
2.087, -1, -37.8705, -0.0153925, 20.0368, -161.253, -92.3341, 55.7533, -1.65618, -0.571503, 4.79571, 1.88357, -96.2717, -90.831
2.092, -1, -37.9414, 0.00127024, 20.0121, -161.277, -92.3134, 55.7531, -1.6948, -0.577105, 4.79159, 1.91239, -96.276, -90.8283
2.096, -1, -38.0124, 0.0179274, 19.9874, -161.302, -92.2927, 55.7528, -1.73341, -0.582705, 4.78747, 1.9412, -96.2804, -90.8256
2.1, -1, -38.0833, 0.0345791, 19.9627, -161.326, -92.272, 55.7525, -1.772, -0.588304, 4.78335, 1.97001, -96.2847, -90.823
2.104, -1, -38.1542, 0.0512252, 19.938, -161.35, -92.2514, 55.7522, -1.81058, -0.593901, 4.77924, 1.9988, -96.289, -90.8203
2.107, -1, -38.2251, 0.0678658, 19.9133, -161.375, -92.2307, 55.752, -1.84915, -0.599495, 4.77513, 2.02759, -96.2934, -90.8176
2.111, -1, -38.2959, 0.0845009, 19.8887, -161.399, -92.21, 55.7517, -1.88771, -0.605088, 4.77101, 2.05636, -96.2977, -90.8149
2.116, -1, -38.3668, 0.101131, 19.864, -161.423, -92.1894, 55.7514, -1.92625, -0.610679, 4.7669, 2.08513, -96.302, -90.8123
2.12, -1, -38.4376, 0.117755, 19.8393, -161.448, -92.1687, 55.7512, -1.96478, -0.616269, 4.76279, 2.11389, -96.3063, -90.8096
2.124, -1, -38.5084, 0.134373, 19.8147, -161.472, -92.1481, 55.7509, -2.0033, -0.621856, 4.75868, 2.14263, -96.3106, -90.8069
2.127, -1, -38.5791, 0.150986, 19.7901, -161.496, -92.1275, 55.7506, -2.0418, -0.627442, 4.75458, 2.17137, -96.315, -90.8042
2.132, -1, -38.6499, 0.167594, 19.7654, -161.52, -92.1068, 55.7503, -2.08029, -0.633025, 4.75047, 2.2001, -96.3193, -90.8016
2.136, -1, -38.7206, 0.184196, 19.7408, -161.545, -92.0862, 55.7501, -2.11877, -0.638607, 4.74637, 2.22882, -96.3236, -90.7989
2.14, -1, -38.7913, 0.200793, 19.7162, -161.569, -92.0656, 55.7498, -2.15724, -0.644187, 4.74226, 2.25753, -96.3279, -90.7962
2.143, -1, -38.8619, 0.217384, 19.6916, -161.593, -92.045, 55.7495, -2.19569, -0.649765, 4.73816, 2.28623, -96.3322, -90.7936
2.148, -1, -38.9326, 0.23397, 19.667, -161.617, -92.0244, 55.7493, -2.23413, -0.655342, 4.73406, 2.31492, -96.3365, -90.7909
2.152, -1, -39.0032, 0.25055, 19.6424, -161.641, -92.0038, 55.749, -2.27256, -0.660916, 4.72996, 2.3436, -96.3408, -90.7882
2.156, -1, -39.0738, 0.267125, 19.6178, -161.666, -91.9832, 55.7487, -2.31098, -0.666489, 4.72586, 2.37227, -96.3452, -90.7856
2.16, -1, -39.1444, 0.283694, 19.5933, -161.69, -91.9626, 55.7485, -2.34938, -0.67206, 4.72177, 2.40093, -96.3495, -90.7829
2.163, -1, -39.2149, 0.300258, 19.5687, -161.714, -91.9421, 55.7482, -2.38777, -0.677629, 4.71767, 2.42958, -96.3538, -90.7802
2.168, -1, -39.2855, 0.316817, 19.5442, -161.738, -91.9215, 55.7479, -2.42615, -0.683196, 4.71358, 2.45823, -96.3581, -90.7776
2.172, -1, -39.356, 0.33337, 19.5196, -161.762, -91.9009, 55.7476, -2.46452, -0.688761, 4.70949, 2.48686, -96.3624, -90.7749
2.176, -1, -39.4264, 0.349917, 19.4951, -161.787, -91.8804, 55.7474, -2.50287, -0.694325, 4.7054, 2.51548, -96.3667, -90.7722
2.179, -1, -39.4969, 0.366459, 19.4705, -161.811, -91.8598, 55.7471, -2.54121, -0.699886, 4.70131, 2.5441, -96.371, -90.7696
2.184, -1, -39.5673, 0.382996, 19.446, -161.835, -91.8393, 55.7468, -2.57954, -0.705446, 4.69722, 2.5727, -96.3753, -90.7669
2.188, -1, -39.6377, 0.399528, 19.4215, -161.859, -91.8188, 55.7466, -2.61785, -0.711004, 4.69313, 2.6013, -96.3796, -90.7643
2.192, -1, -39.7081, 0.416053, 19.397, -161.883, -91.7982, 55.7463, -2.65615, -0.71656, 4.68905, 2.62989, -96.3839, -90.7616
2.196, -1, -39.7785, 0.432574, 19.3725, -161.907, -91.7777, 55.746, -2.69444, -0.722115, 4.68496, 2.65846, -96.3882, -90.7589
2.199, -1, -39.8488, 0.449088, 19.348, -161.931, -91.7572, 55.7458, -2.73272, -0.727667, 4.68088, 2.68703, -96.3925, -90.7563
2.204, -1, -39.9192, 0.465598, 19.3235, -161.956, -91.7367, 55.7455, -2.77099, -0.733218, 4.6768, 2.71559, -96.3968, -90.7536
2.208, -1, -39.9895, 0.482102, 19.2991, -161.98, -91.7162, 55.7452, -2.80924, -0.738767, 4.67272, 2.74414, -96.4011, -90.751
2.212, -1, -40.0597, 0.498601, 19.2746, -162.004, -91.6957, 55.7449, -2.84748, -0.744314, 4.66864, 2.77268, -96.4053, -90.7483
2.216, -1, -40.13, 0.515094, 19.2501, -162.028, -91.6752, 55.7447, -2.8857, -0.749859, 4.66456, 2.80121, -96.4096, -90.7457
2.219, -1, -40.2002, 0.531582, 19.2257, -162.052, -91.6547, 55.7444, -2.92392, -0.755403, 4.66049, 2.82973, -96.4139, -90.743
2.224, -1, -40.2704, 0.548065, 19.2012, -162.076, -91.6343, 55.7441, -2.96212, -0.760944, 4.65641, 2.85824, -96.4182, -90.7404
2.228, -1, -40.3406, 0.564542, 19.1768, -162.1, -91.6138, 55.7439, -3.00031, -0.766484, 4.65234, 2.88674, -96.4225, -90.7377
2.232, -1, -40.4108, 0.581014, 19.1524, -162.124, -91.5933, 55.7436, -3.03849, -0.772022, 4.64827, 2.91524, -96.4268, -90.7351
2.235, -1, -40.4809, 0.597481, 19.128, -162.148, -91.5729, 55.7433, -3.07665, -0.777559, 4.6442, 2.94372, -96.4311, -90.7324
2.24, -1, -40.551, 0.613943, 19.1036, -162.172, -91.5524, 55.7431, -3.11481, -0.783093, 4.64013, 2.9722, -96.4353, -90.7298
2.244, -1, -40.6211, 0.630399, 19.0792, -162.196, -91.532, 55.7428, -3.15295, -0.788626, 4.63606, 3.00066, -96.4396, -90.7271
2.248, -1, -40.6912, 0.646849, 19.0548, -162.22, -91.5116, 55.7425, -3.19108, -0.794157, 4.63199, 3.02912, -96.4439, -90.7245
2.252, -1, -40.7612, 0.663295, 19.0304, -162.244, -91.4911, 55.7423, -3.22919, -0.799686, 4.62792, 3.05756, -96.4482, -90.7218
2.255, -1, -40.8312, 0.679735, 19.006, -162.268, -91.4707, 55.742, -3.2673, -0.805213, 4.62386, 3.086, -96.4524, -90.7192
2.259, -1, -40.9013, 0.69617, 18.9816, -162.292, -91.4503, 55.7417, -3.30539, -0.810739, 4.6198, 3.11443, -96.4567, -90.7165
2.264, -1, -40.9712, 0.712599, 18.9573, -162.316, -91.4299, 55.7415, -3.34347, -0.816263, 4.61574, 3.14285, -96.461, -90.7139
2.268, -1, -41.0412, 0.729024, 18.9329, -162.34, -91.4095, 55.7412, -3.38153, -0.821785, 4.61168, 3.17126, -96.4652, -90.7113
2.272, -1, -41.1111, 0.745443, 18.9086, -162.364, -91.3891, 55.7409, -3.41959, -0.827305, 4.60762, 3.19966, -96.4695, -90.7086
2.275, -1, -41.181, 0.761857, 18.8842, -162.388, -91.3687, 55.7407, -3.45763, -0.832824, 4.60356, 3.22806, -96.4738, -90.706
2.28, -1, -41.2509, 0.778265, 18.8599, -162.412, -91.3483, 55.7404, -3.49566, -0.83834, 4.5995, 3.25644, -96.4781, -90.7033
2.284, -1, -41.3208, 0.794668, 18.8356, -162.436, -91.328, 55.7401, -3.53368, -0.843855, 4.59545, 3.28482, -96.4823, -90.7007
2.288, -1, -41.3906, 0.811067, 18.8112, -162.46, -91.3076, 55.7398, -3.57169, -0.849369, 4.59139, 3.31318, -96.4866, -90.6981
2.291, -1, -41.4605, 0.82746, 18.7869, -162.484, -91.2872, 55.7396, -3.60968, -0.85488, 4.58734, 3.34154, -96.4908, -90.6954
2.296, -1, -41.5303, 0.843847, 18.7626, -162.508, -91.2669, 55.7393, -3.64766, -0.86039, 4.58329, 3.36989, -96.4951, -90.6928
2.3, -1, -41.6, 0.86023, 18.7383, -162.532, -91.2465, 55.739, -3.68563, -0.865898, 4.57924, 3.39822, -96.4994, -90.6901
2.304, -1, -41.6698, 0.876607, 18.7141, -162.556, -91.2262, 55.7388, -3.72359, -0.871404, 4.57519, 3.42655, -96.5036, -90.6875
2.308, -1, -41.7395, 0.892979, 18.6898, -162.58, -91.2058, 55.7385, -3.76154, -0.876909, 4.57114, 3.45487, -96.5079, -90.6849
2.311, -1, -41.8092, 0.909346, 18.6655, -162.604, -91.1855, 55.7382, -3.79947, -0.882411, 4.5671, 3.48319, -96.5121, -90.6822
2.316, -1, -41.8789, 0.925707, 18.6412, -162.627, -91.1652, 55.738, -3.83739, -0.887912, 4.56305, 3.51149, -96.5164, -90.6796
2.32, -1, -41.9486, 0.942064, 18.617, -162.651, -91.1449, 55.7377, -3.8753, -0.893412, 4.55901, 3.53978, -96.5206, -90.677
2.324, -1, -42.0182, 0.958415, 18.5927, -162.675, -91.1246, 55.7374, -3.9132, -0.898909, 4.55497, 3.56807, -96.5249, -90.6743
2.328, -1, -42.0879, 0.974761, 18.5685, -162.699, -91.1043, 55.7372, -3.95109, -0.904405, 4.55092, 3.59634, -96.5291, -90.6717
2.331, -1, -42.1575, 0.991102, 18.5443, -162.723, -91.084, 55.7369, -3.98896, -0.909899, 4.54689, 3.62461, -96.5334, -90.6691
2.336, -1, -42.227, 1.00744, 18.5201, -162.747, -91.0637, 55.7366, -4.02682, -0.915391, 4.54285, 3.65287, -96.5376, -90.6665
2.34, -1, -42.2966, 1.02377, 18.4958, -162.771, -91.0434, 55.7364, -4.06467, -0.920882, 4.53881, 3.68112, -96.5419, -90.6638
2.344, -1, -42.3661, 1.04009, 18.4716, -162.794, -91.0231, 55.7361, -4.10251, -0.926371, 4.53477, 3.70935, -96.5461, -90.6612
2.347, -1, -42.4357, 1.05641, 18.4474, -162.818, -91.0028, 55.7358, -4.14034, -0.931858, 4.53074, 3.73759, -96.5504, -90.6586
2.352, -1, -42.5051, 1.07273, 18.4232, -162.842, -90.9826, 55.7356, -4.17815, -0.937343, 4.52671, 3.76581, -96.5546, -90.656
2.356, -1, -42.5746, 1.08904, 18.399, -162.866, -90.9623, 55.7353, -4.21595, -0.942827, 4.52267, 3.79402, -96.5589, -90.6533
2.36, -1, -42.6441, 1.10534, 18.3749, -162.89, -90.9421, 55.735, -4.25374, -0.948309, 4.51864, 3.82223, -96.5631, -90.6507
2.364, -1, -42.7135, 1.12164, 18.3507, -162.914, -90.9218, 55.7348, -4.29152, -0.953789, 4.51461, 3.85042, -96.5673, -90.6481
2.367, -1, -42.7829, 1.13794, 18.3265, -162.937, -90.9016, 55.7345, -4.32929, -0.959267, 4.51058, 3.87861, -96.5716, -90.6455
2.372, -1, -42.8523, 1.15423, 18.3024, -162.961, -90.8814, 55.7343, -4.36704, -0.964744, 4.50656, 3.90679, -96.5758, -90.6428
2.376, -1, -42.9216, 1.17051, 18.2782, -162.985, -90.8611, 55.734, -4.40479, -0.970219, 4.50253, 3.93496, -96.58, -90.6402
2.38, -1, -42.991, 1.18679, 18.2541, -163.009, -90.8409, 55.7337, -4.44252, -0.975692, 4.49851, 3.96312, -96.5843, -90.6376
2.383, -1, -43.0603, 1.20307, 18.23, -163.032, -90.8207, 55.7335, -4.48024, -0.981164, 4.49448, 3.99127, -96.5885, -90.635
2.388, -1, -43.1296, 1.21934, 18.2058, -163.056, -90.8005, 55.7332, -4.51794, -0.986634, 4.49046, 4.01941, -96.5927, -90.6324
2.392, -1, -43.1989, 1.2356, 18.1817, -163.08, -90.7803, 55.7329, -4.55564, -0.992102, 4.48644, 4.04754, -96.597, -90.6298
2.396, -1, -43.2681, 1.25186, 18.1576, -163.104, -90.7601, 55.7327, -4.59332, -0.997569, 4.48242, 4.07567, -96.6012, -90.6271
2.4, -1, -43.3374, 1.26811, 18.1335, -163.127, -90.7399, 55.7324, -4.631, -1.00303, 4.4784, 4.10378, -96.6054, -90.6245
2.403, -1, -43.4066, 1.28436, 18.1094, -163.151, -90.7197, 55.7321, -4.66866, -1.0085, 4.47439, 4.13189, -96.6096, -90.6219
2.408, -1, -43.4757, 1.30061, 18.0853, -163.175, -90.6995, 55.7319, -4.70631, -1.01396, 4.47037, 4.15999, -96.6139, -90.6193
2.412, -1, -43.5449, 1.31685, 18.0612, -163.199, -90.6794, 55.7316, -4.74394, -1.01942, 4.46636, 4.18808, -96.6181, -90.6167
2.416, -1, -43.6141, 1.33308, 18.0372, -163.222, -90.6592, 55.7313, -4.78157, -1.02488, 4.46234, 4.21616, -96.6223, -90.6141
2.42, -1, -43.6832, 1.34931, 18.0131, -163.246, -90.6391, 55.7311, -4.81918, -1.03033, 4.45833, 4.24423, -96.6265, -90.6115
2.423, -1, -43.7522, 1.36552, 17.989, -163.27, -90.6189, 55.7308, -4.85678, -1.03579, 4.45432, 4.2723, -96.6308, -90.6089
2.428, -1, -43.821, 1.38171, 17.965, -163.293, -90.5988, 55.7305, -4.89437, -1.04124, 4.45031, 4.30035, -96.635, -90.6063
2.432, -1, -43.8893, 1.39782, 17.9411, -163.317, -90.5786, 55.7303, -4.93195, -1.04669, 4.4463, 4.3284, -96.6392, -90.6036
2.436, -1, -43.957, 1.41383, 17.9172, -163.341, -90.5585, 55.73, -4.96951, -1.05214, 4.4423, 4.35644, -96.6434, -90.601
2.439, -1, -44.0238, 1.42969, 17.8935, -163.364, -90.5385, 55.7297, -5.007, -1.05757, 4.43829, 4.38446, -96.6476, -90.5984
2.444, -1, -44.0894, 1.44529, 17.8701, -163.388, -90.5185, 55.7295, -5.04437, -1.06298, 4.43428, 4.41245, -96.6518, -90.5958
2.448, -1, -44.1533, 1.46052, 17.847, -163.411, -90.4986, 55.7292, -5.08153, -1.06834, 4.43026, 4.44038, -96.656, -90.5932
2.452, -1, -44.2152, 1.47526, 17.8245, -163.434, -90.479, 55.729, -5.11835, -1.07363, 4.42625, 4.46821, -96.6602, -90.5906
2.456, -1, -44.2751, 1.48949, 17.8025, -163.457, -90.4596, 55.7287, -5.15462, -1.07882, 4.42225, 4.49584, -96.6644, -90.5881
2.459, -1, -44.3329, 1.5032, 17.7812, -163.479, -90.4407, 55.7285, -5.19001, -1.08383, 4.41825, 4.52314, -96.6684, -90.5855
2.464, -1, -44.3886, 1.51637, 17.7607, -163.501, -90.4222, 55.7282, -5.22421, -1.08861, 4.4143, 4.54992, -96.6725, -90.583
2.468, -1, -44.442, 1.52896, 17.7409, -163.522, -90.4045, 55.728, -5.25698, -1.09315, 4.41043, 4.57591, -96.6764, -90.5806
2.472, -1, -44.4931, 1.54096, 17.7221, -163.542, -90.3876, 55.7277, -5.28811, -1.09744, 4.40669, 4.60083, -96.6801, -90.5782
2.476, -1, -44.5416, 1.55236, 17.7044, -163.561, -90.3717, 55.7275, -5.31735, -1.10145, 4.40316, 4.62435, -96.6836, -90.576
2.479, -1, -44.5872, 1.56306, 17.6877, -163.578, -90.3569, 55.7273, -5.34453, -1.10518, 4.39989, 4.64615, -96.6869, -90.574
2.484, -1, -44.6295, 1.57301, 17.6724, -163.594, -90.3432, 55.7272, -5.3696, -1.10867, 4.39695, 4.66596, -96.6899, -90.5721
2.488, -1, -44.6685, 1.58217, 17.6583, -163.609, -90.3309, 55.727, -5.39249, -1.11192, 4.39437, 4.68359, -96.6925, -90.5705
2.492, -1, -44.7044, 1.5906, 17.6456, -163.621, -90.32, 55.7269, -5.41302, -1.1149, 4.39218, 4.69894, -96.6948, -90.5691
2.495, -1, -44.7374, 1.59841, 17.6341, -163.633, -90.3104, 55.7267, -5.43101, -1.11756, 4.39035, 4.71197, -96.6968, -90.5678
2.5, -1, -44.768, 1.60565, 17.6238, -163.642, -90.3022, 55.7266, -5.44645, -1.1199, 4.38888, 4.72278, -96.6984, -90.5668
2.504, -1, -44.796, 1.61229, 17.6147, -163.65, -90.2953, 55.7265, -5.45943, -1.12191, 4.38773, 4.7315, -96.6997, -90.566
2.508, -1, -44.8212, 1.61829, 17.6068, -163.657, -90.2897, 55.7265, -5.47009, -1.12361, 4.38687, 4.73833, -96.7008, -90.5654
2.512, -1, -44.8435, 1.62359, 17.6, -163.662, -90.2852, 55.7264, -5.47864, -1.12501, 4.38626, 4.74347, -96.7015, -90.565
2.515, -1, -44.8626, 1.62814, 17.5944, -163.666, -90.2817, 55.7264, -5.48536, -1.12616, 4.38586, 4.74719, -96.7021, -90.5646
2.52, -1, -44.8786, 1.63195, 17.5898, -163.669, -90.279, 55.7263, -5.49058, -1.12709, 4.38563, 4.74975, -96.7025, -90.5644
2.524, -1, -44.8918, 1.63505, 17.5862, -163.672, -90.2771, 55.7263, -5.49452, -1.12784, 4.38552, 4.7514, -96.7028, -90.5643
2.528, -1, -44.9028, 1.63754, 17.5834, -163.673, -90.2757, 55.7263, -5.49734, -1.12839, 4.3855, 4.75239, -96.7029, -90.5642
2.531, -1, -44.9119, 1.63955, 17.5812, -163.674, -90.2747, 55.7263, -5.49924, -1.12878, 4.38551, 4.75293, -96.703, -90.5641
2.536, -1, -44.9195, 1.64114, 17.5795, -163.675, -90.2741, 55.7263, -5.50042, -1.12903, 4.38553, 4.7532, -96.703, -90.5641
2.54, -1, -44.9256, 1.64235, 17.5783, -163.675, -90.2738, 55.7263, -5.50107, -1.12917, 4.38555, 4.75332, -96.703, -90.5641
2.544, -1, -44.9301, 1.64322, 17.5775, -163.676, -90.2735, 55.7263, -5.50136, -1.12924, 4.38556, 4.75336, -96.703, -90.5641
2.548, -1, -44.9334, 1.64379, 17.577, -163.676, -90.2734, 55.7263, -5.50145, -1.12926, 4.38557, 4.75336, -96.703, -90.5641
2.551, -1, -44.9353, 1.64411, 17.5767, -163.676, -90.2734, 55.7263, -5.50146, -1.12926, 4.38557, 4.75337, -96.703, -90.5641
2.556, 2, -44.9363, 1.64425, 17.5765, -163.676, -90.2734, 55.7263, -5.50146, -1.12926, 4.38557, 4.75337, -96.703, -90.5641
2.56, 2, -44.9366, 1.6443, 17.5765, -163.676, -90.2734, 55.7263, -5.50146, -1.12926, 4.38557, 4.75337, -96.703, -90.5641
2.564, 2, -44.9366, 1.6443, 17.5765, -163.676, -90.2734, 55.7263, -5.50146, -1.12926, 4.38557, 4.75337, -96.703, -90.5641
2.568, 2, -44.9367, 1.6443, 17.5765, -163.676, -90.2734, 55.7263, -5.50146, -1.12926, 4.38557, 4.75337, -96.703, -90.5641
2.571, 2, -44.9367, 1.6443, 17.5765, -163.676, -90.2734, 55.7263, -5.50146, -1.12926, 4.38557, 4.75337, -96.703, -90.5641
2.576, 2, -44.9367, 1.6443, 17.5765, -163.676, -90.2734, 55.7263, -5.50146, -1.12926, 4.38557, 4.75337, -96.703, -90.5641
2.58, 2, -44.9367, 1.6443, 17.5765, -163.676, -90.2734, 55.7263, -5.50146, -1.12926, 4.38557, 4.75337, -96.703, -90.5641
2.584, 2, -44.9367, 1.6443, 17.5765, -163.676, -90.2734, 55.7263, -5.50146, -1.12926, 4.38557, 4.75337, -96.703, -90.5641
2.587, 2, -44.9367, 1.6443, 17.5765, -163.676, -90.2734, 55.7263, -5.50146, -1.12926, 4.38557, 4.75337, -96.703, -90.5641
2.592, 2, -44.9367, 1.6443, 17.5765, -163.676, -90.2734, 55.7263, -5.50146, -1.12926, 4.38557, 4.75337, -96.703, -90.5641
2.596, 2, -44.9367, 1.6443, 17.5765, -163.676, -90.2734, 55.7263, -5.50146, -1.12926, 4.38557, 4.75337, -96.703, -90.5641
2.6, 2, -44.9367, 1.6443, 17.5765, -163.676, -90.2734, 55.7263, -5.50146, -1.12926, 4.38557, 4.75337, -96.703, -90.5641
2.604, 2, -44.9367, 1.6443, 17.5765, -163.676, -90.2734, 55.7263, -5.50146, -1.12926, 4.38557, 4.75337, -96.703, -90.5641
2.607, 2, -44.9367, 1.6443, 17.5765, -163.676, -90.2734, 55.7263, -5.50146, -1.12926, 4.38557, 4.75337, -96.703, -90.5641
2.612, 2, -44.9367, 1.6443, 17.5765, -163.676, -90.2734, 55.7263, -5.50146, -1.12926, 4.38557, 4.75337, -96.703, -90.5641
2.616, 2, -44.9367, 1.6443, 17.5765, -163.676, -90.2734, 55.7263, -5.50146, -1.12926, 4.38557, 4.75337, -96.703, -90.5641
2.62, 2, -44.9367, 1.6443, 17.5765, -163.676, -90.2734, 55.7263, -5.50146, -1.12926, 4.38557, 4.75337, -96.703, -90.5641
2.624, 2, -44.9367, 1.6443, 17.5765, -163.676, -90.2734, 55.7263, -5.50146, -1.12926, 4.38557, 4.75337, -96.703, -90.5641
2.627, 2, -44.9367, 1.6443, 17.5765, -163.676, -90.2734, 55.7263, -5.50146, -1.12926, 4.38557, 4.75337, -96.703, -90.5641
2.632, 2, -44.9367, 1.6443, 17.5765, -163.676, -90.2734, 55.7263, -5.50146, -1.12926, 4.38557, 4.75337, -96.703, -90.5641
2.636, 2, -44.9367, 1.6443, 17.5765, -163.676, -90.2734, 55.7263, -5.50146, -1.12926, 4.38557, 4.75337, -96.703, -90.5641
2.64, 2, -44.9367, 1.6443, 17.5765, -163.676, -90.2734, 55.7263, -5.50146, -1.12926, 4.38557, 4.75337, -96.703, -90.5641
2.643, 2, -44.9367, 1.6443, 17.5765, -163.676, -90.2734, 55.7263, -5.50146, -1.12926, 4.38557, 4.75337, -96.703, -90.5641
2.648, 2, -44.9367, 1.6443, 17.5765, -163.676, -90.2734, 55.7263, -5.50146, -1.12926, 4.38557, 4.75337, -96.703, -90.5641
2.652, 2, -44.9367, 1.6443, 17.5765, -163.676, -90.2734, 55.7263, -5.50146, -1.12926, 4.38557, 4.75337, -96.703, -90.5641
2.656, 2, -44.9367, 1.6443, 17.5765, -163.676, -90.2734, 55.7263, -5.50146, -1.12926, 4.38557, 4.75337, -96.703, -90.5641
2.66, 2, -44.9367, 1.6443, 17.5765, -163.676, -90.2734, 55.7263, -5.50146, -1.12926, 4.38557, 4.75337, -96.703, -90.5641
2.663, 2, -44.9367, 1.6443, 17.5765, -163.676, -90.2734, 55.7263, -5.50146, -1.12926, 4.38557, 4.75337, -96.703, -90.5641
2.668, 2, -44.9367, 1.6443, 17.5765, -163.676, -90.2734, 55.7263, -5.50146, -1.12926, 4.38557, 4.75337, -96.703, -90.5641
2.672, 2, -44.9367, 1.6443, 17.5765, -163.676, -90.2734, 55.7263, -5.50146, -1.12926, 4.38557, 4.75337, -96.703, -90.5641
2.676, 2, -44.9367, 1.6443, 17.5765, -163.676, -90.2734, 55.7263, -5.50146, -1.12926, 4.38557, 4.75337, -96.703, -90.5641
2.679, 2, -44.9367, 1.6443, 17.5765, -163.676, -90.2734, 55.7263, -5.50146, -1.12926, 4.38557, 4.75337, -96.703, -90.5641
2.684, 2, -44.9367, 1.6443, 17.5765, -163.676, -90.2734, 55.7263, -5.50146, -1.12926, 4.38557, 4.75337, -96.703, -90.5641
2.688, 2, -44.9367, 1.6443, 17.5765, -163.676, -90.2734, 55.7263, -5.50146, -1.12926, 4.38557, 4.75337, -96.703, -90.5641
2.692, 2, -44.9367, 1.6443, 17.5765, -163.676, -90.2734, 55.7263, -5.50146, -1.12926, 4.38557, 4.75337, -96.703, -90.5641
2.696, 2, -44.9367, 1.6443, 17.5765, -163.676, -90.2734, 55.7263, -5.50146, -1.12926, 4.38557, 4.75337, -96.703, -90.5641
2.699, 2, -44.9367, 1.6443, 17.5765, -163.676, -90.2734, 55.7263, -5.50146, -1.12926, 4.38557, 4.75337, -96.703, -90.5641
2.704, 2, -44.9367, 1.6443, 17.5765, -163.676, -90.2734, 55.7263, -5.50146, -1.12926, 4.38557, 4.75337, -96.703, -90.5641
2.708, 2, -44.9367, 1.6443, 17.5765, -163.676, -90.2734, 55.7263, -5.50146, -1.12926, 4.38557, 4.75337, -96.703, -90.5641
2.712, 2, -44.9367, 1.6443, 17.5765, -163.676, -90.2734, 55.7263, -5.50146, -1.12926, 4.38557, 4.75337, -96.703, -90.5641
2.716, 2, -44.9367, 1.6443, 17.5765, -163.676, -90.2734, 55.7263, -5.50146, -1.12926, 4.38557, 4.75337, -96.703, -90.5641
2.719, 2, -44.9367, 1.6443, 17.5765, -163.676, -90.2734, 55.7263, -5.50146, -1.12926, 4.38557, 4.75337, -96.703, -90.5641
2.724, 2, -44.9367, 1.6443, 17.5765, -163.676, -90.2734, 55.7263, -5.50146, -1.12926, 4.38557, 4.75337, -96.703, -90.5641
2.728, 2, -44.9367, 1.6443, 17.5765, -163.676, -90.2734, 55.7263, -5.50146, -1.12926, 4.38557, 4.75337, -96.703, -90.5641
2.732, 2, -44.9367, 1.6443, 17.5765, -163.676, -90.2734, 55.7263, -5.50146, -1.12926, 4.38557, 4.75337, -96.703, -90.5641
2.735, 2, -44.9367, 1.6443, 17.5765, -163.676, -90.2734, 55.7263, -5.50146, -1.12926, 4.38557, 4.75337, -96.703, -90.5641
2.74, 2, -44.9367, 1.6443, 17.5765, -163.676, -90.2734, 55.7263, -5.50146, -1.12926, 4.38557, 4.75337, -96.703, -90.5641
2.744, 2, -44.9367, 1.6443, 17.5765, -163.676, -90.2734, 55.7263, -5.50146, -1.12926, 4.38557, 4.75337, -96.703, -90.5641
2.748, 2, -44.9367, 1.6443, 17.5765, -163.676, -90.2734, 55.7263, -5.50146, -1.12926, 4.38557, 4.75337, -96.703, -90.5641
2.752, 2, -44.9367, 1.6443, 17.5765, -163.676, -90.2734, 55.7263, -5.50146, -1.12926, 4.38557, 4.75337, -96.703, -90.5641
2.755, 2, -44.9367, 1.6443, 17.5765, -163.676, -90.2734, 55.7263, -5.50146, -1.12926, 4.38557, 4.75337, -96.703, -90.5641
2.76, 2, -44.9367, 1.6443, 17.5765, -163.676, -90.2734, 55.7263, -5.50146, -1.12926, 4.38557, 4.75337, -96.703, -90.5641
2.764, 2, -44.9367, 1.6443, 17.5765, -163.676, -90.2734, 55.7263, -5.50146, -1.12926, 4.38557, 4.75337, -96.703, -90.5641
2.768, 2, -44.9367, 1.6443, 17.5765, -163.676, -90.2734, 55.7263, -5.50146, -1.12926, 4.38557, 4.75337, -96.703, -90.5641
2.772, 2, -44.9367, 1.6443, 17.5765, -163.676, -90.2734, 55.7263, -5.50146, -1.12926, 4.38557, 4.75337, -96.703, -90.5641
2.775, 2, -44.9367, 1.6443, 17.5765, -163.676, -90.2734, 55.7263, -5.50146, -1.12926, 4.38557, 4.75337, -96.703, -90.5641
2.78, 2, -44.9367, 1.6443, 17.5765, -163.676, -90.2734, 55.7263, -5.50146, -1.12926, 4.38557, 4.75337, -96.703, -90.5641
2.784, 2, -44.9367, 1.6443, 17.5765, -163.676, -90.2734, 55.7263, -5.50146, -1.12926, 4.38557, 4.75337, -96.703, -90.5641
2.788, 2, -44.9367, 1.6443, 17.5765, -163.676, -90.2734, 55.7263, -5.50146, -1.12926, 4.38557, 4.75337, -96.703, -90.5641
2.791, 2, -44.9367, 1.6443, 17.5765, -163.676, -90.2734, 55.7263, -5.50146, -1.12926, 4.38557, 4.75337, -96.703, -90.5641
2.796, 2, -44.9367, 1.6443, 17.5765, -163.676, -90.2734, 55.7263, -5.50146, -1.12926, 4.38557, 4.75337, -96.703, -90.5641
2.8, 2, -44.9367, 1.6443, 17.5765, -163.676, -90.2734, 55.7263, -5.50146, -1.12926, 4.38557, 4.75337, -96.703, -90.5641
2.804, 2, -44.9367, 1.6443, 17.5765, -163.676, -90.2734, 55.7263, -5.50146, -1.12926, 4.38557, 4.75337, -96.703, -90.5641
2.808, 2, -44.9367, 1.6443, 17.5765, -163.676, -90.2734, 55.7263, -5.50146, -1.12926, 4.38557, 4.75337, -96.703, -90.5641
2.811, 2, -44.9367, 1.6443, 17.5765, -163.676, -90.2734, 55.7263, -5.50146, -1.12926, 4.38557, 4.75337, -96.703, -90.5641
2.816, 2, -44.9367, 1.6443, 17.5765, -163.676, -90.2734, 55.7263, -5.50146, -1.12926, 4.38557, 4.75337, -96.703, -90.5641
2.82, 2, -44.9367, 1.6443, 17.5765, -163.676, -90.2734, 55.7263, -5.50146, -1.12926, 4.38557, 4.75337, -96.703, -90.5641
2.824, 2, -44.9367, 1.6443, 17.5765, -163.676, -90.2734, 55.7263, -5.50146, -1.12926, 4.38557, 4.75337, -96.703, -90.5641
2.828, 2, -44.9367, 1.6443, 17.5765, -163.676, -90.2734, 55.7263, -5.50146, -1.12926, 4.38557, 4.75337, -96.703, -90.5641
2.831, 2, -44.9367, 1.6443, 17.5765, -163.676, -90.2734, 55.7263, -5.50146, -1.12926, 4.38557, 4.75337, -96.703, -90.5641
2.836, 2, -44.9367, 1.6443, 17.5765, -163.676, -90.2734, 55.7263, -5.50146, -1.12926, 4.38557, 4.75337, -96.703, -90.5641
2.84, 2, -44.9367, 1.6443, 17.5765, -163.676, -90.2734, 55.7263, -5.50146, -1.12926, 4.38557, 4.75337, -96.703, -90.5641
2.844, 2, -44.9367, 1.6443, 17.5765, -163.676, -90.2734, 55.7263, -5.50146, -1.12926, 4.38557, 4.75337, -96.703, -90.5641
2.847, 2, -44.9367, 1.6443, 17.5765, -163.676, -90.2734, 55.7263, -5.50146, -1.12926, 4.38557, 4.75337, -96.703, -90.5641
2.852, 2, -44.9367, 1.6443, 17.5765, -163.676, -90.2734, 55.7263, -5.50146, -1.12926, 4.38557, 4.75337, -96.703, -90.5641
2.856, 2, -44.9367, 1.6443, 17.5765, -163.676, -90.2734, 55.7263, -5.50146, -1.12926, 4.38557, 4.75337, -96.703, -90.5641
2.86, 2, -44.9367, 1.6443, 17.5765, -163.676, -90.2734, 55.7263, -5.50146, -1.12926, 4.38557, 4.75337, -96.703, -90.5641
2.864, 2, -44.9367, 1.6443, 17.5765, -163.676, -90.2734, 55.7263, -5.50146, -1.12926, 4.38557, 4.75337, -96.703, -90.5641
2.867, 2, -44.9367, 1.6443, 17.5765, -163.676, -90.2734, 55.7263, -5.50146, -1.12926, 4.38557, 4.75337, -96.703, -90.5641
2.872, 2, -44.9367, 1.6443, 17.5765, -163.676, -90.2734, 55.7263, -5.50146, -1.12926, 4.38557, 4.75337, -96.703, -90.5641
2.876, 2, -44.9367, 1.6443, 17.5765, -163.676, -90.2734, 55.7263, -5.50146, -1.12926, 4.38557, 4.75337, -96.703, -90.5641
2.88, 2, -44.9367, 1.6443, 17.5765, -163.676, -90.2734, 55.7263, -5.50146, -1.12926, 4.38557, 4.75337, -96.703, -90.5641
2.883, 2, -44.9367, 1.6443, 17.5765, -163.676, -90.2734, 55.7263, -5.50146, -1.12926, 4.38557, 4.75337, -96.703, -90.5641
2.888, 2, -44.9367, 1.6443, 17.5765, -163.676, -90.2734, 55.7263, -5.50146, -1.12926, 4.38557, 4.75337, -96.703, -90.5641
2.892, 2, -44.9367, 1.6443, 17.5765, -163.676, -90.2734, 55.7263, -5.50146, -1.12926, 4.38557, 4.75337, -96.703, -90.5641
2.896, 2, -44.9367, 1.6443, 17.5765, -163.676, -90.2734, 55.7263, -5.50146, -1.12926, 4.38557, 4.75337, -96.703, -90.5641
2.9, 2, -44.9367, 1.6443, 17.5765, -163.676, -90.2734, 55.7263, -5.50146, -1.12926, 4.38557, 4.75337, -96.703, -90.5641
2.903, 2, -44.9367, 1.6443, 17.5765, -163.676, -90.2734, 55.7263, -5.50146, -1.12926, 4.38557, 4.75337, -96.703, -90.5641
2.908, 2, -44.9367, 1.6443, 17.5765, -163.676, -90.2734, 55.7263, -5.50146, -1.12926, 4.38557, 4.75337, -96.703, -90.5641
2.912, 2, -44.9367, 1.6443, 17.5765, -163.676, -90.2734, 55.7263, -5.50146, -1.12926, 4.38557, 4.75337, -96.703, -90.5641
2.916, 2, -44.9367, 1.6443, 17.5765, -163.676, -90.2734, 55.7263, -5.50146, -1.12926, 4.38557, 4.75337, -96.703, -90.5641
2.92, 2, -44.9367, 1.6443, 17.5765, -163.676, -90.2734, 55.7263, -5.50146, -1.12926, 4.38557, 4.75337, -96.703, -90.5641
2.923, 2, -44.9367, 1.6443, 17.5765, -163.676, -90.2734, 55.7263, -5.50146, -1.12926, 4.38557, 4.75337, -96.703, -90.5641
2.928, 2, -44.9367, 1.6443, 17.5765, -163.676, -90.2734, 55.7263, -5.50146, -1.12926, 4.38557, 4.75337, -96.703, -90.5641
2.932, 2, -44.9367, 1.6443, 17.5765, -163.676, -90.2734, 55.7263, -5.50146, -1.12926, 4.38557, 4.75337, -96.703, -90.5641
2.936, 2, -44.9367, 1.6443, 17.5765, -163.676, -90.2734, 55.7263, -5.50146, -1.12926, 4.38557, 4.75337, -96.703, -90.5641
2.939, 2, -44.9367, 1.6443, 17.5765, -163.676, -90.2734, 55.7263, -5.50146, -1.12926, 4.38557, 4.75337, -96.703, -90.5641
2.944, 2, -44.9367, 1.6443, 17.5765, -163.676, -90.2734, 55.7263, -5.50146, -1.12926, 4.38557, 4.75337, -96.703, -90.5641
2.948, 2, -44.9367, 1.6443, 17.5765, -163.676, -90.2734, 55.7263, -5.50146, -1.12926, 4.38557, 4.75337, -96.703, -90.5641
2.952, 2, -44.9367, 1.6443, 17.5765, -163.676, -90.2734, 55.7263, -5.50146, -1.12926, 4.38557, 4.75337, -96.703, -90.5641
2.956, 2, -44.9367, 1.6443, 17.5765, -163.676, -90.2734, 55.7263, -5.50146, -1.12926, 4.38557, 4.75337, -96.703, -90.5641
2.959, 2, -44.9367, 1.6443, 17.5765, -163.676, -90.2734, 55.7263, -5.50146, -1.12926, 4.38557, 4.75337, -96.703, -90.5641
2.964, 2, -44.9367, 1.6443, 17.5765, -163.676, -90.2734, 55.7263, -5.50146, -1.12926, 4.38557, 4.75337, -96.703, -90.5641
2.968, 2, -44.9367, 1.6443, 17.5765, -163.676, -90.2734, 55.7263, -5.50146, -1.12926, 4.38557, 4.75337, -96.703, -90.5641
2.972, 2, -44.9367, 1.6443, 17.5765, -163.676, -90.2734, 55.7263, -5.50146, -1.12926, 4.38557, 4.75337, -96.703, -90.5641
2.976, 2, -44.9367, 1.6443, 17.5765, -163.676, -90.2734, 55.7263, -5.50146, -1.12926, 4.38557, 4.75337, -96.703, -90.5641
2.98, 2, -44.9367, 1.6443, 17.5765, -163.676, -90.2734, 55.7263, -5.50146, -1.12926, 4.38557, 4.75337, -96.703, -90.5641
2.984, 2, -44.9367, 1.6443, 17.5765, -163.676, -90.2734, 55.7263, -5.50146, -1.12926, 4.38557, 4.75337, -96.703, -90.5641
2.988, 2, -44.9367, 1.6443, 17.5765, -163.676, -90.2734, 55.7263, -5.50146, -1.12926, 4.38557, 4.75337, -96.703, -90.5641
2.992, 2, -44.9367, 1.6443, 17.5765, -163.676, -90.2734, 55.7263, -5.50146, -1.12926, 4.38557, 4.75337, -96.703, -90.5641
2.995, 2, -44.9367, 1.6443, 17.5765, -163.676, -90.2734, 55.7263, -5.50146, -1.12926, 4.38557, 4.75337, -96.703, -90.5641
3, 2, -44.9367, 1.6443, 17.5765, -163.676, -90.2734, 55.7263, -5.50146, -1.12926, 4.38557, 4.75337, -96.703, -90.5641
3.004, 2, -44.9367, 1.6443, 17.5765, -163.676, -90.2734, 55.7263, -5.50146, -1.12926, 4.38557, 4.75337, -96.703, -90.5641
3.008, 2, -44.9367, 1.6443, 17.5765, -163.676, -90.2734, 55.7263, -5.50146, -1.12926, 4.38557, 4.75337, -96.703, -90.5641
3.012, 2, -44.9367, 1.6443, 17.5765, -163.676, -90.2734, 55.7263, -5.50146, -1.12926, 4.38557, 4.75337, -96.703, -90.5641
3.015, 2, -44.9367, 1.6443, 17.5765, -163.676, -90.2734, 55.7263, -5.50146, -1.12926, 4.38557, 4.75337, -96.703, -90.5641
3.02, 2, -44.9367, 1.6443, 17.5765, -163.676, -90.2734, 55.7263, -5.50146, -1.12926, 4.38557, 4.75337, -96.703, -90.5641
3.024, 2, -44.9367, 1.6443, 17.5765, -163.676, -90.2734, 55.7263, -5.50146, -1.12926, 4.38557, 4.75337, -96.703, -90.5641
3.028, 2, -44.9367, 1.6443, 17.5765, -163.676, -90.2734, 55.7263, -5.50146, -1.12926, 4.38557, 4.75337, -96.703, -90.5641
3.031, 2, -44.9367, 1.6443, 17.5765, -163.676, -90.2734, 55.7263, -5.50146, -1.12926, 4.38557, 4.75337, -96.703, -90.5641
3.036, 2, -44.9367, 1.6443, 17.5765, -163.676, -90.2734, 55.7263, -5.50146, -1.12926, 4.38557, 4.75337, -96.703, -90.5641
3.04, 2, -44.9367, 1.6443, 17.5765, -163.676, -90.2734, 55.7263, -5.50146, -1.12926, 4.38557, 4.75337, -96.703, -90.5641
3.044, 2, -44.9367, 1.6443, 17.5765, -163.676, -90.2734, 55.7263, -5.50146, -1.12926, 4.38557, 4.75337, -96.703, -90.5641
3.048, 2, -44.9367, 1.6443, 17.5765, -163.676, -90.2734, 55.7263, -5.50146, -1.12926, 4.38557, 4.75337, -96.703, -90.5641
3.051, 2, -44.9367, 1.6443, 17.5765, -163.676, -90.2734, 55.7263, -5.50146, -1.12926, 4.38557, 4.75337, -96.703, -90.5641
3.056, 2, -44.9367, 1.6443, 17.5765, -163.676, -90.2734, 55.7263, -5.50146, -1.12926, 4.38557, 4.75337, -96.703, -90.5641
3.06, 2, -44.9367, 1.6443, 17.5765, -163.676, -90.2734, 55.7263, -5.50146, -1.12926, 4.38557, 4.75337, -96.703, -90.5641
3.064, 2, -44.9367, 1.6443, 17.5765, -163.676, -90.2734, 55.7263, -5.50146, -1.12926, 4.38557, 4.75337, -96.703, -90.5641
3.068, 2, -44.9367, 1.6443, 17.5765, -163.676, -90.2734, 55.7263, -5.50146, -1.12926, 4.38557, 4.75337, -96.703, -90.5641
3.071, 2, -44.9367, 1.6443, 17.5765, -163.676, -90.2734, 55.7263, -5.50146, -1.12926, 4.38557, 4.75337, -96.703, -90.5641
3.076, 2, -44.9367, 1.6443, 17.5765, -163.676, -90.2734, 55.7263, -5.50146, -1.12926, 4.38557, 4.75337, -96.703, -90.5641
3.08, 2, -44.9367, 1.6443, 17.5765, -163.676, -90.2734, 55.7263, -5.50146, -1.12926, 4.38557, 4.75337, -96.703, -90.5641
3.084, 2, -44.9367, 1.6443, 17.5765, -163.676, -90.2734, 55.7263, -5.50146, -1.12926, 4.38557, 4.75337, -96.703, -90.5641
3.087, 2, -44.9367, 1.6443, 17.5765, -163.676, -90.2734, 55.7263, -5.50146, -1.12926, 4.38557, 4.75337, -96.703, -90.5641
3.092, 2, -44.9367, 1.6443, 17.5765, -163.676, -90.2734, 55.7263, -5.50146, -1.12926, 4.38557, 4.75337, -96.703, -90.5641
3.096, 2, -44.9367, 1.6443, 17.5765, -163.676, -90.2734, 55.7263, -5.50146, -1.12926, 4.38557, 4.75337, -96.703, -90.5641
3.1, 2, -44.9367, 1.6443, 17.5765, -163.676, -90.2734, 55.7263, -5.50146, -1.12926, 4.38557, 4.75337, -96.703, -90.5641
3.104, 2, -44.9367, 1.6443, 17.5765, -163.676, -90.2734, 55.7263, -5.50146, -1.12926, 4.38557, 4.75337, -96.703, -90.5641
3.107, 2, -44.9367, 1.6443, 17.5765, -163.676, -90.2734, 55.7263, -5.50146, -1.12926, 4.38557, 4.75337, -96.703, -90.5641
3.112, 2, -44.9367, 1.6443, 17.5765, -163.676, -90.2734, 55.7263, -5.50146, -1.12926, 4.38557, 4.75337, -96.703, -90.5641
3.116, 2, -44.9367, 1.6443, 17.5765, -163.676, -90.2734, 55.7263, -5.50146, -1.12926, 4.38557, 4.75337, -96.703, -90.5641
3.12, 2, -44.9367, 1.6443, 17.5765, -163.676, -90.2734, 55.7263, -5.50146, -1.12926, 4.38557, 4.75337, -96.703, -90.5641
3.124, 2, -44.9367, 1.6443, 17.5765, -163.676, -90.2734, 55.7263, -5.50146, -1.12926, 4.38557, 4.75337, -96.703, -90.5641
3.128, 2, -44.9367, 1.6443, 17.5765, -163.676, -90.2734, 55.7263, -5.50146, -1.12926, 4.38557, 4.75337, -96.703, -90.5641
3.132, 2, -44.9367, 1.6443, 17.5765, -163.676, -90.2734, 55.7263, -5.50146, -1.12926, 4.38557, 4.75337, -96.703, -90.5641
3.136, 2, -44.9367, 1.6443, 17.5765, -163.676, -90.2734, 55.7263, -5.50146, -1.12926, 4.38557, 4.75337, -96.703, -90.5641
3.14, 2, -44.9367, 1.6443, 17.5765, -163.676, -90.2734, 55.7263, -5.50146, -1.12926, 4.38557, 4.75337, -96.703, -90.5641
3.143, 2, -44.9367, 1.6443, 17.5765, -163.676, -90.2734, 55.7263, -5.50146, -1.12926, 4.38557, 4.75337, -96.703, -90.5641
3.148, 2, -44.9367, 1.6443, 17.5765, -163.676, -90.2734, 55.7263, -5.50146, -1.12926, 4.38557, 4.75337, -96.703, -90.5641
3.152, 2, -44.9367, 1.6443, 17.5765, -163.676, -90.2734, 55.7263, -5.50146, -1.12926, 4.38557, 4.75337, -96.703, -90.5641
3.156, 2, -44.9367, 1.6443, 17.5765, -163.676, -90.2734, 55.7263, -5.50146, -1.12926, 4.38557, 4.75337, -96.703, -90.5641
3.16, 2, -44.9367, 1.6443, 17.5765, -163.676, -90.2734, 55.7263, -5.50146, -1.12926, 4.38557, 4.75337, -96.703, -90.5641
