hehonglu123/Motion-Primitive-Planning/simulation/robotstudio_sim/scripts/fitting_output/curve_2/100L/curve_exe_v800_z10.csv
timestamp, cmd_num, J1, J2, J3, J4, J5, J6
0, -1, 11.3784, 13.6124, 17.34, -145.519, -97.9231, 142.516
0.002, -1, 11.3784, 13.6124, 17.34, -145.519, -97.9231, 142.516
0.006, -1, 11.3784, 13.6124, 17.34, -145.519, -97.9231, 142.516
0.008, -1, 11.3784, 13.6124, 17.34, -145.519, -97.9231, 142.516
0.011, -1, 11.3784, 13.6124, 17.34, -145.519, -97.9231, 142.516
0.016, -1, 11.3784, 13.6124, 17.34, -145.519, -97.9231, 142.516
0.02, -1, 11.3784, 13.6124, 17.34, -145.519, -97.9231, 142.516
0.024, -1, 11.3784, 13.6124, 17.34, -145.519, -97.9231, 142.516
0.028, -1, 11.3784, 13.6124, 17.34, -145.519, -97.9231, 142.516
0.032, -1, 11.3783, 13.6124, 17.34, -145.519, -97.9231, 142.516
0.036, -1, 11.3783, 13.6124, 17.34, -145.519, -97.9231, 142.516
0.04, -1, 11.378, 13.6123, 17.34, -145.519, -97.9231, 142.516
0.044, -1, 11.3773, 13.6122, 17.3399, -145.519, -97.923, 142.516
0.048, -1, 11.376, 13.6119, 17.3398, -145.519, -97.9228, 142.515
0.052, -1, 11.374, 13.6113, 17.3395, -145.518, -97.9223, 142.514
0.056, -1, 11.371, 13.6105, 17.3392, -145.517, -97.9213, 142.513
0.06, -1, 11.3671, 13.6092, 17.3389, -145.515, -97.9195, 142.509
0.064, -1, 11.362, 13.6076, 17.3385, -145.512, -97.9163, 142.503
0.068, -1, 11.3558, 13.6054, 17.3382, -145.507, -97.9111, 142.494
0.072, -1, 11.3484, 13.6026, 17.3379, -145.5, -97.9033, 142.479
0.076, -1, 11.3394, 13.5991, 17.3378, -145.489, -97.8921, 142.458
0.08, -1, 11.3287, 13.5948, 17.338, -145.474, -97.8766, 142.429
0.084, -1, 11.3161, 13.5896, 17.3385, -145.454, -97.8558, 142.39
0.088, -1, 11.3014, 13.5835, 17.3395, -145.427, -97.8288, 142.34
0.092, -1, 11.2847, 13.5764, 17.341, -145.394, -97.7947, 142.276
0.096, -1, 11.2659, 13.5684, 17.3434, -145.354, -97.7525, 142.197
0.1, -1, 11.2452, 13.5595, 17.3465, -145.305, -97.7016, 142.102
0.104, -1, 11.2225, 13.5496, 17.3507, -145.247, -97.6414, 141.989
0.108, -1, 11.1978, 13.5388, 17.3557, -145.179, -97.5718, 141.859
0.112, -1, 11.1711, 13.527, 17.3618, -145.103, -97.4926, 141.711
0.116, -1, 11.1422, 13.5142, 17.3688, -145.018, -97.4041, 141.545
0.12, -1, 11.1111, 13.5004, 17.3765, -144.924, -97.3069, 141.363
0.124, -1, 11.0779, 13.4857, 17.385, -144.823, -97.2015, 141.166
0.128, -1, 11.0427, 13.47, 17.3942, -144.714, -97.0888, 140.955
0.131, -1, 11.0058, 13.4534, 17.4038, -144.6, -96.9696, 140.732
0.136, -1, 10.9674, 13.436, 17.414, -144.48, -96.8449, 140.499
0.139, -1, 10.9276, 13.4179, 17.4244, -144.355, -96.7157, 140.257
0.144, -1, 10.8863, 13.3991, 17.435, -144.227, -96.583, 140.009
0.148, -1, 10.8435, 13.3797, 17.4456, -144.097, -96.4476, 139.755
0.152, -1, 10.7993, 13.3597, 17.4563, -143.965, -96.3102, 139.498
0.156, -1, 10.7537, 13.3391, 17.4669, -143.831, -96.1716, 139.239
0.16, -1, 10.7069, 13.3182, 17.4774, -143.697, -96.0323, 138.978
0.164, -1, 10.6591, 13.2971, 17.4878, -143.562, -95.8925, 138.716
0.168, -1, 10.6107, 13.2757, 17.4981, -143.427, -95.7525, 138.455
0.172, -1, 10.5619, 13.2543, 17.5084, -143.292, -95.6126, 138.193
0.176, -1, 10.5128, 13.2327, 17.5187, -143.158, -95.4728, 137.931
0.18, -1, 10.4637, 13.2112, 17.5289, -143.023, -95.3332, 137.67
0.184, -1, 10.4145, 13.1897, 17.5391, -142.889, -95.1938, 137.409
0.188, -1, 10.3653, 13.1682, 17.5492, -142.755, -95.0548, 137.149
0.192, -1, 10.3161, 13.1467, 17.5593, -142.621, -94.916, 136.889
0.196, -1, 10.267, 13.1253, 17.5694, -142.488, -94.7776, 136.63
0.2, -1, 10.218, 13.1039, 17.5795, -142.355, -94.6395, 136.372
0.204, -1, 10.1692, 13.0825, 17.5895, -142.222, -94.5017, 136.114
0.208, -1, 10.1204, 13.0613, 17.5995, -142.09, -94.3643, 135.857
0.212, -1, 10.0717, 13.04, 17.6095, -141.957, -94.2272, 135.601
0.216, -1, 10.0232, 13.0188, 17.6194, -141.826, -94.0905, 135.345
0.22, -1, 9.97477, 12.9977, 17.6293, -141.694, -93.9541, 135.09
0.224, -1, 9.92647, 12.9766, 17.6392, -141.563, -93.8181, 134.835
0.228, -1, 9.87829, 12.9556, 17.6491, -141.432, -93.6824, 134.581
0.232, -1, 9.83023, 12.9346, 17.659, -141.302, -93.547, 134.328
0.236, -1, 9.78228, 12.9137, 17.6688, -141.172, -93.412, 134.075
0.24, -1, 9.73446, 12.8928, 17.6786, -141.042, -93.2773, 133.823
0.244, -1, 9.68675, 12.872, 17.6884, -140.913, -93.143, 133.572
0.248, -1, 9.63916, 12.8512, 17.6981, -140.783, -93.009, 133.321
0.252, -1, 9.59169, 12.8305, 17.7078, -140.655, -92.8753, 133.071
0.256, -1, 9.54434, 12.8099, 17.7175, -140.526, -92.7419, 132.822
0.26, -1, 9.4971, 12.7892, 17.7272, -140.398, -92.6089, 132.573
0.264, -1, 9.44997, 12.7687, 17.7369, -140.27, -92.4762, 132.324
0.268, -1, 9.40296, 12.7482, 17.7465, -140.143, -92.3438, 132.077
0.272, -1, 9.35607, 12.7277, 17.7561, -140.015, -92.2118, 131.83
0.276, -1, 9.30929, 12.7073, 17.7657, -139.888, -92.08, 131.583
0.28, -1, 9.26262, 12.6869, 17.7752, -139.762, -91.9486, 131.337
0.284, -1, 9.21606, 12.6666, 17.7848, -139.635, -91.8175, 131.092
0.288, -1, 9.16961, 12.6463, 17.7943, -139.509, -91.6867, 130.847
0.292, -1, 9.12327, 12.6261, 17.8038, -139.383, -91.5562, 130.603
0.296, -1, 9.07704, 12.6059, 17.8133, -139.258, -91.426, 130.359
0.3, -1, 9.03092, 12.5858, 17.8227, -139.133, -91.2961, 130.116
0.304, -1, 8.98491, 12.5657, 17.8321, -139.008, -91.1665, 129.874
0.308, -1, 8.93901, 12.5457, 17.8415, -138.883, -91.0373, 129.632
0.312, -1, 8.89321, 12.5257, 17.8509, -138.759, -90.9083, 129.391
0.316, -1, 8.84751, 12.5058, 17.8603, -138.635, -90.7796, 129.15
0.32, -1, 8.80193, 12.4859, 17.8696, -138.511, -90.6512, 128.91
0.324, -1, 8.75644, 12.466, 17.8789, -138.388, -90.5231, 128.67
0.328, -1, 8.71106, 12.4462, 17.8882, -138.265, -90.3953, 128.431
0.332, -1, 8.66579, 12.4264, 17.8975, -138.142, -90.2678, 128.192
0.336, -1, 8.62061, 12.4067, 17.9068, -138.019, -90.1406, 127.954
0.34, -1, 8.57554, 12.3871, 17.916, -137.897, -90.0137, 127.717
0.344, -1, 8.53057, 12.3674, 17.9252, -137.775, -89.8871, 127.48
0.348, -1, 8.4857, 12.3479, 17.9344, -137.653, -89.7607, 127.244
0.352, -1, 8.44094, 12.3283, 17.9436, -137.532, -89.6346, 127.008
0.356, -1, 8.39627, 12.3088, 17.9527, -137.411, -89.5088, 126.772
0.36, -1, 8.3517, 12.2894, 17.9619, -137.29, -89.3833, 126.537
0.364, -1, 8.30723, 12.27, 17.971, -137.169, -89.2581, 126.303
0.368, -1, 8.26286, 12.2506, 17.9801, -137.048, -89.1331, 126.069
0.372, -1, 8.21858, 12.2313, 17.9891, -136.928, -89.0084, 125.836
0.376, -1, 8.17441, 12.212, 17.9982, -136.808, -88.884, 125.603
0.38, -1, 8.13033, 12.1928, 18.0072, -136.689, -88.7599, 125.371
0.384, -1, 8.08634, 12.1736, 18.0162, -136.569, -88.636, 125.139
0.388, -1, 8.04245, 12.1544, 18.0252, -136.45, -88.5124, 124.908
0.392, -1, 7.99865, 12.1353, 18.0342, -136.331, -88.389, 124.677
0.396, -1, 7.95495, 12.1162, 18.0432, -136.213, -88.266, 124.447
0.4, -1, 7.91134, 12.0972, 18.0521, -136.094, -88.1431, 124.217
0.404, -1, 7.86783, 12.0782, 18.061, -135.976, -88.0206, 123.988
0.408, -1, 7.8244, 12.0592, 18.0699, -135.859, -87.8983, 123.759
0.412, -1, 7.78107, 12.0403, 18.0788, -135.741, -87.7763, 123.531
0.416, -1, 7.73783, 12.0215, 18.0876, -135.624, -87.6545, 123.303
0.42, -1, 7.69467, 12.0026, 18.0965, -135.506, -87.533, 123.075
0.424, -1, 7.65161, 11.9838, 18.1053, -135.39, -87.4117, 122.849
0.428, -1, 7.60864, 11.9651, 18.1141, -135.273, -87.2907, 122.622
0.432, -1, 7.56576, 11.9464, 18.1229, -135.157, -87.1699, 122.396
0.436, -1, 7.52296, 11.9277, 18.1317, -135.04, -87.0494, 122.171
0.44, -1, 7.48026, 11.9091, 18.1404, -134.925, -86.9291, 121.946
0.444, -1, 7.43764, 11.8905, 18.1491, -134.809, -86.8091, 121.721
0.448, -1, 7.39511, 11.8719, 18.1579, -134.693, -86.6893, 121.497
0.452, -1, 7.35266, 11.8534, 18.1666, -134.578, -86.5698, 121.273
0.456, -1, 7.3103, 11.8349, 18.1752, -134.463, -86.4505, 121.05
0.46, -1, 7.26802, 11.8164, 18.1839, -134.349, -86.3314, 120.827
0.464, -1, 7.22583, 11.798, 18.1925, -134.234, -86.2126, 120.605
0.468, -1, 7.18373, 11.7796, 18.2012, -134.12, -86.094, 120.383
0.472, -1, 7.1417, 11.7613, 18.2098, -134.006, -85.9756, 120.162
0.476, -1, 7.09976, 11.743, 18.2184, -133.892, -85.8575, 119.941
0.48, -1, 7.05791, 11.7247, 18.2269, -133.778, -85.7396, 119.72
0.484, -1, 7.01613, 11.7065, 18.2355, -133.665, -85.622, 119.5
0.488, -1, 6.97444, 11.6883, 18.2441, -133.552, -85.5045, 119.28
0.492, -1, 6.93282, 11.6701, 18.2526, -133.439, -85.3873, 119.061
0.496, -1, 6.89129, 11.652, 18.2611, -133.326, -85.2703, 118.842
0.5, -1, 6.84984, 11.6339, 18.2696, -133.214, -85.1536, 118.624
0.504, -1, 6.80846, 11.6158, 18.2781, -133.101, -85.0371, 118.406
0.508, -1, 6.76717, 11.5978, 18.2865, -132.989, -84.9208, 118.188
0.512, -1, 6.72596, 11.5798, 18.295, -132.877, -84.8047, 117.971
0.516, -1, 6.68482, 11.5619, 18.3034, -132.766, -84.6888, 117.754
0.52, -1, 6.64376, 11.544, 18.3118, -132.654, -84.5732, 117.538
0.524, -1, 6.60278, 11.5261, 18.3202, -132.543, -84.4577, 117.322
0.528, -1, 6.56187, 11.5082, 18.3286, -132.432, -84.3425, 117.106
0.532, -1, 6.52105, 11.4904, 18.337, -132.321, -84.2275, 116.891
0.536, -1, 6.48029, 11.4726, 18.3453, -132.211, -84.1128, 116.676
0.54, -1, 6.43962, 11.4549, 18.3536, -132.1, -83.9982, 116.462
0.544, -1, 6.39902, 11.4371, 18.362, -131.99, -83.8838, 116.248
0.548, -1, 6.35849, 11.4195, 18.3703, -131.88, -83.7697, 116.034
0.552, -1, 6.31804, 11.4018, 18.3786, -131.77, -83.6558, 115.821
0.556, -1, 6.27766, 11.3842, 18.3868, -131.661, -83.542, 115.608
0.56, -1, 6.23736, 11.3666, 18.3951, -131.551, -83.4285, 115.396
0.564, -1, 6.19713, 11.349, 18.4033, -131.442, -83.3152, 115.184
0.568, -1, 6.15697, 11.3315, 18.4116, -131.333, -83.2021, 114.972
0.572, -1, 6.11689, 11.314, 18.4198, -131.224, -83.0892, 114.761
0.576, -1, 6.07687, 11.2965, 18.428, -131.116, -82.9765, 114.55
0.58, -1, 6.03693, 11.2791, 18.4362, -131.007, -82.864, 114.34
0.584, -1, 5.99706, 11.2617, 18.4443, -130.899, -82.7517, 114.129
0.588, -1, 5.95726, 11.2443, 18.4525, -130.791, -82.6396, 113.92
0.592, -1, 5.91753, 11.227, 18.4606, -130.683, -82.5277, 113.71
0.596, -1, 5.87787, 11.2097, 18.4688, -130.575, -82.416, 113.501
0.6, -1, 5.83829, 11.1924, 18.4769, -130.468, -82.3045, 113.293
0.604, -1, 5.79877, 11.1751, 18.485, -130.361, -82.1931, 113.084
0.608, -1, 5.75932, 11.1579, 18.4931, -130.254, -82.082, 112.876
0.612, -1, 5.71994, 11.1407, 18.5011, -130.147, -81.9711, 112.669
0.616, -1, 5.68062, 11.1236, 18.5092, -130.04, -81.8604, 112.462
0.62, -1, 5.64138, 11.1064, 18.5172, -129.933, -81.7498, 112.255
0.624, -1, 5.6022, 11.0893, 18.5253, -129.827, -81.6395, 112.048
0.628, -1, 5.56309, 11.0723, 18.5333, -129.721, -81.5293, 111.842
0.632, -1, 5.52404, 11.0552, 18.5413, -129.615, -81.4193, 111.637
0.636, -1, 5.48506, 11.0382, 18.5493, -129.509, -81.3095, 111.431
0.64, -1, 5.44615, 11.0212, 18.5572, -129.404, -81.1999, 111.226
0.644, -1, 5.4073, 11.0043, 18.5652, -129.298, -81.0905, 111.021
0.648, -1, 5.36852, 10.9873, 18.5731, -129.193, -80.9813, 110.817
0.652, -1, 5.3298, 10.9704, 18.5811, -129.088, -80.8722, 110.613
0.656, -1, 5.29115, 10.9536, 18.589, -128.983, -80.7634, 110.409
0.66, -1, 5.25256, 10.9367, 18.5969, -128.878, -80.6547, 110.206
0.664, -1, 5.21403, 10.9199, 18.6048, -128.774, -80.5462, 110.003
0.668, -1, 5.17557, 10.9031, 18.6127, -128.669, -80.4378, 109.8
0.672, -1, 5.13717, 10.8864, 18.6206, -128.565, -80.3297, 109.598
0.676, -1, 5.09883, 10.8696, 18.6284, -128.461, -80.2217, 109.396
0.68, -1, 5.06056, 10.8529, 18.6363, -128.357, -80.1139, 109.194
0.684, -1, 5.02235, 10.8362, 18.6441, -128.253, -80.0062, 108.993
0.688, -1, 4.98419, 10.8196, 18.6519, -128.15, -79.8988, 108.792
0.692, -1, 4.9461, 10.803, 18.6597, -128.046, -79.7915, 108.591
0.696, -1, 4.90808, 10.7864, 18.6675, -127.943, -79.6844, 108.39
0.7, -1, 4.87011, 10.7698, 18.6753, -127.84, -79.5774, 108.19
0.704, -1, 4.8322, 10.7533, 18.6831, -127.737, -79.4706, 107.99
0.708, -1, 4.79435, 10.7367, 18.6908, -127.634, -79.364, 107.791
0.712, -1, 4.75656, 10.7202, 18.6986, -127.532, -79.2576, 107.592
0.716, -1, 4.71883, 10.7038, 18.7063, -127.429, -79.1513, 107.393
0.72, -1, 4.68116, 10.6873, 18.714, -127.327, -79.0452, 107.194
0.724, -1, 4.64354, 10.6709, 18.7217, -127.225, -78.9392, 106.996
0.728, -1, 4.60599, 10.6545, 18.7294, -127.123, -78.8334, 106.798
0.732, -1, 4.56849, 10.6381, 18.7371, -127.021, -78.7278, 106.601
0.736, -1, 4.53105, 10.6218, 18.7448, -126.92, -78.6224, 106.403
0.74, -1, 4.49367, 10.6055, 18.7524, -126.818, -78.5171, 106.206
0.744, -1, 4.45634, 10.5892, 18.7601, -126.717, -78.4119, 106.01
0.748, -1, 4.41907, 10.5729, 18.7677, -126.616, -78.3069, 105.813
0.752, -1, 4.38186, 10.5567, 18.7754, -126.515, -78.2021, 105.617
0.756, -1, 4.3447, 10.5405, 18.783, -126.414, -78.0974, 105.421
0.76, -1, 4.3076, 10.5243, 18.7906, -126.313, -77.9929, 105.226
0.764, -1, 4.27056, 10.5081, 18.7982, -126.212, -77.8886, 105.03
0.768, -1, 4.23357, 10.4919, 18.8057, -126.112, -77.7844, 104.835
0.772, -1, 4.19663, 10.4758, 18.8133, -126.012, -77.6803, 104.641
0.776, -1, 4.15975, 10.4597, 18.8209, -125.912, -77.5764, 104.446
0.78, -1, 4.12292, 10.4436, 18.8284, -125.812, -77.4727, 104.252
0.784, -1, 4.08615, 10.4276, 18.836, -125.712, -77.3691, 104.058
0.788, -1, 4.04943, 10.4116, 18.8435, -125.612, -77.2657, 103.865
0.792, -1, 4.01277, 10.3956, 18.851, -125.513, -77.1624, 103.672
0.796, -1, 3.97616, 10.3796, 18.8585, -125.413, -77.0593, 103.479
0.8, -1, 3.9396, 10.3636, 18.866, -125.314, -76.9563, 103.286
0.804, -1, 3.90309, 10.3477, 18.8735, -125.215, -76.8534, 103.094
0.808, -1, 3.86664, 10.3318, 18.881, -125.116, -76.7507, 102.901
0.812, -1, 3.83024, 10.3159, 18.8884, -125.017, -76.6482, 102.71
0.816, -1, 3.79389, 10.3, 18.8959, -124.919, -76.5458, 102.518
0.82, -1, 3.75759, 10.2842, 18.9033, -124.82, -76.4436, 102.327
0.824, -1, 3.72134, 10.2683, 18.9107, -124.722, -76.3415, 102.136
0.828, -1, 3.68515, 10.2525, 18.9181, -124.623, -76.2395, 101.945
0.832, -1, 3.649, 10.2368, 18.9256, -124.525, -76.1377, 101.754
0.836, -1, 3.61291, 10.221, 18.933, -124.427, -76.036, 101.564
0.84, -1, 3.57687, 10.2053, 18.9403, -124.329, -75.9345, 101.374
0.844, -1, 3.54087, 10.1896, 18.9477, -124.232, -75.8331, 101.184
0.848, -1, 3.50493, 10.1739, 18.9551, -124.134, -75.7318, 100.995
0.852, -1, 3.46904, 10.1582, 18.9624, -124.037, -75.6307, 100.806
0.856, -1, 3.43319, 10.1426, 18.9698, -123.939, -75.5297, 100.617
0.86, -1, 3.3974, 10.1269, 18.9771, -123.842, -75.4289, 100.428
0.864, -1, 3.36165, 10.1113, 18.9845, -123.745, -75.3282, 100.24
0.868, -1, 3.32596, 10.0958, 18.9918, -123.648, -75.2276, 100.052
0.872, -1, 3.29031, 10.0802, 18.9991, -123.551, -75.1272, 99.8638
0.876, -1, 3.25471, 10.0647, 19.0064, -123.455, -75.0269, 99.6761
0.88, -1, 3.21915, 10.0491, 19.0137, -123.358, -74.9268, 99.4887
0.884, -1, 3.18365, 10.0336, 19.0209, -123.262, -74.8268, 99.3016
0.888, -1, 3.14819, 10.0182, 19.0282, -123.166, -74.7269, 99.1147
0.892, -1, 3.11278, 10.0027, 19.0355, -123.07, -74.6271, 98.9281
0.896, -1, 3.07742, 9.98726, 19.0427, -122.974, -74.5275, 98.7417
0.9, -1, 3.0421, 9.97184, 19.0499, -122.878, -74.428, 98.5555
0.904, -1, 3.00683, 9.95645, 19.0572, -122.782, -74.3287, 98.3697
0.908, -1, 2.9716, 9.94107, 19.0644, -122.686, -74.2295, 98.184
0.912, -1, 2.93642, 9.92571, 19.0716, -122.591, -74.1304, 97.9986
0.916, -1, 2.90129, 9.91038, 19.0788, -122.495, -74.0314, 97.8134
0.92, -1, 2.8662, 9.89506, 19.086, -122.4, -73.9326, 97.6285
0.924, -1, 2.83116, 9.87976, 19.0932, -122.305, -73.8338, 97.4438
0.928, -1, 2.79616, 9.86449, 19.1004, -122.21, -73.7353, 97.2593
0.932, -1, 2.76121, 9.84923, 19.1075, -122.115, -73.6368, 97.0751
0.936, -1, 2.7263, 9.83399, 19.1147, -122.02, -73.5385, 96.8911
0.94, -1, 2.69144, 9.81877, 19.1218, -121.926, -73.4402, 96.7073
0.944, -1, 2.65662, 9.80357, 19.129, -121.831, -73.3422, 96.5238
0.948, -1, 2.62185, 9.78839, 19.1361, -121.737, -73.2442, 96.3405
0.952, -1, 2.58711, 9.77323, 19.1432, -121.643, -73.1463, 96.1574
0.956, -1, 2.55242, 9.75809, 19.1503, -121.548, -73.0486, 95.9746
0.96, -1, 2.51778, 9.74296, 19.1574, -121.454, -72.951, 95.792
0.964, -1, 2.48317, 9.72786, 19.1645, -121.36, -72.8535, 95.6096
0.968, -1, 2.44861, 9.71277, 19.1716, -121.267, -72.7562, 95.4274
0.972, -1, 2.4141, 9.6977, 19.1787, -121.173, -72.6589, 95.2455
0.976, -1, 2.37962, 9.68265, 19.1857, -121.079, -72.5618, 95.0638
0.98, -1, 2.34519, 9.66762, 19.1928, -120.986, -72.4648, 94.8823
0.984, -1, 2.31079, 9.65261, 19.1998, -120.892, -72.3679, 94.701
0.988, -1, 2.27644, 9.63761, 19.2069, -120.799, -72.2711, 94.5199
0.992, -1, 2.24213, 9.62263, 19.2139, -120.706, -72.1745, 94.3391
0.996, -1, 2.20786, 9.60767, 19.2209, -120.613, -72.078, 94.1584
1, -1, 2.17364, 9.59273, 19.228, -120.52, -71.9815, 93.978
1.004, -1, 2.13945, 9.57781, 19.235, -120.427, -71.8852, 93.7978
1.008, -1, 2.1053, 9.5629, 19.242, -120.335, -71.789, 93.6179
1.012, -1, 2.0712, 9.54801, 19.249, -120.242, -71.693, 93.4381
1.016, -1, 2.03713, 9.53314, 19.2559, -120.149, -71.597, 93.2585
1.02, -1, 2.00311, 9.51829, 19.2629, -120.057, -71.5011, 93.0792
1.024, -1, 1.96912, 9.50345, 19.2699, -119.965, -71.4054, 92.9
1.027, -1, 1.93518, 9.48863, 19.2768, -119.873, -71.3098, 92.7211
1.032, -1, 1.90127, 9.47383, 19.2838, -119.781, -71.2142, 92.5424
1.036, -1, 1.8674, 9.45905, 19.2907, -119.689, -71.1188, 92.3639
1.04, -1, 1.83357, 9.44428, 19.2977, -119.597, -71.0235, 92.1856
1.044, -1, 1.79978, 9.42953, 19.3046, -119.505, -70.9283, 92.0075
1.048, -1, 1.76603, 9.41479, 19.3115, -119.414, -70.8333, 91.8296
1.052, -1, 1.73232, 9.40008, 19.3184, -119.322, -70.7383, 91.6519
1.055, -1, 1.69865, 9.38538, 19.3253, -119.231, -70.6434, 91.4744
1.06, -1, 1.66501, 9.37069, 19.3322, -119.139, -70.5487, 91.2971
1.064, -1, 1.63142, 9.35603, 19.3391, -119.048, -70.454, 91.12
1.068, -1, 1.59786, 9.34138, 19.346, -118.957, -70.3595, 90.9431
1.072, -1, 1.56433, 9.32674, 19.3529, -118.866, -70.265, 90.7664
1.076, -1, 1.53085, 9.31212, 19.3597, -118.775, -70.1707, 90.5899
1.08, -1, 1.4974, 9.29752, 19.3666, -118.684, -70.0765, 90.4136
1.084, -1, 1.46399, 9.28294, 19.3734, -118.594, -69.9823, 90.2375
1.088, -1, 1.43062, 9.26837, 19.3803, -118.503, -69.8883, 90.0615
1.091, -1, 1.39728, 9.25382, 19.3871, -118.412, -69.7944, 89.8858
1.096, -1, 1.36398, 9.23928, 19.3939, -118.322, -69.7006, 89.7103
1.1, -1, 1.33072, 9.22476, 19.4007, -118.232, -69.6069, 89.535
1.104, -1, 1.29749, 9.21025, 19.4076, -118.142, -69.5133, 89.3598
1.108, -1, 1.2643, 9.19576, 19.4144, -118.051, -69.4198, 89.1849
1.112, -1, 1.23115, 9.18129, 19.4212, -117.961, -69.3264, 89.0101
1.116, -1, 1.19803, 9.16683, 19.4279, -117.871, -69.2331, 88.8355
1.119, -1, 1.16495, 9.15239, 19.4347, -117.782, -69.1399, 88.6611
1.124, -1, 1.1319, 9.13796, 19.4415, -117.692, -69.0468, 88.4869
1.128, -1, 1.09889, 9.12355, 19.4483, -117.602, -68.9538, 88.3129
1.132, -1, 1.06591, 9.10915, 19.455, -117.513, -68.8608, 88.1391
1.136, -1, 1.03297, 9.09477, 19.4618, -117.423, -68.768, 87.9655
1.14, -1, 1.00006, 9.08041, 19.4685, -117.334, -68.6753, 87.792
1.144, -1, 0.967189, 9.06606, 19.4753, -117.245, -68.5827, 87.6187
1.147, -1, 0.934351, 9.05172, 19.482, -117.156, -68.4902, 87.4456
1.152, -1, 0.901547, 9.0374, 19.4887, -117.067, -68.3978, 87.2727
1.156, -1, 0.868777, 9.02309, 19.4954, -116.978, -68.3055, 87.1
1.16, -1, 0.836041, 9.0088, 19.5021, -116.889, -68.2133, 86.9274
1.164, -1, 0.803339, 8.99453, 19.5089, -116.8, -68.1211, 86.7551
1.168, -1, 0.77067, 8.98027, 19.5155, -116.711, -68.0291, 86.5829
1.172, -1, 0.738035, 8.96602, 19.5222, -116.623, -67.9372, 86.4109
1.175, -1, 0.705433, 8.95179, 19.5289, -116.534, -67.8453, 86.239
1.18, -1, 0.672864, 8.93757, 19.5356, -116.446, -67.7536, 86.0673
1.184, -1, 0.640328, 8.92337, 19.5423, -116.357, -67.6619, 85.8958
1.188, -1, 0.607825, 8.90918, 19.5489, -116.269, -67.5703, 85.7245
1.192, -1, 0.575354, 8.895, 19.5556, -116.181, -67.4789, 85.5534
1.196, -1, 0.542916, 8.88084, 19.5622, -116.093, -67.3875, 85.3824
1.2, -1, 0.51051, 8.86669, 19.5689, -116.005, -67.2962, 85.2116
1.204, -1, 0.478137, 8.85256, 19.5755, -115.917, -67.205, 85.0409
1.208, -1, 0.445796, 8.83844, 19.5821, -115.829, -67.1139, 84.8704
1.212, -1, 0.413486, 8.82434, 19.5888, -115.742, -67.0229, 84.7001
1.216, -1, 0.381208, 8.81025, 19.5954, -115.654, -66.9319, 84.53
1.22, -1, 0.348962, 8.79617, 19.602, -115.566, -66.8411, 84.36
1.224, -1, 0.316747, 8.7821, 19.6086, -115.479, -66.7503, 84.1902
1.228, -1, 0.284563, 8.76805, 19.6152, -115.392, -66.6596, 84.0205
1.232, -1, 0.252409, 8.75402, 19.6218, -115.304, -66.5691, 83.8511
1.236, -1, 0.220287, 8.73999, 19.6284, -115.217, -66.4786, 83.6817
1.24, -1, 0.188195, 8.72598, 19.6349, -115.13, -66.3881, 83.5126
1.244, -1, 0.156134, 8.71199, 19.6415, -115.043, -66.2978, 83.3436
1.248, -1, 0.124103, 8.698, 19.6481, -114.956, -66.2076, 83.1747
1.252, -1, 0.0921029, 8.68403, 19.6546, -114.869, -66.1174, 83.006
1.256, -1, 0.0601324, 8.67008, 19.6612, -114.782, -66.0274, 82.8375
1.26, -1, 0.0281919, 8.65613, 19.6677, -114.696, -65.9374, 82.6691
1.264, -1, -0.00371882, 8.6422, 19.6743, -114.609, -65.8475, 82.5009
1.267, -1, -0.0355998, 8.62828, 19.6808, -114.522, -65.7576, 82.3329
1.272, -1, -0.0674513, 8.61438, 19.6874, -114.436, -65.6679, 82.165
1.276, -1, -0.0992733, 8.60049, 19.6939, -114.349, -65.5783, 81.9972
1.28, -1, -0.131066, 8.58661, 19.7004, -114.263, -65.4887, 81.8296
1.284, -1, -0.16283, 8.57274, 19.7069, -114.177, -65.3992, 81.6622
1.288, -1, -0.194564, 8.55888, 19.7134, -114.091, -65.3098, 81.4949
1.292, -1, -0.22627, 8.54504, 19.7199, -114.005, -65.2205, 81.3278
1.295, -1, -0.257947, 8.53121, 19.7264, -113.919, -65.1312, 81.1608
1.3, -1, -0.289595, 8.5174, 19.7329, -113.833, -65.0421, 80.994
1.304, -1, -0.321215, 8.50359, 19.7394, -113.747, -64.953, 80.8273
1.308, -1, -0.352807, 8.4898, 19.7459, -113.661, -64.864, 80.6608
1.312, -1, -0.38437, 8.47602, 19.7523, -113.575, -64.775, 80.4944
1.316, -1, -0.415905, 8.46225, 19.7588, -113.49, -64.6862, 80.3282
1.32, -1, -0.447412, 8.4485, 19.7652, -113.404, -64.5974, 80.1621
1.324, -1, -0.478891, 8.43476, 19.7717, -113.319, -64.5087, 79.9961
1.328, -1, -0.510342, 8.42103, 19.7781, -113.233, -64.4201, 79.8303
1.332, -1, -0.541766, 8.40731, 19.7846, -113.148, -64.3316, 79.6647
1.336, -1, -0.573163, 8.3936, 19.791, -113.063, -64.2431, 79.4992
1.34, -1, -0.604532, 8.37991, 19.7975, -112.978, -64.1548, 79.3338
1.344, -1, -0.635873, 8.36622, 19.8039, -112.893, -64.0665, 79.1686
1.348, -1, -0.667188, 8.35255, 19.8103, -112.808, -63.9782, 79.0035
1.352, -1, -0.698475, 8.33889, 19.8167, -112.723, -63.8901, 78.8386
1.356, -1, -0.729736, 8.32524, 19.8231, -112.638, -63.802, 78.6738
1.36, -1, -0.760969, 8.31161, 19.8295, -112.553, -63.714, 78.5092
1.364, -1, -0.792176, 8.29799, 19.8359, -112.468, -63.6261, 78.3447
1.368, -1, -0.823357, 8.28437, 19.8423, -112.384, -63.5383, 78.1803
1.372, -1, -0.854511, 8.27077, 19.8487, -112.299, -63.4505, 78.0161
1.376, -1, -0.885639, 8.25718, 19.8551, -112.215, -63.3628, 77.852
1.38, -1, -0.91674, 8.2436, 19.8615, -112.13, -63.2752, 77.6881
1.384, -1, -0.947816, 8.23004, 19.8678, -112.046, -63.1876, 77.5242
1.388, -1, -0.978865, 8.21648, 19.8742, -111.961, -63.1001, 77.3606
1.392, -1, -1.00989, 8.20294, 19.8806, -111.877, -63.0127, 77.197
1.396, -1, -1.04089, 8.18941, 19.8869, -111.793, -62.9254, 77.0336
1.4, -1, -1.07186, 8.17588, 19.8933, -111.709, -62.8381, 76.8704
1.404, -1, -1.1028, 8.16237, 19.8996, -111.625, -62.7509, 76.7072
1.408, -1, -1.13373, 8.14887, 19.9059, -111.541, -62.6638, 76.5442
1.412, -1, -1.16462, 8.13539, 19.9123, -111.457, -62.5768, 76.3814
1.416, -1, -1.19549, 8.12191, 19.9186, -111.373, -62.4898, 76.2186
1.42, -1, -1.22634, 8.10844, 19.9249, -111.29, -62.4029, 76.056
1.424, -1, -1.25716, 8.09499, 19.9312, -111.206, -62.3161, 75.8936
1.428, -1, -1.28795, 8.08154, 19.9376, -111.122, -62.2293, 75.7312
1.432, -1, -1.31872, 8.06811, 19.9439, -111.039, -62.1426, 75.569
1.436, -1, -1.34947, 8.05468, 19.9502, -110.955, -62.056, 75.4069
1.44, -1, -1.38019, 8.04127, 19.9565, -110.872, -61.9694, 75.245
1.444, -1, -1.41089, 8.02787, 19.9628, -110.788, -61.8829, 75.0832
1.448, -1, -1.44156, 8.01448, 19.9691, -110.705, -61.7965, 74.9215
1.452, -1, -1.47221, 8.0011, 19.9753, -110.622, -61.7102, 74.7599
1.456, -1, -1.50284, 7.98773, 19.9816, -110.539, -61.6239, 74.5985
1.46, -1, -1.53344, 7.97437, 19.9879, -110.456, -61.5377, 74.4372
1.464, -1, -1.56402, 7.96102, 19.9942, -110.373, -61.4515, 74.276
1.468, -1, -1.59457, 7.94768, 20.0004, -110.29, -61.3655, 74.1149
1.472, -1, -1.6251, 7.93435, 20.0067, -110.207, -61.2794, 73.954
1.476, -1, -1.65561, 7.92103, 20.0129, -110.124, -61.1935, 73.7932
1.48, -1, -1.68609, 7.90773, 20.0192, -110.041, -61.1076, 73.6325
1.484, -1, -1.71655, 7.89443, 20.0254, -109.959, -61.0218, 73.4719
1.488, -1, -1.74699, 7.88114, 20.0317, -109.876, -60.936, 73.3115
1.492, -1, -1.7774, 7.86786, 20.0379, -109.793, -60.8504, 73.1512
1.496, -1, -1.8078, 7.85459, 20.0441, -109.711, -60.7647, 72.991
1.5, -1, -1.83816, 7.84134, 20.0504, -109.628, -60.6792, 72.8309
1.504, -1, -1.86851, 7.82809, 20.0566, -109.546, -60.5937, 72.6709
1.508, -1, -1.89883, 7.81485, 20.0628, -109.464, -60.5082, 72.511
1.512, -1, -1.92914, 7.80162, 20.069, -109.381, -60.4229, 72.3513
1.516, -1, -1.95941, 7.7884, 20.0752, -109.299, -60.3376, 72.1917
1.52, -1, -1.98967, 7.77519, 20.0814, -109.217, -60.2523, 72.0322
1.524, -1, -2.01991, 7.76199, 20.0876, -109.135, -60.1671, 71.8728
1.528, -1, -2.05012, 7.7488, 20.0938, -109.053, -60.082, 71.7136
1.532, -1, -2.08031, 7.73562, 20.1, -108.971, -59.997, 71.5544
1.536, -1, -2.11048, 7.72245, 20.1062, -108.889, -59.912, 71.3954
1.54, -1, -2.14063, 7.70929, 20.1124, -108.807, -59.827, 71.2364
1.544, -1, -2.17075, 7.69614, 20.1185, -108.725, -59.7421, 71.0776
1.548, -1, -2.20086, 7.68299, 20.1247, -108.644, -59.6573, 70.9189
1.552, -1, -2.23094, 7.66986, 20.1309, -108.562, -59.5726, 70.7603
1.556, -1, -2.261, 7.65673, 20.137, -108.48, -59.4879, 70.6019
1.56, -1, -2.29105, 7.64362, 20.1432, -108.399, -59.4032, 70.4435
1.564, -1, -2.32107, 7.63051, 20.1494, -108.317, -59.3186, 70.2852
1.568, -1, -2.35107, 7.61741, 20.1555, -108.236, -59.2341, 70.1271
1.572, -1, -2.38104, 7.60432, 20.1617, -108.154, -59.1497, 69.9691
1.576, -1, -2.411, 7.59124, 20.1678, -108.073, -59.0653, 69.8111
1.58, -1, -2.44094, 7.57817, 20.1739, -107.992, -58.9809, 69.6533
1.584, -1, -2.47086, 7.56511, 20.1801, -107.911, -58.8966, 69.4956
1.588, -1, -2.50075, 7.55206, 20.1862, -107.829, -58.8124, 69.338
1.592, -1, -2.53063, 7.53901, 20.1923, -107.748, -58.7282, 69.1805
1.596, -1, -2.56048, 7.52598, 20.1984, -107.667, -58.6441, 69.0231
1.6, -1, -2.59032, 7.51295, 20.2046, -107.586, -58.56, 68.8659
1.604, -1, -2.62014, 7.49993, 20.2107, -107.505, -58.476, 68.7087
1.608, -1, -2.64993, 7.48693, 20.2168, -107.424, -58.3921, 68.5516
1.612, -1, -2.67971, 7.47393, 20.2229, -107.344, -58.3082, 68.3946
1.616, -1, -2.70946, 7.46094, 20.229, -107.263, -58.2244, 68.2378
1.62, -1, -2.7392, 7.44795, 20.2351, -107.182, -58.1406, 68.081
1.624, -1, -2.76891, 7.43498, 20.2412, -107.101, -58.0568, 67.9244
1.628, -1, -2.79861, 7.42201, 20.2473, -107.021, -57.9732, 67.7678
1.632, -1, -2.82829, 7.40906, 20.2533, -106.94, -57.8896, 67.6114
1.636, -1, -2.85795, 7.39611, 20.2594, -106.86, -57.806, 67.455
1.64, -1, -2.88759, 7.38317, 20.2655, -106.779, -57.7225, 67.2988
1.644, -1, -2.91721, 7.37024, 20.2716, -106.699, -57.639, 67.1427
1.648, -1, -2.94681, 7.35732, 20.2776, -106.618, -57.5556, 66.9866
1.652, -1, -2.97639, 7.3444, 20.2837, -106.538, -57.4723, 66.8307
1.656, -1, -3.00595, 7.33149, 20.2898, -106.458, -57.389, 66.6748
1.66, -1, -3.03549, 7.3186, 20.2958, -106.378, -57.3058, 66.5191
1.664, -1, -3.06502, 7.30571, 20.3019, -106.297, -57.2226, 66.3634
1.668, -1, -3.09452, 7.29282, 20.3079, -106.217, -57.1395, 66.2079
1.672, -1, -3.12401, 7.27995, 20.314, -106.137, -57.0564, 66.0525
1.676, -1, -3.15348, 7.26708, 20.32, -106.057, -56.9734, 65.8971
1.68, -1, -3.18293, 7.25423, 20.3261, -105.977, -56.8904, 65.7419
1.684, -1, -3.21236, 7.24138, 20.3321, -105.897, -56.8074, 65.5867
1.688, -1, -3.24178, 7.22854, 20.3381, -105.817, -56.7246, 65.4316
1.692, -1, -3.27117, 7.2157, 20.3441, -105.738, -56.6418, 65.2767
1.696, -1, -3.30055, 7.20288, 20.3502, -105.658, -56.559, 65.1218
1.7, -1, -3.32991, 7.19006, 20.3562, -105.578, -56.4763, 64.967
1.704, -1, -3.35925, 7.17725, 20.3622, -105.499, -56.3936, 64.8124
1.708, -1, -3.38857, 7.16445, 20.3682, -105.419, -56.311, 64.6578
1.712, -1, -3.41788, 7.15165, 20.3742, -105.339, -56.2284, 64.5033
1.716, -1, -3.44717, 7.13886, 20.3802, -105.26, -56.1459, 64.3489
1.72, -1, -3.47644, 7.12608, 20.3862, -105.18, -56.0634, 64.1946
1.724, -1, -3.50569, 7.11331, 20.3922, -105.101, -55.981, 64.0404
1.728, -1, -3.53492, 7.10055, 20.3982, -105.022, -55.8986, 63.8863
1.732, -1, -3.56414, 7.08779, 20.4042, -104.942, -55.8163, 63.7322
1.736, -1, -3.59334, 7.07504, 20.4102, -104.863, -55.734, 63.5783
1.74, -1, -3.62252, 7.0623, 20.4162, -104.784, -55.6518, 63.4245
1.744, -1, -3.65169, 7.04957, 20.4222, -104.705, -55.5696, 63.2707
1.748, -1, -3.68084, 7.03684, 20.4281, -104.625, -55.4875, 63.1171
1.752, -1, -3.70997, 7.02413, 20.4341, -104.546, -55.4054, 62.9635
1.756, -1, -3.73909, 7.01142, 20.4401, -104.467, -55.3234, 62.81
1.76, -1, -3.76818, 6.99871, 20.446, -104.388, -55.2414, 62.6566
1.764, -1, -3.79727, 6.98601, 20.452, -104.309, -55.1595, 62.5033
1.768, -1, -3.82633, 6.97333, 20.458, -104.23, -55.0776, 62.3501
1.772, -1, -3.85538, 6.96064, 20.4639, -104.152, -54.9958, 62.1969
1.776, -1, -3.88441, 6.94797, 20.4699, -104.073, -54.914, 62.0439
1.78, -1, -3.91343, 6.9353, 20.4758, -103.994, -54.8322, 61.8909
1.784, -1, -3.94243, 6.92264, 20.4818, -103.915, -54.7505, 61.7381
1.788, -1, -3.97141, 6.90999, 20.4877, -103.836, -54.6688, 61.5853
1.792, -1, -4.00038, 6.89734, 20.4936, -103.758, -54.5872, 61.4326
1.796, -1, -4.02933, 6.88471, 20.4996, -103.679, -54.5057, 61.28
1.8, -1, -4.05827, 6.87207, 20.5055, -103.601, -54.4241, 61.1274
1.804, -1, -4.08718, 6.85945, 20.5114, -103.522, -54.3427, 60.975
1.808, -1, -4.11609, 6.84683, 20.5174, -103.444, -54.2612, 60.8226
1.812, -1, -4.14498, 6.83422, 20.5233, -103.365, -54.1798, 60.6703
1.816, -1, -4.17385, 6.82161, 20.5292, -103.287, -54.0985, 60.5181
1.82, -1, -4.2027, 6.80901, 20.5351, -103.208, -54.0172, 60.366
1.824, -1, -4.23155, 6.79642, 20.541, -103.13, -53.9359, 60.214
1.828, -1, -4.26037, 6.78384, 20.5469, -103.052, -53.8547, 60.062
1.832, -1, -4.28918, 6.77126, 20.5529, -102.974, -53.7735, 59.9101
1.836, -1, -4.31798, 6.75869, 20.5588, -102.896, -53.6924, 59.7583
1.84, -1, -4.34676, 6.74612, 20.5647, -102.817, -53.6113, 59.6066
1.844, -1, -4.37553, 6.73356, 20.5706, -102.739, -53.5303, 59.455
1.848, -1, -4.40428, 6.72101, 20.5764, -102.661, -53.4493, 59.3034
1.852, -1, -4.43301, 6.70847, 20.5823, -102.583, -53.3683, 59.1519
1.856, -1, -4.46173, 6.69593, 20.5882, -102.505, -53.2874, 59.0005
1.86, -1, -4.49044, 6.68339, 20.5941, -102.427, -53.2065, 58.8492
1.864, -1, -4.51913, 6.67087, 20.6, -102.349, -53.1257, 58.6979
1.868, -1, -4.54781, 6.65835, 20.6059, -102.271, -53.0449, 58.5467
1.872, -1, -4.57647, 6.64583, 20.6118, -102.194, -52.9641, 58.3956
1.876, -1, -4.60512, 6.63333, 20.6176, -102.116, -52.8834, 58.2446
1.88, -1, -4.63376, 6.62082, 20.6235, -102.038, -52.8027, 58.0936
1.884, -1, -4.66238, 6.60833, 20.6294, -101.96, -52.7221, 57.9428
1.888, -1, -4.69098, 6.59584, 20.6352, -101.883, -52.6415, 57.792
1.892, -1, -4.71957, 6.58335, 20.6411, -101.805, -52.5609, 57.6412
1.896, -1, -4.74815, 6.57088, 20.6469, -101.728, -52.4804, 57.4906
1.9, -1, -4.77671, 6.55841, 20.6528, -101.65, -52.3999, 57.34
1.904, -1, -4.80526, 6.54594, 20.6587, -101.572, -52.3195, 57.1895
1.908, -1, -4.8338, 6.53348, 20.6645, -101.495, -52.2391, 57.0391
1.912, -1, -4.86232, 6.52103, 20.6704, -101.418, -52.1587, 56.8887
1.916, -1, -4.89083, 6.50858, 20.6762, -101.34, -52.0784, 56.7384
1.92, -1, -4.91933, 6.49614, 20.682, -101.263, -51.9981, 56.5882
1.924, -1, -4.94781, 6.48371, 20.6879, -101.185, -51.9178, 56.438
1.928, -1, -4.97628, 6.47128, 20.6937, -101.108, -51.8376, 56.288
1.932, -1, -5.00473, 6.45886, 20.6996, -101.031, -51.7575, 56.138
1.936, -1, -5.03317, 6.44644, 20.7054, -100.954, -51.6773, 55.988
1.94, -1, -5.0616, 6.43403, 20.7112, -100.876, -51.5972, 55.8382
1.944, -1, -5.09001, 6.42162, 20.717, -100.799, -51.5172, 55.6884
1.948, -1, -5.11841, 6.40922, 20.7229, -100.722, -51.4371, 55.5387
1.952, -1, -5.1468, 6.39683, 20.7287, -100.645, -51.3572, 55.389
1.956, -1, -5.17518, 6.38444, 20.7345, -100.568, -51.2772, 55.2394
1.96, -1, -5.20354, 6.37206, 20.7403, -100.491, -51.1973, 55.0899
1.964, -1, -5.23189, 6.35968, 20.7461, -100.414, -51.1174, 54.9404
1.968, -1, -5.26023, 6.34731, 20.7519, -100.337, -51.0376, 54.7911
1.972, -1, -5.28855, 6.33494, 20.7577, -100.26, -50.9578, 54.6418
1.976, -1, -5.31686, 6.32258, 20.7635, -100.183, -50.878, 54.4925
1.98, -1, -5.34516, 6.31023, 20.7693, -100.107, -50.7983, 54.3433
1.984, -1, -5.37344, 6.29788, 20.7751, -100.03, -50.7186, 54.1942
1.988, -1, -5.40172, 6.28553, 20.7809, -99.953, -50.6389, 54.0452
1.992, -1, -5.42998, 6.2732, 20.7867, -99.8763, -50.5593, 53.8962
1.996, -1, -5.45822, 6.26086, 20.7925, -99.7996, -50.4797, 53.7473
1.999, -1, -5.48646, 6.24854, 20.7983, -99.7229, -50.4002, 53.5984
2.004, -1, -5.51468, 6.23621, 20.8041, -99.6463, -50.3206, 53.4496
2.008, -1, -5.54289, 6.2239, 20.8099, -99.5697, -50.2412, 53.3009
2.012, -1, -5.57109, 6.21159, 20.8157, -99.4931, -50.1617, 53.1522
2.015, -1, -5.59928, 6.19928, 20.8214, -99.4166, -50.0823, 53.0036
2.019, -1, -5.62745, 6.18698, 20.8272, -99.3401, -50.0029, 52.8551
2.024, -1, -5.65562, 6.17468, 20.833, -99.2636, -49.9236, 52.7066
2.028, -1, -5.68377, 6.16239, 20.8388, -99.1872, -49.8442, 52.5582
2.031, -1, -5.71191, 6.15011, 20.8445, -99.1108, -49.7649, 52.4099
2.036, -1, -5.74003, 6.13783, 20.8503, -99.0344, -49.6857, 52.2616
2.04, -1, -5.76815, 6.12555, 20.8561, -98.9581, -49.6065, 52.1134
2.044, -1, -5.79625, 6.11328, 20.8618, -98.8818, -49.5273, 51.9652
2.048, -1, -5.82435, 6.10102, 20.8676, -98.8055, -49.4482, 51.8172
2.051, -1, -5.85243, 6.08876, 20.8734, -98.7292, -49.369, 51.6691
2.055, -1, -5.88049, 6.0765, 20.8791, -98.653, -49.29, 51.5211
2.06, -1, -5.90855, 6.06425, 20.8849, -98.5768, -49.2109, 51.3732
2.064, -1, -5.9366, 6.05201, 20.8906, -98.5007, -49.1319, 51.2254
2.068, -1, -5.96463, 6.03977, 20.8964, -98.4246, -49.0529, 51.0776
2.071, -1, -5.99266, 6.02753, 20.9021, -98.3485, -48.9739, 50.9299
2.076, -1, -6.02067, 6.0153, 20.9078, -98.2724, -48.895, 50.7822
2.08, -1, -6.04867, 6.00308, 20.9136, -98.1964, -48.8161, 50.6346
2.084, -1, -6.07666, 5.99086, 20.9193, -98.1204, -48.7372, 50.487
2.087, -1, -6.10464, 5.97864, 20.9251, -98.0444, -48.6584, 50.3395
2.092, -1, -6.13261, 5.96643, 20.9308, -97.9685, -48.5796, 50.1921
2.096, -1, -6.16056, 5.95423, 20.9365, -97.8926, -48.5008, 50.0447
2.1, -1, -6.18851, 5.94203, 20.9423, -97.8167, -48.4221, 49.8974
2.104, -1, -6.21645, 5.92983, 20.948, -97.7409, -48.3434, 49.7501
2.107, -1, -6.24437, 5.91764, 20.9537, -97.665, -48.2647, 49.6029
2.111, -1, -6.27229, 5.90545, 20.9594, -97.5892, -48.1861, 49.4557
2.116, -1, -6.30019, 5.89327, 20.9652, -97.5135, -48.1074, 49.3086
2.12, -1, -6.32809, 5.88109, 20.9709, -97.4378, -48.0289, 49.1616
2.124, -1, -6.35597, 5.86892, 20.9766, -97.362, -47.9503, 49.0146
2.127, -1, -6.38384, 5.85675, 20.9823, -97.2864, -47.8718, 48.8676
2.132, -1, -6.41171, 5.84458, 20.988, -97.2107, -47.7932, 48.7208
2.136, -1, -6.43956, 5.83242, 20.9937, -97.1351, -47.7148, 48.5739
2.14, -1, -6.4674, 5.82027, 20.9994, -97.0595, -47.6363, 48.4272
2.143, -1, -6.49523, 5.80811, 21.0051, -96.9839, -47.5579, 48.2804
2.148, -1, -6.52306, 5.79597, 21.0108, -96.9084, -47.4795, 48.1338
2.152, -1, -6.55087, 5.78382, 21.0165, -96.8329, -47.4011, 47.9871
2.156, -1, -6.57867, 5.77169, 21.0222, -96.7574, -47.3228, 47.8406
2.16, -1, -6.60647, 5.75955, 21.0279, -96.6819, -47.2445, 47.694
2.163, -1, -6.63425, 5.74742, 21.0336, -96.6065, -47.1662, 47.5476
2.168, -1, -6.66202, 5.73529, 21.0393, -96.5311, -47.088, 47.4011
2.172, -1, -6.68979, 5.72317, 21.045, -96.4557, -47.0097, 47.2548
2.176, -1, -6.71754, 5.71105, 21.0507, -96.3803, -46.9315, 47.1085
2.179, -1, -6.74529, 5.69894, 21.0564, -96.305, -46.8534, 46.9622
2.184, -1, -6.77303, 5.68683, 21.0621, -96.2297, -46.7752, 46.816
2.188, -1, -6.80075, 5.67473, 21.0678, -96.1544, -46.6971, 46.6698
2.192, -1, -6.82847, 5.66262, 21.0735, -96.0791, -46.619, 46.5237
2.196, -1, -6.85618, 5.65053, 21.0791, -96.0039, -46.5409, 46.3776
2.199, -1, -6.88388, 5.63843, 21.0848, -95.9287, -46.4629, 46.2316
2.204, -1, -6.91157, 5.62634, 21.0905, -95.8535, -46.3849, 46.0856
2.208, -1, -6.93925, 5.61426, 21.0962, -95.7783, -46.3069, 45.9397
2.212, -1, -6.96692, 5.60218, 21.1018, -95.7032, -46.2289, 45.7938
2.216, -1, -6.99459, 5.5901, 21.1075, -95.6281, -46.1509, 45.6479
2.219, -1, -7.02224, 5.57802, 21.1132, -95.553, -46.073, 45.5022
2.224, -1, -7.04988, 5.56595, 21.1189, -95.4779, -45.9951, 45.3564
2.228, -1, -7.07752, 5.55389, 21.1245, -95.4029, -45.9173, 45.2107
2.232, -1, -7.10515, 5.54183, 21.1302, -95.3279, -45.8394, 45.0651
2.235, -1, -7.13277, 5.52977, 21.1359, -95.2529, -45.7616, 44.9195
2.24, -1, -7.16038, 5.51771, 21.1415, -95.1779, -45.6838, 44.7739
2.244, -1, -7.18798, 5.50566, 21.1472, -95.103, -45.606, 44.6284
2.248, -1, -7.21558, 5.49361, 21.1528, -95.028, -45.5283, 44.4829
2.252, -1, -7.24316, 5.48157, 21.1585, -94.9531, -45.4506, 44.3375
2.255, -1, -7.27074, 5.46953, 21.1641, -94.8783, -45.3729, 44.1921
2.259, -1, -7.29831, 5.45749, 21.1698, -94.8034, -45.2952, 44.0468
2.264, -1, -7.32587, 5.44546, 21.1754, -94.7286, -45.2175, 43.9015
2.268, -1, -7.35342, 5.43343, 21.1811, -94.6538, -45.1399, 43.7562
2.272, -1, -7.38096, 5.42141, 21.1867, -94.579, -45.0623, 43.611
2.275, -1, -7.4085, 5.40938, 21.1924, -94.5042, -44.9847, 43.4659
2.28, -1, -7.43603, 5.39736, 21.198, -94.4295, -44.9071, 43.3207
2.284, -1, -7.46355, 5.38535, 21.2037, -94.3548, -44.8296, 43.1757
2.288, -1, -7.49106, 5.37334, 21.2093, -94.2801, -44.7521, 43.0306
2.291, -1, -7.51856, 5.36133, 21.2149, -94.2054, -44.6746, 42.8856
2.296, -1, -7.54606, 5.34933, 21.2206, -94.1307, -44.5971, 42.7407
2.3, -1, -7.57355, 5.33732, 21.2262, -94.0561, -44.5197, 42.5958
2.304, -1, -7.60103, 5.32533, 21.2319, -93.9815, -44.4422, 42.4509
2.308, -1, -7.6285, 5.31333, 21.2375, -93.9069, -44.3648, 42.306
2.311, -1, -7.65596, 5.30134, 21.2431, -93.8323, -44.2874, 42.1613
2.316, -1, -7.68342, 5.28935, 21.2487, -93.7577, -44.2101, 42.0165
2.32, -1, -7.71087, 5.27737, 21.2544, -93.6832, -44.1327, 41.8718
2.324, -1, -7.73831, 5.26539, 21.26, -93.6087, -44.0554, 41.7271
2.328, -1, -7.76575, 5.25341, 21.2656, -93.5342, -43.9781, 41.5825
2.331, -1, -7.79317, 5.24143, 21.2713, -93.4597, -43.9008, 41.4379
2.336, -1, -7.82059, 5.22946, 21.2769, -93.3853, -43.8236, 41.2934
2.34, -1, -7.848, 5.21749, 21.2825, -93.3109, -43.7463, 41.1488
2.344, -1, -7.87541, 5.20553, 21.2881, -93.2364, -43.6691, 41.0044
2.347, -1, -7.90281, 5.19357, 21.2937, -93.1621, -43.5919, 40.8599
2.352, -1, -7.9302, 5.18161, 21.2993, -93.0877, -43.5148, 40.7155
2.356, -1, -7.95758, 5.16965, 21.305, -93.0133, -43.4376, 40.5712
2.36, -1, -7.98496, 5.1577, 21.3106, -92.939, -43.3605, 40.4268
2.364, -1, -8.01233, 5.14575, 21.3162, -92.8647, -43.2834, 40.2826
2.367, -1, -8.03969, 5.1338, 21.3218, -92.7904, -43.2063, 40.1383
2.372, -1, -8.06704, 5.12186, 21.3274, -92.7161, -43.1292, 39.9941
2.376, -1, -8.09439, 5.10992, 21.333, -92.6419, -43.0521, 39.8499
2.38, -1, -8.12173, 5.09798, 21.3386, -92.5676, -42.9751, 39.7058
2.383, -1, -8.14907, 5.08605, 21.3442, -92.4934, -42.8981, 39.5617
2.388, -1, -8.1764, 5.07412, 21.3498, -92.4192, -42.8211, 39.4176
2.392, -1, -8.20372, 5.06219, 21.3554, -92.345, -42.7441, 39.2736
2.396, -1, -8.23103, 5.05026, 21.361, -92.2708, -42.6671, 39.1296
2.4, -1, -8.25834, 5.03834, 21.3666, -92.1967, -42.5902, 38.9856
2.403, -1, -8.28564, 5.02642, 21.3722, -92.1226, -42.5133, 38.8417
2.408, -1, -8.31294, 5.0145, 21.3778, -92.0485, -42.4363, 38.6978
2.412, -1, -8.34023, 5.00258, 21.3834, -91.9744, -42.3595, 38.5539
2.416, -1, -8.36751, 4.99067, 21.389, -91.9003, -42.2826, 38.4101
2.42, -1, -8.39478, 4.97876, 21.3946, -91.8262, -42.2057, 38.2663
2.423, -1, -8.42205, 4.96685, 21.4002, -91.7522, -42.1289, 38.1225
2.428, -1, -8.44932, 4.95495, 21.4058, -91.6782, -42.0521, 37.9788
2.432, -1, -8.47657, 4.94305, 21.4114, -91.6042, -41.9753, 37.8351
2.436, -1, -8.50383, 4.93115, 21.417, -91.5302, -41.8985, 37.6915
2.439, -1, -8.53107, 4.91926, 21.4225, -91.4562, -41.8217, 37.5478
2.444, -1, -8.55831, 4.90736, 21.4281, -91.3822, -41.745, 37.4042
2.448, -1, -8.58554, 4.89547, 21.4337, -91.3083, -41.6683, 37.2607
2.452, -1, -8.61277, 4.88359, 21.4393, -91.2344, -41.5915, 37.1171
2.456, -1, -8.63999, 4.8717, 21.4449, -91.1604, -41.5149, 36.9736
2.459, -1, -8.66721, 4.85982, 21.4505, -91.0865, -41.4382, 36.8301
2.464, -1, -8.69442, 4.84794, 21.456, -91.0127, -41.3615, 36.6867
2.468, -1, -8.72162, 4.83606, 21.4616, -90.9388, -41.2849, 36.5433
2.472, -1, -8.74882, 4.82419, 21.4672, -90.865, -41.2082, 36.3999
2.476, -1, -8.77602, 4.81231, 21.4728, -90.7911, -41.1316, 36.2565
2.479, -1, -8.80321, 4.80044, 21.4783, -90.7173, -41.055, 36.1132
2.484, -1, -8.83039, 4.78857, 21.4839, -90.6435, -40.9784, 35.9699
2.488, -1, -8.85756, 4.77671, 21.4895, -90.5697, -40.9018, 35.8266
2.492, -1, -8.88474, 4.76485, 21.4951, -90.4959, -40.8253, 35.6834
2.495, -1, -8.9119, 4.75298, 21.5006, -90.4221, -40.7487, 35.5402
2.5, -1, -8.93907, 4.74113, 21.5062, -90.3484, -40.6722, 35.397
2.504, -1, -8.96622, 4.72927, 21.5118, -90.2747, -40.5957, 35.2538
2.508, -1, -8.99337, 4.71741, 21.5173, -90.2009, -40.5192, 35.1107
2.512, -1, -9.02052, 4.70556, 21.5229, -90.1272, -40.4427, 34.9675
2.515, -1, -9.04766, 4.69371, 21.5285, -90.0535, -40.3662, 34.8245
2.52, -1, -9.0748, 4.68186, 21.534, -89.9799, -40.2897, 34.6814
2.524, -1, -9.10193, 4.67002, 21.5396, -89.9062, -40.2133, 34.5384
2.528, -1, -9.12906, 4.65817, 21.5452, -89.8325, -40.1369, 34.3954
2.531, -1, -9.15618, 4.64633, 21.5507, -89.7589, -40.0604, 34.2524
2.536, -1, -9.1833, 4.63449, 21.5563, -89.6853, -39.984, 34.1094
2.54, -1, -9.21041, 4.62265, 21.5618, -89.6116, -39.9076, 33.9665
2.544, -1, -9.23752, 4.61082, 21.5674, -89.538, -39.8313, 33.8236
2.548, -1, -9.26462, 4.59899, 21.5729, -89.4644, -39.7549, 33.6807
2.551, -1, -9.29172, 4.58715, 21.5785, -89.3909, -39.6785, 33.5378
2.556, -1, -9.31882, 4.57532, 21.5841, -89.3173, -39.6022, 33.395
2.56, -1, -9.3459, 4.5635, 21.5896, -89.2437, -39.5259, 33.2522
2.564, -1, -9.37299, 4.55167, 21.5952, -89.1702, -39.4496, 33.1094
2.568, -1, -9.40007, 4.53985, 21.6007, -89.0967, -39.3732, 32.9666
2.571, -1, -9.42715, 4.52802, 21.6063, -89.0231, -39.297, 32.8238
2.576, -1, -9.45422, 4.5162, 21.6118, -88.9496, -39.2207, 32.6811
2.58, -1, -9.48129, 4.50439, 21.6174, -88.8761, -39.1444, 32.5384
2.584, -1, -9.50835, 4.49257, 21.6229, -88.8026, -39.0681, 32.3957
2.587, -1, -9.53541, 4.48075, 21.6285, -88.7292, -38.9919, 32.2531
2.592, -1, -9.56247, 4.46894, 21.634, -88.6557, -38.9157, 32.1104
2.596, -1, -9.58952, 4.45713, 21.6396, -88.5823, -38.8394, 31.9678
2.6, -1, -9.61657, 4.44532, 21.6451, -88.5088, -38.7632, 31.8252
2.604, -1, -9.64361, 4.43351, 21.6507, -88.4354, -38.687, 31.6827
2.607, -1, -9.67066, 4.42171, 21.6562, -88.362, -38.6108, 31.5401
2.612, -1, -9.69769, 4.4099, 21.6617, -88.2886, -38.5347, 31.3976
2.616, -1, -9.72472, 4.3981, 21.6673, -88.2151, -38.4585, 31.2551
2.62, -1, -9.75175, 4.3863, 21.6728, -88.1418, -38.3823, 31.1126
2.624, -1, -9.77878, 4.3745, 21.6784, -88.0684, -38.3062, 30.9701
2.627, -1, -9.8058, 4.3627, 21.6839, -87.995, -38.2301, 30.8276
2.632, -1, -9.83282, 4.35091, 21.6894, -87.9216, -38.1539, 30.6852
2.636, -1, -9.85983, 4.33911, 21.695, -87.8483, -38.0778, 30.5428
2.64, -1, -9.88684, 4.32732, 21.7005, -87.775, -38.0017, 30.4004
2.643, -1, -9.91385, 4.31553, 21.7061, -87.7016, -37.9256, 30.258
2.648, -1, -9.94085, 4.30374, 21.7116, -87.6283, -37.8495, 30.1157
2.652, -1, -9.96785, 4.29195, 21.7171, -87.555, -37.7735, 29.9733
2.656, -1, -9.99485, 4.28016, 21.7227, -87.4817, -37.6974, 29.831
2.66, -1, -10.0218, 4.26838, 21.7282, -87.4084, -37.6213, 29.6887
2.663, -1, -10.0488, 4.25659, 21.7337, -87.3351, -37.5453, 29.5464
2.668, -1, -10.0758, 4.24481, 21.7393, -87.2618, -37.4692, 29.4041
2.672, -1, -10.1028, 4.23303, 21.7448, -87.1886, -37.3932, 29.2619
2.676, -1, -10.1298, 4.22125, 21.7503, -87.1153, -37.3172, 29.1196
2.679, -1, -10.1568, 4.20947, 21.7559, -87.0421, -37.2412, 28.9774
2.684, -1, -10.1837, 4.19769, 21.7614, -86.9688, -37.1652, 28.8352
2.688, -1, -10.2107, 4.18592, 21.7669, -86.8956, -37.0892, 28.693
2.692, -1, -10.2377, 4.17414, 21.7725, -86.8224, -37.0132, 28.5508
2.696, -1, -10.2646, 4.16237, 21.778, -86.7492, -36.9372, 28.4087
2.699, -1, -10.2916, 4.1506, 21.7835, -86.6759, -36.8613, 28.2666
2.704, -1, -10.3186, 4.13883, 21.789, -86.6027, -36.7853, 28.1244
2.708, -1, -10.3455, 4.12706, 21.7946, -86.5296, -36.7093, 27.9823
2.712, -1, -10.3725, 4.11529, 21.8001, -86.4564, -36.6334, 27.8402
2.716, -1, -10.3994, 4.10352, 21.8056, -86.3832, -36.5575, 27.6981
2.719, -1, -10.4264, 4.09176, 21.8111, -86.31, -36.4815, 27.5561
2.724, -1, -10.4533, 4.07999, 21.8167, -86.2369, -36.4056, 27.414
2.728, -1, -10.4803, 4.06823, 21.8222, -86.1637, -36.3297, 27.272
2.732, -1, -10.5072, 4.05647, 21.8277, -86.0905, -36.2538, 27.13
2.735, -1, -10.5341, 4.04471, 21.8332, -86.0174, -36.1779, 26.9879
2.74, -1, -10.5611, 4.03295, 21.8388, -85.9443, -36.102, 26.8459
2.744, -1, -10.588, 4.02119, 21.8443, -85.8711, -36.0261, 26.704
2.748, -1, -10.6149, 4.00943, 21.8498, -85.798, -35.9502, 26.562
2.752, -1, -10.6419, 3.99767, 21.8553, -85.7249, -35.8744, 26.42
2.755, -1, -10.6688, 3.98592, 21.8608, -85.6518, -35.7985, 26.2781
2.76, -1, -10.6957, 3.97416, 21.8664, -85.5787, -35.7226, 26.1361
2.764, -1, -10.7226, 3.96241, 21.8719, -85.5056, -35.6468, 25.9942
2.768, -1, -10.7495, 3.95066, 21.8774, -85.4325, -35.5709, 25.8523
2.772, -1, -10.7765, 3.9389, 21.8829, -85.3594, -35.4951, 25.7104
2.775, -1, -10.8034, 3.92715, 21.8884, -85.2863, -35.4193, 25.5685
2.78, -1, -10.8303, 3.9154, 21.894, -85.2133, -35.3434, 25.4266
2.784, -1, -10.8572, 3.90365, 21.8995, -85.1402, -35.2676, 25.2848
2.788, -1, -10.8841, 3.8919, 21.905, -85.0671, -35.1918, 25.1429
2.791, -1, -10.911, 3.88016, 21.9105, -84.9941, -35.116, 25.001
2.796, -1, -10.9379, 3.86841, 21.916, -84.921, -35.0402, 24.8592
2.8, -1, -10.9648, 3.85666, 21.9215, -84.848, -34.9644, 24.7174
2.804, -1, -10.9917, 3.84492, 21.9271, -84.7749, -34.8886, 24.5756
2.808, -1, -11.0186, 3.83317, 21.9326, -84.7019, -34.8128, 24.4337
2.811, -1, -11.0455, 3.82143, 21.9381, -84.6289, -34.737, 24.2919
2.816, -1, -11.0724, 3.80968, 21.9436, -84.5558, -34.6612, 24.1501
2.82, -1, -11.0993, 3.79794, 21.9491, -84.4828, -34.5854, 24.0083
2.824, -1, -11.1262, 3.7862, 21.9546, -84.4098, -34.5096, 23.8666
2.828, -1, -11.1531, 3.77446, 21.9601, -84.3367, -34.4338, 23.7248
2.831, -1, -11.18, 3.76272, 21.9657, -84.2637, -34.3581, 23.583
2.836, -1, -11.2069, 3.75098, 21.9712, -84.1907, -34.2823, 23.4412
2.84, -1, -11.2338, 3.73924, 21.9767, -84.1177, -34.2065, 23.2995
2.844, -1, -11.2607, 3.7275, 21.9822, -84.0447, -34.1308, 23.1577
2.847, -1, -11.2876, 3.71576, 21.9877, -83.9717, -34.055, 23.016
2.852, -1, -11.3144, 3.70402, 21.9932, -83.8987, -33.9793, 22.8743
2.856, -1, -11.3413, 3.69228, 21.9987, -83.8257, -33.9035, 22.7325
2.86, -1, -11.3682, 3.68054, 22.0042, -83.7527, -33.8278, 22.5908
2.864, -1, -11.3951, 3.6688, 22.0098, -83.6797, -33.752, 22.4491
2.867, -1, -11.422, 3.65707, 22.0153, -83.6067, -33.6763, 22.3073
2.872, -1, -11.4489, 3.64533, 22.0208, -83.5337, -33.6005, 22.1656
2.876, -1, -11.4757, 3.63359, 22.0263, -83.4607, -33.5248, 22.0239
2.88, -1, -11.5026, 3.62186, 22.0318, -83.3877, -33.4491, 21.8822
2.883, -1, -11.5295, 3.61012, 22.0373, -83.3148, -33.3733, 21.7405
2.888, -1, -11.5564, 3.59839, 22.0428, -83.2418, -33.2976, 21.5988
2.892, -1, -11.5832, 3.58665, 22.0483, -83.1688, -33.2219, 21.4571
2.896, -1, -11.6101, 3.57492, 22.0539, -83.0958, -33.1461, 21.3154
2.9, -1, -11.637, 3.56318, 22.0594, -83.0228, -33.0704, 21.1737
2.903, -1, -11.6639, 3.55145, 22.0649, -82.9499, -32.9947, 21.032
2.908, -1, -11.6908, 3.53971, 22.0704, -82.8769, -32.9189, 20.8903
2.912, -1, -11.7176, 3.52798, 22.0759, -82.8039, -32.8432, 20.7486
2.916, -1, -11.7445, 3.51625, 22.0814, -82.7309, -32.7675, 20.607
2.92, -1, -11.7714, 3.50451, 22.0869, -82.658, -32.6918, 20.4653
2.923, -1, -11.7983, 3.49278, 22.0924, -82.585, -32.616, 20.3236
2.928, -1, -11.8251, 3.48105, 22.0979, -82.512, -32.5403, 20.1819
2.932, -1, -11.852, 3.46931, 22.1034, -82.439, -32.4646, 20.0402
2.936, -1, -11.8789, 3.45758, 22.109, -82.3661, -32.3889, 19.8986
2.939, -1, -11.9057, 3.44585, 22.1145, -82.2931, -32.3132, 19.7569
2.944, -1, -11.9326, 3.43411, 22.12, -82.2201, -32.2374, 19.6152
2.948, -1, -11.9595, 3.42238, 22.1255, -82.1472, -32.1617, 19.4735
2.952, -1, -11.9864, 3.41065, 22.131, -82.0742, -32.086, 19.3319
2.956, -1, -12.0132, 3.39891, 22.1365, -82.0012, -32.0103, 19.1902
2.959, -1, -12.0401, 3.38718, 22.142, -81.9283, -31.9346, 19.0485
2.964, -1, -12.067, 3.37545, 22.1475, -81.8553, -31.8588, 18.9069
2.968, -1, -12.0939, 3.36371, 22.153, -81.7823, -31.7831, 18.7652
2.972, -1, -12.1207, 3.35198, 22.1585, -81.7094, -31.7074, 18.6235
2.976, -1, -12.1476, 3.34025, 22.1641, -81.6364, -31.6317, 18.4818
2.98, -1, -12.1745, 3.32851, 22.1696, -81.5634, -31.556, 18.3401
2.984, -1, -12.2014, 3.31678, 22.1751, -81.4905, -31.4802, 18.1985
2.988, -1, -12.2282, 3.30504, 22.1806, -81.4175, -31.4045, 18.0568
2.992, -1, -12.2551, 3.29331, 22.1861, -81.3445, -31.3288, 17.9151
2.995, -1, -12.282, 3.28158, 22.1916, -81.2715, -31.2531, 17.7734
3, -1, -12.3089, 3.26984, 22.1971, -81.1986, -31.1773, 17.6317
3.004, -1, -12.3357, 3.25811, 22.2026, -81.1256, -31.1016, 17.49
3.008, -1, -12.3626, 3.24637, 22.2081, -81.0526, -31.0259, 17.3483
3.012, -1, -12.3895, 3.23464, 22.2136, -80.9796, -30.9501, 17.2066
3.015, -1, -12.4164, 3.2229, 22.2192, -80.9066, -30.8744, 17.0649
3.02, -1, -12.4432, 3.21117, 22.2247, -80.8337, -30.7987, 16.9232
3.024, -1, -12.4701, 3.19943, 22.2302, -80.7607, -30.7229, 16.7815
3.028, -1, -12.497, 3.18769, 22.2357, -80.6877, -30.6472, 16.6398
3.031, -1, -12.5239, 3.17596, 22.2412, -80.6147, -30.5715, 16.4981
3.036, -1, -12.5508, 3.16422, 22.2467, -80.5417, -30.4957, 16.3564
3.04, -1, -12.5777, 3.15248, 22.2522, -80.4687, -30.42, 16.2146
3.044, -1, -12.6045, 3.14075, 22.2577, -80.3957, -30.3442, 16.0729
3.048, -1, -12.6314, 3.12901, 22.2633, -80.3227, -30.2685, 15.9312
3.051, -1, -12.6583, 3.11727, 22.2688, -80.2497, -30.1927, 15.7894
3.056, -1, -12.6852, 3.10553, 22.2743, -80.1767, -30.117, 15.6477
3.06, -1, -12.7121, 3.09379, 22.2798, -80.1037, -30.0412, 15.5059
3.064, -1, -12.739, 3.08205, 22.2853, -80.0307, -29.9654, 15.3642
3.068, -1, -12.7659, 3.07031, 22.2908, -79.9577, -29.8897, 15.2224
3.071, -1, -12.7928, 3.05857, 22.2963, -79.8847, -29.8139, 15.0807
3.076, -1, -12.8196, 3.04683, 22.3018, -79.8116, -29.7381, 14.9389
3.08, -1, -12.8465, 3.03508, 22.3074, -79.7386, -29.6623, 14.7971
3.084, -1, -12.8734, 3.02334, 22.3129, -79.6656, -29.5866, 14.6553
3.087, -1, -12.9003, 3.0116, 22.3184, -79.5926, -29.5108, 14.5135
3.092, -1, -12.9272, 2.99985, 22.3239, -79.5195, -29.435, 14.3717
3.096, -1, -12.9541, 2.98811, 22.3294, -79.4465, -29.3592, 14.2299
3.1, -1, -12.981, 2.97636, 22.3349, -79.3734, -29.2834, 14.0881
3.104, -1, -13.0079, 2.96462, 22.3405, -79.3004, -29.2076, 13.9462
3.107, -1, -13.0348, 2.95287, 22.346, -79.2273, -29.1318, 13.8044
3.112, -1, -13.0617, 2.94112, 22.3515, -79.1543, -29.056, 13.6626
3.116, -1, -13.0886, 2.92938, 22.357, -79.0812, -28.9802, 13.5207
3.12, -1, -13.1156, 2.91763, 22.3625, -79.0082, -28.9043, 13.3788
3.124, -1, -13.1425, 2.90588, 22.368, -78.9351, -28.8285, 13.237
3.128, -1, -13.1694, 2.89413, 22.3736, -78.862, -28.7527, 13.0951
3.132, -1, -13.1963, 2.88238, 22.3791, -78.7889, -28.6769, 12.9532
3.136, -1, -13.2232, 2.87062, 22.3846, -78.7158, -28.601, 12.8113
3.14, -1, -13.2501, 2.85887, 22.3901, -78.6428, -28.5252, 12.6694
3.143, -1, -13.2771, 2.84712, 22.3956, -78.5697, -28.4493, 12.5275
3.148, -1, -13.304, 2.83536, 22.4011, -78.4966, -28.3735, 12.3855
3.152, -1, -13.3309, 2.82361, 22.4067, -78.4235, -28.2976, 12.2436
3.156, -1, -13.3578, 2.81185, 22.4122, -78.3503, -28.2217, 12.1016
3.16, -1, -13.3848, 2.80009, 22.4177, -78.2772, -28.1458, 11.9597
3.163, -1, -13.4117, 2.78833, 22.4232, -78.2041, -28.07, 11.8177
3.168, -1, -13.4386, 2.77657, 22.4288, -78.131, -27.9941, 11.6757
3.172, -1, -13.4656, 2.76481, 22.4343, -78.0578, -27.9182, 11.5337
3.176, -1, -13.4925, 2.75305, 22.4398, -77.9847, -27.8423, 11.3916
3.179, -1, -13.5194, 2.74129, 22.4453, -77.9115, -27.7663, 11.2496
3.184, -1, -13.5464, 2.72952, 22.4509, -77.8384, -27.6904, 11.1076
3.188, -1, -13.5733, 2.71776, 22.4564, -77.7652, -27.6145, 10.9655
3.192, -1, -13.6003, 2.70599, 22.4619, -77.692, -27.5386, 10.8234
3.196, -1, -13.6272, 2.69422, 22.4674, -77.6188, -27.4626, 10.6813
3.199, -1, -13.6542, 2.68245, 22.473, -77.5456, -27.3867, 10.5392
3.204, -1, -13.6811, 2.67068, 22.4785, -77.4724, -27.3107, 10.3971
3.208, -1, -13.7081, 2.65891, 22.484, -77.3992, -27.2347, 10.255
3.212, -1, -13.7351, 2.64714, 22.4895, -77.326, -27.1588, 10.1128
3.216, -1, -13.762, 2.63536, 22.4951, -77.2528, -27.0828, 9.97064
3.22, -1, -13.789, 2.62359, 22.5006, -77.1796, -27.0068, 9.82845
3.224, -1, -13.816, 2.61181, 22.5061, -77.1063, -26.9308, 9.68625
3.228, -1, -13.843, 2.60003, 22.5117, -77.0331, -26.8548, 9.54404
3.232, -1, -13.8699, 2.58825, 22.5172, -76.9598, -26.7788, 9.40181
3.235, -1, -13.8969, 2.57647, 22.5227, -76.8866, -26.7027, 9.25956
3.24, -1, -13.9239, 2.56469, 22.5283, -76.8133, -26.6267, 9.11729
3.244, -1, -13.9509, 2.55291, 22.5338, -76.74, -26.5507, 8.97501
3.248, -1, -13.9779, 2.54112, 22.5393, -76.6667, -26.4746, 8.83271
3.252, -1, -14.0049, 2.52934, 22.5449, -76.5934, -26.3985, 8.69039
3.255, -1, -14.0319, 2.51755, 22.5504, -76.5201, -26.3225, 8.54806
3.26, -1, -14.0589, 2.50576, 22.5559, -76.4468, -26.2464, 8.40571
3.264, -1, -14.0859, 2.49397, 22.5615, -76.3735, -26.1703, 8.26334
3.268, -1, -14.1129, 2.48218, 22.567, -76.3001, -26.0942, 8.12095
3.272, -1, -14.1399, 2.47038, 22.5725, -76.2268, -26.0181, 7.97854
3.276, -1, -14.1669, 2.45859, 22.5781, -76.1534, -25.942, 7.83612
3.28, -1, -14.1939, 2.44679, 22.5836, -76.0801, -25.8658, 7.69367
3.284, -1, -14.221, 2.43499, 22.5892, -76.0067, -25.7897, 7.55121
3.288, -1, -14.248, 2.42319, 22.5947, -75.9333, -25.7135, 7.40873
3.291, -1, -14.275, 2.41139, 22.6003, -75.8599, -25.6374, 7.26622
3.296, -1, -14.3021, 2.39959, 22.6058, -75.7865, -25.5612, 7.1237
3.3, -1, -14.3291, 2.38778, 22.6113, -75.7131, -25.485, 6.98116
3.304, -1, -14.3561, 2.37597, 22.6169, -75.6397, -25.4088, 6.8386
3.308, -1, -14.3832, 2.36417, 22.6224, -75.5662, -25.3326, 6.69601
3.312, -1, -14.4102, 2.35236, 22.628, -75.4928, -25.2564, 6.55341
3.316, -1, -14.4373, 2.34054, 22.6335, -75.4193, -25.1802, 6.41078
3.32, -1, -14.4643, 2.32873, 22.6391, -75.3458, -25.1039, 6.26814
3.324, -1, -14.4914, 2.31691, 22.6446, -75.2724, -25.0277, 6.12547
3.328, -1, -14.5185, 2.3051, 22.6502, -75.1989, -24.9514, 5.98278
3.332, -1, -14.5455, 2.29328, 22.6557, -75.1254, -24.8752, 5.84007
3.336, -1, -14.5726, 2.28146, 22.6613, -75.0519, -24.7989, 5.69734
3.34, -1, -14.5997, 2.26963, 22.6668, -74.9783, -24.7226, 5.55459
3.344, -1, -14.6268, 2.25781, 22.6724, -74.9048, -24.6463, 5.41181
3.347, -1, -14.6539, 2.24598, 22.6779, -74.8313, -24.5699, 5.26901
3.352, -1, -14.6809, 2.23416, 22.6835, -74.7577, -24.4936, 5.12619
3.356, -1, -14.708, 2.22233, 22.689, -74.6841, -24.4173, 4.98334
3.36, -1, -14.7351, 2.21049, 22.6946, -74.6105, -24.3409, 4.84048
3.364, -1, -14.7622, 2.19866, 22.7001, -74.5369, -24.2645, 4.69758
3.368, -1, -14.7894, 2.18682, 22.7057, -74.4633, -24.1882, 4.55467
3.372, -1, -14.8165, 2.17499, 22.7113, -74.3897, -24.1118, 4.41173
3.376, -1, -14.8436, 2.16315, 22.7168, -74.3161, -24.0354, 4.26877
3.38, -1, -14.8707, 2.1513, 22.7224, -74.2424, -23.9589, 4.12578
3.383, -1, -14.8978, 2.13946, 22.7279, -74.1688, -23.8825, 3.98277
3.388, -1, -14.925, 2.12761, 22.7335, -74.0951, -23.8061, 3.83973
3.392, -1, -14.9521, 2.11576, 22.7391, -74.0214, -23.7296, 3.69667
3.396, -1, -14.9792, 2.10391, 22.7446, -73.9477, -23.6531, 3.55358
3.4, -1, -15.0064, 2.09206, 22.7502, -73.874, -23.5766, 3.41046
3.403, -1, -15.0335, 2.08021, 22.7558, -73.8003, -23.5001, 3.26733
3.408, -1, -15.0607, 2.06835, 22.7613, -73.7266, -23.4236, 3.12416
3.412, -1, -15.0879, 2.05649, 22.7669, -73.6528, -23.3471, 2.98097
3.416, -1, -15.115, 2.04463, 22.7725, -73.5791, -23.2705, 2.83775
3.42, -1, -15.1422, 2.03277, 22.7781, -73.5053, -23.194, 2.69451
3.424, -1, -15.1694, 2.0209, 22.7836, -73.4315, -23.1174, 2.55124
3.428, -1, -15.1965, 2.00903, 22.7892, -73.3577, -23.0408, 2.40794
3.432, -1, -15.2237, 1.99716, 22.7948, -73.2839, -22.9642, 2.26462
3.436, -1, -15.2509, 1.98529, 22.8003, -73.21, -22.8876, 2.12126
3.439, -1, -15.2781, 1.97342, 22.8059, -73.1362, -22.811, 1.97788
3.444, -1, -15.3053, 1.96154, 22.8115, -73.0623, -22.7343, 1.83447
3.448, -1, -15.3325, 1.94966, 22.8171, -72.9885, -22.6577, 1.69104
3.452, -1, -15.3597, 1.93778, 22.8227, -72.9146, -22.581, 1.54757
3.456, -1, -15.387, 1.9259, 22.8282, -72.8407, -22.5043, 1.40408
3.46, -1, -15.4142, 1.91401, 22.8338, -72.7667, -22.4276, 1.26055
3.464, -1, -15.4414, 1.90212, 22.8394, -72.6928, -22.3509, 1.117
3.468, -1, -15.4687, 1.89023, 22.845, -72.6189, -22.2741, 0.97342
3.472, -1, -15.4959, 1.87834, 22.8506, -72.5449, -22.1974, 0.829808
3.476, -1, -15.5231, 1.86644, 22.8562, -72.4709, -22.1206, 0.686166
3.48, -1, -15.5504, 1.85454, 22.8617, -72.3969, -22.0438, 0.542493
3.484, -1, -15.5777, 1.84264, 22.8673, -72.3229, -21.967, 0.398789
3.488, -1, -15.6049, 1.83074, 22.8729, -72.2489, -21.8902, 0.255054
3.492, -1, -15.6322, 1.81883, 22.8785, -72.1748, -21.8133, 0.111287
3.495, -1, -15.6595, 1.80692, 22.8841, -72.1008, -21.7365, -0.0325117
3.5, -1, -15.6867, 1.79501, 22.8897, -72.0267, -21.6596, -0.176343
3.504, -1, -15.714, 1.78309, 22.8953, -71.9526, -21.5827, -0.320206
3.508, -1, -15.7413, 1.77118, 22.9009, -71.8785, -21.5058, -0.464103
3.512, -1, -15.7686, 1.75926, 22.9065, -71.8043, -21.4289, -0.608032
3.516, -1, -15.7959, 1.74733, 22.9121, -71.7302, -21.352, -0.751996
3.52, -1, -15.8233, 1.73541, 22.9177, -71.656, -21.275, -0.895993
3.524, -1, -15.8506, 1.72348, 22.9233, -71.5818, -21.198, -1.04002
3.528, -1, -15.8779, 1.71155, 22.9289, -71.5077, -21.121, -1.18409
3.531, -1, -15.9052, 1.69961, 22.9345, -71.4334, -21.044, -1.32819
3.536, -1, -15.9326, 1.68768, 22.9401, -71.3592, -20.967, -1.47232
3.54, -1, -15.9599, 1.67574, 22.9457, -71.2849, -20.8899, -1.61649
3.544, -1, -15.9873, 1.66379, 22.9513, -71.2107, -20.8128, -1.7607
3.548, -1, -16.0146, 1.65185, 22.9569, -71.1364, -20.7358, -1.90494
3.552, -1, -16.042, 1.6399, 22.9625, -71.0621, -20.6586, -2.04921
3.556, -1, -16.0694, 1.62795, 22.9682, -70.9878, -20.5815, -2.19352
3.56, -1, -16.0967, 1.61599, 22.9738, -70.9134, -20.5044, -2.33787
3.564, -1, -16.1241, 1.60403, 22.9794, -70.839, -20.4272, -2.48225
3.568, -1, -16.1515, 1.59207, 22.985, -70.7647, -20.35, -2.62667
3.572, -1, -16.1789, 1.58011, 22.9906, -70.6903, -20.2728, -2.77113
3.576, -1, -16.2063, 1.56814, 22.9962, -70.6158, -20.1956, -2.91562
3.58, -1, -16.2338, 1.55617, 23.0019, -70.5414, -20.1183, -3.06016
3.584, -1, -16.2612, 1.5442, 23.0075, -70.4669, -20.0411, -3.20472
3.587, -1, -16.2886, 1.53223, 23.0131, -70.3925, -19.9638, -3.34933
3.592, -1, -16.316, 1.52025, 23.0187, -70.318, -19.8865, -3.49397
3.596, -1, -16.3435, 1.50826, 23.0244, -70.2434, -19.8091, -3.63866
3.6, -1, -16.3709, 1.49628, 23.03, -70.1689, -19.7318, -3.78338
3.604, -1, -16.3984, 1.48429, 23.0356, -70.0944, -19.6544, -3.92814
3.608, -1, -16.4259, 1.4723, 23.0413, -70.0198, -19.577, -4.07293
3.612, -1, -16.4533, 1.4603, 23.0469, -69.9452, -19.4996, -4.21777
3.616, -1, -16.4808, 1.4483, 23.0525, -69.8706, -19.4222, -4.36265
3.62, -1, -16.5083, 1.4363, 23.0582, -69.7959, -19.3447, -4.50756
3.624, -1, -16.5358, 1.4243, 23.0638, -69.7213, -19.2673, -4.65252
3.628, -1, -16.5633, 1.41229, 23.0694, -69.6466, -19.1898, -4.79751
3.632, -1, -16.5908, 1.40028, 23.0751, -69.5719, -19.1123, -4.94255
3.636, -1, -16.6183, 1.38826, 23.0807, -69.4972, -19.0347, -5.08763
3.64, -1, -16.6459, 1.37624, 23.0864, -69.4224, -18.9572, -5.23274
3.644, -1, -16.6734, 1.36422, 23.092, -69.3477, -18.8796, -5.3779
3.648, -1, -16.7009, 1.3522, 23.0977, -69.2729, -18.802, -5.5231
3.652, -1, -16.7285, 1.34017, 23.1033, -69.1981, -18.7244, -5.66834
3.656, -1, -16.756, 1.32814, 23.109, -69.1233, -18.6467, -5.81362
3.66, -1, -16.7836, 1.3161, 23.1146, -69.0484, -18.569, -5.95895
3.664, -1, -16.8112, 1.30406, 23.1203, -68.9735, -18.4913, -6.10431
3.668, -1, -16.8388, 1.29202, 23.1259, -68.8986, -18.4136, -6.24972
3.672, -1, -16.8663, 1.27997, 23.1316, -68.8237, -18.3359, -6.39517
3.676, -1, -16.8939, 1.26792, 23.1372, -68.7488, -18.2581, -6.54067
3.679, -1, -16.9215, 1.25587, 23.1429, -68.6738, -18.1803, -6.6862
3.684, -1, -16.9492, 1.24381, 23.1486, -68.5989, -18.1025, -6.83178
3.688, -1, -16.9768, 1.23175, 23.1542, -68.5238, -18.0247, -6.97741
3.692, -1, -17.0044, 1.21969, 23.1599, -68.4488, -17.9469, -7.12308
3.696, -1, -17.0321, 1.20762, 23.1655, -68.3738, -17.869, -7.26879
3.7, -1, -17.0597, 1.19555, 23.1712, -68.2987, -17.7911, -7.41454
3.704, -1, -17.0874, 1.18347, 23.1769, -68.2236, -17.7131, -7.56034
3.708, -1, -17.115, 1.1714, 23.1826, -68.1485, -17.6352, -7.70619
3.712, -1, -17.1427, 1.15931, 23.1882, -68.0734, -17.5572, -7.85208
3.716, -1, -17.1704, 1.14723, 23.1939, -67.9982, -17.4792, -7.99802
3.72, -1, -17.1981, 1.13514, 23.1996, -67.923, -17.4012, -8.144
3.724, -1, -17.2258, 1.12304, 23.2053, -67.8478, -17.3232, -8.29003
3.728, -1, -17.2535, 1.11095, 23.2109, -67.7726, -17.2451, -8.4361
3.732, -1, -17.2812, 1.09884, 23.2166, -67.6973, -17.167, -8.58222
3.735, -1, -17.3089, 1.08674, 23.2223, -67.622, -17.0889, -8.72838
3.74, -1, -17.3366, 1.07463, 23.228, -67.5467, -17.0107, -8.8746
3.744, -1, -17.3644, 1.06252, 23.2337, -67.4714, -16.9326, -9.02086
3.748, -1, -17.3921, 1.0504, 23.2394, -67.396, -16.8544, -9.16717
3.752, -1, -17.4199, 1.03828, 23.2451, -67.3207, -16.7761, -9.31352
3.756, -1, -17.4477, 1.02615, 23.2508, -67.2453, -16.6979, -9.45993
3.76, -1, -17.4754, 1.01402, 23.2565, -67.1698, -16.6196, -9.60638
3.764, -1, -17.5032, 1.00189, 23.2622, -67.0944, -16.5413, -9.75288
3.768, -1, -17.531, 0.989755, 23.2679, -67.0189, -16.463, -9.89942
3.772, -1, -17.5588, 0.977614, 23.2736, -66.9434, -16.3846, -10.046
3.776, -1, -17.5867, 0.965469, 23.2793, -66.8679, -16.3063, -10.1927
3.78, -1, -17.6145, 0.95332, 23.285, -66.7923, -16.2279, -10.3394
3.784, -1, -17.6423, 0.941166, 23.2907, -66.7167, -16.1494, -10.4861
3.788, -1, -17.6702, 0.929009, 23.2964, -66.6411, -16.071, -10.6329
3.792, -1, -17.698, 0.916847, 23.3021, -66.5655, -15.9925, -10.7798
3.796, -1, -17.7259, 0.904681, 23.3078, -66.4898, -15.914, -10.9266
3.8, -1, -17.7538, 0.892511, 23.3135, -66.4141, -15.8354, -11.0736
3.804, -1, -17.7816, 0.880337, 23.3192, -66.3384, -15.7569, -11.2206
3.808, -1, -17.8095, 0.868158, 23.325, -66.2627, -15.6783, -11.3676
3.812, -1, -17.8374, 0.855975, 23.3307, -66.1869, -15.5997, -11.5147
3.816, -1, -17.8654, 0.843788, 23.3364, -66.1111, -15.521, -11.6619
3.82, -1, -17.8933, 0.831596, 23.3421, -66.0353, -15.4423, -11.8091
3.824, -1, -17.9212, 0.8194, 23.3479, -65.9595, -15.3636, -11.9564
3.828, -1, -17.9492, 0.8072, 23.3536, -65.8836, -15.2849, -12.1037
3.832, -1, -17.9771, 0.794995, 23.3593, -65.8077, -15.2061, -12.2511
3.836, -1, -18.0051, 0.782785, 23.3651, -65.7318, -15.1274, -12.3985
3.84, -1, -18.033, 0.770572, 23.3708, -65.6558, -15.0485, -12.5459
3.844, -1, -18.061, 0.758353, 23.3765, -65.5798, -14.9697, -12.6935
3.848, -1, -18.089, 0.74613, 23.3823, -65.5038, -14.8908, -12.8411
3.852, -1, -18.117, 0.733902, 23.388, -65.4278, -14.8119, -12.9887
3.856, -1, -18.145, 0.72167, 23.3937, -65.3517, -14.733, -13.1364
3.86, -1, -18.1731, 0.709433, 23.3995, -65.2756, -14.654, -13.2842
3.864, -1, -18.2011, 0.697192, 23.4052, -65.1995, -14.575, -13.432
3.868, -1, -18.2292, 0.684946, 23.411, -65.1233, -14.496, -13.5798
3.872, -1, -18.2572, 0.672695, 23.4167, -65.0471, -14.4169, -13.7278
3.876, -1, -18.2853, 0.660439, 23.4225, -64.9709, -14.3378, -13.8757
3.88, -1, -18.3134, 0.648179, 23.4283, -64.8947, -14.2587, -14.0238
3.884, -1, -18.3415, 0.635913, 23.434, -64.8184, -14.1795, -14.1719
3.888, -1, -18.3696, 0.623643, 23.4398, -64.7421, -14.1003, -14.32
3.892, -1, -18.3977, 0.611368, 23.4455, -64.6658, -14.0211, -14.4683
3.896, -1, -18.4258, 0.599089, 23.4513, -64.5894, -13.9419, -14.6165
3.9, -1, -18.4539, 0.586804, 23.4571, -64.513, -13.8626, -14.7649
3.904, -1, -18.4821, 0.574515, 23.4629, -64.4366, -13.7833, -14.9132
3.908, -1, -18.5102, 0.56222, 23.4686, -64.3601, -13.704, -15.0617
3.912, -1, -18.5384, 0.549921, 23.4744, -64.2836, -13.6246, -15.2102
3.916, -1, -18.5666, 0.537617, 23.4802, -64.2071, -13.5452, -15.3588
3.92, -1, -18.5948, 0.525308, 23.486, -64.1306, -13.4658, -15.5074
3.924, -1, -18.623, 0.512993, 23.4917, -64.054, -13.3863, -15.6561
3.928, -1, -18.6512, 0.500674, 23.4975, -63.9774, -13.3068, -15.8048
3.932, -1, -18.6794, 0.48835, 23.5033, -63.9007, -13.2272, -15.9536
3.936, -1, -18.7077, 0.47602, 23.5091, -63.8241, -13.1477, -16.1025
3.94, -1, -18.7359, 0.463686, 23.5149, -63.7473, -13.0681, -16.2514
3.944, -1, -18.7642, 0.451346, 23.5207, -63.6706, -12.9885, -16.4004
3.948, -1, -18.7924, 0.439002, 23.5265, -63.5938, -12.9088, -16.5495
3.952, -1, -18.8207, 0.426652, 23.5323, -63.517, -12.8291, -16.6986
3.956, -1, -18.849, 0.414297, 23.5381, -63.4402, -12.7494, -16.8478
3.96, -1, -18.8773, 0.401936, 23.5439, -63.3633, -12.6696, -16.997
3.964, -1, -18.9057, 0.389571, 23.5497, -63.2864, -12.5898, -17.1464
3.968, -1, -18.934, 0.3772, 23.5555, -63.2095, -12.51, -17.2957
3.972, -1, -18.9623, 0.364824, 23.5613, -63.1325, -12.4301, -17.4452
3.976, -1, -18.9907, 0.352443, 23.5671, -63.0555, -12.3502, -17.5947
3.98, -1, -19.0191, 0.340056, 23.573, -62.9785, -12.2703, -17.7442
3.984, -1, -19.0474, 0.327664, 23.5788, -62.9014, -12.1903, -17.8938
3.988, -1, -19.0758, 0.315267, 23.5846, -62.8243, -12.1103, -18.0435
3.992, -1, -19.1042, 0.302864, 23.5904, -62.7472, -12.0302, -18.1933
3.996, -1, -19.1327, 0.290456, 23.5963, -62.67, -11.9502, -18.3431
3.999, -1, -19.1611, 0.278042, 23.6021, -62.5928, -11.8701, -18.493
4.004, -1, -19.1895, 0.265623, 23.6079, -62.5156, -11.7899, -18.643
4.008, -1, -19.218, 0.253199, 23.6137, -62.4383, -11.7097, -18.793
4.012, -1, -19.2465, 0.240769, 23.6196, -62.361, -11.6295, -18.9431
4.016, -1, -19.2749, 0.228333, 23.6254, -62.2837, -11.5493, -19.0932
4.02, -1, -19.3034, 0.215892, 23.6313, -62.2063, -11.469, -19.2434
4.024, -1, -19.3319, 0.203445, 23.6371, -62.1289, -11.3887, -19.3937
4.028, -1, -19.3605, 0.190993, 23.643, -62.0515, -11.3083, -19.5441
4.032, -1, -19.389, 0.178535, 23.6488, -61.974, -11.2279, -19.6945
4.036, -1, -19.4175, 0.166071, 23.6547, -61.8965, -11.1475, -19.845
4.04, -1, -19.4461, 0.153602, 23.6605, -61.819, -11.067, -19.9956
4.044, -1, -19.4747, 0.141127, 23.6664, -61.7414, -10.9865, -20.1462
4.048, -1, -19.5033, 0.128646, 23.6722, -61.6638, -10.9059, -20.2969
4.052, -1, -19.5318, 0.116159, 23.6781, -61.5861, -10.8254, -20.4477
4.056, -1, -19.5605, 0.103667, 23.684, -61.5084, -10.7448, -20.5985
4.06, -1, -19.5891, 0.0911687, 23.6898, -61.4307, -10.6641, -20.7494
4.064, -1, -19.6177, 0.0786647, 23.6957, -61.3529, -10.5834, -20.9004
4.068, -1, -19.6464, 0.0661549, 23.7016, -61.2752, -10.5027, -21.0514
4.072, -1, -19.675, 0.0536392, 23.7075, -61.1973, -10.4219, -21.2026
4.076, -1, -19.7037, 0.0411176, 23.7133, -61.1194, -10.3411, -21.3538
4.08, -1, -19.7324, 0.02859, 23.7192, -61.0415, -10.2603, -21.505
4.084, -1, -19.7611, 0.0160565, 23.7251, -60.9636, -10.1794, -21.6563
4.088, -1, -19.7898, 0.00351695, 23.731, -60.8856, -10.0984, -21.8078
4.092, -1, -19.8186, -0.00902858, 23.7369, -60.8076, -10.0175, -21.9592
4.096, -1, -19.8473, -0.0215801, 23.7428, -60.7295, -9.93649, -22.1108
4.1, -1, -19.8761, -0.0341378, 23.7487, -60.6514, -9.85545, -22.2624
4.104, -1, -19.9049, -0.0467015, 23.7546, -60.5733, -9.77437, -22.4141
4.108, -1, -19.9336, -0.0592713, 23.7605, -60.4951, -9.69325, -22.5659
4.112, -1, -19.9624, -0.0718473, 23.7664, -60.4169, -9.6121, -22.7177
4.116, -1, -19.9913, -0.0844296, 23.7723, -60.3387, -9.5309, -22.8697
4.12, -1, -20.0201, -0.097018, 23.7782, -60.2604, -9.44966, -23.0217
4.124, -1, -20.0489, -0.109613, 23.7841, -60.1821, -9.36838, -23.1737
4.128, -1, -20.0778, -0.122214, 23.79, -60.1037, -9.28707, -23.3259
4.132, -1, -20.1067, -0.134821, 23.796, -60.0253, -9.20571, -23.4781
4.136, -1, -20.1356, -0.147435, 23.8019, -59.9469, -9.12431, -23.6304
4.14, -1, -20.1645, -0.160055, 23.8078, -59.8684, -9.04287, -23.7828
4.144, -1, -20.1934, -0.172681, 23.8137, -59.7899, -8.96139, -23.9352
4.148, -1, -20.2223, -0.185314, 23.8197, -59.7113, -8.87986, -24.0878
4.152, -1, -20.2513, -0.197953, 23.8256, -59.6327, -8.7983, -24.2404
4.156, -1, -20.2802, -0.210599, 23.8315, -59.5541, -8.71669, -24.3931
4.16, -1, -20.3092, -0.223251, 23.8375, -59.4754, -8.63504, -24.5458
4.164, -1, -20.3382, -0.23591, 23.8434, -59.3967, -8.55335, -24.6987
4.168, -1, -20.3672, -0.248576, 23.8494, -59.3179, -8.47162, -24.8516
4.172, -1, -20.3962, -0.261248, 23.8553, -59.2391, -8.38984, -25.0046
4.176, -1, -20.4253, -0.273927, 23.8613, -59.1602, -8.30802, -25.1577
4.18, -1, -20.4543, -0.286613, 23.8672, -59.0813, -8.22615, -25.3109
4.184, -1, -20.4834, -0.299305, 23.8732, -59.0024, -8.14425, -25.4642
4.188, -1, -20.5125, -0.312004, 23.8792, -58.9234, -8.06229, -25.6175
4.192, -1, -20.5416, -0.32471, 23.8851, -58.8444, -7.9803, -25.7709
4.196, -1, -20.5707, -0.337423, 23.8911, -58.7654, -7.89826, -25.9244
4.2, -1, -20.5998, -0.350142, 23.8971, -58.6863, -7.81617, -26.078
4.204, -1, -20.629, -0.362869, 23.9031, -58.6071, -7.73405, -26.2316
4.208, -1, -20.6581, -0.375602, 23.909, -58.5279, -7.65187, -26.3854
4.212, -1, -20.6873, -0.388343, 23.915, -58.4487, -7.56966, -26.5392
4.216, -1, -20.7165, -0.40109, 23.921, -58.3694, -7.48739, -26.6931
4.22, -1, -20.7457, -0.413844, 23.927, -58.2901, -7.40509, -26.8471
4.224, -1, -20.775, -0.426606, 23.933, -58.2108, -7.32273, -27.0012
4.228, -1, -20.8042, -0.439374, 23.939, -58.1314, -7.24033, -27.1554
4.232, -1, -20.8335, -0.452149, 23.945, -58.0519, -7.15789, -27.3097
4.236, -1, -20.8627, -0.464932, 23.951, -57.9724, -7.0754, -27.464
4.24, -1, -20.892, -0.477722, 23.957, -57.8929, -6.99286, -27.6184
4.244, -1, -20.9213, -0.490519, 23.963, -57.8133, -6.91028, -27.7729
4.248, -1, -20.9507, -0.503323, 23.969, -57.7337, -6.82765, -27.9275
4.252, -1, -20.98, -0.516134, 23.975, -57.654, -6.74498, -28.0822
4.256, -1, -21.0094, -0.528952, 23.981, -57.5743, -6.66226, -28.237
4.26, -1, -21.0387, -0.541778, 23.9871, -57.4945, -6.57949, -28.3919
4.264, -1, -21.0681, -0.554611, 23.9931, -57.4147, -6.49667, -28.5468
4.268, -1, -21.0975, -0.567451, 23.9991, -57.3349, -6.41381, -28.7019
4.272, -1, -21.127, -0.580299, 24.0052, -57.255, -6.3309, -28.857
4.276, -1, -21.1564, -0.593154, 24.0112, -57.175, -6.24794, -29.0122
4.28, -1, -21.1859, -0.606017, 24.0172, -57.095, -6.16493, -29.1675
4.284, -1, -21.2153, -0.618887, 24.0233, -57.015, -6.08188, -29.3229
4.288, -1, -21.2448, -0.631764, 24.0293, -56.9349, -5.99878, -29.4784
4.292, -1, -21.2743, -0.644649, 24.0354, -56.8548, -5.91563, -29.634
4.296, -1, -21.3039, -0.657542, 24.0414, -56.7746, -5.83243, -29.7897
4.3, -1, -21.3334, -0.670442, 24.0475, -56.6944, -5.74918, -29.9454
4.304, -1, -21.363, -0.683349, 24.0536, -56.6141, -5.66588, -30.1013
4.308, -1, -21.3926, -0.696264, 24.0596, -56.5338, -5.58254, -30.2572
4.312, -1, -21.4222, -0.709187, 24.0657, -56.4534, -5.49914, -30.4132
4.316, -1, -21.4518, -0.722117, 24.0718, -56.373, -5.4157, -30.5694
4.32, -1, -21.4814, -0.735056, 24.0778, -56.2926, -5.3322, -30.7256
4.324, -1, -21.5111, -0.748001, 24.0839, -56.212, -5.24866, -30.8819
4.328, -1, -21.5407, -0.760955, 24.09, -56.1315, -5.16506, -31.0383
4.332, -1, -21.5704, -0.773917, 24.0961, -56.0509, -5.08142, -31.1948
4.336, -1, -21.6001, -0.786886, 24.1022, -55.9702, -4.99772, -31.3514
4.34, -1, -21.6298, -0.799863, 24.1083, -55.8895, -4.91398, -31.5081
4.344, -1, -21.6596, -0.812848, 24.1144, -55.8088, -4.83018, -31.6649
4.348, -1, -21.6893, -0.825841, 24.1205, -55.728, -4.74633, -31.8218
4.352, -1, -21.7191, -0.838842, 24.1266, -55.6471, -4.66243, -31.9788
4.356, -1, -21.7489, -0.851851, 24.1327, -55.5662, -4.57848, -32.1358
4.36, -1, -21.7787, -0.864868, 24.1388, -55.4853, -4.49448, -32.293
4.364, -1, -21.8085, -0.877893, 24.1449, -55.4043, -4.41043, -32.4503
4.368, -1, -21.8384, -0.890926, 24.151, -55.3232, -4.32632, -32.6076
4.372, -1, -21.8683, -0.903968, 24.1572, -55.2421, -4.24216, -32.7651
4.376, -1, -21.8981, -0.917017, 24.1633, -55.161, -4.15795, -32.9227
4.38, -1, -21.9281, -0.930074, 24.1694, -55.0798, -4.07369, -33.0803
4.384, -1, -21.958, -0.94314, 24.1756, -54.9985, -3.98937, -33.2381
4.388, -1, -21.9879, -0.956214, 24.1817, -54.9172, -3.905, -33.396
4.392, -1, -22.0179, -0.969297, 24.1878, -54.8359, -3.82057, -33.5539
4.396, -1, -22.0479, -0.982387, 24.194, -54.7544, -3.7361, -33.712
4.4, -1, -22.0779, -0.995486, 24.2001, -54.673, -3.65157, -33.8701
4.404, -1, -22.1079, -1.00859, 24.2063, -54.5915, -3.56698, -34.0284
4.408, -1, -22.1379, -1.02171, 24.2124, -54.5099, -3.48234, -34.1868
4.412, -1, -22.168, -1.03483, 24.2186, -54.4283, -3.39765, -34.3452
4.416, -1, -22.1981, -1.04797, 24.2248, -54.3466, -3.3129, -34.5038
4.42, -1, -22.2282, -1.06111, 24.2309, -54.2649, -3.2281, -34.6625
4.424, -1, -22.2583, -1.07426, 24.2371, -54.1831, -3.14324, -34.8212
4.428, -1, -22.2884, -1.08741, 24.2433, -54.1013, -3.05833, -34.9801
4.432, -1, -22.3186, -1.10058, 24.2495, -54.0194, -2.97336, -35.1391
4.436, -1, -22.3487, -1.11376, 24.2557, -53.9375, -2.88833, -35.2982
4.44, -1, -22.3789, -1.12694, 24.2619, -53.8555, -2.80325, -35.4574
4.444, -1, -22.4091, -1.14013, 24.2681, -53.7735, -2.71812, -35.6167
4.448, -1, -22.4394, -1.15334, 24.2743, -53.6914, -2.63292, -35.7761
4.452, -1, -22.4696, -1.16655, 24.2805, -53.6092, -2.54767, -35.9356
4.456, -1, -22.4999, -1.17977, 24.2867, -53.527, -2.46236, -36.0952
4.46, -1, -22.5302, -1.19299, 24.2929, -53.4447, -2.377, -36.2549
4.464, -1, -22.5605, -1.20623, 24.2991, -53.3624, -2.29158, -36.4147
4.468, -1, -22.5909, -1.21948, 24.3053, -53.28, -2.2061, -36.5747
4.472, -1, -22.6212, -1.23273, 24.3115, -53.1976, -2.12056, -36.7347
4.476, -1, -22.6516, -1.246, 24.3178, -53.1151, -2.03496, -36.8949
4.48, -1, -22.682, -1.25927, 24.324, -53.0326, -1.9493, -37.0551
4.484, -1, -22.7124, -1.27255, 24.3302, -52.95, -1.86359, -37.2155
4.488, -1, -22.7429, -1.28585, 24.3365, -52.8673, -1.77781, -37.376
4.492, -1, -22.7733, -1.29915, 24.3427, -52.7846, -1.69198, -37.5366
4.496, -1, -22.8038, -1.31246, 24.349, -52.7018, -1.60608, -37.6973
4.5, -1, -22.8343, -1.32578, 24.3552, -52.619, -1.52013, -37.8581
4.504, -1, -22.8648, -1.33911, 24.3615, -52.5361, -1.43411, -38.0191
4.508, -1, -22.8954, -1.35244, 24.3678, -52.4532, -1.34804, -38.1801
4.512, -1, -22.926, -1.36579, 24.374, -52.3702, -1.2619, -38.3413
4.516, -1, -22.9566, -1.37915, 24.3803, -52.2871, -1.1757, -38.5026
4.52, -1, -22.9872, -1.39252, 24.3866, -52.204, -1.08944, -38.664
4.524, -1, -23.0178, -1.40589, 24.3929, -52.1208, -1.00312, -38.8255
4.528, -1, -23.0485, -1.41928, 24.3991, -52.0375, -0.916738, -38.9871
4.532, -1, -23.0791, -1.43267, 24.4054, -51.9542, -0.830294, -39.1488
4.536, -1, -23.1098, -1.44608, 24.4117, -51.8709, -0.743787, -39.3107
4.54, -1, -23.1406, -1.45949, 24.418, -51.7874, -0.657219, -39.4727
4.544, -1, -23.1713, -1.47292, 24.4243, -51.704, -0.570587, -39.6348
4.548, -1, -23.2021, -1.48635, 24.4306, -51.6204, -0.483892, -39.797
4.552, -1, -23.2329, -1.4998, 24.437, -51.5368, -0.397135, -39.9593
4.556, -1, -23.2637, -1.51325, 24.4433, -51.4531, -0.310314, -40.1218
4.56, -1, -23.2945, -1.52671, 24.4496, -51.3694, -0.223429, -40.2843
4.564, -1, -23.3254, -1.54019, 24.4559, -51.2856, -0.136481, -40.447
4.568, -1, -23.3563, -1.55367, 24.4623, -51.2018, -0.0494687, -40.6098
4.572, -1, -23.3872, -1.56716, 24.4686, -51.1179, 0.0376079, -40.7727
4.576, -1, -23.4181, -1.58067, 24.4749, -51.0339, 0.124749, -40.9358
4.58, -1, -23.449, -1.59418, 24.4813, -50.9499, 0.211955, -41.0989
4.584, -1, -23.48, -1.6077, 24.4876, -50.8658, 0.299226, -41.2622
4.588, -1, -23.511, -1.62124, 24.494, -50.7816, 0.386562, -41.4256
4.592, -1, -23.542, -1.63478, 24.5003, -50.6974, 0.473963, -41.5892
4.596, -1, -23.5731, -1.64834, 24.5067, -50.6131, 0.561431, -41.7528
4.6, -1, -23.6041, -1.6619, 24.5131, -50.5287, 0.648964, -41.9166
4.604, -1, -23.6352, -1.67547, 24.5195, -50.4443, 0.736564, -42.0805
4.608, -1, -23.6663, -1.68906, 24.5258, -50.3598, 0.824229, -42.2445
4.612, -1, -23.6975, -1.70265, 24.5322, -50.2753, 0.911962, -42.4087
4.616, -1, -23.7286, -1.71626, 24.5386, -50.1907, 0.999762, -42.573
4.62, -1, -23.7598, -1.72988, 24.545, -50.106, 1.08763, -42.7374
4.624, -1, -23.791, -1.7435, 24.5514, -50.0213, 1.17556, -42.9019
4.628, -1, -23.8223, -1.75714, 24.5578, -49.9365, 1.26356, -43.0665
4.632, -1, -23.8535, -1.77079, 24.5642, -49.8516, 1.35163, -43.2313
4.636, -1, -23.8848, -1.78444, 24.5706, -49.7666, 1.43977, -43.3962
4.64, -1, -23.9161, -1.79811, 24.577, -49.6816, 1.52798, -43.5613
4.644, -1, -23.9474, -1.81179, 24.5835, -49.5966, 1.61626, -43.7264
4.648, -1, -23.9788, -1.82548, 24.5899, -49.5114, 1.7046, -43.8917
4.652, -1, -24.0102, -1.83918, 24.5963, -49.4262, 1.79301, -44.0572
4.656, -1, -24.0416, -1.85289, 24.6028, -49.341, 1.8815, -44.2227
4.66, -1, -24.073, -1.86662, 24.6092, -49.2556, 1.97005, -44.3884
4.664, -1, -24.1045, -1.88035, 24.6157, -49.1702, 2.05867, -44.5542
4.668, -1, -24.1359, -1.89409, 24.6221, -49.0848, 2.14737, -44.7202
4.672, -1, -24.1674, -1.90785, 24.6286, -48.9992, 2.23613, -44.8863
4.676, -1, -24.199, -1.92161, 24.635, -48.9136, 2.32497, -45.0525
4.68, -1, -24.2305, -1.93539, 24.6415, -48.8279, 2.41387, -45.2188
4.684, -1, -24.2621, -1.94918, 24.648, -48.7422, 2.50285, -45.3853
4.688, -1, -24.2937, -1.96298, 24.6545, -48.6564, 2.5919, -45.5519
4.692, -1, -24.3253, -1.97679, 24.6609, -48.5705, 2.68102, -45.7187
4.696, -1, -24.357, -1.99061, 24.6674, -48.4846, 2.77021, -45.8855
4.7, -1, -24.3887, -2.00444, 24.6739, -48.3985, 2.85948, -46.0526
4.704, -1, -24.4204, -2.01829, 24.6804, -48.3124, 2.94882, -46.2197
4.708, -1, -24.4521, -2.03214, 24.6869, -48.2263, 3.03823, -46.387
4.712, -1, -24.4839, -2.04601, 24.6935, -48.14, 3.12772, -46.5544
4.716, -1, -24.5157, -2.05989, 24.7, -48.0537, 3.21728, -46.722
4.72, -1, -24.5475, -2.07378, 24.7065, -47.9674, 3.30691, -46.8897
4.724, -1, -24.5793, -2.08768, 24.713, -47.8809, 3.39662, -47.0576
4.728, -1, -24.6112, -2.10159, 24.7196, -47.7944, 3.4864, -47.2256
4.732, -1, -24.6431, -2.11552, 24.7261, -47.7078, 3.57625, -47.3937
4.736, -1, -24.675, -2.12945, 24.7326, -47.6211, 3.66619, -47.5619
4.74, -1, -24.7069, -2.1434, 24.7392, -47.5344, 3.75619, -47.7304
4.744, -1, -24.7389, -2.15736, 24.7457, -47.4476, 3.84628, -47.8989
4.748, -1, -24.7709, -2.17133, 24.7523, -47.3607, 3.93644, -48.0676
4.752, -1, -24.8029, -2.18531, 24.7589, -47.2737, 4.02667, -48.2364
4.756, -1, -24.835, -2.19931, 24.7654, -47.1867, 4.11699, -48.4054
4.76, -1, -24.867, -2.21332, 24.772, -47.0996, 4.20738, -48.5745
4.764, -1, -24.8992, -2.22734, 24.7786, -47.0124, 4.29785, -48.7438
4.768, -1, -24.9313, -2.24137, 24.7852, -46.9252, 4.38839, -48.9132
4.772, -1, -24.9635, -2.25541, 24.7918, -46.8378, 4.47902, -49.0828
4.776, -1, -24.9956, -2.26947, 24.7984, -46.7504, 4.56972, -49.2525
4.78, -1, -25.0279, -2.28354, 24.805, -46.6629, 4.6605, -49.4224
4.784, -1, -25.0601, -2.29762, 24.8116, -46.5754, 4.75137, -49.5924
4.788, -1, -25.0924, -2.31171, 24.8182, -46.4877, 4.84231, -49.7625
4.792, -1, -25.1247, -2.32581, 24.8248, -46.4, 4.93333, -49.9328
4.796, -1, -25.157, -2.33993, 24.8315, -46.3122, 5.02444, -50.1033
4.8, -1, -25.1894, -2.35406, 24.8381, -46.2244, 5.11562, -50.2739
4.804, -1, -25.2218, -2.3682, 24.8448, -46.1364, 5.20689, -50.4447
4.808, -1, -25.2542, -2.38236, 24.8514, -46.0484, 5.29823, -50.6156
4.812, -1, -25.2867, -2.39653, 24.8581, -45.9603, 5.38966, -50.7866
4.816, -1, -25.3191, -2.41071, 24.8647, -45.8721, 5.48117, -50.9579
4.82, -1, -25.3516, -2.4249, 24.8714, -45.7838, 5.57277, -51.1292
4.824, -1, -25.3842, -2.43911, 24.878, -45.6955, 5.66444, -51.3008
4.828, -1, -25.4167, -2.45333, 24.8847, -45.6071, 5.7562, -51.4725
4.832, -1, -25.4493, -2.46756, 24.8914, -45.5186, 5.84804, -51.6443
4.836, -1, -25.482, -2.4818, 24.8981, -45.43, 5.93997, -51.8163
4.84, -1, -25.5146, -2.49606, 24.9048, -45.3413, 6.03198, -51.9884
4.844, -1, -25.5473, -2.51033, 24.9115, -45.2526, 6.12407, -52.1608
4.848, -1, -25.58, -2.52462, 24.9182, -45.1637, 6.21625, -52.3332
4.852, -1, -25.6128, -2.53891, 24.9249, -45.0748, 6.30852, -52.5059
4.856, -1, -25.6455, -2.55323, 24.9316, -44.9858, 6.40087, -52.6786
4.86, -1, -25.6783, -2.56755, 24.9384, -44.8968, 6.4933, -52.8516
4.864, -1, -25.7112, -2.58189, 24.9451, -44.8076, 6.58582, -53.0247
4.868, -1, -25.744, -2.59624, 24.9518, -44.7184, 6.67843, -53.198
4.872, -1, -25.7769, -2.6106, 24.9586, -44.629, 6.77112, -53.3714
4.876, -1, -25.8099, -2.62498, 24.9653, -44.5396, 6.8639, -53.545
4.88, -1, -25.8428, -2.63937, 24.9721, -44.4501, 6.95676, -53.7187
4.884, -1, -25.8758, -2.65377, 24.9789, -44.3606, 7.04972, -53.8927
4.888, -1, -25.9088, -2.66819, 24.9856, -44.2709, 7.14276, -54.0667
4.892, -1, -25.9419, -2.68262, 24.9924, -44.1812, 7.23589, -54.241
4.896, -1, -25.975, -2.69707, 24.9992, -44.0913, 7.3291, -54.4154
4.9, -1, -26.0081, -2.71153, 25.006, -44.0014, 7.42241, -54.59
4.904, -1, -26.0412, -2.726, 25.0128, -43.9114, 7.51581, -54.7647
4.908, -1, -26.0744, -2.74049, 25.0196, -43.8213, 7.60929, -54.9397
4.912, -1, -26.1076, -2.75499, 25.0264, -43.7311, 7.70287, -55.1147
4.916, -1, -26.1409, -2.7695, 25.0332, -43.6409, 7.79653, -55.29
4.92, -1, -26.1741, -2.78403, 25.04, -43.5505, 7.89028, -55.4654
4.924, -1, -26.2074, -2.79857, 25.0469, -43.4601, 7.98413, -55.641
4.928, -1, -26.2408, -2.81313, 25.0537, -43.3696, 8.07807, -55.8168
4.932, -1, -26.2742, -2.8277, 25.0605, -43.279, 8.1721, -55.9927
4.936, -1, -26.3076, -2.84229, 25.0674, -43.1883, 8.26622, -56.1688
4.94, -1, -26.341, -2.85689, 25.0742, -43.0975, 8.36043, -56.3451
4.944, -1, -26.3745, -2.8715, 25.0811, -43.0066, 8.45473, -56.5215
4.948, -1, -26.408, -2.88613, 25.088, -42.9156, 8.54913, -56.6981
4.952, -1, -26.4415, -2.90077, 25.0948, -42.8246, 8.64362, -56.8749
4.956, -1, -26.4751, -2.91543, 25.1017, -42.7334, 8.73821, -57.0519
4.96, -1, -26.5087, -2.9301, 25.1086, -42.6422, 8.83288, -57.229
4.964, -1, -26.5423, -2.94479, 25.1155, -42.5508, 8.92766, -57.4064
4.968, -1, -26.576, -2.95949, 25.1224, -42.4594, 9.02253, -57.5839
4.972, -1, -26.6097, -2.9742, 25.1293, -42.3679, 9.11749, -57.7616
4.976, -1, -26.6434, -2.98893, 25.1362, -42.2763, 9.21255, -57.9394
4.98, -1, -26.6772, -3.00368, 25.1432, -42.1846, 9.3077, -58.1174
4.984, -1, -26.711, -3.01844, 25.1501, -42.0928, 9.40295, -58.2957
4.988, -1, -26.7448, -3.03321, 25.157, -42.0009, 9.4983, -58.4741
4.992, -1, -26.7787, -3.048, 25.164, -41.909, 9.59374, -58.6526
4.996, -1, -26.8126, -3.06281, 25.1709, -41.8169, 9.68928, -58.8314
5, -1, -26.8466, -3.07763, 25.1779, -41.7247, 9.78492, -59.0103
5.004, -1, -26.8805, -3.09247, 25.1849, -41.6325, 9.88066, -59.1895
5.008, -1, -26.9145, -3.10732, 25.1918, -41.5401, 9.9765, -59.3688
5.012, -1, -26.9486, -3.12218, 25.1988, -41.4477, 10.0724, -59.5483
5.016, -1, -26.9827, -3.13707, 25.2058, -41.3551, 10.1685, -59.728
5.02, -1, -27.0168, -3.15196, 25.2128, -41.2625, 10.2646, -59.9078
5.024, -1, -27.051, -3.16688, 25.2198, -41.1698, 10.3608, -60.0879
5.028, -1, -27.0851, -3.18181, 25.2268, -41.0769, 10.4572, -60.2681
5.032, -1, -27.1194, -3.19675, 25.2338, -40.984, 10.5536, -60.4486
5.036, -1, -27.1536, -3.21171, 25.2409, -40.891, 10.6501, -60.6292
5.04, -1, -27.1879, -3.22669, 25.2479, -40.7978, 10.7468, -60.81
5.044, -1, -27.2223, -3.24168, 25.2549, -40.7046, 10.8435, -60.991
5.048, -1, -27.2566, -3.25669, 25.262, -40.6113, 10.9404, -61.1722
5.052, -1, -27.2911, -3.27171, 25.269, -40.5178, 11.0373, -61.3536
5.056, -1, -27.3255, -3.28675, 25.2761, -40.4243, 11.1344, -61.5352
5.06, -1, -27.36, -3.30181, 25.2832, -40.3307, 11.2315, -61.717
5.064, -1, -27.3945, -3.31688, 25.2902, -40.237, 11.3288, -61.899
5.068, -1, -27.4291, -3.33197, 25.2973, -40.1431, 11.4262, -62.0812
5.072, -1, -27.4637, -3.34708, 25.3044, -40.0492, 11.5237, -62.2636
5.076, -1, -27.4983, -3.3622, 25.3115, -39.9551, 11.6212, -62.4462
5.08, -1, -27.533, -3.37734, 25.3186, -39.861, 11.7189, -62.6289
5.084, -1, -27.5677, -3.39249, 25.3257, -39.7668, 11.8167, -62.8119
5.088, -1, -27.6024, -3.40766, 25.3329, -39.6724, 11.9146, -62.9951
5.092, -1, -27.6372, -3.42285, 25.34, -39.578, 12.0126, -63.1785
5.096, -1, -27.672, -3.43806, 25.3471, -39.4834, 12.1108, -63.3621
5.1, -1, -27.7069, -3.45328, 25.3543, -39.3887, 12.209, -63.5459
5.104, -1, -27.7418, -3.46852, 25.3614, -39.294, 12.3073, -63.7299
5.108, -1, -27.7767, -3.48378, 25.3686, -39.1991, 12.4058, -63.9141
5.112, -1, -27.8117, -3.49905, 25.3758, -39.1041, 12.5043, -64.0985
5.116, -1, -27.8467, -3.51434, 25.383, -39.009, 12.603, -64.2831
5.12, -1, -27.8818, -3.52965, 25.3902, -38.9138, 12.7018, -64.4679
5.124, -1, -27.9169, -3.54497, 25.3974, -38.8185, 12.8007, -64.653
5.128, -1, -27.952, -3.56031, 25.4046, -38.7231, 12.8997, -64.8382
5.132, -1, -27.9872, -3.57567, 25.4118, -38.6276, 12.9988, -65.0237
5.136, -1, -28.0224, -3.59105, 25.419, -38.532, 13.0981, -65.2093
5.14, -1, -28.0577, -3.60645, 25.4262, -38.4363, 13.1974, -65.3952
5.144, -1, -28.093, -3.62186, 25.4335, -38.3404, 13.2969, -65.5813
5.148, -1, -28.1283, -3.63729, 25.4407, -38.2445, 13.3964, -65.7676
5.152, -1, -28.1637, -3.65274, 25.448, -38.1484, 13.4961, -65.9541
5.156, -1, -28.1991, -3.6682, 25.4552, -38.0522, 13.5959, -66.1409
5.16, -1, -28.2346, -3.68369, 25.4625, -37.9559, 13.6958, -66.3278
5.164, -1, -28.2701, -3.69919, 25.4698, -37.8595, 13.7959, -66.515
5.168, -1, -28.3056, -3.71471, 25.4771, -37.763, 13.896, -66.7024
5.172, -1, -28.3412, -3.73025, 25.4844, -37.6664, 13.9963, -66.89
5.176, -1, -28.3768, -3.7458, 25.4917, -37.5697, 14.0967, -67.0778
5.18, -1, -28.4125, -3.76138, 25.499, -37.4728, 14.1972, -67.2658
5.184, -1, -28.4482, -3.77697, 25.5063, -37.3759, 14.2978, -67.4541
5.188, -1, -28.484, -3.79258, 25.5136, -37.2788, 14.3985, -67.6426
5.192, -1, -28.5198, -3.80821, 25.521, -37.1816, 14.4994, -67.8313
5.196, -1, -28.5556, -3.82386, 25.5283, -37.0843, 14.6004, -68.0202
5.2, -1, -28.5915, -3.83952, 25.5357, -36.9869, 14.7014, -68.2094
5.204, -1, -28.6274, -3.85521, 25.543, -36.8893, 14.8027, -68.3987
5.208, -1, -28.6634, -3.87091, 25.5504, -36.7917, 14.904, -68.5883
5.212, -1, -28.6994, -3.88664, 25.5578, -36.6939, 15.0055, -68.7782
5.216, -1, -28.7354, -3.90238, 25.5652, -36.596, 15.107, -68.9682
5.22, -1, -28.7715, -3.91814, 25.5726, -36.498, 15.2087, -69.1585
5.224, -1, -28.8077, -3.93392, 25.58, -36.3999, 15.3106, -69.3491
5.228, -1, -28.8438, -3.94972, 25.5874, -36.3016, 15.4125, -69.5398
5.232, -1, -28.8801, -3.96553, 25.5948, -36.2033, 15.5146, -69.7308
5.236, -1, -28.9163, -3.98137, 25.6023, -36.1048, 15.6168, -69.922
5.24, -1, -28.9527, -3.99723, 25.6097, -36.0062, 15.7191, -70.1135
5.244, -1, -28.989, -4.01311, 25.6172, -35.9074, 15.8216, -70.3052
5.248, -1, -29.0254, -4.029, 25.6246, -35.8086, 15.9241, -70.4971
5.252, -1, -29.0619, -4.04492, 25.6321, -35.7096, 16.0268, -70.6892
5.256, -1, -29.0984, -4.06085, 25.6396, -35.6105, 16.1297, -70.8816
5.26, -1, -29.1349, -4.07681, 25.6471, -35.5113, 16.2326, -71.0743
5.264, -1, -29.1715, -4.09278, 25.6546, -35.412, 16.3357, -71.2671
5.268, -1, -29.2081, -4.10878, 25.6621, -35.3125, 16.4389, -71.4603
5.272, -1, -29.2448, -4.12479, 25.6696, -35.2129, 16.5423, -71.6536
5.276, -1, -29.2815, -4.14082, 25.6772, -35.1132, 16.6457, -71.8472
5.28, -1, -29.3183, -4.15688, 25.6847, -35.0134, 16.7493, -72.041
5.284, -1, -29.3551, -4.17295, 25.6922, -34.9134, 16.8531, -72.2351
5.288, -1, -29.392, -4.18905, 25.6998, -34.8133, 16.9569, -72.4295
5.292, -1, -29.4289, -4.20517, 25.7074, -34.7131, 17.0609, -72.6241
5.296, -1, -29.4659, -4.2213, 25.7149, -34.6128, 17.1651, -72.8189
5.3, -1, -29.5029, -4.23746, 25.7225, -34.5123, 17.2693, -73.014
5.304, -1, -29.5399, -4.25364, 25.7301, -34.4117, 17.3737, -73.2093
5.308, -1, -29.577, -4.26984, 25.7377, -34.311, 17.4783, -73.4049
5.312, -1, -29.6142, -4.28606, 25.7453, -34.2101, 17.5829, -73.6007
5.316, -1, -29.6514, -4.3023, 25.753, -34.1091, 17.6877, -73.7968
5.32, -1, -29.6886, -4.31856, 25.7606, -34.008, 17.7927, -73.9932
5.324, -1, -29.7259, -4.33485, 25.7683, -33.9067, 17.8977, -74.1898
5.328, -1, -29.7632, -4.35115, 25.7759, -33.8053, 18.003, -74.3866
5.332, -1, -29.8006, -4.36748, 25.7836, -33.7038, 18.1083, -74.5838
5.336, -1, -29.8381, -4.38383, 25.7913, -33.6021, 18.2138, -74.7811
5.34, -1, -29.8756, -4.4002, 25.7989, -33.5003, 18.3194, -74.9788
5.344, -1, -29.9131, -4.41659, 25.8066, -33.3984, 18.4252, -75.1767
5.348, -1, -29.9507, -4.433, 25.8144, -33.2963, 18.5311, -75.3749
5.352, -1, -29.9883, -4.44944, 25.8221, -33.1941, 18.6372, -75.5733
5.356, -1, -30.026, -4.4659, 25.8298, -33.0918, 18.7434, -75.772
5.36, -1, -30.0638, -4.48238, 25.8375, -32.9893, 18.8497, -75.971
5.364, -1, -30.1016, -4.49888, 25.8453, -32.8867, 18.9562, -76.1702
5.368, -1, -30.1394, -4.5154, 25.853, -32.7839, 19.0629, -76.3697
5.372, -1, -30.1773, -4.53195, 25.8608, -32.681, 19.1696, -76.5695
5.376, -1, -30.2152, -4.54852, 25.8686, -32.578, 19.2765, -76.7696
5.38, -1, -30.2532, -4.56511, 25.8764, -32.4748, 19.3836, -76.9699
5.384, -1, -30.2913, -4.58172, 25.8842, -32.3715, 19.4908, -77.1705
5.388, -1, -30.3294, -4.59836, 25.892, -32.2681, 19.5982, -77.3713
5.392, -1, -30.3676, -4.61502, 25.8998, -32.1645, 19.7057, -77.5725
5.396, -1, -30.4058, -4.6317, 25.9077, -32.0607, 19.8133, -77.7739
5.4, -1, -30.444, -4.64841, 25.9155, -31.9568, 19.9211, -77.9756
5.404, -1, -30.4823, -4.66513, 25.9234, -31.8528, 20.0291, -78.1776
5.408, -1, -30.5207, -4.68189, 25.9312, -31.7487, 20.1372, -78.3798
5.412, -1, -30.5591, -4.69866, 25.9391, -31.6443, 20.2454, -78.5824
5.416, -1, -30.5976, -4.71546, 25.947, -31.5399, 20.3538, -78.7852
5.42, -1, -30.6361, -4.73228, 25.9549, -31.4353, 20.4624, -78.9883
5.424, -1, -30.6747, -4.74913, 25.9628, -31.3305, 20.5711, -79.1917
5.428, -1, -30.7133, -4.766, 25.9707, -31.2256, 20.6799, -79.3953
5.432, -1, -30.752, -4.78289, 25.9786, -31.1206, 20.7889, -79.5993
5.436, -1, -30.7908, -4.7998, 25.9866, -31.0154, 20.8981, -79.8035
5.44, -1, -30.8295, -4.81674, 25.9945, -30.91, 21.0074, -80.0081
5.444, -1, -30.8684, -4.83371, 26.0025, -30.8046, 21.1169, -80.2129
5.448, -1, -30.9073, -4.8507, 26.0105, -30.6989, 21.2265, -80.418
5.452, -1, -30.9463, -4.86771, 26.0185, -30.5931, 21.3363, -80.6234
5.456, -1, -30.9853, -4.88475, 26.0265, -30.4872, 21.4462, -80.8291
5.46, -1, -31.0244, -4.90181, 26.0345, -30.3811, 21.5563, -81.0351
5.464, -1, -31.0635, -4.91889, 26.0425, -30.2748, 21.6666, -81.2414
5.468, -1, -31.1027, -4.936, 26.0505, -30.1684, 21.777, -81.4479
5.472, -1, -31.1419, -4.95314, 26.0586, -30.0619, 21.8875, -81.6548
5.476, -1, -31.1812, -4.9703, 26.0667, -29.9552, 21.9983, -81.862
5.48, -1, -31.2206, -4.98748, 26.0747, -29.8483, 22.1092, -82.0695
5.484, -1, -31.26, -5.00469, 26.0828, -29.7413, 22.2202, -82.2773
5.488, -1, -31.2995, -5.02193, 26.0909, -29.6341, 22.3314, -82.4854
5.492, -1, -31.339, -5.03919, 26.099, -29.5268, 22.4428, -82.6937
5.496, -1, -31.3786, -5.05647, 26.1071, -29.4193, 22.5543, -82.9024
5.5, -1, -31.4182, -5.07378, 26.1152, -29.3117, 22.666, -83.1114
5.504, -1, -31.4579, -5.09112, 26.1234, -29.2039, 22.7779, -83.3207
5.508, -1, -31.4977, -5.10848, 26.1315, -29.0959, 22.8899, -83.5304
5.512, -1, -31.5375, -5.12587, 26.1397, -28.9878, 23.0021, -83.7403
5.516, -1, -31.5774, -5.14328, 26.1479, -28.8795, 23.1145, -83.9505
5.52, -1, -31.6173, -5.16072, 26.1561, -28.7711, 23.227, -84.1611
5.524, -1, -31.6573, -5.17819, 26.1643, -28.6624, 23.3397, -84.372
5.528, -1, -31.6974, -5.19568, 26.1725, -28.5537, 23.4526, -84.5832
5.532, -1, -31.7375, -5.2132, 26.1807, -28.4447, 23.5657, -84.7947
5.536, -1, -31.7777, -5.23075, 26.1889, -28.3356, 23.6789, -85.0065
5.54, -1, -31.8179, -5.24832, 26.1972, -28.2264, 23.7923, -85.2186
5.544, -1, -31.8582, -5.26592, 26.2055, -28.1169, 23.9058, -85.4311
5.548, -1, -31.8986, -5.28354, 26.2137, -28.0073, 24.0196, -85.6439
5.552, -1, -31.939, -5.30119, 26.222, -27.8976, 24.1335, -85.857
5.556, -1, -31.9795, -5.31887, 26.2303, -27.7876, 24.2475, -86.0705
5.56, -1, -32.0201, -5.33658, 26.2386, -27.6775, 24.3618, -86.2843
5.564, -1, -32.0607, -5.35431, 26.247, -27.5673, 24.4762, -86.4984
5.568, -1, -32.1014, -5.37208, 26.2553, -27.4568, 24.5908, -86.7128
5.572, -1, -32.1421, -5.38986, 26.2637, -27.3462, 24.7056, -86.9276
5.576, -1, -32.1829, -5.40768, 26.272, -27.2354, 24.8206, -87.1427
5.58, -1, -32.2238, -5.42553, 26.2804, -27.1244, 24.9358, -87.3582
5.584, -1, -32.2647, -5.4434, 26.2888, -27.0133, 25.0511, -87.574
5.588, -1, -32.3057, -5.4613, 26.2972, -26.902, 25.1666, -87.7901
5.592, -1, -32.3468, -5.47923, 26.3056, -26.7905, 25.2823, -88.0065
5.596, -1, -32.3879, -5.49719, 26.3141, -26.6788, 25.3982, -88.2234
5.6, -1, -32.4291, -5.51517, 26.3225, -26.567, 25.5142, -88.4405
5.604, -1, -32.4703, -5.53319, 26.331, -26.455, 25.6305, -88.658
5.608, -1, -32.5117, -5.55123, 26.3394, -26.3428, 25.7469, -88.8758
5.612, -1, -32.5531, -5.5693, 26.3479, -26.2304, 25.8635, -89.094
5.616, -1, -32.5945, -5.5874, 26.3564, -26.1178, 25.9803, -89.3126
5.62, -1, -32.636, -5.60553, 26.3649, -26.0051, 26.0973, -89.5315
5.624, -1, -32.6776, -5.62369, 26.3735, -25.8922, 26.2145, -89.7507
5.628, -1, -32.7193, -5.64188, 26.382, -25.7791, 26.3318, -89.9703
5.632, -1, -32.761, -5.66009, 26.3906, -25.6658, 26.4494, -90.1902
5.636, -1, -32.8028, -5.67834, 26.3991, -25.5523, 26.5671, -90.4105
5.64, -1, -32.8446, -5.69662, 26.4077, -25.4387, 26.6851, -90.6312
5.644, -1, -32.8865, -5.71492, 26.4163, -25.3249, 26.8032, -90.8522
5.648, -1, -32.9285, -5.73326, 26.4249, -25.2109, 26.9215, -91.0736
5.652, -1, -32.9706, -5.75162, 26.4335, -25.0967, 27.04, -91.2953
5.656, -1, -33.0127, -5.77002, 26.4422, -24.9823, 27.1587, -91.5174
5.66, -1, -33.0549, -5.78844, 26.4508, -24.8677, 27.2776, -91.7398
5.664, -1, -33.0972, -5.8069, 26.4595, -24.7529, 27.3967, -91.9626
5.668, -1, -33.1395, -5.82538, 26.4682, -24.638, 27.516, -92.1858
5.672, -1, -33.1819, -5.8439, 26.4769, -24.5228, 27.6354, -92.4094
5.676, -1, -33.2244, -5.86244, 26.4856, -24.4075, 27.7551, -92.6333
5.68, -1, -33.2669, -5.88102, 26.4943, -24.292, 27.875, -92.8576
5.684, -1, -33.3096, -5.89963, 26.503, -24.1763, 27.9951, -93.0822
5.688, -1, -33.3522, -5.91827, 26.5118, -24.0604, 28.1153, -93.3073
5.692, -1, -33.395, -5.93694, 26.5206, -23.9443, 28.2358, -93.5327
5.696, -1, -33.4378, -5.95564, 26.5293, -23.828, 28.3565, -93.7585
5.7, -1, -33.4807, -5.97437, 26.5381, -23.7115, 28.4773, -93.9846
5.704, -1, -33.5237, -5.99313, 26.5469, -23.5949, 28.5984, -94.2112
5.708, -1, -33.5667, -6.01193, 26.5558, -23.478, 28.7197, -94.4381
5.712, -1, -33.6098, -6.03075, 26.5646, -23.3609, 28.8412, -94.6654
5.716, -1, -33.653, -6.04961, 26.5735, -23.2437, 28.9629, -94.8931
5.72, -1, -33.6963, -6.0685, 26.5823, -23.1262, 29.0848, -95.1211
5.724, -1, -33.7396, -6.08742, 26.5912, -23.0085, 29.2069, -95.3496
5.728, -1, -33.783, -6.10638, 26.6001, -22.8907, 29.3292, -95.5784
5.732, -1, -33.8265, -6.12537, 26.609, -22.7726, 29.4517, -95.8076
5.736, -1, -33.8701, -6.14438, 26.618, -22.6543, 29.5744, -96.0373
5.74, -1, -33.9137, -6.16344, 26.6269, -22.5359, 29.6973, -96.2673
5.744, -1, -33.9574, -6.18252, 26.6359, -22.4172, 29.8205, -96.4977
5.748, -1, -34.0012, -6.20164, 26.6448, -22.2983, 29.9438, -96.7285
5.752, -1, -34.0451, -6.22079, 26.6538, -22.1793, 30.0674, -96.9597
5.756, -1, -34.089, -6.23997, 26.6628, -22.06, 30.1912, -97.1913
5.76, -1, -34.133, -6.25919, 26.6719, -21.9405, 30.3152, -97.4233
5.764, -1, -34.1771, -6.27844, 26.6809, -21.8208, 30.4394, -97.6557
5.768, -1, -34.2212, -6.29772, 26.69, -21.7009, 30.5638, -97.8885
5.772, -1, -34.2655, -6.31704, 26.699, -21.5808, 30.6885, -98.1217
5.776, -1, -34.3098, -6.33639, 26.7081, -21.4604, 30.8133, -98.3553
5.78, -1, -34.3542, -6.35577, 26.7172, -21.3399, 30.9384, -98.5894
5.784, -1, -34.3987, -6.37519, 26.7263, -21.2191, 31.0637, -98.8238
5.788, -1, -34.4432, -6.39464, 26.7355, -21.0982, 31.1892, -99.0587
5.792, -1, -34.4878, -6.41413, 26.7446, -20.977, 31.315, -99.294
5.796, -1, -34.5325, -6.43365, 26.7538, -20.8556, 31.441, -99.5297
5.8, -1, -34.5773, -6.45321, 26.763, -20.734, 31.5672, -99.7658
5.804, -1, -34.6222, -6.4728, 26.7722, -20.6122, 31.6936, -100.002
5.808, -1, -34.6671, -6.49243, 26.7814, -20.4901, 31.8202, -100.239
5.812, -1, -34.7122, -6.51209, 26.7906, -20.3679, 31.9471, -100.477
5.816, -1, -34.7573, -6.53178, 26.7999, -20.2454, 32.0742, -100.714
5.82, -1, -34.8025, -6.55151, 26.8091, -20.1227, 32.2015, -100.953
5.824, -1, -34.8477, -6.57128, 26.8184, -19.9998, 32.329, -101.191
