hehonglu123/Motion-Primitive-Planning/ILC/recorded_data/realrobot/wood/iteration_12/run_2.csv
timestamp, cmd_num, J1, J2, J3, J4, J5, J6
0.001116, -1, 11.3757, 13.6141, 17.3366, -145.521, -97.9256, 142.516
0.004383, -1, 11.3757, 13.6141, 17.3366, -145.521, -97.9256, 142.516
0.007793, -1, 11.3757, 13.6141, 17.3366, -145.52, -97.9256, 142.516
0.028351, -1, 11.3757, 13.6141, 17.3366, -145.52, -97.9256, 142.516
0.031063, -1, 11.3757, 13.6141, 17.3366, -145.52, -97.9256, 142.516
0.033597, -1, 11.3757, 13.6141, 17.3366, -145.52, -97.9256, 142.516
0.03971, -1, 11.3757, 13.6141, 17.3366, -145.52, -97.9256, 142.516
0.048708, -1, 11.3757, 13.6141, 17.3366, -145.52, -97.9256, 142.516
0.055741, -1, 11.3751, 13.614, 17.3365, -145.521, -97.9256, 142.516
0.064691, -1, 11.3724, 13.6138, 17.3365, -145.521, -97.9255, 142.516
0.071719, -1, 11.3659, 13.6131, 17.3363, -145.521, -97.9256, 142.515
0.079767, -1, 11.3547, 13.6114, 17.3358, -145.521, -97.9255, 142.514
0.08766, -1, 11.3372, 13.6079, 17.3351, -145.523, -97.9253, 142.506
0.095645, -1, 11.3102, 13.6019, 17.3343, -145.526, -97.9246, 142.485
0.103719, -1, 11.2718, 13.5927, 17.3337, -145.533, -97.9227, 142.445
0.111664, -1, 11.2216, 13.5803, 17.3339, -145.545, -97.9193, 142.38
0.119641, -1, 11.1599, 13.5649, 17.3355, -145.562, -97.9138, 142.285
0.128197, -1, 11.0865, 13.5458, 17.3395, -145.585, -97.906, 142.154
0.134739, -1, 11.0012, 13.5228, 17.3459, -145.614, -97.8958, 141.988
0.143662, -1, 10.9043, 13.4965, 17.3545, -145.648, -97.8836, 141.79
0.152445, -1, 10.7966, 13.4668, 17.3649, -145.687, -97.8699, 141.565
0.159642, -1, 10.678, 13.4339, 17.3761, -145.729, -97.8551, 141.318
0.16765, -1, 10.5489, 13.3983, 17.3873, -145.774, -97.8396, 141.057
0.176467, -1, 10.4109, 13.3604, 17.398, -145.82, -97.8237, 140.788
0.183643, -1, 10.266, 13.3208, 17.4083, -145.867, -97.8075, 140.513
0.191636, -1, 10.1165, 13.2804, 17.4183, -145.914, -97.7909, 140.236
0.200453, -1, 9.96404, 13.2393, 17.4284, -145.962, -97.7739, 139.958
0.207669, -1, 9.80939, 13.198, 17.4384, -146.01, -97.7566, 139.679
0.215655, -1, 9.6538, 13.1566, 17.4485, -146.058, -97.7394, 139.399
0.224558, -1, 9.49858, 13.1153, 17.4584, -146.106, -97.7224, 139.12
0.231663, -1, 9.34385, 13.0742, 17.4683, -146.154, -97.7057, 138.84
0.239698, -1, 9.18942, 13.033, 17.4783, -146.202, -97.6889, 138.561
0.249241, -1, 9.03544, 12.9919, 17.4883, -146.25, -97.6722, 138.281
0.255747, -1, 8.88172, 12.9509, 17.4985, -146.298, -97.6554, 138.001
0.263807, -1, 8.72817, 12.9098, 17.5086, -146.346, -97.6382, 137.721
0.272163, -1, 8.57517, 12.8687, 17.5187, -146.393, -97.6208, 137.441
0.279291, -1, 8.4224, 12.8275, 17.5288, -146.442, -97.6032, 137.161
0.287813, -1, 8.26942, 12.7862, 17.539, -146.489, -97.586, 136.881
0.296169, -1, 8.11599, 12.7447, 17.5492, -146.537, -97.5689, 136.601
0.303683, -1, 7.9621, 12.7031, 17.5594, -146.586, -97.5521, 136.32
0.311804, -1, 7.80757, 12.6614, 17.5694, -146.633, -97.5355, 136.04
0.321372, -1, 7.65264, 12.6197, 17.5795, -146.681, -97.5188, 135.76
0.327821, -1, 7.49767, 12.578, 17.5898, -146.729, -97.502, 135.48
0.335996, -1, 7.34266, 12.5366, 17.5999, -146.777, -97.4849, 135.199
0.343995, -1, 7.18767, 12.495, 17.6102, -146.825, -97.4675, 134.919
0.352018, -1, 7.03264, 12.4535, 17.6205, -146.874, -97.4502, 134.638
0.358645, -1, 6.95508, 12.4329, 17.6256, -146.898, -97.4417, 134.498
0.495833, -1, 4.31895, 11.7273, 17.8016, -147.716, -97.1511, 129.725
0.497945, -1, 4.24128, 11.7066, 17.8068, -147.74, -97.1426, 129.585
0.499238, -1, 4.24128, 11.7066, 17.8068, -147.74, -97.1426, 129.585
0.501938, -1, 4.16366, 11.6859, 17.812, -147.764, -97.134, 129.444
0.503217, -1, 4.16366, 11.6859, 17.812, -147.764, -97.134, 129.444
0.505123, -1, 4.16366, 11.6652, 17.8172, -147.788, -97.1256, 129.304
0.506484, -1, 4.08613, 11.6652, 17.8172, -147.788, -97.1256, 129.304
0.510815, -1, 4.00873, 11.6445, 17.8224, -147.812, -97.1171, 129.163
0.512058, -1, 4.00873, 11.6445, 17.8224, -147.812, -97.1171, 129.163
0.514924, -1, 3.93143, 11.6238, 17.8275, -147.836, -97.1087, 129.023
0.516119, -1, 3.93143, 11.6238, 17.8275, -147.836, -97.1087, 129.023
0.518418, -1, 3.85421, 11.603, 17.8327, -147.861, -97.1003, 128.882
0.519683, -1, 3.85421, 11.603, 17.8327, -147.861, -97.1003, 128.882
0.521703, -1, 3.77704, 11.5823, 17.8379, -147.885, -97.0919, 128.742
0.52303, -1, 3.77704, 11.5823, 17.8379, -147.885, -97.0919, 128.742
0.526845, -1, 3.69987, 11.5615, 17.843, -147.909, -97.0834, 128.601
0.528082, -1, 3.69987, 11.5615, 17.843, -147.909, -97.0834, 128.601
0.530162, -1, 3.62264, 11.5406, 17.8482, -147.933, -97.0749, 128.46
0.531475, -1, 3.62264, 11.5406, 17.8482, -147.933, -97.0749, 128.46
0.533283, -1, 3.62264, 11.5198, 17.8533, -147.957, -97.0663, 128.319
0.534723, -1, 3.54537, 11.5198, 17.8533, -147.957, -97.0663, 128.319
0.536022, -1, 3.54537, 11.5198, 17.8533, -147.957, -97.0663, 128.319
0.545642, -1, 3.31327, 11.4573, 17.8689, -148.03, -97.0402, 127.897
0.551629, -1, 3.23576, 11.4365, 17.8741, -148.054, -97.0314, 127.756
0.560631, -1, 3.0806, 11.3947, 17.8846, -148.102, -97.0139, 127.475
0.566632, -1, 2.92526, 11.3529, 17.895, -148.15, -96.9967, 127.193
0.57565, -1, 2.76975, 11.3112, 17.9053, -148.199, -96.9797, 126.911
0.583652, -1, 2.61401, 11.2694, 17.9156, -148.247, -96.9629, 126.63
0.591627, -1, 2.45784, 11.2277, 17.9261, -148.295, -96.9462, 126.348
0.599632, -1, 2.30141, 11.186, 17.9365, -148.344, -96.9293, 126.066
0.607735, -1, 2.14481, 11.1443, 17.9469, -148.391, -96.9122, 125.784
0.615763, -1, 1.98801, 11.1025, 17.9573, -148.44, -96.8948, 125.502
0.623645, -1, 1.83144, 11.0609, 17.9677, -148.489, -96.8773, 125.221
0.631696, -1, 1.67503, 11.0192, 17.9782, -148.537, -96.8599, 124.938
0.639707, -1, 1.51878, 10.9774, 17.9886, -148.586, -96.8429, 124.656
0.647677, -1, 1.36288, 10.9358, 17.9991, -148.634, -96.8259, 124.375
0.655628, -1, 1.20715, 10.8941, 18.0094, -148.682, -96.8091, 124.092
0.796823, -1, -1.52563, 10.162, 18.1916, -149.531, -96.5096, 119.144
0.798121, -1, -1.52563, 10.162, 18.1916, -149.531, -96.5096, 119.144
0.80015, -1, -1.60384, 10.1411, 18.1969, -149.555, -96.5011, 119.002
0.801364, -1, -1.60384, 10.1411, 18.1969, -149.555, -96.5011, 119.002
0.802634, -1, -1.60384, 10.1411, 18.1969, -149.555, -96.5011, 119.002
0.8061, -1, -1.68194, 10.1202, 18.2022, -149.58, -96.4926, 118.861
0.808399, -1, -1.75995, 10.0992, 18.2074, -149.604, -96.484, 118.719
0.810674, -1, -1.75995, 10.0992, 18.2074, -149.604, -96.484, 118.719
0.81276, -1, -1.83785, 10.0783, 18.2126, -149.629, -96.4754, 118.577
0.813969, -1, -1.83785, 10.0783, 18.2126, -149.629, -96.4754, 118.577
0.816033, -1, -1.91567, 10.0573, 18.2178, -149.653, -96.4667, 118.435
0.817262, -1, -1.91567, 10.0573, 18.2178, -149.653, -96.4667, 118.435
0.818648, -1, -1.91567, 10.0573, 18.2178, -149.653, -96.4667, 118.435
0.820676, -1, -1.99339, 10.0364, 18.223, -149.677, -96.4578, 118.294
0.821887, -1, -1.99339, 10.0364, 18.223, -149.677, -96.4578, 118.294
0.824107, -1, -2.07102, 10.0155, 18.2282, -149.701, -96.449, 118.152
0.825379, -1, -2.07102, 10.0155, 18.2282, -149.701, -96.449, 118.152
0.826642, -1, -2.07102, 10.0155, 18.2282, -149.701, -96.449, 118.152
0.830289, -1, -2.14859, 9.9945, 18.2334, -149.726, -96.4402, 118.01
0.832438, -1, -2.22612, 9.97356, 18.2386, -149.75, -96.4314, 117.868
0.833675, -1, -2.22612, 9.97356, 18.2386, -149.75, -96.4314, 117.868
0.834929, -1, -2.22612, 9.97356, 18.2386, -149.75, -96.4314, 117.868
0.84259, -1, -2.38136, 9.93167, 18.249, -149.798, -96.4142, 117.585
0.848009, -1, -2.53693, 9.88965, 18.2595, -149.847, -96.3972, 117.301
0.854652, -1, -2.6148, 9.86865, 18.2647, -149.871, -96.3887, 117.159
0.864061, -1, -2.84889, 9.80572, 18.2802, -149.944, -96.3636, 116.734
0.870616, -1, -2.92717, 9.78472, 18.2854, -149.968, -96.3551, 116.592
0.88026, -1, -3.16258, 9.72178, 18.301, -150.042, -96.3294, 116.166
0.888186, -1, -3.31997, 9.67981, 18.3114, -150.09, -96.3119, 115.882
0.89622, -1, -3.47771, 9.63779, 18.3219, -150.139, -96.2944, 115.599
0.904455, -1, -3.5566, 9.59589, 18.3324, -150.188, -96.2769, 115.314
0.912171, -1, -3.71451, 9.57496, 18.3376, -150.212, -96.2683, 115.03
0.920214, -1, -3.87254, 9.53299, 18.3479, -150.26, -96.2512, 114.746
0.927623, -1, -4.0305, 9.49099, 18.3583, -150.309, -96.2342, 114.604
0.935612, -1, -4.1883, 9.44906, 18.3688, -150.358, -96.2172, 114.32
0.943683, -1, -4.34608, 9.40707, 18.3791, -150.407, -96.2001, 114.035
0.95165, -1, -4.50357, 9.36506, 18.3894, -150.456, -96.1827, 113.75
0.959636, -1, -4.66057, 9.32302, 18.3998, -150.505, -96.1651, 113.466
0.967663, -1, -4.8171, 9.28097, 18.4102, -150.553, -96.1472, 113.181
0.975613, -1, -4.9734, 9.23885, 18.4207, -150.603, -96.1298, 112.896
0.983666, -1, -5.12945, 9.19679, 18.4313, -150.651, -96.1126, 112.611
0.991661, -1, -5.2853, 9.15469, 18.4418, -150.7, -96.0956, 112.327
0.999618, -1, -5.44125, 9.11253, 18.4524, -150.749, -96.0786, 112.042
1.00761, -1, -5.59739, 9.07042, 18.4628, -150.798, -96.0617, 111.757
1.01568, -1, -5.75394, 9.02829, 18.4732, -150.846, -96.0446, 111.472
1.02364, -1, -5.91088, 8.9861, 18.4836, -150.895, -96.0271, 111.188
1.03168, -1, -6.06826, 8.94392, 18.494, -150.944, -96.0094, 110.902
1.03966, -1, -6.22622, 8.90177, 18.5044, -150.993, -95.9919, 110.617
1.04762, -1, -6.38452, 8.85963, 18.5147, -151.042, -95.9746, 110.332
1.05663, -1, -6.54293, 8.81758, 18.5251, -151.091, -95.9576, 110.047
1.06363, -1, -6.70141, 8.77544, 18.5357, -151.14, -95.9406, 109.761
1.07162, -1, -6.86018, 8.73329, 18.5462, -151.189, -95.9236, 109.476
1.07968, -1, -7.01874, 8.69119, 18.5567, -151.238, -95.9064, 109.19
1.08763, -1, -7.17726, 8.64903, 18.5672, -151.287, -95.8889, 108.905
1.09572, -1, -7.33558, 8.60687, 18.5775, -151.336, -95.8713, 108.619
1.10363, -1, -7.49359, 8.56459, 18.588, -151.385, -95.8535, 108.333
1.11162, -1, -7.65126, 8.52229, 18.5985, -151.434, -95.836, 108.048
1.1197, -1, -7.80856, 8.48001, 18.609, -151.483, -95.8188, 107.762
1.12763, -1, -7.96548, 8.43773, 18.6194, -151.532, -95.8017, 107.476
1.13562, -1, -8.12215, 8.39536, 18.6297, -151.581, -95.7848, 107.19
1.1441, -1, -8.27869, 8.35304, 18.6402, -151.63, -95.7678, 106.904
1.15166, -1, -8.43538, 8.31068, 18.6508, -151.679, -95.7506, 106.618
1.15965, -1, -8.59239, 8.26831, 18.6613, -151.728, -95.7331, 106.332
1.16843, -1, -8.7498, 8.22603, 18.6718, -151.778, -95.7153, 106.046
1.17561, -1, -8.90748, 8.18369, 18.6821, -151.826, -95.6978, 105.759
1.18363, -1, -9.06556, 8.14135, 18.6926, -151.875, -95.6805, 105.473
1.19243, -1, -9.22411, 8.09911, 18.7031, -151.925, -95.6633, 105.186
1.19961, -1, -9.38299, 8.05678, 18.7135, -151.974, -95.6462, 104.9
1.20762, -1, -9.54206, 8.01445, 18.724, -152.023, -95.6291, 104.613
1.2164, -1, -9.70122, 7.97221, 18.7344, -152.073, -95.6118, 104.326
1.22362, -1, -9.86049, 7.92995, 18.7449, -152.121, -95.5942, 104.039
1.23195, -1, -10.0199, 7.88755, 18.7556, -152.171, -95.5764, 103.752
1.24045, -1, -10.1791, 7.8451, 18.7662, -152.22, -95.5586, 103.465
1.24769, -1, -10.3381, 7.80261, 18.7768, -152.269, -95.541, 103.179
1.25599, -1, -10.4971, 7.76007, 18.7873, -152.319, -95.5238, 102.892
1.26453, -1, -10.6556, 7.71758, 18.7977, -152.368, -95.5068, 102.605
1.27171, -1, -10.8137, 7.67505, 18.8083, -152.417, -95.4897, 102.318
1.28017, -1, -10.9716, 7.63247, 18.8187, -152.466, -95.4726, 102.031
1.28727, -1, -11.0504, 7.61121, 18.8239, -152.491, -95.4553, 101.743
1.29563, -1, -11.2865, 7.54748, 18.8396, -152.565, -95.4375, 101.456
1.30437, -1, -11.444, 7.50502, 18.8501, -152.615, -95.4197, 101.169
1.31254, -1, -11.6015, 7.46253, 18.8606, -152.664, -95.4021, 100.881
1.3197, -1, -11.7594, 7.42009, 18.8713, -152.713, -95.3847, 100.593
1.3287, -1, -11.9178, 7.37767, 18.8818, -152.762, -95.3675, 100.305
1.33659, -1, -12.0765, 7.33527, 18.8924, -152.812, -95.3503, 100.018
1.34396, -1, -12.2357, 7.29285, 18.9029, -152.861, -95.3331, 99.7299
1.35283, -1, -12.3953, 7.25043, 18.9134, -152.911, -95.3156, 99.4419
1.36127, -1, -12.5552, 7.20799, 18.924, -152.96, -95.2978, 99.1539
1.3681, -1, -12.7151, 7.16554, 18.9345, -153.009, -95.2798, 98.8662
1.37609, -1, -12.8752, 7.12307, 18.945, -153.059, -95.2619, 98.5782
1.38577, -1, -13.0353, 7.08047, 18.9556, -153.108, -95.2444, 98.29
1.39222, -1, -13.1953, 7.03784, 18.9661, -153.158, -95.2271, 98.002
1.40018, -1, -13.355, 6.99523, 18.9767, -153.207, -95.2099, 97.7139
1.40899, -1, -13.4348, 6.97389, 18.982, -153.257, -95.1928, 97.4253
1.41627, -1, -13.5942, 6.93108, 18.9979, -153.306, -95.1756, 97.1366
1.42363, -1, -13.7533, 6.88835, 19.0032, -153.331, -95.1668, 96.9923
1.4316, -1, -13.9121, 6.84568, 19.0136, -153.38, -95.1491, 96.7039
1.43965, -1, -14.0704, 6.80296, 19.0241, -153.429, -95.1313, 96.4153
1.4476, -1, -14.2287, 6.76034, 19.0347, -153.479, -95.1135, 96.1263
1.45562, -1, -14.3869, 6.71767, 19.0452, -153.529, -95.0961, 95.8372
1.46369, -1, -14.5452, 6.67498, 19.0557, -153.578, -95.0789, 95.5482
1.4716, -1, -14.7038, 6.63245, 19.0663, -153.628, -95.0616, 95.259
1.4796, -1, -14.8628, 6.58991, 19.0768, -153.677, -95.0445, 94.9694
1.4877, -1, -15.0221, 6.54724, 19.0876, -153.726, -95.027, 94.6803
1.4956, -1, -15.1819, 6.50467, 19.0983, -153.777, -95.0093, 94.3912
1.50361, -1, -15.342, 6.46209, 19.109, -153.826, -94.9913, 94.1019
1.5116, -1, -15.5025, 6.4194, 19.1197, -153.875, -94.9734, 93.8125
1.5196, -1, -15.6632, 6.37674, 19.1302, -153.926, -94.9557, 93.5233
1.52662, -1, -15.8239, 6.33399, 19.1408, -153.975, -94.9383, 93.234
1.53559, -1, -15.9847, 6.29109, 19.1515, -154.025, -94.9211, 92.9443
1.54361, -1, -16.1456, 6.24823, 19.162, -154.075, -94.9039, 92.6545
1.55167, -1, -16.3064, 6.20531, 19.1726, -154.124, -94.8867, 92.3651
1.56066, -1, -16.4668, 6.16229, 19.183, -154.173, -94.8693, 92.0755
1.56759, -1, -16.6272, 6.11935, 19.1936, -154.223, -94.8514, 91.7853
1.57566, -1, -16.7871, 6.07639, 19.2043, -154.273, -94.8335, 91.4952
1.58361, -1, -16.9465, 6.03341, 19.2149, -154.323, -94.8159, 91.2051
1.59161, -1, -17.1058, 5.99047, 19.2255, -154.373, -94.7984, 90.915
1.59966, -1, -17.2648, 5.94753, 19.2361, -154.422, -94.781, 90.6246
1.60763, -1, -17.4239, 5.90474, 19.2467, -154.472, -94.7637, 90.3342
1.61566, -1, -17.5833, 5.86197, 19.2574, -154.522, -94.7463, 90.0441
1.62363, -1, -17.7426, 5.81916, 19.2681, -154.571, -94.7287, 89.7538
1.63162, -1, -17.9022, 5.77638, 19.2788, -154.622, -94.7108, 89.4634
1.63967, -1, -18.0623, 5.73358, 19.2894, -154.671, -94.6926, 89.1728
1.64759, -1, -18.2227, 5.69079, 19.2999, -154.721, -94.6747, 88.8824
1.65564, -1, -18.3836, 5.64801, 19.3107, -154.771, -94.6572, 88.5917
1.66368, -1, -18.5449, 5.60506, 19.3214, -154.821, -94.6398, 88.3006
1.67159, -1, -18.7065, 5.56209, 19.3321, -154.871, -94.6225, 88.0099
1.6796, -1, -18.8681, 5.5191, 19.3427, -154.921, -94.6053, 87.7191
1.68772, -1, -19.0298, 5.47602, 19.3532, -154.971, -94.5877, 87.428
1.69559, -1, -19.1913, 5.43285, 19.3639, -155.021, -94.5699, 87.1365
1.70361, -1, -19.3528, 5.38972, 19.3745, -155.071, -94.5518, 86.8452
1.71166, -1, -19.5141, 5.34656, 19.385, -155.121, -94.5337, 86.5536
1.71959, -1, -19.675, 5.30333, 19.3957, -155.17, -94.516, 86.262
1.72766, -1, -19.8357, 5.26017, 19.4063, -155.221, -94.4984, 85.9702
1.73561, -1, -19.9962, 5.21702, 19.417, -155.27, -94.481, 85.6787
1.74365, -1, -20.1563, 5.17387, 19.4278, -155.32, -94.4636, 85.3872
1.75198, -1, -20.316, 5.13094, 19.4387, -155.371, -94.446, 85.0954
1.7597, -1, -20.476, 5.08794, 19.4495, -155.421, -94.4283, 84.8034
1.76769, -1, -20.6361, 5.04486, 19.4602, -155.471, -94.4101, 84.5118
1.77624, -1, -20.7963, 5.00197, 19.4709, -155.521, -94.3921, 84.22
1.78371, -1, -20.9571, 4.959, 19.4816, -155.571, -94.3743, 83.9277
1.79167, -1, -21.1181, 4.91592, 19.4922, -155.621, -94.3569, 83.6357
1.80034, -1, -21.2795, 4.87284, 19.5029, -155.672, -94.3396, 83.3439
1.80762, -1, -21.4415, 4.82963, 19.5135, -155.722, -94.3224, 83.0515
1.81565, -1, -21.6036, 4.78636, 19.5242, -155.772, -94.305, 82.7589
1.82472, -1, -21.7659, 4.74318, 19.535, -155.822, -94.2874, 82.4664
1.83172, -1, -21.9283, 4.69979, 19.5457, -155.872, -94.2695, 82.174
1.83986, -1, -22.0908, 4.6564, 19.5565, -155.923, -94.2514, 81.8812
1.84871, -1, -22.2533, 4.61308, 19.5672, -155.973, -94.2336, 81.5882
1.85595, -1, -22.4157, 4.56963, 19.5778, -156.023, -94.216, 81.2955
1.86404, -1, -22.5777, 4.52624, 19.5886, -156.073, -94.1985, 81.0029
1.87059, -1, -22.6586, 4.50455, 19.5939, -156.098, -94.1898, 80.8565
1.88012, -1, -22.9008, 4.43941, 19.6099, -156.173, -94.1635, 80.4169
1.88821, -1, -23.0621, 4.39611, 19.6206, -156.224, -94.1456, 80.124
1.89703, -1, -23.2231, 4.35282, 19.6313, -156.274, -94.1275, 79.831
1.90265, -1, -23.3035, 4.33114, 19.6367, -156.299, -94.1183, 79.6843
1.91221, -1, -23.4644, 4.26625, 19.653, -156.375, -94.0911, 79.244
1.92113, -1, -23.6254, 4.24463, 19.6584, -156.4, -94.0822, 79.0974
1.92665, -1, -23.7864, 4.20137, 19.6692, -156.45, -94.0645, 78.804
1.93672, -1, -24.0285, 4.13646, 19.6852, -156.527, -94.0384, 78.3633
1.94359, -1, -24.1094, 4.11478, 19.6905, -156.552, -94.0297, 78.2164
1.95159, -1, -24.2715, 4.07141, 19.7013, -156.602, -94.0122, 77.9226
1.95966, -1, -24.4342, 4.02803, 19.712, -156.652, -93.9943, 77.6286
1.96761, -1, -24.5971, 3.98453, 19.7226, -156.702, -93.9762, 77.3344
1.97563, -1, -24.7602, 3.94098, 19.7333, -156.753, -93.9581, 77.0401
1.98359, -1, -24.9236, 3.89745, 19.744, -156.804, -93.9403, 76.7462
1.99159, -1, -25.0871, 3.85391, 19.7549, -156.854, -93.9226, 76.452
1.99964, -1, -25.2504, 3.81032, 19.7658, -156.904, -93.9051, 76.1575
2.00759, -1, -25.4135, 3.76673, 19.7766, -156.955, -93.8876, 75.8631
2.01559, -1, -25.5764, 3.72305, 19.7874, -157.005, -93.8699, 75.5688
2.02365, -1, -25.739, 3.67943, 19.7981, -157.055, -93.8519, 75.2743
2.03157, -1, -25.9015, 3.63598, 19.8089, -157.106, -93.8337, 74.9794
2.0396, -1, -26.0638, 3.5924, 19.8196, -157.156, -93.8153, 74.6848
2.04858, -1, -26.2257, 3.54894, 19.8304, -157.207, -93.7972, 74.3904
2.05562, -1, -26.3872, 3.50557, 19.8412, -157.258, -93.7793, 74.0955
2.06462, -1, -26.5488, 3.4621, 19.8519, -157.308, -93.7617, 73.8002
2.07165, -1, -26.7107, 3.41861, 19.8627, -157.359, -93.7441, 73.5052
2.07959, -1, -26.8729, 3.37514, 19.8736, -157.41, -93.7264, 73.21
2.09042, -1, -27.0355, 3.33154, 19.8899, -157.486, -93.6994, 72.7667
2.0956, -1, -27.1983, 3.28795, 19.8953, -157.511, -93.6902, 72.619
2.10364, -1, -27.3615, 3.24435, 19.906, -157.561, -93.6719, 72.3238
2.11158, -1, -27.5251, 3.20056, 19.9168, -157.612, -93.6539, 72.0285
2.11959, -1, -27.689, 3.15679, 19.9276, -157.663, -93.636, 71.7327
2.12767, -1, -27.853, 3.11314, 19.9383, -157.713, -93.6182, 71.4371
2.1356, -1, -28.0173, 3.06938, 19.9491, -157.764, -93.6006, 71.1416
2.14359, -1, -28.1815, 3.02562, 19.9598, -157.815, -93.5828, 70.8458
2.15165, -1, -28.3458, 2.98187, 19.9706, -157.865, -93.5648, 70.5497
2.15959, -1, -28.5099, 2.93811, 19.9816, -157.916, -93.5464, 70.2538
2.16758, -1, -28.6737, 2.89442, 19.9924, -157.967, -93.5279, 69.958
2.17564, -1, -28.8372, 2.85071, 20.0032, -158.018, -93.5097, 69.6617
2.18358, -1, -29.0002, 2.80701, 20.014, -158.069, -93.4918, 69.3652
2.19159, -1, -29.163, 2.76336, 20.0247, -158.12, -93.474, 69.0688
2.19966, -1, -29.3257, 2.71967, 20.0355, -158.17, -93.4564, 68.7722
2.20758, -1, -29.4884, 2.676, 20.0464, -158.221, -93.4387, 68.4754
2.21558, -1, -29.6512, 2.63228, 20.0572, -158.272, -93.4207, 68.1785
2.2237, -1, -29.8142, 2.58847, 20.068, -158.323, -93.4024, 67.8819
2.23158, -1, -29.9772, 2.54472, 20.0789, -158.375, -93.384, 67.5852
2.23961, -1, -30.1406, 2.50084, 20.0899, -158.425, -93.3657, 67.2882
2.24771, -1, -30.3044, 2.45687, 20.1008, -158.476, -93.3477, 66.9911
2.25569, -1, -30.4687, 2.41297, 20.1118, -158.527, -93.3299, 66.6942
2.2637, -1, -30.6335, 2.36893, 20.1226, -158.578, -93.3122, 66.397
2.27174, -1, -30.7985, 2.32495, 20.1334, -158.629, -93.2945, 66.0994
2.27973, -1, -30.9636, 2.28103, 20.1444, -158.68, -93.2764, 65.8023
2.28768, -1, -31.1286, 2.23696, 20.1552, -158.731, -93.258, 65.505
2.29578, -1, -31.2936, 2.19301, 20.1661, -158.782, -93.2395, 65.2077
2.30361, -1, -31.4586, 2.14916, 20.1769, -158.833, -93.2212, 64.9099
2.31161, -1, -31.6233, 2.10513, 20.1877, -158.884, -93.2031, 64.6122
2.31991, -1, -31.7879, 2.06116, 20.1986, -158.936, -93.1853, 64.3142
2.3277, -1, -31.9521, 2.01726, 20.2096, -158.987, -93.1677, 64.016
2.33577, -1, -32.1161, 1.97326, 20.2206, -159.037, -93.1501, 63.7179
2.34386, -1, -32.2797, 1.92929, 20.2315, -159.089, -93.1322, 63.4202
2.3519, -1, -32.4431, 1.88531, 20.2424, -159.14, -93.114, 63.1221
2.36009, -1, -32.6067, 1.84116, 20.2534, -159.191, -93.0956, 62.8238
2.3666, -1, -32.6886, 1.81909, 20.2588, -159.217, -93.0864, 62.6746
2.37608, -1, -32.9346, 1.75296, 20.2752, -159.294, -93.0593, 62.2273
2.38436, -1, -33.0989, 1.70867, 20.2861, -159.345, -93.0415, 61.9289
2.39299, -1, -33.2636, 1.66447, 20.297, -159.396, -93.0237, 61.6301
2.40023, -1, -33.4286, 1.62029, 20.3079, -159.447, -93.0059, 61.3316
2.40819, -1, -33.5941, 1.576, 20.3189, -159.499, -92.9877, 61.033
2.41705, -1, -33.6769, 1.55387, 20.3244, -159.525, -92.9693, 60.7341
2.42357, -1, -33.8427, 1.50964, 20.3353, -159.575, -92.9599, 60.5845
2.43214, -1, -34.0086, 1.46541, 20.3461, -159.627, -92.9413, 60.2853
2.43963, -1, -34.1746, 1.42124, 20.3571, -159.678, -92.9229, 59.9862
2.44758, -1, -34.3407, 1.37704, 20.3681, -159.73, -92.9049, 59.6867
2.45562, -1, -34.5068, 1.33284, 20.379, -159.781, -92.8871, 59.387
2.46359, -1, -34.6725, 1.28868, 20.3899, -159.833, -92.8693, 59.0876
2.47161, -1, -34.8377, 1.24449, 20.4008, -159.884, -92.8514, 58.7884
2.47968, -1, -35.0027, 1.2003, 20.4118, -159.935, -92.8332, 58.4888
2.48756, -1, -35.1675, 1.15603, 20.4229, -159.987, -92.8147, 58.1889
2.49561, -1, -35.332, 1.11171, 20.4339, -160.038, -92.7961, 57.8892
2.50361, -1, -35.496, 1.0676, 20.4451, -160.09, -92.7778, 57.5896
2.51158, -1, -35.6583, 1.02378, 20.4563, -160.141, -92.7597, 57.2896
2.51963, -1, -35.8178, 0.980558, 20.4678, -160.192, -92.7419, 56.991
2.52763, -1, -35.9733, 0.938503, 20.4797, -160.243, -92.7241, 56.6959
2.53557, -1, -36.1237, 0.898032, 20.4916, -160.292, -92.7066, 56.4066
2.54358, -1, -36.2664, 0.85975, 20.5035, -160.339, -92.6894, 56.1275
2.5526, -1, -36.3996, 0.824406, 20.515, -160.384, -92.673, 55.865
2.55966, -1, -36.5215, 0.792111, 20.5257, -160.425, -92.6579, 55.6251
2.56859, -1, -36.6307, 0.763227, 20.5349, -160.46, -92.6446, 55.4133
2.57564, -1, -36.7255, 0.738145, 20.5422, -160.49, -92.6336, 55.2349
2.58356, -1, -36.8055, 0.716908, 20.5473, -160.515, -92.6248, 55.0918
2.59158, -1, -36.8718, 0.699409, 20.5502, -160.534, -92.6183, 54.9832
2.5997, -1, -36.925, 0.685414, 20.5515, -160.547, -92.6138, 54.9064
2.60758, -1, -36.9655, 0.674579, 20.552, -160.556, -92.611, 54.8546
2.61553, -1, -36.9951, 0.666755, 20.5518, -160.562, -92.6093, 54.8231
2.62364, -1, -37.0155, 0.661632, 20.5514, -160.565, -92.6084, 54.805
2.63159, -1, -37.0279, 0.658595, 20.5511, -160.567, -92.6079, 54.7959
2.63962, 2, -37.0345, 0.657, 20.5509, -160.568, -92.6077, 54.7916
2.64763, 2, -37.0367, 0.656284, 20.5509, -160.568, -92.6076, 54.7896
2.65556, 2, -37.0366, 0.655981, 20.5508, -160.568, -92.6075, 54.7888
2.66356, 2, -37.0359, 0.65585, 20.5508, -160.568, -92.6075, 54.7884
2.67165, 2, -37.0357, 0.655787, 20.5508, -160.568, -92.6075, 54.7883
2.67962, 2, -37.0361, 0.655724, 20.5508, -160.568, -92.6075, 54.7882
2.68756, 2, -37.0371, 0.65568, 20.5507, -160.568, -92.6075, 54.7882
2.69563, 2, -37.0382, 0.655572, 20.5506, -160.568, -92.6075, 54.7882
2.70357, 2, -37.0397, 0.655372, 20.5504, -160.568, -92.6076, 54.7882
2.71158, 2, -37.0411, 0.6551, 20.5502, -160.568, -92.6076, 54.7883
2.71968, 2, -37.0422, 0.654832, 20.55, -160.568, -92.6077, 54.7884
2.72762, 2, -37.0432, 0.654598, 20.5498, -160.568, -92.6077, 54.7885
2.73557, 2, -37.0437, 0.654473, 20.5496, -160.568, -92.6078, 54.7885
2.74366, 2, -37.0437, 0.654415, 20.5494, -160.568, -92.6079, 54.7887
2.75166, 2, -37.0432, 0.654407, 20.5493, -160.568, -92.6079, 54.7889
2.75969, 2, -37.0424, 0.654447, 20.5492, -160.568, -92.608, 54.789
2.76774, 2, -37.0413, 0.654471, 20.5492, -160.568, -92.608, 54.7892
2.77567, 2, -37.0398, 0.654543, 20.5491, -160.568, -92.608, 54.7894
2.78367, 2, -37.0384, 0.654619, 20.549, -160.568, -92.608, 54.7896
2.79175, 2, -37.0374, 0.654666, 20.5489, -160.568, -92.6081, 54.7898
2.79974, 2, -37.0368, 0.654646, 20.5489, -160.568, -92.608, 54.7899
2.8076, 2, -37.0366, 0.65463, 20.5489, -160.568, -92.608, 54.79
2.81566, 2, -37.0367, 0.654604, 20.5488, -160.568, -92.6081, 54.7901
2.82364, 2, -37.037, 0.654549, 20.5488, -160.568, -92.6081, 54.7901
2.83167, 2, -37.0373, 0.654486, 20.5488, -160.568, -92.6081, 54.7902
2.84008, 2, -37.0379, 0.65447, 20.5487, -160.568, -92.6081, 54.7902
2.84805, 2, -37.0386, 0.654452, 20.5487, -160.568, -92.608, 54.7902
2.85585, 2, -37.0394, 0.654437, 20.5487, -160.568, -92.6081, 54.7902
2.86401, 2, -37.04, 0.65444, 20.5487, -160.568, -92.6081, 54.7902
2.8724, 2, -37.0404, 0.654457, 20.5487, -160.568, -92.6081, 54.7902
2.88009, 2, -37.0406, 0.654492, 20.5487, -160.568, -92.6081, 54.7904
2.88826, 2, -37.0406, 0.654505, 20.5487, -160.568, -92.6081, 54.7904
2.89666, 2, -37.0406, 0.654533, 20.5487, -160.568, -92.6081, 54.7904
2.90415, 2, -37.0401, 0.654553, 20.5487, -160.568, -92.6081, 54.7904
2.91218, 2, -37.0398, 0.654533, 20.5487, -160.568, -92.6082, 54.7905
2.92046, 2, -37.0395, 0.654517, 20.5487, -160.568, -92.6082, 54.7905
2.92755, 2, -37.0394, 0.654512, 20.5487, -160.568, -92.6082, 54.7905
2.93562, 2, -37.0393, 0.654507, 20.5486, -160.568, -92.6082, 54.7905
2.94447, 2, -37.0392, 0.654497, 20.5487, -160.568, -92.6082, 54.7906
2.95158, 2, -37.0392, 0.654476, 20.5486, -160.568, -92.6082, 54.7906
2.95966, 2, -37.0392, 0.654485, 20.5486, -160.568, -92.6082, 54.7907
2.96757, 2, -37.0393, 0.654464, 20.5486, -160.568, -92.6082, 54.7908
2.97557, 2, -37.0394, 0.654485, 20.5486, -160.568, -92.6082, 54.7909
2.9836, 2, -37.0395, 0.654494, 20.5486, -160.568, -92.6082, 54.791
2.99157, 2, -37.0398, 0.654517, 20.5486, -160.568, -92.6082, 54.791
2.9996, 2, -37.0399, 0.654509, 20.5486, -160.568, -92.6082, 54.791
3.0076, 2, -37.04, 0.654506, 20.5486, -160.568, -92.6083, 54.791
3.01555, 2, -37.04, 0.654504, 20.5486, -160.568, -92.6083, 54.7911
3.02366, 2, -37.04, 0.654503, 20.5486, -160.568, -92.6083, 54.7912
3.03163, 2, -37.04, 0.654503, 20.5486, -160.568, -92.6083, 54.7912
3.03961, 2, -37.0399, 0.65449, 20.5486, -160.568, -92.6083, 54.7913
3.04755, 2, -37.0399, 0.654497, 20.5485, -160.568, -92.6084, 54.7913
3.05562, 2, -37.0399, 0.6545, 20.5485, -160.568, -92.6083, 54.7914
3.06544, 2, -37.0399, 0.654486, 20.5485, -160.568, -92.6083, 54.7915
3.07156, 2, -37.0399, 0.654477, 20.5485, -160.568, -92.6083, 54.7915
3.07967, 2, -37.0398, 0.654486, 20.5485, -160.568, -92.6084, 54.7915
3.08755, 2, -37.0398, 0.654495, 20.5485, -160.568, -92.6083, 54.7916
3.09555, 2, -37.0398, 0.654499, 20.5485, -160.568, -92.6084, 54.7916
3.10366, 2, -37.0398, 0.654501, 20.5484, -160.568, -92.6083, 54.7917
3.11157, 2, -37.0398, 0.65452, 20.5484, -160.568, -92.6083, 54.7918
3.1196, 2, -37.0398, 0.654511, 20.5484, -160.568, -92.6084, 54.7917
3.12761, 2, -37.0398, 0.654506, 20.5484, -160.568, -92.6083, 54.7918
3.13557, 2, -37.0398, 0.654504, 20.5484, -160.568, -92.6084, 54.7918
3.14356, 2, -37.0398, 0.654503, 20.5484, -160.568, -92.6084, 54.7918
3.15164, 2, -37.0397, 0.654503, 20.5484, -160.568, -92.6084, 54.7919
3.1596, 2, -37.0397, 0.654503, 20.5484, -160.568, -92.6084, 54.7919
3.16755, 2, -37.0397, 0.654503, 20.5484, -160.568, -92.6084, 54.792
3.17561, 2, -37.0397, 0.654503, 20.5483, -160.568, -92.6084, 54.792
3.18356, 2, -37.0397, 0.654503, 20.5483, -160.568, -92.6084, 54.7921
3.19156, 2, -37.0396, 0.654503, 20.5483, -160.568, -92.6084, 54.7921
3.19967, 2, -37.0396, 0.654503, 20.5483, -160.568, -92.6084, 54.7922
3.20755, 2, -37.0396, 0.654503, 20.5483, -160.568, -92.6084, 54.7922
3.21556, 2, -37.0396, 0.654503, 20.5483, -160.568, -92.6084, 54.7922
3.22362, 2, -37.0396, 0.654503, 20.5483, -160.568, -92.6084, 54.7923
3.23161, 2, -37.0396, 0.654503, 20.5483, -160.568, -92.6085, 54.7923
3.2396, 2, -37.0395, 0.654503, 20.5483, -160.568, -92.6085, 54.7923
3.24765, 2, -37.0395, 0.654503, 20.5483, -160.568, -92.6085, 54.7924
3.25562, 2, -37.0395, 0.654503, 20.5483, -160.568, -92.6084, 54.7924
3.26365, 2, -37.0395, 0.654503, 20.5483, -160.568, -92.6084, 54.7925
3.27173, 2, -37.0395, 0.654503, 20.5483, -160.568, -92.6084, 54.7925
3.27969, 2, -37.0395, 0.654521, 20.5483, -160.568, -92.6084, 54.7925
3.28765, 2, -37.0395, 0.654511, 20.5482, -160.568, -92.6084, 54.7925
3.29571, 2, -37.0395, 0.654506, 20.5482, -160.568, -92.6084, 54.7925
3.30373, 2, -37.0394, 0.654504, 20.5482, -160.568, -92.6084, 54.7925
3.3116, 2, -37.0394, 0.654522, 20.5482, -160.568, -92.6084, 54.7925
3.3197, 2, -37.0394, 0.654511, 20.5482, -160.568, -92.6084, 54.7926
3.32761, 2, -37.0393, 0.654507, 20.5482, -160.568, -92.6084, 54.7926
3.33571, 2, -37.0393, 0.654515, 20.5482, -160.568, -92.6084, 54.7927
3.34387, 2, -37.0393, 0.654516, 20.5481, -160.568, -92.6085, 54.7927
3.35183, 2, -37.0393, 0.654527, 20.5481, -160.567, -92.6085, 54.7926
3.35997, 2, -37.0393, 0.654532, 20.5481, -160.567, -92.6085, 54.7927
3.36803, 2, -37.0393, 0.654516, 20.5481, -160.567, -92.6085, 54.7927
3.37456, 2, -37.0393, 0.654512, 20.5481, -160.567, -92.6085, 54.7927
3.38411, 2, -37.0393, 0.654505, 20.5481, -160.567, -92.6085, 54.7928
3.39216, 2, -37.0393, 0.654504, 20.5481, -160.567, -92.6085, 54.7928
3.40015, 2, -37.0393, 0.654503, 20.5481, -160.567, -92.6086, 54.7928
3.4082, 2, -37.0392, 0.654503, 20.5481, -160.567, -92.6085, 54.7928
3.41617, 2, -37.0392, 0.654503, 20.5481, -160.567, -92.6085, 54.7928
3.42409, 2, -37.0392, 0.654503, 20.5481, -160.567, -92.6085, 54.7928
3.43155, 2, -37.0392, 0.654503, 20.548, -160.567, -92.6085, 54.7928
3.44027, 2, -37.0392, 0.654503, 20.548, -160.567, -92.6086, 54.7929
3.44754, 2, -37.0391, 0.654503, 20.548, -160.567, -92.6086, 54.7929
3.45554, 2, -37.0391, 0.654503, 20.548, -160.567, -92.6086, 54.7929
3.46359, 2, -37.0391, 0.654503, 20.548, -160.567, -92.6085, 54.7929
3.47158, 2, -37.0391, 0.654513, 20.548, -160.567, -92.6085, 54.7929
3.47962, 2, -37.0391, 0.654515, 20.548, -160.567, -92.6085, 54.7929
3.48758, 2, -37.0391, 0.654519, 20.548, -160.567, -92.6086, 54.793
3.49553, 2, -37.0391, 0.654518, 20.548, -160.567, -92.6086, 54.793
3.50355, 2, -37.0391, 0.654509, 20.548, -160.567, -92.6086, 54.793
3.5116, 2, -37.0391, 0.654524, 20.5479, -160.567, -92.6087, 54.793
3.51959, 2, -37.0391, 0.654512, 20.5479, -160.567, -92.6086, 54.7929
3.52754, 2, -37.0391, 0.654525, 20.5479, -160.567, -92.6086, 54.793
3.5356, 2, -37.039, 0.654524, 20.5479, -160.567, -92.6086, 54.793
3.54353, 2, -37.039, 0.654549, 20.5479, -160.567, -92.6086, 54.793
3.55155, 2, -37.039, 0.654531, 20.5479, -160.567, -92.6086, 54.793
3.56054, 2, -37.0389, 0.654534, 20.5479, -160.567, -92.6086, 54.7931
3.56757, 2, -37.0389, 0.654517, 20.5479, -160.567, -92.6086, 54.7931
3.57656, 2, -37.0389, 0.654509, 20.5479, -160.567, -92.6086, 54.7931
3.58361, 2, -37.0389, 0.654524, 20.5479, -160.567, -92.6086, 54.7931
3.59155, 2, -37.0389, 0.654523, 20.5479, -160.567, -92.6086, 54.7931
3.5996, 2, -37.0388, 0.654519, 20.5479, -160.567, -92.6086, 54.7931
3.60764, 2, -37.0388, 0.65451, 20.5479, -160.567, -92.6087, 54.7931
3.61553, 2, -37.0388, 0.654506, 20.5479, -160.567, -92.6086, 54.7931
3.62354, 2, -37.0388, 0.654504, 20.5478, -160.567, -92.6086, 54.7932
3.63162, 2, -37.0388, 0.654514, 20.5478, -160.567, -92.6087, 54.7932
3.63976, 2, -37.0388, 0.654534, 20.5478, -160.567, -92.6087, 54.7932
3.64754, 2, -37.0387, 0.654535, 20.5478, -160.567, -92.6086, 54.7932
3.65569, 2, -37.0387, 0.654547, 20.5478, -160.567, -92.6087, 54.7932
3.66354, 2, -37.0387, 0.654549, 20.5478, -160.567, -92.6087, 54.7932
3.67155, 2, -37.0387, 0.654542, 20.5478, -160.567, -92.6087, 54.7931
3.67963, 2, -37.0386, 0.654539, 20.5478, -160.567, -92.6086, 54.7932
3.68753, 2, -37.0386, 0.654519, 20.5478, -160.567, -92.6086, 54.7931
3.69553, 2, -37.0387, 0.654521, 20.5478, -160.567, -92.6087, 54.7932
3.70357, 4, -37.0387, 0.654518, 20.5478, -160.567, -92.6087, 54.7932
3.71155, 4, -37.0386, 0.654539, 20.5477, -160.567, -92.6087, 54.7932
3.7196, 4, -37.0386, 0.654545, 20.5477, -160.567, -92.6087, 54.7932
3.7276, 4, -37.0386, 0.654533, 20.5477, -160.567, -92.6087, 54.7932
3.73558, 4, -37.0386, 0.654542, 20.5477, -160.567, -92.6087, 54.7932
3.74354, 4, -37.0385, 0.654532, 20.5477, -160.567, -92.6088, 54.7932
3.75166, 4, -37.0385, 0.65456, 20.5477, -160.567, -92.6087, 54.7932
3.75967, 4, -37.0385, 0.654552, 20.5477, -160.567, -92.6087, 54.7932
3.76762, 4, -37.0385, 0.654562, 20.5477, -160.567, -92.6087, 54.7932
3.77571, 4, -37.0385, 0.654556, 20.5477, -160.567, -92.6087, 54.7932
3.78364, 4, -37.0384, 0.654545, 20.5477, -160.567, -92.6087, 54.7932
3.79166, 4, -37.0384, 0.654551, 20.5477, -160.567, -92.6087, 54.7932
3.79976, 4, -37.0384, 0.654562, 20.5477, -160.567, -92.6087, 54.7932
3.80786, 4, -37.0384, 0.654555, 20.5477, -160.567, -92.6087, 54.7932
3.82987, 4, -37.0384, 0.654566, 20.5476, -160.567, -92.6088, 54.7932
3.83256, 4, -37.0384, 0.654575, 20.5476, -160.567, -92.6087, 54.7932
3.83449, 4, -37.0384, 0.654575, 20.5476, -160.567, -92.6087, 54.7932
3.84009, 4, -37.0383, 0.654559, 20.5476, -160.567, -92.6087, 54.7933
3.84926, 4, -37.0382, 0.654536, 20.5476, -160.567, -92.6087, 54.7932
3.85634, 4, -37.0375, 0.654403, 20.5476, -160.567, -92.6087, 54.7932
3.86393, 4, -37.035, 0.653485, 20.5478, -160.567, -92.6087, 54.7932
3.87198, 4, -37.0291, 0.650643, 20.5486, -160.567, -92.6088, 54.7932
3.88043, 4, -37.0196, 0.644742, 20.551, -160.567, -92.6088, 54.7932
3.88804, 4, -37.006, 0.635222, 20.5564, -160.566, -92.6088, 54.7932
3.89649, 4, -36.9878, 0.621557, 20.5661, -160.564, -92.6087, 54.7932
3.90434, 5, -36.9639, 0.603275, 20.5815, -160.561, -92.6086, 54.7932
3.91215, 5, -36.9346, 0.580617, 20.6034, -160.557, -92.6085, 54.7932
3.9203, 5, -36.9006, 0.553343, 20.6322, -160.551, -92.6081, 54.7932
3.92887, 5, -36.8619, 0.52178, 20.6676, -160.543, -92.6074, 54.7931
3.93549, 5, -36.8405, 0.504163, 20.6876, -160.539, -92.6069, 54.793
3.94358, 5, -36.7941, 0.465385, 20.7315, -160.529, -92.6056, 54.793
3.95322, 5, -36.7148, 0.399372, 20.8053, -160.512, -92.6032, 54.7929
3.95957, 5, -36.6861, 0.375583, 20.8314, -160.506, -92.6024, 54.7929
3.96759, 5, -36.6257, 0.326091, 20.885, -160.494, -92.6007, 54.7929
3.97564, 5, -36.5615, 0.274508, 20.9398, -160.482, -92.599, 54.7929
3.98355, 5, -36.4948, 0.221545, 20.9952, -160.469, -92.5971, 54.7929
3.99153, 5, -36.4269, 0.167948, 21.0506, -160.457, -92.5952, 54.7929
3.99972, 5, -36.3584, 0.114139, 21.1061, -160.445, -92.5934, 54.7929
4.00757, 5, -36.2896, 0.0602065, 21.1615, -160.433, -92.5915, 54.7929
4.01552, 5, -36.2206, 0.00641385, 21.2169, -160.421, -92.5896, 54.793
4.02369, 5, -36.1517, -0.0471763, 21.2724, -160.409, -92.5876, 54.7931
4.03234, 5, -36.0831, -0.100545, 21.3277, -160.397, -92.5857, 54.7932
4.03969, 5, -36.0145, -0.153692, 21.383, -160.384, -92.5837, 54.7932
4.04752, 5, -35.9459, -0.20665, 21.4382, -160.371, -92.5817, 54.7934
4.05652, 5, -35.8773, -0.259438, 21.4933, -160.358, -92.5797, 54.7936
4.06355, 5, -35.8085, -0.312073, 21.5483, -160.346, -92.5776, 54.7941
4.07335, 5, -35.7395, -0.364745, 21.6032, -160.333, -92.5756, 54.7953
4.08042, 5, -35.6703, -0.417369, 21.658, -160.32, -92.5736, 54.7957
4.08752, 5, -35.6008, -0.470082, 21.7126, -160.308, -92.5716, 54.7968
4.09899, 5, -35.496, -0.54925, 21.7941, -160.289, -92.5684, 54.7986
4.10368, 5, -35.4609, -0.575638, 21.8211, -160.283, -92.5674, 54.7993
4.11188, 5, -35.3906, -0.6284, 21.8751, -160.27, -92.5655, 54.8008
4.12051, 5, -35.3201, -0.681107, 21.9291, -160.257, -92.5633, 54.8026
4.1299, 5, -35.2496, -0.733762, 22.0099, -160.238, -92.5603, 54.8052
4.13552, 5, -35.179, -0.78612, 22.0367, -160.231, -92.5592, 54.8062
4.14361, 5, -35.1083, -0.838321, 22.0904, -160.217, -92.557, 54.8083
4.15171, 5, -35.0376, -0.890431, 22.1439, -160.204, -92.5549, 54.8106
4.15973, 5, -34.9671, -0.942159, 22.1972, -160.191, -92.5528, 54.8129
4.16751, 5, -34.8966, -0.99372, 22.2505, -160.178, -92.5507, 54.8153
4.17568, 5, -34.826, -1.04512, 22.3038, -160.165, -92.5484, 54.8178
4.1841, 5, -34.7555, -1.0965, 22.3567, -160.153, -92.5463, 54.8206
4.19152, 5, -34.6848, -1.14788, 22.4095, -160.14, -92.5441, 54.8233
4.1996, 5, -34.6139, -1.19911, 22.4622, -160.127, -92.5418, 54.8263
4.20759, 5, -34.5428, -1.25046, 22.5145, -160.114, -92.5396, 54.8293
4.21551, 5, -34.4716, -1.30177, 22.5668, -160.1, -92.5374, 54.8324
4.22494, 5, -34.4001, -1.35308, 22.619, -160.086, -92.5351, 54.8356
4.23196, 5, -34.3286, -1.40437, 22.671, -160.072, -92.5328, 54.8389
4.23963, 5, -34.2569, -1.45556, 22.7228, -160.059, -92.5305, 54.8424
4.24753, 5, -34.185, -1.50657, 22.7747, -160.045, -92.5283, 54.846
4.25563, 5, -34.113, -1.55734, 22.8263, -160.031, -92.5259, 54.8498
4.26361, 5, -34.0409, -1.60797, 22.8778, -160.018, -92.5236, 54.8535
4.27161, 5, -33.9687, -1.65835, 22.9292, -160.005, -92.5213, 54.8575
4.27993, 5, -33.8965, -1.7085, 22.9805, -159.991, -92.519, 54.8614
4.28762, 5, -33.8244, -1.75849, 23.0316, -159.977, -92.5167, 54.8655
4.29562, 5, -33.7522, -1.80839, 23.0826, -159.964, -92.5144, 54.8697
4.30386, 5, -33.6799, -1.85821, 23.1334, -159.949, -92.5121, 54.8739
4.31281, 5, -33.6075, -1.90798, 23.1839, -159.935, -92.5099, 54.8782
4.31962, 5, -33.5348, -1.95798, 23.2344, -159.921, -92.5076, 54.8825
4.32762, 5, -33.4621, -2.00829, 23.2848, -159.907, -92.5053, 54.8865
4.33657, 5, -33.3893, -2.05895, 23.3352, -159.893, -92.503, 54.8896
4.34364, 5, -33.3168, -2.11007, 23.3856, -159.878, -92.5005, 54.8912
4.35207, 6, -33.2445, -2.16175, 23.4364, -159.864, -92.498, 54.8915
4.36085, 6, -33.1726, -2.21434, 23.4874, -159.849, -92.4949, 54.8897
4.3679, 6, -33.1011, -2.26786, 23.5392, -159.834, -92.4912, 54.8848
4.37603, 6, -33.03, -2.3223, 23.5919, -159.817, -92.4865, 54.8745
4.38488, 7, -32.9593, -2.37796, 23.6457, -159.799, -92.4803, 54.8605
4.3921, 7, -32.8892, -2.43483, 23.7007, -159.78, -92.4724, 54.8441
4.40104, 7, -32.8197, -2.49316, 23.7571, -159.759, -92.4626, 54.8267
4.40905, 7, -32.7507, -2.55296, 23.8149, -159.737, -92.4509, 54.8093
4.4161, 7, -32.7165, -2.61439, 23.8739, -159.714, -92.4371, 54.7923
4.42492, 8, -32.6485, -2.64569, 23.9039, -159.69, -92.4216, 54.7756
4.43218, 8, -32.5813, -2.70959, 23.9647, -159.678, -92.4041, 54.7586
4.43952, 8, -32.5147, -2.77517, 24.0265, -159.651, -92.3947, 54.7497
4.45004, 8, -32.4162, -2.87645, 24.1213, -159.61, -92.3641, 54.7212
4.45637, 8, -32.3837, -2.91095, 24.1533, -159.596, -92.3532, 54.711
4.46351, 9, -32.3191, -2.98097, 24.2182, -159.568, -92.3308, 54.689
4.4715, 9, -32.255, -3.05227, 24.284, -159.538, -92.3072, 54.6653
4.48226, 9, -32.16, -3.16178, 24.3846, -159.49, -92.2692, 54.6268
4.48753, 9, -32.1286, -3.19889, 24.4186, -159.474, -92.2556, 54.6134
4.49567, 9, -32.0663, -3.2741, 24.4874, -159.442, -92.2271, 54.5856
4.50362, 10, -32.0045, -3.35059, 24.5572, -159.408, -92.1974, 54.5562
4.51149, 10, -31.9433, -3.42849, 24.628, -159.373, -92.1667, 54.525
4.51955, 10, -31.8827, -3.50783, 24.6999, -159.337, -92.1347, 54.4916
4.52767, 10, -31.8225, -3.58852, 24.7729, -159.301, -92.1008, 54.4566
4.53556, 10, -31.763, -3.67069, 24.8469, -159.264, -92.0652, 54.4206
4.54351, 11, -31.7041, -3.75426, 24.9219, -159.225, -92.029, 54.3834
4.55316, 11, -31.6456, -3.83938, 24.9979, -159.185, -91.9722, 54.324
4.55961, 11, -31.5877, -3.92601, 25.0747, -159.145, -91.9521, 54.3032
4.5675, 11, -31.5303, -4.01406, 25.1525, -159.104, -91.9112, 54.2606
4.57666, 11, -31.4735, -4.10358, 25.2314, -159.061, -91.8696, 54.217
4.58374, 12, -31.4173, -4.19462, 25.3113, -159.018, -91.8263, 54.1719
4.59151, 12, -31.3614, -4.28707, 25.3924, -158.975, -91.7809, 54.1246
4.6007, 12, -31.3061, -4.38088, 25.4745, -158.929, -91.735, 54.0757
4.61039, 12, -31.2514, -4.47598, 25.5576, -158.86, -91.6633, 54.0004
4.61559, 12, -31.197, -4.5725, 25.6418, -158.837, -91.6384, 53.9745
4.62429, 13, -31.1433, -4.67045, 25.7268, -158.788, -91.5885, 53.9209
4.63151, 13, -31.0901, -4.76976, 25.8128, -158.739, -91.537, 53.8663
4.63957, 13, -31.0373, -4.87057, 25.8999, -158.69, -91.4834, 53.8106
4.65096, 13, -30.9592, -5.02467, 26.0325, -158.613, -91.402, 53.7234
4.65568, 13, -30.9334, -5.07672, 26.0773, -158.588, -91.3737, 53.6937
4.66446, 14, -30.8822, -5.18189, 26.1676, -158.536, -91.3166, 53.6337
4.67157, 14, -30.8317, -5.28858, 26.2589, -158.482, -91.2587, 53.5715
4.67969, 14, -30.7817, -5.39675, 26.3513, -158.428, -91.1984, 53.5081
4.68754, 14, -30.7321, -5.5064, 26.4444, -158.373, -91.138, 53.4441
4.69551, 14, -30.6831, -5.61761, 26.5385, -158.316, -91.0755, 53.3776
4.70355, 14, -30.6347, -5.73024, 26.6337, -158.26, -91.0117, 53.3098
4.71153, 15, -30.5866, -5.8443, 26.73, -158.201, -90.9467, 53.2412
4.7195, 15, -30.5392, -5.9596, 26.8276, -158.143, -90.8799, 53.1702
4.72771, 15, -30.4922, -6.07624, 26.9262, -158.083, -90.8127, 53.0986
4.73576, 15, -30.4457, -6.19445, 27.0257, -158.022, -90.7431, 53.0251
4.74361, 15, -30.3997, -6.31393, 27.126, -157.961, -90.6729, 52.9496
4.75152, 16, -30.3542, -6.43505, 27.2273, -157.898, -90.6005, 52.8736
4.75955, 16, -30.3094, -6.55767, 27.3297, -157.835, -90.5279, 52.7949
4.76765, 16, -30.2649, -6.68162, 27.4333, -157.771, -90.4532, 52.7158
4.77606, 16, -30.2209, -6.80709, 27.5381, -157.706, -90.3776, 52.6348
4.78449, 16, -30.1775, -6.93407, 27.6439, -157.64, -90.3003, 52.5525
4.7916, 17, -30.1344, -7.06265, 27.7504, -157.573, -90.2221, 52.4692
4.80178, 17, -30.0919, -7.19284, 27.8578, -157.505, -90.1424, 52.3843
4.80784, 17, -30.0499, -7.32447, 27.9662, -157.436, -90.0611, 52.2986
4.81657, 17, -30.0084, -7.45736, 28.0758, -157.367, -89.9788, 52.2107
4.82362, 17, -29.9674, -7.5916, 28.1866, -157.296, -89.8951, 52.1223
4.83159, 18, -29.927, -7.72733, 28.2986, -157.225, -89.8101, 52.032
4.83965, 18, -29.887, -7.86448, 28.4114, -157.152, -89.7236, 51.941
4.84765, 18, -29.8476, -8.00303, 28.5249, -157.079, -89.6364, 51.8478
4.85613, 18, -29.8085, -8.14271, 28.6395, -157.005, -89.5477, 51.7539
4.86383, 18, -29.7698, -8.28377, 28.7552, -156.93, -89.4575, 51.6581
4.87198, 19, -29.7317, -8.42623, 28.8723, -156.854, -89.3665, 51.5615
4.88004, 19, -29.6941, -8.57028, 28.9904, -156.777, -89.274, 51.4634
4.88798, 19, -29.6568, -8.71588, 29.1092, -156.7, -89.1801, 51.3647
4.89675, 19, -29.62, -8.86273, 29.2288, -156.621, -89.0854, 51.2646
4.90445, 19, -29.5838, -9.01081, 29.3493, -156.542, -88.9895, 51.1636
4.91209, 20, -29.5482, -9.16042, 29.471, -156.461, -88.8923, 51.061
4.92112, 20, -29.5128, -9.31158, 29.594, -156.38, -88.7943, 50.9573
4.92835, 20, -29.4953, -9.46422, 29.7179, -156.298, -88.6952, 50.8526
4.93766, 20, -29.4606, -9.61789, 29.8425, -156.215, -88.5947, 50.7463
4.94356, 20, -29.4265, -9.69516, 29.9052, -156.173, -88.5443, 50.693
4.95243, 21, -29.3928, -9.85069, 30.0946, -156.046, -88.391, 50.5308
4.95949, 21, -29.3596, -10.0078, 30.1583, -156.003, -88.3392, 50.4763
4.96754, 21, -29.3267, -10.1664, 30.2865, -155.917, -88.2352, 50.3662
4.97569, 21, -29.2943, -10.3261, 30.4156, -155.83, -88.1301, 50.2555
4.98536, 21, -29.2623, -10.4867, 30.5456, -155.698, -87.9703, 50.0879
4.99154, 21, -29.2307, -10.6486, 30.6765, -155.654, -87.9167, 50.0314
4.99949, 22, -29.1995, -10.8119, 30.8083, -155.564, -87.8085, 49.9181
5.00893, 22, -29.1534, -11.0591, 31.0077, -155.428, -87.6444, 49.7464
5.01549, 22, -29.1383, -11.142, 31.0747, -155.383, -87.5892, 49.6885
5.02596, 22, -29.0934, -11.3923, 31.2769, -155.244, -87.4218, 49.5141
5.03171, 22, -29.0786, -11.4765, 31.3448, -155.198, -87.3657, 49.4555
5.03949, 23, -29.0493, -11.6463, 31.4811, -155.104, -87.2527, 49.3379
5.0475, 23, -29.0203, -11.8171, 31.6183, -155.009, -87.1386, 49.2196
5.05564, 23, -28.9918, -11.9886, 31.7562, -154.913, -87.0239, 49.1006
5.06446, 23, -28.9637, -12.1613, 31.895, -154.817, -86.9082, 48.9811
5.07159, 23, -28.936, -12.3356, 32.0347, -154.72, -86.7915, 48.8609
5.08054, 24, -28.9086, -12.5111, 32.1754, -154.621, -86.6739, 48.7402
5.08751, 24, -28.8814, -12.687, 32.3169, -154.522, -86.5553, 48.6191
5.09555, 24, -28.8546, -12.8636, 32.4588, -154.422, -86.4361, 48.4972
5.10364, 24, -28.8283, -13.0418, 32.6017, -154.322, -86.3158, 48.3747
5.11247, 24, -28.8022, -13.2215, 32.7457, -154.22, -86.195, 48.2517
5.1195, 25, -28.7764, -13.4017, 32.8903, -154.118, -86.0734, 48.1284
5.12751, 25, -28.751, -13.5825, 33.0356, -154.015, -85.9509, 48.0049
5.13556, 25, -28.7257, -13.7645, 33.1813, -153.911, -85.8282, 47.8815
5.14348, 25, -28.7006, -13.9482, 33.3279, -153.807, -85.7041, 47.7577
5.15168, 25, -28.6759, -14.1324, 33.4754, -153.701, -85.5799, 47.6338
5.15971, 26, -28.6514, -14.317, 33.6235, -153.594, -85.4549, 47.5099
5.1675, 26, -28.6273, -14.5027, 33.7721, -153.488, -85.3292, 47.3856
5.1765, 26, -28.6035, -14.69, 33.9213, -153.38, -85.2033, 47.2612
5.1846, 26, -28.5798, -14.8779, 34.0715, -153.271, -85.0763, 47.1369
5.19151, 26, -28.5561, -15.0659, 34.2222, -153.162, -84.9491, 47.0127
5.20047, 27, -28.5328, -15.2545, 34.3733, -153.052, -84.8212, 46.8888
5.20767, 27, -28.5098, -15.4443, 34.5249, -152.942, -84.693, 46.7655
5.21551, 27, -28.4869, -15.6345, 34.6772, -152.83, -84.564, 46.6421
5.22694, 27, -28.4529, -15.9204, 34.9071, -152.662, -84.37, 46.4577
5.23171, 27, -28.4417, -16.0163, 34.9838, -152.605, -84.3051, 46.3965
5.23945, 28, -28.4195, -16.2094, 35.1373, -152.492, -84.1751, 46.2741
5.24771, 28, -28.3971, -16.4031, 35.2914, -152.378, -84.0446, 46.1521
5.25569, 28, -28.3749, -16.597, 35.4465, -152.263, -83.9136, 46.0306
5.2645, 28, -28.3529, -16.7919, 35.602, -152.148, -83.7826, 45.9098
5.27158, 28, -28.3309, -16.9878, 35.7575, -152.032, -83.651, 45.7897
5.27979, 29, -28.3088, -17.1836, 35.9133, -151.915, -83.5195, 45.6707
5.28799, 29, -28.2869, -17.3794, 36.0698, -151.797, -83.3874, 45.5523
5.2956, 29, -28.2651, -17.5761, 36.2268, -151.679, -83.2551, 45.4349
5.30444, 29, -28.2432, -17.7734, 36.3838, -151.561, -83.1224, 45.3187
5.31179, 29, -28.2215, -17.9706, 36.5408, -151.442, -82.9896, 45.2031
5.31954, 29, -28.2, -18.1679, 36.6986, -151.322, -82.8566, 45.0891
5.32838, 30, -28.1784, -18.3662, 36.8569, -151.202, -82.7234, 44.9761
5.33552, 30, -28.1568, -18.5648, 37.0151, -151.081, -82.5903, 44.8643
5.34441, 30, -28.1352, -18.7633, 37.1731, -150.959, -82.4567, 44.7541
5.35206, 30, -28.1137, -18.9626, 37.3315, -150.837, -82.3234, 44.6453
5.36074, 30, -28.092, -19.163, 37.4906, -150.715, -82.1892, 44.5384
5.36863, 31, -28.0702, -19.3636, 37.6497, -150.592, -82.0556, 44.4325
5.37732, 31, -28.0487, -19.5639, 37.8086, -150.468, -81.9215, 44.3284
5.388, 31, -28.0164, -19.8651, 38.0479, -150.281, -81.7206, 44.1754
5.39207, 31, -28.0056, -19.9658, 38.128, -150.218, -81.6534, 44.1248
5.40002, 31, -27.9839, -20.1666, 38.2882, -150.093, -81.519, 44.0252
5.40878, 32, -27.9623, -20.3675, 38.448, -149.966, -81.3846, 43.9271
5.41612, 32, -27.9404, -20.569, 38.6079, -149.84, -81.2503, 43.8312
5.42413, 32, -27.9293, -20.7708, 38.7684, -149.712, -81.1159, 43.7371
5.43237, 32, -27.9071, -20.9722, 38.929, -149.584, -80.9813, 43.6456
5.43946, 32, -27.8847, -21.0728, 39.0091, -149.52, -80.9143, 43.6008
5.44756, 33, -27.8619, -21.2741, 39.1686, -149.392, -80.7803, 43.513
5.4555, 33, -27.8389, -21.4751, 39.3281, -149.264, -80.6467, 43.4289
5.46348, 33, -27.8154, -21.6752, 39.4877, -149.135, -80.5135, 43.3472
5.47153, 33, -27.7914, -21.8746, 39.6464, -149.007, -80.3808, 43.2696
5.47964, 33, -27.7668, -22.0742, 39.804, -148.879, -80.2487, 43.195
5.48748, 34, -27.7419, -22.2731, 39.961, -148.752, -80.117, 43.1241
5.4955, 34, -27.7164, -22.4709, 40.1179, -148.624, -79.9861, 43.057
5.50366, 34, -27.6904, -22.6681, 40.2743, -148.496, -79.8552, 42.9924
5.51527, 34, -27.6508, -22.9635, 40.5072, -148.305, -79.6595, 42.9026
5.51946, 34, -27.6374, -23.0617, 40.5847, -148.241, -79.5943, 42.8743
5.52752, 35, -27.61, -23.2574, 40.7399, -148.113, -79.4642, 42.8197
5.53548, 35, -27.5826, -23.4533, 40.8949, -147.984, -79.3339, 42.7685
5.54348, 35, -27.5549, -23.6495, 41.0492, -147.855, -79.204, 42.7213
5.55392, 35, -27.5128, -23.9428, 41.2802, -147.661, -79.0092, 42.6564
5.56124, 35, -27.4987, -24.0402, 41.3572, -147.596, -78.9444, 42.6363
5.56744, 36, -27.47, -24.2354, 41.5113, -147.466, -78.815, 42.5988
5.57648, 36, -27.441, -24.4303, 41.6648, -147.335, -78.6853, 42.5655
5.5837, 36, -27.4117, -24.6243, 41.8177, -147.205, -78.5564, 42.5365
5.5915, 36, -27.3819, -24.8175, 41.9703, -147.074, -78.4275, 42.5117
5.5995, 36, -27.3516, -25.0107, 42.1225, -146.943, -78.2992, 42.4912
5.60772, 37, -27.3203, -25.2035, 42.2738, -146.812, -78.1713, 42.475
5.61552, 37, -27.2882, -25.3948, 42.424, -146.682, -78.0438, 42.4635
5.6235, 37, -27.2554, -25.5852, 42.5732, -146.552, -77.9168, 42.4568
5.63163, 37, -27.2217, -25.7749, 42.7216, -146.422, -77.7901, 42.4539
5.64285, 37, -27.1694, -26.0569, 42.9422, -146.229, -77.6011, 42.4559
5.64747, 37, -27.1515, -26.15, 43.0151, -146.165, -77.5382, 42.4597
5.65556, 38, -27.115, -26.3352, 43.1598, -146.038, -77.4132, 42.4719
5.66351, 38, -27.0778, -26.5197, 43.3037, -145.911, -77.2887, 42.4893
5.67148, 38, -27.0397, -26.703, 43.4468, -145.784, -77.1647, 42.5123
5.67964, 38, -27.0008, -26.8847, 43.5888, -145.658, -77.0411, 42.5408
5.68776, 38, -26.9611, -27.0656, 43.7299, -145.532, -76.9179, 42.5751
5.69548, 39, -26.9207, -27.2464, 43.8701, -145.406, -76.7954, 42.6156
5.70481, 39, -26.8796, -27.4262, 44.0095, -145.28, -76.6726, 42.662
5.71344, 39, -26.8376, -27.6047, 44.1483, -145.154, -76.5503, 42.7136
5.71956, 39, -26.795, -27.7824, 44.2862, -145.028, -76.4279, 42.7713
5.72833, 39, -26.7516, -27.96, 44.423, -144.903, -76.3056, 42.8358
5.73548, 40, -26.7072, -28.1368, 44.5588, -144.778, -76.1834, 42.9056
5.74356, 40, -26.6618, -28.3118, 44.6938, -144.653, -76.0612, 42.9823
5.75342, 40, -26.6156, -28.4855, 44.8276, -144.529, -75.9397, 43.0655
5.76049, 40, -26.5683, -28.6581, 44.9599, -144.406, -75.8181, 43.1546
5.76756, 40, -26.5198, -28.8293, 45.0907, -144.284, -75.6974, 43.2511
5.77557, 41, -26.4701, -28.9984, 45.22, -144.162, -75.5771, 43.3538
5.78549, 41, -26.4193, -29.1656, 45.3478, -144.042, -75.4571, 43.4633
5.79253, 41, -26.3672, -29.3316, 45.4741, -143.923, -75.338, 43.5793
5.79989, 41, -26.3137, -29.4963, 45.5988, -143.805, -75.2191, 43.7024
5.80774, 41, -26.259, -29.659, 45.7218, -143.689, -75.1011, 43.8326
5.81647, 42, -26.2028, -29.8199, 45.8429, -143.573, -74.9833, 43.9699
5.82445, 42, -26.1453, -29.9792, 45.9624, -143.459, -74.8658, 44.1149
5.83181, 42, -26.0863, -30.137, 46.08, -143.346, -74.7493, 44.2669
5.84048, 42, -26.0259, -30.2928, 46.196, -143.235, -74.6326, 44.4263
5.84765, 42, -25.9641, -30.4463, 46.3102, -143.125, -74.5167, 44.593
5.85592, 43, -25.9008, -30.5977, 46.4224, -143.017, -74.4011, 44.7671
5.86455, 43, -25.8359, -30.7471, 46.5325, -142.911, -74.2859, 44.9494
5.87182, 43, -25.7693, -30.8945, 46.6405, -142.806, -74.1712, 45.1393
5.88155, 43, -25.7011, -31.0396, 46.7465, -142.704, -74.0567, 45.337
5.89032, 43, -25.6312, -31.1822, 46.8506, -142.603, -73.9428, 45.5423
5.89606, 43, -25.5596, -31.3227, 46.9525, -142.505, -73.8295, 45.7552
5.907, 44, -25.4862, -31.4608, 47.0522, -142.408, -73.7165, 45.976
5.91237, 44, -25.4108, -31.5966, 47.1492, -142.314, -73.6042, 46.2049
5.92089, 44, -25.3335, -31.7299, 47.2437, -142.222, -73.4921, 46.4416
5.92809, 44, -25.2544, -31.8603, 47.3357, -142.133, -73.3807, 46.6866
5.9363, 44, -25.2141, -31.9245, 47.3809, -142.089, -73.3253, 46.9397
5.94347, 45, -25.1322, -32.0509, 47.4693, -142.004, -73.2148, 47.0695
5.95151, 45, -25.0483, -32.1744, 47.5553, -141.922, -73.1049, 47.3355
5.96032, 45, -24.9623, -32.2951, 47.6385, -141.843, -72.9958, 47.7499
5.96743, 45, -24.8743, -32.4129, 47.7186, -141.766, -72.8872, 47.892
5.97547, 45, -24.784, -32.5276, 47.7957, -141.693, -72.7797, 48.1827
5.98348, 46, -24.6913, -32.6391, 47.8698, -141.623, -72.6729, 48.4822
5.99149, 46, -24.5964, -32.7473, 47.941, -141.557, -72.5667, 48.7901
5.99953, 46, -24.4989, -32.8522, 48.0091, -141.493, -72.4617, 49.1062
6.00899, 46, -24.3487, -33.0028, 48.1055, -141.406, -72.3055, 49.5969
6.01692, 46, -24.2975, -33.0511, 48.1359, -141.379, -72.2029, 49.9344
6.02346, 47, -24.1932, -33.145, 48.194, -141.328, -72.1518, 50.1062
6.0342, 47, -24.0323, -33.2782, 48.2745, -141.258, -72.0001, 50.6342
6.03953, 47, -23.9772, -33.3206, 48.2995, -141.237, -71.9503, 50.8144
6.04747, 47, -23.8652, -33.4021, 48.3467, -141.198, -71.8513, 51.1809
6.05547, 47, -23.7505, -33.4794, 48.39, -141.164, -71.7533, 51.556
6.06369, 48, -23.6329, -33.5524, 48.4294, -141.135, -71.6566, 51.9394
6.07146, 48, -23.5126, -33.6209, 48.4647, -141.11, -71.5617, 52.3304
6.08047, 48, -23.3898, -33.6847, 48.4957, -141.089, -71.4681, 52.7302
6.08751, 48, -23.2645, -33.7437, 48.5228, -141.074, -71.3763, 53.1388
6.09554, 48, -23.1366, -33.7977, 48.5456, -141.064, -71.2867, 53.5554
6.10342, 49, -23.0057, -33.8465, 48.5641, -141.059, -71.1988, 53.9804
6.11166, 49, -22.8721, -33.8902, 48.5781, -141.058, -71.1126, 54.413
6.12044, 49, -22.7354, -33.9284, 48.5875, -141.062, -71.0289, 54.8534
6.12749, 49, -22.5959, -33.9609, 48.5922, -141.073, -70.9469, 55.3019
6.1357, 49, -22.4536, -33.9879, 48.5926, -141.09, -70.8674, 55.7582
6.14448, 50, -22.3085, -34.0089, 48.5881, -141.113, -70.7904, 56.2233
6.15246, 50, -22.1607, -34.0237, 48.5784, -141.142, -70.7164, 56.6959
6.15949, 50, -22.0102, -34.0323, 48.5634, -141.177, -70.6451, 57.1773
6.16755, 50, -21.8569, -34.0349, 48.5431, -141.218, -70.5773, 57.6676
6.1755, 50, -21.7004, -34.0314, 48.5173, -141.267, -70.5123, 58.1658
6.18364, 51, -21.5408, -34.0212, 48.4858, -141.321, -70.452, 58.6714
6.19175, 51, -21.3783, -34.0043, 48.449, -141.381, -70.394, 59.183
6.19946, 51, -21.2131, -33.9804, 48.4068, -141.448, -70.3404, 59.7007
6.2088, 51, -21.0454, -33.9494, 48.359, -141.521, -70.2905, 60.2238
6.21561, 51, -20.8752, -33.9115, 48.3057, -141.6, -70.2435, 60.7521
6.22354, 51, -20.7024, -33.8662, 48.2467, -141.685, -70.2011, 61.2847
6.23147, 52, -20.5271, -33.813, 48.1819, -141.777, -70.1635, 61.8232
6.24039, 52, -20.3491, -33.7521, 48.1112, -141.874, -70.1301, 62.3674
6.25358, 52, -20.0768, -33.6455, 47.9939, -142.032, -70.0885, 63.1952
6.25693, 52, -19.9848, -33.6058, 47.9516, -142.088, -70.0773, 63.4737
6.26447, 52, -19.7989, -33.52, 47.8623, -142.205, -70.0589, 64.036
6.27155, 53, -19.6108, -33.4255, 47.7667, -142.327, -70.0462, 64.6045
6.27956, 53, -19.4207, -33.3227, 47.6648, -142.457, -70.0391, 65.1791
6.28855, 53, -19.2284, -33.2115, 47.5566, -142.592, -70.037, 65.7579
6.29573, 53, -19.0342, -33.092, 47.4424, -142.733, -70.0403, 66.3418
6.30445, 53, -18.8382, -32.9639, 47.3218, -142.879, -70.0499, 66.9298
6.31425, 54, -18.6402, -32.8272, 47.1951, -143.031, -70.066, 67.52
6.32059, 54, -18.4403, -32.6821, 47.0626, -143.187, -70.0888, 68.1113
6.32783, 54, -18.2384, -32.5286, 46.9245, -143.348, -70.1184, 68.7044
6.33551, 54, -18.0348, -32.3667, 46.7809, -143.513, -70.1542, 69.2989
6.34447, 54, -17.8302, -32.1958, 46.6314, -143.683, -70.1962, 69.8947
6.35164, 55, -17.6247, -32.0155, 46.4757, -143.857, -70.2466, 70.4928
6.3597, 55, -17.4179, -31.8261, 46.3139, -144.036, -70.3043, 71.0952
6.36776, 55, -17.2097, -31.6276, 46.1456, -144.22, -70.3699, 71.702
6.37586, 55, -16.9998, -31.419, 45.97, -144.409, -70.4446, 72.3126
6.3839, 55, -16.7881, -31.1999, 45.7869, -144.603, -70.5277, 72.9277
6.39267, 56, -16.575, -30.9709, 45.5976, -144.802, -70.6201, 73.5472
6.40123, 56, -16.3606, -30.7317, 45.4015, -145.004, -70.7209, 74.1693
6.40801, 56, -16.1457, -30.4816, 45.1977, -145.211, -70.8308, 74.7926
6.41627, 56, -15.9309, -30.2213, 44.9876, -145.42, -70.9497, 75.4178
6.42502, 56, -15.7165, -29.9507, 44.772, -145.632, -71.0776, 76.0444
6.43203, 57, -15.609, -29.8112, 44.6616, -145.739, -71.215, 76.6712
6.44018, 57, -15.3931, -29.5245, 44.4351, -145.956, -71.3618, 77.2993
6.44822, 57, -15.176, -29.2276, 44.0835, -146.285, -71.5191, 77.9292
6.45544, 57, -14.9581, -28.9203, 43.9627, -146.396, -71.6013, 78.2445
6.46509, 57, -14.6312, -28.4426, 43.5914, -146.731, -71.8633, 79.1892
6.47259, 58, -14.414, -28.114, 43.3378, -146.956, -72.0495, 79.8177
6.4795, 58, -14.3057, -27.9469, 43.2091, -147.068, -72.1457, 80.131
6.48751, 58, -14.0901, -27.6063, 42.9491, -147.292, -72.3441, 80.7538
6.4976, 58, -13.876, -27.2585, 42.5535, -147.624, -72.6554, 81.6757
6.50347, 58, -13.6634, -26.9037, 42.4201, -147.734, -72.7626, 81.9799
6.51146, 58, -13.4521, -26.5429, 42.1519, -147.952, -72.9818, 82.5833
6.51961, 59, -13.2424, -26.1757, 41.8805, -148.167, -73.2077, 83.1795
6.52745, 59, -13.0347, -25.8025, 41.6065, -148.38, -73.4405, 83.7695
6.53551, 59, -12.8288, -25.4224, 41.3296, -148.591, -73.6806, 84.3547
6.54529, 59, -12.5224, -24.8401, 40.9081, -148.904, -74.0551, 85.2235
6.55152, 59, -12.4208, -24.6421, 40.7658, -149.007, -74.1841, 85.5107
6.55945, 60, -12.2184, -24.2409, 40.4776, -149.212, -74.4485, 86.0826
6.56762, 60, -12.0174, -23.8325, 40.1858, -149.415, -74.7218, 86.6516
6.57627, 60, -11.8176, -23.4175, 39.8901, -149.616, -75.004, 87.2177
6.58345, 60, -11.6194, -22.9957, 39.5915, -149.815, -75.295, 87.7794
6.59147, 60, -11.4233, -22.5689, 39.2901, -150.011, -75.5939, 88.337
6.59951, 61, -11.2295, -22.1379, 38.9869, -150.204, -75.8998, 88.8891
6.60748, 61, -11.0379, -21.702, 38.6823, -150.393, -76.2116, 89.4339
6.61656, 61, -10.8484, -21.262, 38.3768, -150.576, -76.5278, 89.9692
6.6236, 61, -10.6613, -20.8179, 38.0716, -150.755, -76.8487, 90.4956
6.63153, 61, -10.4763, -20.3696, 37.7661, -150.928, -77.1735, 91.0128
6.64024, 62, -10.2939, -19.9177, 37.4611, -151.097, -77.5027, 91.5212
6.64747, 62, -10.1143, -19.4623, 37.1552, -151.261, -77.837, 92.0214
6.65555, 62, -9.93716, -19.0041, 36.849, -151.42, -78.1768, 92.514
6.66695, 62, -9.67643, -18.3112, 36.3871, -151.652, -78.6976, 93.2407
6.67158, 62, -9.59068, -18.079, 36.233, -151.726, -78.8741, 93.4794
6.67942, 63, -9.42071, -17.6135, 35.9242, -151.873, -79.2311, 93.9513
6.68753, 63, -9.25284, -17.1459, 35.6159, -152.014, -79.593, 94.4141
6.69545, 63, -9.08733, -16.6769, 35.3085, -152.151, -79.9587, 94.8675
6.70353, 63, -8.92441, -16.2066, 35.0022, -152.282, -80.3275, 95.3112
6.71145, 63, -8.76424, -15.7352, 34.6976, -152.407, -80.6984, 95.7435
6.71962, 64, -8.60679, -15.2634, 34.3952, -152.526, -81.0708, 96.1649
6.72755, 64, -8.45213, -14.792, 34.0962, -152.64, -81.4441, 96.5737
6.73545, 64, -8.30019, -14.3207, 33.799, -152.748, -81.8181, 96.9706
6.74353, 64, -8.15077, -13.8504, 33.5048, -152.85, -82.1927, 97.3557
6.75145, 64, -8.0039, -13.3813, 33.2126, -152.946, -82.5681, 97.7284
6.75948, 64, -7.85971, -12.9137, 32.9234, -153.036, -82.9442, 98.0885
6.76825, 65, -7.71807, -12.4484, 32.6369, -153.121, -83.3211, 98.4366
6.77766, 65, -7.57925, -11.9848, 32.3533, -153.2, -83.699, 98.7717
6.78386, 65, -7.44343, -11.5229, 32.0732, -153.274, -84.0778, 99.0936
6.79249, 65, -7.31031, -11.0623, 31.7956, -153.342, -84.4574, 99.4027
6.80058, 65, -7.17992, -10.6032, 31.5216, -153.404, -84.838, 99.6987
6.80817, 66, -7.05198, -10.1463, 31.25, -153.461, -85.2187, 99.9804
6.81774, 66, -6.92608, -9.69203, 30.9817, -153.513, -85.6, 100.247
6.82367, 66, -6.8022, -9.24157, 30.7172, -153.559, -85.9812, 100.499
6.83148, 66, -6.68053, -8.79612, 30.4558, -153.6, -86.3611, 100.735
6.8399, 67, -6.56119, -8.35554, 30.1991, -153.635, -86.7388, 100.954
6.84794, 67, -6.44441, -7.9205, 29.9473, -153.665, -87.1132, 101.157
6.85575, 67, -6.33044, -7.49077, 29.7013, -153.689, -87.4834, 101.341
6.86365, 67, -6.2193, -7.06657, 29.4624, -153.707, -87.8485, 101.508
6.87212, 67, -6.11063, -6.64726, 29.2295, -153.719, -88.2086, 101.657
6.8798, 67, -6.00439, -6.23362, 29.0025, -153.727, -88.564, 101.788
6.88784, 68, -5.90022, -5.82602, 28.7816, -153.73, -88.9156, 101.902
6.89599, 68, -5.7979, -5.42425, 28.5647, -153.729, -89.2647, 101.997
6.90455, 68, -5.6972, -5.02865, 28.3516, -153.723, -89.6123, 102.076
6.91197, 68, -5.5982, -4.63898, 28.1425, -153.712, -89.9587, 102.135
6.92022, 68, -5.50089, -4.25586, 27.9368, -153.697, -90.3034, 102.176
6.92849, 69, -5.40546, -3.87772, 27.735, -153.678, -90.6461, 102.199
6.93608, 69, -5.35848, -3.69051, 27.6362, -153.654, -90.9863, 102.206
6.94504, 69, -5.22024, -3.13542, 27.3474, -153.625, -91.3228, 102.193
6.95249, 69, -5.13059, -2.77094, 27.1601, -153.592, -91.6559, 102.159
6.95949, 69, -5.0864, -2.59003, 27.0683, -153.574, -91.8212, 102.135
6.96742, 70, -4.99923, -2.23075, 26.8884, -153.536, -92.1496, 102.07
6.97558, 70, -4.91327, -1.87592, 26.7124, -153.494, -92.4761, 101.985
6.98349, 70, -4.82843, -1.52586, 26.5392, -153.448, -92.8017, 101.877
6.99148, 70, -4.7445, -1.18158, 26.3694, -153.399, -93.1269, 101.747
6.99958, 70, -4.66162, -0.842158, 26.2034, -153.347, -93.452, 101.594
7.00749, 71, -4.57968, -0.508552, 26.0403, -153.291, -93.7763, 101.418
7.01544, 71, -4.49878, -0.180192, 25.8804, -153.234, -94.0992, 101.221
7.02357, 71, -4.41893, 0.142234, 25.7255, -153.172, -94.4196, 101.002
7.03144, 71, -4.34002, 0.459386, 25.5757, -153.109, -94.7368, 100.762
7.0395, 71, -4.26194, 0.771717, 25.4306, -153.043, -95.0504, 100.5
7.04761, 72, -4.18486, 1.07775, 25.2901, -152.976, -95.3602, 100.219
7.05789, 72, -4.10834, 1.52508, 25.0874, -152.871, -95.8187, 99.7587
7.06353, 72, -4.03194, 1.67067, 25.0216, -152.836, -95.97, 99.5947
7.07381, 72, -3.95578, 1.95722, 24.8926, -152.764, -96.271, 99.2509
7.07949, 72, -3.87962, 2.23752, 24.7667, -152.691, -96.5695, 98.886
7.08749, 72, -3.80346, 2.51081, 24.6438, -152.618, -96.8656, 98.4993
7.09559, 73, -3.72739, 2.778, 24.5242, -152.544, -97.1588, 98.0909
7.10557, 73, -3.61307, 3.16606, 24.3517, -152.433, -97.5928, 97.4383
7.11244, 73, -3.57485, 3.29191, 24.2961, -152.397, -97.7356, 97.2102
7.12173, 73, -3.45978, 3.65972, 24.1358, -152.287, -98.1578, 96.4974
7.12758, 73, -3.42129, 3.77847, 24.0845, -152.252, -98.2963, 96.2501
7.13552, 74, -3.34379, 4.00928, 23.9851, -152.181, -98.5698, 95.7424
7.14345, 74, -3.26558, 4.23162, 23.8897, -152.112, -98.8376, 95.2187
7.15143, 74, -3.18669, 4.44529, 23.7984, -152.044, -99.0996, 94.6806
7.15949, 74, -3.10712, 4.6491, 23.7113, -151.978, -99.3553, 94.1303
7.1675, 74, -3.02686, 4.84324, 23.6284, -151.915, -99.604, 93.5679
7.1756, 75, -2.94571, 5.02813, 23.5497, -151.854, -99.8451, 92.9951
7.18447, 75, -2.86357, 5.20304, 23.4751, -151.796, -100.078, 92.4134
7.19149, 75, -2.78043, 5.36708, 23.4042, -151.741, -100.303, 91.8231
7.19964, 75, -2.69629, 5.52066, 23.3371, -151.689, -100.519, 91.2243
7.20748, 75, -2.61122, 5.66375, 23.2738, -151.64, -100.726, 90.6177
7.21553, 76, -2.5252, 5.79574, 23.2146, -151.594, -100.924, 90.0037
7.22517, 76, -2.43824, 5.91648, 23.1598, -151.553, -101.112, 89.381
7.23145, 76, -2.35037, 6.02567, 23.1092, -151.516, -101.292, 88.7493
7.23951, 76, -2.26174, 6.12282, 23.063, -151.482, -101.461, 88.1101
7.24743, 76, -2.17229, 6.20752, 23.0215, -151.451, -101.621, 87.4649
7.25757, 77, -2.08193, 6.27929, 22.9849, -151.425, -101.768, 86.814
7.26371, 77, -1.99066, 6.33799, 22.9535, -151.404, -101.903, 86.1612
7.2715, 77, -1.89849, 6.38322, 22.9278, -151.386, -102.025, 85.5093
7.28044, 77, -1.80548, 6.41417, 22.9078, -151.372, -102.133, 84.8589
7.28753, 77, -1.71162, 6.43095, 22.8937, -151.362, -102.225, 84.2112
7.2955, 78, -1.61702, 6.43319, 22.8855, -151.356, -102.303, 83.5677
7.30426, 78, -1.52172, 6.42025, 22.8828, -151.353, -102.365, 82.9283
7.31343, 78, -1.42575, 6.39194, 22.8858, -151.352, -102.412, 82.2921
7.32003, 78, -1.32941, 6.34788, 22.895, -151.355, -102.443, 81.6607
7.32784, 78, -1.23268, 6.28752, 22.9104, -151.362, -102.458, 81.0348
7.33577, 79, -1.13571, 6.21078, 22.9326, -151.372, -102.457, 80.4145
7.34433, 79, -1.03869, 6.11767, 22.9618, -151.385, -102.438, 79.8005
7.35156, 79, -0.941484, 6.00828, 22.9984, -151.402, -102.401, 79.1947
7.36045, 79, -0.84439, 5.88262, 23.0426, -151.421, -102.346, 78.598
7.36764, 79, -0.747329, 5.74038, 23.0944, -151.443, -102.273, 78.0105
7.37575, 79, -0.650339, 5.58186, 23.1537, -151.468, -102.183, 77.4334
7.38463, 80, -0.553281, 5.40683, 23.2206, -151.495, -102.074, 76.8679
7.39183, 80, -0.456204, 5.21547, 23.2953, -151.522, -101.946, 76.3144
7.40369, 80, -0.359186, 5.00759, 23.378, -151.552, -101.8, 75.5045
7.40846, 80, -0.26232, 4.78204, 23.4687, -151.583, -101.636, 75.24
7.41601, 80, -0.165603, 4.53844, 23.5679, -151.615, -101.452, 74.7191
7.42488, 81, -0.0690402, 4.27827, 23.6757, -151.649, -101.25, 74.2088
7.43241, 81, 0.0271757, 4.00147, 23.7924, -151.683, -101.029, 73.7075
7.44085, 81, 0.0752522, 3.85674, 23.8542, -151.7, -100.911, 73.2157
7.44742, 81, 0.171255, 3.5553, 23.9849, -151.736, -100.662, 72.9731
7.45631, 81, 0.266967, 3.23673, 24.1994, -151.792, -100.252, 72.26
7.46514, 82, 0.410215, 2.72732, 24.3544, -151.828, -99.9546, 71.796
7.47144, 82, 0.457841, 2.54911, 24.4353, -151.847, -99.7989, 71.5674
7.47943, 82, 0.552892, 2.18103, 24.604, -151.884, -99.4734, 71.1176
7.48742, 82, 0.647774, 1.79683, 24.7824, -151.921, -99.1302, 70.6774
7.49552, 82, 0.742547, 1.39587, 24.9702, -151.957, -98.7692, 70.247
7.50358, 83, 0.837299, 0.978368, 25.1671, -151.993, -98.3913, 69.8269
7.51288, 83, 0.932013, 0.546115, 25.4814, -152.045, -97.7931, 69.2145
7.52088, 83, 1.07419, -0.13027, 25.7038, -152.079, -97.3742, 68.8183
7.53379, 83, 1.21662, -0.840068, 26.0542, -152.126, -96.7158, 68.2413
7.53744, 83, 1.26417, -1.08411, 26.1762, -152.141, -96.4885, 68.0535
7.54413, 84, 1.31176, -1.33162, 26.3008, -152.157, -96.2573, 67.8681
7.55303, 84, 1.45484, -2.09459, 26.6893, -152.2, -95.5401, 67.3233
7.55942, 84, 1.50264, -2.35556, 26.8242, -152.214, -95.2933, 67.1454
7.56744, 84, 1.59851, -2.88801, 27.1015, -152.24, -94.7875, 66.7955
7.57549, 84, 1.69473, -3.43416, 27.389, -152.264, -94.2667, 66.4527
7.58612, 85, 1.8398, -4.27817, 27.8397, -152.298, -93.4578, 65.9518
7.59164, 85, 1.88827, -4.56575, 27.9949, -152.308, -93.1808, 65.7889
7.59942, 85, 1.9855, -5.14879, 28.3127, -152.327, -92.616, 65.4694
7.60744, 85, 2.0831, -5.74198, 28.6393, -152.344, -92.0394, 65.1578
7.61559, 85, 2.18119, -6.34416, 28.975, -152.358, -91.4528, 64.855
7.62436, 85, 2.27999, -6.95413, 29.319, -152.37, -90.856, 64.5615
7.63149, 86, 2.37935, -7.57137, 29.671, -152.378, -90.2497, 64.278
7.63943, 86, 2.47969, -8.19455, 30.0298, -152.384, -89.6346, 64.0049
7.64742, 86, 2.58108, -8.82399, 30.395, -152.386, -89.0114, 63.7426
7.65549, 86, 2.68327, -9.45965, 30.766, -152.387, -88.3832, 63.4917
7.66585, 86, 2.78665, -10.1004, 31.1427, -152.385, -87.4316, 63.1367
7.67159, 87, 2.8911, -10.7454, 31.5255, -152.378, -87.1112, 63.0241
7.6795, 87, 2.99608, -11.3936, 31.9132, -152.368, -86.4654, 62.8076
7.68742, 87, 3.1021, -12.0448, 32.3063, -152.354, -85.8134, 62.6031
7.69542, 87, 3.20874, -12.6983, 32.7047, -152.337, -85.1564, 62.4112
7.70348, 87, 3.31596, -13.3542, 33.1086, -152.315, -84.4951, 62.232
7.71142, 88, 3.42387, -14.0123, 33.5175, -152.289, -83.8285, 62.0658
7.72099, 88, 3.53237, -14.6723, 33.9305, -152.259, -83.1576, 61.9135
7.72756, 88, 3.6415, -15.3332, 34.348, -152.226, -82.4831, 61.7752
7.7355, 88, 3.75129, -15.9936, 34.7691, -152.187, -81.8061, 61.6522
7.74346, 88, 3.8614, -16.6524, 35.1929, -152.144, -81.1292, 61.5448
7.75143, 89, 3.97179, -17.308, 35.6187, -152.097, -80.4525, 61.4548
7.75949, 89, 4.08254, -17.9603, 36.0453, -152.044, -79.7762, 61.3826
7.76745, 89, 4.19353, -18.6084, 36.472, -151.986, -79.1004, 61.3288
7.77664, 89, 4.30501, -19.2527, 36.8987, -151.923, -78.4255, 61.2947
7.78506, 89, 4.41667, -19.8921, 37.3244, -151.855, -77.7554, 61.2796
7.7924, 90, 4.52866, -20.5269, 37.749, -151.782, -77.0883, 61.285
7.79964, 90, 4.64123, -21.1576, 38.1736, -151.703, -76.4221, 61.3139
7.80754, 90, 4.75377, -21.7842, 38.5981, -151.618, -75.7564, 61.3659
7.81553, 90, 4.86612, -22.407, 39.0228, -151.528, -75.0915, 61.4413
7.82724, 90, 4.97795, -23.3354, 39.6611, -151.381, -74.0973, 61.6031
7.8319, 91, 5.0895, -23.6435, 39.8742, -151.329, -73.7655, 61.6702
7.83944, 91, 5.20077, -24.2572, 40.3007, -151.219, -73.1009, 61.8262
7.84747, 91, 5.31156, -24.8665, 40.7277, -151.102, -72.4358, 62.0111
7.85644, 91, 5.42164, -25.4712, 41.1541, -150.978, -71.7692, 62.226
7.8636, 91, 5.53112, -26.0694, 41.5796, -150.848, -71.1025, 62.4715
7.87202, 92, 5.64019, -26.6604, 42.0036, -150.711, -70.4383, 62.7487
7.88047, 92, 5.74937, -27.2434, 42.4249, -150.569, -69.7763, 63.0576
7.8878, 92, 5.85919, -27.8172, 42.8419, -150.42, -69.1174, 63.3976
7.89675, 92, 5.96962, -28.3813, 43.2532, -150.268, -68.4626, 63.7687
7.90461, 92, 6.08089, -28.9343, 43.6583, -150.111, -67.813, 64.1713
7.91205, 92, 6.19359, -29.4753, 44.0563, -149.951, -67.171, 64.6048
7.92017, 93, 6.30782, -30.0047, 44.4467, -149.789, -66.5356, 65.0699
7.93446, 93, 6.48309, -30.7776, 45.0198, -149.545, -65.5926, 65.8252
7.93658, 93, 6.54265, -31.0306, 45.2076, -149.463, -65.2804, 66.0933
7.94484, 93, 6.60276, -31.2819, 45.5797, -149.299, -64.6579, 66.6553
7.95219, 93, 6.72476, -31.7802, 45.7637, -149.217, -64.0369, 67.2559
7.95942, 93, 6.84901, -32.2733, 46.1296, -149.052, -63.7257, 67.5721
7.96745, 94, 6.97539, -32.7614, 46.4926, -148.887, -63.0994, 68.2395
7.97542, 94, 7.1036, -33.2437, 46.8543, -148.722, -62.4667, 68.9591
7.98458, 94, 7.29978, -33.9534, 47.3937, -148.476, -61.5054, 70.1359
7.99147, 94, 7.36671, -34.1865, 47.5719, -148.396, -61.1818, 70.5542
7.99942, 95, 7.50351, -34.6467, 47.9231, -148.24, -60.5341, 71.4314
8.00757, 95, 7.64518, -35.0967, 48.2663, -148.094, -59.8889, 72.3544
8.01543, 95, 7.79292, -35.5365, 48.599, -147.958, -59.2481, 73.3183
8.02341, 95, 7.94714, -35.9633, 48.9196, -147.838, -58.6139, 74.3216
8.03292, 95, 8.19142, -36.5702, 49.3721, -147.687, -57.6781, 75.8901
8.04101, 96, 8.36289, -36.9497, 49.6542, -147.61, -57.0679, 76.9772
8.04741, 96, 8.45119, -37.1313, 49.7889, -147.578, -56.7681, 77.5324
8.05758, 96, 8.72442, -37.6408, 50.1681, -147.515, -55.8895, 79.2403
8.06341, 96, 8.81806, -37.7982, 50.2857, -147.504, -55.6039, 79.8212
8.07152, 96, 9.00872, -38.0936, 50.5063, -147.497, -55.0456, 80.9957
8.08042, 96, 9.20267, -38.3644, 50.7076, -147.512, -54.5076, 82.1817
8.08741, 97, 9.39837, -38.6098, 50.8894, -147.548, -53.9925, 83.3774
8.09639, 97, 9.59457, -38.8301, 51.0506, -147.606, -53.5025, 84.5767
8.10426, 97, 9.79018, -39.0262, 51.1914, -147.683, -53.0394, 85.7694
8.11246, 97, 9.98459, -39.1975, 51.3127, -147.778, -52.6051, 86.9492
8.11941, 97, 10.1767, -39.3428, 51.4145, -147.889, -52.2004, 88.1098
8.12863, 97, 10.3653, -39.4627, 51.4974, -148.012, -51.826, 89.2461
8.1364, 98, 10.5506, -39.5572, 51.562, -148.146, -51.4817, 90.3508
8.14445, 98, 10.7335, -39.6276, 51.6086, -148.291, -51.167, 91.4258
8.15152, 98, 10.9147, -39.675, 51.6377, -148.446, -50.88, 92.4783
8.16039, 98, 11.0945, -39.6994, 51.6494, -148.612, -50.6173, 93.5213
8.16846, 98, 11.2719, -39.7003, 51.6444, -148.791, -50.3761, 94.5667
8.1785, 98, 11.448, -39.6775, 51.6219, -148.982, -50.1544, 95.6245
8.1835, 98, 11.6241, -39.6309, 51.5815, -149.187, -49.9526, 96.7012
8.19145, 99, 11.7995, -39.5608, 51.5232, -149.405, -49.7723, 97.7959
8.19943, 99, 11.9729, -39.4681, 51.4463, -149.633, -49.6159, 98.9041
8.2084, 99, 12.1433, -39.3526, 51.3509, -149.87, -49.4866, 100.015
8.21646, 99, 12.31, -39.2147, 51.2373, -150.112, -49.3869, 101.12
8.22342, 99, 12.4711, -39.0544, 51.1062, -150.356, -49.3182, 102.207
8.23153, 99, 12.625, -38.872, 50.9592, -150.599, -49.2803, 103.269
8.23942, 100, 12.7706, -38.6654, 50.7966, -150.838, -49.2734, 104.301
8.2474, 100, 12.9074, -38.4347, 50.6172, -151.073, -49.2986, 105.305
8.25646, 100, 13.0353, -38.1812, 50.4207, -151.301, -49.3548, 106.28
8.26342, 100, 13.1548, -37.9055, 50.2079, -151.525, -49.4422, 107.232
8.27176, 100, 13.2661, -37.6091, 49.9773, -151.742, -49.5607, 108.16
8.27948, 100, 13.3693, -37.2895, 49.7283, -151.952, -49.7099, 109.068
8.28755, 101, 13.4644, -36.9461, 49.4628, -152.155, -49.8894, 109.953
8.2955, 101, 13.5518, -36.5776, 49.1798, -152.349, -50.0986, 110.815
8.30352, 101, 13.6313, -36.1841, 48.8803, -152.534, -50.3375, 111.656
8.31205, 101, 13.7026, -35.7657, 48.5628, -152.71, -50.6063, 112.472
8.32045, 101, 13.7656, -35.3243, 48.2281, -152.876, -50.906, 113.266
8.3355, 102, 13.865, -34.3748, 47.5079, -153.173, -51.6006, 114.784
8.33683, 102, 13.865, -34.3748, 47.5079, -153.173, -51.6006, 114.784
8.34351, 102, 13.9006, -33.8653, 47.1229, -153.304, -51.9962, 115.507
8.35241, 102, 13.9265, -33.3315, 46.7224, -153.421, -52.4235, 116.205
8.3603, 102, 13.9431, -32.7752, 46.3078, -153.524, -52.8827, 116.875
8.36771, 102, 13.9513, -32.197, 45.8791, -153.614, -53.3716, 117.521
8.37598, 103, 13.9519, -31.5975, 45.4363, -153.69, -53.888, 118.141
8.38449, 103, 13.9456, -30.9787, 44.9803, -153.754, -54.4304, 118.736
8.39187, 103, 13.9331, -30.3426, 44.5121, -153.804, -54.9963, 119.306
8.3999, 103, 13.9149, -29.6905, 44.0327, -153.841, -55.5827, 119.853
8.4087, 103, 13.8914, -29.023, 43.5442, -153.866, -56.1883, 120.374
8.41599, 103, 13.8632, -28.3422, 43.0483, -153.88, -56.8104, 120.871
8.42395, 104, 13.8309, -27.6509, 42.5469, -153.885, -57.4454, 121.342
8.43269, 104, 13.7946, -26.9508, 42.0416, -153.878, -58.0936, 121.791
8.44003, 104, 13.7545, -26.2431, 41.5333, -153.862, -58.7556, 122.217
8.44801, 104, 13.7332, -25.887, 41.2786, -153.851, -59.0908, 122.624
8.4554, 104, 13.689, -25.172, 40.7686, -153.822, -59.7693, 122.821
8.46348, 104, 13.6429, -24.4544, 40.258, -153.785, -60.4558, 123.204
8.47145, 104, 13.5952, -23.7347, 39.7477, -153.741, -61.1474, 123.574
8.47942, 104, 13.5458, -23.013, 39.2384, -153.692, -61.8446, 123.936
8.48744, 104, 13.4955, -22.2903, 38.7302, -153.637, -62.5454, 124.291
8.49539, 104, 13.4444, -21.5667, 38.2237, -153.577, -63.2483, 124.644
8.50344, 104, 13.3928, -20.8434, 37.7188, -153.514, -63.9518, 124.994
8.5115, 104, 13.3408, -20.1204, 37.215, -153.445, -64.6557, 125.342
8.51942, 104, 13.2886, -19.397, 36.7133, -153.373, -65.3614, 125.689
8.5274, 104, 13.2362, -18.6733, 36.2136, -153.297, -66.0681, 126.035
8.5369, 104, 13.1578, -17.5874, 35.4681, -153.176, -67.13, 126.553
8.54504, 104, 13.106, -16.863, 34.9741, -153.09, -67.8376, 126.897
8.55146, 104, 13.0802, -16.5009, 34.7277, -153.045, -68.1912, 127.069
8.55946, 104, 13.0288, -15.7767, 34.2365, -152.953, -68.8998, 127.413
8.56738, 104, 12.9779, -15.052, 33.7475, -152.857, -69.6103, 127.756
8.57638, 104, 12.9272, -14.3268, 33.2608, -152.758, -70.3215, 128.099
8.58345, 104, 12.877, -13.6014, 32.7769, -152.654, -71.0317, 128.443
8.59245, 104, 12.8271, -12.8758, 32.2957, -152.547, -71.7419, 128.787
8.59939, 104, 12.7773, -12.15, 31.817, -152.436, -72.454, 129.131
8.60748, 104, 12.7279, -11.4249, 31.3408, -152.321, -73.1665, 129.476
8.61541, 104, 12.679, -10.6998, 30.8672, -152.202, -73.8792, 129.821
8.6234, 104, 12.6303, -9.97421, 30.3964, -152.079, -74.5922, 130.167
8.63146, 104, 12.5819, -9.24869, 29.9288, -151.952, -75.3047, 130.514
8.63938, 104, 12.534, -8.52262, 29.4641, -151.821, -76.0189, 130.862
8.64744, 104, 12.4867, -7.79621, 29.0027, -151.686, -76.7336, 131.21
8.65541, 104, 12.4399, -7.07091, 28.5447, -151.547, -77.4488, 131.56
8.66343, 104, 12.3938, -6.34591, 28.0898, -151.403, -78.1638, 131.912
8.67157, 104, 12.3482, -5.62129, 27.6384, -151.256, -78.8775, 132.264
8.67939, 104, 12.3031, -4.89753, 27.1909, -151.104, -79.5919, 132.617
8.68741, 104, 12.259, -4.17518, 26.7478, -150.948, -80.307, 132.972
8.69546, 104, 12.2159, -3.45553, 26.3097, -150.789, -81.0213, 133.327
8.7034, 104, 12.1738, -2.74062, 25.8764, -150.625, -81.7315, 133.683
8.71146, 104, 12.1332, -2.03173, 25.4491, -150.458, -82.4379, 134.04
8.71945, 104, 12.0936, -1.3304, 25.0295, -150.288, -83.1404, 134.395
8.72739, 104, 12.0549, -0.637719, 24.6182, -150.115, -83.8355, 134.748
8.73541, 104, 12.0173, 0.0448486, 24.2167, -149.941, -84.5207, 135.099
8.74348, 104, 11.9807, 0.716598, 23.826, -149.765, -85.1928, 135.445
8.75144, 104, 11.9451, 1.376, 23.4478, -149.589, -85.8507, 135.786
8.75939, 104, 11.9108, 2.02245, 23.0818, -149.413, -86.4947, 136.122
8.76746, 104, 11.8776, 2.65375, 22.7284, -149.238, -87.123, 136.451
8.77544, 104, 11.8452, 3.26876, 22.3873, -149.063, -87.7354, 136.773
8.78348, 104, 11.8145, 3.86735, 22.0599, -148.889, -88.3314, 137.089
8.79159, 104, 11.7848, 4.44908, 21.7448, -148.716, -88.9096, 137.398
8.79948, 104, 11.7564, 5.01443, 21.4421, -148.545, -89.4707, 137.7
8.80774, 104, 11.7295, 5.56248, 21.1508, -148.376, -90.0163, 137.995
8.81557, 104, 11.7036, 6.09321, 20.8717, -148.208, -90.546, 138.283
8.8238, 104, 11.6789, 6.60756, 20.604, -148.043, -91.0593, 138.564
8.83151, 104, 11.6553, 7.1049, 20.3479, -147.881, -91.556, 138.838
8.83974, 104, 11.6329, 7.58522, 20.1036, -147.721, -92.0351, 139.103
8.84743, 104, 11.6117, 8.04924, 19.8697, -147.564, -92.4973, 139.361
8.85548, 104, 11.5915, 8.4965, 19.647, -147.41, -92.9433, 139.612
8.8636, 104, 11.5726, 8.92632, 19.4353, -147.26, -93.3726, 139.855
8.87165, 104, 11.5547, 9.33901, 19.2337, -147.113, -93.785, 140.089
8.87965, 104, 11.538, 9.73429, 19.0425, -146.971, -94.1805, 140.315
8.88802, 104, 11.5223, 10.1114, 18.8622, -146.833, -94.5585, 140.532
8.89647, 104, 11.5077, 10.4696, 18.6922, -146.699, -94.9181, 140.739
8.90395, 104, 11.4941, 10.8085, 18.5324, -146.572, -95.2589, 140.937
8.91253, 104, 11.4814, 11.1282, 18.3837, -146.45, -95.58, 141.124
8.91991, 104, 11.4698, 11.4273, 18.2457, -146.335, -95.881, 141.3
8.92847, 104, 11.4593, 11.7058, 18.1182, -146.227, -96.161, 141.464
8.93621, 104, 11.4498, 11.963, 18.0013, -146.126, -96.4197, 141.617
8.94399, 104, 11.441, 12.1988, 17.895, -146.032, -96.6565, 141.757
8.95236, 104, 11.4329, 12.4138, 17.7991, -145.947, -96.8716, 141.885
8.96, 104, 11.4292, 12.5135, 17.7551, -145.908, -96.9707, 142
8.96745, 104, 11.4223, 12.6967, 17.6748, -145.834, -97.1527, 142.052
8.97635, 104, 11.4162, 12.9324, 17.5733, -145.742, -97.3843, 142.191
8.98338, 104, 11.4107, 13.001, 17.5443, -145.714, -97.4505, 142.231
8.99144, 104, 11.4057, 13.1239, 17.4934, -145.667, -97.5672, 142.3
8.99941, 104, 11.401, 13.2282, 17.4515, -145.628, -97.6633, 142.358
9.00742, 104, 11.3969, 13.3149, 17.4177, -145.597, -97.7407, 142.404
9.01541, 104, 11.3931, 13.386, 17.3914, -145.572, -97.8002, 142.441
9.02344, 104, 11.3896, 13.4435, 17.372, -145.553, -97.8444, 142.468
9.03145, 104, 11.3866, 13.4889, 17.3579, -145.54, -97.876, 142.486
9.03939, 104, 11.3841, 13.5233, 17.3484, -145.531, -97.8979, 142.499
9.04935, 104, 11.3813, 13.5591, 17.3402, -145.523, -97.9169, 142.509
9.05539, 104, 11.3806, 13.5678, 17.3386, -145.522, -97.9204, 142.511
9.06493, 104, 11.3793, 13.5856, 17.3359, -145.52, -97.9261, 142.514
9.07147, 104, 11.3784, 13.5895, 17.3355, -145.519, -97.927, 142.515
9.07939, 105, 11.3778, 13.5954, 17.335, -145.519, -97.928, 142.515
9.08837, 105, 11.3773, 13.5992, 17.3347, -145.518, -97.9285, 142.515
9.09559, 105, 11.3769, 13.6019, 17.3346, -145.518, -97.9287, 142.516
9.10339, 105, 11.3766, 13.6041, 17.3346, -145.518, -97.9288, 142.516
9.11145, 105, 11.3764, 13.6059, 17.3346, -145.518, -97.9288, 142.516
9.11941, 105, 11.3762, 13.6075, 17.3346, -145.518, -97.9289, 142.516
9.12737, 105, 11.3761, 13.6089, 17.3346, -145.518, -97.9288, 142.516
9.13541, 105, 11.376, 13.6101, 17.3346, -145.518, -97.9287, 142.516
9.14341, 105, 11.3759, 13.6111, 17.3346, -145.518, -97.9287, 142.516
9.15143, 105, 11.3759, 13.6119, 17.3346, -145.518, -97.9285, 142.516
9.15941, 105, 11.3759, 13.6125, 17.3346, -145.518, -97.9284, 142.516
9.16741, 105, 11.3758, 13.613, 17.3347, -145.518, -97.9282, 142.516
9.1754, 105, 11.3758, 13.6132, 17.3347, -145.518, -97.928, 142.516
9.18341, 105, 11.3758, 13.6134, 17.3348, -145.519, -97.9279, 142.516
9.19149, 105, 11.3758, 13.6134, 17.3348, -145.519, -97.9278, 142.516
