hehonglu123/Motion-Primitive-Planning/ILC/recorded_data/realrobot/wood/iteration_12/run_3.csv
timestamp, cmd_num, J1, J2, J3, J4, J5, J6
0.001031, -1, 11.3757, 13.6141, 17.3366, -145.52, -97.9256, 142.516
0.004286, -1, 11.3757, 13.6141, 17.3366, -145.521, -97.9256, 142.516
0.007718, -1, 11.3757, 13.6141, 17.3366, -145.521, -97.9256, 142.516
0.02833, -1, 11.3757, 13.6141, 17.3366, -145.52, -97.9256, 142.516
0.031025, -1, 11.3757, 13.6141, 17.3366, -145.521, -97.9256, 142.516
0.035284, -1, 11.3757, 13.6141, 17.3366, -145.521, -97.9256, 142.516
0.039586, -1, 11.3757, 13.6141, 17.3366, -145.521, -97.9256, 142.516
0.047548, -1, 11.3757, 13.6141, 17.3366, -145.521, -97.9256, 142.516
0.055697, -1, 11.3751, 13.6141, 17.3366, -145.521, -97.9256, 142.516
0.063519, -1, 11.3724, 13.6139, 17.3365, -145.521, -97.9255, 142.516
0.071533, -1, 11.3659, 13.6131, 17.3364, -145.521, -97.9256, 142.515
0.07959, -1, 11.3547, 13.6114, 17.3359, -145.521, -97.9256, 142.514
0.087559, -1, 11.3372, 13.608, 17.3352, -145.523, -97.9254, 142.506
0.095522, -1, 11.3103, 13.602, 17.3344, -145.526, -97.9246, 142.485
0.103597, -1, 11.2719, 13.5928, 17.3338, -145.533, -97.9228, 142.445
0.111516, -1, 11.2215, 13.5804, 17.334, -145.545, -97.9193, 142.38
0.119521, -1, 11.1598, 13.565, 17.3356, -145.562, -97.9138, 142.285
0.127973, -1, 11.0865, 13.5459, 17.3396, -145.586, -97.906, 142.154
0.135519, -1, 11.0012, 13.5229, 17.346, -145.614, -97.8958, 141.988
0.143511, -1, 10.9044, 13.4966, 17.3546, -145.648, -97.8836, 141.79
0.152322, -1, 10.7968, 13.4668, 17.3651, -145.687, -97.8699, 141.565
0.159517, -1, 10.6782, 13.434, 17.3763, -145.73, -97.8551, 141.318
0.167534, -1, 10.5491, 13.3983, 17.3875, -145.774, -97.8397, 141.057
0.176296, -1, 10.411, 13.3604, 17.3982, -145.82, -97.8237, 140.788
0.18357, -1, 10.2661, 13.3208, 17.4085, -145.867, -97.8076, 140.513
0.191522, -1, 10.1167, 13.2804, 17.4185, -145.914, -97.791, 140.236
0.20038, -1, 9.96425, 13.2393, 17.4286, -145.962, -97.774, 139.958
0.207541, -1, 9.80952, 13.1979, 17.4386, -146.01, -97.7567, 139.679
0.215553, -1, 9.65394, 13.1565, 17.4487, -146.058, -97.7395, 139.399
0.224551, -1, 9.49869, 13.1152, 17.4586, -146.106, -97.7225, 139.12
0.23161, -1, 9.3439, 13.074, 17.4685, -146.154, -97.7057, 138.84
0.239663, -1, 9.18946, 13.0329, 17.4785, -146.202, -97.6889, 138.561
0.249323, -1, 9.03555, 12.9918, 17.4885, -146.25, -97.6723, 138.281
0.255645, -1, 8.88185, 12.9507, 17.4987, -146.298, -97.6553, 138.001
0.263706, -1, 8.7283, 12.9097, 17.5089, -146.346, -97.6382, 137.721
0.272128, -1, 8.57528, 12.8685, 17.5189, -146.393, -97.6208, 137.441
0.27955, -1, 8.42251, 12.8273, 17.529, -146.442, -97.6032, 137.161
0.287622, -1, 8.26956, 12.786, 17.5392, -146.489, -97.5859, 136.881
0.296294, -1, 8.11603, 12.7444, 17.5494, -146.537, -97.5689, 136.601
0.303627, -1, 7.96213, 12.7028, 17.5596, -146.586, -97.5522, 136.32
0.311863, -1, 7.80765, 12.6611, 17.5697, -146.633, -97.5355, 136.04
0.321345, -1, 7.65277, 12.6194, 17.5798, -146.681, -97.5189, 135.76
0.327823, -1, 7.49777, 12.5777, 17.59, -146.729, -97.502, 135.48
0.336047, -1, 7.34267, 12.5362, 17.6002, -146.777, -97.4849, 135.199
0.343994, -1, 7.18766, 12.4947, 17.6104, -146.825, -97.4675, 134.918
0.481556, -1, 4.55221, 11.7892, 17.7862, -147.643, -97.1771, 130.147
0.482764, -1, 4.55221, 11.7892, 17.7862, -147.643, -97.1771, 130.147
0.484036, -1, 4.55221, 11.7892, 17.7862, -147.643, -97.1771, 130.147
0.485994, -1, 4.47436, 11.7685, 17.7914, -147.667, -97.1684, 130.006
0.487319, -1, 4.47436, 11.7685, 17.7914, -147.667, -97.1684, 130.006
0.490151, -1, 4.39658, 11.7477, 17.7965, -147.691, -97.1597, 129.866
0.491482, -1, 4.39658, 11.7477, 17.7965, -147.691, -97.1597, 129.866
0.494571, -1, 4.31885, 11.727, 17.8017, -147.716, -97.1511, 129.726
0.495878, -1, 4.31885, 11.727, 17.8017, -147.716, -97.1511, 129.726
0.497957, -1, 4.24116, 11.7063, 17.8069, -147.74, -97.1426, 129.585
0.49935, -1, 4.24116, 11.7063, 17.8069, -147.74, -97.1426, 129.585
0.502046, -1, 4.16353, 11.6855, 17.8122, -147.764, -97.134, 129.444
0.503385, -1, 4.16353, 11.6855, 17.8122, -147.764, -97.134, 129.444
0.505316, -1, 4.08603, 11.6648, 17.8174, -147.788, -97.1256, 129.304
0.506657, -1, 4.08603, 11.6648, 17.8174, -147.788, -97.1256, 129.304
0.512212, -1, 4.00864, 11.6441, 17.8225, -147.812, -97.1171, 129.163
0.515096, -1, 3.93133, 11.6234, 17.8277, -147.836, -97.1087, 129.023
0.51638, -1, 3.93133, 11.6234, 17.8277, -147.836, -97.1087, 129.023
0.518623, -1, 3.85408, 11.6027, 17.8329, -147.861, -97.1003, 128.882
0.519953, -1, 3.85408, 11.6027, 17.8329, -147.861, -97.1003, 128.882
0.521923, -1, 3.77688, 11.5819, 17.838, -147.885, -97.0919, 128.742
0.523257, -1, 3.77688, 11.5819, 17.838, -147.885, -97.0919, 128.742
0.529538, -1, 3.62254, 11.5403, 17.8483, -147.933, -97.0749, 128.46
0.535525, -1, 3.54532, 11.5195, 17.8535, -147.957, -97.0664, 128.319
0.543578, -1, 3.39071, 11.4778, 17.8639, -148.006, -97.0491, 128.038
0.551508, -1, 3.23576, 11.4361, 17.8743, -148.054, -97.0314, 127.756
0.559524, -1, 3.08061, 11.3943, 17.8848, -148.102, -97.0139, 127.475
0.567504, -1, 2.92524, 11.3526, 17.8952, -148.15, -96.9967, 127.193
0.575508, -1, 2.76968, 11.3108, 17.9055, -148.199, -96.9798, 126.911
0.58372, -1, 2.61389, 11.2691, 17.9158, -148.247, -96.9629, 126.63
0.591524, -1, 2.4578, 11.2273, 17.9262, -148.295, -96.9462, 126.348
0.599512, -1, 2.30142, 11.1856, 17.9366, -148.344, -96.9293, 126.066
0.60757, -1, 2.14482, 11.1439, 17.947, -148.391, -96.9122, 125.784
0.615501, -1, 1.988, 11.1021, 17.9574, -148.44, -96.8948, 125.502
0.62351, -1, 1.83143, 11.0605, 17.9678, -148.489, -96.8772, 125.221
0.631573, -1, 1.67506, 11.0188, 17.9782, -148.537, -96.8599, 124.938
0.783455, -1, -1.29058, 10.2243, 18.1761, -149.458, -96.5347, 119.569
0.784902, -1, -1.29058, 10.2243, 18.1761, -149.458, -96.5347, 119.569
0.786087, -1, -1.29058, 10.2243, 18.1761, -149.458, -96.5347, 119.569
0.788131, -1, -1.36902, 10.2034, 18.1812, -149.483, -96.5263, 119.427
0.789384, -1, -1.36902, 10.2034, 18.1812, -149.483, -96.5263, 119.427
0.791325, -1, -1.36902, 10.2034, 18.1812, -149.483, -96.5263, 119.286
0.792732, -1, -1.44746, 10.1825, 18.1864, -149.507, -96.518, 119.286
0.795639, -1, -1.52583, 10.1616, 18.1917, -149.531, -96.5096, 119.144
0.797062, -1, -1.52583, 10.1616, 18.1917, -149.531, -96.5096, 119.144
0.798347, -1, -1.52583, 10.1616, 18.1917, -149.531, -96.5096, 119.144
0.800383, -1, -1.60407, 10.1407, 18.197, -149.555, -96.5011, 119.003
0.801614, -1, -1.60407, 10.1407, 18.197, -149.555, -96.5011, 119.003
0.804287, -1, -1.68217, 10.1198, 18.2022, -149.58, -96.4927, 118.861
0.806364, -1, -1.68217, 10.1198, 18.2022, -149.58, -96.4927, 118.861
0.808633, -1, -1.76015, 10.0989, 18.2075, -149.604, -96.4841, 118.719
0.810241, -1, -1.76015, 10.0989, 18.2075, -149.604, -96.4841, 118.719
0.812298, -1, -1.83803, 10.0779, 18.2127, -149.628, -96.4754, 118.578
0.813559, -1, -1.83803, 10.0779, 18.2127, -149.628, -96.4754, 118.578
0.815369, -1, -1.83803, 10.0779, 18.2127, -149.628, -96.4754, 118.578
0.816785, -1, -1.91582, 10.057, 18.2179, -149.653, -96.4667, 118.436
0.818057, -1, -1.91582, 10.057, 18.2179, -149.653, -96.4667, 118.436
0.820138, -1, -1.99353, 10.0361, 18.2231, -149.677, -96.4579, 118.294
0.823821, -1, -2.07114, 10.0151, 18.2283, -149.701, -96.4491, 118.152
0.82521, -1, -2.07114, 10.0151, 18.2283, -149.701, -96.4491, 118.152
0.831854, -1, -2.22621, 9.97325, 18.2387, -149.75, -96.4315, 117.869
0.840032, -1, -2.38144, 9.93135, 18.2491, -149.798, -96.4142, 117.585
0.847992, -1, -2.53701, 9.88933, 18.2596, -149.847, -96.3972, 117.301
0.856391, -1, -2.69283, 9.84738, 18.2699, -149.896, -96.3803, 117.017
0.863998, -1, -2.84903, 9.80542, 18.2803, -149.944, -96.3635, 116.734
0.872065, -1, -3.00567, 9.76342, 18.2907, -149.993, -96.3466, 116.45
0.880111, -1, -3.16264, 9.72149, 18.3011, -150.042, -96.3295, 116.167
0.88806, -1, -3.24127, 9.7005, 18.3115, -150.09, -96.312, 115.883
0.896248, -1, -3.47788, 9.63747, 18.322, -150.139, -96.2944, 115.599
0.903502, -1, -3.55679, 9.61651, 18.3273, -150.163, -96.2857, 115.457
0.911491, -1, -3.71465, 9.57467, 18.3377, -150.212, -96.2682, 115.172
0.919558, -1, -3.87272, 9.53271, 18.348, -150.26, -96.2512, 114.888
0.927517, -1, -4.03062, 9.49071, 18.3584, -150.31, -96.2342, 114.604
0.93549, -1, -4.18847, 9.44881, 18.3688, -150.358, -96.2172, 114.32
0.943544, -1, -4.34618, 9.40682, 18.3791, -150.407, -96.2001, 114.035
0.951498, -1, -4.50367, 9.36485, 18.3895, -150.456, -96.1827, 113.75
0.959593, -1, -4.66065, 9.32284, 18.3999, -150.505, -96.1651, 113.466
0.967559, -1, -4.81721, 9.2808, 18.4103, -150.553, -96.1473, 113.181
0.975493, -1, -4.97352, 9.23868, 18.4208, -150.603, -96.1298, 112.896
0.983489, -1, -5.12949, 9.19664, 18.4313, -150.651, -96.1126, 112.611
0.993024, -1, -5.36329, 9.13345, 18.4471, -150.724, -96.087, 112.184
0.999506, -1, -5.44132, 9.11235, 18.4524, -150.749, -96.0786, 112.042
1.00749, -1, -5.59747, 9.07026, 18.4628, -150.798, -96.0617, 111.757
1.01556, -1, -5.75398, 9.02815, 18.4732, -150.846, -96.0446, 111.472
1.02507, -1, -5.91092, 8.98594, 18.4837, -150.895, -96.0272, 111.188
1.03156, -1, -6.06831, 8.9438, 18.494, -150.944, -96.0095, 110.902
1.04054, -1, -6.22632, 8.90168, 18.5044, -150.993, -95.9919, 110.617
1.0475, -1, -6.3846, 8.85957, 18.5147, -151.042, -95.9747, 110.332
1.05555, -1, -6.54303, 8.81752, 18.5251, -151.091, -95.9577, 110.047
1.06351, -1, -6.70158, 8.77536, 18.5356, -151.14, -95.9405, 109.761
1.0715, -1, -6.86025, 8.73325, 18.5461, -151.189, -95.9236, 109.476
1.07957, -1, -7.01883, 8.69115, 18.5566, -151.238, -95.9064, 109.19
1.0875, -1, -7.17736, 8.64899, 18.5671, -151.287, -95.889, 108.905
1.09557, -1, -7.33568, 8.6068, 18.5774, -151.336, -95.8713, 108.619
1.10349, -1, -7.49369, 8.56451, 18.5879, -151.385, -95.8536, 108.333
1.1115, -1, -7.65137, 8.5222, 18.5985, -151.434, -95.8361, 108.048
1.11957, -1, -7.80866, 8.47992, 18.6089, -151.483, -95.8188, 107.762
1.12748, -1, -7.96559, 8.43765, 18.6193, -151.532, -95.8018, 107.476
1.13551, -1, -8.12221, 8.39532, 18.6296, -151.581, -95.7848, 107.19
1.14396, -1, -8.27871, 8.353, 18.6401, -151.63, -95.7678, 106.905
1.15149, -1, -8.43544, 8.31065, 18.6507, -151.679, -95.7506, 106.619
1.15952, -1, -8.59249, 8.26829, 18.6612, -151.728, -95.7331, 106.332
1.1683, -1, -8.74983, 8.22604, 18.6717, -151.777, -95.7154, 106.046
1.17549, -1, -8.90745, 8.18372, 18.6821, -151.826, -95.6978, 105.759
1.1835, -1, -9.06561, 8.1414, 18.6925, -151.875, -95.6805, 105.473
1.19232, -1, -9.22417, 8.09916, 18.703, -151.925, -95.6633, 105.187
1.19948, -1, -9.38302, 8.05685, 18.7134, -151.974, -95.6462, 104.9
1.20763, -1, -9.54209, 8.01449, 18.7239, -152.023, -95.6292, 104.613
1.2163, -1, -9.70126, 7.97226, 18.7344, -152.073, -95.6119, 104.326
1.22352, -1, -9.86059, 7.92999, 18.7449, -152.121, -95.5943, 104.039
1.23182, -1, -10.02, 7.88761, 18.7556, -152.171, -95.5764, 103.752
1.24037, -1, -10.1791, 7.84517, 18.7661, -152.22, -95.5585, 103.465
1.24759, -1, -10.3382, 7.80264, 18.7767, -152.269, -95.541, 103.179
1.25597, -1, -10.4971, 7.76013, 18.7873, -152.319, -95.5238, 102.892
1.2644, -1, -10.6556, 7.71766, 18.7977, -152.368, -95.5067, 102.605
1.27156, -1, -10.8137, 7.67509, 18.8082, -152.417, -95.4897, 102.318
1.28023, -1, -10.9716, 7.63252, 18.8187, -152.466, -95.4726, 102.031
1.28841, -1, -11.1292, 7.59002, 18.8291, -152.516, -95.4552, 101.743
1.29552, -1, -11.2866, 7.54752, 18.8396, -152.565, -95.4374, 101.456
1.30439, -1, -11.444, 7.50503, 18.8501, -152.615, -95.4197, 101.168
1.31257, -1, -11.6016, 7.4625, 18.8606, -152.664, -95.4021, 100.881
1.31967, -1, -11.7595, 7.42005, 18.8712, -152.713, -95.3847, 100.593
1.32868, -1, -11.9179, 7.37762, 18.8818, -152.762, -95.3674, 100.305
1.33665, -1, -12.0766, 7.3352, 18.8924, -152.812, -95.3502, 100.018
1.34398, -1, -12.2359, 7.29281, 18.9028, -152.861, -95.333, 99.73
1.35277, -1, -12.3955, 7.25039, 18.9134, -152.911, -95.3156, 99.4418
1.36007, -1, -12.5553, 7.20797, 18.9239, -152.96, -95.2978, 99.1539
1.36805, -1, -12.7152, 7.16551, 18.9344, -153.009, -95.2798, 98.866
1.37605, -1, -12.8753, 7.12302, 18.945, -153.059, -95.262, 98.578
1.38484, -1, -13.0354, 7.08047, 18.9556, -153.108, -95.2444, 98.2898
1.39211, -1, -13.1953, 7.03786, 18.9661, -153.158, -95.227, 98.0017
1.40002, -1, -13.2753, 7.01654, 18.9714, -153.183, -95.2185, 97.8577
1.40749, -1, -13.4349, 6.97388, 18.982, -153.232, -95.2014, 97.5693
1.41552, -1, -13.5943, 6.93108, 18.9925, -153.281, -95.1842, 97.2807
1.42348, -1, -13.7534, 6.88832, 19.0031, -153.331, -95.1668, 96.992
1.43148, -1, -13.9122, 6.84564, 19.0136, -153.38, -95.1492, 96.7037
1.43953, -1, -14.0705, 6.8029, 19.0241, -153.429, -95.1313, 96.415
1.44749, -1, -14.2287, 6.76025, 19.0347, -153.479, -95.1136, 96.126
1.45547, -1, -14.3869, 6.7176, 19.0451, -153.529, -95.0961, 95.8369
1.46353, -1, -14.5452, 6.67489, 19.0556, -153.578, -95.0788, 95.548
1.47148, -1, -14.7039, 6.63235, 19.0662, -153.628, -95.0616, 95.2588
1.47948, -1, -14.8629, 6.58979, 19.0768, -153.677, -95.0445, 94.9694
1.48749, -1, -15.0222, 6.54711, 19.0876, -153.726, -95.027, 94.6803
1.49547, -1, -15.1819, 6.50451, 19.0983, -153.777, -95.0093, 94.3913
1.50354, -1, -15.3421, 6.46193, 19.1089, -153.826, -94.9913, 94.1021
1.51147, -1, -15.5026, 6.41924, 19.1196, -153.875, -94.9734, 93.8127
1.52102, -1, -15.6633, 6.37654, 19.1301, -153.926, -94.9557, 93.3788
1.52759, -1, -15.824, 6.33377, 19.1408, -153.975, -94.9383, 93.2341
1.53655, -1, -15.9847, 6.29086, 19.1514, -154.025, -94.9211, 92.9445
1.54349, -1, -16.1456, 6.24802, 19.162, -154.075, -94.904, 92.6546
1.55154, -1, -16.3064, 6.20513, 19.1725, -154.124, -94.8867, 92.3652
1.5595, -1, -16.4669, 6.16214, 19.183, -154.173, -94.8693, 92.0756
1.5675, -1, -16.6272, 6.11919, 19.1936, -154.223, -94.8514, 91.7854
1.57554, -1, -16.7871, 6.07626, 19.2042, -154.273, -94.8335, 91.4953
1.58348, -1, -16.9464, 6.03329, 19.2149, -154.323, -94.8158, 91.2053
1.59158, -1, -17.1057, 5.99032, 19.2255, -154.373, -94.7983, 90.9151
1.59959, -1, -17.2648, 5.9474, 19.236, -154.422, -94.781, 90.6247
1.60747, -1, -17.4239, 5.90461, 19.2467, -154.472, -94.7637, 90.3343
1.61551, -1, -17.5832, 5.86182, 19.2574, -154.522, -94.7463, 90.0442
1.62351, -1, -17.7426, 5.81902, 19.2681, -154.571, -94.7287, 89.754
1.63147, -1, -17.9022, 5.77628, 19.2788, -154.622, -94.7107, 89.4636
1.63954, -1, -18.0623, 5.73349, 19.2894, -154.671, -94.6927, 89.173
1.64746, -1, -18.2228, 5.69069, 19.2999, -154.721, -94.6748, 88.8824
1.65549, -1, -18.3837, 5.64792, 19.3107, -154.771, -94.6572, 88.5917
1.66355, -1, -18.5451, 5.605, 19.3214, -154.821, -94.6397, 88.3007
1.67153, -1, -18.7067, 5.56204, 19.3321, -154.871, -94.6225, 88.0099
1.67952, -1, -18.8683, 5.51909, 19.3427, -154.921, -94.6053, 87.7191
1.68749, -1, -19.03, 5.47606, 19.3533, -154.971, -94.5877, 87.4279
1.69553, -1, -19.1915, 5.4329, 19.3639, -155.021, -94.5699, 87.1366
1.70352, -1, -19.353, 5.38977, 19.3745, -155.071, -94.5518, 86.8453
1.71152, -1, -19.5142, 5.34661, 19.3851, -155.121, -94.5338, 86.5538
1.71959, -1, -19.6751, 5.30338, 19.3957, -155.17, -94.516, 86.2621
1.72762, -1, -19.8358, 5.26024, 19.4063, -155.221, -94.4985, 85.9703
1.73559, -1, -19.9963, 5.21709, 19.4171, -155.27, -94.481, 85.6788
1.74356, -1, -20.1564, 5.17395, 19.4279, -155.32, -94.4636, 85.3873
1.75194, -1, -20.3161, 5.131, 19.4387, -155.371, -94.446, 85.0955
1.75963, -1, -20.4761, 5.08797, 19.4495, -155.421, -94.4282, 84.8036
1.76758, -1, -20.6361, 5.04488, 19.4602, -155.471, -94.4101, 84.5121
1.77629, -1, -20.7964, 5.00198, 19.471, -155.521, -94.3921, 84.2202
1.78349, -1, -20.9571, 4.95902, 19.4817, -155.571, -94.3744, 83.928
1.7915, -1, -21.1181, 4.91594, 19.4923, -155.621, -94.3569, 83.6358
1.80043, -1, -21.2796, 4.87287, 19.503, -155.672, -94.3396, 83.3439
1.80756, -1, -21.4416, 4.82967, 19.5136, -155.722, -94.3224, 83.0518
1.81561, -1, -21.6037, 4.78638, 19.5243, -155.772, -94.305, 82.7591
1.82466, -1, -21.766, 4.74317, 19.5351, -155.822, -94.2873, 82.4666
1.83173, -1, -21.9284, 4.69979, 19.5458, -155.872, -94.2694, 82.1738
1.83991, -1, -22.0909, 4.6564, 19.5566, -155.923, -94.2514, 81.8811
1.84884, -1, -22.2534, 4.61304, 19.5673, -155.973, -94.2335, 81.5881
1.85591, -1, -22.4158, 4.56961, 19.5779, -156.023, -94.2159, 81.2955
1.86408, -1, -22.5778, 4.52624, 19.5887, -156.074, -94.1985, 81.0029
1.87297, -1, -22.7395, 4.48279, 19.5993, -156.123, -94.1811, 80.7099
1.88006, -1, -22.9009, 4.43936, 19.6101, -156.173, -94.1635, 80.4167
1.88809, -1, -23.062, 4.39607, 19.6208, -156.224, -94.1456, 80.1238
1.8969, -1, -23.1426, 4.37443, 19.6314, -156.274, -94.1274, 79.8307
1.904, -1, -23.3036, 4.33108, 19.6368, -156.299, -94.1183, 79.684
1.91204, -1, -23.4645, 4.28784, 19.6478, -156.35, -94.1001, 79.3904
1.91953, -1, -23.6254, 4.24455, 19.6585, -156.4, -94.0822, 79.0971
1.92746, -1, -23.7865, 4.20124, 19.6693, -156.45, -94.0646, 78.8037
1.93552, -1, -23.9478, 4.15801, 19.68, -156.501, -94.0471, 78.51
1.94347, -1, -24.1095, 4.11461, 19.6907, -156.552, -94.0297, 78.2162
1.95149, -1, -24.2716, 4.0712, 19.7015, -156.602, -94.0121, 77.9223
1.95953, -1, -24.4342, 4.02782, 19.7122, -156.652, -93.9943, 77.6283
1.96746, -1, -24.5972, 3.98431, 19.7228, -156.703, -93.9761, 77.334
1.97692, -1, -24.8421, 3.91892, 19.7388, -156.778, -93.9491, 76.8928
1.98345, -1, -24.9238, 3.89714, 19.7442, -156.804, -93.9402, 76.7459
1.99147, -1, -25.0872, 3.85359, 19.7551, -156.854, -93.9226, 76.4517
1.99958, -1, -25.2505, 3.81001, 19.766, -156.904, -93.9051, 76.1574
2.00746, -1, -25.4136, 3.76641, 19.7769, -156.955, -93.8876, 75.863
2.01548, -1, -25.5764, 3.72279, 19.7876, -157.005, -93.8699, 75.5688
2.02352, -1, -25.7391, 3.67919, 19.7983, -157.055, -93.852, 75.2743
2.03304, -1, -25.9016, 3.63571, 19.8091, -157.106, -93.8336, 74.9794
2.03953, -1, -26.0638, 3.59218, 19.8199, -157.156, -93.8153, 74.6848
2.04843, -1, -26.2257, 3.5487, 19.8307, -157.207, -93.7972, 74.3903
2.05546, -1, -26.3872, 3.50536, 19.8415, -157.258, -93.7794, 74.0955
2.06349, -1, -26.5488, 3.46187, 19.8522, -157.308, -93.7617, 73.8002
2.07149, -1, -26.7107, 3.41837, 19.863, -157.359, -93.7441, 73.5051
2.07951, -1, -26.8729, 3.37487, 19.8739, -157.41, -93.7264, 73.2098
2.08876, -1, -27.0355, 3.33124, 19.8847, -157.46, -93.7085, 72.9143
2.09546, -1, -27.1984, 3.28763, 19.8955, -157.511, -93.6903, 72.6189
2.10353, -1, -27.3616, 3.24401, 19.9062, -157.561, -93.672, 72.3237
2.11147, -1, -27.5252, 3.20021, 19.917, -157.612, -93.6539, 72.0283
2.11951, -1, -27.6891, 3.1565, 19.9278, -157.663, -93.636, 71.7327
2.12752, -1, -27.8531, 3.11288, 19.9385, -157.713, -93.6183, 71.437
2.13545, -1, -28.0174, 3.06914, 19.9493, -157.764, -93.6006, 71.1415
2.14346, -1, -28.1817, 3.02541, 19.9601, -157.815, -93.5829, 70.8458
2.15153, -1, -28.346, 2.98171, 19.9709, -157.865, -93.5647, 70.5497
2.15951, -1, -28.51, 2.93799, 19.9818, -157.916, -93.5464, 70.2537
2.16756, -1, -28.6738, 2.89434, 19.9927, -157.967, -93.5279, 69.9578
2.17552, -1, -28.8373, 2.85065, 20.0035, -158.018, -93.5097, 69.6617
2.18345, -1, -29.0003, 2.80695, 20.0142, -158.069, -93.4918, 69.365
2.19147, -1, -29.163, 2.7633, 20.025, -158.12, -93.4741, 69.0687
2.19963, -1, -29.3258, 2.71961, 20.0358, -158.17, -93.4565, 68.772
2.20746, -1, -29.4884, 2.67592, 20.0466, -158.222, -93.4387, 68.4752
2.21548, -1, -29.6512, 2.63213, 20.0575, -158.273, -93.4207, 68.1783
2.22356, -1, -29.8142, 2.5883, 20.0683, -158.323, -93.4024, 67.8818
2.23156, -1, -29.9773, 2.54455, 20.0792, -158.375, -93.384, 67.5851
2.23962, -1, -30.1406, 2.50064, 20.0902, -158.425, -93.3657, 67.2881
2.24761, -1, -30.3044, 2.45661, 20.1012, -158.476, -93.3477, 66.991
2.25556, -1, -30.4687, 2.41268, 20.1121, -158.527, -93.3299, 66.6942
2.26356, -1, -30.6335, 2.36862, 20.1229, -158.578, -93.3122, 66.397
2.27164, -1, -30.7985, 2.32466, 20.1337, -158.629, -93.2945, 66.0994
2.27961, -1, -30.9636, 2.28071, 20.1447, -158.68, -93.2763, 65.8021
2.28749, -1, -31.1287, 2.23664, 20.1555, -158.731, -93.258, 65.505
2.29556, -1, -31.2938, 2.19271, 20.1664, -158.782, -93.2394, 65.2075
2.30351, -1, -31.4588, 2.14882, 20.1772, -158.833, -93.2211, 64.9096
2.31165, -1, -31.6234, 2.1048, 20.188, -158.884, -93.2031, 64.612
2.31969, -1, -31.7879, 2.06083, 20.1989, -158.936, -93.1854, 64.3141
2.3277, -1, -31.9521, 2.01692, 20.2099, -158.987, -93.1678, 64.0161
2.33582, -1, -32.1161, 1.9729, 20.2209, -159.037, -93.1501, 63.7178
2.34384, -1, -32.2797, 1.92889, 20.2318, -159.089, -93.1322, 63.42
2.35197, -1, -32.4431, 1.88489, 20.2427, -159.14, -93.114, 63.122
2.36055, -1, -32.6068, 1.84072, 20.2536, -159.191, -93.0956, 62.8237
2.36884, -1, -32.7707, 1.79663, 20.2645, -159.243, -93.0773, 62.5255
2.37603, -1, -32.9347, 1.75251, 20.2754, -159.294, -93.0593, 62.2272
2.38405, -1, -33.099, 1.70826, 20.2863, -159.345, -93.0414, 61.9287
2.39288, -1, -33.1813, 1.66409, 20.2972, -159.396, -93.0237, 61.6299
2.40014, -1, -33.3461, 1.6199, 20.3081, -159.447, -93.0058, 61.3314
2.40817, -1, -33.5114, 1.57565, 20.3191, -159.499, -92.9878, 61.0329
2.41546, -1, -33.677, 1.55352, 20.3246, -159.524, -92.9786, 60.8835
2.42345, -1, -33.8427, 1.50933, 20.3355, -159.575, -92.9599, 60.5844
2.4315, -1, -34.0087, 1.46512, 20.3463, -159.627, -92.9412, 60.2852
2.4395, -1, -34.1747, 1.42098, 20.3572, -159.678, -92.9229, 59.9861
2.44744, -1, -34.3408, 1.37681, 20.3682, -159.73, -92.9049, 59.6867
2.45549, -1, -34.5068, 1.3326, 20.3791, -159.781, -92.8871, 59.3869
2.46345, -1, -34.6725, 1.28844, 20.39, -159.833, -92.8693, 59.0875
2.47146, -1, -34.8378, 1.24422, 20.4009, -159.884, -92.8513, 58.7883
2.47958, -1, -35.0028, 1.19999, 20.4119, -159.935, -92.8331, 58.4888
2.48745, -1, -35.1675, 1.15571, 20.423, -159.987, -92.8147, 58.1888
2.49545, -1, -35.3321, 1.11138, 20.434, -160.038, -92.7961, 57.8892
2.50351, -1, -35.496, 1.06725, 20.4452, -160.09, -92.7778, 57.5893
2.51145, -1, -35.6583, 1.02345, 20.4564, -160.141, -92.7597, 57.2894
2.5195, -1, -35.8178, 0.980228, 20.4679, -160.192, -92.7418, 56.9908
2.52751, -1, -35.9733, 0.938153, 20.4797, -160.242, -92.724, 56.6957
2.53713, -1, -36.1237, 0.897708, 20.4916, -160.292, -92.6979, 56.2653
2.5435, -1, -36.2665, 0.859476, 20.5036, -160.339, -92.6894, 56.1274
2.55247, -1, -36.3996, 0.82418, 20.5151, -160.384, -92.6729, 55.8649
2.5595, -1, -36.5216, 0.791908, 20.5257, -160.425, -92.6578, 55.6251
2.56843, -1, -36.6307, 0.763059, 20.535, -160.46, -92.6446, 55.4134
2.57553, -1, -36.7255, 0.737986, 20.5423, -160.49, -92.6335, 55.235
2.58344, -1, -36.8056, 0.716745, 20.5474, -160.515, -92.6248, 55.0916
2.59146, -1, -36.8718, 0.699273, 20.5504, -160.534, -92.6183, 54.9832
2.59956, -1, -36.925, 0.685261, 20.5517, -160.547, -92.6138, 54.9064
2.60745, -1, -36.9655, 0.67444, 20.5521, -160.556, -92.611, 54.8545
2.61541, -1, -36.9951, 0.666645, 20.5518, -160.562, -92.6093, 54.823
2.62351, -1, -37.0155, 0.661547, 20.5514, -160.565, -92.6084, 54.8051
2.63145, -1, -37.0279, 0.658528, 20.5511, -160.567, -92.6079, 54.796
2.63948, 2, -37.0345, 0.656955, 20.5509, -160.568, -92.6077, 54.7918
2.64751, 2, -37.0367, 0.656228, 20.5508, -160.568, -92.6076, 54.7898
2.65544, 2, -37.0366, 0.655943, 20.5508, -160.568, -92.6075, 54.7889
2.66344, 2, -37.0359, 0.655806, 20.5508, -160.568, -92.6075, 54.7885
2.67153, 2, -37.0357, 0.655774, 20.5507, -160.568, -92.6076, 54.7883
2.67957, 2, -37.0361, 0.655718, 20.5507, -160.568, -92.6076, 54.7883
2.68744, 2, -37.037, 0.655677, 20.5507, -160.568, -92.6075, 54.7883
2.69551, 2, -37.0382, 0.655545, 20.5505, -160.568, -92.6076, 54.7882
2.7035, 2, -37.0397, 0.655344, 20.5503, -160.568, -92.6076, 54.7883
2.71145, 2, -37.0411, 0.655092, 20.5501, -160.568, -92.6076, 54.7884
2.71959, 2, -37.0422, 0.654828, 20.55, -160.568, -92.6077, 54.7885
2.72748, 2, -37.0432, 0.654584, 20.5498, -160.568, -92.6077, 54.7886
2.73556, 2, -37.0437, 0.654474, 20.5496, -160.568, -92.6078, 54.7886
2.74362, 2, -37.0436, 0.654416, 20.5494, -160.568, -92.6078, 54.7888
2.75155, 2, -37.0432, 0.65442, 20.5492, -160.568, -92.6079, 54.7889
2.75959, 2, -37.0423, 0.654465, 20.5492, -160.568, -92.6079, 54.789
2.76761, 2, -37.0413, 0.654533, 20.5491, -160.568, -92.608, 54.7892
2.77554, 2, -37.0397, 0.654622, 20.5491, -160.568, -92.608, 54.7893
2.78344, 2, -37.0383, 0.65468, 20.5489, -160.568, -92.608, 54.7895
2.79161, 2, -37.0373, 0.654706, 20.5489, -160.568, -92.608, 54.7896
2.79953, 2, -37.0366, 0.654729, 20.5488, -160.568, -92.608, 54.7897
2.80748, 2, -37.0364, 0.654694, 20.5488, -160.568, -92.608, 54.7898
2.81562, 2, -37.0365, 0.654644, 20.5488, -160.568, -92.6081, 54.7898
2.82388, 2, -37.0367, 0.654593, 20.5488, -160.568, -92.6081, 54.7898
2.83168, 2, -37.037, 0.654544, 20.5488, -160.568, -92.6081, 54.7899
2.84007, 2, -37.0375, 0.654502, 20.5487, -160.568, -92.6081, 54.7899
2.84854, 2, -37.0382, 0.654478, 20.5487, -160.568, -92.6081, 54.7899
2.85588, 2, -37.039, 0.654467, 20.5487, -160.568, -92.6081, 54.79
2.86401, 2, -37.0396, 0.654481, 20.5487, -160.568, -92.6081, 54.79
2.87245, 2, -37.04, 0.65448, 20.5487, -160.568, -92.6081, 54.7901
2.88, 2, -37.0401, 0.654522, 20.5487, -160.568, -92.6081, 54.7901
2.88854, 2, -37.0401, 0.654568, 20.5487, -160.568, -92.6081, 54.7902
2.89631, 2, -37.0401, 0.654574, 20.5487, -160.568, -92.6082, 54.7903
2.90399, 2, -37.0399, 0.654573, 20.5487, -160.568, -92.6082, 54.7903
2.91202, 2, -37.0395, 0.65456, 20.5487, -160.568, -92.6081, 54.7902
2.92036, 2, -37.039, 0.654571, 20.5486, -160.568, -92.6082, 54.7903
2.92744, 2, -37.0389, 0.65456, 20.5486, -160.568, -92.6082, 54.7903
2.93548, 2, -37.0388, 0.654529, 20.5486, -160.568, -92.6081, 54.7904
2.94343, 2, -37.0387, 0.654514, 20.5486, -160.568, -92.6082, 54.7905
2.95145, 2, -37.0387, 0.654489, 20.5486, -160.568, -92.6082, 54.7905
2.95954, 2, -37.0388, 0.654484, 20.5486, -160.568, -92.6082, 54.7905
2.96743, 2, -37.0388, 0.654482, 20.5486, -160.568, -92.6082, 54.7906
2.97543, 2, -37.0389, 0.654488, 20.5486, -160.568, -92.6083, 54.7906
2.98348, 2, -37.039, 0.654496, 20.5486, -160.568, -92.6083, 54.7907
2.99145, 2, -37.0392, 0.654499, 20.5486, -160.568, -92.6083, 54.7907
2.99949, 2, -37.0393, 0.65453, 20.5486, -160.568, -92.6083, 54.7908
3.009, 2, -37.0394, 0.654558, 20.5486, -160.568, -92.6082, 54.7909
3.01733, 2, -37.0395, 0.654565, 20.5486, -160.568, -92.6083, 54.7909
3.02343, 2, -37.0395, 0.654556, 20.5486, -160.568, -92.6083, 54.791
3.0315, 2, -37.0395, 0.654545, 20.5486, -160.568, -92.6083, 54.791
3.0413, 2, -37.0394, 0.654516, 20.5485, -160.568, -92.6083, 54.7911
3.04743, 2, -37.0394, 0.654512, 20.5485, -160.568, -92.6083, 54.7912
3.05644, 2, -37.0394, 0.654507, 20.5485, -160.568, -92.6083, 54.7912
3.06343, 2, -37.0394, 0.654504, 20.5485, -160.568, -92.6083, 54.7913
3.07242, 2, -37.0393, 0.654503, 20.5485, -160.568, -92.6083, 54.7913
3.07957, 2, -37.0394, 0.654503, 20.5485, -160.568, -92.6084, 54.7913
3.08743, 2, -37.0394, 0.654503, 20.5484, -160.568, -92.6084, 54.7914
3.09543, 2, -37.0394, 0.654532, 20.5484, -160.568, -92.6083, 54.7914
3.1035, 2, -37.0394, 0.654553, 20.5484, -160.568, -92.6083, 54.7914
3.11144, 2, -37.0394, 0.654575, 20.5484, -160.568, -92.6083, 54.7915
3.11948, 2, -37.0394, 0.654585, 20.5484, -160.568, -92.6083, 54.7916
3.12749, 2, -37.0393, 0.654548, 20.5484, -160.568, -92.6084, 54.7917
3.13543, 2, -37.0393, 0.654523, 20.5484, -160.568, -92.6084, 54.7917
3.14343, 2, -37.0393, 0.65453, 20.5484, -160.568, -92.6084, 54.7917
3.1515, 2, -37.0393, 0.654534, 20.5484, -160.568, -92.6083, 54.7917
3.15948, 2, -37.0393, 0.654517, 20.5484, -160.568, -92.6083, 54.7917
3.16743, 2, -37.0393, 0.654509, 20.5484, -160.568, -92.6084, 54.7918
3.17551, 2, -37.0393, 0.654506, 20.5483, -160.568, -92.6084, 54.7918
3.18342, 2, -37.0393, 0.654504, 20.5483, -160.568, -92.6084, 54.7919
3.19144, 2, -37.0393, 0.654503, 20.5483, -160.568, -92.6084, 54.7919
3.19955, 2, -37.0392, 0.654521, 20.5483, -160.568, -92.6084, 54.792
3.20748, 2, -37.0392, 0.654511, 20.5483, -160.568, -92.6084, 54.792
3.21549, 2, -37.0392, 0.654536, 20.5483, -160.568, -92.6084, 54.7921
3.22351, 2, -37.0392, 0.654554, 20.5483, -160.568, -92.6084, 54.7921
3.23147, 2, -37.0392, 0.654552, 20.5483, -160.568, -92.6084, 54.7921
3.23961, 2, -37.0392, 0.654544, 20.5483, -160.568, -92.6084, 54.7921
3.2476, 2, -37.0392, 0.654532, 20.5483, -160.568, -92.6084, 54.7921
3.25552, 2, -37.0392, 0.654535, 20.5483, -160.568, -92.6085, 54.7922
3.26353, 2, -37.0392, 0.654536, 20.5483, -160.568, -92.6084, 54.7922
3.27161, 2, -37.0392, 0.654536, 20.5483, -160.568, -92.6084, 54.7922
3.27959, 2, -37.0391, 0.654544, 20.5482, -160.568, -92.6084, 54.7922
3.28743, 2, -37.0391, 0.654563, 20.5482, -160.568, -92.6085, 54.7924
3.29552, 2, -37.0391, 0.654538, 20.5482, -160.568, -92.6085, 54.7924
3.30347, 2, -37.0391, 0.65453, 20.5482, -160.568, -92.6085, 54.7924
3.31155, 2, -37.0391, 0.654552, 20.5482, -160.568, -92.6085, 54.7925
3.31971, 2, -37.0391, 0.654562, 20.5482, -160.568, -92.6085, 54.7925
3.32761, 2, -37.0391, 0.654574, 20.5482, -160.568, -92.6085, 54.7925
3.33574, 2, -37.0391, 0.654577, 20.5482, -160.568, -92.6085, 54.7925
3.34382, 2, -37.039, 0.654573, 20.5482, -160.568, -92.6085, 54.7926
3.35179, 2, -37.039, 0.654572, 20.5481, -160.568, -92.6085, 54.7926
3.36, 2, -37.039, 0.65456, 20.5481, -160.568, -92.6084, 54.7926
3.3685, 2, -37.039, 0.65454, 20.5481, -160.568, -92.6084, 54.7926
3.37597, 2, -37.039, 0.654538, 20.5481, -160.568, -92.6085, 54.7926
3.38403, 2, -37.039, 0.654545, 20.5481, -160.568, -92.6085, 54.7926
3.39206, 2, -37.0389, 0.654533, 20.5481, -160.568, -92.6085, 54.7927
3.40005, 2, -37.0389, 0.654535, 20.5481, -160.568, -92.6085, 54.7927
3.40808, 2, -37.0389, 0.654546, 20.5481, -160.568, -92.6085, 54.7927
3.41603, 2, -37.0389, 0.654559, 20.548, -160.568, -92.6085, 54.7927
3.42342, 2, -37.0389, 0.654565, 20.548, -160.567, -92.6086, 54.7927
3.43144, 2, -37.0389, 0.65458, 20.548, -160.567, -92.6085, 54.7928
3.43952, 2, -37.0389, 0.654575, 20.548, -160.567, -92.6085, 54.7928
3.44742, 2, -37.0388, 0.654572, 20.548, -160.567, -92.6086, 54.7928
3.45542, 2, -37.0388, 0.65456, 20.548, -160.567, -92.6086, 54.7929
3.46346, 2, -37.0388, 0.654558, 20.548, -160.567, -92.6085, 54.7929
3.47142, 2, -37.0388, 0.654546, 20.548, -160.567, -92.6085, 54.7929
3.47948, 2, -37.0388, 0.654561, 20.548, -160.567, -92.6086, 54.7929
3.48746, 2, -37.0388, 0.654559, 20.548, -160.567, -92.6086, 54.7929
3.49703, 2, -37.0387, 0.654525, 20.548, -160.567, -92.6086, 54.7929
3.50342, 2, -37.0387, 0.654529, 20.548, -160.567, -92.6086, 54.7929
3.51301, 2, -37.0388, 0.654546, 20.5479, -160.567, -92.6086, 54.7929
3.51947, 2, -37.0388, 0.654551, 20.548, -160.567, -92.6086, 54.7929
3.52742, 2, -37.0387, 0.654566, 20.5479, -160.567, -92.6086, 54.7929
3.53695, 2, -37.0387, 0.654576, 20.5479, -160.567, -92.6087, 54.793
3.54346, 2, -37.0387, 0.65459, 20.5479, -160.567, -92.6087, 54.7931
3.55241, 2, -37.0387, 0.654579, 20.5479, -160.567, -92.6087, 54.7931
3.55957, 2, -37.0387, 0.654582, 20.5479, -160.567, -92.6087, 54.7931
3.56845, 2, -37.0387, 0.654588, 20.5479, -160.567, -92.6087, 54.793
3.57544, 2, -37.0387, 0.654583, 20.5479, -160.567, -92.6087, 54.7931
3.5835, 2, -37.0387, 0.654584, 20.5479, -160.567, -92.6087, 54.7931
3.59142, 2, -37.0387, 0.654581, 20.5479, -160.567, -92.6087, 54.7931
3.59948, 2, -37.0387, 0.654564, 20.5479, -160.567, -92.6086, 54.7931
3.60747, 2, -37.0387, 0.654573, 20.5479, -160.567, -92.6086, 54.7931
3.61541, 2, -37.0386, 0.654571, 20.5478, -160.567, -92.6086, 54.7931
3.62342, 2, -37.0386, 0.654552, 20.5478, -160.567, -92.6086, 54.7931
3.63149, 2, -37.0386, 0.654569, 20.5478, -160.567, -92.6087, 54.7931
3.63963, 2, -37.0386, 0.654582, 20.5478, -160.567, -92.6087, 54.7931
3.64843, 2, -37.0386, 0.654593, 20.5478, -160.567, -92.6086, 54.7931
3.65547, 2, -37.0386, 0.654588, 20.5478, -160.567, -92.6087, 54.7931
3.66341, 2, -37.0386, 0.654596, 20.5478, -160.567, -92.6086, 54.7932
3.67142, 2, -37.0386, 0.654582, 20.5478, -160.567, -92.6086, 54.7931
3.67958, 2, -37.0385, 0.654576, 20.5478, -160.567, -92.6086, 54.7932
3.68741, 2, -37.0385, 0.65458, 20.5478, -160.567, -92.6087, 54.7932
3.69541, 2, -37.0385, 0.65458, 20.5478, -160.567, -92.6087, 54.7932
3.70345, 4, -37.0385, 0.654594, 20.5478, -160.567, -92.6087, 54.7932
3.71147, 4, -37.0385, 0.654586, 20.5478, -160.567, -92.6087, 54.7932
3.71947, 4, -37.0385, 0.654597, 20.5478, -160.567, -92.6087, 54.7932
3.72751, 4, -37.0385, 0.654588, 20.5477, -160.567, -92.6087, 54.7931
3.73546, 4, -37.0385, 0.654578, 20.5477, -160.567, -92.6087, 54.7932
3.74351, 4, -37.0385, 0.654594, 20.5477, -160.567, -92.6087, 54.7932
3.75159, 4, -37.0385, 0.654606, 20.5477, -160.567, -92.6087, 54.7932
3.75956, 4, -37.0385, 0.654604, 20.5477, -160.567, -92.6087, 54.7932
3.76751, 4, -37.0384, 0.654598, 20.5477, -160.567, -92.6087, 54.7931
3.77558, 4, -37.0384, 0.654583, 20.5477, -160.567, -92.6087, 54.7932
3.78347, 4, -37.0384, 0.654596, 20.5477, -160.567, -92.6087, 54.7932
3.79142, 4, -37.0384, 0.654594, 20.5477, -160.567, -92.6087, 54.7932
3.79962, 4, -37.0384, 0.654624, 20.5477, -160.567, -92.6087, 54.7932
3.80784, 4, -37.0384, 0.6546, 20.5477, -160.567, -92.6087, 54.7932
3.82993, 4, -37.0383, 0.654596, 20.5476, -160.567, -92.6087, 54.7932
3.83264, 4, -37.0383, 0.654595, 20.5476, -160.567, -92.6087, 54.7932
3.8344, 4, -37.0383, 0.654595, 20.5476, -160.567, -92.6087, 54.7932
3.8416, 4, -37.0383, 0.654589, 20.5476, -160.567, -92.6087, 54.7932
3.85068, 4, -37.0383, 0.654585, 20.5476, -160.567, -92.6087, 54.7932
3.85637, 4, -37.0375, 0.654426, 20.5476, -160.567, -92.6087, 54.7932
3.86389, 4, -37.035, 0.653514, 20.5478, -160.567, -92.6087, 54.7931
3.8725, 4, -37.0291, 0.650685, 20.5486, -160.567, -92.6087, 54.7932
3.88043, 4, -37.0195, 0.644781, 20.5511, -160.567, -92.6088, 54.7932
3.88795, 4, -37.006, 0.635222, 20.5566, -160.566, -92.6088, 54.7932
3.89674, 4, -36.9878, 0.621532, 20.5663, -160.564, -92.6088, 54.7932
3.90458, 5, -36.9639, 0.603238, 20.5817, -160.561, -92.6087, 54.7932
3.91199, 5, -36.9499, 0.592465, 20.5919, -160.559, -92.6085, 54.7932
3.92015, 5, -36.9182, 0.567483, 20.6172, -160.551, -92.6082, 54.793
3.92822, 5, -36.8819, 0.53803, 20.6494, -160.547, -92.6075, 54.793
3.93538, 5, -36.8406, 0.504053, 20.6879, -160.539, -92.607, 54.793
3.9434, 5, -36.7942, 0.465252, 20.7319, -160.529, -92.6056, 54.7929
3.95159, 5, -36.7425, 0.422209, 20.7803, -160.518, -92.6041, 54.7929
3.9596, 5, -36.6862, 0.375461, 20.8317, -160.506, -92.6025, 54.7929
3.9674, 5, -36.6258, 0.325966, 20.8854, -160.494, -92.6007, 54.7929
3.97542, 5, -36.5616, 0.27437, 20.9402, -160.482, -92.5989, 54.7929
3.9849, 5, -36.4612, 0.194663, 21.0233, -160.463, -92.5962, 54.7929
3.99296, 5, -36.3928, 0.140932, 21.0787, -160.451, -92.5943, 54.7929
4.00148, 5, -36.3241, 0.0870563, 21.1342, -160.439, -92.5924, 54.7929
4.00877, 5, -36.2897, 0.0601179, 21.1619, -160.434, -92.5905, 54.793
4.01541, 5, -36.2207, 0.00633278, 21.2174, -160.422, -92.5896, 54.793
4.02656, 5, -36.1175, -0.0739667, 21.3005, -160.403, -92.5866, 54.7931
4.03162, 5, -36.0833, -0.100628, 21.3282, -160.397, -92.5856, 54.7931
4.04142, 5, -35.9803, -0.180249, 21.411, -160.378, -92.5826, 54.7932
4.04744, 5, -35.946, -0.206713, 21.4386, -160.371, -92.5816, 54.7933
4.0564, 5, -35.8774, -0.2595, 21.4937, -160.358, -92.5797, 54.7937
4.06444, 5, -35.8086, -0.312157, 21.5487, -160.346, -92.5776, 54.7942
4.07141, 5, -35.7397, -0.364781, 21.6036, -160.333, -92.5756, 54.7948
4.07963, 5, -35.6704, -0.417386, 21.6584, -160.32, -92.5736, 54.7957
4.08747, 5, -35.6009, -0.470108, 21.7129, -160.308, -92.5716, 54.7967
4.09539, 5, -35.5311, -0.522858, 21.7673, -160.295, -92.5695, 54.798
4.10354, 5, -35.461, -0.575592, 21.8215, -160.283, -92.5675, 54.7993
4.11376, 5, -35.3555, -0.6547, 21.9025, -160.264, -92.5644, 54.8016
4.11945, 5, -35.3202, -0.681046, 21.9295, -160.257, -92.5634, 54.8025
4.12757, 5, -35.2496, -0.733729, 21.9834, -160.244, -92.5613, 54.8043
4.13623, 5, -35.1791, -0.786086, 22.037, -160.231, -92.5592, 54.8062
4.1434, 5, -35.1084, -0.838263, 22.0907, -160.217, -92.557, 54.8083
4.15272, 5, -35.0377, -0.890392, 22.1442, -160.204, -92.5549, 54.8105
4.15963, 5, -34.9671, -0.942153, 22.1976, -160.191, -92.5528, 54.8129
4.16746, 5, -34.8966, -0.993716, 22.2508, -160.178, -92.5506, 54.8153
4.17896, 5, -34.7908, -1.0708, 22.3306, -160.159, -92.5473, 54.8192
4.18356, 5, -34.7556, -1.09648, 22.357, -160.152, -92.5462, 54.8205
4.19285, 5, -34.6849, -1.14785, 22.4098, -160.14, -92.544, 54.8234
4.19952, 5, -34.614, -1.19909, 22.4625, -160.127, -92.5418, 54.8262
4.2074, 5, -34.543, -1.2504, 22.5148, -160.114, -92.5396, 54.8292
4.21548, 5, -34.4718, -1.3017, 22.5671, -160.1, -92.5374, 54.8323
4.22344, 5, -34.4003, -1.35299, 22.6193, -160.086, -92.5351, 54.8355
4.23201, 5, -34.3287, -1.4043, 22.6714, -160.072, -92.5329, 54.8389
4.23985, 5, -34.257, -1.45549, 22.7232, -160.059, -92.5305, 54.8424
4.2475, 5, -34.1851, -1.50653, 22.775, -160.045, -92.5282, 54.846
4.25592, 5, -34.1131, -1.55733, 22.8266, -160.032, -92.5259, 54.8496
4.26563, 5, -34.041, -1.60797, 22.8782, -160.018, -92.5237, 54.8534
4.2715, 5, -33.9688, -1.65834, 22.9296, -160.005, -92.5213, 54.8573
4.27962, 5, -33.8966, -1.70847, 22.9809, -159.991, -92.519, 54.8614
4.2874, 5, -33.8245, -1.75845, 23.032, -159.978, -92.5167, 54.8654
4.2954, 5, -33.7523, -1.80835, 23.083, -159.964, -92.5144, 54.8696
4.30635, 5, -33.68, -1.85815, 23.1338, -159.95, -92.5121, 54.8738
4.31254, 5, -33.6075, -1.90792, 23.1844, -159.935, -92.5099, 54.8781
4.31954, 5, -33.5349, -1.95792, 23.2349, -159.921, -92.5076, 54.8823
4.32757, 5, -33.4621, -2.00826, 23.2853, -159.907, -92.5052, 54.8863
4.3367, 5, -33.3894, -2.05892, 23.3356, -159.893, -92.503, 54.8894
4.34369, 5, -33.3169, -2.11007, 23.3861, -159.879, -92.5006, 54.8911
4.3518, 6, -33.2446, -2.1618, 23.4368, -159.864, -92.498, 54.8914
4.36087, 6, -33.1727, -2.21439, 23.4878, -159.849, -92.4949, 54.8897
4.36791, 6, -33.1011, -2.26789, 23.5396, -159.834, -92.4912, 54.885
4.37655, 6, -33.0301, -2.32238, 23.5922, -159.817, -92.4864, 54.8748
4.3848, 7, -32.9594, -2.37804, 23.6461, -159.799, -92.4802, 54.8608
4.39197, 7, -32.8893, -2.43489, 23.7011, -159.78, -92.4723, 54.8444
4.40099, 7, -32.8197, -2.49321, 23.7575, -159.759, -92.4626, 54.827
4.41287, 7, -32.7165, -2.58357, 23.8445, -159.726, -92.4443, 54.8011
4.41536, 7, -32.7165, -2.58357, 23.8445, -159.726, -92.4443, 54.8011
4.42503, 8, -32.6149, -2.6775, 23.9344, -159.69, -92.4216, 54.776
4.43277, 8, -32.548, -2.74229, 23.9958, -159.665, -92.4041, 54.759
4.44167, 8, -32.5147, -2.77529, 24.0581, -159.638, -92.3849, 54.741
4.44739, 8, -32.4489, -2.84248, 24.0897, -159.624, -92.3746, 54.7316
4.4554, 8, -32.3837, -2.91114, 24.1536, -159.596, -92.3531, 54.7114
4.46347, 9, -32.3191, -2.98114, 24.2184, -159.568, -92.3308, 54.6896
4.4714, 9, -32.255, -3.05246, 24.2842, -159.538, -92.3072, 54.6658
4.48126, 9, -32.16, -3.16192, 24.3847, -159.49, -92.2691, 54.6273
4.48755, 9, -32.1286, -3.19902, 24.4187, -159.474, -92.2555, 54.6138
4.49542, 9, -32.0663, -3.27423, 24.4875, -159.442, -92.227, 54.586
4.50579, 10, -31.9738, -3.38948, 24.5926, -159.391, -92.1822, 54.5413
4.51147, 10, -31.9433, -3.4286, 24.6281, -159.373, -92.1667, 54.5255
4.52104, 10, -31.8525, -3.54812, 24.7363, -159.319, -92.1181, 54.4747
4.52739, 10, -31.8225, -3.58865, 24.7729, -159.301, -92.1008, 54.457
4.53772, 10, -31.7335, -3.7125, 24.8842, -159.244, -92.0472, 54.4024
4.54434, 11, -31.7041, -3.75448, 24.9218, -159.225, -92.0289, 54.3836
4.55242, 11, -31.6456, -3.83963, 24.9978, -159.185, -91.9916, 54.3445
4.55951, 11, -31.5877, -3.92623, 25.0746, -159.145, -91.9522, 54.3033
4.56739, 11, -31.5304, -4.01428, 25.1523, -159.104, -91.9112, 54.2607
4.57545, 11, -31.4735, -4.10382, 25.2312, -159.061, -91.8696, 54.217
4.58338, 12, -31.4174, -4.19486, 25.3111, -159.018, -91.8263, 54.172
4.59148, 12, -31.3615, -4.28728, 25.3921, -158.975, -91.7809, 54.1247
4.59938, 12, -31.3062, -4.3811, 25.4743, -158.929, -91.7349, 54.0758
4.60986, 12, -31.2243, -4.52426, 25.5993, -158.86, -91.6633, 54.0007
4.61554, 12, -31.1972, -4.5727, 25.6415, -158.836, -91.6384, 53.9748
4.62341, 13, -31.1435, -4.67066, 25.7266, -158.788, -91.5884, 53.9212
4.6314, 13, -31.0902, -4.76999, 25.8126, -158.739, -91.5369, 53.8666
4.63954, 13, -31.0374, -4.87077, 25.8996, -158.69, -91.4833, 53.811
4.64738, 13, -30.9852, -4.97312, 25.9878, -158.639, -91.4295, 53.7532
4.65545, 13, -30.9335, -5.0769, 26.077, -158.588, -91.3737, 53.6941
4.66334, 14, -30.8822, -5.18205, 26.1673, -158.535, -91.3164, 53.634
4.6714, 14, -30.8317, -5.28874, 26.2587, -158.481, -91.2587, 53.5718
4.67945, 14, -30.7817, -5.39693, 26.351, -158.428, -91.1984, 53.5083
4.68758, 14, -30.7322, -5.50657, 26.4441, -158.373, -91.1381, 53.4442
4.69539, 14, -30.6832, -5.61775, 26.5383, -158.316, -91.0755, 53.3777
4.70338, 14, -30.6348, -5.73043, 26.6335, -158.26, -91.0117, 53.3098
4.71144, 15, -30.5867, -5.84447, 26.7298, -158.201, -90.9467, 53.2412
4.71945, 15, -30.5393, -5.95973, 26.8274, -158.143, -90.8798, 53.1703
4.72744, 15, -30.4923, -6.0764, 26.9259, -158.083, -90.8126, 53.0987
4.73558, 15, -30.4457, -6.19459, 27.0254, -158.023, -90.743, 53.0251
4.74453, 15, -30.3998, -6.31408, 27.1258, -157.961, -90.6729, 52.9497
4.75156, 16, -30.3543, -6.43518, 27.227, -157.898, -90.6006, 52.8736
4.7603, 16, -30.3094, -6.5578, 27.3295, -157.835, -90.5279, 52.7949
4.76833, 16, -30.2648, -6.68172, 27.4331, -157.771, -90.4532, 52.7158
4.77549, 16, -30.2209, -6.80722, 27.5379, -157.706, -90.3777, 52.6348
4.78424, 16, -30.1774, -6.93417, 27.6437, -157.64, -90.3003, 52.5526
4.79139, 17, -30.1343, -7.06277, 27.7502, -157.573, -90.2221, 52.4692
4.79943, 17, -30.0919, -7.19298, 27.8576, -157.505, -90.1423, 52.3844
4.80976, 17, -30.0499, -7.32461, 27.966, -157.436, -90.0611, 52.2986
4.8158, 17, -30.0084, -7.45747, 28.0756, -157.367, -89.9789, 52.2107
4.82476, 17, -29.9674, -7.59173, 28.1865, -157.296, -89.8951, 52.1222
4.83158, 18, -29.9269, -7.72747, 28.2985, -157.225, -89.8102, 52.0319
4.83972, 18, -29.887, -7.86457, 28.4112, -157.152, -89.7236, 51.9407
4.84767, 18, -29.8475, -8.00312, 28.5248, -157.079, -89.6364, 51.8475
4.85581, 18, -29.8085, -8.1428, 28.6393, -157.005, -89.5477, 51.7535
4.86424, 18, -29.7699, -8.28383, 28.755, -156.93, -89.4575, 51.6576
4.87203, 19, -29.7317, -8.4263, 28.872, -156.854, -89.3665, 51.5612
4.87999, 19, -29.6941, -8.57038, 28.9901, -156.777, -89.2739, 51.463
4.88846, 19, -29.6568, -8.71598, 29.1089, -156.7, -89.1801, 51.3642
4.89914, 19, -29.6201, -8.8628, 29.2285, -156.621, -89.0854, 51.2641
4.90456, 19, -29.5839, -9.01087, 29.3489, -156.541, -88.9895, 51.1632
4.91188, 20, -29.566, -9.08552, 29.4097, -156.501, -88.9411, 51.1119
4.92124, 20, -29.5128, -9.31163, 29.5936, -156.38, -88.7943, 50.9571
4.92741, 20, -29.4953, -9.38779, 29.6555, -156.339, -88.7449, 50.9048
4.93692, 20, -29.4607, -9.54097, 29.7797, -156.256, -88.6451, 50.7461
4.94485, 20, -29.4266, -9.6952, 29.9677, -156.131, -88.4935, 50.6391
4.9516, 21, -29.3929, -9.85073, 30.0309, -156.089, -88.4424, 50.5849
4.95938, 21, -29.3597, -10.0078, 30.1579, -156.003, -88.3392, 50.4762
4.96745, 21, -29.3268, -10.1663, 30.2861, -155.917, -88.2352, 50.3662
4.97537, 21, -29.2943, -10.3261, 30.4153, -155.83, -88.1301, 50.2554
4.9858, 21, -29.2465, -10.5674, 30.6105, -155.699, -87.9703, 50.0877
4.99429, 22, -29.2152, -10.73, 30.7417, -155.609, -87.8627, 49.9746
4.99935, 22, -29.1997, -10.8118, 30.8077, -155.564, -87.8085, 49.9178
5.00743, 22, -29.1687, -10.9765, 30.9405, -155.474, -87.6992, 49.8035
5.01837, 22, -29.1233, -11.225, 31.1414, -155.337, -87.5337, 49.6302
5.02337, 22, -29.1083, -11.3084, 31.2087, -155.291, -87.4779, 49.5722
5.03144, 22, -29.0787, -11.4765, 31.3444, -155.197, -87.3658, 49.4552
5.03952, 23, -29.0494, -11.6463, 31.4807, -155.103, -87.2527, 49.3376
5.04736, 23, -29.0204, -11.8171, 31.6178, -155.009, -87.1386, 49.2192
5.05547, 23, -28.9918, -11.9887, 31.7558, -154.913, -87.0239, 49.1002
5.0645, 23, -28.9636, -12.1614, 31.8946, -154.817, -86.9083, 48.9808
5.07135, 23, -28.9359, -12.3357, 32.0344, -154.72, -86.7915, 48.8606
5.07937, 24, -28.9085, -12.5111, 32.1751, -154.621, -86.6739, 48.7401
5.08751, 24, -28.8814, -12.687, 32.3166, -154.522, -86.5553, 48.6191
5.09619, 24, -28.8546, -12.8637, 32.4586, -154.422, -86.4361, 48.497
5.10435, 24, -28.8283, -13.0419, 32.6015, -154.322, -86.3158, 48.3747
5.11145, 24, -28.8022, -13.2215, 32.7455, -154.22, -86.195, 48.2518
5.11937, 25, -28.7765, -13.4016, 32.8902, -154.118, -86.0734, 48.1285
5.12739, 25, -28.751, -13.5824, 33.0354, -154.015, -85.9509, 48.0051
5.13643, 25, -28.7257, -13.7645, 33.1812, -153.911, -85.8281, 47.8817
5.14437, 25, -28.7006, -13.948, 33.3278, -153.806, -85.7041, 47.7579
5.15237, 25, -28.6759, -14.1323, 33.4753, -153.701, -85.5799, 47.6339
5.16062, 26, -28.6515, -14.3168, 33.6235, -153.595, -85.4549, 47.51
5.16918, 26, -28.6272, -14.5026, 33.7721, -153.488, -85.3293, 47.3857
5.17543, 26, -28.6034, -14.6899, 33.9212, -153.38, -85.2033, 47.2612
5.18673, 26, -28.5679, -14.9717, 34.1468, -153.217, -85.0128, 47.0748
5.19429, 26, -28.5561, -15.0657, 34.2222, -153.162, -84.9492, 46.9509
5.19936, 27, -28.5328, -15.2543, 34.3733, -153.052, -84.8212, 46.8889
5.20745, 27, -28.5097, -15.444, 34.5249, -152.942, -84.693, 46.7657
5.21552, 27, -28.4868, -15.6341, 34.6773, -152.83, -84.564, 46.6424
5.22357, 27, -28.4641, -15.8244, 34.8305, -152.718, -84.4347, 46.5194
5.23137, 27, -28.4417, -16.0159, 34.984, -152.605, -84.3051, 46.3968
5.23937, 28, -28.4194, -16.2088, 35.1375, -152.492, -84.1749, 46.2743
5.24768, 28, -28.3971, -16.4024, 35.2917, -152.378, -84.0445, 46.1521
5.25545, 28, -28.3749, -16.5963, 35.4467, -152.263, -83.9135, 46.0306
5.2641, 28, -28.3529, -16.7912, 35.6022, -152.148, -83.7826, 45.9098
5.27179, 28, -28.3308, -16.9869, 35.7576, -152.032, -83.651, 45.7897
5.27967, 29, -28.3088, -17.1827, 35.9135, -151.915, -83.5194, 45.6707
5.28802, 29, -28.2869, -17.3785, 36.0701, -151.797, -83.3874, 45.5525
5.29642, 29, -28.2651, -17.5752, 36.2271, -151.679, -83.255, 45.4351
5.30413, 29, -28.2432, -17.7726, 36.3841, -151.561, -83.1224, 45.319
5.3117, 29, -28.2215, -17.9697, 36.5411, -151.442, -82.9896, 45.2034
5.32057, 29, -28.2, -18.167, 36.6989, -151.322, -82.8565, 45.0892
5.32936, 30, -28.1784, -18.3653, 36.8573, -151.202, -82.7234, 44.9762
5.33723, 30, -28.1568, -18.564, 37.0155, -151.081, -82.5903, 44.8644
5.34631, 30, -28.1353, -18.7625, 37.1735, -150.959, -82.4567, 44.7542
5.35184, 30, -28.1138, -18.9617, 37.332, -150.837, -82.3233, 44.6453
5.35972, 30, -28.092, -19.1621, 37.4911, -150.715, -82.1892, 44.5384
5.3686, 31, -28.0703, -19.3626, 37.6501, -150.592, -82.0556, 44.4325
5.37596, 31, -28.0488, -19.5629, 37.809, -150.468, -81.9216, 44.3284
5.38808, 31, -28.0165, -19.8643, 38.0483, -150.281, -81.7206, 44.1753
5.39233, 31, -28.0056, -19.9649, 38.1283, -150.218, -81.6534, 44.1248
5.39995, 31, -27.984, -20.1658, 38.2885, -150.093, -81.519, 44.0252
5.40889, 32, -27.9623, -20.3666, 38.4484, -149.966, -81.3846, 43.9272
5.41621, 32, -27.9404, -20.5683, 38.6083, -149.84, -81.2502, 43.8312
5.42333, 32, -27.9294, -20.6693, 38.6884, -149.776, -81.1831, 43.784
5.43137, 32, -27.9071, -20.8709, 38.849, -149.648, -81.0485, 43.6908
5.44038, 32, -27.8734, -21.1726, 39.0891, -149.456, -80.8473, 43.5564
5.44732, 33, -27.862, -21.2734, 39.1688, -149.392, -80.7803, 43.5129
5.45536, 33, -27.8389, -21.4745, 39.3284, -149.264, -80.6467, 43.4287
5.46352, 33, -27.8154, -21.6748, 39.488, -149.135, -80.5135, 43.347
5.47287, 33, -27.7914, -21.974, 39.7256, -148.943, -80.3147, 43.2316
5.47936, 33, -27.7669, -22.0738, 39.8043, -148.879, -80.2487, 43.1946
5.48877, 34, -27.7292, -22.3718, 40.0398, -148.688, -80.0515, 43.0899
5.49538, 34, -27.7165, -22.4705, 40.1181, -148.624, -79.986, 43.0566
5.50335, 34, -27.6904, -22.6677, 40.2745, -148.496, -79.8551, 42.9919
5.51381, 34, -27.6508, -22.9633, 40.5074, -148.305, -79.6595, 42.9021
5.51958, 34, -27.6374, -23.0614, 40.585, -148.241, -79.5943, 42.8739
5.52731, 35, -27.61, -23.2571, 40.7402, -148.112, -79.4641, 42.8193
5.53698, 35, -27.5826, -23.4529, 40.8951, -147.92, -79.2688, 42.7441
5.5435, 35, -27.5549, -23.6491, 41.0494, -147.855, -79.204, 42.7209
5.55146, 35, -27.5268, -23.8449, 41.2034, -147.726, -79.0743, 42.6769
5.56039, 35, -27.4986, -24.0399, 41.3574, -147.596, -78.9445, 42.6359
5.56732, 36, -27.47, -24.2351, 41.5116, -147.466, -78.815, 42.5984
5.57542, 36, -27.441, -24.43, 41.6651, -147.335, -78.6853, 42.5651
5.58335, 36, -27.4117, -24.624, 41.8179, -147.205, -78.5565, 42.5361
5.59151, 36, -27.382, -24.8172, 41.9705, -147.074, -78.4276, 42.5114
5.59934, 36, -27.3516, -25.0104, 42.1228, -146.943, -78.2993, 42.4908
5.60764, 37, -27.3203, -25.2031, 42.2741, -146.812, -78.1713, 42.4748
5.61536, 37, -27.2882, -25.3945, 42.4242, -146.682, -78.0438, 42.4633
5.62335, 37, -27.2554, -25.5847, 42.5735, -146.552, -77.9168, 42.4567
5.63135, 37, -27.2217, -25.7745, 42.722, -146.422, -77.79, 42.4538
5.64193, 37, -27.187, -26.0565, 42.9425, -146.229, -77.601, 42.456
5.6475, 37, -27.1514, -26.1495, 43.0153, -146.165, -77.5382, 42.46
5.65879, 38, -27.1149, -26.3347, 43.2321, -145.974, -77.3509, 42.4804
5.66337, 38, -27.0778, -26.5194, 43.3039, -145.911, -77.2887, 42.4898
5.67148, 38, -27.0397, -26.7028, 43.447, -145.784, -77.1646, 42.5128
5.67936, 38, -27.0007, -26.8845, 43.5891, -145.658, -77.0412, 42.5413
5.68742, 38, -26.961, -27.0654, 43.7301, -145.532, -76.918, 42.5757
5.69535, 39, -26.9207, -27.2461, 43.8703, -145.406, -76.7954, 42.6162
5.70335, 39, -26.8796, -27.4259, 44.0097, -145.28, -76.6726, 42.6626
5.71142, 39, -26.8376, -27.6045, 44.1484, -145.154, -76.5503, 42.7142
5.71949, 39, -26.7949, -27.7822, 44.2864, -145.028, -76.428, 42.7718
5.72831, 39, -26.7515, -27.9599, 44.4233, -144.903, -76.3056, 42.8363
5.73543, 40, -26.7072, -28.1366, 44.5591, -144.778, -76.1834, 42.906
5.74421, 40, -26.6618, -28.3116, 44.694, -144.653, -76.0612, 42.9827
5.75151, 40, -26.6155, -28.4852, 44.8277, -144.529, -75.9396, 43.0658
5.75968, 40, -26.5683, -28.6579, 44.96, -144.406, -75.818, 43.1548
5.76846, 40, -26.5198, -28.8291, 45.0908, -144.284, -75.6974, 43.2511
5.7756, 41, -26.4702, -28.9982, 45.2201, -144.162, -75.5771, 43.3536
5.78388, 41, -26.4194, -29.1654, 45.348, -144.042, -75.4571, 43.4631
5.79336, 41, -26.3672, -29.3315, 45.4742, -143.923, -75.338, 43.5793
5.8, 41, -26.3138, -29.4962, 45.5989, -143.805, -75.2191, 43.7025
5.80836, 41, -26.259, -29.659, 45.7219, -143.689, -75.101, 43.8328
5.8154, 42, -26.2028, -29.8199, 45.843, -143.573, -74.9833, 43.9703
5.82514, 42, -26.1453, -29.9792, 45.9625, -143.459, -74.8659, 44.1153
5.83152, 42, -26.0863, -30.137, 46.0802, -143.346, -74.7493, 44.2671
5.84375, 42, -25.9953, -30.3698, 46.2534, -143.18, -74.5745, 44.509
5.84791, 42, -25.9642, -30.4463, 46.3103, -143.125, -74.5166, 44.5932
5.8557, 42, -25.9008, -30.5977, 46.4225, -143.017, -74.4011, 44.7673
5.8646, 43, -25.8359, -30.7472, 46.5326, -142.911, -74.2858, 44.9496
5.87218, 43, -25.7693, -30.8946, 46.6407, -142.807, -74.1711, 45.1396
5.88069, 43, -25.701, -31.0397, 46.7466, -142.704, -74.0566, 45.3372
5.888, 43, -25.6311, -31.1824, 46.8506, -142.603, -73.9428, 45.5424
5.89598, 43, -25.5596, -31.3228, 46.9524, -142.505, -73.8295, 45.7553
5.90493, 44, -25.4862, -31.4609, 47.052, -142.408, -73.7165, 45.9761
5.91246, 44, -25.4108, -31.5967, 47.149, -142.314, -73.6041, 46.2048
5.92095, 44, -25.3724, -31.73, 47.2435, -142.222, -73.4921, 46.4416
5.92882, 44, -25.2942, -31.8604, 47.3356, -142.133, -73.3807, 46.6867
5.93536, 44, -25.2142, -31.9246, 47.3808, -142.089, -73.3253, 46.8121
5.9434, 45, -25.1323, -32.0509, 47.4691, -142.004, -73.2148, 47.0696
5.95241, 45, -25.0056, -32.2353, 47.597, -141.882, -73.0502, 47.4717
5.95935, 45, -24.9623, -32.2953, 47.6382, -141.843, -72.9958, 47.6097
5.96864, 45, -24.8294, -32.4709, 47.7572, -141.73, -72.8333, 48.0363
5.97755, 45, -24.7379, -32.5841, 47.8328, -141.657, -72.7263, 48.3312
5.98334, 46, -24.6913, -32.6394, 47.8695, -141.623, -72.673, 48.482
5.99416, 46, -24.548, -32.8005, 47.9752, -141.524, -72.5142, 48.9468
5.99969, 46, -24.499, -32.8525, 48.0089, -141.493, -72.4618, 49.106
6.00859, 46, -24.3993, -32.9539, 48.074, -141.435, -72.3575, 49.4311
6.01537, 46, -24.2974, -33.0515, 48.1357, -141.379, -72.254, 49.7647
6.02489, 47, -24.1402, -33.1908, 48.2216, -141.304, -72.1011, 50.2798
6.03316, 47, -24.0323, -33.2785, 48.2744, -141.258, -72.0001, 50.6341
6.03934, 47, -23.9773, -33.3209, 48.2995, -141.236, -71.9503, 50.8143
6.05034, 47, -23.8083, -33.4417, 48.3688, -141.18, -71.8022, 51.3673
6.05541, 47, -23.7505, -33.4799, 48.39, -141.164, -71.7533, 51.5559
6.06512, 48, -23.6329, -33.5529, 48.4293, -141.135, -71.6567, 51.9392
6.07149, 48, -23.5127, -33.6214, 48.4646, -141.11, -71.5617, 52.3305
6.07939, 48, -23.3898, -33.6852, 48.4956, -141.089, -71.4681, 52.7303
6.08734, 48, -23.2645, -33.7442, 48.5227, -141.074, -71.3763, 53.1386
6.09551, 48, -23.1366, -33.7981, 48.5455, -141.064, -71.2867, 53.5552
6.10432, 49, -23.0058, -33.847, 48.564, -141.059, -71.1988, 53.9804
6.11134, 49, -22.8721, -33.8906, 48.5781, -141.058, -71.1126, 54.4129
6.12028, 49, -22.7354, -33.9288, 48.5875, -141.062, -71.0289, 54.8533
6.12843, 49, -22.5959, -33.9614, 48.5922, -141.073, -70.9469, 55.3018
6.1354, 49, -22.4536, -33.9883, 48.5926, -141.09, -70.8675, 55.7582
6.14433, 50, -22.3084, -34.0093, 48.588, -141.113, -70.7903, 56.2231
6.1515, 50, -22.1607, -34.0242, 48.5783, -141.142, -70.7164, 56.6956
6.16033, 50, -22.0102, -34.0328, 48.5633, -141.177, -70.6451, 57.1772
6.17085, 50, -21.779, -34.0344, 48.5309, -141.242, -70.5443, 57.9154
6.17548, 50, -21.7004, -34.0318, 48.5172, -141.267, -70.5123, 58.1656
6.18428, 51, -21.5407, -34.0215, 48.4857, -141.321, -70.4519, 58.6713
6.19233, 51, -21.3782, -34.0044, 48.449, -141.381, -70.3941, 59.1829
6.19956, 51, -21.2131, -33.9805, 48.4067, -141.448, -70.3404, 59.7007
6.20734, 51, -21.0453, -33.9494, 48.3589, -141.521, -70.2905, 60.2238
6.21534, 51, -20.8751, -33.9114, 48.3056, -141.6, -70.2435, 60.7522
6.22349, 51, -20.7024, -33.866, 48.2466, -141.685, -70.2011, 61.2848
6.2323, 52, -20.5271, -33.8127, 48.1818, -141.777, -70.1636, 61.8233
6.23941, 52, -20.3491, -33.7517, 48.1112, -141.874, -70.1301, 62.3675
6.24893, 52, -20.1683, -33.6827, 48.0345, -141.978, -70.1011, 62.9179
6.25937, 52, -19.9848, -33.5636, 47.9078, -142.146, -70.0675, 63.7542
6.26349, 52, -19.7988, -33.5196, 47.8624, -142.205, -70.059, 64.0361
6.27145, 53, -19.6107, -33.4251, 47.7668, -142.327, -70.0462, 64.6045
6.27943, 53, -19.4206, -33.3223, 47.6648, -142.457, -70.0391, 65.1789
6.28751, 53, -19.2283, -33.2112, 47.5567, -142.592, -70.0371, 65.7578
6.29534, 53, -19.0342, -33.0916, 47.4424, -142.733, -70.0404, 66.3418
6.30361, 53, -18.8382, -32.9634, 47.3218, -142.879, -70.05, 66.9298
6.31232, 54, -18.6403, -32.8268, 47.1951, -143.031, -70.066, 67.52
6.31944, 54, -18.4403, -32.6816, 47.0626, -143.187, -70.0888, 68.1113
6.32743, 54, -18.2383, -32.5281, 46.9245, -143.348, -70.1184, 68.7044
6.33551, 54, -18.0348, -32.3662, 46.7809, -143.513, -70.1542, 69.2989
6.34367, 54, -17.8301, -32.1953, 46.6314, -143.683, -70.1962, 69.8946
6.35192, 55, -17.6247, -32.0151, 46.4758, -143.857, -70.2465, 70.4928
6.36011, 55, -17.418, -31.8256, 46.314, -144.036, -70.3043, 71.0953
6.36842, 55, -17.2097, -31.627, 46.1457, -144.22, -70.3699, 71.7021
6.37678, 55, -16.9997, -31.4184, 45.97, -144.409, -70.4447, 72.3126
6.38768, 55, -16.7881, -31.1993, 45.7869, -144.603, -70.573, 73.2371
6.39195, 56, -16.575, -30.9703, 45.5975, -144.802, -70.6202, 73.5473
6.40256, 56, -16.3606, -30.7311, 45.4015, -145.004, -70.7209, 74.1692
6.40814, 56, -16.1456, -30.4811, 45.1978, -145.211, -70.8309, 74.7925
6.41592, 56, -16.0382, -30.3522, 45.0935, -145.315, -70.8893, 75.4179
6.42387, 56, -15.8237, -30.0869, 44.8808, -145.526, -71.0125, 75.731
6.43238, 57, -15.5012, -29.6684, 44.5493, -145.847, -71.2149, 76.6713
6.43933, 57, -15.3931, -29.5239, 44.4352, -145.956, -71.2871, 76.985
6.44734, 57, -15.1761, -29.227, 44.2024, -146.175, -71.4393, 77.6142
6.45537, 57, -14.9581, -28.9197, 43.9628, -146.396, -71.6014, 78.2446
6.46332, 57, -14.7401, -28.6035, 43.7165, -146.619, -71.7736, 78.8745
6.47128, 58, -14.5225, -28.2786, 43.4654, -146.843, -71.9554, 79.5038
6.48236, 58, -14.1977, -27.7772, 43.0795, -147.18, -72.2439, 80.4431
6.48738, 58, -14.0901, -27.6059, 42.9492, -147.292, -72.3441, 80.7537
6.49534, 58, -13.876, -27.2582, 42.6862, -147.514, -72.5499, 81.3698
6.50354, 58, -13.6635, -26.9033, 42.42, -147.734, -72.7627, 81.9799
6.51339, 59, -13.347, -26.3598, 42.0166, -148.06, -73.094, 82.8823
6.51932, 59, -13.2424, -26.1753, 41.8804, -148.167, -73.2078, 83.1795
6.52755, 59, -13.0347, -25.802, 41.6063, -148.38, -73.4405, 83.7694
6.53528, 59, -12.8289, -25.4221, 41.3294, -148.591, -73.6806, 84.3546
6.54333, 59, -12.6242, -25.0357, 41.0491, -148.8, -73.9282, 84.935
6.55232, 59, -12.4207, -24.6418, 40.7656, -149.007, -74.1841, 85.5107
6.55932, 60, -12.2184, -24.2406, 40.4774, -149.212, -74.4485, 86.0826
6.56835, 60, -12.0174, -23.8321, 40.1857, -149.415, -74.7218, 86.6516
6.57546, 60, -11.8176, -23.4171, 39.8899, -149.616, -75.0039, 87.2177
6.58354, 60, -11.6194, -22.9954, 39.5912, -149.815, -75.295, 87.7795
6.59132, 60, -11.4233, -22.5685, 39.2899, -150.011, -75.5939, 88.337
6.59933, 61, -11.2295, -22.1375, 38.9866, -150.204, -75.8998, 88.8892
6.6074, 61, -11.038, -21.7017, 38.6821, -150.393, -76.2116, 89.4339
6.61532, 61, -10.8485, -21.2617, 38.3766, -150.576, -76.5278, 89.9694
6.6258, 61, -10.5685, -20.5939, 37.9186, -150.842, -77.0106, 90.7554
6.63147, 61, -10.4764, -20.3692, 37.7659, -150.928, -77.1735, 91.0129
6.63936, 62, -10.2939, -19.9173, 37.4609, -151.097, -77.5027, 91.5213
6.64734, 62, -10.1142, -19.4619, 37.155, -151.261, -77.837, 92.0216
6.65532, 62, -9.93723, -19.0038, 36.8488, -151.42, -78.1768, 92.5142
6.66334, 62, -9.76272, -18.5426, 36.5411, -151.576, -78.5226, 93.0005
6.67141, 62, -9.59067, -18.0788, 36.2328, -151.726, -78.8741, 93.4796
6.67946, 63, -9.42073, -17.6132, 35.924, -151.873, -79.2312, 93.9516
6.68729, 63, -9.25288, -17.1456, 35.6157, -152.014, -79.593, 94.4143
6.69538, 63, -9.08734, -16.6766, 35.3083, -152.151, -79.9587, 94.8676
6.70335, 63, -8.92447, -16.2064, 35.0019, -152.282, -80.3275, 95.3113
6.7114, 63, -8.76429, -15.735, 34.6974, -152.407, -80.6984, 95.7435
6.71952, 64, -8.60684, -15.2632, 34.3951, -152.526, -81.0708, 96.1649
6.72776, 64, -8.45216, -14.7918, 34.0961, -152.64, -81.4441, 96.5739
6.73635, 64, -8.30017, -14.3205, 33.7989, -152.748, -81.8181, 96.9706
6.7435, 64, -8.15075, -13.8501, 33.5046, -152.85, -82.1928, 97.3558
6.75215, 64, -8.00396, -13.381, 33.2125, -152.946, -82.568, 97.7283
6.75964, 64, -7.85967, -12.9136, 32.9233, -153.036, -82.9443, 98.0886
6.76832, 65, -7.71809, -12.4482, 32.6367, -153.121, -83.3211, 98.4366
6.77659, 65, -7.57925, -11.9846, 32.3532, -153.2, -83.699, 98.7715
6.78825, 65, -7.37655, -11.2924, 31.934, -153.309, -84.2675, 99.2497
6.79147, 65, -7.31029, -11.0623, 31.7956, -153.342, -84.4575, 99.4027
6.80071, 66, -7.17995, -10.6031, 31.5214, -153.404, -84.838, 99.6985
6.80819, 66, -7.05203, -10.1464, 31.2499, -153.461, -85.2187, 99.9804
6.81541, 66, -6.92615, -9.69211, 30.9815, -153.513, -85.6001, 100.247
6.82336, 66, -6.80225, -9.24164, 30.717, -153.559, -85.9813, 100.499
6.83142, 66, -6.68057, -8.79612, 30.4556, -153.6, -86.3611, 100.735
6.83948, 66, -6.56117, -8.35543, 30.1989, -153.635, -86.7388, 100.955
6.84765, 67, -6.44435, -7.92051, 29.9471, -153.665, -87.1132, 101.157
6.85618, 67, -6.33035, -7.49079, 29.7011, -153.689, -87.4834, 101.341
6.86377, 67, -6.21915, -7.06639, 29.4622, -153.707, -87.8486, 101.508
6.87234, 67, -6.11051, -6.64682, 29.2293, -153.719, -88.2086, 101.657
6.88023, 67, -6.00434, -6.23324, 29.0024, -153.727, -88.5639, 101.788
6.88795, 68, -5.90015, -5.82578, 28.7814, -153.73, -88.9156, 101.902
6.89595, 68, -5.79775, -5.42384, 28.5645, -153.729, -89.2648, 101.997
6.90441, 68, -5.69708, -5.02821, 28.3514, -153.723, -89.6122, 102.076
6.91192, 68, -5.59809, -4.63878, 28.1425, -153.712, -89.9586, 102.135
6.92049, 68, -5.50075, -4.25575, 27.9367, -153.697, -90.3034, 102.177
6.92818, 69, -5.45282, -3.87756, 27.7348, -153.678, -90.6461, 102.2
6.93678, 69, -5.35839, -3.69035, 27.5385, -153.654, -90.9863, 102.206
6.94332, 69, -5.26581, -3.31932, 27.4422, -153.64, -91.155, 102.202
6.95391, 69, -5.13056, -2.77103, 27.1598, -153.592, -91.656, 102.159
6.95953, 69, -5.08638, -2.59018, 27.068, -153.574, -91.8212, 102.135
6.96865, 70, -4.95611, -2.05281, 26.7997, -153.516, -92.313, 102.03
6.9753, 70, -4.91325, -1.87584, 26.7121, -153.494, -92.4761, 101.984
6.98632, 70, -4.78642, -1.35307, 26.4536, -153.424, -92.9643, 101.814
6.99129, 70, -4.74457, -1.18155, 26.3692, -153.399, -93.127, 101.746
6.99935, 70, -4.66162, -0.841993, 26.2031, -153.347, -93.452, 101.593
7.00747, 71, -4.57974, -0.50832, 26.04, -153.291, -93.7763, 101.418
7.01527, 71, -4.4988, -0.180066, 25.8803, -153.233, -94.0991, 101.221
7.02338, 71, -4.41891, 0.142394, 25.7252, -153.172, -94.4197, 101.002
7.0337, 71, -4.30087, 0.616588, 25.5024, -153.077, -94.894, 100.633
7.03937, 71, -4.26195, 0.771989, 25.4305, -153.043, -95.0504, 100.5
7.04929, 72, -4.14655, 1.22887, 25.2214, -152.942, -95.5138, 100.071
7.05545, 72, -4.10832, 1.37806, 25.1538, -152.907, -95.6666, 99.9173
7.0634, 72, -4.03197, 1.67102, 25.0215, -152.836, -95.97, 99.5947
7.07234, 72, -3.9558, 1.95752, 24.8925, -152.764, -96.271, 99.2508
7.07946, 72, -3.87969, 2.23782, 24.7666, -152.691, -96.5695, 98.886
7.08754, 72, -3.80351, 2.51116, 24.6437, -152.618, -96.8656, 98.4993
7.09529, 73, -3.72743, 2.77839, 24.5241, -152.544, -97.1588, 98.091
7.10419, 73, -3.65129, 3.03882, 24.4081, -152.47, -97.4489, 97.6614
7.11239, 73, -3.57491, 3.29216, 24.2961, -152.397, -97.7356, 97.2102
7.11931, 73, -3.49828, 3.5391, 24.1881, -152.324, -98.0181, 96.7397
7.12838, 73, -3.42134, 3.77869, 24.0845, -152.252, -98.2963, 96.2499
7.13874, 74, -3.30477, 4.12165, 23.9368, -152.146, -98.7044, 95.4824
7.14329, 74, -3.26559, 4.23181, 23.8896, -152.112, -98.8376, 95.2185
7.1546, 74, -3.14702, 4.54868, 23.7543, -152.01, -99.2283, 94.407
7.15931, 74, -3.1072, 4.64932, 23.7113, -151.978, -99.3553, 94.1302
7.16737, 74, -3.02695, 4.84347, 23.6284, -151.915, -99.604, 93.5678
7.17532, 75, -2.94578, 5.02843, 23.5498, -151.854, -99.8452, 92.9951
7.18513, 75, -2.86364, 5.20335, 23.4751, -151.796, -100.078, 92.4133
7.19137, 75, -2.78045, 5.36742, 23.4042, -151.741, -100.303, 91.823
7.1993, 75, -2.69632, 5.52095, 23.3371, -151.689, -100.519, 91.2243
7.20746, 75, -2.61131, 5.66401, 23.2739, -151.64, -100.726, 90.6177
7.21627, 76, -2.52526, 5.79607, 23.2147, -151.594, -100.924, 90.0036
7.2233, 76, -2.43826, 5.91683, 23.1599, -151.553, -101.112, 89.381
7.23133, 76, -2.35043, 6.02597, 23.1093, -151.516, -101.292, 88.7494
7.23954, 76, -2.26179, 6.12307, 23.0631, -151.482, -101.461, 88.1101
7.24733, 76, -2.17231, 6.20775, 23.0215, -151.451, -101.621, 87.465
7.25549, 77, -2.082, 6.2795, 22.985, -151.425, -101.768, 86.8142
7.26473, 77, -1.99076, 6.33816, 22.9536, -151.404, -101.903, 86.1612
7.2714, 77, -1.89855, 6.38337, 22.9279, -151.386, -102.025, 85.5093
7.2814, 77, -1.80556, 6.41431, 22.9079, -151.372, -102.133, 84.859
7.28754, 77, -1.71173, 6.43109, 22.8938, -151.362, -102.225, 84.2112
7.29629, 78, -1.61708, 6.43333, 22.8855, -151.356, -102.303, 83.5677
7.30393, 78, -1.52175, 6.42037, 22.8829, -151.353, -102.365, 82.9283
7.31139, 78, -1.42581, 6.39208, 22.8859, -151.352, -102.412, 82.2922
7.3201, 78, -1.32944, 6.34803, 22.8951, -151.355, -102.443, 81.6606
7.32834, 78, -1.23273, 6.2876, 22.9105, -151.362, -102.458, 81.0349
7.33648, 79, -1.13581, 6.21083, 22.9326, -151.372, -102.457, 80.4145
7.34435, 79, -1.03878, 6.11769, 22.9618, -151.385, -102.438, 79.8004
7.35154, 79, -0.941544, 6.0083, 22.9985, -151.402, -102.401, 79.1946
7.3604, 79, -0.84445, 5.88265, 23.0426, -151.421, -102.346, 78.5981
7.3677, 79, -0.747374, 5.74034, 23.0943, -151.443, -102.273, 78.0105
7.37571, 79, -0.650317, 5.58172, 23.1537, -151.468, -102.183, 77.4335
7.38459, 80, -0.553265, 5.40666, 23.2206, -151.495, -102.074, 76.868
7.39188, 80, -0.456152, 5.21523, 23.2953, -151.523, -101.946, 76.3143
7.40071, 80, -0.359171, 5.0073, 23.378, -151.552, -101.8, 75.7716
7.40832, 80, -0.262349, 4.7818, 23.4687, -151.583, -101.635, 75.24
7.4168, 80, -0.165655, 4.53822, 23.5679, -151.615, -101.452, 74.719
7.42473, 81, -0.117345, 4.41012, 23.6208, -151.632, -101.353, 74.209
7.43317, 81, 0.027116, 4.00111, 23.7924, -151.683, -101.029, 73.7075
7.44213, 81, 0.123222, 3.70764, 23.9185, -151.718, -100.789, 73.2158
7.44734, 81, 0.171175, 3.55497, 23.9851, -151.736, -100.662, 72.9733
7.4553, 81, 0.266848, 3.23648, 24.1256, -151.773, -100.393, 72.4953
7.46344, 82, 0.362351, 2.90103, 24.2759, -151.81, -100.105, 72.0269
7.47135, 82, 0.45769, 2.54896, 24.4354, -151.847, -99.7989, 71.5675
7.47928, 82, 0.552756, 2.1809, 24.6041, -151.884, -99.4735, 71.1177
7.48885, 82, 0.695071, 1.59813, 24.8753, -151.939, -98.952, 70.4609
7.49667, 82, 0.789811, 1.18887, 25.0677, -151.975, -98.5823, 70.0359
7.5033, 83, 0.83719, 0.978157, 25.1673, -151.993, -98.3912, 69.8269
7.51325, 83, 0.979307, 0.324143, 25.4816, -152.046, -97.7931, 69.2145
7.51933, 83, 1.02673, 0.0986815, 25.5917, -152.063, -97.5857, 69.0153
7.52893, 83, 1.1691, -0.60019, 25.9351, -152.111, -96.9393, 68.4315
7.53869, 83, 1.26417, -1.08434, 26.1763, -152.142, -96.4887, 68.0536
7.54512, 84, 1.35945, -1.58287, 26.4278, -152.172, -96.022, 67.6847
7.55225, 84, 1.40716, -1.83744, 26.5573, -152.186, -95.7829, 67.5031
7.55941, 84, 1.50262, -2.35608, 26.8244, -152.214, -95.2933, 67.1455
7.56731, 84, 1.59844, -2.88858, 27.1017, -152.24, -94.7875, 66.7955
7.57629, 84, 1.69464, -3.43467, 27.3891, -152.264, -94.2667, 66.4526
7.58336, 84, 1.79131, -3.99421, 27.6873, -152.287, -93.7312, 66.1167
7.59145, 85, 1.88818, -4.56631, 27.9949, -152.308, -93.181, 65.7889
7.60014, 85, 1.98544, -5.14941, 28.3127, -152.327, -92.6161, 65.4693
7.60828, 85, 2.08308, -5.74264, 28.6394, -152.344, -92.0395, 65.1577
7.61887, 85, 2.23041, -6.64876, 29.146, -152.364, -91.1557, 64.7067
7.62355, 85, 2.27988, -6.95471, 29.3191, -152.369, -90.856, 64.5613
7.63144, 86, 2.37928, -7.57187, 29.671, -152.378, -90.2497, 64.2779
7.6418, 86, 2.53028, -8.5091, 30.2119, -152.385, -89.3238, 63.8722
7.6483, 86, 2.58113, -8.8247, 30.3952, -152.386, -89.0112, 63.7425
7.6563, 86, 2.68333, -9.46026, 30.7662, -152.387, -88.3833, 63.4917
7.66433, 86, 2.78669, -10.1007, 31.1427, -152.385, -87.7506, 63.2521
7.67643, 87, 2.94355, -11.0695, 31.7187, -152.374, -86.7888, 62.9143
7.67953, 87, 2.99615, -11.3941, 31.9133, -152.368, -86.4652, 62.8076
7.68739, 87, 3.10216, -12.0455, 32.3064, -152.354, -85.8133, 62.6032
7.69529, 87, 3.20884, -12.6988, 32.7048, -152.337, -85.1564, 62.4114
7.70336, 87, 3.31599, -13.3544, 33.1086, -152.315, -84.4951, 62.232
7.71128, 88, 3.42391, -14.0126, 33.5176, -152.289, -83.8284, 62.0658
7.72427, 88, 3.58685, -15.0032, 34.139, -152.243, -82.8209, 61.8425
7.72842, 88, 3.6415, -15.3336, 34.3481, -152.226, -82.4832, 61.7752
7.73725, 88, 3.75129, -15.994, 34.7692, -152.187, -81.806, 61.6522
7.74436, 88, 3.86142, -16.6527, 35.193, -152.144, -81.1291, 61.5449
7.75146, 89, 3.97185, -17.3084, 35.6188, -152.097, -80.4525, 61.4548
7.75944, 89, 4.08253, -17.9605, 36.0453, -152.044, -79.7763, 61.3827
7.76738, 89, 4.1936, -18.6087, 36.472, -151.986, -79.1002, 61.329
7.77787, 89, 4.30505, -19.253, 36.8988, -151.923, -78.4254, 61.2948
7.78446, 89, 4.41673, -19.8923, 37.3243, -151.855, -77.7555, 61.2798
7.79234, 90, 4.52873, -20.5271, 37.749, -151.782, -77.0883, 61.2851
7.79935, 90, 4.64136, -21.1579, 38.1738, -151.703, -76.4219, 61.3139
7.80749, 90, 4.75393, -21.7844, 38.5982, -151.618, -75.7564, 61.3659
7.81531, 90, 4.86621, -22.4072, 39.0229, -151.528, -75.0916, 61.4413
7.82343, 90, 4.97804, -23.0267, 39.4483, -151.432, -74.4286, 61.5426
7.83185, 91, 5.08956, -23.6438, 39.8743, -151.329, -73.7655, 61.6702
7.84016, 91, 5.20083, -24.2574, 40.3007, -151.219, -73.101, 61.8261
7.84747, 91, 5.31159, -24.8668, 40.7278, -151.102, -72.4355, 62.0111
7.85647, 91, 5.42168, -25.4715, 41.1543, -150.979, -71.769, 62.2261
7.86358, 91, 5.53111, -26.0697, 41.5797, -150.848, -71.1026, 62.4715
7.87226, 92, 5.64014, -26.6606, 42.0036, -150.711, -70.4384, 62.7486
7.88063, 92, 5.74933, -27.2434, 42.4248, -150.569, -69.7762, 63.0576
7.88783, 92, 5.85913, -27.8172, 42.8418, -150.42, -69.1174, 63.3976
7.89679, 92, 5.96957, -28.3814, 43.2532, -150.268, -68.4625, 63.7689
7.91232, 92, 6.19344, -29.4753, 44.0564, -149.951, -67.1712, 64.6048
7.91433, 93, 6.19344, -29.4753, 44.0564, -149.951, -67.1712, 64.6048
7.92044, 93, 6.3077, -30.0045, 44.4467, -149.789, -66.5358, 65.07
7.92779, 93, 6.36559, -30.2647, 44.6394, -149.708, -66.2201, 65.314
7.93679, 93, 6.5427, -31.0305, 45.2075, -149.463, -65.2803, 66.0934
7.94327, 93, 6.60282, -31.282, 45.3942, -149.381, -64.9688, 66.37
7.95141, 93, 6.72482, -31.7805, 45.7638, -149.217, -64.3473, 66.9504
7.95923, 94, 6.84905, -32.2735, 46.1296, -149.052, -63.7259, 67.572
7.96728, 94, 6.97546, -32.7615, 46.4927, -148.887, -63.0994, 68.2397
7.97532, 94, 7.10366, -33.2439, 46.8545, -148.722, -62.4666, 68.9591
7.98544, 94, 7.29978, -33.9537, 47.3937, -148.476, -61.5054, 70.1359
7.99133, 94, 7.36669, -34.1868, 47.5718, -148.396, -61.1819, 70.5541
7.99923, 95, 7.50349, -34.6468, 47.9229, -148.24, -60.5342, 71.4311
8.00879, 95, 7.71829, -35.3183, 48.4341, -148.024, -59.5677, 72.8308
8.01528, 95, 7.79291, -35.5367, 48.599, -147.958, -59.2482, 73.318
8.02327, 95, 7.94716, -35.9635, 48.9196, -147.837, -58.6141, 74.3213
8.03284, 95, 8.19142, -36.5702, 49.3722, -147.687, -57.678, 75.89
8.03923, 96, 8.27629, -36.7626, 49.5153, -147.646, -57.3712, 76.4297
8.04881, 96, 8.45119, -37.1312, 49.7889, -147.578, -56.4719, 78.0953
8.05745, 96, 8.63203, -37.477, 50.0458, -147.531, -56.1789, 78.665
8.06432, 96, 8.81805, -37.7982, 50.2858, -147.504, -55.6037, 79.8213
8.07144, 96, 9.00872, -38.0937, 50.5064, -147.497, -55.0456, 80.9955
8.08033, 96, 9.20266, -38.3644, 50.7077, -147.512, -54.5076, 82.1815
8.08826, 97, 9.39838, -38.6099, 50.8895, -147.548, -53.9925, 83.3774
8.09534, 97, 9.59459, -38.8301, 51.0506, -147.606, -53.5024, 84.5763
8.10325, 97, 9.79029, -39.0262, 51.1914, -147.683, -53.0393, 85.7694
8.11134, 97, 9.98469, -39.1975, 51.3128, -147.778, -52.6051, 86.9492
8.11926, 97, 10.1768, -39.3428, 51.4146, -147.889, -52.2005, 88.1096
8.12728, 97, 10.3654, -39.4627, 51.4975, -148.012, -51.826, 89.246
8.13538, 98, 10.5507, -39.5572, 51.5621, -148.146, -51.4818, 90.3506
8.14329, 98, 10.7337, -39.6275, 51.6087, -148.291, -51.1671, 91.4257
8.1514, 98, 10.9148, -39.6749, 51.6379, -148.446, -50.8801, 92.4785
8.15927, 98, 11.0945, -39.6993, 51.6496, -148.612, -50.6174, 93.5212
8.16726, 98, 11.272, -39.7003, 51.6445, -148.791, -50.3761, 94.5665
8.17534, 98, 11.4481, -39.6775, 51.622, -148.982, -50.1544, 95.6245
8.18326, 98, 11.6242, -39.6309, 51.5816, -149.187, -49.9526, 96.7011
8.19131, 99, 11.7995, -39.5608, 51.5233, -149.405, -49.7724, 97.7958
8.19934, 99, 11.973, -39.468, 51.4464, -149.633, -49.6159, 98.9043
8.20727, 99, 12.1434, -39.3525, 51.3509, -149.87, -49.4866, 100.015
8.21527, 99, 12.3101, -39.2146, 51.2373, -150.112, -49.387, 101.12
8.22337, 99, 12.4712, -39.0544, 51.1062, -150.356, -49.3183, 102.207
8.23192, 99, 12.6251, -38.872, 50.9592, -150.599, -49.2803, 103.269
8.24032, 100, 12.7707, -38.6654, 50.7966, -150.838, -49.2735, 104.301
8.24727, 100, 12.9074, -38.4346, 50.6172, -151.072, -49.2986, 105.305
8.25538, 100, 13.0353, -38.1811, 50.4207, -151.301, -49.3548, 106.28
8.26336, 100, 13.1547, -37.9055, 50.2078, -151.525, -49.4422, 107.232
8.27179, 100, 13.2661, -37.6091, 49.9772, -151.742, -49.5608, 108.16
8.28075, 100, 13.3693, -37.2895, 49.7282, -151.952, -49.7101, 109.068
8.28737, 101, 13.4644, -36.9461, 49.4627, -152.155, -49.8894, 109.954
8.29544, 101, 13.5517, -36.5777, 49.1798, -152.349, -50.0987, 110.815
8.30334, 101, 13.6313, -36.1842, 48.8801, -152.534, -50.3375, 111.656
8.31206, 101, 13.7026, -35.7658, 48.5626, -152.71, -50.6063, 112.472
8.31936, 101, 13.7656, -35.3243, 48.2279, -152.876, -50.9059, 113.266
8.32789, 101, 13.8198, -34.8606, 47.876, -153.03, -51.237, 114.038
8.34073, 102, 13.884, -34.123, 47.3173, -153.24, -51.7944, 115.148
8.34346, 102, 13.9006, -33.8652, 47.1228, -153.304, -51.9961, 115.507
8.35241, 102, 13.9264, -33.3313, 46.7223, -153.421, -52.4236, 116.205
8.36031, 102, 13.9431, -32.7748, 46.3076, -153.524, -52.8827, 116.875
8.3677, 102, 13.9513, -32.1967, 45.8791, -153.615, -53.3715, 117.521
8.37567, 102, 13.952, -31.5975, 45.4364, -153.69, -53.8879, 118.141
8.38445, 103, 13.9457, -30.9787, 44.9802, -153.754, -54.4304, 118.736
8.39183, 103, 13.9331, -30.3423, 44.512, -153.804, -54.9963, 119.306
8.40042, 103, 13.9149, -29.6901, 44.0326, -153.841, -55.5827, 119.853
8.40861, 103, 13.8915, -29.0228, 43.5441, -153.866, -56.1883, 120.374
8.41591, 103, 13.8632, -28.3423, 43.0483, -153.88, -56.8102, 120.871
8.42445, 104, 13.8309, -27.651, 42.5468, -153.885, -57.4455, 121.342
8.43257, 104, 13.8132, -27.3018, 42.2946, -153.883, -57.7679, 121.569
8.43986, 104, 13.775, -26.5978, 41.7878, -153.871, -58.423, 122.006
8.44835, 104, 13.7113, -25.5295, 41.0234, -153.837, -59.4289, 122.624
8.45525, 104, 13.689, -25.1716, 40.7682, -153.822, -59.7694, 122.821
8.4633, 104, 13.6429, -24.4543, 40.2578, -153.785, -60.4556, 123.204
8.47277, 104, 13.5707, -23.3738, 39.4928, -153.717, -61.4954, 123.756
8.47931, 104, 13.5458, -23.0128, 39.2384, -153.692, -61.8447, 123.936
8.4873, 104, 13.4954, -22.2901, 38.7303, -153.637, -62.5454, 124.291
8.49671, 104, 13.4187, -21.2048, 37.971, -153.546, -63.6001, 124.819
8.50324, 104, 13.3928, -20.8432, 37.7186, -153.514, -63.9519, 124.994
8.5128, 104, 13.3147, -19.7587, 36.9638, -153.41, -65.0082, 125.516
8.5209, 104, 13.2624, -19.035, 36.463, -153.336, -65.7148, 125.862
8.52884, 104, 13.21, -18.3112, 35.9642, -153.258, -66.4219, 126.207
8.53531, 104, 13.1839, -17.9495, 35.7159, -153.217, -66.7757, 126.38
8.54492, 104, 13.106, -16.8631, 34.9741, -153.09, -67.8377, 126.897
8.55301, 104, 13.0802, -16.1386, 34.4817, -153, -68.5453, 127.241
8.55936, 104, 13.0289, -15.7766, 34.2364, -152.953, -68.8999, 127.413
8.5683, 104, 12.978, -15.0519, 33.7475, -152.857, -69.6103, 127.756
8.57527, 104, 12.9272, -14.3267, 33.2607, -152.758, -70.3216, 128.099
8.58335, 104, 12.877, -13.6014, 32.7768, -152.654, -71.0318, 128.443
8.59236, 104, 12.8271, -12.8759, 32.2957, -152.547, -71.7418, 128.787
8.59926, 104, 12.7774, -12.1502, 31.817, -152.436, -72.454, 129.131
8.60725, 104, 12.728, -11.4249, 31.3408, -152.321, -73.1667, 129.476
8.61525, 104, 12.6791, -10.6997, 30.8671, -152.202, -73.8793, 129.821
8.62331, 104, 12.6304, -9.97418, 30.3964, -152.079, -74.5921, 130.167
8.63125, 104, 12.5819, -9.24857, 29.9287, -151.952, -75.3048, 130.514
8.63926, 104, 12.5341, -8.52252, 29.464, -151.821, -76.019, 130.862
8.64736, 104, 12.4867, -7.79625, 29.0028, -151.686, -76.7334, 131.211
8.65525, 104, 12.4399, -7.07057, 28.5446, -151.547, -77.449, 131.561
8.66325, 104, 12.3938, -6.34549, 28.0897, -151.403, -78.1639, 131.912
8.67132, 104, 12.3482, -5.62116, 27.6384, -151.256, -78.8773, 132.264
8.67926, 104, 12.3031, -4.89745, 27.1908, -151.104, -79.592, 132.617
8.68725, 104, 12.2589, -4.17506, 26.7475, -150.949, -80.3072, 132.972
8.69531, 104, 12.2159, -3.45527, 26.3094, -150.789, -81.0214, 133.327
8.70325, 104, 12.1738, -2.74035, 25.8762, -150.625, -81.7316, 133.683
8.71124, 104, 12.1331, -2.03159, 25.4489, -150.458, -82.4379, 134.04
8.71932, 104, 12.0936, -1.33033, 25.0293, -150.288, -83.1404, 134.395
8.72727, 104, 12.0549, -0.637664, 24.618, -150.115, -83.8357, 134.748
8.73525, 104, 12.0173, 0.0450108, 24.2166, -149.941, -84.5208, 135.099
8.74335, 104, 11.9806, 0.716917, 23.8259, -149.765, -85.193, 135.445
8.75126, 104, 11.945, 1.37641, 23.4475, -149.589, -85.8508, 135.786
8.75931, 104, 11.9107, 2.02261, 23.0816, -149.413, -86.4946, 136.122
8.76741, 104, 11.8775, 2.65381, 22.7283, -149.238, -87.1229, 136.451
8.77534, 104, 11.8451, 3.26889, 22.3873, -149.063, -87.7355, 136.773
8.78336, 104, 11.8143, 3.86759, 22.0598, -148.889, -88.3315, 137.089
8.79152, 104, 11.7848, 4.44926, 21.7447, -148.716, -88.9096, 137.398
8.79938, 104, 11.7564, 5.01447, 21.442, -148.545, -89.4707, 137.7
8.80775, 104, 11.7294, 5.56263, 21.1505, -148.376, -90.0166, 137.995
8.81549, 104, 11.7035, 6.09345, 20.8714, -148.208, -90.546, 138.283
8.82386, 104, 11.6788, 6.60771, 20.6038, -148.043, -91.0592, 138.564
8.83232, 104, 11.6552, 7.10498, 20.3478, -147.881, -91.5558, 138.838
8.83965, 104, 11.6329, 7.58534, 20.1035, -147.721, -92.035, 139.103
8.84741, 104, 11.6116, 8.04941, 19.8696, -147.564, -92.4973, 139.361
8.8555, 104, 11.5915, 8.49668, 19.6469, -147.41, -92.9432, 139.612
8.86363, 104, 11.5725, 8.92658, 19.4353, -147.26, -93.3726, 139.855
8.87159, 104, 11.5547, 9.33919, 19.2337, -147.113, -93.785, 140.089
8.88029, 104, 11.538, 9.7343, 19.0424, -146.971, -94.1805, 140.315
8.88805, 104, 11.5223, 10.1113, 18.8621, -146.833, -94.5585, 140.532
8.8964, 104, 11.5077, 10.4696, 18.6921, -146.699, -94.9181, 140.739
8.90386, 104, 11.4941, 10.8085, 18.5324, -146.572, -95.2589, 140.937
8.91245, 104, 11.4814, 11.1281, 18.3836, -146.45, -95.58, 141.124
8.91985, 104, 11.4698, 11.4269, 18.2457, -146.335, -95.881, 141.3
8.92791, 104, 11.4593, 11.7054, 18.1181, -146.227, -96.161, 141.464
8.93642, 104, 11.4498, 11.9626, 18.0012, -146.126, -96.4197, 141.617
8.94327, 104, 11.4453, 12.0832, 17.9467, -146.078, -96.5409, 141.689
8.95232, 104, 11.4329, 12.4134, 17.7991, -145.947, -96.8716, 141.885
8.95927, 104, 11.4292, 12.5131, 17.7551, -145.908, -96.9707, 141.944
8.96832, 104, 11.4192, 12.7799, 17.6385, -145.801, -97.2353, 142.102
8.97555, 104, 11.4162, 12.8584, 17.6046, -145.77, -97.3125, 142.148
8.98341, 104, 11.4107, 13.0005, 17.5443, -145.715, -97.4506, 142.231
8.99124, 104, 11.4057, 13.1234, 17.4934, -145.667, -97.5671, 142.301
8.99929, 104, 11.401, 13.2277, 17.4515, -145.628, -97.6633, 142.358
9.00875, 104, 11.395, 13.3518, 17.4036, -145.584, -97.7726, 142.424
9.01677, 104, 11.3913, 13.416, 17.3809, -145.562, -97.824, 142.455
9.02484, 104, 11.3881, 13.4673, 17.3643, -145.546, -97.8616, 142.478
9.03123, 104, 11.3866, 13.4885, 17.3579, -145.54, -97.8761, 142.487
9.03924, 104, 11.3842, 13.5229, 17.3483, -145.531, -97.8979, 142.499
9.04906, 104, 11.3813, 13.5588, 17.3403, -145.523, -97.9168, 142.509
9.05524, 104, 11.3806, 13.5675, 17.3386, -145.522, -97.9203, 142.511
9.06423, 104, 11.3794, 13.5806, 17.3365, -145.52, -97.9248, 142.513
9.07329, 105, 11.3781, 13.5926, 17.3352, -145.519, -97.9276, 142.515
9.07925, 105, 11.3778, 13.5953, 17.335, -145.519, -97.928, 142.515
9.08829, 105, 11.3774, 13.5991, 17.3348, -145.519, -97.9285, 142.516
9.09624, 105, 11.377, 13.6018, 17.3347, -145.518, -97.9288, 142.516
9.10428, 105, 11.3767, 13.604, 17.3346, -145.518, -97.9289, 142.516
9.1123, 105, 11.3765, 13.6058, 17.3346, -145.518, -97.9289, 142.516
9.11929, 105, 11.3763, 13.6074, 17.3346, -145.518, -97.9288, 142.516
9.12723, 105, 11.3762, 13.6088, 17.3346, -145.518, -97.9288, 142.516
9.13524, 105, 11.3761, 13.61, 17.3346, -145.518, -97.9287, 142.516
9.1433, 105, 11.376, 13.611, 17.3346, -145.518, -97.9286, 142.516
9.15129, 105, 11.3759, 13.6119, 17.3346, -145.518, -97.9285, 142.516
9.15923, 105, 11.3759, 13.6125, 17.3346, -145.518, -97.9283, 142.516
9.1673, 105, 11.3759, 13.6129, 17.3347, -145.518, -97.9282, 142.516
9.17539, 105, 11.3759, 13.6132, 17.3348, -145.519, -97.9281, 142.516
9.18323, 105, 11.3759, 13.6134, 17.3348, -145.519, -97.928, 142.516
9.1913, 105, 11.3759, 13.6135, 17.3348, -145.519, -97.9279, 142.516
