hehonglu123/Motion-Primitive-Planning/ILC/recorded_data/realrobot/wood/iteration_0/run_1.csv
timestamp, cmd_num, J1, J2, J3, J4, J5, J6
0.000372, -1, 11.3768, 13.6129, 17.3386, -145.52, -97.9244, 142.516
0.006115, -1, 11.3768, 13.6129, 17.3386, -145.52, -97.9243, 142.516
0.008, -1, 11.3768, 13.6129, 17.3386, -145.52, -97.9243, 142.516
0.03133, -1, 11.3768, 13.6129, 17.3386, -145.52, -97.9243, 142.516
0.032571, -1, 11.3768, 13.6129, 17.3386, -145.52, -97.9243, 142.516
0.034843, -1, 11.3768, 13.6129, 17.3386, -145.52, -97.9244, 142.516
0.039447, -1, 11.3768, 13.6129, 17.3386, -145.52, -97.9244, 142.516
0.047388, -1, 11.3768, 13.6129, 17.3386, -145.52, -97.9244, 142.516
0.055447, -1, 11.3762, 13.6129, 17.3386, -145.52, -97.9244, 142.516
0.192902, -1, 10.117, 13.2794, 17.4205, -145.914, -97.7898, 140.235
0.194953, -1, 10.0411, 13.259, 17.4255, -145.937, -97.7813, 140.096
0.196344, -1, 10.0411, 13.259, 17.4255, -145.937, -97.7813, 140.096
0.197621, -1, 10.0411, 13.259, 17.4255, -145.937, -97.7813, 140.096
0.201158, -1, 9.96458, 13.2383, 17.4305, -145.961, -97.7728, 139.957
0.203019, -1, 9.88742, 13.2177, 17.4355, -145.985, -97.7641, 139.817
0.204463, -1, 9.88742, 13.2177, 17.4355, -145.985, -97.7641, 139.817
0.208479, -1, 9.80985, 13.197, 17.4406, -146.01, -97.7555, 139.678
0.209805, -1, 9.80985, 13.197, 17.4406, -146.01, -97.7555, 139.678
0.211884, -1, 9.73207, 13.1763, 17.4456, -146.034, -97.7469, 139.538
0.213174, -1, 9.73207, 13.1763, 17.4456, -146.034, -97.7469, 139.538
0.214951, -1, 9.73207, 13.1763, 17.4456, -146.034, -97.7469, 139.398
0.216418, -1, 9.65427, 13.1555, 17.4506, -146.057, -97.7383, 139.398
0.217629, -1, 9.65427, 13.1555, 17.4506, -146.057, -97.7383, 139.398
0.219816, -1, 9.5766, 13.1349, 17.4556, -146.081, -97.7298, 139.258
0.222278, -1, 9.5766, 13.1349, 17.4556, -146.081, -97.7298, 139.258
0.225887, -1, 9.49908, 13.1143, 17.4605, -146.105, -97.7213, 139.119
0.227967, -1, 9.42168, 13.0937, 17.4654, -146.129, -97.7129, 138.979
0.22918, -1, 9.42168, 13.0937, 17.4654, -146.129, -97.7129, 138.979
0.230435, -1, 9.42168, 13.0937, 17.4654, -146.129, -97.7129, 138.979
0.232526, -1, 9.34434, 13.0731, 17.4704, -146.154, -97.7046, 138.839
0.233832, -1, 9.34434, 13.0731, 17.4704, -146.154, -97.7046, 138.839
0.241451, -1, 9.18988, 13.032, 17.4804, -146.201, -97.6878, 138.56
0.249586, -1, 9.03593, 12.9909, 17.4904, -146.249, -97.6712, 138.28
0.256382, -1, 8.88218, 12.9499, 17.5006, -146.297, -97.6543, 138
0.263598, -1, 8.72857, 12.9089, 17.5108, -146.345, -97.637, 137.721
0.272431, -1, 8.57559, 12.8677, 17.5208, -146.393, -97.6197, 137.441
0.279804, -1, 8.42284, 12.8265, 17.5309, -146.441, -97.6021, 137.16
0.287777, -1, 8.2698, 12.7852, 17.5411, -146.489, -97.5848, 136.88
0.296456, -1, 8.1164, 12.7436, 17.5513, -146.537, -97.5679, 136.6
0.303942, -1, 7.96256, 12.702, 17.5615, -146.585, -97.5511, 136.32
0.312546, -1, 7.80798, 12.6604, 17.5715, -146.633, -97.5345, 136.04
0.320718, -1, 7.65306, 12.6187, 17.5816, -146.68, -97.5178, 135.76
0.327992, -1, 7.49816, 12.577, 17.5918, -146.729, -97.5009, 135.479
0.336554, -1, 7.34314, 12.5356, 17.602, -146.776, -97.4838, 135.199
0.343926, -1, 7.26563, 12.5148, 17.6071, -146.8, -97.4751, 134.919
0.352401, -1, 7.03314, 12.4526, 17.6225, -146.873, -97.4492, 134.639
0.359376, -1, 6.95555, 12.4319, 17.6276, -146.897, -97.4406, 134.499
0.367381, -1, 6.80057, 12.3907, 17.6379, -146.945, -97.4237, 134.218
0.376454, -1, 6.56845, 12.3287, 17.6535, -147.017, -97.3985, 133.797
0.383373, -1, 6.49114, 12.3081, 17.6587, -147.041, -97.3902, 133.657
0.391371, -1, 6.33683, 12.2668, 17.6691, -147.089, -97.3734, 133.377
0.399415, -1, 6.18267, 12.2253, 17.6794, -147.137, -97.3564, 133.096
0.40739, -1, 6.0283, 12.1838, 17.6896, -147.186, -97.3392, 132.816
0.415368, -1, 5.87369, 12.1423, 17.6999, -147.233, -97.3216, 132.535
0.425459, -1, 5.64153, 12.0798, 17.7152, -147.306, -97.2954, 132.114
0.431379, -1, 5.56404, 12.059, 17.7204, -147.33, -97.2868, 131.973
0.440924, -1, 5.33122, 11.9965, 17.7358, -147.402, -97.2614, 131.552
0.449474, -1, 5.17574, 11.9548, 17.7461, -147.45, -97.2447, 131.271
0.455377, -1, 5.09787, 11.9339, 17.7513, -147.474, -97.2363, 131.131
0.465072, -1, 4.94207, 11.8924, 17.7618, -147.546, -97.2109, 130.709
0.473087, -1, 4.78637, 11.8508, 17.7774, -147.595, -97.1937, 130.428
0.479371, -1, 4.63061, 11.8093, 17.7827, -147.619, -97.185, 130.287
0.488368, -1, 4.47488, 11.7678, 17.7931, -147.667, -97.1674, 130.007
0.496416, -1, 4.3194, 11.7264, 17.8034, -147.715, -97.1501, 129.726
0.503371, -1, 4.16417, 11.6849, 17.8139, -147.764, -97.1331, 129.445
0.511437, -1, 4.00936, 11.6435, 17.8242, -147.811, -97.1161, 129.164
0.519369, -1, 3.85488, 11.602, 17.8345, -147.86, -97.0993, 128.883
0.661014, -1, 1.13023, 10.8721, 18.0163, -148.706, -96.7997, 123.952
0.663222, -1, 1.05259, 10.8512, 18.0215, -148.73, -96.7912, 123.81
0.664439, -1, 1.05259, 10.8512, 18.0215, -148.73, -96.7912, 123.81
0.665636, -1, 1.05259, 10.8512, 18.0215, -148.73, -96.7912, 123.81
0.667688, -1, 0.974986, 10.8303, 18.0267, -148.755, -96.7827, 123.669
0.668885, -1, 0.974986, 10.8303, 18.0267, -148.755, -96.7827, 123.669
0.67072, -1, 0.897467, 10.8094, 18.0319, -148.779, -96.7741, 123.528
0.673521, -1, 0.897467, 10.8094, 18.0319, -148.779, -96.7741, 123.528
0.675635, -1, 0.820021, 10.7885, 18.0371, -148.803, -96.7655, 123.387
0.676848, -1, 0.820021, 10.7885, 18.0371, -148.803, -96.7655, 123.387
0.67871, -1, 0.820021, 10.7885, 18.0371, -148.803, -96.7567, 123.246
0.680091, -1, 0.742647, 10.7676, 18.0422, -148.827, -96.7567, 123.246
0.681426, -1, 0.742647, 10.7676, 18.0422, -148.827, -96.7567, 123.246
0.684921, -1, 0.665323, 10.7467, 18.0474, -148.851, -96.7479, 123.105
0.686798, -1, 0.588018, 10.7258, 18.0526, -148.876, -96.739, 122.963
0.690777, -1, 0.588018, 10.7258, 18.0526, -148.876, -96.7302, 122.822
0.692166, -1, 0.510675, 10.7049, 18.0578, -148.9, -96.7302, 122.822
0.693454, -1, 0.510675, 10.7049, 18.0578, -148.9, -96.7302, 122.822
0.695531, -1, 0.433228, 10.684, 18.063, -148.924, -96.7215, 122.68
0.696833, -1, 0.433228, 10.684, 18.063, -148.924, -96.7215, 122.68
0.698018, -1, 0.433228, 10.684, 18.063, -148.924, -96.7215, 122.68
0.700123, -1, 0.355724, 10.6631, 18.0682, -148.948, -96.7129, 122.539
0.707699, -1, 0.278139, 10.6212, 18.0786, -148.996, -96.6957, 122.257
0.711544, -1, 0.122545, 10.6002, 18.0839, -149.021, -96.6873, 122.115
0.719427, -1, -0.033466, 10.5584, 18.0945, -149.069, -96.6705, 121.832
0.727367, -1, -0.189801, 10.5165, 18.105, -149.118, -96.6537, 121.549
0.735465, -1, -0.346428, 10.4747, 18.1154, -149.166, -96.6369, 121.267
0.743422, -1, -0.503359, 10.4328, 18.1258, -149.215, -96.6198, 120.984
0.751558, -1, -0.660564, 10.391, 18.1362, -149.263, -96.6024, 120.702
0.759618, -1, -0.817866, 10.3492, 18.1467, -149.312, -96.585, 120.419
0.767548, -1, -0.975253, 10.3074, 18.157, -149.36, -96.5677, 120.136
0.775627, -1, -1.13239, 10.2655, 18.1674, -149.409, -96.5506, 119.853
0.783847, -1, -1.28948, 10.2237, 18.1777, -149.458, -96.5338, 119.57
0.792391, -1, -1.4464, 10.1818, 18.1881, -149.506, -96.517, 119.286
0.800286, -1, -1.60293, 10.14, 18.1986, -149.555, -96.5002, 119.003
0.807917, -1, -1.75902, 10.0981, 18.2091, -149.604, -96.4831, 118.72
0.816455, -1, -1.91475, 10.0563, 18.2196, -149.652, -96.4658, 118.436
0.823963, -1, -2.07012, 10.0144, 18.23, -149.701, -96.4481, 118.153
0.832533, -1, -2.22523, 9.97251, 18.2403, -149.75, -96.4306, 117.869
0.839947, -1, -2.30285, 9.95159, 18.2507, -149.798, -96.4133, 117.585
0.848369, -1, -2.53613, 9.88863, 18.2612, -149.846, -96.3963, 117.302
0.85536, -1, -2.61401, 9.86763, 18.2664, -149.871, -96.3879, 117.16
0.863355, -1, -2.76999, 9.82572, 18.2768, -149.92, -96.3711, 116.876
0.87241, -1, -3.0047, 9.76274, 18.2923, -149.992, -96.3457, 116.451
0.879374, -1, -3.08314, 9.74177, 18.2975, -150.017, -96.3371, 116.309
0.887358, -1, -3.24043, 9.69983, 18.308, -150.065, -96.3198, 116.025
0.896688, -1, -3.47696, 9.63679, 18.3237, -150.138, -96.2935, 115.6
0.903359, -1, -3.55584, 9.61583, 18.3289, -150.162, -96.2847, 115.458
0.911355, -1, -3.71364, 9.57399, 18.3393, -150.211, -96.2675, 115.173
0.920736, -1, -3.95063, 9.51102, 18.3548, -150.284, -96.2418, 114.747
0.927359, -1, -4.02957, 9.49005, 18.36, -150.309, -96.2333, 114.605
0.93687, -1, -4.26622, 9.42715, 18.3756, -150.382, -96.2079, 114.178
0.945108, -1, -4.42386, 9.38511, 18.3859, -150.431, -96.1906, 113.894
0.95136, -1, -4.50254, 9.36412, 18.3911, -150.455, -96.1819, 113.751
0.960929, -1, -4.73787, 9.3011, 18.4066, -150.528, -96.1553, 113.324
0.96902, -1, -4.89431, 9.25903, 18.4172, -150.577, -96.1376, 113.039
0.975364, -1, -4.97243, 9.23798, 18.4224, -150.602, -96.129, 112.897
0.984347, -1, -5.12848, 9.19592, 18.4329, -150.651, -96.1118, 112.612
0.992397, -1, -5.28436, 9.15382, 18.4435, -150.699, -96.0948, 112.328
0.999352, -1, -5.44039, 9.11164, 18.454, -150.748, -96.0779, 112.043
1.00742, -1, -5.59658, 9.06956, 18.4644, -150.797, -96.061, 111.758
1.01537, -1, -5.75308, 9.02746, 18.4748, -150.846, -96.0438, 111.473
1.02356, -1, -5.91, 8.98529, 18.4852, -150.895, -96.0263, 111.188
1.03139, -1, -6.06739, 8.94314, 18.4956, -150.943, -96.0086, 110.903
1.03936, -1, -6.22536, 8.90099, 18.506, -150.992, -95.9911, 110.618
1.04821, -1, -6.38361, 8.85887, 18.5163, -151.041, -95.9739, 110.333
1.05536, -1, -6.54198, 8.81683, 18.5267, -151.09, -95.9569, 110.048
1.06336, -1, -6.70052, 8.77469, 18.5373, -151.139, -95.9399, 109.762
1.07226, -1, -6.85923, 8.73257, 18.5477, -151.188, -95.9229, 109.477
1.07935, -1, -7.01774, 8.69049, 18.5583, -151.237, -95.9057, 109.191
1.08736, -1, -7.17624, 8.64832, 18.5687, -151.286, -95.8882, 108.906
1.09619, -1, -7.33457, 8.60612, 18.5791, -151.336, -95.8705, 108.62
1.10335, -1, -7.4926, 8.56382, 18.5896, -151.384, -95.8528, 108.334
1.11135, -1, -7.65024, 8.5215, 18.6, -151.434, -95.8353, 108.049
1.12016, -1, -7.80757, 8.47923, 18.6105, -151.483, -95.8182, 107.763
1.12734, -1, -7.96449, 8.43696, 18.6209, -151.531, -95.8011, 107.477
1.13546, -1, -8.12113, 8.39461, 18.6312, -151.58, -95.7842, 107.191
1.14471, -1, -8.27772, 8.35229, 18.6417, -151.63, -95.7672, 106.905
1.15234, -1, -8.43437, 8.30996, 18.6523, -151.678, -95.7499, 106.62
1.15953, -1, -8.59144, 8.26764, 18.6628, -151.727, -95.7324, 106.333
1.16735, -1, -8.74886, 8.22538, 18.6732, -151.777, -95.7146, 106.047
1.1754, -1, -8.90651, 8.1831, 18.6836, -151.826, -95.6972, 105.76
1.18374, -1, -9.06461, 8.14081, 18.694, -151.875, -95.6798, 105.474
1.19144, -1, -9.22318, 8.09859, 18.7045, -151.924, -95.6627, 105.188
1.19944, -1, -9.382, 8.05629, 18.7149, -151.973, -95.6456, 104.901
1.20789, -1, -9.54104, 8.01396, 18.7254, -152.022, -95.6285, 104.614
1.21546, -1, -9.70019, 7.97171, 18.7358, -152.072, -95.6112, 104.327
1.22351, -1, -9.85945, 7.92948, 18.7463, -152.121, -95.5936, 104.04
1.23208, -1, -10.0188, 7.88708, 18.757, -152.17, -95.5757, 103.753
1.24123, -1, -10.178, 7.84468, 18.7676, -152.22, -95.5579, 103.466
1.24738, -1, -10.3371, 7.8022, 18.7782, -152.269, -95.5404, 103.18
1.25628, -1, -10.496, 7.75967, 18.7887, -152.318, -95.5232, 102.893
1.26354, -1, -10.6546, 7.7172, 18.799, -152.368, -95.5061, 102.606
1.27154, -1, -10.8127, 7.67466, 18.8096, -152.416, -95.4891, 102.319
1.28049, -1, -10.9705, 7.63209, 18.82, -152.466, -95.472, 102.032
1.28771, -1, -11.1282, 7.58959, 18.8304, -152.515, -95.4546, 101.744
1.2958, -1, -11.2857, 7.54713, 18.841, -152.564, -95.4369, 101.457
1.30479, -1, -11.4431, 7.5047, 18.8514, -152.614, -95.4191, 101.169
1.31323, -1, -11.6008, 7.46222, 18.8619, -152.663, -95.4015, 100.882
1.31993, -1, -11.7586, 7.41981, 18.8725, -152.712, -95.3841, 100.594
1.32898, -1, -11.9169, 7.37744, 18.8831, -152.762, -95.3669, 100.306
1.33721, -1, -12.0756, 7.33506, 18.8937, -152.811, -95.3497, 100.019
1.34399, -1, -12.2348, 7.29272, 18.9042, -152.86, -95.3324, 99.7308
1.35285, -1, -12.3146, 7.27152, 18.9094, -152.91, -95.315, 99.4427
1.35934, -1, -12.4743, 7.22908, 18.92, -152.935, -95.3061, 99.2986
1.36739, -1, -12.6341, 7.18667, 18.9305, -152.984, -95.2882, 99.0108
1.37534, -1, -12.794, 7.1442, 18.941, -153.034, -95.2702, 98.7231
1.38335, -1, -12.9542, 7.10166, 18.9516, -153.083, -95.2526, 98.435
1.39139, -1, -13.1142, 7.05904, 18.962, -153.132, -95.2351, 98.1469
1.39933, -1, -13.2741, 7.01642, 18.9726, -153.182, -95.2179, 97.8589
1.40734, -1, -13.4337, 6.97377, 18.9832, -153.232, -95.2008, 97.5706
1.41534, -1, -13.5931, 6.93098, 18.9938, -153.281, -95.1836, 97.2819
1.42333, -1, -13.7522, 6.88825, 19.0043, -153.33, -95.1662, 96.9933
1.43358, -1, -13.9903, 6.8242, 19.02, -153.404, -95.1396, 96.5607
1.43935, -1, -14.0694, 6.80284, 19.0252, -153.429, -95.1307, 96.4164
1.44894, -1, -14.3067, 6.7389, 19.041, -153.504, -95.1043, 95.9828
1.45539, -1, -14.3859, 6.71756, 19.0463, -153.528, -95.0956, 95.8383
1.46334, -1, -14.5441, 6.67486, 19.0568, -153.577, -95.0784, 95.5495
1.47297, -1, -14.7027, 6.63233, 19.0673, -153.627, -95.0526, 95.1155
1.47941, -1, -14.8618, 6.58981, 19.0779, -153.677, -95.0439, 94.9707
1.48838, -1, -15.021, 6.54713, 19.0886, -153.726, -95.0265, 94.6816
1.49533, -1, -15.1807, 6.50453, 19.0993, -153.776, -95.0088, 94.3927
1.5034, -1, -15.3409, 6.46197, 19.11, -153.825, -94.9908, 94.1036
1.51238, -1, -15.5013, 6.41924, 19.1206, -153.875, -94.9728, 93.8141
1.51934, -1, -15.662, 6.37656, 19.1311, -153.925, -94.9551, 93.5249
1.52739, -1, -15.8227, 6.33383, 19.1418, -153.974, -94.9378, 93.2356
1.53535, -1, -15.9835, 6.29092, 19.1524, -154.024, -94.9207, 92.946
1.54334, -1, -16.1444, 6.24805, 19.1629, -154.074, -94.9035, 92.6562
1.55137, -1, -16.3052, 6.20515, 19.1735, -154.123, -94.8863, 92.3667
1.55934, -1, -16.4657, 6.16214, 19.1839, -154.173, -94.8688, 92.0771
1.56738, -1, -16.626, 6.11918, 19.1945, -154.223, -94.851, 91.7869
1.57537, -1, -16.7859, 6.07623, 19.2051, -154.272, -94.8331, 91.4966
1.58333, -1, -16.9453, 6.03325, 19.2158, -154.322, -94.8154, 91.2068
1.5914, -1, -17.1046, 5.9903, 19.2264, -154.372, -94.7979, 90.9166
1.59933, -1, -17.2637, 5.94736, 19.2369, -154.421, -94.7806, 90.6261
1.60734, -1, -17.4228, 5.90455, 19.2475, -154.471, -94.7633, 90.3356
1.61541, -1, -17.5822, 5.86176, 19.2582, -154.521, -94.7459, 90.0456
1.62333, -1, -17.7415, 5.81899, 19.2689, -154.571, -94.7283, 89.7554
1.63133, -1, -17.9011, 5.77624, 19.2796, -154.621, -94.7104, 89.4649
1.63949, -1, -18.0611, 5.73346, 19.2901, -154.671, -94.6922, 89.1743
1.64734, -1, -18.2217, 5.69069, 19.3007, -154.72, -94.6743, 88.8839
1.65539, -1, -18.3826, 5.64789, 19.3114, -154.771, -94.6567, 88.5931
1.6634, -1, -18.5439, 5.60497, 19.3221, -154.821, -94.6393, 88.3021
1.67139, -1, -18.7055, 5.56201, 19.3328, -154.87, -94.6221, 88.0111
1.67938, -1, -18.8671, 5.51906, 19.3434, -154.921, -94.6048, 87.7203
1.68749, -1, -19.0288, 5.47604, 19.3539, -154.97, -94.5873, 87.4291
1.69543, -1, -19.1903, 5.43287, 19.3645, -155.02, -94.5694, 87.1377
1.7035, -1, -19.3518, 5.38971, 19.3751, -155.07, -94.5513, 86.8465
1.71145, -1, -19.5131, 5.34653, 19.3856, -155.12, -94.5333, 86.555
1.71944, -1, -19.6741, 5.30328, 19.3962, -155.17, -94.5156, 86.2633
1.72734, -1, -19.8347, 5.26016, 19.4068, -155.22, -94.498, 85.9715
1.73534, -1, -19.9952, 5.21699, 19.4176, -155.27, -94.4805, 85.6801
1.74343, -1, -20.1553, 5.17383, 19.4284, -155.32, -94.4631, 85.3888
1.75224, -1, -20.315, 5.1309, 19.4391, -155.37, -94.4456, 85.0969
1.75942, -1, -20.475, 5.0879, 19.4499, -155.42, -94.4278, 84.805
1.7678, -1, -20.6351, 5.04482, 19.4606, -155.47, -94.4097, 84.5134
1.77644, -1, -20.7954, 5.00191, 19.4713, -155.521, -94.3917, 84.2215
1.78358, -1, -20.9561, 4.95895, 19.482, -155.571, -94.3739, 83.9294
1.79175, -1, -21.1171, 4.91588, 19.4927, -155.621, -94.3565, 83.6373
1.80056, -1, -21.2786, 4.87283, 19.5033, -155.671, -94.3392, 83.3454
1.80787, -1, -21.4406, 4.82964, 19.5139, -155.721, -94.322, 83.0532
1.81643, -1, -21.6027, 4.78636, 19.5246, -155.772, -94.3046, 82.7606
1.82478, -1, -21.7649, 4.74317, 19.5354, -155.822, -94.2869, 82.4679
1.83193, -1, -21.9273, 4.69979, 19.5461, -155.872, -94.269, 82.1754
1.84043, -1, -22.0898, 4.6564, 19.5569, -155.922, -94.251, 81.8825
1.84876, -1, -22.1711, 4.63475, 19.5622, -155.972, -94.2332, 81.5895
1.85532, -1, -22.3335, 4.59139, 19.5728, -155.997, -94.2244, 81.4432
1.86338, -1, -22.4957, 4.54798, 19.5835, -156.048, -94.207, 81.1507
1.87134, -1, -22.6577, 4.50459, 19.5942, -156.098, -94.1895, 80.8578
1.87932, -1, -22.8192, 4.46117, 19.6049, -156.148, -94.172, 80.5648
1.88843, -1, -23.0609, 4.39619, 19.6209, -156.224, -94.1453, 80.1254
1.89533, -1, -23.1415, 4.37457, 19.6262, -156.249, -94.1363, 79.9789
1.90337, -1, -23.3025, 4.33127, 19.637, -156.299, -94.118, 79.6857
1.91133, -1, -23.4633, 4.28801, 19.6479, -156.35, -94.0997, 79.3921
1.91935, -1, -23.6243, 4.24473, 19.6587, -156.4, -94.0819, 79.0988
1.92737, -1, -23.7854, 4.20145, 19.6694, -156.45, -94.0643, 78.8054
1.9369, -1, -24.0275, 4.13654, 19.6855, -156.526, -94.0382, 78.3648
1.94576, -1, -24.1894, 4.09315, 19.6962, -156.576, -94.0207, 78.0708
1.9514, -1, -24.2706, 4.07146, 19.7016, -156.601, -94.0119, 77.924
1.9611, -1, -24.5146, 4.00633, 19.7176, -156.677, -93.985, 77.4829
1.96733, -1, -24.5961, 3.98455, 19.7229, -156.702, -93.9759, 77.3357
1.97548, -1, -24.7593, 3.94098, 19.7335, -156.752, -93.9579, 77.0415
1.98495, -1, -24.9226, 3.89742, 19.7443, -156.803, -93.9401, 76.6007
1.99151, -1, -25.0861, 3.85389, 19.7552, -156.853, -93.9224, 76.4536
2.00037, -1, -25.2493, 3.81033, 19.7661, -156.904, -93.9049, 76.1593
2.00832, -1, -25.4124, 3.76675, 19.7769, -156.954, -93.8874, 75.8649
2.01615, -1, -25.5753, 3.72314, 19.7877, -157.004, -93.8697, 75.5706
2.02332, -1, -25.738, 3.67956, 19.7984, -157.055, -93.8518, 75.2761
2.03133, -1, -25.9004, 3.63612, 19.8092, -157.106, -93.8335, 74.9814
2.04013, -1, -26.0626, 3.59257, 19.82, -157.156, -93.8151, 74.6866
2.04733, -1, -26.2244, 3.5491, 19.8307, -157.207, -93.797, 74.3922
2.05532, -1, -26.386, 3.50574, 19.8415, -157.257, -93.7792, 74.0973
2.06411, -1, -26.5477, 3.46225, 19.8522, -157.308, -93.7615, 73.8021
2.07387, -1, -26.7908, 3.39701, 19.8685, -157.384, -93.7351, 73.3594
2.08038, -1, -26.8719, 3.37525, 19.8739, -157.409, -93.7263, 73.2118
2.09099, -1, -27.1159, 3.30979, 19.8902, -157.485, -93.6992, 72.7685
2.0964, -1, -27.1973, 3.28799, 19.8956, -157.511, -93.69, 72.6208
2.10431, -1, -27.3605, 3.24436, 19.9063, -157.561, -93.6717, 72.3258
2.11233, -1, -27.5241, 3.20057, 19.917, -157.611, -93.6537, 72.0305
2.12038, -1, -27.688, 3.15681, 19.9278, -157.662, -93.6358, 71.7349
2.12733, -1, -27.8521, 3.11315, 19.9386, -157.713, -93.6181, 71.4392
2.13538, -1, -28.0163, 3.0694, 19.9494, -157.764, -93.6004, 71.1437
2.1434, -1, -28.1805, 3.02565, 19.9601, -157.815, -93.5826, 70.848
2.15132, -1, -28.3448, 2.9819, 19.9709, -157.865, -93.5646, 70.5518
2.15939, -1, -28.5088, 2.93814, 19.9819, -157.916, -93.5462, 70.2558
2.16732, -1, -28.6726, 2.8945, 19.9927, -157.967, -93.5278, 69.96
2.17541, -1, -28.836, 2.8508, 20.0035, -158.017, -93.5095, 69.6638
2.18337, -1, -28.9991, 2.80706, 20.0143, -158.068, -93.4916, 69.3671
2.19141, -1, -29.1619, 2.76342, 20.025, -158.119, -93.4739, 69.0708
2.19947, -1, -29.3245, 2.71971, 20.0358, -158.17, -93.4563, 68.7741
2.20749, -1, -29.4872, 2.67601, 20.0467, -158.221, -93.4386, 68.4774
2.21542, -1, -29.65, 2.63224, 20.0575, -158.272, -93.4206, 68.1805
2.2235, -1, -29.8131, 2.58841, 20.0683, -158.323, -93.4023, 67.8839
2.23132, -1, -29.9762, 2.54461, 20.0792, -158.374, -93.3839, 67.5871
2.23935, -1, -30.1395, 2.50067, 20.0902, -158.425, -93.3657, 67.2901
2.24753, -1, -30.3033, 2.45663, 20.1012, -158.475, -93.3477, 66.993
2.25535, -1, -30.4676, 2.41269, 20.1121, -158.527, -93.3299, 66.6961
2.26348, -1, -30.6323, 2.36865, 20.1229, -158.577, -93.3122, 66.3989
2.27158, -1, -30.7973, 2.3247, 20.1337, -158.628, -93.2944, 66.1014
2.27953, -1, -30.9624, 2.28075, 20.1446, -158.68, -93.2764, 65.8041
2.28779, -1, -31.1274, 2.23668, 20.1555, -158.73, -93.258, 65.507
2.29571, -1, -31.2925, 2.19277, 20.1663, -158.782, -93.2394, 65.2094
2.30436, -1, -31.4574, 2.14892, 20.1772, -158.833, -93.2211, 64.9115
2.31195, -1, -31.622, 2.10489, 20.1879, -158.884, -93.2031, 64.6138
2.32047, -1, -31.7866, 2.06094, 20.1989, -158.935, -93.1853, 64.316
2.32785, -1, -31.9509, 2.01705, 20.2099, -158.986, -93.1678, 64.0178
2.33663, -1, -32.1148, 1.97307, 20.2208, -159.037, -93.1501, 63.7198
2.34392, -1, -32.1966, 1.9291, 20.2318, -159.089, -93.1323, 63.4221
2.35185, -1, -32.3601, 1.90709, 20.2372, -159.114, -93.114, 63.124
2.36033, -1, -32.6056, 1.84096, 20.2536, -159.191, -93.0957, 62.8258
2.36731, -1, -32.6875, 1.81891, 20.2591, -159.217, -93.0865, 62.6766
2.37532, -1, -32.8514, 1.77484, 20.2699, -159.268, -93.0684, 62.3785
2.38439, -1, -33.0978, 1.70849, 20.2863, -159.344, -93.0415, 61.9308
2.3913, -1, -33.1801, 1.68638, 20.2917, -159.37, -93.0326, 61.7814
2.39936, -1, -33.3448, 1.64221, 20.3026, -159.422, -93.0149, 61.4825
2.40866, -1, -33.5929, 1.57582, 20.3191, -159.498, -92.9878, 61.0347
2.41531, -1, -33.6757, 1.55369, 20.3246, -159.524, -92.9786, 60.8853
2.42474, -1, -33.9244, 1.48737, 20.3409, -159.601, -92.9507, 60.4365
2.43131, -1, -34.0074, 1.46527, 20.3463, -159.626, -92.9414, 60.2869
2.44146, -1, -34.2565, 1.39906, 20.3628, -159.704, -92.914, 59.8383
2.44736, -1, -34.3395, 1.37699, 20.3682, -159.729, -92.905, 59.6886
2.45692, -1, -34.5884, 1.3107, 20.3846, -159.807, -92.8783, 59.2392
2.46492, -1, -34.7539, 1.26654, 20.3955, -159.858, -92.8604, 58.9401
2.47138, -1, -34.8365, 1.24441, 20.4009, -159.883, -92.8514, 58.7904
2.48105, -1, -35.0015, 1.20019, 20.4174, -159.961, -92.824, 58.3409
2.48731, -1, -35.1662, 1.15593, 20.423, -159.986, -92.8148, 58.191
2.49634, -1, -35.3307, 1.11163, 20.434, -160.038, -92.7962, 57.8913
2.50439, -1, -35.4947, 1.06749, 20.4452, -160.089, -92.7779, 57.5916
2.5113, -1, -35.657, 1.02366, 20.4564, -160.14, -92.7598, 57.2918
2.51939, -1, -35.8165, 0.980432, 20.4679, -160.191, -92.7419, 56.9932
2.5273, -1, -35.9721, 0.938339, 20.4797, -160.242, -92.7242, 56.6979
2.5353, -1, -36.1226, 0.897879, 20.4916, -160.291, -92.7067, 56.4086
2.54339, -1, -36.2655, 0.859621, 20.5035, -160.339, -92.6896, 56.1294
2.55138, -1, -36.3987, 0.824301, 20.5151, -160.384, -92.6731, 55.8667
2.55932, -1, -36.5207, 0.792026, 20.5257, -160.424, -92.6579, 55.6267
2.56737, -1, -36.63, 0.763171, 20.535, -160.46, -92.6447, 55.4149
2.5753, -1, -36.7248, 0.738071, 20.5423, -160.49, -92.6336, 55.2362
2.5833, -1, -36.8049, 0.716813, 20.5474, -160.515, -92.6248, 55.0925
2.59137, -1, -36.8713, 0.699279, 20.5503, -160.534, -92.6184, 54.9837
2.59932, -1, -36.9246, 0.685258, 20.5517, -160.547, -92.6138, 54.9067
2.6073, -1, -36.9651, 0.67439, 20.5521, -160.556, -92.611, 54.8545
2.61534, -1, -36.9948, 0.666573, 20.5519, -160.562, -92.6093, 54.8228
2.6233, -1, -37.0152, 0.661423, 20.5514, -160.565, -92.6084, 54.8048
2.63131, -1, -37.0277, 0.658395, 20.5511, -160.567, -92.6079, 54.7957
2.63936, 2, -37.0345, 0.656757, 20.551, -160.568, -92.6077, 54.7913
2.64738, 2, -37.0367, 0.656002, 20.5509, -160.568, -92.6076, 54.7894
2.6553, 2, -37.0366, 0.655704, 20.5508, -160.568, -92.6075, 54.7885
2.66337, 2, -37.0361, 0.655567, 20.5508, -160.568, -92.6075, 54.7881
2.67133, 2, -37.0358, 0.65553, 20.5508, -160.568, -92.6076, 54.7879
2.67934, 2, -37.0362, 0.655483, 20.5508, -160.568, -92.6076, 54.7879
2.68744, 2, -37.0371, 0.655444, 20.5507, -160.568, -92.6076, 54.7879
2.69539, 2, -37.0382, 0.655362, 20.5506, -160.568, -92.6076, 54.7879
2.7034, 2, -37.0396, 0.655198, 20.5504, -160.568, -92.6076, 54.7879
2.71148, 2, -37.0409, 0.654957, 20.5502, -160.568, -92.6077, 54.788
2.71942, 2, -37.0421, 0.654723, 20.55, -160.568, -92.6077, 54.7881
2.7274, 2, -37.043, 0.65452, 20.5498, -160.568, -92.6077, 54.7882
2.73548, 2, -37.0434, 0.654417, 20.5496, -160.568, -92.6078, 54.7883
2.74333, 2, -37.0435, 0.654385, 20.5494, -160.568, -92.6079, 54.7885
2.75134, 2, -37.0431, 0.654387, 20.5492, -160.568, -92.6078, 54.7887
2.75943, 2, -37.0423, 0.654425, 20.5491, -160.568, -92.6079, 54.7889
2.76741, 2, -37.0413, 0.654478, 20.5491, -160.568, -92.608, 54.7892
2.7758, 2, -37.0398, 0.654558, 20.549, -160.568, -92.6079, 54.7894
2.78379, 2, -37.0385, 0.654646, 20.5489, -160.568, -92.608, 54.7896
2.79159, 2, -37.0375, 0.654671, 20.5488, -160.568, -92.608, 54.7897
2.80001, 2, -37.0369, 0.654678, 20.5488, -160.568, -92.608, 54.7898
2.80843, 2, -37.0367, 0.654652, 20.5488, -160.568, -92.608, 54.7899
2.81585, 2, -37.0368, 0.654625, 20.5488, -160.568, -92.608, 54.7899
2.82441, 2, -37.037, 0.654559, 20.5487, -160.568, -92.6081, 54.7899
2.83202, 2, -37.0372, 0.654504, 20.5487, -160.568, -92.6081, 54.79
2.83987, 2, -37.0376, 0.65446, 20.5487, -160.568, -92.6081, 54.79
2.84847, 2, -37.0383, 0.654459, 20.5487, -160.568, -92.6081, 54.7901
2.85595, 2, -37.0386, 0.654447, 20.5487, -160.568, -92.6081, 54.7901
2.86444, 2, -37.0394, 0.654449, 20.5487, -160.568, -92.6081, 54.7902
2.87215, 2, -37.0397, 0.654461, 20.5487, -160.568, -92.6081, 54.7902
2.87937, 2, -37.0398, 0.654485, 20.5486, -160.568, -92.6081, 54.7902
2.88728, 2, -37.0399, 0.654513, 20.5487, -160.568, -92.6081, 54.7903
2.89529, 2, -37.0399, 0.654544, 20.5487, -160.568, -92.6081, 54.7903
2.90335, 2, -37.0397, 0.654558, 20.5487, -160.568, -92.6081, 54.7903
2.91261, 2, -37.0391, 0.654567, 20.5487, -160.568, -92.6081, 54.7905
2.9193, 2, -37.0391, 0.654557, 20.5487, -160.568, -92.6081, 54.7905
2.92734, 2, -37.0389, 0.654527, 20.5486, -160.568, -92.6082, 54.7905
2.93529, 2, -37.0389, 0.654507, 20.5487, -160.568, -92.6082, 54.7905
2.94522, 2, -37.0388, 0.654481, 20.5486, -160.568, -92.6082, 54.7906
2.95134, 2, -37.0388, 0.654462, 20.5486, -160.568, -92.6082, 54.7907
2.9609, 2, -37.0389, 0.654454, 20.5486, -160.568, -92.6082, 54.7908
2.96936, 2, -37.0389, 0.654456, 20.5485, -160.568, -92.6082, 54.7909
2.97536, 2, -37.0389, 0.654456, 20.5485, -160.568, -92.6082, 54.7909
2.98495, 2, -37.039, 0.654476, 20.5485, -160.568, -92.6082, 54.791
2.99327, 2, -37.0392, 0.654505, 20.5485, -160.568, -92.6083, 54.7911
2.99937, 2, -37.0393, 0.654526, 20.5485, -160.568, -92.6083, 54.7911
3.00842, 2, -37.0393, 0.654532, 20.5485, -160.568, -92.6083, 54.7911
3.01529, 2, -37.0394, 0.654542, 20.5485, -160.568, -92.6083, 54.7912
3.02336, 2, -37.0394, 0.654531, 20.5485, -160.568, -92.6083, 54.7912
3.03129, 2, -37.0394, 0.654523, 20.5485, -160.568, -92.6083, 54.7913
3.03929, 2, -37.0393, 0.654512, 20.5485, -160.568, -92.6083, 54.7913
3.04737, 2, -37.0393, 0.654487, 20.5485, -160.568, -92.6083, 54.7913
3.05529, 2, -37.0393, 0.654483, 20.5485, -160.568, -92.6082, 54.7915
3.06329, 2, -37.0393, 0.654469, 20.5485, -160.568, -92.6083, 54.7915
3.07136, 2, -37.0393, 0.654463, 20.5485, -160.568, -92.6083, 54.7915
3.07929, 2, -37.0393, 0.654479, 20.5484, -160.568, -92.6083, 54.7915
3.08729, 2, -37.0393, 0.65448, 20.5484, -160.568, -92.6083, 54.7916
3.09536, 2, -37.0393, 0.654492, 20.5484, -160.568, -92.6084, 54.7917
3.10329, 2, -37.0393, 0.654527, 20.5484, -160.568, -92.6084, 54.7918
3.11128, 2, -37.0392, 0.65455, 20.5484, -160.568, -92.6084, 54.7919
3.11938, 2, -37.0392, 0.65455, 20.5484, -160.568, -92.6084, 54.7919
3.12729, 2, -37.0392, 0.654535, 20.5484, -160.568, -92.6084, 54.7919
3.13529, 2, -37.0392, 0.654536, 20.5484, -160.568, -92.6084, 54.7919
3.14336, 2, -37.0392, 0.654544, 20.5484, -160.568, -92.6083, 54.7919
3.15137, 2, -37.0392, 0.654514, 20.5484, -160.568, -92.6083, 54.792
3.1593, 2, -37.0392, 0.654491, 20.5483, -160.568, -92.6084, 54.7921
3.16735, 2, -37.0392, 0.654485, 20.5484, -160.568, -92.6084, 54.7921
3.17529, 2, -37.0392, 0.654475, 20.5483, -160.568, -92.6084, 54.7921
3.18333, 2, -37.0392, 0.654485, 20.5483, -160.568, -92.6084, 54.7922
3.19144, 2, -37.0392, 0.654494, 20.5483, -160.568, -92.6085, 54.7922
3.19939, 2, -37.0392, 0.654499, 20.5483, -160.568, -92.6084, 54.7923
3.20738, 2, -37.0392, 0.654501, 20.5483, -160.568, -92.6084, 54.7923
3.21547, 2, -37.0392, 0.654513, 20.5483, -160.568, -92.6084, 54.7923
3.22339, 2, -37.0392, 0.654526, 20.5483, -160.568, -92.6084, 54.7923
3.23135, 2, -37.0392, 0.654531, 20.5483, -160.568, -92.6084, 54.7924
3.23942, 2, -37.0391, 0.654523, 20.5483, -160.568, -92.6084, 54.7924
3.24732, 2, -37.0391, 0.654541, 20.5483, -160.568, -92.6084, 54.7925
3.25532, 2, -37.0391, 0.654539, 20.5483, -160.568, -92.6084, 54.7925
3.26349, 2, -37.0391, 0.654514, 20.5483, -160.568, -92.6085, 54.7925
3.27146, 2, -37.0391, 0.654508, 20.5482, -160.568, -92.6085, 54.7926
3.27951, 2, -37.0391, 0.654505, 20.5482, -160.568, -92.6085, 54.7926
3.28793, 2, -37.0391, 0.654504, 20.5482, -160.568, -92.6084, 54.7927
3.29559, 2, -37.0391, 0.654503, 20.5482, -160.568, -92.6084, 54.7927
3.30368, 2, -37.0391, 0.654514, 20.5482, -160.568, -92.6085, 54.7927
3.31189, 2, -37.0391, 0.654515, 20.5481, -160.568, -92.6085, 54.7927
3.32045, 2, -37.039, 0.654538, 20.5481, -160.568, -92.6085, 54.7927
3.3278, 2, -37.039, 0.654568, 20.5481, -160.568, -92.6085, 54.7928
3.33638, 2, -37.039, 0.654558, 20.5481, -160.568, -92.6085, 54.7928
3.34386, 2, -37.039, 0.654551, 20.5481, -160.568, -92.6085, 54.7928
3.35238, 2, -37.039, 0.654551, 20.5481, -160.568, -92.6085, 54.7928
3.36002, 2, -37.039, 0.654546, 20.5481, -160.568, -92.6085, 54.7929
3.36727, 2, -37.039, 0.654541, 20.5481, -160.568, -92.6085, 54.7929
3.37529, 2, -37.0389, 0.654538, 20.5481, -160.568, -92.6085, 54.7929
3.38441, 2, -37.039, 0.654548, 20.5481, -160.568, -92.6085, 54.7929
3.39127, 2, -37.0389, 0.654544, 20.5481, -160.568, -92.6085, 54.7929
3.40042, 2, -37.039, 0.654528, 20.5481, -160.568, -92.6085, 54.7929
3.40733, 2, -37.0389, 0.654531, 20.5481, -160.568, -92.6085, 54.7929
3.41527, 2, -37.0389, 0.654523, 20.548, -160.568, -92.6085, 54.7929
3.42468, 2, -37.0389, 0.654551, 20.548, -160.567, -92.6085, 54.793
3.43294, 2, -37.0389, 0.654569, 20.548, -160.567, -92.6085, 54.793
3.44079, 2, -37.0389, 0.654575, 20.548, -160.567, -92.6085, 54.793
3.44886, 2, -37.0389, 0.654572, 20.548, -160.567, -92.6085, 54.793
3.45693, 2, -37.0389, 0.65456, 20.548, -160.567, -92.6085, 54.793
3.46491, 2, -37.0389, 0.654552, 20.548, -160.567, -92.6085, 54.7931
3.47287, 2, -37.0388, 0.654544, 20.548, -160.567, -92.6085, 54.7931
3.47934, 2, -37.0388, 0.654541, 20.548, -160.567, -92.6086, 54.7931
3.48902, 2, -37.0388, 0.654556, 20.548, -160.567, -92.6085, 54.7931
3.49535, 2, -37.0388, 0.654561, 20.548, -160.567, -92.6085, 54.7932
3.50429, 2, -37.0388, 0.654548, 20.548, -160.567, -92.6086, 54.7931
3.51127, 2, -37.0388, 0.654549, 20.548, -160.567, -92.6086, 54.7931
3.51928, 2, -37.0388, 0.654542, 20.548, -160.567, -92.6086, 54.7932
3.52734, 2, -37.0388, 0.654532, 20.5479, -160.567, -92.6086, 54.7932
3.53527, 2, -37.0388, 0.654534, 20.5479, -160.567, -92.6086, 54.7932
3.54327, 2, -37.0387, 0.654543, 20.5479, -160.567, -92.6086, 54.7932
3.55143, 2, -37.0388, 0.654552, 20.5479, -160.567, -92.6086, 54.7931
3.55928, 2, -37.0387, 0.654554, 20.5479, -160.567, -92.6086, 54.7932
3.56727, 2, -37.0387, 0.654563, 20.5479, -160.567, -92.6087, 54.7932
3.57535, 2, -37.0387, 0.654567, 20.5479, -160.567, -92.6086, 54.7932
3.58327, 2, -37.0387, 0.654558, 20.5479, -160.567, -92.6087, 54.7932
3.59127, 2, -37.0387, 0.654557, 20.5479, -160.567, -92.6086, 54.7932
3.59935, 2, -37.0386, 0.654564, 20.5479, -160.567, -92.6086, 54.7932
3.60727, 2, -37.0386, 0.654575, 20.5479, -160.567, -92.6087, 54.7932
3.61527, 2, -37.0386, 0.654567, 20.5478, -160.567, -92.6087, 54.7932
3.62334, 2, -37.0386, 0.654543, 20.5478, -160.567, -92.6086, 54.7932
3.63127, 2, -37.0386, 0.654565, 20.5478, -160.567, -92.6086, 54.7932
3.63943, 2, -37.0386, 0.654573, 20.5478, -160.567, -92.6085, 54.7932
3.64733, 2, -37.0386, 0.654572, 20.5478, -160.567, -92.6085, 54.7932
3.65535, 2, -37.0386, 0.65456, 20.5478, -160.567, -92.6086, 54.7932
3.66327, 2, -37.0386, 0.654558, 20.5478, -160.567, -92.6086, 54.7932
3.67137, 2, -37.0386, 0.654577, 20.5478, -160.567, -92.6086, 54.7932
3.67939, 2, -37.0385, 0.654574, 20.5478, -160.567, -92.6086, 54.7933
3.68731, 2, -37.0385, 0.654584, 20.5478, -160.567, -92.6086, 54.7932
3.69541, 2, -37.0385, 0.654577, 20.5478, -160.567, -92.6086, 54.7932
3.70339, 4, -37.0385, 0.654562, 20.5478, -160.567, -92.6086, 54.7932
3.71137, 4, -37.0385, 0.654548, 20.5478, -160.567, -92.6087, 54.7932
3.71947, 4, -37.0385, 0.654553, 20.5478, -160.567, -92.6086, 54.7932
3.72738, 4, -37.0384, 0.654562, 20.5477, -160.567, -92.6086, 54.7932
3.73533, 4, -37.0384, 0.654567, 20.5477, -160.567, -92.6087, 54.7932
3.7434, 4, -37.0384, 0.654581, 20.5477, -160.567, -92.6087, 54.7933
3.75134, 4, -37.0384, 0.654575, 20.5477, -160.567, -92.6087, 54.7933
3.75932, 4, -37.0384, 0.654585, 20.5477, -160.567, -92.6087, 54.7933
3.7678, 4, -37.0384, 0.654577, 20.5477, -160.567, -92.6086, 54.7933
3.77641, 4, -37.0384, 0.654586, 20.5477, -160.567, -92.6086, 54.7933
3.78346, 4, -37.0383, 0.65459, 20.5477, -160.567, -92.6087, 54.7933
3.79191, 4, -37.0383, 0.654599, 20.5477, -160.567, -92.6087, 54.7933
3.80034, 4, -37.0383, 0.654596, 20.5477, -160.567, -92.6087, 54.7933
3.80809, 4, -37.0383, 0.654594, 20.5477, -160.567, -92.6087, 54.7933
3.83009, 4, -37.0383, 0.654575, 20.5476, -160.567, -92.6087, 54.7933
3.83272, 4, -37.0383, 0.654574, 20.5476, -160.567, -92.6087, 54.7932
3.83464, 4, -37.0383, 0.654574, 20.5476, -160.567, -92.6087, 54.7932
3.84151, 4, -37.0383, 0.654572, 20.5476, -160.567, -92.6087, 54.7933
3.85084, 4, -37.0382, 0.654572, 20.5476, -160.567, -92.6087, 54.7933
3.85665, 4, -37.0375, 0.65442, 20.5476, -160.567, -92.6087, 54.7933
3.86427, 4, -37.035, 0.653504, 20.5478, -160.567, -92.6087, 54.7933
3.87131, 4, -37.0326, 0.652362, 20.548, -160.567, -92.6087, 54.7933
3.88058, 4, -37.0196, 0.644554, 20.551, -160.567, -92.6086, 54.7933
3.88864, 4, -37.0062, 0.635026, 20.5565, -160.566, -92.6087, 54.7933
3.89528, 4, -36.9978, 0.62876, 20.5607, -160.565, -92.6087, 54.7933
3.90331, 5, -36.9768, 0.612746, 20.5732, -160.563, -92.6087, 54.7932
3.91257, 5, -36.935, 0.580383, 20.6036, -160.557, -92.6085, 54.7932
3.91927, 5, -36.9186, 0.56731, 20.6171, -160.554, -92.6083, 54.7932
3.92908, 5, -36.8622, 0.521489, 20.6679, -160.543, -92.6074, 54.7931
3.93666, 5, -36.841, 0.484996, 20.7091, -160.534, -92.6063, 54.7931
3.94326, 5, -36.7945, 0.465035, 20.7317, -160.529, -92.6056, 54.7931
3.9515, 5, -36.7429, 0.421985, 20.7802, -160.518, -92.6041, 54.7931
3.95947, 5, -36.6865, 0.375219, 20.8317, -160.506, -92.6025, 54.793
3.96726, 5, -36.6261, 0.325704, 20.8853, -160.494, -92.6008, 54.7929
3.97688, 5, -36.5287, 0.247709, 20.9677, -160.476, -92.5981, 54.7929
3.98332, 5, -36.4952, 0.221113, 20.9954, -160.469, -92.5971, 54.793
3.99316, 5, -36.4272, 0.167558, 21.0508, -160.457, -92.5953, 54.7931
4.00109, 5, -36.3586, 0.113771, 21.1063, -160.439, -92.5925, 54.7931
4.00813, 5, -36.2898, 0.0598968, 21.1618, -160.433, -92.5915, 54.7931
4.01627, 5, -36.2209, 0.00616388, 21.2172, -160.421, -92.5896, 54.7931
4.02725, 5, -36.1177, -0.0740249, 21.3003, -160.403, -92.5867, 54.7931
4.03246, 5, -36.0834, -0.100656, 21.3279, -160.397, -92.5857, 54.7932
4.042, 5, -35.9805, -0.180237, 21.4107, -160.378, -92.5827, 54.7933
4.04831, 5, -35.9462, -0.206675, 21.4383, -160.371, -92.5817, 54.7934
4.05525, 5, -35.8776, -0.259406, 21.4933, -160.358, -92.5796, 54.7937
4.06326, 5, -35.8089, -0.31201, 21.5483, -160.345, -92.5776, 54.7941
4.07132, 5, -35.7398, -0.364686, 21.6032, -160.333, -92.5756, 54.7948
4.07948, 5, -35.6706, -0.417304, 21.658, -160.32, -92.5736, 54.7957
4.08748, 5, -35.6011, -0.470013, 21.7124, -160.308, -92.5716, 54.7968
4.09524, 5, -35.5313, -0.522765, 21.7668, -160.295, -92.5696, 54.798
4.10341, 5, -35.4612, -0.575501, 21.821, -160.283, -92.5675, 54.7993
4.11319, 5, -35.3908, -0.628238, 21.875, -160.27, -92.5655, 54.8008
4.12027, 5, -35.3203, -0.680897, 21.9289, -160.257, -92.5634, 54.8025
4.12748, 5, -35.2497, -0.733498, 21.9828, -160.244, -92.5613, 54.8043
4.13623, 5, -35.1792, -0.785797, 22.0365, -160.231, -92.5592, 54.8063
4.14326, 5, -35.1085, -0.837902, 22.0901, -160.217, -92.5571, 54.8084
4.15263, 5, -35.0379, -0.889934, 22.1436, -160.204, -92.5549, 54.8105
4.15953, 5, -34.9673, -0.941631, 22.197, -160.191, -92.5528, 54.8129
4.16726, 5, -34.8968, -0.993196, 22.2503, -160.178, -92.5506, 54.8154
4.17526, 5, -34.8263, -1.0446, 22.3035, -160.165, -92.5485, 54.8179
4.18384, 5, -34.7557, -1.09596, 22.3565, -160.152, -92.5462, 54.8206
4.1913, 5, -34.685, -1.14734, 22.4093, -160.14, -92.544, 54.8234
4.19934, 5, -34.6141, -1.19859, 22.4619, -160.127, -92.5418, 54.8263
4.20764, 5, -34.543, -1.24996, 22.5143, -160.113, -92.5396, 54.8293
4.21536, 5, -34.4719, -1.30131, 22.5666, -160.1, -92.5374, 54.8324
4.22337, 5, -34.4004, -1.35261, 22.6188, -160.086, -92.5351, 54.8356
4.23228, 5, -34.3288, -1.40393, 22.6708, -160.072, -92.5329, 54.839
4.24204, 5, -34.257, -1.45514, 22.7226, -160.059, -92.5306, 54.8424
4.24733, 5, -34.1851, -1.50613, 22.7744, -160.045, -92.5282, 54.8461
4.25671, 5, -34.1131, -1.55686, 22.8261, -160.032, -92.5259, 54.8497
4.2644, 5, -34.041, -1.60745, 22.8776, -160.018, -92.5236, 54.8536
4.27227, 5, -33.9689, -1.65782, 22.9291, -160.005, -92.5214, 54.8575
4.27944, 5, -33.8966, -1.70793, 22.9804, -159.991, -92.519, 54.8615
4.28764, 5, -33.8245, -1.75792, 23.0315, -159.978, -92.5167, 54.8656
4.2956, 5, -33.7523, -1.80783, 23.0825, -159.964, -92.5144, 54.8698
4.30363, 5, -33.6799, -1.85769, 23.1333, -159.95, -92.5121, 54.874
4.31275, 5, -33.6076, -1.90752, 23.1839, -159.935, -92.5098, 54.8783
4.32032, 5, -33.535, -1.95757, 23.2344, -159.921, -92.5076, 54.8825
4.32785, 5, -33.4622, -2.00799, 23.2849, -159.907, -92.5053, 54.8865
4.33673, 5, -33.3894, -2.05871, 23.3353, -159.893, -92.503, 54.8895
4.34382, 5, -33.3168, -2.10988, 23.3857, -159.879, -92.5005, 54.8912
4.35235, 6, -33.2445, -2.16163, 23.4364, -159.864, -92.498, 54.8914
4.36081, 6, -33.1726, -2.21425, 23.4875, -159.85, -92.4949, 54.8897
4.36884, 6, -33.101, -2.26777, 23.5393, -159.834, -92.4912, 54.8847
4.3763, 6, -33.0299, -2.32222, 23.592, -159.817, -92.4864, 54.8743
4.38331, 7, -32.9946, -2.34989, 23.6188, -159.808, -92.4835, 54.8676
4.39124, 7, -32.9242, -2.40609, 23.6732, -159.79, -92.4765, 54.8522
4.39925, 7, -32.8543, -2.46367, 23.7289, -159.77, -92.4678, 54.8349
4.4074, 7, -32.785, -2.52274, 23.7861, -159.748, -92.457, 54.8174
4.4169, 7, -32.7164, -2.58336, 23.8742, -159.715, -92.4372, 54.7917
4.42542, 8, -32.6148, -2.67733, 23.9345, -159.69, -92.4217, 54.775
4.43309, 8, -32.5479, -2.74214, 23.9959, -159.665, -92.4043, 54.7579
4.44556, 8, -32.4489, -2.84234, 24.0899, -159.624, -92.3747, 54.7304
4.44726, 8, -32.4489, -2.84234, 24.0899, -159.624, -92.3747, 54.7304
4.45763, 8, -32.3513, -2.94591, 24.1861, -159.582, -92.3422, 54.6996
4.46557, 9, -32.287, -3.01653, 24.2514, -159.553, -92.3191, 54.6767
4.47125, 9, -32.2551, -3.05233, 24.2845, -159.538, -92.3071, 54.6646
4.48079, 9, -32.1916, -3.12496, 24.3851, -159.49, -92.2692, 54.626
4.48914, 9, -32.0974, -3.23624, 24.4535, -159.458, -92.2415, 54.5989
4.49523, 9, -32.0662, -3.27399, 24.4881, -159.442, -92.2271, 54.5848
4.50331, 10, -32.0044, -3.35046, 24.5579, -159.408, -92.1974, 54.5554
4.51228, 10, -31.9432, -3.42829, 24.6288, -159.373, -92.1668, 54.5242
4.51926, 10, -31.8826, -3.50763, 24.7007, -159.337, -92.1348, 54.4909
4.52729, 10, -31.8225, -3.58834, 24.7737, -159.301, -92.1008, 54.4558
4.53545, 10, -31.763, -3.67051, 24.8477, -159.264, -92.0653, 54.4199
4.54322, 11, -31.704, -3.7541, 24.9227, -159.225, -92.0289, 54.3825
4.55126, 11, -31.6456, -3.83922, 24.9986, -159.185, -91.9916, 54.3434
4.55943, 11, -31.5877, -3.92579, 25.0754, -159.145, -91.9522, 54.3024
4.57375, 11, -31.5018, -4.0584, 25.1924, -159.083, -91.8695, 54.2163
4.57627, 11, -31.4735, -4.10333, 25.232, -159.061, -91.8695, 54.2163
4.5843, 12, -31.4173, -4.19431, 25.312, -159.018, -91.8262, 54.1713
4.59224, 12, -31.3614, -4.28669, 25.3929, -158.975, -91.7809, 54.1241
4.60031, 12, -31.3061, -4.38045, 25.475, -158.929, -91.7349, 54.0753
4.61012, 12, -31.2241, -4.52359, 25.6, -158.86, -91.6633, 54.0001
4.61546, 12, -31.1971, -4.57201, 25.6422, -158.836, -91.6384, 53.9742
4.62429, 13, -31.1433, -4.66997, 25.7272, -158.788, -91.5885, 53.9207
4.63126, 13, -31.09, -4.76931, 25.8132, -158.739, -91.537, 53.8661
4.63936, 13, -31.0372, -4.87011, 25.9002, -158.69, -91.4834, 53.8105
4.6473, 13, -30.985, -4.97249, 25.9883, -158.639, -91.4295, 53.7527
4.65524, 13, -30.9333, -5.07633, 26.0775, -158.588, -91.3737, 53.6936
4.66346, 14, -30.8822, -5.18154, 26.1678, -158.535, -91.3165, 53.6336
4.6715, 14, -30.8316, -5.28826, 26.2591, -158.481, -91.2588, 53.5714
4.67925, 14, -30.7816, -5.39647, 26.3514, -158.428, -91.1986, 53.5079
4.68749, 14, -30.7321, -5.50614, 26.4444, -158.373, -91.1382, 53.4439
4.69622, 14, -30.6831, -5.61737, 26.5385, -158.316, -91.0756, 53.3774
4.70339, 14, -30.6346, -5.73003, 26.6337, -158.26, -91.0117, 53.3097
4.71135, 15, -30.5865, -5.84409, 26.73, -158.201, -90.9468, 53.241
4.71935, 15, -30.5391, -5.95935, 26.8276, -158.143, -90.8799, 53.1701
4.72741, 15, -30.4921, -6.07602, 26.9261, -158.083, -90.8127, 53.0984
4.73566, 15, -30.4456, -6.19421, 27.0256, -158.022, -90.7431, 53.0249
4.7443, 15, -30.3996, -6.31378, 27.1258, -157.961, -90.6729, 52.9494
4.75126, 16, -30.3542, -6.43494, 27.2271, -157.898, -90.6006, 52.8733
4.76151, 16, -30.3093, -6.55755, 27.3296, -157.835, -90.5278, 52.7946
4.7678, 16, -30.2648, -6.68149, 27.4332, -157.771, -90.4532, 52.7155
4.77538, 16, -30.2209, -6.80701, 27.5379, -157.706, -90.3777, 52.6345
4.78343, 16, -30.1774, -6.93403, 27.6436, -157.64, -90.3003, 52.5523
4.79166, 17, -30.1343, -7.06267, 27.7501, -157.573, -90.2221, 52.4689
4.79957, 17, -30.0919, -7.19282, 27.8575, -157.505, -90.1423, 52.3842
4.80758, 17, -30.0498, -7.32444, 27.9659, -157.436, -90.061, 52.2985
4.81621, 17, -30.0084, -7.45725, 28.0755, -157.367, -89.9788, 52.2107
4.82373, 17, -29.9674, -7.59148, 28.1864, -157.296, -89.895, 52.1223
4.83234, 18, -29.9269, -7.72726, 28.2983, -157.225, -89.8101, 52.032
4.83998, 18, -29.8869, -7.8644, 28.411, -157.152, -89.7237, 51.941
4.84845, 18, -29.8474, -8.0029, 28.5246, -157.079, -89.6364, 51.8478
4.85587, 18, -29.8278, -8.14257, 28.6392, -157.005, -89.5476, 51.7539
4.8689, 18, -29.7698, -8.35465, 28.8133, -156.892, -89.4121, 51.61
4.87243, 19, -29.7316, -8.42609, 28.8719, -156.854, -89.3664, 51.5616
4.87924, 19, -29.7128, -8.49795, 28.9309, -156.816, -89.3203, 51.5126
4.88864, 19, -29.6568, -8.71581, 29.1089, -156.7, -89.1801, 51.3647
4.89749, 19, -29.62, -8.86263, 29.2285, -156.621, -89.0854, 51.2646
4.9033, 19, -29.6019, -8.93647, 29.2886, -156.581, -89.0377, 51.2145
4.91268, 20, -29.5481, -9.16036, 29.4707, -156.461, -88.8923, 51.061
4.91926, 20, -29.5304, -9.23574, 29.5321, -156.421, -88.8434, 51.0095
4.92726, 20, -29.4952, -9.38767, 29.6555, -156.339, -88.745, 50.9052
4.93766, 20, -29.4435, -9.6178, 29.8421, -156.215, -88.5948, 50.7466
4.94556, 20, -29.4096, -9.77263, 29.9677, -156.131, -88.4935, 50.6396
4.95124, 20, -29.3929, -9.8506, 30.0309, -156.088, -88.4424, 50.5853
4.95933, 21, -29.3596, -10.0077, 30.1579, -156.003, -88.3392, 50.4765
4.96881, 21, -29.3104, -10.246, 30.3506, -155.874, -88.1828, 50.3113
4.97764, 21, -29.2782, -10.406, 30.4802, -155.787, -88.0771, 50.2
4.98567, 21, -29.2464, -10.5672, 30.6107, -155.699, -87.9703, 50.0882
4.99325, 21, -29.2307, -10.7298, 30.742, -155.609, -87.8627, 49.9751
4.99923, 22, -29.1995, -10.8116, 30.808, -155.564, -87.8085, 49.9184
5.00828, 22, -29.1686, -10.9763, 30.9408, -155.474, -87.6993, 49.8041
5.01636, 22, -29.1382, -11.1417, 31.0745, -155.383, -87.5892, 49.6888
5.02327, 22, -29.1082, -11.3082, 31.2091, -155.291, -87.4779, 49.5728
5.03126, 22, -29.0786, -11.4763, 31.3446, -155.197, -87.3658, 49.4559
5.03923, 23, -29.0493, -11.6461, 31.481, -155.103, -87.2528, 49.3383
5.04724, 23, -29.0203, -11.8169, 31.6181, -155.009, -87.1386, 49.2197
5.05523, 23, -28.9917, -11.9883, 31.756, -154.913, -87.0239, 49.1008
5.06346, 23, -28.9636, -12.1611, 31.8948, -154.817, -86.9082, 48.9815
5.07228, 23, -28.9359, -12.3354, 32.0346, -154.72, -86.7915, 48.8612
5.08022, 24, -28.9085, -12.5109, 32.1753, -154.621, -86.674, 48.7406
5.08737, 24, -28.8814, -12.6867, 32.3167, -154.522, -86.5553, 48.6196
5.09701, 24, -28.8546, -12.8633, 32.4586, -154.422, -86.4361, 48.4976
5.10429, 24, -28.8283, -13.0415, 32.6015, -154.322, -86.3158, 48.3751
5.11124, 24, -28.8022, -13.2211, 32.7455, -154.22, -86.195, 48.2522
5.11929, 25, -28.7764, -13.4012, 32.8901, -154.118, -86.0735, 48.1288
5.12733, 25, -28.751, -13.5819, 33.0354, -154.015, -85.9509, 48.0053
5.13648, 25, -28.7257, -13.764, 33.1812, -153.911, -85.8282, 47.882
5.14339, 25, -28.7006, -13.9475, 33.3277, -153.807, -85.7042, 47.7581
5.15129, 25, -28.6759, -14.1317, 33.4752, -153.701, -85.58, 47.6342
5.16, 26, -28.6514, -14.3162, 33.6234, -153.595, -85.4549, 47.5103
5.1683, 26, -28.6273, -14.502, 33.7719, -153.488, -85.3293, 47.386
5.17523, 26, -28.6035, -14.6894, 33.9212, -153.38, -85.2034, 47.2616
5.18658, 26, -28.5679, -14.9711, 34.1467, -153.217, -85.0129, 47.0753
5.19239, 26, -28.5561, -15.065, 34.2221, -153.162, -84.9492, 47.0132
5.1993, 27, -28.5328, -15.2537, 34.3732, -153.052, -84.8213, 46.8894
5.20757, 27, -28.5098, -15.4434, 34.5248, -152.942, -84.693, 46.7661
5.21548, 27, -28.4869, -15.6336, 34.6772, -152.83, -84.5641, 46.6426
5.22422, 27, -28.4642, -15.8239, 34.8303, -152.718, -84.4348, 46.5195
5.23133, 27, -28.4418, -16.0155, 34.9838, -152.605, -84.3052, 46.3969
5.23926, 28, -28.4195, -16.2085, 35.1373, -152.492, -84.175, 46.2742
5.24804, 28, -28.3971, -16.402, 35.2915, -152.378, -84.0446, 46.1522
5.25629, 28, -28.3749, -16.5959, 35.4465, -152.263, -83.9137, 46.0307
5.26428, 28, -28.3529, -16.7909, 35.6019, -152.148, -83.7827, 45.9099
5.27175, 28, -28.3308, -16.9867, 35.7574, -152.032, -83.6511, 45.7898
5.27939, 28, -28.3088, -17.1826, 35.9133, -151.915, -83.5195, 45.6708
5.28837, 29, -28.287, -17.3783, 36.0698, -151.797, -83.3874, 45.5525
5.29559, 29, -28.2652, -17.5751, 36.2268, -151.679, -83.2551, 45.4353
5.30442, 29, -28.2433, -17.7725, 36.3837, -151.561, -83.1224, 45.319
5.31192, 29, -28.2215, -17.9696, 36.5407, -151.442, -82.9896, 45.2034
5.32008, 29, -28.2, -18.167, 36.6985, -151.322, -82.8565, 45.0892
5.32862, 30, -28.1784, -18.3654, 36.8568, -151.202, -82.7234, 44.9762
5.3371, 30, -28.1568, -18.5639, 37.015, -151.081, -82.5903, 44.8644
5.34467, 30, -28.1352, -18.7623, 37.1731, -150.959, -82.4568, 44.7542
5.35184, 30, -28.1136, -18.9613, 37.3315, -150.837, -82.3234, 44.6454
5.36109, 30, -28.0917, -19.1614, 37.4904, -150.715, -82.1894, 44.5385
5.36838, 31, -28.0698, -19.3613, 37.6493, -150.592, -82.056, 44.433
5.37583, 31, -28.0588, -19.4612, 37.7286, -150.53, -81.9891, 44.381
5.38648, 31, -28.0261, -19.7609, 37.9668, -150.345, -81.7885, 44.2276
5.39136, 31, -28.015, -19.861, 38.0465, -150.283, -81.7217, 44.1775
5.39921, 31, -27.9929, -20.061, 38.206, -150.158, -81.5878, 44.078
5.40727, 32, -27.9706, -20.2603, 38.3651, -150.033, -81.4542, 43.9809
5.41522, 32, -27.9481, -20.4599, 38.5238, -149.907, -81.3205, 43.8853
5.42449, 32, -27.9137, -20.7604, 38.7624, -149.718, -81.1204, 43.7465
5.43121, 32, -27.9022, -20.8604, 38.8421, -149.655, -81.0535, 43.7012
5.44107, 32, -27.8674, -21.1602, 39.0802, -149.465, -80.8538, 43.5697
5.44726, 33, -27.8557, -21.2603, 39.1594, -149.402, -80.7872, 43.527
5.45685, 33, -27.8203, -21.5605, 39.3974, -149.211, -80.5879, 43.4035
5.4652, 33, -27.7962, -21.7597, 39.5562, -149.083, -80.4551, 43.3241
5.47119, 33, -27.7841, -21.8593, 39.6353, -149.019, -80.3889, 43.2857
5.47929, 33, -27.7596, -22.0589, 39.7931, -148.891, -80.2567, 43.2108
5.48885, 34, -27.7349, -22.2584, 40.0295, -148.699, -80.0587, 43.1041
5.49677, 34, -27.7099, -22.457, 40.1083, -148.634, -79.9929, 43.0703
5.50422, 34, -27.6845, -22.6554, 40.2658, -148.505, -79.8611, 43.0039
5.51334, 34, -27.6458, -22.953, 40.5006, -148.312, -79.664, 42.9111
5.52172, 34, -27.6326, -23.1504, 40.6569, -148.182, -79.5327, 42.8534
5.52757, 35, -27.606, -23.2488, 40.7351, -148.118, -79.4672, 42.8255
5.53941, 35, -27.5656, -23.5444, 40.9689, -147.923, -79.2706, 42.7481
5.54335, 35, -27.5519, -23.6429, 41.0463, -147.858, -79.2055, 42.7243
5.55141, 35, -27.5241, -23.839, 41.2009, -147.729, -79.0752, 42.6795
5.55921, 35, -27.4959, -24.0342, 41.3552, -147.599, -78.945, 42.6381
5.56724, 35, -27.4671, -24.229, 41.5093, -147.469, -78.8153, 42.6004
5.57528, 36, -27.4377, -24.4232, 41.6625, -147.339, -78.6855, 42.5672
5.58323, 36, -27.4079, -24.6163, 41.8149, -147.209, -78.5565, 42.5385
5.59137, 36, -27.3776, -24.8085, 41.967, -147.079, -78.4276, 42.5142
5.59926, 36, -27.3467, -25.0009, 42.1187, -146.949, -78.2993, 42.4943
5.60721, 36, -27.3151, -25.1928, 42.2695, -146.819, -78.1714, 42.4786
5.61521, 37, -27.2827, -25.3837, 42.4192, -146.689, -78.0438, 42.4674
5.62329, 37, -27.2499, -25.5739, 42.5684, -146.559, -77.9167, 42.4607
5.6313, 37, -27.2163, -25.7639, 42.717, -146.429, -77.7897, 42.4577
5.63937, 37, -27.1821, -25.953, 42.8648, -146.3, -77.6635, 42.4578
5.6482, 37, -27.1471, -26.1405, 43.0117, -146.171, -77.5374, 42.4632
5.65528, 38, -27.1114, -26.3271, 43.1575, -146.042, -77.4119, 42.4748
5.66404, 38, -27.0751, -26.5133, 43.3027, -145.913, -77.2868, 42.4913
5.67329, 38, -27.0379, -26.6983, 43.4471, -145.784, -77.1621, 42.5135
5.6802, 38, -26.9998, -26.8819, 43.5905, -145.656, -77.0377, 42.5413
5.68801, 38, -26.961, -27.0645, 43.7327, -145.529, -76.9137, 42.575
5.69628, 39, -26.9214, -27.2466, 43.8738, -145.401, -76.7904, 42.6151
5.7033, 39, -26.8808, -27.4275, 44.0139, -145.275, -76.6671, 42.6612
5.71342, 39, -26.8392, -27.6068, 44.1531, -145.148, -76.5445, 42.7128
5.71948, 39, -26.7967, -27.7851, 44.291, -145.022, -76.4222, 42.7705
5.72821, 39, -26.7534, -27.9629, 44.4277, -144.897, -76.3002, 42.8352
5.73532, 40, -26.7089, -28.1395, 44.5632, -144.773, -76.1785, 42.9053
5.74328, 40, -26.6634, -28.3141, 44.6975, -144.649, -76.0571, 42.9823
5.75135, 40, -26.6169, -28.4874, 44.8306, -144.525, -75.9362, 43.0657
5.76292, 40, -26.5693, -28.6598, 44.9623, -144.403, -75.8153, 43.155
5.76754, 40, -26.5206, -28.8305, 45.0926, -144.282, -75.6953, 43.2516
5.77623, 41, -26.4707, -28.9991, 45.2215, -144.161, -75.5755, 43.3542
5.78434, 41, -26.4198, -29.1661, 45.349, -144.041, -75.456, 43.4638
5.79179, 41, -26.3675, -29.3319, 45.4749, -143.922, -75.3372, 43.5799
5.80038, 41, -26.3139, -29.4965, 45.5994, -143.805, -75.2185, 43.7031
5.80758, 41, -26.259, -29.6591, 45.7222, -143.688, -75.1006, 43.8333
5.81603, 42, -26.2028, -29.8199, 45.8432, -143.573, -74.983, 43.9708
5.82451, 42, -26.1453, -29.9793, 45.9626, -143.459, -74.8656, 44.1157
5.83184, 42, -26.0863, -30.137, 46.0803, -143.346, -74.749, 44.2675
5.84082, 42, -26.0259, -30.2928, 46.1962, -143.235, -74.6324, 44.4268
5.84862, 42, -25.9641, -30.4463, 46.3104, -143.125, -74.5164, 44.5935
5.85586, 42, -25.9007, -30.5977, 46.4226, -143.017, -74.4009, 44.7674
5.86469, 43, -25.8358, -30.7472, 46.5327, -142.911, -74.2857, 44.9496
5.87182, 43, -25.8027, -30.8212, 46.587, -142.858, -74.1709, 45.1395
5.88097, 43, -25.7009, -31.0397, 46.7468, -142.703, -74.0564, 45.3371
5.88856, 43, -25.6311, -31.1824, 46.8508, -142.603, -73.9426, 45.5423
5.89742, 43, -25.5594, -31.3228, 46.9527, -142.504, -73.8293, 45.7553
5.90322, 44, -25.523, -31.3922, 47.0029, -142.456, -73.7727, 45.8646
5.91399, 44, -25.4106, -31.5968, 47.1493, -142.314, -73.604, 46.2048
5.91942, 44, -25.3722, -31.6639, 47.1969, -142.268, -73.5479, 46.3223
5.92879, 44, -25.2542, -31.8607, 47.336, -142.133, -73.3805, 46.6868
5.93654, 44, -25.1731, -31.9884, 47.4256, -142.046, -73.2698, 46.9399
5.94325, 45, -25.132, -32.0513, 47.4695, -142.004, -73.2146, 47.0697
5.95121, 45, -25.048, -32.1748, 47.5555, -141.922, -73.1047, 47.3356
5.96071, 45, -24.9182, -32.3549, 47.6791, -141.804, -72.9412, 47.7499
5.96737, 45, -24.8739, -32.4134, 47.7188, -141.766, -72.887, 47.8921
5.97519, 45, -24.7835, -32.5281, 47.7959, -141.693, -72.7795, 48.1825
5.98478, 46, -24.6909, -32.694, 47.906, -141.589, -72.6194, 48.635
5.99285, 46, -24.596, -32.8007, 47.9757, -141.524, -72.514, 48.9469
6.00074, 46, -24.4986, -32.8527, 48.0094, -141.493, -72.4615, 49.106
6.00819, 46, -24.399, -32.9541, 48.0745, -141.435, -72.3572, 49.4311
6.01536, 46, -24.2971, -33.0517, 48.1362, -141.379, -72.2538, 49.7648
6.02391, 47, -24.1929, -33.1457, 48.1944, -141.327, -72.1517, 50.1063
6.0322, 47, -24.0863, -33.2355, 48.2491, -141.28, -72.0503, 50.4561
6.04035, 47, -23.9769, -33.3213, 48.3001, -141.236, -71.9501, 50.8146
6.04794, 47, -23.8649, -33.4029, 48.3473, -141.198, -71.851, 51.1811
6.05528, 47, -23.7502, -33.4803, 48.3906, -141.164, -71.7531, 51.5562
6.06399, 48, -23.6326, -33.5533, 48.43, -141.135, -71.6564, 51.9396
6.07121, 48, -23.5123, -33.6218, 48.4652, -141.11, -71.5615, 52.3308
6.07926, 48, -23.3895, -33.6856, 48.4964, -141.089, -71.4679, 52.7307
6.09066, 48, -23.2006, -33.7723, 48.5355, -141.068, -71.3311, 53.3464
6.09643, 48, -23.1362, -33.7986, 48.5463, -141.064, -71.2865, 53.5557
6.10319, 49, -23.0054, -33.8475, 48.5648, -141.059, -71.1986, 53.9808
6.11129, 49, -22.8717, -33.8912, 48.5789, -141.058, -71.1124, 54.4134
6.11943, 49, -22.7351, -33.9294, 48.5883, -141.062, -71.0286, 54.8536
6.12804, 49, -22.5956, -33.962, 48.5931, -141.073, -70.9466, 55.302
6.13625, 49, -22.4533, -33.9891, 48.5935, -141.09, -70.8671, 55.7578
6.14416, 50, -22.3083, -34.0102, 48.5891, -141.113, -70.7898, 56.2218
6.15122, 50, -22.1606, -34.0253, 48.5797, -141.142, -70.7157, 56.6927
6.1592, 50, -22.0103, -34.0342, 48.5652, -141.176, -70.644, 57.1714
6.16738, 50, -21.8571, -34.0371, 48.5455, -141.217, -70.5759, 57.6584
6.17608, 50, -21.701, -34.0338, 48.5204, -141.265, -70.5105, 58.1527
6.18323, 50, -21.5416, -34.0237, 48.4897, -141.318, -70.4495, 58.6543
6.1935, 51, -21.3794, -34.007, 48.4537, -141.378, -70.3911, 59.1622
6.19954, 51, -21.2145, -33.9833, 48.4122, -141.444, -70.3369, 59.6774
6.20825, 51, -21.0469, -33.9525, 48.3649, -141.516, -70.2865, 60.1991
6.2153, 51, -20.8769, -33.9146, 48.3119, -141.595, -70.2393, 60.7275
6.22353, 51, -20.7042, -33.8693, 48.2531, -141.68, -70.1967, 61.261
6.23226, 52, -20.5289, -33.8162, 48.1883, -141.772, -70.159, 61.8016
6.2393, 52, -20.3508, -33.7552, 48.1177, -141.87, -70.1254, 62.3479
6.24737, 52, -20.1699, -33.6863, 48.0411, -141.974, -70.0962, 62.9001
6.25521, 52, -19.9863, -33.6092, 47.9583, -142.084, -70.0723, 63.4571
6.26324, 52, -19.8004, -33.5237, 47.8694, -142.2, -70.0537, 64.0197
6.2716, 53, -19.6124, -33.4296, 47.7743, -142.323, -70.0406, 64.5877
6.281, 53, -19.4225, -33.3271, 47.673, -142.451, -70.0331, 65.1611
6.28826, 53, -19.2303, -33.2161, 47.5656, -142.586, -70.0306, 65.7386
6.29753, 53, -19.0363, -33.0966, 47.452, -142.727, -70.0333, 66.3213
6.30398, 53, -18.8403, -32.9682, 47.332, -142.873, -70.0424, 66.9087
6.31237, 54, -18.6421, -32.8308, 47.2054, -143.025, -70.0582, 67.4997
6.31978, 54, -18.4417, -32.6843, 47.0723, -143.182, -70.0811, 68.0939
6.33036, 54, -18.2389, -32.5291, 46.933, -143.344, -70.1117, 68.6922
6.33583, 54, -18.0344, -32.3653, 46.7876, -143.512, -70.1491, 69.2939
6.34435, 54, -17.8285, -32.1924, 46.6358, -143.685, -70.1931, 69.8981
6.35174, 55, -17.6218, -32.0103, 46.4778, -143.862, -70.2457, 70.5051
6.3603, 55, -17.4139, -31.8193, 46.3138, -144.044, -70.3058, 71.1157
6.36785, 55, -17.2047, -31.6192, 46.1437, -144.23, -70.3734, 71.7288
6.37716, 55, -16.9941, -31.4093, 45.9667, -144.421, -70.4497, 72.3431
6.38479, 55, -16.7823, -31.1892, 45.783, -144.616, -70.5336, 72.9598
6.39227, 56, -16.5693, -30.96, 45.5937, -144.814, -70.6262, 73.5781
6.39924, 56, -16.4624, -30.8421, 45.4969, -144.914, -70.6754, 73.8879
6.40719, 56, -16.2482, -30.5987, 45.2981, -145.118, -70.7802, 74.5072
6.41519, 56, -16.0339, -30.3455, 45.0926, -145.324, -70.8939, 75.1279
6.42335, 56, -15.8202, -30.0834, 44.882, -145.533, -71.0159, 75.7491
6.43142, 57, -15.6065, -29.8117, 44.6658, -145.744, -71.1468, 76.3703
6.43929, 57, -15.3918, -29.5306, 44.4427, -145.958, -71.2863, 76.9906
6.44864, 57, -15.0684, -29.091, 44.0981, -146.281, -71.5124, 77.9208
6.45519, 57, -14.9604, -28.9396, 43.9803, -146.39, -71.5922, 78.2307
6.46325, 57, -14.7447, -28.6302, 43.7402, -146.608, -71.7587, 78.8488
6.47327, 58, -14.4214, -28.1488, 43.3711, -146.937, -72.0256, 79.7745
6.48191, 58, -14.2066, -27.8169, 43.1181, -147.157, -72.2146, 80.3902
6.48727, 58, -14.0996, -27.6473, 42.9897, -147.267, -72.3127, 80.6971
6.49758, 58, -13.8862, -27.3021, 42.5975, -147.597, -72.6203, 81.6136
6.50335, 58, -13.6738, -26.9491, 42.4642, -147.707, -72.7273, 81.9182
6.51312, 59, -13.3562, -26.4054, 42.0583, -148.036, -73.0612, 82.827
6.51996, 59, -13.251, -26.2201, 41.9206, -148.145, -73.1768, 83.1278
6.5272, 59, -13.0419, -25.8438, 41.6424, -148.362, -73.4143, 83.7264
6.5353, 59, -12.8345, -25.4601, 41.3609, -148.577, -73.6598, 84.3212
6.54658, 59, -12.5258, -24.8718, 40.9325, -148.895, -74.0429, 85.2045
6.55407, 59, -12.4235, -24.6718, 40.7882, -149.001, -74.1747, 85.7862
6.55916, 60, -12.22, -24.267, 40.4966, -149.209, -74.444, 86.0754
6.5672, 60, -12.018, -23.8554, 40.2023, -149.414, -74.721, 86.6501
6.57534, 60, -11.8177, -23.4379, 39.9051, -149.617, -75.0056, 87.2198
6.58573, 60, -11.5202, -22.7999, 39.455, -149.915, -75.4468, 88.063
6.59223, 60, -11.4222, -22.5845, 39.3037, -150.013, -75.5974, 88.3414
6.60018, 61, -11.2279, -22.1506, 38.9997, -150.206, -75.9039, 88.894
6.60718, 61, -11.0358, -21.712, 38.694, -150.395, -76.217, 89.4399
6.61519, 61, -10.8456, -21.2691, 38.3863, -150.579, -76.5363, 89.9783
6.62343, 61, -10.6575, -20.822, 38.0777, -150.76, -76.8618, 90.5092
6.63228, 61, -10.4716, -20.3708, 37.768, -150.936, -77.1929, 91.0327
6.64023, 62, -10.2883, -19.9158, 37.4582, -151.107, -77.5291, 91.5479
6.6482, 62, -10.1079, -19.4575, 37.148, -151.273, -77.8703, 92.0547
6.65519, 62, -9.93028, -18.9963, 36.8382, -151.435, -78.2158, 92.5525
6.6632, 62, -9.75539, -18.5321, 36.5281, -151.591, -78.5655, 93.0421
6.67161, 62, -9.58305, -18.0657, 36.2188, -151.742, -78.9193, 93.5225
6.68027, 63, -9.41295, -17.5979, 35.91, -151.889, -79.2768, 93.994
6.68733, 63, -9.2451, -17.1287, 35.6025, -152.029, -79.6379, 94.455
6.69732, 63, -9.07966, -16.6591, 35.296, -152.165, -80.0022, 94.9062
6.70389, 63, -8.91687, -16.1892, 34.9906, -152.295, -80.3696, 95.3474
6.71127, 63, -8.75677, -15.7187, 34.6865, -152.419, -80.7394, 95.7779
6.71925, 64, -8.59932, -15.2483, 34.3843, -152.537, -81.1112, 96.1978
6.7282, 64, -8.44469, -14.7785, 34.085, -152.65, -81.4846, 96.6059
6.73529, 64, -8.29277, -14.3093, 33.7875, -152.757, -81.8593, 97.0023
6.74365, 64, -8.1435, -13.8409, 33.4929, -152.859, -82.2352, 97.3874
6.75238, 64, -7.99685, -13.3736, 33.2005, -152.955, -82.6119, 97.7601
6.76014, 65, -7.8529, -12.9077, 32.9115, -153.045, -82.9893, 98.1203
6.76802, 65, -7.71161, -12.4442, 32.6252, -153.129, -83.3667, 98.4681
6.77626, 65, -7.57303, -11.983, 32.3423, -153.207, -83.7443, 98.8023
6.78409, 65, -7.43735, -11.5246, 32.0635, -153.28, -84.1214, 99.1226
6.7914, 65, -7.30425, -11.0683, 31.7875, -153.347, -84.4982, 99.4295
6.79993, 65, -7.17395, -10.6147, 31.5158, -153.408, -84.8741, 99.7222
6.80859, 66, -7.04602, -10.1645, 31.2474, -153.464, -85.2488, 100.001
6.8155, 66, -6.92044, -9.71682, 30.983, -153.514, -85.6227, 100.264
6.82405, 66, -6.79726, -9.27266, 30.7231, -153.559, -85.9953, 100.512
6.83238, 66, -6.67642, -8.83256, 30.4667, -153.598, -86.3666, 100.745
6.8397, 66, -6.55792, -8.39612, 30.2147, -153.632, -86.7362, 100.962
6.84898, 67, -6.44187, -7.96393, 29.9667, -153.661, -87.1042, 101.163
6.85602, 67, -6.32831, -7.53602, 29.7229, -153.684, -87.4706, 101.347
6.86379, 67, -6.21717, -7.11314, 29.4843, -153.702, -87.8348, 101.515
6.87507, 67, -6.10806, -6.69421, 29.2499, -153.715, -88.197, 101.665
6.88001, 67, -6.05437, -6.48668, 29.1342, -153.722, -88.5566, 101.798
6.88715, 68, -5.94853, -6.07496, 28.9068, -153.725, -88.7355, 101.858
6.89632, 68, -5.79361, -5.46628, 28.5742, -153.726, -89.2687, 102.01
6.90324, 68, -5.74291, -5.26561, 28.4654, -153.724, -89.4451, 102.052
6.91263, 68, -5.5937, -4.67102, 28.1459, -153.71, -89.9713, 102.148
6.92035, 68, -5.49658, -4.28128, 27.9381, -153.695, -90.3191, 102.189
6.92731, 69, -5.44872, -4.08833, 27.8357, -153.686, -90.4921, 102.202
6.93515, 69, -5.35441, -3.70608, 27.635, -153.665, -90.8369, 102.215
6.94465, 69, -5.21617, -3.14271, 27.3434, -153.623, -91.3495, 102.2
6.95262, 69, -5.12623, -2.77392, 27.1538, -153.59, -91.6882, 102.163
6.96057, 69, -5.08183, -2.59135, 27.0606, -153.553, -92.024, 102.106
6.96714, 70, -4.99425, -2.22951, 26.878, -153.534, -92.191, 102.069
6.97782, 70, -4.86537, -1.69695, 26.6118, -153.468, -92.6881, 101.928
6.98473, 70, -4.781, -1.3491, 26.4392, -153.42, -93.0165, 101.806
6.99306, 70, -4.69774, -1.00642, 26.2714, -153.37, -93.3424, 101.663
6.99919, 70, -4.65649, -0.83694, 26.1891, -153.343, -93.5045, 101.583
7.00894, 71, -4.57472, -0.337651, 25.9474, -153.258, -93.9871, 101.312
7.01517, 71, -4.49418, -0.173959, 25.8687, -153.229, -94.1469, 101.211
7.02418, 71, -4.41465, 0.148612, 25.7147, -153.167, -94.4647, 100.992
7.03216, 71, -4.33598, 0.465538, 25.5655, -153.104, -94.7798, 100.751
7.03933, 71, -4.25807, 0.777313, 25.4203, -153.038, -95.0926, 100.489
7.04717, 71, -4.18091, 1.08273, 25.2791, -152.971, -95.4025, 100.206
7.05811, 72, -4.10426, 1.38231, 25.142, -152.865, -95.8619, 99.7415
7.06313, 72, -4.02778, 1.67505, 25.0087, -152.83, -96.0136, 99.5759
7.07118, 72, -3.95156, 1.96145, 24.8792, -152.758, -96.3146, 99.2292
7.07941, 72, -3.87544, 2.24162, 24.7533, -152.685, -96.6124, 98.8618
7.0882, 72, -3.79936, 2.51441, 24.631, -152.612, -96.907, 98.4734
7.09519, 73, -3.72338, 2.78056, 24.5124, -152.538, -97.1983, 98.0647
7.10318, 73, -3.6472, 3.03975, 24.3976, -152.464, -97.4862, 97.636
7.11124, 73, -3.57079, 3.29157, 24.2866, -152.391, -97.7705, 97.1875
7.11918, 73, -3.49405, 3.53699, 24.1795, -152.318, -98.0509, 96.721
7.12732, 73, -3.41708, 3.77543, 24.0765, -152.247, -98.327, 96.2361
7.13543, 74, -3.33951, 4.00535, 23.9774, -152.176, -98.5984, 95.7338
7.14517, 74, -3.26131, 4.22713, 23.8818, -152.107, -98.8645, 95.2148
7.1522, 74, -3.18241, 4.44057, 23.79, -152.039, -99.1248, 94.6806
7.15922, 74, -3.10275, 4.64436, 23.702, -151.973, -99.3792, 94.1324
7.16718, 74, -3.0222, 4.83873, 23.618, -151.91, -99.6272, 93.5694
7.17617, 75, -2.94072, 5.02427, 23.5381, -151.849, -99.8681, 92.9934
7.18689, 75, -2.81675, 5.28423, 23.4258, -151.763, -100.216, 92.1068
7.19216, 75, -2.77493, 5.3656, 23.3903, -151.736, -100.328, 91.8055
7.20255, 75, -2.69069, 5.59422, 23.2904, -151.66, -100.652, 90.8867
7.20832, 75, -2.60563, 5.6651, 23.2592, -151.636, -100.756, 90.5762
7.21623, 76, -2.51955, 5.79839, 23.2003, -151.591, -100.956, 89.95
7.22327, 76, -2.43246, 5.92005, 23.146, -151.55, -101.146, 89.3176
7.23127, 76, -2.34447, 6.02964, 23.0964, -151.513, -101.326, 88.6796
7.23934, 76, -2.25558, 6.12685, 23.0512, -151.479, -101.494, 88.0378
7.24727, 76, -2.16582, 6.2113, 23.0109, -151.449, -101.65, 87.3935
7.25551, 77, -2.07523, 6.28247, 22.9754, -151.424, -101.795, 86.7456
7.26416, 77, -1.98378, 6.34018, 22.9451, -151.402, -101.926, 86.0966
7.2712, 77, -1.89144, 6.3842, 22.9202, -151.385, -102.045, 85.448
7.28008, 77, -1.79835, 6.41377, 22.9009, -151.372, -102.15, 84.7992
7.28816, 77, -1.70457, 6.42917, 22.8873, -151.362, -102.242, 84.1515
7.29549, 78, -1.61004, 6.43016, 22.8795, -151.356, -102.318, 83.5075
7.30448, 78, -1.51488, 6.41617, 22.8772, -151.354, -102.379, 82.8678
7.31225, 78, -1.41907, 6.38714, 22.8807, -151.353, -102.425, 82.233
7.32032, 78, -1.32282, 6.34239, 22.8904, -151.356, -102.454, 81.6053
7.32862, 78, -1.22619, 6.28141, 22.9064, -151.363, -102.467, 80.9855
7.33713, 78, -1.1293, 6.20409, 22.9291, -151.372, -102.465, 80.3722
7.34451, 79, -1.03217, 6.11029, 22.9589, -151.385, -102.444, 79.7656
7.35176, 79, -0.934858, 6.00018, 22.9961, -151.401, -102.405, 79.1664
7.36052, 79, -0.837674, 5.87383, 23.0407, -151.42, -102.349, 78.5745
7.36775, 79, -0.789102, 5.73085, 23.0931, -151.442, -102.275, 77.9895
7.37622, 79, -0.643429, 5.57133, 23.1533, -151.467, -102.183, 77.4128
7.38601, 80, -0.594871, 5.48539, 23.2211, -151.494, -102.072, 76.8464
7.39218, 80, -0.449211, 5.2031, 23.2969, -151.522, -101.942, 76.2906
7.39921, 80, -0.400663, 5.10075, 23.3378, -151.537, -101.87, 76.0165
7.40729, 80, -0.303638, 4.88304, 23.4257, -151.567, -101.713, 75.4768
7.41619, 80, -0.206732, 4.64682, 23.5219, -151.6, -101.441, 74.6878
7.42523, 81, -0.0615386, 4.26054, 23.6822, -151.65, -101.236, 74.1758
7.43116, 81, -0.0132921, 4.12352, 23.74, -151.667, -101.127, 73.9233
7.44128, 81, 0.131158, 3.68754, 23.9272, -151.72, -100.771, 73.1807
7.44721, 81, 0.179181, 3.5342, 23.9943, -151.738, -100.643, 72.938
7.45713, 81, 0.32279, 3.04808, 24.2101, -151.794, -100.23, 72.2251
7.46902, 82, 0.466122, 2.52457, 24.4469, -151.849, -99.7748, 71.5336
7.47273, 82, 0.513767, 2.34189, 24.5304, -151.868, -99.6136, 71.3079
7.4819, 82, 0.60901, 1.96461, 24.7044, -151.905, -99.2778, 70.8638
7.48737, 82, 0.656557, 1.76959, 24.795, -151.923, -99.1031, 70.6452
7.49522, 82, 0.751604, 1.36687, 24.9835, -151.959, -98.7402, 70.2154
7.50411, 83, 0.846519, 0.947449, 25.1812, -151.995, -98.3598, 69.7953
7.5113, 83, 0.941414, 0.513057, 25.3894, -152.03, -97.9621, 69.3836
7.51968, 83, 1.03624, 0.0633181, 25.6086, -152.065, -97.5472, 68.9813
7.5272, 83, 1.13127, -0.401723, 25.8372, -152.098, -97.1157, 68.5877
7.53523, 83, 1.22643, -0.881573, 26.0757, -152.129, -96.6675, 68.2025
7.54351, 84, 1.32176, -1.3761, 26.325, -152.16, -96.2034, 67.8265
7.55337, 84, 1.46523, -2.14362, 26.7179, -152.204, -95.4774, 67.2777
7.56256, 84, 1.56109, -2.67177, 26.9931, -152.231, -94.9742, 66.922
7.56829, 84, 1.60919, -2.94069, 27.1343, -152.244, -94.7168, 66.7473
7.57757, 84, 1.75406, -3.76677, 27.5734, -152.28, -93.9233, 66.2345
7.58417, 85, 1.80263, -4.04842, 27.7246, -152.29, -93.6518, 66.0676
7.59215, 85, 1.90007, -4.62014, 28.0338, -152.311, -93.0984, 65.7408
7.60015, 85, 1.998, -5.20241, 28.3524, -152.329, -92.5315, 65.4228
7.60821, 85, 2.09659, -5.79502, 28.6794, -152.345, -91.9535, 65.1132
7.62097, 85, 2.24559, -6.70137, 29.1859, -152.364, -91.0676, 64.666
7.62411, 86, 2.29563, -7.00768, 29.3589, -152.369, -90.7672, 64.5217
7.63222, 86, 2.39614, -7.62622, 29.7109, -152.377, -90.1586, 64.2399
7.64207, 86, 2.4972, -8.56656, 30.2531, -152.383, -89.2276, 63.8361
7.64738, 86, 2.59912, -8.88338, 30.4373, -152.384, -88.9131, 63.7066
7.6562, 86, 2.70181, -9.52154, 30.8108, -152.384, -88.2801, 63.456
7.66315, 86, 2.80551, -10.1649, 31.1907, -152.381, -87.641, 63.2162
7.67131, 87, 2.91004, -10.8125, 31.5774, -152.375, -86.9948, 62.9874
7.67916, 87, 3.01515, -11.4636, 31.9695, -152.364, -86.3424, 62.7702
7.68728, 87, 3.12123, -12.1178, 32.3666, -152.35, -85.6847, 62.5651
7.69622, 87, 3.22806, -12.7742, 32.769, -152.331, -85.0232, 62.373
7.70319, 87, 3.33557, -13.4323, 33.1759, -152.309, -84.3584, 62.1937
7.71154, 88, 3.44391, -14.0914, 33.587, -152.282, -83.69, 62.0284
7.71979, 88, 3.55286, -14.751, 34.0011, -152.252, -83.0189, 61.8775
7.72889, 88, 3.66248, -15.4102, 34.4183, -152.218, -82.3454, 61.7417
7.73723, 88, 3.77271, -16.0685, 34.8385, -152.178, -81.6706, 61.6217
7.74414, 88, 3.88319, -16.7254, 35.2607, -152.134, -80.9964, 61.5177
7.75125, 89, 3.99374, -17.3796, 35.6847, -152.086, -80.3225, 61.4316
7.75917, 89, 4.10475, -18.0309, 36.1099, -152.032, -79.648, 61.3632
7.77406, 89, 4.27201, -19.0021, 36.75, -151.942, -78.635, 61.2957
7.77677, 89, 4.32792, -19.3241, 36.9635, -151.91, -78.2981, 61.2831
7.78473, 89, 4.43974, -19.9646, 37.3905, -151.84, -77.6267, 61.2716
7.79215, 90, 4.55163, -20.6006, 37.8175, -151.766, -76.9565, 61.2812
7.79938, 90, 4.66384, -21.2327, 38.2448, -151.686, -76.2865, 61.314
7.80738, 90, 4.77582, -21.8601, 38.6718, -151.6, -75.6171, 61.3699
7.81577, 90, 4.88761, -22.4827, 39.0981, -151.508, -74.9495, 61.4491
7.82498, 90, 4.99928, -23.1003, 39.5243, -151.41, -74.2847, 61.554
7.83417, 91, 5.11086, -23.7128, 39.9494, -151.306, -73.6211, 61.6844
7.83976, 91, 5.22247, -24.3197, 40.3731, -151.195, -72.9588, 61.842
7.8483, 91, 5.33385, -24.9206, 40.7956, -151.078, -72.2984, 62.0276
7.85574, 91, 5.44487, -25.5159, 41.216, -150.955, -71.6391, 62.242
7.86425, 91, 5.55548, -26.1046, 41.6346, -150.826, -70.9819, 62.4862
7.87168, 92, 5.61069, -26.3967, 41.8433, -150.691, -70.327, 62.7619
7.87991, 92, 5.77668, -27.2643, 42.4672, -150.549, -69.6731, 63.0701
7.88821, 92, 5.888, -27.8348, 42.8807, -150.401, -69.0195, 63.4109
7.89515, 92, 5.94373, -28.1177, 43.0863, -150.326, -68.6928, 63.594
7.90724, 92, 6.11151, -28.9562, 43.6998, -150.089, -67.7131, 64.197
7.91271, 93, 6.22435, -29.5066, 44.1049, -149.926, -67.062, 64.6436
7.9203, 93, 6.3383, -30.0506, 44.5058, -149.759, -66.4115, 65.1282
7.92716, 93, 6.39582, -30.3197, 44.705, -149.674, -66.0862, 65.3841
7.93648, 93, 6.57095, -31.1158, 45.2969, -149.416, -65.1102, 66.2105
7.94322, 93, 6.6302, -31.3775, 45.4922, -149.33, -64.7848, 66.5061
7.95114, 93, 6.7504, -31.8944, 45.879, -149.156, -64.1351, 67.1278
7.96076, 94, 6.93649, -32.6556, 46.4495, -148.895, -63.1614, 68.139
7.96864, 94, 7.06491, -33.1528, 46.8227, -148.723, -62.5116, 68.8691
7.97678, 94, 7.19688, -33.6387, 47.1894, -148.555, -61.8616, 69.6439
7.98555, 94, 7.33287, -34.1132, 47.5494, -148.392, -61.2114, 70.4615
7.9912, 94, 7.40268, -34.3463, 47.726, -148.314, -60.8867, 70.8884
8.00079, 95, 7.54626, -35.0268, 48.2416, -148.091, -59.9203, 72.2352
8.00891, 95, 7.69519, -35.2469, 48.408, -148.022, -59.6008, 72.7033
8.01619, 95, 7.84973, -35.6761, 48.7322, -147.895, -58.9661, 73.6718
8.02419, 95, 8.01007, -36.0897, 49.0436, -147.782, -58.3384, 74.6778
8.03219, 95, 8.17642, -36.4849, 49.3402, -147.685, -57.7191, 75.7193
8.03915, 96, 8.34908, -36.8624, 49.6221, -147.606, -57.1103, 76.7968
8.04729, 96, 8.52732, -37.2203, 49.8878, -147.547, -56.5145, 77.9076
8.05514, 96, 8.7101, -37.5563, 50.1378, -147.508, -55.9316, 79.0487
8.06315, 96, 8.89722, -37.8677, 50.3707, -147.489, -55.363, 80.2135
8.0712, 96, 9.08797, -38.154, 50.5848, -147.489, -54.8127, 81.3926
8.07917, 96, 9.28082, -38.416, 50.78, -147.511, -54.2844, 82.5814
8.08721, 97, 9.47445, -38.6534, 50.9554, -147.554, -53.7808, 83.7734
8.09515, 97, 9.66816, -38.8669, 51.11, -147.617, -53.3039, 84.9626
8.10346, 97, 9.86115, -39.0569, 51.2449, -147.699, -52.8553, 86.1385
8.11116, 97, 10.0524, -39.2214, 51.3604, -147.797, -52.4355, 87.2993
8.11919, 97, 10.2409, -39.3594, 51.4568, -147.91, -52.0445, 88.4398
8.12728, 97, 10.4262, -39.4718, 51.5347, -148.035, -51.6823, 89.5576
8.13514, 98, 10.6087, -39.5591, 51.5944, -148.171, -51.3487, 90.6471
8.14314, 98, 10.7896, -39.6227, 51.6363, -148.319, -51.0434, 91.7148
8.15202, 98, 10.9691, -39.6638, 51.6602, -148.477, -50.7643, 92.7659
8.16021, 98, 11.1471, -39.6822, 51.6668, -148.648, -50.5089, 93.8138
8.16714, 98, 11.3232, -39.6775, 51.6559, -148.832, -50.2751, 94.8668
8.17602, 98, 11.4988, -39.6493, 51.6274, -149.029, -50.0617, 95.9345
8.18422, 98, 11.6741, -39.5978, 51.581, -149.239, -49.8691, 97.0178
8.19114, 99, 11.848, -39.5235, 51.5166, -149.46, -49.6992, 98.1169
8.20016, 99, 12.0195, -39.4268, 51.434, -149.692, -49.554, 99.2234
8.20718, 99, 12.1878, -39.3082, 51.3336, -149.93, -49.4364, 100.329
8.21536, 99, 12.3518, -39.1676, 51.216, -150.172, -49.3486, 101.421
8.22547, 99, 12.5096, -39.0057, 51.0822, -150.414, -49.2904, 102.492
8.23133, 99, 12.66, -38.822, 50.9335, -150.654, -49.2622, 103.534
8.23925, 100, 12.8019, -38.614, 50.77, -150.889, -49.2634, 104.546
8.2473, 100, 12.9349, -38.3816, 50.5907, -151.119, -49.2953, 105.527
8.25521, 100, 13.0593, -38.1254, 50.3946, -151.344, -49.3569, 106.482
8.26315, 100, 13.1757, -37.8458, 50.182, -151.562, -49.4491, 107.415
8.27124, 100, 13.2844, -37.5439, 49.9506, -151.776, -49.5721, 108.328
8.27991, 100, 13.3854, -37.2173, 49.6994, -151.984, -49.7268, 109.226
8.28813, 101, 13.4793, -36.8656, 49.4293, -152.185, -49.9132, 110.109
8.29544, 101, 13.5661, -36.4873, 49.1393, -152.38, -50.1321, 110.976
8.30423, 101, 13.6456, -36.0823, 48.8302, -152.567, -50.3836, 111.829
8.31235, 101, 13.7172, -35.6511, 48.501, -152.745, -50.6682, 112.66
8.31951, 101, 13.7805, -35.1951, 48.1536, -152.913, -50.986, 113.472
8.33326, 102, 13.8583, -34.4665, 47.5993, -153.143, -51.5253, 114.643
8.33568, 102, 13.8794, -34.2112, 47.406, -153.213, -51.7215, 115.02
8.34428, 102, 13.9141, -33.6818, 47.0073, -153.342, -52.1376, 115.755
8.35167, 102, 13.939, -33.1282, 46.5932, -153.458, -52.5854, 116.46
8.36024, 102, 13.9546, -32.5527, 46.1652, -153.559, -53.0642, 117.137
8.36774, 102, 13.9619, -31.9552, 45.7229, -153.646, -53.5722, 117.788
8.37628, 103, 13.9617, -31.3369, 45.2662, -153.719, -54.108, 118.411
8.38393, 103, 13.9546, -30.6997, 44.7966, -153.778, -54.67, 119.009
8.3922, 103, 13.9411, -30.0451, 44.3145, -153.824, -55.2565, 119.582
8.39913, 103, 13.9322, -29.7119, 44.0692, -153.841, -55.5581, 119.859
8.40821, 103, 13.8973, -28.6909, 43.3206, -153.877, -56.4925, 120.651
8.41516, 103, 13.883, -28.3445, 43.0675, -153.883, -56.8124, 120.901
8.42313, 104, 13.8512, -27.6445, 42.5579, -153.888, -57.4614, 121.382
8.43239, 104, 13.7951, -26.5805, 41.7886, -153.873, -58.4571, 122.057
8.43913, 104, 13.7744, -26.2228, 41.5314, -153.864, -58.7945, 122.27
8.44846, 104, 13.7077, -25.1441, 40.7607, -153.822, -59.8191, 122.877
8.45514, 104, 13.6844, -24.7834, 40.5042, -153.804, -60.1637, 123.071
8.46463, 104, 13.6118, -23.7, 39.7364, -153.739, -61.2032, 123.629
8.47274, 104, 13.5614, -22.9766, 39.2265, -153.689, -61.9013, 123.99
8.4807, 104, 13.5101, -22.2532, 38.7181, -153.633, -62.602, 124.344
8.48877, 104, 13.4583, -21.5298, 38.2119, -153.572, -63.3046, 124.695
8.49682, 104, 13.406, -20.8064, 37.7069, -153.508, -64.0077, 125.044
8.5047, 104, 13.3797, -20.445, 37.4549, -153.474, -64.7112, 125.391
8.51212, 104, 13.3271, -19.7218, 36.9522, -153.403, -65.0636, 125.564
8.52018, 104, 13.2743, -18.9981, 36.4516, -153.328, -65.7694, 125.909
8.52812, 104, 13.2215, -18.2744, 35.9529, -153.25, -66.4759, 126.254
8.53617, 104, 13.169, -17.5506, 35.4569, -153.167, -67.1834, 126.598
8.54412, 104, 13.1168, -16.8261, 34.963, -153.081, -67.8907, 126.941
8.55126, 104, 13.0649, -16.1017, 34.4709, -152.99, -68.5979, 127.284
8.55913, 104, 13.0135, -15.3771, 33.9809, -152.896, -69.3072, 127.627
8.56713, 104, 12.9624, -14.6521, 33.4931, -152.797, -70.0176, 127.969
8.57528, 104, 12.9115, -13.9265, 33.0079, -152.696, -70.7278, 128.311
8.58313, 104, 12.8611, -13.2011, 32.5254, -152.59, -71.4371, 128.654
8.59113, 104, 12.8108, -12.475, 32.0455, -152.48, -72.148, 128.998
8.5992, 104, 12.7607, -11.7494, 31.5682, -152.367, -72.8601, 129.341
8.60722, 104, 12.7111, -11.0242, 31.0932, -152.249, -73.5722, 129.686
8.61516, 104, 12.6619, -10.299, 30.6209, -152.128, -74.2844, 130.031
8.6232, 104, 12.6129, -9.57318, 30.1518, -152.003, -74.9968, 130.376
8.63113, 104, 12.5645, -8.84736, 29.6856, -151.874, -75.7099, 130.723
8.63913, 104, 12.5166, -8.12092, 29.2224, -151.74, -76.4237, 131.07
8.6472, 104, 12.4692, -7.39524, 28.7628, -151.603, -77.1383, 131.419
8.65514, 104, 12.4225, -6.66995, 28.3064, -151.461, -77.8535, 131.769
8.66316, 104, 12.3766, -5.94508, 27.8531, -151.316, -78.5672, 132.12
8.67123, 104, 12.3309, -5.22072, 27.4036, -151.166, -79.2808, 132.472
8.67913, 104, 12.286, -4.49746, 26.9582, -151.012, -79.9955, 132.826
8.68713, 104, 12.2423, -3.77611, 26.5172, -150.854, -80.7101, 133.181
8.69548, 104, 12.1995, -3.05899, 26.0818, -150.692, -81.4216, 133.536
8.70313, 104, 12.1579, -2.34767, 25.6517, -150.527, -82.1291, 133.892
8.71116, 104, 12.1176, -1.64282, 25.2281, -150.358, -82.8335, 134.247
8.71934, 104, 12.0782, -0.946041, 24.813, -150.187, -83.5319, 134.6
8.7275, 104, 12.0398, -0.258886, 24.4066, -150.013, -84.2211, 134.951
8.73524, 104, 12.0024, 0.417888, 24.0106, -149.838, -84.8987, 135.299
8.74329, 104, 11.9659, 1.0829, 23.6265, -149.662, -85.5625, 135.642
8.75123, 104, 11.9307, 1.73495, 23.2548, -149.486, -86.2124, 135.98
8.75955, 104, 11.8968, 2.3731, 22.8958, -149.311, -86.8476, 136.311
8.76725, 104, 11.8639, 2.99501, 22.5487, -149.135, -87.4668, 136.636
8.77517, 104, 11.8322, 3.60093, 22.2148, -148.961, -88.0699, 136.955
8.78328, 104, 11.8019, 4.19018, 21.8937, -148.789, -88.6561, 137.266
8.79126, 104, 11.7728, 4.76265, 21.5851, -148.617, -89.2244, 137.571
8.79924, 104, 11.7451, 5.31831, 21.2883, -148.447, -89.7767, 137.869
8.80741, 104, 11.7187, 5.85679, 21.0032, -148.279, -90.3134, 138.16
8.81544, 104, 11.6933, 6.3786, 20.7302, -148.113, -90.8338, 138.444
8.82346, 104, 11.6691, 6.88345, 20.4685, -147.949, -91.3377, 138.721
8.83177, 104, 11.646, 7.37119, 20.2187, -147.788, -91.8244, 138.989
8.84039, 104, 11.6241, 7.84254, 19.9799, -147.63, -92.294, 139.251
8.84765, 104, 11.6033, 8.29722, 19.7517, -147.475, -92.7471, 139.505
8.85641, 104, 11.5837, 8.73513, 19.5348, -147.323, -93.1837, 139.751
8.86367, 104, 11.5652, 9.15516, 19.3285, -147.175, -93.6037, 139.988
8.87231, 104, 11.5478, 9.55844, 19.1321, -147.031, -94.0066, 140.218
8.8805, 104, 11.5395, 9.94351, 18.9465, -146.891, -94.3925, 140.438
8.88789, 104, 11.5238, 10.1293, 18.7716, -146.756, -94.7602, 140.65
8.8971, 104, 11.5021, 10.6577, 18.6069, -146.626, -95.1095, 140.852
8.90316, 104, 11.4954, 10.8243, 18.5284, -146.563, -95.2769, 140.949
8.91223, 104, 11.4768, 11.2944, 18.3098, -146.383, -95.7494, 141.225
8.91913, 104, 11.4711, 11.4408, 18.2422, -146.327, -95.8967, 141.311
8.92855, 104, 11.4557, 11.849, 18.0554, -146.168, -96.3068, 141.552
8.93514, 104, 11.451, 11.9743, 17.9984, -146.119, -96.4328, 141.626
8.94494, 104, 11.4381, 12.3186, 17.8434, -145.983, -96.7782, 141.831
8.95251, 104, 11.4304, 12.5223, 17.7531, -145.902, -96.9807, 141.952
8.95912, 104, 11.4268, 12.616, 17.7119, -145.865, -97.0738, 142.007
8.96899, 104, 11.4174, 12.8655, 17.6034, -145.766, -97.32, 142.154
8.97685, 104, 11.4119, 13.0065, 17.5434, -145.711, -97.4568, 142.236
8.98468, 104, 11.4069, 13.1284, 17.4928, -145.664, -97.5724, 142.305
8.99273, 104, 11.4023, 13.2317, 17.4514, -145.626, -97.6673, 142.361
9.00076, 104, 11.3981, 13.3176, 17.4179, -145.595, -97.7436, 142.407
9.00876, 104, 11.3962, 13.388, 17.3919, -145.57, -97.8022, 142.443
9.01672, 104, 11.3925, 13.4181, 17.3816, -145.56, -97.8454, 142.469
9.02415, 104, 11.3892, 13.4687, 17.3652, -145.545, -97.8623, 142.479
9.03217, 104, 11.3865, 13.508, 17.3537, -145.534, -97.8882, 142.495
9.04015, 104, 11.3843, 13.5372, 17.3462, -145.527, -97.9056, 142.504
9.04811, 104, 11.3825, 13.5591, 17.3416, -145.522, -97.9163, 142.51
9.05622, 104, 11.3811, 13.5747, 17.3389, -145.52, -97.9222, 142.513
9.06411, 104, 11.38, 13.5852, 17.3374, -145.519, -97.9253, 142.515
9.07113, 105, 11.3793, 13.5923, 17.3368, -145.518, -97.9268, 142.515
9.07911, 105, 11.3787, 13.5969, 17.3364, -145.518, -97.9274, 142.516
9.08713, 105, 11.3783, 13.6, 17.3363, -145.518, -97.9277, 142.516
9.09518, 105, 11.378, 13.6023, 17.3362, -145.518, -97.9279, 142.516
9.10311, 105, 11.3777, 13.6042, 17.3362, -145.518, -97.9279, 142.516
9.11113, 105, 11.3776, 13.6059, 17.3362, -145.518, -97.9279, 142.516
9.11918, 105, 11.3774, 13.6073, 17.3362, -145.518, -97.9278, 142.516
9.12711, 105, 11.3773, 13.6086, 17.3362, -145.518, -97.9277, 142.516
9.13514, 105, 11.3772, 13.6096, 17.3362, -145.518, -97.9276, 142.516
9.14316, 105, 11.3771, 13.6105, 17.3363, -145.518, -97.9274, 142.516
9.15111, 105, 11.3771, 13.6113, 17.3363, -145.518, -97.9272, 142.516
9.15913, 105, 11.3771, 13.6118, 17.3363, -145.518, -97.9271, 142.516
9.16716, 105, 11.3771, 13.6122, 17.3364, -145.518, -97.9269, 142.516
9.17512, 105, 11.3771, 13.6124, 17.3365, -145.518, -97.9268, 142.516
9.18312, 105, 11.3771, 13.6125, 17.3366, -145.518, -97.9266, 142.516
9.19128, 105, 11.3771, 13.6125, 17.3366, -145.518, -97.9265, 142.516
