hehonglu123/Motion-Primitive-Planning/ILC/recorded_data/realrobot/wood/iteration_0/run_0.csv
timestamp, cmd_num, J1, J2, J3, J4, J5, J6
0.000407, -1, 39.6311, 32.4445, 11.8317, 12.5471, 113.714, -48.8707
0.003679, -1, 39.6311, 32.4445, 11.8317, 12.5471, 113.714, -48.8707
0.007996, -1, 39.6311, 32.4445, 11.8317, 12.547, 113.714, -48.8708
0.026478, -1, 39.6312, 32.4445, 11.8317, 12.5471, 113.714, -48.8707
0.029275, -1, 39.6311, 32.4445, 11.8317, 12.547, 113.714, -48.8707
0.032626, -1, 39.6311, 32.4445, 11.8317, 12.5471, 113.714, -48.8707
0.04048, -1, 39.6311, 32.4445, 11.8317, 12.5471, 113.714, -48.8708
0.180481, -1, 39.0403, 32.201, 11.8961, 11.1961, 112.007, -48.0132
0.181848, -1, 39.0006, 32.1842, 11.9006, 11.1045, 112.007, -48.0132
0.183038, -1, 39.0006, 32.1842, 11.9006, 11.1045, 112.007, -48.0132
0.185081, -1, 38.9604, 32.1672, 11.9051, 11.0128, 111.898, -47.958
0.18656, -1, 38.9604, 32.1672, 11.9051, 11.0128, 111.898, -47.958
0.187763, -1, 38.9604, 32.1672, 11.9051, 11.0128, 111.898, -47.958
0.189811, -1, 38.92, 32.1502, 11.9094, 10.921, 111.788, -47.9027
0.195737, -1, 38.8793, 32.133, 11.9139, 10.8292, 111.679, -47.8477
0.197838, -1, 38.8385, 32.1159, 11.9184, 10.7375, 111.569, -47.7926
0.199114, -1, 38.8385, 32.1159, 11.9184, 10.7375, 111.569, -47.7926
0.201098, -1, 38.7976, 32.0987, 11.9229, 10.6457, 111.46, -47.7374
0.202486, -1, 38.7976, 32.0987, 11.9229, 10.6457, 111.46, -47.7374
0.203677, -1, 38.7976, 32.0987, 11.9229, 10.6457, 111.46, -47.7374
0.205702, -1, 38.7565, 32.0816, 11.9274, 10.554, 111.351, -47.6825
0.206917, -1, 38.7565, 32.0816, 11.9274, 10.554, 111.351, -47.6825
0.208956, -1, 38.7154, 32.0645, 11.9319, 10.4624, 111.241, -47.6276
0.210321, -1, 38.7154, 32.0645, 11.9319, 10.4624, 111.241, -47.6276
0.211784, -1, 38.7154, 32.0645, 11.9319, 10.4624, 111.241, -47.6276
0.213895, -1, 38.6743, 32.0474, 11.9363, 10.3707, 111.132, -47.5727
0.215105, -1, 38.6743, 32.0474, 11.9363, 10.3707, 111.132, -47.5727
0.217975, -1, 38.6332, 32.0303, 11.9408, 10.2791, 111.023, -47.5179
0.220018, -1, 38.6332, 32.0303, 11.9408, 10.2791, 111.023, -47.5179
0.225668, -1, 38.5513, 31.9964, 11.9498, 10.0963, 110.805, -47.4085
0.231685, -1, 38.5103, 31.9795, 11.9542, 10.0049, 110.696, -47.3537
0.23966, -1, 38.4287, 31.946, 11.9632, 9.82236, 110.478, -47.2443
0.246659, -1, 38.3473, 31.9127, 11.9723, 9.64021, 110.261, -47.1349
0.255664, -1, 38.2663, 31.8796, 11.9815, 9.45822, 110.044, -47.0256
0.263659, -1, 38.1856, 31.8467, 11.9908, 9.27658, 109.827, -46.9167
0.270655, -1, 38.1054, 31.8139, 11.9999, 9.09524, 109.611, -46.808
0.279662, -1, 38.0255, 31.781, 12.0091, 8.91425, 109.396, -46.6994
0.287668, -1, 37.9462, 31.748, 12.0182, 8.73372, 109.18, -46.5911
0.296651, -1, 37.8673, 31.715, 12.0272, 8.55318, 108.965, -46.4833
0.303657, -1, 37.7887, 31.6819, 12.0362, 8.37295, 108.75, -46.3755
0.312658, -1, 37.7103, 31.6486, 12.0452, 8.19319, 108.536, -46.2678
0.319759, -1, 37.6319, 31.6152, 12.0542, 8.01368, 108.322, -46.1603
0.328683, -1, 37.5535, 31.582, 12.0632, 7.83444, 108.108, -46.0527
0.335682, -1, 37.4749, 31.5487, 12.0722, 7.6553, 107.894, -45.9454
0.343706, -1, 37.3962, 31.5155, 12.0811, 7.47651, 107.681, -45.8379
0.35166, -1, 37.3172, 31.4824, 12.0902, 7.29805, 107.468, -45.731
0.359724, -1, 37.2379, 31.4495, 12.0994, 7.11976, 107.255, -45.6241
0.367659, -1, 37.1584, 31.4168, 12.1085, 6.94178, 107.043, -45.5173
0.375695, -1, 37.079, 31.3841, 12.1177, 6.76386, 106.831, -45.4112
0.383829, -1, 36.9996, 31.3515, 12.1268, 6.58627, 106.62, -45.3049
0.391656, -1, 36.9203, 31.3192, 12.1358, 6.40891, 106.408, -45.199
0.399664, -1, 36.8412, 31.2868, 12.1448, 6.23175, 106.197, -45.093
0.407726, -1, 36.7622, 31.2544, 12.1537, 6.05494, 105.987, -44.9872
0.415656, -1, 36.6834, 31.222, 12.1627, 5.87815, 105.776, -44.8814
0.42367, -1, 36.6046, 31.1895, 12.1717, 5.70168, 105.566, -44.7754
0.431722, -1, 36.5261, 31.157, 12.1805, 5.52559, 105.356, -44.6699
0.439676, -1, 36.4478, 31.1245, 12.1894, 5.34968, 105.146, -44.5644
0.447659, -1, 36.3697, 31.0921, 12.1983, 5.17404, 104.937, -44.4591
0.455725, -1, 36.2919, 31.0597, 12.2072, 4.99852, 104.727, -44.3539
0.463661, -1, 36.2144, 31.0274, 12.2162, 4.82336, 104.518, -44.2492
0.471725, -1, 36.137, 30.9951, 12.2252, 4.64842, 104.309, -44.1446
0.479682, -1, 36.0598, 30.963, 12.2342, 4.47378, 104.101, -44.0399
0.487704, -1, 35.9827, 30.931, 12.243, 4.29918, 103.893, -43.9355
0.495761, -1, 35.9058, 30.899, 12.2518, 4.1248, 103.685, -43.8307
0.633391, -1, 34.6043, 30.3599, 12.4011, 1.18887, 100.186, -42.0731
0.634679, -1, 34.6043, 30.3599, 12.4011, 1.18887, 100.186, -42.0731
0.636743, -1, 34.5666, 30.3443, 12.4054, 1.10336, 100.084, -42.0218
0.638026, -1, 34.5666, 30.3443, 12.4054, 1.10336, 100.084, -42.0218
0.639284, -1, 34.5666, 30.3443, 12.4054, 1.10336, 100.084, -42.0218
0.641363, -1, 34.5289, 30.3287, 12.4097, 1.01788, 99.9824, -41.9706
0.642568, -1, 34.5289, 30.3287, 12.4097, 1.01788, 99.9824, -41.9706
0.645719, -1, 34.4913, 30.313, 12.4141, 0.932449, 99.8805, -41.9195
0.647029, -1, 34.4913, 30.313, 12.4141, 0.932449, 99.8805, -41.9195
0.648973, -1, 34.4536, 30.2974, 12.4184, 0.846962, 99.7785, -41.8684
0.65029, -1, 34.4536, 30.2974, 12.4184, 0.846962, 99.7785, -41.8684
0.653661, -1, 34.4536, 30.2974, 12.4184, 0.846962, 99.7785, -41.8171
0.654958, -1, 34.416, 30.2818, 12.4229, 0.761517, 99.6766, -41.8171
0.657268, -1, 34.3784, 30.2661, 12.4273, 0.676151, 99.5748, -41.7659
0.658542, -1, 34.3784, 30.2661, 12.4273, 0.676151, 99.5748, -41.7659
0.661211, -1, 34.3408, 30.2505, 12.4317, 0.590821, 99.4731, -41.7149
0.662501, -1, 34.3408, 30.2505, 12.4317, 0.590821, 99.4731, -41.7149
0.664309, -1, 34.3032, 30.2349, 12.436, 0.505575, 99.3714, -41.6638
0.665777, -1, 34.3032, 30.2349, 12.436, 0.505575, 99.3714, -41.6638
0.666982, -1, 34.3032, 30.2349, 12.436, 0.505575, 99.3714, -41.6638
0.669036, -1, 34.2656, 30.2193, 12.4405, 0.420311, 99.2698, -41.6126
0.673011, -1, 34.2656, 30.2193, 12.4405, 0.420311, 99.2698, -41.5615
0.679675, -1, 34.1902, 30.1881, 12.4493, 0.249959, 99.0667, -41.5105
0.687649, -1, 34.1149, 30.1568, 12.458, 0.079883, 98.864, -41.408
0.695696, -1, 34.0395, 30.1255, 12.4666, -0.0903829, 98.6614, -41.3062
0.703653, -1, 33.964, 30.0944, 12.4752, -0.260431, 98.459, -41.2042
0.711646, -1, 33.8885, 30.0631, 12.4838, -0.430345, 98.2567, -41.1024
0.719812, -1, 33.8131, 30.032, 12.4924, -0.600066, 98.0546, -41.001
0.726856, -1, 33.7377, 30.0008, 12.501, -0.769543, 97.8524, -40.8996
0.735697, -1, 33.6622, 29.9697, 12.5096, -0.9391, 97.6503, -40.7983
0.743648, -1, 33.5868, 29.9387, 12.5181, -1.10837, 97.4486, -40.697
0.751448, -1, 33.5116, 29.9075, 12.5266, -1.27745, 97.247, -40.596
0.758687, -1, 33.4365, 29.8764, 12.5352, -1.44642, 97.0455, -40.4946
0.767646, -1, 33.3615, 29.8454, 12.5439, -1.61518, 96.8441, -40.3935
0.775741, -1, 33.2865, 29.8145, 12.5524, -1.78378, 96.6431, -40.292
0.783645, -1, 33.2117, 29.7835, 12.5611, -1.95248, 96.4422, -40.1912
0.791645, -1, 33.137, 29.7525, 12.5696, -2.12072, 96.2414, -40.0902
0.800646, -1, 33.0625, 29.7215, 12.578, -2.28901, 96.041, -39.9893
0.807645, -1, 32.9879, 29.6906, 12.5865, -2.45706, 95.8407, -39.8886
0.81663, -1, 32.9135, 29.6596, 12.595, -2.6251, 95.6406, -39.7882
0.823729, -1, 32.8392, 29.6287, 12.6035, -2.79306, 95.4407, -39.6879
0.832677, -1, 32.7648, 29.598, 12.612, -2.96088, 95.2408, -39.5872
0.839655, -1, 32.6905, 29.5672, 12.6205, -3.1285, 95.0411, -39.4871
0.847697, -1, 32.6162, 29.5364, 12.629, -3.29605, 94.8414, -39.3863
0.855658, -1, 32.5419, 29.5057, 12.6374, -3.46357, 94.6416, -39.2861
0.863665, -1, 32.4676, 29.475, 12.6459, -3.63107, 94.4418, -39.1853
0.872066, -1, 32.3934, 29.4444, 12.6544, -3.79849, 94.2422, -39.0852
0.878826, -1, 32.3192, 29.4137, 12.663, -3.96567, 94.0426, -38.9849
0.887798, -1, 32.2452, 29.383, 12.6715, -4.1328, 93.8433, -38.8849
0.896456, -1, 32.1712, 29.3524, 12.6799, -4.29982, 93.6442, -38.785
0.903638, -1, 32.0972, 29.3217, 12.6882, -4.4668, 93.4454, -38.6854
0.911716, -1, 32.0233, 29.2911, 12.6965, -4.63361, 93.2465, -38.5857
0.92051, -1, 31.9497, 29.2604, 12.7049, -4.80024, 93.0478, -38.4861
0.92764, -1, 31.8761, 29.2299, 12.7132, -4.96673, 92.8494, -38.3867
0.935705, -1, 31.8026, 29.1993, 12.7216, -5.1332, 92.651, -38.2869
0.944643, -1, 31.7293, 29.1687, 12.73, -5.29957, 92.4528, -38.1875
0.951653, -1, 31.656, 29.1381, 12.7384, -5.46587, 92.2547, -38.0875
0.959718, -1, 31.5828, 29.1076, 12.7467, -5.63204, 92.0567, -37.9881
0.96844, -1, 31.5096, 29.0771, 12.7552, -5.79801, 91.8588, -37.8883
0.975639, -1, 31.4363, 29.0466, 12.7637, -5.96395, 91.6609, -37.7888
0.983711, -1, 31.3629, 29.0161, 12.7722, -6.12981, 91.4632, -37.6892
0.992485, -1, 31.2894, 28.9857, 12.7807, -6.29574, 91.2656, -37.5902
0.9998, -1, 31.2159, 28.9553, 12.7892, -6.46147, 91.0679, -37.4908
1.00776, -1, 31.1422, 28.9249, 12.7975, -6.6271, 90.8703, -37.3917
1.01658, -1, 31.0686, 28.8944, 12.8057, -6.79268, 90.6728, -37.2925
1.0238, -1, 30.995, 28.8642, 12.8141, -6.95833, 90.4755, -37.1933
1.03175, -1, 30.9214, 28.8339, 12.8225, -7.12389, 90.2783, -37.094
1.04048, -1, 30.8477, 28.8035, 12.8308, -7.28942, 90.081, -36.9946
1.04782, -1, 30.7742, 28.7731, 12.8391, -7.45482, 89.8839, -36.8956
1.05583, -1, 30.7009, 28.7429, 12.8474, -7.62018, 89.6869, -36.7964
1.06368, -1, 30.6275, 28.7126, 12.8556, -7.78546, 89.4901, -36.6976
1.07183, -1, 30.5544, 28.6823, 12.8639, -7.95079, 89.2932, -36.5984
1.07972, -1, 30.4813, 28.6519, 12.8723, -8.11586, 89.0964, -36.5002
1.08871, -1, 30.4083, 28.6216, 12.8808, -8.28087, 88.8997, -36.4013
1.0959, -1, 30.3353, 28.5913, 12.8892, -8.44575, 88.7032, -36.3029
1.1047, -1, 30.2624, 28.561, 12.8976, -8.61057, 88.5068, -36.2042
1.112, -1, 30.1895, 28.5307, 12.9059, -8.77555, 88.3104, -36.1056
1.1201, -1, 30.1167, 28.5004, 12.9141, -8.94021, 88.1141, -36.0067
1.12662, -1, 30.0803, 28.4854, 12.9182, -9.02252, 88.016, -35.9575
1.13475, -1, 30.0074, 28.4552, 12.9266, -9.18718, 87.8198, -35.8584
1.14423, -1, 29.8982, 28.4098, 12.939, -9.43394, 87.5255, -35.7105
1.15301, -1, 29.8253, 28.3796, 12.9473, -9.59849, 87.3294, -35.6122
1.16024, -1, 29.7522, 28.3495, 12.9555, -9.76307, 87.1331, -35.5135
1.16827, -1, 29.7157, 28.3193, 12.9637, -9.92747, 86.937, -35.4154
1.17698, -1, 29.6426, 28.3042, 12.9678, -10.0097, 86.8389, -35.3662
1.18364, -1, 29.5695, 28.274, 12.9761, -10.174, 86.6427, -35.2679
1.19168, -1, 29.4963, 28.2438, 12.9845, -10.3384, 86.4468, -35.1695
1.19965, -1, 29.4232, 28.2136, 12.9929, -10.5029, 86.2508, -35.0713
1.20669, -1, 29.3501, 28.1835, 13.0013, -10.6672, 86.055, -34.9726
1.21568, -1, 29.2771, 28.1533, 13.0096, -10.8315, 85.8593, -34.8741
1.22373, -1, 29.2042, 28.1232, 13.0177, -10.9958, 85.6635, -34.7754
1.23062, -1, 29.1314, 28.0931, 13.0259, -11.16, 85.4681, -34.677
1.23964, -1, 29.0586, 28.063, 13.0341, -11.3243, 85.2727, -34.5786
1.24763, -1, 28.9859, 28.0329, 13.0424, -11.4884, 85.0775, -34.4805
1.25568, -1, 28.9133, 28.0028, 13.0506, -11.6525, 84.8822, -34.3821
1.26523, -1, 28.8049, 27.9578, 13.063, -11.8985, 84.5891, -34.2354
1.27163, -1, 28.7688, 27.9427, 13.0671, -11.9805, 84.4914, -34.1864
1.27972, -1, 28.6968, 27.9125, 13.0753, -12.1444, 84.296, -34.0886
1.28925, -1, 28.5888, 27.8674, 13.0877, -12.3904, 84.0027, -33.9417
1.29563, -1, 28.5527, 27.8522, 13.0919, -12.4724, 83.9049, -33.8927
1.30463, -1, 28.4806, 27.8221, 13.1002, -12.6362, 83.7093, -33.7943
1.31062, -1, 28.4084, 27.7919, 13.1086, -12.8, 83.5135, -33.6964
1.31966, -1, 28.3361, 27.7618, 13.117, -12.9639, 83.318, -33.5982
1.3277, -1, 28.2636, 27.7317, 13.1252, -13.1278, 83.1225, -33.5
1.33776, -1, 28.1547, 27.6864, 13.1374, -13.3737, 82.8293, -33.3529
1.34363, -1, 28.1183, 27.6713, 13.1416, -13.4556, 82.7317, -33.3036
1.35164, -1, 28.0454, 27.6412, 13.1499, -13.6193, 82.5365, -33.2056
1.35966, -1, 27.9725, 27.6112, 13.1581, -13.7832, 82.3412, -33.1075
1.36767, -1, 27.8996, 27.5811, 13.1663, -13.9471, 82.1461, -33.0097
1.37563, -1, 27.8266, 27.551, 13.1745, -14.111, 81.951, -32.9113
1.38363, -1, 27.7537, 27.521, 13.1827, -14.2749, 81.7559, -32.8135
1.39178, -1, 27.6808, 27.491, 13.1908, -14.4388, 81.5609, -32.7149
1.39965, -1, 27.608, 27.4609, 13.199, -14.6025, 81.3659, -32.6168
1.40763, -1, 27.5351, 27.4308, 13.2074, -14.7666, 81.1708, -32.5182
1.4157, -1, 27.4625, 27.4007, 13.2157, -14.9304, 80.9755, -32.4201
1.42362, -1, 27.3899, 27.3707, 13.224, -15.0942, 80.7804, -32.3217
1.43162, -1, 27.3174, 27.3407, 13.2323, -15.258, 80.5852, -32.2236
1.4397, -1, 27.245, 27.3106, 13.2405, -15.4217, 80.3897, -32.1253
1.44763, -1, 27.1725, 27.2805, 13.2486, -15.5855, 80.1944, -32.0275
1.45564, -1, 27.1001, 27.2505, 13.2568, -15.7494, 79.999, -31.9295
1.4637, -1, 27.0276, 27.2204, 13.2651, -15.913, 79.8037, -31.8313
1.47163, -1, 26.9552, 27.1903, 13.2733, -16.0768, 79.6084, -31.7334
1.47964, -1, 26.8827, 27.1602, 13.2816, -16.2406, 79.4129, -31.6351
1.4877, -1, 26.8103, 27.1302, 13.2898, -16.4044, 79.2176, -31.537
1.49565, -1, 26.7377, 27.1, 13.2979, -16.5683, 79.0222, -31.4385
1.50373, -1, 26.665, 27.0698, 13.3061, -16.7322, 78.8268, -31.3404
1.51172, -1, 26.5921, 27.0395, 13.3145, -16.8962, 78.6315, -31.242
1.51973, -1, 26.5193, 27.0094, 13.3228, -17.0601, 78.436, -31.1441
1.52779, -1, 26.4464, 26.9792, 13.3311, -17.224, 78.2406, -31.0457
1.53573, -1, 26.3735, 26.949, 13.3394, -17.3882, 78.0453, -30.948
1.54416, -1, 26.3007, 26.9187, 13.3476, -17.5523, 77.8499, -30.8497
1.55117, -1, 26.2643, 26.9036, 13.3516, -17.6344, 77.7523, -30.8009
1.55982, -1, 26.1549, 26.8584, 13.3638, -17.8806, 77.4591, -30.6534
1.56833, -1, 26.082, 26.8282, 13.372, -18.0447, 77.2635, -30.5553
1.57597, -1, 26.0094, 26.7979, 13.3802, -18.209, 77.0677, -30.4566
1.58373, -1, 25.9367, 26.7678, 13.3885, -18.3733, 76.8719, -30.358
1.59256, -1, 25.8643, 26.7376, 13.3968, -18.5375, 76.676, -30.2594
1.59993, -1, 25.792, 26.7075, 13.405, -18.7017, 76.4801, -30.161
1.60788, -1, 25.7196, 26.6773, 13.4132, -18.866, 76.2842, -30.0626
1.61672, -1, 25.6473, 26.6472, 13.4215, -19.0302, 76.0882, -29.9641
1.62437, -1, 25.575, 26.6171, 13.43, -19.1947, 75.8922, -29.8661
1.63209, -1, 25.5026, 26.5869, 13.4384, -19.359, 75.6961, -29.7678
1.64095, -1, 25.4301, 26.5567, 13.4468, -19.5233, 75.5002, -29.6698
1.64822, -1, 25.3576, 26.5265, 13.4552, -19.6877, 75.304, -29.5713
1.65616, -1, 25.2847, 26.4963, 13.4633, -19.8523, 75.1079, -29.4734
1.66505, -1, 25.2483, 26.4662, 13.4715, -20.0169, 74.9118, -29.3745
1.67062, -1, 25.1751, 26.4511, 13.4757, -20.0993, 74.8139, -29.3253
1.67961, -1, 25.102, 26.4209, 13.484, -20.264, 74.6178, -29.2264
1.68762, -1, 25.0287, 26.3906, 13.4922, -20.4287, 74.4217, -29.1279
1.69567, -1, 24.9554, 26.3603, 13.5005, -20.5935, 74.2253, -29.0289
1.70361, -1, 24.8822, 26.33, 13.5088, -20.7584, 74.0288, -28.9303
1.71163, -1, 24.8088, 26.2996, 13.5169, -20.9234, 73.8323, -28.8311
1.71962, -1, 24.7355, 26.2693, 13.5251, -21.0885, 73.6358, -28.7326
1.72776, -1, 24.6622, 26.2389, 13.5334, -21.2537, 73.4389, -28.6337
1.73566, -1, 24.589, 26.2085, 13.5418, -21.4188, 73.242, -28.5351
1.74362, -1, 24.5158, 26.1781, 13.5502, -21.584, 73.0447, -28.436
1.75166, -1, 24.4427, 26.1477, 13.5587, -21.7494, 72.8476, -28.3372
1.75961, -1, 24.3696, 26.1173, 13.567, -21.9147, 72.6504, -28.2378
1.7677, -1, 24.2965, 26.0869, 13.5752, -22.0801, 72.4532, -28.1384
1.77561, -1, 24.2233, 26.0564, 13.5835, -22.2454, 72.256, -28.0391
1.78361, -1, 24.1502, 26.026, 13.5918, -22.411, 72.0588, -27.9399
1.7917, -1, 24.0769, 25.9956, 13.6001, -22.5766, 71.8614, -27.8406
1.79962, -1, 24.0036, 25.9652, 13.6084, -22.7422, 71.6641, -27.7412
1.8086, -1, 23.9302, 25.9347, 13.6168, -22.9079, 71.4666, -27.6421
1.8157, -1, 23.8568, 25.9044, 13.6251, -23.0736, 71.2691, -27.5427
1.82465, -1, 23.7832, 25.874, 13.6334, -23.2395, 71.0714, -27.4438
1.83161, -1, 23.7095, 25.8435, 13.6418, -23.4056, 70.8735, -27.3441
1.83969, -1, 23.6357, 25.8129, 13.6502, -23.5718, 70.6755, -27.2451
1.84762, -1, 23.5617, 25.7824, 13.6586, -23.7379, 70.4775, -27.1452
1.85561, -1, 23.4878, 25.7519, 13.667, -23.9043, 70.2793, -27.0457
1.86364, -1, 23.4138, 25.7214, 13.6754, -24.0706, 70.081, -26.9457
1.87161, -1, 23.3398, 25.6908, 13.6837, -24.2372, 69.8824, -26.8462
1.87968, -1, 23.2657, 25.6603, 13.6919, -24.4038, 69.6838, -26.7463
1.88774, -1, 23.1917, 25.6297, 13.7003, -24.5706, 69.4853, -26.6465
1.8957, -1, 23.1177, 25.5991, 13.7087, -24.7374, 69.2867, -26.5467
1.90368, -1, 23.0437, 25.5684, 13.717, -24.9043, 69.0879, -26.4468
1.91162, -1, 22.9698, 25.5378, 13.7254, -25.0713, 68.8888, -26.3473
1.91961, -1, 22.8959, 25.5072, 13.7338, -25.2385, 68.6897, -26.2471
1.92768, -1, 22.8222, 25.4765, 13.7421, -25.4056, 68.4906, -26.1472
1.93561, -1, 22.7485, 25.4457, 13.7505, -25.5729, 68.291, -26.0467
1.94362, -1, 22.6748, 25.4149, 13.7591, -25.7403, 68.0915, -25.9464
1.9517, -1, 22.6012, 25.3842, 13.7676, -25.9077, 67.8917, -25.8456
1.95971, -1, 22.5275, 25.3534, 13.7761, -26.0754, 67.6917, -25.7454
1.96761, -1, 22.4536, 25.3225, 13.7847, -26.2431, 67.4919, -25.6448
1.97569, -1, 22.3796, 25.2917, 13.7931, -26.4109, 67.2918, -25.5444
1.98438, -1, 22.3054, 25.2609, 13.8015, -26.5789, 67.0915, -25.444
1.99161, -1, 22.2311, 25.2301, 13.81, -26.747, 66.8911, -25.3437
1.99988, -1, 22.1565, 25.1991, 13.8185, -26.9153, 66.6907, -25.2433
2.00888, -1, 22.0819, 25.1683, 13.8269, -27.0837, 66.4898, -25.1425
2.0157, -1, 22.007, 25.1374, 13.8353, -27.2523, 66.2891, -25.0421
2.02401, -1, 21.9319, 25.1065, 13.8438, -27.4208, 66.088, -24.9411
2.0317, -1, 21.8568, 25.0755, 13.8522, -27.5896, 65.8869, -24.8402
2.03976, -1, 21.7816, 25.0446, 13.8606, -27.7587, 65.6855, -24.7389
2.04822, -1, 21.7064, 25.0136, 13.8692, -27.9277, 65.484, -24.6379
2.05562, -1, 21.6312, 24.9826, 13.8778, -28.0971, 65.2823, -24.5363
2.06378, -1, 21.556, 24.9515, 13.8864, -28.2664, 65.0805, -24.4349
2.07241, -1, 21.4807, 24.9204, 13.895, -28.4359, 64.8785, -24.3335
2.07975, -1, 21.4055, 24.8892, 13.9035, -28.6057, 64.6763, -24.232
2.08771, -1, 21.3303, 24.858, 13.9119, -28.7754, 64.474, -24.1307
2.09661, -1, 21.2552, 24.8268, 13.9204, -28.9453, 64.2717, -24.0289
2.10385, -1, 21.1801, 24.7956, 13.929, -29.1154, 64.0693, -23.9272
2.11193, -1, 21.1049, 24.7643, 13.9375, -29.2856, 63.8665, -23.8249
2.12083, -1, 21.0295, 24.733, 13.9461, -29.4561, 63.6636, -23.7227
2.12805, -1, 20.9541, 24.7017, 13.9547, -29.6266, 63.4604, -23.6201
2.13617, -1, 20.8785, 24.6703, 13.9633, -29.7973, 63.2571, -23.5178
2.14498, -1, 20.8029, 24.639, 13.9718, -29.9682, 63.0532, -23.4152
2.15217, -1, 20.7271, 24.6076, 13.9805, -30.1392, 62.8491, -23.3126
2.15859, -1, 20.6892, 24.5918, 13.9848, -30.2247, 62.747, -23.2612
2.16908, -1, 20.6133, 24.5447, 13.9979, -30.482, 62.4402, -23.1073
2.17624, -1, 20.5371, 24.5289, 14.0022, -30.5677, 62.2355, -23.005
2.18418, -1, 20.4607, 24.4974, 14.0108, -30.7393, 62.1331, -22.9019
2.1916, -1, 20.3843, 24.4657, 14.0194, -30.9112, 61.9282, -22.8506
2.19961, -1, 20.3078, 24.4341, 14.0279, -31.0832, 61.7232, -22.7475
2.20766, -1, 20.2313, 24.4026, 14.0366, -31.2555, 61.518, -22.6444
2.21561, -1, 20.1546, 24.3709, 14.0452, -31.4281, 61.3124, -22.5406
2.2236, -1, 20.0779, 24.3391, 14.0539, -31.6007, 61.1068, -22.4375
2.23292, -1, 19.9629, 24.2915, 14.0669, -31.86, 60.798, -22.282
2.2396, -1, 19.9246, 24.2757, 14.0712, -31.9465, 60.6949, -22.2302
2.24765, -1, 19.8479, 24.2439, 14.0799, -32.1198, 60.4888, -22.1263
2.2556, -1, 19.7713, 24.212, 14.0887, -32.2933, 60.2822, -22.0226
2.2636, -1, 19.6949, 24.1801, 14.0975, -32.4669, 60.0754, -21.9188
2.27166, -1, 19.6184, 24.1482, 14.1064, -32.6405, 59.8683, -21.8146
2.28116, -1, 19.5036, 24.1002, 14.1197, -32.9016, 59.5568, -21.6582
2.2876, -1, 19.4654, 24.0842, 14.1241, -32.9888, 59.4529, -21.6059
2.29567, -1, 19.3886, 24.0521, 14.1328, -33.1632, 59.2447, -21.5013
2.3036, -1, 19.3115, 24.0201, 14.1415, -33.3379, 59.0365, -21.3962
2.31259, -1, 19.2344, 23.988, 14.1503, -33.5127, 58.8282, -21.2916
2.31966, -1, 19.157, 23.9558, 14.159, -33.6878, 58.6195, -21.1867
2.32868, -1, 19.0793, 23.9236, 14.1678, -33.8631, 58.4106, -21.0818
2.3356, -1, 19.0013, 23.8914, 14.1766, -34.0387, 58.2013, -20.9771
2.34366, -1, 18.9232, 23.8591, 14.1853, -34.2145, 57.992, -20.872
2.35161, -1, 18.8448, 23.8268, 14.1941, -34.3904, 57.7821, -20.767
2.35959, -1, 18.7664, 23.7944, 14.2031, -34.5668, 57.5721, -20.6616
2.36761, -1, 18.6879, 23.762, 14.212, -34.7434, 57.3618, -20.5561
2.3756, -1, 18.6093, 23.7295, 14.2209, -34.9202, 57.1511, -20.4503
2.38366, -1, 18.5307, 23.6971, 14.2299, -35.0972, 56.9402, -20.3442
2.3916, -1, 18.452, 23.6646, 14.2388, -35.2744, 56.7289, -20.2381
2.3997, -1, 18.3733, 23.6321, 14.2476, -35.4521, 56.5174, -20.1317
2.40767, -1, 18.2946, 23.5994, 14.2566, -35.6299, 56.3057, -20.0252
2.4156, -1, 18.2157, 23.5668, 14.2655, -35.8079, 56.0935, -19.9184
2.4236, -1, 18.1368, 23.5341, 14.2745, -35.9862, 55.8809, -19.8119
2.43166, -1, 18.0579, 23.5014, 14.2835, -36.1645, 55.668, -19.705
2.4396, -1, 17.9789, 23.4686, 14.2925, -36.3434, 55.4548, -19.598
2.44761, -1, 17.8997, 23.4357, 14.3014, -36.5225, 55.2413, -19.4908
2.45567, -1, 17.8204, 23.4027, 14.3104, -36.7018, 55.0275, -19.3831
2.4636, -1, 17.7409, 23.3696, 14.3195, -36.8814, 54.8133, -19.2755
2.4716, -1, 17.6612, 23.3365, 14.3286, -37.0613, 54.5988, -19.1673
2.47966, -1, 17.5814, 23.3034, 14.3378, -37.2415, 54.3841, -19.0593
2.4876, -1, 17.5012, 23.2702, 14.3469, -37.4221, 54.1691, -18.9511
2.49567, -1, 17.4209, 23.2368, 14.3559, -37.6028, 53.9536, -18.8425
2.5037, -1, 17.3404, 23.2035, 14.3649, -37.7839, 53.738, -18.7344
2.51168, -1, 17.2597, 23.1702, 14.374, -37.9653, 53.5221, -18.6258
2.51975, -1, 17.1788, 23.1369, 14.3831, -38.1471, 53.3057, -18.5172
2.52769, -1, 17.0979, 23.1034, 14.3923, -38.3292, 53.0889, -18.4083
2.53576, -1, 17.0169, 23.07, 14.4015, -38.5115, 52.8717, -18.2991
2.54386, -1, 16.9359, 23.0365, 14.4106, -38.6943, 52.654, -18.1898
2.5517, -1, 16.8549, 23.0028, 14.4199, -38.8774, 52.4357, -18.0799
2.5596, -1, 16.7739, 22.9691, 14.4293, -39.0607, 52.217, -17.9702
2.56788, -1, 16.6928, 22.9355, 14.4386, -39.2445, 51.9979, -17.8602
2.57563, -1, 16.6117, 22.9018, 14.448, -39.4284, 51.7783, -17.7499
2.58376, -1, 16.5305, 22.8679, 14.4574, -39.6126, 51.5586, -17.6398
2.59202, -1, 16.4493, 22.834, 14.4666, -39.7974, 51.3383, -17.5292
2.59978, -1, 16.3678, 22.8001, 14.4759, -39.9824, 51.1178, -17.4186
2.60793, -1, 16.2862, 22.7662, 14.4853, -40.1677, 50.8969, -17.3077
2.61591, -1, 16.2042, 22.732, 14.4945, -40.3535, 50.6755, -17.1962
2.62394, -1, 16.1219, 22.6979, 14.504, -40.5394, 50.454, -17.0848
2.63067, -1, 16.0807, 22.6808, 14.5087, -40.6326, 50.3431, -17.0288
2.64046, -1, 15.9566, 22.6293, 14.5226, -40.9128, 50.0096, -16.8608
2.64813, -1, 15.8735, 22.5948, 14.5321, -41.1, 49.7866, -16.7487
2.6562, -1, 15.7901, 22.5603, 14.5415, -41.2875, 49.5631, -16.6364
2.66416, -1, 15.7065, 22.5258, 14.551, -41.4755, 49.3391, -16.5243
2.67216, -1, 15.6647, 22.5084, 14.5607, -41.664, 49.1145, -16.4117
2.6803, -1, 15.5807, 22.4736, 14.5701, -41.8529, 48.8893, -16.299
2.68759, -1, 15.4968, 22.4388, 14.5748, -41.9474, 48.7765, -16.2425
2.69559, -1, 15.4126, 22.4041, 14.5843, -42.1368, 48.5506, -16.1295
2.70364, -1, 15.3283, 22.3691, 14.5939, -42.3267, 48.3244, -16.0158
2.71159, -1, 15.2439, 22.3341, 14.6034, -42.517, 48.0977, -15.9018
2.7196, -1, 15.1594, 22.2991, 14.613, -42.7076, 47.8705, -15.7876
2.72764, -1, 15.0747, 22.264, 14.6227, -42.8987, 47.6427, -15.6731
2.73568, -1, 14.99, 22.2288, 14.6323, -43.0901, 47.4145, -15.5584
2.74362, -1, 14.9051, 22.1936, 14.6419, -43.2822, 47.1859, -15.4437
2.75159, -1, 14.82, 22.1583, 14.6517, -43.4746, 46.9566, -15.3288
2.7596, -1, 14.7347, 22.1228, 14.6615, -43.6673, 46.7269, -15.2136
2.76759, -1, 14.6492, 22.0874, 14.6713, -43.8606, 46.4967, -15.0979
2.7756, -1, 14.5634, 22.0519, 14.681, -44.0543, 46.2658, -14.9817
2.78365, -1, 14.4773, 22.0163, 14.6907, -44.2486, 46.0344, -14.8652
2.79159, -1, 14.3909, 21.9805, 14.7005, -44.4433, 45.8026, -14.7482
2.79959, -1, 14.3043, 21.9446, 14.7102, -44.6384, 45.5698, -14.6312
2.8091, -1, 14.2173, 21.9086, 14.72, -44.834, 45.3364, -14.514
2.8156, -1, 14.1301, 21.8725, 14.7299, -45.0303, 45.1024, -14.3961
2.82457, -1, 14.0426, 21.8364, 14.7397, -45.2271, 44.868, -14.2786
2.83165, -1, 13.9549, 21.8002, 14.7497, -45.4243, 44.6329, -14.1605
2.83958, -1, 13.8672, 21.7638, 14.7598, -45.6221, 44.3972, -14.0421
2.84857, -1, 13.7793, 21.7272, 14.7698, -45.8204, 44.1609, -13.9237
2.85567, -1, 13.6912, 21.6906, 14.7799, -46.0192, 43.9241, -13.8044
2.86359, -1, 13.6032, 21.654, 14.79, -46.2185, 43.6866, -13.685
2.87164, -1, 13.5151, 21.6172, 14.8, -46.4183, 43.4485, -13.5651
2.87994, -1, 13.4269, 21.5804, 14.8102, -46.6187, 43.2098, -13.4451
2.88759, -1, 13.3386, 21.5435, 14.8203, -46.8199, 42.9707, -13.3246
2.89565, -1, 13.2499, 21.5064, 14.8303, -47.0212, 42.7308, -13.2038
2.90452, -1, 13.1608, 21.4693, 14.8405, -47.2233, 42.49, -13.0829
2.91107, -1, 13.0714, 21.4322, 14.8506, -47.4259, 42.2485, -12.9614
2.91965, -1, 12.9815, 21.3949, 14.8608, -47.6292, 42.006, -12.8397
2.92839, -1, 12.8913, 21.3575, 14.8712, -47.8332, 41.7628, -12.7173
2.93559, -1, 12.8006, 21.3201, 14.8815, -48.0376, 41.5188, -12.5946
2.94365, -1, 12.7095, 21.2826, 14.8919, -48.2428, 41.274, -12.4715
2.95239, -1, 12.6179, 21.2447, 14.9022, -48.4487, 41.0286, -12.3482
2.95959, -1, 12.526, 21.2069, 14.9126, -48.6551, 40.7824, -12.2247
2.96775, -1, 12.4338, 21.1689, 14.923, -48.8623, 40.5357, -12.1008
2.97637, -1, 12.3415, 21.1308, 14.9335, -49.0701, 40.2882, -11.9768
2.98364, -1, 12.249, 21.0925, 14.944, -49.2786, 40.0399, -11.8523
2.99159, -1, 12.1562, 21.0542, 14.9545, -49.4878, 39.7911, -11.7275
3.00072, -1, 12.0631, 21.0156, 14.965, -49.6977, 39.5412, -11.6017
3.00787, -1, 11.9697, 20.9769, 14.9756, -49.9081, 39.2904, -11.4757
3.01566, -1, 11.8762, 20.9382, 14.9863, -50.1194, 39.0386, -11.3493
3.02367, -1, 11.7825, 20.8993, 14.997, -50.3314, 38.7862, -11.2221
3.0321, -1, 11.6885, 20.8602, 15.0077, -50.5439, 38.5326, -11.0949
3.03916, -1, 11.594, 20.821, 15.0183, -50.7572, 38.278, -10.9673
3.04775, -1, 11.4992, 20.7817, 15.029, -50.9713, 38.0227, -10.8393
3.05619, -1, 11.404, 20.7422, 15.0399, -51.1863, 37.7667, -10.7105
3.06359, -1, 11.3084, 20.7026, 15.0506, -51.402, 37.5096, -10.5814
3.07161, -1, 11.2123, 20.663, 15.0615, -51.6183, 37.2517, -10.4514
3.0804, -1, 11.1158, 20.6231, 15.0724, -51.8357, 36.9928, -10.3211
3.08769, -1, 11.0189, 20.5831, 15.0834, -52.0539, 36.7328, -10.1903
3.09577, -1, 10.9216, 20.543, 15.0946, -52.273, 36.472, -10.0591
3.10459, -1, 10.8241, 20.5026, 15.1058, -52.4928, 36.21, -9.92723
3.11184, -1, 10.7262, 20.4622, 15.1169, -52.7137, 35.9468, -9.79531
3.11997, -1, 10.6278, 20.4214, 15.1281, -52.9352, 35.6828, -9.66284
3.12885, -1, 10.5293, 20.3805, 15.1392, -53.1578, 35.4177, -9.52975
3.13611, -1, 10.4306, 20.3394, 15.1506, -53.3811, 35.1514, -9.39593
3.14419, -1, 10.3316, 20.2982, 15.1618, -53.6055, 34.8841, -9.26141
3.15291, -1, 10.2323, 20.2567, 15.1731, -53.8307, 34.6156, -9.12649
3.16014, -1, 10.1325, 20.2151, 15.1843, -54.0568, 34.3459, -8.99107
3.1682, -1, 10.0323, 20.1733, 15.1957, -54.284, 34.0752, -8.85493
3.17697, -1, 9.982, 20.1523, 15.2073, -54.5121, 33.8032, -8.7184
3.18414, -1, 9.88104, 20.1102, 15.2131, -54.6266, 33.6669, -8.58146
3.19217, -1, 9.77959, 20.068, 15.2247, -54.8562, 33.3931, -8.51252
3.19958, -1, 9.67747, 20.0255, 15.2362, -55.0868, 33.1182, -8.37433
3.20757, -1, 9.57479, 19.9829, 15.2478, -55.3187, 32.842, -8.23541
3.21561, -1, 9.47147, 19.9403, 15.2596, -55.5517, 32.5649, -8.09567
3.2256, -1, 9.31542, 19.8757, 15.2773, -55.9032, 32.1464, -7.88515
3.2316, -1, 9.26305, 19.8542, 15.2832, -56.0209, 32.0062, -7.81472
3.2396, -1, 9.1579, 19.8109, 15.2951, -56.2573, 31.7247, -7.67342
3.24757, -1, 9.05234, 19.7673, 15.3071, -56.4947, 31.4418, -7.53164
3.25564, -1, 8.94627, 19.7236, 15.3192, -56.7334, 31.1573, -7.38917
3.26357, -1, 8.8396, 19.6796, 15.3314, -56.9731, 30.8713, -7.2459
3.27159, -1, 8.73238, 19.6352, 15.3434, -57.2142, 30.5839, -7.10175
3.27969, -1, 8.62477, 19.5906, 15.3555, -57.4564, 30.2952, -6.95673
3.28757, -1, 8.51671, 19.5458, 15.3677, -57.7, 30.0051, -6.81098
3.29557, -1, 8.40814, 19.5006, 15.3801, -57.9448, 29.7133, -6.66447
3.30372, -1, 8.29894, 19.4553, 15.3924, -58.1911, 29.42, -6.51725
3.31157, -1, 8.18913, 19.4097, 15.4047, -58.4386, 29.1251, -6.36934
3.32056, -1, 8.07873, 19.3638, 15.4172, -58.6876, 28.8285, -6.22034
3.32764, -1, 7.96773, 19.3177, 15.43, -58.9382, 28.5303, -6.07049
3.33557, -1, 7.85609, 19.2714, 15.4429, -59.1902, 28.2303, -5.91929
3.34362, -1, 7.74379, 19.2249, 15.4556, -59.4435, 27.9282, -5.7676
3.35163, -1, 7.63084, 19.1782, 15.4684, -59.6986, 27.6242, -5.61497
3.35958, -1, 7.51748, 19.1312, 15.4814, -59.9549, 27.3186, -5.46132
3.36756, -1, 7.40359, 19.084, 15.4944, -60.213, 27.0113, -5.30724
3.37558, -1, 7.289, 19.0364, 15.5074, -60.4727, 26.7021, -5.15183
3.38358, -1, 7.17377, 18.9886, 15.5204, -60.7339, 26.3909, -4.9954
3.39164, -1, 7.0577, 18.9404, 15.5337, -60.9967, 26.0777, -4.83751
3.39958, -1, 6.94073, 18.8918, 15.5472, -61.2614, 25.7624, -4.67883
3.40758, -1, 6.82292, 18.8429, 15.5607, -61.5277, 25.445, -4.51932
3.41564, -1, 6.70426, 18.7935, 15.5741, -61.7959, 25.1253, -4.3585
3.42356, -1, 6.58453, 18.7438, 15.5876, -62.0661, 24.8034, -4.19679
3.43158, -1, 6.46385, 18.6937, 15.6014, -62.3383, 24.4791, -4.0339
3.43964, -1, 6.34214, 18.6432, 15.6151, -62.6124, 24.1526, -3.86948
3.44756, -1, 6.21946, 18.5924, 15.6288, -62.8886, 23.8236, -3.70398
3.45559, -1, 6.09586, 18.5412, 15.6428, -63.1667, 23.4922, -3.53731
3.46364, -1, 5.97133, 18.4898, 15.6572, -63.447, 23.1583, -3.36954
3.47165, -1, 5.84581, 18.4379, 15.6715, -63.7294, 22.8217, -3.20055
3.47957, -1, 5.71943, 18.3857, 15.6856, -64.014, 22.4827, -3.03045
3.48764, -1, 5.59208, 18.3332, 15.7, -64.3009, 22.141, -2.85887
3.49558, -1, 5.46361, 18.2802, 15.7146, -64.5901, 21.7965, -2.68557
3.50379, -1, 5.33412, 18.2267, 15.7292, -64.8818, 21.4493, -2.51099
3.5116, -1, 5.20355, 18.1727, 15.7438, -65.176, 21.0984, -2.33478
3.51965, -1, 5.07166, 18.1183, 15.7589, -65.4729, 20.7445, -2.15717
3.52797, -1, 4.93863, 18.0632, 15.7742, -65.7725, 20.3875, -1.97813
3.53568, -1, 4.80449, 18.0075, 15.7895, -66.0749, 20.0272, -1.79717
3.54368, -1, 4.6691, 17.9513, 15.8047, -66.38, 19.6638, -1.61439
3.55173, -1, 4.53252, 17.8945, 15.8203, -66.688, 19.2971, -1.42964
3.55963, -1, 4.39485, 17.8371, 15.8359, -66.9991, 18.9268, -1.24341
3.56757, -1, 4.25611, 17.7792, 15.8514, -67.3132, 18.5528, -1.05527
3.57568, -1, 4.11599, 17.7209, 15.8674, -67.6303, 18.175, -0.865661
3.58361, -1, 3.97446, 17.662, 15.8837, -67.9508, 17.7933, -0.673816
3.59165, -1, 3.83147, 17.6024, 15.9, -68.2746, 17.4071, -0.47976
3.59976, -1, 3.68695, 17.5423, 15.9165, -68.6019, 17.0169, -0.283612
3.60802, -1, 3.54069, 17.4816, 15.9333, -68.9329, 16.6226, -0.0854531
3.6146, -1, 3.4669, 17.4509, 15.9417, -69.0998, 16.4238, 0.014563
3.62393, -1, 3.24261, 17.3579, 15.967, -69.6065, 15.8207, 0.31753
3.632, -1, 3.09037, 17.2949, 15.9844, -69.9492, 15.4127, 0.5228
3.6401, -1, 2.93608, 17.2311, 16.002, -70.2962, 14.9996, 0.730754
3.64834, -1, 2.7797, 17.1664, 16.0195, -70.6473, 14.5814, 0.941082
3.65647, -1, 2.62117, 17.1008, 16.0373, -71.003, 14.1576, 1.15394
3.66411, -1, 2.46063, 17.0343, 16.0554, -71.3634, 13.728, 1.36941
3.67215, -1, 2.29794, 16.9669, 16.0735, -71.7287, 13.2926, 1.58779
3.68017, -1, 2.21567, 16.9329, 16.0828, -72.0991, 12.8514, 1.80947
3.68809, -1, 2.04928, 16.8641, 16.1017, -72.2863, 12.6285, 1.92146
3.69611, -1, 1.88062, 16.7943, 16.1208, -72.6651, 12.1777, 2.14801
3.70356, -1, 1.70955, 16.7236, 16.1401, -73.0496, 11.7203, 2.37774
3.71165, -1, 1.53604, 16.6517, 16.1598, -73.4401, 11.2555, 2.61126
3.7196, -1, 1.36023, 16.5787, 16.1796, -73.8369, 10.7833, 2.84875
3.72756, -1, 1.18178, 16.5045, 16.1998, -74.2403, 10.3023, 3.09009
3.73557, -1, 1.0006, 16.429, 16.2206, -74.6505, 9.81347, 3.33541
3.7436, -1, 0.81638, 16.3522, 16.2416, -75.0679, 9.31629, 3.58492
3.75155, -1, 0.628721, 16.274, 16.2629, -75.4927, 8.81047, 3.83918
3.75956, -1, 0.437566, 16.1943, 16.2847, -75.9255, 8.29575, 4.09845
3.7676, -1, 0.242514, 16.113, 16.3068, -76.367, 7.77063, 4.36251
3.77558, -1, 0.0434867, 16.0301, 16.3293, -76.8166, 7.23499, 4.63156
3.78359, -1, -0.159994, 15.9456, 16.3523, -77.2754, 6.68821, 4.90611
3.79155, -1, -0.368265, 15.8593, 16.3757, -77.7436, 6.13047, 5.18668
3.7996, -1, -0.581991, 15.771, 16.3997, -78.2217, 5.56202, 5.4729
3.80767, -1, -0.800966, 15.6808, 16.4242, -78.7102, 4.98091, 5.76501
3.81556, -1, -1.02516, 15.5885, 16.4492, -79.2101, 4.38545, 6.06412
3.8236, -1, -1.2549, 15.4941, 16.4748, -79.7221, 3.77605, 6.37027
3.83158, -1, -1.49022, 15.3973, 16.501, -80.2463, 3.15152, 6.68372
3.83956, -1, -1.73069, 15.2982, 16.5279, -80.7837, 2.51151, 7.00518
3.8476, -1, -1.97546, 15.1964, 16.5556, -81.3352, 1.85585, 7.33525
3.85559, -1, -2.22467, 15.092, 16.5839, -81.9007, 1.18272, 7.67367
3.86355, -1, -2.47939, 14.985, 16.6132, -82.481, 0.491608, 8.02069
3.87211, -1, -2.74037, 14.8752, 16.6434, -83.0774, -0.218597, 8.37757
3.87955, -1, -3.00731, 14.763, 16.6743, -83.6893, -0.947504, 8.74379
3.88759, -1, -3.28005, 14.6481, 16.706, -84.3166, -1.69364, 9.11903
3.89636, -1, -3.55929, 14.5305, 16.7388, -84.9595, -2.45845, 9.50391
3.90356, -1, -3.84548, 14.4106, 16.7726, -85.616, -3.24139, 9.89699
3.91163, -1, -4.13909, 14.2882, 16.8069, -86.2863, -4.04077, 10.2977
3.92035, -1, -4.43951, 14.1639, 16.8419, -86.9694, -4.8528, 10.7062
3.92755, -1, -4.7442, 14.0381, 16.8775, -87.6627, -5.67784, 11.121
3.93562, -1, -5.0504, 13.9109, 16.9137, -88.3648, -6.51491, 11.5413
3.94432, -1, -5.3571, 13.7828, 16.9504, -89.0725, -7.35946, 11.9654
3.95156, -1, -5.66457, 13.6539, 16.9874, -89.7841, -8.20741, 12.3912
3.95962, -1, -5.97239, 13.5248, 17.0242, -90.4977, -9.05627, 12.8181
3.9682, -1, -6.27987, 13.3963, 17.0608, -91.2087, -9.90401, 13.2441
3.97564, -1, -6.5857, 13.2687, 17.0972, -91.9147, -10.7469, 13.667
3.98362, -1, -6.88917, 13.1421, 17.1331, -92.6125, -11.5801, 14.0859
3.99275, -1, -7.19046, 13.0169, 17.1682, -93.3009, -12.3999, 14.4984
3.99955, -1, -7.4892, 12.8935, 17.2027, -93.9787, -13.2071, 14.9039
4.00765, -1, -7.7836, 12.7722, 17.2364, -94.643, -14.0008, 15.3021
4.01561, -1, -8.07224, 12.6534, 17.2691, -95.2935, -14.7776, 15.692
4.02364, -1, -8.354, 12.5372, 17.3012, -95.929, -15.5345, 16.0733
4.03169, -1, -8.62879, 12.4236, 17.3326, -96.5492, -16.274, 16.4456
4.03964, -1, -8.89678, 12.3128, 17.363, -97.1547, -16.997, 16.8081
4.04765, -1, -9.15796, 12.2046, 17.3925, -97.7443, -17.7016, 17.1617
4.05573, -1, -9.41198, 12.0991, 17.4213, -98.3186, -18.3869, 17.5063
4.06361, -1, -9.65873, 11.9965, 17.4494, -98.8777, -19.0528, 17.8417
4.07156, -1, -9.89947, 11.8965, 17.4765, -99.4215, -19.7016, 18.168
4.07967, -1, -10.1357, 11.7991, 17.5029, -99.9514, -20.3345, 18.4864
4.08759, -1, -10.3675, 11.704, 17.5287, -100.468, -20.9511, 18.7962
4.09563, -1, -10.5941, 11.6111, 17.5539, -100.972, -21.5528, 19.098
4.10383, -1, -10.8148, 11.5204, 17.5782, -101.464, -22.1399, 19.3928
4.11179, -1, -11.0303, 11.4318, 17.6022, -101.945, -22.7129, 19.6809
4.11982, -1, -11.2405, 11.345, 17.6256, -102.414, -23.2727, 19.9624
4.128, -1, -11.4457, 11.2601, 17.6485, -102.874, -23.8206, 20.2376
4.13597, -1, -11.6464, 11.1771, 17.671, -103.323, -24.3577, 20.5073
4.14407, -1, -11.8429, 11.0957, 17.6927, -103.764, -24.8846, 20.7716
4.1524, -1, -12.0354, 11.0159, 17.7142, -104.197, -25.4002, 21.0304
4.1618, -1, -12.2241, 10.9376, 17.7353, -104.62, -25.9051, 21.2841
4.16817, -1, -12.4094, 10.8609, 17.7561, -105.036, -26.4008, 21.5332
4.17616, -1, -12.5008, 10.7856, 17.7766, -105.445, -26.888, 21.7782
4.18415, -1, -12.6816, 10.7484, 17.7867, -105.646, -27.3666, 22.0187
4.19255, -1, -12.9475, 10.6389, 17.8164, -106.24, -27.8375, 22.2551
4.19956, -1, -13.0348, 10.6031, 17.8261, -106.435, -28.07, 22.3717
4.20754, -1, -13.2074, 10.5322, 17.8452, -106.819, -28.529, 22.602
4.21658, -1, -13.4612, 10.428, 17.8735, -107.385, -29.2032, 22.9413
4.22358, -1, -13.5444, 10.3938, 17.8828, -107.571, -29.4245, 23.0526
4.23154, -1, -13.7085, 10.3262, 17.901, -107.937, -29.8621, 23.2725
4.2396, -1, -13.8701, 10.2596, 17.9191, -108.299, -30.2932, 23.4891
4.24755, -1, -14.0287, 10.1939, 17.9371, -108.655, -30.7182, 23.7022
4.25556, -1, -14.1847, 10.1292, 17.9545, -109.006, -31.1368, 23.9127
4.26359, -1, -14.3385, 10.0653, 17.9717, -109.353, -31.5503, 24.1202
4.27154, -1, -14.4901, 10.0023, 17.989, -109.695, -31.9581, 24.325
4.27954, -1, -14.6396, 9.9402, 18.006, -110.032, -32.3606, 24.527
4.28769, -1, -14.7871, 9.87881, 18.0225, -110.365, -32.758, 24.7263
4.29556, -1, -14.9327, 9.81826, 18.0389, -110.694, -33.1505, 24.9232
4.30354, -1, -15.0767, 9.75838, 18.0553, -111.02, -33.5381, 25.1182
4.31319, -1, -15.2194, 9.69923, 18.0791, -111.5, -34.1112, 25.4064
4.31954, -1, -15.3607, 9.64069, 18.087, -111.659, -34.3, 25.5013
4.32853, -1, -15.5007, 9.58298, 18.1031, -111.973, -34.6747, 25.6894
4.33659, -1, -15.6396, 9.52582, 18.1188, -112.283, -35.0454, 25.8753
4.34354, -1, -15.777, 9.46927, 18.1341, -112.591, -35.412, 26.0593
4.35164, -1, -15.9129, 9.41342, 18.1494, -112.895, -35.775, 26.2417
4.35954, -1, -16.0476, 9.35812, 18.1645, -113.196, -36.1339, 26.4222
4.36754, -1, -16.181, 9.30335, 18.1793, -113.494, -36.4891, 26.6009
4.37561, -1, -16.3131, 9.24901, 18.1939, -113.789, -36.8411, 26.7776
4.38353, -1, -16.4437, 9.19528, 18.2088, -114.081, -37.1897, 26.9526
4.39155, -1, -16.5729, 9.14187, 18.2235, -114.371, -37.5351, 27.1262
4.39959, -1, -16.7005, 9.08896, 18.2378, -114.658, -37.8775, 27.2983
4.40753, -1, -16.8266, 9.03655, 18.252, -114.943, -38.217, 27.4689
4.41554, -1, -16.9513, 8.98456, 18.2662, -115.225, -38.5534, 27.6378
4.4236, -1, -17.0744, 8.93302, 18.2801, -115.504, -38.8866, 27.8052
4.43154, -1, -17.1963, 8.88196, 18.2939, -115.782, -39.2171, 27.9709
4.43954, -1, -17.3172, 8.83144, 18.3077, -116.056, -39.5447, 28.1352
4.4476, -1, -17.4373, 8.78133, 18.3216, -116.329, -39.8695, 28.2983
4.45553, -1, -17.5566, 8.73168, 18.3352, -116.599, -40.1918, 28.4602
4.46354, -1, -17.6752, 8.68253, 18.3485, -116.867, -40.5114, 28.6207
4.4716, -1, -17.7931, 8.63379, 18.3618, -117.133, -40.8285, 28.78
4.47966, -1, -17.9103, 8.58535, 18.375, -117.397, -41.1433, 28.9382
4.48761, -1, -18.0268, 8.53723, 18.3881, -117.659, -41.4555, 29.0948
4.49554, -1, -18.1427, 8.48952, 18.4011, -117.92, -41.7656, 29.2505
4.50354, -1, -18.2581, 8.44206, 18.414, -118.178, -42.0736, 29.405
4.51164, -1, -18.3727, 8.3948, 18.4271, -118.434, -42.3793, 29.5587
4.5196, -1, -18.4865, 8.34783, 18.4399, -118.689, -42.683, 29.7114
4.52764, -1, -18.5993, 8.30117, 18.4526, -118.942, -42.9845, 29.8628
4.5357, -1, -18.711, 8.25487, 18.465, -119.193, -43.2839, 30.0133
4.54365, -1, -18.8218, 8.20892, 18.4776, -119.442, -43.5813, 30.1624
4.55168, -1, -18.9319, 8.16322, 18.49, -119.69, -43.8766, 30.3103
4.55971, -1, -19.0411, 8.11789, 18.5023, -119.936, -44.1699, 30.4576
4.56761, -1, -19.1496, 8.07295, 18.5144, -120.181, -44.4613, 30.604
4.57561, -1, -19.2572, 8.0282, 18.5265, -120.424, -44.751, 30.7497
4.58364, -1, -19.3641, 7.98388, 18.5387, -120.665, -45.039, 30.8944
4.59162, -1, -19.4702, 7.93996, 18.5509, -120.906, -45.3255, 31.0382
4.59966, -1, -19.5756, 7.89616, 18.5629, -121.144, -45.6103, 31.1813
4.60781, -1, -19.6805, 7.85266, 18.5747, -121.382, -45.8934, 31.3231
4.61577, -1, -19.785, 7.80938, 18.5866, -121.618, -46.1749, 31.4644
4.62413, -1, -19.8889, 7.76621, 18.5984, -121.853, -46.4545, 31.6051
4.63198, -1, -19.9923, 7.7234, 18.6101, -122.086, -46.7326, 31.7452
4.63993, -1, -20.0949, 7.68074, 18.6217, -122.318, -47.0089, 31.8845
4.64818, -1, -20.1969, 7.63821, 18.6332, -122.548, -47.2839, 32.023
4.65609, -1, -20.2983, 7.59595, 18.6447, -122.778, -47.5573, 32.1605
4.66412, -1, -20.3995, 7.55392, 18.6562, -123.006, -47.8292, 32.2972
4.67234, -1, -20.5002, 7.51208, 18.6676, -123.233, -48.0998, 32.4332
4.68013, -1, -20.5504, 7.49124, 18.6789, -123.459, -48.369, 32.5683
4.68805, -1, -20.6504, 7.44979, 18.6844, -123.571, -48.6369, 32.7027
4.69692, -1, -20.7498, 7.40858, 18.6957, -123.795, -48.7706, 32.8367
4.70353, -1, -20.8487, 7.36768, 18.7069, -124.018, -49.0367, 32.9035
4.71153, -1, -20.9471, 7.32707, 18.718, -124.24, -49.3014, 33.0365
4.71953, -1, -21.0449, 7.28665, 18.729, -124.461, -49.5648, 33.1688
4.72761, -1, -21.1423, 7.24643, 18.74, -124.681, -49.8269, 33.3005
4.73554, -1, -21.2394, 7.20642, 18.7511, -124.9, -50.0876, 33.4314
4.74354, -1, -21.3362, 7.16657, 18.7622, -125.118, -50.347, 33.5616
4.75157, -1, -21.4323, 7.1269, 18.7733, -125.335, -50.6052, 33.6913
4.75952, -1, -21.528, 7.08728, 18.7842, -125.55, -50.8622, 33.8202
4.76753, -1, -21.623, 7.04781, 18.7949, -125.765, -51.1182, 33.949
4.77557, -1, -21.7177, 7.00854, 18.8056, -125.979, -51.3729, 34.0771
4.78352, -1, -21.812, 6.96942, 18.8163, -126.192, -51.6266, 34.2046
4.79152, -1, -21.9059, 6.93036, 18.8268, -126.404, -51.8792, 34.3317
4.7996, -1, -21.9995, 6.8915, 18.8374, -126.614, -52.1306, 34.4582
4.80752, -1, -22.0926, 6.85285, 18.8479, -126.824, -52.3812, 34.5839
4.81561, -1, -22.1854, 6.81437, 18.8583, -127.034, -52.6307, 34.7089
4.82554, -1, -22.324, 6.75701, 18.8741, -127.346, -53.0031, 34.8958
4.83152, -1, -22.37, 6.73799, 18.8794, -127.449, -53.1267, 34.9577
4.84052, -1, -22.4616, 6.70005, 18.8898, -127.656, -53.3731, 35.0815
4.84759, -1, -22.5529, 6.66224, 18.9001, -127.862, -53.6187, 35.2049
4.85553, -1, -22.6438, 6.62472, 18.9104, -128.067, -53.8631, 35.3276
4.86354, -1, -22.7344, 6.58738, 18.9207, -128.272, -54.1066, 35.4499
4.87152, -1, -22.8246, 6.55003, 18.9309, -128.475, -54.3491, 35.5718
4.87954, -1, -22.9142, 6.51287, 18.9411, -128.678, -54.5907, 35.6931
4.88761, -1, -23.0033, 6.47593, 18.9513, -128.88, -54.831, 35.8139
4.89553, -1, -23.092, 6.43905, 18.9614, -129.081, -55.0708, 35.9345
4.90352, -1, -23.1804, 6.4022, 18.9714, -129.282, -55.3096, 36.0545
4.9116, -1, -23.2686, 6.36559, 18.9816, -129.481, -55.5475, 36.1744
4.91952, -1, -23.3565, 6.32903, 18.9916, -129.68, -55.7848, 36.2939
4.92751, -1, -23.4442, 6.29247, 19.0016, -129.879, -56.0214, 36.4129
4.93561, -1, -23.5317, 6.25607, 19.0115, -130.076, -56.2571, 36.5315
4.94352, -1, -23.6189, 6.21992, 19.0214, -130.273, -56.4921, 36.6495
4.95152, -1, -23.7059, 6.18375, 19.0312, -130.469, -56.7262, 36.767
4.95966, -1, -23.7926, 6.14774, 19.0409, -130.665, -56.9595, 36.884
4.96752, -1, -23.879, 6.11195, 19.0506, -130.86, -57.192, 37.0005
4.97558, -1, -23.9654, 6.07629, 19.0604, -131.054, -57.4234, 37.1168
4.98369, -1, -24.0514, 6.04063, 19.0701, -131.248, -57.654, 37.2327
4.99153, -1, -24.1373, 6.00515, 19.0798, -131.441, -57.8839, 37.3482
4.99956, -1, -24.2227, 5.96981, 19.0897, -131.633, -58.113, 37.4636
5.00832, -1, -24.3077, 5.93456, 19.0994, -131.825, -58.3414, 37.5783
5.01555, -1, -24.3924, 5.89948, 19.1091, -132.016, -58.5692, 37.693
5.02366, -1, -24.4768, 5.86451, 19.1188, -132.207, -58.7964, 37.8071
5.03259, -1, -24.5609, 5.82969, 19.1283, -132.397, -59.0228, 37.9207
5.03962, -1, -24.6448, 5.79491, 19.1379, -132.587, -59.249, 38.034
5.04769, -1, -24.7284, 5.76031, 19.1475, -132.775, -59.4744, 38.1468
5.05642, -1, -24.8116, 5.72582, 19.1569, -132.964, -59.6992, 38.2596
5.06406, -1, -24.8947, 5.69143, 19.1663, -133.152, -59.9231, 38.3722
5.0717, -1, -24.9775, 5.65708, 19.1757, -133.339, -60.1465, 38.4844
5.08041, -1, -25.0601, 5.62286, 19.185, -133.525, -60.3691, 38.5965
5.08838, -1, -25.1427, 5.58865, 19.1944, -133.711, -60.5911, 38.708
5.09564, -1, -25.225, 5.55452, 19.2038, -133.897, -60.8122, 38.8192
5.10371, -1, -25.3072, 5.52052, 19.2131, -134.082, -61.0328, 38.9302
5.11255, -1, -25.3891, 5.48664, 19.2225, -134.267, -61.2528, 39.0405
5.11984, -1, -25.4708, 5.45272, 19.2318, -134.451, -61.4722, 39.1507
5.12911, -1, -25.5523, 5.41894, 19.241, -134.634, -61.6908, 39.2603
5.13663, -1, -25.6334, 5.38531, 19.2501, -134.818, -61.909, 39.3698
5.144, -1, -25.7143, 5.35174, 19.2593, -135, -62.1266, 39.4791
5.15344, -1, -25.795, 5.31828, 19.2684, -135.182, -62.3436, 39.5882
5.16081, -1, -25.8754, 5.28492, 19.2776, -135.364, -62.5603, 39.6973
5.16814, -1, -25.9555, 5.25168, 19.2868, -135.545, -62.7763, 39.8057
5.17612, -1, -26.0353, 5.2185, 19.2958, -135.726, -62.9918, 39.9139
5.18482, -1, -26.0751, 5.20191, 19.3049, -135.907, -63.2069, 40.0219
5.19215, -1, -26.1545, 5.16884, 19.314, -136.086, -63.4213, 40.1295
5.1995, -1, -26.2337, 5.13598, 19.3186, -136.176, -63.5284, 40.1833
5.20751, -1, -26.3129, 5.10315, 19.3276, -136.355, -63.7421, 40.2905
5.21557, -1, -26.3919, 5.07028, 19.3367, -136.534, -63.9552, 40.3977
5.22351, -1, -26.4709, 5.03752, 19.3457, -136.713, -64.1679, 40.5044
5.23153, -1, -26.5497, 5.00494, 19.3545, -136.89, -64.3799, 40.6113
5.23956, -1, -26.6283, 4.97245, 19.3633, -137.068, -64.5915, 40.7178
5.24751, -1, -26.7069, 4.93988, 19.3722, -137.245, -64.8026, 40.8243
5.25556, -1, -26.7853, 4.90746, 19.381, -137.421, -65.0131, 40.9302
5.2635, -1, -26.8635, 4.87511, 19.39, -137.598, -65.2231, 41.036
5.27151, -1, -26.9417, 4.84281, 19.3988, -137.773, -65.4328, 41.1415
5.2818, -1, -27.0586, 4.79441, 19.412, -138.037, -65.7464, 41.2988
5.28751, -1, -27.0974, 4.77833, 19.4165, -138.124, -65.8507, 41.3512
5.29551, -1, -27.1749, 4.7463, 19.4254, -138.299, -66.0588, 41.4556
5.30357, -1, -27.2521, 4.71423, 19.4343, -138.473, -66.2667, 41.5599
5.31151, -1, -27.329, 4.68217, 19.4433, -138.647, -66.4742, 41.6639
5.3196, -1, -27.4058, 4.65026, 19.4521, -138.821, -66.6814, 41.7679
5.3285, -1, -27.4825, 4.61844, 19.4607, -138.994, -66.8879, 41.8719
5.33551, -1, -27.559, 4.58668, 19.4693, -139.167, -67.0941, 41.9754
5.3435, -1, -27.6353, 4.55491, 19.478, -139.34, -67.2997, 42.0789
5.35158, -1, -27.7115, 4.52329, 19.4866, -139.512, -67.505, 42.182
5.35951, -1, -27.7875, 4.49168, 19.4952, -139.684, -67.7099, 42.2852
5.36751, -1, -27.8635, 4.46013, 19.5039, -139.855, -67.9144, 42.3875
5.37551, -1, -27.9393, 4.42861, 19.5124, -140.026, -68.1182, 42.4899
5.38352, -1, -28.015, 4.39725, 19.5209, -140.197, -68.3216, 42.5919
5.39158, -1, -28.0907, 4.36594, 19.5296, -140.367, -68.5246, 42.6941
5.3995, -1, -28.1662, 4.33465, 19.5382, -140.537, -68.7273, 42.7959
5.40751, -1, -28.2415, 4.30338, 19.5469, -140.707, -68.9298, 42.8977
5.41557, -1, -28.3168, 4.27223, 19.5556, -140.877, -69.1318, 42.9997
5.42351, -1, -28.3919, 4.24113, 19.5642, -141.046, -69.3334, 43.1009
5.43151, -1, -28.4667, 4.21008, 19.5725, -141.215, -69.5347, 43.2023
5.43957, -1, -28.5414, 4.17906, 19.5809, -141.383, -69.7359, 43.3031
5.4475, -1, -28.6159, 4.14816, 19.5894, -141.552, -69.9366, 43.4041
5.4555, -1, -28.6902, 4.11723, 19.5979, -141.72, -70.137, 43.5043
5.46358, -1, -28.7643, 4.08635, 19.6063, -141.888, -70.337, 43.6046
5.4715, -1, -28.8384, 4.05555, 19.6148, -142.055, -70.5367, 43.7045
5.47953, -1, -28.9123, 4.02485, 19.6231, -142.222, -70.7358, 43.8044
5.48764, -1, -28.986, 3.99418, 19.6313, -142.389, -70.9347, 43.9041
5.49553, -1, -29.0595, 3.96349, 19.6397, -142.556, -71.1331, 44.0039
5.50357, -1, -29.1329, 3.93289, 19.6482, -142.722, -71.331, 44.1036
5.51151, -1, -29.2062, 3.90243, 19.6566, -142.888, -71.5288, 44.2029
5.51961, -1, -29.2795, 3.87199, 19.6651, -143.053, -71.7262, 44.3022
5.52759, -1, -29.3528, 3.84156, 19.6735, -143.219, -71.9234, 44.401
5.5356, -1, -29.4259, 3.81119, 19.6816, -143.384, -72.1202, 44.5001
5.54369, -1, -29.4989, 3.78094, 19.6898, -143.549, -72.3165, 44.5986
5.55161, -1, -29.5719, 3.75063, 19.6981, -143.713, -72.5127, 44.6973
5.55961, -1, -29.6447, 3.72038, 19.7063, -143.877, -72.7087, 44.7954
5.56768, -1, -29.7174, 3.69019, 19.7145, -144.042, -72.9043, 44.8939
5.57551, -1, -29.7901, 3.66014, 19.7228, -144.205, -73.0996, 44.9918
5.58355, -1, -29.8627, 3.63014, 19.7309, -144.369, -73.2947, 45.0902
5.59178, -1, -29.9351, 3.60013, 19.739, -144.532, -73.4893, 45.1883
5.59953, -1, -30.0074, 3.57008, 19.7473, -144.695, -73.6837, 45.2864
5.60767, -1, -30.0795, 3.54023, 19.7556, -144.858, -73.8778, 45.3841
5.61578, -1, -30.1514, 3.51034, 19.764, -145.021, -74.0717, 45.4816
5.62376, -1, -30.2234, 3.48052, 19.7723, -145.183, -74.2653, 45.579
5.63192, -1, -30.2952, 3.45063, 19.7806, -145.346, -74.4586, 45.676
5.64003, -1, -30.3669, 3.42091, 19.7887, -145.508, -74.6517, 45.7728
5.64795, -1, -30.4386, 3.39117, 19.7967, -145.67, -74.8444, 45.8693
5.65619, -1, -30.5101, 3.3615, 19.8048, -145.831, -75.037, 45.9661
5.66407, -1, -30.5816, 3.33184, 19.813, -145.992, -75.2293, 46.0624
5.67206, -1, -30.6529, 3.30228, 19.8211, -146.153, -75.4212, 46.159
5.68014, -1, -30.7242, 3.2728, 19.8291, -146.314, -75.613, 46.255
5.68833, -1, -30.7598, 3.25807, 19.8332, -146.475, -75.8043, 46.3515
5.696, -1, -30.831, 3.22857, 19.8412, -146.555, -75.8999, 46.3994
5.70413, -1, -30.902, 3.19904, 19.8491, -146.715, -76.0908, 46.4953
5.71149, -1, -30.9731, 3.16966, 19.8571, -146.876, -76.2815, 46.5912
5.71948, -1, -31.0438, 3.14031, 19.8652, -147.035, -76.4719, 46.6869
5.72754, -1, -31.1146, 3.11106, 19.8733, -147.195, -76.6622, 46.7824
5.7355, -1, -31.1853, 3.08171, 19.8814, -147.354, -76.8525, 46.8776
5.74351, -1, -31.2559, 3.05253, 19.8895, -147.514, -77.0425, 46.9728
5.75149, -1, -31.3264, 3.02332, 19.8975, -147.673, -77.2323, 47.068
5.75951, -1, -31.3968, 2.99421, 19.9054, -147.832, -77.4219, 47.163
5.7676, -1, -31.4672, 2.96507, 19.9134, -147.99, -77.6112, 47.2582
5.77548, -1, -31.5373, 2.93604, 19.9214, -148.149, -77.8003, 47.3531
5.7835, -1, -31.6074, 2.90707, 19.9294, -148.307, -77.9891, 47.4483
5.79155, -1, -31.6775, 2.87815, 19.9373, -148.465, -78.1777, 47.543
5.79951, -1, -31.7474, 2.84922, 19.9453, -148.624, -78.366, 47.6378
5.80748, -1, -31.8173, 2.82028, 19.9532, -148.782, -78.554, 47.7321
5.81555, -1, -31.8871, 2.79144, 19.961, -148.939, -78.7417, 47.8269
5.82519, -1, -31.9568, 2.76258, 19.9689, -149.097, -79.0228, 47.9677
5.83148, -1, -32.0263, 2.73381, 19.9769, -149.254, -79.1164, 48.0149
5.83957, -1, -32.0959, 2.70492, 19.9849, -149.411, -79.3034, 48.1086
5.84748, -1, -32.1653, 2.67621, 19.9929, -149.568, -79.4904, 48.2027
5.85549, -1, -32.2346, 2.64739, 20.0009, -149.725, -79.6772, 48.2962
5.86356, -1, -32.3039, 2.6186, 20.0088, -149.882, -79.8639, 48.3904
5.87148, -1, -32.3731, 2.58982, 20.0164, -150.038, -80.0504, 48.4839
5.87956, -1, -32.4423, 2.56113, 20.0242, -150.194, -80.2369, 48.5781
5.88751, -1, -32.5114, 2.53246, 20.0321, -150.35, -80.4233, 48.6714
5.89548, -1, -32.5805, 2.5038, 20.0399, -150.506, -80.6095, 48.7651
5.90355, -1, -32.6495, 2.4751, 20.0477, -150.662, -80.7955, 48.8583
5.91148, -1, -32.7185, 2.44649, 20.0556, -150.818, -80.9812, 48.952
5.91951, -1, -32.7874, 2.41793, 20.0633, -150.973, -81.1666, 49.0447
5.92757, -1, -32.8564, 2.38938, 20.071, -151.128, -81.3518, 49.138
5.93548, -1, -32.9253, 2.36082, 20.0788, -151.284, -81.5369, 49.2305
5.94348, -1, -32.994, 2.33226, 20.0868, -151.439, -81.7218, 49.3237
5.95217, -1, -33.0627, 2.30386, 20.0948, -151.594, -81.9064, 49.4163
5.95949, -1, -33.1313, 2.27538, 20.1027, -151.749, -82.0908, 49.5097
5.96748, -1, -33.1998, 2.24697, 20.1107, -151.903, -82.275, 49.6021
5.97561, -1, -33.2682, 2.21851, 20.1185, -152.058, -82.4591, 49.6955
5.98347, -1, -33.3366, 2.19023, 20.1261, -152.212, -82.643, 49.788
5.99158, -1, -33.4048, 2.16199, 20.1338, -152.367, -82.8269, 49.8808
5.99962, -1, -33.473, 2.13378, 20.1417, -152.521, -83.0104, 49.9729
6.00748, -1, -33.5411, 2.10548, 20.1495, -152.675, -83.194, 50.0656
6.01549, -1, -33.6093, 2.0772, 20.1572, -152.829, -83.3774, 50.1573
6.02366, -1, -33.6774, 2.04904, 20.1649, -152.983, -83.5607, 50.2495
6.03158, -1, -33.7455, 2.02086, 20.1726, -153.137, -83.744, 50.3411
6.04053, -1, -33.8136, 1.99272, 20.1802, -153.29, -83.927, 50.4331
6.04771, -1, -33.8817, 1.96445, 20.1878, -153.443, -84.1098, 50.5246
6.05565, -1, -33.9497, 1.93636, 20.1955, -153.597, -84.2925, 50.6168
6.06359, -1, -34.0176, 1.90821, 20.2034, -153.75, -84.475, 50.708
6.07172, -1, -34.0855, 1.88004, 20.2112, -153.903, -84.6575, 50.8002
6.07948, -1, -34.1533, 1.85181, 20.2191, -154.056, -84.8399, 50.8914
6.08753, -1, -34.221, 1.82364, 20.2268, -154.208, -85.022, 50.9834
6.09584, -1, -34.2886, 1.7956, 20.2344, -154.361, -85.2041, 51.0747
6.10359, -1, -34.3562, 1.76755, 20.242, -154.514, -85.3858, 51.1665
6.11168, -1, -34.4238, 1.73946, 20.2497, -154.666, -85.5676, 51.2573
6.11986, -1, -34.4912, 1.71138, 20.2574, -154.819, -85.7492, 51.3488
6.12775, -1, -34.5586, 1.68339, 20.2651, -154.971, -85.9307, 51.4395
6.13606, -1, -34.6259, 1.65539, 20.2727, -155.123, -86.1121, 51.5309
6.14458, -1, -34.6932, 1.62747, 20.2804, -155.275, -86.2933, 51.6216
6.15193, -1, -34.7606, 1.59937, 20.2879, -155.427, -86.4743, 51.7129
6.16028, -1, -34.8278, 1.57146, 20.2955, -155.579, -86.6553, 51.8036
6.16833, -1, -34.895, 1.54347, 20.3031, -155.731, -86.8362, 51.8948
6.17604, -1, -34.9622, 1.51555, 20.3108, -155.883, -87.0169, 51.9855
6.18411, -1, -35.0294, 1.48762, 20.3186, -156.034, -87.1975, 52.0764
6.19209, -1, -35.0629, 1.47362, 20.3225, -156.186, -87.3781, 52.1669
6.19947, -1, -35.1299, 1.44581, 20.3302, -156.262, -87.4684, 52.2123
6.20752, -1, -35.1968, 1.41802, 20.3379, -156.413, -87.6491, 52.3031
6.21548, -1, -35.2637, 1.39029, 20.3454, -156.564, -87.8296, 52.393
6.22347, -1, -35.3306, 1.36252, 20.3528, -156.716, -88.01, 52.4837
6.23156, -1, -35.3975, 1.33474, 20.3604, -156.867, -88.1901, 52.5737
6.23947, -1, -35.4643, 1.30713, 20.368, -157.018, -88.3703, 52.6644
6.24747, -1, -35.5311, 1.27942, 20.3756, -157.169, -88.5504, 52.7543
6.25552, -1, -35.5979, 1.25183, 20.3831, -157.32, -88.7302, 52.845
6.26347, -1, -35.6647, 1.22409, 20.3907, -157.47, -88.91, 52.9349
6.27148, -1, -35.7314, 1.19646, 20.3982, -157.621, -89.0895, 53.0257
6.27952, -1, -35.7982, 1.16877, 20.4057, -157.771, -89.2689, 53.1156
6.28747, -1, -35.865, 1.14108, 20.4133, -157.922, -89.4481, 53.2062
6.29547, -1, -35.9317, 1.11342, 20.421, -158.072, -89.6271, 53.296
6.30354, -1, -35.9984, 1.08579, 20.4287, -158.223, -89.8061, 53.3866
6.31148, -1, -36.065, 1.0582, 20.4364, -158.373, -89.9852, 53.4761
6.31947, -1, -36.1315, 1.03063, 20.4441, -158.524, -90.1643, 53.5661
6.32905, -1, -36.198, 1.00304, 20.4517, -158.674, -90.3433, 53.6557
6.33546, -1, -36.2645, 0.975439, 20.4591, -158.824, -90.5223, 53.7459
6.3445, -1, -36.3311, 0.94795, 20.4666, -158.974, -90.7013, 53.8356
6.35155, -1, -36.3975, 0.920426, 20.4742, -159.124, -90.8804, 53.926
6.35947, -1, -36.464, 0.892972, 20.4818, -159.274, -91.0594, 54.0159
6.36746, -1, -36.5302, 0.865484, 20.4893, -159.424, -91.2384, 54.1063
6.37555, -1, -36.5953, 0.838375, 20.4969, -159.574, -91.4169, 54.196
6.38346, -1, -36.658, 0.812079, 20.5047, -159.723, -91.5946, 54.2855
6.39147, -1, -36.7176, 0.787091, 20.5126, -159.869, -91.7694, 54.3735
6.39955, -1, -36.773, 0.764177, 20.5207, -160.01, -91.9378, 54.4582
6.40746, -1, -36.8233, 0.743397, 20.5286, -160.141, -92.0947, 54.5371
6.41546, -1, -36.8683, 0.724748, 20.5358, -160.258, -92.2343, 54.6069
6.42354, -1, -36.9076, 0.708476, 20.5415, -160.355, -92.3517, 54.6659
6.43147, -1, -36.9411, 0.694577, 20.5455, -160.432, -92.4439, 54.7122
6.43946, -1, -36.9688, 0.682841, 20.5479, -160.487, -92.5112, 54.7458
6.44754, -1, -36.9919, 0.673088, 20.5489, -160.524, -92.5558, 54.7677
6.45545, -1, -37.0106, 0.665539, 20.5493, -160.546, -92.5824, 54.7803
6.46346, -1, -37.0244, 0.66045, 20.5494, -160.558, -92.5967, 54.787
6.47156, -1, -37.033, 0.657525, 20.5494, -160.564, -92.6036, 54.7902
6.47946, 2, -37.0374, 0.656067, 20.5494, -160.566, -92.607, 54.7916
6.48747, 2, -37.0393, 0.655387, 20.5495, -160.568, -92.6085, 54.7924
6.49564, 2, -37.0399, 0.655097, 20.5495, -160.568, -92.6092, 54.7927
6.50346, 2, -37.0393, 0.654991, 20.5494, -160.569, -92.6095, 54.7929
6.51147, 2, -37.0383, 0.654958, 20.5494, -160.569, -92.6097, 54.793
6.51957, 2, -37.0379, 0.65495, 20.5494, -160.569, -92.6098, 54.793
6.52753, 2, -37.0377, 0.654936, 20.5494, -160.569, -92.6098, 54.7931
6.53556, 2, -37.0378, 0.654884, 20.5494, -160.569, -92.6098, 54.7931
6.54366, 2, -37.038, 0.654875, 20.5494, -160.569, -92.6099, 54.793
6.55158, 2, -37.0381, 0.654796, 20.5493, -160.569, -92.6098, 54.793
6.55958, 2, -37.0382, 0.654675, 20.5493, -160.569, -92.6098, 54.793
6.56764, 2, -37.0384, 0.654562, 20.5493, -160.569, -92.6098, 54.7931
6.57563, 2, -37.0385, 0.654505, 20.5492, -160.569, -92.6098, 54.793
6.58347, 2, -37.0388, 0.654479, 20.5491, -160.569, -92.6097, 54.7931
6.59158, 2, -37.0391, 0.654475, 20.549, -160.569, -92.6097, 54.7931
6.5995, 2, -37.0393, 0.654501, 20.549, -160.569, -92.6097, 54.7931
6.60774, 2, -37.0394, 0.654546, 20.549, -160.569, -92.6097, 54.7931
6.61576, 2, -37.0395, 0.654584, 20.549, -160.569, -92.6096, 54.793
6.62368, 2, -37.0395, 0.654601, 20.549, -160.569, -92.6096, 54.793
6.63176, 2, -37.0392, 0.654609, 20.549, -160.569, -92.6096, 54.7931
6.63993, 2, -37.0391, 0.654613, 20.549, -160.569, -92.6096, 54.7931
6.64786, 2, -37.039, 0.654607, 20.549, -160.569, -92.6096, 54.7931
6.65605, 2, -37.039, 0.654569, 20.549, -160.569, -92.6096, 54.7931
6.66432, 2, -37.039, 0.654533, 20.549, -160.569, -92.6096, 54.7931
6.67206, 2, -37.0389, 0.654492, 20.549, -160.569, -92.6096, 54.7931
6.68003, 2, -37.0389, 0.654462, 20.549, -160.569, -92.6096, 54.7931
6.68817, 2, -37.0389, 0.654441, 20.5489, -160.569, -92.6096, 54.7931
6.69599, 2, -37.0389, 0.654424, 20.5489, -160.569, -92.6096, 54.7931
6.70345, 2, -37.039, 0.654435, 20.5489, -160.569, -92.6096, 54.7931
6.71151, 2, -37.039, 0.654447, 20.5489, -160.569, -92.6095, 54.7931
6.71945, 2, -37.0391, 0.654472, 20.5489, -160.569, -92.6095, 54.7931
6.72745, 2, -37.0391, 0.654469, 20.5489, -160.569, -92.6095, 54.793
6.73554, 2, -37.0391, 0.654482, 20.5489, -160.569, -92.6095, 54.7931
6.74345, 2, -37.0391, 0.654512, 20.549, -160.569, -92.6095, 54.7931
6.75146, 2, -37.0392, 0.654507, 20.5489, -160.569, -92.6095, 54.793
6.7595, 2, -37.0392, 0.654504, 20.5489, -160.569, -92.6095, 54.7931
6.76745, 2, -37.0392, 0.654503, 20.5489, -160.569, -92.6094, 54.793
6.77545, 2, -37.0392, 0.654483, 20.5489, -160.569, -92.6094, 54.7931
6.7835, 2, -37.0392, 0.654469, 20.5489, -160.569, -92.6095, 54.7931
6.79146, 2, -37.0392, 0.654444, 20.5489, -160.569, -92.6095, 54.7931
6.79945, 2, -37.0392, 0.654433, 20.5489, -160.569, -92.6095, 54.7931
6.80751, 2, -37.0392, 0.654446, 20.5489, -160.569, -92.6094, 54.7931
6.81545, 2, -37.0392, 0.654452, 20.5489, -160.569, -92.6094, 54.7932
6.82345, 2, -37.0392, 0.654455, 20.5489, -160.568, -92.6094, 54.7931
6.83163, 2, -37.0392, 0.654456, 20.5489, -160.568, -92.6094, 54.7931
6.83945, 2, -37.0392, 0.654469, 20.5489, -160.568, -92.6094, 54.7931
6.84745, 2, -37.0392, 0.65447, 20.5489, -160.568, -92.6094, 54.7931
6.85552, 2, -37.0392, 0.654488, 20.5489, -160.568, -92.6094, 54.7931
6.86345, 2, -37.0391, 0.654488, 20.5489, -160.568, -92.6094, 54.7931
6.87146, 2, -37.0392, 0.654472, 20.5489, -160.568, -92.6094, 54.7931
6.87953, 2, -37.0391, 0.654464, 20.5489, -160.568, -92.6093, 54.7931
6.88745, 2, -37.0391, 0.65446, 20.5489, -160.568, -92.6094, 54.7931
6.89543, 2, -37.0391, 0.654459, 20.5489, -160.568, -92.6093, 54.793
6.90353, 2, -37.0391, 0.654458, 20.5489, -160.568, -92.6093, 54.7931
6.91145, 2, -37.0391, 0.654458, 20.5489, -160.568, -92.6093, 54.7931
6.91945, 2, -37.0391, 0.654457, 20.5489, -160.568, -92.6093, 54.7931
6.92753, 2, -37.0391, 0.654457, 20.5489, -160.568, -92.6093, 54.7931
6.93545, 2, -37.0391, 0.654457, 20.5489, -160.568, -92.6092, 54.7931
6.94345, 2, -37.0391, 0.654477, 20.5489, -160.568, -92.6092, 54.7931
6.95154, 2, -37.0391, 0.654478, 20.5489, -160.568, -92.6092, 54.7931
6.95945, 2, -37.0391, 0.654479, 20.5489, -160.568, -92.6092, 54.7931
6.96744, 2, -37.0391, 0.654472, 20.5489, -160.568, -92.6092, 54.793
6.97552, 2, -37.0391, 0.654476, 20.5489, -160.568, -92.6092, 54.7931
6.98344, 2, -37.0391, 0.654466, 20.5489, -160.568, -92.6092, 54.7931
6.99146, 2, -37.0391, 0.654469, 20.5489, -160.568, -92.6092, 54.7932
6.99962, 2, -37.0391, 0.654467, 20.5489, -160.568, -92.6092, 54.7931
7.00745, 2, -37.039, 0.654469, 20.5489, -160.568, -92.6092, 54.7931
7.01545, 2, -37.039, 0.654475, 20.5489, -160.568, -92.6092, 54.7931
7.02357, 2, -37.0391, 0.65447, 20.5489, -160.568, -92.6092, 54.7931
7.03153, 2, -37.039, 0.654483, 20.5489, -160.568, -92.6092, 54.7931
7.03954, 2, -37.039, 0.654486, 20.5489, -160.568, -92.6091, 54.7931
7.04762, 2, -37.0391, 0.654483, 20.5488, -160.568, -92.6091, 54.7931
7.05556, 2, -37.0391, 0.654476, 20.5488, -160.568, -92.6092, 54.7931
7.06356, 2, -37.0391, 0.65449, 20.5488, -160.568, -92.6091, 54.7931
7.07164, 2, -37.0391, 0.65449, 20.5488, -160.568, -92.6091, 54.793
7.07945, 2, -37.039, 0.654484, 20.5488, -160.568, -92.6091, 54.7931
7.08747, 2, -37.039, 0.654489, 20.5488, -160.568, -92.6091, 54.7931
7.09556, 2, -37.039, 0.654484, 20.5488, -160.568, -92.6091, 54.7931
7.10348, 2, -37.039, 0.654475, 20.5488, -160.568, -92.6091, 54.7931
7.11161, 2, -37.039, 0.654477, 20.5488, -160.568, -92.6091, 54.793
7.12, 2, -37.039, 0.654486, 20.5488, -160.568, -92.6091, 54.7931
7.12769, 2, -37.039, 0.654483, 20.5488, -160.568, -92.6091, 54.7931
7.13578, 2, -37.0389, 0.654474, 20.5488, -160.568, -92.6091, 54.7931
7.1442, 2, -37.039, 0.654484, 20.5488, -160.568, -92.6091, 54.7931
7.15187, 2, -37.039, 0.654482, 20.5488, -160.568, -92.6091, 54.7932
7.15996, 2, -37.0389, 0.654493, 20.5488, -160.568, -92.609, 54.7931
7.16855, 2, -37.039, 0.654498, 20.5487, -160.568, -92.609, 54.7931
7.17641, 2, -37.0389, 0.6545, 20.5488, -160.568, -92.609, 54.7931
7.18403, 2, -37.0389, 0.654489, 20.5487, -160.568, -92.609, 54.7931
7.1923, 2, -37.0389, 0.654484, 20.5487, -160.568, -92.609, 54.7931
7.19999, 2, -37.0389, 0.65449, 20.5487, -160.568, -92.609, 54.7931
7.20744, 2, -37.0389, 0.654485, 20.5487, -160.568, -92.6089, 54.7931
7.21642, 2, -37.0389, 0.65449, 20.5487, -160.568, -92.609, 54.7931
7.22344, 2, -37.0389, 0.654479, 20.5487, -160.568, -92.6089, 54.7931
7.23145, 2, -37.0389, 0.654475, 20.5487, -160.567, -92.6089, 54.7931
7.24028, 2, -37.0389, 0.654477, 20.5487, -160.567, -92.6089, 54.7931
7.24744, 2, -37.0389, 0.654479, 20.5487, -160.567, -92.6089, 54.7931
7.25543, 2, -37.0389, 0.654492, 20.5487, -160.567, -92.6089, 54.7931
7.26348, 2, -37.0388, 0.654498, 20.5487, -160.567, -92.6089, 54.7931
7.27145, 2, -37.0388, 0.6545, 20.5487, -160.567, -92.6088, 54.793
7.27944, 2, -37.0388, 0.654501, 20.5486, -160.567, -92.6088, 54.7931
7.28924, 2, -37.0388, 0.654494, 20.5487, -160.567, -92.6088, 54.7931
7.29542, 2, -37.0388, 0.654497, 20.5486, -160.567, -92.6088, 54.7931
7.30349, 2, -37.0388, 0.6545, 20.5486, -160.567, -92.6088, 54.7931
7.3115, 2, -37.0388, 0.654501, 20.5486, -160.567, -92.6088, 54.7931
7.31943, 2, -37.0388, 0.654495, 20.5486, -160.567, -92.6088, 54.7932
7.32898, 2, -37.0388, 0.654482, 20.5486, -160.567, -92.6088, 54.7931
7.3356, 2, -37.0388, 0.654481, 20.5486, -160.567, -92.6088, 54.7931
7.34343, 2, -37.0388, 0.654473, 20.5485, -160.567, -92.6088, 54.7931
7.35144, 2, -37.0387, 0.654472, 20.5485, -160.567, -92.6088, 54.7931
7.3595, 2, -37.0387, 0.654476, 20.5485, -160.567, -92.6088, 54.7931
7.36851, 2, -37.0387, 0.654478, 20.5485, -160.567, -92.6088, 54.7931
7.37543, 2, -37.0388, 0.654491, 20.5485, -160.567, -92.6088, 54.7931
7.38357, 2, -37.0388, 0.654497, 20.5485, -160.567, -92.6088, 54.793
7.39144, 2, -37.0388, 0.6545, 20.5485, -160.567, -92.6088, 54.7931
7.39943, 2, -37.0388, 0.654489, 20.5485, -160.567, -92.6088, 54.7931
7.4075, 2, -37.0388, 0.654496, 20.5485, -160.567, -92.6087, 54.7931
7.41544, 2, -37.0387, 0.654492, 20.5485, -160.567, -92.6087, 54.7931
7.42343, 2, -37.0387, 0.654481, 20.5485, -160.567, -92.6087, 54.7931
7.43151, 2, -37.0387, 0.654492, 20.5485, -160.567, -92.6087, 54.7931
7.43943, 2, -37.0387, 0.654491, 20.5485, -160.567, -92.6087, 54.7931
7.44743, 2, -37.0387, 0.654492, 20.5485, -160.567, -92.6087, 54.7931
7.4555, 2, -37.0387, 0.654498, 20.5484, -160.567, -92.6087, 54.7931
7.46343, 2, -37.0387, 0.6545, 20.5484, -160.567, -92.6087, 54.7931
7.47144, 2, -37.0387, 0.654489, 20.5484, -160.567, -92.6087, 54.7931
7.48136, 2, -37.0387, 0.654496, 20.5484, -160.567, -92.6087, 54.7931
7.48743, 2, -37.0387, 0.6545, 20.5484, -160.567, -92.6087, 54.7931
7.49543, 2, -37.0387, 0.654489, 20.5484, -160.567, -92.6087, 54.7931
7.5036, 2, -37.0387, 0.654489, 20.5484, -160.567, -92.6088, 54.7931
7.51144, 2, -37.0386, 0.654484, 20.5484, -160.567, -92.6087, 54.7931
7.51943, 2, -37.0386, 0.654489, 20.5484, -160.567, -92.6087, 54.7931
7.52754, 2, -37.0386, 0.654484, 20.5484, -160.567, -92.6087, 54.7931
7.53573, 2, -37.0386, 0.654487, 20.5484, -160.567, -92.6087, 54.7931
7.54355, 4, -37.0386, 0.654471, 20.5483, -160.567, -92.6087, 54.7932
7.55161, 4, -37.0386, 0.654471, 20.5483, -160.567, -92.6087, 54.7931
7.55955, 4, -37.0386, 0.654476, 20.5483, -160.567, -92.6087, 54.7931
7.56754, 4, -37.0386, 0.654489, 20.5483, -160.567, -92.6087, 54.7931
7.57562, 4, -37.0386, 0.654504, 20.5483, -160.567, -92.6087, 54.7931
7.58343, 4, -37.0386, 0.654496, 20.5483, -160.567, -92.6087, 54.7931
7.59147, 4, -37.0386, 0.654505, 20.5483, -160.567, -92.6087, 54.7931
7.59955, 4, -37.0386, 0.654504, 20.5483, -160.567, -92.6087, 54.7931
7.60753, 4, -37.0386, 0.654498, 20.5483, -160.567, -92.6087, 54.7931
7.61553, 4, -37.0385, 0.654501, 20.5482, -160.567, -92.6087, 54.7931
7.62394, 4, -37.0385, 0.65452, 20.5482, -160.567, -92.6087, 54.7931
7.63176, 4, -37.0385, 0.654511, 20.5482, -160.567, -92.6087, 54.7931
7.64, 4, -37.0385, 0.654499, 20.5482, -160.567, -92.6087, 54.7931
7.66597, 4, -37.0385, 0.654499, 20.5482, -160.567, -92.6087, 54.7931
7.66861, 4, -37.0385, 0.6545, 20.5481, -160.567, -92.6087, 54.7932
7.67042, 4, -37.0385, 0.6545, 20.5481, -160.567, -92.6087, 54.7932
7.67325, 4, -37.0385, 0.654501, 20.5482, -160.567, -92.6087, 54.7931
7.68518, 4, -37.0383, 0.654495, 20.5481, -160.567, -92.6087, 54.7931
7.68838, 4, -37.0381, 0.654464, 20.5481, -160.567, -92.6087, 54.7931
7.69632, 4, -37.0366, 0.654086, 20.5482, -160.567, -92.6087, 54.7931
7.70473, 4, -37.035, 0.653468, 20.5483, -160.567, -92.6087, 54.7931
7.71227, 4, -37.0293, 0.650575, 20.549, -160.567, -92.6087, 54.7931
7.721, 4, -37.0198, 0.640307, 20.5539, -160.566, -92.6087, 54.7931
7.72918, 4, -36.9981, 0.6288, 20.5614, -160.565, -92.6087, 54.7931
7.7354, 5, -36.9883, 0.621385, 20.5669, -160.564, -92.6087, 54.7931
7.74342, 5, -36.9645, 0.603115, 20.5825, -160.561, -92.6087, 54.7931
7.75148, 5, -36.9354, 0.58045, 20.6045, -160.556, -92.6083, 54.793
7.7596, 5, -36.9014, 0.553162, 20.6333, -160.55, -92.6077, 54.793
7.76744, 5, -36.8627, 0.521557, 20.6689, -160.543, -92.6067, 54.793
7.77543, 5, -36.8188, 0.485087, 20.7102, -160.533, -92.6055, 54.7929
7.78523, 5, -36.7433, 0.422089, 20.7813, -160.517, -92.6032, 54.7929
7.7916, 5, -36.7157, 0.399126, 20.8067, -160.512, -92.6024, 54.7929
7.79943, 5, -36.6573, 0.350888, 20.8594, -160.499, -92.6007, 54.7929
7.8075, 5, -36.5949, 0.300275, 20.9138, -160.487, -92.5991, 54.7929
7.81755, 5, -36.4956, 0.221294, 20.9967, -160.469, -92.5965, 54.793
7.82342, 5, -36.4617, 0.194561, 21.0244, -160.463, -92.5957, 54.7929
7.83322, 5, -36.3933, 0.113934, 21.1076, -160.445, -92.593, 54.793
7.84145, 5, -36.2902, 0.0600733, 21.163, -160.433, -92.5912, 54.793
7.84743, 5, -36.2557, 0.033174, 21.1908, -160.427, -92.5903, 54.793
7.85946, 5, -36.1524, -0.047223, 21.274, -160.409, -92.5875, 54.793
7.86357, 5, -36.118, -0.0739117, 21.3016, -160.403, -92.5866, 54.793
7.87139, 5, -36.0493, -0.127152, 21.3569, -160.39, -92.5847, 54.7931
7.87946, 5, -35.9807, -0.180184, 21.4121, -160.378, -92.5827, 54.7931
7.88744, 5, -35.9121, -0.233025, 21.4672, -160.365, -92.5808, 54.7931
7.89544, 5, -35.8434, -0.285729, 21.5222, -160.352, -92.5788, 54.7933
7.90342, 5, -35.7745, -0.338395, 21.5772, -160.339, -92.5769, 54.7937
7.91157, 5, -35.7054, -0.391079, 21.632, -160.327, -92.5748, 54.7942
7.91947, 5, -35.636, -0.443707, 21.6866, -160.314, -92.5729, 54.7948
7.92742, 5, -35.5663, -0.49645, 21.7409, -160.301, -92.5709, 54.7956
7.93559, 5, -35.4963, -0.549187, 21.7951, -160.289, -92.5689, 54.7967
7.94523, 5, -35.4261, -0.601946, 21.8492, -160.276, -92.5668, 54.798
7.95141, 5, -35.3556, -0.654659, 21.9031, -160.264, -92.5648, 54.7995
7.95964, 5, -35.2851, -0.707313, 21.957, -160.251, -92.5627, 54.8012
7.96826, 5, -35.2145, -0.759801, 22.0107, -160.237, -92.5607, 54.8032
7.97542, 5, -35.1439, -0.811992, 22.0643, -160.224, -92.5586, 54.8052
7.98472, 5, -35.0732, -0.864161, 22.1179, -160.211, -92.5564, 54.8074
7.99334, 5, -35.0025, -0.916057, 22.1712, -160.197, -92.5543, 54.8097
7.99948, 5, -34.932, -0.967687, 22.2245, -160.184, -92.5521, 54.8122
8.00751, 5, -34.8614, -1.01919, 22.2777, -160.172, -92.55, 54.8148
8.01656, 5, -34.7909, -1.07057, 22.3308, -160.159, -92.5477, 54.8176
8.02362, 5, -34.7203, -1.12201, 22.3836, -160.146, -92.5455, 54.8204
8.03146, 5, -34.6494, -1.17334, 22.4363, -160.133, -92.5434, 54.8233
8.03957, 5, -34.5785, -1.22465, 22.4887, -160.12, -92.5411, 54.8264
8.04759, 5, -34.5074, -1.27604, 22.541, -160.107, -92.5388, 54.8296
8.05552, 5, -34.436, -1.32736, 22.5932, -160.093, -92.5366, 54.8329
8.06366, 5, -34.3645, -1.37868, 22.6453, -160.079, -92.5343, 54.8363
8.0724, 5, -34.2929, -1.42993, 22.6972, -160.066, -92.5321, 54.8398
8.07965, 5, -34.2211, -1.48104, 22.7489, -160.052, -92.5298, 54.8433
8.08833, 5, -34.1491, -1.53192, 22.8006, -160.038, -92.5274, 54.8471
8.09544, 5, -34.077, -1.58258, 22.8521, -160.025, -92.5252, 54.8509
8.10357, 5, -34.0048, -1.63308, 22.9036, -160.012, -92.5229, 54.8548
8.11182, 5, -33.9326, -1.68334, 22.955, -159.998, -92.5205, 54.859
8.12071, 5, -33.8603, -1.7334, 23.0062, -159.985, -92.5182, 54.8631
8.1277, 5, -33.7882, -1.78336, 23.0572, -159.971, -92.5158, 54.8673
8.13692, 5, -33.716, -1.83324, 23.108, -159.957, -92.5135, 54.8716
8.14464, 5, -33.6437, -1.88305, 23.1587, -159.942, -92.5113, 54.8758
8.15194, 5, -33.5711, -1.93298, 23.2092, -159.928, -92.509, 54.8802
8.16131, 5, -33.4985, -1.9832, 23.2597, -159.914, -92.5067, 54.8844
8.1679, 5, -33.4257, -2.03373, 23.3101, -159.9, -92.5044, 54.8881
8.17626, 5, -33.3531, -2.08467, 23.3604, -159.886, -92.5021, 54.8905
8.18397, 6, -33.2807, -2.13607, 23.411, -159.871, -92.4995, 54.8914
8.19271, 6, -33.2086, -2.18823, 23.4619, -159.857, -92.4967, 54.8906
8.20002, 6, -33.1726, -2.21464, 23.4875, -159.85, -92.4951, 54.8874
8.20798, 6, -33.1011, -2.2681, 23.5393, -159.834, -92.4913, 54.8794
8.21545, 7, -33.03, -2.32256, 23.5921, -159.817, -92.4866, 54.8736
8.22341, 7, -32.9594, -2.37817, 23.646, -159.799, -92.4804, 54.8594
8.23144, 7, -32.8893, -2.43502, 23.701, -159.78, -92.4725, 54.8429
8.24156, 7, -32.7851, -2.52302, 23.7862, -159.748, -92.4572, 54.8168
8.24863, 7, -32.7165, -2.58366, 23.8447, -159.726, -92.4444, 54.7997
8.25544, 8, -32.6824, -2.61459, 23.8744, -159.715, -92.4374, 54.7914
8.26341, 8, -32.6148, -2.67763, 23.9347, -159.69, -92.4218, 54.7747
8.27142, 8, -32.548, -2.74243, 23.9962, -159.665, -92.4043, 54.7577
8.2794, 8, -32.4818, -2.80882, 24.0587, -159.638, -92.385, 54.7398
8.28759, 8, -32.4163, -2.87676, 24.1221, -159.61, -92.3642, 54.7207
8.29537, 9, -32.3513, -2.94611, 24.1865, -159.582, -92.3423, 54.6998
8.30501, 9, -32.2551, -3.05248, 24.285, -159.538, -92.3074, 54.665
8.31163, 9, -32.2232, -3.08861, 24.3184, -159.522, -92.2952, 54.6525
8.32021, 9, -32.16, -3.16185, 24.3857, -159.49, -92.2695, 54.6266
8.32741, 9, -32.0973, -3.23633, 24.4542, -159.458, -92.2419, 54.5996
8.33638, 10, -32.0353, -3.31216, 24.5235, -159.425, -92.2127, 54.571
8.34357, 10, -31.9738, -3.38927, 24.5939, -159.391, -92.1825, 54.5408
8.35247, 10, -31.9129, -3.46786, 24.6654, -159.355, -92.1513, 54.5085
8.36053, 10, -31.8525, -3.54788, 24.7379, -159.319, -92.1183, 54.4742
8.36755, 10, -31.7927, -3.62928, 24.8115, -159.282, -92.0835, 54.4386
8.37541, 10, -31.7335, -3.7122, 24.886, -159.244, -92.0476, 54.402
8.38417, 11, -31.6747, -3.79656, 24.9615, -159.205, -92.0108, 54.3638
8.3914, 11, -31.6165, -3.88242, 25.0378, -159.165, -91.9725, 54.3238
8.3994, 11, -31.5589, -3.96968, 25.1152, -159.125, -91.9321, 54.2817
8.411, 11, -31.4735, -4.10338, 25.2331, -159.061, -91.8699, 54.2167
8.41553, 11, -31.4453, -4.14867, 25.273, -159.04, -91.8485, 54.1944
8.4234, 12, -31.3892, -4.24036, 25.3534, -158.997, -91.8041, 54.1483
8.43145, 12, -31.3337, -4.33341, 25.435, -158.952, -91.7583, 54.0999
8.43958, 12, -31.2787, -4.4278, 25.5176, -158.906, -91.7119, 54.0507
8.44769, 12, -31.2241, -4.52353, 25.6012, -158.86, -91.6636, 54.0003
8.4554, 12, -31.17, -4.62078, 25.6858, -158.812, -91.6138, 53.9478
8.46342, 13, -31.1166, -4.71941, 25.7712, -158.763, -91.5633, 53.8935
8.47147, 13, -31.0635, -4.81947, 25.8577, -158.715, -91.5105, 53.8384
8.4794, 13, -31.0111, -4.92104, 25.9452, -158.664, -91.4568, 53.7817
8.48759, 13, -30.9591, -5.02418, 26.0338, -158.613, -91.4022, 53.7229
8.49639, 13, -30.9077, -5.12866, 26.1235, -158.562, -91.3453, 53.6634
8.50346, 14, -30.8569, -5.23455, 26.2143, -158.508, -91.2881, 53.6025
8.5123, 14, -30.8066, -5.342, 26.3061, -158.454, -91.2291, 53.5395
8.52022, 14, -30.7569, -5.45085, 26.3987, -158.4, -91.1685, 53.4759
8.52761, 14, -30.7076, -5.5613, 26.4923, -158.344, -91.1075, 53.4108
8.53622, 14, -30.6589, -5.67318, 26.5869, -158.288, -91.0438, 53.3434
8.54351, 15, -30.6107, -5.78653, 26.6826, -158.231, -90.9798, 53.2754
8.55179, 15, -30.5629, -5.90121, 26.7796, -158.172, -90.9134, 53.2055
8.56164, 15, -30.5156, -6.01707, 26.8776, -158.114, -90.8466, 53.1339
8.5681, 15, -30.4689, -6.13449, 26.9765, -158.053, -90.7781, 53.0616
8.5774, 15, -30.4226, -6.25343, 27.0764, -157.992, -90.7082, 52.9866
8.58517, 16, -30.3769, -6.37376, 27.1771, -157.93, -90.637, 52.9112
8.59226, 16, -30.3317, -6.49564, 27.2789, -157.867, -90.5644, 52.8336
8.59947, 16, -30.287, -6.61893, 27.382, -157.803, -90.4908, 52.7546
8.61139, 16, -30.2427, -6.74368, 27.4861, -157.706, -90.3777, 52.6338
8.6158, 16, -30.199, -6.86991, 27.5914, -157.673, -90.3392, 52.5926
8.6238, 17, -30.1557, -6.99777, 27.6975, -157.606, -90.2616, 52.5101
8.63245, 17, -30.113, -7.12722, 27.8044, -157.539, -90.1824, 52.4255
8.64022, 17, -30.0707, -7.25814, 27.9123, -157.47, -90.102, 52.3405
8.64859, 17, -30.029, -7.3904, 28.0213, -157.402, -90.0201, 52.2536
8.65578, 17, -29.9878, -7.52385, 28.1314, -157.331, -89.9372, 52.1656
8.66394, 17, -29.9471, -7.65886, 28.2428, -157.261, -89.8528, 52.0762
8.67285, 18, -29.9068, -7.79532, 28.3552, -157.189, -89.7669, 51.9855
8.67996, 18, -29.8671, -7.93324, 28.4683, -157.116, -89.6803, 51.8934
8.68923, 18, -29.8277, -8.07233, 28.5823, -157.042, -89.5921, 51.8
8.69689, 18, -29.7889, -8.21268, 28.6974, -156.967, -89.5029, 51.705
8.70403, 18, -29.7696, -8.35442, 28.8138, -156.892, -89.4122, 51.6091
8.71139, 19, -29.7315, -8.42584, 28.8724, -156.854, -89.3665, 51.5607
8.7194, 19, -29.6939, -8.56997, 28.9904, -156.777, -89.2741, 51.4627
8.72847, 19, -29.6382, -8.7889, 29.1689, -156.66, -89.1329, 51.3138
8.73689, 19, -29.6018, -8.93625, 29.2889, -156.581, -89.0377, 51.2138
8.74727, 19, -29.5658, -9.0851, 29.41, -156.501, -88.9411, 51.1116
8.75134, 20, -29.548, -9.16015, 29.471, -156.461, -88.8923, 51.0604
8.76227, 20, -29.4951, -9.38744, 29.6558, -156.339, -88.745, 50.9047
8.76758, 20, -29.4778, -9.46388, 29.7177, -156.298, -88.6953, 50.8523
8.77536, 20, -29.4434, -9.61754, 29.8424, -156.215, -88.5948, 50.7462
8.78497, 20, -29.3928, -9.85038, 30.0311, -156.088, -88.4425, 50.5849
8.79287, 21, -29.3595, -10.0074, 30.1581, -156.003, -88.3392, 50.4761
8.80102, 21, -29.3266, -10.166, 30.2862, -155.917, -88.2352, 50.3661
8.80739, 21, -29.3103, -10.2458, 30.3507, -155.874, -88.1828, 50.3109
8.81856, 21, -29.2622, -10.4862, 30.5453, -155.743, -88.0238, 50.1441
8.82495, 21, -29.2464, -10.567, 30.6105, -155.654, -87.9167, 50.0315
8.83143, 22, -29.2151, -10.7296, 30.7418, -155.609, -87.8628, 49.975
8.84102, 22, -29.184, -10.8936, 30.8741, -155.519, -87.754, 49.8041
8.84738, 22, -29.1534, -11.0586, 31.0073, -155.428, -87.6445, 49.7467
8.8564, 22, -29.1232, -11.2245, 31.1414, -155.337, -87.5337, 49.6309
8.86951, 22, -29.0786, -11.4761, 31.3444, -155.197, -87.3658, 49.456
8.87244, 23, -29.0639, -11.5608, 31.4125, -155.15, -87.3095, 49.3974
8.87939, 23, -29.0348, -11.7312, 31.5492, -155.056, -87.1959, 49.2792
8.88758, 23, -29.0061, -11.9023, 31.6868, -154.961, -87.0814, 49.1606
8.89774, 23, -28.9777, -12.1609, 31.8948, -154.817, -86.9083, 48.9818
8.90446, 23, -28.9498, -12.2479, 31.9646, -154.768, -86.85, 48.9217
8.91236, 24, -28.9222, -12.4229, 32.1048, -154.671, -86.7329, 48.8013
8.9204, 24, -28.895, -12.5985, 32.2459, -154.572, -86.6147, 48.6805
8.92849, 24, -28.868, -12.7747, 32.3877, -154.472, -86.4959, 48.5587
8.93666, 24, -28.8415, -12.952, 32.5301, -154.372, -86.3762, 48.4366
8.94356, 24, -28.8153, -13.1311, 32.6736, -154.271, -86.2555, 48.3138
8.95166, 25, -28.7894, -13.311, 32.8179, -154.169, -86.1344, 48.1907
8.96017, 25, -28.7638, -13.4913, 32.9629, -154.067, -86.0122, 48.0672
8.96739, 25, -28.7384, -13.6726, 33.1083, -153.963, -85.8897, 47.9438
8.97546, 25, -28.7132, -13.8557, 33.2545, -153.859, -85.7663, 47.8201
8.98676, 25, -28.6759, -14.1317, 33.4754, -153.701, -85.58, 47.6344
8.99257, 25, -28.6637, -14.2239, 33.5495, -153.648, -85.5177, 47.5725
9.00053, 26, -28.6394, -14.4089, 33.6979, -153.541, -85.3921, 47.4482
9.00738, 26, -28.6154, -14.5956, 33.8467, -153.434, -85.2665, 47.3241
9.01554, 26, -28.5917, -14.7833, 33.9964, -153.326, -85.14, 47.1997
9.0244, 26, -28.5679, -14.9711, 34.1469, -153.217, -85.0129, 47.0754
9.03142, 26, -28.5444, -15.1592, 34.2979, -153.107, -84.8854, 46.9514
9.03943, 27, -28.5212, -15.3485, 34.4491, -152.997, -84.7573, 46.8278
9.04754, 27, -28.4983, -15.5386, 34.6012, -152.886, -84.6288, 46.7044
9.05548, 27, -28.4755, -15.7287, 34.754, -152.774, -84.4995, 46.5811
9.06377, 27, -28.4529, -15.9195, 34.9073, -152.662, -84.3701, 46.4583
9.07509, 27, -28.4307, -16.112, 35.0607, -152.549, -84.2402, 46.2744
9.07966, 28, -28.4083, -16.3053, 35.2145, -152.435, -84.1099, 46.2134
9.08822, 28, -28.386, -16.499, 35.3691, -152.321, -83.9791, 46.0914
9.09635, 28, -28.3639, -16.6934, 35.5243, -152.205, -83.8483, 45.9703
9.10347, 28, -28.3419, -16.8889, 35.6797, -152.09, -83.7169, 45.85
9.1123, 28, -28.3198, -17.0847, 35.8353, -151.973, -83.5853, 45.7304
9.11952, 29, -28.2979, -17.2804, 35.9915, -151.856, -83.4535, 45.6117
9.12765, 29, -28.276, -17.4767, 36.1484, -151.739, -83.3212, 45.4939
9.13793, 29, -28.2542, -17.6738, 36.3054, -151.62, -83.1889, 45.3769
9.14419, 29, -28.2324, -17.871, 36.4623, -151.501, -83.056, 45.2611
9.15176, 29, -28.2108, -18.0682, 36.6197, -151.382, -82.9232, 45.1462
9.15981, 30, -28.1893, -18.2661, 36.7778, -151.262, -82.79, 45.0326
9.168, 30, -28.1677, -18.4646, 36.9361, -151.141, -82.657, 44.9203
9.17655, 30, -28.146, -18.6631, 37.0942, -151.02, -82.5235, 44.809
9.18483, 30, -28.1245, -18.8617, 37.2524, -150.898, -82.3901, 44.6996
9.19237, 30, -28.1027, -19.0613, 37.411, -150.776, -82.2564, 44.5919
9.19997, 31, -28.0918, -19.2615, 37.5701, -150.653, -82.1227, 44.4857
9.20875, 31, -28.0698, -19.3614, 37.6495, -150.592, -81.9892, 44.3812
9.21627, 31, -28.048, -19.5611, 37.8874, -150.407, -81.8552, 44.2783
9.2256, 31, -28.0261, -19.8611, 38.0466, -150.283, -81.7217, 44.1775
9.23141, 31, -28.004, -19.9612, 38.1264, -150.22, -81.6548, 44.1275
9.2403, 32, -27.9817, -20.1608, 38.2859, -150.095, -81.521, 44.0293
9.24748, 32, -27.9593, -20.3602, 38.4447, -149.97, -81.3874, 43.9327
9.25542, 32, -27.9366, -20.5603, 38.6035, -149.844, -81.2538, 43.8384
9.2636, 32, -27.9137, -20.7606, 38.7627, -149.718, -81.1204, 43.7462
9.27418, 32, -27.879, -21.0604, 39.0013, -149.529, -80.9202, 43.6128
9.27937, 32, -27.8674, -21.1604, 39.0805, -149.465, -80.8537, 43.5695
9.28739, 33, -27.8439, -21.3607, 39.2389, -149.338, -80.7206, 43.4849
9.29687, 33, -27.8084, -21.6603, 39.4771, -149.147, -80.5215, 43.3632
9.30337, 33, -27.7963, -21.7599, 39.5565, -149.083, -80.4551, 43.324
9.31397, 33, -27.7597, -22.0593, 39.7934, -148.891, -80.2567, 43.2108
9.31961, 33, -27.7473, -22.1591, 39.8722, -148.827, -80.1905, 43.1742
9.32981, 34, -27.7099, -22.4573, 40.1087, -148.634, -79.9929, 43.0701
9.33538, 34, -27.6972, -22.5565, 40.1875, -148.57, -79.927, 43.0366
9.34661, 34, -27.6716, -22.755, 40.4228, -148.376, -79.7298, 42.941
9.35137, 34, -27.6459, -22.9533, 40.5009, -148.312, -79.6641, 42.9112
9.36039, 34, -27.6194, -23.1507, 40.6573, -148.182, -79.5327, 42.8534
9.36737, 35, -27.5927, -23.3475, 40.8136, -148.053, -79.4017, 42.7986
9.37538, 35, -27.5656, -23.5447, 40.9693, -147.923, -79.2707, 42.7481
9.38344, 35, -27.538, -23.7414, 41.124, -147.794, -79.1404, 42.7014
9.39152, 35, -27.5101, -23.9369, 41.2785, -147.664, -79.0099, 42.6582
9.40049, 35, -27.4816, -24.1319, 41.4327, -147.534, -78.8801, 42.6185
9.40734, 36, -27.4525, -24.3266, 41.5865, -147.404, -78.7502, 42.5832
9.41548, 36, -27.4229, -24.5202, 41.7393, -147.274, -78.6209, 42.5521
9.42343, 36, -27.393, -24.7127, 41.8915, -147.144, -78.492, 42.5257
9.43137, 36, -27.3623, -24.9049, 42.0434, -147.014, -78.3633, 42.5036
9.43952, 36, -27.3311, -25.0973, 42.1946, -146.884, -78.2353, 42.4857
9.44758, 37, -27.299, -25.2887, 42.3449, -146.754, -78.1075, 42.4723
9.45539, 37, -27.2663, -25.4792, 42.4943, -146.624, -77.9803, 42.4635
9.46472, 37, -27.2332, -25.6693, 42.6432, -146.494, -77.8532, 42.4587
9.47154, 37, -27.1993, -25.859, 42.7914, -146.365, -77.7266, 42.4571
9.48036, 37, -27.1646, -26.0474, 42.9389, -146.235, -77.6004, 42.4594
9.48737, 38, -27.1292, -26.2344, 43.0852, -146.106, -77.4746, 42.4682
9.49539, 38, -27.0933, -26.4207, 43.2306, -145.977, -77.3494, 42.4821
9.50343, 38, -27.0565, -26.6065, 43.3754, -145.848, -77.2244, 42.5015
9.51147, 38, -27.0189, -26.7907, 43.5193, -145.72, -77.0999, 42.5265
9.52059, 38, -26.9805, -26.9737, 43.6621, -145.592, -76.9757, 42.5571
9.52932, 39, -26.9413, -27.1562, 43.8037, -145.465, -76.8522, 42.5939
9.53646, 39, -26.9011, -27.3379, 43.9444, -145.338, -76.7288, 42.6373
9.54365, 39, -26.8601, -27.5179, 44.084, -145.211, -76.6058, 42.686
9.55266, 39, -26.818, -27.6965, 44.2226, -145.085, -76.4834, 42.7406
9.55947, 39, -26.7751, -27.8746, 44.3599, -144.96, -76.3611, 42.8021
9.56748, 39, -26.7312, -28.052, 44.4959, -144.835, -76.2393, 42.8696
9.57592, 40, -26.6862, -28.2275, 44.6308, -144.71, -76.1176, 42.9428
9.58358, 40, -26.6402, -28.4014, 44.7646, -144.587, -75.9966, 43.0236
9.59171, 40, -26.5932, -28.5742, 44.897, -144.464, -75.8757, 43.1095
9.6004, 40, -26.5451, -28.7459, 45.028, -144.342, -75.7552, 43.2028
9.60748, 40, -26.4958, -28.9155, 45.1576, -144.221, -75.6354, 43.3022
9.61544, 41, -26.4454, -29.0831, 45.2857, -144.101, -75.5156, 43.4086
9.62359, 41, -26.3938, -29.2495, 45.4124, -143.981, -75.3965, 43.5212
9.63155, 41, -26.3408, -29.4148, 45.5377, -143.863, -75.2778, 43.6408
9.64077, 41, -26.2866, -29.5784, 45.6613, -143.746, -75.1594, 43.7674
9.64922, 41, -26.2311, -29.7399, 45.7832, -143.63, -75.0418, 43.9011
9.656, 42, -26.1742, -29.9001, 45.9035, -143.516, -74.9241, 44.0421
9.66658, 42, -26.1159, -30.0587, 46.022, -143.402, -74.8073, 44.1905
9.67226, 42, -26.0562, -30.2155, 46.1387, -143.29, -74.6907, 44.346
9.67989, 42, -25.9951, -30.3701, 46.2538, -143.18, -74.5743, 44.5091
9.68857, 42, -25.9326, -30.5224, 46.367, -143.071, -74.4587, 44.6793
9.69598, 43, -25.8684, -30.6729, 46.4781, -142.964, -74.3431, 44.8574
9.70455, 43, -25.8027, -30.8214, 46.5873, -142.858, -74.2282, 45.0435
9.71192, 43, -25.7691, -30.8948, 46.6411, -142.806, -74.1137, 45.2372
9.72316, 43, -25.6662, -31.1115, 46.7993, -142.653, -73.9994, 45.4387
9.72732, 43, -25.6311, -31.1825, 46.8511, -142.603, -73.9426, 45.5422
9.73641, 44, -25.523, -31.3923, 47.0031, -142.456, -73.7727, 45.8645
9.74336, 44, -25.4861, -31.4611, 47.0525, -142.408, -73.7163, 45.9759
9.75146, 44, -25.4106, -31.597, 47.1496, -142.314, -73.6039, 46.205
9.75936, 44, -25.3333, -31.7303, 47.2441, -142.222, -73.4919, 46.4417
9.7675, 44, -25.2542, -31.8607, 47.3361, -142.133, -73.3805, 46.6868
9.77533, 45, -25.1732, -31.9885, 47.4258, -142.046, -73.2698, 46.9399
9.78485, 45, -25.0481, -32.1749, 47.5556, -141.922, -73.1047, 47.3356
9.79333, 45, -24.962, -32.2957, 47.6388, -141.843, -72.9956, 47.6096
9.80164, 45, -24.9183, -32.355, 47.7189, -141.766, -72.887, 47.8919
9.80742, 45, -24.8291, -32.4713, 47.7578, -141.729, -72.8331, 48.036
9.81697, 46, -24.6909, -32.6398, 47.8701, -141.623, -72.6727, 48.4818
9.82342, 46, -24.6438, -32.6943, 47.9061, -141.589, -72.6194, 48.6348
9.83137, 46, -24.5476, -32.8009, 47.9758, -141.524, -72.514, 48.9468
9.84189, 46, -24.4491, -32.9543, 48.0746, -141.435, -72.3572, 49.431
9.84751, 46, -24.3484, -33.0036, 48.1059, -141.406, -72.3052, 49.5968
9.85643, 47, -24.2453, -33.0994, 48.1658, -141.352, -72.2027, 49.9343
9.86412, 47, -24.1399, -33.1913, 48.2222, -141.304, -72.1008, 50.2799
9.87137, 47, -24.032, -33.2792, 48.275, -141.258, -71.9999, 50.6342
9.88036, 47, -23.9213, -33.3629, 48.3241, -141.216, -71.9006, 50.9967
9.89076, 47, -23.7502, -33.4805, 48.3905, -141.164, -71.7531, 51.5562
9.89764, 47, -23.6918, -33.5176, 48.4107, -141.149, -71.7045, 51.7468
9.90335, 48, -23.5728, -33.5883, 48.448, -141.122, -71.6089, 52.1342
9.91137, 48, -23.4512, -33.6545, 48.4812, -141.099, -71.5145, 52.5295
9.91961, 48, -23.3272, -33.7159, 48.5103, -141.081, -71.4217, 52.9338
9.92989, 48, -23.1363, -33.7988, 48.5462, -141.064, -71.2865, 53.5558
9.93636, 48, -23.0712, -33.8238, 48.556, -141.061, -71.2423, 53.7672
9.94343, 49, -22.939, -33.8702, 48.5723, -141.058, -71.1553, 54.1962
9.95135, 49, -22.8039, -33.9111, 48.5841, -141.059, -71.0702, 54.6325
9.95935, 49, -22.6658, -33.9465, 48.5912, -141.067, -70.9873, 55.0769
9.96751, 49, -22.5249, -33.9764, 48.5938, -141.08, -70.9067, 55.5289
9.9754, 49, -22.3812, -34.0006, 48.5919, -141.1, -70.828, 55.989
9.98335, 50, -22.2348, -34.0187, 48.585, -141.127, -70.7526, 56.4564
9.9923, 50, -22.0859, -34.0307, 48.5731, -141.158, -70.6794, 56.931
10.0029, 50, -21.8572, -34.0372, 48.5455, -141.217, -70.5759, 57.6583
10.0084, 50, -21.7795, -34.0363, 48.5337, -141.24, -70.5426, 57.9045
10.0187, 50, -21.5417, -34.0239, 48.4898, -141.318, -70.4495, 58.6541
10.0236, 51, -21.4609, -34.0163, 48.4725, -141.347, -70.4199, 58.9072
10.0325, 51, -21.2974, -33.9961, 48.4338, -141.41, -70.3635, 59.4188
10.0395, 51, -21.1311, -33.9689, 48.3893, -141.479, -70.3114, 59.9373
10.0477, 51, -20.9623, -33.9346, 48.3392, -141.555, -70.2624, 60.4625
10.0554, 51, -20.7909, -33.893, 48.2833, -141.637, -70.2174, 60.9935
10.0635, 52, -20.6168, -33.8439, 48.2216, -141.726, -70.1773, 61.5303
10.0721, 52, -20.4401, -33.7869, 48.1538, -141.82, -70.1417, 62.0738
10.0796, 52, -20.2606, -33.722, 48.0802, -141.921, -70.1101, 62.6232
10.0882, 52, -20.0784, -33.649, 48.0006, -142.028, -70.0836, 63.1778
10.0956, 52, -19.8937, -33.5678, 47.9148, -142.141, -70.0623, 63.7376
10.1046, 53, -19.7067, -33.478, 47.8227, -142.261, -70.0465, 64.303
10.1122, 53, -19.5178, -33.3796, 47.7245, -142.386, -70.0362, 64.8738
10.1212, 53, -19.3268, -33.2729, 47.6202, -142.518, -70.0313, 65.4492
10.1303, 53, -19.1336, -33.1577, 47.5097, -142.656, -70.0312, 66.0292
10.1357, 53, -18.9385, -33.0338, 47.3929, -142.799, -70.037, 66.6144
10.144, 54, -18.7414, -32.9009, 47.2696, -142.948, -70.0495, 67.2037
10.1525, 54, -18.5421, -32.7589, 47.1397, -143.103, -70.0688, 67.7965
10.1598, 54, -18.3405, -32.608, 47.0035, -143.262, -70.0955, 68.3926
10.172, 54, -18.0345, -32.3656, 46.7878, -143.512, -70.1491, 69.2939
10.1763, 54, -17.9317, -32.2803, 46.7127, -143.598, -70.1702, 69.5959
10.1845, 54, -17.7254, -32.1029, 46.5577, -143.773, -70.2183, 70.2014
10.1928, 55, -17.5181, -31.9163, 46.3966, -143.952, -70.2751, 70.8102
10.2002, 55, -17.3095, -31.7207, 46.2296, -144.137, -70.3385, 71.4222
10.208, 55, -17.2047, -31.6195, 46.0561, -144.325, -70.4108, 72.0358
10.2159, 55, -16.994, -31.4096, 45.9667, -144.421, -70.4497, 72.3431
10.2244, 55, -16.6759, -31.0761, 45.6892, -144.714, -70.579, 73.2689
10.2313, 56, -16.5693, -30.9604, 45.5939, -144.814, -70.6262, 73.5783
10.2393, 56, -16.3553, -30.7221, 45.3987, -145.016, -70.7267, 74.1976
10.2488, 56, -16.034, -30.346, 45.0929, -145.324, -70.894, 75.1278
10.257, 56, -15.9271, -30.084, 44.8823, -145.533, -71.016, 75.7492
10.2646, 56, -15.6065, -29.8123, 44.6659, -145.744, -71.1469, 76.3703
10.2713, 57, -15.4993, -29.673, 44.5552, -145.851, -71.2156, 76.6804
10.2809, 57, -15.1764, -29.2411, 44.2146, -146.173, -71.4348, 77.6108
10.2888, 57, -14.9604, -28.9405, 43.9806, -146.39, -71.5922, 78.2307
10.2972, 57, -14.7446, -28.6311, 43.7405, -146.608, -71.7587, 78.8489
10.3048, 57, -14.6368, -28.4729, 43.6188, -146.717, -71.9344, 79.4662
10.3113, 58, -14.4214, -28.1497, 43.3714, -146.937, -72.0257, 79.7746
10.321, 58, -14.0996, -27.6481, 42.9899, -147.267, -72.3127, 80.6972
10.3291, 58, -13.8863, -27.303, 42.7299, -147.487, -72.5155, 81.3088
10.3353, 58, -13.78, -27.1275, 42.5979, -147.597, -72.6203, 81.614
10.3441, 58, -13.5677, -26.7704, 42.3304, -147.817, -72.8365, 82.2221
10.3513, 59, -13.3562, -26.4061, 42.0587, -148.036, -73.0613, 82.8272
10.3604, 59, -13.1463, -26.0336, 41.7822, -148.253, -73.2945, 83.4275
10.3702, 59, -12.8346, -25.4612, 41.3612, -148.577, -73.6598, 84.3212
10.3756, 59, -12.7314, -25.2668, 41.2191, -148.684, -73.7855, 84.6169
10.3833, 59, -12.5259, -24.873, 40.9329, -148.895, -74.0429, 85.2046
10.3913, 60, -12.3217, -24.4714, 40.6433, -149.105, -74.3084, 85.7862
10.3994, 60, -12.1189, -24.0632, 40.3502, -149.312, -74.5815, 86.3633
10.4074, 60, -11.9178, -23.6487, 40.0545, -149.516, -74.8624, 86.9357
10.4153, 60, -11.7181, -23.2278, 39.7558, -149.717, -75.1509, 87.5023
10.4237, 60, -11.5203, -22.8014, 39.4553, -149.915, -75.4469, 88.063
10.4324, 61, -11.3248, -22.3696, 39.1522, -150.11, -75.7498, 88.6185
10.4404, 61, -11.1315, -21.9334, 38.8473, -150.3, -76.0597, 89.1677
10.4487, 61, -10.9404, -21.4925, 38.5403, -150.487, -76.3759, 89.7101
10.4572, 61, -10.7513, -21.0474, 38.2323, -150.67, -76.6984, 90.2446
10.4633, 61, -10.5643, -20.5983, 37.923, -150.848, -77.0267, 90.772
10.4714, 61, -10.3797, -20.145, 37.6133, -151.022, -77.3605, 91.2912
10.4794, 62, -10.1978, -19.6883, 37.3034, -151.191, -77.6992, 91.8025
10.4873, 62, -10.0188, -19.2286, 36.9934, -151.355, -78.0425, 92.3045
10.4966, 62, -9.84248, -18.7656, 36.6835, -151.514, -78.3902, 92.7982
10.5035, 62, -9.66891, -18.3003, 36.3735, -151.667, -78.7419, 93.2835
10.5123, 62, -9.49769, -17.8331, 36.0645, -151.816, -79.0975, 93.7593
10.5193, 63, -9.32876, -17.3646, 35.7562, -151.96, -79.4569, 94.2258
10.5274, 63, -9.16212, -16.8954, 35.4495, -152.098, -79.8196, 94.6817
10.5354, 63, -8.99797, -16.4253, 35.1433, -152.23, -80.1856, 95.1283
10.5434, 63, -8.83653, -15.9549, 34.8386, -152.357, -80.5543, 95.5639
10.5525, 63, -8.67777, -15.4846, 34.5353, -152.479, -80.925, 95.9892
10.5595, 64, -8.52163, -15.0144, 34.2347, -152.594, -81.2978, 96.4034
10.5674, 64, -8.36835, -14.5449, 33.9363, -152.704, -81.6718, 96.8053
10.5755, 64, -8.21774, -14.0758, 33.6403, -152.809, -82.0471, 97.1963
10.5834, 64, -8.06979, -13.6077, 33.3469, -152.908, -82.4236, 97.5754
10.5915, 64, -7.92455, -13.1412, 33.0561, -153, -82.8006, 97.9417
10.5997, 65, -7.78189, -12.6763, 32.7686, -153.087, -83.178, 98.2959
10.6087, 65, -7.64195, -12.2139, 32.4838, -153.169, -83.5555, 98.637
10.6164, 65, -7.50476, -11.7541, 32.2031, -153.244, -83.9331, 98.9643
10.6245, 65, -7.37042, -11.2965, 31.9256, -153.314, -84.3098, 99.2778
10.6325, 65, -7.2387, -10.8417, 31.6517, -153.378, -84.6863, 99.5777
10.6396, 66, -7.1096, -10.3898, 31.3817, -153.437, -85.0616, 99.8634
10.65, 66, -6.98284, -9.9408, 31.1151, -153.49, -85.4359, 100.134
10.6558, 66, -6.85853, -9.49497, 30.853, -153.537, -85.8093, 100.39
10.6646, 66, -6.73651, -9.05261, 30.5947, -153.579, -86.1811, 100.631
10.672, 66, -6.61683, -8.61458, 30.3404, -153.616, -86.5516, 100.856
10.6815, 67, -6.49957, -8.18009, 30.0906, -153.647, -86.9204, 101.065
10.6889, 67, -6.38473, -7.74998, 29.8445, -153.673, -87.2876, 101.257
10.6959, 67, -6.27242, -7.32469, 29.6032, -153.693, -87.6528, 101.433
10.7063, 67, -6.16227, -6.90373, 29.3668, -153.709, -88.0162, 101.592
10.7124, 67, -6.05429, -6.48739, 29.1344, -153.719, -88.3771, 101.734
10.7204, 68, -5.94848, -6.07554, 28.9071, -153.725, -88.7355, 101.858
10.729, 68, -5.89636, -5.87165, 28.7953, -153.726, -89.0915, 101.964
10.7368, 68, -5.74287, -5.2661, 28.4655, -153.724, -89.4451, 102.052
10.7434, 68, -5.69262, -5.06664, 28.3577, -153.72, -89.6209, 102.089
10.7515, 68, -5.59366, -4.67134, 28.1458, -153.71, -89.9712, 102.148
10.7594, 68, -5.49653, -4.28173, 27.938, -153.695, -90.3191, 102.189
10.7674, 69, -5.40127, -3.89698, 27.7345, -153.676, -90.6648, 102.211
10.7766, 69, -5.26179, -3.32966, 27.4395, -153.638, -91.1792, 102.211
10.7834, 69, -5.21615, -3.14313, 27.3433, -153.623, -91.3495, 102.2
10.7913, 69, -5.12622, -2.77432, 27.1536, -153.59, -91.6881, 102.164
10.8014, 69, -4.99427, -2.2298, 26.8777, -153.534, -92.1909, 102.07
10.8075, 70, -4.951, -2.051, 26.788, -153.513, -92.3573, 102.028
10.8153, 70, -4.86542, -1.69714, 26.6114, -153.468, -92.6881, 101.928
10.8257, 70, -4.73929, -1.17733, 26.3544, -153.396, -93.1796, 101.738
10.8313, 70, -4.6978, -1.00655, 26.2711, -153.37, -93.3423, 101.663
10.8409, 70, -4.61552, -0.669044, 26.1074, -153.315, -93.8268, 101.408
10.8483, 71, -4.53435, -0.337552, 25.9471, -153.258, -93.9871, 101.312
10.8555, 71, -4.45435, -0.0117226, 25.7908, -153.199, -94.3062, 101.104
10.8633, 71, -4.37527, 0.307844, 25.6393, -153.136, -94.6225, 100.874
10.8748, 71, -4.258, 0.777549, 25.42, -153.038, -95.0925, 100.489
10.8806, 71, -4.21932, 0.930981, 25.349, -153.004, -95.2478, 100.35
10.8873, 72, -4.14243, 1.23352, 25.2098, -152.936, -95.5564, 100.057
10.8954, 72, -4.06592, 1.52981, 25.0747, -152.865, -95.8619, 99.7416
10.9033, 72, -3.98964, 1.81915, 24.9434, -152.794, -96.1645, 99.4053
10.9114, 72, -3.91347, 2.10263, 24.8156, -152.722, -96.4641, 99.0483
10.9194, 72, -3.83738, 2.37924, 24.6915, -152.649, -96.7602, 98.6705
10.9276, 73, -3.76136, 2.64864, 24.5711, -152.575, -97.0532, 98.2718
10.9363, 73, -3.68531, 2.9114, 24.4544, -152.502, -97.3426, 97.8532
10.9444, 73, -3.60898, 3.16688, 24.3415, -152.428, -97.6289, 97.4145
10.9523, 73, -3.53243, 3.41548, 24.2325, -152.355, -97.9112, 96.9569
10.9593, 73, -3.45563, 3.65771, 24.1274, -152.282, -98.1894, 96.4812
10.9673, 74, -3.37838, 3.89202, 24.0264, -152.211, -98.4633, 95.9872
10.9756, 74, -3.30049, 4.11781, 23.929, -152.141, -98.7321, 95.4767
10.9852, 74, -3.22198, 4.33551, 23.8353, -152.073, -98.9955, 94.9497
10.9923, 74, -3.14261, 4.54425, 23.7454, -152.005, -99.2529, 94.4085
10.9997, 74, -3.06251, 4.74323, 23.6594, -151.941, -99.504, 93.8528
11.0086, 75, -2.98151, 4.93314, 23.5774, -151.879, -99.7486, 93.2832
11.0163, 75, -2.89955, 5.11407, 23.4995, -151.82, -99.986, 92.7007
11.0252, 75, -2.81665, 5.28474, 23.4257, -151.763, -100.216, 92.107
11.0324, 75, -2.73288, 5.44483, 23.3558, -151.71, -100.438, 91.5017
11.0393, 75, -2.6482, 5.5947, 23.2903, -151.66, -100.652, 90.8867
11.0474, 75, -2.56266, 5.73364, 23.2291, -151.613, -100.857, 90.2639
11.0589, 76, -2.47616, 5.86112, 23.1724, -151.57, -101.052, 89.3176
11.0634, 76, -2.38852, 5.97684, 23.1205, -151.531, -101.237, 88.9991
11.0718, 76, -2.30005, 6.0803, 23.0731, -151.496, -101.411, 88.3589
11.0796, 76, -2.21078, 6.17115, 23.0303, -151.464, -101.574, 87.7161
11.0883, 76, -2.12063, 6.24901, 22.9924, -151.436, -101.724, 87.0697
11.0961, 77, -2.02963, 6.31348, 22.9595, -151.413, -101.862, 86.4212
11.1043, 77, -1.93768, 6.36441, 22.9319, -151.393, -101.988, 85.7722
11.1114, 77, -1.84492, 6.40121, 22.9097, -151.378, -102.1, 85.1236
11.1194, 77, -1.75148, 6.42367, 22.8932, -151.366, -102.198, 84.4752
11.1279, 77, -1.65734, 6.43194, 22.8825, -151.359, -102.282, 83.8289
11.1358, 78, -1.56248, 6.42549, 22.8775, -151.355, -102.35, 83.1871
11.1436, 78, -1.46697, 6.40395, 22.878, -151.353, -102.404, 82.5496
11.1517, 78, -1.37096, 6.3672, 22.8846, -151.354, -102.441, 81.9182
11.1597, 78, -1.2745, 6.31439, 22.8975, -151.359, -102.462, 81.2944
11.1678, 78, -1.17768, 6.24527, 22.9168, -151.367, -102.468, 80.678
11.1766, 79, -1.08069, 6.15972, 22.943, -151.378, -102.456, 80.0682
11.1849, 79, -0.983468, 6.05778, 22.9764, -151.393, -102.426, 79.4651
11.1919, 79, -0.886206, 5.9395, 23.0173, -151.41, -102.379, 78.8699
11.2008, 79, -0.789043, 5.80489, 23.0658, -151.431, -102.314, 78.2813
11.2112, 79, -0.691962, 5.6536, 23.1221, -151.454, -102.231, 77.7002
11.2159, 80, -0.643422, 5.57178, 23.1532, -151.48, -102.129, 77.1283
11.2263, 80, -0.497673, 5.30166, 23.2579, -151.508, -102.009, 76.5675
11.2324, 80, -0.40061, 5.10122, 23.3377, -151.537, -101.87, 76.0167
11.2393, 80, -0.352081, 4.99466, 23.3806, -151.552, -101.794, 75.7454
11.2473, 80, -0.255162, 4.76773, 23.4726, -151.583, -101.627, 75.2111
11.2568, 81, -0.109847, 4.39392, 23.6265, -151.633, -101.341, 74.4306
11.2634, 81, -0.0615145, 4.26112, 23.6821, -151.65, -101.236, 74.1757
11.2714, 81, 0.0348961, 3.98288, 23.8, -151.685, -101.013, 73.6732
11.2807, 81, 0.17918, 3.53486, 23.9942, -151.738, -100.643, 72.9379
11.2873, 81, 0.227117, 3.37714, 24.0638, -151.757, -100.51, 72.6978
11.2968, 82, 0.370678, 2.87852, 24.2868, -151.812, -100.083, 71.9921
11.3035, 82, 0.418483, 2.70406, 24.3657, -151.831, -99.9312, 71.7616
11.3114, 82, 0.513809, 2.34272, 24.5303, -151.868, -99.6136, 71.3079
11.3209, 82, 0.656664, 1.77044, 24.7949, -151.923, -99.1031, 70.6451
11.3362, 82, 0.799138, 1.16003, 25.081, -151.977, -98.5521, 70.0043
11.3384, 83, 0.84661, 0.948345, 25.1811, -151.995, -98.3597, 69.7953
11.3434, 83, 0.894058, 0.73302, 25.2838, -152.013, -98.1631, 69.5884
11.3533, 83, 1.03633, 0.0641547, 25.6086, -152.065, -97.5472, 68.9815
11.3595, 83, 1.08384, -0.166321, 25.7218, -152.081, -97.3336, 68.7835
11.3674, 83, 1.17891, -0.638856, 25.9551, -152.114, -96.8936, 68.394
11.379, 84, 1.32183, -1.37525, 26.3249, -152.16, -96.2034, 67.8266
11.3844, 84, 1.36962, -1.62783, 26.4532, -152.175, -95.9652, 67.6417
11.3914, 84, 1.46528, -2.14284, 26.7178, -152.204, -95.4774, 67.2777
11.3994, 84, 1.56118, -2.67105, 26.9931, -152.231, -94.9741, 66.9221
11.4075, 84, 1.65745, -3.2121, 27.2779, -152.256, -94.4558, 66.5745
11.4195, 85, 1.80273, -4.04742, 27.7245, -152.291, -93.6518, 66.0676
11.4244, 85, 1.85141, -4.33191, 27.8779, -152.301, -93.3768, 65.903
11.435, 85, 1.99807, -5.20147, 28.3523, -152.329, -92.5315, 65.4227
11.4395, 85, 2.04729, -5.49659, 28.5146, -152.338, -92.2436, 65.2669
11.4473, 85, 2.1462, -6.09416, 28.8462, -152.352, -91.6606, 64.9616
11.4554, 85, 2.24569, -6.70041, 29.1859, -152.364, -91.0676, 64.666
11.4633, 86, 2.34593, -7.31499, 29.5339, -152.373, -90.4642, 64.3794
11.4714, 86, 2.44667, -7.93698, 29.8894, -152.38, -89.8506, 64.1027
11.4794, 86, 2.54816, -8.56564, 30.2529, -152.383, -89.2275, 63.8359
11.4875, 86, 2.65042, -9.20084, 30.6229, -152.384, -88.5972, 63.58
11.497, 86, 2.75357, -9.84153, 30.9996, -152.383, -87.9614, 63.3347
11.5033, 87, 2.85778, -10.4874, 31.3832, -152.379, -87.3187, 63.1003
11.5125, 87, 2.96251, -11.1368, 31.7727, -152.37, -86.6693, 62.8773
11.5193, 87, 3.06806, -11.7895, 32.1674, -152.358, -86.0141, 62.666
11.5274, 87, 3.17461, -12.4447, 32.5668, -152.341, -85.3542, 62.4674
11.5353, 87, 3.28173, -13.1021, 32.9715, -152.321, -84.6912, 62.2817
11.5433, 88, 3.38968, -13.7608, 33.3807, -152.296, -84.0246, 62.1092
11.5515, 88, 3.49832, -14.4201, 33.7931, -152.268, -83.3548, 61.9511
11.5594, 88, 3.60756, -15.0797, 34.209, -152.235, -82.6823, 61.8077
11.5683, 88, 3.71754, -15.7385, 34.6278, -152.198, -82.0079, 61.6796
11.5775, 88, 3.82791, -16.3963, 35.0489, -152.156, -81.3336, 61.5676
11.5837, 89, 3.93833, -17.0518, 35.4722, -152.11, -80.6595, 61.4724
11.5921, 89, 4.04913, -17.7047, 35.8969, -152.059, -79.9852, 61.3952
11.5995, 89, 4.16035, -18.3545, 36.3226, -152.003, -79.3106, 61.3357
11.608, 89, 4.27193, -19.0012, 36.7496, -151.942, -78.6351, 61.2954
11.6202, 89, 4.4398, -19.9638, 37.3902, -151.84, -77.6266, 61.2714
11.6237, 89, 4.49572, -20.2824, 37.6037, -151.804, -77.2916, 61.2732
11.6324, 90, 4.60779, -20.9166, 38.031, -151.727, -76.6215, 61.2946
11.6396, 90, 4.71992, -21.5464, 38.458, -151.643, -75.9516, 61.3389
11.6483, 90, 4.83174, -22.1713, 38.8847, -151.555, -75.2831, 61.4064
11.6556, 90, 4.94344, -22.7914, 39.3109, -151.46, -74.6169, 61.4982
11.6637, 90, 5.05503, -23.4063, 39.7365, -151.359, -73.9529, 61.6156
11.6726, 91, 5.16669, -24.0161, 40.1609, -151.251, -73.2898, 61.7595
11.6809, 91, 5.2782, -24.6199, 40.5839, -151.138, -72.6283, 61.9311
11.6889, 91, 5.38935, -25.218, 41.0056, -151.018, -71.9686, 62.1309
11.699, 91, 5.50014, -25.8102, 41.4254, -150.891, -71.3101, 62.3603
11.7039, 91, 5.61063, -26.396, 41.8432, -150.759, -70.6543, 62.6199
