hehonglu123/Motion-Primitive-Planning/simulation/robotstudio_sim/multimove/recorded_data/curve_exe_v5000_z10.csv
timestamp, cmd_num, J1, J2, J3, J4, J5, J6, J1_2, J2_2, J3_2, J4_2, J5_2, J6_2
0.002, -1, -38.5153, 0.883568, 9.92898, -135.091, -71.6914, 137.482, 81.8858, 23.0902, -144.68, -62.3185, 46.4302, -281.662
0.006, -1, -38.5153, 0.883568, 9.92898, -135.091, -71.6914, 137.482, 81.8858, 23.0902, -144.68, -62.3185, 46.4302, -281.662
0.01, -1, -38.5153, 0.883568, 9.92898, -135.091, -71.6914, 137.482, 81.8858, 23.0902, -144.68, -62.3185, 46.4302, -281.662
0.011, -1, -38.5153, 0.883568, 9.92898, -135.091, -71.6914, 137.482, 81.8858, 23.0902, -144.68, -62.3185, 46.4302, -281.662
0.013, -1, -38.5153, 0.883568, 9.92898, -135.091, -71.6914, 137.482, 81.8858, 23.0902, -144.68, -62.3185, 46.4302, -281.662
0.016, -1, -38.5153, 0.883568, 9.92898, -135.091, -71.6914, 137.482, 81.8858, 23.0902, -144.68, -62.3185, 46.4302, -281.662
0.02, -1, -38.5153, 0.883568, 9.92898, -135.091, -71.6914, 137.482, 81.8858, 23.0902, -144.68, -62.3185, 46.4302, -281.662
0.024, -1, -38.5153, 0.883568, 9.92898, -135.091, -71.6914, 137.482, 81.8858, 23.0902, -144.68, -62.3185, 46.4302, -281.662
0.028, -1, -38.5153, 0.883568, 9.92898, -135.091, -71.6914, 137.482, 81.8858, 23.0902, -144.68, -62.3185, 46.4302, -281.662
0.032, -1, -38.5153, 0.883568, 9.92898, -135.091, -71.6914, 137.482, 81.8858, 23.0902, -144.68, -62.3185, 46.4302, -281.662
0.036, -1, -38.5153, 0.883568, 9.92898, -135.091, -71.6914, 137.482, 81.8858, 23.0902, -144.68, -62.3185, 46.4302, -281.662
0.04, -1, -38.5152, 0.883567, 9.92898, -135.091, -71.6914, 137.482, 81.8858, 23.0902, -144.68, -62.3185, 46.4302, -281.662
0.044, -1, -38.5148, 0.883558, 9.92902, -135.091, -71.6914, 137.482, 81.8858, 23.0902, -144.68, -62.3185, 46.4302, -281.662
0.048, -1, -38.5137, 0.883533, 9.92914, -135.091, -71.6914, 137.482, 81.8858, 23.0902, -144.68, -62.3185, 46.4302, -281.662
0.052, -1, -38.5115, 0.883481, 9.92939, -135.091, -71.6915, 137.482, 81.8858, 23.0902, -144.68, -62.3185, 46.4302, -281.662
0.056, -1, -38.508, 0.883398, 9.92981, -135.091, -71.6918, 137.482, 81.8859, 23.0905, -144.68, -62.3185, 46.4303, -281.662
0.06, -1, -38.5031, 0.883284, 9.9304, -135.09, -71.6923, 137.482, 81.8862, 23.0913, -144.68, -62.3185, 46.4304, -281.662
0.064, -1, -38.4966, 0.883145, 9.93116, -135.09, -71.6933, 137.482, 81.8869, 23.0933, -144.679, -62.3184, 46.4308, -281.662
0.068, -1, -38.4887, 0.882991, 9.93208, -135.089, -71.6948, 137.483, 81.8879, 23.0967, -144.678, -62.3184, 46.4318, -281.662
0.072, -1, -38.4794, 0.882838, 9.93312, -135.087, -71.6972, 137.484, 81.8892, 23.1022, -144.675, -62.3185, 46.4337, -281.661
0.076, -1, -38.4685, 0.882703, 9.93424, -135.085, -71.7008, 137.485, 81.8906, 23.1101, -144.672, -62.3187, 46.4372, -281.661
0.08, -1, -38.4558, 0.882597, 9.93542, -135.082, -71.7057, 137.487, 81.8918, 23.1209, -144.668, -62.3193, 46.4431, -281.66
0.084, -1, -38.4409, 0.882531, 9.93666, -135.078, -71.7123, 137.489, 81.8924, 23.1346, -144.662, -62.3202, 46.4522, -281.658
0.088, -1, -38.4234, 0.882513, 9.93794, -135.072, -71.7208, 137.492, 81.8919, 23.1514, -144.655, -62.3217, 46.4652, -281.656
0.092, -1, -38.4034, 0.882566, 9.93921, -135.065, -71.7315, 137.496, 81.89, 23.1715, -144.647, -62.324, 46.483, -281.653
0.096, -1, -38.381, 0.882718, 9.94038, -135.056, -71.7447, 137.501, 81.8865, 23.1954, -144.637, -62.327, 46.5062, -281.65
0.1, -1, -38.3564, 0.882995, 9.94136, -135.046, -71.7605, 137.507, 81.8813, 23.2235, -144.625, -62.331, 46.5353, -281.645
0.104, -1, -38.3298, 0.883413, 9.9421, -135.034, -71.7791, 137.514, 81.8741, 23.2558, -144.612, -62.3358, 46.5706, -281.639
0.108, -1, -38.301, 0.883974, 9.94259, -135.02, -71.8004, 137.522, 81.8651, 23.2924, -144.597, -62.3416, 46.612, -281.632
0.112, -1, -38.2702, 0.884673, 9.94286, -135.004, -71.8245, 137.531, 81.8541, 23.3333, -144.58, -62.3484, 46.6596, -281.624
0.116, -1, -38.2372, 0.885495, 9.94297, -134.987, -71.8511, 137.541, 81.8413, 23.3781, -144.561, -62.3559, 46.7131, -281.615
0.12, -1, -38.2017, 0.886414, 9.943, -134.967, -71.8801, 137.552, 81.8269, 23.4265, -144.541, -62.3643, 46.7718, -281.605
0.124, -1, -38.1635, 0.887405, 9.94303, -134.947, -71.9113, 137.563, 81.811, 23.478, -144.52, -62.3734, 46.8351, -281.595
0.128, -1, -38.1229, 0.888451, 9.94312, -134.925, -71.9444, 137.576, 81.794, 23.5325, -144.497, -62.383, 46.9021, -281.584
0.131, -1, -38.0803, 0.889543, 9.94325, -134.902, -71.979, 137.589, 81.7766, 23.5899, -144.474, -62.393, 46.9722, -281.572
0.136, -1, -38.036, 0.890672, 9.94344, -134.879, -72.015, 137.602, 81.759, 23.65, -144.449, -62.4033, 47.0443, -281.56
0.139, -1, -37.9902, 0.891822, 9.94371, -134.854, -72.052, 137.616, 81.7415, 23.7124, -144.423, -62.4137, 47.1179, -281.548
0.144, -1, -37.9429, 0.892973, 9.94411, -134.829, -72.0898, 137.63, 81.7244, 23.7767, -144.396, -62.4242, 47.1923, -281.535
0.148, -1, -37.8941, 0.894108, 9.94469, -134.804, -72.1282, 137.645, 81.7075, 23.8425, -144.369, -62.4347, 47.2672, -281.523
0.152, -1, -37.8437, 0.895217, 9.94544, -134.779, -72.167, 137.659, 81.691, 23.9093, -144.341, -62.4451, 47.3422, -281.51
0.156, -1, -37.7919, 0.896297, 9.94638, -134.753, -72.2059, 137.674, 81.6746, 23.9766, -144.314, -62.4556, 47.4174, -281.498
0.16, -1, -37.7388, 0.897346, 9.94747, -134.727, -72.245, 137.688, 81.6583, 24.044, -144.286, -62.466, 47.4926, -281.485
0.164, -1, -37.6848, 0.898372, 9.94868, -134.702, -72.2842, 137.703, 81.642, 24.1116, -144.258, -62.4764, 47.5678, -281.473
0.168, -1, -37.6301, 0.899385, 9.94995, -134.676, -72.3234, 137.718, 81.6256, 24.1791, -144.23, -62.4869, 47.6431, -281.46
0.172, -1, -37.5753, 0.900394, 9.95124, -134.65, -72.3626, 137.732, 81.6093, 24.2467, -144.202, -62.4973, 47.7183, -281.448
0.176, -1, -37.5203, 0.901402, 9.95253, -134.624, -72.4018, 137.747, 81.593, 24.3142, -144.174, -62.5078, 47.7936, -281.435
0.18, -1, -37.4654, 0.90241, 9.95383, -134.599, -72.4411, 137.762, 81.5767, 24.3818, -144.146, -62.5182, 47.8689, -281.423
0.184, -1, -37.4105, 0.903419, 9.95513, -134.573, -72.4803, 137.776, 81.5603, 24.4494, -144.118, -62.5287, 47.9442, -281.41
0.188, -1, -37.3556, 0.904428, 9.95642, -134.547, -72.5196, 137.791, 81.544, 24.517, -144.09, -62.5391, 48.0195, -281.398
0.192, -1, -37.3006, 0.905437, 9.95772, -134.521, -72.5588, 137.806, 81.5276, 24.5847, -144.062, -62.5496, 48.0949, -281.385
0.196, -1, -37.2456, 0.906446, 9.95902, -134.496, -72.5981, 137.82, 81.5113, 24.6523, -144.034, -62.5601, 48.1702, -281.373
0.2, -1, -37.1907, 0.907456, 9.96032, -134.47, -72.6374, 137.835, 81.4949, 24.72, -144.006, -62.5705, 48.2456, -281.36
0.204, -1, -37.1357, 0.908466, 9.96161, -134.444, -72.6767, 137.85, 81.4786, 24.7877, -143.978, -62.581, 48.321, -281.348
0.208, -1, -37.0807, 0.909476, 9.96291, -134.418, -72.716, 137.864, 81.4622, 24.8553, -143.949, -62.5914, 48.3964, -281.335
0.212, -1, -37.0257, 0.910486, 9.96421, -134.392, -72.7553, 137.879, 81.4458, 24.9231, -143.921, -62.6019, 48.4718, -281.323
0.216, -1, -36.9706, 0.911497, 9.96551, -134.367, -72.7946, 137.894, 81.4295, 24.9908, -143.893, -62.6124, 48.5473, -281.31
0.22, -1, -36.9156, 0.912508, 9.96681, -134.341, -72.8339, 137.908, 81.4131, 25.0585, -143.865, -62.6229, 48.6228, -281.298
0.224, -1, -36.8605, 0.913518, 9.96811, -134.315, -72.8732, 137.923, 81.3967, 25.1263, -143.837, -62.6333, 48.6982, -281.285
0.228, -1, -36.8055, 0.91453, 9.96941, -134.289, -72.9126, 137.938, 81.3803, 25.1941, -143.809, -62.6438, 48.7737, -281.273
0.232, -1, -36.7504, 0.915541, 9.97071, -134.263, -72.9519, 137.952, 81.364, 25.2618, -143.781, -62.6543, 48.8493, -281.26
0.236, -1, -36.6953, 0.916553, 9.97201, -134.238, -72.9913, 137.967, 81.3476, 25.3296, -143.753, -62.6648, 48.9248, -281.248
0.24, -1, -36.6402, 0.917565, 9.97331, -134.212, -73.0306, 137.982, 81.3312, 25.3975, -143.725, -62.6753, 49.0003, -281.235
0.244, -1, -36.5851, 0.918577, 9.97461, -134.186, -73.07, 137.997, 81.3148, 25.4653, -143.697, -62.6858, 49.0759, -281.222
0.248, -1, -36.5299, 0.919589, 9.97591, -134.16, -73.1094, 138.011, 81.2984, 25.5332, -143.669, -62.6963, 49.1515, -281.21
0.252, -1, -36.4748, 0.920602, 9.97721, -134.134, -73.1488, 138.026, 81.282, 25.601, -143.641, -62.7068, 49.2271, -281.197
0.256, -1, -36.4196, 0.921615, 9.97852, -134.108, -73.1882, 138.041, 81.2656, 25.6689, -143.612, -62.7173, 49.3027, -281.185
0.26, -1, -36.3645, 0.922628, 9.97982, -134.082, -73.2276, 138.055, 81.2491, 25.7368, -143.584, -62.7278, 49.3784, -281.172
0.264, -1, -36.3093, 0.923641, 9.98112, -134.057, -73.2671, 138.07, 81.2327, 25.8047, -143.556, -62.7383, 49.454, -281.16
0.268, -1, -36.2541, 0.924655, 9.98242, -134.031, -73.3065, 138.085, 81.2163, 25.8726, -143.528, -62.7488, 49.5297, -281.147
0.272, -1, -36.1989, 0.925669, 9.98373, -134.005, -73.3459, 138.1, 81.1999, 25.9406, -143.5, -62.7593, 49.6054, -281.135
0.276, -1, -36.1436, 0.926683, 9.98503, -133.979, -73.3854, 138.114, 81.1835, 26.0086, -143.472, -62.7698, 49.6811, -281.122
0.28, -1, -36.0884, 0.927697, 9.98633, -133.953, -73.4248, 138.129, 81.167, 26.0765, -143.444, -62.7803, 49.7568, -281.109
0.284, -1, -36.0332, 0.928712, 9.98764, -133.927, -73.4643, 138.144, 81.1506, 26.1445, -143.415, -62.7908, 49.8326, -281.097
0.288, -1, -35.9779, 0.929726, 9.98894, -133.901, -73.5038, 138.159, 81.1342, 26.2125, -143.387, -62.8013, 49.9084, -281.084
0.292, -1, -35.9226, 0.930741, 9.99025, -133.875, -73.5433, 138.173, 81.1177, 26.2806, -143.359, -62.8118, 49.9841, -281.072
0.296, -1, -35.8673, 0.931757, 9.99155, -133.849, -73.5828, 138.188, 81.1013, 26.3486, -143.331, -62.8224, 50.0599, -281.059
0.3, -1, -35.812, 0.932772, 9.99286, -133.823, -73.6223, 138.203, 81.0848, 26.4167, -143.303, -62.8329, 50.1358, -281.046
0.304, -1, -35.7567, 0.933788, 9.99416, -133.797, -73.6618, 138.218, 81.0684, 26.4847, -143.275, -62.8434, 50.2116, -281.034
0.308, -1, -35.7014, 0.934804, 9.99547, -133.771, -73.7013, 138.232, 81.0519, 26.5528, -143.246, -62.8539, 50.2875, -281.021
0.312, -1, -35.6461, 0.93582, 9.99677, -133.746, -73.7409, 138.247, 81.0354, 26.6209, -143.218, -62.8645, 50.3633, -281.009
0.316, -1, -35.5907, 0.936837, 9.99808, -133.72, -73.7804, 138.262, 81.019, 26.6891, -143.19, -62.875, 50.4392, -280.996
0.32, -1, -35.5353, 0.937853, 9.99939, -133.694, -73.82, 138.277, 81.0025, 26.7572, -143.162, -62.8855, 50.5151, -280.983
0.324, -1, -35.48, 0.93887, 10.0007, -133.668, -73.8595, 138.291, 80.986, 26.8254, -143.133, -62.8961, 50.5911, -280.971
0.328, -1, -35.4246, 0.939887, 10.002, -133.642, -73.8991, 138.306, 80.9695, 26.8935, -143.105, -62.9066, 50.667, -280.958
0.332, -1, -35.3692, 0.940905, 10.0033, -133.616, -73.9387, 138.321, 80.9531, 26.9617, -143.077, -62.9172, 50.743, -280.946
0.336, -1, -35.3137, 0.941922, 10.0046, -133.59, -73.9783, 138.336, 80.9366, 27.0299, -143.049, -62.9277, 50.8189, -280.933
0.34, -1, -35.2583, 0.94294, 10.0059, -133.564, -74.0179, 138.351, 80.9201, 27.0982, -143.02, -62.9383, 50.8949, -280.92
0.344, -1, -35.2029, 0.943959, 10.0072, -133.538, -74.0575, 138.365, 80.9036, 27.1664, -142.992, -62.9488, 50.971, -280.908
0.348, -1, -35.1474, 0.944977, 10.0085, -133.512, -74.0971, 138.38, 80.8871, 27.2346, -142.964, -62.9594, 51.047, -280.895
0.352, -1, -35.0919, 0.945996, 10.0099, -133.486, -74.1367, 138.395, 80.8706, 27.3029, -142.936, -62.9699, 51.1231, -280.883
0.356, -1, -35.0364, 0.947014, 10.0112, -133.46, -74.1764, 138.41, 80.8541, 27.3712, -142.907, -62.9805, 51.1991, -280.87
0.36, -1, -34.9809, 0.948034, 10.0125, -133.434, -74.216, 138.425, 80.8376, 27.4395, -142.879, -62.9911, 51.2752, -280.857
0.364, -1, -34.9254, 0.949053, 10.0138, -133.408, -74.2557, 138.439, 80.821, 27.5078, -142.851, -63.0016, 51.3513, -280.845
0.368, -1, -34.8699, 0.950072, 10.0151, -133.382, -74.2953, 138.454, 80.8045, 27.5762, -142.822, -63.0122, 51.4275, -280.832
0.372, -1, -34.8144, 0.951092, 10.0164, -133.355, -74.335, 138.469, 80.788, 27.6445, -142.794, -63.0228, 51.5036, -280.819
0.376, -1, -34.7588, 0.952112, 10.0177, -133.329, -74.3747, 138.484, 80.7715, 27.7129, -142.766, -63.0333, 51.5798, -280.807
0.38, -1, -34.7033, 0.953133, 10.019, -133.303, -74.4144, 138.499, 80.7549, 27.7813, -142.737, -63.0439, 51.6559, -280.794
0.384, -1, -34.6477, 0.954154, 10.0203, -133.277, -74.4541, 138.513, 80.7384, 27.8497, -142.709, -63.0545, 51.7322, -280.781
0.388, -1, -34.5921, 0.955174, 10.0217, -133.251, -74.4938, 138.528, 80.7219, 27.9181, -142.681, -63.0651, 51.8084, -280.769
0.392, -1, -34.5365, 0.956195, 10.023, -133.225, -74.5336, 138.543, 80.7053, 27.9865, -142.652, -63.0756, 51.8846, -280.756
0.396, -1, -34.4809, 0.957217, 10.0243, -133.199, -74.5733, 138.558, 80.6888, 28.055, -142.624, -63.0862, 51.9609, -280.743
0.4, -1, -34.4252, 0.958238, 10.0256, -133.173, -74.613, 138.573, 80.6722, 28.1234, -142.596, -63.0968, 52.0371, -280.731
0.404, -1, -34.3696, 0.95926, 10.0269, -133.147, -74.6528, 138.588, 80.6557, 28.1919, -142.567, -63.1074, 52.1134, -280.718
0.408, -1, -34.3139, 0.960282, 10.0282, -133.121, -74.6926, 138.603, 80.6391, 28.2604, -142.539, -63.118, 52.1897, -280.705
0.412, -1, -34.2582, 0.961305, 10.0295, -133.095, -74.7323, 138.617, 80.6225, 28.3289, -142.511, -63.1286, 52.2661, -280.693
0.416, -1, -34.2026, 0.962327, 10.0308, -133.069, -74.7721, 138.632, 80.606, 28.3975, -142.482, -63.1392, 52.3424, -280.68
0.42, -1, -34.1469, 0.96335, 10.0322, -133.042, -74.8119, 138.647, 80.5894, 28.466, -142.454, -63.1498, 52.4188, -280.667
0.424, -1, -34.0911, 0.964373, 10.0335, -133.016, -74.8517, 138.662, 80.5728, 28.5346, -142.425, -63.1604, 52.4952, -280.655
0.428, -1, -34.0354, 0.965396, 10.0348, -132.99, -74.8915, 138.677, 80.5563, 28.6032, -142.397, -63.171, 52.5716, -280.642
0.432, -1, -33.9797, 0.96642, 10.0361, -132.964, -74.9314, 138.692, 80.5397, 28.6718, -142.369, -63.1816, 52.648, -280.629
0.436, -1, -33.9239, 0.967444, 10.0374, -132.938, -74.9712, 138.707, 80.5231, 28.7404, -142.34, -63.1922, 52.7245, -280.617
0.44, -1, -33.8681, 0.968468, 10.0387, -132.912, -75.011, 138.721, 80.5065, 28.809, -142.312, -63.2028, 52.8009, -280.604
0.444, -1, -33.8124, 0.969492, 10.0401, -132.886, -75.0509, 138.736, 80.4899, 28.8777, -142.283, -63.2135, 52.8774, -280.591
0.448, -1, -33.7566, 0.970517, 10.0414, -132.859, -75.0907, 138.751, 80.4733, 28.9464, -142.255, -63.2241, 52.9539, -280.578
0.452, -1, -33.7008, 0.971542, 10.0427, -132.833, -75.1306, 138.766, 80.4567, 29.0151, -142.226, -63.2347, 53.0304, -280.566
0.456, -1, -33.6449, 0.972567, 10.044, -132.807, -75.1705, 138.781, 80.4401, 29.0838, -142.198, -63.2453, 53.1069, -280.553
0.46, -1, -33.5891, 0.973592, 10.0453, -132.781, -75.2104, 138.796, 80.4235, 29.1525, -142.169, -63.2559, 53.1835, -280.54
0.464, -1, -33.5332, 0.974618, 10.0466, -132.755, -75.2503, 138.811, 80.4068, 29.2212, -142.141, -63.2666, 53.2601, -280.528
0.468, -1, -33.4774, 0.975644, 10.048, -132.729, -75.2902, 138.826, 80.3902, 29.29, -142.112, -63.2772, 53.3367, -280.515
0.472, -1, -33.4215, 0.97667, 10.0493, -132.702, -75.3301, 138.841, 80.3736, 29.3587, -142.084, -63.2878, 53.4133, -280.502
0.476, -1, -33.3656, 0.977696, 10.0506, -132.676, -75.37, 138.856, 80.357, 29.4275, -142.055, -63.2985, 53.4899, -280.489
0.48, -1, -33.3097, 0.978723, 10.0519, -132.65, -75.41, 138.87, 80.3403, 29.4963, -142.027, -63.3091, 53.5666, -280.477
0.484, -1, -33.2538, 0.97975, 10.0532, -132.624, -75.4499, 138.885, 80.3237, 29.5652, -141.998, -63.3198, 53.6432, -280.464
0.488, -1, -33.1978, 0.980777, 10.0546, -132.597, -75.4899, 138.9, 80.307, 29.634, -141.97, -63.3304, 53.7199, -280.451
0.492, -1, -33.1419, 0.981804, 10.0559, -132.571, -75.5299, 138.915, 80.2904, 29.7029, -141.941, -63.341, 53.7966, -280.439
0.496, -1, -33.0859, 0.982832, 10.0572, -132.545, -75.5698, 138.93, 80.2737, 29.7717, -141.913, -63.3517, 53.8734, -280.426
0.5, -1, -33.0299, 0.98386, 10.0585, -132.519, -75.6098, 138.945, 80.2571, 29.8406, -141.884, -63.3624, 53.9501, -280.413
0.504, -1, -32.974, 0.984888, 10.0598, -132.492, -75.6498, 138.96, 80.2404, 29.9095, -141.856, -63.373, 54.0269, -280.4
0.508, -1, -32.9179, 0.985916, 10.0612, -132.466, -75.6898, 138.975, 80.2238, 29.9785, -141.827, -63.3837, 54.1037, -280.388
0.512, -1, -32.8619, 0.986945, 10.0625, -132.44, -75.7299, 138.99, 80.2071, 30.0474, -141.799, -63.3943, 54.1805, -280.375
0.516, -1, -32.8059, 0.987974, 10.0638, -132.414, -75.7699, 139.005, 80.1904, 30.1164, -141.77, -63.405, 54.2573, -280.362
0.52, -1, -32.7498, 0.989003, 10.0651, -132.387, -75.8099, 139.02, 80.1738, 30.1853, -141.742, -63.4157, 54.3341, -280.349
0.524, -1, -32.6938, 0.990032, 10.0665, -132.361, -75.85, 139.035, 80.1571, 30.2543, -141.713, -63.4263, 54.411, -280.337
0.528, -1, -32.6377, 0.991062, 10.0678, -132.335, -75.8901, 139.05, 80.1404, 30.3234, -141.684, -63.437, 54.4879, -280.324
0.532, -1, -32.5816, 0.992092, 10.0691, -132.308, -75.9301, 139.065, 80.1237, 30.3924, -141.656, -63.4477, 54.5648, -280.311
0.536, -1, -32.5255, 0.993122, 10.0704, -132.282, -75.9702, 139.08, 80.107, 30.4614, -141.627, -63.4584, 54.6417, -280.298
0.54, -1, -32.4694, 0.994153, 10.0718, -132.256, -76.0103, 139.095, 80.0903, 30.5305, -141.599, -63.469, 54.7187, -280.285
0.544, -1, -32.4133, 0.995184, 10.0731, -132.229, -76.0504, 139.11, 80.0736, 30.5996, -141.57, -63.4797, 54.7956, -280.273
0.548, -1, -32.3571, 0.996215, 10.0744, -132.203, -76.0905, 139.125, 80.0569, 30.6687, -141.541, -63.4904, 54.8726, -280.26
0.552, -1, -32.3009, 0.997246, 10.0757, -132.177, -76.1306, 139.14, 80.0402, 30.7378, -141.513, -63.5011, 54.9496, -280.247
0.556, -1, -32.2448, 0.998278, 10.0771, -132.15, -76.1708, 139.155, 80.0235, 30.8069, -141.484, -63.5118, 55.0266, -280.234
0.56, -1, -32.1886, 0.99931, 10.0784, -132.124, -76.2109, 139.17, 80.0067, 30.8761, -141.455, -63.5225, 55.1037, -280.222
0.564, -1, -32.1324, 1.00034, 10.0797, -132.098, -76.2511, 139.185, 79.99, 30.9453, -141.427, -63.5332, 55.1807, -280.209
0.568, -1, -32.0761, 1.00137, 10.081, -132.071, -76.2912, 139.2, 79.9733, 31.0145, -141.398, -63.5439, 55.2578, -280.196
0.572, -1, -32.0199, 1.00241, 10.0824, -132.045, -76.3314, 139.215, 79.9566, 31.0837, -141.369, -63.5546, 55.3349, -280.183
0.576, -1, -31.9637, 1.00344, 10.0837, -132.019, -76.3716, 139.23, 79.9398, 31.1529, -141.341, -63.5653, 55.412, -280.17
0.58, -1, -31.9074, 1.00447, 10.085, -131.992, -76.4118, 139.245, 79.9231, 31.2222, -141.312, -63.576, 55.4892, -280.158
0.584, -1, -31.8511, 1.00551, 10.0863, -131.966, -76.452, 139.26, 79.9063, 31.2914, -141.283, -63.5867, 55.5663, -280.145
0.588, -1, -31.7948, 1.00654, 10.0877, -131.939, -76.4922, 139.275, 79.8896, 31.3607, -141.255, -63.5974, 55.6435, -280.132
0.592, -1, -31.7385, 1.00757, 10.089, -131.913, -76.5324, 139.29, 79.8728, 31.43, -141.226, -63.6081, 55.7207, -280.119
0.596, -1, -31.6822, 1.00861, 10.0903, -131.887, -76.5727, 139.305, 79.8561, 31.4993, -141.197, -63.6188, 55.7979, -280.106
0.6, -1, -31.6259, 1.00964, 10.0917, -131.86, -76.6129, 139.32, 79.8393, 31.5686, -141.169, -63.6296, 55.8752, -280.093
0.604, -1, -31.5695, 1.01068, 10.093, -131.834, -76.6532, 139.335, 79.8225, 31.638, -141.14, -63.6403, 55.9524, -280.081
0.608, -1, -31.5131, 1.01171, 10.0943, -131.807, -76.6935, 139.35, 79.8058, 31.7074, -141.111, -63.651, 56.0297, -280.068
0.612, -1, -31.4568, 1.01275, 10.0957, -131.781, -76.7337, 139.365, 79.789, 31.7768, -141.082, -63.6618, 56.107, -280.055
0.616, -1, -31.4004, 1.01378, 10.097, -131.754, -76.774, 139.38, 79.7722, 31.8462, -141.054, -63.6725, 56.1843, -280.042
0.62, -1, -31.344, 1.01482, 10.0983, -131.728, -76.8143, 139.395, 79.7554, 31.9156, -141.025, -63.6832, 56.2617, -280.029
0.624, -1, -31.2875, 1.01586, 10.0996, -131.702, -76.8546, 139.41, 79.7386, 31.985, -140.996, -63.694, 56.339, -280.016
0.628, -1, -31.2311, 1.01689, 10.101, -131.675, -76.895, 139.425, 79.7218, 32.0545, -140.967, -63.7047, 56.4164, -280.004
0.632, -1, -31.1746, 1.01793, 10.1023, -131.649, -76.9353, 139.44, 79.705, 32.124, -140.938, -63.7154, 56.4938, -279.991
0.636, -1, -31.1182, 1.01897, 10.1036, -131.622, -76.9756, 139.455, 79.6882, 32.1935, -140.91, -63.7262, 56.5712, -279.978
0.64, -1, -31.0617, 1.02, 10.105, -131.596, -77.016, 139.47, 79.6714, 32.263, -140.881, -63.7369, 56.6487, -279.965
0.644, -1, -31.0052, 1.02104, 10.1063, -131.569, -77.0564, 139.485, 79.6546, 32.3325, -140.852, -63.7477, 56.7261, -279.952
0.648, -1, -30.9487, 1.02208, 10.1076, -131.543, -77.0967, 139.5, 79.6378, 32.4021, -140.823, -63.7584, 56.8036, -279.939
0.652, -1, -30.8921, 1.02312, 10.109, -131.516, -77.1371, 139.516, 79.621, 32.4717, -140.794, -63.7692, 56.8811, -279.926
0.656, -1, -30.8356, 1.02415, 10.1103, -131.49, -77.1775, 139.531, 79.6041, 32.5412, -140.766, -63.78, 56.9587, -279.913
0.66, -1, -30.779, 1.02519, 10.1116, -131.463, -77.2179, 139.546, 79.5873, 32.6109, -140.737, -63.7907, 57.0362, -279.901
0.664, -1, -30.7225, 1.02623, 10.113, -131.437, -77.2583, 139.561, 79.5705, 32.6805, -140.708, -63.8015, 57.1138, -279.888
0.668, -1, -30.6659, 1.02727, 10.1143, -131.41, -77.2988, 139.576, 79.5536, 32.7501, -140.679, -63.8123, 57.1913, -279.875
0.672, -1, -30.6093, 1.02831, 10.1157, -131.383, -77.3392, 139.591, 79.5368, 32.8198, -140.65, -63.823, 57.269, -279.862
0.676, -1, -30.5526, 1.02935, 10.117, -131.357, -77.3796, 139.606, 79.52, 32.8895, -140.621, -63.8338, 57.3466, -279.849
0.68, -1, -30.496, 1.03039, 10.1183, -131.33, -77.4201, 139.621, 79.5031, 32.9592, -140.592, -63.8446, 57.4242, -279.836
0.684, -1, -30.4394, 1.03143, 10.1197, -131.304, -77.4606, 139.636, 79.4862, 33.0289, -140.564, -63.8554, 57.5019, -279.823
0.688, -1, -30.3827, 1.03247, 10.121, -131.277, -77.5011, 139.651, 79.4694, 33.0986, -140.535, -63.8662, 57.5796, -279.81
0.692, -1, -30.326, 1.03351, 10.1223, -131.251, -77.5415, 139.667, 79.4525, 33.1684, -140.506, -63.8769, 57.6573, -279.797
0.696, -1, -30.2693, 1.03455, 10.1237, -131.224, -77.582, 139.682, 79.4356, 33.2381, -140.477, -63.8877, 57.735, -279.785
0.7, -1, -30.2126, 1.03559, 10.125, -131.197, -77.6226, 139.697, 79.4188, 33.3079, -140.448, -63.8985, 57.8128, -279.772
0.704, -1, -30.1559, 1.03663, 10.1264, -131.171, -77.6631, 139.712, 79.4019, 33.3778, -140.419, -63.9093, 57.8905, -279.759
0.708, -1, -30.0992, 1.03768, 10.1277, -131.144, -77.7036, 139.727, 79.385, 33.4476, -140.39, -63.9201, 57.9683, -279.746
0.712, -1, -30.0424, 1.03872, 10.129, -131.118, -77.7442, 139.742, 79.3681, 33.5174, -140.361, -63.9309, 58.0461, -279.733
0.716, -1, -29.9856, 1.03976, 10.1304, -131.091, -77.7847, 139.757, 79.3512, 33.5873, -140.332, -63.9417, 58.124, -279.72
0.72, -1, -29.9288, 1.0408, 10.1317, -131.064, -77.8253, 139.773, 79.3343, 33.6572, -140.303, -63.9525, 58.2018, -279.707
0.724, -1, -29.872, 1.04185, 10.1331, -131.038, -77.8659, 139.788, 79.3174, 33.7271, -140.274, -63.9633, 58.2797, -279.694
0.728, -1, -29.8152, 1.04289, 10.1344, -131.011, -77.9065, 139.803, 79.3005, 33.797, -140.245, -63.9742, 58.3576, -279.681
0.732, -1, -29.7584, 1.04393, 10.1357, -130.984, -77.9471, 139.818, 79.2836, 33.867, -140.216, -63.985, 58.4355, -279.668
0.736, -1, -29.7016, 1.04498, 10.1371, -130.958, -77.9877, 139.833, 79.2667, 33.9369, -140.187, -63.9958, 58.5135, -279.655
0.74, -1, -29.6447, 1.04602, 10.1384, -130.931, -78.0283, 139.848, 79.2498, 34.0069, -140.158, -64.0066, 58.5914, -279.642
0.744, -1, -29.5878, 1.04707, 10.1398, -130.904, -78.0689, 139.864, 79.2328, 34.0769, -140.129, -64.0174, 58.6694, -279.629
0.748, -1, -29.5309, 1.04811, 10.1411, -130.878, -78.1096, 139.879, 79.2159, 34.1469, -140.1, -64.0283, 58.7474, -279.616
0.752, -1, -29.474, 1.04916, 10.1425, -130.851, -78.1502, 139.894, 79.199, 34.2169, -140.071, -64.0391, 58.8254, -279.603
0.756, -1, -29.4171, 1.0502, 10.1438, -130.824, -78.1909, 139.909, 79.182, 34.287, -140.042, -64.0499, 58.9035, -279.591
0.76, -1, -29.3602, 1.05125, 10.1451, -130.798, -78.2316, 139.924, 79.1651, 34.3571, -140.013, -64.0608, 58.9815, -279.578
0.764, -1, -29.3032, 1.05229, 10.1465, -130.771, -78.2723, 139.939, 79.1481, 34.4272, -139.984, -64.0716, 59.0596, -279.565
0.768, -1, -29.2462, 1.05334, 10.1478, -130.744, -78.313, 139.955, 79.1312, 34.4973, -139.955, -64.0825, 59.1377, -279.552
0.772, -1, -29.1893, 1.05438, 10.1492, -130.718, -78.3537, 139.97, 79.1142, 34.5674, -139.926, -64.0933, 59.2158, -279.539
0.776, -1, -29.1323, 1.05543, 10.1505, -130.691, -78.3944, 139.985, 79.0973, 34.6376, -139.897, -64.1041, 59.294, -279.526
0.78, -1, -29.0752, 1.05648, 10.1519, -130.664, -78.4351, 140, 79.0803, 34.7077, -139.868, -64.115, 59.3722, -279.513
0.784, -1, -29.0182, 1.05753, 10.1532, -130.637, -78.4759, 140.015, 79.0633, 34.7779, -139.839, -64.1258, 59.4504, -279.5
0.788, -1, -28.9612, 1.05857, 10.1546, -130.611, -78.5166, 140.031, 79.0463, 34.8481, -139.81, -64.1367, 59.5286, -279.487
0.792, -1, -28.9041, 1.05962, 10.1559, -130.584, -78.5574, 140.046, 79.0294, 34.9184, -139.781, -64.1476, 59.6068, -279.474
0.796, -1, -28.847, 1.06067, 10.1572, -130.557, -78.5982, 140.061, 79.0124, 34.9886, -139.752, -64.1584, 59.6851, -279.461
0.8, -1, -28.7899, 1.06172, 10.1586, -130.53, -78.6389, 140.076, 78.9954, 35.0589, -139.723, -64.1693, 59.7633, -279.448
0.804, -1, -28.7328, 1.06277, 10.1599, -130.504, -78.6797, 140.092, 78.9785, 35.1292, -139.694, -64.1802, 59.8416, -279.435
0.808, -1, -28.6757, 1.06382, 10.1613, -130.477, -78.7206, 140.107, 78.9615, 35.1995, -139.664, -64.191, 59.92, -279.422
0.812, -1, -28.6186, 1.06486, 10.1626, -130.45, -78.7614, 140.122, 78.9446, 35.2698, -139.635, -64.2019, 59.9983, -279.409
0.816, -1, -28.5614, 1.06591, 10.164, -130.423, -78.8022, 140.137, 78.9277, 35.3401, -139.606, -64.2128, 60.0767, -279.396
0.82, -1, -28.5042, 1.06696, 10.1653, -130.396, -78.8431, 140.153, 78.9107, 35.4105, -139.577, -64.2237, 60.155, -279.383
0.824, -1, -28.447, 1.06801, 10.1667, -130.37, -78.8839, 140.168, 78.8938, 35.4809, -139.548, -64.2345, 60.2334, -279.37
0.828, -1, -28.3898, 1.06906, 10.168, -130.343, -78.9248, 140.183, 78.8768, 35.5513, -139.519, -64.2454, 60.3119, -279.357
0.832, -1, -28.3326, 1.07011, 10.1694, -130.316, -78.9656, 140.198, 78.8599, 35.6217, -139.49, -64.2563, 60.3903, -279.344
0.836, -1, -28.2754, 1.07117, 10.1707, -130.289, -79.0065, 140.214, 78.8429, 35.6921, -139.46, -64.2672, 60.4688, -279.331
0.84, -1, -28.2181, 1.07222, 10.1721, -130.262, -79.0474, 140.229, 78.8259, 35.7626, -139.431, -64.2781, 60.5473, -279.318
0.844, -1, -28.1609, 1.07327, 10.1734, -130.235, -79.0884, 140.244, 78.809, 35.8331, -139.402, -64.289, 60.6258, -279.305
0.848, -1, -28.1036, 1.07432, 10.1748, -130.208, -79.1293, 140.26, 78.792, 35.9036, -139.373, -64.2999, 60.7043, -279.291
0.852, -1, -28.0463, 1.07537, 10.1761, -130.182, -79.1702, 140.275, 78.775, 35.9741, -139.344, -64.3108, 60.7829, -279.278
0.856, -1, -27.989, 1.07642, 10.1775, -130.155, -79.2112, 140.29, 78.758, 36.0446, -139.314, -64.3217, 60.8615, -279.265
0.86, -1, -27.9316, 1.07748, 10.1789, -130.128, -79.2521, 140.305, 78.741, 36.1152, -139.285, -64.3326, 60.9401, -279.252
0.864, -1, -27.8743, 1.07853, 10.1802, -130.101, -79.2931, 140.321, 78.724, 36.1857, -139.256, -64.3435, 61.0187, -279.239
0.868, -1, -27.8169, 1.07958, 10.1816, -130.074, -79.3341, 140.336, 78.707, 36.2563, -139.227, -64.3545, 61.0973, -279.226
0.872, -1, -27.7595, 1.08064, 10.1829, -130.047, -79.3751, 140.351, 78.69, 36.327, -139.197, -64.3654, 61.176, -279.213
0.876, -1, -27.7022, 1.08169, 10.1843, -130.02, -79.4161, 140.367, 78.673, 36.3976, -139.168, -64.3763, 61.2547, -279.2
0.88, -1, -27.6447, 1.08275, 10.1856, -129.993, -79.4571, 140.382, 78.656, 36.4683, -139.139, -64.3872, 61.3334, -279.187
0.884, -1, -27.5873, 1.0838, 10.187, -129.966, -79.4981, 140.397, 78.639, 36.5389, -139.11, -64.3982, 61.4122, -279.174
0.888, -1, -27.5299, 1.08485, 10.1883, -129.939, -79.5391, 140.413, 78.6219, 36.6096, -139.08, -64.4091, 61.4909, -279.161
0.892, -1, -27.4724, 1.08591, 10.1897, -129.912, -79.5802, 140.428, 78.6049, 36.6804, -139.051, -64.42, 61.5697, -279.148
0.896, -1, -27.4149, 1.08697, 10.1911, -129.885, -79.6213, 140.443, 78.5879, 36.7511, -139.022, -64.431, 61.6485, -279.135
0.9, -1, -27.3574, 1.08802, 10.1924, -129.859, -79.6623, 140.459, 78.5708, 36.8218, -138.992, -64.4419, 61.7273, -279.122
0.904, -1, -27.2999, 1.08908, 10.1938, -129.832, -79.7034, 140.474, 78.5538, 36.8926, -138.963, -64.4529, 61.8062, -279.108
0.908, -1, -27.2424, 1.09013, 10.1951, -129.805, -79.7445, 140.489, 78.5367, 36.9634, -138.934, -64.4638, 61.885, -279.095
0.912, -1, -27.1849, 1.09119, 10.1965, -129.778, -79.7856, 140.505, 78.5197, 37.0342, -138.904, -64.4748, 61.9639, -279.082
0.916, -1, -27.1273, 1.09225, 10.1978, -129.751, -79.8267, 140.52, 78.5026, 37.1051, -138.875, -64.4857, 62.0429, -279.069
0.92, -1, -27.0697, 1.0933, 10.1992, -129.724, -79.8679, 140.535, 78.4855, 37.1759, -138.846, -64.4967, 62.1218, -279.056
0.924, -1, -27.0121, 1.09436, 10.2006, -129.697, -79.909, 140.551, 78.4684, 37.2468, -138.816, -64.5076, 62.2008, -279.043
0.928, -1, -26.9545, 1.09542, 10.2019, -129.67, -79.9502, 140.566, 78.4514, 37.3177, -138.787, -64.5186, 62.2797, -279.03
0.932, -1, -26.8969, 1.09648, 10.2033, -129.643, -79.9913, 140.581, 78.4343, 37.3886, -138.758, -64.5296, 62.3587, -279.017
0.936, -1, -26.8392, 1.09754, 10.2046, -129.616, -80.0325, 140.597, 78.4172, 37.4596, -138.728, -64.5405, 62.4378, -279.004
0.94, -1, -26.7816, 1.09859, 10.206, -129.589, -80.0737, 140.612, 78.4001, 37.5305, -138.699, -64.5515, 62.5168, -278.99
0.944, -1, -26.7239, 1.09965, 10.2074, -129.561, -80.1149, 140.628, 78.383, 37.6015, -138.669, -64.5625, 62.5959, -278.977
0.948, -1, -26.6662, 1.10071, 10.2087, -129.534, -80.1561, 140.643, 78.3659, 37.6725, -138.64, -64.5735, 62.675, -278.964
0.952, -1, -26.6085, 1.10177, 10.2101, -129.507, -80.1974, 140.658, 78.3487, 37.7436, -138.611, -64.5844, 62.7541, -278.951
0.956, -1, -26.5508, 1.10283, 10.2114, -129.48, -80.2386, 140.674, 78.3316, 37.8146, -138.581, -64.5954, 62.8333, -278.938
0.96, -1, -26.493, 1.10389, 10.2128, -129.453, -80.2799, 140.689, 78.3145, 37.8857, -138.552, -64.6064, 62.9124, -278.925
0.964, -1, -26.4353, 1.10495, 10.2142, -129.426, -80.3211, 140.705, 78.2974, 37.9567, -138.522, -64.6174, 62.9916, -278.912
0.968, -1, -26.3775, 1.10601, 10.2155, -129.399, -80.3624, 140.72, 78.2802, 38.0279, -138.493, -64.6284, 63.0708, -278.898
0.972, -1, -26.3197, 1.10708, 10.2169, -129.372, -80.4037, 140.735, 78.2631, 38.099, -138.463, -64.6394, 63.1501, -278.885
0.976, -1, -26.2619, 1.10814, 10.2183, -129.345, -80.445, 140.751, 78.2459, 38.1701, -138.434, -64.6504, 63.2293, -278.872
0.98, -1, -26.2041, 1.1092, 10.2196, -129.318, -80.4863, 140.766, 78.2288, 38.2413, -138.404, -64.6614, 63.3086, -278.859
0.984, -1, -26.1462, 1.11026, 10.221, -129.291, -80.5276, 140.782, 78.2116, 38.3125, -138.375, -64.6724, 63.3879, -278.846
0.988, -1, -26.0884, 1.11132, 10.2224, -129.263, -80.569, 140.797, 78.1945, 38.3837, -138.345, -64.6834, 63.4673, -278.833
0.992, -1, -26.0305, 1.11239, 10.2237, -129.236, -80.6103, 140.813, 78.1773, 38.4549, -138.316, -64.6944, 63.5466, -278.819
0.996, -1, -25.9726, 1.11345, 10.2251, -129.209, -80.6517, 140.828, 78.1601, 38.5262, -138.286, -64.7055, 63.626, -278.806
1, -1, -25.9147, 1.11451, 10.2265, -129.182, -80.693, 140.844, 78.143, 38.5975, -138.257, -64.7165, 63.7054, -278.793
1.004, -1, -25.8568, 1.11558, 10.2278, -129.155, -80.7344, 140.859, 78.1258, 38.6687, -138.227, -64.7275, 63.7848, -278.78
1.008, -1, -25.7988, 1.11664, 10.2292, -129.128, -80.7758, 140.874, 78.1086, 38.7401, -138.198, -64.7385, 63.8643, -278.767
1.012, -1, -25.7408, 1.1177, 10.2306, -129.1, -80.8172, 140.89, 78.0914, 38.8114, -138.168, -64.7496, 63.9437, -278.754
1.016, -1, -25.6829, 1.11877, 10.2319, -129.073, -80.8587, 140.905, 78.0742, 38.8828, -138.139, -64.7606, 64.0232, -278.74
1.02, -1, -25.6249, 1.11983, 10.2333, -129.046, -80.9001, 140.921, 78.057, 38.9541, -138.109, -64.7716, 64.1027, -278.727
1.024, -1, -25.5669, 1.1209, 10.2347, -129.019, -80.9415, 140.936, 78.0398, 39.0255, -138.079, -64.7827, 64.1823, -278.714
1.027, -1, -25.5088, 1.12197, 10.236, -128.992, -80.983, 140.952, 78.0226, 39.097, -138.05, -64.7937, 64.2618, -278.701
1.032, -1, -25.4508, 1.12303, 10.2374, -128.964, -81.0245, 140.967, 78.0054, 39.1684, -138.02, -64.8048, 64.3414, -278.688
1.036, -1, -25.3927, 1.1241, 10.2388, -128.937, -81.0659, 140.983, 77.9881, 39.2399, -137.991, -64.8158, 64.421, -278.674
1.04, -1, -25.3346, 1.12516, 10.2402, -128.91, -81.1074, 140.998, 77.9709, 39.3113, -137.961, -64.8269, 64.5007, -278.661
1.044, -1, -25.2765, 1.12623, 10.2415, -128.883, -81.1489, 141.014, 77.9537, 39.3828, -137.931, -64.8379, 64.5803, -278.648
1.048, -1, -25.2184, 1.1273, 10.2429, -128.855, -81.1905, 141.029, 77.9364, 39.4544, -137.902, -64.849, 64.66, -278.635
1.052, -1, -25.1603, 1.12837, 10.2443, -128.828, -81.232, 141.045, 77.9192, 39.5259, -137.872, -64.8601, 64.7397, -278.621
1.055, -1, -25.1021, 1.12943, 10.2456, -128.801, -81.2735, 141.06, 77.9019, 39.5975, -137.843, -64.8711, 64.8194, -278.608
1.06, -1, -25.0439, 1.1305, 10.247, -128.774, -81.3151, 141.076, 77.8847, 39.6691, -137.813, -64.8822, 64.8992, -278.595
1.064, -1, -24.9858, 1.13157, 10.2484, -128.746, -81.3567, 141.091, 77.8674, 39.7407, -137.783, -64.8933, 64.979, -278.582
1.068, -1, -24.9276, 1.13264, 10.2498, -128.719, -81.3983, 141.107, 77.8501, 39.8123, -137.754, -64.9043, 65.0588, -278.568
1.072, -1, -24.8693, 1.13371, 10.2511, -128.692, -81.4398, 141.122, 77.8329, 39.884, -137.724, -64.9154, 65.1386, -278.555
1.076, -1, -24.8111, 1.13478, 10.2525, -128.664, -81.4815, 141.138, 77.8156, 39.9557, -137.694, -64.9265, 65.2184, -278.542
1.08, -1, -24.7528, 1.13585, 10.2539, -128.637, -81.5231, 141.154, 77.7983, 40.0274, -137.664, -64.9376, 65.2983, -278.529
1.084, -1, -24.6946, 1.13692, 10.2553, -128.61, -81.5647, 141.169, 77.781, 40.0991, -137.635, -64.9487, 65.3782, -278.515
1.088, -1, -24.6363, 1.13799, 10.2566, -128.582, -81.6063, 141.185, 77.7637, 40.1708, -137.605, -64.9598, 65.4581, -278.502
1.091, -1, -24.578, 1.13906, 10.258, -128.555, -81.648, 141.2, 77.7464, 40.2426, -137.575, -64.9709, 65.5381, -278.489
1.096, -1, -24.5196, 1.14013, 10.2594, -128.528, -81.6897, 141.216, 77.7291, 40.3144, -137.546, -64.982, 65.618, -278.475
1.1, -1, -24.4613, 1.1412, 10.2608, -128.5, -81.7314, 141.231, 77.7118, 40.3862, -137.516, -64.9931, 65.698, -278.462
1.104, -1, -24.4029, 1.14227, 10.2621, -128.473, -81.7731, 141.247, 77.6945, 40.458, -137.486, -65.0042, 65.7781, -278.449
1.108, -1, -24.3445, 1.14334, 10.2635, -128.446, -81.8148, 141.262, 77.6772, 40.5298, -137.456, -65.0153, 65.8581, -278.436
1.112, -1, -24.2861, 1.14442, 10.2649, -128.418, -81.8565, 141.278, 77.6598, 40.6017, -137.427, -65.0264, 65.9382, -278.422
1.116, -1, -24.2277, 1.14549, 10.2663, -128.391, -81.8982, 141.294, 77.6425, 40.6736, -137.397, -65.0375, 66.0182, -278.409
1.119, -1, -24.1693, 1.14656, 10.2677, -128.363, -81.94, 141.309, 77.6252, 40.7455, -137.367, -65.0487, 66.0984, -278.396
1.124, -1, -24.1108, 1.14763, 10.269, -128.336, -81.9817, 141.325, 77.6078, 40.8175, -137.337, -65.0598, 66.1785, -278.382
1.128, -1, -24.0524, 1.14871, 10.2704, -128.309, -82.0235, 141.34, 77.5905, 40.8894, -137.307, -65.0709, 66.2587, -278.369
1.132, -1, -23.9939, 1.14978, 10.2718, -128.281, -82.0653, 141.356, 77.5731, 40.9614, -137.278, -65.082, 66.3389, -278.356
1.136, -1, -23.9354, 1.15086, 10.2732, -128.254, -82.1071, 141.372, 77.5558, 41.0334, -137.248, -65.0932, 66.4191, -278.342
1.14, -1, -23.8769, 1.15193, 10.2746, -128.226, -82.1489, 141.387, 77.5384, 41.1054, -137.218, -65.1043, 66.4993, -278.329
1.144, -1, -23.8183, 1.15301, 10.2759, -128.199, -82.1907, 141.403, 77.521, 41.1775, -137.188, -65.1154, 66.5796, -278.316
1.147, -1, -23.7598, 1.15408, 10.2773, -128.171, -82.2325, 141.418, 77.5037, 41.2495, -137.158, -65.1266, 66.6598, -278.302
1.152, -1, -23.7012, 1.15516, 10.2787, -128.144, -82.2744, 141.434, 77.4863, 41.3216, -137.128, -65.1377, 66.7402, -278.289
1.156, -1, -23.6426, 1.15623, 10.2801, -128.116, -82.3162, 141.45, 77.4689, 41.3937, -137.098, -65.1489, 66.8205, -278.276
1.16, -1, -23.584, 1.15731, 10.2815, -128.089, -82.3581, 141.465, 77.4515, 41.4659, -137.069, -65.16, 66.9008, -278.262
1.164, -1, -23.5254, 1.15839, 10.2829, -128.061, -82.4, 141.481, 77.4341, 41.538, -137.039, -65.1712, 66.9812, -278.249
1.168, -1, -23.4667, 1.15946, 10.2842, -128.034, -82.4419, 141.497, 77.4167, 41.6102, -137.009, -65.1824, 67.0616, -278.236
1.172, -1, -23.408, 1.16054, 10.2856, -128.006, -82.4838, 141.512, 77.3993, 41.6824, -136.979, -65.1935, 67.1421, -278.222
1.175, -1, -23.3494, 1.16162, 10.287, -127.979, -82.5257, 141.528, 77.3819, 41.7546, -136.949, -65.2047, 67.2225, -278.209
1.18, -1, -23.2907, 1.16269, 10.2884, -127.951, -82.5677, 141.544, 77.3645, 41.8269, -136.919, -65.2159, 67.303, -278.196
1.184, -1, -23.2319, 1.16377, 10.2898, -127.924, -82.6096, 141.559, 77.347, 41.8991, -136.889, -65.227, 67.3835, -278.182
1.188, -1, -23.1732, 1.16485, 10.2912, -127.896, -82.6516, 141.575, 77.3296, 41.9714, -136.859, -65.2382, 67.4641, -278.169
1.192, -1, -23.1145, 1.16593, 10.2926, -127.869, -82.6936, 141.591, 77.3122, 42.0437, -136.829, -65.2494, 67.5446, -278.156
1.196, -1, -23.0557, 1.16701, 10.2939, -127.841, -82.7355, 141.606, 77.2947, 42.1161, -136.799, -65.2606, 67.6252, -278.142
1.2, -1, -22.9969, 1.16809, 10.2953, -127.814, -82.7775, 141.622, 77.2773, 42.1884, -136.769, -65.2718, 67.7058, -278.129
1.204, -1, -22.9381, 1.16917, 10.2967, -127.786, -82.8196, 141.638, 77.2598, 42.2608, -136.739, -65.283, 67.7864, -278.115
1.208, -1, -22.8792, 1.17025, 10.2981, -127.758, -82.8616, 141.653, 77.2424, 42.3332, -136.709, -65.2942, 67.8671, -278.102
1.212, -1, -22.8204, 1.17133, 10.2995, -127.731, -82.9036, 141.669, 77.2249, 42.4056, -136.679, -65.3054, 67.9478, -278.089
1.216, -1, -22.7615, 1.17241, 10.3009, -127.703, -82.9457, 141.685, 77.2075, 42.4781, -136.649, -65.3166, 68.0285, -278.075
1.22, -1, -22.7026, 1.17349, 10.3023, -127.676, -82.9877, 141.701, 77.19, 42.5505, -136.619, -65.3278, 68.1092, -278.062
1.224, -1, -22.6437, 1.17457, 10.3037, -127.648, -83.0298, 141.716, 77.1725, 42.623, -136.589, -65.339, 68.1899, -278.048
1.228, -1, -22.5848, 1.17566, 10.3051, -127.62, -83.0719, 141.732, 77.155, 42.6955, -136.559, -65.3502, 68.2707, -278.035
1.232, -1, -22.5259, 1.17674, 10.3064, -127.593, -83.114, 141.748, 77.1375, 42.7681, -136.529, -65.3614, 68.3515, -278.022
1.236, -1, -22.4669, 1.17782, 10.3078, -127.565, -83.1562, 141.763, 77.12, 42.8406, -136.499, -65.3726, 68.4324, -278.008
1.24, -1, -22.408, 1.1789, 10.3092, -127.537, -83.1983, 141.779, 77.1025, 42.9132, -136.469, -65.3839, 68.5132, -277.995
1.244, -1, -22.349, 1.17999, 10.3106, -127.51, -83.2404, 141.795, 77.085, 42.9858, -136.439, -65.3951, 68.5941, -277.981
1.248, -1, -22.2899, 1.18107, 10.312, -127.482, -83.2826, 141.811, 77.0675, 43.0585, -136.409, -65.4063, 68.675, -277.968
1.252, -1, -22.2309, 1.18215, 10.3134, -127.454, -83.3248, 141.826, 77.05, 43.1311, -136.379, -65.4175, 68.756, -277.954
1.256, -1, -22.1719, 1.18324, 10.3148, -127.427, -83.3669, 141.842, 77.0325, 43.2038, -136.349, -65.4288, 68.8369, -277.941
1.26, -1, -22.1128, 1.18432, 10.3162, -127.399, -83.4091, 141.858, 77.0149, 43.2765, -136.319, -65.44, 68.9179, -277.927
1.264, -1, -22.0537, 1.18541, 10.3176, -127.371, -83.4514, 141.874, 76.9974, 43.3492, -136.288, -65.4513, 68.9989, -277.914
1.267, -1, -21.9946, 1.18649, 10.319, -127.344, -83.4936, 141.889, 76.9799, 43.4219, -136.258, -65.4625, 69.0799, -277.901
1.272, -1, -21.9355, 1.18758, 10.3204, -127.316, -83.5358, 141.905, 76.9623, 43.4947, -136.228, -65.4738, 69.161, -277.887
1.276, -1, -21.8763, 1.18866, 10.3218, -127.288, -83.5781, 141.921, 76.9448, 43.5675, -136.198, -65.485, 69.2421, -277.874
1.28, -1, -21.8172, 1.18975, 10.3232, -127.26, -83.6203, 141.937, 76.9272, 43.6403, -136.168, -65.4963, 69.3232, -277.86
1.284, -1, -21.758, 1.19084, 10.3246, -127.233, -83.6626, 141.953, 76.9096, 43.7131, -136.138, -65.5076, 69.4044, -277.847
1.288, -1, -21.6988, 1.19192, 10.326, -127.205, -83.7049, 141.968, 76.8921, 43.786, -136.107, -65.5188, 69.4855, -277.833
1.292, -1, -21.6396, 1.19301, 10.3274, -127.177, -83.7472, 141.984, 76.8745, 43.8589, -136.077, -65.5301, 69.5667, -277.82
1.295, -1, -21.5803, 1.1941, 10.3288, -127.149, -83.7895, 142, 76.8569, 43.9318, -136.047, -65.5414, 69.6479, -277.806
1.3, -1, -21.5211, 1.19519, 10.3302, -127.122, -83.8319, 142.016, 76.8393, 44.0047, -136.017, -65.5526, 69.7292, -277.793
1.304, -1, -21.4618, 1.19628, 10.3316, -127.094, -83.8742, 142.032, 76.8217, 44.0777, -135.987, -65.5639, 69.8104, -277.779
1.308, -1, -21.4025, 1.19736, 10.333, -127.066, -83.9166, 142.047, 76.8041, 44.1506, -135.956, -65.5752, 69.8917, -277.766
1.312, -1, -21.3432, 1.19845, 10.3344, -127.038, -83.9589, 142.063, 76.7865, 44.2236, -135.926, -65.5865, 69.973, -277.752
1.316, -1, -21.2839, 1.19954, 10.3358, -127.01, -84.0013, 142.079, 76.7689, 44.2967, -135.896, -65.5978, 70.0544, -277.739
1.32, -1, -21.2245, 1.20063, 10.3372, -126.983, -84.0437, 142.095, 76.7513, 44.3697, -135.866, -65.6091, 70.1358, -277.725
1.324, -1, -21.1651, 1.20172, 10.3386, -126.955, -84.0862, 142.111, 76.7337, 44.4428, -135.835, -65.6204, 70.2172, -277.712
1.328, -1, -21.1057, 1.20281, 10.34, -126.927, -84.1286, 142.127, 76.7161, 44.5159, -135.805, -65.6317, 70.2986, -277.698
1.332, -1, -21.0463, 1.2039, 10.3414, -126.899, -84.171, 142.142, 76.6984, 44.589, -135.775, -65.643, 70.3801, -277.685
1.336, -1, -20.9869, 1.20499, 10.3428, -126.871, -84.2135, 142.158, 76.6808, 44.6621, -135.745, -65.6543, 70.4615, -277.671
1.34, -1, -20.9274, 1.20609, 10.3442, -126.843, -84.256, 142.174, 76.6631, 44.7353, -135.714, -65.6656, 70.543, -277.658
1.344, -1, -20.868, 1.20718, 10.3456, -126.815, -84.2984, 142.19, 76.6455, 44.8085, -135.684, -65.6769, 70.6246, -277.644
1.348, -1, -20.8085, 1.20827, 10.347, -126.787, -84.3409, 142.206, 76.6278, 44.8817, -135.654, -65.6883, 70.7061, -277.631
1.352, -1, -20.749, 1.20936, 10.3484, -126.759, -84.3835, 142.222, 76.6102, 44.9549, -135.623, -65.6996, 70.7877, -277.617
1.356, -1, -20.6894, 1.21046, 10.3498, -126.732, -84.426, 142.238, 76.5925, 45.0282, -135.593, -65.7109, 70.8693, -277.603
1.36, -1, -20.6299, 1.21155, 10.3512, -126.704, -84.4685, 142.254, 76.5749, 45.1015, -135.563, -65.7222, 70.951, -277.59
1.364, -1, -20.5703, 1.21264, 10.3526, -126.676, -84.5111, 142.269, 76.5572, 45.1748, -135.532, -65.7336, 71.0326, -277.576
1.368, -1, -20.5107, 1.21374, 10.354, -126.648, -84.5536, 142.285, 76.5395, 45.2481, -135.502, -65.7449, 71.1143, -277.563
1.372, -1, -20.4511, 1.21483, 10.3554, -126.62, -84.5962, 142.301, 76.5218, 45.3215, -135.471, -65.7563, 71.1961, -277.549
1.376, -1, -20.3915, 1.21593, 10.3568, -126.592, -84.6388, 142.317, 76.5041, 45.3949, -135.441, -65.7676, 71.2778, -277.536
1.38, -1, -20.3319, 1.21702, 10.3582, -126.564, -84.6814, 142.333, 76.4864, 45.4683, -135.411, -65.779, 71.3596, -277.522
1.384, -1, -20.2722, 1.21812, 10.3596, -126.536, -84.7241, 142.349, 76.4687, 45.5417, -135.38, -65.7903, 71.4414, -277.508
1.388, -1, -20.2125, 1.21921, 10.3611, -126.508, -84.7667, 142.365, 76.451, 45.6152, -135.35, -65.8017, 71.5232, -277.495
1.392, -1, -20.1528, 1.22031, 10.3625, -126.48, -84.8094, 142.381, 76.4333, 45.6886, -135.319, -65.813, 71.6051, -277.481
1.396, -1, -20.0931, 1.22141, 10.3639, -126.452, -84.852, 142.397, 76.4155, 45.7621, -135.289, -65.8244, 71.687, -277.468
1.4, -1, -20.0333, 1.2225, 10.3653, -126.424, -84.8947, 142.413, 76.3978, 45.8357, -135.258, -65.8358, 71.7689, -277.454
1.404, -1, -19.9736, 1.2236, 10.3667, -126.396, -84.9374, 142.429, 76.3801, 45.9092, -135.228, -65.8472, 71.8508, -277.44
1.408, -1, -19.9138, 1.2247, 10.3681, -126.368, -84.9801, 142.445, 76.3623, 45.9828, -135.197, -65.8585, 71.9328, -277.427
1.412, -1, -19.854, 1.2258, 10.3695, -126.34, -85.0228, 142.461, 76.3446, 46.0564, -135.167, -65.8699, 72.0148, -277.413
1.416, -1, -19.7942, 1.22689, 10.3709, -126.312, -85.0656, 142.477, 76.3268, 46.13, -135.136, -65.8813, 72.0968, -277.4
1.42, -1, -19.7343, 1.22799, 10.3723, -126.284, -85.1083, 142.493, 76.309, 46.2037, -135.106, -65.8927, 72.1789, -277.386
1.424, -1, -19.6744, 1.22909, 10.3738, -126.256, -85.1511, 142.508, 76.2913, 46.2774, -135.075, -65.9041, 72.2609, -277.372
1.428, -1, -19.6146, 1.23019, 10.3752, -126.228, -85.1939, 142.524, 76.2735, 46.3511, -135.045, -65.9155, 72.3431, -277.359
1.432, -1, -19.5546, 1.23129, 10.3766, -126.199, -85.2367, 142.54, 76.2557, 46.4248, -135.014, -65.9269, 72.4252, -277.345
1.436, -1, -19.4947, 1.23239, 10.378, -126.171, -85.2795, 142.556, 76.2379, 46.4986, -134.984, -65.9383, 72.5073, -277.331
1.44, -1, -19.4348, 1.23349, 10.3794, -126.143, -85.3223, 142.572, 76.2201, 46.5723, -134.953, -65.9497, 72.5895, -277.318
1.444, -1, -19.3748, 1.23459, 10.3808, -126.115, -85.3652, 142.588, 76.2023, 46.6461, -134.923, -65.9611, 72.6718, -277.304
1.448, -1, -19.3148, 1.2357, 10.3822, -126.087, -85.408, 142.604, 76.1845, 46.72, -134.892, -65.9725, 72.754, -277.29
1.452, -1, -19.2548, 1.2368, 10.3837, -126.059, -85.4509, 142.62, 76.1667, 46.7938, -134.861, -65.9839, 72.8363, -277.277
1.456, -1, -19.1948, 1.2379, 10.3851, -126.031, -85.4938, 142.636, 76.1489, 46.8677, -134.831, -65.9954, 72.9186, -277.263
1.46, -1, -19.1347, 1.239, 10.3865, -126.003, -85.5367, 142.653, 76.1311, 46.9416, -134.8, -66.0068, 73.0009, -277.249
1.464, -1, -19.0747, 1.24011, 10.3879, -125.974, -85.5796, 142.669, 76.1133, 47.0155, -134.77, -66.0182, 73.0833, -277.236
1.468, -1, -19.0146, 1.24121, 10.3893, -125.946, -85.6225, 142.685, 76.0954, 47.0895, -134.739, -66.0297, 73.1656, -277.222
1.472, -1, -18.9545, 1.24231, 10.3907, -125.918, -85.6655, 142.701, 76.0776, 47.1634, -134.708, -66.0411, 73.248, -277.208
1.476, -1, -18.8943, 1.24342, 10.3922, -125.89, -85.7084, 142.717, 76.0597, 47.2374, -134.678, -66.0525, 73.3305, -277.195
1.48, -1, -18.8342, 1.24452, 10.3936, -125.862, -85.7514, 142.733, 76.0419, 47.3115, -134.647, -66.064, 73.413, -277.181
1.484, -1, -18.774, 1.24563, 10.395, -125.833, -85.7944, 142.749, 76.024, 47.3855, -134.616, -66.0754, 73.4955, -277.167
1.488, -1, -18.7138, 1.24673, 10.3964, -125.805, -85.8374, 142.765, 76.0062, 47.4596, -134.586, -66.0869, 73.578, -277.154
1.492, -1, -18.6536, 1.24784, 10.3978, -125.777, -85.8804, 142.781, 75.9883, 47.5337, -134.555, -66.0984, 73.6605, -277.14
1.496, -1, -18.5934, 1.24894, 10.3993, -125.749, -85.9234, 142.797, 75.9704, 47.6078, -134.524, -66.1098, 73.7431, -277.126
1.5, -1, -18.5331, 1.25005, 10.4007, -125.72, -85.9665, 142.813, 75.9525, 47.682, -134.494, -66.1213, 73.8257, -277.113
1.504, -1, -18.4729, 1.25116, 10.4021, -125.692, -86.0095, 142.829, 75.9346, 47.7562, -134.463, -66.1328, 73.9084, -277.099
1.508, -1, -18.4126, 1.25226, 10.4035, -125.664, -86.0526, 142.845, 75.9167, 47.8304, -134.432, -66.1442, 73.991, -277.085
1.512, -1, -18.3522, 1.25337, 10.405, -125.636, -86.0957, 142.861, 75.8988, 47.9046, -134.401, -66.1557, 74.0737, -277.071
1.516, -1, -18.2919, 1.25448, 10.4064, -125.607, -86.1388, 142.877, 75.8809, 47.9789, -134.371, -66.1672, 74.1564, -277.058
1.52, -1, -18.2316, 1.25559, 10.4078, -125.579, -86.1819, 142.893, 75.863, 48.0531, -134.34, -66.1787, 74.2392, -277.044
1.524, -1, -18.1712, 1.25669, 10.4092, -125.551, -86.2251, 142.91, 75.8451, 48.1274, -134.309, -66.1902, 74.322, -277.03
1.528, -1, -18.1108, 1.2578, 10.4107, -125.522, -86.2682, 142.926, 75.8272, 48.2018, -134.278, -66.2017, 74.4048, -277.016
1.532, -1, -18.0504, 1.25891, 10.4121, -125.494, -86.3114, 142.942, 75.8092, 48.2761, -134.247, -66.2132, 74.4876, -277.003
1.536, -1, -17.9899, 1.26002, 10.4135, -125.466, -86.3545, 142.958, 75.7913, 48.3505, -134.217, -66.2247, 74.5705, -276.989
1.54, -1, -17.9294, 1.26113, 10.4149, -125.437, -86.3977, 142.974, 75.7733, 48.4249, -134.186, -66.2362, 74.6534, -276.975
1.544, -1, -17.869, 1.26224, 10.4164, -125.409, -86.4409, 142.99, 75.7554, 48.4994, -134.155, -66.2477, 74.7363, -276.961
1.548, -1, -17.8085, 1.26335, 10.4178, -125.381, -86.4842, 143.006, 75.7374, 48.5738, -134.124, -66.2592, 74.8193, -276.948
1.552, -1, -17.7479, 1.26447, 10.4192, -125.352, -86.5274, 143.023, 75.7195, 48.6483, -134.093, -66.2707, 74.9022, -276.934
1.556, -1, -17.6874, 1.26558, 10.4207, -125.324, -86.5707, 143.039, 75.7015, 48.7228, -134.062, -66.2822, 74.9852, -276.92
1.56, -1, -17.6268, 1.26669, 10.4221, -125.295, -86.6139, 143.055, 75.6835, 48.7974, -134.031, -66.2938, 75.0683, -276.906
1.564, -1, -17.5662, 1.2678, 10.4235, -125.267, -86.6572, 143.071, 75.6655, 48.8719, -134.001, -66.3053, 75.1514, -276.892
1.568, -1, -17.5056, 1.26891, 10.4249, -125.239, -86.7005, 143.087, 75.6476, 48.9465, -133.97, -66.3168, 75.2345, -276.879
1.572, -1, -17.445, 1.27003, 10.4264, -125.21, -86.7438, 143.103, 75.6296, 49.0212, -133.939, -66.3284, 75.3176, -276.865
1.576, -1, -17.3843, 1.27114, 10.4278, -125.182, -86.7872, 143.12, 75.6116, 49.0958, -133.908, -66.3399, 75.4007, -276.851
1.58, -1, -17.3237, 1.27225, 10.4292, -125.153, -86.8305, 143.136, 75.5935, 49.1705, -133.877, -66.3515, 75.4839, -276.837
1.584, -1, -17.263, 1.27337, 10.4307, -125.125, -86.8739, 143.152, 75.5755, 49.2452, -133.846, -66.363, 75.5671, -276.823
1.588, -1, -17.2023, 1.27448, 10.4321, -125.096, -86.9172, 143.168, 75.5575, 49.3199, -133.815, -66.3746, 75.6504, -276.81
1.592, -1, -17.1415, 1.2756, 10.4335, -125.068, -86.9606, 143.184, 75.5395, 49.3946, -133.784, -66.3861, 75.7336, -276.796
1.596, -1, -17.0808, 1.27671, 10.435, -125.039, -87.004, 143.201, 75.5214, 49.4694, -133.753, -66.3977, 75.8169, -276.782
1.6, -1, -17.02, 1.27783, 10.4364, -125.011, -87.0475, 143.217, 75.5034, 49.5442, -133.722, -66.4092, 75.9003, -276.768
1.604, -1, -16.9592, 1.27895, 10.4378, -124.982, -87.0909, 143.233, 75.4854, 49.619, -133.691, -66.4208, 75.9836, -276.754
1.608, -1, -16.8984, 1.28006, 10.4393, -124.954, -87.1344, 143.249, 75.4673, 49.6939, -133.66, -66.4324, 76.067, -276.74
1.612, -1, -16.8375, 1.28118, 10.4407, -124.925, -87.1778, 143.265, 75.4492, 49.7688, -133.629, -66.444, 76.1505, -276.726
1.616, -1, -16.7767, 1.2823, 10.4421, -124.897, -87.2213, 143.282, 75.4312, 49.8437, -133.598, -66.4556, 76.2339, -276.713
1.62, -1, -16.7158, 1.28342, 10.4436, -124.868, -87.2648, 143.298, 75.4131, 49.9186, -133.567, -66.4671, 76.3174, -276.699
1.624, -1, -16.6549, 1.28453, 10.445, -124.84, -87.3083, 143.314, 75.395, 49.9936, -133.536, -66.4787, 76.4009, -276.685
1.628, -1, -16.5939, 1.28565, 10.4465, -124.811, -87.3519, 143.33, 75.3769, 50.0686, -133.505, -66.4903, 76.4844, -276.671
1.632, -1, -16.533, 1.28677, 10.4479, -124.782, -87.3954, 143.347, 75.3588, 50.1436, -133.474, -66.5019, 76.568, -276.657
1.636, -1, -16.472, 1.28789, 10.4493, -124.754, -87.439, 143.363, 75.3407, 50.2186, -133.443, -66.5135, 76.6516, -276.643
1.64, -1, -16.411, 1.28901, 10.4508, -124.725, -87.4825, 143.379, 75.3226, 50.2937, -133.412, -66.5251, 76.7352, -276.629
1.644, -1, -16.35, 1.29013, 10.4522, -124.697, -87.5261, 143.396, 75.3045, 50.3688, -133.381, -66.5368, 76.8189, -276.615
1.648, -1, -16.2889, 1.29125, 10.4537, -124.668, -87.5697, 143.412, 75.2864, 50.4439, -133.349, -66.5484, 76.9026, -276.602
1.652, -1, -16.2279, 1.29237, 10.4551, -124.639, -87.6133, 143.428, 75.2683, 50.5191, -133.318, -66.56, 76.9863, -276.588
1.656, -1, -16.1668, 1.2935, 10.4565, -124.611, -87.657, 143.444, 75.2502, 50.5942, -133.287, -66.5716, 77.07, -276.574
1.66, -1, -16.1057, 1.29462, 10.458, -124.582, -87.7006, 143.461, 75.232, 50.6694, -133.256, -66.5833, 77.1538, -276.56
1.664, -1, -16.0446, 1.29574, 10.4594, -124.553, -87.7443, 143.477, 75.2139, 50.7447, -133.225, -66.5949, 77.2376, -276.546
1.668, -1, -15.9834, 1.29686, 10.4609, -124.525, -87.788, 143.493, 75.1957, 50.8199, -133.194, -66.6065, 77.3214, -276.532
1.672, -1, -15.9222, 1.29799, 10.4623, -124.496, -87.8317, 143.51, 75.1776, 50.8952, -133.162, -66.6182, 77.4053, -276.518
1.676, -1, -15.861, 1.29911, 10.4638, -124.467, -87.8754, 143.526, 75.1594, 50.9705, -133.131, -66.6298, 77.4892, -276.504
1.68, -1, -15.7998, 1.30023, 10.4652, -124.439, -87.9192, 143.542, 75.1412, 51.0459, -133.1, -66.6415, 77.5731, -276.49
1.684, -1, -15.7386, 1.30136, 10.4666, -124.41, -87.9629, 143.559, 75.1231, 51.1212, -133.069, -66.6531, 77.6571, -276.476
1.688, -1, -15.6773, 1.30248, 10.4681, -124.381, -88.0067, 143.575, 75.1049, 51.1966, -133.038, -66.6648, 77.7411, -276.462
1.692, -1, -15.6161, 1.30361, 10.4695, -124.352, -88.0504, 143.591, 75.0867, 51.272, -133.006, -66.6764, 77.8251, -276.448
1.696, -1, -15.5547, 1.30473, 10.471, -124.324, -88.0942, 143.608, 75.0685, 51.3475, -132.975, -66.6881, 77.9092, -276.434
1.7, -1, -15.4934, 1.30586, 10.4724, -124.295, -88.1381, 143.624, 75.0503, 51.423, -132.944, -66.6998, 77.9932, -276.42
1.704, -1, -15.4321, 1.30699, 10.4739, -124.266, -88.1819, 143.64, 75.0321, 51.4985, -132.913, -66.7114, 78.0774, -276.406
1.708, -1, -15.3707, 1.30811, 10.4753, -124.237, -88.2257, 143.657, 75.0138, 51.574, -132.881, -66.7231, 78.1615, -276.393
1.712, -1, -15.3093, 1.30924, 10.4768, -124.209, -88.2696, 143.673, 74.9956, 51.6496, -132.85, -66.7348, 78.2457, -276.379
1.716, -1, -15.2479, 1.31037, 10.4782, -124.18, -88.3135, 143.69, 74.9774, 51.7252, -132.819, -66.7465, 78.3299, -276.365
1.72, -1, -15.1864, 1.3115, 10.4797, -124.151, -88.3574, 143.706, 74.9592, 51.8008, -132.787, -66.7582, 78.4141, -276.351
1.724, -1, -15.125, 1.31262, 10.4811, -124.122, -88.4013, 143.722, 74.9409, 51.8764, -132.756, -66.7699, 78.4984, -276.337
1.728, -1, -15.0635, 1.31375, 10.4826, -124.093, -88.4452, 143.739, 74.9227, 51.9521, -132.725, -66.7816, 78.5827, -276.323
1.732, -1, -15.002, 1.31488, 10.484, -124.064, -88.4891, 143.755, 74.9044, 52.0278, -132.693, -66.7933, 78.667, -276.309
1.736, -1, -14.9405, 1.31601, 10.4855, -124.036, -88.5331, 143.772, 74.8861, 52.1035, -132.662, -66.805, 78.7514, -276.295
1.74, -1, -14.8789, 1.31714, 10.4869, -124.007, -88.5771, 143.788, 74.8679, 52.1792, -132.631, -66.8167, 78.8357, -276.281
1.744, -1, -14.8173, 1.31827, 10.4884, -123.978, -88.621, 143.804, 74.8496, 52.255, -132.599, -66.8284, 78.9202, -276.267
1.748, -1, -14.7557, 1.3194, 10.4898, -123.949, -88.665, 143.821, 74.8313, 52.3308, -132.568, -66.8402, 79.0046, -276.253
1.752, -1, -14.6941, 1.32053, 10.4913, -123.92, -88.7091, 143.837, 74.813, 52.4067, -132.536, -66.8519, 79.0891, -276.238
1.756, -1, -14.6325, 1.32167, 10.4928, -123.891, -88.7531, 143.854, 74.7947, 52.4825, -132.505, -66.8636, 79.1736, -276.224
1.76, -1, -14.5708, 1.3228, 10.4942, -123.862, -88.7972, 143.87, 74.7764, 52.5584, -132.473, -66.8754, 79.2582, -276.21
1.764, -1, -14.5091, 1.32393, 10.4957, -123.833, -88.8412, 143.887, 74.7581, 52.6344, -132.442, -66.8871, 79.3427, -276.196
1.768, -1, -14.4474, 1.32506, 10.4971, -123.804, -88.8853, 143.903, 74.7398, 52.7103, -132.411, -66.8988, 79.4274, -276.182
1.772, -1, -14.3857, 1.3262, 10.4986, -123.775, -88.9294, 143.92, 74.7215, 52.7863, -132.379, -66.9106, 79.512, -276.168
1.776, -1, -14.3239, 1.32733, 10.5, -123.746, -88.9736, 143.936, 74.7031, 52.8623, -132.348, -66.9223, 79.5967, -276.154
1.78, -1, -14.2621, 1.32847, 10.5015, -123.717, -89.0177, 143.953, 74.6848, 52.9383, -132.316, -66.9341, 79.6814, -276.14
1.784, -1, -14.2003, 1.3296, 10.503, -123.689, -89.0619, 143.969, 74.6664, 53.0144, -132.285, -66.9459, 79.7661, -276.126
1.788, -1, -14.1385, 1.33074, 10.5044, -123.66, -89.106, 143.986, 74.6481, 53.0905, -132.253, -66.9576, 79.8509, -276.112
1.792, -1, -14.0766, 1.33187, 10.5059, -123.631, -89.1502, 144.002, 74.6297, 53.1666, -132.222, -66.9694, 79.9357, -276.098
1.796, -1, -14.0148, 1.33301, 10.5073, -123.601, -89.1944, 144.019, 74.6114, 53.2428, -132.19, -66.9812, 80.0205, -276.084
1.8, -1, -13.9528, 1.33414, 10.5088, -123.572, -89.2386, 144.035, 74.593, 53.3189, -132.158, -66.993, 80.1054, -276.07
1.804, -1, -13.8909, 1.33528, 10.5103, -123.543, -89.2829, 144.052, 74.5746, 53.3952, -132.127, -67.0047, 80.1903, -276.056
1.808, -1, -13.829, 1.33642, 10.5117, -123.514, -89.3271, 144.068, 74.5562, 53.4714, -132.095, -67.0165, 80.2752, -276.042
1.812, -1, -13.767, 1.33756, 10.5132, -123.485, -89.3714, 144.085, 74.5378, 53.5477, -132.064, -67.0283, 80.3602, -276.027
1.816, -1, -13.705, 1.33869, 10.5147, -123.456, -89.4157, 144.101, 74.5194, 53.624, -132.032, -67.0401, 80.4452, -276.013
1.82, -1, -13.643, 1.33983, 10.5161, -123.427, -89.46, 144.118, 74.501, 53.7003, -132, -67.0519, 80.5302, -275.999
1.824, -1, -13.581, 1.34097, 10.5176, -123.398, -89.5043, 144.134, 74.4826, 53.7766, -131.969, -67.0637, 80.6153, -275.985
1.828, -1, -13.5189, 1.34211, 10.519, -123.369, -89.5487, 144.151, 74.4642, 53.853, -131.937, -67.0755, 80.7004, -275.971
1.832, -1, -13.4568, 1.34325, 10.5205, -123.34, -89.593, 144.167, 74.4457, 53.9294, -131.906, -67.0874, 80.7855, -275.957
1.836, -1, -13.3947, 1.34439, 10.522, -123.311, -89.6374, 144.184, 74.4273, 54.0059, -131.874, -67.0992, 80.8707, -275.943
1.84, -1, -13.3325, 1.34553, 10.5234, -123.282, -89.6818, 144.201, 74.4089, 54.0824, -131.842, -67.111, 80.9558, -275.928
1.844, -1, -13.2704, 1.34667, 10.5249, -123.252, -89.7262, 144.217, 74.3904, 54.1589, -131.811, -67.1228, 81.0411, -275.914
1.848, -1, -13.2082, 1.34782, 10.5264, -123.223, -89.7706, 144.234, 74.3719, 54.2354, -131.779, -67.1347, 81.1263, -275.9
1.852, -1, -13.146, 1.34896, 10.5278, -123.194, -89.8151, 144.25, 74.3535, 54.312, -131.747, -67.1465, 81.2116, -275.886
1.856, -1, -13.0838, 1.3501, 10.5293, -123.165, -89.8595, 144.267, 74.335, 54.3885, -131.715, -67.1584, 81.2969, -275.872
1.86, -1, -13.0215, 1.35124, 10.5308, -123.136, -89.904, 144.284, 74.3165, 54.4652, -131.684, -67.1702, 81.3823, -275.858
1.864, -1, -12.9592, 1.35239, 10.5323, -123.107, -89.9485, 144.3, 74.298, 54.5418, -131.652, -67.1821, 81.4677, -275.843
1.868, -1, -12.8969, 1.35353, 10.5337, -123.077, -89.993, 144.317, 74.2795, 54.6185, -131.62, -67.1939, 81.5531, -275.829
1.872, -1, -12.8346, 1.35467, 10.5352, -123.048, -90.0375, 144.333, 74.261, 54.6952, -131.588, -67.2058, 81.6386, -275.815
1.876, -1, -12.7722, 1.35582, 10.5367, -123.019, -90.0821, 144.35, 74.2425, 54.7719, -131.557, -67.2176, 81.724, -275.801
1.88, -1, -12.7099, 1.35696, 10.5381, -122.99, -90.1266, 144.367, 74.224, 54.8487, -131.525, -67.2295, 81.8096, -275.787
1.884, -1, -12.6475, 1.35811, 10.5396, -122.96, -90.1712, 144.383, 74.2055, 54.9255, -131.493, -67.2414, 81.8951, -275.772
1.888, -1, -12.585, 1.35926, 10.5411, -122.931, -90.2158, 144.4, 74.187, 55.0023, -131.461, -67.2533, 81.9807, -275.758
1.892, -1, -12.5226, 1.3604, 10.5426, -122.902, -90.2604, 144.417, 74.1684, 55.0792, -131.429, -67.2652, 82.0663, -275.744
1.896, -1, -12.4601, 1.36155, 10.544, -122.872, -90.3051, 144.433, 74.1499, 55.1561, -131.397, -67.277, 82.152, -275.73
1.9, -1, -12.3976, 1.3627, 10.5455, -122.843, -90.3497, 144.45, 74.1313, 55.233, -131.366, -67.2889, 82.2377, -275.716
1.904, -1, -12.3351, 1.36385, 10.547, -122.814, -90.3944, 144.467, 74.1128, 55.3099, -131.334, -67.3008, 82.3234, -275.701
1.908, -1, -12.2725, 1.36499, 10.5485, -122.784, -90.4391, 144.483, 74.0942, 55.3869, -131.302, -67.3127, 82.4091, -275.687
1.912, -1, -12.21, 1.36614, 10.5499, -122.755, -90.4838, 144.5, 74.0756, 55.4639, -131.27, -67.3246, 82.4949, -275.673
1.916, -1, -12.1474, 1.36729, 10.5514, -122.726, -90.5285, 144.517, 74.057, 55.541, -131.238, -67.3366, 82.5808, -275.659
1.92, -1, -12.0847, 1.36844, 10.5529, -122.696, -90.5732, 144.533, 74.0385, 55.618, -131.206, -67.3485, 82.6666, -275.644
1.924, -1, -12.0221, 1.36959, 10.5544, -122.667, -90.618, 144.55, 74.0199, 55.6951, -131.174, -67.3604, 82.7525, -275.63
1.928, -1, -11.9594, 1.37074, 10.5559, -122.638, -90.6627, 144.567, 74.0013, 55.7723, -131.142, -67.3723, 82.8384, -275.616
1.932, -1, -11.8967, 1.37189, 10.5573, -122.608, -90.7075, 144.584, 73.9826, 55.8494, -131.11, -67.3843, 82.9244, -275.602
1.936, -1, -11.834, 1.37305, 10.5588, -122.579, -90.7523, 144.6, 73.964, 55.9266, -131.078, -67.3962, 83.0104, -275.587
1.94, -1, -11.7713, 1.3742, 10.5603, -122.549, -90.7972, 144.617, 73.9454, 56.0038, -131.046, -67.4081, 83.0964, -275.573
1.944, -1, -11.7085, 1.37535, 10.5618, -122.52, -90.842, 144.634, 73.9268, 56.0811, -131.014, -67.4201, 83.1825, -275.559
1.948, -1, -11.6457, 1.3765, 10.5633, -122.491, -90.8869, 144.651, 73.9081, 56.1584, -130.982, -67.432, 83.2686, -275.544
1.952, -1, -11.5829, 1.37766, 10.5647, -122.461, -90.9317, 144.667, 73.8895, 56.2357, -130.95, -67.444, 83.3547, -275.53
1.956, -1, -11.52, 1.37881, 10.5662, -122.432, -90.9767, 144.684, 73.8708, 56.313, -130.918, -67.4559, 83.4408, -275.516
1.96, -1, -11.4572, 1.37996, 10.5677, -122.402, -91.0216, 144.701, 73.8522, 56.3904, -130.886, -67.4679, 83.527, -275.501
1.964, -1, -11.3943, 1.38112, 10.5692, -122.373, -91.0665, 144.718, 73.8335, 56.4678, -130.854, -67.4799, 83.6133, -275.487
1.968, -1, -11.3313, 1.38227, 10.5707, -122.343, -91.1114, 144.735, 73.8148, 56.5452, -130.822, -67.4919, 83.6995, -275.473
1.972, -1, -11.2684, 1.38343, 10.5722, -122.314, -91.1564, 144.751, 73.7961, 56.6227, -130.79, -67.5038, 83.7858, -275.459
1.976, -1, -11.2054, 1.38459, 10.5736, -122.284, -91.2014, 144.768, 73.7774, 56.7002, -130.758, -67.5158, 83.8722, -275.444
1.98, -1, -11.1424, 1.38574, 10.5751, -122.255, -91.2464, 144.785, 73.7587, 56.7777, -130.726, -67.5278, 83.9585, -275.43
1.984, -1, -11.0794, 1.3869, 10.5766, -122.225, -91.2914, 144.802, 73.74, 56.8553, -130.694, -67.5398, 84.0449, -275.415
1.988, -1, -11.0164, 1.38806, 10.5781, -122.195, -91.3365, 144.819, 73.7213, 56.9329, -130.661, -67.5518, 84.1314, -275.401
1.992, -1, -10.9533, 1.38921, 10.5796, -122.166, -91.3815, 144.835, 73.7026, 57.0105, -130.629, -67.5638, 84.2178, -275.387
1.996, -1, -10.8902, 1.39037, 10.5811, -122.136, -91.4266, 144.852, 73.6839, 57.0882, -130.597, -67.5758, 84.3044, -275.372
1.999, -1, -10.8271, 1.39153, 10.5826, -122.107, -91.4717, 144.869, 73.6651, 57.1659, -130.565, -67.5878, 84.3909, -275.358
2.004, -1, -10.7639, 1.39269, 10.5841, -122.077, -91.5168, 144.886, 73.6464, 57.2436, -130.533, -67.5998, 84.4775, -275.344
2.008, -1, -10.7007, 1.39385, 10.5856, -122.047, -91.562, 144.903, 73.6276, 57.3213, -130.5, -67.6119, 84.5641, -275.329
2.012, -1, -10.6375, 1.39501, 10.5871, -122.018, -91.6071, 144.92, 73.6089, 57.3991, -130.468, -67.6239, 84.6507, -275.315
2.015, -1, -10.5743, 1.39617, 10.5885, -121.988, -91.6523, 144.936, 73.5901, 57.4769, -130.436, -67.6359, 84.7374, -275.301
2.019, -1, -10.5111, 1.39733, 10.59, -121.958, -91.6975, 144.953, 73.5713, 57.5548, -130.404, -67.648, 84.8242, -275.286
2.024, -1, -10.448, 1.3985, 10.5915, -121.929, -91.7427, 144.97, 73.5525, 57.6326, -130.371, -67.66, 84.9109, -275.272
2.028, -1, -10.3853, 1.39967, 10.593, -121.899, -91.7879, 144.987, 73.5337, 57.7105, -130.339, -67.6721, 84.9977, -275.257
2.031, -1, -10.323, 1.40086, 10.5944, -121.869, -91.8331, 145.004, 73.5149, 57.7885, -130.307, -67.6841, 85.0845, -275.243
2.036, -1, -10.2613, 1.40206, 10.5957, -121.84, -91.8782, 145.021, 73.4962, 57.8663, -130.275, -67.6962, 85.1714, -275.228
2.04, -1, -10.2001, 1.40327, 10.597, -121.81, -91.9233, 145.038, 73.4775, 57.944, -130.243, -67.7082, 85.2582, -275.214
2.044, -1, -10.1395, 1.40449, 10.5982, -121.781, -91.9683, 145.055, 73.4589, 58.0214, -130.211, -67.7203, 85.345, -275.2
2.048, -1, -10.0796, 1.40572, 10.5993, -121.751, -92.013, 145.071, 73.4405, 58.0984, -130.18, -67.7324, 85.4316, -275.185
2.051, -1, -10.0209, 1.40698, 10.6003, -121.722, -92.0575, 145.088, 73.4224, 58.1747, -130.149, -67.7445, 85.5179, -275.171
2.055, -1, -9.96371, 1.40828, 10.6011, -121.693, -92.1014, 145.104, 73.4044, 58.2503, -130.118, -67.7565, 85.6036, -275.157
2.06, -1, -9.90848, 1.40962, 10.6017, -121.665, -92.1448, 145.12, 73.3869, 58.3247, -130.089, -67.7684, 85.6885, -275.143
2.064, -1, -9.85539, 1.41098, 10.602, -121.637, -92.1872, 145.136, 73.3698, 58.3975, -130.06, -67.7802, 85.7721, -275.129
2.068, -1, -9.80456, 1.41235, 10.6022, -121.61, -92.2285, 145.152, 73.3535, 58.468, -130.033, -67.7918, 85.8541, -275.115
2.071, -1, -9.75608, 1.41369, 10.6022, -121.583, -92.2682, 145.167, 73.338, 58.5356, -130.007, -67.8032, 85.9337, -275.102
2.076, -1, -9.7099, 1.41499, 10.6023, -121.558, -92.3061, 145.181, 73.3236, 58.5998, -129.984, -67.8142, 86.0103, -275.089
2.08, -1, -9.66599, 1.4162, 10.6024, -121.535, -92.3419, 145.194, 73.3101, 58.6599, -129.962, -67.8247, 86.0829, -275.077
2.084, -1, -9.62451, 1.41731, 10.6025, -121.513, -92.3752, 145.207, 73.2978, 58.7156, -129.942, -67.8345, 86.1505, -275.066
2.087, -1, -9.58577, 1.4183, 10.6028, -121.493, -92.4057, 145.218, 73.2864, 58.7667, -129.924, -67.8435, 86.2124, -275.055
2.092, -1, -9.55001, 1.41917, 10.6032, -121.475, -92.4334, 145.228, 73.2759, 58.8133, -129.907, -67.8514, 86.2676, -275.046
2.096, -1, -9.51725, 1.41991, 10.6037, -121.459, -92.458, 145.238, 73.2661, 58.8552, -129.89, -67.8581, 86.3157, -275.038
2.1, -1, -9.48726, 1.42049, 10.6044, -121.445, -92.4794, 145.246, 73.2571, 58.8923, -129.874, -67.8637, 86.3564, -275.031
2.104, -1, -9.45972, 1.4209, 10.6054, -121.433, -92.4977, 145.252, 73.249, 58.9243, -129.86, -67.8682, 86.3898, -275.026
2.107, -1, -9.43449, 1.42115, 10.6066, -121.423, -92.5129, 145.258, 73.2418, 58.9515, -129.846, -67.8716, 86.4164, -275.021
2.111, -1, -9.4117, 1.42126, 10.608, -121.415, -92.5253, 145.263, 73.2355, 58.974, -129.834, -67.8741, 86.4368, -275.018
2.116, -1, -9.39151, 1.42126, 10.6094, -121.408, -92.5351, 145.266, 73.2301, 58.9922, -129.823, -67.8758, 86.4518, -275.016
2.12, -1, -9.37392, 1.42118, 10.611, -121.403, -92.5426, 145.269, 73.2257, 59.0066, -129.814, -67.8768, 86.4623, -275.014
2.124, -1, -9.35891, 1.42105, 10.6124, -121.4, -92.5482, 145.271, 73.222, 59.0175, -129.806, -67.8774, 86.4692, -275.013
2.127, -1, -9.34633, 1.42089, 10.6137, -121.397, -92.5523, 145.273, 73.2192, 59.0256, -129.8, -67.8776, 86.4734, -275.012
2.132, -1, -9.33591, 1.42072, 10.6149, -121.395, -92.555, 145.274, 73.2171, 59.0313, -129.795, -67.8777, 86.4758, -275.012
2.136, -1, -9.32731, 1.42056, 10.6158, -121.394, -92.5568, 145.274, 73.2157, 59.035, -129.792, -67.8776, 86.477, -275.012
2.14, -1, -9.32033, 1.42041, 10.6167, -121.393, -92.5579, 145.275, 73.2148, 59.0372, -129.79, -67.8776, 86.4776, -275.012
2.143, -1, -9.31489, 1.42028, 10.6173, -121.393, -92.5585, 145.275, 73.2143, 59.0384, -129.789, -67.8775, 86.4778, -275.011
2.148, -1, -9.31089, 1.42018, 10.6178, -121.393, -92.5589, 145.275, 73.2141, 59.0388, -129.789, -67.8775, 86.4778, -275.011
2.152, -1, -9.30821, 1.42012, 10.6181, -121.393, -92.559, 145.275, 73.2141, 59.0389, -129.788, -67.8775, 86.4778, -275.011
2.156, -1, -9.30671, 1.42008, 10.6183, -121.393, -92.559, 145.275, 73.2141, 59.0389, -129.788, -67.8775, 86.4778, -275.011
2.16, 2, -9.30609, 1.42007, 10.6183, -121.393, -92.5591, 145.275, 73.2141, 59.0389, -129.788, -67.8775, 86.4778, -275.011
2.163, 2, -9.30593, 1.42007, 10.6184, -121.393, -92.5591, 145.275, 73.2141, 59.0389, -129.788, -67.8775, 86.4778, -275.011
2.168, 2, -9.30592, 1.42007, 10.6184, -121.393, -92.5591, 145.275, 73.2141, 59.0389, -129.788, -67.8775, 86.4778, -275.011
2.172, 2, -9.30592, 1.42007, 10.6184, -121.393, -92.5591, 145.275, 73.2141, 59.0389, -129.788, -67.8775, 86.4778, -275.011
2.176, 2, -9.30592, 1.42007, 10.6184, -121.393, -92.5591, 145.275, 73.2141, 59.0389, -129.788, -67.8775, 86.4778, -275.011
2.179, 2, -9.30592, 1.42007, 10.6184, -121.393, -92.5591, 145.275, 73.2141, 59.0389, -129.788, -67.8775, 86.4778, -275.011
2.184, 2, -9.30592, 1.42007, 10.6184, -121.393, -92.5591, 145.275, 73.2141, 59.0389, -129.788, -67.8775, 86.4778, -275.011
2.188, 2, -9.30592, 1.42007, 10.6184, -121.393, -92.5591, 145.275, 73.2141, 59.0389, -129.788, -67.8775, 86.4778, -275.011
2.192, 2, -9.30592, 1.42007, 10.6184, -121.393, -92.5591, 145.275, 73.2141, 59.0389, -129.788, -67.8775, 86.4778, -275.011
2.196, 2, -9.30592, 1.42007, 10.6184, -121.393, -92.5591, 145.275, 73.2141, 59.0389, -129.788, -67.8775, 86.4778, -275.011
2.199, 2, -9.30592, 1.42007, 10.6184, -121.393, -92.5591, 145.275, 73.2141, 59.0389, -129.788, -67.8775, 86.4778, -275.011
2.204, 2, -9.30592, 1.42007, 10.6184, -121.393, -92.5591, 145.275, 73.2141, 59.0389, -129.788, -67.8775, 86.4778, -275.011
2.208, 2, -9.30592, 1.42007, 10.6184, -121.393, -92.5591, 145.275, 73.2141, 59.0389, -129.788, -67.8775, 86.4778, -275.011
2.212, 2, -9.30592, 1.42007, 10.6184, -121.393, -92.5591, 145.275, 73.2141, 59.0389, -129.788, -67.8775, 86.4778, -275.011
2.216, 2, -9.30592, 1.42007, 10.6184, -121.393, -92.5591, 145.275, 73.2141, 59.0389, -129.788, -67.8775, 86.4778, -275.011
2.219, 2, -9.30592, 1.42007, 10.6184, -121.393, -92.5591, 145.275, 73.2141, 59.0389, -129.788, -67.8775, 86.4778, -275.011
2.224, 2, -9.30592, 1.42007, 10.6184, -121.393, -92.5591, 145.275, 73.2141, 59.0389, -129.788, -67.8775, 86.4778, -275.011
2.228, 2, -9.30592, 1.42007, 10.6184, -121.393, -92.5591, 145.275, 73.2141, 59.0389, -129.788, -67.8775, 86.4778, -275.011
2.232, 2, -9.30592, 1.42007, 10.6184, -121.393, -92.5591, 145.275, 73.2141, 59.0389, -129.788, -67.8775, 86.4778, -275.011
2.235, 2, -9.30592, 1.42007, 10.6184, -121.393, -92.5591, 145.275, 73.2141, 59.0389, -129.788, -67.8775, 86.4778, -275.011
2.24, 2, -9.30592, 1.42007, 10.6184, -121.393, -92.5591, 145.275, 73.2141, 59.0389, -129.788, -67.8775, 86.4778, -275.011
2.244, 2, -9.30592, 1.42007, 10.6184, -121.393, -92.5591, 145.275, 73.2141, 59.0389, -129.788, -67.8775, 86.4778, -275.011
2.248, 2, -9.30592, 1.42007, 10.6184, -121.393, -92.5591, 145.275, 73.2141, 59.0389, -129.788, -67.8775, 86.4778, -275.011
2.252, 2, -9.30592, 1.42007, 10.6184, -121.393, -92.5591, 145.275, 73.2141, 59.0389, -129.788, -67.8775, 86.4778, -275.011
2.255, 2, -9.30592, 1.42007, 10.6184, -121.393, -92.5591, 145.275, 73.2141, 59.0389, -129.788, -67.8775, 86.4778, -275.011
2.259, 2, -9.30592, 1.42007, 10.6184, -121.393, -92.5591, 145.275, 73.2141, 59.0389, -129.788, -67.8775, 86.4778, -275.011
2.264, 2, -9.30592, 1.42007, 10.6184, -121.393, -92.5591, 145.275, 73.2141, 59.0389, -129.788, -67.8775, 86.4778, -275.011
2.268, 2, -9.30592, 1.42007, 10.6184, -121.393, -92.5591, 145.275, 73.2141, 59.0389, -129.788, -67.8775, 86.4778, -275.011
2.272, 2, -9.30592, 1.42007, 10.6184, -121.393, -92.5591, 145.275, 73.2141, 59.0389, -129.788, -67.8775, 86.4778, -275.011
2.275, 2, -9.30592, 1.42007, 10.6184, -121.393, -92.5591, 145.275, 73.2141, 59.0389, -129.788, -67.8775, 86.4778, -275.011
2.28, 2, -9.30592, 1.42007, 10.6184, -121.393, -92.5591, 145.275, 73.2141, 59.0389, -129.788, -67.8775, 86.4778, -275.011
2.284, 2, -9.30592, 1.42007, 10.6184, -121.393, -92.5591, 145.275, 73.2141, 59.0389, -129.788, -67.8775, 86.4778, -275.011
2.288, 2, -9.30592, 1.42007, 10.6184, -121.393, -92.5591, 145.275, 73.2141, 59.0389, -129.788, -67.8775, 86.4778, -275.011
2.291, 2, -9.30592, 1.42007, 10.6184, -121.393, -92.5591, 145.275, 73.2141, 59.0389, -129.788, -67.8775, 86.4778, -275.011
2.296, 2, -9.30592, 1.42007, 10.6184, -121.393, -92.5591, 145.275, 73.2141, 59.0389, -129.788, -67.8775, 86.4778, -275.011
2.3, 2, -9.30592, 1.42007, 10.6184, -121.393, -92.5591, 145.275, 73.2141, 59.0389, -129.788, -67.8775, 86.4778, -275.011
2.304, 2, -9.30592, 1.42007, 10.6184, -121.393, -92.5591, 145.275, 73.2141, 59.0389, -129.788, -67.8775, 86.4778, -275.011
2.308, 2, -9.30592, 1.42007, 10.6184, -121.393, -92.5591, 145.275, 73.2141, 59.0389, -129.788, -67.8775, 86.4778, -275.011
2.311, 2, -9.30592, 1.42007, 10.6184, -121.393, -92.5591, 145.275, 73.2141, 59.0389, -129.788, -67.8775, 86.4778, -275.011
2.316, 2, -9.30592, 1.42007, 10.6184, -121.393, -92.5591, 145.275, 73.2141, 59.0389, -129.788, -67.8775, 86.4778, -275.011
2.32, 2, -9.30592, 1.42007, 10.6184, -121.393, -92.5591, 145.275, 73.2141, 59.0389, -129.788, -67.8775, 86.4778, -275.011
2.324, 2, -9.30592, 1.42007, 10.6184, -121.393, -92.5591, 145.275, 73.2141, 59.0389, -129.788, -67.8775, 86.4778, -275.011
2.328, 2, -9.30592, 1.42007, 10.6184, -121.393, -92.5591, 145.275, 73.2141, 59.0389, -129.788, -67.8775, 86.4778, -275.011
2.331, 2, -9.30592, 1.42007, 10.6184, -121.393, -92.5591, 145.275, 73.2141, 59.0389, -129.788, -67.8775, 86.4778, -275.011
2.336, 2, -9.30592, 1.42007, 10.6184, -121.393, -92.5591, 145.275, 73.2141, 59.0389, -129.788, -67.8775, 86.4778, -275.011
2.34, 2, -9.30592, 1.42007, 10.6184, -121.393, -92.5591, 145.275, 73.2141, 59.0389, -129.788, -67.8775, 86.4778, -275.011
2.344, 2, -9.30592, 1.42007, 10.6184, -121.393, -92.5591, 145.275, 73.2141, 59.0389, -129.788, -67.8775, 86.4778, -275.011
2.347, 2, -9.30592, 1.42007, 10.6184, -121.393, -92.5591, 145.275, 73.2141, 59.0389, -129.788, -67.8775, 86.4778, -275.011
2.352, 2, -9.30592, 1.42007, 10.6184, -121.393, -92.5591, 145.275, 73.2141, 59.0389, -129.788, -67.8775, 86.4778, -275.011
2.356, 2, -9.30592, 1.42007, 10.6184, -121.393, -92.5591, 145.275, 73.2141, 59.0389, -129.788, -67.8775, 86.4778, -275.011
2.36, 2, -9.30592, 1.42007, 10.6184, -121.393, -92.5591, 145.275, 73.2141, 59.0389, -129.788, -67.8775, 86.4778, -275.011
2.364, 2, -9.30592, 1.42007, 10.6184, -121.393, -92.5591, 145.275, 73.2141, 59.0389, -129.788, -67.8775, 86.4778, -275.011
2.367, 2, -9.30592, 1.42007, 10.6184, -121.393, -92.5591, 145.275, 73.2141, 59.0389, -129.788, -67.8775, 86.4778, -275.011
2.372, 2, -9.30592, 1.42007, 10.6184, -121.393, -92.5591, 145.275, 73.2141, 59.0389, -129.788, -67.8775, 86.4778, -275.011
2.376, 2, -9.30592, 1.42007, 10.6184, -121.393, -92.5591, 145.275, 73.2141, 59.0389, -129.788, -67.8775, 86.4778, -275.011
2.38, 2, -9.30592, 1.42007, 10.6184, -121.393, -92.5591, 145.275, 73.2141, 59.0389, -129.788, -67.8775, 86.4778, -275.011
2.383, 2, -9.30592, 1.42007, 10.6184, -121.393, -92.5591, 145.275, 73.2141, 59.0389, -129.788, -67.8775, 86.4778, -275.011
2.388, 2, -9.30592, 1.42007, 10.6184, -121.393, -92.5591, 145.275, 73.2141, 59.0389, -129.788, -67.8775, 86.4778, -275.011
2.392, 2, -9.30592, 1.42007, 10.6184, -121.393, -92.5591, 145.275, 73.2141, 59.0389, -129.788, -67.8775, 86.4778, -275.011
2.396, 2, -9.30592, 1.42007, 10.6184, -121.393, -92.5591, 145.275, 73.2141, 59.0389, -129.788, -67.8775, 86.4778, -275.011
2.4, 2, -9.30592, 1.42007, 10.6184, -121.393, -92.5591, 145.275, 73.2141, 59.0389, -129.788, -67.8775, 86.4778, -275.011
2.403, 2, -9.30592, 1.42007, 10.6184, -121.393, -92.5591, 145.275, 73.2141, 59.0389, -129.788, -67.8775, 86.4778, -275.011
2.408, 2, -9.30592, 1.42007, 10.6184, -121.393, -92.5591, 145.275, 73.2141, 59.0389, -129.788, -67.8775, 86.4778, -275.011
2.412, 2, -9.30592, 1.42007, 10.6184, -121.393, -92.5591, 145.275, 73.2141, 59.0389, -129.788, -67.8775, 86.4778, -275.011
2.416, 2, -9.30592, 1.42007, 10.6184, -121.393, -92.5591, 145.275, 73.2141, 59.0389, -129.788, -67.8775, 86.4778, -275.011
2.42, 2, -9.30592, 1.42007, 10.6184, -121.393, -92.5591, 145.275, 73.2141, 59.0389, -129.788, -67.8775, 86.4778, -275.011
2.423, 2, -9.30592, 1.42007, 10.6184, -121.393, -92.5591, 145.275, 73.2141, 59.0389, -129.788, -67.8775, 86.4778, -275.011
2.428, 2, -9.30592, 1.42007, 10.6184, -121.393, -92.5591, 145.275, 73.2141, 59.0389, -129.788, -67.8775, 86.4778, -275.011
2.432, 2, -9.30592, 1.42007, 10.6184, -121.393, -92.5591, 145.275, 73.2141, 59.0389, -129.788, -67.8775, 86.4778, -275.011
2.436, 2, -9.30592, 1.42007, 10.6184, -121.393, -92.5591, 145.275, 73.2141, 59.0389, -129.788, -67.8775, 86.4778, -275.011
2.439, 2, -9.30592, 1.42007, 10.6184, -121.393, -92.5591, 145.275, 73.2141, 59.0389, -129.788, -67.8775, 86.4778, -275.011
2.444, 2, -9.30592, 1.42007, 10.6184, -121.393, -92.5591, 145.275, 73.2141, 59.0389, -129.788, -67.8775, 86.4778, -275.011
2.448, 2, -9.30592, 1.42007, 10.6184, -121.393, -92.5591, 145.275, 73.2141, 59.0389, -129.788, -67.8775, 86.4778, -275.011
2.452, 2, -9.30592, 1.42007, 10.6184, -121.393, -92.5591, 145.275, 73.2141, 59.0389, -129.788, -67.8775, 86.4778, -275.011
2.456, 2, -9.30592, 1.42007, 10.6184, -121.393, -92.5591, 145.275, 73.2141, 59.0389, -129.788, -67.8775, 86.4778, -275.011
2.459, 2, -9.30592, 1.42007, 10.6184, -121.393, -92.5591, 145.275, 73.2141, 59.0389, -129.788, -67.8775, 86.4778, -275.011
2.464, 2, -9.30592, 1.42007, 10.6184, -121.393, -92.5591, 145.275, 73.2141, 59.0389, -129.788, -67.8775, 86.4778, -275.011
2.468, 2, -9.30592, 1.42007, 10.6184, -121.393, -92.5591, 145.275, 73.2141, 59.0389, -129.788, -67.8775, 86.4778, -275.011
2.472, 2, -9.30592, 1.42007, 10.6184, -121.393, -92.5591, 145.275, 73.2141, 59.0389, -129.788, -67.8775, 86.4778, -275.011
2.476, 2, -9.30592, 1.42007, 10.6184, -121.393, -92.5591, 145.275, 73.2141, 59.0389, -129.788, -67.8775, 86.4778, -275.011
2.479, 2, -9.30592, 1.42007, 10.6184, -121.393, -92.5591, 145.275, 73.2141, 59.0389, -129.788, -67.8775, 86.4778, -275.011
2.484, 2, -9.30592, 1.42007, 10.6184, -121.393, -92.5591, 145.275, 73.2141, 59.0389, -129.788, -67.8775, 86.4778, -275.011
2.488, 2, -9.30592, 1.42007, 10.6184, -121.393, -92.5591, 145.275, 73.2141, 59.0389, -129.788, -67.8775, 86.4778, -275.011
2.492, 2, -9.30592, 1.42007, 10.6184, -121.393, -92.5591, 145.275, 73.2141, 59.0389, -129.788, -67.8775, 86.4778, -275.011
2.495, 2, -9.30592, 1.42007, 10.6184, -121.393, -92.5591, 145.275, 73.2141, 59.0389, -129.788, -67.8775, 86.4778, -275.011
2.5, 2, -9.30592, 1.42007, 10.6184, -121.393, -92.5591, 145.275, 73.2141, 59.0389, -129.788, -67.8775, 86.4778, -275.011
2.504, 2, -9.30592, 1.42007, 10.6184, -121.393, -92.5591, 145.275, 73.2141, 59.0389, -129.788, -67.8775, 86.4778, -275.011
2.508, 2, -9.30592, 1.42007, 10.6184, -121.393, -92.5591, 145.275, 73.2141, 59.0389, -129.788, -67.8775, 86.4778, -275.011
2.512, 2, -9.30592, 1.42007, 10.6184, -121.393, -92.5591, 145.275, 73.2141, 59.0389, -129.788, -67.8775, 86.4778, -275.011
2.515, 2, -9.30592, 1.42007, 10.6184, -121.393, -92.5591, 145.275, 73.2141, 59.0389, -129.788, -67.8775, 86.4778, -275.011
2.52, 2, -9.30592, 1.42007, 10.6184, -121.393, -92.5591, 145.275, 73.2141, 59.0389, -129.788, -67.8775, 86.4778, -275.011
2.524, 2, -9.30592, 1.42007, 10.6184, -121.393, -92.5591, 145.275, 73.2141, 59.0389, -129.788, -67.8775, 86.4778, -275.011
2.528, 2, -9.30592, 1.42007, 10.6184, -121.393, -92.5591, 145.275, 73.2141, 59.0389, -129.788, -67.8775, 86.4778, -275.011
2.531, 2, -9.30592, 1.42007, 10.6184, -121.393, -92.5591, 145.275, 73.2141, 59.0389, -129.788, -67.8775, 86.4778, -275.011
2.536, 2, -9.30592, 1.42007, 10.6184, -121.393, -92.5591, 145.275, 73.2141, 59.0389, -129.788, -67.8775, 86.4778, -275.011
2.54, 2, -9.30592, 1.42007, 10.6184, -121.393, -92.5591, 145.275, 73.2141, 59.0389, -129.788, -67.8775, 86.4778, -275.011
2.544, 2, -9.30592, 1.42007, 10.6184, -121.393, -92.5591, 145.275, 73.2141, 59.0389, -129.788, -67.8775, 86.4778, -275.011
2.548, 2, -9.30592, 1.42007, 10.6184, -121.393, -92.5591, 145.275, 73.2141, 59.0389, -129.788, -67.8775, 86.4778, -275.011
2.551, 2, -9.30592, 1.42007, 10.6184, -121.393, -92.5591, 145.275, 73.2141, 59.0389, -129.788, -67.8775, 86.4778, -275.011
2.556, 2, -9.30592, 1.42007, 10.6184, -121.393, -92.5591, 145.275, 73.2141, 59.0389, -129.788, -67.8775, 86.4778, -275.011
2.56, 2, -9.30592, 1.42007, 10.6184, -121.393, -92.5591, 145.275, 73.2141, 59.0389, -129.788, -67.8775, 86.4778, -275.011
2.564, 2, -9.30592, 1.42007, 10.6184, -121.393, -92.5591, 145.275, 73.2141, 59.0389, -129.788, -67.8775, 86.4778, -275.011
2.568, 2, -9.30592, 1.42007, 10.6184, -121.393, -92.5591, 145.275, 73.2141, 59.0389, -129.788, -67.8775, 86.4778, -275.011
2.571, 2, -9.30592, 1.42007, 10.6184, -121.393, -92.5591, 145.275, 73.2141, 59.0389, -129.788, -67.8775, 86.4778, -275.011
2.576, 2, -9.30592, 1.42007, 10.6184, -121.393, -92.5591, 145.275, 73.2141, 59.0389, -129.788, -67.8775, 86.4778, -275.011
2.58, 2, -9.30592, 1.42007, 10.6184, -121.393, -92.5591, 145.275, 73.2141, 59.0389, -129.788, -67.8775, 86.4778, -275.011
2.584, 2, -9.30592, 1.42007, 10.6184, -121.393, -92.5591, 145.275, 73.2141, 59.0389, -129.788, -67.8775, 86.4778, -275.011
2.587, 2, -9.30592, 1.42007, 10.6184, -121.393, -92.5591, 145.275, 73.2141, 59.0389, -129.788, -67.8775, 86.4778, -275.011
2.592, 2, -9.30592, 1.42007, 10.6184, -121.393, -92.5591, 145.275, 73.2141, 59.0389, -129.788, -67.8775, 86.4778, -275.011
2.596, 2, -9.30592, 1.42007, 10.6184, -121.393, -92.5591, 145.275, 73.2141, 59.0389, -129.788, -67.8775, 86.4778, -275.011
2.6, 2, -9.30592, 1.42007, 10.6184, -121.393, -92.5591, 145.275, 73.2141, 59.0389, -129.788, -67.8775, 86.4778, -275.011
2.604, 2, -9.30592, 1.42007, 10.6184, -121.393, -92.5591, 145.275, 73.2141, 59.0389, -129.788, -67.8775, 86.4778, -275.011
2.607, 2, -9.30592, 1.42007, 10.6184, -121.393, -92.5591, 145.275, 73.2141, 59.0389, -129.788, -67.8775, 86.4778, -275.011
2.612, 2, -9.30592, 1.42007, 10.6184, -121.393, -92.5591, 145.275, 73.2141, 59.0389, -129.788, -67.8775, 86.4778, -275.011
2.616, 2, -9.30592, 1.42007, 10.6184, -121.393, -92.5591, 145.275, 73.2141, 59.0389, -129.788, -67.8775, 86.4778, -275.011
2.62, 2, -9.30592, 1.42007, 10.6184, -121.393, -92.5591, 145.275, 73.2141, 59.0389, -129.788, -67.8775, 86.4778, -275.011
2.624, 2, -9.30592, 1.42007, 10.6184, -121.393, -92.5591, 145.275, 73.2141, 59.0389, -129.788, -67.8775, 86.4778, -275.011
2.627, 2, -9.30592, 1.42007, 10.6184, -121.393, -92.5591, 145.275, 73.2141, 59.0389, -129.788, -67.8775, 86.4778, -275.011
2.632, 2, -9.30592, 1.42007, 10.6184, -121.393, -92.5591, 145.275, 73.2141, 59.0389, -129.788, -67.8775, 86.4778, -275.011
2.636, 2, -9.30592, 1.42007, 10.6184, -121.393, -92.5591, 145.275, 73.2141, 59.0389, -129.788, -67.8775, 86.4778, -275.011
2.64, 2, -9.30592, 1.42007, 10.6184, -121.393, -92.5591, 145.275, 73.2141, 59.0389, -129.788, -67.8775, 86.4778, -275.011
2.643, 2, -9.30592, 1.42007, 10.6184, -121.393, -92.5591, 145.275, 73.2141, 59.0389, -129.788, -67.8775, 86.4778, -275.011
2.648, 2, -9.30592, 1.42007, 10.6184, -121.393, -92.5591, 145.275, 73.2141, 59.0389, -129.788, -67.8775, 86.4778, -275.011
2.652, 2, -9.30592, 1.42007, 10.6184, -121.393, -92.5591, 145.275, 73.2141, 59.0389, -129.788, -67.8775, 86.4778, -275.011
2.656, 2, -9.30592, 1.42007, 10.6184, -121.393, -92.5591, 145.275, 73.2141, 59.0389, -129.788, -67.8775, 86.4778, -275.011
2.66, 2, -9.30592, 1.42007, 10.6184, -121.393, -92.5591, 145.275, 73.2141, 59.0389, -129.788, -67.8775, 86.4778, -275.011
2.663, 2, -9.30592, 1.42007, 10.6184, -121.393, -92.5591, 145.275, 73.2141, 59.0389, -129.788, -67.8775, 86.4778, -275.011
2.668, 2, -9.30592, 1.42007, 10.6184, -121.393, -92.5591, 145.275, 73.2141, 59.0389, -129.788, -67.8775, 86.4778, -275.011
2.672, 2, -9.30592, 1.42007, 10.6184, -121.393, -92.5591, 145.275, 73.2141, 59.0389, -129.788, -67.8775, 86.4778, -275.011
2.676, 2, -9.30592, 1.42007, 10.6184, -121.393, -92.5591, 145.275, 73.2141, 59.0389, -129.788, -67.8775, 86.4778, -275.011
2.679, 2, -9.30592, 1.42007, 10.6184, -121.393, -92.5591, 145.275, 73.2141, 59.0389, -129.788, -67.8775, 86.4778, -275.011
2.684, 2, -9.30592, 1.42007, 10.6184, -121.393, -92.5591, 145.275, 73.2141, 59.0389, -129.788, -67.8775, 86.4778, -275.011
2.688, 2, -9.30592, 1.42007, 10.6184, -121.393, -92.5591, 145.275, 73.2141, 59.0389, -129.788, -67.8775, 86.4778, -275.011
2.692, 2, -9.30592, 1.42007, 10.6184, -121.393, -92.5591, 145.275, 73.2141, 59.0389, -129.788, -67.8775, 86.4778, -275.011
2.696, 2, -9.30592, 1.42007, 10.6184, -121.393, -92.5591, 145.275, 73.2141, 59.0389, -129.788, -67.8775, 86.4778, -275.011
2.699, 2, -9.30592, 1.42007, 10.6184, -121.393, -92.5591, 145.275, 73.2141, 59.0389, -129.788, -67.8775, 86.4778, -275.011
2.704, 2, -9.30592, 1.42007, 10.6184, -121.393, -92.5591, 145.275, 73.2141, 59.0389, -129.788, -67.8775, 86.4778, -275.011
2.708, 2, -9.30592, 1.42007, 10.6184, -121.393, -92.5591, 145.275, 73.2141, 59.0389, -129.788, -67.8775, 86.4778, -275.011
2.712, 2, -9.30592, 1.42007, 10.6184, -121.393, -92.5591, 145.275, 73.2141, 59.0389, -129.788, -67.8775, 86.4778, -275.011
2.716, 2, -9.30592, 1.42007, 10.6184, -121.393, -92.5591, 145.275, 73.2141, 59.0389, -129.788, -67.8775, 86.4778, -275.011
2.719, 2, -9.30592, 1.42007, 10.6184, -121.393, -92.5591, 145.275, 73.2141, 59.0389, -129.788, -67.8775, 86.4778, -275.011
2.724, 2, -9.30592, 1.42007, 10.6184, -121.393, -92.5591, 145.275, 73.2141, 59.0389, -129.788, -67.8775, 86.4778, -275.011
2.728, 2, -9.30592, 1.42007, 10.6184, -121.393, -92.5591, 145.275, 73.2141, 59.0389, -129.788, -67.8775, 86.4778, -275.011
2.732, 2, -9.30592, 1.42007, 10.6184, -121.393, -92.5591, 145.275, 73.2141, 59.0389, -129.788, -67.8775, 86.4778, -275.011
2.735, 2, -9.30592, 1.42007, 10.6184, -121.393, -92.5591, 145.275, 73.2141, 59.0389, -129.788, -67.8775, 86.4778, -275.011
2.74, 2, -9.30592, 1.42007, 10.6184, -121.393, -92.5591, 145.275, 73.2141, 59.0389, -129.788, -67.8775, 86.4778, -275.011
2.744, 2, -9.30592, 1.42007, 10.6184, -121.393, -92.5591, 145.275, 73.2141, 59.0389, -129.788, -67.8775, 86.4778, -275.011
2.748, 2, -9.30592, 1.42007, 10.6184, -121.393, -92.5591, 145.275, 73.2141, 59.0389, -129.788, -67.8775, 86.4778, -275.011
2.752, 2, -9.30592, 1.42007, 10.6184, -121.393, -92.5591, 145.275, 73.2141, 59.0389, -129.788, -67.8775, 86.4778, -275.011
2.755, 2, -9.30592, 1.42007, 10.6184, -121.393, -92.5591, 145.275, 73.2141, 59.0389, -129.788, -67.8775, 86.4778, -275.011
2.76, 2, -9.30592, 1.42007, 10.6184, -121.393, -92.5591, 145.275, 73.2141, 59.0389, -129.788, -67.8775, 86.4778, -275.011
2.764, 2, -9.30592, 1.42007, 10.6184, -121.393, -92.5591, 145.275, 73.2141, 59.0389, -129.788, -67.8775, 86.4778, -275.011
2.768, 2, -9.30592, 1.42007, 10.6184, -121.393, -92.5591, 145.275, 73.2141, 59.0389, -129.788, -67.8775, 86.4778, -275.011
2.772, 2, -9.30592, 1.42007, 10.6184, -121.393, -92.5591, 145.275, 73.2141, 59.0389, -129.788, -67.8775, 86.4778, -275.011
2.775, 2, -9.30592, 1.42007, 10.6184, -121.393, -92.5591, 145.275, 73.2141, 59.0389, -129.788, -67.8775, 86.4778, -275.011
2.78, 2, -9.30592, 1.42007, 10.6184, -121.393, -92.5591, 145.275, 73.2141, 59.0389, -129.788, -67.8775, 86.4778, -275.011
2.784, 2, -9.30592, 1.42007, 10.6184, -121.393, -92.5591, 145.275, 73.2141, 59.0389, -129.788, -67.8775, 86.4778, -275.011
2.788, 2, -9.30592, 1.42007, 10.6184, -121.393, -92.5591, 145.275, 73.2141, 59.0389, -129.788, -67.8775, 86.4778, -275.011
2.791, 2, -9.30592, 1.42007, 10.6184, -121.393, -92.5591, 145.275, 73.2141, 59.0389, -129.788, -67.8775, 86.4778, -275.011
2.796, 2, -9.30592, 1.42007, 10.6184, -121.393, -92.5591, 145.275, 73.2141, 59.0389, -129.788, -67.8775, 86.4778, -275.011
2.8, 2, -9.30592, 1.42007, 10.6184, -121.393, -92.5591, 145.275, 73.2141, 59.0389, -129.788, -67.8775, 86.4778, -275.011
2.804, 2, -9.30592, 1.42007, 10.6184, -121.393, -92.5591, 145.275, 73.2141, 59.0389, -129.788, -67.8775, 86.4778, -275.011
2.808, 2, -9.30592, 1.42007, 10.6184, -121.393, -92.5591, 145.275, 73.2141, 59.0389, -129.788, -67.8775, 86.4778, -275.011
2.811, 2, -9.30592, 1.42007, 10.6184, -121.393, -92.5591, 145.275, 73.2141, 59.0389, -129.788, -67.8775, 86.4778, -275.011
2.816, 2, -9.30592, 1.42007, 10.6184, -121.393, -92.5591, 145.275, 73.2141, 59.0389, -129.788, -67.8775, 86.4778, -275.011
2.82, 2, -9.30592, 1.42007, 10.6184, -121.393, -92.5591, 145.275, 73.2141, 59.0389, -129.788, -67.8775, 86.4778, -275.011
2.824, 2, -9.30592, 1.42007, 10.6184, -121.393, -92.5591, 145.275, 73.2141, 59.0389, -129.788, -67.8775, 86.4778, -275.011
2.828, 2, -9.30592, 1.42007, 10.6184, -121.393, -92.5591, 145.275, 73.2141, 59.0389, -129.788, -67.8775, 86.4778, -275.011
2.831, 2, -9.30592, 1.42007, 10.6184, -121.393, -92.5591, 145.275, 73.2141, 59.0389, -129.788, -67.8775, 86.4778, -275.011
2.836, 2, -9.30592, 1.42007, 10.6184, -121.393, -92.5591, 145.275, 73.2141, 59.0389, -129.788, -67.8775, 86.4778, -275.011
2.84, 2, -9.30592, 1.42007, 10.6184, -121.393, -92.5591, 145.275, 73.2141, 59.0389, -129.788, -67.8775, 86.4778, -275.011
2.844, 2, -9.30592, 1.42007, 10.6184, -121.393, -92.5591, 145.275, 73.2141, 59.0389, -129.788, -67.8775, 86.4778, -275.011
2.847, 2, -9.30592, 1.42007, 10.6184, -121.393, -92.5591, 145.275, 73.2141, 59.0389, -129.788, -67.8775, 86.4778, -275.011
2.852, 2, -9.30592, 1.42007, 10.6184, -121.393, -92.5591, 145.275, 73.2141, 59.0389, -129.788, -67.8775, 86.4778, -275.011
2.856, 2, -9.30592, 1.42007, 10.6184, -121.393, -92.5591, 145.275, 73.2141, 59.0389, -129.788, -67.8775, 86.4778, -275.011
2.86, 2, -9.30592, 1.42007, 10.6184, -121.393, -92.5591, 145.275, 73.2141, 59.0389, -129.788, -67.8775, 86.4778, -275.011
2.864, 2, -9.30592, 1.42007, 10.6184, -121.393, -92.5591, 145.275, 73.2141, 59.0389, -129.788, -67.8775, 86.4778, -275.011
2.867, 2, -9.30592, 1.42007, 10.6184, -121.393, -92.5591, 145.275, 73.2141, 59.0389, -129.788, -67.8775, 86.4778, -275.011
2.872, 2, -9.30592, 1.42007, 10.6184, -121.393, -92.5591, 145.275, 73.2141, 59.0389, -129.788, -67.8775, 86.4778, -275.011
2.876, 2, -9.30592, 1.42007, 10.6184, -121.393, -92.5591, 145.275, 73.2141, 59.0389, -129.788, -67.8775, 86.4778, -275.011
2.88, 2, -9.30592, 1.42007, 10.6184, -121.393, -92.5591, 145.275, 73.2141, 59.0389, -129.788, -67.8775, 86.4778, -275.011
2.883, 2, -9.30592, 1.42007, 10.6184, -121.393, -92.5591, 145.275, 73.2141, 59.0389, -129.788, -67.8775, 86.4778, -275.011
2.888, 2, -9.30592, 1.42007, 10.6184, -121.393, -92.5591, 145.275, 73.2141, 59.0389, -129.788, -67.8775, 86.4778, -275.011
2.892, 2, -9.30592, 1.42007, 10.6184, -121.393, -92.5591, 145.275, 73.2141, 59.0389, -129.788, -67.8775, 86.4778, -275.011
2.896, 2, -9.30592, 1.42007, 10.6184, -121.393, -92.5591, 145.275, 73.2141, 59.0389, -129.788, -67.8775, 86.4778, -275.011
2.9, 2, -9.30592, 1.42007, 10.6184, -121.393, -92.5591, 145.275, 73.2141, 59.0389, -129.788, -67.8775, 86.4778, -275.011
2.903, 2, -9.30592, 1.42007, 10.6184, -121.393, -92.5591, 145.275, 73.2141, 59.0389, -129.788, -67.8775, 86.4778, -275.011
2.908, 2, -9.30592, 1.42007, 10.6184, -121.393, -92.5591, 145.275, 73.2141, 59.0389, -129.788, -67.8775, 86.4778, -275.011
2.912, 2, -9.30592, 1.42007, 10.6184, -121.393, -92.5591, 145.275, 73.2141, 59.0389, -129.788, -67.8775, 86.4778, -275.011
2.916, 2, -9.30592, 1.42007, 10.6184, -121.393, -92.5591, 145.275, 73.2141, 59.0389, -129.788, -67.8775, 86.4778, -275.011
2.92, 2, -9.30592, 1.42007, 10.6184, -121.393, -92.5591, 145.275, 73.2141, 59.0389, -129.788, -67.8775, 86.4778, -275.011
2.923, 2, -9.30592, 1.42007, 10.6184, -121.393, -92.5591, 145.275, 73.2141, 59.0389, -129.788, -67.8775, 86.4778, -275.011
2.928, 2, -9.30592, 1.42007, 10.6184, -121.393, -92.5591, 145.275, 73.2141, 59.0389, -129.788, -67.8775, 86.4778, -275.011
2.932, 2, -9.30592, 1.42007, 10.6184, -121.393, -92.5591, 145.275, 73.2141, 59.0389, -129.788, -67.8775, 86.4778, -275.011
2.936, 2, -9.30592, 1.42007, 10.6184, -121.393, -92.5591, 145.275, 73.2141, 59.0389, -129.788, -67.8775, 86.4778, -275.011
2.939, 2, -9.30592, 1.42007, 10.6184, -121.393, -92.5591, 145.275, 73.2141, 59.0389, -129.788, -67.8775, 86.4778, -275.011
2.944, 2, -9.30592, 1.42007, 10.6184, -121.393, -92.5591, 145.275, 73.2141, 59.0389, -129.788, -67.8775, 86.4778, -275.011
2.948, 2, -9.30592, 1.42007, 10.6184, -121.393, -92.5591, 145.275, 73.2141, 59.0389, -129.788, -67.8775, 86.4778, -275.011
2.952, 2, -9.30592, 1.42007, 10.6184, -121.393, -92.5591, 145.275, 73.2141, 59.0389, -129.788, -67.8775, 86.4778, -275.011
2.956, 2, -9.30592, 1.42007, 10.6184, -121.393, -92.5591, 145.275, 73.2141, 59.0389, -129.788, -67.8775, 86.4778, -275.011
2.959, 2, -9.30592, 1.42007, 10.6184, -121.393, -92.5591, 145.275, 73.2141, 59.0389, -129.788, -67.8775, 86.4778, -275.011
2.964, 2, -9.30592, 1.42007, 10.6184, -121.393, -92.5591, 145.275, 73.2141, 59.0389, -129.788, -67.8775, 86.4778, -275.011
2.968, 2, -9.30592, 1.42007, 10.6184, -121.393, -92.5591, 145.275, 73.2141, 59.0389, -129.788, -67.8775, 86.4778, -275.011
2.972, 2, -9.30592, 1.42007, 10.6184, -121.393, -92.5591, 145.275, 73.2141, 59.0389, -129.788, -67.8775, 86.4778, -275.011
2.976, 2, -9.30592, 1.42007, 10.6184, -121.393, -92.5591, 145.275, 73.2141, 59.0389, -129.788, -67.8775, 86.4778, -275.011
2.98, 2, -9.30592, 1.42007, 10.6184, -121.393, -92.5591, 145.275, 73.2141, 59.0389, -129.788, -67.8775, 86.4778, -275.011
2.984, 2, -9.30592, 1.42007, 10.6184, -121.393, -92.5591, 145.275, 73.2141, 59.0389, -129.788, -67.8775, 86.4778, -275.011
2.988, 2, -9.30592, 1.42007, 10.6184, -121.393, -92.5591, 145.275, 73.2141, 59.0389, -129.788, -67.8775, 86.4778, -275.011
2.992, 2, -9.30592, 1.42007, 10.6184, -121.393, -92.5591, 145.275, 73.2141, 59.0389, -129.788, -67.8775, 86.4778, -275.011
2.995, 2, -9.30592, 1.42007, 10.6184, -121.393, -92.5591, 145.275, 73.2141, 59.0389, -129.788, -67.8775, 86.4778, -275.011
3, 2, -9.30592, 1.42007, 10.6184, -121.393, -92.5591, 145.275, 73.2141, 59.0389, -129.788, -67.8775, 86.4778, -275.011
3.004, 2, -9.30592, 1.42007, 10.6184, -121.393, -92.5591, 145.275, 73.2141, 59.0389, -129.788, -67.8775, 86.4778, -275.011
3.008, 2, -9.30592, 1.42007, 10.6184, -121.393, -92.5591, 145.275, 73.2141, 59.0389, -129.788, -67.8775, 86.4778, -275.011
3.012, 2, -9.30592, 1.42007, 10.6184, -121.393, -92.5591, 145.275, 73.2141, 59.0389, -129.788, -67.8775, 86.4778, -275.011
3.015, 2, -9.30592, 1.42007, 10.6184, -121.393, -92.5591, 145.275, 73.2141, 59.0389, -129.788, -67.8775, 86.4778, -275.011
3.02, 2, -9.30592, 1.42007, 10.6184, -121.393, -92.5591, 145.275, 73.2141, 59.0389, -129.788, -67.8775, 86.4778, -275.011
3.024, 2, -9.30592, 1.42007, 10.6184, -121.393, -92.5591, 145.275, 73.2141, 59.0389, -129.788, -67.8775, 86.4778, -275.011
3.028, 2, -9.30592, 1.42007, 10.6184, -121.393, -92.5591, 145.275, 73.2141, 59.0389, -129.788, -67.8775, 86.4778, -275.011
3.031, 2, -9.30592, 1.42007, 10.6184, -121.393, -92.5591, 145.275, 73.2141, 59.0389, -129.788, -67.8775, 86.4778, -275.011
3.036, 2, -9.30592, 1.42007, 10.6184, -121.393, -92.5591, 145.275, 73.2141, 59.0389, -129.788, -67.8775, 86.4778, -275.011
3.04, 2, -9.30592, 1.42007, 10.6184, -121.393, -92.5591, 145.275, 73.2141, 59.0389, -129.788, -67.8775, 86.4778, -275.011
3.044, 2, -9.30592, 1.42007, 10.6184, -121.393, -92.5591, 145.275, 73.2141, 59.0389, -129.788, -67.8775, 86.4778, -275.011
3.048, 2, -9.30592, 1.42007, 10.6184, -121.393, -92.5591, 145.275, 73.2141, 59.0389, -129.788, -67.8775, 86.4778, -275.011
3.051, 2, -9.30592, 1.42007, 10.6184, -121.393, -92.5591, 145.275, 73.2141, 59.0389, -129.788, -67.8775, 86.4778, -275.011
3.056, 2, -9.30592, 1.42007, 10.6184, -121.393, -92.5591, 145.275, 73.2141, 59.0389, -129.788, -67.8775, 86.4778, -275.011
3.06, 2, -9.30592, 1.42007, 10.6184, -121.393, -92.5591, 145.275, 73.2141, 59.0389, -129.788, -67.8775, 86.4778, -275.011
3.064, 2, -9.30592, 1.42007, 10.6184, -121.393, -92.5591, 145.275, 73.2141, 59.0389, -129.788, -67.8775, 86.4778, -275.011
3.068, 2, -9.30592, 1.42007, 10.6184, -121.393, -92.5591, 145.275, 73.2141, 59.0389, -129.788, -67.8775, 86.4778, -275.011
3.071, 2, -9.30592, 1.42007, 10.6184, -121.393, -92.5591, 145.275, 73.2141, 59.0389, -129.788, -67.8775, 86.4778, -275.011
3.076, 2, -9.30592, 1.42007, 10.6184, -121.393, -92.5591, 145.275, 73.2141, 59.0389, -129.788, -67.8775, 86.4778, -275.011
3.08, 2, -9.30592, 1.42007, 10.6184, -121.393, -92.5591, 145.275, 73.2141, 59.0389, -129.788, -67.8775, 86.4778, -275.011
3.084, 2, -9.30592, 1.42007, 10.6184, -121.393, -92.5591, 145.275, 73.2141, 59.0389, -129.788, -67.8775, 86.4778, -275.011
3.087, 2, -9.30592, 1.42007, 10.6184, -121.393, -92.5591, 145.275, 73.2141, 59.0389, -129.788, -67.8775, 86.4778, -275.011
3.092, 2, -9.30592, 1.42007, 10.6184, -121.393, -92.5591, 145.275, 73.2141, 59.0389, -129.788, -67.8775, 86.4778, -275.011
3.096, 2, -9.30592, 1.42007, 10.6184, -121.393, -92.5591, 145.275, 73.2141, 59.0389, -129.788, -67.8775, 86.4778, -275.011
3.1, 2, -9.30592, 1.42007, 10.6184, -121.393, -92.5591, 145.275, 73.2141, 59.0389, -129.788, -67.8775, 86.4778, -275.011
3.104, 2, -9.30592, 1.42007, 10.6184, -121.393, -92.5591, 145.275, 73.2141, 59.0389, -129.788, -67.8775, 86.4778, -275.011
3.107, 2, -9.30592, 1.42007, 10.6184, -121.393, -92.5591, 145.275, 73.2141, 59.0389, -129.788, -67.8775, 86.4778, -275.011
3.112, 2, -9.30592, 1.42007, 10.6184, -121.393, -92.5591, 145.275, 73.2141, 59.0389, -129.788, -67.8775, 86.4778, -275.011
3.116, 2, -9.30592, 1.42007, 10.6184, -121.393, -92.5591, 145.275, 73.2141, 59.0389, -129.788, -67.8775, 86.4778, -275.011
3.12, 2, -9.30592, 1.42007, 10.6184, -121.393, -92.5591, 145.275, 73.2141, 59.0389, -129.788, -67.8775, 86.4778, -275.011
3.124, 2, -9.30592, 1.42007, 10.6184, -121.393, -92.5591, 145.275, 73.2141, 59.0389, -129.788, -67.8775, 86.4778, -275.011
3.128, 2, -9.30592, 1.42007, 10.6184, -121.393, -92.5591, 145.275, 73.2141, 59.0389, -129.788, -67.8775, 86.4778, -275.011
3.132, 2, -9.30592, 1.42007, 10.6184, -121.393, -92.5591, 145.275, 73.2141, 59.0389, -129.788, -67.8775, 86.4778, -275.011
3.136, 2, -9.30592, 1.42007, 10.6184, -121.393, -92.5591, 145.275, 73.2141, 59.0389, -129.788, -67.8775, 86.4778, -275.011
3.14, 2, -9.30592, 1.42007, 10.6184, -121.393, -92.5591, 145.275, 73.2141, 59.0389, -129.788, -67.8775, 86.4778, -275.011
3.143, 2, -9.30592, 1.42007, 10.6184, -121.393, -92.5591, 145.275, 73.2141, 59.0389, -129.788, -67.8775, 86.4778, -275.011
3.148, 2, -9.30592, 1.42007, 10.6184, -121.393, -92.5591, 145.275, 73.2141, 59.0389, -129.788, -67.8775, 86.4778, -275.011
3.152, 2, -9.30592, 1.42007, 10.6184, -121.393, -92.5591, 145.275, 73.2141, 59.0389, -129.788, -67.8775, 86.4778, -275.011
3.156, 2, -9.30592, 1.42007, 10.6184, -121.393, -92.5591, 145.275, 73.2141, 59.0389, -129.788, -67.8775, 86.4778, -275.011
3.16, 2, -9.30592, 1.42007, 10.6184, -121.393, -92.5591, 145.275, 73.2141, 59.0389, -129.788, -67.8775, 86.4778, -275.011
3.163, 2, -9.30592, 1.42007, 10.6184, -121.393, -92.5591, 145.275, 73.2141, 59.0389, -129.788, -67.8775, 86.4778, -275.011
3.168, 2, -9.30592, 1.42007, 10.6184, -121.393, -92.5591, 145.275, 73.2141, 59.0389, -129.788, -67.8775, 86.4778, -275.011
3.172, 2, -9.30592, 1.42007, 10.6184, -121.393, -92.5591, 145.275, 73.2141, 59.0389, -129.788, -67.8775, 86.4778, -275.011
3.176, 2, -9.30592, 1.42007, 10.6184, -121.393, -92.5591, 145.275, 73.2141, 59.0389, -129.788, -67.8775, 86.4778, -275.011
3.179, 2, -9.30592, 1.42007, 10.6184, -121.393, -92.5591, 145.275, 73.2141, 59.0389, -129.788, -67.8775, 86.4778, -275.011
3.184, 2, -9.30592, 1.42007, 10.6184, -121.393, -92.5591, 145.275, 73.2141, 59.0389, -129.788, -67.8775, 86.4778, -275.011
3.188, 2, -9.30592, 1.42007, 10.6184, -121.393, -92.5591, 145.275, 73.2141, 59.0389, -129.788, -67.8775, 86.4778, -275.011
3.192, 2, -9.30592, 1.42007, 10.6184, -121.393, -92.5591, 145.275, 73.2141, 59.0389, -129.788, -67.8775, 86.4778, -275.011
3.196, 2, -9.30592, 1.42007, 10.6184, -121.393, -92.5591, 145.275, 73.2141, 59.0389, -129.788, -67.8775, 86.4778, -275.011
