hehonglu123/Motion-Primitive-Planning/simulation/robotstudio_sim/multimove/recorded_data/curve_exe_v5000_z10.csv
timestamp, cmd_num, J1, J2, J3, J4, J5, J6, J1_2, J2_2, J3_2, J4_2, J5_2, J6_2
0.002, -1, -39.5179, 2.09783, 8.87967, -133.564, -66.8966, 136.291, 83.0467, 19.6829, -143.597, -58.6175, 40.7552, -278.359
0.006, -1, -39.5179, 2.09783, 8.87967, -133.564, -66.8966, 136.291, 83.0467, 19.6829, -143.597, -58.6175, 40.7552, -278.359
0.01, -1, -39.5179, 2.09783, 8.87967, -133.564, -66.8966, 136.291, 83.0467, 19.6829, -143.597, -58.6175, 40.7552, -278.359
0.012, -1, -39.5179, 2.09783, 8.87967, -133.564, -66.8966, 136.291, 83.0467, 19.6829, -143.597, -58.6175, 40.7552, -278.359
0.014, -1, -39.5179, 2.09783, 8.87967, -133.564, -66.8966, 136.291, 83.0467, 19.6829, -143.597, -58.6175, 40.7552, -278.359
0.018, -1, -39.5179, 2.09783, 8.87967, -133.564, -66.8966, 136.291, 83.0467, 19.6829, -143.597, -58.6175, 40.7552, -278.359
0.02, -1, -39.5179, 2.09783, 8.87967, -133.564, -66.8966, 136.291, 83.0467, 19.6829, -143.597, -58.6175, 40.7552, -278.359
0.024, -1, -39.5179, 2.09783, 8.87967, -133.564, -66.8966, 136.291, 83.0467, 19.6829, -143.597, -58.6175, 40.7552, -278.359
0.028, -1, -39.5179, 2.09783, 8.87967, -133.564, -66.8966, 136.291, 83.0467, 19.6829, -143.597, -58.6175, 40.7552, -278.359
0.032, -1, -39.5179, 2.09783, 8.87967, -133.564, -66.8966, 136.291, 83.0467, 19.6829, -143.597, -58.6175, 40.7552, -278.359
0.036, -1, -39.5179, 2.09783, 8.87967, -133.564, -66.8966, 136.291, 83.0467, 19.6829, -143.597, -58.6175, 40.7552, -278.359
0.04, -1, -39.5178, 2.09783, 8.87968, -133.564, -66.8966, 136.291, 83.0467, 19.6829, -143.597, -58.6175, 40.7552, -278.359
0.044, -1, -39.5174, 2.0978, 8.87972, -133.564, -66.8966, 136.291, 83.0467, 19.6829, -143.597, -58.6175, 40.7552, -278.359
0.048, -1, -39.5163, 2.09773, 8.87984, -133.564, -66.8967, 136.291, 83.0467, 19.6829, -143.597, -58.6175, 40.7552, -278.359
0.052, -1, -39.514, 2.09758, 8.88011, -133.564, -66.8968, 136.291, 83.0467, 19.683, -143.597, -58.6175, 40.7552, -278.359
0.056, -1, -39.5105, 2.09734, 8.88055, -133.564, -66.8971, 136.291, 83.0467, 19.6832, -143.597, -58.6175, 40.7553, -278.359
0.06, -1, -39.5055, 2.09698, 8.88118, -133.563, -66.8977, 136.291, 83.0469, 19.684, -143.597, -58.6175, 40.7554, -278.359
0.064, -1, -39.4991, 2.09651, 8.88202, -133.563, -66.8987, 136.292, 83.0473, 19.6858, -143.596, -58.6175, 40.7558, -278.359
0.068, -1, -39.4911, 2.09592, 8.88305, -133.562, -66.9004, 136.292, 83.0479, 19.6891, -143.595, -58.6176, 40.7567, -278.359
0.072, -1, -39.4818, 2.09523, 8.88425, -133.56, -66.9031, 136.293, 83.0486, 19.6942, -143.593, -58.6177, 40.7586, -278.359
0.076, -1, -39.471, 2.09446, 8.88558, -133.558, -66.9069, 136.295, 83.0493, 19.7016, -143.59, -58.6181, 40.7621, -278.358
0.08, -1, -39.4586, 2.09361, 8.88704, -133.555, -66.9122, 136.297, 83.0499, 19.7118, -143.587, -58.6189, 40.7678, -278.357
0.084, -1, -39.4442, 2.09266, 8.88865, -133.551, -66.9193, 136.299, 83.0499, 19.7246, -143.583, -58.6202, 40.7765, -278.356
0.088, -1, -39.4274, 2.09161, 8.8904, -133.545, -66.9284, 136.303, 83.0491, 19.7403, -143.577, -58.6222, 40.7892, -278.354
0.092, -1, -39.4083, 2.09048, 8.89226, -133.538, -66.9399, 136.307, 83.0473, 19.7589, -143.571, -58.625, 40.8064, -278.351
0.096, -1, -39.387, 2.08931, 8.89417, -133.53, -66.9539, 136.313, 83.0443, 19.7809, -143.564, -58.6289, 40.8287, -278.347
0.1, -1, -39.3636, 2.08814, 8.89604, -133.519, -66.9706, 136.319, 83.0401, 19.8066, -143.556, -58.6337, 40.8566, -278.342
0.104, -1, -39.3384, 2.08698, 8.89785, -133.507, -66.9902, 136.327, 83.0346, 19.8362, -143.547, -58.6396, 40.8902, -278.336
0.108, -1, -39.3114, 2.08584, 8.89959, -133.494, -67.0126, 136.336, 83.0278, 19.8695, -143.537, -58.6466, 40.9295, -278.33
0.112, -1, -39.2825, 2.08472, 8.90128, -133.478, -67.0378, 136.345, 83.0198, 19.9067, -143.525, -58.6546, 40.9744, -278.322
0.116, -1, -39.2515, 2.08358, 8.90295, -133.461, -67.0656, 136.356, 83.0106, 19.9475, -143.513, -58.6636, 41.0246, -278.313
0.12, -1, -39.2183, 2.08239, 8.90471, -133.443, -67.0958, 136.368, 83.0003, 19.9915, -143.5, -58.6734, 41.0794, -278.304
0.124, -1, -39.1827, 2.08111, 8.9066, -133.423, -67.1281, 136.381, 82.9891, 20.0384, -143.485, -58.684, 41.1383, -278.293
0.128, -1, -39.1448, 2.07972, 8.90867, -133.402, -67.1624, 136.394, 82.9773, 20.0879, -143.47, -58.6951, 41.2005, -278.283
0.131, -1, -39.105, 2.07825, 8.91088, -133.38, -67.1982, 136.408, 82.9651, 20.1398, -143.455, -58.7068, 41.2653, -278.271
0.136, -1, -39.0636, 2.07669, 8.91324, -133.357, -67.2353, 136.423, 82.9527, 20.1941, -143.438, -58.7187, 41.332, -278.26
0.139, -1, -39.0209, 2.07504, 8.91576, -133.334, -67.2734, 136.438, 82.9404, 20.2504, -143.421, -58.7308, 41.3998, -278.248
0.144, -1, -38.9767, 2.07329, 8.91845, -133.31, -67.3123, 136.453, 82.9283, 20.3083, -143.403, -58.7429, 41.4684, -278.236
0.148, -1, -38.9311, 2.07144, 8.92132, -133.286, -67.3518, 136.469, 82.9163, 20.3675, -143.385, -58.7551, 41.5374, -278.224
0.152, -1, -38.8841, 2.06948, 8.92439, -133.261, -67.3916, 136.484, 82.9044, 20.4274, -143.366, -58.7673, 41.6066, -278.212
0.156, -1, -38.8358, 2.06742, 8.92763, -133.237, -67.4316, 136.5, 82.8927, 20.4878, -143.347, -58.7795, 41.6759, -278.2
0.16, -1, -38.7864, 2.06528, 8.93103, -133.212, -67.4718, 136.516, 82.881, 20.5484, -143.328, -58.7917, 41.7452, -278.188
0.164, -1, -38.736, 2.06308, 8.93453, -133.188, -67.5121, 136.531, 82.8693, 20.6089, -143.309, -58.8039, 41.8145, -278.176
0.168, -1, -38.6851, 2.06084, 8.93809, -133.163, -67.5523, 136.547, 82.8576, 20.6695, -143.291, -58.8161, 41.8838, -278.164
0.172, -1, -38.6339, 2.05859, 8.94168, -133.138, -67.5926, 136.563, 82.8459, 20.7301, -143.272, -58.8283, 41.9532, -278.152
0.176, -1, -38.5828, 2.05634, 8.94526, -133.114, -67.6329, 136.578, 82.8342, 20.7908, -143.253, -58.8405, 42.0225, -278.14
0.18, -1, -38.5316, 2.05409, 8.94885, -133.089, -67.6732, 136.594, 82.8225, 20.8514, -143.234, -58.8527, 42.0919, -278.128
0.184, -1, -38.4804, 2.05184, 8.95244, -133.064, -67.7135, 136.61, 82.8108, 20.9121, -143.215, -58.8649, 42.1613, -278.116
0.188, -1, -38.4292, 2.04959, 8.95603, -133.04, -67.7538, 136.626, 82.7991, 20.9727, -143.196, -58.8771, 42.2307, -278.105
0.192, -1, -38.378, 2.04734, 8.95962, -133.015, -67.7942, 136.641, 82.7873, 21.0334, -143.178, -58.8893, 42.3001, -278.093
0.196, -1, -38.3268, 2.04509, 8.96321, -132.99, -67.8345, 136.657, 82.7756, 21.0941, -143.159, -58.9015, 42.3695, -278.081
0.2, -1, -38.2756, 2.04284, 8.9668, -132.966, -67.8748, 136.673, 82.7639, 21.1548, -143.14, -58.9137, 42.439, -278.069
0.204, -1, -38.2243, 2.04059, 8.97039, -132.941, -67.9152, 136.689, 82.7522, 21.2155, -143.121, -58.926, 42.5085, -278.057
0.208, -1, -38.1731, 2.03833, 8.97398, -132.916, -67.9556, 136.704, 82.7404, 21.2762, -143.102, -58.9382, 42.5779, -278.045
0.212, -1, -38.1218, 2.03608, 8.97758, -132.892, -67.9959, 136.72, 82.7287, 21.337, -143.083, -58.9504, 42.6474, -278.033
0.216, -1, -38.0705, 2.03382, 8.98117, -132.867, -68.0363, 136.736, 82.717, 21.3978, -143.064, -58.9626, 42.717, -278.021
0.22, -1, -38.0192, 2.03157, 8.98477, -132.842, -68.0767, 136.752, 82.7053, 21.4585, -143.045, -58.9749, 42.7865, -278.009
0.224, -1, -37.9679, 2.02931, 8.98836, -132.818, -68.1171, 136.768, 82.6935, 21.5193, -143.026, -58.9871, 42.856, -277.996
0.228, -1, -37.9166, 2.02706, 8.99196, -132.793, -68.1575, 136.783, 82.6818, 21.5801, -143.008, -58.9994, 42.9256, -277.984
0.232, -1, -37.8653, 2.0248, 8.99556, -132.768, -68.198, 136.799, 82.67, 21.6409, -142.989, -59.0116, 42.9952, -277.972
0.236, -1, -37.814, 2.02255, 8.99915, -132.743, -68.2384, 136.815, 82.6583, 21.7018, -142.97, -59.0238, 43.0648, -277.96
0.24, -1, -37.7626, 2.02029, 9.00275, -132.719, -68.2788, 136.831, 82.6465, 21.7626, -142.951, -59.0361, 43.1344, -277.948
0.244, -1, -37.7113, 2.01803, 9.00635, -132.694, -68.3193, 136.847, 82.6348, 21.8235, -142.932, -59.0483, 43.204, -277.936
0.248, -1, -37.6599, 2.01577, 9.00995, -132.669, -68.3597, 136.862, 82.6231, 21.8843, -142.913, -59.0606, 43.2736, -277.924
0.252, -1, -37.6085, 2.01351, 9.01356, -132.644, -68.4002, 136.878, 82.6113, 21.9452, -142.894, -59.0728, 43.3433, -277.912
0.256, -1, -37.5571, 2.01125, 9.01716, -132.62, -68.4407, 136.894, 82.5995, 22.0061, -142.875, -59.0851, 43.413, -277.9
0.26, -1, -37.5057, 2.00899, 9.02076, -132.595, -68.4812, 136.91, 82.5878, 22.067, -142.856, -59.0973, 43.4826, -277.888
0.264, -1, -37.4543, 2.00673, 9.02437, -132.57, -68.5216, 136.926, 82.576, 22.1279, -142.837, -59.1096, 43.5524, -277.876
0.268, -1, -37.4029, 2.00447, 9.02797, -132.545, -68.5621, 136.941, 82.5642, 22.1889, -142.818, -59.1219, 43.6221, -277.864
0.272, -1, -37.3514, 2.00221, 9.03158, -132.521, -68.6027, 136.957, 82.5524, 22.2498, -142.799, -59.1341, 43.6918, -277.852
0.276, -1, -37.3, 1.99995, 9.03518, -132.496, -68.6432, 136.973, 82.5406, 22.3108, -142.78, -59.1464, 43.7616, -277.84
0.28, -1, -37.2485, 1.99769, 9.03879, -132.471, -68.6837, 136.989, 82.5288, 22.3718, -142.761, -59.1587, 43.8313, -277.828
0.284, -1, -37.197, 1.99542, 9.0424, -132.446, -68.7243, 137.005, 82.517, 22.4328, -142.742, -59.171, 43.9011, -277.816
0.288, -1, -37.1456, 1.99316, 9.04601, -132.422, -68.7648, 137.021, 82.5052, 22.4938, -142.723, -59.1832, 43.9709, -277.804
0.292, -1, -37.0941, 1.9909, 9.04962, -132.397, -68.8054, 137.036, 82.4934, 22.5548, -142.705, -59.1955, 44.0407, -277.792
0.296, -1, -37.0425, 1.98863, 9.05323, -132.372, -68.8459, 137.052, 82.4815, 22.6159, -142.686, -59.2078, 44.1106, -277.78
0.3, -1, -36.991, 1.98637, 9.05684, -132.347, -68.8865, 137.068, 82.4697, 22.6769, -142.667, -59.2201, 44.1804, -277.768
0.304, -1, -36.9395, 1.9841, 9.06045, -132.322, -68.9271, 137.084, 82.4579, 22.738, -142.648, -59.2324, 44.2503, -277.756
0.308, -1, -36.8879, 1.98183, 9.06407, -132.298, -68.9677, 137.1, 82.4461, 22.7991, -142.629, -59.2447, 44.3202, -277.744
0.312, -1, -36.8364, 1.97957, 9.06768, -132.273, -69.0083, 137.116, 82.4342, 22.8601, -142.61, -59.257, 44.3901, -277.732
0.316, -1, -36.7848, 1.9773, 9.0713, -132.248, -69.0489, 137.132, 82.4224, 22.9213, -142.591, -59.2693, 44.46, -277.719
0.32, -1, -36.7332, 1.97503, 9.07491, -132.223, -69.0895, 137.147, 82.4106, 22.9824, -142.572, -59.2816, 44.5299, -277.707
0.324, -1, -36.6816, 1.97276, 9.07853, -132.198, -69.1302, 137.163, 82.3987, 23.0435, -142.553, -59.2939, 44.5998, -277.695
0.328, -1, -36.63, 1.9705, 9.08215, -132.173, -69.1708, 137.179, 82.3869, 23.1047, -142.534, -59.3062, 44.6698, -277.683
0.332, -1, -36.5784, 1.96823, 9.08576, -132.148, -69.2115, 137.195, 82.375, 23.1658, -142.515, -59.3185, 44.7398, -277.671
0.336, -1, -36.5268, 1.96596, 9.08938, -132.124, -69.2521, 137.211, 82.3632, 23.227, -142.496, -59.3308, 44.8098, -277.659
0.34, -1, -36.4751, 1.96369, 9.093, -132.099, -69.2928, 137.227, 82.3513, 23.2882, -142.477, -59.3431, 44.8798, -277.647
0.344, -1, -36.4235, 1.96141, 9.09662, -132.074, -69.3335, 137.243, 82.3395, 23.3494, -142.457, -59.3554, 44.9498, -277.635
0.348, -1, -36.3718, 1.95914, 9.10025, -132.049, -69.3742, 137.259, 82.3276, 23.4106, -142.438, -59.3678, 45.0199, -277.623
0.352, -1, -36.3201, 1.95687, 9.10387, -132.024, -69.4149, 137.275, 82.3158, 23.4719, -142.419, -59.3801, 45.0899, -277.611
0.356, -1, -36.2684, 1.9546, 9.10749, -131.999, -69.4556, 137.29, 82.3039, 23.5331, -142.4, -59.3924, 45.16, -277.599
0.36, -1, -36.2167, 1.95233, 9.11112, -131.974, -69.4963, 137.306, 82.292, 23.5944, -142.381, -59.4048, 45.2301, -277.586
0.364, -1, -36.165, 1.95005, 9.11474, -131.949, -69.537, 137.322, 82.2802, 23.6557, -142.362, -59.4171, 45.3002, -277.574
0.368, -1, -36.1133, 1.94778, 9.11837, -131.925, -69.5778, 137.338, 82.2683, 23.717, -142.343, -59.4294, 45.3703, -277.562
0.372, -1, -36.0616, 1.9455, 9.12199, -131.9, -69.6185, 137.354, 82.2564, 23.7783, -142.324, -59.4418, 45.4405, -277.55
0.376, -1, -36.0098, 1.94323, 9.12562, -131.875, -69.6593, 137.37, 82.2445, 23.8396, -142.305, -59.4541, 45.5106, -277.538
0.38, -1, -35.958, 1.94095, 9.12925, -131.85, -69.7001, 137.386, 82.2327, 23.9009, -142.286, -59.4664, 45.5808, -277.526
0.384, -1, -35.9063, 1.93868, 9.13288, -131.825, -69.7408, 137.402, 82.2208, 23.9623, -142.267, -59.4788, 45.651, -277.514
0.388, -1, -35.8545, 1.9364, 9.13651, -131.8, -69.7816, 137.418, 82.2089, 24.0237, -142.248, -59.4911, 45.7212, -277.502
0.392, -1, -35.8027, 1.93412, 9.14014, -131.775, -69.8224, 137.434, 82.197, 24.085, -142.229, -59.5035, 45.7914, -277.49
0.396, -1, -35.7509, 1.93184, 9.14377, -131.75, -69.8632, 137.45, 82.1851, 24.1464, -142.21, -59.5159, 45.8617, -277.477
0.4, -1, -35.699, 1.92957, 9.14741, -131.725, -69.9041, 137.466, 82.1732, 24.2078, -142.191, -59.5282, 45.9319, -277.465
0.404, -1, -35.6472, 1.92729, 9.15104, -131.7, -69.9449, 137.482, 82.1613, 24.2693, -142.171, -59.5406, 46.0022, -277.453
0.408, -1, -35.5953, 1.92501, 9.15467, -131.675, -69.9857, 137.498, 82.1494, 24.3307, -142.152, -59.5529, 46.0725, -277.441
0.412, -1, -35.5435, 1.92273, 9.15831, -131.65, -70.0266, 137.513, 82.1375, 24.3922, -142.133, -59.5653, 46.1428, -277.429
0.416, -1, -35.4916, 1.92045, 9.16195, -131.625, -70.0674, 137.529, 82.1256, 24.4536, -142.114, -59.5777, 46.2132, -277.417
0.42, -1, -35.4397, 1.91816, 9.16558, -131.6, -70.1083, 137.545, 82.1137, 24.5151, -142.095, -59.5901, 46.2835, -277.405
0.424, -1, -35.3878, 1.91588, 9.16922, -131.575, -70.1492, 137.561, 82.1018, 24.5766, -142.076, -59.6024, 46.3539, -277.392
0.428, -1, -35.3359, 1.9136, 9.17286, -131.55, -70.19, 137.577, 82.0899, 24.6381, -142.057, -59.6148, 46.4242, -277.38
0.432, -1, -35.284, 1.91132, 9.1765, -131.525, -70.2309, 137.593, 82.078, 24.6997, -142.038, -59.6272, 46.4946, -277.368
0.436, -1, -35.232, 1.90903, 9.18014, -131.5, -70.2718, 137.609, 82.0661, 24.7612, -142.019, -59.6396, 46.565, -277.356
0.44, -1, -35.1801, 1.90675, 9.18378, -131.475, -70.3128, 137.625, 82.0541, 24.8228, -141.999, -59.652, 46.6355, -277.344
0.444, -1, -35.1281, 1.90447, 9.18742, -131.45, -70.3537, 137.641, 82.0422, 24.8843, -141.98, -59.6644, 46.7059, -277.332
0.448, -1, -35.0761, 1.90218, 9.19107, -131.425, -70.3946, 137.657, 82.0303, 24.9459, -141.961, -59.6768, 46.7764, -277.319
0.452, -1, -35.0242, 1.8999, 9.19471, -131.4, -70.4356, 137.673, 82.0183, 25.0075, -141.942, -59.6892, 46.8469, -277.307
0.456, -1, -34.9722, 1.89761, 9.19836, -131.375, -70.4765, 137.689, 82.0064, 25.0691, -141.923, -59.7016, 46.9173, -277.295
0.46, -1, -34.9202, 1.89532, 9.202, -131.35, -70.5175, 137.705, 81.9945, 25.1308, -141.904, -59.714, 46.9879, -277.283
0.464, -1, -34.8681, 1.89304, 9.20565, -131.325, -70.5584, 137.721, 81.9825, 25.1924, -141.884, -59.7264, 47.0584, -277.271
0.468, -1, -34.8161, 1.89075, 9.2093, -131.3, -70.5994, 137.737, 81.9706, 25.2541, -141.865, -59.7388, 47.1289, -277.259
0.472, -1, -34.764, 1.88846, 9.21295, -131.275, -70.6404, 137.753, 81.9586, 25.3158, -141.846, -59.7512, 47.1995, -277.246
0.476, -1, -34.712, 1.88617, 9.21659, -131.25, -70.6814, 137.769, 81.9467, 25.3775, -141.827, -59.7636, 47.2701, -277.234
0.48, -1, -34.6599, 1.88388, 9.22025, -131.225, -70.7224, 137.785, 81.9348, 25.4392, -141.808, -59.776, 47.3407, -277.222
0.484, -1, -34.6078, 1.88159, 9.2239, -131.2, -70.7635, 137.801, 81.9228, 25.5009, -141.789, -59.7885, 47.4113, -277.21
0.488, -1, -34.5557, 1.8793, 9.22755, -131.175, -70.8045, 137.817, 81.9108, 25.5626, -141.769, -59.8009, 47.4819, -277.198
0.492, -1, -34.5036, 1.87701, 9.2312, -131.149, -70.8455, 137.833, 81.8989, 25.6244, -141.75, -59.8133, 47.5526, -277.185
0.496, -1, -34.4515, 1.87472, 9.23486, -131.124, -70.8866, 137.849, 81.8869, 25.6861, -141.731, -59.8257, 47.6232, -277.173
0.5, -1, -34.3993, 1.87243, 9.23851, -131.099, -70.9277, 137.865, 81.8749, 25.7479, -141.712, -59.8382, 47.6939, -277.161
0.504, -1, -34.3472, 1.87013, 9.24217, -131.074, -70.9687, 137.882, 81.863, 25.8097, -141.693, -59.8506, 47.7646, -277.149
0.508, -1, -34.295, 1.86784, 9.24582, -131.049, -71.0098, 137.898, 81.851, 25.8715, -141.673, -59.8631, 47.8353, -277.136
0.512, -1, -34.2428, 1.86555, 9.24948, -131.024, -71.0509, 137.914, 81.839, 25.9334, -141.654, -59.8755, 47.9061, -277.124
0.516, -1, -34.1906, 1.86325, 9.25314, -130.999, -71.092, 137.93, 81.8271, 25.9952, -141.635, -59.8879, 47.9768, -277.112
0.52, -1, -34.1384, 1.86096, 9.2568, -130.974, -71.1331, 137.946, 81.8151, 26.0571, -141.616, -59.9004, 48.0476, -277.1
0.524, -1, -34.0862, 1.85866, 9.26046, -130.948, -71.1742, 137.962, 81.8031, 26.1189, -141.596, -59.9128, 48.1184, -277.088
0.528, -1, -34.034, 1.85636, 9.26412, -130.923, -71.2154, 137.978, 81.7911, 26.1808, -141.577, -59.9253, 48.1892, -277.075
0.532, -1, -33.9818, 1.85407, 9.26778, -130.898, -71.2565, 137.994, 81.7791, 26.2427, -141.558, -59.9378, 48.26, -277.063
0.536, -1, -33.9295, 1.85177, 9.27145, -130.873, -71.2977, 138.01, 81.7671, 26.3046, -141.539, -59.9502, 48.3309, -277.051
0.54, -1, -33.8772, 1.84947, 9.27511, -130.848, -71.3388, 138.026, 81.7551, 26.3666, -141.519, -59.9627, 48.4017, -277.039
0.544, -1, -33.825, 1.84717, 9.27877, -130.823, -71.38, 138.042, 81.7431, 26.4285, -141.5, -59.9752, 48.4726, -277.026
0.548, -1, -33.7727, 1.84487, 9.28244, -130.797, -71.4212, 138.058, 81.7311, 26.4905, -141.481, -59.9876, 48.5435, -277.014
0.552, -1, -33.7203, 1.84258, 9.28611, -130.772, -71.4624, 138.074, 81.7191, 26.5525, -141.462, -60.0001, 48.6144, -277.002
0.556, -1, -33.668, 1.84027, 9.28977, -130.747, -71.5036, 138.09, 81.7071, 26.6145, -141.442, -60.0126, 48.6853, -276.99
0.56, -1, -33.6157, 1.83797, 9.29344, -130.722, -71.5448, 138.107, 81.6951, 26.6765, -141.423, -60.0251, 48.7563, -276.977
0.564, -1, -33.5633, 1.83567, 9.29711, -130.697, -71.5861, 138.123, 81.6831, 26.7385, -141.404, -60.0375, 48.8272, -276.965
0.568, -1, -33.511, 1.83337, 9.30078, -130.671, -71.6273, 138.139, 81.6711, 26.8006, -141.385, -60.05, 48.8982, -276.953
0.572, -1, -33.4586, 1.83107, 9.30445, -130.646, -71.6685, 138.155, 81.659, 26.8626, -141.365, -60.0625, 48.9692, -276.941
0.576, -1, -33.4062, 1.82877, 9.30812, -130.621, -71.7098, 138.171, 81.647, 26.9247, -141.346, -60.075, 49.0402, -276.928
0.58, -1, -33.3538, 1.82646, 9.3118, -130.596, -71.7511, 138.187, 81.635, 26.9868, -141.327, -60.0875, 49.1113, -276.916
0.584, -1, -33.3014, 1.82416, 9.31547, -130.571, -71.7923, 138.203, 81.623, 27.0489, -141.307, -60.1, 49.1823, -276.904
0.588, -1, -33.249, 1.82185, 9.31915, -130.545, -71.8336, 138.219, 81.6109, 27.111, -141.288, -60.1125, 49.2534, -276.892
0.592, -1, -33.1965, 1.81955, 9.32282, -130.52, -71.8749, 138.235, 81.5989, 27.1732, -141.269, -60.125, 49.3245, -276.879
0.596, -1, -33.1441, 1.81724, 9.3265, -130.495, -71.9162, 138.252, 81.5869, 27.2353, -141.249, -60.1375, 49.3956, -276.867
0.6, -1, -33.0916, 1.81493, 9.33018, -130.47, -71.9576, 138.268, 81.5748, 27.2975, -141.23, -60.15, 49.4667, -276.855
0.604, -1, -33.0392, 1.81263, 9.33386, -130.444, -71.9989, 138.284, 81.5628, 27.3597, -141.211, -60.1626, 49.5379, -276.842
0.608, -1, -32.9867, 1.81032, 9.33754, -130.419, -72.0402, 138.3, 81.5507, 27.4219, -141.191, -60.1751, 49.6091, -276.83
0.612, -1, -32.9341, 1.80801, 9.34122, -130.394, -72.0816, 138.316, 81.5387, 27.4841, -141.172, -60.1876, 49.6802, -276.818
0.616, -1, -32.8816, 1.8057, 9.3449, -130.368, -72.123, 138.332, 81.5266, 27.5463, -141.153, -60.2001, 49.7514, -276.806
0.62, -1, -32.8291, 1.80339, 9.34858, -130.343, -72.1643, 138.349, 81.5146, 27.6086, -141.133, -60.2127, 49.8227, -276.793
0.624, -1, -32.7765, 1.80108, 9.35226, -130.318, -72.2057, 138.365, 81.5025, 27.6708, -141.114, -60.2252, 49.8939, -276.781
0.628, -1, -32.724, 1.79877, 9.35595, -130.293, -72.2471, 138.381, 81.4904, 27.7331, -141.095, -60.2377, 49.9651, -276.769
0.632, -1, -32.6714, 1.79646, 9.35963, -130.267, -72.2885, 138.397, 81.4784, 27.7954, -141.075, -60.2503, 50.0364, -276.756
0.636, -1, -32.6188, 1.79415, 9.36332, -130.242, -72.3299, 138.413, 81.4663, 27.8577, -141.056, -60.2628, 50.1077, -276.744
0.64, -1, -32.5662, 1.79184, 9.36701, -130.217, -72.3714, 138.429, 81.4542, 27.92, -141.036, -60.2753, 50.179, -276.732
0.644, -1, -32.5136, 1.78952, 9.37069, -130.191, -72.4128, 138.446, 81.4422, 27.9824, -141.017, -60.2879, 50.2504, -276.719
0.648, -1, -32.461, 1.78721, 9.37438, -130.166, -72.4542, 138.462, 81.4301, 28.0448, -140.998, -60.3004, 50.3217, -276.707
0.652, -1, -32.4083, 1.78489, 9.37807, -130.141, -72.4957, 138.478, 81.418, 28.1071, -140.978, -60.313, 50.3931, -276.695
0.656, -1, -32.3557, 1.78258, 9.38176, -130.115, -72.5372, 138.494, 81.4059, 28.1695, -140.959, -60.3256, 50.4645, -276.682
0.66, -1, -32.303, 1.78026, 9.38546, -130.09, -72.5787, 138.51, 81.3938, 28.2319, -140.939, -60.3381, 50.5359, -276.67
0.664, -1, -32.2503, 1.77795, 9.38915, -130.064, -72.6201, 138.527, 81.3817, 28.2944, -140.92, -60.3507, 50.6073, -276.658
0.668, -1, -32.1976, 1.77563, 9.39284, -130.039, -72.6616, 138.543, 81.3696, 28.3568, -140.901, -60.3633, 50.6787, -276.645
0.672, -1, -32.1449, 1.77331, 9.39654, -130.014, -72.7032, 138.559, 81.3575, 28.4193, -140.881, -60.3758, 50.7502, -276.633
0.676, -1, -32.0922, 1.771, 9.40023, -129.988, -72.7447, 138.575, 81.3454, 28.4817, -140.862, -60.3884, 50.8216, -276.621
0.68, -1, -32.0395, 1.76868, 9.40393, -129.963, -72.7862, 138.591, 81.3333, 28.5442, -140.842, -60.401, 50.8931, -276.608
0.684, -1, -31.9867, 1.76636, 9.40763, -129.938, -72.8278, 138.608, 81.3212, 28.6067, -140.823, -60.4136, 50.9647, -276.596
0.688, -1, -31.934, 1.76404, 9.41133, -129.912, -72.8693, 138.624, 81.3091, 28.6693, -140.804, -60.4261, 51.0362, -276.584
0.692, -1, -31.8812, 1.76172, 9.41503, -129.887, -72.9109, 138.64, 81.297, 28.7318, -140.784, -60.4387, 51.1077, -276.571
0.696, -1, -31.8284, 1.7594, 9.41873, -129.861, -72.9525, 138.656, 81.2849, 28.7944, -140.765, -60.4513, 51.1793, -276.559
0.7, -1, -31.7756, 1.75708, 9.42243, -129.836, -72.994, 138.673, 81.2728, 28.8569, -140.745, -60.4639, 51.2509, -276.547
0.704, -1, -31.7228, 1.75475, 9.42613, -129.81, -73.0356, 138.689, 81.2606, 28.9195, -140.726, -60.4765, 51.3225, -276.534
0.708, -1, -31.6699, 1.75243, 9.42983, -129.785, -73.0773, 138.705, 81.2485, 28.9821, -140.706, -60.4891, 51.3941, -276.522
0.712, -1, -31.6171, 1.75011, 9.43354, -129.76, -73.1189, 138.721, 81.2364, 29.0447, -140.687, -60.5017, 51.4658, -276.509
0.716, -1, -31.5642, 1.74778, 9.43724, -129.734, -73.1605, 138.738, 81.2242, 29.1074, -140.667, -60.5143, 51.5374, -276.497
0.72, -1, -31.5113, 1.74546, 9.44095, -129.709, -73.2021, 138.754, 81.2121, 29.17, -140.648, -60.5269, 51.6091, -276.485
0.724, -1, -31.4585, 1.74313, 9.44466, -129.683, -73.2438, 138.77, 81.2, 29.2327, -140.628, -60.5395, 51.6808, -276.472
0.728, -1, -31.4055, 1.74081, 9.44837, -129.658, -73.2855, 138.786, 81.1878, 29.2954, -140.609, -60.5522, 51.7525, -276.46
0.732, -1, -31.3526, 1.73848, 9.45208, -129.632, -73.3271, 138.803, 81.1757, 29.3581, -140.589, -60.5648, 51.8243, -276.448
0.736, -1, -31.2997, 1.73615, 9.45579, -129.607, -73.3688, 138.819, 81.1635, 29.4208, -140.57, -60.5774, 51.896, -276.435
0.74, -1, -31.2468, 1.73383, 9.4595, -129.581, -73.4105, 138.835, 81.1514, 29.4836, -140.55, -60.59, 51.9678, -276.423
0.744, -1, -31.1938, 1.7315, 9.46321, -129.556, -73.4522, 138.852, 81.1392, 29.5463, -140.531, -60.6026, 52.0396, -276.41
0.748, -1, -31.1408, 1.72917, 9.46692, -129.53, -73.494, 138.868, 81.1271, 29.6091, -140.511, -60.6153, 52.1114, -276.398
0.752, -1, -31.0878, 1.72684, 9.47064, -129.505, -73.5357, 138.884, 81.1149, 29.6719, -140.492, -60.6279, 52.1833, -276.386
0.756, -1, -31.0348, 1.72451, 9.47435, -129.479, -73.5774, 138.901, 81.1027, 29.7347, -140.472, -60.6406, 52.2551, -276.373
0.76, -1, -30.9818, 1.72218, 9.47807, -129.454, -73.6192, 138.917, 81.0906, 29.7975, -140.453, -60.6532, 52.327, -276.361
0.764, -1, -30.9288, 1.71985, 9.48179, -129.428, -73.6609, 138.933, 81.0784, 29.8603, -140.433, -60.6659, 52.3989, -276.348
0.768, -1, -30.8758, 1.71752, 9.4855, -129.403, -73.7027, 138.949, 81.0662, 29.9232, -140.414, -60.6785, 52.4708, -276.336
0.772, -1, -30.8227, 1.71518, 9.48922, -129.377, -73.7445, 138.966, 81.054, 29.986, -140.394, -60.6912, 52.5427, -276.323
0.776, -1, -30.7696, 1.71285, 9.49294, -129.351, -73.7863, 138.982, 81.0419, 30.0489, -140.375, -60.7038, 52.6146, -276.311
0.78, -1, -30.7165, 1.71052, 9.49666, -129.326, -73.8281, 138.998, 81.0297, 30.1118, -140.355, -60.7165, 52.6866, -276.299
0.784, -1, -30.6634, 1.70818, 9.50039, -129.3, -73.8699, 139.015, 81.0175, 30.1748, -140.335, -60.7291, 52.7586, -276.286
0.788, -1, -30.6103, 1.70585, 9.50411, -129.275, -73.9118, 139.031, 81.0053, 30.2377, -140.316, -60.7418, 52.8306, -276.274
0.792, -1, -30.5572, 1.70351, 9.50783, -129.249, -73.9536, 139.047, 80.9931, 30.3006, -140.296, -60.7545, 52.9026, -276.261
0.796, -1, -30.5041, 1.70117, 9.51156, -129.224, -73.9955, 139.064, 80.9809, 30.3636, -140.277, -60.7671, 52.9747, -276.249
0.8, -1, -30.4509, 1.69884, 9.51529, -129.198, -74.0373, 139.08, 80.9687, 30.4266, -140.257, -60.7798, 53.0467, -276.236
0.804, -1, -30.3977, 1.6965, 9.51901, -129.172, -74.0792, 139.097, 80.9565, 30.4896, -140.238, -60.7925, 53.1188, -276.224
0.808, -1, -30.3445, 1.69416, 9.52274, -129.147, -74.1211, 139.113, 80.9443, 30.5526, -140.218, -60.8052, 53.1909, -276.211
0.812, -1, -30.2913, 1.69182, 9.52647, -129.121, -74.163, 139.129, 80.9321, 30.6157, -140.198, -60.8179, 53.2631, -276.199
0.816, -1, -30.2381, 1.68948, 9.5302, -129.096, -74.2049, 139.146, 80.9199, 30.6787, -140.179, -60.8306, 53.3352, -276.187
0.82, -1, -30.1849, 1.68714, 9.53393, -129.07, -74.2468, 139.162, 80.9076, 30.7418, -140.159, -60.8433, 53.4073, -276.174
0.824, -1, -30.1317, 1.6848, 9.53766, -129.044, -74.2887, 139.178, 80.8954, 30.8049, -140.14, -60.856, 53.4795, -276.162
0.828, -1, -30.0784, 1.68246, 9.5414, -129.019, -74.3307, 139.195, 80.8832, 30.868, -140.12, -60.8687, 53.5517, -276.149
0.832, -1, -30.0251, 1.68012, 9.54513, -128.993, -74.3727, 139.211, 80.871, 30.9311, -140.1, -60.8814, 53.6239, -276.137
0.836, -1, -29.9718, 1.67778, 9.54887, -128.967, -74.4146, 139.228, 80.8587, 30.9943, -140.081, -60.8941, 53.6962, -276.124
0.84, -1, -29.9185, 1.67543, 9.5526, -128.942, -74.4566, 139.244, 80.8465, 31.0574, -140.061, -60.9068, 53.7684, -276.112
0.844, -1, -29.8652, 1.67309, 9.55634, -128.916, -74.4986, 139.26, 80.8343, 31.1206, -140.041, -60.9195, 53.8407, -276.099
0.848, -1, -29.8119, 1.67074, 9.56008, -128.89, -74.5406, 139.277, 80.822, 31.1838, -140.022, -60.9322, 53.913, -276.087
0.852, -1, -29.7586, 1.6684, 9.56382, -128.865, -74.5826, 139.293, 80.8098, 31.247, -140.002, -60.9449, 53.9853, -276.074
0.856, -1, -29.7052, 1.66605, 9.56756, -128.839, -74.6246, 139.31, 80.7975, 31.3102, -139.982, -60.9577, 54.0577, -276.062
0.86, -1, -29.6518, 1.66371, 9.5713, -128.813, -74.6666, 139.326, 80.7853, 31.3735, -139.963, -60.9704, 54.13, -276.049
0.864, -1, -29.5984, 1.66136, 9.57504, -128.788, -74.7087, 139.342, 80.773, 31.4367, -139.943, -60.9831, 54.2024, -276.037
0.868, -1, -29.545, 1.65901, 9.57878, -128.762, -74.7508, 139.359, 80.7608, 31.5, -139.923, -60.9959, 54.2748, -276.024
0.872, -1, -29.4916, 1.65666, 9.58253, -128.736, -74.7928, 139.375, 80.7485, 31.5633, -139.904, -61.0086, 54.3472, -276.012
0.876, -1, -29.4382, 1.65431, 9.58627, -128.71, -74.8349, 139.392, 80.7362, 31.6266, -139.884, -61.0213, 54.4196, -275.999
0.88, -1, -29.3847, 1.65196, 9.59002, -128.685, -74.877, 139.408, 80.724, 31.6899, -139.864, -61.0341, 54.4921, -275.987
0.884, -1, -29.3313, 1.64961, 9.59377, -128.659, -74.9191, 139.425, 80.7117, 31.7533, -139.845, -61.0468, 54.5646, -275.974
0.888, -1, -29.2778, 1.64726, 9.59752, -128.633, -74.9612, 139.441, 80.6994, 31.8167, -139.825, -61.0596, 54.6371, -275.962
0.892, -1, -29.2243, 1.64491, 9.60126, -128.607, -75.0033, 139.458, 80.6871, 31.88, -139.805, -61.0723, 54.7096, -275.949
0.896, -1, -29.1708, 1.64256, 9.60502, -128.582, -75.0455, 139.474, 80.6749, 31.9434, -139.786, -61.0851, 54.7821, -275.937
0.9, -1, -29.1173, 1.64021, 9.60877, -128.556, -75.0876, 139.49, 80.6626, 32.0069, -139.766, -61.0979, 54.8547, -275.924
0.904, -1, -29.0638, 1.63785, 9.61252, -128.53, -75.1298, 139.507, 80.6503, 32.0703, -139.746, -61.1106, 54.9273, -275.912
0.908, -1, -29.0102, 1.6355, 9.61627, -128.504, -75.172, 139.523, 80.638, 32.1337, -139.726, -61.1234, 54.9999, -275.899
0.912, -1, -28.9566, 1.63314, 9.62003, -128.479, -75.2142, 139.54, 80.6257, 32.1972, -139.707, -61.1362, 55.0725, -275.887
0.916, -1, -28.9031, 1.63079, 9.62378, -128.453, -75.2563, 139.556, 80.6134, 32.2607, -139.687, -61.149, 55.1451, -275.874
0.92, -1, -28.8495, 1.62843, 9.62754, -128.427, -75.2986, 139.573, 80.6011, 32.3242, -139.667, -61.1617, 55.2178, -275.861
0.924, -1, -28.7959, 1.62607, 9.6313, -128.401, -75.3408, 139.589, 80.5888, 32.3877, -139.647, -61.1745, 55.2904, -275.849
0.928, -1, -28.7422, 1.62372, 9.63506, -128.375, -75.383, 139.606, 80.5765, 32.4513, -139.628, -61.1873, 55.3631, -275.836
0.932, -1, -28.6886, 1.62136, 9.63882, -128.349, -75.4253, 139.622, 80.5642, 32.5148, -139.608, -61.2001, 55.4358, -275.824
0.936, -1, -28.6349, 1.619, 9.64258, -128.324, -75.4675, 139.639, 80.5518, 32.5784, -139.588, -61.2129, 55.5086, -275.811
0.94, -1, -28.5813, 1.61664, 9.64634, -128.298, -75.5098, 139.655, 80.5395, 32.642, -139.568, -61.2257, 55.5813, -275.799
0.944, -1, -28.5276, 1.61428, 9.6501, -128.272, -75.5521, 139.672, 80.5272, 32.7056, -139.549, -61.2385, 55.6541, -275.786
0.948, -1, -28.4739, 1.61192, 9.65387, -128.246, -75.5944, 139.688, 80.5149, 32.7692, -139.529, -61.2513, 55.7269, -275.773
0.952, -1, -28.4202, 1.60956, 9.65763, -128.22, -75.6367, 139.705, 80.5025, 32.8329, -139.509, -61.2641, 55.7997, -275.761
0.956, -1, -28.3664, 1.6072, 9.6614, -128.194, -75.679, 139.721, 80.4902, 32.8966, -139.489, -61.2769, 55.8726, -275.748
0.96, -1, -28.3127, 1.60483, 9.66517, -128.168, -75.7213, 139.738, 80.4779, 32.9603, -139.469, -61.2898, 55.9454, -275.736
0.964, -1, -28.2589, 1.60247, 9.66894, -128.143, -75.7636, 139.755, 80.4655, 33.024, -139.45, -61.3026, 56.0183, -275.723
0.968, -1, -28.2052, 1.6001, 9.67271, -128.117, -75.806, 139.771, 80.4532, 33.0877, -139.43, -61.3154, 56.0912, -275.711
0.972, -1, -28.1514, 1.59774, 9.67648, -128.091, -75.8484, 139.788, 80.4408, 33.1514, -139.41, -61.3282, 56.1642, -275.698
0.976, -1, -28.0976, 1.59537, 9.68025, -128.065, -75.8907, 139.804, 80.4285, 33.2152, -139.39, -61.3411, 56.2371, -275.685
0.98, -1, -28.0437, 1.59301, 9.68402, -128.039, -75.9331, 139.821, 80.4161, 33.279, -139.37, -61.3539, 56.3101, -275.673
0.984, -1, -27.9899, 1.59064, 9.6878, -128.013, -75.9755, 139.837, 80.4038, 33.3428, -139.351, -61.3667, 56.3831, -275.66
0.988, -1, -27.936, 1.58827, 9.69157, -127.987, -76.0179, 139.854, 80.3914, 33.4066, -139.331, -61.3796, 56.4561, -275.648
0.992, -1, -27.8822, 1.5859, 9.69535, -127.961, -76.0604, 139.87, 80.379, 33.4704, -139.311, -61.3924, 56.5291, -275.635
0.996, -1, -27.8283, 1.58354, 9.69912, -127.935, -76.1028, 139.887, 80.3667, 33.5342, -139.291, -61.4053, 56.6021, -275.622
1, -1, -27.7744, 1.58117, 9.7029, -127.909, -76.1453, 139.904, 80.3543, 33.5981, -139.271, -61.4181, 56.6752, -275.61
1.004, -1, -27.7205, 1.5788, 9.70668, -127.883, -76.1877, 139.92, 80.3419, 33.662, -139.251, -61.431, 56.7483, -275.597
1.008, -1, -27.6665, 1.57642, 9.71046, -127.857, -76.2302, 139.937, 80.3296, 33.7259, -139.231, -61.4439, 56.8214, -275.584
1.012, -1, -27.6126, 1.57405, 9.71424, -127.831, -76.2727, 139.953, 80.3172, 33.7898, -139.212, -61.4567, 56.8946, -275.572
1.016, -1, -27.5586, 1.57168, 9.71803, -127.805, -76.3152, 139.97, 80.3048, 33.8538, -139.192, -61.4696, 56.9677, -275.559
1.02, -1, -27.5046, 1.56931, 9.72181, -127.779, -76.3577, 139.987, 80.2924, 33.9177, -139.172, -61.4825, 57.0409, -275.547
1.024, -1, -27.4507, 1.56693, 9.72559, -127.753, -76.4002, 140.003, 80.28, 33.9817, -139.152, -61.4953, 57.1141, -275.534
1.027, -1, -27.3966, 1.56456, 9.72938, -127.727, -76.4428, 140.02, 80.2676, 34.0457, -139.132, -61.5082, 57.1873, -275.521
1.032, -1, -27.3426, 1.56218, 9.73317, -127.701, -76.4853, 140.036, 80.2552, 34.1097, -139.112, -61.5211, 57.2606, -275.509
1.036, -1, -27.2886, 1.55981, 9.73696, -127.675, -76.5279, 140.053, 80.2428, 34.1738, -139.092, -61.534, 57.3338, -275.496
1.04, -1, -27.2345, 1.55743, 9.74074, -127.649, -76.5704, 140.07, 80.2304, 34.2378, -139.072, -61.5469, 57.4071, -275.483
1.044, -1, -27.1804, 1.55505, 9.74454, -127.623, -76.613, 140.086, 80.218, 34.3019, -139.052, -61.5598, 57.4804, -275.471
1.048, -1, -27.1264, 1.55268, 9.74833, -127.597, -76.6556, 140.103, 80.2055, 34.366, -139.032, -61.5727, 57.5537, -275.458
1.052, -1, -27.0723, 1.5503, 9.75212, -127.571, -76.6982, 140.12, 80.1931, 34.4301, -139.012, -61.5856, 57.6271, -275.445
1.055, -1, -27.0181, 1.54792, 9.75591, -127.545, -76.7409, 140.136, 80.1807, 34.4942, -138.993, -61.5985, 57.7005, -275.433
1.06, -1, -26.964, 1.54554, 9.75971, -127.519, -76.7835, 140.153, 80.1683, 34.5584, -138.973, -61.6114, 57.7739, -275.42
1.064, -1, -26.9098, 1.54316, 9.7635, -127.493, -76.8261, 140.17, 80.1559, 34.6226, -138.953, -61.6243, 57.8473, -275.407
1.068, -1, -26.8557, 1.54078, 9.7673, -127.467, -76.8688, 140.186, 80.1435, 34.6867, -138.933, -61.6372, 57.9207, -275.395
1.072, -1, -26.8015, 1.53839, 9.7711, -127.441, -76.9115, 140.203, 80.1311, 34.7509, -138.913, -61.6502, 57.9942, -275.382
1.076, -1, -26.7473, 1.53601, 9.7749, -127.415, -76.9542, 140.22, 80.1187, 34.8152, -138.893, -61.6631, 58.0676, -275.369
1.08, -1, -26.6931, 1.53363, 9.7787, -127.389, -76.9969, 140.236, 80.1062, 34.8794, -138.873, -61.676, 58.1411, -275.356
1.084, -1, -26.6388, 1.53124, 9.7825, -127.362, -77.0396, 140.253, 80.0938, 34.9437, -138.853, -61.6889, 58.2147, -275.344
1.088, -1, -26.5846, 1.52886, 9.7863, -127.336, -77.0823, 140.27, 80.0814, 35.008, -138.833, -61.7019, 58.2882, -275.331
1.091, -1, -26.5303, 1.52647, 9.79011, -127.31, -77.125, 140.286, 80.069, 35.0723, -138.813, -61.7148, 58.3618, -275.318
1.096, -1, -26.476, 1.52409, 9.79391, -127.284, -77.1678, 140.303, 80.0566, 35.1366, -138.793, -61.7278, 58.4353, -275.306
1.1, -1, -26.4218, 1.5217, 9.79772, -127.258, -77.2105, 140.32, 80.0442, 35.2009, -138.773, -61.7407, 58.509, -275.293
1.104, -1, -26.3674, 1.51931, 9.80153, -127.232, -77.2533, 140.336, 80.0318, 35.2653, -138.753, -61.7537, 58.5826, -275.28
1.108, -1, -26.3131, 1.51692, 9.80533, -127.206, -77.2961, 140.353, 80.0193, 35.3296, -138.733, -61.7666, 58.6562, -275.267
1.112, -1, -26.2588, 1.51453, 9.80914, -127.179, -77.3389, 140.37, 80.0069, 35.394, -138.713, -61.7796, 58.7299, -275.255
1.116, -1, -26.2044, 1.51214, 9.81295, -127.153, -77.3817, 140.387, 79.9945, 35.4585, -138.693, -61.7926, 58.8036, -275.242
1.119, -1, -26.15, 1.50975, 9.81676, -127.127, -77.4246, 140.403, 79.982, 35.5229, -138.673, -61.8055, 58.8773, -275.229
1.124, -1, -26.0956, 1.50736, 9.82058, -127.101, -77.4674, 140.42, 79.9696, 35.5873, -138.653, -61.8185, 58.9511, -275.217
1.128, -1, -26.0412, 1.50497, 9.82439, -127.075, -77.5102, 140.437, 79.9571, 35.6518, -138.633, -61.8315, 59.0248, -275.204
1.132, -1, -25.9868, 1.50258, 9.82821, -127.048, -77.5531, 140.454, 79.9447, 35.7163, -138.613, -61.8444, 59.0986, -275.191
1.136, -1, -25.9324, 1.50018, 9.83202, -127.022, -77.596, 140.47, 79.9322, 35.7808, -138.593, -61.8574, 59.1724, -275.178
1.14, -1, -25.8779, 1.49779, 9.83584, -126.996, -77.6389, 140.487, 79.9198, 35.8453, -138.572, -61.8704, 59.2462, -275.166
1.144, -1, -25.8234, 1.49539, 9.83966, -126.97, -77.6818, 140.504, 79.9073, 35.9099, -138.552, -61.8834, 59.3201, -275.153
1.147, -1, -25.7689, 1.493, 9.84348, -126.944, -77.7247, 140.521, 79.8948, 35.9745, -138.532, -61.8964, 59.394, -275.14
1.152, -1, -25.7144, 1.4906, 9.8473, -126.917, -77.7676, 140.537, 79.8824, 36.0391, -138.512, -61.9094, 59.4679, -275.127
1.156, -1, -25.6599, 1.4882, 9.85112, -126.891, -77.8106, 140.554, 79.8699, 36.1037, -138.492, -61.9224, 59.5418, -275.115
1.16, -1, -25.6054, 1.48581, 9.85494, -126.865, -77.8535, 140.571, 79.8574, 36.1683, -138.472, -61.9354, 59.6157, -275.102
1.164, -1, -25.5508, 1.48341, 9.85877, -126.839, -77.8965, 140.588, 79.8449, 36.2329, -138.452, -61.9484, 59.6897, -275.089
1.168, -1, -25.4962, 1.48101, 9.86259, -126.812, -77.9395, 140.604, 79.8324, 36.2976, -138.432, -61.9614, 59.7637, -275.076
1.172, -1, -25.4416, 1.47861, 9.86642, -126.786, -77.9825, 140.621, 79.8199, 36.3623, -138.412, -61.9745, 59.8377, -275.063
1.175, -1, -25.387, 1.47621, 9.87025, -126.76, -78.0255, 140.638, 79.8074, 36.427, -138.392, -61.9875, 59.9117, -275.051
1.18, -1, -25.3324, 1.47381, 9.87408, -126.733, -78.0685, 140.655, 79.7949, 36.4917, -138.372, -62.0005, 59.9857, -275.038
1.184, -1, -25.2778, 1.4714, 9.87791, -126.707, -78.1115, 140.672, 79.7824, 36.5565, -138.351, -62.0135, 60.0598, -275.025
1.188, -1, -25.2231, 1.469, 9.88174, -126.681, -78.1546, 140.688, 79.7699, 36.6212, -138.331, -62.0266, 60.1339, -275.012
1.192, -1, -25.1684, 1.4666, 9.88557, -126.654, -78.1976, 140.705, 79.7574, 36.686, -138.311, -62.0396, 60.208, -274.999
1.196, -1, -25.1138, 1.46419, 9.8894, -126.628, -78.2407, 140.722, 79.7449, 36.7508, -138.291, -62.0527, 60.2822, -274.987
1.2, -1, -25.0591, 1.46179, 9.89324, -126.602, -78.2838, 140.739, 79.7324, 36.8156, -138.271, -62.0657, 60.3563, -274.974
1.204, -1, -25.0043, 1.45938, 9.89707, -126.575, -78.3269, 140.756, 79.7198, 36.8805, -138.251, -62.0788, 60.4305, -274.961
1.208, -1, -24.9496, 1.45698, 9.90091, -126.549, -78.37, 140.773, 79.7073, 36.9453, -138.23, -62.0918, 60.5047, -274.948
1.212, -1, -24.8948, 1.45457, 9.90475, -126.523, -78.4131, 140.789, 79.6948, 37.0102, -138.21, -62.1049, 60.579, -274.935
1.216, -1, -24.8401, 1.45216, 9.90859, -126.496, -78.4562, 140.806, 79.6822, 37.0751, -138.19, -62.1179, 60.6532, -274.923
1.22, -1, -24.7853, 1.44975, 9.91243, -126.47, -78.4994, 140.823, 79.6697, 37.14, -138.17, -62.131, 60.7275, -274.91
1.224, -1, -24.7305, 1.44734, 9.91627, -126.444, -78.5426, 140.84, 79.6572, 37.205, -138.15, -62.1441, 60.8018, -274.897
1.228, -1, -24.6756, 1.44493, 9.92011, -126.417, -78.5857, 140.857, 79.6446, 37.27, -138.13, -62.1571, 60.8761, -274.884
1.232, -1, -24.6208, 1.44252, 9.92396, -126.391, -78.6289, 140.874, 79.6321, 37.3349, -138.109, -62.1702, 60.9505, -274.871
1.236, -1, -24.5659, 1.44011, 9.9278, -126.364, -78.6721, 140.891, 79.6195, 37.3999, -138.089, -62.1833, 61.0248, -274.858
1.24, -1, -24.5111, 1.4377, 9.93165, -126.338, -78.7153, 140.908, 79.6069, 37.465, -138.069, -62.1964, 61.0992, -274.846
1.244, -1, -24.4562, 1.43528, 9.9355, -126.311, -78.7586, 140.924, 79.5944, 37.53, -138.049, -62.2095, 61.1736, -274.833
1.248, -1, -24.4013, 1.43287, 9.93935, -126.285, -78.8018, 140.941, 79.5818, 37.5951, -138.028, -62.2226, 61.2481, -274.82
1.252, -1, -24.3463, 1.43045, 9.9432, -126.259, -78.8451, 140.958, 79.5692, 37.6601, -138.008, -62.2357, 61.3225, -274.807
1.256, -1, -24.2914, 1.42804, 9.94705, -126.232, -78.8883, 140.975, 79.5566, 37.7253, -137.988, -62.2488, 61.397, -274.794
1.26, -1, -24.2365, 1.42562, 9.9509, -126.206, -78.9316, 140.992, 79.5441, 37.7904, -137.968, -62.2619, 61.4715, -274.781
1.264, -1, -24.1815, 1.42321, 9.95475, -126.179, -78.9749, 141.009, 79.5315, 37.8555, -137.948, -62.275, 61.5461, -274.768
1.267, -1, -24.1265, 1.42079, 9.95861, -126.153, -79.0182, 141.026, 79.5189, 37.9207, -137.927, -62.2881, 61.6206, -274.756
1.272, -1, -24.0715, 1.41837, 9.96247, -126.126, -79.0616, 141.043, 79.5063, 37.9859, -137.907, -62.3012, 61.6952, -274.743
1.276, -1, -24.0164, 1.41595, 9.96632, -126.1, -79.1049, 141.06, 79.4937, 38.0511, -137.887, -62.3143, 61.7698, -274.73
1.28, -1, -23.9614, 1.41353, 9.97018, -126.073, -79.1482, 141.077, 79.4811, 38.1163, -137.866, -62.3275, 61.8444, -274.717
1.284, -1, -23.9063, 1.41111, 9.97404, -126.047, -79.1916, 141.094, 79.4685, 38.1815, -137.846, -62.3406, 61.919, -274.704
1.288, -1, -23.8513, 1.40869, 9.9779, -126.02, -79.235, 141.11, 79.4559, 38.2468, -137.826, -62.3537, 61.9937, -274.691
1.292, -1, -23.7962, 1.40627, 9.98176, -125.994, -79.2784, 141.127, 79.4433, 38.3121, -137.806, -62.3669, 62.0684, -274.678
1.295, -1, -23.7411, 1.40384, 9.98563, -125.967, -79.3218, 141.144, 79.4307, 38.3774, -137.785, -62.38, 62.1431, -274.665
1.3, -1, -23.6859, 1.40142, 9.98949, -125.941, -79.3652, 141.161, 79.418, 38.4427, -137.765, -62.3932, 62.2179, -274.652
1.304, -1, -23.6308, 1.39899, 9.99336, -125.914, -79.4086, 141.178, 79.4054, 38.5081, -137.745, -62.4063, 62.2926, -274.639
1.308, -1, -23.5756, 1.39657, 9.99722, -125.887, -79.4521, 141.195, 79.3928, 38.5734, -137.724, -62.4195, 62.3674, -274.627
1.312, -1, -23.5204, 1.39414, 10.0011, -125.861, -79.4955, 141.212, 79.3801, 38.6388, -137.704, -62.4326, 62.4422, -274.614
1.316, -1, -23.4652, 1.39172, 10.005, -125.834, -79.539, 141.229, 79.3675, 38.7042, -137.684, -62.4458, 62.517, -274.601
1.32, -1, -23.41, 1.38929, 10.0088, -125.808, -79.5825, 141.246, 79.3549, 38.7697, -137.663, -62.459, 62.5919, -274.588
1.324, -1, -23.3548, 1.38686, 10.0127, -125.781, -79.626, 141.263, 79.3422, 38.8351, -137.643, -62.4721, 62.6668, -274.575
1.328, -1, -23.2995, 1.38443, 10.0166, -125.755, -79.6695, 141.28, 79.3296, 38.9006, -137.623, -62.4853, 62.7417, -274.562
1.332, -1, -23.2443, 1.382, 10.0205, -125.728, -79.713, 141.297, 79.3169, 38.9661, -137.602, -62.4985, 62.8166, -274.549
1.336, -1, -23.189, 1.37957, 10.0243, -125.701, -79.7566, 141.314, 79.3043, 39.0316, -137.582, -62.5117, 62.8916, -274.536
1.34, -1, -23.1337, 1.37714, 10.0282, -125.675, -79.8001, 141.331, 79.2916, 39.0971, -137.561, -62.5249, 62.9665, -274.523
1.344, -1, -23.0784, 1.37471, 10.0321, -125.648, -79.8437, 141.348, 79.2789, 39.1627, -137.541, -62.5381, 63.0415, -274.51
1.348, -1, -23.023, 1.37227, 10.036, -125.621, -79.8873, 141.365, 79.2663, 39.2282, -137.521, -62.5513, 63.1166, -274.497
1.352, -1, -22.9677, 1.36984, 10.0398, -125.595, -79.9309, 141.382, 79.2536, 39.2938, -137.5, -62.5645, 63.1916, -274.484
1.356, -1, -22.9123, 1.36741, 10.0437, -125.568, -79.9745, 141.399, 79.2409, 39.3594, -137.48, -62.5777, 63.2667, -274.471
1.36, -1, -22.8569, 1.36497, 10.0476, -125.541, -80.0181, 141.416, 79.2282, 39.4251, -137.46, -62.5909, 63.3418, -274.458
1.364, -1, -22.8015, 1.36253, 10.0515, -125.515, -80.0618, 141.433, 79.2155, 39.4907, -137.439, -62.6041, 63.4169, -274.445
1.368, -1, -22.7461, 1.3601, 10.0554, -125.488, -80.1054, 141.451, 79.2028, 39.5564, -137.419, -62.6173, 63.492, -274.432
1.372, -1, -22.6906, 1.35766, 10.0593, -125.461, -80.1491, 141.468, 79.1901, 39.6221, -137.398, -62.6305, 63.5672, -274.419
1.376, -1, -22.6351, 1.35522, 10.0631, -125.435, -80.1928, 141.485, 79.1774, 39.6878, -137.378, -62.6438, 63.6424, -274.406
1.38, -1, -22.5797, 1.35278, 10.067, -125.408, -80.2365, 141.502, 79.1647, 39.7536, -137.357, -62.657, 63.7176, -274.393
1.384, -1, -22.5242, 1.35034, 10.0709, -125.381, -80.2802, 141.519, 79.152, 39.8193, -137.337, -62.6702, 63.7928, -274.38
1.388, -1, -22.4686, 1.3479, 10.0748, -125.354, -80.3239, 141.536, 79.1393, 39.8851, -137.316, -62.6835, 63.8681, -274.367
1.392, -1, -22.4131, 1.34546, 10.0787, -125.328, -80.3676, 141.553, 79.1266, 39.9509, -137.296, -62.6967, 63.9434, -274.354
1.396, -1, -22.3576, 1.34302, 10.0826, -125.301, -80.4114, 141.57, 79.1139, 40.0167, -137.276, -62.71, 64.0187, -274.341
1.4, -1, -22.302, 1.34057, 10.0865, -125.274, -80.4551, 141.587, 79.1012, 40.0826, -137.255, -62.7232, 64.094, -274.328
1.404, -1, -22.2464, 1.33813, 10.0904, -125.247, -80.4989, 141.604, 79.0884, 40.1485, -137.235, -62.7365, 64.1694, -274.315
1.408, -1, -22.1908, 1.33569, 10.0943, -125.221, -80.5427, 141.621, 79.0757, 40.2144, -137.214, -62.7497, 64.2448, -274.302
1.412, -1, -22.1352, 1.33324, 10.0982, -125.194, -80.5865, 141.638, 79.063, 40.2803, -137.194, -62.763, 64.3202, -274.289
1.416, -1, -22.0795, 1.33079, 10.1021, -125.167, -80.6303, 141.656, 79.0502, 40.3462, -137.173, -62.7763, 64.3956, -274.276
1.42, -1, -22.0239, 1.32835, 10.106, -125.14, -80.6742, 141.673, 79.0375, 40.4122, -137.153, -62.7895, 64.4711, -274.263
1.424, -1, -21.9682, 1.3259, 10.1099, -125.113, -80.718, 141.69, 79.0247, 40.4781, -137.132, -62.8028, 64.5465, -274.25
1.428, -1, -21.9125, 1.32345, 10.1138, -125.087, -80.7619, 141.707, 79.012, 40.5441, -137.112, -62.8161, 64.6221, -274.237
1.432, -1, -21.8568, 1.321, 10.1177, -125.06, -80.8058, 141.724, 78.9992, 40.6101, -137.091, -62.8294, 64.6976, -274.224
1.436, -1, -21.801, 1.31855, 10.1216, -125.033, -80.8497, 141.741, 78.9864, 40.6762, -137.071, -62.8427, 64.7731, -274.211
1.44, -1, -21.7453, 1.3161, 10.1255, -125.006, -80.8936, 141.758, 78.9737, 40.7423, -137.05, -62.856, 64.8487, -274.198
1.444, -1, -21.6895, 1.31365, 10.1294, -124.979, -80.9375, 141.776, 78.9609, 40.8083, -137.029, -62.8693, 64.9243, -274.185
1.448, -1, -21.6337, 1.31119, 10.1333, -124.952, -80.9814, 141.793, 78.9481, 40.8745, -137.009, -62.8826, 65, -274.172
1.452, -1, -21.5779, 1.30874, 10.1373, -124.926, -81.0254, 141.81, 78.9353, 40.9406, -136.988, -62.8959, 65.0756, -274.159
1.456, -1, -21.5221, 1.30629, 10.1412, -124.899, -81.0694, 141.827, 78.9226, 41.0067, -136.968, -62.9092, 65.1513, -274.146
1.46, -1, -21.4662, 1.30383, 10.1451, -124.872, -81.1133, 141.844, 78.9098, 41.0729, -136.947, -62.9225, 65.227, -274.133
1.464, -1, -21.4104, 1.30137, 10.149, -124.845, -81.1574, 141.861, 78.897, 41.1391, -136.927, -62.9359, 65.3028, -274.12
1.468, -1, -21.3545, 1.29892, 10.1529, -124.818, -81.2014, 141.879, 78.8842, 41.2053, -136.906, -62.9492, 65.3785, -274.106
1.472, -1, -21.2986, 1.29646, 10.1568, -124.791, -81.2454, 141.896, 78.8714, 41.2716, -136.885, -62.9625, 65.4543, -274.093
1.476, -1, -21.2427, 1.294, 10.1608, -124.764, -81.2894, 141.913, 78.8586, 41.3378, -136.865, -62.9758, 65.5301, -274.08
1.48, -1, -21.1867, 1.29154, 10.1647, -124.737, -81.3335, 141.93, 78.8458, 41.4041, -136.844, -62.9892, 65.6059, -274.067
1.484, -1, -21.1308, 1.28908, 10.1686, -124.71, -81.3776, 141.947, 78.8329, 41.4704, -136.824, -63.0025, 65.6818, -274.054
1.488, -1, -21.0748, 1.28662, 10.1725, -124.683, -81.4216, 141.965, 78.8201, 41.5368, -136.803, -63.0159, 65.7577, -274.041
1.492, -1, -21.0188, 1.28416, 10.1765, -124.656, -81.4657, 141.982, 78.8073, 41.6031, -136.782, -63.0292, 65.8336, -274.028
1.496, -1, -20.9628, 1.2817, 10.1804, -124.629, -81.5099, 141.999, 78.7945, 41.6695, -136.762, -63.0426, 65.9096, -274.015
1.5, -1, -20.9067, 1.27923, 10.1843, -124.602, -81.554, 142.016, 78.7816, 41.7359, -136.741, -63.056, 65.9855, -274.002
1.504, -1, -20.8507, 1.27677, 10.1882, -124.575, -81.5981, 142.034, 78.7688, 41.8023, -136.72, -63.0693, 66.0615, -273.988
1.508, -1, -20.7946, 1.2743, 10.1922, -124.548, -81.6423, 142.051, 78.756, 41.8687, -136.7, -63.0827, 66.1375, -273.975
1.512, -1, -20.7385, 1.27184, 10.1961, -124.521, -81.6865, 142.068, 78.7431, 41.9352, -136.679, -63.0961, 66.2136, -273.962
1.516, -1, -20.6824, 1.26937, 10.2, -124.494, -81.7307, 142.085, 78.7303, 42.0017, -136.658, -63.1095, 66.2896, -273.949
1.52, -1, -20.6263, 1.2669, 10.204, -124.467, -81.7749, 142.103, 78.7174, 42.0682, -136.638, -63.1228, 66.3657, -273.936
1.524, -1, -20.5701, 1.26443, 10.2079, -124.44, -81.8191, 142.12, 78.7046, 42.1347, -136.617, -63.1362, 66.4418, -273.923
1.528, -1, -20.514, 1.26196, 10.2118, -124.413, -81.8633, 142.137, 78.6917, 42.2013, -136.596, -63.1496, 66.518, -273.91
1.532, -1, -20.4578, 1.25949, 10.2158, -124.386, -81.9076, 142.154, 78.6788, 42.2679, -136.576, -63.163, 66.5942, -273.896
1.536, -1, -20.4016, 1.25702, 10.2197, -124.359, -81.9518, 142.172, 78.6659, 42.3345, -136.555, -63.1764, 66.6703, -273.883
1.54, -1, -20.3454, 1.25455, 10.2237, -124.332, -81.9961, 142.189, 78.6531, 42.4011, -136.534, -63.1898, 66.7466, -273.87
1.544, -1, -20.2891, 1.25208, 10.2276, -124.305, -82.0404, 142.206, 78.6402, 42.4677, -136.514, -63.2033, 66.8228, -273.857
1.548, -1, -20.2328, 1.2496, 10.2315, -124.278, -82.0847, 142.224, 78.6273, 42.5344, -136.493, -63.2167, 66.8991, -273.844
1.552, -1, -20.1766, 1.24713, 10.2355, -124.251, -82.1291, 142.241, 78.6144, 42.6011, -136.472, -63.2301, 66.9754, -273.831
1.556, -1, -20.1203, 1.24465, 10.2394, -124.224, -82.1734, 142.258, 78.6015, 42.6678, -136.451, -63.2435, 67.0517, -273.817
1.56, -1, -20.0639, 1.24218, 10.2434, -124.197, -82.2178, 142.276, 78.5886, 42.7345, -136.431, -63.257, 67.1281, -273.804
1.564, -1, -20.0076, 1.2397, 10.2473, -124.169, -82.2621, 142.293, 78.5757, 42.8013, -136.41, -63.2704, 67.2045, -273.791
1.568, -1, -19.9512, 1.23722, 10.2513, -124.142, -82.3065, 142.31, 78.5628, 42.8681, -136.389, -63.2838, 67.2809, -273.778
1.572, -1, -19.8949, 1.23474, 10.2552, -124.115, -82.3509, 142.328, 78.5499, 42.9349, -136.368, -63.2973, 67.3573, -273.765
1.576, -1, -19.8385, 1.23226, 10.2592, -124.088, -82.3953, 142.345, 78.537, 43.0017, -136.348, -63.3107, 67.4338, -273.751
1.58, -1, -19.782, 1.22978, 10.2631, -124.061, -82.4398, 142.362, 78.5241, 43.0686, -136.327, -63.3242, 67.5102, -273.738
1.584, -1, -19.7256, 1.2273, 10.2671, -124.034, -82.4842, 142.38, 78.5111, 43.1355, -136.306, -63.3376, 67.5868, -273.725
1.588, -1, -19.6692, 1.22482, 10.2711, -124.006, -82.5287, 142.397, 78.4982, 43.2024, -136.285, -63.3511, 67.6633, -273.712
1.592, -1, -19.6127, 1.22234, 10.275, -123.979, -82.5732, 142.414, 78.4853, 43.2693, -136.264, -63.3646, 67.7399, -273.699
1.596, -1, -19.5562, 1.21985, 10.279, -123.952, -82.6177, 142.432, 78.4723, 43.3362, -136.244, -63.3781, 67.8164, -273.685
1.6, -1, -19.4997, 1.21737, 10.2829, -123.925, -82.6622, 142.449, 78.4594, 43.4032, -136.223, -63.3915, 67.8931, -273.672
1.604, -1, -19.4431, 1.21488, 10.2869, -123.898, -82.7067, 142.467, 78.4464, 43.4702, -136.202, -63.405, 67.9697, -273.659
1.608, -1, -19.3866, 1.2124, 10.2909, -123.87, -82.7512, 142.484, 78.4335, 43.5372, -136.181, -63.4185, 68.0464, -273.646
1.612, -1, -19.33, 1.20991, 10.2948, -123.843, -82.7958, 142.501, 78.4205, 43.6042, -136.16, -63.432, 68.1231, -273.632
1.616, -1, -19.2734, 1.20742, 10.2988, -123.816, -82.8404, 142.519, 78.4076, 43.6713, -136.139, -63.4455, 68.1998, -273.619
1.62, -1, -19.2168, 1.20493, 10.3028, -123.789, -82.8849, 142.536, 78.3946, 43.7384, -136.119, -63.459, 68.2765, -273.606
1.624, -1, -19.1602, 1.20244, 10.3067, -123.761, -82.9296, 142.554, 78.3816, 43.8055, -136.098, -63.4725, 68.3533, -273.593
1.628, -1, -19.1035, 1.19995, 10.3107, -123.734, -82.9742, 142.571, 78.3686, 43.8726, -136.077, -63.486, 68.4301, -273.579
1.632, -1, -19.0468, 1.19746, 10.3147, -123.707, -83.0188, 142.589, 78.3557, 43.9398, -136.056, -63.4995, 68.507, -273.566
1.636, -1, -18.9901, 1.19497, 10.3187, -123.68, -83.0635, 142.606, 78.3427, 44.007, -136.035, -63.513, 68.5838, -273.553
1.64, -1, -18.9334, 1.19247, 10.3226, -123.652, -83.1081, 142.623, 78.3297, 44.0742, -136.014, -63.5266, 68.6607, -273.54
1.644, -1, -18.8767, 1.18998, 10.3266, -123.625, -83.1528, 142.641, 78.3167, 44.1414, -135.993, -63.5401, 68.7376, -273.526
1.648, -1, -18.8199, 1.18748, 10.3306, -123.598, -83.1975, 142.658, 78.3037, 44.2086, -135.972, -63.5536, 68.8146, -273.513
1.652, -1, -18.7632, 1.18499, 10.3346, -123.57, -83.2422, 142.676, 78.2907, 44.2759, -135.951, -63.5672, 68.8915, -273.5
1.656, -1, -18.7064, 1.18249, 10.3385, -123.543, -83.2869, 142.693, 78.2777, 44.3432, -135.93, -63.5807, 68.9685, -273.486
1.66, -1, -18.6495, 1.17999, 10.3425, -123.516, -83.3317, 142.711, 78.2647, 44.4105, -135.91, -63.5943, 69.0455, -273.473
1.664, -1, -18.5927, 1.17749, 10.3465, -123.488, -83.3764, 142.728, 78.2516, 44.4779, -135.889, -63.6078, 69.1226, -273.46
1.668, -1, -18.5359, 1.17499, 10.3505, -123.461, -83.4212, 142.746, 78.2386, 44.5452, -135.868, -63.6214, 69.1997, -273.446
1.672, -1, -18.479, 1.17249, 10.3545, -123.433, -83.466, 142.763, 78.2256, 44.6126, -135.847, -63.6349, 69.2768, -273.433
1.676, -1, -18.4221, 1.16999, 10.3585, -123.406, -83.5108, 142.781, 78.2126, 44.68, -135.826, -63.6485, 69.3539, -273.42
1.68, -1, -18.3652, 1.16749, 10.3625, -123.379, -83.5556, 142.798, 78.1995, 44.7475, -135.805, -63.6621, 69.4311, -273.406
1.684, -1, -18.3082, 1.16499, 10.3665, -123.351, -83.6005, 142.816, 78.1865, 44.815, -135.784, -63.6757, 69.5082, -273.393
1.688, -1, -18.2513, 1.16248, 10.3704, -123.324, -83.6453, 142.833, 78.1734, 44.8824, -135.763, -63.6892, 69.5854, -273.38
1.692, -1, -18.1943, 1.15998, 10.3744, -123.296, -83.6902, 142.851, 78.1604, 44.95, -135.742, -63.7028, 69.6627, -273.366
1.696, -1, -18.1373, 1.15747, 10.3784, -123.269, -83.7351, 142.868, 78.1473, 45.0175, -135.721, -63.7164, 69.74, -273.353
1.7, -1, -18.0803, 1.15497, 10.3824, -123.241, -83.78, 142.886, 78.1343, 45.0851, -135.7, -63.73, 69.8173, -273.34
1.704, -1, -18.0233, 1.15246, 10.3864, -123.214, -83.8249, 142.903, 78.1212, 45.1526, -135.679, -63.7436, 69.8946, -273.326
1.708, -1, -17.9662, 1.14995, 10.3904, -123.186, -83.8699, 142.921, 78.1081, 45.2202, -135.658, -63.7572, 69.9719, -273.313
1.712, -1, -17.9091, 1.14744, 10.3944, -123.159, -83.9148, 142.939, 78.0951, 45.2879, -135.637, -63.7708, 70.0493, -273.3
1.716, -1, -17.852, 1.14493, 10.3984, -123.131, -83.9598, 142.956, 78.082, 45.3555, -135.616, -63.7845, 70.1267, -273.286
1.72, -1, -17.7949, 1.14242, 10.4024, -123.104, -84.0048, 142.974, 78.0689, 45.4232, -135.595, -63.7981, 70.2041, -273.273
1.724, -1, -17.7378, 1.13991, 10.4064, -123.076, -84.0498, 142.991, 78.0558, 45.4909, -135.574, -63.8117, 70.2816, -273.26
1.728, -1, -17.6806, 1.13739, 10.4104, -123.049, -84.0948, 143.009, 78.0427, 45.5587, -135.553, -63.8253, 70.3591, -273.246
1.732, -1, -17.6234, 1.13488, 10.4145, -123.021, -84.1398, 143.026, 78.0296, 45.6264, -135.532, -63.839, 70.4366, -273.233
1.736, -1, -17.5662, 1.13236, 10.4185, -122.994, -84.1849, 143.044, 78.0165, 45.6942, -135.51, -63.8526, 70.5142, -273.219
1.74, -1, -17.509, 1.12985, 10.4225, -122.966, -84.2299, 143.062, 78.0034, 45.762, -135.489, -63.8663, 70.5917, -273.206
1.744, -1, -17.4518, 1.12733, 10.4265, -122.939, -84.275, 143.079, 77.9903, 45.8298, -135.468, -63.8799, 70.6693, -273.193
1.748, -1, -17.3945, 1.12481, 10.4305, -122.911, -84.3201, 143.097, 77.9772, 45.8977, -135.447, -63.8936, 70.747, -273.179
1.752, -1, -17.3372, 1.1223, 10.4345, -122.884, -84.3652, 143.114, 77.9641, 45.9656, -135.426, -63.9072, 70.8246, -273.166
1.756, -1, -17.2799, 1.11978, 10.4385, -122.856, -84.4104, 143.132, 77.951, 46.0335, -135.405, -63.9209, 70.9023, -273.152
1.76, -1, -17.2226, 1.11726, 10.4426, -122.828, -84.4555, 143.15, 77.9378, 46.1014, -135.384, -63.9346, 70.98, -273.139
1.764, -1, -17.1652, 1.11473, 10.4466, -122.801, -84.5007, 143.167, 77.9247, 46.1693, -135.363, -63.9483, 71.0578, -273.126
1.768, -1, -17.1079, 1.11221, 10.4506, -122.773, -84.5459, 143.185, 77.9115, 46.2373, -135.342, -63.9619, 71.1355, -273.112
1.772, -1, -17.0505, 1.10969, 10.4546, -122.746, -84.5911, 143.203, 77.8984, 46.3053, -135.32, -63.9756, 71.2133, -273.099
1.776, -1, -16.9931, 1.10717, 10.4586, -122.718, -84.6363, 143.22, 77.8852, 46.3733, -135.299, -63.9893, 71.2912, -273.085
1.78, -1, -16.9356, 1.10464, 10.4627, -122.69, -84.6815, 143.238, 77.8721, 46.4414, -135.278, -64.003, 71.369, -273.072
1.784, -1, -16.8782, 1.10211, 10.4667, -122.663, -84.7267, 143.256, 77.8589, 46.5095, -135.257, -64.0167, 71.4469, -273.058
1.788, -1, -16.8207, 1.09959, 10.4707, -122.635, -84.772, 143.273, 77.8458, 46.5776, -135.236, -64.0304, 71.5248, -273.045
1.792, -1, -16.7632, 1.09706, 10.4748, -122.607, -84.8173, 143.291, 77.8326, 46.6457, -135.215, -64.0441, 71.6028, -273.031
1.796, -1, -16.7057, 1.09453, 10.4788, -122.58, -84.8626, 143.309, 77.8194, 46.7139, -135.193, -64.0578, 71.6807, -273.018
1.8, -1, -16.6482, 1.092, 10.4828, -122.552, -84.9079, 143.326, 77.8062, 46.782, -135.172, -64.0716, 71.7587, -273.004
1.804, -1, -16.5906, 1.08947, 10.4869, -122.524, -84.9532, 143.344, 77.7931, 46.8502, -135.151, -64.0853, 71.8368, -272.991
1.808, -1, -16.533, 1.08694, 10.4909, -122.496, -84.9986, 143.362, 77.7799, 46.9185, -135.13, -64.099, 71.9148, -272.978
1.812, -1, -16.4754, 1.08441, 10.4949, -122.469, -85.0439, 143.38, 77.7667, 46.9867, -135.109, -64.1128, 71.9929, -272.964
1.816, -1, -16.4178, 1.08187, 10.499, -122.441, -85.0893, 143.397, 77.7535, 47.055, -135.087, -64.1265, 72.071, -272.951
1.82, -1, -16.3602, 1.07934, 10.503, -122.413, -85.1347, 143.415, 77.7403, 47.1233, -135.066, -64.1402, 72.1492, -272.937
1.824, -1, -16.3025, 1.0768, 10.507, -122.385, -85.1801, 143.433, 77.7271, 47.1916, -135.045, -64.154, 72.2273, -272.924
1.828, -1, -16.2448, 1.07427, 10.5111, -122.358, -85.2256, 143.451, 77.7139, 47.26, -135.024, -64.1678, 72.3055, -272.91
1.832, -1, -16.1871, 1.07173, 10.5151, -122.33, -85.271, 143.468, 77.7006, 47.3284, -135.002, -64.1815, 72.3838, -272.897
1.836, -1, -16.1294, 1.06919, 10.5192, -122.302, -85.3165, 143.486, 77.6874, 47.3968, -134.981, -64.1953, 72.462, -272.883
1.84, -1, -16.0716, 1.06665, 10.5232, -122.274, -85.362, 143.504, 77.6742, 47.4652, -134.96, -64.2091, 72.5403, -272.869
1.844, -1, -16.0139, 1.06411, 10.5273, -122.246, -85.4075, 143.522, 77.6609, 47.5336, -134.939, -64.2228, 72.6186, -272.856
1.848, -1, -15.9561, 1.06157, 10.5313, -122.219, -85.453, 143.539, 77.6477, 47.6021, -134.917, -64.2366, 72.697, -272.842
1.852, -1, -15.8983, 1.05903, 10.5354, -122.191, -85.4985, 143.557, 77.6345, 47.6706, -134.896, -64.2504, 72.7754, -272.829
1.856, -1, -15.8404, 1.05649, 10.5394, -122.163, -85.5441, 143.575, 77.6212, 47.7392, -134.875, -64.2642, 72.8538, -272.815
1.86, -1, -15.7826, 1.05394, 10.5435, -122.135, -85.5896, 143.593, 77.608, 47.8077, -134.853, -64.278, 72.9322, -272.802
1.864, -1, -15.7247, 1.0514, 10.5476, -122.107, -85.6352, 143.611, 77.5947, 47.8763, -134.832, -64.2918, 73.0107, -272.788
1.868, -1, -15.6668, 1.04885, 10.5516, -122.079, -85.6808, 143.628, 77.5814, 47.9449, -134.811, -64.3056, 73.0892, -272.775
1.872, -1, -15.6089, 1.04631, 10.5557, -122.051, -85.7264, 143.646, 77.5682, 48.0135, -134.789, -64.3194, 73.1677, -272.761
1.876, -1, -15.5509, 1.04376, 10.5597, -122.023, -85.7721, 143.664, 77.5549, 48.0822, -134.768, -64.3332, 73.2463, -272.748
1.88, -1, -15.4929, 1.04121, 10.5638, -121.996, -85.8177, 143.682, 77.5416, 48.1509, -134.747, -64.3471, 73.3248, -272.734
1.884, -1, -15.435, 1.03866, 10.5679, -121.968, -85.8634, 143.7, 77.5283, 48.2196, -134.725, -64.3609, 73.4035, -272.72
1.888, -1, -15.3769, 1.03611, 10.5719, -121.94, -85.9091, 143.718, 77.5151, 48.2884, -134.704, -64.3747, 73.4821, -272.707
1.892, -1, -15.3189, 1.03356, 10.576, -121.912, -85.9548, 143.735, 77.5018, 48.3571, -134.683, -64.3886, 73.5608, -272.693
1.896, -1, -15.2608, 1.03101, 10.5801, -121.884, -86.0005, 143.753, 77.4885, 48.4259, -134.661, -64.4024, 73.6395, -272.68
1.9, -1, -15.2028, 1.02845, 10.5841, -121.856, -86.0462, 143.771, 77.4752, 48.4947, -134.64, -64.4163, 73.7182, -272.666
1.904, -1, -15.1447, 1.0259, 10.5882, -121.828, -86.092, 143.789, 77.4618, 48.5636, -134.618, -64.4301, 73.797, -272.652
1.908, -1, -15.0865, 1.02334, 10.5923, -121.8, -86.1378, 143.807, 77.4485, 48.6325, -134.597, -64.444, 73.8758, -272.639
1.912, -1, -15.0284, 1.02079, 10.5964, -121.772, -86.1836, 143.825, 77.4352, 48.7014, -134.576, -64.4579, 73.9546, -272.625
1.916, -1, -14.9702, 1.01823, 10.6004, -121.744, -86.2294, 143.843, 77.4219, 48.7703, -134.554, -64.4717, 74.0335, -272.612
1.92, -1, -14.912, 1.01567, 10.6045, -121.716, -86.2752, 143.861, 77.4086, 48.8392, -134.533, -64.4856, 74.1124, -272.598
1.924, -1, -14.8538, 1.01311, 10.6086, -121.688, -86.3211, 143.878, 77.3952, 48.9082, -134.511, -64.4995, 74.1913, -272.584
1.928, -1, -14.7956, 1.01055, 10.6127, -121.66, -86.3669, 143.896, 77.3819, 48.9772, -134.49, -64.5134, 74.2702, -272.571
1.932, -1, -14.7373, 1.00799, 10.6168, -121.632, -86.4128, 143.914, 77.3685, 49.0463, -134.468, -64.5273, 74.3492, -272.557
1.936, -1, -14.679, 1.00543, 10.6209, -121.604, -86.4587, 143.932, 77.3552, 49.1153, -134.447, -64.5412, 74.4282, -272.543
1.94, -1, -14.6207, 1.00286, 10.6249, -121.576, -86.5046, 143.95, 77.3418, 49.1844, -134.425, -64.5551, 74.5073, -272.53
1.944, -1, -14.5624, 1.0003, 10.629, -121.548, -86.5506, 143.968, 77.3285, 49.2535, -134.404, -64.569, 74.5863, -272.516
1.948, -1, -14.5041, 0.997733, 10.6331, -121.519, -86.5965, 143.986, 77.3151, 49.3227, -134.382, -64.5829, 74.6655, -272.502
1.952, -1, -14.4457, 0.995166, 10.6372, -121.491, -86.6425, 144.004, 77.3017, 49.3918, -134.361, -64.5968, 74.7446, -272.489
1.956, -1, -14.3873, 0.992599, 10.6413, -121.463, -86.6885, 144.022, 77.2884, 49.461, -134.339, -64.6107, 74.8238, -272.475
1.96, -1, -14.3289, 0.99003, 10.6454, -121.435, -86.7345, 144.04, 77.275, 49.5303, -134.318, -64.6247, 74.903, -272.461
1.964, -1, -14.2704, 0.987461, 10.6495, -121.407, -86.7805, 144.058, 77.2616, 49.5995, -134.296, -64.6386, 74.9822, -272.448
1.968, -1, -14.212, 0.98489, 10.6536, -121.379, -86.8266, 144.076, 77.2482, 49.6688, -134.275, -64.6526, 75.0614, -272.434
1.972, -1, -14.1535, 0.982319, 10.6577, -121.351, -86.8726, 144.094, 77.2348, 49.7381, -134.253, -64.6665, 75.1407, -272.42
1.976, -1, -14.0949, 0.979746, 10.6618, -121.322, -86.9187, 144.112, 77.2214, 49.8074, -134.232, -64.6805, 75.2201, -272.407
1.98, -1, -14.0364, 0.977173, 10.6659, -121.294, -86.9648, 144.13, 77.208, 49.8768, -134.21, -64.6944, 75.2994, -272.393
1.984, -1, -13.9779, 0.974598, 10.67, -121.266, -87.0109, 144.148, 77.1946, 49.9462, -134.188, -64.7084, 75.3788, -272.379
1.988, -1, -13.9193, 0.972022, 10.6741, -121.238, -87.0571, 144.166, 77.1811, 50.0156, -134.167, -64.7224, 75.4582, -272.366
1.992, -1, -13.8607, 0.969446, 10.6782, -121.21, -87.1032, 144.184, 77.1677, 50.085, -134.145, -64.7363, 75.5377, -272.352
1.996, -1, -13.802, 0.966868, 10.6823, -121.181, -87.1494, 144.202, 77.1543, 50.1545, -134.124, -64.7503, 75.6171, -272.338
1.999, -1, -13.7434, 0.96429, 10.6864, -121.153, -87.1956, 144.22, 77.1409, 50.224, -134.102, -64.7643, 75.6967, -272.324
2.004, -1, -13.6847, 0.96171, 10.6906, -121.125, -87.2418, 144.238, 77.1274, 50.2935, -134.081, -64.7783, 75.7762, -272.311
2.008, -1, -13.626, 0.959129, 10.6947, -121.097, -87.288, 144.256, 77.114, 50.3631, -134.059, -64.7923, 75.8558, -272.297
2.012, -1, -13.5673, 0.956547, 10.6988, -121.068, -87.3343, 144.274, 77.1005, 50.4327, -134.037, -64.8063, 75.9354, -272.283
2.015, -1, -13.5085, 0.953965, 10.7029, -121.04, -87.3806, 144.292, 77.0871, 50.5023, -134.016, -64.8203, 76.015, -272.269
2.019, -1, -13.4498, 0.951381, 10.707, -121.012, -87.4268, 144.31, 77.0736, 50.5719, -133.994, -64.8343, 76.0947, -272.256
2.024, -1, -13.391, 0.948796, 10.7111, -120.983, -87.4731, 144.329, 77.0601, 50.6416, -133.972, -64.8484, 76.1744, -272.242
2.028, -1, -13.3322, 0.94621, 10.7153, -120.955, -87.5195, 144.347, 77.0467, 50.7113, -133.951, -64.8624, 76.2541, -272.228
2.031, -1, -13.2733, 0.943623, 10.7194, -120.927, -87.5658, 144.365, 77.0332, 50.781, -133.929, -64.8764, 76.3339, -272.214
2.036, -1, -13.2145, 0.941035, 10.7235, -120.898, -87.6122, 144.383, 77.0197, 50.8507, -133.907, -64.8904, 76.4137, -272.2
2.04, -1, -13.1556, 0.938446, 10.7276, -120.87, -87.6585, 144.401, 77.0062, 50.9205, -133.886, -64.9045, 76.4935, -272.187
2.044, -1, -13.0967, 0.935856, 10.7318, -120.842, -87.7049, 144.419, 76.9927, 50.9903, -133.864, -64.9185, 76.5734, -272.173
2.048, -1, -13.0377, 0.933265, 10.7359, -120.813, -87.7514, 144.437, 76.9792, 51.0602, -133.842, -64.9326, 76.6533, -272.159
2.051, -1, -12.9788, 0.930672, 10.74, -120.785, -87.7978, 144.455, 76.9657, 51.13, -133.82, -64.9466, 76.7332, -272.145
2.055, -1, -12.9198, 0.928079, 10.7442, -120.757, -87.8442, 144.473, 76.9522, 51.1999, -133.799, -64.9607, 76.8132, -272.132
2.06, -1, -12.8608, 0.925485, 10.7483, -120.728, -87.8907, 144.492, 76.9387, 51.2698, -133.777, -64.9748, 76.8932, -272.118
2.064, -1, -12.8018, 0.92289, 10.7524, -120.7, -87.9372, 144.51, 76.9251, 51.3398, -133.755, -64.9889, 76.9732, -272.104
2.068, -1, -12.7427, 0.920293, 10.7566, -120.671, -87.9837, 144.528, 76.9116, 51.4098, -133.733, -65.003, 77.0533, -272.09
2.071, -1, -12.6836, 0.917696, 10.7607, -120.643, -88.0302, 144.546, 76.8981, 51.4798, -133.712, -65.017, 77.1333, -272.076
2.076, -1, -12.6245, 0.915097, 10.7649, -120.614, -88.0768, 144.564, 76.8846, 51.5498, -133.69, -65.0311, 77.2135, -272.062
2.08, -1, -12.5654, 0.912498, 10.769, -120.586, -88.1233, 144.583, 76.871, 51.6199, -133.668, -65.0452, 77.2936, -272.048
2.084, -1, -12.5063, 0.909897, 10.7732, -120.557, -88.1699, 144.601, 76.8575, 51.6899, -133.646, -65.0593, 77.3738, -272.035
2.087, -1, -12.4471, 0.907295, 10.7773, -120.529, -88.2165, 144.619, 76.8439, 51.7601, -133.625, -65.0735, 77.454, -272.021
2.092, -1, -12.3879, 0.904693, 10.7815, -120.5, -88.2631, 144.637, 76.8303, 51.8302, -133.603, -65.0876, 77.5343, -272.007
2.096, -1, -12.3287, 0.902089, 10.7856, -120.472, -88.3098, 144.655, 76.8168, 51.9004, -133.581, -65.1017, 77.6146, -271.993
2.1, -1, -12.2694, 0.899484, 10.7898, -120.443, -88.3565, 144.674, 76.8032, 51.9706, -133.559, -65.1158, 77.6949, -271.979
2.104, -1, -12.2101, 0.896878, 10.7939, -120.415, -88.4031, 144.692, 76.7896, 52.0408, -133.537, -65.13, 77.7752, -271.965
2.107, -1, -12.1508, 0.894271, 10.7981, -120.386, -88.4498, 144.71, 76.776, 52.1111, -133.515, -65.1441, 77.8556, -271.951
2.111, -1, -12.0915, 0.891663, 10.8022, -120.358, -88.4966, 144.728, 76.7625, 52.1814, -133.494, -65.1582, 77.936, -271.938
2.116, -1, -12.0322, 0.889054, 10.8064, -120.329, -88.5433, 144.747, 76.7489, 52.2517, -133.472, -65.1724, 78.0165, -271.924
2.12, -1, -11.9728, 0.886443, 10.8106, -120.301, -88.59, 144.765, 76.7353, 52.322, -133.45, -65.1866, 78.097, -271.91
2.124, -1, -11.9134, 0.883832, 10.8147, -120.272, -88.6368, 144.783, 76.7216, 52.3924, -133.428, -65.2007, 78.1775, -271.896
2.127, -1, -11.854, 0.88122, 10.8189, -120.243, -88.6836, 144.801, 76.708, 52.4628, -133.406, -65.2149, 78.258, -271.882
2.132, -1, -11.7946, 0.878606, 10.823, -120.215, -88.7304, 144.82, 76.6944, 52.5333, -133.384, -65.2291, 78.3386, -271.868
2.136, -1, -11.7351, 0.875992, 10.8272, -120.186, -88.7773, 144.838, 76.6808, 52.6037, -133.362, -65.2432, 78.4193, -271.854
2.14, -1, -11.6756, 0.873376, 10.8314, -120.157, -88.8241, 144.856, 76.6672, 52.6742, -133.34, -65.2574, 78.4999, -271.84
2.143, -1, -11.6161, 0.870759, 10.8356, -120.129, -88.871, 144.875, 76.6535, 52.7447, -133.318, -65.2716, 78.5806, -271.826
2.148, -1, -11.5565, 0.868141, 10.8397, -120.1, -88.9179, 144.893, 76.6399, 52.8153, -133.296, -65.2858, 78.6613, -271.812
2.152, -1, -11.497, 0.865523, 10.8439, -120.071, -88.9648, 144.911, 76.6262, 52.8859, -133.275, -65.3, 78.7421, -271.798
2.156, -1, -11.4374, 0.862902, 10.8481, -120.043, -89.0117, 144.93, 76.6126, 52.9565, -133.253, -65.3143, 78.8228, -271.784
2.16, -1, -11.3778, 0.860281, 10.8523, -120.014, -89.0587, 144.948, 76.5989, 53.0271, -133.231, -65.3285, 78.9037, -271.77
2.163, -1, -11.3181, 0.857659, 10.8564, -119.985, -89.1057, 144.966, 76.5853, 53.0978, -133.209, -65.3427, 78.9845, -271.756
2.168, -1, -11.2585, 0.855036, 10.8606, -119.957, -89.1526, 144.985, 76.5716, 53.1685, -133.187, -65.3569, 79.0654, -271.742
2.172, -1, -11.1988, 0.852411, 10.8648, -119.928, -89.1997, 145.003, 76.5579, 53.2392, -133.165, -65.3712, 79.1463, -271.729
2.176, -1, -11.1391, 0.849786, 10.869, -119.899, -89.2467, 145.021, 76.5443, 53.31, -133.143, -65.3854, 79.2273, -271.715
2.179, -1, -11.0793, 0.847159, 10.8732, -119.87, -89.2937, 145.04, 76.5306, 53.3808, -133.121, -65.3996, 79.3083, -271.701
2.184, -1, -11.0195, 0.844531, 10.8774, -119.842, -89.3408, 145.058, 76.5169, 53.4516, -133.099, -65.4139, 79.3893, -271.687
2.188, -1, -10.9598, 0.841903, 10.8816, -119.813, -89.3879, 145.076, 76.5032, 53.5224, -133.077, -65.4282, 79.4703, -271.673
2.192, -1, -10.8999, 0.839273, 10.8858, -119.784, -89.435, 145.095, 76.4895, 53.5933, -133.055, -65.4424, 79.5514, -271.659
2.196, -1, -10.8401, 0.836642, 10.89, -119.755, -89.4821, 145.113, 76.4758, 53.6642, -133.033, -65.4567, 79.6326, -271.645
2.199, -1, -10.7802, 0.834009, 10.8941, -119.726, -89.5293, 145.132, 76.4621, 53.7352, -133.01, -65.471, 79.7137, -271.63
2.204, -1, -10.7203, 0.831376, 10.8983, -119.698, -89.5764, 145.15, 76.4483, 53.8061, -132.988, -65.4853, 79.7949, -271.616
2.208, -1, -10.6604, 0.828742, 10.9025, -119.669, -89.6236, 145.169, 76.4346, 53.8771, -132.966, -65.4995, 79.8761, -271.602
2.212, -1, -10.6005, 0.826106, 10.9067, -119.64, -89.6709, 145.187, 76.4209, 53.9482, -132.944, -65.5138, 79.9574, -271.588
2.216, -1, -10.5405, 0.82347, 10.911, -119.611, -89.7181, 145.205, 76.4071, 54.0192, -132.922, -65.5281, 80.0387, -271.574
2.219, -1, -10.4805, 0.820832, 10.9152, -119.582, -89.7653, 145.224, 76.3934, 54.0903, -132.9, -65.5424, 80.12, -271.56
2.224, -1, -10.4205, 0.818193, 10.9194, -119.553, -89.8126, 145.242, 76.3796, 54.1614, -132.878, -65.5568, 80.2014, -271.546
2.228, -1, -10.3604, 0.815553, 10.9236, -119.524, -89.8599, 145.261, 76.3659, 54.2326, -132.856, -65.5711, 80.2828, -271.532
2.232, -1, -10.3004, 0.812912, 10.9278, -119.495, -89.9072, 145.279, 76.3521, 54.3038, -132.834, -65.5854, 80.3642, -271.518
2.235, -1, -10.2403, 0.810269, 10.932, -119.466, -89.9545, 145.298, 76.3384, 54.375, -132.812, -65.5997, 80.4457, -271.504
2.24, -1, -10.1802, 0.807626, 10.9362, -119.437, -90.0019, 145.316, 76.3246, 54.4462, -132.789, -65.6141, 80.5272, -271.49
2.244, -1, -10.12, 0.804981, 10.9404, -119.408, -90.0492, 145.335, 76.3108, 54.5175, -132.767, -65.6284, 80.6088, -271.476
2.248, -1, -10.0598, 0.802336, 10.9446, -119.379, -90.0966, 145.353, 76.297, 54.5888, -132.745, -65.6428, 80.6903, -271.462
2.252, -1, -9.99963, 0.799689, 10.9489, -119.35, -90.1441, 145.372, 76.2832, 54.6601, -132.723, -65.6571, 80.7719, -271.448
2.255, -1, -9.9394, 0.797041, 10.9531, -119.321, -90.1915, 145.39, 76.2694, 54.7315, -132.701, -65.6715, 80.8536, -271.434
2.259, -1, -9.87915, 0.794392, 10.9573, -119.292, -90.2389, 145.409, 76.2556, 54.8029, -132.679, -65.6859, 80.9353, -271.419
2.264, -1, -9.81887, 0.791741, 10.9615, -119.263, -90.2864, 145.427, 76.2418, 54.8743, -132.656, -65.7002, 81.017, -271.405
2.268, -1, -9.75857, 0.78909, 10.9658, -119.234, -90.3339, 145.446, 76.228, 54.9458, -132.634, -65.7146, 81.0988, -271.391
2.272, -1, -9.69823, 0.786438, 10.97, -119.205, -90.3814, 145.465, 76.2142, 55.0173, -132.612, -65.729, 81.1805, -271.377
2.275, -1, -9.63788, 0.783784, 10.9742, -119.176, -90.429, 145.483, 76.2004, 55.0888, -132.59, -65.7434, 81.2624, -271.363
2.28, -1, -9.57749, 0.781129, 10.9785, -119.147, -90.4765, 145.502, 76.1865, 55.1603, -132.567, -65.7578, 81.3442, -271.349
2.284, -1, -9.51709, 0.778473, 10.9827, -119.118, -90.5241, 145.52, 76.1727, 55.2319, -132.545, -65.7722, 81.4261, -271.335
2.288, -1, -9.45665, 0.775816, 10.9869, -119.089, -90.5717, 145.539, 76.1588, 55.3035, -132.523, -65.7866, 81.508, -271.321
2.291, -1, -9.39619, 0.773157, 10.9912, -119.06, -90.6193, 145.557, 76.145, 55.3752, -132.501, -65.801, 81.59, -271.306
2.296, -1, -9.3357, 0.770498, 10.9954, -119.031, -90.6669, 145.576, 76.1311, 55.4468, -132.478, -65.8155, 81.672, -271.292
2.3, -1, -9.27518, 0.767837, 10.9996, -119.002, -90.7146, 145.595, 76.1173, 55.5186, -132.456, -65.8299, 81.7541, -271.278
2.304, -1, -9.21464, 0.765175, 11.0039, -118.973, -90.7623, 145.613, 76.1034, 55.5903, -132.434, -65.8443, 81.8361, -271.264
2.308, -1, -9.15407, 0.762512, 11.0081, -118.943, -90.81, 145.632, 76.0895, 55.6621, -132.411, -65.8588, 81.9182, -271.25
2.311, -1, -9.09348, 0.759848, 11.0124, -118.914, -90.8577, 145.651, 76.0756, 55.7339, -132.389, -65.8732, 82.0004, -271.236
2.316, -1, -9.03285, 0.757183, 11.0166, -118.885, -90.9054, 145.669, 76.0618, 55.8057, -132.367, -65.8877, 82.0826, -271.221
2.32, -1, -8.9722, 0.754516, 11.0209, -118.856, -90.9532, 145.688, 76.0479, 55.8776, -132.344, -65.9022, 82.1648, -271.207
2.324, -1, -8.91153, 0.751848, 11.0251, -118.827, -91.001, 145.707, 76.034, 55.9495, -132.322, -65.9166, 82.247, -271.193
2.328, -1, -8.85083, 0.749179, 11.0294, -118.797, -91.0488, 145.725, 76.0201, 56.0214, -132.3, -65.9311, 82.3293, -271.179
2.331, -1, -8.7901, 0.746509, 11.0337, -118.768, -91.0966, 145.744, 76.0061, 56.0933, -132.277, -65.9456, 82.4117, -271.165
2.336, -1, -8.72934, 0.743838, 11.0379, -118.739, -91.1445, 145.763, 75.9922, 56.1653, -132.255, -65.9601, 82.494, -271.15
2.34, -1, -8.66856, 0.741165, 11.0422, -118.71, -91.1924, 145.781, 75.9783, 56.2374, -132.233, -65.9746, 82.5764, -271.136
2.344, -1, -8.60774, 0.738492, 11.0464, -118.68, -91.2402, 145.8, 75.9644, 56.3094, -132.21, -65.9891, 82.6589, -271.122
2.347, -1, -8.54691, 0.735817, 11.0507, -118.651, -91.2882, 145.819, 75.9504, 56.3815, -132.188, -66.0036, 82.7413, -271.108
2.352, -1, -8.48604, 0.733141, 11.055, -118.622, -91.3361, 145.837, 75.9365, 56.4536, -132.165, -66.0181, 82.8239, -271.093
2.356, -1, -8.42515, 0.730463, 11.0592, -118.592, -91.384, 145.856, 75.9225, 56.5258, -132.143, -66.0326, 82.9064, -271.079
2.36, -1, -8.36423, 0.727785, 11.0635, -118.563, -91.432, 145.875, 75.9086, 56.598, -132.12, -66.0471, 82.989, -271.065
2.364, -1, -8.30328, 0.725105, 11.0678, -118.534, -91.48, 145.894, 75.8946, 56.6702, -132.098, -66.0617, 83.0716, -271.051
2.367, -1, -8.2423, 0.722424, 11.0721, -118.504, -91.528, 145.912, 75.8807, 56.7424, -132.076, -66.0762, 83.1543, -271.036
2.372, -1, -8.1813, 0.719742, 11.0763, -118.475, -91.5761, 145.931, 75.8667, 56.8147, -132.053, -66.0908, 83.237, -271.022
2.376, -1, -8.12027, 0.717059, 11.0806, -118.446, -91.6242, 145.95, 75.8527, 56.887, -132.031, -66.1053, 83.3197, -271.008
2.38, -1, -8.05921, 0.714374, 11.0849, -118.416, -91.6722, 145.969, 75.8387, 56.9594, -132.008, -66.1199, 83.4025, -270.993
2.383, -1, -7.99813, 0.711688, 11.0892, -118.387, -91.7204, 145.988, 75.8247, 57.0318, -131.986, -66.1345, 83.4853, -270.979
2.388, -1, -7.93701, 0.709001, 11.0935, -118.357, -91.7685, 146.006, 75.8107, 57.1042, -131.963, -66.149, 83.5682, -270.965
2.392, -1, -7.87587, 0.706313, 11.0977, -118.328, -91.8166, 146.025, 75.7967, 57.1766, -131.941, -66.1636, 83.651, -270.95
2.396, -1, -7.8147, 0.703624, 11.102, -118.298, -91.8648, 146.044, 75.7827, 57.2491, -131.918, -66.1782, 83.734, -270.936
2.4, -1, -7.7535, 0.700933, 11.1063, -118.269, -91.913, 146.063, 75.7687, 57.3216, -131.895, -66.1928, 83.8169, -270.922
2.403, -1, -7.69228, 0.698241, 11.1106, -118.239, -91.9612, 146.082, 75.7546, 57.3942, -131.873, -66.2074, 83.8999, -270.907
2.408, -1, -7.63103, 0.695548, 11.1149, -118.21, -92.0095, 146.101, 75.7406, 57.4668, -131.85, -66.222, 83.983, -270.893
2.412, -1, -7.56974, 0.692854, 11.1192, -118.18, -92.0577, 146.119, 75.7266, 57.5394, -131.828, -66.2366, 84.066, -270.879
2.416, -1, -7.50843, 0.690158, 11.1235, -118.151, -92.106, 146.138, 75.7125, 57.612, -131.805, -66.2512, 84.1492, -270.864
2.42, -1, -7.4471, 0.687461, 11.1278, -118.121, -92.1543, 146.157, 75.6985, 57.6847, -131.783, -66.2659, 84.2323, -270.85
2.423, -1, -7.38573, 0.684763, 11.1321, -118.092, -92.2027, 146.176, 75.6844, 57.7574, -131.76, -66.2805, 84.3155, -270.836
2.428, -1, -7.32434, 0.682064, 11.1364, -118.062, -92.251, 146.195, 75.6704, 57.8302, -131.737, -66.2951, 84.3987, -270.821
2.432, -1, -7.26292, 0.679363, 11.1407, -118.033, -92.2994, 146.214, 75.6563, 57.903, -131.715, -66.3098, 84.482, -270.807
2.436, -1, -7.20146, 0.676661, 11.145, -118.003, -92.3478, 146.233, 75.6422, 57.9758, -131.692, -66.3244, 84.5653, -270.793
2.439, -1, -7.13999, 0.673958, 11.1493, -117.974, -92.3962, 146.252, 75.6281, 58.0486, -131.669, -66.3391, 84.6487, -270.778
2.444, -1, -7.07848, 0.671254, 11.1536, -117.944, -92.4446, 146.27, 75.614, 58.1215, -131.647, -66.3538, 84.732, -270.764
2.448, -1, -7.01694, 0.668548, 11.1579, -117.914, -92.4931, 146.289, 75.5999, 58.1944, -131.624, -66.3685, 84.8155, -270.749
2.452, -1, -6.95538, 0.665841, 11.1623, -117.885, -92.5416, 146.308, 75.5858, 58.2674, -131.601, -66.3831, 84.8989, -270.735
2.456, -1, -6.89378, 0.663133, 11.1666, -117.855, -92.5901, 146.327, 75.5717, 58.3403, -131.579, -66.3978, 84.9824, -270.721
2.459, -1, -6.83216, 0.660424, 11.1709, -117.825, -92.6386, 146.346, 75.5576, 58.4134, -131.556, -66.4125, 85.066, -270.706
2.464, -1, -6.77051, 0.657713, 11.1752, -117.796, -92.6872, 146.365, 75.5435, 58.4864, -131.533, -66.4272, 85.1495, -270.692
2.468, -1, -6.70883, 0.655001, 11.1795, -117.766, -92.7358, 146.384, 75.5293, 58.5595, -131.511, -66.4419, 85.2332, -270.677
2.472, -1, -6.64712, 0.652288, 11.1839, -117.736, -92.7843, 146.403, 75.5152, 58.6326, -131.488, -66.4566, 85.3168, -270.663
2.476, -1, -6.58538, 0.649574, 11.1882, -117.707, -92.833, 146.422, 75.5011, 58.7058, -131.465, -66.4714, 85.4005, -270.648
2.479, -1, -6.52361, 0.646858, 11.1925, -117.677, -92.8816, 146.441, 75.4869, 58.779, -131.442, -66.4861, 85.4842, -270.634
2.484, -1, -6.46182, 0.644141, 11.1969, -117.647, -92.9303, 146.46, 75.4728, 58.8522, -131.42, -66.5008, 85.568, -270.619
2.488, -1, -6.4001, 0.641428, 11.2012, -117.617, -92.979, 146.479, 75.4586, 58.9254, -131.397, -66.5156, 85.6518, -270.605
2.492, -1, -6.33878, 0.638741, 11.2055, -117.587, -93.0277, 146.498, 75.4444, 58.9987, -131.374, -66.5303, 85.7357, -270.59
2.495, -1, -6.27831, 0.636112, 11.2096, -117.558, -93.0764, 146.517, 75.4302, 59.0721, -131.351, -66.5451, 85.8196, -270.576
2.5, -1, -6.21905, 0.633575, 11.2137, -117.528, -93.125, 146.536, 75.4161, 59.1454, -131.328, -66.5599, 85.9035, -270.561
2.504, -1, -6.1612, 0.631154, 11.2175, -117.498, -93.1735, 146.555, 75.402, 59.2185, -131.306, -66.5746, 85.9874, -270.547
2.508, -1, -6.10485, 0.628858, 11.2211, -117.469, -93.2216, 146.574, 75.3881, 59.2911, -131.284, -66.5894, 86.0713, -270.532
2.512, -1, -6.05009, 0.626691, 11.2246, -117.44, -93.2692, 146.593, 75.3746, 59.3627, -131.263, -66.6043, 86.1549, -270.518
2.515, -1, -5.99687, 0.624644, 11.2278, -117.411, -93.3161, 146.611, 75.3615, 59.4328, -131.243, -66.6191, 86.2378, -270.504
2.52, -1, -5.94511, 0.622701, 11.2309, -117.383, -93.3619, 146.629, 75.3489, 59.5011, -131.224, -66.6337, 86.3197, -270.489
2.524, -1, -5.89489, 0.620848, 11.2338, -117.356, -93.4063, 146.646, 75.337, 59.567, -131.207, -66.6481, 86.3997, -270.476
2.528, -1, -5.84654, 0.619088, 11.2366, -117.329, -93.4491, 146.663, 75.3258, 59.63, -131.19, -66.6621, 86.477, -270.462
2.531, -1, -5.80055, 0.617435, 11.2392, -117.304, -93.4898, 146.679, 75.3151, 59.6901, -131.175, -66.6755, 86.5508, -270.449
2.536, -1, -5.75735, 0.615902, 11.2416, -117.281, -93.5282, 146.694, 75.3049, 59.7469, -131.16, -66.688, 86.6202, -270.437
2.54, -1, -5.7171, 0.614479, 11.2439, -117.259, -93.564, 146.708, 75.2952, 59.8001, -131.146, -66.6995, 86.6844, -270.426
2.544, -1, -5.67968, 0.61313, 11.246, -117.239, -93.5969, 146.721, 75.2861, 59.8492, -131.132, -66.7099, 86.7427, -270.416
2.548, -1, -5.64482, 0.611807, 11.2482, -117.221, -93.6266, 146.732, 75.2777, 59.8938, -131.119, -66.7192, 86.795, -270.407
2.551, -1, -5.61236, 0.610478, 11.2503, -117.204, -93.6531, 146.743, 75.2701, 59.9336, -131.107, -66.7273, 86.8408, -270.399
2.556, -1, -5.58226, 0.609136, 11.2525, -117.19, -93.6762, 146.752, 75.2633, 59.9684, -131.096, -66.7342, 86.8801, -270.392
2.56, -1, -5.55454, 0.607785, 11.2547, -117.178, -93.6959, 146.76, 75.2573, 59.9983, -131.086, -66.7399, 86.9132, -270.387
2.564, -1, -5.52932, 0.606448, 11.2569, -117.168, -93.7126, 146.766, 75.2522, 60.0235, -131.077, -66.7445, 86.94, -270.382
2.568, -1, -5.50682, 0.605168, 11.2591, -117.16, -93.7262, 146.771, 75.2476, 60.0444, -131.068, -66.748, 86.9612, -270.378
2.571, -1, -5.48725, 0.603988, 11.261, -117.153, -93.7372, 146.776, 75.2437, 60.0616, -131.06, -66.7505, 86.9771, -270.376
2.576, -1, -5.47057, 0.602931, 11.2628, -117.148, -93.7458, 146.779, 75.2403, 60.0755, -131.053, -66.7522, 86.9885, -270.374
2.58, -1, -5.45646, 0.601991, 11.2644, -117.144, -93.7524, 146.782, 75.2373, 60.0865, -131.046, -66.7532, 86.9963, -270.373
2.584, -1, -5.44444, 0.601152, 11.2658, -117.141, -93.7572, 146.783, 75.2349, 60.0949, -131.04, -66.7537, 87.0011, -270.372
2.587, -1, -5.43408, 0.600402, 11.2671, -117.139, -93.7606, 146.785, 75.2331, 60.1008, -131.036, -66.7539, 87.0039, -270.371
2.592, -1, -5.4252, 0.599747, 11.2682, -117.138, -93.7629, 146.786, 75.2318, 60.1048, -131.033, -66.754, 87.0054, -270.371
2.596, -1, -5.4178, 0.599199, 11.2691, -117.137, -93.7643, 146.786, 75.231, 60.1072, -131.03, -66.7539, 87.006, -270.371
2.6, -1, -5.41193, 0.598768, 11.2699, -117.137, -93.7651, 146.786, 75.2306, 60.1085, -131.029, -66.7539, 87.0063, -270.371
2.604, -1, -5.40755, 0.598452, 11.2704, -117.136, -93.7655, 146.786, 75.2304, 60.109, -131.029, -66.7539, 87.0064, -270.371
2.607, -1, -5.40454, 0.598243, 11.2708, -117.136, -93.7657, 146.787, 75.2303, 60.1092, -131.029, -66.7539, 87.0064, -270.371
2.612, -1, -5.40276, 0.598126, 11.271, -117.136, -93.7658, 146.787, 75.2303, 60.1092, -131.028, -66.7539, 87.0064, -270.371
2.616, 2, -5.40196, 0.598076, 11.2711, -117.136, -93.7658, 146.787, 75.2303, 60.1092, -131.028, -66.7539, 87.0064, -270.371
2.62, 2, -5.40172, 0.598063, 11.2711, -117.136, -93.7658, 146.787, 75.2303, 60.1092, -131.028, -66.7539, 87.0064, -270.371
2.624, 2, -5.40169, 0.598061, 11.2711, -117.136, -93.7658, 146.787, 75.2303, 60.1092, -131.028, -66.7539, 87.0064, -270.371
2.627, 2, -5.40169, 0.598061, 11.2711, -117.136, -93.7658, 146.787, 75.2303, 60.1092, -131.028, -66.7539, 87.0064, -270.371
2.632, 2, -5.40169, 0.598061, 11.2711, -117.136, -93.7658, 146.787, 75.2303, 60.1092, -131.028, -66.7539, 87.0064, -270.371
2.636, 2, -5.40169, 0.598061, 11.2711, -117.136, -93.7658, 146.787, 75.2303, 60.1092, -131.028, -66.7539, 87.0064, -270.371
2.64, 2, -5.40169, 0.598061, 11.2711, -117.136, -93.7658, 146.787, 75.2303, 60.1092, -131.028, -66.7539, 87.0064, -270.371
2.643, 2, -5.40169, 0.598061, 11.2711, -117.136, -93.7658, 146.787, 75.2303, 60.1092, -131.028, -66.7539, 87.0064, -270.371
2.648, 2, -5.40169, 0.598061, 11.2711, -117.136, -93.7658, 146.787, 75.2303, 60.1092, -131.028, -66.7539, 87.0064, -270.371
2.652, 2, -5.40169, 0.598061, 11.2711, -117.136, -93.7658, 146.787, 75.2303, 60.1092, -131.028, -66.7539, 87.0064, -270.371
2.656, 2, -5.40169, 0.598061, 11.2711, -117.136, -93.7658, 146.787, 75.2303, 60.1092, -131.028, -66.7539, 87.0064, -270.371
2.66, 2, -5.40169, 0.598061, 11.2711, -117.136, -93.7658, 146.787, 75.2303, 60.1092, -131.028, -66.7539, 87.0064, -270.371
2.663, 2, -5.40169, 0.598061, 11.2711, -117.136, -93.7658, 146.787, 75.2303, 60.1092, -131.028, -66.7539, 87.0064, -270.371
2.668, 2, -5.40169, 0.598061, 11.2711, -117.136, -93.7658, 146.787, 75.2303, 60.1092, -131.028, -66.7539, 87.0064, -270.371
2.672, 2, -5.40169, 0.598061, 11.2711, -117.136, -93.7658, 146.787, 75.2303, 60.1092, -131.028, -66.7539, 87.0064, -270.371
2.676, 2, -5.40169, 0.598061, 11.2711, -117.136, -93.7658, 146.787, 75.2303, 60.1092, -131.028, -66.7539, 87.0064, -270.371
2.679, 2, -5.40169, 0.598061, 11.2711, -117.136, -93.7658, 146.787, 75.2303, 60.1092, -131.028, -66.7539, 87.0064, -270.371
2.684, 2, -5.40169, 0.598061, 11.2711, -117.136, -93.7658, 146.787, 75.2303, 60.1092, -131.028, -66.7539, 87.0064, -270.371
2.688, 2, -5.40169, 0.598061, 11.2711, -117.136, -93.7658, 146.787, 75.2303, 60.1092, -131.028, -66.7539, 87.0064, -270.371
2.692, 2, -5.40169, 0.598061, 11.2711, -117.136, -93.7658, 146.787, 75.2303, 60.1092, -131.028, -66.7539, 87.0064, -270.371
2.696, 2, -5.40169, 0.598061, 11.2711, -117.136, -93.7658, 146.787, 75.2303, 60.1092, -131.028, -66.7539, 87.0064, -270.371
2.699, 2, -5.40169, 0.598061, 11.2711, -117.136, -93.7658, 146.787, 75.2303, 60.1092, -131.028, -66.7539, 87.0064, -270.371
2.704, 2, -5.40169, 0.598061, 11.2711, -117.136, -93.7658, 146.787, 75.2303, 60.1092, -131.028, -66.7539, 87.0064, -270.371
2.708, 2, -5.40169, 0.598061, 11.2711, -117.136, -93.7658, 146.787, 75.2303, 60.1092, -131.028, -66.7539, 87.0064, -270.371
2.712, 2, -5.40169, 0.598061, 11.2711, -117.136, -93.7658, 146.787, 75.2303, 60.1092, -131.028, -66.7539, 87.0064, -270.371
2.716, 2, -5.40169, 0.598061, 11.2711, -117.136, -93.7658, 146.787, 75.2303, 60.1092, -131.028, -66.7539, 87.0064, -270.371
2.719, 2, -5.40169, 0.598061, 11.2711, -117.136, -93.7658, 146.787, 75.2303, 60.1092, -131.028, -66.7539, 87.0064, -270.371
2.724, 2, -5.40169, 0.598061, 11.2711, -117.136, -93.7658, 146.787, 75.2303, 60.1092, -131.028, -66.7539, 87.0064, -270.371
2.728, 2, -5.40169, 0.598061, 11.2711, -117.136, -93.7658, 146.787, 75.2303, 60.1092, -131.028, -66.7539, 87.0064, -270.371
2.732, 2, -5.40169, 0.598061, 11.2711, -117.136, -93.7658, 146.787, 75.2303, 60.1092, -131.028, -66.7539, 87.0064, -270.371
2.735, 2, -5.40169, 0.598061, 11.2711, -117.136, -93.7658, 146.787, 75.2303, 60.1092, -131.028, -66.7539, 87.0064, -270.371
2.74, 2, -5.40169, 0.598061, 11.2711, -117.136, -93.7658, 146.787, 75.2303, 60.1092, -131.028, -66.7539, 87.0064, -270.371
2.744, 2, -5.40169, 0.598061, 11.2711, -117.136, -93.7658, 146.787, 75.2303, 60.1092, -131.028, -66.7539, 87.0064, -270.371
2.748, 2, -5.40169, 0.598061, 11.2711, -117.136, -93.7658, 146.787, 75.2303, 60.1092, -131.028, -66.7539, 87.0064, -270.371
2.752, 2, -5.40169, 0.598061, 11.2711, -117.136, -93.7658, 146.787, 75.2303, 60.1092, -131.028, -66.7539, 87.0064, -270.371
2.755, 2, -5.40169, 0.598061, 11.2711, -117.136, -93.7658, 146.787, 75.2303, 60.1092, -131.028, -66.7539, 87.0064, -270.371
2.76, 2, -5.40169, 0.598061, 11.2711, -117.136, -93.7658, 146.787, 75.2303, 60.1092, -131.028, -66.7539, 87.0064, -270.371
2.764, 2, -5.40169, 0.598061, 11.2711, -117.136, -93.7658, 146.787, 75.2303, 60.1092, -131.028, -66.7539, 87.0064, -270.371
2.768, 2, -5.40169, 0.598061, 11.2711, -117.136, -93.7658, 146.787, 75.2303, 60.1092, -131.028, -66.7539, 87.0064, -270.371
2.772, 2, -5.40169, 0.598061, 11.2711, -117.136, -93.7658, 146.787, 75.2303, 60.1092, -131.028, -66.7539, 87.0064, -270.371
2.775, 2, -5.40169, 0.598061, 11.2711, -117.136, -93.7658, 146.787, 75.2303, 60.1092, -131.028, -66.7539, 87.0064, -270.371
2.78, 2, -5.40169, 0.598061, 11.2711, -117.136, -93.7658, 146.787, 75.2303, 60.1092, -131.028, -66.7539, 87.0064, -270.371
2.784, 2, -5.40169, 0.598061, 11.2711, -117.136, -93.7658, 146.787, 75.2303, 60.1092, -131.028, -66.7539, 87.0064, -270.371
2.788, 2, -5.40169, 0.598061, 11.2711, -117.136, -93.7658, 146.787, 75.2303, 60.1092, -131.028, -66.7539, 87.0064, -270.371
2.791, 2, -5.40169, 0.598061, 11.2711, -117.136, -93.7658, 146.787, 75.2303, 60.1092, -131.028, -66.7539, 87.0064, -270.371
2.796, 2, -5.40169, 0.598061, 11.2711, -117.136, -93.7658, 146.787, 75.2303, 60.1092, -131.028, -66.7539, 87.0064, -270.371
2.8, 2, -5.40169, 0.598061, 11.2711, -117.136, -93.7658, 146.787, 75.2303, 60.1092, -131.028, -66.7539, 87.0064, -270.371
2.804, 2, -5.40169, 0.598061, 11.2711, -117.136, -93.7658, 146.787, 75.2303, 60.1092, -131.028, -66.7539, 87.0064, -270.371
2.808, 2, -5.40169, 0.598061, 11.2711, -117.136, -93.7658, 146.787, 75.2303, 60.1092, -131.028, -66.7539, 87.0064, -270.371
2.811, 2, -5.40169, 0.598061, 11.2711, -117.136, -93.7658, 146.787, 75.2303, 60.1092, -131.028, -66.7539, 87.0064, -270.371
2.816, 2, -5.40169, 0.598061, 11.2711, -117.136, -93.7658, 146.787, 75.2303, 60.1092, -131.028, -66.7539, 87.0064, -270.371
2.82, 2, -5.40169, 0.598061, 11.2711, -117.136, -93.7658, 146.787, 75.2303, 60.1092, -131.028, -66.7539, 87.0064, -270.371
2.824, 2, -5.40169, 0.598061, 11.2711, -117.136, -93.7658, 146.787, 75.2303, 60.1092, -131.028, -66.7539, 87.0064, -270.371
2.828, 2, -5.40169, 0.598061, 11.2711, -117.136, -93.7658, 146.787, 75.2303, 60.1092, -131.028, -66.7539, 87.0064, -270.371
2.831, 2, -5.40169, 0.598061, 11.2711, -117.136, -93.7658, 146.787, 75.2303, 60.1092, -131.028, -66.7539, 87.0064, -270.371
2.836, 2, -5.40169, 0.598061, 11.2711, -117.136, -93.7658, 146.787, 75.2303, 60.1092, -131.028, -66.7539, 87.0064, -270.371
2.84, 2, -5.40169, 0.598061, 11.2711, -117.136, -93.7658, 146.787, 75.2303, 60.1092, -131.028, -66.7539, 87.0064, -270.371
2.844, 2, -5.40169, 0.598061, 11.2711, -117.136, -93.7658, 146.787, 75.2303, 60.1092, -131.028, -66.7539, 87.0064, -270.371
2.847, 2, -5.40169, 0.598061, 11.2711, -117.136, -93.7658, 146.787, 75.2303, 60.1092, -131.028, -66.7539, 87.0064, -270.371
2.852, 2, -5.40169, 0.598061, 11.2711, -117.136, -93.7658, 146.787, 75.2303, 60.1092, -131.028, -66.7539, 87.0064, -270.371
2.856, 2, -5.40169, 0.598061, 11.2711, -117.136, -93.7658, 146.787, 75.2303, 60.1092, -131.028, -66.7539, 87.0064, -270.371
2.86, 2, -5.40169, 0.598061, 11.2711, -117.136, -93.7658, 146.787, 75.2303, 60.1092, -131.028, -66.7539, 87.0064, -270.371
2.864, 2, -5.40169, 0.598061, 11.2711, -117.136, -93.7658, 146.787, 75.2303, 60.1092, -131.028, -66.7539, 87.0064, -270.371
2.867, 2, -5.40169, 0.598061, 11.2711, -117.136, -93.7658, 146.787, 75.2303, 60.1092, -131.028, -66.7539, 87.0064, -270.371
2.872, 2, -5.40169, 0.598061, 11.2711, -117.136, -93.7658, 146.787, 75.2303, 60.1092, -131.028, -66.7539, 87.0064, -270.371
2.876, 2, -5.40169, 0.598061, 11.2711, -117.136, -93.7658, 146.787, 75.2303, 60.1092, -131.028, -66.7539, 87.0064, -270.371
2.88, 2, -5.40169, 0.598061, 11.2711, -117.136, -93.7658, 146.787, 75.2303, 60.1092, -131.028, -66.7539, 87.0064, -270.371
2.883, 2, -5.40169, 0.598061, 11.2711, -117.136, -93.7658, 146.787, 75.2303, 60.1092, -131.028, -66.7539, 87.0064, -270.371
2.888, 2, -5.40169, 0.598061, 11.2711, -117.136, -93.7658, 146.787, 75.2303, 60.1092, -131.028, -66.7539, 87.0064, -270.371
2.892, 2, -5.40169, 0.598061, 11.2711, -117.136, -93.7658, 146.787, 75.2303, 60.1092, -131.028, -66.7539, 87.0064, -270.371
2.896, 2, -5.40169, 0.598061, 11.2711, -117.136, -93.7658, 146.787, 75.2303, 60.1092, -131.028, -66.7539, 87.0064, -270.371
2.9, 2, -5.40169, 0.598061, 11.2711, -117.136, -93.7658, 146.787, 75.2303, 60.1092, -131.028, -66.7539, 87.0064, -270.371
2.903, 2, -5.40169, 0.598061, 11.2711, -117.136, -93.7658, 146.787, 75.2303, 60.1092, -131.028, -66.7539, 87.0064, -270.371
2.908, 2, -5.40169, 0.598061, 11.2711, -117.136, -93.7658, 146.787, 75.2303, 60.1092, -131.028, -66.7539, 87.0064, -270.371
2.912, 2, -5.40169, 0.598061, 11.2711, -117.136, -93.7658, 146.787, 75.2303, 60.1092, -131.028, -66.7539, 87.0064, -270.371
2.916, 2, -5.40169, 0.598061, 11.2711, -117.136, -93.7658, 146.787, 75.2303, 60.1092, -131.028, -66.7539, 87.0064, -270.371
2.92, 2, -5.40169, 0.598061, 11.2711, -117.136, -93.7658, 146.787, 75.2303, 60.1092, -131.028, -66.7539, 87.0064, -270.371
2.923, 2, -5.40169, 0.598061, 11.2711, -117.136, -93.7658, 146.787, 75.2303, 60.1092, -131.028, -66.7539, 87.0064, -270.371
2.928, 2, -5.40169, 0.598061, 11.2711, -117.136, -93.7658, 146.787, 75.2303, 60.1092, -131.028, -66.7539, 87.0064, -270.371
2.932, 2, -5.40169, 0.598061, 11.2711, -117.136, -93.7658, 146.787, 75.2303, 60.1092, -131.028, -66.7539, 87.0064, -270.371
2.936, 2, -5.40169, 0.598061, 11.2711, -117.136, -93.7658, 146.787, 75.2303, 60.1092, -131.028, -66.7539, 87.0064, -270.371
2.939, 2, -5.40169, 0.598061, 11.2711, -117.136, -93.7658, 146.787, 75.2303, 60.1092, -131.028, -66.7539, 87.0064, -270.371
2.944, 2, -5.40169, 0.598061, 11.2711, -117.136, -93.7658, 146.787, 75.2303, 60.1092, -131.028, -66.7539, 87.0064, -270.371
2.948, 2, -5.40169, 0.598061, 11.2711, -117.136, -93.7658, 146.787, 75.2303, 60.1092, -131.028, -66.7539, 87.0064, -270.371
2.952, 2, -5.40169, 0.598061, 11.2711, -117.136, -93.7658, 146.787, 75.2303, 60.1092, -131.028, -66.7539, 87.0064, -270.371
2.956, 2, -5.40169, 0.598061, 11.2711, -117.136, -93.7658, 146.787, 75.2303, 60.1092, -131.028, -66.7539, 87.0064, -270.371
2.959, 2, -5.40169, 0.598061, 11.2711, -117.136, -93.7658, 146.787, 75.2303, 60.1092, -131.028, -66.7539, 87.0064, -270.371
2.964, 2, -5.40169, 0.598061, 11.2711, -117.136, -93.7658, 146.787, 75.2303, 60.1092, -131.028, -66.7539, 87.0064, -270.371
2.968, 2, -5.40169, 0.598061, 11.2711, -117.136, -93.7658, 146.787, 75.2303, 60.1092, -131.028, -66.7539, 87.0064, -270.371
2.972, 2, -5.40169, 0.598061, 11.2711, -117.136, -93.7658, 146.787, 75.2303, 60.1092, -131.028, -66.7539, 87.0064, -270.371
2.976, 2, -5.40169, 0.598061, 11.2711, -117.136, -93.7658, 146.787, 75.2303, 60.1092, -131.028, -66.7539, 87.0064, -270.371
2.98, 2, -5.40169, 0.598061, 11.2711, -117.136, -93.7658, 146.787, 75.2303, 60.1092, -131.028, -66.7539, 87.0064, -270.371
2.984, 2, -5.40169, 0.598061, 11.2711, -117.136, -93.7658, 146.787, 75.2303, 60.1092, -131.028, -66.7539, 87.0064, -270.371
2.988, 2, -5.40169, 0.598061, 11.2711, -117.136, -93.7658, 146.787, 75.2303, 60.1092, -131.028, -66.7539, 87.0064, -270.371
2.992, 2, -5.40169, 0.598061, 11.2711, -117.136, -93.7658, 146.787, 75.2303, 60.1092, -131.028, -66.7539, 87.0064, -270.371
2.995, 2, -5.40169, 0.598061, 11.2711, -117.136, -93.7658, 146.787, 75.2303, 60.1092, -131.028, -66.7539, 87.0064, -270.371
3, 2, -5.40169, 0.598061, 11.2711, -117.136, -93.7658, 146.787, 75.2303, 60.1092, -131.028, -66.7539, 87.0064, -270.371
3.004, 2, -5.40169, 0.598061, 11.2711, -117.136, -93.7658, 146.787, 75.2303, 60.1092, -131.028, -66.7539, 87.0064, -270.371
3.008, 2, -5.40169, 0.598061, 11.2711, -117.136, -93.7658, 146.787, 75.2303, 60.1092, -131.028, -66.7539, 87.0064, -270.371
3.012, 2, -5.40169, 0.598061, 11.2711, -117.136, -93.7658, 146.787, 75.2303, 60.1092, -131.028, -66.7539, 87.0064, -270.371
3.015, 2, -5.40169, 0.598061, 11.2711, -117.136, -93.7658, 146.787, 75.2303, 60.1092, -131.028, -66.7539, 87.0064, -270.371
3.02, 2, -5.40169, 0.598061, 11.2711, -117.136, -93.7658, 146.787, 75.2303, 60.1092, -131.028, -66.7539, 87.0064, -270.371
3.024, 2, -5.40169, 0.598061, 11.2711, -117.136, -93.7658, 146.787, 75.2303, 60.1092, -131.028, -66.7539, 87.0064, -270.371
3.028, 2, -5.40169, 0.598061, 11.2711, -117.136, -93.7658, 146.787, 75.2303, 60.1092, -131.028, -66.7539, 87.0064, -270.371
3.031, 2, -5.40169, 0.598061, 11.2711, -117.136, -93.7658, 146.787, 75.2303, 60.1092, -131.028, -66.7539, 87.0064, -270.371
3.036, 2, -5.40169, 0.598061, 11.2711, -117.136, -93.7658, 146.787, 75.2303, 60.1092, -131.028, -66.7539, 87.0064, -270.371
3.04, 2, -5.40169, 0.598061, 11.2711, -117.136, -93.7658, 146.787, 75.2303, 60.1092, -131.028, -66.7539, 87.0064, -270.371
3.044, 2, -5.40169, 0.598061, 11.2711, -117.136, -93.7658, 146.787, 75.2303, 60.1092, -131.028, -66.7539, 87.0064, -270.371
3.048, 2, -5.40169, 0.598061, 11.2711, -117.136, -93.7658, 146.787, 75.2303, 60.1092, -131.028, -66.7539, 87.0064, -270.371
3.051, 2, -5.40169, 0.598061, 11.2711, -117.136, -93.7658, 146.787, 75.2303, 60.1092, -131.028, -66.7539, 87.0064, -270.371
3.056, 2, -5.40169, 0.598061, 11.2711, -117.136, -93.7658, 146.787, 75.2303, 60.1092, -131.028, -66.7539, 87.0064, -270.371
3.06, 2, -5.40169, 0.598061, 11.2711, -117.136, -93.7658, 146.787, 75.2303, 60.1092, -131.028, -66.7539, 87.0064, -270.371
3.064, 2, -5.40169, 0.598061, 11.2711, -117.136, -93.7658, 146.787, 75.2303, 60.1092, -131.028, -66.7539, 87.0064, -270.371
3.068, 2, -5.40169, 0.598061, 11.2711, -117.136, -93.7658, 146.787, 75.2303, 60.1092, -131.028, -66.7539, 87.0064, -270.371
3.071, 2, -5.40169, 0.598061, 11.2711, -117.136, -93.7658, 146.787, 75.2303, 60.1092, -131.028, -66.7539, 87.0064, -270.371
3.076, 2, -5.40169, 0.598061, 11.2711, -117.136, -93.7658, 146.787, 75.2303, 60.1092, -131.028, -66.7539, 87.0064, -270.371
3.08, 2, -5.40169, 0.598061, 11.2711, -117.136, -93.7658, 146.787, 75.2303, 60.1092, -131.028, -66.7539, 87.0064, -270.371
3.084, 2, -5.40169, 0.598061, 11.2711, -117.136, -93.7658, 146.787, 75.2303, 60.1092, -131.028, -66.7539, 87.0064, -270.371
3.087, 2, -5.40169, 0.598061, 11.2711, -117.136, -93.7658, 146.787, 75.2303, 60.1092, -131.028, -66.7539, 87.0064, -270.371
3.092, 2, -5.40169, 0.598061, 11.2711, -117.136, -93.7658, 146.787, 75.2303, 60.1092, -131.028, -66.7539, 87.0064, -270.371
3.096, 2, -5.40169, 0.598061, 11.2711, -117.136, -93.7658, 146.787, 75.2303, 60.1092, -131.028, -66.7539, 87.0064, -270.371
3.1, 2, -5.40169, 0.598061, 11.2711, -117.136, -93.7658, 146.787, 75.2303, 60.1092, -131.028, -66.7539, 87.0064, -270.371
3.104, 2, -5.40169, 0.598061, 11.2711, -117.136, -93.7658, 146.787, 75.2303, 60.1092, -131.028, -66.7539, 87.0064, -270.371
3.107, 2, -5.40169, 0.598061, 11.2711, -117.136, -93.7658, 146.787, 75.2303, 60.1092, -131.028, -66.7539, 87.0064, -270.371
3.112, 2, -5.40169, 0.598061, 11.2711, -117.136, -93.7658, 146.787, 75.2303, 60.1092, -131.028, -66.7539, 87.0064, -270.371
3.116, 2, -5.40169, 0.598061, 11.2711, -117.136, -93.7658, 146.787, 75.2303, 60.1092, -131.028, -66.7539, 87.0064, -270.371
3.12, 2, -5.40169, 0.598061, 11.2711, -117.136, -93.7658, 146.787, 75.2303, 60.1092, -131.028, -66.7539, 87.0064, -270.371
3.124, 2, -5.40169, 0.598061, 11.2711, -117.136, -93.7658, 146.787, 75.2303, 60.1092, -131.028, -66.7539, 87.0064, -270.371
3.128, 2, -5.40169, 0.598061, 11.2711, -117.136, -93.7658, 146.787, 75.2303, 60.1092, -131.028, -66.7539, 87.0064, -270.371
3.132, 2, -5.40169, 0.598061, 11.2711, -117.136, -93.7658, 146.787, 75.2303, 60.1092, -131.028, -66.7539, 87.0064, -270.371
3.136, 2, -5.40169, 0.598061, 11.2711, -117.136, -93.7658, 146.787, 75.2303, 60.1092, -131.028, -66.7539, 87.0064, -270.371
3.14, 2, -5.40169, 0.598061, 11.2711, -117.136, -93.7658, 146.787, 75.2303, 60.1092, -131.028, -66.7539, 87.0064, -270.371
3.143, 2, -5.40169, 0.598061, 11.2711, -117.136, -93.7658, 146.787, 75.2303, 60.1092, -131.028, -66.7539, 87.0064, -270.371
3.148, 2, -5.40169, 0.598061, 11.2711, -117.136, -93.7658, 146.787, 75.2303, 60.1092, -131.028, -66.7539, 87.0064, -270.371
3.152, 2, -5.40169, 0.598061, 11.2711, -117.136, -93.7658, 146.787, 75.2303, 60.1092, -131.028, -66.7539, 87.0064, -270.371
3.156, 2, -5.40169, 0.598061, 11.2711, -117.136, -93.7658, 146.787, 75.2303, 60.1092, -131.028, -66.7539, 87.0064, -270.371
3.16, 2, -5.40169, 0.598061, 11.2711, -117.136, -93.7658, 146.787, 75.2303, 60.1092, -131.028, -66.7539, 87.0064, -270.371
3.163, 2, -5.40169, 0.598061, 11.2711, -117.136, -93.7658, 146.787, 75.2303, 60.1092, -131.028, -66.7539, 87.0064, -270.371
3.168, 2, -5.40169, 0.598061, 11.2711, -117.136, -93.7658, 146.787, 75.2303, 60.1092, -131.028, -66.7539, 87.0064, -270.371
3.172, 2, -5.40169, 0.598061, 11.2711, -117.136, -93.7658, 146.787, 75.2303, 60.1092, -131.028, -66.7539, 87.0064, -270.371
3.176, 2, -5.40169, 0.598061, 11.2711, -117.136, -93.7658, 146.787, 75.2303, 60.1092, -131.028, -66.7539, 87.0064, -270.371
3.179, 2, -5.40169, 0.598061, 11.2711, -117.136, -93.7658, 146.787, 75.2303, 60.1092, -131.028, -66.7539, 87.0064, -270.371
3.184, 2, -5.40169, 0.598061, 11.2711, -117.136, -93.7658, 146.787, 75.2303, 60.1092, -131.028, -66.7539, 87.0064, -270.371
3.188, 2, -5.40169, 0.598061, 11.2711, -117.136, -93.7658, 146.787, 75.2303, 60.1092, -131.028, -66.7539, 87.0064, -270.371
