hehonglu123/Motion-Primitive-Planning/simulation/robotstudio_sim/multimove/recorded_data/curve_exe_v1500_z20.csv
timestamp, cmd_num, J1, J2, J3, J4, J5, J6, J1_2, J2_2, J3_2, J4_2, J5_2, J6_2
0.002, -1, 17.5633, 2.5809, 15.3194, 155.794, -78.0054, 152.199, 135.697, 20.1368, -4.53251, -77.8585, -80.7468, -149.151
0.006, -1, 17.5633, 2.5809, 15.3194, 155.794, -78.0054, 152.199, 135.697, 20.1368, -4.53251, -77.8585, -80.7468, -149.151
0.01, -1, 17.5633, 2.5809, 15.3194, 155.794, -78.0054, 152.199, 135.697, 20.1368, -4.53251, -77.8585, -80.7468, -149.151
0.011, -1, 17.5633, 2.5809, 15.3194, 155.794, -78.0054, 152.199, 135.697, 20.1368, -4.53251, -77.8585, -80.7468, -149.151
0.013, -1, 17.5633, 2.5809, 15.3194, 155.794, -78.0054, 152.199, 135.697, 20.1368, -4.53251, -77.8585, -80.7468, -149.151
0.016, -1, 17.5633, 2.5809, 15.3194, 155.794, -78.0054, 152.199, 135.697, 20.1368, -4.53251, -77.8585, -80.7468, -149.151
0.02, -1, 17.5633, 2.5809, 15.3194, 155.794, -78.0054, 152.199, 135.697, 20.1368, -4.53251, -77.8585, -80.7468, -149.151
0.024, -1, 17.5633, 2.5809, 15.3194, 155.794, -78.0054, 152.199, 135.697, 20.1368, -4.53251, -77.8585, -80.7468, -149.151
0.028, -1, 17.5633, 2.5809, 15.3194, 155.794, -78.0054, 152.199, 135.697, 20.1368, -4.53251, -77.8585, -80.7468, -149.151
0.032, -1, 17.5633, 2.5809, 15.3194, 155.794, -78.0054, 152.199, 135.697, 20.1368, -4.53251, -77.8585, -80.7468, -149.151
0.036, -1, 17.5633, 2.5809, 15.3194, 155.794, -78.0054, 152.199, 135.697, 20.1368, -4.53251, -77.8585, -80.7468, -149.151
0.04, -1, 17.5632, 2.5809, 15.3193, 155.794, -78.0054, 152.199, 135.697, 20.1368, -4.53251, -77.8585, -80.7468, -149.151
0.044, -1, 17.5629, 2.5809, 15.3193, 155.794, -78.0054, 152.199, 135.697, 20.1368, -4.53251, -77.8585, -80.7468, -149.151
0.048, -1, 17.5618, 2.58091, 15.3191, 155.794, -78.0053, 152.199, 135.697, 20.1368, -4.53251, -77.8585, -80.7468, -149.151
0.052, -1, 17.5596, 2.58091, 15.3187, 155.794, -78.0052, 152.199, 135.697, 20.1368, -4.53251, -77.8585, -80.7468, -149.151
0.056, -1, 17.5562, 2.58092, 15.318, 155.794, -78.0049, 152.199, 135.697, 20.1366, -4.53251, -77.8586, -80.7468, -149.151
0.06, -1, 17.5515, 2.58094, 15.317, 155.794, -78.0043, 152.199, 135.697, 20.1359, -4.53255, -77.8586, -80.7469, -149.151
0.064, -1, 17.5453, 2.58098, 15.3154, 155.794, -78.0032, 152.199, 135.696, 20.1343, -4.53265, -77.8589, -80.747, -149.151
0.068, -1, 17.5375, 2.58105, 15.3134, 155.793, -78.0012, 152.198, 135.696, 20.1316, -4.53291, -77.8596, -80.7474, -149.151
0.072, -1, 17.528, 2.58116, 15.3106, 155.793, -77.9981, 152.198, 135.694, 20.1271, -4.53345, -77.8613, -80.7481, -149.151
0.076, -1, 17.5166, 2.58132, 15.307, 155.793, -77.9934, 152.198, 135.692, 20.1206, -4.53443, -77.8645, -80.7493, -149.151
0.08, -1, 17.5028, 2.58156, 15.3024, 155.792, -77.9868, 152.197, 135.689, 20.1117, -4.53607, -77.8701, -80.7513, -149.151
0.084, -1, 17.4859, 2.58188, 15.2966, 155.791, -77.9777, 152.196, 135.685, 20.0998, -4.53861, -77.8791, -80.7543, -149.151
0.088, -1, 17.4657, 2.58231, 15.2895, 155.79, -77.9657, 152.195, 135.681, 20.0848, -4.54232, -77.8925, -80.7587, -149.15
0.092, -1, 17.442, 2.58286, 15.2809, 155.789, -77.9501, 152.194, 135.675, 20.066, -4.54746, -77.9113, -80.7646, -149.15
0.096, -1, 17.4152, 2.58355, 15.2709, 155.787, -77.9305, 152.192, 135.669, 20.0428, -4.55428, -77.9365, -80.7725, -149.149
0.1, -1, 17.3857, 2.5844, 15.2594, 155.785, -77.9064, 152.19, 135.661, 20.0147, -4.56303, -77.969, -80.7824, -149.149
0.104, -1, 17.3534, 2.58543, 15.2465, 155.783, -77.8775, 152.187, 135.651, 19.9814, -4.57392, -78.0097, -80.7948, -149.148
0.108, -1, 17.3184, 2.58664, 15.2321, 155.78, -77.8436, 152.184, 135.641, 19.943, -4.5871, -78.0591, -80.8098, -149.147
0.112, -1, 17.2805, 2.58804, 15.2162, 155.777, -77.8047, 152.181, 135.629, 19.8998, -4.60266, -78.1178, -80.8273, -149.145
0.116, -1, 17.2394, 2.58963, 15.1987, 155.774, -77.7608, 152.177, 135.616, 19.8519, -4.62061, -78.1857, -80.8475, -149.144
0.12, -1, 17.1951, 2.59139, 15.1797, 155.771, -77.7123, 152.173, 135.603, 19.7999, -4.64082, -78.2624, -80.8702, -149.142
0.124, -1, 17.1472, 2.59331, 15.159, 155.767, -77.6595, 152.168, 135.588, 19.7441, -4.66309, -78.3471, -80.8951, -149.14
0.128, -1, 17.0962, 2.59538, 15.1369, 155.763, -77.6029, 152.163, 135.573, 19.6847, -4.6871, -78.4385, -80.922, -149.138
0.131, -1, 17.0424, 2.59759, 15.1136, 155.758, -77.5429, 152.158, 135.556, 19.6217, -4.71249, -78.5352, -80.9504, -149.135
0.136, -1, 16.9864, 2.59991, 15.0891, 155.754, -77.48, 152.152, 135.539, 19.5551, -4.73889, -78.6356, -80.98, -149.133
0.139, -1, 16.9285, 2.60234, 15.0637, 155.749, -77.4148, 152.146, 135.521, 19.4852, -4.76599, -78.7383, -81.0103, -149.13
0.144, -1, 16.8685, 2.60484, 15.0374, 155.744, -77.3479, 152.14, 135.501, 19.4128, -4.7935, -78.8425, -81.0412, -149.128
0.148, -1, 16.8064, 2.60739, 15.0103, 155.739, -77.2797, 152.134, 135.482, 19.3384, -4.82122, -78.9472, -81.0724, -149.126
0.152, -1, 16.742, 2.60998, 14.9825, 155.734, -77.2107, 152.128, 135.461, 19.2626, -4.84905, -79.0522, -81.1038, -149.123
0.156, -1, 16.6754, 2.61259, 14.9541, 155.729, -77.1413, 152.122, 135.44, 19.1861, -4.8769, -79.1572, -81.1351, -149.121
0.16, -1, 16.6071, 2.6152, 14.9253, 155.724, -77.0716, 152.116, 135.42, 19.1094, -4.90475, -79.2621, -81.1665, -149.118
0.164, -1, 16.5372, 2.61782, 14.8961, 155.718, -77.0019, 152.109, 135.399, 19.0326, -4.93258, -79.367, -81.1979, -149.116
0.168, -1, 16.4663, 2.62043, 14.8667, 155.713, -76.9321, 152.103, 135.378, 18.9559, -4.96039, -79.4717, -81.2292, -149.113
0.172, -1, 16.3951, 2.62305, 14.8373, 155.708, -76.8625, 152.097, 135.357, 18.8792, -4.98819, -79.5764, -81.2605, -149.111
0.176, -1, 16.3239, 2.62566, 14.808, 155.703, -76.7928, 152.091, 135.337, 18.8026, -5.01596, -79.6811, -81.2918, -149.108
0.18, -1, 16.2526, 2.62828, 14.7786, 155.698, -76.7232, 152.085, 135.316, 18.726, -5.04372, -79.7857, -81.3231, -149.106
0.184, -1, 16.1815, 2.63089, 14.7492, 155.692, -76.6537, 152.078, 135.295, 18.6495, -5.07146, -79.8902, -81.3543, -149.103
0.188, -1, 16.1104, 2.63349, 14.7199, 155.687, -76.5842, 152.072, 135.275, 18.5731, -5.09918, -79.9946, -81.3855, -149.101
0.192, -1, 16.0393, 2.6361, 14.6906, 155.682, -76.5147, 152.066, 135.254, 18.4966, -5.12688, -80.0989, -81.4167, -149.098
0.196, -1, 15.9683, 2.6387, 14.6613, 155.677, -76.4453, 152.06, 135.233, 18.4203, -5.15457, -80.2032, -81.4479, -149.096
0.2, -1, 15.8973, 2.64131, 14.632, 155.671, -76.376, 152.054, 135.213, 18.344, -5.18223, -80.3075, -81.4791, -149.093
0.204, -1, 15.8264, 2.64391, 14.6028, 155.666, -76.3066, 152.048, 135.192, 18.2677, -5.20988, -80.4116, -81.5102, -149.091
0.208, -1, 15.7555, 2.64651, 14.5736, 155.661, -76.2374, 152.041, 135.171, 18.1915, -5.23751, -80.5157, -81.5414, -149.089
0.212, -1, 15.6847, 2.64911, 14.5444, 155.656, -76.1681, 152.035, 135.151, 18.1153, -5.26512, -80.6197, -81.5725, -149.086
0.216, -1, 15.6139, 2.6517, 14.5152, 155.651, -76.099, 152.029, 135.13, 18.0392, -5.29272, -80.7237, -81.6036, -149.084
0.22, -1, 15.5431, 2.6543, 14.486, 155.645, -76.0298, 152.023, 135.11, 17.9632, -5.32029, -80.8276, -81.6346, -149.081
0.224, -1, 15.4724, 2.65689, 14.4568, 155.64, -75.9607, 152.017, 135.089, 17.8871, -5.34785, -80.9314, -81.6657, -149.079
0.228, -1, 15.4018, 2.65948, 14.4277, 155.635, -75.8917, 152.011, 135.069, 17.8112, -5.37539, -81.0351, -81.6967, -149.076
0.232, -1, 15.3312, 2.66207, 14.3986, 155.63, -75.8227, 152.005, 135.048, 17.7353, -5.40291, -81.1388, -81.7277, -149.074
0.236, -1, 15.2606, 2.66466, 14.3695, 155.625, -75.7537, 151.998, 135.027, 17.6594, -5.43041, -81.2424, -81.7587, -149.071
0.24, -1, 15.1901, 2.66725, 14.3404, 155.619, -75.6848, 151.992, 135.007, 17.5836, -5.4579, -81.346, -81.7896, -149.069
0.244, -1, 15.1196, 2.66983, 14.3113, 155.614, -75.616, 151.986, 134.986, 17.5078, -5.48537, -81.4495, -81.8206, -149.067
0.248, -1, 15.0492, 2.67241, 14.2823, 155.609, -75.5471, 151.98, 134.966, 17.4321, -5.51282, -81.5529, -81.8515, -149.064
0.252, -1, 14.9788, 2.67499, 14.2533, 155.604, -75.4784, 151.974, 134.945, 17.3564, -5.54025, -81.6562, -81.8824, -149.062
0.256, -1, 14.9085, 2.67757, 14.2243, 155.599, -75.4096, 151.968, 134.925, 17.2808, -5.56767, -81.7595, -81.9133, -149.059
0.26, -1, 14.8382, 2.68015, 14.1953, 155.594, -75.3409, 151.962, 134.905, 17.2052, -5.59506, -81.8627, -81.9442, -149.057
0.264, -1, 14.768, 2.68273, 14.1663, 155.588, -75.2723, 151.956, 134.884, 17.1297, -5.62244, -81.9659, -81.975, -149.054
0.268, -1, 14.6978, 2.6853, 14.1374, 155.583, -75.2037, 151.949, 134.864, 17.0542, -5.64981, -82.069, -82.0058, -149.052
0.272, -1, 14.6276, 2.68787, 14.1084, 155.578, -75.1351, 151.943, 134.843, 16.9788, -5.67715, -82.172, -82.0367, -149.05
0.276, -1, 14.5575, 2.69045, 14.0795, 155.573, -75.0666, 151.937, 134.823, 16.9034, -5.70448, -82.2749, -82.0674, -149.047
0.28, -1, 14.4875, 2.69302, 14.0506, 155.568, -74.9981, 151.931, 134.803, 16.8281, -5.73179, -82.3778, -82.0982, -149.045
0.284, -1, 14.4175, 2.69558, 14.0218, 155.563, -74.9297, 151.925, 134.782, 16.7528, -5.75908, -82.4806, -82.1289, -149.042
0.288, -1, 14.3475, 2.69815, 13.9929, 155.557, -74.8613, 151.919, 134.762, 16.6776, -5.78635, -82.5834, -82.1597, -149.04
0.292, -1, 14.2776, 2.70071, 13.9641, 155.552, -74.793, 151.913, 134.742, 16.6024, -5.81361, -82.6861, -82.1904, -149.037
0.296, -1, 14.2077, 2.70328, 13.9353, 155.547, -74.7247, 151.907, 134.721, 16.5273, -5.84085, -82.7887, -82.2211, -149.035
0.3, -1, 14.1378, 2.70584, 13.9065, 155.542, -74.6565, 151.901, 134.701, 16.4522, -5.86807, -82.8912, -82.2517, -149.033
0.304, -1, 14.0681, 2.7084, 13.8777, 155.537, -74.5883, 151.895, 134.681, 16.3771, -5.89528, -82.9937, -82.2824, -149.03
0.308, -1, 13.9983, 2.71096, 13.8489, 155.532, -74.5201, 151.889, 134.66, 16.3021, -5.92246, -83.0961, -82.313, -149.028
0.312, -1, 13.9286, 2.71351, 13.8202, 155.527, -74.452, 151.883, 134.64, 16.2272, -5.94963, -83.1985, -82.3436, -149.025
0.316, -1, 13.8589, 2.71607, 13.7914, 155.522, -74.3839, 151.876, 134.62, 16.1523, -5.97679, -83.3008, -82.3742, -149.023
0.32, -1, 13.7893, 2.71862, 13.7627, 155.516, -74.3159, 151.87, 134.6, 16.0775, -6.00392, -83.403, -82.4048, -149.021
0.324, -1, 13.7198, 2.72117, 13.734, 155.511, -74.2479, 151.864, 134.579, 16.0027, -6.03104, -83.5052, -82.4353, -149.018
0.328, -1, 13.6502, 2.72372, 13.7054, 155.506, -74.1799, 151.858, 134.559, 15.9279, -6.05814, -83.6073, -82.4659, -149.016
0.332, -1, 13.5808, 2.72627, 13.6767, 155.501, -74.112, 151.852, 134.539, 15.8532, -6.08522, -83.7093, -82.4964, -149.013
0.336, -1, 13.5113, 2.72882, 13.6481, 155.496, -74.0442, 151.846, 134.519, 15.7785, -6.11229, -83.8113, -82.5269, -149.011
0.34, -1, 13.4419, 2.73136, 13.6195, 155.491, -73.9763, 151.84, 134.498, 15.7039, -6.13934, -83.9132, -82.5573, -149.008
0.344, -1, 13.3726, 2.7339, 13.5909, 155.486, -73.9086, 151.834, 134.478, 15.6294, -6.16637, -84.015, -82.5878, -149.006
0.348, -1, 13.3033, 2.73645, 13.5623, 155.481, -73.8409, 151.828, 134.458, 15.5548, -6.19339, -84.1168, -82.6182, -149.004
0.352, -1, 13.234, 2.73899, 13.5337, 155.476, -73.7732, 151.822, 134.438, 15.4804, -6.22039, -84.2185, -82.6486, -149.001
0.356, -1, 13.1648, 2.74153, 13.5052, 155.471, -73.7055, 151.816, 134.418, 15.4059, -6.24737, -84.3202, -82.679, -148.999
0.36, -1, 13.0956, 2.74406, 13.4767, 155.465, -73.6379, 151.81, 134.398, 15.3316, -6.27433, -84.4217, -82.7094, -148.997
0.364, -1, 13.0265, 2.7466, 13.4481, 155.46, -73.5703, 151.804, 134.378, 15.2572, -6.30128, -84.5233, -82.7398, -148.994
0.368, -1, 12.9574, 2.74913, 13.4197, 155.455, -73.5028, 151.798, 134.358, 15.1829, -6.32821, -84.6247, -82.7701, -148.992
0.372, -1, 12.8884, 2.75166, 13.3912, 155.45, -73.4354, 151.792, 134.337, 15.1087, -6.35512, -84.7261, -82.8004, -148.989
0.376, -1, 12.8194, 2.75419, 13.3627, 155.445, -73.3679, 151.786, 134.317, 15.0345, -6.38202, -84.8274, -82.8307, -148.987
0.38, -1, 12.7504, 2.75672, 13.3343, 155.44, -73.3005, 151.78, 134.297, 14.9604, -6.4089, -84.9287, -82.861, -148.985
0.384, -1, 12.6815, 2.75925, 13.3059, 155.435, -73.2332, 151.774, 134.277, 14.8863, -6.43576, -85.0299, -82.8913, -148.982
0.388, -1, 12.6126, 2.76178, 13.2775, 155.43, -73.1659, 151.768, 134.257, 14.8122, -6.46261, -85.131, -82.9215, -148.98
0.392, -1, 12.5438, 2.7643, 13.2491, 155.425, -73.0986, 151.762, 134.237, 14.7382, -6.48944, -85.2321, -82.9517, -148.977
0.396, -1, 12.475, 2.76682, 13.2207, 155.42, -73.0314, 151.756, 134.217, 14.6643, -6.51625, -85.3331, -82.9819, -148.975
0.4, -1, 12.4063, 2.76935, 13.1924, 155.415, -72.9642, 151.75, 134.197, 14.5903, -6.54305, -85.4341, -83.0121, -148.973
0.404, -1, 12.3376, 2.77187, 13.164, 155.41, -72.897, 151.744, 134.177, 14.5165, -6.56983, -85.535, -83.0423, -148.97
0.408, -1, 12.2689, 2.77438, 13.1357, 155.405, -72.83, 151.738, 134.157, 14.4427, -6.59659, -85.6358, -83.0724, -148.968
0.412, -1, 12.2003, 2.7769, 13.1074, 155.4, -72.7629, 151.732, 134.137, 14.3689, -6.62334, -85.7365, -83.1026, -148.966
0.416, -1, 12.1317, 2.77942, 13.0791, 155.395, -72.6959, 151.726, 134.117, 14.2951, -6.65007, -85.8372, -83.1327, -148.963
0.42, -1, 12.0632, 2.78193, 13.0509, 155.39, -72.6289, 151.72, 134.097, 14.2215, -6.67678, -85.9379, -83.1628, -148.961
0.424, -1, 11.9947, 2.78444, 13.0226, 155.384, -72.562, 151.714, 134.078, 14.1478, -6.70348, -86.0385, -83.1929, -148.958
0.428, -1, 11.9262, 2.78695, 12.9944, 155.379, -72.4951, 151.708, 134.058, 14.0742, -6.73016, -86.139, -83.2229, -148.956
0.432, -1, 11.8578, 2.78946, 12.9662, 155.374, -72.4282, 151.702, 134.038, 14.0007, -6.75682, -86.2394, -83.253, -148.954
0.436, -1, 11.7895, 2.79197, 12.938, 155.369, -72.3614, 151.697, 134.018, 13.9272, -6.78347, -86.3398, -83.283, -148.951
0.44, -1, 11.7211, 2.79447, 12.9098, 155.364, -72.2946, 151.691, 133.998, 13.8537, -6.8101, -86.4401, -83.313, -148.949
0.444, -1, 11.6529, 2.79698, 12.8817, 155.359, -72.2279, 151.685, 133.978, 13.7803, -6.83672, -86.5404, -83.343, -148.947
0.448, -1, 11.5846, 2.79948, 12.8535, 155.354, -72.1612, 151.679, 133.958, 13.7069, -6.86332, -86.6406, -83.3729, -148.944
0.452, -1, 11.5164, 2.80198, 12.8254, 155.349, -72.0946, 151.673, 133.938, 13.6336, -6.8899, -86.7408, -83.4029, -148.942
0.456, -1, 11.4483, 2.80448, 12.7973, 155.344, -72.028, 151.667, 133.919, 13.5603, -6.91647, -86.8409, -83.4328, -148.939
0.46, -1, 11.3802, 2.80698, 12.7692, 155.339, -71.9614, 151.661, 133.899, 13.4871, -6.94302, -86.9409, -83.4627, -148.937
0.464, -1, 11.3121, 2.80947, 12.7411, 155.334, -71.8949, 151.655, 133.879, 13.4139, -6.96956, -87.0408, -83.4926, -148.935
0.468, -1, 11.2441, 2.81197, 12.7131, 155.329, -71.8284, 151.649, 133.859, 13.3407, -6.99607, -87.1408, -83.5225, -148.932
0.472, -1, 11.1761, 2.81446, 12.685, 155.324, -71.7619, 151.643, 133.839, 13.2676, -7.02258, -87.2406, -83.5523, -148.93
0.476, -1, 11.1081, 2.81696, 12.657, 155.319, -71.6955, 151.637, 133.82, 13.1946, -7.04906, -87.3404, -83.5822, -148.928
0.48, -1, 11.0402, 2.81945, 12.629, 155.314, -71.6292, 151.631, 133.8, 13.1216, -7.07553, -87.4401, -83.612, -148.925
0.484, -1, 10.9723, 2.82194, 12.601, 155.309, -71.5628, 151.625, 133.78, 13.0486, -7.10199, -87.5398, -83.6418, -148.923
0.488, -1, 10.9045, 2.82442, 12.5731, 155.304, -71.4966, 151.62, 133.76, 12.9757, -7.12843, -87.6394, -83.6716, -148.921
0.492, -1, 10.8367, 2.82691, 12.5451, 155.299, -71.4303, 151.614, 133.741, 12.9028, -7.15485, -87.7389, -83.7014, -148.918
0.496, -1, 10.769, 2.82939, 12.5172, 155.294, -71.3641, 151.608, 133.721, 12.8299, -7.18126, -87.8384, -83.7311, -148.916
0.5, -1, 10.7013, 2.83188, 12.4892, 155.289, -71.2979, 151.602, 133.701, 12.7571, -7.20765, -87.9378, -83.7608, -148.914
0.504, -1, 10.6336, 2.83436, 12.4613, 155.284, -71.2318, 151.596, 133.682, 12.6844, -7.23402, -88.0372, -83.7906, -148.911
0.508, -1, 10.566, 2.83684, 12.4335, 155.279, -71.1657, 151.59, 133.662, 12.6117, -7.26038, -88.1365, -83.8203, -148.909
0.512, -1, 10.4984, 2.83932, 12.4056, 155.274, -71.0997, 151.584, 133.642, 12.539, -7.28673, -88.2357, -83.8499, -148.907
0.516, -1, 10.4309, 2.84179, 12.3777, 155.27, -71.0337, 151.578, 133.623, 12.4664, -7.31306, -88.3349, -83.8796, -148.904
0.52, -1, 10.3634, 2.84427, 12.3499, 155.265, -70.9677, 151.572, 133.603, 12.3938, -7.33937, -88.4341, -83.9092, -148.902
0.524, -1, 10.2959, 2.84674, 12.3221, 155.26, -70.9018, 151.567, 133.583, 12.3213, -7.36566, -88.5331, -83.9389, -148.9
0.528, -1, 10.2285, 2.84922, 12.2943, 155.255, -70.8359, 151.561, 133.564, 12.2488, -7.39194, -88.6321, -83.9685, -148.897
0.532, -1, 10.1611, 2.85169, 12.2665, 155.25, -70.77, 151.555, 133.544, 12.1763, -7.41821, -88.7311, -83.998, -148.895
0.536, -1, 10.0938, 2.85416, 12.2387, 155.245, -70.7042, 151.549, 133.525, 12.1039, -7.44446, -88.83, -84.0276, -148.893
0.54, -1, 10.0265, 2.85663, 12.211, 155.24, -70.6384, 151.543, 133.505, 12.0316, -7.47069, -88.9288, -84.0572, -148.89
0.544, -1, 9.95919, 2.85909, 12.1832, 155.235, -70.5727, 151.537, 133.485, 11.9592, -7.49691, -89.0276, -84.0867, -148.888
0.548, -1, 9.89197, 2.86156, 12.1555, 155.23, -70.507, 151.532, 133.466, 11.887, -7.52312, -89.1263, -84.1162, -148.886
0.552, -1, 9.82479, 2.86402, 12.1278, 155.225, -70.4414, 151.526, 133.446, 11.8147, -7.5493, -89.2249, -84.1457, -148.883
0.556, -1, 9.75765, 2.86648, 12.1001, 155.22, -70.3757, 151.52, 133.427, 11.7425, -7.57548, -89.3235, -84.1752, -148.881
0.56, -1, 9.69055, 2.86895, 12.0724, 155.215, -70.3102, 151.514, 133.407, 11.6704, -7.60163, -89.4221, -84.2047, -148.879
0.564, -1, 9.62348, 2.8714, 12.0448, 155.21, -70.2446, 151.508, 133.388, 11.5983, -7.62777, -89.5206, -84.2341, -148.876
0.568, -1, 9.55646, 2.87386, 12.0171, 155.205, -70.1791, 151.502, 133.368, 11.5262, -7.6539, -89.619, -84.2636, -148.874
0.572, -1, 9.48948, 2.87632, 11.9895, 155.2, -70.1137, 151.496, 133.349, 11.4542, -7.68001, -89.7173, -84.293, -148.872
0.576, -1, 9.42253, 2.87877, 11.9619, 155.195, -70.0482, 151.491, 133.329, 11.3822, -7.7061, -89.8157, -84.3224, -148.869
0.58, -1, 9.35563, 2.88123, 11.9343, 155.19, -69.9828, 151.485, 133.31, 11.3103, -7.73218, -89.9139, -84.3518, -148.867
0.584, -1, 9.28876, 2.88368, 11.9067, 155.186, -69.9175, 151.479, 133.29, 11.2384, -7.75825, -90.0121, -84.3811, -148.865
0.588, -1, 9.22194, 2.88613, 11.8792, 155.181, -69.8522, 151.473, 133.271, 11.1665, -7.7843, -90.1102, -84.4105, -148.862
0.592, -1, 9.15515, 2.88858, 11.8516, 155.176, -69.7869, 151.467, 133.252, 11.0947, -7.81033, -90.2083, -84.4398, -148.86
0.596, -1, 9.0884, 2.89103, 11.8241, 155.171, -69.7217, 151.462, 133.232, 11.0229, -7.83635, -90.3063, -84.4691, -148.858
0.6, -1, 9.02169, 2.89348, 11.7966, 155.166, -69.6565, 151.456, 133.213, 10.9512, -7.86235, -90.4043, -84.4984, -148.856
0.604, -1, 8.95502, 2.89592, 11.7691, 155.161, -69.5913, 151.45, 133.193, 10.8795, -7.88834, -90.5022, -84.5277, -148.853
0.608, -1, 8.88839, 2.89836, 11.7416, 155.156, -69.5262, 151.444, 133.174, 10.8079, -7.91431, -90.6001, -84.5569, -148.851
0.612, -1, 8.8218, 2.90081, 11.7142, 155.151, -69.4611, 151.438, 133.155, 10.7363, -7.94027, -90.6978, -84.5862, -148.849
0.616, -1, 8.75524, 2.90325, 11.6867, 155.146, -69.3961, 151.433, 133.135, 10.6647, -7.96622, -90.7956, -84.6154, -148.846
0.62, -1, 8.68873, 2.90569, 11.6593, 155.141, -69.3311, 151.427, 133.116, 10.5932, -7.99214, -90.8933, -84.6446, -148.844
0.624, -1, 8.62225, 2.90813, 11.6319, 155.137, -69.2661, 151.421, 133.097, 10.5217, -8.01806, -90.9909, -84.6738, -148.842
0.628, -1, 8.55581, 2.91056, 11.6045, 155.132, -69.2012, 151.415, 133.077, 10.4503, -8.04395, -91.0884, -84.703, -148.839
0.632, -1, 8.48941, 2.913, 11.5771, 155.127, -69.1363, 151.41, 133.058, 10.3789, -8.06984, -91.186, -84.7321, -148.837
0.636, -1, 8.42305, 2.91543, 11.5497, 155.122, -69.0714, 151.404, 133.039, 10.3075, -8.0957, -91.2834, -84.7613, -148.835
0.64, -1, 8.35673, 2.91786, 11.5224, 155.117, -69.0066, 151.398, 133.019, 10.2362, -8.12156, -91.3808, -84.7904, -148.833
0.644, -1, 8.29044, 2.92029, 11.495, 155.112, -68.9419, 151.392, 133, 10.165, -8.1474, -91.4781, -84.8195, -148.83
0.648, -1, 8.2242, 2.92272, 11.4677, 155.107, -68.8771, 151.386, 132.981, 10.0937, -8.17322, -91.5754, -84.8486, -148.828
0.652, -1, 8.15799, 2.92515, 11.4404, 155.102, -68.8124, 151.381, 132.962, 10.0225, -8.19903, -91.6727, -84.8777, -148.826
0.656, -1, 8.09182, 2.92758, 11.4131, 155.098, -68.7477, 151.375, 132.942, 9.9514, -8.22482, -91.7698, -84.9067, -148.823
0.66, -1, 8.02569, 2.93, 11.3858, 155.093, -68.6831, 151.369, 132.923, 9.88029, -8.2506, -91.8669, -84.9358, -148.821
0.664, -1, 7.95959, 2.93243, 11.3586, 155.088, -68.6185, 151.363, 132.904, 9.80922, -8.27636, -91.964, -84.9648, -148.819
0.668, -1, 7.89353, 2.93485, 11.3313, 155.083, -68.554, 151.358, 132.885, 9.7382, -8.30211, -92.061, -84.9938, -148.816
0.672, -1, 7.82751, 2.93727, 11.3041, 155.078, -68.4894, 151.352, 132.865, 9.66721, -8.32784, -92.158, -85.0228, -148.814
0.676, -1, 7.76153, 2.93969, 11.2769, 155.073, -68.4249, 151.346, 132.846, 9.59627, -8.35357, -92.2548, -85.0518, -148.812
0.68, -1, 7.69559, 2.94211, 11.2497, 155.068, -68.3605, 151.34, 132.827, 9.52537, -8.37927, -92.3517, -85.0807, -148.81
0.684, -1, 7.62968, 2.94453, 11.2225, 155.064, -68.2961, 151.335, 132.808, 9.4545, -8.40496, -92.4485, -85.1097, -148.807
0.688, -1, 7.56381, 2.94694, 11.1954, 155.059, -68.2317, 151.329, 132.789, 9.38368, -8.43063, -92.5452, -85.1386, -148.805
0.692, -1, 7.49798, 2.94936, 11.1682, 155.054, -68.1674, 151.323, 132.77, 9.3129, -8.4563, -92.6419, -85.1675, -148.803
0.696, -1, 7.43219, 2.95177, 11.1411, 155.049, -68.1031, 151.318, 132.75, 9.24215, -8.48194, -92.7385, -85.1964, -148.801
0.7, -1, 7.36643, 2.95418, 11.114, 155.044, -68.0388, 151.312, 132.731, 9.17145, -8.50757, -92.8351, -85.2253, -148.798
0.704, -1, 7.30071, 2.95659, 11.0869, 155.039, -67.9746, 151.306, 132.712, 9.10079, -8.53319, -92.9316, -85.2541, -148.796
0.708, -1, 7.23503, 2.959, 11.0598, 155.035, -67.9104, 151.3, 132.693, 9.03017, -8.55879, -93.028, -85.283, -148.794
0.712, -1, 7.16938, 2.96141, 11.0327, 155.03, -67.8463, 151.295, 132.674, 8.95958, -8.58438, -93.1244, -85.3118, -148.791
0.716, -1, 7.10377, 2.96381, 11.0057, 155.025, -67.7821, 151.289, 132.655, 8.88904, -8.60996, -93.2208, -85.3406, -148.789
0.72, -1, 7.0382, 2.96622, 10.9786, 155.02, -67.7181, 151.283, 132.636, 8.81854, -8.63552, -93.317, -85.3694, -148.787
0.724, -1, 6.97266, 2.96862, 10.9516, 155.015, -67.654, 151.278, 132.617, 8.74807, -8.66106, -93.4133, -85.3982, -148.785
0.728, -1, 6.90716, 2.97103, 10.9246, 155.01, -67.59, 151.272, 132.598, 8.67765, -8.68659, -93.5095, -85.427, -148.782
0.732, -1, 6.8417, 2.97343, 10.8976, 155.006, -67.526, 151.266, 132.579, 8.60726, -8.71211, -93.6056, -85.4557, -148.78
0.736, -1, 6.77627, 2.97583, 10.8706, 155.001, -67.4621, 151.261, 132.56, 8.53691, -8.73761, -93.7017, -85.4844, -148.778
0.74, -1, 6.71088, 2.97822, 10.8436, 154.996, -67.3982, 151.255, 132.541, 8.4666, -8.7631, -93.7977, -85.5132, -148.776
0.744, -1, 6.64553, 2.98062, 10.8167, 154.991, -67.3343, 151.249, 132.522, 8.39634, -8.78858, -93.8937, -85.5418, -148.773
0.748, -1, 6.58021, 2.98302, 10.7897, 154.986, -67.2705, 151.243, 132.503, 8.32611, -8.81404, -93.9896, -85.5705, -148.771
0.752, -1, 6.51493, 2.98541, 10.7628, 154.982, -67.2067, 151.238, 132.484, 8.25591, -8.83949, -94.0855, -85.5992, -148.769
0.756, -1, 6.44969, 2.9878, 10.7359, 154.977, -67.1429, 151.232, 132.465, 8.18576, -8.86492, -94.1813, -85.6278, -148.767
0.76, -1, 6.38448, 2.99019, 10.709, 154.972, -67.0792, 151.226, 132.446, 8.11565, -8.89034, -94.277, -85.6565, -148.764
0.764, -1, 6.3193, 2.99258, 10.6822, 154.967, -67.0155, 151.221, 132.427, 8.04557, -8.91574, -94.3727, -85.6851, -148.762
0.768, -1, 6.25417, 2.99497, 10.6553, 154.962, -66.9518, 151.215, 132.408, 7.97554, -8.94113, -94.4684, -85.7137, -148.76
0.772, -1, 6.18907, 2.99736, 10.6284, 154.958, -66.8882, 151.209, 132.389, 7.90554, -8.96651, -94.564, -85.7423, -148.757
0.776, -1, 6.124, 2.99975, 10.6016, 154.953, -66.8246, 151.204, 132.37, 7.83558, -8.99187, -94.6595, -85.7709, -148.755
0.78, -1, 6.05897, 3.00213, 10.5748, 154.948, -66.7611, 151.198, 132.351, 7.76566, -9.01722, -94.755, -85.7994, -148.753
0.784, -1, 5.99398, 3.00452, 10.548, 154.943, -66.6975, 151.192, 132.332, 7.69577, -9.04255, -94.8505, -85.828, -148.751
0.788, -1, 5.92902, 3.0069, 10.5212, 154.939, -66.6341, 151.187, 132.313, 7.62593, -9.06787, -94.9459, -85.8565, -148.748
0.792, -1, 5.86409, 3.00928, 10.4944, 154.934, -66.5706, 151.181, 132.294, 7.55612, -9.09318, -95.0412, -85.885, -148.746
0.796, -1, 5.79921, 3.01166, 10.4677, 154.929, -66.5072, 151.176, 132.276, 7.48635, -9.11847, -95.1365, -85.9135, -148.744
0.8, -1, 5.73435, 3.01404, 10.4409, 154.924, -66.4438, 151.17, 132.257, 7.41662, -9.14375, -95.2317, -85.942, -148.742
0.804, -1, 5.66954, 3.01641, 10.4142, 154.919, -66.3805, 151.164, 132.238, 7.34693, -9.16902, -95.3269, -85.9704, -148.74
0.808, -1, 5.60475, 3.01879, 10.3875, 154.915, -66.3172, 151.159, 132.219, 7.27728, -9.19427, -95.4221, -85.9989, -148.737
0.812, -1, 5.54001, 3.02116, 10.3608, 154.91, -66.2539, 151.153, 132.2, 7.20766, -9.21951, -95.5171, -86.0273, -148.735
0.816, -1, 5.4753, 3.02354, 10.3341, 154.905, -66.1906, 151.147, 132.181, 7.13808, -9.24474, -95.6122, -86.0557, -148.733
0.82, -1, 5.41062, 3.02591, 10.3074, 154.9, -66.1274, 151.142, 132.162, 7.06854, -9.26995, -95.7072, -86.0841, -148.731
0.824, -1, 5.34598, 3.02828, 10.2808, 154.896, -66.0643, 151.136, 132.144, 6.99903, -9.29514, -95.8021, -86.1125, -148.728
0.828, -1, 5.28137, 3.03065, 10.2541, 154.891, -66.0011, 151.131, 132.125, 6.92957, -9.32033, -95.897, -86.1409, -148.726
0.832, -1, 5.2168, 3.03302, 10.2275, 154.886, -65.938, 151.125, 132.106, 6.86014, -9.3455, -95.9918, -86.1693, -148.724
0.836, -1, 5.15226, 3.03539, 10.2009, 154.881, -65.8749, 151.119, 132.087, 6.79075, -9.37066, -96.0865, -86.1976, -148.722
0.84, -1, 5.08776, 3.03775, 10.1743, 154.877, -65.8119, 151.114, 132.069, 6.72139, -9.3958, -96.1813, -86.2259, -148.719
0.844, -1, 5.02329, 3.04011, 10.1477, 154.872, -65.7489, 151.108, 132.05, 6.65207, -9.42093, -96.2759, -86.2542, -148.717
0.848, -1, 4.95886, 3.04248, 10.1211, 154.867, -65.6859, 151.102, 132.031, 6.58279, -9.44604, -96.3706, -86.2825, -148.715
0.852, -1, 4.89446, 3.04484, 10.0946, 154.863, -65.623, 151.097, 132.012, 6.51355, -9.47115, -96.4651, -86.3108, -148.713
0.856, -1, 4.83009, 3.0472, 10.068, 154.858, -65.5601, 151.091, 131.994, 6.44435, -9.49624, -96.5597, -86.3391, -148.71
0.86, -1, 4.76576, 3.04956, 10.0415, 154.853, -65.4972, 151.086, 131.975, 6.37518, -9.52131, -96.6541, -86.3673, -148.708
0.864, -1, 4.70147, 3.05192, 10.015, 154.848, -65.4344, 151.08, 131.956, 6.30604, -9.54637, -96.7485, -86.3955, -148.706
0.868, -1, 4.63721, 3.05427, 9.98847, 154.844, -65.3716, 151.074, 131.938, 6.23695, -9.57142, -96.8429, -86.4238, -148.704
0.872, -1, 4.57298, 3.05663, 9.96198, 154.839, -65.3088, 151.069, 131.919, 6.16789, -9.59646, -96.9372, -86.452, -148.702
0.876, -1, 4.50879, 3.05898, 9.93551, 154.834, -65.2461, 151.063, 131.9, 6.09887, -9.62148, -97.0315, -86.4802, -148.699
0.88, -1, 4.44463, 3.06134, 9.90905, 154.829, -65.1834, 151.058, 131.882, 6.02989, -9.64649, -97.1257, -86.5083, -148.697
0.884, -1, 4.3805, 3.06369, 9.8826, 154.825, -65.1207, 151.052, 131.863, 5.96094, -9.67149, -97.2199, -86.5365, -148.695
0.888, -1, 4.31641, 3.06604, 9.85617, 154.82, -65.0581, 151.047, 131.844, 5.89202, -9.69647, -97.314, -86.5646, -148.693
0.892, -1, 4.25235, 3.06839, 9.82976, 154.815, -64.9955, 151.041, 131.826, 5.82315, -9.72144, -97.4081, -86.5928, -148.69
0.896, -1, 4.18833, 3.07074, 9.80335, 154.811, -64.9329, 151.035, 131.807, 5.75431, -9.7464, -97.5021, -86.6209, -148.688
0.9, -1, 4.12434, 3.07308, 9.77696, 154.806, -64.8704, 151.03, 131.788, 5.68551, -9.77134, -97.5961, -86.649, -148.686
0.904, -1, 4.06039, 3.07543, 9.75059, 154.801, -64.8079, 151.024, 131.77, 5.61674, -9.79627, -97.69, -86.6771, -148.684
0.908, -1, 3.99646, 3.07777, 9.72423, 154.796, -64.7454, 151.019, 131.751, 5.54801, -9.82118, -97.7838, -86.7051, -148.682
0.912, -1, 3.93258, 3.08012, 9.69788, 154.792, -64.683, 151.013, 131.733, 5.47932, -9.84609, -97.8777, -86.7332, -148.679
0.916, -1, 3.86872, 3.08246, 9.67155, 154.787, -64.6206, 151.008, 131.714, 5.41066, -9.87098, -97.9714, -86.7612, -148.677
0.92, -1, 3.8049, 3.0848, 9.64523, 154.782, -64.5582, 151.002, 131.695, 5.34204, -9.89586, -98.0652, -86.7893, -148.675
0.924, -1, 3.74111, 3.08714, 9.61892, 154.778, -64.4958, 150.997, 131.677, 5.27345, -9.92072, -98.1588, -86.8173, -148.673
0.928, -1, 3.67736, 3.08948, 9.59263, 154.773, -64.4335, 150.991, 131.658, 5.2049, -9.94557, -98.2524, -86.8453, -148.671
0.932, -1, 3.61364, 3.09181, 9.56635, 154.768, -64.3713, 150.985, 131.64, 5.13639, -9.97041, -98.346, -86.8733, -148.668
0.936, -1, 3.54995, 3.09415, 9.54009, 154.764, -64.309, 150.98, 131.621, 5.06791, -9.99524, -98.4396, -86.9012, -148.666
0.94, -1, 3.48629, 3.09648, 9.51384, 154.759, -64.2468, 150.974, 131.603, 4.99947, -10.02, -98.533, -86.9292, -148.664
0.944, -1, 3.42267, 3.09882, 9.4876, 154.754, -64.1846, 150.969, 131.584, 4.93106, -10.0448, -98.6265, -86.9571, -148.662
0.948, -1, 3.35909, 3.10115, 9.46138, 154.75, -64.1225, 150.963, 131.566, 4.86269, -10.0696, -98.7198, -86.985, -148.66
0.952, -1, 3.29553, 3.10348, 9.43517, 154.745, -64.0604, 150.958, 131.547, 4.79436, -10.0944, -98.8132, -87.0129, -148.657
0.956, -1, 3.23201, 3.10581, 9.40897, 154.74, -63.9983, 150.952, 131.529, 4.72606, -10.1192, -98.9065, -87.0408, -148.655
0.96, -1, 3.16852, 3.10814, 9.38279, 154.736, -63.9362, 150.947, 131.51, 4.65779, -10.1439, -98.9997, -87.0687, -148.653
0.964, -1, 3.10506, 3.11046, 9.35662, 154.731, -63.8742, 150.941, 131.492, 4.58956, -10.1687, -99.0929, -87.0966, -148.651
0.968, -1, 3.04164, 3.11279, 9.33047, 154.726, -63.8122, 150.936, 131.473, 4.52137, -10.1934, -99.186, -87.1244, -148.649
0.972, -1, 2.97825, 3.11511, 9.30432, 154.722, -63.7503, 150.93, 131.455, 4.45321, -10.2181, -99.2791, -87.1523, -148.646
0.976, -1, 2.91489, 3.11744, 9.27819, 154.717, -63.6884, 150.925, 131.437, 4.38508, -10.2428, -99.3721, -87.1801, -148.644
0.98, -1, 2.85157, 3.11976, 9.25208, 154.712, -63.6265, 150.919, 131.418, 4.317, -10.2675, -99.4651, -87.2079, -148.642
0.984, -1, 2.78827, 3.12208, 9.22598, 154.708, -63.5646, 150.914, 131.4, 4.24894, -10.2921, -99.5581, -87.2357, -148.64
0.988, -1, 2.72501, 3.1244, 9.19989, 154.703, -63.5028, 150.908, 131.381, 4.18092, -10.3168, -99.651, -87.2635, -148.638
0.992, -1, 2.66178, 3.12672, 9.17382, 154.698, -63.441, 150.903, 131.363, 4.11294, -10.3414, -99.7438, -87.2912, -148.635
0.996, -1, 2.59859, 3.12904, 9.14775, 154.694, -63.3793, 150.897, 131.345, 4.04499, -10.3661, -99.8366, -87.319, -148.633
1, -1, 2.53543, 3.13135, 9.12171, 154.689, -63.3175, 150.892, 131.326, 3.97708, -10.3907, -99.9294, -87.3467, -148.631
1.004, -1, 2.4723, 3.13367, 9.09567, 154.684, -63.2558, 150.886, 131.308, 3.9092, -10.4153, -100.022, -87.3745, -148.629
1.008, -1, 2.4092, 3.13598, 9.06965, 154.68, -63.1942, 150.881, 131.289, 3.84135, -10.4399, -100.115, -87.4022, -148.627
1.012, -1, 2.34613, 3.1383, 9.04364, 154.675, -63.1325, 150.875, 131.271, 3.77354, -10.4645, -100.207, -87.4299, -148.624
1.016, -1, 2.2831, 3.14061, 9.01765, 154.671, -63.0709, 150.87, 131.253, 3.70577, -10.4891, -100.3, -87.4575, -148.622
1.02, -1, 2.2201, 3.14292, 8.99167, 154.666, -63.0094, 150.864, 131.234, 3.63803, -10.5136, -100.392, -87.4852, -148.62
1.024, -1, 2.15713, 3.14523, 8.9657, 154.661, -62.9478, 150.859, 131.216, 3.57032, -10.5382, -100.485, -87.5129, -148.618
1.027, -1, 2.09419, 3.14754, 8.93974, 154.657, -62.8863, 150.853, 131.198, 3.50265, -10.5627, -100.577, -87.5405, -148.616
1.032, -1, 2.03128, 3.14984, 8.9138, 154.652, -62.8248, 150.848, 131.18, 3.43501, -10.5872, -100.67, -87.5681, -148.614
1.036, -1, 1.96841, 3.15215, 8.88787, 154.647, -62.7634, 150.842, 131.161, 3.36741, -10.6117, -100.762, -87.5957, -148.611
1.04, -1, 1.90557, 3.15445, 8.86196, 154.643, -62.702, 150.837, 131.143, 3.29984, -10.6362, -100.854, -87.6233, -148.609
1.044, -1, 1.84276, 3.15676, 8.83605, 154.638, -62.6406, 150.831, 131.125, 3.2323, -10.6607, -100.947, -87.6509, -148.607
1.048, -1, 1.77998, 3.15906, 8.81016, 154.634, -62.5792, 150.826, 131.106, 3.1648, -10.6852, -101.039, -87.6785, -148.605
1.052, -1, 1.71723, 3.16136, 8.78429, 154.629, -62.5179, 150.821, 131.088, 3.09734, -10.7096, -101.131, -87.706, -148.603
1.055, -1, 1.65452, 3.16366, 8.75842, 154.624, -62.4566, 150.815, 131.07, 3.0299, -10.7341, -101.223, -87.7336, -148.601
1.06, -1, 1.59183, 3.16596, 8.73257, 154.62, -62.3954, 150.81, 131.052, 2.9625, -10.7585, -101.315, -87.7611, -148.598
1.064, -1, 1.52918, 3.16826, 8.70674, 154.615, -62.3341, 150.804, 131.034, 2.89514, -10.7829, -101.407, -87.7886, -148.596
1.068, -1, 1.46656, 3.17055, 8.68091, 154.611, -62.2729, 150.799, 131.015, 2.82781, -10.8073, -101.499, -87.8161, -148.594
1.072, -1, 1.40397, 3.17285, 8.6551, 154.606, -62.2118, 150.793, 130.997, 2.76051, -10.8317, -101.591, -87.8436, -148.592
1.076, -1, 1.34141, 3.17514, 8.6293, 154.601, -62.1506, 150.788, 130.979, 2.69325, -10.8561, -101.683, -87.8711, -148.59
1.08, -1, 1.27888, 3.17744, 8.60352, 154.597, -62.0895, 150.782, 130.961, 2.62602, -10.8805, -101.775, -87.8985, -148.588
1.084, -1, 1.21639, 3.17973, 8.57774, 154.592, -62.0284, 150.777, 130.943, 2.55882, -10.9049, -101.866, -87.926, -148.585
1.088, -1, 1.15392, 3.18202, 8.55198, 154.588, -61.9674, 150.772, 130.924, 2.49166, -10.9292, -101.958, -87.9534, -148.583
1.091, -1, 1.09149, 3.18431, 8.52624, 154.583, -61.9064, 150.766, 130.906, 2.42453, -10.9535, -102.05, -87.9808, -148.581
1.096, -1, 1.02908, 3.1866, 8.5005, 154.578, -61.8454, 150.761, 130.888, 2.35743, -10.9779, -102.141, -88.0082, -148.579
1.1, -1, 0.96671, 3.18888, 8.47478, 154.574, -61.7844, 150.755, 130.87, 2.29037, -11.0022, -102.233, -88.0356, -148.577
1.104, -1, 0.904368, 3.19117, 8.44907, 154.569, -61.7235, 150.75, 130.852, 2.22334, -11.0265, -102.325, -88.063, -148.575
1.108, -1, 0.842057, 3.19346, 8.42337, 154.565, -61.6626, 150.744, 130.834, 2.15634, -11.0508, -102.416, -88.0903, -148.572
1.112, -1, 0.779776, 3.19574, 8.39769, 154.56, -61.6017, 150.739, 130.816, 2.08938, -11.075, -102.508, -88.1177, -148.57
1.116, -1, 0.717526, 3.19802, 8.37202, 154.555, -61.5409, 150.734, 130.797, 2.02244, -11.0993, -102.599, -88.145, -148.568
1.119, -1, 0.655306, 3.2003, 8.34636, 154.551, -61.4801, 150.728, 130.779, 1.95555, -11.1236, -102.69, -88.1724, -148.566
1.124, -1, 0.593117, 3.20259, 8.32071, 154.546, -61.4193, 150.723, 130.761, 1.88868, -11.1478, -102.782, -88.1997, -148.564
1.128, -1, 0.530958, 3.20486, 8.29508, 154.542, -61.3586, 150.717, 130.743, 1.82184, -11.172, -102.873, -88.227, -148.562
1.132, -1, 0.46883, 3.20714, 8.26946, 154.537, -61.2979, 150.712, 130.725, 1.75504, -11.1963, -102.964, -88.2542, -148.559
1.136, -1, 0.406732, 3.20942, 8.24385, 154.533, -61.2372, 150.707, 130.707, 1.68827, -11.2205, -103.055, -88.2815, -148.557
1.14, -1, 0.344664, 3.2117, 8.21825, 154.528, -61.1765, 150.701, 130.689, 1.62154, -11.2447, -103.147, -88.3088, -148.555
1.144, -1, 0.282626, 3.21397, 8.19267, 154.523, -61.1159, 150.696, 130.671, 1.55483, -11.2688, -103.238, -88.336, -148.553
1.147, -1, 0.220618, 3.21625, 8.1671, 154.519, -61.0553, 150.69, 130.653, 1.48816, -11.293, -103.329, -88.3632, -148.551
1.152, -1, 0.15864, 3.21852, 8.14154, 154.514, -60.9947, 150.685, 130.635, 1.42152, -11.3172, -103.42, -88.3905, -148.549
1.156, -1, 0.0966913, 3.22079, 8.11599, 154.51, -60.9342, 150.68, 130.617, 1.35491, -11.3413, -103.511, -88.4177, -148.547
1.16, -1, 0.0347727, 3.22306, 8.09046, 154.505, -60.8737, 150.674, 130.599, 1.28834, -11.3654, -103.602, -88.4449, -148.544
1.164, -1, -0.0271161, 3.22533, 8.06494, 154.501, -60.8132, 150.669, 130.581, 1.22179, -11.3896, -103.692, -88.472, -148.542
1.168, -1, -0.0889753, 3.2276, 8.03942, 154.496, -60.7527, 150.663, 130.563, 1.15528, -11.4137, -103.783, -88.4992, -148.54
1.172, -1, -0.150805, 3.22987, 8.01393, 154.492, -60.6923, 150.658, 130.545, 1.0888, -11.4378, -103.874, -88.5263, -148.538
1.175, -1, -0.212605, 3.23213, 7.98844, 154.487, -60.6319, 150.653, 130.527, 1.02235, -11.4619, -103.965, -88.5535, -148.536
1.18, -1, -0.274375, 3.2344, 7.96297, 154.482, -60.5715, 150.647, 130.509, 0.955935, -11.486, -104.056, -88.5806, -148.534
1.184, -1, -0.336117, 3.23666, 7.93751, 154.478, -60.5112, 150.642, 130.491, 0.88955, -11.51, -104.146, -88.6077, -148.532
1.188, -1, -0.397828, 3.23893, 7.91206, 154.473, -60.4509, 150.637, 130.473, 0.823196, -11.5341, -104.237, -88.6348, -148.53
1.192, -1, -0.459511, 3.24119, 7.88662, 154.469, -60.3906, 150.631, 130.455, 0.756874, -11.5581, -104.327, -88.6619, -148.527
1.196, -1, -0.521164, 3.24345, 7.86119, 154.464, -60.3304, 150.626, 130.437, 0.690584, -11.5822, -104.418, -88.689, -148.525
1.2, -1, -0.582788, 3.24571, 7.83578, 154.46, -60.2701, 150.621, 130.419, 0.624325, -11.6062, -104.508, -88.716, -148.523
1.204, -1, -0.644382, 3.24797, 7.81038, 154.455, -60.2099, 150.615, 130.401, 0.558097, -11.6302, -104.599, -88.7431, -148.521
1.208, -1, -0.705948, 3.25023, 7.78499, 154.451, -60.1498, 150.61, 130.383, 0.4919, -11.6542, -104.689, -88.7701, -148.519
1.212, -1, -0.767484, 3.25248, 7.75961, 154.446, -60.0896, 150.604, 130.366, 0.425735, -11.6782, -104.78, -88.7971, -148.517
1.216, -1, -0.828992, 3.25474, 7.73425, 154.442, -60.0295, 150.599, 130.348, 0.359601, -11.7021, -104.87, -88.8242, -148.515
1.22, -1, -0.89047, 3.25699, 7.70889, 154.437, -59.9694, 150.594, 130.33, 0.293498, -11.7261, -104.96, -88.8512, -148.512
1.224, -1, -0.95192, 3.25925, 7.68355, 154.433, -59.9094, 150.588, 130.312, 0.227426, -11.7501, -105.051, -88.8781, -148.51
1.228, -1, -1.01334, 3.2615, 7.65822, 154.428, -59.8494, 150.583, 130.294, 0.161385, -11.774, -105.141, -88.9051, -148.508
1.232, -1, -1.07473, 3.26375, 7.63291, 154.424, -59.7894, 150.578, 130.276, 0.0953755, -11.7979, -105.231, -88.9321, -148.506
1.236, -1, -1.1361, 3.266, 7.6076, 154.419, -59.7294, 150.572, 130.258, 0.0293966, -11.8219, -105.321, -88.959, -148.504
1.24, -1, -1.19743, 3.26825, 7.58231, 154.415, -59.6694, 150.567, 130.24, -0.0365515, -11.8458, -105.411, -88.986, -148.502
1.244, -1, -1.25874, 3.2705, 7.55702, 154.41, -59.6095, 150.562, 130.223, -0.102469, -11.8697, -105.501, -89.0129, -148.5
1.248, -1, -1.32001, 3.27275, 7.53175, 154.406, -59.5496, 150.556, 130.205, -0.168355, -11.8935, -105.591, -89.0398, -148.498
1.252, -1, -1.38126, 3.27499, 7.5065, 154.401, -59.4898, 150.551, 130.187, -0.234211, -11.9174, -105.681, -89.0667, -148.495
1.256, -1, -1.44248, 3.27724, 7.48125, 154.397, -59.43, 150.546, 130.169, -0.300036, -11.9413, -105.771, -89.0936, -148.493
1.26, -1, -1.50367, 3.27948, 7.45601, 154.392, -59.3702, 150.54, 130.151, -0.365831, -11.9651, -105.861, -89.1204, -148.491
1.264, -1, -1.56484, 3.28172, 7.43079, 154.388, -59.3104, 150.535, 130.134, -0.431595, -11.989, -105.951, -89.1473, -148.489
1.267, -1, -1.62597, 3.28397, 7.40558, 154.383, -59.2506, 150.53, 130.116, -0.497329, -12.0128, -106.04, -89.1741, -148.487
1.272, -1, -1.68708, 3.28621, 7.38038, 154.379, -59.1909, 150.524, 130.098, -0.563032, -12.0366, -106.13, -89.201, -148.485
1.276, -1, -1.74816, 3.28845, 7.35519, 154.374, -59.1312, 150.519, 130.08, -0.628705, -12.0604, -106.22, -89.2278, -148.483
1.28, -1, -1.80921, 3.29069, 7.33001, 154.37, -59.0716, 150.514, 130.063, -0.694348, -12.0842, -106.309, -89.2546, -148.481
1.284, -1, -1.87023, 3.29292, 7.30485, 154.365, -59.0119, 150.509, 130.045, -0.75996, -12.108, -106.399, -89.2814, -148.479
1.288, -1, -1.93122, 3.29516, 7.2797, 154.361, -58.9523, 150.503, 130.027, -0.825542, -12.1318, -106.489, -89.3082, -148.476
1.292, -1, -1.99219, 3.2974, 7.25455, 154.356, -58.8927, 150.498, 130.009, -0.891094, -12.1556, -106.578, -89.335, -148.474
1.295, -1, -2.05313, 3.29963, 7.22942, 154.352, -58.8332, 150.493, 129.992, -0.956616, -12.1793, -106.668, -89.3617, -148.472
1.3, -1, -2.11404, 3.30186, 7.2043, 154.347, -58.7736, 150.487, 129.974, -1.02211, -12.2031, -106.757, -89.3885, -148.47
1.304, -1, -2.17492, 3.3041, 7.1792, 154.343, -58.7141, 150.482, 129.956, -1.08757, -12.2268, -106.847, -89.4152, -148.468
1.308, -1, -2.23578, 3.30633, 7.1541, 154.338, -58.6547, 150.477, 129.938, -1.153, -12.2505, -106.936, -89.4419, -148.466
1.312, -1, -2.2966, 3.30856, 7.12902, 154.334, -58.5952, 150.471, 129.921, -1.2184, -12.2742, -107.025, -89.4686, -148.464
1.316, -1, -2.3574, 3.31079, 7.10394, 154.329, -58.5358, 150.466, 129.903, -1.28378, -12.2979, -107.115, -89.4953, -148.462
1.32, -1, -2.41817, 3.31302, 7.07888, 154.325, -58.4764, 150.461, 129.885, -1.34912, -12.3216, -107.204, -89.522, -148.46
1.324, -1, -2.47892, 3.31525, 7.05383, 154.32, -58.4171, 150.456, 129.868, -1.41443, -12.3453, -107.293, -89.5487, -148.457
1.328, -1, -2.53963, 3.31747, 7.02879, 154.316, -58.3577, 150.45, 129.85, -1.47972, -12.369, -107.382, -89.5754, -148.455
1.332, -1, -2.60032, 3.3197, 7.00376, 154.312, -58.2984, 150.445, 129.832, -1.54497, -12.3926, -107.471, -89.602, -148.453
1.336, -1, -2.66098, 3.32192, 6.97875, 154.307, -58.2391, 150.44, 129.815, -1.61019, -12.4163, -107.56, -89.6286, -148.451
1.34, -1, -2.72162, 3.32415, 6.95374, 154.303, -58.1799, 150.435, 129.797, -1.67539, -12.4399, -107.649, -89.6553, -148.449
1.344, -1, -2.78222, 3.32637, 6.92875, 154.298, -58.1206, 150.429, 129.78, -1.74055, -12.4635, -107.738, -89.6819, -148.447
1.348, -1, -2.8428, 3.32859, 6.90377, 154.294, -58.0614, 150.424, 129.762, -1.80569, -12.4871, -107.827, -89.7085, -148.445
1.352, -1, -2.90335, 3.33081, 6.8788, 154.289, -58.0023, 150.419, 129.744, -1.8708, -12.5107, -107.916, -89.7351, -148.443
1.356, -1, -2.96388, 3.33303, 6.85384, 154.285, -57.9431, 150.413, 129.727, -1.93587, -12.5343, -108.005, -89.7617, -148.441
1.36, -1, -3.02437, 3.33525, 6.82889, 154.28, -57.884, 150.408, 129.709, -2.00092, -12.5579, -108.094, -89.7882, -148.439
1.364, -1, -3.08484, 3.33747, 6.80395, 154.276, -57.8249, 150.403, 129.692, -2.06594, -12.5815, -108.183, -89.8148, -148.437
1.368, -1, -3.14529, 3.33968, 6.77902, 154.271, -57.7658, 150.398, 129.674, -2.13093, -12.605, -108.272, -89.8413, -148.434
1.372, -1, -3.2057, 3.3419, 6.75411, 154.267, -57.7068, 150.392, 129.656, -2.19589, -12.6286, -108.36, -89.8679, -148.432
1.376, -1, -3.26609, 3.34411, 6.72921, 154.263, -57.6478, 150.387, 129.639, -2.26082, -12.6521, -108.449, -89.8944, -148.43
1.38, -1, -3.32645, 3.34633, 6.70431, 154.258, -57.5888, 150.382, 129.621, -2.32572, -12.6757, -108.538, -89.9209, -148.428
1.384, -1, -3.38679, 3.34854, 6.67943, 154.254, -57.5298, 150.377, 129.604, -2.3906, -12.6992, -108.626, -89.9474, -148.426
1.388, -1, -3.4471, 3.35075, 6.65456, 154.249, -57.4709, 150.371, 129.586, -2.45544, -12.7227, -108.715, -89.9739, -148.424
1.392, -1, -3.50738, 3.35296, 6.6297, 154.245, -57.4119, 150.366, 129.569, -2.52026, -12.7462, -108.803, -90.0003, -148.422
1.396, -1, -3.56763, 3.35517, 6.60485, 154.24, -57.3531, 150.361, 129.551, -2.58504, -12.7697, -108.892, -90.0268, -148.42
1.4, -1, -3.62786, 3.35738, 6.58001, 154.236, -57.2942, 150.356, 129.534, -2.6498, -12.7931, -108.98, -90.0532, -148.418
1.404, -1, -3.68806, 3.35959, 6.55519, 154.232, -57.2354, 150.35, 129.516, -2.71453, -12.8166, -109.069, -90.0797, -148.416
1.408, -1, -3.74824, 3.36179, 6.53037, 154.227, -57.1766, 150.345, 129.499, -2.77923, -12.8401, -109.157, -90.1061, -148.414
1.412, -1, -3.80838, 3.364, 6.50557, 154.223, -57.1178, 150.34, 129.481, -2.84391, -12.8635, -109.245, -90.1325, -148.411
1.416, -1, -3.86851, 3.36621, 6.48077, 154.218, -57.059, 150.335, 129.464, -2.90855, -12.8869, -109.334, -90.1589, -148.409
1.42, -1, -3.9286, 3.36841, 6.45599, 154.214, -57.0003, 150.33, 129.446, -2.97316, -12.9104, -109.422, -90.1853, -148.407
1.424, -1, -3.98867, 3.37061, 6.43122, 154.209, -56.9416, 150.324, 129.429, -3.03775, -12.9338, -109.51, -90.2117, -148.405
1.428, -1, -4.04871, 3.37281, 6.40646, 154.205, -56.8829, 150.319, 129.411, -3.10231, -12.9572, -109.598, -90.2381, -148.403
1.432, -1, -4.10873, 3.37501, 6.38171, 154.201, -56.8243, 150.314, 129.394, -3.16684, -12.9806, -109.686, -90.2644, -148.401
1.436, -1, -4.16872, 3.37721, 6.35697, 154.196, -56.7656, 150.309, 129.376, -3.23134, -13.004, -109.774, -90.2907, -148.399
1.44, -1, -4.22868, 3.37941, 6.33224, 154.192, -56.707, 150.303, 129.359, -3.29582, -13.0273, -109.863, -90.3171, -148.397
1.444, -1, -4.28862, 3.38161, 6.30752, 154.187, -56.6484, 150.298, 129.341, -3.36026, -13.0507, -109.951, -90.3434, -148.395
1.448, -1, -4.34853, 3.38381, 6.28282, 154.183, -56.5899, 150.293, 129.324, -3.42468, -13.0741, -110.038, -90.3697, -148.393
1.452, -1, -4.40841, 3.38601, 6.25812, 154.179, -56.5314, 150.288, 129.307, -3.48907, -13.0974, -110.126, -90.396, -148.391
1.456, -1, -4.46827, 3.3882, 6.23343, 154.174, -56.4729, 150.283, 129.289, -3.55343, -13.1207, -110.214, -90.4223, -148.389
1.46, -1, -4.5281, 3.39039, 6.20876, 154.17, -56.4144, 150.277, 129.272, -3.61776, -13.1441, -110.302, -90.4486, -148.387
1.464, -1, -4.58791, 3.39259, 6.1841, 154.165, -56.3559, 150.272, 129.254, -3.68207, -13.1674, -110.39, -90.4748, -148.384
1.468, -1, -4.64769, 3.39478, 6.15944, 154.161, -56.2975, 150.267, 129.237, -3.74635, -13.1907, -110.478, -90.5011, -148.382
1.472, -1, -4.70745, 3.39697, 6.1348, 154.157, -56.2391, 150.262, 129.22, -3.8106, -13.214, -110.566, -90.5273, -148.38
1.476, -1, -4.76717, 3.39916, 6.11017, 154.152, -56.1808, 150.257, 129.202, -3.87482, -13.2372, -110.653, -90.5536, -148.378
1.48, -1, -4.82688, 3.40135, 6.08555, 154.148, -56.1224, 150.251, 129.185, -3.93901, -13.2605, -110.741, -90.5798, -148.376
1.484, -1, -4.88655, 3.40354, 6.06094, 154.143, -56.0641, 150.246, 129.167, -4.00318, -13.2838, -110.829, -90.606, -148.374
1.488, -1, -4.94621, 3.40573, 6.03634, 154.139, -56.0058, 150.241, 129.15, -4.06732, -13.307, -110.916, -90.6322, -148.372
1.492, -1, -5.00583, 3.40791, 6.01175, 154.135, -55.9475, 150.236, 129.133, -4.13143, -13.3303, -111.004, -90.6583, -148.37
1.496, -1, -5.06543, 3.4101, 5.98717, 154.13, -55.8893, 150.231, 129.115, -4.19551, -13.3535, -111.091, -90.6845, -148.368
1.5, -1, -5.12501, 3.41228, 5.9626, 154.126, -55.831, 150.225, 129.098, -4.25957, -13.3767, -111.179, -90.7107, -148.366
1.504, -1, -5.18456, 3.41447, 5.93804, 154.122, -55.7729, 150.22, 129.081, -4.3236, -13.3999, -111.266, -90.7368, -148.364
1.508, -1, -5.24408, 3.41665, 5.9135, 154.117, -55.7147, 150.215, 129.064, -4.3876, -13.4231, -111.354, -90.763, -148.362
1.512, -1, -5.30358, 3.41883, 5.88896, 154.113, -55.6565, 150.21, 129.046, -4.45157, -13.4463, -111.441, -90.7891, -148.36
1.516, -1, -5.36306, 3.42101, 5.86443, 154.108, -55.5984, 150.205, 129.029, -4.51552, -13.4695, -111.528, -90.8152, -148.358
1.52, -1, -5.42251, 3.42319, 5.83992, 154.104, -55.5403, 150.2, 129.012, -4.57944, -13.4927, -111.616, -90.8413, -148.356
1.524, -1, -5.48193, 3.42537, 5.81541, 154.1, -55.4822, 150.194, 128.994, -4.64333, -13.5159, -111.703, -90.8674, -148.354
1.528, -1, -5.54133, 3.42755, 5.79092, 154.095, -55.4242, 150.189, 128.977, -4.7072, -13.539, -111.79, -90.8935, -148.351
1.532, -1, -5.6007, 3.42973, 5.76643, 154.091, -55.3662, 150.184, 128.96, -4.77104, -13.5622, -111.877, -90.9196, -148.349
1.536, -1, -5.66005, 3.43191, 5.74196, 154.087, -55.3082, 150.179, 128.943, -4.83485, -13.5853, -111.964, -90.9456, -148.347
1.54, -1, -5.71938, 3.43408, 5.71749, 154.082, -55.2502, 150.174, 128.925, -4.89864, -13.6084, -112.052, -90.9717, -148.345
1.544, -1, -5.77867, 3.43625, 5.69304, 154.078, -55.1922, 150.169, 128.908, -4.96239, -13.6315, -112.139, -90.9977, -148.343
1.548, -1, -5.83795, 3.43843, 5.66859, 154.074, -55.1343, 150.163, 128.891, -5.02613, -13.6546, -112.226, -91.0238, -148.341
1.552, -1, -5.8972, 3.4406, 5.64416, 154.069, -55.0764, 150.158, 128.874, -5.08983, -13.6777, -112.313, -91.0498, -148.339
1.556, -1, -5.95642, 3.44277, 5.61973, 154.065, -55.0185, 150.153, 128.856, -5.15351, -13.7008, -112.4, -91.0758, -148.337
1.56, -1, -6.01562, 3.44494, 5.59532, 154.06, -54.9607, 150.148, 128.839, -5.21717, -13.7239, -112.487, -91.1018, -148.335
1.564, -1, -6.0748, 3.44711, 5.57092, 154.056, -54.9028, 150.143, 128.822, -5.28079, -13.747, -112.574, -91.1278, -148.333
1.568, -1, -6.13395, 3.44928, 5.54652, 154.052, -54.845, 150.138, 128.805, -5.34439, -13.77, -112.66, -91.1537, -148.331
1.572, -1, -6.19308, 3.45145, 5.52214, 154.047, -54.7872, 150.133, 128.787, -5.40797, -13.7931, -112.747, -91.1797, -148.329
1.576, -1, -6.25218, 3.45362, 5.49776, 154.043, -54.7295, 150.127, 128.77, -5.47152, -13.8161, -112.834, -91.2057, -148.327
1.58, -1, -6.31126, 3.45579, 5.4734, 154.039, -54.6717, 150.122, 128.753, -5.53504, -13.8391, -112.921, -91.2316, -148.325
1.584, -1, -6.37031, 3.45795, 5.44904, 154.034, -54.614, 150.117, 128.736, -5.59854, -13.8621, -113.007, -91.2575, -148.323
1.588, -1, -6.42934, 3.46012, 5.4247, 154.03, -54.5563, 150.112, 128.719, -5.66201, -13.8852, -113.094, -91.2835, -148.321
1.592, -1, -6.48835, 3.46228, 5.40037, 154.026, -54.4987, 150.107, 128.702, -5.72545, -13.9082, -113.181, -91.3094, -148.319
1.596, -1, -6.54733, 3.46444, 5.37604, 154.021, -54.441, 150.102, 128.684, -5.78887, -13.9311, -113.267, -91.3353, -148.317
1.6, -1, -6.60629, 3.46661, 5.35173, 154.017, -54.3834, 150.097, 128.667, -5.85226, -13.9541, -113.354, -91.3612, -148.315
1.604, -1, -6.66522, 3.46877, 5.32743, 154.013, -54.3258, 150.092, 128.65, -5.91563, -13.9771, -113.441, -91.387, -148.313
1.608, -1, -6.72413, 3.47093, 5.30313, 154.008, -54.2682, 150.086, 128.633, -5.97897, -14.0001, -113.527, -91.4129, -148.311
1.612, -1, -6.78302, 3.47309, 5.27885, 154.004, -54.2107, 150.081, 128.616, -6.04228, -14.023, -113.614, -91.4388, -148.309
1.616, -1, -6.84188, 3.47524, 5.25457, 154, -54.1532, 150.076, 128.599, -6.10557, -14.046, -113.7, -91.4646, -148.306
1.62, -1, -6.90072, 3.4774, 5.23031, 153.995, -54.0957, 150.071, 128.582, -6.16884, -14.0689, -113.786, -91.4905, -148.304
1.624, -1, -6.95953, 3.47956, 5.20606, 153.991, -54.0382, 150.066, 128.565, -6.23208, -14.0918, -113.873, -91.5163, -148.302
1.628, -1, -7.01832, 3.48172, 5.18181, 153.987, -53.9807, 150.061, 128.547, -6.29529, -14.1147, -113.959, -91.5421, -148.3
1.632, -1, -7.07709, 3.48387, 5.15758, 153.982, -53.9233, 150.056, 128.53, -6.35848, -14.1376, -114.045, -91.5679, -148.298
1.636, -1, -7.13583, 3.48602, 5.13335, 153.978, -53.8659, 150.051, 128.513, -6.42164, -14.1605, -114.132, -91.5937, -148.296
1.64, -1, -7.19455, 3.48818, 5.10914, 153.974, -53.8085, 150.046, 128.496, -6.48477, -14.1834, -114.218, -91.6195, -148.294
1.644, -1, -7.25325, 3.49033, 5.08493, 153.969, -53.7511, 150.04, 128.479, -6.54789, -14.2063, -114.304, -91.6453, -148.292
1.648, -1, -7.31192, 3.49248, 5.06073, 153.965, -53.6938, 150.035, 128.462, -6.61097, -14.2292, -114.39, -91.671, -148.29
1.652, -1, -7.37057, 3.49463, 5.03655, 153.961, -53.6365, 150.03, 128.445, -6.67403, -14.252, -114.476, -91.6968, -148.288
1.656, -1, -7.42919, 3.49678, 5.01237, 153.957, -53.5792, 150.025, 128.428, -6.73707, -14.2749, -114.562, -91.7225, -148.286
1.66, -1, -7.4878, 3.49893, 4.9882, 153.952, -53.5219, 150.02, 128.411, -6.80008, -14.2977, -114.649, -91.7483, -148.284
1.664, -1, -7.54637, 3.50108, 4.96405, 153.948, -53.4647, 150.015, 128.394, -6.86306, -14.3206, -114.735, -91.774, -148.282
1.668, -1, -7.60493, 3.50323, 4.9399, 153.944, -53.4074, 150.01, 128.377, -6.92602, -14.3434, -114.821, -91.7997, -148.28
1.672, -1, -7.66346, 3.50537, 4.91576, 153.939, -53.3502, 150.005, 128.36, -6.98896, -14.3662, -114.907, -91.8254, -148.278
1.676, -1, -7.72197, 3.50752, 4.89163, 153.935, -53.2931, 150, 128.343, -7.05187, -14.389, -114.992, -91.8511, -148.276
1.68, -1, -7.78046, 3.50966, 4.86751, 153.931, -53.2359, 149.995, 128.326, -7.11476, -14.4118, -115.078, -91.8768, -148.274
1.684, -1, -7.83892, 3.51181, 4.8434, 153.926, -53.1788, 149.989, 128.309, -7.17762, -14.4346, -115.164, -91.9025, -148.272
1.688, -1, -7.89736, 3.51395, 4.8193, 153.922, -53.1217, 149.984, 128.292, -7.24045, -14.4574, -115.25, -91.9281, -148.27
1.692, -1, -7.95578, 3.51609, 4.79521, 153.918, -53.0646, 149.979, 128.275, -7.30326, -14.4802, -115.336, -91.9538, -148.268
1.696, -1, -8.01417, 3.51823, 4.77113, 153.914, -53.0075, 149.974, 128.258, -7.36605, -14.5029, -115.422, -91.9794, -148.266
1.7, -1, -8.07254, 3.52038, 4.74706, 153.909, -52.9504, 149.969, 128.241, -7.42881, -14.5257, -115.507, -92.005, -148.264
1.704, -1, -8.13089, 3.52251, 4.723, 153.905, -52.8934, 149.964, 128.224, -7.49155, -14.5484, -115.593, -92.0307, -148.262
1.708, -1, -8.18921, 3.52465, 4.69895, 153.901, -52.8364, 149.959, 128.207, -7.55426, -14.5712, -115.679, -92.0563, -148.26
1.712, -1, -8.24752, 3.52679, 4.6749, 153.896, -52.7794, 149.954, 128.19, -7.61695, -14.5939, -115.764, -92.0819, -148.258
1.716, -1, -8.3058, 3.52893, 4.65087, 153.892, -52.7225, 149.949, 128.173, -7.67961, -14.6166, -115.85, -92.1075, -148.256
1.72, -1, -8.36405, 3.53107, 4.62684, 153.888, -52.6656, 149.944, 128.156, -7.74225, -14.6393, -115.935, -92.1331, -148.254
1.724, -1, -8.42229, 3.5332, 4.60283, 153.884, -52.6086, 149.939, 128.139, -7.80486, -14.662, -116.021, -92.1586, -148.252
1.728, -1, -8.4805, 3.53534, 4.57882, 153.879, -52.5518, 149.934, 128.122, -7.86745, -14.6847, -116.106, -92.1842, -148.25
1.732, -1, -8.53869, 3.53747, 4.55483, 153.875, -52.4949, 149.929, 128.105, -7.93002, -14.7074, -116.192, -92.2097, -148.248
1.736, -1, -8.59685, 3.5396, 4.53084, 153.871, -52.438, 149.924, 128.088, -7.99256, -14.73, -116.277, -92.2353, -148.246
1.74, -1, -8.655, 3.54173, 4.50686, 153.866, -52.3812, 149.918, 128.071, -8.05508, -14.7527, -116.363, -92.2608, -148.244
1.744, -1, -8.71312, 3.54387, 4.48289, 153.862, -52.3244, 149.913, 128.055, -8.11757, -14.7754, -116.448, -92.2863, -148.242
1.748, -1, -8.77121, 3.546, 4.45893, 153.858, -52.2676, 149.908, 128.038, -8.18004, -14.798, -116.533, -92.3119, -148.24
1.752, -1, -8.82929, 3.54813, 4.43498, 153.854, -52.2109, 149.903, 128.021, -8.24249, -14.8207, -116.619, -92.3374, -148.238
1.756, -1, -8.88735, 3.55026, 4.41104, 153.849, -52.1541, 149.898, 128.004, -8.30491, -14.8433, -116.704, -92.3629, -148.236
1.76, -1, -8.94538, 3.55238, 4.38711, 153.845, -52.0974, 149.893, 127.987, -8.3673, -14.8659, -116.789, -92.3883, -148.234
1.764, -1, -9.00339, 3.55451, 4.36319, 153.841, -52.0407, 149.888, 127.97, -8.42968, -14.8885, -116.874, -92.4138, -148.232
1.768, -1, -9.06137, 3.55664, 4.33928, 153.837, -51.9841, 149.883, 127.953, -8.49202, -14.9111, -116.959, -92.4393, -148.23
1.772, -1, -9.11934, 3.55876, 4.31537, 153.832, -51.9274, 149.878, 127.936, -8.55435, -14.9337, -117.044, -92.4647, -148.228
1.776, -1, -9.17728, 3.56089, 4.29148, 153.828, -51.8708, 149.873, 127.92, -8.61665, -14.9563, -117.13, -92.4902, -148.226
1.78, -1, -9.2352, 3.56301, 4.26759, 153.824, -51.8142, 149.868, 127.903, -8.67893, -14.9789, -117.215, -92.5156, -148.224
1.784, -1, -9.2931, 3.56513, 4.24371, 153.819, -51.7576, 149.863, 127.886, -8.74118, -15.0014, -117.3, -92.541, -148.222
1.788, -1, -9.35098, 3.56726, 4.21985, 153.815, -51.701, 149.858, 127.869, -8.80341, -15.024, -117.385, -92.5665, -148.22
1.792, -1, -9.40883, 3.56938, 4.19599, 153.811, -51.6445, 149.853, 127.852, -8.86562, -15.0466, -117.47, -92.5919, -148.218
1.796, -1, -9.46666, 3.5715, 4.17214, 153.807, -51.588, 149.848, 127.835, -8.9278, -15.0691, -117.555, -92.6173, -148.216
1.8, -1, -9.52447, 3.57362, 4.1483, 153.802, -51.5315, 149.843, 127.819, -8.98996, -15.0916, -117.639, -92.6426, -148.214
1.804, -1, -9.58226, 3.57574, 4.12447, 153.798, -51.475, 149.838, 127.802, -9.0521, -15.1142, -117.724, -92.668, -148.212
1.808, -1, -9.64003, 3.57786, 4.10064, 153.794, -51.4185, 149.833, 127.785, -9.11421, -15.1367, -117.809, -92.6934, -148.21
1.812, -1, -9.69777, 3.57997, 4.07683, 153.79, -51.3621, 149.828, 127.768, -9.1763, -15.1592, -117.894, -92.7188, -148.208
1.816, -1, -9.7555, 3.58209, 4.05303, 153.785, -51.3057, 149.823, 127.751, -9.23836, -15.1817, -117.979, -92.7441, -148.206
1.82, -1, -9.8132, 3.58421, 4.02923, 153.781, -51.2493, 149.818, 127.735, -9.3004, -15.2042, -118.063, -92.7694, -148.204
1.824, -1, -9.87088, 3.58632, 4.00544, 153.777, -51.1929, 149.813, 127.718, -9.36242, -15.2267, -118.148, -92.7948, -148.202
1.828, -1, -9.92853, 3.58844, 3.98167, 153.773, -51.1366, 149.808, 127.701, -9.42442, -15.2491, -118.233, -92.8201, -148.2
1.832, -1, -9.98617, 3.59055, 3.9579, 153.769, -51.0803, 149.803, 127.684, -9.48639, -15.2716, -118.317, -92.8454, -148.198
1.836, -1, -10.0438, 3.59266, 3.93414, 153.764, -51.024, 149.798, 127.668, -9.54834, -15.2941, -118.402, -92.8707, -148.196
1.84, -1, -10.1014, 3.59478, 3.91039, 153.76, -50.9677, 149.793, 127.651, -9.61027, -15.3165, -118.487, -92.896, -148.194
1.844, -1, -10.159, 3.59689, 3.88664, 153.756, -50.9114, 149.788, 127.634, -9.67217, -15.339, -118.571, -92.9213, -148.192
1.848, -1, -10.2165, 3.599, 3.86291, 153.752, -50.8552, 149.783, 127.617, -9.73405, -15.3614, -118.656, -92.9465, -148.19
1.852, -1, -10.274, 3.60111, 3.83919, 153.747, -50.7989, 149.778, 127.601, -9.7959, -15.3838, -118.74, -92.9718, -148.188
1.856, -1, -10.3315, 3.60322, 3.81547, 153.743, -50.7427, 149.773, 127.584, -9.85774, -15.4062, -118.825, -92.9971, -148.186
1.86, -1, -10.389, 3.60532, 3.79176, 153.739, -50.6866, 149.768, 127.567, -9.91955, -15.4286, -118.909, -93.0223, -148.184
1.864, -1, -10.4465, 3.60743, 3.76807, 153.735, -50.6304, 149.763, 127.55, -9.98134, -15.451, -118.993, -93.0475, -148.182
1.868, -1, -10.5039, 3.60954, 3.74438, 153.73, -50.5743, 149.758, 127.534, -10.0431, -15.4734, -119.078, -93.0728, -148.18
1.872, -1, -10.5614, 3.61164, 3.7207, 153.726, -50.5181, 149.753, 127.517, -10.1048, -15.4958, -119.162, -93.098, -148.178
1.876, -1, -10.6188, 3.61375, 3.69702, 153.722, -50.462, 149.748, 127.5, -10.1666, -15.5182, -119.246, -93.1232, -148.176
1.88, -1, -10.6761, 3.61585, 3.67336, 153.718, -50.406, 149.743, 127.484, -10.2283, -15.5406, -119.331, -93.1484, -148.174
1.884, -1, -10.7335, 3.61796, 3.64971, 153.714, -50.3499, 149.738, 127.467, -10.2899, -15.5629, -119.415, -93.1736, -148.172
1.888, -1, -10.7908, 3.62006, 3.62606, 153.709, -50.2939, 149.733, 127.45, -10.3516, -15.5853, -119.499, -93.1988, -148.17
1.892, -1, -10.8482, 3.62216, 3.60242, 153.705, -50.2379, 149.728, 127.434, -10.4132, -15.6076, -119.583, -93.2239, -148.168
1.896, -1, -10.9054, 3.62426, 3.5788, 153.701, -50.1819, 149.723, 127.417, -10.4748, -15.6299, -119.667, -93.2491, -148.166
1.9, -1, -10.9627, 3.62636, 3.55518, 153.697, -50.1259, 149.718, 127.4, -10.5364, -15.6523, -119.752, -93.2742, -148.164
1.904, -1, -11.02, 3.62846, 3.53156, 153.693, -50.0699, 149.713, 127.384, -10.598, -15.6746, -119.836, -93.2994, -148.162
1.908, -1, -11.0772, 3.63056, 3.50796, 153.688, -50.014, 149.708, 127.367, -10.6595, -15.6969, -119.92, -93.3245, -148.16
1.912, -1, -11.1344, 3.63266, 3.48437, 153.684, -49.9581, 149.703, 127.35, -10.721, -15.7192, -120.004, -93.3496, -148.158
1.916, -1, -11.1916, 3.63476, 3.46078, 153.68, -49.9022, 149.698, 127.334, -10.7825, -15.7415, -120.088, -93.3747, -148.156
1.92, -1, -11.2488, 3.63685, 3.43721, 153.676, -49.8463, 149.693, 127.317, -10.844, -15.7638, -120.172, -93.3999, -148.154
1.924, -1, -11.3059, 3.63895, 3.41364, 153.672, -49.7905, 149.688, 127.3, -10.9054, -15.7861, -120.256, -93.4249, -148.152
1.928, -1, -11.3631, 3.64104, 3.39008, 153.667, -49.7346, 149.683, 127.284, -10.9669, -15.8083, -120.339, -93.45, -148.15
1.932, -1, -11.4202, 3.64314, 3.36652, 153.663, -49.6788, 149.678, 127.267, -11.0283, -15.8306, -120.423, -93.4751, -148.148
1.936, -1, -11.4773, 3.64523, 3.34298, 153.659, -49.623, 149.673, 127.251, -11.0896, -15.8528, -120.507, -93.5002, -148.146
1.94, -1, -11.5343, 3.64732, 3.31944, 153.655, -49.5672, 149.668, 127.234, -11.151, -15.8751, -120.591, -93.5252, -148.144
1.944, -1, -11.5914, 3.64942, 3.29592, 153.651, -49.5115, 149.663, 127.217, -11.2123, -15.8973, -120.675, -93.5503, -148.142
1.948, -1, -11.6484, 3.65151, 3.2724, 153.646, -49.4558, 149.658, 127.201, -11.2737, -15.9195, -120.758, -93.5753, -148.14
1.952, -1, -11.7054, 3.6536, 3.24889, 153.642, -49.4001, 149.653, 127.184, -11.335, -15.9418, -120.842, -93.6004, -148.138
1.956, -1, -11.7624, 3.65569, 3.22539, 153.638, -49.3444, 149.648, 127.168, -11.3962, -15.964, -120.926, -93.6254, -148.136
1.96, -1, -11.8194, 3.65778, 3.2019, 153.634, -49.2887, 149.643, 127.151, -11.4575, -15.9862, -121.009, -93.6504, -148.134
1.964, -1, -11.8763, 3.65986, 3.17841, 153.63, -49.233, 149.638, 127.135, -11.5187, -16.0084, -121.093, -93.6754, -148.132
1.968, -1, -11.9332, 3.66195, 3.15494, 153.625, -49.1774, 149.633, 127.118, -11.5799, -16.0306, -121.177, -93.7004, -148.13
1.972, -1, -11.9901, 3.66404, 3.13147, 153.621, -49.1218, 149.628, 127.101, -11.6411, -16.0528, -121.26, -93.7254, -148.128
1.976, -1, -12.047, 3.66612, 3.10801, 153.617, -49.0662, 149.623, 127.085, -11.7023, -16.0749, -121.344, -93.7504, -148.126
1.98, -1, -12.1039, 3.66821, 3.08456, 153.613, -49.0106, 149.619, 127.068, -11.7634, -16.0971, -121.427, -93.7754, -148.124
1.984, -1, -12.1607, 3.67029, 3.06112, 153.609, -48.9551, 149.614, 127.052, -11.8245, -16.1193, -121.511, -93.8003, -148.122
1.988, -1, -12.2176, 3.67238, 3.03768, 153.604, -48.8995, 149.609, 127.035, -11.8856, -16.1414, -121.594, -93.8253, -148.12
1.992, -1, -12.2744, 3.67446, 3.01426, 153.6, -48.844, 149.604, 127.019, -11.9467, -16.1635, -121.678, -93.8502, -148.118
1.996, -1, -12.3312, 3.67654, 2.99084, 153.596, -48.7885, 149.599, 127.002, -12.0078, -16.1857, -121.761, -93.8752, -148.116
1.999, -1, -12.3879, 3.67863, 2.96743, 153.592, -48.733, 149.594, 126.986, -12.0688, -16.2078, -121.844, -93.9001, -148.115
2.004, -1, -12.4447, 3.68071, 2.94402, 153.588, -48.6776, 149.589, 126.969, -12.1298, -16.2299, -121.928, -93.925, -148.113
2.008, -1, -12.5014, 3.68279, 2.92063, 153.584, -48.6221, 149.584, 126.953, -12.1908, -16.252, -122.011, -93.9499, -148.111
2.012, -1, -12.5581, 3.68487, 2.89724, 153.579, -48.5667, 149.579, 126.936, -12.2518, -16.2741, -122.094, -93.9748, -148.109
2.015, -1, -12.6148, 3.68695, 2.87387, 153.575, -48.5113, 149.574, 126.92, -12.3128, -16.2962, -122.178, -93.9997, -148.107
2.019, -1, -12.6715, 3.68902, 2.8505, 153.571, -48.4559, 149.569, 126.903, -12.3737, -16.3183, -122.261, -94.0246, -148.105
2.024, -1, -12.7281, 3.6911, 2.82713, 153.567, -48.4006, 149.564, 126.887, -12.4346, -16.3404, -122.344, -94.0495, -148.103
2.028, -1, -12.7848, 3.69318, 2.80378, 153.563, -48.3452, 149.559, 126.87, -12.4955, -16.3625, -122.427, -94.0743, -148.101
2.031, -1, -12.8414, 3.69525, 2.78043, 153.559, -48.2899, 149.554, 126.854, -12.5564, -16.3846, -122.51, -94.0992, -148.099
2.036, -1, -12.898, 3.69733, 2.7571, 153.554, -48.2346, 149.549, 126.837, -12.6172, -16.4066, -122.593, -94.1241, -148.097
2.04, -1, -12.9545, 3.6994, 2.73377, 153.55, -48.1793, 149.545, 126.821, -12.678, -16.4287, -122.676, -94.1489, -148.095
2.044, -1, -13.0111, 3.70148, 2.71044, 153.546, -48.124, 149.54, 126.804, -12.7388, -16.4507, -122.76, -94.1737, -148.093
2.048, -1, -13.0676, 3.70355, 2.68713, 153.542, -48.0688, 149.535, 126.788, -12.7996, -16.4727, -122.843, -94.1986, -148.091
2.051, -1, -13.1241, 3.70562, 2.66382, 153.538, -48.0135, 149.53, 126.772, -12.8604, -16.4948, -122.926, -94.2234, -148.089
2.055, -1, -13.1806, 3.70769, 2.64052, 153.534, -47.9583, 149.525, 126.755, -12.9211, -16.5168, -123.009, -94.2482, -148.087
2.06, -1, -13.2371, 3.70977, 2.61723, 153.53, -47.9031, 149.52, 126.739, -12.9819, -16.5388, -123.091, -94.273, -148.085
2.064, -1, -13.2936, 3.71184, 2.59395, 153.525, -47.848, 149.515, 126.722, -13.0426, -16.5608, -123.174, -94.2978, -148.083
2.068, -1, -13.35, 3.71391, 2.57068, 153.521, -47.7928, 149.51, 126.706, -13.1033, -16.5828, -123.257, -94.3226, -148.081
2.071, -1, -13.4064, 3.71597, 2.54741, 153.517, -47.7377, 149.505, 126.689, -13.1639, -16.6048, -123.34, -94.3473, -148.079
2.076, -1, -13.4628, 3.71804, 2.52415, 153.513, -47.6826, 149.5, 126.673, -13.2246, -16.6268, -123.423, -94.3721, -148.077
2.08, -1, -13.5192, 3.72011, 2.5009, 153.509, -47.6274, 149.495, 126.657, -13.2852, -16.6488, -123.506, -94.3969, -148.075
2.084, -1, -13.5756, 3.72218, 2.47765, 153.505, -47.5724, 149.491, 126.64, -13.3458, -16.6707, -123.588, -94.4216, -148.073
2.087, -1, -13.6319, 3.72424, 2.45442, 153.501, -47.5173, 149.486, 126.624, -13.4064, -16.6927, -123.671, -94.4464, -148.071
2.092, -1, -13.6882, 3.72631, 2.43119, 153.496, -47.4623, 149.481, 126.608, -13.4669, -16.7147, -123.754, -94.4711, -148.07
2.096, -1, -13.7445, 3.72837, 2.40797, 153.492, -47.4072, 149.476, 126.591, -13.5275, -16.7366, -123.837, -94.4958, -148.068
2.1, -1, -13.8008, 3.73044, 2.38476, 153.488, -47.3522, 149.471, 126.575, -13.588, -16.7586, -123.919, -94.5205, -148.066
2.104, -1, -13.8571, 3.7325, 2.36155, 153.484, -47.2972, 149.466, 126.558, -13.6485, -16.7805, -124.002, -94.5453, -148.064
2.107, -1, -13.9134, 3.73456, 2.33836, 153.48, -47.2423, 149.461, 126.542, -13.709, -16.8024, -124.085, -94.57, -148.062
2.111, -1, -13.9696, 3.73663, 2.31517, 153.476, -47.1873, 149.456, 126.526, -13.7694, -16.8243, -124.167, -94.5947, -148.06
2.116, -1, -14.0258, 3.73869, 2.29198, 153.472, -47.1324, 149.451, 126.509, -13.8299, -16.8462, -124.25, -94.6193, -148.058
2.12, -1, -14.082, 3.74075, 2.26881, 153.467, -47.0774, 149.447, 126.493, -13.8903, -16.8682, -124.332, -94.644, -148.056
2.124, -1, -14.1382, 3.74281, 2.24564, 153.463, -47.0225, 149.442, 126.477, -13.9507, -16.8901, -124.415, -94.6687, -148.054
2.127, -1, -14.1943, 3.74487, 2.22248, 153.459, -46.9677, 149.437, 126.46, -14.0111, -16.9119, -124.497, -94.6933, -148.052
2.132, -1, -14.2505, 3.74693, 2.19933, 153.455, -46.9128, 149.432, 126.444, -14.0715, -16.9338, -124.58, -94.718, -148.05
2.136, -1, -14.3066, 3.74898, 2.17619, 153.451, -46.8579, 149.427, 126.428, -14.1318, -16.9557, -124.662, -94.7426, -148.048
2.14, -1, -14.3627, 3.75104, 2.15305, 153.447, -46.8031, 149.422, 126.411, -14.1921, -16.9776, -124.744, -94.7673, -148.046
2.143, -1, -14.4188, 3.7531, 2.12992, 153.443, -46.7483, 149.417, 126.395, -14.2524, -16.9994, -124.827, -94.7919, -148.044
2.148, -1, -14.4748, 3.75515, 2.1068, 153.439, -46.6935, 149.412, 126.379, -14.3127, -17.0213, -124.909, -94.8165, -148.042
2.152, -1, -14.5309, 3.75721, 2.08369, 153.434, -46.6387, 149.407, 126.362, -14.373, -17.0431, -124.991, -94.8411, -148.04
2.156, -1, -14.5869, 3.75926, 2.06058, 153.43, -46.584, 149.403, 126.346, -14.4332, -17.065, -125.074, -94.8657, -148.038
2.16, -1, -14.6429, 3.76132, 2.03748, 153.426, -46.5292, 149.398, 126.33, -14.4934, -17.0868, -125.156, -94.8903, -148.036
2.163, -1, -14.6989, 3.76337, 2.01439, 153.422, -46.4745, 149.393, 126.314, -14.5536, -17.1086, -125.238, -94.9149, -148.035
2.168, -1, -14.7549, 3.76542, 1.99131, 153.418, -46.4198, 149.388, 126.297, -14.6138, -17.1305, -125.32, -94.9395, -148.033
2.172, -1, -14.8109, 3.76748, 1.96823, 153.414, -46.3651, 149.383, 126.281, -14.674, -17.1523, -125.403, -94.9641, -148.031
2.176, -1, -14.8668, 3.76953, 1.94516, 153.41, -46.3105, 149.378, 126.265, -14.7341, -17.1741, -125.485, -94.9886, -148.029
2.179, -1, -14.9227, 3.77158, 1.9221, 153.406, -46.2558, 149.373, 126.248, -14.7943, -17.1959, -125.567, -95.0132, -148.027
2.184, -1, -14.9786, 3.77363, 1.89905, 153.402, -46.2012, 149.369, 126.232, -14.8544, -17.2177, -125.649, -95.0378, -148.025
2.188, -1, -15.0345, 3.77568, 1.876, 153.397, -46.1466, 149.364, 126.216, -14.9145, -17.2394, -125.731, -95.0623, -148.023
2.192, -1, -15.0904, 3.77773, 1.85296, 153.393, -46.0919, 149.359, 126.2, -14.9745, -17.2612, -125.813, -95.0868, -148.021
2.196, -1, -15.1462, 3.77977, 1.82993, 153.389, -46.0374, 149.354, 126.183, -15.0346, -17.283, -125.895, -95.1114, -148.019
2.199, -1, -15.2021, 3.78182, 1.8069, 153.385, -45.9828, 149.349, 126.167, -15.0946, -17.3048, -125.977, -95.1359, -148.017
2.204, -1, -15.2579, 3.78387, 1.78389, 153.381, -45.9283, 149.344, 126.151, -15.1546, -17.3265, -126.059, -95.1604, -148.015
2.208, -1, -15.3137, 3.78591, 1.76088, 153.377, -45.8737, 149.339, 126.135, -15.2146, -17.3483, -126.141, -95.1849, -148.013
2.212, -1, -15.3694, 3.78796, 1.73787, 153.373, -45.8192, 149.335, 126.119, -15.2746, -17.37, -126.223, -95.2094, -148.011
2.216, -1, -15.4252, 3.79, 1.71488, 153.369, -45.7647, 149.33, 126.102, -15.3346, -17.3917, -126.305, -95.2339, -148.009
2.219, -1, -15.4809, 3.79205, 1.69189, 153.365, -45.7102, 149.325, 126.086, -15.3945, -17.4135, -126.387, -95.2583, -148.007
2.224, -1, -15.5367, 3.79409, 1.66891, 153.36, -45.6558, 149.32, 126.07, -15.4544, -17.4352, -126.468, -95.2828, -148.006
2.228, -1, -15.5924, 3.79613, 1.64594, 153.356, -45.6013, 149.315, 126.054, -15.5143, -17.4569, -126.55, -95.3073, -148.004
2.232, -1, -15.6481, 3.79818, 1.62297, 153.352, -45.5469, 149.31, 126.037, -15.5742, -17.4786, -126.632, -95.3317, -148.002
2.235, -1, -15.7037, 3.80022, 1.60001, 153.348, -45.4925, 149.305, 126.021, -15.6341, -17.5003, -126.714, -95.3562, -148
2.24, -1, -15.7594, 3.80226, 1.57706, 153.344, -45.4381, 149.301, 126.005, -15.6939, -17.522, -126.795, -95.3806, -147.998
2.244, -1, -15.815, 3.8043, 1.55411, 153.34, -45.3837, 149.296, 125.989, -15.7537, -17.5437, -126.877, -95.4051, -147.996
2.248, -1, -15.8707, 3.80634, 1.53118, 153.336, -45.3294, 149.291, 125.973, -15.8135, -17.5654, -126.959, -95.4295, -147.994
2.252, -1, -15.9263, 3.80838, 1.50825, 153.332, -45.275, 149.286, 125.957, -15.8733, -17.587, -127.041, -95.4539, -147.992
2.255, -1, -15.9818, 3.81042, 1.48532, 153.328, -45.2207, 149.281, 125.94, -15.9331, -17.6087, -127.122, -95.4783, -147.99
2.259, -1, -16.0374, 3.81245, 1.46241, 153.324, -45.1664, 149.276, 125.924, -15.9928, -17.6304, -127.204, -95.5027, -147.988
2.264, -1, -16.093, 3.81449, 1.4395, 153.32, -45.1121, 149.272, 125.908, -16.0526, -17.652, -127.285, -95.5271, -147.986
2.268, -1, -16.1485, 3.81653, 1.4166, 153.315, -45.0578, 149.267, 125.892, -16.1123, -17.6737, -127.367, -95.5515, -147.984
2.272, -1, -16.204, 3.81856, 1.3937, 153.311, -45.0036, 149.262, 125.876, -16.172, -17.6953, -127.448, -95.5759, -147.982
2.275, -1, -16.2595, 3.8206, 1.37081, 153.307, -44.9493, 149.257, 125.86, -16.2316, -17.717, -127.53, -95.6002, -147.981
2.28, -1, -16.315, 3.82263, 1.34793, 153.303, -44.8951, 149.252, 125.843, -16.2913, -17.7386, -127.611, -95.6246, -147.979
2.284, -1, -16.3705, 3.82467, 1.32506, 153.299, -44.8409, 149.247, 125.827, -16.3509, -17.7602, -127.693, -95.649, -147.977
2.288, -1, -16.4259, 3.8267, 1.30219, 153.295, -44.7867, 149.243, 125.811, -16.4106, -17.7818, -127.774, -95.6733, -147.975
2.291, -1, -16.4813, 3.82873, 1.27933, 153.291, -44.7326, 149.238, 125.795, -16.4702, -17.8034, -127.856, -95.6977, -147.973
2.296, -1, -16.5368, 3.83076, 1.25648, 153.287, -44.6784, 149.233, 125.779, -16.5297, -17.825, -127.937, -95.722, -147.971
2.3, -1, -16.5922, 3.8328, 1.23364, 153.283, -44.6243, 149.228, 125.763, -16.5893, -17.8466, -128.018, -95.7463, -147.969
2.304, -1, -16.6475, 3.83483, 1.2108, 153.279, -44.5701, 149.223, 125.747, -16.6488, -17.8682, -128.1, -95.7706, -147.967
2.308, -1, -16.7029, 3.83686, 1.18797, 153.275, -44.516, 149.219, 125.731, -16.7084, -17.8898, -128.181, -95.7949, -147.965
2.311, -1, -16.7582, 3.83889, 1.16514, 153.271, -44.4619, 149.214, 125.715, -16.7679, -17.9114, -128.262, -95.8193, -147.963
2.316, -1, -16.8136, 3.84092, 1.14232, 153.267, -44.4079, 149.209, 125.698, -16.8274, -17.9329, -128.344, -95.8436, -147.961
2.32, -1, -16.8689, 3.84294, 1.11951, 153.263, -44.3538, 149.204, 125.682, -16.8868, -17.9545, -128.425, -95.8678, -147.959
2.324, -1, -16.9242, 3.84497, 1.09671, 153.258, -44.2998, 149.199, 125.666, -16.9463, -17.976, -128.506, -95.8921, -147.958
2.328, -1, -16.9795, 3.847, 1.07391, 153.254, -44.2457, 149.195, 125.65, -17.0057, -17.9976, -128.587, -95.9164, -147.956
2.331, -1, -17.0347, 3.84903, 1.05112, 153.25, -44.1917, 149.19, 125.634, -17.0652, -18.0191, -128.668, -95.9407, -147.954
2.336, -1, -17.09, 3.85105, 1.02834, 153.246, -44.1377, 149.185, 125.618, -17.1246, -18.0407, -128.749, -95.9649, -147.952
2.34, -1, -17.1452, 3.85308, 1.00556, 153.242, -44.0838, 149.18, 125.602, -17.1839, -18.0622, -128.831, -95.9892, -147.95
2.344, -1, -17.2004, 3.8551, 0.982795, 153.238, -44.0298, 149.175, 125.586, -17.2433, -18.0837, -128.912, -96.0134, -147.948
2.347, -1, -17.2556, 3.85712, 0.960033, 153.234, -43.9759, 149.171, 125.57, -17.3027, -18.1052, -128.993, -96.0377, -147.946
2.352, -1, -17.3108, 3.85915, 0.937277, 153.23, -43.9219, 149.166, 125.554, -17.362, -18.1267, -129.074, -96.0619, -147.944
2.356, -1, -17.3659, 3.86117, 0.914528, 153.226, -43.868, 149.161, 125.538, -17.4213, -18.1482, -129.155, -96.0861, -147.942
2.36, -1, -17.4211, 3.86319, 0.891786, 153.222, -43.8141, 149.156, 125.522, -17.4806, -18.1697, -129.236, -96.1103, -147.94
2.364, -1, -17.4762, 3.86521, 0.869051, 153.218, -43.7603, 149.151, 125.506, -17.5399, -18.1912, -129.317, -96.1345, -147.938
2.367, -1, -17.5313, 3.86724, 0.846323, 153.214, -43.7064, 149.147, 125.49, -17.5991, -18.2127, -129.398, -96.1587, -147.937
2.372, -1, -17.5864, 3.86926, 0.823601, 153.21, -43.6526, 149.142, 125.474, -17.6584, -18.2342, -129.479, -96.1829, -147.935
2.376, -1, -17.6415, 3.87128, 0.800887, 153.206, -43.5987, 149.137, 125.458, -17.7176, -18.2557, -129.559, -96.2071, -147.933
2.38, -1, -17.6966, 3.8733, 0.778179, 153.202, -43.5449, 149.132, 125.442, -17.7768, -18.2771, -129.64, -96.2313, -147.931
2.383, -1, -17.7516, 3.87531, 0.755477, 153.198, -43.4911, 149.127, 125.426, -17.836, -18.2986, -129.721, -96.2555, -147.929
2.388, -1, -17.8067, 3.87733, 0.732783, 153.194, -43.4373, 149.123, 125.41, -17.8952, -18.32, -129.802, -96.2796, -147.927
2.392, -1, -17.8617, 3.87935, 0.710095, 153.19, -43.3836, 149.118, 125.394, -17.9543, -18.3415, -129.883, -96.3038, -147.925
2.396, -1, -17.9167, 3.88137, 0.687413, 153.186, -43.3298, 149.113, 125.378, -18.0135, -18.3629, -129.963, -96.328, -147.923
2.4, -1, -17.9717, 3.88338, 0.664739, 153.181, -43.2761, 149.108, 125.362, -18.0726, -18.3843, -130.044, -96.3521, -147.921
2.403, -1, -18.0266, 3.8854, 0.642071, 153.177, -43.2224, 149.103, 125.346, -18.1317, -18.4058, -130.125, -96.3762, -147.919
2.408, -1, -18.0816, 3.88741, 0.619409, 153.173, -43.1687, 149.099, 125.33, -18.1908, -18.4272, -130.206, -96.4004, -147.917
2.412, -1, -18.1365, 3.88943, 0.596755, 153.169, -43.115, 149.094, 125.314, -18.2498, -18.4486, -130.286, -96.4245, -147.916
2.416, -1, -18.1914, 3.89144, 0.574106, 153.165, -43.0613, 149.089, 125.298, -18.3089, -18.47, -130.367, -96.4486, -147.914
2.42, -1, -18.2463, 3.89345, 0.551465, 153.161, -43.0076, 149.084, 125.282, -18.3679, -18.4914, -130.448, -96.4727, -147.912
2.423, -1, -18.3012, 3.89547, 0.52883, 153.157, -42.954, 149.08, 125.266, -18.4269, -18.5128, -130.528, -96.4968, -147.91
2.428, -1, -18.3561, 3.89748, 0.506201, 153.153, -42.9004, 149.075, 125.25, -18.4859, -18.5342, -130.609, -96.5209, -147.908
2.432, -1, -18.4109, 3.89949, 0.483579, 153.149, -42.8468, 149.07, 125.234, -18.5449, -18.5556, -130.689, -96.545, -147.906
2.436, -1, -18.4658, 3.9015, 0.460963, 153.145, -42.7932, 149.065, 125.218, -18.6039, -18.577, -130.77, -96.5691, -147.904
2.439, -1, -18.5206, 3.90351, 0.438354, 153.141, -42.7396, 149.06, 125.202, -18.6628, -18.5983, -130.85, -96.5932, -147.902
2.444, -1, -18.5754, 3.90552, 0.415751, 153.137, -42.686, 149.056, 125.186, -18.7218, -18.6197, -130.931, -96.6172, -147.9
2.448, -1, -18.6302, 3.90753, 0.393155, 153.133, -42.6325, 149.051, 125.17, -18.7807, -18.641, -131.011, -96.6413, -147.898
2.452, -1, -18.685, 3.90954, 0.370565, 153.129, -42.5789, 149.046, 125.154, -18.8396, -18.6624, -131.092, -96.6654, -147.897
2.456, -1, -18.7398, 3.91155, 0.347982, 153.125, -42.5254, 149.041, 125.138, -18.8985, -18.6837, -131.172, -96.6894, -147.895
2.459, -1, -18.7945, 3.91356, 0.325404, 153.121, -42.4719, 149.037, 125.122, -18.9573, -18.7051, -131.253, -96.7134, -147.893
2.464, -1, -18.8492, 3.91556, 0.302834, 153.117, -42.4184, 149.032, 125.106, -19.0162, -18.7264, -131.333, -96.7375, -147.891
2.468, -1, -18.9039, 3.91757, 0.280269, 153.113, -42.365, 149.027, 125.091, -19.075, -18.7477, -131.413, -96.7615, -147.889
2.472, -1, -18.9586, 3.91957, 0.257711, 153.109, -42.3115, 149.022, 125.075, -19.1338, -18.7691, -131.494, -96.7855, -147.887
2.476, -1, -19.0133, 3.92158, 0.235159, 153.105, -42.2581, 149.018, 125.059, -19.1926, -18.7904, -131.574, -96.8095, -147.885
2.479, -1, -19.068, 3.92359, 0.212614, 153.101, -42.2046, 149.013, 125.043, -19.2514, -18.8117, -131.654, -96.8335, -147.883
2.484, -1, -19.1227, 3.92559, 0.190075, 153.097, -42.1512, 149.008, 125.027, -19.3102, -18.833, -131.734, -96.8575, -147.881
2.488, -1, -19.1773, 3.92759, 0.167542, 153.093, -42.0978, 149.003, 125.011, -19.3689, -18.8543, -131.815, -96.8815, -147.88
2.492, -1, -19.2319, 3.9296, 0.145015, 153.089, -42.0444, 148.999, 124.995, -19.4276, -18.8756, -131.895, -96.9055, -147.878
2.495, -1, -19.2865, 3.9316, 0.122495, 153.085, -41.9911, 148.994, 124.979, -19.4864, -18.8969, -131.975, -96.9295, -147.876
2.5, -1, -19.3411, 3.9336, 0.0999807, 153.081, -41.9377, 148.989, 124.963, -19.5451, -18.9182, -132.055, -96.9535, -147.874
2.504, -1, -19.3957, 3.9356, 0.0774728, 153.077, -41.8844, 148.984, 124.948, -19.6037, -18.9394, -132.135, -96.9775, -147.872
2.508, -1, -19.4503, 3.9376, 0.0549712, 153.073, -41.831, 148.98, 124.932, -19.6624, -18.9607, -132.216, -97.0014, -147.87
2.512, -1, -19.5048, 3.9396, 0.0324757, 153.069, -41.7777, 148.975, 124.916, -19.7211, -18.982, -132.296, -97.0254, -147.868
2.515, -1, -19.5593, 3.9416, 0.00998641, 153.065, -41.7244, 148.97, 124.9, -19.7797, -19.0032, -132.376, -97.0493, -147.866
2.52, -1, -19.6139, 3.9436, -0.0124967, 153.061, -41.6712, 148.965, 124.884, -19.8383, -19.0245, -132.456, -97.0733, -147.864
2.524, -1, -19.6684, 3.9456, -0.0349736, 153.057, -41.6179, 148.961, 124.868, -19.8969, -19.0457, -132.536, -97.0972, -147.863
2.528, -1, -19.7229, 3.9476, -0.0574444, 153.053, -41.5646, 148.956, 124.852, -19.9555, -19.067, -132.616, -97.1211, -147.861
2.531, -1, -19.7773, 3.9496, -0.079909, 153.049, -41.5114, 148.951, 124.837, -20.0141, -19.0882, -132.696, -97.145, -147.859
2.536, -1, -19.8318, 3.95159, -0.102368, 153.045, -41.4582, 148.946, 124.821, -20.0726, -19.1094, -132.776, -97.169, -147.857
2.54, -1, -19.8862, 3.95359, -0.12482, 153.041, -41.405, 148.942, 124.805, -20.1312, -19.1306, -132.856, -97.1929, -147.855
2.544, -1, -19.9407, 3.95559, -0.147266, 153.037, -41.3518, 148.937, 124.789, -20.1897, -19.1519, -132.936, -97.2168, -147.853
2.548, -1, -19.9951, 3.95758, -0.169706, 153.033, -41.2986, 148.932, 124.773, -20.2482, -19.1731, -133.016, -97.2407, -147.851
2.551, -1, -20.0495, 3.95958, -0.192141, 153.029, -41.2454, 148.928, 124.757, -20.3067, -19.1943, -133.096, -97.2645, -147.849
2.556, -1, -20.1039, 3.96157, -0.214569, 153.025, -41.1923, 148.923, 124.742, -20.3652, -19.2155, -133.175, -97.2884, -147.847
2.56, -1, -20.1582, 3.96356, -0.236991, 153.021, -41.1391, 148.918, 124.726, -20.4236, -19.2367, -133.255, -97.3123, -147.846
2.564, -1, -20.2126, 3.96556, -0.259407, 153.017, -41.086, 148.913, 124.71, -20.4821, -19.2579, -133.335, -97.3362, -147.844
2.568, -1, -20.2669, 3.96755, -0.281817, 153.013, -41.0329, 148.909, 124.694, -20.5405, -19.279, -133.415, -97.36, -147.842
2.571, -1, -20.3213, 3.96954, -0.304221, 153.009, -40.9798, 148.904, 124.678, -20.5989, -19.3002, -133.495, -97.3839, -147.84
2.576, -1, -20.3756, 3.97153, -0.326618, 153.005, -40.9267, 148.899, 124.663, -20.6573, -19.3214, -133.574, -97.4078, -147.838
2.58, -1, -20.4299, 3.97352, -0.34901, 153.001, -40.8737, 148.894, 124.647, -20.7157, -19.3426, -133.654, -97.4316, -147.836
2.584, -1, -20.4841, 3.97551, -0.371396, 152.997, -40.8206, 148.89, 124.631, -20.7741, -19.3637, -133.734, -97.4554, -147.834
2.587, -1, -20.5384, 3.9775, -0.393776, 152.993, -40.7676, 148.885, 124.615, -20.8324, -19.3849, -133.814, -97.4793, -147.832
2.592, -1, -20.5927, 3.97949, -0.41615, 152.989, -40.7146, 148.88, 124.599, -20.8908, -19.406, -133.893, -97.5031, -147.831
2.596, -1, -20.6469, 3.98148, -0.438519, 152.985, -40.6616, 148.876, 124.584, -20.9491, -19.4272, -133.973, -97.5269, -147.829
2.6, -1, -20.7011, 3.98347, -0.460881, 152.981, -40.6086, 148.871, 124.568, -21.0074, -19.4483, -134.053, -97.5507, -147.827
2.604, -1, -20.7553, 3.98546, -0.483237, 152.977, -40.5556, 148.866, 124.552, -21.0657, -19.4694, -134.132, -97.5745, -147.825
2.607, -1, -20.8095, 3.98745, -0.505587, 152.973, -40.5026, 148.861, 124.536, -21.1239, -19.4906, -134.212, -97.5983, -147.823
2.612, -1, -20.8637, 3.98943, -0.527932, 152.969, -40.4497, 148.857, 124.521, -21.1822, -19.5117, -134.291, -97.6221, -147.821
2.616, -1, -20.9179, 3.99142, -0.55027, 152.965, -40.3967, 148.852, 124.505, -21.2404, -19.5328, -134.371, -97.6459, -147.819
2.62, -1, -20.972, 3.99341, -0.572603, 152.961, -40.3438, 148.847, 124.489, -21.2987, -19.5539, -134.45, -97.6697, -147.817
2.624, -1, -21.0262, 3.99539, -0.59493, 152.957, -40.2909, 148.843, 124.473, -21.3569, -19.575, -134.53, -97.6935, -147.816
2.627, -1, -21.0803, 3.99738, -0.617251, 152.953, -40.238, 148.838, 124.458, -21.4151, -19.5961, -134.609, -97.7172, -147.814
2.632, -1, -21.1344, 3.99936, -0.639566, 152.949, -40.1851, 148.833, 124.442, -21.4733, -19.6172, -134.689, -97.741, -147.812
2.636, -1, -21.1885, 4.00134, -0.661876, 152.945, -40.1322, 148.828, 124.426, -21.5314, -19.6383, -134.768, -97.7647, -147.81
2.64, -1, -21.2426, 4.00333, -0.684179, 152.941, -40.0794, 148.824, 124.41, -21.5896, -19.6594, -134.848, -97.7885, -147.808
2.643, -1, -21.2967, 4.00531, -0.706477, 152.937, -40.0265, 148.819, 124.395, -21.6477, -19.6804, -134.927, -97.8122, -147.806
2.648, -1, -21.3507, 4.00729, -0.728769, 152.933, -39.9737, 148.814, 124.379, -21.7058, -19.7015, -135.006, -97.836, -147.804
2.652, -1, -21.4048, 4.00927, -0.751056, 152.929, -39.9209, 148.81, 124.363, -21.764, -19.7226, -135.086, -97.8597, -147.802
2.656, -1, -21.4588, 4.01125, -0.773336, 152.925, -39.8681, 148.805, 124.348, -21.822, -19.7436, -135.165, -97.8834, -147.801
2.66, -1, -21.5128, 4.01324, -0.795611, 152.921, -39.8153, 148.8, 124.332, -21.8801, -19.7647, -135.244, -97.9072, -147.799
2.663, -1, -21.5668, 4.01522, -0.817881, 152.917, -39.7625, 148.796, 124.316, -21.9382, -19.7857, -135.324, -97.9309, -147.797
2.668, -1, -21.6208, 4.0172, -0.840144, 152.913, -39.7098, 148.791, 124.3, -21.9962, -19.8068, -135.403, -97.9546, -147.795
2.672, -1, -21.6748, 4.01917, -0.862402, 152.909, -39.657, 148.786, 124.285, -22.0543, -19.8278, -135.482, -97.9783, -147.793
2.676, -1, -21.7287, 4.02115, -0.884654, 152.905, -39.6043, 148.781, 124.269, -22.1123, -19.8488, -135.562, -98.002, -147.791
2.679, -1, -21.7827, 4.02313, -0.906899, 152.901, -39.5516, 148.777, 124.253, -22.1703, -19.8699, -135.641, -98.0257, -147.789
2.684, -1, -21.8365, 4.02511, -0.929129, 152.897, -39.4989, 148.772, 124.238, -22.2283, -19.8909, -135.72, -98.0493, -147.788
2.688, -1, -21.8902, 4.02709, -0.951334, 152.893, -39.4462, 148.767, 124.222, -22.2862, -19.9119, -135.799, -98.073, -147.786
2.692, -1, -21.9437, 4.02907, -0.973498, 152.889, -39.3935, 148.763, 124.206, -22.3442, -19.9329, -135.878, -98.0967, -147.784
2.696, -1, -21.9966, 4.03105, -0.995563, 152.885, -39.3409, 148.758, 124.191, -22.4021, -19.9539, -135.957, -98.1204, -147.782
2.699, -1, -22.0485, 4.03303, -1.0174, 152.882, -39.2883, 148.753, 124.175, -22.4599, -19.9749, -136.037, -98.144, -147.78
2.704, -1, -22.0986, 4.03503, -1.03882, 152.878, -39.236, 148.749, 124.16, -22.5176, -19.9958, -136.116, -98.1676, -147.778
2.708, -1, -22.1467, 4.03703, -1.05969, 152.874, -39.1839, 148.744, 124.144, -22.575, -20.0166, -136.195, -98.1912, -147.776
2.712, -1, -22.1928, 4.03904, -1.07995, 152.87, -39.1324, 148.739, 124.129, -22.6315, -20.0371, -136.273, -98.2147, -147.774
2.716, -1, -22.2369, 4.04103, -1.09953, 152.866, -39.0817, 148.735, 124.115, -22.6866, -20.0571, -136.352, -98.238, -147.773
2.719, -1, -22.2791, 4.04298, -1.11836, 152.863, -39.0324, 148.731, 124.102, -22.7396, -20.0763, -136.429, -98.261, -147.771
2.724, -1, -22.3195, 4.04487, -1.1364, 152.859, -38.9848, 148.726, 124.089, -22.7901, -20.0946, -136.505, -98.2834, -147.769
2.728, -1, -22.3582, 4.04668, -1.15358, 152.856, -38.9394, 148.722, 124.078, -22.8377, -20.1118, -136.578, -98.3049, -147.767
2.732, -1, -22.3951, 4.04839, -1.16985, 152.853, -38.8966, 148.719, 124.068, -22.8821, -20.1279, -136.647, -98.3253, -147.766
2.735, -1, -22.4299, 4.04997, -1.18508, 152.85, -38.8568, 148.715, 124.058, -22.9232, -20.1427, -136.711, -98.3443, -147.764
2.74, -1, -22.4622, 4.05142, -1.19914, 152.847, -38.8204, 148.712, 124.049, -22.9612, -20.1565, -136.769, -98.3615, -147.763
2.744, -1, -22.4921, 4.05272, -1.21199, 152.845, -38.7876, 148.709, 124.04, -22.9962, -20.1691, -136.821, -98.3767, -147.762
2.748, -1, -22.5198, 4.05386, -1.22367, 152.843, -38.7587, 148.706, 124.032, -23.0277, -20.1805, -136.865, -98.3898, -147.761
2.752, -1, -22.5457, 4.05482, -1.2343, 152.841, -38.7338, 148.704, 124.024, -23.0557, -20.1907, -136.901, -98.4007, -147.76
2.755, -1, -22.5701, 4.0556, -1.24392, 152.839, -38.7128, 148.702, 124.016, -23.0799, -20.1995, -136.93, -98.4096, -147.759
2.76, -1, -22.5927, 4.05621, -1.25252, 152.838, -38.6957, 148.701, 124.009, -23.1005, -20.2069, -136.953, -98.4165, -147.759
2.764, -1, -22.6134, 4.05668, -1.26005, 152.837, -38.6819, 148.699, 124.003, -23.1175, -20.2131, -136.969, -98.4217, -147.758
2.768, -1, -22.6318, 4.05702, -1.2665, 152.836, -38.6713, 148.698, 123.998, -23.1312, -20.2181, -136.981, -98.4255, -147.758
2.772, -1, -22.6479, 4.05725, -1.27192, 152.835, -38.6634, 148.698, 123.994, -23.1419, -20.222, -136.989, -98.428, -147.758
2.775, -1, -22.6616, 4.05741, -1.27633, 152.835, -38.6577, 148.697, 123.99, -23.15, -20.225, -136.994, -98.4297, -147.758
2.78, -1, -22.6731, 4.0575, -1.27982, 152.834, -38.6537, 148.697, 123.988, -23.1559, -20.2272, -136.996, -98.4307, -147.757
2.784, -1, -22.6826, 4.05754, -1.28251, 152.834, -38.6511, 148.697, 123.986, -23.1599, -20.2287, -136.998, -98.4312, -147.757
2.788, -1, -22.6905, 4.05756, -1.28456, 152.834, -38.6495, 148.697, 123.984, -23.1624, -20.2296, -136.998, -98.4315, -147.757
2.791, -1, -22.6968, 4.05756, -1.28606, 152.833, -38.6486, 148.696, 123.984, -23.1638, -20.2301, -136.999, -98.4316, -147.757
2.796, -1, -22.7015, 4.05754, -1.2871, 152.833, -38.6481, 148.696, 123.983, -23.1644, -20.2303, -136.999, -98.4317, -147.757
2.8, -1, -22.7048, 4.05753, -1.28777, 152.833, -38.6479, 148.696, 123.983, -23.1645, -20.2304, -136.999, -98.4317, -147.757
2.804, -1, -22.7067, 4.05752, -1.28813, 152.833, -38.6479, 148.696, 123.983, -23.1645, -20.2304, -136.999, -98.4317, -147.757
2.808, 2, -22.7076, 4.05752, -1.28828, 152.833, -38.6479, 148.696, 123.983, -23.1645, -20.2304, -136.999, -98.4317, -147.757
2.811, 2, -22.7079, 4.05752, -1.28832, 152.833, -38.6478, 148.696, 123.983, -23.1645, -20.2304, -136.999, -98.4317, -147.757
2.816, 2, -22.7079, 4.05752, -1.28833, 152.833, -38.6478, 148.696, 123.983, -23.1645, -20.2304, -136.999, -98.4317, -147.757
2.82, 2, -22.7079, 4.05752, -1.28833, 152.833, -38.6478, 148.696, 123.983, -23.1645, -20.2304, -136.999, -98.4317, -147.757
2.824, 2, -22.7079, 4.05752, -1.28833, 152.833, -38.6478, 148.696, 123.983, -23.1645, -20.2304, -136.999, -98.4317, -147.757
2.828, 2, -22.7079, 4.05752, -1.28833, 152.833, -38.6478, 148.696, 123.983, -23.1645, -20.2304, -136.999, -98.4317, -147.757
2.831, 2, -22.7079, 4.05752, -1.28833, 152.833, -38.6478, 148.696, 123.983, -23.1645, -20.2304, -136.999, -98.4317, -147.757
2.836, 2, -22.7079, 4.05752, -1.28833, 152.833, -38.6478, 148.696, 123.983, -23.1645, -20.2304, -136.999, -98.4317, -147.757
2.84, 2, -22.7079, 4.05752, -1.28833, 152.833, -38.6478, 148.696, 123.983, -23.1645, -20.2304, -136.999, -98.4317, -147.757
2.844, 2, -22.7079, 4.05752, -1.28833, 152.833, -38.6478, 148.696, 123.983, -23.1645, -20.2304, -136.999, -98.4317, -147.757
2.847, 2, -22.7079, 4.05752, -1.28833, 152.833, -38.6478, 148.696, 123.983, -23.1645, -20.2304, -136.999, -98.4317, -147.757
2.852, 2, -22.7079, 4.05752, -1.28833, 152.833, -38.6478, 148.696, 123.983, -23.1645, -20.2304, -136.999, -98.4317, -147.757
2.856, 2, -22.7079, 4.05752, -1.28833, 152.833, -38.6478, 148.696, 123.983, -23.1645, -20.2304, -136.999, -98.4317, -147.757
2.86, 2, -22.7079, 4.05752, -1.28833, 152.833, -38.6478, 148.696, 123.983, -23.1645, -20.2304, -136.999, -98.4317, -147.757
2.864, 2, -22.7079, 4.05752, -1.28833, 152.833, -38.6478, 148.696, 123.983, -23.1645, -20.2304, -136.999, -98.4317, -147.757
2.867, 2, -22.7079, 4.05752, -1.28833, 152.833, -38.6478, 148.696, 123.983, -23.1645, -20.2304, -136.999, -98.4317, -147.757
2.872, 2, -22.7079, 4.05752, -1.28833, 152.833, -38.6478, 148.696, 123.983, -23.1645, -20.2304, -136.999, -98.4317, -147.757
2.876, 2, -22.7079, 4.05752, -1.28833, 152.833, -38.6478, 148.696, 123.983, -23.1645, -20.2304, -136.999, -98.4317, -147.757
2.88, 2, -22.7079, 4.05752, -1.28833, 152.833, -38.6478, 148.696, 123.983, -23.1645, -20.2304, -136.999, -98.4317, -147.757
2.883, 2, -22.7079, 4.05752, -1.28833, 152.833, -38.6478, 148.696, 123.983, -23.1645, -20.2304, -136.999, -98.4317, -147.757
2.888, 2, -22.7079, 4.05752, -1.28833, 152.833, -38.6478, 148.696, 123.983, -23.1645, -20.2304, -136.999, -98.4317, -147.757
2.892, 2, -22.7079, 4.05752, -1.28833, 152.833, -38.6478, 148.696, 123.983, -23.1645, -20.2304, -136.999, -98.4317, -147.757
2.896, 2, -22.7079, 4.05752, -1.28833, 152.833, -38.6478, 148.696, 123.983, -23.1645, -20.2304, -136.999, -98.4317, -147.757
2.9, 2, -22.7079, 4.05752, -1.28833, 152.833, -38.6478, 148.696, 123.983, -23.1645, -20.2304, -136.999, -98.4317, -147.757
2.903, 2, -22.7079, 4.05752, -1.28833, 152.833, -38.6478, 148.696, 123.983, -23.1645, -20.2304, -136.999, -98.4317, -147.757
2.908, 2, -22.7079, 4.05752, -1.28833, 152.833, -38.6478, 148.696, 123.983, -23.1645, -20.2304, -136.999, -98.4317, -147.757
2.912, 2, -22.7079, 4.05752, -1.28833, 152.833, -38.6478, 148.696, 123.983, -23.1645, -20.2304, -136.999, -98.4317, -147.757
2.916, 2, -22.7079, 4.05752, -1.28833, 152.833, -38.6478, 148.696, 123.983, -23.1645, -20.2304, -136.999, -98.4317, -147.757
2.92, 2, -22.7079, 4.05752, -1.28833, 152.833, -38.6478, 148.696, 123.983, -23.1645, -20.2304, -136.999, -98.4317, -147.757
2.923, 2, -22.7079, 4.05752, -1.28833, 152.833, -38.6478, 148.696, 123.983, -23.1645, -20.2304, -136.999, -98.4317, -147.757
2.928, 2, -22.7079, 4.05752, -1.28833, 152.833, -38.6478, 148.696, 123.983, -23.1645, -20.2304, -136.999, -98.4317, -147.757
2.932, 2, -22.7079, 4.05752, -1.28833, 152.833, -38.6478, 148.696, 123.983, -23.1645, -20.2304, -136.999, -98.4317, -147.757
2.936, 2, -22.7079, 4.05752, -1.28833, 152.833, -38.6478, 148.696, 123.983, -23.1645, -20.2304, -136.999, -98.4317, -147.757
2.939, 2, -22.7079, 4.05752, -1.28833, 152.833, -38.6478, 148.696, 123.983, -23.1645, -20.2304, -136.999, -98.4317, -147.757
2.944, 2, -22.7079, 4.05752, -1.28833, 152.833, -38.6478, 148.696, 123.983, -23.1645, -20.2304, -136.999, -98.4317, -147.757
2.948, 2, -22.7079, 4.05752, -1.28833, 152.833, -38.6478, 148.696, 123.983, -23.1645, -20.2304, -136.999, -98.4317, -147.757
2.952, 2, -22.7079, 4.05752, -1.28833, 152.833, -38.6478, 148.696, 123.983, -23.1645, -20.2304, -136.999, -98.4317, -147.757
2.956, 2, -22.7079, 4.05752, -1.28833, 152.833, -38.6478, 148.696, 123.983, -23.1645, -20.2304, -136.999, -98.4317, -147.757
2.959, 2, -22.7079, 4.05752, -1.28833, 152.833, -38.6478, 148.696, 123.983, -23.1645, -20.2304, -136.999, -98.4317, -147.757
2.964, 2, -22.7079, 4.05752, -1.28833, 152.833, -38.6478, 148.696, 123.983, -23.1645, -20.2304, -136.999, -98.4317, -147.757
2.968, 2, -22.7079, 4.05752, -1.28833, 152.833, -38.6478, 148.696, 123.983, -23.1645, -20.2304, -136.999, -98.4317, -147.757
2.972, 2, -22.7079, 4.05752, -1.28833, 152.833, -38.6478, 148.696, 123.983, -23.1645, -20.2304, -136.999, -98.4317, -147.757
2.976, 2, -22.7079, 4.05752, -1.28833, 152.833, -38.6478, 148.696, 123.983, -23.1645, -20.2304, -136.999, -98.4317, -147.757
2.98, 2, -22.7079, 4.05752, -1.28833, 152.833, -38.6478, 148.696, 123.983, -23.1645, -20.2304, -136.999, -98.4317, -147.757
2.984, 2, -22.7079, 4.05752, -1.28833, 152.833, -38.6478, 148.696, 123.983, -23.1645, -20.2304, -136.999, -98.4317, -147.757
2.988, 2, -22.7079, 4.05752, -1.28833, 152.833, -38.6478, 148.696, 123.983, -23.1645, -20.2304, -136.999, -98.4317, -147.757
2.992, 2, -22.7079, 4.05752, -1.28833, 152.833, -38.6478, 148.696, 123.983, -23.1645, -20.2304, -136.999, -98.4317, -147.757
2.995, 2, -22.7079, 4.05752, -1.28833, 152.833, -38.6478, 148.696, 123.983, -23.1645, -20.2304, -136.999, -98.4317, -147.757
3, 2, -22.7079, 4.05752, -1.28833, 152.833, -38.6478, 148.696, 123.983, -23.1645, -20.2304, -136.999, -98.4317, -147.757
3.004, 2, -22.7079, 4.05752, -1.28833, 152.833, -38.6478, 148.696, 123.983, -23.1645, -20.2304, -136.999, -98.4317, -147.757
3.008, 2, -22.7079, 4.05752, -1.28833, 152.833, -38.6478, 148.696, 123.983, -23.1645, -20.2304, -136.999, -98.4317, -147.757
3.012, 2, -22.7079, 4.05752, -1.28833, 152.833, -38.6478, 148.696, 123.983, -23.1645, -20.2304, -136.999, -98.4317, -147.757
3.015, 2, -22.7079, 4.05752, -1.28833, 152.833, -38.6478, 148.696, 123.983, -23.1645, -20.2304, -136.999, -98.4317, -147.757
3.02, 2, -22.7079, 4.05752, -1.28833, 152.833, -38.6478, 148.696, 123.983, -23.1645, -20.2304, -136.999, -98.4317, -147.757
3.024, 2, -22.7079, 4.05752, -1.28833, 152.833, -38.6478, 148.696, 123.983, -23.1645, -20.2304, -136.999, -98.4317, -147.757
3.028, 2, -22.7079, 4.05752, -1.28833, 152.833, -38.6478, 148.696, 123.983, -23.1645, -20.2304, -136.999, -98.4317, -147.757
3.031, 2, -22.7079, 4.05752, -1.28833, 152.833, -38.6478, 148.696, 123.983, -23.1645, -20.2304, -136.999, -98.4317, -147.757
3.036, 2, -22.7079, 4.05752, -1.28833, 152.833, -38.6478, 148.696, 123.983, -23.1645, -20.2304, -136.999, -98.4317, -147.757
3.04, 2, -22.7079, 4.05752, -1.28833, 152.833, -38.6478, 148.696, 123.983, -23.1645, -20.2304, -136.999, -98.4317, -147.757
3.044, 2, -22.7079, 4.05752, -1.28833, 152.833, -38.6478, 148.696, 123.983, -23.1645, -20.2304, -136.999, -98.4317, -147.757
3.048, 2, -22.7079, 4.05752, -1.28833, 152.833, -38.6478, 148.696, 123.983, -23.1645, -20.2304, -136.999, -98.4317, -147.757
3.051, 2, -22.7079, 4.05752, -1.28833, 152.833, -38.6478, 148.696, 123.983, -23.1645, -20.2304, -136.999, -98.4317, -147.757
3.056, 2, -22.7079, 4.05752, -1.28833, 152.833, -38.6478, 148.696, 123.983, -23.1645, -20.2304, -136.999, -98.4317, -147.757
3.06, 2, -22.7079, 4.05752, -1.28833, 152.833, -38.6478, 148.696, 123.983, -23.1645, -20.2304, -136.999, -98.4317, -147.757
3.064, 2, -22.7079, 4.05752, -1.28833, 152.833, -38.6478, 148.696, 123.983, -23.1645, -20.2304, -136.999, -98.4317, -147.757
3.068, 2, -22.7079, 4.05752, -1.28833, 152.833, -38.6478, 148.696, 123.983, -23.1645, -20.2304, -136.999, -98.4317, -147.757
3.071, 2, -22.7079, 4.05752, -1.28833, 152.833, -38.6478, 148.696, 123.983, -23.1645, -20.2304, -136.999, -98.4317, -147.757
3.076, 2, -22.7079, 4.05752, -1.28833, 152.833, -38.6478, 148.696, 123.983, -23.1645, -20.2304, -136.999, -98.4317, -147.757
3.08, 2, -22.7079, 4.05752, -1.28833, 152.833, -38.6478, 148.696, 123.983, -23.1645, -20.2304, -136.999, -98.4317, -147.757
3.084, 2, -22.7079, 4.05752, -1.28833, 152.833, -38.6478, 148.696, 123.983, -23.1645, -20.2304, -136.999, -98.4317, -147.757
3.087, 2, -22.7079, 4.05752, -1.28833, 152.833, -38.6478, 148.696, 123.983, -23.1645, -20.2304, -136.999, -98.4317, -147.757
3.092, 2, -22.7079, 4.05752, -1.28833, 152.833, -38.6478, 148.696, 123.983, -23.1645, -20.2304, -136.999, -98.4317, -147.757
3.096, 2, -22.7079, 4.05752, -1.28833, 152.833, -38.6478, 148.696, 123.983, -23.1645, -20.2304, -136.999, -98.4317, -147.757
3.1, 2, -22.7079, 4.05752, -1.28833, 152.833, -38.6478, 148.696, 123.983, -23.1645, -20.2304, -136.999, -98.4317, -147.757
3.104, 2, -22.7079, 4.05752, -1.28833, 152.833, -38.6478, 148.696, 123.983, -23.1645, -20.2304, -136.999, -98.4317, -147.757
3.107, 2, -22.7079, 4.05752, -1.28833, 152.833, -38.6478, 148.696, 123.983, -23.1645, -20.2304, -136.999, -98.4317, -147.757
3.112, 2, -22.7079, 4.05752, -1.28833, 152.833, -38.6478, 148.696, 123.983, -23.1645, -20.2304, -136.999, -98.4317, -147.757
3.116, 2, -22.7079, 4.05752, -1.28833, 152.833, -38.6478, 148.696, 123.983, -23.1645, -20.2304, -136.999, -98.4317, -147.757
3.12, 2, -22.7079, 4.05752, -1.28833, 152.833, -38.6478, 148.696, 123.983, -23.1645, -20.2304, -136.999, -98.4317, -147.757
3.124, 2, -22.7079, 4.05752, -1.28833, 152.833, -38.6478, 148.696, 123.983, -23.1645, -20.2304, -136.999, -98.4317, -147.757
3.128, 2, -22.7079, 4.05752, -1.28833, 152.833, -38.6478, 148.696, 123.983, -23.1645, -20.2304, -136.999, -98.4317, -147.757
3.132, 2, -22.7079, 4.05752, -1.28833, 152.833, -38.6478, 148.696, 123.983, -23.1645, -20.2304, -136.999, -98.4317, -147.757
3.136, 2, -22.7079, 4.05752, -1.28833, 152.833, -38.6478, 148.696, 123.983, -23.1645, -20.2304, -136.999, -98.4317, -147.757
3.14, 2, -22.7079, 4.05752, -1.28833, 152.833, -38.6478, 148.696, 123.983, -23.1645, -20.2304, -136.999, -98.4317, -147.757
3.143, 2, -22.7079, 4.05752, -1.28833, 152.833, -38.6478, 148.696, 123.983, -23.1645, -20.2304, -136.999, -98.4317, -147.757
3.148, 2, -22.7079, 4.05752, -1.28833, 152.833, -38.6478, 148.696, 123.983, -23.1645, -20.2304, -136.999, -98.4317, -147.757
3.152, 2, -22.7079, 4.05752, -1.28833, 152.833, -38.6478, 148.696, 123.983, -23.1645, -20.2304, -136.999, -98.4317, -147.757
3.156, 2, -22.7079, 4.05752, -1.28833, 152.833, -38.6478, 148.696, 123.983, -23.1645, -20.2304, -136.999, -98.4317, -147.757
3.16, 2, -22.7079, 4.05752, -1.28833, 152.833, -38.6478, 148.696, 123.983, -23.1645, -20.2304, -136.999, -98.4317, -147.757
3.163, 2, -22.7079, 4.05752, -1.28833, 152.833, -38.6478, 148.696, 123.983, -23.1645, -20.2304, -136.999, -98.4317, -147.757
3.168, 2, -22.7079, 4.05752, -1.28833, 152.833, -38.6478, 148.696, 123.983, -23.1645, -20.2304, -136.999, -98.4317, -147.757
3.172, 2, -22.7079, 4.05752, -1.28833, 152.833, -38.6478, 148.696, 123.983, -23.1645, -20.2304, -136.999, -98.4317, -147.757
3.176, 2, -22.7079, 4.05752, -1.28833, 152.833, -38.6478, 148.696, 123.983, -23.1645, -20.2304, -136.999, -98.4317, -147.757
3.179, 2, -22.7079, 4.05752, -1.28833, 152.833, -38.6478, 148.696, 123.983, -23.1645, -20.2304, -136.999, -98.4317, -147.757
3.184, 2, -22.7079, 4.05752, -1.28833, 152.833, -38.6478, 148.696, 123.983, -23.1645, -20.2304, -136.999, -98.4317, -147.757
