hehonglu123/Motion-Primitive-Planning/simulation/robotstudio_sim/multimove/recorded_data/curve_exe_v5000_z10.csv
timestamp, cmd_num, J1, J2, J3, J4, J5, J6, J1_2, J2_2, J3_2, J4_2, J5_2, J6_2
0.002, -1, -39.1723, 1.79736, 8.87178, -133.694, -66.8636, 136.788, 83.1407, 21.4109, -145.661, -58.3322, 40.8859, -278.839
0.006, -1, -39.1723, 1.79736, 8.87178, -133.694, -66.8636, 136.788, 83.1407, 21.4109, -145.661, -58.3322, 40.8859, -278.839
0.01, -1, -39.1723, 1.79736, 8.87178, -133.694, -66.8636, 136.788, 83.1407, 21.4109, -145.661, -58.3322, 40.8859, -278.839
0.011, -1, -39.1723, 1.79736, 8.87178, -133.694, -66.8636, 136.788, 83.1407, 21.4109, -145.661, -58.3322, 40.8859, -278.839
0.013, -1, -39.1723, 1.79736, 8.87178, -133.694, -66.8636, 136.788, 83.1407, 21.4109, -145.661, -58.3322, 40.8859, -278.839
0.016, -1, -39.1723, 1.79736, 8.87178, -133.694, -66.8636, 136.788, 83.1407, 21.4109, -145.661, -58.3322, 40.8859, -278.839
0.02, -1, -39.1723, 1.79736, 8.87178, -133.694, -66.8636, 136.788, 83.1407, 21.4109, -145.661, -58.3322, 40.8859, -278.839
0.024, -1, -39.1723, 1.79736, 8.87178, -133.694, -66.8636, 136.788, 83.1407, 21.4109, -145.661, -58.3322, 40.8859, -278.839
0.028, -1, -39.1723, 1.79736, 8.87178, -133.694, -66.8636, 136.788, 83.1407, 21.4109, -145.661, -58.3322, 40.8859, -278.839
0.032, -1, -39.1723, 1.79736, 8.87178, -133.694, -66.8636, 136.788, 83.1407, 21.4109, -145.661, -58.3322, 40.8859, -278.839
0.036, -1, -39.1723, 1.79736, 8.87178, -133.694, -66.8636, 136.788, 83.1407, 21.4109, -145.661, -58.3322, 40.8859, -278.839
0.04, -1, -39.1722, 1.79736, 8.87178, -133.694, -66.8636, 136.788, 83.1407, 21.4109, -145.661, -58.3322, 40.8859, -278.839
0.044, -1, -39.1718, 1.79734, 8.87183, -133.694, -66.8637, 136.788, 83.1407, 21.4109, -145.661, -58.3322, 40.8859, -278.839
0.048, -1, -39.1706, 1.79728, 8.87195, -133.694, -66.8637, 136.788, 83.1407, 21.4109, -145.661, -58.3322, 40.8859, -278.839
0.052, -1, -39.1684, 1.79715, 8.87222, -133.694, -66.8638, 136.788, 83.1407, 21.4109, -145.661, -58.3322, 40.8859, -278.839
0.056, -1, -39.1648, 1.79693, 8.87266, -133.694, -66.8641, 136.788, 83.1408, 21.4112, -145.661, -58.3322, 40.8859, -278.839
0.06, -1, -39.1599, 1.79661, 8.8733, -133.694, -66.8647, 136.789, 83.141, 21.4119, -145.66, -58.3322, 40.886, -278.839
0.064, -1, -39.1534, 1.79618, 8.87414, -133.693, -66.8658, 136.789, 83.1415, 21.4137, -145.66, -58.3322, 40.8864, -278.839
0.068, -1, -39.1455, 1.79566, 8.87518, -133.692, -66.8675, 136.79, 83.1421, 21.4169, -145.659, -58.3322, 40.8874, -278.839
0.072, -1, -39.1361, 1.79506, 8.87639, -133.69, -66.8702, 136.79, 83.143, 21.4218, -145.657, -58.3324, 40.8893, -278.839
0.076, -1, -39.1254, 1.79438, 8.87773, -133.688, -66.8741, 136.792, 83.1438, 21.4291, -145.654, -58.3328, 40.8928, -278.838
0.08, -1, -39.113, 1.79364, 8.8792, -133.685, -66.8794, 136.794, 83.1445, 21.4389, -145.65, -58.3337, 40.8985, -278.837
0.084, -1, -39.0986, 1.79283, 8.88082, -133.681, -66.8866, 136.796, 83.1447, 21.4514, -145.645, -58.335, 40.9074, -278.836
0.088, -1, -39.0818, 1.79193, 8.88259, -133.675, -66.8959, 136.8, 83.144, 21.4666, -145.639, -58.3372, 40.9202, -278.833
0.092, -1, -39.0627, 1.79097, 8.88447, -133.668, -66.9075, 136.804, 83.1423, 21.4847, -145.633, -58.3402, 40.9376, -278.83
0.096, -1, -39.0413, 1.78999, 8.88639, -133.659, -66.9217, 136.809, 83.1393, 21.5061, -145.624, -58.3442, 40.9602, -278.826
0.1, -1, -39.018, 1.78902, 8.88828, -133.649, -66.9387, 136.816, 83.135, 21.531, -145.615, -58.3492, 40.9883, -278.821
0.104, -1, -38.9928, 1.78808, 8.89012, -133.637, -66.9585, 136.823, 83.1293, 21.5595, -145.604, -58.3554, 41.0223, -278.815
0.108, -1, -38.9657, 1.78716, 8.89188, -133.623, -66.9812, 136.831, 83.1223, 21.5918, -145.592, -58.3628, 41.062, -278.808
0.112, -1, -38.9367, 1.78628, 8.89359, -133.607, -67.0067, 136.841, 83.114, 21.6278, -145.579, -58.3711, 41.1073, -278.799
0.116, -1, -38.9058, 1.7854, 8.8953, -133.589, -67.0349, 136.851, 83.1045, 21.6673, -145.564, -58.3805, 41.1579, -278.79
0.12, -1, -38.8725, 1.78447, 8.89708, -133.571, -67.0654, 136.863, 83.0939, 21.7099, -145.548, -58.3908, 41.2132, -278.78
0.124, -1, -38.8369, 1.78348, 8.89901, -133.55, -67.0982, 136.875, 83.0824, 21.7552, -145.531, -58.4018, 41.2725, -278.769
0.128, -1, -38.7989, 1.78241, 8.90112, -133.529, -67.1328, 136.888, 83.0701, 21.8031, -145.513, -58.4135, 41.3352, -278.757
0.131, -1, -38.7591, 1.78126, 8.90338, -133.507, -67.169, 136.901, 83.0575, 21.8533, -145.494, -58.4257, 41.4005, -278.745
0.136, -1, -38.7177, 1.78004, 8.90578, -133.483, -67.2066, 136.915, 83.0448, 21.9058, -145.474, -58.4381, 41.4676, -278.733
0.139, -1, -38.6749, 1.77875, 8.90834, -133.46, -67.2451, 136.93, 83.0321, 21.9603, -145.453, -58.4507, 41.5359, -278.72
0.144, -1, -38.6307, 1.77738, 8.91108, -133.435, -67.2845, 136.945, 83.0197, 22.0162, -145.432, -58.4634, 41.605, -278.707
0.148, -1, -38.5851, 1.77591, 8.91401, -133.411, -67.3243, 136.959, 83.0074, 22.0734, -145.411, -58.4762, 41.6744, -278.695
0.152, -1, -38.5381, 1.77435, 8.91712, -133.386, -67.3646, 136.974, 82.9953, 22.1313, -145.389, -58.4889, 41.7441, -278.682
0.156, -1, -38.4898, 1.7727, 8.92041, -133.361, -67.4051, 136.989, 82.9833, 22.1897, -145.367, -58.5016, 41.8138, -278.669
0.16, -1, -38.4404, 1.77098, 8.92385, -133.336, -67.4457, 137.005, 82.9714, 22.2482, -145.345, -58.5144, 41.8835, -278.656
0.164, -1, -38.39, 1.76921, 8.9274, -133.311, -67.4864, 137.02, 82.9594, 22.3067, -145.322, -58.5271, 41.9533, -278.643
0.168, -1, -38.3392, 1.7674, 8.93101, -133.286, -67.5271, 137.035, 82.9474, 22.3653, -145.3, -58.5399, 42.0231, -278.631
0.172, -1, -38.2881, 1.76559, 8.93464, -133.261, -67.5678, 137.05, 82.9355, 22.4238, -145.278, -58.5526, 42.0929, -278.618
0.176, -1, -38.2369, 1.76377, 8.93827, -133.236, -67.6085, 137.065, 82.9235, 22.4824, -145.256, -58.5654, 42.1627, -278.605
0.18, -1, -38.1858, 1.76196, 8.94191, -133.211, -67.6492, 137.08, 82.9116, 22.541, -145.234, -58.5781, 42.2326, -278.592
0.184, -1, -38.1347, 1.76014, 8.94554, -133.186, -67.69, 137.095, 82.8996, 22.5996, -145.212, -58.5909, 42.3024, -278.579
0.188, -1, -38.0835, 1.75832, 8.94917, -133.16, -67.7307, 137.111, 82.8876, 22.6583, -145.189, -58.6036, 42.3723, -278.566
0.192, -1, -38.0323, 1.75651, 8.95281, -133.135, -67.7715, 137.126, 82.8757, 22.7169, -145.167, -58.6164, 42.4422, -278.554
0.196, -1, -37.9811, 1.75469, 8.95645, -133.11, -67.8123, 137.141, 82.8637, 22.7756, -145.145, -58.6292, 42.5121, -278.541
0.2, -1, -37.93, 1.75287, 8.96008, -133.085, -67.8531, 137.156, 82.8517, 22.8342, -145.123, -58.6419, 42.582, -278.528
0.204, -1, -37.8787, 1.75105, 8.96372, -133.06, -67.8938, 137.171, 82.8398, 22.8929, -145.101, -58.6547, 42.6519, -278.515
0.208, -1, -37.8275, 1.74923, 8.96736, -133.035, -67.9346, 137.186, 82.8278, 22.9516, -145.079, -58.6675, 42.7219, -278.502
0.212, -1, -37.7763, 1.74741, 8.971, -133.01, -67.9755, 137.201, 82.8158, 23.0103, -145.056, -58.6802, 42.7918, -278.489
0.216, -1, -37.7251, 1.74559, 8.97464, -132.985, -68.0163, 137.217, 82.8038, 23.069, -145.034, -58.693, 42.8618, -278.477
0.22, -1, -37.6738, 1.74377, 8.97828, -132.96, -68.0571, 137.232, 82.7918, 23.1277, -145.012, -58.7058, 42.9318, -278.464
0.224, -1, -37.6225, 1.74195, 8.98192, -132.934, -68.0979, 137.247, 82.7798, 23.1865, -144.99, -58.7186, 43.0018, -278.451
0.228, -1, -37.5713, 1.74013, 8.98557, -132.909, -68.1388, 137.262, 82.7678, 23.2452, -144.968, -58.7314, 43.0718, -278.438
0.232, -1, -37.52, 1.73831, 8.98921, -132.884, -68.1796, 137.277, 82.7557, 23.304, -144.945, -58.7442, 43.1419, -278.425
0.236, -1, -37.4687, 1.73649, 8.99286, -132.859, -68.2205, 137.293, 82.7437, 23.3628, -144.923, -58.757, 43.2119, -278.412
0.24, -1, -37.4174, 1.73467, 8.9965, -132.834, -68.2614, 137.308, 82.7317, 23.4216, -144.901, -58.7697, 43.282, -278.399
0.244, -1, -37.366, 1.73284, 9.00015, -132.809, -68.3023, 137.323, 82.7196, 23.4804, -144.879, -58.7825, 43.3521, -278.387
0.248, -1, -37.3147, 1.73102, 9.0038, -132.784, -68.3432, 137.338, 82.7076, 23.5392, -144.856, -58.7953, 43.4222, -278.374
0.252, -1, -37.2634, 1.7292, 9.00744, -132.758, -68.3841, 137.353, 82.6956, 23.5981, -144.834, -58.8081, 43.4923, -278.361
0.256, -1, -37.212, 1.72737, 9.01109, -132.733, -68.425, 137.369, 82.6835, 23.6569, -144.812, -58.821, 43.5625, -278.348
0.26, -1, -37.1606, 1.72555, 9.01474, -132.708, -68.4659, 137.384, 82.6715, 23.7158, -144.79, -58.8338, 43.6326, -278.335
0.264, -1, -37.1093, 1.72372, 9.01839, -132.683, -68.5068, 137.399, 82.6594, 23.7747, -144.767, -58.8466, 43.7028, -278.322
0.268, -1, -37.0579, 1.7219, 9.02204, -132.658, -68.5478, 137.414, 82.6473, 23.8335, -144.745, -58.8594, 43.773, -278.309
0.272, -1, -37.0065, 1.72007, 9.0257, -132.632, -68.5887, 137.429, 82.6353, 23.8925, -144.723, -58.8722, 43.8432, -278.296
0.276, -1, -36.955, 1.71825, 9.02935, -132.607, -68.6297, 137.445, 82.6232, 23.9514, -144.701, -58.885, 43.9134, -278.284
0.28, -1, -36.9036, 1.71642, 9.033, -132.582, -68.6706, 137.46, 82.6112, 24.0103, -144.678, -58.8979, 43.9837, -278.271
0.284, -1, -36.8522, 1.71459, 9.03666, -132.557, -68.7116, 137.475, 82.5991, 24.0693, -144.656, -58.9107, 44.0539, -278.258
0.288, -1, -36.8007, 1.71276, 9.04031, -132.532, -68.7526, 137.49, 82.587, 24.1282, -144.634, -58.9235, 44.1242, -278.245
0.292, -1, -36.7492, 1.71094, 9.04397, -132.506, -68.7936, 137.506, 82.5749, 24.1872, -144.611, -58.9364, 44.1945, -278.232
0.296, -1, -36.6978, 1.70911, 9.04763, -132.481, -68.8346, 137.521, 82.5629, 24.2462, -144.589, -58.9492, 44.2648, -278.219
0.3, -1, -36.6463, 1.70728, 9.05129, -132.456, -68.8756, 137.536, 82.5508, 24.3052, -144.567, -58.962, 44.3351, -278.206
0.304, -1, -36.5948, 1.70545, 9.05495, -132.431, -68.9167, 137.551, 82.5387, 24.3642, -144.544, -58.9749, 44.4054, -278.193
0.308, -1, -36.5433, 1.70362, 9.05861, -132.405, -68.9577, 137.566, 82.5266, 24.4232, -144.522, -58.9877, 44.4758, -278.18
0.312, -1, -36.4917, 1.70179, 9.06227, -132.38, -68.9987, 137.582, 82.5145, 24.4823, -144.5, -59.0006, 44.5461, -278.167
0.316, -1, -36.4402, 1.69996, 9.06593, -132.355, -69.0398, 137.597, 82.5024, 24.5413, -144.477, -59.0134, 44.6165, -278.154
0.32, -1, -36.3886, 1.69813, 9.06959, -132.329, -69.0809, 137.612, 82.4904, 24.6004, -144.455, -59.0263, 44.6869, -278.141
0.324, -1, -36.3371, 1.6963, 9.07325, -132.304, -69.1219, 137.628, 82.4782, 24.6595, -144.433, -59.0391, 44.7573, -278.129
0.328, -1, -36.2855, 1.69447, 9.07692, -132.279, -69.163, 137.643, 82.4662, 24.7186, -144.41, -59.052, 44.8278, -278.116
0.332, -1, -36.2339, 1.69263, 9.08058, -132.254, -69.2041, 137.658, 82.454, 24.7777, -144.388, -59.0649, 44.8982, -278.103
0.336, -1, -36.1823, 1.6908, 9.08425, -132.228, -69.2452, 137.673, 82.4419, 24.8368, -144.366, -59.0777, 44.9687, -278.09
0.34, -1, -36.1307, 1.68897, 9.08792, -132.203, -69.2863, 137.689, 82.4298, 24.896, -144.343, -59.0906, 45.0392, -278.077
0.344, -1, -36.0791, 1.68714, 9.09158, -132.178, -69.3275, 137.704, 82.4177, 24.9551, -144.321, -59.1035, 45.1097, -278.064
0.348, -1, -36.0275, 1.6853, 9.09525, -132.152, -69.3686, 137.719, 82.4056, 25.0143, -144.299, -59.1164, 45.1802, -278.051
0.352, -1, -35.9758, 1.68347, 9.09892, -132.127, -69.4097, 137.735, 82.3935, 25.0735, -144.276, -59.1292, 45.2507, -278.038
0.356, -1, -35.9241, 1.68163, 9.10259, -132.102, -69.4509, 137.75, 82.3814, 25.1327, -144.254, -59.1421, 45.3213, -278.025
0.36, -1, -35.8725, 1.6798, 9.10626, -132.076, -69.4921, 137.765, 82.3693, 25.1919, -144.231, -59.155, 45.3919, -278.012
0.364, -1, -35.8208, 1.67796, 9.10994, -132.051, -69.5332, 137.78, 82.3571, 25.2511, -144.209, -59.1679, 45.4624, -277.999
0.368, -1, -35.7691, 1.67613, 9.11361, -132.026, -69.5744, 137.796, 82.345, 25.3104, -144.187, -59.1808, 45.533, -277.986
0.372, -1, -35.7174, 1.67429, 9.11728, -132, -69.6156, 137.811, 82.3329, 25.3696, -144.164, -59.1937, 45.6037, -277.973
0.376, -1, -35.6657, 1.67245, 9.12096, -131.975, -69.6568, 137.826, 82.3207, 25.4289, -144.142, -59.2066, 45.6743, -277.96
0.38, -1, -35.6139, 1.67061, 9.12463, -131.95, -69.698, 137.842, 82.3086, 25.4882, -144.119, -59.2195, 45.7449, -277.947
0.384, -1, -35.5622, 1.66878, 9.12831, -131.924, -69.7392, 137.857, 82.2965, 25.5475, -144.097, -59.2324, 45.8156, -277.934
0.388, -1, -35.5104, 1.66694, 9.13199, -131.899, -69.7805, 137.872, 82.2843, 25.6068, -144.075, -59.2453, 45.8863, -277.921
0.392, -1, -35.4587, 1.6651, 9.13566, -131.874, -69.8217, 137.888, 82.2722, 25.6661, -144.052, -59.2582, 45.957, -277.908
0.396, -1, -35.4069, 1.66326, 9.13934, -131.848, -69.863, 137.903, 82.26, 25.7254, -144.03, -59.2711, 46.0277, -277.895
0.4, -1, -35.3551, 1.66142, 9.14302, -131.823, -69.9042, 137.918, 82.2479, 25.7848, -144.007, -59.284, 46.0985, -277.882
0.404, -1, -35.3033, 1.65958, 9.1467, -131.797, -69.9455, 137.934, 82.2357, 25.8442, -143.985, -59.297, 46.1692, -277.869
0.408, -1, -35.2514, 1.65774, 9.15039, -131.772, -69.9868, 137.949, 82.2236, 25.9035, -143.962, -59.3099, 46.24, -277.856
0.412, -1, -35.1996, 1.6559, 9.15407, -131.746, -70.0281, 137.964, 82.2114, 25.9629, -143.94, -59.3228, 46.3108, -277.843
0.416, -1, -35.1478, 1.65406, 9.15775, -131.721, -70.0694, 137.98, 82.1992, 26.0223, -143.917, -59.3357, 46.3816, -277.83
0.42, -1, -35.0959, 1.65222, 9.16144, -131.696, -70.1107, 137.995, 82.1871, 26.0818, -143.895, -59.3487, 46.4524, -277.817
0.424, -1, -35.044, 1.65037, 9.16512, -131.67, -70.152, 138.01, 82.1749, 26.1412, -143.873, -59.3616, 46.5232, -277.804
0.428, -1, -34.9922, 1.64853, 9.16881, -131.645, -70.1933, 138.026, 82.1627, 26.2007, -143.85, -59.3745, 46.5941, -277.791
0.432, -1, -34.9403, 1.64669, 9.1725, -131.619, -70.2347, 138.041, 82.1506, 26.2601, -143.828, -59.3875, 46.665, -277.778
0.436, -1, -34.8884, 1.64484, 9.17618, -131.594, -70.276, 138.056, 82.1384, 26.3196, -143.805, -59.4004, 46.7359, -277.765
0.44, -1, -34.8364, 1.643, 9.17987, -131.568, -70.3174, 138.072, 82.1262, 26.3791, -143.783, -59.4134, 46.8068, -277.752
0.444, -1, -34.7845, 1.64116, 9.18356, -131.543, -70.3587, 138.087, 82.114, 26.4386, -143.76, -59.4263, 46.8777, -277.739
0.448, -1, -34.7326, 1.63931, 9.18725, -131.517, -70.4001, 138.103, 82.1018, 26.4981, -143.738, -59.4393, 46.9486, -277.726
0.452, -1, -34.6806, 1.63747, 9.19094, -131.492, -70.4415, 138.118, 82.0896, 26.5577, -143.715, -59.4522, 47.0196, -277.713
0.456, -1, -34.6286, 1.63562, 9.19464, -131.467, -70.4829, 138.133, 82.0774, 26.6172, -143.693, -59.4652, 47.0906, -277.7
0.46, -1, -34.5766, 1.63377, 9.19833, -131.441, -70.5243, 138.149, 82.0652, 26.6768, -143.67, -59.4782, 47.1616, -277.687
0.464, -1, -34.5246, 1.63193, 9.20203, -131.416, -70.5658, 138.164, 82.053, 26.7364, -143.648, -59.4911, 47.2326, -277.674
0.468, -1, -34.4726, 1.63008, 9.20572, -131.39, -70.6072, 138.18, 82.0408, 26.796, -143.625, -59.5041, 47.3036, -277.661
0.472, -1, -34.4206, 1.62823, 9.20942, -131.365, -70.6486, 138.195, 82.0286, 26.8556, -143.602, -59.5171, 47.3747, -277.648
0.476, -1, -34.3686, 1.62638, 9.21311, -131.339, -70.6901, 138.21, 82.0164, 26.9152, -143.58, -59.53, 47.4457, -277.635
0.48, -1, -34.3165, 1.62454, 9.21681, -131.314, -70.7315, 138.226, 82.0042, 26.9749, -143.557, -59.543, 47.5168, -277.622
0.484, -1, -34.2645, 1.62269, 9.22051, -131.288, -70.773, 138.241, 81.992, 27.0345, -143.535, -59.556, 47.5879, -277.609
0.488, -1, -34.2124, 1.62084, 9.22421, -131.262, -70.8145, 138.257, 81.9798, 27.0942, -143.512, -59.569, 47.659, -277.596
0.492, -1, -34.1603, 1.61899, 9.22791, -131.237, -70.856, 138.272, 81.9676, 27.1539, -143.49, -59.582, 47.7301, -277.583
0.496, -1, -34.1082, 1.61714, 9.23161, -131.211, -70.8975, 138.287, 81.9553, 27.2136, -143.467, -59.595, 47.8013, -277.57
0.5, -1, -34.0561, 1.61529, 9.23532, -131.186, -70.939, 138.303, 81.9431, 27.2733, -143.444, -59.608, 47.8725, -277.557
0.504, -1, -34.004, 1.61343, 9.23902, -131.16, -70.9805, 138.318, 81.9309, 27.333, -143.422, -59.621, 47.9437, -277.543
0.508, -1, -33.9518, 1.61158, 9.24272, -131.135, -71.0221, 138.334, 81.9187, 27.3928, -143.399, -59.634, 48.0149, -277.53
0.512, -1, -33.8997, 1.60973, 9.24643, -131.109, -71.0636, 138.349, 81.9064, 27.4525, -143.377, -59.647, 48.0861, -277.517
0.516, -1, -33.8475, 1.60788, 9.25013, -131.084, -71.1052, 138.365, 81.8942, 27.5123, -143.354, -59.66, 48.1573, -277.504
0.52, -1, -33.7953, 1.60602, 9.25384, -131.058, -71.1467, 138.38, 81.8819, 27.5721, -143.332, -59.673, 48.2286, -277.491
0.524, -1, -33.7431, 1.60417, 9.25755, -131.032, -71.1883, 138.396, 81.8697, 27.6319, -143.309, -59.686, 48.2999, -277.478
0.528, -1, -33.6909, 1.60232, 9.26126, -131.007, -71.2299, 138.411, 81.8574, 27.6917, -143.286, -59.699, 48.3711, -277.465
0.532, -1, -33.6387, 1.60046, 9.26497, -130.981, -71.2715, 138.426, 81.8452, 27.7516, -143.264, -59.712, 48.4425, -277.452
0.536, -1, -33.5865, 1.59861, 9.26868, -130.956, -71.3131, 138.442, 81.8329, 27.8114, -143.241, -59.7251, 48.5138, -277.439
0.54, -1, -33.5343, 1.59675, 9.27239, -130.93, -71.3547, 138.457, 81.8207, 27.8713, -143.218, -59.7381, 48.5851, -277.426
0.544, -1, -33.482, 1.5949, 9.2761, -130.904, -71.3963, 138.473, 81.8084, 27.9312, -143.196, -59.7511, 48.6565, -277.413
0.548, -1, -33.4297, 1.59304, 9.27982, -130.879, -71.438, 138.488, 81.7962, 27.9911, -143.173, -59.7642, 48.7279, -277.399
0.552, -1, -33.3774, 1.59118, 9.28353, -130.853, -71.4796, 138.504, 81.7839, 28.051, -143.15, -59.7772, 48.7993, -277.386
0.556, -1, -33.3251, 1.58932, 9.28725, -130.827, -71.5213, 138.519, 81.7716, 28.1109, -143.128, -59.7902, 48.8707, -277.373
0.56, -1, -33.2728, 1.58747, 9.29096, -130.802, -71.5629, 138.535, 81.7593, 28.1708, -143.105, -59.8033, 48.9421, -277.36
0.564, -1, -33.2205, 1.58561, 9.29468, -130.776, -71.6046, 138.55, 81.7471, 28.2308, -143.082, -59.8163, 49.0136, -277.347
0.568, -1, -33.1682, 1.58375, 9.2984, -130.75, -71.6463, 138.566, 81.7348, 28.2908, -143.06, -59.8294, 49.0851, -277.334
0.572, -1, -33.1158, 1.58189, 9.30212, -130.725, -71.688, 138.581, 81.7225, 28.3507, -143.037, -59.8424, 49.1566, -277.321
0.576, -1, -33.0635, 1.58003, 9.30584, -130.699, -71.7297, 138.597, 81.7102, 28.4108, -143.014, -59.8555, 49.2281, -277.308
0.58, -1, -33.0111, 1.57817, 9.30956, -130.673, -71.7715, 138.612, 81.6979, 28.4708, -142.992, -59.8686, 49.2996, -277.294
0.584, -1, -32.9587, 1.57631, 9.31328, -130.648, -71.8132, 138.628, 81.6856, 28.5308, -142.969, -59.8816, 49.3712, -277.281
0.588, -1, -32.9063, 1.57445, 9.31701, -130.622, -71.8549, 138.643, 81.6733, 28.5909, -142.946, -59.8947, 49.4427, -277.268
0.592, -1, -32.8539, 1.57259, 9.32073, -130.596, -71.8967, 138.659, 81.661, 28.6509, -142.924, -59.9078, 49.5143, -277.255
0.596, -1, -32.8015, 1.57073, 9.32446, -130.571, -71.9385, 138.674, 81.6487, 28.711, -142.901, -59.9208, 49.5859, -277.242
0.6, -1, -32.749, 1.56886, 9.32818, -130.545, -71.9802, 138.69, 81.6364, 28.7711, -142.878, -59.9339, 49.6575, -277.229
0.604, -1, -32.6965, 1.567, 9.33191, -130.519, -72.022, 138.705, 81.6241, 28.8312, -142.855, -59.947, 49.7292, -277.216
0.608, -1, -32.6441, 1.56514, 9.33564, -130.494, -72.0638, 138.721, 81.6118, 28.8913, -142.833, -59.9601, 49.8008, -277.202
0.612, -1, -32.5916, 1.56327, 9.33937, -130.468, -72.1056, 138.736, 81.5995, 28.9515, -142.81, -59.9732, 49.8725, -277.189
0.616, -1, -32.5391, 1.56141, 9.34309, -130.442, -72.1474, 138.752, 81.5872, 29.0116, -142.787, -59.9863, 49.9442, -277.176
0.62, -1, -32.4866, 1.55954, 9.34683, -130.416, -72.1893, 138.768, 81.5749, 29.0718, -142.764, -59.9994, 50.0159, -277.163
0.624, -1, -32.4341, 1.55768, 9.35056, -130.391, -72.2311, 138.783, 81.5625, 29.132, -142.742, -60.0125, 50.0877, -277.15
0.628, -1, -32.3815, 1.55581, 9.35429, -130.365, -72.273, 138.799, 81.5502, 29.1922, -142.719, -60.0256, 50.1594, -277.137
0.632, -1, -32.329, 1.55394, 9.35802, -130.339, -72.3148, 138.814, 81.5379, 29.2524, -142.696, -60.0387, 50.2312, -277.123
0.636, -1, -32.2764, 1.55208, 9.36176, -130.313, -72.3567, 138.83, 81.5256, 29.3127, -142.673, -60.0518, 50.303, -277.11
0.64, -1, -32.2238, 1.55021, 9.36549, -130.287, -72.3986, 138.845, 81.5132, 29.3729, -142.651, -60.0649, 50.3748, -277.097
0.644, -1, -32.1712, 1.54834, 9.36923, -130.262, -72.4405, 138.861, 81.5009, 29.4332, -142.628, -60.078, 50.4466, -277.084
0.648, -1, -32.1186, 1.54647, 9.37297, -130.236, -72.4824, 138.876, 81.4885, 29.4935, -142.605, -60.0911, 50.5184, -277.071
0.652, -1, -32.066, 1.5446, 9.37671, -130.21, -72.5243, 138.892, 81.4762, 29.5538, -142.582, -60.1042, 50.5903, -277.057
0.656, -1, -32.0134, 1.54273, 9.38045, -130.184, -72.5662, 138.908, 81.4638, 29.6141, -142.559, -60.1174, 50.6622, -277.044
0.66, -1, -31.9607, 1.54087, 9.38419, -130.158, -72.6082, 138.923, 81.4515, 29.6744, -142.537, -60.1305, 50.7341, -277.031
0.664, -1, -31.9081, 1.53899, 9.38793, -130.133, -72.6501, 138.939, 81.4391, 29.7347, -142.514, -60.1436, 50.806, -277.018
0.668, -1, -31.8554, 1.53712, 9.39167, -130.107, -72.6921, 138.954, 81.4268, 29.7951, -142.491, -60.1568, 50.8779, -277.005
0.672, -1, -31.8027, 1.53525, 9.39542, -130.081, -72.7341, 138.97, 81.4144, 29.8555, -142.468, -60.1699, 50.9499, -276.991
0.676, -1, -31.75, 1.53338, 9.39916, -130.055, -72.7761, 138.986, 81.402, 29.9159, -142.445, -60.1831, 51.0219, -276.978
0.68, -1, -31.6973, 1.53151, 9.40291, -130.029, -72.8181, 139.001, 81.3897, 29.9763, -142.422, -60.1962, 51.0939, -276.965
0.684, -1, -31.6445, 1.52964, 9.40665, -130.003, -72.8601, 139.017, 81.3773, 30.0367, -142.4, -60.2093, 51.1659, -276.952
0.688, -1, -31.5918, 1.52776, 9.4104, -129.978, -72.9021, 139.032, 81.3649, 30.0972, -142.377, -60.2225, 51.2379, -276.939
0.692, -1, -31.539, 1.52589, 9.41415, -129.952, -72.9441, 139.048, 81.3525, 30.1576, -142.354, -60.2357, 51.31, -276.925
0.696, -1, -31.4863, 1.52401, 9.4179, -129.926, -72.9861, 139.064, 81.3401, 30.2181, -142.331, -60.2488, 51.3821, -276.912
0.7, -1, -31.4335, 1.52214, 9.42165, -129.9, -73.0282, 139.079, 81.3278, 30.2786, -142.308, -60.262, 51.4541, -276.899
0.704, -1, -31.3807, 1.52026, 9.4254, -129.874, -73.0703, 139.095, 81.3154, 30.3391, -142.285, -60.2752, 51.5263, -276.886
0.708, -1, -31.3279, 1.51839, 9.42915, -129.848, -73.1123, 139.111, 81.303, 30.3996, -142.262, -60.2883, 51.5984, -276.872
0.712, -1, -31.275, 1.51651, 9.43291, -129.822, -73.1544, 139.126, 81.2906, 30.4601, -142.24, -60.3015, 51.6705, -276.859
0.716, -1, -31.2222, 1.51463, 9.43666, -129.796, -73.1965, 139.142, 81.2782, 30.5207, -142.217, -60.3147, 51.7427, -276.846
0.72, -1, -31.1693, 1.51276, 9.44042, -129.77, -73.2386, 139.158, 81.2658, 30.5813, -142.194, -60.3279, 51.8149, -276.833
0.724, -1, -31.1165, 1.51088, 9.44417, -129.745, -73.2807, 139.173, 81.2534, 30.6418, -142.171, -60.341, 51.8871, -276.819
0.728, -1, -31.0636, 1.509, 9.44793, -129.719, -73.3229, 139.189, 81.241, 30.7024, -142.148, -60.3542, 51.9593, -276.806
0.732, -1, -31.0107, 1.50712, 9.45169, -129.693, -73.365, 139.204, 81.2286, 30.7631, -142.125, -60.3674, 52.0316, -276.793
0.736, -1, -30.9578, 1.50524, 9.45545, -129.667, -73.4072, 139.22, 81.2161, 30.8237, -142.102, -60.3806, 52.1038, -276.78
0.74, -1, -30.9048, 1.50336, 9.45921, -129.641, -73.4493, 139.236, 81.2037, 30.8843, -142.079, -60.3938, 52.1761, -276.766
0.744, -1, -30.8519, 1.50148, 9.46297, -129.615, -73.4915, 139.252, 81.1913, 30.945, -142.056, -60.407, 52.2484, -276.753
0.748, -1, -30.7989, 1.4996, 9.46673, -129.589, -73.5337, 139.267, 81.1789, 31.0057, -142.033, -60.4202, 52.3207, -276.74
0.752, -1, -30.746, 1.49772, 9.47049, -129.563, -73.5759, 139.283, 81.1664, 31.0664, -142.01, -60.4334, 52.3931, -276.726
0.756, -1, -30.693, 1.49584, 9.47426, -129.537, -73.6181, 139.299, 81.154, 31.1271, -141.987, -60.4466, 52.4654, -276.713
0.76, -1, -30.64, 1.49396, 9.47802, -129.511, -73.6603, 139.314, 81.1416, 31.1878, -141.964, -60.4599, 52.5378, -276.7
0.764, -1, -30.587, 1.49207, 9.48179, -129.485, -73.7025, 139.33, 81.1291, 31.2486, -141.941, -60.4731, 52.6102, -276.687
0.768, -1, -30.5339, 1.49019, 9.48556, -129.459, -73.7448, 139.346, 81.1167, 31.3094, -141.918, -60.4863, 52.6826, -276.673
0.772, -1, -30.4809, 1.48831, 9.48933, -129.433, -73.787, 139.361, 81.1042, 31.3701, -141.895, -60.4995, 52.7551, -276.66
0.776, -1, -30.4278, 1.48642, 9.4931, -129.407, -73.8293, 139.377, 81.0918, 31.4309, -141.872, -60.5128, 52.8275, -276.647
0.78, -1, -30.3748, 1.48454, 9.49687, -129.381, -73.8716, 139.393, 81.0793, 31.4917, -141.849, -60.526, 52.9, -276.633
0.784, -1, -30.3217, 1.48265, 9.50064, -129.355, -73.9139, 139.408, 81.0669, 31.5526, -141.826, -60.5392, 52.9725, -276.62
0.788, -1, -30.2686, 1.48077, 9.50441, -129.329, -73.9562, 139.424, 81.0544, 31.6134, -141.803, -60.5525, 53.045, -276.607
0.792, -1, -30.2155, 1.47888, 9.50819, -129.303, -73.9985, 139.44, 81.042, 31.6743, -141.78, -60.5657, 53.1176, -276.593
0.796, -1, -30.1623, 1.47699, 9.51196, -129.277, -74.0408, 139.456, 81.0295, 31.7352, -141.757, -60.579, 53.1901, -276.58
0.8, -1, -30.1092, 1.4751, 9.51573, -129.251, -74.0831, 139.471, 81.017, 31.7961, -141.734, -60.5922, 53.2627, -276.567
0.804, -1, -30.056, 1.47322, 9.51951, -129.225, -74.1255, 139.487, 81.0045, 31.857, -141.711, -60.6055, 53.3353, -276.553
0.808, -1, -30.0029, 1.47133, 9.52329, -129.199, -74.1678, 139.503, 80.9921, 31.9179, -141.688, -60.6187, 53.4079, -276.54
0.812, -1, -29.9497, 1.46944, 9.52707, -129.172, -74.2102, 139.519, 80.9796, 31.9789, -141.665, -60.632, 53.4805, -276.527
0.816, -1, -29.8965, 1.46755, 9.53085, -129.146, -74.2526, 139.534, 80.9671, 32.0398, -141.642, -60.6453, 53.5532, -276.513
0.82, -1, -29.8433, 1.46566, 9.53463, -129.12, -74.295, 139.55, 80.9546, 32.1008, -141.619, -60.6585, 53.6259, -276.5
0.824, -1, -29.79, 1.46377, 9.53841, -129.094, -74.3374, 139.566, 80.9421, 32.1618, -141.596, -60.6718, 53.6986, -276.487
0.828, -1, -29.7368, 1.46188, 9.54219, -129.068, -74.3798, 139.582, 80.9296, 32.2228, -141.573, -60.6851, 53.7713, -276.473
0.832, -1, -29.6835, 1.45999, 9.54598, -129.042, -74.4222, 139.597, 80.9171, 32.2838, -141.55, -60.6984, 53.844, -276.46
0.836, -1, -29.6303, 1.45809, 9.54976, -129.016, -74.4646, 139.613, 80.9046, 32.3449, -141.527, -60.7117, 53.9168, -276.447
0.84, -1, -29.577, 1.4562, 9.55355, -128.99, -74.5071, 139.629, 80.8921, 32.4059, -141.504, -60.725, 53.9895, -276.433
0.844, -1, -29.5237, 1.45431, 9.55734, -128.964, -74.5496, 139.645, 80.8796, 32.467, -141.481, -60.7382, 54.0623, -276.42
0.848, -1, -29.4704, 1.45242, 9.56112, -128.937, -74.592, 139.661, 80.8671, 32.5281, -141.458, -60.7515, 54.1351, -276.407
0.852, -1, -29.417, 1.45052, 9.56491, -128.911, -74.6345, 139.676, 80.8546, 32.5892, -141.434, -60.7648, 54.208, -276.393
0.856, -1, -29.3637, 1.44863, 9.5687, -128.885, -74.677, 139.692, 80.8421, 32.6504, -141.411, -60.7781, 54.2808, -276.38
0.86, -1, -29.3103, 1.44673, 9.57249, -128.859, -74.7195, 139.708, 80.8296, 32.7115, -141.388, -60.7915, 54.3537, -276.366
0.864, -1, -29.2569, 1.44484, 9.57629, -128.833, -74.762, 139.724, 80.817, 32.7727, -141.365, -60.8048, 54.4266, -276.353
0.868, -1, -29.2036, 1.44294, 9.58008, -128.807, -74.8046, 139.74, 80.8045, 32.8339, -141.342, -60.8181, 54.4995, -276.34
0.872, -1, -29.1501, 1.44104, 9.58387, -128.78, -74.8471, 139.755, 80.792, 32.8951, -141.319, -60.8314, 54.5725, -276.326
0.876, -1, -29.0967, 1.43914, 9.58767, -128.754, -74.8897, 139.771, 80.7794, 32.9563, -141.296, -60.8447, 54.6454, -276.313
0.88, -1, -29.0433, 1.43725, 9.59147, -128.728, -74.9322, 139.787, 80.7669, 33.0175, -141.273, -60.858, 54.7184, -276.299
0.884, -1, -28.9898, 1.43535, 9.59526, -128.702, -74.9748, 139.803, 80.7543, 33.0788, -141.249, -60.8714, 54.7914, -276.286
0.888, -1, -28.9364, 1.43345, 9.59906, -128.676, -75.0174, 139.819, 80.7418, 33.14, -141.226, -60.8847, 54.8644, -276.273
0.892, -1, -28.8829, 1.43155, 9.60286, -128.649, -75.06, 139.834, 80.7292, 33.2013, -141.203, -60.898, 54.9374, -276.259
0.896, -1, -28.8294, 1.42965, 9.60666, -128.623, -75.1026, 139.85, 80.7167, 33.2626, -141.18, -60.9114, 55.0105, -276.246
0.9, -1, -28.7759, 1.42775, 9.61047, -128.597, -75.1452, 139.866, 80.7041, 33.3239, -141.157, -60.9247, 55.0836, -276.232
0.904, -1, -28.7224, 1.42585, 9.61427, -128.571, -75.1879, 139.882, 80.6916, 33.3853, -141.133, -60.9381, 55.1567, -276.219
0.908, -1, -28.6688, 1.42395, 9.61807, -128.544, -75.2305, 139.898, 80.679, 33.4466, -141.11, -60.9514, 55.2298, -276.206
0.912, -1, -28.6153, 1.42204, 9.62188, -128.518, -75.2732, 139.914, 80.6665, 33.508, -141.087, -60.9648, 55.3029, -276.192
0.916, -1, -28.5617, 1.42014, 9.62568, -128.492, -75.3159, 139.93, 80.6539, 33.5694, -141.064, -60.9781, 55.3761, -276.179
0.92, -1, -28.5081, 1.41824, 9.62949, -128.466, -75.3586, 139.945, 80.6413, 33.6308, -141.041, -60.9915, 55.4493, -276.165
0.924, -1, -28.4545, 1.41633, 9.6333, -128.439, -75.4013, 139.961, 80.6287, 33.6922, -141.017, -61.0049, 55.5225, -276.152
0.928, -1, -28.4009, 1.41443, 9.63711, -128.413, -75.444, 139.977, 80.6161, 33.7536, -140.994, -61.0182, 55.5957, -276.138
0.932, -1, -28.3473, 1.41253, 9.64092, -128.387, -75.4867, 139.993, 80.6035, 33.8151, -140.971, -61.0316, 55.6689, -276.125
0.936, -1, -28.2936, 1.41062, 9.64473, -128.36, -75.5294, 140.009, 80.591, 33.8766, -140.948, -61.045, 55.7422, -276.112
0.94, -1, -28.2399, 1.40871, 9.64854, -128.334, -75.5722, 140.025, 80.5784, 33.9381, -140.924, -61.0584, 55.8155, -276.098
0.944, -1, -28.1863, 1.40681, 9.65236, -128.308, -75.6149, 140.041, 80.5658, 33.9996, -140.901, -61.0718, 55.8888, -276.085
0.948, -1, -28.1326, 1.4049, 9.65617, -128.282, -75.6577, 140.057, 80.5532, 34.0611, -140.878, -61.0851, 55.9621, -276.071
0.952, -1, -28.0789, 1.40299, 9.65999, -128.255, -75.7005, 140.073, 80.5406, 34.1226, -140.855, -61.0985, 56.0355, -276.058
0.956, -1, -28.0251, 1.40109, 9.66381, -128.229, -75.7433, 140.088, 80.528, 34.1842, -140.831, -61.1119, 56.1088, -276.044
0.96, -1, -27.9714, 1.39918, 9.66762, -128.202, -75.7861, 140.104, 80.5154, 34.2458, -140.808, -61.1253, 56.1822, -276.031
0.964, -1, -27.9176, 1.39727, 9.67144, -128.176, -75.8289, 140.12, 80.5027, 34.3074, -140.785, -61.1388, 56.2557, -276.017
0.968, -1, -27.8639, 1.39536, 9.67526, -128.15, -75.8718, 140.136, 80.4901, 34.369, -140.762, -61.1522, 56.3291, -276.004
0.972, -1, -27.8101, 1.39345, 9.67908, -128.123, -75.9146, 140.152, 80.4775, 34.4306, -140.738, -61.1656, 56.4025, -275.99
0.976, -1, -27.7563, 1.39154, 9.68291, -128.097, -75.9575, 140.168, 80.4649, 34.4923, -140.715, -61.179, 56.476, -275.977
0.98, -1, -27.7025, 1.38962, 9.68673, -128.071, -76.0003, 140.184, 80.4522, 34.554, -140.692, -61.1924, 56.5495, -275.963
0.984, -1, -27.6486, 1.38771, 9.69056, -128.044, -76.0432, 140.2, 80.4396, 34.6156, -140.668, -61.2058, 56.623, -275.95
0.988, -1, -27.5948, 1.3858, 9.69438, -128.018, -76.0861, 140.216, 80.427, 34.6774, -140.645, -61.2193, 56.6966, -275.936
0.992, -1, -27.5409, 1.38389, 9.69821, -127.991, -76.129, 140.232, 80.4143, 34.7391, -140.622, -61.2327, 56.7702, -275.923
0.996, -1, -27.487, 1.38197, 9.70204, -127.965, -76.172, 140.248, 80.4017, 34.8008, -140.598, -61.2461, 56.8437, -275.909
1, -1, -27.4331, 1.38006, 9.70587, -127.939, -76.2149, 140.264, 80.389, 34.8626, -140.575, -61.2596, 56.9173, -275.896
1.004, -1, -27.3792, 1.37814, 9.7097, -127.912, -76.2578, 140.28, 80.3764, 34.9244, -140.552, -61.273, 56.991, -275.882
1.008, -1, -27.3253, 1.37623, 9.71353, -127.886, -76.3008, 140.296, 80.3637, 34.9862, -140.528, -61.2865, 57.0646, -275.869
1.012, -1, -27.2713, 1.37431, 9.71736, -127.859, -76.3438, 140.312, 80.3511, 35.048, -140.505, -61.2999, 57.1383, -275.855
1.016, -1, -27.2174, 1.3724, 9.7212, -127.833, -76.3868, 140.328, 80.3384, 35.1098, -140.481, -61.3134, 57.212, -275.842
1.02, -1, -27.1634, 1.37048, 9.72503, -127.806, -76.4298, 140.344, 80.3257, 35.1717, -140.458, -61.3268, 57.2857, -275.828
1.024, -1, -27.1094, 1.36856, 9.72887, -127.78, -76.4728, 140.36, 80.3131, 35.2335, -140.435, -61.3403, 57.3594, -275.815
1.027, -1, -27.0554, 1.36664, 9.7327, -127.753, -76.5158, 140.376, 80.3004, 35.2954, -140.411, -61.3538, 57.4332, -275.801
1.032, -1, -27.0014, 1.36472, 9.73654, -127.727, -76.5588, 140.392, 80.2877, 35.3573, -140.388, -61.3672, 57.507, -275.788
1.036, -1, -26.9473, 1.3628, 9.74038, -127.7, -76.6019, 140.408, 80.2751, 35.4192, -140.364, -61.3807, 57.5808, -275.774
1.04, -1, -26.8933, 1.36088, 9.74422, -127.674, -76.6449, 140.424, 80.2624, 35.4812, -140.341, -61.3942, 57.6546, -275.76
1.044, -1, -26.8392, 1.35896, 9.74806, -127.647, -76.688, 140.44, 80.2498, 35.5432, -140.318, -61.4077, 57.7284, -275.747
1.048, -1, -26.7851, 1.35704, 9.75191, -127.621, -76.7311, 140.456, 80.2371, 35.6051, -140.294, -61.4212, 57.8023, -275.733
1.052, -1, -26.731, 1.35512, 9.75575, -127.594, -76.7742, 140.472, 80.2244, 35.6671, -140.271, -61.4347, 57.8762, -275.72
1.055, -1, -26.6769, 1.3532, 9.75959, -127.568, -76.8173, 140.488, 80.2118, 35.7291, -140.247, -61.4482, 57.9501, -275.706
1.06, -1, -26.6228, 1.35128, 9.76344, -127.541, -76.8604, 140.504, 80.1991, 35.7912, -140.224, -61.4617, 58.024, -275.693
1.064, -1, -26.5686, 1.34935, 9.76729, -127.515, -76.9036, 140.52, 80.1865, 35.8532, -140.2, -61.4752, 58.098, -275.679
1.068, -1, -26.5144, 1.34743, 9.77114, -127.488, -76.9467, 140.536, 80.1738, 35.9153, -140.177, -61.4887, 58.172, -275.665
1.072, -1, -26.4603, 1.3455, 9.77499, -127.462, -76.9899, 140.552, 80.1611, 35.9774, -140.153, -61.5022, 58.246, -275.652
1.076, -1, -26.4061, 1.34358, 9.77884, -127.435, -77.0331, 140.568, 80.1484, 36.0395, -140.13, -61.5157, 58.32, -275.638
1.08, -1, -26.3518, 1.34165, 9.78269, -127.408, -77.0763, 140.584, 80.1358, 36.1016, -140.106, -61.5292, 58.394, -275.625
1.084, -1, -26.2976, 1.33973, 9.78654, -127.382, -77.1195, 140.6, 80.1231, 36.1638, -140.083, -61.5427, 58.4681, -275.611
1.088, -1, -26.2434, 1.3378, 9.7904, -127.355, -77.1627, 140.616, 80.1104, 36.2259, -140.059, -61.5563, 58.5422, -275.597
1.091, -1, -26.1891, 1.33587, 9.79425, -127.329, -77.2059, 140.632, 80.0977, 36.2881, -140.036, -61.5698, 58.6163, -275.584
1.096, -1, -26.1348, 1.33395, 9.79811, -127.302, -77.2491, 140.648, 80.085, 36.3503, -140.012, -61.5833, 58.6904, -275.57
1.1, -1, -26.0805, 1.33202, 9.80197, -127.275, -77.2924, 140.664, 80.0723, 36.4126, -139.989, -61.5969, 58.7646, -275.557
1.104, -1, -26.0262, 1.33009, 9.80583, -127.249, -77.3357, 140.68, 80.0596, 36.4748, -139.965, -61.6104, 58.8388, -275.543
1.108, -1, -25.9719, 1.32816, 9.80969, -127.222, -77.3789, 140.696, 80.0469, 36.5371, -139.942, -61.624, 58.913, -275.529
1.112, -1, -25.9175, 1.32623, 9.81355, -127.195, -77.4222, 140.712, 80.0341, 36.5993, -139.918, -61.6375, 58.9872, -275.516
1.116, -1, -25.8632, 1.3243, 9.81741, -127.169, -77.4655, 140.729, 80.0214, 36.6616, -139.895, -61.6511, 59.0614, -275.502
1.119, -1, -25.8088, 1.32237, 9.82127, -127.142, -77.5089, 140.745, 80.0087, 36.7239, -139.871, -61.6646, 59.1357, -275.488
1.124, -1, -25.7544, 1.32043, 9.82514, -127.115, -77.5522, 140.761, 79.996, 36.7863, -139.848, -61.6782, 59.21, -275.475
1.128, -1, -25.7, 1.3185, 9.82901, -127.089, -77.5955, 140.777, 79.9833, 36.8486, -139.824, -61.6918, 59.2843, -275.461
1.132, -1, -25.6455, 1.31657, 9.83287, -127.062, -77.6389, 140.793, 79.9705, 36.911, -139.8, -61.7054, 59.3586, -275.447
1.136, -1, -25.5911, 1.31463, 9.83674, -127.035, -77.6823, 140.809, 79.9578, 36.9734, -139.777, -61.7189, 59.433, -275.434
1.14, -1, -25.5366, 1.3127, 9.84061, -127.009, -77.7257, 140.825, 79.945, 37.0358, -139.753, -61.7325, 59.5074, -275.42
1.144, -1, -25.4821, 1.31076, 9.84448, -126.982, -77.7691, 140.841, 79.9323, 37.0982, -139.73, -61.7461, 59.5818, -275.407
1.147, -1, -25.4276, 1.30883, 9.84835, -126.955, -77.8125, 140.857, 79.9195, 37.1607, -139.706, -61.7597, 59.6562, -275.393
1.152, -1, -25.3731, 1.30689, 9.85223, -126.929, -77.8559, 140.874, 79.9068, 37.2231, -139.682, -61.7733, 59.7307, -275.379
1.156, -1, -25.3186, 1.30496, 9.8561, -126.902, -77.8993, 140.89, 79.894, 37.2856, -139.659, -61.7869, 59.8051, -275.366
1.16, -1, -25.2641, 1.30302, 9.85998, -126.875, -77.9428, 140.906, 79.8813, 37.3481, -139.635, -61.8005, 59.8796, -275.352
1.164, -1, -25.2095, 1.30108, 9.86385, -126.848, -77.9863, 140.922, 79.8685, 37.4107, -139.611, -61.8141, 59.9541, -275.338
1.168, -1, -25.1549, 1.29914, 9.86773, -126.822, -78.0297, 140.938, 79.8557, 37.4732, -139.588, -61.8277, 60.0287, -275.324
1.172, -1, -25.1003, 1.2972, 9.87161, -126.795, -78.0732, 140.954, 79.8429, 37.5358, -139.564, -61.8413, 60.1032, -275.311
1.175, -1, -25.0457, 1.29526, 9.87549, -126.768, -78.1167, 140.971, 79.8302, 37.5984, -139.54, -61.8549, 60.1778, -275.297
1.18, -1, -24.9911, 1.29332, 9.87937, -126.741, -78.1603, 140.987, 79.8174, 37.661, -139.517, -61.8686, 60.2524, -275.283
1.184, -1, -24.9364, 1.29138, 9.88325, -126.714, -78.2038, 141.003, 79.8046, 37.7236, -139.493, -61.8822, 60.3271, -275.27
1.188, -1, -24.8818, 1.28944, 9.88714, -126.688, -78.2473, 141.019, 79.7918, 37.7862, -139.469, -61.8958, 60.4017, -275.256
1.192, -1, -24.8271, 1.2875, 9.89102, -126.661, -78.2909, 141.035, 79.779, 37.8489, -139.446, -61.9095, 60.4764, -275.242
1.196, -1, -24.7724, 1.28556, 9.89491, -126.634, -78.3345, 141.051, 79.7662, 37.9115, -139.422, -61.9231, 60.5511, -275.229
1.2, -1, -24.7177, 1.28361, 9.8988, -126.607, -78.378, 141.068, 79.7534, 37.9742, -139.398, -61.9367, 60.6258, -275.215
1.204, -1, -24.6629, 1.28167, 9.90269, -126.58, -78.4217, 141.084, 79.7406, 38.037, -139.375, -61.9504, 60.7006, -275.201
1.208, -1, -24.6082, 1.27972, 9.90658, -126.554, -78.4653, 141.1, 79.7278, 38.0997, -139.351, -61.964, 60.7753, -275.187
1.212, -1, -24.5534, 1.27778, 9.91047, -126.527, -78.5089, 141.116, 79.7149, 38.1625, -139.327, -61.9777, 60.8501, -275.174
1.216, -1, -24.4986, 1.27583, 9.91436, -126.5, -78.5525, 141.132, 79.7021, 38.2252, -139.303, -61.9914, 60.9249, -275.16
1.22, -1, -24.4438, 1.27389, 9.91825, -126.473, -78.5962, 141.149, 79.6893, 38.288, -139.28, -62.005, 60.9998, -275.146
1.224, -1, -24.389, 1.27194, 9.92215, -126.446, -78.6398, 141.165, 79.6765, 38.3508, -139.256, -62.0187, 61.0746, -275.132
1.228, -1, -24.3342, 1.26999, 9.92604, -126.419, -78.6835, 141.181, 79.6636, 38.4137, -139.232, -62.0324, 61.1495, -275.119
1.232, -1, -24.2793, 1.26804, 9.92994, -126.392, -78.7272, 141.197, 79.6508, 38.4765, -139.208, -62.0461, 61.2244, -275.105
1.236, -1, -24.2245, 1.2661, 9.93384, -126.365, -78.7709, 141.214, 79.6379, 38.5394, -139.185, -62.0597, 61.2994, -275.091
1.24, -1, -24.1696, 1.26415, 9.93774, -126.338, -78.8147, 141.23, 79.6251, 38.6023, -139.161, -62.0734, 61.3743, -275.077
1.244, -1, -24.1147, 1.2622, 9.94164, -126.312, -78.8584, 141.246, 79.6123, 38.6652, -139.137, -62.0871, 61.4493, -275.064
1.248, -1, -24.0598, 1.26025, 9.94554, -126.285, -78.9021, 141.262, 79.5994, 38.7281, -139.113, -62.1008, 61.5243, -275.05
1.252, -1, -24.0048, 1.25829, 9.94944, -126.258, -78.9459, 141.279, 79.5865, 38.7911, -139.089, -62.1145, 61.5993, -275.036
1.256, -1, -23.9499, 1.25634, 9.95335, -126.231, -78.9897, 141.295, 79.5737, 38.8541, -139.066, -62.1282, 61.6744, -275.022
1.26, -1, -23.8949, 1.25439, 9.95725, -126.204, -79.0335, 141.311, 79.5608, 38.9171, -139.042, -62.1419, 61.7495, -275.009
1.264, -1, -23.8399, 1.25244, 9.96116, -126.177, -79.0773, 141.327, 79.5479, 38.9801, -139.018, -62.1556, 61.8246, -274.995
1.267, -1, -23.7849, 1.25048, 9.96507, -126.15, -79.1211, 141.344, 79.5351, 39.0431, -138.994, -62.1694, 61.8997, -274.981
1.272, -1, -23.7299, 1.24853, 9.96898, -126.123, -79.1649, 141.36, 79.5222, 39.1062, -138.97, -62.1831, 61.9748, -274.967
1.276, -1, -23.6748, 1.24657, 9.97289, -126.096, -79.2088, 141.376, 79.5093, 39.1692, -138.946, -62.1968, 62.05, -274.953
1.28, -1, -23.6198, 1.24462, 9.9768, -126.069, -79.2526, 141.393, 79.4964, 39.2323, -138.923, -62.2105, 62.1252, -274.94
1.284, -1, -23.5647, 1.24266, 9.98071, -126.042, -79.2965, 141.409, 79.4835, 39.2954, -138.899, -62.2243, 62.2004, -274.926
1.288, -1, -23.5096, 1.24071, 9.98463, -126.015, -79.3404, 141.425, 79.4706, 39.3586, -138.875, -62.238, 62.2756, -274.912
1.292, -1, -23.4545, 1.23875, 9.98854, -125.988, -79.3843, 141.442, 79.4577, 39.4217, -138.851, -62.2517, 62.3509, -274.898
1.295, -1, -23.3994, 1.23679, 9.99246, -125.961, -79.4282, 141.458, 79.4448, 39.4849, -138.827, -62.2655, 62.4262, -274.884
1.3, -1, -23.3442, 1.23483, 9.99638, -125.934, -79.4721, 141.474, 79.4319, 39.5481, -138.803, -62.2793, 62.5015, -274.87
1.304, -1, -23.2891, 1.23287, 10.0003, -125.907, -79.5161, 141.491, 79.419, 39.6113, -138.779, -62.293, 62.5768, -274.857
1.308, -1, -23.2339, 1.23091, 10.0042, -125.88, -79.56, 141.507, 79.4061, 39.6745, -138.755, -62.3068, 62.6522, -274.843
1.312, -1, -23.1787, 1.22895, 10.0081, -125.853, -79.604, 141.523, 79.3931, 39.7378, -138.732, -62.3205, 62.7276, -274.829
1.316, -1, -23.1235, 1.22699, 10.0121, -125.826, -79.648, 141.54, 79.3802, 39.801, -138.708, -62.3343, 62.803, -274.815
1.32, -1, -23.0682, 1.22503, 10.016, -125.798, -79.692, 141.556, 79.3673, 39.8643, -138.684, -62.3481, 62.8784, -274.801
1.324, -1, -23.013, 1.22307, 10.0199, -125.771, -79.736, 141.572, 79.3544, 39.9277, -138.66, -62.3619, 62.9539, -274.787
1.328, -1, -22.9577, 1.2211, 10.0238, -125.744, -79.78, 141.589, 79.3414, 39.991, -138.636, -62.3756, 63.0294, -274.773
1.332, -1, -22.9024, 1.21914, 10.0278, -125.717, -79.8241, 141.605, 79.3285, 40.0543, -138.612, -62.3894, 63.1049, -274.76
1.336, -1, -22.8471, 1.21717, 10.0317, -125.69, -79.8681, 141.621, 79.3155, 40.1177, -138.588, -62.4032, 63.1804, -274.746
1.34, -1, -22.7918, 1.21521, 10.0356, -125.663, -79.9122, 141.638, 79.3026, 40.1811, -138.564, -62.417, 63.2559, -274.732
1.344, -1, -22.7365, 1.21324, 10.0396, -125.636, -79.9563, 141.654, 79.2896, 40.2445, -138.54, -62.4308, 63.3315, -274.718
1.348, -1, -22.6811, 1.21128, 10.0435, -125.609, -80.0004, 141.671, 79.2767, 40.308, -138.516, -62.4446, 63.4071, -274.704
1.352, -1, -22.6257, 1.20931, 10.0474, -125.581, -80.0445, 141.687, 79.2637, 40.3714, -138.492, -62.4584, 63.4827, -274.69
1.356, -1, -22.5703, 1.20734, 10.0514, -125.554, -80.0886, 141.703, 79.2507, 40.4349, -138.468, -62.4722, 63.5584, -274.676
1.36, -1, -22.5149, 1.20538, 10.0553, -125.527, -80.1328, 141.72, 79.2377, 40.4984, -138.444, -62.4861, 63.6341, -274.662
1.364, -1, -22.4595, 1.20341, 10.0592, -125.5, -80.1769, 141.736, 79.2248, 40.5619, -138.42, -62.4999, 63.7098, -274.649
1.368, -1, -22.404, 1.20144, 10.0632, -125.473, -80.2211, 141.753, 79.2118, 40.6255, -138.396, -62.5137, 63.7855, -274.635
1.372, -1, -22.3486, 1.19947, 10.0671, -125.446, -80.2653, 141.769, 79.1988, 40.689, -138.372, -62.5275, 63.8613, -274.621
1.376, -1, -22.2931, 1.1975, 10.0711, -125.418, -80.3095, 141.785, 79.1858, 40.7526, -138.348, -62.5414, 63.937, -274.607
1.38, -1, -22.2376, 1.19553, 10.075, -125.391, -80.3537, 141.802, 79.1728, 40.8162, -138.324, -62.5552, 64.0128, -274.593
1.384, -1, -22.1821, 1.19355, 10.0789, -125.364, -80.3979, 141.818, 79.1598, 40.8798, -138.3, -62.5691, 64.0886, -274.579
1.388, -1, -22.1265, 1.19158, 10.0829, -125.337, -80.4422, 141.835, 79.1468, 40.9435, -138.276, -62.5829, 64.1645, -274.565
1.392, -1, -22.071, 1.18961, 10.0868, -125.309, -80.4864, 141.851, 79.1338, 41.0071, -138.252, -62.5968, 64.2404, -274.551
1.396, -1, -22.0154, 1.18763, 10.0908, -125.282, -80.5307, 141.868, 79.1208, 41.0708, -138.227, -62.6106, 64.3163, -274.537
1.4, -1, -21.9598, 1.18566, 10.0947, -125.255, -80.575, 141.884, 79.1078, 41.1345, -138.203, -62.6245, 64.3922, -274.523
1.404, -1, -21.9042, 1.18368, 10.0987, -125.228, -80.6193, 141.901, 79.0948, 41.1982, -138.179, -62.6384, 64.4681, -274.509
1.408, -1, -21.8485, 1.18171, 10.1026, -125.2, -80.6636, 141.917, 79.0817, 41.262, -138.155, -62.6522, 64.5441, -274.495
1.412, -1, -21.7929, 1.17973, 10.1066, -125.173, -80.7079, 141.934, 79.0687, 41.3257, -138.131, -62.6661, 64.6201, -274.481
1.416, -1, -21.7372, 1.17775, 10.1106, -125.146, -80.7523, 141.95, 79.0557, 41.3895, -138.107, -62.68, 64.6961, -274.467
1.42, -1, -21.6815, 1.17578, 10.1145, -125.119, -80.7966, 141.967, 79.0426, 41.4534, -138.083, -62.6939, 64.7722, -274.453
1.424, -1, -21.6258, 1.1738, 10.1185, -125.091, -80.841, 141.983, 79.0296, 41.5172, -138.059, -62.7078, 64.8483, -274.44
1.428, -1, -21.5701, 1.17182, 10.1224, -125.064, -80.8854, 141.999, 79.0165, 41.581, -138.035, -62.7217, 64.9244, -274.426
1.432, -1, -21.5144, 1.16984, 10.1264, -125.037, -80.9298, 142.016, 79.0035, 41.6449, -138.01, -62.7356, 65.0005, -274.412
1.436, -1, -21.4586, 1.16786, 10.1303, -125.009, -80.9742, 142.033, 78.9904, 41.7088, -137.986, -62.7495, 65.0766, -274.398
1.44, -1, -21.4028, 1.16588, 10.1343, -124.982, -81.0187, 142.049, 78.9774, 41.7727, -137.962, -62.7634, 65.1528, -274.384
1.444, -1, -21.347, 1.16389, 10.1383, -124.955, -81.0631, 142.066, 78.9643, 41.8367, -137.938, -62.7773, 65.229, -274.37
1.448, -1, -21.2912, 1.16191, 10.1422, -124.927, -81.1076, 142.082, 78.9512, 41.9006, -137.914, -62.7912, 65.3053, -274.356
1.452, -1, -21.2354, 1.15993, 10.1462, -124.9, -81.1521, 142.099, 78.9382, 41.9646, -137.89, -62.8051, 65.3815, -274.342
1.456, -1, -21.1795, 1.15794, 10.1502, -124.872, -81.1965, 142.115, 78.9251, 42.0286, -137.865, -62.8191, 65.4578, -274.328
1.46, -1, -21.1236, 1.15596, 10.1541, -124.845, -81.2411, 142.132, 78.912, 42.0927, -137.841, -62.833, 65.5341, -274.314
1.464, -1, -21.0677, 1.15397, 10.1581, -124.818, -81.2856, 142.148, 78.8989, 42.1567, -137.817, -62.8469, 65.6104, -274.3
1.468, -1, -21.0118, 1.15199, 10.1621, -124.79, -81.3301, 142.165, 78.8858, 42.2208, -137.793, -62.8609, 65.6868, -274.286
1.472, -1, -20.9559, 1.15, 10.1661, -124.763, -81.3747, 142.181, 78.8727, 42.2849, -137.768, -62.8748, 65.7632, -274.272
1.476, -1, -20.8999, 1.14802, 10.17, -124.735, -81.4193, 142.198, 78.8596, 42.349, -137.744, -62.8888, 65.8396, -274.257
1.48, -1, -20.844, 1.14603, 10.174, -124.708, -81.4638, 142.214, 78.8465, 42.4131, -137.72, -62.9027, 65.916, -274.243
1.484, -1, -20.788, 1.14404, 10.178, -124.68, -81.5084, 142.231, 78.8334, 42.4773, -137.696, -62.9167, 65.9925, -274.229
1.488, -1, -20.732, 1.14205, 10.182, -124.653, -81.5531, 142.248, 78.8203, 42.5415, -137.671, -62.9307, 66.069, -274.215
1.492, -1, -20.6759, 1.14006, 10.186, -124.626, -81.5977, 142.264, 78.8072, 42.6057, -137.647, -62.9446, 66.1455, -274.201
1.496, -1, -20.6199, 1.13807, 10.1899, -124.598, -81.6423, 142.281, 78.7941, 42.6699, -137.623, -62.9586, 66.222, -274.187
1.5, -1, -20.5638, 1.13608, 10.1939, -124.571, -81.687, 142.297, 78.7809, 42.7341, -137.599, -62.9726, 66.2986, -274.173
1.504, -1, -20.5077, 1.13409, 10.1979, -124.543, -81.7317, 142.314, 78.7678, 42.7984, -137.574, -62.9866, 66.3752, -274.159
1.508, -1, -20.4516, 1.13209, 10.2019, -124.516, -81.7764, 142.331, 78.7547, 42.8627, -137.55, -63.0006, 66.4518, -274.145
1.512, -1, -20.3955, 1.1301, 10.2059, -124.488, -81.8211, 142.347, 78.7415, 42.927, -137.526, -63.0146, 66.5285, -274.131
1.516, -1, -20.3394, 1.1281, 10.2099, -124.461, -81.8658, 142.364, 78.7284, 42.9913, -137.501, -63.0286, 66.6051, -274.117
1.52, -1, -20.2832, 1.12611, 10.2139, -124.433, -81.9105, 142.38, 78.7152, 43.0557, -137.477, -63.0426, 66.6819, -274.103
1.524, -1, -20.227, 1.12411, 10.2178, -124.405, -81.9553, 142.397, 78.7021, 43.1201, -137.453, -63.0566, 66.7586, -274.089
1.528, -1, -20.1708, 1.12212, 10.2218, -124.378, -82.0001, 142.414, 78.6889, 43.1845, -137.428, -63.0706, 66.8353, -274.075
1.532, -1, -20.1146, 1.12012, 10.2258, -124.35, -82.0449, 142.43, 78.6757, 43.2489, -137.404, -63.0846, 66.9121, -274.061
1.536, -1, -20.0584, 1.11812, 10.2298, -124.323, -82.0897, 142.447, 78.6626, 43.3133, -137.38, -63.0987, 66.9889, -274.046
1.54, -1, -20.0021, 1.11613, 10.2338, -124.295, -82.1345, 142.464, 78.6494, 43.3778, -137.355, -63.1127, 67.0658, -274.032
1.544, -1, -19.9458, 1.11413, 10.2378, -124.268, -82.1793, 142.48, 78.6362, 43.4423, -137.331, -63.1267, 67.1426, -274.018
1.548, -1, -19.8895, 1.11213, 10.2418, -124.24, -82.2242, 142.497, 78.623, 43.5068, -137.306, -63.1408, 67.2195, -274.004
1.552, -1, -19.8332, 1.11013, 10.2458, -124.212, -82.269, 142.514, 78.6098, 43.5714, -137.282, -63.1548, 67.2964, -273.99
1.556, -1, -19.7769, 1.10813, 10.2498, -124.185, -82.3139, 142.53, 78.5966, 43.6359, -137.258, -63.1689, 67.3734, -273.976
1.56, -1, -19.7205, 1.10612, 10.2538, -124.157, -82.3588, 142.547, 78.5835, 43.7005, -137.233, -63.1829, 67.4503, -273.962
1.564, -1, -19.6641, 1.10412, 10.2578, -124.129, -82.4037, 142.564, 78.5703, 43.7651, -137.209, -63.197, 67.5273, -273.948
1.568, -1, -19.6077, 1.10212, 10.2619, -124.102, -82.4486, 142.58, 78.557, 43.8297, -137.184, -63.211, 67.6043, -273.933
1.572, -1, -19.5513, 1.10011, 10.2659, -124.074, -82.4936, 142.597, 78.5438, 43.8944, -137.16, -63.2251, 67.6814, -273.919
1.576, -1, -19.4949, 1.09811, 10.2699, -124.046, -82.5385, 142.614, 78.5306, 43.959, -137.135, -63.2392, 67.7585, -273.905
1.58, -1, -19.4384, 1.0961, 10.2739, -124.019, -82.5835, 142.631, 78.5174, 44.0237, -137.111, -63.2533, 67.8356, -273.891
1.584, -1, -19.3819, 1.0941, 10.2779, -123.991, -82.6285, 142.647, 78.5042, 44.0885, -137.086, -63.2673, 67.9127, -273.877
1.588, -1, -19.3254, 1.09209, 10.2819, -123.963, -82.6735, 142.664, 78.4909, 44.1532, -137.062, -63.2814, 67.9899, -273.863
1.592, -1, -19.2689, 1.09008, 10.2859, -123.936, -82.7185, 142.681, 78.4777, 44.218, -137.037, -63.2955, 68.067, -273.848
1.596, -1, -19.2124, 1.08808, 10.2899, -123.908, -82.7636, 142.698, 78.4645, 44.2828, -137.013, -63.3096, 68.1443, -273.834
1.6, -1, -19.1558, 1.08607, 10.294, -123.88, -82.8086, 142.714, 78.4512, 44.3476, -136.988, -63.3237, 68.2215, -273.82
1.604, -1, -19.0993, 1.08406, 10.298, -123.852, -82.8537, 142.731, 78.438, 44.4124, -136.964, -63.3378, 68.2988, -273.806
1.608, -1, -19.0427, 1.08205, 10.302, -123.825, -82.8988, 142.748, 78.4247, 44.4773, -136.939, -63.352, 68.3761, -273.792
1.612, -1, -18.986, 1.08004, 10.306, -123.797, -82.9439, 142.765, 78.4115, 44.5421, -136.915, -63.3661, 68.4534, -273.778
1.616, -1, -18.9294, 1.07802, 10.31, -123.769, -82.989, 142.781, 78.3982, 44.607, -136.89, -63.3802, 68.5307, -273.763
1.62, -1, -18.8727, 1.07601, 10.3141, -123.741, -83.0341, 142.798, 78.3849, 44.672, -136.866, -63.3943, 68.6081, -273.749
1.624, -1, -18.8161, 1.074, 10.3181, -123.714, -83.0793, 142.815, 78.3717, 44.7369, -136.841, -63.4085, 68.6855, -273.735
1.628, -1, -18.7594, 1.07199, 10.3221, -123.686, -83.1245, 142.832, 78.3584, 44.8019, -136.817, -63.4226, 68.7629, -273.721
1.632, -1, -18.7026, 1.06997, 10.3262, -123.658, -83.1696, 142.848, 78.3451, 44.8669, -136.792, -63.4367, 68.8404, -273.707
1.636, -1, -18.6459, 1.06796, 10.3302, -123.63, -83.2148, 142.865, 78.3318, 44.9319, -136.768, -63.4509, 68.9179, -273.692
1.64, -1, -18.5891, 1.06594, 10.3342, -123.602, -83.26, 142.882, 78.3185, 44.9969, -136.743, -63.465, 68.9954, -273.678
1.644, -1, -18.5324, 1.06392, 10.3383, -123.575, -83.3053, 142.899, 78.3052, 45.062, -136.718, -63.4792, 69.0729, -273.664
1.648, -1, -18.4756, 1.06191, 10.3423, -123.547, -83.3505, 142.916, 78.2919, 45.1271, -136.694, -63.4934, 69.1505, -273.65
1.652, -1, -18.4187, 1.05989, 10.3463, -123.519, -83.3958, 142.932, 78.2786, 45.1922, -136.669, -63.5075, 69.2281, -273.635
1.656, -1, -18.3619, 1.05787, 10.3504, -123.491, -83.4411, 142.949, 78.2653, 45.2573, -136.644, -63.5217, 69.3057, -273.621
1.66, -1, -18.305, 1.05585, 10.3544, -123.463, -83.4864, 142.966, 78.252, 45.3225, -136.62, -63.5359, 69.3834, -273.607
1.664, -1, -18.2482, 1.05383, 10.3584, -123.435, -83.5317, 142.983, 78.2387, 45.3877, -136.595, -63.5501, 69.4611, -273.593
1.668, -1, -18.1913, 1.05181, 10.3625, -123.407, -83.577, 143, 78.2253, 45.4529, -136.571, -63.5643, 69.5388, -273.578
1.672, -1, -18.1343, 1.04979, 10.3665, -123.379, -83.6223, 143.017, 78.212, 45.5181, -136.546, -63.5785, 69.6165, -273.564
1.676, -1, -18.0774, 1.04776, 10.3706, -123.351, -83.6677, 143.034, 78.1987, 45.5833, -136.521, -63.5927, 69.6943, -273.55
1.68, -1, -18.0204, 1.04574, 10.3746, -123.324, -83.7131, 143.05, 78.1853, 45.6486, -136.497, -63.6069, 69.7721, -273.535
1.684, -1, -17.9634, 1.04372, 10.3787, -123.296, -83.7585, 143.067, 78.172, 45.7139, -136.472, -63.6211, 69.8499, -273.521
1.688, -1, -17.9064, 1.04169, 10.3827, -123.268, -83.8039, 143.084, 78.1586, 45.7792, -136.447, -63.6353, 69.9278, -273.507
1.692, -1, -17.8494, 1.03967, 10.3868, -123.24, -83.8493, 143.101, 78.1453, 45.8446, -136.422, -63.6495, 70.0056, -273.493
1.696, -1, -17.7924, 1.03764, 10.3908, -123.212, -83.8948, 143.118, 78.1319, 45.91, -136.398, -63.6637, 70.0835, -273.478
1.7, -1, -17.7353, 1.03561, 10.3949, -123.184, -83.9402, 143.135, 78.1186, 45.9753, -136.373, -63.678, 70.1615, -273.464
1.704, -1, -17.6782, 1.03358, 10.3989, -123.156, -83.9857, 143.152, 78.1052, 46.0408, -136.348, -63.6922, 70.2394, -273.45
1.708, -1, -17.6211, 1.03156, 10.403, -123.128, -84.0312, 143.169, 78.0918, 46.1062, -136.324, -63.7064, 70.3174, -273.435
1.712, -1, -17.564, 1.02953, 10.4071, -123.1, -84.0767, 143.186, 78.0784, 46.1717, -136.299, -63.7207, 70.3955, -273.421
1.716, -1, -17.5068, 1.0275, 10.4111, -123.072, -84.1222, 143.202, 78.0651, 46.2372, -136.274, -63.7349, 70.4735, -273.407
1.72, -1, -17.4497, 1.02547, 10.4152, -123.044, -84.1678, 143.219, 78.0517, 46.3027, -136.249, -63.7492, 70.5516, -273.392
1.724, -1, -17.3925, 1.02343, 10.4192, -123.016, -84.2133, 143.236, 78.0383, 46.3682, -136.224, -63.7635, 70.6297, -273.378
1.728, -1, -17.3352, 1.0214, 10.4233, -122.988, -84.2589, 143.253, 78.0249, 46.4338, -136.2, -63.7777, 70.7078, -273.364
1.732, -1, -17.278, 1.01937, 10.4274, -122.96, -84.3045, 143.27, 78.0115, 46.4994, -136.175, -63.792, 70.786, -273.349
1.736, -1, -17.2208, 1.01734, 10.4314, -122.931, -84.3501, 143.287, 77.9981, 46.565, -136.15, -63.8063, 70.8642, -273.335
1.74, -1, -17.1635, 1.0153, 10.4355, -122.903, -84.3957, 143.304, 77.9846, 46.6306, -136.125, -63.8206, 70.9424, -273.321
1.744, -1, -17.1062, 1.01327, 10.4396, -122.875, -84.4414, 143.321, 77.9712, 46.6963, -136.1, -63.8349, 71.0207, -273.306
1.748, -1, -17.0489, 1.01123, 10.4437, -122.847, -84.487, 143.338, 77.9578, 46.7619, -136.076, -63.8491, 71.0989, -273.292
1.752, -1, -16.9915, 1.00919, 10.4477, -122.819, -84.5327, 143.355, 77.9444, 46.8277, -136.051, -63.8635, 71.1773, -273.277
1.756, -1, -16.9342, 1.00716, 10.4518, -122.791, -84.5784, 143.372, 77.9309, 46.8934, -136.026, -63.8778, 71.2556, -273.263
1.76, -1, -16.8768, 1.00512, 10.4559, -122.763, -84.6241, 143.389, 77.9175, 46.9591, -136.001, -63.8921, 71.334, -273.249
1.764, -1, -16.8194, 1.00308, 10.46, -122.735, -84.6699, 143.406, 77.9041, 47.0249, -135.976, -63.9064, 71.4124, -273.234
1.768, -1, -16.7619, 1.00104, 10.464, -122.706, -84.7156, 143.423, 77.8906, 47.0907, -135.951, -63.9207, 71.4908, -273.22
1.772, -1, -16.7045, 0.998999, 10.4681, -122.678, -84.7614, 143.44, 77.8772, 47.1565, -135.926, -63.935, 71.5692, -273.205
1.776, -1, -16.647, 0.996958, 10.4722, -122.65, -84.8071, 143.457, 77.8637, 47.2224, -135.901, -63.9494, 71.6477, -273.191
1.78, -1, -16.5895, 0.994916, 10.4763, -122.622, -84.8529, 143.474, 77.8502, 47.2883, -135.877, -63.9637, 71.7262, -273.177
1.784, -1, -16.532, 0.992874, 10.4804, -122.594, -84.8988, 143.491, 77.8368, 47.3542, -135.852, -63.978, 71.8048, -273.162
1.788, -1, -16.4745, 0.99083, 10.4845, -122.566, -84.9446, 143.508, 77.8233, 47.4201, -135.827, -63.9924, 71.8833, -273.148
1.792, -1, -16.4169, 0.988786, 10.4886, -122.537, -84.9904, 143.525, 77.8098, 47.4861, -135.802, -64.0067, 71.9619, -273.133
1.796, -1, -16.3594, 0.986741, 10.4926, -122.509, -85.0363, 143.542, 77.7963, 47.552, -135.777, -64.0211, 72.0406, -273.119
1.8, -1, -16.3018, 0.984695, 10.4967, -122.481, -85.0822, 143.559, 77.7828, 47.618, -135.752, -64.0355, 72.1192, -273.104
1.804, -1, -16.2441, 0.982648, 10.5008, -122.453, -85.1281, 143.576, 77.7693, 47.6841, -135.727, -64.0498, 72.1979, -273.09
1.808, -1, -16.1865, 0.980601, 10.5049, -122.424, -85.174, 143.593, 77.7558, 47.7501, -135.702, -64.0642, 72.2766, -273.076
1.812, -1, -16.1288, 0.978553, 10.509, -122.396, -85.2199, 143.61, 77.7423, 47.8162, -135.677, -64.0786, 72.3554, -273.061
1.816, -1, -16.0712, 0.976504, 10.5131, -122.368, -85.2659, 143.628, 77.7288, 47.8823, -135.652, -64.093, 72.4342, -273.047
1.82, -1, -16.0134, 0.974454, 10.5172, -122.339, -85.3119, 143.645, 77.7153, 47.9484, -135.627, -64.1074, 72.513, -273.032
1.824, -1, -15.9557, 0.972404, 10.5213, -122.311, -85.3578, 143.662, 77.7018, 48.0146, -135.602, -64.1217, 72.5918, -273.018
1.828, -1, -15.898, 0.970353, 10.5254, -122.283, -85.4038, 143.679, 77.6883, 48.0807, -135.577, -64.1362, 72.6707, -273.003
1.832, -1, -15.8402, 0.968301, 10.5295, -122.255, -85.4499, 143.696, 77.6747, 48.1469, -135.552, -64.1506, 72.7496, -272.989
1.836, -1, -15.7824, 0.966248, 10.5336, -122.226, -85.4959, 143.713, 77.6612, 48.2132, -135.527, -64.165, 72.8285, -272.974
1.84, -1, -15.7246, 0.964194, 10.5377, -122.198, -85.542, 143.73, 77.6477, 48.2794, -135.502, -64.1794, 72.9075, -272.96
1.844, -1, -15.6667, 0.96214, 10.5419, -122.17, -85.588, 143.747, 77.6341, 48.3457, -135.477, -64.1938, 72.9865, -272.945
1.848, -1, -15.6089, 0.960085, 10.546, -122.141, -85.6341, 143.764, 77.6206, 48.412, -135.452, -64.2082, 73.0655, -272.931
1.852, -1, -15.551, 0.958029, 10.5501, -122.113, -85.6802, 143.782, 77.607, 48.4783, -135.427, -64.2227, 73.1445, -272.916
1.856, -1, -15.4931, 0.955972, 10.5542, -122.084, -85.7264, 143.799, 77.5935, 48.5447, -135.401, -64.2371, 73.2236, -272.902
1.86, -1, -15.4352, 0.953915, 10.5583, -122.056, -85.7725, 143.816, 77.5799, 48.6111, -135.376, -64.2516, 73.3027, -272.887
1.864, -1, -15.3772, 0.951856, 10.5624, -122.028, -85.8187, 143.833, 77.5663, 48.6775, -135.351, -64.266, 73.3819, -272.873
1.868, -1, -15.3192, 0.949797, 10.5665, -121.999, -85.8649, 143.85, 77.5527, 48.7439, -135.326, -64.2805, 73.461, -272.858
1.872, -1, -15.2613, 0.947737, 10.5707, -121.971, -85.911, 143.867, 77.5392, 48.8104, -135.301, -64.2949, 73.5402, -272.844
1.876, -1, -15.2032, 0.945676, 10.5748, -121.942, -85.9573, 143.884, 77.5256, 48.8768, -135.276, -64.3094, 73.6195, -272.829
1.88, -1, -15.1452, 0.943615, 10.5789, -121.914, -86.0035, 143.902, 77.512, 48.9433, -135.251, -64.3239, 73.6987, -272.814
1.884, -1, -15.0871, 0.941552, 10.583, -121.885, -86.0498, 143.919, 77.4984, 49.0099, -135.226, -64.3384, 73.778, -272.8
1.888, -1, -15.029, 0.939489, 10.5872, -121.857, -86.096, 143.936, 77.4848, 49.0764, -135.2, -64.3528, 73.8573, -272.785
1.892, -1, -14.9709, 0.937425, 10.5913, -121.828, -86.1423, 143.953, 77.4712, 49.143, -135.175, -64.3673, 73.9367, -272.771
1.896, -1, -14.9128, 0.935361, 10.5954, -121.8, -86.1886, 143.97, 77.4576, 49.2096, -135.15, -64.3818, 74.0161, -272.756
1.9, -1, -14.8547, 0.933295, 10.5996, -121.771, -86.2349, 143.988, 77.4439, 49.2763, -135.125, -64.3963, 74.0955, -272.742
1.904, -1, -14.7965, 0.931229, 10.6037, -121.743, -86.2813, 144.005, 77.4303, 49.3429, -135.1, -64.4108, 74.175, -272.727
1.908, -1, -14.7383, 0.929162, 10.6078, -121.714, -86.3277, 144.022, 77.4167, 49.4096, -135.074, -64.4253, 74.2544, -272.712
1.912, -1, -14.6801, 0.927094, 10.612, -121.686, -86.374, 144.039, 77.403, 49.4763, -135.049, -64.4399, 74.3339, -272.698
1.916, -1, -14.6218, 0.925025, 10.6161, -121.657, -86.4204, 144.057, 77.3894, 49.5431, -135.024, -64.4544, 74.4135, -272.683
1.92, -1, -14.5635, 0.922955, 10.6202, -121.629, -86.4669, 144.074, 77.3757, 49.6099, -134.999, -64.4689, 74.4931, -272.669
1.924, -1, -14.5053, 0.920885, 10.6244, -121.6, -86.5133, 144.091, 77.3621, 49.6767, -134.973, -64.4835, 74.5727, -272.654
1.928, -1, -14.4469, 0.918813, 10.6285, -121.571, -86.5597, 144.108, 77.3484, 49.7435, -134.948, -64.498, 74.6523, -272.639
1.932, -1, -14.3886, 0.916741, 10.6327, -121.543, -86.6062, 144.126, 77.3348, 49.8103, -134.923, -64.5125, 74.732, -272.625
1.936, -1, -14.3302, 0.914668, 10.6368, -121.514, -86.6527, 144.143, 77.3211, 49.8772, -134.898, -64.5271, 74.8117, -272.61
1.94, -1, -14.2719, 0.912594, 10.641, -121.486, -86.6992, 144.16, 77.3074, 49.9441, -134.872, -64.5417, 74.8914, -272.595
1.944, -1, -14.2134, 0.91052, 10.6451, -121.457, -86.7457, 144.178, 77.2938, 50.011, -134.847, -64.5562, 74.9712, -272.581
1.948, -1, -14.155, 0.908445, 10.6493, -121.428, -86.7923, 144.195, 77.2801, 50.078, -134.822, -64.5708, 75.051, -272.566
1.952, -1, -14.0966, 0.906368, 10.6534, -121.4, -86.8389, 144.212, 77.2664, 50.145, -134.796, -64.5854, 75.1308, -272.551
1.956, -1, -14.0381, 0.904291, 10.6576, -121.371, -86.8854, 144.229, 77.2527, 50.212, -134.771, -64.6, 75.2107, -272.537
1.96, -1, -13.9796, 0.902213, 10.6617, -121.342, -86.932, 144.247, 77.239, 50.279, -134.746, -64.6145, 75.2906, -272.522
1.964, -1, -13.9211, 0.900135, 10.6659, -121.314, -86.9786, 144.264, 77.2253, 50.3461, -134.72, -64.6291, 75.3705, -272.507
1.968, -1, -13.8625, 0.898055, 10.67, -121.285, -87.0253, 144.281, 77.2116, 50.4132, -134.695, -64.6437, 75.4504, -272.493
1.972, -1, -13.8039, 0.895974, 10.6742, -121.256, -87.072, 144.299, 77.1979, 50.4803, -134.67, -64.6583, 75.5304, -272.478
1.976, -1, -13.7453, 0.893893, 10.6784, -121.227, -87.1186, 144.316, 77.1841, 50.5474, -134.644, -64.673, 75.6105, -272.463
1.98, -1, -13.6867, 0.891811, 10.6825, -121.199, -87.1653, 144.333, 77.1704, 50.6146, -134.619, -64.6876, 75.6905, -272.449
1.984, -1, -13.6281, 0.889728, 10.6867, -121.17, -87.212, 144.351, 77.1567, 50.6818, -134.593, -64.7022, 75.7706, -272.434
1.988, -1, -13.5694, 0.887644, 10.6909, -121.141, -87.2588, 144.368, 77.1429, 50.749, -134.568, -64.7168, 75.8507, -272.419
1.992, -1, -13.5107, 0.88556, 10.695, -121.112, -87.3055, 144.386, 77.1292, 50.8163, -134.543, -64.7315, 75.9309, -272.405
1.996, -1, -13.452, 0.883474, 10.6992, -121.084, -87.3523, 144.403, 77.1154, 50.8836, -134.517, -64.7461, 76.0111, -272.39
1.999, -1, -13.3933, 0.881388, 10.7034, -121.055, -87.3991, 144.42, 77.1017, 50.9509, -134.492, -64.7607, 76.0913, -272.375
2.004, -1, -13.3345, 0.879301, 10.7076, -121.026, -87.4459, 144.438, 77.0879, 51.0182, -134.466, -64.7754, 76.1715, -272.36
2.008, -1, -13.2757, 0.877213, 10.7117, -120.997, -87.4927, 144.455, 77.0741, 51.0856, -134.441, -64.7901, 76.2518, -272.346
2.012, -1, -13.2169, 0.875124, 10.7159, -120.968, -87.5396, 144.473, 77.0604, 51.153, -134.415, -64.8047, 76.3321, -272.331
2.015, -1, -13.1581, 0.873034, 10.7201, -120.94, -87.5864, 144.49, 77.0466, 51.2204, -134.39, -64.8194, 76.4125, -272.316
2.019, -1, -13.0992, 0.870943, 10.7243, -120.911, -87.6333, 144.507, 77.0328, 51.2878, -134.364, -64.8341, 76.4929, -272.301
2.024, -1, -13.0403, 0.868852, 10.7285, -120.882, -87.6802, 144.525, 77.019, 51.3553, -134.339, -64.8488, 76.5733, -272.287
2.028, -1, -12.9814, 0.86676, 10.7326, -120.853, -87.7272, 144.542, 77.0052, 51.4228, -134.313, -64.8635, 76.6537, -272.272
2.031, -1, -12.9225, 0.864667, 10.7368, -120.824, -87.7741, 144.56, 76.9914, 51.4903, -134.288, -64.8782, 76.7342, -272.257
2.036, -1, -12.8635, 0.862573, 10.741, -120.795, -87.8211, 144.577, 76.9776, 51.5579, -134.262, -64.8929, 76.8147, -272.242
2.04, -1, -12.8046, 0.860478, 10.7452, -120.766, -87.868, 144.595, 76.9638, 51.6255, -134.237, -64.9076, 76.8953, -272.227
2.044, -1, -12.7456, 0.858382, 10.7494, -120.737, -87.915, 144.612, 76.95, 51.6931, -134.211, -64.9223, 76.9758, -272.213
2.048, -1, -12.6865, 0.856285, 10.7536, -120.708, -87.9621, 144.63, 76.9361, 51.7607, -134.185, -64.937, 77.0564, -272.198
2.051, -1, -12.6275, 0.854188, 10.7578, -120.679, -88.0091, 144.647, 76.9223, 51.8284, -134.16, -64.9517, 77.1371, -272.183
2.055, -1, -12.5684, 0.852089, 10.762, -120.65, -88.0562, 144.665, 76.9085, 51.8961, -134.134, -64.9665, 77.2178, -272.168
2.06, -1, -12.5093, 0.84999, 10.7662, -120.621, -88.1032, 144.682, 76.8946, 51.9638, -134.109, -64.9812, 77.2985, -272.153
2.064, -1, -12.4502, 0.84789, 10.7704, -120.592, -88.1503, 144.7, 76.8808, 52.0315, -134.083, -64.9959, 77.3792, -272.139
2.068, -1, -12.391, 0.845789, 10.7746, -120.563, -88.1975, 144.717, 76.8669, 52.0993, -134.057, -65.0107, 77.46, -272.124
2.071, -1, -12.3319, 0.843687, 10.7788, -120.534, -88.2446, 144.735, 76.8531, 52.1671, -134.032, -65.0254, 77.5408, -272.109
2.076, -1, -12.2727, 0.841585, 10.783, -120.505, -88.2918, 144.752, 76.8392, 52.235, -134.006, -65.0402, 77.6217, -272.094
2.08, -1, -12.2134, 0.839481, 10.7872, -120.476, -88.3389, 144.77, 76.8253, 52.3028, -133.98, -65.055, 77.7025, -272.079
2.084, -1, -12.1542, 0.837377, 10.7914, -120.447, -88.3861, 144.787, 76.8115, 52.3707, -133.955, -65.0697, 77.7835, -272.064
2.087, -1, -12.0949, 0.835271, 10.7956, -120.418, -88.4334, 144.805, 76.7976, 52.4386, -133.929, -65.0845, 77.8644, -272.05
2.092, -1, -12.0356, 0.833165, 10.7998, -120.389, -88.4806, 144.822, 76.7837, 52.5066, -133.903, -65.0993, 77.9454, -272.035
2.096, -1, -11.9763, 0.831058, 10.8041, -120.36, -88.5278, 144.84, 76.7698, 52.5746, -133.878, -65.1141, 78.0264, -272.02
2.1, -1, -11.917, 0.82895, 10.8083, -120.331, -88.5751, 144.857, 76.7559, 52.6426, -133.852, -65.1289, 78.1074, -272.005
2.104, -1, -11.8576, 0.826841, 10.8125, -120.302, -88.6224, 144.875, 76.742, 52.7106, -133.826, -65.1437, 78.1885, -271.99
2.107, -1, -11.7982, 0.824731, 10.8167, -120.273, -88.6697, 144.893, 76.7281, 52.7787, -133.801, -65.1585, 78.2696, -271.975
2.111, -1, -11.7388, 0.822621, 10.8209, -120.244, -88.7171, 144.91, 76.7142, 52.8468, -133.775, -65.1733, 78.3508, -271.96
2.116, -1, -11.6793, 0.820509, 10.8252, -120.214, -88.7644, 144.928, 76.7002, 52.9149, -133.749, -65.1882, 78.432, -271.945
2.12, -1, -11.6198, 0.818397, 10.8294, -120.185, -88.8118, 144.945, 76.6863, 52.983, -133.723, -65.203, 78.5132, -271.93
2.124, -1, -11.5603, 0.816283, 10.8336, -120.156, -88.8592, 144.963, 76.6724, 53.0512, -133.698, -65.2178, 78.5945, -271.915
2.127, -1, -11.5008, 0.814169, 10.8378, -120.127, -88.9066, 144.981, 76.6584, 53.1194, -133.672, -65.2327, 78.6757, -271.901
2.132, -1, -11.4413, 0.812054, 10.8421, -120.098, -88.954, 144.998, 76.6445, 53.1877, -133.646, -65.2475, 78.7571, -271.886
2.136, -1, -11.3817, 0.809938, 10.8463, -120.069, -89.0015, 145.016, 76.6305, 53.2559, -133.62, -65.2624, 78.8384, -271.871
2.14, -1, -11.3221, 0.807821, 10.8505, -120.039, -89.049, 145.034, 76.6166, 53.3242, -133.594, -65.2772, 78.9198, -271.856
2.143, -1, -11.2625, 0.805703, 10.8548, -120.01, -89.0965, 145.051, 76.6026, 53.3925, -133.568, -65.2921, 79.0012, -271.841
2.148, -1, -11.2028, 0.803585, 10.859, -119.981, -89.144, 145.069, 76.5886, 53.4609, -133.543, -65.307, 79.0827, -271.826
2.152, -1, -11.1432, 0.801465, 10.8632, -119.952, -89.1915, 145.087, 76.5747, 53.5293, -133.517, -65.3219, 79.1642, -271.811
2.156, -1, -11.0835, 0.799345, 10.8675, -119.922, -89.2391, 145.104, 76.5607, 53.5977, -133.491, -65.3368, 79.2457, -271.796
2.16, -1, -11.0237, 0.797223, 10.8717, -119.893, -89.2867, 145.122, 76.5467, 53.6661, -133.465, -65.3517, 79.3273, -271.781
2.163, -1, -10.964, 0.795101, 10.876, -119.864, -89.3343, 145.14, 76.5327, 53.7346, -133.439, -65.3666, 79.4089, -271.766
2.168, -1, -10.9042, 0.792978, 10.8802, -119.834, -89.3819, 145.157, 76.5187, 53.8031, -133.413, -65.3815, 79.4905, -271.751
2.172, -1, -10.8444, 0.790854, 10.8845, -119.805, -89.4295, 145.175, 76.5047, 53.8716, -133.387, -65.3964, 79.5722, -271.736
2.176, -1, -10.7846, 0.788728, 10.8887, -119.776, -89.4772, 145.193, 76.4907, 53.9402, -133.361, -65.4113, 79.6539, -271.721
2.179, -1, -10.7247, 0.786602, 10.893, -119.746, -89.5248, 145.21, 76.4767, 54.0087, -133.335, -65.4262, 79.7356, -271.706
2.184, -1, -10.6648, 0.784476, 10.8972, -119.717, -89.5725, 145.228, 76.4626, 54.0774, -133.31, -65.4411, 79.8174, -271.691
2.188, -1, -10.6049, 0.782348, 10.9015, -119.688, -89.6203, 145.246, 76.4486, 54.146, -133.284, -65.4561, 79.8992, -271.676
2.192, -1, -10.545, 0.780219, 10.9057, -119.658, -89.668, 145.264, 76.4346, 54.2147, -133.258, -65.471, 79.9811, -271.661
2.196, -1, -10.4851, 0.778089, 10.91, -119.629, -89.7158, 145.281, 76.4205, 54.2834, -133.232, -65.486, 80.0629, -271.646
2.199, -1, -10.4251, 0.775959, 10.9143, -119.6, -89.7636, 145.299, 76.4065, 54.3521, -133.206, -65.5009, 80.1449, -271.631
2.204, -1, -10.3651, 0.773827, 10.9185, -119.57, -89.8114, 145.317, 76.3924, 54.4209, -133.18, -65.5159, 80.2268, -271.616
2.208, -1, -10.305, 0.771695, 10.9228, -119.541, -89.8592, 145.335, 76.3784, 54.4897, -133.154, -65.5309, 80.3088, -271.601
2.212, -1, -10.245, 0.769562, 10.9271, -119.511, -89.907, 145.352, 76.3643, 54.5585, -133.128, -65.5459, 80.3908, -271.586
2.216, -1, -10.1849, 0.767427, 10.9313, -119.482, -89.9549, 145.37, 76.3502, 54.6273, -133.102, -65.5608, 80.4729, -271.571
2.219, -1, -10.1248, 0.765292, 10.9356, -119.452, -90.0028, 145.388, 76.3362, 54.6962, -133.076, -65.5758, 80.555, -271.556
2.224, -1, -10.0646, 0.763156, 10.9399, -119.423, -90.0507, 145.406, 76.3221, 54.7651, -133.049, -65.5908, 80.6371, -271.54
2.228, -1, -10.0045, 0.761019, 10.9442, -119.393, -90.0986, 145.424, 76.308, 54.8341, -133.023, -65.6058, 80.7193, -271.525
2.232, -1, -9.94427, 0.758881, 10.9484, -119.364, -90.1466, 145.441, 76.2939, 54.9031, -132.997, -65.6208, 80.8015, -271.51
2.235, -1, -9.88405, 0.756742, 10.9527, -119.334, -90.1945, 145.459, 76.2798, 54.9721, -132.971, -65.6359, 80.8837, -271.495
2.24, -1, -9.82381, 0.754602, 10.957, -119.305, -90.2425, 145.477, 76.2657, 55.0411, -132.945, -65.6509, 80.966, -271.48
2.244, -1, -9.76354, 0.752461, 10.9613, -119.275, -90.2905, 145.495, 76.2515, 55.1102, -132.919, -65.6659, 81.0483, -271.465
2.248, -1, -9.70324, 0.750319, 10.9656, -119.246, -90.3386, 145.513, 76.2374, 55.1793, -132.893, -65.681, 81.1306, -271.45
2.252, -1, -9.64292, 0.748177, 10.9698, -119.216, -90.3866, 145.531, 76.2233, 55.2484, -132.867, -65.696, 81.213, -271.435
2.255, -1, -9.58257, 0.746033, 10.9741, -119.186, -90.4347, 145.549, 76.2092, 55.3175, -132.841, -65.711, 81.2954, -271.42
2.259, -1, -9.52219, 0.743888, 10.9784, -119.157, -90.4828, 145.566, 76.195, 55.3867, -132.814, -65.7261, 81.3779, -271.404
2.264, -1, -9.46178, 0.741743, 10.9827, -119.127, -90.5309, 145.584, 76.1809, 55.4559, -132.788, -65.7412, 81.4604, -271.389
2.268, -1, -9.40135, 0.739596, 10.987, -119.098, -90.579, 145.602, 76.1667, 55.5252, -132.762, -65.7562, 81.5429, -271.374
2.272, -1, -9.3409, 0.737449, 10.9913, -119.068, -90.6272, 145.62, 76.1525, 55.5945, -132.736, -65.7713, 81.6255, -271.359
2.275, -1, -9.28041, 0.735301, 10.9956, -119.038, -90.6754, 145.638, 76.1384, 55.6638, -132.71, -65.7864, 81.7081, -271.344
2.28, -1, -9.2199, 0.733151, 10.9999, -119.009, -90.7236, 145.656, 76.1242, 55.7331, -132.683, -65.8015, 81.7907, -271.329
2.284, -1, -9.15936, 0.731001, 11.0042, -118.979, -90.7718, 145.674, 76.11, 55.8025, -132.657, -65.8166, 81.8734, -271.313
2.288, -1, -9.0988, 0.728849, 11.0085, -118.949, -90.8201, 145.692, 76.0958, 55.8719, -132.631, -65.8317, 81.9561, -271.298
2.291, -1, -9.0382, 0.726697, 11.0128, -118.92, -90.8683, 145.71, 76.0817, 55.9413, -132.605, -65.8468, 82.0389, -271.283
2.296, -1, -8.97758, 0.724544, 11.0171, -118.89, -90.9166, 145.728, 76.0675, 56.0108, -132.578, -65.8619, 82.1216, -271.268
2.3, -1, -8.91693, 0.72239, 11.0214, -118.86, -90.9649, 145.746, 76.0533, 56.0803, -132.552, -65.877, 82.2045, -271.253
2.304, -1, -8.85626, 0.720235, 11.0257, -118.83, -91.0133, 145.764, 76.039, 56.1498, -132.526, -65.8922, 82.2873, -271.237
2.308, -1, -8.79556, 0.718078, 11.03, -118.801, -91.0616, 145.782, 76.0248, 56.2194, -132.5, -65.9073, 82.3702, -271.222
2.311, -1, -8.73483, 0.715921, 11.0344, -118.771, -91.11, 145.8, 76.0106, 56.2889, -132.473, -65.9224, 82.4532, -271.207
2.316, -1, -8.67407, 0.713763, 11.0387, -118.741, -91.1584, 145.818, 75.9964, 56.3586, -132.447, -65.9376, 82.5361, -271.192
2.32, -1, -8.61328, 0.711604, 11.043, -118.711, -91.2068, 145.836, 75.9821, 56.4282, -132.421, -65.9528, 82.6191, -271.176
2.324, -1, -8.55247, 0.709444, 11.0473, -118.681, -91.2553, 145.854, 75.9679, 56.4979, -132.394, -65.9679, 82.7022, -271.161
2.328, -1, -8.49163, 0.707283, 11.0516, -118.652, -91.3037, 145.872, 75.9536, 56.5676, -132.368, -65.9831, 82.7853, -271.146
2.331, -1, -8.43076, 0.705121, 11.056, -118.622, -91.3522, 145.89, 75.9394, 56.6374, -132.342, -65.9983, 82.8684, -271.131
2.336, -1, -8.36987, 0.702958, 11.0603, -118.592, -91.4007, 145.908, 75.9251, 56.7071, -132.315, -66.0135, 82.9516, -271.115
2.34, -1, -8.30894, 0.700794, 11.0646, -118.562, -91.4492, 145.926, 75.9109, 56.777, -132.289, -66.0286, 83.0348, -271.1
2.344, -1, -8.24799, 0.698629, 11.0689, -118.532, -91.4978, 145.944, 75.8966, 56.8468, -132.262, -66.0438, 83.118, -271.085
2.347, -1, -8.18701, 0.696463, 11.0733, -118.502, -91.5464, 145.962, 75.8823, 56.9167, -132.236, -66.0591, 83.2013, -271.07
2.352, -1, -8.12601, 0.694296, 11.0776, -118.472, -91.595, 145.98, 75.868, 56.9866, -132.21, -66.0743, 83.2846, -271.054
2.356, -1, -8.06497, 0.692128, 11.082, -118.442, -91.6436, 145.998, 75.8537, 57.0565, -132.183, -66.0895, 83.368, -271.039
2.36, -1, -8.00391, 0.689959, 11.0863, -118.412, -91.6922, 146.016, 75.8394, 57.1265, -132.157, -66.1047, 83.4514, -271.024
2.364, -1, -7.94281, 0.687789, 11.0906, -118.382, -91.7409, 146.034, 75.8251, 57.1965, -132.13, -66.1199, 83.5348, -271.008
2.367, -1, -7.88169, 0.685618, 11.095, -118.353, -91.7896, 146.052, 75.8108, 57.2666, -132.104, -66.1352, 83.6183, -270.993
2.372, -1, -7.82054, 0.683446, 11.0993, -118.323, -91.8383, 146.07, 75.7965, 57.3366, -132.077, -66.1504, 83.7018, -270.978
2.376, -1, -7.75937, 0.681273, 11.1037, -118.293, -91.887, 146.088, 75.7821, 57.4067, -132.051, -66.1657, 83.7853, -270.962
2.38, -1, -7.69816, 0.679098, 11.108, -118.263, -91.9358, 146.106, 75.7678, 57.4769, -132.024, -66.181, 83.8689, -270.947
2.383, -1, -7.63693, 0.676923, 11.1124, -118.233, -91.9846, 146.125, 75.7534, 57.547, -131.998, -66.1962, 83.9525, -270.932
2.388, -1, -7.57566, 0.674747, 11.1167, -118.202, -92.0334, 146.143, 75.7391, 57.6172, -131.971, -66.2115, 84.0362, -270.916
2.392, -1, -7.51437, 0.67257, 11.1211, -118.172, -92.0822, 146.161, 75.7247, 57.6875, -131.944, -66.2268, 84.1199, -270.901
2.396, -1, -7.45305, 0.670392, 11.1254, -118.142, -92.1311, 146.179, 75.7104, 57.7577, -131.918, -66.2421, 84.2036, -270.886
2.4, -1, -7.39171, 0.668213, 11.1298, -118.112, -92.1799, 146.197, 75.696, 57.828, -131.891, -66.2574, 84.2874, -270.87
2.403, -1, -7.33033, 0.666033, 11.1341, -118.082, -92.2288, 146.215, 75.6816, 57.8984, -131.865, -66.2727, 84.3712, -270.855
2.408, -1, -7.26892, 0.663852, 11.1385, -118.052, -92.2777, 146.234, 75.6673, 57.9687, -131.838, -66.288, 84.4551, -270.839
2.412, -1, -7.20749, 0.66167, 11.1429, -118.022, -92.3267, 146.252, 75.6529, 58.0391, -131.812, -66.3033, 84.539, -270.824
2.416, -1, -7.14602, 0.659486, 11.1472, -117.992, -92.3756, 146.27, 75.6385, 58.1096, -131.785, -66.3186, 84.6229, -270.809
2.42, -1, -7.08453, 0.657302, 11.1516, -117.962, -92.4246, 146.288, 75.6241, 58.18, -131.758, -66.334, 84.7069, -270.793
2.423, -1, -7.02301, 0.655117, 11.156, -117.932, -92.4736, 146.306, 75.6097, 58.2505, -131.732, -66.3493, 84.7909, -270.778
2.428, -1, -6.96146, 0.652931, 11.1604, -117.901, -92.5227, 146.325, 75.5952, 58.321, -131.705, -66.3647, 84.875, -270.762
2.432, -1, -6.89988, 0.650743, 11.1647, -117.871, -92.5717, 146.343, 75.5808, 58.3916, -131.678, -66.38, 84.9591, -270.747
2.436, -1, -6.83828, 0.648555, 11.1691, -117.841, -92.6208, 146.361, 75.5664, 58.4622, -131.652, -66.3954, 85.0432, -270.731
2.439, -1, -6.77664, 0.646366, 11.1735, -117.811, -92.6699, 146.379, 75.5519, 58.5328, -131.625, -66.4108, 85.1274, -270.716
2.444, -1, -6.71497, 0.644175, 11.1779, -117.78, -92.719, 146.398, 75.5375, 58.6035, -131.598, -66.4261, 85.2116, -270.7
2.448, -1, -6.65328, 0.641984, 11.1823, -117.75, -92.7682, 146.416, 75.5231, 58.6742, -131.571, -66.4415, 85.2959, -270.685
2.452, -1, -6.59155, 0.639791, 11.1866, -117.72, -92.8173, 146.434, 75.5086, 58.7449, -131.545, -66.4569, 85.3802, -270.67
2.456, -1, -6.5298, 0.637598, 11.191, -117.69, -92.8665, 146.452, 75.4941, 58.8157, -131.518, -66.4723, 85.4645, -270.654
2.459, -1, -6.46801, 0.635403, 11.1954, -117.659, -92.9157, 146.471, 75.4797, 58.8865, -131.491, -66.4877, 85.5489, -270.639
2.464, -1, -6.4062, 0.633207, 11.1998, -117.629, -92.965, 146.489, 75.4652, 58.9573, -131.464, -66.5031, 85.6333, -270.623
2.468, -1, -6.34441, 0.631013, 11.2042, -117.599, -93.0142, 146.507, 75.4507, 59.0282, -131.438, -66.5186, 85.7178, -270.608
2.472, -1, -6.28292, 0.628836, 11.2085, -117.568, -93.0635, 146.526, 75.4362, 59.0991, -131.411, -66.534, 85.8023, -270.592
2.476, -1, -6.2223, 0.626717, 11.2128, -117.538, -93.1128, 146.544, 75.4217, 59.17, -131.384, -66.5494, 85.8868, -270.577
2.479, -1, -6.16317, 0.624703, 11.2168, -117.508, -93.162, 146.562, 75.4072, 59.241, -131.357, -66.5649, 85.9714, -270.561
2.484, -1, -6.10592, 0.62283, 11.2206, -117.478, -93.211, 146.58, 75.3928, 59.3118, -131.33, -66.5803, 86.056, -270.545
2.488, -1, -6.0506, 0.621104, 11.2241, -117.448, -93.2597, 146.599, 75.3785, 59.382, -131.304, -66.5958, 86.1405, -270.53
2.492, -1, -5.99721, 0.619515, 11.2274, -117.418, -93.3077, 146.616, 75.3647, 59.4511, -131.279, -66.6113, 86.2247, -270.514
2.495, -1, -5.94568, 0.618048, 11.2304, -117.389, -93.3548, 146.634, 75.3515, 59.5184, -131.256, -66.6268, 86.3083, -270.499
2.5, -1, -5.89586, 0.616678, 11.2333, -117.361, -93.4007, 146.651, 75.3391, 59.5834, -131.234, -66.6422, 86.3906, -270.484
2.504, -1, -5.84765, 0.615374, 11.236, -117.333, -93.4448, 146.667, 75.3274, 59.6456, -131.214, -66.6573, 86.4708, -270.469
2.508, -1, -5.8013, 0.614123, 11.2386, -117.307, -93.4869, 146.683, 75.3165, 59.7044, -131.196, -66.6718, 86.5477, -270.455
2.512, -1, -5.75739, 0.61294, 11.2411, -117.283, -93.5266, 146.698, 75.3063, 59.7597, -131.179, -66.6855, 86.6202, -270.442
2.515, -1, -5.71648, 0.611843, 11.2434, -117.26, -93.5635, 146.712, 75.2966, 59.8114, -131.162, -66.6981, 86.6872, -270.429
2.52, -1, -5.67875, 0.610821, 11.2456, -117.239, -93.5974, 146.724, 75.2874, 59.8594, -131.146, -66.7094, 86.7479, -270.418
2.524, -1, -5.64392, 0.609828, 11.2476, -117.22, -93.628, 146.736, 75.2787, 59.9032, -131.13, -66.7193, 86.8016, -270.408
2.528, -1, -5.61155, 0.608808, 11.2498, -117.204, -93.6551, 146.746, 75.2708, 59.9424, -131.116, -66.7278, 86.8481, -270.4
2.531, -1, -5.5814, 0.607729, 11.252, -117.189, -93.6786, 146.754, 75.2636, 59.9766, -131.102, -66.7349, 86.8874, -270.392
2.536, -1, -5.55346, 0.606596, 11.2543, -117.177, -93.6986, 146.762, 75.2572, 60.0059, -131.089, -66.7406, 86.9198, -270.386
2.54, -1, -5.52787, 0.605432, 11.2566, -117.167, -93.7152, 146.768, 75.2516, 60.0304, -131.078, -66.7451, 86.9457, -270.382
2.544, -1, -5.50484, 0.604278, 11.2589, -117.158, -93.7287, 146.773, 75.2469, 60.0505, -131.068, -66.7485, 86.9656, -270.378
2.548, -1, -5.48468, 0.603187, 11.2611, -117.152, -93.7393, 146.777, 75.2429, 60.0666, -131.059, -66.7508, 86.9804, -270.375
2.551, -1, -5.46757, 0.602206, 11.263, -117.147, -93.7476, 146.78, 75.2395, 60.0794, -131.052, -66.7524, 86.9909, -270.374
2.556, -1, -5.45337, 0.601355, 11.2647, -117.143, -93.7537, 146.782, 75.2367, 60.0894, -131.045, -66.7533, 86.9978, -270.372
2.56, -1, -5.44155, 0.600619, 11.2661, -117.141, -93.7582, 146.784, 75.2344, 60.0969, -131.039, -66.7538, 87.002, -270.372
2.564, -1, -5.43155, 0.599977, 11.2674, -117.139, -93.7613, 146.785, 75.2327, 60.1022, -131.035, -66.7539, 87.0044, -270.371
2.568, -1, -5.42306, 0.599422, 11.2685, -117.138, -93.7633, 146.786, 75.2316, 60.1056, -131.032, -66.7539, 87.0056, -270.371
2.571, -1, -5.41608, 0.598964, 11.2693, -117.137, -93.7645, 146.786, 75.2309, 60.1077, -131.03, -66.7539, 87.0061, -270.371
2.576, -1, -5.41062, 0.598608, 11.27, -117.136, -93.7652, 146.786, 75.2305, 60.1087, -131.029, -66.7539, 87.0063, -270.371
2.58, -1, -5.40662, 0.598352, 11.2705, -117.136, -93.7656, 146.787, 75.2303, 60.1091, -131.029, -66.7539, 87.0064, -270.371
2.584, -1, -5.40395, 0.598189, 11.2709, -117.136, -93.7657, 146.787, 75.2303, 60.1092, -131.029, -66.7539, 87.0064, -270.371
2.587, -1, -5.40247, 0.598103, 11.271, -117.136, -93.7658, 146.787, 75.2303, 60.1092, -131.028, -66.7539, 87.0064, -270.371
2.592, 2, -5.40185, 0.598069, 11.2711, -117.136, -93.7658, 146.787, 75.2303, 60.1092, -131.028, -66.7539, 87.0064, -270.371
2.596, 2, -5.4017, 0.598062, 11.2711, -117.136, -93.7658, 146.787, 75.2303, 60.1092, -131.028, -66.7539, 87.0064, -270.371
2.6, 2, -5.40169, 0.598061, 11.2711, -117.136, -93.7658, 146.787, 75.2303, 60.1092, -131.028, -66.7539, 87.0064, -270.371
2.604, 2, -5.40169, 0.598061, 11.2711, -117.136, -93.7658, 146.787, 75.2303, 60.1092, -131.028, -66.7539, 87.0064, -270.371
2.607, 2, -5.40169, 0.598061, 11.2711, -117.136, -93.7658, 146.787, 75.2303, 60.1092, -131.028, -66.7539, 87.0064, -270.371
2.612, 2, -5.40169, 0.598061, 11.2711, -117.136, -93.7658, 146.787, 75.2303, 60.1092, -131.028, -66.7539, 87.0064, -270.371
2.616, 2, -5.40169, 0.598061, 11.2711, -117.136, -93.7658, 146.787, 75.2303, 60.1092, -131.028, -66.7539, 87.0064, -270.371
2.62, 2, -5.40169, 0.598061, 11.2711, -117.136, -93.7658, 146.787, 75.2303, 60.1092, -131.028, -66.7539, 87.0064, -270.371
2.624, 2, -5.40169, 0.598061, 11.2711, -117.136, -93.7658, 146.787, 75.2303, 60.1092, -131.028, -66.7539, 87.0064, -270.371
2.627, 2, -5.40169, 0.598061, 11.2711, -117.136, -93.7658, 146.787, 75.2303, 60.1092, -131.028, -66.7539, 87.0064, -270.371
2.632, 2, -5.40169, 0.598061, 11.2711, -117.136, -93.7658, 146.787, 75.2303, 60.1092, -131.028, -66.7539, 87.0064, -270.371
2.636, 2, -5.40169, 0.598061, 11.2711, -117.136, -93.7658, 146.787, 75.2303, 60.1092, -131.028, -66.7539, 87.0064, -270.371
2.64, 2, -5.40169, 0.598061, 11.2711, -117.136, -93.7658, 146.787, 75.2303, 60.1092, -131.028, -66.7539, 87.0064, -270.371
2.643, 2, -5.40169, 0.598061, 11.2711, -117.136, -93.7658, 146.787, 75.2303, 60.1092, -131.028, -66.7539, 87.0064, -270.371
2.648, 2, -5.40169, 0.598061, 11.2711, -117.136, -93.7658, 146.787, 75.2303, 60.1092, -131.028, -66.7539, 87.0064, -270.371
2.652, 2, -5.40169, 0.598061, 11.2711, -117.136, -93.7658, 146.787, 75.2303, 60.1092, -131.028, -66.7539, 87.0064, -270.371
2.656, 2, -5.40169, 0.598061, 11.2711, -117.136, -93.7658, 146.787, 75.2303, 60.1092, -131.028, -66.7539, 87.0064, -270.371
2.66, 2, -5.40169, 0.598061, 11.2711, -117.136, -93.7658, 146.787, 75.2303, 60.1092, -131.028, -66.7539, 87.0064, -270.371
2.663, 2, -5.40169, 0.598061, 11.2711, -117.136, -93.7658, 146.787, 75.2303, 60.1092, -131.028, -66.7539, 87.0064, -270.371
2.668, 2, -5.40169, 0.598061, 11.2711, -117.136, -93.7658, 146.787, 75.2303, 60.1092, -131.028, -66.7539, 87.0064, -270.371
2.672, 2, -5.40169, 0.598061, 11.2711, -117.136, -93.7658, 146.787, 75.2303, 60.1092, -131.028, -66.7539, 87.0064, -270.371
2.676, 2, -5.40169, 0.598061, 11.2711, -117.136, -93.7658, 146.787, 75.2303, 60.1092, -131.028, -66.7539, 87.0064, -270.371
2.679, 2, -5.40169, 0.598061, 11.2711, -117.136, -93.7658, 146.787, 75.2303, 60.1092, -131.028, -66.7539, 87.0064, -270.371
2.684, 2, -5.40169, 0.598061, 11.2711, -117.136, -93.7658, 146.787, 75.2303, 60.1092, -131.028, -66.7539, 87.0064, -270.371
2.688, 2, -5.40169, 0.598061, 11.2711, -117.136, -93.7658, 146.787, 75.2303, 60.1092, -131.028, -66.7539, 87.0064, -270.371
2.692, 2, -5.40169, 0.598061, 11.2711, -117.136, -93.7658, 146.787, 75.2303, 60.1092, -131.028, -66.7539, 87.0064, -270.371
2.696, 2, -5.40169, 0.598061, 11.2711, -117.136, -93.7658, 146.787, 75.2303, 60.1092, -131.028, -66.7539, 87.0064, -270.371
2.699, 2, -5.40169, 0.598061, 11.2711, -117.136, -93.7658, 146.787, 75.2303, 60.1092, -131.028, -66.7539, 87.0064, -270.371
2.704, 2, -5.40169, 0.598061, 11.2711, -117.136, -93.7658, 146.787, 75.2303, 60.1092, -131.028, -66.7539, 87.0064, -270.371
2.708, 2, -5.40169, 0.598061, 11.2711, -117.136, -93.7658, 146.787, 75.2303, 60.1092, -131.028, -66.7539, 87.0064, -270.371
2.712, 2, -5.40169, 0.598061, 11.2711, -117.136, -93.7658, 146.787, 75.2303, 60.1092, -131.028, -66.7539, 87.0064, -270.371
2.716, 2, -5.40169, 0.598061, 11.2711, -117.136, -93.7658, 146.787, 75.2303, 60.1092, -131.028, -66.7539, 87.0064, -270.371
2.719, 2, -5.40169, 0.598061, 11.2711, -117.136, -93.7658, 146.787, 75.2303, 60.1092, -131.028, -66.7539, 87.0064, -270.371
2.724, 2, -5.40169, 0.598061, 11.2711, -117.136, -93.7658, 146.787, 75.2303, 60.1092, -131.028, -66.7539, 87.0064, -270.371
2.728, 2, -5.40169, 0.598061, 11.2711, -117.136, -93.7658, 146.787, 75.2303, 60.1092, -131.028, -66.7539, 87.0064, -270.371
2.732, 2, -5.40169, 0.598061, 11.2711, -117.136, -93.7658, 146.787, 75.2303, 60.1092, -131.028, -66.7539, 87.0064, -270.371
2.735, 2, -5.40169, 0.598061, 11.2711, -117.136, -93.7658, 146.787, 75.2303, 60.1092, -131.028, -66.7539, 87.0064, -270.371
2.74, 2, -5.40169, 0.598061, 11.2711, -117.136, -93.7658, 146.787, 75.2303, 60.1092, -131.028, -66.7539, 87.0064, -270.371
2.744, 2, -5.40169, 0.598061, 11.2711, -117.136, -93.7658, 146.787, 75.2303, 60.1092, -131.028, -66.7539, 87.0064, -270.371
2.748, 2, -5.40169, 0.598061, 11.2711, -117.136, -93.7658, 146.787, 75.2303, 60.1092, -131.028, -66.7539, 87.0064, -270.371
2.752, 2, -5.40169, 0.598061, 11.2711, -117.136, -93.7658, 146.787, 75.2303, 60.1092, -131.028, -66.7539, 87.0064, -270.371
2.755, 2, -5.40169, 0.598061, 11.2711, -117.136, -93.7658, 146.787, 75.2303, 60.1092, -131.028, -66.7539, 87.0064, -270.371
2.76, 2, -5.40169, 0.598061, 11.2711, -117.136, -93.7658, 146.787, 75.2303, 60.1092, -131.028, -66.7539, 87.0064, -270.371
2.764, 2, -5.40169, 0.598061, 11.2711, -117.136, -93.7658, 146.787, 75.2303, 60.1092, -131.028, -66.7539, 87.0064, -270.371
2.768, 2, -5.40169, 0.598061, 11.2711, -117.136, -93.7658, 146.787, 75.2303, 60.1092, -131.028, -66.7539, 87.0064, -270.371
2.772, 2, -5.40169, 0.598061, 11.2711, -117.136, -93.7658, 146.787, 75.2303, 60.1092, -131.028, -66.7539, 87.0064, -270.371
2.775, 2, -5.40169, 0.598061, 11.2711, -117.136, -93.7658, 146.787, 75.2303, 60.1092, -131.028, -66.7539, 87.0064, -270.371
2.78, 2, -5.40169, 0.598061, 11.2711, -117.136, -93.7658, 146.787, 75.2303, 60.1092, -131.028, -66.7539, 87.0064, -270.371
2.784, 2, -5.40169, 0.598061, 11.2711, -117.136, -93.7658, 146.787, 75.2303, 60.1092, -131.028, -66.7539, 87.0064, -270.371
2.788, 2, -5.40169, 0.598061, 11.2711, -117.136, -93.7658, 146.787, 75.2303, 60.1092, -131.028, -66.7539, 87.0064, -270.371
2.791, 2, -5.40169, 0.598061, 11.2711, -117.136, -93.7658, 146.787, 75.2303, 60.1092, -131.028, -66.7539, 87.0064, -270.371
2.796, 2, -5.40169, 0.598061, 11.2711, -117.136, -93.7658, 146.787, 75.2303, 60.1092, -131.028, -66.7539, 87.0064, -270.371
2.8, 2, -5.40169, 0.598061, 11.2711, -117.136, -93.7658, 146.787, 75.2303, 60.1092, -131.028, -66.7539, 87.0064, -270.371
2.804, 2, -5.40169, 0.598061, 11.2711, -117.136, -93.7658, 146.787, 75.2303, 60.1092, -131.028, -66.7539, 87.0064, -270.371
2.808, 2, -5.40169, 0.598061, 11.2711, -117.136, -93.7658, 146.787, 75.2303, 60.1092, -131.028, -66.7539, 87.0064, -270.371
2.811, 2, -5.40169, 0.598061, 11.2711, -117.136, -93.7658, 146.787, 75.2303, 60.1092, -131.028, -66.7539, 87.0064, -270.371
2.816, 2, -5.40169, 0.598061, 11.2711, -117.136, -93.7658, 146.787, 75.2303, 60.1092, -131.028, -66.7539, 87.0064, -270.371
2.82, 2, -5.40169, 0.598061, 11.2711, -117.136, -93.7658, 146.787, 75.2303, 60.1092, -131.028, -66.7539, 87.0064, -270.371
2.824, 2, -5.40169, 0.598061, 11.2711, -117.136, -93.7658, 146.787, 75.2303, 60.1092, -131.028, -66.7539, 87.0064, -270.371
2.828, 2, -5.40169, 0.598061, 11.2711, -117.136, -93.7658, 146.787, 75.2303, 60.1092, -131.028, -66.7539, 87.0064, -270.371
2.831, 2, -5.40169, 0.598061, 11.2711, -117.136, -93.7658, 146.787, 75.2303, 60.1092, -131.028, -66.7539, 87.0064, -270.371
2.836, 2, -5.40169, 0.598061, 11.2711, -117.136, -93.7658, 146.787, 75.2303, 60.1092, -131.028, -66.7539, 87.0064, -270.371
2.84, 2, -5.40169, 0.598061, 11.2711, -117.136, -93.7658, 146.787, 75.2303, 60.1092, -131.028, -66.7539, 87.0064, -270.371
2.844, 2, -5.40169, 0.598061, 11.2711, -117.136, -93.7658, 146.787, 75.2303, 60.1092, -131.028, -66.7539, 87.0064, -270.371
2.847, 2, -5.40169, 0.598061, 11.2711, -117.136, -93.7658, 146.787, 75.2303, 60.1092, -131.028, -66.7539, 87.0064, -270.371
2.852, 2, -5.40169, 0.598061, 11.2711, -117.136, -93.7658, 146.787, 75.2303, 60.1092, -131.028, -66.7539, 87.0064, -270.371
2.856, 2, -5.40169, 0.598061, 11.2711, -117.136, -93.7658, 146.787, 75.2303, 60.1092, -131.028, -66.7539, 87.0064, -270.371
2.86, 2, -5.40169, 0.598061, 11.2711, -117.136, -93.7658, 146.787, 75.2303, 60.1092, -131.028, -66.7539, 87.0064, -270.371
2.864, 2, -5.40169, 0.598061, 11.2711, -117.136, -93.7658, 146.787, 75.2303, 60.1092, -131.028, -66.7539, 87.0064, -270.371
2.867, 2, -5.40169, 0.598061, 11.2711, -117.136, -93.7658, 146.787, 75.2303, 60.1092, -131.028, -66.7539, 87.0064, -270.371
2.872, 2, -5.40169, 0.598061, 11.2711, -117.136, -93.7658, 146.787, 75.2303, 60.1092, -131.028, -66.7539, 87.0064, -270.371
2.876, 2, -5.40169, 0.598061, 11.2711, -117.136, -93.7658, 146.787, 75.2303, 60.1092, -131.028, -66.7539, 87.0064, -270.371
2.88, 2, -5.40169, 0.598061, 11.2711, -117.136, -93.7658, 146.787, 75.2303, 60.1092, -131.028, -66.7539, 87.0064, -270.371
2.883, 2, -5.40169, 0.598061, 11.2711, -117.136, -93.7658, 146.787, 75.2303, 60.1092, -131.028, -66.7539, 87.0064, -270.371
2.888, 2, -5.40169, 0.598061, 11.2711, -117.136, -93.7658, 146.787, 75.2303, 60.1092, -131.028, -66.7539, 87.0064, -270.371
2.892, 2, -5.40169, 0.598061, 11.2711, -117.136, -93.7658, 146.787, 75.2303, 60.1092, -131.028, -66.7539, 87.0064, -270.371
2.896, 2, -5.40169, 0.598061, 11.2711, -117.136, -93.7658, 146.787, 75.2303, 60.1092, -131.028, -66.7539, 87.0064, -270.371
2.9, 2, -5.40169, 0.598061, 11.2711, -117.136, -93.7658, 146.787, 75.2303, 60.1092, -131.028, -66.7539, 87.0064, -270.371
2.903, 2, -5.40169, 0.598061, 11.2711, -117.136, -93.7658, 146.787, 75.2303, 60.1092, -131.028, -66.7539, 87.0064, -270.371
2.908, 2, -5.40169, 0.598061, 11.2711, -117.136, -93.7658, 146.787, 75.2303, 60.1092, -131.028, -66.7539, 87.0064, -270.371
2.912, 2, -5.40169, 0.598061, 11.2711, -117.136, -93.7658, 146.787, 75.2303, 60.1092, -131.028, -66.7539, 87.0064, -270.371
2.916, 2, -5.40169, 0.598061, 11.2711, -117.136, -93.7658, 146.787, 75.2303, 60.1092, -131.028, -66.7539, 87.0064, -270.371
2.92, 2, -5.40169, 0.598061, 11.2711, -117.136, -93.7658, 146.787, 75.2303, 60.1092, -131.028, -66.7539, 87.0064, -270.371
2.923, 2, -5.40169, 0.598061, 11.2711, -117.136, -93.7658, 146.787, 75.2303, 60.1092, -131.028, -66.7539, 87.0064, -270.371
2.928, 2, -5.40169, 0.598061, 11.2711, -117.136, -93.7658, 146.787, 75.2303, 60.1092, -131.028, -66.7539, 87.0064, -270.371
2.932, 2, -5.40169, 0.598061, 11.2711, -117.136, -93.7658, 146.787, 75.2303, 60.1092, -131.028, -66.7539, 87.0064, -270.371
2.936, 2, -5.40169, 0.598061, 11.2711, -117.136, -93.7658, 146.787, 75.2303, 60.1092, -131.028, -66.7539, 87.0064, -270.371
2.939, 2, -5.40169, 0.598061, 11.2711, -117.136, -93.7658, 146.787, 75.2303, 60.1092, -131.028, -66.7539, 87.0064, -270.371
2.944, 2, -5.40169, 0.598061, 11.2711, -117.136, -93.7658, 146.787, 75.2303, 60.1092, -131.028, -66.7539, 87.0064, -270.371
2.948, 2, -5.40169, 0.598061, 11.2711, -117.136, -93.7658, 146.787, 75.2303, 60.1092, -131.028, -66.7539, 87.0064, -270.371
2.952, 2, -5.40169, 0.598061, 11.2711, -117.136, -93.7658, 146.787, 75.2303, 60.1092, -131.028, -66.7539, 87.0064, -270.371
2.956, 2, -5.40169, 0.598061, 11.2711, -117.136, -93.7658, 146.787, 75.2303, 60.1092, -131.028, -66.7539, 87.0064, -270.371
2.959, 2, -5.40169, 0.598061, 11.2711, -117.136, -93.7658, 146.787, 75.2303, 60.1092, -131.028, -66.7539, 87.0064, -270.371
2.964, 2, -5.40169, 0.598061, 11.2711, -117.136, -93.7658, 146.787, 75.2303, 60.1092, -131.028, -66.7539, 87.0064, -270.371
2.968, 2, -5.40169, 0.598061, 11.2711, -117.136, -93.7658, 146.787, 75.2303, 60.1092, -131.028, -66.7539, 87.0064, -270.371
2.972, 2, -5.40169, 0.598061, 11.2711, -117.136, -93.7658, 146.787, 75.2303, 60.1092, -131.028, -66.7539, 87.0064, -270.371
2.976, 2, -5.40169, 0.598061, 11.2711, -117.136, -93.7658, 146.787, 75.2303, 60.1092, -131.028, -66.7539, 87.0064, -270.371
2.98, 2, -5.40169, 0.598061, 11.2711, -117.136, -93.7658, 146.787, 75.2303, 60.1092, -131.028, -66.7539, 87.0064, -270.371
2.984, 2, -5.40169, 0.598061, 11.2711, -117.136, -93.7658, 146.787, 75.2303, 60.1092, -131.028, -66.7539, 87.0064, -270.371
2.988, 2, -5.40169, 0.598061, 11.2711, -117.136, -93.7658, 146.787, 75.2303, 60.1092, -131.028, -66.7539, 87.0064, -270.371
2.992, 2, -5.40169, 0.598061, 11.2711, -117.136, -93.7658, 146.787, 75.2303, 60.1092, -131.028, -66.7539, 87.0064, -270.371
2.995, 2, -5.40169, 0.598061, 11.2711, -117.136, -93.7658, 146.787, 75.2303, 60.1092, -131.028, -66.7539, 87.0064, -270.371
3, 2, -5.40169, 0.598061, 11.2711, -117.136, -93.7658, 146.787, 75.2303, 60.1092, -131.028, -66.7539, 87.0064, -270.371
3.004, 2, -5.40169, 0.598061, 11.2711, -117.136, -93.7658, 146.787, 75.2303, 60.1092, -131.028, -66.7539, 87.0064, -270.371
3.008, 2, -5.40169, 0.598061, 11.2711, -117.136, -93.7658, 146.787, 75.2303, 60.1092, -131.028, -66.7539, 87.0064, -270.371
3.012, 2, -5.40169, 0.598061, 11.2711, -117.136, -93.7658, 146.787, 75.2303, 60.1092, -131.028, -66.7539, 87.0064, -270.371
3.015, 2, -5.40169, 0.598061, 11.2711, -117.136, -93.7658, 146.787, 75.2303, 60.1092, -131.028, -66.7539, 87.0064, -270.371
3.02, 2, -5.40169, 0.598061, 11.2711, -117.136, -93.7658, 146.787, 75.2303, 60.1092, -131.028, -66.7539, 87.0064, -270.371
3.024, 2, -5.40169, 0.598061, 11.2711, -117.136, -93.7658, 146.787, 75.2303, 60.1092, -131.028, -66.7539, 87.0064, -270.371
3.028, 2, -5.40169, 0.598061, 11.2711, -117.136, -93.7658, 146.787, 75.2303, 60.1092, -131.028, -66.7539, 87.0064, -270.371
3.031, 2, -5.40169, 0.598061, 11.2711, -117.136, -93.7658, 146.787, 75.2303, 60.1092, -131.028, -66.7539, 87.0064, -270.371
3.036, 2, -5.40169, 0.598061, 11.2711, -117.136, -93.7658, 146.787, 75.2303, 60.1092, -131.028, -66.7539, 87.0064, -270.371
3.04, 2, -5.40169, 0.598061, 11.2711, -117.136, -93.7658, 146.787, 75.2303, 60.1092, -131.028, -66.7539, 87.0064, -270.371
3.044, 2, -5.40169, 0.598061, 11.2711, -117.136, -93.7658, 146.787, 75.2303, 60.1092, -131.028, -66.7539, 87.0064, -270.371
3.048, 2, -5.40169, 0.598061, 11.2711, -117.136, -93.7658, 146.787, 75.2303, 60.1092, -131.028, -66.7539, 87.0064, -270.371
3.051, 2, -5.40169, 0.598061, 11.2711, -117.136, -93.7658, 146.787, 75.2303, 60.1092, -131.028, -66.7539, 87.0064, -270.371
3.056, 2, -5.40169, 0.598061, 11.2711, -117.136, -93.7658, 146.787, 75.2303, 60.1092, -131.028, -66.7539, 87.0064, -270.371
3.06, 2, -5.40169, 0.598061, 11.2711, -117.136, -93.7658, 146.787, 75.2303, 60.1092, -131.028, -66.7539, 87.0064, -270.371
3.064, 2, -5.40169, 0.598061, 11.2711, -117.136, -93.7658, 146.787, 75.2303, 60.1092, -131.028, -66.7539, 87.0064, -270.371
3.068, 2, -5.40169, 0.598061, 11.2711, -117.136, -93.7658, 146.787, 75.2303, 60.1092, -131.028, -66.7539, 87.0064, -270.371
3.071, 2, -5.40169, 0.598061, 11.2711, -117.136, -93.7658, 146.787, 75.2303, 60.1092, -131.028, -66.7539, 87.0064, -270.371
3.076, 2, -5.40169, 0.598061, 11.2711, -117.136, -93.7658, 146.787, 75.2303, 60.1092, -131.028, -66.7539, 87.0064, -270.371
3.08, 2, -5.40169, 0.598061, 11.2711, -117.136, -93.7658, 146.787, 75.2303, 60.1092, -131.028, -66.7539, 87.0064, -270.371
3.084, 2, -5.40169, 0.598061, 11.2711, -117.136, -93.7658, 146.787, 75.2303, 60.1092, -131.028, -66.7539, 87.0064, -270.371
3.087, 2, -5.40169, 0.598061, 11.2711, -117.136, -93.7658, 146.787, 75.2303, 60.1092, -131.028, -66.7539, 87.0064, -270.371
3.092, 2, -5.40169, 0.598061, 11.2711, -117.136, -93.7658, 146.787, 75.2303, 60.1092, -131.028, -66.7539, 87.0064, -270.371
3.096, 2, -5.40169, 0.598061, 11.2711, -117.136, -93.7658, 146.787, 75.2303, 60.1092, -131.028, -66.7539, 87.0064, -270.371
3.1, 2, -5.40169, 0.598061, 11.2711, -117.136, -93.7658, 146.787, 75.2303, 60.1092, -131.028, -66.7539, 87.0064, -270.371
3.104, 2, -5.40169, 0.598061, 11.2711, -117.136, -93.7658, 146.787, 75.2303, 60.1092, -131.028, -66.7539, 87.0064, -270.371
3.107, 2, -5.40169, 0.598061, 11.2711, -117.136, -93.7658, 146.787, 75.2303, 60.1092, -131.028, -66.7539, 87.0064, -270.371
3.112, 2, -5.40169, 0.598061, 11.2711, -117.136, -93.7658, 146.787, 75.2303, 60.1092, -131.028, -66.7539, 87.0064, -270.371
3.116, 2, -5.40169, 0.598061, 11.2711, -117.136, -93.7658, 146.787, 75.2303, 60.1092, -131.028, -66.7539, 87.0064, -270.371
3.12, 2, -5.40169, 0.598061, 11.2711, -117.136, -93.7658, 146.787, 75.2303, 60.1092, -131.028, -66.7539, 87.0064, -270.371
3.124, 2, -5.40169, 0.598061, 11.2711, -117.136, -93.7658, 146.787, 75.2303, 60.1092, -131.028, -66.7539, 87.0064, -270.371
3.128, 2, -5.40169, 0.598061, 11.2711, -117.136, -93.7658, 146.787, 75.2303, 60.1092, -131.028, -66.7539, 87.0064, -270.371
3.132, 2, -5.40169, 0.598061, 11.2711, -117.136, -93.7658, 146.787, 75.2303, 60.1092, -131.028, -66.7539, 87.0064, -270.371
3.136, 2, -5.40169, 0.598061, 11.2711, -117.136, -93.7658, 146.787, 75.2303, 60.1092, -131.028, -66.7539, 87.0064, -270.371
3.14, 2, -5.40169, 0.598061, 11.2711, -117.136, -93.7658, 146.787, 75.2303, 60.1092, -131.028, -66.7539, 87.0064, -270.371
3.143, 2, -5.40169, 0.598061, 11.2711, -117.136, -93.7658, 146.787, 75.2303, 60.1092, -131.028, -66.7539, 87.0064, -270.371
3.148, 2, -5.40169, 0.598061, 11.2711, -117.136, -93.7658, 146.787, 75.2303, 60.1092, -131.028, -66.7539, 87.0064, -270.371
3.152, 2, -5.40169, 0.598061, 11.2711, -117.136, -93.7658, 146.787, 75.2303, 60.1092, -131.028, -66.7539, 87.0064, -270.371
3.156, 2, -5.40169, 0.598061, 11.2711, -117.136, -93.7658, 146.787, 75.2303, 60.1092, -131.028, -66.7539, 87.0064, -270.371
3.16, 2, -5.40169, 0.598061, 11.2711, -117.136, -93.7658, 146.787, 75.2303, 60.1092, -131.028, -66.7539, 87.0064, -270.371
3.163, 2, -5.40169, 0.598061, 11.2711, -117.136, -93.7658, 146.787, 75.2303, 60.1092, -131.028, -66.7539, 87.0064, -270.371
3.168, 2, -5.40169, 0.598061, 11.2711, -117.136, -93.7658, 146.787, 75.2303, 60.1092, -131.028, -66.7539, 87.0064, -270.371
3.172, 2, -5.40169, 0.598061, 11.2711, -117.136, -93.7658, 146.787, 75.2303, 60.1092, -131.028, -66.7539, 87.0064, -270.371
3.176, 2, -5.40169, 0.598061, 11.2711, -117.136, -93.7658, 146.787, 75.2303, 60.1092, -131.028, -66.7539, 87.0064, -270.371
3.179, 2, -5.40169, 0.598061, 11.2711, -117.136, -93.7658, 146.787, 75.2303, 60.1092, -131.028, -66.7539, 87.0064, -270.371
3.184, 2, -5.40169, 0.598061, 11.2711, -117.136, -93.7658, 146.787, 75.2303, 60.1092, -131.028, -66.7539, 87.0064, -270.371
3.188, 2, -5.40169, 0.598061, 11.2711, -117.136, -93.7658, 146.787, 75.2303, 60.1092, -131.028, -66.7539, 87.0064, -270.371
