hehonglu123/Motion-Primitive-Planning/simulation/robotstudio_sim/multimove/recorded_data/curve_exe_v9999_z10.csv
timestamp, cmd_num, J1, J2, J3, J4, J5, J6, J1_2, J2_2, J3_2, J4_2, J5_2, J6_2
0.002, -1, -36.6543, 51.257, -17.8929, -139.462, -74.2623, 171.381, 95.4558, 45.202, -25.8991, -213.393, 26.4325, 84.882
0.006, -1, -36.6543, 51.257, -17.8929, -139.462, -74.2623, 171.381, 95.4558, 45.202, -25.8991, -213.393, 26.4325, 84.882
0.01, -1, -36.6543, 51.257, -17.8929, -139.462, -74.2623, 171.381, 95.4558, 45.202, -25.8991, -213.393, 26.4325, 84.882
0.011, -1, -36.6543, 51.257, -17.8929, -139.462, -74.2623, 171.381, 95.4558, 45.202, -25.8991, -213.393, 26.4325, 84.882
0.013, -1, -36.6543, 51.257, -17.8929, -139.462, -74.2623, 171.381, 95.4558, 45.202, -25.8991, -213.393, 26.4325, 84.882
0.016, -1, -36.6543, 51.257, -17.8929, -139.462, -74.2623, 171.381, 95.4558, 45.202, -25.8991, -213.393, 26.4325, 84.882
0.02, -1, -36.6543, 51.257, -17.8929, -139.462, -74.2623, 171.381, 95.4558, 45.202, -25.8991, -213.393, 26.4325, 84.882
0.024, -1, -36.6543, 51.257, -17.8929, -139.462, -74.2623, 171.381, 95.4558, 45.202, -25.8991, -213.393, 26.4325, 84.882
0.028, -1, -36.6543, 51.257, -17.8929, -139.462, -74.2623, 171.381, 95.4558, 45.202, -25.8991, -213.393, 26.4325, 84.882
0.032, -1, -36.6543, 51.257, -17.8929, -139.462, -74.2623, 171.381, 95.4558, 45.202, -25.8991, -213.393, 26.4325, 84.882
0.036, -1, -36.6543, 51.257, -17.8929, -139.462, -74.2623, 171.381, 95.4558, 45.202, -25.8991, -213.393, 26.4325, 84.882
0.04, -1, -36.6543, 51.257, -17.8929, -139.462, -74.2623, 171.381, 95.4558, 45.202, -25.8991, -213.393, 26.4325, 84.882
0.044, -1, -36.6543, 51.257, -17.8929, -139.462, -74.2623, 171.381, 95.4558, 45.202, -25.8991, -213.393, 26.4325, 84.882
0.048, -1, -36.6543, 51.257, -17.8929, -139.462, -74.2623, 171.381, 95.4557, 45.2019, -25.899, -213.393, 26.4325, 84.882
0.052, -1, -36.6543, 51.257, -17.8929, -139.462, -74.2623, 171.381, 95.4553, 45.2016, -25.899, -213.393, 26.4325, 84.882
0.056, -1, -36.6543, 51.257, -17.8929, -139.462, -74.2623, 171.381, 95.454, 45.2004, -25.8987, -213.393, 26.4326, 84.8821
0.06, -1, -36.6543, 51.257, -17.8929, -139.462, -74.2623, 171.381, 95.451, 45.1977, -25.8982, -213.393, 26.4328, 84.8822
0.064, -1, -36.6543, 51.257, -17.8929, -139.462, -74.2623, 171.381, 95.4456, 45.193, -25.8975, -213.394, 26.4333, 84.8826
0.068, -1, -36.6543, 51.257, -17.8929, -139.462, -74.2623, 171.381, 95.4371, 45.1857, -25.8967, -213.394, 26.4343, 84.8834
0.072, -1, -36.6543, 51.257, -17.8929, -139.462, -74.2623, 171.381, 95.425, 45.1753, -25.8961, -213.395, 26.436, 84.885
0.076, -1, -36.6543, 51.257, -17.8929, -139.462, -74.2623, 171.381, 95.4088, 45.1614, -25.8961, -213.398, 26.4388, 84.8877
0.08, -1, -36.6543, 51.257, -17.8929, -139.462, -74.2623, 171.381, 95.3883, 45.144, -25.8973, -213.401, 26.4431, 84.8919
0.084, -1, -36.6543, 51.257, -17.8929, -139.462, -74.2623, 171.381, 95.3637, 45.1232, -25.9002, -213.407, 26.4492, 84.898
0.088, -1, -36.6543, 51.257, -17.8929, -139.462, -74.2623, 171.381, 95.3346, 45.0987, -25.9055, -213.414, 26.4575, 84.9065
0.092, -1, -36.6543, 51.257, -17.8929, -139.462, -74.2623, 171.381, 95.3005, 45.07, -25.9133, -213.425, 26.4683, 84.9177
0.096, -1, -36.6543, 51.257, -17.8929, -139.462, -74.2623, 171.381, 95.2608, 45.0368, -25.924, -213.438, 26.4818, 84.9318
0.1, -1, -36.6543, 51.257, -17.8929, -139.462, -74.2623, 171.381, 95.2153, 44.9989, -25.9377, -213.454, 26.4981, 84.9489
0.104, -1, -36.6543, 51.257, -17.8929, -139.462, -74.2623, 171.381, 95.164, 44.9562, -25.9544, -213.472, 26.5174, 84.9692
0.108, -1, -36.6543, 51.257, -17.8929, -139.462, -74.2623, 171.381, 95.1071, 44.909, -25.9743, -213.494, 26.5395, 84.9925
0.112, -1, -36.6543, 51.257, -17.8929, -139.462, -74.2623, 171.381, 95.0449, 44.8575, -25.9971, -213.519, 26.5643, 85.0189
0.116, -1, -36.6543, 51.257, -17.8929, -139.462, -74.2623, 171.381, 94.9779, 44.8022, -26.0227, -213.547, 26.5917, 85.0479
0.12, -1, -36.6543, 51.257, -17.8929, -139.462, -74.2623, 171.381, 94.9067, 44.7434, -26.0507, -213.576, 26.6213, 85.0793
0.124, -1, -36.6543, 51.257, -17.8929, -139.462, -74.2623, 171.381, 94.8315, 44.6814, -26.0806, -213.608, 26.6526, 85.1126
0.128, -1, -36.6543, 51.257, -17.8929, -139.462, -74.2623, 171.381, 94.7522, 44.6159, -26.1117, -213.641, 26.6855, 85.1474
0.131, -1, -36.6543, 51.257, -17.8929, -139.462, -74.2623, 171.381, 94.6687, 44.5469, -26.1433, -213.674, 26.7194, 85.1834
0.136, -1, -36.6543, 51.257, -17.8929, -139.462, -74.2623, 171.381, 94.5815, 44.4748, -26.1751, -213.709, 26.754, 85.22
0.139, -1, -36.6543, 51.257, -17.8929, -139.462, -74.2623, 171.381, 94.4912, 44.4, -26.2068, -213.744, 26.789, 85.257
0.144, -1, -36.6543, 51.257, -17.8929, -139.462, -74.2623, 171.381, 94.3984, 44.3231, -26.2382, -213.779, 26.8244, 85.2943
0.148, -1, -36.6543, 51.257, -17.8929, -139.462, -74.2623, 171.381, 94.304, 44.2448, -26.2693, -213.814, 26.8598, 85.3316
0.152, -1, -36.6543, 51.257, -17.8929, -139.462, -74.2623, 171.381, 94.2086, 44.1656, -26.3003, -213.848, 26.8953, 85.369
0.156, -1, -36.6543, 51.257, -17.8929, -139.462, -74.2623, 171.381, 94.1128, 44.0861, -26.3311, -213.883, 26.9309, 85.4065
0.16, -1, -36.6543, 51.257, -17.8929, -139.462, -74.2623, 171.381, 94.0169, 44.0065, -26.362, -213.918, 26.9665, 85.4439
0.164, -1, -36.6543, 51.257, -17.8929, -139.462, -74.2623, 171.381, 93.921, 43.9269, -26.3929, -213.953, 27.002, 85.4813
0.168, -1, -36.6543, 51.257, -17.8929, -139.462, -74.2623, 171.381, 93.825, 43.8473, -26.4238, -213.988, 27.0376, 85.5188
0.172, -1, -36.6543, 51.257, -17.8929, -139.462, -74.2623, 171.381, 93.729, 43.7676, -26.4548, -214.023, 27.0732, 85.5563
0.176, -1, -36.6543, 51.257, -17.8929, -139.462, -74.2623, 171.381, 93.633, 43.6879, -26.4857, -214.058, 27.1089, 85.5938
0.18, -1, -36.6543, 51.257, -17.8929, -139.462, -74.2623, 171.381, 93.5369, 43.6081, -26.5166, -214.094, 27.1445, 85.6313
0.184, -1, -36.6543, 51.257, -17.8929, -139.462, -74.2623, 171.381, 93.4408, 43.5284, -26.5476, -214.129, 27.1802, 85.6688
0.188, -1, -36.6543, 51.257, -17.8929, -139.462, -74.2623, 171.381, 93.3446, 43.4486, -26.5786, -214.164, 27.2158, 85.7063
0.192, -1, -36.6543, 51.257, -17.8929, -139.462, -74.2623, 171.381, 93.2484, 43.3687, -26.6096, -214.199, 27.2515, 85.7439
0.196, -1, -36.6543, 51.257, -17.8929, -139.462, -74.2623, 171.381, 93.1522, 43.2888, -26.6406, -214.234, 27.2872, 85.7814
0.2, -1, -36.6543, 51.257, -17.8929, -139.462, -74.2623, 171.381, 93.0559, 43.2089, -26.6716, -214.269, 27.3229, 85.819
0.204, -1, -36.6543, 51.257, -17.8929, -139.462, -74.2623, 171.381, 92.9596, 43.129, -26.7026, -214.304, 27.3587, 85.8566
0.208, -1, -36.6543, 51.257, -17.8929, -139.462, -74.2623, 171.381, 92.8632, 43.049, -26.7336, -214.339, 27.3944, 85.8943
0.212, -1, -36.6543, 51.257, -17.8929, -139.462, -74.2623, 171.381, 92.7668, 42.969, -26.7647, -214.374, 27.4302, 85.9319
0.216, -1, -36.6543, 51.257, -17.8929, -139.462, -74.2623, 171.381, 92.6703, 42.8889, -26.7958, -214.41, 27.466, 85.9696
0.22, -1, -36.6543, 51.257, -17.8929, -139.462, -74.2623, 171.381, 92.5738, 42.8088, -26.8268, -214.445, 27.5018, 86.0072
0.224, -1, -36.6543, 51.257, -17.8929, -139.462, -74.2623, 171.381, 92.4773, 42.7287, -26.8579, -214.48, 27.5376, 86.0449
0.228, -1, -36.6543, 51.257, -17.8929, -139.462, -74.2623, 171.381, 92.3807, 42.6485, -26.889, -214.515, 27.5734, 86.0826
0.232, -1, -36.6543, 51.257, -17.8929, -139.462, -74.2623, 171.381, 92.284, 42.5683, -26.9202, -214.551, 27.6093, 86.1203
0.236, -1, -36.6543, 51.257, -17.8929, -139.462, -74.2623, 171.381, 92.1874, 42.4881, -26.9513, -214.586, 27.6451, 86.1581
0.24, -1, -36.6543, 51.257, -17.8929, -139.462, -74.2623, 171.381, 92.0907, 42.4078, -26.9825, -214.621, 27.681, 86.1958
0.244, -1, -36.6543, 51.257, -17.8929, -139.462, -74.2623, 171.381, 91.9939, 42.3275, -27.0136, -214.656, 27.7169, 86.2336
0.248, -1, -36.6543, 51.257, -17.8929, -139.462, -74.2623, 171.381, 91.8971, 42.2472, -27.0448, -214.692, 27.7528, 86.2714
0.252, -1, -36.6543, 51.257, -17.8929, -139.462, -74.2623, 171.381, 91.8002, 42.1668, -27.076, -214.727, 27.7887, 86.3092
0.256, -1, -36.6543, 51.257, -17.8929, -139.462, -74.2623, 171.381, 91.7033, 42.0864, -27.1072, -214.762, 27.8247, 86.347
0.26, -1, -36.6543, 51.257, -17.8929, -139.462, -74.2623, 171.381, 91.6064, 42.0059, -27.1385, -214.798, 27.8606, 86.3849
0.264, -1, -36.6543, 51.257, -17.8929, -139.462, -74.2623, 171.381, 91.5094, 41.9254, -27.1697, -214.833, 27.8966, 86.4228
0.268, -1, -36.6543, 51.257, -17.8929, -139.462, -74.2623, 171.381, 91.4123, 41.8449, -27.201, -214.868, 27.9326, 86.4606
0.272, -1, -36.6543, 51.257, -17.8929, -139.462, -74.2623, 171.381, 91.3153, 41.7643, -27.2322, -214.904, 27.9686, 86.4985
0.276, -1, -36.6543, 51.257, -17.8929, -139.462, -74.2623, 171.381, 91.2181, 41.6837, -27.2635, -214.939, 28.0047, 86.5365
0.28, -1, -36.6543, 51.257, -17.8929, -139.462, -74.2623, 171.381, 91.1209, 41.603, -27.2948, -214.975, 28.0407, 86.5744
0.284, -1, -36.6543, 51.257, -17.8929, -139.462, -74.2623, 171.381, 91.0237, 41.5223, -27.3261, -215.01, 28.0768, 86.6123
0.288, -1, -36.6543, 51.257, -17.8929, -139.462, -74.2623, 171.381, 90.9264, 41.4416, -27.3575, -215.046, 28.1129, 86.6503
0.292, -1, -36.6543, 51.257, -17.8929, -139.462, -74.2623, 171.381, 90.8291, 41.3608, -27.3888, -215.081, 28.149, 86.6883
0.296, -1, -36.6543, 51.257, -17.8929, -139.462, -74.2623, 171.381, 90.7318, 41.28, -27.4202, -215.117, 28.1851, 86.7263
0.3, -1, -36.6543, 51.257, -17.8929, -139.462, -74.2623, 171.381, 90.6343, 41.1992, -27.4516, -215.152, 28.2212, 86.7644
0.304, -1, -36.6543, 51.257, -17.8929, -139.462, -74.2623, 171.381, 90.5369, 41.1183, -27.483, -215.188, 28.2574, 86.8024
0.308, -1, -36.6543, 51.257, -17.8929, -139.462, -74.2623, 171.381, 90.4393, 41.0373, -27.5144, -215.223, 28.2936, 86.8405
0.312, -1, -36.6543, 51.257, -17.8929, -139.462, -74.2623, 171.381, 90.3418, 40.9563, -27.5458, -215.259, 28.3297, 86.8786
0.316, -1, -36.6543, 51.257, -17.8929, -139.462, -74.2623, 171.381, 90.2442, 40.8753, -27.5772, -215.295, 28.366, 86.9167
0.32, -1, -36.6543, 51.257, -17.8929, -139.462, -74.2623, 171.381, 90.1465, 40.7943, -27.6087, -215.33, 28.4022, 86.9548
0.324, -1, -36.6543, 51.257, -17.8929, -139.462, -74.2623, 171.381, 90.0488, 40.7132, -27.6402, -215.366, 28.4384, 86.9929
0.328, -1, -36.6543, 51.257, -17.8929, -139.462, -74.2623, 171.381, 89.951, 40.632, -27.6717, -215.402, 28.4747, 87.0311
0.332, -1, -36.6543, 51.257, -17.8929, -139.462, -74.2623, 171.381, 89.8532, 40.5509, -27.7032, -215.437, 28.511, 87.0693
0.336, -1, -36.6543, 51.257, -17.8929, -139.462, -74.2623, 171.381, 89.7554, 40.4696, -27.7347, -215.473, 28.5473, 87.1075
0.34, -1, -36.6543, 51.257, -17.8929, -139.462, -74.2623, 171.381, 89.6574, 40.3884, -27.7662, -215.509, 28.5836, 87.1457
0.344, -1, -36.6543, 51.257, -17.8929, -139.462, -74.2623, 171.381, 89.5595, 40.3071, -27.7978, -215.544, 28.6199, 87.184
0.348, -1, -36.6543, 51.257, -17.8929, -139.462, -74.2623, 171.381, 89.4615, 40.2257, -27.8293, -215.58, 28.6563, 87.2222
0.352, -1, -36.6543, 51.257, -17.8929, -139.462, -74.2623, 171.381, 89.3634, 40.1443, -27.8609, -215.616, 28.6927, 87.2605
0.356, -1, -36.6543, 51.257, -17.8929, -139.462, -74.2623, 171.381, 89.2653, 40.0629, -27.8925, -215.652, 28.7291, 87.2988
0.36, -1, -36.6543, 51.257, -17.8929, -139.462, -74.2623, 171.381, 89.1671, 39.9814, -27.9242, -215.687, 28.7655, 87.3371
0.364, -1, -36.6543, 51.257, -17.8929, -139.462, -74.2623, 171.381, 89.0689, 39.8999, -27.9558, -215.723, 28.8019, 87.3755
0.368, -1, -36.6543, 51.257, -17.8929, -139.462, -74.2623, 171.381, 88.9706, 39.8183, -27.9875, -215.759, 28.8384, 87.4138
0.372, -1, -36.6543, 51.257, -17.8929, -139.462, -74.2623, 171.381, 88.8723, 39.7367, -28.0191, -215.795, 28.8749, 87.4522
0.376, -1, -36.6543, 51.257, -17.8929, -139.462, -74.2623, 171.381, 88.7739, 39.6551, -28.0508, -215.831, 28.9114, 87.4906
0.38, -1, -36.6543, 51.257, -17.8929, -139.462, -74.2623, 171.381, 88.6755, 39.5734, -28.0825, -215.867, 28.9479, 87.529
0.384, -1, -36.6543, 51.257, -17.8929, -139.462, -74.2623, 171.381, 88.577, 39.4916, -28.1142, -215.903, 28.9844, 87.5675
0.388, -1, -36.6543, 51.257, -17.8929, -139.462, -74.2623, 171.381, 88.4784, 39.4098, -28.146, -215.939, 29.021, 87.606
0.392, -1, -36.6543, 51.257, -17.8929, -139.462, -74.2623, 171.381, 88.3798, 39.328, -28.1777, -215.975, 29.0575, 87.6445
0.396, -1, -36.6543, 51.257, -17.8929, -139.462, -74.2623, 171.381, 88.2812, 39.2461, -28.2095, -216.011, 29.0941, 87.683
0.4, -1, -36.6543, 51.257, -17.8929, -139.462, -74.2623, 171.381, 88.1825, 39.1642, -28.2413, -216.047, 29.1307, 87.7215
0.404, -1, -36.6543, 51.257, -17.8929, -139.462, -74.2623, 171.381, 88.0837, 39.0823, -28.2731, -216.083, 29.1674, 87.76
0.408, -1, -36.6543, 51.257, -17.8929, -139.462, -74.2623, 171.381, 87.9849, 39.0002, -28.305, -216.119, 29.204, 87.7986
0.412, -1, -36.6543, 51.257, -17.8929, -139.462, -74.2623, 171.381, 87.886, 38.9182, -28.3368, -216.155, 29.2407, 87.8372
0.416, -1, -36.6543, 51.257, -17.8929, -139.462, -74.2623, 171.381, 87.7871, 38.8361, -28.3687, -216.191, 29.2774, 87.8758
0.42, -1, -36.6543, 51.257, -17.8929, -139.462, -74.2623, 171.381, 87.6881, 38.7539, -28.4006, -216.227, 29.3141, 87.9145
0.424, -1, -36.6543, 51.257, -17.8929, -139.462, -74.2623, 171.381, 87.5891, 38.6717, -28.4325, -216.263, 29.3509, 87.9531
0.428, -1, -36.6543, 51.257, -17.8929, -139.462, -74.2623, 171.381, 87.49, 38.5895, -28.4644, -216.299, 29.3876, 87.9918
0.432, -1, -36.6543, 51.257, -17.8929, -139.462, -74.2623, 171.381, 87.3908, 38.5072, -28.4963, -216.335, 29.4244, 88.0305
0.436, -1, -36.6543, 51.257, -17.8929, -139.462, -74.2623, 171.381, 87.2916, 38.4248, -28.5283, -216.372, 29.4612, 88.0693
0.44, -1, -36.6543, 51.257, -17.8929, -139.462, -74.2623, 171.381, 87.1924, 38.3425, -28.5602, -216.408, 29.498, 88.108
0.444, -1, -36.6543, 51.257, -17.8929, -139.462, -74.2623, 171.381, 87.093, 38.26, -28.5922, -216.444, 29.5349, 88.1468
0.448, -1, -36.6543, 51.257, -17.8929, -139.462, -74.2623, 171.381, 86.9936, 38.1775, -28.6242, -216.48, 29.5718, 88.1856
0.452, -1, -36.6543, 51.257, -17.8929, -139.462, -74.2623, 171.381, 86.8942, 38.095, -28.6563, -216.517, 29.6086, 88.2244
0.456, -1, -36.6543, 51.257, -17.8929, -139.462, -74.2623, 171.381, 86.7947, 38.0124, -28.6883, -216.553, 29.6456, 88.2633
0.46, -1, -36.6543, 51.257, -17.8929, -139.462, -74.2623, 171.381, 86.6951, 37.9298, -28.7204, -216.589, 29.6825, 88.3021
0.464, -1, -36.6543, 51.257, -17.8929, -139.462, -74.2623, 171.381, 86.5955, 37.8471, -28.7525, -216.626, 29.7194, 88.341
0.468, -1, -36.6543, 51.257, -17.8929, -139.462, -74.2623, 171.381, 86.4958, 37.7643, -28.7846, -216.662, 29.7564, 88.3799
0.472, -1, -36.6543, 51.257, -17.8929, -139.462, -74.2623, 171.381, 86.3961, 37.6816, -28.8167, -216.698, 29.7934, 88.4189
0.476, -1, -36.6543, 51.257, -17.8929, -139.462, -74.2623, 171.381, 86.2962, 37.5987, -28.8489, -216.735, 29.8305, 88.4578
0.48, -1, -36.6543, 51.257, -17.8929, -139.462, -74.2623, 171.381, 86.1964, 37.5158, -28.8811, -216.771, 29.8675, 88.4968
0.484, -1, -36.6543, 51.257, -17.8929, -139.462, -74.2623, 171.381, 86.0964, 37.4329, -28.9132, -216.808, 29.9046, 88.5358
0.488, -1, -36.6543, 51.257, -17.8929, -139.462, -74.2623, 171.381, 85.9964, 37.3499, -28.9455, -216.844, 29.9417, 88.5749
0.492, -1, -36.6543, 51.257, -17.8929, -139.462, -74.2623, 171.381, 85.8964, 37.2668, -28.9777, -216.881, 29.9788, 88.6139
0.496, -1, -36.6543, 51.257, -17.8929, -139.462, -74.2623, 171.381, 85.7963, 37.1838, -29.0099, -216.917, 30.0159, 88.653
0.5, -1, -36.6543, 51.257, -17.8929, -139.462, -74.2623, 171.381, 85.6961, 37.1006, -29.0422, -216.954, 30.0531, 88.6921
0.504, -1, -36.6543, 51.257, -17.8929, -139.462, -74.2623, 171.381, 85.5958, 37.0174, -29.0745, -216.99, 30.0903, 88.7313
0.508, -1, -36.6543, 51.257, -17.8929, -139.462, -74.2623, 171.381, 85.4955, 36.9341, -29.1068, -217.027, 30.1275, 88.7704
0.512, -1, -36.6543, 51.257, -17.8929, -139.462, -74.2623, 171.381, 85.3951, 36.8508, -29.1391, -217.063, 30.1647, 88.8096
0.516, -1, -36.6543, 51.257, -17.8929, -139.462, -74.2623, 171.381, 85.2947, 36.7675, -29.1715, -217.1, 30.202, 88.8488
0.52, -1, -36.6543, 51.257, -17.8929, -139.462, -74.2623, 171.381, 85.1942, 36.684, -29.2039, -217.137, 30.2393, 88.8881
0.524, -1, -36.6543, 51.257, -17.8929, -139.462, -74.2623, 171.381, 85.0936, 36.6006, -29.2363, -217.173, 30.2766, 88.9273
0.528, -1, -36.6543, 51.257, -17.8929, -139.462, -74.2623, 171.381, 84.993, 36.517, -29.2687, -217.21, 30.3139, 88.9666
0.532, -1, -36.6543, 51.257, -17.8929, -139.462, -74.2623, 171.381, 84.8923, 36.4335, -29.3011, -217.247, 30.3513, 89.0059
0.536, -1, -36.6543, 51.257, -17.8929, -139.462, -74.2623, 171.381, 84.7915, 36.3498, -29.3336, -217.284, 30.3886, 89.0453
0.54, -1, -36.6543, 51.257, -17.8929, -139.462, -74.2623, 171.381, 84.6907, 36.2661, -29.3661, -217.32, 30.4261, 89.0846
0.544, -1, -36.6543, 51.257, -17.8929, -139.462, -74.2623, 171.381, 84.5898, 36.1824, -29.3986, -217.357, 30.4635, 89.124
0.548, -1, -36.6543, 51.257, -17.8929, -139.462, -74.2623, 171.381, 84.4888, 36.0986, -29.4311, -217.394, 30.5009, 89.1634
0.552, -1, -36.6543, 51.257, -17.8929, -139.462, -74.2623, 171.381, 84.3878, 36.0147, -29.4636, -217.431, 30.5384, 89.2029
0.556, -1, -36.6543, 51.257, -17.8929, -139.462, -74.2623, 171.381, 84.2866, 35.9308, -29.4962, -217.468, 30.5759, 89.2423
0.56, -1, -36.6543, 51.257, -17.8929, -139.462, -74.2623, 171.381, 84.1855, 35.8468, -29.5288, -217.505, 30.6135, 89.2818
0.564, -1, -36.6543, 51.257, -17.8929, -139.462, -74.2623, 171.381, 84.0842, 35.7628, -29.5614, -217.542, 30.651, 89.3214
0.568, -1, -36.6543, 51.257, -17.8929, -139.462, -74.2623, 171.381, 83.9829, 35.6787, -29.594, -217.579, 30.6886, 89.3609
0.572, -1, -36.6543, 51.257, -17.8929, -139.462, -74.2623, 171.381, 83.8815, 35.5946, -29.6267, -217.616, 30.7262, 89.4005
0.576, -1, -36.6543, 51.257, -17.8929, -139.462, -74.2623, 171.381, 83.7801, 35.5104, -29.6594, -217.653, 30.7638, 89.4401
0.58, -1, -36.6543, 51.257, -17.8929, -139.462, -74.2623, 171.381, 83.6786, 35.4261, -29.6921, -217.69, 30.8015, 89.4797
0.584, -1, -36.6543, 51.257, -17.8929, -139.462, -74.2623, 171.381, 83.577, 35.3418, -29.7248, -217.727, 30.8392, 89.5194
0.588, -1, -36.6543, 51.257, -17.8929, -139.462, -74.2623, 171.381, 83.4753, 35.2574, -29.7575, -217.764, 30.8769, 89.5591
0.592, -1, -36.6543, 51.257, -17.8929, -139.462, -74.2623, 171.381, 83.3736, 35.173, -29.7903, -217.801, 30.9146, 89.5988
0.596, -1, -36.6543, 51.257, -17.8929, -139.462, -74.2623, 171.381, 83.2718, 35.0885, -29.8231, -217.838, 30.9524, 89.6385
0.6, -1, -36.6543, 51.257, -17.8929, -139.462, -74.2623, 171.381, 83.1699, 35.004, -29.8559, -217.875, 30.9902, 89.6783
0.604, -1, -36.6543, 51.257, -17.8929, -139.462, -74.2623, 171.381, 83.068, 34.9193, -29.8888, -217.912, 31.028, 89.7181
0.608, -1, -36.6543, 51.257, -17.8929, -139.462, -74.2623, 171.381, 82.966, 34.8347, -29.9216, -217.95, 31.0659, 89.7579
0.612, -1, -36.6543, 51.257, -17.8929, -139.462, -74.2623, 171.381, 82.8639, 34.7499, -29.9545, -217.987, 31.1037, 89.7978
0.616, -1, -36.6543, 51.257, -17.8929, -139.462, -74.2623, 171.381, 82.7617, 34.6651, -29.9874, -218.024, 31.1416, 89.8377
0.62, -1, -36.6543, 51.257, -17.8929, -139.462, -74.2623, 171.381, 82.6595, 34.5803, -30.0203, -218.061, 31.1796, 89.8776
0.624, -1, -36.6543, 51.257, -17.8929, -139.462, -74.2623, 171.381, 82.5572, 34.4954, -30.0533, -218.099, 31.2175, 89.9175
0.628, -1, -36.6543, 51.257, -17.8929, -139.462, -74.2623, 171.381, 82.4548, 34.4104, -30.0863, -218.136, 31.2555, 89.9575
0.632, -1, -36.6543, 51.257, -17.8929, -139.462, -74.2623, 171.381, 82.3523, 34.3254, -30.1193, -218.173, 31.2935, 89.9975
0.636, -1, -36.6543, 51.257, -17.8929, -139.462, -74.2623, 171.381, 82.2498, 34.2403, -30.1523, -218.211, 31.3315, 90.0375
0.64, -1, -36.6543, 51.257, -17.8929, -139.462, -74.2623, 171.381, 82.1472, 34.1551, -30.1854, -218.248, 31.3696, 90.0776
0.644, -1, -36.6543, 51.257, -17.8929, -139.462, -74.2623, 171.381, 82.0445, 34.0699, -30.2184, -218.286, 31.4077, 90.1176
0.648, -1, -36.6543, 51.257, -17.8929, -139.462, -74.2623, 171.381, 81.9417, 33.9846, -30.2515, -218.323, 31.4458, 90.1578
0.652, -1, -36.6543, 51.257, -17.8929, -139.462, -74.2623, 171.381, 81.8389, 33.8992, -30.2847, -218.361, 31.4839, 90.1979
0.656, -1, -36.6543, 51.257, -17.8929, -139.462, -74.2623, 171.381, 81.736, 33.8138, -30.3178, -218.398, 31.5221, 90.2381
0.66, -1, -36.6543, 51.257, -17.8929, -139.462, -74.2623, 171.381, 81.633, 33.7284, -30.351, -218.436, 31.5603, 90.2783
0.664, -1, -36.6543, 51.257, -17.8929, -139.462, -74.2623, 171.381, 81.5299, 33.6428, -30.3842, -218.473, 31.5986, 90.3185
0.668, -1, -36.6543, 51.257, -17.8929, -139.462, -74.2623, 171.381, 81.4268, 33.5572, -30.4174, -218.511, 31.6368, 90.3588
0.672, -1, -36.6543, 51.257, -17.8929, -139.462, -74.2623, 171.381, 81.3236, 33.4715, -30.4507, -218.549, 31.6751, 90.3991
0.676, -1, -36.6543, 51.257, -17.8929, -139.462, -74.2623, 171.381, 81.2203, 33.3858, -30.4839, -218.586, 31.7134, 90.4394
0.68, -1, -36.6543, 51.257, -17.8929, -139.462, -74.2623, 171.381, 81.1169, 33.3, -30.5172, -218.624, 31.7518, 90.4798
0.684, -1, -36.6543, 51.257, -17.8929, -139.462, -74.2623, 171.381, 81.0135, 33.2141, -30.5506, -218.662, 31.7902, 90.5201
0.688, -1, -36.6543, 51.257, -17.8929, -139.462, -74.2623, 171.381, 80.9099, 33.1282, -30.5839, -218.7, 31.8286, 90.5606
0.692, -1, -36.6543, 51.257, -17.8929, -139.462, -74.2623, 171.381, 80.8063, 33.0422, -30.6173, -218.737, 31.867, 90.601
0.696, -1, -36.6543, 51.257, -17.8929, -139.462, -74.2623, 171.381, 80.7026, 32.9561, -30.6507, -218.775, 31.9055, 90.6415
0.7, -1, -36.6543, 51.257, -17.8929, -139.462, -74.2623, 171.381, 80.5988, 32.87, -30.6841, -218.813, 31.944, 90.682
0.704, -1, -36.6543, 51.257, -17.8929, -139.462, -74.2623, 171.381, 80.495, 32.7838, -30.7176, -218.851, 31.9825, 90.7226
0.708, -1, -36.6543, 51.257, -17.8929, -139.462, -74.2623, 171.381, 80.3911, 32.6975, -30.751, -218.889, 32.021, 90.7631
0.712, -1, -36.6543, 51.257, -17.8929, -139.462, -74.2623, 171.381, 80.287, 32.6112, -30.7846, -218.927, 32.0596, 90.8037
0.716, -1, -36.6543, 51.257, -17.8929, -139.462, -74.2623, 171.381, 80.1829, 32.5248, -30.8181, -218.965, 32.0983, 90.8444
0.72, -1, -36.6543, 51.257, -17.8929, -139.462, -74.2623, 171.381, 80.0788, 32.4383, -30.8517, -219.003, 32.1369, 90.8851
0.724, -1, -36.6543, 51.257, -17.8929, -139.462, -74.2623, 171.381, 79.9745, 32.3518, -30.8852, -219.041, 32.1756, 90.9258
0.728, -1, -36.6543, 51.257, -17.8929, -139.462, -74.2623, 171.381, 79.8701, 32.2652, -30.9188, -219.079, 32.2143, 90.9665
0.732, -1, -36.6543, 51.257, -17.8929, -139.462, -74.2623, 171.381, 79.7657, 32.1785, -30.9525, -219.117, 32.253, 91.0073
0.736, -1, -36.6543, 51.257, -17.8929, -139.462, -74.2623, 171.381, 79.6612, 32.0918, -30.9862, -219.155, 32.2918, 91.0481
0.74, -1, -36.6543, 51.257, -17.8929, -139.462, -74.2623, 171.381, 79.5566, 32.0049, -31.0199, -219.193, 32.3306, 91.0889
0.744, -1, -36.6543, 51.257, -17.8929, -139.462, -74.2623, 171.381, 79.4519, 31.918, -31.0536, -219.231, 32.3694, 91.1298
0.748, -1, -36.6543, 51.257, -17.8929, -139.462, -74.2623, 171.381, 79.3471, 31.8311, -31.0873, -219.27, 32.4083, 91.1707
0.752, -1, -36.6543, 51.257, -17.8929, -139.462, -74.2623, 171.381, 79.2423, 31.7441, -31.1211, -219.308, 32.4472, 91.2116
0.756, -1, -36.6543, 51.257, -17.8929, -139.462, -74.2623, 171.381, 79.1373, 31.6569, -31.1549, -219.346, 32.4861, 91.2526
0.76, -1, -36.6543, 51.257, -17.8929, -139.462, -74.2623, 171.381, 79.0323, 31.5698, -31.1887, -219.384, 32.5251, 91.2936
0.764, -1, -36.6543, 51.257, -17.8929, -139.462, -74.2623, 171.381, 78.9272, 31.4825, -31.2226, -219.423, 32.5641, 91.3346
0.768, -1, -36.6543, 51.257, -17.8929, -139.462, -74.2623, 171.381, 78.8219, 31.3952, -31.2565, -219.461, 32.6031, 91.3757
0.772, -1, -36.6543, 51.257, -17.8929, -139.462, -74.2623, 171.381, 78.7167, 31.3078, -31.2904, -219.5, 32.6422, 91.4168
0.776, -1, -36.6543, 51.257, -17.8929, -139.462, -74.2623, 171.381, 78.6113, 31.2203, -31.3244, -219.538, 32.6813, 91.4579
0.78, -1, -36.6543, 51.257, -17.8929, -139.462, -74.2623, 171.381, 78.5058, 31.1328, -31.3583, -219.577, 32.7204, 91.4991
0.784, -1, -36.6543, 51.257, -17.8929, -139.462, -74.2623, 171.381, 78.4002, 31.0452, -31.3923, -219.615, 32.7596, 91.5403
0.788, -1, -36.6543, 51.257, -17.8929, -139.462, -74.2623, 171.381, 78.2946, 30.9575, -31.4264, -219.654, 32.7988, 91.5816
0.792, -1, -36.6543, 51.257, -17.8929, -139.462, -74.2623, 171.381, 78.1888, 30.8697, -31.4604, -219.692, 32.838, 91.6229
0.796, -1, -36.6543, 51.257, -17.8929, -139.462, -74.2623, 171.381, 78.083, 30.7818, -31.4945, -219.731, 32.8773, 91.6642
0.8, -1, -36.6543, 51.257, -17.8929, -139.462, -74.2623, 171.381, 77.977, 30.6939, -31.5287, -219.769, 32.9166, 91.7056
0.804, -1, -36.6543, 51.257, -17.8929, -139.462, -74.2623, 171.381, 77.871, 30.6059, -31.5628, -219.808, 32.9559, 91.7469
0.808, -1, -36.6543, 51.257, -17.8929, -139.462, -74.2623, 171.381, 77.7649, 30.5178, -31.597, -219.847, 32.9953, 91.7884
0.812, -1, -36.6543, 51.257, -17.8929, -139.462, -74.2623, 171.381, 77.6586, 30.4296, -31.6312, -219.886, 33.0347, 91.8298
0.816, -1, -36.6543, 51.257, -17.8929, -139.462, -74.2623, 171.381, 77.5523, 30.3414, -31.6655, -219.924, 33.0741, 91.8713
0.82, -1, -36.6543, 51.257, -17.8929, -139.462, -74.2623, 171.381, 77.4459, 30.2531, -31.6998, -219.963, 33.1136, 91.9129
0.824, -1, -36.6543, 51.257, -17.8929, -139.462, -74.2623, 171.381, 77.3394, 30.1647, -31.7341, -220.002, 33.1531, 91.9545
0.828, -1, -36.6543, 51.257, -17.8929, -139.462, -74.2623, 171.381, 77.2328, 30.0762, -31.7684, -220.041, 33.1927, 91.9961
0.832, -1, -36.6543, 51.257, -17.8929, -139.462, -74.2623, 171.381, 77.1261, 29.9876, -31.8028, -220.08, 33.2322, 92.0377
0.836, -1, -36.6543, 51.257, -17.8929, -139.462, -74.2623, 171.381, 77.0193, 29.899, -31.8372, -220.119, 33.2719, 92.0794
0.84, -1, -36.6543, 51.257, -17.8929, -139.462, -74.2623, 171.381, 76.9124, 29.8103, -31.8716, -220.158, 33.3115, 92.1212
0.844, -1, -36.6543, 51.257, -17.8929, -139.462, -74.2623, 171.381, 76.8055, 29.7215, -31.9061, -220.197, 33.3512, 92.1629
0.848, -1, -36.6543, 51.257, -17.8929, -139.462, -74.2623, 171.381, 76.6984, 29.6326, -31.9406, -220.236, 33.3909, 92.2047
0.852, -1, -36.6543, 51.257, -17.8929, -139.462, -74.2623, 171.381, 76.5912, 29.5437, -31.9751, -220.275, 33.4307, 92.2466
0.856, -1, -36.6543, 51.257, -17.8929, -139.462, -74.2623, 171.381, 76.4839, 29.4546, -32.0097, -220.314, 33.4705, 92.2885
0.86, -1, -36.6543, 51.257, -17.8929, -139.462, -74.2623, 171.381, 76.3765, 29.3655, -32.0442, -220.353, 33.5103, 92.3304
0.864, -1, -36.6543, 51.257, -17.8929, -139.462, -74.2623, 171.381, 76.2691, 29.2763, -32.0789, -220.392, 33.5502, 92.3723
0.868, -1, -36.6543, 51.257, -17.8929, -139.462, -74.2623, 171.381, 76.1615, 29.187, -32.1135, -220.432, 33.5901, 92.4143
0.872, -1, -36.6543, 51.257, -17.8929, -139.462, -74.2623, 171.381, 76.0538, 29.0976, -32.1482, -220.471, 33.63, 92.4564
0.876, -1, -36.6543, 51.257, -17.8929, -139.462, -74.2623, 171.381, 75.946, 29.0082, -32.1829, -220.51, 33.67, 92.4984
0.88, -1, -36.6543, 51.257, -17.8929, -139.462, -74.2623, 171.381, 75.8381, 28.9186, -32.2177, -220.55, 33.7101, 92.5406
0.884, -1, -36.6543, 51.257, -17.8929, -139.462, -74.2623, 171.381, 75.7302, 28.829, -32.2525, -220.589, 33.7501, 92.5827
0.888, -1, -36.6543, 51.257, -17.8929, -139.462, -74.2623, 171.381, 75.6221, 28.7393, -32.2873, -220.628, 33.7902, 92.6249
0.892, -1, -36.6543, 51.257, -17.8929, -139.462, -74.2623, 171.381, 75.514, 28.6495, -32.3221, -220.668, 33.8303, 92.6671
0.896, -1, -36.6543, 51.257, -17.8929, -139.462, -74.2623, 171.381, 75.4058, 28.5598, -32.357, -220.707, 33.8705, 92.7094
0.9, -1, -36.6543, 51.257, -17.8929, -139.462, -74.2623, 171.381, 75.2979, 28.4703, -32.392, -220.747, 33.9107, 92.7517
0.904, -1, -36.6543, 51.257, -17.8929, -139.462, -74.2623, 171.381, 75.191, 28.3817, -32.4272, -220.787, 33.9508, 92.794
0.908, -1, -36.6543, 51.257, -17.8929, -139.462, -74.2623, 171.381, 75.0863, 28.2953, -32.4628, -220.826, 33.9908, 92.8362
0.912, -1, -36.6543, 51.257, -17.8929, -139.462, -74.2623, 171.381, 74.9852, 28.2122, -32.4987, -220.866, 34.0305, 92.8782
0.916, -1, -36.6543, 51.257, -17.8929, -139.462, -74.2623, 171.381, 74.8888, 28.1335, -32.5348, -220.905, 34.0695, 92.9195
0.92, -1, -36.6543, 51.257, -17.8929, -139.462, -74.2623, 171.381, 74.7984, 28.0601, -32.5707, -220.943, 34.1074, 92.9598
0.924, -1, -36.6543, 51.257, -17.8929, -139.462, -74.2623, 171.381, 74.715, 27.9929, -32.6059, -220.98, 34.1437, 92.9985
0.928, -1, -36.6543, 51.257, -17.8929, -139.462, -74.2623, 171.381, 74.6391, 27.9321, -32.6394, -221.014, 34.1777, 93.0347
0.932, -1, -36.6543, 51.257, -17.8929, -139.462, -74.2623, 171.381, 74.57, 27.8767, -32.6701, -221.046, 34.2087, 93.0679
0.936, -1, -36.6543, 51.257, -17.8929, -139.462, -74.2623, 171.381, 74.5068, 27.8257, -32.6968, -221.074, 34.2362, 93.0972
0.94, -1, -36.6543, 51.257, -17.8929, -139.462, -74.2623, 171.381, 74.4489, 27.7784, -32.7187, -221.097, 34.2597, 93.1221
0.944, -1, -36.6543, 51.257, -17.8929, -139.462, -74.2623, 171.381, 74.3961, 27.7346, -32.7355, -221.116, 34.2791, 93.1425
0.948, -1, -36.6543, 51.257, -17.8929, -139.462, -74.2623, 171.381, 74.3484, 27.6943, -32.7472, -221.131, 34.2944, 93.1584
0.952, -1, -36.6543, 51.257, -17.8929, -139.462, -74.2623, 171.381, 74.3057, 27.6575, -32.7542, -221.141, 34.3058, 93.17
0.956, -1, -36.6543, 51.257, -17.8929, -139.462, -74.2623, 171.381, 74.2686, 27.6251, -32.7575, -221.148, 34.3139, 93.1781
0.96, -1, -36.6543, 51.257, -17.8929, -139.462, -74.2623, 171.381, 74.238, 27.598, -32.7582, -221.152, 34.3193, 93.1833
0.964, -1, -36.6543, 51.257, -17.8929, -139.462, -74.2623, 171.381, 74.2144, 27.5769, -32.7575, -221.154, 34.3226, 93.1863
0.968, -1, -36.6543, 51.257, -17.8929, -139.462, -74.2623, 171.381, 74.1975, 27.5617, -32.7562, -221.155, 34.3246, 93.188
0.972, -1, -36.6543, 51.257, -17.8929, -139.462, -74.2623, 171.381, 74.1863, 27.5516, -32.7549, -221.156, 34.3255, 93.1887
0.976, -1, -36.6543, 51.257, -17.8929, -139.462, -74.2623, 171.381, 74.1796, 27.5455, -32.7539, -221.156, 34.326, 93.189
0.98, -1, -36.6543, 51.257, -17.8929, -139.462, -74.2623, 171.381, 74.1763, 27.5426, -32.7534, -221.156, 34.3261, 93.1891
0.984, 2, -36.6543, 51.257, -17.8929, -139.462, -74.2623, 171.381, 74.1751, 27.5415, -32.7531, -221.156, 34.3262, 93.1892
0.988, 2, -36.6543, 51.257, -17.8929, -139.462, -74.2623, 171.381, 74.1749, 27.5413, -32.7531, -221.156, 34.3262, 93.1892
0.992, 2, -36.6543, 51.257, -17.8929, -139.462, -74.2623, 171.381, 74.1749, 27.5413, -32.7531, -221.156, 34.3262, 93.1892
0.996, 2, -36.6543, 51.257, -17.8929, -139.462, -74.2623, 171.381, 74.1749, 27.5413, -32.7531, -221.156, 34.3262, 93.1892
1, 2, -36.6543, 51.257, -17.8929, -139.462, -74.2623, 171.381, 74.1749, 27.5413, -32.7531, -221.156, 34.3262, 93.1892
1.004, 2, -36.6543, 51.257, -17.8929, -139.462, -74.2623, 171.381, 74.1749, 27.5413, -32.7531, -221.156, 34.3262, 93.1892
1.008, 2, -36.6543, 51.257, -17.8929, -139.462, -74.2623, 171.381, 74.1749, 27.5413, -32.7531, -221.156, 34.3262, 93.1892
1.012, 2, -36.6543, 51.257, -17.8929, -139.462, -74.2623, 171.381, 74.1749, 27.5413, -32.7531, -221.156, 34.3262, 93.1892
1.016, 2, -36.6543, 51.257, -17.8929, -139.462, -74.2623, 171.381, 74.1749, 27.5413, -32.7531, -221.156, 34.3262, 93.1892
1.02, 2, -36.6543, 51.257, -17.8929, -139.462, -74.2623, 171.381, 74.1749, 27.5413, -32.7531, -221.156, 34.3262, 93.1892
1.024, 2, -36.6543, 51.257, -17.8929, -139.462, -74.2623, 171.381, 74.1749, 27.5413, -32.7531, -221.156, 34.3262, 93.1892
1.027, 2, -36.6543, 51.257, -17.8929, -139.462, -74.2623, 171.381, 74.1749, 27.5413, -32.7531, -221.156, 34.3262, 93.1892
1.032, 2, -36.6543, 51.257, -17.8929, -139.462, -74.2623, 171.381, 74.1749, 27.5413, -32.7531, -221.156, 34.3262, 93.1892
1.036, 2, -36.6543, 51.257, -17.8929, -139.462, -74.2623, 171.381, 74.1749, 27.5413, -32.7531, -221.156, 34.3262, 93.1892
1.04, 2, -36.6543, 51.257, -17.8929, -139.462, -74.2623, 171.381, 74.1749, 27.5413, -32.7531, -221.156, 34.3262, 93.1892
1.044, 2, -36.6543, 51.257, -17.8929, -139.462, -74.2623, 171.381, 74.1749, 27.5413, -32.7531, -221.156, 34.3262, 93.1892
1.048, 2, -36.6543, 51.257, -17.8929, -139.462, -74.2623, 171.381, 74.1749, 27.5413, -32.7531, -221.156, 34.3262, 93.1892
1.052, 2, -36.6543, 51.257, -17.8929, -139.462, -74.2623, 171.381, 74.1749, 27.5413, -32.7531, -221.156, 34.3262, 93.1892
1.055, 2, -36.6543, 51.257, -17.8929, -139.462, -74.2623, 171.381, 74.1749, 27.5413, -32.7531, -221.156, 34.3262, 93.1892
1.06, 2, -36.6543, 51.257, -17.8929, -139.462, -74.2623, 171.381, 74.1749, 27.5413, -32.7531, -221.156, 34.3262, 93.1892
1.064, 2, -36.6543, 51.257, -17.8929, -139.462, -74.2623, 171.381, 74.1749, 27.5413, -32.7531, -221.156, 34.3262, 93.1892
1.068, 2, -36.6543, 51.257, -17.8929, -139.462, -74.2623, 171.381, 74.1749, 27.5413, -32.7531, -221.156, 34.3262, 93.1892
1.072, 2, -36.6543, 51.257, -17.8929, -139.462, -74.2623, 171.381, 74.1749, 27.5413, -32.7531, -221.156, 34.3262, 93.1892
1.076, 2, -36.6543, 51.257, -17.8929, -139.462, -74.2623, 171.381, 74.1749, 27.5413, -32.7531, -221.156, 34.3262, 93.1892
1.08, 2, -36.6543, 51.257, -17.8929, -139.462, -74.2623, 171.381, 74.1749, 27.5413, -32.7531, -221.156, 34.3262, 93.1892
1.084, 2, -36.6543, 51.257, -17.8929, -139.462, -74.2623, 171.381, 74.1749, 27.5413, -32.7531, -221.156, 34.3262, 93.1892
1.088, 2, -36.6543, 51.257, -17.8929, -139.462, -74.2623, 171.381, 74.1749, 27.5413, -32.7531, -221.156, 34.3262, 93.1892
1.091, 2, -36.6543, 51.257, -17.8929, -139.462, -74.2623, 171.381, 74.1749, 27.5413, -32.7531, -221.156, 34.3262, 93.1892
1.096, 2, -36.6543, 51.257, -17.8929, -139.462, -74.2623, 171.381, 74.1749, 27.5413, -32.7531, -221.156, 34.3262, 93.1892
1.1, 2, -36.6543, 51.257, -17.8929, -139.462, -74.2623, 171.381, 74.1749, 27.5413, -32.7531, -221.156, 34.3262, 93.1892
1.104, 2, -36.6543, 51.257, -17.8929, -139.462, -74.2623, 171.381, 74.1749, 27.5413, -32.7531, -221.156, 34.3262, 93.1892
1.108, 2, -36.6543, 51.257, -17.8929, -139.462, -74.2623, 171.381, 74.1749, 27.5413, -32.7531, -221.156, 34.3262, 93.1892
1.112, 2, -36.6543, 51.257, -17.8929, -139.462, -74.2623, 171.381, 74.1749, 27.5413, -32.7531, -221.156, 34.3262, 93.1892
1.116, 2, -36.6543, 51.257, -17.8929, -139.462, -74.2623, 171.381, 74.1749, 27.5413, -32.7531, -221.156, 34.3262, 93.1892
1.119, 2, -36.6543, 51.257, -17.8929, -139.462, -74.2623, 171.381, 74.1749, 27.5413, -32.7531, -221.156, 34.3262, 93.1892
1.124, 2, -36.6543, 51.257, -17.8929, -139.462, -74.2623, 171.381, 74.1749, 27.5413, -32.7531, -221.156, 34.3262, 93.1892
1.128, 2, -36.6543, 51.257, -17.8929, -139.462, -74.2623, 171.381, 74.1749, 27.5413, -32.7531, -221.156, 34.3262, 93.1892
1.132, 2, -36.6543, 51.257, -17.8929, -139.462, -74.2623, 171.381, 74.1749, 27.5413, -32.7531, -221.156, 34.3262, 93.1892
1.136, 2, -36.6543, 51.257, -17.8929, -139.462, -74.2623, 171.381, 74.1749, 27.5413, -32.7531, -221.156, 34.3262, 93.1892
1.14, 2, -36.6543, 51.257, -17.8929, -139.462, -74.2623, 171.381, 74.1749, 27.5413, -32.7531, -221.156, 34.3262, 93.1892
1.144, 2, -36.6543, 51.257, -17.8929, -139.462, -74.2623, 171.381, 74.1749, 27.5413, -32.7531, -221.156, 34.3262, 93.1892
1.147, 2, -36.6543, 51.257, -17.8929, -139.462, -74.2623, 171.381, 74.1749, 27.5413, -32.7531, -221.156, 34.3262, 93.1892
1.152, 2, -36.6543, 51.257, -17.8929, -139.462, -74.2623, 171.381, 74.1749, 27.5413, -32.7531, -221.156, 34.3262, 93.1892
1.156, 2, -36.6543, 51.257, -17.8929, -139.462, -74.2623, 171.381, 74.1749, 27.5413, -32.7531, -221.156, 34.3262, 93.1892
1.16, 2, -36.6543, 51.257, -17.8929, -139.462, -74.2623, 171.381, 74.1749, 27.5413, -32.7531, -221.156, 34.3262, 93.1892
1.164, 2, -36.6543, 51.257, -17.8929, -139.462, -74.2623, 171.381, 74.1749, 27.5413, -32.7531, -221.156, 34.3262, 93.1892
1.168, 2, -36.6543, 51.257, -17.8929, -139.462, -74.2623, 171.381, 74.1749, 27.5413, -32.7531, -221.156, 34.3262, 93.1892
1.172, 2, -36.6543, 51.257, -17.8929, -139.462, -74.2623, 171.381, 74.1749, 27.5413, -32.7531, -221.156, 34.3262, 93.1892
1.175, 2, -36.6543, 51.257, -17.8929, -139.462, -74.2623, 171.381, 74.1749, 27.5413, -32.7531, -221.156, 34.3262, 93.1892
1.18, 2, -36.6543, 51.257, -17.8929, -139.462, -74.2623, 171.381, 74.1749, 27.5413, -32.7531, -221.156, 34.3262, 93.1892
1.184, 2, -36.6543, 51.257, -17.8929, -139.462, -74.2623, 171.381, 74.1749, 27.5413, -32.7531, -221.156, 34.3262, 93.1892
1.188, 2, -36.6543, 51.257, -17.8929, -139.462, -74.2623, 171.381, 74.1749, 27.5413, -32.7531, -221.156, 34.3262, 93.1892
1.192, 2, -36.6543, 51.257, -17.8929, -139.462, -74.2623, 171.381, 74.1749, 27.5413, -32.7531, -221.156, 34.3262, 93.1892
1.196, 2, -36.6543, 51.257, -17.8929, -139.462, -74.2623, 171.381, 74.1749, 27.5413, -32.7531, -221.156, 34.3262, 93.1892
1.2, 2, -36.6543, 51.257, -17.8929, -139.462, -74.2623, 171.381, 74.1749, 27.5413, -32.7531, -221.156, 34.3262, 93.1892
1.204, 2, -36.6543, 51.257, -17.8929, -139.462, -74.2623, 171.381, 74.1749, 27.5413, -32.7531, -221.156, 34.3262, 93.1892
1.208, 2, -36.6543, 51.257, -17.8929, -139.462, -74.2623, 171.381, 74.1749, 27.5413, -32.7531, -221.156, 34.3262, 93.1892
1.212, 2, -36.6543, 51.257, -17.8929, -139.462, -74.2623, 171.381, 74.1749, 27.5413, -32.7531, -221.156, 34.3262, 93.1892
1.216, 2, -36.6543, 51.257, -17.8929, -139.462, -74.2623, 171.381, 74.1749, 27.5413, -32.7531, -221.156, 34.3262, 93.1892
1.22, 2, -36.6543, 51.257, -17.8929, -139.462, -74.2623, 171.381, 74.1749, 27.5413, -32.7531, -221.156, 34.3262, 93.1892
1.224, 2, -36.6543, 51.257, -17.8929, -139.462, -74.2623, 171.381, 74.1749, 27.5413, -32.7531, -221.156, 34.3262, 93.1892
1.228, 2, -36.6543, 51.257, -17.8929, -139.462, -74.2623, 171.381, 74.1749, 27.5413, -32.7531, -221.156, 34.3262, 93.1892
1.232, 2, -36.6543, 51.257, -17.8929, -139.462, -74.2623, 171.381, 74.1749, 27.5413, -32.7531, -221.156, 34.3262, 93.1892
1.236, 2, -36.6543, 51.257, -17.8929, -139.462, -74.2623, 171.381, 74.1749, 27.5413, -32.7531, -221.156, 34.3262, 93.1892
1.24, 2, -36.6543, 51.257, -17.8929, -139.462, -74.2623, 171.381, 74.1749, 27.5413, -32.7531, -221.156, 34.3262, 93.1892
1.244, 2, -36.6543, 51.257, -17.8929, -139.462, -74.2623, 171.381, 74.1749, 27.5413, -32.7531, -221.156, 34.3262, 93.1892
1.248, 2, -36.6543, 51.257, -17.8929, -139.462, -74.2623, 171.381, 74.1749, 27.5413, -32.7531, -221.156, 34.3262, 93.1892
1.252, 2, -36.6543, 51.257, -17.8929, -139.462, -74.2623, 171.381, 74.1749, 27.5413, -32.7531, -221.156, 34.3262, 93.1892
1.256, 2, -36.6543, 51.257, -17.8929, -139.462, -74.2623, 171.381, 74.1749, 27.5413, -32.7531, -221.156, 34.3262, 93.1892
1.26, 2, -36.6543, 51.257, -17.8929, -139.462, -74.2623, 171.381, 74.1749, 27.5413, -32.7531, -221.156, 34.3262, 93.1892
1.264, 2, -36.6543, 51.257, -17.8929, -139.462, -74.2623, 171.381, 74.1749, 27.5413, -32.7531, -221.156, 34.3262, 93.1892
1.267, 2, -36.6543, 51.257, -17.8929, -139.462, -74.2623, 171.381, 74.1749, 27.5413, -32.7531, -221.156, 34.3262, 93.1892
1.272, 2, -36.6543, 51.257, -17.8929, -139.462, -74.2623, 171.381, 74.1749, 27.5413, -32.7531, -221.156, 34.3262, 93.1892
1.276, 2, -36.6543, 51.257, -17.8929, -139.462, -74.2623, 171.381, 74.1749, 27.5413, -32.7531, -221.156, 34.3262, 93.1892
1.28, 2, -36.6543, 51.257, -17.8929, -139.462, -74.2623, 171.381, 74.1749, 27.5413, -32.7531, -221.156, 34.3262, 93.1892
1.284, 2, -36.6543, 51.257, -17.8929, -139.462, -74.2623, 171.381, 74.1749, 27.5413, -32.7531, -221.156, 34.3262, 93.1892
1.288, 2, -36.6543, 51.257, -17.8929, -139.462, -74.2623, 171.381, 74.1749, 27.5413, -32.7531, -221.156, 34.3262, 93.1892
1.292, 2, -36.6543, 51.257, -17.8929, -139.462, -74.2623, 171.381, 74.1749, 27.5413, -32.7531, -221.156, 34.3262, 93.1892
1.295, 2, -36.6543, 51.257, -17.8929, -139.462, -74.2623, 171.381, 74.1749, 27.5413, -32.7531, -221.156, 34.3262, 93.1892
1.3, 2, -36.6543, 51.257, -17.8929, -139.462, -74.2623, 171.381, 74.1749, 27.5413, -32.7531, -221.156, 34.3262, 93.1892
1.304, 2, -36.6543, 51.257, -17.8929, -139.462, -74.2623, 171.381, 74.1749, 27.5413, -32.7531, -221.156, 34.3262, 93.1892
1.308, 2, -36.6543, 51.257, -17.8929, -139.462, -74.2623, 171.381, 74.1749, 27.5413, -32.7531, -221.156, 34.3262, 93.1892
1.312, 2, -36.6543, 51.257, -17.8929, -139.462, -74.2623, 171.381, 74.1749, 27.5413, -32.7531, -221.156, 34.3262, 93.1892
1.316, 2, -36.6543, 51.257, -17.8929, -139.462, -74.2623, 171.381, 74.1749, 27.5413, -32.7531, -221.156, 34.3262, 93.1892
1.32, 2, -36.6543, 51.257, -17.8929, -139.462, -74.2623, 171.381, 74.1749, 27.5413, -32.7531, -221.156, 34.3262, 93.1892
1.324, 2, -36.6543, 51.257, -17.8929, -139.462, -74.2623, 171.381, 74.1749, 27.5413, -32.7531, -221.156, 34.3262, 93.1892
1.328, 2, -36.6543, 51.257, -17.8929, -139.462, -74.2623, 171.381, 74.1749, 27.5413, -32.7531, -221.156, 34.3262, 93.1892
1.332, 2, -36.6543, 51.257, -17.8929, -139.462, -74.2623, 171.381, 74.1749, 27.5413, -32.7531, -221.156, 34.3262, 93.1892
1.336, 2, -36.6543, 51.257, -17.8929, -139.462, -74.2623, 171.381, 74.1749, 27.5413, -32.7531, -221.156, 34.3262, 93.1892
1.34, 2, -36.6543, 51.257, -17.8929, -139.462, -74.2623, 171.381, 74.1749, 27.5413, -32.7531, -221.156, 34.3262, 93.1892
1.344, 2, -36.6543, 51.257, -17.8929, -139.462, -74.2623, 171.381, 74.1749, 27.5413, -32.7531, -221.156, 34.3262, 93.1892
1.348, 2, -36.6543, 51.257, -17.8929, -139.462, -74.2623, 171.381, 74.1749, 27.5413, -32.7531, -221.156, 34.3262, 93.1892
1.352, 2, -36.6543, 51.257, -17.8929, -139.462, -74.2623, 171.381, 74.1749, 27.5413, -32.7531, -221.156, 34.3262, 93.1892
1.356, 2, -36.6543, 51.257, -17.8929, -139.462, -74.2623, 171.381, 74.1749, 27.5413, -32.7531, -221.156, 34.3262, 93.1892
1.36, 2, -36.6543, 51.257, -17.8929, -139.462, -74.2623, 171.381, 74.1749, 27.5413, -32.7531, -221.156, 34.3262, 93.1892
1.364, 2, -36.6543, 51.257, -17.8929, -139.462, -74.2623, 171.381, 74.1749, 27.5413, -32.7531, -221.156, 34.3262, 93.1892
1.368, 2, -36.6543, 51.257, -17.8929, -139.462, -74.2623, 171.381, 74.1749, 27.5413, -32.7531, -221.156, 34.3262, 93.1892
1.372, 2, -36.6543, 51.257, -17.8929, -139.462, -74.2623, 171.381, 74.1749, 27.5413, -32.7531, -221.156, 34.3262, 93.1892
1.376, 2, -36.6543, 51.257, -17.8929, -139.462, -74.2623, 171.381, 74.1749, 27.5413, -32.7531, -221.156, 34.3262, 93.1892
1.38, 2, -36.6543, 51.257, -17.8929, -139.462, -74.2623, 171.381, 74.1749, 27.5413, -32.7531, -221.156, 34.3262, 93.1892
1.384, 2, -36.6543, 51.257, -17.8929, -139.462, -74.2623, 171.381, 74.1749, 27.5413, -32.7531, -221.156, 34.3262, 93.1892
1.388, 2, -36.6543, 51.257, -17.8929, -139.462, -74.2623, 171.381, 74.1749, 27.5413, -32.7531, -221.156, 34.3262, 93.1892
1.392, 2, -36.6543, 51.257, -17.8929, -139.462, -74.2623, 171.381, 74.1749, 27.5413, -32.7531, -221.156, 34.3262, 93.1892
1.396, 2, -36.6543, 51.257, -17.8929, -139.462, -74.2623, 171.381, 74.1749, 27.5413, -32.7531, -221.156, 34.3262, 93.1892
1.4, 2, -36.6543, 51.257, -17.8929, -139.462, -74.2623, 171.381, 74.1749, 27.5413, -32.7531, -221.156, 34.3262, 93.1892
1.404, 2, -36.6543, 51.257, -17.8929, -139.462, -74.2623, 171.381, 74.1749, 27.5413, -32.7531, -221.156, 34.3262, 93.1892
1.408, 2, -36.6543, 51.257, -17.8929, -139.462, -74.2623, 171.381, 74.1749, 27.5413, -32.7531, -221.156, 34.3262, 93.1892
1.412, 2, -36.6543, 51.257, -17.8929, -139.462, -74.2623, 171.381, 74.1749, 27.5413, -32.7531, -221.156, 34.3262, 93.1892
1.416, 2, -36.6543, 51.257, -17.8929, -139.462, -74.2623, 171.381, 74.1749, 27.5413, -32.7531, -221.156, 34.3262, 93.1892
1.42, 2, -36.6543, 51.257, -17.8929, -139.462, -74.2623, 171.381, 74.1749, 27.5413, -32.7531, -221.156, 34.3262, 93.1892
1.424, 2, -36.6543, 51.257, -17.8929, -139.462, -74.2623, 171.381, 74.1749, 27.5413, -32.7531, -221.156, 34.3262, 93.1892
1.428, 2, -36.6543, 51.257, -17.8929, -139.462, -74.2623, 171.381, 74.1749, 27.5413, -32.7531, -221.156, 34.3262, 93.1892
1.432, 2, -36.6543, 51.257, -17.8929, -139.462, -74.2623, 171.381, 74.1749, 27.5413, -32.7531, -221.156, 34.3262, 93.1892
1.436, 2, -36.6543, 51.257, -17.8929, -139.462, -74.2623, 171.381, 74.1749, 27.5413, -32.7531, -221.156, 34.3262, 93.1892
1.44, 2, -36.6543, 51.257, -17.8929, -139.462, -74.2623, 171.381, 74.1749, 27.5413, -32.7531, -221.156, 34.3262, 93.1892
1.444, 2, -36.6543, 51.257, -17.8929, -139.462, -74.2623, 171.381, 74.1749, 27.5413, -32.7531, -221.156, 34.3262, 93.1892
1.448, 2, -36.6543, 51.257, -17.8929, -139.462, -74.2623, 171.381, 74.1749, 27.5413, -32.7531, -221.156, 34.3262, 93.1892
1.452, 2, -36.6543, 51.257, -17.8929, -139.462, -74.2623, 171.381, 74.1749, 27.5413, -32.7531, -221.156, 34.3262, 93.1892
1.456, 2, -36.6543, 51.257, -17.8929, -139.462, -74.2623, 171.381, 74.1749, 27.5413, -32.7531, -221.156, 34.3262, 93.1892
1.46, 2, -36.6543, 51.257, -17.8929, -139.462, -74.2623, 171.381, 74.1749, 27.5413, -32.7531, -221.156, 34.3262, 93.1892
1.464, 2, -36.6543, 51.257, -17.8929, -139.462, -74.2623, 171.381, 74.1749, 27.5413, -32.7531, -221.156, 34.3262, 93.1892
1.468, 2, -36.6543, 51.257, -17.8929, -139.462, -74.2623, 171.381, 74.1749, 27.5413, -32.7531, -221.156, 34.3262, 93.1892
1.472, 2, -36.6543, 51.257, -17.8929, -139.462, -74.2623, 171.381, 74.1749, 27.5413, -32.7531, -221.156, 34.3262, 93.1892
1.476, 2, -36.6543, 51.257, -17.8929, -139.462, -74.2623, 171.381, 74.1749, 27.5413, -32.7531, -221.156, 34.3262, 93.1892
1.48, 2, -36.6543, 51.257, -17.8929, -139.462, -74.2623, 171.381, 74.1749, 27.5413, -32.7531, -221.156, 34.3262, 93.1892
1.484, 2, -36.6543, 51.257, -17.8929, -139.462, -74.2623, 171.381, 74.1749, 27.5413, -32.7531, -221.156, 34.3262, 93.1892
1.488, 2, -36.6543, 51.257, -17.8929, -139.462, -74.2623, 171.381, 74.1749, 27.5413, -32.7531, -221.156, 34.3262, 93.1892
1.492, 2, -36.6543, 51.257, -17.8929, -139.462, -74.2623, 171.381, 74.1749, 27.5413, -32.7531, -221.156, 34.3262, 93.1892
1.496, 2, -36.6543, 51.257, -17.8929, -139.462, -74.2623, 171.381, 74.1749, 27.5413, -32.7531, -221.156, 34.3262, 93.1892
1.5, 2, -36.6543, 51.257, -17.8929, -139.462, -74.2623, 171.381, 74.1749, 27.5413, -32.7531, -221.156, 34.3262, 93.1892
1.504, 2, -36.6543, 51.257, -17.8929, -139.462, -74.2623, 171.381, 74.1749, 27.5413, -32.7531, -221.156, 34.3262, 93.1892
1.508, 2, -36.6543, 51.257, -17.8929, -139.462, -74.2623, 171.381, 74.1749, 27.5413, -32.7531, -221.156, 34.3262, 93.1892
1.512, 2, -36.6543, 51.257, -17.8929, -139.462, -74.2623, 171.381, 74.1749, 27.5413, -32.7531, -221.156, 34.3262, 93.1892
1.516, 2, -36.6543, 51.257, -17.8929, -139.462, -74.2623, 171.381, 74.1749, 27.5413, -32.7531, -221.156, 34.3262, 93.1892
1.52, 2, -36.6543, 51.257, -17.8929, -139.462, -74.2623, 171.381, 74.1749, 27.5413, -32.7531, -221.156, 34.3262, 93.1892
1.524, 2, -36.6543, 51.257, -17.8929, -139.462, -74.2623, 171.381, 74.1749, 27.5413, -32.7531, -221.156, 34.3262, 93.1892
1.528, 2, -36.6543, 51.257, -17.8929, -139.462, -74.2623, 171.381, 74.1749, 27.5413, -32.7531, -221.156, 34.3262, 93.1892
1.532, 2, -36.6543, 51.257, -17.8929, -139.462, -74.2623, 171.381, 74.1749, 27.5413, -32.7531, -221.156, 34.3262, 93.1892
1.536, 2, -36.6543, 51.257, -17.8929, -139.462, -74.2623, 171.381, 74.1749, 27.5413, -32.7531, -221.156, 34.3262, 93.1892
1.54, 2, -36.6543, 51.257, -17.8929, -139.462, -74.2623, 171.381, 74.1749, 27.5413, -32.7531, -221.156, 34.3262, 93.1892
1.544, 2, -36.6543, 51.257, -17.8929, -139.462, -74.2623, 171.381, 74.1749, 27.5413, -32.7531, -221.156, 34.3262, 93.1892
1.548, 2, -36.6543, 51.257, -17.8929, -139.462, -74.2623, 171.381, 74.1749, 27.5413, -32.7531, -221.156, 34.3262, 93.1892
1.552, 2, -36.6543, 51.257, -17.8929, -139.462, -74.2623, 171.381, 74.1749, 27.5413, -32.7531, -221.156, 34.3262, 93.1892
1.556, 2, -36.6543, 51.257, -17.8929, -139.462, -74.2623, 171.381, 74.1749, 27.5413, -32.7531, -221.156, 34.3262, 93.1892
1.56, 2, -36.6543, 51.257, -17.8929, -139.462, -74.2623, 171.381, 74.1749, 27.5413, -32.7531, -221.156, 34.3262, 93.1892
1.564, 2, -36.6543, 51.257, -17.8929, -139.462, -74.2623, 171.381, 74.1749, 27.5413, -32.7531, -221.156, 34.3262, 93.1892
1.568, 2, -36.6543, 51.257, -17.8929, -139.462, -74.2623, 171.381, 74.1749, 27.5413, -32.7531, -221.156, 34.3262, 93.1892
1.572, 2, -36.6543, 51.257, -17.8929, -139.462, -74.2623, 171.381, 74.1749, 27.5413, -32.7531, -221.156, 34.3262, 93.1892
1.576, 2, -36.6543, 51.257, -17.8929, -139.462, -74.2623, 171.381, 74.1749, 27.5413, -32.7531, -221.156, 34.3262, 93.1892
1.58, 2, -36.6543, 51.257, -17.8929, -139.462, -74.2623, 171.381, 74.1749, 27.5413, -32.7531, -221.156, 34.3262, 93.1892
1.584, 2, -36.6543, 51.257, -17.8929, -139.462, -74.2623, 171.381, 74.1749, 27.5413, -32.7531, -221.156, 34.3262, 93.1892
1.588, 2, -36.6543, 51.257, -17.8929, -139.462, -74.2623, 171.381, 74.1749, 27.5413, -32.7531, -221.156, 34.3262, 93.1892
1.592, 2, -36.6543, 51.257, -17.8929, -139.462, -74.2623, 171.381, 74.1749, 27.5413, -32.7531, -221.156, 34.3262, 93.1892
1.596, 2, -36.6543, 51.257, -17.8929, -139.462, -74.2623, 171.381, 74.1749, 27.5413, -32.7531, -221.156, 34.3262, 93.1892
1.6, 2, -36.6543, 51.257, -17.8929, -139.462, -74.2623, 171.381, 74.1749, 27.5413, -32.7531, -221.156, 34.3262, 93.1892
1.604, 2, -36.6543, 51.257, -17.8929, -139.462, -74.2623, 171.381, 74.1749, 27.5413, -32.7531, -221.156, 34.3262, 93.1892
1.608, 2, -36.6543, 51.257, -17.8929, -139.462, -74.2623, 171.381, 74.1749, 27.5413, -32.7531, -221.156, 34.3262, 93.1892
1.612, 2, -36.6543, 51.257, -17.8929, -139.462, -74.2623, 171.381, 74.1749, 27.5413, -32.7531, -221.156, 34.3262, 93.1892
1.616, 2, -36.6543, 51.257, -17.8929, -139.462, -74.2623, 171.381, 74.1749, 27.5413, -32.7531, -221.156, 34.3262, 93.1892
1.62, 2, -36.6543, 51.257, -17.8929, -139.462, -74.2623, 171.381, 74.1749, 27.5413, -32.7531, -221.156, 34.3262, 93.1892
1.624, 2, -36.6543, 51.257, -17.8929, -139.462, -74.2623, 171.381, 74.1749, 27.5413, -32.7531, -221.156, 34.3262, 93.1892
1.628, 2, -36.6543, 51.257, -17.8929, -139.462, -74.2623, 171.381, 74.1749, 27.5413, -32.7531, -221.156, 34.3262, 93.1892
1.632, 2, -36.6543, 51.257, -17.8929, -139.462, -74.2623, 171.381, 74.1749, 27.5413, -32.7531, -221.156, 34.3262, 93.1892
1.636, 2, -36.6543, 51.257, -17.8929, -139.462, -74.2623, 171.381, 74.1749, 27.5413, -32.7531, -221.156, 34.3262, 93.1892
1.64, 2, -36.6543, 51.257, -17.8929, -139.462, -74.2623, 171.381, 74.1749, 27.5413, -32.7531, -221.156, 34.3262, 93.1892
1.644, 2, -36.6543, 51.257, -17.8929, -139.462, -74.2623, 171.381, 74.1749, 27.5413, -32.7531, -221.156, 34.3262, 93.1892
1.648, 2, -36.6543, 51.257, -17.8929, -139.462, -74.2623, 171.381, 74.1749, 27.5413, -32.7531, -221.156, 34.3262, 93.1892
1.652, 2, -36.6543, 51.257, -17.8929, -139.462, -74.2623, 171.381, 74.1749, 27.5413, -32.7531, -221.156, 34.3262, 93.1892
1.656, 2, -36.6543, 51.257, -17.8929, -139.462, -74.2623, 171.381, 74.1749, 27.5413, -32.7531, -221.156, 34.3262, 93.1892
1.66, 2, -36.6543, 51.257, -17.8929, -139.462, -74.2623, 171.381, 74.1749, 27.5413, -32.7531, -221.156, 34.3262, 93.1892
1.664, 2, -36.6543, 51.257, -17.8929, -139.462, -74.2623, 171.381, 74.1749, 27.5413, -32.7531, -221.156, 34.3262, 93.1892
1.668, 2, -36.6543, 51.257, -17.8929, -139.462, -74.2623, 171.381, 74.1749, 27.5413, -32.7531, -221.156, 34.3262, 93.1892
1.672, 2, -36.6543, 51.257, -17.8929, -139.462, -74.2623, 171.381, 74.1749, 27.5413, -32.7531, -221.156, 34.3262, 93.1892
1.676, 2, -36.6543, 51.257, -17.8929, -139.462, -74.2623, 171.381, 74.1749, 27.5413, -32.7531, -221.156, 34.3262, 93.1892
1.68, 2, -36.6543, 51.257, -17.8929, -139.462, -74.2623, 171.381, 74.1749, 27.5413, -32.7531, -221.156, 34.3262, 93.1892
1.684, 2, -36.6543, 51.257, -17.8929, -139.462, -74.2623, 171.381, 74.1749, 27.5413, -32.7531, -221.156, 34.3262, 93.1892
1.688, 2, -36.6543, 51.257, -17.8929, -139.462, -74.2623, 171.381, 74.1749, 27.5413, -32.7531, -221.156, 34.3262, 93.1892
1.692, 2, -36.6543, 51.257, -17.8929, -139.462, -74.2623, 171.381, 74.1749, 27.5413, -32.7531, -221.156, 34.3262, 93.1892
1.696, 2, -36.6543, 51.257, -17.8929, -139.462, -74.2623, 171.381, 74.1749, 27.5413, -32.7531, -221.156, 34.3262, 93.1892
1.7, 2, -36.6543, 51.257, -17.8929, -139.462, -74.2623, 171.381, 74.1749, 27.5413, -32.7531, -221.156, 34.3262, 93.1892
1.704, 2, -36.6543, 51.257, -17.8929, -139.462, -74.2623, 171.381, 74.1749, 27.5413, -32.7531, -221.156, 34.3262, 93.1892
1.708, 2, -36.6543, 51.257, -17.8929, -139.462, -74.2623, 171.381, 74.1749, 27.5413, -32.7531, -221.156, 34.3262, 93.1892
1.712, 2, -36.6543, 51.257, -17.8929, -139.462, -74.2623, 171.381, 74.1749, 27.5413, -32.7531, -221.156, 34.3262, 93.1892
1.716, 2, -36.6543, 51.257, -17.8929, -139.462, -74.2623, 171.381, 74.1749, 27.5413, -32.7531, -221.156, 34.3262, 93.1892
1.72, 2, -36.6543, 51.257, -17.8929, -139.462, -74.2623, 171.381, 74.1749, 27.5413, -32.7531, -221.156, 34.3262, 93.1892
1.724, 2, -36.6543, 51.257, -17.8929, -139.462, -74.2623, 171.381, 74.1749, 27.5413, -32.7531, -221.156, 34.3262, 93.1892
1.728, 2, -36.6543, 51.257, -17.8929, -139.462, -74.2623, 171.381, 74.1749, 27.5413, -32.7531, -221.156, 34.3262, 93.1892
1.732, 2, -36.6543, 51.257, -17.8929, -139.462, -74.2623, 171.381, 74.1749, 27.5413, -32.7531, -221.156, 34.3262, 93.1892
1.736, 2, -36.6543, 51.257, -17.8929, -139.462, -74.2623, 171.381, 74.1749, 27.5413, -32.7531, -221.156, 34.3262, 93.1892
1.74, 2, -36.6543, 51.257, -17.8929, -139.462, -74.2623, 171.381, 74.1749, 27.5413, -32.7531, -221.156, 34.3262, 93.1892
1.744, 2, -36.6543, 51.257, -17.8929, -139.462, -74.2623, 171.381, 74.1749, 27.5413, -32.7531, -221.156, 34.3262, 93.1892
1.748, 2, -36.6543, 51.257, -17.8929, -139.462, -74.2623, 171.381, 74.1749, 27.5413, -32.7531, -221.156, 34.3262, 93.1892
1.752, 2, -36.6543, 51.257, -17.8929, -139.462, -74.2623, 171.381, 74.1749, 27.5413, -32.7531, -221.156, 34.3262, 93.1892
1.756, 2, -36.6543, 51.257, -17.8929, -139.462, -74.2623, 171.381, 74.1749, 27.5413, -32.7531, -221.156, 34.3262, 93.1892
1.76, 2, -36.6543, 51.257, -17.8929, -139.462, -74.2623, 171.381, 74.1749, 27.5413, -32.7531, -221.156, 34.3262, 93.1892
1.764, 2, -36.6543, 51.257, -17.8929, -139.462, -74.2623, 171.381, 74.1749, 27.5413, -32.7531, -221.156, 34.3262, 93.1892
1.768, 2, -36.6543, 51.257, -17.8929, -139.462, -74.2623, 171.381, 74.1749, 27.5413, -32.7531, -221.156, 34.3262, 93.1892
1.772, 2, -36.6543, 51.257, -17.8929, -139.462, -74.2623, 171.381, 74.1749, 27.5413, -32.7531, -221.156, 34.3262, 93.1892
1.776, 2, -36.6543, 51.257, -17.8929, -139.462, -74.2623, 171.381, 74.1749, 27.5413, -32.7531, -221.156, 34.3262, 93.1892
1.78, 2, -36.6543, 51.257, -17.8929, -139.462, -74.2623, 171.381, 74.1749, 27.5413, -32.7531, -221.156, 34.3262, 93.1892
1.784, 2, -36.6543, 51.257, -17.8929, -139.462, -74.2623, 171.381, 74.1749, 27.5413, -32.7531, -221.156, 34.3262, 93.1892
1.788, 2, -36.6543, 51.257, -17.8929, -139.462, -74.2623, 171.381, 74.1749, 27.5413, -32.7531, -221.156, 34.3262, 93.1892
1.792, 2, -36.6543, 51.257, -17.8929, -139.462, -74.2623, 171.381, 74.1749, 27.5413, -32.7531, -221.156, 34.3262, 93.1892
1.796, 2, -36.6543, 51.257, -17.8929, -139.462, -74.2623, 171.381, 74.1749, 27.5413, -32.7531, -221.156, 34.3262, 93.1892
1.8, 2, -36.6543, 51.257, -17.8929, -139.462, -74.2623, 171.381, 74.1749, 27.5413, -32.7531, -221.156, 34.3262, 93.1892
1.804, 2, -36.6543, 51.257, -17.8929, -139.462, -74.2623, 171.381, 74.1749, 27.5413, -32.7531, -221.156, 34.3262, 93.1892
1.808, 2, -36.6543, 51.257, -17.8929, -139.462, -74.2623, 171.381, 74.1749, 27.5413, -32.7531, -221.156, 34.3262, 93.1892
1.812, 2, -36.6543, 51.257, -17.8929, -139.462, -74.2623, 171.381, 74.1749, 27.5413, -32.7531, -221.156, 34.3262, 93.1892
1.816, 2, -36.6543, 51.257, -17.8929, -139.462, -74.2623, 171.381, 74.1749, 27.5413, -32.7531, -221.156, 34.3262, 93.1892
1.82, 2, -36.6543, 51.257, -17.8929, -139.462, -74.2623, 171.381, 74.1749, 27.5413, -32.7531, -221.156, 34.3262, 93.1892
1.824, 2, -36.6543, 51.257, -17.8929, -139.462, -74.2623, 171.381, 74.1749, 27.5413, -32.7531, -221.156, 34.3262, 93.1892
1.828, 2, -36.6543, 51.257, -17.8929, -139.462, -74.2623, 171.381, 74.1749, 27.5413, -32.7531, -221.156, 34.3262, 93.1892
1.832, 2, -36.6543, 51.257, -17.8929, -139.462, -74.2623, 171.381, 74.1749, 27.5413, -32.7531, -221.156, 34.3262, 93.1892
1.836, 2, -36.6543, 51.257, -17.8929, -139.462, -74.2623, 171.381, 74.1749, 27.5413, -32.7531, -221.156, 34.3262, 93.1892
1.84, 2, -36.6543, 51.257, -17.8929, -139.462, -74.2623, 171.381, 74.1749, 27.5413, -32.7531, -221.156, 34.3262, 93.1892
1.844, 2, -36.6543, 51.257, -17.8929, -139.462, -74.2623, 171.381, 74.1749, 27.5413, -32.7531, -221.156, 34.3262, 93.1892
1.848, 2, -36.6543, 51.257, -17.8929, -139.462, -74.2623, 171.381, 74.1749, 27.5413, -32.7531, -221.156, 34.3262, 93.1892
1.852, 2, -36.6543, 51.257, -17.8929, -139.462, -74.2623, 171.381, 74.1749, 27.5413, -32.7531, -221.156, 34.3262, 93.1892
1.856, 2, -36.6543, 51.257, -17.8929, -139.462, -74.2623, 171.381, 74.1749, 27.5413, -32.7531, -221.156, 34.3262, 93.1892
1.86, 2, -36.6543, 51.257, -17.8929, -139.462, -74.2623, 171.381, 74.1749, 27.5413, -32.7531, -221.156, 34.3262, 93.1892
1.864, 2, -36.6543, 51.257, -17.8929, -139.462, -74.2623, 171.381, 74.1749, 27.5413, -32.7531, -221.156, 34.3262, 93.1892
1.868, 2, -36.6543, 51.257, -17.8929, -139.462, -74.2623, 171.381, 74.1749, 27.5413, -32.7531, -221.156, 34.3262, 93.1892
1.872, 2, -36.6543, 51.257, -17.8929, -139.462, -74.2623, 171.381, 74.1749, 27.5413, -32.7531, -221.156, 34.3262, 93.1892
1.876, 2, -36.6543, 51.257, -17.8929, -139.462, -74.2623, 171.381, 74.1749, 27.5413, -32.7531, -221.156, 34.3262, 93.1892
1.88, 2, -36.6543, 51.257, -17.8929, -139.462, -74.2623, 171.381, 74.1749, 27.5413, -32.7531, -221.156, 34.3262, 93.1892
1.884, 2, -36.6543, 51.257, -17.8929, -139.462, -74.2623, 171.381, 74.1749, 27.5413, -32.7531, -221.156, 34.3262, 93.1892
1.888, 2, -36.6543, 51.257, -17.8929, -139.462, -74.2623, 171.381, 74.1749, 27.5413, -32.7531, -221.156, 34.3262, 93.1892
1.892, 2, -36.6543, 51.257, -17.8929, -139.462, -74.2623, 171.381, 74.1749, 27.5413, -32.7531, -221.156, 34.3262, 93.1892
1.896, 2, -36.6543, 51.257, -17.8929, -139.462, -74.2623, 171.381, 74.1749, 27.5413, -32.7531, -221.156, 34.3262, 93.1892
1.9, 2, -36.6543, 51.257, -17.8929, -139.462, -74.2623, 171.381, 74.1749, 27.5413, -32.7531, -221.156, 34.3262, 93.1892
1.904, 2, -36.6543, 51.257, -17.8929, -139.462, -74.2623, 171.381, 74.1749, 27.5413, -32.7531, -221.156, 34.3262, 93.1892
1.908, 2, -36.6543, 51.257, -17.8929, -139.462, -74.2623, 171.381, 74.1749, 27.5413, -32.7531, -221.156, 34.3262, 93.1892
1.912, 2, -36.6543, 51.257, -17.8929, -139.462, -74.2623, 171.381, 74.1749, 27.5413, -32.7531, -221.156, 34.3262, 93.1892
1.916, 2, -36.6543, 51.257, -17.8929, -139.462, -74.2623, 171.381, 74.1749, 27.5413, -32.7531, -221.156, 34.3262, 93.1892
1.92, 2, -36.6543, 51.257, -17.8929, -139.462, -74.2623, 171.381, 74.1749, 27.5413, -32.7531, -221.156, 34.3262, 93.1892
1.924, 2, -36.6543, 51.257, -17.8929, -139.462, -74.2623, 171.381, 74.1749, 27.5413, -32.7531, -221.156, 34.3262, 93.1892
1.928, 2, -36.6543, 51.257, -17.8929, -139.462, -74.2623, 171.381, 74.1749, 27.5413, -32.7531, -221.156, 34.3262, 93.1892
1.932, 2, -36.6543, 51.257, -17.8929, -139.462, -74.2623, 171.381, 74.1749, 27.5413, -32.7531, -221.156, 34.3262, 93.1892
1.936, 2, -36.6543, 51.257, -17.8929, -139.462, -74.2623, 171.381, 74.1749, 27.5413, -32.7531, -221.156, 34.3262, 93.1892
1.94, 2, -36.6543, 51.257, -17.8929, -139.462, -74.2623, 171.381, 74.1749, 27.5413, -32.7531, -221.156, 34.3262, 93.1892
1.944, 2, -36.6543, 51.257, -17.8929, -139.462, -74.2623, 171.381, 74.1749, 27.5413, -32.7531, -221.156, 34.3262, 93.1892
1.948, 2, -36.6543, 51.257, -17.8929, -139.462, -74.2623, 171.381, 74.1749, 27.5413, -32.7531, -221.156, 34.3262, 93.1892
1.952, 2, -36.6543, 51.257, -17.8929, -139.462, -74.2623, 171.381, 74.1749, 27.5413, -32.7531, -221.156, 34.3262, 93.1892
1.956, 2, -36.6543, 51.257, -17.8929, -139.462, -74.2623, 171.381, 74.1749, 27.5413, -32.7531, -221.156, 34.3262, 93.1892
1.96, 2, -36.6543, 51.257, -17.8929, -139.462, -74.2623, 171.381, 74.1749, 27.5413, -32.7531, -221.156, 34.3262, 93.1892
1.964, 2, -36.6543, 51.257, -17.8929, -139.462, -74.2623, 171.381, 74.1749, 27.5413, -32.7531, -221.156, 34.3262, 93.1892
1.968, 2, -36.6543, 51.257, -17.8929, -139.462, -74.2623, 171.381, 74.1749, 27.5413, -32.7531, -221.156, 34.3262, 93.1892
1.972, 2, -36.6543, 51.257, -17.8929, -139.462, -74.2623, 171.381, 74.1749, 27.5413, -32.7531, -221.156, 34.3262, 93.1892
1.976, 2, -36.6543, 51.257, -17.8929, -139.462, -74.2623, 171.381, 74.1749, 27.5413, -32.7531, -221.156, 34.3262, 93.1892
1.98, 2, -36.6543, 51.257, -17.8929, -139.462, -74.2623, 171.381, 74.1749, 27.5413, -32.7531, -221.156, 34.3262, 93.1892
1.984, 2, -36.6543, 51.257, -17.8929, -139.462, -74.2623, 171.381, 74.1749, 27.5413, -32.7531, -221.156, 34.3262, 93.1892
1.988, 2, -36.6543, 51.257, -17.8929, -139.462, -74.2623, 171.381, 74.1749, 27.5413, -32.7531, -221.156, 34.3262, 93.1892
1.992, 2, -36.6543, 51.257, -17.8929, -139.462, -74.2623, 171.381, 74.1749, 27.5413, -32.7531, -221.156, 34.3262, 93.1892
1.996, 2, -36.6543, 51.257, -17.8929, -139.462, -74.2623, 171.381, 74.1749, 27.5413, -32.7531, -221.156, 34.3262, 93.1892
1.999, 2, -36.6543, 51.257, -17.8929, -139.462, -74.2623, 171.381, 74.1749, 27.5413, -32.7531, -221.156, 34.3262, 93.1892
2.004, 2, -36.6543, 51.257, -17.8929, -139.462, -74.2623, 171.381, 74.1749, 27.5413, -32.7531, -221.156, 34.3262, 93.1892
2.008, 2, -36.6543, 51.257, -17.8929, -139.462, -74.2623, 171.381, 74.1749, 27.5413, -32.7531, -221.156, 34.3262, 93.1892
2.012, 2, -36.6543, 51.257, -17.8929, -139.462, -74.2623, 171.381, 74.1749, 27.5413, -32.7531, -221.156, 34.3262, 93.1892
2.015, 2, -36.6543, 51.257, -17.8929, -139.462, -74.2623, 171.381, 74.1749, 27.5413, -32.7531, -221.156, 34.3262, 93.1892
2.019, 2, -36.6543, 51.257, -17.8929, -139.462, -74.2623, 171.381, 74.1749, 27.5413, -32.7531, -221.156, 34.3262, 93.1892
2.024, 2, -36.6543, 51.257, -17.8929, -139.462, -74.2623, 171.381, 74.1749, 27.5413, -32.7531, -221.156, 34.3262, 93.1892
2.028, 2, -36.6543, 51.257, -17.8929, -139.462, -74.2623, 171.381, 74.1749, 27.5413, -32.7531, -221.156, 34.3262, 93.1892
2.031, 2, -36.6543, 51.257, -17.8929, -139.462, -74.2623, 171.381, 74.1749, 27.5413, -32.7531, -221.156, 34.3262, 93.1892
2.036, 2, -36.6543, 51.257, -17.8929, -139.462, -74.2623, 171.381, 74.1749, 27.5413, -32.7531, -221.156, 34.3262, 93.1892
2.04, 2, -36.6543, 51.257, -17.8929, -139.462, -74.2623, 171.381, 74.1749, 27.5413, -32.7531, -221.156, 34.3262, 93.1892
2.044, 2, -36.6543, 51.257, -17.8929, -139.462, -74.2623, 171.381, 74.1749, 27.5413, -32.7531, -221.156, 34.3262, 93.1892
2.048, 2, -36.6543, 51.257, -17.8929, -139.462, -74.2623, 171.381, 74.1749, 27.5413, -32.7531, -221.156, 34.3262, 93.1892
2.051, 2, -36.6543, 51.257, -17.8929, -139.462, -74.2623, 171.381, 74.1749, 27.5413, -32.7531, -221.156, 34.3262, 93.1892
2.055, 2, -36.6543, 51.257, -17.8929, -139.462, -74.2623, 171.381, 74.1749, 27.5413, -32.7531, -221.156, 34.3262, 93.1892
2.06, 2, -36.6543, 51.257, -17.8929, -139.462, -74.2623, 171.381, 74.1749, 27.5413, -32.7531, -221.156, 34.3262, 93.1892
2.064, 4, -36.6543, 51.257, -17.8929, -139.462, -74.2623, 171.381, 74.1749, 27.5413, -32.7531, -221.156, 34.3262, 93.1892
2.068, 4, -36.6543, 51.257, -17.8929, -139.462, -74.2623, 171.381, 74.1749, 27.5413, -32.7531, -221.156, 34.3262, 93.1892
2.071, 4, -36.6543, 51.257, -17.8929, -139.462, -74.2623, 171.381, 74.1749, 27.5413, -32.7531, -221.156, 34.3262, 93.1892
2.076, 4, -36.6543, 51.257, -17.8929, -139.462, -74.2623, 171.381, 74.1749, 27.5413, -32.7531, -221.156, 34.3262, 93.1892
2.08, 4, -36.6543, 51.257, -17.8929, -139.462, -74.2623, 171.381, 74.1749, 27.5413, -32.7531, -221.156, 34.3262, 93.1892
2.084, 4, -36.6543, 51.257, -17.8929, -139.462, -74.2623, 171.381, 74.1749, 27.5413, -32.7531, -221.156, 34.3262, 93.1892
2.087, 4, -36.6543, 51.257, -17.8929, -139.462, -74.2623, 171.381, 74.1749, 27.5413, -32.7531, -221.156, 34.3262, 93.1892
2.092, 4, -36.6543, 51.257, -17.8929, -139.462, -74.2623, 171.381, 74.1749, 27.5413, -32.7531, -221.156, 34.3262, 93.1892
2.096, 4, -36.6543, 51.257, -17.8929, -139.462, -74.2623, 171.381, 74.1749, 27.5413, -32.7531, -221.156, 34.3262, 93.1892
2.1, 4, -36.6543, 51.257, -17.8929, -139.462, -74.2623, 171.381, 74.1749, 27.5413, -32.7531, -221.156, 34.3262, 93.1892
2.104, 4, -36.6543, 51.257, -17.8929, -139.462, -74.2623, 171.381, 74.1749, 27.5413, -32.7531, -221.156, 34.3262, 93.1892
2.107, 4, -36.6543, 51.257, -17.8929, -139.462, -74.2623, 171.381, 74.1749, 27.5413, -32.7531, -221.156, 34.3262, 93.1892
2.111, 4, -36.6543, 51.257, -17.8929, -139.462, -74.2623, 171.381, 74.1749, 27.5413, -32.7531, -221.156, 34.3262, 93.1892
2.116, 4, -36.6543, 51.257, -17.8929, -139.462, -74.2623, 171.381, 74.1749, 27.5413, -32.7531, -221.156, 34.3262, 93.1892
2.12, 4, -36.6543, 51.257, -17.8929, -139.462, -74.2623, 171.381, 74.1749, 27.5413, -32.7531, -221.156, 34.3262, 93.1892
2.124, 4, -36.6543, 51.257, -17.8929, -139.462, -74.2623, 171.381, 74.1749, 27.5413, -32.7531, -221.156, 34.3262, 93.1892
2.127, 4, -36.6543, 51.257, -17.8929, -139.462, -74.2623, 171.381, 74.1749, 27.5413, -32.7531, -221.156, 34.3262, 93.1892
2.132, 4, -36.6543, 51.257, -17.8929, -139.462, -74.2623, 171.381, 74.1749, 27.5413, -32.7531, -221.156, 34.3262, 93.1892
2.136, 4, -36.6543, 51.257, -17.8929, -139.462, -74.2623, 171.381, 74.1749, 27.5413, -32.7531, -221.156, 34.3262, 93.1892
2.14, 4, -36.6543, 51.257, -17.8929, -139.462, -74.2623, 171.381, 74.1749, 27.5413, -32.7531, -221.156, 34.3262, 93.1892
2.143, 4, -36.6543, 51.257, -17.8929, -139.462, -74.2623, 171.381, 74.1749, 27.5413, -32.7531, -221.156, 34.3262, 93.1892
2.148, 4, -36.6543, 51.257, -17.8929, -139.462, -74.2623, 171.381, 74.1749, 27.5413, -32.7531, -221.156, 34.3262, 93.1892
2.152, 4, -36.6543, 51.257, -17.8929, -139.462, -74.2623, 171.381, 74.1749, 27.5413, -32.7531, -221.156, 34.3262, 93.1892
2.156, 4, -36.6543, 51.257, -17.8929, -139.462, -74.2623, 171.381, 74.1749, 27.5413, -32.7531, -221.156, 34.3262, 93.1892
2.16, 4, -36.6543, 51.257, -17.8929, -139.462, -74.2623, 171.381, 74.1749, 27.5413, -32.7531, -221.156, 34.3262, 93.1892
2.163, 4, -36.6543, 51.257, -17.8929, -139.462, -74.2623, 171.381, 74.1749, 27.5413, -32.7531, -221.156, 34.3262, 93.1892
2.168, 4, -36.6543, 51.257, -17.8929, -139.462, -74.2623, 171.381, 74.1749, 27.5413, -32.7531, -221.156, 34.3262, 93.1892
2.172, 4, -36.6543, 51.257, -17.8929, -139.462, -74.2623, 171.381, 74.1749, 27.5413, -32.7531, -221.156, 34.3262, 93.1892
2.176, 4, -36.6543, 51.257, -17.8929, -139.462, -74.2623, 171.381, 74.1749, 27.5413, -32.7531, -221.156, 34.3262, 93.1892
2.179, 4, -36.6543, 51.257, -17.8929, -139.462, -74.2623, 171.381, 74.1749, 27.5413, -32.7531, -221.156, 34.3262, 93.1892
2.184, 4, -36.6543, 51.257, -17.8929, -139.462, -74.2623, 171.381, 74.1749, 27.5413, -32.7531, -221.156, 34.3262, 93.1892
2.188, 4, -36.6543, 51.257, -17.8929, -139.462, -74.2623, 171.381, 74.1749, 27.5413, -32.7531, -221.156, 34.3262, 93.1892
2.196, 4, -36.6543, 51.257, -17.8929, -139.462, -74.2623, 171.381, 74.1749, 27.5413, -32.7531, -221.156, 34.3262, 93.1892
2.2, 4, -36.6543, 51.257, -17.8929, -139.462, -74.2623, 171.381, 74.1749, 27.5413, -32.7531, -221.156, 34.3262, 93.1892
2.204, 4, -36.6543, 51.257, -17.8929, -139.462, -74.2623, 171.381, 74.1749, 27.5413, -32.7531, -221.156, 34.3262, 93.1892
2.208, 4, -36.6543, 51.257, -17.8929, -139.462, -74.2623, 171.381, 74.1749, 27.5413, -32.7531, -221.156, 34.3262, 93.1892
2.212, 4, -36.6543, 51.257, -17.8929, -139.462, -74.2623, 171.381, 74.1749, 27.5413, -32.7531, -221.156, 34.3262, 93.1892
2.216, 4, -36.6543, 51.257, -17.8929, -139.462, -74.2623, 171.381, 74.1749, 27.5413, -32.7531, -221.156, 34.3262, 93.1892
2.22, 4, -36.6543, 51.257, -17.8929, -139.462, -74.2623, 171.381, 74.1749, 27.5413, -32.7531, -221.156, 34.3262, 93.1892
2.224, 4, -36.6543, 51.257, -17.8929, -139.462, -74.2623, 171.381, 74.1749, 27.5413, -32.7531, -221.156, 34.3262, 93.1892
2.228, 4, -36.6543, 51.257, -17.8929, -139.462, -74.2623, 171.381, 74.1749, 27.5413, -32.7531, -221.156, 34.3262, 93.1892
2.232, 4, -36.6543, 51.257, -17.8929, -139.462, -74.2623, 171.381, 74.1749, 27.5413, -32.7531, -221.156, 34.3262, 93.1892
2.236, 4, -36.6543, 51.257, -17.8929, -139.462, -74.2623, 171.381, 74.1749, 27.5413, -32.7531, -221.156, 34.3262, 93.1892
2.24, 4, -36.6543, 51.257, -17.8929, -139.462, -74.2623, 171.381, 74.1749, 27.5413, -32.7531, -221.156, 34.3262, 93.1892
2.244, 4, -36.6543, 51.257, -17.8929, -139.462, -74.2623, 171.381, 74.1749, 27.5413, -32.7531, -221.156, 34.3262, 93.1892
2.248, 4, -36.6543, 51.257, -17.8929, -139.462, -74.2623, 171.381, 74.1749, 27.5413, -32.7531, -221.156, 34.3262, 93.1892
2.254, 4, -36.6543, 51.257, -17.8929, -139.462, -74.2623, 171.381, 74.1749, 27.5413, -32.7531, -221.156, 34.3262, 93.1892
2.258, 4, -36.6543, 51.257, -17.8929, -139.462, -74.2623, 171.381, 74.1749, 27.5413, -32.7531, -221.156, 34.3262, 93.1892
2.261, 4, -36.6543, 51.257, -17.8929, -139.462, -74.2623, 171.381, 74.1749, 27.5413, -32.7531, -221.156, 34.3262, 93.1892
2.265, 4, -36.6543, 51.257, -17.8929, -139.462, -74.2623, 171.381, 74.1749, 27.5413, -32.7531, -221.156, 34.3262, 93.1892
2.269, 4, -36.6543, 51.257, -17.8929, -139.462, -74.2623, 171.381, 74.1749, 27.5413, -32.7531, -221.156, 34.3262, 93.1892
2.273, 4, -36.6543, 51.257, -17.8929, -139.462, -74.2623, 171.381, 74.1749, 27.5413, -32.7531, -221.156, 34.3262, 93.1892
2.277, 4, -36.6543, 51.257, -17.8929, -139.462, -74.2623, 171.381, 74.1749, 27.5413, -32.7531, -221.156, 34.3262, 93.1892
2.281, 4, -36.6543, 51.257, -17.8929, -139.462, -74.2623, 171.381, 74.1749, 27.5413, -32.7531, -221.156, 34.3262, 93.1892
2.285, 4, -36.6543, 51.257, -17.8929, -139.462, -74.2623, 171.381, 74.1749, 27.5413, -32.7531, -221.156, 34.3262, 93.1892
2.289, 4, -36.6543, 51.257, -17.8929, -139.462, -74.2623, 171.381, 74.1749, 27.5413, -32.7531, -221.156, 34.3262, 93.1892
2.293, 4, -36.6543, 51.257, -17.8929, -139.462, -74.2623, 171.381, 74.1749, 27.5413, -32.7531, -221.156, 34.3262, 93.1892
2.297, 4, -36.6543, 51.257, -17.8929, -139.462, -74.2623, 171.381, 74.1749, 27.5413, -32.7531, -221.156, 34.3262, 93.1892
2.301, 4, -36.6543, 51.257, -17.8929, -139.462, -74.2623, 171.381, 74.1749, 27.5413, -32.7531, -221.156, 34.3262, 93.1892
2.305, 4, -36.6543, 51.257, -17.8929, -139.462, -74.2623, 171.381, 74.1749, 27.5413, -32.7531, -221.156, 34.3262, 93.1892
2.309, 4, -36.6543, 51.257, -17.8929, -139.462, -74.2623, 171.381, 74.1749, 27.5413, -32.7531, -221.156, 34.3262, 93.1892
2.313, 4, -36.6543, 51.257, -17.8929, -139.462, -74.2623, 171.381, 74.1749, 27.5413, -32.7531, -221.156, 34.3262, 93.1892
2.317, 4, -36.6543, 51.257, -17.8929, -139.462, -74.2623, 171.381, 74.1749, 27.5413, -32.7531, -221.156, 34.3262, 93.1892
2.321, 4, -36.6543, 51.257, -17.8929, -139.462, -74.2623, 171.381, 74.1749, 27.5413, -32.7531, -221.156, 34.3262, 93.1892
2.325, 4, -36.6543, 51.257, -17.8929, -139.462, -74.2623, 171.381, 74.1749, 27.5413, -32.7531, -221.156, 34.3262, 93.1892
2.329, 4, -36.6543, 51.257, -17.8929, -139.462, -74.2623, 171.381, 74.1749, 27.5413, -32.7531, -221.156, 34.3262, 93.1892
2.333, 4, -36.6543, 51.257, -17.8929, -139.462, -74.2623, 171.381, 74.1749, 27.5413, -32.7531, -221.156, 34.3262, 93.1892
2.337, 4, -36.6543, 51.257, -17.8929, -139.462, -74.2623, 171.381, 74.1749, 27.5413, -32.7531, -221.156, 34.3262, 93.1892
2.341, 4, -36.6543, 51.257, -17.8929, -139.462, -74.2623, 171.381, 74.1749, 27.5413, -32.7531, -221.156, 34.3262, 93.1892
2.345, 4, -36.6543, 51.257, -17.8929, -139.462, -74.2623, 171.381, 74.1749, 27.5413, -32.7531, -221.156, 34.3262, 93.1892
2.349, 4, -36.6543, 51.257, -17.8929, -139.462, -74.2623, 171.381, 74.1749, 27.5413, -32.7531, -221.156, 34.3262, 93.1892
2.353, 4, -36.6543, 51.257, -17.8929, -139.462, -74.2623, 171.381, 74.1749, 27.5413, -32.7531, -221.156, 34.3262, 93.1892
2.357, 4, -36.6543, 51.257, -17.8929, -139.462, -74.2623, 171.381, 74.1749, 27.5413, -32.7531, -221.156, 34.3262, 93.1892
2.361, 4, -36.6543, 51.257, -17.8929, -139.462, -74.2623, 171.381, 74.1749, 27.5413, -32.7531, -221.156, 34.3262, 93.1892
2.365, 4, -36.6543, 51.257, -17.8929, -139.462, -74.2623, 171.381, 74.1749, 27.5413, -32.7531, -221.156, 34.3262, 93.1892
2.369, 4, -36.6543, 51.257, -17.8929, -139.462, -74.2623, 171.381, 74.1749, 27.5413, -32.7531, -221.156, 34.3262, 93.1892
2.373, 4, -36.6543, 51.257, -17.8929, -139.462, -74.2623, 171.381, 74.1749, 27.5413, -32.7531, -221.156, 34.3262, 93.1892
2.377, 4, -36.6543, 51.257, -17.8929, -139.462, -74.2623, 171.381, 74.1749, 27.5413, -32.7531, -221.156, 34.3262, 93.1892
2.381, 4, -36.6543, 51.257, -17.8929, -139.462, -74.2623, 171.381, 74.1749, 27.5413, -32.7531, -221.156, 34.3262, 93.1892
2.385, 4, -36.6543, 51.257, -17.8929, -139.462, -74.2623, 171.381, 74.1749, 27.5413, -32.7531, -221.156, 34.3262, 93.1892
2.389, 4, -36.6543, 51.257, -17.8929, -139.462, -74.2623, 171.381, 74.1749, 27.5413, -32.7531, -221.156, 34.3262, 93.1892
2.393, 4, -36.6543, 51.257, -17.8929, -139.462, -74.2623, 171.381, 74.1749, 27.5413, -32.7531, -221.156, 34.3262, 93.1892
2.397, 4, -36.6543, 51.257, -17.8929, -139.462, -74.2623, 171.381, 74.1749, 27.5413, -32.7531, -221.156, 34.3262, 93.1892
2.401, 4, -36.6543, 51.257, -17.8929, -139.462, -74.2623, 171.381, 74.1749, 27.5413, -32.7531, -221.156, 34.3262, 93.1892
2.405, 4, -36.6543, 51.257, -17.8929, -139.462, -74.2623, 171.381, 74.1749, 27.5413, -32.7531, -221.156, 34.3262, 93.1892
2.409, 4, -36.6543, 51.257, -17.8929, -139.462, -74.2623, 171.381, 74.1749, 27.5413, -32.7531, -221.156, 34.3262, 93.1892
2.413, 4, -36.6543, 51.257, -17.8929, -139.462, -74.2623, 171.381, 74.1749, 27.5413, -32.7531, -221.156, 34.3262, 93.1892
2.417, 4, -36.6543, 51.257, -17.8929, -139.462, -74.2623, 171.381, 74.1749, 27.5413, -32.7531, -221.156, 34.3262, 93.1892
2.42, 4, -36.6543, 51.257, -17.8929, -139.462, -74.2623, 171.381, 74.1749, 27.5413, -32.7531, -221.156, 34.3262, 93.1892
2.424, 4, -36.6543, 51.257, -17.8929, -139.462, -74.2623, 171.381, 74.1749, 27.5413, -32.7531, -221.156, 34.3262, 93.1892
2.428, 4, -36.6543, 51.257, -17.8929, -139.462, -74.2623, 171.381, 74.1749, 27.5413, -32.7531, -221.156, 34.3262, 93.1892
2.434, 4, -36.6543, 51.257, -17.8929, -139.462, -74.2623, 171.381, 74.1749, 27.5413, -32.7531, -221.156, 34.3262, 93.1892
2.438, 4, -36.6543, 51.257, -17.8929, -139.462, -74.2623, 171.381, 74.1749, 27.5413, -32.7531, -221.156, 34.3262, 93.1892
2.442, 4, -36.6543, 51.257, -17.8929, -139.462, -74.2623, 171.381, 74.1749, 27.5413, -32.7531, -221.156, 34.3262, 93.1892
2.445, 4, -36.6543, 51.257, -17.8929, -139.462, -74.2623, 171.381, 74.1749, 27.5413, -32.7531, -221.156, 34.3262, 93.1892
2.449, 4, -36.6543, 51.257, -17.8929, -139.462, -74.2623, 171.381, 74.1749, 27.5413, -32.7531, -221.156, 34.3262, 93.1892
2.453, 4, -36.6543, 51.257, -17.8929, -139.462, -74.2623, 171.381, 74.1749, 27.5413, -32.7531, -221.156, 34.3262, 93.1892
2.457, 4, -36.6543, 51.257, -17.8929, -139.462, -74.2623, 171.381, 74.1749, 27.5413, -32.7531, -221.156, 34.3262, 93.1892
2.461, 4, -36.6543, 51.257, -17.8929, -139.462, -74.2623, 171.381, 74.1749, 27.5413, -32.7531, -221.156, 34.3262, 93.1892
2.465, 4, -36.6543, 51.257, -17.8929, -139.462, -74.2623, 171.381, 74.1749, 27.5413, -32.7531, -221.156, 34.3262, 93.1892
2.469, 4, -36.6543, 51.257, -17.8929, -139.462, -74.2623, 171.381, 74.175, 27.5414, -32.7531, -221.156, 34.3262, 93.1892
2.473, 4, -36.6543, 51.257, -17.8929, -139.462, -74.2623, 171.381, 74.1762, 27.5419, -32.7533, -221.156, 34.3262, 93.1892
2.477, 4, -36.6543, 51.257, -17.8929, -139.462, -74.2623, 171.381, 74.1798, 27.5437, -32.7536, -221.156, 34.3263, 93.1891
2.481, 4, -36.6543, 51.257, -17.8929, -139.462, -74.2623, 171.381, 74.188, 27.5475, -32.7543, -221.156, 34.3266, 93.189
2.482, 4, -36.6543, 51.257, -17.8929, -139.462, -74.2623, 171.381, 74.2027, 27.5542, -32.7547, -221.156, 34.3274, 93.1887
2.485, 4, -36.6543, 51.257, -17.8929, -139.462, -74.2623, 171.381, 74.2027, 27.5542, -32.7547, -221.156, 34.3274, 93.1887
2.488, 4, -36.6543, 51.257, -17.8929, -139.462, -74.2623, 171.381, 74.2258, 27.5644, -32.7543, -221.155, 34.3291, 93.1881
2.492, 4, -36.6543, 51.257, -17.8929, -139.462, -74.2623, 171.381, 74.2592, 27.5784, -32.7516, -221.153, 34.3323, 93.1868
2.495, 4, -36.6543, 51.257, -17.8929, -139.462, -74.2623, 171.381, 74.3047, 27.5967, -32.7451, -221.15, 34.3378, 93.1847
2.5, 4, -36.6543, 51.257, -17.8929, -139.462, -74.2623, 171.381, 74.3638, 27.6193, -32.7326, -221.145, 34.3464, 93.1813
2.504, 4, -36.6543, 51.257, -17.8929, -139.462, -74.2623, 171.381, 74.4381, 27.6463, -32.7121, -221.136, 34.359, 93.1763
2.508, 4, -36.6543, 51.257, -17.8929, -139.462, -74.2623, 171.381, 74.5303, 27.6785, -32.6815, -221.123, 34.3765, 93.1693
2.512, 4, -36.6543, 51.257, -17.8929, -139.462, -74.2623, 171.381, 74.6432, 27.7168, -32.6392, -221.106, 34.3999, 93.1599
2.515, 4, -36.6543, 51.257, -17.8929, -139.462, -74.2623, 171.381, 74.7801, 27.7627, -32.5837, -221.083, 34.43, 93.1478
2.52, 4, -36.6543, 51.257, -17.8929, -139.462, -74.2623, 171.381, 74.9438, 27.8171, -32.5139, -221.054, 34.4674, 93.1327
2.524, 4, -36.6543, 51.257, -17.8929, -139.462, -74.2623, 171.381, 75.136, 27.881, -32.4287, -221.018, 34.5129, 93.1142
2.528, 4, -36.6543, 51.257, -17.8929, -139.462, -74.2623, 171.381, 75.3577, 27.9552, -32.3277, -220.974, 34.5668, 93.0923
2.531, 4, -36.6543, 51.257, -17.8929, -139.462, -74.2623, 171.381, 75.6081, 28.04, -32.2108, -220.922, 34.6294, 93.0667
2.536, 4, -36.6543, 51.257, -17.8929, -139.462, -74.2623, 171.381, 75.8839, 28.1346, -32.0782, -220.862, 34.7007, 93.0375
2.54, 4, -36.6543, 51.257, -17.8929, -139.462, -74.2623, 171.381, 76.1803, 28.2372, -31.9308, -220.792, 34.7803, 93.0049
2.544, 4, -36.6543, 51.257, -17.8929, -139.462, -74.2623, 171.381, 76.4925, 28.3467, -31.7709, -220.714, 34.8671, 92.9692
2.548, 4, -36.6543, 51.257, -17.8929, -139.462, -74.2623, 171.381, 76.8164, 28.4624, -31.6019, -220.628, 34.9598, 92.9313
2.551, 4, -36.6543, 51.257, -17.8929, -139.462, -74.2623, 171.381, 77.1476, 28.5839, -31.4281, -220.537, 35.0565, 92.8918
2.556, 4, -36.6543, 51.257, -17.8929, -139.462, -74.2623, 171.381, 77.4826, 28.7107, -31.2545, -220.441, 35.1552, 92.8518
2.56, 4, -36.6543, 51.257, -17.8929, -139.462, -74.2623, 171.381, 77.8204, 28.8437, -31.0867, -220.343, 35.2535, 92.8124
2.564, 4, -36.6543, 51.257, -17.8929, -139.462, -74.2623, 171.381, 78.1622, 28.9843, -30.9303, -220.247, 35.3493, 92.7743
2.568, 4, -36.6543, 51.257, -17.8929, -139.462, -74.2623, 171.381, 78.509, 29.1331, -30.79, -220.153, 35.441, 92.7386
2.571, 4, -36.6543, 51.257, -17.8929, -139.462, -74.2623, 171.381, 78.8593, 29.2884, -30.6687, -220.065, 35.5277, 92.7055
2.576, 4, -36.6543, 51.257, -17.8929, -139.462, -74.2623, 171.381, 79.2112, 29.4479, -30.5678, -219.982, 35.6097, 92.6752
2.58, 5, -36.6543, 51.257, -17.8929, -139.462, -74.2623, 171.381, 79.5632, 29.6088, -30.4872, -219.906, 35.6881, 92.6474
2.584, 5, -36.6543, 51.257, -17.8929, -139.462, -74.2623, 171.381, 79.9135, 29.7679, -30.4261, -219.836, 35.7652, 92.6213
2.587, 5, -36.6543, 51.257, -17.8929, -139.462, -74.2623, 171.381, 80.2592, 29.9218, -30.3826, -219.772, 35.8443, 92.5959
2.592, 6, -36.6543, 51.257, -17.8929, -139.462, -74.2623, 171.381, 80.5974, 30.0674, -30.3545, -219.714, 35.9289, 92.5702
2.596, 6, -36.6543, 51.257, -17.8929, -139.462, -74.2623, 171.381, 80.9264, 30.2029, -30.3398, -219.66, 36.0231, 92.5428
2.6, 6, -36.6543, 51.257, -17.8929, -139.462, -74.2623, 171.381, 81.2465, 30.3275, -30.3371, -219.61, 36.1305, 92.5127
2.604, 7, -36.6543, 51.257, -17.8929, -139.462, -74.2623, 171.381, 81.5596, 30.4407, -30.3458, -219.563, 36.2543, 92.4789
2.607, 7, -36.6543, 51.257, -17.8929, -139.462, -74.2623, 171.381, 81.8676, 30.542, -30.3658, -219.519, 36.3971, 92.4406
2.612, 7, -36.6543, 51.257, -17.8929, -139.462, -74.2623, 171.381, 82.173, 30.6316, -30.3971, -219.477, 36.5607, 92.3975
2.616, 7, -36.6543, 51.257, -17.8929, -139.462, -74.2623, 171.381, 82.4795, 30.7102, -30.4405, -219.439, 36.7461, 92.3492
2.62, 8, -36.6543, 51.257, -17.8929, -139.462, -74.2623, 171.381, 82.7916, 30.7786, -30.4971, -219.403, 36.9541, 92.2957
2.626, 8, -36.6543, 51.257, -17.8929, -139.462, -74.2623, 171.381, 83.1135, 30.8374, -30.5678, -219.371, 37.1851, 92.2369
2.633, 9, -36.6543, 51.257, -17.8929, -139.462, -74.2623, 171.381, 83.7971, 30.9285, -30.7548, -219.316, 37.7177, 92.1035
2.638, 9, -36.6543, 51.257, -17.8929, -139.462, -74.2623, 171.381, 84.1628, 30.9611, -30.872, -219.295, 38.0212, 92.0288
2.642, 9, -36.6543, 51.257, -17.8929, -139.462, -74.2623, 171.381, 84.5469, 30.9854, -31.0056, -219.278, 38.3514, 91.9483
2.646, 10, -36.6543, 51.257, -17.8929, -139.462, -74.2623, 171.381, 84.9502, 31.0016, -31.1557, -219.264, 38.7104, 91.8618
2.649, 10, -36.6543, 51.257, -17.8929, -139.462, -74.2623, 171.381, 85.3724, 31.0107, -31.3219, -219.255, 39.1003, 91.7689
2.654, 11, -36.6543, 51.257, -17.8929, -139.462, -74.2623, 171.381, 85.8115, 31.0139, -31.5034, -219.249, 39.523, 91.6693
2.657, 11, -36.6543, 51.257, -17.8929, -139.462, -74.2623, 171.381, 86.2634, 31.0134, -31.6985, -219.247, 39.9794, 91.5628
2.661, 11, -36.6543, 51.257, -17.8929, -139.462, -74.2623, 171.381, 86.7224, 31.0113, -31.9045, -219.248, 40.4689, 91.4497
2.665, 12, -36.6543, 51.257, -17.8929, -139.462, -74.2623, 171.381, 87.1825, 31.0094, -32.118, -219.252, 40.9882, 91.3306
2.669, 12, -36.6543, 51.257, -17.8929, -139.462, -74.2623, 171.381, 87.6393, 31.0089, -32.3358, -219.259, 41.5312, 91.2069
2.672, 12, -36.6543, 51.257, -17.8929, -139.462, -74.2623, 171.381, 88.0895, 31.0106, -32.5543, -219.267, 42.0889, 91.0804
2.678, 13, -36.6543, 51.257, -17.8929, -139.462, -74.2623, 171.381, 88.5315, 31.0148, -32.7701, -219.276, 42.6502, 90.9532
2.682, 13, -36.6543, 51.257, -17.8929, -139.462, -74.2623, 171.381, 88.966, 31.0208, -32.9802, -219.285, 43.2027, 90.8278
2.685, 13, -36.6543, 51.257, -17.8929, -139.462, -74.2623, 171.381, 89.3947, 31.028, -33.1822, -219.294, 43.7339, 90.7064
2.689, 14, -36.6543, 51.257, -17.8929, -139.462, -74.2623, 171.381, 89.8175, 31.0362, -33.3739, -219.301, 44.2332, 90.5907
2.693, 14, -36.6543, 51.257, -17.8929, -139.462, -74.2623, 171.381, 90.2324, 31.0467, -33.5531, -219.308, 44.6923, 90.4821
2.697, 14, -36.6543, 51.257, -17.8929, -139.462, -74.2623, 171.381, 90.6373, 31.0614, -33.7181, -219.312, 45.106, 90.381
2.701, 14, -36.6543, 51.257, -17.8929, -139.462, -74.2623, 171.381, 91.0285, 31.0823, -33.8674, -219.314, 45.4723, 90.2872
2.705, 15, -36.6543, 51.257, -17.8929, -139.462, -74.2623, 171.381, 91.4002, 31.1106, -33.9994, -219.313, 45.7916, 90.2
2.709, 15, -36.6543, 51.257, -17.8929, -139.462, -74.2623, 171.381, 91.7478, 31.1469, -34.1129, -219.309, 46.0662, 90.1181
2.713, 15, -36.6543, 51.257, -17.8929, -139.462, -74.2623, 171.381, 92.069, 31.1928, -34.2073, -219.303, 46.2991, 90.0402
2.717, 15, -36.6543, 51.257, -17.8929, -139.462, -74.2623, 171.381, 92.3615, 31.2487, -34.282, -219.292, 46.4934, 89.9648
2.721, 16, -36.6543, 51.257, -17.8929, -139.462, -74.2623, 171.381, 92.6228, 31.3131, -34.336, -219.278, 46.6516, 89.8904
2.725, 16, -36.6543, 51.257, -17.8929, -139.462, -74.2623, 171.381, 92.853, 31.3837, -34.3694, -219.26, 46.7753, 89.8159
2.729, 16, -36.6543, 51.257, -17.8929, -139.462, -74.2623, 171.381, 93.0556, 31.4594, -34.3832, -219.238, 46.8653, 89.7407
2.733, 16, -36.6543, 51.257, -17.8929, -139.462, -74.2623, 171.381, 93.2338, 31.54, -34.3785, -219.212, 46.9215, 89.6645
2.737, 17, -36.6543, 51.257, -17.8929, -139.462, -74.2623, 171.381, 93.3891, 31.6246, -34.356, -219.182, 46.9441, 89.5876
2.741, 17, -36.6543, 51.257, -17.8929, -139.462, -74.2623, 171.381, 93.5243, 31.7128, -34.3173, -219.149, 46.9332, 89.5105
2.745, 17, -36.6543, 51.257, -17.8929, -139.462, -74.2623, 171.381, 93.6426, 31.8062, -34.2642, -219.114, 46.8895, 89.4339
2.749, 17, -36.6543, 51.257, -17.8929, -139.462, -74.2623, 171.381, 93.7455, 31.9077, -34.198, -219.077, 46.8136, 89.3586
2.753, 17, -36.6543, 51.257, -17.8929, -139.462, -74.2623, 171.381, 93.8321, 32.0194, -34.119, -219.038, 46.7063, 89.285
2.757, 17, -36.6543, 51.257, -17.8929, -139.462, -74.2623, 171.381, 93.9012, 32.1426, -34.0268, -218.999, 46.5682, 89.2132
2.761, 18, -36.6543, 51.257, -17.8929, -139.462, -74.2623, 171.381, 93.9524, 32.2771, -33.9209, -218.957, 46.3991, 89.1429
2.765, 18, -36.6543, 51.257, -17.8929, -139.462, -74.2623, 171.381, 93.9849, 32.4211, -33.8001, -218.914, 46.1982, 89.0735
2.769, 18, -36.6543, 51.257, -17.8929, -139.462, -74.2623, 171.381, 93.9976, 32.5715, -33.6632, -218.869, 45.9639, 89.0042
2.773, 18, -36.6543, 51.257, -17.8929, -139.462, -74.2623, 171.381, 93.9909, 32.7258, -33.5092, -218.82, 45.6949, 88.9343
2.777, 18, -36.6543, 51.257, -17.8929, -139.462, -74.2623, 171.381, 93.9667, 32.8827, -33.3377, -218.768, 45.3902, 88.8636
2.779, 19, -36.6543, 51.257, -17.8929, -139.462, -74.2623, 171.381, 93.9276, 33.0413, -33.1494, -218.714, 45.0496, 88.7921
2.782, 19, -36.6543, 51.257, -17.8929, -139.462, -74.2623, 171.381, 93.8759, 33.2017, -32.9456, -218.656, 44.674, 88.7199
2.784, 19, -36.6543, 51.257, -17.8929, -139.462, -74.2623, 171.381, 93.8759, 33.2017, -32.9456, -218.656, 44.674, 88.7199
2.79, 19, -36.6543, 51.257, -17.8929, -139.462, -74.2623, 171.381, 93.8133, 33.3649, -32.7277, -218.596, 44.266, 88.6479
2.797, 19, -36.6543, 51.257, -17.8929, -139.462, -74.2623, 171.381, 93.6606, 33.7048, -32.2578, -218.473, 43.3678, 88.5069
2.798, 19, -36.6543, 51.257, -17.8929, -139.462, -74.2623, 171.381, 93.5728, 33.8814, -32.0104, -218.41, 42.887, 88.4394
2.8, 19, -36.6543, 51.257, -17.8929, -139.462, -74.2623, 171.381, 93.5728, 33.8814, -32.0104, -218.41, 42.887, 88.4394
2.804, 19, -36.6543, 51.257, -17.8929, -139.462, -74.2623, 171.381, 93.4786, 34.0611, -31.758, -218.348, 42.392, 88.3747
2.808, 20, -36.6543, 51.257, -17.8929, -139.462, -74.2623, 171.381, 93.3787, 34.2425, -31.5023, -218.287, 41.8878, 88.3131
2.811, 20, -36.6543, 51.257, -17.8929, -139.462, -74.2623, 171.381, 93.2742, 34.4237, -31.2454, -218.227, 41.3792, 88.2549
2.816, 20, -36.6543, 51.257, -17.8929, -139.462, -74.2623, 171.381, 93.1669, 34.6027, -30.989, -218.17, 40.8708, 88.2003
2.82, 20, -36.6543, 51.257, -17.8929, -139.462, -74.2623, 171.381, 93.0587, 34.7778, -30.735, -218.114, 40.3668, 88.1492
2.824, 20, -36.6543, 51.257, -17.8929, -139.462, -74.2623, 171.381, 92.9508, 34.9476, -30.4849, -218.062, 39.8712, 88.1016
2.828, 20, -36.6543, 51.257, -17.8929, -139.462, -74.2623, 171.381, 92.8445, 35.1111, -30.2403, -218.012, 39.3879, 88.0575
2.831, 20, -36.6543, 51.257, -17.8929, -139.462, -74.2623, 171.381, 92.7411, 35.2676, -30.0033, -217.966, 38.9209, 88.0169
2.836, 20, -36.6543, 51.257, -17.8929, -139.462, -74.2623, 171.381, 92.6418, 35.4171, -29.7764, -217.923, 38.4739, 87.9798
2.84, 20, -36.6543, 51.257, -17.8929, -139.462, -74.2623, 171.381, 92.5476, 35.5592, -29.5616, -217.883, 38.0504, 87.9463
2.844, 20, -36.6543, 51.257, -17.8929, -139.462, -74.2623, 171.381, 92.4586, 35.6939, -29.3612, -217.846, 37.6536, 87.9161
2.847, 20, -36.6543, 51.257, -17.8929, -139.462, -74.2623, 171.381, 92.3752, 35.8208, -29.1767, -217.813, 37.2858, 87.8894
2.852, 20, -36.6543, 51.257, -17.8929, -139.462, -74.2623, 171.381, 92.2976, 35.9395, -29.0093, -217.784, 36.9487, 87.8659
2.856, 20, -36.6543, 51.257, -17.8929, -139.462, -74.2623, 171.381, 92.2258, 36.0499, -28.8596, -217.757, 36.6432, 87.8455
2.86, 20, -36.6543, 51.257, -17.8929, -139.462, -74.2623, 171.381, 92.16, 36.1521, -28.7272, -217.734, 36.3693, 87.8278
2.864, 20, -36.6543, 51.257, -17.8929, -139.462, -74.2623, 171.381, 92.1005, 36.2459, -28.6117, -217.714, 36.1264, 87.8128
2.867, 20, -36.6543, 51.257, -17.8929, -139.462, -74.2623, 171.381, 92.047, 36.3314, -28.5118, -217.696, 35.9131, 87.7999
2.872, 20, -36.6543, 51.257, -17.8929, -139.462, -74.2623, 171.381, 91.9996, 36.4087, -28.4262, -217.68, 35.7278, 87.7891
2.876, 20, -36.6543, 51.257, -17.8929, -139.462, -74.2623, 171.381, 91.958, 36.4777, -28.3534, -217.667, 35.5683, 87.7801
2.88, 20, -36.6543, 51.257, -17.8929, -139.462, -74.2623, 171.381, 91.9219, 36.5382, -28.2921, -217.656, 35.4326, 87.7726
2.883, 20, -36.6543, 51.257, -17.8929, -139.462, -74.2623, 171.381, 91.8912, 36.5903, -28.241, -217.647, 35.3184, 87.7664
2.888, 20, -36.6543, 51.257, -17.8929, -139.462, -74.2623, 171.381, 91.8655, 36.6342, -28.199, -217.639, 35.2235, 87.7614
2.892, 20, -36.6543, 51.257, -17.8929, -139.462, -74.2623, 171.381, 91.8442, 36.6708, -28.1649, -217.633, 35.1461, 87.7573
2.896, 20, -36.6543, 51.257, -17.8929, -139.462, -74.2623, 171.381, 91.8268, 36.7011, -28.1378, -217.628, 35.0844, 87.7541
2.9, 20, -36.6543, 51.257, -17.8929, -139.462, -74.2623, 171.381, 91.8126, 36.7261, -28.1165, -217.624, 35.0366, 87.7517
2.903, 21, -36.6543, 51.257, -17.8929, -139.462, -74.2623, 171.381, 91.8009, 36.7468, -28.1004, -217.622, 35.001, 87.7499
2.91, 21, -36.6543, 51.257, -17.8929, -139.462, -74.2623, 171.381, 91.7914, 36.764, -28.0883, -217.62, 34.9757, 87.7486
2.916, 21, -36.6543, 51.257, -17.8929, -139.462, -74.2623, 171.381, 91.7774, 36.7893, -28.0737, -217.617, 34.9479, 87.7473
2.916, 21, -36.6543, 51.257, -17.8929, -139.462, -74.2623, 171.381, 91.7774, 36.7893, -28.0737, -217.617, 34.9479, 87.7473
2.92, 21, -36.6543, 51.257, -17.8929, -139.462, -74.2623, 171.381, 91.7729, 36.7976, -28.0698, -217.617, 34.9418, 87.747
2.923, 21, -36.6543, 51.257, -17.8929, -139.462, -74.2623, 171.381, 91.7699, 36.8032, -28.0675, -217.617, 34.9385, 87.7469
2.928, 21, -36.6543, 51.257, -17.8929, -139.462, -74.2623, 171.381, 91.768, 36.8066, -28.0662, -217.617, 34.937, 87.7468
2.932, 21, -36.6543, 51.257, -17.8929, -139.462, -74.2623, 171.381, 91.767, 36.8085, -28.0656, -217.617, 34.9365, 87.7468
2.936, 21, -36.6543, 51.257, -17.8929, -139.462, -74.2623, 171.381, 91.7666, 36.8092, -28.0654, -217.617, 34.9363, 87.7468
2.939, 21, -36.6543, 51.257, -17.8929, -139.462, -74.2623, 171.381, 91.7665, 36.8094, -28.0653, -217.617, 34.9362, 87.7468
2.944, 21, -36.6543, 51.257, -17.8929, -139.462, -74.2623, 171.381, 91.7664, 36.8095, -28.0653, -217.617, 34.9362, 87.7468
2.948, 21, -36.6543, 51.257, -17.8929, -139.462, -74.2623, 171.381, 91.7661, 36.8101, -28.065, -217.617, 34.9361, 87.7468
2.952, 21, -36.6543, 51.257, -17.8929, -139.462, -74.2623, 171.381, 91.7652, 36.8119, -28.0642, -217.617, 34.9354, 87.7467
2.958, 21, -36.6543, 51.257, -17.8929, -139.462, -74.2623, 171.381, 91.7631, 36.8161, -28.0622, -217.616, 34.9336, 87.7467
2.963, 21, -36.6543, 51.257, -17.8929, -139.462, -74.2623, 171.381, 91.7536, 36.8346, -28.0503, -217.616, 34.9201, 87.7458
2.964, 21, -36.6543, 51.257, -17.8929, -139.462, -74.2623, 171.381, 91.7536, 36.8346, -28.0503, -217.616, 34.9201, 87.7458
2.968, 21, -36.6543, 51.257, -17.8929, -139.462, -74.2623, 171.381, 91.7452, 36.8504, -28.0377, -217.615, 34.9037, 87.7448
2.972, 21, -36.6543, 51.257, -17.8929, -139.462, -74.2623, 171.381, 91.7338, 36.8715, -28.0182, -217.613, 34.8765, 87.7431
2.976, 21, -36.6543, 51.257, -17.8929, -139.462, -74.2623, 171.381, 91.7192, 36.8979, -27.9898, -217.611, 34.8346, 87.7403
2.98, 21, -36.6543, 51.257, -17.8929, -139.462, -74.2623, 171.381, 91.7011, 36.93, -27.9506, -217.607, 34.7736, 87.7364
2.984, 21, -36.6543, 51.257, -17.8929, -139.462, -74.2623, 171.381, 91.6791, 36.9686, -27.8984, -217.602, 34.6896, 87.7309
2.988, 21, -36.6543, 51.257, -17.8929, -139.462, -74.2623, 171.381, 91.6525, 37.015, -27.8313, -217.595, 34.5786, 87.7238
2.992, 21, -36.6543, 51.257, -17.8929, -139.462, -74.2623, 171.381, 91.6205, 37.0708, -27.7476, -217.587, 34.4368, 87.7147
2.995, 21, -36.6543, 51.257, -17.8929, -139.462, -74.2623, 171.381, 91.5826, 37.1373, -27.6461, -217.577, 34.2609, 87.7037
3, 21, -36.6543, 51.257, -17.8929, -139.462, -74.2623, 171.381, 91.5383, 37.2158, -27.5259, -217.564, 34.048, 87.6907
3.004, 21, -36.6543, 51.257, -17.8929, -139.462, -74.2623, 171.381, 91.4876, 37.3071, -27.3868, -217.549, 33.7957, 87.6756
3.008, 21, -36.6543, 51.257, -17.8929, -139.462, -74.2623, 171.381, 91.4307, 37.4118, -27.2287, -217.532, 33.5021, 87.6586
3.012, 21, -36.6543, 51.257, -17.8929, -139.462, -74.2623, 171.381, 91.3685, 37.5302, -27.0523, -217.512, 33.166, 87.6398
3.015, 21, -36.6543, 51.257, -17.8929, -139.462, -74.2623, 171.381, 91.3019, 37.6623, -26.8579, -217.491, 32.7874, 87.6194
3.02, 22, -36.6543, 51.257, -17.8929, -139.462, -74.2623, 171.381, 91.2324, 37.8072, -26.6463, -217.468, 32.3667, 87.5975
3.024, 22, -36.6543, 51.257, -17.8929, -139.462, -74.2623, 171.381, 91.1609, 37.9636, -26.4181, -217.443, 31.9061, 87.5742
3.028, 22, -36.6543, 51.257, -17.8929, -139.462, -74.2623, 171.381, 91.0878, 38.1294, -26.1744, -217.417, 31.4087, 87.5497
3.031, 22, -36.6543, 51.257, -17.8929, -139.462, -74.2623, 171.381, 91.0136, 38.303, -25.9164, -217.39, 30.8793, 87.5241
3.036, 22, -36.6543, 51.257, -17.8929, -139.462, -74.2623, 171.381, 90.9389, 38.4824, -25.6463, -217.364, 30.3244, 87.4975
3.04, 22, -36.6543, 51.257, -17.8929, -139.462, -74.2623, 171.381, 90.8644, 38.6659, -25.367, -217.337, 29.7519, 87.4705
3.044, 22, -36.6543, 51.257, -17.8929, -139.462, -74.2623, 171.381, 90.7913, 38.8525, -25.0825, -217.312, 29.1708, 87.4433
3.048, 22, -36.6543, 51.257, -17.8929, -139.462, -74.2623, 171.381, 90.721, 39.0422, -24.797, -217.287, 28.5904, 87.4167
3.051, 23, -36.6543, 51.257, -17.8929, -139.462, -74.2623, 171.381, 90.6552, 39.2352, -24.5145, -217.264, 28.0199, 87.3912
3.056, 23, -36.6543, 51.257, -17.8929, -139.462, -74.2623, 171.381, 90.5948, 39.4303, -24.2386, -217.241, 27.4667, 87.3673
3.06, 23, -36.6543, 51.257, -17.8929, -139.462, -74.2623, 171.381, 90.5401, 39.6254, -23.9721, -217.219, 26.937, 87.3452
3.064, 23, -36.6543, 51.257, -17.8929, -139.462, -74.2623, 171.381, 90.4909, 39.8181, -23.7168, -217.198, 26.4346, 87.3253
3.068, 23, -36.6543, 51.257, -17.8929, -139.462, -74.2623, 171.381, 90.447, 40.0064, -23.4734, -217.176, 25.9616, 87.3075
3.071, 23, -36.6543, 51.257, -17.8929, -139.462, -74.2623, 171.381, 90.4087, 40.188, -23.2428, -217.155, 25.5192, 87.2917
3.076, 23, -36.6543, 51.257, -17.8929, -139.462, -74.2623, 171.381, 90.3773, 40.3614, -23.0257, -217.133, 25.1074, 87.2782
3.08, 23, -36.6543, 51.257, -17.8929, -139.462, -74.2623, 171.381, 90.354, 40.5255, -22.8226, -217.112, 24.7264, 87.2672
3.084, 24, -36.6543, 51.257, -17.8929, -139.462, -74.2623, 171.381, 90.3398, 40.6807, -22.6339, -217.091, 24.3761, 87.2589
3.087, 24, -36.6543, 51.257, -17.8929, -139.462, -74.2623, 171.381, 90.335, 40.8272, -22.4599, -217.069, 24.0565, 87.2534
3.092, 24, -36.6543, 51.257, -17.8929, -139.462, -74.2623, 171.381, 90.3384, 40.9648, -22.3001, -217.046, 23.7676, 87.251
3.096, 24, -36.6543, 51.257, -17.8929, -139.462, -74.2623, 171.381, 90.3482, 41.0931, -22.1538, -217.022, 23.5094, 87.2515
3.1, 24, -36.6543, 51.257, -17.8929, -139.462, -74.2623, 171.381, 90.3624, 41.2115, -22.02, -216.995, 23.2816, 87.2544
3.104, 24, -36.6543, 51.257, -17.8929, -139.462, -74.2623, 171.381, 90.3795, 41.3203, -21.898, -216.965, 23.0838, 87.2593
3.107, 24, -36.6543, 51.257, -17.8929, -139.462, -74.2623, 171.381, 90.3997, 41.4198, -21.7873, -216.932, 22.9151, 87.2655
3.112, 24, -36.6543, 51.257, -17.8929, -139.462, -74.2623, 171.381, 90.424, 41.5105, -21.6878, -216.896, 22.7749, 87.2728
3.116, 24, -36.6543, 51.257, -17.8929, -139.462, -74.2623, 171.381, 90.4538, 41.5925, -21.5999, -216.859, 22.6621, 87.281
3.12, 25, -36.6543, 51.257, -17.8929, -139.462, -74.2623, 171.381, 90.4904, 41.6663, -21.524, -216.82, 22.5752, 87.2906
3.124, 25, -36.6543, 51.257, -17.8929, -139.462, -74.2623, 171.381, 90.5349, 41.7323, -21.4609, -216.781, 22.513, 87.3023
3.128, 25, -36.6543, 51.257, -17.8929, -139.462, -74.2623, 171.381, 90.5874, 41.7909, -21.4108, -216.742, 22.474, 87.3172
3.132, 25, -36.6543, 51.257, -17.8929, -139.462, -74.2623, 171.381, 90.6469, 41.8419, -21.3735, -216.703, 22.4576, 87.3366
3.136, 25, -36.6543, 51.257, -17.8929, -139.462, -74.2623, 171.381, 90.7123, 41.8851, -21.3487, -216.664, 22.4635, 87.3614
3.14, 25, -36.6543, 51.257, -17.8929, -139.462, -74.2623, 171.381, 90.783, 41.9209, -21.336, -216.624, 22.4926, 87.392
3.143, 25, -36.6543, 51.257, -17.8929, -139.462, -74.2623, 171.381, 90.8583, 41.9493, -21.3347, -216.582, 22.5461, 87.4285
3.148, 25, -36.6543, 51.257, -17.8929, -139.462, -74.2623, 171.381, 90.9368, 41.9701, -21.3439, -216.537, 22.6258, 87.4706
3.152, 26, -36.6543, 51.257, -17.8929, -139.462, -74.2623, 171.381, 91.0175, 41.9825, -21.3627, -216.486, 22.733, 87.5175
3.156, 26, -36.6543, 51.257, -17.8929, -139.462, -74.2623, 171.381, 91.1008, 41.9864, -21.3909, -216.431, 22.8684, 87.5686
3.16, 26, -36.6543, 51.257, -17.8929, -139.462, -74.2623, 171.381, 91.1879, 41.9815, -21.4287, -216.371, 23.0318, 87.6234
3.163, 26, -36.6543, 51.257, -17.8929, -139.462, -74.2623, 171.381, 91.2799, 41.9685, -21.4763, -216.308, 23.2223, 87.6816
3.168, 26, -36.6543, 51.257, -17.8929, -139.462, -74.2623, 171.381, 91.378, 41.9482, -21.5346, -216.242, 23.4384, 87.7433
3.172, 26, -36.6543, 51.257, -17.8929, -139.462, -74.2623, 171.381, 91.4837, 41.9217, -21.6043, -216.175, 23.6789, 87.8085
3.176, 26, -36.6543, 51.257, -17.8929, -139.462, -74.2623, 171.381, 91.598, 41.8899, -21.6862, -216.108, 23.9428, 87.8773
3.179, 26, -36.6543, 51.257, -17.8929, -139.462, -74.2623, 171.381, 91.7206, 41.8532, -21.7808, -216.039, 24.2296, 87.9496
3.184, 26, -36.6543, 51.257, -17.8929, -139.462, -74.2623, 171.381, 91.8491, 41.8112, -21.8876, -215.969, 24.5394, 88.0253
3.188, 26, -36.6543, 51.257, -17.8929, -139.462, -74.2623, 171.381, 91.9806, 41.763, -22.0055, -215.896, 24.8722, 88.1045
3.192, 27, -36.6543, 51.257, -17.8929, -139.462, -74.2623, 171.381, 92.1128, 41.7073, -22.1332, -215.819, 25.228, 88.1873
3.196, 27, -36.6543, 51.257, -17.8929, -139.462, -74.2623, 171.381, 92.2451, 41.6436, -22.2696, -215.738, 25.6062, 88.2736
3.199, 27, -36.6543, 51.257, -17.8929, -139.462, -74.2623, 171.381, 92.3782, 41.5714, -22.4136, -215.652, 26.0056, 88.3633
3.204, 27, -36.6543, 51.257, -17.8929, -139.462, -74.2623, 171.381, 92.5136, 41.4909, -22.5642, -215.563, 26.4249, 88.4567
3.208, 27, -36.6543, 51.257, -17.8929, -139.462, -74.2623, 171.381, 92.6535, 41.4033, -22.721, -215.47, 26.8629, 88.5535
3.212, 27, -36.6543, 51.257, -17.8929, -139.462, -74.2623, 171.381, 92.7999, 41.3108, -22.8838, -215.375, 27.3184, 88.6537
3.216, 27, -36.6543, 51.257, -17.8929, -139.462, -74.2623, 171.381, 92.9528, 41.2156, -23.0527, -215.278, 27.7902, 88.7573
