hehonglu123/Motion-Primitive-Planning/simulation/robotstudio_sim/multimove/recorded_data/curve_exe_v1500_z100.csv
timestamp, cmd_num, J1, J2, J3, J4, J5, J6, J1_2, J2_2, J3_2, J4_2, J5_2, J6_2
0.002, -1, 0, 0, 0, 0, 30, 0, 0, 0, 0, 0, 30, 0
0.006, -1, 0, 0, 0, 0, 30, 0, 0, 0, 0, 0, 30, 0
0.01, -1, 0, 0, 0, 0, 30, 0, 0, 0, 0, 0, 30, 0
0.011, -1, 0, 0, 0, 0, 30, 0, 0, 0, 0, 0, 30, 0
0.013, -1, 0, 0, 0, 0, 30, 0, 0, 0, 0, 0, 30, 0
0.016, -1, 0, 0, 0, 0, 30, 0, 0, 0, 0, 0, 30, 0
0.02, -1, 0, 0, 0, 0, 30, 0, 0, 0, 0, 0, 30, 0
0.024, -1, 0, 0, 0, 0, 30, 0, 0, 0, 0, 0, 30, 0
0.028, -1, 0, 0, 0, 0, 30, 0, 0, 0, 0, 0, 30, 0
0.032, -1, 0, 0, 0, 0, 30, 0, 0, 0, 0, 0, 30, 0
0.036, -1, 0, 0, 0, 0, 30, 0, 0, 0, 0, 0, 30, 0
0.04, -1, -2.21017E-5, 6.94744E-6, 1.10318E-6, -4.88803E-6, 30, 4.34585E-6, 0, 0, 0, 0, 30, 0
0.044, -1, -0.00014988, 4.69872E-5, 8.78916E-6, -4.68865E-5, 30, 4.67243E-5, 0, 0, 0, 0, 30, 0
0.048, -1, -0.000493591, 0.000154039, 3.60688E-5, -0.000229373, 29.9998, 0.000248135, 0, 0, 0, 0, 30, 0
0.052, -1, -0.00109399, 0.000338927, 0.000104951, -0.000771761, 29.9992, 0.000881167, 0.000102012, 4.56025E-5, -5.21317E-5, -1.28037E-6, 30, -1.78984E-5
0.056, -1, -0.00189256, 0.000579835, 0.00024677, -0.00202211, 29.9979, 0.00238815, 0.000734177, 0.00033283, -0.000395436, -2.37745E-5, 30, -0.000185513
0.06, -1, -0.00280466, 0.000845736, 0.000501401, -0.00442655, 29.9954, 0.00533665, 0.00257758, 0.00119565, -0.00149785, -0.000162541, 30.0001, -0.000959371
0.064, -1, -0.00377847, 0.00111557, 0.000913958, -0.00847634, 29.9911, 0.0103482, 0.00613002, 0.00294394, -0.00394209, -0.000659868, 30.0004, -0.00334746
0.068, -1, -0.0047462, 0.00136335, 0.00152794, -0.0146505, 29.9846, 0.0180304, 0.0115066, 0.00579111, -0.00836107, -0.00192741, 30.0013, -0.00897222
0.072, -1, -0.00562052, 0.00155759, 0.00237972, -0.0233587, 29.9754, 0.0289051, 0.018736, 0.00996717, -0.0155158, -0.00449631, 30.0034, -0.0199137
0.076, -1, -0.00638409, 0.00169001, 0.00349666, -0.0348946, 29.9633, 0.0433427, 0.0279435, 0.0157648, -0.026279, -0.00894153, 30.0071, -0.0384362
0.08, -1, -0.00711915, 0.00178507, 0.00489681, -0.0494234, 29.9479, 0.061544, 0.0388747, 0.0232972, -0.041295, -0.0158077, 30.0128, -0.0666373
0.084, -1, -0.0079343, 0.00187648, 0.00658966, -0.0670121, 29.9293, 0.0835845, 0.0508221, 0.0324232, -0.060777, -0.0254898, 30.0211, -0.105973
0.088, -1, -0.00886101, 0.00197407, 0.00857725, -0.0876728, 29.9075, 0.109477, 0.0634452, 0.0430497, -0.0847078, -0.038088, 30.0319, -0.156795
0.092, -1, -0.00982382, 0.0020542, 0.0108545, -0.111375, 29.8824, 0.139189, 0.0771741, 0.0552767, -0.112969, -0.053364, 30.045, -0.218229
0.096, -1, -0.0107136, 0.00208331, 0.0134084, -0.138016, 29.8543, 0.1726, 0.0926141, 0.0691701, -0.145186, -0.0708404, 30.0601, -0.288482
0.1, -1, -0.0114904, 0.00205082, 0.0162168, -0.167376, 29.8233, 0.209438, 0.109871, 0.084534, -0.180603, -0.089948, 30.0766, -0.365342
0.104, -1, -0.0122125, 0.0019786, 0.0192485, -0.199106, 29.7897, 0.24926, 0.128828, 0.101081, -0.218364, -0.110123, 30.0939, -0.446586
0.108, -1, -0.0129642, 0.0018975, 0.0224637, -0.232762, 29.7541, 0.291498, 0.149511, 0.118618, -0.257787, -0.130874, 30.1117, -0.530303
0.112, -1, -0.0137965, 0.00182836, 0.0258171, -0.26785, 29.717, 0.335532, 0.171764, 0.136929, -0.298308, -0.15186, 30.1297, -0.615131
0.116, -1, -0.0147767, 0.00179697, 0.0292653, -0.303893, 29.6789, 0.380753, 0.195042, 0.1557, -0.339411, -0.172907, 30.1477, -0.700324
0.12, -1, -0.0159913, 0.00183458, 0.032772, -0.34048, 29.6403, 0.426639, 0.218711, 0.174636, -0.38071, -0.193961, 30.1656, -0.785592
0.124, -1, -0.017457, 0.00194921, 0.0363098, -0.377317, 29.6013, 0.47282, 0.242436, 0.193593, -0.422036, -0.215015, 30.1836, -0.870868
0.128, -1, -0.0190915, 0.00211634, 0.0398606, -0.41424, 29.5623, 0.519095, 0.266163, 0.212551, -0.463361, -0.236069, 30.2016, -0.956142
0.131, -1, -0.0207869, 0.00230243, 0.0434149, -0.451181, 29.5233, 0.565387, 0.289889, 0.231509, -0.504686, -0.257122, 30.2196, -1.04141
0.136, -1, -0.02249, 0.00249095, 0.0469696, -0.488123, 29.4843, 0.611681, 0.313615, 0.250466, -0.54601, -0.278175, 30.2376, -1.12668
0.139, -1, -0.0241935, 0.00267956, 0.0505242, -0.525065, 29.4452, 0.657973, 0.337341, 0.269423, -0.587333, -0.299228, 30.2555, -1.21195
0.144, -1, -0.0258969, 0.00286816, 0.0540787, -0.562005, 29.4062, 0.704265, 0.361066, 0.288379, -0.628655, -0.320279, 30.2735, -1.29722
0.148, -1, -0.0276004, 0.00305676, 0.0576331, -0.598945, 29.3672, 0.750555, 0.38479, 0.307335, -0.669976, -0.341331, 30.2915, -1.38248
0.152, -1, -0.0293038, 0.00324536, 0.0611874, -0.635884, 29.3281, 0.796844, 0.408514, 0.32629, -0.711296, -0.362382, 30.3095, -1.46774
0.156, -1, -0.0310071, 0.00343395, 0.0647417, -0.672822, 29.2891, 0.843132, 0.432237, 0.345245, -0.752614, -0.383432, 30.3274, -1.553
0.16, -1, -0.0327105, 0.00362254, 0.0682959, -0.709759, 29.2501, 0.889419, 0.45596, 0.3642, -0.793932, -0.404482, 30.3454, -1.63826
0.164, -1, -0.0344138, 0.00381113, 0.0718499, -0.746695, 29.2111, 0.935704, 0.479682, 0.383154, -0.835249, -0.425531, 30.3634, -1.72351
0.168, -1, -0.036117, 0.00399971, 0.0754039, -0.78363, 29.172, 0.981989, 0.503403, 0.402107, -0.876564, -0.44658, 30.3814, -1.80877
0.172, -1, -0.0378203, 0.00418828, 0.0789578, -0.820564, 29.133, 1.02827, 0.527124, 0.42106, -0.917879, -0.467628, 30.3993, -1.89402
0.176, -1, -0.0395234, 0.00437685, 0.0825116, -0.857498, 29.094, 1.07455, 0.550844, 0.440013, -0.959192, -0.488675, 30.4173, -1.97927
0.18, -1, -0.0412266, 0.00456542, 0.0860653, -0.89443, 29.055, 1.12084, 0.574564, 0.458965, -1.0005, -0.509722, 30.4353, -2.06451
0.184, -1, -0.0429297, 0.00475398, 0.089619, -0.931362, 29.0159, 1.16712, 0.598283, 0.477916, -1.04182, -0.530769, 30.4533, -2.14976
0.188, -1, -0.0446328, 0.00494254, 0.0931725, -0.968292, 28.9769, 1.21339, 0.622002, 0.496868, -1.08313, -0.551815, 30.4712, -2.235
0.192, -1, -0.0463358, 0.00513109, 0.096726, -1.00522, 28.9379, 1.25967, 0.64572, 0.515818, -1.12444, -0.572861, 30.4892, -2.32024
0.196, -1, -0.0480388, 0.00531964, 0.100279, -1.04215, 28.8989, 1.30595, 0.669438, 0.534769, -1.16575, -0.593906, 30.5072, -2.40548
0.2, -1, -0.0497418, 0.00550819, 0.103833, -1.07908, 28.8599, 1.35223, 0.693155, 0.553719, -1.20705, -0.614951, 30.5252, -2.49071
0.204, -1, -0.0514447, 0.00569673, 0.107386, -1.11601, 28.8208, 1.3985, 0.716872, 0.572669, -1.24836, -0.635995, 30.5431, -2.57595
0.208, -1, -0.0531476, 0.00588527, 0.110939, -1.15294, 28.7818, 1.44478, 0.740588, 0.591618, -1.28967, -0.657039, 30.5611, -2.66118
0.212, -1, -0.0548505, 0.00607381, 0.114492, -1.18986, 28.7428, 1.49105, 0.764304, 0.610567, -1.33097, -0.678083, 30.5791, -2.74642
0.216, -1, -0.0565533, 0.00626234, 0.118045, -1.22679, 28.7038, 1.53732, 0.788019, 0.629516, -1.37228, -0.699126, 30.597, -2.83165
0.22, -1, -0.0582561, 0.00645087, 0.121599, -1.26371, 28.6648, 1.58359, 0.811734, 0.648464, -1.41358, -0.720169, 30.615, -2.91688
0.224, -1, -0.0599588, 0.00663939, 0.125151, -1.30064, 28.6258, 1.62986, 0.835449, 0.667412, -1.45489, -0.741212, 30.633, -3.00211
0.228, -1, -0.0616615, 0.00682791, 0.128704, -1.33756, 28.5867, 1.67614, 0.859163, 0.68636, -1.49619, -0.762254, 30.6509, -3.08733
0.232, -1, -0.0633642, 0.00701643, 0.132257, -1.37448, 28.5477, 1.7224, 0.882877, 0.705307, -1.53749, -0.783296, 30.6689, -3.17256
0.236, -1, -0.0650669, 0.00720495, 0.13581, -1.41141, 28.5087, 1.76867, 0.906591, 0.724254, -1.57879, -0.804338, 30.6869, -3.25778
0.24, -1, -0.0667695, 0.00739346, 0.139363, -1.44833, 28.4697, 1.81494, 0.930304, 0.743201, -1.6201, -0.825379, 30.7049, -3.34301
0.244, -1, -0.0684722, 0.00758197, 0.142915, -1.48525, 28.4307, 1.86121, 0.954016, 0.762148, -1.6614, -0.84642, 30.7228, -3.42823
0.248, -1, -0.0701747, 0.00777047, 0.146468, -1.52217, 28.3917, 1.90748, 0.977728, 0.781094, -1.7027, -0.86746, 30.7408, -3.51345
0.252, -1, -0.0718773, 0.00795898, 0.150021, -1.55909, 28.3527, 1.95374, 1.00144, 0.800039, -1.74399, -0.888501, 30.7588, -3.59866
0.256, -1, -0.0735798, 0.00814748, 0.153573, -1.59601, 28.3137, 2.00001, 1.02515, 0.818985, -1.78529, -0.90954, 30.7767, -3.68388
0.26, -1, -0.0752823, 0.00833597, 0.157125, -1.63293, 28.2747, 2.04627, 1.04886, 0.83793, -1.82659, -0.93058, 30.7947, -3.7691
0.264, -1, -0.0769848, 0.00852446, 0.160678, -1.66985, 28.2356, 2.09253, 1.07257, 0.856875, -1.86789, -0.951619, 30.8127, -3.85431
0.268, -1, -0.0786872, 0.00871295, 0.16423, -1.70677, 28.1966, 2.1388, 1.09628, 0.875819, -1.90918, -0.972658, 30.8306, -3.93952
0.272, -1, -0.0803896, 0.00890144, 0.167782, -1.74368, 28.1576, 2.18506, 1.11999, 0.894764, -1.95048, -0.993696, 30.8486, -4.02473
0.276, -1, -0.082092, 0.00908992, 0.171334, -1.7806, 28.1186, 2.23132, 1.1437, 0.913707, -1.99177, -1.01473, 30.8666, -4.10994
0.28, -1, -0.0837943, 0.0092784, 0.174887, -1.81751, 28.0796, 2.27758, 1.16741, 0.932651, -2.03307, -1.03577, 30.8845, -4.19515
0.284, -1, -0.0854967, 0.00946688, 0.178439, -1.85443, 28.0406, 2.32384, 1.19112, 0.951594, -2.07436, -1.05681, 30.9025, -4.28036
0.288, -1, -0.0871989, 0.00965535, 0.181991, -1.89134, 28.0016, 2.3701, 1.21483, 0.970537, -2.11565, -1.07785, 30.9205, -4.36556
0.292, -1, -0.0889012, 0.00984382, 0.185543, -1.92826, 27.9626, 2.41635, 1.23854, 0.98948, -2.15694, -1.09888, 30.9384, -4.45077
0.296, -1, -0.0906034, 0.0100323, 0.189094, -1.96517, 27.9236, 2.46261, 1.26224, 1.00842, -2.19824, -1.11992, 30.9564, -4.53597
0.3, -1, -0.0923056, 0.0102208, 0.192646, -2.00208, 27.8846, 2.50887, 1.28595, 1.02736, -2.23953, -1.14095, 30.9744, -4.62117
0.304, -1, -0.0940078, 0.0104092, 0.196198, -2.039, 27.8456, 2.55512, 1.30966, 1.04631, -2.28082, -1.16199, 30.9923, -4.70637
0.308, -1, -0.09571, 0.0105977, 0.19975, -2.07591, 27.8066, 2.60138, 1.33336, 1.06525, -2.3221, -1.18303, 31.0103, -4.79157
0.312, -1, -0.0974121, 0.0107861, 0.203301, -2.11282, 27.7676, 2.64763, 1.35707, 1.08419, -2.36339, -1.20406, 31.0282, -4.87676
0.316, -1, -0.0991142, 0.0109746, 0.206853, -2.14973, 27.7286, 2.69388, 1.38077, 1.10313, -2.40468, -1.22509, 31.0462, -4.96196
0.32, -1, -0.100816, 0.011163, 0.210404, -2.18664, 27.6896, 2.74014, 1.40448, 1.12207, -2.44597, -1.24613, 31.0642, -5.04715
0.324, -1, -0.102518, 0.0113515, 0.213956, -2.22355, 27.6506, 2.78639, 1.42818, 1.14101, -2.48725, -1.26716, 31.0821, -5.13235
0.328, -1, -0.10422, 0.0115399, 0.217507, -2.26046, 27.6116, 2.83264, 1.45189, 1.15995, -2.52854, -1.2882, 31.1001, -5.21754
0.332, -1, -0.105922, 0.0117284, 0.221059, -2.29736, 27.5726, 2.87889, 1.47559, 1.17889, -2.56982, -1.30923, 31.1181, -5.30273
0.336, -1, -0.107624, 0.0119168, 0.22461, -2.33427, 27.5336, 2.92514, 1.4993, 1.19783, -2.61111, -1.33026, 31.136, -5.38791
0.34, -1, -0.109326, 0.0121052, 0.228161, -2.37118, 27.4946, 2.97139, 1.523, 1.21677, -2.65239, -1.35129, 31.154, -5.4731
0.344, -1, -0.111028, 0.0122937, 0.231712, -2.40808, 27.4556, 3.01764, 1.5467, 1.2357, -2.69368, -1.37233, 31.1719, -5.55829
0.348, -1, -0.11273, 0.0124821, 0.235263, -2.44499, 27.4166, 3.06388, 1.5704, 1.25464, -2.73496, -1.39336, 31.1899, -5.64347
0.352, -1, -0.114432, 0.0126705, 0.238815, -2.48189, 27.3776, 3.11013, 1.59411, 1.27358, -2.77624, -1.41439, 31.2079, -5.72865
0.356, -1, -0.116134, 0.0128589, 0.242366, -2.5188, 27.3386, 3.15637, 1.61781, 1.29252, -2.81752, -1.43542, 31.2258, -5.81383
0.36, -1, -0.117835, 0.0130473, 0.245916, -2.5557, 27.2997, 3.20262, 1.64151, 1.31146, -2.8588, -1.45645, 31.2438, -5.89901
0.364, -1, -0.119537, 0.0132358, 0.249467, -2.5926, 27.2607, 3.24886, 1.66521, 1.33039, -2.90008, -1.47748, 31.2617, -5.98419
0.368, -1, -0.121239, 0.0134242, 0.253018, -2.62951, 27.2217, 3.29511, 1.68891, 1.34933, -2.94136, -1.49851, 31.2797, -6.06937
0.372, -1, -0.122941, 0.0136126, 0.256569, -2.66641, 27.1827, 3.34135, 1.71261, 1.36827, -2.98264, -1.51954, 31.2977, -6.15455
0.376, -1, -0.124642, 0.013801, 0.26012, -2.70331, 27.1437, 3.38759, 1.73631, 1.3872, -3.02392, -1.54057, 31.3156, -6.23972
0.38, -1, -0.126344, 0.0139894, 0.26367, -2.74021, 27.1047, 3.43383, 1.76001, 1.40614, -3.06519, -1.5616, 31.3336, -6.32489
0.384, -1, -0.128045, 0.0141778, 0.267221, -2.77711, 27.0657, 3.48007, 1.78371, 1.42507, -3.10647, -1.58263, 31.3515, -6.41006
0.388, -1, -0.129747, 0.0143662, 0.270771, -2.81401, 27.0267, 3.52631, 1.80741, 1.44401, -3.14774, -1.60366, 31.3695, -6.49523
0.392, -1, -0.131449, 0.0145546, 0.274322, -2.85091, 26.9877, 3.57255, 1.8311, 1.46294, -3.18902, -1.62468, 31.3874, -6.5804
0.396, -1, -0.13315, 0.014743, 0.277872, -2.88781, 26.9488, 3.61879, 1.8548, 1.48188, -3.23029, -1.64571, 31.4054, -6.66557
0.4, -1, -0.134852, 0.0149314, 0.281423, -2.9247, 26.9098, 3.66503, 1.8785, 1.50081, -3.27157, -1.66674, 31.4234, -6.75074
0.404, -1, -0.136553, 0.0151197, 0.284973, -2.9616, 26.8708, 3.71126, 1.9022, 1.51975, -3.31284, -1.68777, 31.4413, -6.8359
0.408, -1, -0.138255, 0.0153081, 0.288523, -2.9985, 26.8318, 3.7575, 1.92589, 1.53868, -3.35411, -1.70879, 31.4593, -6.92106
0.412, -1, -0.139956, 0.0154965, 0.292073, -3.03539, 26.7928, 3.80374, 1.94959, 1.55761, -3.39538, -1.72982, 31.4772, -7.00623
0.416, -1, -0.141657, 0.0156849, 0.295624, -3.07229, 26.7538, 3.84997, 1.97328, 1.57655, -3.43666, -1.75084, 31.4952, -7.09139
0.42, -1, -0.143359, 0.0158732, 0.299174, -3.10918, 26.7149, 3.8962, 1.99698, 1.59548, -3.47793, -1.77187, 31.5131, -7.17655
0.424, -1, -0.14506, 0.0160616, 0.302724, -3.14608, 26.6759, 3.94244, 2.02067, 1.61441, -3.5192, -1.7929, 31.5311, -7.26171
0.428, -1, -0.146762, 0.01625, 0.306274, -3.18297, 26.6369, 3.98867, 2.04437, 1.63334, -3.56046, -1.81392, 31.5491, -7.34686
0.432, -1, -0.148463, 0.0164383, 0.309824, -3.21986, 26.5979, 4.0349, 2.06806, 1.65227, -3.60173, -1.83495, 31.567, -7.43202
0.436, -1, -0.150164, 0.0166267, 0.313374, -3.25676, 26.5589, 4.08113, 2.09176, 1.67121, -3.643, -1.85597, 31.585, -7.51717
0.44, -1, -0.151865, 0.0168151, 0.316923, -3.29365, 26.5199, 4.12736, 2.11545, 1.69014, -3.68427, -1.87699, 31.6029, -7.60232
0.444, -1, -0.153567, 0.0170034, 0.320473, -3.33054, 26.481, 4.17359, 2.13914, 1.70907, -3.72553, -1.89802, 31.6209, -7.68747
0.448, -1, -0.155268, 0.0171918, 0.324023, -3.36743, 26.442, 4.21982, 2.16284, 1.728, -3.7668, -1.91904, 31.6388, -7.77262
0.452, -1, -0.156969, 0.0173801, 0.327572, -3.40432, 26.403, 4.26605, 2.18653, 1.74693, -3.80806, -1.94006, 31.6568, -7.85777
0.456, -1, -0.15867, 0.0175685, 0.331122, -3.44121, 26.364, 4.31227, 2.21022, 1.76586, -3.84933, -1.96109, 31.6747, -7.94292
0.46, -1, -0.160371, 0.0177568, 0.334672, -3.4781, 26.3251, 4.3585, 2.23391, 1.78479, -3.89059, -1.98211, 31.6927, -8.02807
0.464, -1, -0.162072, 0.0179451, 0.338221, -3.51499, 26.2861, 4.40473, 2.2576, 1.80372, -3.93186, -2.00313, 31.7106, -8.11321
0.468, -1, -0.163773, 0.0181335, 0.34177, -3.55187, 26.2471, 4.45095, 2.2813, 1.82265, -3.97312, -2.02415, 31.7286, -8.19835
0.472, -1, -0.165475, 0.0183218, 0.34532, -3.58876, 26.2081, 4.49718, 2.30499, 1.84158, -4.01438, -2.04517, 31.7465, -8.2835
0.476, -1, -0.167176, 0.0185102, 0.348869, -3.62565, 26.1692, 4.5434, 2.32868, 1.86051, -4.05564, -2.06619, 31.7645, -8.36864
0.48, -1, -0.168877, 0.0186985, 0.352419, -3.66253, 26.1302, 4.58962, 2.35237, 1.87943, -4.0969, -2.08722, 31.7824, -8.45378
0.484, -1, -0.170578, 0.0188868, 0.355968, -3.69942, 26.0912, 4.63585, 2.37606, 1.89836, -4.13817, -2.10824, 31.8004, -8.53892
0.488, -1, -0.172279, 0.0190752, 0.359517, -3.73631, 26.0522, 4.68207, 2.39975, 1.91729, -4.17943, -2.12926, 31.8183, -8.62406
0.492, -1, -0.17398, 0.0192635, 0.363066, -3.77319, 26.0133, 4.72829, 2.42344, 1.93622, -4.22069, -2.15028, 31.8363, -8.7092
0.496, -1, -0.175681, 0.0194518, 0.366615, -3.81008, 25.9743, 4.77452, 2.44713, 1.95515, -4.26195, -2.1713, 31.8542, -8.79433
0.5, -1, -0.177382, 0.0196401, 0.370165, -3.84696, 25.9353, 4.82074, 2.47082, 1.97407, -4.30321, -2.19232, 31.8722, -8.87947
0.504, -1, -0.179083, 0.0198285, 0.373714, -3.88385, 25.8963, 4.86696, 2.49451, 1.993, -4.34447, -2.21334, 31.8901, -8.96461
0.508, -1, -0.180784, 0.0200168, 0.377263, -3.92073, 25.8574, 4.91318, 2.51819, 2.01193, -4.38573, -2.23436, 31.9081, -9.04975
0.512, -1, -0.182484, 0.0202051, 0.380812, -3.95762, 25.8184, 4.9594, 2.54188, 2.03086, -4.42698, -2.25538, 31.926, -9.13488
0.516, -1, -0.184185, 0.0203934, 0.384361, -3.9945, 25.7794, 5.00562, 2.56557, 2.04979, -4.46824, -2.2764, 31.944, -9.22002
0.52, -1, -0.185886, 0.0205817, 0.38791, -4.03139, 25.7405, 5.05184, 2.58926, 2.06871, -4.5095, -2.29742, 31.9619, -9.30515
0.524, -1, -0.187587, 0.0207701, 0.391459, -4.06827, 25.7015, 5.09806, 2.61295, 2.08764, -4.55076, -2.31844, 31.9799, -9.39029
0.528, -1, -0.189288, 0.0209584, 0.395008, -4.10516, 25.6625, 5.14428, 2.63664, 2.10657, -4.59202, -2.33946, 31.9978, -9.47542
0.532, -1, -0.190989, 0.0211467, 0.398557, -4.14204, 25.6235, 5.1905, 2.66033, 2.12549, -4.63328, -2.36048, 32.0158, -9.56056
0.536, -1, -0.19269, 0.021335, 0.402107, -4.17892, 25.5846, 5.23672, 2.68402, 2.14442, -4.67454, -2.3815, 32.0337, -9.64569
0.54, -1, -0.194391, 0.0215233, 0.405656, -4.21581, 25.5456, 5.28294, 2.7077, 2.16335, -4.71579, -2.40251, 32.0517, -9.73083
0.544, -1, -0.196092, 0.0217116, 0.409205, -4.25269, 25.5066, 5.32916, 2.73139, 2.18228, -4.75705, -2.42353, 32.0696, -9.81596
0.548, -1, -0.197792, 0.0219, 0.412754, -4.28957, 25.4677, 5.37538, 2.75508, 2.2012, -4.79831, -2.44455, 32.0876, -9.90109
0.552, -1, -0.199493, 0.0220883, 0.416303, -4.32646, 25.4287, 5.4216, 2.77877, 2.22013, -4.83957, -2.46557, 32.1055, -9.98623
0.556, -1, -0.201194, 0.0222766, 0.419852, -4.36334, 25.3897, 5.46782, 2.80246, 2.23906, -4.88082, -2.48659, 32.1235, -10.0714
0.56, -1, -0.202895, 0.0224649, 0.4234, -4.40022, 25.3507, 5.51404, 2.82614, 2.25798, -4.92208, -2.50761, 32.1414, -10.1565
0.564, -1, -0.204596, 0.0226532, 0.426949, -4.43711, 25.3118, 5.56026, 2.84983, 2.27691, -4.96334, -2.52863, 32.1594, -10.2416
0.568, -1, -0.206297, 0.0228415, 0.430498, -4.47399, 25.2728, 5.60648, 2.87352, 2.29584, -5.0046, -2.54965, 32.1773, -10.3268
0.572, -1, -0.207997, 0.0230298, 0.434047, -4.51087, 25.2338, 5.6527, 2.89721, 2.31476, -5.04585, -2.57067, 32.1953, -10.4119
0.576, -1, -0.209698, 0.0232181, 0.437596, -4.54775, 25.1949, 5.69892, 2.9209, 2.33369, -5.08711, -2.59169, 32.2132, -10.497
0.58, -1, -0.211399, 0.0234065, 0.441145, -4.58464, 25.1559, 5.74513, 2.94458, 2.35262, -5.12837, -2.6127, 32.2312, -10.5821
0.584, -1, -0.2131, 0.0235948, 0.444694, -4.62152, 25.1169, 5.79135, 2.96827, 2.37154, -5.16962, -2.63372, 32.2491, -10.6673
0.588, -1, -0.214801, 0.0237831, 0.448243, -4.6584, 25.078, 5.83757, 2.99196, 2.39047, -5.21088, -2.65474, 32.2671, -10.7524
0.592, -1, -0.216501, 0.0239714, 0.451792, -4.69528, 25.039, 5.88379, 3.01564, 2.40939, -5.25213, -2.67576, 32.285, -10.8375
0.596, -1, -0.218202, 0.0241597, 0.455341, -4.73216, 25, 5.93001, 3.03933, 2.42832, -5.29339, -2.69678, 32.303, -10.9227
0.6, -1, -0.219903, 0.024348, 0.458889, -4.76904, 24.961, 5.97622, 3.06302, 2.44725, -5.33465, -2.7178, 32.3209, -11.0078
0.604, -1, -0.221604, 0.0245363, 0.462438, -4.80593, 24.9221, 6.02244, 3.08671, 2.46617, -5.3759, -2.73881, 32.3389, -11.0929
0.608, -1, -0.223304, 0.0247246, 0.465987, -4.84281, 24.8831, 6.06866, 3.11039, 2.4851, -5.41716, -2.75983, 32.3568, -11.1781
0.612, -1, -0.225005, 0.0249129, 0.469536, -4.87969, 24.8441, 6.11487, 3.13408, 2.50402, -5.45841, -2.78085, 32.3748, -11.2632
0.616, -1, -0.226706, 0.0251012, 0.473085, -4.91657, 24.8052, 6.16109, 3.15777, 2.52295, -5.49967, -2.80187, 32.3927, -11.3483
0.62, -1, -0.228407, 0.0252895, 0.476633, -4.95345, 24.7662, 6.20731, 3.18145, 2.54188, -5.54092, -2.82289, 32.4107, -11.4334
0.624, -1, -0.230108, 0.0254778, 0.480182, -4.99033, 24.7272, 6.25352, 3.20514, 2.5608, -5.58218, -2.8439, 32.4286, -11.5186
0.628, -1, -0.231808, 0.0256661, 0.483731, -5.02721, 24.6883, 6.29974, 3.22883, 2.57973, -5.62343, -2.86492, 32.4466, -11.6037
0.632, -1, -0.233509, 0.0258544, 0.48728, -5.06409, 24.6493, 6.34596, 3.25251, 2.59865, -5.66469, -2.88594, 32.4645, -11.6888
0.636, -1, -0.23521, 0.0260427, 0.490828, -5.10097, 24.6103, 6.39217, 3.2762, 2.61758, -5.70594, -2.90696, 32.4825, -11.7739
0.64, -1, -0.23691, 0.026231, 0.494377, -5.13785, 24.5714, 6.43839, 3.29989, 2.6365, -5.7472, -2.92797, 32.5004, -11.8591
0.644, -1, -0.238611, 0.0264193, 0.497926, -5.17473, 24.5324, 6.4846, 3.32357, 2.65543, -5.78845, -2.94899, 32.5184, -11.9442
0.648, -1, -0.240312, 0.0266076, 0.501474, -5.21161, 24.4934, 6.53082, 3.34726, 2.67435, -5.8297, -2.97001, 32.5363, -12.0293
0.652, -1, -0.242013, 0.0267959, 0.505023, -5.24849, 24.4545, 6.57703, 3.37094, 2.69328, -5.87096, -2.99103, 32.5543, -12.1145
0.656, -1, -0.243713, 0.0269842, 0.508572, -5.28537, 24.4155, 6.62325, 3.39463, 2.7122, -5.91221, -3.01204, 32.5722, -12.1996
0.66, -1, -0.245414, 0.0271725, 0.51212, -5.32225, 24.3765, 6.66947, 3.41832, 2.73113, -5.95347, -3.03306, 32.5902, -12.2847
0.664, -1, -0.247115, 0.0273608, 0.515669, -5.35913, 24.3376, 6.71568, 3.442, 2.75005, -5.99472, -3.05408, 32.6081, -12.3698
0.668, -1, -0.248815, 0.0275491, 0.519218, -5.39601, 24.2986, 6.7619, 3.46569, 2.76898, -6.03597, -3.07509, 32.6261, -12.455
0.672, -1, -0.250516, 0.0277374, 0.522766, -5.43289, 24.2596, 6.80811, 3.48937, 2.7879, -6.07723, -3.09611, 32.644, -12.5401
0.676, -1, -0.252217, 0.0279257, 0.526315, -5.46977, 24.2207, 6.85432, 3.51306, 2.80683, -6.11848, -3.11713, 32.662, -12.6252
0.68, -1, -0.253917, 0.028114, 0.529864, -5.50665, 24.1817, 6.90054, 3.53674, 2.82575, -6.15973, -3.13814, 32.6799, -12.7103
0.684, -1, -0.255618, 0.0283023, 0.533412, -5.54353, 24.1427, 6.94675, 3.56043, 2.84468, -6.20099, -3.15916, 32.6979, -12.7954
0.688, -1, -0.257319, 0.0284906, 0.536961, -5.58041, 24.1038, 6.99297, 3.58412, 2.8636, -6.24224, -3.18018, 32.7158, -12.8806
0.692, -1, -0.259019, 0.0286789, 0.540509, -5.61729, 24.0648, 7.03918, 3.6078, 2.88253, -6.28349, -3.2012, 32.7338, -12.9657
0.696, -1, -0.26072, 0.0288671, 0.544058, -5.65417, 24.0258, 7.0854, 3.63149, 2.90145, -6.32475, -3.22221, 32.7517, -13.0508
0.7, -1, -0.262421, 0.0290554, 0.547607, -5.69105, 23.9869, 7.13161, 3.65517, 2.92038, -6.366, -3.24323, 32.7696, -13.1359
0.704, -1, -0.264121, 0.0292437, 0.551155, -5.72793, 23.9479, 7.17782, 3.67886, 2.9393, -6.40725, -3.26425, 32.7876, -13.2211
0.708, -1, -0.265822, 0.029432, 0.554704, -5.7648, 23.9089, 7.22404, 3.70254, 2.95823, -6.4485, -3.28526, 32.8055, -13.3062
0.712, -1, -0.267523, 0.0296203, 0.558252, -5.80168, 23.87, 7.27025, 3.72623, 2.97715, -6.48976, -3.30628, 32.8235, -13.3913
0.716, -1, -0.269223, 0.0298086, 0.561801, -5.83856, 23.831, 7.31646, 3.74991, 2.99608, -6.53101, -3.32729, 32.8414, -13.4764
0.72, -1, -0.270924, 0.0299969, 0.565349, -5.87544, 23.792, 7.36268, 3.7736, 3.015, -6.57226, -3.34831, 32.8594, -13.5616
0.724, -1, -0.272624, 0.0301852, 0.568898, -5.91232, 23.7531, 7.40889, 3.79728, 3.03392, -6.61351, -3.36933, 32.8773, -13.6467
0.728, -1, -0.274325, 0.0303735, 0.572446, -5.9492, 23.7141, 7.4551, 3.82097, 3.05285, -6.65476, -3.39034, 32.8953, -13.7318
0.732, -1, -0.276026, 0.0305618, 0.575995, -5.98608, 23.6751, 7.50132, 3.84465, 3.07177, -6.69602, -3.41136, 32.9132, -13.8169
0.736, -1, -0.277726, 0.03075, 0.579543, -6.02295, 23.6362, 7.54753, 3.86834, 3.0907, -6.73727, -3.43238, 32.9312, -13.902
0.74, -1, -0.279427, 0.0309383, 0.583092, -6.05983, 23.5972, 7.59374, 3.89202, 3.10962, -6.77852, -3.45339, 32.9491, -13.9872
0.744, -1, -0.281128, 0.0311266, 0.58664, -6.09671, 23.5582, 7.63996, 3.91571, 3.12855, -6.81977, -3.47441, 32.9671, -14.0723
0.748, -1, -0.282828, 0.0313149, 0.590189, -6.13359, 23.5193, 7.68617, 3.93939, 3.14747, -6.86102, -3.49542, 32.985, -14.1574
0.752, -1, -0.284529, 0.0315032, 0.593737, -6.17046, 23.4803, 7.73238, 3.96308, 3.16639, -6.90227, -3.51644, 33.003, -14.2425
0.756, -1, -0.286229, 0.0316915, 0.597286, -6.20734, 23.4413, 7.77859, 3.98676, 3.18532, -6.94353, -3.53746, 33.0209, -14.3276
0.76, -1, -0.28793, 0.0318798, 0.600834, -6.24422, 23.4024, 7.82481, 4.01044, 3.20424, -6.98478, -3.55847, 33.0389, -14.4128
0.764, -1, -0.289631, 0.032068, 0.604383, -6.2811, 23.3634, 7.87102, 4.03413, 3.22317, -7.02603, -3.57949, 33.0568, -14.4979
0.768, -1, -0.291331, 0.0322563, 0.607931, -6.31798, 23.3244, 7.91723, 4.05781, 3.24209, -7.06728, -3.6005, 33.0748, -14.583
0.772, -1, -0.293032, 0.0324446, 0.611479, -6.35485, 23.2855, 7.96344, 4.0815, 3.26101, -7.10853, -3.62152, 33.0927, -14.6681
0.776, -1, -0.294732, 0.0326329, 0.615028, -6.39173, 23.2465, 8.00965, 4.10518, 3.27994, -7.14978, -3.64254, 33.1106, -14.7532
0.78, -1, -0.296433, 0.0328212, 0.618576, -6.42861, 23.2076, 8.05587, 4.12887, 3.29886, -7.19103, -3.66355, 33.1286, -14.8384
0.784, -1, -0.298133, 0.0330095, 0.622125, -6.46548, 23.1686, 8.10208, 4.15255, 3.31778, -7.23228, -3.68457, 33.1465, -14.9235
0.788, -1, -0.299834, 0.0331978, 0.625673, -6.50236, 23.1296, 8.14829, 4.17623, 3.33671, -7.27353, -3.70558, 33.1645, -15.0086
0.792, -1, -0.301535, 0.033386, 0.629221, -6.53924, 23.0907, 8.1945, 4.19992, 3.35563, -7.31479, -3.7266, 33.1824, -15.0937
0.796, -1, -0.303235, 0.0335743, 0.63277, -6.57612, 23.0517, 8.24071, 4.2236, 3.37456, -7.35604, -3.74761, 33.2004, -15.1788
0.8, -1, -0.304936, 0.0337626, 0.636318, -6.61299, 23.0127, 8.28693, 4.24729, 3.39348, -7.39729, -3.76863, 33.2183, -15.264
0.804, -1, -0.306636, 0.0339509, 0.639867, -6.64987, 22.9738, 8.33314, 4.27097, 3.4124, -7.43854, -3.78964, 33.2363, -15.3491
0.808, -1, -0.308337, 0.0341392, 0.643415, -6.68675, 22.9348, 8.37935, 4.29465, 3.43133, -7.47979, -3.81066, 33.2542, -15.4342
0.812, -1, -0.310037, 0.0343274, 0.646963, -6.72362, 22.8958, 8.42556, 4.31834, 3.45025, -7.52104, -3.83168, 33.2722, -15.5193
0.816, -1, -0.311738, 0.0345157, 0.650512, -6.7605, 22.8569, 8.47177, 4.34202, 3.46917, -7.56229, -3.85269, 33.2901, -15.6044
0.82, -1, -0.313438, 0.034704, 0.65406, -6.79738, 22.8179, 8.51798, 4.36571, 3.4881, -7.60354, -3.87371, 33.3081, -15.6895
0.824, -1, -0.315139, 0.0348923, 0.657608, -6.83425, 22.7789, 8.56419, 4.38939, 3.50702, -7.64479, -3.89472, 33.326, -15.7747
0.828, -1, -0.31684, 0.0350806, 0.661157, -6.87113, 22.74, 8.6104, 4.41307, 3.52594, -7.68604, -3.91574, 33.344, -15.8598
0.832, -1, -0.31854, 0.0352688, 0.664705, -6.90801, 22.701, 8.65662, 4.43676, 3.54487, -7.72729, -3.93675, 33.3619, -15.9449
0.836, -1, -0.320241, 0.0354571, 0.668253, -6.94488, 22.6621, 8.70283, 4.46044, 3.56379, -7.76854, -3.95777, 33.3799, -16.03
0.84, -1, -0.321941, 0.0356454, 0.671802, -6.98176, 22.6231, 8.74904, 4.48413, 3.58271, -7.80979, -3.97878, 33.3978, -16.1151
0.844, -1, -0.323642, 0.0358337, 0.67535, -7.01864, 22.5841, 8.79525, 4.50781, 3.60164, -7.85104, -3.9998, 33.4157, -16.2002
0.848, -1, -0.325342, 0.036022, 0.678898, -7.05551, 22.5452, 8.84146, 4.53149, 3.62056, -7.89229, -4.02081, 33.4337, -16.2854
0.852, -1, -0.327043, 0.0362102, 0.682447, -7.09239, 22.5062, 8.88767, 4.55518, 3.63948, -7.93354, -4.04183, 33.4516, -16.3705
0.856, -1, -0.328743, 0.0363985, 0.685995, -7.12927, 22.4672, 8.93388, 4.57886, 3.65841, -7.97479, -4.06284, 33.4696, -16.4556
0.86, -1, -0.330444, 0.0365868, 0.689543, -7.16614, 22.4283, 8.98009, 4.60254, 3.67733, -8.01604, -4.08386, 33.4875, -16.5407
0.864, -1, -0.332145, 0.0367751, 0.693092, -7.20302, 22.3893, 9.0263, 4.62623, 3.69625, -8.05729, -4.10487, 33.5055, -16.6258
0.868, -1, -0.333845, 0.0369634, 0.69664, -7.23989, 22.3503, 9.07251, 4.64991, 3.71518, -8.09854, -4.12589, 33.5234, -16.711
0.872, -1, -0.335546, 0.0371516, 0.700188, -7.27677, 22.3114, 9.11872, 4.6736, 3.7341, -8.13979, -4.1469, 33.5414, -16.7961
0.876, -1, -0.337246, 0.0373399, 0.703737, -7.31365, 22.2724, 9.16494, 4.69728, 3.75302, -8.18104, -4.16792, 33.5593, -16.8812
0.88, -1, -0.338947, 0.0375282, 0.707285, -7.35053, 22.2335, 9.21115, 4.72096, 3.77195, -8.22229, -4.18894, 33.5773, -16.9663
0.884, -1, -0.340648, 0.0377165, 0.710834, -7.3874, 22.1945, 9.25736, 4.74465, 3.79087, -8.26354, -4.20995, 33.5952, -17.0514
0.888, -1, -0.342348, 0.0379048, 0.714382, -7.42428, 22.1555, 9.30357, 4.76833, 3.8098, -8.30479, -4.23097, 33.6132, -17.1365
0.892, -1, -0.344049, 0.0380931, 0.717931, -7.46116, 22.1166, 9.34979, 4.79202, 3.82872, -8.34604, -4.25198, 33.6311, -17.2217
0.896, -1, -0.34575, 0.0382814, 0.721479, -7.49804, 22.0776, 9.396, 4.8157, 3.84765, -8.3873, -4.273, 33.6491, -17.3068
0.9, -1, -0.34745, 0.0384697, 0.725028, -7.53492, 22.0386, 9.44221, 4.83939, 3.86657, -8.42855, -4.29402, 33.667, -17.3919
0.904, -1, -0.349151, 0.038658, 0.728576, -7.5718, 21.9997, 9.48843, 4.86308, 3.88549, -8.4698, -4.31503, 33.6849, -17.477
0.908, -1, -0.350852, 0.0388463, 0.732125, -7.60868, 21.9607, 9.53464, 4.88676, 3.90442, -8.51105, -4.33605, 33.7029, -17.5622
0.912, -1, -0.352552, 0.0390346, 0.735674, -7.64556, 21.9217, 9.58086, 4.91045, 3.92334, -8.55231, -4.35707, 33.7208, -17.6473
0.916, -1, -0.354253, 0.0392229, 0.739223, -7.68244, 21.8828, 9.62708, 4.93413, 3.94227, -8.59356, -4.37809, 33.7388, -17.7324
0.92, -1, -0.355954, 0.0394112, 0.742771, -7.71932, 21.8438, 9.67329, 4.95782, 3.9612, -8.63482, -4.3991, 33.7567, -17.8175
0.924, -1, -0.357655, 0.0395995, 0.74632, -7.7562, 21.8048, 9.71951, 4.98151, 3.98012, -8.67608, -4.42012, 33.7747, -17.9027
0.928, -1, -0.359355, 0.0397878, 0.749869, -7.79308, 21.7659, 9.76573, 5.0052, 3.99905, -8.71733, -4.44114, 33.7926, -17.9878
0.932, -1, -0.361056, 0.0399761, 0.753418, -7.82997, 21.7269, 9.81195, 5.02888, 4.01798, -8.75859, -4.46216, 33.8106, -18.0729
0.936, -1, -0.362757, 0.0401644, 0.756967, -7.86685, 21.6879, 9.85817, 5.05257, 4.0369, -8.79985, -4.48318, 33.8285, -18.1581
0.94, -1, -0.364458, 0.0403527, 0.760516, -7.90373, 21.6489, 9.90439, 5.07626, 4.05583, -8.84111, -4.5042, 33.8465, -18.2432
0.944, -1, -0.366159, 0.0405411, 0.764065, -7.94062, 21.61, 9.95061, 5.09995, 4.07476, -8.88237, -4.52522, 33.8644, -18.3283
0.948, -1, -0.36786, 0.0407294, 0.767614, -7.9775, 21.571, 9.99683, 5.12364, 4.09368, -8.92362, -4.54624, 33.8824, -18.4135
0.952, -1, -0.369561, 0.0409177, 0.771163, -8.01439, 21.532, 10.0431, 5.14733, 4.11261, -8.96488, -4.56726, 33.9003, -18.4986
0.956, -1, -0.371262, 0.041106, 0.774713, -8.05127, 21.493, 10.0893, 5.17102, 4.13154, -9.00614, -4.58828, 33.9183, -18.5838
0.96, -1, -0.372963, 0.0412944, 0.778262, -8.08816, 21.4541, 10.1355, 5.19471, 4.15047, -9.04741, -4.6093, 33.9362, -18.6689
0.964, -1, -0.374664, 0.0414827, 0.781811, -8.12505, 21.4151, 10.1817, 5.2184, 4.1694, -9.08867, -4.63032, 33.9542, -18.754
0.968, -1, -0.376365, 0.041671, 0.785361, -8.16193, 21.3761, 10.2279, 5.24209, 4.18833, -9.12993, -4.65134, 33.9721, -18.8392
0.972, -1, -0.378066, 0.0418594, 0.78891, -8.19882, 21.3371, 10.2742, 5.26578, 4.20726, -9.17119, -4.67236, 33.9901, -18.9243
0.976, -1, -0.379767, 0.0420477, 0.79246, -8.23571, 21.2982, 10.3204, 5.28947, 4.22619, -9.21245, -4.69339, 34.0081, -19.0095
0.98, -1, -0.381468, 0.042236, 0.796009, -8.2726, 21.2592, 10.3666, 5.31316, 4.24511, -9.25372, -4.71441, 34.026, -19.0946
0.984, -1, -0.383169, 0.0424244, 0.799559, -8.30949, 21.2202, 10.4129, 5.33685, 4.26405, -9.29498, -4.73543, 34.044, -19.1798
0.988, -1, -0.38487, 0.0426127, 0.803108, -8.34638, 21.1812, 10.4591, 5.36055, 4.28298, -9.33625, -4.75645, 34.0619, -19.2649
0.992, -1, -0.386572, 0.0428011, 0.806658, -8.38327, 21.1423, 10.5053, 5.38424, 4.30191, -9.37751, -4.77748, 34.0799, -19.3501
0.996, -1, -0.388273, 0.0429894, 0.810208, -8.42016, 21.1033, 10.5515, 5.40793, 4.32084, -9.41878, -4.7985, 34.0978, -19.4352
1, -1, -0.389974, 0.0431778, 0.813757, -8.45705, 21.0643, 10.5978, 5.43163, 4.33977, -9.46005, -4.81952, 34.1158, -19.5204
1.004, -1, -0.391675, 0.0433662, 0.817307, -8.49394, 21.0253, 10.644, 5.45532, 4.3587, -9.50131, -4.84055, 34.1337, -19.6055
1.008, -1, -0.393376, 0.0435545, 0.820857, -8.53083, 20.9863, 10.6902, 5.47901, 4.37763, -9.54258, -4.86157, 34.1517, -19.6907
1.012, -1, -0.395078, 0.0437429, 0.824407, -8.56773, 20.9474, 10.7365, 5.50271, 4.39656, -9.58385, -4.8826, 34.1696, -19.7758
1.016, -1, -0.396779, 0.0439312, 0.827957, -8.60462, 20.9084, 10.7827, 5.5264, 4.41549, -9.62512, -4.90362, 34.1876, -19.861
1.02, -1, -0.39848, 0.0441196, 0.831507, -8.64151, 20.8694, 10.8289, 5.5501, 4.43443, -9.66639, -4.92465, 34.2055, -19.9461
1.024, -1, -0.400182, 0.044308, 0.835057, -8.67841, 20.8304, 10.8752, 5.57379, 4.45336, -9.70766, -4.94567, 34.2235, -20.0313
1.027, -1, -0.401883, 0.0444964, 0.838607, -8.7153, 20.7914, 10.9214, 5.59749, 4.47229, -9.74893, -4.9667, 34.2415, -20.1165
1.032, -1, -0.403585, 0.0446847, 0.842157, -8.7522, 20.7525, 10.9676, 5.62118, 4.49123, -9.7902, -4.98772, 34.2594, -20.2016
1.036, -1, -0.405286, 0.0448731, 0.845708, -8.78909, 20.7135, 11.0139, 5.64488, 4.51016, -9.83147, -5.00875, 34.2774, -20.2868
1.04, -1, -0.406988, 0.0450615, 0.849258, -8.82599, 20.6745, 11.0601, 5.66858, 4.52909, -9.87274, -5.02978, 34.2953, -20.3719
1.044, -1, -0.408689, 0.0452499, 0.852808, -8.86289, 20.6355, 11.1063, 5.69227, 4.54803, -9.91402, -5.0508, 34.3133, -20.4571
1.048, -1, -0.410391, 0.0454383, 0.856358, -8.89979, 20.5965, 11.1526, 5.71597, 4.56696, -9.95529, -5.07183, 34.3312, -20.5423
1.052, -1, -0.412092, 0.0456267, 0.859909, -8.93668, 20.5575, 11.1988, 5.73967, 4.58589, -9.99656, -5.09286, 34.3492, -20.6274
1.055, -1, -0.413794, 0.045815, 0.863459, -8.97358, 20.5185, 11.245, 5.76337, 4.60483, -10.0378, -5.11389, 34.3672, -20.7126
1.06, -1, -0.415495, 0.0460034, 0.86701, -9.01048, 20.4796, 11.2913, 5.78706, 4.62376, -10.0791, -5.13491, 34.3851, -20.7978
1.064, -1, -0.417197, 0.0461918, 0.87056, -9.04738, 20.4406, 11.3375, 5.81076, 4.6427, -10.1204, -5.15594, 34.4031, -20.8829
1.068, -1, -0.418898, 0.0463802, 0.874111, -9.08428, 20.4016, 11.3838, 5.83446, 4.66163, -10.1617, -5.17697, 34.421, -20.9681
1.072, -1, -0.4206, 0.0465686, 0.877662, -9.12118, 20.3626, 11.43, 5.85816, 4.68057, -10.2029, -5.198, 34.439, -21.0533
1.076, -1, -0.422302, 0.046757, 0.881212, -9.15808, 20.3236, 11.4762, 5.88186, 4.69951, -10.2442, -5.21903, 34.4569, -21.1385
1.08, -1, -0.424004, 0.0469455, 0.884763, -9.19498, 20.2846, 11.5225, 5.90556, 4.71844, -10.2855, -5.24006, 34.4749, -21.2236
1.084, -1, -0.425705, 0.0471339, 0.888314, -9.23189, 20.2456, 11.5687, 5.92926, 4.73738, -10.3268, -5.26109, 34.4929, -21.3088
1.088, -1, -0.427407, 0.0473223, 0.891865, -9.26879, 20.2066, 11.615, 5.95296, 4.75632, -10.3681, -5.28212, 34.5108, -21.394
1.091, -1, -0.429109, 0.0475107, 0.895416, -9.30569, 20.1676, 11.6612, 5.97666, 4.77525, -10.4093, -5.30315, 34.5288, -21.4792
1.096, -1, -0.430811, 0.0476991, 0.898967, -9.3426, 20.1286, 11.7075, 6.00036, 4.79419, -10.4506, -5.32418, 34.5467, -21.5644
1.1, -1, -0.432512, 0.0478875, 0.902518, -9.3795, 20.0896, 11.7537, 6.02407, 4.81313, -10.4919, -5.34521, 34.5647, -21.6495
1.104, -1, -0.434214, 0.048076, 0.906069, -9.41641, 20.0507, 11.8, 6.04777, 4.83207, -10.5332, -5.36624, 34.5827, -21.7347
1.108, -1, -0.435916, 0.0482644, 0.90962, -9.45331, 20.0117, 11.8462, 6.07147, 4.85101, -10.5745, -5.38728, 34.6006, -21.8199
1.112, -1, -0.437618, 0.0484528, 0.913171, -9.49022, 19.9727, 11.8925, 6.09517, 4.86994, -10.6157, -5.40831, 34.6186, -21.9051
1.116, -1, -0.43932, 0.0486412, 0.916722, -9.52712, 19.9337, 11.9387, 6.11888, 4.88888, -10.657, -5.42934, 34.6365, -21.9903
1.119, -1, -0.441022, 0.0488297, 0.920274, -9.56403, 19.8947, 11.985, 6.14258, 4.90782, -10.6983, -5.45037, 34.6545, -22.0755
1.124, -1, -0.442724, 0.0490181, 0.923825, -9.60094, 19.8557, 12.0312, 6.16628, 4.92676, -10.7396, -5.47141, 34.6725, -22.1607
1.128, -1, -0.444426, 0.0492066, 0.927376, -9.63785, 19.8167, 12.0775, 6.18999, 4.9457, -10.7809, -5.49244, 34.6904, -22.2458
1.132, -1, -0.446128, 0.049395, 0.930928, -9.67476, 19.7777, 12.1237, 6.21369, 4.96464, -10.8222, -5.51347, 34.7084, -22.331
1.136, -1, -0.44783, 0.0495835, 0.934479, -9.71166, 19.7387, 12.17, 6.2374, 4.98358, -10.8635, -5.53451, 34.7264, -22.4162
1.14, -1, -0.449532, 0.0497719, 0.938031, -9.74857, 19.6997, 12.2162, 6.2611, 5.00252, -10.9047, -5.55554, 34.7443, -22.5014
1.144, -1, -0.451234, 0.0499604, 0.941582, -9.78548, 19.6607, 12.2625, 6.28481, 5.02146, -10.946, -5.57657, 34.7623, -22.5866
1.147, -1, -0.452936, 0.0501488, 0.945134, -9.82239, 19.6217, 12.3087, 6.30851, 5.0404, -10.9873, -5.59761, 34.7802, -22.6718
1.152, -1, -0.454638, 0.0503373, 0.948686, -9.85931, 19.5827, 12.355, 6.33222, 5.05934, -11.0286, -5.61864, 34.7982, -22.757
1.156, -1, -0.456341, 0.0505257, 0.952237, -9.89622, 19.5437, 12.4012, 6.35593, 5.07829, -11.0699, -5.63968, 34.8162, -22.8422
1.16, -1, -0.458043, 0.0507142, 0.955789, -9.93313, 19.5047, 12.4475, 6.37963, 5.09723, -11.1112, -5.66072, 34.8341, -22.9274
1.164, -1, -0.459745, 0.0509027, 0.959341, -9.97004, 19.4657, 12.4937, 6.40334, 5.11617, -11.1525, -5.68175, 34.8521, -23.0126
1.168, -1, -0.461447, 0.0510911, 0.962893, -10.007, 19.4267, 12.54, 6.42705, 5.13511, -11.1938, -5.70279, 34.8701, -23.0978
1.172, -1, -0.46315, 0.0512796, 0.966445, -10.0439, 19.3877, 12.5863, 6.45075, 5.15405, -11.2351, -5.72383, 34.888, -23.183
1.175, -1, -0.464852, 0.0514681, 0.969997, -10.0808, 19.3487, 12.6325, 6.47446, 5.173, -11.2764, -5.74486, 34.906, -23.2682
1.18, -1, -0.466554, 0.0516566, 0.973549, -10.1177, 19.3097, 12.6788, 6.49817, 5.19194, -11.3177, -5.7659, 34.924, -23.3534
1.184, -1, -0.468257, 0.051845, 0.977101, -10.1546, 19.2707, 12.725, 6.52188, 5.21088, -11.3589, -5.78694, 34.9419, -23.4386
1.188, -1, -0.469959, 0.0520335, 0.980653, -10.1915, 19.2317, 12.7713, 6.54559, 5.22983, -11.4002, -5.80798, 34.9599, -23.5238
1.192, -1, -0.471661, 0.052222, 0.984206, -10.2285, 19.1926, 12.8176, 6.5693, 5.24877, -11.4415, -5.82901, 34.9779, -23.6091
1.196, -1, -0.473364, 0.0524105, 0.987758, -10.2654, 19.1536, 12.8638, 6.59301, 5.26772, -11.4828, -5.85005, 34.9958, -23.6943
1.2, -1, -0.475066, 0.052599, 0.99131, -10.3023, 19.1146, 12.9101, 6.61672, 5.28666, -11.5241, -5.87109, 35.0138, -23.7795
1.204, -1, -0.476769, 0.0527875, 0.994863, -10.3392, 19.0756, 12.9563, 6.64043, 5.30561, -11.5654, -5.89213, 35.0318, -23.8647
1.208, -1, -0.478471, 0.052976, 0.998415, -10.3761, 19.0366, 13.0026, 6.66414, 5.32455, -11.6067, -5.91317, 35.0497, -23.9499
1.212, -1, -0.480174, 0.0531645, 1.00197, -10.413, 18.9976, 13.0489, 6.68785, 5.3435, -11.648, -5.93421, 35.0677, -24.0351
1.216, -1, -0.481876, 0.053353, 1.00552, -10.45, 18.9586, 13.0951, 6.71157, 5.36244, -11.6893, -5.95525, 35.0857, -24.1204
1.22, -1, -0.483579, 0.0535415, 1.00907, -10.4869, 18.9196, 13.1414, 6.73528, 5.38139, -11.7306, -5.97629, 35.1036, -24.2056
1.224, -1, -0.485281, 0.05373, 1.01263, -10.5238, 18.8806, 13.1877, 6.75899, 5.40034, -11.7719, -5.99733, 35.1216, -24.2908
1.228, -1, -0.486984, 0.0539185, 1.01618, -10.5607, 18.8416, 13.2339, 6.7827, 5.41928, -11.8132, -6.01837, 35.1396, -24.376
1.232, -1, -0.488687, 0.054107, 1.01973, -10.5977, 18.8026, 13.2802, 6.80642, 5.43823, -11.8545, -6.03941, 35.1575, -24.4612
1.236, -1, -0.490389, 0.0542955, 1.02328, -10.6346, 18.7635, 13.3265, 6.83013, 5.45718, -11.8958, -6.06046, 35.1755, -24.5465
1.24, -1, -0.492092, 0.0544841, 1.02684, -10.6715, 18.7245, 13.3728, 6.85385, 5.47613, -11.9371, -6.0815, 35.1935, -24.6317
1.244, -1, -0.493795, 0.0546726, 1.03039, -10.7084, 18.6855, 13.419, 6.87756, 5.49507, -11.9784, -6.10254, 35.2114, -24.7169
1.248, -1, -0.495498, 0.0548611, 1.03394, -10.7453, 18.6465, 13.4653, 6.90127, 5.51402, -12.0197, -6.12358, 35.2294, -24.8022
1.252, -1, -0.497201, 0.0550496, 1.0375, -10.7823, 18.6075, 13.5116, 6.92499, 5.53297, -12.061, -6.14463, 35.2474, -24.8874
1.256, -1, -0.498903, 0.0552382, 1.04105, -10.8192, 18.5685, 13.5578, 6.94871, 5.55192, -12.1023, -6.16567, 35.2654, -24.9726
1.26, -1, -0.500606, 0.0554267, 1.0446, -10.8561, 18.5294, 13.6041, 6.97242, 5.57087, -12.1437, -6.18671, 35.2833, -25.0578
1.264, -1, -0.502309, 0.0556153, 1.04816, -10.8931, 18.4904, 13.6504, 6.99614, 5.58982, -12.185, -6.20776, 35.3013, -25.1431
1.267, -1, -0.504012, 0.0558038, 1.05171, -10.93, 18.4514, 13.6967, 7.01985, 5.60877, -12.2263, -6.2288, 35.3193, -25.2283
1.272, -1, -0.505715, 0.0559923, 1.05526, -10.9669, 18.4124, 13.7429, 7.04357, 5.62772, -12.2676, -6.24985, 35.3372, -25.3136
1.276, -1, -0.507418, 0.0561809, 1.05882, -11.0038, 18.3734, 13.7892, 7.06729, 5.64667, -12.3089, -6.27089, 35.3552, -25.3988
1.28, -1, -0.509121, 0.0563694, 1.06237, -11.0408, 18.3344, 13.8355, 7.09101, 5.66562, -12.3502, -6.29194, 35.3732, -25.484
1.284, -1, -0.510824, 0.056558, 1.06592, -11.0777, 18.2953, 13.8818, 7.11473, 5.68457, -12.3915, -6.31298, 35.3912, -25.5693
1.288, -1, -0.512527, 0.0567465, 1.06948, -11.1146, 18.2563, 13.9281, 7.13844, 5.70352, -12.4328, -6.33403, 35.4091, -25.6545
1.292, -1, -0.51423, 0.0569351, 1.07303, -11.1516, 18.2173, 13.9743, 7.16216, 5.72247, -12.4741, -6.35508, 35.4271, -25.7398
1.295, -1, -0.515933, 0.0571237, 1.07658, -11.1885, 18.1783, 14.0206, 7.18588, 5.74142, -12.5154, -6.37612, 35.4451, -25.825
1.3, -1, -0.517636, 0.0573122, 1.08014, -11.2254, 18.1392, 14.0669, 7.2096, 5.76038, -12.5567, -6.39717, 35.4631, -25.9103
1.304, -1, -0.519339, 0.0575008, 1.08369, -11.2624, 18.1002, 14.1132, 7.23332, 5.77933, -12.5981, -6.41822, 35.481, -25.9955
1.308, -1, -0.521043, 0.0576894, 1.08724, -11.2993, 18.0612, 14.1595, 7.25704, 5.79828, -12.6394, -6.43927, 35.499, -26.0807
1.312, -1, -0.522746, 0.057878, 1.0908, -11.3362, 18.0222, 14.2057, 7.28076, 5.81723, -12.6807, -6.46031, 35.517, -26.166
1.316, -1, -0.524449, 0.0580665, 1.09435, -11.3732, 17.9832, 14.252, 7.30448, 5.83619, -12.722, -6.48136, 35.535, -26.2513
1.32, -1, -0.526152, 0.0582551, 1.09791, -11.4101, 17.9441, 14.2983, 7.32821, 5.85514, -12.7633, -6.50241, 35.5529, -26.3365
1.324, -1, -0.527856, 0.0584437, 1.10146, -11.447, 17.9051, 14.3446, 7.35193, 5.87409, -12.8046, -6.52346, 35.5709, -26.4218
1.328, -1, -0.529559, 0.0586323, 1.10501, -11.484, 17.8661, 14.3909, 7.37565, 5.89305, -12.846, -6.54451, 35.5889, -26.507
1.332, -1, -0.531262, 0.0588209, 1.10857, -11.5209, 17.827, 14.4372, 7.39937, 5.912, -12.8873, -6.56556, 35.6069, -26.5923
1.336, -1, -0.532966, 0.0590095, 1.11212, -11.5578, 17.788, 14.4835, 7.4231, 5.93096, -12.9286, -6.58661, 35.6248, -26.6775
1.34, -1, -0.534669, 0.0591981, 1.11568, -11.5948, 17.749, 14.5297, 7.44682, 5.94991, -12.9699, -6.60766, 35.6428, -26.7628
1.344, -1, -0.536372, 0.0593867, 1.11923, -11.6317, 17.71, 14.576, 7.47054, 5.96887, -13.0112, -6.62871, 35.6608, -26.8481
1.348, -1, -0.538076, 0.0595753, 1.12279, -11.6687, 17.6709, 14.6223, 7.49427, 5.98782, -13.0526, -6.64976, 35.6788, -26.9333
1.352, -1, -0.539779, 0.0597639, 1.12634, -11.7056, 17.6319, 14.6686, 7.51799, 6.00678, -13.0939, -6.67082, 35.6967, -27.0186
1.356, -1, -0.541483, 0.0599525, 1.12989, -11.7425, 17.5929, 14.7149, 7.54172, 6.02574, -13.1352, -6.69187, 35.7147, -27.1039
1.36, -1, -0.543187, 0.0601411, 1.13345, -11.7795, 17.5538, 14.7612, 7.56544, 6.04469, -13.1765, -6.71292, 35.7327, -27.1891
1.364, -1, -0.54489, 0.0603297, 1.137, -11.8164, 17.5148, 14.8075, 7.58917, 6.06365, -13.2178, -6.73397, 35.7507, -27.2744
1.368, -1, -0.546594, 0.0605183, 1.14056, -11.8534, 17.4758, 14.8538, 7.6129, 6.08261, -13.2592, -6.75503, 35.7687, -27.3597
1.372, -1, -0.548298, 0.060707, 1.14411, -11.8903, 17.4367, 14.9001, 7.63663, 6.10157, -13.3005, -6.77608, 35.7866, -27.4449
1.376, -1, -0.550001, 0.0608956, 1.14767, -11.9273, 17.3977, 14.9464, 7.66035, 6.12053, -13.3418, -6.79713, 35.8046, -27.5302
1.38, -1, -0.551705, 0.0610842, 1.15122, -11.9642, 17.3587, 14.9927, 7.68408, 6.13949, -13.3832, -6.81819, 35.8226, -27.6155
1.384, -1, -0.553409, 0.0612729, 1.15478, -12.0012, 17.3196, 15.039, 7.70781, 6.15845, -13.4245, -6.83924, 35.8406, -27.7008
1.388, -1, -0.555113, 0.0614615, 1.15833, -12.0381, 17.2806, 15.0853, 7.73154, 6.17741, -13.4658, -6.8603, 35.8586, -27.786
1.392, -1, -0.556817, 0.0616502, 1.16189, -12.0751, 17.2415, 15.1316, 7.75527, 6.19637, -13.5071, -6.88136, 35.8765, -27.8713
1.396, -1, -0.558521, 0.0618388, 1.16544, -12.112, 17.2025, 15.1779, 7.779, 6.21533, -13.5485, -6.90242, 35.8945, -27.9566
1.4, -1, -0.560225, 0.0620275, 1.169, -12.149, 17.1635, 15.2242, 7.80274, 6.23429, -13.5898, -6.92347, 35.9125, -28.0419
1.404, -1, -0.561929, 0.0622162, 1.17256, -12.1859, 17.1244, 15.2705, 7.82647, 6.25325, -13.6311, -6.94453, 35.9305, -28.1272
1.408, -1, -0.563633, 0.0624049, 1.17611, -12.2229, 17.0854, 15.3168, 7.8502, 6.27222, -13.6725, -6.96559, 35.9485, -28.2125
1.412, -1, -0.565337, 0.0625935, 1.17967, -12.2598, 17.0463, 15.3631, 7.87394, 6.29118, -13.7138, -6.98665, 35.9665, -28.2978
1.416, -1, -0.567042, 0.0627822, 1.18322, -12.2968, 17.0073, 15.4094, 7.89767, 6.31014, -13.7552, -7.00771, 35.9844, -28.3831
1.42, -1, -0.568746, 0.0629709, 1.18678, -12.3337, 16.9682, 15.4557, 7.92141, 6.32911, -13.7965, -7.02877, 36.0024, -28.4684
1.424, -1, -0.57045, 0.0631596, 1.19034, -12.3707, 16.9292, 15.5021, 7.94514, 6.34807, -13.8378, -7.04984, 36.0204, -28.5537
1.428, -1, -0.572155, 0.0633483, 1.19389, -12.4076, 16.8901, 15.5484, 7.96888, 6.36704, -13.8792, -7.0709, 36.0384, -28.639
1.432, -1, -0.573859, 0.063537, 1.19745, -12.4446, 16.8511, 15.5947, 7.99262, 6.38601, -13.9205, -7.09196, 36.0564, -28.7243
1.436, -1, -0.575563, 0.0637258, 1.20101, -12.4816, 16.812, 15.641, 8.01636, 6.40497, -13.9619, -7.11303, 36.0744, -28.8097
1.44, -1, -0.577268, 0.0639145, 1.20456, -12.5185, 16.773, 15.6873, 8.0401, 6.42394, -14.0032, -7.13409, 36.0924, -28.895
1.444, -1, -0.578973, 0.0641032, 1.20812, -12.5555, 16.7339, 15.7336, 8.06384, 6.44291, -14.0446, -7.15516, 36.1104, -28.9803
1.448, -1, -0.580677, 0.0642919, 1.21168, -12.5925, 16.6948, 15.78, 8.08758, 6.46188, -14.0859, -7.17622, 36.1283, -29.0656
1.452, -1, -0.582382, 0.0644807, 1.21523, -12.6294, 16.6558, 15.8263, 8.11132, 6.48085, -14.1273, -7.19729, 36.1463, -29.1509
1.456, -1, -0.584087, 0.0646694, 1.21879, -12.6664, 16.6167, 15.8726, 8.13506, 6.49982, -14.1686, -7.21836, 36.1643, -29.2363
1.46, -1, -0.585792, 0.0648582, 1.22235, -12.7034, 16.5777, 15.9189, 8.15881, 6.51879, -14.21, -7.23942, 36.1823, -29.3216
1.464, -1, -0.587496, 0.0650469, 1.22591, -12.7403, 16.5386, 15.9653, 8.18255, 6.53776, -14.2513, -7.26049, 36.2003, -29.4069
1.468, -1, -0.589201, 0.0652357, 1.22946, -12.7773, 16.4995, 16.0116, 8.2063, 6.55674, -14.2927, -7.28156, 36.2183, -29.4923
1.472, -1, -0.590906, 0.0654245, 1.23302, -12.8143, 16.4605, 16.0579, 8.23004, 6.57571, -14.334, -7.30263, 36.2363, -29.5776
1.476, -1, -0.592611, 0.0656133, 1.23658, -12.8513, 16.4214, 16.1043, 8.25379, 6.59468, -14.3754, -7.3237, 36.2543, -29.663
1.48, -1, -0.594316, 0.065802, 1.24014, -12.8882, 16.3823, 16.1506, 8.27753, 6.61365, -14.4168, -7.34477, 36.2723, -29.7483
1.484, -1, -0.596022, 0.0659908, 1.24369, -12.9252, 16.3433, 16.1969, 8.30128, 6.63263, -14.4581, -7.36585, 36.2903, -29.8336
1.488, -1, -0.597727, 0.0661796, 1.24725, -12.9622, 16.3042, 16.2433, 8.32503, 6.6516, -14.4995, -7.38692, 36.3083, -29.919
1.492, -1, -0.599432, 0.0663684, 1.25081, -12.9992, 16.2651, 16.2896, 8.34878, 6.67058, -14.5409, -7.40799, 36.3263, -30.0043
1.496, -1, -0.601137, 0.0665572, 1.25437, -13.0361, 16.226, 16.336, 8.37253, 6.68956, -14.5822, -7.42907, 36.3443, -30.0897
1.5, -1, -0.602843, 0.066746, 1.25793, -13.0731, 16.187, 16.3823, 8.39628, 6.70853, -14.6236, -7.45014, 36.3623, -30.1751
1.504, -1, -0.604548, 0.0669349, 1.26148, -13.1101, 16.1479, 16.4286, 8.42003, 6.72751, -14.665, -7.47122, 36.3803, -30.2604
1.508, -1, -0.606254, 0.0671237, 1.26504, -13.1471, 16.1088, 16.475, 8.44378, 6.74649, -14.7063, -7.49229, 36.3983, -30.3458
1.512, -1, -0.607959, 0.0673125, 1.2686, -13.1841, 16.0697, 16.5213, 8.46754, 6.76547, -14.7477, -7.51337, 36.4163, -30.4312
1.516, -1, -0.609665, 0.0675013, 1.27216, -13.2211, 16.0307, 16.5677, 8.49129, 6.78445, -14.7891, -7.53445, 36.4343, -30.5165
1.52, -1, -0.61137, 0.0676902, 1.27572, -13.258, 15.9916, 16.614, 8.51505, 6.80343, -14.8304, -7.55553, 36.4523, -30.6019
1.524, -1, -0.613076, 0.067879, 1.27928, -13.295, 15.9525, 16.6604, 8.5388, 6.82241, -14.8718, -7.5766, 36.4703, -30.6873
1.528, -1, -0.614782, 0.0680679, 1.28284, -13.332, 15.9134, 16.7067, 8.56256, 6.84139, -14.9132, -7.59768, 36.4883, -30.7726
1.532, -1, -0.616487, 0.0682568, 1.2864, -13.369, 15.8743, 16.7531, 8.58631, 6.86037, -14.9546, -7.61876, 36.5063, -30.858
1.536, -1, -0.618193, 0.0684456, 1.28996, -13.406, 15.8353, 16.7994, 8.61007, 6.87935, -14.9959, -7.63984, 36.5243, -30.9434
1.54, -1, -0.619899, 0.0686345, 1.29352, -13.443, 15.7962, 16.8458, 8.63383, 6.89834, -15.0373, -7.66093, 36.5423, -31.0288
1.544, -1, -0.621605, 0.0688234, 1.29708, -13.48, 15.7571, 16.8922, 8.65759, 6.91732, -15.0787, -7.68201, 36.5603, -31.1142
1.548, -1, -0.623311, 0.0690123, 1.30064, -13.517, 15.718, 16.9385, 8.68135, 6.9363, -15.1201, -7.70309, 36.5783, -31.1996
1.552, -1, -0.625017, 0.0692011, 1.3042, -13.554, 15.6789, 16.9849, 8.70511, 6.95529, -15.1615, -7.72417, 36.5963, -31.285
1.556, -1, -0.626723, 0.06939, 1.30776, -13.591, 15.6398, 17.0312, 8.72887, 6.97427, -15.2029, -7.74526, 36.6143, -31.3704
1.56, -1, -0.628429, 0.0695789, 1.31132, -13.628, 15.6007, 17.0776, 8.75263, 6.99326, -15.2442, -7.76634, 36.6323, -31.4558
1.564, -1, -0.630136, 0.0697678, 1.31488, -13.665, 15.5616, 17.124, 8.77639, 7.01225, -15.2856, -7.78743, 36.6503, -31.5412
1.568, -1, -0.631842, 0.0699568, 1.31844, -13.702, 15.5225, 17.1703, 8.80016, 7.03123, -15.327, -7.80851, 36.6683, -31.6266
1.572, -1, -0.633548, 0.0701457, 1.322, -13.739, 15.4834, 17.2167, 8.82392, 7.05022, -15.3684, -7.8296, 36.6863, -31.712
1.576, -1, -0.635255, 0.0703346, 1.32556, -13.776, 15.4443, 17.2631, 8.84769, 7.06921, -15.4098, -7.85069, 36.7043, -31.7974
1.58, -1, -0.636961, 0.0705235, 1.32912, -13.813, 15.4052, 17.3094, 8.87145, 7.0882, -15.4512, -7.87178, 36.7223, -31.8828
1.584, -1, -0.638668, 0.0707125, 1.33268, -13.85, 15.3661, 17.3558, 8.89522, 7.10719, -15.4926, -7.89287, 36.7403, -31.9682
1.588, -1, -0.640374, 0.0709014, 1.33624, -13.887, 15.327, 17.4022, 8.91899, 7.12618, -15.534, -7.91395, 36.7584, -32.0536
1.592, -1, -0.642081, 0.0710904, 1.3398, -13.924, 15.2879, 17.4486, 8.94275, 7.14517, -15.5754, -7.93504, 36.7764, -32.139
1.596, -1, -0.643787, 0.0712793, 1.34336, -13.961, 15.2488, 17.4949, 8.96652, 7.16416, -15.6168, -7.95613, 36.7944, -32.2245
1.6, -1, -0.645494, 0.0714683, 1.34692, -13.998, 15.2097, 17.5413, 8.99029, 7.18315, -15.6582, -7.97723, 36.8124, -32.3099
1.604, -1, -0.647201, 0.0716572, 1.35048, -14.035, 15.1706, 17.5877, 9.01406, 7.20214, -15.6996, -7.99832, 36.8304, -32.3953
1.608, -1, -0.648908, 0.0718462, 1.35405, -14.072, 15.1315, 17.6341, 9.03783, 7.22114, -15.741, -8.01941, 36.8484, -32.4808
1.612, -1, -0.650615, 0.0720352, 1.35761, -14.1091, 15.0924, 17.6805, 9.06161, 7.24013, -15.7824, -8.0405, 36.8664, -32.5662
1.616, -1, -0.652321, 0.0722242, 1.36117, -14.1461, 15.0533, 17.7268, 9.08538, 7.25913, -15.8238, -8.0616, 36.8844, -32.6516
1.62, -1, -0.654028, 0.0724132, 1.36473, -14.1831, 15.0142, 17.7732, 9.10915, 7.27812, -15.8652, -8.08269, 36.9025, -32.7371
1.624, -1, -0.655735, 0.0726022, 1.36829, -14.2201, 14.9751, 17.8196, 9.13293, 7.29712, -15.9066, -8.10379, 36.9205, -32.8225
1.628, -1, -0.657443, 0.0727912, 1.37185, -14.2571, 14.936, 17.866, 9.1567, 7.31611, -15.948, -8.12488, 36.9385, -32.908
1.632, -1, -0.65915, 0.0729802, 1.37542, -14.2941, 14.8968, 17.9124, 9.18048, 7.33511, -15.9894, -8.14598, 36.9565, -32.9934
1.636, -1, -0.660857, 0.0731692, 1.37898, -14.3312, 14.8577, 17.9588, 9.20425, 7.35411, -16.0308, -8.16708, 36.9745, -33.0788
1.64, -1, -0.662564, 0.0733582, 1.38254, -14.3682, 14.8186, 18.0052, 9.22803, 7.3731, -16.0722, -8.18818, 36.9925, -33.1643
1.644, -1, -0.664271, 0.0735473, 1.3861, -14.4052, 14.7795, 18.0516, 9.25181, 7.3921, -16.1137, -8.20928, 37.0106, -33.2498
1.648, -1, -0.665979, 0.0737363, 1.38967, -14.4422, 14.7404, 18.098, 9.27559, 7.4111, -16.1551, -8.23037, 37.0286, -33.3352
1.652, -1, -0.667686, 0.0739253, 1.39323, -14.4793, 14.7013, 18.1444, 9.29937, 7.4301, -16.1965, -8.25147, 37.0466, -33.4207
1.656, -1, -0.669394, 0.0741144, 1.39679, -14.5163, 14.6621, 18.1908, 9.32315, 7.4491, -16.2379, -8.27258, 37.0646, -33.5061
1.66, -1, -0.671101, 0.0743034, 1.40035, -14.5533, 14.623, 18.2372, 9.34693, 7.4681, -16.2793, -8.29368, 37.0826, -33.5916
1.664, -1, -0.672809, 0.0744925, 1.40392, -14.5903, 14.5839, 18.2836, 9.37071, 7.4871, -16.3207, -8.31478, 37.1006, -33.6771
1.668, -1, -0.674516, 0.0746816, 1.40748, -14.6274, 14.5448, 18.33, 9.39449, 7.50611, -16.3622, -8.33588, 37.1187, -33.7625
1.672, -1, -0.676224, 0.0748706, 1.41104, -14.6644, 14.5056, 18.3764, 9.41827, 7.52511, -16.4036, -8.35699, 37.1367, -33.848
1.676, -1, -0.677932, 0.0750597, 1.41461, -14.7014, 14.4665, 18.4228, 9.44206, 7.54411, -16.445, -8.37809, 37.1547, -33.9335
1.68, -1, -0.679639, 0.0752488, 1.41817, -14.7385, 14.4274, 18.4692, 9.46584, 7.56312, -16.4864, -8.39919, 37.1727, -34.019
1.684, -1, -0.681347, 0.0754379, 1.42173, -14.7755, 14.3882, 18.5156, 9.48963, 7.58212, -16.5279, -8.4203, 37.1908, -34.1045
1.688, -1, -0.683055, 0.075627, 1.4253, -14.8125, 14.3491, 18.562, 9.51341, 7.60113, -16.5693, -8.44141, 37.2088, -34.1899
1.692, -1, -0.684763, 0.0758161, 1.42886, -14.8496, 14.31, 18.6084, 9.5372, 7.62013, -16.6107, -8.46251, 37.2268, -34.2754
1.696, -1, -0.686471, 0.0760052, 1.43242, -14.8866, 14.2708, 18.6548, 9.56099, 7.63914, -16.6522, -8.48362, 37.2448, -34.3609
1.7, -1, -0.688179, 0.0761943, 1.43599, -14.9237, 14.2317, 18.7013, 9.58478, 7.65815, -16.6936, -8.50473, 37.2629, -34.4464
1.704, -1, -0.689887, 0.0763834, 1.43955, -14.9607, 14.1926, 18.7477, 9.60857, 7.67715, -16.735, -8.52584, 37.2809, -34.5319
1.708, -1, -0.691595, 0.0765725, 1.44312, -14.9977, 14.1534, 18.7941, 9.63236, 7.69616, -16.7765, -8.54695, 37.2989, -34.6174
1.712, -1, -0.693304, 0.0767616, 1.44668, -15.0348, 14.1143, 18.8405, 9.65615, 7.71517, -16.8179, -8.56806, 37.3169, -34.7029
1.716, -1, -0.695012, 0.0769508, 1.45025, -15.0718, 14.0751, 18.8869, 9.67994, 7.73418, -16.8593, -8.58917, 37.335, -34.7884
1.72, -1, -0.69672, 0.0771399, 1.45381, -15.1089, 14.036, 18.9333, 9.70373, 7.75319, -16.9008, -8.61028, 37.353, -34.8739
1.724, -1, -0.698429, 0.0773291, 1.45738, -15.1459, 13.9969, 18.9798, 9.72752, 7.7722, -16.9422, -8.63139, 37.371, -34.9594
1.728, -1, -0.700137, 0.0775182, 1.46094, -15.183, 13.9577, 19.0262, 9.75132, 7.79121, -16.9837, -8.6525, 37.3891, -35.0449
1.732, -1, -0.701846, 0.0777074, 1.4645, -15.22, 13.9186, 19.0726, 9.77511, 7.81022, -17.0251, -8.67362, 37.4071, -35.1305
1.736, -1, -0.703554, 0.0778966, 1.46807, -15.2571, 13.8794, 19.1191, 9.79891, 7.82924, -17.0665, -8.69473, 37.4251, -35.216
1.74, -1, -0.705263, 0.0780857, 1.47164, -15.2941, 13.8403, 19.1655, 9.8227, 7.84825, -17.108, -8.71585, 37.4432, -35.3015
1.744, -1, -0.706971, 0.0782749, 1.4752, -15.3312, 13.8011, 19.2119, 9.8465, 7.86726, -17.1494, -8.73696, 37.4612, -35.387
1.748, -1, -0.70868, 0.0784641, 1.47877, -15.3682, 13.762, 19.2583, 9.8703, 7.88628, -17.1909, -8.75808, 37.4792, -35.4726
1.752, -1, -0.710389, 0.0786533, 1.48233, -15.4053, 13.7228, 19.3048, 9.8941, 7.90529, -17.2323, -8.77919, 37.4972, -35.5581
1.756, -1, -0.712098, 0.0788425, 1.4859, -15.4423, 13.6837, 19.3512, 9.91789, 7.92431, -17.2738, -8.80031, 37.5153, -35.6436
1.76, -1, -0.713807, 0.0790317, 1.48946, -15.4794, 13.6445, 19.3977, 9.94169, 7.94332, -17.3152, -8.82143, 37.5333, -35.7291
1.764, -1, -0.715515, 0.0792209, 1.49303, -15.5164, 13.6054, 19.4441, 9.96549, 7.96234, -17.3567, -8.84255, 37.5514, -35.8147
1.768, -1, -0.717224, 0.0794101, 1.49659, -15.5535, 13.5662, 19.4905, 9.9893, 7.98136, -17.3981, -8.86367, 37.5694, -35.9002
1.772, -1, -0.718934, 0.0795993, 1.50016, -15.5906, 13.527, 19.537, 10.0131, 8.00037, -17.4396, -8.88479, 37.5874, -35.9858
1.776, -1, -0.720643, 0.0797885, 1.50373, -15.6276, 13.4879, 19.5834, 10.0369, 8.01939, -17.4811, -8.90591, 37.6055, -36.0713
1.78, -1, -0.722352, 0.0799778, 1.50729, -15.6647, 13.4487, 19.6299, 10.0607, 8.03841, -17.5225, -8.92703, 37.6235, -36.1569
1.784, -1, -0.724061, 0.080167, 1.51086, -15.7018, 13.4096, 19.6763, 10.0845, 8.05743, -17.564, -8.94815, 37.6415, -36.2424
1.788, -1, -0.72577, 0.0803562, 1.51443, -15.7388, 13.3704, 19.7228, 10.1083, 8.07645, -17.6054, -8.96928, 37.6596, -36.328
1.792, -1, -0.72748, 0.0805455, 1.51799, -15.7759, 13.3312, 19.7692, 10.1321, 8.09547, -17.6469, -8.9904, 37.6776, -36.4135
1.796, -1, -0.729189, 0.0807348, 1.52156, -15.813, 13.2921, 19.8157, 10.1559, 8.11449, -17.6884, -9.01152, 37.6957, -36.4991
1.8, -1, -0.730898, 0.080924, 1.52513, -15.85, 13.2529, 19.8621, 10.1797, 8.13352, -17.7298, -9.03265, 37.7137, -36.5846
1.804, -1, -0.732608, 0.0811133, 1.52869, -15.8871, 13.2137, 19.9086, 10.2035, 8.15254, -17.7713, -9.05377, 37.7317, -36.6702
1.808, -1, -0.734317, 0.0813026, 1.53226, -15.9242, 13.1746, 19.955, 10.2274, 8.17156, -17.8128, -9.0749, 37.7498, -36.7558
1.812, -1, -0.736027, 0.0814918, 1.53583, -15.9612, 13.1354, 20.0015, 10.2512, 8.19059, -17.8542, -9.09603, 37.7678, -36.8413
1.816, -1, -0.737736, 0.0816811, 1.53939, -15.9983, 13.0962, 20.0479, 10.275, 8.20961, -17.8957, -9.11716, 37.7859, -36.9269
1.82, -1, -0.739446, 0.0818704, 1.54296, -16.0354, 13.0571, 20.0944, 10.2988, 8.22864, -17.9372, -9.13828, 37.8039, -37.0125
1.824, -1, -0.741156, 0.0820597, 1.54653, -16.0725, 13.0179, 20.1409, 10.3226, 8.24766, -17.9786, -9.15941, 37.8219, -37.0981
1.828, -1, -0.742866, 0.082249, 1.5501, -16.1095, 12.9787, 20.1873, 10.3464, 8.26669, -18.0201, -9.18054, 37.84, -37.1837
1.832, -1, -0.744576, 0.0824383, 1.55366, -16.1466, 12.9395, 20.2338, 10.3702, 8.28572, -18.0616, -9.20167, 37.858, -37.2692
1.836, -1, -0.746285, 0.0826277, 1.55723, -16.1837, 12.9003, 20.2802, 10.394, 8.30474, -18.1031, -9.2228, 37.8761, -37.3548
1.84, -1, -0.747996, 0.082817, 1.5608, -16.2208, 12.8612, 20.3267, 10.4178, 8.32377, -18.1446, -9.24394, 37.8941, -37.4404
1.844, -1, -0.749706, 0.0830063, 1.56437, -16.2579, 12.822, 20.3732, 10.4417, 8.3428, -18.186, -9.26507, 37.9122, -37.526
1.848, -1, -0.751416, 0.0831956, 1.56794, -16.2949, 12.7828, 20.4196, 10.4655, 8.36183, -18.2275, -9.2862, 37.9302, -37.6116
1.852, -1, -0.753126, 0.083385, 1.57151, -16.332, 12.7436, 20.4661, 10.4893, 8.38086, -18.269, -9.30733, 37.9483, -37.6972
1.856, -1, -0.754836, 0.0835743, 1.57507, -16.3691, 12.7044, 20.5126, 10.5131, 8.39989, -18.3105, -9.32847, 37.9663, -37.7828
1.86, -1, -0.756546, 0.0837637, 1.57864, -16.4062, 12.6652, 20.5591, 10.5369, 8.41892, -18.352, -9.3496, 37.9844, -37.8684
1.864, -1, -0.758257, 0.0839531, 1.58221, -16.4433, 12.6261, 20.6055, 10.5608, 8.43795, -18.3935, -9.37074, 38.0024, -37.954
1.868, -1, -0.759967, 0.0841424, 1.58578, -16.4804, 12.5869, 20.652, 10.5846, 8.45699, -18.4349, -9.39188, 38.0205, -38.0396
1.872, -1, -0.761678, 0.0843318, 1.58935, -16.5175, 12.5477, 20.6985, 10.6084, 8.47602, -18.4764, -9.41302, 38.0385, -38.1252
1.876, -1, -0.763388, 0.0845212, 1.59292, -16.5546, 12.5085, 20.745, 10.6322, 8.49506, -18.5179, -9.43415, 38.0566, -38.2108
1.88, -1, -0.765099, 0.0847106, 1.59649, -16.5917, 12.4693, 20.7915, 10.656, 8.51409, -18.5594, -9.45529, 38.0746, -38.2965
1.884, -1, -0.76681, 0.0849, 1.60006, -16.6288, 12.4301, 20.838, 10.6799, 8.53313, -18.6009, -9.47643, 38.0927, -38.3821
1.888, -1, -0.768521, 0.0850894, 1.60363, -16.6659, 12.3909, 20.8845, 10.7037, 8.55217, -18.6424, -9.49758, 38.1107, -38.4677
1.892, -1, -0.770231, 0.0852788, 1.6072, -16.703, 12.3517, 20.9309, 10.7275, 8.5712, -18.6839, -9.51872, 38.1288, -38.5534
1.896, -1, -0.771942, 0.0854683, 1.61077, -16.7401, 12.3125, 20.9774, 10.7514, 8.59024, -18.7254, -9.53986, 38.1468, -38.639
1.9, -1, -0.773653, 0.0856577, 1.61434, -16.7772, 12.2733, 21.0239, 10.7752, 8.60928, -18.7669, -9.56101, 38.1649, -38.7246
1.904, -1, -0.775364, 0.0858472, 1.61791, -16.8143, 12.2341, 21.0704, 10.799, 8.62832, -18.8084, -9.58215, 38.183, -38.8103
1.908, -1, -0.777076, 0.0860366, 1.62148, -16.8514, 12.1949, 21.1169, 10.8228, 8.64737, -18.8499, -9.6033, 38.201, -38.8959
1.912, -1, -0.778787, 0.0862261, 1.62505, -16.8885, 12.1557, 21.1634, 10.8467, 8.66641, -18.8914, -9.62445, 38.2191, -38.9816
1.916, -1, -0.780498, 0.0864156, 1.62862, -16.9256, 12.1165, 21.2099, 10.8705, 8.68545, -18.933, -9.6456, 38.2371, -39.0672
1.92, -1, -0.78221, 0.086605, 1.63219, -16.9627, 12.0772, 21.2564, 10.8943, 8.7045, -18.9745, -9.66675, 38.2552, -39.1529
1.924, -1, -0.783921, 0.0867945, 1.63576, -16.9998, 12.038, 21.3029, 10.9182, 8.72354, -19.016, -9.6879, 38.2733, -39.2386
1.928, -1, -0.785633, 0.086984, 1.63933, -17.0369, 11.9988, 21.3495, 10.942, 8.74259, -19.0575, -9.70905, 38.2913, -39.3242
1.932, -1, -0.787344, 0.0871735, 1.6429, -17.0741, 11.9596, 21.396, 10.9659, 8.76163, -19.099, -9.7302, 38.3094, -39.4099
1.936, -1, -0.789056, 0.0873631, 1.64648, -17.1112, 11.9204, 21.4425, 10.9897, 8.78068, -19.1405, -9.75135, 38.3275, -39.4956
1.94, -1, -0.790768, 0.0875526, 1.65005, -17.1483, 11.8812, 21.489, 11.0135, 8.79973, -19.1821, -9.77251, 38.3455, -39.5813
1.944, -1, -0.79248, 0.0877421, 1.65362, -17.1854, 11.8419, 21.5355, 11.0374, 8.81878, -19.2236, -9.79366, 38.3636, -39.667
1.948, -1, -0.794192, 0.0879317, 1.65719, -17.2225, 11.8027, 21.582, 11.0612, 8.83783, -19.2651, -9.81482, 38.3816, -39.7526
1.952, -1, -0.795904, 0.0881212, 1.66076, -17.2597, 11.7635, 21.6286, 11.0851, 8.85688, -19.3067, -9.83598, 38.3997, -39.8383
1.956, -1, -0.797616, 0.0883108, 1.66434, -17.2968, 11.7243, 21.6751, 11.1089, 8.87593, -19.3482, -9.85713, 38.4178, -39.924
1.96, -1, -0.799328, 0.0885004, 1.66791, -17.3339, 11.685, 21.7216, 11.1328, 8.89499, -19.3897, -9.87829, 38.4359, -40.0097
1.964, -1, -0.80104, 0.0886899, 1.67148, -17.3711, 11.6458, 21.7681, 11.1566, 8.91404, -19.4312, -9.89945, 38.4539, -40.0954
1.968, -1, -0.802753, 0.0888795, 1.67506, -17.4082, 11.6066, 21.8147, 11.1805, 8.93309, -19.4728, -9.92062, 38.472, -40.1811
1.972, -1, -0.804465, 0.0890691, 1.67863, -17.4453, 11.5673, 21.8612, 11.2043, 8.95215, -19.5143, -9.94178, 38.4901, -40.2668
1.976, -1, -0.806178, 0.0892587, 1.6822, -17.4825, 11.5281, 21.9077, 11.2282, 8.97121, -19.5559, -9.96294, 38.5081, -40.3526
1.98, -1, -0.80789, 0.0894483, 1.68578, -17.5196, 11.4888, 21.9543, 11.252, 8.99026, -19.5974, -9.9841, 38.5262, -40.4383
1.984, -1, -0.809603, 0.0896379, 1.68935, -17.5567, 11.4496, 22.0008, 11.2759, 9.00932, -19.639, -10.0053, 38.5443, -40.524
1.988, -1, -0.811315, 0.0898276, 1.69292, -17.5939, 11.4104, 22.0474, 11.2997, 9.02838, -19.6805, -10.0264, 38.5624, -40.6097
1.992, -1, -0.813028, 0.0900172, 1.6965, -17.631, 11.3711, 22.0939, 11.3236, 9.04744, -19.722, -10.0476, 38.5804, -40.6955
1.996, -1, -0.814741, 0.0902069, 1.70007, -17.6682, 11.3319, 22.1405, 11.3474, 9.0665, -19.7636, -10.0688, 38.5985, -40.7812
1.999, -1, -0.816454, 0.0903965, 1.70364, -17.7053, 11.2926, 22.187, 11.3713, 9.08556, -19.8051, -10.0899, 38.6166, -40.8669
2.004, -1, -0.818167, 0.0905862, 1.70722, -17.7425, 11.2534, 22.2336, 11.3951, 9.10463, -19.8467, -10.1111, 38.6347, -40.9527
2.008, -1, -0.81988, 0.0907759, 1.71079, -17.7796, 11.2141, 22.2801, 11.419, 9.12369, -19.8883, -10.1323, 38.6528, -41.0384
2.012, -1, -0.821594, 0.0909655, 1.71437, -17.8168, 11.1749, 22.3267, 11.4429, 9.14275, -19.9298, -10.1535, 38.6708, -41.1242
2.015, -1, -0.823307, 0.0911552, 1.71794, -17.8539, 11.1356, 22.3732, 11.4667, 9.16182, -19.9714, -10.1746, 38.6889, -41.2099
2.019, -1, -0.82502, 0.0913449, 1.72152, -17.8911, 11.0964, 22.4198, 11.4906, 9.18089, -20.0129, -10.1958, 38.707, -41.2957
2.024, -1, -0.826734, 0.0915346, 1.72509, -17.9282, 11.0571, 22.4663, 11.5144, 9.19995, -20.0545, -10.217, 38.7251, -41.3815
2.028, -1, -0.828447, 0.0917243, 1.72867, -17.9654, 11.0178, 22.5129, 11.5383, 9.21902, -20.0961, -10.2381, 38.7432, -41.4672
2.031, -1, -0.830161, 0.0919141, 1.73224, -18.0025, 10.9786, 22.5595, 11.5622, 9.23809, -20.1376, -10.2593, 38.7612, -41.553
2.036, -1, -0.831874, 0.0921038, 1.73582, -18.0397, 10.9393, 22.606, 11.586, 9.25716, -20.1792, -10.2805, 38.7793, -41.6388
2.04, -1, -0.833588, 0.0922935, 1.7394, -18.0769, 10.9, 22.6526, 11.6099, 9.27623, -20.2208, -10.3017, 38.7974, -41.7246
2.044, -1, -0.835302, 0.0924833, 1.74297, -18.114, 10.8608, 22.6992, 11.6338, 9.2953, -20.2623, -10.3229, 38.8155, -41.8103
2.048, -1, -0.837016, 0.0926731, 1.74655, -18.1512, 10.8215, 22.7458, 11.6576, 9.31437, -20.3039, -10.344, 38.8336, -41.8961
2.051, -1, -0.83873, 0.0928628, 1.75013, -18.1884, 10.7822, 22.7923, 11.6815, 9.33344, -20.3455, -10.3652, 38.8517, -41.9819
2.055, -1, -0.840444, 0.0930526, 1.7537, -18.2255, 10.743, 22.8389, 11.7054, 9.35252, -20.3871, -10.3864, 38.8698, -42.0677
2.06, -1, -0.842158, 0.0932424, 1.75728, -18.2627, 10.7037, 22.8855, 11.7293, 9.37159, -20.4286, -10.4076, 38.8879, -42.1535
2.064, -1, -0.843872, 0.0934322, 1.76086, -18.2999, 10.6644, 22.9321, 11.7531, 9.39067, -20.4702, -10.4288, 38.906, -42.2393
2.068, -1, -0.845586, 0.093622, 1.76443, -18.337, 10.6251, 22.9787, 11.777, 9.40974, -20.5118, -10.45, 38.924, -42.3251
2.071, -1, -0.847301, 0.0938118, 1.76801, -18.3742, 10.5859, 23.0252, 11.8009, 9.42882, -20.5534, -10.4711, 38.9421, -42.4109
2.076, -1, -0.849015, 0.0940016, 1.77159, -18.4114, 10.5466, 23.0718, 11.8248, 9.4479, -20.595, -10.4923, 38.9602, -42.4967
2.08, -1, -0.85073, 0.0941914, 1.77516, -18.4486, 10.5073, 23.1184, 11.8486, 9.46698, -20.6366, -10.5135, 38.9783, -42.5825
2.084, -1, -0.852444, 0.0943813, 1.77874, -18.4858, 10.468, 23.165, 11.8725, 9.48606, -20.6782, -10.5347, 38.9964, -42.6684
2.087, -1, -0.854159, 0.0945711, 1.78232, -18.5229, 10.4287, 23.2116, 11.8964, 9.50514, -20.7197, -10.5559, 39.0145, -42.7542
2.092, -1, -0.855874, 0.094761, 1.7859, -18.5601, 10.3894, 23.2582, 11.9203, 9.52422, -20.7613, -10.5771, 39.0326, -42.84
2.096, -1, -0.857589, 0.0949508, 1.78948, -18.5973, 10.3501, 23.3048, 11.9442, 9.5433, -20.8029, -10.5983, 39.0507, -42.9258
2.1, -1, -0.859304, 0.0951407, 1.79305, -18.6345, 10.3108, 23.3514, 11.968, 9.56238, -20.8445, -10.6195, 39.0688, -43.0117
2.104, -1, -0.861019, 0.0953306, 1.79663, -18.6717, 10.2715, 23.398, 11.9919, 9.58147, -20.8861, -10.6407, 39.0869, -43.0975
2.107, -1, -0.862734, 0.0955204, 1.80021, -18.7089, 10.2323, 23.4446, 12.0158, 9.60055, -20.9277, -10.6619, 39.105, -43.1834
2.111, -1, -0.864449, 0.0957103, 1.80379, -18.7461, 10.193, 23.4912, 12.0397, 9.61964, -20.9693, -10.6831, 39.1231, -43.2692
2.116, -1, -0.866164, 0.0959002, 1.80737, -18.7833, 10.1537, 23.5378, 12.0636, 9.63873, -21.011, -10.7042, 39.1412, -43.3551
2.12, -1, -0.867879, 0.0960902, 1.81095, -18.8205, 10.1144, 23.5844, 12.0875, 9.65781, -21.0526, -10.7254, 39.1593, -43.4409
2.124, -1, -0.869595, 0.0962801, 1.81453, -18.8577, 10.0751, 23.6311, 12.1114, 9.6769, -21.0942, -10.7466, 39.1774, -43.5268
2.127, -1, -0.87131, 0.09647, 1.81811, -18.8949, 10.0357, 23.6777, 12.1353, 9.69599, -21.1358, -10.7678, 39.1955, -43.6126
2.132, -1, -0.873025, 0.0966599, 1.82169, -18.9321, 9.99644, 23.7243, 12.1592, 9.71508, -21.1774, -10.789, 39.2136, -43.6985
2.136, -1, -0.874741, 0.0968499, 1.82527, -18.9693, 9.95713, 23.7709, 12.183, 9.73417, -21.219, -10.8102, 39.2317, -43.7844
2.14, -1, -0.876457, 0.0970398, 1.82885, -19.0065, 9.91782, 23.8175, 12.2069, 9.75326, -21.2606, -10.8314, 39.2498, -43.8703
2.143, -1, -0.878172, 0.0972298, 1.83243, -19.0437, 9.87851, 23.8642, 12.2308, 9.77235, -21.3022, -10.8526, 39.2679, -43.9561
2.148, -1, -0.879888, 0.0974198, 1.83601, -19.0809, 9.8392, 23.9108, 12.2547, 9.79145, -21.3439, -10.8739, 39.286, -44.042
2.152, -1, -0.881604, 0.0976097, 1.83959, -19.1181, 9.79988, 23.9574, 12.2786, 9.81054, -21.3855, -10.8951, 39.3042, -44.1279
2.156, -1, -0.88332, 0.0977997, 1.84317, -19.1553, 9.76056, 24.004, 12.3025, 9.82964, -21.4271, -10.9163, 39.3223, -44.2138
2.16, -1, -0.885036, 0.0979897, 1.84675, -19.1925, 9.72125, 24.0507, 12.3264, 9.84873, -21.4687, -10.9375, 39.3404, -44.2997
2.163, -1, -0.886752, 0.0981797, 1.85033, -19.2297, 9.68193, 24.0973, 12.3503, 9.86783, -21.5104, -10.9587, 39.3585, -44.3856
2.168, -1, -0.888468, 0.0983697, 1.85391, -19.2669, 9.6426, 24.1439, 12.3742, 9.88693, -21.552, -10.9799, 39.3766, -44.4715
2.172, -1, -0.890185, 0.0985598, 1.85749, -19.3042, 9.60328, 24.1906, 12.3981, 9.90602, -21.5936, -11.0011, 39.3947, -44.5574
2.176, -1, -0.891901, 0.0987498, 1.86107, -19.3414, 9.56396, 24.2372, 12.422, 9.92512, -21.6353, -11.0223, 39.4128, -44.6433
2.179, -1, -0.893617, 0.0989398, 1.86465, -19.3786, 9.52463, 24.2839, 12.4459, 9.94422, -21.6769, -11.0435, 39.4309, -44.7292
2.184, -1, -0.895334, 0.0991299, 1.86823, -19.4158, 9.4853, 24.3305, 12.4698, 9.96332, -21.7185, -11.0647, 39.449, -44.8151
2.188, -1, -0.89705, 0.0993199, 1.87182, -19.453, 9.44597, 24.3771, 12.4938, 9.98243, -21.7602, -11.0859, 39.4672, -44.901
2.192, -1, -0.898767, 0.09951, 1.8754, -19.4903, 9.40664, 24.4238, 12.5177, 10.0015, -21.8018, -11.1072, 39.4853, -44.987
2.196, -1, -0.900484, 0.0997, 1.87898, -19.5275, 9.3673, 24.4704, 12.5416, 10.0206, -21.8434, -11.1284, 39.5034, -45.0729
2.199, -1, -0.902201, 0.0998901, 1.88256, -19.5647, 9.32797, 24.5171, 12.5655, 10.0397, -21.8851, -11.1496, 39.5215, -45.1588
2.204, -1, -0.903917, 0.10008, 1.88614, -19.602, 9.28863, 24.5638, 12.5894, 10.0588, -21.9267, -11.1708, 39.5396, -45.2447
2.208, -1, -0.905634, 0.10027, 1.88973, -19.6392, 9.24929, 24.6104, 12.6133, 10.0779, -21.9684, -11.192, 39.5578, -45.3307
2.212, -1, -0.907351, 0.10046, 1.89331, -19.6764, 9.20995, 24.6571, 12.6372, 10.0971, -22.01, -11.2132, 39.5759, -45.4166
2.216, -1, -0.909068, 0.100651, 1.89689, -19.7137, 9.17061, 24.7037, 12.6611, 10.1162, -22.0517, -11.2345, 39.594, -45.5026
2.219, -1, -0.910786, 0.100841, 1.90048, -19.7509, 9.13126, 24.7504, 12.685, 10.1353, -22.0933, -11.2557, 39.6121, -45.5885
2.224, -1, -0.912503, 0.101031, 1.90406, -19.7881, 9.09192, 24.7971, 12.709, 10.1544, -22.135, -11.2769, 39.6302, -45.6745
2.228, -1, -0.91422, 0.101221, 1.90764, -19.8254, 9.05257, 24.8437, 12.7329, 10.1735, -22.1766, -11.2981, 39.6484, -45.7604
2.232, -1, -0.915937, 0.101411, 1.91123, -19.8626, 9.01322, 24.8904, 12.7568, 10.1926, -22.2183, -11.3193, 39.6665, -45.8464
2.235, -1, -0.917655, 0.101601, 1.91481, -19.8999, 8.97387, 24.9371, 12.7807, 10.2117, -22.26, -11.3406, 39.6846, -45.9324
2.24, -1, -0.919372, 0.101791, 1.91839, -19.9371, 8.93452, 24.9837, 12.8046, 10.2308, -22.3016, -11.3618, 39.7027, -46.0183
2.244, -1, -0.92109, 0.101982, 1.92198, -19.9743, 8.89516, 25.0304, 12.8286, 10.2499, -22.3433, -11.383, 39.7209, -46.1043
2.248, -1, -0.922808, 0.102172, 1.92556, -20.0116, 8.85581, 25.0771, 12.8525, 10.269, -22.385, -11.4043, 39.739, -46.1903
2.252, -1, -0.924525, 0.102362, 1.92915, -20.0488, 8.81645, 25.1238, 12.8764, 10.2882, -22.4266, -11.4255, 39.7571, -46.2762
2.255, -1, -0.926243, 0.102552, 1.93273, -20.0861, 8.77709, 25.1704, 12.9003, 10.3073, -22.4683, -11.4467, 39.7753, -46.3622
2.259, -1, -0.927961, 0.102742, 1.93631, -20.1233, 8.73773, 25.2171, 12.9243, 10.3264, -22.51, -11.4679, 39.7934, -46.4482
2.264, -1, -0.929679, 0.102932, 1.9399, -20.1606, 8.69836, 25.2638, 12.9482, 10.3455, -22.5516, -11.4892, 39.8115, -46.5342
2.268, -1, -0.931397, 0.103123, 1.94348, -20.1979, 8.659, 25.3105, 12.9721, 10.3646, -22.5933, -11.5104, 39.8296, -46.6202
2.272, -1, -0.933115, 0.103313, 1.94707, -20.2351, 8.61963, 25.3572, 12.996, 10.3838, -22.635, -11.5316, 39.8478, -46.7062
2.275, -1, -0.934833, 0.103503, 1.95065, -20.2724, 8.58027, 25.4039, 13.02, 10.4029, -22.6767, -11.5529, 39.8659, -46.7922
2.28, -1, -0.936552, 0.103693, 1.95424, -20.3096, 8.5409, 25.4506, 13.0439, 10.422, -22.7183, -11.5741, 39.884, -46.8782
2.284, -1, -0.93827, 0.103884, 1.95782, -20.3469, 8.50152, 25.4973, 13.0678, 10.4411, -22.76, -11.5953, 39.9022, -46.9642
2.288, -1, -0.939989, 0.104074, 1.96141, -20.3842, 8.46215, 25.544, 13.0918, 10.4602, -22.8017, -11.6166, 39.9203, -47.0502
2.291, -1, -0.941707, 0.104264, 1.965, -20.4214, 8.42278, 25.5907, 13.1157, 10.4794, -22.8434, -11.6378, 39.9384, -47.1362
2.296, -1, -0.943426, 0.104454, 1.96858, -20.4587, 8.3834, 25.6374, 13.1396, 10.4985, -22.8851, -11.659, 39.9566, -47.2223
2.3, -1, -0.945144, 0.104645, 1.97217, -20.496, 8.34402, 25.6841, 13.1636, 10.5176, -22.9268, -11.6803, 39.9747, -47.3083
2.304, -1, -0.946863, 0.104835, 1.97575, -20.5332, 8.30464, 25.7308, 13.1875, 10.5367, -22.9685, -11.7015, 39.9929, -47.3943
2.308, -1, -0.948582, 0.105025, 1.97934, -20.5705, 8.26526, 25.7775, 13.2114, 10.5559, -23.0102, -11.7228, 40.011, -47.4803
2.311, -1, -0.950301, 0.105216, 1.98293, -20.6078, 8.22588, 25.8242, 13.2354, 10.575, -23.0518, -11.744, 40.0291, -47.5664
2.316, -1, -0.95202, 0.105406, 1.98651, -20.6451, 8.18649, 25.8709, 13.2593, 10.5941, -23.0935, -11.7653, 40.0473, -47.6524
2.32, -1, -0.953739, 0.105596, 1.9901, -20.6823, 8.14711, 25.9176, 13.2833, 10.6132, -23.1352, -11.7865, 40.0654, -47.7384
2.324, -1, -0.955458, 0.105787, 1.99369, -20.7196, 8.10772, 25.9643, 13.3072, 10.6324, -23.1769, -11.8077, 40.0836, -47.8245
2.328, -1, -0.957177, 0.105977, 1.99728, -20.7569, 8.06833, 26.011, 13.3311, 10.6515, -23.2186, -11.829, 40.1017, -47.9105
2.331, -1, -0.958896, 0.106167, 2.00086, -20.7942, 8.02894, 26.0578, 13.3551, 10.6706, -23.2603, -11.8502, 40.1199, -47.9966
2.336, -1, -0.960615, 0.106358, 2.00445, -20.8315, 7.98954, 26.1045, 13.379, 10.6898, -23.3021, -11.8715, 40.138, -48.0826
2.34, -1, -0.962335, 0.106548, 2.00804, -20.8687, 7.95015, 26.1512, 13.403, 10.7089, -23.3438, -11.8927, 40.1561, -48.1687
2.344, -1, -0.964054, 0.106738, 2.01163, -20.906, 7.91075, 26.1979, 13.4269, 10.728, -23.3855, -11.914, 40.1743, -48.2548
2.347, -1, -0.965774, 0.106929, 2.01521, -20.9433, 7.87135, 26.2446, 13.4509, 10.7472, -23.4272, -11.9352, 40.1924, -48.3408
2.352, -1, -0.967494, 0.107119, 2.0188, -20.9806, 7.83195, 26.2914, 13.4748, 10.7663, -23.4689, -11.9565, 40.2106, -48.4269
2.356, -1, -0.969213, 0.10731, 2.02239, -21.0179, 7.79255, 26.3381, 13.4988, 10.7854, -23.5106, -11.9777, 40.2287, -48.513
2.36, -1, -0.970933, 0.1075, 2.02598, -21.0552, 7.75314, 26.3848, 13.5227, 10.8046, -23.5523, -11.999, 40.2469, -48.5991
2.364, -1, -0.972653, 0.10769, 2.02957, -21.0925, 7.71374, 26.4316, 13.5467, 10.8237, -23.594, -12.0202, 40.265, -48.6852
2.367, -1, -0.974373, 0.107881, 2.03316, -21.1298, 7.67433, 26.4783, 13.5706, 10.8429, -23.6358, -12.0415, 40.2832, -48.7712
2.372, -1, -0.976093, 0.108071, 2.03674, -21.1671, 7.63492, 26.5251, 13.5946, 10.862, -23.6775, -12.0627, 40.3013, -48.8573
2.376, -1, -0.977813, 0.108262, 2.04033, -21.2044, 7.5955, 26.5718, 13.6185, 10.8811, -23.7192, -12.084, 40.3195, -48.9434
2.38, -1, -0.979534, 0.108452, 2.04392, -21.2417, 7.55609, 26.6186, 13.6425, 10.9003, -23.7609, -12.1053, 40.3376, -49.0295
2.383, -1, -0.981254, 0.108643, 2.04751, -21.279, 7.51667, 26.6653, 13.6665, 10.9194, -23.8027, -12.1265, 40.3558, -49.1156
2.388, -1, -0.982974, 0.108833, 2.0511, -21.3163, 7.47725, 26.7121, 13.6904, 10.9386, -23.8444, -12.1478, 40.374, -49.2018
2.392, -1, -0.984695, 0.109024, 2.05469, -21.3536, 7.43783, 26.7588, 13.7144, 10.9577, -23.8861, -12.169, 40.3921, -49.2879
2.396, -1, -0.986416, 0.109214, 2.05828, -21.3909, 7.39841, 26.8056, 13.7384, 10.9769, -23.9279, -12.1903, 40.4103, -49.374
2.4, -1, -0.988136, 0.109405, 2.06187, -21.4282, 7.35898, 26.8523, 13.7623, 10.996, -23.9696, -12.2116, 40.4284, -49.4601
2.403, -1, -0.989857, 0.109595, 2.06546, -21.4656, 7.31955, 26.8991, 13.7863, 11.0152, -24.0114, -12.2328, 40.4466, -49.5463
2.408, -1, -0.991578, 0.109786, 2.06906, -21.5029, 7.28012, 26.9459, 13.8103, 11.0343, -24.0531, -12.2541, 40.4648, -49.6324
2.412, -1, -0.993299, 0.109976, 2.07265, -21.5402, 7.24069, 26.9926, 13.8342, 11.0535, -24.0948, -12.2754, 40.4829, -49.7185
2.416, -1, -0.99502, 0.110167, 2.07624, -21.5775, 7.20125, 27.0394, 13.8582, 11.0726, -24.1366, -12.2966, 40.5011, -49.8047
2.42, -1, -0.996741, 0.110357, 2.07983, -21.6148, 7.16182, 27.0862, 13.8822, 11.0918, -24.1783, -12.3179, 40.5192, -49.8908
2.423, -1, -0.998463, 0.110548, 2.08342, -21.6522, 7.12238, 27.1329, 13.9061, 11.1109, -24.2201, -12.3392, 40.5374, -49.977
2.428, -1, -1.00018, 0.110739, 2.08701, -21.6895, 7.08294, 27.1797, 13.9301, 11.1301, -24.2619, -12.3605, 40.5556, -50.0632
2.432, -1, -1.00191, 0.110929, 2.0906, -21.7268, 7.04349, 27.2265, 13.9541, 11.1492, -24.3036, -12.3817, 40.5737, -50.1493
2.436, -1, -1.00363, 0.11112, 2.0942, -21.7642, 7.00405, 27.2733, 13.9781, 11.1684, -24.3454, -12.403, 40.5919, -50.2355
2.439, -1, -1.00535, 0.11131, 2.09779, -21.8015, 6.9646, 27.3201, 14.002, 11.1875, -24.3871, -12.4243, 40.6101, -50.3217
2.444, -1, -1.00707, 0.111501, 2.10138, -21.8388, 6.92515, 27.3668, 14.026, 11.2067, -24.4289, -12.4456, 40.6283, -50.4079
2.448, -1, -1.00879, 0.111692, 2.10498, -21.8762, 6.8857, 27.4136, 14.05, 11.2259, -24.4707, -12.4668, 40.6464, -50.494
2.452, -1, -1.01051, 0.111882, 2.10857, -21.9135, 6.84624, 27.4604, 14.074, 11.245, -24.5124, -12.4881, 40.6646, -50.5802
2.456, -1, -1.01224, 0.112073, 2.11216, -21.9509, 6.80678, 27.5072, 14.098, 11.2642, -24.5542, -12.5094, 40.6828, -50.6664
2.459, -1, -1.01396, 0.112264, 2.11575, -21.9882, 6.76733, 27.554, 14.122, 11.2834, -24.596, -12.5307, 40.7009, -50.7526
2.464, -1, -1.01568, 0.112454, 2.11935, -22.0255, 6.72786, 27.6008, 14.1459, 11.3025, -24.6378, -12.552, 40.7191, -50.8388
2.468, -1, -1.0174, 0.112645, 2.12294, -22.0629, 6.6884, 27.6476, 14.1699, 11.3217, -24.6795, -12.5733, 40.7373, -50.925
2.472, -1, -1.01913, 0.112836, 2.12654, -22.1002, 6.64894, 27.6944, 14.1939, 11.3409, -24.7213, -12.5945, 40.7555, -51.0112
2.476, -1, -1.02085, 0.113026, 2.13013, -22.1376, 6.60947, 27.7412, 14.2179, 11.36, -24.7631, -12.6158, 40.7737, -51.0975
2.479, -1, -1.02257, 0.113217, 2.13372, -22.175, 6.57, 27.7881, 14.2419, 11.3792, -24.8049, -12.6371, 40.7918, -51.1837
2.484, -1, -1.02429, 0.113408, 2.13732, -22.2123, 6.53053, 27.8349, 14.2659, 11.3984, -24.8467, -12.6584, 40.81, -51.2699
2.488, -1, -1.02602, 0.113599, 2.14091, -22.2497, 6.49106, 27.8817, 14.2899, 11.4175, -24.8885, -12.6797, 40.8282, -51.3561
2.492, -1, -1.02774, 0.113789, 2.14451, -22.287, 6.45158, 27.9285, 14.3139, 11.4367, -24.9303, -12.701, 40.8464, -51.4424
2.495, -1, -1.02946, 0.11398, 2.1481, -22.3244, 6.4121, 27.9753, 14.3379, 11.4559, -24.9721, -12.7223, 40.8646, -51.5286
2.5, -1, -1.03119, 0.114171, 2.1517, -22.3618, 6.37262, 28.0221, 14.3619, 11.4751, -25.0139, -12.7436, 40.8827, -51.6149
2.504, -1, -1.03291, 0.114362, 2.1553, -22.3991, 6.33314, 28.069, 14.3859, 11.4942, -25.0557, -12.7649, 40.9009, -51.7011
2.508, -1, -1.03463, 0.114553, 2.15889, -22.4365, 6.29365, 28.1158, 14.4099, 11.5134, -25.0975, -12.7862, 40.9191, -51.7874
2.512, -1, -1.03636, 0.114743, 2.16249, -22.4739, 6.25417, 28.1626, 14.4339, 11.5326, -25.1393, -12.8075, 40.9373, -51.8736
2.515, -1, -1.03808, 0.114934, 2.16608, -22.5112, 6.21468, 28.2095, 14.4579, 11.5518, -25.1811, -12.8288, 40.9555, -51.9599
2.52, -1, -1.0398, 0.115125, 2.16968, -22.5486, 6.17519, 28.2563, 14.4819, 11.5709, -25.2229, -12.8501, 40.9737, -52.0462
2.524, -1, -1.04153, 0.115316, 2.17328, -22.586, 6.1357, 28.3031, 14.5059, 11.5901, -25.2647, -12.8714, 40.9919, -52.1324
2.528, -1, -1.04325, 0.115507, 2.17687, -22.6234, 6.0962, 28.35, 14.5299, 11.6093, -25.3065, -12.8927, 41.0101, -52.2187
2.531, -1, -1.04497, 0.115698, 2.18047, -22.6608, 6.0567, 28.3968, 14.5539, 11.6285, -25.3483, -12.914, 41.0283, -52.305
2.536, -1, -1.0467, 0.115888, 2.18407, -22.6981, 6.01721, 28.4437, 14.5779, 11.6477, -25.3901, -12.9353, 41.0464, -52.3913
2.54, -1, -1.04842, 0.116079, 2.18766, -22.7355, 5.9777, 28.4905, 14.6019, 11.6669, -25.4319, -12.9566, 41.0646, -52.4776
2.544, -1, -1.05015, 0.11627, 2.19126, -22.7729, 5.9382, 28.5374, 14.6259, 11.686, -25.4738, -12.9779, 41.0828, -52.5639
2.548, -1, -1.05187, 0.116461, 2.19486, -22.8103, 5.8987, 28.5842, 14.6499, 11.7052, -25.5156, -12.9992, 41.101, -52.6502
2.551, -1, -1.05359, 0.116652, 2.19846, -22.8477, 5.85919, 28.6311, 14.674, 11.7244, -25.5574, -13.0205, 41.1192, -52.7365
2.556, -1, -1.05532, 0.116843, 2.20206, -22.8851, 5.81968, 28.6779, 14.698, 11.7436, -25.5992, -13.0418, 41.1374, -52.8228
2.56, -1, -1.05704, 0.117034, 2.20565, -22.9225, 5.78017, 28.7248, 14.722, 11.7628, -25.6411, -13.0631, 41.1556, -52.9091
2.564, -1, -1.05877, 0.117225, 2.20925, -22.9599, 5.74065, 28.7717, 14.746, 11.782, -25.6829, -13.0844, 41.1738, -52.9954
2.568, -1, -1.06049, 0.117416, 2.21285, -22.9973, 5.70114, 28.8185, 14.77, 11.8012, -25.7247, -13.1057, 41.192, -53.0817
2.571, -1, -1.06222, 0.117607, 2.21645, -23.0347, 5.66162, 28.8654, 14.794, 11.8204, -25.7666, -13.1271, 41.2102, -53.1681
2.576, -1, -1.06394, 0.117798, 2.22005, -23.0721, 5.6221, 28.9123, 14.8181, 11.8396, -25.8084, -13.1484, 41.2284, -53.2544
2.58, -1, -1.06567, 0.117989, 2.22365, -23.1095, 5.58258, 28.9591, 14.8421, 11.8588, -25.8503, -13.1697, 41.2466, -53.3407
2.584, -1, -1.06739, 0.11818, 2.22725, -23.1469, 5.54306, 29.006, 14.8661, 11.8779, -25.8921, -13.191, 41.2648, -53.4271
2.587, -1, -1.06912, 0.118371, 2.23085, -23.1843, 5.50353, 29.0529, 14.8901, 11.8971, -25.9339, -13.2123, 41.283, -53.5134
2.592, -1, -1.07084, 0.118562, 2.23445, -23.2217, 5.464, 29.0998, 14.9142, 11.9163, -25.9758, -13.2336, 41.3013, -53.5998
2.596, -1, -1.07257, 0.118753, 2.23805, -23.2591, 5.42447, 29.1467, 14.9382, 11.9355, -26.0176, -13.255, 41.3195, -53.6861
2.6, -1, -1.07429, 0.118944, 2.24165, -23.2965, 5.38494, 29.1935, 14.9622, 11.9547, -26.0595, -13.2763, 41.3377, -53.7725
2.604, -1, -1.07602, 0.119135, 2.24525, -23.334, 5.34541, 29.2404, 14.9863, 11.9739, -26.1013, -13.2976, 41.3559, -53.8589
2.607, -1, -1.07774, 0.119326, 2.24885, -23.3714, 5.30587, 29.2873, 15.0103, 11.9931, -26.1432, -13.3189, 41.3741, -53.9452
2.612, -1, -1.07947, 0.119517, 2.25245, -23.4088, 5.26633, 29.3342, 15.0343, 12.0123, -26.1851, -13.3403, 41.3923, -54.0316
2.616, -1, -1.08119, 0.119708, 2.25605, -23.4462, 5.22679, 29.3811, 15.0584, 12.0315, -26.2269, -13.3616, 41.4105, -54.118
2.62, -1, -1.08292, 0.119899, 2.25965, -23.4836, 5.18725, 29.428, 15.0824, 12.0508, -26.2688, -13.3829, 41.4287, -54.2044
2.624, -1, -1.08465, 0.12009, 2.26325, -23.5211, 5.1477, 29.4749, 15.1064, 12.07, -26.3107, -13.4042, 41.4469, -54.2907
2.627, -1, -1.08637, 0.120281, 2.26685, -23.5585, 5.10816, 29.5218, 15.1305, 12.0892, -26.3525, -13.4256, 41.4652, -54.3771
2.632, -1, -1.0881, 0.120472, 2.27045, -23.5959, 5.06861, 29.5687, 15.1545, 12.1084, -26.3944, -13.4469, 41.4834, -54.4635
2.636, -1, -1.08982, 0.120663, 2.27406, -23.6334, 5.02906, 29.6156, 15.1785, 12.1276, -26.4363, -13.4682, 41.5016, -54.5499
2.64, -1, -1.09155, 0.120854, 2.27766, -23.6708, 4.98951, 29.6625, 15.2026, 12.1468, -26.4781, -13.4896, 41.5198, -54.6363
2.643, -1, -1.09328, 0.121046, 2.28126, -23.7082, 4.94995, 29.7094, 15.2266, 12.166, -26.52, -13.5109, 41.538, -54.7227
2.648, -1, -1.095, 0.121237, 2.28486, -23.7457, 4.9104, 29.7564, 15.2507, 12.1852, -26.5619, -13.5322, 41.5562, -54.8092
2.652, -1, -1.09673, 0.121428, 2.28846, -23.7831, 4.87084, 29.8033, 15.2747, 12.2044, -26.6038, -13.5536, 41.5745, -54.8956
2.656, -1, -1.09846, 0.121619, 2.29207, -23.8205, 4.83128, 29.8502, 15.2988, 12.2236, -26.6456, -13.5749, 41.5927, -54.982
2.66, -1, -1.10018, 0.12181, 2.29567, -23.858, 4.79171, 29.8971, 15.3228, 12.2428, -26.6875, -13.5962, 41.6109, -55.0684
2.663, -1, -1.10191, 0.122001, 2.29927, -23.8954, 4.75215, 29.944, 15.3469, 12.2621, -26.7294, -13.6176, 41.6291, -55.1548
2.668, -1, -1.10364, 0.122193, 2.30288, -23.9329, 4.71258, 29.991, 15.3709, 12.2813, -26.7713, -13.6389, 41.6474, -55.2413
2.672, -1, -1.10536, 0.122384, 2.30648, -23.9703, 4.67302, 30.0379, 15.395, 12.3005, -26.8132, -13.6603, 41.6656, -55.3277
2.676, -1, -1.10709, 0.122575, 2.31008, -24.0078, 4.63344, 30.0848, 15.419, 12.3197, -26.8551, -13.6816, 41.6838, -55.4142
2.679, -1, -1.10882, 0.122766, 2.31369, -24.0452, 4.59387, 30.1317, 15.4431, 12.3389, -26.897, -13.703, 41.702, -55.5006
2.684, -1, -1.11055, 0.122957, 2.31729, -24.0827, 4.5543, 30.1787, 15.4671, 12.3582, -26.9389, -13.7243, 41.7203, -55.5871
2.688, -1, -1.11227, 0.123149, 2.32089, -24.1201, 4.51472, 30.2256, 15.4912, 12.3774, -26.9808, -13.7456, 41.7385, -55.6735
2.692, -1, -1.114, 0.12334, 2.3245, -24.1576, 4.47514, 30.2726, 15.5152, 12.3966, -27.0227, -13.767, 41.7567, -55.76
2.696, -1, -1.11573, 0.123531, 2.3281, -24.1951, 4.43556, 30.3195, 15.5393, 12.4158, -27.0646, -13.7883, 41.775, -55.8464
2.699, -1, -1.11745, 0.123722, 2.33171, -24.2325, 4.39598, 30.3664, 15.5634, 12.435, -27.1065, -13.8097, 41.7932, -55.9329
2.704, -1, -1.11918, 0.123914, 2.33531, -24.27, 4.3564, 30.4134, 15.5874, 12.4543, -27.1484, -13.831, 41.8114, -56.0194
2.708, -1, -1.12091, 0.124105, 2.33892, -24.3074, 4.31681, 30.4603, 15.6115, 12.4735, -27.1903, -13.8524, 41.8297, -56.1059
2.712, -1, -1.12264, 0.124296, 2.34252, -24.3449, 4.27722, 30.5073, 15.6355, 12.4927, -27.2322, -13.8737, 41.8479, -56.1923
2.716, -1, -1.12437, 0.124488, 2.34613, -24.3824, 4.23763, 30.5543, 15.6596, 12.5119, -27.2741, -13.8951, 41.8661, -56.2788
2.719, -1, -1.12609, 0.124679, 2.34973, -24.4199, 4.19804, 30.6012, 15.6837, 12.5312, -27.316, -13.9164, 41.8844, -56.3653
2.724, -1, -1.12782, 0.12487, 2.35334, -24.4573, 4.15845, 30.6482, 15.7077, 12.5504, -27.358, -13.9378, 41.9026, -56.4518
2.728, -1, -1.12955, 0.125062, 2.35695, -24.4948, 4.11885, 30.6951, 15.7318, 12.5696, -27.3999, -13.9592, 41.9208, -56.5383
2.732, -1, -1.13128, 0.125253, 2.36055, -24.5323, 4.07925, 30.7421, 15.7559, 12.5889, -27.4418, -13.9805, 41.9391, -56.6248
2.735, -1, -1.13301, 0.125444, 2.36416, -24.5698, 4.03965, 30.7891, 15.7799, 12.6081, -27.4837, -14.0019, 41.9573, -56.7113
2.74, -1, -1.13474, 0.125636, 2.36776, -24.6072, 4.00005, 30.836, 15.804, 12.6273, -27.5257, -14.0232, 41.9755, -56.7978
2.744, -1, -1.13646, 0.125827, 2.37137, -24.6447, 3.96045, 30.883, 15.8281, 12.6466, -27.5676, -14.0446, 41.9938, -56.8844
2.748, -1, -1.13819, 0.126018, 2.37498, -24.6822, 3.92084, 30.93, 15.8522, 12.6658, -27.6095, -14.066, 42.012, -56.9709
2.752, -1, -1.13992, 0.12621, 2.37859, -24.7197, 3.88123, 30.9769, 15.8762, 12.685, -27.6514, -14.0873, 42.0303, -57.0574
2.755, -1, -1.14165, 0.126401, 2.38219, -24.7572, 3.84162, 31.0239, 15.9003, 12.7043, -27.6934, -14.1087, 42.0485, -57.1439
2.76, -1, -1.14338, 0.126593, 2.3858, -24.7947, 3.80201, 31.0709, 15.9244, 12.7235, -27.7353, -14.13, 42.0668, -57.2305
2.764, -1, -1.14511, 0.126784, 2.38941, -24.8322, 3.7624, 31.1179, 15.9485, 12.7428, -27.7772, -14.1514, 42.085, -57.317
2.768, -1, -1.14684, 0.126976, 2.39302, -24.8697, 3.72278, 31.1649, 15.9726, 12.762, -27.8192, -14.1728, 42.1033, -57.4035
2.772, -1, -1.14857, 0.127167, 2.39662, -24.9072, 3.68317, 31.2118, 15.9966, 12.7812, -27.8611, -14.1941, 42.1215, -57.4901
2.775, -1, -1.15029, 0.127358, 2.40023, -24.9447, 3.64355, 31.2588, 16.0207, 12.8005, -27.9031, -14.2155, 42.1398, -57.5766
2.78, -1, -1.15202, 0.12755, 2.40384, -24.9821, 3.60393, 31.3058, 16.0448, 12.8197, -27.945, -14.2369, 42.158, -57.6632
2.784, -1, -1.15375, 0.127741, 2.40745, -25.0196, 3.5643, 31.3528, 16.0689, 12.839, -27.987, -14.2583, 42.1763, -57.7497
2.788, -1, -1.15548, 0.127933, 2.41106, -25.0571, 3.52468, 31.3998, 16.093, 12.8582, -28.0289, -14.2796, 42.1945, -57.8363
2.791, -1, -1.15721, 0.128124, 2.41466, -25.0947, 3.48505, 31.4468, 16.1171, 12.8775, -28.0709, -14.301, 42.2128, -57.9229
2.796, -1, -1.15894, 0.128316, 2.41827, -25.1322, 3.44542, 31.4938, 16.1411, 12.8967, -28.1128, -14.3224, 42.231, -58.0094
2.8, -1, -1.16067, 0.128507, 2.42188, -25.1697, 3.40579, 31.5408, 16.1652, 12.9159, -28.1548, -14.3437, 42.2493, -58.096
2.804, -1, -1.1624, 0.128699, 2.42549, -25.2072, 3.36616, 31.5878, 16.1893, 12.9352, -28.1967, -14.3651, 42.2675, -58.1826
2.808, -1, -1.16413, 0.12889, 2.4291, -25.2447, 3.32653, 31.6348, 16.2134, 12.9544, -28.2387, -14.3865, 42.2858, -58.2692
2.811, -1, -1.16586, 0.129082, 2.43271, -25.2822, 3.28689, 31.6818, 16.2375, 12.9737, -28.2807, -14.4079, 42.304, -58.3558
2.816, -1, -1.16759, 0.129273, 2.43632, -25.3197, 3.24725, 31.7288, 16.2616, 12.9929, -28.3226, -14.4293, 42.3223, -58.4424
2.82, -1, -1.16932, 0.129465, 2.43993, -25.3572, 3.20761, 31.7759, 16.2857, 13.0122, -28.3646, -14.4506, 42.3405, -58.5289
2.824, -1, -1.17105, 0.129656, 2.44354, -25.3948, 3.16797, 31.8229, 16.3098, 13.0315, -28.4066, -14.472, 42.3588, -58.6156
2.828, -1, -1.17278, 0.129848, 2.44715, -25.4323, 3.12833, 31.8699, 16.3339, 13.0507, -28.4485, -14.4934, 42.3771, -58.7021
2.831, -1, -1.17451, 0.13004, 2.45076, -25.4698, 3.08868, 31.9169, 16.358, 13.07, -28.4905, -14.5148, 42.3953, -58.7888
2.836, -1, -1.17624, 0.130231, 2.45437, -25.5073, 3.04903, 31.9639, 16.3821, 13.0892, -28.5325, -14.5362, 42.4136, -58.8754
2.84, -1, -1.17797, 0.130423, 2.45798, -25.5448, 3.00938, 32.011, 16.4062, 13.1085, -28.5745, -14.5576, 42.4319, -58.962
2.844, -1, -1.1797, 0.130614, 2.46159, -25.5824, 2.96973, 32.058, 16.4303, 13.1277, -28.6164, -14.5789, 42.4501, -59.0486
2.847, -1, -1.18143, 0.130806, 2.46521, -25.6199, 2.93007, 32.105, 16.4544, 13.147, -28.6584, -14.6003, 42.4684, -59.1352
2.852, -1, -1.18316, 0.130998, 2.46882, -25.6574, 2.89042, 32.1521, 16.4785, 13.1662, -28.7004, -14.6217, 42.4866, -59.2219
2.856, -1, -1.1849, 0.131189, 2.47243, -25.695, 2.85076, 32.1991, 16.5026, 13.1855, -28.7424, -14.6431, 42.5049, -59.3085
2.86, -1, -1.18663, 0.131381, 2.47604, -25.7325, 2.8111, 32.2461, 16.5267, 13.2048, -28.7844, -14.6645, 42.5232, -59.3951
2.864, -1, -1.18836, 0.131573, 2.47965, -25.77, 2.77143, 32.2932, 16.5508, 13.224, -28.8264, -14.6859, 42.5414, -59.4818
2.867, -1, -1.19009, 0.131764, 2.48326, -25.8076, 2.73177, 32.3402, 16.5749, 13.2433, -28.8684, -14.7073, 42.5597, -59.5684
2.872, -1, -1.19182, 0.131956, 2.48688, -25.8451, 2.6921, 32.3873, 16.5991, 13.2626, -28.9104, -14.7287, 42.578, -59.6551
2.876, -1, -1.19355, 0.132148, 2.49049, -25.8827, 2.65243, 32.4343, 16.6232, 13.2818, -28.9524, -14.7501, 42.5963, -59.7418
2.88, -1, -1.19528, 0.132339, 2.4941, -25.9202, 2.61276, 32.4814, 16.6473, 13.3011, -28.9944, -14.7715, 42.6145, -59.8284
2.883, -1, -1.19702, 0.132531, 2.49772, -25.9578, 2.57308, 32.5284, 16.6714, 13.3204, -29.0364, -14.7929, 42.6328, -59.9151
2.888, -1, -1.19875, 0.132723, 2.50133, -25.9953, 2.5334, 32.5755, 16.6955, 13.3396, -29.0784, -14.8143, 42.6511, -60.0018
2.892, -1, -1.20048, 0.132915, 2.50494, -26.0329, 2.49372, 32.6225, 16.7196, 13.3589, -29.1204, -14.8357, 42.6694, -60.0885
2.896, -1, -1.20221, 0.133106, 2.50856, -26.0704, 2.45404, 32.6696, 16.7438, 13.3782, -29.1624, -14.8571, 42.6876, -60.1751
2.9, -1, -1.20394, 0.133298, 2.51217, -26.108, 2.41435, 32.7167, 16.7679, 13.3975, -29.2044, -14.8785, 42.7059, -60.2618
2.903, -1, -1.20567, 0.13349, 2.51579, -26.1456, 2.37467, 32.7637, 16.792, 13.4167, -29.2464, -14.8999, 42.7242, -60.3485
2.908, -1, -1.20741, 0.133682, 2.5194, -26.1831, 2.33498, 32.8108, 16.8161, 13.436, -29.2884, -14.9213, 42.7425, -60.4352
2.912, -1, -1.20914, 0.133873, 2.52301, -26.2207, 2.29528, 32.8579, 16.8403, 13.4553, -29.3305, -14.9427, 42.7608, -60.522
2.916, -1, -1.21087, 0.134065, 2.52663, -26.2583, 2.25559, 32.905, 16.8644, 13.4746, -29.3725, -14.9641, 42.779, -60.6087
2.92, -1, -1.2126, 0.134257, 2.53024, -26.2958, 2.21589, 32.952, 16.8885, 13.4938, -29.4145, -14.9855, 42.7973, -60.6954
2.923, -1, -1.21434, 0.134449, 2.53386, -26.3334, 2.17619, 32.9991, 16.9126, 13.5131, -29.4565, -15.0069, 42.8156, -60.7821
2.928, -1, -1.21607, 0.134641, 2.53748, -26.371, 2.13649, 33.0462, 16.9368, 13.5324, -29.4986, -15.0284, 42.8339, -60.8688
2.932, -1, -1.2178, 0.134833, 2.54109, -26.4086, 2.09679, 33.0933, 16.9609, 13.5517, -29.5406, -15.0498, 42.8522, -60.9556
2.936, -1, -1.21954, 0.135025, 2.54471, -26.4461, 2.05708, 33.1404, 16.985, 13.571, -29.5826, -15.0712, 42.8705, -61.0423
2.939, -1, -1.22127, 0.135216, 2.54832, -26.4837, 2.01738, 33.1875, 17.0092, 13.5903, -29.6247, -15.0926, 42.8888, -61.1291
2.944, -1, -1.223, 0.135408, 2.55194, -26.5213, 1.97767, 33.2346, 17.0333, 13.6095, -29.6667, -15.114, 42.9071, -61.2158
2.948, -1, -1.22473, 0.1356, 2.55556, -26.5589, 1.93795, 33.2817, 17.0575, 13.6288, -29.7088, -15.1354, 42.9254, -61.3026
2.952, -1, -1.22647, 0.135792, 2.55917, -26.5965, 1.89824, 33.3288, 17.0816, 13.6481, -29.7508, -15.1569, 42.9436, -61.3893
2.956, -1, -1.2282, 0.135984, 2.56279, -26.6341, 1.85852, 33.3759, 17.1057, 13.6674, -29.7928, -15.1783, 42.9619, -61.4761
2.959, -1, -1.22994, 0.136176, 2.56641, -26.6717, 1.8188, 33.423, 17.1299, 13.6867, -29.8349, -15.1997, 42.9802, -61.5629
2.964, -1, -1.23167, 0.136368, 2.57002, -26.7092, 1.77908, 33.4701, 17.154, 13.706, -29.877, -15.2211, 42.9985, -61.6496
2.968, -1, -1.2334, 0.13656, 2.57364, -26.7468, 1.73935, 33.5172, 17.1782, 13.7253, -29.919, -15.2426, 43.0168, -61.7364
2.972, -1, -1.23514, 0.136752, 2.57726, -26.7844, 1.69963, 33.5643, 17.2023, 13.7446, -29.9611, -15.264, 43.0351, -61.8232
2.976, -1, -1.23687, 0.136944, 2.58088, -26.822, 1.6599, 33.6115, 17.2265, 13.7639, -30.0031, -15.2854, 43.0534, -61.91
2.98, -1, -1.2386, 0.137136, 2.5845, -26.8596, 1.62017, 33.6586, 17.2506, 13.7832, -30.0452, -15.3068, 43.0717, -61.9968
2.984, -1, -1.24034, 0.137328, 2.58811, -26.8973, 1.58043, 33.7057, 17.2748, 13.8025, -30.0872, -15.3283, 43.09, -62.0836
2.988, -1, -1.24207, 0.13752, 2.59173, -26.9349, 1.5407, 33.7528, 17.2989, 13.8218, -30.1293, -15.3497, 43.1083, -62.1704
2.992, -1, -1.24381, 0.137712, 2.59535, -26.9725, 1.50096, 33.7999, 17.3231, 13.8411, -30.1714, -15.3711, 43.1266, -62.2572
2.995, -1, -1.24554, 0.137904, 2.59897, -27.0101, 1.46122, 33.8471, 17.3472, 13.8604, -30.2135, -15.3926, 43.1449, -62.344
3, -1, -1.24728, 0.138096, 2.60259, -27.0477, 1.42148, 33.8942, 17.3714, 13.8797, -30.2555, -15.414, 43.1632, -62.4308
3.004, -1, -1.24901, 0.138288, 2.60621, -27.0853, 1.38173, 33.9414, 17.3955, 13.899, -30.2976, -15.4354, 43.1815, -62.5176
3.008, -1, -1.25075, 0.13848, 2.60983, -27.1229, 1.34199, 33.9885, 17.4197, 13.9183, -30.3397, -15.4569, 43.1999, -62.6045
3.012, -1, -1.25248, 0.138672, 2.61345, -27.1605, 1.30224, 34.0356, 17.4439, 13.9376, -30.3818, -15.4783, 43.2182, -62.6913
3.015, -1, -1.25422, 0.138864, 2.61707, -27.1982, 1.26249, 34.0828, 17.468, 13.9569, -30.4239, -15.4998, 43.2365, -62.7781
3.02, -1, -1.25595, 0.139056, 2.62069, -27.2358, 1.22273, 34.1299, 17.4922, 13.9762, -30.4659, -15.5212, 43.2548, -62.865
3.024, -1, -1.25769, 0.139248, 2.62431, -27.2734, 1.18298, 34.1771, 17.5164, 13.9955, -30.508, -15.5426, 43.2731, -62.9518
3.028, -1, -1.25942, 0.139441, 2.62793, -27.311, 1.14322, 34.2242, 17.5405, 14.0148, -30.5501, -15.5641, 43.2914, -63.0387
3.031, -1, -1.26116, 0.139633, 2.63155, -27.3487, 1.10346, 34.2714, 17.5647, 14.0341, -30.5922, -15.5855, 43.3097, -63.1255
3.036, -1, -1.26289, 0.139825, 2.63517, -27.3863, 1.0637, 34.3186, 17.5889, 14.0534, -30.6343, -15.607, 43.328, -63.2124
3.04, -1, -1.26463, 0.140017, 2.63879, -27.4239, 1.02393, 34.3657, 17.613, 14.0727, -30.6764, -15.6284, 43.3463, -63.2993
3.044, -1, -1.26636, 0.140209, 2.64242, -27.4616, 0.984165, 34.4129, 17.6372, 14.0921, -30.7185, -15.6499, 43.3647, -63.3862
3.048, -1, -1.2681, 0.140401, 2.64604, -27.4992, 0.944396, 34.46, 17.6614, 14.1114, -30.7606, -15.6713, 43.383, -63.473
3.051, -1, -1.26983, 0.140593, 2.64966, -27.5369, 0.904624, 34.5072, 17.6856, 14.1307, -30.8027, -15.6928, 43.4013, -63.5599
3.056, -1, -1.27157, 0.140786, 2.65328, -27.5745, 0.864851, 34.5544, 17.7097, 14.15, -30.8448, -15.7142, 43.4196, -63.6468
3.06, -1, -1.27331, 0.140978, 2.6569, -27.6121, 0.825076, 34.6016, 17.7339, 14.1693, -30.8869, -15.7357, 43.4379, -63.7337
3.064, -1, -1.27504, 0.14117, 2.66053, -27.6498, 0.785298, 34.6487, 17.7581, 14.1886, -30.929, -15.7571, 43.4563, -63.8206
3.068, -1, -1.27678, 0.141362, 2.66415, -27.6874, 0.745518, 34.6959, 17.7823, 14.208, -30.9712, -15.7786, 43.4746, -63.9075
3.071, -1, -1.27851, 0.141555, 2.66777, -27.7251, 0.705736, 34.7431, 17.8064, 14.2273, -31.0133, -15.8, 43.4929, -63.9944
3.076, -1, -1.28025, 0.141747, 2.67139, -27.7627, 0.665952, 34.7903, 17.8306, 14.2466, -31.0554, -15.8215, 43.5112, -64.0813
3.08, -1, -1.28199, 0.141939, 2.67502, -27.8004, 0.626165, 34.8375, 17.8548, 14.2659, -31.0975, -15.843, 43.5296, -64.1682
3.084, -1, -1.28372, 0.142131, 2.67864, -27.8381, 0.586377, 34.8846, 17.879, 14.2852, -31.1396, -15.8644, 43.5479, -64.2551
3.087, -1, -1.28546, 0.142324, 2.68227, -27.8757, 0.546586, 34.9318, 17.9032, 14.3046, -31.1818, -15.8859, 43.5662, -64.3421
3.092, -1, -1.2872, 0.142516, 2.68589, -27.9134, 0.506793, 34.979, 17.9274, 14.3239, -31.2239, -15.9073, 43.5845, -64.429
3.096, -1, -1.28893, 0.142708, 2.68951, -27.951, 0.466998, 35.0262, 17.9516, 14.3432, -31.266, -15.9288, 43.6029, -64.5159
3.1, -1, -1.29067, 0.1429, 2.69314, -27.9887, 0.427201, 35.0734, 17.9758, 14.3626, -31.3082, -15.9503, 43.6212, -64.6029
3.104, -1, -1.29241, 0.143093, 2.69676, -28.0264, 0.387402, 35.1206, 17.9999, 14.3819, -31.3503, -15.9717, 43.6395, -64.6898
3.107, -1, -1.29415, 0.143285, 2.70039, -28.064, 0.347601, 35.1678, 18.0241, 14.4012, -31.3924, -15.9932, 43.6579, -64.7767
3.112, -1, -1.29588, 0.143477, 2.70401, -28.1017, 0.307797, 35.215, 18.0483, 14.4205, -31.4346, -16.0147, 43.6762, -64.8637
3.116, -1, -1.29762, 0.14367, 2.70764, -28.1394, 0.267991, 35.2623, 18.0725, 14.4399, -31.4767, -16.0361, 43.6945, -64.9507
3.12, -1, -1.29936, 0.143862, 2.71126, -28.1771, 0.228184, 35.3095, 18.0967, 14.4592, -31.5189, -16.0576, 43.7129, -65.0376
3.124, -1, -1.30109, 0.144055, 2.71489, -28.2147, 0.188374, 35.3567, 18.1209, 14.4785, -31.561, -16.0791, 43.7312, -65.1246
3.128, -1, -1.30283, 0.144247, 2.71851, -28.2524, 0.148562, 35.4039, 18.1451, 14.4979, -31.6031, -16.1006, 43.7495, -65.2116
3.132, -1, -1.30457, 0.144439, 2.72214, -28.2901, 0.108748, 35.4511, 18.1693, 14.5172, -31.6453, -16.122, 43.7679, -65.2985
3.136, -1, -1.30631, 0.144632, 2.72576, -28.3278, 0.0689317, 35.4983, 18.1935, 14.5366, -31.6875, -16.1435, 43.7862, -65.3855
3.14, -1, -1.30805, 0.144824, 2.72939, -28.3655, 0.0291135, 35.5456, 18.2177, 14.5559, -31.7296, -16.165, 43.8046, -65.4725
3.143, -1, -1.30978, 0.145017, 2.73302, -28.4032, -0.0107068, 35.5928, 18.2419, 14.5752, -31.7718, -16.1865, 43.8229, -65.5595
3.148, -1, -1.31152, 0.145209, 2.73664, -28.4408, -0.0505292, 35.64, 18.2661, 14.5946, -31.8139, -16.2079, 43.8412, -65.6465
3.152, -1, -1.31326, 0.145401, 2.74027, -28.4785, -0.0903537, 35.6873, 18.2903, 14.6139, -31.8561, -16.2294, 43.8596, -65.7335
3.156, -1, -1.315, 0.145594, 2.7439, -28.5162, -0.13018, 35.7345, 18.3146, 14.6333, -31.8982, -16.2509, 43.8779, -65.8205
3.16, -1, -1.31674, 0.145786, 2.74752, -28.5539, -0.170009, 35.7817, 18.3388, 14.6526, -31.9404, -16.2724, 43.8963, -65.9075
3.163, -1, -1.31847, 0.145979, 2.75115, -28.5916, -0.20984, 35.829, 18.363, 14.6719, -31.9826, -16.2939, 43.9146, -65.9945
