hehonglu123/Motion-Primitive-Planning/simulation/robotstudio_sim/multimove/recorded_data/curve_exe_v1000_z100.csv
timestamp, cmd_num, J1, J2, J3, J4, J5, J6, J1_2, J2_2, J3_2, J4_2, J5_2, J6_2
0, -1, 3.56316, 59.0974, -65.6057, 2.04179, -35.0544, 181.376, -47.5068, 38.1649, 34.0165, 64.8725, -99.5088, -269.605
0.005, -1, 3.56316, 59.0974, -65.6057, 2.04179, -35.0544, 181.376, -47.5068, 38.1649, 34.0165, 64.8725, -99.5088, -269.605
0.01, -1, 3.56316, 59.0974, -65.6057, 2.04179, -35.0544, 181.376, -47.5068, 38.1649, 34.0165, 64.8725, -99.5088, -269.605
0.01, -1, 3.56316, 59.0974, -65.6057, 2.04179, -35.0544, 181.376, -47.5068, 38.1649, 34.0165, 64.8725, -99.5088, -269.605
0.013, -1, 3.56316, 59.0974, -65.6057, 2.04179, -35.0544, 181.376, -47.5068, 38.1649, 34.0165, 64.8725, -99.5088, -269.605
0.016, -1, 3.56316, 59.0974, -65.6057, 2.04179, -35.0544, 181.376, -47.5068, 38.1649, 34.0165, 64.8725, -99.5088, -269.605
0.02, -1, 3.56316, 59.0974, -65.6057, 2.04179, -35.0544, 181.376, -47.5068, 38.1649, 34.0165, 64.8725, -99.5088, -269.605
0.024, -1, 3.56316, 59.0974, -65.6057, 2.04179, -35.0544, 181.376, -47.5068, 38.1649, 34.0165, 64.8725, -99.5088, -269.605
0.028, -1, 3.56316, 59.0974, -65.6057, 2.04179, -35.0544, 181.376, -47.5068, 38.1649, 34.0165, 64.8725, -99.5088, -269.605
0.032, -1, 3.56316, 59.0974, -65.6057, 2.04179, -35.0544, 181.376, -47.5068, 38.1649, 34.0165, 64.8725, -99.5088, -269.605
0.036, -1, 3.56316, 59.0974, -65.6057, 2.04179, -35.0544, 181.376, -47.5068, 38.1649, 34.0165, 64.8725, -99.5088, -269.605
0.04, -1, 3.56313, 59.0974, -65.6057, 2.04178, -35.0544, 181.376, -47.5068, 38.1649, 34.0165, 64.8725, -99.5088, -269.605
0.044, -1, 3.56297, 59.0973, -65.6057, 2.04174, -35.0544, 181.376, -47.5068, 38.1649, 34.0165, 64.8725, -99.5088, -269.605
0.048, -1, 3.56252, 59.0971, -65.6058, 2.04156, -35.0546, 181.376, -47.5068, 38.1649, 34.0165, 64.8725, -99.5088, -269.605
0.052, -1, 3.56163, 59.0966, -65.6059, 2.04098, -35.0552, 181.375, -47.5067, 38.1649, 34.0165, 64.8725, -99.5088, -269.605
0.056, -1, 3.56027, 59.0957, -65.606, 2.03951, -35.0568, 181.375, -47.5063, 38.1647, 34.0163, 64.8725, -99.5087, -269.605
0.06, -1, 3.55848, 59.0944, -65.606, 2.03636, -35.0601, 181.374, -47.505, 38.164, 34.0158, 64.8723, -99.5083, -269.605
0.064, -1, 3.55632, 59.0924, -65.6057, 2.03048, -35.0663, 181.372, -47.5019, 38.1624, 34.0146, 64.8721, -99.5068, -269.605
0.068, -1, 3.55391, 59.0899, -65.6047, 2.0205, -35.0768, 181.368, -47.4959, 38.1593, 34.0121, 64.8716, -99.5027, -269.605
0.072, -1, 3.55149, 59.0868, -65.6028, 2.00491, -35.0932, 181.363, -47.486, 38.1538, 34.0078, 64.871, -99.4939, -269.604
0.076, -1, 3.54922, 59.0832, -65.5996, 1.98218, -35.1171, 181.356, -47.4706, 38.1452, 34.0008, 64.8703, -99.4771, -269.604
0.08, -1, 3.54715, 59.079, -65.5948, 1.95089, -35.15, 181.345, -47.4486, 38.1326, 33.9904, 64.8696, -99.4484, -269.603
0.084, -1, 3.5452, 59.0743, -65.5881, 1.9099, -35.1931, 181.331, -47.4192, 38.1153, 33.9758, 64.8693, -99.4034, -269.602
0.088, -1, 3.54331, 59.0688, -65.5794, 1.85834, -35.2473, 181.313, -47.3822, 38.0928, 33.9565, 64.8694, -99.3382, -269.601
0.092, -1, 3.54145, 59.0627, -65.5687, 1.79566, -35.3132, 181.292, -47.3371, 38.065, 33.9322, 64.8703, -99.25, -269.599
0.096, -1, 3.53961, 59.0558, -65.5558, 1.72164, -35.391, 181.267, -47.2837, 38.0315, 33.9027, 64.8719, -99.1377, -269.596
0.1, -1, 3.53779, 59.0482, -65.5408, 1.63637, -35.4807, 181.238, -47.2222, 37.9925, 33.868, 64.8742, -99.0019, -269.593
0.104, -1, 3.53602, 59.04, -65.5237, 1.54028, -35.5817, 181.205, -47.1531, 37.9485, 33.8286, 64.8771, -98.845, -269.589
0.108, -1, 3.53436, 59.0312, -65.5047, 1.43412, -35.6933, 181.169, -47.0767, 37.8998, 33.785, 64.8804, -98.6705, -269.585
0.112, -1, 3.53288, 59.0218, -65.484, 1.31895, -35.8144, 181.129, -46.9936, 37.8469, 33.7377, 64.8838, -98.4828, -269.581
0.116, -1, 3.53157, 59.0118, -65.4619, 1.1961, -35.9435, 181.087, -46.9048, 37.7907, 33.6875, 64.8872, -98.2858, -269.576
0.12, -1, 3.53028, 59.0013, -65.4387, 1.0671, -36.0791, 181.043, -46.8115, 37.7319, 33.6351, 64.8905, -98.0829, -269.571
0.124, -1, 3.52879, 58.9902, -65.4147, 0.933482, -36.2196, 180.997, -46.715, 37.6713, 33.5813, 64.8936, -97.8766, -269.566
0.128, -1, 3.52696, 58.9785, -65.3904, 0.796664, -36.3634, 180.951, -46.6162, 37.6095, 33.5265, 64.8966, -97.6686, -269.561
0.131, -1, 3.52471, 58.9663, -65.3659, 0.65781, -36.5094, 180.903, -46.5162, 37.547, 33.4712, 64.8994, -97.4599, -269.556
0.136, -1, 3.52201, 58.9537, -65.3413, 0.517794, -36.6566, 180.855, -46.4155, 37.4842, 33.4157, 64.9022, -97.2509, -269.551
0.139, -1, 3.51886, 58.9407, -65.3168, 0.377199, -36.8044, 180.808, -46.3146, 37.4213, 33.36, 64.905, -97.0418, -269.546
0.144, -1, 3.51538, 58.9276, -65.2923, 0.23637, -36.9525, 180.759, -46.2137, 37.3583, 33.3044, 64.9078, -96.8326, -269.541
0.148, -1, 3.51173, 58.9144, -65.2678, 0.0954775, -37.1006, 180.711, -46.1128, 37.2954, 33.2487, 64.9105, -96.6236, -269.536
0.152, -1, 3.50803, 58.9012, -65.2433, -0.0454016, -37.2487, 180.663, -46.0118, 37.2324, 33.1931, 64.9133, -96.4146, -269.532
0.156, -1, 3.50431, 58.888, -65.2189, -0.18623, -37.3968, 180.615, -45.911, 37.1695, 33.1375, 64.916, -96.2058, -269.527
0.16, -1, 3.50058, 58.8747, -65.1944, -0.326986, -37.5448, 180.567, -45.8101, 37.1067, 33.0819, 64.9188, -95.9971, -269.522
0.164, -1, 3.49683, 58.8615, -65.17, -0.467652, -37.6926, 180.519, -45.7094, 37.0439, 33.0263, 64.9215, -95.7886, -269.517
0.168, -1, 3.49308, 58.8483, -65.1456, -0.608219, -37.8404, 180.471, -45.6087, 36.9811, 32.9709, 64.9243, -95.5802, -269.512
0.172, -1, 3.48933, 58.8351, -65.1212, -0.748683, -37.9881, 180.423, -45.5081, 36.9184, 32.9154, 64.927, -95.372, -269.507
0.176, -1, 3.48558, 58.8219, -65.0968, -0.889041, -38.1357, 180.375, -45.4076, 36.8557, 32.86, 64.9298, -95.164, -269.502
0.18, -1, 3.48182, 58.8087, -65.0725, -1.02929, -38.2831, 180.328, -45.3071, 36.7931, 32.8046, 64.9325, -94.9561, -269.497
0.184, -1, 3.47808, 58.7955, -65.0482, -1.16944, -38.4305, 180.28, -45.2068, 36.7305, 32.7493, 64.9352, -94.7484, -269.492
0.188, -1, 3.47433, 58.7823, -65.0239, -1.30948, -38.5777, 180.232, -45.1065, 36.6679, 32.694, 64.938, -94.5408, -269.487
0.192, -1, 3.47059, 58.7692, -64.9996, -1.44941, -38.7248, 180.184, -45.0062, 36.6054, 32.6388, 64.9407, -94.3334, -269.482
0.196, -1, 3.46685, 58.756, -64.9753, -1.58924, -38.8718, 180.136, -44.9061, 36.543, 32.5835, 64.9434, -94.1261, -269.477
0.2, -1, 3.46311, 58.7429, -64.9511, -1.72896, -39.0187, 180.089, -44.806, 36.4806, 32.5284, 64.9461, -93.919, -269.472
0.204, -1, 3.45938, 58.7298, -64.9268, -1.86857, -39.1655, 180.041, -44.706, 36.4183, 32.4733, 64.9489, -93.7121, -269.468
0.208, -1, 3.45564, 58.7166, -64.9026, -2.00808, -39.3122, 179.993, -44.6061, 36.356, 32.4182, 64.9516, -93.5053, -269.463
0.212, -1, 3.45192, 58.7035, -64.8784, -2.14748, -39.4587, 179.946, -44.5063, 36.2937, 32.3632, 64.9543, -93.2987, -269.458
0.216, -1, 3.44819, 58.6904, -64.8542, -2.28678, -39.6052, 179.898, -44.4065, 36.2315, 32.3082, 64.957, -93.0922, -269.453
0.22, -1, 3.44447, 58.6773, -64.8301, -2.42596, -39.7515, 179.851, -44.3068, 36.1693, 32.2532, 64.9597, -92.8859, -269.448
0.224, -1, 3.44075, 58.6643, -64.8059, -2.56505, -39.8977, 179.803, -44.2072, 36.1072, 32.1983, 64.9625, -92.6797, -269.443
0.228, -1, 3.43703, 58.6512, -64.7818, -2.70402, -40.0438, 179.756, -44.1077, 36.0452, 32.1434, 64.9652, -92.4737, -269.438
0.232, -1, 3.43332, 58.6381, -64.7577, -2.84289, -40.1898, 179.709, -44.0082, 35.9832, 32.0886, 64.9679, -92.2679, -269.433
0.236, -1, 3.4296, 58.6251, -64.7336, -2.98165, -40.3357, 179.661, -43.9088, 35.9212, 32.0338, 64.9706, -92.0622, -269.428
0.24, -1, 3.42589, 58.612, -64.7095, -3.12031, -40.4815, 179.614, -43.8095, 35.8593, 31.9791, 64.9733, -91.8567, -269.424
0.244, -1, 3.42219, 58.599, -64.6855, -3.25886, -40.6272, 179.567, -43.7103, 35.7974, 31.9244, 64.976, -91.6513, -269.419
0.248, -1, 3.41848, 58.586, -64.6615, -3.3973, -40.7727, 179.519, -43.6111, 35.7356, 31.8697, 64.9787, -91.4461, -269.414
0.252, -1, 3.41478, 58.573, -64.6375, -3.53564, -40.9182, 179.472, -43.512, 35.6738, 31.8151, 64.9814, -91.2411, -269.409
0.256, -1, 3.41109, 58.56, -64.6135, -3.67387, -41.0635, 179.425, -43.413, 35.6121, 31.7606, 64.9841, -91.0362, -269.404
0.26, -1, 3.40739, 58.547, -64.5895, -3.812, -41.2087, 179.378, -43.3141, 35.5504, 31.706, 64.9868, -90.8314, -269.399
0.264, -1, 3.4037, 58.534, -64.5655, -3.95003, -41.3538, 179.331, -43.2153, 35.4888, 31.6515, 64.9895, -90.6269, -269.394
0.268, -1, 3.40001, 58.521, -64.5416, -4.08795, -41.4988, 179.284, -43.1165, 35.4272, 31.5971, 64.9922, -90.4224, -269.39
0.272, -1, 3.39632, 58.508, -64.5177, -4.22576, -41.6437, 179.237, -43.0178, 35.3656, 31.5427, 64.9949, -90.2182, -269.385
0.276, -1, 3.39264, 58.4951, -64.4938, -4.36347, -41.7885, 179.19, -42.9191, 35.3041, 31.4883, 64.9976, -90.014, -269.38
0.28, -1, 3.38896, 58.4822, -64.4699, -4.50108, -41.9332, 179.143, -42.8206, 35.2427, 31.434, 65.0003, -89.8101, -269.375
0.284, -1, 3.38528, 58.4692, -64.446, -4.63858, -42.0777, 179.096, -42.7221, 35.1813, 31.3797, 65.0029, -89.6062, -269.37
0.288, -1, 3.3816, 58.4563, -64.4222, -4.77598, -42.2222, 179.049, -42.6237, 35.1199, 31.3254, 65.0056, -89.4026, -269.365
0.292, -1, 3.37793, 58.4434, -64.3983, -4.91328, -42.3665, 179.002, -42.5254, 35.0586, 31.2712, 65.0083, -89.1991, -269.361
0.296, -1, 3.37426, 58.4305, -64.3745, -5.05047, -42.5108, 178.955, -42.4271, 34.9974, 31.2171, 65.011, -88.9957, -269.356
0.3, -1, 3.37059, 58.4176, -64.3507, -5.18756, -42.6549, 178.908, -42.3289, 34.9361, 31.163, 65.0137, -88.7925, -269.351
0.304, -1, 3.36693, 58.4047, -64.3269, -5.32455, -42.7989, 178.862, -42.2308, 34.875, 31.1089, 65.0163, -88.5895, -269.346
0.308, -1, 3.36327, 58.3918, -64.3032, -5.46143, -42.9428, 178.815, -42.1328, 34.8138, 31.0548, 65.019, -88.3866, -269.341
0.312, -1, 3.35961, 58.379, -64.2794, -5.59821, -43.0866, 178.768, -42.0348, 34.7528, 31.0008, 65.0217, -88.1839, -269.337
0.316, -1, 3.35595, 58.3661, -64.2557, -5.73488, -43.2303, 178.722, -41.9369, 34.6917, 30.9469, 65.0243, -87.9813, -269.332
0.32, -1, 3.3523, 58.3533, -64.232, -5.87145, -43.3739, 178.675, -41.8391, 34.6307, 30.893, 65.027, -87.7788, -269.327
0.324, -1, 3.34865, 58.3404, -64.2083, -6.00792, -43.5174, 178.629, -41.7414, 34.5698, 30.8391, 65.0297, -87.5766, -269.322
0.328, -1, 3.345, 58.3276, -64.1847, -6.14429, -43.6608, 178.582, -41.6437, 34.5089, 30.7853, 65.0323, -87.3744, -269.317
0.332, -1, 3.34136, 58.3148, -64.161, -6.28055, -43.804, 178.535, -41.5461, 34.4481, 30.7315, 65.035, -87.1725, -269.313
0.336, -1, 3.33772, 58.302, -64.1374, -6.41671, -43.9472, 178.489, -41.4486, 34.3872, 30.6777, 65.0376, -86.9706, -269.308
0.34, -1, 3.33408, 58.2892, -64.1137, -6.55277, -44.0902, 178.443, -41.3512, 34.3265, 30.624, 65.0403, -86.769, -269.303
0.344, -1, 3.33044, 58.2764, -64.0901, -6.68872, -44.2331, 178.396, -41.2538, 34.2658, 30.5703, 65.043, -86.5675, -269.298
0.348, -1, 3.32681, 58.2636, -64.0666, -6.82457, -44.376, 178.35, -41.1565, 34.2051, 30.5167, 65.0456, -86.3661, -269.293
0.352, -1, 3.32318, 58.2508, -64.043, -6.96032, -44.5187, 178.304, -41.0593, 34.1445, 30.4631, 65.0483, -86.1649, -269.289
0.356, -1, 3.31955, 58.2381, -64.0195, -7.09597, -44.6613, 178.257, -40.9621, 34.0839, 30.4095, 65.0509, -85.9638, -269.284
0.36, -1, 3.31592, 58.2253, -63.9959, -7.23151, -44.8038, 178.211, -40.865, 34.0234, 30.356, 65.0536, -85.7629, -269.279
0.364, -1, 3.3123, 58.2126, -63.9724, -7.36695, -44.9462, 178.165, -40.768, 33.9629, 30.3026, 65.0562, -85.5622, -269.274
0.368, -1, 3.30868, 58.1999, -63.9489, -7.50229, -45.0885, 178.119, -40.6711, 33.9025, 30.2491, 65.0588, -85.3616, -269.27
0.372, -1, 3.30506, 58.1871, -63.9255, -7.63753, -45.2307, 178.072, -40.5742, 33.8421, 30.1957, 65.0615, -85.1611, -269.265
0.376, -1, 3.30144, 58.1744, -63.902, -7.77266, -45.3727, 178.026, -40.4774, 33.7817, 30.1424, 65.0641, -84.9608, -269.26
0.38, -1, 3.29783, 58.1617, -63.8786, -7.9077, -45.5147, 177.98, -40.3807, 33.7214, 30.0891, 65.0667, -84.7607, -269.255
0.384, -1, 3.29422, 58.149, -63.8551, -8.04263, -45.6566, 177.934, -40.2841, 33.6612, 30.0358, 65.0694, -84.5606, -269.251
0.388, -1, 3.29062, 58.1363, -63.8317, -8.17746, -45.7983, 177.888, -40.1875, 33.601, 29.9826, 65.072, -84.3608, -269.246
0.392, -1, 3.28701, 58.1237, -63.8084, -8.31219, -45.94, 177.842, -40.091, 33.5408, 29.9294, 65.0746, -84.1611, -269.241
0.396, -1, 3.28341, 58.111, -63.785, -8.44681, -46.0815, 177.796, -39.9946, 33.4807, 29.8762, 65.0773, -83.9616, -269.236
0.4, -1, 3.27981, 58.0984, -63.7616, -8.58134, -46.2229, 177.75, -39.8983, 33.4206, 29.8231, 65.0799, -83.7622, -269.232
0.404, -1, 3.27622, 58.0857, -63.7383, -8.71577, -46.3643, 177.704, -39.802, 33.3606, 29.7701, 65.0825, -83.5629, -269.227
0.408, -1, 3.27262, 58.0731, -63.715, -8.8501, -46.5055, 177.659, -39.7058, 33.3006, 29.717, 65.0851, -83.3638, -269.222
0.412, -1, 3.26903, 58.0604, -63.6917, -8.98432, -46.6466, 177.613, -39.6096, 33.2407, 29.664, 65.0878, -83.1648, -269.218
0.416, -1, 3.26544, 58.0478, -63.6684, -9.11845, -46.7876, 177.567, -39.5136, 33.1808, 29.6111, 65.0904, -82.966, -269.213
0.42, -1, 3.26186, 58.0352, -63.6451, -9.25248, -46.9285, 177.521, -39.4176, 33.1209, 29.5582, 65.093, -82.7674, -269.208
0.424, -1, 3.25827, 58.0226, -63.6219, -9.38642, -47.0694, 177.476, -39.3217, 33.0611, 29.5053, 65.0956, -82.5689, -269.203
0.428, -1, 3.25469, 58.01, -63.5987, -9.52025, -47.2101, 177.43, -39.2258, 33.0013, 29.4524, 65.0982, -82.3705, -269.199
0.432, -1, 3.25112, 57.9975, -63.5755, -9.65399, -47.3507, 177.384, -39.13, 32.9416, 29.3997, 65.1008, -82.1722, -269.194
0.436, -1, 3.24754, 57.9849, -63.5523, -9.78763, -47.4912, 177.339, -39.0343, 32.8819, 29.3469, 65.1034, -81.9742, -269.189
0.44, -1, 3.24397, 57.9723, -63.5291, -9.92117, -47.6316, 177.293, -38.9387, 32.8223, 29.2942, 65.106, -81.7762, -269.185
0.444, -1, 3.2404, 57.9598, -63.5059, -10.0546, -47.7719, 177.248, -38.8431, 32.7627, 29.2415, 65.1087, -81.5784, -269.18
0.448, -1, 3.23683, 57.9472, -63.4828, -10.188, -47.9121, 177.202, -38.7476, 32.7032, 29.1888, 65.1113, -81.3808, -269.175
0.452, -1, 3.23327, 57.9347, -63.4596, -10.3212, -48.0522, 177.157, -38.6521, 32.6437, 29.1362, 65.1139, -81.1833, -269.171
0.456, -1, 3.22971, 57.9222, -63.4365, -10.4544, -48.1922, 177.111, -38.5568, 32.5842, 29.0837, 65.1165, -80.9859, -269.166
0.46, -1, 3.22615, 57.9097, -63.4134, -10.5874, -48.332, 177.066, -38.4615, 32.5248, 29.0311, 65.119, -80.7887, -269.161
0.464, -1, 3.22259, 57.8971, -63.3903, -10.7204, -48.4718, 177.02, -38.3662, 32.4654, 28.9786, 65.1217, -80.5916, -269.157
0.468, -1, 3.21904, 57.8847, -63.3673, -10.8533, -48.6115, 176.975, -38.2711, 32.4061, 28.9262, 65.1242, -80.3946, -269.152
0.472, -1, 3.21548, 57.8722, -63.3442, -10.986, -48.7511, 176.93, -38.176, 32.3468, 28.8738, 65.1268, -80.1978, -269.147
0.476, -1, 3.21193, 57.8597, -63.3212, -11.1187, -48.8906, 176.884, -38.081, 32.2875, 28.8214, 65.1294, -80.0012, -269.143
0.48, -1, 3.20839, 57.8472, -63.2982, -11.2513, -49.03, 176.839, -37.986, 32.2283, 28.769, 65.132, -79.8047, -269.138
0.484, -1, 3.20484, 57.8347, -63.2752, -11.3838, -49.1693, 176.794, -37.8911, 32.1692, 28.7167, 65.1346, -79.6083, -269.133
0.488, -1, 3.2013, 57.8223, -63.2522, -11.5162, -49.3085, 176.749, -37.7963, 32.11, 28.6645, 65.1372, -79.412, -269.129
0.492, -1, 3.19776, 57.8098, -63.2293, -11.6485, -49.4476, 176.704, -37.7015, 32.051, 28.6122, 65.1398, -79.2159, -269.124
0.496, -1, 3.19423, 57.7974, -63.2063, -11.7807, -49.5866, 176.659, -37.6068, 31.9919, 28.56, 65.1423, -79.02, -269.119
0.5, -1, 3.19069, 57.785, -63.1834, -11.9128, -49.7255, 176.613, -37.5122, 31.9329, 28.5079, 65.1449, -78.8242, -269.115
0.504, -1, 3.18716, 57.7726, -63.1605, -12.0448, -49.8643, 176.568, -37.4177, 31.874, 28.4558, 65.1475, -78.6285, -269.11
0.508, -1, 3.18363, 57.7602, -63.1376, -12.1767, -50.003, 176.523, -37.3232, 31.8151, 28.4037, 65.1501, -78.4329, -269.105
0.512, -1, 3.18011, 57.7478, -63.1147, -12.3086, -50.1416, 176.478, -37.2288, 31.7562, 28.3516, 65.1526, -78.2375, -269.101
0.516, -1, 3.17658, 57.7354, -63.0918, -12.4403, -50.2801, 176.433, -37.1344, 31.6974, 28.2996, 65.1552, -78.0423, -269.096
0.52, -1, 3.17306, 57.723, -63.069, -12.5719, -50.4185, 176.388, -37.0401, 31.6386, 28.2477, 65.1578, -77.8472, -269.092
0.524, -1, 3.16954, 57.7106, -63.0461, -12.7035, -50.5568, 176.344, -36.9459, 31.5798, 28.1957, 65.1604, -77.6522, -269.087
0.528, -1, 3.16603, 57.6982, -63.0233, -12.835, -50.695, 176.299, -36.8518, 31.5211, 28.1438, 65.1629, -77.4573, -269.082
0.532, -1, 3.16251, 57.6859, -63.0005, -12.9663, -50.8331, 176.254, -36.7577, 31.4625, 28.092, 65.1655, -77.2626, -269.078
0.536, -1, 3.159, 57.6735, -62.9777, -13.0976, -50.9711, 176.209, -36.6637, 31.4038, 28.0401, 65.168, -77.068, -269.073
0.54, -1, 3.15549, 57.6612, -62.955, -13.2288, -51.109, 176.164, -36.5697, 31.3453, 27.9884, 65.1706, -76.8736, -269.069
0.544, -1, 3.15199, 57.6489, -62.9322, -13.3599, -51.2468, 176.12, -36.4758, 31.2867, 27.9366, 65.1732, -76.6793, -269.064
0.548, -1, 3.14848, 57.6366, -62.9095, -13.4908, -51.3845, 176.075, -36.382, 31.2282, 27.8849, 65.1757, -76.4851, -269.059
0.552, -1, 3.14498, 57.6242, -62.8867, -13.6218, -51.5222, 176.03, -36.2883, 31.1698, 27.8332, 65.1783, -76.2911, -269.055
0.556, -1, 3.14148, 57.6119, -62.864, -13.7526, -51.6597, 175.986, -36.1946, 31.1114, 27.7816, 65.1808, -76.0972, -269.05
0.56, -1, 3.13798, 57.5996, -62.8413, -13.8833, -51.7971, 175.941, -36.1009, 31.053, 27.73, 65.1834, -75.9035, -269.046
0.564, -1, 3.13449, 57.5873, -62.8187, -14.0139, -51.9345, 175.896, -36.0074, 30.9947, 27.6784, 65.1859, -75.7098, -269.041
0.568, -1, 3.131, 57.5751, -62.796, -14.1444, -52.0717, 175.852, -35.9139, 30.9364, 27.6268, 65.1885, -75.5163, -269.036
0.572, -1, 3.12751, 57.5628, -62.7734, -14.2749, -52.2088, 175.807, -35.8205, 30.8781, 27.5753, 65.191, -75.323, -269.032
0.576, -1, 3.12402, 57.5505, -62.7507, -14.4053, -52.3459, 175.763, -35.7271, 30.8199, 27.5239, 65.1936, -75.1298, -269.027
0.58, -1, 3.12054, 57.5383, -62.7281, -14.5355, -52.4828, 175.718, -35.6338, 30.7617, 27.4725, 65.1961, -74.9367, -269.023
0.584, -1, 3.11706, 57.526, -62.7055, -14.6657, -52.6197, 175.674, -35.5406, 30.7036, 27.4211, 65.1987, -74.7437, -269.018
0.588, -1, 3.11358, 57.5138, -62.683, -14.7958, -52.7565, 175.63, -35.4474, 30.6455, 27.3697, 65.2012, -74.5509, -269.014
0.592, -1, 3.1101, 57.5016, -62.6604, -14.9258, -52.8931, 175.585, -35.3543, 30.5875, 27.3184, 65.2037, -74.3582, -269.009
0.596, -1, 3.10662, 57.4894, -62.6378, -15.0557, -53.0297, 175.541, -35.2613, 30.5294, 27.2671, 65.2063, -74.1657, -269.004
0.6, -1, 3.10315, 57.4771, -62.6153, -15.1855, -53.1662, 175.497, -35.1683, 30.4715, 27.2159, 65.2088, -73.9733, -269
0.604, -1, 3.09968, 57.4649, -62.5928, -15.3152, -53.3026, 175.452, -35.0754, 30.4135, 27.1646, 65.2113, -73.781, -268.995
0.608, -1, 3.09621, 57.4527, -62.5703, -15.4449, -53.4389, 175.408, -34.9825, 30.3556, 27.1135, 65.2139, -73.5888, -268.991
0.612, -1, 3.09275, 57.4406, -62.5478, -15.5744, -53.5751, 175.364, -34.8897, 30.2978, 27.0623, 65.2164, -73.3968, -268.986
0.616, -1, 3.08928, 57.4284, -62.5253, -15.7039, -53.7112, 175.32, -34.797, 30.24, 27.0112, 65.2189, -73.2049, -268.982
0.62, -1, 3.08582, 57.4162, -62.5029, -15.8333, -53.8472, 175.276, -34.7043, 30.1822, 26.9601, 65.2214, -73.0131, -268.977
0.624, -1, 3.08236, 57.4041, -62.4804, -15.9626, -53.9832, 175.231, -34.6117, 30.1245, 26.9091, 65.224, -72.8215, -268.973
0.628, -1, 3.07891, 57.3919, -62.458, -16.0918, -54.119, 175.187, -34.5192, 30.0668, 26.8581, 65.2265, -72.63, -268.968
0.632, -1, 3.07545, 57.3797, -62.4356, -16.2209, -54.2548, 175.143, -34.4267, 30.0091, 26.8071, 65.229, -72.4386, -268.963
0.636, -1, 3.072, 57.3676, -62.4132, -16.3499, -54.3904, 175.099, -34.3343, 29.9515, 26.7561, 65.2315, -72.2473, -268.959
0.64, -1, 3.06855, 57.3555, -62.3908, -16.4789, -54.526, 175.055, -34.2419, 29.8939, 26.7052, 65.234, -72.0562, -268.954
0.644, -1, 3.0651, 57.3434, -62.3684, -16.6078, -54.6615, 175.011, -34.1496, 29.8363, 26.6544, 65.2366, -71.8652, -268.95
0.648, -1, 3.06166, 57.3312, -62.3461, -16.7365, -54.7969, 174.967, -34.0574, 29.7788, 26.6035, 65.2391, -71.6743, -268.945
0.652, -1, 3.05822, 57.3191, -62.3237, -16.8652, -54.9322, 174.923, -33.9652, 29.7214, 26.5527, 65.2416, -71.4835, -268.941
0.656, -1, 3.05478, 57.307, -62.3014, -16.9939, -55.0674, 174.879, -33.8731, 29.6639, 26.5019, 65.2441, -71.2929, -268.936
0.66, -1, 3.05134, 57.2949, -62.2791, -17.1224, -55.2026, 174.836, -33.781, 29.6065, 26.4512, 65.2466, -71.1023, -268.932
0.664, -1, 3.0479, 57.2829, -62.2568, -17.2509, -55.3376, 174.792, -33.689, 29.5492, 26.4005, 65.2491, -70.9119, -268.927
0.668, -1, 3.04447, 57.2708, -62.2345, -17.3792, -55.4726, 174.748, -33.5971, 29.4918, 26.3498, 65.2516, -70.7217, -268.923
0.672, -1, 3.04104, 57.2587, -62.2123, -17.5075, -55.6074, 174.704, -33.5052, 29.4346, 26.2991, 65.2541, -70.5315, -268.918
0.676, -1, 3.03761, 57.2467, -62.19, -17.6357, -55.7422, 174.66, -33.4134, 29.3773, 26.2485, 65.2566, -70.3415, -268.914
0.68, -1, 3.03418, 57.2346, -62.1678, -17.7638, -55.8769, 174.617, -33.3216, 29.3201, 26.1979, 65.2591, -70.1516, -268.909
0.684, -1, 3.03076, 57.2226, -62.1455, -17.8919, -56.0116, 174.573, -33.2299, 29.2629, 26.1474, 65.2616, -69.9618, -268.905
0.688, -1, 3.02733, 57.2105, -62.1233, -18.0198, -56.1461, 174.529, -33.1383, 29.2058, 26.0969, 65.2641, -69.7721, -268.9
0.692, -1, 3.02391, 57.1985, -62.1011, -18.1477, -56.2805, 174.486, -33.0467, 29.1487, 26.0464, 65.2666, -69.5826, -268.896
0.696, -1, 3.02049, 57.1865, -62.079, -18.2755, -56.4149, 174.442, -32.9552, 29.0916, 25.9959, 65.2691, -69.3932, -268.891
0.7, -1, 3.01708, 57.1745, -62.0568, -18.4032, -56.5492, 174.398, -32.8637, 29.0346, 25.9455, 65.2716, -69.2038, -268.887
0.704, -1, 3.01366, 57.1625, -62.0346, -18.5309, -56.6834, 174.355, -32.7723, 28.9776, 25.8951, 65.2741, -69.0147, -268.882
0.708, -1, 3.01025, 57.1505, -62.0125, -18.6584, -56.8175, 174.311, -32.6809, 28.9206, 25.8448, 65.2766, -68.8256, -268.878
0.712, -1, 3.00684, 57.1385, -61.9904, -18.7859, -56.9515, 174.268, -32.5896, 28.8637, 25.7944, 65.2791, -68.6366, -268.873
0.716, -1, 3.00343, 57.1265, -61.9683, -18.9133, -57.0854, 174.224, -32.4984, 28.8068, 25.7441, 65.2816, -68.4478, -268.869
0.72, -1, 3.00003, 57.1145, -61.9461, -19.0406, -57.2193, 174.181, -32.4072, 28.7499, 25.6939, 65.284, -68.2591, -268.864
0.724, -1, 2.99662, 57.1025, -61.9241, -19.1679, -57.3531, 174.138, -32.3161, 28.6931, 25.6436, 65.2865, -68.0705, -268.86
0.728, -1, 2.99322, 57.0906, -61.902, -19.295, -57.4867, 174.094, -32.225, 28.6363, 25.5934, 65.289, -67.882, -268.855
0.732, -1, 2.98982, 57.0786, -61.8799, -19.4221, -57.6203, 174.051, -32.134, 28.5796, 25.5433, 65.2915, -67.6937, -268.851
0.736, -1, 2.98643, 57.0667, -61.8579, -19.5491, -57.7539, 174.007, -32.043, 28.5229, 25.4931, 65.294, -67.5054, -268.847
0.74, -1, 2.98303, 57.0547, -61.8359, -19.676, -57.8873, 173.964, -31.9521, 28.4662, 25.443, 65.2964, -67.3173, -268.842
0.744, -1, 2.97964, 57.0428, -61.8138, -19.8029, -58.0207, 173.921, -31.8613, 28.4095, 25.3929, 65.2989, -67.1293, -268.838
0.748, -1, 2.97625, 57.0309, -61.7918, -19.9296, -58.1539, 173.878, -31.7705, 28.3529, 25.3429, 65.3014, -66.9414, -268.833
0.752, -1, 2.97286, 57.019, -61.7698, -20.0563, -58.2871, 173.834, -31.6797, 28.2964, 25.2929, 65.3039, -66.7536, -268.829
0.756, -1, 2.96947, 57.0071, -61.7479, -20.1829, -58.4203, 173.791, -31.589, 28.2398, 25.2429, 65.3063, -66.5659, -268.824
0.76, -1, 2.96609, 56.9952, -61.7259, -20.3095, -58.5533, 173.748, -31.4984, 28.1833, 25.1929, 65.3088, -66.3784, -268.82
0.764, -1, 2.96271, 56.9833, -61.704, -20.4359, -58.6862, 173.705, -31.4079, 28.1268, 25.143, 65.3113, -66.1909, -268.815
0.768, -1, 2.95933, 56.9714, -61.682, -20.5623, -58.8191, 173.662, -31.3173, 28.0704, 25.0931, 65.3137, -66.0036, -268.811
0.772, -1, 2.95595, 56.9595, -61.6601, -20.6886, -58.9519, 173.619, -31.2269, 28.014, 25.0433, 65.3162, -65.8164, -268.807
0.776, -1, 2.95257, 56.9476, -61.6382, -20.8149, -59.0846, 173.576, -31.1365, 27.9576, 24.9934, 65.3187, -65.6293, -268.802
0.78, -1, 2.9492, 56.9358, -61.6163, -20.941, -59.2172, 173.532, -31.0461, 27.9013, 24.9436, 65.3211, -65.4423, -268.798
0.784, -1, 2.94582, 56.9239, -61.5944, -21.0671, -59.3498, 173.489, -30.9558, 27.845, 24.8938, 65.3236, -65.2554, -268.793
0.788, -1, 2.94245, 56.912, -61.5725, -21.1931, -59.4823, 173.446, -30.8656, 27.7887, 24.8441, 65.326, -65.0687, -268.789
0.792, -1, 2.93909, 56.9002, -61.5507, -21.319, -59.6147, 173.403, -30.7754, 27.7325, 24.7944, 65.3285, -64.882, -268.784
0.796, -1, 2.93572, 56.8884, -61.5288, -21.4449, -59.747, 173.361, -30.6852, 27.6763, 24.7447, 65.331, -64.6955, -268.78
0.8, -1, 2.93236, 56.8765, -61.507, -21.5706, -59.8792, 173.318, -30.5952, 27.6201, 24.695, 65.3334, -64.509, -268.776
0.804, -1, 2.92899, 56.8647, -61.4852, -21.6963, -60.0114, 173.275, -30.5051, 27.564, 24.6454, 65.3359, -64.3227, -268.771
0.808, -1, 2.92563, 56.8529, -61.4634, -21.822, -60.1434, 173.232, -30.4152, 27.5079, 24.5958, 65.3383, -64.1365, -268.767
0.812, -1, 2.92227, 56.8411, -61.4416, -21.9475, -60.2754, 173.189, -30.3252, 27.4518, 24.5463, 65.3408, -63.9504, -268.762
0.816, -1, 2.91892, 56.8293, -61.4198, -22.073, -60.4074, 173.146, -30.2354, 27.3958, 24.4967, 65.3432, -63.7644, -268.758
0.82, -1, 2.91556, 56.8175, -61.398, -22.1984, -60.5392, 173.103, -30.1455, 27.3398, 24.4472, 65.3457, -63.5785, -268.754
0.824, -1, 2.91221, 56.8057, -61.3763, -22.3237, -60.671, 173.061, -30.0558, 27.2838, 24.3977, 65.3481, -63.3928, -268.749
0.828, -1, 2.90886, 56.7939, -61.3545, -22.449, -60.8027, 173.018, -29.9661, 27.2279, 24.3483, 65.3506, -63.2071, -268.745
0.832, -1, 2.90551, 56.7821, -61.3328, -22.5742, -60.9343, 172.975, -29.8764, 27.172, 24.2989, 65.353, -63.0215, -268.74
0.836, -1, 2.90216, 56.7704, -61.3111, -22.6993, -61.0658, 172.932, -29.7868, 27.1161, 24.2495, 65.3554, -62.8361, -268.736
0.84, -1, 2.89882, 56.7586, -61.2894, -22.8244, -61.1973, 172.89, -29.6972, 27.0603, 24.2001, 65.3579, -62.6507, -268.732
0.844, -1, 2.89548, 56.7468, -61.2677, -22.9494, -61.3287, 172.847, -29.6077, 27.0045, 24.1507, 65.3603, -62.4655, -268.727
0.848, -1, 2.89213, 56.7351, -61.246, -23.0743, -61.46, 172.804, -29.5182, 26.9487, 24.1014, 65.3628, -62.2803, -268.723
0.852, -1, 2.8888, 56.7234, -61.2243, -23.1991, -61.5913, 172.762, -29.4288, 26.8929, 24.0521, 65.3652, -62.0953, -268.718
0.856, -1, 2.88546, 56.7116, -61.2027, -23.3239, -61.7225, 172.719, -29.3395, 26.8372, 24.0029, 65.3676, -61.9103, -268.714
0.86, -1, 2.88212, 56.6999, -61.181, -23.4486, -61.8536, 172.677, -29.2501, 26.7815, 23.9536, 65.3701, -61.7255, -268.71
0.864, -1, 2.87879, 56.6882, -61.1594, -23.5732, -61.9846, 172.634, -29.1609, 26.7259, 23.9044, 65.3725, -61.5408, -268.705
0.868, -1, 2.87546, 56.6764, -61.1378, -23.6978, -62.1156, 172.592, -29.0717, 26.6702, 23.8553, 65.3749, -61.3561, -268.701
0.872, -1, 2.87213, 56.6647, -61.1162, -23.8223, -62.2465, 172.549, -28.9825, 26.6146, 23.8061, 65.3774, -61.1716, -268.696
0.876, -1, 2.8688, 56.653, -61.0946, -23.9467, -62.3773, 172.507, -28.8934, 26.5591, 23.757, 65.3798, -60.9871, -268.692
0.88, -1, 2.86547, 56.6413, -61.073, -24.0711, -62.508, 172.464, -28.8043, 26.5035, 23.7079, 65.3822, -60.8028, -268.688
0.884, -1, 2.86215, 56.6296, -61.0514, -24.1954, -62.6387, 172.422, -28.7153, 26.448, 23.6588, 65.3846, -60.6186, -268.683
0.888, -1, 2.85882, 56.618, -61.0298, -24.3196, -62.7693, 172.379, -28.6263, 26.3926, 23.6098, 65.3871, -60.4344, -268.679
0.892, -1, 2.8555, 56.6063, -61.0083, -24.4438, -62.8999, 172.337, -28.5374, 26.3371, 23.5608, 65.3895, -60.2504, -268.675
0.896, -1, 2.85218, 56.5946, -60.9868, -24.5679, -63.0303, 172.295, -28.4485, 26.2817, 23.5118, 65.3919, -60.0665, -268.67
0.9, -1, 2.84887, 56.5829, -60.9652, -24.6919, -63.1607, 172.252, -28.3597, 26.2263, 23.4628, 65.3943, -59.8826, -268.666
0.904, -1, 2.84555, 56.5713, -60.9437, -24.8159, -63.2911, 172.21, -28.2709, 26.1709, 23.4139, 65.3968, -59.6989, -268.662
0.908, -1, 2.84224, 56.5596, -60.9222, -24.9398, -63.4213, 172.168, -28.1821, 26.1156, 23.3649, 65.3992, -59.5152, -268.657
0.912, -1, 2.83893, 56.548, -60.9007, -25.0636, -63.5515, 172.126, -28.0934, 26.0603, 23.316, 65.4016, -59.3317, -268.653
0.916, -1, 2.83561, 56.5363, -60.8792, -25.1874, -63.6817, 172.083, -28.0048, 26.005, 23.2672, 65.404, -59.1482, -268.649
0.92, -1, 2.83231, 56.5247, -60.8577, -25.3111, -63.8117, 172.041, -27.9162, 25.9498, 23.2183, 65.4064, -58.9649, -268.644
0.924, -1, 2.829, 56.5131, -60.8363, -25.4347, -63.9417, 171.999, -27.8277, 25.8946, 23.1695, 65.4088, -58.7816, -268.64
0.928, -1, 2.82569, 56.5014, -60.8148, -25.5583, -64.0716, 171.957, -27.7391, 25.8394, 23.1208, 65.4112, -58.5984, -268.636
0.932, -1, 2.82239, 56.4898, -60.7934, -25.6818, -64.2015, 171.915, -27.6507, 25.7843, 23.072, 65.4137, -58.4154, -268.631
0.936, -1, 2.81909, 56.4782, -60.772, -25.8053, -64.3313, 171.872, -27.5623, 25.7291, 23.0233, 65.4161, -58.2324, -268.627
0.94, -1, 2.81579, 56.4666, -60.7506, -25.9286, -64.461, 171.83, -27.4739, 25.674, 22.9745, 65.4185, -58.0495, -268.623
0.944, -1, 2.81249, 56.455, -60.7292, -26.052, -64.5906, 171.788, -27.3856, 25.619, 22.9259, 65.4209, -57.8667, -268.618
0.948, -1, 2.80919, 56.4434, -60.7078, -26.1752, -64.7202, 171.746, -27.2973, 25.5639, 22.8772, 65.4233, -57.684, -268.614
0.952, -1, 2.8059, 56.4318, -60.6864, -26.2984, -64.8497, 171.704, -27.2091, 25.5089, 22.8286, 65.4257, -57.5014, -268.61
0.956, -1, 2.80261, 56.4202, -60.665, -26.4215, -64.9792, 171.662, -27.1209, 25.4539, 22.7799, 65.4281, -57.3189, -268.605
0.96, -1, 2.79931, 56.4087, -60.6436, -26.5446, -65.1086, 171.62, -27.0327, 25.399, 22.7314, 65.4305, -57.1365, -268.601
0.964, -1, 2.79602, 56.3971, -60.6223, -26.6676, -65.2379, 171.578, -26.9446, 25.344, 22.6828, 65.4329, -56.9542, -268.597
0.968, -1, 2.79274, 56.3855, -60.6009, -26.7906, -65.3672, 171.536, -26.8566, 25.2891, 22.6343, 65.4353, -56.7719, -268.592
0.972, -1, 2.78945, 56.374, -60.5796, -26.9134, -65.4964, 171.494, -26.7686, 25.2343, 22.5857, 65.4377, -56.5898, -268.588
0.976, -1, 2.78616, 56.3624, -60.5583, -27.0363, -65.6255, 171.452, -26.6806, 25.1794, 22.5373, 65.4401, -56.4077, -268.584
0.98, -1, 2.78288, 56.3509, -60.537, -27.159, -65.7545, 171.41, -26.5927, 25.1246, 22.4888, 65.4425, -56.2258, -268.579
0.984, -1, 2.7796, 56.3393, -60.5157, -27.2817, -65.8835, 171.369, -26.5048, 25.0698, 22.4404, 65.4449, -56.0439, -268.575
0.988, -1, 2.77632, 56.3278, -60.4944, -27.4044, -66.0125, 171.327, -26.417, 25.015, 22.3919, 65.4473, -55.8621, -268.571
0.992, -1, 2.77304, 56.3163, -60.4731, -27.5269, -66.1413, 171.285, -26.3292, 24.9603, 22.3435, 65.4497, -55.6804, -268.566
0.996, -1, 2.76976, 56.3047, -60.4519, -27.6495, -66.2702, 171.243, -26.2414, 24.9056, 22.2952, 65.4521, -55.4988, -268.562
1, -1, 2.76649, 56.2932, -60.4306, -27.7719, -66.3989, 171.201, -26.1537, 24.8509, 22.2468, 65.4544, -55.3173, -268.558
1.004, -1, 2.76322, 56.2817, -60.4094, -27.8943, -66.5276, 171.16, -26.0661, 24.7962, 22.1985, 65.4568, -55.1359, -268.553
1.008, -1, 2.75994, 56.2702, -60.3881, -28.0167, -66.6562, 171.118, -25.9784, 24.7416, 22.1502, 65.4592, -54.9546, -268.549
1.012, -1, 2.75667, 56.2587, -60.3669, -28.1389, -66.7848, 171.076, -25.8909, 24.687, 22.1019, 65.4616, -54.7733, -268.545
1.016, -1, 2.7534, 56.2472, -60.3457, -28.2612, -66.9133, 171.034, -25.8033, 24.6324, 22.0537, 65.464, -54.5922, -268.541
1.02, -1, 2.75014, 56.2357, -60.3245, -28.3833, -67.0417, 170.993, -25.7158, 24.5779, 22.0055, 65.4664, -54.4111, -268.536
1.024, -1, 2.74687, 56.2242, -60.3033, -28.5054, -67.1701, 170.951, -25.6284, 24.5233, 21.9573, 65.4688, -54.2301, -268.532
1.027, -1, 2.74361, 56.2127, -60.2821, -28.6275, -67.2984, 170.909, -25.541, 24.4688, 21.9091, 65.4711, -54.0492, -268.528
1.032, -1, 2.74034, 56.2013, -60.2609, -28.7494, -67.4266, 170.868, -25.4536, 24.4144, 21.8609, 65.4735, -53.8684, -268.523
1.036, -1, 2.73708, 56.1898, -60.2398, -28.8714, -67.5548, 170.826, -25.3663, 24.3599, 21.8128, 65.4759, -53.6877, -268.519
1.04, -1, 2.73382, 56.1783, -60.2186, -28.9933, -67.6829, 170.785, -25.279, 24.3055, 21.7647, 65.4783, -53.507, -268.515
1.044, -1, 2.73056, 56.1669, -60.1975, -29.1151, -67.811, 170.743, -25.1917, 24.2511, 21.7166, 65.4807, -53.3265, -268.511
1.048, -1, 2.72731, 56.1554, -60.1763, -29.2368, -67.939, 170.701, -25.1045, 24.1967, 21.6685, 65.483, -53.146, -268.506
1.052, -1, 2.72405, 56.144, -60.1552, -29.3585, -68.067, 170.66, -25.0174, 24.1424, 21.6204, 65.4854, -52.9656, -268.502
1.055, -1, 2.7208, 56.1325, -60.1341, -29.4802, -68.1949, 170.618, -24.9302, 24.0881, 21.5724, 65.4878, -52.7853, -268.498
1.06, -1, 2.71755, 56.1211, -60.113, -29.6018, -68.3227, 170.577, -24.8432, 24.0338, 21.5244, 65.4902, -52.6051, -268.493
1.064, -1, 2.71429, 56.1097, -60.0919, -29.7233, -68.4505, 170.535, -24.7561, 23.9795, 21.4764, 65.4925, -52.4249, -268.489
1.068, -1, 2.71105, 56.0982, -60.0708, -29.8448, -68.5782, 170.494, -24.6691, 23.9252, 21.4285, 65.4949, -52.2448, -268.485
1.072, -1, 2.7078, 56.0868, -60.0497, -29.9663, -68.7059, 170.452, -24.5821, 23.871, 21.3805, 65.4973, -52.0648, -268.481
1.076, -1, 2.70455, 56.0754, -60.0287, -30.0876, -68.8335, 170.411, -24.4952, 23.8168, 21.3326, 65.4996, -51.8849, -268.476
1.08, -1, 2.7013, 56.064, -60.0076, -30.209, -68.9611, 170.37, -24.4083, 23.7626, 21.2847, 65.502, -51.7051, -268.472
1.084, -1, 2.69806, 56.0526, -59.9865, -30.3302, -69.0886, 170.328, -24.3214, 23.7085, 21.2368, 65.5044, -51.5253, -268.468
1.088, -1, 2.69482, 56.0412, -59.9655, -30.4515, -69.216, 170.287, -24.2346, 23.6543, 21.189, 65.5067, -51.3456, -268.464
1.091, -1, 2.69158, 56.0298, -59.9445, -30.5726, -69.3434, 170.246, -24.1478, 23.6002, 21.1411, 65.5091, -51.166, -268.459
1.096, -1, 2.68834, 56.0184, -59.9235, -30.6938, -69.4708, 170.204, -24.0611, 23.5461, 21.0933, 65.5115, -50.9865, -268.455
1.1, -1, 2.6851, 56.007, -59.9024, -30.8148, -69.5981, 170.163, -23.9744, 23.4921, 21.0455, 65.5138, -50.8071, -268.451
1.104, -1, 2.68186, 55.9956, -59.8814, -30.9358, -69.7253, 170.122, -23.8877, 23.438, 20.9977, 65.5162, -50.6277, -268.447
1.108, -1, 2.67863, 55.9842, -59.8604, -31.0568, -69.8525, 170.08, -23.8011, 23.384, 20.95, 65.5186, -50.4484, -268.442
1.112, -1, 2.67539, 55.9728, -59.8394, -31.1777, -69.9796, 170.039, -23.7145, 23.33, 20.9023, 65.5209, -50.2692, -268.438
1.116, -1, 2.67216, 55.9615, -59.8185, -31.2986, -70.1066, 169.998, -23.6279, 23.276, 20.8545, 65.5233, -50.09, -268.434
1.119, -1, 2.66893, 55.9501, -59.7975, -31.4194, -70.2337, 169.957, -23.5414, 23.2221, 20.8068, 65.5256, -49.911, -268.43
1.124, -1, 2.6657, 55.9388, -59.7765, -31.5402, -70.3606, 169.915, -23.4549, 23.1682, 20.7592, 65.528, -49.732, -268.425
1.128, -1, 2.66247, 55.9274, -59.7556, -31.6609, -70.4875, 169.874, -23.3684, 23.1143, 20.7115, 65.5303, -49.553, -268.421
1.132, -1, 2.65925, 55.916, -59.7346, -31.7815, -70.6144, 169.833, -23.282, 23.0604, 20.6639, 65.5327, -49.3742, -268.417
1.136, -1, 2.65602, 55.9047, -59.7137, -31.9021, -70.7412, 169.792, -23.1956, 23.0065, 20.6163, 65.5351, -49.1954, -268.413
1.14, -1, 2.6528, 55.8934, -59.6928, -32.0227, -70.868, 169.751, -23.1093, 22.9527, 20.5687, 65.5374, -49.0167, -268.408
1.144, -1, 2.64957, 55.882, -59.6719, -32.1432, -70.9946, 169.71, -23.023, 22.8989, 20.5211, 65.5398, -48.8381, -268.404
1.147, -1, 2.64635, 55.8707, -59.651, -32.2637, -71.1213, 169.668, -22.9367, 22.8451, 20.4735, 65.5421, -48.6595, -268.4
1.152, -1, 2.64313, 55.8594, -59.63, -32.3841, -71.2479, 169.627, -22.8504, 22.7913, 20.426, 65.5445, -48.4811, -268.396
1.156, -1, 2.63991, 55.848, -59.6092, -32.5045, -71.3744, 169.586, -22.7642, 22.7375, 20.3785, 65.5468, -48.3026, -268.392
1.16, -1, 2.63669, 55.8367, -59.5883, -32.6248, -71.5009, 169.545, -22.6781, 22.6838, 20.331, 65.5492, -48.1243, -268.387
1.164, -1, 2.63348, 55.8254, -59.5674, -32.745, -71.6274, 169.504, -22.5919, 22.6301, 20.2835, 65.5515, -47.946, -268.383
1.168, -1, 2.63026, 55.8141, -59.5465, -32.8653, -71.7538, 169.463, -22.5058, 22.5764, 20.236, 65.5539, -47.7678, -268.379
1.172, -1, 2.62705, 55.8028, -59.5257, -32.9854, -71.8801, 169.422, -22.4197, 22.5228, 20.1886, 65.5562, -47.5897, -268.375
1.175, -1, 2.62384, 55.7915, -59.5048, -33.1056, -72.0064, 169.381, -22.3337, 22.4691, 20.1412, 65.5585, -47.4117, -268.37
1.18, -1, 2.62062, 55.7802, -59.484, -33.2256, -72.1327, 169.34, -22.2477, 22.4155, 20.0937, 65.5609, -47.2337, -268.366
1.184, -1, 2.61741, 55.7689, -59.4631, -33.3457, -72.2589, 169.299, -22.1617, 22.3619, 20.0464, 65.5632, -47.0557, -268.362
1.188, -1, 2.6142, 55.7576, -59.4423, -33.4657, -72.385, 169.258, -22.0758, 22.3083, 19.999, 65.5656, -46.8779, -268.358
1.192, -1, 2.611, 55.7463, -59.4215, -33.5856, -72.5111, 169.217, -21.9899, 22.2547, 19.9516, 65.5679, -46.7001, -268.354
1.196, -1, 2.60779, 55.7351, -59.4007, -33.7055, -72.6372, 169.176, -21.904, 22.2012, 19.9043, 65.5703, -46.5224, -268.349
1.2, -1, 2.60459, 55.7238, -59.3799, -33.8254, -72.7632, 169.136, -21.8182, 22.1477, 19.857, 65.5726, -46.3448, -268.345
1.204, -1, 2.60138, 55.7125, -59.3591, -33.9452, -72.8891, 169.095, -21.7324, 22.0942, 19.8097, 65.5749, -46.1672, -268.341
1.208, -1, 2.59818, 55.7013, -59.3383, -34.0649, -73.015, 169.054, -21.6466, 22.0407, 19.7624, 65.5773, -45.9897, -268.337
1.212, -1, 2.59498, 55.69, -59.3175, -34.1846, -73.1409, 169.013, -21.5609, 21.9872, 19.7152, 65.5796, -45.8122, -268.333
1.216, -1, 2.59178, 55.6787, -59.2967, -34.3043, -73.2667, 168.972, -21.4752, 21.9338, 19.6679, 65.5819, -45.6349, -268.328
1.22, -1, 2.58858, 55.6675, -59.276, -34.4239, -73.3925, 168.931, -21.3895, 21.8804, 19.6207, 65.5843, -45.4576, -268.324
1.224, -1, 2.58538, 55.6562, -59.2552, -34.5435, -73.5182, 168.89, -21.3038, 21.827, 19.5735, 65.5866, -45.2803, -268.32
1.228, -1, 2.58218, 55.645, -59.2345, -34.663, -73.6439, 168.85, -21.2182, 21.7736, 19.5263, 65.5889, -45.1031, -268.316
1.232, -1, 2.57899, 55.6338, -59.2137, -34.7825, -73.7695, 168.809, -21.1327, 21.7203, 19.4791, 65.5913, -44.926, -268.312
1.236, -1, 2.57579, 55.6225, -59.193, -34.902, -73.8951, 168.768, -21.0471, 21.6669, 19.4319, 65.5936, -44.749, -268.307
1.24, -1, 2.5726, 55.6113, -59.1723, -35.0214, -74.0206, 168.727, -20.9616, 21.6136, 19.3848, 65.5959, -44.572, -268.303
1.244, -1, 2.5694, 55.6001, -59.1516, -35.1407, -74.1461, 168.687, -20.8761, 21.5603, 19.3377, 65.5983, -44.3951, -268.299
1.248, -1, 2.56621, 55.5888, -59.1309, -35.26, -74.2715, 168.646, -20.7906, 21.507, 19.2906, 65.6006, -44.2182, -268.295
1.252, -1, 2.56302, 55.5776, -59.1102, -35.3793, -74.3969, 168.605, -20.7052, 21.4537, 19.2435, 65.6029, -44.0414, -268.291
1.256, -1, 2.55983, 55.5664, -59.0895, -35.4986, -74.5223, 168.565, -20.6198, 21.4005, 19.1964, 65.6052, -43.8647, -268.286
1.26, -1, 2.55665, 55.5552, -59.0688, -35.6177, -74.6476, 168.524, -20.5345, 21.3473, 19.1494, 65.6076, -43.688, -268.282
1.264, -1, 2.55346, 55.544, -59.0481, -35.7369, -74.7729, 168.483, -20.4491, 21.2941, 19.1023, 65.6099, -43.5114, -268.278
1.267, -1, 2.55027, 55.5328, -59.0274, -35.856, -74.8981, 168.443, -20.3638, 21.2409, 19.0553, 65.6122, -43.3349, -268.274
1.272, -1, 2.54709, 55.5216, -59.0067, -35.9751, -75.0233, 168.402, -20.2785, 21.1877, 19.0083, 65.6145, -43.1584, -268.27
1.276, -1, 2.54391, 55.5104, -58.9861, -36.0941, -75.1484, 168.361, -20.1933, 21.1346, 18.9613, 65.6169, -42.982, -268.266
1.28, -1, 2.54073, 55.4992, -58.9654, -36.2131, -75.2735, 168.321, -20.1081, 21.0814, 18.9143, 65.6192, -42.8056, -268.261
1.284, -1, 2.53754, 55.488, -58.9448, -36.332, -75.3986, 168.28, -20.0229, 21.0283, 18.8674, 65.6215, -42.6293, -268.257
1.288, -1, 2.53436, 55.4768, -58.9241, -36.451, -75.5236, 168.24, -19.9377, 20.9752, 18.8204, 65.6238, -42.453, -268.253
1.292, -1, 2.53119, 55.4656, -58.9035, -36.5698, -75.6486, 168.199, -19.8526, 20.9221, 18.7735, 65.6262, -42.2768, -268.249
1.295, -1, 2.52801, 55.4545, -58.8829, -36.6887, -75.7735, 168.158, -19.7675, 20.869, 18.7266, 65.6285, -42.1007, -268.245
1.3, -1, 2.52483, 55.4433, -58.8623, -36.8074, -75.8984, 168.118, -19.6824, 20.816, 18.6797, 65.6308, -41.9246, -268.24
1.304, -1, 2.52166, 55.4321, -58.8416, -36.9262, -76.0232, 168.077, -19.5973, 20.763, 18.6328, 65.6331, -41.7486, -268.236
1.308, -1, 2.51848, 55.4209, -58.821, -37.0449, -76.1481, 168.037, -19.5123, 20.71, 18.5859, 65.6354, -41.5726, -268.232
1.312, -1, 2.51531, 55.4098, -58.8004, -37.1636, -76.2728, 167.996, -19.4273, 20.657, 18.5391, 65.6377, -41.3967, -268.228
1.316, -1, 2.51213, 55.3986, -58.7798, -37.2822, -76.3976, 167.956, -19.3423, 20.604, 18.4922, 65.6401, -41.2209, -268.224
1.32, -1, 2.50896, 55.3875, -58.7593, -37.4009, -76.5223, 167.915, -19.2574, 20.551, 18.4454, 65.6424, -41.0451, -268.22
1.324, -1, 2.50579, 55.3763, -58.7387, -37.5194, -76.6469, 167.875, -19.1724, 20.4981, 18.3986, 65.6447, -40.8693, -268.215
1.328, -1, 2.50262, 55.3652, -58.7181, -37.638, -76.7715, 167.834, -19.0876, 20.4451, 18.3518, 65.647, -40.6936, -268.211
1.332, -1, 2.49945, 55.354, -58.6975, -37.7565, -76.8961, 167.794, -19.0027, 20.3922, 18.305, 65.6493, -40.518, -268.207
1.336, -1, 2.49629, 55.3429, -58.677, -37.8749, -77.0207, 167.754, -18.9178, 20.3393, 18.2583, 65.6516, -40.3424, -268.203
1.34, -1, 2.49312, 55.3317, -58.6564, -37.9933, -77.1452, 167.713, -18.833, 20.2864, 18.2115, 65.6539, -40.1669, -268.199
1.344, -1, 2.48995, 55.3206, -58.6359, -38.1117, -77.2696, 167.673, -18.7482, 20.2336, 18.1648, 65.6562, -39.9914, -268.195
1.348, -1, 2.48679, 55.3095, -58.6153, -38.2301, -77.3941, 167.632, -18.6635, 20.1807, 18.118, 65.6586, -39.816, -268.19
1.352, -1, 2.48362, 55.2983, -58.5948, -38.3484, -77.5185, 167.592, -18.5787, 20.1279, 18.0713, 65.6609, -39.6406, -268.186
1.356, -1, 2.48046, 55.2872, -58.5743, -38.4667, -77.6428, 167.552, -18.494, 20.0751, 18.0246, 65.6632, -39.4653, -268.182
1.36, -1, 2.4773, 55.2761, -58.5537, -38.5849, -77.7671, 167.511, -18.4093, 20.0222, 17.9779, 65.6655, -39.29, -268.178
1.364, -1, 2.47414, 55.265, -58.5332, -38.7031, -77.8914, 167.471, -18.3247, 19.9695, 17.9313, 65.6678, -39.1148, -268.174
1.368, -1, 2.47098, 55.2538, -58.5127, -38.8213, -78.0157, 167.431, -18.24, 19.9167, 17.8846, 65.6701, -38.9396, -268.17
1.372, -1, 2.46782, 55.2427, -58.4922, -38.9395, -78.1399, 167.39, -18.1554, 19.8639, 17.838, 65.6724, -38.7645, -268.166
1.376, -1, 2.46466, 55.2316, -58.4717, -39.0576, -78.2641, 167.35, -18.0708, 19.8112, 17.7913, 65.6747, -38.5894, -268.161
1.38, -1, 2.4615, 55.2205, -58.4512, -39.1757, -78.3882, 167.31, -17.9862, 19.7585, 17.7447, 65.677, -38.4144, -268.157
1.384, -1, 2.45835, 55.2094, -58.4307, -39.2937, -78.5123, 167.269, -17.9017, 19.7057, 17.6981, 65.6793, -38.2394, -268.153
1.388, -1, 2.45519, 55.1983, -58.4102, -39.4117, -78.6364, 167.229, -17.8172, 19.653, 17.6515, 65.6816, -38.0645, -268.149
1.392, -1, 2.45204, 55.1872, -58.3897, -39.5297, -78.7604, 167.189, -17.7327, 19.6004, 17.605, 65.6839, -37.8896, -268.145
1.396, -1, 2.44888, 55.1761, -58.3693, -39.6476, -78.8844, 167.149, -17.6482, 19.5477, 17.5584, 65.6862, -37.7148, -268.141
1.4, -1, 2.44573, 55.165, -58.3488, -39.7655, -79.0084, 167.108, -17.5638, 19.495, 17.5119, 65.6885, -37.54, -268.137
1.404, -1, 2.44258, 55.1539, -58.3283, -39.8834, -79.1323, 167.068, -17.4793, 19.4424, 17.4653, 65.6908, -37.3653, -268.132
1.408, -1, 2.43942, 55.1429, -58.3079, -40.0013, -79.2562, 167.028, -17.3949, 19.3898, 17.4188, 65.6931, -37.1906, -268.128
1.412, -1, 2.43627, 55.1318, -58.2874, -40.1191, -79.3801, 166.988, -17.3105, 19.3372, 17.3723, 65.6954, -37.016, -268.124
1.416, -1, 2.43312, 55.1207, -58.267, -40.2369, -79.5039, 166.948, -17.2262, 19.2846, 17.3258, 65.6977, -36.8414, -268.12
1.42, -1, 2.42998, 55.1096, -58.2466, -40.3546, -79.6277, 166.907, -17.1419, 19.232, 17.2793, 65.7, -36.6669, -268.116
1.424, -1, 2.42683, 55.0985, -58.2261, -40.4723, -79.7515, 166.867, -17.0575, 19.1794, 17.2328, 65.7023, -36.4924, -268.112
1.428, -1, 2.42368, 55.0875, -58.2057, -40.59, -79.8752, 166.827, -16.9733, 19.1268, 17.1864, 65.7046, -36.318, -268.108
1.432, -1, 2.42053, 55.0764, -58.1853, -40.7077, -79.9989, 166.787, -16.889, 19.0743, 17.1399, 65.7069, -36.1436, -268.103
1.436, -1, 2.41739, 55.0653, -58.1649, -40.8253, -80.1226, 166.747, -16.8047, 19.0218, 17.0935, 65.7092, -35.9692, -268.099
1.44, -1, 2.41424, 55.0543, -58.1444, -40.9429, -80.2462, 166.707, -16.7205, 18.9693, 17.047, 65.7115, -35.7949, -268.095
1.444, -1, 2.4111, 55.0432, -58.124, -41.0605, -80.3698, 166.666, -16.6363, 18.9168, 17.0006, 65.7138, -35.6207, -268.091
1.448, -1, 2.40796, 55.0322, -58.1036, -41.178, -80.4934, 166.626, -16.5521, 18.8643, 16.9542, 65.7161, -35.4464, -268.087
1.452, -1, 2.40481, 55.0211, -58.0832, -41.2955, -80.6169, 166.586, -16.468, 18.8118, 16.9078, 65.7184, -35.2723, -268.083
1.456, -1, 2.40167, 55.0101, -58.0628, -41.413, -80.7404, 166.546, -16.3838, 18.7593, 16.8615, 65.7207, -35.0981, -268.079
1.46, -1, 2.39853, 54.999, -58.0425, -41.5304, -80.8639, 166.506, -16.2997, 18.7069, 16.8151, 65.723, -34.9241, -268.075
1.464, -1, 2.39539, 54.988, -58.0221, -41.6479, -80.9873, 166.466, -16.2156, 18.6545, 16.7687, 65.7253, -34.75, -268.07
1.468, -1, 2.39225, 54.9769, -58.0017, -41.7653, -81.1108, 166.426, -16.1315, 18.602, 16.7224, 65.7276, -34.576, -268.066
1.472, -1, 2.38912, 54.9659, -57.9813, -41.8826, -81.2341, 166.386, -16.0475, 18.5496, 16.6761, 65.7298, -34.4021, -268.062
1.476, -1, 2.38598, 54.9549, -57.961, -41.9999, -81.3575, 166.346, -15.9635, 18.4972, 16.6297, 65.7321, -34.2282, -268.058
1.48, -1, 2.38284, 54.9438, -57.9406, -42.1173, -81.4808, 166.306, -15.8794, 18.4449, 16.5834, 65.7344, -34.0543, -268.054
1.484, -1, 2.3797, 54.9328, -57.9202, -42.2345, -81.6041, 166.266, -15.7954, 18.3925, 16.5371, 65.7367, -33.8805, -268.05
1.488, -1, 2.37657, 54.9218, -57.8999, -42.3518, -81.7274, 166.226, -15.7115, 18.3401, 16.4908, 65.739, -33.7067, -268.046
1.492, -1, 2.37343, 54.9107, -57.8796, -42.469, -81.8506, 166.186, -15.6275, 18.2878, 16.4445, 65.7413, -33.5329, -268.042
1.496, -1, 2.3703, 54.8997, -57.8592, -42.5862, -81.9739, 166.146, -15.5436, 18.2354, 16.3983, 65.7436, -33.3592, -268.038
1.5, -1, 2.36716, 54.8887, -57.8389, -42.7034, -82.0971, 166.106, -15.4597, 18.1831, 16.352, 65.7459, -33.1855, -268.033
1.504, -1, 2.36403, 54.8777, -57.8185, -42.8205, -82.2202, 166.066, -15.3758, 18.1308, 16.3058, 65.7481, -33.0119, -268.029
1.508, -1, 2.3609, 54.8666, -57.7982, -42.9376, -82.3433, 166.026, -15.2919, 18.0785, 16.2595, 65.7504, -32.8383, -268.025
1.512, -1, 2.35776, 54.8556, -57.7779, -43.0547, -82.4665, 165.986, -15.208, 18.0262, 16.2133, 65.7527, -32.6647, -268.021
1.516, -1, 2.35463, 54.8446, -57.7576, -43.1718, -82.5895, 165.946, -15.1242, 17.9739, 16.1671, 65.755, -32.4912, -268.017
1.52, -1, 2.35151, 54.8336, -57.7372, -43.2889, -82.7126, 165.906, -15.0403, 17.9217, 16.1209, 65.7573, -32.3177, -268.013
1.524, -1, 2.34838, 54.8226, -57.7169, -43.4059, -82.8356, 165.866, -14.9565, 17.8694, 16.0747, 65.7596, -32.1442, -268.009
1.528, -1, 2.34525, 54.8116, -57.6966, -43.5229, -82.9586, 165.826, -14.8727, 17.8172, 16.0285, 65.7619, -31.9708, -268.005
1.532, -1, 2.34212, 54.8006, -57.6763, -43.6398, -83.0816, 165.786, -14.7889, 17.7649, 15.9823, 65.7641, -31.7975, -268
1.536, -1, 2.339, 54.7896, -57.656, -43.7568, -83.2046, 165.746, -14.7052, 17.7127, 15.9361, 65.7664, -31.6241, -267.996
1.54, -1, 2.33587, 54.7786, -57.6357, -43.8737, -83.3275, 165.706, -14.6214, 17.6605, 15.89, 65.7687, -31.4508, -267.992
1.544, -1, 2.33275, 54.7676, -57.6154, -43.9906, -83.4504, 165.667, -14.5377, 17.6083, 15.8438, 65.771, -31.2775, -267.988
1.548, -1, 2.32962, 54.7566, -57.5951, -44.1075, -83.5733, 165.627, -14.454, 17.5561, 15.7977, 65.7733, -31.1043, -267.984
1.552, -1, 2.3265, 54.7456, -57.5749, -44.2244, -83.6961, 165.587, -14.3703, 17.5039, 15.7515, 65.7755, -30.9311, -267.98
1.556, -1, 2.32337, 54.7346, -57.5546, -44.3412, -83.819, 165.547, -14.2866, 17.4517, 15.7054, 65.7778, -30.7579, -267.976
1.56, -1, 2.32025, 54.7236, -57.5343, -44.458, -83.9418, 165.507, -14.203, 17.3996, 15.6593, 65.7801, -30.5847, -267.972
1.564, -1, 2.31712, 54.7126, -57.514, -44.5748, -84.0646, 165.467, -14.1193, 17.3474, 15.6132, 65.7824, -30.4116, -267.968
1.568, -1, 2.314, 54.7017, -57.4938, -44.6916, -84.1873, 165.427, -14.0357, 17.2953, 15.5671, 65.7847, -30.2385, -267.964
1.572, -1, 2.31088, 54.6907, -57.4735, -44.8083, -84.3101, 165.387, -13.9521, 17.2431, 15.521, 65.7869, -30.0655, -267.959
1.576, -1, 2.30776, 54.6797, -57.4532, -44.925, -84.4328, 165.348, -13.8685, 17.191, 15.4749, 65.7892, -29.8925, -267.955
1.58, -1, 2.30464, 54.6687, -57.433, -45.0418, -84.5555, 165.308, -13.7849, 17.1389, 15.4289, 65.7915, -29.7195, -267.951
1.584, -1, 2.30152, 54.6577, -57.4127, -45.1584, -84.6782, 165.268, -13.7013, 17.0868, 15.3828, 65.7938, -29.5465, -267.947
1.588, -1, 2.2984, 54.6468, -57.3925, -45.2751, -84.8008, 165.228, -13.6178, 17.0347, 15.3367, 65.7961, -29.3736, -267.943
1.592, -1, 2.29528, 54.6358, -57.3722, -45.3917, -84.9235, 165.188, -13.5342, 16.9826, 15.2907, 65.7983, -29.2007, -267.939
1.596, -1, 2.29216, 54.6248, -57.352, -45.5084, -85.0461, 165.149, -13.4507, 16.9305, 15.2446, 65.8006, -29.0279, -267.935
1.6, -1, 2.28905, 54.6139, -57.3318, -45.625, -85.1687, 165.109, -13.3672, 16.8784, 15.1986, 65.8029, -28.855, -267.931
1.604, -1, 2.28593, 54.6029, -57.3115, -45.7415, -85.2912, 165.069, -13.2837, 16.8264, 15.1526, 65.8052, -28.6823, -267.927
1.608, -1, 2.28281, 54.5919, -57.2913, -45.8581, -85.4138, 165.029, -13.2002, 16.7743, 15.1066, 65.8074, -28.5095, -267.923
1.612, -1, 2.2797, 54.581, -57.2711, -45.9746, -85.5363, 164.989, -13.1167, 16.7223, 15.0606, 65.8097, -28.3367, -267.918
1.616, -1, 2.27658, 54.57, -57.2508, -46.0912, -85.6588, 164.95, -13.0333, 16.6703, 15.0146, 65.812, -28.164, -267.914
1.62, -1, 2.27347, 54.5591, -57.2306, -46.2077, -85.7813, 164.91, -12.9499, 16.6182, 14.9686, 65.8143, -27.9913, -267.91
1.624, -1, 2.27035, 54.5481, -57.2104, -46.3242, -85.9037, 164.87, -12.8664, 16.5662, 14.9226, 65.8165, -27.8187, -267.906
1.628, -1, 2.26724, 54.5371, -57.1902, -46.4406, -86.0262, 164.83, -12.783, 16.5142, 14.8766, 65.8188, -27.6461, -267.902
1.632, -1, 2.26412, 54.5262, -57.17, -46.5571, -86.1486, 164.791, -12.6996, 16.4622, 14.8306, 65.8211, -27.4735, -267.898
1.636, -1, 2.26101, 54.5152, -57.1498, -46.6735, -86.271, 164.751, -12.6162, 16.4102, 14.7847, 65.8233, -27.3009, -267.894
1.64, -1, 2.2579, 54.5043, -57.1295, -46.7899, -86.3934, 164.711, -12.5329, 16.3582, 14.7387, 65.8256, -27.1284, -267.89
1.644, -1, 2.25479, 54.4933, -57.1093, -46.9063, -86.5158, 164.672, -12.4495, 16.3063, 14.6928, 65.8279, -26.9558, -267.886
1.648, -1, 2.25168, 54.4824, -57.0891, -47.0227, -86.6381, 164.632, -12.3662, 16.2543, 14.6468, 65.8302, -26.7833, -267.882
1.652, -1, 2.24856, 54.4714, -57.069, -47.139, -86.7604, 164.592, -12.2828, 16.2023, 14.6009, 65.8324, -26.6109, -267.878
1.656, -1, 2.24545, 54.4605, -57.0488, -47.2553, -86.8828, 164.552, -12.1995, 16.1504, 14.5549, 65.8347, -26.4384, -267.874
1.66, -1, 2.24234, 54.4496, -57.0286, -47.3717, -87.0051, 164.513, -12.1162, 16.0984, 14.509, 65.837, -26.266, -267.869
1.664, -1, 2.23923, 54.4386, -57.0084, -47.488, -87.1273, 164.473, -12.0329, 16.0465, 14.4631, 65.8392, -26.0936, -267.865
1.668, -1, 2.23612, 54.4277, -56.9882, -47.6043, -87.2496, 164.433, -11.9496, 15.9946, 14.4172, 65.8415, -25.9213, -267.861
1.672, -1, 2.23301, 54.4167, -56.968, -47.7205, -87.3718, 164.394, -11.8663, 15.9427, 14.3713, 65.8438, -25.7489, -267.857
1.676, -1, 2.22991, 54.4058, -56.9478, -47.8368, -87.494, 164.354, -11.7831, 15.8907, 14.3254, 65.846, -25.5766, -267.853
1.68, -1, 2.2268, 54.3949, -56.9277, -47.953, -87.6162, 164.314, -11.6998, 15.8388, 14.2795, 65.8483, -25.4043, -267.849
1.684, -1, 2.22369, 54.3839, -56.9075, -48.0692, -87.7384, 164.275, -11.6166, 15.7869, 14.2336, 65.8506, -25.2321, -267.845
1.688, -1, 2.22058, 54.373, -56.8873, -48.1854, -87.8606, 164.235, -11.5334, 15.735, 14.1878, 65.8529, -25.0598, -267.841
1.692, -1, 2.21747, 54.3621, -56.8671, -48.3016, -87.9828, 164.195, -11.4501, 15.6832, 14.1419, 65.8551, -24.8876, -267.837
1.696, -1, 2.21437, 54.3512, -56.847, -48.4178, -88.1049, 164.156, -11.3669, 15.6313, 14.096, 65.8574, -24.7154, -267.833
1.7, -1, 2.21126, 54.3402, -56.8268, -48.534, -88.227, 164.116, -11.2838, 15.5794, 14.0502, 65.8597, -24.5433, -267.829
1.704, -1, 2.20816, 54.3293, -56.8067, -48.6501, -88.3491, 164.076, -11.2006, 15.5275, 14.0043, 65.8619, -24.3711, -267.825
1.708, -1, 2.20505, 54.3184, -56.7865, -48.7662, -88.4712, 164.037, -11.1174, 15.4757, 13.9585, 65.8642, -24.199, -267.82
1.712, -1, 2.20194, 54.3075, -56.7663, -48.8823, -88.5933, 163.997, -11.0342, 15.4238, 13.9126, 65.8665, -24.0269, -267.816
1.716, -1, 2.19884, 54.2965, -56.7462, -48.9984, -88.7153, 163.958, -10.9511, 15.372, 13.8668, 65.8687, -23.8548, -267.812
1.72, -1, 2.19573, 54.2856, -56.726, -49.1145, -88.8374, 163.918, -10.8679, 15.3201, 13.821, 65.871, -23.6827, -267.808
1.724, -1, 2.19263, 54.2747, -56.7059, -49.2306, -88.9594, 163.878, -10.7848, 15.2683, 13.7751, 65.8732, -23.5107, -267.804
1.728, -1, 2.18953, 54.2638, -56.6858, -49.3467, -89.0815, 163.839, -10.7017, 15.2165, 13.7293, 65.8755, -23.3386, -267.8
1.732, -1, 2.18642, 54.2529, -56.6656, -49.4627, -89.2035, 163.799, -10.6186, 15.1647, 13.6835, 65.8778, -23.1666, -267.796
1.736, -1, 2.18332, 54.242, -56.6455, -49.5788, -89.3255, 163.76, -10.5355, 15.1128, 13.6377, 65.88, -22.9946, -267.792
1.74, -1, 2.18022, 54.231, -56.6253, -49.6948, -89.4474, 163.72, -10.4524, 15.061, 13.5919, 65.8823, -22.8227, -267.788
1.744, -1, 2.17712, 54.2201, -56.6052, -49.8108, -89.5694, 163.68, -10.3693, 15.0092, 13.5461, 65.8846, -22.6507, -267.784
1.748, -1, 2.17401, 54.2092, -56.5851, -49.9268, -89.6914, 163.641, -10.2862, 14.9574, 13.5003, 65.8868, -22.4788, -267.78
1.752, -1, 2.17091, 54.1983, -56.5649, -50.0428, -89.8133, 163.601, -10.2031, 14.9056, 13.4545, 65.8891, -22.3068, -267.776
1.756, -1, 2.16781, 54.1874, -56.5448, -50.1588, -89.9353, 163.562, -10.12, 14.8538, 13.4087, 65.8914, -22.1349, -267.772
1.76, -1, 2.16471, 54.1765, -56.5247, -50.2747, -90.0572, 163.522, -10.037, 14.802, 13.3629, 65.8936, -21.963, -267.767
1.764, -1, 2.16161, 54.1656, -56.5045, -50.3907, -90.1791, 163.482, -9.95394, 14.7503, 13.3171, 65.8959, -21.7911, -267.763
1.768, -1, 2.15851, 54.1547, -56.4844, -50.5066, -90.301, 163.443, -9.8709, 14.6985, 13.2714, 65.8981, -21.6193, -267.759
1.772, -1, 2.15541, 54.1438, -56.4643, -50.6226, -90.4229, 163.403, -9.78786, 14.6467, 13.2256, 65.9004, -21.4474, -267.755
1.776, -1, 2.15231, 54.1329, -56.4442, -50.7385, -90.5448, 163.364, -9.70483, 14.5949, 13.1798, 65.9027, -21.2756, -267.751
1.78, -1, 2.14921, 54.122, -56.424, -50.8544, -90.6666, 163.324, -9.62181, 14.5432, 13.1341, 65.9049, -21.1038, -267.747
1.784, -1, 2.14611, 54.111, -56.4039, -50.9703, -90.7885, 163.285, -9.53879, 14.4914, 13.0883, 65.9072, -20.932, -267.743
1.788, -1, 2.14301, 54.1002, -56.3838, -51.0862, -90.9104, 163.245, -9.45578, 14.4397, 13.0425, 65.9095, -20.7602, -267.739
1.792, -1, 2.13991, 54.0892, -56.3637, -51.2021, -91.0322, 163.206, -9.37278, 14.3879, 12.9968, 65.9117, -20.5884, -267.735
1.796, -1, 2.13682, 54.0783, -56.3436, -51.318, -91.154, 163.166, -9.28979, 14.3361, 12.951, 65.914, -20.4166, -267.731
1.8, -1, 2.13372, 54.0674, -56.3235, -51.4339, -91.2759, 163.126, -9.2068, 14.2844, 12.9053, 65.9163, -20.2449, -267.727
1.804, -1, 2.13062, 54.0565, -56.3033, -51.5498, -91.3977, 163.087, -9.12381, 14.2327, 12.8595, 65.9185, -20.0731, -267.723
1.808, -1, 2.12752, 54.0457, -56.2832, -51.6656, -91.5195, 163.047, -9.04084, 14.1809, 12.8138, 65.9208, -19.9014, -267.719
1.812, -1, 2.12442, 54.0348, -56.2631, -51.7815, -91.6413, 163.008, -8.95787, 14.1292, 12.7681, 65.923, -19.7297, -267.715
1.816, -1, 2.12133, 54.0239, -56.243, -51.8973, -91.7631, 162.968, -8.8749, 14.0775, 12.7223, 65.9253, -19.558, -267.71
1.82, -1, 2.11823, 54.013, -56.2229, -52.0131, -91.8848, 162.929, -8.79194, 14.0257, 12.6766, 65.9276, -19.3863, -267.706
1.824, -1, 2.11513, 54.0021, -56.2028, -52.129, -92.0066, 162.889, -8.70899, 13.974, 12.6309, 65.9298, -19.2146, -267.702
1.828, -1, 2.11204, 53.9912, -56.1827, -52.2448, -92.1284, 162.85, -8.62604, 13.9223, 12.5852, 65.9321, -19.043, -267.698
1.832, -1, 2.10894, 53.9803, -56.1626, -52.3606, -92.2501, 162.81, -8.54309, 13.8706, 12.5394, 65.9343, -18.8713, -267.694
1.836, -1, 2.10584, 53.9694, -56.1425, -52.4764, -92.3719, 162.771, -8.46015, 13.8189, 12.4937, 65.9366, -18.6997, -267.69
1.84, -1, 2.10275, 53.9585, -56.1224, -52.5922, -92.4936, 162.731, -8.37722, 13.7672, 12.448, 65.9389, -18.528, -267.686
1.844, -1, 2.09965, 53.9476, -56.1023, -52.708, -92.6154, 162.692, -8.29429, 13.7154, 12.4023, 65.9411, -18.3564, -267.682
1.848, -1, 2.09655, 53.9367, -56.0822, -52.8238, -92.7371, 162.652, -8.21137, 13.6637, 12.3566, 65.9434, -18.1848, -267.678
1.852, -1, 2.09346, 53.9258, -56.0621, -52.9395, -92.8588, 162.613, -8.12845, 13.612, 12.3109, 65.9456, -18.0132, -267.674
1.856, -1, 2.09036, 53.9149, -56.042, -53.0553, -92.9805, 162.573, -8.04553, 13.5603, 12.2652, 65.9479, -17.8416, -267.67
1.86, -1, 2.08727, 53.904, -56.0219, -53.1711, -93.1022, 162.534, -7.96262, 13.5086, 12.2195, 65.9502, -17.67, -267.666
1.864, -1, 2.08417, 53.8932, -56.0018, -53.2868, -93.2239, 162.494, -7.87972, 13.457, 12.1738, 65.9524, -17.4984, -267.662
1.868, -1, 2.08108, 53.8823, -55.9817, -53.4026, -93.3456, 162.455, -7.79681, 13.4053, 12.1281, 65.9547, -17.3268, -267.658
1.872, -1, 2.07798, 53.8714, -55.9617, -53.5183, -93.4673, 162.415, -7.71392, 13.3536, 12.0824, 65.9569, -17.1553, -267.654
1.876, -1, 2.07489, 53.8605, -55.9416, -53.6341, -93.589, 162.376, -7.63102, 13.3019, 12.0367, 65.9592, -16.9837, -267.649
1.88, -1, 2.07179, 53.8496, -55.9215, -53.7498, -93.7107, 162.336, -7.54813, 13.2502, 11.991, 65.9614, -16.8122, -267.645
1.884, -1, 2.0687, 53.8387, -55.9014, -53.8655, -93.8324, 162.297, -7.46524, 13.1985, 11.9453, 65.9637, -16.6406, -267.641
1.888, -1, 2.06561, 53.8278, -55.8813, -53.9813, -93.954, 162.257, -7.38236, 13.1468, 11.8996, 65.966, -16.4691, -267.637
1.892, -1, 2.06251, 53.8169, -55.8612, -54.097, -94.0757, 162.218, -7.29948, 13.0952, 11.8539, 65.9682, -16.2975, -267.633
1.896, -1, 2.05942, 53.8061, -55.8411, -54.2127, -94.1974, 162.178, -7.2166, 13.0435, 11.8082, 65.9705, -16.126, -267.629
1.9, -1, 2.05632, 53.7952, -55.821, -54.3284, -94.319, 162.139, -7.13372, 12.9918, 11.7626, 65.9727, -15.9545, -267.625
1.904, -1, 2.05323, 53.7843, -55.801, -54.4441, -94.4407, 162.099, -7.05085, 12.9401, 11.7169, 65.975, -15.783, -267.621
1.908, -1, 2.05013, 53.7734, -55.7809, -54.5598, -94.5623, 162.06, -6.96798, 12.8885, 11.6712, 65.9773, -15.6115, -267.617
1.912, -1, 2.04704, 53.7625, -55.7608, -54.6756, -94.684, 162.02, -6.88512, 12.8368, 11.6255, 65.9795, -15.44, -267.613
1.916, -1, 2.04395, 53.7516, -55.7407, -54.7913, -94.8056, 161.981, -6.80225, 12.7851, 11.5798, 65.9818, -15.2685, -267.609
1.92, -1, 2.04085, 53.7408, -55.7206, -54.9069, -94.9272, 161.941, -6.71939, 12.7335, 11.5342, 65.984, -15.097, -267.605
1.924, -1, 2.03776, 53.7299, -55.7005, -55.0226, -95.0489, 161.902, -6.63653, 12.6818, 11.4885, 65.9863, -14.9255, -267.601
1.928, -1, 2.03467, 53.719, -55.6805, -55.1383, -95.1705, 161.862, -6.55367, 12.6301, 11.4428, 65.9885, -14.754, -267.597
1.932, -1, 2.03157, 53.7081, -55.6604, -55.254, -95.2921, 161.823, -6.47081, 12.5785, 11.3971, 65.9908, -14.5826, -267.593
1.936, -1, 2.02848, 53.6972, -55.6403, -55.3697, -95.4138, 161.783, -6.38796, 12.5268, 11.3515, 65.9931, -14.4111, -267.589
1.94, -1, 2.02539, 53.6863, -55.6202, -55.4854, -95.5354, 161.744, -6.3051, 12.4752, 11.3058, 65.9953, -14.2396, -267.584
1.944, -1, 2.02229, 53.6755, -55.6001, -55.6011, -95.657, 161.704, -6.22225, 12.4235, 11.2601, 65.9976, -14.0682, -267.58
1.948, -1, 2.0192, 53.6646, -55.5801, -55.7168, -95.7786, 161.665, -6.1394, 12.3718, 11.2145, 65.9998, -13.8967, -267.576
1.952, -1, 2.01611, 53.6537, -55.56, -55.8324, -95.9003, 161.625, -6.05655, 12.3202, 11.1688, 66.0021, -13.7252, -267.572
1.956, -1, 2.01301, 53.6428, -55.5399, -55.9481, -96.0219, 161.586, -5.9737, 12.2685, 11.1231, 66.0044, -13.5538, -267.568
1.96, -1, 2.00992, 53.6319, -55.5198, -56.0638, -96.1435, 161.546, -5.89084, 12.2169, 11.0774, 66.0066, -13.3823, -267.564
1.964, -1, 2.00683, 53.6211, -55.4997, -56.1795, -96.2651, 161.507, -5.80799, 12.1652, 11.0318, 66.0089, -13.2108, -267.56
1.968, -1, 2.00374, 53.6102, -55.4797, -56.2952, -96.3867, 161.467, -5.72514, 12.1135, 10.9861, 66.0111, -13.0394, -267.556
1.972, -1, 2.00064, 53.5993, -55.4596, -56.4108, -96.5084, 161.428, -5.64229, 12.0619, 10.9404, 66.0134, -12.8679, -267.552
1.976, -1, 1.99755, 53.5884, -55.4395, -56.5265, -96.63, 161.389, -5.55944, 12.0102, 10.8948, 66.0156, -12.6964, -267.548
1.98, -1, 1.99446, 53.5775, -55.4194, -56.6422, -96.7516, 161.349, -5.47659, 11.9586, 10.8491, 66.0179, -12.525, -267.544
1.984, -1, 1.99136, 53.5666, -55.3993, -56.7579, -96.8732, 161.31, -5.39374, 11.9069, 10.8034, 66.0202, -12.3535, -267.54
1.988, -1, 1.98827, 53.5558, -55.3793, -56.8736, -96.9949, 161.27, -5.31089, 11.8553, 10.7578, 66.0224, -12.182, -267.536
1.992, -1, 1.98518, 53.5449, -55.3592, -56.9893, -97.1165, 161.231, -5.22803, 11.8036, 10.7121, 66.0247, -12.0106, -267.532
1.996, -1, 1.98208, 53.534, -55.3391, -57.1049, -97.2381, 161.191, -5.14518, 11.7519, 10.6664, 66.0269, -11.8391, -267.528
1.999, -1, 1.97899, 53.5231, -55.319, -57.2206, -97.3597, 161.152, -5.06232, 11.7003, 10.6207, 66.0292, -11.6676, -267.524
2.004, -1, 1.9759, 53.5122, -55.2989, -57.3363, -97.4814, 161.112, -4.97946, 11.6486, 10.5751, 66.0314, -11.4961, -267.519
2.008, -1, 1.97281, 53.5014, -55.2789, -57.452, -97.603, 161.073, -4.8966, 11.5969, 10.5294, 66.0337, -11.3246, -267.515
2.012, -1, 1.96971, 53.4905, -55.2588, -57.5677, -97.7246, 161.033, -4.81374, 11.5453, 10.4837, 66.036, -11.1532, -267.511
2.015, -1, 1.96662, 53.4796, -55.2387, -57.6834, -97.8463, 160.994, -4.73088, 11.4936, 10.438, 66.0382, -10.9817, -267.507
2.019, -1, 1.96352, 53.4687, -55.2186, -57.7991, -97.9679, 160.954, -4.64802, 11.4419, 10.3924, 66.0405, -10.8102, -267.503
2.024, -1, 1.96043, 53.4578, -55.1985, -57.9148, -98.0895, 160.915, -4.56515, 11.3903, 10.3467, 66.0427, -10.6387, -267.499
2.028, -1, 1.95734, 53.4469, -55.1784, -58.0305, -98.2112, 160.875, -4.48229, 11.3386, 10.301, 66.045, -10.4672, -267.495
2.031, -1, 1.95424, 53.436, -55.1584, -58.1462, -98.3328, 160.836, -4.39942, 11.2869, 10.2553, 66.0473, -10.2957, -267.491
2.036, -1, 1.95115, 53.4252, -55.1383, -58.2619, -98.4545, 160.796, -4.31654, 11.2353, 10.2096, 66.0495, -10.1242, -267.487
2.04, -1, 1.94806, 53.4143, -55.1182, -58.3776, -98.5762, 160.757, -4.23367, 11.1836, 10.164, 66.0518, -9.95263, -267.483
2.044, -1, 1.94504, 53.4034, -55.0981, -58.4933, -98.6978, 160.717, -4.15079, 11.1319, 10.1183, 66.054, -9.78111, -267.479
2.048, -1, 1.94219, 53.3927, -55.078, -58.609, -98.8193, 160.678, -4.06791, 11.0802, 10.0726, 66.0563, -9.60958, -267.475
2.051, -1, 1.93965, 53.3821, -55.0579, -58.7243, -98.9406, 160.639, -3.98506, 11.0286, 10.0269, 66.0585, -9.43806, -267.471
2.055, -1, 1.93748, 53.3718, -55.0378, -58.839, -99.0611, 160.599, -3.90248, 10.9771, 9.98131, 66.0608, -9.26658, -267.467
2.06, -1, 1.93568, 53.3618, -55.0179, -58.9523, -99.1803, 160.561, -3.8208, 10.9263, 9.93598, 66.0631, -9.09537, -267.463
2.064, -1, 1.93418, 53.3523, -54.9982, -59.0633, -99.297, 160.523, -3.74101, 10.8768, 9.89126, 66.0654, -8.925, -267.459
2.068, -1, 1.93289, 53.3432, -54.9792, -59.1709, -99.41, 160.486, -3.66424, 10.8294, 9.84762, 66.0678, -8.75667, -267.455
2.071, -1, 1.93163, 53.3346, -54.961, -59.2736, -99.518, 160.451, -3.59164, 10.7848, 9.80564, 66.0701, -8.59232, -267.451
2.076, -1, 1.93027, 53.3264, -54.9439, -59.3702, -99.6195, 160.418, -3.52438, 10.7437, 9.766, 66.0724, -8.43476, -267.447
2.08, -1, 1.92876, 53.3187, -54.9281, -59.4594, -99.7133, 160.387, -3.46321, 10.7065, 9.7294, 66.0747, -8.28747, -267.443
2.084, -1, 1.92714, 53.3116, -54.9139, -59.5403, -99.7984, 160.36, -3.40818, 10.6731, 9.69639, 66.0767, -8.15423, -267.44
2.087, -1, 1.92551, 53.3051, -54.9013, -59.6123, -99.874, 160.335, -3.35892, 10.643, 9.66732, 66.0784, -8.0384, -267.438
2.092, -1, 1.92392, 53.2993, -54.8904, -59.6749, -99.9398, 160.314, -3.31517, 10.616, 9.64244, 66.0797, -7.94235, -267.435
2.096, -1, 1.92242, 53.2942, -54.8812, -59.728, -99.9957, 160.296, -3.27683, 10.592, 9.62185, 66.0807, -7.86693, -267.433
2.1, -1, 1.92098, 53.2898, -54.8737, -59.7718, -100.042, 160.281, -3.24382, 10.571, 9.60541, 66.0812, -7.81126, -267.432
2.104, -1, 1.91952, 53.286, -54.8679, -59.8066, -100.078, 160.269, -3.2162, 10.553, 9.59279, 66.0815, -7.773, -267.431
2.107, -1, 1.91795, 53.2828, -54.8635, -59.8331, -100.106, 160.26, -3.19429, 10.5386, 9.58361, 66.0815, -7.74873, -267.431
2.111, -1, 1.91624, 53.2801, -54.8605, -59.8523, -100.126, 160.253, -3.17817, 10.5279, 9.57738, 66.0814, -7.73473, -267.43
2.116, -1, 1.91441, 53.2779, -54.8587, -59.8652, -100.14, 160.249, -3.1673, 10.5205, 9.57348, 66.0813, -7.7275, -267.43
2.12, -1, 1.91263, 53.2761, -54.8576, -59.8734, -100.149, 160.246, -3.16064, 10.516, 9.57125, 66.0812, -7.72426, -267.43
2.124, -1, 1.91105, 53.2747, -54.8572, -59.8781, -100.154, 160.245, -3.15711, 10.5136, 9.57013, 66.0812, -7.72305, -267.43
2.127, -1, 1.90977, 53.2738, -54.857, -59.8805, -100.156, 160.244, -3.15563, 10.5126, 9.56968, 66.0811, -7.72269, -267.43
2.132, -1, 1.90885, 53.2732, -54.857, -59.8816, -100.157, 160.244, -3.15521, 10.5123, 9.56955, 66.0811, -7.72262, -267.43
2.136, -1, 1.9083, 53.2729, -54.857, -59.882, -100.158, 160.243, -3.15515, 10.5123, 9.56954, 66.0811, -7.72262, -267.43
2.14, 2, 1.90806, 53.2728, -54.8571, -59.8821, -100.158, 160.243, -3.15515, 10.5123, 9.56954, 66.0811, -7.72262, -267.43
2.143, 2, 1.90799, 53.2727, -54.8571, -59.8821, -100.158, 160.243, -3.15515, 10.5123, 9.56954, 66.0811, -7.72262, -267.43
2.148, 2, 1.90798, 53.2727, -54.8571, -59.8821, -100.158, 160.243, -3.15515, 10.5123, 9.56954, 66.0811, -7.72262, -267.43
2.152, 2, 1.90798, 53.2727, -54.8571, -59.8821, -100.158, 160.243, -3.15515, 10.5123, 9.56954, 66.0811, -7.72262, -267.43
2.156, 2, 1.90798, 53.2727, -54.8571, -59.8821, -100.158, 160.243, -3.15515, 10.5123, 9.56954, 66.0811, -7.72262, -267.43
2.16, 2, 1.90798, 53.2727, -54.8571, -59.8821, -100.158, 160.243, -3.15515, 10.5123, 9.56954, 66.0811, -7.72262, -267.43
2.163, 2, 1.90798, 53.2727, -54.8571, -59.8821, -100.158, 160.243, -3.15515, 10.5123, 9.56954, 66.0811, -7.72262, -267.43
2.168, 2, 1.90798, 53.2727, -54.8571, -59.8821, -100.158, 160.243, -3.15515, 10.5123, 9.56954, 66.0811, -7.72262, -267.43
2.172, 2, 1.90798, 53.2727, -54.8571, -59.8821, -100.158, 160.243, -3.15515, 10.5123, 9.56954, 66.0811, -7.72262, -267.43
2.176, 2, 1.90798, 53.2727, -54.8571, -59.8821, -100.158, 160.243, -3.15515, 10.5123, 9.56954, 66.0811, -7.72262, -267.43
2.179, 2, 1.90798, 53.2727, -54.8571, -59.8821, -100.158, 160.243, -3.15515, 10.5123, 9.56954, 66.0811, -7.72262, -267.43
2.184, 2, 1.90798, 53.2727, -54.8571, -59.8821, -100.158, 160.243, -3.15515, 10.5123, 9.56954, 66.0811, -7.72262, -267.43
2.188, 2, 1.90798, 53.2727, -54.8571, -59.8821, -100.158, 160.243, -3.15515, 10.5123, 9.56954, 66.0811, -7.72262, -267.43
2.192, 2, 1.90798, 53.2727, -54.8571, -59.8821, -100.158, 160.243, -3.15515, 10.5123, 9.56954, 66.0811, -7.72262, -267.43
2.196, 2, 1.90798, 53.2727, -54.8571, -59.8821, -100.158, 160.243, -3.15515, 10.5123, 9.56954, 66.0811, -7.72262, -267.43
2.199, 2, 1.90798, 53.2727, -54.8571, -59.8821, -100.158, 160.243, -3.15515, 10.5123, 9.56954, 66.0811, -7.72262, -267.43
2.204, 2, 1.90798, 53.2727, -54.8571, -59.8821, -100.158, 160.243, -3.15515, 10.5123, 9.56954, 66.0811, -7.72262, -267.43
2.208, 2, 1.90798, 53.2727, -54.8571, -59.8821, -100.158, 160.243, -3.15515, 10.5123, 9.56954, 66.0811, -7.72262, -267.43
2.212, 2, 1.90798, 53.2727, -54.8571, -59.8821, -100.158, 160.243, -3.15515, 10.5123, 9.56954, 66.0811, -7.72262, -267.43
2.216, 2, 1.90798, 53.2727, -54.8571, -59.8821, -100.158, 160.243, -3.15515, 10.5123, 9.56954, 66.0811, -7.72262, -267.43
2.219, 2, 1.90798, 53.2727, -54.8571, -59.8821, -100.158, 160.243, -3.15515, 10.5123, 9.56954, 66.0811, -7.72262, -267.43
2.224, 2, 1.90798, 53.2727, -54.8571, -59.8821, -100.158, 160.243, -3.15515, 10.5123, 9.56954, 66.0811, -7.72262, -267.43
2.228, 2, 1.90798, 53.2727, -54.8571, -59.8821, -100.158, 160.243, -3.15515, 10.5123, 9.56954, 66.0811, -7.72262, -267.43
2.232, 2, 1.90798, 53.2727, -54.8571, -59.8821, -100.158, 160.243, -3.15515, 10.5123, 9.56954, 66.0811, -7.72262, -267.43
2.235, 2, 1.90798, 53.2727, -54.8571, -59.8821, -100.158, 160.243, -3.15515, 10.5123, 9.56954, 66.0811, -7.72262, -267.43
2.24, 2, 1.90798, 53.2727, -54.8571, -59.8821, -100.158, 160.243, -3.15515, 10.5123, 9.56954, 66.0811, -7.72262, -267.43
2.244, 2, 1.90798, 53.2727, -54.8571, -59.8821, -100.158, 160.243, -3.15515, 10.5123, 9.56954, 66.0811, -7.72262, -267.43
2.248, 2, 1.90798, 53.2727, -54.8571, -59.8821, -100.158, 160.243, -3.15515, 10.5123, 9.56954, 66.0811, -7.72262, -267.43
2.252, 2, 1.90798, 53.2727, -54.8571, -59.8821, -100.158, 160.243, -3.15515, 10.5123, 9.56954, 66.0811, -7.72262, -267.43
2.255, 2, 1.90798, 53.2727, -54.8571, -59.8821, -100.158, 160.243, -3.15515, 10.5123, 9.56954, 66.0811, -7.72262, -267.43
2.259, 2, 1.90798, 53.2727, -54.8571, -59.8821, -100.158, 160.243, -3.15515, 10.5123, 9.56954, 66.0811, -7.72262, -267.43
2.264, 2, 1.90798, 53.2727, -54.8571, -59.8821, -100.158, 160.243, -3.15515, 10.5123, 9.56954, 66.0811, -7.72262, -267.43
2.268, 2, 1.90798, 53.2727, -54.8571, -59.8821, -100.158, 160.243, -3.15515, 10.5123, 9.56954, 66.0811, -7.72262, -267.43
2.272, 2, 1.90798, 53.2727, -54.8571, -59.8821, -100.158, 160.243, -3.15515, 10.5123, 9.56954, 66.0811, -7.72262, -267.43
2.275, 2, 1.90798, 53.2727, -54.8571, -59.8821, -100.158, 160.243, -3.15515, 10.5123, 9.56954, 66.0811, -7.72262, -267.43
2.28, 2, 1.90798, 53.2727, -54.8571, -59.8821, -100.158, 160.243, -3.15515, 10.5123, 9.56954, 66.0811, -7.72262, -267.43
2.284, 2, 1.90798, 53.2727, -54.8571, -59.8821, -100.158, 160.243, -3.15515, 10.5123, 9.56954, 66.0811, -7.72262, -267.43
2.288, 2, 1.90798, 53.2727, -54.8571, -59.8821, -100.158, 160.243, -3.15515, 10.5123, 9.56954, 66.0811, -7.72262, -267.43
2.291, 2, 1.90798, 53.2727, -54.8571, -59.8821, -100.158, 160.243, -3.15515, 10.5123, 9.56954, 66.0811, -7.72262, -267.43
2.296, 2, 1.90798, 53.2727, -54.8571, -59.8821, -100.158, 160.243, -3.15515, 10.5123, 9.56954, 66.0811, -7.72262, -267.43
2.3, 2, 1.90798, 53.2727, -54.8571, -59.8821, -100.158, 160.243, -3.15515, 10.5123, 9.56954, 66.0811, -7.72262, -267.43
2.304, 2, 1.90798, 53.2727, -54.8571, -59.8821, -100.158, 160.243, -3.15515, 10.5123, 9.56954, 66.0811, -7.72262, -267.43
2.308, 2, 1.90798, 53.2727, -54.8571, -59.8821, -100.158, 160.243, -3.15515, 10.5123, 9.56954, 66.0811, -7.72262, -267.43
2.311, 2, 1.90798, 53.2727, -54.8571, -59.8821, -100.158, 160.243, -3.15515, 10.5123, 9.56954, 66.0811, -7.72262, -267.43
2.316, 2, 1.90798, 53.2727, -54.8571, -59.8821, -100.158, 160.243, -3.15515, 10.5123, 9.56954, 66.0811, -7.72262, -267.43
2.32, 2, 1.90798, 53.2727, -54.8571, -59.8821, -100.158, 160.243, -3.15515, 10.5123, 9.56954, 66.0811, -7.72262, -267.43
2.324, 2, 1.90798, 53.2727, -54.8571, -59.8821, -100.158, 160.243, -3.15515, 10.5123, 9.56954, 66.0811, -7.72262, -267.43
2.328, 2, 1.90798, 53.2727, -54.8571, -59.8821, -100.158, 160.243, -3.15515, 10.5123, 9.56954, 66.0811, -7.72262, -267.43
2.331, 2, 1.90798, 53.2727, -54.8571, -59.8821, -100.158, 160.243, -3.15515, 10.5123, 9.56954, 66.0811, -7.72262, -267.43
2.336, 2, 1.90798, 53.2727, -54.8571, -59.8821, -100.158, 160.243, -3.15515, 10.5123, 9.56954, 66.0811, -7.72262, -267.43
2.34, 2, 1.90798, 53.2727, -54.8571, -59.8821, -100.158, 160.243, -3.15515, 10.5123, 9.56954, 66.0811, -7.72262, -267.43
2.344, 2, 1.90798, 53.2727, -54.8571, -59.8821, -100.158, 160.243, -3.15515, 10.5123, 9.56954, 66.0811, -7.72262, -267.43
2.347, 2, 1.90798, 53.2727, -54.8571, -59.8821, -100.158, 160.243, -3.15515, 10.5123, 9.56954, 66.0811, -7.72262, -267.43
2.352, 2, 1.90798, 53.2727, -54.8571, -59.8821, -100.158, 160.243, -3.15515, 10.5123, 9.56954, 66.0811, -7.72262, -267.43
2.356, 2, 1.90798, 53.2727, -54.8571, -59.8821, -100.158, 160.243, -3.15515, 10.5123, 9.56954, 66.0811, -7.72262, -267.43
2.36, 2, 1.90798, 53.2727, -54.8571, -59.8821, -100.158, 160.243, -3.15515, 10.5123, 9.56954, 66.0811, -7.72262, -267.43
2.364, 2, 1.90798, 53.2727, -54.8571, -59.8821, -100.158, 160.243, -3.15515, 10.5123, 9.56954, 66.0811, -7.72262, -267.43
2.367, 2, 1.90798, 53.2727, -54.8571, -59.8821, -100.158, 160.243, -3.15515, 10.5123, 9.56954, 66.0811, -7.72262, -267.43
2.372, 2, 1.90798, 53.2727, -54.8571, -59.8821, -100.158, 160.243, -3.15515, 10.5123, 9.56954, 66.0811, -7.72262, -267.43
2.376, 2, 1.90798, 53.2727, -54.8571, -59.8821, -100.158, 160.243, -3.15515, 10.5123, 9.56954, 66.0811, -7.72262, -267.43
2.38, 2, 1.90798, 53.2727, -54.8571, -59.8821, -100.158, 160.243, -3.15515, 10.5123, 9.56954, 66.0811, -7.72262, -267.43
2.383, 2, 1.90798, 53.2727, -54.8571, -59.8821, -100.158, 160.243, -3.15515, 10.5123, 9.56954, 66.0811, -7.72262, -267.43
2.388, 2, 1.90798, 53.2727, -54.8571, -59.8821, -100.158, 160.243, -3.15515, 10.5123, 9.56954, 66.0811, -7.72262, -267.43
2.392, 2, 1.90798, 53.2727, -54.8571, -59.8821, -100.158, 160.243, -3.15515, 10.5123, 9.56954, 66.0811, -7.72262, -267.43
2.396, 2, 1.90798, 53.2727, -54.8571, -59.8821, -100.158, 160.243, -3.15515, 10.5123, 9.56954, 66.0811, -7.72262, -267.43
2.4, 2, 1.90798, 53.2727, -54.8571, -59.8821, -100.158, 160.243, -3.15515, 10.5123, 9.56954, 66.0811, -7.72262, -267.43
2.403, 2, 1.90798, 53.2727, -54.8571, -59.8821, -100.158, 160.243, -3.15515, 10.5123, 9.56954, 66.0811, -7.72262, -267.43
2.408, 2, 1.90798, 53.2727, -54.8571, -59.8821, -100.158, 160.243, -3.15515, 10.5123, 9.56954, 66.0811, -7.72262, -267.43
2.412, 2, 1.90798, 53.2727, -54.8571, -59.8821, -100.158, 160.243, -3.15515, 10.5123, 9.56954, 66.0811, -7.72262, -267.43
2.416, 2, 1.90798, 53.2727, -54.8571, -59.8821, -100.158, 160.243, -3.15515, 10.5123, 9.56954, 66.0811, -7.72262, -267.43
2.42, 2, 1.90798, 53.2727, -54.8571, -59.8821, -100.158, 160.243, -3.15515, 10.5123, 9.56954, 66.0811, -7.72262, -267.43
2.423, 2, 1.90798, 53.2727, -54.8571, -59.8821, -100.158, 160.243, -3.15515, 10.5123, 9.56954, 66.0811, -7.72262, -267.43
2.428, 2, 1.90798, 53.2727, -54.8571, -59.8821, -100.158, 160.243, -3.15515, 10.5123, 9.56954, 66.0811, -7.72262, -267.43
2.432, 2, 1.90798, 53.2727, -54.8571, -59.8821, -100.158, 160.243, -3.15515, 10.5123, 9.56954, 66.0811, -7.72262, -267.43
2.436, 2, 1.90798, 53.2727, -54.8571, -59.8821, -100.158, 160.243, -3.15515, 10.5123, 9.56954, 66.0811, -7.72262, -267.43
2.439, 2, 1.90798, 53.2727, -54.8571, -59.8821, -100.158, 160.243, -3.15515, 10.5123, 9.56954, 66.0811, -7.72262, -267.43
2.444, 2, 1.90798, 53.2727, -54.8571, -59.8821, -100.158, 160.243, -3.15515, 10.5123, 9.56954, 66.0811, -7.72262, -267.43
2.448, 2, 1.90798, 53.2727, -54.8571, -59.8821, -100.158, 160.243, -3.15515, 10.5123, 9.56954, 66.0811, -7.72262, -267.43
2.452, 2, 1.90798, 53.2727, -54.8571, -59.8821, -100.158, 160.243, -3.15515, 10.5123, 9.56954, 66.0811, -7.72262, -267.43
2.456, 2, 1.90798, 53.2727, -54.8571, -59.8821, -100.158, 160.243, -3.15515, 10.5123, 9.56954, 66.0811, -7.72262, -267.43
2.459, 2, 1.90798, 53.2727, -54.8571, -59.8821, -100.158, 160.243, -3.15515, 10.5123, 9.56954, 66.0811, -7.72262, -267.43
2.464, 2, 1.90798, 53.2727, -54.8571, -59.8821, -100.158, 160.243, -3.15515, 10.5123, 9.56954, 66.0811, -7.72262, -267.43
2.468, 2, 1.90798, 53.2727, -54.8571, -59.8821, -100.158, 160.243, -3.15515, 10.5123, 9.56954, 66.0811, -7.72262, -267.43
2.472, 2, 1.90798, 53.2727, -54.8571, -59.8821, -100.158, 160.243, -3.15515, 10.5123, 9.56954, 66.0811, -7.72262, -267.43
2.476, 2, 1.90798, 53.2727, -54.8571, -59.8821, -100.158, 160.243, -3.15515, 10.5123, 9.56954, 66.0811, -7.72262, -267.43
2.479, 2, 1.90798, 53.2727, -54.8571, -59.8821, -100.158, 160.243, -3.15515, 10.5123, 9.56954, 66.0811, -7.72262, -267.43
2.484, 2, 1.90798, 53.2727, -54.8571, -59.8821, -100.158, 160.243, -3.15515, 10.5123, 9.56954, 66.0811, -7.72262, -267.43
2.488, 2, 1.90798, 53.2727, -54.8571, -59.8821, -100.158, 160.243, -3.15515, 10.5123, 9.56954, 66.0811, -7.72262, -267.43
2.492, 2, 1.90798, 53.2727, -54.8571, -59.8821, -100.158, 160.243, -3.15515, 10.5123, 9.56954, 66.0811, -7.72262, -267.43
2.495, 2, 1.90798, 53.2727, -54.8571, -59.8821, -100.158, 160.243, -3.15515, 10.5123, 9.56954, 66.0811, -7.72262, -267.43
2.5, 2, 1.90798, 53.2727, -54.8571, -59.8821, -100.158, 160.243, -3.15515, 10.5123, 9.56954, 66.0811, -7.72262, -267.43
2.504, 2, 1.90798, 53.2727, -54.8571, -59.8821, -100.158, 160.243, -3.15515, 10.5123, 9.56954, 66.0811, -7.72262, -267.43
2.508, 2, 1.90798, 53.2727, -54.8571, -59.8821, -100.158, 160.243, -3.15515, 10.5123, 9.56954, 66.0811, -7.72262, -267.43
2.512, 2, 1.90798, 53.2727, -54.8571, -59.8821, -100.158, 160.243, -3.15515, 10.5123, 9.56954, 66.0811, -7.72262, -267.43
2.515, 2, 1.90798, 53.2727, -54.8571, -59.8821, -100.158, 160.243, -3.15515, 10.5123, 9.56954, 66.0811, -7.72262, -267.43
2.52, 2, 1.90798, 53.2727, -54.8571, -59.8821, -100.158, 160.243, -3.15515, 10.5123, 9.56954, 66.0811, -7.72262, -267.43
2.524, 2, 1.90798, 53.2727, -54.8571, -59.8821, -100.158, 160.243, -3.15515, 10.5123, 9.56954, 66.0811, -7.72262, -267.43
2.528, 2, 1.90798, 53.2727, -54.8571, -59.8821, -100.158, 160.243, -3.15515, 10.5123, 9.56954, 66.0811, -7.72262, -267.43
2.531, 2, 1.90798, 53.2727, -54.8571, -59.8821, -100.158, 160.243, -3.15515, 10.5123, 9.56954, 66.0811, -7.72262, -267.43
2.536, 2, 1.90798, 53.2727, -54.8571, -59.8821, -100.158, 160.243, -3.15515, 10.5123, 9.56954, 66.0811, -7.72262, -267.43
2.54, 2, 1.90798, 53.2727, -54.8571, -59.8821, -100.158, 160.243, -3.15515, 10.5123, 9.56954, 66.0811, -7.72262, -267.43
2.544, 2, 1.90798, 53.2727, -54.8571, -59.8821, -100.158, 160.243, -3.15515, 10.5123, 9.56954, 66.0811, -7.72262, -267.43
2.548, 2, 1.90798, 53.2727, -54.8571, -59.8821, -100.158, 160.243, -3.15515, 10.5123, 9.56954, 66.0811, -7.72262, -267.43
2.551, 2, 1.90798, 53.2727, -54.8571, -59.8821, -100.158, 160.243, -3.15515, 10.5123, 9.56954, 66.0811, -7.72262, -267.43
2.556, 2, 1.90798, 53.2727, -54.8571, -59.8821, -100.158, 160.243, -3.15515, 10.5123, 9.56954, 66.0811, -7.72262, -267.43
2.56, 2, 1.90798, 53.2727, -54.8571, -59.8821, -100.158, 160.243, -3.15515, 10.5123, 9.56954, 66.0811, -7.72262, -267.43
2.564, 2, 1.90798, 53.2727, -54.8571, -59.8821, -100.158, 160.243, -3.15515, 10.5123, 9.56954, 66.0811, -7.72262, -267.43
2.568, 2, 1.90798, 53.2727, -54.8571, -59.8821, -100.158, 160.243, -3.15515, 10.5123, 9.56954, 66.0811, -7.72262, -267.43
2.571, 2, 1.90798, 53.2727, -54.8571, -59.8821, -100.158, 160.243, -3.15515, 10.5123, 9.56954, 66.0811, -7.72262, -267.43
2.576, 2, 1.90798, 53.2727, -54.8571, -59.8821, -100.158, 160.243, -3.15515, 10.5123, 9.56954, 66.0811, -7.72262, -267.43
2.58, 2, 1.90798, 53.2727, -54.8571, -59.8821, -100.158, 160.243, -3.15515, 10.5123, 9.56954, 66.0811, -7.72262, -267.43
2.584, 2, 1.90798, 53.2727, -54.8571, -59.8821, -100.158, 160.243, -3.15515, 10.5123, 9.56954, 66.0811, -7.72262, -267.43
2.587, 2, 1.90798, 53.2727, -54.8571, -59.8821, -100.158, 160.243, -3.15515, 10.5123, 9.56954, 66.0811, -7.72262, -267.43
2.592, 2, 1.90798, 53.2727, -54.8571, -59.8821, -100.158, 160.243, -3.15515, 10.5123, 9.56954, 66.0811, -7.72262, -267.43
2.596, 2, 1.90798, 53.2727, -54.8571, -59.8821, -100.158, 160.243, -3.15515, 10.5123, 9.56954, 66.0811, -7.72262, -267.43
2.6, 2, 1.90798, 53.2727, -54.8571, -59.8821, -100.158, 160.243, -3.15515, 10.5123, 9.56954, 66.0811, -7.72262, -267.43
2.604, 2, 1.90798, 53.2727, -54.8571, -59.8821, -100.158, 160.243, -3.15515, 10.5123, 9.56954, 66.0811, -7.72262, -267.43
2.607, 2, 1.90798, 53.2727, -54.8571, -59.8821, -100.158, 160.243, -3.15515, 10.5123, 9.56954, 66.0811, -7.72262, -267.43
2.612, 2, 1.90798, 53.2727, -54.8571, -59.8821, -100.158, 160.243, -3.15515, 10.5123, 9.56954, 66.0811, -7.72262, -267.43
2.616, 2, 1.90798, 53.2727, -54.8571, -59.8821, -100.158, 160.243, -3.15515, 10.5123, 9.56954, 66.0811, -7.72262, -267.43
2.62, 2, 1.90798, 53.2727, -54.8571, -59.8821, -100.158, 160.243, -3.15515, 10.5123, 9.56954, 66.0811, -7.72262, -267.43
2.624, 2, 1.90798, 53.2727, -54.8571, -59.8821, -100.158, 160.243, -3.15515, 10.5123, 9.56954, 66.0811, -7.72262, -267.43
2.627, 2, 1.90798, 53.2727, -54.8571, -59.8821, -100.158, 160.243, -3.15515, 10.5123, 9.56954, 66.0811, -7.72262, -267.43
2.632, 2, 1.90798, 53.2727, -54.8571, -59.8821, -100.158, 160.243, -3.15515, 10.5123, 9.56954, 66.0811, -7.72262, -267.43
2.636, 2, 1.90798, 53.2727, -54.8571, -59.8821, -100.158, 160.243, -3.15515, 10.5123, 9.56954, 66.0811, -7.72262, -267.43
2.64, 2, 1.90798, 53.2727, -54.8571, -59.8821, -100.158, 160.243, -3.15515, 10.5123, 9.56954, 66.0811, -7.72262, -267.43
2.643, 2, 1.90798, 53.2727, -54.8571, -59.8821, -100.158, 160.243, -3.15515, 10.5123, 9.56954, 66.0811, -7.72262, -267.43
2.648, 2, 1.90798, 53.2727, -54.8571, -59.8821, -100.158, 160.243, -3.15515, 10.5123, 9.56954, 66.0811, -7.72262, -267.43
2.652, 2, 1.90798, 53.2727, -54.8571, -59.8821, -100.158, 160.243, -3.15515, 10.5123, 9.56954, 66.0811, -7.72262, -267.43
2.656, 2, 1.90798, 53.2727, -54.8571, -59.8821, -100.158, 160.243, -3.15515, 10.5123, 9.56954, 66.0811, -7.72262, -267.43
2.66, 2, 1.90798, 53.2727, -54.8571, -59.8821, -100.158, 160.243, -3.15515, 10.5123, 9.56954, 66.0811, -7.72262, -267.43
2.663, 2, 1.90798, 53.2727, -54.8571, -59.8821, -100.158, 160.243, -3.15515, 10.5123, 9.56954, 66.0811, -7.72262, -267.43
2.668, 2, 1.90798, 53.2727, -54.8571, -59.8821, -100.158, 160.243, -3.15515, 10.5123, 9.56954, 66.0811, -7.72262, -267.43
2.672, 2, 1.90798, 53.2727, -54.8571, -59.8821, -100.158, 160.243, -3.15515, 10.5123, 9.56954, 66.0811, -7.72262, -267.43
2.676, 2, 1.90798, 53.2727, -54.8571, -59.8821, -100.158, 160.243, -3.15515, 10.5123, 9.56954, 66.0811, -7.72262, -267.43
2.679, 2, 1.90798, 53.2727, -54.8571, -59.8821, -100.158, 160.243, -3.15515, 10.5123, 9.56954, 66.0811, -7.72262, -267.43
2.684, 2, 1.90798, 53.2727, -54.8571, -59.8821, -100.158, 160.243, -3.15515, 10.5123, 9.56954, 66.0811, -7.72262, -267.43
2.688, 2, 1.90798, 53.2727, -54.8571, -59.8821, -100.158, 160.243, -3.15515, 10.5123, 9.56954, 66.0811, -7.72262, -267.43
2.692, 2, 1.90798, 53.2727, -54.8571, -59.8821, -100.158, 160.243, -3.15515, 10.5123, 9.56954, 66.0811, -7.72262, -267.43
2.696, 2, 1.90798, 53.2727, -54.8571, -59.8821, -100.158, 160.243, -3.15515, 10.5123, 9.56954, 66.0811, -7.72262, -267.43
2.699, 2, 1.90798, 53.2727, -54.8571, -59.8821, -100.158, 160.243, -3.15515, 10.5123, 9.56954, 66.0811, -7.72262, -267.43
2.704, 2, 1.90798, 53.2727, -54.8571, -59.8821, -100.158, 160.243, -3.15515, 10.5123, 9.56954, 66.0811, -7.72262, -267.43
2.708, 2, 1.90798, 53.2727, -54.8571, -59.8821, -100.158, 160.243, -3.15515, 10.5123, 9.56954, 66.0811, -7.72262, -267.43
2.712, 2, 1.90798, 53.2727, -54.8571, -59.8821, -100.158, 160.243, -3.15515, 10.5123, 9.56954, 66.0811, -7.72262, -267.43
2.716, 2, 1.90798, 53.2727, -54.8571, -59.8821, -100.158, 160.243, -3.15515, 10.5123, 9.56954, 66.0811, -7.72262, -267.43
2.719, 2, 1.90798, 53.2727, -54.8571, -59.8821, -100.158, 160.243, -3.15515, 10.5123, 9.56954, 66.0811, -7.72262, -267.43
2.724, 2, 1.90798, 53.2727, -54.8571, -59.8821, -100.158, 160.243, -3.15515, 10.5123, 9.56954, 66.0811, -7.72262, -267.43
2.728, 2, 1.90798, 53.2727, -54.8571, -59.8821, -100.158, 160.243, -3.15515, 10.5123, 9.56954, 66.0811, -7.72262, -267.43
2.732, 2, 1.90798, 53.2727, -54.8571, -59.8821, -100.158, 160.243, -3.15515, 10.5123, 9.56954, 66.0811, -7.72262, -267.43
2.735, 2, 1.90798, 53.2727, -54.8571, -59.8821, -100.158, 160.243, -3.15515, 10.5123, 9.56954, 66.0811, -7.72262, -267.43
2.74, 2, 1.90798, 53.2727, -54.8571, -59.8821, -100.158, 160.243, -3.15515, 10.5123, 9.56954, 66.0811, -7.72262, -267.43
2.744, 2, 1.90798, 53.2727, -54.8571, -59.8821, -100.158, 160.243, -3.15515, 10.5123, 9.56954, 66.0811, -7.72262, -267.43
2.748, 2, 1.90798, 53.2727, -54.8571, -59.8821, -100.158, 160.243, -3.15515, 10.5123, 9.56954, 66.0811, -7.72262, -267.43
2.752, 2, 1.90798, 53.2727, -54.8571, -59.8821, -100.158, 160.243, -3.15515, 10.5123, 9.56954, 66.0811, -7.72262, -267.43
2.755, 2, 1.90798, 53.2727, -54.8571, -59.8821, -100.158, 160.243, -3.15515, 10.5123, 9.56954, 66.0811, -7.72262, -267.43
2.76, 2, 1.90798, 53.2727, -54.8571, -59.8821, -100.158, 160.243, -3.15515, 10.5123, 9.56954, 66.0811, -7.72262, -267.43
2.764, 2, 1.90798, 53.2727, -54.8571, -59.8821, -100.158, 160.243, -3.15515, 10.5123, 9.56954, 66.0811, -7.72262, -267.43
2.768, 2, 1.90798, 53.2727, -54.8571, -59.8821, -100.158, 160.243, -3.15515, 10.5123, 9.56954, 66.0811, -7.72262, -267.43
2.772, 2, 1.90798, 53.2727, -54.8571, -59.8821, -100.158, 160.243, -3.15515, 10.5123, 9.56954, 66.0811, -7.72262, -267.43
2.775, 2, 1.90798, 53.2727, -54.8571, -59.8821, -100.158, 160.243, -3.15515, 10.5123, 9.56954, 66.0811, -7.72262, -267.43
2.78, 2, 1.90798, 53.2727, -54.8571, -59.8821, -100.158, 160.243, -3.15515, 10.5123, 9.56954, 66.0811, -7.72262, -267.43
2.784, 2, 1.90798, 53.2727, -54.8571, -59.8821, -100.158, 160.243, -3.15515, 10.5123, 9.56954, 66.0811, -7.72262, -267.43
2.788, 2, 1.90798, 53.2727, -54.8571, -59.8821, -100.158, 160.243, -3.15515, 10.5123, 9.56954, 66.0811, -7.72262, -267.43
2.791, 2, 1.90798, 53.2727, -54.8571, -59.8821, -100.158, 160.243, -3.15515, 10.5123, 9.56954, 66.0811, -7.72262, -267.43
2.796, 2, 1.90798, 53.2727, -54.8571, -59.8821, -100.158, 160.243, -3.15515, 10.5123, 9.56954, 66.0811, -7.72262, -267.43
2.8, 2, 1.90798, 53.2727, -54.8571, -59.8821, -100.158, 160.243, -3.15515, 10.5123, 9.56954, 66.0811, -7.72262, -267.43
2.804, 2, 1.90798, 53.2727, -54.8571, -59.8821, -100.158, 160.243, -3.15515, 10.5123, 9.56954, 66.0811, -7.72262, -267.43
2.808, 2, 1.90798, 53.2727, -54.8571, -59.8821, -100.158, 160.243, -3.15515, 10.5123, 9.56954, 66.0811, -7.72262, -267.43
2.811, 2, 1.90798, 53.2727, -54.8571, -59.8821, -100.158, 160.243, -3.15515, 10.5123, 9.56954, 66.0811, -7.72262, -267.43
2.816, 2, 1.90798, 53.2727, -54.8571, -59.8821, -100.158, 160.243, -3.15515, 10.5123, 9.56954, 66.0811, -7.72262, -267.43
2.82, 2, 1.90798, 53.2727, -54.8571, -59.8821, -100.158, 160.243, -3.15515, 10.5123, 9.56954, 66.0811, -7.72262, -267.43
2.824, 2, 1.90798, 53.2727, -54.8571, -59.8821, -100.158, 160.243, -3.15515, 10.5123, 9.56954, 66.0811, -7.72262, -267.43
2.828, 2, 1.90798, 53.2727, -54.8571, -59.8821, -100.158, 160.243, -3.15515, 10.5123, 9.56954, 66.0811, -7.72262, -267.43
2.831, 2, 1.90798, 53.2727, -54.8571, -59.8821, -100.158, 160.243, -3.15515, 10.5123, 9.56954, 66.0811, -7.72262, -267.43
2.836, 2, 1.90798, 53.2727, -54.8571, -59.8821, -100.158, 160.243, -3.15515, 10.5123, 9.56954, 66.0811, -7.72262, -267.43
2.84, 2, 1.90798, 53.2727, -54.8571, -59.8821, -100.158, 160.243, -3.15515, 10.5123, 9.56954, 66.0811, -7.72262, -267.43
2.844, 2, 1.90798, 53.2727, -54.8571, -59.8821, -100.158, 160.243, -3.15515, 10.5123, 9.56954, 66.0811, -7.72262, -267.43
2.847, 2, 1.90798, 53.2727, -54.8571, -59.8821, -100.158, 160.243, -3.15515, 10.5123, 9.56954, 66.0811, -7.72262, -267.43
2.852, 2, 1.90798, 53.2727, -54.8571, -59.8821, -100.158, 160.243, -3.15515, 10.5123, 9.56954, 66.0811, -7.72262, -267.43
2.856, 2, 1.90798, 53.2727, -54.8571, -59.8821, -100.158, 160.243, -3.15515, 10.5123, 9.56954, 66.0811, -7.72262, -267.43
2.86, 2, 1.90798, 53.2727, -54.8571, -59.8821, -100.158, 160.243, -3.15515, 10.5123, 9.56954, 66.0811, -7.72262, -267.43
2.864, 2, 1.90798, 53.2727, -54.8571, -59.8821, -100.158, 160.243, -3.15515, 10.5123, 9.56954, 66.0811, -7.72262, -267.43
2.867, 2, 1.90798, 53.2727, -54.8571, -59.8821, -100.158, 160.243, -3.15515, 10.5123, 9.56954, 66.0811, -7.72262, -267.43
2.872, 2, 1.90798, 53.2727, -54.8571, -59.8821, -100.158, 160.243, -3.15515, 10.5123, 9.56954, 66.0811, -7.72262, -267.43
2.876, 2, 1.90798, 53.2727, -54.8571, -59.8821, -100.158, 160.243, -3.15515, 10.5123, 9.56954, 66.0811, -7.72262, -267.43
2.88, 2, 1.90798, 53.2727, -54.8571, -59.8821, -100.158, 160.243, -3.15515, 10.5123, 9.56954, 66.0811, -7.72262, -267.43
2.883, 2, 1.90798, 53.2727, -54.8571, -59.8821, -100.158, 160.243, -3.15515, 10.5123, 9.56954, 66.0811, -7.72262, -267.43
2.888, 2, 1.90798, 53.2727, -54.8571, -59.8821, -100.158, 160.243, -3.15515, 10.5123, 9.56954, 66.0811, -7.72262, -267.43
2.892, 2, 1.90798, 53.2727, -54.8571, -59.8821, -100.158, 160.243, -3.15515, 10.5123, 9.56954, 66.0811, -7.72262, -267.43
2.896, 2, 1.90798, 53.2727, -54.8571, -59.8821, -100.158, 160.243, -3.15515, 10.5123, 9.56954, 66.0811, -7.72262, -267.43
2.9, 2, 1.90798, 53.2727, -54.8571, -59.8821, -100.158, 160.243, -3.15515, 10.5123, 9.56954, 66.0811, -7.72262, -267.43
2.903, 2, 1.90798, 53.2727, -54.8571, -59.8821, -100.158, 160.243, -3.15515, 10.5123, 9.56954, 66.0811, -7.72262, -267.43
2.908, 2, 1.90798, 53.2727, -54.8571, -59.8821, -100.158, 160.243, -3.15515, 10.5123, 9.56954, 66.0811, -7.72262, -267.43
2.912, 2, 1.90798, 53.2727, -54.8571, -59.8821, -100.158, 160.243, -3.15515, 10.5123, 9.56954, 66.0811, -7.72262, -267.43
2.916, 2, 1.90798, 53.2727, -54.8571, -59.8821, -100.158, 160.243, -3.15515, 10.5123, 9.56954, 66.0811, -7.72262, -267.43
2.92, 2, 1.90798, 53.2727, -54.8571, -59.8821, -100.158, 160.243, -3.15515, 10.5123, 9.56954, 66.0811, -7.72262, -267.43
2.923, 2, 1.90798, 53.2727, -54.8571, -59.8821, -100.158, 160.243, -3.15515, 10.5123, 9.56954, 66.0811, -7.72262, -267.43
2.928, 2, 1.90798, 53.2727, -54.8571, -59.8821, -100.158, 160.243, -3.15515, 10.5123, 9.56954, 66.0811, -7.72262, -267.43
2.932, 2, 1.90798, 53.2727, -54.8571, -59.8821, -100.158, 160.243, -3.15515, 10.5123, 9.56954, 66.0811, -7.72262, -267.43
2.936, 2, 1.90798, 53.2727, -54.8571, -59.8821, -100.158, 160.243, -3.15515, 10.5123, 9.56954, 66.0811, -7.72262, -267.43
2.939, 2, 1.90798, 53.2727, -54.8571, -59.8821, -100.158, 160.243, -3.15515, 10.5123, 9.56954, 66.0811, -7.72262, -267.43
2.944, 2, 1.90798, 53.2727, -54.8571, -59.8821, -100.158, 160.243, -3.15515, 10.5123, 9.56954, 66.0811, -7.72262, -267.43
2.948, 2, 1.90798, 53.2727, -54.8571, -59.8821, -100.158, 160.243, -3.15515, 10.5123, 9.56954, 66.0811, -7.72262, -267.43
2.952, 2, 1.90798, 53.2727, -54.8571, -59.8821, -100.158, 160.243, -3.15515, 10.5123, 9.56954, 66.0811, -7.72262, -267.43
2.956, 2, 1.90798, 53.2727, -54.8571, -59.8821, -100.158, 160.243, -3.15515, 10.5123, 9.56954, 66.0811, -7.72262, -267.43
2.959, 2, 1.90798, 53.2727, -54.8571, -59.8821, -100.158, 160.243, -3.15515, 10.5123, 9.56954, 66.0811, -7.72262, -267.43
2.964, 2, 1.90798, 53.2727, -54.8571, -59.8821, -100.158, 160.243, -3.15515, 10.5123, 9.56954, 66.0811, -7.72262, -267.43
2.968, 2, 1.90798, 53.2727, -54.8571, -59.8821, -100.158, 160.243, -3.15515, 10.5123, 9.56954, 66.0811, -7.72262, -267.43
2.972, 2, 1.90798, 53.2727, -54.8571, -59.8821, -100.158, 160.243, -3.15515, 10.5123, 9.56954, 66.0811, -7.72262, -267.43
2.976, 2, 1.90798, 53.2727, -54.8571, -59.8821, -100.158, 160.243, -3.15515, 10.5123, 9.56954, 66.0811, -7.72262, -267.43
2.98, 2, 1.90798, 53.2727, -54.8571, -59.8821, -100.158, 160.243, -3.15515, 10.5123, 9.56954, 66.0811, -7.72262, -267.43
2.984, 2, 1.90798, 53.2727, -54.8571, -59.8821, -100.158, 160.243, -3.15515, 10.5123, 9.56954, 66.0811, -7.72262, -267.43
2.988, 2, 1.90798, 53.2727, -54.8571, -59.8821, -100.158, 160.243, -3.15515, 10.5123, 9.56954, 66.0811, -7.72262, -267.43
2.992, 2, 1.90798, 53.2727, -54.8571, -59.8821, -100.158, 160.243, -3.15515, 10.5123, 9.56954, 66.0811, -7.72262, -267.43
2.995, 2, 1.90798, 53.2727, -54.8571, -59.8821, -100.158, 160.243, -3.15515, 10.5123, 9.56954, 66.0811, -7.72262, -267.43
3, 2, 1.90798, 53.2727, -54.8571, -59.8821, -100.158, 160.243, -3.15515, 10.5123, 9.56954, 66.0811, -7.72262, -267.43
3.004, 2, 1.90798, 53.2727, -54.8571, -59.8821, -100.158, 160.243, -3.15515, 10.5123, 9.56954, 66.0811, -7.72262, -267.43
3.008, 2, 1.90798, 53.2727, -54.8571, -59.8821, -100.158, 160.243, -3.15515, 10.5123, 9.56954, 66.0811, -7.72262, -267.43
3.012, 2, 1.90798, 53.2727, -54.8571, -59.8821, -100.158, 160.243, -3.15515, 10.5123, 9.56954, 66.0811, -7.72262, -267.43
3.015, 2, 1.90798, 53.2727, -54.8571, -59.8821, -100.158, 160.243, -3.15515, 10.5123, 9.56954, 66.0811, -7.72262, -267.43
3.02, 2, 1.90798, 53.2727, -54.8571, -59.8821, -100.158, 160.243, -3.15515, 10.5123, 9.56954, 66.0811, -7.72262, -267.43
3.024, 2, 1.90798, 53.2727, -54.8571, -59.8821, -100.158, 160.243, -3.15515, 10.5123, 9.56954, 66.0811, -7.72262, -267.43
3.028, 2, 1.90798, 53.2727, -54.8571, -59.8821, -100.158, 160.243, -3.15515, 10.5123, 9.56954, 66.0811, -7.72262, -267.43
3.031, 2, 1.90798, 53.2727, -54.8571, -59.8821, -100.158, 160.243, -3.15515, 10.5123, 9.56954, 66.0811, -7.72262, -267.43
3.036, 2, 1.90798, 53.2727, -54.8571, -59.8821, -100.158, 160.243, -3.15515, 10.5123, 9.56954, 66.0811, -7.72262, -267.43
3.04, 2, 1.90798, 53.2727, -54.8571, -59.8821, -100.158, 160.243, -3.15515, 10.5123, 9.56954, 66.0811, -7.72262, -267.43
3.044, 2, 1.90798, 53.2727, -54.8571, -59.8821, -100.158, 160.243, -3.15515, 10.5123, 9.56954, 66.0811, -7.72262, -267.43
3.048, 2, 1.90798, 53.2727, -54.8571, -59.8821, -100.158, 160.243, -3.15515, 10.5123, 9.56954, 66.0811, -7.72262, -267.43
3.051, 2, 1.90798, 53.2727, -54.8571, -59.8821, -100.158, 160.243, -3.15515, 10.5123, 9.56954, 66.0811, -7.72262, -267.43
3.056, 2, 1.90798, 53.2727, -54.8571, -59.8821, -100.158, 160.243, -3.15515, 10.5123, 9.56954, 66.0811, -7.72262, -267.43
3.06, 2, 1.90798, 53.2727, -54.8571, -59.8821, -100.158, 160.243, -3.15515, 10.5123, 9.56954, 66.0811, -7.72262, -267.43
3.064, 2, 1.90798, 53.2727, -54.8571, -59.8821, -100.158, 160.243, -3.15515, 10.5123, 9.56954, 66.0811, -7.72262, -267.43
3.068, 2, 1.90798, 53.2727, -54.8571, -59.8821, -100.158, 160.243, -3.15515, 10.5123, 9.56954, 66.0811, -7.72262, -267.43
3.071, 2, 1.90798, 53.2727, -54.8571, -59.8821, -100.158, 160.243, -3.15515, 10.5123, 9.56954, 66.0811, -7.72262, -267.43
3.076, 2, 1.90798, 53.2727, -54.8571, -59.8821, -100.158, 160.243, -3.15515, 10.5123, 9.56954, 66.0811, -7.72262, -267.43
3.08, 2, 1.90798, 53.2727, -54.8571, -59.8821, -100.158, 160.243, -3.15515, 10.5123, 9.56954, 66.0811, -7.72262, -267.43
3.084, 2, 1.90798, 53.2727, -54.8571, -59.8821, -100.158, 160.243, -3.15515, 10.5123, 9.56954, 66.0811, -7.72262, -267.43
3.087, 2, 1.90798, 53.2727, -54.8571, -59.8821, -100.158, 160.243, -3.15515, 10.5123, 9.56954, 66.0811, -7.72262, -267.43
3.092, 2, 1.90798, 53.2727, -54.8571, -59.8821, -100.158, 160.243, -3.15515, 10.5123, 9.56954, 66.0811, -7.72262, -267.43
3.096, 2, 1.90798, 53.2727, -54.8571, -59.8821, -100.158, 160.243, -3.15515, 10.5123, 9.56954, 66.0811, -7.72262, -267.43
3.1, 2, 1.90798, 53.2727, -54.8571, -59.8821, -100.158, 160.243, -3.15515, 10.5123, 9.56954, 66.0811, -7.72262, -267.43
3.104, 2, 1.90798, 53.2727, -54.8571, -59.8821, -100.158, 160.243, -3.15515, 10.5123, 9.56954, 66.0811, -7.72262, -267.43
3.107, 2, 1.90798, 53.2727, -54.8571, -59.8821, -100.158, 160.243, -3.15515, 10.5123, 9.56954, 66.0811, -7.72262, -267.43
3.112, 2, 1.90798, 53.2727, -54.8571, -59.8821, -100.158, 160.243, -3.15515, 10.5123, 9.56954, 66.0811, -7.72262, -267.43
3.116, 2, 1.90798, 53.2727, -54.8571, -59.8821, -100.158, 160.243, -3.15515, 10.5123, 9.56954, 66.0811, -7.72262, -267.43
3.12, 2, 1.90798, 53.2727, -54.8571, -59.8821, -100.158, 160.243, -3.15515, 10.5123, 9.56954, 66.0811, -7.72262, -267.43
3.124, 2, 1.90798, 53.2727, -54.8571, -59.8821, -100.158, 160.243, -3.15515, 10.5123, 9.56954, 66.0811, -7.72262, -267.43
3.128, 2, 1.90798, 53.2727, -54.8571, -59.8821, -100.158, 160.243, -3.15515, 10.5123, 9.56954, 66.0811, -7.72262, -267.43
3.132, 2, 1.90798, 53.2727, -54.8571, -59.8821, -100.158, 160.243, -3.15515, 10.5123, 9.56954, 66.0811, -7.72262, -267.43
3.136, 2, 1.90798, 53.2727, -54.8571, -59.8821, -100.158, 160.243, -3.15515, 10.5123, 9.56954, 66.0811, -7.72262, -267.43
3.14, 2, 1.90798, 53.2727, -54.8571, -59.8821, -100.158, 160.243, -3.15515, 10.5123, 9.56954, 66.0811, -7.72262, -267.43
3.143, 2, 1.90798, 53.2727, -54.8571, -59.8821, -100.158, 160.243, -3.15515, 10.5123, 9.56954, 66.0811, -7.72262, -267.43
3.148, 2, 1.90798, 53.2727, -54.8571, -59.8821, -100.158, 160.243, -3.15515, 10.5123, 9.56954, 66.0811, -7.72262, -267.43
3.152, 2, 1.90798, 53.2727, -54.8571, -59.8821, -100.158, 160.243, -3.15515, 10.5123, 9.56954, 66.0811, -7.72262, -267.43
3.156, 2, 1.90798, 53.2727, -54.8571, -59.8821, -100.158, 160.243, -3.15515, 10.5123, 9.56954, 66.0811, -7.72262, -267.43
3.16, 2, 1.90798, 53.2727, -54.8571, -59.8821, -100.158, 160.243, -3.15515, 10.5123, 9.56954, 66.0811, -7.72262, -267.43
3.163, 2, 1.90798, 53.2727, -54.8571, -59.8821, -100.158, 160.243, -3.15515, 10.5123, 9.56954, 66.0811, -7.72262, -267.43
3.168, 2, 1.90798, 53.2727, -54.8571, -59.8821, -100.158, 160.243, -3.15515, 10.5123, 9.56954, 66.0811, -7.72262, -267.43
3.172, 2, 1.90798, 53.2727, -54.8571, -59.8821, -100.158, 160.243, -3.15515, 10.5123, 9.56954, 66.0811, -7.72262, -267.43
3.176, 2, 1.90798, 53.2727, -54.8571, -59.8821, -100.158, 160.243, -3.15515, 10.5123, 9.56954, 66.0811, -7.72262, -267.43
3.179, 2, 1.90798, 53.2727, -54.8571, -59.8821, -100.158, 160.243, -3.15515, 10.5123, 9.56954, 66.0811, -7.72262, -267.43
3.184, 2, 1.90798, 53.2727, -54.8571, -59.8821, -100.158, 160.243, -3.15515, 10.5123, 9.56954, 66.0811, -7.72262, -267.43
3.188, 2, 1.90798, 53.2727, -54.8571, -59.8821, -100.158, 160.243, -3.15515, 10.5123, 9.56954, 66.0811, -7.72262, -267.43
3.192, 2, 1.90798, 53.2727, -54.8571, -59.8821, -100.158, 160.243, -3.15515, 10.5123, 9.56954, 66.0811, -7.72262, -267.43
3.196, 2, 1.90798, 53.2727, -54.8571, -59.8821, -100.158, 160.243, -3.15515, 10.5123, 9.56954, 66.0811, -7.72262, -267.43
3.199, 2, 1.90798, 53.2727, -54.8571, -59.8821, -100.158, 160.243, -3.15515, 10.5123, 9.56954, 66.0811, -7.72262, -267.43
3.204, 2, 1.90798, 53.2727, -54.8571, -59.8821, -100.158, 160.243, -3.15515, 10.5123, 9.56954, 66.0811, -7.72262, -267.43
3.208, 2, 1.90798, 53.2727, -54.8571, -59.8821, -100.158, 160.243, -3.15515, 10.5123, 9.56954, 66.0811, -7.72262, -267.43
