hehonglu123/Motion-Primitive-Planning/simulation/robotstudio_sim/multimove/recorded_data/curve_exe_v3000_z50.csv
timestamp, cmd_num, J1, J2, J3, J4, J5, J6, J1_2, J2_2, J3_2, J4_2, J5_2, J6_2
0.002, -1, -39.173, 1.80173, 8.86959, -133.693, -66.8627, 136.786, 83.176, 21.409, -145.652, -58.3561, 40.8653, -278.846
0.006, -1, -39.173, 1.80173, 8.86959, -133.693, -66.8627, 136.786, 83.176, 21.409, -145.652, -58.3561, 40.8653, -278.846
0.01, -1, -39.173, 1.80173, 8.86959, -133.693, -66.8627, 136.786, 83.176, 21.409, -145.652, -58.3561, 40.8653, -278.846
0.011, -1, -39.173, 1.80173, 8.86959, -133.693, -66.8627, 136.786, 83.176, 21.409, -145.652, -58.3561, 40.8653, -278.846
0.013, -1, -39.173, 1.80173, 8.86959, -133.693, -66.8627, 136.786, 83.176, 21.409, -145.652, -58.3561, 40.8653, -278.846
0.016, -1, -39.173, 1.80173, 8.86959, -133.693, -66.8627, 136.786, 83.176, 21.409, -145.652, -58.3561, 40.8653, -278.846
0.02, -1, -39.173, 1.80173, 8.86959, -133.693, -66.8627, 136.786, 83.176, 21.409, -145.652, -58.3561, 40.8653, -278.846
0.024, -1, -39.173, 1.80173, 8.86959, -133.693, -66.8627, 136.786, 83.176, 21.409, -145.652, -58.3561, 40.8653, -278.846
0.028, -1, -39.173, 1.80173, 8.86959, -133.693, -66.8627, 136.786, 83.176, 21.409, -145.652, -58.3561, 40.8653, -278.846
0.032, -1, -39.173, 1.80173, 8.86959, -133.693, -66.8627, 136.786, 83.176, 21.409, -145.652, -58.3561, 40.8653, -278.846
0.036, -1, -39.173, 1.80173, 8.86959, -133.693, -66.8627, 136.786, 83.176, 21.409, -145.652, -58.3561, 40.8653, -278.846
0.04, -1, -39.1731, 1.80172, 8.86958, -133.693, -66.8627, 136.786, 83.176, 21.409, -145.652, -58.3561, 40.8653, -278.846
0.044, -1, -39.1732, 1.80168, 8.86951, -133.693, -66.8627, 136.786, 83.176, 21.409, -145.652, -58.3561, 40.8653, -278.846
0.048, -1, -39.1736, 1.80154, 8.86928, -133.693, -66.8627, 136.786, 83.176, 21.409, -145.652, -58.3561, 40.8653, -278.846
0.052, -1, -39.1744, 1.80125, 8.86877, -133.693, -66.8627, 136.786, 83.176, 21.409, -145.652, -58.3561, 40.8653, -278.846
0.056, -1, -39.1757, 1.80079, 8.86783, -133.693, -66.8626, 136.786, 83.176, 21.409, -145.652, -58.3561, 40.8653, -278.846
0.06, -1, -39.1775, 1.80015, 8.86627, -133.693, -66.8626, 136.786, 83.1759, 21.409, -145.652, -58.3562, 40.8653, -278.846
0.064, -1, -39.1799, 1.79935, 8.86388, -133.693, -66.8625, 136.786, 83.1756, 21.409, -145.652, -58.3563, 40.8653, -278.846
0.068, -1, -39.1828, 1.79841, 8.86038, -133.692, -66.8624, 136.785, 83.1748, 21.409, -145.651, -58.3565, 40.8654, -278.844
0.072, -1, -39.1861, 1.79736, 8.85541, -133.692, -66.8624, 136.785, 83.1732, 21.409, -145.65, -58.357, 40.8655, -278.842
0.076, -1, -39.1901, 1.79623, 8.84861, -133.691, -66.8623, 136.784, 83.1704, 21.4089, -145.648, -58.358, 40.8658, -278.837
0.08, -1, -39.1948, 1.79508, 8.83951, -133.689, -66.8622, 136.783, 83.1657, 21.4086, -145.645, -58.3598, 40.8662, -278.829
0.084, -1, -39.2003, 1.79392, 8.82759, -133.688, -66.8621, 136.781, 83.1584, 21.4079, -145.64, -58.3625, 40.867, -278.815
0.088, -1, -39.2067, 1.79281, 8.81236, -133.685, -66.862, 136.779, 83.1478, 21.407, -145.633, -58.3666, 40.8681, -278.796
0.092, -1, -39.2142, 1.79191, 8.79336, -133.682, -66.862, 136.776, 83.1331, 21.4055, -145.624, -58.3723, 40.8696, -278.768
0.096, -1, -39.2225, 1.79144, 8.77031, -133.679, -66.862, 136.773, 83.1136, 21.4034, -145.612, -58.38, 40.8717, -278.731
0.1, -1, -39.2314, 1.79163, 8.74294, -133.674, -66.8621, 136.768, 83.0886, 21.4007, -145.597, -58.3898, 40.8744, -278.684
0.104, -1, -39.241, 1.79261, 8.71101, -133.669, -66.8623, 136.763, 83.0574, 21.3971, -145.579, -58.4022, 40.8778, -278.625
0.108, -1, -39.2513, 1.79441, 8.67436, -133.663, -66.8625, 136.757, 83.0196, 21.3928, -145.556, -58.4172, 40.882, -278.553
0.112, -1, -39.2622, 1.79702, 8.6329, -133.655, -66.8629, 136.75, 82.9748, 21.3875, -145.53, -58.435, 40.8869, -278.467
0.116, -1, -39.2739, 1.80035, 8.58665, -133.648, -66.8633, 136.742, 82.923, 21.3813, -145.5, -58.4557, 40.8926, -278.368
0.12, -1, -39.2866, 1.80429, 8.53574, -133.639, -66.8638, 136.734, 82.8646, 21.3741, -145.466, -58.4792, 40.8992, -278.256
0.124, -1, -39.3001, 1.80869, 8.4804, -133.629, -66.8643, 136.724, 82.8001, 21.3662, -145.429, -58.5051, 40.9064, -278.132
0.128, -1, -39.3145, 1.81349, 8.42099, -133.619, -66.8649, 136.714, 82.7303, 21.3576, -145.389, -58.5331, 40.9142, -277.997
0.131, -1, -39.3296, 1.81864, 8.35803, -133.608, -66.8655, 136.703, 82.6564, 21.3484, -145.346, -58.5628, 40.9224, -277.855
0.136, -1, -39.3453, 1.82408, 8.29203, -133.597, -66.8661, 136.692, 82.5793, 21.3389, -145.302, -58.5936, 40.931, -277.707
0.139, -1, -39.3614, 1.82971, 8.22347, -133.585, -66.8668, 136.68, 82.5001, 21.3293, -145.256, -58.6253, 40.9398, -277.556
0.144, -1, -39.3782, 1.83534, 8.15276, -133.572, -66.8675, 136.668, 82.4196, 21.3196, -145.209, -58.6574, 40.9487, -277.402
0.148, -1, -39.3957, 1.8408, 8.08028, -133.56, -66.8681, 136.655, 82.3384, 21.3098, -145.162, -58.6898, 40.9577, -277.246
0.152, -1, -39.4139, 1.84599, 8.00641, -133.547, -66.8688, 136.643, 82.2568, 21.3001, -145.115, -58.7223, 40.9667, -277.091
0.156, -1, -39.433, 1.85088, 7.93151, -133.534, -66.8694, 136.63, 82.1751, 21.2904, -145.067, -58.7549, 40.9757, -276.935
0.16, -1, -39.4529, 1.85546, 7.85588, -133.522, -66.87, 136.617, 82.0934, 21.2807, -145.019, -58.7874, 40.9847, -276.779
0.164, -1, -39.4733, 1.85979, 7.77977, -133.509, -66.8705, 136.605, 82.0116, 21.2711, -144.972, -58.8199, 40.9937, -276.623
0.168, -1, -39.4942, 1.86397, 7.7034, -133.496, -66.8711, 136.592, 81.9298, 21.2614, -144.924, -58.8525, 41.0027, -276.467
0.172, -1, -39.5152, 1.86809, 7.62694, -133.483, -66.8716, 136.579, 81.8481, 21.2517, -144.876, -58.885, 41.0117, -276.31
0.176, -1, -39.5363, 1.8722, 7.55046, -133.47, -66.8722, 136.566, 81.7663, 21.242, -144.828, -58.9176, 41.0207, -276.154
0.18, -1, -39.5574, 1.87631, 7.47397, -133.457, -66.8727, 136.554, 81.6845, 21.2323, -144.78, -58.9501, 41.0297, -275.998
0.184, -1, -39.5784, 1.88042, 7.39747, -133.444, -66.8733, 136.541, 81.6027, 21.2226, -144.733, -58.9827, 41.0387, -275.842
0.188, -1, -39.5995, 1.88453, 7.32096, -133.431, -66.8738, 136.528, 81.5209, 21.213, -144.685, -59.0153, 41.0478, -275.686
0.192, -1, -39.6206, 1.88864, 7.24445, -133.418, -66.8744, 136.516, 81.4391, 21.2033, -144.637, -59.0478, 41.0568, -275.53
0.196, -1, -39.6416, 1.89275, 7.16793, -133.405, -66.8749, 136.503, 81.3573, 21.1936, -144.589, -59.0804, 41.0658, -275.374
0.2, -1, -39.6627, 1.89686, 7.0914, -133.392, -66.8755, 136.49, 81.2755, 21.1839, -144.542, -59.113, 41.0748, -275.218
0.204, -1, -39.6838, 1.90097, 7.01487, -133.379, -66.876, 136.477, 81.1937, 21.1742, -144.494, -59.1455, 41.0838, -275.061
0.208, -1, -39.7049, 1.90508, 6.93833, -133.366, -66.8765, 136.465, 81.1118, 21.1645, -144.446, -59.1781, 41.0928, -274.905
0.212, -1, -39.726, 1.9092, 6.86178, -133.353, -66.8771, 136.452, 81.03, 21.1548, -144.398, -59.2107, 41.1019, -274.749
0.216, -1, -39.7471, 1.91331, 6.78522, -133.34, -66.8776, 136.439, 80.9481, 21.1451, -144.35, -59.2433, 41.1109, -274.593
0.22, -1, -39.7681, 1.91742, 6.70866, -133.327, -66.8782, 136.426, 80.8663, 21.1355, -144.303, -59.2759, 41.1199, -274.437
0.224, -1, -39.7892, 1.92154, 6.63209, -133.314, -66.8787, 136.414, 80.7844, 21.1258, -144.255, -59.3085, 41.1289, -274.28
0.228, -1, -39.8103, 1.92565, 6.55551, -133.301, -66.8793, 136.401, 80.7025, 21.1161, -144.207, -59.3411, 41.1379, -274.124
0.232, -1, -39.8314, 1.92977, 6.47893, -133.288, -66.8798, 136.388, 80.6206, 21.1064, -144.159, -59.3736, 41.147, -273.968
0.236, -1, -39.8525, 1.93388, 6.40234, -133.275, -66.8804, 136.375, 80.5388, 21.0967, -144.111, -59.4062, 41.156, -273.812
0.24, -1, -39.8736, 1.938, 6.32574, -133.262, -66.8809, 136.363, 80.4569, 21.087, -144.063, -59.4388, 41.165, -273.655
0.244, -1, -39.8947, 1.94211, 6.24913, -133.249, -66.8815, 136.35, 80.375, 21.0773, -144.016, -59.4714, 41.174, -273.499
0.248, -1, -39.9158, 1.94623, 6.17252, -133.236, -66.882, 136.337, 80.293, 21.0676, -143.968, -59.5041, 41.183, -273.343
0.252, -1, -39.9369, 1.95035, 6.09589, -133.223, -66.8826, 136.324, 80.2111, 21.0579, -143.92, -59.5367, 41.1921, -273.186
0.256, -1, -39.958, 1.95446, 6.01926, -133.21, -66.8831, 136.312, 80.1292, 21.0482, -143.872, -59.5693, 41.2011, -273.03
0.26, -1, -39.9791, 1.95858, 5.94263, -133.197, -66.8836, 136.299, 80.0472, 21.0385, -143.824, -59.6019, 41.2101, -272.873
0.264, -1, -40.0002, 1.9627, 5.86598, -133.184, -66.8842, 136.286, 79.9653, 21.0288, -143.776, -59.6345, 41.2192, -272.717
0.268, -1, -40.0213, 1.96682, 5.78933, -133.171, -66.8847, 136.273, 79.8834, 21.0191, -143.728, -59.6671, 41.2282, -272.561
0.272, -1, -40.0424, 1.97093, 5.71268, -133.158, -66.8853, 136.261, 79.8014, 21.0094, -143.681, -59.6998, 41.2372, -272.404
0.276, -1, -40.0636, 1.97505, 5.63601, -133.145, -66.8858, 136.248, 79.7194, 20.9997, -143.633, -59.7324, 41.2463, -272.248
0.28, -1, -40.0847, 1.97917, 5.55934, -133.132, -66.8864, 136.235, 79.6374, 20.99, -143.585, -59.765, 41.2553, -272.091
0.284, -1, -40.1058, 1.98329, 5.48266, -133.119, -66.8869, 136.222, 79.5555, 20.9803, -143.537, -59.7977, 41.2643, -271.935
0.288, -1, -40.1269, 1.98741, 5.40597, -133.106, -66.8875, 136.21, 79.4735, 20.9706, -143.489, -59.8303, 41.2733, -271.778
0.292, -1, -40.148, 1.99153, 5.32927, -133.093, -66.888, 136.197, 79.3915, 20.9608, -143.441, -59.863, 41.2824, -271.622
0.296, -1, -40.1692, 1.99565, 5.25257, -133.08, -66.8886, 136.184, 79.3095, 20.9511, -143.393, -59.8956, 41.2914, -271.465
0.3, -1, -40.1903, 1.99978, 5.17586, -133.067, -66.8891, 136.171, 79.2274, 20.9414, -143.345, -59.9282, 41.3005, -271.309
0.304, -1, -40.2114, 2.0039, 5.09914, -133.054, -66.8897, 136.159, 79.1454, 20.9317, -143.297, -59.9609, 41.3095, -271.152
0.308, -1, -40.2325, 2.00802, 5.02241, -133.041, -66.8902, 136.146, 79.0634, 20.922, -143.25, -59.9936, 41.3185, -270.996
0.312, -1, -40.2537, 2.01214, 4.94568, -133.028, -66.8908, 136.133, 78.9813, 20.9123, -143.202, -60.0262, 41.3276, -270.839
0.316, -1, -40.2748, 2.01627, 4.86894, -133.015, -66.8913, 136.12, 78.8993, 20.9026, -143.154, -60.0589, 41.3366, -270.682
0.32, -1, -40.296, 2.02039, 4.79219, -133.002, -66.8918, 136.108, 78.8172, 20.8929, -143.106, -60.0915, 41.3457, -270.526
0.324, -1, -40.3171, 2.02451, 4.71543, -132.989, -66.8924, 136.095, 78.7352, 20.8831, -143.058, -60.1242, 41.3547, -270.369
0.328, -1, -40.3382, 2.02864, 4.63867, -132.976, -66.8929, 136.082, 78.6531, 20.8734, -143.01, -60.1569, 41.3637, -270.213
0.332, -1, -40.3594, 2.03276, 4.5619, -132.963, -66.8935, 136.069, 78.571, 20.8637, -142.962, -60.1896, 41.3728, -270.056
0.336, -1, -40.3805, 2.03689, 4.48512, -132.95, -66.894, 136.056, 78.4889, 20.854, -142.914, -60.2222, 41.3818, -269.899
0.34, -1, -40.4017, 2.04101, 4.40833, -132.937, -66.8946, 136.044, 78.4068, 20.8443, -142.866, -60.2549, 41.3909, -269.743
0.344, -1, -40.4228, 2.04514, 4.33154, -132.924, -66.8951, 136.031, 78.3247, 20.8345, -142.818, -60.2876, 41.3999, -269.586
0.348, -1, -40.444, 2.04926, 4.25474, -132.911, -66.8957, 136.018, 78.2426, 20.8248, -142.77, -60.3203, 41.409, -269.429
0.352, -1, -40.4651, 2.05339, 4.17793, -132.898, -66.8962, 136.005, 78.1605, 20.8151, -142.722, -60.353, 41.418, -269.272
0.356, -1, -40.4863, 2.05752, 4.10111, -132.885, -66.8968, 135.993, 78.0784, 20.8054, -142.674, -60.3857, 41.4271, -269.116
0.36, -1, -40.5075, 2.06165, 4.02428, -132.872, -66.8973, 135.98, 77.9962, 20.7957, -142.626, -60.4184, 41.4361, -268.959
0.364, -1, -40.5286, 2.06577, 3.94745, -132.859, -66.8979, 135.967, 77.9141, 20.7859, -142.578, -60.4511, 41.4452, -268.802
0.368, -1, -40.5498, 2.0699, 3.87061, -132.846, -66.8984, 135.954, 77.8319, 20.7762, -142.53, -60.4838, 41.4542, -268.645
0.372, -1, -40.5709, 2.07403, 3.79376, -132.833, -66.899, 135.941, 77.7497, 20.7665, -142.482, -60.5165, 41.4633, -268.488
0.376, -1, -40.5921, 2.07816, 3.7169, -132.82, -66.8995, 135.929, 77.6676, 20.7567, -142.434, -60.5492, 41.4723, -268.332
0.38, -1, -40.6133, 2.08229, 3.64003, -132.807, -66.9001, 135.916, 77.5854, 20.747, -142.386, -60.5819, 41.4814, -268.175
0.384, -1, -40.6345, 2.08642, 3.56316, -132.794, -66.9006, 135.903, 77.5032, 20.7373, -142.338, -60.6146, 41.4904, -268.018
0.388, -1, -40.6556, 2.09055, 3.48628, -132.781, -66.9012, 135.89, 77.421, 20.7275, -142.29, -60.6473, 41.4995, -267.861
0.392, -1, -40.6768, 2.09468, 3.40939, -132.768, -66.9017, 135.877, 77.3388, 20.7178, -142.242, -60.6801, 41.5085, -267.704
0.396, -1, -40.698, 2.09881, 3.33249, -132.755, -66.9023, 135.865, 77.2566, 20.7081, -142.194, -60.7128, 41.5176, -267.547
0.4, -1, -40.7192, 2.10294, 3.25558, -132.741, -66.9028, 135.852, 77.1744, 20.6983, -142.146, -60.7455, 41.5267, -267.39
0.404, -1, -40.7403, 2.10708, 3.17867, -132.728, -66.9034, 135.839, 77.0921, 20.6886, -142.098, -60.7783, 41.5357, -267.233
0.408, -1, -40.7615, 2.11121, 3.10175, -132.715, -66.9039, 135.826, 77.0099, 20.6789, -142.05, -60.811, 41.5448, -267.076
0.412, -1, -40.7827, 2.11534, 3.02482, -132.702, -66.9044, 135.813, 76.9276, 20.6691, -142.002, -60.8438, 41.5539, -266.919
0.416, -1, -40.8039, 2.11948, 2.94788, -132.689, -66.905, 135.801, 76.8454, 20.6594, -141.954, -60.8765, 41.5629, -266.762
0.42, -1, -40.8251, 2.12361, 2.87093, -132.676, -66.9055, 135.788, 76.7631, 20.6497, -141.906, -60.9092, 41.572, -266.605
0.424, -1, -40.8463, 2.12774, 2.79398, -132.663, -66.9061, 135.775, 76.6808, 20.6399, -141.858, -60.942, 41.581, -266.448
0.428, -1, -40.8675, 2.13188, 2.71701, -132.65, -66.9066, 135.762, 76.5985, 20.6302, -141.81, -60.9748, 41.5901, -266.291
0.432, -1, -40.8887, 2.13602, 2.64004, -132.637, -66.9072, 135.749, 76.5162, 20.6204, -141.762, -61.0075, 41.5992, -266.134
0.436, -1, -40.9099, 2.14015, 2.56306, -132.624, -66.9077, 135.737, 76.4339, 20.6107, -141.714, -61.0403, 41.6082, -265.977
0.44, -1, -40.9311, 2.14429, 2.48607, -132.611, -66.9083, 135.724, 76.3516, 20.6009, -141.666, -61.073, 41.6173, -265.82
0.444, -1, -40.9523, 2.14842, 2.40908, -132.598, -66.9088, 135.711, 76.2693, 20.5912, -141.618, -61.1058, 41.6264, -265.663
0.448, -1, -40.9735, 2.15256, 2.33207, -132.585, -66.9094, 135.698, 76.187, 20.5814, -141.569, -61.1386, 41.6355, -265.506
0.452, -1, -40.9947, 2.1567, 2.25506, -132.572, -66.9099, 135.685, 76.1046, 20.5717, -141.521, -61.1714, 41.6445, -265.349
0.456, -1, -41.0159, 2.16084, 2.17804, -132.559, -66.9105, 135.673, 76.0223, 20.5619, -141.473, -61.2041, 41.6536, -265.191
0.46, -1, -41.0371, 2.16498, 2.10101, -132.546, -66.911, 135.66, 75.9399, 20.5522, -141.425, -61.2369, 41.6627, -265.034
0.464, -1, -41.0584, 2.16911, 2.02397, -132.533, -66.9116, 135.647, 75.8576, 20.5424, -141.377, -61.2697, 41.6718, -264.877
0.468, -1, -41.0796, 2.17325, 1.94693, -132.52, -66.9121, 135.634, 75.7752, 20.5327, -141.329, -61.3025, 41.6808, -264.72
0.472, -1, -41.1008, 2.17739, 1.86987, -132.506, -66.9127, 135.621, 75.6928, 20.5229, -141.281, -61.3353, 41.6899, -264.563
0.476, -1, -41.122, 2.18153, 1.79281, -132.493, -66.9132, 135.609, 75.6104, 20.5132, -141.233, -61.3681, 41.699, -264.405
0.48, -1, -41.1432, 2.18567, 1.71574, -132.48, -66.9138, 135.596, 75.528, 20.5034, -141.185, -61.4009, 41.7081, -264.248
0.484, -1, -41.1645, 2.18982, 1.63866, -132.467, -66.9143, 135.583, 75.4456, 20.4937, -141.136, -61.4337, 41.7171, -264.091
0.488, -1, -41.1857, 2.19396, 1.56157, -132.454, -66.9149, 135.57, 75.3632, 20.4839, -141.088, -61.4665, 41.7262, -263.933
0.492, -1, -41.2069, 2.1981, 1.48448, -132.441, -66.9154, 135.557, 75.2807, 20.4741, -141.04, -61.4993, 41.7353, -263.776
0.496, -1, -41.2282, 2.20224, 1.40737, -132.428, -66.916, 135.544, 75.1983, 20.4644, -140.992, -61.5322, 41.7444, -263.619
0.5, -1, -41.2494, 2.20639, 1.33026, -132.415, -66.9165, 135.532, 75.1159, 20.4546, -140.944, -61.565, 41.7535, -263.461
0.504, -1, -41.2707, 2.21053, 1.25314, -132.402, -66.9171, 135.519, 75.0334, 20.4449, -140.896, -61.5978, 41.7626, -263.304
0.508, -1, -41.2919, 2.21467, 1.17601, -132.389, -66.9176, 135.506, 74.9509, 20.4351, -140.848, -61.6306, 41.7716, -263.147
0.512, -1, -41.3131, 2.21882, 1.09887, -132.376, -66.9182, 135.493, 74.8685, 20.4253, -140.799, -61.6635, 41.7807, -262.989
0.516, -1, -41.3344, 2.22296, 1.02172, -132.363, -66.9187, 135.48, 74.786, 20.4156, -140.751, -61.6963, 41.7898, -262.832
0.52, -1, -41.3556, 2.22711, 0.944563, -132.35, -66.9193, 135.467, 74.7035, 20.4058, -140.703, -61.7291, 41.7989, -262.674
0.524, -1, -41.3769, 2.23125, 0.867399, -132.337, -66.9198, 135.455, 74.621, 20.396, -140.655, -61.762, 41.808, -262.517
0.528, -1, -41.3981, 2.2354, 0.790226, -132.323, -66.9204, 135.442, 74.5385, 20.3863, -140.607, -61.7948, 41.8171, -262.359
0.532, -1, -41.4194, 2.23955, 0.713044, -132.31, -66.9209, 135.429, 74.456, 20.3765, -140.558, -61.8277, 41.8262, -262.202
0.536, -1, -41.4407, 2.24369, 0.635854, -132.297, -66.9215, 135.416, 74.3734, 20.3667, -140.51, -61.8605, 41.8353, -262.044
0.54, -1, -41.4619, 2.24784, 0.558655, -132.284, -66.922, 135.403, 74.2909, 20.357, -140.462, -61.8934, 41.8444, -261.887
0.544, -1, -41.4832, 2.25199, 0.481448, -132.271, -66.9226, 135.39, 74.2083, 20.3472, -140.414, -61.9262, 41.8535, -261.729
0.548, -1, -41.5045, 2.25614, 0.404232, -132.258, -66.9231, 135.377, 74.1258, 20.3374, -140.366, -61.9591, 41.8626, -261.572
0.552, -1, -41.5257, 2.26029, 0.327007, -132.245, -66.9237, 135.365, 74.0432, 20.3276, -140.317, -61.992, 41.8717, -261.414
0.556, -1, -41.547, 2.26444, 0.249773, -132.232, -66.9242, 135.352, 73.9606, 20.3179, -140.269, -62.0248, 41.8808, -261.257
0.56, -1, -41.5683, 2.26859, 0.172531, -132.219, -66.9248, 135.339, 73.8781, 20.3081, -140.221, -62.0577, 41.8899, -261.099
0.564, -1, -41.5895, 2.27274, 0.0952801, -132.206, -66.9253, 135.326, 73.7955, 20.2983, -140.173, -62.0906, 41.899, -260.941
0.568, -1, -41.6108, 2.27689, 0.0180205, -132.192, -66.9259, 135.313, 73.7129, 20.2885, -140.124, -62.1235, 41.9081, -260.784
0.572, -1, -41.6321, 2.28104, -0.059248, -132.179, -66.9264, 135.3, 73.6303, 20.2787, -140.076, -62.1564, 41.9172, -260.626
0.576, -1, -41.6534, 2.28519, -0.136525, -132.166, -66.927, 135.288, 73.5476, 20.269, -140.028, -62.1892, 41.9263, -260.468
0.58, -1, -41.6747, 2.28934, -0.213811, -132.153, -66.9275, 135.275, 73.465, 20.2592, -139.98, -62.2221, 41.9354, -260.311
0.584, -1, -41.696, 2.29349, -0.291106, -132.14, -66.9281, 135.262, 73.3824, 20.2494, -139.931, -62.255, 41.9445, -260.153
0.588, -1, -41.7172, 2.29765, -0.36841, -132.127, -66.9286, 135.249, 73.2997, 20.2396, -139.883, -62.2879, 41.9536, -259.995
0.592, -1, -41.7385, 2.3018, -0.445723, -132.114, -66.9292, 135.236, 73.2171, 20.2298, -139.835, -62.3208, 41.9627, -259.837
0.596, -1, -41.7598, 2.30596, -0.523045, -132.101, -66.9297, 135.223, 73.1344, 20.22, -139.786, -62.3538, 41.9718, -259.679
0.6, -1, -41.7811, 2.31011, -0.600376, -132.088, -66.9303, 135.21, 73.0517, 20.2102, -139.738, -62.3867, 41.9809, -259.522
0.604, -1, -41.8024, 2.31427, -0.677715, -132.075, -66.9308, 135.197, 72.969, 20.2005, -139.69, -62.4196, 41.99, -259.364
0.608, -1, -41.8237, 2.31842, -0.755064, -132.061, -66.9314, 135.185, 72.8863, 20.1907, -139.642, -62.4525, 41.9991, -259.206
0.612, -1, -41.845, 2.32258, -0.832423, -132.048, -66.9319, 135.172, 72.8036, 20.1809, -139.593, -62.4854, 42.0082, -259.048
0.616, -1, -41.8663, 2.32673, -0.90979, -132.035, -66.9325, 135.159, 72.7209, 20.1711, -139.545, -62.5184, 42.0174, -258.89
0.62, -1, -41.8877, 2.33089, -0.987166, -132.022, -66.933, 135.146, 72.6382, 20.1613, -139.497, -62.5513, 42.0265, -258.732
0.624, -1, -41.909, 2.33505, -1.06455, -132.009, -66.9336, 135.133, 72.5554, 20.1515, -139.448, -62.5842, 42.0356, -258.574
0.628, -1, -41.9303, 2.33921, -1.14195, -131.996, -66.9342, 135.12, 72.4727, 20.1417, -139.4, -62.6172, 42.0447, -258.417
0.632, -1, -41.9516, 2.34337, -1.21935, -131.983, -66.9347, 135.107, 72.3899, 20.1319, -139.352, -62.6501, 42.0538, -258.259
0.636, -1, -41.9729, 2.34752, -1.29676, -131.97, -66.9353, 135.094, 72.3072, 20.1221, -139.303, -62.6831, 42.0629, -258.101
0.64, -1, -41.9942, 2.35168, -1.37419, -131.956, -66.9358, 135.082, 72.2244, 20.1123, -139.255, -62.716, 42.0721, -257.943
0.644, -1, -42.0156, 2.35584, -1.45162, -131.943, -66.9364, 135.069, 72.1416, 20.1025, -139.207, -62.749, 42.0812, -257.785
0.648, -1, -42.0369, 2.36001, -1.52906, -131.93, -66.9369, 135.056, 72.0588, 20.0927, -139.158, -62.7819, 42.0903, -257.627
0.652, -1, -42.0582, 2.36417, -1.60651, -131.917, -66.9375, 135.043, 71.976, 20.0829, -139.11, -62.8149, 42.0994, -257.469
0.656, -1, -42.0796, 2.36833, -1.68397, -131.904, -66.938, 135.03, 71.8932, 20.0731, -139.062, -62.8479, 42.1086, -257.31
0.66, -1, -42.1009, 2.37249, -1.76144, -131.891, -66.9386, 135.017, 71.8103, 20.0633, -139.013, -62.8808, 42.1177, -257.152
0.664, -1, -42.1222, 2.37665, -1.83892, -131.878, -66.9391, 135.004, 71.7275, 20.0535, -138.965, -62.9138, 42.1268, -256.994
0.668, -1, -42.1436, 2.38082, -1.91641, -131.864, -66.9397, 134.991, 71.6447, 20.0437, -138.916, -62.9468, 42.1359, -256.836
0.672, -1, -42.1649, 2.38498, -1.99391, -131.851, -66.9402, 134.979, 71.5618, 20.0338, -138.868, -62.9798, 42.1451, -256.678
0.676, -1, -42.1863, 2.38914, -2.07141, -131.838, -66.9408, 134.966, 71.4789, 20.024, -138.82, -63.0128, 42.1542, -256.52
0.68, -1, -42.2076, 2.39331, -2.14893, -131.825, -66.9413, 134.953, 71.3961, 20.0142, -138.771, -63.0457, 42.1633, -256.362
0.684, -1, -42.229, 2.39747, -2.22645, -131.812, -66.9419, 134.94, 71.3132, 20.0044, -138.723, -63.0787, 42.1725, -256.203
0.688, -1, -42.2503, 2.40164, -2.30399, -131.799, -66.9424, 134.927, 71.2303, 19.9946, -138.674, -63.1117, 42.1816, -256.045
0.692, -1, -42.2717, 2.40581, -2.38154, -131.786, -66.943, 134.914, 71.1474, 19.9848, -138.626, -63.1448, 42.1907, -255.887
0.696, -1, -42.293, 2.40997, -2.45909, -131.772, -66.9435, 134.901, 71.0644, 19.975, -138.577, -63.1778, 42.1999, -255.729
0.7, -1, -42.3144, 2.41414, -2.53665, -131.759, -66.9441, 134.888, 70.9815, 19.9651, -138.529, -63.2108, 42.209, -255.57
0.704, -1, -42.3358, 2.41831, -2.61423, -131.746, -66.9446, 134.875, 70.8986, 19.9553, -138.481, -63.2438, 42.2181, -255.412
0.708, -1, -42.3571, 2.42248, -2.69181, -131.733, -66.9452, 134.862, 70.8156, 19.9455, -138.432, -63.2768, 42.2273, -255.254
0.712, -1, -42.3785, 2.42664, -2.7694, -131.72, -66.9458, 134.849, 70.7327, 19.9357, -138.384, -63.3098, 42.2364, -255.096
0.716, -1, -42.3999, 2.43081, -2.84701, -131.707, -66.9463, 134.837, 70.6497, 19.9259, -138.335, -63.3429, 42.2456, -254.937
0.72, -1, -42.4213, 2.43498, -2.92462, -131.694, -66.9469, 134.824, 70.5667, 19.916, -138.287, -63.3759, 42.2547, -254.779
0.724, -1, -42.4426, 2.43915, -3.00224, -131.68, -66.9474, 134.811, 70.4837, 19.9062, -138.238, -63.4089, 42.2638, -254.62
0.728, -1, -42.464, 2.44333, -3.07987, -131.667, -66.948, 134.798, 70.4007, 19.8964, -138.19, -63.442, 42.273, -254.462
0.732, -1, -42.4854, 2.4475, -3.15751, -131.654, -66.9485, 134.785, 70.3177, 19.8866, -138.141, -63.475, 42.2821, -254.304
0.736, -1, -42.5068, 2.45167, -3.23516, -131.641, -66.9491, 134.772, 70.2347, 19.8767, -138.093, -63.5081, 42.2913, -254.145
0.74, -1, -42.5282, 2.45584, -3.31282, -131.628, -66.9496, 134.759, 70.1516, 19.8669, -138.044, -63.5411, 42.3004, -253.987
0.744, -1, -42.5496, 2.46001, -3.39049, -131.615, -66.9502, 134.746, 70.0686, 19.8571, -137.996, -63.5742, 42.3096, -253.828
0.748, -1, -42.571, 2.46419, -3.46817, -131.601, -66.9507, 134.733, 69.9855, 19.8472, -137.947, -63.6072, 42.3187, -253.67
0.752, -1, -42.5924, 2.46836, -3.54586, -131.588, -66.9513, 134.72, 69.9025, 19.8374, -137.899, -63.6403, 42.3279, -253.511
0.756, -1, -42.6138, 2.47254, -3.62356, -131.575, -66.9518, 134.707, 69.8194, 19.8276, -137.85, -63.6734, 42.337, -253.352
0.76, -1, -42.6352, 2.47671, -3.70127, -131.562, -66.9524, 134.694, 69.7363, 19.8177, -137.802, -63.7064, 42.3462, -253.194
0.764, -1, -42.6566, 2.48089, -3.77899, -131.549, -66.9529, 134.682, 69.6532, 19.8079, -137.753, -63.7395, 42.3554, -253.035
0.768, -1, -42.678, 2.48506, -3.85672, -131.535, -66.9535, 134.669, 69.5701, 19.798, -137.705, -63.7726, 42.3645, -252.877
0.772, -1, -42.6994, 2.48924, -3.93446, -131.522, -66.9541, 134.656, 69.487, 19.7882, -137.656, -63.8057, 42.3737, -252.718
0.776, -1, -42.7208, 2.49342, -4.01221, -131.509, -66.9546, 134.643, 69.4039, 19.7784, -137.608, -63.8388, 42.3828, -252.559
0.78, -1, -42.7422, 2.49759, -4.08996, -131.496, -66.9552, 134.63, 69.3207, 19.7685, -137.559, -63.8719, 42.392, -252.401
0.784, -1, -42.7636, 2.50177, -4.16773, -131.483, -66.9557, 134.617, 69.2376, 19.7587, -137.51, -63.905, 42.4011, -252.242
0.788, -1, -42.785, 2.50595, -4.24551, -131.47, -66.9563, 134.604, 69.1544, 19.7488, -137.462, -63.9381, 42.4103, -252.083
0.792, -1, -42.8065, 2.51013, -4.3233, -131.456, -66.9568, 134.591, 69.0712, 19.739, -137.413, -63.9712, 42.4195, -251.925
0.796, -1, -42.8279, 2.51431, -4.4011, -131.443, -66.9574, 134.578, 68.9881, 19.7291, -137.365, -64.0043, 42.4286, -251.766
0.8, -1, -42.8493, 2.51849, -4.4789, -131.43, -66.9579, 134.565, 68.9049, 19.7193, -137.316, -64.0374, 42.4378, -251.607
0.804, -1, -42.8707, 2.52267, -4.55672, -131.417, -66.9585, 134.552, 68.8217, 19.7094, -137.268, -64.0705, 42.447, -251.448
0.808, -1, -42.8922, 2.52685, -4.63455, -131.404, -66.9591, 134.539, 68.7384, 19.6996, -137.219, -64.1037, 42.4561, -251.289
0.812, -1, -42.9136, 2.53103, -4.71239, -131.39, -66.9596, 134.526, 68.6552, 19.6897, -137.17, -64.1368, 42.4653, -251.131
0.816, -1, -42.9351, 2.53522, -4.79023, -131.377, -66.9602, 134.513, 68.572, 19.6799, -137.122, -64.1699, 42.4745, -250.972
0.82, -1, -42.9565, 2.5394, -4.86809, -131.364, -66.9607, 134.5, 68.4887, 19.67, -137.073, -64.2031, 42.4836, -250.813
0.824, -1, -42.9779, 2.54358, -4.94596, -131.351, -66.9613, 134.487, 68.4055, 19.6602, -137.024, -64.2362, 42.4928, -250.654
0.828, -1, -42.9994, 2.54777, -5.02384, -131.338, -66.9618, 134.474, 68.3222, 19.6503, -136.976, -64.2693, 42.502, -250.495
0.832, -1, -43.0208, 2.55195, -5.10173, -131.324, -66.9624, 134.461, 68.2389, 19.6404, -136.927, -64.3025, 42.5112, -250.336
0.836, -1, -43.0423, 2.55614, -5.17962, -131.311, -66.9629, 134.448, 68.1556, 19.6306, -136.879, -64.3356, 42.5203, -250.177
0.84, -1, -43.0638, 2.56032, -5.25753, -131.298, -66.9635, 134.436, 68.0723, 19.6207, -136.83, -64.3688, 42.5295, -250.018
0.844, -1, -43.0852, 2.56451, -5.33545, -131.285, -66.9641, 134.423, 67.989, 19.6109, -136.781, -64.402, 42.5387, -249.859
0.848, -1, -43.1067, 2.5687, -5.41338, -131.271, -66.9646, 134.41, 67.9057, 19.601, -136.733, -64.4351, 42.5479, -249.7
0.852, -1, -43.1281, 2.57288, -5.49132, -131.258, -66.9652, 134.397, 67.8224, 19.5911, -136.684, -64.4683, 42.5571, -249.541
0.856, -1, -43.1496, 2.57707, -5.56926, -131.245, -66.9657, 134.384, 67.739, 19.5813, -136.635, -64.5015, 42.5662, -249.382
0.86, -1, -43.1711, 2.58126, -5.64722, -131.232, -66.9663, 134.371, 67.6557, 19.5714, -136.587, -64.5347, 42.5754, -249.223
0.864, -1, -43.1926, 2.58545, -5.72519, -131.219, -66.9668, 134.358, 67.5723, 19.5615, -136.538, -64.5678, 42.5846, -249.064
0.868, -1, -43.214, 2.58964, -5.80317, -131.205, -66.9674, 134.345, 67.4889, 19.5517, -136.489, -64.601, 42.5938, -248.905
0.872, -1, -43.2355, 2.59383, -5.88116, -131.192, -66.9679, 134.332, 67.4056, 19.5418, -136.44, -64.6342, 42.603, -248.746
0.876, -1, -43.257, 2.59802, -5.95916, -131.179, -66.9685, 134.319, 67.3222, 19.5319, -136.392, -64.6674, 42.6122, -248.586
0.88, -1, -43.2785, 2.60221, -6.03717, -131.166, -66.969, 134.306, 67.2388, 19.522, -136.343, -64.7006, 42.6214, -248.427
0.884, -1, -43.3, 2.6064, -6.11519, -131.152, -66.9696, 134.293, 67.1553, 19.5122, -136.294, -64.7338, 42.6306, -248.268
0.888, -1, -43.3215, 2.61059, -6.19322, -131.139, -66.9702, 134.28, 67.0719, 19.5023, -136.246, -64.767, 42.6397, -248.109
0.892, -1, -43.343, 2.61479, -6.27126, -131.126, -66.9707, 134.267, 66.9885, 19.4924, -136.197, -64.8003, 42.6489, -247.95
0.896, -1, -43.3644, 2.61898, -6.34932, -131.113, -66.9713, 134.254, 66.905, 19.4825, -136.148, -64.8335, 42.6581, -247.79
0.9, -1, -43.3859, 2.62317, -6.42738, -131.1, -66.9718, 134.241, 66.8215, 19.4726, -136.099, -64.8667, 42.6673, -247.631
0.904, -1, -43.4075, 2.62737, -6.50545, -131.086, -66.9724, 134.228, 66.7381, 19.4628, -136.051, -64.8999, 42.6765, -247.472
0.908, -1, -43.429, 2.63156, -6.58354, -131.073, -66.9729, 134.215, 66.6546, 19.4529, -136.002, -64.9332, 42.6857, -247.312
0.912, -1, -43.4505, 2.63576, -6.66163, -131.06, -66.9735, 134.202, 66.5711, 19.443, -135.953, -64.9664, 42.6949, -247.153
0.916, -1, -43.472, 2.63996, -6.73974, -131.047, -66.9741, 134.189, 66.4876, 19.4331, -135.904, -64.9996, 42.7041, -246.994
0.92, -1, -43.4935, 2.64415, -6.81785, -131.033, -66.9746, 134.176, 66.404, 19.4232, -135.855, -65.0329, 42.7133, -246.834
0.924, -1, -43.515, 2.64835, -6.89598, -131.02, -66.9752, 134.163, 66.3205, 19.4133, -135.807, -65.0661, 42.7225, -246.675
0.928, -1, -43.5365, 2.65255, -6.97411, -131.007, -66.9757, 134.15, 66.237, 19.4034, -135.758, -65.0994, 42.7317, -246.515
0.932, -1, -43.558, 2.65675, -7.05226, -130.994, -66.9763, 134.137, 66.1534, 19.3935, -135.709, -65.1327, 42.7409, -246.356
0.936, -1, -43.5796, 2.66095, -7.13042, -130.98, -66.9768, 134.124, 66.0698, 19.3836, -135.66, -65.1659, 42.7502, -246.196
0.94, -1, -43.6011, 2.66515, -7.20859, -130.967, -66.9774, 134.111, 65.9863, 19.3738, -135.611, -65.1992, 42.7594, -246.037
0.944, -1, -43.6226, 2.66935, -7.28677, -130.954, -66.978, 134.098, 65.9027, 19.3639, -135.563, -65.2325, 42.7686, -245.877
0.948, -1, -43.6442, 2.67355, -7.36496, -130.941, -66.9785, 134.085, 65.8191, 19.354, -135.514, -65.2657, 42.7778, -245.718
0.952, -1, -43.6657, 2.67775, -7.44317, -130.927, -66.9791, 134.072, 65.7355, 19.3441, -135.465, -65.299, 42.787, -245.558
0.956, -1, -43.6872, 2.68195, -7.52138, -130.914, -66.9796, 134.059, 65.6518, 19.3342, -135.416, -65.3323, 42.7962, -245.399
0.96, -1, -43.7088, 2.68615, -7.5996, -130.901, -66.9802, 134.046, 65.5682, 19.3243, -135.367, -65.3656, 42.8054, -245.239
0.964, -1, -43.7303, 2.69036, -7.67784, -130.888, -66.9808, 134.033, 65.4845, 19.3144, -135.318, -65.3989, 42.8146, -245.079
0.968, -1, -43.7519, 2.69456, -7.75609, -130.874, -66.9813, 134.02, 65.4009, 19.3044, -135.27, -65.4322, 42.8239, -244.92
0.972, -1, -43.7734, 2.69877, -7.83434, -130.861, -66.9819, 134.007, 65.3172, 19.2945, -135.221, -65.4655, 42.8331, -244.76
0.976, -1, -43.795, 2.70297, -7.91261, -130.848, -66.9824, 133.994, 65.2335, 19.2846, -135.172, -65.4988, 42.8423, -244.6
0.98, -1, -43.8166, 2.70718, -7.99089, -130.834, -66.983, 133.981, 65.1498, 19.2747, -135.123, -65.5322, 42.8515, -244.44
0.984, -1, -43.8381, 2.71138, -8.06918, -130.821, -66.9835, 133.968, 65.0661, 19.2648, -135.074, -65.5655, 42.8607, -244.281
0.988, -1, -43.8597, 2.71559, -8.14748, -130.808, -66.9841, 133.955, 64.9824, 19.2549, -135.025, -65.5988, 42.87, -244.121
0.992, -1, -43.8812, 2.7198, -8.22579, -130.795, -66.9847, 133.942, 64.8987, 19.245, -134.976, -65.6321, 42.8792, -243.961
0.996, -1, -43.9028, 2.72401, -8.30412, -130.781, -66.9852, 133.929, 64.8149, 19.2351, -134.927, -65.6655, 42.8884, -243.801
1, -1, -43.9244, 2.72821, -8.38245, -130.768, -66.9858, 133.916, 64.7312, 19.2252, -134.878, -65.6988, 42.8976, -243.641
1.004, -1, -43.946, 2.73242, -8.4608, -130.755, -66.9863, 133.903, 64.6474, 19.2152, -134.83, -65.7321, 42.9069, -243.482
1.008, -1, -43.9676, 2.73663, -8.53916, -130.741, -66.9869, 133.89, 64.5636, 19.2053, -134.781, -65.7655, 42.9161, -243.322
1.012, -1, -43.9891, 2.74084, -8.61752, -130.728, -66.9874, 133.877, 64.4798, 19.1954, -134.732, -65.7989, 42.9253, -243.162
1.016, -1, -44.0107, 2.74505, -8.6959, -130.715, -66.988, 133.863, 64.396, 19.1855, -134.683, -65.8322, 42.9346, -243.002
1.02, -1, -44.0323, 2.74927, -8.77429, -130.702, -66.9886, 133.85, 64.3122, 19.1756, -134.634, -65.8656, 42.9438, -242.842
1.024, -1, -44.0539, 2.75348, -8.8527, -130.688, -66.9891, 133.837, 64.2284, 19.1656, -134.585, -65.8989, 42.953, -242.682
1.027, -1, -44.0755, 2.75769, -8.93111, -130.675, -66.9897, 133.824, 64.1445, 19.1557, -134.536, -65.9323, 42.9623, -242.522
1.032, -1, -44.0971, 2.7619, -9.00953, -130.662, -66.9902, 133.811, 64.0607, 19.1458, -134.487, -65.9657, 42.9715, -242.362
1.036, -1, -44.1187, 2.76612, -9.08797, -130.648, -66.9908, 133.798, 63.9768, 19.1359, -134.438, -65.9991, 42.9808, -242.202
1.04, -1, -44.1403, 2.77033, -9.16642, -130.635, -66.9914, 133.785, 63.8929, 19.1259, -134.389, -66.0325, 42.99, -242.042
1.044, -1, -44.1619, 2.77455, -9.24487, -130.622, -66.9919, 133.772, 63.809, 19.116, -134.34, -66.0659, 42.9992, -241.882
1.048, -1, -44.1835, 2.77876, -9.32334, -130.609, -66.9925, 133.759, 63.7251, 19.1061, -134.291, -66.0993, 43.0085, -241.721
1.052, -1, -44.2051, 2.78298, -9.40182, -130.595, -66.993, 133.746, 63.6412, 19.0961, -134.242, -66.1327, 43.0177, -241.561
1.055, -1, -44.2268, 2.7872, -9.48032, -130.582, -66.9936, 133.733, 63.5573, 19.0862, -134.193, -66.1661, 43.027, -241.401
1.06, -1, -44.2484, 2.79142, -9.55882, -130.569, -66.9942, 133.72, 63.4734, 19.0763, -134.144, -66.1995, 43.0362, -241.241
1.064, -1, -44.27, 2.79563, -9.63733, -130.555, -66.9947, 133.707, 63.3894, 19.0663, -134.095, -66.2329, 43.0455, -241.081
1.068, -1, -44.2916, 2.79985, -9.71586, -130.542, -66.9953, 133.694, 63.3055, 19.0564, -134.046, -66.2663, 43.0547, -240.92
1.072, -1, -44.3133, 2.80407, -9.7944, -130.529, -66.9958, 133.681, 63.2215, 19.0464, -133.997, -66.2997, 43.064, -240.76
1.076, -1, -44.3349, 2.80829, -9.87295, -130.515, -66.9964, 133.668, 63.1375, 19.0365, -133.948, -66.3332, 43.0732, -240.6
1.08, -1, -44.3565, 2.81251, -9.95151, -130.502, -66.997, 133.655, 63.0535, 19.0265, -133.899, -66.3666, 43.0825, -240.44
1.084, -1, -44.3782, 2.81674, -10.0301, -130.489, -66.9975, 133.642, 62.9695, 19.0166, -133.85, -66.4, 43.0917, -240.279
1.088, -1, -44.3998, 2.82096, -10.1087, -130.475, -66.9981, 133.628, 62.8855, 19.0066, -133.8, -66.4335, 43.101, -240.119
1.091, -1, -44.4215, 2.82518, -10.1873, -130.462, -66.9986, 133.615, 62.8014, 18.9967, -133.751, -66.4669, 43.1103, -239.958
1.096, -1, -44.4431, 2.8294, -10.2659, -130.449, -66.9992, 133.602, 62.7174, 18.9867, -133.702, -66.5004, 43.1195, -239.798
1.1, -1, -44.4648, 2.83363, -10.3445, -130.435, -66.9998, 133.589, 62.6333, 18.9768, -133.653, -66.5339, 43.1288, -239.638
1.104, -1, -44.4864, 2.83785, -10.4231, -130.422, -67.0003, 133.576, 62.5493, 18.9668, -133.604, -66.5673, 43.138, -239.477
1.108, -1, -44.5081, 2.84208, -10.5018, -130.409, -67.0009, 133.563, 62.4652, 18.9569, -133.555, -66.6008, 43.1473, -239.317
1.112, -1, -44.5297, 2.8463, -10.5804, -130.395, -67.0014, 133.55, 62.3811, 18.9469, -133.506, -66.6343, 43.1566, -239.156
1.116, -1, -44.5514, 2.85053, -10.6591, -130.382, -67.002, 133.537, 62.297, 18.937, -133.457, -66.6678, 43.1658, -238.996
1.119, -1, -44.5731, 2.85476, -10.7377, -130.369, -67.0026, 133.524, 62.2129, 18.927, -133.408, -66.7012, 43.1751, -238.835
1.124, -1, -44.5947, 2.85898, -10.8164, -130.355, -67.0031, 133.511, 62.1287, 18.9171, -133.358, -66.7347, 43.1844, -238.675
1.128, -1, -44.6164, 2.86321, -10.8951, -130.342, -67.0037, 133.498, 62.0446, 18.9071, -133.309, -66.7682, 43.1936, -238.514
1.132, -1, -44.6381, 2.86744, -10.9738, -130.329, -67.0042, 133.484, 61.9604, 18.8971, -133.26, -66.8017, 43.2029, -238.353
1.136, -1, -44.6598, 2.87167, -11.0526, -130.315, -67.0048, 133.471, 61.8762, 18.8872, -133.211, -66.8352, 43.2122, -238.193
1.14, -1, -44.6814, 2.8759, -11.1313, -130.302, -67.0054, 133.458, 61.7921, 18.8772, -133.162, -66.8687, 43.2215, -238.032
1.144, -1, -44.7031, 2.88013, -11.21, -130.289, -67.0059, 133.445, 61.7079, 18.8672, -133.113, -66.9023, 43.2307, -237.871
1.147, -1, -44.7248, 2.88436, -11.2888, -130.275, -67.0065, 133.432, 61.6237, 18.8573, -133.063, -66.9358, 43.24, -237.711
1.152, -1, -44.7465, 2.88859, -11.3676, -130.262, -67.007, 133.419, 61.5394, 18.8473, -133.014, -66.9693, 43.2493, -237.55
1.156, -1, -44.7682, 2.89283, -11.4464, -130.249, -67.0076, 133.406, 61.4552, 18.8373, -132.965, -67.0028, 43.2586, -237.389
1.16, -1, -44.7899, 2.89706, -11.5252, -130.235, -67.0082, 133.393, 61.371, 18.8273, -132.916, -67.0364, 43.2679, -237.228
1.164, -1, -44.8116, 2.90129, -11.604, -130.222, -67.0087, 133.38, 61.2867, 18.8174, -132.867, -67.0699, 43.2771, -237.068
1.168, -1, -44.8333, 2.90553, -11.6828, -130.208, -67.0093, 133.367, 61.2024, 18.8074, -132.817, -67.1035, 43.2864, -236.907
1.172, -1, -44.855, 2.90976, -11.7616, -130.195, -67.0099, 133.353, 61.1181, 18.7974, -132.768, -67.137, 43.2957, -236.746
1.175, -1, -44.8768, 2.914, -11.8404, -130.182, -67.0104, 133.34, 61.0338, 18.7874, -132.719, -67.1706, 43.305, -236.585
1.18, -1, -44.8985, 2.91824, -11.9193, -130.168, -67.011, 133.327, 60.9495, 18.7775, -132.67, -67.2041, 43.3143, -236.424
1.184, -1, -44.9202, 2.92247, -11.9982, -130.155, -67.0115, 133.314, 60.8652, 18.7675, -132.62, -67.2377, 43.3236, -236.263
1.188, -1, -44.9419, 2.92671, -12.077, -130.142, -67.0121, 133.301, 60.7809, 18.7575, -132.571, -67.2713, 43.3329, -236.102
1.192, -1, -44.9636, 2.93095, -12.1559, -130.128, -67.0127, 133.288, 60.6965, 18.7475, -132.522, -67.3048, 43.3422, -235.941
1.196, -1, -44.9854, 2.93519, -12.2348, -130.115, -67.0132, 133.275, 60.6122, 18.7375, -132.473, -67.3384, 43.3515, -235.78
1.2, -1, -45.0071, 2.93943, -12.3137, -130.101, -67.0138, 133.262, 60.5278, 18.7275, -132.423, -67.372, 43.3608, -235.619
1.204, -1, -45.0288, 2.94367, -12.3927, -130.088, -67.0144, 133.248, 60.4434, 18.7175, -132.374, -67.4056, 43.3701, -235.458
1.208, -1, -45.0506, 2.94791, -12.4716, -130.075, -67.0149, 133.235, 60.359, 18.7075, -132.325, -67.4392, 43.3794, -235.297
1.212, -1, -45.0723, 2.95215, -12.5506, -130.061, -67.0155, 133.222, 60.2746, 18.6975, -132.276, -67.4728, 43.3886, -235.136
1.216, -1, -45.0941, 2.95639, -12.6295, -130.048, -67.016, 133.209, 60.1901, 18.6876, -132.226, -67.5064, 43.398, -234.975
1.22, -1, -45.1158, 2.96064, -12.7085, -130.035, -67.0166, 133.196, 60.1057, 18.6776, -132.177, -67.54, 43.4073, -234.814
1.224, -1, -45.1376, 2.96488, -12.7875, -130.021, -67.0172, 133.183, 60.0213, 18.6676, -132.128, -67.5736, 43.4166, -234.652
1.228, -1, -45.1593, 2.96912, -12.8665, -130.008, -67.0177, 133.17, 59.9368, 18.6576, -132.078, -67.6072, 43.4259, -234.491
1.232, -1, -45.1811, 2.97337, -12.9455, -129.994, -67.0183, 133.156, 59.8523, 18.6476, -132.029, -67.6409, 43.4352, -234.33
1.236, -1, -45.2029, 2.97762, -13.0245, -129.981, -67.0189, 133.143, 59.7678, 18.6376, -131.98, -67.6745, 43.4445, -234.169
1.24, -1, -45.2246, 2.98186, -13.1036, -129.968, -67.0194, 133.13, 59.6833, 18.6275, -131.93, -67.7082, 43.4538, -234.007
1.244, -1, -45.2464, 2.98611, -13.1826, -129.954, -67.02, 133.117, 59.5988, 18.6175, -131.881, -67.7418, 43.4631, -233.846
1.248, -1, -45.2682, 2.99036, -13.2617, -129.941, -67.0206, 133.104, 59.5142, 18.6075, -131.831, -67.7754, 43.4724, -233.685
1.252, -1, -45.29, 2.99461, -13.3407, -129.927, -67.0211, 133.091, 59.4297, 18.5975, -131.782, -67.8091, 43.4817, -233.523
1.256, -1, -45.3117, 2.99885, -13.4198, -129.914, -67.0217, 133.078, 59.3451, 18.5875, -131.733, -67.8428, 43.4911, -233.362
1.26, -1, -45.3335, 3.0031, -13.4989, -129.9, -67.0222, 133.064, 59.2606, 18.5775, -131.683, -67.8764, 43.5004, -233.201
1.264, -1, -45.3553, 3.00735, -13.578, -129.887, -67.0228, 133.051, 59.176, 18.5675, -131.634, -67.9101, 43.5097, -233.039
1.267, -1, -45.3771, 3.01161, -13.6572, -129.874, -67.0234, 133.038, 59.0914, 18.5575, -131.584, -67.9438, 43.519, -232.878
1.272, -1, -45.3989, 3.01586, -13.7363, -129.86, -67.0239, 133.025, 59.0068, 18.5474, -131.535, -67.9775, 43.5283, -232.716
1.276, -1, -45.4207, 3.02011, -13.8155, -129.847, -67.0245, 133.012, 58.9221, 18.5374, -131.486, -68.0111, 43.5377, -232.555
1.28, -1, -45.4425, 3.02436, -13.8946, -129.833, -67.0251, 132.999, 58.8375, 18.5274, -131.436, -68.0448, 43.547, -232.393
1.284, -1, -45.4643, 3.02862, -13.9738, -129.82, -67.0256, 132.985, 58.7528, 18.5174, -131.387, -68.0785, 43.5563, -232.232
1.288, -1, -45.4861, 3.03287, -14.053, -129.807, -67.0262, 132.972, 58.6682, 18.5074, -131.337, -68.1122, 43.5656, -232.07
1.292, -1, -45.5079, 3.03713, -14.1322, -129.793, -67.0268, 132.959, 58.5835, 18.4973, -131.288, -68.1459, 43.575, -231.908
1.295, -1, -45.5297, 3.04138, -14.2114, -129.78, -67.0273, 132.946, 58.4988, 18.4873, -131.238, -68.1797, 43.5843, -231.747
1.3, -1, -45.5516, 3.04564, -14.2906, -129.766, -67.0279, 132.933, 58.4141, 18.4773, -131.189, -68.2134, 43.5936, -231.585
1.304, -1, -45.5734, 3.0499, -14.3699, -129.753, -67.0285, 132.919, 58.3293, 18.4672, -131.139, -68.2471, 43.603, -231.423
1.308, -1, -45.5952, 3.05416, -14.4491, -129.739, -67.029, 132.906, 58.2446, 18.4572, -131.09, -68.2808, 43.6123, -231.262
1.312, -1, -45.617, 3.05841, -14.5284, -129.726, -67.0296, 132.893, 58.1599, 18.4472, -131.04, -68.3146, 43.6216, -231.1
1.316, -1, -45.6389, 3.06267, -14.6077, -129.712, -67.0302, 132.88, 58.0751, 18.4371, -130.991, -68.3483, 43.631, -230.938
1.32, -1, -45.6607, 3.06693, -14.687, -129.699, -67.0307, 132.867, 57.9903, 18.4271, -130.941, -68.3821, 43.6403, -230.776
1.324, -1, -45.6825, 3.07119, -14.7663, -129.686, -67.0313, 132.854, 57.9055, 18.4171, -130.892, -68.4158, 43.6497, -230.614
1.328, -1, -45.7044, 3.07546, -14.8456, -129.672, -67.0319, 132.84, 57.8207, 18.407, -130.842, -68.4496, 43.659, -230.453
1.332, -1, -45.7262, 3.07972, -14.9249, -129.659, -67.0324, 132.827, 57.7359, 18.397, -130.793, -68.4833, 43.6684, -230.291
1.336, -1, -45.7481, 3.08398, -15.0042, -129.645, -67.033, 132.814, 57.6511, 18.3869, -130.743, -68.5171, 43.6777, -230.129
1.34, -1, -45.7699, 3.08824, -15.0836, -129.632, -67.0335, 132.801, 57.5662, 18.3769, -130.694, -68.5509, 43.687, -229.967
1.344, -1, -45.7918, 3.09251, -15.163, -129.618, -67.0341, 132.788, 57.4813, 18.3668, -130.644, -68.5847, 43.6964, -229.805
1.348, -1, -45.8137, 3.09677, -15.2424, -129.605, -67.0347, 132.774, 57.3965, 18.3568, -130.595, -68.6185, 43.7057, -229.643
1.352, -1, -45.8355, 3.10104, -15.3218, -129.591, -67.0352, 132.761, 57.3116, 18.3468, -130.545, -68.6522, 43.7151, -229.481
1.356, -1, -45.8574, 3.10531, -15.4012, -129.578, -67.0358, 132.748, 57.2267, 18.3367, -130.495, -68.686, 43.7245, -229.319
1.36, -1, -45.8793, 3.10957, -15.4806, -129.564, -67.0364, 132.735, 57.1418, 18.3266, -130.446, -68.7198, 43.7338, -229.157
1.364, -1, -45.9012, 3.11384, -15.56, -129.551, -67.0369, 132.721, 57.0568, 18.3166, -130.396, -68.7536, 43.7432, -228.995
1.368, -1, -45.923, 3.11811, -15.6395, -129.538, -67.0375, 132.708, 56.9719, 18.3065, -130.347, -68.7875, 43.7525, -228.833
1.372, -1, -45.9449, 3.12238, -15.7189, -129.524, -67.0381, 132.695, 56.8869, 18.2965, -130.297, -68.8213, 43.7619, -228.67
1.376, -1, -45.9668, 3.12665, -15.7984, -129.511, -67.0386, 132.682, 56.8019, 18.2864, -130.247, -68.8551, 43.7713, -228.508
1.38, -1, -45.9887, 3.13092, -15.8779, -129.497, -67.0392, 132.669, 56.7169, 18.2764, -130.198, -68.8889, 43.7806, -228.346
1.384, -1, -46.0106, 3.13519, -15.9574, -129.484, -67.0398, 132.655, 56.6319, 18.2663, -130.148, -68.9228, 43.79, -228.184
1.388, -1, -46.0325, 3.13946, -16.0369, -129.47, -67.0403, 132.642, 56.5469, 18.2562, -130.098, -68.9566, 43.7993, -228.022
1.392, -1, -46.0544, 3.14373, -16.1164, -129.457, -67.0409, 132.629, 56.4619, 18.2462, -130.049, -68.9905, 43.8087, -227.859
1.396, -1, -46.0763, 3.14801, -16.196, -129.443, -67.0415, 132.616, 56.3769, 18.2361, -129.999, -69.0243, 43.8181, -227.697
1.4, -1, -46.0982, 3.15228, -16.2755, -129.43, -67.042, 132.602, 56.2918, 18.226, -129.949, -69.0582, 43.8275, -227.535
1.404, -1, -46.1201, 3.15656, -16.3551, -129.416, -67.0426, 132.589, 56.2067, 18.216, -129.9, -69.092, 43.8368, -227.372
1.408, -1, -46.142, 3.16083, -16.4347, -129.403, -67.0432, 132.576, 56.1216, 18.2059, -129.85, -69.1259, 43.8462, -227.21
1.412, -1, -46.164, 3.16511, -16.5142, -129.389, -67.0437, 132.563, 56.0365, 18.1958, -129.8, -69.1598, 43.8556, -227.047
1.416, -1, -46.1859, 3.16939, -16.5939, -129.376, -67.0443, 132.549, 55.9514, 18.1857, -129.751, -69.1937, 43.865, -226.885
1.42, -1, -46.2078, 3.17366, -16.6735, -129.362, -67.0449, 132.536, 55.8663, 18.1756, -129.701, -69.2275, 43.8743, -226.723
1.424, -1, -46.2297, 3.17794, -16.7531, -129.349, -67.0454, 132.523, 55.7811, 18.1656, -129.651, -69.2614, 43.8837, -226.56
1.428, -1, -46.2517, 3.18222, -16.8327, -129.335, -67.046, 132.51, 55.696, 18.1555, -129.601, -69.2953, 43.8931, -226.398
1.432, -1, -46.2736, 3.1865, -16.9124, -129.322, -67.0466, 132.496, 55.6108, 18.1454, -129.552, -69.3292, 43.9025, -226.235
1.436, -1, -46.2956, 3.19078, -16.9921, -129.308, -67.0471, 132.483, 55.5256, 18.1353, -129.502, -69.3631, 43.9119, -226.072
1.44, -1, -46.3175, 3.19506, -17.0718, -129.295, -67.0477, 132.47, 55.4404, 18.1252, -129.452, -69.3971, 43.9213, -225.91
1.444, -1, -46.3395, 3.19934, -17.1515, -129.281, -67.0483, 132.457, 55.3552, 18.1151, -129.402, -69.431, 43.9306, -225.747
1.448, -1, -46.3614, 3.20363, -17.2312, -129.268, -67.0489, 132.443, 55.27, 18.105, -129.353, -69.4649, 43.94, -225.585
1.452, -1, -46.3834, 3.20791, -17.3109, -129.254, -67.0494, 132.43, 55.1847, 18.095, -129.303, -69.4988, 43.9494, -225.422
1.456, -1, -46.4053, 3.21219, -17.3906, -129.241, -67.05, 132.417, 55.0995, 18.0849, -129.253, -69.5328, 43.9588, -225.259
1.46, -1, -46.4273, 3.21648, -17.4704, -129.227, -67.0506, 132.404, 55.0142, 18.0748, -129.203, -69.5667, 43.9682, -225.096
1.464, -1, -46.4493, 3.22076, -17.5502, -129.214, -67.0511, 132.39, 54.9289, 18.0647, -129.153, -69.6007, 43.9776, -224.934
1.468, -1, -46.4712, 3.22505, -17.6299, -129.2, -67.0517, 132.377, 54.8436, 18.0546, -129.104, -69.6346, 43.987, -224.771
1.472, -1, -46.4932, 3.22934, -17.7097, -129.186, -67.0523, 132.364, 54.7583, 18.0445, -129.054, -69.6686, 43.9964, -224.608
1.476, -1, -46.5152, 3.23363, -17.7895, -129.173, -67.0528, 132.351, 54.673, 18.0344, -129.004, -69.7026, 44.0058, -224.445
1.48, -1, -46.5372, 3.23791, -17.8694, -129.159, -67.0534, 132.337, 54.5876, 18.0243, -128.954, -69.7365, 44.0152, -224.282
1.484, -1, -46.5592, 3.2422, -17.9492, -129.146, -67.054, 132.324, 54.5023, 18.0142, -128.904, -69.7705, 44.0246, -224.119
1.488, -1, -46.5811, 3.24649, -18.029, -129.132, -67.0545, 132.311, 54.4169, 18.0041, -128.854, -69.8045, 44.034, -223.956
1.492, -1, -46.6031, 3.25078, -18.1089, -129.119, -67.0551, 132.297, 54.3315, 17.9939, -128.804, -69.8385, 44.0434, -223.793
1.496, -1, -46.6251, 3.25508, -18.1888, -129.105, -67.0557, 132.284, 54.2461, 17.9838, -128.755, -69.8725, 44.0528, -223.63
1.5, -1, -46.6471, 3.25937, -18.2687, -129.092, -67.0563, 132.271, 54.1607, 17.9737, -128.705, -69.9065, 44.0623, -223.467
1.504, -1, -46.6691, 3.26366, -18.3486, -129.078, -67.0568, 132.258, 54.0752, 17.9636, -128.655, -69.9405, 44.0717, -223.304
1.508, -1, -46.6912, 3.26795, -18.4285, -129.065, -67.0574, 132.244, 53.9898, 17.9535, -128.605, -69.9745, 44.0811, -223.141
1.512, -1, -46.7132, 3.27225, -18.5084, -129.051, -67.058, 132.231, 53.9043, 17.9434, -128.555, -70.0085, 44.0905, -222.978
1.516, -1, -46.7352, 3.27654, -18.5884, -129.037, -67.0585, 132.218, 53.8188, 17.9332, -128.505, -70.0425, 44.0999, -222.815
1.52, -1, -46.7572, 3.28084, -18.6683, -129.024, -67.0591, 132.204, 53.7333, 17.9231, -128.455, -70.0766, 44.1093, -222.652
1.524, -1, -46.7792, 3.28514, -18.7483, -129.01, -67.0597, 132.191, 53.6478, 17.913, -128.405, -70.1106, 44.1188, -222.489
1.528, -1, -46.8013, 3.28943, -18.8283, -128.997, -67.0602, 132.178, 53.5623, 17.9029, -128.355, -70.1447, 44.1282, -222.325
1.532, -1, -46.8233, 3.29373, -18.9083, -128.983, -67.0608, 132.164, 53.4768, 17.8927, -128.305, -70.1787, 44.1376, -222.162
1.536, -1, -46.8453, 3.29803, -18.9883, -128.97, -67.0614, 132.151, 53.3912, 17.8826, -128.255, -70.2128, 44.147, -221.999
1.54, -1, -46.8674, 3.30233, -19.0684, -128.956, -67.062, 132.138, 53.3056, 17.8725, -128.205, -70.2468, 44.1565, -221.836
1.544, -1, -46.8894, 3.30663, -19.1484, -128.943, -67.0625, 132.124, 53.22, 17.8624, -128.155, -70.2809, 44.1659, -221.672
1.548, -1, -46.9115, 3.31094, -19.2285, -128.929, -67.0631, 132.111, 53.1344, 17.8522, -128.105, -70.315, 44.1753, -221.509
1.552, -1, -46.9335, 3.31524, -19.3085, -128.915, -67.0637, 132.098, 53.0488, 17.8421, -128.055, -70.3491, 44.1847, -221.345
1.556, -1, -46.9556, 3.31954, -19.3886, -128.902, -67.0642, 132.084, 52.9632, 17.8319, -128.005, -70.3831, 44.1942, -221.182
1.56, -1, -46.9776, 3.32384, -19.4687, -128.888, -67.0648, 132.071, 52.8775, 17.8218, -127.955, -70.4172, 44.2036, -221.018
1.564, -1, -46.9997, 3.32815, -19.5489, -128.875, -67.0654, 132.058, 52.7919, 17.8117, -127.905, -70.4513, 44.2131, -220.855
1.568, -1, -47.0218, 3.33246, -19.629, -128.861, -67.0659, 132.045, 52.7062, 17.8015, -127.855, -70.4854, 44.2225, -220.691
1.572, -1, -47.0438, 3.33676, -19.7091, -128.847, -67.0665, 132.031, 52.6205, 17.7914, -127.805, -70.5196, 44.2319, -220.528
1.576, -1, -47.0659, 3.34107, -19.7893, -128.834, -67.0671, 132.018, 52.5348, 17.7812, -127.755, -70.5537, 44.2414, -220.364
1.58, -1, -47.088, 3.34538, -19.8695, -128.82, -67.0677, 132.005, 52.4491, 17.7711, -127.705, -70.5878, 44.2508, -220.201
1.584, -1, -47.1101, 3.34969, -19.9497, -128.807, -67.0682, 131.991, 52.3633, 17.7609, -127.655, -70.6219, 44.2603, -220.037
1.588, -1, -47.1322, 3.35399, -20.0299, -128.793, -67.0688, 131.978, 52.2776, 17.7508, -127.605, -70.6561, 44.2697, -219.873
1.592, -1, -47.1543, 3.35831, -20.1101, -128.779, -67.0694, 131.964, 52.1918, 17.7406, -127.555, -70.6902, 44.2792, -219.71
1.596, -1, -47.1764, 3.36262, -20.1903, -128.766, -67.07, 131.951, 52.106, 17.7305, -127.505, -70.7244, 44.2886, -219.546
1.6, -1, -47.1985, 3.36693, -20.2706, -128.752, -67.0705, 131.938, 52.0202, 17.7203, -127.455, -70.7585, 44.2981, -219.382
1.604, -1, -47.2206, 3.37124, -20.3508, -128.739, -67.0711, 131.924, 51.9344, 17.7102, -127.404, -70.7927, 44.3075, -219.218
1.608, -1, -47.2427, 3.37555, -20.4311, -128.725, -67.0717, 131.911, 51.8485, 17.7, -127.354, -70.8268, 44.317, -219.055
1.612, -1, -47.2648, 3.37987, -20.5114, -128.711, -67.0723, 131.898, 51.7627, 17.6898, -127.304, -70.861, 44.3265, -218.891
1.616, -1, -47.2869, 3.38418, -20.5917, -128.698, -67.0728, 131.884, 51.6768, 17.6797, -127.254, -70.8952, 44.3359, -218.727
1.62, -1, -47.309, 3.3885, -20.672, -128.684, -67.0734, 131.871, 51.591, 17.6695, -127.204, -70.9294, 44.3454, -218.563
1.624, -1, -47.3312, 3.39282, -20.7524, -128.671, -67.074, 131.858, 51.5051, 17.6593, -127.154, -70.9636, 44.3548, -218.399
1.628, -1, -47.3533, 3.39713, -20.8327, -128.657, -67.0745, 131.844, 51.4191, 17.6492, -127.103, -70.9978, 44.3643, -218.235
1.632, -1, -47.3754, 3.40145, -20.9131, -128.643, -67.0751, 131.831, 51.3332, 17.639, -127.053, -71.032, 44.3738, -218.071
1.636, -1, -47.3976, 3.40577, -20.9935, -128.63, -67.0757, 131.818, 51.2473, 17.6288, -127.003, -71.0662, 44.3832, -217.907
1.64, -1, -47.4197, 3.41009, -21.0739, -128.616, -67.0763, 131.804, 51.1613, 17.6186, -126.953, -71.1004, 44.3927, -217.743
1.644, -1, -47.4418, 3.41441, -21.1543, -128.602, -67.0768, 131.791, 51.0753, 17.6084, -126.903, -71.1346, 44.4022, -217.579
1.648, -1, -47.464, 3.41873, -21.2347, -128.589, -67.0774, 131.777, 50.9893, 17.5983, -126.852, -71.1688, 44.4117, -217.415
1.652, -1, -47.4861, 3.42305, -21.3151, -128.575, -67.078, 131.764, 50.9033, 17.5881, -126.802, -71.2031, 44.4211, -217.251
1.656, -1, -47.5083, 3.42738, -21.3956, -128.561, -67.0785, 131.751, 50.8173, 17.5779, -126.752, -71.2373, 44.4306, -217.087
1.66, -1, -47.5305, 3.4317, -21.4761, -128.548, -67.0791, 131.737, 50.7313, 17.5677, -126.702, -71.2716, 44.4401, -216.922
1.664, -1, -47.5526, 3.43602, -21.5565, -128.534, -67.0797, 131.724, 50.6452, 17.5575, -126.651, -71.3058, 44.4496, -216.758
1.668, -1, -47.5748, 3.44035, -21.637, -128.521, -67.0803, 131.71, 50.5592, 17.5473, -126.601, -71.3401, 44.459, -216.594
1.672, -1, -47.597, 3.44467, -21.7175, -128.507, -67.0808, 131.697, 50.4731, 17.5371, -126.551, -71.3744, 44.4685, -216.43
1.676, -1, -47.6192, 3.449, -21.7981, -128.493, -67.0814, 131.684, 50.387, 17.527, -126.501, -71.4086, 44.478, -216.265
1.68, -1, -47.6413, 3.45333, -21.8786, -128.48, -67.082, 131.67, 50.3008, 17.5168, -126.45, -71.4429, 44.4875, -216.101
1.684, -1, -47.6635, 3.45766, -21.9592, -128.466, -67.0826, 131.657, 50.2147, 17.5066, -126.4, -71.4772, 44.497, -215.936
1.688, -1, -47.6857, 3.46199, -22.0397, -128.452, -67.0831, 131.643, 50.1286, 17.4964, -126.35, -71.5115, 44.5065, -215.772
1.692, -1, -47.7079, 3.46632, -22.1203, -128.439, -67.0837, 131.63, 50.0424, 17.4862, -126.299, -71.5458, 44.516, -215.608
1.696, -1, -47.7301, 3.47065, -22.2009, -128.425, -67.0843, 131.617, 49.9562, 17.476, -126.249, -71.5801, 44.5255, -215.443
1.7, -1, -47.7523, 3.47498, -22.2816, -128.411, -67.0849, 131.603, 49.87, 17.4658, -126.199, -71.6144, 44.535, -215.279
1.704, -1, -47.7745, 3.47931, -22.3622, -128.398, -67.0854, 131.59, 49.7838, 17.4555, -126.148, -71.6487, 44.5445, -215.114
1.708, -1, -47.7967, 3.48364, -22.4428, -128.384, -67.086, 131.576, 49.6976, 17.4453, -126.098, -71.683, 44.554, -214.95
1.712, -1, -47.8189, 3.48798, -22.5235, -128.37, -67.0866, 131.563, 49.6113, 17.4351, -126.048, -71.7174, 44.5635, -214.785
1.716, -1, -47.8412, 3.49231, -22.6042, -128.357, -67.0872, 131.55, 49.5251, 17.4249, -125.997, -71.7517, 44.573, -214.62
1.72, -1, -47.8634, 3.49665, -22.6849, -128.343, -67.0877, 131.536, 49.4388, 17.4147, -125.947, -71.786, 44.5825, -214.456
1.724, -1, -47.8856, 3.50099, -22.7656, -128.329, -67.0883, 131.523, 49.3525, 17.4045, -125.896, -71.8204, 44.592, -214.291
1.728, -1, -47.9078, 3.50532, -22.8463, -128.315, -67.0889, 131.509, 49.2662, 17.3943, -125.846, -71.8548, 44.6015, -214.126
1.732, -1, -47.9301, 3.50966, -22.927, -128.302, -67.0895, 131.496, 49.1799, 17.384, -125.796, -71.8891, 44.611, -213.961
1.736, -1, -47.9523, 3.514, -23.0078, -128.288, -67.09, 131.482, 49.0935, 17.3738, -125.745, -71.9235, 44.6205, -213.797
1.74, -1, -47.9746, 3.51834, -23.0886, -128.274, -67.0906, 131.469, 49.0072, 17.3636, -125.695, -71.9579, 44.63, -213.632
1.744, -1, -47.9968, 3.52268, -23.1693, -128.261, -67.0912, 131.456, 48.9208, 17.3534, -125.644, -71.9922, 44.6396, -213.467
1.748, -1, -48.0191, 3.52702, -23.2501, -128.247, -67.0918, 131.442, 48.8344, 17.3431, -125.594, -72.0266, 44.6491, -213.302
1.752, -1, -48.0413, 3.53136, -23.331, -128.233, -67.0923, 131.429, 48.748, 17.3329, -125.543, -72.061, 44.6586, -213.137
1.756, -1, -48.0636, 3.53571, -23.4118, -128.22, -67.0929, 131.415, 48.6616, 17.3227, -125.493, -72.0954, 44.6681, -212.972
1.76, -1, -48.0858, 3.54005, -23.4926, -128.206, -67.0935, 131.402, 48.5751, 17.3125, -125.442, -72.1298, 44.6776, -212.807
1.764, -1, -48.1081, 3.54439, -23.5735, -128.192, -67.0941, 131.388, 48.4887, 17.3022, -125.392, -72.1643, 44.6872, -212.642
1.768, -1, -48.1304, 3.54874, -23.6544, -128.178, -67.0947, 131.375, 48.4022, 17.292, -125.341, -72.1987, 44.6967, -212.477
1.772, -1, -48.1527, 3.55309, -23.7353, -128.165, -67.0952, 131.361, 48.3157, 17.2817, -125.291, -72.2331, 44.7062, -212.312
1.776, -1, -48.1749, 3.55743, -23.8162, -128.151, -67.0958, 131.348, 48.2292, 17.2715, -125.24, -72.2675, 44.7158, -212.147
1.78, -1, -48.1972, 3.56178, -23.8971, -128.137, -67.0964, 131.334, 48.1427, 17.2613, -125.19, -72.302, 44.7253, -211.982
1.784, -1, -48.2195, 3.56613, -23.978, -128.124, -67.097, 131.321, 48.0561, 17.251, -125.139, -72.3364, 44.7348, -211.817
1.788, -1, -48.2418, 3.57048, -24.059, -128.11, -67.0975, 131.307, 47.9696, 17.2408, -125.089, -72.3709, 44.7444, -211.652
1.792, -1, -48.2641, 3.57483, -24.1399, -128.096, -67.0981, 131.294, 47.883, 17.2305, -125.038, -72.4053, 44.7539, -211.486
1.796, -1, -48.2864, 3.57918, -24.2209, -128.082, -67.0987, 131.281, 47.7964, 17.2203, -124.988, -72.4398, 44.7634, -211.321
1.8, -1, -48.3087, 3.58353, -24.3019, -128.069, -67.0993, 131.267, 47.7098, 17.21, -124.937, -72.4743, 44.773, -211.156
1.804, -1, -48.331, 3.58789, -24.3829, -128.055, -67.0998, 131.254, 47.6232, 17.1998, -124.886, -72.5088, 44.7825, -210.991
1.808, -1, -48.3534, 3.59224, -24.464, -128.041, -67.1004, 131.24, 47.5365, 17.1895, -124.836, -72.5433, 44.7921, -210.825
1.812, -1, -48.3757, 3.59659, -24.545, -128.027, -67.101, 131.227, 47.4499, 17.1792, -124.785, -72.5778, 44.8016, -210.66
1.816, -1, -48.398, 3.60095, -24.6261, -128.014, -67.1016, 131.213, 47.3632, 17.169, -124.735, -72.6122, 44.8112, -210.494
1.82, -1, -48.4203, 3.60531, -24.7072, -128, -67.1022, 131.2, 47.2765, 17.1587, -124.684, -72.6468, 44.8207, -210.329
1.824, -1, -48.4427, 3.60966, -24.7883, -127.986, -67.1027, 131.186, 47.1898, 17.1484, -124.633, -72.6813, 44.8303, -210.163
1.828, -1, -48.465, 3.61402, -24.8694, -127.972, -67.1033, 131.173, 47.1031, 17.1382, -124.583, -72.7158, 44.8398, -209.998
1.832, -1, -48.4873, 3.61838, -24.9505, -127.959, -67.1039, 131.159, 47.0163, 17.1279, -124.532, -72.7503, 44.8494, -209.832
1.836, -1, -48.5097, 3.62274, -25.0316, -127.945, -67.1045, 131.146, 46.9296, 17.1176, -124.481, -72.7849, 44.8589, -209.667
1.84, -1, -48.532, 3.6271, -25.1128, -127.931, -67.105, 131.132, 46.8428, 17.1074, -124.431, -72.8194, 44.8685, -209.501
1.844, -1, -48.5544, 3.63146, -25.194, -127.917, -67.1056, 131.119, 46.756, 17.0971, -124.38, -72.854, 44.8781, -209.336
1.848, -1, -48.5768, 3.63583, -25.2752, -127.904, -67.1062, 131.105, 46.6692, 17.0868, -124.329, -72.8885, 44.8876, -209.17
1.852, -1, -48.5991, 3.64019, -25.3564, -127.89, -67.1068, 131.092, 46.5824, 17.0765, -124.279, -72.9231, 44.8972, -209.004
1.856, -1, -48.6215, 3.64455, -25.4376, -127.876, -67.1074, 131.078, 46.4955, 17.0662, -124.228, -72.9576, 44.9068, -208.838
1.86, -1, -48.6439, 3.64892, -25.5188, -127.862, -67.1079, 131.065, 46.4086, 17.056, -124.177, -72.9922, 44.9163, -208.673
1.864, -1, -48.6662, 3.65329, -25.6001, -127.849, -67.1085, 131.051, 46.3218, 17.0457, -124.126, -73.0268, 44.9259, -208.507
1.868, -1, -48.6886, 3.65765, -25.6814, -127.835, -67.1091, 131.038, 46.2349, 17.0354, -124.076, -73.0614, 44.9355, -208.341
1.872, -1, -48.711, 3.66202, -25.7627, -127.821, -67.1097, 131.024, 46.1479, 17.0251, -124.025, -73.096, 44.945, -208.175
1.876, -1, -48.7334, 3.66639, -25.844, -127.807, -67.1103, 131.011, 46.061, 17.0148, -123.974, -73.1306, 44.9546, -208.009
1.88, -1, -48.7558, 3.67076, -25.9253, -127.793, -67.1108, 130.997, 45.9741, 17.0045, -123.923, -73.1652, 44.9642, -207.843
1.884, -1, -48.7782, 3.67513, -26.0066, -127.78, -67.1114, 130.983, 45.8871, 16.9942, -123.873, -73.1998, 44.9738, -207.677
1.888, -1, -48.8006, 3.6795, -26.088, -127.766, -67.112, 130.97, 45.8001, 16.9839, -123.822, -73.2344, 44.9834, -207.511
1.892, -1, -48.823, 3.68387, -26.1694, -127.752, -67.1126, 130.956, 45.7131, 16.9736, -123.771, -73.2691, 44.993, -207.345
1.896, -1, -48.8454, 3.68824, -26.2507, -127.738, -67.1132, 130.943, 45.6261, 16.9633, -123.72, -73.3037, 45.0025, -207.179
1.9, -1, -48.8678, 3.69262, -26.3321, -127.724, -67.1137, 130.929, 45.5391, 16.953, -123.669, -73.3384, 45.0121, -207.013
1.904, -1, -48.8903, 3.69699, -26.4136, -127.711, -67.1143, 130.916, 45.452, 16.9427, -123.618, -73.373, 45.0217, -206.847
1.908, -1, -48.9127, 3.70137, -26.495, -127.697, -67.1149, 130.902, 45.3649, 16.9324, -123.568, -73.4077, 45.0313, -206.681
1.912, -1, -48.9351, 3.70574, -26.5764, -127.683, -67.1155, 130.889, 45.2778, 16.9221, -123.517, -73.4423, 45.0409, -206.514
1.916, -1, -48.9576, 3.71012, -26.6579, -127.669, -67.1161, 130.875, 45.1907, 16.9118, -123.466, -73.477, 45.0505, -206.348
1.92, -1, -48.98, 3.7145, -26.7394, -127.655, -67.1166, 130.862, 45.1036, 16.9015, -123.415, -73.5117, 45.0601, -206.182
1.924, -1, -49.0025, 3.71888, -26.8209, -127.642, -67.1172, 130.848, 45.0165, 16.8911, -123.364, -73.5464, 45.0697, -206.016
1.928, -1, -49.0249, 3.72326, -26.9024, -127.628, -67.1178, 130.834, 44.9293, 16.8808, -123.313, -73.5811, 45.0793, -205.849
1.932, -1, -49.0474, 3.72764, -26.9839, -127.614, -67.1184, 130.821, 44.8421, 16.8705, -123.262, -73.6158, 45.0889, -205.683
1.936, -1, -49.0698, 3.73202, -27.0655, -127.6, -67.119, 130.807, 44.7549, 16.8602, -123.211, -73.6505, 45.0985, -205.516
1.94, -1, -49.0923, 3.7364, -27.1471, -127.586, -67.1196, 130.794, 44.6677, 16.8499, -123.16, -73.6852, 45.1081, -205.35
1.944, -1, -49.1147, 3.74079, -27.2286, -127.572, -67.1201, 130.78, 44.5805, 16.8395, -123.109, -73.7199, 45.1177, -205.184
1.948, -1, -49.1372, 3.74517, -27.3102, -127.559, -67.1207, 130.767, 44.4932, 16.8292, -123.058, -73.7547, 45.1274, -205.017
1.952, -1, -49.1597, 3.74956, -27.3919, -127.545, -67.1213, 130.753, 44.406, 16.8189, -123.007, -73.7894, 45.137, -204.85
1.956, -1, -49.1822, 3.75394, -27.4735, -127.531, -67.1219, 130.739, 44.3187, 16.8085, -122.956, -73.8241, 45.1466, -204.684
1.96, -1, -49.2047, 3.75833, -27.5551, -127.517, -67.1225, 130.726, 44.2314, 16.7982, -122.906, -73.8589, 45.1562, -204.517
1.964, -1, -49.2272, 3.76272, -27.6368, -127.503, -67.123, 130.712, 44.1441, 16.7879, -122.855, -73.8936, 45.1658, -204.351
1.968, -1, -49.2496, 3.76711, -27.7185, -127.489, -67.1236, 130.699, 44.0567, 16.7775, -122.803, -73.9284, 45.1754, -204.184
1.972, -1, -49.2722, 3.7715, -27.8002, -127.475, -67.1242, 130.685, 43.9694, 16.7672, -122.752, -73.9632, 45.1851, -204.017
1.976, -1, -49.2947, 3.77589, -27.8819, -127.462, -67.1248, 130.671, 43.882, 16.7568, -122.701, -73.9979, 45.1947, -203.85
1.98, -1, -49.3172, 3.78028, -27.9636, -127.448, -67.1254, 130.658, 43.7946, 16.7465, -122.65, -74.0327, 45.2043, -203.684
1.984, -1, -49.3397, 3.78467, -28.0454, -127.434, -67.126, 130.644, 43.7072, 16.7361, -122.599, -74.0675, 45.214, -203.517
1.988, -1, -49.3622, 3.78906, -28.1272, -127.42, -67.1265, 130.631, 43.6198, 16.7258, -122.548, -74.1023, 45.2236, -203.35
1.992, -1, -49.3847, 3.79346, -28.2089, -127.406, -67.1271, 130.617, 43.5323, 16.7154, -122.497, -74.1371, 45.2332, -203.183
1.996, -1, -49.4072, 3.79785, -28.2907, -127.392, -67.1277, 130.603, 43.4449, 16.7051, -122.446, -74.172, 45.2429, -203.016
1.999, -1, -49.4298, 3.80225, -28.3725, -127.378, -67.1283, 130.59, 43.3574, 16.6947, -122.395, -74.2068, 45.2525, -202.849
2.004, -1, -49.4523, 3.80665, -28.4544, -127.365, -67.1289, 130.576, 43.2699, 16.6844, -122.344, -74.2416, 45.2621, -202.682
2.008, -1, -49.4749, 3.81105, -28.5362, -127.351, -67.1295, 130.563, 43.1824, 16.674, -122.293, -74.2764, 45.2718, -202.515
2.012, -1, -49.4974, 3.81544, -28.6181, -127.337, -67.13, 130.549, 43.0948, 16.6637, -122.242, -74.3113, 45.2814, -202.348
2.015, -1, -49.52, 3.81984, -28.7, -127.323, -67.1306, 130.535, 43.0073, 16.6533, -122.191, -74.3461, 45.2911, -202.181
2.019, -1, -49.5425, 3.82424, -28.7819, -127.309, -67.1312, 130.522, 42.9197, 16.6429, -122.139, -74.381, 45.3007, -202.014
2.024, -1, -49.5651, 3.82865, -28.8638, -127.295, -67.1318, 130.508, 42.8321, 16.6326, -122.088, -74.4159, 45.3104, -201.847
2.028, -1, -49.5876, 3.83305, -28.9457, -127.281, -67.1324, 130.494, 42.7445, 16.6222, -122.037, -74.4507, 45.32, -201.68
2.031, -1, -49.6102, 3.83745, -29.0277, -127.267, -67.133, 130.481, 42.6569, 16.6118, -121.986, -74.4856, 45.3297, -201.512
2.036, -1, -49.6328, 3.84186, -29.1096, -127.253, -67.1335, 130.467, 42.5693, 16.6014, -121.935, -74.5205, 45.3393, -201.345
2.04, -1, -49.6554, 3.84626, -29.1916, -127.24, -67.1341, 130.454, 42.4816, 16.5911, -121.884, -74.5554, 45.349, -201.178
2.044, -1, -49.6779, 3.85067, -29.2736, -127.226, -67.1347, 130.44, 42.3939, 16.5807, -121.832, -74.5903, 45.3586, -201.011
2.048, -1, -49.7005, 3.85507, -29.3557, -127.212, -67.1353, 130.426, 42.3062, 16.5703, -121.781, -74.6252, 45.3683, -200.843
2.051, -1, -49.7231, 3.85948, -29.4377, -127.198, -67.1359, 130.413, 42.2185, 16.5599, -121.73, -74.6601, 45.378, -200.676
2.055, -1, -49.7457, 3.86389, -29.5197, -127.184, -67.1365, 130.399, 42.1308, 16.5495, -121.679, -74.695, 45.3876, -200.508
2.06, -1, -49.7683, 3.8683, -29.6018, -127.17, -67.1371, 130.385, 42.043, 16.5391, -121.627, -74.73, 45.3973, -200.341
2.064, -1, -49.7909, 3.87271, -29.6839, -127.156, -67.1376, 130.372, 41.9552, 16.5287, -121.576, -74.7649, 45.407, -200.173
2.068, -1, -49.8135, 3.87712, -29.766, -127.142, -67.1382, 130.358, 41.8675, 16.5183, -121.525, -74.7998, 45.4166, -200.006
2.071, -1, -49.8362, 3.88153, -29.8481, -127.128, -67.1388, 130.344, 41.7797, 16.508, -121.474, -74.8348, 45.4263, -199.838
2.076, -1, -49.8588, 3.88595, -29.9303, -127.114, -67.1394, 130.331, 41.6918, 16.4976, -121.422, -74.8698, 45.436, -199.671
2.08, -1, -49.8814, 3.89036, -30.0124, -127.1, -67.14, 130.317, 41.604, 16.4872, -121.371, -74.9047, 45.4457, -199.503
2.084, -1, -49.904, 3.89478, -30.0946, -127.086, -67.1406, 130.303, 41.5161, 16.4768, -121.32, -74.9397, 45.4554, -199.335
2.087, -1, -49.9267, 3.89919, -30.1768, -127.073, -67.1412, 130.29, 41.4282, 16.4664, -121.268, -74.9747, 45.465, -199.168
2.092, -1, -49.9493, 3.90361, -30.259, -127.059, -67.1417, 130.276, 41.3403, 16.4559, -121.217, -75.0097, 45.4747, -199
2.096, -1, -49.972, 3.90803, -30.3412, -127.045, -67.1423, 130.262, 41.2524, 16.4455, -121.166, -75.0447, 45.4844, -198.832
2.1, -1, -49.9946, 3.91245, -30.4235, -127.031, -67.1429, 130.249, 41.1645, 16.4351, -121.114, -75.0797, 45.4941, -198.664
2.104, -1, -50.0173, 3.91687, -30.5057, -127.017, -67.1435, 130.235, 41.0765, 16.4247, -121.063, -75.1147, 45.5038, -198.496
2.107, -1, -50.0399, 3.92129, -30.588, -127.003, -67.1441, 130.221, 40.9885, 16.4143, -121.012, -75.1497, 45.5135, -198.328
2.111, -1, -50.0626, 3.92571, -30.6703, -126.989, -67.1447, 130.208, 40.9005, 16.4039, -120.96, -75.1847, 45.5232, -198.16
2.116, -1, -50.0853, 3.93013, -30.7526, -126.975, -67.1453, 130.194, 40.8125, 16.3935, -120.909, -75.2198, 45.5329, -197.992
2.12, -1, -50.1079, 3.93456, -30.835, -126.961, -67.1458, 130.18, 40.7245, 16.383, -120.857, -75.2548, 45.5426, -197.824
2.124, -1, -50.1306, 3.93898, -30.9173, -126.947, -67.1464, 130.166, 40.6364, 16.3726, -120.806, -75.2898, 45.5523, -197.656
2.127, -1, -50.1533, 3.94341, -30.9997, -126.933, -67.147, 130.153, 40.5484, 16.3622, -120.754, -75.3249, 45.562, -197.488
2.132, -1, -50.176, 3.94783, -31.0821, -126.919, -67.1476, 130.139, 40.4603, 16.3518, -120.703, -75.36, 45.5717, -197.32
2.136, -1, -50.1987, 3.95226, -31.1645, -126.905, -67.1482, 130.125, 40.3722, 16.3413, -120.652, -75.395, 45.5814, -197.152
2.14, -1, -50.2214, 3.95669, -31.2469, -126.891, -67.1488, 130.112, 40.284, 16.3309, -120.6, -75.4301, 45.5911, -196.984
2.143, -1, -50.2441, 3.96112, -31.3293, -126.877, -67.1494, 130.098, 40.1959, 16.3205, -120.549, -75.4652, 45.6008, -196.816
2.148, -1, -50.2668, 3.96555, -31.4118, -126.863, -67.15, 130.084, 40.1077, 16.31, -120.497, -75.5003, 45.6105, -196.647
2.152, -1, -50.2895, 3.96998, -31.4943, -126.849, -67.1506, 130.07, 40.0195, 16.2996, -120.446, -75.5354, 45.6202, -196.479
2.156, -1, -50.3122, 3.97441, -31.5768, -126.835, -67.1511, 130.057, 39.9313, 16.2891, -120.394, -75.5705, 45.63, -196.311
2.16, -1, -50.335, 3.97885, -31.6593, -126.821, -67.1517, 130.043, 39.8431, 16.2787, -120.343, -75.6056, 45.6397, -196.142
2.163, -1, -50.3577, 3.98328, -31.7418, -126.807, -67.1523, 130.029, 39.7549, 16.2682, -120.291, -75.6408, 45.6494, -195.974
2.168, -1, -50.3804, 3.98772, -31.8244, -126.793, -67.1529, 130.016, 39.6666, 16.2578, -120.239, -75.6759, 45.6591, -195.805
2.172, -1, -50.4032, 3.99215, -31.9069, -126.779, -67.1535, 130.002, 39.5783, 16.2473, -120.188, -75.711, 45.6688, -195.637
2.176, -1, -50.4259, 3.99659, -31.9895, -126.765, -67.1541, 129.988, 39.49, 16.2369, -120.136, -75.7462, 45.6786, -195.468
2.179, -1, -50.4487, 4.00103, -32.0721, -126.751, -67.1547, 129.974, 39.4017, 16.2264, -120.085, -75.7813, 45.6883, -195.3
2.184, -1, -50.4714, 4.00547, -32.1547, -126.737, -67.1553, 129.961, 39.3134, 16.216, -120.033, -75.8165, 45.698, -195.131
2.188, -1, -50.4942, 4.00991, -32.2374, -126.723, -67.1558, 129.947, 39.225, 16.2055, -119.982, -75.8517, 45.7078, -194.963
2.192, -1, -50.5169, 4.01435, -32.32, -126.709, -67.1564, 129.933, 39.1366, 16.1951, -119.93, -75.8868, 45.7175, -194.794
2.196, -1, -50.5397, 4.01879, -32.4027, -126.695, -67.157, 129.919, 39.0482, 16.1846, -119.878, -75.922, 45.7272, -194.625
2.199, -1, -50.5625, 4.02324, -32.4854, -126.681, -67.1576, 129.906, 38.9598, 16.1741, -119.827, -75.9572, 45.737, -194.457
2.204, -1, -50.5852, 4.02768, -32.5681, -126.667, -67.1582, 129.892, 38.8714, 16.1637, -119.775, -75.9924, 45.7467, -194.288
2.208, -1, -50.608, 4.03212, -32.6508, -126.653, -67.1588, 129.878, 38.7829, 16.1532, -119.723, -76.0276, 45.7565, -194.119
2.212, -1, -50.6308, 4.03657, -32.7336, -126.639, -67.1594, 129.864, 38.6944, 16.1427, -119.672, -76.0629, 45.7662, -193.95
2.216, -1, -50.6536, 4.04102, -32.8163, -126.625, -67.16, 129.851, 38.6059, 16.1322, -119.62, -76.0981, 45.776, -193.781
2.219, -1, -50.6764, 4.04547, -32.8991, -126.611, -67.1606, 129.837, 38.5174, 16.1217, -119.568, -76.1333, 45.7857, -193.612
2.224, -1, -50.6992, 4.04991, -32.9819, -126.597, -67.1611, 129.823, 38.4289, 16.1113, -119.517, -76.1686, 45.7955, -193.443
2.228, -1, -50.722, 4.05436, -33.0647, -126.583, -67.1617, 129.809, 38.3404, 16.1008, -119.465, -76.2038, 45.8052, -193.274
2.232, -1, -50.7448, 4.05882, -33.1476, -126.569, -67.1623, 129.795, 38.2518, 16.0903, -119.413, -76.2391, 45.815, -193.105
2.235, -1, -50.7677, 4.06327, -33.2304, -126.555, -67.1629, 129.782, 38.1632, 16.0798, -119.361, -76.2743, 45.8248, -192.936
2.24, -1, -50.7905, 4.06772, -33.3133, -126.541, -67.1635, 129.768, 38.0746, 16.0693, -119.31, -76.3096, 45.8345, -192.767
2.244, -1, -50.8133, 4.07217, -33.3962, -126.527, -67.1641, 129.754, 37.9859, 16.0588, -119.258, -76.3449, 45.8443, -192.598
2.248, -1, -50.8361, 4.07663, -33.4791, -126.513, -67.1647, 129.74, 37.8973, 16.0483, -119.206, -76.3802, 45.8541, -192.429
2.252, -1, -50.859, 4.08109, -33.562, -126.498, -67.1653, 129.726, 37.8086, 16.0378, -119.154, -76.4155, 45.8638, -192.26
2.255, -1, -50.8818, 4.08554, -33.645, -126.484, -67.1659, 129.713, 37.7199, 16.0273, -119.103, -76.4508, 45.8736, -192.09
2.259, -1, -50.9047, 4.09, -33.7279, -126.47, -67.1665, 129.699, 37.6312, 16.0168, -119.051, -76.4861, 45.8834, -191.921
2.264, -1, -50.9275, 4.09446, -33.8109, -126.456, -67.1671, 129.685, 37.5425, 16.0063, -118.999, -76.5214, 45.8931, -191.752
2.268, -1, -50.9504, 4.09892, -33.8939, -126.442, -67.1676, 129.671, 37.4538, 15.9958, -118.947, -76.5567, 45.9029, -191.582
2.272, -1, -50.9732, 4.10338, -33.9769, -126.428, -67.1682, 129.657, 37.365, 15.9853, -118.895, -76.5921, 45.9127, -191.413
2.275, -1, -50.9961, 4.10784, -34.06, -126.414, -67.1688, 129.644, 37.2762, 15.9748, -118.843, -76.6274, 45.9225, -191.243
2.28, -1, -51.019, 4.1123, -34.143, -126.4, -67.1694, 129.63, 37.1874, 15.9643, -118.792, -76.6627, 45.9323, -191.074
2.284, -1, -51.0419, 4.11677, -34.2261, -126.386, -67.17, 129.616, 37.0986, 15.9538, -118.74, -76.6981, 45.942, -190.904
2.288, -1, -51.0648, 4.12123, -34.3092, -126.372, -67.1706, 129.602, 37.0097, 15.9433, -118.688, -76.7335, 45.9518, -190.735
2.291, -1, -51.0876, 4.1257, -34.3923, -126.358, -67.1712, 129.588, 36.9208, 15.9327, -118.636, -76.7688, 45.9616, -190.565
2.296, -1, -51.1105, 4.13016, -34.4754, -126.344, -67.1718, 129.574, 36.832, 15.9222, -118.584, -76.8042, 45.9714, -190.396
2.3, -1, -51.1334, 4.13463, -34.5586, -126.329, -67.1724, 129.561, 36.7431, 15.9117, -118.532, -76.8396, 45.9812, -190.226
2.304, -1, -51.1563, 4.1391, -34.6418, -126.315, -67.173, 129.547, 36.6541, 15.9012, -118.48, -76.875, 45.991, -190.056
2.308, -1, -51.1792, 4.14357, -34.725, -126.301, -67.1736, 129.533, 36.5652, 15.8906, -118.428, -76.9104, 46.0008, -189.886
2.311, -1, -51.2022, 4.14804, -34.8082, -126.287, -67.1742, 129.519, 36.4762, 15.8801, -118.376, -76.9458, 46.0106, -189.717
2.316, -1, -51.2251, 4.15251, -34.8914, -126.273, -67.1748, 129.505, 36.3872, 15.8696, -118.324, -76.9812, 46.0204, -189.547
2.32, -1, -51.248, 4.15699, -34.9746, -126.259, -67.1754, 129.491, 36.2982, 15.859, -118.272, -77.0167, 46.0302, -189.377
2.324, -1, -51.2709, 4.16146, -35.0579, -126.245, -67.1759, 129.478, 36.2092, 15.8485, -118.22, -77.0521, 46.04, -189.207
2.328, -1, -51.2939, 4.16593, -35.1412, -126.231, -67.1765, 129.464, 36.1202, 15.8379, -118.168, -77.0876, 46.0498, -189.037
2.331, -1, -51.3168, 4.17041, -35.2245, -126.217, -67.1771, 129.45, 36.0311, 15.8274, -118.116, -77.123, 46.0597, -188.867
2.336, -1, -51.3398, 4.17488, -35.3078, -126.202, -67.1777, 129.436, 35.942, 15.8169, -118.064, -77.1585, 46.0695, -188.697
2.34, -1, -51.3627, 4.17936, -35.3911, -126.188, -67.1783, 129.422, 35.8529, 15.8063, -118.012, -77.1939, 46.0793, -188.527
2.344, -1, -51.3857, 4.18384, -35.4745, -126.174, -67.1789, 129.408, 35.7638, 15.7958, -117.96, -77.2294, 46.0891, -188.357
2.347, -1, -51.4086, 4.18832, -35.5578, -126.16, -67.1795, 129.394, 35.6746, 15.7852, -117.908, -77.2649, 46.0989, -188.187
2.352, -1, -51.4316, 4.1928, -35.6412, -126.146, -67.1801, 129.381, 35.5855, 15.7746, -117.856, -77.3004, 46.1088, -188.017
2.356, -1, -51.4546, 4.19728, -35.7246, -126.132, -67.1807, 129.367, 35.4963, 15.7641, -117.804, -77.3359, 46.1186, -187.846
2.36, -1, -51.4775, 4.20177, -35.8081, -126.118, -67.1813, 129.353, 35.4071, 15.7535, -117.752, -77.3714, 46.1284, -187.676
2.364, -1, -51.5005, 4.20625, -35.8915, -126.103, -67.1819, 129.339, 35.3178, 15.743, -117.7, -77.4069, 46.1382, -187.506
2.367, -1, -51.5235, 4.21073, -35.975, -126.089, -67.1825, 129.325, 35.2286, 15.7324, -117.648, -77.4424, 46.1481, -187.336
2.372, -1, -51.5465, 4.21522, -36.0585, -126.075, -67.1831, 129.311, 35.1393, 15.7218, -117.595, -77.478, 46.1579, -187.165
2.376, -1, -51.5695, 4.21971, -36.142, -126.061, -67.1837, 129.297, 35.05, 15.7113, -117.543, -77.5135, 46.1677, -186.995
2.38, -1, -51.5925, 4.2242, -36.2255, -126.047, -67.1843, 129.283, 34.9607, 15.7007, -117.491, -77.5491, 46.1776, -186.824
2.383, -1, -51.6155, 4.22868, -36.3091, -126.033, -67.1849, 129.269, 34.8714, 15.6901, -117.439, -77.5846, 46.1874, -186.654
2.388, -1, -51.6385, 4.23317, -36.3926, -126.019, -67.1855, 129.256, 34.782, 15.6795, -117.387, -77.6202, 46.1973, -186.483
2.392, -1, -51.6616, 4.23767, -36.4762, -126.004, -67.1861, 129.242, 34.6927, 15.6689, -117.334, -77.6558, 46.2071, -186.313
2.396, -1, -51.6846, 4.24216, -36.5598, -125.99, -67.1867, 129.228, 34.6033, 15.6584, -117.282, -77.6913, 46.217, -186.142
2.4, -1, -51.7076, 4.24665, -36.6435, -125.976, -67.1873, 129.214, 34.5139, 15.6478, -117.23, -77.7269, 46.2268, -185.972
2.403, -1, -51.7306, 4.25115, -36.7271, -125.962, -67.1879, 129.2, 34.4244, 15.6372, -117.178, -77.7625, 46.2367, -185.801
2.408, -1, -51.7537, 4.25564, -36.8108, -125.948, -67.1884, 129.186, 34.335, 15.6266, -117.126, -77.7981, 46.2465, -185.63
2.412, -1, -51.7767, 4.26014, -36.8944, -125.933, -67.189, 129.172, 34.2455, 15.616, -117.073, -77.8338, 46.2564, -185.459
2.416, -1, -51.7998, 4.26464, -36.9781, -125.919, -67.1896, 129.158, 34.156, 15.6054, -117.021, -77.8694, 46.2662, -185.289
2.42, -1, -51.8228, 4.26913, -37.0619, -125.905, -67.1902, 129.144, 34.0665, 15.5948, -116.969, -77.905, 46.2761, -185.118
2.423, -1, -51.8459, 4.27363, -37.1456, -125.891, -67.1908, 129.13, 33.9769, 15.5842, -116.916, -77.9407, 46.286, -184.947
2.428, -1, -51.869, 4.27813, -37.2294, -125.877, -67.1914, 129.116, 33.8874, 15.5736, -116.864, -77.9763, 46.2958, -184.776
2.432, -1, -51.892, 4.28264, -37.3131, -125.862, -67.192, 129.102, 33.7978, 15.563, -116.812, -78.012, 46.3057, -184.605
2.436, -1, -51.9151, 4.28714, -37.3969, -125.848, -67.1926, 129.088, 33.7082, 15.5524, -116.76, -78.0476, 46.3156, -184.434
2.439, -1, -51.9382, 4.29164, -37.4808, -125.834, -67.1932, 129.074, 33.6186, 15.5418, -116.707, -78.0833, 46.3255, -184.263
2.444, -1, -51.9613, 4.29615, -37.5646, -125.82, -67.1938, 129.061, 33.5289, 15.5312, -116.655, -78.119, 46.3353, -184.092
2.448, -1, -51.9844, 4.30065, -37.6485, -125.806, -67.1944, 129.047, 33.4393, 15.5206, -116.602, -78.1547, 46.3452, -183.921
2.452, -1, -52.0075, 4.30516, -37.7323, -125.791, -67.195, 129.033, 33.3496, 15.5099, -116.55, -78.1904, 46.3551, -183.75
2.456, -1, -52.0306, 4.30967, -37.8162, -125.777, -67.1956, 129.019, 33.2599, 15.4993, -116.498, -78.2261, 46.365, -183.578
2.459, -1, -52.0537, 4.31418, -37.9002, -125.763, -67.1962, 129.005, 33.1701, 15.4887, -116.445, -78.2618, 46.3749, -183.407
2.464, -1, -52.0768, 4.31869, -37.9841, -125.749, -67.1968, 128.991, 33.0804, 15.4781, -116.393, -78.2975, 46.3847, -183.236
2.468, -1, -52.0999, 4.3232, -38.068, -125.734, -67.1974, 128.977, 32.9906, 15.4675, -116.34, -78.3333, 46.3946, -183.065
2.472, -1, -52.1231, 4.32771, -38.152, -125.72, -67.198, 128.963, 32.9008, 15.4568, -116.288, -78.369, 46.4045, -182.893
2.476, -1, -52.1462, 4.33222, -38.236, -125.706, -67.1986, 128.949, 32.811, 15.4462, -116.236, -78.4047, 46.4144, -182.722
2.479, -1, -52.1693, 4.33674, -38.32, -125.692, -67.1992, 128.935, 32.7212, 15.4356, -116.183, -78.4405, 46.4243, -182.55
2.484, -1, -52.1925, 4.34125, -38.4041, -125.677, -67.1998, 128.921, 32.6313, 15.4249, -116.131, -78.4763, 46.4342, -182.379
2.488, -1, -52.2156, 4.34577, -38.4881, -125.663, -67.2004, 128.907, 32.5415, 15.4143, -116.078, -78.512, 46.4441, -182.207
2.492, -1, -52.2388, 4.35029, -38.5722, -125.649, -67.201, 128.893, 32.4516, 15.4036, -116.026, -78.5478, 46.454, -182.036
2.495, -1, -52.2619, 4.3548, -38.6563, -125.635, -67.2016, 128.879, 32.3616, 15.393, -115.973, -78.5836, 46.4639, -181.864
2.5, -1, -52.2851, 4.35932, -38.7404, -125.62, -67.2022, 128.865, 32.2717, 15.3823, -115.921, -78.6194, 46.4738, -181.693
2.504, -1, -52.3083, 4.36384, -38.8245, -125.606, -67.2028, 128.851, 32.1817, 15.3717, -115.868, -78.6552, 46.4837, -181.521
2.508, -1, -52.3315, 4.36837, -38.9087, -125.592, -67.2034, 128.837, 32.0918, 15.361, -115.816, -78.691, 46.4937, -181.349
2.512, -1, -52.3546, 4.37289, -38.9929, -125.578, -67.204, 128.823, 32.0018, 15.3504, -115.763, -78.7269, 46.5036, -181.177
2.515, -1, -52.3778, 4.37741, -39.077, -125.563, -67.2046, 128.809, 31.9117, 15.3397, -115.71, -78.7627, 46.5135, -181.006
2.52, -1, -52.401, 4.38194, -39.1613, -125.549, -67.2052, 128.795, 31.8217, 15.3291, -115.658, -78.7985, 46.5234, -180.834
2.524, -1, -52.4242, 4.38646, -39.2455, -125.535, -67.2058, 128.781, 31.7316, 15.3184, -115.605, -78.8344, 46.5333, -180.662
2.528, -1, -52.4474, 4.39099, -39.3297, -125.52, -67.2064, 128.767, 31.6415, 15.3077, -115.553, -78.8703, 46.5433, -180.49
2.531, -1, -52.4706, 4.39552, -39.414, -125.506, -67.207, 128.753, 31.5514, 15.2971, -115.5, -78.9061, 46.5532, -180.318
2.536, -1, -52.4938, 4.40005, -39.4983, -125.492, -67.2076, 128.739, 31.4613, 15.2864, -115.447, -78.942, 46.5631, -180.146
2.54, -1, -52.5171, 4.40458, -39.5826, -125.478, -67.2082, 128.725, 31.3712, 15.2757, -115.395, -78.9779, 46.5731, -179.974
2.544, -1, -52.5403, 4.40911, -39.667, -125.463, -67.2088, 128.711, 31.281, 15.2651, -115.342, -79.0138, 46.583, -179.802
2.548, -1, -52.5635, 4.41364, -39.7513, -125.449, -67.2094, 128.697, 31.1908, 15.2544, -115.289, -79.0497, 46.5929, -179.63
2.551, -1, -52.5867, 4.41818, -39.8357, -125.435, -67.21, 128.683, 31.1006, 15.2437, -115.237, -79.0856, 46.6029, -179.457
2.556, -1, -52.61, 4.42271, -39.9201, -125.42, -67.2106, 128.669, 31.0103, 15.233, -115.184, -79.1215, 46.6128, -179.285
2.56, -1, -52.6332, 4.42725, -40.0045, -125.406, -67.2112, 128.655, 30.9201, 15.2223, -115.131, -79.1574, 46.6227, -179.113
2.564, -1, -52.6565, 4.43179, -40.0889, -125.392, -67.2118, 128.641, 30.8298, 15.2116, -115.078, -79.1934, 46.6327, -178.941
2.568, -1, -52.6797, 4.43632, -40.1734, -125.377, -67.2124, 128.627, 30.7395, 15.201, -115.026, -79.2293, 46.6426, -178.768
2.571, -1, -52.703, 4.44086, -40.2578, -125.363, -67.213, 128.612, 30.6492, 15.1903, -114.973, -79.2653, 46.6526, -178.596
2.576, -1, -52.7263, 4.4454, -40.3423, -125.349, -67.2136, 128.598, 30.5588, 15.1796, -114.92, -79.3012, 46.6625, -178.424
2.58, -1, -52.7495, 4.44994, -40.4268, -125.334, -67.2142, 128.584, 30.4685, 15.1689, -114.867, -79.3372, 46.6725, -178.251
2.584, -1, -52.7728, 4.45448, -40.5114, -125.32, -67.2148, 128.57, 30.3781, 15.1582, -114.815, -79.3732, 46.6825, -178.079
2.587, -1, -52.7961, 4.45903, -40.5959, -125.306, -67.2154, 128.556, 30.2877, 15.1475, -114.762, -79.4092, 46.6924, -177.906
2.592, -1, -52.8194, 4.46357, -40.6805, -125.291, -67.216, 128.542, 30.1973, 15.1368, -114.709, -79.4451, 46.7024, -177.734
2.596, -1, -52.8427, 4.46812, -40.7651, -125.277, -67.2166, 128.528, 30.1068, 15.126, -114.656, -79.4811, 46.7123, -177.561
2.6, -1, -52.866, 4.47266, -40.8497, -125.263, -67.2172, 128.514, 30.0163, 15.1153, -114.603, -79.5172, 46.7223, -177.388
2.604, -1, -52.8893, 4.47721, -40.9343, -125.248, -67.2178, 128.5, 29.9258, 15.1046, -114.551, -79.5532, 46.7323, -177.216
2.607, -1, -52.9126, 4.48176, -41.019, -125.234, -67.2185, 128.486, 29.8353, 15.0939, -114.498, -79.5892, 46.7423, -177.043
2.612, -1, -52.9359, 4.48631, -41.1037, -125.22, -67.2191, 128.472, 29.7448, 15.0832, -114.445, -79.6252, 46.7522, -176.87
2.616, -1, -52.9593, 4.49086, -41.1884, -125.205, -67.2197, 128.458, 29.6542, 15.0725, -114.392, -79.6613, 46.7622, -176.697
2.62, -1, -52.9826, 4.49541, -41.2731, -125.191, -67.2203, 128.444, 29.5636, 15.0617, -114.339, -79.6973, 46.7722, -176.524
2.624, -1, -53.0059, 4.49996, -41.3578, -125.177, -67.2209, 128.429, 29.473, 15.051, -114.286, -79.7334, 46.7822, -176.351
2.627, -1, -53.0293, 4.50452, -41.4426, -125.162, -67.2215, 128.415, 29.3824, 15.0403, -114.233, -79.7695, 46.7922, -176.178
2.632, -1, -53.0526, 4.50907, -41.5273, -125.148, -67.2221, 128.401, 29.2918, 15.0296, -114.18, -79.8056, 46.8021, -176.005
2.636, -1, -53.076, 4.51363, -41.6121, -125.133, -67.2227, 128.387, 29.2011, 15.0188, -114.127, -79.8417, 46.8121, -175.832
2.64, -1, -53.0993, 4.51819, -41.697, -125.119, -67.2233, 128.373, 29.1104, 15.0081, -114.074, -79.8778, 46.8221, -175.659
2.643, -1, -53.1227, 4.52274, -41.7818, -125.105, -67.2239, 128.359, 29.0197, 14.9974, -114.021, -79.9139, 46.8321, -175.486
2.648, -1, -53.1461, 4.5273, -41.8667, -125.09, -67.2245, 128.345, 28.929, 14.9866, -113.968, -79.95, 46.8421, -175.313
2.652, -1, -53.1695, 4.53186, -41.9515, -125.076, -67.2251, 128.331, 28.8382, 14.9759, -113.915, -79.9861, 46.8521, -175.14
2.656, -1, -53.1928, 4.53643, -42.0364, -125.062, -67.2257, 128.317, 28.7474, 14.9651, -113.862, -80.0222, 46.8621, -174.967
2.66, -1, -53.2162, 4.54099, -42.1214, -125.047, -67.2263, 128.302, 28.6566, 14.9544, -113.809, -80.0584, 46.8721, -174.793
2.663, -1, -53.2396, 4.54555, -42.2063, -125.033, -67.2269, 128.288, 28.5658, 14.9436, -113.756, -80.0945, 46.8821, -174.62
2.668, -1, -53.263, 4.55012, -42.2913, -125.018, -67.2275, 128.274, 28.4749, 14.9329, -113.703, -80.1307, 46.8921, -174.447
2.672, -1, -53.2864, 4.55468, -42.3763, -125.004, -67.2281, 128.26, 28.3841, 14.9221, -113.65, -80.1669, 46.9021, -174.273
2.676, -1, -53.3098, 4.55925, -42.4613, -124.989, -67.2287, 128.246, 28.2932, 14.9113, -113.597, -80.2031, 46.9122, -174.1
2.679, -1, -53.3332, 4.56382, -42.5463, -124.975, -67.2293, 128.232, 28.2023, 14.9006, -113.544, -80.2392, 46.9222, -173.926
2.684, -1, -53.3567, 4.56839, -42.6313, -124.961, -67.2299, 128.218, 28.1113, 14.8898, -113.491, -80.2754, 46.9322, -173.753
2.688, -1, -53.3801, 4.57296, -42.7164, -124.946, -67.2306, 128.203, 28.0204, 14.879, -113.438, -80.3116, 46.9422, -173.579
2.692, -1, -53.4035, 4.57753, -42.8015, -124.932, -67.2312, 128.189, 27.9294, 14.8683, -113.385, -80.3479, 46.9522, -173.405
2.696, -1, -53.427, 4.58211, -42.8866, -124.917, -67.2318, 128.175, 27.8384, 14.8575, -113.331, -80.3841, 46.9623, -173.232
2.699, -1, -53.4504, 4.58668, -42.9717, -124.903, -67.2324, 128.161, 27.7474, 14.8467, -113.278, -80.4203, 46.9723, -173.058
2.704, -1, -53.4739, 4.59126, -43.0569, -124.888, -67.233, 128.147, 27.6563, 14.8359, -113.225, -80.4566, 46.9823, -172.884
2.708, -1, -53.4973, 4.59583, -43.1421, -124.874, -67.2336, 128.133, 27.5652, 14.8252, -113.172, -80.4928, 46.9924, -172.71
2.712, -1, -53.5208, 4.60041, -43.2272, -124.86, -67.2342, 128.118, 27.4741, 14.8144, -113.119, -80.5291, 47.0024, -172.537
2.716, -1, -53.5443, 4.60499, -43.3125, -124.845, -67.2348, 128.104, 27.383, 14.8036, -113.065, -80.5653, 47.0124, -172.363
2.719, -1, -53.5677, 4.60957, -43.3977, -124.831, -67.2354, 128.09, 27.2919, 14.7928, -113.012, -80.6016, 47.0225, -172.189
2.724, -1, -53.5912, 4.61415, -43.483, -124.816, -67.236, 128.076, 27.2007, 14.782, -112.959, -80.6379, 47.0325, -172.015
2.728, -1, -53.6147, 4.61873, -43.5682, -124.802, -67.2366, 128.062, 27.1096, 14.7712, -112.906, -80.6742, 47.0426, -171.841
2.732, -1, -53.6382, 4.62331, -43.6535, -124.787, -67.2372, 128.048, 27.0183, 14.7604, -112.852, -80.7105, 47.0526, -171.667
2.735, -1, -53.6617, 4.6279, -43.7389, -124.773, -67.2378, 128.033, 26.9271, 14.7496, -112.799, -80.7468, 47.0627, -171.493
2.74, -1, -53.6852, 4.63248, -43.8242, -124.758, -67.2384, 128.019, 26.8359, 14.7388, -112.746, -80.7831, 47.0727, -171.318
2.744, -1, -53.7087, 4.63707, -43.9096, -124.744, -67.2391, 128.005, 26.7446, 14.728, -112.693, -80.8195, 47.0828, -171.144
2.748, -1, -53.7322, 4.64166, -43.9949, -124.729, -67.2397, 127.991, 26.6533, 14.7172, -112.639, -80.8558, 47.0928, -170.97
2.752, -1, -53.7557, 4.64625, -44.0803, -124.715, -67.2403, 127.976, 26.562, 14.7064, -112.586, -80.8922, 47.1029, -170.796
2.755, -1, -53.7793, 4.65084, -44.1658, -124.7, -67.2409, 127.962, 26.4706, 14.6956, -112.533, -80.9285, 47.113, -170.621
2.76, -1, -53.8028, 4.65543, -44.2512, -124.686, -67.2415, 127.948, 26.3793, 14.6848, -112.479, -80.9649, 47.123, -170.447
2.764, -1, -53.8263, 4.66002, -44.3367, -124.671, -67.2421, 127.934, 26.2879, 14.6739, -112.426, -81.0013, 47.1331, -170.273
2.768, -1, -53.8499, 4.66462, -44.4222, -124.657, -67.2427, 127.92, 26.1965, 14.6631, -112.372, -81.0376, 47.1432, -170.098
2.772, -1, -53.8734, 4.66921, -44.5077, -124.642, -67.2433, 127.905, 26.105, 14.6523, -112.319, -81.074, 47.1532, -169.924
2.775, -1, -53.897, 4.67381, -44.5932, -124.628, -67.2439, 127.891, 26.0136, 14.6415, -112.266, -81.1104, 47.1633, -169.749
2.78, -1, -53.9205, 4.6784, -44.6788, -124.613, -67.2445, 127.877, 25.9221, 14.6306, -112.212, -81.1469, 47.1734, -169.575
2.784, -1, -53.9441, 4.683, -44.7643, -124.599, -67.2452, 127.863, 25.8306, 14.6198, -112.159, -81.1833, 47.1835, -169.4
2.788, -1, -53.9677, 4.6876, -44.8499, -124.584, -67.2458, 127.848, 25.7391, 14.609, -112.105, -81.2197, 47.1935, -169.225
2.791, -1, -53.9913, 4.6922, -44.9356, -124.57, -67.2464, 127.834, 25.6475, 14.5981, -112.052, -81.2561, 47.2036, -169.051
2.796, -1, -54.0148, 4.6968, -45.0212, -124.555, -67.247, 127.82, 25.556, 14.5873, -111.998, -81.2926, 47.2137, -168.876
2.8, -1, -54.0384, 4.7014, -45.1069, -124.541, -67.2476, 127.806, 25.4644, 14.5764, -111.945, -81.329, 47.2238, -168.701
2.804, -1, -54.062, 4.70601, -45.1925, -124.526, -67.2482, 127.791, 25.3728, 14.5656, -111.891, -81.3655, 47.2339, -168.526
2.808, -1, -54.0856, 4.71061, -45.2782, -124.512, -67.2488, 127.777, 25.2811, 14.5547, -111.838, -81.402, 47.244, -168.351
2.811, -1, -54.1092, 4.71522, -45.364, -124.497, -67.2494, 127.763, 25.1895, 14.5439, -111.784, -81.4385, 47.2541, -168.176
2.816, -1, -54.1329, 4.71983, -45.4497, -124.483, -67.25, 127.749, 25.0978, 14.533, -111.731, -81.475, 47.2642, -168.001
2.82, -1, -54.1565, 4.72443, -45.5355, -124.468, -67.2506, 127.734, 25.0061, 14.5222, -111.677, -81.5115, 47.2743, -167.826
2.824, -1, -54.1801, 4.72904, -45.6213, -124.454, -67.2513, 127.72, 24.9143, 14.5113, -111.624, -81.548, 47.2844, -167.651
2.828, -1, -54.2037, 4.73365, -45.7071, -124.439, -67.2519, 127.706, 24.8226, 14.5005, -111.57, -81.5845, 47.2945, -167.476
2.831, -1, -54.2274, 4.73827, -45.7929, -124.425, -67.2525, 127.692, 24.7308, 14.4896, -111.516, -81.621, 47.3046, -167.301
2.836, -1, -54.251, 4.74288, -45.8787, -124.41, -67.2531, 127.677, 24.639, 14.4787, -111.463, -81.6576, 47.3147, -167.126
2.84, -1, -54.2747, 4.74749, -45.9646, -124.395, -67.2537, 127.663, 24.5472, 14.4679, -111.409, -81.6941, 47.3249, -166.951
2.844, -1, -54.2983, 4.75211, -46.0505, -124.381, -67.2543, 127.649, 24.4554, 14.457, -111.356, -81.7307, 47.335, -166.775
2.847, -1, -54.322, 4.75672, -46.1364, -124.366, -67.2549, 127.634, 24.3635, 14.4461, -111.302, -81.7672, 47.3451, -166.6
2.852, -1, -54.3456, 4.76134, -46.2224, -124.352, -67.2555, 127.62, 24.2716, 14.4352, -111.248, -81.8038, 47.3552, -166.425
2.856, -1, -54.3693, 4.76596, -46.3083, -124.337, -67.2562, 127.606, 24.1797, 14.4244, -111.195, -81.8404, 47.3653, -166.249
2.86, -1, -54.393, 4.77058, -46.3943, -124.323, -67.2568, 127.592, 24.0878, 14.4135, -111.141, -81.877, 47.3755, -166.074
2.864, -1, -54.4167, 4.7752, -46.4803, -124.308, -67.2574, 127.577, 23.9958, 14.4026, -111.087, -81.9136, 47.3856, -165.898
2.867, -1, -54.4404, 4.77983, -46.5663, -124.293, -67.258, 127.563, 23.9038, 14.3917, -111.033, -81.9502, 47.3957, -165.723
2.872, -1, -54.4641, 4.78445, -46.6524, -124.279, -67.2586, 127.549, 23.8118, 14.3808, -110.98, -81.9868, 47.4059, -165.547
2.876, -1, -54.4878, 4.78908, -46.7384, -124.264, -67.2592, 127.534, 23.7198, 14.3699, -110.926, -82.0235, 47.416, -165.372
2.88, -1, -54.5115, 4.7937, -46.8245, -124.25, -67.2598, 127.52, 23.6277, 14.359, -110.872, -82.0601, 47.4262, -165.196
2.883, -1, -54.5352, 4.79833, -46.9106, -124.235, -67.2605, 127.506, 23.5357, 14.3481, -110.818, -82.0967, 47.4363, -165.02
2.888, -1, -54.5589, 4.80296, -46.9968, -124.22, -67.2611, 127.491, 23.4436, 14.3372, -110.765, -82.1334, 47.4464, -164.844
2.892, -1, -54.5826, 4.80759, -47.0829, -124.206, -67.2617, 127.477, 23.3514, 14.3263, -110.711, -82.1701, 47.4566, -164.669
2.896, -1, -54.6064, 4.81222, -47.1691, -124.191, -67.2623, 127.463, 23.2593, 14.3154, -110.657, -82.2067, 47.4667, -164.493
2.9, -1, -54.6301, 4.81685, -47.2553, -124.177, -67.2629, 127.448, 23.1671, 14.3045, -110.603, -82.2434, 47.4769, -164.317
2.903, -1, -54.6538, 4.82148, -47.3415, -124.162, -67.2635, 127.434, 23.0749, 14.2936, -110.549, -82.2801, 47.4871, -164.141
2.908, -1, -54.6776, 4.82612, -47.4278, -124.147, -67.2641, 127.42, 22.9827, 14.2827, -110.496, -82.3168, 47.4972, -163.965
2.912, -1, -54.7013, 4.83075, -47.514, -124.133, -67.2648, 127.405, 22.8905, 14.2717, -110.442, -82.3536, 47.5074, -163.789
2.916, -1, -54.7251, 4.83539, -47.6003, -124.118, -67.2654, 127.391, 22.7982, 14.2608, -110.388, -82.3903, 47.5175, -163.613
2.92, -1, -54.7489, 4.84003, -47.6866, -124.103, -67.266, 127.377, 22.706, 14.2499, -110.334, -82.427, 47.5277, -163.437
2.923, -1, -54.7727, 4.84467, -47.7729, -124.089, -67.2666, 127.362, 22.6136, 14.239, -110.28, -82.4638, 47.5379, -163.261
2.928, -1, -54.7964, 4.84931, -47.8593, -124.074, -67.2672, 127.348, 22.5213, 14.228, -110.226, -82.5005, 47.548, -163.084
2.932, -1, -54.8202, 4.85395, -47.9457, -124.06, -67.2678, 127.333, 22.429, 14.2171, -110.172, -82.5373, 47.5582, -162.908
2.936, -1, -54.844, 4.85859, -48.0321, -124.045, -67.2684, 127.319, 22.3366, 14.2062, -110.118, -82.574, 47.5684, -162.732
2.939, -1, -54.8678, 4.86323, -48.1185, -124.03, -67.2691, 127.305, 22.2442, 14.1952, -110.064, -82.6108, 47.5786, -162.555
2.944, -1, -54.8916, 4.86788, -48.2049, -124.016, -67.2697, 127.29, 22.1517, 14.1843, -110.01, -82.6476, 47.5888, -162.379
2.948, -1, -54.9154, 4.87252, -48.2914, -124.001, -67.2703, 127.276, 22.0593, 14.1733, -109.956, -82.6844, 47.599, -162.203
2.952, -1, -54.9392, 4.87717, -48.3779, -123.986, -67.2709, 127.262, 21.9668, 14.1624, -109.902, -82.7212, 47.6091, -162.026
2.956, -1, -54.9631, 4.88182, -48.4644, -123.972, -67.2715, 127.247, 21.8743, 14.1514, -109.848, -82.758, 47.6193, -161.85
2.959, -1, -54.9869, 4.88647, -48.5509, -123.957, -67.2722, 127.233, 21.7818, 14.1405, -109.794, -82.7949, 47.6295, -161.673
2.964, -1, -55.0107, 4.89112, -48.6374, -123.942, -67.2728, 127.218, 21.6893, 14.1295, -109.74, -82.8317, 47.6397, -161.496
2.968, -1, -55.0346, 4.89577, -48.724, -123.928, -67.2734, 127.204, 21.5967, 14.1186, -109.686, -82.8685, 47.6499, -161.32
2.972, -1, -55.0584, 4.90042, -48.8106, -123.913, -67.274, 127.19, 21.5041, 14.1076, -109.632, -82.9054, 47.6601, -161.143
2.976, -1, -55.0823, 4.90508, -48.8972, -123.898, -67.2746, 127.175, 21.4115, 14.0966, -109.578, -82.9423, 47.6703, -160.966
2.98, -1, -55.1061, 4.90973, -48.9839, -123.883, -67.2752, 127.161, 21.3188, 14.0857, -109.524, -82.9791, 47.6805, -160.79
2.984, -1, -55.13, 4.91439, -49.0705, -123.869, -67.2759, 127.146, 21.2262, 14.0747, -109.47, -83.016, 47.6907, -160.613
2.988, -1, -55.1539, 4.91904, -49.1572, -123.854, -67.2765, 127.132, 21.1335, 14.0637, -109.415, -83.0529, 47.701, -160.436
2.992, -1, -55.1778, 4.9237, -49.2439, -123.839, -67.2771, 127.117, 21.0408, 14.0528, -109.361, -83.0898, 47.7112, -160.259
2.995, -1, -55.2016, 4.92836, -49.3307, -123.825, -67.2777, 127.103, 20.948, 14.0418, -109.307, -83.1267, 47.7214, -160.082
3, -1, -55.2255, 4.93303, -49.4174, -123.81, -67.2783, 127.089, 20.8553, 14.0308, -109.253, -83.1637, 47.7316, -159.905
3.004, -1, -55.2494, 4.93769, -49.5042, -123.795, -67.2789, 127.074, 20.7625, 14.0198, -109.199, -83.2006, 47.7418, -159.728
3.008, -1, -55.2733, 4.94235, -49.591, -123.781, -67.2796, 127.06, 20.6697, 14.0088, -109.145, -83.2375, 47.752, -159.551
3.012, -1, -55.2972, 4.94702, -49.6778, -123.766, -67.2802, 127.045, 20.5769, 13.9978, -109.09, -83.2745, 47.7623, -159.374
3.015, -1, -55.3212, 4.95168, -49.7646, -123.751, -67.2808, 127.031, 20.484, 13.9868, -109.036, -83.3114, 47.7725, -159.196
3.02, -1, -55.3451, 4.95635, -49.8515, -123.736, -67.2814, 127.016, 20.3911, 13.9758, -108.982, -83.3484, 47.7827, -159.019
3.024, -1, -55.369, 4.96102, -49.9384, -123.722, -67.282, 127.002, 20.2982, 13.9648, -108.928, -83.3854, 47.793, -158.842
3.028, -1, -55.3929, 4.96569, -50.0253, -123.707, -67.2827, 126.987, 20.2053, 13.9538, -108.873, -83.4224, 47.8032, -158.664
3.031, -1, -55.4169, 4.97036, -50.1122, -123.692, -67.2833, 126.973, 20.1123, 13.9428, -108.819, -83.4594, 47.8134, -158.487
3.036, -1, -55.4408, 4.97503, -50.1992, -123.677, -67.2839, 126.958, 20.0194, 13.9318, -108.765, -83.4964, 47.8237, -158.31
3.04, -1, -55.4648, 4.9797, -50.2861, -123.663, -67.2845, 126.944, 19.9264, 13.9208, -108.711, -83.5334, 47.8339, -158.132
3.044, -1, -55.4887, 4.98438, -50.3731, -123.648, -67.2851, 126.93, 19.8333, 13.9098, -108.656, -83.5704, 47.8442, -157.955
3.048, -1, -55.5127, 4.98905, -50.4602, -123.633, -67.2858, 126.915, 19.7403, 13.8988, -108.602, -83.6075, 47.8544, -157.777
3.051, -1, -55.5367, 4.99373, -50.5472, -123.618, -67.2864, 126.901, 19.6472, 13.8878, -108.547, -83.6445, 47.8647, -157.599
3.056, -1, -55.5606, 4.99841, -50.6343, -123.604, -67.287, 126.886, 19.5541, 13.8768, -108.493, -83.6816, 47.8749, -157.422
3.06, -1, -55.5846, 5.00309, -50.7214, -123.589, -67.2876, 126.872, 19.461, 13.8657, -108.439, -83.7186, 47.8852, -157.244
3.064, -1, -55.6086, 5.00777, -50.8085, -123.574, -67.2882, 126.857, 19.3679, 13.8547, -108.384, -83.7557, 47.8955, -157.066
3.068, -1, -55.6326, 5.01245, -50.8956, -123.559, -67.2889, 126.843, 19.2747, 13.8437, -108.33, -83.7928, 47.9057, -156.888
3.071, -1, -55.6566, 5.01713, -50.9827, -123.545, -67.2895, 126.828, 19.1815, 13.8326, -108.275, -83.8299, 47.916, -156.711
3.076, -1, -55.6806, 5.02182, -51.0699, -123.53, -67.2901, 126.814, 19.0883, 13.8216, -108.221, -83.867, 47.9263, -156.533
3.08, -1, -55.7046, 5.0265, -51.1571, -123.515, -67.2907, 126.799, 18.9951, 13.8106, -108.167, -83.9041, 47.9365, -156.355
3.084, -1, -55.7287, 5.03119, -51.2443, -123.5, -67.2914, 126.785, 18.9018, 13.7995, -108.112, -83.9412, 47.9468, -156.177
3.087, -1, -55.7527, 5.03588, -51.3316, -123.485, -67.292, 126.77, 18.8085, 13.7885, -108.058, -83.9784, 47.9571, -155.999
3.092, -1, -55.7767, 5.04057, -51.4188, -123.471, -67.2926, 126.756, 18.7152, 13.7774, -108.003, -84.0155, 47.9674, -155.821
3.096, -1, -55.8008, 5.04526, -51.5061, -123.456, -67.2932, 126.741, 18.6219, 13.7664, -107.949, -84.0526, 47.9777, -155.643
3.1, -1, -55.8248, 5.04995, -51.5934, -123.441, -67.2938, 126.727, 18.5285, 13.7553, -107.894, -84.0898, 47.9879, -155.464
3.104, -1, -55.8489, 5.05464, -51.6808, -123.426, -67.2945, 126.712, 18.4351, 13.7443, -107.84, -84.127, 47.9982, -155.286
3.107, -1, -55.8729, 5.05933, -51.7681, -123.411, -67.2951, 126.697, 18.3417, 13.7332, -107.785, -84.1642, 48.0085, -155.108
3.112, -1, -55.897, 5.06403, -51.8555, -123.397, -67.2957, 126.683, 18.2483, 13.7222, -107.73, -84.2013, 48.0188, -154.93
3.116, -1, -55.921, 5.06873, -51.9429, -123.382, -67.2963, 126.668, 18.1548, 13.7111, -107.676, -84.2385, 48.0291, -154.751
3.12, -1, -55.9451, 5.07342, -52.0303, -123.367, -67.297, 126.654, 18.0614, 13.7, -107.621, -84.2757, 48.0394, -154.573
3.124, -1, -55.9692, 5.07812, -52.1178, -123.352, -67.2976, 126.639, 17.9679, 13.689, -107.567, -84.313, 48.0497, -154.394
3.128, -1, -55.9933, 5.08282, -52.2053, -123.337, -67.2982, 126.625, 17.8743, 13.6779, -107.512, -84.3502, 48.06, -154.216
3.132, -1, -56.0174, 5.08752, -52.2927, -123.322, -67.2988, 126.61, 17.7808, 13.6668, -107.457, -84.3874, 48.0703, -154.037
3.136, -1, -56.0415, 5.09222, -52.3803, -123.308, -67.2995, 126.596, 17.6872, 13.6557, -107.403, -84.4247, 48.0806, -153.859
3.14, -1, -56.0656, 5.09693, -52.4678, -123.293, -67.3001, 126.581, 17.5936, 13.6446, -107.348, -84.4619, 48.0909, -153.68
3.143, -1, -56.0897, 5.10163, -52.5554, -123.278, -67.3007, 126.566, 17.5, 13.6336, -107.293, -84.4992, 48.1013, -153.501
3.148, -1, -56.1138, 5.10634, -52.6429, -123.263, -67.3013, 126.552, 17.4063, 13.6225, -107.239, -84.5365, 48.1116, -153.323
3.152, -1, -56.1379, 5.11105, -52.7305, -123.248, -67.3019, 126.537, 17.3127, 13.6114, -107.184, -84.5738, 48.1219, -153.144
3.156, -1, -56.1621, 5.11575, -52.8182, -123.233, -67.3026, 126.523, 17.219, 13.6003, -107.129, -84.6111, 48.1322, -152.965
3.16, -1, -56.1862, 5.12046, -52.9058, -123.218, -67.3032, 126.508, 17.1252, 13.5892, -107.075, -84.6484, 48.1425, -152.786
3.163, -1, -56.2104, 5.12517, -52.9935, -123.204, -67.3038, 126.494, 17.0315, 13.5781, -107.02, -84.6857, 48.1529, -152.607
3.168, -1, -56.2345, 5.12989, -53.0812, -123.189, -67.3045, 126.479, 16.9377, 13.567, -106.965, -84.723, 48.1632, -152.428
3.172, -1, -56.2587, 5.1346, -53.1689, -123.174, -67.3051, 126.464, 16.8439, 13.5559, -106.91, -84.7603, 48.1735, -152.249
3.176, -1, -56.2828, 5.13931, -53.2566, -123.159, -67.3057, 126.45, 16.7501, 13.5448, -106.855, -84.7977, 48.1839, -152.07
3.179, -1, -56.307, 5.14403, -53.3444, -123.144, -67.3063, 126.435, 16.6563, 13.5337, -106.801, -84.835, 48.1942, -151.891
