hehonglu123/Motion-Primitive-Planning/simulation/robotstudio_sim/multimove/recorded_data/curve_exe_v1500_z100.csv
timestamp, cmd_num, J1, J2, J3, J4, J5, J6, J1_2, J2_2, J3_2, J4_2, J5_2, J6_2
0, -1, -35.7323, 14.385, 2.72432, -130.313, -74.0562, 128.947, -73.0291, -20.9156, -15.5778, -40.5193, -52.2284, 227.029
0.005, -1, -35.7323, 14.385, 2.72432, -130.313, -74.0562, 128.947, -73.0291, -20.9156, -15.5778, -40.5193, -52.2284, 227.029
0.01, -1, -35.7323, 14.385, 2.72432, -130.313, -74.0562, 128.947, -73.0291, -20.9156, -15.5778, -40.5193, -52.2284, 227.029
0.01, -1, -35.7323, 14.385, 2.72432, -130.313, -74.0562, 128.947, -73.0291, -20.9156, -15.5778, -40.5193, -52.2284, 227.029
0.013, -1, -35.7323, 14.385, 2.72432, -130.313, -74.0562, 128.947, -73.0291, -20.9156, -15.5778, -40.5193, -52.2284, 227.029
0.016, -1, -35.7323, 14.385, 2.72432, -130.313, -74.0562, 128.947, -73.0291, -20.9156, -15.5778, -40.5193, -52.2284, 227.029
0.02, -1, -35.7323, 14.385, 2.72432, -130.313, -74.0562, 128.947, -73.0291, -20.9156, -15.5778, -40.5193, -52.2284, 227.029
0.024, -1, -35.7323, 14.385, 2.72432, -130.313, -74.0562, 128.947, -73.0291, -20.9156, -15.5778, -40.5193, -52.2284, 227.029
0.028, -1, -35.7323, 14.385, 2.72432, -130.313, -74.0562, 128.947, -73.0291, -20.9156, -15.5778, -40.5193, -52.2284, 227.029
0.032, -1, -35.7323, 14.385, 2.72432, -130.313, -74.0562, 128.947, -73.0291, -20.9156, -15.5778, -40.5193, -52.2284, 227.029
0.036, -1, -35.7323, 14.385, 2.72432, -130.313, -74.0562, 128.947, -73.0291, -20.9156, -15.5778, -40.5193, -52.2284, 227.029
0.04, -1, -35.7323, 14.385, 2.72432, -130.313, -74.0562, 128.947, -73.0291, -20.9156, -15.5778, -40.5193, -52.2284, 227.029
0.044, -1, -35.7319, 14.3851, 2.72436, -130.313, -74.0562, 128.947, -73.0291, -20.9156, -15.5778, -40.5193, -52.2284, 227.029
0.048, -1, -35.731, 14.3855, 2.72448, -130.313, -74.0562, 128.947, -73.0291, -20.9156, -15.5778, -40.5193, -52.2284, 227.029
0.052, -1, -35.7293, 14.3864, 2.72473, -130.313, -74.0562, 128.947, -73.0291, -20.9156, -15.5778, -40.5193, -52.2284, 227.029
0.056, -1, -35.7265, 14.3878, 2.72511, -130.312, -74.0563, 128.947, -73.0291, -20.9154, -15.5777, -40.5193, -52.2284, 227.029
0.06, -1, -35.7228, 14.39, 2.72563, -130.31, -74.0565, 128.947, -73.0289, -20.9148, -15.5777, -40.5194, -52.2284, 227.029
0.064, -1, -35.7181, 14.393, 2.72626, -130.307, -74.0569, 128.947, -73.0285, -20.9135, -15.5777, -40.5196, -52.2283, 227.029
0.068, -1, -35.7124, 14.3969, 2.72693, -130.303, -74.0576, 128.947, -73.028, -20.9109, -15.5778, -40.52, -52.2282, 227.028
0.072, -1, -35.7059, 14.4018, 2.72755, -130.295, -74.0586, 128.947, -73.0277, -20.9068, -15.5782, -40.5209, -52.2281, 227.025
0.076, -1, -35.6986, 14.4077, 2.72802, -130.284, -74.0602, 128.947, -73.0278, -20.9006, -15.5794, -40.5226, -52.228, 227.021
0.08, -1, -35.6904, 14.4149, 2.72828, -130.268, -74.0624, 128.947, -73.0287, -20.892, -15.5818, -40.5254, -52.228, 227.013
0.084, -1, -35.681, 14.4235, 2.72826, -130.246, -74.0654, 128.946, -73.0313, -20.8807, -15.5859, -40.5298, -52.2281, 227.001
0.088, -1, -35.6703, 14.4336, 2.72792, -130.219, -74.0693, 128.946, -73.0359, -20.8664, -15.5923, -40.536, -52.2285, 226.983
0.092, -1, -35.6581, 14.445, 2.72717, -130.185, -74.0742, 128.946, -73.0433, -20.8489, -15.6015, -40.5445, -52.2292, 226.959
0.096, -1, -35.6445, 14.4573, 2.7259, -130.142, -74.0801, 128.945, -73.0537, -20.8279, -15.6138, -40.5555, -52.2303, 226.927
0.1, -1, -35.6298, 14.4702, 2.724, -130.092, -74.0872, 128.945, -73.0672, -20.803, -15.6293, -40.5692, -52.2316, 226.887
0.104, -1, -35.614, 14.4834, 2.72143, -130.033, -74.0956, 128.944, -73.0839, -20.7741, -15.6483, -40.5857, -52.2334, 226.839
0.108, -1, -35.597, 14.4968, 2.71818, -129.966, -74.1051, 128.943, -73.1037, -20.7412, -15.6705, -40.6048, -52.2355, 226.784
0.112, -1, -35.579, 14.5106, 2.71427, -129.891, -74.1158, 128.943, -73.1264, -20.7043, -15.6958, -40.6266, -52.2379, 226.721
0.116, -1, -35.5599, 14.5252, 2.7098, -129.808, -74.1276, 128.942, -73.1517, -20.6637, -15.724, -40.6507, -52.2406, 226.65
0.12, -1, -35.5394, 14.541, 2.7049, -129.718, -74.1404, 128.941, -73.1793, -20.6198, -15.7548, -40.677, -52.2436, 226.574
0.124, -1, -35.5174, 14.5583, 2.69969, -129.622, -74.154, 128.94, -73.2089, -20.5729, -15.7877, -40.7052, -52.2468, 226.492
0.128, -1, -35.494, 14.5773, 2.69426, -129.52, -74.1684, 128.938, -73.24, -20.5236, -15.8225, -40.7348, -52.2502, 226.406
0.131, -1, -35.4695, 14.5976, 2.68866, -129.415, -74.1835, 128.937, -73.272, -20.472, -15.8584, -40.7656, -52.2536, 226.316
0.136, -1, -35.444, 14.6192, 2.68295, -129.305, -74.199, 128.936, -73.3047, -20.4185, -15.8953, -40.7971, -52.2571, 226.225
0.139, -1, -35.4178, 14.6417, 2.67718, -129.193, -74.215, 128.935, -73.3375, -20.3634, -15.9326, -40.8293, -52.2607, 226.131
0.144, -1, -35.3906, 14.665, 2.67142, -129.078, -74.2312, 128.934, -73.3703, -20.3072, -15.9701, -40.8618, -52.2642, 226.037
0.148, -1, -35.3626, 14.6891, 2.66572, -128.962, -74.2477, 128.932, -73.4031, -20.25, -16.0078, -40.8944, -52.2677, 225.942
0.152, -1, -35.3338, 14.7138, 2.66011, -128.845, -74.2643, 128.931, -73.4358, -20.1923, -16.0454, -40.9272, -52.2711, 225.847
0.156, -1, -35.304, 14.7391, 2.65462, -128.728, -74.281, 128.93, -73.4684, -20.1342, -16.0831, -40.96, -52.2746, 225.752
0.16, -1, -35.2735, 14.7649, 2.64923, -128.61, -74.2977, 128.928, -73.501, -20.0761, -16.1208, -40.9928, -52.278, 225.657
0.164, -1, -35.2424, 14.791, 2.64393, -128.492, -74.3144, 128.927, -73.5336, -20.0178, -16.1585, -41.0257, -52.2815, 225.562
0.168, -1, -35.2108, 14.8173, 2.63868, -128.373, -74.3312, 128.926, -73.5662, -19.9595, -16.1962, -41.0586, -52.2849, 225.467
0.172, -1, -35.1791, 14.8436, 2.63343, -128.255, -74.348, 128.924, -73.5988, -19.9012, -16.2339, -41.0915, -52.2883, 225.371
0.176, -1, -35.1474, 14.87, 2.62819, -128.137, -74.3648, 128.923, -73.6315, -19.8428, -16.2717, -41.1244, -52.2918, 225.276
0.18, -1, -35.1157, 14.8964, 2.62294, -128.018, -74.3816, 128.922, -73.6642, -19.7844, -16.3095, -41.1573, -52.2953, 225.18
0.184, -1, -35.0839, 14.9228, 2.61769, -127.9, -74.3984, 128.92, -73.6969, -19.726, -16.3473, -41.1903, -52.2987, 225.085
0.188, -1, -35.0521, 14.9493, 2.61244, -127.781, -74.4152, 128.919, -73.7297, -19.6675, -16.3852, -41.2233, -52.3022, 224.989
0.192, -1, -35.0203, 14.9757, 2.60718, -127.662, -74.432, 128.918, -73.7624, -19.609, -16.4231, -41.2563, -52.3056, 224.893
0.196, -1, -34.9884, 15.0022, 2.60192, -127.544, -74.4489, 128.917, -73.7952, -19.5504, -16.461, -41.2893, -52.3091, 224.798
0.2, -1, -34.9566, 15.0287, 2.59666, -127.425, -74.4657, 128.915, -73.828, -19.4918, -16.4989, -41.3224, -52.3126, 224.702
0.204, -1, -34.9247, 15.0552, 2.59139, -127.306, -74.4826, 128.914, -73.8609, -19.4332, -16.5368, -41.3555, -52.316, 224.606
0.208, -1, -34.8928, 15.0817, 2.58612, -127.187, -74.4995, 128.913, -73.8937, -19.3745, -16.5748, -41.3886, -52.3195, 224.51
0.212, -1, -34.8608, 15.1083, 2.58084, -127.068, -74.5164, 128.911, -73.9266, -19.3158, -16.6128, -41.4217, -52.323, 224.414
0.216, -1, -34.8289, 15.1349, 2.57556, -126.948, -74.5333, 128.91, -73.9595, -19.257, -16.6509, -41.4549, -52.3264, 224.318
0.22, -1, -34.7969, 15.1615, 2.57028, -126.829, -74.5502, 128.909, -73.9924, -19.1982, -16.6889, -41.488, -52.3299, 224.222
0.224, -1, -34.7649, 15.1881, 2.56499, -126.71, -74.5671, 128.907, -74.0254, -19.1394, -16.727, -41.5212, -52.3334, 224.126
0.228, -1, -34.7329, 15.2147, 2.5597, -126.59, -74.5841, 128.906, -74.0583, -19.0805, -16.7651, -41.5545, -52.3369, 224.029
0.232, -1, -34.7008, 15.2413, 2.55441, -126.471, -74.601, 128.905, -74.0913, -19.0215, -16.8033, -41.5877, -52.3404, 223.933
0.236, -1, -34.6688, 15.268, 2.54911, -126.351, -74.618, 128.903, -74.1243, -18.9626, -16.8414, -41.621, -52.3438, 223.837
0.24, -1, -34.6367, 15.2947, 2.54381, -126.231, -74.635, 128.902, -74.1574, -18.9035, -16.8796, -41.6543, -52.3473, 223.74
0.244, -1, -34.6046, 15.3214, 2.5385, -126.111, -74.6519, 128.901, -74.1904, -18.8445, -16.9179, -41.6876, -52.3508, 223.644
0.248, -1, -34.5724, 15.3481, 2.53319, -125.992, -74.6689, 128.899, -74.2235, -18.7854, -16.9561, -41.7209, -52.3543, 223.547
0.252, -1, -34.5403, 15.3748, 2.52788, -125.872, -74.686, 128.898, -74.2566, -18.7262, -16.9944, -41.7543, -52.3578, 223.45
0.256, -1, -34.5081, 15.4016, 2.52256, -125.752, -74.703, 128.897, -74.2898, -18.6671, -17.0327, -41.7877, -52.3613, 223.354
0.26, -1, -34.4759, 15.4283, 2.51724, -125.631, -74.72, 128.895, -74.3229, -18.6078, -17.071, -41.8211, -52.3648, 223.257
0.264, -1, -34.4437, 15.4551, 2.51192, -125.511, -74.7371, 128.894, -74.3561, -18.5486, -17.1094, -41.8545, -52.3683, 223.16
0.268, -1, -34.4114, 15.482, 2.50659, -125.391, -74.7541, 128.893, -74.3893, -18.4893, -17.1478, -41.888, -52.3718, 223.063
0.272, -1, -34.3791, 15.5088, 2.50126, -125.27, -74.7712, 128.891, -74.4225, -18.4299, -17.1862, -41.9215, -52.3753, 222.966
0.276, -1, -34.3468, 15.5356, 2.49592, -125.15, -74.7883, 128.89, -74.4558, -18.3705, -17.2246, -41.955, -52.3789, 222.869
0.28, -1, -34.3145, 15.5625, 2.49058, -125.029, -74.8054, 128.889, -74.4891, -18.3111, -17.2631, -41.9885, -52.3824, 222.771
0.284, -1, -34.2822, 15.5894, 2.48524, -124.909, -74.8225, 128.887, -74.5224, -18.2516, -17.3016, -42.0221, -52.3859, 222.674
0.288, -1, -34.2498, 15.6163, 2.47989, -124.788, -74.8396, 128.886, -74.5557, -18.192, -17.3401, -42.0556, -52.3894, 222.577
0.292, -1, -34.2174, 15.6433, 2.47454, -124.667, -74.8568, 128.885, -74.5891, -18.1325, -17.3787, -42.0893, -52.3929, 222.479
0.296, -1, -34.185, 15.6702, 2.46918, -124.546, -74.8739, 128.883, -74.6224, -18.0728, -17.4173, -42.1229, -52.3965, 222.382
0.3, -1, -34.1525, 15.6972, 2.46382, -124.425, -74.8911, 128.882, -74.6558, -18.0132, -17.4559, -42.1565, -52.4, 222.284
0.304, -1, -34.1201, 15.7242, 2.45846, -124.304, -74.9082, 128.881, -74.6893, -17.9535, -17.4945, -42.1902, -52.4035, 222.187
0.308, -1, -34.0876, 15.7512, 2.45309, -124.183, -74.9254, 128.879, -74.7227, -17.8937, -17.5332, -42.2239, -52.407, 222.089
0.312, -1, -34.0551, 15.7782, 2.44772, -124.061, -74.9426, 128.878, -74.7562, -17.8339, -17.5719, -42.2577, -52.4106, 221.991
0.316, -1, -34.0225, 15.8053, 2.44234, -123.94, -74.9598, 128.877, -74.7897, -17.7741, -17.6106, -42.2914, -52.4141, 221.894
0.32, -1, -33.99, 15.8323, 2.43696, -123.819, -74.9771, 128.875, -74.8232, -17.7142, -17.6494, -42.3252, -52.4177, 221.796
0.324, -1, -33.9574, 15.8594, 2.43158, -123.697, -74.9943, 128.874, -74.8568, -17.6543, -17.6882, -42.359, -52.4212, 221.698
0.328, -1, -33.9248, 15.8866, 2.42619, -123.575, -75.0116, 128.873, -74.8904, -17.5943, -17.727, -42.3929, -52.4247, 221.6
0.332, -1, -33.8921, 15.9137, 2.4208, -123.454, -75.0288, 128.871, -74.924, -17.5343, -17.7659, -42.4267, -52.4283, 221.502
0.336, -1, -33.8595, 15.9409, 2.4154, -123.332, -75.0461, 128.87, -74.9576, -17.4742, -17.8047, -42.4606, -52.4318, 221.403
0.34, -1, -33.8268, 15.968, 2.41, -123.21, -75.0634, 128.869, -74.9912, -17.4141, -17.8437, -42.4945, -52.4354, 221.305
0.344, -1, -33.7941, 15.9952, 2.4046, -123.088, -75.0807, 128.867, -75.0249, -17.3539, -17.8826, -42.5285, -52.439, 221.207
0.348, -1, -33.7613, 16.0224, 2.39919, -122.966, -75.098, 128.866, -75.0586, -17.2937, -17.9216, -42.5624, -52.4425, 221.108
0.352, -1, -33.7286, 16.0497, 2.39378, -122.843, -75.1154, 128.865, -75.0924, -17.2334, -17.9606, -42.5964, -52.4461, 221.01
0.356, -1, -33.6958, 16.077, 2.38836, -122.721, -75.1327, 128.863, -75.1261, -17.1731, -17.9996, -42.6304, -52.4496, 220.911
0.36, -1, -33.663, 16.1042, 2.38294, -122.599, -75.1501, 128.862, -75.1599, -17.1128, -18.0386, -42.6645, -52.4532, 220.812
0.364, -1, -33.6301, 16.1315, 2.37751, -122.476, -75.1674, 128.86, -75.1937, -17.0524, -18.0777, -42.6985, -52.4568, 220.714
0.368, -1, -33.5972, 16.1589, 2.37208, -122.353, -75.1848, 128.859, -75.2276, -16.9919, -18.1169, -42.7326, -52.4604, 220.615
0.372, -1, -33.5644, 16.1862, 2.36665, -122.231, -75.2022, 128.858, -75.2614, -16.9314, -18.156, -42.7668, -52.4639, 220.516
0.376, -1, -33.5314, 16.2136, 2.36121, -122.108, -75.2196, 128.856, -75.2953, -16.8709, -18.1952, -42.8009, -52.4675, 220.417
0.38, -1, -33.4985, 16.241, 2.35577, -121.985, -75.2371, 128.855, -75.3293, -16.8103, -18.2344, -42.8351, -52.4711, 220.318
0.384, -1, -33.4655, 16.2684, 2.35032, -121.862, -75.2545, 128.854, -75.3632, -16.7497, -18.2737, -42.8693, -52.4747, 220.219
0.388, -1, -33.4325, 16.2958, 2.34487, -121.739, -75.272, 128.852, -75.3972, -16.689, -18.3129, -42.9035, -52.4783, 220.12
0.392, -1, -33.3995, 16.3233, 2.33941, -121.616, -75.2894, 128.851, -75.4312, -16.6283, -18.3522, -42.9378, -52.4819, 220.02
0.396, -1, -33.3664, 16.3508, 2.33395, -121.492, -75.3069, 128.85, -75.4652, -16.5675, -18.3916, -42.9721, -52.4855, 219.921
0.4, -1, -33.3334, 16.3783, 2.32849, -121.369, -75.3244, 128.848, -75.4993, -16.5066, -18.4309, -43.0064, -52.4891, 219.822
0.404, -1, -33.3003, 16.4058, 2.32302, -121.245, -75.3419, 128.847, -75.5334, -16.4458, -18.4704, -43.0408, -52.4927, 219.722
0.408, -1, -33.2671, 16.4333, 2.31754, -121.122, -75.3595, 128.845, -75.5675, -16.3848, -18.5098, -43.0751, -52.4963, 219.622
0.412, -1, -33.234, 16.4609, 2.31206, -120.998, -75.377, 128.844, -75.6016, -16.3239, -18.5493, -43.1095, -52.4999, 219.523
0.416, -1, -33.2008, 16.4885, 2.30658, -120.874, -75.3946, 128.843, -75.6358, -16.2628, -18.5888, -43.144, -52.5035, 219.423
0.42, -1, -33.1676, 16.5161, 2.3011, -120.75, -75.4121, 128.841, -75.67, -16.2017, -18.6283, -43.1784, -52.5071, 219.323
0.424, -1, -33.1343, 16.5437, 2.2956, -120.626, -75.4297, 128.84, -75.7042, -16.1406, -18.6679, -43.2129, -52.5107, 219.223
0.428, -1, -33.1011, 16.5714, 2.29011, -120.502, -75.4473, 128.839, -75.7384, -16.0794, -18.7074, -43.2474, -52.5143, 219.123
0.432, -1, -33.0678, 16.5991, 2.28461, -120.378, -75.4649, 128.837, -75.7727, -16.0182, -18.7471, -43.282, -52.5179, 219.023
0.436, -1, -33.0344, 16.6268, 2.2791, -120.254, -75.4825, 128.836, -75.807, -15.9569, -18.7867, -43.3165, -52.5216, 218.923
0.44, -1, -33.0011, 16.6545, 2.27359, -120.129, -75.5002, 128.834, -75.8414, -15.8956, -18.8264, -43.3511, -52.5252, 218.822
0.444, -1, -32.9677, 16.6823, 2.26808, -120.005, -75.5178, 128.833, -75.8758, -15.8342, -18.8662, -43.3858, -52.5288, 218.722
0.448, -1, -32.9343, 16.71, 2.26256, -119.88, -75.5355, 128.832, -75.9101, -15.7727, -18.9059, -43.4204, -52.5324, 218.622
0.452, -1, -32.9009, 16.7378, 2.25703, -119.755, -75.5532, 128.83, -75.9446, -15.7113, -18.9457, -43.4551, -52.5361, 218.521
0.456, -1, -32.8674, 16.7657, 2.25151, -119.631, -75.5709, 128.829, -75.979, -15.6497, -18.9856, -43.4898, -52.5397, 218.421
0.46, -1, -32.8339, 16.7935, 2.24597, -119.506, -75.5886, 128.828, -76.0135, -15.5881, -19.0254, -43.5246, -52.5434, 218.32
0.464, -1, -32.8004, 16.8214, 2.24043, -119.381, -75.6064, 128.826, -76.048, -15.5265, -19.0653, -43.5593, -52.547, 218.219
0.468, -1, -32.7668, 16.8493, 2.23489, -119.255, -75.6241, 128.825, -76.0826, -15.4648, -19.1053, -43.5942, -52.5506, 218.118
0.472, -1, -32.7333, 16.8772, 2.22934, -119.13, -75.6419, 128.823, -76.1171, -15.403, -19.1452, -43.629, -52.5543, 218.017
0.476, -1, -32.6996, 16.9051, 2.22379, -119.005, -75.6596, 128.822, -76.1517, -15.3412, -19.1852, -43.6639, -52.558, 217.916
0.48, -1, -32.666, 16.9331, 2.21824, -118.879, -75.6774, 128.821, -76.1864, -15.2794, -19.2253, -43.6988, -52.5616, 217.815
0.484, -1, -32.6323, 16.9611, 2.21267, -118.754, -75.6952, 128.819, -76.221, -15.2175, -19.2653, -43.7337, -52.5653, 217.714
0.488, -1, -32.5986, 16.9891, 2.20711, -118.628, -75.7131, 128.818, -76.2557, -15.1555, -19.3054, -43.7686, -52.5689, 217.613
0.492, -1, -32.5649, 17.0171, 2.20154, -118.502, -75.7309, 128.816, -76.2905, -15.0935, -19.3456, -43.8036, -52.5726, 217.511
0.496, -1, -32.5312, 17.0452, 2.19596, -118.376, -75.7488, 128.815, -76.3252, -15.0314, -19.3857, -43.8386, -52.5763, 217.41
0.5, -1, -32.4974, 17.0733, 2.19038, -118.25, -75.7666, 128.814, -76.36, -14.9693, -19.426, -43.8737, -52.5799, 217.308
0.504, -1, -32.4636, 17.1014, 2.18479, -118.124, -75.7845, 128.812, -76.3948, -14.9071, -19.4662, -43.9088, -52.5836, 217.206
0.508, -1, -32.4297, 17.1295, 2.1792, -117.998, -75.8024, 128.811, -76.4296, -14.8448, -19.5065, -43.9439, -52.5873, 217.105
0.512, -1, -32.3959, 17.1577, 2.17361, -117.871, -75.8203, 128.809, -76.4645, -14.7826, -19.5468, -43.979, -52.591, 217.003
0.516, -1, -32.362, 17.1859, 2.16801, -117.745, -75.8383, 128.808, -76.4994, -14.7202, -19.5871, -44.0142, -52.5947, 216.901
0.52, -1, -32.328, 17.2141, 2.1624, -117.618, -75.8562, 128.807, -76.5344, -14.6578, -19.6275, -44.0494, -52.5984, 216.799
0.524, -1, -32.2941, 17.2423, 2.15679, -117.492, -75.8742, 128.805, -76.5693, -14.5953, -19.668, -44.0846, -52.6021, 216.697
0.528, -1, -32.2601, 17.2706, 2.15117, -117.365, -75.8922, 128.804, -76.6043, -14.5328, -19.7084, -44.1199, -52.6057, 216.595
0.532, -1, -32.226, 17.2989, 2.14555, -117.238, -75.9102, 128.802, -76.6394, -14.4703, -19.7489, -44.1552, -52.6094, 216.492
0.536, -1, -32.192, 17.3272, 2.13993, -117.111, -75.9282, 128.801, -76.6744, -14.4076, -19.7894, -44.1905, -52.6131, 216.39
0.54, -1, -32.1579, 17.3555, 2.1343, -116.984, -75.9462, 128.8, -76.7095, -14.3449, -19.83, -44.2259, -52.6169, 216.287
0.544, -1, -32.1238, 17.3839, 2.12866, -116.856, -75.9643, 128.798, -76.7446, -14.2822, -19.8706, -44.2613, -52.6206, 216.185
0.548, -1, -32.0896, 17.4123, 2.12302, -116.729, -75.9823, 128.797, -76.7798, -14.2194, -19.9113, -44.2967, -52.6243, 216.082
0.552, -1, -32.0555, 17.4407, 2.11737, -116.602, -76.0004, 128.795, -76.815, -14.1566, -19.9519, -44.3322, -52.628, 215.979
0.556, -1, -32.0212, 17.4692, 2.11172, -116.474, -76.0185, 128.794, -76.8502, -14.0936, -19.9927, -44.3676, -52.6317, 215.877
0.56, -1, -31.987, 17.4976, 2.10606, -116.346, -76.0366, 128.793, -76.8855, -14.0307, -20.0334, -44.4032, -52.6354, 215.774
0.564, -1, -31.9527, 17.5261, 2.1004, -116.218, -76.0547, 128.791, -76.9208, -13.9676, -20.0742, -44.4387, -52.6392, 215.671
0.568, -1, -31.9184, 17.5546, 2.09474, -116.09, -76.0729, 128.79, -76.9561, -13.9046, -20.115, -44.4743, -52.6429, 215.567
0.572, -1, -31.8841, 17.5832, 2.08906, -115.962, -76.0911, 128.788, -76.9914, -13.8414, -20.1559, -44.5099, -52.6466, 215.464
0.576, -1, -31.8497, 17.6118, 2.08339, -115.834, -76.1092, 128.787, -77.0268, -13.7782, -20.1968, -44.5456, -52.6504, 215.361
0.58, -1, -31.8153, 17.6404, 2.0777, -115.706, -76.1274, 128.786, -77.0622, -13.7149, -20.2378, -44.5813, -52.6541, 215.257
0.584, -1, -31.7809, 17.669, 2.07201, -115.577, -76.1456, 128.784, -77.0977, -13.6516, -20.2788, -44.617, -52.6578, 215.154
0.588, -1, -31.7464, 17.6976, 2.06632, -115.449, -76.1639, 128.783, -77.1332, -13.5882, -20.3198, -44.6528, -52.6616, 215.05
0.592, -1, -31.7119, 17.7263, 2.06062, -115.32, -76.1821, 128.781, -77.1687, -13.5248, -20.3608, -44.6885, -52.6653, 214.947
0.596, -1, -31.6774, 17.755, 2.05492, -115.191, -76.2004, 128.78, -77.2042, -13.4613, -20.4019, -44.7244, -52.6691, 214.843
0.6, -1, -31.6428, 17.7838, 2.04921, -115.062, -76.2187, 128.778, -77.2398, -13.3977, -20.4431, -44.7602, -52.6729, 214.739
0.604, -1, -31.6082, 17.8125, 2.04349, -114.933, -76.237, 128.777, -77.2755, -13.3341, -20.4843, -44.7961, -52.6766, 214.635
0.608, -1, -31.5736, 17.8413, 2.03777, -114.804, -76.2553, 128.776, -77.3111, -13.2704, -20.5255, -44.8321, -52.6804, 214.531
0.612, -1, -31.5389, 17.8702, 2.03204, -114.675, -76.2736, 128.774, -77.3468, -13.2067, -20.5667, -44.868, -52.6842, 214.426
0.616, -1, -31.5042, 17.899, 2.02631, -114.545, -76.292, 128.773, -77.3825, -13.1428, -20.608, -44.904, -52.6879, 214.322
0.62, -1, -31.4695, 17.9279, 2.02058, -114.416, -76.3104, 128.771, -77.4183, -13.079, -20.6494, -44.94, -52.6917, 214.218
0.624, -1, -31.4347, 17.9568, 2.01483, -114.286, -76.3288, 128.77, -77.4541, -13.015, -20.6907, -44.9761, -52.6955, 214.113
0.628, -1, -31.3999, 17.9857, 2.00908, -114.156, -76.3472, 128.768, -77.4899, -12.9511, -20.7322, -45.0122, -52.6993, 214.009
0.632, -1, -31.3651, 18.0147, 2.00333, -114.026, -76.3656, 128.767, -77.5258, -12.887, -20.7736, -45.0483, -52.7031, 213.904
0.636, -1, -31.3302, 18.0437, 1.99757, -113.896, -76.384, 128.765, -77.5617, -12.8229, -20.8151, -45.0845, -52.7068, 213.799
0.64, -1, -31.2953, 18.0727, 1.9918, -113.766, -76.4025, 128.764, -77.5976, -12.7587, -20.8567, -45.1207, -52.7106, 213.694
0.644, -1, -31.2604, 18.1017, 1.98603, -113.635, -76.421, 128.763, -77.6336, -12.6944, -20.8982, -45.157, -52.7144, 213.589
0.648, -1, -31.2254, 18.1308, 1.98026, -113.505, -76.4395, 128.761, -77.6696, -12.6301, -20.9399, -45.1932, -52.7182, 213.484
0.652, -1, -31.1904, 18.1599, 1.97447, -113.374, -76.458, 128.76, -77.7056, -12.5658, -20.9815, -45.2296, -52.722, 213.379
0.656, -1, -31.1553, 18.189, 1.96868, -113.244, -76.4765, 128.758, -77.7417, -12.5013, -21.0232, -45.2659, -52.7259, 213.273
0.66, -1, -31.1203, 18.2182, 1.96289, -113.113, -76.4951, 128.757, -77.7778, -12.4368, -21.065, -45.3023, -52.7297, 213.168
0.664, -1, -31.0852, 18.2474, 1.95709, -112.982, -76.5137, 128.755, -77.814, -12.3722, -21.1068, -45.3387, -52.7335, 213.062
0.668, -1, -31.05, 18.2766, 1.95128, -112.851, -76.5322, 128.754, -77.8502, -12.3076, -21.1486, -45.3752, -52.7373, 212.957
0.672, -1, -31.0148, 18.3059, 1.94547, -112.719, -76.5509, 128.752, -77.8864, -12.2429, -21.1905, -45.4117, -52.7411, 212.851
0.676, -1, -30.9796, 18.3351, 1.93965, -112.588, -76.5695, 128.751, -77.9226, -12.1781, -21.2324, -45.4482, -52.745, 212.745
0.68, -1, -30.9443, 18.3645, 1.93383, -112.457, -76.5881, 128.75, -77.9589, -12.1133, -21.2744, -45.4848, -52.7488, 212.639
0.684, -1, -30.909, 18.3938, 1.928, -112.325, -76.6068, 128.748, -77.9953, -12.0484, -21.3164, -45.5214, -52.7526, 212.533
0.688, -1, -30.8737, 18.4232, 1.92216, -112.193, -76.6255, 128.747, -78.0316, -11.9834, -21.3584, -45.5581, -52.7565, 212.427
0.692, -1, -30.8384, 18.4526, 1.91632, -112.061, -76.6442, 128.745, -78.068, -11.9184, -21.4005, -45.5947, -52.7603, 212.32
0.696, -1, -30.803, 18.482, 1.91048, -111.929, -76.6629, 128.744, -78.1045, -11.8533, -21.4426, -45.6315, -52.7642, 212.214
0.7, -1, -30.7675, 18.5115, 1.90462, -111.797, -76.6817, 128.742, -78.141, -11.7881, -21.4848, -45.6682, -52.768, 212.107
0.704, -1, -30.732, 18.541, 1.89876, -111.665, -76.7004, 128.741, -78.1775, -11.7229, -21.527, -45.705, -52.7719, 212.001
0.708, -1, -30.6965, 18.5705, 1.8929, -111.532, -76.7192, 128.739, -78.2141, -11.6576, -21.5693, -45.7419, -52.7757, 211.894
0.712, -1, -30.661, 18.6, 1.88702, -111.399, -76.738, 128.738, -78.2507, -11.5922, -21.6116, -45.7788, -52.7796, 211.787
0.716, -1, -30.6254, 18.6296, 1.88114, -111.267, -76.7569, 128.736, -78.2873, -11.5268, -21.654, -45.8157, -52.7835, 211.68
0.72, -1, -30.5898, 18.6592, 1.87526, -111.134, -76.7757, 128.735, -78.324, -11.4613, -21.6964, -45.8526, -52.7873, 211.573
0.724, -1, -30.5541, 18.6889, 1.86937, -111.001, -76.7946, 128.733, -78.3607, -11.3957, -21.7388, -45.8896, -52.7912, 211.466
0.728, -1, -30.5184, 18.7186, 1.86347, -110.868, -76.8134, 128.732, -78.3974, -11.33, -21.7813, -45.9267, -52.7951, 211.358
0.732, -1, -30.4826, 18.7483, 1.85757, -110.734, -76.8324, 128.73, -78.4342, -11.2643, -21.8238, -45.9637, -52.799, 211.251
0.736, -1, -30.4469, 18.778, 1.85166, -110.601, -76.8513, 128.729, -78.4711, -11.1985, -21.8664, -46.0008, -52.8029, 211.143
0.74, -1, -30.4111, 18.8078, 1.84574, -110.467, -76.8702, 128.728, -78.5079, -11.1327, -21.909, -46.038, -52.8068, 211.036
0.744, -1, -30.3752, 18.8376, 1.83982, -110.333, -76.8892, 128.726, -78.5449, -11.0667, -21.9517, -46.0752, -52.8107, 210.928
0.748, -1, -30.3393, 18.8675, 1.83389, -110.2, -76.9082, 128.725, -78.5818, -11.0007, -21.9944, -46.1124, -52.8146, 210.82
0.752, -1, -30.3034, 18.8973, 1.82795, -110.066, -76.9272, 128.723, -78.6188, -10.9346, -22.0372, -46.1497, -52.8185, 210.712
0.756, -1, -30.2674, 18.9272, 1.82201, -109.931, -76.9462, 128.722, -78.6558, -10.8685, -22.08, -46.187, -52.8224, 210.604
0.76, -1, -30.2314, 18.9572, 1.81606, -109.797, -76.9652, 128.72, -78.6929, -10.8023, -22.1229, -46.2244, -52.8263, 210.496
0.764, -1, -30.1953, 18.9871, 1.81011, -109.662, -76.9843, 128.719, -78.73, -10.736, -22.1658, -46.2618, -52.8302, 210.387
0.768, -1, -30.1592, 19.0171, 1.80415, -109.528, -77.0034, 128.717, -78.7672, -10.6696, -22.2087, -46.2992, -52.8342, 210.279
0.772, -1, -30.1231, 19.0472, 1.79818, -109.393, -77.0225, 128.716, -78.8044, -10.6032, -22.2517, -46.3367, -52.8381, 210.17
0.776, -1, -30.0869, 19.0773, 1.79221, -109.258, -77.0417, 128.714, -78.8416, -10.5366, -22.2948, -46.3742, -52.842, 210.061
0.78, -1, -30.0507, 19.1074, 1.78622, -109.123, -77.0608, 128.713, -78.8789, -10.4701, -22.3379, -46.4118, -52.846, 209.952
0.784, -1, -30.0145, 19.1375, 1.78024, -108.988, -77.08, 128.711, -78.9162, -10.4034, -22.381, -46.4494, -52.8499, 209.844
0.788, -1, -29.9782, 19.1677, 1.77424, -108.852, -77.0992, 128.71, -78.9536, -10.3366, -22.4242, -46.487, -52.8538, 209.734
0.792, -1, -29.9418, 19.1979, 1.76824, -108.717, -77.1184, 128.708, -78.991, -10.2698, -22.4674, -46.5247, -52.8578, 209.625
0.796, -1, -29.9055, 19.2281, 1.76223, -108.581, -77.1376, 128.707, -79.0284, -10.2029, -22.5107, -46.5625, -52.8617, 209.516
0.8, -1, -29.869, 19.2584, 1.75622, -108.445, -77.1569, 128.705, -79.0659, -10.136, -22.5541, -46.6002, -52.8657, 209.406
0.804, -1, -29.8326, 19.2887, 1.75019, -108.309, -77.1762, 128.704, -79.1035, -10.0689, -22.5975, -46.6381, -52.8697, 209.297
0.808, -1, -29.7961, 19.319, 1.74416, -108.173, -77.1955, 128.702, -79.141, -10.0018, -22.6409, -46.6759, -52.8736, 209.187
0.812, -1, -29.7595, 19.3494, 1.73813, -108.037, -77.2148, 128.701, -79.1787, -9.93462, -22.6844, -46.7138, -52.8776, 209.077
0.816, -1, -29.7229, 19.3798, 1.73209, -107.9, -77.2342, 128.699, -79.2163, -9.86734, -22.7279, -46.7518, -52.8816, 208.967
0.82, -1, -29.6863, 19.4103, 1.72604, -107.764, -77.2536, 128.698, -79.254, -9.79999, -22.7715, -46.7898, -52.8856, 208.857
0.824, -1, -29.6496, 19.4408, 1.71998, -107.627, -77.2729, 128.696, -79.2918, -9.73256, -22.8152, -46.8278, -52.8896, 208.747
0.828, -1, -29.6129, 19.4713, 1.71392, -107.49, -77.2924, 128.695, -79.3296, -9.66505, -22.8589, -46.8659, -52.8935, 208.636
0.832, -1, -29.5762, 19.5019, 1.70784, -107.353, -77.3118, 128.693, -79.3674, -9.59746, -22.9026, -46.904, -52.8975, 208.526
0.836, -1, -29.5394, 19.5324, 1.70177, -107.216, -77.3313, 128.692, -79.4053, -9.5298, -22.9464, -46.9422, -52.9015, 208.415
0.84, -1, -29.5025, 19.5631, 1.69568, -107.078, -77.3508, 128.69, -79.4432, -9.46205, -22.9902, -46.9804, -52.9055, 208.305
0.844, -1, -29.4656, 19.5937, 1.68959, -106.941, -77.3703, 128.689, -79.4812, -9.39422, -23.0341, -47.0187, -52.9096, 208.194
0.848, -1, -29.4287, 19.6244, 1.68349, -106.803, -77.3898, 128.687, -79.5192, -9.32632, -23.0781, -47.057, -52.9136, 208.083
0.852, -1, -29.3917, 19.6552, 1.67738, -106.665, -77.4094, 128.685, -79.5573, -9.25833, -23.1221, -47.0953, -52.9176, 207.972
0.856, -1, -29.3547, 19.686, 1.67127, -106.527, -77.4289, 128.684, -79.5954, -9.19026, -23.1661, -47.1337, -52.9216, 207.86
0.86, -1, -29.3177, 19.7168, 1.66515, -106.389, -77.4485, 128.682, -79.6336, -9.12211, -23.2103, -47.1722, -52.9256, 207.749
0.864, -1, -29.2805, 19.7476, 1.65902, -106.25, -77.4682, 128.681, -79.6718, -9.05387, -23.2544, -47.2107, -52.9297, 207.637
0.868, -1, -29.2434, 19.7785, 1.65288, -106.112, -77.4878, 128.679, -79.71, -8.98556, -23.2986, -47.2492, -52.9337, 207.526
0.872, -1, -29.2062, 19.8094, 1.64674, -105.973, -77.5075, 128.678, -79.7483, -8.91716, -23.3429, -47.2878, -52.9378, 207.414
0.876, -1, -29.1689, 19.8404, 1.64059, -105.834, -77.5272, 128.676, -79.7866, -8.84868, -23.3872, -47.3264, -52.9418, 207.302
0.88, -1, -29.1317, 19.8714, 1.63443, -105.695, -77.5469, 128.675, -79.825, -8.78011, -23.4316, -47.3651, -52.9459, 207.19
0.884, -1, -29.0943, 19.9024, 1.62826, -105.556, -77.5667, 128.673, -79.8635, -8.71146, -23.476, -47.4038, -52.9499, 207.077
0.888, -1, -29.0569, 19.9335, 1.62209, -105.416, -77.5864, 128.672, -79.902, -8.64272, -23.5205, -47.4426, -52.954, 206.965
0.892, -1, -29.0195, 19.9646, 1.61591, -105.277, -77.6062, 128.67, -79.9405, -8.5739, -23.565, -47.4814, -52.9581, 206.853
0.896, -1, -28.982, 19.9958, 1.60972, -105.137, -77.6261, 128.669, -79.9791, -8.505, -23.6096, -47.5203, -52.9621, 206.74
0.9, -1, -28.9445, 20.027, 1.60352, -104.997, -77.6459, 128.667, -80.0177, -8.43601, -23.6543, -47.5592, -52.9662, 206.627
0.904, -1, -28.9069, 20.0582, 1.59732, -104.857, -77.6658, 128.665, -80.0564, -8.36693, -23.699, -47.5982, -52.9703, 206.514
0.908, -1, -28.8693, 20.0895, 1.5911, -104.716, -77.6857, 128.664, -80.0951, -8.29776, -23.7438, -47.6372, -52.9744, 206.401
0.912, -1, -28.8317, 20.1208, 1.58488, -104.576, -77.7056, 128.662, -80.1339, -8.22851, -23.7886, -47.6763, -52.9785, 206.288
0.916, -1, -28.7939, 20.1521, 1.57866, -104.435, -77.7255, 128.661, -80.1727, -8.15917, -23.8335, -47.7154, -52.9826, 206.175
0.92, -1, -28.7562, 20.1835, 1.57242, -104.294, -77.7455, 128.659, -80.2116, -8.08974, -23.8784, -47.7546, -52.9867, 206.061
0.924, -1, -28.7184, 20.2149, 1.56618, -104.153, -77.7655, 128.658, -80.2505, -8.02023, -23.9234, -47.7938, -52.9908, 205.947
0.928, -1, -28.6805, 20.2464, 1.55992, -104.012, -77.7855, 128.656, -80.2895, -7.95062, -23.9684, -47.833, -52.9949, 205.834
0.932, -1, -28.6426, 20.2779, 1.55366, -103.871, -77.8056, 128.655, -80.3285, -7.88093, -24.0135, -47.8724, -52.999, 205.72
0.936, -1, -28.6047, 20.3095, 1.5474, -103.729, -77.8256, 128.653, -80.3675, -7.81114, -24.0587, -47.9117, -53.0032, 205.606
0.94, -1, -28.5667, 20.3411, 1.54112, -103.587, -77.8457, 128.651, -80.4067, -7.74126, -24.1039, -47.9511, -53.0073, 205.491
0.944, -1, -28.5286, 20.3727, 1.53484, -103.446, -77.8659, 128.65, -80.4458, -7.6713, -24.1492, -47.9906, -53.0114, 205.377
0.948, -1, -28.4905, 20.4044, 1.52854, -103.303, -77.886, 128.648, -80.4851, -7.60124, -24.1945, -48.0301, -53.0156, 205.262
0.952, -1, -28.4523, 20.4361, 1.52224, -103.161, -77.9062, 128.647, -80.5243, -7.53109, -24.2399, -48.0697, -53.0197, 205.148
0.956, -1, -28.4141, 20.4678, 1.51593, -103.019, -77.9264, 128.645, -80.5637, -7.46084, -24.2854, -48.1093, -53.0239, 205.033
0.96, -1, -28.3759, 20.4996, 1.50962, -102.876, -77.9466, 128.644, -80.603, -7.39051, -24.3309, -48.149, -53.028, 204.918
0.964, -1, -28.3376, 20.5315, 1.50329, -102.733, -77.9669, 128.642, -80.6425, -7.32008, -24.3765, -48.1887, -53.0322, 204.803
0.968, -1, -28.2992, 20.5634, 1.49696, -102.59, -77.9872, 128.64, -80.682, -7.24955, -24.4222, -48.2285, -53.0364, 204.688
0.972, -1, -28.2608, 20.5953, 1.49061, -102.447, -78.0075, 128.639, -80.7215, -7.17894, -24.4679, -48.2684, -53.0405, 204.572
0.976, -1, -28.2224, 20.6273, 1.48426, -102.303, -78.0278, 128.637, -80.7611, -7.10822, -24.5136, -48.3082, -53.0447, 204.456
0.98, -1, -28.1838, 20.6593, 1.4779, -102.16, -78.0482, 128.636, -80.8007, -7.03741, -24.5594, -48.3482, -53.0489, 204.341
0.984, -1, -28.1453, 20.6913, 1.47153, -102.016, -78.0686, 128.634, -80.8404, -6.96651, -24.6053, -48.3882, -53.0531, 204.225
0.988, -1, -28.1067, 20.7234, 1.46516, -101.872, -78.089, 128.632, -80.8802, -6.89551, -24.6513, -48.4282, -53.0573, 204.109
0.992, -1, -28.068, 20.7556, 1.45877, -101.728, -78.1095, 128.631, -80.92, -6.82441, -24.6973, -48.4684, -53.0615, 203.992
0.996, -1, -28.0293, 20.7878, 1.45238, -101.583, -78.1299, 128.629, -80.9599, -6.75321, -24.7434, -48.5085, -53.0657, 203.876
1, -1, -27.9905, 20.82, 1.44597, -101.438, -78.1504, 128.628, -80.9998, -6.68192, -24.7895, -48.5487, -53.0699, 203.759
1.004, -1, -27.9517, 20.8523, 1.43956, -101.294, -78.171, 128.626, -81.0397, -6.61052, -24.8357, -48.589, -53.0741, 203.643
1.008, -1, -27.9128, 20.8846, 1.43314, -101.149, -78.1916, 128.624, -81.0798, -6.53903, -24.882, -48.6293, -53.0784, 203.526
1.012, -1, -27.8738, 20.917, 1.42671, -101.003, -78.2121, 128.623, -81.1199, -6.46744, -24.9283, -48.6697, -53.0826, 203.409
1.016, -1, -27.8348, 20.9494, 1.42027, -100.858, -78.2328, 128.621, -81.16, -6.39575, -24.9747, -48.7102, -53.0868, 203.292
1.02, -1, -27.7958, 20.9818, 1.41382, -100.712, -78.2534, 128.62, -81.2002, -6.32396, -25.0212, -48.7507, -53.0911, 203.174
1.024, -1, -27.7567, 21.0143, 1.40736, -100.566, -78.2741, 128.618, -81.2404, -6.25206, -25.0677, -48.7912, -53.0953, 203.057
1.027, -1, -27.7175, 21.0469, 1.4009, -100.42, -78.2948, 128.616, -81.2808, -6.18007, -25.1143, -48.8318, -53.0996, 202.939
1.032, -1, -27.6783, 21.0795, 1.39442, -100.274, -78.3155, 128.615, -81.3211, -6.10797, -25.161, -48.8725, -53.1038, 202.821
1.036, -1, -27.639, 21.1121, 1.38794, -100.128, -78.3363, 128.613, -81.3615, -6.03577, -25.2077, -48.9132, -53.1081, 202.703
1.04, -1, -27.5997, 21.1448, 1.38144, -99.981, -78.3571, 128.611, -81.402, -5.96346, -25.2545, -48.954, -53.1124, 202.585
1.044, -1, -27.5603, 21.1775, 1.37494, -99.8341, -78.3779, 128.61, -81.4426, -5.89106, -25.3014, -48.9949, -53.1167, 202.467
1.048, -1, -27.5209, 21.2103, 1.36843, -99.687, -78.3988, 128.608, -81.4832, -5.81854, -25.3483, -49.0358, -53.121, 202.348
1.052, -1, -27.4814, 21.2432, 1.36191, -99.5397, -78.4197, 128.607, -81.5238, -5.74592, -25.3953, -49.0767, -53.1252, 202.229
1.055, -1, -27.4418, 21.276, 1.35538, -99.3922, -78.4406, 128.605, -81.5646, -5.6732, -25.4423, -49.1178, -53.1295, 202.11
1.06, -1, -27.4022, 21.309, 1.34883, -99.2444, -78.4615, 128.603, -81.6053, -5.60037, -25.4895, -49.1588, -53.1339, 201.991
1.064, -1, -27.3626, 21.3419, 1.34228, -99.0965, -78.4825, 128.602, -81.6462, -5.52743, -25.5367, -49.2, -53.1382, 201.872
1.068, -1, -27.3228, 21.375, 1.33572, -98.9483, -78.5035, 128.6, -81.6871, -5.45439, -25.584, -49.2412, -53.1425, 201.753
1.072, -1, -27.283, 21.408, 1.32915, -98.7999, -78.5246, 128.598, -81.728, -5.38124, -25.6313, -49.2825, -53.1468, 201.633
1.076, -1, -27.2432, 21.4412, 1.32257, -98.6513, -78.5457, 128.597, -81.769, -5.30797, -25.6787, -49.3238, -53.1511, 201.513
1.08, -1, -27.2033, 21.4743, 1.31598, -98.5024, -78.5668, 128.595, -81.8101, -5.2346, -25.7262, -49.3652, -53.1555, 201.393
1.084, -1, -27.1633, 21.5076, 1.30938, -98.3534, -78.5879, 128.593, -81.8513, -5.16112, -25.7738, -49.4066, -53.1598, 201.273
1.088, -1, -27.1233, 21.5408, 1.30277, -98.2041, -78.6091, 128.592, -81.8925, -5.08753, -25.8214, -49.4481, -53.1642, 201.153
1.091, -1, -27.0832, 21.5742, 1.29616, -98.0546, -78.6303, 128.59, -81.9337, -5.01383, -25.8691, -49.4897, -53.1685, 201.032
1.096, -1, -27.043, 21.6075, 1.28953, -97.9048, -78.6515, 128.589, -81.9751, -4.94001, -25.9169, -49.5314, -53.1729, 200.912
1.1, -1, -27.0028, 21.641, 1.28289, -97.7548, -78.6728, 128.587, -82.0165, -4.86608, -25.9647, -49.5731, -53.1773, 200.791
1.104, -1, -26.9625, 21.6744, 1.27624, -97.6046, -78.6941, 128.585, -82.0579, -4.79204, -26.0126, -49.6148, -53.1816, 200.67
1.108, -1, -26.9222, 21.708, 1.26958, -97.4542, -78.7154, 128.584, -82.0994, -4.71789, -26.0606, -49.6567, -53.186, 200.549
1.112, -1, -26.8818, 21.7415, 1.26291, -97.3036, -78.7368, 128.582, -82.141, -4.64362, -26.1087, -49.6986, -53.1904, 200.427
1.116, -1, -26.8413, 21.7752, 1.25623, -97.1527, -78.7581, 128.58, -82.1827, -4.56923, -26.1568, -49.7405, -53.1948, 200.306
1.119, -1, -26.8008, 21.8089, 1.24954, -97.0015, -78.7796, 128.579, -82.2244, -4.49473, -26.205, -49.7825, -53.1992, 200.184
1.124, -1, -26.7602, 21.8426, 1.24283, -96.8502, -78.801, 128.577, -82.2662, -4.42012, -26.2533, -49.8246, -53.2036, 200.062
1.128, -1, -26.7196, 21.8764, 1.23612, -96.6986, -78.8225, 128.575, -82.308, -4.34538, -26.3017, -49.8668, -53.208, 199.94
1.132, -1, -26.6789, 21.9102, 1.2294, -96.5467, -78.8441, 128.573, -82.3499, -4.27053, -26.3501, -49.909, -53.2125, 199.817
1.136, -1, -26.6381, 21.9441, 1.22267, -96.3946, -78.8656, 128.572, -82.3919, -4.19556, -26.3986, -49.9513, -53.2169, 199.695
1.14, -1, -26.5972, 21.9781, 1.21592, -96.2423, -78.8872, 128.57, -82.434, -4.12047, -26.4472, -49.9937, -53.2213, 199.572
1.144, -1, -26.5563, 22.0121, 1.20917, -96.0897, -78.9089, 128.568, -82.4761, -4.04526, -26.4959, -50.0361, -53.2258, 199.449
1.147, -1, -26.5154, 22.0461, 1.2024, -95.9369, -78.9305, 128.567, -82.5182, -3.96993, -26.5447, -50.0786, -53.2302, 199.326
1.152, -1, -26.4743, 22.0802, 1.19563, -95.7839, -78.9522, 128.565, -82.5605, -3.89448, -26.5935, -50.1212, -53.2347, 199.203
1.156, -1, -26.4332, 22.1144, 1.18884, -95.6305, -78.974, 128.563, -82.6028, -3.8189, -26.6424, -50.1638, -53.2392, 199.079
1.16, -1, -26.392, 22.1486, 1.18204, -95.477, -78.9958, 128.562, -82.6452, -3.74321, -26.6914, -50.2065, -53.2436, 198.955
1.164, -1, -26.3508, 22.1829, 1.17523, -95.3232, -79.0176, 128.56, -82.6877, -3.66739, -26.7405, -50.2493, -53.2481, 198.831
1.168, -1, -26.3095, 22.2172, 1.16841, -95.1691, -79.0394, 128.558, -82.7302, -3.59144, -26.7896, -50.2921, -53.2526, 198.707
1.172, -1, -26.2681, 22.2516, 1.16158, -95.0148, -79.0613, 128.557, -82.7728, -3.51537, -26.8388, -50.335, -53.2571, 198.583
1.175, -1, -26.2266, 22.2861, 1.15474, -94.8602, -79.0832, 128.555, -82.8154, -3.43917, -26.8882, -50.378, -53.2616, 198.458
1.18, -1, -26.1851, 22.3206, 1.14789, -94.7054, -79.1052, 128.553, -82.8582, -3.36285, -26.9375, -50.4211, -53.2661, 198.333
1.184, -1, -26.1435, 22.3552, 1.14102, -94.5503, -79.1272, 128.551, -82.901, -3.2864, -26.987, -50.4642, -53.2706, 198.208
1.188, -1, -26.1019, 22.3898, 1.13414, -94.395, -79.1492, 128.55, -82.9439, -3.20982, -27.0366, -50.5074, -53.2752, 198.083
1.192, -1, -26.0602, 22.4245, 1.12725, -94.2393, -79.1712, 128.548, -82.9868, -3.13311, -27.0862, -50.5507, -53.2797, 197.958
1.196, -1, -26.0184, 22.4592, 1.12035, -94.0835, -79.1933, 128.546, -83.0298, -3.05627, -27.136, -50.594, -53.2843, 197.832
1.2, -1, -25.9765, 22.494, 1.11344, -93.9273, -79.2155, 128.544, -83.0729, -2.9793, -27.1858, -50.6374, -53.2888, 197.706
1.204, -1, -25.9345, 22.5289, 1.10652, -93.7709, -79.2377, 128.543, -83.1161, -2.9022, -27.2357, -50.6809, -53.2934, 197.58
1.208, -1, -25.8925, 22.5638, 1.09958, -93.6142, -79.2599, 128.541, -83.1594, -2.82497, -27.2856, -50.7245, -53.2979, 197.454
1.212, -1, -25.8504, 22.5988, 1.09263, -93.4573, -79.2821, 128.539, -83.2027, -2.7476, -27.3357, -50.7681, -53.3025, 197.328
1.216, -1, -25.8083, 22.6338, 1.08567, -93.3001, -79.3044, 128.538, -83.2461, -2.6701, -27.3859, -50.8118, -53.3071, 197.201
1.22, -1, -25.7661, 22.6689, 1.0787, -93.1426, -79.3268, 128.536, -83.2896, -2.59246, -27.4361, -50.8556, -53.3117, 197.074
1.224, -1, -25.7237, 22.7041, 1.07172, -92.9848, -79.3491, 128.534, -83.3331, -2.51469, -27.4864, -50.8995, -53.3163, 196.947
1.228, -1, -25.6814, 22.7393, 1.06472, -92.8268, -79.3715, 128.532, -83.3767, -2.43678, -27.5369, -50.9435, -53.3209, 196.819
1.232, -1, -25.6389, 22.7746, 1.05771, -92.6684, -79.394, 128.531, -83.4204, -2.35874, -27.5874, -50.9875, -53.3255, 196.692
1.236, -1, -25.5964, 22.8099, 1.05069, -92.5098, -79.4165, 128.529, -83.4642, -2.28055, -27.638, -51.0316, -53.3301, 196.564
1.24, -1, -25.5538, 22.8454, 1.04366, -92.3509, -79.439, 128.527, -83.5081, -2.20222, -27.6887, -51.0758, -53.3347, 196.436
1.244, -1, -25.5111, 22.8808, 1.03661, -92.1918, -79.4616, 128.525, -83.552, -2.12376, -27.7394, -51.12, -53.3394, 196.308
1.248, -1, -25.4683, 22.9164, 1.02955, -92.0323, -79.4842, 128.524, -83.596, -2.04515, -27.7903, -51.1644, -53.344, 196.179
1.252, -1, -25.4255, 22.952, 1.02248, -91.8726, -79.5068, 128.522, -83.6401, -1.9664, -27.8413, -51.2088, -53.3487, 196.05
1.256, -1, -25.3826, 22.9877, 1.0154, -91.7125, -79.5295, 128.52, -83.6843, -1.88751, -27.8923, -51.2533, -53.3534, 195.922
1.26, -1, -25.3396, 23.0234, 1.0083, -91.5522, -79.5523, 128.518, -83.7286, -1.80847, -27.9435, -51.2979, -53.358, 195.792
1.264, -1, -25.2965, 23.0592, 1.00119, -91.3916, -79.575, 128.516, -83.7729, -1.72929, -27.9947, -51.3425, -53.3627, 195.663
1.267, -1, -25.2533, 23.0951, 0.994067, -91.2306, -79.5978, 128.515, -83.8173, -1.64996, -28.0461, -51.3873, -53.3674, 195.533
1.272, -1, -25.2101, 23.131, 0.98693, -91.0694, -79.6207, 128.513, -83.8618, -1.57049, -28.0975, -51.4321, -53.3721, 195.403
1.276, -1, -25.1668, 23.167, 0.97978, -90.9079, -79.6436, 128.511, -83.9064, -1.49087, -28.149, -51.477, -53.3768, 195.273
1.28, -1, -25.1234, 23.2031, 0.972617, -90.7461, -79.6666, 128.509, -83.9511, -1.4111, -28.2007, -51.522, -53.3815, 195.143
1.284, -1, -25.0799, 23.2392, 0.965441, -90.5839, -79.6895, 128.507, -83.9958, -1.33118, -28.2524, -51.5671, -53.3862, 195.012
1.288, -1, -25.0364, 23.2754, 0.958251, -90.4215, -79.7126, 128.506, -84.0407, -1.25111, -28.3042, -51.6123, -53.391, 194.881
1.292, -1, -24.9927, 23.3117, 0.951047, -90.2588, -79.7357, 128.504, -84.0856, -1.17088, -28.3561, -51.6575, -53.3957, 194.75
1.295, -1, -24.949, 23.348, 0.94383, -90.0957, -79.7588, 128.502, -84.1306, -1.09051, -28.4081, -51.7029, -53.4005, 194.619
1.3, -1, -24.9052, 23.3844, 0.936599, -89.9324, -79.7819, 128.5, -84.1757, -1.00998, -28.4602, -51.7483, -53.4052, 194.487
1.304, -1, -24.8613, 23.4209, 0.929354, -89.7687, -79.8051, 128.498, -84.2209, -0.929293, -28.5125, -51.7938, -53.41, 194.355
1.308, -1, -24.8173, 23.4575, 0.922095, -89.6047, -79.8284, 128.497, -84.2661, -0.848453, -28.5648, -51.8394, -53.4148, 194.223
1.312, -1, -24.7733, 23.4941, 0.914822, -89.4404, -79.8517, 128.495, -84.3115, -0.767456, -28.6172, -51.8851, -53.4196, 194.09
1.316, -1, -24.7291, 23.5308, 0.907535, -89.2757, -79.875, 128.493, -84.3569, -0.686301, -28.6697, -51.9309, -53.4244, 193.958
1.32, -1, -24.6849, 23.5675, 0.900233, -89.1108, -79.8984, 128.491, -84.4025, -0.604987, -28.7223, -51.9768, -53.4292, 193.825
1.324, -1, -24.6406, 23.6044, 0.892918, -88.9455, -79.9219, 128.489, -84.4481, -0.523513, -28.7751, -52.0227, -53.434, 193.692
1.328, -1, -24.5962, 23.6413, 0.885588, -88.7799, -79.9454, 128.488, -84.4938, -0.441877, -28.8279, -52.0688, -53.4388, 193.558
1.332, -1, -24.5517, 23.6783, 0.878243, -88.614, -79.9689, 128.486, -84.5396, -0.360079, -28.8808, -52.1149, -53.4436, 193.424
1.336, -1, -24.5071, 23.7153, 0.870884, -88.4477, -79.9925, 128.484, -84.5855, -0.278118, -28.9339, -52.1612, -53.4485, 193.29
1.34, -1, -24.4624, 23.7525, 0.86351, -88.2811, -80.0161, 128.482, -84.6315, -0.195992, -28.987, -52.2075, -53.4533, 193.156
1.344, -1, -24.4177, 23.7897, 0.856121, -88.1142, -80.0397, 128.48, -84.6775, -0.1137, -29.0403, -52.2539, -53.4582, 193.022
1.348, -1, -24.3728, 23.827, 0.848717, -87.9469, -80.0635, 128.478, -84.7237, -0.0312411, -29.0936, -52.3004, -53.4631, 192.887
1.352, -1, -24.3279, 23.8643, 0.841298, -87.7793, -80.0872, 128.476, -84.77, 0.0513859, -29.1471, -52.347, -53.468, 192.752
1.356, -1, -24.2828, 23.9017, 0.833864, -87.6113, -80.1111, 128.475, -84.8163, 0.134182, -29.2007, -52.3937, -53.4729, 192.616
1.36, -1, -24.2377, 23.9393, 0.826415, -87.443, -80.1349, 128.473, -84.8628, 0.217149, -29.2544, -52.4405, -53.4778, 192.481
1.364, -1, -24.1925, 23.9769, 0.81895, -87.2744, -80.1588, 128.471, -84.9093, 0.300288, -29.3082, -52.4874, -53.4827, 192.345
1.368, -1, -24.1471, 24.0145, 0.81147, -87.1054, -80.1828, 128.469, -84.956, 0.383599, -29.3621, -52.5344, -53.4876, 192.209
1.372, -1, -24.1017, 24.0523, 0.803974, -86.936, -80.2068, 128.467, -85.0027, 0.467085, -29.4161, -52.5815, -53.4925, 192.072
1.376, -1, -24.0562, 24.0901, 0.796462, -86.7663, -80.2309, 128.465, -85.0496, 0.550747, -29.4703, -52.6287, -53.4975, 191.935
1.38, -1, -24.0106, 24.128, 0.788935, -86.5962, -80.255, 128.463, -85.0965, 0.634585, -29.5245, -52.676, -53.5024, 191.798
1.384, -1, -23.9649, 24.166, 0.781392, -86.4258, -80.2792, 128.461, -85.1436, 0.718602, -29.5789, -52.7234, -53.5074, 191.661
1.388, -1, -23.9191, 24.2041, 0.773832, -86.255, -80.3034, 128.46, -85.1907, 0.802798, -29.6334, -52.7709, -53.5124, 191.523
1.392, -1, -23.8732, 24.2422, 0.766257, -86.0838, -80.3276, 128.458, -85.238, 0.887174, -29.688, -52.8185, -53.5174, 191.386
1.396, -1, -23.8272, 24.2805, 0.758665, -85.9123, -80.352, 128.456, -85.2853, 0.971733, -29.7427, -52.8662, -53.5224, 191.247
1.4, -1, -23.7811, 24.3188, 0.751057, -85.7404, -80.3763, 128.454, -85.3327, 1.05648, -29.7975, -52.914, -53.5274, 191.109
1.404, -1, -23.7349, 24.3572, 0.743432, -85.5681, -80.4008, 128.452, -85.3803, 1.1414, -29.8525, -52.9619, -53.5324, 190.97
1.408, -1, -23.6886, 24.3957, 0.735791, -85.3954, -80.4253, 128.45, -85.428, 1.22652, -29.9076, -53.0099, -53.5374, 190.831
1.412, -1, -23.6422, 24.4342, 0.728132, -85.2224, -80.4498, 128.448, -85.4757, 1.31182, -29.9628, -53.058, -53.5425, 190.691
1.416, -1, -23.5957, 24.4729, 0.720457, -85.049, -80.4744, 128.446, -85.5236, 1.39731, -30.0181, -53.1063, -53.5475, 190.552
1.42, -1, -23.5491, 24.5116, 0.712765, -84.8751, -80.499, 128.444, -85.5716, 1.48299, -30.0735, -53.1546, -53.5526, 190.411
1.424, -1, -23.5024, 24.5505, 0.705055, -84.7009, -80.5237, 128.442, -85.6196, 1.56887, -30.1291, -53.203, -53.5577, 190.271
1.428, -1, -23.4555, 24.5894, 0.697328, -84.5263, -80.5485, 128.44, -85.6678, 1.65493, -30.1848, -53.2516, -53.5628, 190.13
1.432, -1, -23.4086, 24.6284, 0.689584, -84.3514, -80.5733, 128.439, -85.7161, 1.7412, -30.2406, -53.3002, -53.5679, 189.989
1.436, -1, -23.3616, 24.6675, 0.681822, -84.176, -80.5982, 128.437, -85.7646, 1.82765, -30.2966, -53.349, -53.573, 189.848
1.44, -1, -23.3144, 24.7067, 0.674043, -84.0002, -80.6231, 128.435, -85.8131, 1.91431, -30.3527, -53.3979, -53.5781, 189.706
1.444, -1, -23.2672, 24.7459, 0.666245, -83.824, -80.6481, 128.433, -85.8617, 2.00117, -30.4089, -53.4469, -53.5832, 189.564
1.448, -1, -23.2198, 24.7853, 0.65843, -83.6474, -80.6731, 128.431, -85.9105, 2.08823, -30.4652, -53.496, -53.5884, 189.422
1.452, -1, -23.1723, 24.8248, 0.650596, -83.4704, -80.6982, 128.429, -85.9593, 2.17549, -30.5217, -53.5452, -53.5935, 189.279
1.456, -1, -23.1248, 24.8643, 0.642744, -83.2929, -80.7234, 128.427, -86.0083, 2.26295, -30.5783, -53.5945, -53.5987, 189.136
1.46, -1, -23.0771, 24.9039, 0.634874, -83.1151, -80.7486, 128.425, -86.0574, 2.35062, -30.635, -53.644, -53.6039, 188.993
1.464, -1, -23.0293, 24.9437, 0.626984, -82.9368, -80.7739, 128.423, -86.1066, 2.4385, -30.6919, -53.6936, -53.6091, 188.849
1.468, -1, -22.9813, 24.9835, 0.619077, -82.7581, -80.7992, 128.421, -86.1559, 2.52659, -30.7489, -53.7433, -53.6143, 188.705
1.472, -1, -22.9333, 25.0234, 0.61115, -82.579, -80.8246, 128.419, -86.2054, 2.61489, -30.806, -53.7931, -53.6195, 188.561
1.476, -1, -22.8851, 25.0635, 0.603205, -82.3994, -80.8501, 128.417, -86.2549, 2.70341, -30.8633, -53.843, -53.6247, 188.416
1.48, -1, -22.8369, 25.1036, 0.59524, -82.2194, -80.8756, 128.415, -86.3046, 2.79213, -30.9207, -53.893, -53.63, 188.271
1.484, -1, -22.7885, 25.1438, 0.587256, -82.039, -80.9012, 128.413, -86.3544, 2.88108, -30.9783, -53.9432, -53.6352, 188.126
1.488, -1, -22.74, 25.1841, 0.579252, -81.8581, -80.9268, 128.411, -86.4043, 2.97024, -31.036, -53.9935, -53.6405, 187.98
1.492, -1, -22.6913, 25.2245, 0.571229, -81.6768, -80.9525, 128.409, -86.4544, 3.05962, -31.0938, -54.0439, -53.6458, 187.834
1.496, -1, -22.6426, 25.265, 0.563186, -81.495, -80.9783, 128.407, -86.5046, 3.14922, -31.1518, -54.0945, -53.6511, 187.688
1.5, -1, -22.5937, 25.3057, 0.555122, -81.3128, -81.0041, 128.405, -86.5548, 3.23905, -31.2099, -54.1451, -53.6564, 187.541
1.504, -1, -22.5447, 25.3464, 0.547039, -81.1302, -81.03, 128.403, -86.6053, 3.3291, -31.2682, -54.1959, -53.6617, 187.394
1.508, -1, -22.4956, 25.3872, 0.538935, -80.947, -81.056, 128.401, -86.6558, 3.41938, -31.3266, -54.2469, -53.6671, 187.246
1.512, -1, -22.4464, 25.4281, 0.530811, -80.7634, -81.082, 128.399, -86.7065, 3.50988, -31.3852, -54.2979, -53.6724, 187.098
1.516, -1, -22.397, 25.4692, 0.522666, -80.5793, -81.1081, 128.397, -86.7573, 3.60062, -31.4439, -54.3491, -53.6778, 186.95
1.52, -1, -22.3475, 25.5103, 0.514501, -80.3948, -81.1343, 128.395, -86.8083, 3.69159, -31.5028, -54.4004, -53.6832, 186.801
1.524, -1, -22.2979, 25.5515, 0.506314, -80.2098, -81.1605, 128.393, -86.8593, 3.7828, -31.5618, -54.4519, -53.6885, 186.652
1.528, -1, -22.2481, 25.5929, 0.498106, -80.0243, -81.1868, 128.391, -86.9105, 3.87424, -31.621, -54.5034, -53.694, 186.502
1.532, -1, -22.1982, 25.6343, 0.489877, -79.8383, -81.2132, 128.389, -86.9619, 3.96592, -31.6803, -54.5552, -53.6994, 186.353
1.536, -1, -22.1482, 25.6759, 0.481626, -79.6518, -81.2397, 128.386, -87.0133, 4.05785, -31.7398, -54.607, -53.7048, 186.202
1.54, -1, -22.0981, 25.7176, 0.473354, -79.4649, -81.2662, 128.384, -87.0649, 4.15001, -31.7994, -54.659, -53.7103, 186.052
1.544, -1, -22.0478, 25.7594, 0.46506, -79.2774, -81.2927, 128.382, -87.1167, 4.24242, -31.8592, -54.7111, -53.7157, 185.901
1.548, -1, -21.9974, 25.8013, 0.456744, -79.0894, -81.3194, 128.38, -87.1686, 4.33508, -31.9192, -54.7634, -53.7212, 185.749
1.552, -1, -21.9468, 25.8433, 0.448405, -78.901, -81.3461, 128.378, -87.2206, 4.42798, -31.9793, -54.8158, -53.7267, 185.597
1.556, -1, -21.8961, 25.8854, 0.440044, -78.712, -81.3729, 128.376, -87.2728, 4.52114, -32.0396, -54.8683, -53.7322, 185.445
1.56, -1, -21.8453, 25.9276, 0.43166, -78.5225, -81.3998, 128.374, -87.3251, 4.61455, -32.1, -54.921, -53.7377, 185.292
1.564, -1, -21.7943, 25.97, 0.423254, -78.3325, -81.4267, 128.372, -87.3775, 4.70822, -32.1606, -54.9739, -53.7432, 185.139
1.568, -1, -21.7432, 26.0125, 0.414824, -78.142, -81.4537, 128.37, -87.4301, 4.80214, -32.2214, -55.0268, -53.7488, 184.986
1.572, -1, -21.692, 26.0551, 0.406371, -77.9509, -81.4808, 128.368, -87.4829, 4.89633, -32.2823, -55.08, -53.7544, 184.832
1.576, -1, -21.6406, 26.0978, 0.397895, -77.7593, -81.508, 128.366, -87.5357, 4.99077, -32.3435, -55.1333, -53.7599, 184.677
1.58, -1, -21.589, 26.1406, 0.389395, -77.5672, -81.5352, 128.363, -87.5888, 5.08548, -32.4047, -55.1867, -53.7655, 184.522
1.584, -1, -21.5374, 26.1836, 0.380871, -77.3745, -81.5626, 128.361, -87.642, 5.18047, -32.4662, -55.2402, -53.7712, 184.367
1.588, -1, -21.4855, 26.2266, 0.372323, -77.1813, -81.59, 128.359, -87.6953, 5.27571, -32.5278, -55.294, -53.7768, 184.211
1.592, -1, -21.4336, 26.2698, 0.363751, -76.9875, -81.6174, 128.357, -87.7488, 5.37124, -32.5896, -55.3479, -53.7824, 184.055
1.596, -1, -21.3814, 26.3131, 0.355154, -76.7932, -81.645, 128.355, -87.8024, 5.46703, -32.6516, -55.4019, -53.7881, 183.899
1.6, -1, -21.3291, 26.3566, 0.346532, -76.5983, -81.6726, 128.353, -87.8562, 5.56311, -32.7138, -55.4561, -53.7938, 183.742
1.604, -1, -21.2767, 26.4002, 0.337886, -76.4028, -81.7003, 128.351, -87.9102, 5.65946, -32.7762, -55.5104, -53.7995, 183.584
1.608, -1, -21.2241, 26.4439, 0.329214, -76.2068, -81.7281, 128.348, -87.9643, 5.7561, -32.8387, -55.5649, -53.8052, 183.426
1.612, -1, -21.1714, 26.4877, 0.320516, -76.0102, -81.756, 128.346, -88.0186, 5.85302, -32.9014, -55.6196, -53.8109, 183.268
1.616, -1, -21.1185, 26.5317, 0.311793, -75.813, -81.784, 128.344, -88.073, 5.95024, -32.9643, -55.6744, -53.8167, 183.109
1.62, -1, -21.0654, 26.5758, 0.303044, -75.6152, -81.812, 128.342, -88.1276, 6.04774, -33.0274, -55.7294, -53.8224, 182.949
1.624, -1, -21.0122, 26.62, 0.294269, -75.4168, -81.8401, 128.34, -88.1824, 6.14553, -33.0907, -55.7846, -53.8282, 182.79
1.628, -1, -20.9588, 26.6644, 0.285467, -75.2178, -81.8684, 128.337, -88.2373, 6.24363, -33.1541, -55.8399, -53.834, 182.629
1.632, -1, -20.9053, 26.7088, 0.276638, -75.0182, -81.8967, 128.335, -88.2924, 6.34202, -33.2178, -55.8954, -53.8398, 182.468
1.636, -1, -20.8516, 26.7535, 0.267783, -74.818, -81.9251, 128.333, -88.3477, 6.44071, -33.2817, -55.9511, -53.8456, 182.307
1.64, -1, -20.7977, 26.7983, 0.2589, -74.6172, -81.9535, 128.331, -88.4031, 6.53971, -33.3457, -56.0069, -53.8515, 182.145
1.644, -1, -20.7436, 26.8432, 0.24999, -74.4157, -81.9821, 128.329, -88.4587, 6.63902, -33.41, -56.063, -53.8574, 181.983
1.648, -1, -20.6894, 26.8882, 0.241052, -74.2136, -82.0107, 128.326, -88.5145, 6.73864, -33.4744, -56.1192, -53.8633, 181.82
1.652, -1, -20.635, 26.9334, 0.232085, -74.0109, -82.0395, 128.324, -88.5705, 6.83858, -33.5391, -56.1755, -53.8692, 181.657
1.656, -1, -20.5805, 26.9788, 0.223091, -73.8075, -82.0683, 128.322, -88.6266, 6.93883, -33.604, -56.2321, -53.8751, 181.493
1.66, -1, -20.5257, 27.0243, 0.214068, -73.6035, -82.0973, 128.32, -88.683, 7.0394, -33.669, -56.2888, -53.881, 181.328
1.664, -1, -20.4708, 27.0699, 0.205015, -73.3988, -82.1263, 128.317, -88.7395, 7.1403, -33.7343, -56.3457, -53.887, 181.164
1.668, -1, -20.4157, 27.1157, 0.195934, -73.1935, -82.1554, 128.315, -88.7961, 7.24153, -33.7998, -56.4028, -53.893, 180.998
1.672, -1, -20.3604, 27.1616, 0.186823, -72.9875, -82.1846, 128.313, -88.853, 7.34309, -33.8655, -56.4601, -53.899, 180.832
1.676, -1, -20.305, 27.2077, 0.177682, -72.7808, -82.2139, 128.31, -88.9101, 7.44498, -33.9315, -56.5176, -53.905, 180.665
1.68, -1, -20.2493, 27.2539, 0.168511, -72.5734, -82.2433, 128.308, -88.9673, 7.54722, -33.9976, -56.5752, -53.911, 180.498
1.684, -1, -20.1935, 27.3003, 0.159309, -72.3653, -82.2728, 128.306, -89.0248, 7.64979, -34.064, -56.6331, -53.9171, 180.331
1.688, -1, -20.1375, 27.3469, 0.150076, -72.1565, -82.3024, 128.304, -89.0824, 7.75271, -34.1306, -56.6911, -53.9232, 180.162
1.692, -1, -20.0813, 27.3936, 0.140812, -71.9471, -82.3321, 128.301, -89.1402, 7.85598, -34.1974, -56.7494, -53.9293, 179.994
1.696, -1, -20.0249, 27.4404, 0.131516, -71.7368, -82.3619, 128.299, -89.1983, 7.9596, -34.2644, -56.8078, -53.9354, 179.824
1.7, -1, -19.9683, 27.4875, 0.122189, -71.5259, -82.3918, 128.297, -89.2565, 8.06358, -34.3317, -56.8665, -53.9416, 179.654
1.704, -1, -19.9115, 27.5347, 0.112829, -71.3143, -82.4219, 128.294, -89.3149, 8.16792, -34.3992, -56.9253, -53.9477, 179.484
1.708, -1, -19.8545, 27.582, 0.103437, -71.1019, -82.452, 128.292, -89.3736, 8.27262, -34.467, -56.9844, -53.9539, 179.313
1.712, -1, -19.7973, 27.6295, 0.0940127, -70.8887, -82.4822, 128.29, -89.4324, 8.37769, -34.535, -57.0436, -53.9601, 179.141
1.716, -1, -19.7399, 27.6772, 0.0845547, -70.6748, -82.5125, 128.287, -89.4915, 8.48314, -34.6032, -57.1031, -53.9664, 178.969
1.72, -1, -19.6823, 27.7251, 0.0750632, -70.4602, -82.543, 128.285, -89.5507, 8.58895, -34.6716, -57.1628, -53.9726, 178.796
1.724, -1, -19.6245, 27.7731, 0.0655379, -70.2447, -82.5735, 128.282, -89.6102, 8.69515, -34.7404, -57.2227, -53.9789, 178.622
1.728, -1, -19.5665, 27.8213, 0.0559783, -70.0285, -82.6042, 128.28, -89.6699, 8.80174, -34.8093, -57.2828, -53.9852, 178.448
1.732, -1, -19.5083, 27.8697, 0.0463842, -69.8115, -82.6349, 128.278, -89.7298, 8.90871, -34.8785, -57.3432, -53.9915, 178.273
1.736, -1, -19.4499, 27.9183, 0.0367551, -69.5937, -82.6658, 128.275, -89.7899, 9.01607, -34.948, -57.4037, -53.9979, 178.097
1.74, -1, -19.3912, 27.967, 0.0270907, -69.3751, -82.6968, 128.273, -89.8503, 9.12383, -35.0177, -57.4645, -54.0042, 177.921
1.744, -1, -19.3323, 28.0159, 0.0173905, -69.1557, -82.7279, 128.27, -89.9109, 9.23199, -35.0877, -57.5255, -54.0106, 177.744
1.748, -1, -19.2732, 28.0651, 0.00765413, -68.9355, -82.7591, 128.268, -89.9717, 9.34056, -35.1579, -57.5867, -54.017, 177.567
1.752, -1, -19.2139, 28.1144, -0.00211878, -68.7144, -82.7905, 128.265, -90.0327, 9.44954, -35.2284, -57.6482, -54.0235, 177.389
1.756, -1, -19.1544, 28.1638, -0.0119286, -68.4925, -82.822, 128.263, -90.094, 9.55893, -35.2992, -57.7099, -54.0299, 177.21
1.76, -1, -19.0946, 28.2135, -0.0217758, -68.2698, -82.8535, 128.261, -90.1555, 9.66875, -35.3703, -57.7718, -54.0364, 177.031
1.764, -1, -19.0346, 28.2634, -0.0316608, -68.0461, -82.8852, 128.258, -90.2172, 9.77898, -35.4416, -57.834, -54.0429, 176.85
1.768, -1, -18.9743, 28.3134, -0.041584, -67.8216, -82.9171, 128.256, -90.2792, 9.88965, -35.5132, -57.8964, -54.0495, 176.67
1.772, -1, -18.9138, 28.3637, -0.051546, -67.5963, -82.949, 128.253, -90.3414, 10.0008, -35.5851, -57.9591, -54.056, 176.488
1.776, -1, -18.8531, 28.4141, -0.0615477, -67.37, -82.9811, 128.251, -90.4039, 10.1123, -35.6572, -58.022, -54.0626, 176.306
1.78, -1, -18.7922, 28.4648, -0.0715903, -67.1428, -83.0133, 128.248, -90.4666, 10.2243, -35.7297, -58.0852, -54.0693, 176.123
1.784, -1, -18.731, 28.5157, -0.0816756, -66.9147, -83.0457, 128.246, -90.5296, 10.3367, -35.8024, -58.1486, -54.0759, 175.939
1.788, -1, -18.6696, 28.5667, -0.091805, -66.6857, -83.0781, 128.243, -90.5928, 10.4496, -35.8755, -58.2123, -54.0826, 175.754
1.792, -1, -18.6079, 28.6179, -0.101979, -66.4558, -83.1107, 128.24, -90.6563, 10.563, -35.9488, -58.2762, -54.0893, 175.569
1.796, -1, -18.546, 28.6694, -0.112198, -66.225, -83.1435, 128.238, -90.72, 10.6768, -36.0224, -58.3404, -54.096, 175.383
1.8, -1, -18.4839, 28.721, -0.122462, -65.9932, -83.1763, 128.235, -90.784, 10.791, -36.0964, -58.4048, -54.1028, 175.196
1.804, -1, -18.4216, 28.7728, -0.132769, -65.7605, -83.2093, 128.233, -90.8483, 10.9057, -36.1706, -58.4696, -54.1095, 175.009
1.808, -1, -18.3591, 28.8248, -0.143119, -65.5269, -83.2425, 128.23, -90.9127, 11.0208, -36.2452, -58.5345, -54.1163, 174.82
1.812, -1, -18.2963, 28.877, -0.153511, -65.2924, -83.2757, 128.228, -90.9775, 11.1364, -36.32, -58.5998, -54.1232, 174.631
1.816, -1, -18.2333, 28.9294, -0.163944, -65.057, -83.3091, 128.225, -91.0424, 11.2524, -36.3951, -58.6652, -54.1301, 174.441
1.82, -1, -18.17, 28.982, -0.174418, -64.8208, -83.3426, 128.222, -91.1076, 11.3689, -36.4705, -58.731, -54.137, 174.251
1.824, -1, -18.1065, 29.0348, -0.18493, -64.5836, -83.3762, 128.22, -91.1731, 11.4857, -36.5462, -58.7969, -54.1439, 174.06
1.828, -1, -18.0428, 29.0878, -0.19548, -64.3457, -83.41, 128.217, -91.2388, 11.603, -36.6222, -58.8631, -54.1508, 173.868
1.832, -1, -17.9789, 29.141, -0.206065, -64.1068, -83.4438, 128.214, -91.3047, 11.7207, -36.6984, -58.9296, -54.1578, 173.675
1.836, -1, -17.9147, 29.1943, -0.216684, -63.8672, -83.4778, 128.212, -91.3708, 11.8389, -36.7748, -58.9962, -54.1648, 173.482
1.84, -1, -17.8503, 29.2479, -0.227335, -63.6268, -83.5119, 128.209, -91.4372, 11.9574, -36.8516, -59.0631, -54.1718, 173.288
1.844, -1, -17.7857, 29.3016, -0.238018, -63.3855, -83.5461, 128.206, -91.5038, 12.0763, -36.9285, -59.1302, -54.1788, 173.094
1.848, -1, -17.7208, 29.3556, -0.248733, -63.1434, -83.5804, 128.204, -91.5706, 12.1956, -37.0058, -59.1975, -54.1859, 172.899
1.852, -1, -17.6557, 29.4097, -0.25948, -62.9006, -83.6149, 128.201, -91.6376, 12.3153, -37.0832, -59.265, -54.1929, 172.703
1.856, -1, -17.5903, 29.464, -0.27026, -62.6569, -83.6494, 128.198, -91.7049, 12.4355, -37.161, -59.3328, -54.2, 172.507
1.86, -1, -17.5248, 29.5185, -0.281074, -62.4124, -83.6841, 128.196, -91.7724, 12.556, -37.2389, -59.4007, -54.2072, 172.31
1.864, -1, -17.459, 29.5732, -0.291922, -62.1672, -83.7188, 128.193, -91.8401, 12.6769, -37.3172, -59.469, -54.2143, 172.112
1.868, -1, -17.3929, 29.6281, -0.302805, -61.921, -83.7538, 128.19, -91.9081, 12.7982, -37.3957, -59.5374, -54.2215, 171.914
1.872, -1, -17.3267, 29.6831, -0.313724, -61.6741, -83.7888, 128.188, -91.9762, 12.9199, -37.4744, -59.6061, -54.2287, 171.715
1.876, -1, -17.2602, 29.7384, -0.324679, -61.4263, -83.8239, 128.185, -92.0446, 13.0421, -37.5535, -59.6749, -54.2359, 171.515
1.88, -1, -17.1935, 29.7938, -0.335671, -61.1777, -83.8592, 128.182, -92.1133, 13.1647, -37.6328, -59.7441, -54.2431, 171.315
1.884, -1, -17.1266, 29.8494, -0.3467, -60.9282, -83.8945, 128.179, -92.1822, 13.2876, -37.7123, -59.8134, -54.2504, 171.114
1.888, -1, -17.0594, 29.9053, -0.357767, -60.6779, -83.93, 128.177, -92.2513, 13.411, -37.7922, -59.883, -54.2577, 170.912
1.892, -1, -16.992, 29.9613, -0.368872, -60.4267, -83.9656, 128.174, -92.3206, 13.5349, -37.8723, -59.9529, -54.265, 170.71
1.896, -1, -16.9243, 30.0175, -0.380017, -60.1745, -84.0014, 128.171, -92.3902, 13.6592, -37.9527, -60.023, -54.2724, 170.507
1.9, -1, -16.8564, 30.0739, -0.3912, -59.9215, -84.0373, 128.168, -92.4601, 13.7839, -38.0334, -60.0933, -54.2797, 170.303
1.904, -1, -16.7883, 30.1305, -0.402424, -59.6676, -84.0733, 128.165, -92.5302, 13.9091, -38.1144, -60.1639, -54.2871, 170.098
1.908, -1, -16.7199, 30.1873, -0.413687, -59.4128, -84.1094, 128.163, -92.6005, 14.0347, -38.1956, -60.2348, -54.2946, 169.893
1.912, -1, -16.6513, 30.2444, -0.424992, -59.157, -84.1457, 128.16, -92.6712, 14.1608, -38.2772, -60.3059, -54.302, 169.687
1.916, -1, -16.5824, 30.3016, -0.436337, -58.9003, -84.1821, 128.157, -92.742, 14.2873, -38.3591, -60.3773, -54.3095, 169.48
1.92, -1, -16.5133, 30.3591, -0.447725, -58.6427, -84.2186, 128.154, -92.8132, 14.4143, -38.4413, -60.4489, -54.317, 169.272
1.924, -1, -16.4438, 30.4168, -0.459155, -58.384, -84.2553, 128.151, -92.8846, 14.5418, -38.5237, -60.5208, -54.3245, 169.064
1.928, -1, -16.3742, 30.4747, -0.470627, -58.1244, -84.2921, 128.148, -92.9563, 14.6698, -38.6065, -60.593, -54.3321, 168.855
1.932, -1, -16.3042, 30.5328, -0.482144, -57.8638, -84.329, 128.145, -93.0282, 14.7983, -38.6896, -60.6655, -54.3397, 168.645
1.936, -1, -16.234, 30.5911, -0.493704, -57.6022, -84.3661, 128.142, -93.1004, 14.9272, -38.7731, -60.7382, -54.3473, 168.434
1.94, -1, -16.1635, 30.6497, -0.505308, -57.3396, -84.4033, 128.14, -93.173, 15.0567, -38.8568, -60.8112, -54.3549, 168.222
1.944, -1, -16.0928, 30.7085, -0.516958, -57.076, -84.4407, 128.137, -93.2458, 15.1866, -38.9409, -60.8845, -54.3626, 168.01
1.948, -1, -16.0217, 30.7675, -0.528653, -56.8113, -84.4783, 128.134, -93.3188, 15.3171, -39.0253, -60.9581, -54.3703, 167.797
1.952, -1, -15.9504, 30.8268, -0.540395, -56.5455, -84.5159, 128.131, -93.3922, 15.4481, -39.1101, -61.032, -54.3781, 167.583
1.956, -1, -15.8788, 30.8863, -0.552183, -56.2787, -84.5538, 128.128, -93.4659, 15.5797, -39.1952, -61.1062, -54.3858, 167.368
1.96, -1, -15.8068, 30.9461, -0.56402, -56.0108, -84.5918, 128.125, -93.5399, 15.7117, -39.2806, -61.1807, -54.3937, 167.152
1.964, -1, -15.7346, 31.0061, -0.575904, -55.7418, -84.6299, 128.122, -93.6142, 15.8444, -39.3664, -61.2555, -54.4015, 166.935
1.968, -1, -15.6621, 31.0663, -0.587838, -55.4716, -84.6682, 128.119, -93.6888, 15.9775, -39.4525, -61.3306, -54.4094, 166.717
1.972, -1, -15.5893, 31.1268, -0.599821, -55.2004, -84.7067, 128.116, -93.7637, 16.1112, -39.539, -61.406, -54.4173, 166.499
1.976, -1, -15.5162, 31.1876, -0.611853, -54.928, -84.7453, 128.113, -93.8389, 16.2455, -39.6259, -61.4817, -54.4252, 166.279
1.98, -1, -15.4427, 31.2486, -0.623936, -54.6544, -84.7841, 128.11, -93.9144, 16.3804, -39.7132, -61.5578, -54.4332, 166.059
1.984, -1, -15.3689, 31.3099, -0.63607, -54.3796, -84.823, 128.107, -93.9903, 16.5158, -39.8008, -61.6342, -54.4412, 165.837
1.988, -1, -15.2948, 31.3715, -0.648256, -54.1037, -84.8622, 128.104, -94.0665, 16.6519, -39.8888, -61.7109, -54.4492, 165.615
1.992, -1, -15.2204, 31.4333, -0.660497, -53.8265, -84.9015, 128.101, -94.143, 16.7885, -39.9772, -61.788, -54.4573, 165.392
1.996, -1, -15.1457, 31.4955, -0.672792, -53.5481, -84.9409, 128.098, -94.2199, 16.9258, -40.0659, -61.8654, -54.4654, 165.167
1.999, -1, -15.0706, 31.5579, -0.685142, -53.2684, -84.9806, 128.094, -94.2971, 17.0637, -40.1551, -61.9431, -54.4735, 164.942
2.004, -1, -14.9951, 31.6205, -0.697546, -52.9874, -85.0204, 128.091, -94.3747, 17.2022, -40.2447, -62.0212, -54.4817, 164.716
2.008, -1, -14.9193, 31.6835, -0.710007, -52.7052, -85.0605, 128.088, -94.4527, 17.3413, -40.3347, -62.0997, -54.4899, 164.488
2.012, -1, -14.8432, 31.7468, -0.722526, -52.4216, -85.1007, 128.085, -94.531, 17.4811, -40.4251, -62.1785, -54.4982, 164.26
2.015, -1, -14.7667, 31.8104, -0.735102, -52.1367, -85.1411, 128.082, -94.6097, 17.6215, -40.5159, -62.2577, -54.5065, 164.03
2.019, -1, -14.6898, 31.8743, -0.747738, -51.8505, -85.1816, 128.079, -94.6887, 17.7626, -40.6072, -62.3373, -54.5148, 163.8
2.024, -1, -14.6125, 31.9384, -0.760434, -51.5628, -85.2224, 128.076, -94.7682, 17.9044, -40.6989, -62.4173, -54.5232, 163.568
2.028, -1, -14.5349, 32.003, -0.773191, -51.2738, -85.2634, 128.072, -94.848, 18.0469, -40.7911, -62.4976, -54.5316, 163.335
2.031, -1, -14.4569, 32.0678, -0.786012, -50.9833, -85.3046, 128.069, -94.9282, 18.1901, -40.8837, -62.5784, -54.5401, 163.101
2.036, -1, -14.3785, 32.1329, -0.798896, -50.6914, -85.346, 128.066, -95.0088, 18.334, -40.9768, -62.6595, -54.5486, 162.866
2.04, -1, -14.2997, 32.1984, -0.811845, -50.398, -85.3876, 128.063, -95.0899, 18.4787, -41.0703, -62.7411, -54.5571, 162.63
2.044, -1, -14.2205, 32.2642, -0.824858, -50.1031, -85.4294, 128.059, -95.1713, 18.6241, -41.1644, -62.8231, -54.5657, 162.392
2.048, -1, -14.1409, 32.3304, -0.837938, -49.8067, -85.4714, 128.056, -95.2532, 18.7702, -41.2589, -62.9055, -54.5743, 162.153
2.051, -1, -14.0608, 32.3969, -0.851084, -49.5088, -85.5137, 128.053, -95.3355, 18.9171, -41.3539, -62.9883, -54.583, 161.913
2.055, -1, -13.9804, 32.4638, -0.864298, -49.2092, -85.5561, 128.05, -95.4182, 19.0647, -41.4494, -63.0716, -54.5917, 161.672
2.06, -1, -13.8995, 32.531, -0.877582, -48.9081, -85.5988, 128.046, -95.5014, 19.2132, -41.5454, -63.1553, -54.6005, 161.429
2.064, -1, -13.8181, 32.5986, -0.890937, -48.6053, -85.6417, 128.043, -95.585, 19.3624, -41.6419, -63.2394, -54.6093, 161.186
2.068, -1, -13.7364, 32.6665, -0.904363, -48.3009, -85.6849, 128.04, -95.6691, 19.5125, -41.7389, -63.3241, -54.6182, 160.94
2.071, -1, -13.6541, 32.7349, -0.917862, -47.9949, -85.7283, 128.036, -95.7536, 19.6634, -41.8365, -63.4091, -54.6271, 160.694
2.076, -1, -13.5714, 32.8036, -0.931435, -47.6871, -85.7719, 128.033, -95.8386, 19.8151, -41.9346, -63.4947, -54.6361, 160.446
2.08, -1, -13.4882, 32.8727, -0.945084, -47.3775, -85.8158, 128.029, -95.9241, 19.9677, -42.0333, -63.5808, -54.6451, 160.196
2.084, -1, -13.4046, 32.9423, -0.95881, -47.0662, -85.86, 128.026, -96.0101, 20.1212, -42.1326, -63.6673, -54.6541, 159.946
2.087, -1, -13.3204, 33.0122, -0.972614, -46.7531, -85.9044, 128.022, -96.0966, 20.2756, -42.2324, -63.7543, -54.6632, 159.693
2.092, -1, -13.2358, 33.0825, -0.986498, -46.4381, -85.949, 128.019, -96.1836, 20.4308, -42.3328, -63.8419, -54.6724, 159.44
2.096, -1, -13.1507, 33.1533, -1.00046, -46.1213, -85.9939, 128.015, -96.2712, 20.587, -42.4338, -63.93, -54.6816, 159.184
2.1, -1, -13.065, 33.2245, -1.01451, -45.8025, -86.0391, 128.012, -96.3592, 20.7442, -42.5354, -64.0186, -54.6909, 158.928
2.104, -1, -12.9788, 33.2962, -1.02864, -45.4818, -86.0846, 128.008, -96.4478, 20.9023, -42.6376, -64.1077, -54.7003, 158.669
2.107, -1, -12.8921, 33.3683, -1.04286, -45.1592, -86.1304, 128.005, -96.537, 21.0613, -42.7404, -64.1974, -54.7096, 158.409
2.111, -1, -12.8048, 33.4409, -1.05716, -44.8345, -86.1764, 128.001, -96.6267, 21.2214, -42.8439, -64.2876, -54.7191, 158.148
2.116, -1, -12.7169, 33.5139, -1.07155, -44.5077, -86.2227, 127.998, -96.717, 21.3825, -42.9481, -64.3785, -54.7286, 157.885
2.12, -1, -12.6285, 33.5874, -1.08603, -44.1789, -86.2693, 127.994, -96.8078, 21.5446, -43.0529, -64.4699, -54.7382, 157.62
2.124, -1, -12.5395, 33.6614, -1.10061, -43.8478, -86.3163, 127.99, -96.8993, 21.7078, -43.1584, -64.5619, -54.7478, 157.353
2.127, -1, -12.4499, 33.7359, -1.11528, -43.5146, -86.3635, 127.987, -96.9913, 21.8721, -43.2646, -64.6545, -54.7575, 157.085
2.132, -1, -12.3596, 33.811, -1.13004, -43.1792, -86.4111, 127.983, -97.0841, 22.0375, -43.3715, -64.7477, -54.7673, 156.815
2.136, -1, -12.2688, 33.8865, -1.14491, -42.8414, -86.459, 127.979, -97.1774, 22.204, -43.4791, -64.8416, -54.7771, 156.543
2.14, -1, -12.1773, 33.9626, -1.15987, -42.5013, -86.5072, 127.975, -97.2714, 22.3717, -43.5875, -64.9361, -54.787, 156.269
2.143, -1, -12.0852, 34.0393, -1.17494, -42.1589, -86.5557, 127.972, -97.366, 22.5405, -43.6966, -65.0313, -54.797, 155.993
2.148, -1, -11.9924, 34.1165, -1.19011, -41.8139, -86.6046, 127.968, -97.4614, 22.7106, -43.8065, -65.1271, -54.807, 155.715
2.152, -1, -11.8989, 34.1943, -1.20539, -41.4665, -86.6539, 127.964, -97.5574, 22.8819, -43.9173, -65.2237, -54.8171, 155.435
2.156, -1, -11.8047, 34.2727, -1.22078, -41.1165, -86.7035, 127.96, -97.6541, 23.0544, -44.0288, -65.321, -54.8273, 155.154
2.16, -1, -11.7098, 34.3518, -1.23629, -40.7638, -86.7535, 127.956, -97.7516, 23.2283, -44.1412, -65.419, -54.8375, 154.87
2.163, -1, -11.6142, 34.4314, -1.25191, -40.4085, -86.8039, 127.952, -97.8498, 23.4034, -44.2544, -65.5177, -54.8479, 154.583
2.168, -1, -11.5179, 34.5117, -1.26765, -40.0505, -86.8546, 127.948, -97.9488, 23.58, -44.3685, -65.6172, -54.8583, 154.295
2.172, -1, -11.4207, 34.5927, -1.28351, -39.6896, -86.9058, 127.944, -98.0485, 23.7579, -44.4834, -65.7175, -54.8688, 154.005
2.176, -1, -11.3228, 34.6743, -1.29949, -39.3258, -86.9574, 127.94, -98.1491, 23.9372, -44.5993, -65.8186, -54.8794, 153.712
2.179, -1, -11.2241, 34.7566, -1.3156, -38.9591, -87.0094, 127.936, -98.2505, 24.118, -44.7161, -65.9205, -54.89, 153.416
2.184, -1, -11.1246, 34.8396, -1.33183, -38.5894, -87.0618, 127.932, -98.3527, 24.3003, -44.8339, -66.0232, -54.9008, 153.119
2.188, -1, -11.0242, 34.9233, -1.3482, -38.2166, -87.1146, 127.928, -98.4558, 24.4841, -44.9527, -66.1268, -54.9116, 152.818
2.192, -1, -10.9229, 35.0077, -1.3647, -37.8406, -87.1679, 127.924, -98.5597, 24.6695, -45.0724, -66.2313, -54.9226, 152.516
2.196, -1, -10.8208, 35.0929, -1.38134, -37.4614, -87.2217, 127.92, -98.6646, 24.8564, -45.1932, -66.3367, -54.9336, 152.21
2.199, -1, -10.7178, 35.1788, -1.39812, -37.0789, -87.2759, 127.915, -98.7704, 25.045, -45.3151, -66.4429, -54.9447, 151.902
2.204, -1, -10.6138, 35.2654, -1.41504, -36.6929, -87.3306, 127.911, -98.8771, 25.2353, -45.438, -66.5502, -54.9559, 151.592
2.208, -1, -10.5089, 35.3528, -1.43212, -36.3034, -87.3858, 127.907, -98.9848, 25.4274, -45.562, -66.6584, -54.9673, 151.278
2.212, -1, -10.4029, 35.441, -1.44934, -35.9103, -87.4416, 127.902, -99.0936, 25.6212, -45.6872, -66.7676, -54.9787, 150.962
2.216, -1, -10.296, 35.53, -1.46672, -35.5136, -87.4978, 127.898, -99.2033, 25.8168, -45.8135, -66.8778, -54.9902, 150.642
2.219, -1, -10.188, 35.6198, -1.48425, -35.113, -87.5546, 127.894, -99.3142, 26.0143, -45.9411, -66.9891, -55.0019, 150.32
2.224, -1, -10.0789, 35.7106, -1.50194, -34.7085, -87.6119, 127.889, -99.4261, 26.2137, -46.0699, -67.1015, -55.0136, 149.994
2.228, -1, -9.96865, 35.8022, -1.51981, -34.2999, -87.6699, 127.885, -99.5391, 26.4152, -46.1999, -67.215, -55.0255, 149.665
2.232, -1, -9.85728, 35.8948, -1.53785, -33.8873, -87.7283, 127.88, -99.6532, 26.6187, -46.3313, -67.3296, -55.0375, 149.333
2.235, -1, -9.74475, 35.9883, -1.55607, -33.4703, -87.7875, 127.875, -99.7686, 26.8243, -46.464, -67.4454, -55.0496, 148.998
2.24, -1, -9.631, 36.0828, -1.57447, -33.0489, -87.8472, 127.871, -99.8853, 27.0321, -46.5981, -67.5624, -55.0618, 148.659
2.244, -1, -9.51598, 36.1784, -1.59307, -32.6229, -87.9076, 127.866, -100.003, 27.2422, -46.7337, -67.6807, -55.0742, 148.316
2.248, -1, -9.39966, 36.275, -1.61186, -32.1922, -87.9686, 127.861, -100.122, 27.4546, -46.8707, -67.8003, -55.0867, 147.969
2.252, -1, -9.28199, 36.3727, -1.63085, -31.7566, -88.0304, 127.856, -100.243, 27.6694, -47.0093, -67.9213, -55.0993, 147.619
2.255, -1, -9.16295, 36.4715, -1.65006, -31.316, -88.0928, 127.852, -100.365, 27.8867, -47.1494, -68.0436, -55.1121, 147.265
2.259, -1, -9.04257, 36.5714, -1.66951, -30.8702, -88.156, 127.847, -100.488, 28.1065, -47.2913, -68.1674, -55.1251, 146.906
2.264, -1, -8.92095, 36.6723, -1.68925, -30.419, -88.22, 127.842, -100.613, 28.329, -47.4348, -68.2927, -55.1382, 146.543
2.268, -1, -8.7982, 36.7741, -1.70931, -29.9624, -88.2847, 127.837, -100.74, 28.5542, -47.5801, -68.4195, -55.1514, 146.175
2.272, -1, -8.67439, 36.8769, -1.72973, -29.5003, -88.3503, 127.831, -100.868, 28.7821, -47.7273, -68.548, -55.1649, 145.803
2.275, -1, -8.54955, 36.9805, -1.75051, -29.0327, -88.4166, 127.826, -100.997, 29.0127, -47.8762, -68.678, -55.1785, 145.427
2.28, -1, -8.42368, 37.085, -1.77163, -28.5598, -88.4837, 127.821, -101.128, 29.2458, -48.0271, -68.8096, -55.1923, 145.045
2.284, -1, -8.29683, 37.1902, -1.79309, -28.0817, -88.5515, 127.816, -101.26, 29.4813, -48.1799, -68.9428, -55.2063, 144.659
2.288, -1, -8.169, 37.2963, -1.81486, -27.5988, -88.62, 127.81, -101.393, 29.7189, -48.3346, -69.0776, -55.2205, 144.268
2.291, -1, -8.04025, 37.4029, -1.8369, -27.1113, -88.6892, 127.805, -101.527, 29.9586, -48.4909, -69.2137, -55.2349, 143.873
2.296, -1, -7.91067, 37.5101, -1.8592, -26.6197, -88.7589, 127.8, -101.662, 30.2002, -48.6487, -69.3511, -55.2495, 143.475
2.3, -1, -7.78043, 37.6176, -1.88174, -26.1244, -88.8293, 127.794, -101.798, 30.4436, -48.8078, -69.4896, -55.2642, 143.073
2.304, -1, -7.6497, 37.7254, -1.9045, -25.6259, -88.9, 127.789, -101.935, 30.6886, -48.9679, -69.6289, -55.2789, 142.669
2.308, -1, -7.51857, 37.8336, -1.92744, -25.1247, -88.9712, 127.783, -102.072, 30.935, -49.1289, -69.769, -55.2937, 142.263
2.311, -1, -7.38705, 37.9423, -1.95049, -24.6215, -89.0426, 127.777, -102.21, 31.1826, -49.2904, -69.9096, -55.3086, 141.855
2.316, -1, -7.25515, 38.0516, -1.97358, -24.1167, -89.1143, 127.772, -102.349, 31.4309, -49.4523, -70.0505, -55.3235, 141.447
2.32, -1, -7.12299, 38.1616, -1.99666, -23.6109, -89.1861, 127.766, -102.488, 31.6799, -49.6144, -70.1917, -55.3384, 141.037
2.324, -1, -6.99077, 38.2722, -2.01968, -23.1047, -89.2579, 127.761, -102.627, 31.929, -49.7766, -70.3329, -55.3533, 140.628
2.328, -1, -6.85859, 38.3832, -2.04265, -22.5985, -89.3297, 127.755, -102.766, 32.1782, -49.9388, -70.4741, -55.3682, 140.218
2.331, -1, -6.72646, 38.4945, -2.06554, -22.0927, -89.4015, 127.749, -102.905, 32.4272, -50.1008, -70.6152, -55.383, 139.809
2.336, -1, -6.5944, 38.6058, -2.08835, -21.5876, -89.4732, 127.744, -103.044, 32.6759, -50.2625, -70.756, -55.3978, 139.401
2.34, -1, -6.46244, 38.717, -2.1111, -21.0835, -89.5447, 127.738, -103.183, 32.9241, -50.4238, -70.8964, -55.4126, 138.994
2.344, -1, -6.33054, 38.828, -2.13376, -20.5808, -89.616, 127.733, -103.321, 33.1717, -50.5846, -71.0365, -55.4274, 138.588
2.347, -1, -6.19864, 38.9387, -2.15633, -20.0797, -89.6871, 127.727, -103.459, 33.4186, -50.7448, -71.1761, -55.442, 138.183
2.352, -1, -6.06677, 39.0491, -2.17878, -19.5805, -89.7579, 127.722, -103.596, 33.6645, -50.9044, -71.3151, -55.4566, 137.78
2.356, -1, -5.93505, 39.1592, -2.20111, -19.0834, -89.8284, 127.716, -103.733, 33.9094, -51.0634, -71.4535, -55.4712, 137.379
2.36, -1, -5.80372, 39.2688, -2.22331, -18.5886, -89.8986, 127.711, -103.869, 34.1532, -51.2216, -71.5913, -55.4857, 136.979
2.364, -1, -5.67293, 39.3779, -2.24539, -18.0962, -89.9685, 127.705, -104.005, 34.3958, -51.379, -71.7284, -55.5001, 136.582
2.367, -1, -5.54276, 39.4865, -2.26734, -17.6065, -90.0379, 127.7, -104.139, 34.6371, -51.5355, -71.8648, -55.5144, 136.187
2.372, -1, -5.41328, 39.5945, -2.28916, -17.1196, -90.107, 127.694, -104.273, 34.877, -51.6912, -72.0003, -55.5286, 135.794
2.376, -1, -5.28452, 39.7018, -2.31084, -16.6356, -90.1756, 127.689, -104.406, 35.1154, -51.8459, -72.1351, -55.5428, 135.403
2.38, -1, -5.15652, 39.8085, -2.33237, -16.1547, -90.2438, 127.684, -104.539, 35.3524, -51.9995, -72.2689, -55.5569, 135.015
2.383, -1, -5.02931, 39.9145, -2.35375, -15.6771, -90.3116, 127.678, -104.67, 35.5877, -52.1522, -72.4019, -55.5708, 134.63
2.388, -1, -4.90291, 40.0198, -2.37496, -15.2027, -90.3789, 127.673, -104.801, 35.8215, -52.3038, -72.5339, -55.5847, 134.247
2.392, -1, -4.77735, 40.1244, -2.39601, -14.7318, -90.4457, 127.668, -104.93, 36.0536, -52.4542, -72.665, -55.5984, 133.867
2.396, -1, -4.65265, 40.2283, -2.41687, -14.2644, -90.5119, 127.663, -105.059, 36.2839, -52.6035, -72.795, -55.6121, 133.49
2.4, -1, -4.52884, 40.3314, -2.43756, -13.8007, -90.5777, 127.658, -105.187, 36.5125, -52.7516, -72.9241, -55.6256, 133.116
2.403, -1, -4.40593, 40.4337, -2.45807, -13.3406, -90.643, 127.653, -105.314, 36.7393, -52.8986, -73.0521, -55.639, 132.745
2.408, -1, -4.28396, 40.5353, -2.4784, -12.8842, -90.7077, 127.648, -105.439, 36.9642, -53.0443, -73.179, -55.6523, 132.377
2.412, -1, -4.16293, 40.636, -2.49855, -12.4316, -90.7719, 127.643, -105.564, 37.1874, -53.1888, -73.3049, -55.6655, 132.012
2.416, -1, -4.04284, 40.736, -2.51851, -11.9827, -90.8355, 127.638, -105.688, 37.4086, -53.3321, -73.4297, -55.6786, 131.651
2.42, -1, -3.92371, 40.8351, -2.53829, -11.5377, -90.8986, 127.633, -105.81, 37.628, -53.4741, -73.5535, -55.6916, 131.292
2.423, -1, -3.80555, 40.9334, -2.55788, -11.0965, -90.9612, 127.628, -105.932, 37.8456, -53.6149, -73.6762, -55.7045, 130.936
2.428, -1, -3.68837, 41.0309, -2.57729, -10.6591, -91.0232, 127.623, -106.052, 38.0612, -53.7545, -73.7978, -55.7172, 130.584
2.432, -1, -3.57216, 41.1276, -2.59653, -10.2255, -91.0847, 127.618, -106.172, 38.275, -53.8929, -73.9183, -55.7298, 130.235
2.436, -1, -3.45692, 41.2235, -2.61559, -9.79571, -91.1456, 127.613, -106.29, 38.487, -54.03, -74.0378, -55.7423, 129.888
2.439, -1, -3.34266, 41.3185, -2.63447, -9.36964, -91.206, 127.609, -106.408, 38.6971, -54.1659, -74.1563, -55.7547, 129.545
2.444, -1, -3.22938, 41.4127, -2.65318, -8.94729, -91.2659, 127.604, -106.524, 38.9053, -54.3007, -74.2737, -55.767, 129.205
2.448, -1, -3.11706, 41.5061, -2.67173, -8.52862, -91.3252, 127.599, -106.64, 39.1118, -54.4343, -74.3901, -55.7792, 128.868
2.452, -1, -3.00571, 41.5987, -2.6901, -8.1136, -91.3841, 127.595, -106.754, 39.3164, -54.5667, -74.5054, -55.7913, 128.533
2.456, -1, -2.89531, 41.6905, -2.70832, -7.70218, -91.4424, 127.59, -106.868, 39.5193, -54.6979, -74.6198, -55.8033, 128.202
2.459, -1, -2.78586, 41.7814, -2.72638, -7.29433, -91.5002, 127.586, -106.98, 39.7204, -54.828, -74.7332, -55.8151, 127.873
2.464, -1, -2.67735, 41.8716, -2.74428, -6.89, -91.5576, 127.581, -107.092, 39.9198, -54.957, -74.8456, -55.8269, 127.548
2.468, -1, -2.56977, 41.9611, -2.76202, -6.48915, -91.6144, 127.577, -107.202, 40.1174, -55.0849, -74.957, -55.8386, 127.225
2.472, -1, -2.4631, 42.0497, -2.7796, -6.09174, -91.6707, 127.572, -107.312, 40.3134, -55.2117, -75.0674, -55.8502, 126.905
2.476, -1, -2.35733, 42.1377, -2.79704, -5.69772, -91.7266, 127.568, -107.42, 40.5077, -55.3373, -75.177, -55.8616, 126.587
2.479, -1, -2.25246, 42.2248, -2.81433, -5.30704, -91.782, 127.564, -107.528, 40.7004, -55.462, -75.2856, -55.873, 126.273
2.484, -1, -2.14848, 42.3113, -2.83147, -4.91967, -91.8369, 127.559, -107.635, 40.8914, -55.5855, -75.3932, -55.8843, 125.961
2.488, -1, -2.04539, 42.3969, -2.84847, -4.53556, -91.8914, 127.555, -107.741, 41.0808, -55.708, -75.5, -55.8954, 125.651
2.492, -1, -1.94315, 42.4819, -2.86532, -4.15468, -91.9454, 127.551, -107.846, 41.2686, -55.8296, -75.6059, -55.9065, 125.344
2.495, -1, -1.84175, 42.5661, -2.88203, -3.77697, -91.9989, 127.547, -107.95, 41.4549, -55.9501, -75.7109, -55.9175, 125.04
2.5, -1, -1.74118, 42.6496, -2.8986, -3.40239, -92.052, 127.543, -108.053, 41.6396, -56.0696, -75.815, -55.9284, 124.738
2.504, -1, -1.64143, 42.7325, -2.91503, -3.03089, -92.1047, 127.538, -108.156, 41.8228, -56.1882, -75.9182, -55.9392, 124.439
2.508, -1, -1.54248, 42.8147, -2.93132, -2.66244, -92.1569, 127.534, -108.258, 42.0045, -56.3057, -76.0206, -55.95, 124.142
2.512, -1, -1.44432, 42.8962, -2.94748, -2.29698, -92.2087, 127.53, -108.358, 42.1848, -56.4223, -76.1222, -55.9606, 123.848
2.515, -1, -1.34695, 42.9771, -2.96351, -1.93447, -92.2601, 127.526, -108.458, 42.3635, -56.538, -76.223, -55.9711, 123.556
2.52, -1, -1.25036, 43.0574, -2.9794, -1.57485, -92.3111, 127.522, -108.558, 42.5409, -56.6527, -76.3229, -55.9816, 123.266
2.524, -1, -1.15452, 43.137, -2.99517, -1.21808, -92.3617, 127.518, -108.656, 42.7169, -56.7666, -76.4221, -55.992, 122.979
2.528, -1, -1.05942, 43.216, -3.01081, -0.864105, -92.4119, 127.515, -108.754, 42.8915, -56.8795, -76.5205, -56.0023, 122.694
2.531, -1, -0.965046, 43.2944, -3.02633, -0.512878, -92.4617, 127.511, -108.851, 43.0647, -56.9916, -76.6181, -56.0125, 122.411
2.536, -1, -0.871388, 43.3722, -3.04172, -0.164348, -92.5111, 127.507, -108.947, 43.2366, -57.1028, -76.7149, -56.0226, 122.13
2.54, -1, -0.77844, 43.4494, -3.057, 0.181539, -92.5601, 127.503, -109.042, 43.4072, -57.2131, -76.8111, -56.0327, 121.852
2.544, -1, -0.686195, 43.526, -3.07217, 0.524833, -92.6088, 127.499, -109.137, 43.5765, -57.3227, -76.9065, -56.0427, 121.575
2.548, -1, -0.594641, 43.6021, -3.08722, 0.865584, -92.6571, 127.495, -109.231, 43.7446, -57.4314, -77.0012, -56.0526, 121.301
2.551, -1, -0.503763, 43.6776, -3.10217, 1.20384, -92.7051, 127.492, -109.324, 43.9114, -57.5393, -77.0952, -56.0625, 121.028
2.556, -1, -0.413549, 43.7525, -3.117, 1.53965, -92.7527, 127.488, -109.417, 44.077, -57.6464, -77.1885, -56.0722, 120.758
2.56, -1, -0.323986, 43.8269, -3.13174, 1.87305, -92.7999, 127.484, -109.509, 44.2415, -57.7528, -77.2812, -56.0819, 120.489
2.564, -1, -0.235062, 43.9008, -3.14637, 2.2041, -92.8469, 127.481, -109.6, 44.4047, -57.8584, -77.3732, -56.0916, 120.223
2.568, -1, -0.146765, 43.9742, -3.1609, 2.53282, -92.8935, 127.477, -109.691, 44.5669, -57.9633, -77.4646, -56.1011, 119.958
2.571, -1, -0.0590836, 44.047, -3.17532, 2.85927, -92.9398, 127.473, -109.781, 44.7278, -58.0675, -77.5553, -56.1106, 119.695
2.576, -1, 0.027993, 44.1194, -3.18965, 3.18348, -92.9857, 127.47, -109.871, 44.8877, -58.1709, -77.6454, -56.1201, 119.434
2.58, -1, 0.114476, 44.1913, -3.20389, 3.50549, -93.0314, 127.466, -109.959, 45.0465, -58.2737, -77.7349, -56.1294, 119.175
2.584, -1, 0.200377, 44.2626, -3.21803, 3.82533, -93.0767, 127.463, -110.048, 45.2043, -58.3757, -77.8239, -56.1388, 118.917
2.587, -1, 0.285706, 44.3335, -3.23207, 4.14305, -93.1218, 127.459, -110.135, 45.361, -58.4771, -77.9122, -56.148, 118.661
2.592, -1, 0.370473, 44.404, -3.24602, 4.45869, -93.1665, 127.456, -110.223, 45.5166, -58.5778, -77.9999, -56.1572, 118.407
2.596, -1, 0.454689, 44.474, -3.25988, 4.77226, -93.211, 127.452, -110.309, 45.6712, -58.6778, -78.0871, -56.1663, 118.154
2.6, -1, 0.538365, 44.5435, -3.27366, 5.08382, -93.2551, 127.449, -110.395, 45.8249, -58.7772, -78.1737, -56.1754, 117.903
2.604, -1, 0.621506, 44.6126, -3.28734, 5.39339, -93.299, 127.445, -110.48, 45.9775, -58.876, -78.2597, -56.1844, 117.654
2.607, -1, 0.704115, 44.6813, -3.30094, 5.70101, -93.3426, 127.442, -110.565, 46.1292, -58.9741, -78.3452, -56.1934, 117.406
2.612, -1, 0.786196, 44.7495, -3.31446, 6.00671, -93.386, 127.438, -110.65, 46.28, -59.0717, -78.4302, -56.2023, 117.16
2.616, -1, 0.867759, 44.8173, -3.32789, 6.31051, -93.4291, 127.435, -110.734, 46.4298, -59.1686, -78.5147, -56.2111, 116.915
2.62, -1, 0.94882, 44.8847, -3.34125, 6.61245, -93.4719, 127.432, -110.817, 46.5787, -59.2649, -78.5986, -56.2199, 116.672
2.624, -1, 1.02939, 44.9517, -3.35452, 6.91256, -93.5144, 127.428, -110.9, 46.7267, -59.3607, -78.682, -56.2286, 116.43
2.627, -1, 1.10948, 45.0182, -3.36771, 7.21086, -93.5567, 127.425, -110.982, 46.8738, -59.4559, -78.765, -56.2373, 116.19
2.632, -1, 1.18909, 45.0844, -3.38082, 7.50738, -93.5987, 127.422, -111.064, 47.02, -59.5505, -78.8474, -56.2459, 115.951
2.636, -1, 1.26823, 45.1502, -3.39386, 7.80215, -93.6405, 127.419, -111.145, 47.1653, -59.6445, -78.9293, -56.2545, 115.713
2.64, -1, 1.34691, 45.2156, -3.40682, 8.09519, -93.6821, 127.415, -111.226, 47.3098, -59.738, -79.0108, -56.2631, 115.477
2.643, -1, 1.42513, 45.2807, -3.4197, 8.38654, -93.7234, 127.412, -111.306, 47.4535, -59.831, -79.0918, -56.2715, 115.243
2.648, -1, 1.5029, 45.3453, -3.43251, 8.67622, -93.7645, 127.409, -111.386, 47.5963, -59.9234, -79.1723, -56.28, 115.009
2.652, -1, 1.58023, 45.4097, -3.44525, 8.96424, -93.8053, 127.406, -111.466, 47.7384, -60.0153, -79.2524, -56.2884, 114.777
2.656, -1, 1.65713, 45.4736, -3.45791, 9.25065, -93.8459, 127.403, -111.545, 47.8796, -60.1067, -79.332, -56.2967, 114.546
2.66, -1, 1.73361, 45.5372, -3.47051, 9.53547, -93.8863, 127.399, -111.623, 48.0201, -60.1975, -79.4112, -56.305, 114.317
2.663, -1, 1.80967, 45.6005, -3.48303, 9.81871, -93.9264, 127.396, -111.702, 48.1597, -60.2879, -79.4899, -56.3132, 114.089
2.668, -1, 1.88532, 45.6634, -3.49548, 10.1004, -93.9664, 127.393, -111.779, 48.2986, -60.3778, -79.5682, -56.3214, 113.862
2.672, -1, 1.96055, 45.726, -3.50787, 10.3806, -94.0061, 127.39, -111.857, 48.4368, -60.4671, -79.6461, -56.3296, 113.636
2.676, -1, 2.03538, 45.7883, -3.52019, 10.6593, -94.0456, 127.387, -111.934, 48.5742, -60.5561, -79.7236, -56.3377, 113.412
2.679, -1, 2.10981, 45.8502, -3.53245, 10.9365, -94.0849, 127.384, -112.01, 48.7109, -60.6445, -79.8007, -56.3458, 113.188
2.684, -1, 2.18385, 45.9118, -3.54465, 11.2123, -94.124, 127.381, -112.086, 48.8469, -60.7325, -79.8773, -56.3538, 112.966
2.688, -1, 2.2575, 45.9731, -3.55679, 11.4867, -94.1629, 127.378, -112.162, 48.9822, -60.82, -79.9536, -56.3618, 112.745
2.692, -1, 2.33078, 46.0341, -3.56886, 11.7596, -94.2016, 127.375, -112.237, 49.1168, -60.9071, -80.0295, -56.3698, 112.525
2.696, -1, 2.40368, 46.0947, -3.58087, 12.0312, -94.2401, 127.372, -112.312, 49.2507, -60.9938, -80.105, -56.3777, 112.306
2.699, -1, 2.47622, 46.1551, -3.59282, 12.3015, -94.2784, 127.369, -112.387, 49.3839, -61.08, -80.1801, -56.3855, 112.089
2.704, -1, 2.54839, 46.2152, -3.60472, 12.5703, -94.3166, 127.366, -112.461, 49.5165, -61.1658, -80.2549, -56.3934, 111.872
2.708, -1, 2.62021, 46.275, -3.61655, 12.8379, -94.3545, 127.363, -112.535, 49.6484, -61.2511, -80.3292, -56.4011, 111.657
2.712, -1, 2.69167, 46.3345, -3.62833, 13.1042, -94.3923, 127.36, -112.608, 49.7797, -61.3361, -80.4033, -56.4089, 111.442
2.716, -1, 2.7628, 46.3937, -3.64005, 13.3692, -94.4298, 127.357, -112.681, 49.9104, -61.4206, -80.4769, -56.4166, 111.229
2.719, -1, 2.83358, 46.4527, -3.65172, 13.6329, -94.4672, 127.354, -112.754, 50.0404, -61.5047, -80.5503, -56.4243, 111.016
2.724, -1, 2.90402, 46.5114, -3.66333, 13.8954, -94.5044, 127.351, -112.827, 50.1698, -61.5885, -80.6232, -56.4319, 110.805
2.728, -1, 2.97413, 46.5698, -3.67489, 14.1566, -94.5415, 127.348, -112.899, 50.2986, -61.6718, -80.6959, -56.4396, 110.594
2.732, -1, 3.04392, 46.6279, -3.68639, 14.4166, -94.5783, 127.345, -112.97, 50.4268, -61.7548, -80.7682, -56.4471, 110.385
2.735, -1, 3.11338, 46.6857, -3.69785, 14.6755, -94.615, 127.343, -113.042, 50.5545, -61.8374, -80.8401, -56.4547, 110.176
2.74, -1, 3.18252, 46.7434, -3.70925, 14.9331, -94.6516, 127.34, -113.113, 50.6815, -61.9196, -80.9118, -56.4622, 109.968
2.744, -1, 3.25135, 46.8007, -3.72059, 15.1896, -94.6879, 127.337, -113.184, 50.808, -62.0014, -80.9831, -56.4696, 109.762
2.748, -1, 3.31987, 46.8578, -3.73189, 15.445, -94.7241, 127.334, -113.254, 50.9339, -62.0829, -81.0541, -56.4771, 109.556
2.752, -1, 3.38809, 46.9146, -3.74314, 15.6992, -94.7602, 127.331, -113.324, 51.0592, -62.164, -81.1247, -56.4845, 109.351
2.755, -1, 3.456, 46.9712, -3.75434, 15.9523, -94.7961, 127.328, -113.394, 51.184, -62.2447, -81.1951, -56.4919, 109.147
2.76, -1, 3.52361, 47.0275, -3.76549, 16.2042, -94.8318, 127.326, -113.464, 51.3082, -62.3251, -81.2652, -56.4992, 108.944
2.764, -1, 3.59093, 47.0836, -3.77659, 16.4551, -94.8674, 127.323, -113.533, 51.4319, -62.4052, -81.3349, -56.5065, 108.742
2.768, -1, 3.65795, 47.1394, -3.78765, 16.7049, -94.9028, 127.32, -113.602, 51.5551, -62.4849, -81.4044, -56.5138, 108.541
2.772, -1, 3.72469, 47.195, -3.79866, 16.9537, -94.938, 127.317, -113.671, 51.6777, -62.5642, -81.4735, -56.521, 108.34
2.775, -1, 3.79115, 47.2504, -3.80962, 17.2014, -94.9732, 127.315, -113.739, 51.7998, -62.6432, -81.5424, -56.5282, 108.141
2.78, -1, 3.85733, 47.3055, -3.82053, 17.448, -95.0081, 127.312, -113.807, 51.9215, -62.7219, -81.611, -56.5354, 107.942
2.784, -1, 3.92324, 47.3604, -3.8314, 17.6937, -95.043, 127.309, -113.875, 52.0426, -62.8003, -81.6793, -56.5426, 107.744
2.788, -1, 3.98888, 47.415, -3.84222, 17.9383, -95.0777, 127.306, -113.942, 52.1632, -62.8783, -81.7473, -56.5497, 107.547
2.791, -1, 4.05424, 47.4695, -3.853, 18.1819, -95.1122, 127.304, -114.01, 52.2833, -62.9561, -81.815, -56.5568, 107.351
2.796, -1, 4.11935, 47.5237, -3.86374, 18.4246, -95.1466, 127.301, -114.076, 52.4029, -63.0335, -81.8825, -56.5639, 107.155
2.8, -1, 4.18419, 47.5777, -3.87443, 18.6662, -95.1809, 127.298, -114.143, 52.5221, -63.1106, -81.9497, -56.5709, 106.961
2.804, -1, 4.24877, 47.6315, -3.88508, 18.9069, -95.215, 127.296, -114.21, 52.6407, -63.1874, -82.0166, -56.5779, 106.767
2.808, -1, 4.3131, 47.6851, -3.89569, 19.1467, -95.249, 127.293, -114.276, 52.7589, -63.2639, -82.0832, -56.5849, 106.574
2.811, -1, 4.37717, 47.7385, -3.90626, 19.3855, -95.2828, 127.29, -114.342, 52.8767, -63.34, -82.1496, -56.5919, 106.381
2.816, -1, 4.441, 47.7916, -3.91679, 19.6234, -95.3166, 127.288, -114.407, 52.994, -63.4159, -82.2158, -56.5988, 106.189
2.82, -1, 4.50459, 47.8446, -3.92727, 19.8604, -95.3502, 127.285, -114.473, 53.1108, -63.4915, -82.2817, -56.6057, 105.998
2.824, -1, 4.56793, 47.8973, -3.93772, 20.0964, -95.3836, 127.283, -114.538, 53.2272, -63.5669, -82.3473, -56.6126, 105.808
2.828, -1, 4.63102, 47.9498, -3.94813, 20.3316, -95.417, 127.28, -114.603, 53.3431, -63.6419, -82.4127, -56.6194, 105.619
2.831, -1, 4.69388, 48.0022, -3.9585, 20.5659, -95.4502, 127.277, -114.667, 53.4587, -63.7166, -82.4778, -56.6262, 105.43
2.836, -1, 4.7565, 48.0543, -3.96883, 20.7994, -95.4833, 127.275, -114.732, 53.5738, -63.7911, -82.5427, -56.633, 105.242
2.84, -1, 4.8189, 48.1062, -3.97912, 21.0319, -95.5163, 127.272, -114.796, 53.6884, -63.8653, -82.6074, -56.6398, 105.054
2.844, -1, 4.88106, 48.158, -3.98938, 21.2637, -95.5491, 127.27, -114.86, 53.8027, -63.9393, -82.6718, -56.6466, 104.868
2.847, -1, 4.943, 48.2095, -3.9996, 21.4945, -95.5819, 127.267, -114.924, 53.9165, -64.0129, -82.736, -56.6533, 104.682
2.852, -1, 5.00472, 48.2609, -4.00978, 21.7246, -95.6145, 127.265, -114.987, 54.0299, -64.0863, -82.8, -56.66, 104.496
2.856, -1, 5.06622, 48.312, -4.01993, 21.9538, -95.647, 127.262, -115.05, 54.1429, -64.1594, -82.8637, -56.6667, 104.312
2.86, -1, 5.1275, 48.363, -4.03004, 22.1823, -95.6794, 127.259, -115.114, 54.2555, -64.2323, -82.9273, -56.6733, 104.128
2.864, -1, 5.18856, 48.4138, -4.04011, 22.4099, -95.7117, 127.257, -115.176, 54.3678, -64.3049, -82.9905, -56.68, 103.944
2.867, -1, 5.24941, 48.4645, -4.05015, 22.6367, -95.7438, 127.254, -115.239, 54.4796, -64.3773, -83.0536, -56.6866, 103.761
2.872, -1, 5.31005, 48.5149, -4.06016, 22.8627, -95.7759, 127.252, -115.301, 54.591, -64.4494, -83.1165, -56.6932, 103.579
2.876, -1, 5.37047, 48.5652, -4.07013, 23.088, -95.8078, 127.249, -115.363, 54.7021, -64.5213, -83.1791, -56.6997, 103.398
2.88, -1, 5.4307, 48.6153, -4.08006, 23.3125, -95.8397, 127.247, -115.425, 54.8128, -64.5929, -83.2415, -56.7063, 103.217
2.883, -1, 5.49072, 48.6652, -4.08997, 23.5363, -95.8714, 127.244, -115.487, 54.9231, -64.6643, -83.3037, -56.7128, 103.037
2.888, -1, 5.55053, 48.715, -4.09984, 23.7592, -95.903, 127.242, -115.549, 55.033, -64.7354, -83.3657, -56.7193, 102.857
2.892, -1, 5.61015, 48.7646, -4.10967, 23.9815, -95.9345, 127.24, -115.61, 55.1426, -64.8064, -83.4275, -56.7257, 102.678
2.896, -1, 5.66957, 48.814, -4.11948, 24.203, -95.9659, 127.237, -115.671, 55.2518, -64.877, -83.4891, -56.7322, 102.499
2.9, -1, 5.72879, 48.8633, -4.12925, 24.4238, -95.9972, 127.235, -115.732, 55.3606, -64.9475, -83.5505, -56.7386, 102.321
2.903, -1, 5.78782, 48.9124, -4.13899, 24.6439, -96.0284, 127.232, -115.793, 55.4691, -65.0177, -83.6117, -56.745, 102.144
2.908, -1, 5.84666, 48.9613, -4.1487, 24.8632, -96.0595, 127.23, -115.853, 55.5773, -65.0877, -83.6727, -56.7514, 101.967
2.912, -1, 5.90531, 49.0101, -4.15838, 25.0819, -96.0905, 127.227, -115.914, 55.6851, -65.1574, -83.7335, -56.7578, 101.791
2.916, -1, 5.96377, 49.0587, -4.16803, 25.2998, -96.1214, 127.225, -115.974, 55.7925, -65.227, -83.7941, -56.7642, 101.615
2.92, -1, 6.02205, 49.1072, -4.17765, 25.5171, -96.1522, 127.223, -116.034, 55.8996, -65.2963, -83.8545, -56.7705, 101.44
2.923, -1, 6.08014, 49.1555, -4.18724, 25.7336, -96.1829, 127.22, -116.094, 56.0064, -65.3654, -83.9147, -56.7768, 101.266
2.928, -1, 6.13805, 49.2037, -4.19679, 25.9496, -96.2135, 127.218, -116.153, 56.1129, -65.4342, -83.9748, -56.7831, 101.092
2.932, -1, 6.19578, 49.2517, -4.20632, 26.1648, -96.2441, 127.215, -116.213, 56.219, -65.5029, -84.0346, -56.7894, 100.918
2.936, -1, 6.25333, 49.2996, -4.21582, 26.3794, -96.2745, 127.213, -116.272, 56.3247, -65.5714, -84.0943, -56.7956, 100.746
2.939, -1, 6.3107, 49.3473, -4.22529, 26.5933, -96.3048, 127.211, -116.331, 56.4302, -65.6396, -84.1537, -56.8018, 100.573
2.944, -1, 6.3679, 49.3949, -4.23473, 26.8065, -96.3351, 127.208, -116.39, 56.5353, -65.7077, -84.213, -56.8081, 100.401
2.948, -1, 6.42493, 49.4423, -4.24415, 27.0191, -96.3652, 127.206, -116.448, 56.6402, -65.7755, -84.2722, -56.8142, 100.23
2.952, -1, 6.48178, 49.4896, -4.25353, 27.2311, -96.3953, 127.204, -116.507, 56.7447, -65.8431, -84.3311, -56.8204, 100.059
2.956, -1, 6.53846, 49.5367, -4.26289, 27.4425, -96.4252, 127.201, -116.565, 56.8489, -65.9106, -84.3899, -56.8266, 99.8889
2.959, -1, 6.59498, 49.5838, -4.27222, 27.6532, -96.4551, 127.199, -116.623, 56.9528, -65.9778, -84.4485, -56.8327, 99.7191
2.964, -1, 6.65134, 49.6306, -4.28152, 27.8633, -96.4849, 127.197, -116.681, 57.0563, -66.0448, -84.5069, -56.8388, 99.5498
2.968, -1, 6.70753, 49.6773, -4.29079, 28.0728, -96.5146, 127.194, -116.739, 57.1596, -66.1117, -84.5651, -56.8449, 99.381
2.972, -1, 6.76356, 49.7239, -4.30004, 28.2817, -96.5442, 127.192, -116.797, 57.2626, -66.1783, -84.6232, -56.851, 99.2126
2.976, -1, 6.81942, 49.7704, -4.30926, 28.49, -96.5738, 127.19, -116.854, 57.3653, -66.2448, -84.6811, -56.8571, 99.0448
2.98, -1, 6.87513, 49.8167, -4.31845, 28.6977, -96.6032, 127.187, -116.912, 57.4677, -66.311, -84.7389, -56.8632, 98.8774
2.984, -1, 6.93067, 49.8629, -4.32762, 28.9048, -96.6326, 127.185, -116.969, 57.5698, -66.3771, -84.7965, -56.8692, 98.7106
2.988, -1, 6.98606, 49.909, -4.33676, 29.1113, -96.6618, 127.183, -117.026, 57.6716, -66.443, -84.8539, -56.8752, 98.5441
2.992, -1, 7.0413, 49.9549, -4.34588, 29.3172, -96.691, 127.18, -117.083, 57.7731, -66.5087, -84.9111, -56.8812, 98.3782
2.995, -1, 7.09638, 50.0007, -4.35497, 29.5226, -96.7202, 127.178, -117.139, 57.8743, -66.5742, -84.9683, -56.8872, 98.2127
3, -1, 7.15131, 50.0464, -4.36404, 29.7274, -96.7492, 127.176, -117.196, 57.9753, -66.6395, -85.0252, -56.8932, 98.0477
3.004, -1, 7.20608, 50.0919, -4.37308, 29.9316, -96.7782, 127.174, -117.252, 58.076, -66.7047, -85.082, -56.8991, 97.8831
3.008, -1, 7.26071, 50.1374, -4.3821, 30.1353, -96.807, 127.171, -117.308, 58.1764, -66.7697, -85.1386, -56.905, 97.719
3.012, -1, 7.31519, 50.1827, -4.39109, 30.3384, -96.8358, 127.169, -117.364, 58.2765, -66.8345, -85.1951, -56.911, 97.5553
3.015, -1, 7.36952, 50.2278, -4.40006, 30.541, -96.8646, 127.167, -117.42, 58.3764, -66.8991, -85.2514, -56.9169, 97.392
3.02, -1, 7.4237, 50.2729, -4.409, 30.743, -96.8932, 127.165, -117.476, 58.476, -66.9636, -85.3076, -56.9227, 97.2292
3.024, -1, 7.47775, 50.3178, -4.41793, 30.9446, -96.9218, 127.162, -117.532, 58.5754, -67.0279, -85.3636, -56.9286, 97.0668
3.028, -1, 7.53164, 50.3627, -4.42682, 31.1455, -96.9503, 127.16, -117.587, 58.6744, -67.092, -85.4195, -56.9345, 96.9049
3.031, -1, 7.5854, 50.4074, -4.4357, 31.346, -96.9787, 127.158, -117.642, 58.7733, -67.1559, -85.4753, -56.9403, 96.7434
3.036, -1, 7.63902, 50.4519, -4.44455, 31.5459, -97.0071, 127.156, -117.698, 58.8718, -67.2197, -85.5309, -56.9461, 96.5822
3.04, -1, 7.6925, 50.4964, -4.45338, 31.7453, -97.0353, 127.154, -117.753, 58.9701, -67.2833, -85.5863, -56.952, 96.4215
3.044, -1, 7.74584, 50.5408, -4.46219, 31.9442, -97.0635, 127.151, -117.807, 59.0682, -67.3468, -85.6416, -56.9578, 96.2613
3.048, -1, 7.79904, 50.585, -4.47097, 32.1426, -97.0917, 127.149, -117.862, 59.166, -67.4101, -85.6968, -56.9635, 96.1014
3.051, -1, 7.85211, 50.6291, -4.47973, 32.3405, -97.1197, 127.147, -117.917, 59.2636, -67.4732, -85.7518, -56.9693, 95.9419
3.056, -1, 7.90505, 50.6732, -4.48847, 32.5379, -97.1477, 127.145, -117.971, 59.3609, -67.5362, -85.8067, -56.975, 95.7829
3.06, -1, 7.95785, 50.7171, -4.49719, 32.7348, -97.1756, 127.143, -118.026, 59.4579, -67.599, -85.8615, -56.9808, 95.6242
3.064, -1, 8.01052, 50.7609, -4.50589, 32.9312, -97.2035, 127.14, -118.08, 59.5548, -67.6617, -85.9161, -56.9865, 95.4659
3.068, -1, 8.06306, 50.8045, -4.51456, 33.1271, -97.2313, 127.138, -118.134, 59.6514, -67.7242, -85.9706, -56.9922, 95.308
3.071, -1, 8.11547, 50.8481, -4.52321, 33.3226, -97.259, 127.136, -118.188, 59.7477, -67.7866, -86.0249, -56.9979, 95.1505
3.076, -1, 8.16775, 50.8916, -4.53185, 33.5176, -97.2866, 127.134, -118.242, 59.8438, -67.8488, -86.0791, -57.0036, 94.9934
3.08, -1, 8.21991, 50.935, -4.54046, 33.712, -97.3142, 127.132, -118.295, 59.9397, -67.9108, -86.1332, -57.0093, 94.8367
3.084, -1, 8.27194, 50.9782, -4.54905, 33.9061, -97.3417, 127.13, -118.349, 60.0353, -67.9727, -86.1871, -57.0149, 94.6803
3.087, -1, 8.32384, 51.0214, -4.55762, 34.0996, -97.3691, 127.128, -118.402, 60.1308, -68.0345, -86.241, -57.0206, 94.5244
3.092, -1, 8.37562, 51.0644, -4.56617, 34.2927, -97.3965, 127.125, -118.456, 60.226, -68.0961, -86.2947, -57.0262, 94.3688
3.096, -1, 8.42728, 51.1074, -4.5747, 34.4854, -97.4238, 127.123, -118.509, 60.3209, -68.1575, -86.3482, -57.0318, 94.2135
3.1, -1, 8.47881, 51.1502, -4.58321, 34.6775, -97.4511, 127.121, -118.562, 60.4157, -68.2188, -86.4017, -57.0374, 94.0587
3.104, -1, 8.53023, 51.193, -4.5917, 34.8693, -97.4783, 127.119, -118.615, 60.5102, -68.28, -86.455, -57.043, 93.9041
3.107, -1, 8.58152, 51.2356, -4.60017, 35.0606, -97.5054, 127.117, -118.667, 60.6045, -68.341, -86.5082, -57.0486, 93.75
3.112, -1, 8.63269, 51.2782, -4.60862, 35.2514, -97.5325, 127.115, -118.72, 60.6986, -68.4019, -86.5612, -57.0541, 93.5962
3.116, -1, 8.68375, 51.3206, -4.61705, 35.4418, -97.5595, 127.113, -118.773, 60.7924, -68.4627, -86.6142, -57.0597, 93.4428
3.12, -1, 8.73469, 51.363, -4.62546, 35.6318, -97.5864, 127.111, -118.825, 60.8861, -68.5233, -86.667, -57.0652, 93.2897
3.124, -1, 8.78551, 51.4053, -4.63385, 35.8213, -97.6133, 127.108, -118.877, 60.9795, -68.5838, -86.7197, -57.0707, 93.137
3.128, -1, 8.83622, 51.4474, -4.64222, 36.0104, -97.6401, 127.106, -118.93, 61.0727, -68.6441, -86.7723, -57.0762, 92.9846
3.132, -1, 8.88681, 51.4895, -4.65058, 36.1991, -97.6668, 127.104, -118.982, 61.1658, -68.7043, -86.8248, -57.0817, 92.8325
3.136, -1, 8.93729, 51.5315, -4.65891, 36.3873, -97.6935, 127.102, -119.034, 61.2586, -68.7644, -86.8771, -57.0872, 92.6808
3.14, -1, 8.98765, 51.5733, -4.66723, 36.5752, -97.7202, 127.1, -119.085, 61.3512, -68.8243, -86.9293, -57.0927, 92.5294
3.143, -1, 9.03791, 51.6151, -4.67553, 36.7626, -97.7467, 127.098, -119.137, 61.4436, -68.8841, -86.9815, -57.0982, 92.3784
3.148, -1, 9.08805, 51.6568, -4.68381, 36.9496, -97.7733, 127.096, -119.189, 61.5358, -68.9437, -87.0334, -57.1036, 92.2277
3.152, -1, 9.13808, 51.6984, -4.69207, 37.1362, -97.7997, 127.094, -119.24, 61.6277, -69.0033, -87.0853, -57.109, 92.0773
3.156, -1, 9.18801, 51.7399, -4.70032, 37.3224, -97.8261, 127.092, -119.292, 61.7195, -69.0627, -87.1371, -57.1145, 91.9273
