hehonglu123/Motion-Primitive-Planning/ILC/recorded_data/realrobot/from_NX/iteration_3/run_3.csv
timestamp, cmd_num, J1, J2, J3, J4, J5, J6
0.000369, -1, 39.632, 32.4461, 11.8315, 12.547, 113.714, -48.8709
0.005375, -1, 39.632, 32.4461, 11.8315, 12.547, 113.714, -48.8709
0.008106, -1, 39.632, 32.4461, 11.8315, 12.547, 113.714, -48.8709
0.029515, -1, 39.632, 32.4461, 11.8315, 12.5469, 113.714, -48.8709
0.033871, -1, 39.632, 32.4461, 11.8315, 12.5469, 113.714, -48.8709
0.035974, -1, 39.632, 32.4461, 11.8315, 12.5469, 113.714, -48.8709
0.039971, -1, 39.632, 32.4461, 11.8315, 12.5469, 113.714, -48.871
0.048042, -1, 39.632, 32.4461, 11.8315, 12.5469, 113.714, -48.871
0.056025, -1, 39.6315, 32.446, 11.8314, 12.5469, 113.714, -48.8709
0.192674, -1, 38.4266, 31.8333, 12.0655, 12.5565, 113.09, -50.4658
0.194014, -1, 38.4266, 31.8333, 12.0655, 12.5565, 113.09, -50.4658
0.195291, -1, 38.4266, 31.8333, 12.0655, 12.5565, 113.09, -50.4658
0.197383, -1, 38.3414, 31.7886, 12.0849, 12.5577, 113.041, -50.589
0.199532, -1, 38.3414, 31.7886, 12.0849, 12.5577, 113.041, -50.589
0.201537, -1, 38.2544, 31.7431, 12.1043, 12.5588, 112.992, -50.714
0.202804, -1, 38.2544, 31.7431, 12.1043, 12.5588, 112.992, -50.714
0.207099, -1, 38.1659, 31.6968, 12.1239, 12.5601, 112.942, -50.8402
0.209165, -1, 38.076, 31.6499, 12.1434, 12.5613, 112.892, -50.9672
0.210461, -1, 38.076, 31.6499, 12.1434, 12.5613, 112.892, -50.9672
0.213117, -1, 38.076, 31.6499, 12.1434, 12.5613, 112.892, -50.9672
0.214582, -1, 37.9848, 31.6025, 12.1629, 12.5625, 112.841, -51.0951
0.216515, -1, 37.8925, 31.5546, 12.1823, 12.5637, 112.79, -51.2237
0.217898, -1, 37.8925, 31.5546, 12.1823, 12.5637, 112.79, -51.2237
0.219273, -1, 37.8925, 31.5546, 12.1823, 12.5637, 112.79, -51.2237
0.223201, -1, 37.7991, 31.5063, 12.2017, 12.5649, 112.739, -51.3527
0.225316, -1, 37.705, 31.4577, 12.2211, 12.566, 112.688, -51.4821
0.226604, -1, 37.705, 31.4577, 12.2211, 12.566, 112.688, -51.4821
0.227802, -1, 37.705, 31.4577, 12.2211, 12.566, 112.688, -51.4821
0.229872, -1, 37.6101, 31.409, 12.2405, 12.5673, 112.637, -51.6118
0.231082, -1, 37.6101, 31.409, 12.2405, 12.5673, 112.637, -51.6118
0.233146, -1, 37.5148, 31.3601, 12.2599, 12.5685, 112.586, -51.7416
0.241162, -1, 37.3232, 31.2621, 12.2986, 12.5709, 112.483, -52.0011
0.247815, -1, 37.2272, 31.2132, 12.3181, 12.5721, 112.432, -52.1309
0.256014, -1, 37.035, 31.1154, 12.3568, 12.5747, 112.329, -52.3907
0.263982, -1, 36.8429, 31.0177, 12.3956, 12.5774, 112.226, -52.6509
0.271992, -1, 36.6512, 30.92, 12.4344, 12.5799, 112.123, -52.9114
0.280013, -1, 36.4596, 30.8223, 12.4733, 12.5825, 112.02, -53.1716
0.287962, -1, 36.2681, 30.7246, 12.5121, 12.5851, 111.917, -53.4321
0.295995, -1, 36.0765, 30.6267, 12.5509, 12.5876, 111.815, -53.6925
0.304023, -1, 35.885, 30.5288, 12.5899, 12.5903, 111.711, -53.9532
0.311969, -1, 35.6934, 30.4308, 12.6288, 12.5928, 111.608, -54.2136
0.319994, -1, 35.5014, 30.3327, 12.6677, 12.5954, 111.505, -54.4739
0.327963, -1, 35.3092, 30.2344, 12.7064, 12.5981, 111.402, -54.7343
0.335972, -1, 35.1168, 30.1362, 12.7453, 12.6006, 111.299, -54.9951
0.344051, -1, 34.9244, 30.0377, 12.7842, 12.6032, 111.196, -55.2558
0.351964, -1, 34.7322, 29.9392, 12.823, 12.6058, 111.093, -55.5163
0.359985, -1, 34.5398, 29.8408, 12.8619, 12.6084, 110.99, -55.7771
0.368048, -1, 34.3476, 29.7423, 12.9009, 12.6109, 110.887, -56.038
0.375981, -1, 34.1556, 29.644, 12.9397, 12.6135, 110.784, -56.2989
0.384966, -1, 33.9637, 29.5458, 12.9787, 12.6162, 110.681, -56.5597
0.392103, -1, 33.7721, 29.4475, 13.0176, 12.6189, 110.578, -56.8204
0.401049, -1, 33.5803, 29.3491, 13.0564, 12.6215, 110.475, -57.0813
0.407957, -1, 33.3881, 29.2508, 13.0954, 12.6242, 110.372, -57.3427
0.416053, -1, 33.1956, 29.1522, 13.1344, 12.6268, 110.269, -57.6035
0.423965, -1, 33.0028, 29.0536, 13.1731, 12.6294, 110.165, -57.8646
0.432041, -1, 32.8099, 28.955, 13.212, 12.6321, 110.063, -58.1256
0.440001, -1, 32.6165, 28.8564, 13.251, 12.6348, 109.959, -58.3869
0.447962, -1, 32.4229, 28.7577, 13.2898, 12.6375, 109.856, -58.648
0.456026, -1, 32.2291, 28.659, 13.3287, 12.6402, 109.754, -58.909
0.463974, -1, 32.0349, 28.5602, 13.3676, 12.6429, 109.65, -59.1701
0.471445, -1, 31.8411, 28.4614, 13.4065, 12.6456, 109.547, -59.4315
0.479125, -1, 31.6473, 28.3627, 13.4455, 12.6483, 109.444, -59.6929
0.487806, -1, 31.4539, 28.264, 13.4845, 12.6512, 109.341, -59.9538
0.495975, -1, 31.2609, 28.1654, 13.5234, 12.6539, 109.238, -60.2152
0.504025, -1, 31.0683, 28.0669, 13.5625, 12.6567, 109.135, -60.4768
0.63995, -1, 27.8811, 26.4375, 14.2057, 12.7011, 107.379, -64.9242
0.641353, -1, 27.7847, 26.3881, 14.2252, 12.7011, 107.379, -64.9242
0.642559, -1, 27.7847, 26.3881, 14.2252, 12.7011, 107.379, -64.9242
0.644679, -1, 27.6884, 26.3386, 14.2447, 12.7023, 107.328, -65.0552
0.645959, -1, 27.6884, 26.3386, 14.2447, 12.7023, 107.328, -65.0552
0.647744, -1, 27.6884, 26.3386, 14.2447, 12.7023, 107.328, -65.0552
0.649227, -1, 27.5922, 26.2892, 14.2641, 12.7035, 107.276, -65.186
0.653048, -1, 27.4961, 26.2397, 14.2836, 12.7047, 107.224, -65.3168
0.654343, -1, 27.4961, 26.2397, 14.2836, 12.7047, 107.224, -65.3168
0.656322, -1, 27.4001, 26.1902, 14.3031, 12.7058, 107.173, -65.4475
0.657615, -1, 27.4001, 26.1902, 14.3031, 12.7058, 107.173, -65.4475
0.660549, -1, 27.3041, 26.1407, 14.3227, 12.707, 107.121, -65.5782
0.661875, -1, 27.3041, 26.1407, 14.3227, 12.707, 107.121, -65.5782
0.663067, -1, 27.3041, 26.1407, 14.3227, 12.707, 107.121, -65.5782
0.665161, -1, 27.208, 26.0912, 14.3422, 12.7081, 107.069, -65.709
0.666762, -1, 27.208, 26.0912, 14.3422, 12.7081, 107.069, -65.709
0.668789, -1, 27.1118, 26.0418, 14.3616, 12.7093, 107.017, -65.8399
0.67007, -1, 27.1118, 26.0418, 14.3616, 12.7093, 107.017, -65.8399
0.671292, -1, 27.1118, 26.0418, 14.3616, 12.7093, 107.017, -65.8399
0.67335, -1, 27.0156, 25.9923, 14.381, 12.7105, 106.966, -65.9708
0.674553, -1, 27.0156, 25.9923, 14.381, 12.7105, 106.966, -65.9708
0.680677, -1, 26.8229, 25.8935, 14.42, 12.7128, 106.863, -66.2327
0.68838, -1, 26.6297, 25.7946, 14.459, 12.7151, 106.759, -66.4944
0.696758, -1, 26.4362, 25.6958, 14.4978, 12.7174, 106.656, -66.756
0.70458, -1, 26.2423, 25.597, 14.5368, 12.7196, 106.553, -67.0177
0.712496, -1, 26.0481, 25.4981, 14.5758, 12.7218, 106.45, -67.2797
0.720511, -1, 25.8537, 25.3992, 14.6147, 12.7241, 106.347, -67.5414
0.728799, -1, 25.6594, 25.3004, 14.6537, 12.7264, 106.244, -67.803
0.736534, -1, 25.5624, 25.2511, 14.6927, 12.7287, 106.14, -68.0646
0.744497, -1, 25.3685, 25.1524, 14.7121, 12.7299, 106.088, -68.1955
0.752597, -1, 25.1749, 25.0536, 14.7512, 12.7322, 105.985, -68.5882
0.759075, -1, 24.9817, 24.9548, 14.7902, 12.7345, 105.882, -68.7189
0.768999, -1, 24.6921, 24.8066, 14.8486, 12.7381, 105.727, -69.1114
0.77496, -1, 24.5958, 24.7571, 14.8681, 12.7393, 105.676, -69.2423
0.783951, -1, 24.4036, 24.6582, 14.9071, 12.7416, 105.572, -69.5042
0.791957, -1, 24.2113, 24.5593, 14.9461, 12.7441, 105.469, -69.7657
0.79902, -1, 24.0187, 24.4605, 14.9851, 12.7463, 105.366, -70.0271
0.80796, -1, 23.8259, 24.3617, 15.0241, 12.7488, 105.262, -70.2887
0.815995, -1, 23.6329, 24.2628, 15.0629, 12.7512, 105.159, -70.5505
0.823948, -1, 23.4396, 24.164, 15.1019, 12.7535, 105.055, -70.8123
0.831955, -1, 23.2459, 24.0651, 15.1408, 12.7559, 104.952, -71.0739
0.840024, -1, 23.052, 23.9662, 15.1797, 12.7584, 104.849, -71.3357
0.847961, -1, 22.8579, 23.8674, 15.2186, 12.7609, 104.745, -71.5975
0.855939, -1, 22.664, 23.7686, 15.2576, 12.7634, 104.642, -71.8594
0.864042, -1, 22.4701, 23.6699, 15.2966, 12.7659, 104.539, -72.1209
0.871959, -1, 22.2766, 23.5712, 15.3356, 12.7683, 104.435, -72.3823
0.882175, -1, 21.9869, 23.4232, 15.3939, 12.7722, 104.28, -72.7746
0.88695, -1, 21.8904, 23.3738, 15.4134, 12.7735, 104.229, -72.9055
0.895993, -1, 21.6979, 23.2751, 15.4524, 12.7762, 104.125, -73.1667
0.904956, -1, 21.5058, 23.1763, 15.4913, 12.7789, 104.022, -73.4281
0.912012, -1, 21.3135, 23.0776, 15.5303, 12.7815, 103.919, -73.6896
0.919944, -1, 21.1212, 22.9789, 15.5693, 12.7842, 103.816, -73.9512
0.928007, -1, 20.9289, 22.8803, 15.6082, 12.7869, 103.713, -74.2124
0.936006, -1, 20.7364, 22.7817, 15.6471, 12.7896, 103.61, -74.4734
0.943949, -1, 20.5438, 22.6831, 15.686, 12.7923, 103.506, -74.7347
0.95201, -1, 20.3507, 22.5844, 15.7248, 12.7951, 103.404, -74.996
0.95994, -1, 20.157, 22.4857, 15.7638, 12.7978, 103.3, -75.2574
0.967954, -1, 19.9633, 22.3869, 15.8027, 12.8005, 103.197, -75.5184
0.976016, -1, 19.7697, 22.2882, 15.8414, 12.8033, 103.095, -75.7795
0.983941, -1, 19.576, 22.1896, 15.8803, 12.806, 102.992, -76.0409
0.991941, -1, 19.3826, 22.091, 15.9192, 12.8087, 102.889, -76.3021
1.00001, -1, 19.1895, 21.9924, 15.958, 12.8114, 102.786, -76.563
1.00797, -1, 18.9968, 21.8937, 15.997, 12.8141, 102.682, -76.8237
1.01594, -1, 18.8043, 21.7951, 16.0358, 12.8168, 102.579, -77.0847
1.02402, -1, 18.6122, 21.6964, 16.0745, 12.8195, 102.477, -77.3458
1.03198, -1, 18.4205, 21.5978, 16.1135, 12.8222, 102.374, -77.6065
1.03995, -1, 18.2286, 21.4993, 16.1523, 12.8248, 102.271, -77.8672
1.04803, -1, 18.0367, 21.4008, 16.1911, 12.8273, 102.168, -78.128
1.05594, -1, 17.8449, 21.3025, 16.23, 12.8299, 102.065, -78.3888
1.06407, -1, 17.6528, 21.2041, 16.2689, 12.8324, 101.962, -78.6494
1.07197, -1, 17.4604, 21.1058, 16.3077, 12.8349, 101.859, -78.9097
1.08003, -1, 17.2676, 21.0075, 16.3465, 12.8373, 101.756, -79.1703
1.08812, -1, 17.0745, 20.9092, 16.3853, 12.8397, 101.653, -79.431
1.09553, -1, 16.8814, 20.8109, 16.4241, 12.842, 101.55, -79.6916
1.10405, -1, 16.6884, 20.7128, 16.4629, 12.8443, 101.448, -79.952
1.11212, -1, 16.4953, 20.6146, 16.5015, 12.8467, 101.345, -80.2124
1.11958, -1, 16.3988, 20.5163, 16.5403, 12.8489, 101.242, -80.4731
1.12795, -1, 16.1102, 20.4179, 16.579, 12.8513, 101.14, -80.7335
1.13603, -1, 15.9182, 20.3195, 16.6177, 12.8536, 101.037, -80.9937
1.14296, -1, 15.8224, 20.2703, 16.6371, 12.8547, 100.986, -81.1237
1.15208, -1, 15.5352, 20.1226, 16.695, 12.8582, 100.832, -81.5138
1.15901, -1, 15.4397, 20.0735, 16.7143, 12.8594, 100.78, -81.6439
1.16817, -1, 15.153, 19.9261, 16.7725, 12.8628, 100.627, -82.0338
1.17495, -1, 15.0574, 19.877, 16.7918, 12.8639, 100.575, -82.1637
1.18428, -1, 14.7705, 19.7298, 16.8498, 12.8674, 100.422, -82.5535
1.19101, -1, 14.6748, 19.6807, 16.8692, 12.8685, 100.37, -82.6835
1.20054, -1, 14.3872, 19.5335, 16.9272, 12.872, 100.216, -83.0733
1.20849, -1, 14.195, 19.4355, 16.9658, 12.8742, 100.114, -83.3327
1.21649, -1, 14.0026, 19.3375, 17.0045, 12.8764, 100.011, -83.5924
1.22459, -1, 13.8101, 19.2397, 17.043, 12.8788, 99.9087, -83.852
1.23282, -1, 13.6176, 19.1419, 17.0817, 12.8811, 99.8062, -84.1116
1.24052, -1, 13.5213, 19.093, 17.101, 12.8834, 99.7036, -84.3708
1.24873, -1, 13.3291, 18.995, 17.1396, 12.8857, 99.6015, -84.6301
1.25593, -1, 13.1374, 18.8971, 17.178, 12.8869, 99.5504, -84.7598
1.26393, -1, 12.946, 18.7992, 17.2167, 12.8893, 99.4478, -85.0192
1.27198, -1, 12.7549, 18.7011, 17.2553, 12.8916, 99.3455, -85.2785
1.27992, -1, 12.564, 18.6033, 17.2937, 12.894, 99.2434, -85.5373
1.28795, -1, 12.3736, 18.5056, 17.3323, 12.8964, 99.141, -85.7961
1.29594, -1, 12.1835, 18.4078, 17.3708, 12.8989, 99.0388, -86.0552
1.30393, -1, 11.9934, 18.3101, 17.4093, 12.9012, 98.9368, -86.3142
1.31143, -1, 11.803, 18.2125, 17.448, 12.9037, 98.8347, -86.5727
1.31993, -1, 11.6123, 18.1149, 17.4865, 12.9061, 98.7329, -86.8313
1.32794, -1, 11.4215, 18.0173, 17.525, 12.9085, 98.631, -87.0899
1.33573, -1, 11.2303, 17.9197, 17.5636, 12.911, 98.5291, -87.3486
1.34296, -1, 11.0388, 17.8222, 17.6021, 12.9134, 98.4273, -87.6069
1.35193, -1, 10.8473, 17.7247, 17.6406, 12.916, 98.3252, -87.8652
1.35978, -1, 10.6555, 17.6272, 17.679, 12.9184, 98.2232, -88.1234
1.36797, -1, 10.4641, 17.5297, 17.7174, 12.921, 98.1215, -88.3818
1.37593, -1, 10.273, 17.4322, 17.7558, 12.9235, 98.0196, -88.6398
1.38494, -1, 10.0821, 17.3346, 17.7943, 12.9261, 97.9177, -88.8978
1.39192, -1, 9.89167, 17.237, 17.8326, 12.9288, 97.8161, -89.1559
1.40094, -1, 9.70154, 17.1396, 17.871, 12.9314, 97.7139, -89.414
1.40776, -1, 9.51191, 17.0421, 17.9094, 12.9342, 97.612, -89.6721
1.41593, -1, 9.32265, 16.9448, 17.9477, 12.937, 97.5102, -89.9296
1.42405, -1, 9.13334, 16.8475, 17.9861, 12.9396, 97.4082, -90.1871
1.43194, -1, 8.94398, 16.7503, 18.0245, 12.9422, 97.3064, -90.4448
1.43906, -1, 8.75447, 16.6532, 18.0628, 12.9448, 97.2049, -90.7023
1.448, -1, 8.56486, 16.556, 18.1013, 12.9475, 97.1031, -90.9595
1.45593, -1, 8.37519, 16.4589, 18.1396, 12.9502, 97.0017, -91.2168
1.46393, -1, 8.18482, 16.3619, 18.1779, 12.9528, 96.9001, -91.4739
1.47199, -1, 7.99422, 16.265, 18.2163, 12.9554, 96.7984, -91.7312
1.47993, -1, 7.80368, 16.1681, 18.2545, 12.9582, 96.697, -91.9881
1.48794, -1, 7.61314, 16.0712, 18.2927, 12.9607, 96.5955, -92.2447
1.49599, -1, 7.42268, 15.9742, 18.3311, 12.9633, 96.4941, -92.5016
1.50394, -1, 7.23252, 15.8773, 18.3693, 12.9658, 96.393, -92.7584
1.51195, -1, 7.04272, 15.7803, 18.4074, 12.9684, 96.2916, -93.015
1.51999, -1, 6.85332, 15.6834, 18.4458, 12.9709, 96.1903, -93.2715
1.52794, -1, 6.66437, 15.5866, 18.4839, 12.9734, 96.0897, -93.5279
1.53596, -1, 6.47595, 15.4898, 18.5219, 12.9759, 95.9885, -93.7841
1.54399, -1, 6.28777, 15.3931, 18.5602, 12.9784, 95.8874, -94.0406
1.55225, -1, 6.09966, 15.2964, 18.5983, 12.9808, 95.7867, -94.2965
1.55928, -1, 5.91139, 15.1997, 18.6365, 12.9832, 95.6856, -94.5524
1.56737, -1, 5.72297, 15.103, 18.6747, 12.9855, 95.5846, -94.8083
1.57545, -1, 5.5345, 15.0064, 18.7127, 12.9879, 95.484, -95.0644
1.58344, -1, 5.34566, 14.9098, 18.7509, 12.9902, 95.3832, -95.3201
1.59202, -1, 5.15648, 14.8133, 18.7891, 12.9924, 95.2825, -95.5754
1.60078, -1, 4.96708, 14.717, 18.8271, 12.9947, 95.1819, -95.8308
1.60804, -1, 4.77777, 14.6206, 18.8651, 12.9969, 95.0811, -96.0864
1.61558, -1, 4.5883, 14.5242, 18.9033, 12.9991, 94.9803, -96.3416
1.62522, -1, 4.39906, 14.4278, 18.9413, 13.0013, 94.8796, -96.5966
1.63149, -1, 4.30456, 14.3797, 18.9603, 13.0024, 94.8292, -96.724
1.64003, -1, 4.02153, 14.2351, 19.0173, 13.0057, 94.678, -97.1064
1.64694, -1, 3.92741, 14.187, 19.0363, 13.0069, 94.6276, -97.234
1.656, -1, 3.64596, 14.0428, 19.0932, 13.0102, 94.4764, -97.6162
1.66489, -1, 3.45883, 13.9466, 19.1311, 13.0126, 94.3758, -97.8709
1.67226, -1, 3.27193, 13.8506, 19.1689, 13.0149, 94.2752, -98.1256
1.67903, -1, 3.17841, 13.8026, 19.1879, 13.016, 94.2249, -98.253
1.68909, -1, 2.89792, 13.6585, 19.2448, 13.0194, 94.0739, -98.6347
1.69648, -1, 2.71094, 13.5625, 19.2827, 13.0216, 93.9732, -98.8889
1.70293, -1, 2.61733, 13.5145, 19.3016, 13.0227, 93.9229, -99.0159
1.71324, -1, 2.33613, 13.3706, 19.3583, 13.0262, 93.7724, -99.3972
1.71905, -1, 2.2422, 13.3227, 19.3772, 13.0273, 93.7223, -99.5243
1.72852, -1, 1.96004, 13.1789, 19.4341, 13.0306, 93.5718, -99.9047
1.73746, -1, 1.77188, 13.0831, 19.4718, 13.033, 93.472, -100.158
1.74302, -1, 1.67775, 13.0352, 19.4907, 13.0341, 93.422, -100.285
1.7525, -1, 1.48951, 12.9394, 19.5285, 13.0362, 93.3218, -100.666
1.75991, -1, 1.30156, 12.8436, 19.5663, 13.0386, 93.2218, -100.792
1.76703, -1, 1.11395, 12.7478, 19.6039, 13.0409, 93.1218, -101.046
1.77699, -1, 0.833597, 12.6044, 19.6606, 13.0445, 92.9718, -101.425
1.78392, -1, 0.740388, 12.5567, 19.6794, 13.0457, 92.922, -101.552
1.79099, -1, 0.554343, 12.4611, 19.7169, 13.0481, 92.8222, -101.805
1.80002, -1, 0.368663, 12.3657, 19.7546, 13.0506, 92.7224, -102.057
1.80791, -1, 0.183114, 12.2703, 19.7923, 13.053, 92.6231, -102.31
1.81493, -1, -0.00231901, 12.1749, 19.8298, 13.0555, 92.5235, -102.563
1.82391, -1, -0.187833, 12.0797, 19.8674, 13.0579, 92.4239, -102.815
1.83191, -1, -0.373614, 11.9845, 19.905, 13.0604, 92.3246, -103.068
1.83898, -1, -0.559784, 11.8893, 19.9425, 13.0629, 92.2251, -103.319
1.84793, -1, -0.746163, 11.7943, 19.9801, 13.0654, 92.1256, -103.571
1.85591, -1, -0.932615, 11.6993, 20.0176, 13.0678, 92.0263, -103.824
1.86399, -1, -1.11933, 11.6042, 20.055, 13.0704, 91.9269, -104.076
1.87195, -1, -1.30642, 11.5092, 20.0926, 13.0729, 91.8275, -104.327
1.87993, -1, -1.4933, 11.4141, 20.1301, 13.0754, 91.7284, -104.579
1.88893, -1, -1.67985, 11.319, 20.1675, 13.078, 91.6292, -104.83
1.89591, -1, -1.86612, 11.2239, 20.2049, 13.0806, 91.5299, -105.082
1.90392, -1, -2.05185, 11.1289, 20.2424, 13.0833, 91.4309, -105.333
1.91197, -1, -2.23683, 11.034, 20.2797, 13.0859, 91.3316, -105.584
1.91992, -1, -2.42163, 10.9392, 20.3171, 13.0886, 91.2324, -105.835
1.92791, -1, -2.60602, 10.8444, 20.3544, 13.0912, 91.1336, -106.086
1.93594, -1, -2.7899, 10.7496, 20.3917, 13.0939, 91.0344, -106.337
1.94392, -1, -2.97383, 10.6548, 20.4291, 13.0964, 90.9353, -106.588
1.95198, -1, -3.15799, 10.5601, 20.4664, 13.0991, 90.8366, -106.838
1.95991, -1, -3.34223, 10.4656, 20.5036, 13.1016, 90.7376, -107.089
1.96796, -1, -3.52688, 10.3711, 20.5409, 13.1042, 90.6387, -107.339
1.97599, -1, -3.71169, 10.2768, 20.5782, 13.1068, 90.54, -107.589
1.98391, -1, -3.8968, 10.1825, 20.6153, 13.1092, 90.4411, -107.839
1.99191, -1, -4.08213, 10.0881, 20.6526, 13.1116, 90.3424, -108.089
1.99998, -1, -4.26777, 9.99381, 20.6897, 13.114, 90.2439, -108.339
2.00791, -1, -4.45337, 9.89949, 20.7269, 13.1163, 90.1451, -108.589
2.01602, -1, -4.63865, 9.80518, 20.7642, 13.1186, 90.0466, -108.838
2.02393, -1, -4.82353, 9.71098, 20.8013, 13.1209, 89.9483, -109.088
2.03187, -1, -5.00806, 9.61688, 20.8383, 13.1234, 89.8498, -109.337
2.04001, -1, -5.19177, 9.52283, 20.8755, 13.1258, 89.7513, -109.587
2.04791, -1, -5.37508, 9.42878, 20.9126, 13.1281, 89.6531, -109.836
2.05592, -1, -5.55799, 9.3349, 20.9496, 13.1304, 89.5545, -110.084
2.06398, -1, -5.74047, 9.24096, 20.9868, 13.1327, 89.4563, -110.333
2.07194, -1, -5.9228, 9.14705, 21.0237, 13.1349, 89.3584, -110.582
2.07998, -1, -6.10521, 9.05322, 21.0607, 13.1371, 89.2601, -110.831
2.08807, -1, -6.28795, 8.95942, 21.0978, 13.1394, 89.1621, -111.079
2.09602, -1, -6.47092, 8.86579, 21.1347, 13.1416, 89.0645, -111.327
2.10401, -1, -6.654, 8.77217, 21.1715, 13.1437, 88.9664, -111.575
2.11208, -1, -6.83767, 8.67856, 21.2085, 13.1459, 88.8685, -111.824
2.12001, -1, -7.02165, 8.58495, 21.2454, 13.148, 88.7707, -112.071
2.12761, -1, -7.11372, 8.53817, 21.2639, 13.1501, 88.6728, -112.319
2.13619, -1, -7.39005, 8.39778, 21.3192, 13.1522, 88.5749, -112.567
2.14292, -1, -7.482, 8.35094, 21.3377, 13.1533, 88.5263, -112.691
2.15201, -1, -7.75743, 8.21071, 21.3928, 13.1565, 88.3798, -113.062
2.15899, -1, -7.84903, 8.16402, 21.4112, 13.1576, 88.3311, -113.185
2.16808, -1, -8.12301, 8.02397, 21.4665, 13.161, 88.1852, -113.556
2.17494, -1, -8.21399, 7.97734, 21.4849, 13.1621, 88.1364, -113.68
2.18425, -1, -8.48616, 7.83745, 21.5401, 13.1655, 87.9903, -114.05
2.19096, -1, -8.57669, 7.79084, 21.5586, 13.1666, 87.9417, -114.174
2.2005, -1, -8.84779, 7.65108, 21.6137, 13.17, 87.7955, -114.543
2.20844, -1, -9.02856, 7.55797, 21.6504, 13.1722, 87.6981, -114.79
2.21642, -1, -9.20963, 7.46496, 21.6872, 13.1745, 87.601, -115.036
2.22455, -1, -9.3909, 7.37214, 21.7238, 13.1767, 87.5038, -115.283
2.2325, -1, -9.57254, 7.27933, 21.7605, 13.1789, 87.4067, -115.529
2.24049, -1, -9.66346, 7.23291, 21.7972, 13.1812, 87.3096, -115.775
2.24863, -1, -9.84566, 7.14017, 21.8337, 13.1834, 87.2124, -116.021
2.2559, -1, -10.0282, 7.04744, 21.852, 13.1845, 87.1637, -116.144
2.2639, -1, -10.2108, 6.9547, 21.8887, 13.1867, 87.0668, -116.39
2.27197, -1, -10.3935, 6.86194, 21.9253, 13.1889, 86.9694, -116.635
2.27999, -1, -10.576, 6.76921, 21.9619, 13.1912, 86.8724, -116.88
2.2879, -1, -10.758, 6.67656, 21.9984, 13.1935, 86.7755, -117.126
2.29595, -1, -10.9396, 6.58397, 22.0348, 13.196, 86.6785, -117.371
2.30395, -1, -11.1204, 6.49144, 22.0713, 13.1984, 86.5817, -117.616
2.3119, -1, -11.3005, 6.39895, 22.1079, 13.2007, 86.4852, -117.861
2.3199, -1, -11.4802, 6.3065, 22.1444, 13.2032, 86.3884, -118.106
2.32792, -1, -11.6596, 6.21405, 22.1808, 13.2056, 86.2916, -118.351
2.33596, -1, -11.8388, 6.12166, 22.2173, 13.2081, 86.1952, -118.595
2.34391, -1, -12.0181, 6.02939, 22.2537, 13.2105, 86.0985, -118.84
2.35192, -1, -12.1974, 5.93725, 22.2902, 13.213, 86.0019, -119.084
2.35997, -1, -12.3771, 5.8452, 22.3266, 13.2155, 85.9057, -119.328
2.36791, -1, -12.5572, 5.75314, 22.3629, 13.2179, 85.8093, -119.572
2.37593, -1, -12.7377, 5.66117, 22.3991, 13.2204, 85.713, -119.816
2.38491, -1, -12.9186, 5.56924, 22.4356, 13.2229, 85.6172, -120.06
2.39191, -1, -13.0998, 5.47729, 22.4719, 13.2253, 85.5211, -120.303
2.40095, -1, -13.281, 5.38527, 22.5081, 13.2277, 85.4252, -120.547
2.40691, -1, -13.4621, 5.29336, 22.5444, 13.2302, 85.3295, -120.791
2.4159, -1, -13.6428, 5.20145, 22.5806, 13.2327, 85.2336, -121.034
2.42391, -1, -13.823, 5.10961, 22.6167, 13.2352, 85.1379, -121.277
2.43192, -1, -14.0025, 5.01778, 22.6529, 13.2378, 85.0422, -121.52
2.43989, -1, -14.1812, 4.92607, 22.6891, 13.2404, 84.9466, -121.763
2.44797, -1, -14.3594, 4.83439, 22.7251, 13.243, 84.8511, -122.005
2.4559, -1, -14.5373, 4.74272, 22.7614, 13.2455, 84.7556, -122.248
2.46389, -1, -14.7149, 4.65111, 22.7976, 13.2481, 84.6599, -122.49
2.47203, -1, -14.8925, 4.5596, 22.8336, 13.2505, 84.5641, -122.733
2.4799, -1, -15.0702, 4.46815, 22.8698, 13.2529, 84.4685, -122.975
2.48792, -1, -15.2483, 4.37688, 22.9059, 13.2554, 84.3728, -123.217
2.49598, -1, -15.4267, 4.28557, 22.9419, 13.2578, 84.2772, -123.459
2.5039, -1, -15.6056, 4.19428, 22.978, 13.2601, 84.1816, -123.7
2.51189, -1, -15.7849, 4.10303, 23.014, 13.2624, 84.086, -123.942
2.51999, -1, -15.9641, 4.01181, 23.0499, 13.2645, 83.9907, -124.184
2.52791, -1, -16.1437, 3.92054, 23.0859, 13.2667, 83.8953, -124.425
2.53589, -1, -16.3235, 3.82931, 23.1219, 13.2688, 83.7998, -124.667
2.54409, -1, -16.503, 3.7381, 23.1577, 13.271, 83.7044, -124.908
2.5519, -1, -16.6819, 3.64698, 23.1936, 13.2733, 83.6089, -125.149
2.55936, -1, -16.8603, 3.5559, 23.2294, 13.2756, 83.5136, -125.39
2.56737, -1, -17.0378, 3.46489, 23.2652, 13.2778, 83.4182, -125.631
2.57593, -1, -17.2147, 3.37393, 23.3011, 13.2799, 83.3229, -125.872
2.58404, -1, -17.3912, 3.28306, 23.337, 13.2822, 83.2279, -126.112
2.592, -1, -17.5675, 3.19219, 23.3727, 13.2843, 83.1327, -126.353
2.59999, -1, -17.7435, 3.10155, 23.4086, 13.2864, 83.0379, -126.593
2.60806, -1, -17.9195, 3.01097, 23.4445, 13.2885, 82.9433, -126.833
2.61601, -1, -18.0957, 2.9205, 23.4802, 13.2906, 82.8483, -127.074
2.62396, -1, -18.2723, 2.83009, 23.5159, 13.2928, 82.7536, -127.314
2.63207, -1, -18.4493, 2.73968, 23.5517, 13.2949, 82.659, -127.554
2.63996, -1, -18.6267, 2.6493, 23.5874, 13.2968, 82.5642, -127.793
2.64793, -1, -18.8044, 2.55899, 23.623, 13.2989, 82.4697, -128.033
2.65599, -1, -18.9825, 2.46854, 23.6588, 13.3009, 82.3754, -128.272
2.6629, -1, -19.0716, 2.42328, 23.6766, 13.3019, 82.3281, -128.392
2.67213, -1, -19.3389, 2.28772, 23.7299, 13.3048, 82.1866, -128.751
2.67896, -1, -19.4279, 2.24251, 23.7478, 13.3059, 82.1397, -128.87
2.68821, -1, -19.6936, 2.10698, 23.8011, 13.3091, 81.9985, -129.229
2.69497, -1, -19.782, 2.06181, 23.8187, 13.3102, 81.9514, -129.348
2.70433, -1, -20.0459, 1.92641, 23.872, 13.3134, 81.8104, -129.707
2.71254, -1, -20.221, 1.83622, 23.9075, 13.3157, 81.7162, -129.945
2.72051, -1, -20.396, 1.74609, 23.9429, 13.3179, 81.6221, -130.183
2.72844, -1, -20.5705, 1.65602, 23.9786, 13.3201, 81.5284, -130.422
2.73645, -1, -20.745, 1.56605, 24.014, 13.3222, 81.4343, -130.66
2.74291, -1, -20.8324, 1.52109, 24.0317, 13.3233, 81.3874, -130.779
2.75243, -1, -21.0072, 1.43131, 24.0671, 13.3256, 81.2937, -131.136
2.75989, -1, -21.1823, 1.34163, 24.1027, 13.3278, 81.2001, -131.255
2.76794, -1, -21.3579, 1.25189, 24.138, 13.3299, 81.1061, -131.493
2.77588, -1, -21.5338, 1.16224, 24.1733, 13.3321, 81.0122, -131.731
2.78388, -1, -21.7099, 1.07263, 24.2088, 13.3342, 80.9186, -131.968
2.79185, -1, -21.8862, 0.98297, 24.2442, 13.3364, 80.8247, -132.205
2.79989, -1, -22.0627, 0.89339, 24.2795, 13.3386, 80.7309, -132.442
2.80799, -1, -22.2393, 0.803833, 24.3149, 13.3407, 80.6374, -132.68
2.81588, -1, -22.4156, 0.714332, 24.3502, 13.343, 80.5437, -132.917
2.82389, -1, -22.5914, 0.624821, 24.3853, 13.3453, 80.4501, -133.154
2.83193, -1, -22.7667, 0.535358, 24.4206, 13.3476, 80.3567, -133.39
2.83896, -1, -22.941, 0.445963, 24.4558, 13.35, 80.2628, -133.627
2.84788, -1, -23.1148, 0.356543, 24.4909, 13.3525, 80.1694, -133.864
2.85596, -1, -23.2884, 0.267196, 24.5261, 13.3549, 80.076, -134.101
2.86389, -1, -23.4615, 0.177905, 24.5613, 13.3574, 79.9825, -134.337
2.87188, -1, -23.6346, 0.0887198, 24.5965, 13.3598, 79.8892, -134.573
2.88008, -1, -23.8081, -0.000401739, 24.6317, 13.3622, 79.7961, -134.809
2.88688, -1, -23.9815, -0.0893444, 24.6668, 13.3646, 79.7029, -135.046
2.89588, -1, -24.1552, -0.178298, 24.7019, 13.3671, 79.6097, -135.282
2.90395, -1, -24.3291, -0.267247, 24.737, 13.3695, 79.5168, -135.517
2.91188, -1, -24.5034, -0.356095, 24.7722, 13.3719, 79.4237, -135.753
2.91989, -1, -24.6781, -0.444976, 24.8072, 13.3744, 79.3306, -135.988
2.92795, -1, -24.853, -0.533847, 24.8422, 13.3767, 79.2376, -136.224
2.93588, -1, -25.0281, -0.622698, 24.8773, 13.3791, 79.1446, -136.459
2.9439, -1, -25.203, -0.71153, 24.9123, 13.3815, 79.0517, -136.694
2.95195, -1, -25.3775, -0.800303, 24.9473, 13.3839, 78.9589, -136.929
2.9599, -1, -25.5516, -0.889148, 24.9824, 13.3863, 78.8664, -137.164
2.96794, -1, -25.7251, -0.977881, 25.0172, 13.3889, 78.7735, -137.399
2.97593, -1, -25.898, -1.06657, 25.052, 13.3912, 78.6809, -137.634
2.98388, -1, -26.0704, -1.15526, 25.0871, 13.3937, 78.5888, -137.868
2.99195, -1, -26.2425, -1.24387, 25.122, 13.3961, 78.496, -138.103
2.9999, -1, -26.4143, -1.33239, 25.1567, 13.3984, 78.4035, -138.337
3.00788, -1, -26.5861, -1.42079, 25.1916, 13.4007, 78.3113, -138.572
3.01594, -1, -26.7582, -1.50914, 25.2266, 13.4029, 78.2186, -138.806
3.02393, -1, -26.9305, -1.59731, 25.2614, 13.4052, 78.1262, -139.04
3.03184, -1, -27.1029, -1.68546, 25.2962, 13.4074, 78.0341, -139.274
3.03996, -1, -27.2754, -1.77368, 25.3311, 13.4096, 77.9419, -139.508
3.04791, -1, -27.4483, -1.86175, 25.3658, 13.4117, 77.8498, -139.741
3.05588, -1, -27.6215, -1.94984, 25.4005, 13.4138, 77.7578, -139.975
3.06395, -1, -27.7948, -2.03806, 25.4354, 13.4159, 77.6657, -140.208
3.07188, -1, -27.968, -2.12607, 25.4701, 13.418, 77.5737, -140.441
3.07992, -1, -28.1413, -2.21411, 25.5048, 13.42, 77.4817, -140.675
3.08743, -1, -28.3145, -2.30217, 25.5397, 13.422, 77.3897, -140.908
3.09598, -1, -28.4873, -2.39024, 25.5744, 13.4241, 77.2976, -141.141
3.10404, -1, -28.6596, -2.4782, 25.609, 13.4262, 77.2055, -141.374
3.11198, -1, -28.8313, -2.56618, 25.6437, 13.4284, 77.1136, -141.607
3.11999, -1, -29.0022, -2.65416, 25.6784, 13.4306, 77.0216, -141.839
3.12806, -1, -29.1729, -2.74203, 25.7129, 13.4327, 76.9297, -142.072
3.13589, -1, -29.3435, -2.82982, 25.7476, 13.4348, 76.838, -142.304
3.14396, -1, -29.5142, -2.91752, 25.7823, 13.4368, 76.7461, -142.537
3.15198, -1, -29.6851, -3.00511, 25.8168, 13.4388, 76.6542, -142.769
3.15893, -1, -29.7706, -3.04889, 25.8341, 13.4398, 76.6084, -142.885
3.16802, -1, -30.0271, -3.18009, 25.886, 13.443, 76.4707, -143.234
3.17487, -1, -30.1126, -3.22385, 25.9033, 13.444, 76.4249, -143.35
3.18293, -1, -30.2836, -3.31136, 25.9378, 13.4461, 76.3331, -143.581
3.19231, -1, -30.5408, -3.44254, 25.9897, 13.4491, 76.1958, -143.929
3.19894, -1, -30.6267, -3.48632, 26.0069, 13.4501, 76.15, -144.045
3.20698, -1, -30.7985, -3.57375, 26.0414, 13.4522, 76.0586, -144.277
3.2165, -1, -31.0563, -3.70487, 26.0933, 13.4552, 75.9216, -144.623
3.22525, -1, -31.2279, -3.79224, 26.1277, 13.4573, 75.8303, -144.855
3.23094, -1, -31.3137, -3.8359, 26.1449, 13.4583, 75.7846, -144.971
3.2405, -1, -31.57, -3.96681, 26.1966, 13.4615, 75.6478, -145.317
3.24937, -1, -31.6553, -4.01042, 26.2311, 13.4637, 75.5565, -145.548
3.25497, -1, -31.8255, -4.09768, 26.2482, 13.4648, 75.5108, -145.664
3.26447, -1, -31.9954, -4.18491, 26.2826, 13.4669, 75.4199, -145.895
3.27188, -1, -32.1649, -4.27205, 26.3171, 13.4691, 75.3287, -146.126
3.27902, -1, -32.3343, -4.35914, 26.3514, 13.4713, 75.2376, -146.356
3.28901, -1, -32.5887, -4.48961, 26.4029, 13.4745, 75.1016, -146.702
3.29588, -1, -32.6736, -4.53305, 26.4202, 13.4756, 75.056, -146.817
3.30295, -1, -32.8432, -4.61995, 26.4546, 13.4777, 74.9652, -147.048
3.31197, -1, -33.0128, -4.70686, 26.4887, 13.4799, 74.8744, -147.278
3.31987, -1, -33.1826, -4.79377, 26.523, 13.4821, 74.784, -147.508
3.32688, -1, -33.3526, -4.88059, 26.5574, 13.4843, 74.6933, -147.738
3.33587, -1, -33.5228, -4.96755, 26.5916, 13.4865, 74.6026, -147.968
3.34398, -1, -33.6931, -5.0544, 26.6258, 13.4888, 74.5123, -148.198
3.35199, -1, -33.8634, -5.14118, 26.6601, 13.491, 74.4215, -148.428
3.35988, -1, -34.0336, -5.22791, 26.6942, 13.4932, 74.3311, -148.657
3.36787, -1, -34.2038, -5.31464, 26.7283, 13.4955, 74.2407, -148.886
3.37492, -1, -34.3738, -5.4013, 26.7627, 13.4978, 74.1499, -149.116
3.3839, -1, -34.5436, -5.48794, 26.7969, 13.5001, 74.0593, -149.345
3.39286, -1, -34.7128, -5.57459, 26.8309, 13.5024, 73.969, -149.575
3.39892, -1, -34.8815, -5.66119, 26.8651, 13.5049, 73.8783, -149.804
3.40787, -1, -35.05, -5.74772, 26.8993, 13.5073, 73.7878, -150.033
3.41586, -1, -35.2182, -5.83417, 26.9333, 13.5097, 73.6975, -150.261
3.42393, -1, -35.3866, -5.92053, 26.9674, 13.5122, 73.6071, -150.491
3.43188, -1, -35.5552, -6.00673, 27.0016, 13.5146, 73.5169, -150.719
3.44008, -1, -35.7237, -6.09297, 27.0355, 13.5169, 73.4265, -150.948
3.44788, -1, -35.8922, -6.17914, 27.0696, 13.5193, 73.3364, -151.177
3.45587, -1, -36.0607, -6.26527, 27.1037, 13.5217, 73.2458, -151.405
3.46469, -1, -36.2293, -6.3514, 27.1377, 13.524, 73.1554, -151.634
3.47187, -1, -36.398, -6.43764, 27.1716, 13.5265, 73.0652, -151.862
3.47991, -1, -36.5669, -6.52386, 27.2056, 13.5288, 72.9746, -152.09
3.48871, -1, -36.7357, -6.61001, 27.2395, 13.531, 72.8844, -152.319
3.49694, -1, -36.9046, -6.69616, 27.2734, 13.5333, 72.7944, -152.547
3.50386, -1, -37.0736, -6.78234, 27.3074, 13.5357, 72.7042, -152.775
3.51557, -1, -37.3266, -6.91147, 27.3582, 13.539, 72.5694, -153.117
3.51989, -1, -37.4108, -6.95446, 27.3751, 13.5401, 72.5245, -153.23
3.52789, -1, -37.5789, -7.04052, 27.4091, 13.5424, 72.4345, -153.458
3.53591, -1, -37.7466, -7.12652, 27.443, 13.5447, 72.3447, -153.685
3.54389, -1, -37.9143, -7.21251, 27.4768, 13.5469, 72.2549, -153.913
3.55189, -1, -38.0818, -7.29844, 27.5106, 13.5491, 72.1652, -154.14
3.55991, -1, -38.2492, -7.38432, 27.5446, 13.5513, 72.0754, -154.368
3.56788, -1, -38.4166, -7.47008, 27.5784, 13.5535, 71.9857, -154.595
3.57603, -1, -38.5839, -7.55579, 27.6122, 13.5555, 71.8963, -154.822
3.58393, -1, -38.7512, -7.64149, 27.6461, 13.5576, 71.8065, -155.049
3.592, -1, -38.9184, -7.72718, 27.6798, 13.5596, 71.717, -155.276
3.60026, -1, -39.0858, -7.81281, 27.7135, 13.5617, 71.628, -155.503
3.60743, -1, -39.2533, -7.89848, 27.7473, 13.5637, 71.5384, -155.73
3.616, -1, -39.4208, -7.98413, 27.7812, 13.5656, 71.4492, -155.957
3.6244, -1, -39.5884, -8.06968, 27.8148, 13.5676, 71.3599, -156.183
3.63163, -1, -39.6722, -8.11246, 27.8316, 13.5685, 71.2705, -156.41
3.64001, -1, -39.9237, -8.24068, 27.8822, 13.5716, 71.1811, -156.636
3.64868, -1, -40.0912, -8.32612, 27.9159, 13.5735, 71.0917, -156.862
3.65595, -1, -40.2586, -8.41145, 27.9495, 13.5755, 71.0027, -157.089
3.66289, -1, -40.3422, -8.45411, 27.9664, 13.5764, 70.9578, -157.202
3.67286, -1, -40.5928, -8.5822, 28.017, 13.5794, 70.824, -157.541
3.68025, -1, -40.7596, -8.66753, 28.0505, 13.5813, 70.7351, -157.767
3.68689, -1, -40.843, -8.71019, 28.0673, 13.5823, 70.6905, -157.88
3.69703, -1, -41.0927, -8.8382, 28.1179, 13.5854, 70.5567, -158.219
3.70426, -1, -41.259, -8.92345, 28.1515, 13.5874, 70.4677, -158.445
3.71092, -1, -41.3421, -8.96601, 28.1682, 13.5884, 70.4232, -158.557
3.72128, -1, -41.5915, -9.09376, 28.2187, 13.5913, 70.2892, -158.896
3.72693, -1, -41.6746, -9.13633, 28.2355, 13.5923, 70.2446, -159.008
3.7365, -1, -41.9241, -9.26391, 28.2858, 13.5953, 70.1112, -159.347
3.74539, -1, -42.0905, -9.34896, 28.3195, 13.5974, 70.0221, -159.572
3.75095, -1, -42.1737, -9.39151, 28.3363, 13.5984, 69.9776, -159.685
3.76049, -1, -42.34, -9.47658, 28.3698, 13.6005, 69.8444, -160.023
3.76785, -1, -42.5063, -9.56151, 28.4033, 13.6025, 69.7997, -160.135
3.77493, -1, -42.6727, -9.64649, 28.4369, 13.6045, 69.7109, -160.36
3.78489, -1, -42.9222, -9.7739, 28.487, 13.6076, 69.5777, -160.698
3.79185, -1, -43.0054, -9.81634, 28.5037, 13.6086, 69.5332, -160.811
3.79985, -1, -43.1716, -9.90125, 28.5373, 13.6107, 69.4445, -161.035
3.80687, -1, -43.3378, -9.98621, 28.5707, 13.6127, 69.3557, -161.26
3.81591, -1, -43.5038, -10.0711, 28.6042, 13.6148, 69.2673, -161.485
3.82386, -1, -43.6698, -10.1561, 28.6377, 13.6168, 69.1785, -161.71
3.83191, -1, -43.8357, -10.241, 28.6711, 13.619, 69.0901, -161.934
3.83985, -1, -44.0015, -10.3257, 28.7045, 13.6211, 69.0017, -162.159
3.84785, -1, -44.1669, -10.4105, 28.7379, 13.6232, 68.913, -162.383
3.85485, -1, -44.3322, -10.4951, 28.7715, 13.6254, 68.8244, -162.607
3.86388, -1, -44.4973, -10.5796, 28.8048, 13.6277, 68.7358, -162.832
3.87186, -1, -44.6625, -10.6642, 28.8382, 13.6299, 68.6472, -163.056
3.8789, -1, -44.8278, -10.7487, 28.8717, 13.632, 68.5586, -163.28
3.88789, -1, -44.9932, -10.8331, 28.9051, 13.6343, 68.4702, -163.504
3.89686, -1, -45.1584, -10.9176, 28.9384, 13.6364, 68.3819, -163.728
3.90393, -1, -45.3237, -11.0022, 28.9719, 13.6387, 68.2934, -163.952
3.91186, -1, -45.489, -11.0866, 29.0052, 13.641, 68.205, -164.176
3.91985, -1, -45.6542, -11.171, 29.0383, 13.6432, 68.1171, -164.4
3.92793, -1, -45.8195, -11.2555, 29.0717, 13.6455, 68.0285, -164.623
3.93585, -1, -45.9838, -11.3394, 29.1051, 13.6477, 67.9401, -164.847
3.94386, -1, -46.1452, -11.4217, 29.1385, 13.65, 67.8521, -165.07
3.95193, -1, -46.3023, -11.5012, 29.1721, 13.6524, 67.7646, -165.291
3.95985, -1, -46.4528, -11.5763, 29.2056, 13.6548, 67.6795, -165.507
3.96785, -1, -46.5941, -11.6463, 29.2378, 13.6571, 67.5979, -165.713
3.97592, -1, -46.7239, -11.7097, 29.2677, 13.6593, 67.5231, -165.903
3.98391, -1, -46.8392, -11.766, 29.2942, 13.6614, 67.4559, -166.072
3.99186, -1, -46.9381, -11.8152, 29.3163, 13.663, 67.4, -166.214
3.99991, -1, -47.021, -11.8582, 29.333, 13.6643, 67.355, -166.328
4.00789, -1, -47.0884, -11.8951, 29.3444, 13.6651, 67.3212, -166.413
4.01585, -1, -47.141, -11.9247, 29.3517, 13.6655, 67.2977, -166.472
4.02394, -1, -47.1801, -11.9469, 29.3556, 13.6657, 67.2826, -166.51
4.03184, -1, -47.2079, -11.9625, 29.3575, 13.6658, 67.2737, -166.533
4.03985, -1, -47.2262, -11.9726, 29.3583, 13.6659, 67.269, -166.545
4.04791, -1, -47.2372, -11.9785, 29.3587, 13.6659, 67.2666, -166.551
4.05585, 2, -47.2429, -11.9815, 29.359, 13.666, 67.2654, -166.553
4.06386, 2, -47.245, -11.9829, 29.3591, 13.6661, 67.2649, -166.555
4.07193, 2, -47.2451, -11.9834, 29.3592, 13.6661, 67.2646, -166.555
4.07987, 2, -47.2449, -11.9836, 29.3592, 13.6661, 67.2645, -166.556
4.0879, 2, -47.2448, -11.9837, 29.3593, 13.6661, 67.2645, -166.556
4.096, 2, -47.2453, -11.9838, 29.3593, 13.6661, 67.2644, -166.556
4.10396, 2, -47.2461, -11.984, 29.3594, 13.6661, 67.2644, -166.556
4.11196, 2, -47.2474, -11.9845, 29.3594, 13.6661, 67.2644, -166.556
4.12001, 2, -47.2492, -11.9853, 29.3593, 13.6662, 67.2644, -166.556
4.12795, 2, -47.2508, -11.9862, 29.3593, 13.6662, 67.2644, -166.556
4.13585, 2, -47.2522, -11.987, 29.3593, 13.6661, 67.2644, -166.556
4.14399, 2, -47.2531, -11.9876, 29.3593, 13.6661, 67.2644, -166.556
4.15194, 2, -47.2536, -11.988, 29.3593, 13.6661, 67.2644, -166.556
4.15889, 2, -47.2537, -11.9881, 29.3593, 13.6661, 67.2644, -166.556
4.16805, 2, -47.2539, -11.9883, 29.3594, 13.6661, 67.2644, -166.556
4.17484, 2, -47.2538, -11.9883, 29.3594, 13.6661, 67.2644, -166.556
4.18408, 2, -47.2531, -11.9883, 29.3594, 13.6661, 67.2644, -166.556
4.19085, 2, -47.2529, -11.9882, 29.3594, 13.6661, 67.2644, -166.556
4.20021, 2, -47.2523, -11.9882, 29.3594, 13.6661, 67.2644, -166.556
4.2069, 2, -47.2522, -11.9882, 29.3594, 13.6661, 67.2644, -166.556
4.21669, 2, -47.2521, -11.9883, 29.3594, 13.6661, 67.2644, -166.556
4.22439, 2, -47.2523, -11.9885, 29.3594, 13.6661, 67.2644, -166.556
4.23241, 2, -47.2525, -11.9888, 29.3594, 13.6661, 67.2644, -166.556
4.2405, 2, -47.253, -11.9891, 29.3594, 13.6661, 67.2645, -166.556
4.24843, 2, -47.2533, -11.9894, 29.3594, 13.6661, 67.2645, -166.556
4.25646, 2, -47.2537, -11.9895, 29.3594, 13.6661, 67.2645, -166.556
4.26457, 2, -47.254, -11.9896, 29.3594, 13.6661, 67.2644, -166.556
4.27186, 2, -47.254, -11.9897, 29.3594, 13.6661, 67.2644, -166.556
4.27984, 2, -47.2539, -11.9897, 29.3594, 13.6661, 67.2645, -166.556
4.28789, 2, -47.2538, -11.9896, 29.3594, 13.666, 67.2645, -166.556
4.29583, 2, -47.2535, -11.9896, 29.3594, 13.666, 67.2645, -166.556
4.30385, 2, -47.2531, -11.9895, 29.3594, 13.6661, 67.2645, -166.556
4.3119, 2, -47.2528, -11.9895, 29.3594, 13.6661, 67.2645, -166.556
4.31989, 2, -47.2527, -11.9895, 29.3594, 13.6661, 67.2644, -166.556
4.32784, 2, -47.2525, -11.9895, 29.3594, 13.6661, 67.2644, -166.555
4.33592, 2, -47.2525, -11.9895, 29.3594, 13.6661, 67.2644, -166.555
4.34386, 2, -47.2524, -11.9896, 29.3594, 13.6661, 67.2645, -166.555
4.35184, 2, -47.2524, -11.9897, 29.3594, 13.6661, 67.2645, -166.556
4.35989, 2, -47.2524, -11.9897, 29.3594, 13.6661, 67.2645, -166.555
4.36785, 2, -47.2524, -11.9897, 29.3594, 13.6661, 67.2645, -166.555
4.37583, 2, -47.2524, -11.9897, 29.3594, 13.6661, 67.2645, -166.555
4.38547, 2, -47.2524, -11.9897, 29.3594, 13.6661, 67.2645, -166.555
4.39188, 2, -47.2523, -11.9896, 29.3594, 13.6661, 67.2645, -166.555
4.40084, 2, -47.2522, -11.9896, 29.3594, 13.666, 67.2645, -166.555
4.4079, 2, -47.2521, -11.9895, 29.3594, 13.666, 67.2645, -166.555
4.41583, 2, -47.252, -11.9895, 29.3594, 13.666, 67.2645, -166.555
4.42384, 2, -47.252, -11.9894, 29.3594, 13.666, 67.2645, -166.555
4.43192, 2, -47.2519, -11.9894, 29.3594, 13.666, 67.2646, -166.555
4.43983, 2, -47.2518, -11.9895, 29.3594, 13.666, 67.2646, -166.555
4.44783, 2, -47.2517, -11.9895, 29.3594, 13.666, 67.2646, -166.555
4.45591, 2, -47.2516, -11.9895, 29.3594, 13.666, 67.2646, -166.555
4.46384, 2, -47.2515, -11.9895, 29.3594, 13.666, 67.2646, -166.555
4.47185, 2, -47.2515, -11.9895, 29.3594, 13.666, 67.2646, -166.555
4.47991, 2, -47.2514, -11.9895, 29.3594, 13.666, 67.2646, -166.555
4.48788, 2, -47.2512, -11.9895, 29.3594, 13.666, 67.2646, -166.555
4.49582, 2, -47.2512, -11.9894, 29.3594, 13.666, 67.2646, -166.555
4.50391, 2, -47.2511, -11.9894, 29.3594, 13.666, 67.2646, -166.555
4.51184, 2, -47.2509, -11.9893, 29.3594, 13.666, 67.2646, -166.555
4.51983, 2, -47.2509, -11.9892, 29.3594, 13.666, 67.2646, -166.555
4.5279, 2, -47.2508, -11.9892, 29.3594, 13.666, 67.2646, -166.555
4.53586, 2, -47.2507, -11.9892, 29.3594, 13.666, 67.2646, -166.555
4.54385, 2, -47.2506, -11.9892, 29.3594, 13.666, 67.2646, -166.555
4.55191, 2, -47.2505, -11.9892, 29.3594, 13.666, 67.2646, -166.555
4.55987, 2, -47.2504, -11.9892, 29.3594, 13.666, 67.2646, -166.555
4.56783, 2, -47.2503, -11.9892, 29.3594, 13.666, 67.2646, -166.555
4.57591, 2, -47.2502, -11.9892, 29.3594, 13.666, 67.2646, -166.555
4.58387, 2, -47.2501, -11.9892, 29.3594, 13.666, 67.2647, -166.555
4.5919, 2, -47.2501, -11.9892, 29.3594, 13.666, 67.2646, -166.555
4.6, 2, -47.25, -11.9891, 29.3594, 13.666, 67.2646, -166.555
4.60793, 2, -47.2499, -11.9891, 29.3594, 13.666, 67.2646, -166.555
4.61594, 2, -47.2498, -11.989, 29.3594, 13.6659, 67.2647, -166.555
4.62401, 2, -47.2497, -11.9889, 29.3594, 13.6659, 67.2647, -166.555
4.63195, 2, -47.2497, -11.9889, 29.3594, 13.6659, 67.2647, -166.555
4.63984, 2, -47.2496, -11.9888, 29.3594, 13.6659, 67.2647, -166.555
4.64805, 2, -47.2496, -11.9888, 29.3594, 13.666, 67.2646, -166.555
4.65591, 2, -47.2495, -11.9888, 29.3594, 13.666, 67.2647, -166.555
4.66288, 2, -47.2495, -11.9888, 29.3594, 13.6659, 67.2647, -166.555
4.67202, 2, -47.2495, -11.9888, 29.3594, 13.6659, 67.2647, -166.555
4.67883, 2, -47.2494, -11.9888, 29.3594, 13.6659, 67.2647, -166.555
4.68804, 2, -47.2494, -11.9888, 29.3594, 13.6659, 67.2647, -166.555
4.69482, 2, -47.2494, -11.9888, 29.3594, 13.6659, 67.2647, -166.555
4.7042, 2, -47.2493, -11.9888, 29.3594, 13.6658, 67.2647, -166.555
4.71088, 2, -47.2493, -11.9887, 29.3594, 13.6658, 67.2647, -166.555
4.72072, 2, -47.2491, -11.9886, 29.3594, 13.6658, 67.2648, -166.555
4.72837, 2, -47.249, -11.9885, 29.3594, 13.6658, 67.2647, -166.555
4.73647, 2, -47.249, -11.9885, 29.3593, 13.6658, 67.2647, -166.555
4.74492, 2, -47.2489, -11.9885, 29.3594, 13.6658, 67.2647, -166.555
4.75239, 2, -47.2489, -11.9885, 29.3594, 13.6658, 67.2647, -166.555
4.76038, 2, -47.2488, -11.9885, 29.3594, 13.6658, 67.2647, -166.555
4.76869, 2, -47.2488, -11.9884, 29.3594, 13.6658, 67.2648, -166.555
4.77582, 2, -47.2487, -11.9884, 29.3594, 13.6658, 67.2648, -166.555
4.78383, 2, -47.2487, -11.9884, 29.3594, 13.6657, 67.2648, -166.555
4.79285, 2, -47.2487, -11.9884, 29.3594, 13.6658, 67.2648, -166.555
4.79992, 2, -47.2487, -11.9884, 29.3594, 13.6658, 67.2648, -166.555
4.80782, 2, -47.2487, -11.9884, 29.3594, 13.6657, 67.2648, -166.555
4.81587, 2, -47.2487, -11.9883, 29.3594, 13.6657, 67.2648, -166.554
4.82387, 2, -47.2486, -11.9883, 29.3594, 13.6657, 67.2648, -166.554
4.83183, 2, -47.2485, -11.9882, 29.3594, 13.6657, 67.2648, -166.554
4.83987, 2, -47.2483, -11.9881, 29.3594, 13.6657, 67.2648, -166.554
4.84782, 2, -47.2482, -11.9881, 29.3594, 13.6657, 67.2648, -166.554
4.85582, 2, -47.2482, -11.9881, 29.3594, 13.6657, 67.2648, -166.554
4.8639, 2, -47.2481, -11.9881, 29.3594, 13.6656, 67.2648, -166.554
4.87185, 2, -47.2481, -11.988, 29.3594, 13.6656, 67.2648, -166.554
4.87982, 2, -47.248, -11.988, 29.3594, 13.6656, 67.2648, -166.554
4.88788, 2, -47.248, -11.988, 29.3594, 13.6656, 67.2648, -166.554
4.89585, 2, -47.248, -11.988, 29.3594, 13.6656, 67.2648, -166.554
4.90482, 2, -47.248, -11.988, 29.3594, 13.6656, 67.2648, -166.554
4.91189, 2, -47.248, -11.988, 29.3594, 13.6656, 67.2648, -166.554
4.91982, 2, -47.2479, -11.9879, 29.3594, 13.6655, 67.2648, -166.554
4.92782, 2, -47.2478, -11.9878, 29.3594, 13.6655, 67.2648, -166.554
4.93589, 2, -47.2477, -11.9878, 29.3594, 13.6655, 67.2649, -166.554
4.94384, 2, -47.2476, -11.9878, 29.3594, 13.6655, 67.2649, -166.554
4.95182, 2, -47.2475, -11.9877, 29.3594, 13.6655, 67.2649, -166.554
4.95989, 2, -47.2474, -11.9877, 29.3594, 13.6655, 67.2649, -166.554
4.96788, 2, -47.2474, -11.9877, 29.3594, 13.6655, 67.265, -166.554
4.97582, 2, -47.2474, -11.9876, 29.3594, 13.6655, 67.265, -166.554
4.9839, 2, -47.2473, -11.9876, 29.3594, 13.6655, 67.265, -166.554
4.99188, 2, -47.2473, -11.9876, 29.3594, 13.6655, 67.265, -166.554
4.99981, 2, -47.2473, -11.9876, 29.3594, 13.6654, 67.265, -166.554
5.00788, 2, -47.2472, -11.9876, 29.3594, 13.6654, 67.265, -166.554
5.01581, 2, -47.2472, -11.9876, 29.3594, 13.6654, 67.265, -166.554
5.02385, 2, -47.2472, -11.9875, 29.3594, 13.6654, 67.265, -166.554
5.03189, 2, -47.2471, -11.9875, 29.3594, 13.6654, 67.2651, -166.554
5.03983, 2, -47.247, -11.9874, 29.3594, 13.6654, 67.265, -166.554
5.04782, 2, -47.2469, -11.9874, 29.3594, 13.6654, 67.2651, -166.554
5.05603, 2, -47.2467, -11.9873, 29.3594, 13.6654, 67.2651, -166.554
5.06409, 2, -47.2467, -11.9873, 29.3594, 13.6654, 67.2651, -166.554
5.07186, 2, -47.2466, -11.9873, 29.3594, 13.6654, 67.2651, -166.554
5.07995, 2, -47.2466, -11.9873, 29.3594, 13.6653, 67.2652, -166.554
5.08824, 2, -47.2466, -11.9873, 29.3594, 13.6653, 67.2652, -166.554
5.09529, 2, -47.2466, -11.9873, 29.3594, 13.6654, 67.2651, -166.554
5.10359, 2, -47.2465, -11.9873, 29.3594, 13.6654, 67.2651, -166.554
5.11199, 2, -47.2465, -11.9872, 29.3593, 13.6653, 67.2651, -166.554
5.12005, 2, -47.2464, -11.9872, 29.3593, 13.6653, 67.2652, -166.554
5.12792, 2, -47.2464, -11.9872, 29.3593, 13.6652, 67.2652, -166.554
5.13599, 2, -47.2463, -11.9871, 29.3593, 13.6653, 67.2653, -166.554
5.144, 4, -47.2463, -11.9871, 29.3594, 13.6652, 67.2653, -166.554
5.15085, 4, -47.2462, -11.9871, 29.3594, 13.6652, 67.2652, -166.554
5.15996, 4, -47.2461, -11.987, 29.3593, 13.6652, 67.2652, -166.554
5.16786, 4, -47.246, -11.987, 29.3593, 13.6652, 67.2652, -166.554
5.17593, 4, -47.246, -11.987, 29.3593, 13.6652, 67.2652, -166.554
5.18441, 4, -47.2459, -11.987, 29.3594, 13.6652, 67.2652, -166.554
5.19081, 4, -47.2459, -11.987, 29.3594, 13.6652, 67.2652, -166.554
5.20013, 4, -47.2459, -11.9869, 29.3593, 13.6651, 67.2652, -166.554
5.20683, 4, -47.2459, -11.9869, 29.3594, 13.6651, 67.2652, -166.554
5.21624, 4, -47.2459, -11.9869, 29.3594, 13.6651, 67.2652, -166.554
5.22436, 4, -47.2458, -11.9869, 29.3594, 13.6651, 67.2653, -166.554
5.23276, 4, -47.2458, -11.9868, 29.3593, 13.665, 67.2653, -166.554
5.24036, 4, -47.2457, -11.9868, 29.3594, 13.6651, 67.2652, -166.554
5.24858, 4, -47.2456, -11.9867, 29.3594, 13.665, 67.2653, -166.554
5.26078, 4, -47.2455, -11.9867, 29.3593, 13.665, 67.2653, -166.553
5.26315, 4, -47.2455, -11.9867, 29.3593, 13.665, 67.2653, -166.553
5.27109, 4, -47.2455, -11.9867, 29.3593, 13.665, 67.2653, -166.553
5.28065, 4, -47.2454, -11.9867, 29.3593, 13.665, 67.2653, -166.553
5.287, 4, -47.2454, -11.9867, 29.3594, 13.665, 67.2653, -166.553
5.29594, 4, -47.2453, -11.9867, 29.3594, 13.665, 67.2653, -166.553
5.30754, 4, -47.2453, -11.9866, 29.3594, 13.665, 67.2653, -166.553
5.31397, 4, -47.2453, -11.9866, 29.3593, 13.6649, 67.2653, -166.553
5.322, 4, -47.2453, -11.9866, 29.3593, 13.665, 67.2652, -166.553
5.327, 4, -47.2453, -11.9866, 29.3593, 13.665, 67.2653, -166.553
5.33788, 4, -47.2452, -11.9865, 29.3594, 13.6649, 67.2653, -166.553
5.34297, 4, -47.2452, -11.9865, 29.3594, 13.6649, 67.2653, -166.553
5.35197, 4, -47.2452, -11.9865, 29.3594, 13.6649, 67.2653, -166.553
5.35895, 4, -47.2451, -11.9865, 29.3594, 13.6649, 67.2653, -166.553
5.36796, 4, -47.245, -11.9864, 29.3593, 13.6649, 67.2653, -166.553
5.37599, 4, -47.245, -11.9864, 29.3593, 13.6649, 67.2654, -166.553
5.38396, 4, -47.2449, -11.9864, 29.3593, 13.6649, 67.2653, -166.553
5.39198, 4, -47.2449, -11.9863, 29.3593, 13.6649, 67.2653, -166.553
5.39897, 4, -47.2449, -11.9863, 29.3593, 13.6649, 67.2654, -166.553
5.40998, 4, -47.245, -11.9864, 29.3594, 13.6649, 67.2653, -166.553
5.4188, 4, -47.2459, -11.9869, 29.3597, 13.665, 67.2655, -166.553
5.425, 4, -47.2468, -11.9875, 29.3604, 13.6653, 67.2657, -166.553
5.43437, 4, -47.2523, -11.9932, 29.3671, 13.6763, 67.2684, -166.552
5.44014, 4, -47.2554, -11.997, 29.3723, 13.6864, 67.2709, -166.55
5.45025, 4, -47.2709, -12.0174, 29.4044, 13.75, 67.2883, -166.536
5.45603, 5, -47.2789, -12.0283, 29.4231, 13.7882, 67.2989, -166.528
5.46491, 5, -47.301, -12.058, 29.477, 13.9002, 67.3305, -166.503
5.472, 5, -47.3328, -12.0997, 29.5584, 14.0718, 67.3783, -166.463
5.47992, 5, -47.376, -12.1552, 29.6729, 14.3167, 67.4458, -166.407
5.48741, 5, -47.432, -12.2254, 29.8236, 14.6435, 67.5352, -166.332
5.49899, 5, -47.5396, -12.3592, 30.1217, 15.2905, 67.7094, -166.183
5.50793, 5, -47.6264, -12.4668, 30.3669, 15.8182, 67.8494, -166.064
5.51112, 5, -47.674, -12.5256, 30.5018, 16.1061, 67.9252, -165.998
5.52013, 5, -47.7763, -12.6523, 30.794, 16.7213, 68.0858, -165.86
5.5277, 5, -47.8868, -12.7895, 31.1103, 17.377, 68.2536, -165.715
5.53601, 5, -48.0031, -12.9349, 31.4447, 18.0573, 68.4251, -165.566
5.54391, 5, -48.123, -13.0858, 31.7906, 18.7497, 68.5961, -165.417
5.55195, 5, -48.2437, -13.2391, 32.1432, 19.4451, 68.7649, -165.269
5.56129, 5, -48.3623, -13.3914, 32.4978, 20.1319, 68.93, -165.121
5.57404, 6, -48.5274, -13.6121, 33.0245, 21.1253, 69.1708, -164.886
5.5773, 6, -48.577, -13.6819, 33.1954, 21.4407, 69.2501, -164.799
5.58437, 6, -48.6645, -13.8136, 33.5269, 22.0397, 69.4086, -164.601
5.59219, 6, -48.7336, -13.9348, 33.8402, 22.5922, 69.5693, -164.36
5.60017, 7, -48.7816, -14.0467, 34.1338, 23.0945, 69.7349, -164.062
5.60994, 7, -48.8083, -14.1495, 34.4064, 23.5502, 69.9085, -163.697
5.61604, 8, -48.8149, -14.2421, 34.6594, 23.9682, 70.0937, -163.262
5.62456, 8, -48.8025, -14.3255, 34.8972, 24.3587, 70.2919, -162.756
5.63212, 9, -48.7731, -14.4029, 35.1233, 24.7325, 70.504, -162.191
5.64067, 9, -48.7302, -14.4761, 35.3425, 25.0991, 70.7284, -161.579
5.64806, 10, -48.6775, -14.5446, 35.56, 25.4643, 70.9625, -160.936
5.65865, 10, -48.6166, -14.609, 35.7777, 25.8318, 71.2034, -160.274
5.66675, 11, -48.5485, -14.6715, 35.9973, 26.203, 71.448, -159.604
5.6729, 11, -48.4747, -14.7342, 36.2192, 26.5781, 71.6935, -158.935
5.68142, 12, -48.3977, -14.7971, 36.4407, 26.9586, 71.9393, -158.269
5.68906, 12, -48.3186, -14.8599, 36.6597, 27.3447, 72.1855, -157.604
5.69642, 13, -48.2375, -14.923, 36.8762, 27.7364, 72.4325, -156.941
5.70579, 13, -48.1537, -14.9862, 37.0889, 28.133, 72.6807, -156.281
5.71285, 14, -48.0669, -15.0493, 37.2976, 28.533, 72.929, -155.62
5.72123, 14, -47.9775, -15.1116, 37.5036, 28.9348, 73.1766, -154.963
5.72864, 15, -47.8852, -15.1725, 37.7067, 29.3371, 73.4226, -154.309
5.73731, 15, -47.7891, -15.2319, 37.9063, 29.7383, 73.666, -153.659
5.74469, 16, -47.6885, -15.2906, 38.104, 30.1379, 73.9067, -153.012
5.75686, 16, -47.5271, -15.3802, 38.3962, 30.7351, 74.2631, -152.051
5.76069, 17, -47.4707, -15.4108, 38.4919, 30.9334, 74.3805, -151.732
5.76694, 17, -47.4129, -15.4417, 38.5869, 31.1314, 74.4968, -151.415
5.77668, 18, -47.2319, -15.5357, 38.8688, 31.7225, 74.8407, -150.47
5.78584, 18, -47.1046, -15.5995, 39.0538, 32.1137, 75.0645, -149.849
5.79112, 19, -47.0391, -15.6322, 39.1451, 32.3085, 75.1744, -149.541
5.8018, 19, -46.8348, -15.7339, 39.417, 32.8896, 75.4962, -148.627
5.80702, 20, -46.7643, -15.7687, 39.5071, 33.0819, 75.6005, -148.327
5.81596, 20, -46.62, -15.8398, 39.6857, 33.4645, 75.8049, -147.733
5.82419, 21, -46.471, -15.9135, 39.8617, 33.8449, 76.0036, -147.146
5.8309, 21, -46.3171, -15.9906, 40.0359, 34.2229, 76.1969, -146.566
5.84226, 22, -46.0762, -16.1114, 40.2942, 34.7853, 76.4763, -145.711
5.84793, 22, -45.993, -16.1527, 40.3788, 34.9711, 76.5667, -145.429
5.85602, 23, -45.8223, -16.2366, 40.5458, 35.3399, 76.7434, -144.871
5.86394, 23, -45.6452, -16.3225, 40.7105, 35.7045, 76.9144, -144.318
5.87495, 24, -45.3671, -16.4546, 40.9515, 36.2427, 77.1609, -143.499
5.87893, 24, -45.2711, -16.4992, 41.0296, 36.4193, 77.2404, -143.229
5.88962, 25, -44.9734, -16.635, 41.2574, 36.9397, 77.4717, -142.423
5.89595, 25, -44.8709, -16.6806, 41.3312, 37.11, 77.5465, -142.156
5.90577, 26, -44.6609, -16.7725, 41.4752, 37.4453, 77.6926, -141.359
5.911, 26, -44.444, -16.8647, 41.6138, 37.7732, 77.8344, -141.095
5.92008, 27, -44.2198, -16.9567, 41.7468, 38.0939, 77.9723, -140.568
5.93191, 28, -43.8711, -17.0935, 41.9351, 38.5595, 78.1711, -139.78
5.93594, 28, -43.7516, -17.1388, 41.9948, 38.7108, 78.2358, -139.518
5.94669, 28, -43.3832, -17.2727, 42.1636, 39.1515, 78.4238, -138.733
5.95198, 29, -43.2572, -17.3166, 42.2164, 39.2941, 78.4851, -138.472
5.96225, 29, -42.8689, -17.4458, 42.3645, 39.7098, 78.6635, -137.688
5.968, 30, -42.7357, -17.488, 42.4102, 39.844, 78.7215, -137.427
5.97593, 30, -42.4626, -17.5708, 42.4963, 40.1061, 78.8355, -136.906
5.987, 31, -42.0367, -17.6902, 42.612, 40.4833, 79.0006, -136.125
5.99475, 31, -41.7432, -17.7668, 42.6804, 40.7242, 79.1076, -135.605
6.00377, 32, -41.443, -17.8411, 42.742, 40.9566, 79.2117, -135.086
6.00794, 32, -41.2904, -17.8774, 42.7703, 41.0697, 79.2628, -134.826
6.01872, 33, -40.8231, -17.9814, 42.8442, 41.3969, 79.4128, -134.051
6.02374, 33, -40.664, -18.0144, 42.8653, 41.502, 79.4613, -133.792
6.03236, 34, -40.3416, -18.0785, 42.902, 41.7058, 79.5565, -133.276
6.03994, 34, -40.0147, -18.1399, 42.9313, 41.9015, 79.649, -132.761
6.04795, 35, -39.6826, -18.1984, 42.9535, 42.0895, 79.7393, -132.247
6.05909, 35, -39.1726, -18.2795, 42.9735, 42.3575, 79.87, -131.479
6.06394, 36, -38.999, -18.3049, 42.9767, 42.4429, 79.9124, -131.224
6.07386, 36, -38.6461, -18.3532, 42.9782, 42.608, 79.9959, -130.713
6.08006, 37, -38.2868, -18.3982, 42.9729, 42.7656, 80.0769, -130.205
6.08823, 37, -37.9217, -18.4395, 42.9607, 42.9156, 80.1564, -129.698
6.09609, 38, -37.5514, -18.4771, 42.9417, 43.0584, 80.2334, -129.192
6.10565, 38, -37.1765, -18.5115, 42.9162, 43.1936, 80.3087, -128.688
6.1121, 39, -36.797, -18.5424, 42.8839, 43.3214, 80.3812, -128.186
6.12057, 39, -36.413, -18.5697, 42.8449, 43.4419, 80.4523, -127.686
6.13044, 40, -36.0238, -18.5932, 42.7992, 43.5551, 80.5212, -127.188
6.13652, 40, -35.6284, -18.6128, 42.7471, 43.6613, 80.5888, -126.692
6.14524, 41, -35.2273, -18.6283, 42.6883, 43.76, 80.6538, -126.197
6.15272, 41, -34.8207, -18.6404, 42.6232, 43.8515, 80.717, -125.705
6.16234, 42, -34.4104, -18.649, 42.5516, 43.9361, 80.7785, -125.215
6.1669, 42, -34.2041, -18.6522, 42.5134, 43.9757, 80.808, -124.971
6.17834, 43, -33.58, -18.6568, 42.3896, 44.0837, 80.8956, -124.242
6.18291, 43, -33.3698, -18.6567, 42.3454, 44.1161, 80.9236, -124
6.19322, 44, -32.7304, -18.6506, 42.204, 44.2031, 81.0056, -123.278
6.20065, 44, -32.2962, -18.6418, 42.1026, 44.2517, 81.0584, -122.8
6.20913, 45, -31.856, -18.6293, 41.9952, 44.2934, 81.1089, -122.324
6.21664, 45, -31.4117, -18.6133, 41.8818, 44.3276, 81.1587, -121.85
6.22934, 46, -30.7409, -18.5828, 41.7006, 44.3641, 81.2291, -121.143
6.23274, 46, -30.5161, -18.5708, 41.6372, 44.3724, 81.2516, -120.909
6.24289, 47, -30.0637, -18.5437, 41.5062, 44.3835, 81.2966, -120.443
6.24863, 47, -29.6058, -18.512, 41.3693, 44.3878, 81.3404, -119.978
6.25669, 48, -29.1413, -18.4761, 41.2262, 44.3845, 81.3825, -119.515
6.26299, 48, -28.9067, -18.4565, 41.1524, 44.3794, 81.4033, -119.284
6.27273, 49, -28.4333, -18.4139, 40.9221, 44.3514, 81.466, -118.594
6.28303, 50, -27.7177, -18.3419, 40.7612, 44.321, 81.5068, -118.136
6.28691, 50, -27.4779, -18.3156, 40.6783, 44.302, 81.527, -117.907
6.2969, 50, -26.7526, -18.2287, 40.4194, 44.232, 81.5892, -117.223
6.30395, 51, -26.5076, -18.197, 40.33, 44.204, 81.6105, -116.995
6.31358, 51, -25.7609, -18.0934, 40.0517, 44.1047, 81.6741, -116.313
6.3199, 52, -25.5087, -18.0561, 39.9551, 44.0669, 81.6956, -116.086
6.32791, 52, -25.0016, -17.9777, 39.7566, 43.9829, 81.7399, -115.633
6.33891, 53, -24.2373, -17.8499, 39.4477, 43.8381, 81.807, -114.953
6.34564, 53, -23.7232, -17.7573, 39.2324, 43.729, 81.8528, -114.501
6.35207, 54, -23.4636, -17.7086, 39.1218, 43.6704, 81.8767, -114.276
6.35892, 54, -22.938, -17.6066, 38.896, 43.5453, 81.9258, -113.824
6.36701, 55, -22.4044, -17.4985, 38.663, 43.4091, 81.976, -113.372
6.37892, 56, -21.596, -17.3247, 38.2996, 43.1826, 82.057, -112.694
6.38611, 56, -21.054, -17.2016, 38.0495, 43.0172, 82.1126, -112.243
6.39191, 56, -20.7815, -17.1379, 37.9215, 42.9301, 82.1411, -112.018
6.40013, 57, -20.2309, -17.0066, 37.6606, 42.7474, 82.2003, -111.567
6.4088, 57, -19.671, -16.8699, 37.3936, 42.553, 82.2602, -111.116
6.4159, 58, -19.1031, -16.7274, 37.1194, 42.3463, 82.3225, -110.666
6.42401, 58, -18.5313, -16.5792, 36.8398, 42.1273, 82.3864, -110.216
6.43191, 59, -17.9572, -16.4253, 36.5537, 41.8966, 82.4519, -109.768
6.43993, 59, -17.379, -16.2665, 36.2615, 41.6536, 82.5198, -109.319
6.44801, 60, -16.7919, -16.1031, 35.9634, 41.3981, 82.5894, -108.87
6.45994, 61, -15.8933, -15.8477, 35.5057, 40.99, 82.6981, -108.197
6.46662, 61, -15.2879, -15.6712, 35.193, 40.7007, 82.7733, -107.748
6.47192, 61, -14.9842, -15.5813, 35.0344, 40.5512, 82.8118, -107.524
6.47992, 62, -14.3733, -15.3982, 34.7127, 40.2422, 82.891, -107.076
6.48743, 62, -13.754, -15.2098, 34.3851, 39.9193, 82.9731, -106.627
6.49591, 63, -13.124, -15.0146, 34.0527, 39.582, 83.0581, -106.177
6.50342, 63, -12.4862, -14.8129, 33.7148, 39.2297, 83.1462, -105.727
6.51107, 64, -11.844, -14.6064, 33.3714, 38.8627, 83.2383, -105.276
6.51992, 64, -11.1974, -14.3939, 33.0218, 38.4813, 83.3341, -104.824
6.53182, 65, -10.2092, -14.0612, 32.4862, 37.8809, 83.4865, -104.143
6.53912, 66, -9.53806, -13.8318, 32.1232, 37.4606, 83.5942, -103.686
6.54393, 66, -9.19957, -13.7149, 31.9398, 37.2445, 83.6502, -103.457
6.55393, 66, -8.51894, -13.476, 31.5698, 36.8013, 83.7661, -102.999
6.55926, 67, -7.83267, -13.23, 31.1937, 36.3424, 83.887, -102.537
6.568, 67, -7.13662, -12.9764, 30.8123, 35.8684, 84.0143, -102.074
6.57729, 68, -6.43096, -12.7147, 30.4265, 35.3784, 84.1479, -101.608
6.58402, 68, -5.71743, -12.4466, 30.037, 34.8733, 84.2884, -101.141
6.59213, 69, -4.99757, -12.1711, 29.6426, 34.3522, 84.4361, -100.67
6.6, 69, -4.26986, -11.8875, 29.243, 33.8152, 84.5913, -100.197
6.6086, 70, -3.53345, -11.5975, 28.8408, 33.2629, 84.754, -99.7215
6.61665, 70, -2.78929, -11.3004, 28.4366, 32.6947, 84.924, -99.2428
6.62414, 71, -2.0386, -10.9963, 28.0304, 32.1133, 85.1006, -98.763
6.63206, 71, -1.28106, -10.6852, 27.6229, 31.52, 85.2841, -98.2805
6.64171, 72, -0.517084, -10.3674, 27.2152, 30.9141, 85.4744, -97.7958
6.64802, 72, 0.252633, -10.0428, 26.8085, 30.2959, 85.6712, -97.3092
6.65606, 73, 1.02812, -9.7092, 26.4021, 29.6683, 85.8753, -96.8206
6.66812, 74, 2.203, -9.19471, 25.7923, 28.7052, 86.1967, -96.0842
6.67218, 74, 2.59707, -9.02052, 25.5891, 28.3786, 86.3085, -95.8375
6.68181, 74, 3.38798, -8.66918, 25.1832, 27.7169, 86.5389, -95.3422
6.69474, 75, 4.58052, -8.12963, 24.5783, 26.7076, 86.9003, -94.5955
6.70124, 76, 5.37867, -7.76085, 24.1787, 26.0301, 87.1505, -94.0959
6.70441, 76, 5.778, -7.57369, 23.9806, 25.6898, 87.2781, -93.8451
6.72191, 77, 7.37641, -6.80766, 23.2028, 24.3261, 87.8059, -92.8364
6.7252, 77, 7.77705, -6.61119, 23.0116, 23.9849, 87.9427, -92.5827
6.73741, 78, 8.98027, -6.0096, 22.4452, 22.9588, 88.367, -91.8177
6.7387, 78, 8.98027, -6.0096, 22.4452, 22.9588, 88.367, -91.8177
6.7444, 78, 9.78302, -5.59877, 22.0744, 22.2724, 88.6625, -91.3028
6.75235, 79, 10.5855, -5.17896, 21.7079, 21.5848, 88.9685, -90.7841
6.76113, 79, 10.9864, -4.75021, 21.3455, 20.8983, 89.2857, -90.2612
6.76846, 80, 11.7861, -4.31151, 20.988, 20.2115, 89.6134, -89.7343
6.77575, 80, 12.5819, -4.0881, 20.8113, 19.8693, 89.7815, -89.4689
6.78376, 81, 13.373, -3.63366, 20.4613, 19.1903, 90.1256, -88.9345
6.79181, 81, 14.1592, -3.17007, 20.1165, 18.519, 90.4805, -88.3953
6.79876, 82, 14.9374, -2.69858, 19.7768, 17.8565, 90.8454, -87.852
6.80776, 82, 15.7062, -2.21811, 19.444, 17.204, 91.2205, -87.3044
6.81579, 83, 16.4647, -1.72929, 19.1179, 16.5642, 91.6046, -86.7529
6.82376, 83, 17.212, -1.23331, 18.7995, 15.9412, 91.9971, -86.1986
6.83176, 84, 17.9446, -0.731707, 18.4886, 15.3347, 92.3965, -85.6433
6.83985, 84, 18.6589, -0.226099, 18.1872, 14.7491, 92.8023, -85.0878
6.8493, 85, 19.6977, 0.542543, 17.7521, 13.9143, 93.4207, -84.2557
6.85578, 85, 20.0358, 0.801892, 17.6117, 13.6484, 93.6293, -83.9792
6.86395, 86, 20.6999, 1.32452, 17.3369, 13.1345, 94.0489, -83.4283
6.87177, 86, 21.348, 1.85077, 17.0695, 12.6449, 94.4715, -82.8792
6.87983, 86, 21.9813, 2.38199, 16.8103, 12.1782, 94.8984, -82.3293
6.88782, 87, 22.602, 2.92133, 16.5572, 11.734, 95.3308, -81.7776
6.89579, 87, 23.2118, 3.4701, 16.3089, 11.3094, 95.7691, -81.2223
6.90476, 88, 23.8103, 4.02646, 16.0649, 10.9028, 96.2139, -80.661
6.91181, 88, 24.3971, 4.59023, 15.8245, 10.5125, 96.6644, -80.091
6.92075, 89, 24.9712, 5.16394, 15.5903, 10.1378, 97.1218, -79.5114
6.92782, 89, 25.5339, 5.74816, 15.3608, 9.77851, 97.5858, -78.9211
6.93576, 90, 26.089, 6.34194, 15.1342, 9.43487, 98.0558, -78.3191
6.94375, 90, 26.6369, 6.94404, 14.9117, 9.1061, 98.5323, -77.7038
6.95183, 91, 27.1736, 7.55451, 14.6943, 8.79499, 99.0154, -77.076
6.95976, 91, 27.6972, 8.17484, 14.4817, 8.50244, 99.504, -76.4372
6.9679, 92, 28.2095, 8.80555, 14.2736, 8.23056, 99.9975, -75.7872
6.97576, 92, 28.7136, 9.44685, 14.0703, 7.98125, 100.495, -75.1278
6.98383, 93, 29.2092, 10.0966, 13.8724, 7.75436, 100.994, -74.4617
6.99176, 93, 29.6924, 10.7524, 13.6819, 7.55133, 101.493, -73.7886
6.99978, 94, 30.1616, 11.4123, 13.4997, 7.37188, 101.992, -73.1085
7.00784, 94, 30.6156, 12.0749, 13.3249, 7.21597, 102.488, -72.4237
7.01576, 95, 31.0554, 12.7395, 13.157, 7.08394, 102.981, -71.7341
7.02381, 95, 31.4814, 13.4059, 12.997, 6.97591, 103.471, -71.0382
7.03181, 96, 31.8939, 14.074, 12.8445, 6.89092, 103.957, -70.3372
7.03976, 96, 32.2914, 14.7425, 12.6984, 6.8306, 104.44, -69.6315
7.04778, 97, 32.6728, 15.4113, 12.5588, 6.79281, 104.917, -68.9195
7.05582, 97, 33.0377, 16.0792, 12.4267, 6.77597, 105.39, -68.2022
7.06375, 98, 33.3867, 16.7452, 12.303, 6.78124, 105.856, -67.4829
7.07183, 98, 33.7214, 17.4078, 12.1879, 6.80816, 106.313, -66.7593
7.07979, 99, 34.0423, 18.0653, 12.082, 6.85464, 106.761, -66.0342
7.08783, 99, 34.3508, 18.7164, 11.9854, 6.92147, 107.198, -65.311
7.09617, 100, 34.648, 19.3594, 11.8976, 7.00564, 107.623, -64.5887
7.10331, 100, 34.9338, 19.9938, 11.8185, 7.10762, 108.035, -63.869
7.11193, 101, 35.2077, 20.6178, 11.7476, 7.22548, 108.432, -63.156
7.12028, 101, 35.4698, 21.231, 11.685, 7.3583, 108.815, -62.4486
7.12785, 102, 35.7207, 21.8323, 11.631, 7.50423, 109.182, -61.7493
7.13593, 102, 35.9591, 22.4208, 11.5856, 7.66185, 109.532, -61.0615
7.14373, 103, 36.1859, 22.9954, 11.5487, 7.82944, 109.864, -60.3846
7.15262, 103, 36.4041, 23.5546, 11.5207, 8.00611, 110.178, -59.7193
7.15984, 103, 36.6152, 24.0978, 11.5017, 8.19162, 110.474, -59.0672
7.16779, 104, 36.8188, 24.6248, 11.4916, 8.38629, 110.749, -58.4284
7.17585, 104, 37.015, 25.1354, 11.4888, 8.59005, 111.005, -57.8012
7.18395, 104, 37.2052, 25.6299, 11.4928, 8.80189, 111.24, -57.1869
7.1919, 104, 37.3879, 26.1079, 11.5028, 9.02018, 111.455, -56.587
7.20001, 104, 37.5613, 26.5692, 11.5168, 9.24315, 111.652, -56.0016
7.20675, 104, 37.6446, 26.7935, 11.5248, 9.35563, 111.745, -55.7151
7.21689, 104, 37.8846, 27.4436, 11.5532, 9.69305, 112.001, -54.8842
7.22418, 104, 38.0383, 27.857, 11.5741, 9.91493, 112.158, -54.358
7.23082, 104, 38.1132, 28.0575, 11.5847, 10.0243, 112.233, -54.1033
7.24029, 104, 38.3288, 28.6333, 11.6157, 10.3446, 112.446, -53.3734
7.24889, 104, 38.4641, 28.9963, 11.635, 10.55, 112.577, -52.9174
7.25639, 104, 38.5918, 29.341, 11.6531, 10.748, 112.701, -52.4856
7.26534, 104, 38.6526, 29.5066, 11.6702, 10.9375, 112.818, -52.0794
7.27235, 104, 38.7681, 29.8229, 11.6783, 11.0291, 112.926, -51.6976
7.28052, 104, 38.8751, 30.1206, 11.6935, 11.205, 113.027, -51.3409
7.28778, 104, 38.9743, 30.3997, 11.7078, 11.3712, 113.075, -51.1723
7.29579, 104, 39.0657, 30.6588, 11.7209, 11.5271, 113.165, -50.8541
7.30382, 104, 39.1493, 30.8983, 11.7327, 11.6722, 113.247, -50.5608
7.31179, 104, 39.2251, 31.1184, 11.7434, 11.806, 113.322, -50.2929
7.31974, 104, 39.293, 31.3181, 11.7533, 11.9286, 113.39, -50.0501
7.3278, 104, 39.3532, 31.4984, 11.7624, 12.0393, 113.45, -49.8327
7.33574, 104, 39.4061, 31.6594, 11.7704, 12.138, 113.505, -49.6403
7.3438, 104, 39.4523, 31.8009, 11.7774, 12.2246, 113.551, -49.4728
7.35181, 104, 39.4927, 31.9242, 11.7839, 12.2988, 113.59, -49.3296
7.35975, 104, 39.5272, 32.0304, 11.7898, 12.3618, 113.623, -49.2098
7.36774, 104, 39.5558, 32.12, 11.7949, 12.4129, 113.65, -49.1125
7.3758, 104, 39.5792, 32.1944, 11.7995, 12.4528, 113.671, -49.0354
7.38378, 104, 39.5979, 32.2553, 11.8036, 12.4836, 113.686, -48.9772
7.39184, 104, 39.6124, 32.3044, 11.8074, 12.5064, 113.697, -48.9351
7.3998, 104, 39.6234, 32.3428, 11.8108, 12.5226, 113.705, -48.9059
7.40774, 104, 39.6317, 32.3715, 11.8138, 12.5334, 113.71, -48.8868
7.4174, 104, 39.6376, 32.3931, 11.8165, 12.5403, 113.712, -48.8752
7.42381, 104, 39.6415, 32.409, 11.8188, 12.5442, 113.714, -48.869
7.43175, 104, 39.6437, 32.4198, 11.8205, 12.5463, 113.715, -48.8661
7.43971, 105, 39.6448, 32.4266, 11.8218, 12.5474, 113.715, -48.8648
7.44781, 105, 39.6448, 32.4309, 11.8229, 12.5479, 113.715, -48.8643
7.45574, 105, 39.644, 32.4337, 11.8238, 12.5481, 113.715, -48.8644
7.46374, 105, 39.6429, 32.4358, 11.8245, 12.5482, 113.715, -48.8646
7.47182, 105, 39.6418, 32.4374, 11.8252, 12.5483, 113.715, -48.8649
7.47975, 105, 39.6408, 32.4388, 11.8258, 12.5483, 113.715, -48.8653
7.48774, 105, 39.6397, 32.44, 11.8263, 12.5483, 113.715, -48.8656
7.49581, 105, 39.639, 32.4411, 11.8269, 12.5483, 113.715, -48.8659
7.50374, 105, 39.6385, 32.4422, 11.8275, 12.5483, 113.715, -48.8662
7.51181, 105, 39.6382, 32.4433, 11.8281, 12.5483, 113.715, -48.8665
7.5198, 105, 39.6379, 32.4442, 11.8286, 12.5483, 113.715, -48.8669
7.52774, 105, 39.6377, 32.445, 11.829, 12.5483, 113.715, -48.8671
7.53574, 105, 39.6373, 32.4455, 11.8293, 12.5483, 113.715, -48.8674
7.54381, 105, 39.637, 32.4459, 11.8296, 12.5483, 113.715, -48.8677
7.55175, 105, 39.6367, 32.4461, 11.8299, 12.5483, 113.715, -48.868
7.55977, 105, 39.6364, 32.4461, 11.8301, 12.5483, 113.715, -48.8681
