hehonglu123/Motion-Primitive-Planning/ILC/recorded_data/realrobot/from_NX/iteration_3/run_0.csv
timestamp, cmd_num, J1, J2, J3, J4, J5, J6
0.000367, -1, 39.6311, 32.4445, 11.8317, 12.5471, 113.714, -48.8709
0.003561, -1, 39.6311, 32.4445, 11.8317, 12.5471, 113.714, -48.8709
0.026865, -1, 39.6311, 32.4445, 11.8317, 12.5471, 113.714, -48.8708
0.028891, -1, 39.6311, 32.4445, 11.8317, 12.5471, 113.714, -48.8708
0.030168, -1, 39.6311, 32.4445, 11.8317, 12.5471, 113.714, -48.8708
0.033648, -1, 39.6311, 32.4445, 11.8317, 12.5471, 113.714, -48.8708
0.039929, -1, 39.6311, 32.4446, 11.8317, 12.5471, 113.714, -48.8707
0.048147, -1, 39.631, 32.4445, 11.8317, 12.5471, 113.714, -48.8708
0.054832, -1, 39.6307, 32.4445, 11.8317, 12.5471, 113.714, -48.8708
0.194358, -1, 38.3415, 31.7871, 12.0816, 12.5591, 113.042, -50.5876
0.195754, -1, 38.3415, 31.7871, 12.0816, 12.5591, 113.042, -50.5876
0.198546, -1, 38.2546, 31.7415, 12.101, 12.5603, 112.993, -50.7126
0.199823, -1, 38.2546, 31.7415, 12.101, 12.5603, 112.993, -50.7126
0.201869, -1, 38.1661, 31.6952, 12.1205, 12.5615, 112.943, -50.8388
0.203105, -1, 38.1661, 31.6952, 12.1205, 12.5615, 112.943, -50.8388
0.204372, -1, 38.1661, 31.6952, 12.1205, 12.5615, 112.943, -50.8388
0.207828, -1, 38.0762, 31.6482, 12.14, 12.5627, 112.893, -50.966
0.210623, -1, 37.985, 31.6007, 12.1594, 12.5639, 112.842, -51.094
0.211818, -1, 37.985, 31.6007, 12.1594, 12.5639, 112.842, -51.094
0.213913, -1, 37.8927, 31.5527, 12.1788, 12.5651, 112.791, -51.2227
0.215123, -1, 37.8927, 31.5527, 12.1788, 12.5651, 112.791, -51.2227
0.217084, -1, 37.8927, 31.5527, 12.1788, 12.5651, 112.791, -51.3518
0.218578, -1, 37.7993, 31.5044, 12.1982, 12.5663, 112.74, -51.3518
0.219782, -1, 37.7993, 31.5044, 12.1982, 12.5663, 112.74, -51.3518
0.223646, -1, 37.7051, 31.4558, 12.2176, 12.5675, 112.689, -51.4812
0.225934, -1, 37.6103, 31.407, 12.2369, 12.5688, 112.638, -51.611
0.22719, -1, 37.6103, 31.407, 12.2369, 12.5688, 112.638, -51.611
0.228378, -1, 37.6103, 31.407, 12.2369, 12.5688, 112.638, -51.611
0.230509, -1, 37.5149, 31.358, 12.2563, 12.57, 112.586, -51.7409
0.231776, -1, 37.5149, 31.358, 12.2563, 12.57, 112.586, -51.7409
0.234366, -1, 37.4192, 31.3091, 12.2756, 12.5713, 112.535, -51.8707
0.245402, -1, 37.2273, 31.2111, 12.3144, 12.5748, 112.381, -52.2603
0.247741, -1, 37.1312, 31.1621, 12.3339, 12.5748, 112.381, -52.2603
0.255909, -1, 36.939, 31.0644, 12.3726, 12.5775, 112.278, -52.5204
0.262793, -1, 36.7471, 30.9666, 12.4113, 12.58, 112.175, -52.7807
0.271817, -1, 36.5554, 30.8688, 12.4502, 12.5826, 112.072, -53.0411
0.279833, -1, 36.3639, 30.771, 12.4891, 12.5851, 111.969, -53.3015
0.287767, -1, 36.1723, 30.6731, 12.5279, 12.5876, 111.866, -53.562
0.295851, -1, 35.9809, 30.5751, 12.5668, 12.5901, 111.763, -53.8227
0.303836, -1, 35.7894, 30.4771, 12.6058, 12.5928, 111.66, -54.0835
0.311777, -1, 35.5976, 30.379, 12.6447, 12.5952, 111.557, -54.3436
0.319781, -1, 35.4056, 30.2808, 12.6835, 12.5979, 111.454, -54.6039
0.327773, -1, 35.2133, 30.1824, 12.7224, 12.6004, 111.351, -54.8646
0.335819, -1, 35.0208, 30.0841, 12.7614, 12.6029, 111.248, -55.1255
0.343847, -1, 34.8284, 29.9856, 12.8003, 12.6055, 111.145, -55.3861
0.351801, -1, 34.6362, 29.8872, 12.8391, 12.608, 111.041, -55.6469
0.359911, -1, 34.4438, 29.7887, 12.8782, 12.6105, 110.939, -55.9077
0.367889, -1, 34.2517, 29.6904, 12.9172, 12.6131, 110.835, -56.1687
0.375817, -1, 34.0597, 29.5922, 12.9561, 12.6156, 110.732, -56.4295
0.383758, -1, 33.8679, 29.4939, 12.9952, 12.6183, 110.629, -56.6902
0.391863, -1, 33.676, 29.3955, 13.0341, 12.6209, 110.526, -56.9511
0.399765, -1, 33.4841, 29.2971, 13.0731, 12.6235, 110.423, -57.2121
0.407771, -1, 33.2917, 29.1986, 13.1121, 12.6261, 110.32, -57.4732
0.415913, -1, 33.099, 29.0999, 13.1511, 12.6287, 110.217, -57.7342
0.423786, -1, 32.9061, 29.0013, 13.19, 12.6313, 110.114, -57.9953
0.431836, -1, 32.7129, 28.9027, 13.229, 12.634, 110.011, -58.2565
0.440616, -1, 32.5195, 28.8041, 13.268, 12.6366, 109.908, -58.5178
0.447801, -1, 32.3258, 28.7054, 13.3069, 12.6393, 109.805, -58.7787
0.455951, -1, 32.1317, 28.6067, 13.3459, 12.642, 109.702, -59.0398
0.46467, -1, 31.9377, 28.5079, 13.3848, 12.6447, 109.599, -59.301
0.471855, -1, 31.744, 28.4092, 13.4239, 12.6474, 109.496, -59.5625
0.479928, -1, 31.5504, 28.3105, 13.463, 12.6502, 109.392, -59.8236
0.488683, -1, 31.3572, 28.2119, 13.502, 12.6529, 109.289, -60.0849
0.495929, -1, 31.1643, 28.1135, 13.5411, 12.6557, 109.187, -60.3463
0.504022, -1, 30.9719, 28.015, 13.5802, 12.6585, 109.083, -60.6079
0.512686, -1, 30.7797, 27.9165, 13.6192, 12.6613, 108.98, -60.8693
0.650661, -1, 27.4956, 26.2373, 14.2825, 12.7047, 107.224, -65.3171
0.651853, -1, 27.4956, 26.2373, 14.2825, 12.7047, 107.224, -65.3171
0.653903, -1, 27.3995, 26.1878, 14.302, 12.7059, 107.173, -65.4478
0.655134, -1, 27.3995, 26.1878, 14.302, 12.7059, 107.173, -65.4478
0.657305, -1, 27.3035, 26.1383, 14.3216, 12.7071, 107.121, -65.5786
0.659343, -1, 27.3035, 26.1383, 14.3216, 12.7071, 107.121, -65.5786
0.66165, -1, 27.2074, 26.0888, 14.3411, 12.7082, 107.069, -65.7094
0.665169, -1, 27.1112, 26.0393, 14.3606, 12.7093, 107.017, -65.8402
0.666486, -1, 27.1112, 26.0393, 14.3606, 12.7093, 107.017, -65.8402
0.667751, -1, 27.1112, 26.0393, 14.3606, 12.7093, 107.017, -65.8402
0.669748, -1, 27.0149, 25.9899, 14.38, 12.7105, 106.966, -65.971
0.67113, -1, 27.0149, 25.9899, 14.38, 12.7105, 106.966, -65.971
0.673949, -1, 26.9185, 25.9405, 14.3995, 12.7117, 106.914, -66.102
0.675209, -1, 26.9185, 25.9405, 14.3995, 12.7117, 106.914, -66.102
0.677351, -1, 26.8222, 25.8911, 14.419, 12.7128, 106.862, -66.233
0.681481, -1, 26.7257, 25.8416, 14.4385, 12.714, 106.811, -66.3639
0.683587, -1, 26.7257, 25.8416, 14.4385, 12.714, 106.811, -66.3639
0.685713, -1, 26.6291, 25.7922, 14.458, 12.715, 106.759, -66.4946
0.686938, -1, 26.6291, 25.7922, 14.458, 12.715, 106.759, -66.4946
0.68813, -1, 26.6291, 25.7922, 14.458, 12.715, 106.759, -66.4946
0.690183, -1, 26.5324, 25.7428, 14.4774, 12.7161, 106.707, -66.6256
0.691371, -1, 26.5324, 25.7428, 14.4774, 12.7161, 106.707, -66.6256
0.698021, -1, 26.3386, 25.644, 14.5163, 12.7184, 106.604, -66.8873
0.703841, -1, 26.2415, 25.5946, 14.5358, 12.7195, 106.553, -67.0182
0.711751, -1, 26.0473, 25.4958, 14.5749, 12.7218, 106.45, -67.2801
0.719762, -1, 25.853, 25.3969, 14.6138, 12.7241, 106.346, -67.5418
0.726746, -1, 25.6587, 25.2982, 14.6529, 12.7264, 106.243, -67.8034
0.735809, -1, 25.4647, 25.1995, 14.6919, 12.7287, 106.14, -68.065
0.743753, -1, 25.271, 25.1009, 14.7308, 12.731, 106.037, -68.3269
0.753317, -1, 25.0775, 25.0021, 14.7699, 12.7333, 105.934, -68.5887
0.759779, -1, 24.8843, 24.9033, 14.809, 12.7357, 105.83, -68.8501
0.768748, -1, 24.6915, 24.8045, 14.8478, 12.7381, 105.727, -69.1118
0.774756, -1, 24.4991, 24.7056, 14.8869, 12.7405, 105.624, -69.3736
0.783749, -1, 24.3068, 24.6067, 14.9259, 12.7429, 105.52, -69.6354
0.791752, -1, 24.1143, 24.5078, 14.9649, 12.7452, 105.417, -69.8969
0.799782, -1, 23.9216, 24.4091, 15.0039, 12.7476, 105.314, -70.1582
0.807792, -1, 23.7287, 24.3102, 15.0428, 12.75, 105.21, -70.4199
0.815845, -1, 23.5356, 24.2114, 15.0817, 12.7524, 105.107, -70.6819
0.82375, -1, 23.342, 24.1125, 15.1207, 12.7547, 105.004, -70.9435
0.831751, -1, 23.1481, 24.0137, 15.1595, 12.7572, 104.9, -71.2053
0.839858, -1, 22.9541, 23.9148, 15.1985, 12.7596, 104.797, -71.467
0.847747, -1, 22.76, 23.816, 15.2375, 12.762, 104.694, -71.7289
0.855799, -1, 22.5661, 23.7173, 15.2765, 12.7646, 104.59, -71.9905
0.863816, -1, 22.3725, 23.6187, 15.3155, 12.767, 104.487, -72.2519
0.871826, -1, 22.1792, 23.52, 15.3544, 12.7696, 104.383, -72.5134
0.879748, -1, 21.986, 23.4213, 15.3933, 12.7721, 104.28, -72.775
0.887813, -1, 21.7932, 23.3226, 15.4324, 12.7748, 104.177, -73.0366
0.895823, -1, 21.601, 23.2238, 15.4713, 12.7775, 104.074, -73.2977
0.903748, -1, 21.4088, 23.1251, 15.5102, 12.7802, 103.971, -73.5591
0.911808, -1, 21.2166, 23.0264, 15.5493, 12.7828, 103.867, -73.8207
0.919761, -1, 21.0243, 22.9278, 15.5882, 12.7855, 103.764, -74.0822
0.927771, -1, 20.8319, 22.8292, 15.6271, 12.7882, 103.661, -74.3433
0.935867, -1, 20.6394, 22.7306, 15.6661, 12.791, 103.558, -74.6044
0.943817, -1, 20.4465, 22.632, 15.7049, 12.7937, 103.455, -74.8658
0.952142, -1, 20.253, 22.5333, 15.7438, 12.7965, 103.352, -75.1272
0.959261, -1, 20.0592, 22.4345, 15.7829, 12.7992, 103.249, -75.3883
0.967841, -1, 19.8656, 22.3359, 15.8216, 12.802, 103.146, -75.6494
0.976258, -1, 19.6719, 22.2373, 15.8604, 12.8047, 103.043, -75.9106
0.983292, -1, 19.4783, 22.1387, 15.8994, 12.8074, 102.94, -76.1719
0.99185, -1, 19.285, 22.0401, 15.9383, 12.81, 102.837, -76.433
1.00059, -1, 19.0922, 21.9414, 15.9772, 12.8128, 102.734, -76.6938
1.00779, -1, 18.8995, 21.8428, 16.0161, 12.8155, 102.631, -76.9546
1.01584, -1, 18.7072, 21.7441, 16.0548, 12.8181, 102.528, -77.2156
1.02463, -1, 18.5154, 21.6454, 16.0938, 12.8208, 102.425, -77.4766
1.0318, -1, 18.3236, 21.5469, 16.1327, 12.8235, 102.322, -77.7371
1.04002, -1, 18.1317, 21.4484, 16.1715, 12.8261, 102.219, -77.9979
1.04674, -1, 18.0358, 21.3992, 16.1909, 12.8273, 102.168, -78.1283
1.05604, -1, 17.748, 21.2517, 16.2493, 12.8311, 102.013, -78.5195
1.06273, -1, 17.6519, 21.2025, 16.2687, 12.8324, 101.962, -78.6498
1.07299, -1, 17.3632, 21.0551, 16.327, 12.836, 101.807, -79.0403
1.08021, -1, 17.1701, 20.9568, 16.3658, 12.8384, 101.704, -79.3009
1.08673, -1, 17.0735, 20.9077, 16.3852, 12.8396, 101.653, -79.4313
1.0973, -1, 16.7839, 20.7603, 16.4435, 12.8431, 101.499, -79.8222
1.10284, -1, 16.6873, 20.7113, 16.4629, 12.8443, 101.447, -79.9524
1.11233, -1, 16.3978, 20.564, 16.5209, 12.8478, 101.294, -80.3432
1.12118, -1, 16.3014, 20.5148, 16.5597, 12.85, 101.191, -80.6038
1.12682, -1, 16.1092, 20.4165, 16.5791, 12.8512, 101.14, -80.7341
1.13689, -1, 15.8213, 20.2688, 16.6372, 12.8546, 100.986, -81.1242
1.14374, -1, 15.7255, 20.2196, 16.6566, 12.8558, 100.934, -81.2542
1.15175, -1, 15.5342, 20.1212, 16.6952, 12.8581, 100.832, -81.5144
1.15979, -1, 15.3431, 20.0229, 16.7338, 12.8604, 100.729, -81.7746
1.16774, -1, 15.152, 19.9247, 16.7727, 12.8627, 100.626, -82.0344
1.1748, -1, 14.9609, 19.8265, 16.8114, 12.865, 100.524, -82.2941
1.18378, -1, 14.7695, 19.7284, 16.85, 12.8672, 100.421, -82.5541
1.19175, -1, 14.578, 19.6303, 16.8888, 12.8695, 100.319, -82.8142
1.1998, -1, 14.3861, 19.5322, 16.9275, 12.8719, 100.216, -83.074
1.20777, -1, 14.1939, 19.4341, 16.9662, 12.8742, 100.114, -83.3334
1.21574, -1, 14.0015, 19.3361, 17.0049, 12.8765, 100.011, -83.5931
1.22274, -1, 13.809, 19.2383, 17.0434, 12.8789, 99.9085, -83.8528
1.23175, -1, 13.6165, 19.1405, 17.0821, 12.8811, 99.8061, -84.1123
1.23974, -1, 13.4241, 19.0426, 17.1209, 12.8835, 99.7035, -84.3715
1.24679, -1, 13.2321, 18.9447, 17.1593, 12.8858, 99.6013, -84.6309
1.25574, -1, 13.0405, 18.8468, 17.1979, 12.8882, 99.4989, -84.8901
1.26376, -1, 12.8494, 18.7488, 17.2366, 12.8905, 99.3963, -85.1495
1.27274, -1, 12.6584, 18.6509, 17.2751, 12.8929, 99.2943, -85.4085
1.27974, -1, 12.4678, 18.5531, 17.3137, 12.8954, 99.1919, -85.6673
1.28776, -1, 12.2777, 18.4554, 17.3522, 12.8978, 99.0896, -85.9263
1.29574, -1, 12.0875, 18.3576, 17.3907, 12.9002, 98.9877, -86.1854
1.30374, -1, 11.8972, 18.26, 17.4293, 12.9026, 98.8855, -86.4441
1.31212, -1, 11.7068, 18.1624, 17.468, 12.905, 98.7836, -86.7026
1.31973, -1, 11.5159, 18.0647, 17.5064, 12.9075, 98.6818, -86.9613
1.32775, -1, 11.3248, 17.9671, 17.545, 12.9099, 98.5798, -87.22
1.33655, -1, 11.1334, 17.8696, 17.5836, 12.9123, 98.4779, -87.4784
1.34283, -1, 10.9419, 17.7722, 17.6221, 12.9148, 98.376, -87.7366
1.35175, -1, 10.7502, 17.6747, 17.6606, 12.9173, 98.274, -87.9949
1.36052, -1, 10.5586, 17.5772, 17.6989, 12.9198, 98.1721, -88.2532
1.36774, -1, 10.3673, 17.4797, 17.7373, 12.9224, 98.0703, -88.5116
1.37577, -1, 10.1763, 17.3821, 17.7758, 12.9248, 97.9684, -88.7695
1.38452, -1, 9.98571, 17.2845, 17.8141, 12.9275, 97.8667, -89.0275
1.39174, -1, 9.79547, 17.1869, 17.8524, 12.9302, 97.7646, -89.2857
1.39976, -1, 9.60558, 17.0894, 17.8908, 12.9328, 97.6627, -89.5439
1.40857, -1, 9.41623, 16.9921, 17.9291, 12.9356, 97.5609, -89.8016
1.41573, -1, 9.22696, 16.8948, 17.9675, 12.9383, 97.4589, -90.0592
1.42376, -1, 9.03764, 16.7975, 18.0059, 12.9409, 97.3571, -90.3166
1.43257, -1, 8.84824, 16.7004, 18.0442, 12.9436, 97.2555, -90.5743
1.43973, -1, 8.65868, 16.6033, 18.0826, 12.9461, 97.1537, -90.8317
1.44799, -1, 8.46902, 16.5061, 18.121, 12.9488, 97.0521, -91.0888
1.45658, -1, 8.27901, 16.4091, 18.1593, 12.9515, 96.9507, -91.3461
1.46382, -1, 8.08857, 16.3122, 18.1976, 12.9541, 96.849, -91.6033
1.47212, -1, 7.898, 16.2153, 18.2359, 12.9567, 96.7474, -91.8604
1.4793, -1, 7.70739, 16.1184, 18.2741, 12.9594, 96.6461, -92.1172
1.48784, -1, 7.51678, 16.0214, 18.3125, 12.9619, 96.5445, -92.3738
1.49629, -1, 7.32649, 15.9245, 18.3507, 12.9644, 96.4432, -92.6306
1.50337, -1, 7.23144, 15.876, 18.3697, 12.9657, 96.342, -92.8875
1.51174, -1, 6.94689, 15.7305, 18.4271, 12.9695, 96.2406, -93.1439
1.52051, -1, 6.75771, 15.6336, 18.4653, 12.9719, 96.1397, -93.4003
1.5287, -1, 6.56905, 15.5368, 18.5033, 12.9744, 96.0389, -93.6567
1.53581, -1, 6.38074, 15.44, 18.5414, 12.977, 95.9378, -93.9132
1.54474, -1, 6.19266, 15.3433, 18.5796, 12.9795, 95.8368, -94.1693
1.55283, -1, 6.00458, 15.2467, 18.6177, 12.9819, 95.736, -94.4251
1.56002, -1, 5.81624, 15.15, 18.6559, 12.9843, 95.6349, -94.681
1.56672, -1, 5.72203, 15.1016, 18.675, 12.9854, 95.5844, -94.809
1.57477, -1, 5.53351, 15.005, 18.713, 12.9877, 95.4838, -95.0651
1.58273, -1, 5.34469, 14.9085, 18.7512, 12.9901, 95.3829, -95.3207
1.59306, -1, 5.06081, 14.7639, 18.8084, 12.9934, 95.232, -95.7038
1.60029, -1, 4.87136, 14.6675, 18.8463, 12.9957, 95.1312, -95.9593
1.60675, -1, 4.77668, 14.6193, 18.8654, 12.9968, 95.0808, -96.087
1.61707, -1, 4.58721, 14.4747, 18.9225, 13.0001, 94.9298, -96.4697
1.62279, -1, 4.39792, 14.4266, 18.9415, 13.0012, 94.8794, -96.5972
1.63273, -1, 4.11458, 14.2819, 18.9985, 13.0046, 94.728, -96.9796
1.63972, -1, 4.02039, 14.2338, 19.0175, 13.0057, 94.6777, -97.107
1.64679, -1, 3.83239, 14.1376, 19.0553, 13.008, 94.5769, -97.3621
1.65577, -1, 3.64477, 14.0414, 19.0933, 13.0102, 94.4761, -97.6167
1.66373, -1, 3.45769, 13.9453, 19.1313, 13.0126, 94.3755, -97.8715
1.67172, -1, 3.27077, 13.8492, 19.169, 13.0149, 94.2748, -98.1263
1.67978, -1, 3.08378, 13.7532, 19.2069, 13.0171, 94.1741, -98.3811
1.68772, -1, 2.89684, 13.6572, 19.2449, 13.0194, 94.0736, -98.6355
1.69572, -1, 2.70979, 13.5612, 19.2828, 13.0217, 93.9729, -98.8897
1.70517, -1, 2.42881, 13.4172, 19.3396, 13.0251, 93.8222, -99.2709
1.71072, -1, 2.33504, 13.3693, 19.3584, 13.0262, 93.7722, -99.398
1.71972, -1, 2.14716, 13.2735, 19.3962, 13.0285, 93.6718, -99.652
1.72926, -1, 1.86491, 13.1298, 19.4531, 13.0318, 93.5217, -100.032
1.73574, -1, 1.77077, 13.0818, 19.4719, 13.0329, 93.4718, -100.159
1.74372, -1, 1.58249, 12.9861, 19.5096, 13.0351, 93.3716, -100.413
1.75327, -1, 1.39436, 12.8903, 19.5475, 13.0374, 93.2216, -100.793
1.75972, -1, 1.20654, 12.7944, 19.5852, 13.0398, 93.1717, -100.92
1.76872, -1, 1.01923, 12.6987, 19.6228, 13.0421, 93.0715, -101.173
1.77475, -1, 0.832577, 12.6031, 19.6607, 13.0445, 92.9716, -101.426
1.78372, -1, 0.646248, 12.5076, 19.6983, 13.0469, 92.872, -101.679
1.79172, -1, 0.460325, 12.4121, 19.7358, 13.0494, 92.7721, -101.932
1.79978, -1, 0.274704, 12.3168, 19.7736, 13.0519, 92.6724, -102.185
1.80773, -1, 0.0893386, 12.2213, 19.8111, 13.0544, 92.5732, -102.437
1.81577, -1, -0.0961069, 12.1261, 19.8487, 13.0568, 92.4734, -102.69
1.82371, -1, -0.281772, 12.0308, 19.8864, 13.0593, 92.3739, -102.942
1.83172, -1, -0.467696, 11.9356, 19.924, 13.0618, 92.2746, -103.194
1.83978, -1, -0.653908, 11.8406, 19.9615, 13.0643, 92.175, -103.446
1.8478, -1, -0.840327, 11.7457, 19.9991, 13.0667, 92.0755, -103.698
1.85573, -1, -1.02705, 11.6506, 20.0365, 13.0692, 91.9763, -103.95
1.86378, -1, -1.21397, 11.5555, 20.074, 13.0718, 91.8769, -104.202
1.87172, -1, -1.40097, 11.4605, 20.1116, 13.0743, 91.7776, -104.454
1.87976, -1, -1.58774, 11.3654, 20.149, 13.0769, 91.6786, -104.705
1.88779, -1, -1.77418, 11.2703, 20.1863, 13.0795, 91.5793, -104.957
1.89571, -1, -1.96015, 11.1753, 20.2238, 13.0821, 91.4801, -105.208
1.90374, -1, -2.14553, 11.0804, 20.2612, 13.0848, 91.381, -105.459
1.91181, -1, -2.33044, 10.9855, 20.2985, 13.0875, 91.2818, -105.71
1.91972, -1, -2.51507, 10.8907, 20.336, 13.0901, 91.1827, -105.961
1.92778, -1, -2.69916, 10.796, 20.3732, 13.0928, 91.0836, -106.212
1.93577, -1, -2.88302, 10.7012, 20.4105, 13.0955, 90.9846, -106.463
1.94372, -1, -3.06701, 10.6064, 20.4479, 13.098, 90.8856, -106.714
1.95191, -1, -3.25114, 10.5118, 20.4851, 13.1006, 90.7868, -106.964
1.95977, -1, -3.43561, 10.4173, 20.5223, 13.1031, 90.6879, -107.215
1.96781, -1, -3.62033, 10.3229, 20.5596, 13.1056, 90.589, -107.465
1.97612, -1, -3.80529, 10.2286, 20.5968, 13.1082, 90.4902, -107.715
1.98325, -1, -3.99059, 10.1342, 20.6341, 13.1105, 90.3914, -107.965
1.99188, -1, -4.17598, 10.0399, 20.6713, 13.113, 90.2928, -108.215
2.00021, -1, -4.3617, 9.94568, 20.7084, 13.1153, 90.1942, -108.465
2.00735, -1, -4.45451, 9.89849, 20.727, 13.1176, 90.0956, -108.715
2.01577, -1, -4.73236, 9.75704, 20.7829, 13.1199, 89.9971, -108.964
2.02442, -1, -4.91711, 9.66287, 20.8199, 13.1224, 89.8986, -109.213
2.03184, -1, -5.10122, 9.56882, 20.857, 13.1247, 89.8002, -109.463
2.03981, -1, -5.2847, 9.47471, 20.8942, 13.127, 89.7019, -109.712
2.04867, -1, -5.46787, 9.38074, 20.9312, 13.1293, 89.6034, -109.961
2.05599, -1, -5.6505, 9.28684, 20.9683, 13.1316, 89.5051, -110.21
2.06415, -1, -5.83284, 9.19293, 21.0054, 13.134, 89.4071, -110.458
2.07282, -1, -6.01521, 9.09906, 21.0423, 13.1362, 89.3089, -110.707
2.0802, -1, -6.19777, 9.00525, 21.0793, 13.1383, 89.2107, -110.956
2.08672, -1, -6.28916, 8.9584, 21.0978, 13.1394, 89.1618, -111.08
2.09696, -1, -6.56363, 8.81794, 21.1532, 13.1427, 89.015, -111.452
2.10271, -1, -6.65529, 8.77113, 21.1715, 13.1437, 88.966, -111.576
2.11252, -1, -6.9308, 8.63077, 21.2269, 13.147, 88.8193, -111.948
2.12104, -1, -7.02279, 8.53716, 21.2638, 13.1491, 88.7213, -112.196
2.1267, -1, -7.207, 8.4904, 21.2822, 13.1502, 88.6724, -112.32
2.13622, -1, -7.3912, 8.39679, 21.3192, 13.1523, 88.5746, -112.568
2.14371, -1, -7.57501, 8.30317, 21.356, 13.1544, 88.4772, -112.815
2.1507, -1, -7.75858, 8.20972, 21.3927, 13.1566, 88.3794, -113.063
2.15971, -1, -7.94163, 8.11633, 21.4296, 13.1588, 88.2821, -113.31
2.16771, -1, -8.12415, 8.02295, 21.4664, 13.161, 88.1848, -113.557
2.17576, -1, -8.306, 7.92967, 21.5031, 13.1633, 88.0873, -113.804
2.18372, -1, -8.48738, 7.83641, 21.54, 13.1655, 87.9899, -114.051
2.1917, -1, -8.66826, 7.74323, 21.5768, 13.1678, 87.8927, -114.298
2.19871, -1, -8.84894, 7.65007, 21.6135, 13.1701, 87.7951, -114.544
2.20771, -1, -9.02969, 7.55697, 21.6503, 13.1723, 87.6978, -114.79
2.21574, -1, -9.21074, 7.464, 21.687, 13.1745, 87.6007, -115.037
2.2227, -1, -9.39208, 7.37116, 21.7237, 13.1767, 87.5035, -115.283
2.23175, -1, -9.57377, 7.27834, 21.7604, 13.1789, 87.4064, -115.529
2.23972, -1, -9.75568, 7.18553, 21.797, 13.1812, 87.3094, -115.775
2.2478, -1, -9.93807, 7.0928, 21.8335, 13.1834, 87.2121, -116.022
2.2557, -1, -10.1206, 7.00003, 21.8702, 13.1857, 87.1148, -116.268
2.26372, -1, -10.3033, 6.90726, 21.9068, 13.1879, 87.0177, -116.513
2.2727, -1, -10.4859, 6.81449, 21.9434, 13.19, 86.9205, -116.759
2.27971, -1, -10.6682, 6.72177, 21.98, 13.1924, 86.8235, -117.004
2.2877, -1, -10.85, 6.6292, 22.0165, 13.1947, 86.7267, -117.25
2.29584, -1, -11.0312, 6.53664, 22.0529, 13.1972, 86.6297, -117.495
2.30372, -1, -11.2116, 6.44413, 22.0895, 13.1995, 86.533, -117.74
2.31177, -1, -11.3915, 6.35167, 22.1261, 13.202, 86.4365, -117.985
2.31972, -1, -11.571, 6.25925, 22.1624, 13.2044, 86.3397, -118.229
2.32772, -1, -11.7503, 6.16684, 22.199, 13.2069, 86.243, -118.474
2.33579, -1, -11.9296, 6.07451, 22.2355, 13.2093, 86.1465, -118.719
2.3437, -1, -12.1088, 5.98227, 22.2719, 13.2118, 86.0498, -118.963
2.35174, -1, -12.2884, 5.89021, 22.3084, 13.2143, 85.9534, -119.207
2.35978, -1, -12.4683, 5.79822, 22.3448, 13.2168, 85.8572, -119.451
2.3677, -1, -12.6485, 5.70618, 22.381, 13.2192, 85.7607, -119.695
2.3757, -1, -12.8292, 5.61422, 22.4174, 13.2217, 85.6646, -119.939
2.3838, -1, -13.0102, 5.52235, 22.4537, 13.2241, 85.5688, -120.182
2.3917, -1, -13.1914, 5.43032, 22.4899, 13.2266, 85.4728, -120.426
2.40133, -1, -13.3726, 5.33833, 22.5262, 13.229, 85.3768, -120.67
2.40683, -1, -13.5535, 5.24643, 22.5625, 13.2315, 85.2813, -120.913
2.4158, -1, -13.7339, 5.15457, 22.5987, 13.2341, 85.1854, -121.156
2.42372, -1, -13.9138, 5.06276, 22.6349, 13.2366, 85.0895, -121.399
2.4317, -1, -14.0929, 4.97099, 22.6711, 13.2392, 84.9942, -121.642
2.43977, -1, -14.2713, 4.87931, 22.7072, 13.2417, 84.8984, -121.885
2.44784, -1, -14.4494, 4.78767, 22.7433, 13.2442, 84.8028, -122.127
2.45574, -1, -14.6271, 4.696, 22.7796, 13.2468, 84.7074, -122.37
2.46385, -1, -14.8047, 4.60451, 22.8157, 13.2493, 84.6115, -122.612
2.47204, -1, -14.9824, 4.513, 22.8518, 13.2518, 84.5158, -122.855
2.47983, -1, -15.1603, 4.42164, 22.888, 13.2542, 84.4203, -123.097
2.48787, -1, -15.3385, 4.33037, 22.9241, 13.2566, 84.3246, -123.339
2.49617, -1, -15.5172, 4.23903, 22.9601, 13.2589, 84.2289, -123.58
2.50382, -1, -15.6963, 4.14776, 22.9962, 13.2612, 84.1336, -123.822
2.51187, -1, -15.8755, 4.05656, 23.0321, 13.2634, 84.038, -124.064
2.52121, -1, -16.055, 3.9653, 23.0681, 13.2656, 83.9425, -124.305
2.52674, -1, -16.1448, 3.91966, 23.0861, 13.2667, 83.8949, -124.426
2.5358, -1, -16.4144, 3.78283, 23.1401, 13.2699, 83.7516, -124.788
2.54613, -1, -16.5935, 3.69165, 23.1758, 13.2721, 83.6562, -125.03
2.552, -1, -16.7723, 3.60056, 23.2117, 13.2744, 83.561, -125.271
2.55999, -1, -16.9503, 3.5095, 23.2476, 13.2767, 83.4653, -125.512
2.56676, -1, -17.0389, 3.46398, 23.2655, 13.2777, 83.4178, -125.632
2.5747, -1, -17.2157, 3.37305, 23.3013, 13.2799, 83.3225, -125.873
2.58414, -1, -17.4804, 3.23673, 23.3551, 13.2832, 83.1798, -126.234
2.59299, -1, -17.6565, 3.14599, 23.3908, 13.2854, 83.0849, -126.474
2.60028, -1, -17.8325, 3.05539, 23.4268, 13.2875, 82.9903, -126.714
2.60848, -1, -18.0087, 2.96481, 23.4626, 13.2895, 82.8954, -126.955
2.61706, -1, -18.1851, 2.87444, 23.4983, 13.2917, 82.8005, -127.195
2.62428, -1, -18.3618, 2.78403, 23.5341, 13.2938, 82.7059, -127.435
2.63225, -1, -18.4504, 2.73883, 23.552, 13.2948, 82.6587, -127.675
2.6397, -1, -18.6278, 2.64844, 23.5876, 13.2968, 82.5639, -127.794
2.64774, -1, -18.8056, 2.55809, 23.6233, 13.2989, 82.4693, -128.034
2.65569, -1, -18.9836, 2.46766, 23.659, 13.3009, 82.375, -128.273
2.66369, -1, -19.1619, 2.37718, 23.6946, 13.3029, 82.2805, -128.513
2.67176, -1, -19.3401, 2.28681, 23.7301, 13.3049, 82.1862, -128.752
2.6797, -1, -19.5177, 2.19644, 23.7658, 13.307, 82.0924, -128.991
2.68769, -1, -19.6948, 2.10605, 23.8013, 13.3091, 81.998, -129.23
2.69574, -1, -19.8713, 2.01574, 23.8366, 13.3113, 81.9038, -129.469
2.70369, -1, -20.0469, 1.92549, 23.8722, 13.3134, 81.81, -129.708
2.71169, -1, -20.2221, 1.83529, 23.9077, 13.3157, 81.7158, -129.946
2.71974, -1, -20.397, 1.74516, 23.9432, 13.3179, 81.6217, -130.184
2.72769, -1, -20.5717, 1.65507, 23.9788, 13.3201, 81.5279, -130.423
2.73575, -1, -20.7462, 1.56511, 24.0142, 13.3223, 81.4339, -130.661
2.74272, -1, -20.9209, 1.47523, 24.0496, 13.3245, 81.3402, -130.899
2.75169, -1, -21.0959, 1.38557, 24.0851, 13.3266, 81.2466, -131.137
2.75976, -1, -21.2712, 1.29579, 24.1206, 13.3288, 81.1527, -131.375
2.76972, -1, -21.5348, 1.16131, 24.1736, 13.3321, 81.0118, -131.732
2.77569, -1, -21.6229, 1.11653, 24.1913, 13.3331, 80.965, -131.85
2.78376, -1, -21.7991, 1.02688, 24.2268, 13.3353, 80.8711, -132.088
2.79169, -1, -21.9755, 0.937241, 24.2622, 13.3375, 80.7774, -132.325
2.79977, -1, -22.1521, 0.847682, 24.2975, 13.3397, 80.6838, -132.562
2.80769, -1, -22.3286, 0.75813, 24.333, 13.3418, 80.5902, -132.799
2.81575, -1, -22.5046, 0.668675, 24.3681, 13.3441, 80.4966, -133.036
2.82375, -1, -22.6802, 0.579161, 24.4033, 13.3464, 80.403, -133.273
2.83169, -1, -22.8551, 0.489749, 24.4386, 13.3488, 80.3094, -133.51
2.83978, -1, -23.0291, 0.400329, 24.4738, 13.3512, 80.2158, -133.747
2.84769, -1, -23.2028, 0.310978, 24.5089, 13.3538, 80.1222, -133.984
2.85572, -1, -23.3762, 0.221615, 24.5442, 13.3561, 80.0288, -134.22
2.86375, -1, -23.5492, 0.132429, 24.5794, 13.3586, 79.9355, -134.456
2.87168, -1, -23.7225, 0.0433374, 24.6145, 13.361, 79.8421, -134.692
2.87969, -1, -23.8959, -0.0456984, 24.6497, 13.3634, 79.7492, -134.929
2.88779, -1, -24.0694, -0.134647, 24.6848, 13.3659, 79.6558, -135.165
2.8957, -1, -24.2432, -0.22361, 24.7198, 13.3683, 79.5628, -135.4
2.9037, -1, -24.4173, -0.312538, 24.755, 13.3708, 79.4699, -135.636
2.91177, -1, -24.5918, -0.401355, 24.7901, 13.3732, 79.3767, -135.871
2.91968, -1, -24.7665, -0.490257, 24.8251, 13.3756, 79.2836, -136.107
2.9277, -1, -24.9416, -0.579145, 24.8602, 13.378, 79.1908, -136.343
2.93578, -1, -25.1166, -0.667979, 24.8953, 13.3804, 79.0976, -136.578
2.94379, -1, -25.2913, -0.756749, 24.9302, 13.3827, 79.0047, -136.813
2.95192, -1, -25.4656, -0.845555, 24.9653, 13.3852, 78.9123, -137.048
2.95972, -1, -25.6396, -0.934351, 25.0002, 13.3877, 78.8194, -137.283
2.96776, -1, -25.8127, -1.02302, 25.035, 13.39, 78.7268, -137.518
2.97606, -1, -25.9854, -1.11172, 25.0699, 13.3924, 78.6345, -137.752
2.98382, -1, -26.1577, -1.2004, 25.1049, 13.3949, 78.5419, -137.987
2.9918, -1, -26.3295, -1.28893, 25.1398, 13.3972, 78.4493, -138.221
3.0002, -1, -26.5013, -1.37739, 25.1746, 13.3996, 78.3568, -138.456
3.00732, -1, -26.5872, -1.46575, 25.2096, 13.4018, 78.2644, -138.69
3.0157, -1, -26.8454, -1.55404, 25.2444, 13.4041, 78.1719, -138.924
3.0244, -1, -27.0177, -1.64218, 25.2792, 13.4063, 78.0795, -139.158
3.03183, -1, -27.1902, -1.73037, 25.3141, 13.4084, 77.9876, -139.392
3.03973, -1, -27.3629, -1.81857, 25.3489, 13.4106, 77.8953, -139.626
3.04862, -1, -27.5359, -1.90661, 25.3836, 13.4128, 77.8033, -139.859
3.05594, -1, -27.7092, -1.99485, 25.4185, 13.4149, 77.7114, -140.092
3.06272, -1, -27.7958, -2.03893, 25.4359, 13.4159, 77.6653, -140.209
3.07285, -1, -28.0557, -2.17095, 25.488, 13.419, 77.5272, -140.559
3.08021, -1, -28.229, -2.25898, 25.5228, 13.421, 77.4354, -140.793
3.08817, -1, -28.4019, -2.34704, 25.5576, 13.423, 77.3432, -141.026
3.09701, -1, -28.5745, -2.43504, 25.5923, 13.4251, 77.251, -141.258
3.10422, -1, -28.7466, -2.52299, 25.6269, 13.4273, 77.1591, -141.491
3.11225, -1, -28.9179, -2.61102, 25.6617, 13.4294, 77.067, -141.724
3.12112, -1, -29.0887, -2.69891, 25.6962, 13.4317, 76.9752, -141.957
3.12675, -1, -29.174, -2.74283, 25.7135, 13.4327, 76.9293, -142.073
3.13638, -1, -29.3446, -2.83064, 25.7656, 13.4358, 76.7915, -142.421
3.14366, -1, -29.5153, -2.91834, 25.7829, 13.4368, 76.7456, -142.538
3.15172, -1, -29.6862, -3.00591, 25.8174, 13.4388, 76.6538, -142.77
3.15973, -1, -29.8572, -3.09344, 25.852, 13.4409, 76.5622, -143.003
3.16768, -1, -30.0282, -3.18091, 25.8866, 13.443, 76.4702, -143.235
3.1757, -1, -30.1992, -3.26845, 25.9211, 13.445, 76.3785, -143.467
3.18373, -1, -30.3703, -3.35587, 25.9556, 13.4471, 76.287, -143.699
3.19172, -1, -30.5418, -3.44331, 25.9902, 13.4492, 76.1953, -143.931
3.1997, -1, -30.7137, -3.53086, 26.0247, 13.4512, 76.1039, -144.162
3.20773, -1, -30.8855, -3.61819, 26.0591, 13.4532, 76.0126, -144.393
3.21566, -1, -31.0573, -3.7056, 26.0937, 13.4552, 75.9211, -144.625
3.22372, -1, -31.229, -3.79292, 26.1282, 13.4573, 75.8298, -144.856
3.23172, -1, -31.4004, -3.88023, 26.1625, 13.4593, 75.7385, -145.088
3.23966, -1, -31.5712, -3.9675, 26.197, 13.4615, 75.6472, -145.319
3.24772, -1, -31.7416, -4.05475, 26.2315, 13.4636, 75.5559, -145.55
3.25574, -1, -31.9116, -4.14201, 26.2658, 13.4658, 75.4647, -145.781
3.26366, -1, -32.0812, -4.22919, 26.3002, 13.468, 75.3738, -146.012
3.27269, -1, -32.2507, -4.31628, 26.3346, 13.4703, 75.2826, -146.242
3.27974, -1, -32.4201, -4.40333, 26.3688, 13.4724, 75.1916, -146.473
3.28767, -1, -32.5898, -4.49028, 26.4032, 13.4745, 75.1011, -146.703
3.29567, -1, -32.7594, -4.57714, 26.4376, 13.4766, 75.01, -146.934
3.30374, -1, -32.9291, -4.66407, 26.4718, 13.4788, 74.9193, -147.164
3.31166, -1, -33.0988, -4.75098, 26.506, 13.481, 74.8288, -147.394
3.31972, -1, -33.2687, -4.83779, 26.5403, 13.4833, 74.738, -147.624
3.32774, -1, -33.4388, -4.92471, 26.5746, 13.4855, 74.6474, -147.854
3.33566, -1, -33.6091, -5.01166, 26.6087, 13.4877, 74.557, -148.084
3.34436, -1, -33.7794, -5.09845, 26.643, 13.4899, 74.4664, -148.314
3.35166, -1, -33.9497, -5.18518, 26.6772, 13.4921, 74.3758, -148.544
3.35966, -1, -34.1199, -5.27189, 26.7112, 13.4944, 74.2854, -148.773
3.36852, -1, -34.29, -5.35857, 26.7454, 13.4966, 74.1948, -149.002
3.37566, -1, -34.4599, -5.44522, 26.7797, 13.4989, 74.1041, -149.232
3.38367, -1, -34.6294, -5.53186, 26.8138, 13.5013, 74.0135, -149.461
3.39183, -1, -34.7983, -5.61848, 26.8478, 13.5037, 73.9231, -149.69
3.39966, -1, -34.9669, -5.70505, 26.8821, 13.5061, 73.8325, -149.919
3.40766, -1, -35.1352, -5.79154, 26.9161, 13.5085, 73.7421, -150.148
3.41685, -1, -35.3035, -5.87795, 26.9502, 13.511, 73.652, -150.377
3.4247, -1, -35.4719, -5.96419, 26.9843, 13.5134, 73.5615, -150.606
3.43174, -1, -35.6406, -6.05044, 27.0184, 13.5157, 73.4711, -150.835
3.43979, -1, -35.8091, -6.13667, 27.0523, 13.5181, 73.381, -151.064
3.44766, -1, -35.9776, -6.2228, 27.0864, 13.5205, 73.2905, -151.292
3.45574, -1, -36.1461, -6.30894, 27.1204, 13.523, 73.2001, -151.521
3.46387, -1, -36.3147, -6.39512, 27.1543, 13.5253, 73.1098, -151.749
3.47176, -1, -36.4836, -6.48136, 27.1883, 13.5277, 73.0193, -151.978
3.47989, -1, -36.6525, -6.56755, 27.2222, 13.5299, 72.9291, -152.206
3.48809, -1, -36.8213, -6.65375, 27.2561, 13.5322, 72.8388, -152.434
3.49576, -1, -36.9903, -6.73987, 27.29, 13.5345, 72.7489, -152.662
3.50382, -1, -37.1591, -6.82604, 27.324, 13.5368, 72.6587, -152.89
3.51229, -1, -37.3277, -6.9121, 27.3578, 13.5391, 72.5688, -153.118
3.5198, -1, -37.4961, -6.99813, 27.3917, 13.5413, 72.4791, -153.345
3.52775, -1, -37.6639, -7.08418, 27.4257, 13.5436, 72.3891, -153.573
3.53628, -1, -37.8315, -7.17019, 27.4596, 13.5458, 72.2993, -153.8
3.54373, -1, -37.9991, -7.25613, 27.4934, 13.548, 72.2097, -154.028
3.55183, -1, -38.1666, -7.34205, 27.5273, 13.5501, 72.1198, -154.255
3.56084, -1, -38.3341, -7.4279, 27.5612, 13.5523, 72.0301, -154.483
3.56792, -1, -38.5013, -7.51361, 27.595, 13.5544, 71.9405, -154.71
3.57609, -1, -38.6686, -7.59932, 27.6289, 13.5566, 71.8509, -154.937
3.58267, -1, -38.7522, -7.64218, 27.6459, 13.5576, 71.8061, -155.051
3.59209, -1, -39.0032, -7.77072, 27.6965, 13.5607, 71.6719, -155.391
3.59867, -1, -39.0869, -7.81349, 27.7133, 13.5617, 71.6275, -155.504
3.60822, -1, -39.3382, -7.94202, 27.7641, 13.5647, 71.4933, -155.845
3.61621, -1, -39.5058, -8.02763, 27.7978, 13.5666, 71.4039, -156.071
3.62432, -1, -39.6734, -8.11317, 27.8314, 13.5686, 71.3149, -156.298
3.63227, -1, -39.7572, -8.15594, 27.8652, 13.5705, 71.2253, -156.524
3.64024, -1, -39.9247, -8.2414, 27.8821, 13.5715, 71.1806, -156.638
3.64826, -1, -40.0923, -8.32682, 27.9157, 13.5735, 71.0912, -156.864
3.65569, -1, -40.2597, -8.41218, 27.9494, 13.5754, 71.0021, -157.09
3.66365, -1, -40.4269, -8.49754, 27.9832, 13.5774, 70.9126, -157.317
3.67173, -1, -40.5938, -8.58293, 28.0167, 13.5794, 70.8234, -157.543
3.67966, -1, -40.7607, -8.66831, 28.0503, 13.5814, 70.7345, -157.768
3.68765, -1, -40.9273, -8.75364, 28.0841, 13.5834, 70.6453, -157.994
3.69565, -1, -41.0938, -8.83896, 28.1177, 13.5854, 70.5561, -158.22
3.70365, -1, -41.2601, -8.9242, 28.1513, 13.5874, 70.4672, -158.446
3.71172, -1, -41.4263, -9.00934, 28.1848, 13.5894, 70.3779, -158.672
3.71965, -1, -41.5926, -9.09448, 28.2185, 13.5914, 70.2886, -158.897
3.72765, -1, -41.7589, -9.17955, 28.2521, 13.5934, 70.1996, -159.122
3.73571, -1, -41.9253, -9.26463, 28.2856, 13.5954, 70.1106, -159.348
3.74366, -1, -42.0917, -9.34966, 28.3194, 13.5974, 70.0216, -159.574
3.75165, -1, -42.258, -9.43476, 28.3529, 13.5994, 69.9325, -159.799
3.75972, -1, -42.4242, -9.51979, 28.3864, 13.6014, 69.8438, -160.024
3.76768, -1, -42.5906, -9.60477, 28.42, 13.6035, 69.7547, -160.249
3.77565, -1, -42.757, -9.68971, 28.4535, 13.6056, 69.6658, -160.474
3.78467, -1, -42.9234, -9.77467, 28.4869, 13.6076, 69.5772, -160.7
3.79168, -1, -43.0897, -9.85956, 28.5204, 13.6096, 69.4882, -160.924
3.79965, -1, -43.2558, -9.94449, 28.554, 13.6116, 69.3996, -161.149
3.80773, -1, -43.4219, -10.0294, 28.5875, 13.6137, 69.311, -161.374
3.81564, -1, -43.5879, -10.1143, 28.6209, 13.6158, 69.2223, -161.599
3.82368, -1, -43.7538, -10.1993, 28.6545, 13.6179, 69.1338, -161.824
3.83172, -1, -43.9197, -10.2841, 28.6879, 13.6201, 69.0453, -162.048
3.83964, -1, -44.0853, -10.3689, 28.7213, 13.6222, 68.9569, -162.272
3.84768, -1, -44.2507, -10.4535, 28.7548, 13.6244, 68.8682, -162.497
3.85572, -1, -44.4159, -10.5381, 28.7883, 13.6266, 68.7795, -162.721
3.86365, -1, -44.5811, -10.6226, 28.8216, 13.6288, 68.691, -162.945
3.87165, -1, -44.7463, -10.7072, 28.8551, 13.631, 68.6023, -163.169
3.87971, -1, -44.9116, -10.7916, 28.8886, 13.6331, 68.5138, -163.393
3.88765, -1, -45.0769, -10.8761, 28.922, 13.6353, 68.4256, -163.617
3.89564, -1, -45.2422, -10.9606, 28.9554, 13.6375, 68.337, -163.842
3.90373, -1, -45.4074, -11.0451, 28.9888, 13.6398, 68.2486, -164.066
3.91164, -1, -45.5726, -11.1295, 29.022, 13.6421, 68.1605, -164.289
3.91966, -1, -45.738, -11.214, 29.0553, 13.6444, 68.0722, -164.513
3.92774, -1, -45.9029, -11.2982, 29.0887, 13.6466, 67.9839, -164.737
3.93564, -1, -46.066, -11.3815, 29.1221, 13.6489, 67.8954, -164.96
3.94365, -1, -46.2255, -11.4626, 29.1556, 13.6512, 67.8078, -165.182
3.95172, -1, -46.3795, -11.5399, 29.1893, 13.6537, 67.7211, -165.401
3.95968, -1, -46.5256, -11.6125, 29.2224, 13.656, 67.6374, -165.613
3.9677, -1, -46.6615, -11.6793, 29.2536, 13.6582, 67.5592, -165.811
3.97581, -1, -46.7843, -11.7391, 29.2818, 13.6603, 67.4878, -165.991
3.98376, -1, -46.8914, -11.7917, 29.3063, 13.6622, 67.4262, -166.147
3.99178, -1, -46.9821, -11.8377, 29.3258, 13.6637, 67.3758, -166.276
3.99983, -1, -47.057, -11.8778, 29.3396, 13.6647, 67.3365, -166.374
4.00777, -1, -47.1168, -11.911, 29.3488, 13.6653, 67.3081, -166.446
4.01577, -1, -47.1623, -11.9368, 29.3543, 13.6656, 67.2892, -166.494
4.02379, -1, -47.1954, -11.9556, 29.357, 13.6658, 67.2774, -166.523
4.03192, -1, -47.2182, -11.9682, 29.3582, 13.6658, 67.2709, -166.54
4.03972, -1, -47.2326, -11.9761, 29.3588, 13.6659, 67.2676, -166.548
4.04799, -1, -47.2406, -11.9803, 29.3591, 13.666, 67.266, -166.552
4.05603, 2, -47.2444, -11.9823, 29.3592, 13.666, 67.2651, -166.554
4.06271, 2, -47.2451, -11.9829, 29.3593, 13.666, 67.2649, -166.555
4.07196, 2, -47.245, -11.9835, 29.3594, 13.6661, 67.2646, -166.555
4.08002, 2, -47.2449, -11.9836, 29.3594, 13.6661, 67.2645, -166.556
4.08806, 2, -47.2451, -11.9837, 29.3595, 13.6661, 67.2644, -166.556
4.09465, 2, -47.2453, -11.9838, 29.3595, 13.6661, 67.2644, -166.556
4.10426, 2, -47.2468, -11.9843, 29.3595, 13.6662, 67.2644, -166.556
4.11217, 2, -47.2485, -11.9849, 29.3595, 13.6661, 67.2644, -166.556
4.12022, 2, -47.2502, -11.9858, 29.3595, 13.6661, 67.2645, -166.556
4.1283, 2, -47.2517, -11.9867, 29.3595, 13.6661, 67.2644, -166.556
4.13617, 2, -47.2524, -11.9871, 29.3595, 13.6661, 67.2644, -166.556
4.14443, 2, -47.2533, -11.9877, 29.3595, 13.6661, 67.2645, -166.556
4.15163, 2, -47.2537, -11.9881, 29.3595, 13.6661, 67.2645, -166.556
4.15967, 2, -47.2539, -11.9883, 29.3595, 13.6661, 67.2645, -166.556
4.1686, 2, -47.254, -11.9884, 29.3595, 13.6661, 67.2644, -166.556
4.17569, 2, -47.2537, -11.9884, 29.3595, 13.6661, 67.2645, -166.556
4.18365, 2, -47.2532, -11.9884, 29.3595, 13.6661, 67.2644, -166.556
4.19169, 2, -47.2528, -11.9884, 29.3595, 13.6661, 67.2644, -166.556
4.19963, 2, -47.2525, -11.9883, 29.3595, 13.6661, 67.2644, -166.556
4.20764, 2, -47.2523, -11.9884, 29.3595, 13.6661, 67.2644, -166.556
4.21568, 2, -47.2523, -11.9884, 29.3596, 13.6661, 67.2644, -166.556
4.22364, 2, -47.2524, -11.9886, 29.3595, 13.6661, 67.2645, -166.556
4.23163, 2, -47.2526, -11.9889, 29.3595, 13.6661, 67.2645, -166.556
4.23969, 2, -47.2532, -11.9892, 29.3595, 13.6661, 67.2645, -166.556
4.24764, 2, -47.2538, -11.9895, 29.3595, 13.6661, 67.2645, -166.556
4.25564, 2, -47.2541, -11.9897, 29.3595, 13.6661, 67.2645, -166.556
4.26265, 2, -47.2542, -11.9898, 29.3595, 13.6661, 67.2645, -166.555
4.27163, 2, -47.2542, -11.9898, 29.3595, 13.6661, 67.2645, -166.555
4.28158, 2, -47.2541, -11.9898, 29.3596, 13.6661, 67.2645, -166.555
4.28771, 2, -47.254, -11.9898, 29.3595, 13.6661, 67.2645, -166.555
4.29669, 2, -47.2535, -11.9897, 29.3595, 13.6661, 67.2645, -166.555
4.30363, 2, -47.2531, -11.9897, 29.3595, 13.6661, 67.2645, -166.555
4.31171, 2, -47.2529, -11.9897, 29.3595, 13.666, 67.2645, -166.555
4.31963, 2, -47.2527, -11.9897, 29.3595, 13.666, 67.2645, -166.555
4.32768, 2, -47.2526, -11.9897, 29.3595, 13.666, 67.2645, -166.555
4.3357, 2, -47.2526, -11.9898, 29.3595, 13.666, 67.2645, -166.555
4.34366, 2, -47.2525, -11.9899, 29.3595, 13.6661, 67.2645, -166.555
4.35164, 2, -47.2526, -11.9899, 29.3595, 13.6661, 67.2645, -166.555
4.35971, 2, -47.2525, -11.9899, 29.3595, 13.6661, 67.2645, -166.555
4.36764, 2, -47.2525, -11.99, 29.3595, 13.666, 67.2645, -166.555
4.37563, 2, -47.2525, -11.9899, 29.3595, 13.666, 67.2645, -166.555
4.38372, 2, -47.2525, -11.9899, 29.3595, 13.6661, 67.2645, -166.555
4.39163, 2, -47.2525, -11.9898, 29.3595, 13.6661, 67.2645, -166.555
4.39963, 2, -47.2524, -11.9898, 29.3595, 13.666, 67.2645, -166.555
4.40771, 2, -47.2523, -11.9897, 29.3595, 13.666, 67.2645, -166.555
4.41563, 2, -47.2522, -11.9897, 29.3595, 13.666, 67.2645, -166.555
4.42365, 2, -47.252, -11.9897, 29.3595, 13.666, 67.2645, -166.555
4.43171, 2, -47.2519, -11.9897, 29.3595, 13.666, 67.2646, -166.555
4.43963, 2, -47.2519, -11.9897, 29.3595, 13.666, 67.2646, -166.555
4.44764, 2, -47.2518, -11.9897, 29.3595, 13.666, 67.2646, -166.555
4.45571, 2, -47.2517, -11.9898, 29.3595, 13.666, 67.2646, -166.555
4.46381, 2, -47.2517, -11.9898, 29.3595, 13.666, 67.2646, -166.555
4.47168, 2, -47.2516, -11.9897, 29.3595, 13.666, 67.2646, -166.555
4.47979, 2, -47.2515, -11.9897, 29.3595, 13.666, 67.2646, -166.555
4.48774, 2, -47.2515, -11.9897, 29.3595, 13.666, 67.2646, -166.555
4.49578, 2, -47.2514, -11.9897, 29.3595, 13.666, 67.2646, -166.555
4.50381, 2, -47.2513, -11.9896, 29.3595, 13.666, 67.2646, -166.555
4.51174, 2, -47.2512, -11.9895, 29.3595, 13.666, 67.2647, -166.555
4.51965, 2, -47.251, -11.9895, 29.3595, 13.666, 67.2646, -166.555
4.5278, 2, -47.251, -11.9895, 29.3595, 13.666, 67.2647, -166.555
4.53566, 2, -47.2509, -11.9895, 29.3595, 13.666, 67.2646, -166.555
4.54367, 2, -47.2508, -11.9895, 29.3595, 13.666, 67.2646, -166.555
4.55185, 2, -47.2507, -11.9895, 29.3595, 13.6659, 67.2646, -166.555
4.55978, 2, -47.2506, -11.9895, 29.3595, 13.666, 67.2646, -166.555
4.56788, 2, -47.2505, -11.9895, 29.3595, 13.666, 67.2646, -166.555
4.57607, 2, -47.2504, -11.9895, 29.3595, 13.666, 67.2647, -166.555
4.58266, 2, -47.2503, -11.9894, 29.3595, 13.666, 67.2647, -166.555
4.59209, 2, -47.2501, -11.9894, 29.3595, 13.666, 67.2647, -166.555
4.59863, 2, -47.25, -11.9894, 29.3595, 13.666, 67.2647, -166.555
4.60814, 2, -47.2499, -11.9893, 29.3595, 13.6659, 67.2647, -166.555
4.61617, 2, -47.2498, -11.9892, 29.3595, 13.666, 67.2647, -166.555
4.62436, 2, -47.2497, -11.9891, 29.3595, 13.666, 67.2647, -166.555
4.63223, 2, -47.2496, -11.9891, 29.3595, 13.6659, 67.2647, -166.555
4.64017, 2, -47.2496, -11.9891, 29.3595, 13.6659, 67.2647, -166.555
4.64838, 2, -47.2495, -11.9891, 29.3595, 13.6659, 67.2647, -166.555
4.65562, 2, -47.2495, -11.9891, 29.3595, 13.6659, 67.2647, -166.555
4.66366, 2, -47.2494, -11.9891, 29.3595, 13.6659, 67.2647, -166.555
4.67167, 2, -47.2493, -11.9891, 29.3595, 13.6659, 67.2647, -166.555
4.67961, 2, -47.2493, -11.9891, 29.3595, 13.6659, 67.2647, -166.555
4.68764, 2, -47.2492, -11.9891, 29.3595, 13.6658, 67.2647, -166.555
4.69567, 2, -47.2492, -11.9891, 29.3595, 13.6659, 67.2647, -166.555
4.70362, 2, -47.2491, -11.989, 29.3595, 13.6659, 67.2647, -166.555
4.71162, 2, -47.2491, -11.9889, 29.3595, 13.6659, 67.2647, -166.555
4.71967, 2, -47.249, -11.9889, 29.3595, 13.6659, 67.2647, -166.555
4.72763, 2, -47.2489, -11.9888, 29.3595, 13.6659, 67.2647, -166.555
4.73561, 2, -47.2488, -11.9888, 29.3595, 13.6659, 67.2647, -166.555
4.74368, 2, -47.2488, -11.9887, 29.3595, 13.6658, 67.2647, -166.555
4.75161, 2, -47.2487, -11.9887, 29.3595, 13.6658, 67.2647, -166.555
4.75963, 2, -47.2487, -11.9887, 29.3595, 13.6658, 67.2647, -166.555
4.76768, 2, -47.2487, -11.9887, 29.3595, 13.6658, 67.2647, -166.555
4.7757, 2, -47.2486, -11.9887, 29.3595, 13.6658, 67.2647, -166.555
4.78362, 2, -47.2486, -11.9887, 29.3595, 13.6657, 67.2648, -166.555
4.79168, 2, -47.2485, -11.9887, 29.3595, 13.6658, 67.2648, -166.555
4.79965, 2, -47.2485, -11.9886, 29.3595, 13.6657, 67.2647, -166.555
4.80862, 2, -47.2485, -11.9886, 29.3595, 13.6657, 67.2648, -166.555
4.81568, 2, -47.2484, -11.9885, 29.3595, 13.6657, 67.2648, -166.555
4.82362, 2, -47.2483, -11.9884, 29.3595, 13.6657, 67.2648, -166.555
4.83165, 2, -47.2482, -11.9884, 29.3595, 13.6657, 67.2647, -166.554
4.83969, 2, -47.2481, -11.9883, 29.3595, 13.6657, 67.2647, -166.554
4.84763, 2, -47.2481, -11.9883, 29.3595, 13.6657, 67.2647, -166.554
4.85563, 2, -47.248, -11.9883, 29.3595, 13.6657, 67.2647, -166.554
4.86369, 2, -47.2479, -11.9883, 29.3595, 13.6657, 67.2648, -166.554
4.87161, 2, -47.2479, -11.9883, 29.3595, 13.6656, 67.2648, -166.554
4.87961, 2, -47.2479, -11.9883, 29.3595, 13.6656, 67.2648, -166.554
4.88769, 2, -47.2479, -11.9883, 29.3595, 13.6656, 67.2648, -166.554
4.89562, 2, -47.2478, -11.9882, 29.3595, 13.6657, 67.2648, -166.554
4.90362, 2, -47.2478, -11.9882, 29.3595, 13.6656, 67.2648, -166.554
4.91168, 2, -47.2478, -11.9882, 29.3595, 13.6656, 67.2648, -166.554
4.91961, 2, -47.2477, -11.9881, 29.3595, 13.6656, 67.2648, -166.554
4.92764, 2, -47.2476, -11.988, 29.3595, 13.6656, 67.2648, -166.554
4.93568, 2, -47.2475, -11.9879, 29.3595, 13.6656, 67.2649, -166.554
4.94362, 2, -47.2474, -11.9879, 29.3595, 13.6656, 67.2649, -166.554
4.95161, 2, -47.2473, -11.9879, 29.3595, 13.6655, 67.265, -166.554
4.95969, 2, -47.2473, -11.9879, 29.3595, 13.6656, 67.265, -166.554
4.96769, 2, -47.2472, -11.9879, 29.3595, 13.6655, 67.265, -166.554
4.97568, 2, -47.2472, -11.9879, 29.3595, 13.6655, 67.265, -166.554
4.98385, 2, -47.2472, -11.9878, 29.3595, 13.6655, 67.265, -166.554
4.99172, 2, -47.2472, -11.9878, 29.3595, 13.6655, 67.265, -166.554
4.99976, 2, -47.2471, -11.9878, 29.3595, 13.6655, 67.265, -166.554
5.0078, 2, -47.2471, -11.9878, 29.3595, 13.6655, 67.265, -166.554
5.01573, 2, -47.2471, -11.9877, 29.3595, 13.6655, 67.265, -166.554
5.02364, 2, -47.247, -11.9877, 29.3595, 13.6655, 67.265, -166.554
5.03172, 2, -47.2469, -11.9876, 29.3595, 13.6655, 67.2651, -166.554
5.03964, 2, -47.2468, -11.9875, 29.3595, 13.6655, 67.265, -166.554
5.04765, 2, -47.2467, -11.9875, 29.3595, 13.6655, 67.2651, -166.554
5.05612, 2, -47.2466, -11.9875, 29.3595, 13.6654, 67.265, -166.554
5.06484, 2, -47.2466, -11.9875, 29.3595, 13.6654, 67.265, -166.554
5.07188, 2, -47.2465, -11.9875, 29.3595, 13.6654, 67.265, -166.554
5.07994, 2, -47.2465, -11.9875, 29.3595, 13.6654, 67.265, -166.554
5.08664, 2, -47.2465, -11.9875, 29.3595, 13.6654, 67.265, -166.554
5.09607, 2, -47.2465, -11.9875, 29.3595, 13.6654, 67.2651, -166.554
5.10262, 2, -47.2464, -11.9874, 29.3595, 13.6654, 67.2651, -166.554
5.11294, 2, -47.2464, -11.9874, 29.3595, 13.6654, 67.2651, -166.554
5.12017, 2, -47.2463, -11.9873, 29.3595, 13.6653, 67.2651, -166.554
5.12822, 2, -47.2463, -11.9873, 29.3595, 13.6653, 67.2651, -166.554
5.1365, 4, -47.2462, -11.9873, 29.3595, 13.6653, 67.2651, -166.554
5.14413, 4, -47.2462, -11.9872, 29.3595, 13.6653, 67.2651, -166.554
5.15219, 4, -47.2462, -11.9872, 29.3595, 13.6653, 67.2651, -166.554
5.1596, 4, -47.2461, -11.9872, 29.3595, 13.6652, 67.2652, -166.554
5.16765, 4, -47.246, -11.9871, 29.3595, 13.6652, 67.2652, -166.554
5.17649, 4, -47.2459, -11.9871, 29.3595, 13.6652, 67.2652, -166.554
5.1836, 4, -47.2459, -11.9871, 29.3595, 13.6652, 67.2652, -166.554
5.19163, 4, -47.2459, -11.9871, 29.3595, 13.6651, 67.2652, -166.554
5.19966, 4, -47.2458, -11.9871, 29.3595, 13.6652, 67.2652, -166.554
5.20761, 4, -47.2458, -11.9871, 29.3595, 13.6652, 67.2652, -166.554
5.2156, 4, -47.2458, -11.987, 29.3595, 13.6652, 67.2652, -166.554
5.22365, 4, -47.2457, -11.987, 29.3595, 13.6651, 67.2652, -166.554
5.2316, 4, -47.2457, -11.9869, 29.3595, 13.6651, 67.2652, -166.553
5.23975, 4, -47.2457, -11.9869, 29.3595, 13.6651, 67.2652, -166.553
5.25377, 4, -47.2455, -11.9868, 29.3595, 13.6651, 67.2652, -166.553
5.25582, 4, -47.2455, -11.9868, 29.3595, 13.6651, 67.2652, -166.553
5.26383, 4, -47.2455, -11.9868, 29.3595, 13.6651, 67.2653, -166.553
5.27225, 4, -47.2454, -11.9868, 29.3595, 13.6651, 67.2653, -166.553
5.27979, 4, -47.2454, -11.9868, 29.3595, 13.6651, 67.2653, -166.553
5.28775, 4, -47.2454, -11.9868, 29.3595, 13.6651, 67.2653, -166.553
5.29583, 4, -47.2453, -11.9868, 29.3595, 13.665, 67.2653, -166.553
5.30383, 4, -47.2453, -11.9868, 29.3595, 13.665, 67.2653, -166.553
5.31435, 4, -47.2452, -11.9867, 29.3595, 13.665, 67.2653, -166.553
5.31988, 4, -47.2452, -11.9867, 29.3595, 13.665, 67.2653, -166.553
5.33367, 4, -47.2452, -11.9866, 29.3595, 13.6649, 67.2653, -166.553
5.33589, 4, -47.2452, -11.9866, 29.3595, 13.6649, 67.2653, -166.553
5.34667, 4, -47.2451, -11.9866, 29.3595, 13.6649, 67.2653, -166.553
5.35181, 4, -47.2451, -11.9865, 29.3595, 13.6649, 67.2653, -166.553
5.35982, 4, -47.245, -11.9865, 29.3595, 13.6649, 67.2653, -166.553
5.37151, 4, -47.245, -11.9865, 29.3595, 13.6649, 67.2654, -166.553
5.37667, 4, -47.2449, -11.9865, 29.3595, 13.665, 67.2653, -166.553
5.38377, 4, -47.2449, -11.9865, 29.3595, 13.6649, 67.2653, -166.553
5.39344, 4, -47.2449, -11.9864, 29.3595, 13.6649, 67.2654, -166.553
5.40302, 4, -47.2449, -11.9865, 29.3595, 13.6649, 67.2654, -166.553
5.40887, 4, -47.245, -11.9865, 29.3595, 13.6649, 67.2654, -166.553
5.41864, 4, -47.2469, -11.9876, 29.3605, 13.6654, 67.2656, -166.553
5.42385, 4, -47.2482, -11.9887, 29.3617, 13.6666, 67.266, -166.553
5.43349, 4, -47.2524, -11.9932, 29.3672, 13.6763, 67.2683, -166.552
5.43981, 4, -47.2595, -12.0021, 29.3798, 13.7012, 67.2747, -166.547
5.44965, 4, -47.271, -12.0173, 29.4044, 13.75, 67.2883, -166.536
5.45584, 5, -47.289, -12.0416, 29.447, 13.8377, 67.3128, -166.517
5.46543, 5, -47.3158, -12.0771, 29.5138, 13.9775, 67.3523, -166.485
5.47276, 5, -47.353, -12.1254, 29.6112, 14.1844, 67.4092, -166.437
5.48117, 5, -47.4026, -12.1881, 29.7435, 14.4695, 67.488, -166.372
5.48786, 5, -47.4649, -12.2658, 29.9131, 14.8383, 67.5878, -166.287
5.49623, 5, -47.5398, -12.3588, 30.1215, 15.2904, 67.7093, -166.183
5.50742, 5, -47.6742, -12.5251, 30.5016, 16.106, 67.9251, -165.998
5.5123, 5, -47.7243, -12.587, 30.644, 16.4076, 68.0042, -165.93
5.52395, 5, -47.8309, -12.7192, 30.9492, 17.045, 68.1689, -165.715
5.52788, 5, -47.9445, -12.8608, 31.2751, 17.7149, 68.3392, -165.641
5.53692, 5, -48.0629, -13.0093, 31.6161, 18.4024, 68.5108, -165.491
5.54405, 5, -48.1835, -13.1618, 31.9658, 19.0976, 68.681, -165.343
5.55202, 5, -48.3036, -13.315, 32.32, 19.7901, 68.8481, -165.196
5.56088, 5, -48.4197, -13.4658, 32.6743, 20.4693, 69.0111, -165.046
5.56823, 5, -48.5275, -13.6117, 33.0239, 21.1253, 69.1709, -164.886
5.57654, 6, -48.6229, -13.7486, 33.3625, 21.7456, 69.3293, -164.704
5.58435, 6, -48.7015, -13.8749, 33.6853, 22.3221, 69.4884, -164.487
5.59389, 7, -48.7603, -13.9914, 33.9888, 22.8495, 69.6513, -164.219
5.60053, 7, -48.7975, -14.0988, 34.2719, 23.3276, 69.8205, -163.889
5.60865, 7, -48.8141, -14.1966, 34.5343, 23.7633, 69.9995, -163.488
5.61655, 8, -48.811, -14.2843, 34.7793, 24.1664, 70.1912, -163.017
5.62456, 9, -48.7897, -14.3643, 35.0108, 24.547, 70.3963, -162.48
5.63248, 9, -48.7532, -14.4396, 35.2327, 24.9163, 70.615, -161.89
5.64075, 10, -48.705, -14.5105, 35.4505, 25.2815, 70.8445, -161.261
5.65071, 10, -48.6481, -14.5768, 35.668, 25.6477, 71.0823, -160.607
5.65656, 10, -48.6167, -14.6398, 35.8864, 26.017, 71.3255, -159.94
5.665, 11, -48.5124, -14.7024, 36.1073, 26.39, 71.5707, -159.269
5.67384, 12, -48.4367, -14.7653, 36.3295, 26.7678, 71.8164, -158.602
5.67968, 12, -48.3979, -14.7967, 36.44, 26.9587, 71.9393, -158.269
5.6931, 13, -48.2378, -14.9226, 36.8755, 27.7365, 72.4326, -156.941
5.69575, 13, -48.2378, -14.9226, 36.8755, 27.7365, 72.4326, -156.941
5.70523, 14, -48.1108, -15.0174, 37.193, 28.3328, 72.8049, -155.95
5.71175, 14, -48.0671, -15.0489, 37.2969, 28.5331, 72.929, -155.62
5.71979, 14, -47.9777, -15.1111, 37.5029, 28.9348, 73.1767, -154.963
5.73565, 15, -47.8379, -15.202, 37.8061, 29.5379, 73.666, -153.659
5.73835, 16, -47.7397, -15.2609, 38.0047, 29.9383, 73.7867, -153.335
5.74593, 16, -47.6364, -15.3198, 38.2016, 30.3373, 74.0262, -152.691
5.75223, 16, -47.5826, -15.3496, 38.299, 30.5363, 74.1449, -152.37
5.75976, 17, -47.4709, -15.4104, 38.4913, 30.9334, 74.3804, -151.733
5.77014, 18, -47.2938, -15.5037, 38.7747, 31.526, 74.7271, -150.784
5.77822, 18, -47.2321, -15.5352, 38.961, 31.9183, 74.9532, -150.159
5.78385, 19, -47.105, -15.5991, 39.053, 32.1136, 75.0644, -149.849
5.79181, 19, -46.9726, -15.6651, 39.2353, 32.5028, 75.2831, -149.235
5.79974, 19, -46.8351, -15.7334, 39.4164, 32.8895, 75.4961, -148.628
5.81104, 20, -46.6203, -15.8393, 39.6852, 33.4646, 75.8049, -147.733
5.81576, 20, -46.5464, -15.8758, 39.7735, 33.6551, 75.905, -147.439
5.82651, 21, -46.3949, -15.9512, 39.9486, 34.0343, 76.1969, -146.566
5.83175, 21, -46.2385, -16.0298, 40.1221, 34.4111, 76.2914, -146.279
5.84277, 22, -46.0765, -16.1522, 40.3785, 34.9711, 76.5666, -145.43
5.84777, 22, -45.9087, -16.1939, 40.4624, 35.156, 76.6557, -145.15
5.85974, 23, -45.6455, -16.3221, 40.7102, 35.7045, 76.9143, -144.318
5.86376, 23, -45.5544, -16.3657, 40.7915, 35.8852, 76.9979, -144.044
5.87234, 24, -45.3674, -16.4541, 40.9512, 36.2427, 77.1609, -143.499
5.87978, 25, -45.1738, -16.5438, 41.1063, 36.5944, 77.3187, -142.96
5.88775, 25, -44.9737, -16.6345, 41.2571, 36.9397, 77.4717, -142.423
5.89879, 26, -44.6611, -16.7721, 41.4749, 37.4453, 77.6926, -141.624
5.90374, 26, -44.5536, -16.8182, 41.545, 37.6102, 77.764, -141.359
5.91279, 27, -44.3331, -16.9104, 41.6808, 37.9345, 77.9039, -140.831
5.91974, 27, -44.1057, -17.0022, 41.8109, 38.2512, 78.0394, -140.305
5.93072, 28, -43.752, -17.1385, 41.9946, 38.7107, 78.2357, -139.518
5.93516, 28, -43.6309, -17.1834, 42.0526, 38.8597, 78.2992, -139.256
5.94475, 28, -43.3836, -17.2723, 42.1635, 39.1514, 78.4238, -138.733
5.95275, 29, -43.13, -17.3597, 42.2676, 39.4347, 78.5456, -138.21
5.95999, 29, -42.8695, -17.4455, 42.3645, 39.7097, 78.6636, -137.688
5.96775, 30, -42.6009, -17.5293, 42.4542, 39.976, 78.7789, -137.166
5.97581, 30, -42.3234, -17.6109, 42.5367, 40.234, 78.8912, -136.645
5.98494, 31, -42.0374, -17.6899, 42.6121, 40.4834, 79.0006, -136.125
5.99187, 32, -41.7438, -17.7666, 42.6804, 40.7241, 79.1076, -135.605
6.00151, 32, -41.4435, -17.8409, 42.7421, 40.9565, 79.2117, -135.086
6.00792, 33, -41.1369, -17.9126, 42.7968, 41.1807, 79.3134, -134.567
6.01616, 33, -40.8238, -17.9812, 42.8443, 41.3969, 79.4128, -134.051
6.02394, 34, -40.5041, -18.0465, 42.8846, 41.6048, 79.5093, -133.534
6.03196, 34, -40.1795, -18.1093, 42.9176, 41.8045, 79.6031, -133.018
6.04249, 35, -39.8503, -18.1693, 42.9433, 41.9963, 79.6946, -132.504
6.04795, 35, -39.5153, -18.226, 42.9619, 42.1807, 79.7833, -131.991
6.05706, 36, -39.1736, -18.2793, 42.9735, 42.3574, 79.87, -131.479
6.0686, 36, -38.8244, -18.3529, 42.9782, 42.608, 79.9959, -130.713
6.07491, 37, -38.4681, -18.3758, 42.9764, 42.6878, 80.0368, -130.459
6.08043, 37, -38.106, -18.419, 42.9677, 42.8416, 80.1168, -129.951
6.08916, 38, -37.7382, -18.4585, 42.952, 42.9879, 80.1952, -129.445
6.09633, 38, -37.3655, -18.4945, 42.9298, 43.127, 80.2712, -128.94
6.10444, 39, -36.9883, -18.5272, 42.9008, 43.2585, 80.3454, -128.437
6.11462, 39, -36.6066, -18.5563, 42.8651, 43.3826, 80.4169, -127.936
6.1206, 40, -36.2201, -18.5817, 42.8227, 43.4995, 80.4872, -127.437
6.12881, 40, -35.8277, -18.6033, 42.7739, 43.6091, 80.5552, -126.94
6.13694, 41, -35.4295, -18.6209, 42.7184, 43.7117, 80.6217, -126.444
6.14672, 41, -35.0257, -18.6347, 42.6565, 43.8065, 80.6854, -125.95
6.15243, 42, -34.6171, -18.645, 42.5881, 43.8949, 80.7482, -125.46
6.16159, 42, -34.2052, -18.652, 42.5132, 43.9757, 80.808, -124.971
6.17062, 43, -33.7901, -18.6559, 42.4322, 44.0497, 80.8668, -124.484
6.17771, 43, -33.371, -18.6565, 42.3452, 44.1162, 80.9236, -124
6.18378, 44, -33.1594, -18.6555, 42.2995, 44.1471, 80.9509, -123.758
6.19172, 44, -32.7317, -18.6505, 42.2039, 44.2032, 81.0055, -123.278
6.19986, 45, -32.2974, -18.6418, 42.1025, 44.2516, 81.0584, -122.799
6.20779, 45, -31.8572, -18.6293, 41.9951, 44.2933, 81.1088, -122.323
6.21806, 46, -31.1896, -18.604, 41.8228, 44.3417, 81.1829, -121.613
6.22656, 46, -30.7421, -18.5829, 41.7005, 44.3641, 81.2291, -121.143
6.23176, 47, -30.5174, -18.5709, 41.6371, 44.3724, 81.2516, -120.909
6.23974, 47, -30.0649, -18.5438, 41.5061, 44.3835, 81.2966, -120.442
6.24782, 48, -29.6069, -18.5121, 41.3691, 44.3878, 81.3404, -119.978
6.25573, 48, -29.1423, -18.4761, 41.2261, 44.3845, 81.3826, -119.515
6.26694, 49, -28.4344, -18.4139, 41.0003, 44.3628, 81.4452, -118.824
6.27178, 49, -28.1963, -18.391, 40.9221, 44.3514, 81.4661, -118.594
6.28052, 50, -27.7187, -18.3419, 40.7611, 44.3209, 81.5069, -118.136
6.28771, 50, -27.2385, -18.2881, 40.5936, 44.2806, 81.5474, -117.679
6.29585, 51, -26.7538, -18.2288, 40.4194, 44.2319, 81.5893, -117.222
6.30378, 51, -26.2617, -18.1639, 40.2389, 44.1733, 81.6318, -116.767
6.31444, 52, -25.5096, -18.0562, 39.9551, 44.0669, 81.6957, -116.086
6.31978, 52, -25.2564, -18.0176, 39.8566, 44.0263, 81.7176, -115.859
6.32804, 53, -24.7483, -17.9366, 39.6551, 43.9371, 81.7624, -115.406
6.33577, 53, -24.2383, -17.85, 39.4476, 43.8381, 81.8071, -114.953
6.34474, 54, -23.724, -17.7574, 39.2322, 43.7289, 81.8528, -114.501
6.35176, 54, -23.2028, -17.6585, 39.0095, 43.6092, 81.9011, -114.05
6.36251, 55, -22.4055, -17.4986, 38.663, 43.4091, 81.9761, -113.372
6.3678, 55, -22.1367, -17.4422, 38.5435, 43.3366, 82.0024, -113.146
6.37889, 56, -21.3263, -17.264, 38.1754, 43.1013, 82.0849, -112.468
6.38697, 56, -20.7825, -17.1381, 37.9215, 42.9302, 82.1412, -112.018
6.39236, 57, -20.5084, -17.0731, 37.7918, 42.8402, 82.1705, -111.792
6.39979, 57, -19.953, -16.939, 37.5279, 42.6517, 82.2302, -111.341
6.40777, 58, -19.3887, -16.7995, 37.2573, 42.4512, 82.291, -110.891
6.41736, 58, -18.8183, -16.6542, 36.9803, 42.2383, 82.3545, -110.441
6.4238, 59, -18.2453, -16.503, 36.6976, 42.0135, 82.4186, -109.992
6.43233, 59, -17.6696, -16.3466, 36.4083, 41.7766, 82.4858, -109.543
6.43977, 60, -17.0874, -16.1856, 36.1133, 41.5274, 82.5541, -109.094
6.44789, 60, -16.495, -16.0196, 35.8122, 41.2655, 82.6253, -108.646
6.45733, 61, -15.8941, -15.848, 35.5058, 40.9901, 82.6981, -108.197
6.468, 61, -14.9848, -15.5816, 35.0345, 40.5513, 82.8119, -107.524
6.47175, 62, -14.6802, -15.4906, 34.8745, 40.3985, 82.851, -107.3
6.4809, 62, -14.0657, -15.3051, 34.5496, 40.0824, 82.9318, -106.851
6.48872, 63, -13.4409, -15.1135, 34.2197, 39.7526, 83.0151, -106.402
6.49679, 63, -12.8064, -14.9148, 33.8843, 39.4078, 83.1017, -105.952
6.50388, 64, -12.1661, -14.7106, 33.5439, 39.0482, 83.1919, -105.502
6.51199, 64, -11.5222, -14.5014, 33.1975, 38.6739, 83.2856, -105.05
6.52145, 65, -10.8715, -14.285, 32.845, 38.285, 83.3837, -104.597
6.52874, 65, -10.2099, -14.0614, 32.4863, 37.8809, 83.4866, -104.143
6.53836, 66, -9.53883, -13.8319, 32.1232, 37.4606, 83.5942, -103.686
6.54473, 66, -8.86072, -13.5966, 31.7555, 37.025, 83.7073, -103.228
6.55377, 67, -8.17773, -13.3541, 31.3826, 36.5738, 83.8257, -102.768
6.56073, 67, -7.48684, -13.1044, 31.0036, 36.1075, 83.9498, -102.306
6.56803, 68, -6.78564, -12.8466, 30.6199, 35.6254, 84.0803, -101.842
6.57851, 68, -6.07576, -12.5815, 30.2326, 35.1278, 84.2172, -101.375
6.58673, 69, -5.35908, -12.31, 29.8405, 34.615, 84.3614, -100.906
6.59293, 69, -4.63552, -12.0302, 29.4433, 34.0855, 84.5127, -100.434
6.60166, 70, -3.90341, -11.7433, 29.0422, 33.5414, 84.6717, -99.9598
6.61331, 70, -3.16276, -11.4499, 28.6389, 32.9808, 84.8382, -99.2428
6.61648, 71, -2.41525, -11.1492, 28.2338, 32.4059, 85.0116, -99.003
6.62818, 71, -1.66104, -10.6852, 27.6229, 31.5201, 85.2843, -98.2804
6.63259, 71, -0.900312, -10.5271, 27.4191, 31.219, 85.3785, -98.0383
6.64225, 72, -0.13351, -10.2062, 27.0119, 30.6063, 85.572, -97.5528
6.64855, 72, 0.639096, -9.87727, 26.6053, 29.9836, 85.7724, -97.065
6.65716, 73, 1.02765, -9.70931, 26.4022, 29.6684, 85.98, -96.5758
6.66457, 73, 2.20243, -9.19489, 25.7925, 28.7053, 86.1966, -96.0843
6.67375, 74, 2.99153, -8.84557, 25.386, 28.0491, 86.4226, -95.5901
6.68292, 75, 3.7842, -8.49135, 24.9812, 27.3822, 86.6575, -95.0935
6.69018, 75, 4.58032, -8.12973, 24.5782, 26.7078, 86.9003, -94.5955
6.69752, 76, 4.97921, -7.9464, 24.1789, 26.0304, 87.1506, -94.0959
6.7077, 76, 6.17681, -7.38536, 23.7844, 25.3488, 87.4073, -93.5938
6.71196, 77, 6.5762, -7.19499, 23.5894, 25.0077, 87.5384, -93.342
6.72561, 77, 8.17721, -6.41298, 22.8218, 23.6434, 88.0819, -92.3285
6.73865, 78, 9.38096, -5.8056, 22.2594, 22.6158, 88.5134, -91.5609
6.73989, 78, 9.38096, -5.8056, 22.2594, 22.6158, 88.5134, -91.5609
6.74384, 79, 9.78247, -5.59907, 22.0745, 22.2724, 88.6625, -91.303
6.75156, 79, 10.5854, -5.17915, 21.7078, 21.5848, 88.9685, -90.7842
6.75977, 80, 11.3866, -4.75043, 21.3455, 20.8983, 89.2856, -90.2614
6.76764, 80, 12.1843, -4.31188, 20.9882, 20.2116, 89.6134, -89.7345
6.77578, 81, 12.9772, -3.86258, 20.6359, 19.529, 89.9522, -89.2023
6.7836, 81, 13.7662, -3.40328, 20.2884, 18.8534, 90.3017, -88.6656
6.79254, 82, 14.549, -2.93573, 19.9458, 18.1866, 90.6617, -88.124
6.79962, 82, 15.3228, -2.45959, 19.6096, 17.5288, 91.0316, -87.5788
6.80855, 83, 16.0866, -1.97509, 19.28, 16.8822, 91.4116, -87.0291
6.8156, 83, 16.84, -1.48255, 18.9576, 16.2505, 91.7998, -86.4761
6.82361, 83, 17.5807, -0.983241, 18.6428, 15.6358, 92.196, -85.9209
6.83391, 84, 18.6588, -0.226464, 18.1873, 14.7491, 92.8023, -85.0878
6.83959, 84, 19.0091, 0.0279778, 18.0401, 14.4649, 93.0072, -84.8099
6.84861, 85, 19.6975, 0.542208, 17.7521, 13.9142, 93.4207, -84.2556
6.85556, 85, 20.3699, 1.0626, 17.4733, 13.3883, 93.8388, -83.7033
6.86361, 86, 21.026, 1.58687, 17.2021, 12.887, 94.2597, -83.1537
6.87157, 86, 21.6666, 2.11523, 16.939, 12.4087, 94.6844, -82.6042
6.87963, 87, 22.2937, 2.65043, 16.6831, 11.9536, 95.1138, -82.0538
6.88755, 87, 22.9089, 3.19446, 16.4324, 11.5193, 95.5492, -81.5004
6.89582, 88, 23.5131, 3.74714, 16.1865, 11.104, 95.9907, -80.9428
6.90363, 88, 24.1056, 4.30691, 15.9442, 10.7056, 96.4384, -80.3771
6.91155, 88, 24.686, 4.87558, 15.7067, 10.3233, 96.8922, -79.8025
6.91958, 89, 25.2541, 5.4546, 15.4753, 9.95611, 97.3529, -79.2174
6.92758, 89, 25.8125, 6.04359, 15.2472, 9.60489, 97.82, -78.6218
6.93565, 90, 26.3645, 6.64162, 15.0223, 9.26834, 98.2933, -78.013
6.94366, 90, 26.9073, 7.24766, 14.8022, 8.94829, 98.773, -77.3914
6.9516, 91, 27.4374, 7.86296, 14.5874, 8.64628, 99.259, -76.7579
6.95955, 91, 27.9549, 8.48852, 14.377, 8.36382, 99.7503, -76.1137
6.96762, 92, 28.4627, 9.1247, 14.1713, 8.10309, 100.246, -75.4586
6.97558, 92, 28.9629, 9.77044, 13.9706, 7.8649, 100.744, -74.7956
6.98373, 93, 29.4526, 10.4234, 13.7761, 7.64981, 101.244, -74.1262
6.99165, 93, 29.9291, 11.0815, 13.5898, 7.45856, 101.743, -73.4493
6.99971, 94, 30.3907, 11.7429, 13.4115, 7.29088, 102.24, -72.7665
7.00767, 94, 30.8376, 12.4069, 13.24, 7.14696, 102.735, -72.0797
7.01569, 95, 31.2704, 13.0723, 13.0759, 7.02694, 103.226, -71.3868
7.0238, 95, 31.6897, 13.7396, 12.9199, 6.93042, 103.714, -70.6882
7.03155, 96, 32.0949, 14.4079, 12.7707, 6.85766, 104.199, -69.9851
7.0396, 96, 32.4845, 15.0766, 12.6278, 6.80903, 104.679, -69.2762
7.04788, 97, 32.8576, 15.7451, 12.4919, 6.78173, 105.154, -68.5611
7.05663, 97, 33.2144, 16.4121, 12.3638, 6.77574, 105.624, -67.8427
7.06369, 98, 33.5562, 17.0767, 12.2444, 6.79215, 106.085, -67.1214
7.07285, 99, 33.884, 17.7368, 12.1338, 6.8289, 106.538, -66.3965
7.0798, 99, 34.1985, 18.3912, 12.0326, 6.8856, 106.981, -65.6724
7.08792, 99, 34.5013, 19.0383, 11.9405, 6.96139, 107.412, -64.9496
7.09606, 100, 34.7929, 19.6773, 11.857, 7.05436, 107.83, -64.2281
7.104, 100, 35.0726, 20.3066, 11.7821, 7.16464, 108.235, -63.5115
7.11211, 101, 35.3405, 20.925, 11.7153, 7.29009, 108.626, -62.8015
7.12009, 101, 35.5971, 21.5325, 11.657, 7.42976, 109.001, -62.0975
7.12815, 102, 35.8419, 22.1276, 11.6073, 7.58169, 109.359, -61.4038
7.13627, 102, 36.0742, 22.7097, 11.5661, 7.74444, 109.7, -60.7216
7.14441, 103, 36.2963, 23.2767, 11.5337, 7.91657, 110.023, -60.0504
7.15215, 103, 36.4045, 23.5543, 11.5207, 8.00599, 110.328, -59.3913
7.15956, 104, 36.6157, 24.0975, 11.5018, 8.1916, 110.474, -59.0671
7.16754, 104, 36.8192, 24.6245, 11.4917, 8.38624, 110.749, -58.4284
7.17554, 104, 37.0154, 25.1352, 11.4889, 8.59007, 111.005, -57.801
7.18368, 104, 37.2056, 25.6296, 11.4928, 8.80185, 111.24, -57.187
7.19153, 104, 37.3882, 26.1075, 11.5028, 9.02021, 111.455, -56.5869
7.19964, 104, 37.5616, 26.5689, 11.5167, 9.24312, 111.652, -56.0017
7.20761, 104, 37.7262, 27.0136, 11.5335, 9.46833, 111.834, -55.4332
7.21558, 104, 37.8847, 27.4431, 11.5531, 9.693, 112.002, -54.8842
7.22359, 104, 38.0385, 27.8564, 11.574, 9.91492, 112.158, -54.3579
7.23159, 104, 38.1869, 28.2529, 11.595, 10.1324, 112.306, -53.8539
7.23954, 104, 38.329, 28.6327, 11.6156, 10.3445, 112.446, -53.3734
7.24754, 104, 38.4642, 28.9956, 11.6348, 10.55, 112.577, -52.9173
7.25561, 104, 38.592, 29.3402, 11.653, 10.748, 112.701, -52.4855
7.26361, 104, 38.7116, 29.6663, 11.6701, 10.9375, 112.818, -52.0792
7.27154, 104, 38.8228, 29.973, 11.6859, 11.1183, 112.926, -51.6974
7.28111, 104, 38.9259, 30.2615, 11.7006, 11.2894, 113.075, -51.172
7.28754, 104, 39.0212, 30.5307, 11.7143, 11.4504, 113.12, -51.0098
7.29554, 104, 39.1089, 30.7798, 11.7268, 11.601, 113.207, -50.7042
7.30366, 104, 39.1886, 31.0097, 11.738, 11.7406, 113.285, -50.4235
7.31358, 104, 39.2934, 31.317, 11.7531, 11.9286, 113.39, -50.0501
7.31953, 104, 39.3245, 31.4096, 11.7577, 11.9853, 113.421, -49.9383
7.32761, 104, 39.381, 31.5803, 11.7663, 12.0902, 113.478, -49.7333
7.33554, 104, 39.4305, 31.7315, 11.7737, 12.1827, 113.528, -49.5534
7.34359, 104, 39.4737, 31.8639, 11.7805, 12.2633, 113.571, -49.3981
7.35164, 104, 39.5113, 31.9786, 11.7867, 12.3317, 113.607, -49.2666
7.35954, 104, 39.5427, 32.0765, 11.7922, 12.389, 113.637, -49.1586
7.36754, 104, 39.5686, 32.1584, 11.7971, 12.4341, 113.661, -49.0716
7.37562, 104, 39.5896, 32.2259, 11.8014, 12.4693, 113.679, -49.0042
7.38363, 104, 39.6061, 32.2808, 11.8054, 12.496, 113.692, -48.9544
7.39152, 104, 39.6187, 32.3245, 11.809, 12.5152, 113.702, -48.9191
7.3996, 104, 39.6284, 32.3579, 11.8122, 12.5286, 113.708, -48.8952
7.40759, 104, 39.6354, 32.3828, 11.8151, 12.5373, 113.711, -48.8802
7.41554, 104, 39.6402, 32.4015, 11.8176, 12.5425, 113.713, -48.8715
7.42366, 104, 39.6432, 32.4149, 11.8196, 12.5455, 113.714, -48.8672
7.4315, 105, 39.6448, 32.4235, 11.8211, 12.5469, 113.715, -48.8653
7.43954, 105, 39.6452, 32.4289, 11.8223, 12.5476, 113.715, -48.8645
7.44761, 105, 39.6447, 32.4324, 11.8233, 12.5479, 113.715, -48.8643
7.45555, 105, 39.6436, 32.4349, 11.8241, 12.5481, 113.715, -48.8644
7.46359, 105, 39.6425, 32.4367, 11.8248, 12.5482, 113.715, -48.8647
7.47161, 105, 39.6415, 32.4381, 11.8254, 12.5482, 113.715, -48.865
7.47957, 105, 39.6403, 32.4394, 11.826, 12.5483, 113.715, -48.8653
7.4876, 105, 39.6393, 32.4406, 11.8266, 12.5483, 113.715, -48.8657
7.49569, 105, 39.6387, 32.4417, 11.8271, 12.5483, 113.715, -48.866
7.50368, 105, 39.6383, 32.4428, 11.8277, 12.5483, 113.715, -48.8663
7.51164, 105, 39.638, 32.4438, 11.8283, 12.5483, 113.715, -48.8666
7.51973, 105, 39.6378, 32.4446, 11.8287, 12.5483, 113.715, -48.867
7.5276, 105, 39.6375, 32.4453, 11.8291, 12.5483, 113.715, -48.8673
7.53554, 105, 39.6372, 32.4458, 11.8294, 12.5483, 113.715, -48.8676
7.54381, 105, 39.6369, 32.446, 11.8297, 12.5483, 113.715, -48.8679
7.55193, 105, 39.6366, 32.4462, 11.8299, 12.5483, 113.715, -48.8681
