hehonglu123/Motion-Primitive-Planning/ILC/recorded_data/realrobot/from_NX/iteration_15/run_4.csv
timestamp, cmd_num, J1, J2, J3, J4, J5, J6
0.001426, -1, 39.63, 32.4471, 11.8319, 12.5453, 113.713, -48.8724
0.007632, -1, 39.63, 32.4471, 11.8319, 12.5453, 113.713, -48.8724
0.010265, -1, 39.63, 32.4471, 11.8319, 12.5453, 113.713, -48.8724
0.033557, -1, 39.63, 32.4471, 11.8319, 12.5453, 113.713, -48.8724
0.034931, -1, 39.63, 32.4471, 11.8319, 12.5453, 113.713, -48.8724
0.037635, -1, 39.6299, 32.4471, 11.8319, 12.5453, 113.713, -48.8724
0.039325, -1, 39.6299, 32.4471, 11.8319, 12.5453, 113.713, -48.8724
0.047445, -1, 39.6299, 32.4471, 11.8319, 12.5453, 113.713, -48.8724
0.055379, -1, 39.6298, 32.4471, 11.8319, 12.5453, 113.713, -48.8724
0.063372, -1, 39.6286, 32.4469, 11.8319, 12.5453, 113.713, -48.8723
0.071462, -1, 39.6248, 32.4461, 11.8318, 12.5453, 113.713, -48.8724
0.216487, -1, 37.9832, 31.6034, 12.1631, 12.5611, 112.84, -51.0967
0.217708, -1, 37.9832, 31.6034, 12.1631, 12.5611, 112.84, -51.0967
0.2199, -1, 37.8909, 31.5555, 12.1825, 12.5623, 112.789, -51.2254
0.22125, -1, 37.8909, 31.5555, 12.1825, 12.5623, 112.789, -51.2254
0.223115, -1, 37.7975, 31.5072, 12.2019, 12.5635, 112.738, -51.3544
0.22572, -1, 37.7975, 31.5072, 12.2019, 12.5635, 112.738, -51.3544
0.22775, -1, 37.7033, 31.4586, 12.2213, 12.5647, 112.687, -51.4838
0.231, -1, 37.7033, 31.4586, 12.2213, 12.5647, 112.687, -51.6134
0.232506, -1, 37.6084, 31.4098, 12.2407, 12.566, 112.636, -51.6134
0.233793, -1, 37.6084, 31.4098, 12.2407, 12.566, 112.636, -51.6134
0.23581, -1, 37.513, 31.3609, 12.2601, 12.5672, 112.585, -51.7431
0.237006, -1, 37.513, 31.3609, 12.2601, 12.5672, 112.585, -51.7431
0.238336, -1, 37.513, 31.3609, 12.2601, 12.5672, 112.585, -51.7431
0.241202, -1, 37.4173, 31.312, 12.2795, 12.5685, 112.533, -51.8728
0.242431, -1, 37.4173, 31.312, 12.2795, 12.5685, 112.533, -51.8728
0.245131, -1, 37.3214, 31.263, 12.2989, 12.5697, 112.482, -52.0026
0.246401, -1, 37.3214, 31.263, 12.2989, 12.5697, 112.482, -52.0026
0.248384, -1, 37.2254, 31.214, 12.3183, 12.5709, 112.431, -52.1325
0.250475, -1, 37.2254, 31.214, 12.3183, 12.5709, 112.431, -52.1325
0.252557, -1, 37.1293, 31.1651, 12.3377, 12.5721, 112.379, -52.2624
0.253791, -1, 37.1293, 31.1651, 12.3377, 12.5721, 112.379, -52.2624
0.255917, -1, 37.0332, 31.1162, 12.3571, 12.5734, 112.328, -52.3923
0.261474, -1, 36.9371, 31.0673, 12.3764, 12.5747, 112.276, -52.5224
0.264414, -1, 36.841, 31.0185, 12.3958, 12.576, 112.225, -52.6525
0.271573, -1, 36.6492, 30.9207, 12.4346, 12.5786, 112.122, -52.913
0.2798, -1, 36.4576, 30.823, 12.4735, 12.5811, 112.019, -53.1731
0.288443, -1, 36.2661, 30.7253, 12.5123, 12.5837, 111.916, -53.4336
0.295749, -1, 36.0745, 30.6274, 12.5512, 12.5862, 111.813, -53.694
0.303915, -1, 35.883, 30.5295, 12.5901, 12.5889, 111.71, -53.9548
0.312741, -1, 35.6913, 30.4314, 12.6291, 12.5914, 111.607, -54.2152
0.319929, -1, 35.4994, 30.3333, 12.6679, 12.594, 111.504, -54.4754
0.328814, -1, 35.3072, 30.235, 12.7067, 12.5966, 111.401, -54.7359
0.335978, -1, 35.1147, 30.1367, 12.7455, 12.5992, 111.298, -54.9966
0.34397, -1, 35.0185, 30.0875, 12.7845, 12.6018, 111.195, -55.2574
0.352969, -1, 34.7301, 29.9398, 12.8233, 12.6044, 111.092, -55.5179
0.360448, -1, 34.5378, 29.8413, 12.8622, 12.6069, 110.989, -55.7787
0.367367, -1, 34.4417, 29.7921, 12.8817, 12.6082, 110.937, -55.9091
0.377172, -1, 34.1536, 29.6445, 12.94, 12.6121, 110.783, -56.3006
0.383382, -1, 34.0576, 29.5954, 12.9595, 12.6134, 110.731, -56.4309
0.391365, -1, 33.8659, 29.4972, 12.9985, 12.6161, 110.628, -56.6916
0.401494, -1, 33.5781, 29.3496, 13.0568, 12.62, 110.473, -57.0831
0.407366, -1, 33.4821, 29.3005, 13.0762, 12.6213, 110.422, -57.2136
0.415368, -1, 33.2898, 29.2021, 13.1152, 12.6239, 110.319, -57.4747
0.425545, -1, 33.0007, 29.0541, 13.1735, 12.6279, 110.164, -57.8661
0.431365, -1, 32.9042, 29.0049, 13.1929, 12.6292, 110.113, -57.9966
0.439366, -1, 32.7111, 28.9063, 13.2319, 12.6319, 110.01, -58.2579
0.449749, -1, 32.4208, 28.7582, 13.2902, 12.6359, 109.855, -58.6496
0.455368, -1, 32.3239, 28.7089, 13.3096, 12.6372, 109.804, -58.7801
0.466109, -1, 32.0327, 28.5608, 13.368, 12.6413, 109.649, -59.1716
0.471435, -1, 31.9358, 28.5114, 13.3874, 12.6426, 109.597, -59.3022
0.479366, -1, 31.7421, 28.4125, 13.4263, 12.6453, 109.494, -59.5637
0.488378, -1, 31.5485, 28.3138, 13.4654, 12.6481, 109.391, -59.8249
0.495453, -1, 31.3552, 28.2152, 13.5043, 12.6509, 109.288, -60.0861
0.50448, -1, 31.1624, 28.1167, 13.5434, 12.6537, 109.185, -60.3475
0.511369, -1, 30.97, 28.0182, 13.5825, 12.6565, 109.082, -60.6091
0.519361, -1, 30.7778, 27.9197, 13.6214, 12.6593, 108.979, -60.8705
0.527441, -1, 30.5859, 27.8211, 13.6604, 12.6621, 108.876, -61.1318
0.667421, -1, 27.2057, 26.0917, 14.3426, 12.7068, 107.068, -65.7109
0.668661, -1, 27.2057, 26.0917, 14.3426, 12.7068, 107.068, -65.7109
0.669854, -1, 27.2057, 26.0917, 14.3426, 12.7068, 107.068, -65.7109
0.67188, -1, 27.1095, 26.0422, 14.362, 12.7079, 107.016, -65.8418
0.673186, -1, 27.1095, 26.0422, 14.362, 12.7079, 107.016, -65.8418
0.675228, -1, 27.0132, 25.9928, 14.3814, 12.7091, 106.964, -65.9726
0.676512, -1, 27.0132, 25.9928, 14.3814, 12.7091, 106.964, -65.9726
0.679781, -1, 26.9169, 25.9434, 14.4009, 12.7103, 106.913, -66.1035
0.681027, -1, 26.9169, 25.9434, 14.4009, 12.7103, 106.913, -66.1035
0.683009, -1, 26.8205, 25.894, 14.4204, 12.7114, 106.861, -66.2345
0.685242, -1, 26.8205, 25.894, 14.4204, 12.7114, 106.861, -66.2345
0.687238, -1, 26.724, 25.8445, 14.4399, 12.7125, 106.81, -66.3653
0.688533, -1, 26.724, 25.8445, 14.4399, 12.7125, 106.81, -66.3653
0.689756, -1, 26.724, 25.8445, 14.4399, 12.7125, 106.81, -66.3653
0.691795, -1, 26.6275, 25.795, 14.4594, 12.7137, 106.758, -66.496
0.696125, -1, 26.5307, 25.7456, 14.4788, 12.7148, 106.706, -66.6269
0.697398, -1, 26.5307, 25.7456, 14.4788, 12.7148, 106.706, -66.6269
0.699577, -1, 26.4339, 25.6962, 14.4982, 12.716, 106.655, -66.7578
0.701044, -1, 26.4339, 25.6962, 14.4982, 12.716, 106.655, -66.7578
0.703892, -1, 26.337, 25.6468, 14.5177, 12.7171, 106.603, -66.8887
0.70521, -1, 26.337, 25.6468, 14.5177, 12.7171, 106.603, -66.8887
0.707186, -1, 26.2401, 25.5974, 14.5372, 12.7182, 106.552, -67.0196
0.716423, -1, 26.0459, 25.4985, 14.5762, 12.7205, 106.448, -67.2816
0.719468, -1, 25.9488, 25.4491, 14.5957, 12.7217, 106.397, -67.4125
0.728008, -1, 25.7545, 25.3502, 14.6346, 12.7239, 106.294, -67.674
0.736428, -1, 25.5605, 25.2515, 14.6736, 12.7262, 106.191, -67.9355
0.743395, -1, 25.3665, 25.1528, 14.7125, 12.7285, 106.087, -68.1974
0.752356, -1, 25.173, 25.0541, 14.7515, 12.7308, 105.984, -68.4593
0.759478, -1, 24.9796, 24.9553, 14.7906, 12.7331, 105.881, -68.7209
0.767502, -1, 24.7865, 24.8565, 14.8296, 12.7355, 105.777, -68.9825
0.77639, -1, 24.5938, 24.7577, 14.8685, 12.7379, 105.674, -69.2442
0.783703, -1, 24.4014, 24.6587, 14.9075, 12.7403, 105.571, -69.5061
0.791732, -1, 24.209, 24.5598, 14.9466, 12.7428, 105.468, -69.7676
0.800786, -1, 24.0164, 24.461, 14.9855, 12.745, 105.364, -70.0291
0.80791, -1, 23.8236, 24.3621, 15.0245, 12.7474, 105.261, -70.2907
0.816451, -1, 23.6307, 24.2633, 15.0634, 12.7499, 105.158, -70.5525
0.824746, -1, 23.4374, 24.1644, 15.1023, 12.7522, 105.054, -70.8142
0.831948, -1, 23.2437, 24.0655, 15.1413, 12.7546, 104.951, -71.0759
0.84047, -1, 23.0499, 23.9666, 15.1801, 12.7571, 104.848, -71.3377
0.848872, -1, 22.9529, 23.9172, 15.1996, 12.7595, 104.744, -71.5995
0.855898, -1, 22.7588, 23.8183, 15.2385, 12.7607, 104.692, -71.7304
0.864377, -1, 22.4681, 23.6703, 15.297, 12.7644, 104.537, -72.1226
0.871347, -1, 22.3713, 23.621, 15.3165, 12.7657, 104.486, -72.2534
0.879357, -1, 22.1781, 23.5223, 15.3554, 12.7682, 104.382, -72.5147
0.888473, -1, 21.8884, 23.3742, 15.4138, 12.7721, 104.227, -72.9073
0.895347, -1, 21.7921, 23.3249, 15.4334, 12.7735, 104.176, -73.038
0.904769, -1, 21.5038, 23.1767, 15.4917, 12.7775, 104.021, -73.4299
0.912657, -1, 21.3115, 23.0779, 15.5307, 12.7801, 103.918, -73.6914
0.919392, -1, 21.2153, 23.0286, 15.5502, 12.7814, 103.866, -73.8223
0.927358, -1, 21.0229, 22.93, 15.5891, 12.7841, 103.763, -74.0838
0.936831, -1, 20.7343, 22.7821, 15.6475, 12.7882, 103.608, -74.4755
0.943346, -1, 20.638, 22.7328, 15.667, 12.7896, 103.557, -74.6061
0.952926, -1, 20.3485, 22.5848, 15.7252, 12.7937, 103.402, -74.998
0.960989, -1, 20.1548, 22.4861, 15.7642, 12.7964, 103.299, -75.2593
0.969118, -1, 19.9611, 22.3874, 15.8031, 12.7991, 103.196, -75.5204
0.97544, -1, 19.8643, 22.3381, 15.8224, 12.8004, 103.145, -75.651
0.98506, -1, 19.6706, 22.2394, 15.8612, 12.8032, 103.042, -76.0428
0.99134, -1, 19.4771, 22.1408, 15.9002, 12.8059, 102.939, -76.1734
0.999449, -1, 19.2839, 22.0422, 15.939, 12.8086, 102.836, -76.4345
1.0084, -1, 19.0911, 21.9435, 15.9779, 12.8114, 102.733, -76.6953
1.01535, -1, 18.8983, 21.8449, 16.0168, 12.8141, 102.63, -76.9562
1.02343, -1, 18.706, 21.7462, 16.0555, 12.8168, 102.527, -77.2172
1.03142, -1, 18.5141, 21.6475, 16.0944, 12.8196, 102.424, -77.4782
1.03941, -1, 18.3223, 21.549, 16.1333, 12.8222, 102.321, -77.7388
1.04735, -1, 18.1304, 21.4504, 16.1721, 12.8248, 102.218, -77.9995
1.05536, -1, 17.9385, 21.352, 16.211, 12.8273, 102.115, -78.2604
1.06341, -1, 17.7467, 21.2537, 16.2499, 12.8299, 102.012, -78.5211
1.07135, -1, 17.5544, 21.1553, 16.2887, 12.8324, 101.909, -78.7816
1.07936, -1, 17.3618, 21.057, 16.3276, 12.8349, 101.806, -79.0419
1.08741, -1, 17.1688, 20.9587, 16.3663, 12.8373, 101.703, -79.3025
1.09535, -1, 16.9758, 20.8604, 16.4051, 12.8397, 101.601, -79.5633
1.10335, -1, 16.7827, 20.7622, 16.444, 12.842, 101.498, -79.8237
1.11141, -1, 16.5896, 20.664, 16.4827, 12.8444, 101.395, -80.0842
1.11937, -1, 16.3967, 20.5658, 16.5214, 12.8467, 101.293, -80.3447
1.12735, -1, 16.2041, 20.4674, 16.5601, 12.849, 101.19, -80.6054
1.13542, -1, 16.0119, 20.3691, 16.5989, 12.8513, 101.087, -80.8656
1.14336, -1, 15.8201, 20.2706, 16.6376, 12.8536, 100.985, -81.1257
1.15137, -1, 15.6286, 20.1721, 16.6763, 12.856, 100.882, -81.3858
1.1594, -1, 15.4374, 20.0737, 16.7149, 12.8583, 100.779, -81.646
1.16753, -1, 15.2463, 19.9755, 16.7536, 12.8606, 100.677, -81.906
1.17554, -1, 15.0551, 19.8772, 16.7923, 12.8628, 100.574, -82.1657
1.18339, -1, 14.8639, 19.779, 16.831, 12.8651, 100.472, -82.4255
1.19219, -1, 14.6725, 19.6809, 16.8697, 12.8674, 100.369, -82.6855
1.1998, -1, 14.4808, 19.5827, 16.9084, 12.8697, 100.266, -82.9455
1.20744, -1, 14.2888, 19.4847, 16.9471, 12.872, 100.164, -83.2051
1.2162, -1, 14.0965, 19.3867, 16.9858, 12.8742, 100.061, -83.4645
1.22394, -1, 13.9041, 19.2887, 17.0245, 12.8765, 99.9585, -83.7241
1.2324, -1, 13.7115, 19.1909, 17.063, 12.8788, 99.8563, -83.9839
1.2402, -1, 13.5191, 19.0931, 17.1018, 12.8811, 99.7536, -84.2433
1.24814, -1, 13.3269, 18.9952, 17.1404, 12.8835, 99.6512, -84.5026
1.25541, -1, 13.1351, 18.8973, 17.1788, 12.8858, 99.5491, -84.762
1.26424, -1, 12.9437, 18.7993, 17.2175, 12.8882, 99.4465, -85.0214
1.27219, -1, 12.7526, 18.7013, 17.2561, 12.8905, 99.3442, -85.2805
1.27961, -1, 12.5617, 18.6034, 17.2946, 12.8929, 99.2421, -85.5394
1.28896, -1, 12.3714, 18.5057, 17.3332, 12.8953, 99.1396, -85.7983
1.29655, -1, 12.1813, 18.4079, 17.3717, 12.8977, 99.0374, -86.0574
1.30379, -1, 11.991, 18.3102, 17.4102, 12.9001, 98.9354, -86.3163
1.31383, -1, 11.8006, 18.2126, 17.4489, 12.9025, 98.8334, -86.5749
1.31987, -1, 11.61, 18.115, 17.4874, 12.905, 98.7316, -86.8335
1.32846, -1, 11.4191, 18.0173, 17.5259, 12.9074, 98.6297, -87.0921
1.33598, -1, 11.228, 17.9198, 17.5645, 12.9098, 98.5277, -87.3508
1.3445, -1, 11.0366, 17.8223, 17.603, 12.9123, 98.4259, -87.6091
1.35197, -1, 10.9408, 17.7736, 17.6223, 12.9148, 98.3239, -87.8673
1.36035, -1, 10.6533, 17.6274, 17.68, 12.9173, 98.2219, -88.1255
1.36741, -1, 10.5575, 17.5786, 17.6992, 12.9186, 98.1711, -88.2547
1.37533, -1, 10.3663, 17.4811, 17.7376, 12.9212, 98.0693, -88.513
1.38442, -1, 10.0799, 17.3348, 17.7952, 12.925, 97.9164, -88.8999
1.39136, -1, 9.98465, 17.286, 17.8144, 12.9264, 97.8656, -89.0289
1.39933, -1, 9.79435, 17.1884, 17.8527, 12.9289, 97.7636, -89.287
1.40875, -1, 9.50966, 17.0422, 17.9102, 12.9331, 97.6106, -89.6742
1.41535, -1, 9.41505, 16.9936, 17.9294, 12.9344, 97.5599, -89.8029
1.42335, -1, 9.22578, 16.8962, 17.9677, 12.9371, 97.4578, -90.0606
1.43285, -1, 8.94168, 16.7503, 18.0252, 12.9411, 97.3051, -90.4468
1.43935, -1, 8.84694, 16.7018, 18.0443, 12.9424, 97.2544, -90.5756
1.44893, -1, 8.56256, 16.556, 18.102, 12.9464, 97.1018, -90.9617
1.45696, -1, 8.3728, 16.459, 18.1403, 12.9491, 97.0004, -91.2189
1.46335, -1, 8.27773, 16.4105, 18.1595, 12.9504, 96.9497, -91.3475
1.47312, -1, 7.99203, 16.2651, 18.217, 12.9544, 96.7972, -91.7334
1.47934, -1, 7.89676, 16.2167, 18.2361, 12.9557, 96.7464, -91.8618
1.48834, -1, 7.70619, 16.1197, 18.2743, 12.9583, 96.6451, -92.1187
1.49538, -1, 7.51564, 16.0228, 18.3126, 12.9609, 96.5435, -92.3752
1.50437, -1, 7.32538, 15.9258, 18.3509, 12.9635, 96.4421, -92.6321
1.51136, -1, 7.13541, 15.8289, 18.389, 12.966, 96.341, -92.8891
1.51937, -1, 6.94578, 15.7318, 18.4273, 12.9686, 96.2396, -93.1455
1.52734, -1, 6.75658, 15.6349, 18.4655, 12.9711, 96.1387, -93.4019
1.53541, -1, 6.5679, 15.5381, 18.5034, 12.9736, 96.0378, -93.6582
1.54334, -1, 6.37963, 15.4413, 18.5416, 12.9761, 95.9368, -93.9147
1.55142, -1, 6.19147, 15.3446, 18.5798, 12.9787, 95.8358, -94.1709
1.55933, -1, 6.00335, 15.2479, 18.6179, 12.9811, 95.7348, -94.4268
1.56733, -1, 5.81497, 15.1513, 18.6561, 12.9834, 95.6338, -94.6827
1.5754, -1, 5.62653, 15.0546, 18.6943, 12.9858, 95.533, -94.9387
1.58334, -1, 5.43789, 14.9581, 18.7323, 12.9881, 95.4324, -95.1944
1.59134, -1, 5.24897, 14.8616, 18.7705, 12.9904, 95.3314, -95.4498
1.59944, -1, 5.05961, 14.7653, 18.8086, 12.9926, 95.2309, -95.7053
1.60733, -1, 4.87023, 14.6689, 18.8466, 12.9949, 95.1301, -95.9607
1.61539, -1, 4.68079, 14.5725, 18.8847, 12.9971, 95.0293, -96.2162
1.62343, -1, 4.49143, 14.4762, 18.9228, 12.9993, 94.9287, -96.4712
1.63134, -1, 4.30242, 14.3798, 18.9607, 13.0016, 94.8279, -96.7261
1.6394, -1, 4.11349, 14.2833, 18.9988, 13.0037, 94.727, -96.9811
1.64733, -1, 3.92511, 14.187, 19.0367, 13.0061, 94.6263, -97.2363
1.65534, -1, 3.73733, 14.0908, 19.0746, 13.0083, 94.5255, -97.4912
1.6634, -1, 3.54998, 13.9946, 19.1126, 13.0106, 94.4247, -97.7459
1.67136, -1, 3.36298, 13.8985, 19.1504, 13.0129, 94.3243, -98.0005
1.67943, -1, 3.17599, 13.8025, 19.1882, 13.0152, 94.2234, -98.2554
1.68739, -1, 2.98903, 13.7064, 19.2262, 13.0174, 94.1227, -98.51
1.69543, -1, 2.80209, 13.6104, 19.2641, 13.0196, 94.0223, -98.7642
1.70355, -1, 2.61495, 13.5145, 19.302, 13.0219, 93.9217, -99.0184
1.71143, -1, 2.42757, 13.4185, 19.3399, 13.0242, 93.8213, -99.2725
1.71943, -1, 2.23994, 13.3227, 19.3776, 13.0264, 93.721, -99.5266
1.72762, -1, 2.05185, 13.227, 19.4155, 13.0287, 93.6207, -99.7805
1.73533, -1, 1.86376, 13.1311, 19.4534, 13.0309, 93.5206, -100.034
1.74335, -1, 1.67554, 13.0352, 19.491, 13.0332, 93.4207, -100.288
1.75143, -1, 1.48737, 12.9394, 19.5288, 13.0354, 93.3205, -100.541
1.75936, -1, 1.29941, 12.8435, 19.5667, 13.0377, 93.2206, -100.795
1.76762, -1, 1.11179, 12.7477, 19.6043, 13.0401, 93.1206, -101.048
1.77556, -1, 0.924698, 12.6521, 19.6421, 13.0424, 93.0206, -101.301
1.78356, -1, 0.738172, 12.5565, 19.6798, 13.0448, 92.9208, -101.554
1.79178, -1, 0.552039, 12.4609, 19.7173, 13.0472, 92.821, -101.807
1.79969, -1, 0.366269, 12.3656, 19.755, 13.0496, 92.7212, -102.06
1.80774, -1, 0.180717, 12.2702, 19.7927, 13.0521, 92.6218, -102.312
1.81616, -1, -0.0046727, 12.1749, 19.8302, 13.0545, 92.5222, -102.565
1.82387, -1, -0.190199, 12.0796, 19.8679, 13.057, 92.4226, -102.818
1.83242, -1, -0.375962, 11.9844, 19.9056, 13.0595, 92.3233, -103.07
1.83998, -1, -0.562045, 11.8893, 19.9431, 13.062, 92.2238, -103.322
1.84851, -1, -0.74842, 11.7943, 19.9807, 13.0644, 92.1243, -103.574
1.85589, -1, -0.841639, 11.7468, 19.9994, 13.0656, 92.0745, -103.826
1.86436, -1, -1.12159, 11.6041, 20.0556, 13.0695, 91.9255, -104.078
1.87133, -1, -1.21508, 11.5566, 20.0743, 13.0707, 91.8758, -104.204
1.87932, -1, -1.40203, 11.4615, 20.1119, 13.0732, 91.7766, -104.455
1.88845, -1, -1.68203, 11.3188, 20.168, 13.077, 91.6279, -104.833
1.89532, -1, -1.7752, 11.2713, 20.1867, 13.0783, 91.5782, -104.958
1.90333, -1, -1.96131, 11.1763, 20.2242, 13.0809, 91.4791, -105.21
1.91295, -1, -2.23925, 11.0339, 20.2803, 13.0849, 91.3304, -105.586
1.91934, -1, -2.33164, 10.9865, 20.299, 13.0862, 91.2808, -105.712
1.92869, -1, -2.60845, 10.8444, 20.355, 13.0903, 91.1323, -106.088
1.93538, -1, -2.70047, 10.797, 20.3736, 13.0916, 91.0826, -106.214
1.94333, -1, -2.88428, 10.7023, 20.4109, 13.0943, 90.9836, -106.464
1.95285, -1, -3.16035, 10.5602, 20.467, 13.0981, 90.8353, -106.84
1.96108, -1, -3.34466, 10.4656, 20.5042, 13.1008, 90.7363, -107.091
1.96732, -1, -3.43693, 10.4184, 20.5228, 13.102, 90.6869, -107.216
1.97709, -1, -3.71408, 10.2768, 20.5787, 13.1058, 90.5387, -107.592
1.98333, -1, -3.80657, 10.2296, 20.5973, 13.107, 90.4892, -107.717
1.99232, -1, -3.99181, 10.1352, 20.6346, 13.1094, 90.3904, -107.966
1.99939, -1, -4.17717, 10.0409, 20.6718, 13.1119, 90.2918, -108.217
2.00837, -1, -4.36283, 9.9466, 20.7089, 13.1143, 90.1933, -108.466
2.01554, -1, -4.54829, 9.85222, 20.7462, 13.1167, 90.0946, -108.716
2.02438, -1, -4.7334, 9.75797, 20.7834, 13.1189, 89.9962, -108.965
2.03132, -1, -4.91812, 9.66378, 20.8205, 13.1214, 89.8977, -109.215
2.0402, -1, -5.10229, 9.56975, 20.8576, 13.1237, 89.7992, -109.464
2.04837, -1, -5.28575, 9.47569, 20.8948, 13.1261, 89.7009, -109.713
2.05532, -1, -5.46896, 9.38174, 20.9318, 13.1284, 89.6025, -109.962
2.06416, -1, -5.65177, 9.28782, 20.9689, 13.1307, 89.5042, -110.211
2.07131, -1, -5.83417, 9.1939, 21.006, 13.1331, 89.4062, -110.46
2.07933, -1, -6.01647, 9.10006, 21.0429, 13.1353, 89.308, -110.709
2.08812, -1, -6.199, 9.00622, 21.0799, 13.1375, 89.2098, -110.957
2.09531, -1, -6.38178, 8.91251, 21.117, 13.1398, 89.1121, -111.206
2.10342, -1, -6.56484, 8.81886, 21.1538, 13.1419, 89.014, -111.454
2.11213, -1, -6.74815, 8.72517, 21.1907, 13.1441, 88.916, -111.702
2.11932, -1, -6.93192, 8.63156, 21.2276, 13.1462, 88.8183, -111.95
2.12735, -1, -7.1159, 8.53801, 21.2644, 13.1483, 88.7203, -112.198
2.1361, -1, -7.30024, 8.44442, 21.3013, 13.1505, 88.6226, -112.445
2.1444, -1, -7.48421, 8.35073, 21.3382, 13.1526, 88.525, -112.693
2.15134, -1, -7.66784, 8.25724, 21.3749, 13.1548, 88.4273, -112.941
2.16013, -1, -7.85116, 8.16381, 21.4117, 13.157, 88.3298, -113.188
2.16741, -1, -8.03406, 8.0704, 21.4486, 13.1593, 88.2325, -113.435
2.17558, -1, -8.21626, 7.97709, 21.4853, 13.1614, 88.135, -113.682
2.18415, -1, -8.39782, 7.88379, 21.5221, 13.1637, 88.0376, -113.929
2.19137, -1, -8.57903, 7.79054, 21.559, 13.1659, 87.9404, -114.176
2.19971, -1, -8.75988, 7.69739, 21.5958, 13.1682, 87.8429, -114.422
2.20827, -1, -8.94051, 7.60423, 21.6325, 13.1704, 87.7453, -114.669
2.21543, -1, -9.12144, 7.51117, 21.6693, 13.1727, 87.6483, -114.915
2.22391, -1, -9.30255, 7.41827, 21.7059, 13.1749, 87.551, -115.162
2.23223, -1, -9.48397, 7.32547, 21.7426, 13.1771, 87.4539, -115.408
2.23932, -1, -9.66586, 7.23259, 21.7793, 13.1793, 87.3569, -115.654
2.24809, -1, -9.848, 7.13984, 21.8159, 13.1816, 87.2596, -115.9
2.25639, -1, -10.0304, 7.0471, 21.8524, 13.1837, 87.1624, -116.146
2.26337, -1, -10.2131, 6.95428, 21.8891, 13.186, 87.0653, -116.392
2.27234, -1, -10.3957, 6.86152, 21.9257, 13.1882, 86.968, -116.638
2.2804, -1, -10.5782, 6.7688, 21.9623, 13.1905, 86.871, -116.883
2.28762, -1, -10.7602, 6.67613, 21.9988, 13.1928, 86.7742, -117.129
2.29657, -1, -10.9418, 6.58352, 22.0352, 13.1952, 86.6772, -117.374
2.30366, -1, -11.1227, 6.49095, 22.0717, 13.1976, 86.5804, -117.619
2.31183, -1, -11.3028, 6.39849, 22.1083, 13.2, 86.4839, -117.864
2.32066, -1, -11.4826, 6.30596, 22.1447, 13.2024, 86.3871, -118.109
2.32783, -1, -11.662, 6.2135, 22.1811, 13.2048, 86.2904, -118.354
2.33592, -1, -11.8412, 6.12113, 22.2177, 13.2074, 86.1939, -118.598
2.34484, -1, -12.0205, 6.02887, 22.2541, 13.2098, 86.0972, -118.842
2.3519, -1, -12.1101, 5.98276, 22.2905, 13.2122, 86.0006, -119.086
2.35999, -1, -12.2896, 5.89068, 22.327, 13.2148, 85.9044, -119.331
2.36885, -1, -12.5595, 5.75266, 22.3632, 13.2172, 85.808, -119.575
2.3753, -1, -12.6497, 5.70666, 22.3813, 13.2185, 85.7599, -119.697
2.38336, -1, -12.8304, 5.61471, 22.4177, 13.2209, 85.6638, -119.941
2.39325, -1, -13.102, 5.47681, 22.4722, 13.2246, 85.5199, -120.306
2.3993, -1, -13.1926, 5.43079, 22.4903, 13.2258, 85.472, -120.428
2.40735, -1, -13.3738, 5.3388, 22.5265, 13.2282, 85.3759, -120.672
2.4153, -1, -13.5547, 5.24686, 22.5628, 13.2308, 85.2803, -120.915
2.42336, -1, -13.7351, 5.15499, 22.5989, 13.2333, 85.1844, -121.158
2.43132, -1, -13.9151, 5.06315, 22.6351, 13.2359, 85.0886, -121.401
2.43936, -1, -14.0942, 4.97141, 22.6713, 13.2385, 84.9932, -121.644
2.44883, -1, -14.3618, 4.83388, 22.7254, 13.2423, 84.8497, -122.008
2.45531, -1, -14.4508, 4.78808, 22.7435, 13.2436, 84.8019, -122.129
2.46489, -1, -14.7173, 4.65071, 22.7978, 13.2474, 84.6585, -122.493
2.47138, -1, -14.8062, 4.60497, 22.8158, 13.2486, 84.6106, -122.614
2.48118, -1, -14.9838, 4.46779, 22.87, 13.2523, 84.4671, -122.978
2.4873, -1, -15.1616, 4.42216, 22.8881, 13.2536, 84.4193, -123.099
2.49632, -1, -15.3399, 4.33087, 22.9242, 13.256, 84.3236, -123.34
2.50329, -1, -15.5185, 4.23956, 22.9602, 13.2584, 84.2279, -123.582
2.51133, -1, -15.6976, 4.1483, 22.9963, 13.2607, 84.1326, -123.824
2.51937, -1, -15.8767, 4.0571, 23.0322, 13.2629, 84.037, -124.066
2.5273, -1, -16.0561, 3.96583, 23.0681, 13.265, 83.9415, -124.307
2.5353, -1, -16.236, 3.87451, 23.1042, 13.2672, 83.8463, -124.549
2.54338, -1, -16.4155, 3.78331, 23.1401, 13.2693, 83.7507, -124.79
2.55132, -1, -16.5947, 3.69211, 23.1759, 13.2716, 83.6553, -125.031
2.55937, -1, -16.7735, 3.60096, 23.2118, 13.2739, 83.5601, -125.273
2.5673, -1, -16.9515, 3.50992, 23.2477, 13.2761, 83.4645, -125.514
2.5753, -1, -17.1286, 3.41892, 23.2835, 13.2782, 83.3692, -125.754
2.58337, -1, -17.3053, 3.32801, 23.3194, 13.2805, 83.2742, -125.995
2.59131, -1, -17.4818, 3.23717, 23.3552, 13.2826, 83.179, -126.236
2.5993, -1, -17.6579, 3.14643, 23.3909, 13.2848, 83.0841, -126.476
2.60752, -1, -17.8339, 3.05584, 23.4269, 13.2869, 82.9894, -126.716
2.6153, -1, -18.0101, 2.96526, 23.4627, 13.289, 82.8945, -126.956
2.62331, -1, -18.1864, 2.87487, 23.4984, 13.2912, 82.7997, -127.196
2.63139, -1, -18.3631, 2.78447, 23.5342, 13.2933, 82.7051, -127.436
2.6393, -1, -18.5403, 2.69405, 23.5699, 13.2953, 82.6102, -127.676
2.64734, -1, -18.7179, 2.60368, 23.6056, 13.2974, 82.5157, -127.916
2.65536, -1, -18.8957, 2.51329, 23.6413, 13.2994, 82.4213, -128.155
2.6633, -1, -19.0739, 2.42279, 23.677, 13.3013, 82.3269, -128.395
2.6716, -1, -19.2522, 2.3324, 23.7125, 13.3033, 82.2325, -128.634
2.67932, -1, -19.4302, 2.24204, 23.7482, 13.3054, 82.1384, -128.873
2.68733, -1, -19.6075, 2.15163, 23.7838, 13.3076, 82.0443, -129.112
2.69565, -1, -19.7843, 2.06133, 23.8191, 13.3098, 81.9501, -129.351
2.70338, -1, -19.9605, 1.97105, 23.8546, 13.3119, 81.8559, -129.59
2.71141, -1, -20.136, 1.88081, 23.8902, 13.3141, 81.762, -129.829
2.71984, -1, -20.311, 1.79065, 23.9257, 13.3164, 81.6679, -130.067
2.72741, -1, -20.4857, 1.70057, 23.9611, 13.3186, 81.5739, -130.305
2.73536, -1, -20.6601, 1.61056, 23.9967, 13.3208, 81.4802, -130.544
2.74395, -1, -20.8347, 1.52062, 24.0321, 13.3229, 81.3861, -130.782
2.75236, -1, -21.0095, 1.43083, 24.0675, 13.3251, 81.2924, -131.02
2.75933, -1, -21.1847, 1.34112, 24.1031, 13.3273, 81.1988, -131.258
2.7682, -1, -21.3602, 1.25134, 24.1385, 13.3294, 81.1048, -131.495
2.77547, -1, -21.5361, 1.1617, 24.1738, 13.3316, 81.0109, -131.733
2.78364, -1, -21.7122, 1.0721, 24.2093, 13.3337, 80.9173, -131.971
2.79159, -1, -21.8885, 0.982418, 24.2447, 13.3359, 80.8233, -132.208
2.79965, -1, -22.0651, 0.89279, 24.2801, 13.3381, 80.7296, -132.445
2.80774, -1, -22.2417, 0.803252, 24.3155, 13.3403, 80.6362, -132.683
2.8158, -1, -22.418, 0.713747, 24.3508, 13.3425, 80.5424, -132.92
2.82438, -1, -22.5937, 0.624185, 24.3859, 13.3448, 80.4488, -133.157
2.83202, -1, -22.7691, 0.534727, 24.4212, 13.3472, 80.3554, -133.393
2.83991, -1, -22.9435, 0.445326, 24.4564, 13.3496, 80.2616, -133.63
2.84789, -1, -23.1172, 0.35588, 24.4916, 13.3521, 80.1681, -133.867
2.8564, -1, -23.2907, 0.266504, 24.5267, 13.3545, 80.0748, -134.104
2.86386, -1, -23.3773, 0.221835, 24.5443, 13.3557, 80.028, -134.222
2.87231, -1, -23.6371, 0.088047, 24.5971, 13.3593, 79.8879, -134.576
2.87934, -1, -23.7237, 0.0434758, 24.6147, 13.3605, 79.8412, -134.694
2.88731, -1, -23.8971, -0.0455541, 24.6499, 13.3629, 79.7483, -134.93
2.89529, -1, -24.0707, -0.134508, 24.6849, 13.3654, 79.655, -135.166
2.90449, -1, -24.3315, -0.267943, 24.7375, 13.3691, 79.5155, -135.52
2.9113, -1, -24.4185, -0.312408, 24.7551, 13.3703, 79.4691, -135.638
2.91929, -1, -24.593, -0.401241, 24.7902, 13.3728, 79.3758, -135.873
2.92882, -1, -24.8553, -0.534627, 24.8427, 13.3763, 79.2362, -136.227
2.93682, -1, -25.0304, -0.62349, 24.8778, 13.3787, 79.1433, -136.462
2.94476, -1, -25.2052, -0.712301, 24.9128, 13.381, 79.0503, -136.697
2.95281, -1, -25.3797, -0.80107, 24.9478, 13.3834, 78.9576, -136.932
2.96087, -1, -25.5539, -0.889888, 24.9828, 13.3859, 78.8651, -137.167
2.96736, -1, -25.6408, -0.934257, 25.0002, 13.3872, 78.8186, -137.284
2.97706, -1, -25.9003, -1.06729, 25.0524, 13.3908, 78.6797, -137.636
2.9833, -1, -25.9866, -1.11165, 25.0699, 13.392, 78.6337, -137.754
2.99229, -1, -26.1589, -1.20036, 25.105, 13.3944, 78.541, -137.988
3.0009, -1, -26.3307, -1.2889, 25.1398, 13.3968, 78.4485, -138.223
3.0073, -1, -26.5025, -1.3774, 25.1746, 13.3991, 78.3559, -138.457
3.01537, -1, -26.6745, -1.4658, 25.2096, 13.4014, 78.2636, -138.692
3.02329, -1, -26.8466, -1.55405, 25.2445, 13.4037, 78.1712, -138.926
3.03129, -1, -27.0189, -1.64219, 25.2792, 13.4059, 78.0787, -139.159
3.03936, -1, -27.1914, -1.73041, 25.3142, 13.4081, 77.9868, -139.393
3.04728, -1, -27.3641, -1.81858, 25.349, 13.4103, 77.8945, -139.627
3.0553, -1, -27.5372, -1.90664, 25.3837, 13.4124, 77.8024, -139.861
3.06343, -1, -27.7104, -1.99484, 25.4186, 13.4145, 77.7105, -140.094
3.07129, -1, -27.8837, -2.08299, 25.4534, 13.4166, 77.6184, -140.328
3.07937, -1, -28.057, -2.17102, 25.4881, 13.4186, 77.5263, -140.561
3.08728, -1, -28.2302, -2.25909, 25.5229, 13.4207, 77.4345, -140.794
3.09529, -1, -28.4031, -2.34716, 25.5577, 13.4227, 77.3423, -141.027
3.10361, -1, -28.5758, -2.43516, 25.5924, 13.4248, 77.2501, -141.26
3.11135, -1, -28.7479, -2.52313, 25.6271, 13.4269, 77.1583, -141.493
3.11929, -1, -28.9192, -2.61116, 25.6618, 13.4291, 77.0662, -141.726
3.12808, -1, -29.0899, -2.69907, 25.6964, 13.4314, 76.9743, -141.959
3.13635, -1, -29.2606, -2.78689, 25.731, 13.4334, 76.8826, -142.191
3.14328, -1, -29.4312, -2.87467, 25.7657, 13.4355, 76.7907, -142.423
3.15207, -1, -29.602, -2.9623, 25.8003, 13.4375, 76.6989, -142.656
3.15929, -1, -29.7729, -3.04987, 25.8348, 13.4395, 76.6072, -142.888
3.16729, -1, -29.9439, -3.13739, 25.8695, 13.4416, 76.5153, -143.12
3.17536, -1, -30.1149, -3.22488, 25.904, 13.4437, 76.4236, -143.352
3.18332, -1, -30.286, -3.31236, 25.9385, 13.4457, 76.3318, -143.584
3.19139, -1, -30.4573, -3.39975, 25.9731, 13.4479, 76.2404, -143.816
3.20015, -1, -30.629, -3.48727, 26.0076, 13.4499, 76.1488, -144.048
3.20738, -1, -30.8008, -3.57471, 26.0421, 13.4519, 76.0574, -144.28
3.21545, -1, -30.9726, -3.66205, 26.0766, 13.4539, 75.9662, -144.511
3.22466, -1, -31.1444, -3.74942, 26.1112, 13.4559, 75.8747, -144.742
3.23144, -1, -31.3159, -3.83675, 26.1455, 13.458, 75.7833, -144.974
3.23947, -1, -31.487, -3.92408, 26.1799, 13.4601, 75.6923, -145.205
3.24729, -1, -31.6577, -4.01132, 26.2144, 13.4623, 75.6008, -145.436
3.25532, -1, -31.8279, -4.0986, 26.2487, 13.4645, 75.5096, -145.667
3.26347, -1, -31.9978, -4.18582, 26.2831, 13.4667, 75.4187, -145.898
3.27136, -1, -32.1673, -4.27294, 26.3176, 13.4689, 75.3274, -146.129
3.27958, -1, -32.3366, -4.36004, 26.3518, 13.4711, 75.2364, -146.359
3.28758, -1, -32.5062, -4.44706, 26.3861, 13.4732, 75.1456, -146.59
3.29555, -1, -32.6759, -4.53396, 26.4205, 13.4753, 75.0547, -146.82
3.30388, -1, -32.8455, -4.62085, 26.4549, 13.4775, 74.9639, -147.05
3.31238, -1, -33.0151, -4.70774, 26.489, 13.4797, 74.8732, -147.281
3.31979, -1, -33.1849, -4.79466, 26.5233, 13.4819, 74.7827, -147.511
3.32791, -1, -33.3548, -4.88151, 26.5576, 13.4841, 74.692, -147.741
3.33645, -1, -33.5251, -4.96842, 26.5918, 13.4864, 74.6013, -147.971
3.34386, -1, -33.6954, -5.05527, 26.626, 13.4885, 74.511, -148.201
3.35239, -1, -33.8656, -5.14203, 26.6603, 13.4907, 74.4202, -148.431
3.35987, -1, -33.9508, -5.18538, 26.6774, 13.4918, 74.3298, -148.66
3.36981, -1, -34.2061, -5.31548, 26.7285, 13.4951, 74.2394, -148.889
3.37616, -1, -34.2912, -5.35881, 26.7457, 13.4974, 74.1486, -149.119
3.38328, -1, -34.4612, -5.44541, 26.7799, 13.4986, 74.1034, -149.234
3.39128, -1, -34.6307, -5.53206, 26.814, 13.501, 74.0128, -149.463
3.39932, -1, -34.7996, -5.61873, 26.8481, 13.5034, 73.9224, -149.692
3.40856, -1, -35.0524, -5.74855, 26.8994, 13.5071, 73.7865, -150.036
3.41528, -1, -35.1365, -5.79179, 26.9164, 13.5083, 73.7412, -150.15
3.42476, -1, -35.3889, -5.92137, 26.9675, 13.5119, 73.6059, -150.494
3.43128, -1, -35.4731, -5.96448, 26.9846, 13.5131, 73.5607, -150.608
3.44072, -1, -35.726, -6.09377, 27.0356, 13.5167, 73.4252, -150.951
3.44734, -1, -35.8102, -6.13685, 27.0526, 13.5179, 73.3802, -151.065
3.45527, -1, -35.9788, -6.22299, 27.0867, 13.5202, 73.2896, -151.294
3.46484, -1, -36.2315, -6.35215, 27.1377, 13.5239, 73.154, -151.637
3.47337, -1, -36.4002, -6.43835, 27.1716, 13.5263, 73.0639, -151.865
3.47927, -1, -36.4846, -6.48147, 27.1886, 13.5274, 73.0185, -151.979
3.4888, -1, -36.6535, -6.56767, 27.2226, 13.5298, 72.9283, -152.322
3.49698, -1, -36.8223, -6.65386, 27.2566, 13.532, 72.8381, -152.55
3.50513, -1, -36.9913, -6.74001, 27.2905, 13.5343, 72.7481, -152.664
3.51135, -1, -37.1602, -6.82616, 27.3244, 13.5366, 72.658, -152.892
3.51937, -1, -37.3289, -6.91224, 27.3582, 13.5388, 72.5681, -153.12
3.52727, -1, -37.4973, -6.99825, 27.3921, 13.5411, 72.4783, -153.347
3.53527, -1, -37.6652, -7.08432, 27.4262, 13.5434, 72.3883, -153.575
3.54334, -1, -37.8329, -7.17034, 27.46, 13.5456, 72.2985, -153.802
3.55128, -1, -38.0004, -7.25626, 27.4939, 13.5478, 72.2089, -154.03
3.55926, -1, -38.1678, -7.34218, 27.5278, 13.55, 72.119, -154.257
3.56735, -1, -38.3352, -7.42801, 27.5617, 13.5522, 72.0293, -154.484
3.57527, -1, -38.5025, -7.51371, 27.5955, 13.5543, 71.9398, -154.711
3.58327, -1, -38.6698, -7.59945, 27.6293, 13.5564, 71.8501, -154.939
3.59135, -1, -38.8371, -7.68516, 27.6632, 13.5585, 71.7606, -155.166
3.59927, -1, -39.0044, -7.77084, 27.6969, 13.5606, 71.6712, -155.393
3.60727, -1, -39.1718, -7.85645, 27.7306, 13.5626, 71.582, -155.619
3.6154, -1, -39.3393, -7.94218, 27.7645, 13.5646, 71.4926, -155.846
3.62327, -1, -39.5069, -8.02782, 27.7982, 13.5665, 71.4031, -156.073
3.6313, -1, -39.6745, -8.11338, 27.8318, 13.5685, 71.3141, -156.3
3.63935, -1, -39.8422, -8.19891, 27.8656, 13.5704, 71.2245, -156.526
3.64734, -1, -40.0098, -8.28439, 27.8993, 13.5724, 71.1352, -156.752
3.65527, -1, -40.1773, -8.36977, 27.9329, 13.5744, 71.046, -156.979
3.66333, -1, -40.3446, -8.45514, 27.9667, 13.5763, 70.9566, -157.205
3.67128, -1, -40.5117, -8.54056, 28.0004, 13.5783, 70.8674, -157.431
3.67927, -1, -40.6786, -8.62592, 28.0339, 13.5803, 70.7782, -157.657
3.68738, -1, -40.8453, -8.7113, 28.0676, 13.5823, 70.6891, -157.883
3.69534, -1, -41.0118, -8.79665, 28.1013, 13.5843, 70.6, -158.109
3.70336, -1, -41.1782, -8.88198, 28.1349, 13.5864, 70.5108, -158.335
3.71144, -1, -41.3444, -8.96718, 28.1684, 13.5883, 70.4218, -158.561
3.71936, -1, -41.5107, -9.05236, 28.2021, 13.5903, 70.3325, -158.786
3.72737, -1, -41.6769, -9.13747, 28.2357, 13.5924, 70.2433, -159.012
3.73544, -1, -41.8432, -9.22256, 28.2692, 13.5943, 70.1544, -159.237
3.74327, -1, -42.0096, -9.30757, 28.3028, 13.5963, 70.0653, -159.463
3.75135, -1, -42.176, -9.39264, 28.3365, 13.5984, 69.9762, -159.688
3.75936, -1, -42.3422, -9.47773, 28.37, 13.6004, 69.8876, -159.913
3.76731, -1, -42.5086, -9.5627, 28.4035, 13.6024, 69.7984, -160.138
3.7754, -1, -42.675, -9.64766, 28.4371, 13.6045, 69.7096, -160.364
3.78356, -1, -42.8414, -9.73261, 28.4705, 13.6065, 69.6207, -160.589
3.79149, -1, -43.0078, -9.81755, 28.5039, 13.6085, 69.5319, -160.814
3.79969, -1, -43.1741, -9.90246, 28.5375, 13.6106, 69.4432, -161.039
3.80775, -1, -43.3402, -9.9874, 28.571, 13.6127, 69.3544, -161.263
3.81566, -1, -43.5063, -10.0723, 28.6044, 13.6147, 69.2661, -161.488
3.82375, -1, -43.6722, -10.1573, 28.638, 13.6168, 69.1773, -161.713
3.8319, -1, -43.8382, -10.2422, 28.6714, 13.619, 69.0889, -161.938
3.84042, -1, -44.0039, -10.327, 28.7048, 13.6211, 69.0005, -162.162
3.848, -1, -44.1693, -10.4117, 28.7382, 13.6233, 68.9118, -162.386
3.85593, -1, -44.3345, -10.4964, 28.7718, 13.6255, 68.8232, -162.61
3.86443, -1, -44.4996, -10.5809, 28.8051, 13.6277, 68.7347, -162.835
3.87127, -1, -44.5822, -10.6231, 28.8218, 13.6288, 68.6904, -162.947
3.88032, -1, -44.8301, -10.7499, 28.8721, 13.632, 68.5575, -163.283
3.88726, -1, -44.9128, -10.7921, 28.8888, 13.6331, 68.5132, -163.395
3.89647, -1, -45.1608, -10.9189, 28.9388, 13.6364, 68.3807, -163.731
3.90331, -1, -45.2435, -10.9611, 28.9555, 13.6375, 68.3364, -163.843
3.91256, -1, -45.4914, -11.0878, 29.0056, 13.6409, 68.2038, -164.179
3.91926, -1, -45.574, -11.13, 29.0222, 13.642, 68.1599, -164.291
3.92903, -1, -45.8219, -11.2566, 29.0721, 13.6455, 68.0272, -164.626
3.93672, -1, -45.9861, -11.3405, 29.1056, 13.6477, 67.9389, -164.85
3.94326, -1, -46.0672, -11.3819, 29.1223, 13.6489, 67.8947, -164.962
3.95138, -1, -46.2266, -11.463, 29.1558, 13.6512, 67.8071, -165.184
3.95925, -1, -46.3807, -11.5403, 29.1895, 13.6536, 67.7204, -165.403
3.96884, -1, -46.596, -11.6471, 29.2384, 13.6571, 67.5967, -165.715
3.97685, -1, -46.7256, -11.7105, 29.2683, 13.6594, 67.522, -165.905
3.98492, -1, -46.8406, -11.7666, 29.2947, 13.6613, 67.455, -166.074
3.99315, -1, -46.8921, -11.792, 29.3064, 13.6622, 67.3992, -166.216
3.99932, -1, -46.9826, -11.8379, 29.3258, 13.6637, 67.3754, -166.277
4.00891, -1, -47.0574, -11.8779, 29.3396, 13.6647, 67.3362, -166.375
4.0163, -1, -47.1172, -11.9111, 29.3488, 13.6653, 67.308, -166.446
4.02429, -1, -47.1626, -11.9369, 29.3542, 13.6656, 67.289, -166.494
4.0323, -1, -47.1957, -11.9555, 29.3569, 13.6658, 67.2774, -166.523
4.03932, -1, -47.2183, -11.9681, 29.3581, 13.6659, 67.2709, -166.54
4.04733, -1, -47.2325, -11.9759, 29.3587, 13.6659, 67.2675, -166.548
4.05527, -1, -47.2405, -11.9802, 29.359, 13.666, 67.2659, -166.552
4.06326, 2, -47.2442, -11.9822, 29.3592, 13.666, 67.2651, -166.554
4.07141, 2, -47.2449, -11.983, 29.3593, 13.666, 67.2648, -166.555
4.07927, 2, -47.2448, -11.9834, 29.3593, 13.666, 67.2646, -166.555
4.08726, 2, -47.2447, -11.9835, 29.3594, 13.6661, 67.2645, -166.556
4.09533, 2, -47.2449, -11.9836, 29.3594, 13.6661, 67.2645, -166.556
4.10326, 2, -47.2456, -11.9837, 29.3594, 13.6661, 67.2645, -166.556
4.11126, 2, -47.2466, -11.9841, 29.3594, 13.6661, 67.2644, -166.556
4.11939, 2, -47.2481, -11.9847, 29.3594, 13.6661, 67.2644, -166.556
4.12726, 2, -47.2499, -11.9856, 29.3594, 13.6661, 67.2643, -166.556
4.13526, 2, -47.2514, -11.9864, 29.3594, 13.6661, 67.2644, -166.556
4.14334, 2, -47.2526, -11.9871, 29.3594, 13.6661, 67.2644, -166.556
4.15127, 2, -47.2532, -11.9877, 29.3594, 13.6661, 67.2644, -166.556
4.15925, 2, -47.2535, -11.988, 29.3594, 13.6661, 67.2644, -166.556
4.16734, 2, -47.2536, -11.9881, 29.3595, 13.6661, 67.2644, -166.556
4.17526, 2, -47.2535, -11.9881, 29.3595, 13.6661, 67.2644, -166.556
4.18326, 2, -47.253, -11.9881, 29.3595, 13.6661, 67.2644, -166.556
4.1914, 2, -47.2526, -11.9881, 29.3595, 13.666, 67.2644, -166.556
4.19933, 2, -47.2522, -11.9881, 29.3595, 13.6661, 67.2644, -166.556
4.20735, 2, -47.2519, -11.9881, 29.3595, 13.6661, 67.2645, -166.556
4.21542, 2, -47.2518, -11.9881, 29.3595, 13.6661, 67.2644, -166.556
4.22336, 2, -47.2519, -11.9882, 29.3595, 13.6661, 67.2644, -166.556
4.23138, 2, -47.2521, -11.9884, 29.3595, 13.6661, 67.2645, -166.556
4.23944, 2, -47.2525, -11.9888, 29.3595, 13.666, 67.2645, -166.556
4.24726, 2, -47.2531, -11.9891, 29.3595, 13.666, 67.2644, -166.556
4.25528, 2, -47.2535, -11.9893, 29.3595, 13.666, 67.2644, -166.556
4.26336, 2, -47.2538, -11.9895, 29.3595, 13.6661, 67.2644, -166.556
4.27136, 2, -47.2538, -11.9895, 29.3595, 13.666, 67.2644, -166.556
4.27937, 2, -47.2537, -11.9896, 29.3595, 13.6661, 67.2645, -166.556
4.28784, 2, -47.2536, -11.9895, 29.3595, 13.6661, 67.2645, -166.556
4.29549, 2, -47.2533, -11.9895, 29.3595, 13.6661, 67.2644, -166.556
4.30356, 2, -47.2529, -11.9894, 29.3595, 13.666, 67.2645, -166.556
4.31205, 2, -47.2526, -11.9894, 29.3595, 13.666, 67.2645, -166.556
4.32035, 2, -47.2524, -11.9894, 29.3595, 13.666, 67.2645, -166.556
4.32776, 2, -47.2523, -11.9894, 29.3595, 13.666, 67.2645, -166.556
4.33622, 2, -47.2523, -11.9895, 29.3595, 13.666, 67.2645, -166.556
4.3438, 2, -47.2522, -11.9895, 29.3595, 13.666, 67.2645, -166.555
4.35235, 2, -47.2522, -11.9896, 29.3595, 13.666, 67.2645, -166.555
4.36011, 2, -47.2522, -11.9897, 29.3595, 13.666, 67.2645, -166.555
4.36781, 2, -47.2522, -11.9897, 29.3595, 13.666, 67.2644, -166.555
4.37627, 2, -47.2522, -11.9897, 29.3595, 13.666, 67.2644, -166.555
4.38412, 2, -47.2522, -11.9896, 29.3595, 13.666, 67.2645, -166.555
4.39126, 2, -47.2521, -11.9896, 29.3595, 13.666, 67.2645, -166.555
4.39925, 2, -47.2521, -11.9895, 29.3595, 13.6661, 67.2645, -166.555
4.40839, 2, -47.2519, -11.9895, 29.3595, 13.666, 67.2645, -166.555
4.41525, 2, -47.2519, -11.9895, 29.3595, 13.666, 67.2645, -166.555
4.42452, 2, -47.2517, -11.9894, 29.3595, 13.666, 67.2645, -166.555
4.43131, 2, -47.2517, -11.9894, 29.3595, 13.666, 67.2645, -166.555
4.43925, 2, -47.2516, -11.9894, 29.3595, 13.666, 67.2645, -166.555
4.4487, 2, -47.2515, -11.9895, 29.3595, 13.666, 67.2645, -166.555
4.45715, 2, -47.2514, -11.9895, 29.3595, 13.666, 67.2645, -166.555
4.46325, 2, -47.2514, -11.9895, 29.3595, 13.666, 67.2645, -166.555
4.47282, 2, -47.2513, -11.9895, 29.3595, 13.666, 67.2645, -166.555
4.48104, 2, -47.2513, -11.9895, 29.3595, 13.666, 67.2645, -166.555
4.48724, 2, -47.2512, -11.9895, 29.3595, 13.666, 67.2645, -166.555
4.49682, 2, -47.2511, -11.9894, 29.3595, 13.666, 67.2645, -166.555
4.50331, 2, -47.2511, -11.9894, 29.3595, 13.666, 67.2645, -166.555
4.51125, 2, -47.2509, -11.9894, 29.3595, 13.666, 67.2645, -166.555
4.52032, 2, -47.2508, -11.9893, 29.3595, 13.6659, 67.2645, -166.555
4.52733, 2, -47.2507, -11.9893, 29.3595, 13.6659, 67.2645, -166.555
4.53524, 2, -47.2506, -11.9893, 29.3595, 13.6659, 67.2645, -166.555
4.54324, 2, -47.2505, -11.9893, 29.3595, 13.666, 67.2646, -166.555
4.55132, 2, -47.2504, -11.9893, 29.3595, 13.666, 67.2645, -166.555
4.55925, 2, -47.2503, -11.9893, 29.3595, 13.6659, 67.2645, -166.555
4.56725, 2, -47.2502, -11.9893, 29.3595, 13.666, 67.2646, -166.555
4.57531, 2, -47.2501, -11.9893, 29.3595, 13.6659, 67.2646, -166.555
4.58325, 2, -47.25, -11.9893, 29.3595, 13.6659, 67.2646, -166.555
4.59126, 2, -47.2499, -11.9893, 29.3595, 13.6659, 67.2646, -166.555
4.59931, 2, -47.2498, -11.9892, 29.3595, 13.6659, 67.2646, -166.555
4.60724, 2, -47.2497, -11.9892, 29.3595, 13.6659, 67.2646, -166.555
4.61524, 2, -47.2496, -11.9891, 29.3595, 13.6659, 67.2646, -166.555
4.62337, 2, -47.2495, -11.9891, 29.3595, 13.6659, 67.2646, -166.555
4.63125, 2, -47.2495, -11.989, 29.3595, 13.6659, 67.2647, -166.555
4.63924, 2, -47.2494, -11.989, 29.3595, 13.6659, 67.2647, -166.555
4.64742, 2, -47.2493, -11.989, 29.3595, 13.6659, 67.2646, -166.555
4.65524, 2, -47.2493, -11.989, 29.3595, 13.6659, 67.2646, -166.555
4.66325, 2, -47.2492, -11.989, 29.3595, 13.6659, 67.2647, -166.555
4.67133, 2, -47.2491, -11.989, 29.3595, 13.6659, 67.2647, -166.555
4.67925, 2, -47.2491, -11.989, 29.3595, 13.6659, 67.2647, -166.555
4.68724, 2, -47.2491, -11.989, 29.3595, 13.6658, 67.2647, -166.555
4.69536, 2, -47.249, -11.989, 29.3595, 13.6658, 67.2647, -166.555
4.70332, 2, -47.249, -11.9889, 29.3595, 13.6658, 67.2647, -166.555
4.71135, 2, -47.249, -11.9889, 29.3595, 13.6658, 67.2647, -166.555
4.71941, 2, -47.2489, -11.9888, 29.3595, 13.6658, 67.2647, -166.555
4.72735, 2, -47.2488, -11.9887, 29.3595, 13.6658, 67.2647, -166.555
4.73535, 2, -47.2487, -11.9887, 29.3595, 13.6658, 67.2647, -166.555
4.74341, 2, -47.2486, -11.9887, 29.3595, 13.6658, 67.2647, -166.555
4.75126, 2, -47.2486, -11.9886, 29.3595, 13.6658, 67.2647, -166.555
4.75927, 2, -47.2486, -11.9886, 29.3595, 13.6658, 67.2647, -166.555
4.76741, 2, -47.2485, -11.9886, 29.3595, 13.6658, 67.2647, -166.555
4.77538, 2, -47.2485, -11.9886, 29.3595, 13.6658, 67.2648, -166.555
4.78336, 2, -47.2484, -11.9886, 29.3595, 13.6658, 67.2647, -166.555
4.79153, 2, -47.2484, -11.9886, 29.3595, 13.6658, 67.2647, -166.555
4.79953, 2, -47.2483, -11.9886, 29.3595, 13.6658, 67.2647, -166.555
4.80753, 2, -47.2483, -11.9886, 29.3595, 13.6658, 67.2647, -166.555
4.81597, 2, -47.2483, -11.9885, 29.3595, 13.6658, 67.2648, -166.555
4.82434, 2, -47.2482, -11.9884, 29.3595, 13.6658, 67.2648, -166.555
4.83173, 2, -47.2481, -11.9884, 29.3595, 13.6658, 67.2648, -166.554
4.84033, 2, -47.248, -11.9883, 29.3595, 13.6657, 67.2648, -166.554
4.84789, 2, -47.2479, -11.9883, 29.3595, 13.6657, 67.2648, -166.554
4.85635, 2, -47.2478, -11.9883, 29.3595, 13.6657, 67.2648, -166.554
4.86402, 2, -47.2478, -11.9883, 29.3595, 13.6657, 67.2648, -166.554
4.87186, 2, -47.2478, -11.9882, 29.3595, 13.6657, 67.2648, -166.554
4.88024, 2, -47.2478, -11.9882, 29.3595, 13.6656, 67.2648, -166.554
4.88728, 2, -47.2477, -11.9882, 29.3595, 13.6656, 67.2648, -166.554
4.89659, 2, -47.2477, -11.9882, 29.3595, 13.6656, 67.2648, -166.554
4.90324, 2, -47.2477, -11.9882, 29.3595, 13.6656, 67.2649, -166.554
4.9125, 2, -47.2476, -11.9882, 29.3595, 13.6656, 67.2649, -166.554
4.91924, 2, -47.2476, -11.9881, 29.3595, 13.6656, 67.2649, -166.554
4.92723, 2, -47.2476, -11.9881, 29.3595, 13.6656, 67.2649, -166.554
4.93657, 2, -47.2475, -11.9879, 29.3595, 13.6656, 67.265, -166.554
4.94323, 2, -47.2474, -11.9879, 29.3595, 13.6656, 67.265, -166.554
4.95267, 2, -47.2473, -11.9879, 29.3595, 13.6656, 67.265, -166.554
4.96113, 2, -47.2472, -11.9879, 29.3595, 13.6656, 67.2651, -166.554
4.96723, 2, -47.2472, -11.9879, 29.3595, 13.6656, 67.2651, -166.554
4.9768, 2, -47.2472, -11.9879, 29.3595, 13.6655, 67.2651, -166.554
4.98479, 2, -47.2471, -11.9879, 29.3595, 13.6655, 67.2651, -166.554
4.99292, 2, -47.2471, -11.9879, 29.3595, 13.6655, 67.2651, -166.554
5.00022, 2, -47.2471, -11.9879, 29.3595, 13.6655, 67.2651, -166.554
5.00822, 2, -47.2471, -11.9878, 29.3595, 13.6655, 67.2651, -166.554
5.01523, 2, -47.247, -11.9878, 29.3595, 13.6654, 67.2651, -166.554
5.02424, 2, -47.2471, -11.9878, 29.3595, 13.6654, 67.2651, -166.554
5.03133, 2, -47.247, -11.9877, 29.3595, 13.6654, 67.2651, -166.554
5.03923, 2, -47.2469, -11.9877, 29.3595, 13.6654, 67.2651, -166.554
5.04723, 2, -47.2468, -11.9876, 29.3595, 13.6654, 67.2651, -166.554
5.05529, 2, -47.2467, -11.9876, 29.3595, 13.6654, 67.2651, -166.554
5.06378, 2, -47.2466, -11.9876, 29.3595, 13.6653, 67.2652, -166.554
5.07124, 2, -47.2466, -11.9875, 29.3595, 13.6653, 67.2652, -166.554
5.07929, 2, -47.2465, -11.9875, 29.3595, 13.6653, 67.2652, -166.554
5.08723, 2, -47.2465, -11.9875, 29.3595, 13.6653, 67.2652, -166.554
5.09523, 2, -47.2465, -11.9875, 29.3595, 13.6653, 67.2652, -166.554
5.1033, 2, -47.2465, -11.9875, 29.3595, 13.6652, 67.2652, -166.554
5.11124, 2, -47.2464, -11.9875, 29.3595, 13.6652, 67.2652, -166.554
5.1192, 2, -47.2464, -11.9874, 29.3595, 13.6653, 67.2653, -166.554
5.12735, 2, -47.2464, -11.9874, 29.3595, 13.6652, 67.2652, -166.554
5.13523, 2, -47.2463, -11.9873, 29.3595, 13.6652, 67.2652, -166.554
5.14319, 4, -47.2462, -11.9873, 29.3595, 13.6652, 67.2652, -166.554
5.15133, 4, -47.2462, -11.9873, 29.3595, 13.6652, 67.2652, -166.554
5.15923, 4, -47.2461, -11.9872, 29.3595, 13.6652, 67.2653, -166.554
5.16723, 4, -47.246, -11.9872, 29.3595, 13.6652, 67.2652, -166.554
5.1753, 4, -47.246, -11.9872, 29.3595, 13.6652, 67.2653, -166.554
5.18323, 4, -47.2459, -11.9872, 29.3595, 13.6651, 67.2653, -166.554
5.19125, 4, -47.2459, -11.9872, 29.3595, 13.6651, 67.2652, -166.554
5.19939, 4, -47.2459, -11.9872, 29.3595, 13.665, 67.2652, -166.554
5.20731, 4, -47.2459, -11.9872, 29.3595, 13.665, 67.2652, -166.554
5.21532, 4, -47.2459, -11.9871, 29.3594, 13.665, 67.2652, -166.554
5.22339, 4, -47.2459, -11.9871, 29.3594, 13.665, 67.2653, -166.554
5.23134, 4, -47.2458, -11.9871, 29.3594, 13.665, 67.2653, -166.554
5.23933, 4, -47.2457, -11.987, 29.3594, 13.665, 67.2653, -166.554
5.24756, 4, -47.2456, -11.987, 29.3594, 13.665, 67.2653, -166.553
5.27107, 4, -47.2456, -11.9869, 29.3594, 13.665, 67.2653, -166.553
5.27307, 4, -47.2455, -11.9869, 29.3594, 13.665, 67.2653, -166.553
5.27584, 4, -47.2455, -11.9869, 29.3594, 13.665, 67.2653, -166.553
5.27964, 4, -47.2454, -11.9869, 29.3594, 13.665, 67.2653, -166.553
5.28902, 4, -47.2454, -11.9869, 29.3595, 13.665, 67.2653, -166.553
5.29584, 4, -47.2454, -11.9869, 29.3594, 13.665, 67.2653, -166.553
5.30462, 4, -47.2454, -11.9869, 29.3594, 13.665, 67.2653, -166.553
5.31238, 4, -47.2454, -11.9869, 29.3594, 13.6649, 67.2653, -166.553
5.32012, 4, -47.2453, -11.9868, 29.3594, 13.665, 67.2653, -166.553
5.32828, 4, -47.2454, -11.9868, 29.3594, 13.665, 67.2653, -166.553
5.33617, 4, -47.2453, -11.9868, 29.3594, 13.665, 67.2653, -166.553
5.34515, 4, -47.2452, -11.9867, 29.3594, 13.6649, 67.2653, -166.553
5.35251, 4, -47.2452, -11.9867, 29.3594, 13.6649, 67.2653, -166.553
5.36243, 4, -47.2451, -11.9867, 29.3594, 13.6649, 67.2653, -166.553
5.36808, 4, -47.245, -11.9866, 29.3595, 13.6649, 67.2653, -166.553
5.37679, 4, -47.245, -11.9867, 29.3595, 13.6649, 67.2653, -166.553
5.38624, 4, -47.245, -11.9867, 29.3594, 13.6649, 67.2653, -166.553
5.39302, 4, -47.2449, -11.9866, 29.3595, 13.6649, 67.2653, -166.553
5.40004, 4, -47.2449, -11.9866, 29.3595, 13.6649, 67.2653, -166.553
5.40816, 4, -47.2449, -11.9866, 29.3594, 13.6649, 67.2653, -166.553
5.41873, 4, -47.2453, -11.9868, 29.3596, 13.6649, 67.2653, -166.553
5.4264, 4, -47.2469, -11.9877, 29.3605, 13.6653, 67.2656, -166.553
5.43471, 4, -47.2501, -11.9906, 29.3639, 13.6701, 67.2668, -166.552
5.44139, 4, -47.2555, -11.997, 29.3724, 13.6866, 67.2708, -166.55
5.45105, 4, -47.2646, -12.0088, 29.3903, 13.722, 67.2804, -166.543
5.45546, 4, -47.271, -12.0173, 29.4044, 13.7503, 67.2882, -166.536
5.46634, 5, -47.3011, -12.0579, 29.477, 13.9003, 67.3304, -166.503
5.47329, 5, -47.333, -12.0995, 29.5584, 14.072, 67.3784, -166.463
5.47951, 5, -47.353, -12.1254, 29.6112, 14.1847, 67.4092, -166.437
5.4874, 5, -47.4026, -12.1881, 29.7435, 14.4697, 67.488, -166.371
5.49534, 5, -47.465, -12.2658, 29.9131, 14.8387, 67.5878, -166.287
5.507, 5, -47.5819, -12.4108, 30.2398, 15.546, 67.7774, -166.125
5.5135, 5, -47.6744, -12.5251, 30.5017, 16.1064, 67.9252, -165.998
5.52167, 5, -47.7767, -12.6518, 30.7938, 16.7216, 68.0858, -165.859
5.52836, 5, -47.831, -12.7193, 30.9494, 17.0453, 68.169, -165.788
5.5376, 5, -48.0034, -12.9345, 31.4446, 18.0576, 68.4251, -165.566
5.54835, 5, -48.1233, -13.0853, 31.7905, 18.7499, 68.5962, -165.416
5.55139, 5, -48.1838, -13.1619, 31.9661, 19.0979, 68.681, -165.343
5.56268, 5, -48.3629, -13.3909, 32.4975, 20.1322, 68.93, -165.121
5.57134, 5, -48.4759, -13.5394, 32.8503, 20.8009, 69.0911, -164.968
5.57932, 6, -48.579, -13.6809, 33.1947, 21.4403, 69.25, -164.8
5.58569, 6, -48.6254, -13.8121, 33.5257, 22.0386, 69.4082, -164.603
5.59454, 6, -48.7383, -13.9329, 33.8383, 22.59, 69.5686, -164.365
5.60041, 7, -48.7657, -13.9899, 33.9871, 22.8467, 69.6504, -164.226
5.60736, 7, -48.804, -14.0978, 34.2693, 23.3228, 69.8189, -163.9
5.61543, 8, -48.8214, -14.1968, 34.5307, 23.7557, 69.9964, -163.507
5.62336, 8, -48.8195, -14.2857, 34.7749, 24.1549, 70.1852, -163.044
5.6345, 9, -48.7859, -14.4028, 35.1173, 24.7128, 70.491, -162.235
5.64731, 9, -48.7248, -14.5068, 35.4426, 25.2503, 70.8217, -161.327
5.6492, 10, -48.7248, -14.5068, 35.4426, 25.2503, 70.8217, -161.327
5.65555, 10, -48.672, -14.5719, 35.6566, 25.6069, 71.0529, -160.691
5.6677, 11, -48.577, -14.6648, 35.9765, 26.1447, 71.4085, -159.72
5.67236, 11, -48.5423, -14.6949, 36.0833, 26.3252, 71.5279, -159.397
5.68109, 11, -48.4689, -14.7553, 36.2969, 26.6892, 71.7666, -158.753
5.68737, 12, -48.3919, -14.8165, 36.5085, 27.0582, 72.0055, -158.111
5.69597, 12, -48.313, -14.8782, 36.718, 27.4334, 72.2451, -157.468
5.70442, 13, -48.233, -14.9386, 36.9262, 27.8156, 72.4858, -156.823
5.71386, 14, -48.1512, -14.9977, 37.1322, 28.2044, 72.7281, -156.174
5.72034, 14, -48.0668, -15.0573, 37.3364, 28.599, 72.972, -155.522
5.72754, 14, -47.9789, -15.1179, 37.5401, 28.9979, 73.2173, -154.869
5.74026, 15, -47.8401, -15.2078, 37.8423, 29.6006, 73.5849, -153.893
5.74347, 15, -47.7916, -15.2372, 37.9419, 29.8017, 73.7069, -153.568
5.7535, 16, -47.6901, -15.2961, 38.14, 30.2035, 73.9495, -152.922
5.75956, 16, -47.5819, -15.3563, 38.3357, 30.6036, 74.1894, -152.28
5.76856, 17, -47.4681, -15.4183, 38.5278, 31.0014, 74.4254, -151.642
5.77592, 17, -47.3497, -15.4814, 38.7171, 31.3957, 74.6561, -151.01
5.78646, 18, -47.2265, -15.545, 38.9043, 31.7864, 74.8816, -150.385
5.79167, 18, -47.0981, -15.6098, 39.0888, 32.1732, 75.101, -149.768
5.80097, 19, -46.9645, -15.677, 39.271, 32.5577, 75.3148, -149.157
5.80795, 19, -46.8258, -15.7466, 39.4522, 32.9403, 75.5233, -148.554
5.81587, 20, -46.6821, -15.8181, 39.6321, 33.3212, 75.7271, -147.959
5.8242, 20, -46.5334, -15.8916, 39.8091, 33.7012, 75.9264, -147.371
5.83436, 21, -46.3795, -15.968, 39.9836, 34.0799, 76.1215, -146.788
5.84019, 21, -46.2208, -16.0473, 40.1564, 34.4575, 76.312, -146.212
5.84816, 22, -46.0571, -16.1285, 40.3267, 34.8325, 76.4974, -145.643
5.86046, 23, -45.8019, -16.2527, 40.5757, 35.3883, 76.7655, -144.802
5.86447, 23, -45.7138, -16.2949, 40.6575, 35.5714, 76.8519, -144.525
5.87461, 24, -45.5323, -16.3808, 40.819, 35.9342, 77.0206, -143.974
5.88197, 24, -45.3439, -16.4685, 40.9766, 36.2915, 77.1834, -143.429
5.88969, 24, -45.149, -16.5577, 41.13, 36.6424, 77.3409, -142.889
5.89738, 25, -44.9477, -16.6477, 41.2793, 36.9866, 77.4931, -142.352
5.90572, 25, -44.74, -16.7386, 41.4243, 37.3239, 77.6404, -141.819
5.91144, 26, -44.6336, -16.7844, 41.495, 37.4899, 77.7123, -141.554
5.92029, 26, -44.4155, -16.8765, 41.6325, 37.8166, 77.9223, -140.762
5.92742, 27, -44.1904, -16.9686, 41.7644, 38.1358, 77.9902, -140.499
5.93534, 27, -43.9588, -17.0601, 41.8906, 38.4471, 78.1231, -139.973
5.94336, 28, -43.7206, -17.1507, 42.0106, 38.7504, 78.2527, -139.448
5.95135, 28, -43.4753, -17.2402, 42.1239, 39.0451, 78.3783, -138.925
5.95938, 29, -43.2231, -17.3282, 42.2305, 39.3314, 78.5012, -138.403
5.96748, 29, -42.9644, -17.4146, 42.33, 39.6095, 78.6205, -137.881
5.97935, 30, -42.5623, -17.5407, 42.4658, 40.0107, 78.7939, -137.098
5.98542, 31, -42.2837, -17.6219, 42.5473, 40.2673, 78.9057, -136.577
5.9942, 31, -41.997, -17.7006, 42.6218, 40.5156, 79.0148, -136.057
6.00101, 32, -41.7029, -17.7769, 42.6893, 40.7553, 79.1215, -135.537
6.00883, 32, -41.5533, -17.8141, 42.7205, 40.872, 79.1737, -135.017
6.01534, 32, -41.2491, -17.8868, 42.7778, 41.0991, 79.2762, -134.758
6.02517, 33, -40.9385, -17.9565, 42.8279, 41.3182, 79.3764, -133.983
6.03146, 33, -40.6212, -18.0229, 42.871, 41.5292, 79.4739, -133.724
6.03937, 34, -40.2979, -18.0866, 42.9067, 41.7319, 79.5688, -133.208
6.04742, 34, -39.97, -18.1477, 42.935, 41.9266, 79.661, -132.693
6.05758, 35, -39.4681, -18.2335, 42.9642, 42.2045, 79.7947, -131.924
6.06652, 36, -39.1253, -18.2863, 42.9748, 42.3802, 79.8813, -131.412
6.07247, 36, -38.9512, -18.3115, 42.9776, 42.4651, 79.9235, -131.156
6.08311, 37, -38.4181, -18.382, 42.9757, 42.7085, 80.0475, -130.392
6.08748, 37, -38.2374, -18.4039, 42.9718, 42.7859, 80.0875, -130.138
6.09847, 38, -37.6868, -18.4637, 42.9494, 43.0067, 80.2055, -129.378
6.10339, 38, -37.5008, -18.4819, 42.9386, 43.0767, 80.2435, -129.126
6.11449, 39, -36.9362, -18.5314, 42.8964, 43.2753, 80.3549, -128.371
6.12034, 39, -36.7457, -18.5462, 42.8789, 43.3377, 80.3907, -128.12
6.12863, 39, -36.3613, -18.5729, 42.8389, 43.4573, 80.4616, -127.621
6.13542, 40, -35.9712, -18.5959, 42.7924, 43.5696, 80.5302, -127.122
6.14343, 40, -35.575, -18.6149, 42.7394, 43.6747, 80.5976, -126.626
6.15136, 41, -35.1729, -18.63, 42.6797, 43.7725, 80.6621, -126.132
6.1604, 41, -34.7656, -18.6417, 42.6137, 43.8632, 80.7253, -125.64
6.17154, 42, -34.3545, -18.6499, 42.5412, 43.9859, 80.8157, -124.907
6.17637, 42, -33.9405, -18.6549, 42.4624, 44.0234, 80.8451, -124.663
6.18341, 43, -33.523, -18.6568, 42.3776, 44.0925, 80.903, -124.178
6.19143, 43, -33.1007, -18.6551, 42.2868, 44.155, 80.9581, -123.695
6.20099, 44, -32.6724, -18.6496, 42.1904, 44.2099, 81.0127, -123.215
6.20845, 45, -32.2374, -18.6404, 42.0882, 44.2575, 81.0652, -122.737
6.21635, 45, -31.7967, -18.6274, 41.9801, 44.2982, 81.1155, -122.261
6.22803, 46, -31.1284, -18.6013, 41.8065, 44.345, 81.1892, -121.551
6.23234, 46, -30.9047, -18.5909, 41.7457, 44.3567, 81.2124, -121.316
6.24711, 47, -30.2297, -18.5541, 41.4879, 44.3844, 81.3025, -120.381
6.24906, 47, -30.0026, -18.5396, 41.4879, 44.3844, 81.3025, -120.381
6.25648, 48, -29.5438, -18.5074, 41.3502, 44.3878, 81.3461, -119.917
6.26435, 48, -29.0783, -18.4708, 41.2063, 44.3833, 81.3879, -119.454
6.27234, 48, -28.6068, -18.4299, 41.0563, 44.3699, 81.4297, -118.993
6.2804, 49, -28.1312, -18.3846, 40.9006, 44.3479, 81.4715, -118.534
6.2877, 49, -27.6533, -18.3349, 40.7387, 44.3161, 81.5122, -118.076
6.29576, 50, -27.1727, -18.2804, 40.5703, 44.2746, 81.5528, -117.619
6.30524, 50, -26.687, -18.2203, 40.3952, 44.2248, 81.5949, -117.162
6.3119, 51, -26.194, -18.1546, 40.2139, 44.1646, 81.6373, -116.707
6.3226, 52, -25.6933, -18.0835, 40.0255, 44.0949, 81.6798, -116.253
6.32845, 52, -25.1873, -18.0069, 39.8295, 44.015, 81.7234, -115.799
6.33837, 53, -24.679, -17.9252, 39.6273, 43.9245, 81.7683, -115.347
6.34407, 53, -24.1686, -17.8378, 39.4188, 43.8243, 81.8129, -114.894
6.35218, 53, -23.6535, -17.7444, 39.2023, 43.7137, 81.859, -114.442
6.36261, 54, -23.1312, -17.6447, 38.9787, 43.5925, 81.9076, -113.99
6.36827, 54, -22.6004, -17.5388, 38.7485, 43.4605, 81.9572, -113.539
6.37672, 55, -22.0635, -17.4267, 38.5104, 43.3169, 82.0094, -113.087
6.38446, 56, -21.5235, -17.3086, 38.2658, 43.1615, 82.0644, -112.635
6.39439, 56, -20.981, -17.1848, 38.0147, 42.9945, 82.1201, -112.184
6.40004, 56, -20.7081, -17.1207, 37.8863, 42.9067, 82.1488, -111.958
6.40935, 57, -19.8769, -16.9205, 37.4915, 42.6259, 82.238, -111.282
6.4165, 58, -19.3114, -16.7797, 37.2197, 42.4236, 82.2992, -110.832
6.42472, 58, -18.7402, -16.6328, 36.9416, 42.2088, 82.3631, -110.382
6.43628, 59, -18.1663, -16.4802, 36.6572, 41.9814, 82.4282, -109.708
6.44103, 59, -17.8785, -16.402, 36.5124, 41.8632, 82.4621, -109.708
6.45005, 60, -17.0056, -16.1609, 36.069, 41.4893, 82.5663, -109.034
6.45541, 60, -16.7097, -16.078, 35.9181, 41.3583, 82.6023, -108.81
6.47107, 61, -15.8091, -15.8211, 35.4581, 40.9461, 82.75, -107.912
6.4744, 61, -15.2033, -15.6441, 35.1444, 40.6548, 82.7882, -107.688
6.48124, 62, -14.8996, -15.554, 34.8253, 40.3513, 82.8658, -107.239
6.48735, 62, -14.2885, -15.3706, 34.6635, 40.1947, 82.9057, -107.015
6.49546, 63, -13.6689, -15.1819, 34.3365, 39.8715, 82.987, -106.566
6.50333, 63, -13.0394, -14.9869, 34.0048, 39.5347, 83.071, -106.117
6.5153, 64, -12.082, -14.6837, 33.4974, 39.0035, 83.2026, -105.442
6.51933, 64, -11.7608, -14.58, 33.3254, 38.8196, 83.2481, -105.217
6.52928, 64, -11.1143, -14.367, 32.9768, 38.2457, 83.3911, -104.538
6.53844, 65, -10.125, -14.0333, 32.4417, 37.8427, 83.4931, -104.083
6.54845, 66, -9.45232, -13.8023, 32.078, 37.4214, 83.6009, -103.626
6.5514, 66, -9.11274, -13.6842, 31.8939, 37.204, 83.6573, -103.397
6.56223, 67, -8.08539, -13.3188, 31.3317, 36.5243, 83.8369, -102.706
6.5685, 67, -7.73947, -13.1936, 31.1406, 36.2888, 83.9002, -102.475
6.57865, 68, -6.68744, -12.8077, 30.5588, 35.5574, 84.1011, -101.776
6.5844, 68, -6.33273, -12.6758, 30.3632, 35.3064, 84.1709, -101.542
6.59254, 69, -5.61872, -12.4073, 29.9697, 34.7959, 84.3149, -101.073
6.5994, 69, -4.89944, -12.1311, 29.5736, 34.274, 84.4635, -100.602
6.60841, 70, -4.17327, -11.8471, 29.1753, 33.7416, 84.617, -100.129
6.62028, 70, -3.06829, -11.4081, 28.5773, 32.9188, 84.8578, -99.4156
6.62624, 71, -2.32054, -11.1046, 28.1767, 32.3515, 85.0269, -98.9377
6.63142, 71, -1.94326, -10.9498, 27.9747, 32.0617, 85.1147, -98.6979
6.64199, 72, -1.18235, -10.6345, 27.5679, 31.1654, 85.3936, -97.9727
6.65096, 72, -0.0281892, -10.1507, 26.9501, 30.5432, 85.5927, -97.4852
6.65535, 73, 0.359583, -9.9858, 26.7424, 30.2264, 85.6959, -97.2403
6.66539, 73, 1.13956, -9.6485, 26.326, 29.5839, 85.9091, -96.749
6.67138, 74, 1.92481, -9.30318, 25.909, 28.9297, 86.1308, -96.2562
6.68033, 74, 2.71282, -8.95255, 25.4937, 28.2667, 86.3606, -95.7611
6.68838, 75, 3.50228, -8.59863, 25.0822, 27.5966, 86.5976, -95.2647
6.69922, 75, 4.29261, -8.23928, 24.6764, 26.9222, 86.8397, -94.5192
6.70338, 76, 5.08328, -7.87532, 24.2773, 26.2492, 87.0862, -94.2707
6.71328, 76, 5.87241, -7.50649, 23.8858, 25.5788, 87.3358, -93.7735
6.71943, 76, 6.65932, -7.13299, 23.5036, 24.912, 87.5891, -93.2766
6.73458, 77, 7.8383, -6.55876, 22.944, 23.9199, 87.9795, -92.284
6.74817, 78, 9.41065, -5.767, 22.2164, 22.5929, 88.5329, -91.5371
6.74942, 78, 9.41065, -5.767, 22.2164, 22.5929, 88.5329, -91.5371
6.75611, 78, 9.80438, -5.5642, 22.0367, 21.9214, 88.8286, -91.035
6.75935, 79, 10.593, -5.15212, 21.679, 21.5834, 88.9814, -90.782
6.76801, 79, 11.3815, -4.73119, 21.3225, 20.9043, 89.2972, -90.2715
6.77521, 80, 12.166, -4.30067, 20.9679, 20.2205, 89.6255, -89.7549
6.7833, 80, 12.9445, -3.85994, 20.6158, 19.5381, 89.9657, -89.2307
6.79132, 81, 13.7177, -3.40986, 20.2679, 18.8634, 90.3159, -88.7006
6.79947, 81, 14.4846, -2.95188, 19.9257, 18.2002, 90.6745, -88.1653
6.80755, 82, 15.2431, -2.48625, 19.5922, 17.5504, 91.0393, -87.6275
6.81548, 82, 15.9925, -2.01355, 19.2682, 16.9172, 91.4091, -87.0869
6.8244, 83, 16.732, -1.53355, 18.9549, 16.3031, 91.7825, -86.5449
6.83172, 83, 17.4604, -1.04693, 18.6526, 15.7095, 92.1591, -86.0022
6.84049, 84, 18.1745, -0.555558, 18.3603, 15.1355, 92.5396, -85.4604
6.84791, 84, 18.8719, -0.0609998, 18.0772, 14.5821, 92.9258, -84.9191
6.85651, 85, 19.5518, 0.438053, 17.8006, 14.0483, 93.3192, -84.3791
6.86373, 85, 20.2136, 0.941717, 17.5309, 13.5341, 93.7209, -83.8411
6.87268, 85, 20.8577, 1.44931, 17.2668, 13.0397, 94.1292, -83.3056
6.88023, 86, 21.4865, 1.96143, 17.0086, 12.5648, 94.5436, -82.7705
6.88719, 86, 21.7958, 2.21992, 16.8821, 12.335, 94.7531, -82.5027
6.89518, 87, 22.4054, 2.74421, 16.6331, 11.8904, 95.1767, -81.9652
6.90322, 87, 23.0041, 3.27904, 16.3886, 11.4649, 95.6068, -81.4232
6.91114, 88, 23.5938, 3.82261, 16.1483, 11.0567, 96.0434, -80.8758
6.92114, 88, 24.4593, 4.65264, 15.7935, 10.4738, 96.7104, -80.0368
6.9272, 89, 24.7422, 4.93454, 15.6775, 10.2871, 96.9363, -79.752
6.93727, 89, 25.5776, 5.79811, 15.3361, 9.74888, 97.6246, -78.8795
6.94319, 90, 25.8535, 6.09163, 15.2237, 9.57703, 97.8573, -78.5826
6.95338, 90, 26.6734, 6.98702, 14.8921, 9.08361, 98.5652, -77.6697
6.95944, 91, 26.9418, 7.28996, 14.784, 8.92741, 98.8045, -77.3584
6.96718, 91, 27.4686, 7.90328, 14.5713, 8.62823, 99.288, -76.7267
6.97548, 92, 27.9835, 8.52762, 14.3627, 8.34839, 99.7771, -76.0828
6.98317, 92, 28.49, 9.16272, 14.1586, 8.09016, 100.271, -75.428
6.99139, 93, 28.9891, 9.80719, 13.9596, 7.85381, 100.768, -74.765
6.99925, 93, 29.4775, 10.459, 13.7665, 7.64036, 101.267, -74.0953
7.00737, 94, 29.9529, 11.1165, 13.5809, 7.45021, 101.766, -73.4183
7.01517, 94, 30.4135, 11.7774, 13.403, 7.28378, 102.263, -72.7354
7.02412, 95, 30.8596, 12.4407, 13.2318, 7.14111, 102.758, -72.0482
7.03221, 95, 31.292, 13.1057, 13.0682, 7.02214, 103.249, -71.3552
7.03913, 96, 31.711, 13.7726, 12.9125, 6.92673, 103.736, -70.6563
7.04726, 96, 32.115, 14.4404, 12.7637, 6.85502, 104.221, -69.9531
7.05513, 97, 32.5025, 15.1087, 12.6211, 6.8074, 104.701, -69.2438
7.06317, 97, 32.874, 15.7769, 12.4855, 6.78097, 105.176, -68.5284
7.07122, 98, 33.2298, 16.4433, 12.3579, 6.77605, 105.645, -67.8102
7.07917, 98, 33.5705, 17.1067, 12.2387, 6.79354, 106.106, -67.0889
7.08812, 99, 33.897, 17.765, 12.1287, 6.83102, 106.558, -66.3647
7.09524, 99, 34.2105, 18.4172, 12.0282, 6.88846, 106.999, -65.6419
7.10339, 100, 34.5127, 19.0615, 11.9371, 6.96482, 107.428, -64.9214
7.11118, 100, 34.8038, 19.6972, 11.8552, 7.05844, 107.842, -64.2033
7.11923, 100, 35.083, 20.3228, 11.7822, 7.16929, 108.242, -63.4917
7.12717, 101, 35.3496, 20.9372, 11.7174, 7.29553, 108.625, -62.7876
7.13517, 101, 35.604, 21.5404, 11.661, 7.43548, 108.991, -62.0905
7.14329, 102, 35.8453, 22.1308, 11.613, 7.58726, 109.341, -61.4043
7.15118, 102, 36.0733, 22.7082, 11.573, 7.7487, 109.675, -60.73
7.15917, 103, 36.2914, 23.2707, 11.5414, 7.91815, 109.994, -60.0669
7.16726, 103, 36.5029, 23.8176, 11.5182, 8.09505, 110.296, -59.4162
7.17517, 104, 36.7083, 24.3492, 11.5039, 8.28009, 110.581, -58.779
7.18321, 104, 36.9071, 24.8652, 11.4975, 8.47387, 110.848, -58.153
7.19121, 104, 37.0999, 25.3652, 11.4975, 8.67673, 111.095, -57.538
7.19917, 104, 37.2856, 25.8499, 11.5039, 8.88794, 111.322, -56.9348
7.20725, 104, 37.4617, 26.3182, 11.5153, 9.10593, 111.529, -56.3445
7.21531, 104, 37.6273, 26.7702, 11.5298, 9.32886, 111.72, -55.7679
7.22326, 104, 37.7857, 27.2073, 11.5472, 9.55363, 111.896, -55.2082
7.23131, 104, 37.9401, 27.6289, 11.567, 9.77745, 112.059, -54.6685
7.2393, 104, 38.0911, 28.0346, 11.5875, 9.99818, 112.213, -54.1512
7.24728, 104, 38.2371, 28.4234, 11.6081, 10.2141, 112.358, -53.6565
7.25532, 104, 38.377, 28.7959, 11.6277, 10.424, 112.495, -53.186
7.26359, 104, 38.5101, 29.1505, 11.6462, 10.6271, 112.624, -52.7394
7.27122, 104, 38.6352, 29.4871, 11.6637, 10.8221, 112.745, -52.3179
7.27928, 104, 38.7518, 29.8044, 11.6799, 11.0086, 112.859, -51.9217
7.28729, 104, 38.86, 30.1029, 11.6949, 11.1858, 112.964, -51.5499
7.29533, 104, 38.9605, 30.383, 11.7091, 11.3532, 113.063, -51.2035
7.30347, 104, 39.0532, 30.6431, 11.7221, 11.5104, 113.154, -50.8829
7.3115, 104, 39.1381, 30.8837, 11.7338, 11.6571, 113.237, -50.5873
7.3195, 104, 39.2151, 31.1049, 11.7444, 11.7922, 113.313, -50.3169
7.32803, 104, 39.284, 31.3059, 11.7542, 11.9161, 113.382, -50.0717
7.33628, 104, 39.3449, 31.4874, 11.7632, 12.028, 113.443, -49.8521
7.34373, 104, 39.3984, 31.6497, 11.7711, 12.1281, 113.498, -49.6573
7.35225, 104, 39.4454, 31.7926, 11.7781, 12.2159, 113.545, -49.4875
7.35978, 104, 39.4866, 31.9172, 11.7845, 12.2914, 113.585, -49.3424
7.36826, 104, 39.5219, 32.0245, 11.7904, 12.3554, 113.619, -49.2204
7.37591, 104, 39.551, 32.1153, 11.7954, 12.4077, 113.647, -49.1216
7.38433, 104, 39.5749, 32.1907, 11.8, 12.4484, 113.668, -49.0426
7.39172, 104, 39.585, 32.2232, 11.8021, 12.4652, 113.677, -49.0106
7.40019, 104, 39.6088, 32.3024, 11.8079, 12.5033, 113.695, -48.9398
7.40717, 104, 39.6149, 32.3233, 11.8097, 12.5124, 113.7, -48.9233
7.41635, 104, 39.629, 32.3708, 11.8144, 12.5312, 113.708, -48.89
7.42321, 104, 39.6324, 32.3826, 11.8158, 12.5354, 113.71, -48.8832
7.43117, 104, 39.6375, 32.4016, 11.8183, 12.5408, 113.712, -48.8743
7.44043, 104, 39.6416, 32.4201, 11.821, 12.5447, 113.713, -48.8684
7.44721, 104, 39.6424, 32.424, 11.8217, 12.5453, 113.714, -48.8676
7.45512, 105, 39.643, 32.4295, 11.8229, 12.546, 113.714, -48.8667
7.4646, 105, 39.6421, 32.4345, 11.8242, 12.5465, 113.714, -48.8665
7.47307, 105, 39.6412, 32.4366, 11.825, 12.5466, 113.714, -48.8666
7.47921, 105, 39.6408, 32.4375, 11.8253, 12.5466, 113.714, -48.8666
7.48872, 105, 39.6391, 32.4396, 11.8262, 12.5467, 113.714, -48.8671
7.49701, 105, 39.6379, 32.4409, 11.8267, 12.5468, 113.714, -48.8674
7.50317, 105, 39.6375, 32.4415, 11.827, 12.5468, 113.714, -48.8676
7.51214, 105, 39.6369, 32.4426, 11.8276, 12.5467, 113.714, -48.8679
7.52113, 105, 39.6364, 32.4442, 11.8285, 12.5468, 113.714, -48.8683
7.52716, 105, 39.6363, 32.4447, 11.8287, 12.5468, 113.714, -48.8684
7.53516, 105, 39.6361, 32.4456, 11.8292, 12.5468, 113.714, -48.8686
7.54322, 105, 39.6358, 32.4462, 11.8295, 12.5468, 113.714, -48.8689
7.55119, 105, 39.6356, 32.4467, 11.8298, 12.5468, 113.714, -48.8692
7.56015, 105, 39.6353, 32.447, 11.8301, 12.5467, 113.714, -48.8694
7.56814, 105, 39.635, 32.4471, 11.8304, 12.5467, 113.714, -48.8696
7.57621, 105, 39.6347, 32.4472, 11.8305, 12.5467, 113.714, -48.8698
