hehonglu123/Motion-Primitive-Planning/ILC/recorded_data/realrobot/from_NX/iteration_15/run_3.csv
timestamp, cmd_num, J1, J2, J3, J4, J5, J6
0.000359, -1, 39.6301, 32.4471, 11.8319, 12.5453, 113.713, -48.8723
0.002997, -1, 39.6301, 32.4471, 11.8319, 12.5453, 113.713, -48.8723
0.00814, -1, 39.6301, 32.4471, 11.8319, 12.5453, 113.713, -48.8723
0.029431, -1, 39.6301, 32.4471, 11.8319, 12.5453, 113.713, -48.8723
0.03226, -1, 39.6301, 32.4471, 11.8319, 12.5453, 113.713, -48.8723
0.034759, -1, 39.6301, 32.4471, 11.8319, 12.5453, 113.713, -48.8723
0.039839, -1, 39.6301, 32.4471, 11.8319, 12.5453, 113.713, -48.8723
0.047841, -1, 39.63, 32.4471, 11.8319, 12.5453, 113.713, -48.8723
0.189031, -1, 38.5084, 31.8778, 12.0468, 12.5538, 113.137, -50.3463
0.190262, -1, 38.5084, 31.8778, 12.0468, 12.5538, 113.137, -50.3463
0.192333, -1, 38.4251, 31.8341, 12.0659, 12.555, 113.089, -50.4675
0.193612, -1, 38.4251, 31.8341, 12.0659, 12.555, 113.089, -50.4675
0.194848, -1, 38.4251, 31.8341, 12.0659, 12.555, 113.089, -50.4675
0.196914, -1, 38.3399, 31.7895, 12.0852, 12.5562, 113.04, -50.5907
0.198986, -1, 38.3399, 31.7895, 12.0852, 12.5562, 113.04, -50.5907
0.202889, -1, 38.2529, 31.7439, 12.1047, 12.5574, 112.991, -50.7157
0.204985, -1, 38.1643, 31.6977, 12.1242, 12.5585, 112.941, -50.8419
0.206215, -1, 38.1643, 31.6977, 12.1242, 12.5585, 112.941, -50.8419
0.208078, -1, 38.0744, 31.6508, 12.1438, 12.5598, 112.89, -50.969
0.209606, -1, 38.0744, 31.6508, 12.1438, 12.5598, 112.89, -50.969
0.210814, -1, 38.0744, 31.6508, 12.1438, 12.5598, 112.89, -50.969
0.213575, -1, 37.9832, 31.6033, 12.1632, 12.5611, 112.84, -51.0969
0.21477, -1, 37.9832, 31.6033, 12.1632, 12.5611, 112.84, -51.0969
0.217281, -1, 37.8909, 31.5554, 12.1826, 12.5623, 112.789, -51.2256
0.218598, -1, 37.8909, 31.5554, 12.1826, 12.5623, 112.789, -51.2256
0.220559, -1, 37.7975, 31.5071, 12.202, 12.5634, 112.738, -51.3546
0.223055, -1, 37.7975, 31.5071, 12.202, 12.5634, 112.738, -51.3546
0.225046, -1, 37.7034, 31.4585, 12.2214, 12.5646, 112.687, -51.484
0.226338, -1, 37.7034, 31.4585, 12.2214, 12.5646, 112.687, -51.484
0.228164, -1, 37.7034, 31.4585, 12.2408, 12.5659, 112.636, -51.6136
0.232916, -1, 37.5131, 31.3608, 12.2602, 12.5671, 112.585, -51.7435
0.240418, -1, 37.3215, 31.2629, 12.299, 12.5696, 112.482, -52.0029
0.248399, -1, 37.1294, 31.1651, 12.3378, 12.572, 112.379, -52.2625
0.256623, -1, 36.9372, 31.0674, 12.3765, 12.5746, 112.276, -52.5226
0.264434, -1, 36.8411, 31.0185, 12.4152, 12.5771, 112.173, -52.783
0.272535, -1, 36.6493, 30.8719, 12.4541, 12.5797, 112.07, -53.0434
0.28057, -1, 36.4577, 30.8231, 12.4736, 12.581, 112.019, -53.1734
0.28782, -1, 36.2661, 30.7253, 12.5124, 12.5836, 111.916, -53.4339
0.295836, -1, 36.0746, 30.6274, 12.5513, 12.5862, 111.813, -53.6943
0.303888, -1, 35.8831, 30.5295, 12.5903, 12.5888, 111.71, -53.955
0.311839, -1, 35.6914, 30.4314, 12.6291, 12.5914, 111.607, -54.2154
0.319944, -1, 35.4994, 30.3333, 12.668, 12.5939, 111.504, -54.4756
0.327823, -1, 35.3072, 30.235, 12.7068, 12.5965, 111.401, -54.736
0.33582, -1, 35.1147, 30.1368, 12.7456, 12.5991, 111.298, -54.9967
0.3439, -1, 34.9223, 30.0383, 12.7846, 12.6017, 111.195, -55.2575
0.351832, -1, 34.7301, 29.9398, 12.8234, 12.6043, 111.092, -55.518
0.359846, -1, 34.5377, 29.8414, 12.8623, 12.6068, 110.989, -55.7789
0.367896, -1, 34.3456, 29.743, 12.9013, 12.6094, 110.886, -56.0397
0.375843, -1, 34.1535, 29.6446, 12.9402, 12.612, 110.783, -56.3007
0.383823, -1, 33.9617, 29.5464, 12.9791, 12.6147, 110.68, -56.5613
0.391635, -1, 33.7701, 29.4481, 13.018, 12.6173, 110.576, -56.8221
0.399826, -1, 33.5782, 29.3497, 13.0569, 12.6199, 110.473, -57.0831
0.4088, -1, 33.3861, 29.2513, 13.0958, 12.6225, 110.37, -57.3442
0.415904, -1, 33.1935, 29.1527, 13.1348, 12.6252, 110.267, -57.6051
0.424856, -1, 33.0007, 29.0541, 13.1736, 12.6278, 110.164, -57.8662
0.431832, -1, 32.8078, 28.9555, 13.2125, 12.6304, 110.061, -58.1273
0.439965, -1, 32.6144, 28.8569, 13.2515, 12.6332, 109.958, -58.3887
0.447822, -1, 32.4209, 28.7582, 13.2903, 12.6359, 109.855, -58.6497
0.455887, -1, 32.227, 28.6595, 13.3292, 12.6385, 109.752, -58.9107
0.463812, -1, 32.0329, 28.5608, 13.3681, 12.6412, 109.649, -59.1717
0.471829, -1, 31.839, 28.462, 13.407, 12.6439, 109.546, -59.4332
0.479901, -1, 31.6454, 28.3632, 13.4461, 12.6466, 109.443, -59.6945
0.487831, -1, 31.4519, 28.2646, 13.485, 12.6494, 109.34, -59.9556
0.495824, -1, 31.2588, 28.166, 13.5239, 12.6522, 109.237, -60.217
0.503881, -1, 31.0662, 28.0676, 13.563, 12.6551, 109.134, -60.4785
0.634652, -1, 27.9753, 26.4874, 14.1867, 12.6972, 107.481, -64.6639
0.636771, -1, 27.8789, 26.438, 14.2062, 12.6984, 107.43, -64.7948
0.63799, -1, 27.8789, 26.438, 14.2062, 12.6984, 107.43, -64.7948
0.640098, -1, 27.7825, 26.3886, 14.2257, 12.6997, 107.378, -64.9258
0.641312, -1, 27.7825, 26.3886, 14.2257, 12.6997, 107.378, -64.9258
0.642586, -1, 27.7825, 26.3886, 14.2257, 12.6997, 107.378, -64.9258
0.644568, -1, 27.6862, 26.3392, 14.2452, 12.7009, 107.326, -65.0569
0.64743, -1, 27.6862, 26.3392, 14.2452, 12.7021, 107.274, -65.1877
0.648875, -1, 27.59, 26.2897, 14.2646, 12.7021, 107.274, -65.1877
0.650179, -1, 27.59, 26.2897, 14.2646, 12.7021, 107.274, -65.1877
0.652869, -1, 27.4938, 26.2403, 14.2841, 12.7033, 107.223, -65.3184
0.654108, -1, 27.4938, 26.2403, 14.2841, 12.7033, 107.223, -65.3184
0.656226, -1, 27.3978, 26.1907, 14.3036, 12.7045, 107.171, -65.4492
0.658419, -1, 27.3978, 26.1907, 14.3036, 12.7045, 107.171, -65.4492
0.660426, -1, 27.3018, 26.1412, 14.3231, 12.7057, 107.12, -65.5799
0.662539, -1, 27.3018, 26.1412, 14.3231, 12.7057, 107.12, -65.5799
0.664643, -1, 27.2057, 26.0917, 14.3426, 12.7068, 107.068, -65.7107
0.665845, -1, 27.2057, 26.0917, 14.3426, 12.7068, 107.068, -65.7107
0.667859, -1, 27.1095, 26.0423, 14.3621, 12.708, 107.016, -65.8416
0.669225, -1, 27.1095, 26.0423, 14.3621, 12.708, 107.016, -65.8416
0.670822, -1, 27.1095, 26.0423, 14.3621, 12.708, 107.016, -65.8416
0.679987, -1, 26.8205, 25.894, 14.4205, 12.7114, 106.861, -66.2344
0.6868, -1, 26.7241, 25.8446, 14.44, 12.7125, 106.809, -66.3652
0.696035, -1, 26.434, 25.6963, 14.4983, 12.716, 106.655, -66.7577
0.702803, -1, 26.3371, 25.6469, 14.5178, 12.7171, 106.603, -66.8885
0.712163, -1, 26.046, 25.4986, 14.5763, 12.7205, 106.448, -67.2814
0.720189, -1, 25.8517, 25.3997, 14.6152, 12.7228, 106.345, -67.5432
0.726796, -1, 25.7546, 25.3503, 14.6347, 12.7239, 106.294, -67.674
0.736375, -1, 25.4635, 25.2022, 14.6932, 12.7273, 106.139, -68.0663
0.74436, -1, 25.2697, 25.1035, 14.7321, 12.7296, 106.036, -68.3282
0.752459, -1, 25.0763, 25.0047, 14.7712, 12.7319, 105.932, -68.59
0.760405, -1, 24.8831, 24.9059, 14.8102, 12.7343, 105.829, -68.8515
0.768387, -1, 24.7866, 24.8565, 14.8491, 12.7367, 105.726, -69.1132
0.777499, -1, 24.4977, 24.7082, 14.8881, 12.7391, 105.623, -69.375
0.78383, -1, 24.4015, 24.6587, 14.9076, 12.7403, 105.571, -69.506
0.791809, -1, 24.2091, 24.5598, 14.9466, 12.7427, 105.468, -69.7675
0.799856, -1, 24.0164, 24.461, 14.9856, 12.745, 105.364, -70.0289
0.806809, -1, 23.8236, 24.3622, 15.0245, 12.7474, 105.261, -70.2905
0.815817, -1, 23.6307, 24.2633, 15.0634, 12.7498, 105.157, -70.5523
0.82382, -1, 23.4374, 24.1645, 15.1023, 12.7522, 105.054, -70.814
0.830802, -1, 23.2437, 24.0655, 15.1413, 12.7546, 104.951, -71.0757
0.839804, -1, 23.0499, 23.9666, 15.1801, 12.757, 104.847, -71.3374
0.847808, -1, 22.8559, 23.8678, 15.219, 12.7595, 104.744, -71.5993
0.857358, -1, 22.565, 23.7196, 15.2775, 12.7632, 104.589, -71.9919
0.863836, -1, 22.4682, 23.6703, 15.297, 12.7644, 104.537, -72.1226
0.871816, -1, 22.2747, 23.5717, 15.336, 12.7669, 104.434, -72.384
0.881525, -1, 21.985, 23.4236, 15.3943, 12.7709, 104.279, -72.7763
0.887815, -1, 21.8885, 23.3742, 15.4138, 12.7722, 104.227, -72.9071
0.895817, -1, 21.696, 23.2755, 15.4528, 12.7748, 104.124, -73.1684
0.90479, -1, 21.5039, 23.1767, 15.4917, 12.7775, 104.021, -73.4298
0.911838, -1, 21.3116, 23.078, 15.5307, 12.7801, 103.918, -73.6914
0.920818, -1, 21.1191, 22.9793, 15.5696, 12.7828, 103.815, -73.9531
0.927797, -1, 20.9267, 22.8807, 15.6085, 12.7855, 103.711, -74.2143
0.935825, -1, 20.7343, 22.7821, 15.6474, 12.7882, 103.608, -74.4753
0.94481, -1, 20.5416, 22.6834, 15.6863, 12.791, 103.505, -74.7366
0.951794, -1, 20.3485, 22.5848, 15.7251, 12.7937, 103.402, -74.998
0.959801, -1, 20.1548, 22.486, 15.7641, 12.7964, 103.299, -75.2592
0.967849, -1, 19.9612, 22.3873, 15.803, 12.7992, 103.196, -75.5202
0.975871, -1, 19.7676, 22.2887, 15.8417, 12.8018, 103.093, -75.7814
0.983801, -1, 19.574, 22.19, 15.8807, 12.8046, 102.99, -76.0427
0.991843, -1, 19.3806, 22.0914, 15.9196, 12.8074, 102.887, -76.304
0.999829, -1, 19.1876, 21.9927, 15.9584, 12.8101, 102.784, -76.5648
1.0078, -1, 18.9947, 21.8941, 15.9974, 12.8128, 102.681, -76.8256
1.01585, -1, 18.8022, 21.7954, 16.0362, 12.8155, 102.578, -77.0867
1.02382, -1, 18.6101, 21.6967, 16.0749, 12.8182, 102.475, -77.3476
1.03182, -1, 18.4183, 21.5982, 16.1138, 12.8209, 102.372, -77.6084
1.03984, -1, 18.2265, 21.4996, 16.1527, 12.8236, 102.269, -77.8692
1.04782, -1, 18.0346, 21.4011, 16.1915, 12.8261, 102.167, -78.13
1.05581, -1, 17.8427, 21.3028, 16.2305, 12.8287, 102.064, -78.3909
1.06386, -1, 17.6507, 21.2044, 16.2694, 12.8312, 101.961, -78.6514
1.07182, -1, 17.4583, 21.1062, 16.3082, 12.8337, 101.858, -78.9117
1.07984, -1, 17.2654, 21.0078, 16.3471, 12.8361, 101.755, -79.1723
1.08782, -1, 17.0723, 20.9096, 16.3858, 12.8385, 101.652, -79.4329
1.09582, -1, 16.8793, 20.8113, 16.4247, 12.8408, 101.549, -79.6935
1.10389, -1, 16.6862, 20.7132, 16.4635, 12.8431, 101.446, -79.9539
1.11196, -1, 16.4932, 20.6149, 16.5022, 12.8455, 101.344, -80.2144
1.11989, -1, 16.3004, 20.5166, 16.5409, 12.8478, 101.241, -80.475
1.12795, -1, 16.1081, 20.4182, 16.5797, 12.8501, 101.138, -80.7357
1.13593, -1, 15.9162, 20.3199, 16.6184, 12.8525, 101.036, -80.9957
1.14392, -1, 15.7244, 20.2213, 16.6571, 12.8547, 100.933, -81.2557
1.15197, -1, 15.5331, 20.1229, 16.6957, 12.857, 100.83, -81.5158
1.15982, -1, 15.3419, 20.0246, 16.7344, 12.8594, 100.728, -81.7759
1.16783, -1, 15.1508, 19.9263, 16.7732, 12.8617, 100.625, -82.0358
1.17591, -1, 14.9596, 19.8281, 16.8119, 12.8639, 100.523, -82.2956
1.18388, -1, 14.7683, 19.73, 16.8505, 12.8663, 100.42, -82.5555
1.19204, -1, 14.5768, 19.6319, 16.8893, 12.8685, 100.318, -82.8156
1.19878, -1, 14.4809, 19.5828, 16.9086, 12.8697, 100.266, -82.9455
1.20803, -1, 14.1927, 19.4357, 16.9667, 12.8731, 100.112, -83.3348
1.21479, -1, 14.0966, 19.3867, 16.986, 12.8742, 100.061, -83.4646
1.22423, -1, 13.808, 19.2399, 17.0439, 12.8777, 99.9074, -83.8542
1.23224, -1, 13.6154, 19.1421, 17.0826, 12.8799, 99.8049, -84.1137
1.23885, -1, 13.5192, 19.0931, 17.102, 12.8811, 99.7536, -84.2433
1.24871, -1, 13.2311, 18.9462, 17.1598, 12.8846, 99.6002, -84.6322
1.25636, -1, 13.0395, 18.8484, 17.1984, 12.887, 99.4977, -84.8915
1.26441, -1, 12.8483, 18.7504, 17.2371, 12.8893, 99.3952, -85.1511
1.2724, -1, 12.7528, 18.7014, 17.2756, 12.8917, 99.2931, -85.4101
1.27977, -1, 12.5619, 18.6035, 17.2949, 12.893, 99.242, -85.5395
1.28838, -1, 12.3716, 18.5058, 17.3335, 12.8954, 99.1396, -85.7983
1.29583, -1, 12.1814, 18.408, 17.372, 12.8978, 99.0374, -86.0573
1.30385, -1, 11.9912, 18.3103, 17.4105, 12.9002, 98.9354, -86.3163
1.31118, -1, 11.8008, 18.2127, 17.4491, 12.9026, 98.8334, -86.5748
1.31985, -1, 11.6101, 18.1151, 17.4876, 12.905, 98.7316, -86.8335
1.32779, -1, 11.4192, 18.0174, 17.5261, 12.9074, 98.6297, -87.0921
1.33557, -1, 11.2281, 17.9198, 17.5647, 12.9099, 98.5276, -87.3508
1.34278, -1, 11.0367, 17.8223, 17.6032, 12.9123, 98.4259, -87.6091
1.3518, -1, 10.8451, 17.7249, 17.6416, 12.9148, 98.3238, -87.8673
1.35961, -1, 10.6534, 17.6274, 17.6801, 12.9173, 98.2218, -88.1255
1.36679, -1, 10.462, 17.5299, 17.7185, 12.9199, 98.1202, -88.3839
1.37578, -1, 10.2709, 17.4324, 17.7569, 12.9223, 98.0183, -88.642
1.38359, -1, 10.0801, 17.3348, 17.7953, 12.925, 97.9163, -88.8999
1.39179, -1, 9.88959, 17.2372, 17.8336, 12.9277, 97.8147, -89.1581
1.39979, -1, 9.69941, 17.1397, 17.8719, 12.9302, 97.7125, -89.4161
1.40878, -1, 9.50976, 17.0423, 17.9102, 12.933, 97.6106, -89.6742
1.4158, -1, 9.32052, 16.9449, 17.9485, 12.9357, 97.5089, -89.9317
1.42476, -1, 9.13124, 16.8476, 17.9869, 12.9384, 97.4069, -90.1891
1.43161, -1, 8.94183, 16.7504, 18.0252, 12.9411, 97.3051, -90.4468
1.43979, -1, 8.75232, 16.6533, 18.0635, 12.9437, 97.2036, -90.7045
1.44778, -1, 8.56274, 16.5561, 18.102, 12.9463, 97.1018, -90.9616
1.45585, -1, 8.37298, 16.459, 18.1403, 12.9491, 97.0004, -91.2189
1.46379, -1, 8.18266, 16.362, 18.1786, 12.9517, 96.8988, -91.476
1.47181, -1, 7.99217, 16.2651, 18.217, 12.9543, 96.7971, -91.7332
1.47977, -1, 7.80167, 16.1683, 18.2552, 12.957, 96.6957, -91.9902
1.48778, -1, 7.61106, 16.0713, 18.2934, 12.9596, 96.5942, -92.2468
1.49585, -1, 7.42066, 15.9744, 18.3318, 12.9622, 96.4928, -92.5036
1.5038, -1, 7.23051, 15.8774, 18.3699, 12.9647, 96.3917, -92.7604
1.51186, -1, 7.04067, 15.7804, 18.4081, 12.9673, 96.2902, -93.0171
1.51985, -1, 6.85122, 15.6835, 18.4465, 12.9699, 96.189, -93.2735
1.5278, -1, 6.66228, 15.5866, 18.4845, 12.9724, 96.0883, -93.5299
1.5358, -1, 6.47388, 15.4898, 18.5226, 12.9749, 95.9872, -93.7863
1.54395, -1, 6.28561, 15.3931, 18.5608, 12.9774, 95.8861, -94.0428
1.5518, -1, 6.09744, 15.2964, 18.5989, 12.9799, 95.7854, -94.2987
1.55978, -1, 5.90918, 15.1997, 18.6371, 12.9822, 95.6843, -94.5546
1.56793, -1, 5.72077, 15.103, 18.6753, 12.9846, 95.5833, -94.8105
1.57604, -1, 5.53229, 15.0064, 18.7134, 12.9869, 95.4827, -95.0664
1.58313, -1, 5.3435, 14.9099, 18.7515, 12.9892, 95.3818, -95.3221
1.59117, -1, 5.15438, 14.8135, 18.7896, 12.9915, 95.2811, -95.5775
1.59927, -1, 4.96502, 14.7172, 18.8276, 12.9938, 95.1806, -95.8329
1.60725, -1, 4.77563, 14.6207, 18.8657, 12.996, 95.0797, -96.0885
1.61587, -1, 4.58619, 14.5243, 18.9038, 12.9982, 94.9789, -96.3437
1.62503, -1, 4.39697, 14.428, 18.9418, 13.0004, 94.8783, -96.5987
1.63196, -1, 4.20804, 14.3316, 18.9798, 13.0026, 94.7774, -96.8535
1.63991, -1, 4.01935, 14.2352, 19.0178, 13.0049, 94.6766, -97.1087
1.64791, -1, 3.83129, 14.139, 19.0557, 13.0072, 94.5758, -97.3637
1.65595, -1, 3.64376, 14.0428, 19.0936, 13.0094, 94.4751, -97.6184
1.66453, -1, 3.45658, 13.9466, 19.1316, 13.0117, 94.3745, -97.8732
1.67182, -1, 3.26965, 13.8506, 19.1694, 13.014, 94.2738, -98.1279
1.67996, -1, 3.08264, 13.7545, 19.2072, 13.0163, 94.1731, -98.3827
1.6887, -1, 2.89563, 13.6585, 19.2452, 13.0185, 94.0725, -98.6371
1.69599, -1, 2.70869, 13.5625, 19.2831, 13.0207, 93.9718, -98.8912
1.70414, -1, 2.52131, 13.4665, 19.321, 13.023, 93.8714, -99.1453
1.71079, -1, 2.42759, 13.4185, 19.3399, 13.0242, 93.8211, -99.2724
1.71882, -1, 2.23995, 13.3227, 19.3776, 13.0264, 93.721, -99.5265
1.72827, -1, 1.95791, 13.179, 19.4344, 13.0298, 93.5705, -99.9071
1.73476, -1, 1.86388, 13.1311, 19.4534, 13.031, 93.5206, -100.034
1.74289, -1, 1.67566, 13.0353, 19.491, 13.0332, 93.4207, -100.287
1.75237, -1, 1.39345, 12.8915, 19.5478, 13.0366, 93.2705, -100.668
1.76127, -1, 1.20564, 12.7957, 19.5855, 13.0389, 93.1706, -100.921
1.76686, -1, 1.11188, 12.7478, 19.6043, 13.04, 93.1206, -101.048
1.77643, -1, 0.924753, 12.6044, 19.661, 13.0436, 92.9705, -101.427
1.78377, -1, 0.738236, 12.5566, 19.6798, 13.0448, 92.9207, -101.554
1.79083, -1, 0.552207, 12.461, 19.7173, 13.0472, 92.821, -101.807
1.8008, -1, 0.273665, 12.318, 19.7738, 13.0508, 92.6713, -102.186
1.80778, -1, 0.180861, 12.2703, 19.7927, 13.0521, 92.6218, -102.312
1.81483, -1, -0.00453659, 12.175, 19.8302, 13.0545, 92.5222, -102.565
1.82384, -1, -0.190092, 12.0797, 19.8678, 13.057, 92.4226, -102.818
1.83177, -1, -0.375842, 11.9845, 19.9055, 13.0594, 92.3232, -103.07
1.83877, -1, -0.561992, 11.8894, 19.943, 13.0619, 92.2237, -103.322
1.84784, -1, -0.748303, 11.7944, 19.9805, 13.0644, 92.1242, -103.574
1.85577, -1, -0.934797, 11.6993, 20.018, 13.0669, 92.0249, -103.826
1.86276, -1, -1.12156, 11.6042, 20.0554, 13.0694, 91.9255, -104.078
1.87179, -1, -1.30857, 11.5092, 20.093, 13.0719, 91.8261, -104.33
1.87977, -1, -1.49541, 11.4141, 20.1305, 13.0745, 91.7271, -104.581
1.88685, -1, -1.68199, 11.3189, 20.1678, 13.077, 91.6279, -104.833
1.89577, -1, -1.8682, 11.2239, 20.2053, 13.0796, 91.5286, -105.084
1.90378, -1, -2.05393, 11.1289, 20.2428, 13.0823, 91.4296, -105.335
1.91276, -1, -2.23897, 11.034, 20.2801, 13.0849, 91.3303, -105.586
1.91877, -1, -2.42382, 10.9392, 20.3175, 13.0876, 91.2311, -105.837
1.92778, -1, -2.60828, 10.8444, 20.3548, 13.0903, 91.1322, -106.088
1.93583, -1, -2.79216, 10.7496, 20.3921, 13.0929, 91.0331, -106.339
1.94378, -1, -2.97607, 10.6549, 20.4295, 13.0955, 90.934, -106.59
1.95177, -1, -3.1602, 10.5602, 20.4668, 13.0981, 90.8353, -106.84
1.95977, -1, -3.3445, 10.4657, 20.504, 13.1008, 90.7363, -107.091
1.96778, -1, -3.52916, 10.3712, 20.5413, 13.1033, 90.6373, -107.341
1.97584, -1, -3.71397, 10.2768, 20.5786, 13.1059, 90.5387, -107.592
1.9838, -1, -3.89903, 10.1825, 20.6158, 13.1083, 90.4398, -107.841
1.99177, -1, -4.0843, 10.0881, 20.6531, 13.1107, 90.341, -108.091
1.99983, -1, -4.26987, 9.99381, 20.6902, 13.1132, 90.2426, -108.342
2.00776, -1, -4.45545, 9.89948, 20.7274, 13.1155, 90.1438, -108.591
2.0159, -1, -4.64076, 9.80515, 20.7647, 13.1178, 90.0453, -108.841
2.02378, -1, -4.82571, 9.71094, 20.8018, 13.1202, 89.947, -109.09
2.03177, -1, -5.01019, 9.61688, 20.8388, 13.1226, 89.8484, -109.339
2.03986, -1, -5.19395, 9.52282, 20.876, 13.1249, 89.75, -109.589
2.04777, -1, -5.37734, 9.42875, 20.9132, 13.1273, 89.6518, -109.838
2.05577, -1, -5.56029, 9.33485, 20.9502, 13.1296, 89.5533, -110.087
2.06384, -1, -5.74274, 9.24093, 20.9873, 13.1319, 89.4551, -110.336
2.07177, -1, -5.92512, 9.14699, 21.0243, 13.1343, 89.3571, -110.584
2.07976, -1, -6.10746, 9.05315, 21.0613, 13.1364, 89.2588, -110.833
2.08784, -1, -6.2902, 8.95932, 21.0984, 13.1387, 89.1608, -111.081
2.09583, -1, -6.47314, 8.86565, 21.1353, 13.1409, 89.0631, -111.33
2.10379, -1, -6.6563, 8.77199, 21.1721, 13.143, 88.965, -111.578
2.1119, -1, -6.8399, 8.67834, 21.209, 13.1451, 88.867, -111.826
2.11992, -1, -7.02381, 8.58473, 21.246, 13.1472, 88.7693, -112.074
2.12787, -1, -7.20804, 8.49116, 21.2828, 13.1494, 88.6714, -112.322
2.13601, -1, -7.39219, 8.39754, 21.3197, 13.1515, 88.5736, -112.569
2.14387, -1, -7.57602, 8.30391, 21.3566, 13.1536, 88.4761, -112.817
2.15189, -1, -7.75952, 8.21049, 21.3933, 13.1558, 88.3784, -113.064
2.16001, -1, -7.9426, 8.11712, 21.4302, 13.1581, 88.2811, -113.311
2.16783, -1, -8.12517, 8.02378, 21.467, 13.1604, 88.1838, -113.559
2.1758, -1, -8.30699, 7.93048, 21.5037, 13.1626, 88.0863, -113.806
2.18395, -1, -8.48838, 7.83723, 21.5406, 13.1648, 87.9888, -114.053
2.19185, -1, -8.6694, 7.74402, 21.5774, 13.167, 87.8916, -114.299
2.20006, -1, -8.85009, 7.65085, 21.6141, 13.1693, 87.7941, -114.545
2.20675, -1, -8.9404, 7.60428, 21.6325, 13.1705, 87.7453, -114.669
2.21618, -1, -9.21187, 7.4647, 21.6876, 13.1739, 87.5996, -115.038
2.22422, -1, -9.39302, 7.37187, 21.7242, 13.1761, 87.5024, -115.285
2.23077, -1, -9.48381, 7.32546, 21.7426, 13.1771, 87.4539, -115.408
2.24023, -1, -9.75669, 7.1862, 21.7976, 13.1805, 87.3082, -115.777
2.2484, -1, -9.93904, 7.09347, 21.8341, 13.1826, 87.211, -116.023
2.25633, -1, -10.1216, 7.00072, 21.8707, 13.1848, 87.1138, -116.269
2.26448, -1, -10.3043, 6.90794, 21.9074, 13.1871, 87.0168, -116.515
2.27241, -1, -10.4869, 6.8152, 21.9439, 13.1893, 86.9196, -116.76
2.28031, -1, -10.5782, 6.76884, 21.9622, 13.1905, 86.8225, -117.006
2.28776, -1, -10.7601, 6.67619, 21.9988, 13.1928, 86.7742, -117.128
2.29582, -1, -10.9417, 6.5836, 22.0352, 13.1952, 86.6771, -117.374
2.30377, -1, -11.1225, 6.49105, 22.0716, 13.1976, 86.5804, -117.619
2.31176, -1, -11.3027, 6.39856, 22.1083, 13.2, 86.4839, -117.864
2.31983, -1, -11.4824, 6.30608, 22.1447, 13.2025, 86.3871, -118.108
2.32786, -1, -11.6618, 6.21367, 22.1811, 13.2048, 86.2904, -118.353
2.33576, -1, -11.8411, 6.12128, 22.2177, 13.2074, 86.1939, -118.598
2.34376, -1, -12.0202, 6.029, 22.254, 13.2098, 86.0971, -118.842
2.35184, -1, -12.1996, 5.93684, 22.2905, 13.2123, 86.0006, -119.086
2.35981, -1, -12.3792, 5.84482, 22.3269, 13.2148, 85.9044, -119.331
2.36776, -1, -12.5594, 5.75277, 22.3632, 13.2173, 85.808, -119.575
2.37577, -1, -12.7398, 5.66077, 22.3994, 13.2197, 85.7117, -119.819
2.38382, -1, -12.9207, 5.56884, 22.4358, 13.2222, 85.6159, -120.062
2.39188, -1, -13.1019, 5.47691, 22.4721, 13.2246, 85.5198, -120.306
2.39976, -1, -13.2832, 5.38486, 22.5083, 13.227, 85.4238, -120.55
2.40947, -1, -13.4643, 5.29294, 22.5446, 13.2294, 85.3282, -120.793
2.41575, -1, -13.6448, 5.20105, 22.5808, 13.232, 85.2323, -121.036
2.42477, -1, -13.8251, 5.10921, 22.6168, 13.2346, 85.1366, -121.279
2.43074, -1, -14.0047, 5.01742, 22.6531, 13.2372, 85.041, -121.522
2.43975, -1, -14.1834, 4.92571, 22.6892, 13.2397, 84.9453, -121.765
2.44777, -1, -14.3617, 4.83403, 22.7252, 13.2423, 84.8497, -122.008
2.45583, -1, -14.5395, 4.74243, 22.7615, 13.2448, 84.7541, -122.25
2.46375, -1, -14.7172, 4.65082, 22.7977, 13.2473, 84.6585, -122.493
2.47177, -1, -14.8948, 4.5593, 22.8337, 13.2498, 84.5627, -122.735
2.4797, -1, -15.0725, 4.46785, 22.8698, 13.2523, 84.4671, -122.978
2.48778, -1, -15.2505, 4.37657, 22.906, 13.2547, 84.3714, -123.22
2.49584, -1, -15.4289, 4.28521, 22.942, 13.2572, 84.2758, -123.461
2.50376, -1, -15.6079, 4.1939, 22.978, 13.2595, 84.1803, -123.703
2.51177, -1, -15.787, 4.10268, 23.0141, 13.2617, 84.0847, -123.945
2.5199, -1, -15.9662, 4.01147, 23.05, 13.264, 83.9893, -124.186
2.52776, -1, -16.1459, 3.92018, 23.086, 13.2662, 83.8939, -124.428
2.53575, -1, -16.3257, 3.82892, 23.1221, 13.2683, 83.7985, -124.669
2.54385, -1, -16.5051, 3.73772, 23.1579, 13.2705, 83.703, -124.911
2.55176, -1, -16.6841, 3.64659, 23.1937, 13.2728, 83.6077, -125.152
2.55975, -1, -16.8626, 3.55548, 23.2296, 13.275, 83.5123, -125.393
2.56836, -1, -17.0401, 3.46446, 23.2654, 13.2773, 83.4169, -125.634
2.57575, -1, -17.2169, 3.3735, 23.3013, 13.2794, 83.3217, -125.874
2.58376, -1, -17.3935, 3.28262, 23.3372, 13.2817, 83.2266, -126.115
2.59257, -1, -17.5698, 3.19175, 23.3729, 13.2837, 83.1315, -126.356
2.59976, -1, -17.7458, 3.1011, 23.4088, 13.2859, 83.0367, -126.596
2.60785, -1, -17.9218, 3.01048, 23.4447, 13.2879, 82.9419, -126.836
2.61664, -1, -18.0981, 2.92001, 23.4804, 13.2901, 82.847, -127.076
2.62385, -1, -18.2746, 2.82962, 23.5161, 13.2922, 82.7523, -127.316
2.63192, -1, -18.4515, 2.7392, 23.5519, 13.2943, 82.6578, -127.556
2.64068, -1, -18.629, 2.64883, 23.5875, 13.2963, 82.563, -127.796
2.64786, -1, -18.8066, 2.5585, 23.6232, 13.2984, 82.4684, -128.035
2.65594, -1, -18.9847, 2.46802, 23.659, 13.3004, 82.3742, -128.275
2.66464, -1, -19.163, 2.37752, 23.6946, 13.3024, 82.2796, -128.514
2.67179, -1, -19.3411, 2.28715, 23.7302, 13.3044, 82.1853, -128.753
2.67985, -1, -19.5188, 2.19678, 23.7659, 13.3065, 82.0915, -128.992
2.68874, -1, -19.6959, 2.10641, 23.8013, 13.3087, 81.9971, -129.231
2.69593, -1, -19.8724, 2.01611, 23.8367, 13.3109, 81.9029, -129.471
2.70408, -1, -20.0481, 1.92589, 23.8724, 13.313, 81.8091, -129.709
2.71074, -1, -20.1358, 1.88079, 23.8902, 13.3141, 81.762, -129.829
2.71875, -1, -20.3108, 1.79059, 23.9256, 13.3164, 81.6679, -130.067
2.7281, -1, -20.5728, 1.65545, 23.9789, 13.3197, 81.5271, -130.424
2.73478, -1, -20.66, 1.61048, 23.9967, 13.3207, 81.4801, -130.544
2.7444, -1, -20.9219, 1.47559, 24.0498, 13.324, 81.3393, -130.901
2.7523, -1, -21.097, 1.38586, 24.0853, 13.3262, 81.2457, -131.139
2.76029, -1, -21.2723, 1.29612, 24.1208, 13.3284, 81.1518, -131.376
2.76846, -1, -21.448, 1.20643, 24.1561, 13.3306, 81.0578, -131.614
2.77631, -1, -21.536, 1.16162, 24.1915, 13.3328, 80.9641, -131.852
2.78689, -1, -21.7121, 1.07199, 24.2093, 13.3338, 80.9173, -131.971
2.79172, -1, -21.8884, 0.982282, 24.2447, 13.336, 80.8234, -132.208
2.79974, -1, -22.0649, 0.892686, 24.28, 13.3381, 80.7296, -132.445
2.80779, -1, -22.2415, 0.803138, 24.3154, 13.3403, 80.6362, -132.682
2.81473, -1, -22.4179, 0.713633, 24.3507, 13.3424, 80.5424, -132.92
2.82377, -1, -22.5936, 0.624101, 24.3859, 13.3448, 80.4488, -133.156
2.83184, -1, -22.7689, 0.534676, 24.4211, 13.3472, 80.3554, -133.393
2.83874, -1, -22.9433, 0.445255, 24.4564, 13.3496, 80.2616, -133.63
2.84774, -1, -23.1171, 0.355842, 24.4916, 13.352, 80.1681, -133.867
2.85585, -1, -23.2906, 0.266517, 24.5267, 13.3545, 80.0748, -134.104
2.86274, -1, -23.4637, 0.177241, 24.562, 13.3569, 79.9811, -134.34
2.87174, -1, -23.6369, 0.0880744, 24.5971, 13.3593, 79.8879, -134.576
2.8798, -1, -23.8103, -0.00105536, 24.6323, 13.3616, 79.7948, -134.812
2.88675, -1, -23.9837, -0.0900215, 24.6675, 13.3642, 79.7016, -135.048
2.89574, -1, -24.1573, -0.178986, 24.7025, 13.3666, 79.6085, -135.284
2.90274, -1, -24.3313, -0.26795, 24.7376, 13.369, 79.5155, -135.52
2.91174, -1, -24.5056, -0.356815, 24.7728, 13.3715, 79.4224, -135.755
2.92072, -1, -24.6803, -0.445696, 24.8078, 13.3739, 79.3293, -135.991
2.92781, -1, -24.8552, -0.534584, 24.8428, 13.3763, 79.2363, -136.227
2.93678, -1, -25.0303, -0.623433, 24.8779, 13.3787, 79.1433, -136.462
2.94375, -1, -25.2052, -0.712275, 24.9129, 13.381, 79.0503, -136.697
2.95181, -1, -25.3797, -0.80102, 24.9479, 13.3834, 78.9577, -136.932
2.95974, -1, -25.5538, -0.889831, 24.983, 13.3859, 78.8651, -137.167
2.96775, -1, -25.7273, -0.978558, 25.0178, 13.3883, 78.7723, -137.402
2.9758, -1, -25.9002, -1.06725, 25.0527, 13.3907, 78.6797, -137.636
2.98376, -1, -26.0726, -1.15597, 25.0877, 13.3932, 78.5875, -137.871
2.99175, -1, -26.2447, -1.24464, 25.1227, 13.3956, 78.4947, -138.105
2.99981, -1, -26.4164, -1.33314, 25.1575, 13.398, 78.4021, -138.34
3.00774, -1, -26.5883, -1.42157, 25.1925, 13.4003, 78.3099, -138.574
3.01581, -1, -26.7604, -1.50993, 25.2274, 13.4025, 78.2173, -138.809
3.02381, -1, -26.9326, -1.5981, 25.2623, 13.4048, 78.1249, -139.042
3.03174, -1, -27.1051, -1.68626, 25.2971, 13.407, 78.0328, -139.276
3.0398, -1, -27.2777, -1.77452, 25.332, 13.4091, 77.9405, -139.51
3.04776, -1, -27.4506, -1.86261, 25.3668, 13.4114, 77.8485, -139.744
3.05574, -1, -27.6238, -1.9507, 25.4015, 13.4134, 77.7565, -139.977
3.06382, -1, -27.797, -2.03892, 25.4365, 13.4156, 77.6645, -140.211
3.07173, -1, -27.9703, -2.12697, 25.4712, 13.4177, 77.5725, -140.444
3.07974, -1, -28.1436, -2.215, 25.5059, 13.4197, 77.4804, -140.678
3.08781, -1, -28.3166, -2.30305, 25.5408, 13.4217, 77.3884, -140.911
3.09574, -1, -28.4893, -2.39112, 25.5755, 13.4237, 77.2963, -141.144
3.10374, -1, -28.6617, -2.47905, 25.6101, 13.4259, 77.2043, -141.377
3.11184, -1, -28.8334, -2.56706, 25.6448, 13.428, 77.1123, -141.61
3.11982, -1, -29.0045, -2.65505, 25.6795, 13.4302, 77.0204, -141.842
3.12789, -1, -29.1751, -2.74291, 25.714, 13.4324, 76.9284, -142.075
3.13583, -1, -29.3456, -2.83076, 25.7487, 13.4344, 76.8368, -142.307
3.14388, -1, -29.5164, -2.91847, 25.7833, 13.4365, 76.7447, -142.54
3.15191, -1, -29.6873, -3.00607, 25.8178, 13.4385, 76.6529, -142.772
3.15987, -1, -29.8584, -3.0936, 25.8523, 13.4406, 76.5613, -143.005
3.16774, -1, -30.0294, -3.18105, 25.8869, 13.4427, 76.4693, -143.237
3.17653, -1, -30.2003, -3.26856, 25.9214, 13.4447, 76.3777, -143.468
3.18398, -1, -30.3715, -3.35596, 25.9559, 13.4468, 76.2862, -143.7
3.19076, -1, -30.4572, -3.39966, 25.9732, 13.4479, 76.2405, -143.816
3.2007, -1, -30.7148, -3.53089, 26.0249, 13.4509, 76.1031, -144.164
3.20793, -1, -30.8867, -3.61824, 26.0593, 13.4529, 76.0119, -144.395
3.21479, -1, -30.9726, -3.66194, 26.0766, 13.4539, 75.9662, -144.511
3.22502, -1, -31.2301, -3.79295, 26.1283, 13.457, 75.829, -144.858
3.23226, -1, -31.4015, -3.88028, 26.1627, 13.459, 75.7377, -145.089
3.24023, -1, -31.5723, -3.96756, 26.1971, 13.4612, 75.6465, -145.32
3.24905, -1, -31.7428, -4.05478, 26.2315, 13.4634, 75.5552, -145.551
3.25627, -1, -31.9128, -4.14208, 26.2659, 13.4656, 75.4641, -145.782
3.26432, -1, -32.0824, -4.22927, 26.3003, 13.4678, 75.3731, -146.013
3.27313, -1, -32.2518, -4.31637, 26.3347, 13.47, 75.2819, -146.244
3.2788, -1, -32.3365, -4.35993, 26.3518, 13.4711, 75.2364, -146.359
3.28852, -1, -32.591, -4.49041, 26.4032, 13.4743, 75.1004, -146.705
3.29573, -1, -32.6758, -4.53386, 26.4205, 13.4753, 75.0548, -146.82
3.30278, -1, -32.8455, -4.6208, 26.4548, 13.4775, 74.964, -147.05
3.31177, -1, -33.0152, -4.7077, 26.489, 13.4797, 74.8732, -147.281
3.31973, -1, -33.1849, -4.79459, 26.5233, 13.4819, 74.7827, -147.511
3.3268, -1, -33.3548, -4.88139, 26.5576, 13.4841, 74.692, -147.741
3.33578, -1, -33.525, -4.96831, 26.5918, 13.4863, 74.6013, -147.971
3.34373, -1, -33.6953, -5.05519, 26.626, 13.4885, 74.511, -148.201
3.35074, -1, -33.8656, -5.14193, 26.6603, 13.4908, 74.4203, -148.43
3.35979, -1, -34.0358, -5.22865, 26.6945, 13.493, 74.3298, -148.66
3.36773, -1, -34.206, -5.31542, 26.7286, 13.4952, 74.2394, -148.889
3.37472, -1, -34.3761, -5.40208, 26.7629, 13.4975, 74.1487, -149.119
3.38374, -1, -34.5459, -5.48872, 26.7971, 13.4998, 74.0581, -149.348
3.39173, -1, -34.7151, -5.57542, 26.8311, 13.5022, 73.9677, -149.577
3.39875, -1, -34.8838, -5.66204, 26.8653, 13.5046, 73.877, -149.807
3.40771, -1, -35.0523, -5.74859, 26.8995, 13.5071, 73.7865, -150.035
3.41574, -1, -35.2205, -5.83509, 26.9335, 13.5095, 73.6963, -150.264
3.42471, -1, -35.3889, -5.92146, 26.9676, 13.5119, 73.606, -150.493
3.43171, -1, -35.5575, -6.00765, 27.0018, 13.5143, 73.5156, -150.722
3.4399, -1, -35.7259, -6.09389, 27.0357, 13.5166, 73.4252, -150.951
3.44876, -1, -35.8944, -6.18009, 27.0698, 13.519, 73.3351, -151.179
3.45573, -1, -36.063, -6.26617, 27.1039, 13.5214, 73.2445, -151.408
3.46459, -1, -36.2314, -6.35226, 27.1378, 13.5238, 73.1541, -151.637
3.47071, -1, -36.4001, -6.43847, 27.1718, 13.5263, 73.064, -151.865
3.47972, -1, -36.569, -6.52469, 27.2058, 13.5286, 72.9733, -152.093
3.48854, -1, -36.7379, -6.61088, 27.2398, 13.5309, 72.8832, -152.321
3.49574, -1, -36.9068, -6.69703, 27.2736, 13.5332, 72.7932, -152.549
3.50371, -1, -37.0757, -6.7832, 27.3076, 13.5355, 72.703, -152.778
3.51547, -1, -37.3288, -6.91238, 27.3584, 13.5389, 72.5681, -153.119
3.51971, -1, -37.4131, -6.95538, 27.3754, 13.54, 72.5233, -153.233
3.52778, -1, -37.5812, -7.04145, 27.4094, 13.5423, 72.4333, -153.461
3.53581, -1, -37.749, -7.1275, 27.4434, 13.5445, 72.3435, -153.688
3.54371, -1, -37.9166, -7.21343, 27.4772, 13.5467, 72.2537, -153.916
3.55175, -1, -38.084, -7.29933, 27.5111, 13.5489, 72.164, -154.143
3.55979, -1, -38.2515, -7.38521, 27.545, 13.5511, 72.0742, -154.37
3.56771, -1, -38.4189, -7.47092, 27.5788, 13.5533, 71.9845, -154.598
3.57572, -1, -38.586, -7.5566, 27.6127, 13.5553, 71.8951, -154.825
3.58379, -1, -38.7533, -7.64236, 27.6466, 13.5574, 71.8054, -155.052
3.59172, -1, -38.9206, -7.72804, 27.6803, 13.5595, 71.7159, -155.279
3.59987, -1, -39.0879, -7.81367, 27.714, 13.5616, 71.6268, -155.506
3.60771, -1, -39.2554, -7.89931, 27.7479, 13.5636, 71.5372, -155.733
3.61575, -1, -39.423, -7.98503, 27.7817, 13.5656, 71.4479, -155.96
3.62403, -1, -39.5906, -8.07062, 27.8153, 13.5675, 71.3586, -156.186
3.63183, -1, -39.7583, -8.15617, 27.849, 13.5694, 71.2693, -156.413
3.63982, -1, -39.9259, -8.24162, 27.8828, 13.5714, 71.18, -156.639
3.6482, -1, -40.0934, -8.32708, 27.9164, 13.5734, 71.0906, -156.865
3.65531, -1, -40.1772, -8.36976, 27.9501, 13.5753, 71.0015, -157.092
3.6638, -1, -40.4281, -8.49781, 27.9838, 13.5773, 70.9119, -157.318
3.67249, -1, -40.5951, -8.58317, 28.0175, 13.5793, 70.8228, -157.544
3.67975, -1, -40.7619, -8.66856, 28.051, 13.5813, 70.7338, -157.77
3.68779, -1, -40.9285, -8.75385, 28.0847, 13.5833, 70.6445, -157.996
3.69668, -1, -41.0949, -8.83915, 28.1184, 13.5853, 70.5554, -158.222
3.70386, -1, -41.2612, -8.9244, 28.1519, 13.5873, 70.4664, -158.448
3.71202, -1, -41.4274, -9.00951, 28.1855, 13.5894, 70.3772, -158.673
3.7187, -1, -41.5105, -9.05208, 28.2023, 13.5903, 70.3326, -158.786
3.72696, -1, -41.6768, -9.1372, 28.236, 13.5923, 70.2434, -159.011
3.73619, -1, -41.9264, -9.26482, 28.2863, 13.5953, 70.1098, -159.35
3.74513, -1, -42.0928, -9.34985, 28.3199, 13.5973, 70.0208, -159.575
3.75076, -1, -42.176, -9.3924, 28.3367, 13.5984, 69.9763, -159.688
3.76034, -1, -42.4254, -9.52, 28.3869, 13.6014, 69.8431, -160.026
3.76913, -1, -42.5917, -9.60495, 28.4205, 13.6034, 69.754, -160.251
3.77477, -1, -42.6749, -9.64742, 28.4372, 13.6045, 69.7096, -160.363
3.7844, -1, -42.9246, -9.77488, 28.4873, 13.6075, 69.5765, -160.701
3.79246, -1, -43.0078, -9.81732, 28.5041, 13.6086, 69.532, -160.814
3.79971, -1, -43.174, -9.90222, 28.5376, 13.6106, 69.4433, -161.038
3.80677, -1, -43.3401, -9.98715, 28.5711, 13.6127, 69.3545, -161.263
3.81682, -1, -43.5891, -10.1145, 28.6213, 13.6158, 69.2217, -161.6
3.8237, -1, -43.6721, -10.157, 28.638, 13.6168, 69.1773, -161.713
3.8307, -1, -43.8381, -10.2419, 28.6715, 13.6189, 69.0889, -161.937
3.8397, -1, -44.0038, -10.3266, 28.7048, 13.6211, 69.0005, -162.162
3.8477, -1, -44.1692, -10.4114, 28.7383, 13.6232, 68.9118, -162.386
3.85579, -1, -44.3344, -10.496, 28.7718, 13.6255, 68.8232, -162.61
3.86377, -1, -44.4996, -10.5806, 28.8051, 13.6277, 68.7347, -162.835
3.87171, -1, -44.6648, -10.6652, 28.8384, 13.6298, 68.646, -163.059
3.87976, -1, -44.8301, -10.7497, 28.8719, 13.632, 68.5575, -163.283
3.8877, -1, -44.9955, -10.8341, 28.9053, 13.6342, 68.469, -163.507
3.8957, -1, -45.1608, -10.9187, 28.9387, 13.6364, 68.3808, -163.731
3.90378, -1, -45.3261, -11.0032, 28.9721, 13.6386, 68.2922, -163.955
3.91171, -1, -45.4913, -11.0876, 29.0055, 13.6409, 68.2039, -164.179
3.9197, -1, -45.6566, -11.1721, 29.0386, 13.6432, 68.1159, -164.403
3.92968, -1, -45.9042, -11.2986, 29.0887, 13.6466, 67.9832, -164.738
3.9357, -1, -45.986, -11.3404, 29.1054, 13.6477, 67.939, -164.85
3.94469, -1, -46.1474, -11.4228, 29.1388, 13.65, 67.851, -165.073
3.95181, -1, -46.3045, -11.5022, 29.1724, 13.6525, 67.7635, -165.294
3.9597, -1, -46.4548, -11.5773, 29.2059, 13.6548, 67.6783, -165.51
3.9677, -1, -46.596, -11.6471, 29.2381, 13.6571, 67.5968, -165.715
3.97578, -1, -46.7256, -11.7105, 29.268, 13.6593, 67.5222, -165.905
3.98374, -1, -46.8407, -11.7667, 29.2944, 13.6613, 67.4551, -166.074
3.99171, -1, -46.9394, -11.8158, 29.3166, 13.663, 67.3993, -166.216
3.9998, -1, -47.022, -11.8588, 29.3332, 13.6643, 67.3545, -166.329
4.0077, -1, -47.0893, -11.8956, 29.3444, 13.665, 67.3208, -166.414
4.0157, -1, -47.1417, -11.925, 29.3517, 13.6655, 67.2975, -166.473
4.02378, -1, -47.1806, -11.9472, 29.3556, 13.6657, 67.2824, -166.51
4.03174, -1, -47.2081, -11.9627, 29.3574, 13.6658, 67.2737, -166.533
4.03969, -1, -47.2263, -11.9727, 29.3582, 13.6659, 67.2689, -166.545
4.04777, -1, -47.2372, -11.9786, 29.3586, 13.6659, 67.2666, -166.55
4.05567, 2, -47.2428, -11.9815, 29.3588, 13.666, 67.2655, -166.553
4.06369, 2, -47.2449, -11.9828, 29.359, 13.666, 67.2649, -166.554
4.07178, 2, -47.245, -11.9834, 29.3591, 13.666, 67.2647, -166.555
4.07969, 2, -47.2448, -11.9835, 29.3591, 13.6661, 67.2646, -166.555
4.08769, 2, -47.2447, -11.9836, 29.3592, 13.6661, 67.2645, -166.555
4.09578, 2, -47.2451, -11.9837, 29.3592, 13.6661, 67.2645, -166.555
4.1037, 2, -47.246, -11.9839, 29.3593, 13.666, 67.2645, -166.555
4.11174, 2, -47.2472, -11.9844, 29.3593, 13.666, 67.2645, -166.556
4.11985, 2, -47.249, -11.9852, 29.3593, 13.6661, 67.2645, -166.556
4.12779, 2, -47.2507, -11.9861, 29.3593, 13.6661, 67.2645, -166.556
4.1358, 2, -47.252, -11.9869, 29.3593, 13.666, 67.2645, -166.556
4.14387, 2, -47.2529, -11.9876, 29.3593, 13.666, 67.2645, -166.555
4.15151, 2, -47.2534, -11.988, 29.3593, 13.666, 67.2645, -166.556
4.15983, 2, -47.2535, -11.9882, 29.3593, 13.6661, 67.2645, -166.556
4.16793, 2, -47.2536, -11.9883, 29.3593, 13.6661, 67.2645, -166.556
4.1757, 2, -47.2533, -11.9882, 29.3593, 13.6661, 67.2645, -166.555
4.18372, 2, -47.2528, -11.9882, 29.3593, 13.6661, 67.2645, -166.555
4.19188, 2, -47.2524, -11.9882, 29.3593, 13.6661, 67.2645, -166.555
4.20004, 2, -47.2521, -11.9882, 29.3593, 13.6661, 67.2645, -166.555
4.20681, 2, -47.252, -11.9882, 29.3593, 13.6661, 67.2644, -166.555
4.21604, 2, -47.2519, -11.9883, 29.3593, 13.6661, 67.2645, -166.555
4.22269, 2, -47.2519, -11.9883, 29.3593, 13.6661, 67.2645, -166.555
4.23215, 2, -47.2522, -11.9887, 29.3593, 13.6661, 67.2645, -166.555
4.23869, 2, -47.2524, -11.9889, 29.3593, 13.6661, 67.2645, -166.555
4.24828, 2, -47.2533, -11.9894, 29.3593, 13.6661, 67.2645, -166.555
4.25619, 2, -47.2536, -11.9896, 29.3593, 13.6661, 67.2644, -166.555
4.26435, 2, -47.2538, -11.9897, 29.3593, 13.6661, 67.2645, -166.555
4.27225, 2, -47.2538, -11.9897, 29.3593, 13.6661, 67.2645, -166.555
4.28026, 2, -47.2538, -11.9896, 29.3593, 13.6661, 67.2645, -166.555
4.28841, 2, -47.2537, -11.9896, 29.3593, 13.6661, 67.2645, -166.555
4.29569, 2, -47.2533, -11.9896, 29.3593, 13.6661, 67.2645, -166.555
4.30368, 2, -47.2529, -11.9896, 29.3593, 13.666, 67.2645, -166.555
4.31176, 2, -47.2527, -11.9895, 29.3593, 13.666, 67.2645, -166.555
4.31968, 2, -47.2525, -11.9895, 29.3593, 13.6661, 67.2645, -166.555
4.32768, 2, -47.2523, -11.9895, 29.3594, 13.666, 67.2645, -166.555
4.33577, 2, -47.2522, -11.9895, 29.3593, 13.6661, 67.2645, -166.555
4.34368, 2, -47.2522, -11.9896, 29.3593, 13.6661, 67.2645, -166.555
4.3517, 2, -47.2522, -11.9897, 29.3593, 13.6661, 67.2646, -166.555
4.35977, 2, -47.2522, -11.9898, 29.3593, 13.6661, 67.2645, -166.555
4.36776, 2, -47.2522, -11.9898, 29.3593, 13.6661, 67.2645, -166.555
4.37568, 2, -47.2522, -11.9898, 29.3593, 13.6661, 67.2645, -166.555
4.38375, 2, -47.2522, -11.9897, 29.3593, 13.666, 67.2645, -166.555
4.39169, 2, -47.2521, -11.9897, 29.3593, 13.666, 67.2645, -166.555
4.39968, 2, -47.2521, -11.9896, 29.3593, 13.666, 67.2645, -166.555
4.40676, 2, -47.2519, -11.9895, 29.3593, 13.666, 67.2645, -166.555
4.41568, 2, -47.2518, -11.9895, 29.3593, 13.666, 67.2645, -166.555
4.42368, 2, -47.2517, -11.9895, 29.3593, 13.666, 67.2646, -166.555
4.43177, 2, -47.2516, -11.9895, 29.3593, 13.666, 67.2645, -166.555
4.44075, 2, -47.2516, -11.9895, 29.3593, 13.666, 67.2645, -166.555
4.44768, 2, -47.2515, -11.9895, 29.3593, 13.666, 67.2645, -166.555
4.45578, 2, -47.2515, -11.9895, 29.3593, 13.666, 67.2645, -166.555
4.46368, 2, -47.2514, -11.9895, 29.3593, 13.666, 67.2645, -166.555
4.47169, 2, -47.2514, -11.9895, 29.3593, 13.666, 67.2645, -166.555
4.47976, 2, -47.2513, -11.9895, 29.3593, 13.666, 67.2645, -166.555
4.48767, 2, -47.2512, -11.9895, 29.3593, 13.6661, 67.2645, -166.555
4.49568, 2, -47.2511, -11.9894, 29.3593, 13.666, 67.2645, -166.555
4.50378, 2, -47.251, -11.9894, 29.3593, 13.666, 67.2645, -166.555
4.51169, 2, -47.2509, -11.9893, 29.3593, 13.666, 67.2646, -166.555
4.51973, 2, -47.2508, -11.9893, 29.3593, 13.666, 67.2646, -166.555
4.52776, 2, -47.2507, -11.9892, 29.3593, 13.666, 67.2646, -166.555
4.53575, 2, -47.2507, -11.9892, 29.3593, 13.666, 67.2646, -166.555
4.54379, 2, -47.2506, -11.9892, 29.3593, 13.666, 67.2646, -166.555
4.55177, 2, -47.2505, -11.9892, 29.3593, 13.666, 67.2646, -166.555
4.55968, 2, -47.2504, -11.9892, 29.3593, 13.666, 67.2646, -166.555
4.56768, 2, -47.2503, -11.9892, 29.3593, 13.666, 67.2646, -166.555
4.57578, 2, -47.2501, -11.9892, 29.3593, 13.666, 67.2645, -166.555
4.58368, 2, -47.25, -11.9892, 29.3593, 13.6659, 67.2646, -166.555
4.59169, 2, -47.2499, -11.9892, 29.3593, 13.6659, 67.2646, -166.555
4.59977, 2, -47.2498, -11.9891, 29.3593, 13.6659, 67.2646, -166.555
4.60772, 2, -47.2497, -11.9891, 29.3593, 13.6659, 67.2647, -166.555
4.61571, 2, -47.2496, -11.989, 29.3593, 13.6659, 67.2646, -166.555
4.62386, 2, -47.2495, -11.9889, 29.3593, 13.6659, 67.2646, -166.555
4.63179, 2, -47.2494, -11.9889, 29.3593, 13.6659, 67.2647, -166.555
4.63979, 2, -47.2493, -11.9889, 29.3593, 13.6659, 67.2647, -166.555
4.64785, 2, -47.2492, -11.9889, 29.3593, 13.6659, 67.2647, -166.555
4.65579, 2, -47.2491, -11.9889, 29.3593, 13.6658, 67.2647, -166.555
4.66378, 2, -47.2491, -11.9889, 29.3593, 13.6658, 67.2647, -166.555
4.6719, 2, -47.249, -11.9889, 29.3593, 13.6659, 67.2647, -166.555
4.6797, 2, -47.249, -11.9889, 29.3593, 13.6659, 67.2647, -166.555
4.68771, 2, -47.2489, -11.9889, 29.3593, 13.6658, 67.2647, -166.555
4.69582, 2, -47.2489, -11.9888, 29.3593, 13.6658, 67.2647, -166.555
4.70386, 2, -47.2488, -11.9888, 29.3593, 13.6658, 67.2647, -166.555
4.71185, 2, -47.2488, -11.9887, 29.3593, 13.6658, 67.2647, -166.555
4.7203, 2, -47.2487, -11.9886, 29.3593, 13.6658, 67.2647, -166.555
4.72802, 2, -47.2486, -11.9886, 29.3593, 13.6658, 67.2647, -166.555
4.73487, 2, -47.2486, -11.9886, 29.3593, 13.6658, 67.2647, -166.555
4.74451, 2, -47.2484, -11.9885, 29.3593, 13.6658, 67.2647, -166.555
4.7522, 2, -47.2484, -11.9885, 29.3593, 13.6658, 67.2647, -166.555
4.76019, 2, -47.2484, -11.9885, 29.3593, 13.6658, 67.2647, -166.555
4.76865, 2, -47.2483, -11.9885, 29.3593, 13.6658, 67.2647, -166.555
4.77625, 2, -47.2483, -11.9885, 29.3593, 13.6658, 67.2647, -166.555
4.78424, 2, -47.2483, -11.9885, 29.3593, 13.6658, 67.2647, -166.555
4.79255, 2, -47.2483, -11.9885, 29.3593, 13.6658, 67.2647, -166.555
4.79967, 2, -47.2483, -11.9885, 29.3593, 13.6658, 67.2647, -166.555
4.80767, 2, -47.2482, -11.9884, 29.3593, 13.6658, 67.2648, -166.555
4.81658, 2, -47.2481, -11.9883, 29.3593, 13.6657, 67.2647, -166.554
4.82367, 2, -47.2481, -11.9883, 29.3593, 13.6657, 67.2647, -166.554
4.83168, 2, -47.248, -11.9882, 29.3593, 13.6657, 67.2648, -166.554
4.83974, 2, -47.2479, -11.9882, 29.3593, 13.6656, 67.2648, -166.554
4.84767, 2, -47.2479, -11.9882, 29.3593, 13.6656, 67.2648, -166.554
4.85567, 2, -47.2478, -11.9881, 29.3593, 13.6656, 67.2648, -166.554
4.86373, 2, -47.2477, -11.9881, 29.3593, 13.6657, 67.2648, -166.554
4.87175, 2, -47.2477, -11.9881, 29.3593, 13.6656, 67.2648, -166.554
4.87967, 2, -47.2477, -11.9881, 29.3593, 13.6656, 67.2648, -166.554
4.88772, 2, -47.2476, -11.9881, 29.3593, 13.6656, 67.2648, -166.554
4.89567, 2, -47.2476, -11.9881, 29.3593, 13.6656, 67.2648, -166.554
4.90366, 2, -47.2476, -11.9881, 29.3593, 13.6656, 67.2649, -166.554
4.91067, 2, -47.2476, -11.9881, 29.3593, 13.6656, 67.2649, -166.554
4.91967, 2, -47.2475, -11.988, 29.3593, 13.6656, 67.2649, -166.554
4.92867, 2, -47.2475, -11.9879, 29.3593, 13.6656, 67.2649, -166.554
4.93573, 2, -47.2474, -11.9879, 29.3593, 13.6656, 67.265, -166.554
4.94367, 2, -47.2473, -11.9878, 29.3593, 13.6656, 67.265, -166.554
4.95168, 2, -47.2472, -11.9878, 29.3593, 13.6655, 67.2649, -166.554
4.95976, 2, -47.2471, -11.9878, 29.3593, 13.6655, 67.2649, -166.554
4.96767, 2, -47.2471, -11.9878, 29.3593, 13.6655, 67.2649, -166.554
4.97566, 2, -47.2471, -11.9878, 29.3593, 13.6655, 67.265, -166.554
4.98373, 2, -47.2471, -11.9877, 29.3593, 13.6655, 67.265, -166.554
4.99168, 2, -47.2471, -11.9877, 29.3593, 13.6655, 67.265, -166.554
4.99966, 2, -47.2471, -11.9877, 29.3593, 13.6655, 67.265, -166.554
5.00776, 2, -47.247, -11.9877, 29.3593, 13.6655, 67.265, -166.554
5.01567, 2, -47.247, -11.9877, 29.3593, 13.6654, 67.265, -166.554
5.02366, 2, -47.2469, -11.9876, 29.3593, 13.6654, 67.265, -166.554
5.03174, 2, -47.2469, -11.9875, 29.3593, 13.6654, 67.265, -166.554
5.03972, 2, -47.2468, -11.9875, 29.3593, 13.6654, 67.265, -166.554
5.04778, 2, -47.2467, -11.9875, 29.3593, 13.6654, 67.2651, -166.554
5.05588, 2, -47.2466, -11.9875, 29.3593, 13.6653, 67.2651, -166.554
5.06377, 2, -47.2466, -11.9874, 29.3593, 13.6653, 67.2651, -166.554
5.07167, 2, -47.2465, -11.9874, 29.3593, 13.6653, 67.2651, -166.554
5.07966, 2, -47.2465, -11.9874, 29.3593, 13.6653, 67.2651, -166.554
5.08774, 2, -47.2464, -11.9874, 29.3593, 13.6653, 67.2651, -166.554
5.09567, 2, -47.2464, -11.9874, 29.3593, 13.6652, 67.265, -166.554
5.10366, 2, -47.2464, -11.9874, 29.3593, 13.6652, 67.2651, -166.554
5.1118, 2, -47.2464, -11.9874, 29.3593, 13.6652, 67.2651, -166.554
5.1197, 2, -47.2464, -11.9873, 29.3593, 13.6652, 67.2651, -166.554
5.12778, 2, -47.2464, -11.9873, 29.3593, 13.6652, 67.2652, -166.554
5.13605, 2, -47.2463, -11.9872, 29.3593, 13.6652, 67.2651, -166.554
5.14319, 4, -47.2462, -11.9872, 29.3593, 13.6652, 67.2651, -166.554
5.15179, 4, -47.2461, -11.9872, 29.3593, 13.6652, 67.2651, -166.554
5.15984, 4, -47.246, -11.9871, 29.3593, 13.6652, 67.2652, -166.554
5.16773, 4, -47.246, -11.9871, 29.3593, 13.6651, 67.2651, -166.554
5.17569, 4, -47.2459, -11.9871, 29.3593, 13.6651, 67.2651, -166.554
5.18377, 4, -47.2459, -11.9871, 29.3593, 13.6651, 67.2652, -166.554
5.19171, 4, -47.2459, -11.9871, 29.3593, 13.6651, 67.2652, -166.554
5.19971, 4, -47.2458, -11.987, 29.3593, 13.6651, 67.2653, -166.553
5.20795, 4, -47.2458, -11.987, 29.3593, 13.6651, 67.2653, -166.554
5.21597, 4, -47.2458, -11.987, 29.3593, 13.6651, 67.2653, -166.554
5.22271, 4, -47.2458, -11.987, 29.3593, 13.665, 67.2653, -166.554
5.23211, 4, -47.2458, -11.9869, 29.3593, 13.6651, 67.2653, -166.554
5.239, 4, -47.2457, -11.9869, 29.3593, 13.665, 67.2653, -166.553
5.25453, 4, -47.2457, -11.9868, 29.3593, 13.6649, 67.2653, -166.553
5.25722, 4, -47.2456, -11.9868, 29.3593, 13.665, 67.2653, -166.553
5.26467, 4, -47.2455, -11.9868, 29.3593, 13.665, 67.2653, -166.553
5.27314, 4, -47.2455, -11.9868, 29.3593, 13.665, 67.2653, -166.553
5.28052, 4, -47.2454, -11.9868, 29.3593, 13.665, 67.2653, -166.553
5.28856, 4, -47.2454, -11.9868, 29.3593, 13.665, 67.2653, -166.553
5.29654, 4, -47.2454, -11.9868, 29.3593, 13.665, 67.2653, -166.553
5.30526, 4, -47.2453, -11.9868, 29.3593, 13.665, 67.2653, -166.553
5.31273, 4, -47.2453, -11.9868, 29.3593, 13.665, 67.2654, -166.553
5.32142, 4, -47.2453, -11.9867, 29.3593, 13.665, 67.2654, -166.553
5.32788, 4, -47.2453, -11.9867, 29.3593, 13.6649, 67.2654, -166.553
5.33741, 4, -47.2453, -11.9866, 29.3593, 13.6649, 67.2654, -166.553
5.34385, 4, -47.2453, -11.9866, 29.3593, 13.6649, 67.2654, -166.553
5.35188, 4, -47.2452, -11.9866, 29.3593, 13.6649, 67.2654, -166.553
5.36231, 4, -47.2451, -11.9865, 29.3593, 13.6649, 67.2654, -166.553
5.36788, 4, -47.2451, -11.9865, 29.3593, 13.6649, 67.2654, -166.553
5.37589, 4, -47.245, -11.9865, 29.3593, 13.6648, 67.2653, -166.553
5.3859, 4, -47.2449, -11.9865, 29.3593, 13.6648, 67.2653, -166.553
5.39337, 4, -47.2449, -11.9865, 29.3593, 13.6649, 67.2653, -166.553
5.39982, 4, -47.2449, -11.9865, 29.3593, 13.6649, 67.2653, -166.553
5.40782, 4, -47.2449, -11.9865, 29.3593, 13.6648, 67.2653, -166.553
5.41862, 4, -47.246, -11.987, 29.3597, 13.665, 67.2655, -166.553
5.42591, 4, -47.2482, -11.9887, 29.3616, 13.6667, 67.2661, -166.553
5.43553, 4, -47.2524, -11.9932, 29.3672, 13.6764, 67.2684, -166.552
5.44078, 4, -47.2555, -11.997, 29.3724, 13.6865, 67.2709, -166.55
5.45077, 4, -47.271, -12.0173, 29.4045, 13.7503, 67.2883, -166.537
5.45581, 5, -47.2791, -12.0281, 29.4232, 13.7884, 67.2989, -166.528
5.46661, 5, -47.3158, -12.0771, 29.514, 13.9778, 67.3522, -166.485
5.47188, 5, -47.3329, -12.0995, 29.5585, 14.0721, 67.3783, -166.464
5.48009, 5, -47.3761, -12.155, 29.6731, 14.3169, 67.4458, -166.407
5.4878, 5, -47.4321, -12.2252, 29.8238, 14.6437, 67.5352, -166.332
5.49687, 5, -47.5008, -12.3106, 30.0128, 15.0546, 67.6459, -166.238
5.50734, 5, -47.6267, -12.4665, 30.3672, 15.8184, 67.8493, -166.064
5.51408, 5, -47.6743, -12.5253, 30.5021, 16.1064, 68.0043, -165.93
5.52364, 5, -47.831, -12.7195, 30.9501, 17.0453, 68.1689, -165.788
5.52781, 5, -47.8872, -12.7893, 31.1108, 17.3772, 68.2536, -165.715
5.53849, 5, -48.0632, -13.0097, 31.6172, 18.4027, 68.5107, -165.492
5.54395, 5, -48.1234, -13.0856, 31.7912, 18.7498, 68.5962, -165.417
5.5528, 5, -48.2442, -13.2389, 32.1437, 19.4452, 68.765, -165.269
5.55961, 5, -48.3629, -13.3911, 32.4983, 20.132, 68.9299, -165.122
5.56779, 5, -48.476, -13.5397, 32.8512, 20.8009, 69.0911, -164.969
5.57584, 6, -48.5791, -13.6811, 33.1956, 21.4403, 69.2499, -164.8
5.58435, 6, -48.6679, -13.8123, 33.5266, 22.0386, 69.4082, -164.604
5.59655, 7, -48.7657, -13.99, 33.9879, 22.8468, 69.6504, -164.226
5.60048, 7, -48.7876, -14.045, 34.1317, 23.0908, 69.7337, -164.072
5.61195, 7, -48.8214, -14.1968, 34.5316, 23.7558, 69.9963, -163.507
5.61582, 8, -48.8227, -14.2425, 34.6556, 23.959, 70.0893, -163.285
5.62573, 8, -48.812, -14.3267, 34.8929, 24.345, 70.284, -162.789
5.6352, 9, -48.7683, -14.4387, 35.2278, 24.893, 70.5987, -161.941
5.64209, 9, -48.7479, -14.4733, 35.3361, 25.0719, 70.709, -161.638
5.64768, 10, -48.6997, -14.5398, 35.5508, 25.4284, 70.9364, -161.011
5.6563, 10, -48.6422, -14.6036, 35.7643, 25.7856, 71.1706, -160.368
5.66713, 11, -48.5771, -14.665, 35.9775, 26.1447, 71.4085, -159.72
5.67255, 11, -48.5062, -14.7253, 36.1913, 26.5066, 71.6472, -159.075
5.68115, 12, -48.4308, -14.786, 36.404, 26.873, 71.8861, -158.432
5.68857, 12, -48.3526, -14.8477, 36.6144, 27.2449, 72.1252, -157.79
5.69615, 13, -48.2733, -14.9089, 36.8234, 27.6236, 72.3652, -157.146
5.71079, 13, -48.1512, -14.9979, 37.1333, 28.2044, 72.7281, -156.174
5.71351, 14, -48.1095, -15.0276, 37.2355, 28.401, 72.8497, -155.849
5.72091, 14, -48.0233, -15.0877, 37.4394, 28.7981, 73.0945, -155.196
5.73087, 15, -47.9335, -15.1482, 37.6425, 29.1985, 73.3399, -154.543
5.73705, 15, -47.8401, -15.2079, 37.8433, 29.6005, 73.5848, -153.893
5.74524, 16, -47.7418, -15.2667, 38.042, 30.0026, 73.8285, -153.245
5.75395, 16, -47.6368, -15.3261, 38.2391, 30.4038, 74.0699, -152.6
5.76182, 17, -47.5257, -15.3872, 38.4331, 30.8028, 74.3079, -151.961
5.77242, 17, -47.3497, -15.4815, 38.718, 31.3957, 74.6562, -151.01
5.77657, 18, -47.2888, -15.5133, 38.8118, 31.5915, 74.7696, -150.696
5.7853, 18, -47.163, -15.5773, 38.9977, 31.9802, 74.9921, -150.075
5.79247, 19, -47.032, -15.6432, 39.1808, 32.3657, 75.2085, -149.462
5.80297, 19, -46.8958, -15.7116, 39.3624, 32.7492, 75.4197, -148.855
5.80855, 20, -46.8258, -15.7466, 39.453, 33.1309, 75.6258, -148.256
5.81721, 20, -46.6821, -15.818, 39.6329, 33.3212, 75.727, -147.959
5.82441, 21, -46.5334, -15.8915, 39.8099, 33.7011, 75.9263, -147.079
5.83182, 21, -46.3796, -15.9679, 39.9844, 34.0799, 76.1215, -146.788
5.84541, 22, -46.0572, -16.1284, 40.3272, 34.8325, 76.4974, -145.644
5.84782, 22, -46.0572, -16.1284, 40.3272, 34.8325, 76.4974, -145.644
5.8578, 23, -45.802, -16.2526, 40.5763, 35.3884, 76.7656, -144.802
5.86378, 23, -45.7138, -16.2949, 40.6581, 35.5715, 76.852, -144.525
5.87186, 24, -45.5323, -16.3808, 40.8196, 35.9342, 77.0206, -143.974
5.87984, 24, -45.344, -16.4685, 40.9772, 36.2914, 77.1835, -143.429
5.89018, 25, -45.0492, -16.6026, 41.2057, 36.8154, 77.4177, -142.62
5.89584, 25, -44.9477, -16.6477, 41.2798, 36.9866, 77.4931, -142.352
5.90383, 26, -44.74, -16.7385, 41.4248, 37.3239, 77.6404, -141.819
5.91518, 26, -44.4156, -16.8764, 41.633, 37.8165, 77.8533, -141.025
5.92242, 27, -44.1906, -16.9685, 41.765, 38.1358, 77.9902, -140.498
5.9301, 27, -44.0755, -17.0143, 41.8288, 38.2925, 78.0571, -140.236
5.93881, 28, -43.7207, -17.1506, 42.0111, 38.7503, 78.2527, -139.448
5.94746, 28, -43.4755, -17.2401, 42.1244, 39.0452, 78.3783, -138.925
5.95463, 29, -43.2233, -17.3281, 42.231, 39.3315, 78.5012, -138.403
5.96281, 29, -42.9645, -17.4145, 42.3305, 39.6095, 78.6205, -137.88
5.96783, 30, -42.8325, -17.457, 42.3776, 39.7454, 78.6789, -137.619
5.97581, 30, -42.5625, -17.5406, 42.4662, 40.0107, 78.7939, -137.098
5.98689, 31, -42.1414, -17.6615, 42.5858, 40.3925, 78.9605, -136.317
5.99239, 31, -41.9971, -17.7005, 42.6221, 40.5155, 79.0147, -136.057
6.00303, 32, -41.5534, -17.8141, 42.7209, 40.8721, 79.1737, -135.277
6.00781, 32, -41.4021, -17.8508, 42.7504, 40.9865, 79.2252, -135.017
6.01701, 33, -41.0946, -17.9221, 42.8041, 41.2097, 79.3265, -134.499
6.02455, 33, -40.7806, -17.9901, 42.8507, 41.4248, 79.4256, -133.983
6.03226, 34, -40.4602, -18.0551, 42.89, 41.6315, 79.5217, -133.466
6.03979, 34, -40.1347, -18.1175, 42.922, 41.8303, 79.6152, -132.951
6.0479, 35, -39.8044, -18.1772, 42.9468, 42.0211, 79.7065, -132.436
6.0592, 35, -39.4682, -18.2334, 42.9645, 42.2045, 79.8382, -131.668
6.06648, 36, -39.1255, -18.2863, 42.9751, 42.3802, 79.8812, -131.156
6.07187, 36, -38.7752, -18.3358, 42.9788, 42.5482, 79.9653, -130.901
6.08001, 37, -38.4182, -18.382, 42.976, 42.7086, 80.0474, -130.392
6.08793, 37, -38.0553, -18.4247, 42.9662, 42.8613, 80.1273, -129.884
6.09588, 38, -37.6869, -18.4637, 42.9496, 43.0067, 80.2054, -129.378
6.10553, 38, -37.3139, -18.4992, 42.9265, 43.1447, 80.2813, -128.874
6.11187, 39, -36.9362, -18.5314, 42.8966, 43.2752, 80.3549, -128.371
6.12013, 39, -36.554, -18.56, 42.86, 43.3985, 80.4263, -127.87
6.12793, 40, -36.1669, -18.5849, 42.8167, 43.5143, 80.4962, -127.372
6.13705, 40, -35.7736, -18.606, 42.7669, 43.623, 80.5641, -126.874
6.14388, 41, -35.3743, -18.623, 42.7106, 43.7245, 80.6303, -126.379
6.15227, 41, -34.9695, -18.6363, 42.6478, 43.8185, 80.6938, -125.886
6.16307, 42, -34.5604, -18.6462, 42.5785, 43.9059, 80.7563, -125.395
6.1685, 42, -34.148, -18.6528, 42.5028, 43.9859, 80.8157, -124.907
6.17646, 43, -33.7324, -18.6563, 42.421, 44.0589, 80.8745, -124.42
6.18471, 43, -33.3128, -18.6564, 42.3332, 44.1245, 80.9308, -123.936
6.19197, 44, -32.8873, -18.6528, 42.2396, 44.1835, 80.9855, -123.454
6.20073, 44, -32.4556, -18.6454, 42.1403, 44.2345, 81.0393, -122.975
6.20816, 45, -32.0176, -18.6342, 42.0351, 44.2788, 81.0904, -122.498
6.22077, 45, -31.3517, -18.6108, 41.8661, 44.3314, 81.1651, -121.787
6.22456, 46, -31.1283, -18.6012, 41.8067, 44.345, 81.1891, -121.551
6.23648, 46, -30.4555, -18.5673, 41.62, 44.3742, 81.2575, -120.848
6.24037, 47, -30.2296, -18.554, 41.5548, 44.3801, 81.28, -120.615
6.25011, 47, -29.774, -18.5239, 41.42, 44.3869, 81.3245, -120.149
6.25781, 48, -29.3118, -18.4895, 41.2793, 44.3867, 81.3671, -119.685
6.26542, 48, -28.8431, -18.4507, 41.1323, 44.3776, 81.4088, -119.223
6.27264, 48, -28.3691, -18.4077, 40.9794, 44.36, 81.4507, -118.763
6.28141, 49, -27.8923, -18.3602, 40.8207, 44.3333, 81.492, -118.305
6.28854, 50, -27.4133, -18.3081, 40.6556, 44.2965, 81.5324, -117.847
6.30054, 50, -26.6871, -18.2201, 40.3955, 44.2247, 81.5949, -117.162
6.30641, 51, -26.4415, -18.188, 40.3057, 44.1961, 81.6162, -116.935
6.31318, 51, -26.194, -18.1545, 40.121, 44.1308, 81.6585, -116.48
6.32189, 52, -25.4408, -18.0457, 39.9287, 44.0564, 81.7013, -116.026
6.32996, 52, -24.9336, -17.9665, 39.7293, 43.971, 81.7458, -115.573
6.33584, 53, -24.6791, -17.925, 39.6275, 43.9245, 81.7682, -115.347
6.34688, 53, -23.9118, -17.7917, 39.3117, 43.7703, 81.8356, -114.668
6.35477, 54, -23.3934, -17.6951, 39.0915, 43.6545, 81.8831, -114.216
6.36201, 54, -22.8668, -17.5923, 38.8648, 43.5279, 81.9323, -113.764
6.36985, 55, -22.3325, -17.4833, 38.6308, 43.3902, 81.9829, -113.313
6.37579, 55, -22.0636, -17.4265, 38.5107, 43.3169, 82.0095, -113.087
6.38634, 56, -21.2528, -17.2472, 38.1414, 43.0794, 82.0921, -112.409
6.39183, 56, -20.9812, -17.1846, 38.0149, 42.9944, 82.1201, -112.184
6.39978, 57, -20.4337, -17.0552, 37.7564, 42.8159, 82.1783, -111.733
6.4116, 57, -19.5953, -16.8507, 37.3568, 42.5263, 82.2682, -111.057
6.41578, 58, -19.3117, -16.7795, 37.2199, 42.4237, 82.2992, -110.832
6.42374, 58, -18.7405, -16.6326, 36.9418, 42.2088, 82.3632, -110.382
6.43179, 59, -18.1666, -16.4799, 36.6574, 41.9815, 82.4282, -109.933
6.43976, 59, -17.5899, -16.3225, 36.3663, 41.7418, 82.4965, -109.483
6.44785, 60, -17.006, -16.1607, 36.0693, 41.4893, 82.5663, -109.034
6.46071, 61, -16.1113, -15.9078, 35.6129, 41.0868, 82.6754, -108.36
6.46377, 61, -15.8096, -15.8209, 35.4583, 40.9461, 82.7123, -108.136
6.47525, 61, -14.9, -15.5539, 34.9856, 40.5046, 82.8267, -107.464
6.47977, 62, -14.5952, -15.4628, 34.8254, 40.3513, 82.8657, -107.239
6.48891, 62, -13.9802, -15.2769, 34.5006, 40.0347, 82.946, -106.791
6.49682, 63, -13.3554, -15.0851, 34.1715, 39.7049, 83.0285, -106.342
6.50508, 63, -12.7219, -14.887, 33.837, 39.361, 83.1139, -105.892
6.51185, 64, -12.0824, -14.6837, 33.4976, 39.0035, 83.2025, -105.442
6.5192, 64, -11.4388, -14.4744, 33.1519, 38.6321, 83.2944, -104.991
6.53024, 65, -10.4579, -14.1462, 32.6218, 38.0465, 83.4411, -104.311
6.53675, 65, -10.1254, -14.0333, 32.442, 37.8428, 83.4929, -104.083
6.54681, 66, -9.11314, -13.6842, 31.894, 37.2041, 83.6576, -103.397
6.55147, 66, -8.77203, -13.5643, 31.7086, 36.9823, 83.7159, -103.168
6.56157, 67, -8.08572, -13.3188, 31.3319, 36.5243, 83.8371, -102.706
6.57101, 67, -7.0406, -12.9381, 30.7541, 35.8052, 84.0326, -102.01
6.5778, 68, -6.68774, -12.8078, 30.559, 35.5574, 84.101, -101.776
6.58386, 68, -5.97658, -12.5424, 30.1669, 35.0525, 84.2422, -101.308
6.59225, 69, -5.26001, -12.2703, 29.772, 34.5365, 84.3887, -100.838
6.60459, 69, -4.17345, -11.8471, 29.1754, 33.7416, 84.617, -100.129
6.60849, 70, -3.80738, -11.7028, 28.9764, 33.4712, 84.6957, -99.892
6.61953, 70, -3.06849, -11.2574, 28.3776, 32.6372, 84.9414, -99.1769
6.62382, 71, -2.32082, -11.1046, 28.1769, 32.3516, 85.0269, -98.9378
6.63304, 71, -1.56395, -10.793, 27.7718, 31.7675, 85.205, -98.4571
6.64181, 72, -0.799114, -10.4744, 27.3628, 31.1654, 85.3936, -97.973
6.64885, 72, -0.0279712, -10.1506, 26.9501, 30.5432, 85.5927, -97.4854
6.65687, 73, 0.749046, -9.81833, 26.5344, 29.9067, 85.8015, -96.995
6.66439, 73, 1.53181, -9.47673, 26.1176, 29.258, 86.0189, -96.503
6.67187, 74, 2.31855, -9.12832, 25.7012, 28.5992, 86.2447, -96.0089
6.68053, 74, 3.1074, -8.77619, 25.2872, 27.9323, 86.4783, -95.5133
6.69161, 75, 4.29258, -8.23931, 24.6764, 26.9222, 86.8397, -94.7677
6.69667, 75, 4.68796, -8.05791, 24.4759, 26.5853, 86.9624, -94.5193
6.71248, 76, 5.87211, -7.50675, 23.8859, 25.2447, 87.462, -93.525
6.71419, 76, 6.26596, -7.32075, 23.6937, 25.2447, 87.462, -93.525
6.71994, 77, 7.05227, -6.94358, 23.3154, 24.5806, 87.7176, -93.0284
6.72872, 77, 7.83834, -6.55887, 22.9441, 23.92, 87.9795, -92.5321
6.74615, 78, 9.4107, -5.76718, 22.2164, 22.593, 88.5329, -91.5372
6.74898, 78, 9.80439, -5.56439, 22.0367, 22.258, 88.6791, -91.2866
6.75211, 79, 10.1986, -5.3593, 21.8576, 21.9214, 88.8286, -91.035
6.75862, 79, 10.5932, -5.15218, 21.679, 21.5833, 88.9813, -90.782
6.76822, 80, 11.7746, -4.51706, 21.1449, 20.5628, 89.4598, -90.0142
6.77619, 80, 12.5565, -4.08147, 20.7915, 19.8786, 89.7941, -89.4937
6.78514, 81, 13.332, -3.636, 20.4412, 19.1998, 90.1396, -88.9664
6.79227, 81, 14.1024, -3.18175, 20.0961, 18.5303, 90.4944, -88.4335
6.80098, 82, 14.485, -2.95187, 19.9258, 18.2001, 90.6746, -88.1653
6.80818, 82, 15.2435, -2.48616, 19.5922, 17.5504, 91.0393, -87.6275
6.81646, 83, 15.9924, -1.77449, 19.1102, 16.6075, 91.5955, -86.816
6.82361, 83, 16.7317, -1.53372, 18.955, 16.3031, 91.7825, -86.5448
6.83161, 83, 17.4602, -1.04703, 18.6525, 15.7095, 92.1591, -86.0021
6.83966, 84, 18.1745, -0.555593, 18.3601, 15.1356, 92.5396, -85.4605
6.84762, 84, 18.8716, -0.0611807, 18.0771, 14.5822, 92.9258, -84.9192
6.85563, 85, 19.5513, 0.437702, 17.8007, 14.0483, 93.3192, -84.379
6.86366, 85, 20.213, 0.941422, 17.5309, 13.5342, 93.7208, -83.841
6.87306, 86, 21.1732, 1.7044, 17.1368, 12.7998, 94.3357, -83.0381
6.87867, 86, 21.4858, 1.96122, 17.0085, 12.5648, 94.5437, -82.7705
6.88788, 87, 22.1013, 2.48041, 16.757, 12.1105, 94.9642, -82.2344
6.89562, 87, 22.7051, 3.00998, 16.5102, 11.6754, 95.3909, -81.6947
6.90367, 87, 23.2994, 3.54974, 16.2679, 11.259, 95.8243, -81.1504
6.91167, 88, 23.8842, 4.09695, 16.0292, 10.8585, 96.2641, -80.5986
6.9196, 88, 24.4585, 4.65248, 15.7934, 10.474, 96.7105, -80.0367
6.92922, 89, 25.0219, 5.21942, 15.5628, 10.1039, 97.1641, -79.4641
6.93562, 89, 25.5769, 5.79817, 15.3361, 9.74882, 97.6246, -78.8796
6.9446, 90, 26.1279, 6.38774, 15.112, 9.40866, 98.0916, -78.2819
6.95167, 90, 26.6729, 6.98694, 14.892, 9.08355, 98.5652, -77.6698
6.9596, 91, 27.2064, 7.59505, 14.6771, 8.77552, 99.0454, -77.044
6.96759, 91, 27.7267, 8.21369, 14.4665, 8.48559, 99.5319, -76.4063
6.97572, 92, 28.2371, 8.84343, 14.26, 8.21648, 100.023, -75.7566
6.9836, 92, 28.7402, 9.48359, 14.0584, 7.96909, 100.519, -75.0972
6.99167, 93, 29.2347, 10.1322, 13.862, 7.74417, 101.018, -74.4311
6.9996, 93, 29.7168, 10.7869, 13.6725, 7.54235, 101.517, -73.7577
7.00767, 94, 30.1849, 11.446, 13.491, 7.36405, 102.015, -73.0774
7.01562, 94, 30.638, 12.1083, 13.3165, 7.2095, 102.511, -72.3923
7.02369, 95, 31.0774, 12.7729, 13.149, 7.07861, 103.004, -71.7025
7.0316, 95, 31.5031, 13.4389, 12.9895, 6.97158, 103.493, -71.0065
7.03961, 96, 31.9147, 14.1061, 12.8374, 6.88769, 103.979, -70.3052
7.04767, 96, 32.3107, 14.7743, 12.6915, 6.82844, 104.461, -69.5991
7.05568, 97, 32.6904, 15.4431, 12.5523, 6.79152, 104.939, -68.8867
7.0636, 97, 33.0541, 16.1104, 12.4206, 6.77571, 105.411, -68.1694
7.07167, 98, 33.4021, 16.7755, 12.2972, 6.78214, 105.876, -67.4501
7.0796, 98, 33.7356, 17.4365, 12.1825, 6.80993, 106.333, -66.7268
7.0876, 99, 34.0554, 18.0921, 12.0772, 6.8571, 106.78, -66.0027
7.09569, 99, 34.3632, 18.7406, 11.9815, 6.92463, 107.215, -65.2815
7.10385, 100, 34.6599, 19.3804, 11.895, 7.00933, 107.637, -64.5618
7.1116, 100, 34.9451, 20.0113, 11.8177, 7.11189, 108.044, -63.8465
7.11967, 101, 35.218, 20.6313, 11.7488, 7.23047, 108.435, -63.139
7.12771, 101, 35.4786, 21.2405, 11.6882, 7.3639, 108.81, -62.4378
7.13565, 102, 35.7267, 21.8375, 11.636, 7.51, 109.169, -61.746
7.14377, 102, 35.961, 22.4212, 11.592, 7.66692, 109.51, -61.0659
7.15192, 103, 36.1836, 22.9913, 11.5562, 7.83249, 109.837, -60.3969
7.15994, 103, 36.3982, 23.5462, 11.5287, 8.00561, 110.147, -59.7399
7.16777, 103, 36.6067, 24.0854, 11.51, 8.18661, 110.441, -59.0959
7.17572, 104, 36.8089, 24.6093, 11.4999, 8.37587, 110.717, -58.4647
7.18361, 104, 37.0046, 25.1174, 11.4967, 8.57414, 110.974, -57.8439
7.19171, 104, 37.1941, 25.6098, 11.5, 8.7814, 111.211, -57.2347
7.20046, 104, 37.3753, 26.0861, 11.5092, 8.99611, 111.428, -56.6381
7.20767, 104, 37.546, 26.5464, 11.5222, 9.21693, 111.627, -56.0543
7.21577, 104, 37.7075, 26.9907, 11.5381, 9.44124, 111.81, -55.4858
7.22469, 104, 37.8636, 27.4202, 11.5569, 9.66587, 111.979, -54.9355
7.23186, 104, 38.0164, 27.8339, 11.5772, 9.8884, 112.137, -54.407
7.24053, 104, 38.1651, 28.231, 11.5978, 10.1067, 112.286, -53.9009
7.24813, 104, 38.3081, 28.6116, 11.618, 10.3198, 112.427, -53.4181
7.25602, 104, 38.4447, 28.9752, 11.637, 10.5264, 112.56, -52.9596
7.26259, 104, 38.5103, 29.1502, 11.6461, 10.627, 112.624, -52.7392
7.27317, 104, 38.6946, 29.6479, 11.6719, 10.9164, 112.803, -52.1168
7.27865, 104, 38.7519, 29.8041, 11.6798, 11.0085, 112.859, -51.9217
7.28831, 104, 38.9112, 30.2448, 11.702, 11.2707, 113.015, -51.3735
7.29646, 104, 39.0078, 30.515, 11.7157, 11.4333, 113.109, -51.0401
7.3042, 104, 39.0532, 30.6425, 11.722, 11.5851, 113.197, -50.732
7.3123, 104, 39.1381, 30.8831, 11.7337, 11.726, 113.276, -50.449
7.31962, 104, 39.2151, 31.1043, 11.7443, 11.7922, 113.313, -50.3169
7.32864, 104, 39.3154, 31.3984, 11.7587, 11.9733, 113.413, -49.9588
7.33565, 104, 39.3449, 31.4868, 11.7631, 12.0279, 113.443, -49.8521
7.34358, 104, 39.3985, 31.649, 11.7709, 12.1279, 113.498, -49.6573
7.3516, 104, 39.4455, 31.7919, 11.778, 12.2159, 113.545, -49.4875
7.35967, 104, 39.4867, 31.9165, 11.7844, 12.2914, 113.585, -49.3423
7.36759, 104, 39.522, 32.0239, 11.7902, 12.3554, 113.619, -49.2204
7.37562, 104, 39.5511, 32.1147, 11.7953, 12.4078, 113.647, -49.1213
7.38364, 104, 39.575, 32.1901, 11.7999, 12.4484, 113.668, -49.0424
7.39165, 104, 39.5941, 32.2521, 11.804, 12.4799, 113.684, -48.9829
7.39959, 104, 39.6089, 32.3019, 11.8079, 12.5034, 113.695, -48.9396
7.40766, 104, 39.6204, 32.3411, 11.8113, 12.52, 113.703, -48.9095
7.41561, 104, 39.6291, 32.3706, 11.8143, 12.5312, 113.708, -48.8898
7.42358, 104, 39.6354, 32.3927, 11.817, 12.5383, 113.711, -48.8779
7.43166, 104, 39.6394, 32.4089, 11.8193, 12.5425, 113.713, -48.8715
7.44133, 104, 39.6417, 32.42, 11.821, 12.5446, 113.713, -48.8684
7.44759, 104, 39.6429, 32.427, 11.8223, 12.5457, 113.714, -48.867
7.45567, 105, 39.6428, 32.4314, 11.8233, 12.5462, 113.714, -48.8664
7.46359, 105, 39.6421, 32.4344, 11.8242, 12.5465, 113.714, -48.8663
7.47159, 105, 39.6412, 32.4366, 11.825, 12.5466, 113.714, -48.8665
7.47968, 105, 39.6402, 32.4382, 11.8256, 12.5466, 113.714, -48.8667
7.48759, 105, 39.639, 32.4395, 11.8262, 12.5467, 113.714, -48.8671
7.49561, 105, 39.6378, 32.4408, 11.8267, 12.5467, 113.714, -48.8674
7.50366, 105, 39.6371, 32.442, 11.8273, 12.5467, 113.714, -48.8677
7.51159, 105, 39.6367, 32.4431, 11.8279, 12.5468, 113.714, -48.868
7.51959, 105, 39.6364, 32.4442, 11.8285, 12.5468, 113.714, -48.8683
7.52767, 105, 39.6362, 32.4451, 11.829, 12.5468, 113.714, -48.8686
7.53561, 105, 39.636, 32.4459, 11.8294, 12.5467, 113.714, -48.8688
7.54366, 105, 39.6357, 32.4465, 11.8297, 12.5467, 113.714, -48.869
7.55162, 105, 39.6354, 32.4469, 11.83, 12.5467, 113.714, -48.8693
7.55965, 105, 39.6351, 32.4471, 11.8303, 12.5467, 113.714, -48.8695
7.56759, 105, 39.6349, 32.4472, 11.8305, 12.5467, 113.714, -48.8696
