hehonglu123/Motion-Primitive-Planning/ILC/recorded_data/realrobot/from_NX/iteration_15/run_1.csv
timestamp, cmd_num, J1, J2, J3, J4, J5, J6
0.000374, -1, 39.6302, 32.4471, 11.8319, 12.5454, 113.713, -48.8723
0.003589, -1, 39.6302, 32.4471, 11.8319, 12.5454, 113.713, -48.8723
0.025662, -1, 39.6302, 32.4471, 11.8319, 12.5454, 113.713, -48.8723
0.026919, -1, 39.6302, 32.4471, 11.8319, 12.5454, 113.713, -48.8723
0.02973, -1, 39.6302, 32.4471, 11.8319, 12.5454, 113.713, -48.8723
0.032014, -1, 39.6302, 32.4471, 11.8319, 12.5454, 113.713, -48.8723
0.038814, -1, 39.6302, 32.4471, 11.8319, 12.5454, 113.713, -48.8723
0.048018, -1, 39.63, 32.4471, 11.8319, 12.5454, 113.713, -48.8723
0.056211, -1, 39.6287, 32.4469, 11.8319, 12.5455, 113.713, -48.8723
0.195171, -1, 38.34, 31.7894, 12.0852, 12.5562, 113.04, -50.5903
0.197221, -1, 38.253, 31.7439, 12.1046, 12.5574, 112.991, -50.7152
0.198676, -1, 38.253, 31.7439, 12.1046, 12.5574, 112.991, -50.7152
0.199868, -1, 38.253, 31.7439, 12.1046, 12.5574, 112.991, -50.7152
0.201915, -1, 38.1645, 31.6976, 12.1242, 12.5586, 112.941, -50.8414
0.20312, -1, 38.1645, 31.6976, 12.1242, 12.5586, 112.941, -50.8414
0.205015, -1, 38.1645, 31.6976, 12.1242, 12.5586, 112.941, -50.9686
0.207, -1, 38.0746, 31.6507, 12.1437, 12.5598, 112.891, -50.9686
0.208229, -1, 38.0746, 31.6507, 12.1437, 12.5598, 112.891, -50.9686
0.210933, -1, 37.9834, 31.6033, 12.1631, 12.561, 112.84, -51.0966
0.212124, -1, 37.9834, 31.6033, 12.1631, 12.561, 112.84, -51.0966
0.2142, -1, 37.8911, 31.5554, 12.1826, 12.5622, 112.789, -51.2253
0.215397, -1, 37.8911, 31.5554, 12.1826, 12.5622, 112.789, -51.2253
0.217444, -1, 37.7977, 31.5071, 12.202, 12.5634, 112.738, -51.3543
0.220169, -1, 37.7977, 31.5071, 12.202, 12.5634, 112.738, -51.3543
0.223603, -1, 37.7035, 31.4585, 12.2214, 12.5646, 112.687, -51.4836
0.225893, -1, 37.6087, 31.4097, 12.2408, 12.5659, 112.636, -51.6133
0.227134, -1, 37.6087, 31.4097, 12.2408, 12.5659, 112.636, -51.6133
0.2284, -1, 37.6087, 31.4097, 12.2408, 12.5659, 112.636, -51.6133
0.230365, -1, 37.5133, 31.3608, 12.2601, 12.5671, 112.585, -51.7431
0.231671, -1, 37.5133, 31.3608, 12.2601, 12.5671, 112.585, -51.7431
0.234326, -1, 37.4176, 31.3119, 12.2795, 12.5683, 112.533, -51.8728
0.241574, -1, 37.2257, 31.214, 12.3183, 12.5708, 112.431, -52.1324
0.247808, -1, 37.1296, 31.165, 12.3378, 12.572, 112.379, -52.2623
0.255875, -1, 36.9373, 31.0673, 12.3765, 12.5747, 112.276, -52.5223
0.264817, -1, 36.7453, 30.9696, 12.4152, 12.5772, 112.173, -52.7826
0.271802, -1, 36.5536, 30.8718, 12.4541, 12.5797, 112.07, -53.043
0.280896, -1, 36.362, 30.7741, 12.493, 12.5824, 111.967, -53.3032
0.286806, -1, 36.1704, 30.6764, 12.5318, 12.585, 111.865, -53.5636
0.295874, -1, 35.9789, 30.5784, 12.5707, 12.5875, 111.762, -53.8243
0.303814, -1, 35.7873, 30.4804, 12.6097, 12.5902, 111.659, -54.0849
0.311822, -1, 35.5955, 30.3824, 12.6486, 12.5927, 111.556, -54.3451
0.319808, -1, 35.4034, 30.2842, 12.6874, 12.5953, 111.453, -54.6053
0.327842, -1, 35.211, 30.1859, 12.7261, 12.5979, 111.349, -54.866
0.335862, -1, 35.0186, 30.0875, 12.7651, 12.6005, 111.246, -55.1268
0.343934, -1, 34.8263, 29.989, 12.8039, 12.6031, 111.143, -55.3874
0.351805, -1, 34.6341, 29.8905, 12.8427, 12.6056, 111.04, -55.6483
0.359806, -1, 34.4418, 29.7921, 12.8817, 12.6082, 110.937, -55.909
0.367983, -1, 34.2497, 29.6937, 12.9206, 12.6108, 110.834, -56.1699
0.375865, -1, 34.0577, 29.5954, 12.9595, 12.6134, 110.731, -56.4307
0.383807, -1, 33.8659, 29.4971, 12.9985, 12.6161, 110.628, -56.6914
0.391875, -1, 33.6743, 29.3988, 13.0373, 12.6187, 110.525, -56.9524
0.399807, -1, 33.4823, 29.3005, 13.0762, 12.6213, 110.422, -57.2135
0.407819, -1, 33.2899, 29.202, 13.1153, 12.6239, 110.319, -57.4745
0.415926, -1, 33.0972, 29.1034, 13.1541, 12.6266, 110.216, -57.7354
0.423811, -1, 32.9044, 29.0048, 13.1929, 12.6292, 110.113, -57.9964
0.431884, -1, 32.7112, 28.9062, 13.2319, 12.6319, 110.01, -58.2577
0.439809, -1, 32.5178, 28.8076, 13.2708, 12.6346, 109.907, -58.5191
0.447879, -1, 32.3241, 28.7089, 13.3096, 12.6373, 109.804, -58.7801
0.455917, -1, 32.1299, 28.6101, 13.3486, 12.64, 109.701, -59.0411
0.463895, -1, 31.9359, 28.5113, 13.3874, 12.6427, 109.597, -59.3022
0.471966, -1, 31.7422, 28.4125, 13.4264, 12.6454, 109.494, -59.5637
0.479907, -1, 31.5486, 28.3138, 13.4654, 12.6483, 109.391, -59.825
0.487902, -1, 31.3554, 28.2151, 13.5043, 12.651, 109.288, -60.0862
0.496052, -1, 31.1626, 28.1167, 13.5433, 12.6538, 109.185, -60.3475
0.503923, -1, 30.9702, 28.0182, 13.5824, 12.6566, 109.082, -60.6091
0.511926, -1, 30.778, 27.9196, 13.6214, 12.6594, 108.979, -60.8704
0.519969, -1, 30.5862, 27.8211, 13.6604, 12.6623, 108.876, -61.1317
0.658058, -1, 27.3019, 26.1412, 14.323, 12.7057, 107.12, -65.5798
0.659348, -1, 27.3019, 26.1412, 14.323, 12.7057, 107.12, -65.5798
0.661547, -1, 27.2058, 26.0917, 14.3425, 12.7069, 107.068, -65.7106
0.662752, -1, 27.2058, 26.0917, 14.3425, 12.7069, 107.068, -65.7106
0.664623, -1, 27.2058, 26.0917, 14.3425, 12.7069, 107.068, -65.8416
0.666039, -1, 27.1096, 26.0422, 14.362, 12.708, 107.016, -65.8416
0.667323, -1, 27.1096, 26.0422, 14.362, 12.708, 107.016, -65.8416
0.670878, -1, 27.0133, 25.9928, 14.3814, 12.7092, 106.964, -65.9724
0.673534, -1, 27.0133, 25.9928, 14.3814, 12.7092, 106.964, -65.9724
0.674803, -1, 26.917, 25.9434, 14.4008, 12.7103, 106.913, -66.1033
0.676818, -1, 26.917, 25.9434, 14.4008, 12.7103, 106.861, -66.2343
0.678195, -1, 26.8207, 25.894, 14.4204, 12.7115, 106.861, -66.2343
0.681128, -1, 26.7243, 25.8445, 14.4399, 12.7126, 106.81, -66.3651
0.682615, -1, 26.7243, 25.8445, 14.4399, 12.7126, 106.81, -66.3651
0.68382, -1, 26.7243, 25.8445, 14.4399, 12.7126, 106.81, -66.3651
0.689927, -1, 26.5309, 25.7457, 14.4788, 12.7149, 106.706, -66.6267
0.691222, -1, 26.5309, 25.7457, 14.4788, 12.7149, 106.706, -66.6267
0.693026, -1, 26.4341, 25.6963, 14.4982, 12.716, 106.655, -66.7576
0.694498, -1, 26.4341, 25.6963, 14.4982, 12.716, 106.655, -66.7576
0.695756, -1, 26.4341, 25.6963, 14.4982, 12.716, 106.655, -66.7576
0.698537, -1, 26.3372, 25.6469, 14.5177, 12.7172, 106.603, -66.8884
0.699734, -1, 26.3372, 25.6469, 14.5177, 12.7172, 106.603, -66.8884
0.70586, -1, 26.1432, 25.548, 14.5567, 12.7194, 106.5, -67.1503
0.711796, -1, 26.0461, 25.4986, 14.5762, 12.7206, 106.448, -67.2814
0.719797, -1, 25.8518, 25.3997, 14.6151, 12.7228, 106.345, -67.5431
0.72763, -1, 25.6576, 25.3009, 14.6541, 12.7251, 106.242, -67.8046
0.734791, -1, 25.4636, 25.2021, 14.6931, 12.7274, 106.139, -68.0662
0.743846, -1, 25.2698, 25.1035, 14.732, 12.7297, 106.036, -68.3281
0.751604, -1, 25.0764, 25.0047, 14.7712, 12.732, 105.932, -68.59
0.759794, -1, 24.8832, 24.9058, 14.8102, 12.7344, 105.829, -68.8515
0.768823, -1, 24.6902, 24.807, 14.849, 12.7368, 105.726, -69.1132
0.775664, -1, 24.4977, 24.7082, 14.888, 12.7391, 105.623, -69.375
0.783804, -1, 24.3053, 24.6092, 14.9271, 12.7416, 105.519, -69.6367
0.792791, -1, 24.1129, 24.5104, 14.966, 12.7439, 105.416, -69.8982
0.799606, -1, 23.9201, 24.4116, 15.005, 12.7462, 105.313, -70.1598
0.807805, -1, 23.7272, 24.3127, 15.0439, 12.7487, 105.209, -70.4213
0.815844, -1, 23.5342, 24.2139, 15.0828, 12.7511, 105.106, -70.6832
0.823816, -1, 23.3407, 24.115, 15.1218, 12.7536, 105.002, -70.9447
0.831811, -1, 23.1469, 24.0161, 15.1607, 12.756, 104.899, -71.2065
0.839856, -1, 22.953, 23.9172, 15.1996, 12.7584, 104.796, -71.4683
0.847923, -1, 22.759, 23.8184, 15.2385, 12.7609, 104.692, -71.7303
0.855846, -1, 22.565, 23.7197, 15.2775, 12.7633, 104.589, -71.9919
0.863867, -1, 22.3714, 23.6211, 15.3165, 12.7658, 104.486, -72.2532
0.871787, -1, 22.1782, 23.5224, 15.3554, 12.7683, 104.382, -72.5147
0.879792, -1, 21.985, 23.4236, 15.3943, 12.7709, 104.279, -72.7763
0.887857, -1, 21.7922, 23.3249, 15.4334, 12.7735, 104.176, -73.0379
0.895859, -1, 21.5999, 23.2261, 15.4723, 12.7762, 104.073, -73.299
0.903067, -1, 21.4077, 23.1273, 15.5112, 12.7789, 103.97, -73.5605
0.911855, -1, 21.2154, 23.0287, 15.5502, 12.7815, 103.866, -73.8221
0.920192, -1, 21.023, 22.9301, 15.5891, 12.7842, 103.763, -74.0836
0.927003, -1, 20.8306, 22.8314, 15.628, 12.7869, 103.66, -74.3448
0.935919, -1, 20.6381, 22.7329, 15.667, 12.7896, 103.557, -74.6059
0.94452, -1, 20.4453, 22.6343, 15.7058, 12.7923, 103.454, -74.8672
0.952111, -1, 20.2519, 22.5356, 15.7447, 12.7951, 103.351, -75.1287
0.959209, -1, 20.0581, 22.4368, 15.7837, 12.7978, 103.248, -75.3896
0.967366, -1, 19.8645, 22.3381, 15.8224, 12.8006, 103.145, -75.6509
0.976223, -1, 19.6709, 22.2395, 15.8612, 12.8033, 103.042, -75.9121
0.983331, -1, 19.4773, 22.1409, 15.9002, 12.806, 102.939, -76.1734
0.992606, -1, 19.2842, 22.0423, 15.939, 12.8087, 102.836, -76.4344
1.00057, -1, 19.0913, 21.9436, 15.9779, 12.8114, 102.733, -76.6951
1.00785, -1, 18.8986, 21.845, 16.0168, 12.8142, 102.63, -76.956
1.01673, -1, 18.7063, 21.7462, 16.0555, 12.8168, 102.527, -77.2171
1.02456, -1, 18.5144, 21.6476, 16.0944, 12.8196, 102.424, -77.478
1.03182, -1, 18.3226, 21.549, 16.1333, 12.8223, 102.321, -77.7385
1.0407, -1, 18.1307, 21.4505, 16.1721, 12.8248, 102.218, -77.9993
1.04885, -1, 17.9387, 21.3521, 16.2109, 12.8274, 102.115, -78.2602
1.05602, -1, 17.7468, 21.2538, 16.2499, 12.8299, 102.012, -78.5209
1.06494, -1, 17.5546, 21.1554, 16.2887, 12.8324, 101.909, -78.7814
1.07283, -1, 17.362, 21.0571, 16.3275, 12.8349, 101.806, -79.0418
1.08025, -1, 17.169, 20.9588, 16.3663, 12.8373, 101.703, -79.3023
1.08679, -1, 17.0725, 20.9097, 16.3857, 12.8385, 101.652, -79.4327
1.09724, -1, 16.7829, 20.7623, 16.444, 12.8421, 101.498, -79.8235
1.10278, -1, 16.6864, 20.7132, 16.4634, 12.8432, 101.446, -79.9537
1.11233, -1, 16.3969, 20.5658, 16.5214, 12.8467, 101.293, -80.3445
1.11885, -1, 16.3005, 20.5166, 16.5407, 12.8479, 101.241, -80.4748
1.12842, -1, 16.0122, 20.3691, 16.5989, 12.8514, 101.087, -80.8655
1.1363, -1, 15.9162, 20.3198, 16.6182, 12.8525, 101.036, -80.9956
1.14378, -1, 15.7245, 20.2213, 16.657, 12.8548, 100.933, -81.2556
1.15084, -1, 15.5332, 20.1229, 16.6955, 12.8571, 100.83, -81.5158
1.16173, -1, 15.2464, 19.9755, 16.7536, 12.8606, 100.677, -81.9059
1.1678, -1, 15.1508, 19.9263, 16.773, 12.8617, 100.625, -82.0358
1.17478, -1, 14.9597, 19.8281, 16.8117, 12.864, 100.523, -82.2956
1.18388, -1, 14.7683, 19.73, 16.8503, 12.8663, 100.42, -82.5555
1.19193, -1, 14.5768, 19.6319, 16.8891, 12.8686, 100.318, -82.8157
1.19994, -1, 14.3851, 19.5338, 16.9277, 12.8709, 100.215, -83.0754
1.20778, -1, 14.1929, 19.4357, 16.9664, 12.8731, 100.113, -83.3348
1.21582, -1, 14.0005, 19.3377, 17.0051, 12.8754, 100.01, -83.5943
1.22279, -1, 13.8081, 19.2399, 17.0436, 12.8777, 99.9075, -83.8541
1.23175, -1, 13.6156, 19.1421, 17.0823, 12.8801, 99.805, -84.1136
1.23878, -1, 13.4233, 19.0442, 17.121, 12.8824, 99.7024, -84.3729
1.24779, -1, 13.2313, 18.9462, 17.1595, 12.8846, 99.6003, -84.6322
1.25577, -1, 13.0397, 18.8483, 17.1981, 12.887, 99.4978, -84.8915
1.26386, -1, 12.8485, 18.7503, 17.2368, 12.8894, 99.3953, -85.1509
1.27079, -1, 12.6575, 18.6523, 17.2753, 12.8917, 99.2932, -85.41
1.27978, -1, 12.4668, 18.5546, 17.3139, 12.8942, 99.1908, -85.6688
1.28779, -1, 12.2766, 18.4569, 17.3524, 12.8965, 99.0885, -85.9277
1.29801, -1, 11.9912, 18.3103, 17.4102, 12.9002, 98.9355, -86.3162
1.3028, -1, 11.896, 18.2615, 17.4296, 12.9014, 98.8844, -86.4455
1.31178, -1, 11.7056, 18.1639, 17.4682, 12.9038, 98.7825, -86.704
1.31985, -1, 11.5148, 18.0662, 17.5066, 12.9063, 98.6808, -86.9626
1.32787, -1, 11.3238, 17.9686, 17.5452, 12.9087, 98.5787, -87.2214
1.33586, -1, 11.1325, 17.8711, 17.5838, 12.9111, 98.4768, -87.48
1.34377, -1, 10.941, 17.7736, 17.6223, 12.9136, 98.375, -87.738
1.35184, -1, 10.7494, 17.6762, 17.6607, 12.9161, 98.2729, -87.9961
1.35987, -1, 10.5578, 17.5786, 17.6991, 12.9187, 98.1711, -88.2545
1.36778, -1, 10.3665, 17.4811, 17.7375, 12.9213, 98.0693, -88.5129
1.37578, -1, 10.1755, 17.3836, 17.776, 12.9237, 97.9674, -88.7708
1.38384, -1, 9.98488, 17.2859, 17.8143, 12.9264, 97.8656, -89.0289
1.39177, -1, 9.79452, 17.1884, 17.8527, 12.929, 97.7636, -89.287
1.39979, -1, 9.60459, 17.0909, 17.891, 12.9316, 97.6616, -89.5452
1.40785, -1, 9.4152, 16.9936, 17.9294, 12.9344, 97.5599, -89.8028
1.41577, -1, 9.22591, 16.8962, 17.9677, 12.9372, 97.4579, -90.0605
1.42378, -1, 9.03659, 16.799, 18.0061, 12.9398, 97.3561, -90.318
1.43184, -1, 8.84714, 16.7018, 18.0444, 12.9425, 97.2545, -90.5756
1.43978, -1, 8.65755, 16.6047, 18.0828, 12.9451, 97.1527, -90.8331
1.44791, -1, 8.46792, 16.5076, 18.1212, 12.9477, 97.0511, -91.0901
1.45578, -1, 8.27786, 16.4105, 18.1595, 12.9504, 96.9497, -91.3473
1.46381, -1, 8.08738, 16.3136, 18.1978, 12.9531, 96.848, -91.6046
1.47207, -1, 7.89692, 16.2167, 18.2361, 12.9557, 96.7465, -91.8617
1.47987, -1, 7.7064, 16.1198, 18.2743, 12.9584, 96.6451, -92.1185
1.48788, -1, 7.51591, 16.0228, 18.3126, 12.961, 96.5436, -92.3751
1.49628, -1, 7.32567, 15.9259, 18.3509, 12.9636, 96.4423, -92.6319
1.50343, -1, 7.23062, 15.8289, 18.389, 12.9661, 96.341, -92.8888
1.51183, -1, 6.94593, 15.7319, 18.4273, 12.9687, 96.2396, -93.1452
1.52056, -1, 6.75674, 15.6351, 18.4655, 12.9712, 96.1387, -93.4017
1.52784, -1, 6.56803, 15.5382, 18.5035, 12.9737, 96.0379, -93.658
1.5358, -1, 6.37965, 15.4415, 18.5417, 12.9762, 95.9367, -93.9145
1.54467, -1, 6.19151, 15.3448, 18.5798, 12.9787, 95.8357, -94.1707
1.55196, -1, 6.00338, 15.2481, 18.6179, 12.9811, 95.7349, -94.4266
1.55882, -1, 5.90921, 15.1998, 18.637, 12.9822, 95.6843, -94.5545
1.56888, -1, 5.62659, 15.0548, 18.6942, 12.9857, 95.5331, -94.9384
1.57642, -1, 5.43794, 14.9583, 18.7322, 12.988, 95.4324, -95.1943
1.5842, -1, 5.24902, 14.8618, 18.7704, 12.9903, 95.3315, -95.4496
1.59298, -1, 5.05969, 14.7654, 18.8085, 12.9926, 95.231, -95.7051
1.60038, -1, 4.87035, 14.6691, 18.8465, 12.9949, 95.1302, -95.9606
1.6083, -1, 4.68096, 14.5727, 18.8846, 12.9971, 95.0293, -96.2161
1.61704, -1, 4.4916, 14.4764, 18.9226, 12.9993, 94.9288, -96.471
1.62278, -1, 4.39706, 14.4282, 18.9416, 13.0004, 94.8784, -96.5985
1.63234, -1, 4.20815, 14.3318, 18.9796, 13.0036, 94.727, -96.981
1.64122, -1, 4.01944, 14.2353, 19.0176, 13.006, 94.6263, -97.2361
1.64678, -1, 3.83132, 14.1391, 19.0555, 13.0071, 94.5759, -97.3637
1.65582, -1, 3.64383, 14.0429, 19.0935, 13.0093, 94.4751, -97.6182
1.66383, -1, 3.4567, 13.9467, 19.1314, 13.0117, 94.3745, -97.8729
1.67179, -1, 3.26973, 13.8507, 19.1691, 13.014, 94.2738, -98.1276
1.67977, -1, 3.08269, 13.7547, 19.2071, 13.0162, 94.1731, -98.3824
1.68784, -1, 2.89572, 13.6586, 19.245, 13.0184, 94.0725, -98.6369
1.69579, -1, 2.7086, 13.5626, 19.2829, 13.0207, 93.972, -98.8911
1.70385, -1, 2.52129, 13.4667, 19.3208, 13.0229, 93.8716, -99.1451
1.71177, -1, 2.33387, 13.3707, 19.3585, 13.0253, 93.7712, -99.3993
1.71979, -1, 2.14606, 13.275, 19.3963, 13.0275, 93.6709, -99.6533
1.72781, -1, 1.95796, 13.1791, 19.4343, 13.0297, 93.5707, -99.907
1.73576, -1, 1.7699, 13.0833, 19.472, 13.0321, 93.4708, -100.161
1.74377, -1, 1.58168, 12.9875, 19.5097, 13.0343, 93.3706, -100.414
1.75182, -1, 1.39361, 12.8916, 19.5476, 13.0365, 93.2705, -100.668
1.75978, -1, 1.20583, 12.7958, 19.5853, 13.0388, 93.1707, -100.921
1.7678, -1, 1.01844, 12.7, 19.623, 13.0412, 93.0706, -101.174
1.77678, -1, 0.831669, 12.6044, 19.6608, 13.0435, 92.9706, -101.427
1.78376, -1, 0.645319, 12.5088, 19.6984, 13.0459, 92.871, -101.68
1.79282, -1, 0.459416, 12.4133, 19.7359, 13.0484, 92.7711, -101.933
1.79984, -1, 0.273791, 12.318, 19.7737, 13.0509, 92.6714, -102.186
1.80777, -1, 0.0882692, 12.2226, 19.8113, 13.0533, 92.5722, -102.439
1.81577, -1, -0.0972518, 12.1273, 19.8488, 13.0558, 92.4725, -102.691
1.82383, -1, -0.282881, 12.032, 19.8865, 13.0582, 92.3729, -102.944
1.83176, -1, -0.468801, 11.9368, 19.9241, 13.0607, 92.2736, -103.196
1.83986, -1, -0.655046, 11.8418, 19.9616, 13.0633, 92.1741, -103.448
1.84776, -1, -0.841482, 11.7468, 19.9992, 13.0657, 92.0746, -103.7
1.85584, -1, -1.02802, 11.6518, 20.0366, 13.0682, 91.9754, -103.952
1.86386, -1, -1.21494, 11.5567, 20.0741, 13.0707, 91.8759, -104.204
1.87175, -1, -1.40184, 11.4617, 20.1117, 13.0732, 91.7766, -104.455
1.87977, -1, -1.58859, 11.3665, 20.1491, 13.0758, 91.6776, -104.707
1.88784, -1, -1.77501, 11.2714, 20.1865, 13.0784, 91.5783, -104.958
1.89577, -1, -1.96107, 11.1764, 20.2241, 13.0811, 91.4791, -105.21
1.90377, -1, -2.14645, 11.0815, 20.2614, 13.0838, 91.38, -105.461
1.91183, -1, -2.33132, 10.9866, 20.2988, 13.0864, 91.2808, -105.711
1.91976, -1, -2.51598, 10.8918, 20.3362, 13.0891, 91.1817, -105.962
1.92776, -1, -2.70014, 10.797, 20.3735, 13.0918, 91.0827, -106.214
1.93585, -1, -2.88402, 10.7022, 20.4108, 13.0944, 90.9836, -106.464
1.94376, -1, -3.06808, 10.6075, 20.4482, 13.097, 90.8847, -106.715
1.95189, -1, -3.2522, 10.5129, 20.4855, 13.0996, 90.7858, -106.965
1.96002, -1, -3.43671, 10.4183, 20.5227, 13.1022, 90.6869, -107.216
1.96753, -1, -3.62146, 10.3239, 20.56, 13.1048, 90.5881, -107.467
1.97606, -1, -3.80638, 10.2296, 20.5972, 13.1072, 90.4892, -107.717
1.98521, -1, -3.99158, 10.1352, 20.6345, 13.1097, 90.3905, -107.966
1.99134, -1, -4.17702, 10.041, 20.6717, 13.1121, 90.2919, -108.216
2.00025, -1, -4.3627, 9.94667, 20.7088, 13.1145, 90.1933, -108.466
2.00736, -1, -4.45543, 9.89949, 20.746, 13.1169, 90.0946, -108.716
2.01676, -1, -4.73323, 9.75803, 20.7832, 13.1192, 89.9963, -108.965
2.02459, -1, -4.91796, 9.66387, 20.8203, 13.1216, 89.8978, -109.215
2.03182, -1, -5.10209, 9.56986, 20.8573, 13.124, 89.7992, -109.464
2.03986, -1, -5.28563, 9.47574, 20.8945, 13.1263, 89.701, -109.713
2.04869, -1, -5.46874, 9.38181, 20.9316, 13.1286, 89.6026, -109.962
2.05589, -1, -5.65145, 9.28788, 20.9686, 13.1309, 89.5043, -110.211
2.06424, -1, -5.83388, 9.19391, 21.0057, 13.1333, 89.4063, -110.46
2.07077, -1, -5.92501, 9.14696, 21.0242, 13.1344, 89.3572, -110.584
2.0788, -1, -6.10738, 9.0531, 21.0612, 13.1365, 89.2589, -110.833
2.08827, -1, -6.38155, 8.91248, 21.1168, 13.1399, 89.1122, -111.205
2.09704, -1, -6.56461, 8.81882, 21.1536, 13.1421, 89.0141, -111.454
2.10282, -1, -6.65619, 8.772, 21.172, 13.1432, 88.9651, -111.578
2.11251, -1, -6.93172, 8.63159, 21.2274, 13.1463, 88.8184, -111.95
2.12116, -1, -7.11568, 8.538, 21.2642, 13.1484, 88.7204, -112.198
2.12681, -1, -7.20787, 8.49123, 21.2826, 13.1495, 88.6715, -112.321
2.13638, -1, -7.39212, 8.35077, 21.338, 13.1527, 88.525, -112.693
2.1453, -1, -7.57592, 8.30397, 21.3747, 13.1549, 88.4273, -112.941
2.15082, -1, -7.75943, 8.21052, 21.3931, 13.1559, 88.3785, -113.064
2.161, -1, -8.03392, 8.07043, 21.4484, 13.1594, 88.2326, -113.435
2.16776, -1, -8.12512, 8.02376, 21.4668, 13.1605, 88.1839, -113.558
2.17481, -1, -8.30694, 7.93046, 21.5034, 13.1627, 88.0864, -113.805
2.1838, -1, -8.48832, 7.83719, 21.5403, 13.1649, 87.989, -114.052
2.19181, -1, -8.66933, 7.74398, 21.5771, 13.1671, 87.8917, -114.299
2.19875, -1, -8.84999, 7.65077, 21.6138, 13.1694, 87.7941, -114.545
2.20775, -1, -9.03068, 7.55771, 21.6505, 13.1716, 87.6968, -114.792
2.21575, -1, -9.21176, 7.4647, 21.6873, 13.1739, 87.5997, -115.039
2.22274, -1, -9.39305, 7.37192, 21.7239, 13.1761, 87.5025, -115.285
2.23182, -1, -9.57463, 7.27911, 21.7606, 13.1783, 87.4054, -115.531
2.23974, -1, -9.75658, 7.1863, 21.7973, 13.1806, 87.3084, -115.777
2.24675, -1, -9.93894, 7.09362, 21.8338, 13.1828, 87.2111, -116.023
2.25575, -1, -10.1215, 7.00087, 21.8703, 13.185, 87.1138, -116.269
2.26376, -1, -10.3041, 6.90807, 21.907, 13.1872, 87.0168, -116.515
2.27275, -1, -10.4867, 6.8153, 21.9435, 13.1894, 86.9196, -116.76
2.27876, -1, -10.669, 6.72256, 21.9801, 13.1917, 86.8226, -117.006
2.28775, -1, -10.8508, 6.62995, 22.0166, 13.1941, 86.7257, -117.251
2.29581, -1, -11.0321, 6.53733, 22.053, 13.1965, 86.6288, -117.496
2.30376, -1, -11.2125, 6.4448, 22.0896, 13.1989, 86.5322, -117.741
2.31174, -1, -11.3925, 6.3523, 22.1262, 13.2013, 86.4356, -117.986
2.31976, -1, -11.5721, 6.25985, 22.1626, 13.2037, 86.3387, -118.231
2.32774, -1, -11.7514, 6.1674, 22.1991, 13.2061, 86.2421, -118.476
2.3358, -1, -11.9306, 6.07511, 22.2357, 13.2086, 86.1456, -118.72
2.34378, -1, -12.1099, 5.98288, 22.272, 13.2111, 86.049, -118.964
2.35175, -1, -12.2894, 5.89082, 22.3085, 13.2135, 85.9526, -119.208
2.35987, -1, -12.4693, 5.79881, 22.3449, 13.216, 85.8564, -119.453
2.36777, -1, -12.6495, 5.70678, 22.3811, 13.2185, 85.76, -119.697
2.37574, -1, -12.8301, 5.61486, 22.4175, 13.221, 85.6639, -119.94
2.38382, -1, -13.011, 5.52296, 22.4539, 13.2235, 85.5681, -120.184
2.39175, -1, -13.1923, 5.43094, 22.4901, 13.2259, 85.472, -120.428
2.39975, -1, -13.3735, 5.33897, 22.5264, 13.2283, 85.3761, -120.671
2.40781, -1, -13.5544, 5.24704, 22.5628, 13.2308, 85.2804, -120.915
2.41574, -1, -13.7348, 5.15517, 22.5989, 13.2334, 85.1846, -121.158
2.42379, -1, -13.9149, 5.06333, 22.635, 13.236, 85.0888, -121.401
2.43179, -1, -14.094, 4.97156, 22.6713, 13.2385, 84.9933, -121.644
2.43974, -1, -14.2725, 4.87983, 22.7073, 13.2411, 84.8975, -121.887
2.44789, -1, -14.4506, 4.78817, 22.7435, 13.2437, 84.8019, -122.129
2.45574, -1, -14.6283, 4.69655, 22.7798, 13.2462, 84.7065, -122.371
2.46383, -1, -14.8059, 4.60504, 22.8159, 13.2487, 84.6106, -122.614
2.47207, -1, -14.9835, 4.51357, 22.852, 13.2511, 84.5149, -122.856
2.47935, -1, -15.1614, 4.42224, 22.8882, 13.2536, 84.4194, -123.098
2.48784, -1, -15.3396, 4.33098, 22.9243, 13.256, 84.3237, -123.34
2.49627, -1, -15.5182, 4.23963, 22.9603, 13.2584, 84.228, -123.582
2.50331, -1, -15.6973, 4.14835, 22.9964, 13.2607, 84.1327, -123.824
2.51186, -1, -15.8765, 4.05714, 23.0324, 13.263, 84.0371, -124.065
2.52053, -1, -16.0558, 3.96586, 23.0683, 13.2652, 83.9416, -124.307
2.52782, -1, -16.2356, 3.87454, 23.1044, 13.2673, 83.8464, -124.548
2.53579, -1, -16.4153, 3.78331, 23.1403, 13.2694, 83.7508, -124.79
2.54467, -1, -16.5945, 3.69213, 23.1761, 13.2716, 83.6553, -125.031
2.55187, -1, -16.7733, 3.60103, 23.212, 13.2739, 83.5601, -125.272
2.55991, -1, -16.9513, 3.50999, 23.2479, 13.2762, 83.4646, -125.513
2.56886, -1, -17.1285, 3.41897, 23.2837, 13.2783, 83.3693, -125.754
2.57602, -1, -17.3051, 3.32803, 23.3196, 13.2806, 83.2742, -125.995
2.58273, -1, -17.3933, 3.28261, 23.3375, 13.2817, 83.2267, -126.115
2.59305, -1, -17.6577, 3.1464, 23.3911, 13.2848, 83.0841, -126.476
2.60022, -1, -17.8337, 3.05576, 23.4271, 13.287, 82.9894, -126.716
2.60673, -1, -17.9217, 3.01047, 23.445, 13.288, 82.942, -126.836
2.61718, -1, -18.1863, 2.8748, 23.4986, 13.2912, 82.7997, -127.196
2.6228, -1, -18.2745, 2.82962, 23.5165, 13.2923, 82.7524, -127.316
2.63238, -1, -18.5401, 2.69399, 23.5701, 13.2953, 82.6104, -127.676
2.64122, -1, -18.6288, 2.6488, 23.5879, 13.2964, 82.5158, -127.915
2.6468, -1, -18.8065, 2.55846, 23.6236, 13.2985, 82.4685, -128.035
2.65676, -1, -19.0736, 2.42279, 23.6771, 13.3014, 82.3269, -128.395
2.66373, -1, -19.1627, 2.37755, 23.6949, 13.3024, 82.2797, -128.514
2.67079, -1, -19.341, 2.28719, 23.7305, 13.3044, 82.1854, -128.753
2.67982, -1, -19.5186, 2.19682, 23.7661, 13.3065, 82.0916, -128.992
2.68773, -1, -19.6956, 2.10647, 23.8016, 13.3088, 81.9973, -129.231
2.69475, -1, -19.8722, 2.01619, 23.837, 13.3109, 81.903, -129.47
2.70375, -1, -20.048, 1.92597, 23.8726, 13.3131, 81.8092, -129.709
2.71174, -1, -20.2232, 1.83577, 23.9081, 13.3153, 81.715, -129.948
2.7198, -1, -20.3982, 1.74562, 23.9435, 13.3174, 81.6209, -130.186
2.72772, -1, -20.5728, 1.65556, 23.9791, 13.3197, 81.5272, -130.424
2.73573, -1, -20.7472, 1.56557, 24.0146, 13.3218, 81.4331, -130.663
2.74275, -1, -20.9219, 1.47565, 24.05, 13.324, 81.3394, -130.901
2.75173, -1, -21.0967, 1.38593, 24.0855, 13.3262, 81.2458, -131.139
2.75974, -1, -21.2721, 1.29616, 24.121, 13.3283, 81.1518, -131.376
2.76926, -1, -21.4479, 1.20644, 24.1563, 13.3305, 81.0579, -131.614
2.77582, -1, -21.6239, 1.11682, 24.1917, 13.3327, 80.9642, -131.852
2.78427, -1, -21.8001, 1.02717, 24.2272, 13.3349, 80.8704, -132.089
2.79173, -1, -21.9765, 0.937572, 24.2626, 13.3371, 80.7766, -132.327
2.79974, -1, -22.153, 0.848023, 24.2979, 13.3392, 80.683, -132.564
2.80854, -1, -22.3295, 0.758483, 24.3333, 13.3414, 80.5893, -132.801
2.81573, -1, -22.5056, 0.669014, 24.3685, 13.3436, 80.4957, -133.038
2.82373, -1, -22.6812, 0.57951, 24.4037, 13.346, 80.4021, -133.275
2.83251, -1, -22.8562, 0.490098, 24.439, 13.3484, 80.3086, -133.512
2.83893, -1, -23.0302, 0.400684, 24.4742, 13.3508, 80.215, -133.748
2.84775, -1, -23.2039, 0.31129, 24.5093, 13.3533, 80.1215, -133.985
2.85651, -1, -23.3772, 0.221908, 24.5445, 13.3557, 80.028, -134.222
2.86379, -1, -23.5503, 0.13268, 24.5797, 13.3581, 79.9346, -134.458
2.87175, -1, -23.7235, 0.0435407, 24.6148, 13.3605, 79.8413, -134.694
2.88053, -1, -23.8969, -0.0455316, 24.65, 13.3629, 79.7483, -134.93
2.88772, -1, -24.0704, -0.134493, 24.685, 13.3654, 79.655, -135.166
2.89574, -1, -24.2442, -0.223476, 24.72, 13.3679, 79.562, -135.402
2.90455, -1, -24.4182, -0.312375, 24.7552, 13.3703, 79.4691, -135.637
2.91172, -1, -24.5928, -0.401211, 24.7902, 13.3727, 79.3759, -135.873
2.91972, -1, -24.7675, -0.490123, 24.8252, 13.3751, 79.2828, -136.109
2.92852, -1, -24.9426, -0.578993, 24.8603, 13.3775, 79.19, -136.344
2.93574, -1, -25.1176, -0.667797, 24.8954, 13.3799, 79.0968, -136.579
2.94373, -1, -25.2923, -0.756599, 24.9303, 13.3822, 79.004, -136.814
2.95257, -1, -25.4666, -0.845393, 24.9653, 13.3847, 78.9115, -137.049
2.95973, -1, -25.6405, -0.934158, 25.0002, 13.3871, 78.8187, -137.284
2.96776, -1, -25.8138, -1.02284, 25.035, 13.3896, 78.7261, -137.519
2.97677, -1, -25.9865, -1.11159, 25.0699, 13.392, 78.6337, -137.754
2.98384, -1, -26.1588, -1.20029, 25.1049, 13.3944, 78.5411, -137.988
2.99186, -1, -26.3307, -1.28887, 25.1397, 13.3968, 78.4485, -138.223
3.00087, -1, -26.5023, -1.37736, 25.1745, 13.3992, 78.3561, -138.457
3.00783, -1, -26.6742, -1.46576, 25.2095, 13.4014, 78.2637, -138.691
3.01592, -1, -26.8463, -1.55405, 25.2443, 13.4037, 78.1712, -138.925
3.02432, -1, -27.0187, -1.64222, 25.2791, 13.406, 78.0788, -139.159
3.03077, -1, -27.105, -1.6863, 25.2966, 13.407, 78.0329, -139.276
3.03985, -1, -27.364, -1.81858, 25.3489, 13.4102, 77.8946, -139.627
3.04936, -1, -27.537, -1.90659, 25.3836, 13.4124, 77.8025, -139.86
3.05584, -1, -27.7102, -1.99479, 25.4184, 13.4145, 77.7107, -140.094
3.06395, -1, -27.8835, -2.0829, 25.4533, 13.4166, 77.6185, -140.327
3.07359, -1, -28.0568, -2.17091, 25.488, 13.4186, 77.5265, -140.561
3.08017, -1, -28.23, -2.25894, 25.5228, 13.4207, 77.4346, -140.794
3.08672, -1, -28.3166, -2.30298, 25.5402, 13.4217, 77.3885, -140.911
3.0977, -1, -28.5756, -2.43501, 25.5922, 13.4248, 77.2502, -141.26
3.10421, -1, -28.7477, -2.52295, 25.6268, 13.4269, 77.1584, -141.493
3.11072, -1, -28.8335, -2.56696, 25.6442, 13.428, 77.1124, -141.609
3.12187, -1, -29.0898, -2.6989, 25.6961, 13.4314, 76.9745, -141.958
3.12848, -1, -29.2604, -2.78669, 25.7307, 13.4335, 76.8828, -142.191
3.13632, -1, -29.3457, -2.83058, 25.7654, 13.4356, 76.7908, -142.423
3.14508, -1, -29.5163, -2.91828, 25.7827, 13.4366, 76.7449, -142.656
3.15229, -1, -29.6872, -3.00587, 25.8172, 13.4385, 76.6531, -142.772
3.15972, -1, -29.8583, -3.0934, 25.8517, 13.4406, 76.5614, -143.004
3.16773, -1, -30.0293, -3.18089, 25.8864, 13.4428, 76.4694, -143.236
3.17574, -1, -30.2002, -3.26841, 25.9209, 13.4448, 76.3777, -143.468
3.18373, -1, -30.3715, -3.35586, 25.9553, 13.4469, 76.2863, -143.7
3.19175, -1, -30.543, -3.4433, 25.9899, 13.4489, 76.1946, -143.932
3.19978, -1, -30.7147, -3.53083, 26.0243, 13.4509, 76.1032, -144.164
3.20774, -1, -30.8866, -3.61823, 26.0588, 13.453, 76.0119, -144.395
3.21576, -1, -31.0584, -3.70563, 26.0934, 13.4549, 75.9204, -144.626
3.22555, -1, -31.3157, -3.83661, 26.145, 13.4581, 75.7834, -144.974
3.23171, -1, -31.4013, -3.88027, 26.1622, 13.4591, 75.7378, -145.089
3.23977, -1, -31.5722, -3.96759, 26.1966, 13.4612, 75.6466, -145.32
3.24773, -1, -31.7427, -4.05486, 26.2311, 13.4634, 75.5552, -145.551
3.25571, -1, -31.9127, -4.1421, 26.2654, 13.4655, 75.4642, -145.782
3.26282, -1, -32.0824, -4.22933, 26.2998, 13.4678, 75.3732, -146.013
3.27178, -1, -32.2517, -4.31645, 26.3342, 13.47, 75.282, -146.244
3.27972, -1, -32.4212, -4.40353, 26.3684, 13.4722, 75.1909, -146.474
3.28779, -1, -32.5909, -4.49051, 26.4028, 13.4742, 75.1004, -146.705
3.29679, -1, -32.7605, -4.57738, 26.4372, 13.4764, 75.0093, -146.935
3.30372, -1, -32.9301, -4.66431, 26.4715, 13.4785, 74.9185, -147.165
3.31178, -1, -33.0999, -4.75122, 26.5057, 13.4807, 74.8282, -147.396
3.31972, -1, -33.2697, -4.83803, 26.54, 13.483, 74.7373, -147.626
3.32778, -1, -33.4397, -4.92488, 26.5743, 13.4852, 74.6468, -147.856
3.33571, -1, -33.61, -5.01182, 26.6085, 13.4874, 74.5562, -148.085
3.34373, -1, -33.7803, -5.09859, 26.6428, 13.4896, 74.4657, -148.315
3.3518, -1, -33.9505, -5.18533, 26.677, 13.4919, 74.3751, -148.545
3.35972, -1, -34.1208, -5.27203, 26.7111, 13.4941, 74.2846, -148.775
3.36778, -1, -34.2909, -5.35873, 26.7454, 13.4964, 74.1941, -149.004
3.3758, -1, -34.461, -5.44537, 26.7797, 13.4987, 74.1034, -149.233
3.38372, -1, -34.6304, -5.53202, 26.8138, 13.5011, 74.0128, -149.463
3.39172, -1, -34.7993, -5.61867, 26.8479, 13.5034, 73.9224, -149.692
3.39978, -1, -34.9679, -5.70525, 26.8821, 13.5059, 73.8319, -149.921
3.40771, -1, -35.1363, -5.79172, 26.9162, 13.5083, 73.7414, -150.15
3.41572, -1, -35.3045, -5.87812, 26.9503, 13.5107, 73.6513, -150.379
3.42379, -1, -35.4729, -5.96439, 26.9845, 13.5132, 73.5608, -150.608
3.43171, -1, -35.6415, -6.05061, 27.0185, 13.5155, 73.4704, -150.836
3.43988, -1, -35.81, -6.13684, 27.0525, 13.5178, 73.3804, -151.065
3.44771, -1, -35.9785, -6.22298, 27.0866, 13.5203, 73.2898, -151.294
3.45571, -1, -36.147, -6.30909, 27.1207, 13.5227, 73.1995, -151.522
3.46395, -1, -36.3156, -6.39523, 27.1546, 13.5251, 73.1091, -151.751
3.47175, -1, -36.4844, -6.48148, 27.1886, 13.5275, 73.0187, -151.979
3.47986, -1, -36.6533, -6.56765, 27.2226, 13.5298, 72.9285, -152.207
3.48816, -1, -36.8221, -6.65385, 27.2565, 13.5321, 72.8382, -152.435
3.49529, -1, -36.9911, -6.73999, 27.2905, 13.5344, 72.7483, -152.663
3.50381, -1, -37.16, -6.82615, 27.3245, 13.5366, 72.6581, -152.892
3.51255, -1, -37.3286, -6.91221, 27.3583, 13.5389, 72.5681, -153.119
3.5199, -1, -37.497, -6.99824, 27.3922, 13.5412, 72.4785, -153.347
3.52771, -1, -37.6649, -7.0843, 27.4263, 13.5434, 72.3884, -153.574
3.53638, -1, -37.8326, -7.17033, 27.4601, 13.5457, 72.2986, -153.802
3.54375, -1, -38.0001, -7.25627, 27.494, 13.5479, 72.209, -154.029
3.55177, -1, -38.1676, -7.34216, 27.5279, 13.5501, 72.1191, -154.257
3.56085, -1, -38.335, -7.428, 27.5618, 13.5523, 72.0294, -154.484
3.56792, -1, -38.5023, -7.51366, 27.5956, 13.5544, 71.9399, -154.711
3.57607, -1, -38.6696, -7.59941, 27.6295, 13.5564, 71.8502, -154.939
3.58272, -1, -38.7533, -7.64228, 27.6465, 13.5575, 71.8054, -155.052
3.59207, -1, -39.0042, -7.77078, 27.6971, 13.5606, 71.6714, -155.393
3.59876, -1, -39.0878, -7.81357, 27.714, 13.5616, 71.6269, -155.506
3.60825, -1, -39.3391, -7.9421, 27.7648, 13.5646, 71.4927, -155.846
3.61624, -1, -39.5067, -8.02773, 27.7985, 13.5666, 71.4032, -156.073
3.62435, -1, -39.6743, -8.11326, 27.8321, 13.5686, 71.3142, -156.299
3.63232, -1, -39.842, -8.19873, 27.8659, 13.5705, 71.2246, -156.526
3.64031, -1, -39.9258, -8.24148, 27.8996, 13.5724, 71.1353, -156.752
3.6484, -1, -40.0933, -8.3269, 27.9164, 13.5744, 71.0461, -156.978
3.6557, -1, -40.2608, -8.41226, 27.9501, 13.5754, 71.0015, -157.092
3.6637, -1, -40.4279, -8.49765, 27.9839, 13.5774, 70.9121, -157.318
3.67177, -1, -40.5949, -8.583, 28.0174, 13.5793, 70.8229, -157.544
3.6797, -1, -40.7618, -8.66838, 28.051, 13.5813, 70.7339, -157.77
3.68772, -1, -40.9284, -8.75372, 28.0847, 13.5834, 70.6446, -157.996
3.69572, -1, -41.0948, -8.83904, 28.1184, 13.5853, 70.5555, -158.221
3.70377, -1, -41.2611, -8.92426, 28.1519, 13.5873, 70.4665, -158.447
3.71175, -1, -41.4273, -9.00942, 28.1855, 13.5893, 70.3772, -158.673
3.71971, -1, -41.5936, -9.09461, 28.2192, 13.5913, 70.288, -158.898
3.72771, -1, -41.7598, -9.17967, 28.2527, 13.5933, 70.199, -159.124
3.73574, -1, -41.9262, -9.26473, 28.2862, 13.5953, 70.1099, -159.35
3.74371, -1, -42.0927, -9.34978, 28.3199, 13.5974, 70.0209, -159.575
3.7517, -1, -42.2589, -9.43485, 28.3534, 13.5994, 69.9319, -159.8
3.75976, -1, -42.4252, -9.51985, 28.3869, 13.6014, 69.8432, -160.026
3.76771, -1, -42.5916, -9.60482, 28.4205, 13.6034, 69.7541, -160.251
3.77572, -1, -42.758, -9.68976, 28.454, 13.6054, 69.6651, -160.476
3.7847, -1, -42.9244, -9.77471, 28.4873, 13.6075, 69.5766, -160.701
3.7917, -1, -43.0907, -9.85964, 28.5208, 13.6095, 69.4876, -160.926
3.8007, -1, -43.2569, -9.94463, 28.5543, 13.6116, 69.399, -161.151
3.80778, -1, -43.423, -10.0296, 28.5877, 13.6137, 69.3104, -161.375
3.8157, -1, -43.589, -10.1145, 28.6212, 13.6158, 69.2217, -161.6
3.8237, -1, -43.7549, -10.1995, 28.6547, 13.6179, 69.1332, -161.825
3.83177, -1, -43.9208, -10.2843, 28.688, 13.6201, 69.0448, -162.05
3.83969, -1, -44.0865, -10.3691, 28.7214, 13.6222, 68.9563, -162.274
3.84771, -1, -44.2518, -10.4538, 28.755, 13.6244, 68.8676, -162.498
3.85578, -1, -44.417, -10.5384, 28.7884, 13.6266, 68.7789, -162.722
3.8637, -1, -44.5821, -10.6229, 28.8217, 13.6287, 68.6905, -162.947
3.87176, -1, -44.7474, -10.7075, 28.8552, 13.6309, 68.6018, -163.171
3.87976, -1, -44.9126, -10.7919, 28.8887, 13.6331, 68.5133, -163.395
3.88771, -1, -45.078, -10.8764, 28.922, 13.6353, 68.425, -163.619
3.8957, -1, -45.2433, -10.961, 28.9554, 13.6375, 68.3365, -163.843
3.90376, -1, -45.4086, -11.0454, 28.9889, 13.6398, 68.2481, -164.067
3.91169, -1, -45.5738, -11.1298, 29.0221, 13.6421, 68.16, -164.291
3.91969, -1, -45.739, -11.2142, 29.0553, 13.6444, 68.0717, -164.514
3.92777, -1, -45.904, -11.2985, 29.0887, 13.6466, 67.9832, -164.738
3.93569, -1, -46.067, -11.3818, 29.1222, 13.6489, 67.8948, -164.962
3.94372, -1, -46.2265, -11.4629, 29.1557, 13.6512, 67.8072, -165.184
3.95177, -1, -46.3804, -11.5402, 29.1893, 13.6536, 67.7206, -165.403
3.9597, -1, -46.5265, -11.6129, 29.2224, 13.6559, 67.6369, -165.614
3.96773, -1, -46.6624, -11.6797, 29.2536, 13.6583, 67.5587, -165.813
3.9758, -1, -46.785, -11.7394, 29.2819, 13.6604, 67.4873, -165.993
3.98379, -1, -46.892, -11.792, 29.3063, 13.6623, 67.4258, -166.148
3.99179, -1, -46.9826, -11.838, 29.3258, 13.6637, 67.3755, -166.276
3.99986, -1, -47.0574, -11.878, 29.3396, 13.6647, 67.3363, -166.375
4.00781, -1, -47.1171, -11.9112, 29.3487, 13.6653, 67.308, -166.446
4.01581, -1, -47.1625, -11.9369, 29.3542, 13.6657, 67.289, -166.494
4.02409, -1, -47.1956, -11.9556, 29.3569, 13.6658, 67.2774, -166.523
4.0317, -1, -47.2182, -11.9682, 29.3581, 13.6659, 67.2709, -166.54
4.03978, -1, -47.2324, -11.976, 29.3586, 13.666, 67.2675, -166.548
4.04821, 2, -47.2405, -11.9803, 29.3589, 13.666, 67.2659, -166.552
4.05469, 2, -47.2428, -11.9815, 29.359, 13.666, 67.2654, -166.553
4.06384, 2, -47.245, -11.9831, 29.3592, 13.666, 67.2648, -166.555
4.07201, 2, -47.2449, -11.9834, 29.3593, 13.666, 67.2646, -166.555
4.07872, 2, -47.2448, -11.9835, 29.3593, 13.6661, 67.2646, -166.555
4.08805, 2, -47.2449, -11.9837, 29.3594, 13.6661, 67.2645, -166.556
4.09469, 2, -47.2451, -11.9837, 29.3594, 13.6661, 67.2645, -166.556
4.10417, 2, -47.2465, -11.9842, 29.3594, 13.6661, 67.2644, -166.556
4.1122, 2, -47.2481, -11.9848, 29.3594, 13.666, 67.2644, -166.556
4.12033, 2, -47.2499, -11.9856, 29.3594, 13.6661, 67.2644, -166.556
4.12825, 2, -47.2513, -11.9865, 29.3594, 13.6661, 67.2645, -166.556
4.13625, 2, -47.2526, -11.9872, 29.3594, 13.666, 67.2645, -166.556
4.14458, 2, -47.2533, -11.9878, 29.3594, 13.666, 67.2645, -166.556
4.1522, 2, -47.2535, -11.9879, 29.3594, 13.6661, 67.2645, -166.556
4.16051, 2, -47.2537, -11.9882, 29.3594, 13.6661, 67.2644, -166.556
4.16775, 2, -47.2537, -11.9882, 29.3594, 13.6661, 67.2644, -166.556
4.17568, 2, -47.2535, -11.9882, 29.3594, 13.6661, 67.2644, -166.556
4.18368, 2, -47.253, -11.9882, 29.3594, 13.6661, 67.2644, -166.556
4.19175, 2, -47.2526, -11.9882, 29.3595, 13.6661, 67.2645, -166.556
4.19968, 2, -47.2522, -11.9882, 29.3595, 13.6661, 67.2645, -166.555
4.20776, 2, -47.252, -11.9882, 29.3595, 13.6661, 67.2645, -166.555
4.21574, 2, -47.252, -11.9882, 29.3595, 13.6661, 67.2645, -166.556
4.22368, 2, -47.2521, -11.9884, 29.3595, 13.6661, 67.2645, -166.556
4.23168, 2, -47.2523, -11.9887, 29.3595, 13.6661, 67.2645, -166.555
4.2397, 2, -47.2529, -11.989, 29.3595, 13.6661, 67.2645, -166.555
4.24769, 2, -47.2534, -11.9893, 29.3595, 13.6661, 67.2645, -166.555
4.25568, 2, -47.2538, -11.9895, 29.3595, 13.6661, 67.2645, -166.555
4.26375, 2, -47.2539, -11.9896, 29.3595, 13.666, 67.2645, -166.555
4.27168, 2, -47.2539, -11.9896, 29.3595, 13.666, 67.2645, -166.555
4.2797, 2, -47.2538, -11.9896, 29.3595, 13.666, 67.2645, -166.555
4.28776, 2, -47.2537, -11.9896, 29.3595, 13.666, 67.2645, -166.555
4.29675, 2, -47.2532, -11.9895, 29.3595, 13.666, 67.2645, -166.555
4.30368, 2, -47.2529, -11.9895, 29.3595, 13.666, 67.2645, -166.555
4.31276, 2, -47.2526, -11.9895, 29.3595, 13.666, 67.2645, -166.555
4.31968, 2, -47.2524, -11.9895, 29.3595, 13.666, 67.2645, -166.555
4.32769, 2, -47.2523, -11.9895, 29.3595, 13.666, 67.2645, -166.555
4.33575, 2, -47.2523, -11.9896, 29.3595, 13.666, 67.2645, -166.555
4.34368, 2, -47.2522, -11.9896, 29.3595, 13.666, 67.2645, -166.555
4.35168, 2, -47.2523, -11.9897, 29.3594, 13.666, 67.2645, -166.555
4.35977, 2, -47.2523, -11.9897, 29.3595, 13.666, 67.2645, -166.555
4.36769, 2, -47.2523, -11.9898, 29.3595, 13.666, 67.2645, -166.555
4.37574, 2, -47.2523, -11.9897, 29.3595, 13.666, 67.2645, -166.555
4.38375, 2, -47.2523, -11.9897, 29.3595, 13.666, 67.2645, -166.555
4.39168, 2, -47.2522, -11.9896, 29.3595, 13.666, 67.2645, -166.555
4.39968, 2, -47.2521, -11.9896, 29.3595, 13.666, 67.2645, -166.555
4.40776, 2, -47.2519, -11.9895, 29.3595, 13.666, 67.2645, -166.555
4.41568, 2, -47.2519, -11.9895, 29.3595, 13.666, 67.2645, -166.555
4.42368, 2, -47.2517, -11.9895, 29.3595, 13.6659, 67.2645, -166.555
4.43175, 2, -47.2517, -11.9895, 29.3595, 13.666, 67.2645, -166.555
4.43968, 2, -47.2516, -11.9895, 29.3595, 13.666, 67.2645, -166.555
4.44771, 2, -47.2515, -11.9896, 29.3595, 13.666, 67.2646, -166.555
4.45575, 2, -47.2515, -11.9896, 29.3595, 13.666, 67.2646, -166.555
4.46369, 2, -47.2514, -11.9895, 29.3595, 13.666, 67.2646, -166.555
4.47171, 2, -47.2513, -11.9895, 29.3595, 13.666, 67.2645, -166.555
4.47978, 2, -47.2513, -11.9895, 29.3595, 13.666, 67.2646, -166.555
4.48778, 2, -47.2513, -11.9895, 29.3595, 13.666, 67.2645, -166.555
4.49578, 2, -47.2512, -11.9894, 29.3595, 13.666, 67.2646, -166.555
4.50384, 2, -47.2511, -11.9894, 29.3595, 13.666, 67.2646, -166.555
4.51178, 2, -47.251, -11.9893, 29.3595, 13.666, 67.2646, -166.555
4.51979, 2, -47.2509, -11.9893, 29.3595, 13.666, 67.2646, -166.555
4.52788, 2, -47.2508, -11.9893, 29.3595, 13.6659, 67.2646, -166.555
4.53569, 2, -47.2507, -11.9893, 29.3595, 13.6659, 67.2647, -166.555
4.54377, 2, -47.2506, -11.9893, 29.3595, 13.6659, 67.2646, -166.555
4.55184, 2, -47.2505, -11.9893, 29.3595, 13.6659, 67.2646, -166.555
4.55974, 2, -47.2504, -11.9893, 29.3595, 13.6659, 67.2646, -166.555
4.56785, 2, -47.2503, -11.9893, 29.3595, 13.6659, 67.2646, -166.555
4.57604, 2, -47.2502, -11.9893, 29.3595, 13.6659, 67.2647, -166.555
4.58278, 2, -47.2501, -11.9893, 29.3595, 13.6659, 67.2646, -166.555
4.592, 2, -47.2499, -11.9892, 29.3595, 13.6659, 67.2647, -166.555
4.59867, 2, -47.2499, -11.9892, 29.3595, 13.6659, 67.2646, -166.555
4.60816, 2, -47.2498, -11.9891, 29.3595, 13.6659, 67.2646, -166.555
4.61621, 2, -47.2497, -11.989, 29.3595, 13.6659, 67.2647, -166.555
4.62433, 2, -47.2496, -11.989, 29.3595, 13.6659, 67.2647, -166.555
4.63224, 2, -47.2495, -11.989, 29.3595, 13.6659, 67.2647, -166.555
4.64024, 2, -47.2494, -11.989, 29.3595, 13.6659, 67.2646, -166.555
4.64855, 2, -47.2493, -11.989, 29.3595, 13.6659, 67.2646, -166.555
4.65567, 2, -47.2493, -11.989, 29.3595, 13.6659, 67.2646, -166.555
4.66367, 2, -47.2492, -11.989, 29.3595, 13.6659, 67.2647, -166.555
4.67172, 2, -47.2492, -11.989, 29.3595, 13.6659, 67.2647, -166.555
4.67967, 2, -47.2491, -11.989, 29.3595, 13.6659, 67.2647, -166.555
4.68768, 2, -47.2491, -11.9889, 29.3595, 13.6659, 67.2647, -166.555
4.69574, 2, -47.249, -11.9889, 29.3595, 13.6658, 67.2647, -166.555
4.70367, 2, -47.249, -11.9889, 29.3595, 13.6658, 67.2647, -166.555
4.71173, 2, -47.2489, -11.9888, 29.3594, 13.6658, 67.2648, -166.555
4.71972, 2, -47.2489, -11.9887, 29.3594, 13.6658, 67.2648, -166.555
4.72768, 2, -47.2487, -11.9887, 29.3595, 13.6659, 67.2648, -166.555
4.73566, 2, -47.2487, -11.9886, 29.3595, 13.6658, 67.2648, -166.555
4.74372, 2, -47.2486, -11.9886, 29.3595, 13.6658, 67.2648, -166.555
4.75167, 2, -47.2486, -11.9886, 29.3595, 13.6658, 67.2648, -166.555
4.75967, 2, -47.2485, -11.9886, 29.3595, 13.6658, 67.2647, -166.555
4.76667, 2, -47.2485, -11.9886, 29.3595, 13.6657, 67.2647, -166.555
4.77567, 2, -47.2484, -11.9886, 29.3595, 13.6658, 67.2648, -166.555
4.78467, 2, -47.2484, -11.9886, 29.3595, 13.6658, 67.2648, -166.555
4.79174, 2, -47.2484, -11.9885, 29.3595, 13.6657, 67.2647, -166.555
4.80074, 2, -47.2484, -11.9885, 29.3594, 13.6657, 67.2648, -166.555
4.80768, 2, -47.2483, -11.9884, 29.3595, 13.6657, 67.2648, -166.555
4.81574, 2, -47.2483, -11.9884, 29.3595, 13.6657, 67.2648, -166.555
4.82367, 2, -47.2482, -11.9883, 29.3595, 13.6656, 67.2648, -166.555
4.83167, 2, -47.2481, -11.9883, 29.3595, 13.6656, 67.2648, -166.554
4.83974, 2, -47.248, -11.9882, 29.3595, 13.6656, 67.2648, -166.554
4.84768, 2, -47.2479, -11.9882, 29.3595, 13.6656, 67.2648, -166.554
4.85567, 2, -47.2479, -11.9882, 29.3595, 13.6656, 67.2648, -166.554
4.86376, 2, -47.2478, -11.9882, 29.3595, 13.6656, 67.2648, -166.554
4.87167, 2, -47.2478, -11.9882, 29.3595, 13.6656, 67.2648, -166.554
4.87973, 2, -47.2477, -11.9882, 29.3595, 13.6655, 67.2648, -166.554
4.88781, 2, -47.2477, -11.9882, 29.3595, 13.6655, 67.2648, -166.554
4.89565, 2, -47.2476, -11.9881, 29.3595, 13.6655, 67.2648, -166.554
4.90367, 2, -47.2476, -11.9881, 29.3595, 13.6655, 67.2648, -166.554
4.91173, 2, -47.2476, -11.9881, 29.3595, 13.6655, 67.2648, -166.554
4.91966, 2, -47.2475, -11.988, 29.3595, 13.6655, 67.2648, -166.554
4.92767, 2, -47.2474, -11.9879, 29.3595, 13.6655, 67.2649, -166.554
4.93574, 2, -47.2474, -11.9878, 29.3594, 13.6655, 67.2649, -166.554
4.94367, 2, -47.2473, -11.9878, 29.3594, 13.6655, 67.2649, -166.554
4.95168, 2, -47.2472, -11.9878, 29.3594, 13.6655, 67.2649, -166.554
4.95974, 2, -47.2471, -11.9878, 29.3595, 13.6655, 67.2649, -166.554
4.9677, 2, -47.2471, -11.9878, 29.3594, 13.6655, 67.2649, -166.554
4.9757, 2, -47.2471, -11.9877, 29.3595, 13.6654, 67.265, -166.554
4.98381, 2, -47.247, -11.9877, 29.3595, 13.6654, 67.265, -166.554
4.99175, 2, -47.247, -11.9877, 29.3595, 13.6654, 67.265, -166.554
4.99976, 2, -47.247, -11.9877, 29.3595, 13.6654, 67.265, -166.554
5.00785, 2, -47.2469, -11.9877, 29.3594, 13.6654, 67.265, -166.554
5.01578, 2, -47.2469, -11.9876, 29.3595, 13.6654, 67.265, -166.554
5.02376, 2, -47.2469, -11.9876, 29.3595, 13.6654, 67.265, -166.554
5.03193, 2, -47.2468, -11.9875, 29.3595, 13.6654, 67.265, -166.554
5.03967, 2, -47.2467, -11.9875, 29.3594, 13.6654, 67.265, -166.554
5.04807, 2, -47.2466, -11.9874, 29.3595, 13.6654, 67.265, -166.554
5.05581, 2, -47.2466, -11.9874, 29.3595, 13.6654, 67.2651, -166.554
5.06394, 2, -47.2465, -11.9874, 29.3595, 13.6654, 67.2651, -166.554
5.07071, 2, -47.2465, -11.9874, 29.3595, 13.6654, 67.2651, -166.554
5.07996, 2, -47.2464, -11.9874, 29.3595, 13.6653, 67.2651, -166.554
5.08803, 2, -47.2464, -11.9874, 29.3595, 13.6653, 67.2651, -166.554
5.09484, 2, -47.2464, -11.9874, 29.3595, 13.6653, 67.2651, -166.554
5.10414, 2, -47.2464, -11.9873, 29.3595, 13.6653, 67.2651, -166.554
5.11072, 2, -47.2463, -11.9873, 29.3595, 13.6653, 67.2651, -166.554
5.12019, 2, -47.2463, -11.9873, 29.3595, 13.6652, 67.2651, -166.554
5.12824, 2, -47.2463, -11.9872, 29.3595, 13.6652, 67.2651, -166.554
5.1366, 4, -47.2462, -11.9872, 29.3595, 13.6652, 67.2651, -166.554
5.14423, 4, -47.2462, -11.9871, 29.3594, 13.6652, 67.2651, -166.554
5.1523, 4, -47.2461, -11.9871, 29.3594, 13.6652, 67.2651, -166.554
5.15966, 4, -47.246, -11.9871, 29.3594, 13.6652, 67.2652, -166.554
5.16766, 4, -47.246, -11.9871, 29.3594, 13.6651, 67.2652, -166.554
5.17654, 4, -47.2459, -11.987, 29.3594, 13.6651, 67.2652, -166.554
5.18366, 4, -47.2459, -11.987, 29.3594, 13.6651, 67.2652, -166.554
5.19165, 4, -47.2458, -11.987, 29.3594, 13.6651, 67.2652, -166.554
5.19972, 4, -47.2458, -11.987, 29.3594, 13.6651, 67.2652, -166.554
5.20766, 4, -47.2458, -11.987, 29.3594, 13.6651, 67.2652, -166.554
5.21572, 4, -47.2458, -11.987, 29.3594, 13.6651, 67.2652, -166.554
5.22372, 4, -47.2458, -11.9869, 29.3594, 13.6651, 67.2653, -166.554
5.23166, 4, -47.2457, -11.9869, 29.3594, 13.6651, 67.2652, -166.554
5.23978, 4, -47.2457, -11.9869, 29.3594, 13.665, 67.2653, -166.554
5.25323, 4, -47.2456, -11.9868, 29.3594, 13.665, 67.2653, -166.554
5.25577, 4, -47.2456, -11.9868, 29.3594, 13.665, 67.2653, -166.554
5.26853, 4, -47.2455, -11.9867, 29.3594, 13.6651, 67.2653, -166.554
5.2718, 4, -47.2455, -11.9867, 29.3594, 13.665, 67.2653, -166.554
5.28343, 4, -47.2454, -11.9867, 29.3594, 13.6651, 67.2653, -166.553
5.29079, 4, -47.2454, -11.9867, 29.3594, 13.665, 67.2653, -166.553
5.29995, 4, -47.2453, -11.9867, 29.3594, 13.665, 67.2653, -166.553
5.30666, 4, -47.2453, -11.9866, 29.3594, 13.665, 67.2653, -166.553
5.31477, 4, -47.2453, -11.9866, 29.3594, 13.665, 67.2653, -166.553
5.31985, 4, -47.2453, -11.9866, 29.3594, 13.665, 67.2653, -166.553
5.3299, 4, -47.2453, -11.9866, 29.3594, 13.665, 67.2653, -166.553
5.33584, 4, -47.2453, -11.9866, 29.3594, 13.665, 67.2653, -166.553
5.34657, 4, -47.2452, -11.9865, 29.3594, 13.665, 67.2653, -166.553
5.35523, 4, -47.2451, -11.9865, 29.3594, 13.665, 67.2653, -166.553
5.35978, 4, -47.2451, -11.9865, 29.3594, 13.6649, 67.2653, -166.553
5.37146, 4, -47.245, -11.9864, 29.3594, 13.6649, 67.2654, -166.553
5.37662, 4, -47.245, -11.9864, 29.3594, 13.6649, 67.2654, -166.553
5.38386, 4, -47.245, -11.9864, 29.3594, 13.6649, 67.2654, -166.553
5.39341, 4, -47.2449, -11.9864, 29.3594, 13.6649, 67.2653, -166.553
5.40299, 4, -47.2449, -11.9864, 29.3595, 13.6649, 67.2653, -166.553
5.40788, 4, -47.245, -11.9864, 29.3595, 13.6649, 67.2653, -166.553
5.41593, 4, -47.2459, -11.9869, 29.3598, 13.665, 67.2654, -166.553
5.42713, 4, -47.2501, -11.9905, 29.3638, 13.6701, 67.2668, -166.552
5.43316, 4, -47.2524, -11.9932, 29.3672, 13.6764, 67.2683, -166.552
5.4398, 4, -47.2595, -12.0022, 29.3798, 13.7013, 67.2747, -166.547
5.44914, 4, -47.2711, -12.0174, 29.4044, 13.7502, 67.2882, -166.537
5.45583, 5, -47.2891, -12.0417, 29.447, 13.8379, 67.3127, -166.517
5.46388, 5, -47.3158, -12.0772, 29.5139, 13.9777, 67.3522, -166.485
5.47349, 5, -47.3531, -12.1256, 29.6113, 14.1846, 67.4091, -166.437
5.4799, 5, -47.4027, -12.1884, 29.7437, 14.4697, 67.4879, -166.372
5.48855, 5, -47.465, -12.2661, 29.9134, 14.8386, 67.5877, -166.287
5.49588, 5, -47.5398, -12.359, 30.1218, 15.2908, 67.7093, -166.183
5.50431, 5, -47.6267, -12.4666, 30.3671, 15.8184, 67.8493, -166.063
5.51197, 5, -47.7244, -12.5873, 30.6445, 16.4078, 68.0042, -165.93
5.52001, 5, -47.831, -12.7196, 30.9497, 17.0453, 68.1689, -165.788
5.53115, 5, -47.9447, -12.8612, 31.2758, 17.7153, 68.3392, -165.641
5.53601, 5, -48.0631, -13.0097, 31.617, 18.4027, 68.5107, -165.491
5.54483, 5, -48.1839, -13.1622, 31.9666, 19.0979, 68.6809, -165.343
5.55156, 5, -48.2442, -13.239, 32.1434, 19.4452, 68.8479, -165.195
5.56005, 5, -48.4204, -13.466, 32.6748, 20.4693, 69.0109, -165.046
5.56813, 5, -48.529, -13.6116, 33.0244, 21.1251, 69.1707, -164.887
5.57677, 6, -48.6255, -13.7481, 33.3626, 21.7449, 69.329, -164.706
5.58427, 6, -48.7056, -13.8739, 33.6849, 22.3205, 69.4879, -164.49
5.5924, 7, -48.7656, -13.9901, 33.9876, 22.8466, 69.6504, -164.226
5.60155, 7, -48.804, -14.098, 34.2699, 23.3229, 69.8189, -163.901
5.60908, 7, -48.8214, -14.197, 34.5313, 23.7558, 69.9964, -163.507
5.6176, 8, -48.8195, -14.2859, 34.7755, 24.1549, 70.1852, -163.045
5.62676, 8, -48.8007, -14.3658, 35.0066, 24.5304, 70.3859, -162.518
5.63307, 9, -48.7684, -14.4387, 35.2275, 24.893, 70.5987, -161.941
5.64049, 9, -48.725, -14.507, 35.4433, 25.2502, 70.8216, -161.327
5.64851, 10, -48.6721, -14.572, 35.6572, 25.6069, 71.0529, -160.691
5.65931, 10, -48.6423, -14.6345, 35.8704, 25.9648, 71.2893, -160.044
5.66455, 11, -48.5771, -14.6951, 36.0839, 26.3252, 71.5279, -159.397
5.67367, 11, -48.469, -14.7554, 36.2976, 26.6891, 71.7666, -158.753
5.68583, 12, -48.3527, -14.8476, 36.614, 27.2449, 72.1253, -157.79
5.68937, 12, -48.3132, -14.8784, 36.7187, 27.4334, 72.2451, -157.468
5.69981, 13, -48.2332, -14.9387, 36.9269, 27.8155, 72.4858, -156.822
5.70649, 13, -48.1513, -14.9978, 37.1328, 28.2044, 72.7281, -156.174
5.71185, 14, -48.1096, -15.0275, 37.2351, 28.4011, 72.8499, -155.848
5.71991, 14, -48.0234, -15.0876, 37.439, 28.798, 73.0946, -155.195
5.72786, 15, -47.9336, -15.1482, 37.6421, 29.1985, 73.3399, -154.543
5.73775, 15, -47.7917, -15.2373, 37.9425, 29.8016, 73.7069, -153.568
5.74622, 16, -47.6901, -15.2962, 38.1405, 30.2034, 73.9495, -152.922
5.7518, 16, -47.6368, -15.3261, 38.2387, 30.4039, 74.0699, -152.6
5.76204, 17, -47.4681, -15.4184, 38.5283, 31.0014, 74.4254, -151.642
5.76785, 17, -47.4095, -15.4498, 38.6232, 31.199, 74.5415, -151.325
5.77753, 18, -47.2265, -15.5451, 38.9046, 31.7863, 74.8817, -150.385
5.78587, 18, -47.0982, -15.6099, 39.0891, 32.1733, 75.101, -149.767
5.79181, 19, -47.032, -15.6431, 39.1804, 32.3658, 75.2086, -149.461
5.79985, 19, -46.8958, -15.7116, 39.3621, 32.7492, 75.4197, -148.855
5.80882, 20, -46.7546, -15.7821, 39.5428, 33.1309, 75.6258, -148.256
5.81852, 20, -46.5335, -15.8915, 39.8094, 33.7012, 75.9264, -147.371
5.82391, 21, -46.4572, -15.9294, 39.8969, 33.8907, 76.0244, -147.079
5.83241, 21, -46.3008, -16.0072, 40.0705, 34.2689, 76.2173, -146.5
5.83975, 22, -46.1397, -16.0876, 40.2422, 34.6453, 76.4053, -145.927
5.84906, 22, -45.9735, -16.1694, 40.4106, 35.0188, 76.5882, -145.362
5.86073, 23, -45.7139, -16.2949, 40.6578, 35.5716, 76.852, -144.525
5.8677, 23, -45.624, -16.3807, 40.8192, 35.9342, 77.0206, -143.974
5.87181, 24, -45.4391, -16.4244, 40.8986, 36.1136, 77.1028, -143.7
5.8812, 24, -45.2473, -16.5129, 41.054, 36.4678, 77.2628, -143.158
5.88787, 25, -45.0492, -16.6026, 41.2053, 36.8153, 77.4177, -142.62
5.89577, 25, -44.8448, -16.693, 41.3525, 37.1561, 77.5674, -142.085
5.90683, 26, -44.5256, -16.8303, 41.5646, 37.6542, 77.7832, -141.289
5.91286, 26, -44.4156, -16.8764, 41.6327, 37.8166, 77.8532, -141.025
5.92289, 27, -44.0755, -17.0143, 41.8285, 38.2924, 78.0571, -140.236
5.9278, 27, -43.9589, -17.06, 41.8908, 38.4471, 78.1231, -139.973
5.93577, 28, -43.7206, -17.1506, 42.0108, 38.7504, 78.2527, -139.448
5.94387, 28, -43.4752, -17.2401, 42.1242, 39.0451, 78.3784, -138.925
5.95345, 29, -43.223, -17.3281, 42.2307, 39.3314, 78.5012, -138.403
5.95996, 29, -42.9644, -17.4144, 42.3303, 39.6095, 78.6205, -137.88
5.96784, 30, -42.6985, -17.499, 42.4226, 39.8791, 78.7368, -137.358
5.97601, 30, -42.4242, -17.5816, 42.5077, 40.1401, 78.8503, -136.837
5.98748, 31, -41.997, -17.7005, 42.622, 40.5156, 79.0148, -136.057
5.99565, 31, -41.8509, -17.7389, 42.6566, 40.6364, 79.0685, -135.537
6.00087, 32, -41.5534, -17.8141, 42.7207, 40.872, 79.1737, -135.277
6.00824, 32, -41.2492, -17.8868, 42.778, 41.0991, 79.2763, -134.758
6.01596, 33, -40.9387, -17.9565, 42.8281, 41.3182, 79.3764, -134.241
6.02551, 33, -40.6213, -18.0229, 42.8712, 41.5293, 79.474, -133.724
6.03197, 34, -40.2981, -18.0866, 42.9068, 41.7319, 79.5688, -133.208
6.04056, 34, -39.9703, -18.1477, 42.9352, 41.9266, 79.6611, -132.693
6.04792, 35, -39.6372, -18.2057, 42.9564, 42.1137, 79.751, -132.18
6.0568, 35, -39.2978, -18.2603, 42.9706, 42.2934, 79.8383, -131.668
6.06644, 36, -38.9512, -18.3115, 42.9777, 42.4651, 79.9235, -131.156
6.07279, 36, -38.5974, -18.3593, 42.9782, 42.6292, 80.0068, -130.646
6.0804, 37, -38.2375, -18.4039, 42.9719, 42.7858, 80.0875, -130.138
6.08826, 37, -37.8717, -18.4447, 42.9587, 42.9348, 80.1668, -129.631
6.09766, 38, -37.5009, -18.4819, 42.9388, 43.0766, 80.2435, -129.126
6.10446, 38, -37.1257, -18.5158, 42.9124, 43.2109, 80.3186, -128.622
6.11247, 39, -36.7457, -18.5463, 42.8791, 43.3377, 80.3907, -128.12
6.12317, 40, -36.3612, -18.573, 42.8391, 43.4573, 80.4616, -127.621
6.12872, 40, -35.9709, -18.596, 42.7926, 43.5695, 80.5302, -127.123
6.13782, 40, -35.5746, -18.6151, 42.7396, 43.6748, 80.5976, -126.626
6.14685, 41, -35.1726, -18.6302, 42.6799, 43.7725, 80.6622, -126.132
6.15551, 41, -34.7654, -18.6418, 42.6139, 43.8632, 80.7253, -125.64
6.1605, 42, -34.5604, -18.6463, 42.5414, 43.9468, 80.7863, -125.151
6.16957, 42, -33.9406, -18.655, 42.4627, 44.0234, 80.8451, -124.663
6.17655, 43, -33.7323, -18.6563, 42.421, 44.0589, 80.8744, -124.42
6.18377, 43, -33.3127, -18.6565, 42.3331, 44.1246, 80.9309, -123.936
6.1951, 44, -32.8873, -18.6529, 42.2395, 44.1835, 80.9854, -123.215
6.20179, 44, -32.2372, -18.6404, 42.0884, 44.2574, 81.0652, -122.737
6.21008, 45, -31.7964, -18.6274, 41.9802, 44.2983, 81.1155, -122.261
6.21576, 45, -31.5745, -18.6195, 41.9239, 44.3158, 81.1405, -122.024
6.22682, 46, -30.9047, -18.591, 41.7459, 44.3567, 81.2123, -121.316
6.23347, 46, -30.4554, -18.5674, 41.6199, 44.3742, 81.2575, -120.848
6.24189, 47, -30.0024, -18.5396, 41.4881, 44.3843, 81.3025, -120.381
6.24954, 47, -29.5436, -18.5073, 41.3503, 44.3878, 81.346, -119.917
6.25577, 48, -29.3117, -18.4896, 41.2792, 44.3867, 81.3671, -119.685
6.26735, 48, -28.843, -18.4509, 41.1323, 44.3777, 81.4297, -118.993
6.27353, 49, -28.3692, -18.4078, 40.9009, 44.3478, 81.4715, -118.534
6.28205, 50, -27.6533, -18.3348, 40.739, 44.3161, 81.5122, -118.076
6.28784, 50, -27.4134, -18.3083, 40.6556, 44.2965, 81.5324, -117.847
6.2966, 50, -26.9307, -18.251, 40.4838, 44.2508, 81.5737, -117.39
6.30376, 51, -26.4414, -18.1881, 40.3056, 44.1961, 81.6162, -116.934
6.31382, 51, -25.6933, -18.0835, 40.0258, 44.0949, 81.6797, -116.253
6.31976, 52, -25.4408, -18.0458, 39.9287, 44.0564, 81.7014, -116.026
6.33018, 52, -24.679, -17.9252, 39.6276, 43.9245, 81.7683, -115.347
6.33583, 53, -24.4241, -17.8822, 39.5242, 43.8756, 81.7906, -115.12
6.34373, 53, -23.9117, -17.7919, 39.3119, 43.7703, 81.8355, -114.668
6.35554, 54, -23.1313, -17.6446, 38.979, 43.5926, 81.9077, -113.99
6.36073, 54, -22.8668, -17.5925, 38.8649, 43.528, 81.9324, -113.765
6.37114, 55, -22.0634, -17.4268, 38.5109, 43.3169, 82.0095, -113.087
6.38082, 56, -21.5235, -17.3087, 38.2663, 43.1614, 82.0644, -112.635
6.38383, 56, -21.2527, -17.2474, 38.1416, 43.0793, 82.0921, -112.409
6.39197, 56, -20.7083, -17.1208, 37.8866, 42.9066, 82.1488, -111.958
6.40309, 57, -19.8772, -16.9205, 37.4919, 42.6258, 82.238, -111.282
6.40776, 57, -19.5954, -16.8509, 37.3569, 42.5263, 82.2682, -111.057
6.4176, 58, -19.0265, -16.707, 37.0816, 42.3178, 82.3311, -110.607
6.42388, 58, -18.4538, -16.5571, 36.8006, 42.0966, 82.3954, -110.157
6.43177, 59, -17.8788, -16.402, 36.5126, 41.8632, 82.4621, -109.708
6.43986, 59, -17.2991, -16.2424, 36.2185, 41.6172, 82.5312, -109.259
6.44962, 60, -16.7099, -16.078, 35.9183, 41.3583, 82.6023, -108.81
6.45677, 60, -16.111, -15.908, 35.6129, 41.0869, 82.6755, -108.36
6.46575, 61, -15.5067, -15.7332, 35.3022, 40.802, 82.7499, -107.912
6.47177, 61, -14.8999, -15.5541, 34.9857, 40.5047, 82.8267, -107.464
6.48176, 62, -14.2887, -15.3706, 34.6637, 40.1947, 82.9056, -107.015
6.48787, 62, -13.669, -15.1818, 34.3367, 39.8715, 82.9869, -106.566
6.4959, 63, -13.0395, -14.9868, 34.005, 39.5347, 83.0709, -106.117
6.5059, 63, -12.4025, -14.786, 33.668, 39.184, 83.1578, -105.667
6.51409, 64, -11.761, -14.58, 33.3256, 38.8196, 83.248, -105.217
6.51987, 64, -11.1145, -14.3672, 32.9771, 38.4409, 83.3421, -104.765
6.53052, 65, -10.458, -14.1465, 32.622, 38.0465, 83.4413, -104.311
6.53588, 65, -9.79036, -13.9188, 32.2608, 37.6344, 83.5461, -103.855
6.54597, 66, -9.11307, -13.6844, 31.8941, 37.204, 83.6574, -103.397
6.55197, 66, -8.42946, -13.4426, 31.5213, 36.7555, 83.7754, -102.937
6.56074, 67, -7.73943, -13.1939, 31.1407, 36.2888, 83.9001, -102.475
6.5698, 68, -7.0402, -12.9384, 30.754, 35.8052, 84.0325, -102.01
6.57734, 68, -6.33266, -12.6761, 30.3633, 35.3064, 84.1709, -101.542
6.58597, 69, -5.61877, -12.4076, 29.9699, 34.7959, 84.3149, -101.073
6.59457, 69, -4.89952, -12.1314, 29.5738, 34.2741, 84.4634, -100.602
6.60039, 69, -4.17359, -11.8474, 29.1756, 33.7417, 84.617, -100.129
6.61099, 70, -3.43909, -11.5569, 28.7772, 33.1967, 84.7759, -99.6542
6.61646, 70, -2.69557, -11.2577, 28.3776, 32.6369, 84.9414, -99.1769
6.62543, 71, -1.94317, -10.95, 27.9748, 32.0616, 85.1146, -98.6979
6.63262, 71, -1.18192, -10.6347, 27.5678, 31.4687, 85.2979, -98.2154
6.64053, 72, -0.413878, -10.3137, 27.1568, 30.8565, 85.4918, -97.7297
6.65117, 73, 0.359974, -9.98621, 26.7425, 30.2265, 85.696, -97.2404
6.65875, 73, 1.13968, -9.64895, 26.3263, 29.5838, 85.9091, -96.7493
6.66936, 74, 2.31846, -9.12863, 25.7012, 28.5991, 86.2448, -96.0088
6.67377, 74, 2.71277, -8.95285, 25.4938, 28.2666, 86.3606, -95.7612
6.68046, 74, 3.10746, -8.77644, 25.2872, 27.9324, 86.4783, -95.5132
6.68884, 75, 4.29277, -8.23961, 24.6764, 26.9221, 86.8397, -94.7677
6.69581, 75, 4.68825, -8.05819, 24.4758, 26.5852, 86.9623, -94.5193
6.70782, 76, 5.87259, -7.50692, 23.8859, 25.5789, 87.3358, -93.7735
6.72167, 77, 7.44505, -6.75245, 23.1291, 24.2502, 87.8475, -92.7801
6.72344, 77, 7.44505, -6.75245, 23.1291, 24.2502, 87.8475, -92.7801
6.73758, 78, 9.01768, -5.96776, 22.3965, 22.9264, 88.39, -91.7869
6.74335, 78, 9.01768, -5.96776, 22.3965, 22.9264, 88.5329, -91.5372
6.74622, 78, 9.80459, -5.56443, 22.0368, 22.2581, 88.679, -91.2867
6.75166, 79, 10.1988, -5.35938, 21.8577, 21.9215, 88.8285, -91.0351
6.75968, 79, 10.9882, -4.94293, 21.5008, 21.2441, 89.1376, -90.5274
6.76667, 80, 11.7753, -4.51705, 21.1449, 20.5628, 89.4597, -90.0143
6.77569, 80, 12.5566, -4.08161, 20.7918, 19.8788, 89.7941, -89.4938
6.7837, 81, 13.3319, -3.6362, 20.4415, 19.1996, 90.1395, -88.9664
6.7916, 81, 14.1021, -3.18198, 20.0963, 18.5302, 90.4943, -88.4334
6.79969, 82, 14.8648, -2.72034, 19.7579, 17.8734, 90.8562, -87.8966
6.80866, 82, 15.6188, -2.25104, 19.4292, 17.2316, 91.2237, -87.3574
6.81559, 83, 16.3631, -1.77471, 19.1103, 16.6075, 91.5954, -86.8159
6.82367, 83, 17.0972, -1.29158, 18.8026, 16.0039, 91.9703, -86.2734
6.83163, 84, 17.8188, -0.802192, 18.505, 15.4199, 92.3487, -85.7311
6.83961, 84, 18.5247, -0.309081, 18.2177, 14.8563, 92.732, -85.1896
6.84789, 85, 19.2133, 0.187356, 17.9381, 14.3128, 93.1214, -84.649
6.85571, 85, 19.8837, 0.688815, 17.665, 13.789, 93.5191, -84.1098
6.86361, 85, 20.5366, 1.1948, 17.3982, 13.2844, 93.9243, -83.5728
6.87265, 86, 21.1729, 1.70444, 17.1367, 12.7999, 94.3357, -83.0382
6.87968, 86, 21.7951, 2.2198, 16.882, 12.335, 94.7532, -82.5027
6.88764, 87, 22.405, 2.7442, 16.633, 11.8906, 95.1768, -81.9652
6.89567, 87, 23.0037, 3.27901, 16.3885, 11.465, 95.6067, -81.4232
6.90389, 88, 23.5931, 3.82251, 16.1483, 11.0568, 96.0434, -80.8756
6.91165, 88, 24.1726, 4.37359, 15.9108, 10.6643, 96.4864, -80.3188
6.91962, 88, 24.7412, 4.93458, 15.6775, 10.2871, 96.9364, -79.7519
6.92769, 89, 25.2999, 5.50755, 15.4491, 9.92443, 97.3935, -79.1732
6.93564, 89, 25.8524, 6.09172, 15.2236, 9.57718, 97.8571, -78.5826
6.94361, 90, 26.4011, 6.68614, 15.0014, 9.24427, 98.3276, -77.9775
6.9517, 90, 26.9411, 7.2899, 14.7838, 8.9275, 98.8045, -77.3584
6.95965, 91, 27.4679, 7.90311, 14.5713, 8.62838, 99.2879, -76.7268
6.96765, 91, 27.9825, 8.52716, 14.3628, 8.34846, 99.7771, -76.083
6.97573, 92, 28.4888, 9.16223, 14.1587, 8.09014, 100.271, -75.428
6.98364, 92, 28.9881, 9.80699, 13.9596, 7.85364, 100.768, -74.7651
6.99173, 93, 29.4767, 10.459, 13.7664, 7.64026, 101.267, -74.0954
6.99988, 93, 29.9522, 11.1163, 13.5808, 7.45008, 101.766, -73.4184
7.00776, 94, 30.4129, 11.7771, 13.4029, 7.28376, 102.263, -72.7354
7.01592, 95, 30.8591, 12.4404, 13.2318, 7.14113, 102.757, -72.0484
7.02376, 95, 31.2915, 13.1055, 13.0683, 7.02214, 103.249, -71.3553
7.03201, 96, 31.7104, 13.7724, 12.9126, 6.92671, 103.736, -70.6564
7.03961, 96, 32.1144, 14.4403, 12.7638, 6.85504, 104.221, -69.9531
7.04812, 97, 32.5022, 15.1089, 12.6211, 6.80736, 104.701, -69.2438
7.0557, 97, 32.8739, 15.7771, 12.4855, 6.78098, 105.176, -68.5285
7.06491, 98, 33.2297, 16.4433, 12.3578, 6.77604, 105.645, -67.8102
7.07181, 98, 33.5705, 17.1066, 12.2387, 6.79361, 106.106, -67.0889
7.08085, 99, 33.8971, 17.765, 12.1287, 6.83104, 106.558, -66.3646
7.08783, 99, 34.2107, 18.4174, 12.0282, 6.88845, 106.999, -65.6418
7.09646, 99, 34.5129, 19.0617, 11.9372, 6.9648, 107.428, -64.9213
7.10401, 100, 34.8039, 19.6972, 11.8553, 7.05844, 107.842, -64.2034
7.11072, 100, 34.945, 20.0113, 11.8178, 7.11187, 108.044, -63.8464
7.12009, 101, 35.3498, 20.9373, 11.7175, 7.29548, 108.625, -62.7875
7.12821, 101, 35.6044, 21.5406, 11.6611, 7.4355, 108.992, -62.0905
7.13613, 102, 35.8456, 22.131, 11.6131, 7.58723, 109.341, -61.4043
7.14433, 102, 36.0736, 22.7081, 11.5731, 7.74868, 109.675, -60.73
7.15217, 103, 36.1836, 23.2706, 11.5415, 7.91812, 109.994, -60.0668
7.1602, 103, 36.3982, 23.546, 11.5288, 8.00555, 110.296, -59.4162
7.16855, 104, 36.7087, 24.3494, 11.5041, 8.2801, 110.581, -58.7789
7.1756, 104, 36.8089, 24.6094, 11.5, 8.3758, 110.717, -58.4647
7.18359, 104, 37.0046, 25.1174, 11.4968, 8.57414, 110.974, -57.8439
7.19166, 104, 37.1942, 25.6098, 11.5001, 8.78141, 111.211, -57.2347
7.19961, 104, 37.3754, 26.0862, 11.5092, 8.99618, 111.428, -56.638
7.20759, 104, 37.5461, 26.5465, 11.5223, 9.21692, 111.627, -56.0542
7.21565, 104, 37.7076, 26.9908, 11.5382, 9.44117, 111.809, -55.4857
7.22361, 104, 37.8637, 27.4202, 11.5569, 9.66581, 111.979, -54.9355
7.23166, 104, 38.0165, 27.834, 11.5772, 9.88839, 112.137, -54.407
7.23959, 104, 38.1652, 28.2311, 11.5978, 10.1067, 112.286, -53.9009
7.24761, 104, 38.3082, 28.6118, 11.618, 10.3199, 112.427, -53.418
7.25563, 104, 38.4447, 28.9756, 11.637, 10.5265, 112.56, -52.9595
7.26359, 104, 38.5739, 29.3212, 11.655, 10.7256, 112.685, -52.5254
7.27163, 104, 38.6946, 29.6483, 11.6719, 10.9164, 112.803, -52.1167
7.27963, 104, 38.807, 29.9558, 11.6874, 11.0984, 112.913, -51.7328
7.28759, 104, 38.9112, 30.2451, 11.702, 11.2707, 113.014, -51.3735
7.2956, 104, 39.0077, 30.5154, 11.7157, 11.4331, 113.109, -51.0401
7.30463, 104, 39.0966, 30.7657, 11.728, 11.5851, 113.197, -50.732
7.3116, 104, 39.1776, 30.9966, 11.7391, 11.726, 113.276, -50.449
7.32065, 104, 39.2505, 31.2076, 11.7492, 11.8554, 113.349, -50.1915
7.32764, 104, 39.3154, 31.3987, 11.7587, 11.9734, 113.413, -49.9588
7.33559, 104, 39.3725, 31.5707, 11.7671, 12.0795, 113.472, -49.7515
7.34361, 104, 39.4227, 31.7232, 11.7745, 12.1733, 113.523, -49.5694
7.35165, 104, 39.4667, 31.8568, 11.7813, 12.2551, 113.566, -49.4118
7.3596, 104, 39.5051, 31.9727, 11.7874, 12.3246, 113.603, -49.2783
7.36761, 104, 39.5373, 32.0717, 11.7929, 12.3831, 113.634, -49.1682
7.37563, 104, 39.5637, 32.1546, 11.7977, 12.4293, 113.658, -49.0793
7.38367, 104, 39.5852, 32.223, 11.802, 12.4653, 113.677, -49.0105
7.39161, 104, 39.602, 32.2787, 11.806, 12.4927, 113.69, -48.9595
7.3997, 104, 39.615, 32.323, 11.8096, 12.5124, 113.7, -48.9232
7.40759, 104, 39.6251, 32.3571, 11.8128, 12.5261, 113.706, -48.8987
7.4156, 104, 39.6326, 32.3825, 11.8157, 12.5352, 113.71, -48.8832
7.42364, 104, 39.6377, 32.4016, 11.8182, 12.5408, 113.712, -48.8741
7.4316, 104, 39.6408, 32.4152, 11.8202, 12.5438, 113.713, -48.8695
7.4396, 104, 39.6425, 32.424, 11.8217, 12.5454, 113.713, -48.8675
7.44765, 105, 39.6431, 32.4295, 11.8228, 12.5461, 113.714, -48.8666
7.45559, 105, 39.6426, 32.4331, 11.8238, 12.5465, 113.714, -48.8662
7.46361, 105, 39.6417, 32.4356, 11.8246, 12.5466, 113.714, -48.8663
7.47167, 105, 39.6408, 32.4375, 11.8253, 12.5467, 113.714, -48.8666
7.47959, 105, 39.6397, 32.4389, 11.8259, 12.5468, 113.714, -48.8669
7.48764, 105, 39.6384, 32.4403, 11.8265, 12.5468, 113.714, -48.8672
7.49571, 105, 39.6374, 32.4414, 11.827, 12.5468, 113.714, -48.8676
7.50367, 105, 39.6368, 32.4426, 11.8276, 12.5468, 113.714, -48.8678
7.51171, 105, 39.6365, 32.4437, 11.8282, 12.5468, 113.714, -48.8681
7.51974, 105, 39.6362, 32.4447, 11.8287, 12.5469, 113.714, -48.8683
7.5277, 105, 39.636, 32.4455, 11.8292, 12.5468, 113.714, -48.8686
7.5357, 105, 39.6358, 32.4462, 11.8295, 12.5468, 113.714, -48.8689
7.54393, 105, 39.6355, 32.4467, 11.8298, 12.5468, 113.714, -48.8692
7.55164, 105, 39.6353, 32.447, 11.8301, 12.5468, 113.714, -48.8694
7.55965, 105, 39.635, 32.4471, 11.8303, 12.5468, 113.714, -48.8695
7.56839, 105, 39.6348, 32.4472, 11.8305, 12.5468, 113.714, -48.8698
