hehonglu123/Motion-Primitive-Planning/ILC/recorded_data/realrobot/wood/iteration_4/run_4.csv
timestamp, cmd_num, J1, J2, J3, J4, J5, J6
0.000388, -1, 11.3757, 13.614, 17.3368, -145.52, -97.9255, 142.516
0.004403, -1, 11.3757, 13.614, 17.3368, -145.52, -97.9255, 142.516
0.007887, -1, 11.3757, 13.614, 17.3368, -145.52, -97.9255, 142.516
0.028515, -1, 11.3757, 13.614, 17.3368, -145.52, -97.9255, 142.516
0.031151, -1, 11.3757, 13.614, 17.3368, -145.52, -97.9255, 142.516
0.033543, -1, 11.3757, 13.614, 17.3368, -145.52, -97.9255, 142.516
0.039672, -1, 11.3757, 13.614, 17.3368, -145.52, -97.9255, 142.516
0.04763, -1, 11.3757, 13.614, 17.3368, -145.52, -97.9256, 142.516
0.05665, -1, 11.3751, 13.614, 17.3368, -145.52, -97.9256, 142.516
0.063602, -1, 11.3724, 13.6138, 17.3367, -145.52, -97.9255, 142.516
0.07164, -1, 11.3659, 13.6131, 17.3366, -145.521, -97.9255, 142.515
0.079654, -1, 11.3547, 13.6114, 17.3361, -145.521, -97.9255, 142.514
0.087617, -1, 11.3372, 13.6079, 17.3354, -145.523, -97.9254, 142.506
0.095607, -1, 11.3102, 13.602, 17.3347, -145.526, -97.9246, 142.484
0.103661, -1, 11.2718, 13.5928, 17.3341, -145.533, -97.9228, 142.444
0.111621, -1, 11.2215, 13.5804, 17.3343, -145.545, -97.9194, 142.379
0.119628, -1, 11.1597, 13.565, 17.3359, -145.562, -97.9139, 142.283
0.128111, -1, 11.0864, 13.5459, 17.3399, -145.585, -97.906, 142.152
0.134723, -1, 11.0011, 13.5229, 17.3463, -145.614, -97.8958, 141.987
0.143599, -1, 10.9041, 13.4966, 17.3549, -145.648, -97.8836, 141.789
0.152417, -1, 10.7964, 13.4669, 17.3653, -145.687, -97.8699, 141.563
0.159603, -1, 10.6779, 13.434, 17.3765, -145.729, -97.8551, 141.317
0.167634, -1, 10.5487, 13.3983, 17.3877, -145.774, -97.8397, 141.056
0.176513, -1, 10.4106, 13.3604, 17.3984, -145.82, -97.8237, 140.787
0.183602, -1, 10.2657, 13.3209, 17.4086, -145.867, -97.8075, 140.512
0.191641, -1, 10.1162, 13.2805, 17.4187, -145.914, -97.791, 140.235
0.200568, -1, 9.96375, 13.2393, 17.4288, -145.962, -97.774, 139.957
0.207625, -1, 9.80903, 13.1979, 17.4387, -146.01, -97.7568, 139.678
0.215602, -1, 9.65345, 13.1565, 17.4488, -146.058, -97.7396, 139.398
0.224539, -1, 9.49824, 13.1153, 17.4588, -146.106, -97.7225, 139.119
0.231676, -1, 9.34344, 13.0741, 17.4686, -146.154, -97.7057, 138.84
0.239699, -1, 9.18897, 13.033, 17.4787, -146.202, -97.689, 138.56
0.249168, -1, 9.03501, 12.9919, 17.4887, -146.25, -97.6722, 138.28
0.255228, -1, 8.88134, 12.9508, 17.4988, -146.298, -97.6554, 138
0.263802, -1, 8.72776, 12.9098, 17.509, -146.346, -97.6382, 137.721
0.272136, -1, 8.57471, 12.8687, 17.519, -146.393, -97.6207, 137.44
0.279634, -1, 8.42194, 12.8275, 17.5292, -146.442, -97.6032, 137.16
0.287789, -1, 8.26903, 12.7861, 17.5394, -146.49, -97.586, 136.88
0.296154, -1, 8.11559, 12.7446, 17.5495, -146.537, -97.5689, 136.6
0.303698, -1, 7.96171, 12.703, 17.5597, -146.586, -97.5521, 136.32
0.311782, -1, 7.80723, 12.6613, 17.5698, -146.633, -97.5354, 136.039
0.321359, -1, 7.65236, 12.6196, 17.5799, -146.681, -97.5188, 135.759
0.328101, -1, 7.49741, 12.5779, 17.5901, -146.729, -97.502, 135.479
0.334615, -1, 7.41986, 12.5572, 17.5952, -146.753, -97.4934, 135.339
0.344004, -1, 7.18733, 12.4949, 17.6105, -146.825, -97.4675, 134.918
0.352073, -1, 7.03228, 12.4534, 17.6208, -146.874, -97.4502, 134.638
0.358621, -1, 6.95468, 12.4327, 17.6259, -146.898, -97.4417, 134.498
0.494399, -1, 4.31861, 11.7271, 17.8018, -147.716, -97.151, 129.725
0.495667, -1, 4.31861, 11.7271, 17.8018, -147.716, -97.151, 129.725
0.497725, -1, 4.24092, 11.7064, 17.807, -147.74, -97.1425, 129.585
0.499058, -1, 4.24092, 11.7064, 17.807, -147.74, -97.1425, 129.585
0.500258, -1, 4.24092, 11.7064, 17.807, -147.74, -97.1425, 129.585
0.502946, -1, 4.16331, 11.6857, 17.8123, -147.764, -97.134, 129.444
0.504153, -1, 4.16331, 11.6857, 17.8123, -147.764, -97.134, 129.444
0.507712, -1, 4.08581, 11.665, 17.8175, -147.788, -97.1255, 129.303
0.509754, -1, 4.00844, 11.6443, 17.8227, -147.812, -97.1171, 129.163
0.511047, -1, 4.00844, 11.6443, 17.8227, -147.812, -97.1171, 129.163
0.512337, -1, 4.00844, 11.6443, 17.8227, -147.812, -97.1171, 129.163
0.515172, -1, 3.93117, 11.6236, 17.8278, -147.836, -97.1086, 129.022
0.51645, -1, 3.93117, 11.6236, 17.8278, -147.836, -97.1086, 129.022
0.518608, -1, 3.85394, 11.6028, 17.833, -147.861, -97.1002, 128.882
0.519884, -1, 3.85394, 11.6028, 17.833, -147.861, -97.1002, 128.882
0.522208, -1, 3.77674, 11.5821, 17.8382, -147.885, -97.0918, 128.741
0.523524, -1, 3.77674, 11.5821, 17.8382, -147.885, -97.0918, 128.741
0.526141, -1, 3.69954, 11.5612, 17.8433, -147.909, -97.0834, 128.6
0.527468, -1, 3.69954, 11.5612, 17.8433, -147.909, -97.0834, 128.6
0.529455, -1, 3.62235, 11.5404, 17.8485, -147.933, -97.0749, 128.46
0.530816, -1, 3.62235, 11.5404, 17.8485, -147.933, -97.0749, 128.46
0.535592, -1, 3.54512, 11.5196, 17.8536, -147.957, -97.0663, 128.319
0.543663, -1, 3.39048, 11.4779, 17.864, -148.006, -97.049, 128.037
0.5516, -1, 3.23548, 11.4362, 17.8745, -148.054, -97.0314, 127.756
0.560624, -1, 3.08027, 11.3944, 17.8849, -148.102, -97.0139, 127.475
0.5666, -1, 2.92492, 11.3526, 17.8953, -148.15, -96.9966, 127.193
0.575594, -1, 2.76942, 11.3109, 17.9056, -148.199, -96.9796, 126.911
0.583697, -1, 2.61366, 11.2691, 17.916, -148.247, -96.9628, 126.63
0.59159, -1, 2.45756, 11.2273, 17.9264, -148.295, -96.9461, 126.348
0.599595, -1, 2.30116, 11.1856, 17.9368, -148.344, -96.9292, 126.066
0.607658, -1, 2.14454, 11.1439, 17.9472, -148.391, -96.912, 125.784
0.61559, -1, 1.98776, 11.1021, 17.9576, -148.44, -96.8947, 125.502
0.62363, -1, 1.83126, 11.0605, 17.968, -148.489, -96.8772, 125.221
0.631655, -1, 1.67486, 11.0188, 17.9785, -148.537, -96.8598, 124.938
0.639662, -1, 1.51864, 10.9771, 17.989, -148.586, -96.8428, 124.657
0.647588, -1, 1.36271, 10.9354, 17.9994, -148.634, -96.8258, 124.375
0.792875, -1, -1.44746, 10.1827, 18.1868, -149.507, -96.5179, 119.285
0.794164, -1, -1.44746, 10.1827, 18.1868, -149.507, -96.5179, 119.285
0.796122, -1, -1.52585, 10.1618, 18.192, -149.531, -96.5095, 119.144
0.797493, -1, -1.52585, 10.1618, 18.192, -149.531, -96.5095, 119.144
0.798717, -1, -1.52585, 10.1618, 18.192, -149.531, -96.5095, 119.144
0.800806, -1, -1.60409, 10.1408, 18.1973, -149.555, -96.5011, 119.002
0.802004, -1, -1.60409, 10.1408, 18.1973, -149.555, -96.5011, 119.002
0.806687, -1, -1.68221, 10.1199, 18.2025, -149.58, -96.4926, 118.861
0.808825, -1, -1.76024, 10.099, 18.2078, -149.604, -96.484, 118.719
0.810025, -1, -1.76024, 10.099, 18.2078, -149.604, -96.484, 118.719
0.812141, -1, -1.83815, 10.078, 18.213, -149.628, -96.4754, 118.577
0.813442, -1, -1.83815, 10.078, 18.213, -149.628, -96.4754, 118.577
0.814712, -1, -1.83815, 10.078, 18.213, -149.628, -96.4754, 118.577
0.816671, -1, -1.91594, 10.0571, 18.2182, -149.653, -96.4667, 118.436
0.818027, -1, -1.91594, 10.0571, 18.2182, -149.653, -96.4667, 118.436
0.821409, -1, -1.99364, 10.0362, 18.2234, -149.677, -96.4578, 118.294
0.82261, -1, -1.99364, 10.0362, 18.2234, -149.677, -96.4578, 118.294
0.82469, -1, -2.07127, 10.0152, 18.2286, -149.701, -96.449, 118.152
0.825885, -1, -2.07127, 10.0152, 18.2286, -149.701, -96.449, 118.152
0.828616, -1, -2.14885, 9.99428, 18.2338, -149.726, -96.4402, 118.01
0.830726, -1, -2.14885, 9.99428, 18.2338, -149.726, -96.4402, 118.01
0.832882, -1, -2.22644, 9.97336, 18.239, -149.75, -96.4314, 117.869
0.835969, -1, -2.30404, 9.95242, 18.2442, -149.774, -96.4227, 117.727
0.839959, -1, -2.38168, 9.93147, 18.2494, -149.799, -96.4141, 117.585
0.846589, -1, -2.45939, 9.91047, 18.2547, -149.823, -96.4056, 117.443
0.856104, -1, -2.69302, 9.84749, 18.2703, -149.896, -96.3802, 117.017
0.864149, -1, -2.84916, 9.80556, 18.2807, -149.944, -96.3634, 116.734
0.872183, -1, -3.00583, 9.76356, 18.2911, -149.993, -96.3465, 116.45
0.88021, -1, -3.16282, 9.72165, 18.3015, -150.042, -96.3294, 116.166
0.888173, -1, -3.32021, 9.67967, 18.312, -150.09, -96.3118, 115.882
0.896206, -1, -3.47802, 9.63763, 18.3225, -150.139, -96.2942, 115.598
0.904346, -1, -3.55692, 9.61667, 18.3277, -150.163, -96.2855, 115.314
0.911577, -1, -3.71474, 9.5748, 18.3381, -150.212, -96.2682, 115.172
0.919628, -1, -3.87271, 9.53282, 18.3484, -150.26, -96.251, 114.888
0.927584, -1, -4.03068, 9.49079, 18.3589, -150.31, -96.234, 114.604
0.935577, -1, -4.18853, 9.44888, 18.3692, -150.358, -96.2171, 114.319
0.94363, -1, -4.34627, 9.40693, 18.3795, -150.407, -96.2, 114.035
0.951585, -1, -4.50369, 9.36491, 18.3899, -150.456, -96.1826, 113.75
0.959613, -1, -4.66072, 9.32289, 18.4003, -150.505, -96.165, 113.466
0.967622, -1, -4.81728, 9.28083, 18.4107, -150.553, -96.1472, 113.181
0.975577, -1, -4.97347, 9.23872, 18.4213, -150.603, -96.1297, 112.896
0.983572, -1, -5.12952, 9.19666, 18.4318, -150.651, -96.1125, 112.611
0.991627, -1, -5.28536, 9.15457, 18.4423, -150.7, -96.0955, 112.327
0.999598, -1, -5.4414, 9.11241, 18.4528, -150.749, -96.0785, 112.042
1.00757, -1, -5.59759, 9.07031, 18.4632, -150.798, -96.0616, 111.757
1.0146, -1, -5.75412, 9.02821, 18.4737, -150.846, -96.0445, 111.472
1.02358, -1, -5.91107, 8.98598, 18.4841, -150.896, -96.027, 111.187
1.03258, -1, -6.06848, 8.94383, 18.4945, -150.944, -96.0093, 110.902
1.03959, -1, -6.22642, 8.9017, 18.5048, -150.993, -95.9918, 110.617
1.04859, -1, -6.38465, 8.85957, 18.5152, -151.042, -95.9746, 110.332
1.05564, -1, -6.54305, 8.81752, 18.5255, -151.091, -95.9575, 110.047
1.06358, -1, -6.70159, 8.77538, 18.5361, -151.14, -95.9405, 109.762
1.07158, -1, -6.86028, 8.73325, 18.5466, -151.189, -95.9235, 109.476
1.07966, -1, -7.01882, 8.69114, 18.5571, -151.238, -95.9064, 109.19
1.08758, -1, -7.17735, 8.64898, 18.5676, -151.287, -95.8889, 108.905
1.09565, -1, -7.33572, 8.60679, 18.5779, -151.336, -95.8712, 108.619
1.10357, -1, -7.49372, 8.5645, 18.5884, -151.385, -95.8535, 108.333
1.11158, -1, -7.65137, 8.52221, 18.5989, -151.434, -95.836, 108.048
1.11965, -1, -7.80868, 8.47993, 18.6093, -151.483, -95.8187, 107.762
1.12757, -1, -7.96566, 8.43764, 18.6197, -151.532, -95.8017, 107.476
1.13565, -1, -8.12229, 8.39528, 18.6301, -151.581, -95.7848, 107.19
1.14418, -1, -8.27885, 8.35296, 18.6405, -151.63, -95.7678, 106.904
1.15157, -1, -8.43557, 8.31059, 18.6511, -151.679, -95.7505, 106.619
1.15958, -1, -8.59252, 8.26823, 18.6616, -151.728, -95.733, 106.332
1.16837, -1, -8.74981, 8.22601, 18.6721, -151.778, -95.7153, 106.046
1.17558, -1, -8.90753, 8.18369, 18.6824, -151.826, -95.6978, 105.759
1.18363, -1, -9.06566, 8.14138, 18.6929, -151.875, -95.6804, 105.473
1.19238, -1, -9.22422, 8.09914, 18.7034, -151.925, -95.6633, 105.187
1.1996, -1, -9.38305, 8.05683, 18.7138, -151.974, -95.6462, 104.9
1.20772, -1, -9.54213, 8.01448, 18.7243, -152.023, -95.629, 104.613
1.21639, -1, -9.70131, 7.97224, 18.7347, -152.073, -95.6118, 104.326
1.22357, -1, -9.86064, 7.92999, 18.7452, -152.121, -95.5942, 104.039
1.23184, -1, -10.02, 7.88763, 18.7559, -152.171, -95.5764, 103.752
1.24046, -1, -10.1792, 7.84521, 18.7665, -152.22, -95.5585, 103.465
1.24766, -1, -10.3384, 7.80269, 18.777, -152.269, -95.541, 103.179
1.256, -1, -10.4972, 7.76015, 18.7876, -152.319, -95.5237, 102.892
1.26447, -1, -10.6558, 7.71769, 18.798, -152.368, -95.5067, 102.605
1.27169, -1, -10.8139, 7.67517, 18.8085, -152.417, -95.4897, 102.318
1.28021, -1, -10.9718, 7.63256, 18.819, -152.466, -95.4726, 102.031
1.28854, -1, -11.1294, 7.59007, 18.8294, -152.516, -95.4552, 101.743
1.29564, -1, -11.2867, 7.54759, 18.8399, -152.565, -95.4374, 101.456
1.30444, -1, -11.4441, 7.50509, 18.8504, -152.615, -95.4197, 101.168
1.31256, -1, -11.6017, 7.46259, 18.8609, -152.664, -95.402, 100.881
1.3197, -1, -11.7596, 7.42019, 18.8716, -152.713, -95.3846, 100.593
1.32873, -1, -11.9179, 7.37777, 18.8821, -152.762, -95.3674, 100.305
1.33674, -1, -12.0767, 7.33539, 18.8927, -152.812, -95.3502, 100.018
1.34408, -1, -12.2359, 7.293, 18.9032, -152.861, -95.3329, 99.7297
1.35284, -1, -12.3955, 7.25057, 18.9137, -152.911, -95.3155, 99.4416
1.36004, -1, -12.5553, 7.20814, 18.9242, -152.96, -95.2977, 99.1537
1.3682, -1, -12.7152, 7.1657, 18.9347, -153.009, -95.2797, 98.8658
1.3761, -1, -12.8754, 7.12322, 18.9453, -153.059, -95.2618, 98.5779
1.38489, -1, -13.0355, 7.08062, 18.9558, -153.108, -95.2443, 98.2897
1.39237, -1, -13.1954, 7.03802, 18.9663, -153.158, -95.227, 98.0017
1.40014, -1, -13.2753, 7.01671, 18.9716, -153.208, -95.2099, 97.7135
1.40891, -1, -13.435, 6.97407, 18.9822, -153.232, -95.2013, 97.5693
1.41561, -1, -13.5943, 6.93131, 18.9928, -153.281, -95.1841, 97.2807
1.42356, -1, -13.7534, 6.88857, 19.0034, -153.331, -95.1667, 96.9919
1.43156, -1, -13.9122, 6.84588, 19.0138, -153.38, -95.1491, 96.7036
1.43962, -1, -14.0706, 6.80316, 19.0243, -153.429, -95.1312, 96.4149
1.44757, -1, -14.2287, 6.76055, 19.0349, -153.479, -95.1135, 96.1259
1.45556, -1, -14.3869, 6.71786, 19.0454, -153.529, -95.096, 95.8368
1.46361, -1, -14.5452, 6.67518, 19.0559, -153.578, -95.0788, 95.5479
1.47156, -1, -14.7038, 6.63264, 19.0665, -153.628, -95.0616, 95.2588
1.47958, -1, -14.8629, 6.59007, 19.077, -153.677, -95.0444, 94.9693
1.48761, -1, -15.0222, 6.54741, 19.0878, -153.726, -95.0269, 94.6803
1.49556, -1, -15.182, 6.50481, 19.0985, -153.777, -95.0092, 94.3912
1.50357, -1, -15.3421, 6.46224, 19.1091, -153.826, -94.9913, 94.1021
1.51156, -1, -15.5026, 6.41956, 19.1198, -153.875, -94.9733, 93.8127
1.5196, -1, -15.6633, 6.37687, 19.1303, -153.926, -94.9557, 93.5235
1.52765, -1, -15.824, 6.3341, 19.141, -153.975, -94.9384, 93.2343
1.53559, -1, -15.9848, 6.2912, 19.1516, -154.025, -94.9211, 92.9447
1.54457, -1, -16.1457, 6.24836, 19.1622, -154.075, -94.904, 92.6549
1.55163, -1, -16.3064, 6.20546, 19.1727, -154.124, -94.8867, 92.3655
1.56062, -1, -16.4669, 6.16245, 19.1832, -154.173, -94.8692, 92.0759
1.56757, -1, -16.6272, 6.11946, 19.1938, -154.223, -94.8514, 91.7857
1.57562, -1, -16.7871, 6.07647, 19.2044, -154.273, -94.8335, 91.4956
1.58369, -1, -16.9465, 6.03345, 19.215, -154.323, -94.8158, 91.2055
1.59156, -1, -17.1058, 5.99048, 19.2257, -154.373, -94.7983, 90.9153
1.59962, -1, -17.2649, 5.94755, 19.2362, -154.422, -94.7809, 90.6251
1.60756, -1, -17.424, 5.90472, 19.2468, -154.472, -94.7637, 90.3347
1.61556, -1, -17.5833, 5.86192, 19.2575, -154.522, -94.7463, 90.0447
1.62363, -1, -17.7427, 5.81908, 19.2682, -154.571, -94.7287, 89.7545
1.63156, -1, -17.9023, 5.77632, 19.2789, -154.621, -94.7107, 89.4639
1.63962, -1, -18.0624, 5.73354, 19.2895, -154.671, -94.6926, 89.1733
1.64756, -1, -18.2228, 5.69076, 19.3, -154.721, -94.6748, 88.8828
1.65556, -1, -18.3838, 5.64796, 19.3108, -154.771, -94.6571, 88.5921
1.66364, -1, -18.5452, 5.60505, 19.3215, -154.821, -94.6397, 88.301
1.67154, -1, -18.7067, 5.56209, 19.3322, -154.871, -94.6224, 88.0102
1.67955, -1, -18.8683, 5.51911, 19.3428, -154.921, -94.6052, 87.7192
1.68766, -1, -19.03, 5.47605, 19.3533, -154.971, -94.5876, 87.428
1.69557, -1, -19.1916, 5.43287, 19.364, -155.021, -94.5698, 87.1365
1.7036, -1, -19.353, 5.38971, 19.3746, -155.071, -94.5517, 86.8452
1.71163, -1, -19.5142, 5.34654, 19.3851, -155.121, -94.5337, 86.5536
1.71962, -1, -19.6752, 5.3033, 19.3958, -155.17, -94.516, 86.2619
1.72765, -1, -19.8359, 5.26015, 19.4064, -155.221, -94.4984, 85.9701
1.7356, -1, -19.9963, 5.21699, 19.4171, -155.27, -94.4809, 85.6786
1.74364, -1, -20.1564, 5.17383, 19.4279, -155.32, -94.4636, 85.3871
1.75204, -1, -20.3161, 5.13086, 19.4387, -155.371, -94.446, 85.0952
1.75972, -1, -20.4761, 5.08783, 19.4496, -155.421, -94.4282, 84.8034
1.76766, -1, -20.6362, 5.04475, 19.4603, -155.471, -94.41, 84.5116
1.77621, -1, -20.7965, 5.00182, 19.471, -155.521, -94.3921, 84.2197
1.78356, -1, -20.9572, 4.95883, 19.4817, -155.571, -94.3743, 83.9275
1.79156, -1, -21.1182, 4.91578, 19.4923, -155.621, -94.3568, 83.6353
1.8005, -1, -21.2797, 4.87271, 19.503, -155.672, -94.3395, 83.3434
1.80759, -1, -21.4417, 4.82949, 19.5136, -155.722, -94.3223, 83.0511
1.81564, -1, -21.6038, 4.78621, 19.5243, -155.772, -94.3049, 82.7585
1.82461, -1, -21.7661, 4.743, 19.5351, -155.822, -94.2872, 82.4661
1.8318, -1, -21.9285, 4.69964, 19.5458, -155.872, -94.2693, 82.1736
1.83999, -1, -22.091, 4.65627, 19.5567, -155.923, -94.2513, 81.8809
1.84879, -1, -22.2535, 4.61293, 19.5673, -155.973, -94.2335, 81.588
1.85598, -1, -22.4158, 4.56948, 19.578, -156.023, -94.216, 81.2953
1.86411, -1, -22.5779, 4.5261, 19.5887, -156.073, -94.1985, 81.0028
1.87302, -1, -22.7396, 4.48268, 19.5994, -156.123, -94.181, 80.7099
1.88014, -1, -22.9009, 4.43927, 19.6101, -156.173, -94.1634, 80.4168
1.88816, -1, -23.0621, 4.396, 19.6208, -156.224, -94.1455, 80.1239
1.89702, -1, -23.1426, 4.35271, 19.6315, -156.274, -94.1274, 79.8309
1.90427, -1, -23.3036, 4.33105, 19.6423, -156.325, -94.1092, 79.5376
1.9122, -1, -23.4644, 4.2878, 19.6478, -156.35, -94.1001, 79.2441
1.92105, -1, -23.6254, 4.24452, 19.6586, -156.4, -94.0822, 79.0976
1.92754, -1, -23.7865, 4.20126, 19.6694, -156.45, -94.0645, 78.8042
1.9356, -1, -23.9478, 4.15801, 19.6801, -156.501, -94.0471, 78.5105
1.94361, -1, -24.1095, 4.11463, 19.6907, -156.552, -94.0297, 78.2166
1.9506, -1, -24.2717, 4.07124, 19.7015, -156.602, -94.0121, 77.9228
1.95966, -1, -24.4343, 4.02783, 19.7121, -156.653, -93.9943, 77.6287
1.96755, -1, -24.5972, 3.98432, 19.7228, -156.703, -93.9762, 77.3344
1.97559, -1, -24.7605, 3.94075, 19.7334, -156.753, -93.9581, 77.04
1.98354, -1, -24.9238, 3.8972, 19.7442, -156.804, -93.9402, 76.7461
1.99156, -1, -25.0872, 3.85365, 19.7551, -156.854, -93.9226, 76.4519
1.99966, -1, -25.2505, 3.8101, 19.766, -156.904, -93.9052, 76.1575
2.00754, -1, -25.4135, 3.76652, 19.7768, -156.955, -93.8876, 75.8631
2.01556, -1, -25.5764, 3.72286, 19.7876, -157.005, -93.8699, 75.5689
2.02365, -1, -25.739, 3.67925, 19.7983, -157.055, -93.852, 75.2742
2.03156, -1, -25.9016, 3.63578, 19.8091, -157.106, -93.8337, 74.9794
2.03966, -1, -26.0638, 3.59223, 19.8199, -157.156, -93.8153, 74.6848
2.04855, -1, -26.2257, 3.54877, 19.8306, -157.207, -93.7972, 74.3903
2.05554, -1, -26.3872, 3.50541, 19.8414, -157.258, -93.7793, 74.0955
2.06355, -1, -26.5488, 3.46192, 19.8521, -157.308, -93.7616, 73.8002
2.07161, -1, -26.7107, 3.41841, 19.8629, -157.359, -93.7441, 73.5051
2.07961, -1, -26.873, 3.37491, 19.8738, -157.41, -93.7264, 73.2098
2.09047, -1, -27.0356, 3.33128, 19.89, -157.486, -93.6994, 72.7666
2.09555, -1, -27.1984, 3.28766, 19.8954, -157.511, -93.6902, 72.6189
2.10361, -1, -27.3616, 3.24408, 19.9061, -157.561, -93.6719, 72.3237
2.11154, -1, -27.5253, 3.2003, 19.9169, -157.612, -93.6539, 72.0283
2.1196, -1, -27.6891, 3.15658, 19.9277, -157.663, -93.6359, 71.7327
2.1276, -1, -27.8532, 3.11293, 19.9384, -157.713, -93.6182, 71.4369
2.13555, -1, -28.0174, 3.06921, 19.9492, -157.764, -93.6006, 71.1415
2.14354, -1, -28.1815, 3.02551, 19.96, -157.815, -93.5828, 70.8457
2.15164, -1, -28.3458, 2.9818, 19.9708, -157.865, -93.5648, 70.5495
2.1596, -1, -28.5099, 2.93806, 19.9817, -157.916, -93.5464, 70.2534
2.16754, -1, -28.6737, 2.89441, 19.9926, -157.967, -93.5279, 69.9575
2.17562, -1, -28.8372, 2.85071, 20.0034, -158.018, -93.5097, 69.6613
2.18354, -1, -29.0002, 2.80702, 20.0141, -158.069, -93.4917, 69.3648
2.19158, -1, -29.163, 2.76339, 20.0248, -158.12, -93.4741, 69.0684
2.19968, -1, -29.3257, 2.7197, 20.0357, -158.17, -93.4564, 68.7718
2.20757, -1, -29.4884, 2.67603, 20.0465, -158.222, -93.4387, 68.475
2.21557, -1, -29.6512, 2.63228, 20.0573, -158.273, -93.4207, 68.1782
2.22361, -1, -29.8143, 2.58844, 20.0681, -158.323, -93.4024, 67.8816
2.23158, -1, -29.9774, 2.54468, 20.079, -158.375, -93.3839, 67.585
2.23967, -1, -30.1406, 2.50079, 20.09, -158.425, -93.3657, 67.288
2.24769, -1, -30.3045, 2.45678, 20.101, -158.476, -93.3478, 66.9909
2.25566, -1, -30.4688, 2.41285, 20.1119, -158.527, -93.33, 66.6941
2.26364, -1, -30.6335, 2.36884, 20.1227, -158.578, -93.3122, 66.3969
2.27172, -1, -30.7985, 2.32489, 20.1335, -158.629, -93.2944, 66.0993
2.2797, -1, -30.9636, 2.28095, 20.1445, -158.68, -93.2764, 65.802
2.28755, -1, -31.1287, 2.23688, 20.1553, -158.731, -93.258, 65.505
2.29563, -1, -31.2938, 2.19298, 20.1662, -158.782, -93.2394, 65.2075
2.30358, -1, -31.4586, 2.14915, 20.177, -158.833, -93.2211, 64.9097
2.31175, -1, -31.6233, 2.10513, 20.1878, -158.884, -93.2031, 64.6119
2.31974, -1, -31.7879, 2.06117, 20.1988, -158.936, -93.1854, 64.3141
2.32767, -1, -31.9521, 2.01727, 20.2097, -158.987, -93.1678, 64.016
2.33583, -1, -32.1161, 1.97326, 20.2207, -159.037, -93.1502, 63.7178
2.34392, -1, -32.2797, 1.92929, 20.2316, -159.089, -93.1322, 63.42
2.3519, -1, -32.4432, 1.88526, 20.2425, -159.14, -93.1141, 63.1219
2.36041, -1, -32.6069, 1.84113, 20.2535, -159.191, -93.0957, 62.8237
2.36884, -1, -32.7707, 1.79704, 20.2644, -159.243, -93.0774, 62.5253
2.37611, -1, -32.9348, 1.75289, 20.2753, -159.294, -93.0593, 62.2271
2.38411, -1, -33.0991, 1.70864, 20.2862, -159.345, -93.0415, 61.9286
2.39294, -1, -33.2637, 1.66444, 20.2971, -159.396, -93.0237, 61.6298
2.40015, -1, -33.4287, 1.62022, 20.308, -159.447, -93.0058, 61.3311
2.40833, -1, -33.5114, 1.57596, 20.319, -159.499, -92.9877, 61.0327
2.41553, -1, -33.6771, 1.55381, 20.3245, -159.525, -92.9785, 60.8832
2.42264, -1, -33.8429, 1.50958, 20.3354, -159.576, -92.9599, 60.584
2.43259, -1, -34.0917, 1.4433, 20.3517, -159.653, -92.9321, 60.1355
2.43958, -1, -34.1747, 1.42124, 20.3572, -159.678, -92.923, 59.986
2.44753, -1, -34.3408, 1.37706, 20.3682, -159.73, -92.9049, 59.6865
2.45557, -1, -34.5068, 1.33285, 20.3791, -159.781, -92.887, 59.3868
2.46353, -1, -34.6725, 1.28869, 20.39, -159.833, -92.8693, 59.0874
2.47155, -1, -34.8378, 1.24449, 20.4009, -159.884, -92.8514, 58.7881
2.47964, -1, -35.0028, 1.20023, 20.4119, -159.935, -92.8331, 58.4885
2.48753, -1, -35.1676, 1.15594, 20.423, -159.987, -92.8146, 58.1887
2.49553, -1, -35.3321, 1.11164, 20.434, -160.038, -92.7961, 57.8891
2.50358, -1, -35.4961, 1.06748, 20.4452, -160.09, -92.7778, 57.5892
2.51154, -1, -35.6585, 1.02364, 20.4564, -160.141, -92.7597, 57.2894
2.51959, -1, -35.8178, 0.980414, 20.4679, -160.192, -92.7418, 56.9909
2.52762, -1, -35.9734, 0.938286, 20.4798, -160.243, -92.7241, 56.6957
2.53555, -1, -36.1238, 0.897798, 20.4917, -160.292, -92.7066, 56.4065
2.54356, -1, -36.2666, 0.859548, 20.5036, -160.339, -92.6895, 56.1275
2.55257, -1, -36.3997, 0.82421, 20.5152, -160.384, -92.6731, 55.8648
2.55958, -1, -36.5216, 0.791946, 20.5259, -160.425, -92.6578, 55.6251
2.56853, -1, -36.6308, 0.763106, 20.5352, -160.46, -92.6446, 55.4133
2.57559, -1, -36.7256, 0.738014, 20.5424, -160.49, -92.6336, 55.2349
2.58352, -1, -36.8056, 0.716782, 20.5475, -160.515, -92.6248, 55.0915
2.59166, -1, -36.8719, 0.699283, 20.5504, -160.534, -92.6183, 54.9829
2.59964, -1, -36.9251, 0.685283, 20.5518, -160.547, -92.6138, 54.9061
2.60752, -1, -36.9655, 0.674447, 20.5522, -160.556, -92.611, 54.8544
2.61549, -1, -36.9951, 0.666622, 20.5519, -160.562, -92.6093, 54.8228
2.62359, -1, -37.0154, 0.661525, 20.5514, -160.565, -92.6084, 54.805
2.63154, -1, -37.0278, 0.658493, 20.5511, -160.567, -92.6079, 54.7959
2.63955, 2, -37.0345, 0.65689, 20.5509, -160.568, -92.6077, 54.7916
2.64759, 2, -37.0367, 0.656155, 20.5508, -160.568, -92.6076, 54.7896
2.65552, 2, -37.0365, 0.655861, 20.5508, -160.568, -92.6076, 54.7886
2.66353, 2, -37.0359, 0.655726, 20.5508, -160.568, -92.6075, 54.7882
2.6716, 2, -37.0357, 0.655664, 20.5507, -160.568, -92.6076, 54.7881
2.67965, 2, -37.0361, 0.655606, 20.5507, -160.568, -92.6076, 54.7881
2.68753, 2, -37.0371, 0.655553, 20.5507, -160.568, -92.6076, 54.7881
2.69563, 2, -37.0382, 0.655465, 20.5505, -160.568, -92.6076, 54.7881
2.70355, 2, -37.0397, 0.655274, 20.5503, -160.568, -92.6076, 54.7882
2.71157, 2, -37.041, 0.655017, 20.5501, -160.568, -92.6077, 54.7882
2.71966, 2, -37.0422, 0.654769, 20.5499, -160.568, -92.6077, 54.7882
2.72753, 2, -37.0432, 0.654553, 20.5497, -160.568, -92.6077, 54.7883
2.73556, 2, -37.0436, 0.654445, 20.5495, -160.568, -92.6078, 54.7884
2.74367, 2, -37.0437, 0.654398, 20.5493, -160.568, -92.6079, 54.7886
2.75169, 2, -37.0432, 0.654393, 20.5492, -160.568, -92.6079, 54.7888
2.75969, 2, -37.0423, 0.65444, 20.5491, -160.568, -92.6079, 54.7889
2.76769, 2, -37.0413, 0.654485, 20.549, -160.568, -92.6079, 54.7892
2.77563, 2, -37.0398, 0.654562, 20.549, -160.568, -92.608, 54.7894
2.78357, 2, -37.0384, 0.654628, 20.5488, -160.568, -92.608, 54.7896
2.79171, 2, -37.0374, 0.654658, 20.5488, -160.568, -92.608, 54.7897
2.79961, 2, -37.0368, 0.654661, 20.5488, -160.568, -92.6081, 54.7897
2.80756, 2, -37.0366, 0.654629, 20.5487, -160.568, -92.6081, 54.7898
2.81565, 2, -37.0367, 0.65461, 20.5487, -160.568, -92.6081, 54.7898
2.82366, 2, -37.0368, 0.654552, 20.5487, -160.568, -92.6079, 54.7899
2.83171, 2, -37.0371, 0.65449, 20.5487, -160.568, -92.608, 54.7899
2.83993, 2, -37.0376, 0.654454, 20.5486, -160.568, -92.6081, 54.7899
2.84816, 2, -37.0383, 0.65443, 20.5486, -160.568, -92.6081, 54.79
2.85588, 2, -37.039, 0.654414, 20.5486, -160.568, -92.6081, 54.79
2.86408, 2, -37.0396, 0.654419, 20.5486, -160.568, -92.6081, 54.7901
2.87242, 2, -37.0399, 0.654447, 20.5486, -160.568, -92.6081, 54.7901
2.88018, 2, -37.0401, 0.654477, 20.5486, -160.568, -92.6081, 54.7902
2.88813, 2, -37.0401, 0.654509, 20.5486, -160.568, -92.6081, 54.7902
2.89639, 2, -37.04, 0.654535, 20.5486, -160.568, -92.6081, 54.7903
2.90412, 2, -37.0398, 0.654535, 20.5486, -160.568, -92.6082, 54.7904
2.91217, 2, -37.0394, 0.654518, 20.5486, -160.568, -92.6082, 54.7904
2.92046, 2, -37.0391, 0.654507, 20.5486, -160.568, -92.6082, 54.7903
2.92753, 2, -37.039, 0.654506, 20.5486, -160.568, -92.6082, 54.7904
2.93556, 2, -37.0389, 0.654504, 20.5486, -160.568, -92.6082, 54.7905
2.94373, 2, -37.0388, 0.654484, 20.5486, -160.568, -92.6082, 54.7905
2.95152, 2, -37.0388, 0.65444, 20.5485, -160.568, -92.6082, 54.7906
2.95966, 2, -37.0389, 0.654442, 20.5485, -160.568, -92.6082, 54.7906
2.96751, 2, -37.0389, 0.65445, 20.5485, -160.568, -92.6082, 54.7907
2.97551, 2, -37.0389, 0.654454, 20.5485, -160.568, -92.6082, 54.7907
2.98356, 2, -37.0391, 0.654475, 20.5485, -160.568, -92.6082, 54.7907
2.99152, 2, -37.0392, 0.65449, 20.5484, -160.568, -92.6082, 54.7909
2.99958, 2, -37.0393, 0.654497, 20.5484, -160.568, -92.6082, 54.7909
3.00757, 2, -37.0394, 0.6545, 20.5484, -160.568, -92.6083, 54.791
3.01551, 2, -37.0394, 0.654501, 20.5484, -160.568, -92.6083, 54.791
3.02353, 2, -37.0394, 0.654502, 20.5484, -160.568, -92.6083, 54.791
3.03315, 2, -37.0394, 0.654495, 20.5484, -160.568, -92.6083, 54.7912
3.03959, 2, -37.0394, 0.654487, 20.5484, -160.568, -92.6083, 54.7913
3.04755, 2, -37.0394, 0.65449, 20.5484, -160.568, -92.6083, 54.7913
3.05558, 2, -37.0394, 0.654485, 20.5484, -160.568, -92.6083, 54.7913
3.0654, 2, -37.0394, 0.654475, 20.5484, -160.568, -92.6083, 54.7914
3.07152, 2, -37.0393, 0.654473, 20.5484, -160.568, -92.6083, 54.7914
3.07964, 2, -37.0394, 0.654469, 20.5483, -160.568, -92.6084, 54.7914
3.08751, 2, -37.0393, 0.65447, 20.5483, -160.568, -92.6084, 54.7915
3.09553, 2, -37.0393, 0.654488, 20.5483, -160.568, -92.6083, 54.7915
3.10358, 2, -37.0393, 0.654496, 20.5483, -160.568, -92.6083, 54.7916
3.11152, 2, -37.0393, 0.654499, 20.5483, -160.568, -92.6083, 54.7917
3.11957, 2, -37.0393, 0.654519, 20.5483, -160.568, -92.6083, 54.7916
3.12757, 2, -37.0393, 0.65451, 20.5483, -160.568, -92.6084, 54.7917
3.13551, 2, -37.0393, 0.654506, 20.5483, -160.568, -92.6084, 54.7917
3.14351, 2, -37.0393, 0.654504, 20.5483, -160.568, -92.6084, 54.7917
3.15159, 2, -37.0393, 0.654496, 20.5483, -160.568, -92.6084, 54.7918
3.15957, 2, -37.0393, 0.654495, 20.5483, -160.568, -92.6084, 54.7918
3.16751, 2, -37.0393, 0.654479, 20.5483, -160.568, -92.6084, 54.7919
3.17558, 2, -37.0392, 0.654475, 20.5483, -160.568, -92.6084, 54.7919
3.18351, 2, -37.0392, 0.65449, 20.5482, -160.568, -92.6084, 54.792
3.19152, 2, -37.0392, 0.654497, 20.5482, -160.568, -92.6084, 54.792
3.19967, 2, -37.0392, 0.654492, 20.5482, -160.568, -92.6084, 54.792
3.20753, 2, -37.0392, 0.654493, 20.5482, -160.568, -92.6084, 54.7921
3.21555, 2, -37.0392, 0.654498, 20.5482, -160.568, -92.6084, 54.7922
3.22358, 2, -37.0392, 0.6545, 20.5482, -160.568, -92.6084, 54.7922
3.23152, 2, -37.0391, 0.654502, 20.5482, -160.568, -92.6084, 54.7923
3.23959, 2, -37.0391, 0.654502, 20.5482, -160.568, -92.6084, 54.7923
3.24765, 2, -37.0392, 0.654502, 20.5482, -160.568, -92.6084, 54.7923
3.2556, 2, -37.0392, 0.654502, 20.5482, -160.568, -92.6084, 54.7923
3.26362, 2, -37.0391, 0.654502, 20.5481, -160.568, -92.6084, 54.7923
3.27169, 2, -37.0391, 0.654503, 20.5481, -160.568, -92.6084, 54.7924
3.27967, 2, -37.0391, 0.654495, 20.5481, -160.568, -92.6084, 54.7924
3.28757, 2, -37.0391, 0.654494, 20.5481, -160.568, -92.6084, 54.7924
3.29563, 2, -37.0391, 0.654499, 20.5481, -160.568, -92.6085, 54.7924
3.30354, 2, -37.0391, 0.654501, 20.5481, -160.568, -92.6084, 54.7924
3.31155, 2, -37.039, 0.654502, 20.5481, -160.568, -92.6084, 54.7925
3.31967, 2, -37.039, 0.654502, 20.5481, -160.568, -92.6085, 54.7926
3.32776, 2, -37.039, 0.654502, 20.5481, -160.568, -92.6084, 54.7926
3.33575, 2, -37.039, 0.654521, 20.5481, -160.568, -92.6084, 54.7927
3.34384, 2, -37.039, 0.654511, 20.5481, -160.568, -92.6084, 54.7927
3.35182, 2, -37.039, 0.654506, 20.548, -160.568, -92.6085, 54.7927
3.36, 2, -37.039, 0.654504, 20.548, -160.568, -92.6085, 54.7928
3.36803, 2, -37.039, 0.654503, 20.548, -160.568, -92.6084, 54.7927
3.37615, 2, -37.0389, 0.654503, 20.548, -160.568, -92.6084, 54.7928
3.38424, 2, -37.0389, 0.654503, 20.548, -160.567, -92.6085, 54.7928
3.39209, 2, -37.0389, 0.654503, 20.548, -160.567, -92.6085, 54.7928
3.40011, 2, -37.0389, 0.654503, 20.548, -160.567, -92.6085, 54.7929
3.40814, 2, -37.0389, 0.654503, 20.548, -160.567, -92.6085, 54.7929
3.41609, 2, -37.0389, 0.654503, 20.548, -160.567, -92.6085, 54.7929
3.4235, 2, -37.0389, 0.654503, 20.548, -160.567, -92.6085, 54.7929
3.43153, 2, -37.0389, 0.654503, 20.548, -160.567, -92.6085, 54.7929
3.4396, 2, -37.0389, 0.654503, 20.548, -160.567, -92.6085, 54.7929
3.4475, 2, -37.0388, 0.654513, 20.548, -160.567, -92.6085, 54.7929
3.4555, 2, -37.0388, 0.654515, 20.5479, -160.567, -92.6086, 54.7929
3.46355, 2, -37.0388, 0.654508, 20.5479, -160.567, -92.6086, 54.7929
3.47151, 2, -37.0388, 0.654505, 20.5479, -160.567, -92.6085, 54.793
3.47956, 2, -37.0388, 0.654504, 20.5479, -160.567, -92.6085, 54.793
3.48755, 2, -37.0388, 0.654503, 20.5479, -160.567, -92.6085, 54.7931
3.4955, 2, -37.0388, 0.654503, 20.5479, -160.567, -92.6085, 54.7931
3.5035, 2, -37.0388, 0.654503, 20.5479, -160.567, -92.6085, 54.793
3.51157, 2, -37.0388, 0.654503, 20.5479, -160.567, -92.6085, 54.7931
3.51955, 2, -37.0388, 0.654503, 20.5479, -160.567, -92.6086, 54.7931
3.52749, 2, -37.0387, 0.654503, 20.5479, -160.567, -92.6086, 54.793
3.53709, 2, -37.0387, 0.654503, 20.5479, -160.567, -92.6086, 54.7931
3.54351, 2, -37.0388, 0.654503, 20.5478, -160.567, -92.6086, 54.7931
3.5525, 2, -37.0388, 0.654503, 20.5478, -160.567, -92.6086, 54.7931
3.55968, 2, -37.0387, 0.654521, 20.5478, -160.567, -92.6086, 54.7931
3.56854, 2, -37.0387, 0.654522, 20.5478, -160.567, -92.6086, 54.7932
3.57551, 2, -37.0387, 0.65453, 20.5478, -160.567, -92.6086, 54.7932
3.58356, 2, -37.0387, 0.654522, 20.5478, -160.567, -92.6087, 54.7931
3.59151, 2, -37.0387, 0.654523, 20.5478, -160.567, -92.6087, 54.7931
3.59958, 2, -37.0387, 0.654519, 20.5478, -160.567, -92.6086, 54.7932
3.60756, 2, -37.0387, 0.65451, 20.5478, -160.567, -92.6087, 54.7932
3.61549, 2, -37.0387, 0.654506, 20.5478, -160.567, -92.6086, 54.7932
3.6235, 2, -37.0387, 0.654504, 20.5478, -160.567, -92.6086, 54.7932
3.63157, 2, -37.0387, 0.654514, 20.5477, -160.567, -92.6087, 54.7932
3.63971, 2, -37.0386, 0.654526, 20.5477, -160.567, -92.6086, 54.7932
3.6485, 2, -37.0386, 0.654532, 20.5477, -160.567, -92.6086, 54.7932
3.65556, 2, -37.0386, 0.654523, 20.5477, -160.567, -92.6087, 54.7932
3.66349, 2, -37.0386, 0.65453, 20.5477, -160.567, -92.6087, 54.7932
3.6715, 2, -37.0386, 0.654545, 20.5477, -160.567, -92.6087, 54.7932
3.67966, 2, -37.0386, 0.654559, 20.5477, -160.567, -92.6087, 54.7932
3.68749, 2, -37.0386, 0.654554, 20.5477, -160.567, -92.6086, 54.7932
3.69549, 2, -37.0386, 0.654537, 20.5477, -160.567, -92.6086, 54.7932
3.70357, 4, -37.0386, 0.654526, 20.5477, -160.567, -92.6086, 54.7932
3.71152, 4, -37.0385, 0.654532, 20.5477, -160.567, -92.6086, 54.7932
3.71959, 4, -37.0385, 0.654516, 20.5477, -160.567, -92.6086, 54.7932
3.72756, 4, -37.0385, 0.654509, 20.5477, -160.567, -92.6087, 54.7932
3.7355, 4, -37.0385, 0.654535, 20.5477, -160.567, -92.6087, 54.7932
3.74354, 4, -37.0385, 0.654525, 20.5477, -160.567, -92.6087, 54.7932
3.75165, 4, -37.0385, 0.654542, 20.5477, -160.567, -92.6087, 54.7932
3.75964, 4, -37.0385, 0.654557, 20.5477, -160.567, -92.6087, 54.7932
3.76761, 4, -37.0384, 0.654564, 20.5476, -160.567, -92.6087, 54.7932
3.77566, 4, -37.0384, 0.654568, 20.5476, -160.567, -92.6087, 54.7932
3.7836, 4, -37.0384, 0.654551, 20.5476, -160.567, -92.6087, 54.7932
3.79156, 4, -37.0384, 0.654543, 20.5476, -160.567, -92.6087, 54.7933
3.79973, 4, -37.0384, 0.654539, 20.5476, -160.567, -92.6087, 54.7933
3.80805, 4, -37.0384, 0.654538, 20.5476, -160.567, -92.6086, 54.7932
3.82988, 4, -37.0384, 0.654553, 20.5476, -160.567, -92.6087, 54.7932
3.83264, 4, -37.0383, 0.654559, 20.5476, -160.567, -92.6087, 54.7933
3.83458, 4, -37.0383, 0.654559, 20.5476, -160.567, -92.6087, 54.7933
3.8417, 4, -37.0383, 0.654554, 20.5476, -160.567, -92.6087, 54.7933
3.85081, 4, -37.0383, 0.654545, 20.5476, -160.567, -92.6087, 54.7933
3.85626, 4, -37.0375, 0.654388, 20.5476, -160.567, -92.6087, 54.7933
3.86391, 4, -37.035, 0.653473, 20.5477, -160.567, -92.6087, 54.7932
3.87211, 4, -37.0292, 0.650607, 20.5486, -160.567, -92.6087, 54.7932
3.88223, 4, -37.0197, 0.644675, 20.5511, -160.567, -92.6087, 54.7932
3.88808, 4, -37.0063, 0.635161, 20.5566, -160.566, -92.6087, 54.7932
3.89646, 4, -36.9881, 0.621482, 20.5664, -160.564, -92.6087, 54.7932
3.90411, 5, -36.9642, 0.603188, 20.5819, -160.561, -92.6086, 54.7932
3.91206, 5, -36.9502, 0.592431, 20.592, -160.557, -92.6084, 54.7932
3.92024, 5, -36.9186, 0.553256, 20.6326, -160.551, -92.6081, 54.7931
3.92838, 5, -36.8822, 0.538013, 20.6681, -160.543, -92.6074, 54.7931
3.93548, 5, -36.8409, 0.504004, 20.6881, -160.539, -92.6069, 54.7931
3.94349, 5, -36.7943, 0.465186, 20.7321, -160.529, -92.6056, 54.793
3.9517, 5, -36.7426, 0.422104, 20.7805, -160.518, -92.6041, 54.793
3.95973, 5, -36.6861, 0.375359, 20.832, -160.506, -92.6025, 54.7929
3.96749, 5, -36.6257, 0.325845, 20.8856, -160.494, -92.6007, 54.793
3.97553, 5, -36.5615, 0.274236, 20.9404, -160.482, -92.5989, 54.793
3.98348, 5, -36.4948, 0.221265, 20.9958, -160.47, -92.5971, 54.793
3.9915, 5, -36.4269, 0.167704, 21.0512, -160.457, -92.5953, 54.793
3.99976, 5, -36.3583, 0.113881, 21.1067, -160.446, -92.5934, 54.793
4.0089, 5, -36.2896, 0.059979, 21.1898, -160.427, -92.5906, 54.793
4.01548, 5, -36.2207, 0.0062188, 21.2176, -160.421, -92.5896, 54.793
4.02655, 5, -36.1176, -0.0740335, 21.3007, -160.403, -92.5866, 54.7932
4.0317, 5, -36.0833, -0.10068, 21.3284, -160.397, -92.5857, 54.7932
4.04355, 5, -35.9804, -0.180273, 21.4112, -160.378, -92.5827, 54.7933
4.04845, 5, -35.9461, -0.206722, 21.4388, -160.371, -92.5817, 54.7934
4.05558, 5, -35.8775, -0.2595, 21.4939, -160.358, -92.5797, 54.7937
4.0646, 5, -35.8087, -0.312145, 21.5489, -160.346, -92.5777, 54.7941
4.07149, 5, -35.7396, -0.364795, 21.6038, -160.333, -92.5756, 54.7948
4.0797, 5, -35.6704, -0.417416, 21.6585, -160.32, -92.5736, 54.7957
4.08754, 5, -35.6008, -0.470076, 21.7131, -160.308, -92.5717, 54.7968
4.09548, 5, -35.531, -0.522841, 21.7674, -160.295, -92.5696, 54.7981
4.10368, 5, -35.461, -0.57557, 21.8216, -160.283, -92.5676, 54.7994
4.11527, 5, -35.3553, -0.654632, 21.9026, -160.264, -92.5645, 54.8017
4.11953, 5, -35.32, -0.680959, 21.9296, -160.257, -92.5634, 54.8026
4.12763, 5, -35.2495, -0.733603, 21.9834, -160.244, -92.5613, 54.8044
4.13632, 5, -35.179, -0.785925, 22.0371, -160.231, -92.5592, 54.8064
4.14348, 5, -35.1084, -0.838079, 22.0907, -160.217, -92.5571, 54.8085
4.15278, 5, -35.0378, -0.89014, 22.1442, -160.204, -92.555, 54.8106
4.1597, 5, -34.9673, -0.941849, 22.1976, -160.191, -92.5528, 54.813
4.16847, 5, -34.8968, -0.993393, 22.2508, -160.178, -92.5507, 54.8155
4.17891, 5, -34.791, -1.07042, 22.3306, -160.159, -92.5474, 54.8193
4.18365, 5, -34.7557, -1.0961, 22.357, -160.152, -92.5463, 54.8207
4.19272, 5, -34.6849, -1.14745, 22.4098, -160.14, -92.5441, 54.8236
4.1996, 5, -34.614, -1.19865, 22.4624, -160.127, -92.5418, 54.8265
4.20752, 5, -34.5429, -1.25001, 22.5148, -160.114, -92.5396, 54.8295
4.21554, 5, -34.4717, -1.30134, 22.5671, -160.1, -92.5373, 54.8326
4.22358, 5, -34.4002, -1.35263, 22.6192, -160.086, -92.5351, 54.8358
4.23202, 5, -34.3287, -1.40391, 22.6712, -160.072, -92.5328, 54.8391
4.23982, 5, -34.257, -1.4551, 22.7231, -160.059, -92.5306, 54.8425
4.24753, 5, -34.1851, -1.50612, 22.7749, -160.045, -92.5283, 54.8461
4.25587, 5, -34.1131, -1.55684, 22.8265, -160.032, -92.526, 54.8497
4.26745, 5, -34.0049, -1.63268, 22.9037, -160.011, -92.5225, 54.8554
4.27161, 5, -33.9689, -1.65784, 22.9295, -160.005, -92.5213, 54.8574
4.27969, 5, -33.8967, -1.70797, 22.9807, -159.991, -92.519, 54.8615
4.28758, 5, -33.8246, -1.75793, 23.0318, -159.978, -92.5167, 54.8656
4.29549, 5, -33.7524, -1.80784, 23.0828, -159.964, -92.5144, 54.8698
4.3059, 5, -33.68, -1.85766, 23.1336, -159.949, -92.5121, 54.874
4.31268, 5, -33.6076, -1.90744, 23.1842, -159.935, -92.5098, 54.8783
4.31957, 5, -33.5349, -1.95746, 23.2347, -159.921, -92.5076, 54.8825
4.32758, 5, -33.4621, -2.00783, 23.2851, -159.907, -92.5053, 54.8864
4.33659, 5, -33.3894, -2.05854, 23.3355, -159.893, -92.503, 54.8895
4.34383, 5, -33.3169, -2.10972, 23.3859, -159.879, -92.5005, 54.8912
4.35184, 6, -33.2446, -2.16147, 23.4366, -159.864, -92.498, 54.8914
4.36081, 6, -33.1727, -2.2141, 23.4877, -159.85, -92.4949, 54.8896
4.368, 6, -33.1011, -2.26763, 23.5395, -159.834, -92.4912, 54.8847
4.37686, 7, -33.0301, -2.32213, 23.5921, -159.817, -92.4865, 54.8743
4.38488, 7, -32.9594, -2.37778, 23.646, -159.799, -92.4803, 54.8603
4.39222, 7, -32.8893, -2.43464, 23.701, -159.78, -92.4724, 54.8437
4.40089, 7, -32.8197, -2.49296, 23.7574, -159.759, -92.4626, 54.8264
4.40818, 7, -32.7507, -2.55279, 23.8152, -159.737, -92.4509, 54.809
4.41697, 7, -32.6825, -2.61424, 23.8743, -159.715, -92.4373, 54.7921
4.42347, 8, -32.6486, -2.64555, 23.9043, -159.703, -92.4297, 54.7837
4.4334, 8, -32.548, -2.74207, 23.996, -159.665, -92.4042, 54.7583
4.44228, 8, -32.4818, -2.80848, 24.0583, -159.638, -92.3849, 54.7403
4.44752, 8, -32.449, -2.84228, 24.0899, -159.624, -92.3746, 54.7308
4.45547, 8, -32.3838, -2.91097, 24.1538, -159.596, -92.3532, 54.7106
4.46349, 9, -32.3191, -2.981, 24.2187, -159.568, -92.3308, 54.6887
4.47151, 9, -32.2551, -3.05235, 24.2846, -159.538, -92.3071, 54.665
4.47947, 9, -32.1915, -3.12506, 24.3514, -159.506, -92.2822, 54.6396
4.48761, 9, -32.1286, -3.19894, 24.4192, -159.474, -92.2556, 54.6131
4.49544, 9, -32.0663, -3.27418, 24.4881, -159.442, -92.2271, 54.5852
4.50496, 10, -31.9738, -3.38943, 24.5932, -159.391, -92.1823, 54.5405
4.51148, 10, -31.9433, -3.42856, 24.6288, -159.373, -92.1668, 54.5246
4.5195, 10, -31.8827, -3.5079, 24.7007, -159.337, -92.1348, 54.4913
4.52753, 10, -31.8225, -3.5886, 24.7737, -159.301, -92.1008, 54.4563
4.53561, 10, -31.763, -3.6708, 24.8477, -159.264, -92.0652, 54.4202
4.54347, 11, -31.704, -3.75441, 24.9226, -159.225, -92.029, 54.3829
4.55157, 11, -31.6456, -3.83957, 24.9985, -159.185, -91.9916, 54.3438
4.56137, 11, -31.5878, -3.92614, 25.0753, -159.125, -91.9317, 54.2815
4.56827, 11, -31.5303, -4.0142, 25.1531, -159.104, -91.9112, 54.26
4.57546, 11, -31.4736, -4.10371, 25.232, -159.061, -91.8696, 54.2164
4.5835, 12, -31.4174, -4.1947, 25.3119, -159.018, -91.8263, 54.1714
4.59152, 12, -31.3615, -4.28709, 25.3928, -158.975, -91.7809, 54.1242
4.59946, 12, -31.3061, -4.38092, 25.4749, -158.929, -91.7349, 54.0753
4.60991, 12, -31.2242, -4.52408, 25.6, -158.86, -91.6633, 54.0001
4.61562, 12, -31.1971, -4.57249, 25.6421, -158.836, -91.6385, 53.9742
4.6235, 13, -31.1434, -4.67047, 25.7272, -158.788, -91.5885, 53.9207
4.63148, 13, -31.0901, -4.76985, 25.8131, -158.739, -91.537, 53.8661
4.63961, 13, -31.0373, -4.87063, 25.9001, -158.69, -91.4834, 53.8105
4.6501, 13, -30.9592, -5.02473, 26.0327, -158.613, -91.402, 53.7231
4.65553, 13, -30.9334, -5.07681, 26.0774, -158.588, -91.3737, 53.6935
4.66342, 14, -30.8823, -5.18201, 26.1677, -158.535, -91.3165, 53.6336
4.67148, 14, -30.8317, -5.28873, 26.259, -158.481, -91.2588, 53.5714
4.67953, 14, -30.7818, -5.3969, 26.3512, -158.428, -91.1985, 53.508
4.68764, 14, -30.7323, -5.50659, 26.4443, -158.373, -91.1381, 53.4439
4.69547, 14, -30.6834, -5.61777, 26.5384, -158.316, -91.0756, 53.3773
4.70346, 14, -30.6349, -5.73045, 26.6336, -158.26, -91.0117, 53.3096
4.71155, 15, -30.5868, -5.84451, 26.7299, -158.201, -90.9467, 53.2408
4.71951, 15, -30.5393, -5.95982, 26.8274, -158.143, -90.8799, 53.1699
4.72753, 15, -30.4924, -6.07649, 26.926, -158.083, -90.8126, 53.0983
4.73566, 15, -30.4458, -6.19465, 27.0254, -158.023, -90.743, 53.0247
4.74445, 15, -30.3998, -6.31418, 27.1257, -157.961, -90.6729, 52.9493
4.7516, 16, -30.3543, -6.43532, 27.227, -157.898, -90.6005, 52.8733
4.76034, 16, -30.3094, -6.55785, 27.3294, -157.835, -90.5279, 52.7946
4.7684, 16, -30.2649, -6.68179, 27.4331, -157.771, -90.4532, 52.7154
4.77558, 16, -30.221, -6.80729, 27.5378, -157.706, -90.3777, 52.6344
4.78433, 16, -30.1775, -6.93426, 27.6435, -157.64, -90.3004, 52.5521
4.79157, 17, -30.1344, -7.06287, 27.7501, -157.573, -90.2221, 52.4689
4.79948, 17, -30.0919, -7.19306, 27.8574, -157.505, -90.1423, 52.384
4.80968, 17, -30.05, -7.32469, 27.9659, -157.436, -90.0611, 52.2983
4.81582, 17, -30.0085, -7.45752, 28.0754, -157.367, -89.9789, 52.2104
4.82361, 17, -29.9676, -7.59177, 28.1863, -157.296, -89.895, 52.122
4.83158, 18, -29.9271, -7.72749, 28.2983, -157.225, -89.8101, 52.0317
4.8397, 18, -29.8872, -7.86464, 28.411, -157.153, -89.7237, 51.9405
4.84775, 18, -29.8477, -8.0032, 28.5246, -157.079, -89.6365, 51.8474
4.85583, 18, -29.8085, -8.14286, 28.6391, -157.005, -89.5477, 51.7535
4.86426, 18, -29.7699, -8.28386, 28.7549, -156.93, -89.4574, 51.6577
4.87194, 19, -29.7318, -8.42637, 28.8719, -156.854, -89.3664, 51.5613
4.88008, 19, -29.6941, -8.57047, 28.99, -156.777, -89.274, 51.4633
4.88845, 19, -29.6569, -8.71608, 29.1088, -156.7, -89.1801, 51.3646
4.89699, 19, -29.6201, -8.86296, 29.2284, -156.621, -89.0855, 51.2644
4.90405, 19, -29.5839, -9.011, 29.3489, -156.541, -88.9895, 51.1635
4.91208, 20, -29.566, -9.16061, 29.4706, -156.461, -88.8923, 51.0609
4.92098, 20, -29.5305, -9.23598, 29.532, -156.421, -88.8434, 50.9573
4.92746, 20, -29.4953, -9.38792, 29.6554, -156.339, -88.7449, 50.905
4.93703, 20, -29.4607, -9.54107, 29.7796, -156.256, -88.5947, 50.7464
4.94498, 20, -29.4266, -9.77284, 29.9676, -156.131, -88.4935, 50.6395
4.95166, 21, -29.393, -9.85078, 30.0308, -156.089, -88.4424, 50.5853
4.95946, 21, -29.3597, -10.0078, 30.1578, -156.003, -88.3392, 50.4765
4.96751, 21, -29.3268, -10.1664, 30.286, -155.917, -88.2352, 50.3665
4.97545, 21, -29.2943, -10.3261, 30.4152, -155.83, -88.13, 50.2557
4.9848, 21, -29.2465, -10.5673, 30.6105, -155.699, -87.9703, 50.0881
4.9932, 22, -29.2151, -10.7299, 30.7418, -155.609, -87.8626, 49.975
4.99946, 22, -29.1995, -10.8118, 30.8078, -155.564, -87.8084, 49.9182
5.01025, 22, -29.1534, -11.0591, 31.0074, -155.428, -87.6444, 49.7467
5.01577, 22, -29.1382, -11.142, 31.0743, -155.383, -87.5892, 49.6888
5.02345, 22, -29.1082, -11.3085, 31.2089, -155.29, -87.4778, 49.5729
5.03145, 22, -29.0786, -11.4765, 31.3445, -155.197, -87.3657, 49.4559
5.03952, 23, -29.0493, -11.6464, 31.4808, -155.103, -87.2527, 49.3383
5.0475, 23, -29.0203, -11.8172, 31.618, -155.009, -87.1386, 49.2198
5.05547, 23, -28.9918, -11.9887, 31.7559, -154.913, -87.024, 49.1009
5.06825, 23, -28.9498, -12.2484, 31.9645, -154.768, -86.8499, 48.9214
5.07142, 23, -28.9359, -12.3357, 32.0345, -154.72, -86.7915, 48.8613
5.07945, 24, -28.9086, -12.5112, 32.1752, -154.621, -86.6739, 48.7407
5.08759, 24, -28.8814, -12.6871, 32.3166, -154.522, -86.5553, 48.6198
5.09865, 24, -28.8414, -12.9526, 32.5299, -154.372, -86.3762, 48.4367
5.10345, 24, -28.8283, -13.0419, 32.6015, -154.322, -86.3158, 48.3753
5.11155, 24, -28.8022, -13.2216, 32.7455, -154.22, -86.195, 48.2523
5.11944, 25, -28.7764, -13.4017, 32.8901, -154.118, -86.0735, 48.1291
5.12746, 25, -28.751, -13.5824, 33.0354, -154.015, -85.9509, 48.0056
5.13667, 25, -28.7257, -13.7645, 33.1811, -153.911, -85.8281, 47.8823
5.14361, 25, -28.7005, -13.9481, 33.3276, -153.807, -85.7041, 47.7585
5.15146, 25, -28.6758, -14.1323, 33.4752, -153.701, -85.5799, 47.6345
5.16025, 26, -28.6514, -14.3167, 33.6233, -153.595, -85.4549, 47.5107
5.16745, 26, -28.6272, -14.5024, 33.7719, -153.488, -85.3293, 47.3863
5.17552, 26, -28.6034, -14.6897, 33.9211, -153.38, -85.2033, 47.2619
5.18682, 26, -28.5679, -14.9715, 34.1466, -153.217, -85.0128, 47.0755
5.19162, 26, -28.5561, -15.0655, 34.222, -153.162, -84.9492, 47.0135
5.20048, 27, -28.5327, -15.2541, 34.3732, -153.052, -84.8212, 46.8895
5.2075, 27, -28.5098, -15.4438, 34.5249, -152.942, -84.693, 46.7662
5.21565, 27, -28.4869, -15.6339, 34.6772, -152.83, -84.564, 46.6427
5.22356, 27, -28.4641, -15.8242, 34.8304, -152.718, -84.4347, 46.5197
5.23149, 27, -28.4418, -16.0158, 34.9839, -152.605, -84.3051, 46.3969
5.23941, 28, -28.4195, -16.2088, 35.1373, -152.492, -84.175, 46.2744
5.24768, 28, -28.3971, -16.4024, 35.2915, -152.378, -84.0446, 46.1523
5.25551, 28, -28.3749, -16.5963, 35.4466, -152.263, -83.9136, 46.0307
5.26423, 28, -28.3529, -16.7912, 35.602, -152.148, -83.7826, 45.9099
5.2719, 28, -28.3308, -16.9871, 35.7575, -152.032, -83.651, 45.7898
5.27977, 29, -28.3088, -17.1829, 35.9134, -151.915, -83.5195, 45.6707
5.28803, 29, -28.287, -17.3787, 36.0699, -151.797, -83.3875, 45.5524
5.29651, 29, -28.2652, -17.5754, 36.2269, -151.679, -83.2551, 45.435
5.30419, 29, -28.2433, -17.7728, 36.3839, -151.561, -83.1223, 45.3189
5.31192, 29, -28.2216, -17.97, 36.5409, -151.442, -82.9896, 45.2034
5.31976, 29, -28.2001, -18.1674, 36.6987, -151.322, -82.8565, 45.0893
5.3283, 30, -28.1786, -18.3657, 36.8571, -151.202, -82.7234, 44.9764
5.3373, 30, -28.157, -18.5642, 37.0153, -151.081, -82.5903, 44.8646
5.34527, 30, -28.1354, -18.7626, 37.1733, -150.959, -82.4567, 44.7544
5.35176, 30, -28.1137, -18.9617, 37.3317, -150.837, -82.3234, 44.6457
5.35993, 30, -28.0919, -19.1618, 37.4905, -150.715, -82.1894, 44.5388
5.36779, 31, -28.0699, -19.3618, 37.6495, -150.592, -82.0559, 44.4334
5.37598, 31, -28.0481, -19.5616, 37.808, -150.469, -81.9221, 44.3297
5.38666, 31, -28.0263, -19.7617, 37.9669, -150.345, -81.7885, 44.2279
5.39241, 31, -28.0043, -19.9622, 38.1265, -150.22, -81.6547, 44.1276
5.40006, 31, -27.9823, -20.1622, 38.286, -150.095, -81.5208, 44.0291
5.40819, 32, -27.9602, -20.3621, 38.4452, -149.969, -81.387, 43.9322
5.41657, 32, -27.9378, -20.5628, 38.6044, -149.843, -81.2532, 43.8374
5.42409, 32, -27.9266, -20.6634, 38.7641, -149.717, -81.1194, 43.7444
5.43145, 32, -27.9039, -20.8642, 38.8441, -149.653, -81.0523, 43.6987
5.44349, 32, -27.8696, -21.1647, 39.0833, -149.462, -80.8518, 43.5655
5.4474, 33, -27.858, -21.2651, 39.1627, -149.398, -80.7849, 43.5223
5.45544, 33, -27.8346, -21.4656, 39.3218, -149.27, -80.6516, 43.4387
5.46367, 33, -27.8109, -21.6654, 39.481, -149.143, -80.5186, 43.3574
5.4728, 33, -27.7867, -21.9644, 39.7185, -148.951, -80.32, 43.2422
5.47949, 33, -27.7621, -22.0642, 39.7972, -148.887, -80.254, 43.2051
5.4874, 34, -27.7373, -22.2634, 39.9543, -148.759, -80.1221, 43.1338
5.49544, 34, -27.7121, -22.4616, 40.1114, -148.631, -79.9909, 43.0662
5.50506, 34, -27.6735, -22.7582, 40.3464, -148.438, -79.7941, 42.9692
5.51306, 34, -27.6473, -22.9558, 40.5021, -148.31, -79.6631, 42.9092
5.52088, 34, -27.634, -23.0543, 40.5801, -148.246, -79.5321, 42.8521
5.5274, 35, -27.6071, -23.2506, 40.7361, -148.117, -79.4668, 42.8245
5.53827, 35, -27.5663, -23.5453, 40.9694, -147.923, -79.2706, 42.7476
5.54372, 35, -27.5526, -23.6436, 41.0468, -147.858, -79.2055, 42.7239
5.55396, 35, -27.5247, -23.8396, 41.2012, -147.728, -79.0103, 42.6583
5.55947, 35, -27.4966, -24.0349, 41.3554, -147.598, -78.9454, 42.638
5.5684, 36, -27.4679, -24.23, 41.5094, -147.468, -78.8159, 42.6003
5.57543, 36, -27.4388, -24.4247, 41.6628, -147.338, -78.6863, 42.5672
5.58353, 36, -27.4093, -24.6183, 41.8153, -147.208, -78.5576, 42.5383
5.59157, 36, -27.3794, -24.811, 41.9674, -147.078, -78.4289, 42.514
5.60194, 36, -27.3331, -25.1003, 42.1949, -146.882, -78.2369, 42.4854
5.60871, 37, -27.3173, -25.1963, 42.2703, -146.817, -78.173, 42.478
5.61547, 37, -27.285, -25.3876, 42.4202, -146.686, -78.0456, 42.4667
5.62349, 37, -27.2521, -25.5779, 42.5694, -146.557, -77.9187, 42.4601
5.63143, 37, -27.2185, -25.7678, 42.718, -146.427, -77.7918, 42.4571
5.63959, 37, -27.1841, -25.9566, 42.8657, -146.298, -77.6656, 42.4569
5.64748, 37, -27.1488, -26.1438, 43.0122, -146.169, -77.5395, 42.4623
5.65543, 38, -27.1127, -26.3296, 43.1574, -146.041, -77.4142, 42.4741
5.6648, 38, -27.0758, -26.5148, 43.3018, -145.913, -77.2894, 42.491
5.67161, 38, -27.0381, -26.6989, 43.4454, -145.786, -77.1651, 42.5136
5.67949, 38, -26.9994, -26.8813, 43.5878, -145.659, -77.0413, 42.5417
5.68743, 38, -26.9601, -27.0629, 43.7292, -145.532, -76.9181, 42.5759
5.69543, 39, -26.9199, -27.2442, 43.8696, -145.406, -76.7954, 42.6162
5.70356, 39, -26.8791, -27.4245, 44.0092, -145.28, -76.6725, 42.6625
5.71143, 39, -26.8373, -27.6033, 44.1481, -145.154, -76.5502, 42.7141
5.71964, 39, -26.7949, -27.7814, 44.2861, -145.028, -76.4278, 42.7718
5.72843, 39, -26.7516, -27.9592, 44.423, -144.903, -76.3055, 42.8363
5.73547, 40, -26.7073, -28.1361, 44.5589, -144.778, -76.1832, 42.906
5.74366, 40, -26.6619, -28.3111, 44.6939, -144.653, -76.061, 42.9828
5.7524, 40, -26.6156, -28.4848, 44.8276, -144.529, -75.9395, 43.0659
5.75973, 40, -26.5684, -28.6575, 44.9599, -144.406, -75.8179, 43.1548
5.76753, 40, -26.5199, -28.8287, 45.0907, -144.284, -75.6973, 43.2512
5.77553, 41, -26.4703, -28.9979, 45.2201, -144.162, -75.577, 43.3537
5.78406, 41, -26.4196, -29.1651, 45.3479, -144.042, -75.457, 43.4633
5.79269, 41, -26.3675, -29.3312, 45.4741, -143.923, -75.3379, 43.5794
5.80225, 41, -26.314, -29.496, 45.5989, -143.805, -75.219, 43.7024
5.80842, 41, -26.2592, -29.6587, 45.7218, -143.688, -75.1009, 43.8328
5.81546, 42, -26.2031, -29.8196, 45.8429, -143.573, -74.9832, 43.9703
5.82431, 42, -26.1456, -29.9789, 45.9624, -143.459, -74.8658, 44.1152
5.83155, 42, -26.0866, -30.1367, 46.0801, -143.346, -74.7491, 44.2671
5.84152, 42, -26.0262, -30.2926, 46.196, -143.235, -74.6325, 44.4265
5.85044, 42, -25.9644, -30.4461, 46.3102, -143.125, -74.5165, 44.5932
5.85611, 43, -25.901, -30.5975, 46.4224, -143.017, -74.401, 44.7673
5.8668, 43, -25.836, -30.747, 46.5325, -142.911, -74.2857, 44.9495
5.87207, 43, -25.7695, -30.8944, 46.6406, -142.806, -74.171, 45.1395
5.88063, 43, -25.7012, -31.0395, 46.7466, -142.704, -74.0564, 45.3371
5.88808, 43, -25.6314, -31.1822, 46.8506, -142.603, -73.9426, 45.5424
5.89598, 43, -25.5597, -31.3227, 46.9525, -142.504, -73.8294, 45.7553
5.90487, 44, -25.4863, -31.4609, 47.0521, -142.408, -73.7164, 45.9759
5.91207, 44, -25.4108, -31.5968, 47.1491, -142.314, -73.604, 46.2046
5.92105, 44, -25.3335, -31.7301, 47.2437, -142.222, -73.492, 46.4413
5.93122, 44, -25.2543, -31.8606, 47.3358, -142.133, -73.3806, 46.6863
5.93538, 44, -25.2141, -31.9248, 47.3809, -142.089, -73.3251, 46.8118
5.94347, 45, -25.1321, -32.0512, 47.4693, -142.004, -73.2146, 47.0692
5.95143, 45, -25.0482, -32.1748, 47.5553, -141.922, -73.1047, 47.3353
5.95942, 45, -24.9621, -32.2956, 47.6385, -141.843, -72.9957, 47.6093
5.96873, 45, -24.8291, -32.4712, 47.7575, -141.729, -72.8333, 48.036
5.97683, 45, -24.7836, -32.5843, 47.8331, -141.657, -72.7261, 48.3311
5.98348, 46, -24.6909, -32.6397, 47.8698, -141.623, -72.6728, 48.482
5.99429, 46, -24.5476, -32.8008, 47.9756, -141.524, -72.5141, 48.947
5.99964, 46, -24.4986, -32.8528, 48.0093, -141.493, -72.4616, 49.1061
6.00804, 46, -24.399, -32.9542, 48.0744, -141.435, -72.3572, 49.4313
6.01543, 46, -24.2971, -33.0518, 48.1361, -141.379, -72.2539, 49.7648
6.02499, 47, -24.1398, -33.1912, 48.2221, -141.304, -72.101, 50.2802
6.03142, 47, -24.0862, -33.2356, 48.249, -141.28, -72.0504, 50.4562
6.03942, 47, -23.9769, -33.3213, 48.3, -141.236, -71.9502, 50.8147
6.04758, 47, -23.8649, -33.4029, 48.3472, -141.198, -71.8512, 51.1813
6.05551, 47, -23.7501, -33.4803, 48.3906, -141.164, -71.7531, 51.5564
6.06449, 48, -23.6325, -33.5533, 48.43, -141.135, -71.6565, 51.9398
6.07244, 48, -23.5123, -33.6217, 48.4652, -141.11, -71.5616, 52.331
6.07948, 48, -23.3894, -33.6855, 48.4964, -141.089, -71.468, 52.7308
6.08742, 48, -23.2641, -33.7445, 48.5235, -141.074, -71.3762, 53.1393
6.09564, 48, -23.1362, -33.7985, 48.5464, -141.064, -71.2866, 53.5557
6.10339, 49, -23.0055, -33.8473, 48.5648, -141.059, -71.1987, 53.981
6.11142, 49, -22.8718, -33.891, 48.579, -141.058, -71.1125, 54.4134
6.11944, 49, -22.7351, -33.9291, 48.5885, -141.062, -71.0288, 54.8537
6.12749, 49, -22.5956, -33.9617, 48.5932, -141.073, -70.9467, 55.3021
6.13542, 49, -22.4533, -33.9887, 48.5936, -141.09, -70.8672, 55.7578
6.1436, 50, -22.3082, -34.0099, 48.5892, -141.113, -70.79, 56.2219
6.15165, 50, -22.1605, -34.0249, 48.5797, -141.142, -70.7158, 56.6927
6.16051, 50, -22.0103, -34.0337, 48.5651, -141.176, -70.6442, 57.1714
6.16853, 50, -21.8571, -34.0366, 48.5454, -141.217, -70.576, 57.6583
6.17543, 50, -21.701, -34.0333, 48.5203, -141.265, -70.5106, 58.1525
6.1835, 50, -21.5416, -34.0234, 48.4896, -141.318, -70.4496, 58.6541
6.19142, 51, -21.3795, -34.0066, 48.4537, -141.378, -70.3912, 59.1621
6.20058, 51, -21.2145, -33.983, 48.4121, -141.444, -70.3371, 59.6772
6.20774, 51, -21.0469, -33.9522, 48.3648, -141.516, -70.2866, 60.199
6.21542, 51, -20.8768, -33.9143, 48.3118, -141.595, -70.2395, 60.7274
6.22364, 51, -20.7042, -33.8691, 48.2531, -141.68, -70.1968, 61.261
6.23254, 52, -20.5288, -33.816, 48.1883, -141.772, -70.1591, 61.8013
6.23946, 52, -20.3507, -33.7551, 48.1177, -141.87, -70.1255, 62.3477
6.24795, 52, -20.1698, -33.6862, 48.0411, -141.974, -70.0964, 62.8997
6.25622, 52, -19.9863, -33.6091, 47.9584, -142.084, -70.0725, 63.4568
6.26357, 52, -19.8004, -33.5236, 47.8694, -142.2, -70.0539, 64.0194
6.27577, 53, -19.6124, -33.3792, 47.7246, -142.386, -70.0364, 64.8735
6.27973, 53, -19.4225, -33.3269, 47.6732, -142.451, -70.0333, 65.1607
6.28846, 53, -19.2303, -33.2159, 47.5658, -142.586, -70.0308, 65.7382
6.29552, 53, -19.0363, -33.0964, 47.4523, -142.726, -70.0334, 66.3207
6.30375, 53, -18.8403, -32.968, 47.3324, -142.873, -70.0425, 66.9082
6.31248, 54, -18.6421, -32.8305, 47.2058, -143.024, -70.0584, 67.4994
6.31945, 54, -18.4417, -32.6841, 47.0727, -143.182, -70.0812, 68.0936
6.32775, 54, -18.239, -32.529, 46.9336, -143.344, -70.1117, 68.6918
6.33551, 54, -18.0345, -32.3651, 46.7881, -143.512, -70.1491, 69.2936
6.34355, 54, -17.8286, -32.1922, 46.6363, -143.684, -70.1931, 69.8979
6.35188, 55, -17.6218, -32.0101, 46.4783, -143.862, -70.2458, 70.5051
6.36145, 55, -17.4139, -31.819, 46.3142, -144.044, -70.3059, 71.1155
6.36848, 55, -17.2047, -31.6188, 46.144, -144.23, -70.3735, 71.7286
6.37858, 55, -16.9941, -31.4087, 45.967, -144.421, -70.4497, 72.3427
6.38428, 55, -16.7823, -31.1886, 45.7834, -144.615, -70.5337, 72.9593
6.3934, 56, -16.5694, -30.9595, 45.5941, -144.814, -70.6262, 73.5777
6.40078, 56, -16.3554, -30.721, 45.3987, -145.015, -70.7267, 74.197
6.40835, 56, -16.1411, -30.4725, 45.1963, -145.22, -70.836, 74.8167
6.41674, 56, -16.034, -30.3448, 44.988, -145.428, -70.9539, 75.4379
6.42419, 56, -15.8203, -29.948, 44.7746, -145.638, -71.0802, 76.0593
6.43231, 57, -15.4994, -29.6716, 44.5547, -145.851, -71.2155, 76.6799
6.43941, 57, -15.392, -29.53, 44.4424, -145.958, -71.2863, 76.99
6.44746, 57, -15.1765, -29.2396, 44.214, -146.173, -71.4348, 77.6102
6.45542, 57, -14.9606, -28.9391, 43.9799, -146.39, -71.5922, 78.2302
6.46341, 57, -14.7447, -28.6296, 43.7396, -146.608, -71.7588, 78.8483
6.47169, 58, -14.5291, -28.3107, 43.4948, -146.827, -71.9344, 79.4655
6.4796, 58, -14.314, -27.9832, 43.2445, -147.047, -72.119, 80.0819
6.48738, 58, -14.0997, -27.6465, 42.9889, -147.267, -72.3127, 80.6966
6.4954, 58, -13.8863, -27.3013, 42.7288, -147.487, -72.5155, 81.3081
6.50341, 58, -13.6738, -26.9482, 42.4634, -147.707, -72.7273, 81.9177
6.51141, 58, -13.462, -26.5877, 42.1941, -147.926, -72.9478, 82.5245
6.51946, 59, -13.2512, -26.2192, 41.9199, -148.145, -73.1769, 83.1274
6.5292, 59, -12.9382, -25.6519, 41.5012, -148.469, -73.5361, 84.0239
6.53799, 59, -12.7315, -25.2646, 41.2178, -148.683, -73.7856, 84.6164
6.54339, 59, -12.6286, -25.0686, 41.075, -148.79, -73.9132, 84.9109
6.55219, 59, -12.4236, -24.6707, 40.7873, -149, -74.1747, 85.4955
6.55943, 60, -12.22, -24.266, 40.4957, -149.208, -74.444, 86.075
6.5684, 60, -12.0182, -23.8546, 40.2015, -149.414, -74.721, 86.6498
6.57951, 60, -11.7181, -23.2258, 39.7546, -149.717, -75.1508, 87.502
6.58354, 60, -11.619, -23.0132, 39.6046, -149.816, -75.2979, 87.7829
6.59139, 60, -11.4224, -22.5838, 39.3027, -150.012, -75.5975, 88.3412
6.59947, 61, -11.2281, -22.1499, 38.9987, -150.205, -75.9039, 88.8937
6.60741, 61, -11.036, -21.7115, 38.6929, -150.394, -76.217, 89.4396
6.61547, 61, -10.8458, -21.2691, 38.3854, -150.579, -76.5361, 89.9777
6.62345, 61, -10.658, -20.823, 38.0772, -150.759, -76.8612, 90.5081
6.63163, 61, -10.4725, -20.3738, 37.7683, -150.935, -77.1912, 91.0305
6.64044, 62, -10.2896, -19.9215, 37.4598, -151.105, -77.5257, 91.544
6.6484, 62, -10.1099, -19.4664, 37.1515, -151.271, -77.8637, 92.0477
6.65547, 62, -9.933, -19.0094, 36.8445, -151.43, -78.2048, 92.5412
6.66341, 62, -9.75889, -18.55, 36.538, -151.585, -78.5485, 93.0256
6.6714, 62, -9.58757, -18.0888, 36.2329, -151.734, -78.8952, 93.4999
6.67961, 63, -9.41851, -17.6262, 35.9287, -151.877, -79.245, 93.9651
6.68847, 63, -9.25161, -17.162, 35.6256, -152.016, -79.5984, 94.42
6.6964, 63, -9.08689, -16.6967, 35.3231, -152.149, -79.9557, 94.8659
6.70457, 63, -8.9246, -16.2302, 35.0206, -152.277, -80.3175, 95.3035
6.71496, 63, -8.76467, -15.7622, 34.5674, -152.461, -80.868, 95.9426
6.72062, 64, -8.60718, -15.2928, 34.4168, -152.52, -81.0536, 96.1514
6.72954, 64, -8.4522, -14.8223, 34.1168, -152.633, -81.4278, 96.5612
6.73549, 64, -8.29976, -14.3505, 33.8173, -152.742, -81.8055, 96.9609
6.74348, 64, -8.14976, -13.8783, 33.5194, -152.845, -82.1866, 97.351
6.75143, 64, -8.00232, -13.4062, 33.2229, -152.943, -82.5701, 97.7296
6.75969, 64, -7.85742, -12.9355, 32.9293, -153.036, -82.9553, 98.0961
6.76847, 65, -7.71526, -12.4668, 32.6386, -153.122, -83.3407, 98.45
6.7755, 65, -7.57584, -11.9998, 32.3516, -153.203, -83.7256, 98.7895
6.78411, 65, -7.43948, -11.5352, 32.0692, -153.277, -84.1087, 99.1139
6.79167, 65, -7.30603, -11.0725, 31.7904, -153.346, -84.4902, 99.4239
6.79952, 65, -7.1755, -10.6122, 31.5163, -153.407, -84.8696, 99.7185
6.80819, 66, -7.0475, -10.1555, 31.2459, -153.464, -85.247, 99.9979
6.81541, 66, -6.92189, -9.70257, 30.9795, -153.515, -85.6232, 100.262
6.82343, 66, -6.79858, -9.2544, 30.7175, -153.56, -85.9979, 100.51
6.83218, 66, -6.6776, -8.81198, 30.459, -153.6, -86.3707, 100.743
6.84064, 66, -6.55903, -8.37499, 30.2054, -153.635, -86.7412, 100.96
6.8476, 67, -6.44302, -7.94405, 29.9568, -153.664, -87.1084, 101.16
6.85769, 67, -6.32975, -7.51856, 29.7136, -153.687, -87.4719, 101.342
6.86383, 67, -6.21913, -7.09849, 29.4771, -153.704, -87.8309, 101.508
6.87178, 67, -6.11085, -6.68293, 29.2462, -153.717, -88.1856, 101.657
6.87982, 67, -6.00482, -6.27278, 29.0208, -153.724, -88.5366, 101.788
6.88892, 68, -5.90073, -5.86808, 28.8009, -153.727, -88.885, 101.903
6.89596, 68, -5.79842, -5.4681, 28.5847, -153.726, -89.2321, 102
6.90399, 68, -5.69763, -5.07313, 28.3716, -153.72, -89.5788, 102.08
6.9144, 68, -5.59855, -4.68342, 28.1622, -153.71, -89.9259, 102.142
6.92051, 68, -5.50109, -4.29924, 27.9556, -153.695, -90.2728, 102.185
6.92828, 69, -5.40545, -3.91924, 27.7524, -153.676, -90.6187, 102.21
6.93624, 69, -5.35836, -3.73081, 27.6527, -153.652, -90.9629, 102.218
6.94339, 69, -5.26546, -3.35698, 27.4572, -153.639, -91.134, 102.214
6.95143, 69, -5.17452, -2.98682, 27.2657, -153.608, -91.4737, 102.191
6.95959, 69, -5.08535, -2.6206, 27.0784, -153.573, -91.81, 102.147
6.96753, 70, -4.99783, -2.25739, 26.896, -153.535, -92.1434, 102.081
6.97543, 70, -4.91164, -1.89846, 26.7176, -153.493, -92.4747, 101.994
6.98342, 70, -4.82657, -1.54431, 26.5422, -153.447, -92.8048, 101.884
6.99146, 70, -4.7425, -1.19589, 26.3705, -153.398, -93.1345, 101.751
6.99941, 70, -4.65956, -0.852148, 26.2027, -153.345, -93.4637, 101.595
7.00926, 71, -4.53709, -0.347752, 25.957, -153.261, -93.9557, 101.319
7.01685, 71, -4.49684, -0.182411, 25.8768, -153.201, -94.2819, 101.107
7.02338, 71, -4.41719, 0.143371, 25.7203, -153.17, -94.444, 100.993
7.03372, 71, -4.29928, 0.621507, 25.4954, -153.073, -94.9251, 100.617
7.0394, 71, -4.26041, 0.777883, 25.4229, -153.04, -95.0837, 100.482
7.04896, 72, -4.18336, 1.0854, 25.2814, -152.972, -95.5526, 100.046
7.05773, 72, -4.10681, 1.38631, 25.1445, -152.902, -95.7067, 99.8903
7.06355, 72, -4.03045, 1.67953, 25.0119, -152.831, -96.0114, 99.5646
7.07241, 72, -3.95423, 1.96571, 24.8832, -152.76, -96.3118, 99.2193
7.08283, 72, -3.84004, 2.38172, 24.6969, -152.651, -96.7541, 98.6652
7.08817, 72, -3.80198, 2.51662, 24.6366, -152.614, -96.8995, 98.4706
7.09537, 73, -3.72591, 2.78158, 24.5186, -152.541, -97.1875, 98.0668
7.10342, 73, -3.64966, 3.03955, 24.4042, -152.467, -97.4718, 97.6433
7.11139, 73, -3.5733, 3.29022, 24.2938, -152.394, -97.7527, 97.1998
7.11941, 73, -3.49677, 3.53455, 24.1871, -152.322, -98.0299, 96.7378
7.12744, 73, -3.41993, 3.77198, 24.0843, -152.25, -98.3036, 96.2569
7.13561, 74, -3.3424, 4.00113, 23.9854, -152.179, -98.5733, 95.7576
7.14596, 74, -3.22503, 4.32968, 23.8437, -152.076, -98.9692, 94.9764
7.15239, 74, -3.18553, 4.43493, 23.7983, -152.043, -99.0988, 94.7082
7.15956, 74, -3.10596, 4.63803, 23.7105, -151.977, -99.3537, 94.1614
7.16743, 74, -3.02559, 4.83169, 23.6266, -151.913, -99.6026, 93.6002
7.17538, 75, -2.94432, 5.01649, 23.5468, -151.852, -99.8443, 93.0271
7.18649, 75, -2.82061, 5.27536, 23.4349, -151.766, -100.193, 92.1482
7.1916, 75, -2.77889, 5.35639, 23.3996, -151.739, -100.305, 91.8506
7.20138, 75, -2.69476, 5.51093, 23.3321, -151.687, -100.522, 91.2487
7.20738, 75, -2.60969, 5.65513, 23.2688, -151.638, -100.73, 90.6387
7.21545, 76, -2.5236, 5.78834, 23.2098, -151.592, -100.929, 90.0211
7.22339, 76, -2.43644, 5.91017, 23.1552, -151.551, -101.119, 89.3951
7.2314, 76, -2.34835, 6.02018, 23.1049, -151.514, -101.299, 88.7598
7.23949, 76, -2.25952, 6.11792, 23.0588, -151.48, -101.469, 88.1169
7.24743, 76, -2.16984, 6.20305, 23.0173, -151.449, -101.629, 87.4673
7.25541, 77, -2.07931, 6.27514, 22.9807, -151.424, -101.777, 86.8119
7.2639, 77, -1.98793, 6.33395, 22.9492, -151.402, -101.912, 86.1537
7.27181, 77, -1.89567, 6.37933, 22.9232, -151.385, -102.034, 85.4958
7.2797, 77, -1.80262, 6.41038, 22.903, -151.372, -102.142, 84.8393
7.2878, 77, -1.70887, 6.42709, 22.8888, -151.362, -102.235, 84.1858
7.29644, 78, -1.61434, 6.4293, 22.8806, -151.356, -102.313, 83.5376
7.30394, 78, -1.51909, 6.41638, 22.8779, -151.354, -102.376, 82.8956
7.31341, 78, -1.42327, 6.38822, 22.8811, -151.353, -102.422, 82.2596
7.32038, 78, -1.32693, 6.34418, 22.8905, -151.356, -102.452, 81.631
7.32745, 78, -1.2302, 6.2838, 22.9061, -151.362, -102.466, 81.0106
7.33573, 79, -1.13317, 6.2071, 22.9285, -151.372, -102.465, 80.3972
7.34467, 79, -1.03607, 6.11393, 22.9578, -151.385, -102.445, 79.7905
7.35157, 79, -0.938757, 6.00439, 22.9947, -151.4, -102.407, 79.1909
7.36229, 79, -0.841589, 5.87863, 23.0391, -151.419, -102.352, 78.5988
7.36841, 79, -0.744465, 5.73624, 23.0911, -151.441, -102.278, 78.0135
7.37576, 79, -0.647357, 5.57738, 23.151, -151.466, -102.186, 77.4365
7.38459, 80, -0.550306, 5.40203, 23.2185, -151.493, -102.076, 76.8695
7.3924, 80, -0.453193, 5.21036, 23.2939, -151.521, -101.947, 76.3133
7.40078, 80, -0.356134, 5.0021, 23.3775, -151.551, -101.8, 75.7675
7.40791, 80, -0.259206, 4.77583, 23.4692, -151.582, -101.634, 75.2327
7.41664, 80, -0.162441, 4.53141, 23.5693, -151.615, -101.449, 74.7091
7.42498, 81, -0.0656928, 4.27058, 23.678, -151.649, -101.245, 74.1967
7.43244, 81, 0.0306613, 3.99314, 23.7955, -151.683, -101.022, 73.6936
7.43938, 81, 0.0787478, 3.84822, 23.8577, -151.701, -100.904, 73.446
7.44841, 81, 0.22265, 3.38958, 24.0583, -151.755, -100.521, 72.7178
7.45541, 81, 0.270534, 3.2281, 24.13, -151.774, -100.384, 72.4803
7.46531, 82, 0.413874, 2.71944, 24.3588, -151.829, -99.9451, 71.7826
7.47157, 82, 0.461569, 2.54163, 24.4396, -151.847, -99.7896, 71.555
7.4794, 82, 0.556904, 2.17428, 24.6079, -151.884, -99.4649, 71.1075
7.48996, 82, 0.699689, 1.59208, 24.8781, -151.939, -98.945, 70.4548
7.4956, 82, 0.747178, 1.38967, 24.9727, -151.956, -98.7628, 70.2423
7.50571, 83, 0.889556, 0.758034, 25.271, -152.009, -98.1902, 69.6183
7.51143, 83, 0.936934, 0.539936, 25.3757, -152.027, -97.9907, 69.4145
7.52726, 83, 1.1266, -0.371452, 25.8211, -152.094, -97.1493, 68.62
7.52924, 83, 1.17406, -0.608884, 25.9384, -152.11, -96.9282, 68.4264
7.53537, 83, 1.22157, -0.850036, 26.0585, -152.126, -96.7029, 68.2348
7.54334, 84, 1.31668, -1.3437, 26.307, -152.157, -96.24, 67.8581
7.55297, 84, 1.41205, -1.8519, 26.6992, -152.201, -95.5148, 67.3069
7.56096, 84, 1.50757, -2.37396, 26.8356, -152.215, -95.0116, 66.9492
7.57136, 84, 1.65135, -3.18328, 27.2594, -152.254, -94.4931, 66.5995
7.57722, 84, 1.69946, -3.45969, 27.4059, -152.278, -93.9604, 66.2573
7.58362, 85, 1.79598, -4.02257, 27.7065, -152.289, -93.6887, 66.0893
7.59237, 85, 1.89282, -4.59792, 28.0164, -152.31, -93.1347, 65.7602
7.60041, 85, 1.99002, -5.18372, 28.3359, -152.329, -92.5674, 65.44
7.60739, 85, 2.08763, -5.77899, 28.6637, -152.346, -91.9892, 65.1283
7.61541, 85, 2.18579, -6.38229, 29.0001, -152.36, -91.4015, 64.8259
7.62352, 85, 2.28457, -6.99228, 29.3443, -152.371, -90.8046, 64.5334
7.63236, 86, 2.38404, -7.60846, 29.6959, -152.38, -90.199, 64.2514
7.63939, 86, 2.48451, -8.23011, 30.0542, -152.385, -89.5852, 63.9803
7.65058, 86, 2.63714, -9.17399, 30.602, -152.388, -88.6532, 63.5949
7.65917, 86, 2.68845, -9.49137, 30.7873, -152.388, -88.0269, 63.3525
7.66332, 86, 2.79221, -10.1301, 31.1621, -152.385, -87.7115, 63.2355
7.67139, 87, 2.897, -10.7732, 31.5431, -152.378, -87.0753, 63.0098
7.67937, 87, 3.00227, -11.4199, 31.9299, -152.367, -86.4314, 62.7952
7.68744, 87, 3.10844, -12.0698, 32.323, -152.353, -85.7792, 62.5915
7.69537, 87, 3.21509, -12.7218, 32.7224, -152.335, -85.1205, 62.3998
7.70337, 87, 3.32216, -13.3767, 33.128, -152.313, -84.4563, 62.22
7.71145, 88, 3.42995, -14.0338, 33.539, -152.287, -83.7865, 62.0533
7.71937, 88, 3.53846, -14.6933, 33.9537, -152.257, -83.1131, 61.9008
7.72916, 88, 3.6477, -15.3541, 34.3716, -152.223, -82.4376, 61.7631
7.7355, 88, 3.75773, -16.0153, 34.7924, -152.184, -81.761, 61.6414
7.7455, 88, 3.86824, -16.6758, 35.2153, -152.141, -81.0856, 61.5355
7.75143, 89, 3.97907, -17.3335, 35.6401, -152.093, -80.411, 61.4475
7.75941, 89, 4.09001, -17.988, 36.0662, -152.04, -79.7359, 61.3773
7.76752, 89, 4.20096, -18.6383, 36.4931, -151.982, -79.0597, 61.3253
7.77547, 89, 4.31219, -19.2847, 36.9212, -151.919, -78.3832, 61.2923
7.78402, 89, 4.42347, -19.9264, 37.3492, -151.849, -77.7096, 61.2781
7.79171, 90, 4.53496, -20.563, 37.7767, -151.776, -77.0385, 61.2843
7.80038, 90, 4.64698, -21.1951, 38.2041, -151.696, -76.3684, 61.3141
7.80749, 90, 4.759, -21.8219, 38.6304, -151.611, -75.7005, 61.3673
7.81549, 90, 4.87095, -22.4438, 39.0555, -151.521, -75.0357, 61.444
7.82345, 90, 4.98271, -23.0606, 39.4798, -151.424, -74.3751, 61.5468
7.83323, 91, 5.09444, -23.6728, 39.903, -151.321, -73.7162, 61.6752
7.84228, 91, 5.20605, -24.2796, 40.3252, -151.212, -73.0577, 61.8311
7.8476, 91, 5.31734, -24.8809, 40.7471, -151.096, -72.3996, 62.0149
7.85556, 91, 5.42818, -25.4769, 41.1678, -150.974, -71.7407, 62.2273
7.86436, 91, 5.53852, -26.0662, 41.5874, -150.845, -71.0822, 62.469
7.8722, 92, 5.64855, -26.6492, 42.0058, -150.71, -70.4243, 62.742
7.87979, 92, 5.75882, -27.2255, 42.4227, -150.568, -69.7669, 63.0467
7.88788, 92, 5.86966, -27.7946, 42.837, -150.421, -69.1103, 63.3832
7.8965, 92, 5.98086, -28.3564, 43.2478, -150.268, -68.4545, 63.7529
7.90467, 92, 6.09269, -28.9099, 43.6552, -150.11, -67.8006, 64.1566
7.91511, 93, 6.20556, -29.4548, 44.0578, -149.948, -67.1515, 64.5941
7.91997, 93, 6.26247, -29.9918, 44.455, -149.783, -66.5057, 65.0674
7.92803, 93, 6.43573, -30.5207, 44.8476, -149.616, -65.8623, 65.5752
7.93592, 93, 6.49443, -30.7822, 45.0418, -149.532, -65.5416, 66.1195
7.94336, 93, 6.61327, -31.2999, 45.4268, -149.362, -64.9013, 66.4062
7.95141, 93, 6.73413, -31.8111, 45.8069, -149.192, -64.2625, 67.0091
7.95936, 94, 6.85744, -32.3162, 46.1831, -149.022, -63.6242, 67.6546
7.96742, 94, 6.98365, -32.8155, 46.5551, -148.852, -62.9831, 68.3455
7.97543, 94, 7.11266, -33.3073, 46.9238, -148.683, -62.3386, 69.0864
7.98466, 94, 7.31157, -34.0267, 47.4687, -148.435, -61.3648, 70.289
7.99135, 94, 7.37983, -34.2616, 47.6473, -148.355, -61.0388, 70.7146
7.99941, 95, 7.52009, -34.7236, 47.9983, -148.2, -60.3885, 71.6035
8.00737, 95, 7.66591, -35.1736, 48.34, -148.055, -59.742, 72.5347
8.01536, 95, 7.81772, -35.6106, 48.67, -147.923, -59.1013, 73.5056
8.02497, 95, 8.05752, -36.2364, 49.1398, -147.753, -58.1537, 75.0321
8.03136, 95, 8.14082, -36.4355, 49.2887, -147.705, -57.8419, 75.5584
8.04096, 96, 8.40077, -37.0039, 49.7119, -147.589, -56.9252, 77.1863
8.04898, 96, 8.58149, -37.3557, 49.9729, -147.536, -56.3312, 78.3117
8.05768, 96, 8.67362, -37.5228, 50.0974, -147.517, -55.7514, 79.4621
8.06342, 96, 8.86125, -37.8381, 50.3328, -147.495, -55.4676, 80.0453
8.07392, 96, 9.05299, -38.1281, 50.6498, -147.5, -54.6462, 81.8132
8.07937, 96, 9.24739, -38.3941, 50.7459, -147.512, -54.3833, 82.4078
8.0874, 97, 9.44296, -38.6352, 50.9234, -147.552, -53.8753, 83.6013
8.09536, 97, 9.63855, -38.8516, 51.0804, -147.614, -53.3932, 84.7967
8.10338, 97, 9.83336, -39.0441, 51.2177, -147.695, -52.9375, 85.9842
8.11136, 97, 10.0265, -39.2115, 51.336, -147.793, -52.5101, 87.1589
8.11936, 97, 10.2169, -39.3528, 51.4352, -147.905, -52.1115, 88.3136
8.12743, 97, 10.4038, -39.4687, 51.5159, -148.03, -51.7425, 89.4447
8.13537, 98, 10.5875, -39.5594, 51.5783, -148.166, -51.4033, 90.5436
8.14337, 98, 10.769, -39.6262, 51.623, -148.312, -51.0934, 91.6141
8.15146, 98, 10.9489, -39.6701, 51.6497, -148.468, -50.8108, 92.6633
8.15936, 98, 11.1273, -39.691, 51.6591, -148.636, -50.5527, 93.706
8.16742, 98, 11.3033, -39.6885, 51.6513, -148.817, -50.3158, 94.7521
8.17535, 98, 11.4784, -39.6621, 51.6259, -149.011, -50.0988, 95.8135
8.18413, 98, 11.6534, -39.6122, 51.5825, -149.218, -49.9022, 96.8926
8.19246, 99, 11.8276, -39.5393, 51.5209, -149.437, -49.7277, 97.9897
8.20035, 99, 11.9997, -39.4439, 51.4408, -149.667, -49.5775, 99.0976
8.20858, 99, 12.1687, -39.3263, 51.3423, -149.905, -49.4552, 100.205
8.21636, 99, 12.3338, -39.1866, 51.2259, -150.147, -49.3629, 101.303
8.22343, 99, 12.4931, -39.0252, 51.0927, -150.39, -49.3008, 102.382
8.23136, 99, 12.6451, -38.8421, 50.9442, -150.631, -49.2694, 103.431
8.23942, 100, 12.7885, -38.6349, 50.7806, -150.869, -49.2679, 104.449
8.24737, 100, 12.9234, -38.4034, 50.6009, -151.101, -49.2975, 105.439
8.25536, 100, 13.0493, -38.1484, 50.4044, -151.327, -49.3572, 106.4
8.26346, 100, 13.1672, -37.8703, 50.1915, -151.547, -49.4473, 107.34
8.27172, 100, 13.2772, -37.5703, 49.9602, -151.762, -49.5684, 108.258
8.27962, 100, 13.3794, -37.2459, 49.7095, -151.971, -49.7208, 109.16
8.28747, 101, 13.474, -36.8967, 49.4404, -152.174, -49.9047, 110.045
8.29546, 101, 13.5612, -36.5213, 49.1522, -152.369, -50.1203, 110.912
8.30357, 101, 13.6408, -36.1199, 48.8456, -152.556, -50.3677, 111.763
8.31238, 101, 13.7123, -35.6928, 48.5195, -152.733, -50.6474, 112.591
8.31939, 101, 13.7753, -35.2416, 48.1754, -152.901, -50.9597, 113.398
8.32745, 101, 13.8291, -34.767, 47.8138, -153.056, -51.3046, 114.182
8.34033, 102, 13.8914, -34.0108, 47.2409, -153.266, -51.883, 115.305
8.34346, 102, 13.9071, -33.7463, 47.0419, -153.329, -52.0915, 115.667
8.35155, 102, 13.9309, -33.1993, 46.6326, -153.445, -52.5323, 116.368
8.3597, 102, 13.9455, -32.63, 46.2096, -153.546, -53.0044, 117.041
8.36759, 102, 13.9515, -32.0391, 45.7727, -153.634, -53.5057, 117.688
8.37578, 103, 13.9502, -31.427, 45.3213, -153.707, -54.0347, 118.308
8.38379, 103, 13.9419, -30.796, 44.8565, -153.768, -54.5901, 118.903
8.39243, 103, 13.9276, -30.1473, 44.3793, -153.814, -55.1698, 119.473
8.39991, 103, 13.9078, -29.4833, 43.8911, -153.848, -55.7708, 120.02
8.40856, 103, 13.8827, -28.8044, 43.3941, -153.87, -56.3917, 120.541
8.41591, 103, 13.853, -28.1133, 42.8903, -153.881, -57.028, 121.036
8.4245, 104, 13.8191, -27.4126, 42.3821, -153.882, -57.6764, 121.504
8.43196, 104, 13.8006, -27.0593, 42.1269, -153.871, -58.3374, 121.95
8.44007, 104, 13.7605, -25.9902, 41.3584, -153.852, -59.0098, 122.372
8.4474, 104, 13.7171, -25.6314, 41.102, -153.839, -59.3495, 122.576
8.45666, 104, 13.6482, -24.5518, 40.3337, -153.788, -60.3791, 123.161
8.46334, 104, 13.6243, -24.1911, 40.0778, -153.767, -60.7247, 123.348
8.47326, 104, 13.5503, -23.1075, 39.3125, -153.696, -61.7683, 123.895
8.47937, 104, 13.5251, -22.7459, 39.0581, -153.67, -62.1183, 124.074
8.48738, 104, 13.4743, -22.0227, 38.5505, -153.612, -62.8196, 124.428
8.49739, 104, 13.397, -20.9372, 37.792, -153.52, -63.8743, 124.954
8.50334, 104, 13.371, -20.5757, 37.5398, -153.486, -64.2259, 125.129
8.51134, 104, 13.3189, -19.8526, 37.0369, -153.416, -64.9297, 125.476
8.52163, 104, 13.2405, -18.7671, 36.2861, -153.304, -65.9889, 125.995
8.52734, 104, 13.2144, -18.4052, 36.0368, -153.265, -66.3422, 126.168
8.53689, 104, 13.1364, -17.3192, 35.2928, -153.141, -67.4038, 126.685
8.5457, 104, 13.0846, -16.5949, 34.7994, -153.054, -68.1106, 127.029
8.55135, 104, 13.0588, -16.2328, 34.5534, -153.009, -68.4641, 127.201
8.55935, 104, 13.0078, -15.5085, 34.063, -152.915, -69.1735, 127.544
8.56741, 104, 12.957, -14.7836, 33.5748, -152.818, -69.8841, 127.887
8.57697, 104, 12.9065, -14.0579, 33.0891, -152.717, -70.5946, 128.23
8.58334, 104, 12.8566, -13.3323, 32.606, -152.612, -71.304, 128.574
8.5914, 104, 12.8069, -12.6065, 32.1256, -152.503, -72.0145, 128.918
8.60035, 104, 12.7573, -11.881, 31.6481, -152.391, -72.7265, 129.262
8.6074, 104, 12.7081, -11.1558, 31.1727, -152.275, -73.439, 129.607
8.61535, 104, 12.6593, -10.4302, 30.6998, -152.154, -74.1516, 129.953
8.62334, 104, 12.6107, -9.70461, 30.2304, -152.03, -74.8639, 130.298
8.6314, 104, 12.5624, -8.97906, 29.7637, -151.901, -75.5768, 130.646
8.63941, 104, 12.5148, -8.25274, 29.2999, -151.769, -76.2909, 130.994
8.64736, 104, 12.4677, -7.52668, 28.8397, -151.633, -77.0054, 131.343
8.65539, 104, 12.4213, -6.80153, 28.3827, -151.492, -77.7206, 131.693
8.66334, 104, 12.3755, -6.07691, 27.9288, -151.347, -78.4347, 132.044
8.67141, 104, 12.3302, -5.353, 27.479, -151.198, -79.1478, 132.397
8.67934, 104, 12.2855, -4.6301, 27.033, -151.045, -79.8623, 132.75
8.68735, 104, 12.2419, -3.90886, 26.5915, -150.888, -80.5768, 133.105
8.69543, 104, 12.1993, -3.19114, 26.1556, -150.727, -81.2888, 133.461
8.70334, 104, 12.1577, -2.47902, 25.7247, -150.562, -81.9963, 133.816
8.71135, 104, 12.1176, -1.77337, 25.3003, -150.394, -82.7005, 134.172
8.71939, 104, 12.0784, -1.07551, 24.8841, -150.223, -83.3997, 134.526
8.72735, 104, 12.0402, -0.386901, 24.4765, -150.05, -84.0903, 134.878
8.73536, 104, 12.003, 0.291502, 24.079, -149.875, -84.7702, 135.226
8.74343, 104, 11.9668, 0.958569, 23.693, -149.7, -85.4366, 135.571
8.75138, 104, 11.9316, 1.61276, 23.3191, -149.524, -86.0888, 135.909
8.75936, 104, 11.8978, 2.25343, 22.9578, -149.348, -86.7269, 136.243
8.76747, 104, 11.8649, 2.87817, 22.6085, -149.173, -87.349, 136.569
8.77544, 104, 11.8332, 3.4871, 22.2723, -148.998, -87.9554, 136.889
8.78343, 104, 11.803, 4.07946, 21.949, -148.825, -88.5448, 137.202
8.79167, 104, 11.7738, 4.65494, 21.6383, -148.653, -89.1165, 137.509
8.79945, 104, 11.7461, 5.21403, 21.3395, -148.483, -89.6717, 137.808
8.80783, 104, 11.7195, 5.75605, 21.0521, -148.314, -90.2117, 138.101
8.81555, 104, 11.694, 6.28087, 20.7771, -148.147, -90.7351, 138.386
8.8239, 104, 11.6697, 6.78884, 20.5134, -147.983, -91.2423, 138.664
8.8324, 104, 11.6466, 7.28013, 20.2615, -147.822, -91.7325, 138.935
8.83943, 104, 11.6247, 7.75429, 20.021, -147.663, -92.2052, 139.197
8.84747, 104, 11.604, 8.21221, 19.7908, -147.507, -92.6616, 139.453
8.85549, 104, 11.5843, 8.65343, 19.5719, -147.354, -93.1014, 139.701
8.86364, 104, 11.5658, 9.07699, 19.3638, -147.206, -93.5246, 139.941
8.87163, 104, 11.5484, 9.48355, 19.1656, -147.06, -93.9308, 140.172
8.88031, 104, 11.5321, 9.8721, 18.9781, -146.92, -94.32, 140.394
8.88788, 104, 11.5168, 10.2425, 18.8015, -146.783, -94.6913, 140.608
8.89688, 104, 11.5025, 10.5937, 18.635, -146.652, -95.0442, 140.812
8.90385, 104, 11.4893, 10.9259, 18.4789, -146.527, -95.378, 141.006
8.91258, 104, 11.4771, 11.2382, 18.3339, -146.407, -95.6918, 141.189
8.91989, 104, 11.4659, 11.5298, 18.1996, -146.294, -95.9852, 141.361
8.92847, 104, 11.4557, 11.8008, 18.0757, -146.189, -96.2575, 141.521
8.93606, 104, 11.4465, 12.0502, 17.9625, -146.091, -96.5083, 141.669
8.94392, 104, 11.4422, 12.167, 17.9099, -146.045, -96.6255, 141.805
8.95233, 104, 11.4302, 12.4862, 17.7677, -145.918, -96.9442, 141.928
8.95941, 104, 11.4266, 12.5821, 17.7255, -145.88, -97.0394, 141.985
8.96736, 104, 11.4201, 12.7576, 17.6488, -145.81, -97.2132, 142.089
8.97628, 104, 11.4143, 12.9125, 17.5821, -145.749, -97.3653, 142.22
8.9834, 104, 11.409, 13.0476, 17.5251, -145.696, -97.4953, 142.258
8.99137, 104, 11.4041, 13.1638, 17.4775, -145.652, -97.6046, 142.323
8.99934, 104, 11.3996, 13.2615, 17.4386, -145.616, -97.6934, 142.376
9.00739, 104, 11.3956, 13.3424, 17.4075, -145.587, -97.7643, 142.419
9.01533, 104, 11.3919, 13.4085, 17.3838, -145.565, -97.8179, 142.452
9.02489, 104, 11.3871, 13.4835, 17.3596, -145.541, -97.8724, 142.484
9.03293, 104, 11.3846, 13.5194, 17.3495, -145.532, -97.8954, 142.498
9.04095, 104, 11.3825, 13.5461, 17.3431, -145.526, -97.9106, 142.506
9.04936, 104, 11.3809, 13.5659, 17.3391, -145.522, -97.9195, 142.511
9.05539, 104, 11.3802, 13.5734, 17.3378, -145.521, -97.9224, 142.512
9.06507, 104, 11.3791, 13.5847, 17.3357, -145.519, -97.9268, 142.515
9.07135, 104, 11.3783, 13.5923, 17.3353, -145.519, -97.9275, 142.515
9.07939, 105, 11.3777, 13.5973, 17.335, -145.519, -97.9283, 142.515
9.0884, 105, 11.3772, 13.6006, 17.3348, -145.518, -97.9286, 142.516
9.09533, 105, 11.3769, 13.603, 17.3347, -145.518, -97.9288, 142.516
9.10339, 105, 11.3766, 13.605, 17.3347, -145.518, -97.9288, 142.516
9.11134, 105, 11.3764, 13.6067, 17.3346, -145.518, -97.9288, 142.516
9.11932, 105, 11.3763, 13.6081, 17.3347, -145.518, -97.9288, 142.516
9.12739, 105, 11.3762, 13.6094, 17.3347, -145.518, -97.9288, 142.516
9.13532, 105, 11.3761, 13.6105, 17.3347, -145.518, -97.9286, 142.516
9.14337, 105, 11.376, 13.6114, 17.3347, -145.518, -97.9285, 142.516
9.15143, 105, 11.376, 13.6122, 17.3347, -145.518, -97.9283, 142.516
9.15936, 105, 11.376, 13.6127, 17.3348, -145.518, -97.9282, 142.516
9.16733, 105, 11.376, 13.6131, 17.3348, -145.519, -97.928, 142.516
9.17536, 105, 11.376, 13.6133, 17.3349, -145.519, -97.9279, 142.516
9.18332, 105, 11.376, 13.6134, 17.3349, -145.519, -97.9278, 142.516
9.19143, 105, 11.376, 13.6134, 17.335, -145.519, -97.9277, 142.516
