hehonglu123/Motion-Primitive-Planning/ILC/recorded_data/realrobot/wood/iteration_4/run_3.csv
timestamp, cmd_num, J1, J2, J3, J4, J5, J6
0.000404, -1, 11.3758, 13.614, 17.3368, -145.52, -97.9255, 142.515
0.005381, -1, 11.3758, 13.614, 17.3368, -145.52, -97.9256, 142.515
0.008161, -1, 11.3757, 13.614, 17.3368, -145.52, -97.9255, 142.516
0.029478, -1, 11.3757, 13.614, 17.3368, -145.521, -97.9255, 142.516
0.032121, -1, 11.3757, 13.614, 17.3368, -145.521, -97.9255, 142.516
0.035622, -1, 11.3757, 13.614, 17.3368, -145.52, -97.9255, 142.516
0.039608, -1, 11.3757, 13.614, 17.3368, -145.521, -97.9255, 142.515
0.048171, -1, 11.3757, 13.614, 17.3368, -145.521, -97.9256, 142.516
0.055598, -1, 11.3751, 13.614, 17.3367, -145.521, -97.9256, 142.516
0.06354, -1, 11.3724, 13.6138, 17.3367, -145.521, -97.9256, 142.516
0.071638, -1, 11.3659, 13.6131, 17.3365, -145.521, -97.9256, 142.515
0.079601, -1, 11.3546, 13.6114, 17.336, -145.521, -97.9255, 142.514
0.087851, -1, 11.337, 13.608, 17.3353, -145.523, -97.9253, 142.506
0.096011, -1, 11.3101, 13.602, 17.3345, -145.526, -97.9245, 142.486
0.104668, -1, 11.2717, 13.5929, 17.3339, -145.533, -97.9227, 142.446
0.111876, -1, 11.2214, 13.5805, 17.3341, -145.545, -97.9192, 142.381
0.120019, -1, 11.1596, 13.5651, 17.3358, -145.562, -97.9138, 142.285
0.128805, -1, 11.0863, 13.5461, 17.3398, -145.585, -97.9059, 142.154
0.136408, -1, 11.0009, 13.5231, 17.3462, -145.614, -97.8958, 141.989
0.144033, -1, 10.904, 13.4968, 17.3547, -145.648, -97.8836, 141.791
0.152848, -1, 10.7964, 13.4672, 17.3652, -145.687, -97.8699, 141.565
0.160119, -1, 10.6779, 13.4344, 17.3765, -145.729, -97.8551, 141.319
0.168117, -1, 10.6146, 13.4168, 17.3821, -145.751, -97.8396, 141.058
0.17695, -1, 10.4807, 13.38, 17.3931, -145.796, -97.8237, 140.789
0.183571, -1, 10.3389, 13.3411, 17.4035, -145.843, -97.8157, 140.652
0.191516, -1, 10.1915, 13.3011, 17.4136, -145.89, -97.7993, 140.376
0.199555, -1, 10.0404, 13.2603, 17.4237, -145.938, -97.7825, 140.098
0.20754, -1, 9.88666, 13.219, 17.4337, -145.986, -97.7653, 139.819
0.215641, -1, 9.73133, 13.1776, 17.4438, -146.034, -97.7481, 139.54
0.223507, -1, 9.57584, 13.1362, 17.4539, -146.081, -97.731, 139.26
0.231549, -1, 9.42084, 13.095, 17.4637, -146.13, -97.7141, 138.981
0.239506, -1, 9.26623, 13.0538, 17.4736, -146.178, -97.6973, 138.701
0.247516, -1, 9.11204, 13.0128, 17.4836, -146.225, -97.6805, 138.421
0.255619, -1, 8.95829, 12.9717, 17.4937, -146.274, -97.6637, 138.141
0.263521, -1, 8.80456, 12.9307, 17.5039, -146.322, -97.6468, 137.862
0.271729, -1, 8.65125, 12.8897, 17.514, -146.369, -97.6295, 137.582
0.279511, -1, 8.49844, 12.8485, 17.5241, -146.417, -97.6119, 137.301
0.287494, -1, 8.34564, 12.8073, 17.5342, -146.465, -97.5945, 137.021
0.297656, -1, 8.19244, 12.7658, 17.5443, -146.513, -97.5773, 136.741
0.303581, -1, 8.03879, 12.7242, 17.5546, -146.561, -97.5604, 136.461
0.312491, -1, 7.88461, 12.6825, 17.5648, -146.609, -97.5437, 136.181
0.319575, -1, 7.72984, 12.6408, 17.5748, -146.657, -97.5272, 135.9
0.327505, -1, 7.57495, 12.5991, 17.5849, -146.705, -97.5104, 135.62
0.33559, -1, 7.41997, 12.5575, 17.5951, -146.753, -97.4935, 135.34
0.345579, -1, 7.26494, 12.516, 17.6052, -146.801, -97.4675, 134.919
0.35149, -1, 7.10997, 12.4745, 17.6155, -146.849, -97.4588, 134.779
0.488108, -1, 4.47432, 11.769, 17.7913, -147.667, -97.1684, 130.006
0.489467, -1, 4.47432, 11.769, 17.7913, -147.667, -97.1684, 130.006
0.492462, -1, 4.39652, 11.7482, 17.7965, -147.691, -97.1597, 129.866
0.493683, -1, 4.39652, 11.7482, 17.7965, -147.691, -97.1597, 129.866
0.495869, -1, 4.31877, 11.7275, 17.8017, -147.716, -97.1511, 129.725
0.497067, -1, 4.31877, 11.7275, 17.8017, -147.716, -97.1511, 129.725
0.498937, -1, 4.24107, 11.7067, 17.8069, -147.74, -97.1425, 129.585
0.503925, -1, 4.16346, 11.686, 17.8122, -147.764, -97.134, 129.444
0.505221, -1, 4.16346, 11.686, 17.8122, -147.764, -97.134, 129.444
0.507096, -1, 4.08597, 11.6653, 17.8174, -147.788, -97.1255, 129.304
0.508449, -1, 4.08597, 11.6653, 17.8174, -147.788, -97.1255, 129.304
0.509754, -1, 4.08597, 11.6653, 17.8174, -147.788, -97.1255, 129.304
0.511785, -1, 4.00859, 11.6446, 17.8225, -147.812, -97.1171, 129.163
0.513084, -1, 4.00859, 11.6446, 17.8225, -147.812, -97.1171, 129.163
0.514925, -1, 4.00859, 11.6238, 17.8277, -147.836, -97.1086, 129.023
0.5203, -1, 3.85406, 11.6031, 17.8328, -147.86, -97.1001, 128.882
0.52157, -1, 3.85406, 11.6031, 17.8328, -147.86, -97.1001, 128.882
0.523679, -1, 3.7769, 11.5824, 17.838, -147.885, -97.0918, 128.741
0.525006, -1, 3.7769, 11.5824, 17.838, -147.885, -97.0918, 128.741
0.526225, -1, 3.7769, 11.5824, 17.838, -147.885, -97.0918, 128.741
0.528908, -1, 3.69971, 11.5616, 17.8432, -147.909, -97.0834, 128.601
0.530113, -1, 3.69971, 11.5616, 17.8432, -147.909, -97.0834, 128.601
0.539078, -1, 3.5452, 11.5199, 17.8535, -147.981, -97.0577, 128.178
0.543551, -1, 3.39051, 11.4782, 17.8639, -148.006, -97.049, 128.037
0.552249, -1, 3.23556, 11.4365, 17.8744, -148.054, -97.0314, 127.756
0.559563, -1, 3.08047, 11.3947, 17.8847, -148.102, -97.0138, 127.475
0.567563, -1, 2.9251, 11.3529, 17.8951, -148.15, -96.9966, 127.193
0.576487, -1, 2.76958, 11.3111, 17.9055, -148.199, -96.9796, 126.911
0.583622, -1, 2.61383, 11.2693, 17.9158, -148.246, -96.9628, 126.63
0.591821, -1, 2.45771, 11.2276, 17.9263, -148.295, -96.9461, 126.348
0.600451, -1, 2.30134, 11.1858, 17.9367, -148.343, -96.9292, 126.066
0.607792, -1, 2.1447, 11.1441, 17.9471, -148.391, -96.9121, 125.784
0.61604, -1, 1.98794, 11.1024, 17.9575, -148.44, -96.8947, 125.502
0.624794, -1, 1.83138, 11.0607, 17.9679, -148.488, -96.8772, 125.22
0.632016, -1, 1.67499, 11.019, 17.9783, -148.537, -96.8598, 124.938
0.640134, -1, 1.51875, 10.9773, 17.9888, -148.585, -96.8427, 124.656
0.648089, -1, 1.3628, 10.9356, 17.9993, -148.634, -96.8258, 124.374
0.785218, -1, -1.29043, 10.2245, 18.1763, -149.458, -96.5347, 119.569
0.786659, -1, -1.29043, 10.2245, 18.1763, -149.458, -96.5347, 119.569
0.787872, -1, -1.29043, 10.2245, 18.1763, -149.458, -96.5347, 119.569
0.789943, -1, -1.3689, 10.2035, 18.1815, -149.482, -96.5263, 119.427
0.791165, -1, -1.3689, 10.2035, 18.1815, -149.482, -96.5263, 119.427
0.792952, -1, -1.3689, 10.2035, 18.1815, -149.482, -96.5263, 119.427
0.794385, -1, -1.44734, 10.1826, 18.1867, -149.507, -96.5179, 119.286
0.797756, -1, -1.52571, 10.1617, 18.1919, -149.531, -96.5095, 119.144
0.79927, -1, -1.52571, 10.1617, 18.1919, -149.531, -96.5095, 119.144
0.800458, -1, -1.52571, 10.1617, 18.1919, -149.531, -96.5095, 119.144
0.802525, -1, -1.60396, 10.1408, 18.1972, -149.555, -96.5011, 119.002
0.803753, -1, -1.60396, 10.1408, 18.1972, -149.555, -96.5011, 119.002
0.806482, -1, -1.68207, 10.1199, 18.2025, -149.58, -96.4926, 118.861
0.809304, -1, -1.68207, 10.1199, 18.2025, -149.58, -96.484, 118.719
0.810733, -1, -1.76007, 10.099, 18.2077, -149.604, -96.484, 118.719
0.814588, -1, -1.83796, 10.078, 18.2129, -149.628, -96.4754, 118.577
0.815782, -1, -1.83796, 10.078, 18.2129, -149.628, -96.4754, 118.577
0.817963, -1, -1.91579, 10.057, 18.2181, -149.653, -96.4667, 118.436
0.81933, -1, -1.91579, 10.057, 18.2181, -149.653, -96.4667, 118.436
0.820528, -1, -1.91579, 10.057, 18.2181, -149.653, -96.4667, 118.436
0.822608, -1, -1.99353, 10.0361, 18.2234, -149.677, -96.4578, 118.294
0.823895, -1, -1.99353, 10.0361, 18.2234, -149.677, -96.4578, 118.294
0.834557, -1, -2.22632, 9.97323, 18.2389, -149.75, -96.4314, 117.869
0.839504, -1, -2.3039, 9.95231, 18.2441, -149.774, -96.4228, 117.727
0.847487, -1, -2.45926, 9.91035, 18.2546, -149.823, -96.4056, 117.443
0.85626, -1, -2.61493, 9.86832, 18.265, -149.871, -96.3886, 117.159
0.864527, -1, -2.77095, 9.82639, 18.2754, -149.92, -96.3718, 116.876
0.871494, -1, -2.92734, 9.7844, 18.2858, -149.968, -96.355, 116.592
0.880258, -1, -3.0841, 9.74244, 18.2962, -150.017, -96.338, 116.308
0.887501, -1, -3.24129, 9.70048, 18.3066, -150.066, -96.3206, 116.024
0.895475, -1, -3.39892, 9.65846, 18.3171, -150.114, -96.303, 115.74
0.904267, -1, -3.55672, 9.6165, 18.3276, -150.163, -96.2855, 115.457
0.911474, -1, -3.7145, 9.57464, 18.338, -150.212, -96.2682, 115.172
0.91948, -1, -3.87253, 9.5327, 18.3483, -150.26, -96.2511, 114.888
0.92828, -1, -4.03049, 9.49072, 18.3587, -150.309, -96.2341, 114.604
0.935501, -1, -4.18828, 9.44884, 18.3691, -150.358, -96.2171, 114.32
0.943484, -1, -4.34604, 9.40689, 18.3794, -150.407, -96.2, 114.035
0.95225, -1, -4.50354, 9.3649, 18.3898, -150.456, -96.1827, 113.75
0.95949, -1, -4.66053, 9.3229, 18.4002, -150.505, -96.1649, 113.466
0.96749, -1, -4.8171, 9.28085, 18.4106, -150.553, -96.1472, 113.181
0.975579, -1, -4.97342, 9.23876, 18.4212, -150.602, -96.1298, 112.896
0.98349, -1, -5.12937, 9.19672, 18.4317, -150.651, -96.1125, 112.611
0.991476, -1, -5.28524, 9.15463, 18.4422, -150.699, -96.0955, 112.327
0.999885, -1, -5.44124, 9.11245, 18.4527, -150.749, -96.0786, 112.042
1.00757, -1, -5.59739, 9.07037, 18.4631, -150.797, -96.0617, 111.757
1.01586, -1, -5.7539, 9.02829, 18.4736, -150.846, -96.0445, 111.472
1.02491, -1, -5.91084, 8.98611, 18.484, -150.895, -96.027, 111.188
1.03158, -1, -6.06823, 8.94398, 18.4943, -150.944, -96.0094, 110.903
1.04011, -1, -6.22623, 8.90187, 18.5047, -150.992, -95.9919, 110.617
1.04754, -1, -6.38448, 8.85975, 18.5151, -151.042, -95.9746, 110.332
1.05553, -1, -6.54286, 8.81766, 18.5254, -151.091, -95.9576, 110.047
1.06426, -1, -6.70135, 8.77553, 18.536, -151.14, -95.9405, 109.762
1.07151, -1, -6.86007, 8.73339, 18.5465, -151.189, -95.9236, 109.476
1.07959, -1, -7.01867, 8.69133, 18.5571, -151.238, -95.9064, 109.19
1.08847, -1, -7.1772, 8.64917, 18.5675, -151.287, -95.889, 108.905
1.09569, -1, -7.33558, 8.60697, 18.5778, -151.336, -95.8712, 108.619
1.1039, -1, -7.4936, 8.5647, 18.5883, -151.385, -95.8535, 108.333
1.11262, -1, -7.65119, 8.52239, 18.5988, -151.434, -95.836, 108.048
1.11994, -1, -7.80852, 8.48011, 18.6092, -151.483, -95.8188, 107.762
1.12799, -1, -7.96546, 8.43787, 18.6196, -151.532, -95.8017, 107.476
1.13679, -1, -8.12217, 8.39553, 18.63, -151.581, -95.7848, 107.19
1.144, -1, -8.27876, 8.35321, 18.6405, -151.63, -95.7678, 106.905
1.15225, -1, -8.43542, 8.31086, 18.651, -151.679, -95.7505, 106.619
1.16094, -1, -8.5924, 8.26851, 18.6616, -151.728, -95.733, 106.333
1.16804, -1, -8.67099, 8.24737, 18.6669, -151.777, -95.7154, 106.046
1.17613, -1, -8.8285, 8.20509, 18.6772, -151.826, -95.6978, 105.76
1.18346, -1, -8.98635, 8.16274, 18.6876, -151.85, -95.6891, 105.617
1.19147, -1, -9.14472, 8.1205, 18.6981, -151.9, -95.6718, 105.33
1.19958, -1, -9.30341, 8.07823, 18.7085, -151.949, -95.6547, 105.043
1.20747, -1, -9.4624, 8.03585, 18.719, -151.998, -95.6377, 104.757
1.21547, -1, -9.62152, 7.99358, 18.7295, -152.048, -95.6205, 104.47
1.22353, -1, -9.78069, 7.95136, 18.7399, -152.097, -95.6031, 104.183
1.23146, -1, -9.94009, 7.90902, 18.7505, -152.146, -95.5854, 103.896
1.2396, -1, -10.0994, 7.86662, 18.7612, -152.196, -95.5674, 103.609
1.24747, -1, -10.2586, 7.82412, 18.7718, -152.245, -95.5497, 103.322
1.25546, -1, -10.4176, 7.78161, 18.7823, -152.294, -95.5323, 103.035
1.26351, -1, -10.5764, 7.73909, 18.7928, -152.343, -95.5152, 102.748
1.27148, -1, -10.7347, 7.69659, 18.8032, -152.392, -95.4982, 102.461
1.27954, -1, -10.8926, 7.65401, 18.8138, -152.441, -95.4812, 102.174
1.28755, -1, -11.0504, 7.61143, 18.8242, -152.491, -95.4639, 101.887
1.29546, -1, -11.2079, 7.56896, 18.8346, -152.54, -95.4464, 101.599
1.30448, -1, -11.3653, 7.52647, 18.8451, -152.59, -95.4285, 101.312
1.31155, -1, -11.5228, 7.48395, 18.8556, -152.639, -95.4108, 101.025
1.32052, -1, -11.6804, 7.44149, 18.8662, -152.688, -95.3933, 100.737
1.32746, -1, -11.8386, 7.39907, 18.8768, -152.737, -95.376, 100.449
1.33546, -1, -11.9971, 7.35663, 18.8874, -152.787, -95.3588, 100.162
1.34358, -1, -12.1561, 7.31428, 18.8979, -152.836, -95.3416, 99.8737
1.35152, -1, -12.3154, 7.27186, 18.9084, -152.886, -95.3243, 99.5857
1.35953, -1, -12.4752, 7.22941, 18.9189, -152.935, -95.3067, 99.2977
1.36747, -1, -12.6351, 7.18701, 18.9295, -152.984, -95.2887, 99.0098
1.37554, -1, -12.7951, 7.14456, 18.94, -153.034, -95.2708, 98.7219
1.38346, -1, -12.9553, 7.10201, 18.9505, -153.084, -95.2531, 98.4339
1.39148, -1, -13.1153, 7.0594, 18.961, -153.133, -95.2357, 98.1456
1.39963, -1, -13.2751, 7.01678, 18.9716, -153.183, -95.2184, 97.8577
1.40746, -1, -13.4348, 6.9741, 18.9822, -153.232, -95.2013, 97.5695
1.41546, -1, -13.5941, 6.93131, 18.9928, -153.281, -95.1842, 97.2809
1.42353, -1, -13.7532, 6.88854, 19.0034, -153.331, -95.1667, 96.9921
1.43146, -1, -13.9121, 6.84583, 19.0138, -153.38, -95.1491, 96.7037
1.43956, -1, -14.0704, 6.8031, 19.0243, -153.429, -95.1312, 96.415
1.44753, -1, -14.2286, 6.76045, 19.0349, -153.479, -95.1135, 96.1261
1.45547, -1, -14.3867, 6.71775, 19.0453, -153.528, -95.0961, 95.8369
1.46349, -1, -14.5451, 6.67505, 19.0559, -153.578, -95.0789, 95.548
1.47152, -1, -14.7037, 6.6325, 19.0665, -153.628, -95.0616, 95.2588
1.47953, -1, -14.8627, 6.58996, 19.077, -153.677, -95.0444, 94.9696
1.48747, -1, -15.0221, 6.54726, 19.0878, -153.726, -95.0269, 94.6804
1.49554, -1, -15.1818, 6.50468, 19.0985, -153.776, -95.0092, 94.3914
1.5035, -1, -15.3419, 6.4621, 19.1092, -153.826, -94.9912, 94.1022
1.51157, -1, -15.5024, 6.41939, 19.1198, -153.875, -94.9733, 93.8128
1.51968, -1, -15.6631, 6.37671, 19.1303, -153.925, -94.9557, 93.5237
1.52761, -1, -15.8238, 6.33392, 19.141, -153.975, -94.9383, 93.2345
1.53562, -1, -15.9846, 6.29101, 19.1516, -154.025, -94.9211, 92.9449
1.54359, -1, -16.1455, 6.24816, 19.1622, -154.075, -94.904, 92.6551
1.55146, -1, -16.3062, 6.20526, 19.1727, -154.124, -94.8867, 92.3656
1.55973, -1, -16.4667, 6.16224, 19.1832, -154.173, -94.8693, 92.0762
1.56749, -1, -16.6271, 6.11926, 19.1937, -154.223, -94.8514, 91.786
1.5755, -1, -16.7869, 6.07631, 19.2044, -154.273, -94.8335, 91.4958
1.58369, -1, -16.9463, 6.03332, 19.2151, -154.323, -94.8158, 91.2058
1.59164, -1, -17.1056, 5.99035, 19.2257, -154.373, -94.7983, 90.9156
1.59975, -1, -17.2647, 5.9474, 19.2362, -154.422, -94.781, 90.6254
1.60792, -1, -17.4238, 5.90458, 19.2469, -154.472, -94.7638, 90.335
1.61578, -1, -17.5832, 5.86177, 19.2576, -154.522, -94.7463, 90.0449
1.62388, -1, -17.7425, 5.81898, 19.2682, -154.571, -94.7287, 89.7545
1.63204, -1, -17.902, 5.77625, 19.2789, -154.621, -94.7108, 89.4641
1.64005, -1, -18.0621, 5.73348, 19.2895, -154.671, -94.6927, 89.1734
1.648, -1, -18.2226, 5.69072, 19.3001, -154.721, -94.6748, 88.8831
1.65609, -1, -18.3835, 5.64794, 19.3108, -154.771, -94.6571, 88.5923
1.66403, -1, -18.4642, 5.60501, 19.3215, -154.821, -94.6398, 88.301
1.67211, -1, -18.6257, 5.56207, 19.3322, -154.871, -94.6225, 88.0102
1.68031, -1, -18.7872, 5.54059, 19.3428, -154.921, -94.6053, 87.7193
1.68746, -1, -18.9489, 5.49764, 19.3481, -154.946, -94.5965, 87.5738
1.6955, -1, -19.1105, 5.45454, 19.3587, -154.996, -94.5788, 87.2824
1.70346, -1, -19.2721, 5.41137, 19.3693, -155.046, -94.5608, 86.9908
1.71147, -1, -19.4336, 5.36826, 19.3798, -155.096, -94.5427, 86.6995
1.71957, -1, -19.5946, 5.32506, 19.3904, -155.145, -94.5248, 86.4079
1.72749, -1, -19.7554, 5.28185, 19.4011, -155.196, -94.5071, 86.116
1.7355, -1, -19.916, 5.23873, 19.4117, -155.246, -94.4897, 85.8244
1.74345, -1, -20.0763, 5.19556, 19.4225, -155.295, -94.4723, 85.5329
1.75145, -1, -20.2361, 5.15253, 19.4334, -155.346, -94.4548, 85.2413
1.75956, -1, -20.3959, 5.1096, 19.4442, -155.396, -94.4372, 84.9493
1.76748, -1, -20.5559, 5.06652, 19.4549, -155.445, -94.4191, 84.6576
1.7755, -1, -20.7161, 5.02354, 19.4656, -155.496, -94.401, 84.3659
1.78351, -1, -20.8766, 4.98067, 19.4763, -155.546, -94.3831, 84.0738
1.79146, -1, -21.0375, 4.93762, 19.487, -155.596, -94.3655, 83.7815
1.80193, -1, -21.1987, 4.89461, 19.4977, -155.647, -94.3396, 83.3436
1.80751, -1, -21.3604, 4.85149, 19.5083, -155.697, -94.331, 83.1976
1.81652, -1, -21.5225, 4.80824, 19.5189, -155.747, -94.3137, 82.9051
1.82346, -1, -21.6847, 4.765, 19.5297, -155.797, -94.2962, 82.6124
1.83157, -1, -21.8471, 4.72172, 19.5404, -155.847, -94.2784, 82.32
1.83951, -1, -22.0095, 4.67832, 19.5512, -155.897, -94.2604, 82.0274
1.84748, -1, -22.172, 4.63497, 19.562, -155.948, -94.2424, 81.7347
1.85546, -1, -22.3345, 4.59158, 19.5726, -155.998, -94.2248, 81.4419
1.86344, -1, -22.4968, 4.54814, 19.5833, -156.048, -94.2073, 81.1493
1.87154, -1, -22.6587, 4.50471, 19.594, -156.098, -94.1898, 80.8566
1.87952, -1, -22.8202, 4.46123, 19.6047, -156.148, -94.1723, 80.5636
1.88745, -1, -22.9813, 4.41785, 19.6154, -156.199, -94.1545, 80.2707
1.89601, -1, -23.1425, 4.37458, 19.6261, -156.249, -94.1365, 79.9777
1.90452, -1, -23.3034, 4.33126, 19.6368, -156.299, -94.1182, 79.6845
1.91148, -1, -23.4642, 4.28801, 19.6478, -156.35, -94.1001, 79.3909
1.92031, -1, -23.6252, 4.24472, 19.6586, -156.4, -94.0821, 79.0977
1.92852, -1, -23.7863, 4.20143, 19.6693, -156.45, -94.0645, 78.8044
1.93645, -1, -23.9476, 4.15817, 19.68, -156.501, -94.047, 78.5107
1.94447, -1, -24.1093, 4.11477, 19.6907, -156.551, -94.0297, 78.2168
1.95144, -1, -24.2715, 4.07136, 19.7015, -156.602, -94.0121, 77.923
1.95952, -1, -24.4342, 4.02796, 19.7122, -156.652, -93.9942, 77.629
1.9682, -1, -24.5971, 3.98444, 19.7228, -156.703, -93.9761, 77.3346
1.97546, -1, -24.7603, 3.94086, 19.7335, -156.753, -93.958, 77.0402
1.98352, -1, -24.9236, 3.89731, 19.7442, -156.804, -93.9402, 76.7463
1.9926, -1, -25.0871, 3.85375, 19.7551, -156.854, -93.9226, 76.4521
1.99954, -1, -25.2503, 3.81018, 19.766, -156.904, -93.9051, 76.1577
2.00757, -1, -25.4134, 3.76657, 19.7769, -156.955, -93.8876, 75.8632
2.01556, -1, -25.5763, 3.72289, 19.7876, -157.005, -93.8699, 75.5691
2.02354, -1, -25.7389, 3.67927, 19.7983, -157.055, -93.852, 75.2744
2.03161, -1, -25.9014, 3.63581, 19.8091, -157.106, -93.8337, 74.9797
2.03965, -1, -26.0636, 3.59225, 19.8199, -157.156, -93.8153, 74.685
2.04757, -1, -26.2255, 3.54877, 19.8307, -157.207, -93.7971, 74.3904
2.05563, -1, -26.387, 3.50541, 19.8414, -157.258, -93.7793, 74.0956
2.06347, -1, -26.5487, 3.4619, 19.8521, -157.308, -93.7617, 73.8003
2.07159, -1, -26.7106, 3.4184, 19.863, -157.359, -93.7441, 73.5051
2.0796, -1, -26.8729, 3.3749, 19.8738, -157.41, -93.7265, 73.21
2.08755, -1, -27.0355, 3.33126, 19.8847, -157.46, -93.7085, 72.9145
2.09567, -1, -27.1983, 3.28761, 19.8955, -157.511, -93.6903, 72.6192
2.10372, -1, -27.3615, 3.24399, 19.9062, -157.561, -93.6719, 72.3239
2.11181, -1, -27.5252, 3.20016, 19.917, -157.612, -93.6538, 72.0286
2.12006, -1, -27.689, 3.15641, 19.9278, -157.663, -93.6359, 71.733
2.12786, -1, -27.8531, 3.11277, 19.9385, -157.713, -93.6182, 71.4373
2.13597, -1, -28.0172, 3.06903, 19.9493, -157.764, -93.6006, 71.1417
2.14461, -1, -28.1815, 3.02529, 19.9601, -157.815, -93.5828, 70.8459
2.15198, -1, -28.3458, 2.98158, 19.9709, -157.865, -93.5647, 70.5499
2.16003, -1, -28.5098, 2.93786, 19.9818, -157.916, -93.5464, 70.2539
2.16831, -1, -28.5917, 2.89423, 19.9927, -157.967, -93.5279, 69.958
2.17598, -1, -28.7553, 2.87242, 19.9981, -157.992, -93.5188, 69.6618
2.1841, -1, -28.9186, 2.82872, 20.0089, -158.043, -93.4918, 69.3651
2.19144, -1, -29.0815, 2.78504, 20.0196, -158.094, -93.4829, 69.2169
2.19944, -1, -29.2442, 2.74141, 20.0304, -158.145, -93.4653, 68.9207
2.20748, -1, -29.4069, 2.6977, 20.0412, -158.196, -93.4477, 68.624
2.21546, -1, -29.5697, 2.65397, 20.052, -158.247, -93.4298, 68.327
2.22343, -1, -29.7326, 2.61019, 20.0629, -158.298, -93.4116, 68.0303
2.23154, -1, -29.8956, 2.56641, 20.0737, -158.349, -93.3932, 67.7337
2.23944, -1, -30.0588, 2.52263, 20.0847, -158.4, -93.3749, 67.4368
2.24745, -1, -30.2223, 2.47866, 20.0957, -158.45, -93.3568, 67.1397
2.25687, -1, -30.4686, 2.41273, 20.1121, -158.527, -93.33, 66.6944
2.26343, -1, -30.5509, 2.39072, 20.1175, -158.553, -93.3211, 66.5459
2.27144, -1, -30.7158, 2.34671, 20.1282, -158.603, -93.3034, 66.2486
2.28099, -1, -30.9634, 2.28082, 20.1446, -158.68, -93.2764, 65.8025
2.28745, -1, -31.0459, 2.25882, 20.1501, -158.706, -93.2672, 65.654
2.29545, -1, -31.211, 2.21481, 20.1609, -158.756, -93.2487, 65.3567
2.30499, -1, -31.3761, 2.17097, 20.1718, -158.808, -93.2302, 65.0591
2.31144, -1, -31.5408, 2.12704, 20.1825, -158.859, -93.2121, 64.7613
2.32043, -1, -31.7054, 2.08303, 20.1934, -158.91, -93.1942, 64.4635
2.32751, -1, -31.8698, 2.0391, 20.2044, -158.961, -93.1765, 64.1654
2.33543, -1, -32.0339, 1.99517, 20.2154, -159.012, -93.159, 63.8671
2.34343, -1, -32.1977, 1.95115, 20.2263, -159.063, -93.1412, 63.5692
2.35152, -1, -32.3612, 1.90716, 20.2372, -159.115, -93.1232, 63.2714
2.35944, -1, -32.5248, 1.86308, 20.2481, -159.166, -93.1048, 62.9733
2.3675, -1, -32.6886, 1.81893, 20.2591, -159.217, -93.0865, 62.6748
2.37543, -1, -32.8525, 1.77488, 20.27, -159.268, -93.0684, 62.3766
2.38344, -1, -33.0166, 1.73067, 20.2809, -159.319, -93.0504, 62.0783
2.39149, -1, -33.1811, 1.68646, 20.2918, -159.371, -93.0326, 61.7796
2.39944, -1, -33.3459, 1.64229, 20.3027, -159.422, -93.0148, 61.4807
2.40744, -1, -33.5112, 1.59806, 20.3137, -159.473, -92.9969, 61.1823
2.4156, -1, -33.6768, 1.55379, 20.3246, -159.524, -92.9786, 60.8837
2.42343, -1, -33.8426, 1.50959, 20.3356, -159.575, -92.9599, 60.5845
2.43143, -1, -34.0085, 1.46539, 20.3464, -159.627, -92.9413, 60.2854
2.43951, -1, -34.1744, 1.42124, 20.3573, -159.678, -92.923, 59.9864
2.44748, -1, -34.3406, 1.3771, 20.3683, -159.729, -92.9049, 59.6869
2.45543, -1, -34.5066, 1.33289, 20.3792, -159.781, -92.8871, 59.3872
2.46353, -1, -34.6723, 1.28871, 20.3901, -159.833, -92.8693, 59.0877
2.47152, -1, -34.8376, 1.24451, 20.4011, -159.884, -92.8513, 58.7885
2.47948, -1, -35.0026, 1.20026, 20.412, -159.935, -92.8332, 58.4888
2.48751, -1, -35.1673, 1.15599, 20.4231, -159.987, -92.8147, 58.189
2.49544, -1, -35.3318, 1.11167, 20.4341, -160.038, -92.7962, 57.8894
2.50346, -1, -35.4958, 1.06753, 20.4453, -160.09, -92.7778, 57.5897
2.51158, -1, -35.6582, 1.02369, 20.4565, -160.141, -92.7598, 57.2898
2.51954, -1, -35.8177, 0.980444, 20.468, -160.192, -92.7419, 56.9912
2.52753, -1, -35.9733, 0.938334, 20.4799, -160.242, -92.7242, 56.696
2.53559, -1, -36.1236, 0.897839, 20.4918, -160.292, -92.7066, 56.4068
2.54357, -1, -36.2663, 0.859612, 20.5037, -160.339, -92.6895, 56.1277
2.5515, -1, -36.3995, 0.824281, 20.5153, -160.384, -92.6729, 55.8652
2.55961, -1, -36.5215, 0.792019, 20.5259, -160.425, -92.6577, 55.6253
2.56747, -1, -36.6306, 0.763161, 20.5352, -160.46, -92.6445, 55.4134
2.57546, -1, -36.7254, 0.738059, 20.5425, -160.49, -92.6335, 55.235
2.58353, -1, -36.8055, 0.716795, 20.5476, -160.515, -92.6248, 55.0916
2.59161, -1, -36.8718, 0.699296, 20.5505, -160.534, -92.6183, 54.983
2.59967, -1, -36.925, 0.685279, 20.5518, -160.547, -92.6139, 54.9063
2.60781, -1, -36.9655, 0.674407, 20.5522, -160.556, -92.611, 54.8544
2.6163, -1, -36.9951, 0.666573, 20.5519, -160.562, -92.6093, 54.8228
2.62383, -1, -37.0155, 0.661454, 20.5514, -160.565, -92.6084, 54.8049
2.63194, -1, -37.0279, 0.65841, 20.5511, -160.567, -92.6079, 54.7958
2.64036, 2, -37.0345, 0.656775, 20.5509, -160.568, -92.6077, 54.7915
2.64803, 2, -37.0367, 0.656029, 20.5508, -160.568, -92.6076, 54.7895
2.656, 2, -37.0365, 0.655727, 20.5507, -160.568, -92.6076, 54.7886
2.66404, 2, -37.0359, 0.655611, 20.5507, -160.568, -92.6075, 54.7882
2.67204, 2, -37.0357, 0.655589, 20.5507, -160.568, -92.6076, 54.7881
2.68004, 2, -37.0358, 0.655534, 20.5507, -160.568, -92.6076, 54.788
2.68745, 2, -37.0365, 0.655478, 20.5506, -160.568, -92.6076, 54.788
2.69543, 2, -37.0376, 0.655415, 20.5505, -160.568, -92.6076, 54.788
2.70432, 2, -37.0388, 0.655174, 20.5502, -160.568, -92.6077, 54.7881
2.71142, 2, -37.0403, 0.655053, 20.5501, -160.568, -92.6077, 54.7881
2.71941, 2, -37.0415, 0.654791, 20.55, -160.568, -92.6077, 54.7881
2.72749, 2, -37.0427, 0.654581, 20.5498, -160.568, -92.6077, 54.7883
2.73542, 2, -37.0435, 0.654404, 20.5496, -160.568, -92.6078, 54.7884
2.74342, 2, -37.0437, 0.654335, 20.5493, -160.568, -92.6078, 54.7885
2.75147, 2, -37.0435, 0.654314, 20.5492, -160.568, -92.6079, 54.7887
2.75942, 2, -37.0428, 0.654338, 20.5491, -160.568, -92.6079, 54.7889
2.76744, 2, -37.0419, 0.654407, 20.549, -160.568, -92.608, 54.7891
2.77547, 2, -37.0406, 0.654472, 20.5489, -160.568, -92.608, 54.7893
2.78346, 2, -37.039, 0.654561, 20.5489, -160.568, -92.608, 54.7895
2.79142, 2, -37.0378, 0.654598, 20.5488, -160.568, -92.6081, 54.7897
2.79952, 2, -37.037, 0.654626, 20.5487, -160.568, -92.6081, 54.7898
2.80744, 2, -37.0366, 0.654613, 20.5487, -160.568, -92.6081, 54.7898
2.81642, 2, -37.0365, 0.65459, 20.5487, -160.568, -92.6081, 54.7899
2.82348, 2, -37.0367, 0.654561, 20.5487, -160.568, -92.6081, 54.79
2.83142, 2, -37.0369, 0.654487, 20.5486, -160.568, -92.6081, 54.79
2.83942, 2, -37.0372, 0.65446, 20.5486, -160.568, -92.6081, 54.7901
2.84749, 2, -37.0379, 0.654422, 20.5486, -160.568, -92.6081, 54.7901
2.85544, 2, -37.0386, 0.654404, 20.5486, -160.568, -92.6081, 54.7901
2.86342, 2, -37.0393, 0.654389, 20.5486, -160.568, -92.6081, 54.7902
2.87151, 2, -37.0398, 0.654395, 20.5485, -160.568, -92.6082, 54.7902
2.87942, 2, -37.04, 0.654429, 20.5485, -160.568, -92.6081, 54.7902
2.88744, 2, -37.04, 0.654456, 20.5485, -160.568, -92.6082, 54.7903
2.89549, 2, -37.0401, 0.654487, 20.5485, -160.568, -92.6082, 54.7903
2.90341, 2, -37.0398, 0.654503, 20.5485, -160.568, -92.6081, 54.7904
2.91142, 2, -37.0394, 0.654503, 20.5485, -160.568, -92.6082, 54.7905
2.91957, 2, -37.0391, 0.654495, 20.5485, -160.568, -92.6082, 54.7905
2.92742, 2, -37.0389, 0.654475, 20.5485, -160.568, -92.6082, 54.7906
2.93541, 2, -37.0388, 0.654447, 20.5485, -160.568, -92.6082, 54.7906
2.94348, 2, -37.0388, 0.654453, 20.5485, -160.568, -92.6082, 54.7906
2.95147, 2, -37.0388, 0.654426, 20.5485, -160.568, -92.6082, 54.7907
2.95941, 2, -37.0388, 0.654406, 20.5485, -160.568, -92.6082, 54.7907
2.96753, 2, -37.0389, 0.654408, 20.5484, -160.568, -92.6083, 54.7908
2.97541, 2, -37.039, 0.654435, 20.5484, -160.568, -92.6082, 54.7909
2.98342, 2, -37.039, 0.654429, 20.5484, -160.568, -92.6082, 54.7909
2.99149, 2, -37.0392, 0.654444, 20.5484, -160.568, -92.6083, 54.791
2.99941, 2, -37.0394, 0.654451, 20.5484, -160.568, -92.6082, 54.7911
3.00746, 2, -37.0394, 0.654474, 20.5484, -160.568, -92.6083, 54.7911
3.01556, 2, -37.0394, 0.654477, 20.5484, -160.568, -92.6083, 54.7911
3.02352, 2, -37.0394, 0.654491, 20.5484, -160.568, -92.6083, 54.7912
3.03151, 2, -37.0394, 0.65449, 20.5484, -160.568, -92.6083, 54.7913
3.03958, 2, -37.0394, 0.654472, 20.5484, -160.568, -92.6083, 54.7913
3.04756, 2, -37.0394, 0.654464, 20.5484, -160.568, -92.6083, 54.7914
3.05547, 2, -37.0393, 0.65446, 20.5483, -160.568, -92.6083, 54.7914
3.06354, 2, -37.0394, 0.654448, 20.5483, -160.568, -92.6083, 54.7915
3.07145, 2, -37.0393, 0.654445, 20.5483, -160.568, -92.6083, 54.7916
3.07944, 2, -37.0393, 0.654433, 20.5483, -160.568, -92.6083, 54.7916
3.08772, 2, -37.0394, 0.654446, 20.5483, -160.568, -92.6083, 54.7916
3.09559, 2, -37.0393, 0.65446, 20.5483, -160.568, -92.6083, 54.7917
3.10359, 2, -37.0393, 0.654471, 20.5483, -160.568, -92.6083, 54.7917
3.11179, 2, -37.0393, 0.654476, 20.5483, -160.568, -92.6083, 54.7918
3.11982, 2, -37.0393, 0.65449, 20.5483, -160.568, -92.6083, 54.7918
3.12845, 2, -37.0393, 0.654497, 20.5483, -160.568, -92.6083, 54.7919
3.13616, 2, -37.0393, 0.654493, 20.5483, -160.568, -92.6083, 54.7919
3.14397, 2, -37.0393, 0.654481, 20.5483, -160.568, -92.6084, 54.792
3.15194, 2, -37.0393, 0.654473, 20.5483, -160.568, -92.6084, 54.792
3.16052, 2, -37.0392, 0.654464, 20.5483, -160.568, -92.6084, 54.792
3.16802, 2, -37.0392, 0.654461, 20.5483, -160.568, -92.6084, 54.792
3.17597, 2, -37.0392, 0.65446, 20.5482, -160.568, -92.6084, 54.7921
3.18442, 2, -37.0392, 0.654477, 20.5482, -160.568, -92.6084, 54.7921
3.19143, 2, -37.0392, 0.654478, 20.5482, -160.568, -92.6084, 54.7921
3.1994, 2, -37.0392, 0.654474, 20.5481, -160.568, -92.6084, 54.7921
3.20845, 2, -37.0392, 0.654486, 20.5481, -160.568, -92.6084, 54.7922
3.2154, 2, -37.0392, 0.654477, 20.5481, -160.568, -92.6084, 54.7922
3.2234, 2, -37.0392, 0.654479, 20.5482, -160.568, -92.6084, 54.7923
3.23146, 2, -37.0392, 0.654479, 20.5482, -160.568, -92.6085, 54.7924
3.23941, 2, -37.0392, 0.65448, 20.5481, -160.568, -92.6085, 54.7924
3.24741, 2, -37.0392, 0.65448, 20.5481, -160.568, -92.6084, 54.7924
3.25679, 2, -37.0391, 0.65448, 20.5481, -160.568, -92.6085, 54.7924
3.2634, 2, -37.0391, 0.654487, 20.5481, -160.568, -92.6085, 54.7925
3.27141, 2, -37.0391, 0.654488, 20.5481, -160.568, -92.6084, 54.7925
3.28118, 2, -37.0391, 0.654467, 20.5481, -160.568, -92.6084, 54.7925
3.28747, 2, -37.0391, 0.654464, 20.5481, -160.568, -92.6085, 54.7925
3.2954, 2, -37.0391, 0.654472, 20.5481, -160.568, -92.6085, 54.7925
3.3035, 2, -37.0391, 0.654464, 20.5481, -160.568, -92.6084, 54.7925
3.31313, 2, -37.0391, 0.654473, 20.5481, -160.568, -92.6085, 54.7927
3.3194, 2, -37.0391, 0.654484, 20.548, -160.568, -92.6085, 54.7927
3.32748, 2, -37.039, 0.654482, 20.548, -160.568, -92.6084, 54.7927
3.3354, 2, -37.039, 0.654473, 20.548, -160.568, -92.6084, 54.7927
3.3434, 2, -37.039, 0.654477, 20.548, -160.568, -92.6085, 54.7927
3.35147, 2, -37.039, 0.654466, 20.548, -160.568, -92.6085, 54.7927
3.35942, 2, -37.039, 0.654474, 20.548, -160.568, -92.6085, 54.7927
3.36742, 2, -37.039, 0.654472, 20.548, -160.568, -92.6085, 54.7928
3.37546, 2, -37.0389, 0.654476, 20.548, -160.567, -92.6085, 54.7928
3.3834, 2, -37.0389, 0.654471, 20.548, -160.568, -92.6085, 54.7929
3.39141, 2, -37.0389, 0.654476, 20.548, -160.568, -92.6084, 54.7928
3.39947, 2, -37.0389, 0.654466, 20.548, -160.567, -92.6085, 54.7928
3.40741, 2, -37.0389, 0.654473, 20.5479, -160.567, -92.6085, 54.7928
3.4154, 2, -37.0389, 0.654477, 20.5479, -160.567, -92.6085, 54.7929
3.42346, 2, -37.0389, 0.654474, 20.5479, -160.567, -92.6085, 54.7929
3.43141, 2, -37.0389, 0.654489, 20.5479, -160.567, -92.6085, 54.7929
3.4394, 2, -37.0389, 0.654496, 20.5479, -160.567, -92.6085, 54.7929
3.44754, 2, -37.0389, 0.6545, 20.5479, -160.567, -92.6085, 54.793
3.45545, 2, -37.0389, 0.654489, 20.5479, -160.567, -92.6085, 54.793
3.4634, 2, -37.0388, 0.654496, 20.5479, -160.567, -92.6085, 54.793
3.4715, 2, -37.0388, 0.6545, 20.5479, -160.567, -92.6086, 54.793
3.47941, 2, -37.0388, 0.654482, 20.5479, -160.567, -92.6086, 54.793
3.48741, 2, -37.0388, 0.654488, 20.5479, -160.567, -92.6085, 54.793
3.49547, 2, -37.0388, 0.654484, 20.5479, -160.567, -92.6085, 54.7931
3.50342, 2, -37.0387, 0.654494, 20.5479, -160.567, -92.6086, 54.7931
3.51144, 2, -37.0387, 0.654499, 20.5479, -160.567, -92.6086, 54.7931
3.51955, 2, -37.0387, 0.654488, 20.5478, -160.567, -92.6085, 54.7931
3.52754, 2, -37.0387, 0.654484, 20.5478, -160.567, -92.6085, 54.7931
3.53549, 2, -37.0387, 0.654494, 20.5478, -160.567, -92.6086, 54.7931
3.54357, 2, -37.0387, 0.654499, 20.5478, -160.567, -92.6086, 54.7931
3.55151, 2, -37.0386, 0.654501, 20.5478, -160.567, -92.6086, 54.7931
3.5594, 2, -37.0387, 0.654494, 20.5478, -160.567, -92.6087, 54.7931
3.56754, 2, -37.0387, 0.654494, 20.5478, -160.567, -92.6086, 54.7931
3.57542, 2, -37.0387, 0.654499, 20.5478, -160.567, -92.6086, 54.7931
3.58343, 2, -37.0386, 0.654501, 20.5478, -160.567, -92.6086, 54.7931
3.59156, 2, -37.0386, 0.654502, 20.5478, -160.567, -92.6085, 54.7931
3.59973, 2, -37.0386, 0.654502, 20.5478, -160.567, -92.6085, 54.7931
3.60762, 2, -37.0386, 0.65449, 20.5478, -160.567, -92.6085, 54.7931
3.61576, 2, -37.0386, 0.654508, 20.5478, -160.567, -92.6085, 54.7932
3.62417, 2, -37.0386, 0.6545, 20.5478, -160.567, -92.6086, 54.7932
3.63188, 2, -37.0386, 0.654501, 20.5478, -160.567, -92.6086, 54.7932
3.64062, 2, -37.0386, 0.65449, 20.5477, -160.567, -92.6086, 54.7932
3.64878, 2, -37.0386, 0.654497, 20.5477, -160.567, -92.6085, 54.7932
3.65603, 2, -37.0386, 0.6545, 20.5477, -160.567, -92.6085, 54.7932
3.66403, 2, -37.0386, 0.654512, 20.5477, -160.567, -92.6085, 54.7932
3.67197, 2, -37.0386, 0.654514, 20.5477, -160.567, -92.6086, 54.7932
3.68061, 2, -37.0385, 0.654526, 20.5477, -160.567, -92.6086, 54.7932
3.68842, 2, -37.0385, 0.654513, 20.5477, -160.567, -92.6086, 54.7932
3.69618, 2, -37.0385, 0.65451, 20.5477, -160.567, -92.6086, 54.7932
3.7034, 4, -37.0384, 0.654506, 20.5477, -160.567, -92.6086, 54.7932
3.71144, 4, -37.0385, 0.654504, 20.5476, -160.567, -92.6086, 54.7932
3.71938, 4, -37.0384, 0.654503, 20.5476, -160.567, -92.6086, 54.7932
3.72739, 4, -37.0384, 0.654503, 20.5476, -160.567, -92.6086, 54.7932
3.73543, 4, -37.0384, 0.654503, 20.5476, -160.567, -92.6086, 54.7932
3.7434, 4, -37.0384, 0.654503, 20.5476, -160.567, -92.6086, 54.7932
3.75139, 4, -37.0384, 0.654521, 20.5476, -160.567, -92.6085, 54.7932
3.75945, 4, -37.0384, 0.654522, 20.5476, -160.567, -92.6085, 54.7932
3.76894, 4, -37.0384, 0.654525, 20.5476, -160.567, -92.6085, 54.7932
3.77701, 4, -37.0384, 0.654538, 20.5476, -160.567, -92.6085, 54.7932
3.78346, 4, -37.0384, 0.654538, 20.5476, -160.567, -92.6086, 54.7932
3.79299, 4, -37.0383, 0.654542, 20.5476, -160.567, -92.6086, 54.7932
3.80105, 4, -37.0383, 0.654528, 20.5476, -160.567, -92.6087, 54.7932
3.80763, 4, -37.0383, 0.65452, 20.5476, -160.567, -92.6087, 54.7933
3.83173, 4, -37.0383, 0.654504, 20.5476, -160.567, -92.6087, 54.7932
3.83447, 4, -37.0383, 0.654515, 20.5475, -160.567, -92.6087, 54.7932
3.83623, 4, -37.0383, 0.654515, 20.5475, -160.567, -92.6087, 54.7932
3.84245, 4, -37.0383, 0.654545, 20.5475, -160.567, -92.6087, 54.7932
3.85187, 4, -37.0382, 0.654522, 20.5475, -160.567, -92.6086, 54.7932
3.85652, 4, -37.038, 0.654483, 20.5476, -160.567, -92.6087, 54.7932
3.86347, 4, -37.0365, 0.654075, 20.5476, -160.567, -92.6086, 54.7933
3.87141, 4, -37.0325, 0.652354, 20.548, -160.567, -92.6086, 54.7933
3.87959, 4, -37.0248, 0.648087, 20.5495, -160.567, -92.6087, 54.7932
3.88842, 4, -37.0133, 0.640387, 20.5534, -160.566, -92.6087, 54.7932
3.89646, 4, -36.9977, 0.628898, 20.5609, -160.565, -92.6087, 54.7932
3.90342, 5, -36.9766, 0.612883, 20.5734, -160.563, -92.6087, 54.7932
3.91139, 5, -36.95, 0.592427, 20.5921, -160.559, -92.6085, 54.7932
3.91942, 5, -36.9183, 0.56746, 20.6174, -160.554, -92.6083, 54.7932
3.92755, 5, -36.882, 0.53802, 20.6496, -160.547, -92.6078, 54.7931
3.93543, 5, -36.8407, 0.504048, 20.6882, -160.539, -92.6069, 54.7931
3.94339, 5, -36.7942, 0.465251, 20.7322, -160.529, -92.6057, 54.7931
3.95156, 5, -36.7425, 0.42224, 20.7806, -160.518, -92.604, 54.7931
3.96057, 5, -36.6861, 0.375508, 20.8321, -160.506, -92.6024, 54.793
3.96739, 5, -36.6257, 0.325995, 20.8857, -160.494, -92.6007, 54.7929
3.97541, 5, -36.5615, 0.274414, 20.9406, -160.482, -92.599, 54.7929
3.98346, 5, -36.4948, 0.221461, 20.9959, -160.47, -92.5971, 54.793
3.9914, 5, -36.427, 0.167922, 21.0513, -160.458, -92.5953, 54.7929
4.00093, 5, -36.3584, 0.114113, 21.1069, -160.445, -92.5934, 54.7929
4.00758, 5, -36.2896, 0.0602094, 21.1623, -160.434, -92.5915, 54.793
4.01568, 5, -36.2207, 0.0064079, 21.2178, -160.422, -92.5896, 54.7931
4.02347, 5, -36.1518, -0.047179, 21.2732, -160.409, -92.5876, 54.7931
4.03165, 5, -36.0831, -0.100546, 21.3285, -160.397, -92.5856, 54.7932
4.04039, 5, -36.0146, -0.153685, 21.3837, -160.384, -92.5836, 54.7932
4.04748, 5, -35.946, -0.206606, 21.439, -160.371, -92.5817, 54.7934
4.0555, 5, -35.8774, -0.259399, 21.494, -160.358, -92.5797, 54.7937
4.06402, 5, -35.8087, -0.312042, 21.549, -160.346, -92.5777, 54.7941
4.07245, 5, -35.7396, -0.364719, 21.6039, -160.333, -92.5756, 54.7948
4.07973, 5, -35.6704, -0.417357, 21.6587, -160.32, -92.5736, 54.7957
4.08896, 5, -35.6009, -0.470069, 21.7132, -160.308, -92.5717, 54.7968
4.09639, 5, -35.5311, -0.522808, 21.7675, -160.295, -92.5696, 54.798
4.10397, 5, -35.461, -0.57552, 21.8217, -160.283, -92.5675, 54.7994
4.11579, 5, -35.3555, -0.654585, 21.9027, -160.264, -92.5644, 54.8017
4.11969, 5, -35.3202, -0.680921, 21.9297, -160.257, -92.5634, 54.8025
4.12818, 5, -35.2496, -0.733562, 21.9836, -160.244, -92.5614, 54.8043
4.13742, 5, -35.1791, -0.785899, 22.0372, -160.231, -92.5592, 54.8063
4.14387, 5, -35.1084, -0.838085, 22.0909, -160.217, -92.5571, 54.8084
4.15332, 5, -35.0378, -0.890137, 22.1443, -160.204, -92.555, 54.8106
4.1631, 5, -34.9672, -0.94186, 22.1977, -160.191, -92.5528, 54.8128
4.16797, 5, -34.8967, -0.993415, 22.251, -160.178, -92.5506, 54.8152
4.17926, 5, -34.8262, -1.0448, 22.3042, -160.165, -92.5485, 54.8178
4.18511, 5, -34.7909, -1.09617, 22.3571, -160.152, -92.5463, 54.8205
4.19223, 5, -34.7204, -1.14755, 22.4099, -160.14, -92.5441, 54.8233
4.19944, 5, -34.6495, -1.17315, 22.4363, -160.133, -92.543, 54.8247
4.20737, 5, -34.5785, -1.2244, 22.4888, -160.12, -92.5408, 54.8277
4.21537, 5, -34.5074, -1.27576, 22.5411, -160.107, -92.5385, 54.8308
4.22449, 5, -34.4003, -1.35266, 22.6194, -160.086, -92.5351, 54.8356
4.2316, 5, -34.3645, -1.37832, 22.6455, -160.079, -92.5339, 54.8373
4.23935, 5, -34.2929, -1.42956, 22.6974, -160.066, -92.5317, 54.8406
4.24741, 5, -34.2211, -1.4807, 22.7492, -160.052, -92.5294, 54.8442
4.25723, 5, -34.1131, -1.55695, 22.8267, -160.032, -92.5259, 54.8497
4.26648, 5, -34.041, -1.60757, 22.8782, -160.018, -92.5236, 54.8534
4.27142, 5, -34.0049, -1.63279, 22.9039, -160.011, -92.5224, 54.8554
4.28099, 5, -33.8966, -1.70811, 22.9809, -159.991, -92.519, 54.8613
4.28737, 5, -33.8605, -1.73313, 23.0065, -159.984, -92.5179, 54.8633
4.29544, 5, -33.7884, -1.78307, 23.0575, -159.971, -92.5155, 54.8674
4.30336, 5, -33.7161, -1.83296, 23.1084, -159.957, -92.5132, 54.8716
4.31157, 5, -33.6438, -1.88275, 23.1591, -159.942, -92.5109, 54.876
4.31941, 5, -33.5712, -1.9326, 23.2097, -159.928, -92.5087, 54.8803
4.32845, 5, -33.4985, -1.98279, 23.2601, -159.914, -92.5064, 54.8844
4.33537, 5, -33.4257, -2.03329, 23.3105, -159.9, -92.5042, 54.888
4.34343, 5, -33.3531, -2.0842, 23.3609, -159.886, -92.5018, 54.8903
4.35138, 6, -33.2807, -2.13562, 23.4114, -159.871, -92.4993, 54.8914
4.35958, 6, -33.2086, -2.18774, 23.4623, -159.857, -92.4965, 54.8906
4.36737, 6, -33.1368, -2.2408, 23.5136, -159.842, -92.4931, 54.8876
4.37542, 6, -33.0655, -2.29472, 23.5658, -159.826, -92.489, 54.88
4.38337, 7, -32.9947, -2.34979, 23.619, -159.808, -92.4835, 54.8676
4.39138, 7, -32.9243, -2.40601, 23.6734, -159.79, -92.4765, 54.8522
4.39937, 7, -32.8544, -2.46362, 23.7291, -159.77, -92.4678, 54.835
4.40988, 7, -32.7851, -2.55277, 23.8152, -159.737, -92.4509, 54.809
4.41552, 7, -32.7165, -2.5833, 23.8445, -159.726, -92.4443, 54.8004
4.42343, 8, -32.6485, -2.64554, 23.9042, -159.703, -92.4297, 54.7836
4.43136, 8, -32.5813, -2.70945, 23.965, -159.678, -92.4132, 54.7668
4.43951, 8, -32.5148, -2.77507, 24.0269, -159.651, -92.3948, 54.7494
4.44738, 8, -32.4489, -2.84225, 24.0899, -159.624, -92.3747, 54.7308
4.45544, 8, -32.3838, -2.91091, 24.1538, -159.596, -92.3533, 54.7107
4.46337, 9, -32.3191, -2.98093, 24.2186, -159.568, -92.3308, 54.6888
4.47136, 9, -32.2551, -3.05224, 24.2844, -159.538, -92.3072, 54.6651
4.47946, 9, -32.1916, -3.1249, 24.3513, -159.506, -92.2823, 54.6397
4.48765, 9, -32.1287, -3.19876, 24.4191, -159.474, -92.2556, 54.6132
4.49642, 9, -32.0663, -3.274, 24.488, -159.442, -92.2271, 54.5854
4.50336, 10, -32.0044, -3.3505, 24.5578, -159.408, -92.1975, 54.556
4.51166, 10, -31.9433, -3.42835, 24.6287, -159.373, -92.1668, 54.5248
4.51943, 10, -31.8827, -3.50769, 24.7006, -159.337, -92.1348, 54.4915
4.52775, 10, -31.8226, -3.58844, 24.7737, -159.301, -92.1008, 54.4564
4.53582, 10, -31.7631, -3.67063, 24.8476, -159.264, -92.0653, 54.4203
4.54368, 11, -31.7041, -3.75421, 24.9226, -159.225, -92.029, 54.3831
4.55183, 11, -31.6457, -3.83939, 24.9985, -159.185, -91.9916, 54.3441
4.56154, 11, -31.5879, -3.92598, 25.0753, -159.145, -91.9522, 54.303
4.56819, 11, -31.5305, -4.014, 25.1531, -159.104, -91.9112, 54.2606
4.57743, 11, -31.4736, -4.10356, 25.232, -159.061, -91.8695, 54.217
4.58517, 12, -31.4174, -4.19454, 25.3119, -159.018, -91.8263, 54.1719
4.59219, 12, -31.3615, -4.28694, 25.3928, -158.975, -91.781, 54.1247
4.59953, 12, -31.3062, -4.38073, 25.4749, -158.929, -91.735, 54.0757
4.61169, 12, -31.2242, -4.52392, 25.6, -158.86, -91.6633, 54.0005
4.61586, 12, -31.1971, -4.57234, 25.6422, -158.836, -91.6385, 53.9746
4.62403, 13, -31.1433, -4.67034, 25.7272, -158.788, -91.5885, 53.921
4.63264, 13, -31.09, -4.76971, 25.8131, -158.739, -91.5369, 53.8663
4.6403, 13, -31.0373, -4.87048, 25.9001, -158.69, -91.4834, 53.8105
4.64955, 13, -30.9851, -4.97287, 25.9882, -158.639, -91.4294, 53.7525
4.6559, 13, -30.9334, -5.0767, 26.0775, -158.588, -91.3737, 53.6932
4.66447, 13, -30.8822, -5.18189, 26.1677, -158.535, -91.3165, 53.6332
4.67277, 14, -30.8316, -5.28855, 26.259, -158.481, -91.2588, 53.5711
4.67997, 14, -30.8066, -5.39672, 26.3513, -158.428, -91.1985, 53.5076
4.6887, 14, -30.7321, -5.50639, 26.4444, -158.373, -91.1381, 53.4436
4.69687, 14, -30.6831, -5.61758, 26.5385, -158.316, -91.0755, 53.3771
4.70411, 14, -30.6589, -5.67374, 26.5859, -158.288, -91.0435, 53.3433
4.71136, 15, -30.6106, -5.78712, 26.6817, -158.231, -90.9796, 53.2753
4.71936, 15, -30.5628, -5.90179, 26.7786, -158.172, -90.9132, 53.2055
4.72741, 15, -30.5156, -6.01769, 26.8767, -158.114, -90.8465, 53.134
4.7367, 15, -30.4457, -6.19439, 27.0255, -158.023, -90.743, 53.0248
4.7448, 15, -30.4226, -6.31387, 27.1258, -157.961, -90.6728, 52.9492
4.75136, 16, -30.377, -6.37423, 27.1763, -157.93, -90.6369, 52.9115
4.76227, 16, -30.3094, -6.5576, 27.3295, -157.835, -90.5279, 52.7945
4.76758, 16, -30.2871, -6.61937, 27.3812, -157.803, -90.4907, 52.755
4.77838, 16, -30.221, -6.80698, 27.5379, -157.706, -90.3777, 52.6343
4.78336, 16, -30.1992, -6.87027, 27.5907, -157.673, -90.3391, 52.5932
4.79292, 17, -30.1344, -7.06255, 27.7502, -157.573, -90.2221, 52.4688
4.80111, 17, -30.0919, -7.19268, 27.8576, -157.505, -90.1423, 52.384
4.80736, 17, -30.0708, -7.25833, 27.9116, -157.471, -90.1019, 52.3414
4.8192, 17, -30.0084, -7.45713, 28.0755, -157.367, -89.9788, 52.2105
4.82336, 17, -29.9878, -7.52404, 28.1308, -157.331, -89.9371, 52.1664
4.83236, 18, -29.9471, -7.65903, 28.2423, -157.261, -89.8527, 52.077
4.84041, 18, -29.9069, -7.79545, 28.3546, -157.189, -89.7669, 51.9864
4.84735, 18, -29.8672, -7.93332, 28.4678, -157.116, -89.6803, 51.8942
4.85542, 18, -29.8279, -8.07242, 28.5818, -157.042, -89.5921, 51.8008
4.86362, 18, -29.789, -8.21275, 28.6969, -156.968, -89.5028, 51.7059
4.87137, 19, -29.7506, -8.35449, 28.8133, -156.892, -89.4121, 51.61
4.87935, 19, -29.7128, -8.49778, 28.931, -156.816, -89.3204, 51.5126
4.88746, 19, -29.6754, -8.64263, 29.0494, -156.738, -89.2272, 51.4143
4.89635, 19, -29.6384, -8.78894, 29.1686, -156.66, -89.1328, 51.3145
4.90336, 19, -29.6019, -8.93635, 29.2887, -156.581, -89.0376, 51.2142
4.91157, 20, -29.566, -9.0852, 29.4098, -156.501, -88.941, 51.1121
4.91942, 20, -29.5305, -9.23556, 29.5321, -156.421, -88.8434, 51.0093
4.92735, 20, -29.4954, -9.3875, 29.6555, -156.339, -88.7449, 50.905
4.93663, 20, -29.4608, -9.54068, 29.7798, -156.256, -88.6451, 50.7996
4.94352, 20, -29.4266, -9.69491, 29.9048, -156.173, -88.5443, 50.693
4.95144, 20, -29.3929, -9.85044, 30.031, -156.089, -88.4424, 50.5851
4.96, 21, -29.3596, -10.0075, 30.158, -156.003, -88.3392, 50.4764
4.96852, 21, -29.3267, -10.1661, 30.2862, -155.917, -88.2351, 50.3664
4.97638, 21, -29.2942, -10.3258, 30.4154, -155.83, -88.13, 50.2557
4.98668, 21, -29.2464, -10.5672, 30.6106, -155.699, -87.9703, 50.0881
4.9925, 21, -29.2307, -10.6483, 30.6761, -155.654, -87.9166, 50.0317
5.00357, 22, -29.184, -10.8939, 30.8743, -155.519, -87.7539, 49.8613
5.00735, 22, -29.1686, -10.9763, 30.9408, -155.474, -87.6992, 49.8041
5.01553, 22, -29.1382, -11.1418, 31.0745, -155.383, -87.5892, 49.6889
5.02355, 22, -29.1082, -11.3083, 31.209, -155.29, -87.4778, 49.5728
5.03151, 22, -29.0786, -11.4764, 31.3446, -155.197, -87.3657, 49.4557
5.03948, 23, -29.0493, -11.6462, 31.481, -155.103, -87.2527, 49.3381
5.04753, 23, -29.0203, -11.817, 31.6181, -155.009, -87.1386, 49.2197
5.05545, 23, -28.9918, -11.9884, 31.7561, -154.913, -87.024, 49.1008
5.06367, 23, -28.9637, -12.1611, 31.8949, -154.817, -86.9083, 48.9814
5.07235, 23, -28.936, -12.3354, 32.0346, -154.72, -86.7916, 48.8612
5.07941, 24, -28.9086, -12.5109, 32.1753, -154.621, -86.6739, 48.7406
5.08818, 24, -28.8814, -12.6867, 32.3167, -154.522, -86.5554, 48.6196
5.09641, 24, -28.8546, -12.8633, 32.4587, -154.422, -86.4361, 48.4974
5.1043, 24, -28.8283, -13.0415, 32.6016, -154.322, -86.3158, 48.375
5.11241, 24, -28.8022, -13.2212, 32.7456, -154.22, -86.195, 48.2522
5.11975, 25, -28.7765, -13.4013, 32.8902, -154.118, -86.0735, 48.1289
5.12852, 25, -28.751, -13.5821, 33.0354, -154.015, -85.9509, 48.0055
5.13795, 25, -28.7258, -13.7642, 33.1812, -153.911, -85.8282, 47.8821
5.14489, 25, -28.7006, -13.9478, 33.3277, -153.807, -85.7042, 47.7583
5.15189, 25, -28.6759, -14.132, 33.4753, -153.701, -85.5799, 47.6344
5.16041, 26, -28.6515, -14.3165, 33.6235, -153.595, -85.4549, 47.5106
5.16889, 26, -28.6273, -14.5022, 33.772, -153.488, -85.3293, 47.3862
5.17591, 26, -28.6035, -14.6894, 33.9211, -153.38, -85.2033, 47.2618
5.18488, 26, -28.5798, -14.8772, 34.0713, -153.271, -85.0763, 47.1376
5.19215, 26, -28.5561, -15.0652, 34.222, -153.162, -84.9492, 47.0133
5.20028, 27, -28.5328, -15.2538, 34.3731, -153.052, -84.8212, 46.8894
5.20737, 27, -28.5213, -15.3486, 34.4489, -152.997, -84.7571, 46.8277
5.21549, 27, -28.4983, -15.5386, 34.6009, -152.886, -84.6287, 46.7043
5.22613, 27, -28.4642, -15.8241, 34.8302, -152.718, -84.4347, 46.5195
5.23134, 27, -28.453, -15.9196, 34.907, -152.662, -84.37, 46.4581
5.23935, 27, -28.4307, -16.112, 35.0604, -152.549, -84.2401, 46.3355
5.24739, 28, -28.4083, -16.3055, 35.2141, -152.435, -84.1099, 46.2133
5.25534, 28, -28.386, -16.4992, 35.3687, -152.321, -83.9791, 46.0915
5.26355, 28, -28.3639, -16.6936, 35.5241, -152.205, -83.8482, 45.9704
5.2742, 28, -28.3308, -16.987, 35.7572, -152.032, -83.651, 45.79
5.27934, 28, -28.3198, -17.085, 35.8351, -151.973, -83.5853, 45.7303
5.28975, 29, -28.287, -17.3788, 36.0697, -151.797, -83.3874, 45.5526
5.29542, 29, -28.2761, -17.477, 36.1482, -151.738, -83.3213, 45.4939
5.30584, 29, -28.2433, -17.7728, 36.3836, -151.561, -83.1224, 45.319
5.31394, 29, -28.2216, -17.9699, 36.5406, -151.442, -82.9896, 45.2034
5.3196, 29, -28.2108, -18.0685, 36.6194, -151.382, -82.9232, 45.1463
5.32731, 30, -28.1894, -18.2663, 36.7775, -151.262, -82.7898, 45.0326
5.33635, 30, -28.1677, -18.4649, 36.9359, -151.141, -82.6569, 44.9203
5.3435, 30, -28.1461, -18.6633, 37.094, -151.02, -82.5235, 44.8092
5.35191, 30, -28.1245, -18.8619, 37.2522, -150.898, -82.3901, 44.6999
5.35933, 30, -28.1028, -19.0615, 37.4108, -150.776, -82.2564, 44.592
5.36743, 31, -28.0808, -19.2617, 37.5698, -150.654, -82.1226, 44.4859
5.37544, 31, -28.0589, -19.4616, 37.7285, -150.53, -81.9891, 44.3814
5.38334, 31, -28.0372, -19.6616, 37.8872, -150.407, -81.8552, 44.2785
5.39148, 31, -28.0153, -19.862, 38.0464, -150.283, -81.7217, 44.1778
5.39939, 31, -27.9933, -20.0623, 38.206, -150.158, -81.5877, 44.0781
5.40734, 32, -27.9713, -20.2622, 38.3654, -150.032, -81.454, 43.9805
5.41534, 32, -27.9491, -20.4625, 38.5245, -149.907, -81.3201, 43.8845
5.42341, 32, -27.9266, -20.6635, 38.6839, -149.78, -81.1864, 43.7908
5.43133, 32, -27.9039, -20.8642, 38.8438, -149.653, -81.0523, 43.6984
5.43949, 32, -27.8811, -21.0646, 39.0034, -149.526, -80.9185, 43.6092
5.44739, 33, -27.858, -21.2653, 39.1625, -149.398, -80.7849, 43.522
5.45536, 33, -27.8347, -21.4659, 39.3216, -149.27, -80.6515, 43.4383
5.46462, 33, -27.811, -21.6657, 39.4807, -149.143, -80.5186, 43.357
5.47147, 33, -27.7868, -21.8649, 39.6393, -149.015, -80.386, 43.2795
5.4794, 33, -27.7622, -22.0645, 39.7969, -148.887, -80.2539, 43.2049
5.48846, 34, -27.7374, -22.2638, 39.954, -148.759, -80.1221, 43.1336
5.49546, 34, -27.7122, -22.462, 40.1112, -148.631, -79.9909, 43.066
5.50334, 34, -27.6865, -22.6599, 40.268, -148.503, -79.8596, 43.0006
5.51484, 34, -27.6474, -22.9565, 40.5019, -148.31, -79.6632, 42.909
5.5196, 34, -27.6341, -23.055, 40.5798, -148.246, -79.5976, 42.8802
5.52861, 35, -27.6071, -23.2514, 40.7358, -148.117, -79.4668, 42.8243
5.53573, 35, -27.58, -23.4479, 40.8916, -147.987, -79.3359, 42.772
5.5436, 35, -27.5525, -23.6447, 41.0466, -147.858, -79.2055, 42.7238
5.55234, 35, -27.5246, -23.8407, 41.2009, -147.728, -79.0754, 42.6791
5.55943, 35, -27.4965, -24.036, 41.3552, -147.598, -78.9454, 42.6377
5.56734, 35, -27.4678, -24.2311, 41.5092, -147.468, -78.8159, 42.6
5.57547, 36, -27.4387, -24.4258, 41.6625, -147.338, -78.6863, 42.5668
5.58337, 36, -27.4092, -24.6194, 41.815, -147.208, -78.5576, 42.5381
5.59175, 36, -27.3793, -24.8122, 41.9672, -147.078, -78.4289, 42.5137
5.5999, 36, -27.3486, -25.005, 42.1191, -146.947, -78.3008, 42.4936
5.60834, 36, -27.3172, -25.1974, 42.2701, -146.817, -78.1731, 42.4777
5.61569, 37, -27.285, -25.3886, 42.42, -146.686, -78.0456, 42.4665
5.62369, 37, -27.2521, -25.5788, 42.5693, -146.557, -77.9187, 42.4598
5.63166, 37, -27.2185, -25.7687, 42.7178, -146.427, -77.7918, 42.4569
5.63999, 37, -27.1841, -25.9575, 42.8655, -146.298, -77.6656, 42.4568
5.64882, 37, -27.1487, -26.1445, 43.0121, -146.169, -77.5395, 42.4623
5.65588, 38, -27.1126, -26.3303, 43.1574, -146.041, -77.4142, 42.4742
5.66529, 38, -27.0758, -26.5155, 43.3018, -145.913, -77.2894, 42.4913
5.67213, 38, -27.038, -26.6995, 43.4454, -145.786, -77.1651, 42.5138
5.67994, 38, -26.9994, -26.8819, 43.5879, -145.659, -77.0413, 42.5421
5.68921, 38, -26.96, -27.0634, 43.7292, -145.532, -76.918, 42.5762
5.6953, 39, -26.94, -27.1541, 43.7995, -145.469, -76.8567, 42.5956
5.7044, 39, -26.879, -27.425, 44.0093, -145.28, -76.6725, 42.6629
5.71135, 39, -26.8582, -27.5146, 44.0789, -145.217, -76.6113, 42.688
5.71949, 39, -26.816, -27.6928, 44.2173, -145.091, -76.4891, 42.7425
5.72729, 39, -26.773, -27.8707, 44.3548, -144.965, -76.3666, 42.8036
5.73652, 40, -26.707, -28.1364, 44.5589, -144.778, -76.1832, 42.9063
5.74334, 40, -26.6844, -28.2241, 44.6265, -144.715, -76.1221, 42.9436
5.75134, 40, -26.6387, -28.3983, 44.7609, -144.591, -76.0003, 43.0239
5.76473, 40, -26.5441, -28.7437, 45.0256, -144.345, -75.7575, 43.2025
5.76755, 40, -26.5441, -28.7437, 45.0256, -144.345, -75.7575, 43.2025
5.77558, 41, -26.495, -28.9138, 45.1557, -144.223, -75.6371, 43.3016
5.78333, 41, -26.4448, -29.0819, 45.2843, -144.102, -75.5169, 43.4079
5.79148, 41, -26.3934, -29.2485, 45.4113, -143.982, -75.3975, 43.5204
5.79931, 41, -26.3406, -29.414, 45.5367, -143.864, -75.2784, 43.6399
5.80739, 41, -26.2864, -29.5778, 45.6606, -143.747, -75.1598, 43.7664
5.81533, 41, -26.231, -29.7395, 45.7826, -143.631, -75.0421, 43.9003
5.82336, 42, -26.1741, -29.8996, 45.903, -143.516, -74.9243, 44.0416
5.83233, 42, -26.1159, -30.0582, 46.0216, -143.403, -74.8074, 44.19
5.8419, 42, -26.0563, -30.2151, 46.1384, -143.29, -74.6908, 44.4264
5.85025, 42, -25.9641, -30.4462, 46.3104, -143.125, -74.5165, 44.5931
5.85533, 42, -25.9327, -30.5222, 46.3667, -143.071, -74.4587, 44.6792
5.86339, 43, -25.8685, -30.6726, 46.4779, -142.964, -74.3432, 44.8573
5.87149, 43, -25.8028, -30.821, 46.587, -142.858, -74.2282, 45.0435
5.88033, 43, -25.7353, -30.9674, 46.694, -142.755, -74.1137, 45.2373
5.88977, 43, -25.6312, -31.1823, 46.8508, -142.603, -73.9427, 45.5423
5.89548, 43, -25.5956, -31.2528, 46.902, -142.553, -73.886, 45.6478
5.90339, 44, -25.5231, -31.3921, 47.0028, -142.456, -73.7728, 45.8647
5.91133, 44, -25.4487, -31.5292, 47.1011, -142.361, -73.6602, 46.0896
5.91947, 44, -25.3723, -31.6638, 47.1969, -142.268, -73.5479, 46.3224
5.92735, 44, -25.2941, -31.7957, 47.2901, -142.177, -73.4361, 46.5632
5.93545, 44, -25.214, -31.9247, 47.381, -142.089, -73.3252, 46.8122
5.94332, 45, -25.1321, -32.0511, 47.4694, -142.004, -73.2146, 47.0698
5.95132, 45, -25.0481, -32.1747, 47.5554, -141.922, -73.1047, 47.3359
5.95939, 45, -24.9621, -32.2955, 47.6386, -141.843, -72.9957, 47.6099
5.96765, 45, -24.8741, -32.4133, 47.7187, -141.766, -72.8871, 47.8923
5.97638, 45, -24.7837, -32.5281, 47.7958, -141.693, -72.7796, 48.1829
5.98332, 46, -24.691, -32.6396, 47.8699, -141.623, -72.6728, 48.4825
5.9915, 46, -24.5961, -32.7478, 47.9412, -141.556, -72.5666, 48.7903
5.99934, 46, -24.4987, -32.8528, 48.0094, -141.493, -72.4616, 49.1063
6.00753, 46, -24.3991, -32.9542, 48.0745, -141.435, -72.3572, 49.4313
6.0158, 46, -24.2972, -33.0518, 48.1362, -141.379, -72.2539, 49.7649
6.0237, 47, -24.193, -33.1457, 48.1945, -141.327, -72.1518, 50.1063
6.03235, 47, -24.0863, -33.2355, 48.2491, -141.28, -72.0504, 50.4562
6.0416, 47, -23.977, -33.3213, 48.3001, -141.236, -71.9502, 50.8145
6.04806, 47, -23.865, -33.4028, 48.3473, -141.198, -71.8512, 51.1811
6.05733, 47, -23.7502, -33.4802, 48.3907, -141.164, -71.7532, 51.5562
6.06509, 48, -23.6326, -33.5532, 48.4301, -141.135, -71.6565, 51.9397
6.07234, 48, -23.5124, -33.6217, 48.4653, -141.11, -71.5616, 52.3309
6.07933, 48, -23.3896, -33.6855, 48.4964, -141.089, -71.4681, 52.7307
6.09143, 48, -23.2008, -33.7721, 48.5356, -141.068, -71.3313, 53.3465
6.0965, 48, -23.1364, -33.7984, 48.5464, -141.064, -71.2866, 53.5558
6.1043, 49, -23.0055, -33.8473, 48.5649, -141.059, -71.1987, 53.9809
6.11232, 49, -22.8719, -33.8909, 48.579, -141.058, -71.1125, 54.4134
6.1196, 49, -22.7353, -33.9291, 48.5885, -141.062, -71.0287, 54.8536
6.12855, 49, -22.5957, -33.9617, 48.5932, -141.073, -70.9467, 55.3019
6.13579, 49, -22.4534, -33.9887, 48.5936, -141.09, -70.8672, 55.7577
6.14409, 49, -22.3084, -34.0099, 48.5892, -141.113, -70.7899, 56.2216
6.15265, 50, -22.1608, -34.0249, 48.5797, -141.142, -70.7157, 56.6925
6.15982, 50, -22.0105, -34.0338, 48.5652, -141.176, -70.6442, 57.1714
6.16854, 50, -21.8573, -34.0366, 48.5455, -141.217, -70.576, 57.6582
6.17591, 50, -21.7011, -34.0333, 48.5204, -141.265, -70.5106, 58.1524
6.18443, 50, -21.5418, -34.0234, 48.4897, -141.318, -70.4497, 58.654
6.19272, 51, -21.3796, -34.0067, 48.4537, -141.378, -70.3912, 59.1618
6.20127, 51, -21.2147, -33.9831, 48.4121, -141.444, -70.3371, 59.6771
6.20737, 51, -21.1312, -33.9685, 48.3892, -141.479, -70.3115, 59.9372
6.21533, 51, -20.9624, -33.9342, 48.339, -141.555, -70.2625, 60.4623
6.22348, 51, -20.791, -33.8927, 48.2831, -141.637, -70.2176, 60.9935
6.23129, 52, -20.6169, -33.8435, 48.2213, -141.725, -70.1774, 61.5304
6.23934, 52, -20.4401, -33.7865, 48.1536, -141.82, -70.1418, 62.0738
6.24748, 52, -20.2607, -33.7217, 48.08, -141.921, -70.1103, 62.6231
6.25675, 52, -19.9864, -33.6091, 47.9581, -142.084, -70.0725, 63.4567
6.26336, 52, -19.8938, -33.5674, 47.9144, -142.141, -70.0625, 63.7373
6.27316, 53, -19.6126, -33.4295, 47.7741, -142.323, -70.0408, 64.5874
6.27928, 53, -19.5179, -33.3792, 47.7242, -142.386, -70.0363, 64.8735
6.28736, 53, -19.3268, -33.2725, 47.6199, -142.518, -70.0314, 65.4489
6.29711, 53, -19.0363, -33.0964, 47.4519, -142.726, -70.0334, 66.3208
6.30716, 53, -18.8403, -32.968, 47.3318, -142.873, -70.0425, 66.9081
6.31285, 54, -18.7415, -32.9004, 47.2694, -143.024, -70.0583, 67.4994
6.31944, 54, -18.5423, -32.7585, 47.1395, -143.102, -70.0688, 67.7961
6.32917, 54, -18.2391, -32.529, 46.9329, -143.344, -70.1116, 68.6918
6.33532, 54, -18.1371, -32.4483, 46.861, -143.427, -70.1296, 68.9922
6.34667, 54, -17.8287, -32.1922, 46.6356, -143.684, -70.1931, 69.8979
6.35252, 55, -17.7255, -32.1023, 46.5573, -143.772, -70.2183, 70.2009
6.36154, 55, -17.414, -31.819, 46.3134, -144.044, -70.3058, 71.1156
6.36738, 55, -17.3095, -31.72, 46.2292, -144.136, -70.3384, 71.4218
6.37531, 55, -17.0996, -31.5151, 46.0557, -144.325, -70.4108, 72.0354
6.38334, 55, -16.8884, -31.3, 45.8752, -144.518, -70.4905, 72.6507
6.39161, 56, -16.6761, -31.0753, 45.6887, -144.714, -70.579, 73.2683
6.39953, 56, -16.4626, -30.8417, 45.4966, -144.914, -70.6754, 73.8874
6.40983, 56, -16.1412, -30.4726, 45.1957, -145.22, -70.836, 74.8168
6.41632, 56, -16.0341, -30.3448, 45.0921, -145.324, -70.894, 75.1272
6.42349, 56, -15.8204, -30.0827, 44.8815, -145.533, -71.016, 75.7485
6.43253, 57, -15.6067, -29.811, 44.6652, -145.744, -71.1469, 76.3697
6.43941, 57, -15.392, -29.5301, 44.4422, -145.958, -71.2863, 76.9899
6.44733, 57, -15.1765, -29.2397, 44.2138, -146.173, -71.4348, 77.6102
6.45531, 57, -14.9607, -28.9391, 43.9798, -146.39, -71.5921, 78.2301
6.46337, 57, -14.7449, -28.6296, 43.7397, -146.608, -71.7587, 78.8483
6.47142, 57, -14.5293, -28.3107, 43.4949, -146.827, -71.9344, 79.4656
6.47958, 58, -14.3142, -27.9832, 43.2447, -147.047, -72.1191, 80.0821
6.48742, 58, -14.0997, -27.6464, 42.989, -147.267, -72.3127, 80.6967
6.49532, 58, -13.8864, -27.3012, 42.729, -147.487, -72.5155, 81.3082
6.50339, 58, -13.6738, -26.948, 42.4636, -147.707, -72.7273, 81.9178
6.51131, 58, -13.4619, -26.5875, 42.1942, -147.926, -72.9478, 82.5245
6.51963, 59, -13.2511, -26.219, 41.92, -148.145, -73.1769, 83.1275
6.52736, 59, -13.0421, -25.8427, 41.6418, -148.361, -73.4142, 83.726
6.53547, 59, -12.8347, -25.459, 41.3603, -148.577, -73.6599, 84.3209
6.54677, 59, -12.6286, -25.0685, 41.0752, -148.895, -74.043, 85.2039
6.55176, 59, -12.4237, -24.6707, 40.7876, -149, -74.1747, 85.4955
6.5611, 60, -12.2201, -24.2659, 40.496, -149.208, -74.444, 86.075
6.56837, 60, -12.0182, -23.8544, 40.2017, -149.414, -74.721, 86.6496
6.57532, 60, -11.8177, -23.4368, 39.9044, -149.617, -75.0057, 87.2194
6.58339, 60, -11.619, -23.0129, 39.6048, -149.816, -75.2979, 87.7828
6.59134, 60, -11.4224, -22.5837, 39.3031, -150.013, -75.5974, 88.341
6.59969, 61, -11.2281, -22.1499, 38.9991, -150.205, -75.904, 88.8935
6.60837, 61, -11.036, -21.7114, 38.6933, -150.394, -76.217, 89.4394
6.61558, 61, -10.8459, -21.2689, 38.3857, -150.579, -76.5361, 89.9775
6.62435, 61, -10.658, -20.8229, 38.0775, -150.759, -76.8612, 90.508
6.6316, 61, -10.4725, -20.3736, 37.7685, -150.935, -77.1912, 91.0304
6.63979, 62, -10.2896, -19.9214, 37.4601, -151.105, -77.5256, 91.5439
6.64886, 62, -10.1099, -19.4666, 37.1519, -151.27, -77.8637, 92.0478
6.6567, 62, -9.93297, -19.0095, 36.8449, -151.43, -78.2047, 92.5414
6.6647, 62, -9.75888, -18.5499, 36.5383, -151.585, -78.5486, 93.026
6.67275, 62, -9.58758, -18.0886, 36.2332, -151.733, -78.8952, 93.5002
6.6825, 63, -9.41855, -17.6262, 35.929, -151.877, -79.245, 93.9651
6.6889, 63, -9.25161, -17.1621, 35.6257, -152.016, -79.5985, 94.4201
6.69856, 63, -9.08691, -16.6968, 35.3234, -152.149, -79.9557, 94.8659
6.70487, 63, -9.00547, -16.4636, 35.0211, -152.278, -80.3174, 95.3035
6.71127, 63, -8.84436, -15.9966, 34.8701, -152.34, -80.4999, 95.5187
6.71936, 63, -8.6856, -15.5278, 34.5678, -152.461, -80.868, 95.9427
6.72738, 64, -8.52934, -15.0577, 34.267, -152.577, -81.2402, 96.3576
6.7353, 64, -8.37562, -14.5866, 33.9672, -152.688, -81.6162, 96.7622
6.74333, 64, -8.22443, -14.1145, 33.6684, -152.794, -81.9957, 97.1572
6.75144, 64, -8.0757, -13.6422, 33.3713, -152.895, -82.3781, 97.5418
6.75936, 64, -7.92953, -13.1708, 33.076, -152.99, -82.7626, 97.9142
6.76732, 65, -7.78598, -12.7009, 32.784, -153.08, -83.148, 98.2746
6.77549, 65, -7.64517, -12.2332, 32.4949, -153.163, -83.5332, 98.6214
6.78328, 65, -7.50724, -11.7675, 32.2102, -153.241, -83.9175, 98.9535
6.79135, 65, -7.3724, -11.3037, 31.9295, -153.312, -84.2997, 99.2707
6.80089, 65, -7.17555, -10.6124, 31.5166, -153.407, -84.8697, 99.7185
6.80738, 66, -7.11125, -10.3837, 31.381, -153.437, -85.0585, 99.8601
6.81531, 66, -6.98442, -9.92872, 31.1123, -153.491, -85.4352, 100.132
6.82511, 66, -6.79867, -9.25447, 30.7177, -153.56, -85.9979, 100.51
6.8313, 66, -6.73791, -9.03246, 30.588, -153.581, -86.1845, 100.629
6.84031, 66, -6.61805, -8.59303, 30.3318, -153.618, -86.5564, 100.854
6.85004, 67, -6.44306, -7.94416, 29.957, -153.664, -87.1084, 101.16
6.85554, 67, -6.38608, -7.73065, 29.8346, -153.676, -87.2906, 101.253
6.8633, 67, -6.27413, -7.30794, 29.5948, -153.696, -87.652, 101.427
6.87132, 67, -6.1647, -6.88977, 29.3613, -153.711, -88.0087, 101.585
6.87946, 67, -6.0576, -6.477, 29.133, -153.721, -88.3615, 101.725
6.88826, 68, -5.95258, -6.06938, 28.9104, -153.726, -88.711, 101.848
6.89631, 68, -5.84939, -5.66717, 28.6926, -153.727, -89.0587, 101.954
6.9043, 68, -5.74786, -5.26959, 28.4779, -153.724, -89.4054, 102.042
6.9123, 68, -5.64791, -4.8773, 28.2667, -153.716, -89.7523, 102.113
6.92032, 68, -5.54963, -4.49006, 28.0588, -153.703, -90.0995, 102.166
6.92849, 69, -5.45304, -4.10811, 27.8536, -153.686, -90.4459, 102.199
6.93649, 69, -5.35837, -3.73014, 27.6529, -153.665, -90.7911, 102.216
6.9443, 69, -5.26554, -3.35637, 27.4574, -153.639, -91.134, 102.214
6.95247, 69, -5.17457, -2.98621, 27.266, -153.608, -91.4737, 102.19
6.96133, 69, -5.08538, -2.61991, 27.0787, -153.573, -91.81, 102.147
6.96752, 70, -4.99789, -2.25674, 26.8962, -153.535, -92.1434, 102.081
6.97719, 70, -4.91172, -1.89798, 26.7178, -153.493, -92.4747, 101.994
6.9843, 70, -4.82667, -1.54391, 26.5424, -153.447, -92.8049, 101.884
6.99149, 70, -4.74255, -1.1955, 26.3706, -153.398, -93.1344, 101.751
6.9993, 70, -4.65962, -0.85175, 26.2028, -153.346, -93.4636, 101.596
7.00935, 71, -4.57774, -0.514032, 26.0382, -153.289, -93.792, 101.417
7.0163, 71, -4.49692, -0.181958, 25.8769, -153.232, -94.1191, 101.216
7.02333, 71, -4.41721, 0.143765, 25.7205, -153.17, -94.444, 100.993
7.0323, 71, -4.33842, 0.463781, 25.5694, -153.106, -94.7656, 100.748
7.03938, 71, -4.26046, 0.778333, 25.4231, -153.04, -95.0837, 100.482
7.04746, 71, -4.18335, 1.08593, 25.2815, -152.972, -95.3974, 100.196
7.05569, 72, -4.10678, 1.3867, 25.1447, -152.903, -95.7067, 99.8904
7.07091, 72, -3.95414, 1.96596, 24.8834, -152.76, -96.3118, 99.2194
7.07237, 72, -3.95414, 1.96596, 24.8834, -152.76, -96.3118, 99.2194
7.07965, 72, -3.87799, 2.24524, 24.7583, -152.687, -96.6077, 98.8549
7.08848, 72, -3.80184, 2.51681, 24.6368, -152.614, -96.8996, 98.4707
7.09534, 73, -3.72579, 2.78154, 24.5188, -152.541, -97.1875, 98.0669
7.10359, 73, -3.64956, 3.03935, 24.4044, -152.467, -97.4718, 97.6434
7.11143, 73, -3.57319, 3.29004, 24.294, -152.394, -97.7527, 97.1998
7.11956, 73, -3.49668, 3.53439, 24.1872, -152.322, -98.0299, 96.7379
7.12787, 73, -3.41985, 3.7717, 24.0845, -152.25, -98.3035, 96.2569
7.1359, 74, -3.34238, 4.00074, 23.9855, -152.179, -98.5733, 95.7574
7.14374, 74, -3.26433, 4.22172, 23.8901, -152.11, -98.8384, 95.2409
7.15205, 74, -3.18549, 4.43437, 23.7985, -152.043, -99.0989, 94.7082
7.16047, 74, -3.10587, 4.63754, 23.7106, -151.977, -99.3537, 94.1613
7.16781, 74, -3.02556, 4.83125, 23.6268, -151.913, -99.6026, 93.6003
7.17659, 75, -2.94433, 5.01604, 23.547, -151.852, -99.8443, 93.0271
7.18709, 75, -2.8621, 5.1912, 23.4713, -151.795, -100.078, 92.4435
7.19185, 75, -2.82058, 5.27486, 23.3997, -151.739, -100.304, 91.8506
7.20244, 75, -2.69469, 5.51044, 23.3322, -151.687, -100.522, 91.2487
7.20813, 75, -2.60963, 5.65464, 23.2689, -151.638, -100.73, 90.6386
7.21728, 76, -2.52351, 5.78782, 23.2099, -151.592, -100.929, 90.0211
7.22331, 76, -2.48006, 5.85019, 23.182, -151.571, -101.025, 89.7093
7.23235, 76, -2.34825, 6.0196, 23.105, -151.514, -101.299, 88.7598
7.23934, 76, -2.30393, 6.07003, 23.0815, -151.496, -101.385, 88.439
7.24729, 76, -2.21464, 6.16148, 23.0376, -151.464, -101.55, 87.793
7.25552, 77, -2.12459, 6.24014, 22.9986, -151.436, -101.704, 87.1402
7.26326, 77, -2.03367, 6.30565, 22.9644, -151.412, -101.846, 86.4828
7.27134, 77, -1.94185, 6.35781, 22.9357, -151.393, -101.975, 85.8246
7.28155, 77, -1.80262, 6.40986, 22.9033, -151.372, -102.142, 84.8393
7.28735, 77, -1.75582, 6.42001, 22.8954, -151.366, -102.191, 84.512
7.29727, 77, -1.61434, 6.42885, 22.8808, -151.356, -102.313, 83.5376
7.30342, 78, -1.56685, 6.42434, 22.8788, -151.355, -102.346, 83.2159
7.31593, 78, -1.4233, 6.38791, 22.8812, -151.353, -102.422, 82.2595
7.31923, 78, -1.37518, 6.36794, 22.8851, -151.354, -102.439, 81.9442
7.32908, 78, -1.27863, 6.31581, 22.9061, -151.362, -102.466, 81.0106
7.33614, 78, -1.18175, 6.24734, 22.9164, -151.367, -102.468, 80.7031
7.34428, 79, -1.08474, 6.16239, 22.9422, -151.378, -102.457, 80.093
7.35388, 79, -0.938808, 6.0043, 22.9946, -151.4, -102.407, 79.1908
7.36028, 79, -0.89019, 5.94347, 23.0159, -151.41, -102.381, 78.894
7.36729, 79, -0.793037, 5.80947, 23.064, -151.43, -102.317, 78.305
7.37528, 79, -0.695965, 5.65887, 23.12, -151.453, -102.234, 77.7237
7.38336, 80, -0.598913, 5.49183, 23.1837, -151.48, -102.134, 77.1514
7.39131, 80, -0.501772, 5.30834, 23.2551, -151.507, -102.014, 76.59
7.39931, 80, -0.404683, 5.10849, 23.3346, -151.536, -101.876, 76.0389
7.40743, 80, -0.307671, 4.89158, 23.4222, -151.566, -101.719, 75.4987
7.41625, 80, -0.210793, 4.65619, 23.5181, -151.599, -101.543, 74.9694
7.42428, 81, -0.113961, 4.40343, 23.6225, -151.632, -101.349, 74.4516
7.4322, 81, -0.0174108, 4.13442, 23.7355, -151.666, -101.136, 73.944
7.44371, 81, 0.126902, 3.70001, 23.9221, -151.719, -100.781, 73.2008
7.44735, 81, 0.174896, 3.54728, 23.9889, -151.737, -100.653, 72.958
7.45628, 81, 0.270643, 3.22879, 24.1299, -151.774, -100.384, 72.4803
7.46342, 82, 0.366138, 2.89382, 24.2802, -151.811, -100.096, 72.0128
7.47128, 82, 0.461627, 2.5424, 24.4396, -151.847, -99.7897, 71.5549
7.48106, 82, 0.556987, 2.17499, 24.6079, -151.884, -99.465, 71.1076
7.48735, 82, 0.652146, 1.79122, 24.7856, -151.921, -99.1228, 70.67
7.49536, 82, 0.747158, 1.39052, 24.9726, -151.956, -98.7629, 70.2422
7.50348, 83, 0.84204, 0.973148, 25.169, -151.991, -98.3855, 69.8242
7.51507, 83, 0.984217, 0.318748, 25.4831, -152.044, -97.7868, 69.2127
7.5195, 83, 1.03166, 0.092906, 25.5934, -152.061, -97.5786, 69.0132
7.52736, 83, 1.12658, -0.370658, 25.8208, -152.094, -97.1493, 68.6201
7.53543, 83, 1.22159, -0.849328, 26.0583, -152.126, -96.703, 68.2348
7.5436, 84, 1.31672, -1.34306, 26.3068, -152.157, -96.2401, 67.858
7.55138, 84, 1.41208, -1.85148, 26.5657, -152.187, -95.7603, 67.4889
7.55946, 84, 1.50757, -2.37352, 26.8354, -152.215, -95.2654, 67.1271
7.56781, 84, 1.60334, -2.90969, 27.1153, -152.242, -94.7542, 66.7734
7.57628, 84, 1.69941, -3.45934, 27.4056, -152.266, -94.2285, 66.4276
7.58349, 84, 1.79595, -4.02218, 27.7062, -152.289, -93.6888, 66.0894
7.59157, 85, 1.89279, -4.59753, 28.0161, -152.31, -93.1348, 65.7603
7.60209, 85, 1.98996, -5.18329, 28.3356, -152.329, -92.5674, 65.4401
7.60822, 85, 2.08759, -5.77868, 28.6635, -152.346, -91.9892, 65.1284
7.61772, 85, 2.18577, -6.38209, 29, -152.36, -91.4015, 64.826
7.62442, 85, 2.28449, -6.99208, 29.3442, -152.371, -90.8045, 64.5336
7.63242, 86, 2.38397, -7.60838, 29.6958, -152.379, -90.1988, 64.2516
7.63957, 86, 2.4844, -8.22994, 30.0539, -152.385, -89.5854, 63.9805
7.64877, 86, 2.58593, -8.85754, 30.4177, -152.387, -88.9651, 63.7205
7.65632, 86, 2.68837, -9.49119, 30.787, -152.388, -88.3407, 63.4724
7.66382, 86, 2.79216, -10.1301, 31.1618, -152.385, -87.7115, 63.2356
7.67273, 87, 2.89698, -10.7733, 31.543, -152.378, -87.0753, 63.0099
7.67985, 87, 3.00226, -11.4198, 31.9299, -152.367, -86.4313, 62.7952
7.68839, 87, 3.10842, -12.0697, 32.3229, -152.354, -85.7791, 62.5916
7.69605, 87, 3.21508, -12.7218, 32.7223, -152.335, -85.1205, 62.3999
7.70478, 87, 3.32221, -13.3766, 33.1278, -152.313, -84.4563, 62.2201
7.71124, 88, 3.37601, -13.705, 33.3327, -152.3, -84.1219, 62.135
7.72453, 88, 3.59295, -15.0237, 34.1621, -152.241, -82.7757, 61.8301
7.72864, 88, 3.64768, -15.3541, 34.3714, -152.223, -82.4377, 61.7631
7.74052, 88, 3.81296, -16.3456, 35.0034, -152.163, -81.4232, 61.5864
7.74448, 88, 3.86826, -16.6756, 35.2151, -152.141, -81.0856, 61.5356
7.75128, 89, 3.92362, -17.0047, 35.4274, -152.117, -80.7483, 61.4893
7.76064, 89, 4.08992, -17.9874, 36.0658, -152.04, -79.736, 61.3775
7.7673, 89, 4.14542, -18.3131, 36.2792, -152.011, -79.3979, 61.3492
7.77868, 89, 4.31214, -19.2843, 36.9211, -151.919, -78.3832, 61.2925
7.78347, 89, 4.3678, -19.6058, 37.1351, -151.885, -78.0461, 61.2832
7.79124, 90, 4.47915, -20.245, 37.5631, -151.813, -77.3739, 61.2784
7.7993, 90, 4.59095, -20.8795, 37.9905, -151.737, -76.7032, 61.2964
7.80885, 90, 4.75902, -21.8219, 38.6304, -151.611, -75.7007, 61.3673
7.81686, 90, 4.87096, -22.4437, 39.0553, -151.521, -75.0359, 61.444
7.82501, 90, 4.92688, -23.0605, 39.4796, -151.424, -74.3752, 61.5466
7.83315, 91, 5.09444, -23.6726, 39.9028, -151.321, -73.7163, 61.6752
7.83963, 91, 5.15029, -23.9769, 40.1142, -151.268, -73.3869, 61.7497
7.84734, 91, 5.26176, -24.5808, 40.5361, -151.155, -72.7287, 61.9195
7.8586, 91, 5.4282, -25.4766, 41.1677, -150.974, -71.7408, 62.2272
7.86328, 91, 5.48341, -25.7722, 41.3778, -150.911, -71.4111, 62.3444
7.87129, 91, 5.59357, -26.3584, 41.7968, -150.778, -70.7529, 62.6015
7.87934, 92, 5.70363, -26.9382, 42.2146, -150.64, -70.0955, 62.8903
7.88727, 92, 5.81413, -27.5108, 42.63, -150.495, -69.4385, 63.2107
7.8953, 92, 5.9252, -28.0763, 43.0426, -150.345, -68.7822, 63.5635
7.90333, 92, 6.03669, -28.6345, 43.452, -150.19, -68.127, 63.9502
7.91276, 92, 6.14897, -29.1838, 43.8568, -150.03, -67.4756, 64.3708
7.91928, 93, 6.26247, -29.7246, 44.2568, -149.866, -66.8283, 64.8261
7.92734, 93, 6.37755, -30.2577, 44.6516, -149.7, -66.1837, 65.3168
7.93528, 93, 6.49452, -30.7827, 45.0416, -149.532, -65.5414, 65.8426
7.94326, 93, 6.61331, -31.3003, 45.4267, -149.362, -64.9014, 66.4061
7.95138, 93, 6.73411, -31.8114, 45.8067, -149.192, -64.2627, 67.0092
7.95927, 94, 6.85741, -32.3165, 46.1829, -149.022, -63.6243, 67.6543
7.9673, 94, 6.98363, -32.8159, 46.5549, -148.852, -62.983, 68.3453
7.97534, 94, 7.11261, -33.3076, 46.9237, -148.683, -62.3386, 69.0862
7.98327, 94, 7.2443, -33.7897, 47.2881, -148.516, -61.6905, 69.8759
7.99127, 94, 7.37979, -34.2618, 47.6473, -148.355, -61.0387, 70.7145
7.99934, 95, 7.52006, -34.7241, 47.9984, -148.2, -60.3883, 71.6035
8.00727, 95, 7.66584, -35.174, 48.3399, -148.056, -59.7421, 72.5343
8.01527, 95, 7.81772, -35.6109, 48.6698, -147.923, -59.1014, 73.5057
8.02361, 95, 7.97595, -36.0327, 48.9868, -147.806, -58.4675, 74.5151
8.0313, 95, 8.14084, -36.4359, 49.2886, -147.705, -57.8418, 75.5585
8.03962, 96, 8.31248, -36.8199, 49.575, -147.623, -57.2271, 76.6362
8.0474, 96, 8.49048, -37.183, 49.8444, -147.559, -56.6263, 77.7453
8.05538, 96, 8.67359, -37.5231, 50.0973, -147.517, -56.0395, 78.884
8.06345, 96, 8.86115, -37.8383, 50.3327, -147.495, -55.4678, 80.045
8.07137, 96, 9.05284, -38.1282, 50.5488, -147.492, -54.9147, 81.2214
8.07937, 96, 9.24728, -38.3942, 50.7458, -147.512, -54.3833, 82.408
8.08728, 97, 9.44288, -38.6352, 50.9233, -147.552, -53.8753, 83.6016
8.09532, 97, 9.63851, -38.8517, 51.0803, -147.615, -53.3931, 84.7971
8.10337, 97, 9.83324, -39.0441, 51.2177, -147.695, -52.9375, 85.9841
8.11137, 97, 10.0264, -39.2116, 51.336, -147.793, -52.51, 87.159
8.11977, 97, 10.2169, -39.3529, 51.4352, -147.905, -52.1114, 88.3141
8.12825, 97, 10.4037, -39.4687, 51.5158, -148.03, -51.7425, 89.4448
8.13557, 98, 10.5874, -39.5594, 51.5783, -148.166, -51.4031, 90.5435
8.14368, 98, 10.7689, -39.6262, 51.6229, -148.312, -51.0933, 91.6143
8.15164, 98, 10.9489, -39.6701, 51.6497, -148.468, -50.8108, 92.6637
8.15978, 98, 11.1272, -39.6911, 51.6591, -148.636, -50.5527, 93.706
8.16844, 98, 11.3033, -39.6885, 51.6513, -148.817, -50.3158, 94.7524
8.17582, 98, 11.4784, -39.6621, 51.6258, -149.011, -50.0989, 95.8138
8.18443, 98, 11.6534, -39.6122, 51.5824, -149.218, -49.9022, 96.8929
8.19184, 99, 11.8276, -39.5393, 51.5209, -149.437, -49.7275, 97.9901
8.20038, 99, 11.9997, -39.4439, 51.4408, -149.667, -49.5775, 99.0974
8.20859, 99, 12.0846, -39.3879, 51.3938, -149.786, -49.5128, 99.6518
8.21527, 99, 12.2518, -39.2592, 51.2863, -150.026, -49.4051, 100.757
8.22331, 99, 12.4142, -39.1086, 51.1613, -150.269, -49.3281, 101.845
8.23232, 99, 12.6451, -38.8421, 50.9441, -150.632, -49.2693, 103.431
8.2393, 100, 12.7179, -38.7416, 50.8643, -150.751, -49.2648, 103.944
8.24726, 100, 12.8571, -38.522, 50.6928, -150.985, -49.2788, 104.948
8.25649, 100, 13.0493, -38.1484, 50.4045, -151.327, -49.3572, 106.4
8.2633, 100, 13.1092, -38.0121, 50.3001, -151.438, -49.3983, 106.872
8.27126, 100, 13.2231, -37.7232, 50.0783, -151.656, -49.5041, 107.801
8.28136, 100, 13.3793, -37.246, 49.7095, -151.971, -49.7208, 109.16
8.28727, 101, 13.4276, -37.0746, 49.5774, -152.073, -49.8088, 109.605
8.29677, 101, 13.5611, -36.5216, 49.1524, -152.369, -50.1203, 110.912
8.30482, 101, 13.6408, -36.12, 48.8456, -152.556, -50.3678, 111.763
8.31389, 101, 13.7123, -35.6929, 48.5195, -152.733, -50.6474, 112.591
8.32082, 101, 13.7449, -35.2418, 48.1755, -152.901, -50.9596, 113.398
8.33773, 102, 13.8733, -34.2691, 47.4361, -153.199, -51.6822, 114.937
8.33899, 102, 13.8733, -34.2691, 47.4361, -153.199, -51.6822, 114.937
8.34424, 102, 13.8915, -34.0109, 47.241, -153.266, -51.8829, 115.305
8.35231, 102, 13.9202, -33.4758, 46.8393, -153.388, -52.3079, 116.021
8.36036, 102, 13.9393, -32.9175, 46.423, -153.497, -52.7645, 116.708
8.36732, 102, 13.9495, -32.3375, 45.993, -153.592, -53.2515, 117.367
8.37521, 103, 13.9517, -31.7357, 45.5489, -153.672, -53.7669, 118.001
8.38325, 103, 13.9469, -31.114, 45.0907, -153.739, -54.3092, 118.609
8.39132, 103, 13.9355, -30.474, 44.6196, -153.793, -54.8769, 119.191
8.39927, 103, 13.9184, -29.8175, 44.1366, -153.833, -55.4677, 119.75
8.40728, 103, 13.8959, -29.1457, 43.6438, -153.86, -56.0789, 120.283
8.41532, 103, 13.8685, -28.4604, 43.1432, -153.877, -56.7081, 120.791
8.42335, 104, 13.8366, -27.7642, 42.6368, -153.883, -57.3507, 121.273
8.43127, 104, 13.8006, -27.0594, 42.127, -153.878, -58.0052, 121.73
8.43932, 104, 13.7605, -26.348, 41.615, -153.863, -58.6723, 122.164
8.44727, 104, 13.7171, -25.6313, 41.1023, -153.839, -59.3494, 122.576
8.4553, 104, 13.6716, -24.9122, 40.59, -153.807, -60.0344, 122.97
8.46332, 104, 13.6244, -24.1914, 40.0782, -153.767, -60.7246, 123.348
8.47128, 104, 13.5753, -23.4691, 39.5677, -153.721, -61.4192, 123.715
8.47925, 104, 13.5252, -22.7461, 39.0586, -153.67, -62.1181, 124.074
8.48736, 104, 13.4743, -22.0228, 38.5508, -153.612, -62.8195, 124.428
8.49526, 104, 13.4229, -21.299, 38.0446, -153.552, -63.5227, 124.779
8.50325, 104, 13.371, -20.5758, 37.54, -153.486, -64.2259, 125.129
8.51132, 104, 13.3189, -19.8528, 37.0371, -153.416, -64.9296, 125.476
8.51925, 104, 13.2667, -19.1292, 36.5363, -153.343, -65.6355, 125.822
8.52728, 104, 13.2143, -18.4053, 36.0372, -153.265, -66.3421, 126.168
8.53535, 104, 13.1623, -17.6814, 35.5407, -153.184, -67.0498, 126.513
8.54335, 104, 13.1104, -16.9568, 35.0463, -153.098, -67.7572, 126.857
8.55135, 104, 13.0589, -16.2326, 34.5536, -153.009, -68.4642, 127.201
8.55942, 104, 13.0078, -15.5082, 34.0631, -152.915, -69.1734, 127.544
8.56738, 104, 12.957, -14.7834, 33.575, -152.818, -69.8839, 127.887
8.57582, 104, 12.9065, -14.0579, 33.0894, -152.717, -70.5945, 128.23
8.58424, 104, 12.8566, -13.3325, 32.6064, -152.612, -71.3039, 128.574
8.59126, 104, 12.8069, -12.6065, 32.126, -152.503, -72.0145, 128.918
8.60003, 104, 12.7573, -11.8807, 31.6482, -152.391, -72.7267, 129.262
8.60825, 104, 12.7081, -11.1557, 31.173, -152.275, -73.4387, 129.607
8.61538, 104, 12.6592, -10.4304, 30.7001, -152.154, -74.1514, 129.953
8.62412, 104, 12.6106, -9.7048, 30.2305, -152.03, -74.864, 130.298
8.6315, 104, 12.5624, -8.97909, 29.7638, -151.901, -75.5768, 130.646
8.63954, 104, 12.5148, -8.25286, 29.3002, -151.769, -76.2908, 130.994
8.64763, 104, 12.4677, -7.52689, 28.84, -151.633, -77.0053, 131.343
8.65572, 104, 12.4212, -6.80171, 28.3829, -151.492, -77.7205, 131.693
8.66374, 104, 12.3755, -6.07701, 27.929, -151.347, -78.4345, 132.044
8.67236, 104, 12.3301, -5.35269, 27.4791, -151.198, -79.1479, 132.397
8.67982, 104, 12.2855, -4.6297, 27.0331, -151.045, -79.8622, 132.75
8.68837, 104, 12.2419, -3.90857, 26.5918, -150.888, -80.5766, 133.105
8.69685, 104, 12.1993, -3.19084, 26.1557, -150.727, -81.2888, 133.46
8.70442, 104, 12.1578, -2.47892, 25.725, -150.562, -81.9961, 133.816
8.71176, 104, 12.1376, -2.1253, 25.5121, -150.479, -82.3485, 133.994
8.72026, 104, 12.0784, -1.0755, 24.8845, -150.223, -83.3999, 134.526
8.72725, 104, 12.0592, -0.7299, 24.6794, -150.137, -83.7465, 134.702
8.73526, 104, 12.0215, -0.0464844, 24.2767, -149.963, -84.4318, 135.053
8.7444, 104, 11.9667, 0.958325, 23.6931, -149.7, -85.4366, 135.57
8.75124, 104, 11.949, 1.28702, 23.5046, -149.612, -85.7645, 135.74
8.76048, 104, 11.8977, 2.25319, 22.9578, -149.348, -86.7268, 136.242
8.76731, 104, 11.8812, 2.56761, 22.7818, -149.26, -87.0398, 136.407
8.77666, 104, 11.8332, 3.48696, 22.2724, -148.998, -87.9554, 136.889
8.78325, 104, 11.8179, 3.78538, 22.1092, -148.911, -88.2524, 137.046
8.79342, 104, 11.7737, 4.65526, 21.6384, -148.653, -89.1165, 137.509
8.79924, 104, 11.7597, 4.93706, 21.4876, -148.567, -89.396, 137.659
8.80729, 104, 11.7327, 5.48776, 21.1943, -148.398, -89.9438, 137.955
8.8153, 104, 11.7066, 6.02112, 20.9132, -148.23, -90.4755, 138.244
8.82547, 104, 11.6698, 6.78946, 20.5136, -147.983, -91.2422, 138.665
8.83124, 104, 11.6581, 7.03719, 20.3862, -147.902, -91.4896, 138.801
8.8393, 104, 11.6356, 7.5198, 20.1401, -147.742, -91.9711, 139.067
8.84831, 104, 11.6143, 7.98615, 19.9046, -147.585, -92.4355, 139.326
8.85524, 104, 11.594, 8.43569, 19.68, -147.43, -92.8837, 139.578
8.86332, 104, 11.575, 8.86784, 19.4667, -147.28, -93.3152, 139.822
8.87127, 104, 11.557, 9.28256, 19.2635, -147.132, -93.7299, 140.057
8.87924, 104, 11.5401, 9.68027, 19.0705, -146.99, -94.1276, 140.284
8.88731, 104, 11.5243, 10.0599, 18.8885, -146.851, -94.5081, 140.502
8.89524, 104, 11.5095, 10.4207, 18.717, -146.717, -94.87, 140.711
8.90327, 104, 11.4958, 10.7621, 18.5556, -146.589, -95.2136, 140.91
8.9113, 104, 11.483, 11.0846, 18.405, -146.466, -95.5374, 141.099
8.91924, 104, 11.4713, 11.3865, 18.2655, -146.35, -95.8411, 141.276
8.92723, 104, 11.4606, 11.6679, 18.1363, -146.241, -96.124, 141.442
8.93531, 104, 11.451, 11.9282, 18.0177, -146.139, -96.3856, 141.597
8.94324, 104, 11.4421, 12.1671, 17.9099, -146.045, -96.6254, 141.739
8.95123, 104, 11.4339, 12.385, 17.8125, -145.958, -96.8435, 141.868
8.95935, 104, 11.4266, 12.5821, 17.7255, -145.88, -97.0394, 141.985
8.96724, 104, 11.4201, 12.7577, 17.6487, -145.81, -97.2132, 142.089
8.97527, 104, 11.4142, 12.9125, 17.5821, -145.749, -97.3653, 142.179
8.98341, 104, 11.4089, 13.0477, 17.5251, -145.696, -97.4953, 142.258
8.99124, 104, 11.404, 13.1637, 17.4775, -145.652, -97.6045, 142.323
8.99924, 104, 11.3995, 13.2616, 17.4386, -145.616, -97.6934, 142.376
9.0073, 104, 11.3956, 13.3424, 17.4075, -145.587, -97.7643, 142.419
9.01524, 104, 11.3918, 13.4085, 17.3838, -145.565, -97.8178, 142.452
9.02327, 104, 11.3885, 13.4614, 17.3664, -145.548, -97.8572, 142.475
9.03133, 104, 11.3857, 13.5028, 17.354, -145.536, -97.885, 142.492
9.0393, 104, 11.3835, 13.5337, 17.3459, -145.529, -97.9038, 142.503
9.04737, 104, 11.3816, 13.5568, 17.3408, -145.524, -97.9157, 142.509
9.05538, 104, 11.3802, 13.5734, 17.3377, -145.521, -97.9224, 142.512
9.06335, 104, 11.379, 13.5846, 17.3361, -145.52, -97.9259, 142.514
9.07136, 104, 11.3782, 13.5923, 17.3353, -145.519, -97.9276, 142.515
9.07941, 105, 11.3776, 13.5974, 17.3349, -145.519, -97.9283, 142.516
9.08724, 105, 11.3773, 13.6007, 17.3347, -145.518, -97.9287, 142.516
9.09526, 105, 11.3769, 13.603, 17.3347, -145.518, -97.9288, 142.516
9.10346, 105, 11.3767, 13.605, 17.3346, -145.518, -97.9288, 142.516
9.11135, 105, 11.3765, 13.6067, 17.3346, -145.518, -97.9289, 142.516
9.11937, 105, 11.3763, 13.6081, 17.3346, -145.518, -97.9288, 142.516
9.12747, 105, 11.3762, 13.6094, 17.3346, -145.518, -97.9288, 142.516
9.13557, 105, 11.3761, 13.6105, 17.3346, -145.518, -97.9287, 142.516
9.14362, 105, 11.3761, 13.6114, 17.3346, -145.518, -97.9285, 142.516
9.15162, 105, 11.376, 13.6122, 17.3347, -145.518, -97.9284, 142.516
9.15964, 105, 11.376, 13.6127, 17.3347, -145.519, -97.9282, 142.516
9.16776, 105, 11.376, 13.6131, 17.3348, -145.519, -97.9281, 142.516
9.17635, 105, 11.376, 13.6133, 17.3348, -145.518, -97.9279, 142.516
9.18388, 105, 11.376, 13.6134, 17.3349, -145.519, -97.9278, 142.516
9.19178, 105, 11.376, 13.6134, 17.3349, -145.519, -97.9277, 142.516
