hehonglu123/Motion-Primitive-Planning/simulation/robotstudio_sim/scripts/fitting_output_new/threshold0.05/curve_exe_v50_fine.csv
timestamp, cmd_num, J1, J2, J3, J4, J5, J6
0, 1, -22.0728, 43.349, 24.0533, -33.0633, -59.3054, 146.227
0.003, 1, -22.0728, 43.349, 24.0533, -33.0633, -59.3054, 146.227
0.004, 1, -22.0728, 43.349, 24.0533, -33.0633, -59.3054, 146.227
0.008, 1, -22.0728, 43.349, 24.0533, -33.0633, -59.3054, 146.227
0.011, 1, -22.0728, 43.349, 24.0533, -33.0633, -59.3054, 146.227
0.016, 1, -22.0728, 43.349, 24.0533, -33.0633, -59.3054, 146.227
0.02, 1, -22.0728, 43.349, 24.0533, -33.0633, -59.3054, 146.227
0.024, 1, -22.0728, 43.349, 24.0533, -33.0633, -59.3054, 146.227
0.028, 1, -22.0728, 43.349, 24.0533, -33.0633, -59.3054, 146.227
0.032, 1, -22.0728, 43.349, 24.0533, -33.0633, -59.3054, 146.227
0.036, 1, -22.0727, 43.349, 24.0533, -33.0633, -59.3054, 146.227
0.04, 1, -22.0725, 43.3489, 24.0533, -33.0633, -59.3054, 146.227
0.044, 1, -22.072, 43.3489, 24.0533, -33.0633, -59.3054, 146.227
0.048, 1, -22.071, 43.3489, 24.0533, -33.0632, -59.3054, 146.227
0.052, 1, -22.0694, 43.3488, 24.0533, -33.063, -59.3054, 146.227
0.056, 1, -22.0672, 43.3487, 24.0532, -33.0625, -59.3054, 146.227
0.06, 1, -22.0642, 43.3485, 24.053, -33.0616, -59.3054, 146.226
0.064, 1, -22.0604, 43.3483, 24.0527, -33.06, -59.3054, 146.225
0.068, 1, -22.0558, 43.3481, 24.0521, -33.0574, -59.3053, 146.222
0.072, 1, -22.0502, 43.3479, 24.0511, -33.0534, -59.3051, 146.219
0.076, 1, -22.0434, 43.3477, 24.0496, -33.0476, -59.3049, 146.215
0.08, 1, -22.0351, 43.3475, 24.0474, -33.0395, -59.3045, 146.208
0.084, 1, -22.0252, 43.3474, 24.0444, -33.0284, -59.304, 146.2
0.088, 1, -22.0133, 43.3474, 24.0404, -33.0137, -59.3032, 146.188
0.092, 1, -21.9994, 43.3475, 24.0351, -32.9946, -59.3022, 146.173
0.096, 1, -21.9833, 43.3478, 24.0284, -32.9705, -59.3009, 146.154
0.1, 1, -21.965, 43.3483, 24.0199, -32.9407, -59.2992, 146.131
0.104, 1, -21.9443, 43.349, 24.0096, -32.9043, -59.2971, 146.103
0.108, 1, -21.921, 43.3501, 23.9972, -32.8609, -59.2945, 146.069
0.112, 1, -21.8951, 43.3516, 23.9826, -32.8099, -59.2914, 146.029
0.116, 1, -21.8664, 43.3534, 23.9656, -32.7508, -59.2878, 145.983
0.12, 1, -21.8349, 43.3556, 23.9461, -32.6835, -59.2837, 145.93
0.124, 1, -21.8008, 43.3582, 23.9241, -32.6076, -59.279, 145.871
0.128, 1, -21.7641, 43.3613, 23.8996, -32.5231, -59.2738, 145.805
0.131, 1, -21.7249, 43.3648, 23.8726, -32.4303, -59.268, 145.733
0.136, 1, -21.6831, 43.3687, 23.8432, -32.3295, -59.2616, 145.654
0.139, 1, -21.6388, 43.373, 23.8115, -32.2211, -59.2548, 145.57
0.144, 1, -21.5919, 43.3776, 23.7778, -32.1057, -59.2475, 145.48
0.148, 1, -21.5426, 43.3824, 23.7422, -31.984, -59.2399, 145.385
0.152, 1, -21.4909, 43.3875, 23.705, -31.8566, -59.2318, 145.286
0.156, 1, -21.4371, 43.3928, 23.6664, -31.7244, -59.2235, 145.183
0.16, 1, -21.3815, 43.3982, 23.6265, -31.588, -59.2149, 145.076
0.164, 1, -21.3241, 43.4037, 23.5857, -31.4481, -59.2061, 144.967
0.168, 1, -21.2651, 43.4093, 23.5441, -31.3055, -59.1972, 144.856
0.172, 1, -21.2047, 43.4148, 23.5018, -31.1606, -59.1881, 144.743
0.176, 1, -21.1428, 43.4204, 23.4591, -31.0141, -59.179, 144.629
0.18, 1, -21.0797, 43.426, 23.4161, -30.8664, -59.1698, 144.514
0.184, 1, -21.0155, 43.4315, 23.3728, -30.7178, -59.1605, 144.398
0.188, 1, -20.9503, 43.4369, 23.3294, -30.5685, -59.1513, 144.282
0.192, 1, -20.8844, 43.4424, 23.2858, -30.4188, -59.142, 144.165
0.196, 1, -20.818, 43.4478, 23.2422, -30.2687, -59.1327, 144.048
0.2, 1, -20.7513, 43.4533, 23.1985, -30.1183, -59.1234, 143.931
0.204, 1, -20.6842, 43.4587, 23.1547, -29.9677, -59.1141, 143.813
0.208, 1, -20.617, 43.4641, 23.1109, -29.8169, -59.1047, 143.696
0.212, 1, -20.5497, 43.4695, 23.0671, -29.666, -59.0954, 143.578
0.216, 1, -20.4823, 43.4749, 23.0232, -29.5149, -59.0861, 143.46
0.22, 1, -20.4147, 43.4804, 22.9793, -29.3638, -59.0767, 143.342
0.224, 1, -20.3471, 43.4858, 22.9353, -29.2125, -59.0674, 143.224
0.228, 1, -20.2794, 43.4912, 22.8913, -29.0611, -59.058, 143.106
0.232, 1, -20.2117, 43.4966, 22.8473, -28.9096, -59.0487, 142.988
0.236, 1, -20.1439, 43.502, 22.8033, -28.758, -59.0393, 142.87
0.24, 1, -20.0761, 43.5075, 22.7592, -28.6062, -59.0299, 142.752
0.244, 1, -20.0082, 43.5129, 22.7151, -28.4544, -59.0205, 142.633
0.248, 1, -19.9402, 43.5184, 22.6709, -28.3025, -59.0111, 142.515
0.252, 1, -19.8723, 43.5238, 22.6268, -28.1505, -59.0017, 142.396
0.256, 1, -19.8042, 43.5293, 22.5826, -27.9984, -58.9923, 142.278
0.26, 1, -19.7362, 43.5347, 22.5384, -27.8461, -58.9829, 142.159
0.264, 1, -19.668, 43.5402, 22.4941, -27.6938, -58.9735, 142.04
0.268, 1, -19.5999, 43.5456, 22.4498, -27.5414, -58.9641, 141.921
0.272, 1, -19.5317, 43.5511, 22.4055, -27.3889, -58.9547, 141.802
0.276, 1, -19.4634, 43.5565, 22.3612, -27.2362, -58.9452, 141.683
0.28, 1, -19.3951, 43.562, 22.3168, -27.0835, -58.9358, 141.564
0.284, 1, -19.3268, 43.5675, 22.2724, -26.9307, -58.9263, 141.445
0.288, 1, -19.2584, 43.573, 22.228, -26.7777, -58.9169, 141.326
0.292, 1, -19.1899, 43.5784, 22.1835, -26.6247, -58.9074, 141.206
0.296, 1, -19.1215, 43.5839, 22.139, -26.4716, -58.898, 141.087
0.3, 1, -19.0529, 43.5894, 22.0945, -26.3184, -58.8885, 140.968
0.304, 1, -18.9844, 43.5949, 22.05, -26.165, -58.879, 140.848
0.308, 1, -18.9157, 43.6004, 22.0054, -26.0116, -58.8695, 140.728
0.312, 1, -18.8471, 43.6059, 21.9608, -25.858, -58.86, 140.609
0.316, 1, -18.7784, 43.6114, 21.9161, -25.7044, -58.8505, 140.489
0.32, 1, -18.7096, 43.6169, 21.8715, -25.5507, -58.841, 140.369
0.324, 1, -18.6408, 43.6224, 21.8268, -25.3968, -58.8315, 140.249
0.328, 1, -18.572, 43.6279, 21.782, -25.2429, -58.822, 140.129
0.332, 1, -18.5031, 43.6334, 21.7373, -25.0888, -58.8125, 140.009
0.336, 1, -18.4341, 43.6389, 21.6925, -24.9347, -58.803, 139.889
0.34, 1, -18.3651, 43.6445, 21.6477, -24.7804, -58.7934, 139.768
0.344, 1, -18.2961, 43.65, 21.6028, -24.626, -58.7839, 139.648
0.348, 1, -18.227, 43.6555, 21.558, -24.4716, -58.7743, 139.527
0.352, 1, -18.1579, 43.6611, 21.5131, -24.317, -58.7648, 139.407
0.356, 1, -18.0887, 43.6666, 21.4681, -24.1623, -58.7552, 139.286
0.36, 1, -18.0195, 43.6721, 21.4232, -24.0075, -58.7457, 139.166
0.364, 1, -17.9502, 43.6777, 21.3782, -23.8527, -58.7361, 139.045
0.368, 1, -17.8809, 43.6832, 21.3331, -23.6977, -58.7265, 138.924
0.372, 1, -17.8116, 43.6888, 21.2881, -23.5426, -58.7169, 138.803
0.376, 1, -17.7422, 43.6943, 21.243, -23.3874, -58.7073, 138.682
0.38, 1, -17.6727, 43.6999, 21.1979, -23.2321, -58.6977, 138.561
0.384, 1, -17.6032, 43.7055, 21.1527, -23.0767, -58.6881, 138.44
0.388, 1, -17.5337, 43.711, 21.1076, -22.9212, -58.6785, 138.318
0.392, 1, -17.4641, 43.7166, 21.0623, -22.7656, -58.6689, 138.197
0.396, 1, -17.3944, 43.7222, 21.0171, -22.6098, -58.6593, 138.076
0.4, 1, -17.3247, 43.7278, 20.9718, -22.454, -58.6496, 137.954
0.404, 1, -17.255, 43.7333, 20.9265, -22.2981, -58.64, 137.833
0.408, 1, -17.1852, 43.7389, 20.8812, -22.142, -58.6303, 137.711
0.412, 1, -17.1154, 43.7445, 20.8358, -21.9859, -58.6207, 137.589
0.416, 1, -17.0455, 43.7501, 20.7904, -21.8296, -58.611, 137.467
0.42, 1, -16.9756, 43.7557, 20.745, -21.6733, -58.6014, 137.345
0.424, 1, -16.9056, 43.7613, 20.6996, -21.5168, -58.5917, 137.223
0.428, 1, -16.8356, 43.7669, 20.6541, -21.3602, -58.582, 137.101
0.432, 1, -16.7655, 43.7725, 20.6086, -21.2036, -58.5723, 136.979
0.436, 1, -16.6954, 43.7781, 20.563, -21.0468, -58.5626, 136.857
0.44, 1, -16.6253, 43.7838, 20.5174, -20.8899, -58.553, 136.734
0.444, 1, -16.5551, 43.7894, 20.4718, -20.7329, -58.5432, 136.612
0.448, 1, -16.4848, 43.795, 20.4262, -20.5758, -58.5335, 136.49
0.452, 1, -16.4145, 43.8006, 20.3805, -20.4186, -58.5238, 136.367
0.456, 1, -16.3442, 43.8063, 20.3348, -20.2613, -58.5141, 136.244
0.46, 1, -16.2738, 43.8119, 20.2891, -20.1039, -58.5044, 136.122
0.464, 1, -16.2033, 43.8175, 20.2433, -19.9463, -58.4946, 135.999
0.468, 1, -16.1328, 43.8232, 20.1975, -19.7887, -58.4849, 135.876
0.472, 1, -16.0623, 43.8288, 20.1517, -19.631, -58.4751, 135.753
0.476, 1, -15.9917, 43.8345, 20.1058, -19.4731, -58.4654, 135.63
0.48, 1, -15.9211, 43.8401, 20.0599, -19.3152, -58.4556, 135.507
0.484, 1, -15.8504, 43.8458, 20.014, -19.1571, -58.4458, 135.383
0.488, 1, -15.7797, 43.8515, 19.9681, -18.999, -58.4361, 135.26
0.492, 1, -15.7089, 43.8571, 19.9221, -18.8407, -58.4263, 135.137
0.496, 1, -15.6381, 43.8628, 19.8761, -18.6823, -58.4165, 135.013
0.5, 1, -15.5672, 43.8685, 19.83, -18.5238, -58.4067, 134.889
0.504, 1, -15.4963, 43.8741, 19.784, -18.3652, -58.3969, 134.766
0.508, 1, -15.4253, 43.8798, 19.7379, -18.2065, -58.3871, 134.642
0.512, 1, -15.3543, 43.8855, 19.6917, -18.0477, -58.3773, 134.518
0.516, 1, -15.2832, 43.8912, 19.6456, -17.8888, -58.3675, 134.394
0.52, 1, -15.2121, 43.8969, 19.5994, -17.7298, -58.3576, 134.27
0.524, 1, -15.1409, 43.9026, 19.5531, -17.5707, -58.3478, 134.146
0.528, 1, -15.0697, 43.9083, 19.5069, -17.4115, -58.3379, 134.022
0.532, 1, -14.9985, 43.914, 19.4606, -17.2521, -58.3281, 133.898
0.536, 1, -14.9272, 43.9197, 19.4143, -17.0927, -58.3182, 133.773
0.54, 1, -14.8558, 43.9254, 19.3679, -16.9332, -58.3084, 133.649
0.544, 1, -14.7844, 43.9311, 19.3215, -16.7735, -58.2985, 133.525
0.548, 1, -14.713, 43.9369, 19.2751, -16.6137, -58.2886, 133.4
0.552, 1, -14.6415, 43.9426, 19.2287, -16.4539, -58.2788, 133.275
0.556, 1, -14.57, 43.9483, 19.1822, -16.2939, -58.2689, 133.151
0.56, 1, -14.4984, 43.954, 19.1357, -16.1338, -58.259, 133.026
0.564, 1, -14.4267, 43.9598, 19.0892, -15.9736, -58.2491, 132.901
0.568, 1, -14.3551, 43.9655, 19.0426, -15.8133, -58.2392, 132.776
0.572, 1, -14.2833, 43.9713, 18.996, -15.6529, -58.2293, 132.651
0.576, 1, -14.2115, 43.977, 18.9494, -15.4924, -58.2193, 132.526
0.58, 1, -14.1397, 43.9827, 18.9027, -15.3318, -58.2094, 132.4
0.584, 1, -14.0678, 43.9885, 18.856, -15.1711, -58.1995, 132.275
0.588, 1, -13.9959, 43.9943, 18.8093, -15.0103, -58.1895, 132.15
0.592, 1, -13.9239, 44, 18.7625, -14.8493, -58.1796, 132.024
0.596, 1, -13.8519, 44.0058, 18.7157, -14.6883, -58.1696, 131.899
0.6, 1, -13.7799, 44.0116, 18.6689, -14.5271, -58.1597, 131.773
0.604, 1, -13.7077, 44.0173, 18.6221, -14.3659, -58.1497, 131.647
0.608, 1, -13.6356, 44.0231, 18.5752, -14.2045, -58.1397, 131.521
0.612, 1, -13.5634, 44.0289, 18.5283, -14.043, -58.1297, 131.395
0.616, 1, -13.4911, 44.0347, 18.4813, -13.8814, -58.1198, 131.269
0.62, 1, -13.4188, 44.0405, 18.4344, -13.7197, -58.1098, 131.143
0.624, 1, -13.3465, 44.0463, 18.3873, -13.5579, -58.0998, 131.017
0.628, 1, -13.2741, 44.0521, 18.3403, -13.396, -58.0897, 130.891
0.632, 1, -13.2016, 44.0579, 18.2932, -13.234, -58.0797, 130.764
0.636, 1, -13.1291, 44.0637, 18.2461, -13.0719, -58.0697, 130.638
0.64, 1, -13.0566, 44.0695, 18.199, -12.9097, -58.0597, 130.512
0.644, 1, -12.984, 44.0753, 18.1518, -12.7473, -58.0497, 130.385
0.648, 1, -12.9114, 44.0811, 18.1047, -12.5849, -58.0396, 130.258
0.652, 1, -12.8387, 44.0869, 18.0574, -12.4224, -58.0296, 130.132
0.656, 1, -12.766, 44.0927, 18.0102, -12.2597, -58.0195, 130.005
0.66, 1, -12.6932, 44.0986, 17.9629, -12.097, -58.0094, 129.878
0.664, 1, -12.6204, 44.1044, 17.9156, -11.9341, -57.9994, 129.751
0.668, 1, -12.5475, 44.1102, 17.8682, -11.7711, -57.9893, 129.624
0.672, 1, -12.4746, 44.1161, 17.8209, -11.6081, -57.9792, 129.497
0.676, 1, -12.4016, 44.1219, 17.7735, -11.4449, -57.9691, 129.369
0.68, 1, -12.3286, 44.1278, 17.726, -11.2816, -57.9591, 129.242
0.684, 1, -12.2555, 44.1336, 17.6786, -11.1182, -57.949, 129.115
0.688, 1, -12.1824, 44.1395, 17.6311, -10.9548, -57.9389, 128.987
0.692, 1, -12.1093, 44.1453, 17.5835, -10.7912, -57.9287, 128.86
0.696, 1, -12.0361, 44.1512, 17.536, -10.6275, -57.9186, 128.732
0.7, 1, -11.9628, 44.157, 17.4884, -10.4637, -57.9085, 128.604
0.704, 1, -11.8896, 44.1629, 17.4408, -10.2998, -57.8984, 128.476
0.708, 1, -11.8162, 44.1688, 17.3931, -10.1358, -57.8882, 128.349
0.712, 1, -11.7429, 44.1747, 17.3455, -9.97171, -57.8781, 128.221
0.716, 1, -11.6694, 44.1805, 17.2978, -9.80751, -57.8679, 128.093
0.72, 1, -11.596, 44.1864, 17.25, -9.64321, -57.8578, 127.964
0.724, 1, -11.5225, 44.1923, 17.2023, -9.47881, -57.8476, 127.836
0.728, 1, -11.4489, 44.1982, 17.1545, -9.31431, -57.8375, 127.708
0.732, 1, -11.3753, 44.2041, 17.1067, -9.14971, -57.8273, 127.58
0.736, 1, -11.3016, 44.21, 17.0588, -8.98501, -57.8171, 127.451
0.74, 1, -11.228, 44.2159, 17.0109, -8.8202, -57.8069, 127.323
0.744, 1, -11.1542, 44.2218, 16.963, -8.6553, -57.7967, 127.194
0.748, 1, -11.0804, 44.2277, 16.9151, -8.4903, -57.7865, 127.065
0.752, 1, -11.0066, 44.2336, 16.8671, -8.32521, -57.7763, 126.937
0.756, 1, -10.9327, 44.2395, 16.8191, -8.16001, -57.7661, 126.808
0.76, 1, -10.8588, 44.2454, 16.7711, -7.99471, -57.7559, 126.679
0.764, 1, -10.7849, 44.2514, 16.7231, -7.82932, -57.7457, 126.55
0.768, 1, -10.7109, 44.2573, 16.675, -7.66383, -57.7354, 126.421
0.772, 1, -10.6368, 44.2632, 16.6269, -7.49824, -57.7252, 126.292
0.776, 1, -10.5628, 44.2691, 16.5787, -7.33256, -57.715, 126.163
0.78, 1, -10.4886, 44.2751, 16.5306, -7.16678, -57.7047, 126.033
0.784, 1, -10.4145, 44.281, 16.4824, -7.0009, -57.6945, 125.904
0.788, 1, -10.3402, 44.287, 16.4342, -6.83493, -57.6842, 125.775
0.792, 1, -10.266, 44.2929, 16.3859, -6.66886, -57.6739, 125.645
0.796, 1, -10.1917, 44.2989, 16.3376, -6.5027, -57.6637, 125.515
0.8, 1, -10.1173, 44.3048, 16.2893, -6.33644, -57.6534, 125.386
0.804, 1, -10.043, 44.3108, 16.241, -6.17008, -57.6431, 125.256
0.808, 1, -9.96854, 44.3167, 16.1927, -6.00364, -57.6328, 125.126
0.812, 1, -9.89407, 44.3227, 16.1443, -5.8371, -57.6225, 124.996
0.816, 1, -9.81956, 44.3287, 16.0959, -5.67046, -57.6122, 124.867
0.82, 1, -9.74501, 44.3346, 16.0474, -5.50373, -57.6019, 124.736
0.824, 1, -9.67042, 44.3406, 15.999, -5.33691, -57.5916, 124.606
0.828, 1, -9.59578, 44.3466, 15.9505, -5.17, -57.5813, 124.476
0.832, 1, -9.52111, 44.3526, 15.9019, -5.00299, -57.571, 124.346
0.836, 1, -9.44639, 44.3585, 15.8534, -4.8359, -57.5606, 124.216
0.84, 1, -9.37163, 44.3645, 15.8048, -4.66871, -57.5503, 124.085
0.844, 1, -9.29683, 44.3705, 15.7562, -4.50143, -57.54, 123.955
0.848, 1, -9.22199, 44.3765, 15.7076, -4.33405, -57.5296, 123.824
0.852, 1, -9.14711, 44.3825, 15.659, -4.16659, -57.5193, 123.694
0.856, 1, -9.07219, 44.3885, 15.6103, -3.99904, -57.5089, 123.563
0.86, 1, -8.99723, 44.3945, 15.5616, -3.83139, -57.4985, 123.432
0.864, 1, -8.92223, 44.4005, 15.5128, -3.66366, -57.4882, 123.302
0.868, 1, -8.84719, 44.4065, 15.4641, -3.49584, -57.4778, 123.171
0.872, 1, -8.77211, 44.4125, 15.4153, -3.32793, -57.4674, 123.04
0.876, 1, -8.69699, 44.4186, 15.3665, -3.15993, -57.457, 122.909
0.88, 1, -8.62184, 44.4246, 15.3177, -2.99184, -57.4467, 122.778
0.884, 1, -8.54665, 44.4306, 15.2688, -2.82366, -57.4363, 122.647
0.888, 1, -8.47142, 44.4366, 15.2199, -2.6554, -57.4259, 122.515
0.892, 1, -8.39615, 44.4426, 15.171, -2.48705, -57.4154, 122.384
0.896, 1, -8.32084, 44.4487, 15.1221, -2.31861, -57.405, 122.253
0.9, 1, -8.2455, 44.4547, 15.0731, -2.15009, -57.3946, 122.121
0.904, 1, -8.17012, 44.4608, 15.0241, -1.98149, -57.3842, 121.99
0.908, 1, -8.0947, 44.4668, 14.9751, -1.8128, -57.3738, 121.858
0.912, 1, -8.01925, 44.4728, 14.9261, -1.64403, -57.3633, 121.727
0.916, 1, -7.94376, 44.4789, 14.877, -1.47518, -57.3529, 121.595
0.92, 1, -7.86823, 44.4849, 14.828, -1.30624, -57.3425, 121.463
0.924, 1, -7.79267, 44.491, 14.7789, -1.13723, -57.332, 121.332
0.928, 1, -7.71707, 44.497, 14.7297, -0.968136, -57.3216, 121.2
0.932, 1, -7.64144, 44.5031, 14.6806, -0.798964, -57.3111, 121.068
0.936, 1, -7.56577, 44.5092, 14.6314, -0.629714, -57.3006, 120.936
0.94, 1, -7.49007, 44.5152, 14.5822, -0.460386, -57.2902, 120.804
0.944, 1, -7.41433, 44.5213, 14.533, -0.290982, -57.2797, 120.672
0.948, 1, -7.33856, 44.5274, 14.4838, -0.121502, -57.2692, 120.539
0.952, 1, -7.26276, 44.5334, 14.4345, 0.0480527, -57.2588, 120.407
0.956, 1, -7.18692, 44.5395, 14.3852, 0.217682, -57.2483, 120.275
0.96, 1, -7.11105, 44.5456, 14.3359, 0.387384, -57.2378, 120.143
0.964, 1, -7.03515, 44.5517, 14.2866, 0.557158, -57.2273, 120.01
0.968, 1, -6.95922, 44.5577, 14.2372, 0.727003, -57.2168, 119.878
0.972, 1, -6.88326, 44.5638, 14.1879, 0.896919, -57.2063, 119.745
0.976, 1, -6.80726, 44.5699, 14.1385, 1.06691, -57.1958, 119.613
0.98, 1, -6.73123, 44.576, 14.0891, 1.23696, -57.1853, 119.48
0.984, 1, -6.65518, 44.5821, 14.0397, 1.40708, -57.1748, 119.348
0.988, 1, -6.57909, 44.5882, 13.9902, 1.57727, -57.1642, 119.215
0.992, 1, -6.50298, 44.5943, 13.9408, 1.74753, -57.1537, 119.082
0.996, 1, -6.42683, 44.6004, 13.8913, 1.91785, -57.1432, 118.949
1, 1, -6.35066, 44.6065, 13.8418, 2.08824, -57.1326, 118.816
1.004, 1, -6.27446, 44.6126, 13.7922, 2.25869, -57.1221, 118.683
1.008, 1, -6.19823, 44.6187, 13.7427, 2.4292, -57.1116, 118.55
1.012, 1, -6.12197, 44.6248, 13.6932, 2.59978, -57.101, 118.417
1.016, 1, -6.04568, 44.6309, 13.6436, 2.77041, -57.0905, 118.284
1.02, 1, -5.96937, 44.637, 13.594, 2.94111, -57.0799, 118.151
1.024, 1, -5.89303, 44.6431, 13.5444, 3.11187, -57.0694, 118.018
1.027, 1, -5.81667, 44.6493, 13.4947, 3.28268, -57.0588, 117.885
1.032, 1, -5.74028, 44.6554, 13.4451, 3.45355, -57.0483, 117.752
1.036, 1, -5.66386, 44.6615, 13.3954, 3.62448, -57.0377, 117.618
1.04, 1, -5.58742, 44.6676, 13.3458, 3.79547, -57.0271, 117.485
1.044, 1, -5.51096, 44.6738, 13.2961, 3.96651, -57.0165, 117.352
1.048, 1, -5.43447, 44.6799, 13.2464, 4.1376, -57.006, 117.218
1.052, 1, -5.35795, 44.686, 13.1966, 4.30875, -56.9954, 117.085
1.055, 1, -5.28142, 44.6921, 13.1469, 4.47995, -56.9848, 116.951
1.06, 1, -5.20486, 44.6983, 13.0972, 4.6512, -56.9742, 116.818
1.064, 1, -5.12828, 44.7044, 13.0474, 4.82251, -56.9636, 116.684
1.068, 1, -5.05167, 44.7105, 12.9976, 4.99386, -56.953, 116.551
1.072, 1, -4.97505, 44.7167, 12.9478, 5.16526, -56.9424, 116.417
1.076, 1, -4.8984, 44.7228, 12.898, 5.33671, -56.9319, 116.283
1.08, 1, -4.82174, 44.729, 12.8482, 5.5082, -56.9212, 116.149
1.084, 1, -4.74505, 44.7351, 12.7983, 5.67974, -56.9106, 116.016
1.088, 1, -4.66834, 44.7413, 12.7485, 5.85133, -56.9, 115.882
1.091, 1, -4.59161, 44.7474, 12.6986, 6.02296, -56.8894, 115.748
1.096, 1, -4.51486, 44.7536, 12.6487, 6.19463, -56.8788, 115.614
1.1, 1, -4.4381, 44.7597, 12.5989, 6.36635, -56.8682, 115.48
1.104, 1, -4.36131, 44.7659, 12.549, 6.53811, -56.8576, 115.346
1.108, 1, -4.28451, 44.772, 12.499, 6.7099, -56.847, 115.212
1.112, 1, -4.20769, 44.7782, 12.4491, 6.88174, -56.8364, 115.078
1.116, 1, -4.13085, 44.7843, 12.3992, 7.05362, -56.8257, 114.944
1.119, 1, -4.054, 44.7905, 12.3492, 7.22553, -56.8151, 114.81
1.124, 1, -3.97713, 44.7966, 12.2993, 7.39748, -56.8045, 114.676
1.128, 1, -3.90024, 44.8028, 12.2493, 7.56947, -56.7938, 114.542
1.132, 1, -3.82334, 44.8089, 12.1993, 7.74149, -56.7832, 114.408
1.136, 1, -3.74643, 44.8151, 12.1493, 7.91355, -56.7726, 114.274
1.14, 1, -3.6695, 44.8213, 12.0993, 8.08564, -56.7619, 114.14
1.144, 1, -3.59256, 44.8274, 12.0493, 8.25776, -56.7513, 114.005
1.147, 1, -3.5156, 44.8336, 11.9993, 8.42991, -56.7407, 113.871
1.152, 1, -3.43864, 44.8398, 11.9493, 8.60209, -56.73, 113.737
1.156, 1, -3.36166, 44.8459, 11.8993, 8.7743, -56.7194, 113.603
1.16, 1, -3.28467, 44.8521, 11.8492, 8.94654, -56.7087, 113.468
1.164, 1, -3.20767, 44.8583, 11.7992, 9.11881, -56.6981, 113.334
1.168, 1, -3.13066, 44.8645, 11.7491, 9.29109, -56.6874, 113.2
1.172, 1, -3.05364, 44.8706, 11.6991, 9.46341, -56.6768, 113.065
1.175, 1, -2.97661, 44.8768, 11.649, 9.63574, -56.6661, 112.931
1.18, 1, -2.89957, 44.883, 11.5989, 9.80809, -56.6555, 112.796
1.184, 1, -2.82252, 44.8891, 11.5488, 9.98046, -56.6448, 112.662
1.188, 1, -2.74546, 44.8953, 11.4988, 10.1529, -56.6342, 112.528
1.192, 1, -2.6684, 44.9015, 11.4487, 10.3253, -56.6235, 112.393
1.196, 1, -2.59133, 44.9077, 11.3986, 10.4977, -56.6128, 112.259
1.2, 1, -2.51425, 44.9138, 11.3485, 10.6701, -56.6022, 112.124
1.204, 1, -2.43717, 44.92, 11.2984, 10.8426, -56.5915, 111.99
1.208, 1, -2.36009, 44.9262, 11.2483, 11.015, -56.5809, 111.855
1.212, 1, -2.283, 44.9324, 11.1982, 11.1875, -56.5702, 111.721
1.216, 1, -2.2059, 44.9386, 11.148, 11.36, -56.5595, 111.586
1.22, 1, -2.12881, 44.9447, 11.0979, 11.5325, -56.5489, 111.452
1.224, 1, -2.05171, 44.9509, 11.0478, 11.705, -56.5382, 111.317
1.228, 1, -1.97461, 44.9571, 10.9977, 11.8774, -56.5276, 111.183
1.232, 1, -1.8975, 44.9633, 10.9476, 12.0499, -56.5169, 111.048
1.236, 1, -1.8204, 44.9695, 10.8975, 12.2224, -56.5062, 110.914
1.24, 1, -1.7433, 44.9756, 10.8474, 12.3949, -56.4956, 110.779
1.244, 1, -1.66619, 44.9818, 10.7972, 12.5674, -56.4849, 110.645
1.248, 1, -1.58909, 44.988, 10.7471, 12.7399, -56.4742, 110.51
1.252, 1, -1.51199, 44.9942, 10.697, 12.9124, -56.4636, 110.376
1.256, 1, -1.4349, 45.0004, 10.6469, 13.0849, -56.4529, 110.241
1.26, 1, -1.3578, 45.0065, 10.5968, 13.2574, -56.4423, 110.107
1.264, 1, -1.28071, 45.0127, 10.5467, 13.4299, -56.4316, 109.972
1.267, 1, -1.20363, 45.0189, 10.4966, 13.6023, -56.4209, 109.838
1.272, 1, -1.12655, 45.0251, 10.4465, 13.7748, -56.4103, 109.703
1.276, 1, -1.04947, 45.0312, 10.3964, 13.9472, -56.3996, 109.569
1.28, 1, -0.972401, 45.0374, 10.3463, 14.1196, -56.389, 109.434
1.284, 1, -0.895338, 45.0436, 10.2962, 14.292, -56.3783, 109.3
1.288, 1, -0.818283, 45.0498, 10.2461, 14.4644, -56.3677, 109.166
1.292, 1, -0.741235, 45.0559, 10.196, 14.6368, -56.357, 109.031
1.295, 1, -0.664196, 45.0621, 10.1459, 14.8092, -56.3464, 108.897
1.3, 1, -0.587166, 45.0683, 10.0959, 14.9815, -56.3357, 108.762
1.304, 1, -0.510146, 45.0745, 10.0458, 15.1538, -56.325, 108.628
1.308, 1, -0.433136, 45.0806, 9.99574, 15.3261, -56.3144, 108.494
1.312, 1, -0.356137, 45.0868, 9.94569, 15.4984, -56.3037, 108.359
1.316, 1, -0.279149, 45.093, 9.89564, 15.6706, -56.2931, 108.225
1.32, 1, -0.202174, 45.0992, 9.84561, 15.8428, -56.2825, 108.091
1.324, 1, -0.125211, 45.1053, 9.79558, 16.015, -56.2718, 107.956
1.328, 1, -0.0482619, 45.1115, 9.74556, 16.1872, -56.2612, 107.822
1.332, 1, 0.0286738, 45.1177, 9.69555, 16.3593, -56.2505, 107.688
1.336, 1, 0.105595, 45.1238, 9.64555, 16.5314, -56.2399, 107.554
1.34, 1, 0.182501, 45.13, 9.59556, 16.7035, -56.2293, 107.42
1.344, 1, 0.259391, 45.1361, 9.54558, 16.8755, -56.2186, 107.285
1.348, 1, 0.336266, 45.1423, 9.49561, 17.0475, -56.208, 107.151
1.352, 1, 0.413123, 45.1485, 9.44566, 17.2194, -56.1974, 107.017
1.356, 1, 0.489963, 45.1546, 9.39571, 17.3913, -56.1867, 106.883
1.36, 1, 0.566786, 45.1608, 9.34577, 17.5632, -56.1761, 106.749
1.364, 1, 0.64359, 45.1669, 9.29585, 17.735, -56.1655, 106.615
1.368, 1, 0.720376, 45.1731, 9.24594, 17.9068, -56.1549, 106.481
1.372, 1, 0.797142, 45.1793, 9.19604, 18.0786, -56.1443, 106.347
1.376, 1, 0.873887, 45.1854, 9.14616, 18.2503, -56.1337, 106.213
1.38, 1, 0.950612, 45.1916, 9.09628, 18.4219, -56.123, 106.079
1.384, 1, 1.02732, 45.1977, 9.04643, 18.5935, -56.1124, 105.946
1.388, 1, 1.104, 45.2038, 8.99658, 18.7651, -56.1018, 105.812
1.392, 1, 1.18065, 45.21, 8.94676, 18.9366, -56.0912, 105.678
1.396, 1, 1.25729, 45.2161, 8.89694, 19.108, -56.0806, 105.544
1.4, 1, 1.3339, 45.2223, 8.84714, 19.2794, -56.07, 105.411
1.404, 1, 1.41048, 45.2284, 8.79736, 19.4508, -56.0594, 105.277
1.408, 1, 1.48704, 45.2346, 8.74759, 19.6221, -56.0489, 105.144
1.412, 1, 1.56358, 45.2407, 8.69784, 19.7933, -56.0383, 105.01
1.416, 1, 1.64008, 45.2468, 8.64811, 19.9645, -56.0277, 104.877
1.42, 1, 1.71656, 45.2529, 8.5984, 20.1356, -56.0171, 104.743
1.424, 1, 1.79301, 45.2591, 8.5487, 20.3067, -56.0065, 104.61
1.428, 1, 1.86944, 45.2652, 8.49902, 20.4776, -55.996, 104.476
1.432, 1, 1.94583, 45.2713, 8.44936, 20.6486, -55.9854, 104.343
1.436, 1, 2.0222, 45.2775, 8.39971, 20.8194, -55.9749, 104.21
1.44, 1, 2.09853, 45.2836, 8.35009, 20.9902, -55.9643, 104.077
1.444, 1, 2.17484, 45.2897, 8.30049, 21.161, -55.9537, 103.944
1.448, 1, 2.25111, 45.2958, 8.2509, 21.3316, -55.9432, 103.811
1.452, 1, 2.32736, 45.3019, 8.20134, 21.5022, -55.9327, 103.678
1.456, 1, 2.40356, 45.308, 8.1518, 21.6727, -55.9221, 103.545
1.46, 1, 2.47974, 45.3141, 8.10228, 21.8431, -55.9116, 103.412
1.464, 1, 2.55588, 45.3202, 8.05278, 22.0135, -55.9011, 103.279
1.468, 1, 2.63199, 45.3263, 8.00331, 22.1838, -55.8905, 103.146
1.472, 1, 2.70807, 45.3324, 7.95385, 22.354, -55.88, 103.013
1.476, 1, 2.78411, 45.3385, 7.90442, 22.5241, -55.8695, 102.881
1.48, 1, 2.86011, 45.3446, 7.85502, 22.6942, -55.859, 102.748
1.484, 1, 2.93607, 45.3507, 7.80564, 22.8641, -55.8485, 102.616
1.488, 1, 3.012, 45.3568, 7.75628, 23.034, -55.838, 102.483
1.492, 1, 3.08789, 45.3629, 7.70695, 23.2038, -55.8275, 102.351
1.496, 1, 3.16374, 45.369, 7.65764, 23.3735, -55.817, 102.218
1.5, 1, 3.23956, 45.375, 7.60836, 23.5432, -55.8065, 102.086
1.504, 1, 3.31533, 45.3811, 7.5591, 23.7127, -55.796, 101.954
1.508, 1, 3.39106, 45.3872, 7.50987, 23.8821, -55.7856, 101.822
1.512, 1, 3.46675, 45.3933, 7.46067, 24.0515, -55.7751, 101.69
1.516, 1, 3.5424, 45.3993, 7.41149, 24.2207, -55.7646, 101.558
1.52, 1, 3.61801, 45.4054, 7.36234, 24.3899, -55.7542, 101.426
1.524, 1, 3.69357, 45.4115, 7.31322, 24.559, -55.7437, 101.294
1.528, 1, 3.76909, 45.4175, 7.26413, 24.7279, -55.7333, 101.162
1.532, 1, 3.84457, 45.4236, 7.21506, 24.8968, -55.7228, 101.03
1.536, 1, 3.92001, 45.4296, 7.16603, 25.0656, -55.7124, 100.899
1.54, 1, 3.99539, 45.4356, 7.11702, 25.2342, -55.702, 100.767
1.544, 1, 4.07074, 45.4417, 7.06804, 25.4028, -55.6916, 100.636
1.548, 1, 4.14603, 45.4477, 7.0191, 25.5713, -55.6811, 100.505
1.552, 1, 4.22128, 45.4538, 6.97018, 25.7396, -55.6707, 100.373
1.556, 1, 4.29648, 45.4598, 6.9213, 25.9079, -55.6603, 100.242
1.56, 1, 4.37164, 45.4658, 6.87244, 26.076, -55.6499, 100.111
1.564, 1, 4.44674, 45.4718, 6.82362, 26.2441, -55.6396, 99.9799
1.568, 1, 4.5218, 45.4779, 6.77483, 26.412, -55.6292, 99.8489
1.572, 1, 4.59681, 45.4839, 6.72607, 26.5798, -55.6188, 99.7181
1.576, 1, 4.67177, 45.4899, 6.67735, 26.7475, -55.6084, 99.5873
1.58, 1, 4.74667, 45.4959, 6.62865, 26.9151, -55.5981, 99.4566
1.584, 1, 4.82153, 45.5019, 6.58, 27.0826, -55.5877, 99.326
1.588, 1, 4.89633, 45.5079, 6.53137, 27.2499, -55.5774, 99.1955
1.592, 1, 4.97109, 45.5139, 6.48278, 27.4172, -55.5671, 99.0651
1.596, 1, 5.04579, 45.5199, 6.43422, 27.5843, -55.5567, 98.9348
1.6, 1, 5.12043, 45.5258, 6.3857, 27.7513, -55.5464, 98.8045
1.604, 1, 5.19503, 45.5318, 6.33721, 27.9182, -55.5361, 98.6744
1.608, 1, 5.26956, 45.5378, 6.28876, 28.085, -55.5258, 98.5444
1.612, 1, 5.34405, 45.5438, 6.24034, 28.2516, -55.5155, 98.4144
1.616, 1, 5.41848, 45.5497, 6.19196, 28.4181, -55.5052, 98.2846
1.62, 1, 5.49285, 45.5557, 6.14361, 28.5845, -55.4949, 98.1548
1.624, 1, 5.56717, 45.5617, 6.09531, 28.7508, -55.4846, 98.0252
1.628, 1, 5.64144, 45.5676, 6.04704, 28.9169, -55.4744, 97.8956
1.632, 1, 5.71564, 45.5736, 5.9988, 29.0829, -55.4641, 97.7662
1.636, 1, 5.78979, 45.5795, 5.9506, 29.2488, -55.4538, 97.6368
1.64, 1, 5.86388, 45.5855, 5.90245, 29.4146, -55.4436, 97.5075
1.644, 1, 5.93792, 45.5914, 5.85432, 29.5802, -55.4334, 97.3784
1.648, 1, 6.01189, 45.5973, 5.80624, 29.7457, -55.4231, 97.2493
1.652, 1, 6.08581, 45.6032, 5.7582, 29.911, -55.4129, 97.1204
1.656, 1, 6.15966, 45.6092, 5.71019, 30.0763, -55.4027, 96.9916
1.66, 1, 6.23346, 45.6151, 5.66223, 30.2414, -55.3925, 96.8628
1.664, 1, 6.3072, 45.621, 5.6143, 30.4063, -55.3823, 96.7342
1.668, 1, 6.38087, 45.6269, 5.56641, 30.5711, -55.3721, 96.6057
1.672, 1, 6.45449, 45.6328, 5.51856, 30.7358, -55.3619, 96.4772
1.676, 1, 6.52804, 45.6387, 5.47075, 30.9004, -55.3518, 96.3489
1.68, 1, 6.60153, 45.6446, 5.42299, 31.0648, -55.3416, 96.2207
1.684, 1, 6.67495, 45.6505, 5.37526, 31.229, -55.3314, 96.0926
1.688, 1, 6.74832, 45.6564, 5.32757, 31.3932, -55.3213, 95.9646
1.692, 1, 6.82162, 45.6622, 5.27993, 31.5572, -55.3112, 95.8368
1.696, 1, 6.89486, 45.6681, 5.23232, 31.721, -55.301, 95.709
1.7, 1, 6.96803, 45.674, 5.18476, 31.8847, -55.2909, 95.5814
1.704, 1, 7.04114, 45.6798, 5.13724, 32.0483, -55.2808, 95.4538
1.708, 1, 7.11419, 45.6857, 5.08976, 32.2117, -55.2707, 95.3264
1.712, 1, 7.18717, 45.6915, 5.04233, 32.3749, -55.2606, 95.1991
1.716, 1, 7.26008, 45.6974, 4.99493, 32.5381, -55.2505, 95.0719
1.72, 1, 7.33293, 45.7032, 4.94758, 32.701, -55.2405, 94.9448
1.724, 1, 7.40571, 45.7091, 4.90027, 32.8638, -55.2304, 94.8178
1.728, 1, 7.47843, 45.7149, 4.85301, 33.0265, -55.2203, 94.691
1.732, 1, 7.55108, 45.7207, 4.80579, 33.189, -55.2103, 94.5642
1.736, 1, 7.62366, 45.7265, 4.75861, 33.3514, -55.2003, 94.4376
1.74, 1, 7.69618, 45.7323, 4.71148, 33.5136, -55.1902, 94.3111
1.744, 1, 7.76862, 45.7382, 4.66439, 33.6757, -55.1802, 94.1847
1.748, 1, 7.841, 45.744, 4.61735, 33.8376, -55.1702, 94.0585
1.752, 1, 7.91331, 45.7498, 4.57035, 33.9994, -55.1602, 93.9324
1.756, 1, 7.98555, 45.7556, 4.52339, 34.161, -55.1502, 93.8063
1.76, 1, 8.05772, 45.7613, 4.47648, 34.3224, -55.1403, 93.6804
1.764, 1, 8.12982, 45.7671, 4.42962, 34.4837, -55.1303, 93.5546
1.768, 1, 8.20186, 45.7729, 4.3828, 34.6449, -55.1203, 93.429
1.772, 1, 8.27382, 45.7787, 4.33603, 34.8059, -55.1104, 93.3035
1.776, 1, 8.34571, 45.7844, 4.2893, 34.9667, -55.1004, 93.1781
1.78, 1, 8.41753, 45.7902, 4.24262, 35.1273, -55.0905, 93.0528
1.784, 1, 8.48928, 45.7959, 4.19599, 35.2878, -55.0806, 92.9276
1.788, 1, 8.56096, 45.8017, 4.1494, 35.4482, -55.0707, 92.8026
1.792, 1, 8.63256, 45.8074, 4.10286, 35.6084, -55.0608, 92.6777
1.796, 1, 8.70409, 45.8132, 4.05637, 35.7684, -55.0509, 92.5529
1.8, 1, 8.77556, 45.8189, 4.00992, 35.9283, -55.041, 92.4282
1.804, 1, 8.84694, 45.8246, 3.96352, 36.0879, -55.0311, 92.3037
1.808, 1, 8.91826, 45.8303, 3.91717, 36.2475, -55.0213, 92.1793
1.812, 1, 8.9895, 45.836, 3.87087, 36.4068, -55.0114, 92.055
1.816, 1, 9.06067, 45.8417, 3.82461, 36.566, -55.0016, 91.9309
1.82, 1, 9.13176, 45.8474, 3.77841, 36.7251, -54.9918, 91.8069
1.824, 1, 9.20278, 45.8531, 3.73225, 36.884, -54.9819, 91.683
1.828, 1, 9.27373, 45.8588, 3.68614, 37.0427, -54.9721, 91.5592
1.832, 1, 9.3446, 45.8645, 3.64008, 37.2012, -54.9623, 91.4356
1.836, 1, 9.4154, 45.8702, 3.59406, 37.3596, -54.9525, 91.3121
1.84, 1, 9.48612, 45.8759, 3.5481, 37.5178, -54.9428, 91.1888
1.844, 1, 9.55677, 45.8815, 3.50218, 37.6758, -54.933, 91.0655
1.848, 1, 9.62734, 45.8872, 3.45632, 37.8336, -54.9232, 90.9424
1.852, 1, 9.69783, 45.8928, 3.4105, 37.9913, -54.9135, 90.8195
1.856, 1, 9.76825, 45.8985, 3.36473, 38.1489, -54.9037, 90.6966
1.86, 1, 9.83859, 45.9041, 3.31902, 38.3062, -54.894, 90.5739
1.864, 1, 9.90886, 45.9097, 3.27335, 38.4634, -54.8843, 90.4514
1.868, 1, 9.97904, 45.9154, 3.22773, 38.6204, -54.8746, 90.3289
1.872, 1, 10.0492, 45.921, 3.18217, 38.7772, -54.8649, 90.2066
1.876, 1, 10.1192, 45.9266, 3.13665, 38.9339, -54.8552, 90.0845
1.88, 1, 10.1891, 45.9322, 3.09119, 39.0904, -54.8456, 89.9624
1.884, 1, 10.259, 45.9378, 3.04577, 39.2467, -54.8359, 89.8406
1.888, 1, 10.3288, 45.9434, 3.00041, 39.4028, -54.8262, 89.7188
1.892, 1, 10.3985, 45.949, 2.95509, 39.5588, -54.8166, 89.5972
1.896, 1, 10.4682, 45.9546, 2.90983, 39.7145, -54.807, 89.4757
1.9, 1, 10.5378, 45.9602, 2.86462, 39.8702, -54.7974, 89.3544
1.904, 1, 10.6072, 45.9657, 2.81946, 40.0256, -54.7877, 89.2332
1.908, 1, 10.6767, 45.9713, 2.77435, 40.1808, -54.7781, 89.1121
1.912, 1, 10.746, 45.9768, 2.72929, 40.3359, -54.7686, 88.9912
1.916, 1, 10.8152, 45.9824, 2.68429, 40.4908, -54.759, 88.8704
1.92, 1, 10.8844, 45.9879, 2.63933, 40.6455, -54.7494, 88.7497
1.924, 1, 10.9535, 45.9935, 2.59443, 40.8001, -54.7399, 88.6292
1.928, 1, 11.0225, 45.999, 2.54958, 40.9545, -54.7303, 88.5088
1.932, 1, 11.0915, 46.0045, 2.50478, 41.1086, -54.7208, 88.3886
1.936, 1, 11.1603, 46.0101, 2.46004, 41.2626, -54.7113, 88.2685
1.94, 1, 11.2291, 46.0156, 2.41534, 41.4165, -54.7018, 88.1486
1.944, 1, 11.2978, 46.0211, 2.3707, 41.5701, -54.6923, 88.0287
1.948, 1, 11.3664, 46.0266, 2.32611, 41.7236, -54.6828, 87.9091
1.952, 1, 11.435, 46.0321, 2.28157, 41.8769, -54.6733, 87.7895
1.956, 1, 11.5034, 46.0376, 2.23709, 42.03, -54.6639, 87.6701
1.96, 1, 11.5718, 46.043, 2.19265, 42.1829, -54.6544, 87.5509
1.964, 1, 11.6401, 46.0485, 2.14827, 42.3357, -54.645, 87.4318
1.968, 1, 11.7083, 46.054, 2.10394, 42.4883, -54.6355, 87.3128
1.972, 1, 11.7764, 46.0594, 2.05966, 42.6407, -54.6261, 87.194
1.976, 1, 11.8445, 46.0649, 2.01544, 42.7929, -54.6167, 87.0753
1.98, 1, 11.9125, 46.0703, 1.97127, 42.9449, -54.6073, 86.9567
1.984, 1, 11.9804, 46.0758, 1.92715, 43.0968, -54.5979, 86.8383
1.988, 1, 12.0482, 46.0812, 1.88308, 43.2484, -54.5886, 86.72
1.992, 1, 12.1159, 46.0867, 1.83907, 43.3999, -54.5792, 86.6019
1.996, 1, 12.1836, 46.0921, 1.79511, 43.5512, -54.5698, 86.4839
1.999, 1, 12.2511, 46.0975, 1.7512, 43.7024, -54.5605, 86.3661
2.004, 1, 12.3186, 46.1029, 1.70734, 43.8533, -54.5512, 86.2483
2.008, 1, 12.386, 46.1083, 1.66354, 44.0041, -54.5418, 86.1308
2.012, 1, 12.4534, 46.1137, 1.61979, 44.1546, -54.5325, 86.0134
2.015, 1, 12.5206, 46.1191, 1.57609, 44.305, -54.5232, 85.8961
2.019, 1, 12.5878, 46.1245, 1.53244, 44.4553, -54.514, 85.7789
2.024, 1, 12.6549, 46.1299, 1.48885, 44.6053, -54.5047, 85.6619
2.028, 1, 12.7219, 46.1352, 1.44531, 44.7552, -54.4954, 85.5451
2.031, 1, 12.7888, 46.1406, 1.40182, 44.9048, -54.4862, 85.4284
2.036, 1, 12.8556, 46.1459, 1.35839, 45.0543, -54.4769, 85.3118
2.04, 1, 12.9224, 46.1513, 1.31501, 45.2036, -54.4677, 85.1954
2.044, 1, 12.9891, 46.1566, 1.27168, 45.3528, -54.4585, 85.0791
2.048, 1, 13.0557, 46.162, 1.2284, 45.5017, -54.4493, 84.9629
2.051, 1, 13.1222, 46.1673, 1.18518, 45.6505, -54.4401, 84.8469
2.055, 1, 13.1886, 46.1726, 1.14201, 45.7991, -54.4309, 84.7311
2.06, 1, 13.255, 46.1779, 1.09889, 45.9475, -54.4217, 84.6153
2.064, 1, 13.3212, 46.1833, 1.05583, 46.0957, -54.4126, 84.4998
2.068, 1, 13.3874, 46.1886, 1.01282, 46.2437, -54.4034, 84.3843
2.071, 1, 13.4535, 46.1939, 0.969863, 46.3916, -54.3943, 84.269
2.076, 1, 13.5196, 46.1992, 0.926959, 46.5392, -54.3852, 84.1539
2.08, 1, 13.5855, 46.2044, 0.884107, 46.6867, -54.376, 84.0389
2.084, 1, 13.6514, 46.2097, 0.841309, 46.834, -54.3669, 83.924
2.087, 1, 13.7171, 46.215, 0.798564, 46.9811, -54.3578, 83.8093
2.092, 1, 13.7829, 46.2203, 0.755872, 47.1281, -54.3488, 83.6947
2.096, 1, 13.8485, 46.2255, 0.713233, 47.2748, -54.3397, 83.5803
2.1, 1, 13.914, 46.2308, 0.670647, 47.4214, -54.3306, 83.466
2.104, 1, 13.9795, 46.236, 0.628114, 47.5678, -54.3216, 83.3518
2.107, 1, 14.0448, 46.2413, 0.585634, 47.714, -54.3125, 83.2378
2.111, 1, 14.1101, 46.2465, 0.543207, 47.86, -54.3035, 83.1239
2.116, 1, 14.1753, 46.2517, 0.500833, 48.0059, -54.2945, 83.0102
2.12, 1, 14.2405, 46.2569, 0.458512, 48.1516, -54.2855, 82.8966
2.124, 1, 14.3055, 46.2621, 0.416244, 48.297, -54.2765, 82.7832
2.127, 1, 14.3705, 46.2674, 0.374029, 48.4423, -54.2675, 82.6699
2.132, 1, 14.4354, 46.2726, 0.331868, 48.5874, -54.2586, 82.5567
2.136, 1, 14.5002, 46.2777, 0.289759, 48.7324, -54.2496, 82.4437
2.14, 1, 14.5649, 46.2829, 0.247703, 48.8771, -54.2407, 82.3308
2.143, 1, 14.6295, 46.2881, 0.205701, 49.0217, -54.2317, 82.2181
2.148, 1, 14.6941, 46.2933, 0.163751, 49.1661, -54.2228, 82.1055
2.152, 1, 14.7586, 46.2985, 0.121854, 49.3103, -54.2139, 81.993
2.156, 1, 14.823, 46.3036, 0.0800101, 49.4543, -54.205, 81.8807
2.16, 1, 14.8873, 46.3088, 0.0382192, 49.5981, -54.1961, 81.7686
2.163, 1, 14.9515, 46.3139, -0.00351886, 49.7418, -54.1872, 81.6566
2.168, 1, 15.0157, 46.3191, -0.045204, 49.8853, -54.1783, 81.5447
2.172, 1, 15.0798, 46.3242, -0.0868363, 50.0286, -54.1695, 81.4329
2.176, 1, 15.1438, 46.3293, -0.128416, 50.1717, -54.1606, 81.3213
2.179, 1, 15.2077, 46.3344, -0.169942, 50.3146, -54.1518, 81.2099
2.184, 1, 15.2715, 46.3396, -0.211416, 50.4573, -54.143, 81.0986
2.188, 1, 15.3352, 46.3447, -0.252837, 50.5999, -54.1342, 80.9874
2.192, 1, 15.3989, 46.3498, -0.294205, 50.7423, -54.1254, 80.8764
2.196, 1, 15.4625, 46.3549, -0.335521, 50.8845, -54.1166, 80.7655
2.199, 1, 15.526, 46.36, -0.376784, 51.0265, -54.1078, 80.6547
2.204, 1, 15.5894, 46.365, -0.417994, 51.1683, -54.099, 80.5441
2.208, 1, 15.6528, 46.3701, -0.459151, 51.31, -54.0903, 80.4337
2.212, 1, 15.716, 46.3752, -0.500256, 51.4515, -54.0815, 80.3233
2.216, 1, 15.7792, 46.3802, -0.541308, 51.5928, -54.0728, 80.2132
2.219, 1, 15.8423, 46.3853, -0.582308, 51.7339, -54.0641, 80.1031
2.224, 1, 15.9053, 46.3904, -0.623255, 51.8748, -54.0554, 79.9932
2.228, 1, 15.9683, 46.3954, -0.66415, 52.0156, -54.0467, 79.8835
2.232, 1, 16.0311, 46.4004, -0.704992, 52.1562, -54.038, 79.7738
2.235, 1, 16.0939, 46.4055, -0.745783, 52.2966, -54.0293, 79.6644
2.24, 1, 16.1566, 46.4105, -0.786521, 52.4368, -54.0206, 79.555
2.244, 1, 16.2192, 46.4155, -0.827207, 52.5768, -54.012, 79.4458
2.248, 1, 16.2818, 46.4205, -0.867841, 52.7167, -54.0033, 79.3368
2.252, 1, 16.3443, 46.4255, -0.908423, 52.8563, -53.9947, 79.2279
2.255, 1, 16.4066, 46.4305, -0.948953, 52.9958, -53.9861, 79.1191
2.259, 1, 16.4689, 46.4355, -0.989431, 53.1352, -53.9775, 79.0104
2.264, 1, 16.5312, 46.4405, -1.02986, 53.2743, -53.9689, 78.9019
2.268, 1, 16.5933, 46.4455, -1.07023, 53.4133, -53.9603, 78.7936
2.272, 1, 16.6554, 46.4505, -1.11056, 53.5521, -53.9517, 78.6853
2.275, 1, 16.7174, 46.4554, -1.15083, 53.6907, -53.9431, 78.5772
2.28, 1, 16.7793, 46.4604, -1.19105, 53.8291, -53.9346, 78.4693
2.284, 1, 16.8411, 46.4653, -1.23122, 53.9674, -53.926, 78.3615
2.288, 1, 16.9028, 46.4703, -1.27134, 54.1054, -53.9175, 78.2538
2.291, 1, 16.9645, 46.4752, -1.31141, 54.2434, -53.909, 78.1463
2.296, 1, 17.0261, 46.4802, -1.35142, 54.3811, -53.9005, 78.0389
2.3, 1, 17.0876, 46.4851, -1.39139, 54.5186, -53.892, 77.9316
2.304, 1, 17.149, 46.49, -1.4313, 54.656, -53.8835, 77.8245
2.308, 1, 17.2104, 46.4949, -1.47117, 54.7932, -53.875, 77.7175
2.311, 1, 17.2717, 46.4998, -1.51098, 54.9303, -53.8665, 77.6106
2.316, 1, 17.3329, 46.5047, -1.55074, 55.0671, -53.8581, 77.5039
2.32, 1, 17.394, 46.5096, -1.59045, 55.2038, -53.8496, 77.3973
2.324, 1, 17.4551, 46.5145, -1.63012, 55.3403, -53.8412, 77.2909
2.328, 1, 17.516, 46.5194, -1.66973, 55.4767, -53.8327, 77.1846
2.331, 1, 17.5769, 46.5243, -1.70929, 55.6128, -53.8243, 77.0784
2.336, 1, 17.6377, 46.5292, -1.7488, 55.7488, -53.8159, 76.9723
2.34, 1, 17.6985, 46.534, -1.78826, 55.8846, -53.8075, 76.8664
2.344, 1, 17.7591, 46.5389, -1.82767, 56.0203, -53.7991, 76.7606
2.347, 1, 17.8197, 46.5438, -1.86703, 56.1558, -53.7908, 76.655
2.352, 1, 17.8802, 46.5486, -1.90634, 56.2911, -53.7824, 76.5495
2.356, 1, 17.9406, 46.5534, -1.9456, 56.4262, -53.7741, 76.4441
2.36, 1, 18.001, 46.5583, -1.98482, 56.5611, -53.7657, 76.3389
2.364, 1, 18.0613, 46.5631, -2.02398, 56.6959, -53.7574, 76.2338
2.367, 1, 18.1215, 46.5679, -2.06309, 56.8306, -53.7491, 76.1288
2.372, 1, 18.1816, 46.5728, -2.10215, 56.965, -53.7407, 76.0239
2.376, 1, 18.2417, 46.5776, -2.14117, 57.0993, -53.7325, 75.9192
2.38, 1, 18.3016, 46.5824, -2.18013, 57.2334, -53.7242, 75.8146
2.383, 1, 18.3615, 46.5872, -2.21905, 57.3673, -53.7159, 75.7102
2.388, 1, 18.4214, 46.592, -2.25791, 57.5011, -53.7076, 75.6059
2.392, 1, 18.4811, 46.5967, -2.29673, 57.6347, -53.6994, 75.5017
2.396, 1, 18.5408, 46.6015, -2.3355, 57.7682, -53.6911, 75.3977
2.4, 1, 18.6004, 46.6063, -2.37422, 57.9014, -53.6829, 75.2937
2.403, 1, 18.6599, 46.6111, -2.41289, 58.0345, -53.6746, 75.1899
2.408, 1, 18.7193, 46.6158, -2.45151, 58.1675, -53.6664, 75.0863
2.412, 1, 18.7787, 46.6206, -2.49009, 58.3002, -53.6582, 74.9827
2.416, 1, 18.838, 46.6253, -2.52861, 58.4328, -53.65, 74.8793
2.42, 1, 18.8972, 46.6301, -2.56709, 58.5653, -53.6418, 74.7761
2.423, 1, 18.9564, 46.6348, -2.60552, 58.6975, -53.6337, 74.6729
2.428, 1, 19.0155, 46.6396, -2.6439, 58.8296, -53.6255, 74.5699
2.432, 1, 19.0745, 46.6443, -2.68223, 58.9616, -53.6173, 74.467
2.436, 1, 19.1334, 46.649, -2.72052, 59.0933, -53.6092, 74.3643
2.439, 1, 19.1922, 46.6537, -2.75875, 59.225, -53.6011, 74.2617
2.444, 1, 19.251, 46.6584, -2.79694, 59.3564, -53.5929, 74.1592
2.448, 1, 19.3097, 46.6631, -2.83508, 59.4877, -53.5848, 74.0568
2.452, 1, 19.3684, 46.6678, -2.87318, 59.6188, -53.5767, 73.9546
2.456, 1, 19.4269, 46.6725, -2.91122, 59.7497, -53.5686, 73.8524
2.459, 1, 19.4854, 46.6772, -2.94922, 59.8805, -53.5605, 73.7505
2.464, 1, 19.5438, 46.6819, -2.98717, 60.0111, -53.5525, 73.6486
2.468, 1, 19.6022, 46.6866, -3.02508, 60.1416, -53.5444, 73.5469
2.472, 1, 19.6604, 46.6912, -3.06293, 60.2719, -53.5364, 73.4453
2.476, 1, 19.7186, 46.6959, -3.10074, 60.402, -53.5283, 73.3438
2.479, 1, 19.7768, 46.7006, -3.1385, 60.532, -53.5203, 73.2424
2.484, 1, 19.8348, 46.7052, -3.17622, 60.6618, -53.5123, 73.1412
2.488, 1, 19.8928, 46.7099, -3.21389, 60.7915, -53.5042, 73.0401
2.492, 1, 19.9507, 46.7145, -3.25151, 60.921, -53.4962, 72.9391
2.495, 1, 20.0085, 46.7191, -3.28908, 61.0503, -53.4882, 72.8383
2.5, 1, 20.0663, 46.7238, -3.32661, 61.1795, -53.4803, 72.7375
2.504, 1, 20.124, 46.7284, -3.36409, 61.3085, -53.4723, 72.6369
2.508, 1, 20.1816, 46.733, -3.40153, 61.4373, -53.4643, 72.5365
2.512, 1, 20.2392, 46.7376, -3.43892, 61.566, -53.4564, 72.4361
2.515, 1, 20.2966, 46.7422, -3.47626, 61.6945, -53.4484, 72.3359
2.52, 1, 20.354, 46.7468, -3.51356, 61.8229, -53.4405, 72.2358
2.524, 1, 20.4114, 46.7514, -3.55081, 61.9511, -53.4326, 72.1358
2.528, 1, 20.4687, 46.756, -3.58801, 62.0792, -53.4246, 72.036
2.531, 1, 20.5258, 46.7606, -3.62517, 62.2071, -53.4167, 71.9362
2.536, 1, 20.583, 46.7652, -3.66228, 62.3348, -53.4088, 71.8366
2.54, 1, 20.64, 46.7697, -3.69935, 62.4624, -53.401, 71.7371
2.544, 1, 20.697, 46.7743, -3.73637, 62.5898, -53.3931, 71.6378
2.548, 1, 20.7539, 46.7789, -3.77334, 62.7171, -53.3852, 71.5385
2.551, 1, 20.8108, 46.7834, -3.81027, 62.8442, -53.3774, 71.4394
2.556, 1, 20.8675, 46.788, -3.84716, 62.9711, -53.3695, 71.3404
2.56, 1, 20.9243, 46.7925, -3.884, 63.0979, -53.3617, 71.2415
2.564, 1, 20.9809, 46.797, -3.92079, 63.2246, -53.3539, 71.1428
2.568, 1, 21.0375, 46.8016, -3.95754, 63.3511, -53.346, 71.0442
2.571, 1, 21.094, 46.8061, -3.99425, 63.4774, -53.3382, 70.9456
2.576, 1, 21.1504, 46.8106, -4.03091, 63.6036, -53.3304, 70.8472
2.58, 1, 21.2067, 46.8151, -4.06752, 63.7296, -53.3226, 70.749
2.584, 1, 21.263, 46.8196, -4.10409, 63.8555, -53.3149, 70.6508
2.587, 1, 21.3193, 46.8241, -4.14062, 63.9812, -53.3071, 70.5528
2.592, 1, 21.3754, 46.8286, -4.1771, 64.1068, -53.2993, 70.4549
2.596, 1, 21.4315, 46.8331, -4.21353, 64.2322, -53.2916, 70.3571
2.6, 1, 21.4875, 46.8376, -4.24993, 64.3574, -53.2838, 70.2594
2.604, 1, 21.5435, 46.8421, -4.28627, 64.4825, -53.2761, 70.1618
2.607, 1, 21.5994, 46.8466, -4.32258, 64.6075, -53.2684, 70.0644
2.612, 1, 21.6552, 46.8511, -4.35884, 64.7323, -53.2607, 69.9671
2.616, 1, 21.7109, 46.8555, -4.39506, 64.857, -53.253, 69.8699
2.62, 1, 21.7666, 46.86, -4.43123, 64.9815, -53.2453, 69.7728
2.624, 1, 21.8222, 46.8644, -4.46736, 65.1058, -53.2376, 69.6758
2.627, 1, 21.8778, 46.8689, -4.50345, 65.23, -53.2299, 69.5789
2.632, 1, 21.9333, 46.8733, -4.53949, 65.3541, -53.2222, 69.4822
2.636, 1, 21.9887, 46.8778, -4.57549, 65.478, -53.2146, 69.3856
2.64, 1, 22.044, 46.8822, -4.61145, 65.6018, -53.2069, 69.2891
2.643, 1, 22.0993, 46.8866, -4.64737, 65.7254, -53.1993, 69.1927
2.648, 1, 22.1545, 46.8911, -4.68324, 65.8488, -53.1917, 69.0964
2.652, 1, 22.2097, 46.8955, -4.71907, 65.9722, -53.184, 69.0002
2.656, 1, 22.2648, 46.8999, -4.75485, 66.0953, -53.1764, 68.9042
2.66, 1, 22.3198, 46.9043, -4.7906, 66.2184, -53.1688, 68.8083
2.663, 1, 22.3748, 46.9087, -4.8263, 66.3412, -53.1612, 68.7124
2.668, 1, 22.4296, 46.9131, -4.86196, 66.464, -53.1536, 68.6167
2.672, 1, 22.4845, 46.9175, -4.89758, 66.5866, -53.146, 68.5211
2.676, 1, 22.5392, 46.9219, -4.93315, 66.709, -53.1385, 68.4256
2.679, 1, 22.5939, 46.9263, -4.96868, 66.8313, -53.1309, 68.3303
2.684, 1, 22.6486, 46.9306, -5.00418, 66.9535, -53.1234, 68.235
2.688, 1, 22.7031, 46.935, -5.03963, 67.0755, -53.1158, 68.1399
2.692, 1, 22.7576, 46.9394, -5.07503, 67.1974, -53.1083, 68.0448
2.696, 1, 22.8121, 46.9437, -5.1104, 67.3191, -53.1008, 67.9499
2.699, 1, 22.8665, 46.9481, -5.14573, 67.4407, -53.0933, 67.8551
2.704, 1, 22.9208, 46.9524, -5.18101, 67.5621, -53.0858, 67.7604
2.708, 1, 22.975, 46.9568, -5.21625, 67.6834, -53.0783, 67.6658
2.712, 1, 23.0292, 46.9611, -5.25146, 67.8046, -53.0708, 67.5713
2.716, 1, 23.0833, 46.9655, -5.28662, 67.9256, -53.0633, 67.4769
2.719, 1, 23.1374, 46.9698, -5.32174, 68.0465, -53.0558, 67.3827
2.724, 1, 23.1914, 46.9741, -5.35682, 68.1672, -53.0484, 67.2885
2.728, 1, 23.2453, 46.9784, -5.39185, 68.2878, -53.0409, 67.1945
2.732, 1, 23.2992, 46.9828, -5.42685, 68.4083, -53.0335, 67.1005
2.735, 1, 23.353, 46.9871, -5.46181, 68.5286, -53.026, 67.0067
2.74, 1, 23.4068, 46.9914, -5.49673, 68.6488, -53.0186, 66.913
2.744, 1, 23.4604, 46.9957, -5.5316, 68.7689, -53.0112, 66.8194
2.748, 1, 23.5141, 47, -5.56644, 68.8888, -53.0038, 66.7259
2.752, 1, 23.5676, 47.0043, -5.60124, 69.0085, -52.9964, 66.6325
2.755, 1, 23.6211, 47.0085, -5.63599, 69.1282, -52.989, 66.5392
2.76, 1, 23.6746, 47.0128, -5.67071, 69.2477, -52.9816, 66.446
2.764, 1, 23.7279, 47.0171, -5.70539, 69.367, -52.9742, 66.353
2.768, 1, 23.7813, 47.0214, -5.74003, 69.4862, -52.9668, 66.26
2.772, 1, 23.8345, 47.0256, -5.77462, 69.6053, -52.9595, 66.1671
2.775, 1, 23.8877, 47.0299, -5.80918, 69.7243, -52.9521, 66.0744
2.78, 1, 23.9409, 47.0342, -5.8437, 69.8431, -52.9448, 65.9817
2.784, 1, 23.9939, 47.0384, -5.87818, 69.9617, -52.9374, 65.8892
2.788, 1, 24.0469, 47.0427, -5.91262, 70.0803, -52.9301, 65.7968
2.791, 1, 24.0999, 47.0469, -5.94702, 70.1987, -52.9228, 65.7044
2.796, 1, 24.1528, 47.0511, -5.98138, 70.317, -52.9155, 65.6122
2.8, 1, 24.2056, 47.0554, -6.01571, 70.4351, -52.9082, 65.5201
2.804, 1, 24.2584, 47.0596, -6.04999, 70.5531, -52.9009, 65.428
2.808, 1, 24.3111, 47.0638, -6.08424, 70.671, -52.8936, 65.3361
2.811, 1, 24.3638, 47.068, -6.11845, 70.7887, -52.8863, 65.2443
2.816, 1, 24.4164, 47.0723, -6.15262, 70.9063, -52.879, 65.1526
2.82, 1, 24.4689, 47.0765, -6.18675, 71.0238, -52.8718, 65.061
2.824, 1, 24.5214, 47.0807, -6.22084, 71.1412, -52.8645, 64.9695
2.828, 1, 24.5738, 47.0849, -6.25489, 71.2584, -52.8573, 64.8781
2.831, 1, 24.6262, 47.0891, -6.28891, 71.3755, -52.8501, 64.7868
2.836, 1, 24.6785, 47.0932, -6.32289, 71.4924, -52.8428, 64.6956
2.84, 1, 24.7307, 47.0974, -6.35682, 71.6092, -52.8356, 64.6045
2.844, 1, 24.7829, 47.1016, -6.39073, 71.7259, -52.8284, 64.5135
2.847, 1, 24.835, 47.1058, -6.42459, 71.8425, -52.8212, 64.4226
2.852, 1, 24.8871, 47.11, -6.45842, 71.9589, -52.814, 64.3318
2.856, 1, 24.9391, 47.1141, -6.49221, 72.0752, -52.8068, 64.2411
2.86, 1, 24.9911, 47.1183, -6.52596, 72.1914, -52.7996, 64.1506
2.864, 1, 25.043, 47.1224, -6.55967, 72.3074, -52.7924, 64.0601
2.867, 1, 25.0948, 47.1266, -6.59335, 72.4233, -52.7853, 63.9697
2.872, 1, 25.1466, 47.1307, -6.62699, 72.5391, -52.7781, 63.8794
2.876, 1, 25.1983, 47.1349, -6.66059, 72.6548, -52.771, 63.7892
2.88, 1, 25.25, 47.139, -6.69416, 72.7703, -52.7638, 63.6991
2.883, 1, 25.3016, 47.1432, -6.72768, 72.8857, -52.7567, 63.6091
2.888, 1, 25.3531, 47.1473, -6.76118, 73.001, -52.7496, 63.5192
2.892, 1, 25.4046, 47.1514, -6.79463, 73.1161, -52.7425, 63.4294
2.896, 1, 25.4561, 47.1555, -6.82805, 73.2311, -52.7354, 63.3397
2.9, 1, 25.5075, 47.1597, -6.86143, 73.346, -52.7282, 63.2502
2.903, 1, 25.5588, 47.1638, -6.89478, 73.4608, -52.7212, 63.1607
2.908, 1, 25.6101, 47.1679, -6.92808, 73.5755, -52.7141, 63.0713
2.912, 1, 25.6613, 47.172, -6.96136, 73.69, -52.707, 62.982
2.916, 1, 25.7124, 47.1761, -6.99459, 73.8044, -52.6999, 62.8927
2.92, 1, 25.7635, 47.1802, -7.02779, 73.9186, -52.6929, 62.8036
2.923, 1, 25.8146, 47.1843, -7.06096, 74.0328, -52.6858, 62.7146
2.928, 1, 25.8656, 47.1883, -7.09408, 74.1468, -52.6788, 62.6257
2.932, 1, 25.9165, 47.1924, -7.12718, 74.2607, -52.6717, 62.5369
2.936, 1, 25.9674, 47.1965, -7.16023, 74.3745, -52.6647, 62.4482
2.939, 1, 26.0182, 47.2006, -7.19325, 74.4882, -52.6577, 62.3596
2.944, 1, 26.069, 47.2046, -7.22624, 74.6017, -52.6506, 62.271
2.948, 1, 26.1197, 47.2087, -7.25919, 74.7151, -52.6436, 62.1826
2.952, 1, 26.1704, 47.2128, -7.2921, 74.8284, -52.6366, 62.0942
2.956, 1, 26.221, 47.2168, -7.32498, 74.9415, -52.6296, 62.006
2.959, 1, 26.2716, 47.2209, -7.35782, 75.0546, -52.6226, 61.9178
2.964, 1, 26.3221, 47.2249, -7.39063, 75.1675, -52.6157, 61.8298
2.968, 1, 26.3725, 47.229, -7.4234, 75.2803, -52.6087, 61.7418
2.972, 1, 26.4229, 47.233, -7.45614, 75.393, -52.6017, 61.654
2.976, 1, 26.4733, 47.237, -7.48884, 75.5056, -52.5948, 61.5662
2.98, 1, 26.5235, 47.241, -7.52151, 75.618, -52.5878, 61.4785
2.984, 1, 26.5738, 47.2451, -7.55415, 75.7303, -52.5809, 61.3909
2.988, 1, 26.624, 47.2491, -7.58675, 75.8425, -52.5739, 61.3034
2.992, 1, 26.6741, 47.2531, -7.61931, 75.9546, -52.567, 61.216
2.995, 1, 26.7242, 47.2571, -7.65184, 76.0666, -52.5601, 61.1287
3, 1, 26.7742, 47.2611, -7.68434, 76.1785, -52.5532, 61.0415
3.004, 1, 26.8242, 47.2651, -7.7168, 76.2902, -52.5463, 60.9543
3.008, 1, 26.8741, 47.2691, -7.74923, 76.4018, -52.5394, 60.8673
3.012, 1, 26.924, 47.2731, -7.78163, 76.5133, -52.5325, 60.7803
3.015, 1, 26.9738, 47.2771, -7.81399, 76.6247, -52.5256, 60.6935
3.02, 1, 27.0235, 47.2811, -7.84631, 76.736, -52.5187, 60.6067
3.024, 1, 27.0732, 47.2851, -7.87861, 76.8471, -52.5119, 60.52
3.028, 1, 27.1229, 47.2891, -7.91087, 76.9582, -52.505, 60.4335
3.031, 1, 27.1725, 47.293, -7.9431, 77.0691, -52.4981, 60.347
3.036, 1, 27.2221, 47.297, -7.97529, 77.1799, -52.4913, 60.2606
3.04, 1, 27.2716, 47.301, -8.00745, 77.2906, -52.4844, 60.1742
3.044, 1, 27.321, 47.3049, -8.03958, 77.4012, -52.4776, 60.088
3.048, 1, 27.3704, 47.3089, -8.07167, 77.5116, -52.4708, 60.0019
3.051, 1, 27.4198, 47.3128, -8.10373, 77.622, -52.464, 59.9158
3.056, 1, 27.4691, 47.3168, -8.13576, 77.7322, -52.4571, 59.8298
3.06, 1, 27.5183, 47.3207, -8.16775, 77.8423, -52.4503, 59.744
3.064, 1, 27.5675, 47.3247, -8.19972, 77.9524, -52.4435, 59.6582
3.068, 1, 27.6167, 47.3286, -8.23165, 78.0623, -52.4367, 59.5725
3.071, 1, 27.6658, 47.3326, -8.26354, 78.172, -52.43, 59.4869
3.076, 1, 27.7148, 47.3365, -8.29541, 78.2817, -52.4232, 59.4014
3.08, 1, 27.7638, 47.3404, -8.32724, 78.3913, -52.4164, 59.3159
3.084, 1, 27.8128, 47.3443, -8.35904, 78.5007, -52.4096, 59.2306
3.087, 1, 27.8617, 47.3482, -8.39081, 78.6101, -52.4029, 59.1453
3.092, 1, 27.9105, 47.3522, -8.42254, 78.7193, -52.3961, 59.0601
3.096, 1, 27.9593, 47.3561, -8.45425, 78.8284, -52.3894, 58.975
3.1, 1, 28.0081, 47.36, -8.48592, 78.9375, -52.3826, 58.89
3.104, 1, 28.0568, 47.3639, -8.51756, 79.0464, -52.3759, 58.8051
3.107, 1, 28.1055, 47.3678, -8.54917, 79.1552, -52.3692, 58.7203
3.112, 1, 28.1541, 47.3717, -8.58074, 79.2638, -52.3625, 58.6355
3.116, 1, 28.2026, 47.3755, -8.61229, 79.3724, -52.3558, 58.5508
3.12, 1, 28.2511, 47.3794, -8.6438, 79.4809, -52.3491, 58.4663
3.124, 1, 28.2996, 47.3833, -8.67529, 79.5892, -52.3424, 58.3818
3.128, 1, 28.348, 47.3872, -8.70674, 79.6975, -52.3357, 58.2973
3.132, 1, 28.3964, 47.3911, -8.73816, 79.8056, -52.329, 58.213
3.136, 1, 28.4447, 47.3949, -8.76954, 79.9137, -52.3223, 58.1288
3.14, 1, 28.493, 47.3988, -8.8009, 80.0216, -52.3156, 58.0446
3.143, 1, 28.5412, 47.4027, -8.83223, 80.1294, -52.309, 57.9605
3.148, 1, 28.5894, 47.4065, -8.86352, 80.2372, -52.3023, 57.8765
3.152, 1, 28.6375, 47.4104, -8.89479, 80.3448, -52.2957, 57.7926
3.156, 1, 28.6856, 47.4142, -8.92602, 80.4523, -52.289, 57.7088
3.16, 1, 28.7336, 47.4181, -8.95722, 80.5597, -52.2824, 57.625
3.163, 1, 28.7816, 47.4219, -8.9884, 80.667, -52.2757, 57.5414
3.168, 1, 28.8295, 47.4258, -9.01954, 80.7741, -52.2691, 57.4578
3.172, 1, 28.8774, 47.4296, -9.05065, 80.8812, -52.2625, 57.3743
3.176, 1, 28.9253, 47.4334, -9.08173, 80.9882, -52.2559, 57.2909
3.179, 1, 28.9731, 47.4373, -9.11278, 81.0951, -52.2493, 57.2075
3.184, 1, 29.0208, 47.4411, -9.1438, 81.2019, -52.2427, 57.1243
3.188, 1, 29.0685, 47.4449, -9.17479, 81.3085, -52.2361, 57.0411
3.192, 1, 29.1162, 47.4487, -9.20576, 81.4151, -52.2295, 56.958
3.196, 1, 29.1638, 47.4525, -9.23669, 81.5216, -52.2229, 56.875
3.199, 1, 29.2113, 47.4563, -9.26759, 81.6279, -52.2163, 56.792
3.204, 1, 29.2589, 47.4602, -9.29846, 81.7342, -52.2098, 56.7092
3.208, 1, 29.3063, 47.464, -9.3293, 81.8403, -52.2032, 56.6264
3.212, 1, 29.3538, 47.4678, -9.36011, 81.9464, -52.1967, 56.5437
3.216, 1, 29.4011, 47.4715, -9.39089, 82.0523, -52.1901, 56.4611
3.22, 1, 29.4485, 47.4753, -9.42164, 82.1582, -52.1836, 56.3785
3.224, 1, 29.4958, 47.4791, -9.45237, 82.2639, -52.177, 56.2961
3.228, 1, 29.543, 47.4829, -9.48306, 82.3696, -52.1705, 56.2137
3.232, 1, 29.5902, 47.4867, -9.51373, 82.4751, -52.164, 56.1314
3.235, 1, 29.6374, 47.4905, -9.54436, 82.5806, -52.1575, 56.0492
3.24, 1, 29.6845, 47.4943, -9.57497, 82.6859, -52.151, 55.967
3.244, 1, 29.7316, 47.498, -9.60554, 82.7912, -52.1445, 55.8849
3.248, 1, 29.7786, 47.5018, -9.63609, 82.8963, -52.138, 55.8029
3.252, 1, 29.8256, 47.5055, -9.66661, 83.0014, -52.1315, 55.721
3.255, 1, 29.8725, 47.5093, -9.6971, 83.1063, -52.125, 55.6392
3.26, 1, 29.9194, 47.5131, -9.72756, 83.2111, -52.1185, 55.5574
3.264, 1, 29.9662, 47.5168, -9.75799, 83.3159, -52.112, 55.4758
3.268, 1, 30.013, 47.5206, -9.7884, 83.4205, -52.1055, 55.3942
3.272, 1, 30.0598, 47.5243, -9.81877, 83.5251, -52.0991, 55.3126
3.276, 1, 30.1065, 47.5281, -9.84912, 83.6295, -52.0926, 55.2312
3.28, 1, 30.1532, 47.5318, -9.87944, 83.7339, -52.0862, 55.1498
3.284, 1, 30.1998, 47.5355, -9.90973, 83.8382, -52.0797, 55.0685
3.288, 1, 30.2464, 47.5393, -9.93999, 83.9423, -52.0733, 54.9873
3.291, 1, 30.2929, 47.543, -9.97023, 84.0464, -52.0669, 54.9061
3.296, 1, 30.3394, 47.5467, -10.0004, 84.1504, -52.0604, 54.8251
3.3, 1, 30.3859, 47.5504, -10.0306, 84.2542, -52.054, 54.744
3.304, 1, 30.4323, 47.5541, -10.0608, 84.358, -52.0476, 54.6631
3.308, 1, 30.4787, 47.5579, -10.0909, 84.4617, -52.0412, 54.5823
3.312, 1, 30.525, 47.5616, -10.121, 84.5653, -52.0348, 54.5015
3.316, 1, 30.5713, 47.5653, -10.151, 84.6687, -52.0284, 54.4208
3.32, 1, 30.6175, 47.569, -10.1811, 84.7721, -52.022, 54.3402
3.324, 1, 30.6637, 47.5727, -10.2111, 84.8754, -52.0156, 54.2596
3.328, 1, 30.7099, 47.5764, -10.2411, 84.9786, -52.0092, 54.1792
3.332, 1, 30.756, 47.5801, -10.271, 85.0817, -52.0029, 54.0988
3.336, 1, 30.802, 47.5838, -10.301, 85.1848, -51.9965, 54.0184
3.34, 1, 30.8481, 47.5875, -10.3309, 85.2877, -51.9901, 53.9382
3.344, 1, 30.894, 47.5911, -10.3607, 85.3905, -51.9838, 53.858
3.347, 1, 30.94, 47.5948, -10.3906, 85.4932, -51.9774, 53.7779
3.352, 1, 30.9859, 47.5985, -10.4204, 85.5959, -51.9711, 53.6978
3.356, 1, 31.0317, 47.6022, -10.4502, 85.6984, -51.9648, 53.6179
3.36, 1, 31.0776, 47.6058, -10.48, 85.8009, -51.9584, 53.538
3.364, 1, 31.1233, 47.6095, -10.5097, 85.9032, -51.9521, 53.4582
3.368, 1, 31.1691, 47.6132, -10.5394, 86.0055, -51.9458, 53.3784
3.372, 1, 31.2148, 47.6168, -10.5691, 86.1077, -51.9395, 53.2988
3.376, 1, 31.2604, 47.6205, -10.5988, 86.2097, -51.9331, 53.2192
3.38, 1, 31.306, 47.6241, -10.6284, 86.3117, -51.9268, 53.1396
3.383, 1, 31.3516, 47.6278, -10.658, 86.4136, -51.9205, 53.0602
3.388, 1, 31.3971, 47.6314, -10.6876, 86.5154, -51.9143, 52.9808
3.392, 1, 31.4426, 47.6351, -10.7171, 86.6171, -51.908, 52.9015
3.396, 1, 31.4881, 47.6387, -10.7466, 86.7188, -51.9017, 52.8222
3.4, 1, 31.5335, 47.6424, -10.7761, 86.8203, -51.8954, 52.743
3.403, 1, 31.5789, 47.646, -10.8056, 86.9218, -51.8891, 52.6639
3.408, 1, 31.6242, 47.6496, -10.8351, 87.0231, -51.8829, 52.5849
3.412, 1, 31.6695, 47.6532, -10.8645, 87.1244, -51.8766, 52.5059
3.416, 1, 31.7147, 47.6569, -10.8939, 87.2256, -51.8704, 52.427
3.42, 1, 31.7599, 47.6605, -10.9232, 87.3267, -51.8641, 52.3482
3.424, 1, 31.8051, 47.6641, -10.9526, 87.4276, -51.8579, 52.2694
3.428, 1, 31.8502, 47.6677, -10.9819, 87.5286, -51.8516, 52.1908
3.432, 1, 31.8953, 47.6713, -11.0112, 87.6294, -51.8454, 52.1121
3.436, 1, 31.9404, 47.6749, -11.0405, 87.7301, -51.8392, 52.0336
3.439, 1, 31.9854, 47.6786, -11.0697, 87.8308, -51.833, 51.9551
3.444, 1, 32.0304, 47.6822, -11.0989, 87.9313, -51.8267, 51.8767
3.448, 1, 32.0753, 47.6858, -11.1281, 88.0318, -51.8205, 51.7983
3.452, 1, 32.1202, 47.6894, -11.1573, 88.1322, -51.8143, 51.7201
3.456, 1, 32.165, 47.6929, -11.1864, 88.2325, -51.8081, 51.6418
3.46, 1, 32.2099, 47.6965, -11.2155, 88.3327, -51.8019, 51.5637
3.464, 1, 32.2546, 47.7001, -11.2446, 88.4328, -51.7957, 51.4856
3.468, 1, 32.2994, 47.7037, -11.2737, 88.5328, -51.7896, 51.4076
3.472, 1, 32.3441, 47.7073, -11.3027, 88.6328, -51.7834, 51.3297
3.476, 1, 32.3887, 47.7109, -11.3317, 88.7327, -51.7772, 51.2518
3.48, 1, 32.4334, 47.7144, -11.3607, 88.8324, -51.771, 51.174
3.484, 1, 32.4779, 47.718, -11.3897, 88.9321, -51.7649, 51.0963
3.488, 1, 32.5225, 47.7216, -11.4186, 89.0317, -51.7587, 51.0186
3.492, 1, 32.567, 47.7251, -11.4475, 89.1313, -51.7526, 50.941
3.495, 1, 32.6115, 47.7287, -11.4764, 89.2307, -51.7464, 50.8634
3.5, 1, 32.6559, 47.7323, -11.5053, 89.3301, -51.7403, 50.786
3.504, 1, 32.7003, 47.7358, -11.5341, 89.4293, -51.7341, 50.7085
3.508, 1, 32.7447, 47.7394, -11.563, 89.5285, -51.728, 50.6312
3.512, 1, 32.789, 47.7429, -11.5917, 89.6276, -51.7219, 50.5539
3.516, 1, 32.8333, 47.7465, -11.6205, 89.7266, -51.7158, 50.4767
3.52, 1, 32.8775, 47.75, -11.6493, 89.8256, -51.7097, 50.3996
3.524, 1, 32.9217, 47.7536, -11.678, 89.9244, -51.7035, 50.3225
3.528, 1, 32.9659, 47.7571, -11.7067, 90.0232, -51.6974, 50.2455
3.531, 1, 33.01, 47.7606, -11.7353, 90.1219, -51.6913, 50.1685
3.536, 1, 33.0541, 47.7642, -11.764, 90.2205, -51.6852, 50.0916
3.54, 1, 33.0982, 47.7677, -11.7926, 90.319, -51.6792, 50.0148
3.544, 1, 33.1422, 47.7712, -11.8212, 90.4174, -51.6731, 49.938
3.548, 1, 33.1862, 47.7747, -11.8498, 90.5158, -51.667, 49.8613
3.552, 1, 33.2301, 47.7783, -11.8783, 90.6141, -51.6609, 49.7847
3.556, 1, 33.2741, 47.7818, -11.9069, 90.7123, -51.6548, 49.7081
3.56, 1, 33.3179, 47.7853, -11.9354, 90.8104, -51.6488, 49.6316
3.564, 1, 33.3618, 47.7888, -11.9639, 90.9084, -51.6427, 49.5552
3.568, 1, 33.4056, 47.7923, -11.9923, 91.0064, -51.6367, 49.4788
3.572, 1, 33.4493, 47.7958, -12.0207, 91.1042, -51.6306, 49.4025
3.576, 1, 33.4931, 47.7993, -12.0492, 91.202, -51.6246, 49.3262
3.58, 1, 33.5368, 47.8028, -12.0775, 91.2997, -51.6185, 49.25
3.584, 1, 33.5804, 47.8063, -12.1059, 91.3973, -51.6125, 49.1739
3.587, 1, 33.6241, 47.8098, -12.1343, 91.4949, -51.6065, 49.0978
3.592, 1, 33.6676, 47.8133, -12.1626, 91.5924, -51.6004, 49.0218
3.596, 1, 33.7112, 47.8168, -12.1909, 91.6898, -51.5944, 48.9459
3.6, 1, 33.7547, 47.8203, -12.2191, 91.7871, -51.5884, 48.87
3.604, 1, 33.7982, 47.8238, -12.2474, 91.8843, -51.5824, 48.7942
3.608, 1, 33.8417, 47.8272, -12.2756, 91.9814, -51.5764, 48.7184
3.612, 1, 33.8851, 47.8307, -12.3038, 92.0785, -51.5704, 48.6427
3.616, 1, 33.9284, 47.8342, -12.332, 92.1755, -51.5644, 48.5671
3.62, 1, 33.9718, 47.8377, -12.3601, 92.2724, -51.5584, 48.4915
3.624, 1, 34.0151, 47.8411, -12.3883, 92.3693, -51.5524, 48.416
3.628, 1, 34.0584, 47.8446, -12.4164, 92.466, -51.5464, 48.3406
3.632, 1, 34.1016, 47.8481, -12.4445, 92.5627, -51.5405, 48.2652
3.636, 1, 34.1448, 47.8515, -12.4725, 92.6593, -51.5345, 48.1898
3.64, 1, 34.188, 47.855, -12.5006, 92.7558, -51.5285, 48.1146
3.644, 1, 34.2311, 47.8584, -12.5286, 92.8523, -51.5226, 48.0394
3.648, 1, 34.2742, 47.8619, -12.5566, 92.9486, -51.5166, 47.9642
3.652, 1, 34.3173, 47.8653, -12.5846, 93.045, -51.5107, 47.8891
3.656, 1, 34.3603, 47.8688, -12.6125, 93.1412, -51.5047, 47.8141
3.66, 1, 34.4033, 47.8722, -12.6405, 93.2373, -51.4988, 47.7391
3.664, 1, 34.4463, 47.8757, -12.6684, 93.3334, -51.4928, 47.6642
3.668, 1, 34.4892, 47.8791, -12.6963, 93.4294, -51.4869, 47.5894
3.672, 1, 34.5321, 47.8825, -12.7241, 93.5253, -51.481, 47.5146
3.676, 1, 34.5749, 47.886, -12.752, 93.6211, -51.475, 47.4398
3.679, 1, 34.6178, 47.8894, -12.7798, 93.7169, -51.4691, 47.3652
3.684, 1, 34.6605, 47.8928, -12.8076, 93.8126, -51.4632, 47.2905
3.688, 1, 34.7033, 47.8963, -12.8354, 93.9082, -51.4573, 47.216
3.692, 1, 34.746, 47.8997, -12.8631, 94.0037, -51.4514, 47.1415
3.696, 1, 34.7887, 47.9031, -12.8909, 94.0992, -51.4455, 47.067
3.7, 1, 34.8314, 47.9065, -12.9186, 94.1945, -51.4396, 46.9927
3.704, 1, 34.874, 47.9099, -12.9463, 94.2899, -51.4337, 46.9183
3.708, 1, 34.9166, 47.9133, -12.9739, 94.3851, -51.4278, 46.8441
3.712, 1, 34.9592, 47.9167, -13.0016, 94.4803, -51.4219, 46.7699
3.716, 1, 35.0016, 47.9202, -13.0292, 94.5754, -51.4161, 46.6957
3.72, 1, 35.0439, 47.9236, -13.0569, 94.6704, -51.4102, 46.6216
3.724, 1, 35.0857, 47.9271, -13.0845, 94.7653, -51.4043, 46.5476
3.728, 1, 35.1271, 47.9306, -13.1121, 94.86, -51.3985, 46.4737
3.732, 1, 35.1678, 47.9342, -13.1398, 94.9546, -51.3927, 46.3999
3.735, 1, 35.2078, 47.9378, -13.1675, 95.0489, -51.3869, 46.3264
3.74, 1, 35.2471, 47.9416, -13.1951, 95.1428, -51.3812, 46.2531
3.744, 1, 35.2856, 47.9454, -13.2227, 95.2361, -51.3755, 46.1804
3.748, 1, 35.3233, 47.9493, -13.2501, 95.3285, -51.3699, 46.1082
3.752, 1, 35.3602, 47.9533, -13.2773, 95.4199, -51.3644, 46.0369
3.756, 1, 35.3961, 47.9573, -13.3041, 95.5098, -51.3589, 45.9668
3.76, 1, 35.4309, 47.9613, -13.3306, 95.598, -51.3536, 45.8979
3.764, 1, 35.4644, 47.9653, -13.3565, 95.684, -51.3485, 45.8308
3.768, 1, 35.4966, 47.9693, -13.3817, 95.7674, -51.3435, 45.7657
3.772, 1, 35.5275, 47.9732, -13.406, 95.8478, -51.3387, 45.7029
3.776, 1, 35.5572, 47.9768, -13.4292, 95.9247, -51.3341, 45.6429
3.78, 1, 35.5857, 47.9803, -13.4512, 95.9977, -51.3297, 45.5859
3.784, 1, 35.6131, 47.9834, -13.4718, 96.0664, -51.3256, 45.5322
3.788, 1, 35.6392, 47.9862, -13.4909, 96.1305, -51.3217, 45.4822
3.792, 1, 35.6638, 47.9887, -13.5085, 96.1898, -51.3181, 45.4359
3.796, 1, 35.687, 47.9909, -13.5246, 96.2442, -51.3148, 45.3935
3.8, 1, 35.7087, 47.9928, -13.5389, 96.2935, -51.3118, 45.3551
3.804, 1, 35.7289, 47.9943, -13.5517, 96.3376, -51.309, 45.3206
3.808, 1, 35.7479, 47.9954, -13.5628, 96.3767, -51.3065, 45.2902
3.812, 1, 35.7657, 47.9962, -13.5723, 96.4109, -51.3043, 45.2635
3.816, 1, 35.7821, 47.9966, -13.5802, 96.4404, -51.3024, 45.2406
3.82, 1, 35.7973, 47.9968, -13.5868, 96.4656, -51.3007, 45.2211
3.824, 1, 35.8111, 47.9967, -13.5921, 96.4866, -51.2993, 45.2047
3.828, 2, 35.8233, 47.9965, -13.5963, 96.504, -51.298, 45.1912
3.832, 2, 35.8341, 47.9961, -13.5996, 96.5182, -51.297, 45.1802
3.836, 2, 35.8437, 47.9957, -13.6021, 96.5296, -51.2961, 45.1714
3.84, 2, 35.8521, 47.9952, -13.6039, 96.5385, -51.2955, 45.1646
3.844, 2, 35.8596, 47.9947, -13.6051, 96.5453, -51.2949, 45.1593
3.848, 2, 35.8663, 47.9941, -13.6059, 96.5504, -51.2945, 45.1553
3.852, 2, 35.8721, 47.9936, -13.6064, 96.5542, -51.2941, 45.1525
3.856, 2, 35.8771, 47.9932, -13.6066, 96.5569, -51.2938, 45.1504
3.86, 2, 35.8812, 47.9928, -13.6067, 96.5588, -51.2936, 45.149
3.864, 2, 35.8845, 47.9925, -13.6068, 96.5601, -51.2935, 45.148
3.868, 2, 35.8869, 47.9922, -13.6068, 96.561, -51.2934, 45.1473
3.872, 2, 35.8886, 47.9921, -13.6068, 96.5616, -51.2933, 45.1468
3.876, 2, 35.8898, 47.9919, -13.6068, 96.562, -51.2933, 45.1465
3.88, 2, 35.8905, 47.9919, -13.6068, 96.5623, -51.2932, 45.1463
3.884, 2, 35.8911, 47.9918, -13.6068, 96.5625, -51.2932, 45.1462
3.888, 2, 35.8915, 47.9918, -13.6068, 96.5626, -51.2932, 45.1461
3.892, 2, 35.8917, 47.9918, -13.6068, 96.5627, -51.2932, 45.146
3.896, 2, 35.8919, 47.9917, -13.6068, 96.5628, -51.2932, 45.146
3.9, 2, 35.892, 47.9917, -13.6068, 96.5628, -51.2932, 45.1459
3.904, 2, 35.8921, 47.9917, -13.6068, 96.5628, -51.2932, 45.1459
3.908, 2, 35.8921, 47.9917, -13.6068, 96.5628, -51.2932, 45.1459
3.912, 2, 35.8921, 47.9917, -13.6068, 96.5628, -51.2932, 45.1459
3.916, 2, 35.8922, 47.9917, -13.6068, 96.5629, -51.2932, 45.1459
3.92, 2, 35.8922, 47.9917, -13.6068, 96.5629, -51.2932, 45.1459
3.924, 2, 35.8922, 47.9917, -13.6068, 96.5629, -51.2932, 45.1459
3.928, 2, 35.8922, 47.9917, -13.6068, 96.5629, -51.2932, 45.1459
3.932, 2, 35.8922, 47.9917, -13.6068, 96.5629, -51.2932, 45.1459
3.936, 2, 35.8922, 47.9917, -13.6068, 96.5629, -51.2932, 45.1459
3.94, 2, 35.8922, 47.9917, -13.6068, 96.5629, -51.2932, 45.1459
3.944, 2, 35.8922, 47.9917, -13.6068, 96.5629, -51.2932, 45.1459
3.948, 2, 35.8922, 47.9917, -13.6068, 96.5629, -51.2932, 45.1459
3.952, 2, 35.8922, 47.9917, -13.6068, 96.5629, -51.2932, 45.1459
3.956, 2, 35.8922, 47.9917, -13.6068, 96.5629, -51.2932, 45.1459
3.96, 2, 35.8922, 47.9917, -13.6068, 96.5629, -51.2932, 45.1459
3.964, 2, 35.8922, 47.9917, -13.6068, 96.5629, -51.2932, 45.1459
3.968, 2, 35.8922, 47.9917, -13.6068, 96.5629, -51.2932, 45.1459
3.972, 2, 35.8922, 47.9917, -13.6068, 96.5629, -51.2932, 45.1459
3.976, 2, 35.8922, 47.9917, -13.6068, 96.5629, -51.2932, 45.1459
3.98, 2, 35.8922, 47.9917, -13.6068, 96.5629, -51.2932, 45.1459
3.984, 2, 35.8922, 47.9917, -13.6068, 96.5629, -51.2932, 45.1459
3.988, 2, 35.8922, 47.9917, -13.6068, 96.5629, -51.2932, 45.1459
3.992, 2, 35.8922, 47.9917, -13.6068, 96.5629, -51.2932, 45.1459
3.996, 2, 35.8922, 47.9917, -13.6068, 96.5629, -51.2932, 45.1459
3.999, 2, 35.8922, 47.9917, -13.6068, 96.5629, -51.2932, 45.1459
4.004, 2, 35.8922, 47.9917, -13.6068, 96.5629, -51.2932, 45.1459
4.008, 2, 35.8922, 47.9917, -13.6068, 96.5629, -51.2932, 45.1459
4.012, 2, 35.8922, 47.9917, -13.6068, 96.5629, -51.2932, 45.1459
4.016, 2, 35.8922, 47.9917, -13.6068, 96.5629, -51.2932, 45.1459
4.02, 2, 35.8922, 47.9917, -13.6068, 96.5629, -51.2932, 45.1459
4.024, 2, 35.8922, 47.9917, -13.6068, 96.5629, -51.2932, 45.1459
4.028, 2, 35.8922, 47.9917, -13.6068, 96.5629, -51.2932, 45.1459
4.032, 2, 35.8922, 47.9917, -13.6068, 96.5629, -51.2932, 45.1459
4.036, 2, 35.8922, 47.9917, -13.6068, 96.5629, -51.2932, 45.1459
4.04, 2, 35.8922, 47.9917, -13.6068, 96.5629, -51.2932, 45.1459
4.044, 2, 35.8922, 47.9917, -13.6068, 96.5629, -51.2932, 45.1459
4.048, 2, 35.8922, 47.9917, -13.6068, 96.5629, -51.2932, 45.1459
4.052, 2, 35.8922, 47.9917, -13.6068, 96.5629, -51.2932, 45.1459
4.056, 2, 35.8922, 47.9917, -13.6068, 96.5629, -51.2932, 45.1459
4.06, 2, 35.8922, 47.9917, -13.6068, 96.5629, -51.2932, 45.1459
4.064, 2, 35.8922, 47.9917, -13.6068, 96.5629, -51.2932, 45.1459
4.068, 2, 35.8922, 47.9917, -13.6068, 96.5629, -51.2932, 45.1459
4.072, 2, 35.8922, 47.9917, -13.6068, 96.5629, -51.2932, 45.1459
4.076, 2, 35.8922, 47.9917, -13.6068, 96.5629, -51.2932, 45.1459
4.08, 2, 35.8922, 47.9917, -13.6068, 96.5629, -51.2932, 45.1459
4.084, 2, 35.8922, 47.9917, -13.6068, 96.5629, -51.2932, 45.1459
4.088, 2, 35.8922, 47.9917, -13.6068, 96.5629, -51.2932, 45.1459
4.092, 2, 35.8922, 47.9917, -13.6068, 96.5629, -51.2932, 45.1459
4.096, 2, 35.8922, 47.9917, -13.6068, 96.5629, -51.2932, 45.1459
4.1, 2, 35.8922, 47.9917, -13.6068, 96.5629, -51.2932, 45.1459
4.104, 2, 35.8922, 47.9917, -13.6068, 96.5629, -51.2932, 45.1459
4.108, 2, 35.8922, 47.9917, -13.6068, 96.5629, -51.2932, 45.1459
4.112, 2, 35.8922, 47.9917, -13.6068, 96.5629, -51.2932, 45.1459
4.116, 2, 35.8922, 47.9917, -13.6068, 96.5629, -51.2932, 45.1459
4.12, 2, 35.8922, 47.9917, -13.6068, 96.5629, -51.2932, 45.1459
4.124, 2, 35.8922, 47.9917, -13.6068, 96.5629, -51.2932, 45.1459
4.128, 2, 35.8922, 47.9917, -13.6068, 96.5629, -51.2932, 45.1459
4.132, 2, 35.8922, 47.9917, -13.6068, 96.5629, -51.2932, 45.1459
4.136, 2, 35.8922, 47.9917, -13.6068, 96.5629, -51.2932, 45.1459
4.14, 2, 35.8922, 47.9917, -13.6068, 96.5629, -51.2932, 45.1459
4.144, 2, 35.8922, 47.9917, -13.6068, 96.5629, -51.2932, 45.1459
4.148, 2, 35.8922, 47.9917, -13.6068, 96.5629, -51.2932, 45.1459
4.152, 2, 35.8922, 47.9917, -13.6068, 96.5629, -51.2932, 45.1459
4.156, 2, 35.8922, 47.9917, -13.6068, 96.5629, -51.2932, 45.1459
4.16, 2, 35.8922, 47.9917, -13.6068, 96.5629, -51.2932, 45.1459
4.164, 2, 35.8922, 47.9917, -13.6068, 96.5629, -51.2932, 45.1459
4.168, 2, 35.8922, 47.9917, -13.6068, 96.5629, -51.2932, 45.1459
4.172, 2, 35.8922, 47.9917, -13.6068, 96.5629, -51.2932, 45.1459
4.176, 2, 35.8922, 47.9917, -13.6068, 96.5629, -51.2932, 45.1459
4.18, 2, 35.8922, 47.9917, -13.6068, 96.5629, -51.2932, 45.1459
4.184, 2, 35.8922, 47.9917, -13.6068, 96.5629, -51.2932, 45.1459
4.188, 2, 35.8922, 47.9917, -13.6068, 96.5629, -51.2932, 45.1459
4.192, 2, 35.8922, 47.9917, -13.6068, 96.5629, -51.2932, 45.1459
4.196, 2, 35.8922, 47.9917, -13.6068, 96.5629, -51.2932, 45.1459
4.2, 2, 35.8922, 47.9917, -13.6068, 96.5629, -51.2932, 45.1459
4.204, 2, 35.8922, 47.9917, -13.6068, 96.5629, -51.2932, 45.1459
4.208, 2, 35.8922, 47.9917, -13.6068, 96.5629, -51.2932, 45.1459
4.212, 2, 35.8922, 47.9917, -13.6068, 96.5629, -51.2932, 45.1459
4.216, 2, 35.8922, 47.9917, -13.6068, 96.5629, -51.2932, 45.1459
4.22, 2, 35.8922, 47.9917, -13.6068, 96.5629, -51.2932, 45.1459
4.224, 2, 35.8922, 47.9917, -13.6068, 96.5629, -51.2932, 45.1459
4.228, 2, 35.8922, 47.9917, -13.6068, 96.5629, -51.2932, 45.1459
4.232, 2, 35.8922, 47.9917, -13.6068, 96.5629, -51.2932, 45.1459
4.236, 2, 35.8922, 47.9917, -13.6068, 96.5629, -51.2932, 45.1459
4.24, 2, 35.8922, 47.9917, -13.6068, 96.5629, -51.2932, 45.1459
4.244, 2, 35.8922, 47.9917, -13.6068, 96.5629, -51.2932, 45.1459
4.248, 2, 35.8922, 47.9917, -13.6068, 96.5629, -51.2932, 45.1459
4.252, 2, 35.8922, 47.9917, -13.6068, 96.5629, -51.2932, 45.1459
4.256, 2, 35.8922, 47.9917, -13.6068, 96.5629, -51.2932, 45.1459
4.26, 2, 35.8922, 47.9917, -13.6068, 96.5629, -51.2932, 45.1459
4.264, 2, 35.8922, 47.9917, -13.6068, 96.5629, -51.2932, 45.1459
4.268, 2, 35.8922, 47.9917, -13.6068, 96.5629, -51.2932, 45.1459
4.272, 2, 35.8922, 47.9917, -13.6068, 96.5629, -51.2932, 45.1459
4.276, 2, 35.8922, 47.9917, -13.6068, 96.5629, -51.2932, 45.1459
4.28, 2, 35.8922, 47.9917, -13.6068, 96.5629, -51.2932, 45.1459
4.284, 2, 35.8922, 47.9917, -13.6068, 96.5629, -51.2932, 45.1459
4.288, 2, 35.8922, 47.9917, -13.6068, 96.5629, -51.2932, 45.1459
4.292, 2, 35.8922, 47.9917, -13.6068, 96.5629, -51.2932, 45.1459
4.296, 2, 35.8922, 47.9917, -13.6068, 96.5629, -51.2932, 45.1459
4.3, 2, 35.8922, 47.9917, -13.6068, 96.5629, -51.2932, 45.1459
4.304, 2, 35.8922, 47.9917, -13.6068, 96.5629, -51.2932, 45.1459
4.308, 2, 35.8922, 47.9917, -13.6068, 96.5629, -51.2932, 45.1459
4.312, 2, 35.8922, 47.9917, -13.6068, 96.5629, -51.2932, 45.1459
4.316, 2, 35.8922, 47.9917, -13.6068, 96.5629, -51.2932, 45.1459
4.32, 2, 35.8922, 47.9917, -13.6068, 96.5629, -51.2932, 45.1459
4.324, 2, 35.8922, 47.9917, -13.6068, 96.5629, -51.2932, 45.1459
4.328, 2, 35.8922, 47.9917, -13.6068, 96.5629, -51.2932, 45.1459
4.332, 2, 35.8922, 47.9917, -13.6068, 96.5629, -51.2932, 45.1459
4.336, 2, 35.8922, 47.9917, -13.6068, 96.5629, -51.2932, 45.1459
4.34, 2, 35.8922, 47.9917, -13.6068, 96.5629, -51.2932, 45.1459
4.344, 2, 35.8922, 47.9917, -13.6068, 96.5629, -51.2932, 45.1459
4.348, 2, 35.8922, 47.9917, -13.6068, 96.5629, -51.2932, 45.1459
4.352, 2, 35.8922, 47.9917, -13.6068, 96.5629, -51.2932, 45.1459
4.356, 2, 35.8922, 47.9917, -13.6068, 96.5629, -51.2932, 45.1459
4.36, 2, 35.8922, 47.9917, -13.6068, 96.5629, -51.2932, 45.1459
4.364, 2, 35.8922, 47.9917, -13.6068, 96.5629, -51.2932, 45.1459
4.368, 2, 35.8922, 47.9917, -13.6068, 96.5629, -51.2932, 45.1459
4.372, 2, 35.8922, 47.9917, -13.6068, 96.5629, -51.2932, 45.1459
4.376, 2, 35.8922, 47.9917, -13.6068, 96.5629, -51.2932, 45.1459
4.38, 2, 35.8922, 47.9917, -13.6068, 96.5629, -51.2932, 45.1459
4.384, 2, 35.8922, 47.9917, -13.6068, 96.5629, -51.2932, 45.1459
4.388, 2, 35.8922, 47.9917, -13.6068, 96.5629, -51.2932, 45.1459
4.392, 2, 35.8922, 47.9917, -13.6068, 96.5629, -51.2932, 45.1459
4.396, 2, 35.8922, 47.9917, -13.6068, 96.5629, -51.2932, 45.1459
4.4, 2, 35.8922, 47.9917, -13.6068, 96.5629, -51.2932, 45.1459
4.404, 2, 35.8922, 47.9917, -13.6068, 96.5629, -51.2932, 45.1459
4.408, 2, 35.8922, 47.9917, -13.6068, 96.5629, -51.2932, 45.1459
4.412, 2, 35.8922, 47.9917, -13.6068, 96.5629, -51.2932, 45.1459
4.416, 2, 35.8922, 47.9917, -13.6068, 96.5629, -51.2932, 45.1459
4.42, 2, 35.8922, 47.9917, -13.6068, 96.5629, -51.2932, 45.1459
4.424, 2, 35.8922, 47.9917, -13.6068, 96.5629, -51.2932, 45.1459
4.428, 2, 35.8922, 47.9917, -13.6068, 96.5629, -51.2932, 45.1459
4.432, 2, 35.8922, 47.9917, -13.6068, 96.5629, -51.2932, 45.1459
4.436, 2, 35.8922, 47.9917, -13.6068, 96.5629, -51.2932, 45.1459
4.44, 2, 35.8922, 47.9917, -13.6068, 96.5629, -51.2932, 45.1459
4.444, 2, 35.8922, 47.9917, -13.6068, 96.5629, -51.2932, 45.1459
4.448, 2, 35.8922, 47.9917, -13.6068, 96.5629, -51.2932, 45.1459
4.452, 2, 35.8922, 47.9917, -13.6068, 96.5629, -51.2932, 45.1459
4.456, 2, 35.8922, 47.9917, -13.6068, 96.5629, -51.2932, 45.1459
4.46, 2, 35.8922, 47.9917, -13.6068, 96.5629, -51.2932, 45.1459
4.464, 2, 35.8922, 47.9917, -13.6068, 96.5629, -51.2932, 45.1459
4.468, 2, 35.8922, 47.9917, -13.6068, 96.5629, -51.2932, 45.1459
4.472, 2, 35.8922, 47.9917, -13.6068, 96.5629, -51.2932, 45.1459
4.476, 2, 35.8922, 47.9917, -13.6068, 96.5629, -51.2932, 45.1459
4.48, 2, 35.8922, 47.9917, -13.6068, 96.5629, -51.2932, 45.1459
4.484, 2, 35.8922, 47.9917, -13.6068, 96.5629, -51.2932, 45.1459
4.488, 2, 35.8922, 47.9917, -13.6068, 96.5629, -51.2932, 45.1459
4.492, 2, 35.8922, 47.9917, -13.6068, 96.5629, -51.2932, 45.1459
4.496, 2, 35.8922, 47.9917, -13.6068, 96.5629, -51.2932, 45.1459
4.5, 2, 35.8922, 47.9917, -13.6068, 96.5629, -51.2932, 45.1459
4.504, 2, 35.8922, 47.9917, -13.6068, 96.5629, -51.2932, 45.1459
4.508, 2, 35.8922, 47.9917, -13.6068, 96.5629, -51.2932, 45.1459
4.512, 2, 35.8922, 47.9917, -13.6068, 96.5629, -51.2932, 45.1459
4.516, 2, 35.8922, 47.9917, -13.6068, 96.5629, -51.2932, 45.1459
4.52, 2, 35.8922, 47.9917, -13.6068, 96.5629, -51.2932, 45.1459
4.524, 2, 35.8922, 47.9917, -13.6068, 96.5629, -51.2932, 45.1459
4.528, 2, 35.8922, 47.9917, -13.6068, 96.5629, -51.2932, 45.1459
4.532, 2, 35.8922, 47.9917, -13.6068, 96.5629, -51.2932, 45.1459
4.536, 2, 35.8922, 47.9917, -13.6068, 96.5629, -51.2932, 45.1459
4.54, 2, 35.8922, 47.9917, -13.6068, 96.5629, -51.2932, 45.1459
4.544, 2, 35.8922, 47.9917, -13.6068, 96.5629, -51.2932, 45.1459
4.548, 2, 35.8922, 47.9917, -13.6068, 96.5629, -51.2932, 45.1459
4.552, 2, 35.8922, 47.9917, -13.6068, 96.5629, -51.2932, 45.1459
4.556, 2, 35.8922, 47.9917, -13.6068, 96.5629, -51.2932, 45.1459
4.56, 2, 35.8922, 47.9917, -13.6068, 96.5629, -51.2932, 45.1459
4.564, 2, 35.8922, 47.9917, -13.6068, 96.5629, -51.2932, 45.1459
4.568, 2, 35.8922, 47.9917, -13.6068, 96.5629, -51.2932, 45.1459
4.572, 2, 35.8922, 47.9917, -13.6068, 96.5629, -51.2932, 45.1459
4.576, 2, 35.8922, 47.9917, -13.6068, 96.5629, -51.2932, 45.1459
4.58, 2, 35.8922, 47.9917, -13.6068, 96.5629, -51.2932, 45.1459
4.584, 2, 35.8922, 47.9917, -13.6068, 96.5629, -51.2932, 45.1459
4.588, 2, 35.8922, 47.9917, -13.6068, 96.5629, -51.2932, 45.1459
4.592, 2, 35.8922, 47.9917, -13.6068, 96.5629, -51.2932, 45.1459
4.596, 2, 35.8922, 47.9917, -13.6068, 96.5629, -51.2932, 45.1459
4.6, 2, 35.8922, 47.9917, -13.6068, 96.5629, -51.2932, 45.1459
4.604, 2, 35.8922, 47.9917, -13.6068, 96.5629, -51.2932, 45.1459
4.608, 2, 35.8922, 47.9917, -13.6068, 96.5629, -51.2932, 45.1459
4.612, 2, 35.8922, 47.9917, -13.6068, 96.5629, -51.2932, 45.1459
4.616, 2, 35.8922, 47.9917, -13.6068, 96.5629, -51.2932, 45.1459
4.62, 2, 35.8922, 47.9917, -13.6068, 96.5629, -51.2932, 45.1459
4.624, 2, 35.8922, 47.9917, -13.6068, 96.5629, -51.2932, 45.1459
4.628, 2, 35.8922, 47.9917, -13.6068, 96.5629, -51.2932, 45.1459
4.632, 2, 35.8922, 47.9917, -13.6068, 96.5629, -51.2932, 45.1459
4.636, 2, 35.8922, 47.9917, -13.6068, 96.5629, -51.2932, 45.1459
4.64, 2, 35.8922, 47.9917, -13.6068, 96.5629, -51.2932, 45.1459
4.644, 2, 35.8922, 47.9917, -13.6068, 96.5629, -51.2932, 45.1459
4.648, 2, 35.8922, 47.9917, -13.6068, 96.5629, -51.2932, 45.1459
4.652, 2, 35.8922, 47.9917, -13.6068, 96.5629, -51.2932, 45.1459
4.656, 2, 35.8922, 47.9917, -13.6068, 96.5629, -51.2932, 45.1459
4.66, 2, 35.8922, 47.9917, -13.6068, 96.5629, -51.2932, 45.1459
4.664, 2, 35.8922, 47.9917, -13.6068, 96.5629, -51.2932, 45.1459
4.668, 2, 35.8922, 47.9917, -13.6068, 96.5629, -51.2932, 45.1459
4.672, 2, 35.8922, 47.9917, -13.6068, 96.5629, -51.2932, 45.1459
4.676, 2, 35.8922, 47.9917, -13.6068, 96.5629, -51.2932, 45.1459
4.68, 2, 35.8922, 47.9917, -13.6068, 96.5629, -51.2932, 45.1459
4.684, 2, 35.8922, 47.9917, -13.6068, 96.5629, -51.2932, 45.1459
4.688, 2, 35.8922, 47.9917, -13.6068, 96.5629, -51.2932, 45.1459
4.692, 2, 35.8922, 47.9917, -13.6068, 96.5629, -51.2932, 45.1459
4.696, 2, 35.8922, 47.9917, -13.6068, 96.5629, -51.2932, 45.1459
4.7, 2, 35.8922, 47.9917, -13.6068, 96.5629, -51.2932, 45.1459
4.704, 2, 35.8922, 47.9917, -13.6068, 96.5629, -51.2932, 45.1459
4.708, 2, 35.8922, 47.9917, -13.6068, 96.5629, -51.2932, 45.1459
4.712, 2, 35.8922, 47.9917, -13.6068, 96.5629, -51.2932, 45.1459
4.716, 2, 35.8922, 47.9917, -13.6068, 96.5629, -51.2932, 45.1459
4.72, 2, 35.8922, 47.9917, -13.6068, 96.5629, -51.2932, 45.1459
4.724, 2, 35.8922, 47.9917, -13.6068, 96.5629, -51.2932, 45.1459
4.728, 2, 35.8922, 47.9917, -13.6068, 96.5629, -51.2932, 45.1459
4.732, 2, 35.8922, 47.9917, -13.6068, 96.5629, -51.2932, 45.1459
4.736, 2, 35.8922, 47.9917, -13.6068, 96.5629, -51.2932, 45.1459
4.74, 2, 35.8922, 47.9917, -13.6068, 96.5629, -51.2932, 45.1459
4.744, 2, 35.8922, 47.9917, -13.6068, 96.5629, -51.2932, 45.1459
4.748, 2, 35.8922, 47.9917, -13.6068, 96.5629, -51.2932, 45.1459
4.752, 2, 35.8922, 47.9917, -13.6068, 96.5629, -51.2932, 45.1459
4.756, 2, 35.8922, 47.9917, -13.6068, 96.5629, -51.2932, 45.1459
4.76, 2, 35.8922, 47.9917, -13.6068, 96.5629, -51.2932, 45.1459
4.764, 2, 35.8922, 47.9917, -13.6068, 96.5629, -51.2932, 45.1459
4.768, 2, 35.8922, 47.9917, -13.6068, 96.5629, -51.2932, 45.1459
4.772, 2, 35.8922, 47.9917, -13.6068, 96.5629, -51.2932, 45.1459
4.776, 2, 35.8922, 47.9917, -13.6068, 96.5629, -51.2932, 45.1459
4.78, 2, 35.8922, 47.9917, -13.6068, 96.5629, -51.2932, 45.1459
4.784, 2, 35.8922, 47.9917, -13.6068, 96.5629, -51.2932, 45.1459
4.788, 2, 35.8922, 47.9917, -13.6068, 96.5629, -51.2932, 45.1459
4.792, 2, 35.8922, 47.9917, -13.6068, 96.5629, -51.2932, 45.1459
4.796, 2, 35.8922, 47.9917, -13.6068, 96.5629, -51.2932, 45.1459
4.8, 2, 35.8922, 47.9917, -13.6068, 96.5629, -51.2932, 45.1459
4.804, 2, 35.8922, 47.9917, -13.6068, 96.5629, -51.2932, 45.1459
4.808, 2, 35.8922, 47.9917, -13.6068, 96.5629, -51.2932, 45.1459
4.812, 2, 35.8922, 47.9917, -13.6068, 96.5629, -51.2932, 45.1459
4.816, 2, 35.8922, 47.9917, -13.6068, 96.5629, -51.2932, 45.1459
4.82, 2, 35.8922, 47.9917, -13.6068, 96.5629, -51.2932, 45.1459
4.824, 2, 35.8922, 47.9917, -13.6068, 96.5629, -51.2932, 45.1459
4.828, 3, 35.8922, 47.9917, -13.6068, 96.5629, -51.2932, 45.1459
4.832, 3, 35.8922, 47.9917, -13.6068, 96.5629, -51.2932, 45.1459
4.836, 3, 35.8922, 47.9917, -13.6068, 96.5629, -51.2932, 45.1459
4.84, 3, 35.8922, 47.9917, -13.6068, 96.5629, -51.2932, 45.1459
4.844, 3, 35.8922, 47.9917, -13.6068, 96.5629, -51.2932, 45.1459
4.848, 3, 35.8922, 47.9917, -13.6068, 96.5629, -51.2932, 45.1459
4.852, 3, 35.8922, 47.9917, -13.6068, 96.5629, -51.2932, 45.1459
4.856, 3, 35.8922, 47.9917, -13.6068, 96.5629, -51.2932, 45.1459
4.86, 3, 35.8922, 47.9917, -13.6068, 96.5629, -51.2932, 45.1459
4.864, 3, 35.8922, 47.9917, -13.6068, 96.5629, -51.2932, 45.1459
4.868, 4, 35.8922, 47.9917, -13.6068, 96.5629, -51.2932, 45.1459
4.872, 4, 35.8922, 47.9917, -13.6068, 96.5629, -51.2932, 45.1459
4.876, 4, 35.8922, 47.9917, -13.6068, 96.5629, -51.2932, 45.1459
4.88, 4, 35.8922, 47.9917, -13.6068, 96.5629, -51.2932, 45.1459
4.884, 4, 35.8922, 47.9917, -13.6068, 96.5629, -51.2932, 45.1459
4.888, 4, 35.8922, 47.9917, -13.6068, 96.5629, -51.2932, 45.1459
4.892, 4, 35.8922, 47.9917, -13.6068, 96.5629, -51.2932, 45.1459
4.896, 4, 35.8922, 47.9917, -13.6068, 96.5629, -51.2932, 45.1459
4.9, 4, 35.8922, 47.9917, -13.6068, 96.5629, -51.2932, 45.1459
4.904, 4, 35.8922, 47.9917, -13.6068, 96.5629, -51.2932, 45.1459
4.908, 4, 35.8922, 47.9917, -13.6068, 96.5629, -51.2932, 45.1459
4.912, 4, 35.8922, 47.9917, -13.6068, 96.5629, -51.2932, 45.1459
4.916, 4, 35.8922, 47.9917, -13.6068, 96.5629, -51.2932, 45.1459
4.92, 4, 35.8922, 47.9917, -13.6068, 96.5629, -51.2932, 45.1459
4.924, 4, 35.8922, 47.9917, -13.6068, 96.5629, -51.2932, 45.1459
4.928, 4, 35.8922, 47.9917, -13.6068, 96.5629, -51.2932, 45.1459
4.932, 4, 35.8922, 47.9917, -13.6068, 96.5629, -51.2932, 45.1459
4.936, 4, 35.8922, 47.9917, -13.6068, 96.5629, -51.2932, 45.1459
4.94, 4, 35.8922, 47.9917, -13.6068, 96.5629, -51.2932, 45.1459
4.944, 4, 35.8922, 47.9917, -13.6068, 96.5629, -51.2932, 45.1459
4.948, 4, 35.8922, 47.9917, -13.6068, 96.5629, -51.2932, 45.1459
4.952, 4, 35.8922, 47.9917, -13.6068, 96.5629, -51.2932, 45.1459
4.956, 4, 35.8922, 47.9917, -13.6068, 96.5629, -51.2932, 45.1459
4.96, 4, 35.8922, 47.9917, -13.6068, 96.5629, -51.2932, 45.1459
4.964, 4, 35.8922, 47.9917, -13.6068, 96.5629, -51.2932, 45.1459
4.968, 5, 35.8922, 47.9917, -13.6068, 96.5629, -51.2932, 45.1459
4.972, 5, 35.8922, 47.9917, -13.6068, 96.5629, -51.2932, 45.1459
4.976, 5, 35.8922, 47.9917, -13.6068, 96.5629, -51.2932, 45.1459
4.98, 5, 35.8922, 47.9917, -13.6068, 96.5629, -51.2932, 45.1459
4.984, 5, 35.8922, 47.9917, -13.6068, 96.5629, -51.2932, 45.1459
4.988, 5, 35.8922, 47.9917, -13.6068, 96.5629, -51.2932, 45.1459
4.992, 5, 35.8922, 47.9917, -13.6068, 96.5629, -51.2932, 45.1459
4.996, 5, 35.8922, 47.9917, -13.6068, 96.5629, -51.2932, 45.1459
5, 5, 35.8922, 47.9917, -13.6068, 96.5629, -51.2932, 45.1459
5.004, 5, 35.8922, 47.9917, -13.6068, 96.5629, -51.2932, 45.1459
5.008, 5, 35.8922, 47.9917, -13.6068, 96.5629, -51.2932, 45.1459
5.012, 5, 35.8922, 47.9918, -13.6068, 96.5629, -51.2932, 45.1459
5.016, 5, 35.8922, 47.9919, -13.6068, 96.5629, -51.2932, 45.1459
5.02, 5, 35.8921, 47.9922, -13.6068, 96.5629, -51.2932, 45.1458
5.024, 5, 35.8919, 47.9929, -13.6069, 96.5629, -51.2934, 45.1457
5.028, 5, 35.8916, 47.9938, -13.607, 96.563, -51.2937, 45.1455
5.032, 5, 35.8913, 47.995, -13.6071, 96.5631, -51.2943, 45.145
5.036, 5, 35.8909, 47.9965, -13.6074, 96.5634, -51.2953, 45.1442
5.04, 5, 35.8905, 47.9981, -13.6078, 96.5637, -51.297, 45.1428
5.044, 5, 35.8902, 47.9999, -13.6083, 96.5642, -51.2995, 45.1409
5.048, 5, 35.8899, 48.0018, -13.609, 96.5649, -51.3028, 45.1382
5.052, 5, 35.8896, 48.0038, -13.6099, 96.5658, -51.3073, 45.1347
5.056, 5, 35.8893, 48.006, -13.6109, 96.567, -51.3129, 45.1303
5.06, 5, 35.8891, 48.0084, -13.6123, 96.5684, -51.3197, 45.1249
5.064, 5, 35.8889, 48.011, -13.6138, 96.57, -51.3278, 45.1185
5.068, 5, 35.8887, 48.0138, -13.6155, 96.5719, -51.337, 45.1112
5.072, 5, 35.8886, 48.0168, -13.6175, 96.5741, -51.3476, 45.1029
5.076, 5, 35.8886, 48.0198, -13.6197, 96.5764, -51.3592, 45.0937
5.08, 5, 35.8886, 48.0229, -13.6221, 96.579, -51.3719, 45.0836
5.084, 5, 35.8886, 48.0261, -13.6246, 96.5818, -51.3855, 45.0729
5.088, 5, 35.8886, 48.0296, -13.6272, 96.5846, -51.3998, 45.0617
5.092, 5, 35.8886, 48.0334, -13.63, 96.5877, -51.4146, 45.0499
5.096, 5, 35.8884, 48.0375, -13.6328, 96.5907, -51.4299, 45.0379
5.1, 5, 35.8883, 48.0419, -13.6358, 96.5939, -51.4454, 45.0257
5.104, 5, 35.888, 48.0466, -13.6387, 96.597, -51.4612, 45.0133
5.108, 5, 35.8877, 48.0514, -13.6417, 96.6002, -51.477, 45.0008
5.112, 5, 35.8874, 48.0564, -13.6447, 96.6034, -51.493, 44.9882
5.116, 5, 35.8871, 48.0614, -13.6477, 96.6067, -51.509, 44.9756
5.12, 5, 35.8867, 48.0665, -13.6508, 96.6099, -51.5251, 44.963
5.124, 5, 35.8863, 48.0716, -13.6538, 96.6131, -51.5412, 44.9503
5.128, 5, 35.886, 48.0767, -13.6568, 96.6163, -51.5573, 44.9376
5.132, 5, 35.8856, 48.0818, -13.6599, 96.6195, -51.5734, 44.925
5.136, 5, 35.8852, 48.087, -13.6629, 96.6227, -51.5895, 44.9123
5.14, 5, 35.8848, 48.0922, -13.6659, 96.6259, -51.6056, 44.8996
5.144, 5, 35.8845, 48.0973, -13.669, 96.6291, -51.6218, 44.887
5.148, 5, 35.8841, 48.1025, -13.672, 96.6323, -51.6379, 44.8743
5.152, 5, 35.8837, 48.1077, -13.675, 96.6354, -51.6541, 44.8617
5.156, 5, 35.8833, 48.1128, -13.6781, 96.6386, -51.6702, 44.849
5.16, 5, 35.8829, 48.118, -13.6811, 96.6418, -51.6863, 44.8364
5.164, 5, 35.8825, 48.1232, -13.6841, 96.6449, -51.7025, 44.8237
5.168, 5, 35.8821, 48.1284, -13.6871, 96.6481, -51.7186, 44.8111
5.172, 5, 35.8817, 48.1335, -13.6902, 96.6512, -51.7348, 44.7984
5.176, 5, 35.8813, 48.1387, -13.6932, 96.6543, -51.7509, 44.7858
5.18, 5, 35.881, 48.1439, -13.6962, 96.6575, -51.7671, 44.7732
5.184, 5, 35.8806, 48.149, -13.6992, 96.6606, -51.7832, 44.7606
5.188, 5, 35.8802, 48.1542, -13.7022, 96.6637, -51.7993, 44.748
5.192, 5, 35.8798, 48.1594, -13.7052, 96.6668, -51.8155, 44.7354
5.196, 5, 35.8794, 48.1645, -13.7082, 96.6699, -51.8316, 44.7228
5.2, 5, 35.879, 48.1697, -13.7112, 96.673, -51.8478, 44.7102
5.204, 5, 35.8786, 48.1749, -13.7142, 96.6761, -51.8639, 44.6976
5.208, 5, 35.8782, 48.18, -13.7172, 96.6792, -51.8801, 44.685
5.212, 5, 35.8778, 48.1852, -13.7202, 96.6823, -51.8962, 44.6724
5.216, 5, 35.8774, 48.1904, -13.7232, 96.6853, -51.9123, 44.6599
5.22, 5, 35.877, 48.1955, -13.7262, 96.6884, -51.9285, 44.6473
5.224, 5, 35.8766, 48.2007, -13.7292, 96.6915, -51.9446, 44.6347
5.228, 5, 35.8762, 48.2058, -13.7322, 96.6945, -51.9608, 44.6222
5.232, 5, 35.8758, 48.211, -13.7352, 96.6976, -51.9769, 44.6096
5.236, 5, 35.8754, 48.2161, -13.7382, 96.7006, -51.993, 44.5971
5.24, 5, 35.875, 48.2213, -13.7411, 96.7036, -52.0092, 44.5845
5.244, 5, 35.8745, 48.2264, -13.7441, 96.7066, -52.0253, 44.572
5.248, 5, 35.8741, 48.2316, -13.7471, 96.7096, -52.0415, 44.5595
5.252, 5, 35.8737, 48.2368, -13.7501, 96.7127, -52.0576, 44.547
5.256, 5, 35.8733, 48.2419, -13.753, 96.7157, -52.0737, 44.5344
5.26, 5, 35.8729, 48.2471, -13.756, 96.7187, -52.0899, 44.5219
5.264, 5, 35.8725, 48.2522, -13.759, 96.7216, -52.106, 44.5094
5.268, 5, 35.8721, 48.2573, -13.7619, 96.7246, -52.1222, 44.4969
5.272, 5, 35.8717, 48.2625, -13.7649, 96.7276, -52.1383, 44.4844
5.276, 5, 35.8713, 48.2676, -13.7679, 96.7306, -52.1544, 44.4719
5.28, 5, 35.8708, 48.2728, -13.7708, 96.7335, -52.1706, 44.4594
5.284, 5, 35.8704, 48.2779, -13.7738, 96.7365, -52.1867, 44.447
5.288, 5, 35.87, 48.2831, -13.7767, 96.7394, -52.2028, 44.4345
5.292, 5, 35.8696, 48.2882, -13.7797, 96.7424, -52.219, 44.422
5.296, 5, 35.8692, 48.2933, -13.7826, 96.7453, -52.2351, 44.4096
5.3, 5, 35.8688, 48.2985, -13.7856, 96.7483, -52.2513, 44.3971
5.304, 5, 35.8683, 48.3036, -13.7885, 96.7512, -52.2674, 44.3846
5.308, 5, 35.8679, 48.3088, -13.7914, 96.7541, -52.2835, 44.3722
5.312, 5, 35.8675, 48.3139, -13.7944, 96.757, -52.2997, 44.3598
5.316, 5, 35.8671, 48.319, -13.7973, 96.7599, -52.3158, 44.3473
5.32, 5, 35.8666, 48.3242, -13.8002, 96.7628, -52.3319, 44.3349
5.324, 5, 35.8662, 48.3293, -13.8032, 96.7657, -52.3481, 44.3225
5.328, 5, 35.8658, 48.3344, -13.8061, 96.7686, -52.3642, 44.31
5.332, 5, 35.8654, 48.3395, -13.809, 96.7714, -52.3803, 44.2976
5.336, 5, 35.8649, 48.3447, -13.812, 96.7743, -52.3965, 44.2852
5.34, 5, 35.8645, 48.3498, -13.8149, 96.7772, -52.4126, 44.2728
5.344, 5, 35.8641, 48.3549, -13.8178, 96.78, -52.4287, 44.2604
5.348, 5, 35.8637, 48.36, -13.8207, 96.7829, -52.4449, 44.248
5.352, 5, 35.8632, 48.3652, -13.8236, 96.7857, -52.461, 44.2356
5.356, 5, 35.8628, 48.3703, -13.8265, 96.7886, -52.4771, 44.2233
5.36, 5, 35.8624, 48.3754, -13.8294, 96.7914, -52.4933, 44.2109
5.364, 5, 35.8619, 48.3805, -13.8324, 96.7942, -52.5094, 44.1985
5.368, 5, 35.8615, 48.3857, -13.8353, 96.797, -52.5255, 44.1861
5.372, 5, 35.8611, 48.3908, -13.8382, 96.7998, -52.5417, 44.1738
5.376, 5, 35.8606, 48.3959, -13.8411, 96.8027, -52.5578, 44.1614
5.38, 5, 35.8602, 48.401, -13.844, 96.8054, -52.5739, 44.1491
5.384, 5, 35.8598, 48.4061, -13.8469, 96.8082, -52.59, 44.1367
5.388, 5, 35.8593, 48.4112, -13.8497, 96.811, -52.6062, 44.1244
5.392, 5, 35.8589, 48.4163, -13.8526, 96.8138, -52.6223, 44.112
5.396, 5, 35.8584, 48.4215, -13.8555, 96.8166, -52.6384, 44.0997
5.4, 5, 35.858, 48.4266, -13.8584, 96.8193, -52.6546, 44.0874
5.404, 5, 35.8576, 48.4317, -13.8613, 96.8221, -52.6707, 44.0751
5.408, 5, 35.8571, 48.4368, -13.8642, 96.8248, -52.6868, 44.0628
5.412, 5, 35.8567, 48.4419, -13.8671, 96.8276, -52.703, 44.0504
5.416, 5, 35.8562, 48.447, -13.8699, 96.8303, -52.7191, 44.0381
5.42, 5, 35.8558, 48.4521, -13.8728, 96.8331, -52.7352, 44.0258
5.424, 5, 35.8553, 48.4572, -13.8757, 96.8358, -52.7513, 44.0135
5.428, 5, 35.8549, 48.4623, -13.8785, 96.8385, -52.7675, 44.0013
5.432, 5, 35.8544, 48.4674, -13.8814, 96.8412, -52.7836, 43.989
5.436, 5, 35.854, 48.4725, -13.8843, 96.8439, -52.7997, 43.9767
5.44, 5, 35.8535, 48.4776, -13.8871, 96.8466, -52.8158, 43.9644
5.444, 5, 35.8531, 48.4827, -13.89, 96.8493, -52.832, 43.9522
5.448, 5, 35.8526, 48.4878, -13.8929, 96.852, -52.8481, 43.9399
5.452, 5, 35.8522, 48.4929, -13.8957, 96.8547, -52.8642, 43.9276
5.456, 5, 35.8517, 48.498, -13.8986, 96.8574, -52.8803, 43.9154
5.46, 5, 35.8513, 48.5031, -13.9014, 96.86, -52.8965, 43.9031
5.464, 5, 35.8508, 48.5082, -13.9043, 96.8627, -52.9126, 43.8909
5.468, 5, 35.8504, 48.5133, -13.9071, 96.8653, -52.9287, 43.8787
5.472, 5, 35.8499, 48.5183, -13.9099, 96.868, -52.9448, 43.8664
5.476, 5, 35.8495, 48.5234, -13.9128, 96.8706, -52.961, 43.8542
5.48, 5, 35.849, 48.5285, -13.9156, 96.8733, -52.9771, 43.842
5.484, 5, 35.8486, 48.5336, -13.9185, 96.8759, -52.9932, 43.8298
5.488, 5, 35.8481, 48.5387, -13.9213, 96.8785, -53.0093, 43.8176
5.492, 5, 35.8476, 48.5438, -13.9241, 96.8811, -53.0255, 43.8054
5.496, 5, 35.8472, 48.5489, -13.927, 96.8837, -53.0416, 43.7932
5.5, 5, 35.8467, 48.5539, -13.9298, 96.8863, -53.0577, 43.781
5.504, 5, 35.8462, 48.559, -13.9326, 96.8889, -53.0738, 43.7688
5.508, 5, 35.8458, 48.5641, -13.9354, 96.8915, -53.0899, 43.7566
5.512, 5, 35.8453, 48.5692, -13.9382, 96.8941, -53.1061, 43.7444
5.516, 5, 35.8449, 48.5743, -13.9411, 96.8967, -53.1222, 43.7322
5.52, 5, 35.8444, 48.5793, -13.9439, 96.8992, -53.1383, 43.7201
5.524, 5, 35.8439, 48.5844, -13.9467, 96.9018, -53.1544, 43.7079
5.528, 5, 35.8435, 48.5895, -13.9495, 96.9044, -53.1705, 43.6958
5.532, 5, 35.843, 48.5946, -13.9523, 96.9069, -53.1867, 43.6836
5.536, 5, 35.8425, 48.5996, -13.9551, 96.9095, -53.2028, 43.6715
5.54, 5, 35.842, 48.6047, -13.9579, 96.912, -53.2189, 43.6593
5.544, 5, 35.8416, 48.6098, -13.9607, 96.9145, -53.235, 43.6472
5.548, 5, 35.8411, 48.6148, -13.9635, 96.9171, -53.2511, 43.635
5.552, 5, 35.8406, 48.6199, -13.9663, 96.9196, -53.2672, 43.6229
5.556, 5, 35.8402, 48.625, -13.9691, 96.9221, -53.2834, 43.6108
5.56, 5, 35.8397, 48.63, -13.9719, 96.9246, -53.2995, 43.5987
5.564, 5, 35.8392, 48.6351, -13.9747, 96.9271, -53.3156, 43.5866
5.568, 5, 35.8387, 48.6402, -13.9774, 96.9296, -53.3317, 43.5744
5.572, 5, 35.8382, 48.6452, -13.9802, 96.9321, -53.3478, 43.5623
5.576, 5, 35.8378, 48.6503, -13.983, 96.9346, -53.3639, 43.5503
5.58, 5, 35.8373, 48.6553, -13.9858, 96.937, -53.3801, 43.5382
5.584, 5, 35.8368, 48.6604, -13.9886, 96.9395, -53.3962, 43.5261
5.588, 5, 35.8363, 48.6655, -13.9913, 96.942, -53.4123, 43.514
5.592, 5, 35.8358, 48.6705, -13.9941, 96.9444, -53.4284, 43.5019
5.596, 5, 35.8354, 48.6756, -13.9969, 96.9469, -53.4445, 43.4898
5.6, 5, 35.8349, 48.6806, -13.9996, 96.9493, -53.4606, 43.4778
5.604, 5, 35.8344, 48.6857, -14.0024, 96.9518, -53.4767, 43.4657
5.608, 5, 35.8339, 48.6907, -14.0052, 96.9542, -53.4928, 43.4537
5.612, 5, 35.8334, 48.6958, -14.0079, 96.9566, -53.509, 43.4416
5.616, 5, 35.8329, 48.7008, -14.0107, 96.959, -53.5251, 43.4296
5.62, 5, 35.8325, 48.7059, -14.0134, 96.9614, -53.5412, 43.4175
5.624, 5, 35.832, 48.7109, -14.0162, 96.9638, -53.5573, 43.4055
5.628, 5, 35.8315, 48.716, -14.0189, 96.9662, -53.5734, 43.3934
5.632, 5, 35.831, 48.721, -14.0217, 96.9686, -53.5895, 43.3814
5.636, 5, 35.8305, 48.726, -14.0244, 96.971, -53.6056, 43.3694
5.64, 5, 35.83, 48.7311, -14.0271, 96.9734, -53.6217, 43.3574
5.644, 5, 35.8295, 48.7361, -14.0299, 96.9758, -53.6378, 43.3454
5.648, 5, 35.829, 48.7412, -14.0326, 96.9781, -53.6539, 43.3334
5.652, 5, 35.8285, 48.7462, -14.0353, 96.9805, -53.6701, 43.3214
5.656, 5, 35.828, 48.7512, -14.0381, 96.9829, -53.6862, 43.3094
5.66, 5, 35.8275, 48.7563, -14.0408, 96.9852, -53.7023, 43.2974
5.664, 5, 35.827, 48.7613, -14.0435, 96.9875, -53.7184, 43.2854
5.668, 5, 35.8265, 48.7663, -14.0463, 96.9899, -53.7345, 43.2734
5.672, 5, 35.826, 48.7714, -14.049, 96.9922, -53.7506, 43.2614
5.676, 5, 35.8255, 48.7764, -14.0517, 96.9945, -53.7667, 43.2495
5.68, 5, 35.825, 48.7814, -14.0544, 96.9969, -53.7828, 43.2375
5.684, 5, 35.8245, 48.7865, -14.0571, 96.9992, -53.7989, 43.2255
5.688, 5, 35.824, 48.7915, -14.0598, 97.0015, -53.815, 43.2136
5.692, 5, 35.8235, 48.7965, -14.0625, 97.0038, -53.8311, 43.2016
5.696, 5, 35.823, 48.8015, -14.0652, 97.0061, -53.8472, 43.1897
5.7, 5, 35.8225, 48.8066, -14.0679, 97.0083, -53.8633, 43.1777
5.704, 5, 35.822, 48.8116, -14.0706, 97.0106, -53.8794, 43.1658
5.708, 5, 35.8215, 48.8166, -14.0733, 97.0129, -53.8955, 43.1539
5.712, 5, 35.821, 48.8216, -14.076, 97.0152, -53.9116, 43.1419
5.716, 5, 35.8205, 48.8266, -14.0787, 97.0174, -53.9277, 43.13
5.72, 5, 35.82, 48.8317, -14.0814, 97.0197, -53.9438, 43.1181
5.724, 5, 35.8195, 48.8367, -14.0841, 97.0219, -53.9599, 43.1062
5.728, 5, 35.819, 48.8417, -14.0868, 97.0242, -53.9761, 43.0943
5.732, 5, 35.8185, 48.8467, -14.0895, 97.0264, -53.9921, 43.0824
5.736, 5, 35.8179, 48.8517, -14.0922, 97.0286, -54.0083, 43.0705
5.74, 5, 35.8174, 48.8567, -14.0948, 97.0309, -54.0244, 43.0586
5.744, 5, 35.8169, 48.8617, -14.0975, 97.0331, -54.0405, 43.0467
5.748, 5, 35.8164, 48.8667, -14.1002, 97.0353, -54.0566, 43.0348
5.752, 5, 35.8159, 48.8718, -14.1029, 97.0375, -54.0727, 43.0229
5.756, 5, 35.8154, 48.8768, -14.1055, 97.0397, -54.0887, 43.0111
5.76, 5, 35.8148, 48.8818, -14.1082, 97.0419, -54.1049, 42.9992
5.764, 5, 35.8143, 48.8868, -14.1109, 97.0441, -54.1209, 42.9873
5.768, 5, 35.8138, 48.8918, -14.1135, 97.0463, -54.137, 42.9755
5.772, 5, 35.8133, 48.8968, -14.1162, 97.0484, -54.1531, 42.9636
5.776, 5, 35.8128, 48.9018, -14.1188, 97.0506, -54.1692, 42.9518
5.78, 5, 35.8122, 48.9068, -14.1215, 97.0528, -54.1853, 42.9399
5.784, 5, 35.8117, 48.9118, -14.1241, 97.0549, -54.2014, 42.9281
5.788, 5, 35.8112, 48.9168, -14.1268, 97.0571, -54.2175, 42.9163
5.792, 5, 35.8107, 48.9218, -14.1294, 97.0592, -54.2336, 42.9044
5.796, 5, 35.8101, 48.9268, -14.1321, 97.0614, -54.2497, 42.8926
5.8, 5, 35.8096, 48.9318, -14.1347, 97.0635, -54.2658, 42.8808
5.804, 5, 35.8091, 48.9368, -14.1374, 97.0656, -54.2819, 42.869
5.808, 5, 35.8086, 48.9417, -14.14, 97.0677, -54.298, 42.8572
5.812, 5, 35.808, 48.9467, -14.1426, 97.0698, -54.3141, 42.8454
5.816, 5, 35.8075, 48.9517, -14.1453, 97.072, -54.3302, 42.8336
5.82, 5, 35.807, 48.9567, -14.1479, 97.0741, -54.3463, 42.8218
5.824, 5, 35.8064, 48.9617, -14.1505, 97.0761, -54.3624, 42.81
5.828, 5, 35.8059, 48.9667, -14.1531, 97.0782, -54.3785, 42.7982
5.832, 5, 35.8054, 48.9717, -14.1558, 97.0803, -54.3946, 42.7864
5.836, 5, 35.8048, 48.9767, -14.1584, 97.0824, -54.4106, 42.7746
5.84, 5, 35.8043, 48.9816, -14.161, 97.0845, -54.4267, 42.7628
5.844, 5, 35.8038, 48.9866, -14.1636, 97.0865, -54.4428, 42.7511
5.848, 5, 35.8032, 48.9916, -14.1662, 97.0886, -54.4589, 42.7393
5.852, 5, 35.8027, 48.9966, -14.1688, 97.0907, -54.475, 42.7276
5.856, 5, 35.8022, 49.0015, -14.1714, 97.0927, -54.4911, 42.7158
5.86, 5, 35.8016, 49.0065, -14.174, 97.0947, -54.5072, 42.7041
5.864, 5, 35.8011, 49.0115, -14.1766, 97.0968, -54.5233, 42.6923
5.868, 5, 35.8005, 49.0165, -14.1792, 97.0988, -54.5394, 42.6806
5.872, 5, 35.8, 49.0214, -14.1818, 97.1008, -54.5554, 42.6688
5.876, 5, 35.7995, 49.0264, -14.1844, 97.1029, -54.5715, 42.6571
5.88, 5, 35.7989, 49.0314, -14.187, 97.1049, -54.5876, 42.6454
5.884, 5, 35.7984, 49.0364, -14.1896, 97.1069, -54.6037, 42.6337
5.888, 5, 35.7978, 49.0413, -14.1922, 97.1089, -54.6198, 42.6219
5.892, 5, 35.7973, 49.0463, -14.1948, 97.1109, -54.6359, 42.6102
5.896, 5, 35.7967, 49.0513, -14.1974, 97.1129, -54.652, 42.5985
5.9, 5, 35.7962, 49.0562, -14.1999, 97.1148, -54.668, 42.5868
5.904, 5, 35.7956, 49.0612, -14.2025, 97.1168, -54.6841, 42.5751
5.908, 5, 35.7951, 49.0661, -14.2051, 97.1188, -54.7002, 42.5634
5.912, 5, 35.7945, 49.0711, -14.2077, 97.1208, -54.7163, 42.5517
5.916, 5, 35.794, 49.0761, -14.2102, 97.1227, -54.7324, 42.5401
5.92, 5, 35.7934, 49.081, -14.2128, 97.1247, -54.7485, 42.5284
5.924, 5, 35.7929, 49.086, -14.2154, 97.1266, -54.7645, 42.5167
5.928, 5, 35.7923, 49.0909, -14.2179, 97.1286, -54.7806, 42.505
5.932, 5, 35.7918, 49.0959, -14.2205, 97.1305, -54.7967, 42.4934
5.936, 5, 35.7912, 49.1008, -14.223, 97.1324, -54.8128, 42.4817
5.94, 5, 35.7907, 49.1058, -14.2256, 97.1343, -54.8289, 42.47
5.944, 5, 35.7901, 49.1107, -14.2281, 97.1363, -54.8449, 42.4584
5.948, 5, 35.7895, 49.1157, -14.2307, 97.1382, -54.861, 42.4467
5.952, 5, 35.789, 49.1206, -14.2332, 97.1401, -54.8771, 42.4351
5.956, 5, 35.7884, 49.1256, -14.2358, 97.142, -54.8932, 42.4235
5.96, 5, 35.7879, 49.1305, -14.2383, 97.1439, -54.9093, 42.4118
5.964, 5, 35.7873, 49.1355, -14.2409, 97.1458, -54.9253, 42.4002
5.968, 5, 35.7867, 49.1404, -14.2434, 97.1476, -54.9414, 42.3886
5.972, 5, 35.7862, 49.1454, -14.2459, 97.1495, -54.9575, 42.377
5.976, 5, 35.7856, 49.1503, -14.2485, 97.1514, -54.9736, 42.3653
5.98, 5, 35.785, 49.1552, -14.251, 97.1532, -54.9896, 42.3537
5.984, 5, 35.7845, 49.1602, -14.2535, 97.1551, -55.0057, 42.3421
5.988, 5, 35.7839, 49.1651, -14.256, 97.157, -55.0218, 42.3305
5.992, 5, 35.7833, 49.17, -14.2586, 97.1588, -55.0379, 42.3189
5.996, 5, 35.7828, 49.175, -14.2611, 97.1606, -55.0539, 42.3073
6, 5, 35.7822, 49.1799, -14.2636, 97.1625, -55.07, 42.2957
6.004, 5, 35.7816, 49.1848, -14.2661, 97.1643, -55.0861, 42.2842
6.008, 5, 35.7811, 49.1898, -14.2686, 97.1661, -55.1022, 42.2726
6.012, 5, 35.7805, 49.1947, -14.2711, 97.1679, -55.1182, 42.261
6.016, 5, 35.7799, 49.1996, -14.2736, 97.1698, -55.1343, 42.2494
6.02, 5, 35.7794, 49.2046, -14.2761, 97.1716, -55.1504, 42.2379
