hehonglu123/Motion-Primitive-Planning/simulation/robotstudio_sim/scripts/fitting_output_new/threshold0.05/curve_exe_v500_z10.csv
timestamp, cmd_num, J1, J2, J3, J4, J5, J6
0, 1, -22.0674, 43.374, 24.0544, -33.0359, -59.3662, 146.248
0.002, 1, -22.0674, 43.374, 24.0544, -33.0359, -59.3662, 146.248
0.004, 1, -22.0674, 43.374, 24.0544, -33.0359, -59.3662, 146.248
0.008, 1, -22.0674, 43.374, 24.0544, -33.0359, -59.3662, 146.248
0.011, 1, -22.0674, 43.374, 24.0544, -33.0359, -59.3662, 146.248
0.016, 1, -22.0674, 43.374, 24.0544, -33.0359, -59.3662, 146.248
0.02, 1, -22.0674, 43.374, 24.0544, -33.0359, -59.3662, 146.248
0.024, 1, -22.0674, 43.374, 24.0544, -33.0359, -59.3662, 146.248
0.028, 1, -22.0674, 43.374, 24.0544, -33.0359, -59.3662, 146.248
0.032, 1, -22.0674, 43.374, 24.0544, -33.0359, -59.3662, 146.248
0.036, 1, -22.0674, 43.374, 24.0544, -33.0359, -59.3662, 146.248
0.04, 1, -22.0673, 43.374, 24.0544, -33.0359, -59.3662, 146.248
0.044, 1, -22.0671, 43.374, 24.0544, -33.0359, -59.3662, 146.248
0.048, 1, -22.0666, 43.374, 24.0544, -33.0359, -59.3662, 146.248
0.052, 1, -22.0656, 43.374, 24.0544, -33.0358, -59.3662, 146.248
0.056, 1, -22.064, 43.3739, 24.0544, -33.0356, -59.3662, 146.248
0.06, 1, -22.0618, 43.3737, 24.0543, -33.0351, -59.3662, 146.247
0.064, 1, -22.0588, 43.3736, 24.0541, -33.0342, -59.3662, 146.247
0.068, 1, -22.0551, 43.3734, 24.0537, -33.0326, -59.3662, 146.245
0.072, 1, -22.0504, 43.3732, 24.0531, -33.03, -59.3661, 146.243
0.076, 1, -22.0448, 43.373, 24.0521, -33.026, -59.3659, 146.24
0.08, 1, -22.038, 43.3728, 24.0506, -33.0202, -59.3657, 146.236
0.084, 1, -22.0298, 43.3726, 24.0484, -33.0121, -59.3653, 146.229
0.088, 1, -22.0198, 43.3725, 24.0455, -33.001, -59.3648, 146.221
0.092, 1, -22.0079, 43.3724, 24.0414, -32.9863, -59.364, 146.209
0.096, 1, -21.994, 43.3725, 24.0362, -32.9672, -59.363, 146.194
0.1, 1, -21.978, 43.3728, 24.0294, -32.9431, -59.3616, 146.175
0.104, 1, -21.9597, 43.3733, 24.021, -32.9133, -59.3599, 146.152
0.108, 1, -21.9389, 43.3741, 24.0107, -32.8769, -59.3578, 146.123
0.112, 1, -21.9157, 43.3751, 23.9983, -32.8335, -59.3552, 146.09
0.116, 1, -21.8897, 43.3766, 23.9836, -32.7825, -59.3521, 146.05
0.12, 1, -21.861, 43.3784, 23.9666, -32.7235, -59.3485, 146.004
0.124, 1, -21.8296, 43.3805, 23.9472, -32.6561, -59.3443, 145.951
0.128, 1, -21.7955, 43.3832, 23.9252, -32.5802, -59.3396, 145.892
0.131, 1, -21.7588, 43.3862, 23.9006, -32.4958, -59.3343, 145.826
0.136, 1, -21.7195, 43.3897, 23.8736, -32.403, -59.3285, 145.754
0.139, 1, -21.6777, 43.3936, 23.8442, -32.3022, -59.3221, 145.675
0.144, 1, -21.6334, 43.3979, 23.8125, -32.1938, -59.3152, 145.591
0.148, 1, -21.5865, 43.4024, 23.7788, -32.0784, -59.3079, 145.501
0.152, 1, -21.5372, 43.4073, 23.7432, -31.9566, -59.3001, 145.406
0.156, 1, -21.4855, 43.4123, 23.706, -31.8293, -59.292, 145.306
0.16, 1, -21.4317, 43.4176, 23.6674, -31.697, -59.2837, 145.203
0.164, 1, -21.376, 43.423, 23.6275, -31.5606, -59.275, 145.097
0.168, 1, -21.3186, 43.4285, 23.5866, -31.4207, -59.2662, 144.988
0.172, 1, -21.2596, 43.434, 23.545, -31.278, -59.2571, 144.877
0.176, 1, -21.1991, 43.4396, 23.5027, -31.1332, -59.248, 144.764
0.18, 1, -21.1373, 43.4451, 23.46, -30.9866, -59.2388, 144.649
0.184, 1, -21.0741, 43.4506, 23.4169, -30.8389, -59.2295, 144.534
0.188, 1, -21.0099, 43.4561, 23.3736, -30.6902, -59.2202, 144.418
0.192, 1, -20.9447, 43.4616, 23.3302, -30.5409, -59.2108, 144.302
0.196, 1, -20.8788, 43.467, 23.2866, -30.3911, -59.2015, 144.185
0.2, 1, -20.8123, 43.4724, 23.243, -30.2409, -59.1921, 144.068
0.204, 1, -20.7456, 43.4778, 23.1992, -30.0905, -59.1827, 143.95
0.208, 1, -20.6785, 43.4832, 23.1554, -29.9399, -59.1734, 143.833
0.212, 1, -20.6113, 43.4886, 23.1116, -29.789, -59.164, 143.715
0.216, 1, -20.5439, 43.494, 23.0677, -29.6381, -59.1545, 143.597
0.22, 1, -20.4764, 43.4994, 23.0238, -29.487, -59.1451, 143.479
0.224, 1, -20.4089, 43.5048, 22.9799, -29.3357, -59.1357, 143.362
0.228, 1, -20.3412, 43.5102, 22.9359, -29.1844, -59.1263, 143.243
0.232, 1, -20.2735, 43.5156, 22.8919, -29.033, -59.1168, 143.125
0.236, 1, -20.2058, 43.521, 22.8479, -28.8814, -59.1074, 143.007
0.24, 1, -20.138, 43.5264, 22.8038, -28.7297, -59.098, 142.889
0.244, 1, -20.0701, 43.5318, 22.7597, -28.578, -59.0885, 142.77
0.248, 1, -20.0022, 43.5372, 22.7155, -28.4261, -59.079, 142.652
0.252, 1, -19.9342, 43.5426, 22.6714, -28.2741, -59.0696, 142.533
0.256, 1, -19.8662, 43.548, 22.6272, -28.1221, -59.0601, 142.415
0.26, 1, -19.7981, 43.5534, 22.583, -27.9699, -59.0506, 142.296
0.264, 1, -19.73, 43.5588, 22.5387, -27.8176, -59.0411, 142.177
0.268, 1, -19.6619, 43.5643, 22.4945, -27.6653, -59.0316, 142.058
0.272, 1, -19.5937, 43.5697, 22.4501, -27.5128, -59.0221, 141.939
0.276, 1, -19.5254, 43.5751, 22.4058, -27.3602, -59.0126, 141.82
0.28, 1, -19.4572, 43.5806, 22.3614, -27.2075, -59.0031, 141.701
0.284, 1, -19.3888, 43.586, 22.3171, -27.0548, -58.9936, 141.582
0.288, 1, -19.3205, 43.5915, 22.2726, -26.9019, -58.9841, 141.463
0.292, 1, -19.252, 43.5969, 22.2282, -26.7489, -58.9746, 141.343
0.296, 1, -19.1836, 43.6024, 22.1837, -26.5958, -58.965, 141.224
0.3, 1, -19.1151, 43.6078, 22.1392, -26.4427, -58.9555, 141.105
0.304, 1, -19.0465, 43.6133, 22.0946, -26.2894, -58.9459, 140.985
0.308, 1, -18.9779, 43.6187, 22.0501, -26.136, -58.9364, 140.865
0.312, 1, -18.9092, 43.6242, 22.0055, -25.9825, -58.9268, 140.746
0.316, 1, -18.8406, 43.6297, 21.9608, -25.8289, -58.9173, 140.626
0.32, 1, -18.7718, 43.6352, 21.9162, -25.6752, -58.9077, 140.506
0.324, 1, -18.703, 43.6406, 21.8715, -25.5215, -58.8981, 140.386
0.328, 1, -18.6342, 43.6461, 21.8268, -25.3676, -58.8885, 140.266
0.332, 1, -18.5653, 43.6516, 21.782, -25.2136, -58.8789, 140.146
0.336, 1, -18.4964, 43.6571, 21.7372, -25.0595, -58.8693, 140.025
0.34, 1, -18.4274, 43.6626, 21.6924, -24.9053, -58.8597, 139.905
0.344, 1, -18.3584, 43.6681, 21.6476, -24.751, -58.8501, 139.785
0.348, 1, -18.2893, 43.6736, 21.6027, -24.5965, -58.8405, 139.664
0.352, 1, -18.2202, 43.6791, 21.5578, -24.442, -58.8309, 139.544
0.356, 1, -18.1511, 43.6846, 21.5129, -24.2874, -58.8212, 139.423
0.36, 1, -18.0819, 43.6901, 21.4679, -24.1327, -58.8116, 139.303
0.364, 1, -18.0126, 43.6956, 21.4229, -23.9779, -58.8019, 139.182
0.368, 1, -17.9433, 43.7011, 21.3779, -23.8229, -58.7923, 139.061
0.372, 1, -17.874, 43.7066, 21.3329, -23.6679, -58.7826, 138.94
0.376, 1, -17.8046, 43.7122, 21.2878, -23.5128, -58.773, 138.819
0.38, 1, -17.7352, 43.7177, 21.2427, -23.3575, -58.7633, 138.698
0.384, 1, -17.6657, 43.7232, 21.1975, -23.2022, -58.7536, 138.577
0.388, 1, -17.5962, 43.7288, 21.1523, -23.0467, -58.7439, 138.455
0.392, 1, -17.5266, 43.7343, 21.1071, -22.8911, -58.7343, 138.334
0.396, 1, -17.457, 43.7399, 21.0619, -22.7355, -58.7246, 138.213
0.4, 1, -17.3873, 43.7454, 21.0166, -22.5797, -58.7149, 138.091
0.404, 1, -17.3176, 43.751, 20.9713, -22.4238, -58.7051, 137.969
0.408, 1, -17.2478, 43.7565, 20.926, -22.2679, -58.6954, 137.848
0.412, 1, -17.178, 43.7621, 20.8807, -22.1118, -58.6857, 137.726
0.416, 1, -17.1081, 43.7676, 20.8353, -21.9556, -58.676, 137.604
0.42, 1, -17.0382, 43.7732, 20.7899, -21.7993, -58.6662, 137.482
0.424, 1, -16.9683, 43.7788, 20.7444, -21.6429, -58.6565, 137.36
0.428, 1, -16.8983, 43.7843, 20.6989, -21.4864, -58.6467, 137.238
0.432, 1, -16.8282, 43.7899, 20.6534, -21.3297, -58.637, 137.116
0.436, 1, -16.7581, 43.7955, 20.6079, -21.173, -58.6272, 136.994
0.44, 1, -16.688, 43.8011, 20.5623, -21.0162, -58.6175, 136.871
0.444, 1, -16.6178, 43.8067, 20.5167, -20.8592, -58.6077, 136.749
0.448, 1, -16.5476, 43.8123, 20.4711, -20.7022, -58.5979, 136.626
0.452, 1, -16.4773, 43.8179, 20.4254, -20.5451, -58.5881, 136.504
0.456, 1, -16.4069, 43.8235, 20.3797, -20.3878, -58.5783, 136.381
0.46, 1, -16.3366, 43.8291, 20.334, -20.2304, -58.5685, 136.258
0.464, 1, -16.2661, 43.8347, 20.2882, -20.073, -58.5587, 136.135
0.468, 1, -16.1957, 43.8403, 20.2424, -19.9154, -58.5489, 136.013
0.472, 1, -16.1251, 43.8459, 20.1966, -19.7577, -58.5391, 135.89
0.476, 1, -16.0546, 43.8515, 20.1508, -19.5999, -58.5292, 135.766
0.48, 1, -15.984, 43.8572, 20.1049, -19.442, -58.5194, 135.643
0.484, 1, -15.9133, 43.8628, 20.059, -19.284, -58.5096, 135.52
0.488, 1, -15.8426, 43.8684, 20.013, -19.1259, -58.4997, 135.397
0.492, 1, -15.7718, 43.8741, 19.967, -18.9677, -58.4898, 135.273
0.496, 1, -15.701, 43.8797, 19.921, -18.8094, -58.48, 135.15
0.5, 1, -15.6302, 43.8853, 19.875, -18.651, -58.4701, 135.026
0.504, 1, -15.5593, 43.891, 19.8289, -18.4925, -58.4602, 134.902
0.508, 1, -15.4883, 43.8966, 19.7828, -18.3338, -58.4504, 134.779
0.512, 1, -15.4173, 43.9023, 19.7367, -18.1751, -58.4405, 134.655
0.516, 1, -15.3463, 43.9079, 19.6905, -18.0162, -58.4306, 134.531
0.52, 1, -15.2752, 43.9136, 19.6444, -17.8573, -58.4207, 134.407
0.524, 1, -15.204, 43.9193, 19.5981, -17.6982, -58.4108, 134.283
0.528, 1, -15.1329, 43.9249, 19.5519, -17.539, -58.4009, 134.159
0.532, 1, -15.0616, 43.9306, 19.5056, -17.3798, -58.3909, 134.034
0.536, 1, -14.9903, 43.9363, 19.4593, -17.2204, -58.381, 133.91
0.54, 1, -14.919, 43.942, 19.4129, -17.0609, -58.3711, 133.786
0.544, 1, -14.8476, 43.9477, 19.3666, -16.9013, -58.3611, 133.661
0.548, 1, -14.7762, 43.9533, 19.3201, -16.7416, -58.3512, 133.537
0.552, 1, -14.7047, 43.959, 19.2737, -16.5818, -58.3412, 133.412
0.556, 1, -14.6332, 43.9647, 19.2272, -16.4219, -58.3313, 133.287
0.56, 1, -14.5616, 43.9704, 19.1807, -16.2619, -58.3213, 133.162
0.564, 1, -14.49, 43.9761, 19.1342, -16.1017, -58.3113, 133.037
0.568, 1, -14.4183, 43.9818, 19.0876, -15.9415, -58.3013, 132.912
0.572, 1, -14.3466, 43.9875, 19.0411, -15.7811, -58.2913, 132.787
0.576, 1, -14.2749, 43.9933, 18.9944, -15.6207, -58.2814, 132.662
0.58, 1, -14.2031, 43.999, 18.9478, -15.4601, -58.2713, 132.537
0.584, 1, -14.1312, 44.0047, 18.9011, -15.2995, -58.2613, 132.412
0.588, 1, -14.0593, 44.0104, 18.8544, -15.1387, -58.2513, 132.286
0.592, 1, -13.9873, 44.0162, 18.8076, -14.9778, -58.2413, 132.161
0.596, 1, -13.9153, 44.0219, 18.7608, -14.8168, -58.2313, 132.035
0.6, 1, -13.8433, 44.0276, 18.714, -14.6557, -58.2212, 131.909
0.604, 1, -13.7712, 44.0334, 18.6672, -14.4945, -58.2112, 131.784
0.608, 1, -13.6991, 44.0391, 18.6203, -14.3332, -58.2012, 131.658
0.612, 1, -13.6269, 44.0449, 18.5734, -14.1718, -58.1911, 131.532
0.616, 1, -13.5546, 44.0506, 18.5265, -14.0103, -58.181, 131.406
0.62, 1, -13.4823, 44.0564, 18.4795, -13.8487, -58.171, 131.28
0.624, 1, -13.41, 44.0621, 18.4325, -13.6869, -58.1609, 131.154
0.628, 1, -13.3376, 44.0679, 18.3855, -13.5251, -58.1508, 131.027
0.632, 1, -13.2652, 44.0737, 18.3384, -13.3631, -58.1407, 130.901
0.636, 1, -13.1927, 44.0794, 18.2913, -13.2011, -58.1306, 130.775
0.64, 1, -13.1202, 44.0852, 18.2442, -13.0389, -58.1205, 130.648
0.644, 1, -13.0476, 44.091, 18.197, -12.8766, -58.1104, 130.521
0.648, 1, -12.975, 44.0968, 18.1498, -12.7142, -58.1003, 130.395
0.652, 1, -12.9023, 44.1026, 18.1026, -12.5517, -58.0902, 130.268
0.656, 1, -12.8296, 44.1084, 18.0554, -12.3892, -58.0801, 130.141
0.66, 1, -12.7569, 44.1142, 18.0081, -12.2265, -58.0699, 130.014
0.664, 1, -12.6841, 44.12, 17.9608, -12.0637, -58.0598, 129.887
0.668, 1, -12.6112, 44.1258, 17.9134, -11.9008, -58.0496, 129.76
0.672, 1, -12.5383, 44.1316, 17.8661, -11.7377, -58.0395, 129.633
0.676, 1, -12.4654, 44.1374, 17.8187, -11.5746, -58.0293, 129.506
0.68, 1, -12.3924, 44.1432, 17.7712, -11.4114, -58.0191, 129.378
0.684, 1, -12.3193, 44.149, 17.7238, -11.2481, -58.009, 129.251
0.688, 1, -12.2462, 44.1548, 17.6763, -11.0847, -57.9988, 129.124
0.692, 1, -12.1731, 44.1607, 17.6288, -10.9211, -57.9886, 128.996
0.696, 1, -12.0999, 44.1665, 17.5812, -10.7575, -57.9784, 128.868
0.7, 1, -12.0267, 44.1723, 17.5336, -10.5938, -57.9682, 128.741
0.704, 1, -11.9534, 44.1781, 17.486, -10.4299, -57.958, 128.613
0.708, 1, -11.8801, 44.184, 17.4384, -10.266, -57.9478, 128.485
0.712, 1, -11.8068, 44.1898, 17.3907, -10.1019, -57.9376, 128.357
0.716, 1, -11.7333, 44.1957, 17.343, -9.93779, -57.9273, 128.229
0.72, 1, -11.6599, 44.2015, 17.2953, -9.77355, -57.9171, 128.101
0.724, 1, -11.5864, 44.2074, 17.2475, -9.6092, -57.9069, 127.973
0.728, 1, -11.5129, 44.2132, 17.1998, -9.44475, -57.8966, 127.844
0.732, 1, -11.4393, 44.2191, 17.1519, -9.28021, -57.8864, 127.716
0.736, 1, -11.3656, 44.225, 17.1041, -9.11556, -57.8761, 127.587
0.74, 1, -11.292, 44.2308, 17.0562, -8.95081, -57.8659, 127.459
0.744, 1, -11.2182, 44.2367, 17.0083, -8.78596, -57.8556, 127.33
0.748, 1, -11.1445, 44.2426, 16.9604, -8.62102, -57.8453, 127.202
0.752, 1, -11.0707, 44.2485, 16.9124, -8.45597, -57.835, 127.073
0.756, 1, -10.9968, 44.2543, 16.8644, -8.29082, -57.8247, 126.944
0.76, 1, -10.9229, 44.2602, 16.8164, -8.12558, -57.8145, 126.815
0.764, 1, -10.849, 44.2661, 16.7684, -7.96024, -57.8042, 126.686
0.768, 1, -10.775, 44.272, 16.7203, -7.7948, -57.7938, 126.557
0.772, 1, -10.701, 44.2779, 16.6722, -7.62927, -57.7835, 126.428
0.776, 1, -10.6269, 44.2838, 16.6241, -7.46363, -57.7732, 126.299
0.78, 1, -10.5528, 44.2897, 16.5759, -7.2979, -57.7629, 126.169
0.784, 1, -10.4786, 44.2956, 16.5277, -7.13208, -57.7526, 126.04
0.788, 1, -10.4044, 44.3015, 16.4795, -6.96616, -57.7422, 125.911
0.792, 1, -10.3302, 44.3074, 16.4313, -6.80014, -57.7319, 125.781
0.796, 1, -10.2559, 44.3133, 16.383, -6.63402, -57.7215, 125.652
0.8, 1, -10.1816, 44.3193, 16.3347, -6.46782, -57.7112, 125.522
0.804, 1, -10.1072, 44.3252, 16.2864, -6.30151, -57.7008, 125.392
0.808, 1, -10.0328, 44.3311, 16.238, -6.13511, -57.6905, 125.262
0.812, 1, -9.95833, 44.3371, 16.1896, -5.96862, -57.6801, 125.132
0.816, 1, -9.88383, 44.343, 16.1412, -5.80204, -57.6697, 125.002
0.82, 1, -9.8093, 44.3489, 16.0928, -5.63536, -57.6593, 124.872
0.824, 1, -9.73472, 44.3549, 16.0443, -5.46859, -57.6489, 124.742
0.828, 1, -9.6601, 44.3608, 15.9958, -5.30172, -57.6385, 124.612
0.832, 1, -9.58543, 44.3668, 15.9473, -5.13476, -57.6281, 124.482
0.836, 1, -9.51073, 44.3727, 15.8988, -4.96771, -57.6177, 124.352
0.84, 1, -9.43598, 44.3787, 15.8502, -4.80057, -57.6073, 124.221
0.844, 1, -9.36119, 44.3846, 15.8016, -4.63334, -57.5969, 124.091
0.848, 1, -9.28636, 44.3906, 15.753, -4.46601, -57.5865, 123.96
0.852, 1, -9.2115, 44.3965, 15.7043, -4.2986, -57.5761, 123.83
0.856, 1, -9.13659, 44.4025, 15.6557, -4.13109, -57.5656, 123.699
0.86, 1, -9.06164, 44.4085, 15.6069, -3.9635, -57.5552, 123.568
0.864, 1, -8.98665, 44.4144, 15.5582, -3.79581, -57.5447, 123.437
0.868, 1, -8.91162, 44.4204, 15.5095, -3.62803, -57.5343, 123.306
0.872, 1, -8.83655, 44.4264, 15.4607, -3.46017, -57.5238, 123.176
0.876, 1, -8.76145, 44.4324, 15.4119, -3.29221, -57.5134, 123.045
0.88, 1, -8.68631, 44.4384, 15.363, -3.12417, -57.5029, 122.913
0.884, 1, -8.61112, 44.4444, 15.3142, -2.95604, -57.4924, 122.782
0.888, 1, -8.5359, 44.4504, 15.2653, -2.78782, -57.4819, 122.651
0.892, 1, -8.46064, 44.4563, 15.2164, -2.61952, -57.4715, 122.52
0.896, 1, -8.38535, 44.4623, 15.1675, -2.45113, -57.461, 122.388
0.9, 1, -8.31002, 44.4683, 15.1185, -2.28265, -57.4505, 122.257
0.904, 1, -8.23465, 44.4744, 15.0695, -2.11409, -57.44, 122.125
0.908, 1, -8.15924, 44.4804, 15.0205, -1.94544, -57.4295, 121.994
0.912, 1, -8.08379, 44.4864, 14.9715, -1.77671, -57.419, 121.862
0.916, 1, -8.00831, 44.4924, 14.9224, -1.6079, -57.4084, 121.731
0.92, 1, -7.9328, 44.4984, 14.8733, -1.43901, -57.3979, 121.599
0.924, 1, -7.85724, 44.5044, 14.8242, -1.27004, -57.3874, 121.467
0.928, 1, -7.78165, 44.5104, 14.7751, -1.10098, -57.3769, 121.335
0.932, 1, -7.70603, 44.5165, 14.726, -0.931849, -57.3663, 121.203
0.936, 1, -7.63037, 44.5225, 14.6768, -0.762637, -57.3558, 121.071
0.94, 1, -7.55467, 44.5285, 14.6276, -0.593347, -57.3452, 120.939
0.944, 1, -7.47894, 44.5346, 14.5784, -0.42398, -57.3347, 120.807
0.948, 1, -7.40318, 44.5406, 14.5291, -0.254537, -57.3241, 120.675
0.952, 1, -7.32739, 44.5466, 14.4799, -0.0850185, -57.3136, 120.543
0.956, 1, -7.25156, 44.5527, 14.4306, 0.0845749, -57.303, 120.41
0.96, 1, -7.17569, 44.5587, 14.3813, 0.254242, -57.2924, 120.278
0.964, 1, -7.0998, 44.5648, 14.332, 0.423982, -57.2819, 120.145
0.968, 1, -7.02387, 44.5708, 14.2826, 0.593794, -57.2713, 120.013
0.972, 1, -6.94792, 44.5769, 14.2333, 0.763677, -57.2607, 119.88
0.976, 1, -6.87193, 44.5829, 14.1839, 0.933631, -57.2501, 119.748
0.98, 1, -6.79591, 44.589, 14.1345, 1.10365, -57.2395, 119.615
0.984, 1, -6.71985, 44.595, 14.085, 1.27375, -57.2289, 119.483
0.988, 1, -6.64377, 44.6011, 14.0356, 1.4439, -57.2183, 119.35
0.992, 1, -6.56766, 44.6072, 13.9861, 1.61413, -57.2077, 119.217
0.996, 1, -6.49152, 44.6132, 13.9366, 1.78442, -57.1971, 119.084
1, 1, -6.41535, 44.6193, 13.8871, 1.95478, -57.1865, 118.951
1.004, 1, -6.33915, 44.6254, 13.8376, 2.1252, -57.1759, 118.818
1.008, 1, -6.26292, 44.6314, 13.7881, 2.29569, -57.1653, 118.685
1.012, 1, -6.18667, 44.6375, 13.7385, 2.46624, -57.1547, 118.552
1.016, 1, -6.11039, 44.6436, 13.6889, 2.63685, -57.144, 118.419
1.02, 1, -6.03408, 44.6497, 13.6393, 2.80752, -57.1334, 118.286
1.024, 1, -5.95774, 44.6558, 13.5897, 2.97825, -57.1228, 118.153
1.027, 1, -5.88138, 44.6618, 13.5401, 3.14904, -57.1121, 118.02
1.032, 1, -5.80499, 44.6679, 13.4904, 3.31989, -57.1015, 117.886
1.036, 1, -5.72858, 44.674, 13.4408, 3.49079, -57.0908, 117.753
1.04, 1, -5.65214, 44.6801, 13.3911, 3.66176, -57.0802, 117.62
1.044, 1, -5.57567, 44.6862, 13.3414, 3.83278, -57.0695, 117.486
1.048, 1, -5.49918, 44.6923, 13.2917, 4.00385, -57.0589, 117.353
1.052, 1, -5.42267, 44.6984, 13.2419, 4.17498, -57.0482, 117.219
1.055, 1, -5.34614, 44.7045, 13.1922, 4.34616, -57.0375, 117.086
1.06, 1, -5.26958, 44.7106, 13.1424, 4.51739, -57.0269, 116.952
1.064, 1, -5.19299, 44.7167, 13.0927, 4.68867, -57.0162, 116.819
1.068, 1, -5.11639, 44.7228, 13.0429, 4.86, -57.0055, 116.685
1.072, 1, -5.03976, 44.7289, 12.9931, 5.03139, -56.9949, 116.551
1.076, 1, -4.96312, 44.735, 12.9433, 5.20282, -56.9842, 116.417
1.08, 1, -4.88645, 44.7411, 12.8934, 5.37429, -56.9735, 116.284
1.084, 1, -4.80976, 44.7472, 12.8436, 5.54582, -56.9628, 116.15
1.088, 1, -4.73305, 44.7533, 12.7937, 5.71739, -56.9521, 116.016
1.091, 1, -4.65632, 44.7595, 12.7438, 5.88901, -56.9414, 115.882
1.096, 1, -4.57957, 44.7656, 12.694, 6.06066, -56.9307, 115.748
1.1, 1, -4.5028, 44.7717, 12.6441, 6.23237, -56.92, 115.614
1.104, 1, -4.42601, 44.7778, 12.5942, 6.40411, -56.9093, 115.48
1.108, 1, -4.3492, 44.7839, 12.5442, 6.57589, -56.8986, 115.346
1.112, 1, -4.27238, 44.7901, 12.4943, 6.74772, -56.8879, 115.212
1.116, 1, -4.19554, 44.7962, 12.4444, 6.91958, -56.8772, 115.078
1.119, 1, -4.11868, 44.8023, 12.3944, 7.09149, -56.8665, 114.944
1.124, 1, -4.0418, 44.8084, 12.3444, 7.26343, -56.8558, 114.81
1.128, 1, -3.96491, 44.8146, 12.2945, 7.43541, -56.8451, 114.676
1.132, 1, -3.88801, 44.8207, 12.2445, 7.60742, -56.8344, 114.542
1.136, 1, -3.81109, 44.8268, 12.1945, 7.77947, -56.8237, 114.407
1.14, 1, -3.73415, 44.833, 12.1445, 7.95155, -56.813, 114.273
1.144, 1, -3.6572, 44.8391, 12.0945, 8.12366, -56.8022, 114.139
1.147, 1, -3.58024, 44.8452, 12.0444, 8.29581, -56.7915, 114.005
1.152, 1, -3.50327, 44.8513, 11.9944, 8.46799, -56.7808, 113.87
1.156, 1, -3.42628, 44.8575, 11.9444, 8.64019, -56.7701, 113.736
1.16, 1, -3.34928, 44.8636, 11.8943, 8.81242, -56.7593, 113.602
1.164, 1, -3.27228, 44.8698, 11.8442, 8.98468, -56.7486, 113.467
1.168, 1, -3.19526, 44.8759, 11.7942, 9.15697, -56.7379, 113.333
1.172, 1, -3.11823, 44.882, 11.7441, 9.32928, -56.7271, 113.198
1.175, 1, -3.04119, 44.8882, 11.694, 9.50161, -56.7164, 113.064
1.18, 1, -2.96414, 44.8943, 11.6439, 9.67397, -56.7057, 112.929
1.184, 1, -2.88708, 44.9005, 11.5938, 9.84634, -56.6949, 112.795
1.188, 1, -2.81001, 44.9066, 11.5437, 10.0187, -56.6842, 112.66
1.192, 1, -2.73294, 44.9128, 11.4936, 10.1911, -56.6734, 112.526
1.196, 1, -2.65586, 44.9189, 11.4435, 10.3636, -56.6627, 112.391
1.2, 1, -2.57877, 44.925, 11.3934, 10.536, -56.652, 112.257
1.204, 1, -2.50168, 44.9312, 11.3433, 10.7085, -56.6412, 112.122
1.208, 1, -2.42458, 44.9373, 11.2932, 10.8809, -56.6305, 111.988
1.212, 1, -2.34748, 44.9435, 11.2431, 11.0534, -56.6197, 111.853
1.216, 1, -2.27037, 44.9496, 11.1929, 11.2259, -56.609, 111.719
1.22, 1, -2.19326, 44.9558, 11.1428, 11.3984, -56.5982, 111.584
1.224, 1, -2.11615, 44.9619, 11.0927, 11.5709, -56.5875, 111.45
1.228, 1, -2.03903, 44.9681, 11.0425, 11.7434, -56.5767, 111.315
1.232, 1, -1.96191, 44.9742, 10.9924, 11.9159, -56.566, 111.18
1.236, 1, -1.88479, 44.9804, 10.9423, 12.0884, -56.5553, 111.046
1.24, 1, -1.80768, 44.9865, 10.8922, 12.2609, -56.5445, 110.911
1.244, 1, -1.73056, 44.9927, 10.842, 12.4335, -56.5338, 110.777
1.248, 1, -1.65344, 44.9988, 10.7919, 12.606, -56.523, 110.642
1.252, 1, -1.57632, 45.005, 10.7418, 12.7785, -56.5123, 110.508
1.256, 1, -1.49921, 45.0111, 10.6916, 12.951, -56.5015, 110.373
1.26, 1, -1.4221, 45.0172, 10.6415, 13.1235, -56.4908, 110.238
1.264, 1, -1.34499, 45.0234, 10.5914, 13.296, -56.48, 110.104
1.267, 1, -1.26788, 45.0295, 10.5412, 13.4684, -56.4693, 109.969
1.272, 1, -1.19078, 45.0357, 10.4911, 13.6409, -56.4585, 109.835
1.276, 1, -1.11369, 45.0418, 10.441, 13.8134, -56.4478, 109.7
1.28, 1, -1.0366, 45.048, 10.3909, 13.9858, -56.4371, 109.566
1.284, 1, -0.959517, 45.0541, 10.3408, 14.1583, -56.4263, 109.431
1.288, 1, -0.882441, 45.0603, 10.2907, 14.3307, -56.4156, 109.297
1.292, 1, -0.805372, 45.0664, 10.2406, 14.5031, -56.4048, 109.162
1.295, 1, -0.728312, 45.0726, 10.1905, 14.6755, -56.3941, 109.028
1.3, 1, -0.65126, 45.0787, 10.1404, 14.8478, -56.3834, 108.893
1.304, 1, -0.574218, 45.0848, 10.0903, 15.0202, -56.3726, 108.759
1.308, 1, -0.497185, 45.091, 10.0402, 15.1925, -56.3619, 108.624
1.312, 1, -0.420163, 45.0971, 9.99015, 15.3648, -56.3512, 108.49
1.316, 1, -0.343153, 45.1033, 9.94008, 15.5371, -56.3404, 108.355
1.32, 1, -0.266153, 45.1094, 9.89003, 15.7093, -56.3297, 108.221
1.324, 1, -0.189167, 45.1155, 9.83998, 15.8815, -56.319, 108.087
1.328, 1, -0.112193, 45.1217, 9.78994, 16.0537, -56.3082, 107.952
1.332, 1, -0.0352324, 45.1278, 9.73991, 16.2259, -56.2975, 107.818
1.336, 1, 0.041714, 45.1339, 9.68988, 16.398, -56.2868, 107.684
1.34, 1, 0.118646, 45.1401, 9.63987, 16.5701, -56.2761, 107.55
1.344, 1, 0.195562, 45.1462, 9.58987, 16.7422, -56.2654, 107.415
1.348, 1, 0.272463, 45.1523, 9.53988, 16.9142, -56.2546, 107.281
1.352, 1, 0.349347, 45.1585, 9.48989, 17.0862, -56.2439, 107.147
1.356, 1, 0.426214, 45.1646, 9.43992, 17.2582, -56.2332, 107.013
1.36, 1, 0.503063, 45.1707, 9.38997, 17.4301, -56.2225, 106.879
1.364, 1, 0.579895, 45.1769, 9.34002, 17.6019, -56.2118, 106.745
1.368, 1, 0.656709, 45.183, 9.29008, 17.7738, -56.2011, 106.611
1.372, 1, 0.733503, 45.1891, 9.24016, 17.9456, -56.1904, 106.477
1.376, 1, 0.810278, 45.1952, 9.19025, 18.1173, -56.1797, 106.343
1.38, 1, 0.887032, 45.2013, 9.14035, 18.289, -56.169, 106.209
1.384, 1, 0.963765, 45.2075, 9.09047, 18.4606, -56.1583, 106.075
1.388, 1, 1.04048, 45.2136, 9.0406, 18.6322, -56.1476, 105.941
1.392, 1, 1.11716, 45.2197, 8.99075, 18.8038, -56.1369, 105.807
1.396, 1, 1.19383, 45.2258, 8.94091, 18.9753, -56.1263, 105.673
1.4, 1, 1.27047, 45.2319, 8.89108, 19.1467, -56.1156, 105.54
1.404, 1, 1.34709, 45.238, 8.84127, 19.3181, -56.1049, 105.406
1.408, 1, 1.42368, 45.2441, 8.79148, 19.4895, -56.0942, 105.272
1.412, 1, 1.50025, 45.2502, 8.7417, 19.6608, -56.0836, 105.139
1.416, 1, 1.57679, 45.2563, 8.69194, 19.832, -56.0729, 105.005
1.42, 1, 1.6533, 45.2624, 8.6422, 20.0032, -56.0622, 104.871
1.424, 1, 1.72978, 45.2685, 8.59247, 20.1743, -56.0516, 104.738
1.428, 1, 1.80624, 45.2746, 8.54277, 20.3453, -56.0409, 104.605
1.432, 1, 1.88267, 45.2807, 8.49308, 20.5163, -56.0303, 104.471
1.436, 1, 1.95907, 45.2868, 8.44341, 20.6872, -56.0196, 104.338
1.44, 1, 2.03544, 45.2929, 8.39375, 20.8581, -56.009, 104.204
1.444, 1, 2.11178, 45.299, 8.34412, 21.0289, -55.9983, 104.071
1.448, 1, 2.18809, 45.3051, 8.29451, 21.1996, -55.9877, 103.938
1.452, 1, 2.26437, 45.3112, 8.24492, 21.3702, -55.9771, 103.805
1.456, 1, 2.34062, 45.3173, 8.19535, 21.5408, -55.9664, 103.672
1.46, 1, 2.41683, 45.3233, 8.1458, 21.7113, -55.9558, 103.539
1.464, 1, 2.49301, 45.3294, 8.09627, 21.8817, -55.9452, 103.406
1.468, 1, 2.56916, 45.3355, 8.04676, 22.0521, -55.9346, 103.273
1.472, 1, 2.64527, 45.3415, 7.99728, 22.2223, -55.924, 103.14
1.476, 1, 2.72134, 45.3476, 7.94782, 22.3925, -55.9134, 103.007
1.48, 1, 2.79739, 45.3537, 7.89838, 22.5627, -55.9028, 102.875
1.484, 1, 2.87339, 45.3597, 7.84897, 22.7327, -55.8922, 102.742
1.488, 1, 2.94936, 45.3658, 7.79958, 22.9026, -55.8816, 102.609
1.492, 1, 3.02529, 45.3718, 7.75021, 23.0725, -55.871, 102.477
1.496, 1, 3.10118, 45.3779, 7.70087, 23.2423, -55.8605, 102.345
1.5, 1, 3.17703, 45.3839, 7.65156, 23.412, -55.8499, 102.212
1.504, 1, 3.25285, 45.39, 7.60227, 23.5816, -55.8393, 102.08
1.508, 1, 3.32862, 45.396, 7.55301, 23.7511, -55.8288, 101.948
1.512, 1, 3.40435, 45.4021, 7.50377, 23.9205, -55.8182, 101.815
1.516, 1, 3.48005, 45.4081, 7.45456, 24.0898, -55.8077, 101.683
1.52, 1, 3.5557, 45.4141, 7.40538, 24.2591, -55.7971, 101.551
1.524, 1, 3.6313, 45.4202, 7.35622, 24.4282, -55.7866, 101.419
1.528, 1, 3.70687, 45.4262, 7.3071, 24.5973, -55.776, 101.287
1.532, 1, 3.78239, 45.4322, 7.258, 24.7662, -55.7655, 101.156
1.536, 1, 3.85787, 45.4382, 7.20893, 24.9351, -55.755, 101.024
1.54, 1, 3.9333, 45.4443, 7.15989, 25.1038, -55.7445, 100.892
1.544, 1, 4.00869, 45.4503, 7.11087, 25.2725, -55.734, 100.761
1.548, 1, 4.08403, 45.4563, 7.06189, 25.441, -55.7235, 100.629
1.552, 1, 4.15932, 45.4623, 7.01294, 25.6095, -55.713, 100.498
1.556, 1, 4.23457, 45.4683, 6.96402, 25.7778, -55.7025, 100.367
1.56, 1, 4.30977, 45.4743, 6.91513, 25.946, -55.692, 100.235
1.564, 1, 4.38492, 45.4803, 6.86627, 26.1141, -55.6816, 100.104
1.568, 1, 4.46003, 45.4863, 6.81745, 26.2822, -55.6711, 99.9731
1.572, 1, 4.53508, 45.4923, 6.76865, 26.4501, -55.6606, 99.8421
1.576, 1, 4.61009, 45.4982, 6.71989, 26.6178, -55.6502, 99.7112
1.58, 1, 4.68504, 45.5042, 6.67116, 26.7855, -55.6397, 99.5804
1.584, 1, 4.75995, 45.5102, 6.62246, 26.9531, -55.6293, 99.4497
1.588, 1, 4.8348, 45.5162, 6.5738, 27.1205, -55.6189, 99.319
1.592, 1, 4.9096, 45.5221, 6.52517, 27.2879, -55.6085, 99.1885
1.596, 1, 4.98435, 45.5281, 6.47658, 27.4551, -55.598, 99.0581
1.6, 1, 5.05904, 45.534, 6.42802, 27.6222, -55.5876, 98.9277
1.604, 1, 5.13369, 45.54, 6.37949, 27.7892, -55.5772, 98.7974
1.608, 1, 5.20828, 45.5459, 6.331, 27.956, -55.5668, 98.6673
1.612, 1, 5.28281, 45.5519, 6.28254, 28.1227, -55.5564, 98.5372
1.616, 1, 5.35729, 45.5578, 6.23412, 28.2894, -55.5461, 98.4072
1.62, 1, 5.43171, 45.5638, 6.18574, 28.4558, -55.5357, 98.2774
1.624, 1, 5.50608, 45.5697, 6.13739, 28.6222, -55.5253, 98.1476
1.628, 1, 5.5804, 45.5756, 6.08908, 28.7884, -55.515, 98.0179
1.632, 1, 5.65466, 45.5815, 6.04081, 28.9545, -55.5046, 97.8883
1.636, 1, 5.72886, 45.5875, 5.99257, 29.1205, -55.4943, 97.7588
1.64, 1, 5.803, 45.5934, 5.94437, 29.2864, -55.484, 97.6294
1.644, 1, 5.87708, 45.5993, 5.89621, 29.4521, -55.4736, 97.5002
1.648, 1, 5.95111, 45.6052, 5.84809, 29.6177, -55.4633, 97.371
1.652, 1, 6.02508, 45.6111, 5.80001, 29.7831, -55.453, 97.2419
1.656, 1, 6.09899, 45.617, 5.75196, 29.9485, -55.4427, 97.1129
1.66, 1, 6.17284, 45.6229, 5.70395, 30.1137, -55.4324, 96.9841
1.664, 1, 6.24663, 45.6287, 5.65599, 30.2787, -55.4221, 96.8553
1.668, 1, 6.32036, 45.6346, 5.60806, 30.4436, -55.4119, 96.7266
1.672, 1, 6.39403, 45.6405, 5.56017, 30.6084, -55.4016, 96.5981
1.676, 1, 6.46763, 45.6464, 5.51232, 30.7731, -55.3914, 96.4696
1.68, 1, 6.54118, 45.6522, 5.46451, 30.9376, -55.3811, 96.3413
1.684, 1, 6.61466, 45.6581, 5.41674, 31.1019, -55.3709, 96.2131
1.688, 1, 6.68808, 45.664, 5.36902, 31.2662, -55.3606, 96.085
1.692, 1, 6.76143, 45.6698, 5.32133, 31.4303, -55.3504, 95.957
1.696, 1, 6.83473, 45.6756, 5.27368, 31.5942, -55.3402, 95.8291
1.7, 1, 6.90795, 45.6815, 5.22608, 31.758, -55.33, 95.7013
1.704, 1, 6.98112, 45.6873, 5.17852, 31.9217, -55.3198, 95.5736
1.708, 1, 7.05422, 45.6931, 5.131, 32.0852, -55.3096, 95.446
1.712, 1, 7.12726, 45.699, 5.08352, 32.2486, -55.2994, 95.3186
1.716, 1, 7.20023, 45.7048, 5.03608, 32.4118, -55.2893, 95.1913
1.72, 1, 7.27313, 45.7106, 4.98869, 32.5749, -55.2791, 95.064
1.724, 1, 7.34597, 45.7164, 4.94134, 32.7378, -55.269, 94.9369
1.728, 1, 7.41874, 45.7222, 4.89403, 32.9006, -55.2588, 94.8099
1.732, 1, 7.49145, 45.728, 4.84677, 33.0632, -55.2487, 94.6831
1.736, 1, 7.56409, 45.7338, 4.79955, 33.2257, -55.2386, 94.5563
1.74, 1, 7.63666, 45.7396, 4.75237, 33.388, -55.2285, 94.4297
1.744, 1, 7.70916, 45.7454, 4.70524, 33.5502, -55.2184, 94.3032
1.748, 1, 7.7816, 45.7512, 4.65816, 33.7122, -55.2083, 94.1768
1.752, 1, 7.85397, 45.7569, 4.61111, 33.8741, -55.1982, 94.0505
1.756, 1, 7.92627, 45.7627, 4.56412, 34.0358, -55.1881, 93.9243
1.76, 1, 7.9985, 45.7685, 4.51716, 34.1974, -55.1781, 93.7983
1.764, 1, 8.07066, 45.7742, 4.47025, 34.3588, -55.168, 93.6724
1.768, 1, 8.14275, 45.78, 4.42339, 34.52, -55.158, 93.5466
1.772, 1, 8.21477, 45.7857, 4.37658, 34.6811, -55.1479, 93.4209
1.776, 1, 8.28672, 45.7914, 4.32981, 34.8421, -55.1379, 93.2953
1.78, 1, 8.3586, 45.7972, 4.28308, 35.0028, -55.1279, 93.1699
1.784, 1, 8.4304, 45.8029, 4.2364, 35.1635, -55.1179, 93.0446
1.788, 1, 8.50214, 45.8086, 4.18977, 35.3239, -55.1079, 92.9194
1.792, 1, 8.57381, 45.8143, 4.14319, 35.4842, -55.0979, 92.7944
1.796, 1, 8.6454, 45.82, 4.09665, 35.6443, -55.0879, 92.6695
1.8, 1, 8.71692, 45.8257, 4.05016, 35.8043, -55.078, 92.5447
1.804, 1, 8.78837, 45.8314, 4.00372, 35.9641, -55.068, 92.42
1.808, 1, 8.85974, 45.8371, 3.95732, 36.1238, -55.0581, 92.2955
1.812, 1, 8.93104, 45.8428, 3.91097, 36.2833, -55.0481, 92.1711
1.816, 1, 9.00227, 45.8485, 3.86467, 36.4426, -55.0382, 92.0468
1.82, 1, 9.07343, 45.8542, 3.81842, 36.6017, -55.0283, 91.9226
1.824, 1, 9.14451, 45.8598, 3.77222, 36.7607, -55.0184, 91.7986
1.828, 1, 9.21551, 45.8655, 3.72606, 36.9195, -55.0085, 91.6747
1.832, 1, 9.28645, 45.8712, 3.67995, 37.0782, -54.9986, 91.5509
1.836, 1, 9.3573, 45.8768, 3.6339, 37.2367, -54.9887, 91.4273
1.84, 1, 9.42809, 45.8825, 3.58789, 37.395, -54.9789, 91.3038
1.844, 1, 9.49879, 45.8881, 3.54193, 37.5531, -54.969, 91.1804
1.848, 1, 9.56942, 45.8937, 3.49602, 37.7111, -54.9592, 91.0572
1.852, 1, 9.63998, 45.8994, 3.45015, 37.8689, -54.9493, 90.934
1.856, 1, 9.71046, 45.905, 3.40434, 38.0266, -54.9395, 90.8111
1.86, 1, 9.78086, 45.9106, 3.35858, 38.184, -54.9297, 90.6882
1.864, 1, 9.85119, 45.9162, 3.31287, 38.3413, -54.9199, 90.5655
1.868, 1, 9.92144, 45.9218, 3.2672, 38.4984, -54.9101, 90.4429
1.872, 1, 9.99161, 45.9274, 3.22159, 38.6554, -54.9004, 90.3205
1.876, 1, 10.0617, 45.933, 3.17603, 38.8122, -54.8906, 90.1982
1.88, 1, 10.1317, 45.9386, 3.13052, 38.9688, -54.8808, 90.076
1.884, 1, 10.2017, 45.9441, 3.08506, 39.1252, -54.8711, 89.954
1.888, 1, 10.2715, 45.9497, 3.03965, 39.2815, -54.8614, 89.8321
1.892, 1, 10.3413, 45.9553, 2.99429, 39.4375, -54.8516, 89.7103
1.896, 1, 10.411, 45.9608, 2.94898, 39.5934, -54.8419, 89.5887
1.9, 1, 10.4807, 45.9664, 2.90372, 39.7492, -54.8322, 89.4672
1.904, 1, 10.5502, 45.9719, 2.85852, 39.9047, -54.8225, 89.3459
1.908, 1, 10.6197, 45.9775, 2.81336, 40.0601, -54.8129, 89.2247
1.912, 1, 10.6891, 45.983, 2.76826, 40.2153, -54.8032, 89.1036
1.916, 1, 10.7584, 45.9885, 2.72321, 40.3703, -54.7935, 88.9827
1.92, 1, 10.8276, 45.9941, 2.67821, 40.5252, -54.7839, 88.8619
1.924, 1, 10.8968, 45.9996, 2.63326, 40.6798, -54.7743, 88.7412
1.928, 1, 10.9659, 46.0051, 2.58836, 40.8343, -54.7646, 88.6207
1.932, 1, 11.0349, 46.0106, 2.54352, 40.9886, -54.755, 88.5003
1.936, 1, 11.1038, 46.0161, 2.49872, 41.1428, -54.7454, 88.3801
1.94, 1, 11.1726, 46.0216, 2.45398, 41.2967, -54.7358, 88.26
1.944, 1, 11.2414, 46.027, 2.40929, 41.4505, -54.7263, 88.14
1.948, 1, 11.3101, 46.0325, 2.36466, 41.6041, -54.7167, 88.0202
1.952, 1, 11.3787, 46.038, 2.32007, 41.7575, -54.7071, 87.9005
1.956, 1, 11.4472, 46.0435, 2.27554, 41.9107, -54.6976, 87.781
1.96, 1, 11.5156, 46.0489, 2.23106, 42.0638, -54.6881, 87.6616
1.964, 1, 11.584, 46.0544, 2.18663, 42.2167, -54.6785, 87.5423
1.968, 1, 11.6523, 46.0598, 2.14226, 42.3694, -54.669, 87.4232
1.972, 1, 11.7205, 46.0652, 2.09794, 42.5219, -54.6595, 87.3042
1.976, 1, 11.7886, 46.0707, 2.05367, 42.6742, -54.65, 87.1854
1.98, 1, 11.8566, 46.0761, 2.00945, 42.8264, -54.6406, 87.0667
1.984, 1, 11.9246, 46.0815, 1.96528, 42.9783, -54.6311, 86.9481
1.988, 1, 11.9924, 46.0869, 1.92117, 43.1301, -54.6216, 86.8297
1.992, 1, 12.0602, 46.0923, 1.87711, 43.2817, -54.6122, 86.7114
1.996, 1, 12.1279, 46.0977, 1.8331, 43.4332, -54.6028, 86.5933
1.999, 1, 12.1956, 46.1031, 1.78915, 43.5844, -54.5933, 86.4753
2.004, 1, 12.2631, 46.1085, 1.74524, 43.7355, -54.5839, 86.3574
2.008, 1, 12.3306, 46.1139, 1.70139, 43.8864, -54.5745, 86.2397
2.012, 1, 12.398, 46.1193, 1.6576, 44.0371, -54.5651, 86.1221
2.015, 1, 12.4653, 46.1246, 1.61385, 44.1876, -54.5558, 86.0047
2.019, 1, 12.5325, 46.13, 1.57016, 44.338, -54.5464, 85.8874
2.024, 1, 12.5997, 46.1353, 1.52652, 44.4881, -54.537, 85.7703
2.028, 1, 12.6667, 46.1407, 1.48294, 44.6381, -54.5277, 85.6533
2.031, 1, 12.7337, 46.146, 1.4394, 44.7879, -54.5184, 85.5364
2.036, 1, 12.8006, 46.1514, 1.39592, 44.9375, -54.509, 85.4197
2.04, 1, 12.8675, 46.1567, 1.3525, 45.0869, -54.4997, 85.3031
2.044, 1, 12.9342, 46.162, 1.30912, 45.2362, -54.4904, 85.1867
2.048, 1, 13.0009, 46.1673, 1.2658, 45.3853, -54.4812, 85.0704
2.051, 1, 13.0674, 46.1726, 1.22253, 45.5341, -54.4719, 84.9543
2.055, 1, 13.1339, 46.1779, 1.17932, 45.6828, -54.4626, 84.8383
2.06, 1, 13.2003, 46.1832, 1.13616, 45.8314, -54.4534, 84.7224
2.064, 1, 13.2667, 46.1885, 1.09305, 45.9797, -54.4441, 84.6067
2.068, 1, 13.3329, 46.1938, 1.04999, 46.1279, -54.4349, 84.4911
2.071, 1, 13.3991, 46.1991, 1.00699, 46.2758, -54.4257, 84.3757
2.076, 1, 13.4652, 46.2043, 0.964039, 46.4236, -54.4165, 84.2604
2.08, 1, 13.5312, 46.2096, 0.921142, 46.5712, -54.4073, 84.1452
2.084, 1, 13.5971, 46.2149, 0.878299, 46.7187, -54.3981, 84.0302
2.087, 1, 13.663, 46.2201, 0.835508, 46.8659, -54.3889, 83.9153
2.092, 1, 13.7287, 46.2253, 0.792771, 47.013, -54.3798, 83.8006
2.096, 1, 13.7944, 46.2306, 0.750086, 47.1598, -54.3706, 83.686
2.1, 1, 13.86, 46.2358, 0.707455, 47.3065, -54.3615, 83.5716
2.104, 1, 13.9255, 46.241, 0.664877, 47.453, -54.3524, 83.4573
2.107, 1, 13.991, 46.2463, 0.622352, 47.5994, -54.3432, 83.3431
2.111, 1, 14.0563, 46.2515, 0.57988, 47.7455, -54.3341, 83.2291
2.116, 1, 14.1216, 46.2567, 0.537461, 47.8915, -54.325, 83.1153
2.12, 1, 14.1868, 46.2619, 0.495095, 48.0373, -54.316, 83.0015
2.124, 1, 14.2519, 46.2671, 0.452782, 48.1829, -54.3069, 82.888
2.127, 1, 14.3169, 46.2722, 0.410522, 48.3283, -54.2978, 82.7745
2.132, 1, 14.3819, 46.2774, 0.368316, 48.4735, -54.2888, 82.6612
2.136, 1, 14.4467, 46.2826, 0.326162, 48.6186, -54.2798, 82.5481
2.14, 1, 14.5115, 46.2878, 0.284061, 48.7634, -54.2707, 82.4351
2.143, 1, 14.5762, 46.2929, 0.242014, 48.9081, -54.2617, 82.3222
2.148, 1, 14.6409, 46.2981, 0.200019, 49.0526, -54.2527, 82.2094
2.152, 1, 14.7054, 46.3032, 0.158078, 49.1969, -54.2437, 82.0969
2.156, 1, 14.7699, 46.3083, 0.116189, 49.3411, -54.2347, 81.9844
2.16, 1, 14.8342, 46.3135, 0.0743537, 49.485, -54.2258, 81.8721
2.163, 1, 14.8985, 46.3186, 0.0325711, 49.6288, -54.2168, 81.7599
2.168, 1, 14.9627, 46.3237, -0.00915859, 49.7724, -54.2079, 81.6479
2.172, 1, 15.0269, 46.3288, -0.0508354, 49.9158, -54.1989, 81.536
2.176, 1, 15.0909, 46.3339, -0.0924592, 50.059, -54.19, 81.4243
2.179, 1, 15.1549, 46.339, -0.13403, 50.2021, -54.1811, 81.3127
2.184, 1, 15.2188, 46.3441, -0.175548, 50.345, -54.1722, 81.2013
2.188, 1, 15.2826, 46.3492, -0.217014, 50.4876, -54.1633, 81.09
2.192, 1, 15.3463, 46.3543, -0.258426, 50.6301, -54.1544, 80.9788
2.196, 1, 15.41, 46.3594, -0.299786, 50.7725, -54.1456, 80.8678
2.199, 1, 15.4735, 46.3644, -0.341093, 50.9146, -54.1367, 80.7569
2.204, 1, 15.537, 46.3695, -0.382347, 51.0566, -54.1279, 80.6461
2.208, 1, 15.6004, 46.3746, -0.423549, 51.1983, -54.1191, 80.5355
2.212, 1, 15.6637, 46.3796, -0.464697, 51.3399, -54.1102, 80.4251
2.216, 1, 15.727, 46.3846, -0.505794, 51.4813, -54.1014, 80.3148
2.219, 1, 15.7901, 46.3897, -0.546837, 51.6226, -54.0926, 80.2046
2.224, 1, 15.8532, 46.3947, -0.587828, 51.7636, -54.0838, 80.0945
2.228, 1, 15.9162, 46.3997, -0.628767, 51.9045, -54.0751, 79.9846
2.232, 1, 15.9791, 46.4047, -0.669653, 52.0452, -54.0663, 79.8749
2.235, 1, 16.042, 46.4098, -0.710487, 52.1857, -54.0576, 79.7653
2.24, 1, 16.1048, 46.4148, -0.751268, 52.326, -54.0488, 79.6558
2.244, 1, 16.1674, 46.4198, -0.791998, 52.4662, -54.0401, 79.5465
2.248, 1, 16.23, 46.4247, -0.832675, 52.6061, -54.0314, 79.4373
2.252, 1, 16.2926, 46.4297, -0.8733, 52.7459, -54.0227, 79.3282
2.255, 1, 16.355, 46.4347, -0.913873, 52.8856, -54.014, 79.2193
2.259, 1, 16.4174, 46.4397, -0.954395, 53.025, -54.0053, 79.1105
2.264, 1, 16.4796, 46.4446, -0.994864, 53.1642, -53.9966, 79.0019
2.268, 1, 16.5418, 46.4496, -1.03528, 53.3033, -53.9879, 78.8934
2.272, 1, 16.604, 46.4545, -1.07565, 53.4422, -53.9793, 78.785
2.275, 1, 16.666, 46.4595, -1.11596, 53.581, -53.9706, 78.6768
2.28, 1, 16.728, 46.4644, -1.15623, 53.7195, -53.962, 78.5687
2.284, 1, 16.7899, 46.4694, -1.19644, 53.8579, -53.9534, 78.4608
2.288, 1, 16.8517, 46.4743, -1.2366, 53.9961, -53.9448, 78.353
2.291, 1, 16.9134, 46.4792, -1.27671, 54.1341, -53.9362, 78.2453
2.296, 1, 16.975, 46.4841, -1.31677, 54.2719, -53.9276, 78.1378
2.3, 1, 17.0366, 46.489, -1.35678, 54.4096, -53.919, 78.0304
2.304, 1, 17.0981, 46.4939, -1.39673, 54.5471, -53.9105, 77.9231
2.308, 1, 17.1595, 46.4988, -1.43664, 54.6844, -53.9019, 77.816
2.311, 1, 17.2209, 46.5037, -1.47649, 54.8216, -53.8934, 77.709
2.316, 1, 17.2821, 46.5086, -1.5163, 54.9585, -53.8848, 77.6021
2.32, 1, 17.3433, 46.5135, -1.55605, 55.0953, -53.8763, 77.4954
2.324, 1, 17.4044, 46.5183, -1.59575, 55.2319, -53.8678, 77.3888
2.328, 1, 17.4654, 46.5232, -1.63541, 55.3684, -53.8593, 77.2824
2.331, 1, 17.5264, 46.5281, -1.67501, 55.5047, -53.8508, 77.1761
2.336, 1, 17.5872, 46.5329, -1.71456, 55.6408, -53.8423, 77.0699
2.34, 1, 17.648, 46.5378, -1.75406, 55.7767, -53.8339, 76.9639
2.344, 1, 17.7087, 46.5426, -1.79352, 55.9125, -53.8254, 76.858
2.347, 1, 17.7694, 46.5474, -1.83292, 56.048, -53.817, 76.7522
2.352, 1, 17.8299, 46.5523, -1.87227, 56.1834, -53.8085, 76.6466
2.356, 1, 17.8904, 46.5571, -1.91157, 56.3187, -53.8001, 76.5411
2.36, 1, 17.9508, 46.5619, -1.95082, 56.4538, -53.7917, 76.4357
2.364, 1, 18.0112, 46.5667, -1.99003, 56.5887, -53.7833, 76.3304
2.367, 1, 18.0714, 46.5715, -2.02918, 56.7234, -53.7749, 76.2253
2.372, 1, 18.1316, 46.5763, -2.06828, 56.8579, -53.7665, 76.1204
2.376, 1, 18.1917, 46.5811, -2.10734, 56.9923, -53.7581, 76.0155
2.38, 1, 18.2517, 46.5859, -2.14634, 57.1265, -53.7498, 75.9108
2.383, 1, 18.3117, 46.5906, -2.1853, 57.2606, -53.7414, 75.8063
2.388, 1, 18.3716, 46.5954, -2.22421, 57.3945, -53.7331, 75.7018
2.392, 1, 18.4314, 46.6002, -2.26306, 57.5282, -53.7248, 75.5975
2.396, 1, 18.4911, 46.6049, -2.30187, 57.6617, -53.7164, 75.4933
2.4, 1, 18.5508, 46.6097, -2.34063, 57.7951, -53.7081, 75.3893
2.403, 1, 18.6103, 46.6145, -2.37934, 57.9283, -53.6998, 75.2854
2.408, 1, 18.6698, 46.6192, -2.418, 58.0614, -53.6916, 75.1816
2.412, 1, 18.7293, 46.6239, -2.45662, 58.1942, -53.6833, 75.0779
2.416, 1, 18.7886, 46.6287, -2.49518, 58.3269, -53.675, 74.9744
2.42, 1, 18.8479, 46.6334, -2.5337, 58.4595, -53.6668, 74.871
2.423, 1, 18.9071, 46.6381, -2.57217, 58.5918, -53.6585, 74.7677
2.428, 1, 18.9662, 46.6428, -2.61059, 58.724, -53.6503, 74.6646
2.432, 1, 19.0253, 46.6475, -2.64896, 58.8561, -53.642, 74.5616
2.436, 1, 19.0843, 46.6522, -2.68728, 58.988, -53.6338, 74.4587
2.439, 1, 19.1432, 46.6569, -2.72556, 59.1197, -53.6256, 74.356
2.444, 1, 19.202, 46.6616, -2.76379, 59.2512, -53.6174, 74.2533
2.448, 1, 19.2608, 46.6663, -2.80197, 59.3826, -53.6092, 74.1508
2.452, 1, 19.3195, 46.671, -2.8401, 59.5138, -53.6011, 74.0485
2.456, 1, 19.3781, 46.6756, -2.87818, 59.6449, -53.5929, 73.9463
2.459, 1, 19.4366, 46.6803, -2.91622, 59.7757, -53.5848, 73.8441
2.464, 1, 19.4951, 46.685, -2.95421, 59.9065, -53.5766, 73.7422
2.468, 1, 19.5535, 46.6896, -2.99215, 60.037, -53.5685, 73.6403
2.472, 1, 19.6118, 46.6943, -3.03005, 60.1674, -53.5604, 73.5386
2.476, 1, 19.67, 46.6989, -3.06789, 60.2977, -53.5523, 73.437
2.479, 1, 19.7282, 46.7035, -3.10569, 60.4277, -53.5441, 73.3355
2.484, 1, 19.7863, 46.7082, -3.14345, 60.5577, -53.5361, 73.2342
2.488, 1, 19.8443, 46.7128, -3.18115, 60.6874, -53.528, 73.1329
2.492, 1, 19.9023, 46.7174, -3.21881, 60.817, -53.5199, 73.0318
2.495, 1, 19.9602, 46.722, -3.25643, 60.9464, -53.5118, 72.9309
2.5, 1, 20.018, 46.7266, -3.29399, 61.0757, -53.5038, 72.83
2.504, 1, 20.0758, 46.7312, -3.33151, 61.2048, -53.4957, 72.7293
2.508, 1, 20.1334, 46.7358, -3.36898, 61.3337, -53.4877, 72.6287
2.512, 1, 20.191, 46.7404, -3.40641, 61.4625, -53.4797, 72.5283
2.515, 1, 20.2486, 46.745, -3.44379, 61.5912, -53.4717, 72.4279
2.52, 1, 20.306, 46.7496, -3.48112, 61.7196, -53.4637, 72.3277
2.524, 1, 20.3634, 46.7542, -3.51841, 61.8479, -53.4557, 72.2276
2.528, 1, 20.4207, 46.7587, -3.55565, 61.9761, -53.4477, 72.1276
2.531, 1, 20.478, 46.7633, -3.59285, 62.1041, -53.4397, 72.0278
2.536, 1, 20.5351, 46.7679, -3.63, 62.2319, -53.4318, 71.928
2.54, 1, 20.5922, 46.7724, -3.6671, 62.3596, -53.4238, 71.8284
2.544, 1, 20.6493, 46.7769, -3.70416, 62.4871, -53.4159, 71.729
2.548, 1, 20.7062, 46.7815, -3.74117, 62.6145, -53.4079, 71.6296
2.551, 1, 20.7631, 46.786, -3.77814, 62.7417, -53.4, 71.5304
2.556, 1, 20.82, 46.7906, -3.81506, 62.8687, -53.3921, 71.4313
2.56, 1, 20.8767, 46.7951, -3.85194, 62.9956, -53.3842, 71.3323
2.564, 1, 20.9334, 46.7996, -3.88877, 63.1224, -53.3763, 71.2334
2.568, 1, 20.99, 46.8041, -3.92555, 63.2489, -53.3684, 71.1347
2.571, 1, 21.0466, 46.8086, -3.96229, 63.3754, -53.3605, 71.036
2.576, 1, 21.103, 46.8131, -3.99899, 63.5016, -53.3527, 70.9375
2.58, 1, 21.1594, 46.8176, -4.03564, 63.6278, -53.3448, 70.8391
2.584, 1, 21.2158, 46.8221, -4.07225, 63.7537, -53.337, 70.7409
2.587, 1, 21.2721, 46.8266, -4.10881, 63.8795, -53.3291, 70.6427
2.592, 1, 21.3283, 46.8311, -4.14532, 64.0052, -53.3213, 70.5447
2.596, 1, 21.3844, 46.8355, -4.1818, 64.1307, -53.3135, 70.4468
2.6, 1, 21.4405, 46.84, -4.21822, 64.256, -53.3057, 70.349
2.604, 1, 21.4965, 46.8445, -4.25461, 64.3812, -53.2979, 70.2513
2.607, 1, 21.5524, 46.8489, -4.29095, 64.5063, -53.2901, 70.1538
2.612, 1, 21.6083, 46.8534, -4.32724, 64.6312, -53.2823, 70.0563
2.616, 1, 21.6641, 46.8578, -4.3635, 64.7559, -53.2745, 69.959
2.62, 1, 21.7198, 46.8623, -4.39971, 64.8805, -53.2668, 69.8618
2.624, 1, 21.7755, 46.8667, -4.43587, 65.005, -53.259, 69.7647
2.627, 1, 21.8311, 46.8711, -4.47199, 65.1293, -53.2513, 69.6678
2.632, 1, 21.8866, 46.8755, -4.50807, 65.2534, -53.2435, 69.5709
2.636, 1, 21.942, 46.88, -4.54411, 65.3774, -53.2358, 69.4742
2.64, 1, 21.9974, 46.8844, -4.5801, 65.5013, -53.2281, 69.3775
2.643, 1, 22.0528, 46.8888, -4.61605, 65.625, -53.2204, 69.281
2.648, 1, 22.108, 46.8932, -4.65195, 65.7485, -53.2127, 69.1847
2.652, 1, 22.1632, 46.8976, -4.68782, 65.872, -53.205, 69.0884
2.656, 1, 22.2184, 46.902, -4.72364, 65.9952, -53.1973, 68.9922
2.66, 1, 22.2734, 46.9064, -4.75942, 66.1183, -53.1897, 68.8962
2.663, 1, 22.3284, 46.9108, -4.79515, 66.2413, -53.182, 68.8002
2.668, 1, 22.3834, 46.9151, -4.83085, 66.3641, -53.1744, 68.7044
2.672, 1, 22.4382, 46.9195, -4.8665, 66.4868, -53.1667, 68.6087
2.676, 1, 22.4931, 46.9239, -4.90211, 66.6093, -53.1591, 68.5131
2.679, 1, 22.5478, 46.9282, -4.93767, 66.7317, -53.1515, 68.4177
2.684, 1, 22.6025, 46.9326, -4.9732, 66.854, -53.1438, 68.3223
2.688, 1, 22.6571, 46.9369, -5.00868, 66.9761, -53.1362, 68.227
2.692, 1, 22.7116, 46.9413, -5.04412, 67.098, -53.1286, 68.1319
2.696, 1, 22.7661, 46.9456, -5.07952, 67.2199, -53.1211, 68.0369
2.699, 1, 22.8205, 46.95, -5.11488, 67.3415, -53.1135, 67.9419
2.704, 1, 22.8749, 46.9543, -5.1502, 67.4631, -53.1059, 67.8471
2.708, 1, 22.9292, 46.9586, -5.18547, 67.5844, -53.0983, 67.7524
2.712, 1, 22.9834, 46.9629, -5.22071, 67.7057, -53.0908, 67.6579
2.716, 1, 23.0376, 46.9673, -5.2559, 67.8268, -53.0833, 67.5634
2.719, 1, 23.0917, 46.9716, -5.29106, 67.9478, -53.0757, 67.469
2.724, 1, 23.1457, 46.9759, -5.32617, 68.0686, -53.0682, 67.3748
2.728, 1, 23.1997, 46.9802, -5.36124, 68.1893, -53.0607, 67.2806
2.732, 1, 23.2536, 46.9845, -5.39627, 68.3098, -53.0532, 67.1866
2.735, 1, 23.3075, 46.9888, -5.43126, 68.4302, -53.0457, 67.0926
2.74, 1, 23.3613, 46.9931, -5.46621, 68.5505, -53.0382, 66.9988
2.744, 1, 23.415, 46.9973, -5.50112, 68.6706, -53.0307, 66.9051
2.748, 1, 23.4687, 47.0016, -5.53599, 68.7906, -53.0232, 66.8115
2.752, 1, 23.5223, 47.0059, -5.57082, 68.9104, -53.0157, 66.718
2.755, 1, 23.5758, 47.0102, -5.6056, 69.0302, -53.0083, 66.6246
2.76, 1, 23.6293, 47.0144, -5.64035, 69.1497, -53.0008, 66.5313
2.764, 1, 23.6827, 47.0187, -5.67506, 69.2692, -52.9934, 66.4382
2.768, 1, 23.7361, 47.0229, -5.70973, 69.3885, -52.986, 66.3451
2.772, 1, 23.7894, 47.0272, -5.74436, 69.5076, -52.9785, 66.2521
2.775, 1, 23.8426, 47.0314, -5.77895, 69.6267, -52.9711, 66.1593
2.78, 1, 23.8958, 47.0356, -5.8135, 69.7456, -52.9637, 66.0665
2.784, 1, 23.9489, 47.0399, -5.84801, 69.8643, -52.9563, 65.9739
2.788, 1, 24.002, 47.0441, -5.88248, 69.9829, -52.9489, 65.8813
2.791, 1, 24.055, 47.0483, -5.91692, 70.1014, -52.9416, 65.7889
2.796, 1, 24.1079, 47.0526, -5.95131, 70.2198, -52.9342, 65.6966
2.8, 1, 24.1608, 47.0568, -5.98566, 70.338, -52.9268, 65.6044
2.804, 1, 24.2136, 47.061, -6.01998, 70.4561, -52.9195, 65.5122
2.808, 1, 24.2664, 47.0652, -6.05426, 70.574, -52.9121, 65.4202
2.811, 1, 24.3191, 47.0694, -6.0885, 70.6918, -52.9048, 65.3283
2.816, 1, 24.3717, 47.0736, -6.12269, 70.8095, -52.8974, 65.2365
2.82, 1, 24.4243, 47.0778, -6.15686, 70.9271, -52.8901, 65.1448
2.824, 1, 24.4768, 47.0819, -6.19098, 71.0445, -52.8828, 65.0532
2.828, 1, 24.5293, 47.0861, -6.22506, 71.1618, -52.8755, 64.9617
2.831, 1, 24.5817, 47.0903, -6.25911, 71.2789, -52.8682, 64.8703
2.836, 1, 24.634, 47.0945, -6.29312, 71.396, -52.8609, 64.779
2.84, 1, 24.6863, 47.0986, -6.32709, 71.5129, -52.8536, 64.6878
2.844, 1, 24.7385, 47.1028, -6.36102, 71.6296, -52.8464, 64.5967
2.847, 1, 24.7907, 47.107, -6.39491, 71.7463, -52.8391, 64.5057
2.852, 1, 24.8428, 47.1111, -6.42877, 71.8628, -52.8318, 64.4148
2.856, 1, 24.8948, 47.1153, -6.46259, 71.9791, -52.8246, 64.3241
2.86, 1, 24.9468, 47.1194, -6.49637, 72.0954, -52.8174, 64.2334
2.864, 1, 24.9988, 47.1235, -6.53012, 72.2115, -52.8101, 64.1428
2.867, 1, 25.0506, 47.1277, -6.56382, 72.3275, -52.8029, 64.0523
2.872, 1, 25.1025, 47.1318, -6.59749, 72.4434, -52.7957, 63.9619
2.876, 1, 25.1542, 47.1359, -6.63112, 72.5591, -52.7885, 63.8716
2.88, 1, 25.2059, 47.14, -6.66472, 72.6747, -52.7813, 63.7815
2.883, 1, 25.2576, 47.1442, -6.69828, 72.7902, -52.7741, 63.6914
2.888, 1, 25.3092, 47.1483, -6.7318, 72.9055, -52.7669, 63.6014
2.892, 1, 25.3607, 47.1524, -6.76528, 73.0207, -52.7597, 63.5115
2.896, 1, 25.4122, 47.1565, -6.79873, 73.1358, -52.7525, 63.4217
2.9, 1, 25.4636, 47.1606, -6.83214, 73.2508, -52.7454, 63.332
2.903, 1, 25.515, 47.1647, -6.86551, 73.3656, -52.7382, 63.2424
2.908, 1, 25.5663, 47.1688, -6.89885, 73.4804, -52.7311, 63.1529
2.912, 1, 25.6176, 47.1728, -6.93215, 73.595, -52.7239, 63.0635
2.916, 1, 25.6688, 47.1769, -6.96542, 73.7094, -52.7168, 62.9742
2.92, 1, 25.7199, 47.181, -6.99865, 73.8238, -52.7097, 62.885
2.923, 1, 25.771, 47.1851, -7.03184, 73.938, -52.7026, 62.7959
2.928, 1, 25.822, 47.1891, -7.06499, 74.0521, -52.6955, 62.7069
2.932, 1, 25.873, 47.1932, -7.09811, 74.1661, -52.6884, 62.618
2.936, 1, 25.9239, 47.1973, -7.1312, 74.2799, -52.6813, 62.5292
2.939, 1, 25.9748, 47.2013, -7.16425, 74.3936, -52.6742, 62.4405
2.944, 1, 26.0256, 47.2054, -7.19726, 74.5072, -52.6671, 62.3519
2.948, 1, 26.0764, 47.2094, -7.23024, 74.6207, -52.66, 62.2633
2.952, 1, 26.1271, 47.2134, -7.26318, 74.7341, -52.653, 62.1749
2.956, 1, 26.1777, 47.2175, -7.29609, 74.8473, -52.6459, 62.0866
2.959, 1, 26.2283, 47.2215, -7.32896, 74.9604, -52.6389, 61.9983
2.964, 1, 26.2788, 47.2255, -7.36179, 75.0734, -52.6318, 61.9102
2.968, 1, 26.3293, 47.2296, -7.3946, 75.1863, -52.6248, 61.8221
2.972, 1, 26.3798, 47.2336, -7.42736, 75.299, -52.6178, 61.7342
2.976, 1, 26.4301, 47.2376, -7.46009, 75.4117, -52.6108, 61.6463
2.98, 1, 26.4805, 47.2416, -7.49279, 75.5242, -52.6038, 61.5585
2.984, 1, 26.5307, 47.2456, -7.52545, 75.6366, -52.5968, 61.4708
2.988, 1, 26.581, 47.2496, -7.55808, 75.7488, -52.5898, 61.3832
2.992, 1, 26.6311, 47.2536, -7.59067, 75.861, -52.5828, 61.2958
2.995, 1, 26.6812, 47.2576, -7.62323, 75.973, -52.5758, 61.2084
3, 1, 26.7313, 47.2616, -7.65575, 76.085, -52.5688, 61.121
3.004, 1, 26.7813, 47.2656, -7.68824, 76.1968, -52.5619, 61.0338
3.008, 1, 26.8313, 47.2696, -7.7207, 76.3084, -52.5549, 60.9467
3.012, 1, 26.8812, 47.2735, -7.75312, 76.42, -52.548, 60.8597
3.015, 1, 26.931, 47.2775, -7.78551, 76.5315, -52.541, 60.7727
3.02, 1, 26.9808, 47.2815, -7.81786, 76.6428, -52.5341, 60.6859
3.024, 1, 27.0306, 47.2854, -7.85018, 76.754, -52.5272, 60.5991
3.028, 1, 27.0802, 47.2894, -7.88247, 76.8651, -52.5202, 60.5124
3.031, 1, 27.1299, 47.2933, -7.91472, 76.9761, -52.5133, 60.4258
3.036, 1, 27.1795, 47.2973, -7.94694, 77.087, -52.5064, 60.3393
3.04, 1, 27.229, 47.3012, -7.97913, 77.1977, -52.4995, 60.2529
3.044, 1, 27.2785, 47.3052, -8.01128, 77.3084, -52.4926, 60.1666
3.048, 1, 27.3279, 47.3091, -8.0434, 77.4189, -52.4857, 60.0804
3.051, 1, 27.3773, 47.3131, -8.07549, 77.5293, -52.4789, 59.9943
3.056, 1, 27.4267, 47.317, -8.10754, 77.6396, -52.472, 59.9082
3.06, 1, 27.476, 47.3209, -8.13957, 77.7498, -52.4651, 59.8223
3.064, 1, 27.5252, 47.3248, -8.17156, 77.8599, -52.4583, 59.7364
3.068, 1, 27.5744, 47.3288, -8.20351, 77.9699, -52.4514, 59.6506
3.071, 1, 27.6235, 47.3327, -8.23543, 78.0797, -52.4446, 59.5649
3.076, 1, 27.6726, 47.3366, -8.26732, 78.1895, -52.4377, 59.4793
3.08, 1, 27.7216, 47.3405, -8.29918, 78.2991, -52.4309, 59.3938
3.084, 1, 27.7706, 47.3444, -8.33101, 78.4086, -52.4241, 59.3083
3.087, 1, 27.8196, 47.3483, -8.3628, 78.518, -52.4173, 59.223
3.092, 1, 27.8684, 47.3522, -8.39456, 78.6273, -52.4105, 59.1377
3.096, 1, 27.9173, 47.3561, -8.42629, 78.7365, -52.4037, 59.0525
3.1, 1, 27.9661, 47.36, -8.45799, 78.8456, -52.3969, 58.9674
3.104, 1, 28.0148, 47.3639, -8.48966, 78.9545, -52.3901, 58.8824
3.107, 1, 28.0635, 47.3677, -8.52129, 79.0634, -52.3833, 58.7975
3.112, 1, 28.1121, 47.3716, -8.55289, 79.1721, -52.3765, 58.7127
3.116, 1, 28.1607, 47.3755, -8.58446, 79.2808, -52.3698, 58.6279
3.12, 1, 28.2093, 47.3793, -8.616, 79.3893, -52.363, 58.5433
3.124, 1, 28.2578, 47.3832, -8.64751, 79.4977, -52.3562, 58.4587
3.128, 1, 28.3062, 47.3871, -8.67898, 79.606, -52.3495, 58.3742
3.132, 1, 28.3546, 47.3909, -8.71043, 79.7142, -52.3428, 58.2898
3.136, 1, 28.403, 47.3948, -8.74184, 79.8223, -52.336, 58.2055
3.14, 1, 28.4513, 47.3986, -8.77322, 79.9303, -52.3293, 58.1212
3.143, 1, 28.4995, 47.4025, -8.80457, 80.0382, -52.3226, 58.037
3.148, 1, 28.5477, 47.4063, -8.83589, 80.146, -52.3159, 57.953
3.152, 1, 28.5959, 47.4102, -8.86718, 80.2536, -52.3092, 57.869
3.156, 1, 28.644, 47.414, -8.89844, 80.3612, -52.3025, 57.7851
3.16, 1, 28.692, 47.4178, -8.92967, 80.4687, -52.2958, 57.7012
3.163, 1, 28.7401, 47.4216, -8.96087, 80.576, -52.2891, 57.6175
3.168, 1, 28.788, 47.4255, -8.99203, 80.6833, -52.2824, 57.5338
3.172, 1, 28.836, 47.4293, -9.02317, 80.7904, -52.2757, 57.4502
3.176, 1, 28.8838, 47.4331, -9.05427, 80.8975, -52.2691, 57.3667
3.179, 1, 28.9317, 47.4369, -9.08535, 81.0044, -52.2624, 57.2833
3.184, 1, 28.9794, 47.4407, -9.11639, 81.1112, -52.2557, 57.2
3.188, 1, 29.0272, 47.4445, -9.14741, 81.2179, -52.2491, 57.1167
3.192, 1, 29.0749, 47.4483, -9.17839, 81.3246, -52.2424, 57.0335
3.196, 1, 29.1225, 47.4521, -9.20934, 81.4311, -52.2358, 56.9504
3.199, 1, 29.1701, 47.4559, -9.24027, 81.5375, -52.2292, 56.8674
3.204, 1, 29.2177, 47.4597, -9.27116, 81.6438, -52.2226, 56.7845
3.208, 1, 29.2652, 47.4635, -9.30203, 81.75, -52.2159, 56.7016
3.212, 1, 29.3126, 47.4673, -9.33286, 81.8561, -52.2093, 56.6189
3.216, 1, 29.36, 47.471, -9.36367, 81.9621, -52.2027, 56.5362
3.22, 1, 29.4074, 47.4748, -9.39445, 82.068, -52.1961, 56.4535
3.224, 1, 29.4547, 47.4786, -9.42519, 82.1738, -52.1895, 56.371
3.228, 1, 29.502, 47.4823, -9.45591, 82.2795, -52.183, 56.2885
3.232, 1, 29.5492, 47.4861, -9.4866, 82.3851, -52.1764, 56.2062
3.235, 1, 29.5964, 47.4899, -9.51726, 82.4906, -52.1698, 56.1239
3.24, 1, 29.6436, 47.4936, -9.54788, 82.596, -52.1632, 56.0416
3.244, 1, 29.6907, 47.4974, -9.57848, 82.7013, -52.1567, 55.9595
3.248, 1, 29.7377, 47.5011, -9.60906, 82.8065, -52.1501, 55.8774
3.252, 1, 29.7847, 47.5049, -9.6396, 82.9116, -52.1436, 55.7954
3.255, 1, 29.8317, 47.5086, -9.67011, 83.0166, -52.137, 55.7135
3.26, 1, 29.8786, 47.5124, -9.7006, 83.1215, -52.1305, 55.6317
3.264, 1, 29.9255, 47.5161, -9.73105, 83.2263, -52.124, 55.5499
3.268, 1, 29.9723, 47.5198, -9.76148, 83.331, -52.1175, 55.4682
3.272, 1, 30.0191, 47.5236, -9.79188, 83.4357, -52.1109, 55.3866
3.276, 1, 30.0658, 47.5273, -9.82225, 83.5402, -52.1044, 55.3051
3.28, 1, 30.1125, 47.531, -9.85259, 83.6446, -52.0979, 55.2237
3.284, 1, 30.1592, 47.5347, -9.8829, 83.7489, -52.0914, 55.1423
3.288, 1, 30.2058, 47.5384, -9.91319, 83.8531, -52.0849, 55.061
3.291, 1, 30.2524, 47.5421, -9.94344, 83.9572, -52.0785, 54.9798
3.296, 1, 30.2989, 47.5458, -9.97367, 84.0612, -52.072, 54.8986
3.3, 1, 30.3454, 47.5495, -10.0039, 84.1652, -52.0655, 54.8175
3.304, 1, 30.3918, 47.5532, -10.034, 84.269, -52.059, 54.7366
3.308, 1, 30.4382, 47.5569, -10.0642, 84.3727, -52.0526, 54.6556
3.312, 1, 30.4846, 47.5606, -10.0943, 84.4763, -52.0461, 54.5748
3.316, 1, 30.5309, 47.5643, -10.1244, 84.5799, -52.0397, 54.494
3.32, 1, 30.5772, 47.568, -10.1545, 84.6833, -52.0332, 54.4133
3.324, 1, 30.6234, 47.5717, -10.1845, 84.7867, -52.0268, 54.3327
3.328, 1, 30.6696, 47.5754, -10.2145, 84.8899, -52.0204, 54.2521
3.332, 1, 30.7157, 47.5791, -10.2445, 84.9931, -52.0139, 54.1717
3.336, 1, 30.7618, 47.5827, -10.2744, 85.0961, -52.0075, 54.0913
3.34, 1, 30.8079, 47.5864, -10.3043, 85.1991, -52.0011, 54.0109
3.344, 1, 30.8539, 47.5901, -10.3342, 85.302, -51.9947, 53.9307
3.347, 1, 30.8998, 47.5937, -10.3641, 85.4048, -51.9883, 53.8505
3.352, 1, 30.9458, 47.5974, -10.3939, 85.5075, -51.9819, 53.7704
3.356, 1, 30.9917, 47.601, -10.4238, 85.6101, -51.9755, 53.6904
3.36, 1, 31.0375, 47.6047, -10.4535, 85.7126, -51.9691, 53.6104
3.364, 1, 31.0833, 47.6083, -10.4833, 85.815, -51.9627, 53.5305
3.368, 1, 31.1291, 47.612, -10.513, 85.9173, -51.9564, 53.4507
3.372, 1, 31.1748, 47.6156, -10.5427, 86.0195, -51.95, 53.3709
3.376, 1, 31.2205, 47.6193, -10.5724, 86.1216, -51.9436, 53.2913
3.38, 1, 31.2661, 47.6229, -10.6021, 86.2237, -51.9373, 53.2117
3.383, 1, 31.3117, 47.6265, -10.6317, 86.3256, -51.9309, 53.1321
3.388, 1, 31.3573, 47.6302, -10.6613, 86.4275, -51.9246, 53.0527
3.392, 1, 31.4028, 47.6338, -10.6909, 86.5292, -51.9182, 52.9733
3.396, 1, 31.4483, 47.6374, -10.7204, 86.6309, -51.9119, 52.894
3.4, 1, 31.4937, 47.641, -10.7499, 86.7325, -51.9056, 52.8147
3.403, 1, 31.5391, 47.6447, -10.7794, 86.834, -51.8993, 52.7355
3.408, 1, 31.5845, 47.6483, -10.8089, 86.9354, -51.8929, 52.6564
3.412, 1, 31.6298, 47.6519, -10.8383, 87.0367, -51.8866, 52.5774
3.416, 1, 31.675, 47.6555, -10.8678, 87.1379, -51.8803, 52.4984
3.42, 1, 31.7203, 47.6591, -10.8972, 87.2391, -51.874, 52.4195
3.424, 1, 31.7655, 47.6627, -10.9265, 87.3401, -51.8677, 52.3407
3.428, 1, 31.8106, 47.6663, -10.9559, 87.4411, -51.8614, 52.2619
3.432, 1, 31.8557, 47.6699, -10.9852, 87.5419, -51.8552, 52.1833
3.436, 1, 31.9008, 47.6735, -11.0145, 87.6427, -51.8489, 52.1046
3.439, 1, 31.9459, 47.6771, -11.0437, 87.7434, -51.8426, 52.0261
3.444, 1, 31.9909, 47.6806, -11.073, 87.844, -51.8363, 51.9476
3.448, 1, 32.0358, 47.6842, -11.1022, 87.9445, -51.8301, 51.8692
3.452, 1, 32.0807, 47.6878, -11.1313, 88.045, -51.8238, 51.7908
3.456, 1, 32.1256, 47.6914, -11.1605, 88.1453, -51.8176, 51.7126
3.46, 1, 32.1705, 47.695, -11.1896, 88.2456, -51.8113, 51.6343
3.464, 1, 32.2153, 47.6985, -11.2188, 88.3457, -51.8051, 51.5562
3.468, 1, 32.26, 47.7021, -11.2478, 88.4458, -51.7988, 51.4781
3.472, 1, 32.3047, 47.7057, -11.2769, 88.5458, -51.7926, 51.4001
3.476, 1, 32.3494, 47.7092, -11.3059, 88.6457, -51.7864, 51.3222
3.48, 1, 32.3941, 47.7128, -11.3349, 88.7455, -51.7802, 51.2443
3.484, 1, 32.4387, 47.7163, -11.3639, 88.8453, -51.774, 51.1665
3.488, 1, 32.4833, 47.7199, -11.3929, 88.9449, -51.7678, 51.0888
3.492, 1, 32.5278, 47.7234, -11.4218, 89.0445, -51.7616, 51.0111
3.495, 1, 32.5723, 47.727, -11.4507, 89.144, -51.7554, 50.9335
3.5, 1, 32.6168, 47.7305, -11.4796, 89.2434, -51.7492, 50.8559
3.504, 1, 32.6612, 47.7341, -11.5085, 89.3427, -51.743, 50.7785
3.508, 1, 32.7056, 47.7376, -11.5373, 89.4419, -51.7368, 50.701
3.512, 1, 32.7499, 47.7411, -11.5661, 89.5411, -51.7306, 50.6237
3.516, 1, 32.7942, 47.7447, -11.5949, 89.6401, -51.7244, 50.5464
3.52, 1, 32.8385, 47.7482, -11.6237, 89.7391, -51.7183, 50.4692
3.524, 1, 32.8827, 47.7517, -11.6524, 89.838, -51.7121, 50.3921
3.528, 1, 32.9269, 47.7552, -11.6811, 89.9368, -51.706, 50.315
3.531, 1, 32.9711, 47.7587, -11.7098, 90.0356, -51.6998, 50.2379
3.536, 1, 33.0152, 47.7623, -11.7385, 90.1342, -51.6937, 50.161
3.54, 1, 33.0593, 47.7658, -11.7671, 90.2328, -51.6875, 50.0841
3.544, 1, 33.1033, 47.7693, -11.7957, 90.3312, -51.6814, 50.0073
3.548, 1, 33.1473, 47.7728, -11.8243, 90.4296, -51.6753, 49.9305
3.552, 1, 33.1913, 47.7763, -11.8529, 90.528, -51.6691, 49.8538
3.556, 1, 33.2352, 47.7798, -11.8815, 90.6262, -51.663, 49.7772
3.56, 1, 33.2791, 47.7833, -11.91, 90.7244, -51.6569, 49.7006
3.564, 1, 33.323, 47.7868, -11.9385, 90.8224, -51.6508, 49.6241
3.568, 1, 33.3668, 47.7903, -11.967, 90.9204, -51.6447, 49.5477
3.572, 1, 33.4106, 47.7938, -11.9954, 91.0183, -51.6386, 49.4713
3.576, 1, 33.4544, 47.7973, -12.0238, 91.1162, -51.6325, 49.395
3.58, 1, 33.4981, 47.8007, -12.0522, 91.2139, -51.6264, 49.3187
3.584, 1, 33.5418, 47.8042, -12.0806, 91.3116, -51.6203, 49.2425
3.587, 1, 33.5854, 47.8077, -12.109, 91.4092, -51.6143, 49.1664
3.592, 1, 33.6291, 47.8112, -12.1373, 91.5067, -51.6082, 49.0903
3.596, 1, 33.6726, 47.8146, -12.1656, 91.6041, -51.6021, 49.0143
3.6, 1, 33.7162, 47.8181, -12.1939, 91.7015, -51.596, 48.9384
3.604, 1, 33.7597, 47.8216, -12.2222, 91.7987, -51.59, 48.8625
3.608, 1, 33.8032, 47.825, -12.2504, 91.8959, -51.5839, 48.7866
3.612, 1, 33.8466, 47.8285, -12.2787, 91.993, -51.5779, 48.7109
3.616, 1, 33.89, 47.832, -12.3069, 92.0901, -51.5718, 48.6352
3.62, 1, 33.9334, 47.8354, -12.335, 92.187, -51.5658, 48.5596
3.624, 1, 33.9767, 47.8389, -12.3632, 92.2839, -51.5598, 48.484
3.628, 1, 34.02, 47.8423, -12.3913, 92.3807, -51.5537, 48.4085
3.632, 1, 34.0632, 47.8458, -12.4194, 92.4774, -51.5477, 48.333
3.636, 1, 34.1065, 47.8492, -12.4475, 92.5741, -51.5417, 48.2576
3.64, 1, 34.1497, 47.8526, -12.4756, 92.6706, -51.5357, 48.1823
3.644, 1, 34.1928, 47.8561, -12.5036, 92.7671, -51.5297, 48.107
3.648, 1, 34.2359, 47.8595, -12.5316, 92.8635, -51.5237, 48.0318
3.652, 1, 34.279, 47.863, -12.5596, 92.9599, -51.5177, 47.9567
3.656, 1, 34.3221, 47.8664, -12.5876, 93.0561, -51.5117, 47.8816
3.66, 1, 34.3651, 47.8698, -12.6155, 93.1523, -51.5057, 47.8065
3.664, 1, 34.4081, 47.8732, -12.6435, 93.2484, -51.4997, 47.7316
3.668, 1, 34.451, 47.8767, -12.6714, 93.3444, -51.4937, 47.6566
3.672, 1, 34.4939, 47.8801, -12.6993, 93.4404, -51.4877, 47.5818
3.676, 1, 34.5368, 47.8835, -12.7271, 93.5362, -51.4818, 47.507
3.679, 1, 34.5797, 47.8869, -12.755, 93.632, -51.4758, 47.4323
3.684, 1, 34.6225, 47.8903, -12.7828, 93.7278, -51.4698, 47.3576
3.688, 1, 34.6653, 47.8937, -12.8106, 93.8234, -51.4639, 47.283
3.692, 1, 34.708, 47.8971, -12.8383, 93.919, -51.4579, 47.2084
3.696, 1, 34.7507, 47.9005, -12.8661, 94.0145, -51.452, 47.1339
3.7, 1, 34.7934, 47.9039, -12.8938, 94.1099, -51.446, 47.0595
3.704, 1, 34.8361, 47.9073, -12.9215, 94.2053, -51.4401, 46.9851
3.708, 1, 34.8787, 47.9107, -12.9492, 94.3005, -51.4341, 46.9108
3.712, 1, 34.9212, 47.9141, -12.9769, 94.3957, -51.4282, 46.8365
3.716, 1, 34.9638, 47.9175, -13.0045, 94.4909, -51.4223, 46.7623
3.72, 1, 35.0062, 47.9209, -13.0322, 94.5859, -51.4164, 46.6881
3.724, 1, 35.0484, 47.9243, -13.0598, 94.6809, -51.4105, 46.614
3.728, 1, 35.0902, 47.9278, -13.0874, 94.7757, -51.4046, 46.54
3.732, 1, 35.1315, 47.9313, -13.1151, 94.8705, -51.3987, 46.4661
3.735, 1, 35.1722, 47.9349, -13.1427, 94.965, -51.3928, 46.3923
3.74, 1, 35.2121, 47.9385, -13.1704, 95.0593, -51.387, 46.3188
3.744, 1, 35.2513, 47.9423, -13.198, 95.153, -51.3812, 46.2456
3.748, 1, 35.2897, 47.9461, -13.2256, 95.2462, -51.3755, 46.1729
3.752, 1, 35.3274, 47.95, -13.253, 95.3385, -51.3699, 46.1008
3.756, 1, 35.3642, 47.9539, -13.2801, 95.4297, -51.3643, 46.0296
3.76, 1, 35.3999, 47.9579, -13.307, 95.5195, -51.3588, 45.9595
3.764, 1, 35.4346, 47.9619, -13.3334, 95.6074, -51.3535, 45.8909
3.768, 1, 35.4679, 47.9659, -13.3592, 95.6932, -51.3483, 45.8239
3.772, 1, 35.4999, 47.9699, -13.3843, 95.7763, -51.3433, 45.759
3.776, 1, 35.5307, 47.9737, -13.4085, 95.8563, -51.3385, 45.6965
3.78, 1, 35.5603, 47.9774, -13.4316, 95.9328, -51.3339, 45.6368
3.784, 1, 35.5887, 47.9807, -13.4534, 96.0053, -51.3295, 45.5801
3.788, 1, 35.6159, 47.9838, -13.4739, 96.0735, -51.3254, 45.5268
3.792, 1, 35.6419, 47.9866, -13.4929, 96.1372, -51.3215, 45.4771
3.796, 1, 35.6664, 47.9891, -13.5103, 96.196, -51.3179, 45.4312
3.8, 1, 35.6894, 47.9912, -13.5262, 96.2498, -51.3146, 45.3892
3.804, 1, 35.7109, 47.993, -13.5404, 96.2985, -51.3116, 45.3512
3.808, 1, 35.731, 47.9945, -13.553, 96.3421, -51.3088, 45.3172
3.812, 1, 35.7499, 47.9956, -13.5639, 96.3807, -51.3064, 45.2871
3.816, 1, 35.7675, 47.9963, -13.5732, 96.4144, -51.3042, 45.2609
3.82, 1, 35.7838, 47.9967, -13.581, 96.4434, -51.3023, 45.2383
3.824, 1, 35.7989, 47.9968, -13.5874, 96.468, -51.3006, 45.2192
3.828, 1, 35.8125, 47.9967, -13.5926, 96.4887, -51.2991, 45.2031
3.832, 2, 35.8246, 47.9965, -13.5967, 96.5057, -51.2979, 45.1899
3.836, 2, 35.8352, 47.9961, -13.5999, 96.5196, -51.2969, 45.1791
3.84, 2, 35.8446, 47.9957, -13.6023, 96.5306, -51.2961, 45.1706
3.844, 2, 35.8529, 47.9952, -13.604, 96.5393, -51.2954, 45.1639
3.848, 2, 35.8604, 47.9946, -13.6052, 96.5459, -51.2948, 45.1588
3.852, 2, 35.8669, 47.9941, -13.606, 96.5509, -51.2944, 45.155
3.856, 2, 35.8727, 47.9936, -13.6064, 96.5545, -51.2941, 45.1522
3.86, 2, 35.8776, 47.9931, -13.6066, 96.5571, -51.2938, 45.1502
3.864, 2, 35.8816, 47.9927, -13.6067, 96.559, -51.2936, 45.1488
3.868, 2, 35.8848, 47.9924, -13.6068, 96.5602, -51.2935, 45.1479
3.872, 2, 35.8871, 47.9922, -13.6068, 96.5611, -51.2934, 45.1472
3.876, 2, 35.8887, 47.992, -13.6068, 96.5616, -51.2933, 45.1468
3.88, 2, 35.8899, 47.9919, -13.6068, 96.562, -51.2933, 45.1465
3.884, 2, 35.8906, 47.9919, -13.6068, 96.5623, -51.2932, 45.1463
3.888, 2, 35.8911, 47.9918, -13.6068, 96.5625, -51.2932, 45.1462
3.892, 2, 35.8915, 47.9918, -13.6068, 96.5626, -51.2932, 45.1461
3.896, 2, 35.8917, 47.9918, -13.6068, 96.5627, -51.2932, 45.146
3.9, 2, 35.8919, 47.9917, -13.6068, 96.5628, -51.2932, 45.146
3.904, 2, 35.892, 47.9917, -13.6068, 96.5628, -51.2932, 45.1459
3.908, 2, 35.8921, 47.9917, -13.6068, 96.5628, -51.2932, 45.1459
3.912, 2, 35.8921, 47.9917, -13.6068, 96.5628, -51.2932, 45.1459
3.916, 2, 35.8921, 47.9917, -13.6068, 96.5628, -51.2932, 45.1459
3.92, 2, 35.8922, 47.9917, -13.6068, 96.5629, -51.2932, 45.1459
3.924, 2, 35.8922, 47.9917, -13.6068, 96.5629, -51.2932, 45.1459
3.928, 2, 35.8922, 47.9917, -13.6068, 96.5629, -51.2932, 45.1459
3.932, 2, 35.8922, 47.9917, -13.6068, 96.5629, -51.2932, 45.1459
3.936, 2, 35.8922, 47.9917, -13.6068, 96.5629, -51.2932, 45.1459
3.94, 2, 35.8922, 47.9917, -13.6068, 96.5629, -51.2932, 45.1459
3.944, 2, 35.8922, 47.9917, -13.6068, 96.5629, -51.2932, 45.1459
3.948, 2, 35.8922, 47.9917, -13.6068, 96.5629, -51.2932, 45.1459
3.952, 2, 35.8922, 47.9917, -13.6068, 96.5629, -51.2932, 45.1459
3.956, 2, 35.8922, 47.9917, -13.6068, 96.5629, -51.2932, 45.1459
3.96, 2, 35.8922, 47.9917, -13.6068, 96.5629, -51.2932, 45.1459
3.964, 2, 35.8922, 47.9917, -13.6068, 96.5629, -51.2932, 45.1459
3.968, 2, 35.8922, 47.9917, -13.6068, 96.5629, -51.2932, 45.1459
3.972, 2, 35.8922, 47.9917, -13.6068, 96.5629, -51.2932, 45.1459
3.976, 2, 35.8922, 47.9917, -13.6068, 96.5629, -51.2932, 45.1459
3.98, 2, 35.8922, 47.9917, -13.6068, 96.5629, -51.2932, 45.1459
3.984, 2, 35.8922, 47.9917, -13.6068, 96.5629, -51.2932, 45.1459
3.988, 2, 35.8922, 47.9917, -13.6068, 96.5629, -51.2932, 45.1459
3.992, 2, 35.8922, 47.9917, -13.6068, 96.5629, -51.2932, 45.1459
3.996, 2, 35.8922, 47.9917, -13.6068, 96.5629, -51.2932, 45.1459
3.999, 2, 35.8922, 47.9917, -13.6068, 96.5629, -51.2932, 45.1459
4.004, 2, 35.8922, 47.9917, -13.6068, 96.5629, -51.2932, 45.1459
4.008, 2, 35.8922, 47.9917, -13.6068, 96.5629, -51.2932, 45.1459
4.012, 2, 35.8922, 47.9917, -13.6068, 96.5629, -51.2932, 45.1459
4.016, 2, 35.8922, 47.9917, -13.6068, 96.5629, -51.2932, 45.1459
4.02, 2, 35.8922, 47.9917, -13.6068, 96.5629, -51.2932, 45.1459
4.024, 2, 35.8922, 47.9917, -13.6068, 96.5629, -51.2932, 45.1459
4.028, 2, 35.8922, 47.9917, -13.6068, 96.5629, -51.2932, 45.1459
4.032, 2, 35.8922, 47.9917, -13.6068, 96.5629, -51.2932, 45.1459
4.036, 2, 35.8922, 47.9917, -13.6068, 96.5629, -51.2932, 45.1459
4.04, 2, 35.8922, 47.9917, -13.6068, 96.5629, -51.2932, 45.1459
4.044, 2, 35.8922, 47.9917, -13.6068, 96.5629, -51.2932, 45.1459
4.048, 2, 35.8922, 47.9917, -13.6068, 96.5629, -51.2932, 45.1459
4.052, 2, 35.8922, 47.9917, -13.6068, 96.5629, -51.2932, 45.1459
4.056, 2, 35.8922, 47.9917, -13.6068, 96.5629, -51.2932, 45.1459
4.06, 2, 35.8922, 47.9917, -13.6068, 96.5629, -51.2932, 45.1459
4.064, 2, 35.8922, 47.9917, -13.6068, 96.5629, -51.2932, 45.1459
4.068, 2, 35.8922, 47.9917, -13.6068, 96.5629, -51.2932, 45.1459
4.072, 2, 35.8922, 47.9917, -13.6068, 96.5629, -51.2932, 45.1459
4.076, 2, 35.8922, 47.9917, -13.6068, 96.5629, -51.2932, 45.1459
4.08, 2, 35.8922, 47.9917, -13.6068, 96.5629, -51.2932, 45.1459
4.084, 2, 35.8922, 47.9917, -13.6068, 96.5629, -51.2932, 45.1459
4.088, 2, 35.8922, 47.9917, -13.6068, 96.5629, -51.2932, 45.1459
4.092, 2, 35.8922, 47.9917, -13.6068, 96.5629, -51.2932, 45.1459
4.096, 2, 35.8922, 47.9917, -13.6068, 96.5629, -51.2932, 45.1459
4.1, 2, 35.8922, 47.9917, -13.6068, 96.5629, -51.2932, 45.1459
4.104, 2, 35.8922, 47.9917, -13.6068, 96.5629, -51.2932, 45.1459
4.108, 2, 35.8922, 47.9917, -13.6068, 96.5629, -51.2932, 45.1459
4.112, 2, 35.8922, 47.9917, -13.6068, 96.5629, -51.2932, 45.1459
4.116, 2, 35.8922, 47.9917, -13.6068, 96.5629, -51.2932, 45.1459
4.12, 2, 35.8922, 47.9917, -13.6068, 96.5629, -51.2932, 45.1459
4.124, 2, 35.8922, 47.9917, -13.6068, 96.5629, -51.2932, 45.1459
4.128, 2, 35.8922, 47.9917, -13.6068, 96.5629, -51.2932, 45.1459
4.132, 2, 35.8922, 47.9917, -13.6068, 96.5629, -51.2932, 45.1459
4.136, 2, 35.8922, 47.9917, -13.6068, 96.5629, -51.2932, 45.1459
4.14, 2, 35.8922, 47.9917, -13.6068, 96.5629, -51.2932, 45.1459
4.144, 2, 35.8922, 47.9917, -13.6068, 96.5629, -51.2932, 45.1459
4.148, 2, 35.8922, 47.9917, -13.6068, 96.5629, -51.2932, 45.1459
4.152, 2, 35.8922, 47.9917, -13.6068, 96.5629, -51.2932, 45.1459
4.156, 2, 35.8922, 47.9917, -13.6068, 96.5629, -51.2932, 45.1459
4.16, 2, 35.8922, 47.9917, -13.6068, 96.5629, -51.2932, 45.1459
4.164, 2, 35.8922, 47.9917, -13.6068, 96.5629, -51.2932, 45.1459
4.168, 2, 35.8922, 47.9917, -13.6068, 96.5629, -51.2932, 45.1459
4.172, 2, 35.8922, 47.9917, -13.6068, 96.5629, -51.2932, 45.1459
4.176, 2, 35.8922, 47.9917, -13.6068, 96.5629, -51.2932, 45.1459
4.18, 2, 35.8922, 47.9917, -13.6068, 96.5629, -51.2932, 45.1459
4.184, 2, 35.8922, 47.9917, -13.6068, 96.5629, -51.2932, 45.1459
4.188, 2, 35.8922, 47.9917, -13.6068, 96.5629, -51.2932, 45.1459
4.192, 2, 35.8922, 47.9917, -13.6068, 96.5629, -51.2932, 45.1459
4.196, 2, 35.8922, 47.9917, -13.6068, 96.5629, -51.2932, 45.1459
4.2, 2, 35.8922, 47.9917, -13.6068, 96.5629, -51.2932, 45.1459
4.204, 2, 35.8922, 47.9917, -13.6068, 96.5629, -51.2932, 45.1459
4.208, 2, 35.8922, 47.9917, -13.6068, 96.5629, -51.2932, 45.1459
4.212, 2, 35.8922, 47.9917, -13.6068, 96.5629, -51.2932, 45.1459
4.216, 2, 35.8922, 47.9917, -13.6068, 96.5629, -51.2932, 45.1459
4.22, 2, 35.8922, 47.9917, -13.6068, 96.5629, -51.2932, 45.1459
4.224, 2, 35.8922, 47.9917, -13.6068, 96.5629, -51.2932, 45.1459
4.228, 2, 35.8922, 47.9917, -13.6068, 96.5629, -51.2932, 45.1459
4.232, 2, 35.8922, 47.9917, -13.6068, 96.5629, -51.2932, 45.1459
4.236, 2, 35.8922, 47.9917, -13.6068, 96.5629, -51.2932, 45.1459
4.24, 2, 35.8922, 47.9917, -13.6068, 96.5629, -51.2932, 45.1459
4.244, 2, 35.8922, 47.9917, -13.6068, 96.5629, -51.2932, 45.1459
4.248, 2, 35.8922, 47.9917, -13.6068, 96.5629, -51.2932, 45.1459
4.252, 2, 35.8922, 47.9917, -13.6068, 96.5629, -51.2932, 45.1459
4.256, 2, 35.8922, 47.9917, -13.6068, 96.5629, -51.2932, 45.1459
4.26, 2, 35.8922, 47.9917, -13.6068, 96.5629, -51.2932, 45.1459
4.264, 2, 35.8922, 47.9917, -13.6068, 96.5629, -51.2932, 45.1459
4.268, 2, 35.8922, 47.9917, -13.6068, 96.5629, -51.2932, 45.1459
4.272, 2, 35.8922, 47.9917, -13.6068, 96.5629, -51.2932, 45.1459
4.276, 2, 35.8922, 47.9917, -13.6068, 96.5629, -51.2932, 45.1459
4.28, 2, 35.8922, 47.9917, -13.6068, 96.5629, -51.2932, 45.1459
4.284, 2, 35.8922, 47.9917, -13.6068, 96.5629, -51.2932, 45.1459
4.288, 2, 35.8922, 47.9917, -13.6068, 96.5629, -51.2932, 45.1459
4.292, 2, 35.8922, 47.9917, -13.6068, 96.5629, -51.2932, 45.1459
4.296, 2, 35.8922, 47.9917, -13.6068, 96.5629, -51.2932, 45.1459
4.3, 2, 35.8922, 47.9917, -13.6068, 96.5629, -51.2932, 45.1459
4.304, 2, 35.8922, 47.9917, -13.6068, 96.5629, -51.2932, 45.1459
4.308, 2, 35.8922, 47.9917, -13.6068, 96.5629, -51.2932, 45.1459
4.312, 2, 35.8922, 47.9917, -13.6068, 96.5629, -51.2932, 45.1459
4.316, 2, 35.8922, 47.9917, -13.6068, 96.5629, -51.2932, 45.1459
4.32, 2, 35.8922, 47.9917, -13.6068, 96.5629, -51.2932, 45.1459
4.324, 2, 35.8922, 47.9917, -13.6068, 96.5629, -51.2932, 45.1459
4.328, 2, 35.8922, 47.9917, -13.6068, 96.5629, -51.2932, 45.1459
4.332, 2, 35.8922, 47.9917, -13.6068, 96.5629, -51.2932, 45.1459
4.336, 2, 35.8922, 47.9917, -13.6068, 96.5629, -51.2932, 45.1459
4.34, 2, 35.8922, 47.9917, -13.6068, 96.5629, -51.2932, 45.1459
4.344, 2, 35.8922, 47.9917, -13.6068, 96.5629, -51.2932, 45.1459
4.348, 2, 35.8922, 47.9917, -13.6068, 96.5629, -51.2932, 45.1459
4.352, 2, 35.8922, 47.9917, -13.6068, 96.5629, -51.2932, 45.1459
4.356, 2, 35.8922, 47.9917, -13.6068, 96.5629, -51.2932, 45.1459
4.36, 2, 35.8922, 47.9917, -13.6068, 96.5629, -51.2932, 45.1459
4.364, 2, 35.8922, 47.9917, -13.6068, 96.5629, -51.2932, 45.1459
4.368, 2, 35.8922, 47.9917, -13.6068, 96.5629, -51.2932, 45.1459
4.372, 2, 35.8922, 47.9917, -13.6068, 96.5629, -51.2932, 45.1459
4.376, 2, 35.8922, 47.9917, -13.6068, 96.5629, -51.2932, 45.1459
4.38, 2, 35.8922, 47.9917, -13.6068, 96.5629, -51.2932, 45.1459
4.384, 2, 35.8922, 47.9917, -13.6068, 96.5629, -51.2932, 45.1459
4.388, 2, 35.8922, 47.9917, -13.6068, 96.5629, -51.2932, 45.1459
4.392, 2, 35.8922, 47.9917, -13.6068, 96.5629, -51.2932, 45.1459
4.396, 2, 35.8922, 47.9917, -13.6068, 96.5629, -51.2932, 45.1459
4.4, 2, 35.8922, 47.9917, -13.6068, 96.5629, -51.2932, 45.1459
4.404, 2, 35.8922, 47.9917, -13.6068, 96.5629, -51.2932, 45.1459
4.408, 2, 35.8922, 47.9917, -13.6068, 96.5629, -51.2932, 45.1459
4.412, 2, 35.8922, 47.9917, -13.6068, 96.5629, -51.2932, 45.1459
4.416, 2, 35.8922, 47.9917, -13.6068, 96.5629, -51.2932, 45.1459
4.42, 2, 35.8922, 47.9917, -13.6068, 96.5629, -51.2932, 45.1459
4.424, 2, 35.8922, 47.9917, -13.6068, 96.5629, -51.2932, 45.1459
4.428, 2, 35.8922, 47.9917, -13.6068, 96.5629, -51.2932, 45.1459
4.432, 2, 35.8922, 47.9917, -13.6068, 96.5629, -51.2932, 45.1459
4.436, 2, 35.8922, 47.9917, -13.6068, 96.5629, -51.2932, 45.1459
4.44, 2, 35.8922, 47.9917, -13.6068, 96.5629, -51.2932, 45.1459
4.444, 2, 35.8922, 47.9917, -13.6068, 96.5629, -51.2932, 45.1459
4.448, 2, 35.8922, 47.9917, -13.6068, 96.5629, -51.2932, 45.1459
4.452, 2, 35.8922, 47.9917, -13.6068, 96.5629, -51.2932, 45.1459
4.456, 2, 35.8922, 47.9917, -13.6068, 96.5629, -51.2932, 45.1459
4.46, 2, 35.8922, 47.9917, -13.6068, 96.5629, -51.2932, 45.1459
4.464, 2, 35.8922, 47.9917, -13.6068, 96.5629, -51.2932, 45.1459
4.468, 2, 35.8922, 47.9917, -13.6068, 96.5629, -51.2932, 45.1459
4.472, 2, 35.8922, 47.9917, -13.6068, 96.5629, -51.2932, 45.1459
4.476, 2, 35.8922, 47.9917, -13.6068, 96.5629, -51.2932, 45.1459
4.48, 2, 35.8922, 47.9917, -13.6068, 96.5629, -51.2932, 45.1459
4.484, 2, 35.8922, 47.9917, -13.6068, 96.5629, -51.2932, 45.1459
4.488, 2, 35.8922, 47.9917, -13.6068, 96.5629, -51.2932, 45.1459
4.492, 2, 35.8922, 47.9917, -13.6068, 96.5629, -51.2932, 45.1459
4.496, 2, 35.8922, 47.9917, -13.6068, 96.5629, -51.2932, 45.1459
4.5, 2, 35.8922, 47.9917, -13.6068, 96.5629, -51.2932, 45.1459
4.504, 2, 35.8922, 47.9917, -13.6068, 96.5629, -51.2932, 45.1459
4.508, 2, 35.8922, 47.9917, -13.6068, 96.5629, -51.2932, 45.1459
4.512, 2, 35.8922, 47.9917, -13.6068, 96.5629, -51.2932, 45.1459
4.516, 2, 35.8922, 47.9917, -13.6068, 96.5629, -51.2932, 45.1459
4.52, 2, 35.8922, 47.9917, -13.6068, 96.5629, -51.2932, 45.1459
4.524, 2, 35.8922, 47.9917, -13.6068, 96.5629, -51.2932, 45.1459
4.528, 2, 35.8922, 47.9917, -13.6068, 96.5629, -51.2932, 45.1459
4.532, 2, 35.8922, 47.9917, -13.6068, 96.5629, -51.2932, 45.1459
4.536, 2, 35.8922, 47.9917, -13.6068, 96.5629, -51.2932, 45.1459
4.54, 2, 35.8922, 47.9917, -13.6068, 96.5629, -51.2932, 45.1459
4.544, 2, 35.8922, 47.9917, -13.6068, 96.5629, -51.2932, 45.1459
4.548, 2, 35.8922, 47.9917, -13.6068, 96.5629, -51.2932, 45.1459
4.552, 2, 35.8922, 47.9917, -13.6068, 96.5629, -51.2932, 45.1459
4.556, 2, 35.8922, 47.9917, -13.6068, 96.5629, -51.2932, 45.1459
4.56, 2, 35.8922, 47.9917, -13.6068, 96.5629, -51.2932, 45.1459
4.564, 2, 35.8922, 47.9917, -13.6068, 96.5629, -51.2932, 45.1459
4.568, 2, 35.8922, 47.9917, -13.6068, 96.5629, -51.2932, 45.1459
4.572, 2, 35.8922, 47.9917, -13.6068, 96.5629, -51.2932, 45.1459
4.576, 2, 35.8922, 47.9917, -13.6068, 96.5629, -51.2932, 45.1459
4.58, 2, 35.8922, 47.9917, -13.6068, 96.5629, -51.2932, 45.1459
4.584, 2, 35.8922, 47.9917, -13.6068, 96.5629, -51.2932, 45.1459
4.588, 2, 35.8922, 47.9917, -13.6068, 96.5629, -51.2932, 45.1459
4.592, 2, 35.8922, 47.9917, -13.6068, 96.5629, -51.2932, 45.1459
4.596, 2, 35.8922, 47.9917, -13.6068, 96.5629, -51.2932, 45.1459
4.6, 2, 35.8922, 47.9917, -13.6068, 96.5629, -51.2932, 45.1459
4.604, 2, 35.8922, 47.9917, -13.6068, 96.5629, -51.2932, 45.1459
4.608, 2, 35.8922, 47.9917, -13.6068, 96.5629, -51.2932, 45.1459
4.612, 2, 35.8922, 47.9917, -13.6068, 96.5629, -51.2932, 45.1459
4.616, 2, 35.8922, 47.9917, -13.6068, 96.5629, -51.2932, 45.1459
4.62, 2, 35.8922, 47.9917, -13.6068, 96.5629, -51.2932, 45.1459
4.624, 2, 35.8922, 47.9917, -13.6068, 96.5629, -51.2932, 45.1459
4.628, 2, 35.8922, 47.9917, -13.6068, 96.5629, -51.2932, 45.1459
4.632, 2, 35.8922, 47.9917, -13.6068, 96.5629, -51.2932, 45.1459
4.636, 2, 35.8922, 47.9917, -13.6068, 96.5629, -51.2932, 45.1459
4.64, 2, 35.8922, 47.9917, -13.6068, 96.5629, -51.2932, 45.1459
4.644, 2, 35.8922, 47.9917, -13.6068, 96.5629, -51.2932, 45.1459
4.648, 2, 35.8922, 47.9917, -13.6068, 96.5629, -51.2932, 45.1459
4.652, 2, 35.8922, 47.9917, -13.6068, 96.5629, -51.2932, 45.1459
4.656, 2, 35.8922, 47.9917, -13.6068, 96.5629, -51.2932, 45.1459
4.66, 2, 35.8922, 47.9917, -13.6068, 96.5629, -51.2932, 45.1459
4.664, 2, 35.8922, 47.9917, -13.6068, 96.5629, -51.2932, 45.1459
4.668, 2, 35.8922, 47.9917, -13.6068, 96.5629, -51.2932, 45.1459
4.672, 2, 35.8922, 47.9917, -13.6068, 96.5629, -51.2932, 45.1459
4.676, 2, 35.8922, 47.9917, -13.6068, 96.5629, -51.2932, 45.1459
4.68, 2, 35.8922, 47.9917, -13.6068, 96.5629, -51.2932, 45.1459
4.684, 2, 35.8922, 47.9917, -13.6068, 96.5629, -51.2932, 45.1459
4.688, 2, 35.8922, 47.9917, -13.6068, 96.5629, -51.2932, 45.1459
4.692, 2, 35.8922, 47.9917, -13.6068, 96.5629, -51.2932, 45.1459
4.696, 2, 35.8922, 47.9917, -13.6068, 96.5629, -51.2932, 45.1459
4.7, 2, 35.8922, 47.9917, -13.6068, 96.5629, -51.2932, 45.1459
4.704, 2, 35.8922, 47.9917, -13.6068, 96.5629, -51.2932, 45.1459
4.708, 2, 35.8922, 47.9917, -13.6068, 96.5629, -51.2932, 45.1459
4.712, 2, 35.8922, 47.9917, -13.6068, 96.5629, -51.2932, 45.1459
4.716, 2, 35.8922, 47.9917, -13.6068, 96.5629, -51.2932, 45.1459
4.72, 2, 35.8922, 47.9917, -13.6068, 96.5629, -51.2932, 45.1459
4.724, 2, 35.8922, 47.9917, -13.6068, 96.5629, -51.2932, 45.1459
4.728, 2, 35.8922, 47.9917, -13.6068, 96.5629, -51.2932, 45.1459
4.732, 2, 35.8922, 47.9917, -13.6068, 96.5629, -51.2932, 45.1459
4.736, 2, 35.8922, 47.9917, -13.6068, 96.5629, -51.2932, 45.1459
4.74, 2, 35.8922, 47.9917, -13.6068, 96.5629, -51.2932, 45.1459
4.744, 2, 35.8922, 47.9917, -13.6068, 96.5629, -51.2932, 45.1459
4.748, 2, 35.8922, 47.9917, -13.6068, 96.5629, -51.2932, 45.1459
4.752, 2, 35.8922, 47.9917, -13.6068, 96.5629, -51.2932, 45.1459
4.756, 2, 35.8922, 47.9917, -13.6068, 96.5629, -51.2932, 45.1459
4.76, 2, 35.8922, 47.9917, -13.6068, 96.5629, -51.2932, 45.1459
4.764, 2, 35.8922, 47.9917, -13.6068, 96.5629, -51.2932, 45.1459
4.768, 2, 35.8922, 47.9917, -13.6068, 96.5629, -51.2932, 45.1459
4.772, 2, 35.8922, 47.9917, -13.6068, 96.5629, -51.2932, 45.1459
4.776, 2, 35.8922, 47.9917, -13.6068, 96.5629, -51.2932, 45.1459
4.78, 2, 35.8922, 47.9917, -13.6068, 96.5629, -51.2932, 45.1459
4.784, 2, 35.8922, 47.9917, -13.6068, 96.5629, -51.2932, 45.1459
4.788, 2, 35.8922, 47.9917, -13.6068, 96.5629, -51.2932, 45.1459
4.792, 2, 35.8922, 47.9917, -13.6068, 96.5629, -51.2932, 45.1459
4.796, 2, 35.8922, 47.9917, -13.6068, 96.5629, -51.2932, 45.1459
4.8, 2, 35.8922, 47.9917, -13.6068, 96.5629, -51.2932, 45.1459
4.804, 2, 35.8922, 47.9917, -13.6068, 96.5629, -51.2932, 45.1459
4.808, 2, 35.8922, 47.9917, -13.6068, 96.5629, -51.2932, 45.1459
4.812, 2, 35.8922, 47.9917, -13.6068, 96.5629, -51.2932, 45.1459
4.816, 2, 35.8922, 47.9917, -13.6068, 96.5629, -51.2932, 45.1459
4.82, 2, 35.8922, 47.9917, -13.6068, 96.5629, -51.2932, 45.1459
4.824, 2, 35.8922, 47.9917, -13.6068, 96.5629, -51.2932, 45.1459
4.828, 2, 35.8922, 47.9917, -13.6068, 96.5629, -51.2932, 45.1459
4.832, 3, 35.8922, 47.9917, -13.6068, 96.5629, -51.2932, 45.1459
4.836, 3, 35.8922, 47.9917, -13.6068, 96.5629, -51.2932, 45.1459
4.84, 3, 35.8922, 47.9917, -13.6068, 96.5629, -51.2932, 45.1459
4.844, 3, 35.8922, 47.9917, -13.6068, 96.5629, -51.2932, 45.1459
4.848, 3, 35.8922, 47.9917, -13.6068, 96.5629, -51.2932, 45.1459
4.852, 3, 35.8922, 47.9917, -13.6068, 96.5629, -51.2932, 45.1459
4.856, 3, 35.8922, 47.9917, -13.6068, 96.5629, -51.2932, 45.1459
4.86, 3, 35.8922, 47.9917, -13.6068, 96.5629, -51.2932, 45.1459
4.864, 3, 35.8922, 47.9917, -13.6068, 96.5629, -51.2932, 45.1459
4.868, 3, 35.8922, 47.9917, -13.6068, 96.5629, -51.2932, 45.1459
4.872, 4, 35.8922, 47.9917, -13.6068, 96.5629, -51.2932, 45.1459
4.876, 4, 35.8922, 47.9917, -13.6068, 96.5629, -51.2932, 45.1459
4.88, 4, 35.8922, 47.9917, -13.6068, 96.5629, -51.2932, 45.1459
4.884, 4, 35.8922, 47.9917, -13.6068, 96.5629, -51.2932, 45.1459
4.888, 4, 35.8922, 47.9917, -13.6068, 96.5629, -51.2932, 45.1459
4.892, 4, 35.8922, 47.9917, -13.6068, 96.5629, -51.2932, 45.1459
4.896, 4, 35.8922, 47.9917, -13.6068, 96.5629, -51.2932, 45.1459
4.9, 4, 35.8922, 47.9917, -13.6068, 96.5629, -51.2932, 45.1459
4.904, 4, 35.8922, 47.9917, -13.6068, 96.5629, -51.2932, 45.1459
4.908, 4, 35.8922, 47.9917, -13.6068, 96.5629, -51.2932, 45.1459
4.912, 4, 35.8922, 47.9917, -13.6068, 96.5629, -51.2932, 45.1459
4.916, 4, 35.8922, 47.9917, -13.6068, 96.5629, -51.2932, 45.1459
4.92, 4, 35.8922, 47.9917, -13.6068, 96.5629, -51.2932, 45.1459
4.924, 4, 35.8922, 47.9917, -13.6068, 96.5629, -51.2932, 45.1459
4.928, 4, 35.8922, 47.9917, -13.6068, 96.5629, -51.2932, 45.1459
4.932, 4, 35.8922, 47.9917, -13.6068, 96.5629, -51.2932, 45.1459
4.936, 4, 35.8922, 47.9917, -13.6068, 96.5629, -51.2932, 45.1459
4.94, 4, 35.8922, 47.9917, -13.6068, 96.5629, -51.2932, 45.1459
4.944, 4, 35.8922, 47.9917, -13.6068, 96.5629, -51.2932, 45.1459
4.948, 4, 35.8922, 47.9917, -13.6068, 96.5629, -51.2932, 45.1459
4.952, 4, 35.8922, 47.9917, -13.6068, 96.5629, -51.2932, 45.1459
4.956, 4, 35.8922, 47.9917, -13.6068, 96.5629, -51.2932, 45.1459
4.96, 4, 35.8922, 47.9917, -13.6068, 96.5629, -51.2932, 45.1459
4.964, 4, 35.8922, 47.9917, -13.6068, 96.5629, -51.2932, 45.1459
4.968, 4, 35.8922, 47.9917, -13.6068, 96.5629, -51.2932, 45.1459
4.972, 5, 35.8922, 47.9917, -13.6068, 96.5629, -51.2932, 45.1459
4.976, 6, 35.8922, 47.9917, -13.6068, 96.5629, -51.2932, 45.1459
4.98, 6, 35.8922, 47.9917, -13.6068, 96.5629, -51.2932, 45.1459
4.984, 6, 35.8922, 47.9917, -13.6068, 96.5629, -51.2932, 45.1459
4.988, 7, 35.8922, 47.9917, -13.6068, 96.5629, -51.2932, 45.1459
4.992, 7, 35.8922, 47.9917, -13.6068, 96.5629, -51.2932, 45.1459
4.996, 7, 35.8922, 47.9917, -13.6068, 96.5629, -51.2932, 45.1459
5, 7, 35.8922, 47.9917, -13.6068, 96.5629, -51.2932, 45.1459
5.004, 7, 35.8922, 47.9917, -13.6068, 96.5629, -51.2932, 45.1459
5.008, 7, 35.8922, 47.9918, -13.6068, 96.5629, -51.2932, 45.1459
5.012, 7, 35.8922, 47.9919, -13.6068, 96.5629, -51.2932, 45.1459
5.016, 7, 35.892, 47.9923, -13.6068, 96.5629, -51.2932, 45.1458
5.02, 7, 35.8918, 47.993, -13.6069, 96.5629, -51.2934, 45.1457
5.024, 7, 35.8915, 47.9943, -13.607, 96.563, -51.2937, 45.1454
5.028, 7, 35.8909, 47.9962, -13.6072, 96.5632, -51.2945, 45.1448
5.032, 7, 35.8901, 47.9989, -13.6076, 96.5635, -51.2959, 45.1437
5.036, 7, 35.8892, 48.0024, -13.6083, 96.564, -51.2984, 45.1417
5.04, 7, 35.888, 48.007, -13.6092, 96.5648, -51.3024, 45.1386
5.044, 7, 35.8866, 48.0128, -13.6106, 96.5661, -51.3084, 45.1338
5.048, 7, 35.885, 48.02, -13.6126, 96.5679, -51.3172, 45.1269
5.052, 7, 35.8832, 48.029, -13.6152, 96.5705, -51.3296, 45.1171
5.056, 7, 35.8811, 48.0399, -13.6188, 96.5739, -51.3465, 45.1038
5.06, 7, 35.8789, 48.0528, -13.6234, 96.5784, -51.3688, 45.0863
5.064, 7, 35.8766, 48.0678, -13.6291, 96.5842, -51.3975, 45.0636
5.068, 7, 35.8742, 48.0846, -13.6363, 96.5914, -51.4338, 45.0351
5.072, 7, 35.8718, 48.1033, -13.645, 96.6003, -51.4786, 45.0001
5.076, 7, 35.8694, 48.1237, -13.6552, 96.6108, -51.5326, 44.9578
5.08, 7, 35.8672, 48.146, -13.6672, 96.6231, -51.5964, 44.908
5.084, 7, 35.865, 48.1701, -13.681, 96.6372, -51.6703, 44.8503
5.088, 7, 35.8628, 48.1961, -13.6965, 96.6531, -51.7545, 44.7848
5.092, 7, 35.8607, 48.2243, -13.7138, 96.6708, -51.8488, 44.7116
5.096, 7, 35.8585, 48.2544, -13.7327, 96.69, -51.9529, 44.631
5.1, 7, 35.8564, 48.2865, -13.7531, 96.7106, -52.0662, 44.5434
5.104, 7, 35.8542, 48.3204, -13.775, 96.7325, -52.1881, 44.4495
5.108, 7, 35.8519, 48.3561, -13.7981, 96.7554, -52.3175, 44.3499
5.112, 7, 35.8495, 48.3936, -13.8222, 96.7792, -52.4537, 44.2455
5.116, 7, 35.8469, 48.4328, -13.8472, 96.8035, -52.5956, 44.1371
5.12, 7, 35.8441, 48.4739, -13.8729, 96.8281, -52.7421, 44.0255
5.124, 7, 35.841, 48.5166, -13.8992, 96.853, -52.8923, 43.9114
5.128, 7, 35.8376, 48.5609, -13.9258, 96.8777, -53.0454, 43.7954
5.132, 8, 35.8338, 48.6066, -13.9526, 96.9024, -53.2007, 43.6783
5.136, 8, 35.8298, 48.6533, -13.9796, 96.9267, -53.3577, 43.5603
5.14, 8, 35.8255, 48.701, -14.0066, 96.9507, -53.5158, 43.4418
5.144, 8, 35.821, 48.7492, -14.0335, 96.9742, -53.6748, 43.3232
5.148, 8, 35.8163, 48.7979, -14.0603, 96.9972, -53.8345, 43.2045
5.152, 8, 35.8114, 48.8469, -14.087, 97.0197, -53.9945, 43.086
5.156, 8, 35.8064, 48.8961, -14.1136, 97.0416, -54.1548, 42.9677
5.16, 8, 35.8013, 48.9455, -14.1399, 97.063, -54.3153, 42.8497
5.164, 8, 35.796, 48.9949, -14.166, 97.0838, -54.4759, 42.7321
5.168, 8, 35.7907, 49.0444, -14.1919, 97.104, -54.6366, 42.6149
5.172, 8, 35.7852, 49.0938, -14.2175, 97.1237, -54.7973, 42.4981
5.176, 8, 35.7796, 49.1431, -14.243, 97.1427, -54.9579, 42.3817
5.18, 8, 35.774, 49.1923, -14.2681, 97.1612, -55.1186, 42.2657
5.184, 8, 35.7682, 49.2415, -14.293, 97.1791, -55.2793, 42.1502
5.188, 8, 35.7624, 49.2905, -14.3177, 97.1964, -55.4399, 42.0351
5.192, 8, 35.7565, 49.3395, -14.3421, 97.2132, -55.6005, 41.9205
5.196, 8, 35.7505, 49.3883, -14.3663, 97.2293, -55.7611, 41.8062
5.2, 8, 35.7444, 49.437, -14.3902, 97.245, -55.9216, 41.6925
5.204, 8, 35.7382, 49.4855, -14.4138, 97.26, -56.082, 41.5791
5.208, 8, 35.7319, 49.534, -14.4372, 97.2745, -56.2425, 41.4662
5.212, 8, 35.7256, 49.5823, -14.4604, 97.2885, -56.4028, 41.3536
5.216, 8, 35.7191, 49.6305, -14.4833, 97.3019, -56.5632, 41.2415
5.22, 8, 35.7126, 49.6785, -14.5059, 97.3148, -56.7234, 41.1298
5.224, 8, 35.706, 49.7264, -14.5282, 97.3271, -56.8837, 41.0186
5.228, 9, 35.6993, 49.7742, -14.5503, 97.3389, -57.0438, 40.9077
5.232, 9, 35.6926, 49.8219, -14.5722, 97.3502, -57.204, 40.7972
5.236, 9, 35.6857, 49.8694, -14.5937, 97.3609, -57.364, 40.6871
5.24, 9, 35.6788, 49.9168, -14.6151, 97.3712, -57.5241, 40.5774
5.244, 9, 35.6718, 49.964, -14.6361, 97.3809, -57.684, 40.4681
5.248, 9, 35.6647, 50.0112, -14.6569, 97.3901, -57.8439, 40.3591
5.252, 9, 35.6575, 50.0581, -14.6774, 97.3987, -58.0038, 40.2506
5.256, 9, 35.6502, 50.105, -14.6977, 97.4069, -58.1636, 40.1424
5.26, 9, 35.6429, 50.1517, -14.7177, 97.4146, -58.3233, 40.0346
5.264, 9, 35.6354, 50.1982, -14.7374, 97.4218, -58.483, 39.9271
5.268, 9, 35.6279, 50.2447, -14.7568, 97.4285, -58.6426, 39.8201
5.272, 9, 35.6203, 50.2909, -14.776, 97.4346, -58.8022, 39.7133
5.276, 10, 35.6127, 50.3371, -14.7949, 97.4403, -58.9617, 39.607
5.28, 10, 35.6049, 50.3831, -14.8136, 97.4456, -59.1212, 39.501
5.284, 10, 35.5971, 50.4289, -14.832, 97.4503, -59.2806, 39.3953
5.288, 10, 35.5891, 50.4746, -14.8501, 97.4546, -59.4399, 39.29
5.292, 10, 35.5811, 50.5202, -14.8679, 97.4583, -59.5991, 39.185
5.296, 10, 35.5731, 50.5656, -14.8855, 97.4616, -59.7584, 39.0804
5.3, 10, 35.5649, 50.6109, -14.9028, 97.4645, -59.9175, 38.9761
5.304, 10, 35.5566, 50.656, -14.9198, 97.4669, -60.0766, 38.8721
5.308, 10, 35.5483, 50.701, -14.9365, 97.4688, -60.2356, 38.7684
5.312, 10, 35.5399, 50.7458, -14.953, 97.4702, -60.3945, 38.6651
5.316, 10, 35.5314, 50.7905, -14.9692, 97.4712, -60.5534, 38.5621
5.32, 10, 35.5228, 50.835, -14.9851, 97.4718, -60.7122, 38.4594
5.324, 10, 35.5142, 50.8794, -15.0008, 97.4719, -60.871, 38.3571
5.328, 10, 35.5055, 50.9236, -15.0161, 97.4715, -61.0297, 38.255
5.332, 10, 35.4966, 50.9677, -15.0312, 97.4707, -61.1883, 38.1533
5.336, 10, 35.4878, 51.0116, -15.046, 97.4695, -61.3469, 38.0518
5.34, 10, 35.4788, 51.0554, -15.0605, 97.4678, -61.5053, 37.9507
5.344, 10, 35.4697, 51.099, -15.0748, 97.4657, -61.6637, 37.8499
5.348, 10, 35.4606, 51.1425, -15.0887, 97.4632, -61.8221, 37.7493
5.352, 10, 35.4514, 51.1858, -15.1024, 97.4602, -61.9804, 37.6491
5.356, 10, 35.4421, 51.229, -15.1158, 97.4568, -62.1386, 37.5492
5.36, 10, 35.4327, 51.272, -15.1289, 97.453, -62.2967, 37.4495
5.364, 10, 35.4232, 51.3148, -15.1417, 97.4487, -62.4548, 37.3501
5.368, 10, 35.4137, 51.3575, -15.1543, 97.4441, -62.6127, 37.251
5.372, 10, 35.4041, 51.4, -15.1665, 97.439, -62.7706, 37.1522
5.376, 10, 35.3944, 51.4424, -15.1785, 97.4335, -62.9285, 37.0537
5.38, 10, 35.3846, 51.4846, -15.1901, 97.4275, -63.0862, 36.9555
5.384, 10, 35.3747, 51.5266, -15.2013, 97.4211, -63.2439, 36.8577
5.388, 10, 35.3647, 51.5686, -15.2121, 97.4141, -63.4015, 36.7604
5.392, 10, 35.3546, 51.6103, -15.2224, 97.4065, -63.5589, 36.6636
5.396, 11, 35.3444, 51.6518, -15.2322, 97.3982, -63.7162, 36.5676
5.4, 11, 35.3341, 51.6931, -15.2413, 97.389, -63.8734, 36.4726
5.404, 11, 35.3238, 51.7341, -15.2496, 97.3787, -64.0303, 36.379
5.408, 11, 35.3133, 51.7748, -15.257, 97.3671, -64.187, 36.2869
5.412, 11, 35.3028, 51.8152, -15.2634, 97.354, -64.3434, 36.1968
5.416, 11, 35.2922, 51.8551, -15.2685, 97.3391, -64.4994, 36.1091
5.42, 11, 35.2815, 51.8946, -15.2722, 97.3223, -64.6549, 36.0241
5.424, 11, 35.2707, 51.9337, -15.2744, 97.3032, -64.81, 35.9422
5.428, 11, 35.2598, 51.9722, -15.2749, 97.2817, -64.9644, 35.8638
5.432, 11, 35.2488, 52.0101, -15.2737, 97.2575, -65.1183, 35.7892
5.436, 11, 35.2378, 52.0475, -15.2706, 97.2306, -65.2714, 35.7186
5.44, 11, 35.2267, 52.0842, -15.2655, 97.2008, -65.4238, 35.6521
5.444, 11, 35.2155, 52.1202, -15.2585, 97.1681, -65.5754, 35.59
5.448, 11, 35.2042, 52.1557, -15.2495, 97.1326, -65.7263, 35.532
5.452, 11, 35.1928, 52.1905, -15.2386, 97.0943, -65.8764, 35.4781
5.456, 11, 35.1814, 52.2248, -15.2258, 97.0533, -66.0257, 35.428
5.46, 11, 35.1698, 52.2586, -15.2113, 97.01, -66.1744, 35.3815
5.464, 11, 35.1581, 52.2918, -15.1951, 96.9645, -66.3223, 35.3382
5.468, 11, 35.1464, 52.3245, -15.1775, 96.9171, -66.4697, 35.2977
5.472, 11, 35.1345, 52.3568, -15.1585, 96.8679, -66.6166, 35.2596
5.476, 11, 35.1226, 52.3887, -15.1383, 96.8173, -66.763, 35.2236
5.48, 11, 35.1105, 52.4202, -15.117, 96.7655, -66.9089, 35.1893
5.484, 11, 35.0984, 52.4513, -15.0948, 96.7127, -67.0546, 35.1563
5.488, 11, 35.0862, 52.4821, -15.0718, 96.6591, -67.1999, 35.1243
5.492, 11, 35.0738, 52.5127, -15.048, 96.6049, -67.345, 35.0931
5.496, 11, 35.0614, 52.543, -15.0237, 96.5502, -67.4899, 35.0624
5.5, 11, 35.0489, 52.573, -14.9988, 96.4951, -67.6346, 35.032
5.504, 11, 35.0362, 52.6027, -14.9735, 96.4397, -67.7792, 35.0019
5.508, 11, 35.0234, 52.6321, -14.9477, 96.3841, -67.9235, 34.972
5.512, 11, 35.0104, 52.6611, -14.9215, 96.3283, -68.0678, 34.9422
5.516, 11, 34.9972, 52.6897, -14.8949, 96.2723, -68.2118, 34.9125
5.52, 11, 34.9839, 52.7179, -14.8678, 96.2161, -68.3556, 34.8829
5.524, 11, 34.9704, 52.7455, -14.8403, 96.1599, -68.499, 34.8533
5.528, 11, 34.9567, 52.7726, -14.8123, 96.1035, -68.6421, 34.8239
5.532, 11, 34.9429, 52.799, -14.7837, 96.0471, -68.7847, 34.7946
5.536, 11, 34.9289, 52.8248, -14.7546, 95.9907, -68.9266, 34.7654
5.54, 11, 34.9147, 52.85, -14.7247, 95.9343, -69.0679, 34.7364
5.544, 11, 34.9003, 52.8744, -14.6942, 95.8779, -69.2083, 34.7076
5.548, 11, 34.8858, 52.898, -14.6629, 95.8217, -69.3476, 34.6791
5.552, 11, 34.871, 52.921, -14.6307, 95.7655, -69.4858, 34.651
5.556, 11, 34.8561, 52.9433, -14.5975, 95.7096, -69.6228, 34.6231
5.56, 11, 34.8411, 52.9651, -14.5635, 95.6538, -69.7584, 34.5957
5.564, 12, 34.8258, 52.9863, -14.5284, 95.5982, -69.8925, 34.5687
5.568, 12, 34.8105, 53.007, -14.4922, 95.5429, -70.025, 34.5421
5.572, 12, 34.795, 53.0273, -14.4551, 95.4879, -70.156, 34.5159
5.576, 12, 34.7794, 53.047, -14.4169, 95.4331, -70.2855, 34.4902
5.58, 12, 34.7636, 53.0663, -14.3777, 95.3786, -70.4134, 34.465
5.584, 12, 34.7476, 53.0849, -14.3375, 95.3243, -70.5399, 34.4401
5.588, 12, 34.7315, 53.1029, -14.2964, 95.2702, -70.665, 34.4157
5.592, 12, 34.7152, 53.1201, -14.2545, 95.2164, -70.789, 34.3916
5.596, 12, 34.6988, 53.1367, -14.2118, 95.1627, -70.9118, 34.3678
5.6, 12, 34.6822, 53.1526, -14.1684, 95.1092, -71.0336, 34.3442
5.604, 12, 34.6655, 53.1678, -14.1244, 95.0557, -71.1547, 34.3209
5.608, 12, 34.6486, 53.1823, -14.0798, 95.0024, -71.275, 34.2978
5.612, 12, 34.6315, 53.1963, -14.0347, 94.9491, -71.3948, 34.2748
5.616, 12, 34.6143, 53.2097, -13.9892, 94.8958, -71.5141, 34.2519
5.62, 12, 34.5969, 53.2226, -13.9433, 94.8425, -71.6331, 34.2291
5.624, 12, 34.5793, 53.2351, -13.8971, 94.7892, -71.7518, 34.2063
5.628, 12, 34.5616, 53.2472, -13.8505, 94.7359, -71.8703, 34.1836
5.632, 12, 34.5437, 53.2589, -13.8037, 94.6825, -71.9887, 34.1609
5.636, 12, 34.5257, 53.2703, -13.7566, 94.629, -72.1069, 34.1381
5.64, 12, 34.5076, 53.2815, -13.7093, 94.5755, -72.2251, 34.1154
5.644, 12, 34.4894, 53.2924, -13.6617, 94.522, -72.3431, 34.0926
5.648, 12, 34.4711, 53.3031, -13.6139, 94.4683, -72.4611, 34.0699
5.652, 12, 34.4528, 53.3137, -13.5658, 94.4146, -72.579, 34.0471
5.656, 12, 34.4344, 53.324, -13.5176, 94.3609, -72.6969, 34.0242
5.66, 12, 34.4159, 53.3342, -13.4691, 94.307, -72.8147, 34.0014
5.664, 12, 34.3973, 53.3442, -13.4204, 94.2531, -72.9325, 33.9785
5.668, 12, 34.3786, 53.354, -13.3714, 94.1991, -73.0502, 33.9556
5.672, 12, 34.3598, 53.3634, -13.3222, 94.1451, -73.1679, 33.9328
5.676, 12, 34.3408, 53.3726, -13.2727, 94.0909, -73.2854, 33.9099
5.68, 12, 34.3217, 53.3813, -13.2228, 94.0366, -73.4028, 33.8872
5.684, 13, 34.3023, 53.3895, -13.1724, 93.9821, -73.52, 33.8647
5.688, 13, 34.2828, 53.3972, -13.1215, 93.9273, -73.6369, 33.8426
5.692, 13, 34.2632, 53.4043, -13.0698, 93.8722, -73.7533, 33.8211
5.696, 13, 34.2433, 53.4106, -13.0174, 93.8167, -73.8692, 33.8003
5.7, 13, 34.2234, 53.4162, -12.9639, 93.7606, -73.9843, 33.7806
5.704, 13, 34.2033, 53.4208, -12.9092, 93.7039, -74.0985, 33.7622
5.708, 13, 34.183, 53.4245, -12.8531, 93.6464, -74.2116, 33.7454
5.712, 13, 34.1626, 53.4272, -12.7954, 93.5879, -74.3234, 33.7306
5.716, 13, 34.1421, 53.4289, -12.736, 93.5285, -74.4336, 33.7179
5.72, 13, 34.1213, 53.4296, -12.6746, 93.468, -74.5421, 33.7077
5.724, 13, 34.1005, 53.4293, -12.6112, 93.4062, -74.6487, 33.7002
5.728, 13, 34.0795, 53.4282, -12.5456, 93.3432, -74.7533, 33.6956
5.732, 13, 34.0584, 53.4263, -12.4777, 93.2789, -74.8558, 33.694
5.736, 13, 34.0372, 53.4234, -12.4077, 93.2133, -74.9561, 33.6954
5.74, 13, 34.0158, 53.4198, -12.3355, 93.1465, -75.0544, 33.6997
5.744, 13, 33.9942, 53.4152, -12.2612, 93.0787, -75.1505, 33.7068
5.748, 13, 33.9725, 53.4097, -12.185, 93.0098, -75.2448, 33.7165
5.752, 13, 33.9507, 53.4032, -12.107, 92.9401, -75.3372, 33.7284
5.756, 13, 33.9286, 53.3958, -12.0275, 92.8697, -75.428, 33.7422
5.76, 13, 33.9064, 53.3874, -11.9465, 92.7989, -75.5173, 33.7577
5.764, 13, 33.884, 53.3782, -11.8645, 92.7277, -75.6053, 33.7744
5.768, 13, 33.8615, 53.3681, -11.7814, 92.6564, -75.6923, 33.792
5.772, 13, 33.8388, 53.3573, -11.6977, 92.5852, -75.7784, 33.8101
5.776, 13, 33.8159, 53.3457, -11.6134, 92.5141, -75.8637, 33.8285
5.78, 13, 33.7929, 53.3335, -11.5288, 92.4434, -75.9485, 33.8467
5.784, 13, 33.7697, 53.3208, -11.4439, 92.3731, -76.0327, 33.8647
5.788, 13, 33.7463, 53.3076, -11.359, 92.3034, -76.1166, 33.8822
5.792, 13, 33.7228, 53.2941, -11.274, 92.2342, -76.2002, 33.899
5.796, 13, 33.6992, 53.2802, -11.1891, 92.1657, -76.2836, 33.9152
5.8, 13, 33.6755, 53.2661, -11.1043, 92.0977, -76.3668, 33.9307
5.804, 13, 33.6517, 53.2519, -11.0197, 92.0304, -76.4498, 33.9455
5.808, 13, 33.6278, 53.2374, -10.9352, 91.9636, -76.5326, 33.9595
5.812, 13, 33.6038, 53.2228, -10.8509, 91.8974, -76.6154, 33.9729
5.816, 13, 33.5798, 53.2081, -10.7667, 91.8317, -76.6981, 33.9857
5.82, 13, 33.5558, 53.1933, -10.6827, 91.7664, -76.7807, 33.998
5.824, 13, 33.5316, 53.1784, -10.5987, 91.7015, -76.8633, 34.0097
5.828, 14, 33.5074, 53.1634, -10.515, 91.6369, -76.9459, 34.021
5.832, 14, 33.4832, 53.1483, -10.4313, 91.5726, -77.0285, 34.032
5.836, 14, 33.4588, 53.1331, -10.3477, 91.5086, -77.111, 34.0426
5.84, 14, 33.4344, 53.1177, -10.2642, 91.4447, -77.1937, 34.053
5.844, 14, 33.41, 53.1024, -10.1807, 91.3811, -77.2763, 34.0631
5.848, 14, 33.3855, 53.0869, -10.0973, 91.3175, -77.359, 34.0731
5.852, 14, 33.3609, 53.0713, -10.0139, 91.2542, -77.4417, 34.0829
5.856, 14, 33.3363, 53.0557, -9.93061, 91.1909, -77.5246, 34.0925
5.86, 14, 33.3116, 53.0401, -9.84731, 91.1277, -77.6074, 34.102
5.864, 14, 33.2868, 53.0243, -9.76404, 91.0646, -77.6903, 34.1114
5.868, 14, 33.262, 53.0084, -9.68078, 91.0016, -77.7733, 34.1206
5.872, 14, 33.237, 52.9923, -9.59749, 90.9388, -77.8564, 34.1297
5.876, 14, 33.2118, 52.9756, -9.51413, 90.8759, -77.9394, 34.1388
5.88, 14, 33.1864, 52.9581, -9.43061, 90.8132, -78.0224, 34.1479
5.884, 14, 33.1608, 52.9395, -9.3468, 90.7504, -78.1052, 34.1571
5.888, 14, 33.135, 52.9198, -9.26255, 90.6876, -78.1875, 34.1666
5.892, 14, 33.109, 52.8988, -9.17764, 90.6248, -78.2691, 34.1766
5.896, 14, 33.083, 52.8766, -9.09186, 90.5618, -78.3496, 34.1876
5.9, 14, 33.0569, 52.8533, -9.00497, 90.4986, -78.4284, 34.1998
5.904, 14, 33.0308, 52.8292, -8.91673, 90.4351, -78.5052, 34.2135
5.908, 14, 33.0046, 52.8043, -8.82694, 90.3714, -78.5794, 34.2292
5.912, 14, 32.9783, 52.7786, -8.7354, 90.3073, -78.6507, 34.2471
5.916, 14, 32.9518, 52.7521, -8.64198, 90.2429, -78.7188, 34.2673
5.92, 14, 32.9251, 52.7248, -8.54659, 90.1781, -78.7835, 34.29
5.924, 15, 32.8982, 52.6966, -8.44922, 90.1131, -78.8447, 34.3153
5.928, 15, 32.8712, 52.6677, -8.34991, 90.0477, -78.9025, 34.3429
5.932, 15, 32.8441, 52.6381, -8.24876, 89.9822, -78.9571, 34.3728
5.936, 15, 32.817, 52.6079, -8.14596, 89.9165, -79.0088, 34.4046
5.94, 15, 32.7896, 52.577, -8.04171, 89.8507, -79.058, 34.4381
5.944, 15, 32.7622, 52.5454, -7.93627, 89.785, -79.1052, 34.4727
5.948, 15, 32.7345, 52.5129, -7.8299, 89.7194, -79.1509, 34.5081
5.952, 15, 32.7067, 52.4793, -7.72286, 89.654, -79.1958, 34.5438
5.956, 15, 32.6786, 52.4447, -7.61538, 89.5888, -79.2401, 34.5796
5.96, 15, 32.6505, 52.409, -7.50767, 89.5238, -79.2845, 34.6151
5.964, 15, 32.6222, 52.3723, -7.3999, 89.4591, -79.3292, 34.65
5.968, 15, 32.5938, 52.3349, -7.29219, 89.3947, -79.3744, 34.6843
5.972, 15, 32.5654, 52.297, -7.18462, 89.3306, -79.4202, 34.7179
5.976, 15, 32.5369, 52.2587, -7.07725, 89.2666, -79.4667, 34.7507
5.98, 15, 32.5083, 52.2204, -6.97011, 89.2029, -79.5137, 34.783
5.984, 15, 32.4796, 52.182, -6.86318, 89.1393, -79.5612, 34.8146
5.988, 15, 32.4508, 52.1438, -6.75646, 89.0759, -79.6092, 34.8459
5.992, 15, 32.4219, 52.1056, -6.64992, 89.0125, -79.6574, 34.8767
5.996, 16, 32.3928, 52.0675, -6.54356, 88.9492, -79.7059, 34.9073
6, 16, 32.3637, 52.0295, -6.43734, 88.886, -79.7546, 34.9376
6.004, 16, 32.3345, 51.9916, -6.33126, 88.8229, -79.8034, 34.9678
6.008, 16, 32.3052, 51.9538, -6.22529, 88.7598, -79.8524, 34.9977
