hehonglu123/Motion-Primitive-Planning/ILC/recorded_data/realrobot/from_NX/iteration_39/run_1.csv
timestamp, cmd_num, J1, J2, J3, J4, J5, J6
0.000415, -1, 39.629, 32.447, 11.8316, 12.5438, 113.713, -48.8736
0.00433, -1, 39.629, 32.447, 11.8316, 12.5438, 113.713, -48.8735
0.007739, -1, 39.629, 32.447, 11.8316, 12.5437, 113.713, -48.8735
0.028536, -1, 39.629, 32.447, 11.8316, 12.5438, 113.713, -48.8735
0.031308, -1, 39.629, 32.447, 11.8316, 12.5438, 113.713, -48.8735
0.034452, -1, 39.629, 32.447, 11.8316, 12.5438, 113.713, -48.8735
0.039709, -1, 39.629, 32.447, 11.8316, 12.5438, 113.713, -48.8735
0.047654, -1, 39.629, 32.447, 11.8316, 12.5438, 113.713, -48.8735
0.055697, -1, 39.6285, 32.4469, 11.8316, 12.5438, 113.713, -48.8735
0.063598, -1, 39.6261, 32.4465, 11.8315, 12.5438, 113.713, -48.8736
0.071623, -1, 39.6208, 32.4452, 11.8315, 12.5438, 113.713, -48.8738
0.079671, -1, 39.612, 32.4422, 11.8315, 12.5438, 113.713, -48.8754
0.087615, -1, 39.5988, 32.437, 11.8314, 12.5438, 113.711, -48.8798
0.095598, -1, 39.579, 32.4284, 11.8315, 12.5437, 113.708, -48.8908
0.103671, -1, 39.5503, 32.4158, 11.8319, 12.5437, 113.701, -48.9113
0.111593, -1, 39.5119, 32.3983, 11.834, 12.5437, 113.689, -48.9447
0.1196, -1, 39.4624, 32.3745, 11.8388, 12.5437, 113.67, -48.9951
0.127696, -1, 39.4003, 32.3442, 11.8471, 12.5438, 113.642, -49.0667
0.135597, -1, 39.3248, 32.3063, 11.8599, 12.5438, 113.605, -49.161
0.1436, -1, 39.2356, 32.2607, 11.8777, 12.5441, 113.558, -49.281
0.15167, -1, 39.1326, 32.2072, 11.9001, 12.5447, 113.501, -49.4263
0.159598, -1, 39.0154, 32.1458, 11.9269, 12.5456, 113.434, -49.5963
0.167621, -1, 38.8848, 32.077, 11.9575, 12.5471, 113.358, -49.7885
0.175671, -1, 38.742, 32.0016, 11.9914, 12.549, 113.274, -50.0004
0.183658, -1, 38.5876, 31.9203, 12.0277, 12.5511, 113.184, -50.2282
0.191624, -1, 38.4232, 31.8341, 12.0655, 12.5534, 113.089, -50.4681
0.199673, -1, 38.251, 31.7439, 12.1043, 12.5559, 112.991, -50.7163
0.207632, -1, 38.0725, 31.6507, 12.1433, 12.5582, 112.891, -50.9696
0.215706, -1, 37.889, 31.5553, 12.1822, 12.5607, 112.79, -51.2263
0.223711, -1, 37.7014, 31.4584, 12.221, 12.5631, 112.688, -51.4848
0.231706, -1, 37.5111, 31.3607, 12.2598, 12.5656, 112.585, -51.7443
0.239771, -1, 37.3195, 31.2628, 12.2985, 12.5682, 112.483, -52.0037
0.247745, -1, 37.1274, 31.1649, 12.3374, 12.5706, 112.38, -52.2634
0.255735, -1, 36.9351, 31.0672, 12.3761, 12.5733, 112.277, -52.5235
0.263792, -1, 36.743, 30.9694, 12.4149, 12.5758, 112.174, -52.7838
0.271651, -1, 36.5514, 30.8716, 12.4538, 12.5784, 112.071, -53.0442
0.279632, -1, 36.3597, 30.7739, 12.4926, 12.581, 111.968, -53.3045
0.287762, -1, 36.1681, 30.676, 12.5314, 12.5836, 111.865, -53.5648
0.295756, -1, 35.9765, 30.5781, 12.5703, 12.5861, 111.762, -53.8255
0.303805, -1, 35.785, 30.4801, 12.6093, 12.5887, 111.659, -54.0862
0.311926, -1, 35.5931, 30.3821, 12.6482, 12.5912, 111.556, -54.3463
0.319943, -1, 35.401, 30.2838, 12.687, 12.5938, 111.453, -54.6068
0.326594, -1, 35.3049, 30.2347, 12.7064, 12.5952, 111.401, -54.737
0.336069, -1, 35.0163, 30.0872, 12.7647, 12.599, 111.247, -55.1281
0.344114, -1, 34.824, 29.9887, 12.8036, 12.6016, 111.144, -55.3888
0.482975, -1, 31.5464, 28.3135, 13.4652, 12.6465, 109.392, -59.8263
0.484164, -1, 31.5464, 28.3135, 13.4652, 12.6465, 109.392, -59.8263
0.487011, -1, 31.4497, 28.2642, 13.4846, 12.6479, 109.34, -59.9569
0.488342, -1, 31.4497, 28.2642, 13.4846, 12.6479, 109.34, -59.9569
0.490414, -1, 31.3532, 28.2149, 13.5041, 12.6493, 109.289, -60.0876
0.491617, -1, 31.3532, 28.2149, 13.5041, 12.6493, 109.289, -60.0876
0.49428, -1, 31.2567, 28.1656, 13.5235, 12.6507, 109.237, -60.2182
0.49741, -1, 31.1604, 28.1164, 13.5431, 12.6521, 109.186, -60.3489
0.498812, -1, 31.1604, 28.1164, 13.5431, 12.6521, 109.186, -60.3489
0.500128, -1, 31.1604, 28.1164, 13.5431, 12.6521, 109.186, -60.3489
0.502501, -1, 31.0642, 28.0672, 13.5627, 12.6536, 109.134, -60.4797
0.503718, -1, 31.0642, 28.0672, 13.5627, 12.6536, 109.134, -60.4797
0.505739, -1, 30.968, 28.0179, 13.5822, 12.655, 109.082, -60.6105
0.506977, -1, 30.968, 28.0179, 13.5822, 12.655, 109.082, -60.6105
0.508162, -1, 30.968, 28.0179, 13.5822, 12.655, 109.082, -60.6105
0.514471, -1, 30.7758, 27.9193, 13.6212, 12.6578, 108.979, -60.8718
0.515719, -1, 30.7758, 27.9193, 13.6212, 12.6578, 108.979, -60.8718
0.518439, -1, 30.6798, 27.87, 13.6407, 12.6592, 108.928, -61.0024
0.519765, -1, 30.6798, 27.87, 13.6407, 12.6592, 108.928, -61.0024
0.521885, -1, 30.5839, 27.8207, 13.6602, 12.6606, 108.876, -61.133
0.523117, -1, 30.5839, 27.8207, 13.6602, 12.6606, 108.876, -61.133
0.5244, -1, 30.5839, 27.8207, 13.6602, 12.6606, 108.876, -61.133
0.529703, -1, 30.392, 27.7221, 13.6992, 12.6634, 108.773, -61.3945
0.535671, -1, 30.2959, 27.6728, 13.7186, 12.6648, 108.721, -61.5252
0.54359, -1, 30.1038, 27.574, 13.7576, 12.6675, 108.618, -61.7872
0.551623, -1, 29.9113, 27.4753, 13.7967, 12.6703, 108.515, -62.0486
0.559663, -1, 29.7183, 27.3766, 13.8355, 12.673, 108.412, -62.3103
0.567585, -1, 29.5247, 27.2778, 13.8744, 12.6756, 108.309, -62.5721
0.575597, -1, 29.3307, 27.179, 13.9134, 12.6782, 108.205, -62.834
0.583672, -1, 29.1365, 27.0801, 13.9524, 12.6808, 108.102, -63.0956
0.591588, -1, 28.9422, 26.9811, 13.9914, 12.6834, 107.998, -63.3569
0.599654, -1, 28.748, 26.8822, 14.0303, 12.6859, 107.895, -63.6185
0.608038, -1, 28.5539, 26.7834, 14.0693, 12.6884, 107.792, -63.8802
0.614785, -1, 28.36, 26.6846, 14.1084, 12.691, 107.688, -64.142
0.623652, -1, 28.1665, 26.5859, 14.1474, 12.6934, 107.585, -64.4035
0.632386, -1, 27.9735, 26.4871, 14.1863, 12.6958, 107.482, -64.6653
0.639577, -1, 27.7807, 26.3883, 14.2254, 12.6983, 107.378, -64.9271
0.777132, -1, 24.4961, 24.7079, 14.8879, 12.7379, 105.623, -69.3762
0.778519, -1, 24.4961, 24.7079, 14.8879, 12.7379, 105.623, -69.3762
0.780596, -1, 24.3999, 24.6585, 14.9074, 12.7391, 105.571, -69.5071
0.781809, -1, 24.3999, 24.6585, 14.9074, 12.7391, 105.571, -69.5071
0.783734, -1, 24.3037, 24.609, 14.9269, 12.7403, 105.52, -69.638
0.785076, -1, 24.3037, 24.609, 14.9269, 12.7403, 105.52, -69.638
0.786368, -1, 24.3037, 24.609, 14.9269, 12.7403, 105.52, -69.638
0.789729, -1, 24.2074, 24.5596, 14.9464, 12.7415, 105.468, -69.7687
0.791733, -1, 24.1111, 24.5101, 14.9659, 12.7427, 105.416, -69.8994
0.793224, -1, 24.1111, 24.5101, 14.9659, 12.7427, 105.416, -69.8994
0.794459, -1, 24.1111, 24.5101, 14.9659, 12.7427, 105.416, -69.8994
0.797162, -1, 24.0148, 24.4608, 14.9854, 12.7438, 105.365, -70.03
0.798524, -1, 24.0148, 24.4608, 14.9854, 12.7438, 105.365, -70.03
0.801235, -1, 23.9184, 24.4114, 15.0049, 12.7449, 105.313, -70.1609
0.802521, -1, 23.9184, 24.4114, 15.0049, 12.7449, 105.313, -70.1609
0.804796, -1, 23.8219, 24.3619, 15.0243, 12.7462, 105.261, -70.2918
0.806029, -1, 23.8219, 24.3619, 15.0243, 12.7462, 105.261, -70.2918
0.807916, -1, 23.7255, 24.3125, 15.0438, 12.7474, 105.209, -70.4227
0.809269, -1, 23.7255, 24.3125, 15.0438, 12.7474, 105.209, -70.4227
0.810546, -1, 23.7255, 24.3125, 15.0438, 12.7474, 105.209, -70.4227
0.812538, -1, 23.629, 24.263, 15.0632, 12.7486, 105.158, -70.5536
0.815846, -1, 23.5324, 24.2136, 15.0827, 12.7498, 105.106, -70.6846
0.82481, -1, 23.339, 24.1147, 15.1217, 12.7522, 105.003, -70.9461
0.83193, -1, 23.1452, 24.0158, 15.1605, 12.7546, 104.899, -71.208
0.840326, -1, 22.9513, 23.9169, 15.1994, 12.757, 104.796, -71.4698
0.848135, -1, 22.7573, 23.8181, 15.2384, 12.7595, 104.693, -71.7318
0.856165, -1, 22.5635, 23.7193, 15.2774, 12.762, 104.589, -71.9934
0.8642, -1, 22.3699, 23.6208, 15.3164, 12.7644, 104.486, -72.2547
0.872182, -1, 22.1767, 23.522, 15.3553, 12.767, 104.382, -72.5162
0.878639, -1, 22.0801, 23.4727, 15.3748, 12.7683, 104.331, -72.647
0.88839, -1, 21.887, 23.3739, 15.4137, 12.7722, 104.176, -73.0393
0.895569, -1, 21.6945, 23.2752, 15.4528, 12.7735, 104.124, -73.1699
0.903572, -1, 21.5023, 23.1764, 15.4916, 12.7762, 104.021, -73.4313
0.911631, -1, 21.31, 23.0777, 15.5306, 12.7788, 103.918, -73.6928
0.919587, -1, 21.1176, 22.9791, 15.5696, 12.7815, 103.815, -73.9545
0.927622, -1, 20.9252, 22.8804, 15.6085, 12.7842, 103.712, -74.2158
0.935578, -1, 20.7327, 22.7818, 15.6474, 12.7869, 103.609, -74.4769
0.943575, -1, 20.54, 22.6832, 15.6863, 12.7896, 103.506, -74.7382
0.953637, -1, 20.2502, 22.5351, 15.7446, 12.7937, 103.351, -75.1302
0.95957, -1, 20.1534, 22.4858, 15.7641, 12.795, 103.3, -75.2607
0.967569, -1, 19.9597, 22.387, 15.803, 12.7978, 103.196, -75.5218
0.975618, -1, 19.7661, 22.2883, 15.8417, 12.8005, 103.094, -75.7831
0.983581, -1, 19.5725, 22.1897, 15.8807, 12.8032, 102.991, -76.0443
0.991574, -1, 19.3792, 22.0911, 15.9195, 12.8059, 102.887, -76.3055
0.999637, -1, 19.1861, 21.9924, 15.9583, 12.8086, 102.785, -76.5663
1.00758, -1, 18.9933, 21.8938, 15.9973, 12.8114, 102.681, -76.8271
1.01557, -1, 18.8008, 21.7951, 16.0361, 12.8142, 102.578, -77.0882
1.02373, -1, 18.6087, 21.6964, 16.0748, 12.8169, 102.476, -77.3493
1.03263, -1, 18.4169, 21.5978, 16.1138, 12.8196, 102.373, -77.61
1.03956, -1, 18.2249, 21.4993, 16.1526, 12.8223, 102.27, -77.8708
1.04764, -1, 18.033, 21.4008, 16.1914, 12.8249, 102.167, -78.1315
1.05557, -1, 17.8412, 21.3025, 16.2303, 12.8274, 102.064, -78.3924
1.06357, -1, 17.6491, 21.2041, 16.2691, 12.8299, 101.961, -78.6531
1.07157, -1, 17.4568, 21.1058, 16.3079, 12.8324, 101.858, -78.9134
1.07957, -1, 17.264, 21.0075, 16.3468, 12.8349, 101.755, -79.1739
1.08768, -1, 17.0709, 20.9092, 16.3855, 12.8373, 101.652, -79.4346
1.09556, -1, 16.8779, 20.811, 16.4244, 12.8396, 101.549, -79.6951
1.10457, -1, 16.6848, 20.7129, 16.4632, 12.842, 101.446, -79.9556
1.11163, -1, 16.4918, 20.6146, 16.5018, 12.8444, 101.344, -80.2161
1.1196, -1, 16.299, 20.5163, 16.5405, 12.8467, 101.241, -80.4767
1.12757, -1, 16.1067, 20.4179, 16.5793, 12.849, 101.139, -80.7373
1.13566, -1, 15.9147, 20.3195, 16.618, 12.8513, 101.036, -80.9973
1.14358, -1, 15.7229, 20.221, 16.6567, 12.8536, 100.933, -81.2572
1.15161, -1, 15.5316, 20.1226, 16.6953, 12.856, 100.831, -81.5174
1.15963, -1, 15.3404, 20.0243, 16.734, 12.8583, 100.728, -81.7776
1.16758, -1, 15.1492, 19.9261, 16.7728, 12.8606, 100.625, -82.0375
1.17557, -1, 14.9581, 19.8279, 16.8115, 12.8629, 100.523, -82.2972
1.18365, -1, 14.7668, 19.7298, 16.8501, 12.8652, 100.42, -82.5572
1.19162, -1, 14.5753, 19.6316, 16.8888, 12.8675, 100.318, -82.8174
1.19964, -1, 14.3835, 19.5335, 16.9275, 12.8698, 100.215, -83.0771
1.20757, -1, 14.1912, 19.4355, 16.9662, 12.872, 100.113, -83.3364
1.2156, -1, 13.999, 19.3375, 17.0049, 12.8743, 100.01, -83.5959
1.22372, -1, 13.8066, 19.2397, 17.0434, 12.8766, 99.9077, -83.8556
1.23166, -1, 13.6142, 19.1418, 17.0821, 12.8789, 99.8051, -84.1152
1.23973, -1, 13.4218, 19.0439, 17.1209, 12.8812, 99.7025, -84.3744
1.24775, -1, 13.2298, 18.946, 17.1593, 12.8835, 99.6003, -84.6338
1.25566, -1, 13.0381, 18.8481, 17.1979, 12.8859, 99.4979, -84.8931
1.26364, -1, 12.8469, 18.7501, 17.2366, 12.8883, 99.3954, -85.1525
1.27175, -1, 12.6558, 18.6521, 17.2752, 12.8906, 99.2933, -85.4115
1.27966, -1, 12.4652, 18.5543, 17.3137, 12.8931, 99.191, -85.6703
1.28772, -1, 12.2749, 18.4566, 17.3523, 12.8955, 99.0886, -85.9293
1.29569, -1, 12.0847, 18.3588, 17.3908, 12.8979, 98.9867, -86.1884
1.30447, -1, 11.8944, 18.2612, 17.4294, 12.9003, 98.8845, -86.447
1.31181, -1, 11.7039, 18.1636, 17.468, 12.9027, 98.7825, -86.7056
1.31861, -1, 11.6085, 18.1147, 17.4873, 12.9039, 98.7317, -86.8349
1.32872, -1, 11.322, 17.9683, 17.5451, 12.9076, 98.5787, -87.223
1.33597, -1, 11.1308, 17.8708, 17.5837, 12.91, 98.4768, -87.4815
1.34437, -1, 10.9395, 17.7734, 17.6221, 12.9125, 98.375, -87.7396
1.35287, -1, 10.7478, 17.676, 17.6606, 12.915, 98.2729, -87.9979
1.36025, -1, 10.5563, 17.5784, 17.699, 12.9176, 98.1711, -88.2562
1.36818, -1, 10.3651, 17.4809, 17.7374, 12.9202, 98.0693, -88.5146
1.37697, -1, 10.174, 17.3834, 17.7759, 12.9226, 97.9673, -88.7726
1.38417, -1, 10.0787, 17.3346, 17.8143, 12.9253, 97.8656, -89.0306
1.39221, -1, 9.88825, 17.237, 17.8334, 12.9279, 97.7636, -89.2888
1.40112, -1, 9.69802, 17.1394, 17.8718, 12.9292, 97.7126, -89.4179
1.40757, -1, 9.50831, 17.042, 17.9101, 12.932, 97.6107, -89.6759
1.41561, -1, 9.31895, 16.9447, 17.9484, 12.9348, 97.509, -89.9335
1.42355, -1, 9.12953, 16.8473, 17.9868, 12.9374, 97.407, -90.191
1.43156, -1, 8.94017, 16.7501, 18.0251, 12.9401, 97.3051, -90.4486
1.43967, -1, 8.75064, 16.6529, 18.0634, 12.9427, 97.2035, -90.7062
1.44755, -1, 8.56106, 16.5557, 18.1019, 12.9453, 97.1019, -90.9634
1.45566, -1, 8.37129, 16.4587, 18.1402, 12.948, 97.0004, -91.2205
1.46355, -1, 8.1811, 16.3617, 18.1785, 12.9506, 96.8988, -91.4778
1.47156, -1, 7.99067, 16.2649, 18.2169, 12.9533, 96.7972, -91.7352
1.4797, -1, 7.80022, 16.168, 18.2552, 12.956, 96.6958, -91.9922
1.48757, -1, 7.60965, 16.0711, 18.2934, 12.9586, 96.5943, -92.2488
1.49555, -1, 7.41928, 15.9741, 18.3318, 12.9611, 96.4928, -92.5055
1.50364, -1, 7.22919, 15.8772, 18.3699, 12.9637, 96.3917, -92.7624
1.51155, -1, 7.03933, 15.7802, 18.4081, 12.9663, 96.2903, -93.0191
1.51962, -1, 6.8499, 15.6832, 18.4465, 12.9689, 96.189, -93.2755
1.52856, -1, 6.66088, 15.5864, 18.4845, 12.9714, 96.0883, -93.5318
1.53563, -1, 6.47236, 15.4896, 18.5226, 12.9739, 95.9871, -93.7882
1.54456, -1, 6.28408, 15.3928, 18.5608, 12.9764, 95.886, -94.0447
1.55168, -1, 6.09596, 15.2961, 18.599, 12.9789, 95.7854, -94.3006
1.55962, -1, 5.90768, 15.1994, 18.6371, 12.9813, 95.6843, -94.5565
1.56755, -1, 5.71925, 15.1028, 18.6754, 12.9837, 95.5833, -94.8124
1.57557, -1, 5.53077, 15.0061, 18.7134, 12.986, 95.4827, -95.0684
1.58362, -1, 5.342, 14.9097, 18.7515, 12.9883, 95.3818, -95.324
1.5916, -1, 5.1529, 14.8132, 18.7897, 12.9906, 95.2812, -95.5794
1.59963, -1, 4.96352, 14.717, 18.8278, 12.9929, 95.1806, -95.835
1.60762, -1, 4.77414, 14.6206, 18.8658, 12.9951, 95.0797, -96.0905
1.61556, -1, 4.58476, 14.5242, 18.9039, 12.9973, 94.979, -96.3457
1.62389, -1, 4.39563, 14.4279, 18.9419, 12.9995, 94.8784, -96.6005
1.63155, -1, 4.20668, 14.3315, 18.9799, 13.0017, 94.7774, -96.8554
1.63961, -1, 4.01794, 14.2351, 19.0179, 13.004, 94.6766, -97.1104
1.64834, -1, 3.82987, 14.1389, 19.0558, 13.0064, 94.5758, -97.3656
1.65558, -1, 3.64231, 14.0427, 19.0938, 13.0085, 94.475, -97.6203
1.66358, -1, 3.45512, 13.9465, 19.1317, 13.0109, 94.3745, -97.8749
1.67235, -1, 3.26809, 13.8505, 19.1695, 13.0131, 94.2738, -98.1297
1.6796, -1, 3.08104, 13.7544, 19.2073, 13.0154, 94.1731, -98.3843
1.68757, -1, 2.89408, 13.6584, 19.2453, 13.0176, 94.0725, -98.6387
1.6964, -1, 2.70699, 13.5623, 19.2832, 13.0199, 93.9719, -98.8929
1.70355, -1, 2.5197, 13.4663, 19.3211, 13.0222, 93.8714, -99.147
1.7119, -1, 2.3323, 13.3704, 19.3589, 13.0245, 93.771, -99.4012
1.72044, -1, 2.14446, 13.2747, 19.3966, 13.0267, 93.6707, -99.6552
1.72764, -1, 1.95641, 13.1788, 19.4346, 13.0289, 93.5705, -99.9088
1.73592, -1, 1.76831, 13.0829, 19.4723, 13.0312, 93.4706, -100.163
1.74446, -1, 1.58013, 12.9871, 19.51, 13.0334, 93.3705, -100.416
1.75166, -1, 1.39209, 12.8913, 19.5479, 13.0357, 93.2704, -100.67
1.7604, -1, 1.20433, 12.7954, 19.5856, 13.038, 93.1705, -100.923
1.76846, -1, 1.01686, 12.6997, 19.6232, 13.0404, 93.0704, -101.176
1.77555, -1, 0.829999, 12.6041, 19.661, 13.0428, 92.9704, -101.429
1.78433, -1, 0.643642, 12.5084, 19.6986, 13.0452, 92.8709, -101.682
1.79166, -1, 0.457722, 12.4129, 19.7362, 13.0476, 92.7709, -101.935
1.79967, -1, 0.27202, 12.3175, 19.7739, 13.05, 92.6712, -102.188
1.80865, -1, 0.0865302, 12.2221, 19.8115, 13.0525, 92.5721, -102.44
1.81658, -1, -0.098904, 12.1268, 19.849, 13.0549, 92.4723, -102.693
1.82387, -1, -0.284539, 12.0315, 19.8867, 13.0574, 92.3727, -102.946
1.83271, -1, -0.470485, 11.9363, 19.9243, 13.0599, 92.2734, -103.198
1.83998, -1, -0.656691, 11.8412, 19.9618, 13.0623, 92.1739, -103.45
1.84811, -1, -0.84313, 11.7462, 19.9994, 13.0647, 92.0743, -103.702
1.85705, -1, -1.02974, 11.6512, 20.0368, 13.0673, 91.9752, -103.954
1.86408, -1, -1.21655, 11.5561, 20.0743, 13.0698, 91.8757, -104.206
1.87216, -1, -1.40351, 11.461, 20.1119, 13.0723, 91.7764, -104.457
1.88098, -1, -1.59015, 11.3659, 20.1493, 13.0749, 91.6774, -104.709
1.88813, -1, -1.6834, 11.3183, 20.1679, 13.0774, 91.578, -104.961
1.89612, -1, -1.86959, 11.2232, 20.2054, 13.0787, 91.4789, -105.212
1.90354, -1, -2.05539, 11.1282, 20.2428, 13.0814, 91.4294, -105.337
1.91061, -1, -2.2405, 11.0333, 20.2801, 13.0841, 91.3302, -105.588
1.91965, -1, -2.42534, 10.9384, 20.3175, 13.0867, 91.2309, -105.839
1.9276, -1, -2.60984, 10.8436, 20.3549, 13.0894, 91.132, -106.09
1.93554, -1, -2.79383, 10.7488, 20.3921, 13.0921, 91.0329, -106.341
1.94359, -1, -2.97778, 10.6541, 20.4295, 13.0947, 90.9338, -106.592
1.95153, -1, -3.16186, 10.5594, 20.4668, 13.0973, 90.835, -106.842
1.95855, -1, -3.34614, 10.4648, 20.504, 13.0998, 90.736, -107.093
1.96754, -1, -3.53078, 10.3703, 20.5412, 13.1024, 90.6371, -107.344
1.97554, -1, -3.71557, 10.276, 20.5785, 13.105, 90.5385, -107.594
1.9836, -1, -3.90061, 10.1816, 20.6157, 13.1074, 90.4395, -107.844
1.99314, -1, -4.17859, 10.0401, 20.6716, 13.1112, 90.2916, -108.218
1.99959, -1, -4.2714, 9.99301, 20.6901, 13.1124, 90.2424, -108.343
2.0076, -1, -4.45698, 9.89868, 20.7273, 13.1147, 90.1437, -108.593
2.01554, -1, -4.64225, 9.80432, 20.7646, 13.1171, 90.0452, -108.843
2.02361, -1, -4.82712, 9.71013, 20.8017, 13.1195, 89.9469, -109.092
2.03318, -1, -5.01168, 9.61603, 20.8387, 13.1219, 89.8482, -109.342
2.03961, -1, -5.19551, 9.52193, 20.8758, 13.1242, 89.7498, -109.591
2.0476, -1, -5.37886, 9.42785, 20.913, 13.1265, 89.6515, -109.84
2.05553, -1, -5.56181, 9.33395, 20.95, 13.1289, 89.5531, -110.088
2.06355, -1, -5.74437, 9.24003, 20.9871, 13.1312, 89.4548, -110.337
2.07159, -1, -5.92672, 9.14612, 21.0241, 13.1335, 89.3568, -110.586
2.0796, -1, -6.1092, 9.05229, 21.061, 13.1357, 89.2586, -110.835
2.08753, -1, -6.29186, 8.95855, 21.0981, 13.1379, 89.1606, -111.083
2.09564, -1, -6.4748, 8.86491, 21.1351, 13.1401, 89.0629, -111.331
2.10361, -1, -6.65797, 8.77127, 21.1719, 13.1423, 88.9648, -111.58
2.11154, -1, -6.84152, 8.67766, 21.2088, 13.1444, 88.8668, -111.828
2.11967, -1, -7.02536, 8.58404, 21.2457, 13.1465, 88.7691, -112.076
2.12757, -1, -7.20949, 8.49051, 21.2826, 13.1487, 88.6711, -112.324
2.13554, -1, -7.39373, 8.39683, 21.3195, 13.1508, 88.5733, -112.571
2.1436, -1, -7.57754, 8.30319, 21.3563, 13.153, 88.4759, -112.819
2.15153, -1, -7.76101, 8.20978, 21.393, 13.1552, 88.3782, -113.067
2.15962, -1, -7.9441, 8.11634, 21.43, 13.1575, 88.2808, -113.314
2.16762, -1, -8.12673, 8.02297, 21.4668, 13.1597, 88.1835, -113.561
2.17553, -1, -8.30862, 7.92969, 21.5035, 13.1619, 88.086, -113.808
2.18354, -1, -8.49005, 7.83646, 21.5404, 13.1641, 87.9886, -114.055
2.1916, -1, -8.67106, 7.74329, 21.5772, 13.1664, 87.8913, -114.301
2.19959, -1, -8.8518, 7.65013, 21.6139, 13.1687, 87.7938, -114.548
2.20761, -1, -9.03255, 7.55707, 21.6507, 13.1709, 87.6964, -114.794
2.21556, -1, -9.2136, 7.46403, 21.6874, 13.1732, 87.5993, -115.041
2.22358, -1, -9.39482, 7.37124, 21.7241, 13.1754, 87.5022, -115.287
2.23169, -1, -9.57642, 7.27841, 21.7608, 13.1775, 87.405, -115.533
2.23968, -1, -9.75841, 7.18558, 21.7975, 13.1798, 87.308, -115.779
2.24764, -1, -9.94073, 7.09282, 21.834, 13.182, 87.2107, -116.025
2.25573, -1, -10.1232, 7.00008, 21.8706, 13.1842, 87.1135, -116.271
2.26369, -1, -10.3059, 6.90726, 21.9072, 13.1865, 87.0164, -116.517
2.27154, -1, -10.4885, 6.81447, 21.9438, 13.1887, 86.9193, -116.762
2.27977, -1, -10.6707, 6.72179, 21.9804, 13.1909, 86.8223, -117.008
2.28756, -1, -10.8525, 6.6292, 22.0169, 13.1932, 86.7254, -117.253
2.29566, -1, -11.0338, 6.53662, 22.0533, 13.1957, 86.6285, -117.498
2.30373, -1, -11.2143, 6.4441, 22.0899, 13.1981, 86.5318, -117.743
2.31171, -1, -11.3943, 6.35164, 22.1265, 13.2006, 86.4353, -117.988
2.31992, -1, -11.5739, 6.25922, 22.1629, 13.203, 86.3384, -118.233
2.32786, -1, -11.7533, 6.1668, 22.1994, 13.2055, 86.2418, -118.478
2.33593, -1, -11.9325, 6.0745, 22.2359, 13.208, 86.1452, -118.722
2.34403, -1, -12.1117, 5.98227, 22.2722, 13.2104, 86.0486, -118.966
2.35054, -1, -12.2014, 5.93619, 22.2904, 13.2116, 86.0003, -119.088
2.36043, -1, -12.471, 5.79815, 22.3451, 13.2154, 85.856, -119.455
2.36814, -1, -12.6513, 5.70608, 22.3813, 13.2178, 85.7595, -119.699
2.37614, -1, -12.8319, 5.61414, 22.4177, 13.2202, 85.6634, -119.942
2.38413, -1, -12.9223, 5.52227, 22.4541, 13.2227, 85.5676, -120.186
2.39219, -1, -13.1034, 5.43023, 22.4902, 13.2252, 85.4715, -120.43
2.39953, -1, -13.2847, 5.38423, 22.5083, 13.2264, 85.4235, -120.552
2.40753, -1, -13.4657, 5.29235, 22.5447, 13.2288, 85.3278, -120.795
2.41559, -1, -13.6463, 5.20045, 22.5809, 13.2314, 85.232, -121.038
2.4236, -1, -13.8265, 5.10859, 22.617, 13.234, 85.1362, -121.281
2.43158, -1, -14.0062, 5.01677, 22.6532, 13.2365, 85.0405, -121.524
2.43958, -1, -14.1849, 4.92508, 22.6893, 13.2391, 84.9449, -121.767
2.44753, -1, -14.3633, 4.83337, 22.7254, 13.2417, 84.8492, -122.01
2.4556, -1, -14.5412, 4.74173, 22.7616, 13.2442, 84.7538, -122.252
2.46358, -1, -14.7189, 4.65013, 22.7978, 13.2468, 84.6581, -122.495
2.47152, -1, -14.8965, 4.55865, 22.8338, 13.2492, 84.5623, -122.737
2.47957, -1, -15.0742, 4.4672, 22.87, 13.2516, 84.4667, -122.979
2.48752, -1, -15.2522, 4.37592, 22.9062, 13.2541, 84.371, -123.221
2.49556, -1, -15.4306, 4.28459, 22.9422, 13.2565, 84.2753, -123.463
2.50359, -1, -15.6095, 4.1933, 22.9782, 13.2588, 84.1798, -123.705
2.51152, -1, -15.7886, 4.10202, 23.0142, 13.2611, 84.0843, -123.947
2.51953, -1, -15.9678, 4.01081, 23.0501, 13.2634, 83.9889, -124.188
2.52759, -1, -16.1474, 3.9195, 23.0862, 13.2656, 83.8934, -124.43
2.53662, -1, -16.3272, 3.82824, 23.1222, 13.2678, 83.798, -124.671
2.54353, -1, -16.5066, 3.73705, 23.158, 13.2699, 83.7025, -124.913
2.55159, -1, -16.6856, 3.64592, 23.1938, 13.2722, 83.6072, -125.154
2.56063, -1, -16.864, 3.55482, 23.2296, 13.2745, 83.5118, -125.395
2.56753, -1, -17.0416, 3.4638, 23.2655, 13.2767, 83.4165, -125.636
2.57552, -1, -17.2186, 3.37282, 23.3013, 13.2789, 83.3212, -125.876
2.58353, -1, -17.3951, 3.28195, 23.3372, 13.2812, 83.2262, -126.117
2.5916, -1, -17.5714, 3.19112, 23.3729, 13.2832, 83.1311, -126.358
2.59958, -1, -17.7474, 3.10051, 23.4088, 13.2854, 83.0362, -126.598
2.60752, -1, -17.9234, 3.00993, 23.4447, 13.2875, 82.9415, -126.838
2.6156, -1, -18.0997, 2.91945, 23.4804, 13.2897, 82.8466, -127.078
2.62351, -1, -18.2763, 2.82911, 23.5161, 13.2918, 82.7518, -127.319
2.63155, -1, -18.4531, 2.73872, 23.5519, 13.2939, 82.6573, -127.558
2.63961, -1, -18.6306, 2.64832, 23.5875, 13.2959, 82.5625, -127.798
2.64752, -1, -18.8082, 2.55804, 23.6231, 13.2979, 82.4679, -128.038
2.65552, -1, -18.9862, 2.46759, 23.6589, 13.2999, 82.3737, -128.277
2.66362, -1, -19.1645, 2.37709, 23.6944, 13.3019, 82.2791, -128.517
2.67152, -1, -19.3428, 2.28674, 23.73, 13.3039, 82.1849, -128.756
2.67953, -1, -19.5205, 2.19637, 23.7656, 13.306, 82.091, -128.995
2.68759, -1, -19.6976, 2.10597, 23.801, 13.3082, 81.9967, -129.234
2.69552, -1, -19.8742, 2.01567, 23.8364, 13.3104, 81.9024, -129.473
2.70354, -1, -20.0499, 1.92541, 23.872, 13.3125, 81.8086, -129.712
2.7117, -1, -20.2251, 1.83519, 23.9075, 13.3148, 81.7143, -129.95
2.71955, -1, -20.4, 1.74504, 23.9429, 13.317, 81.6203, -130.188
2.72764, -1, -20.5746, 1.65497, 23.9785, 13.3192, 81.5265, -130.427
2.73655, -1, -20.7491, 1.56501, 24.014, 13.3214, 81.4325, -130.665
2.74362, -1, -20.9237, 1.47514, 24.0494, 13.3235, 81.3387, -130.903
2.75167, -1, -21.0986, 1.38541, 24.0849, 13.3257, 81.2451, -131.141
2.75963, -1, -21.2739, 1.29565, 24.1204, 13.3279, 81.1512, -131.379
2.76768, -1, -21.4496, 1.20592, 24.1557, 13.3301, 81.0573, -131.617
2.77571, -1, -21.6256, 1.1163, 24.1911, 13.3323, 80.9635, -131.854
2.78599, -1, -21.8018, 1.02664, 24.2266, 13.3344, 80.8697, -132.092
2.79162, -1, -21.9782, 0.937001, 24.262, 13.3366, 80.7759, -132.329
2.7996, -1, -22.1548, 0.847433, 24.2974, 13.3388, 80.6823, -132.566
2.80838, -1, -22.3313, 0.757886, 24.3328, 13.3409, 80.5886, -132.803
2.81576, -1, -22.5074, 0.668409, 24.368, 13.3432, 80.495, -133.04
2.82388, -1, -22.683, 0.578903, 24.4032, 13.3456, 80.4015, -133.277
2.83257, -1, -22.858, 0.489453, 24.4385, 13.3479, 80.3079, -133.514
2.83995, -1, -23.0321, 0.399993, 24.4737, 13.3503, 80.2143, -133.751
2.84795, -1, -23.2057, 0.310618, 24.5089, 13.3528, 80.1208, -133.988
2.85677, -1, -23.379, 0.221237, 24.5441, 13.3552, 80.0274, -134.224
2.86431, -1, -23.5522, 0.131993, 24.5793, 13.3576, 79.934, -134.46
2.87246, -1, -23.7254, 0.0428407, 24.6145, 13.36, 79.8406, -134.696
2.88091, -1, -23.8987, -0.0462227, 24.6498, 13.3625, 79.7477, -134.933
2.88813, -1, -24.0721, -0.135159, 24.6848, 13.3649, 79.6544, -135.169
2.89607, -1, -24.159, -0.179666, 24.7024, 13.3662, 79.5614, -135.404
2.90351, -1, -24.3329, -0.268641, 24.7375, 13.3687, 79.5149, -135.522
2.91157, -1, -24.5072, -0.357535, 24.7727, 13.3711, 79.4218, -135.758
2.91951, -1, -24.6818, -0.44641, 24.8078, 13.3735, 79.3287, -135.993
2.92753, -1, -24.8567, -0.535289, 24.8428, 13.3759, 79.2357, -136.229
2.93563, -1, -25.0319, -0.624186, 24.878, 13.3782, 79.1428, -136.464
2.94351, -1, -25.2068, -0.713004, 24.913, 13.3806, 79.0498, -136.699
2.95151, -1, -25.3813, -0.801748, 24.9479, 13.383, 78.957, -136.934
2.95956, -1, -25.5555, -0.890573, 24.983, 13.3855, 78.8645, -137.169
2.96754, -1, -25.7292, -0.979322, 25.0179, 13.388, 78.7716, -137.404
2.97551, -1, -25.9021, -1.06803, 25.0527, 13.3903, 78.679, -137.639
2.98351, -1, -26.0745, -1.15673, 25.0878, 13.3928, 78.5868, -137.873
2.99151, -1, -26.2466, -1.24533, 25.1227, 13.3952, 78.4941, -138.108
2.99957, -1, -26.4183, -1.33382, 25.1575, 13.3975, 78.4015, -138.342
3.00751, -1, -26.5901, -1.42223, 25.1925, 13.3999, 78.3093, -138.577
3.0155, -1, -26.7621, -1.51056, 25.2274, 13.4021, 78.2167, -138.811
3.02582, -1, -26.9343, -1.5988, 25.2623, 13.4044, 78.1242, -139.045
3.0315, -1, -27.1068, -1.68695, 25.2971, 13.4066, 78.0321, -139.279
3.04061, -1, -27.2793, -1.7752, 25.332, 13.4088, 77.9398, -139.513
3.04759, -1, -27.4523, -1.86327, 25.3667, 13.411, 77.8478, -139.746
3.0555, -1, -27.6254, -1.95136, 25.4015, 13.4131, 77.7559, -139.98
3.06352, -1, -27.7986, -2.03956, 25.4364, 13.4152, 77.6638, -140.213
3.07157, -1, -27.9718, -2.12759, 25.4712, 13.4173, 77.5718, -140.447
3.0795, -1, -28.1451, -2.21561, 25.5058, 13.4193, 77.4798, -140.68
3.08752, -1, -28.3182, -2.30367, 25.5407, 13.4214, 77.3877, -140.913
3.09557, -1, -28.491, -2.39174, 25.5754, 13.4235, 77.2956, -141.146
3.10357, -1, -28.6635, -2.47969, 25.61, 13.4256, 77.2035, -141.379
3.1115, -1, -28.8353, -2.56772, 25.6447, 13.4278, 77.1115, -141.612
3.11961, -1, -29.0063, -2.6557, 25.6794, 13.43, 77.0196, -141.844
3.1275, -1, -29.177, -2.74356, 25.7139, 13.4321, 76.9277, -142.077
3.13561, -1, -29.3475, -2.83135, 25.7486, 13.4342, 76.8361, -142.309
3.14351, -1, -29.5182, -2.91903, 25.7833, 13.4363, 76.7442, -142.542
3.1515, -1, -29.6891, -3.0066, 25.8178, 13.4382, 76.6523, -142.774
3.15957, -1, -29.8601, -3.09416, 25.8524, 13.4404, 76.5607, -143.007
3.16757, -1, -30.0311, -3.18162, 25.887, 13.4425, 76.4687, -143.239
3.17551, -1, -30.202, -3.26916, 25.9215, 13.4444, 76.377, -143.471
3.18358, -1, -30.3732, -3.35661, 25.9561, 13.4466, 76.2856, -143.702
3.1915, -1, -30.5447, -3.44405, 25.9907, 13.4485, 76.1939, -143.934
3.19961, -1, -30.7165, -3.53155, 26.0251, 13.4506, 76.1025, -144.166
3.2075, -1, -30.8883, -3.61889, 26.0596, 13.4526, 76.0112, -144.397
3.2155, -1, -31.0602, -3.7063, 26.0942, 13.4546, 75.9197, -144.629
3.22377, -1, -31.2319, -3.79361, 26.1286, 13.4568, 75.8283, -144.86
3.2316, -1, -31.4032, -3.88095, 26.163, 13.4589, 75.7371, -145.092
3.2396, -1, -31.5741, -3.96826, 26.1975, 13.461, 75.6458, -145.323
3.24795, -1, -31.7446, -4.05551, 26.2319, 13.4632, 75.5545, -145.553
3.2556, -1, -31.9146, -4.14279, 26.2663, 13.4653, 75.4635, -145.784
3.26361, -1, -32.0843, -4.22998, 26.3007, 13.4675, 75.3724, -146.015
3.27221, -1, -32.2536, -4.31709, 26.3351, 13.4697, 75.2813, -146.246
3.27951, -1, -32.423, -4.40417, 26.3694, 13.4719, 75.1902, -146.477
3.28753, -1, -32.5927, -4.49112, 26.4037, 13.474, 75.0996, -146.707
3.29639, -1, -32.7623, -4.57805, 26.4382, 13.4761, 75.0086, -146.938
3.30359, -1, -32.932, -4.66498, 26.4724, 13.4783, 74.9178, -147.168
3.31163, -1, -33.1017, -4.75195, 26.5066, 13.4805, 74.8274, -147.398
3.32062, -1, -33.2715, -4.83882, 26.541, 13.4827, 74.7365, -147.628
3.32779, -1, -33.4416, -4.92571, 26.5753, 13.485, 74.6459, -147.858
3.33586, -1, -33.6119, -5.01269, 26.6094, 13.4872, 74.5554, -148.088
3.34475, -1, -33.7822, -5.0995, 26.6437, 13.4894, 74.4648, -148.318
3.35196, -1, -33.9524, -5.18626, 26.6779, 13.4916, 74.3742, -148.548
3.36007, -1, -34.1226, -5.27298, 26.712, 13.4939, 74.2838, -148.777
3.36902, -1, -34.2928, -5.35971, 26.7463, 13.4961, 74.1932, -149.006
3.37611, -1, -34.4628, -5.44632, 26.7805, 13.4984, 74.1025, -149.236
3.38412, -1, -34.6325, -5.53298, 26.8146, 13.5008, 74.012, -149.465
3.39291, -1, -34.717, -5.57631, 26.8487, 13.5032, 73.9216, -149.694
3.40015, -1, -34.8857, -5.66292, 26.8659, 13.5044, 73.8309, -149.923
3.40805, -1, -35.0542, -5.74946, 26.9, 13.5069, 73.7857, -150.038
3.41549, -1, -35.2224, -5.83593, 26.934, 13.5093, 73.6954, -150.267
3.42349, -1, -35.3907, -5.92229, 26.9681, 13.5118, 73.6051, -150.496
3.43154, -1, -35.5592, -6.0085, 27.0023, 13.5141, 73.5147, -150.725
3.43956, -1, -35.7277, -6.09477, 27.0362, 13.5165, 73.4244, -150.953
3.44754, -1, -35.8962, -6.18097, 27.0703, 13.5189, 73.3343, -151.182
3.45549, -1, -36.0648, -6.2671, 27.1044, 13.5213, 73.2438, -151.41
3.4635, -1, -36.2332, -6.35319, 27.1383, 13.5237, 73.1533, -151.639
3.47154, -1, -36.4019, -6.4394, 27.1722, 13.5261, 73.0631, -151.868
3.47949, -1, -36.5707, -6.52564, 27.2062, 13.5284, 72.9726, -152.096
3.4875, -1, -36.7395, -6.61179, 27.2402, 13.5307, 72.8824, -152.324
3.49555, -1, -36.9085, -6.69792, 27.2741, 13.5331, 72.7923, -152.552
3.50349, -1, -37.0775, -6.78405, 27.308, 13.5353, 72.7022, -152.78
3.51432, -1, -37.3307, -6.91314, 27.3588, 13.5387, 72.5673, -153.122
3.51955, -1, -37.415, -6.95612, 27.3757, 13.5398, 72.5225, -153.236
3.52749, -1, -37.5832, -7.04218, 27.4097, 13.5421, 72.4325, -153.463
3.53648, -1, -37.7509, -7.12817, 27.4437, 13.5443, 72.3427, -153.691
3.54356, -1, -37.9186, -7.21414, 27.4775, 13.5466, 72.2528, -153.918
3.55254, -1, -38.086, -7.30006, 27.5113, 13.5488, 72.1632, -154.146
3.55949, -1, -38.2533, -7.38595, 27.5453, 13.551, 72.0734, -154.373
3.56751, -1, -38.4206, -7.47168, 27.5791, 13.5531, 71.9837, -154.6
3.57551, -1, -38.5879, -7.55741, 27.6129, 13.5552, 71.8943, -154.827
3.58356, -1, -38.7552, -7.64314, 27.6468, 13.5573, 71.8046, -155.055
3.59149, -1, -38.9225, -7.72883, 27.6806, 13.5594, 71.7151, -155.282
3.59949, -1, -39.0898, -7.81446, 27.7143, 13.5615, 71.626, -155.508
3.60759, -1, -39.2573, -7.90009, 27.7482, 13.5635, 71.5364, -155.735
3.6155, -1, -39.4247, -7.9858, 27.782, 13.5655, 71.447, -155.962
3.6235, -1, -39.5924, -8.07136, 27.8156, 13.5675, 71.3578, -156.189
3.63156, -1, -39.7601, -8.15689, 27.8493, 13.5694, 71.2684, -156.415
3.63949, -1, -39.9277, -8.24241, 27.8831, 13.5714, 71.1791, -156.642
3.6475, -1, -40.0953, -8.32787, 27.9167, 13.5733, 71.0896, -156.868
3.65557, -1, -40.2628, -8.41324, 27.9504, 13.5753, 71.0006, -157.094
3.6635, -1, -40.43, -8.49865, 27.9842, 13.5772, 70.9111, -157.32
3.67149, -1, -40.5971, -8.58404, 28.0178, 13.5792, 70.8219, -157.547
3.67955, -1, -40.764, -8.66944, 28.0514, 13.5812, 70.7329, -157.772
3.6875, -1, -40.9305, -8.75481, 28.0851, 13.5832, 70.6436, -157.998
3.69564, -1, -41.0969, -8.84014, 28.1188, 13.5853, 70.5545, -158.224
3.70353, -1, -41.2631, -8.92537, 28.1523, 13.5874, 70.4655, -158.45
3.71149, -1, -41.4292, -9.01054, 28.1859, 13.5893, 70.3762, -158.676
3.71965, -1, -41.5955, -9.09574, 28.2196, 13.5913, 70.287, -158.901
3.72752, -1, -41.7618, -9.18086, 28.2531, 13.5933, 70.198, -159.127
3.73559, -1, -41.9282, -9.26592, 28.2867, 13.5953, 70.109, -159.352
3.7441, -1, -42.0945, -9.35097, 28.3204, 13.5973, 70.02, -159.578
3.75256, -1, -42.2607, -9.43607, 28.3539, 13.5994, 69.9309, -159.803
3.75959, -1, -42.427, -9.52107, 28.3873, 13.6014, 69.8422, -160.028
3.76806, -1, -42.5934, -9.60608, 28.4209, 13.6035, 69.7531, -160.253
3.77565, -1, -42.7598, -9.69102, 28.4544, 13.6055, 69.6642, -160.478
3.7835, -1, -42.9263, -9.77599, 28.4877, 13.6075, 69.5757, -160.704
3.79168, -1, -43.0928, -9.86095, 28.5212, 13.6096, 69.4867, -160.929
3.8004, -1, -43.259, -9.94593, 28.5547, 13.6116, 69.3981, -161.153
3.80754, -1, -43.4252, -10.0308, 28.5882, 13.6137, 69.3095, -161.378
3.81596, -1, -43.5912, -10.1158, 28.6217, 13.6158, 69.2208, -161.603
3.82451, -1, -43.757, -10.2008, 28.6552, 13.6179, 69.1323, -161.828
3.83175, -1, -43.9228, -10.2855, 28.6885, 13.6201, 69.0438, -162.052
3.84007, -1, -44.0883, -10.3703, 28.7219, 13.6222, 68.9554, -162.276
3.84853, -1, -44.2536, -10.4549, 28.7555, 13.6243, 68.8667, -162.5
3.85594, -1, -44.4187, -10.5395, 28.7889, 13.6266, 68.778, -162.725
3.86404, -1, -44.5838, -10.624, 28.8221, 13.6288, 68.6895, -162.949
3.87268, -1, -44.7491, -10.7085, 28.8556, 13.6309, 68.6008, -163.173
3.88012, -1, -44.9144, -10.793, 28.8891, 13.6332, 68.5123, -163.397
3.88829, -1, -45.0798, -10.8775, 28.9224, 13.6353, 68.4241, -163.621
3.89614, -1, -45.1625, -10.9197, 28.9558, 13.6375, 68.3355, -163.845
3.90412, -1, -45.3279, -11.0042, 28.9725, 13.6398, 68.2471, -164.07
3.91213, -1, -45.4931, -11.0887, 29.0058, 13.6409, 68.2029, -164.293
3.91951, -1, -45.6584, -11.1731, 29.039, 13.6432, 68.1149, -164.405
3.92845, -1, -45.9059, -11.2995, 29.089, 13.6466, 67.9822, -164.741
3.93553, -1, -45.9878, -11.3413, 29.1057, 13.6477, 67.938, -164.852
3.94364, -1, -46.1491, -11.4236, 29.1392, 13.6501, 67.85, -165.076
3.95148, -1, -46.3061, -11.503, 29.1727, 13.6524, 67.7626, -165.297
3.95953, -1, -46.4563, -11.578, 29.2062, 13.6548, 67.6774, -165.512
3.96747, -1, -46.5974, -11.6478, 29.2385, 13.6571, 67.5959, -165.718
3.97555, -1, -46.7269, -11.7111, 29.2683, 13.6593, 67.5213, -165.907
3.98353, -1, -46.8418, -11.7672, 29.2947, 13.6613, 67.4544, -166.075
3.99147, -1, -46.9404, -11.8163, 29.3167, 13.663, 67.3987, -166.217
3.99948, -1, -47.0228, -11.8592, 29.3333, 13.6643, 67.354, -166.33
4.00755, -1, -47.0899, -11.8959, 29.3445, 13.665, 67.3205, -166.414
4.01549, -1, -47.1421, -11.9253, 29.3517, 13.6654, 67.2973, -166.473
4.02348, -1, -47.1809, -11.9473, 29.3555, 13.6656, 67.2823, -166.511
4.03154, -1, -47.2084, -11.9627, 29.3573, 13.6658, 67.2736, -166.533
4.04119, -1, -47.2264, -11.9727, 29.3582, 13.6659, 67.2675, -166.548
4.04748, -1, -47.2372, -11.9785, 29.3585, 13.666, 67.2665, -166.55
4.05556, 2, -47.2427, -11.9814, 29.3588, 13.666, 67.2654, -166.553
4.06348, 2, -47.2447, -11.9827, 29.3589, 13.666, 67.2649, -166.554
4.07149, 2, -47.2447, -11.9832, 29.359, 13.666, 67.2647, -166.555
4.07954, 2, -47.2445, -11.9833, 29.3591, 13.666, 67.2645, -166.555
4.08747, 2, -47.2445, -11.9834, 29.3591, 13.666, 67.2645, -166.555
4.09549, 2, -47.2449, -11.9835, 29.3591, 13.666, 67.2645, -166.555
4.10354, 2, -47.2458, -11.9838, 29.3592, 13.6661, 67.2645, -166.555
4.11152, 2, -47.247, -11.9843, 29.3592, 13.6661, 67.2644, -166.555
4.11948, 2, -47.2488, -11.985, 29.3592, 13.6661, 67.2644, -166.555
4.12754, 2, -47.2504, -11.9859, 29.3592, 13.6661, 67.2644, -166.555
4.13548, 2, -47.2518, -11.9868, 29.3592, 13.666, 67.2645, -166.555
4.14348, 2, -47.2527, -11.9874, 29.3592, 13.666, 67.2644, -166.555
4.15154, 2, -47.2532, -11.9878, 29.3592, 13.6661, 67.2644, -166.555
4.15947, 2, -47.2534, -11.988, 29.3592, 13.6661, 67.2644, -166.555
4.16747, 2, -47.2534, -11.9881, 29.3592, 13.6661, 67.2644, -166.555
4.17555, 2, -47.2531, -11.9881, 29.3592, 13.6661, 67.2645, -166.555
4.18348, 2, -47.2526, -11.988, 29.3592, 13.6661, 67.2645, -166.555
4.19147, 2, -47.2522, -11.988, 29.3592, 13.666, 67.2645, -166.555
4.19954, 2, -47.2518, -11.988, 29.3592, 13.666, 67.2645, -166.555
4.20751, 2, -47.2517, -11.988, 29.3592, 13.666, 67.2645, -166.555
4.21549, 2, -47.2517, -11.9881, 29.3592, 13.666, 67.2645, -166.555
4.22356, 2, -47.2518, -11.9883, 29.3592, 13.6661, 67.2645, -166.555
4.23151, 2, -47.252, -11.9886, 29.3592, 13.666, 67.2645, -166.555
4.23957, 2, -47.2526, -11.9889, 29.3592, 13.666, 67.2645, -166.555
4.24762, 2, -47.2532, -11.9892, 29.3592, 13.6661, 67.2645, -166.555
4.25558, 2, -47.2535, -11.9894, 29.3592, 13.6661, 67.2645, -166.555
4.26358, 2, -47.2537, -11.9895, 29.3592, 13.6661, 67.2645, -166.555
4.27165, 2, -47.2537, -11.9895, 29.3593, 13.6661, 67.2645, -166.555
4.27962, 2, -47.2536, -11.9895, 29.3592, 13.6661, 67.2645, -166.555
4.28747, 2, -47.2534, -11.9895, 29.3592, 13.6661, 67.2645, -166.555
4.29558, 2, -47.2529, -11.9894, 29.3592, 13.666, 67.2645, -166.555
4.30351, 2, -47.2526, -11.9894, 29.3592, 13.6661, 67.2645, -166.555
4.31162, 2, -47.2523, -11.9894, 29.3592, 13.666, 67.2645, -166.555
4.31976, 2, -47.2521, -11.9894, 29.3592, 13.666, 67.2645, -166.555
4.32768, 2, -47.252, -11.9894, 29.3593, 13.666, 67.2645, -166.555
4.33582, 2, -47.252, -11.9894, 29.3592, 13.666, 67.2645, -166.555
4.3439, 2, -47.252, -11.9895, 29.3592, 13.666, 67.2645, -166.555
4.35186, 2, -47.252, -11.9896, 29.3592, 13.666, 67.2645, -166.555
4.36, 2, -47.252, -11.9896, 29.3592, 13.666, 67.2645, -166.555
4.36807, 2, -47.2521, -11.9896, 29.3592, 13.666, 67.2645, -166.555
4.37604, 2, -47.2521, -11.9896, 29.3593, 13.666, 67.2646, -166.555
4.38412, 2, -47.2521, -11.9895, 29.3593, 13.666, 67.2646, -166.555
4.39211, 2, -47.252, -11.9895, 29.3593, 13.666, 67.2645, -166.555
4.4, 2, -47.2519, -11.9894, 29.3593, 13.666, 67.2646, -166.555
4.40811, 2, -47.2519, -11.9894, 29.3593, 13.666, 67.2646, -166.555
4.41606, 2, -47.2518, -11.9894, 29.3593, 13.666, 67.2645, -166.555
4.42347, 2, -47.2517, -11.9893, 29.3593, 13.6661, 67.2645, -166.555
4.43146, 2, -47.2515, -11.9893, 29.3592, 13.666, 67.2646, -166.555
4.43951, 2, -47.2515, -11.9893, 29.3593, 13.666, 67.2645, -166.555
4.44752, 2, -47.2514, -11.9894, 29.3592, 13.6661, 67.2646, -166.555
4.45548, 2, -47.2514, -11.9894, 29.3593, 13.666, 67.2646, -166.555
4.46351, 2, -47.2514, -11.9894, 29.3593, 13.666, 67.2646, -166.555
4.47146, 2, -47.2513, -11.9894, 29.3593, 13.666, 67.2646, -166.555
4.47946, 2, -47.2512, -11.9894, 29.3593, 13.666, 67.2646, -166.555
4.48751, 2, -47.2512, -11.9894, 29.3593, 13.6659, 67.2646, -166.555
4.49547, 2, -47.2511, -11.9893, 29.3593, 13.6659, 67.2646, -166.555
4.50347, 2, -47.251, -11.9893, 29.3593, 13.666, 67.2647, -166.555
4.51153, 2, -47.2509, -11.9892, 29.3593, 13.6659, 67.2647, -166.555
4.51946, 2, -47.2508, -11.9892, 29.3593, 13.6659, 67.2646, -166.555
4.52746, 2, -47.2507, -11.9891, 29.3593, 13.6659, 67.2646, -166.555
4.53646, 2, -47.2506, -11.9891, 29.3593, 13.6659, 67.2646, -166.555
4.5435, 2, -47.2506, -11.9891, 29.3592, 13.6659, 67.2646, -166.555
4.55251, 2, -47.2505, -11.9891, 29.3592, 13.6659, 67.2647, -166.555
4.55952, 2, -47.2504, -11.9891, 29.3593, 13.6659, 67.2647, -166.555
4.56746, 2, -47.2503, -11.9891, 29.3592, 13.6659, 67.2647, -166.555
4.57549, 2, -47.2501, -11.9891, 29.3592, 13.6659, 67.2647, -166.555
4.58353, 2, -47.25, -11.9891, 29.3592, 13.6659, 67.2646, -166.555
4.59145, 2, -47.2499, -11.9891, 29.3592, 13.6659, 67.2647, -166.555
4.59946, 2, -47.2498, -11.9891, 29.3592, 13.6659, 67.2647, -166.555
4.60752, 2, -47.2497, -11.989, 29.3592, 13.6659, 67.2647, -166.555
4.61552, 2, -47.2496, -11.9889, 29.3593, 13.6659, 67.2647, -166.555
4.62347, 2, -47.2494, -11.9889, 29.3592, 13.6659, 67.2646, -166.555
4.63152, 2, -47.2494, -11.9889, 29.3592, 13.6659, 67.2647, -166.555
4.63956, 2, -47.2492, -11.9888, 29.3592, 13.6659, 67.2647, -166.555
4.64746, 2, -47.2492, -11.9888, 29.3592, 13.6659, 67.2647, -166.555
4.65554, 2, -47.2491, -11.9888, 29.3593, 13.6659, 67.2647, -166.555
4.66346, 2, -47.249, -11.9888, 29.3592, 13.6659, 67.2647, -166.555
4.67146, 2, -47.2489, -11.9888, 29.3592, 13.6659, 67.2647, -166.555
4.67952, 2, -47.2489, -11.9888, 29.3592, 13.6659, 67.2647, -166.555
4.68745, 2, -47.2489, -11.9888, 29.3592, 13.6659, 67.2647, -166.555
4.69548, 2, -47.2488, -11.9888, 29.3592, 13.6658, 67.2647, -166.555
4.70353, 2, -47.2487, -11.9887, 29.3592, 13.6659, 67.2648, -166.555
4.71149, 2, -47.2487, -11.9887, 29.3592, 13.6659, 67.2647, -166.555
4.71946, 2, -47.2486, -11.9886, 29.3592, 13.6659, 67.2647, -166.555
4.72755, 2, -47.2485, -11.9886, 29.3592, 13.6658, 67.2647, -166.555
4.7355, 2, -47.2484, -11.9886, 29.3592, 13.6658, 67.2647, -166.555
4.74358, 2, -47.2484, -11.9886, 29.3592, 13.6659, 67.2648, -166.555
4.75161, 2, -47.2483, -11.9885, 29.3592, 13.6658, 67.2647, -166.555
4.75956, 2, -47.2483, -11.9885, 29.3592, 13.6658, 67.2647, -166.555
4.76757, 2, -47.2483, -11.9885, 29.3592, 13.6658, 67.2647, -166.555
4.77564, 2, -47.2482, -11.9885, 29.3592, 13.6657, 67.2647, -166.555
4.78368, 2, -47.2482, -11.9885, 29.3592, 13.6657, 67.2648, -166.555
4.79146, 2, -47.2482, -11.9885, 29.3592, 13.6657, 67.2648, -166.555
4.79955, 2, -47.2482, -11.9885, 29.3592, 13.6658, 67.2648, -166.555
4.80761, 2, -47.2482, -11.9884, 29.3592, 13.6657, 67.2648, -166.555
4.81559, 2, -47.2481, -11.9883, 29.3592, 13.6657, 67.2647, -166.554
4.82366, 2, -47.2481, -11.9883, 29.3593, 13.6657, 67.2647, -166.554
4.83168, 2, -47.248, -11.9882, 29.3592, 13.6657, 67.2648, -166.554
4.84, 2, -47.2479, -11.9882, 29.3592, 13.6657, 67.2648, -166.554
4.84789, 2, -47.2479, -11.9882, 29.3592, 13.6657, 67.2648, -166.554
4.85603, 2, -47.2478, -11.9882, 29.3592, 13.6656, 67.2648, -166.554
4.86418, 2, -47.2477, -11.9882, 29.3592, 13.6656, 67.2648, -166.554
4.87203, 2, -47.2477, -11.9882, 29.3592, 13.6656, 67.2648, -166.554
4.88001, 2, -47.2477, -11.9882, 29.3592, 13.6656, 67.2648, -166.554
4.8885, 2, -47.2477, -11.9882, 29.3592, 13.6656, 67.2648, -166.554
4.8961, 2, -47.2476, -11.9881, 29.3592, 13.6656, 67.2648, -166.554
4.90425, 2, -47.2476, -11.9881, 29.3593, 13.6656, 67.2648, -166.554
4.91226, 2, -47.2476, -11.9881, 29.3592, 13.6656, 67.2649, -166.554
4.91949, 2, -47.2475, -11.988, 29.3592, 13.6656, 67.2649, -166.554
4.92744, 2, -47.2475, -11.988, 29.3592, 13.6656, 67.2649, -166.554
4.9363, 2, -47.2474, -11.9879, 29.3592, 13.6655, 67.2649, -166.554
4.9435, 2, -47.2473, -11.9879, 29.3592, 13.6655, 67.265, -166.554
4.95156, 2, -47.2472, -11.9879, 29.3592, 13.6655, 67.265, -166.554
4.95945, 2, -47.2472, -11.9878, 29.3592, 13.6655, 67.265, -166.554
4.96749, 2, -47.2471, -11.9878, 29.3592, 13.6654, 67.265, -166.554
4.97545, 2, -47.2471, -11.9878, 29.3592, 13.6654, 67.265, -166.554
4.98345, 2, -47.2471, -11.9878, 29.3592, 13.6655, 67.265, -166.554
4.99149, 2, -47.2471, -11.9878, 29.3592, 13.6655, 67.2651, -166.554
5.00134, 2, -47.247, -11.9878, 29.3592, 13.6654, 67.2651, -166.554
5.00744, 2, -47.247, -11.9878, 29.3592, 13.6654, 67.2651, -166.554
5.01552, 2, -47.247, -11.9877, 29.3592, 13.6654, 67.265, -166.554
5.02346, 2, -47.2469, -11.9876, 29.3592, 13.6654, 67.265, -166.554
5.03332, 2, -47.2468, -11.9876, 29.3592, 13.6653, 67.2651, -166.554
5.03951, 2, -47.2468, -11.9875, 29.3592, 13.6653, 67.2651, -166.554
5.04747, 2, -47.2467, -11.9875, 29.3592, 13.6654, 67.2651, -166.554
5.05649, 2, -47.2466, -11.9875, 29.3593, 13.6653, 67.2651, -166.554
5.06377, 2, -47.2465, -11.9875, 29.3592, 13.6653, 67.2651, -166.554
5.07144, 2, -47.2465, -11.9875, 29.3592, 13.6653, 67.2652, -166.554
5.07953, 2, -47.2464, -11.9875, 29.3592, 13.6653, 67.2651, -166.554
5.08745, 2, -47.2465, -11.9875, 29.3592, 13.6653, 67.2651, -166.554
5.09545, 2, -47.2464, -11.9875, 29.3592, 13.6653, 67.2651, -166.554
5.10351, 2, -47.2464, -11.9874, 29.3592, 13.6652, 67.2651, -166.554
5.11145, 2, -47.2464, -11.9874, 29.3592, 13.6652, 67.2652, -166.554
5.11948, 4, -47.2463, -11.9874, 29.3592, 13.6652, 67.2652, -166.554
5.12751, 4, -47.2463, -11.9873, 29.3592, 13.6652, 67.2652, -166.554
5.13545, 4, -47.2462, -11.9873, 29.3592, 13.6652, 67.2652, -166.554
5.14345, 4, -47.2462, -11.9872, 29.3592, 13.6652, 67.2653, -166.554
5.15151, 4, -47.2461, -11.9872, 29.3592, 13.6652, 67.2652, -166.554
5.15944, 4, -47.246, -11.9872, 29.3592, 13.6652, 67.2652, -166.554
5.16746, 4, -47.246, -11.9872, 29.3593, 13.6652, 67.2653, -166.554
5.17552, 4, -47.2459, -11.9872, 29.3592, 13.6652, 67.2652, -166.554
5.18344, 4, -47.2459, -11.9872, 29.3592, 13.6652, 67.2653, -166.554
5.19144, 4, -47.2458, -11.9872, 29.3592, 13.6651, 67.2653, -166.554
5.19951, 4, -47.2458, -11.9872, 29.3592, 13.6651, 67.2653, -166.554
5.20745, 4, -47.2458, -11.9871, 29.3592, 13.6651, 67.2653, -166.554
5.21566, 4, -47.2458, -11.9871, 29.3592, 13.6651, 67.2653, -166.553
5.23079, 4, -47.2457, -11.987, 29.3592, 13.665, 67.2653, -166.554
5.23278, 4, -47.2457, -11.987, 29.3592, 13.665, 67.2653, -166.554
5.24505, 4, -47.2456, -11.987, 29.3592, 13.665, 67.2653, -166.553
5.24858, 4, -47.2456, -11.9869, 29.3592, 13.665, 67.2652, -166.553
5.25571, 4, -47.2455, -11.9869, 29.3592, 13.665, 67.2653, -166.553
5.26376, 4, -47.2455, -11.9869, 29.3592, 13.665, 67.2653, -166.553
5.27506, 4, -47.2454, -11.9869, 29.3592, 13.665, 67.2653, -166.553
5.28157, 4, -47.2454, -11.9869, 29.3592, 13.665, 67.2653, -166.553
5.28982, 4, -47.2453, -11.9869, 29.3593, 13.665, 67.2653, -166.553
5.29661, 4, -47.2453, -11.9869, 29.3593, 13.665, 67.2653, -166.553
5.30583, 4, -47.2453, -11.9868, 29.3592, 13.665, 67.2653, -166.553
5.31259, 4, -47.2453, -11.9868, 29.3592, 13.665, 67.2653, -166.553
5.32258, 4, -47.2453, -11.9868, 29.3592, 13.665, 67.2653, -166.553
5.33149, 4, -47.2452, -11.9867, 29.3592, 13.665, 67.2653, -166.553
5.33602, 4, -47.2452, -11.9867, 29.3592, 13.665, 67.2653, -166.553
5.34773, 4, -47.2451, -11.9867, 29.3592, 13.665, 67.2653, -166.553
5.35224, 4, -47.2451, -11.9866, 29.3592, 13.665, 67.2653, -166.553
5.362, 4, -47.245, -11.9866, 29.3592, 13.665, 67.2653, -166.553
5.36896, 4, -47.2449, -11.9866, 29.3592, 13.665, 67.2653, -166.553
5.37652, 4, -47.2451, -11.9867, 29.3593, 13.6649, 67.2653, -166.553
5.38825, 4, -47.246, -11.9872, 29.3596, 13.6651, 67.2655, -166.553
5.3923, 4, -47.2483, -11.989, 29.3616, 13.6668, 67.2661, -166.553
5.40099, 4, -47.2526, -11.9935, 29.3672, 13.6766, 67.2684, -166.552
5.40907, 5, -47.2598, -12.0024, 29.3798, 13.7016, 67.2748, -166.548
5.4165, 5, -47.2715, -12.0176, 29.4046, 13.7507, 67.2884, -166.537
5.4256, 5, -47.2897, -12.0418, 29.4474, 13.8387, 67.3129, -166.518
5.4333, 5, -47.3167, -12.0773, 29.5144, 13.9791, 67.3526, -166.486
5.44041, 5, -47.3341, -12.0997, 29.5591, 14.0737, 67.3788, -166.438
5.44757, 5, -47.3777, -12.155, 29.6739, 14.3195, 67.4465, -166.407
5.45565, 5, -47.434, -12.2251, 29.8251, 14.6473, 67.5364, -166.333
5.47091, 5, -47.5424, -12.4107, 30.2425, 15.5524, 67.7794, -166.126
5.47418, 5, -47.6298, -12.4662, 30.3696, 15.8257, 67.8518, -166.064
5.47964, 5, -47.6778, -12.525, 30.5048, 16.1145, 67.9279, -165.999
5.48969, 5, -47.8354, -12.719, 30.9531, 17.0555, 68.1725, -165.789
5.49951, 5, -47.9496, -12.8604, 31.2794, 17.7269, 68.3434, -165.642
5.50356, 5, -48.0086, -12.9337, 31.4485, 18.0696, 68.4294, -165.567
5.51364, 5, -48.1897, -13.1596, 31.9688, 19.1096, 68.6855, -165.345
5.51955, 5, -48.2505, -13.2354, 32.1447, 19.4559, 68.7693, -165.272
5.5308, 5, -48.4299, -13.4577, 32.6711, 20.474, 69.0141, -165.052
5.53727, 5, -48.5417, -13.5985, 33.0146, 21.1236, 69.1729, -164.898
5.54596, 6, -48.5936, -13.6657, 33.1817, 21.4353, 69.3302, -164.724
5.55164, 6, -48.6863, -13.7924, 33.5042, 22.0266, 69.4092, -164.626
5.5596, 6, -48.761, -13.9094, 33.8076, 22.5709, 69.5693, -164.399
5.56764, 7, -48.8149, -14.018, 34.0907, 23.0649, 69.7337, -164.121
5.57863, 7, -48.8538, -14.1661, 34.4781, 23.7184, 69.9915, -163.587
5.58458, 8, -48.8561, -14.2109, 34.5984, 23.9166, 70.0813, -163.377
5.5917, 8, -48.8473, -14.2936, 34.8296, 24.2911, 70.2667, -162.91
5.60232, 9, -48.8058, -14.4037, 35.1586, 24.8171, 70.5618, -162.106
5.61069, 9, -48.7631, -14.4714, 35.3712, 25.1582, 70.7701, -161.518
5.61665, 10, -48.7381, -14.5042, 35.4771, 25.3287, 70.8779, -161.213
5.62363, 10, -48.6812, -14.5689, 35.689, 25.672, 71.0996, -160.589
5.63158, 11, -48.6158, -14.633, 35.9012, 26.0202, 71.3283, -159.953
5.6433, 11, -48.5057, -14.7281, 36.2208, 26.5536, 71.6786, -158.995
5.64761, 11, -48.4669, -14.7597, 36.327, 26.7346, 71.7966, -158.675
5.65643, 12, -48.3881, -14.8224, 36.5378, 27.1022, 72.0338, -158.036
5.66358, 13, -48.3088, -14.8834, 36.747, 27.4775, 72.2727, -157.394
5.67592, 13, -48.19, -14.9707, 37.0575, 28.056, 72.6362, -156.424
5.67959, 13, -48.1497, -14.9992, 37.1598, 28.253, 72.759, -156.097
5.68935, 14, -48.0669, -15.0572, 37.3635, 28.6522, 73.007, -155.442
5.69746, 15, -47.9805, -15.1168, 37.5665, 29.0568, 73.2577, -154.784
5.70481, 15, -47.89, -15.1772, 37.768, 29.4638, 73.5084, -154.129
5.71159, 16, -47.7944, -15.2366, 37.9677, 29.8701, 73.7566, -153.476
5.71968, 16, -47.6923, -15.2954, 38.1661, 30.2732, 74.0004, -152.83
5.73191, 17, -47.5264, -15.3861, 38.4593, 30.8694, 74.3551, -151.874
5.7398, 17, -47.4088, -15.4492, 38.6506, 31.2603, 74.5832, -151.244
5.74374, 17, -47.3481, -15.4812, 38.7453, 31.4539, 74.6949, -150.931
5.75257, 18, -47.223, -15.546, 38.9326, 31.8382, 74.914, -150.312
5.75981, 18, -47.0927, -15.6127, 39.1167, 32.2199, 75.1281, -149.7
5.76807, 19, -46.9565, -15.6826, 39.2983, 32.6005, 75.338, -149.093
5.77782, 20, -46.8145, -15.7552, 39.4787, 32.9808, 75.5441, -148.491
5.78382, 20, -46.6675, -15.8291, 39.6573, 33.3606, 75.7464, -147.897
5.79279, 21, -46.5165, -15.9036, 39.8333, 33.7397, 75.9449, -147.31
5.79972, 21, -46.3623, -15.9792, 40.0074, 34.1181, 76.1392, -146.728
5.81154, 22, -46.1245, -16.0953, 40.2659, 34.6849, 76.4236, -145.867
5.81665, 22, -46.0433, -16.1348, 40.3508, 34.8733, 76.5167, -145.583
5.82447, 23, -45.8771, -16.2152, 40.5181, 35.249, 76.7003, -145.02
5.83197, 23, -45.7049, -16.2975, 40.6828, 35.6219, 76.8794, -144.46
5.84423, 24, -45.4323, -16.4254, 40.9237, 36.1731, 77.1388, -143.632
5.84983, 24, -45.3374, -16.4692, 41.0017, 36.3536, 77.222, -143.358
5.85624, 25, -45.1418, -16.5584, 41.1544, 36.7078, 77.383, -142.816
5.86486, 25, -44.9389, -16.6489, 41.3029, 37.0522, 77.5358, -142.279
5.87251, 25, -44.7293, -16.7401, 41.4468, 37.3863, 77.6806, -141.748
5.885, 26, -44.402, -16.8789, 41.6537, 37.8691, 77.885, -140.959
5.88852, 26, -44.2893, -16.9257, 41.72, 38.0258, 77.9505, -140.698
5.89762, 27, -44.0589, -17.0193, 41.8484, 38.3335, 78.0783, -140.176
5.90473, 28, -43.8219, -17.1125, 41.9711, 38.6347, 78.2037, -139.655
5.91271, 28, -43.5778, -17.2045, 42.0872, 38.9292, 78.327, -139.133
5.92084, 29, -43.3264, -17.2949, 42.1964, 39.217, 78.449, -138.612
5.92826, 29, -43.1982, -17.3394, 42.2484, 39.3585, 78.5098, -138.089
5.93902, 29, -42.9373, -17.4268, 42.3469, 39.7722, 78.6888, -137.566
5.94354, 30, -42.6697, -17.5117, 42.438, 39.9062, 78.7475, -137.304
5.9532, 31, -42.2537, -17.6335, 42.5611, 40.2955, 78.9193, -136.521
5.95961, 31, -42.111, -17.6728, 42.5986, 40.4209, 78.9748, -136.26
5.96946, 32, -41.6718, -17.7868, 42.7006, 40.7833, 79.1369, -135.479
5.97556, 32, -41.522, -17.8235, 42.7312, 40.8995, 79.1889, -135.219
5.98557, 33, -41.0627, -17.9293, 42.8126, 41.2352, 79.3405, -134.442
5.99163, 34, -40.9061, -17.9632, 42.8361, 41.343, 79.3897, -134.184
6.01826, 35, -39.7672, -18.1832, 42.9502, 42.0414, 79.7164, -132.381
6.02002, 35, -39.7672, -18.1832, 42.9502, 42.0414, 79.7164, -132.381
6.02275, 35, -39.5992, -18.2116, 42.9594, 42.1336, 79.7607, -132.124
6.02741, 36, -39.4298, -18.2392, 42.9668, 42.224, 79.8043, -131.868
6.04527, 36, -38.7345, -18.3408, 42.9783, 42.6466, 80.0157, -130.591
6.04732, 36, -38.5563, -18.3641, 42.9783, 42.6466, 80.0157, -130.591
6.04984, 37, -38.3768, -18.3866, 42.9755, 42.7255, 80.0562, -130.336
6.05561, 37, -38.1959, -18.4082, 42.9711, 42.8024, 80.0962, -130.082
6.06659, 38, -37.6449, -18.4674, 42.9476, 43.022, 80.2138, -129.323
6.07475, 38, -37.2716, -18.5025, 42.9238, 43.1592, 80.2894, -128.819
6.08257, 39, -36.8935, -18.5342, 42.8931, 43.2889, 80.3627, -128.316
6.08854, 39, -36.7027, -18.5488, 42.8753, 43.351, 80.3985, -128.066
6.09561, 40, -36.3176, -18.5749, 42.8346, 43.4698, 80.4692, -127.566
6.1069, 40, -35.7286, -18.6072, 42.7612, 43.6344, 80.5714, -126.82
6.11156, 41, -35.5292, -18.6159, 42.7335, 43.6857, 80.6048, -126.572
6.11966, 41, -35.1263, -18.6305, 42.6731, 43.7825, 80.669, -126.078
6.13191, 42, -34.5129, -18.6461, 42.5705, 43.915, 80.7629, -125.342
6.13558, 42, -34.3068, -18.6496, 42.5331, 43.9554, 80.7927, -125.097
6.14699, 43, -33.6842, -18.6554, 42.4115, 44.0663, 80.8807, -124.367
6.15157, 43, -33.4749, -18.6558, 42.368, 44.0995, 80.9092, -124.125
6.16087, 44, -33.0522, -18.6539, 42.2766, 44.1613, 80.9641, -123.642
6.17157, 44, -32.4065, -18.6439, 42.1288, 44.2395, 81.0449, -122.923
6.17554, 45, -32.1879, -18.6387, 42.0767, 44.2622, 81.0706, -122.685
6.18357, 45, -31.7466, -18.6254, 41.9678, 44.3022, 81.1209, -122.209
6.19223, 46, -31.3011, -18.6085, 41.8529, 44.3345, 81.1704, -121.736
6.19956, 46, -30.8537, -18.5883, 41.7321, 44.359, 81.2173, -121.265
6.20856, 47, -30.404, -18.5644, 41.6055, 44.3757, 81.2623, -120.797
6.22017, 47, -29.7213, -18.5204, 41.4045, 44.3872, 81.3291, -120.098
6.22531, 48, -29.4906, -18.5036, 41.3345, 44.3877, 81.3505, -119.866
6.23584, 48, -28.7891, -18.4465, 41.1153, 44.376, 81.4132, -119.173
6.24366, 49, -28.3149, -18.4031, 40.9618, 44.3574, 81.4551, -118.713
6.25334, 49, -27.838, -18.3551, 40.8023, 44.3296, 81.4963, -118.255
6.2562, 50, -27.5986, -18.3294, 40.7202, 44.3119, 81.5164, -118.026
6.26376, 50, -27.1177, -18.2743, 40.551, 44.2695, 81.5572, -117.569
6.27256, 51, -26.6317, -18.2136, 40.3753, 44.2187, 81.5994, -117.113
6.28425, 51, -25.8881, -18.1121, 40.0995, 44.123, 81.663, -116.431
6.28768, 52, -25.6366, -18.0755, 40.004, 44.0866, 81.6843, -116.204
6.29783, 52, -25.1302, -17.9982, 39.8072, 44.0054, 81.7281, -115.75
6.30647, 53, -24.6215, -17.9156, 39.6042, 43.9138, 81.7731, -115.297
6.31177, 53, -24.1103, -17.8269, 39.3944, 43.8123, 81.8179, -114.844
6.32069, 54, -23.5943, -17.7318, 39.1763, 43.7001, 81.8648, -114.393
6.33191, 54, -23.0709, -17.6304, 38.9509, 43.5111, 81.9397, -113.714
6.3361, 55, -22.5388, -17.5229, 38.7183, 43.4424, 81.9656, -113.488
6.34584, 55, -22.001, -17.4095, 38.4772, 43.2959, 82.02, -113.036
6.35219, 56, -21.4606, -17.2903, 38.2297, 43.1377, 82.0767, -112.583
6.36098, 56, -20.9178, -17.1655, 37.9758, 42.9687, 82.134, -112.131
6.3684, 56, -20.3696, -17.0348, 37.7152, 42.7888, 82.1933, -111.68
6.37699, 57, -19.8122, -16.8985, 37.4492, 42.5981, 82.2529, -111.229
6.38415, 57, -19.246, -16.7564, 37.1765, 42.3954, 82.3141, -110.779
6.39313, 58, -18.6748, -16.6085, 36.8981, 42.1803, 82.3772, -110.329
6.40429, 59, -18.1008, -16.4547, 36.6128, 41.8337, 82.4759, -109.655
6.40897, 59, -17.5234, -16.2957, 36.3203, 41.7117, 82.5103, -109.43
6.41875, 60, -16.9379, -16.1326, 36.0212, 41.4572, 82.581, -108.981
6.42534, 60, -16.6412, -16.0493, 35.869, 41.1892, 82.655, -108.531
6.43222, 60, -16.0409, -15.8784, 35.561, 41.0502, 82.6923, -108.082
6.43955, 61, -15.4352, -15.7019, 35.2472, 40.762, 82.7685, -107.857
6.44764, 62, -14.827, -15.5208, 34.9281, 40.4615, 82.8464, -107.409
6.45562, 62, -14.2146, -15.3356, 34.6038, 40.1483, 82.9266, -106.96
6.46634, 63, -13.2794, -15.0479, 34.1093, 39.6547, 83.0505, -106.286
6.47161, 63, -12.9629, -14.9487, 33.9419, 39.4838, 83.0929, -106.061
6.48234, 64, -12.0045, -14.6417, 33.4322, 38.951, 83.2247, -105.386
6.48761, 64, -11.683, -14.5365, 33.259, 38.7664, 83.2703, -105.161
6.49733, 65, -10.7069, -14.2105, 32.7295, 38.1892, 83.4154, -104.481
6.50356, 65, -10.3759, -14.0985, 32.5494, 37.9883, 83.4668, -104.253
6.5116, 66, -9.70566, -13.8693, 32.1852, 37.5722, 83.574, -103.796
6.5221, 66, -8.68474, -13.5125, 31.6292, 36.9132, 83.7469, -103.108
6.53028, 67, -7.99724, -13.2656, 31.2507, 36.4508, 83.8701, -102.646
6.53561, 67, -7.65042, -13.1397, 31.0592, 36.2131, 83.9342, -102.415
6.54356, 68, -6.94941, -12.8823, 30.6723, 35.7259, 84.0676, -101.95
6.55397, 68, -6.24033, -12.6177, 30.2818, 34.9682, 84.2792, -101.247
6.56325, 69, -5.16661, -12.2107, 29.6896, 34.4479, 84.4274, -100.777
6.57013, 69, -4.80638, -12.0718, 29.4907, 34.1836, 84.5805, -100.305
6.5789, 70, -3.71529, -11.6458, 28.893, 33.3771, 84.7381, -99.8314
6.58656, 70, -2.9795, -11.3518, 28.4954, 32.8256, 84.9003, -99.3565
6.59384, 71, -2.2387, -11.0501, 28.0974, 32.2625, 85.0679, -98.8814
6.59962, 71, -1.86659, -10.8972, 27.8977, 31.976, 85.1545, -98.6439
6.60757, 72, -1.11796, -10.5867, 27.4974, 31.392, 85.3345, -98.1678
6.62053, 72, 0.0139792, -10.1121, 26.8936, 30.4859, 85.6221, -97.4525
6.62694, 73, 0.772227, -9.7881, 26.4896, 29.8667, 85.8248, -96.9749
6.63166, 73, 1.15226, -9.6236, 26.2878, 29.5533, 85.9288, -96.7363
6.64092, 74, 1.91508, -9.29049, 25.8847, 28.9201, 86.1422, -96.2589
6.64858, 74, 2.68204, -8.95159, 25.4849, 28.2806, 86.3623, -95.7801
6.65689, 75, 3.45214, -8.60716, 25.0896, 27.6347, 86.5884, -95.3
6.66913, 75, 4.22418, -8.25575, 24.6989, 26.9833, 86.9381, -94.5752
6.67191, 75, 4.99896, -7.89852, 24.3117, 26.3294, 87.0578, -94.3326
6.67956, 76, 5.7765, -7.53533, 23.9281, 25.6719, 87.3018, -93.8445
6.68857, 76, 6.55617, -7.16678, 23.5488, 25.0116, 87.5528, -93.3536
6.70679, 78, 8.51313, -6.20642, 22.6121, 23.3527, 88.2186, -92.1145
6.71245, 78, 8.9063, -6.00613, 22.4268, 23.0174, 88.36, -91.8644
6.72379, 79, 10.0894, -5.39301, 21.8755, 22.0009, 88.805, -91.1073
6.72508, 79, 10.0894, -5.39301, 21.8755, 22.0009, 88.805, -91.1073
6.72748, 79, 10.4849, -5.18525, 21.693, 21.6585, 88.9604, -90.8526
6.7355, 79, 11.2761, -4.76386, 21.3299, 20.9707, 89.2817, -90.339
6.74344, 80, 12.0654, -4.33153, 20.9708, 20.2797, 89.6144, -89.82
6.75156, 80, 12.8493, -3.88802, 20.6165, 19.5916, 89.9574, -89.2944
6.76044, 81, 13.6268, -3.43708, 20.2681, 18.9125, 90.3086, -88.7633
6.76756, 81, 14.3978, -2.9808, 19.9274, 18.2473, 90.666, -88.2277
6.77551, 82, 15.1606, -2.51741, 19.5972, 17.5981, 91.0271, -87.6895
6.7835, 82, 15.9136, -2.04626, 19.2778, 16.9667, 91.3914, -87.1485
6.79223, 83, 16.6542, -1.56825, 18.9684, 16.3552, 91.7589, -86.606
6.79945, 83, 17.3811, -1.08533, 18.6688, 15.7638, 92.1305, -86.0631
6.80819, 84, 18.0934, -0.598483, 18.3783, 15.1912, 92.507, -85.5219
6.81549, 84, 18.7899, -0.107809, 18.0961, 14.6389, 92.89, -84.982
6.8245, 85, 19.4693, 0.387621, 17.8195, 14.1063, 93.2805, -84.4437
6.83154, 85, 20.1304, 0.888278, 17.5492, 13.5933, 93.679, -83.9078
6.83994, 85, 20.7737, 1.39341, 17.2849, 13.0996, 94.0845, -83.3743
6.84846, 86, 21.4017, 1.90319, 17.0265, 12.625, 94.4959, -82.8417
6.85571, 86, 22.0157, 2.42035, 16.7746, 12.1696, 94.9137, -82.3081
6.86443, 87, 22.6173, 2.94754, 16.5273, 11.7327, 95.3385, -81.7715
6.87189, 87, 23.2086, 3.48464, 16.2839, 11.3133, 95.771, -81.2307
6.88053, 88, 23.7904, 4.02753, 16.0433, 10.9097, 96.211, -80.684
6.88818, 88, 24.3617, 4.576, 15.8054, 10.5221, 96.6573, -80.1284
6.8962, 89, 24.9218, 5.13447, 15.5732, 10.1504, 97.1094, -79.5634
6.90404, 89, 25.4729, 5.70551, 15.3466, 9.7956, 97.5658, -78.9874
6.91202, 89, 25.7466, 5.99542, 15.235, 9.45756, 98.0254, -78.3996
6.91991, 90, 26.2919, 6.58332, 15.0163, 9.29464, 98.2566, -78.1003
6.92744, 90, 26.8298, 7.18032, 14.8041, 8.98146, 98.7221, -77.4913
6.93538, 91, 27.3554, 7.7855, 14.5979, 8.68591, 99.1932, -76.8688
6.94339, 91, 27.8689, 8.40085, 14.3961, 8.40806, 99.6708, -76.2337
6.95144, 92, 28.3739, 9.02701, 14.1979, 8.1501, 100.155, -75.5859
6.9594, 92, 28.8727, 9.66384, 14.0029, 7.9119, 100.645, -74.9281
6.96751, 93, 29.3627, 10.3089, 13.8117, 7.69462, 101.14, -74.2622
6.97669, 94, 30.074, 11.2891, 13.5353, 7.40973, 101.887, -73.2468
6.98338, 94, 30.3039, 11.6186, 13.4464, 7.32617, 102.136, -72.9048
6.99162, 95, 30.7532, 12.2809, 13.2729, 7.17651, 102.634, -72.2174
6.99943, 95, 31.1885, 12.9459, 13.1062, 7.05038, 103.129, -71.5238
7.00761, 96, 31.6099, 13.6129, 12.9473, 6.948, 103.62, -70.8242
7.01538, 96, 32.0162, 14.2814, 12.7955, 6.86915, 104.108, -70.1205
7.02493, 97, 32.5941, 15.2851, 12.5798, 6.79622, 104.83, -69.0567
7.03339, 97, 32.9593, 15.9522, 12.4452, 6.77412, 105.304, -68.3419
7.03958, 98, 33.1362, 16.2844, 12.3811, 6.77093, 105.538, -67.9845
7.04838, 98, 33.4793, 16.9446, 12.2599, 6.78123, 105.999, -67.2697
7.05642, 99, 33.8078, 17.5966, 12.1483, 6.81217, 106.448, -66.5543
7.06342, 99, 34.1218, 18.2399, 12.047, 6.8623, 106.883, -65.8423
7.07146, 99, 34.4228, 18.8738, 11.956, 6.93263, 107.303, -65.1361
7.0794, 100, 34.712, 19.4982, 11.875, 7.01984, 107.707, -64.4344
7.08745, 100, 34.9883, 20.1121, 11.8033, 7.12419, 108.095, -63.74
7.09552, 101, 35.2508, 20.713, 11.7396, 7.24327, 108.468, -63.0552
7.10339, 101, 35.5, 21.3005, 11.6832, 7.37521, 108.828, -62.3782
7.11135, 102, 35.7369, 21.8732, 11.6342, 7.51768, 109.172, -61.7125
7.11938, 102, 35.9612, 22.4312, 11.5921, 7.66835, 109.503, -61.0598
7.12767, 103, 36.1737, 22.9748, 11.557, 7.82541, 109.818, -60.4205
7.13543, 103, 36.3776, 23.5036, 11.5291, 7.98793, 110.118, -59.7952
7.14339, 103, 36.5753, 24.0178, 11.5095, 8.15624, 110.402, -59.1844
7.15145, 104, 36.7677, 24.5188, 11.4982, 8.33119, 110.669, -58.5875
7.1594, 104, 36.9552, 25.0072, 11.494, 8.51441, 110.918, -58.0004
7.1674, 104, 37.1384, 25.4824, 11.496, 8.70687, 111.148, -57.4221
7.17545, 104, 37.3149, 25.945, 11.5037, 8.90823, 111.36, -56.8515
7.18339, 104, 37.4811, 26.394, 11.5157, 9.11797, 111.556, -56.2882
7.19139, 104, 37.6379, 26.8295, 11.5307, 9.33426, 111.737, -55.7327
7.19944, 104, 37.789, 27.2527, 11.5483, 9.55403, 111.907, -55.1884
7.20738, 104, 37.9381, 27.6626, 11.5679, 9.77491, 112.066, -54.6588
7.21538, 104, 38.0855, 28.0589, 11.588, 9.99373, 112.218, -54.1477
7.22346, 104, 38.2294, 28.4407, 11.608, 10.209, 112.361, -53.6562
7.23142, 104, 38.3685, 28.8089, 11.6273, 10.4188, 112.498, -53.187
7.2394, 104, 38.5012, 29.1611, 11.6457, 10.6219, 112.626, -52.7412
7.2475, 104, 38.6264, 29.4964, 11.6632, 10.8174, 112.747, -52.3199
7.25547, 104, 38.7437, 29.8131, 11.6796, 11.0042, 112.861, -51.9238
7.26355, 104, 38.853, 30.1111, 11.6948, 11.1819, 112.966, -51.5519
7.27149, 104, 38.9546, 30.3907, 11.709, 11.3498, 113.064, -51.2055
7.27949, 104, 39.0484, 30.6505, 11.722, 11.5075, 113.155, -50.8845
7.28756, 104, 39.1342, 30.8908, 11.7337, 11.6544, 113.239, -50.5888
7.29538, 104, 39.2118, 31.1117, 11.7444, 11.7899, 113.314, -50.3183
7.30344, 104, 39.2807, 31.3124, 11.7543, 11.914, 113.383, -50.073
7.31148, 104, 39.3418, 31.4935, 11.7634, 12.0263, 113.444, -49.853
7.31942, 104, 39.3954, 31.6554, 11.7712, 12.1264, 113.499, -49.6581
7.32756, 104, 39.4424, 31.7978, 11.7782, 12.2146, 113.546, -49.4883
7.33565, 104, 39.4834, 31.922, 11.7847, 12.2904, 113.586, -49.3431
7.34366, 104, 39.5184, 32.0289, 11.7904, 12.3544, 113.62, -49.2212
7.3524, 104, 39.5472, 32.1192, 11.7955, 12.4068, 113.648, -49.1222
7.35982, 104, 39.5709, 32.1941, 11.8001, 12.4474, 113.669, -49.0435
7.36849, 104, 39.5901, 32.2555, 11.8042, 12.4788, 113.685, -48.984
7.37594, 104, 39.6053, 32.3049, 11.808, 12.5021, 113.696, -48.941
7.38447, 104, 39.6172, 32.3437, 11.8114, 12.5186, 113.704, -48.9111
7.39196, 104, 39.6262, 32.3727, 11.8145, 12.5298, 113.709, -48.8915
7.40038, 104, 39.6327, 32.3944, 11.8172, 12.5369, 113.711, -48.8798
7.40818, 104, 39.6369, 32.4102, 11.8194, 12.5409, 113.713, -48.8736
7.41601, 104, 39.6383, 32.4162, 11.8203, 12.5422, 113.714, -48.8705
7.42437, 105, 39.6407, 32.4277, 11.8223, 12.544, 113.714, -48.8692
7.43142, 105, 39.6409, 32.43, 11.8228, 12.5443, 113.714, -48.8688
7.43937, 105, 39.6408, 32.4334, 11.8237, 12.5447, 113.714, -48.8686
7.44737, 105, 39.6401, 32.4358, 11.8245, 12.5449, 113.714, -48.8685
7.45651, 105, 39.6385, 32.4382, 11.8255, 12.5451, 113.714, -48.8686
7.46338, 105, 39.6378, 32.4389, 11.8258, 12.5451, 113.714, -48.8687
7.47143, 105, 39.6365, 32.4401, 11.8263, 12.5451, 113.714, -48.869
7.47943, 105, 39.6356, 32.4413, 11.8268, 12.5451, 113.714, -48.8693
7.48736, 105, 39.635, 32.4424, 11.8274, 12.5451, 113.714, -48.8696
7.49538, 105, 39.6347, 32.4435, 11.828, 12.5451, 113.714, -48.8699
7.5049, 105, 39.6343, 32.445, 11.8288, 12.5451, 113.714, -48.8702
7.51339, 105, 39.6341, 32.4457, 11.8292, 12.5451, 113.714, -48.8705
7.51937, 105, 39.6339, 32.446, 11.8293, 12.5451, 113.714, -48.8706
7.52893, 105, 39.6336, 32.4467, 11.8297, 12.5451, 113.714, -48.8708
7.53713, 105, 39.6333, 32.4469, 11.83, 12.5451, 113.714, -48.871
7.54338, 105, 39.6332, 32.447, 11.8301, 12.5451, 113.714, -48.8711
