hehonglu123/Motion-Primitive-Planning/ILC/recorded_data/realrobot/from_NX/iteration_39/run_0.csv
timestamp, cmd_num, J1, J2, J3, J4, J5, J6
0.000358, -1, 39.628, 32.4456, 11.8317, 12.5438, 113.713, -48.8734
0.003698, -1, 39.628, 32.4456, 11.8317, 12.5438, 113.713, -48.8735
0.025847, -1, 39.628, 32.4456, 11.8317, 12.5438, 113.713, -48.8734
0.028626, -1, 39.628, 32.4456, 11.8317, 12.5438, 113.713, -48.8734
0.029848, -1, 39.628, 32.4456, 11.8317, 12.5438, 113.713, -48.8734
0.03363, -1, 39.6281, 32.4456, 11.8317, 12.5438, 113.713, -48.8734
0.039834, -1, 39.628, 32.4456, 11.8317, 12.5438, 113.713, -48.8734
0.047735, -1, 39.6279, 32.4456, 11.8317, 12.5438, 113.713, -48.8734
0.055876, -1, 39.6268, 32.4454, 11.8317, 12.5438, 113.713, -48.8734
0.063825, -1, 39.6233, 32.4447, 11.8316, 12.5438, 113.713, -48.8734
0.071858, -1, 39.6164, 32.4428, 11.8315, 12.5438, 113.713, -48.874
0.079861, -1, 39.6056, 32.4389, 11.8313, 12.5438, 113.712, -48.8762
0.088787, -1, 39.5896, 32.4322, 11.8312, 12.5439, 113.71, -48.8835
0.096026, -1, 39.5657, 32.4218, 11.8313, 12.5439, 113.705, -48.8988
0.102718, -1, 39.5502, 32.415, 11.8315, 12.5439, 113.701, -48.9103
0.11292, -1, 39.4886, 32.3865, 11.8352, 12.5439, 113.681, -48.9662
0.120244, -1, 39.433, 32.3595, 11.8413, 12.544, 113.658, -49.0265
0.128292, -1, 39.3644, 32.3255, 11.8515, 12.5441, 113.626, -49.1092
0.13722, -1, 39.2822, 32.2838, 11.8665, 12.5446, 113.584, -49.216
0.14277, -1, 39.2358, 32.2599, 11.8759, 12.5449, 113.559, -49.2792
0.152356, -1, 39.076, 32.1767, 11.9109, 12.5465, 113.47, -49.5066
0.161143, -1, 39.0157, 32.1113, 11.9395, 12.5482, 113.398, -49.6884
0.166805, -1, 38.8851, 32.076, 11.9552, 12.5491, 113.359, -49.7874
0.176366, -1, 38.7422, 32.0005, 11.989, 12.5512, 113.231, -50.1117
0.18377, -1, 38.5878, 31.9191, 12.0251, 12.5534, 113.185, -50.2273
0.190784, -1, 38.4235, 31.8327, 12.0628, 12.5557, 113.09, -50.4675
0.199776, -1, 38.2512, 31.7424, 12.1015, 12.5581, 112.992, -50.7159
0.207722, -1, 38.0728, 31.649, 12.1405, 12.5606, 112.892, -50.9693
0.214785, -1, 37.8892, 31.5535, 12.1793, 12.5631, 112.79, -51.2262
0.223727, -1, 37.7016, 31.4565, 12.2181, 12.5655, 112.688, -51.4848
0.23179, -1, 37.5113, 31.3587, 12.2568, 12.5679, 112.586, -51.7443
0.238714, -1, 37.3197, 31.2606, 12.2956, 12.5704, 112.483, -52.004
0.247726, -1, 37.1276, 31.1626, 12.3344, 12.5728, 112.38, -52.2638
0.25572, -1, 36.9354, 31.0649, 12.3731, 12.5754, 112.277, -52.5239
0.263774, -1, 36.7433, 30.967, 12.4119, 12.5779, 112.174, -52.7842
0.271725, -1, 36.5516, 30.8692, 12.4507, 12.5805, 112.071, -53.0445
0.279719, -1, 36.36, 30.7714, 12.4896, 12.583, 111.968, -53.3048
0.287805, -1, 36.1684, 30.6735, 12.5285, 12.5855, 111.865, -53.5652
0.295724, -1, 35.9768, 30.5755, 12.5674, 12.588, 111.762, -53.8259
0.303806, -1, 35.7853, 30.4775, 12.6063, 12.5905, 111.659, -54.0865
0.312729, -1, 35.5934, 30.3794, 12.6453, 12.593, 111.556, -54.3468
0.319726, -1, 35.4013, 30.2812, 12.6841, 12.5955, 111.453, -54.6072
0.327734, -1, 35.209, 30.1828, 12.7229, 12.5981, 111.35, -54.8677
0.335783, -1, 35.0166, 30.0845, 12.7619, 12.6005, 111.247, -55.1286
0.343723, -1, 34.8243, 29.986, 12.8008, 12.6031, 111.144, -55.3892
0.351724, -1, 34.632, 29.8875, 12.8397, 12.6055, 111.041, -55.65
0.491912, -1, 31.2567, 28.163, 13.5219, 12.6513, 109.237, -60.2188
0.493177, -1, 31.2567, 28.163, 13.5219, 12.6513, 109.237, -60.2188
0.495112, -1, 31.1603, 28.1137, 13.5415, 12.6527, 109.186, -60.3495
0.496479, -1, 31.1603, 28.1137, 13.5415, 12.6527, 109.186, -60.3495
0.497821, -1, 31.1603, 28.1137, 13.5415, 12.6527, 109.186, -60.3495
0.49996, -1, 31.064, 28.0645, 13.5611, 12.6542, 109.134, -60.4803
0.501288, -1, 31.064, 28.0645, 13.5611, 12.6542, 109.134, -60.4803
0.507293, -1, 30.8717, 27.9659, 13.6001, 12.6569, 109.031, -60.7418
0.508688, -1, 30.8717, 27.9659, 13.6001, 12.6569, 109.031, -60.7418
0.50996, -1, 30.8717, 27.9659, 13.6001, 12.6569, 109.031, -60.7418
0.512764, -1, 30.7757, 27.9167, 13.6196, 12.6583, 108.979, -60.8724
0.513999, -1, 30.7757, 27.9167, 13.6196, 12.6583, 108.979, -60.8724
0.516756, -1, 30.6797, 27.8674, 13.6391, 12.6598, 108.928, -61.0031
0.518046, -1, 30.6797, 27.8674, 13.6391, 12.6598, 108.928, -61.0031
0.520109, -1, 30.5837, 27.8181, 13.6587, 12.6612, 108.876, -61.1336
0.522407, -1, 30.5837, 27.8181, 13.6587, 12.6612, 108.876, -61.1336
0.524521, -1, 30.4877, 27.7688, 13.6782, 12.6626, 108.824, -61.2642
0.525799, -1, 30.4877, 27.7688, 13.6782, 12.6626, 108.824, -61.2642
0.527888, -1, 30.3917, 27.7195, 13.6977, 12.6639, 108.773, -61.3949
0.529108, -1, 30.3917, 27.7195, 13.6977, 12.6639, 108.773, -61.3949
0.530306, -1, 30.3917, 27.7195, 13.6977, 12.6639, 108.773, -61.3949
0.532323, -1, 30.2957, 27.6701, 13.7172, 12.6653, 108.721, -61.5256
0.536794, -1, 30.1996, 27.6208, 13.7367, 12.6666, 108.67, -61.6565
0.54382, -1, 30.0071, 27.5221, 13.7758, 12.6694, 108.567, -61.9181
0.551893, -1, 29.8144, 27.4234, 13.8148, 12.672, 108.463, -62.1798
0.560585, -1, 29.6211, 27.3246, 13.8537, 12.6746, 108.36, -62.4414
0.56784, -1, 29.4273, 27.2259, 13.8927, 12.6772, 108.257, -62.7033
0.575818, -1, 29.2333, 27.127, 13.9317, 12.6799, 108.153, -62.9651
0.585137, -1, 29.0389, 27.0282, 13.9707, 12.6824, 108.05, -63.2265
0.590767, -1, 28.9417, 26.9787, 13.9902, 12.6837, 107.998, -63.3572
0.600903, -1, 28.6505, 26.8304, 14.0486, 12.6875, 107.843, -63.7496
0.608023, -1, 28.4565, 26.7316, 14.0877, 12.69, 107.74, -64.0115
0.616141, -1, 28.2627, 26.6329, 14.1268, 12.6924, 107.636, -64.273
0.622714, -1, 28.166, 26.5836, 14.1463, 12.6936, 107.585, -64.4037
0.630924, -1, 27.973, 26.4848, 14.1853, 12.6962, 107.482, -64.6655
0.640285, -1, 27.6838, 26.3366, 14.2439, 12.6998, 107.327, -65.0585
0.649242, -1, 27.4915, 26.2377, 14.2828, 12.7023, 107.223, -65.3201
0.786745, -1, 24.2068, 24.5577, 14.9458, 12.7417, 105.468, -69.7694
0.788089, -1, 24.2068, 24.5577, 14.9458, 12.7417, 105.468, -69.7694
0.790073, -1, 24.1106, 24.5083, 14.9653, 12.7428, 105.416, -69.9001
0.791356, -1, 24.1106, 24.5083, 14.9653, 12.7428, 105.416, -69.9001
0.792576, -1, 24.1106, 24.5083, 14.9653, 12.7428, 105.416, -69.9001
0.795454, -1, 24.0142, 24.4589, 14.9848, 12.7439, 105.365, -70.0308
0.797328, -1, 24.0142, 24.4589, 14.9848, 12.7451, 105.313, -70.1616
0.802221, -1, 23.9178, 24.4095, 15.0238, 12.7464, 105.261, -70.2924
0.803604, -1, 23.8213, 24.3601, 15.0238, 12.7464, 105.261, -70.2924
0.805517, -1, 23.8213, 24.3601, 15.0432, 12.7476, 105.209, -70.4232
0.806908, -1, 23.7248, 24.3106, 15.0432, 12.7476, 105.209, -70.4232
0.808124, -1, 23.7248, 24.3106, 15.0432, 12.7476, 105.209, -70.4232
0.810281, -1, 23.6283, 24.2612, 15.0627, 12.7487, 105.158, -70.5542
0.811572, -1, 23.6283, 24.2612, 15.0627, 12.7487, 105.158, -70.5542
0.81342, -1, 23.6283, 24.2612, 15.0627, 12.7487, 105.158, -70.5542
0.815513, -1, 23.5317, 24.2118, 15.0822, 12.7499, 105.106, -70.6852
0.818508, -1, 23.435, 24.1623, 15.1017, 12.7511, 105.054, -70.816
0.819839, -1, 23.435, 24.1623, 15.1017, 12.7511, 105.054, -70.816
0.821773, -1, 23.3382, 24.1129, 15.1212, 12.7523, 105.003, -70.9468
0.823134, -1, 23.3382, 24.1129, 15.1212, 12.7523, 105.003, -70.9468
0.824437, -1, 23.3382, 24.1129, 15.1212, 12.7523, 105.003, -70.9468
0.827223, -1, 23.2413, 24.0635, 15.1406, 12.7536, 104.951, -71.0776
0.835769, -1, 23.0475, 23.9645, 15.1795, 12.756, 104.848, -71.3394
0.839704, -1, 22.9505, 23.9151, 15.199, 12.7572, 104.796, -71.4703
0.847722, -1, 22.7564, 23.8163, 15.238, 12.7596, 104.692, -71.7322
0.855704, -1, 22.5626, 23.7176, 15.277, 12.7621, 104.589, -71.9939
0.863767, -1, 22.3689, 23.619, 15.316, 12.7646, 104.486, -72.2552
0.871739, -1, 22.1758, 23.5203, 15.3549, 12.7671, 104.382, -72.5165
0.879705, -1, 21.9826, 23.4216, 15.3938, 12.7697, 104.279, -72.7782
0.887778, -1, 21.7898, 23.3229, 15.4329, 12.7723, 104.176, -73.0397
0.895703, -1, 21.5976, 23.2242, 15.4719, 12.775, 104.073, -73.3009
0.903765, -1, 21.4053, 23.1254, 15.5108, 12.7776, 103.97, -73.5624
0.911769, -1, 21.213, 23.0267, 15.5498, 12.7803, 103.866, -73.824
0.919701, -1, 21.0206, 22.9281, 15.5887, 12.783, 103.763, -74.0857
0.927719, -1, 20.8281, 22.8295, 15.6277, 12.7856, 103.66, -74.3467
0.935765, -1, 20.6356, 22.7309, 15.6667, 12.7884, 103.557, -74.6078
0.943697, -1, 20.4428, 22.6323, 15.7055, 12.7911, 103.454, -74.8691
0.951715, -1, 20.2494, 22.5336, 15.7444, 12.7938, 103.351, -75.1307
0.959771, -1, 20.0557, 22.4348, 15.7834, 12.7965, 103.248, -75.3917
0.967716, -1, 19.862, 22.3361, 15.8221, 12.7994, 103.145, -75.6529
0.975767, -1, 19.6683, 22.2374, 15.861, 12.802, 103.042, -75.9141
0.983703, -1, 19.4748, 22.1389, 15.9, 12.8048, 102.939, -76.1754
0.991703, -1, 19.2816, 22.0403, 15.9388, 12.8076, 102.836, -76.4364
0.999971, -1, 19.0886, 21.9416, 15.9777, 12.8103, 102.733, -76.6973
1.00779, -1, 18.896, 21.843, 16.0166, 12.813, 102.63, -76.9581
1.01578, -1, 18.7036, 21.7442, 16.0553, 12.8157, 102.527, -77.2191
1.02413, -1, 18.5117, 21.6455, 16.0942, 12.8185, 102.424, -77.4801
1.03127, -1, 18.3199, 21.547, 16.1332, 12.8211, 102.321, -77.7406
1.03983, -1, 18.128, 21.4485, 16.1719, 12.8237, 102.218, -78.0014
1.04838, -1, 17.9362, 21.3501, 16.2108, 12.8263, 102.115, -78.2622
1.0557, -1, 17.7442, 21.2517, 16.2497, 12.8288, 102.012, -78.5231
1.06373, -1, 17.552, 21.1534, 16.2885, 12.8314, 101.909, -78.7835
1.07262, -1, 17.3595, 21.0552, 16.3274, 12.8338, 101.806, -79.0439
1.07977, -1, 17.1664, 20.9569, 16.3662, 12.8363, 101.703, -79.3046
1.08786, -1, 16.9734, 20.8586, 16.405, 12.8387, 101.601, -79.5652
1.09672, -1, 16.7803, 20.7604, 16.4438, 12.8411, 101.498, -79.8257
1.10396, -1, 16.5873, 20.6623, 16.4826, 12.8434, 101.395, -80.0861
1.11208, -1, 16.3944, 20.5641, 16.5213, 12.8457, 101.293, -80.3467
1.11869, -1, 16.298, 20.5149, 16.5407, 12.8468, 101.241, -80.477
1.12675, -1, 16.1057, 20.4165, 16.5794, 12.8492, 101.138, -80.7376
1.13626, -1, 15.8177, 20.2688, 16.6376, 12.8527, 100.985, -81.1279
1.14509, -1, 15.6262, 20.1703, 16.6762, 12.8551, 100.882, -81.3879
1.15229, -1, 15.435, 20.072, 16.7148, 12.8574, 100.779, -81.6481
1.16028, -1, 15.2438, 19.9737, 16.7536, 12.8597, 100.677, -81.9082
1.16915, -1, 15.1482, 19.8755, 16.7923, 12.8619, 100.574, -82.1679
1.17475, -1, 14.9571, 19.8264, 16.8117, 12.8631, 100.523, -82.2978
1.1847, -1, 14.67, 19.6792, 16.8698, 12.8665, 100.369, -82.6879
1.19169, -1, 14.5743, 19.6302, 16.8891, 12.8676, 100.318, -82.818
1.19876, -1, 14.3825, 19.5321, 16.9278, 12.8699, 100.215, -83.0776
1.20779, -1, 14.1902, 19.434, 16.9665, 12.8723, 100.112, -83.3371
1.21569, -1, 13.9979, 19.3361, 17.0052, 12.8745, 100.01, -83.5967
1.22276, -1, 13.8056, 19.2383, 17.0437, 12.8768, 99.9074, -83.8563
1.23174, -1, 13.6131, 19.1405, 17.0824, 12.8791, 99.8049, -84.116
1.23976, -1, 13.4208, 19.0426, 17.1211, 12.8814, 99.7024, -84.3752
1.24668, -1, 13.2288, 18.9446, 17.1596, 12.8837, 99.6001, -84.6345
1.25569, -1, 13.0372, 18.8467, 17.1982, 12.8861, 99.4977, -84.8938
1.26369, -1, 12.8459, 18.7487, 17.2369, 12.8884, 99.3952, -85.1532
1.27174, -1, 12.6549, 18.6508, 17.2754, 12.8908, 99.2931, -85.4121
1.27969, -1, 12.4642, 18.553, 17.314, 12.8932, 99.1907, -85.6711
1.28771, -1, 12.274, 18.4553, 17.3525, 12.8956, 99.0883, -85.9298
1.29468, -1, 12.0837, 18.3575, 17.391, 12.8981, 98.9865, -86.1889
1.30368, -1, 11.8933, 18.2599, 17.4296, 12.9005, 98.8842, -86.4476
1.31274, -1, 11.7028, 18.1622, 17.4682, 12.9028, 98.7824, -86.7061
1.31968, -1, 11.512, 18.0647, 17.5067, 12.9053, 98.6806, -86.9648
1.32771, -1, 11.321, 17.9671, 17.5453, 12.9077, 98.5785, -87.2236
1.33648, -1, 11.1298, 17.8696, 17.5838, 12.9102, 98.4766, -87.4821
1.34368, -1, 10.9384, 17.7722, 17.6223, 12.9127, 98.3747, -87.7402
1.35169, -1, 10.7468, 17.6747, 17.6608, 12.9152, 98.2727, -87.9986
1.36047, -1, 10.5553, 17.5772, 17.6991, 12.9177, 98.1708, -88.2569
1.3677, -1, 10.3639, 17.4796, 17.7376, 12.9203, 98.069, -88.5154
1.37573, -1, 10.1729, 17.3821, 17.776, 12.9227, 97.9671, -88.7732
1.38449, -1, 9.9823, 17.2845, 17.8144, 12.9254, 97.8654, -89.0312
1.39168, -1, 9.79205, 17.187, 17.8527, 12.928, 97.7634, -89.2893
1.39969, -1, 9.6021, 17.0895, 17.8911, 12.9307, 97.6614, -89.5475
1.40857, -1, 9.41266, 16.9922, 17.9294, 12.9334, 97.5597, -89.8053
1.41568, -1, 9.22331, 16.8948, 17.9678, 12.9362, 97.4576, -90.0629
1.4237, -1, 9.03388, 16.7975, 18.0062, 12.9388, 97.3558, -90.3204
1.43248, -1, 8.84434, 16.7004, 18.0445, 12.9415, 97.2543, -90.578
1.43968, -1, 8.65477, 16.6032, 18.0829, 12.9441, 97.1525, -90.8354
1.4477, -1, 8.4652, 16.5061, 18.1213, 12.9468, 97.0509, -91.0925
1.45648, -1, 8.2752, 16.4091, 18.1595, 12.9495, 96.9495, -91.3498
1.4637, -1, 8.08477, 16.3121, 18.1979, 12.9521, 96.8477, -91.6072
1.47188, -1, 7.89437, 16.2153, 18.2362, 12.9548, 96.7462, -91.8643
1.48065, -1, 7.70383, 16.1183, 18.2744, 12.9574, 96.6449, -92.1211
1.48768, -1, 7.51329, 16.0213, 18.3127, 12.9599, 96.5432, -92.3777
1.49586, -1, 7.32305, 15.9244, 18.351, 12.9626, 96.4419, -92.6346
1.50453, -1, 7.13308, 15.8274, 18.3891, 12.9652, 96.3407, -92.8914
1.51176, -1, 6.94344, 15.7303, 18.4273, 12.9677, 96.2393, -93.1478
1.52018, -1, 6.75418, 15.6334, 18.4656, 12.9702, 96.1384, -93.4042
1.52723, -1, 6.56542, 15.5366, 18.5036, 12.9728, 96.0376, -93.6605
1.53531, -1, 6.3771, 15.4399, 18.5417, 12.9753, 95.9364, -93.9171
1.54433, -1, 6.18891, 15.3431, 18.5799, 12.9778, 95.8355, -94.1733
1.55258, -1, 6.00072, 15.2464, 18.618, 12.9802, 95.7346, -94.4292
1.55969, -1, 5.81234, 15.1497, 18.6562, 12.9826, 95.6336, -94.6851
1.5686, -1, 5.62385, 15.053, 18.6943, 12.9849, 95.5328, -94.9411
1.57667, -1, 5.43527, 14.9565, 18.7323, 12.9872, 95.4321, -95.1969
1.58374, -1, 5.24638, 14.86, 18.7705, 12.9895, 95.3313, -95.4523
1.59265, -1, 5.05706, 14.7636, 18.8086, 12.9918, 95.2306, -95.7078
1.60072, -1, 4.8677, 14.6673, 18.8466, 12.9941, 95.1299, -95.9634
1.60797, -1, 4.67834, 14.5709, 18.8847, 12.9962, 95.0291, -96.2189
1.61694, -1, 4.489, 14.4745, 18.9228, 12.9984, 94.9284, -96.4738
1.6253, -1, 4.30001, 14.3781, 18.9608, 13.0007, 94.8276, -96.7286
1.6322, -1, 4.11114, 14.2817, 18.9988, 13.0029, 94.7266, -96.9837
1.64106, -1, 3.92273, 14.1854, 19.0367, 13.0052, 94.626, -97.2388
1.64819, -1, 3.73495, 14.0892, 19.0746, 13.0074, 94.5252, -97.4936
1.65467, -1, 3.64119, 14.0411, 19.0936, 13.0085, 94.4748, -97.6209
1.66449, -1, 3.36051, 13.8969, 19.1504, 13.012, 94.324, -98.003
1.67227, -1, 3.26699, 13.8489, 19.1693, 13.0144, 94.2231, -98.2579
1.67868, -1, 3.07998, 13.7529, 19.2072, 13.0155, 94.1727, -98.3852
1.68884, -1, 2.79942, 13.6088, 19.2641, 13.0188, 94.0219, -98.7667
1.69567, -1, 2.70587, 13.5608, 19.2831, 13.02, 93.9715, -98.8937
1.70375, -1, 2.51871, 13.4649, 19.321, 13.0222, 93.871, -99.1478
1.71172, -1, 2.33125, 13.369, 19.3587, 13.0245, 93.7708, -99.4021
1.71967, -1, 2.14337, 13.2733, 19.3965, 13.0268, 93.6704, -99.6561
1.72668, -1, 1.95527, 13.1774, 19.4345, 13.029, 93.5703, -99.9096
1.73575, -1, 1.76715, 13.0816, 19.4722, 13.0313, 93.4705, -100.163
1.74368, -1, 1.57896, 12.9858, 19.5099, 13.0335, 93.3703, -100.417
1.75067, -1, 1.39092, 12.89, 19.5478, 13.0358, 93.2702, -100.671
1.75968, -1, 1.20314, 12.7941, 19.5854, 13.0381, 93.1704, -100.924
1.76767, -1, 1.01568, 12.6984, 19.6231, 13.0405, 93.0702, -101.177
1.77577, -1, 0.828831, 12.6029, 19.6609, 13.0429, 92.9702, -101.43
1.78369, -1, 0.642493, 12.5073, 19.6985, 13.0452, 92.8706, -101.683
1.79167, -1, 0.45657, 12.4118, 19.7361, 13.0476, 92.7707, -101.936
1.7987, -1, 0.270915, 12.3164, 19.7738, 13.0501, 92.671, -102.189
1.80774, -1, 0.0853973, 12.221, 19.8114, 13.0526, 92.5717, -102.441
1.81567, -1, -0.10001, 12.1257, 19.8489, 13.0551, 92.4719, -102.694
1.82373, -1, -0.28565, 12.0305, 19.8866, 13.0574, 92.3724, -102.946
1.83168, -1, -0.471566, 11.9353, 19.9242, 13.0599, 92.2731, -103.199
1.83969, -1, -0.657764, 11.8403, 19.9617, 13.0624, 92.1736, -103.451
1.84772, -1, -0.844163, 11.7453, 19.9993, 13.0649, 92.0741, -103.703
1.85567, -1, -1.03077, 11.6502, 20.0367, 13.0674, 91.9749, -103.955
1.86382, -1, -1.21761, 11.5551, 20.0741, 13.0699, 91.8754, -104.206
1.87167, -1, -1.40449, 11.46, 20.1117, 13.0724, 91.7761, -104.458
1.87968, -1, -1.59117, 11.3649, 20.1491, 13.075, 91.6771, -104.71
1.88773, -1, -1.77758, 11.2698, 20.1865, 13.0776, 91.5778, -104.961
1.89567, -1, -1.96367, 11.1747, 20.224, 13.0802, 91.4786, -105.213
1.90368, -1, -2.14913, 11.0798, 20.2614, 13.0828, 91.3795, -105.463
1.91174, -1, -2.33405, 10.9849, 20.2987, 13.0854, 91.2803, -105.714
1.91974, -1, -2.51872, 10.8901, 20.3361, 13.0882, 91.1812, -105.965
1.92768, -1, -2.70292, 10.7953, 20.3733, 13.0909, 91.0821, -106.216
1.93573, -1, -2.88687, 10.7006, 20.4107, 13.0935, 90.983, -106.467
1.9437, -1, -3.07087, 10.6058, 20.4481, 13.096, 90.8841, -106.718
1.95168, -1, -3.25498, 10.5112, 20.4854, 13.0986, 90.7852, -106.968
1.95974, -1, -3.43945, 10.4167, 20.5226, 13.1012, 90.6863, -107.219
1.96767, -1, -3.62422, 10.3223, 20.5599, 13.1038, 90.5874, -107.469
1.9758, -1, -3.80912, 10.2279, 20.5971, 13.1063, 90.4886, -107.719
1.98367, -1, -3.99432, 10.1336, 20.6344, 13.1087, 90.39, -107.969
1.99167, -1, -4.17967, 10.0392, 20.6716, 13.1113, 90.2913, -108.219
1.99998, -1, -4.36531, 9.94495, 20.7087, 13.1136, 90.1926, -108.469
2.00771, -1, -4.55076, 9.8506, 20.746, 13.116, 90.0941, -108.719
2.01581, -1, -4.73586, 9.75638, 20.7832, 13.1184, 89.9957, -108.968
2.024, -1, -4.9206, 9.66221, 20.8203, 13.1208, 89.8971, -109.218
2.03177, -1, -5.10482, 9.5682, 20.8574, 13.1231, 89.7987, -109.467
2.0399, -1, -5.28827, 9.47414, 20.8946, 13.1255, 89.7004, -109.716
2.04816, -1, -5.47141, 9.38019, 20.9316, 13.1278, 89.602, -109.965
2.05568, -1, -5.65422, 9.28624, 20.9687, 13.1301, 89.5036, -110.214
2.0638, -1, -5.83669, 9.1923, 21.0058, 13.1324, 89.4056, -110.463
2.07246, -1, -6.01907, 9.09844, 21.0427, 13.1346, 89.3074, -110.712
2.07977, -1, -6.2016, 9.00458, 21.0798, 13.1368, 89.2092, -110.96
2.08782, -1, -6.38446, 8.91084, 21.1168, 13.1391, 89.1115, -111.208
2.09668, -1, -6.5675, 8.81723, 21.1536, 13.1413, 89.0134, -111.457
2.10387, -1, -6.75078, 8.72358, 21.1905, 13.1435, 88.9154, -111.705
2.11206, -1, -6.93449, 8.62997, 21.2275, 13.1456, 88.8177, -111.953
2.11866, -1, -7.02643, 8.58316, 21.2459, 13.1467, 88.7687, -112.077
2.12805, -1, -7.30272, 8.44281, 21.3012, 13.1499, 88.6219, -112.448
2.13467, -1, -7.39475, 8.39598, 21.3197, 13.151, 88.573, -112.572
2.14506, -1, -7.67039, 8.25564, 21.3749, 13.1542, 88.4266, -112.944
2.1522, -1, -7.85364, 8.16222, 21.4117, 13.1564, 88.3291, -113.191
2.16028, -1, -8.03651, 8.06884, 21.4486, 13.1586, 88.2318, -113.438
2.16909, -1, -8.12772, 7.97556, 21.4854, 13.1609, 88.1344, -113.685
2.17636, -1, -8.30961, 7.92892, 21.5037, 13.1631, 88.0369, -113.932
2.1843, -1, -8.49109, 7.83566, 21.5406, 13.1642, 87.9397, -114.179
2.19165, -1, -8.67213, 7.74246, 21.5775, 13.1665, 87.891, -114.302
2.19872, -1, -8.85289, 7.64924, 21.6142, 13.1687, 87.7935, -114.549
2.20771, -1, -9.03359, 7.55616, 21.651, 13.1709, 87.6961, -114.795
2.21566, -1, -9.21463, 7.46313, 21.6877, 13.1732, 87.599, -115.042
2.22274, -1, -9.39591, 7.37029, 21.7244, 13.1754, 87.5018, -115.288
2.23166, -1, -9.5775, 7.27746, 21.7611, 13.1776, 87.4047, -115.534
2.23966, -1, -9.7594, 7.18464, 21.7978, 13.1799, 87.3076, -115.78
2.24771, -1, -9.94174, 7.09188, 21.8343, 13.1821, 87.2104, -116.026
2.25566, -1, -10.1242, 6.99915, 21.8709, 13.1843, 87.1132, -116.272
2.26366, -1, -10.3069, 6.90639, 21.9075, 13.1866, 87.0161, -116.518
2.27065, -1, -10.4896, 6.81363, 21.9441, 13.1888, 86.9189, -116.763
2.2797, -1, -10.6718, 6.72091, 21.9807, 13.1911, 86.8219, -117.008
2.28766, -1, -10.8536, 6.62836, 22.0172, 13.1934, 86.7251, -117.254
2.29572, -1, -11.0349, 6.53578, 22.0536, 13.1959, 86.6282, -117.499
2.30366, -1, -11.2154, 6.44325, 22.0902, 13.1982, 86.5315, -117.744
2.31174, -1, -11.3953, 6.35079, 22.1267, 13.2007, 86.4348, -117.989
2.32065, -1, -11.575, 6.25837, 22.1631, 13.203, 86.338, -118.234
2.32766, -1, -11.7543, 6.16595, 22.1997, 13.2055, 86.2414, -118.479
2.33565, -1, -11.9335, 6.07368, 22.2361, 13.208, 86.1449, -118.723
2.34372, -1, -12.1127, 5.98143, 22.2725, 13.2104, 86.0482, -118.967
2.35168, -1, -12.2922, 5.88933, 22.309, 13.2129, 85.9519, -119.211
2.35967, -1, -12.4721, 5.79735, 22.3454, 13.2154, 85.8556, -119.455
2.36777, -1, -12.6523, 5.70529, 22.3816, 13.2179, 85.7592, -119.7
2.37565, -1, -12.833, 5.61332, 22.418, 13.2204, 85.6631, -119.943
2.38369, -1, -13.014, 5.52144, 22.4543, 13.2228, 85.5673, -120.187
2.39167, -1, -13.1952, 5.42943, 22.4905, 13.2253, 85.4712, -120.431
2.40077, -1, -13.3764, 5.33743, 22.5268, 13.2276, 85.3752, -120.675
2.40764, -1, -13.5573, 5.24551, 22.5631, 13.2302, 85.2796, -120.918
2.41572, -1, -13.7377, 5.15369, 22.5992, 13.2327, 85.1837, -121.161
2.42366, -1, -13.9177, 5.06181, 22.6353, 13.2353, 85.0879, -121.404
2.43168, -1, -14.0969, 4.97003, 22.6715, 13.2379, 84.9925, -121.647
2.43972, -1, -14.2753, 4.87833, 22.7076, 13.2404, 84.8967, -121.89
2.4477, -1, -14.4535, 4.78665, 22.7438, 13.243, 84.8012, -122.132
2.45565, -1, -14.6312, 4.69502, 22.78, 13.2455, 84.7057, -122.375
2.46372, -1, -14.8088, 4.60349, 22.8161, 13.248, 84.6099, -122.617
2.47168, -1, -14.9864, 4.51198, 22.8521, 13.2505, 84.5141, -122.86
2.47972, -1, -15.1642, 4.42064, 22.8883, 13.253, 84.4186, -123.102
2.48773, -1, -15.3424, 4.32936, 22.9244, 13.2554, 84.3228, -123.343
2.49577, -1, -15.5211, 4.23802, 22.9604, 13.2579, 84.2271, -123.585
2.50368, -1, -15.7002, 4.14674, 22.9964, 13.2601, 84.1318, -123.827
2.51179, -1, -15.8794, 4.05552, 23.0323, 13.2624, 84.0362, -124.069
2.51992, -1, -16.0587, 3.96427, 23.0683, 13.2646, 83.9407, -124.31
2.52774, -1, -16.2385, 3.87298, 23.1044, 13.2667, 83.8455, -124.552
2.53581, -1, -16.4181, 3.78182, 23.1403, 13.2689, 83.7498, -124.793
2.54406, -1, -16.5973, 3.69065, 23.176, 13.2711, 83.6544, -125.034
2.55184, -1, -16.776, 3.59955, 23.2119, 13.2734, 83.5592, -125.276
2.55971, -1, -16.9541, 3.50852, 23.2477, 13.2757, 83.4637, -125.517
2.56829, -1, -17.1313, 3.4175, 23.2835, 13.2778, 83.3684, -125.757
2.57576, -1, -17.3079, 3.3266, 23.3194, 13.2801, 83.2734, -125.998
2.58381, -1, -17.4844, 3.23574, 23.3552, 13.2823, 83.1782, -126.239
2.5925, -1, -17.6605, 3.14495, 23.391, 13.2844, 83.0832, -126.479
2.59987, -1, -17.8365, 3.05435, 23.4269, 13.2865, 82.9885, -126.719
2.60787, -1, -18.0126, 2.9638, 23.4627, 13.2886, 82.8936, -126.959
2.61673, -1, -18.189, 2.87343, 23.4984, 13.2908, 82.7988, -127.2
2.62407, -1, -18.3657, 2.783, 23.5342, 13.2929, 82.7042, -127.44
2.63064, -1, -18.4542, 2.73779, 23.5521, 13.2939, 82.6569, -127.559
2.64089, -1, -18.7205, 2.60225, 23.6056, 13.2969, 82.5148, -127.919
2.64827, -1, -18.8983, 2.51189, 23.6413, 13.299, 82.4204, -128.158
2.65617, -1, -19.0765, 2.42139, 23.677, 13.301, 82.3259, -128.398
2.66496, -1, -19.2547, 2.33099, 23.7125, 13.3029, 82.2316, -128.637
2.67225, -1, -19.4328, 2.24063, 23.7482, 13.305, 82.1375, -128.876
2.6805, -1, -19.5216, 2.19547, 23.7661, 13.3072, 82.0434, -129.115
2.68763, -1, -19.6986, 2.10513, 23.8015, 13.3083, 81.9962, -129.235
2.69569, -1, -19.8752, 2.01485, 23.8369, 13.3105, 81.902, -129.474
2.70363, -1, -20.051, 1.92459, 23.8726, 13.3126, 81.8082, -129.713
2.71165, -1, -20.2261, 1.83437, 23.9081, 13.3148, 81.7139, -129.951
2.71969, -1, -20.401, 1.74424, 23.9435, 13.317, 81.6199, -130.189
2.7277, -1, -20.5757, 1.65417, 23.9791, 13.3192, 81.5262, -130.428
2.73563, -1, -20.7501, 1.56421, 24.0146, 13.3214, 81.4321, -130.666
2.74369, -1, -20.9247, 1.4743, 24.05, 13.3236, 81.3383, -130.904
2.75166, -1, -21.0997, 1.3846, 24.0855, 13.3258, 81.2447, -131.142
2.75962, -1, -21.275, 1.29485, 24.121, 13.328, 81.1508, -131.38
2.76764, -1, -21.4507, 1.20513, 24.1563, 13.3302, 81.0569, -131.618
2.77563, -1, -21.6268, 1.11552, 24.1917, 13.3323, 80.9632, -131.855
2.78369, -1, -21.803, 1.02587, 24.2272, 13.3345, 80.8693, -132.092
2.79323, -1, -22.0676, 0.891435, 24.2802, 13.3377, 80.7286, -132.448
2.79962, -1, -22.1559, 0.846662, 24.2979, 13.3388, 80.682, -132.567
2.80921, -1, -22.3324, 0.757139, 24.3333, 13.341, 80.5883, -132.923
2.81571, -1, -22.5085, 0.667618, 24.3685, 13.3433, 80.4947, -133.041
2.82363, -1, -22.6841, 0.578132, 24.4037, 13.3457, 80.4012, -133.278
2.83173, -1, -22.8591, 0.488711, 24.439, 13.3481, 80.3075, -133.515
2.83963, -1, -23.0331, 0.399282, 24.4742, 13.3504, 80.214, -133.752
2.84768, -1, -23.2067, 0.309906, 24.5093, 13.3529, 80.1204, -133.989
2.85571, -1, -23.3801, 0.220568, 24.5445, 13.3553, 80.027, -134.225
2.86363, -1, -23.5531, 0.13136, 24.5797, 13.3577, 79.9336, -134.461
2.87164, -1, -23.7264, 0.0421978, 24.6149, 13.3601, 79.8402, -134.697
2.87971, -1, -23.8998, -0.0468886, 24.6501, 13.3626, 79.7473, -134.934
2.88763, -1, -24.0732, -0.135822, 24.6852, 13.365, 79.6539, -135.17
2.89563, -1, -24.2471, -0.224835, 24.7202, 13.3674, 79.5609, -135.405
2.90371, -1, -24.4212, -0.313794, 24.7554, 13.3699, 79.468, -135.641
2.91163, -1, -24.5956, -0.402609, 24.7905, 13.3723, 79.3748, -135.876
2.91963, -1, -24.7703, -0.491502, 24.8255, 13.3748, 79.2817, -136.112
2.92774, -1, -24.9454, -0.580414, 24.8606, 13.3771, 79.1889, -136.348
2.93562, -1, -25.1205, -0.669251, 24.8957, 13.3795, 79.0958, -136.583
2.94362, -1, -25.2953, -0.758038, 24.9307, 13.3819, 79.0029, -136.818
2.95172, -1, -25.4696, -0.846848, 24.9657, 13.3843, 78.9105, -137.053
2.95963, -1, -25.6435, -0.93564, 25.0006, 13.3868, 78.8175, -137.288
2.96764, -1, -25.8167, -1.02435, 25.0354, 13.3893, 78.7249, -137.522
2.97572, -1, -25.9893, -1.11306, 25.0704, 13.3917, 78.6326, -137.757
2.9837, -1, -26.1616, -1.20175, 25.1054, 13.3941, 78.5399, -137.991
2.99178, -1, -26.3335, -1.29028, 25.1402, 13.3965, 78.4474, -138.226
2.99974, -1, -26.5053, -1.37877, 25.1751, 13.3988, 78.3549, -138.461
3.00768, -1, -26.6772, -1.46711, 25.2101, 13.4011, 78.2625, -138.695
3.0158, -1, -26.8493, -1.55539, 25.245, 13.4033, 78.1701, -138.929
3.024, -1, -27.0216, -1.64354, 25.2798, 13.4056, 78.0777, -139.163
3.03174, -1, -27.1941, -1.73173, 25.3147, 13.4078, 77.9857, -139.397
3.0398, -1, -27.3667, -1.81992, 25.3495, 13.41, 77.8935, -139.631
3.04808, -1, -27.5398, -1.90795, 25.3842, 13.4121, 77.8014, -139.864
3.05527, -1, -27.6264, -1.99613, 25.419, 13.4142, 77.7095, -140.098
3.06388, -1, -27.8863, -2.08425, 25.4539, 13.4163, 77.6173, -140.331
3.07226, -1, -28.0597, -2.17226, 25.4886, 13.4183, 77.5253, -140.565
3.07967, -1, -28.2328, -2.26027, 25.5233, 13.4204, 77.4334, -140.798
3.08776, -1, -28.4058, -2.34832, 25.5581, 13.4224, 77.3411, -141.031
3.09656, -1, -28.5784, -2.43634, 25.5928, 13.4246, 77.249, -141.263
3.10404, -1, -28.7506, -2.5243, 25.6274, 13.4267, 77.1572, -141.496
3.11189, -1, -28.9219, -2.6123, 25.6622, 13.4289, 77.0651, -141.729
3.12089, -1, -29.0927, -2.70024, 25.6967, 13.4311, 76.9733, -141.962
3.12807, -1, -29.2633, -2.78808, 25.7313, 13.4332, 76.8816, -142.194
3.13463, -1, -29.3487, -2.83199, 25.7487, 13.4342, 76.8357, -142.311
3.14497, -1, -29.6047, -2.96355, 25.8007, 13.4373, 76.6978, -142.659
3.15232, -1, -29.7757, -3.05112, 25.8352, 13.4393, 76.6059, -142.892
3.1602, -1, -29.9467, -3.13862, 25.8698, 13.4415, 76.5141, -143.124
3.16819, -1, -30.1176, -3.22612, 25.9044, 13.4435, 76.4224, -143.356
3.17623, -1, -30.203, -3.31366, 25.9389, 13.4455, 76.3307, -143.588
3.18446, -1, -30.3743, -3.35737, 25.9735, 13.4476, 76.2393, -143.82
3.1922, -1, -30.5458, -3.44482, 25.9908, 13.4486, 76.1935, -143.936
3.19963, -1, -30.7176, -3.53237, 26.0252, 13.4506, 76.102, -144.168
3.20767, -1, -30.8895, -3.61972, 26.0596, 13.4527, 76.0108, -144.399
3.21562, -1, -31.0613, -3.70713, 26.0943, 13.4547, 75.9193, -144.63
3.22363, -1, -31.2329, -3.79446, 26.1287, 13.4568, 75.8279, -144.861
3.23167, -1, -31.4043, -3.88182, 26.1631, 13.4589, 75.7366, -145.093
3.23962, -1, -31.5752, -3.96913, 26.1976, 13.461, 75.6454, -145.324
3.24763, -1, -31.7457, -4.0564, 26.232, 13.4632, 75.5541, -145.555
3.25569, -1, -31.9157, -4.1437, 26.2664, 13.4654, 75.463, -145.786
3.26362, -1, -32.0854, -4.23092, 26.3008, 13.4675, 75.372, -146.017
3.27162, -1, -32.2548, -4.31806, 26.3352, 13.4697, 75.2808, -146.248
3.27968, -1, -32.4241, -4.40513, 26.3694, 13.4719, 75.1898, -146.478
3.28762, -1, -32.5938, -4.4921, 26.4038, 13.4741, 75.0992, -146.708
3.29564, -1, -32.7634, -4.57902, 26.4383, 13.4762, 75.0081, -146.939
3.30369, -1, -32.933, -4.66594, 26.4725, 13.4784, 74.9173, -147.169
3.31161, -1, -33.1028, -4.75288, 26.5067, 13.4805, 74.827, -147.399
3.32064, -1, -33.2726, -4.83975, 26.5411, 13.4828, 74.7361, -147.629
3.32768, -1, -33.4427, -4.92661, 26.5753, 13.485, 74.6455, -147.859
3.33667, -1, -33.613, -5.01358, 26.6095, 13.4872, 74.5549, -148.089
3.34401, -1, -33.7833, -5.10037, 26.6438, 13.4894, 74.4644, -148.319
3.35164, -1, -33.9536, -5.1871, 26.678, 13.4916, 74.3738, -148.549
3.35961, -1, -34.1238, -5.27385, 26.7121, 13.4939, 74.2833, -148.778
3.36836, -1, -34.2938, -5.36056, 26.7463, 13.4962, 74.1929, -149.007
3.37561, -1, -34.4639, -5.44716, 26.7806, 13.4985, 74.1022, -149.237
3.38361, -1, -34.6335, -5.53384, 26.8147, 13.5008, 74.0116, -149.466
3.39176, -1, -34.8024, -5.62049, 26.8488, 13.5032, 73.9212, -149.696
3.39961, -1, -34.9711, -5.70706, 26.883, 13.5057, 73.8305, -149.925
3.40761, -1, -35.1394, -5.79356, 26.9171, 13.5082, 73.7401, -150.153
3.4168, -1, -35.3075, -5.87997, 26.9511, 13.5106, 73.6499, -150.382
3.42361, -1, -35.4759, -5.96618, 26.9853, 13.513, 73.5595, -150.612
3.4317, -1, -35.6444, -6.05236, 27.0193, 13.5153, 73.4691, -150.84
3.43962, -1, -35.813, -6.13855, 27.0533, 13.5177, 73.379, -151.069
3.44761, -1, -35.9815, -6.22467, 27.0874, 13.5201, 73.2884, -151.297
3.45569, -1, -36.15, -6.31076, 27.1215, 13.5225, 73.1981, -151.526
3.46362, -1, -36.3186, -6.39688, 27.1554, 13.5249, 73.1077, -151.755
3.47162, -1, -36.4874, -6.48304, 27.1893, 13.5273, 73.0173, -151.983
3.47969, -1, -36.6562, -6.56921, 27.2233, 13.5296, 72.9271, -152.211
3.48777, -1, -36.8251, -6.6554, 27.2572, 13.5319, 72.8368, -152.439
3.49561, -1, -36.9941, -6.74146, 27.2911, 13.5343, 72.7468, -152.667
3.5037, -1, -37.163, -6.82758, 27.3251, 13.5365, 72.6567, -152.895
3.51204, -1, -37.3317, -6.91363, 27.3589, 13.5387, 72.5668, -153.123
3.51916, -1, -37.5001, -6.9996, 27.3928, 13.541, 72.4771, -153.351
3.52782, -1, -37.6681, -7.08562, 27.4269, 13.5433, 72.387, -153.578
3.53584, -1, -37.8358, -7.17159, 27.4607, 13.5455, 72.2972, -153.806
3.54372, -1, -38.0033, -7.25747, 27.4946, 13.5478, 72.2076, -154.033
3.5518, -1, -38.1707, -7.34334, 27.5285, 13.5499, 72.1177, -154.261
3.56014, -1, -38.338, -7.42911, 27.5624, 13.5522, 72.028, -154.488
3.56774, -1, -38.5053, -7.51477, 27.5962, 13.5542, 71.9385, -154.715
3.57572, -1, -38.6725, -7.60049, 27.6301, 13.5563, 71.8488, -154.942
3.58364, -1, -38.8398, -7.68616, 27.6639, 13.5583, 71.7593, -155.169
3.59169, -1, -39.0071, -7.77185, 27.6976, 13.5604, 71.67, -155.396
3.60005, -1, -39.1746, -7.85747, 27.7314, 13.5625, 71.5808, -155.623
3.60786, -1, -39.3421, -7.94317, 27.7653, 13.5645, 71.4913, -155.85
3.61586, -1, -39.5095, -8.02877, 27.799, 13.5665, 71.4019, -156.076
3.62402, -1, -39.6772, -8.11431, 27.8326, 13.5684, 71.3128, -156.303
3.63061, -1, -39.7611, -8.15707, 27.8495, 13.5694, 71.268, -156.416
3.64005, -1, -40.0125, -8.2853, 27.9001, 13.5723, 71.1339, -156.756
3.64663, -1, -40.0963, -8.328, 27.9169, 13.5733, 71.0892, -156.869
3.65617, -1, -40.3474, -8.45607, 27.9675, 13.5763, 70.9553, -157.209
3.66415, -1, -40.5146, -8.54148, 28.0012, 13.5782, 70.8661, -157.435
3.67226, -1, -40.6816, -8.62684, 28.0348, 13.5803, 70.7769, -157.661
3.68018, -1, -40.765, -8.66954, 28.0684, 13.5823, 70.6877, -157.887
3.68831, -1, -40.9316, -8.79756, 28.1022, 13.5843, 70.5986, -158.113
3.6964, -1, -41.0979, -8.84021, 28.119, 13.5853, 70.554, -158.226
3.7036, -1, -41.2641, -8.92547, 28.1525, 13.5873, 70.465, -158.452
3.71162, -1, -41.4303, -9.01063, 28.1861, 13.5892, 70.3757, -158.677
3.71966, -1, -41.5965, -9.0958, 28.2198, 13.5913, 70.2865, -158.903
3.72766, -1, -41.7629, -9.18094, 28.2534, 13.5933, 70.1975, -159.128
3.7356, -1, -41.9293, -9.26601, 28.2869, 13.5953, 70.1084, -159.354
3.74361, -1, -42.0956, -9.35101, 28.3206, 13.5974, 70.0194, -159.579
3.75161, -1, -42.2618, -9.43612, 28.3542, 13.5994, 69.9305, -159.804
3.75964, -1, -42.4281, -9.52118, 28.3877, 13.6014, 69.8417, -160.03
3.76768, -1, -42.5944, -9.60617, 28.4212, 13.6034, 69.7526, -160.255
3.7757, -1, -42.7608, -9.69112, 28.4547, 13.6054, 69.6637, -160.48
3.78366, -1, -42.9273, -9.77611, 28.4881, 13.6075, 69.5751, -160.705
3.79161, -1, -43.0938, -9.86105, 28.5216, 13.6095, 69.4861, -160.93
3.7996, -1, -43.26, -9.94601, 28.5551, 13.6116, 69.3975, -161.154
3.80773, -1, -43.4262, -10.031, 28.5886, 13.6137, 69.309, -161.379
3.81559, -1, -43.5921, -10.1159, 28.6221, 13.6158, 69.2203, -161.604
3.82462, -1, -43.7579, -10.2009, 28.6556, 13.6179, 69.1318, -161.829
3.83168, -1, -43.9237, -10.2858, 28.6889, 13.62, 69.0433, -162.053
3.8396, -1, -44.0893, -10.3706, 28.7223, 13.6222, 68.9548, -162.277
3.84768, -1, -44.2546, -10.4553, 28.7558, 13.6243, 68.8662, -162.502
3.8557, -1, -44.4198, -10.5399, 28.7892, 13.6265, 68.7775, -162.726
3.8636, -1, -44.5849, -10.6245, 28.8226, 13.6287, 68.689, -162.95
3.87161, -1, -44.7501, -10.7091, 28.856, 13.6309, 68.6003, -163.174
3.87966, -1, -44.9154, -10.7936, 28.8895, 13.6332, 68.5117, -163.398
3.88768, -1, -45.0808, -10.8781, 28.9228, 13.6353, 68.4235, -163.623
3.8956, -1, -45.2461, -10.9627, 28.9562, 13.6375, 68.3349, -163.847
3.90371, -1, -45.4114, -11.0472, 28.9897, 13.6398, 68.2466, -164.071
3.91159, -1, -45.5767, -11.1317, 29.0229, 13.6421, 68.1584, -164.295
3.91959, -1, -45.7421, -11.2162, 29.0561, 13.6444, 68.0701, -164.518
3.92774, -1, -45.907, -11.3005, 29.0895, 13.6466, 67.9817, -164.742
3.93559, -1, -46.07, -11.3837, 29.1229, 13.6489, 67.8933, -164.965
3.94359, -1, -46.2293, -11.4648, 29.1564, 13.6512, 67.8057, -165.188
3.95166, -1, -46.3831, -11.542, 29.1901, 13.6536, 67.719, -165.406
3.95959, -1, -46.529, -11.6145, 29.2231, 13.656, 67.6354, -165.618
3.9677, -1, -46.6646, -11.6812, 29.2543, 13.6583, 67.5574, -165.816
3.97568, -1, -46.7871, -11.7408, 29.2824, 13.6604, 67.4862, -165.995
3.98359, -1, -46.8938, -11.7933, 29.3068, 13.6623, 67.4248, -166.151
3.99166, -1, -46.9842, -11.8391, 29.3261, 13.6637, 67.3747, -166.278
3.99969, -1, -47.0587, -11.879, 29.3398, 13.6647, 67.3357, -166.376
4.00766, -1, -47.1182, -11.912, 29.3489, 13.6653, 67.3076, -166.447
4.01563, -1, -47.1634, -11.9376, 29.3542, 13.6656, 67.2888, -166.494
4.02378, -1, -47.1962, -11.9562, 29.3568, 13.6658, 67.2773, -166.523
4.03171, -1, -47.2187, -11.9686, 29.358, 13.6659, 67.2708, -166.54
4.0397, -1, -47.2328, -11.9763, 29.3586, 13.6659, 67.2675, -166.548
4.04806, -1, -47.2406, -11.9804, 29.3589, 13.666, 67.2659, -166.552
4.0557, 2, -47.2442, -11.9823, 29.359, 13.666, 67.2651, -166.554
4.06365, 2, -47.2449, -11.9832, 29.3592, 13.666, 67.2647, -166.555
4.07173, 2, -47.2447, -11.9834, 29.3592, 13.6661, 67.2646, -166.555
4.07963, 2, -47.2445, -11.9835, 29.3593, 13.6661, 67.2645, -166.555
4.08771, 2, -47.2446, -11.9836, 29.3593, 13.6661, 67.2645, -166.555
4.09578, 2, -47.2453, -11.9837, 29.3593, 13.6661, 67.2645, -166.555
4.10379, 2, -47.2464, -11.9841, 29.3594, 13.6661, 67.2645, -166.555
4.11211, 2, -47.248, -11.9848, 29.3594, 13.6661, 67.2645, -166.555
4.1186, 2, -47.2489, -11.9852, 29.3594, 13.6661, 67.2644, -166.555
4.12801, 2, -47.2512, -11.9865, 29.3593, 13.6661, 67.2645, -166.555
4.13625, 2, -47.2524, -11.9873, 29.3593, 13.6661, 67.2645, -166.555
4.14411, 2, -47.2531, -11.9878, 29.3593, 13.6661, 67.2645, -166.555
4.15215, 2, -47.2534, -11.988, 29.3593, 13.6661, 67.2645, -166.555
4.16051, 2, -47.2535, -11.9882, 29.3594, 13.6661, 67.2645, -166.555
4.16824, 2, -47.2535, -11.9882, 29.3594, 13.6661, 67.2645, -166.555
4.17639, 2, -47.253, -11.9882, 29.3594, 13.6661, 67.2645, -166.555
4.18435, 2, -47.2524, -11.9881, 29.3594, 13.6661, 67.2645, -166.555
4.19231, 2, -47.2522, -11.9881, 29.3594, 13.6661, 67.2645, -166.555
4.19958, 2, -47.2519, -11.9881, 29.3594, 13.6661, 67.2645, -166.555
4.20848, 2, -47.2517, -11.9881, 29.3594, 13.6661, 67.2645, -166.555
4.21563, 2, -47.2517, -11.9882, 29.3594, 13.6661, 67.2645, -166.555
4.22358, 2, -47.2519, -11.9884, 29.3594, 13.6661, 67.2645, -166.555
4.23159, 2, -47.2521, -11.9887, 29.3594, 13.6661, 67.2645, -166.555
4.23966, 2, -47.2527, -11.989, 29.3594, 13.6661, 67.2645, -166.555
4.24766, 2, -47.2533, -11.9893, 29.3594, 13.666, 67.2645, -166.555
4.25558, 2, -47.2536, -11.9895, 29.3594, 13.666, 67.2645, -166.555
4.26363, 2, -47.2538, -11.9896, 29.3594, 13.666, 67.2645, -166.555
4.27158, 2, -47.2538, -11.9896, 29.3594, 13.6661, 67.2645, -166.555
4.27958, 2, -47.2537, -11.9896, 29.3594, 13.6661, 67.2645, -166.555
4.28773, 2, -47.2535, -11.9895, 29.3594, 13.666, 67.2645, -166.555
4.29558, 2, -47.253, -11.9894, 29.3594, 13.666, 67.2645, -166.555
4.30359, 2, -47.2527, -11.9894, 29.3594, 13.6661, 67.2645, -166.555
4.31165, 2, -47.2524, -11.9894, 29.3594, 13.666, 67.2645, -166.555
4.31958, 2, -47.2522, -11.9894, 29.3594, 13.666, 67.2645, -166.555
4.32948, 2, -47.2521, -11.9895, 29.3594, 13.666, 67.2645, -166.555
4.33565, 2, -47.2521, -11.9895, 29.3594, 13.666, 67.2645, -166.555
4.34364, 2, -47.252, -11.9896, 29.3594, 13.666, 67.2646, -166.555
4.35158, 2, -47.252, -11.9896, 29.3594, 13.666, 67.2646, -166.555
4.35969, 2, -47.252, -11.9896, 29.3594, 13.666, 67.2646, -166.555
4.36766, 2, -47.2521, -11.9896, 29.3594, 13.666, 67.2646, -166.555
4.37558, 2, -47.2521, -11.9896, 29.3594, 13.666, 67.2646, -166.555
4.38364, 2, -47.2521, -11.9896, 29.3594, 13.666, 67.2646, -166.555
4.39158, 2, -47.252, -11.9895, 29.3594, 13.666, 67.2646, -166.555
4.39958, 2, -47.2519, -11.9894, 29.3594, 13.666, 67.2646, -166.555
4.40773, 2, -47.2518, -11.9894, 29.3594, 13.666, 67.2646, -166.555
4.41558, 2, -47.2517, -11.9894, 29.3594, 13.666, 67.2646, -166.555
4.42358, 2, -47.2516, -11.9894, 29.3594, 13.666, 67.2646, -166.555
4.43165, 2, -47.2515, -11.9894, 29.3594, 13.666, 67.2646, -166.555
4.43958, 2, -47.2514, -11.9894, 29.3594, 13.666, 67.2646, -166.555
4.44765, 2, -47.2514, -11.9894, 29.3594, 13.666, 67.2647, -166.555
4.45564, 2, -47.2513, -11.9894, 29.3594, 13.6659, 67.2646, -166.555
4.46358, 2, -47.2513, -11.9894, 29.3594, 13.666, 67.2646, -166.555
4.47158, 2, -47.2513, -11.9894, 29.3594, 13.666, 67.2646, -166.555
4.47965, 2, -47.2512, -11.9894, 29.3594, 13.6659, 67.2646, -166.555
4.48766, 2, -47.2511, -11.9894, 29.3594, 13.666, 67.2646, -166.555
4.49564, 2, -47.251, -11.9894, 29.3594, 13.666, 67.2647, -166.555
4.50365, 2, -47.251, -11.9893, 29.3594, 13.666, 67.2647, -166.555
4.51158, 2, -47.2509, -11.9892, 29.3594, 13.666, 67.2647, -166.555
4.51962, 2, -47.2508, -11.9892, 29.3594, 13.666, 67.2647, -166.555
4.52785, 2, -47.2507, -11.9892, 29.3594, 13.666, 67.2647, -166.555
4.53569, 2, -47.2506, -11.9892, 29.3594, 13.666, 67.2646, -166.555
4.54369, 2, -47.2505, -11.9892, 29.3594, 13.6659, 67.2647, -166.555
4.55176, 2, -47.2504, -11.9892, 29.3594, 13.6659, 67.2647, -166.555
4.5597, 2, -47.2503, -11.9892, 29.3594, 13.666, 67.2647, -166.555
4.56777, 2, -47.2502, -11.9892, 29.3594, 13.666, 67.2647, -166.555
4.57565, 2, -47.2501, -11.9892, 29.3594, 13.666, 67.2646, -166.555
4.58361, 2, -47.25, -11.9891, 29.3594, 13.666, 67.2646, -166.555
4.59161, 2, -47.2499, -11.9891, 29.3594, 13.6659, 67.2646, -166.555
4.59976, 2, -47.2498, -11.9891, 29.3594, 13.6659, 67.2647, -166.555
4.60778, 2, -47.2497, -11.989, 29.3594, 13.6659, 67.2647, -166.555
4.61613, 2, -47.2496, -11.9889, 29.3594, 13.6659, 67.2647, -166.555
4.6226, 2, -47.2495, -11.9889, 29.3594, 13.6659, 67.2647, -166.555
4.6319, 2, -47.2494, -11.9889, 29.3594, 13.6659, 67.2647, -166.555
4.63863, 2, -47.2493, -11.9889, 29.3594, 13.6659, 67.2647, -166.555
4.6483, 2, -47.2492, -11.9888, 29.3594, 13.6659, 67.2647, -166.555
4.65609, 2, -47.2491, -11.9888, 29.3594, 13.666, 67.2647, -166.555
4.6643, 2, -47.249, -11.9888, 29.3594, 13.6659, 67.2647, -166.555
4.67222, 2, -47.249, -11.9888, 29.3594, 13.6659, 67.2647, -166.555
4.68024, 2, -47.249, -11.9888, 29.3594, 13.6659, 67.2648, -166.555
4.68823, 2, -47.2489, -11.9888, 29.3594, 13.6658, 67.2647, -166.555
4.69632, 2, -47.2488, -11.9888, 29.3594, 13.6658, 67.2647, -166.555
4.70357, 2, -47.2488, -11.9888, 29.3594, 13.6658, 67.2647, -166.555
4.71157, 2, -47.2488, -11.9887, 29.3594, 13.6658, 67.2647, -166.555
4.71962, 2, -47.2487, -11.9886, 29.3594, 13.6658, 67.2647, -166.555
4.72764, 2, -47.2486, -11.9886, 29.3594, 13.6658, 67.2647, -166.555
4.73557, 2, -47.2485, -11.9886, 29.3594, 13.6658, 67.2647, -166.555
4.74367, 2, -47.2484, -11.9885, 29.3594, 13.6658, 67.2647, -166.555
4.75157, 2, -47.2484, -11.9885, 29.3594, 13.6658, 67.2647, -166.555
4.75957, 2, -47.2484, -11.9885, 29.3594, 13.6658, 67.2647, -166.555
4.76772, 2, -47.2484, -11.9885, 29.3594, 13.6658, 67.2647, -166.555
4.77557, 2, -47.2483, -11.9885, 29.3594, 13.6658, 67.2648, -166.555
4.78356, 2, -47.2483, -11.9885, 29.3594, 13.6658, 67.2648, -166.554
4.79162, 2, -47.2482, -11.9885, 29.3594, 13.6657, 67.2648, -166.554
4.79957, 2, -47.2482, -11.9885, 29.3594, 13.6657, 67.2647, -166.555
4.80767, 2, -47.2482, -11.9884, 29.3594, 13.6656, 67.2647, -166.555
4.81562, 2, -47.2482, -11.9884, 29.3594, 13.6657, 67.2648, -166.554
4.82516, 2, -47.2481, -11.9883, 29.3594, 13.6657, 67.2648, -166.554
4.83163, 2, -47.248, -11.9882, 29.3594, 13.6657, 67.2648, -166.554
4.84057, 2, -47.2479, -11.9882, 29.3594, 13.6657, 67.2648, -166.554
4.84764, 2, -47.2479, -11.9882, 29.3594, 13.6657, 67.2648, -166.554
4.85658, 2, -47.2478, -11.9882, 29.3594, 13.6657, 67.2648, -166.554
4.86367, 2, -47.2477, -11.9882, 29.3594, 13.6656, 67.2648, -166.554
4.87165, 2, -47.2477, -11.9882, 29.3594, 13.6656, 67.2648, -166.554
4.87957, 2, -47.2477, -11.9882, 29.3594, 13.6656, 67.2648, -166.554
4.88772, 2, -47.2477, -11.9882, 29.3594, 13.6656, 67.2648, -166.554
4.89557, 2, -47.2477, -11.9881, 29.3594, 13.6656, 67.2649, -166.554
4.90356, 2, -47.2476, -11.9881, 29.3594, 13.6656, 67.2648, -166.554
4.91163, 2, -47.2476, -11.9881, 29.3594, 13.6656, 67.2648, -166.554
4.91957, 2, -47.2475, -11.988, 29.3594, 13.6656, 67.2649, -166.554
4.92763, 2, -47.2475, -11.9879, 29.3594, 13.6656, 67.2649, -166.554
4.93572, 2, -47.2474, -11.9879, 29.3594, 13.6655, 67.265, -166.554
4.94356, 2, -47.2473, -11.9879, 29.3594, 13.6655, 67.265, -166.554
4.95156, 2, -47.2472, -11.9879, 29.3594, 13.6656, 67.265, -166.554
4.95963, 2, -47.2471, -11.9879, 29.3594, 13.6655, 67.265, -166.554
4.96763, 2, -47.2471, -11.9878, 29.3594, 13.6655, 67.265, -166.554
4.97556, 2, -47.2471, -11.9878, 29.3594, 13.6655, 67.265, -166.554
4.98363, 2, -47.2471, -11.9878, 29.3594, 13.6654, 67.265, -166.554
4.99156, 2, -47.2471, -11.9878, 29.3594, 13.6654, 67.265, -166.554
4.99964, 2, -47.247, -11.9878, 29.3594, 13.6654, 67.265, -166.554
5.00774, 2, -47.247, -11.9878, 29.3594, 13.6655, 67.2651, -166.554
5.01559, 2, -47.247, -11.9877, 29.3594, 13.6654, 67.2651, -166.554
5.02363, 2, -47.2469, -11.9876, 29.3594, 13.6654, 67.265, -166.554
5.03177, 2, -47.2468, -11.9876, 29.3594, 13.6654, 67.265, -166.554
5.03966, 2, -47.2467, -11.9876, 29.3594, 13.6654, 67.265, -166.554
5.04774, 2, -47.2466, -11.9875, 29.3594, 13.6654, 67.265, -166.554
5.0559, 2, -47.2466, -11.9875, 29.3594, 13.6654, 67.265, -166.554
5.0671, 2, -47.2465, -11.9875, 29.3594, 13.6654, 67.265, -166.554
5.07178, 2, -47.2464, -11.9875, 29.3594, 13.6653, 67.265, -166.554
5.0796, 2, -47.2464, -11.9875, 29.3594, 13.6653, 67.265, -166.554
5.0877, 2, -47.2464, -11.9875, 29.3594, 13.6653, 67.2651, -166.554
5.09572, 2, -47.2463, -11.9875, 29.3594, 13.6652, 67.2651, -166.554
5.10368, 2, -47.2464, -11.9875, 29.3594, 13.6652, 67.2651, -166.554
5.11211, 2, -47.2464, -11.9874, 29.3594, 13.6652, 67.2651, -166.554
5.11989, 2, -47.2463, -11.9874, 29.3594, 13.6651, 67.2651, -166.554
5.12794, 2, -47.2462, -11.9873, 29.3594, 13.6651, 67.2651, -166.554
5.13463, 2, -47.2462, -11.9873, 29.3594, 13.6651, 67.2652, -166.554
5.14405, 4, -47.2461, -11.9872, 29.3594, 13.6652, 67.2652, -166.554
5.15057, 4, -47.2461, -11.9872, 29.3594, 13.6652, 67.2652, -166.554
5.16017, 4, -47.246, -11.9872, 29.3594, 13.6651, 67.2652, -166.554
5.16831, 4, -47.2459, -11.9872, 29.3594, 13.6651, 67.2652, -166.554
5.17612, 4, -47.2459, -11.9872, 29.3594, 13.6651, 67.2652, -166.554
5.18419, 4, -47.2459, -11.9872, 29.3594, 13.6651, 67.2652, -166.554
5.19228, 4, -47.2458, -11.9872, 29.3594, 13.6651, 67.2652, -166.554
5.20013, 4, -47.2458, -11.9872, 29.3594, 13.6651, 67.2652, -166.554
5.20763, 4, -47.2457, -11.9871, 29.3594, 13.6651, 67.2652, -166.554
5.2156, 4, -47.2457, -11.9871, 29.3594, 13.6651, 67.2653, -166.554
5.22443, 4, -47.2457, -11.9871, 29.3594, 13.6651, 67.2653, -166.554
5.23155, 4, -47.2456, -11.987, 29.3594, 13.665, 67.2652, -166.554
5.23976, 4, -47.2456, -11.987, 29.3594, 13.665, 67.2652, -166.554
5.25168, 4, -47.2455, -11.9869, 29.3594, 13.665, 67.2653, -166.554
5.25573, 4, -47.2455, -11.9869, 29.3594, 13.665, 67.2653, -166.554
5.2654, 4, -47.2454, -11.9869, 29.3594, 13.665, 67.2652, -166.553
5.27314, 4, -47.2453, -11.9869, 29.3594, 13.665, 67.2652, -166.553
5.27972, 4, -47.2453, -11.9869, 29.3594, 13.665, 67.2652, -166.553
5.28784, 4, -47.2453, -11.9869, 29.3594, 13.6649, 67.2652, -166.553
5.29578, 4, -47.2453, -11.9869, 29.3593, 13.6649, 67.2652, -166.553
5.30371, 4, -47.2453, -11.9868, 29.3593, 13.6648, 67.2652, -166.553
5.31526, 4, -47.2452, -11.9868, 29.3593, 13.6649, 67.2653, -166.553
5.32174, 4, -47.2452, -11.9868, 29.3594, 13.6649, 67.2653, -166.553
5.33137, 4, -47.2452, -11.9867, 29.3594, 13.6648, 67.2653, -166.553
5.33861, 4, -47.2452, -11.9867, 29.3594, 13.6648, 67.2653, -166.553
5.34372, 4, -47.2451, -11.9867, 29.3594, 13.6649, 67.2653, -166.553
5.35471, 4, -47.245, -11.9867, 29.3594, 13.6648, 67.2653, -166.553
5.36221, 4, -47.245, -11.9866, 29.3594, 13.6648, 67.2653, -166.553
5.36787, 4, -47.245, -11.9866, 29.3594, 13.6648, 67.2653, -166.553
5.37659, 4, -47.2449, -11.9866, 29.3594, 13.6648, 67.2653, -166.553
5.38371, 4, -47.2449, -11.9866, 29.3594, 13.6648, 67.2653, -166.553
5.39571, 4, -47.2448, -11.9866, 29.3594, 13.6648, 67.2653, -166.553
5.39971, 4, -47.2448, -11.9866, 29.3594, 13.6647, 67.2653, -166.553
5.40784, 4, -47.245, -11.9867, 29.3594, 13.6648, 67.2653, -166.553
5.41659, 4, -47.2459, -11.9871, 29.3598, 13.6649, 67.2654, -166.553
5.4285, 4, -47.25, -11.9906, 29.3638, 13.6701, 67.2669, -166.553
5.43444, 4, -47.2556, -11.997, 29.3724, 13.6866, 67.2708, -166.55
5.44312, 4, -47.2597, -12.0021, 29.3799, 13.7015, 67.2747, -166.543
5.44841, 4, -47.2713, -12.0173, 29.4046, 13.7506, 67.2884, -166.537
5.45576, 5, -47.2895, -12.0416, 29.4473, 13.8386, 67.313, -166.517
5.46381, 5, -47.3164, -12.077, 29.5142, 13.9789, 67.3527, -166.486
5.47282, 5, -47.354, -12.1254, 29.6119, 14.1867, 67.4099, -166.438
5.47978, 5, -47.404, -12.1881, 29.7445, 14.4727, 67.489, -166.372
5.49107, 5, -47.503, -12.3103, 30.0139, 15.0596, 67.6476, -166.237
5.49579, 5, -47.5422, -12.3586, 30.1231, 15.2965, 67.7112, -166.183
5.50474, 5, -47.6298, -12.4662, 30.3688, 15.8256, 67.8518, -166.064
5.51472, 5, -47.7282, -12.5868, 30.6467, 16.4169, 68.0073, -165.93
5.51982, 5, -47.8355, -12.7189, 30.9523, 17.0555, 68.1725, -165.788
5.53139, 5, -48.0086, -12.9336, 31.4475, 18.0696, 68.4294, -165.567
5.53585, 5, -48.0685, -13.0082, 31.6193, 18.4152, 68.5152, -165.492
5.54387, 5, -48.1897, -13.1595, 31.9678, 19.1097, 68.6856, -165.345
5.55187, 5, -48.3111, -13.3104, 32.3196, 19.7995, 68.8521, -165.199
5.56145, 5, -48.4298, -13.4575, 32.6698, 20.4741, 69.0142, -165.052
5.56792, 5, -48.5416, -13.5983, 33.0133, 21.1238, 69.1729, -164.898
5.57672, 6, -48.6418, -13.7302, 33.3438, 21.7366, 69.3303, -164.724
5.58479, 6, -48.726, -13.8519, 33.6572, 22.305, 69.4889, -164.518
5.59443, 7, -48.7906, -13.9645, 33.9503, 22.8244, 69.6509, -164.267
5.59996, 7, -48.8335, -14.0693, 34.2233, 23.2937, 69.8178, -163.959
5.60973, 8, -48.8537, -14.1659, 34.4768, 23.7185, 69.9915, -163.587
5.61598, 8, -48.8537, -14.2531, 34.7141, 24.1072, 70.173, -163.151
5.62484, 8, -48.8369, -14.3317, 34.94, 24.4699, 70.3628, -162.654
5.63233, 9, -48.8059, -14.4036, 35.1571, 24.8171, 70.5618, -162.106
5.64106, 9, -48.7631, -14.4712, 35.3698, 25.1583, 70.7702, -161.518
5.6505, 10, -48.7107, -14.5364, 35.5816, 25.4998, 70.9877, -160.903
5.65714, 10, -48.6494, -14.6007, 35.7936, 25.8454, 71.2133, -160.272
5.66489, 11, -48.5805, -14.6645, 36.0061, 26.1965, 71.4445, -159.634
5.67313, 11, -48.5057, -14.7278, 36.2193, 26.5536, 71.6786, -158.995
5.68075, 11, -48.4275, -14.7908, 36.4312, 26.9176, 71.915, -158.356
5.6954, 12, -48.3484, -14.8529, 36.6411, 27.2888, 72.2726, -157.394
5.69794, 13, -48.2692, -14.9128, 36.8496, 27.6682, 72.393, -157.071
5.70549, 13, -48.2297, -14.9704, 37.056, 28.0561, 72.6363, -156.424
5.71236, 14, -48.1497, -14.999, 37.1583, 28.4518, 72.8826, -155.77
5.72349, 14, -48.0242, -15.0866, 37.4637, 28.8541, 73.1322, -155.113
5.72941, 15, -47.9805, -15.1166, 37.5651, 29.0568, 73.3831, -154.456
5.73795, 15, -47.843, -15.2068, 37.8666, 29.6672, 73.6329, -153.802
5.74376, 16, -47.7945, -15.2363, 37.9663, 29.8702, 73.7566, -153.477
5.75166, 16, -47.6924, -15.2951, 38.1647, 30.2733, 74.0004, -152.83
5.75977, 17, -47.5833, -15.3551, 38.3611, 30.6719, 74.2384, -152.191
5.77333, 17, -47.3481, -15.481, 38.744, 31.4539, 74.6948, -150.931
5.77575, 18, -47.3481, -15.481, 38.744, 31.4539, 74.6948, -150.931
5.78671, 18, -47.1586, -15.5788, 39.0239, 32.0293, 75.0216, -150.005
5.79175, 19, -47.0927, -15.6125, 39.1155, 32.2199, 75.128, -149.7
5.7997, 19, -46.9564, -15.6824, 39.2971, 32.6006, 75.338, -149.093
5.80783, 20, -46.8145, -15.755, 39.4775, 32.9808, 75.5441, -148.491
5.81811, 20, -46.5925, -15.8661, 39.7445, 33.5502, 75.8462, -147.603
5.82712, 21, -46.4398, -15.9411, 39.9196, 33.929, 76.0426, -147.018
5.83469, 21, -46.284, -16.0173, 40.0931, 34.3073, 76.2351, -146.44
5.84551, 22, -46.1246, -16.0951, 40.265, 34.8734, 76.5167, -145.583
5.84782, 22, -46.0434, -16.1346, 40.3499, 34.8734, 76.5167, -145.583
5.8557, 23, -45.8772, -16.215, 40.5172, 35.2491, 76.7003, -145.02
5.86376, 23, -45.705, -16.2973, 40.6819, 35.6219, 76.8795, -144.46
5.87472, 24, -45.4324, -16.4253, 40.9228, 36.1732, 77.1388, -143.631
5.87979, 24, -45.3375, -16.4691, 41.0009, 36.3536, 77.222, -143.358
5.8903, 25, -45.0413, -16.6035, 41.2284, 36.8813, 77.4603, -142.547
5.89573, 25, -44.9389, -16.6488, 41.3021, 37.0522, 77.5358, -142.279
5.90865, 26, -44.6222, -16.786, 41.5163, 37.5495, 77.7501, -141.484
5.91167, 26, -44.5131, -16.8323, 41.5853, 37.7104, 77.8182, -141.221
5.92286, 27, -44.175, -16.9725, 41.7842, 38.1807, 78.0147, -140.437
5.92776, 27, -44.059, -17.0193, 41.8477, 38.3336, 78.0783, -140.176
5.93674, 28, -43.822, -17.1125, 41.9704, 38.6346, 78.2037, -139.655
5.94369, 28, -43.578, -17.2045, 42.0865, 38.9292, 78.327, -139.133
5.95169, 29, -43.3267, -17.2949, 42.1957, 39.2171, 78.4491, -138.612
5.96376, 29, -42.9376, -17.4268, 42.3463, 39.6362, 78.6296, -137.828
5.97164, 30, -42.6701, -17.5117, 42.4374, 39.9063, 78.7474, -137.305
5.97577, 30, -42.5334, -17.5531, 42.4803, 40.0382, 78.8056, -137.043
5.98479, 31, -42.254, -17.6336, 42.5606, 40.2956, 78.9192, -136.521
5.99178, 31, -41.9667, -17.7115, 42.6338, 40.544, 79.0297, -136
5.99973, 32, -41.6721, -17.7869, 42.7001, 40.7833, 79.1369, -135.479
6.01095, 32, -41.2178, -17.8949, 42.7868, 41.1252, 79.2906, -134.701
6.01569, 33, -41.063, -17.9295, 42.8121, 41.2351, 79.3404, -134.442
6.025, 33, -40.748, -17.9966, 42.8575, 41.4487, 79.4381, -133.926
6.03374, 34, -40.4263, -18.0613, 42.8955, 41.654, 79.533, -133.41
6.04178, 34, -40.0995, -18.1238, 42.9262, 41.8517, 79.6257, -132.895
6.04784, 35, -39.7677, -18.1835, 42.9498, 42.0415, 79.7165, -132.381
6.05617, 35, -39.4303, -18.2395, 42.9664, 42.224, 79.8044, -131.868
6.06629, 36, -39.0863, -18.292, 42.976, 42.399, 79.8906, -131.356
6.07235, 36, -38.7349, -18.3411, 42.9789, 42.566, 79.9744, -130.846
6.0801, 37, -38.3772, -18.3869, 42.9752, 42.7255, 80.0562, -130.336
6.08861, 37, -38.0139, -18.4293, 42.9647, 42.8774, 80.136, -129.829
6.09584, 38, -37.6453, -18.4678, 42.9473, 43.022, 80.2137, -129.323
6.10763, 38, -37.272, -18.5029, 42.909, 43.2249, 80.3266, -128.567
6.11468, 39, -36.8939, -18.5347, 42.8928, 43.2889, 80.3627, -128.316
6.12077, 39, -36.5113, -18.5628, 42.8555, 43.4114, 80.4341, -127.816
6.12888, 40, -36.1234, -18.5871, 42.8115, 43.5264, 80.5036, -127.317
6.13685, 40, -35.7291, -18.6077, 42.761, 43.6344, 80.5714, -126.82
6.14409, 41, -35.329, -18.6242, 42.7038, 43.7351, 80.6373, -126.325
6.15613, 41, -34.7188, -18.6424, 42.6061, 43.8727, 80.7321, -125.587
6.1605, 42, -34.5134, -18.6467, 42.5703, 43.915, 80.7629, -125.342
6.1699, 42, -34.1004, -18.653, 42.4939, 43.9942, 80.8221, -124.853
6.18062, 43, -33.4752, -18.6564, 42.3678, 44.0995, 80.9092, -124.125
6.18834, 43, -33.0524, -18.6544, 42.2764, 44.1613, 80.9641, -123.642
6.19229, 44, -32.8388, -18.6519, 42.2286, 44.1893, 80.9914, -123.402
6.20259, 44, -32.4066, -18.6442, 42.1287, 44.2396, 81.0449, -122.923
6.20855, 45, -31.9681, -18.6326, 42.0228, 44.2831, 81.0958, -122.447
6.21883, 45, -31.5246, -18.6174, 41.911, 44.3194, 81.1458, -121.972
6.22369, 46, -31.3015, -18.6086, 41.8529, 44.3346, 81.1704, -121.736
6.23497, 46, -30.6295, -18.5767, 41.6694, 44.3682, 81.2399, -121.031
6.23965, 47, -30.4043, -18.5643, 41.6054, 44.3756, 81.2623, -120.797
6.24767, 47, -29.9507, -18.536, 41.4729, 44.385, 81.3073, -120.33
6.25574, 48, -29.491, -18.5033, 41.3345, 44.3877, 81.3505, -119.866
6.26771, 48, -28.7895, -18.4462, 41.1153, 44.3759, 81.4133, -119.173
6.27363, 49, -28.3153, -18.4026, 40.9618, 44.3574, 81.4552, -118.713
6.28288, 49, -27.8384, -18.3547, 40.8024, 44.3296, 81.4963, -118.255
6.28768, 50, -27.599, -18.329, 40.7202, 44.3119, 81.5166, -118.026
6.29832, 50, -26.8759, -18.2442, 40.4639, 44.2451, 81.5782, -117.341
6.30373, 51, -26.632, -18.2132, 40.3752, 44.2186, 81.5995, -117.113
6.31437, 51, -25.8884, -18.1117, 40.0995, 44.123, 81.663, -116.431
6.32429, 52, -25.6369, -18.0751, 40.0039, 44.0474, 81.706, -115.977
6.33166, 52, -24.8761, -17.9572, 39.7063, 43.9608, 81.7506, -115.524
6.33565, 53, -24.6215, -17.9152, 39.6041, 43.9138, 81.7731, -115.297
6.34627, 53, -24.1105, -17.8265, 39.3945, 43.7576, 81.841, -114.618
6.35178, 54, -23.5946, -17.7314, 39.1765, 43.7001, 81.8648, -114.393
6.36174, 54, -22.8061, -17.577, 38.8356, 43.5111, 81.9398, -113.714
6.36867, 55, -22.5391, -17.5225, 38.7182, 43.4423, 81.9657, -113.488
6.37821, 55, -21.7311, -17.3502, 38.3541, 43.2182, 82.0483, -112.809
6.38375, 56, -21.4607, -17.29, 38.2297, 43.1378, 82.0767, -112.583
6.39184, 56, -20.918, -17.1651, 37.9757, 42.9687, 82.1339, -112.131
6.39984, 57, -20.3698, -17.0345, 37.7152, 42.7888, 82.1933, -111.68
6.40791, 57, -19.8125, -16.8982, 37.4491, 42.598, 82.2529, -111.229
6.41903, 58, -19.2464, -16.7562, 37.1765, 42.3954, 82.3456, -110.554
6.42632, 58, -18.3884, -16.5321, 36.7562, 42.0678, 82.4091, -110.104
6.43495, 59, -17.813, -16.3755, 36.4672, 41.8337, 82.4759, -109.655
6.43968, 59, -17.5236, -16.2954, 36.3202, 41.7116, 82.5103, -109.43
6.45046, 60, -16.938, -16.1323, 36.0211, 41.3249, 82.6177, -108.756
6.45579, 60, -16.3421, -15.9642, 35.7156, 41.1892, 82.6549, -108.531
6.46699, 61, -15.4355, -15.7017, 35.2472, 40.762, 82.7685, -107.857
6.47168, 61, -15.1317, -15.6115, 35.0882, 40.6133, 82.8073, -107.633
6.48349, 62, -14.2148, -15.3351, 34.6037, 40.1482, 82.9266, -106.96
6.48768, 62, -13.9056, -15.2409, 34.4398, 39.9869, 82.9673, -106.735
6.49866, 63, -13.2797, -15.0477, 34.1092, 39.4838, 83.0929, -106.061
6.5047, 63, -12.645, -14.8476, 33.7733, 39.3096, 83.1359, -105.836
6.51327, 64, -12.0047, -14.6415, 33.432, 38.9509, 83.2246, -105.386
6.51995, 64, -11.3604, -14.4294, 33.0841, 38.5782, 83.3173, -104.935
6.53593, 65, -10.0425, -13.9846, 32.3677, 37.7828, 83.5196, -104.025
6.53775, 65, -10.0425, -13.9846, 32.3677, 37.7828, 83.5196, -104.025
6.54381, 66, -9.36726, -13.7521, 32.0008, 37.357, 83.63, -103.567
6.55235, 66, -8.68487, -13.5124, 31.629, 36.9133, 83.7471, -103.108
6.55977, 67, -7.99747, -13.2656, 31.2507, 36.4508, 83.8701, -102.646
6.56829, 67, -7.30152, -13.012, 30.8664, 35.9716, 84.0003, -102.182
6.57763, 68, -6.59618, -12.7508, 30.4773, 35.4766, 84.1366, -101.716
6.58435, 68, -5.8836, -12.4834, 30.0851, 34.9682, 84.2792, -101.247
6.59303, 69, -5.16668, -12.2108, 29.6895, 34.448, 84.4275, -100.777
6.60067, 69, -4.44468, -11.9316, 29.2912, 33.9171, 84.5805, -100.305
6.61147, 70, -3.71542, -11.6461, 28.8929, 33.3771, 84.7382, -99.5941
6.61682, 70, -2.97954, -11.3521, 28.4953, 32.8256, 84.9003, -99.3565
6.62662, 71, -2.23891, -11.0504, 28.0975, 32.2625, 85.0679, -98.8815
6.63362, 71, -1.49326, -10.7429, 27.6979, 31.6859, 85.2436, -98.406
6.64074, 72, -0.74181, -10.4298, 27.2963, 31.094, 85.4283, -97.9296
6.64847, 72, 0.0138701, -10.1123, 26.8936, 30.4861, 85.6222, -97.4526
6.65728, 73, 0.771983, -9.78843, 26.4897, 29.8669, 85.8248, -96.975
6.66702, 73, 1.53282, -9.45799, 26.0862, 29.2374, 86.0346, -96.4977
6.67247, 74, 2.298, -9.12158, 25.6843, 28.601, 86.2515, -96.0197
6.68561, 74, 3.4522, -8.60708, 25.0896, 27.6348, 86.5884, -95.3
6.68839, 75, 3.83788, -8.4323, 24.8939, 27.3096, 86.7035, -95.0589
6.70127, 75, 4.99913, -7.89844, 24.3117, 26.3295, 87.0577, -94.3327
6.70436, 76, 5.38751, -7.71753, 24.1195, 26.0014, 87.179, -94.0891
6.71467, 76, 6.16634, -7.3516, 23.7381, 25.3419, 87.4263, -93.5993
6.72084, 77, 6.94654, -6.97939, 23.3603, 24.6814, 87.6812, -93.1071
6.72854, 77, 7.33725, -6.79, 22.985, 24.0191, 87.9447, -92.6119
6.73567, 77, 8.1207, -6.40378, 22.7983, 23.6866, 88.0803, -92.3635
6.75103, 78, 9.69465, -5.59913, 22.0588, 22.3418, 88.6531, -91.3607
6.7569, 79, 10.4852, -5.18498, 21.6931, 21.6585, 88.9605, -90.8526
6.76763, 80, 11.2764, -4.76356, 21.3299, 20.9708, 89.2817, -90.339
6.76975, 80, 11.6714, -4.54878, 21.1496, 20.6255, 89.4468, -90.0802
6.77553, 80, 12.0657, -4.33115, 20.9707, 20.2796, 89.6145, -89.82
6.78354, 80, 12.8498, -3.88759, 20.6163, 19.5916, 89.9574, -89.2944
6.79153, 81, 13.6271, -3.43682, 20.2681, 18.9127, 90.3085, -88.7634
6.7995, 81, 14.3979, -2.98058, 19.9274, 18.2472, 90.6661, -88.2277
6.80758, 82, 15.1607, -2.51714, 19.5973, 17.5979, 91.0271, -87.6894
6.81551, 82, 15.9135, -2.04596, 19.2778, 16.9667, 91.3915, -87.1485
6.8235, 83, 16.6539, -1.56807, 18.9684, 16.3553, 91.7589, -86.606
6.83157, 83, 17.3809, -1.08512, 18.6687, 15.7638, 92.1306, -86.0631
6.84056, 84, 18.0936, -0.598117, 18.3781, 15.1913, 92.5071, -85.5218
6.84758, 84, 18.7899, -0.107577, 18.096, 14.6391, 92.89, -84.982
6.85554, 85, 19.4692, 0.387798, 17.8195, 14.1064, 93.2805, -84.4437
6.8635, 85, 20.1301, 0.888474, 17.5492, 13.5934, 93.679, -83.9077
6.8717, 86, 20.7734, 1.39364, 17.2848, 13.0998, 94.0844, -83.3744
6.87954, 86, 21.4013, 1.90334, 17.0265, 12.6251, 94.4959, -82.8419
6.88752, 86, 22.0152, 2.42041, 16.7747, 12.1696, 94.9137, -82.3081
6.89657, 87, 22.6169, 2.94779, 16.5273, 11.7326, 95.3386, -81.7715
6.9035, 87, 23.2083, 3.48486, 16.2839, 11.3134, 95.771, -81.2309
6.9115, 88, 23.7899, 4.02753, 16.0433, 10.9097, 96.2109, -80.6842
6.9195, 88, 24.3611, 4.57591, 15.8054, 10.522, 96.6573, -80.1284
6.92748, 89, 24.9214, 5.1346, 15.5732, 10.1503, 97.1095, -79.5634
6.9355, 89, 25.4725, 5.70575, 15.3466, 9.79561, 97.5658, -78.9876
6.94354, 90, 26.0194, 6.28826, 15.1248, 9.4576, 98.0254, -78.3997
6.9515, 90, 26.5617, 6.88075, 14.9093, 9.13598, 98.4888, -77.7977
6.95947, 91, 27.0942, 7.48187, 14.7001, 8.83151, 98.9571, -77.1816
6.96757, 91, 27.6134, 8.09201, 14.4963, 8.54463, 99.4312, -76.5529
6.97546, 92, 28.1221, 8.71261, 14.2965, 8.27654, 99.9119, -75.9113
6.9835, 92, 28.6239, 9.34413, 14.1, 8.02848, 100.399, -75.2581
6.99154, 93, 29.119, 9.98544, 13.9067, 7.8005, 100.892, -74.5962
6.99953, 93, 29.6031, 10.634, 13.7179, 7.59407, 101.388, -73.9259
7.0075, 94, 30.0739, 11.289, 13.5353, 7.40967, 101.887, -73.2469
7.01563, 94, 30.5301, 11.9493, 13.3589, 7.24836, 102.385, -72.5616
7.02352, 95, 30.9725, 12.6132, 13.1886, 7.11045, 102.882, -71.8715
7.03162, 95, 31.401, 13.2793, 13.0258, 6.99634, 103.375, -71.1748
7.03959, 96, 31.8152, 13.947, 12.8706, 6.90539, 103.864, -70.4728
7.04779, 96, 32.2131, 14.6157, 12.7219, 6.83929, 104.35, -69.7673
7.0556, 97, 32.5942, 15.285, 12.5798, 6.79625, 104.83, -69.0566
7.06367, 97, 32.9594, 15.9523, 12.4452, 6.77413, 105.304, -68.342
7.07201, 98, 33.3096, 16.6153, 12.3194, 6.77326, 105.769, -67.6273
7.07951, 98, 33.6456, 17.2716, 12.2029, 6.7943, 106.225, -66.9118
7.08758, 99, 33.9668, 17.9191, 12.0964, 6.8347, 106.668, -66.1976
7.09553, 99, 34.2741, 18.5579, 12.0002, 6.89514, 107.095, -65.4888
7.10356, 99, 34.569, 19.1868, 11.9143, 6.97404, 107.507, -64.7847
7.11166, 100, 34.8519, 19.8064, 11.838, 7.07001, 107.903, -64.0861
7.11967, 100, 35.1214, 20.4142, 11.7705, 7.18199, 108.284, -63.3966
7.12775, 101, 35.3771, 21.0084, 11.7104, 7.30776, 108.65, -62.7157
7.13654, 101, 35.6202, 21.5886, 11.6578, 7.44532, 109.002, -62.0438
7.14395, 102, 35.8509, 22.1541, 11.6123, 7.59213, 109.339, -61.3844
7.15196, 102, 36.069, 22.7052, 11.5736, 7.74619, 109.662, -60.7385
7.15998, 103, 36.2768, 23.2413, 11.5421, 7.90597, 109.97, -60.1064
7.16875, 103, 36.4774, 23.7625, 11.5181, 8.0713, 110.262, -59.488
7.17612, 103, 36.6725, 24.2702, 11.5029, 8.24279, 110.538, -58.8846
7.185, 104, 36.8624, 24.765, 11.4954, 8.42168, 110.795, -58.2929
7.1921, 104, 36.9556, 25.2467, 11.4943, 8.60949, 111.035, -57.7103
7.20014, 104, 37.1388, 25.4828, 11.4992, 8.8065, 111.256, -57.1358
7.20804, 104, 37.3152, 25.9454, 11.5037, 8.90826, 111.36, -56.8515
7.21552, 104, 37.4815, 26.3943, 11.5157, 9.11799, 111.556, -56.2883
7.22354, 104, 37.6383, 26.8297, 11.5307, 9.3343, 111.737, -55.7328
7.23151, 104, 37.7895, 27.2529, 11.5484, 9.55403, 111.907, -55.1884
7.23949, 104, 37.9385, 27.6628, 11.5679, 9.77485, 112.066, -54.6588
7.24753, 104, 38.0858, 28.059, 11.588, 9.99364, 112.217, -54.1476
7.25551, 104, 38.2297, 28.4407, 11.608, 10.2089, 112.361, -53.6561
7.2635, 104, 38.3688, 28.8087, 11.6273, 10.4188, 112.497, -53.1869
7.27153, 104, 38.5015, 29.1608, 11.6456, 10.622, 112.626, -52.7411
7.2795, 104, 38.6266, 29.4959, 11.6632, 10.8174, 112.747, -52.3198
7.28753, 104, 38.744, 29.8125, 11.6796, 11.0043, 112.861, -51.9237
7.29549, 104, 38.8533, 30.1105, 11.6947, 11.1819, 112.966, -51.5518
7.3035, 104, 38.9549, 30.3902, 11.709, 11.3498, 113.064, -51.2054
7.31154, 104, 39.0487, 30.6499, 11.7219, 11.5074, 113.155, -50.8846
7.3195, 104, 39.1347, 30.8901, 11.7337, 11.6543, 113.239, -50.5887
7.32752, 104, 39.2122, 31.111, 11.7443, 11.7899, 113.314, -50.3182
7.3371, 104, 39.2813, 31.3117, 11.7542, 11.914, 113.383, -49.9599
7.34349, 104, 39.3424, 31.4928, 11.7633, 12.0262, 113.444, -49.853
7.35253, 104, 39.396, 31.6546, 11.7711, 12.1265, 113.5, -49.6581
7.35954, 104, 39.443, 31.7971, 11.7781, 12.2146, 113.546, -49.4883
7.3675, 104, 39.484, 31.9213, 11.7845, 12.2904, 113.586, -49.3429
7.3755, 104, 39.519, 32.0282, 11.7903, 12.3543, 113.62, -49.2211
7.38357, 104, 39.5479, 32.1185, 11.7955, 12.4067, 113.648, -49.1221
7.39149, 104, 39.5715, 32.1935, 11.8, 12.4473, 113.669, -49.0432
7.3995, 104, 39.5906, 32.2549, 11.8041, 12.4787, 113.685, -48.9839
7.40755, 104, 39.6057, 32.3044, 11.8079, 12.5021, 113.696, -48.9408
7.41549, 104, 39.6176, 32.3433, 11.8113, 12.5186, 113.704, -48.911
7.4235, 104, 39.6267, 32.3724, 11.8143, 12.5298, 113.709, -48.8916
7.43154, 104, 39.6331, 32.3941, 11.8171, 12.537, 113.712, -48.8797
7.43949, 104, 39.6372, 32.41, 11.8193, 12.541, 113.713, -48.8735
7.44752, 104, 39.6396, 32.4208, 11.821, 12.543, 113.714, -48.8705
7.45551, 105, 39.6409, 32.4275, 11.8222, 12.544, 113.714, -48.8691
7.46349, 105, 39.6411, 32.4318, 11.8232, 12.5445, 113.714, -48.8687
7.47151, 105, 39.6406, 32.4347, 11.8241, 12.5448, 113.714, -48.8685
7.47954, 105, 39.6398, 32.4367, 11.8249, 12.545, 113.714, -48.8686
7.4875, 105, 39.6386, 32.4382, 11.8255, 12.5451, 113.714, -48.8687
7.49551, 105, 39.6372, 32.4395, 11.8261, 12.5451, 113.714, -48.8688
7.50354, 105, 39.636, 32.4407, 11.8266, 12.5451, 113.714, -48.8691
7.51149, 105, 39.6353, 32.4418, 11.8271, 12.5452, 113.714, -48.8695
7.51957, 105, 39.6348, 32.443, 11.8277, 12.5452, 113.714, -48.8697
7.52758, 105, 39.6345, 32.4441, 11.8283, 12.5451, 113.714, -48.87
7.53555, 105, 39.6343, 32.445, 11.8288, 12.5451, 113.714, -48.8702
7.5436, 105, 39.6341, 32.4458, 11.8292, 12.5451, 113.714, -48.8704
7.55166, 105, 39.6338, 32.4464, 11.8295, 12.5451, 113.714, -48.8706
7.55959, 105, 39.6335, 32.4467, 11.8297, 12.5451, 113.714, -48.8708
7.56772, 105, 39.6333, 32.447, 11.83, 12.5451, 113.714, -48.8709
7.57593, 105, 39.633, 32.4471, 11.8302, 12.5451, 113.714, -48.8711
