hehonglu123/Motion-Primitive-Planning/ILC/recorded_data/realrobot/from_NX/iteration_17/run_3.csv
timestamp, cmd_num, J1, J2, J3, J4, J5, J6
0.000357, -1, 39.6301, 32.4471, 11.8318, 12.5453, 113.713, -48.8724
0.003087, -1, 39.6301, 32.4471, 11.8319, 12.5453, 113.713, -48.8724
0.007985, -1, 39.6301, 32.4471, 11.8319, 12.5453, 113.713, -48.8725
0.028493, -1, 39.6301, 32.4471, 11.8319, 12.5453, 113.713, -48.8724
0.031207, -1, 39.6301, 32.4471, 11.8319, 12.5453, 113.713, -48.8723
0.032487, -1, 39.6301, 32.4471, 11.8319, 12.5453, 113.713, -48.8723
0.039898, -1, 39.6301, 32.4471, 11.8319, 12.5453, 113.713, -48.8724
0.047762, -1, 39.63, 32.4471, 11.8318, 12.5453, 113.713, -48.8724
0.055841, -1, 39.6295, 32.447, 11.8318, 12.5453, 113.713, -48.8724
0.063768, -1, 39.6271, 32.4466, 11.8318, 12.5453, 113.713, -48.8724
0.201596, -1, 38.253, 31.744, 12.1047, 12.5574, 112.991, -50.7151
0.203397, -1, 38.253, 31.744, 12.1047, 12.5574, 112.991, -50.7151
0.204987, -1, 38.1644, 31.6978, 12.1243, 12.5586, 112.941, -50.8413
0.206318, -1, 38.1644, 31.6978, 12.1243, 12.5586, 112.941, -50.8413
0.208355, -1, 38.0745, 31.6508, 12.1438, 12.5598, 112.89, -50.9684
0.209694, -1, 38.0745, 31.6508, 12.1438, 12.5598, 112.89, -50.9684
0.210872, -1, 38.0745, 31.6508, 12.1438, 12.5598, 112.89, -50.9684
0.214924, -1, 37.9832, 31.6034, 12.1632, 12.5611, 112.84, -51.0965
0.216933, -1, 37.8909, 31.5555, 12.1826, 12.5623, 112.789, -51.2252
0.21822, -1, 37.8909, 31.5555, 12.1826, 12.5623, 112.789, -51.2252
0.220258, -1, 37.7975, 31.5072, 12.202, 12.5634, 112.738, -51.3543
0.222823, -1, 37.7975, 31.5072, 12.202, 12.5634, 112.738, -51.3543
0.224887, -1, 37.7034, 31.4586, 12.2214, 12.5646, 112.687, -51.4837
0.226098, -1, 37.7034, 31.4586, 12.2214, 12.5646, 112.687, -51.4837
0.228106, -1, 37.6085, 31.4098, 12.2408, 12.5659, 112.636, -51.6133
0.234544, -1, 37.5132, 31.3609, 12.2602, 12.5671, 112.585, -51.7431
0.237276, -1, 37.4174, 31.312, 12.2795, 12.5684, 112.533, -51.8729
0.238511, -1, 37.4174, 31.312, 12.2795, 12.5684, 112.533, -51.8729
0.240669, -1, 37.3215, 31.263, 12.299, 12.5696, 112.482, -52.0026
0.241874, -1, 37.3215, 31.263, 12.299, 12.5696, 112.482, -52.0026
0.243132, -1, 37.3215, 31.263, 12.299, 12.5696, 112.482, -52.0026
0.245152, -1, 37.2255, 31.214, 12.3184, 12.5708, 112.431, -52.1323
0.249803, -1, 37.1294, 31.1651, 12.3378, 12.572, 112.379, -52.2622
0.256116, -1, 36.9372, 31.0673, 12.3765, 12.5747, 112.276, -52.5223
0.262743, -1, 36.8411, 31.0184, 12.3959, 12.5759, 112.225, -52.6524
0.272294, -1, 36.5535, 30.8718, 12.4542, 12.5798, 112.07, -53.043
0.280303, -1, 36.3618, 30.7742, 12.4931, 12.5824, 111.967, -53.3033
0.288382, -1, 36.1702, 30.6764, 12.5319, 12.585, 111.865, -53.5637
0.296583, -1, 35.9787, 30.5785, 12.5708, 12.5875, 111.762, -53.8244
0.304335, -1, 35.8829, 30.5295, 12.6097, 12.5901, 111.659, -54.0851
0.312523, -1, 35.6913, 30.4314, 12.6292, 12.5926, 111.556, -54.3452
0.319764, -1, 35.4994, 30.3334, 12.668, 12.594, 111.504, -54.4753
0.327752, -1, 35.3072, 30.2351, 12.7068, 12.5966, 111.401, -54.7358
0.33581, -1, 35.1147, 30.1368, 12.7457, 12.5992, 111.298, -54.9965
0.343756, -1, 34.9224, 30.0383, 12.7846, 12.6017, 111.195, -55.2574
0.351751, -1, 34.7301, 29.9398, 12.8234, 12.6043, 111.092, -55.5179
0.359806, -1, 34.5378, 29.8413, 12.8623, 12.6068, 110.989, -55.7788
0.36776, -1, 34.3456, 29.7429, 12.9013, 12.6094, 110.886, -56.0396
0.375875, -1, 34.1536, 29.6445, 12.9401, 12.6121, 110.783, -56.3005
0.383817, -1, 33.9617, 29.5463, 12.9791, 12.6147, 110.68, -56.5613
0.39175, -1, 33.77, 29.448, 13.018, 12.6174, 110.577, -56.822
0.399757, -1, 33.5782, 29.3496, 13.0569, 12.62, 110.473, -57.083
0.407801, -1, 33.386, 29.2513, 13.0959, 12.6226, 110.37, -57.3441
0.415765, -1, 33.1934, 29.1527, 13.1348, 12.6252, 110.267, -57.6049
0.423756, -1, 33.0007, 29.0541, 13.1736, 12.6278, 110.164, -57.866
0.431809, -1, 32.8077, 28.9555, 13.2125, 12.6305, 110.061, -58.1271
0.439749, -1, 32.6144, 28.8569, 13.2515, 12.6332, 109.958, -58.3886
0.447839, -1, 32.4208, 28.7582, 13.2903, 12.6359, 109.855, -58.6497
0.456778, -1, 32.2269, 28.6595, 13.3292, 12.6385, 109.752, -58.9107
0.463745, -1, 32.0328, 28.5607, 13.3681, 12.6413, 109.649, -59.1717
0.471747, -1, 31.839, 28.4619, 13.4069, 12.6439, 109.546, -59.4332
0.479835, -1, 31.6453, 28.3632, 13.446, 12.6466, 109.443, -59.6946
0.488762, -1, 31.4519, 28.2645, 13.485, 12.6495, 109.34, -59.9558
0.495819, -1, 31.2588, 28.166, 13.5239, 12.6522, 109.237, -60.2171
0.503748, -1, 31.0662, 28.0675, 13.563, 12.6551, 109.134, -60.4784
0.511758, -1, 30.8739, 27.969, 13.602, 12.6579, 109.03, -60.74
0.519815, -1, 30.6819, 27.8704, 13.6409, 12.6607, 108.927, -61.0012
0.527739, -1, 30.4899, 27.7718, 13.68, 12.6635, 108.824, -61.2624
0.665523, -1, 27.2056, 26.0918, 14.3426, 12.7068, 107.068, -65.7107
0.66738, -1, 27.1094, 26.0423, 14.362, 12.7079, 107.016, -65.8416
0.668915, -1, 27.1094, 26.0423, 14.362, 12.7079, 107.016, -65.8416
0.670278, -1, 27.1094, 26.0423, 14.362, 12.7079, 107.016, -65.8416
0.672241, -1, 27.0132, 25.9929, 14.3814, 12.7091, 106.964, -65.9725
0.67363, -1, 27.0132, 25.9929, 14.3814, 12.7091, 106.964, -65.9725
0.676249, -1, 26.9169, 25.9435, 14.4009, 12.7102, 106.913, -66.1035
0.681819, -1, 26.8205, 25.894, 14.4204, 12.7114, 106.861, -66.2345
0.683976, -1, 26.724, 25.8446, 14.4399, 12.7125, 106.809, -66.3653
0.685289, -1, 26.724, 25.8446, 14.4399, 12.7125, 106.809, -66.3653
0.686508, -1, 26.724, 25.8446, 14.4399, 12.7125, 106.809, -66.3653
0.688592, -1, 26.6274, 25.7951, 14.4594, 12.7137, 106.758, -66.4961
0.689789, -1, 26.6274, 25.7951, 14.4594, 12.7137, 106.758, -66.4961
0.691773, -1, 26.5307, 25.7457, 14.4788, 12.7148, 106.706, -66.6269
0.693108, -1, 26.5307, 25.7457, 14.4788, 12.7148, 106.706, -66.6269
0.696654, -1, 26.4339, 25.6963, 14.4982, 12.7159, 106.655, -66.7578
0.69787, -1, 26.4339, 25.6963, 14.4982, 12.7159, 106.655, -66.7578
0.700635, -1, 26.337, 25.6469, 14.5177, 12.7171, 106.603, -66.8887
0.701869, -1, 26.337, 25.6469, 14.5177, 12.7171, 106.603, -66.8887
0.703856, -1, 26.24, 25.5975, 14.5372, 12.7182, 106.552, -67.0196
0.70609, -1, 26.24, 25.5975, 14.5372, 12.7182, 106.552, -67.0196
0.707996, -1, 26.143, 25.5481, 14.5567, 12.7193, 106.5, -67.1506
0.712727, -1, 26.046, 25.4986, 14.5762, 12.7205, 106.448, -67.2816
0.719856, -1, 25.8517, 25.3997, 14.6151, 12.7228, 106.345, -67.5434
0.727945, -1, 25.6575, 25.301, 14.6541, 12.725, 106.242, -67.8047
0.73602, -1, 25.4635, 25.2022, 14.6931, 12.7273, 106.139, -68.0664
0.742728, -1, 25.3666, 25.1529, 14.7125, 12.7284, 106.087, -68.1973
0.752226, -1, 25.0764, 25.0047, 14.7711, 12.7319, 105.932, -68.5901
0.758745, -1, 24.9797, 24.9553, 14.7906, 12.7331, 105.881, -68.7208
0.768199, -1, 24.6902, 24.8071, 14.849, 12.7367, 105.726, -69.1132
0.774808, -1, 24.594, 24.7577, 14.8684, 12.7379, 105.674, -69.244
0.784288, -1, 24.3053, 24.6093, 14.927, 12.7415, 105.519, -69.6368
0.792302, -1, 24.1128, 24.5104, 14.966, 12.7438, 105.416, -69.8982
0.801349, -1, 23.92, 24.4117, 15.005, 12.7462, 105.313, -70.1598
0.808513, -1, 23.8236, 24.3623, 15.0244, 12.7486, 105.209, -70.4213
0.816277, -1, 23.6306, 24.2634, 15.0634, 12.7498, 105.157, -70.5523
0.824388, -1, 23.4373, 24.1645, 15.1023, 12.7522, 105.054, -70.814
0.830721, -1, 23.2436, 24.0656, 15.1413, 12.7546, 104.951, -71.0756
0.839727, -1, 23.0498, 23.9667, 15.1801, 12.7571, 104.847, -71.3375
0.84778, -1, 22.8558, 23.8678, 15.2191, 12.7595, 104.744, -71.5993
0.854721, -1, 22.6619, 23.769, 15.2581, 12.762, 104.64, -71.8613
0.86374, -1, 22.4681, 23.6704, 15.297, 12.7645, 104.537, -72.1226
0.871834, -1, 22.2748, 23.5717, 15.336, 12.7669, 104.434, -72.3839
0.87989, -1, 22.0816, 23.473, 15.3749, 12.7695, 104.33, -72.6455
0.887746, -1, 21.8885, 23.3742, 15.4139, 12.7722, 104.227, -72.9072
0.895728, -1, 21.696, 23.2755, 15.4529, 12.7748, 104.124, -73.1684
0.903786, -1, 21.5038, 23.1767, 15.4918, 12.7775, 104.021, -73.4298
0.911727, -1, 21.3115, 23.078, 15.5308, 12.7801, 103.918, -73.6913
0.919747, -1, 21.1191, 22.9793, 15.5697, 12.7828, 103.815, -73.953
0.929336, -1, 20.8305, 22.8313, 15.6281, 12.7868, 103.66, -74.3449
0.935775, -1, 20.7342, 22.782, 15.6476, 12.7881, 103.608, -74.4754
0.944735, -1, 20.5415, 22.6835, 15.6865, 12.7909, 103.505, -74.7366
0.952771, -1, 20.3484, 22.5848, 15.7253, 12.7936, 103.402, -74.998
0.958791, -1, 20.1548, 22.486, 15.7643, 12.7963, 103.299, -75.2592
0.967794, -1, 19.9612, 22.3873, 15.8031, 12.7991, 103.196, -75.5203
0.975781, -1, 19.7675, 22.2886, 15.8418, 12.8018, 103.093, -75.7814
0.983723, -1, 19.5739, 22.19, 15.8808, 12.8045, 102.99, -76.0427
0.99179, -1, 19.3805, 22.0914, 15.9196, 12.8073, 102.887, -76.3039
0.999751, -1, 19.1876, 21.9927, 15.9584, 12.81, 102.784, -76.5647
1.00773, -1, 18.9948, 21.8941, 15.9974, 12.8128, 102.681, -76.8255
1.0158, -1, 18.8023, 21.7955, 16.0362, 12.8155, 102.578, -77.0865
1.02373, -1, 18.6102, 21.6967, 16.0749, 12.8182, 102.475, -77.3476
1.03173, -1, 18.4184, 21.5981, 16.1139, 12.8209, 102.372, -77.6084
1.03981, -1, 18.2265, 21.4996, 16.1527, 12.8235, 102.269, -77.8691
1.0478, -1, 18.0346, 21.4012, 16.1915, 12.826, 102.167, -78.1299
1.05574, -1, 17.8428, 21.3028, 16.2305, 12.8285, 102.064, -78.3908
1.06379, -1, 17.6507, 21.2044, 16.2693, 12.8311, 101.961, -78.6513
1.07172, -1, 17.4583, 21.1061, 16.3081, 12.8336, 101.858, -78.9116
1.07975, -1, 17.2655, 21.0078, 16.347, 12.836, 101.755, -79.1723
1.08779, -1, 17.0724, 20.9095, 16.3857, 12.8384, 101.652, -79.4329
1.09573, -1, 16.8794, 20.8113, 16.4245, 12.8408, 101.549, -79.6934
1.10373, -1, 16.6862, 20.7131, 16.4634, 12.8431, 101.446, -79.9539
1.11179, -1, 16.4932, 20.6149, 16.502, 12.8454, 101.344, -80.2143
1.11975, -1, 16.3004, 20.5166, 16.5408, 12.8477, 101.241, -80.475
1.1278, -1, 16.108, 20.4182, 16.5795, 12.8501, 101.138, -80.7355
1.13575, -1, 15.9161, 20.3198, 16.6182, 12.8523, 101.036, -80.9956
1.14379, -1, 15.7244, 20.2213, 16.6569, 12.8546, 100.933, -81.2557
1.15188, -1, 15.5331, 20.1229, 16.6955, 12.857, 100.83, -81.5159
1.15983, -1, 15.3419, 20.0246, 16.7342, 12.8593, 100.728, -81.7761
1.16782, -1, 15.1508, 19.9263, 16.773, 12.8616, 100.625, -82.0359
1.17589, -1, 14.9596, 19.8281, 16.8116, 12.8639, 100.523, -82.2957
1.18382, -1, 14.7683, 19.7299, 16.8503, 12.8662, 100.42, -82.5555
1.19173, -1, 14.5768, 19.6318, 16.8891, 12.8685, 100.318, -82.8157
1.1999, -1, 14.385, 19.5336, 16.9277, 12.8707, 100.215, -83.0755
1.20776, -1, 14.1927, 19.4356, 16.9664, 12.873, 100.112, -83.3349
1.21608, -1, 14.0004, 19.3376, 17.0052, 12.8752, 100.01, -83.5945
1.22394, -1, 13.808, 19.2398, 17.0437, 12.8776, 99.9074, -83.8542
1.23194, -1, 13.6155, 19.142, 17.0824, 12.8799, 99.8049, -84.1136
1.23872, -1, 13.5193, 19.0931, 17.1018, 12.8811, 99.7536, -84.2433
1.24806, -1, 13.2311, 18.9462, 17.1596, 12.8845, 99.6003, -84.6322
1.25606, -1, 13.0395, 18.8483, 17.1982, 12.8869, 99.4978, -84.8916
1.26272, -1, 12.9439, 18.7993, 17.2176, 12.888, 99.4465, -85.0214
1.27223, -1, 12.6573, 18.6524, 17.2754, 12.8916, 99.2932, -85.41
1.2803, -1, 12.4667, 18.5546, 17.314, 12.8941, 99.1907, -85.6689
1.28829, -1, 12.2765, 18.4568, 17.3526, 12.8965, 99.0884, -85.9279
1.29631, -1, 12.0864, 18.359, 17.3911, 12.8989, 98.9865, -86.1869
1.3051, -1, 11.8961, 18.2615, 17.4297, 12.9013, 98.8843, -86.4457
1.31122, -1, 11.8008, 18.2126, 17.449, 12.9025, 98.8333, -86.5749
1.31871, -1, 11.6101, 18.1149, 17.4875, 12.905, 98.7316, -86.8336
1.3295, -1, 11.3236, 17.9685, 17.5453, 12.9087, 98.5787, -87.2216
1.33573, -1, 11.228, 17.9198, 17.5646, 12.9099, 98.5277, -87.3508
1.34377, -1, 11.0366, 17.8223, 17.6032, 12.9124, 98.4259, -87.609
1.35171, -1, 10.8451, 17.7249, 17.6417, 12.9149, 98.3238, -87.8672
1.35952, -1, 10.6534, 17.6274, 17.6801, 12.9174, 98.2218, -88.1254
1.36776, -1, 10.462, 17.5299, 17.7185, 12.92, 98.1202, -88.3839
1.37573, -1, 10.2708, 17.4324, 17.7569, 12.9224, 98.0182, -88.6419
1.38358, -1, 10.0799, 17.3348, 17.7954, 12.9251, 97.9163, -88.8999
1.39072, -1, 9.88953, 17.2372, 17.8337, 12.9278, 97.8146, -89.1579
1.39972, -1, 9.69939, 17.1397, 17.872, 12.9304, 97.7126, -89.4161
1.4075, -1, 9.50975, 17.0423, 17.9103, 12.9332, 97.6106, -89.6742
1.41571, -1, 9.32046, 16.9449, 17.9486, 12.9359, 97.5088, -89.9318
1.42371, -1, 9.13117, 16.8476, 17.987, 12.9385, 97.4069, -90.1892
1.4315, -1, 8.94179, 16.7504, 18.0253, 12.9411, 97.305, -90.4468
1.43974, -1, 8.75222, 16.6532, 18.0636, 12.9437, 97.2035, -90.7043
1.44771, -1, 8.56263, 16.556, 18.1021, 12.9464, 97.1018, -90.9615
1.45671, -1, 8.37289, 16.4589, 18.1404, 12.9491, 97.0004, -91.2187
1.46371, -1, 8.18264, 16.362, 18.1787, 12.9517, 96.8988, -91.4759
1.47172, -1, 7.99217, 16.2651, 18.2171, 12.9544, 96.7972, -91.7332
1.47981, -1, 7.80168, 16.1682, 18.2553, 12.9571, 96.6958, -91.9902
1.48771, -1, 7.61107, 16.0713, 18.2936, 12.9597, 96.5942, -92.2468
1.49571, -1, 7.42064, 15.9744, 18.332, 12.9622, 96.4928, -92.5036
1.50373, -1, 7.23057, 15.8775, 18.3701, 12.9647, 96.3916, -92.7604
1.51171, -1, 7.0407, 15.7805, 18.4083, 12.9673, 96.2902, -93.0172
1.51979, -1, 6.85119, 15.6835, 18.4466, 12.9699, 96.189, -93.2736
1.52773, -1, 6.66225, 15.5867, 18.4847, 12.9724, 96.0883, -93.5299
1.53571, -1, 6.47376, 15.4899, 18.5227, 12.9749, 95.9871, -93.7863
1.54378, -1, 6.28557, 15.3931, 18.561, 12.9773, 95.886, -94.0428
1.5518, -1, 6.09753, 15.2965, 18.5991, 12.9799, 95.7854, -94.2988
1.55974, -1, 5.90924, 15.1997, 18.6372, 12.9822, 95.6842, -94.5548
1.56778, -1, 5.72084, 15.103, 18.6754, 12.9846, 95.5832, -94.8107
1.57572, -1, 5.53231, 15.0064, 18.7135, 12.9869, 95.4827, -95.0666
1.5837, -1, 5.34358, 14.9099, 18.7516, 12.9892, 95.3818, -95.3221
1.59177, -1, 5.15446, 14.8135, 18.7898, 12.9914, 95.2811, -95.5775
1.59974, -1, 4.96503, 14.7172, 18.8278, 12.9937, 95.1806, -95.8331
1.60771, -1, 4.77563, 14.6209, 18.8658, 12.996, 95.0797, -96.0886
1.61578, -1, 4.58622, 14.5245, 18.9039, 12.9982, 94.979, -96.3439
1.62447, -1, 4.39705, 14.4282, 18.9419, 13.0004, 94.8783, -96.5987
1.63171, -1, 4.20807, 14.3318, 18.9799, 13.0026, 94.7774, -96.8536
1.6398, -1, 4.0194, 14.2354, 19.0179, 13.0049, 94.6766, -97.1086
1.64852, -1, 3.83138, 14.1392, 19.0558, 13.0072, 94.5758, -97.3637
1.65585, -1, 3.64384, 14.043, 19.0937, 13.0094, 94.475, -97.6185
1.66411, -1, 3.45667, 13.9468, 19.1317, 13.0118, 94.3744, -97.8732
1.67134, -1, 3.26969, 13.8507, 19.1694, 13.0141, 94.2739, -98.1279
1.67928, -1, 3.08272, 13.7547, 19.2073, 13.0163, 94.1731, -98.3828
1.68823, -1, 2.89573, 13.6587, 19.2452, 13.0185, 94.0725, -98.6371
1.69535, -1, 2.8022, 13.6106, 19.2642, 13.0197, 93.9718, -98.8913
1.70396, -1, 2.52132, 13.4667, 19.321, 13.023, 93.8714, -99.1452
1.7125, -1, 2.33386, 13.3708, 19.3588, 13.0253, 93.7711, -99.3995
1.72069, -1, 2.14603, 13.275, 19.3966, 13.0276, 93.6707, -99.6534
1.72787, -1, 1.95798, 13.1792, 19.4345, 13.0298, 93.5705, -99.907
1.7367, -1, 1.76986, 13.0834, 19.4722, 13.0321, 93.4708, -100.161
1.7449, -1, 1.58158, 12.9875, 19.5099, 13.0343, 93.3706, -100.414
1.75207, -1, 1.39353, 12.8917, 19.5478, 13.0366, 93.2705, -100.668
1.7587, -1, 1.2996, 12.8438, 19.5666, 13.0377, 93.2206, -100.795
1.76675, -1, 1.11195, 12.7479, 19.6043, 13.0401, 93.1205, -101.048
1.77625, -1, 0.831488, 12.6045, 19.6609, 13.0436, 92.9705, -101.427
1.78516, -1, 0.645163, 12.5089, 19.6985, 13.046, 92.871, -101.68
1.79079, -1, 0.552163, 12.4611, 19.7172, 13.0472, 92.821, -101.807
1.80029, -1, 0.273586, 12.318, 19.7738, 13.0509, 92.6714, -102.186
1.80911, -1, 0.180807, 12.2703, 19.8113, 13.0533, 92.5721, -102.439
1.81477, -1, -0.00458612, 12.175, 19.8301, 13.0546, 92.5222, -102.565
1.82461, -1, -0.283009, 12.0321, 19.8866, 13.0582, 92.3728, -102.944
1.8317, -1, -0.375904, 11.9845, 19.9054, 13.0595, 92.3233, -103.07
1.83876, -1, -0.561981, 11.8894, 19.9428, 13.062, 92.2237, -103.322
1.84775, -1, -0.748324, 11.7944, 19.9804, 13.0645, 92.1243, -103.574
1.85571, -1, -0.9348, 11.6994, 20.0179, 13.0669, 92.025, -103.826
1.86273, -1, -1.12153, 11.6043, 20.0553, 13.0695, 91.9255, -104.078
1.87172, -1, -1.30848, 11.5092, 20.0929, 13.0719, 91.8262, -104.329
1.8797, -1, -1.49533, 11.4141, 20.1304, 13.0744, 91.7271, -104.581
1.88681, -1, -1.68191, 11.3189, 20.1678, 13.0771, 91.6279, -104.833
1.89572, -1, -1.86811, 11.2239, 20.2052, 13.0797, 91.5286, -105.084
1.90371, -1, -2.05396, 11.1289, 20.2426, 13.0823, 91.4296, -105.335
1.91069, -1, -2.23908, 11.034, 20.28, 13.0849, 91.3304, -105.586
1.91971, -1, -2.4239, 10.9391, 20.3174, 13.0876, 91.2311, -105.837
1.9277, -1, -2.60832, 10.8444, 20.3547, 13.0903, 91.1323, -106.088
1.93469, -1, -2.79227, 10.7496, 20.3919, 13.093, 91.0331, -106.339
1.9437, -1, -2.97622, 10.6548, 20.4293, 13.0956, 90.934, -106.59
1.95417, -1, -3.16031, 10.5601, 20.4667, 13.0982, 90.8354, -106.84
1.95871, -1, -3.34464, 10.4656, 20.5039, 13.1007, 90.7363, -107.091
1.96769, -1, -3.52924, 10.3711, 20.5412, 13.1033, 90.6373, -107.341
1.9757, -1, -3.71398, 10.2768, 20.5785, 13.1058, 90.5387, -107.591
1.98376, -1, -3.89908, 10.1824, 20.6157, 13.1083, 90.4398, -107.841
1.99171, -1, -4.08437, 10.0881, 20.653, 13.1107, 90.341, -108.091
1.9997, -1, -4.26989, 9.99379, 20.6901, 13.1132, 90.2427, -108.341
2.0077, -1, -4.45549, 9.89945, 20.7273, 13.1155, 90.1439, -108.591
2.01571, -1, -4.64078, 9.8051, 20.7646, 13.1178, 90.0454, -108.841
2.02376, -1, -4.8257, 9.7109, 20.8018, 13.1202, 89.9471, -109.09
2.0317, -1, -5.01023, 9.61679, 20.8388, 13.1227, 89.8484, -109.34
2.03969, -1, -5.19403, 9.5227, 20.876, 13.125, 89.75, -109.589
2.04777, -1, -5.37732, 9.42868, 20.9131, 13.1273, 89.6518, -109.838
2.05577, -1, -5.56025, 9.33477, 20.9501, 13.1296, 89.5533, -110.087
2.06372, -1, -5.74279, 9.24085, 20.9873, 13.1318, 89.4551, -110.336
2.07176, -1, -5.92517, 9.14691, 21.0243, 13.1342, 89.3571, -110.585
2.07971, -1, -6.10762, 9.05306, 21.0612, 13.1364, 89.2589, -110.833
2.08776, -1, -6.29028, 8.95928, 21.0983, 13.1386, 89.1609, -111.081
2.09576, -1, -6.47325, 8.86564, 21.1353, 13.1408, 89.0631, -111.33
2.1037, -1, -6.65638, 8.772, 21.1721, 13.143, 88.965, -111.578
2.11169, -1, -6.83995, 8.67838, 21.209, 13.1452, 88.8671, -111.826
2.11977, -1, -7.02382, 8.58477, 21.2459, 13.1472, 88.7693, -112.074
2.1277, -1, -7.20796, 8.49123, 21.2828, 13.1494, 88.6714, -112.322
2.13577, -1, -7.39216, 8.39758, 21.3197, 13.1515, 88.5735, -112.569
2.14374, -1, -7.57592, 8.30394, 21.3566, 13.1537, 88.4761, -112.817
2.15178, -1, -7.75943, 8.21052, 21.3933, 13.1558, 88.3784, -113.064
2.15989, -1, -7.9425, 8.1171, 21.4302, 13.1581, 88.2811, -113.311
2.16785, -1, -8.12514, 8.0237, 21.467, 13.1603, 88.1838, -113.558
2.17579, -1, -8.30699, 7.93043, 21.5037, 13.1626, 88.0864, -113.805
2.18387, -1, -8.48832, 7.83722, 21.5405, 13.1648, 87.9889, -114.052
2.19176, -1, -8.66938, 7.74401, 21.5774, 13.1671, 87.8916, -114.299
2.1997, -1, -8.85012, 7.6508, 21.6141, 13.1694, 87.7942, -114.545
2.20795, -1, -9.03087, 7.5577, 21.6509, 13.1715, 87.6967, -114.792
2.21574, -1, -9.21193, 7.46468, 21.6876, 13.1739, 87.5996, -115.038
2.22387, -1, -9.39319, 7.37188, 21.7242, 13.1761, 87.5024, -115.285
2.23216, -1, -9.57482, 7.27905, 21.7609, 13.1782, 87.4053, -115.531
2.2387, -1, -9.66576, 7.23262, 21.7793, 13.1793, 87.3569, -115.654
2.2481, -1, -9.93911, 7.09349, 21.8341, 13.1827, 87.211, -116.023
2.25469, -1, -10.0303, 7.04713, 21.8524, 13.1838, 87.1624, -116.146
2.26405, -1, -10.3043, 6.90796, 21.9073, 13.1872, 87.0167, -116.515
2.27068, -1, -10.3956, 6.86156, 21.9256, 13.1882, 86.968, -116.637
2.28054, -1, -10.6692, 6.72246, 21.9804, 13.1916, 86.8225, -117.006
2.2882, -1, -10.851, 6.62984, 22.0169, 13.194, 86.7257, -117.251
2.29632, -1, -11.0323, 6.53729, 22.0532, 13.1964, 86.6288, -117.496
2.30427, -1, -11.2127, 6.44478, 22.0898, 13.1988, 86.5321, -117.741
2.31224, -1, -11.3026, 6.39854, 22.1081, 13.2012, 86.4355, -117.986
2.32037, -1, -11.4824, 6.30605, 22.1627, 13.2036, 86.3387, -118.231
2.32769, -1, -11.6619, 6.21363, 22.1809, 13.2048, 86.2904, -118.353
2.33569, -1, -11.8411, 6.12125, 22.2175, 13.2074, 86.1939, -118.598
2.34374, -1, -12.0203, 6.02899, 22.2539, 13.2099, 86.0972, -118.842
2.35169, -1, -12.1997, 5.93681, 22.2903, 13.2123, 86.0007, -119.086
2.35969, -1, -12.3793, 5.84479, 22.3268, 13.2148, 85.9044, -119.331
2.36773, -1, -12.5595, 5.75274, 22.363, 13.2172, 85.8081, -119.575
2.37568, -1, -12.7398, 5.66078, 22.3993, 13.2197, 85.7118, -119.819
2.38368, -1, -12.9207, 5.56886, 22.4357, 13.2222, 85.6159, -120.062
2.39176, -1, -13.1019, 5.47691, 22.472, 13.2246, 85.5199, -120.306
2.39973, -1, -13.2831, 5.38489, 22.5082, 13.2271, 85.4239, -120.55
2.40669, -1, -13.4642, 5.29298, 22.5445, 13.2295, 85.3282, -120.793
2.41568, -1, -13.6448, 5.20108, 22.5807, 13.232, 85.2323, -121.036
2.42369, -1, -13.825, 5.10922, 22.6168, 13.2346, 85.1365, -121.279
2.43068, -1, -14.0047, 5.01741, 22.653, 13.2372, 85.0409, -121.522
2.43969, -1, -14.1832, 4.92572, 22.6892, 13.2397, 84.9454, -121.765
2.4477, -1, -14.3615, 4.83403, 22.7252, 13.2423, 84.8497, -122.008
2.45668, -1, -14.5395, 4.74238, 22.7615, 13.2448, 84.7542, -122.25
2.46368, -1, -14.7172, 4.65078, 22.7977, 13.2473, 84.6585, -122.493
2.47169, -1, -14.8948, 4.55928, 22.8337, 13.2498, 84.5628, -122.735
2.47975, -1, -15.0725, 4.46784, 22.8699, 13.2523, 84.4671, -122.978
2.48768, -1, -15.2505, 4.37659, 22.9061, 13.2547, 84.3715, -123.219
2.49572, -1, -15.4289, 4.28528, 22.9421, 13.2571, 84.2757, -123.461
2.50369, -1, -15.6078, 4.19401, 22.9781, 13.2595, 84.1803, -123.703
2.51166, -1, -15.787, 4.10278, 23.0141, 13.2618, 84.0847, -123.945
2.51978, -1, -15.9662, 4.01157, 23.0501, 13.264, 83.9893, -124.186
2.52768, -1, -16.1459, 3.92028, 23.0861, 13.2662, 83.8939, -124.428
2.5358, -1, -16.3257, 3.82903, 23.1222, 13.2683, 83.7984, -124.669
2.54376, -1, -16.5051, 3.73783, 23.158, 13.2705, 83.703, -124.911
2.55168, -1, -16.684, 3.6467, 23.1938, 13.2727, 83.6076, -125.152
2.55978, -1, -16.8624, 3.55561, 23.2297, 13.275, 83.5122, -125.393
2.5682, -1, -17.04, 3.4646, 23.2655, 13.2772, 83.4169, -125.634
2.5747, -1, -17.2169, 3.37361, 23.3014, 13.2794, 83.3216, -125.874
2.58367, -1, -17.3934, 3.28272, 23.3373, 13.2816, 83.2266, -126.115
2.59264, -1, -17.5697, 3.19187, 23.373, 13.2837, 83.1315, -126.356
2.59969, -1, -17.7458, 3.10122, 23.4089, 13.2859, 83.0367, -126.596
2.60767, -1, -17.9218, 3.01061, 23.4448, 13.2879, 82.942, -126.836
2.61648, -1, -18.098, 2.92016, 23.4805, 13.2901, 82.8471, -127.076
2.62368, -1, -18.2745, 2.82978, 23.5163, 13.2922, 82.7523, -127.317
2.63175, -1, -18.4515, 2.73934, 23.5521, 13.2943, 82.6578, -127.556
2.64051, -1, -18.629, 2.64894, 23.5877, 13.2964, 82.563, -127.796
2.64772, -1, -18.8066, 2.55861, 23.6234, 13.2984, 82.4684, -128.035
2.65586, -1, -18.9847, 2.46812, 23.6592, 13.3004, 82.3741, -128.275
2.66466, -1, -19.163, 2.3776, 23.6947, 13.3024, 82.2796, -128.514
2.67178, -1, -19.3412, 2.28724, 23.7303, 13.3044, 82.1853, -128.753
2.67986, -1, -19.5188, 2.19686, 23.766, 13.3066, 82.0915, -128.992
2.68858, -1, -19.6958, 2.10648, 23.8015, 13.3087, 81.9971, -129.231
2.69568, -1, -19.8723, 2.0162, 23.8368, 13.3109, 81.9029, -129.471
2.70381, -1, -20.0482, 1.92595, 23.8725, 13.313, 81.809, -129.709
2.7126, -1, -20.2233, 1.83574, 23.908, 13.3152, 81.7148, -129.948
2.71977, -1, -20.3982, 1.74562, 23.9434, 13.3174, 81.6209, -130.186
2.72788, -1, -20.5728, 1.65554, 23.979, 13.3197, 81.5271, -130.424
2.73674, -1, -20.7473, 1.56556, 24.0145, 13.3218, 81.4331, -130.663
2.74391, -1, -20.9219, 1.47571, 24.0499, 13.324, 81.3393, -130.901
2.75201, -1, -21.0969, 1.38597, 24.0854, 13.3262, 81.2457, -131.139
2.76005, -1, -21.2723, 1.29621, 24.1209, 13.3284, 81.1518, -131.376
2.76667, -1, -21.3601, 1.25133, 24.1386, 13.3295, 81.1049, -131.495
2.77612, -1, -21.6241, 1.11687, 24.1916, 13.3327, 80.9641, -131.852
2.78682, -1, -21.8002, 1.02723, 24.2271, 13.3348, 80.8703, -132.089
2.79222, -1, -21.9766, 0.937567, 24.2625, 13.337, 80.7765, -132.327
2.80026, -1, -22.1532, 0.847968, 24.2978, 13.3392, 80.6829, -132.564
2.80907, -1, -22.3297, 0.758471, 24.3332, 13.3413, 80.5892, -132.801
2.81468, -1, -22.4178, 0.713735, 24.3508, 13.3425, 80.5424, -132.92
2.82417, -1, -22.5936, 0.624194, 24.386, 13.3448, 80.4488, -133.156
2.83172, -1, -22.7689, 0.534775, 24.4213, 13.3472, 80.3554, -133.393
2.83867, -1, -22.9434, 0.445358, 24.4565, 13.3496, 80.2616, -133.63
2.84767, -1, -23.1171, 0.355974, 24.4916, 13.3521, 80.1681, -133.867
2.85572, -1, -23.2906, 0.266605, 24.5268, 13.3545, 80.0748, -134.104
2.86267, -1, -23.4638, 0.177325, 24.562, 13.3569, 79.9811, -134.34
2.87166, -1, -23.6369, 0.0881719, 24.5972, 13.3593, 79.8879, -134.576
2.87975, -1, -23.8102, -0.000938448, 24.6323, 13.3617, 79.7947, -134.812
2.88667, -1, -23.9836, -0.0899214, 24.6675, 13.3642, 79.7015, -135.048
2.89579, -1, -24.1573, -0.178908, 24.7025, 13.3666, 79.6085, -135.284
2.90374, -1, -24.3313, -0.267868, 24.7376, 13.369, 79.5155, -135.52
2.91067, -1, -24.5056, -0.356756, 24.7728, 13.3715, 79.4224, -135.755
2.91966, -1, -24.6801, -0.445654, 24.8078, 13.3739, 79.3294, -135.991
2.92773, -1, -24.8551, -0.534548, 24.8428, 13.3763, 79.2363, -136.227
2.93467, -1, -25.0302, -0.623417, 24.8779, 13.3787, 79.1434, -136.462
2.94366, -1, -25.2051, -0.712215, 24.9129, 13.381, 79.0504, -136.697
2.95173, -1, -25.3796, -0.800959, 24.9478, 13.3834, 78.9577, -136.932
2.96073, -1, -25.5538, -0.889812, 24.9829, 13.3858, 78.8651, -137.167
2.96765, -1, -25.7273, -0.978521, 25.0177, 13.3884, 78.7723, -137.402
2.97574, -1, -25.9002, -1.06719, 25.0526, 13.3907, 78.6797, -137.636
2.98366, -1, -26.0726, -1.15587, 25.0876, 13.3932, 78.5875, -137.871
2.99165, -1, -26.2447, -1.2445, 25.1225, 13.3956, 78.4947, -138.105
2.99974, -1, -26.4164, -1.33298, 25.1573, 13.398, 78.4021, -138.34
3.00765, -1, -26.5883, -1.42138, 25.1922, 13.4003, 78.3099, -138.574
3.01567, -1, -26.7603, -1.50972, 25.2272, 13.4025, 78.2172, -138.808
3.02373, -1, -26.9326, -1.59794, 25.262, 13.4048, 78.1248, -139.042
3.03166, -1, -27.105, -1.68611, 25.2969, 13.407, 78.0327, -139.276
3.03972, -1, -27.2776, -1.77435, 25.3318, 13.4091, 77.9405, -139.51
3.04769, -1, -27.4506, -1.86247, 25.3665, 13.4113, 77.8485, -139.744
3.05566, -1, -27.6237, -1.95058, 25.4012, 13.4134, 77.7566, -139.977
3.0638, -1, -27.7969, -2.03878, 25.4361, 13.4156, 77.6645, -140.211
3.07169, -1, -27.9702, -2.12681, 25.4709, 13.4176, 77.5725, -140.444
3.07966, -1, -28.1435, -2.21486, 25.5056, 13.4197, 77.4805, -140.678
3.08773, -1, -28.3166, -2.30292, 25.5404, 13.4217, 77.3884, -140.911
3.09564, -1, -28.4894, -2.39095, 25.5751, 13.4238, 77.2962, -141.144
3.10366, -1, -28.6617, -2.47892, 25.6097, 13.4259, 77.2042, -141.377
3.11175, -1, -28.8335, -2.56693, 25.6445, 13.428, 77.1123, -141.609
3.11967, -1, -29.0045, -2.65489, 25.6791, 13.4302, 77.0203, -141.842
3.12766, -1, -29.1751, -2.74276, 25.7136, 13.4324, 76.9284, -142.075
3.13573, -1, -29.3457, -2.8306, 25.7483, 13.4345, 76.8368, -142.307
3.1437, -1, -29.5164, -2.91831, 25.783, 13.4365, 76.7448, -142.539
3.15178, -1, -29.6874, -3.00594, 25.8175, 13.4385, 76.653, -142.772
3.15976, -1, -29.8584, -3.09345, 25.852, 13.4406, 76.5613, -143.005
3.16776, -1, -30.0294, -3.18093, 25.8867, 13.4427, 76.4693, -143.237
3.17616, -1, -30.2004, -3.26847, 25.9212, 13.4447, 76.3777, -143.468
3.18324, -1, -30.3716, -3.35591, 25.9557, 13.4468, 76.2862, -143.7
3.19176, -1, -30.5431, -3.44335, 25.9903, 13.4489, 76.1946, -143.932
3.20048, -1, -30.7148, -3.53086, 26.0247, 13.4509, 76.1032, -144.164
3.20767, -1, -30.8867, -3.6182, 26.0591, 13.4529, 76.0119, -144.395
3.21569, -1, -31.0585, -3.7056, 26.0938, 13.4549, 75.9204, -144.626
3.22458, -1, -31.2301, -3.79291, 26.1282, 13.457, 75.8291, -144.858
3.23185, -1, -31.4015, -3.88021, 26.1625, 13.459, 75.7378, -145.089
3.23981, -1, -31.5724, -3.96751, 26.197, 13.4613, 75.6465, -145.32
3.24885, -1, -31.7428, -4.05473, 26.2315, 13.4634, 75.5552, -145.551
3.25593, -1, -31.9127, -4.142, 26.2658, 13.4656, 75.4641, -145.782
3.26408, -1, -32.0824, -4.22918, 26.3001, 13.4678, 75.3731, -146.013
3.27066, -1, -32.1671, -4.27274, 26.3174, 13.4689, 75.3275, -146.129
3.27872, -1, -32.3365, -4.35984, 26.3517, 13.4711, 75.2365, -146.359
3.28826, -1, -32.5909, -4.49031, 26.4031, 13.4743, 75.1004, -146.705
3.29724, -1, -32.7606, -4.57725, 26.4376, 13.4764, 75.0093, -146.935
3.30424, -1, -32.9302, -4.66415, 26.4718, 13.4786, 74.9185, -147.165
3.31226, -1, -33.1, -4.7511, 26.5059, 13.4807, 74.8281, -147.396
3.32108, -1, -33.1848, -4.79454, 26.5231, 13.4818, 74.7372, -147.626
3.32764, -1, -33.3548, -4.88137, 26.5574, 13.4841, 74.6919, -147.741
3.3357, -1, -33.525, -4.9683, 26.5916, 13.4863, 74.6013, -147.971
3.34366, -1, -33.6954, -5.05518, 26.6258, 13.4885, 74.511, -148.201
3.35164, -1, -33.8656, -5.14192, 26.6601, 13.4907, 74.4202, -148.43
3.35974, -1, -34.0358, -5.22862, 26.6942, 13.4929, 74.3298, -148.66
3.36764, -1, -34.206, -5.31537, 26.7283, 13.4952, 74.2395, -148.889
3.37467, -1, -34.3761, -5.40202, 26.7626, 13.4975, 74.1487, -149.119
3.38367, -1, -34.5459, -5.48866, 26.7968, 13.4999, 74.0581, -149.348
3.39165, -1, -34.715, -5.57533, 26.8308, 13.5022, 73.9677, -149.578
3.39978, -1, -34.8838, -5.66195, 26.865, 13.5046, 73.8771, -149.807
3.40766, -1, -35.0523, -5.74849, 26.8992, 13.5071, 73.7866, -150.036
3.41564, -1, -35.2205, -5.835, 26.9332, 13.5095, 73.6963, -150.264
3.42373, -1, -35.3889, -5.92138, 26.9674, 13.512, 73.606, -150.494
3.43164, -1, -35.5574, -6.0076, 27.0015, 13.5143, 73.5156, -150.722
3.43966, -1, -35.7259, -6.09385, 27.0355, 13.5167, 73.4252, -150.951
3.44772, -1, -35.8945, -6.18002, 27.0695, 13.5191, 73.3351, -151.18
3.45564, -1, -36.063, -6.26612, 27.1036, 13.5215, 73.2446, -151.408
3.46465, -1, -36.2315, -6.35225, 27.1376, 13.5239, 73.1541, -151.637
3.47068, -1, -36.4001, -6.43847, 27.1715, 13.5263, 73.0639, -151.865
3.47965, -1, -36.569, -6.52469, 27.2056, 13.5286, 72.9733, -152.093
3.48765, -1, -36.7379, -6.61086, 27.2395, 13.5309, 72.8832, -152.321
3.49563, -1, -36.9069, -6.69706, 27.2734, 13.5332, 72.7931, -152.549
3.50365, -1, -37.0758, -6.78323, 27.3074, 13.5354, 72.703, -152.777
3.51311, -1, -37.2445, -6.86935, 27.3412, 13.5377, 72.6131, -153.005
3.51966, -1, -37.4131, -6.9554, 27.3751, 13.54, 72.5233, -153.233
3.52771, -1, -37.5811, -7.04148, 27.4091, 13.5422, 72.4334, -153.46
3.53563, -1, -37.7489, -7.1275, 27.4431, 13.5445, 72.3436, -153.688
3.54365, -1, -37.9166, -7.21349, 27.4769, 13.5467, 72.2537, -153.916
3.55172, -1, -38.084, -7.2994, 27.5107, 13.5489, 72.164, -154.143
3.55964, -1, -38.2515, -7.38529, 27.5447, 13.5511, 72.0742, -154.37
3.56772, -1, -38.4188, -7.47102, 27.5785, 13.5533, 71.9845, -154.597
3.57575, -1, -38.586, -7.55672, 27.6123, 13.5553, 71.8951, -154.825
3.58363, -1, -38.7533, -7.64244, 27.6463, 13.5574, 71.8053, -155.052
3.59163, -1, -38.9206, -7.7281, 27.68, 13.5595, 71.716, -155.279
3.59975, -1, -39.0879, -7.81372, 27.7137, 13.5616, 71.6269, -155.506
3.60764, -1, -39.2554, -7.89941, 27.7476, 13.5636, 71.5373, -155.733
3.61564, -1, -39.423, -7.98509, 27.7814, 13.5655, 71.448, -155.959
3.62372, -1, -39.5906, -8.07065, 27.815, 13.5675, 71.3586, -156.186
3.63164, -1, -39.7583, -8.1562, 27.8487, 13.5694, 71.2694, -156.413
3.63965, -1, -39.9258, -8.24166, 27.8825, 13.5714, 71.18, -156.639
3.64787, -1, -40.0934, -8.32711, 27.9161, 13.5733, 71.0905, -156.865
3.6557, -1, -40.2609, -8.41246, 27.9498, 13.5753, 71.0015, -157.092
3.66373, -1, -40.428, -8.49783, 27.9836, 13.5773, 70.912, -157.318
3.67215, -1, -40.5951, -8.58324, 28.0172, 13.5793, 70.8228, -157.544
3.67978, -1, -40.7619, -8.66861, 28.0508, 13.5812, 70.7339, -157.77
3.68776, -1, -40.9285, -8.75393, 28.0845, 13.5833, 70.6446, -157.996
3.6962, -1, -41.0949, -8.83924, 28.1182, 13.5853, 70.5554, -158.222
3.70381, -1, -41.2611, -8.92449, 28.1517, 13.5874, 70.4664, -158.448
3.71165, -1, -41.4273, -9.00965, 28.1853, 13.5893, 70.3772, -158.673
3.72045, -1, -41.5936, -9.09482, 28.219, 13.5913, 70.288, -158.898
3.72773, -1, -41.7599, -9.17992, 28.2525, 13.5933, 70.1989, -159.124
3.73592, -1, -41.9263, -9.26497, 28.2861, 13.5953, 70.1098, -159.349
3.74479, -1, -42.0927, -9.35002, 28.3198, 13.5974, 70.0208, -159.575
3.75189, -1, -42.259, -9.43512, 28.3533, 13.5994, 69.9319, -159.8
3.76001, -1, -42.4253, -9.52015, 28.3868, 13.6014, 69.8431, -160.025
3.76663, -1, -42.5084, -9.56262, 28.4036, 13.6024, 69.7985, -160.138
3.77608, -1, -42.7581, -9.69008, 28.4539, 13.6055, 69.6651, -160.476
3.78264, -1, -42.8413, -9.73257, 28.4706, 13.6065, 69.6208, -160.589
3.79215, -1, -43.0909, -9.85998, 28.5208, 13.6096, 69.4875, -160.926
3.80102, -1, -43.257, -9.94491, 28.5543, 13.6116, 69.3989, -161.151
3.80664, -1, -43.3401, -9.98736, 28.571, 13.6127, 69.3546, -161.263
3.81621, -1, -43.5062, -10.0723, 28.6212, 13.6157, 69.2217, -161.6
3.82499, -1, -43.6721, -10.1573, 28.638, 13.6168, 69.1774, -161.825
3.83222, -1, -43.838, -10.2421, 28.6714, 13.619, 69.0889, -162.05
3.83965, -1, -44.0038, -10.3269, 28.7048, 13.6211, 69.0006, -162.162
3.84762, -1, -44.1692, -10.4117, 28.7383, 13.6233, 68.9118, -162.386
3.85567, -1, -44.3344, -10.4963, 28.7718, 13.6255, 68.8232, -162.61
3.86375, -1, -44.4995, -10.5808, 28.8051, 13.6277, 68.7347, -162.835
3.87162, -1, -44.6647, -10.6654, 28.8385, 13.6299, 68.646, -163.059
3.87971, -1, -44.83, -10.7499, 28.872, 13.632, 68.5575, -163.283
3.88763, -1, -44.9954, -10.8343, 28.9054, 13.6342, 68.469, -163.507
3.89563, -1, -45.1607, -10.9188, 28.9388, 13.6364, 68.3807, -163.731
3.90377, -1, -45.3261, -11.0033, 28.9722, 13.6386, 68.2922, -163.955
3.91162, -1, -45.4913, -11.0878, 29.0056, 13.6409, 68.2039, -164.179
3.9196, -1, -45.6566, -11.1721, 29.0387, 13.6432, 68.116, -164.403
3.92763, -1, -45.8218, -11.2566, 29.0721, 13.6455, 68.0273, -164.626
3.93563, -1, -45.986, -11.3404, 29.1056, 13.6478, 67.939, -164.85
3.94371, -1, -46.1474, -11.4227, 29.139, 13.6501, 67.8509, -165.073
3.95162, -1, -46.3044, -11.5021, 29.1726, 13.6525, 67.7635, -165.294
3.95962, -1, -46.4548, -11.5771, 29.2062, 13.6548, 67.6783, -165.51
3.96866, -1, -46.596, -11.647, 29.2384, 13.6571, 67.5967, -165.715
3.97565, -1, -46.7256, -11.7104, 29.2683, 13.6594, 67.5221, -165.905
3.98362, -1, -46.8407, -11.7665, 29.2947, 13.6613, 67.4551, -166.074
3.9917, -1, -46.9395, -11.8157, 29.3168, 13.6631, 67.3993, -166.216
3.99963, -1, -47.0221, -11.8587, 29.3334, 13.6643, 67.3544, -166.329
4.00762, -1, -47.0893, -11.8955, 29.3447, 13.6651, 67.3209, -166.414
4.01572, -1, -47.1417, -11.9249, 29.3519, 13.6655, 67.2975, -166.473
4.02362, -1, -47.1806, -11.9471, 29.3558, 13.6657, 67.2825, -166.51
4.03162, -1, -47.2082, -11.9625, 29.3576, 13.6659, 67.2737, -166.533
4.03968, -1, -47.2263, -11.9725, 29.3584, 13.6659, 67.269, -166.545
4.04763, -1, -47.2372, -11.9784, 29.3588, 13.6659, 67.2665, -166.551
4.05563, 2, -47.2428, -11.9814, 29.359, 13.666, 67.2654, -166.553
4.06369, 2, -47.2449, -11.9827, 29.3592, 13.666, 67.2649, -166.555
4.07171, 2, -47.2449, -11.9832, 29.3593, 13.6661, 67.2646, -166.555
4.07968, 2, -47.2447, -11.9834, 29.3593, 13.6661, 67.2645, -166.555
4.08764, 2, -47.2447, -11.9835, 29.3593, 13.6661, 67.2645, -166.556
4.09563, 2, -47.245, -11.9836, 29.3594, 13.6661, 67.2644, -166.556
4.10366, 2, -47.2459, -11.9839, 29.3594, 13.6661, 67.2644, -166.556
4.11165, 2, -47.2472, -11.9844, 29.3594, 13.6661, 67.2645, -166.556
4.11962, 2, -47.249, -11.9851, 29.3594, 13.666, 67.2645, -166.556
4.12766, 2, -47.2506, -11.986, 29.3594, 13.6661, 67.2644, -166.556
4.13566, 2, -47.252, -11.9868, 29.3594, 13.6661, 67.2645, -166.556
4.14365, 2, -47.253, -11.9875, 29.3594, 13.6661, 67.2645, -166.556
4.15169, 2, -47.2534, -11.9879, 29.3594, 13.6661, 67.2644, -166.556
4.15975, 2, -47.2536, -11.9881, 29.3594, 13.6661, 67.2644, -166.556
4.16772, 2, -47.2537, -11.9882, 29.3594, 13.6661, 67.2644, -166.556
4.17587, 2, -47.2533, -11.9882, 29.3594, 13.6661, 67.2644, -166.556
4.18376, 2, -47.2529, -11.9881, 29.3594, 13.6661, 67.2645, -166.556
4.19174, 2, -47.2524, -11.9881, 29.3594, 13.6661, 67.2644, -166.556
4.19978, 2, -47.2521, -11.9881, 29.3595, 13.6661, 67.2644, -166.556
4.20765, 2, -47.2519, -11.9881, 29.3595, 13.666, 67.2644, -166.556
4.21579, 2, -47.2519, -11.9882, 29.3595, 13.666, 67.2644, -166.556
4.22369, 2, -47.252, -11.9883, 29.3595, 13.6661, 67.2645, -166.556
4.23173, 2, -47.2522, -11.9887, 29.3595, 13.6661, 67.2644, -166.556
4.24007, 2, -47.2528, -11.989, 29.3594, 13.6661, 67.2645, -166.556
4.24666, 2, -47.2531, -11.9892, 29.3594, 13.6661, 67.2644, -166.556
4.25588, 2, -47.2537, -11.9895, 29.3595, 13.6661, 67.2645, -166.556
4.26418, 2, -47.2539, -11.9896, 29.3595, 13.6661, 67.2645, -166.556
4.27204, 2, -47.2538, -11.9896, 29.3595, 13.666, 67.2645, -166.556
4.27862, 2, -47.2538, -11.9896, 29.3595, 13.666, 67.2645, -166.556
4.28817, 2, -47.2536, -11.9895, 29.3595, 13.666, 67.2645, -166.555
4.29618, 2, -47.2532, -11.9895, 29.3595, 13.666, 67.2644, -166.555
4.30421, 2, -47.2528, -11.9895, 29.3595, 13.666, 67.2645, -166.555
4.31248, 2, -47.2525, -11.9895, 29.3594, 13.666, 67.2644, -166.556
4.32022, 2, -47.2523, -11.9895, 29.3595, 13.666, 67.2645, -166.556
4.32817, 2, -47.2522, -11.9895, 29.3595, 13.666, 67.2645, -166.556
4.33562, 2, -47.2522, -11.9895, 29.3594, 13.666, 67.2645, -166.556
4.34365, 2, -47.2522, -11.9896, 29.3594, 13.666, 67.2645, -166.556
4.35162, 2, -47.2521, -11.9896, 29.3594, 13.666, 67.2645, -166.555
4.35961, 2, -47.2521, -11.9897, 29.3594, 13.666, 67.2645, -166.555
4.36766, 2, -47.2521, -11.9897, 29.3595, 13.666, 67.2645, -166.555
4.37564, 2, -47.2522, -11.9897, 29.3595, 13.666, 67.2645, -166.555
4.38361, 2, -47.2521, -11.9897, 29.3595, 13.666, 67.2645, -166.555
4.39164, 2, -47.2521, -11.9896, 29.3595, 13.666, 67.2645, -166.555
4.39963, 2, -47.252, -11.9896, 29.3595, 13.666, 67.2645, -166.555
4.40769, 2, -47.2519, -11.9895, 29.3595, 13.666, 67.2645, -166.555
4.41565, 2, -47.2518, -11.9894, 29.3595, 13.666, 67.2645, -166.555
4.42362, 2, -47.2517, -11.9895, 29.3595, 13.666, 67.2646, -166.555
4.43161, 2, -47.2516, -11.9895, 29.3595, 13.666, 67.2646, -166.555
4.43964, 2, -47.2515, -11.9895, 29.3595, 13.666, 67.2645, -166.555
4.44763, 2, -47.2514, -11.9895, 29.3595, 13.666, 67.2645, -166.555
4.45562, 2, -47.2514, -11.9895, 29.3595, 13.666, 67.2646, -166.555
4.46461, 2, -47.2513, -11.9895, 29.3594, 13.6659, 67.2646, -166.555
4.47163, 2, -47.2512, -11.9895, 29.3595, 13.6659, 67.2645, -166.555
4.48064, 2, -47.2512, -11.9895, 29.3595, 13.6659, 67.2646, -166.555
4.48765, 2, -47.2511, -11.9895, 29.3595, 13.6659, 67.2646, -166.555
4.49564, 2, -47.251, -11.9894, 29.3594, 13.666, 67.2646, -166.555
4.50362, 2, -47.2509, -11.9894, 29.3594, 13.666, 67.2646, -166.555
4.51171, 2, -47.2509, -11.9893, 29.3595, 13.666, 67.2646, -166.555
4.51962, 2, -47.2508, -11.9893, 29.3595, 13.666, 67.2646, -166.555
4.52761, 2, -47.2507, -11.9893, 29.3595, 13.6659, 67.2646, -166.555
4.53566, 2, -47.2506, -11.9892, 29.3595, 13.6659, 67.2646, -166.555
4.54363, 2, -47.2505, -11.9892, 29.3594, 13.6659, 67.2647, -166.555
4.55161, 2, -47.2504, -11.9893, 29.3594, 13.6659, 67.2647, -166.555
4.55966, 2, -47.2503, -11.9893, 29.3594, 13.6659, 67.2646, -166.555
4.56763, 2, -47.2502, -11.9893, 29.3594, 13.6659, 67.2646, -166.555
4.57569, 2, -47.2501, -11.9893, 29.3594, 13.6659, 67.2646, -166.555
4.58365, 2, -47.25, -11.9893, 29.3595, 13.6659, 67.2647, -166.555
4.59163, 2, -47.2499, -11.9892, 29.3595, 13.6659, 67.2647, -166.555
4.59961, 2, -47.2498, -11.9892, 29.3595, 13.6659, 67.2647, -166.555
4.60764, 2, -47.2497, -11.9891, 29.3595, 13.6659, 67.2647, -166.555
4.61576, 2, -47.2496, -11.9891, 29.3595, 13.6659, 67.2647, -166.555
4.62361, 2, -47.2495, -11.989, 29.3595, 13.6659, 67.2647, -166.555
4.63165, 2, -47.2494, -11.989, 29.3594, 13.6659, 67.2647, -166.555
4.63965, 2, -47.2493, -11.989, 29.3594, 13.6659, 67.2647, -166.555
4.64763, 2, -47.2493, -11.989, 29.3595, 13.6658, 67.2647, -166.555
4.65569, 2, -47.2492, -11.989, 29.3595, 13.6659, 67.2647, -166.555
4.66373, 2, -47.2492, -11.989, 29.3594, 13.6659, 67.2647, -166.555
4.67172, 2, -47.2491, -11.989, 29.3594, 13.6658, 67.2647, -166.555
4.67978, 2, -47.249, -11.989, 29.3594, 13.6658, 67.2647, -166.555
4.68775, 2, -47.249, -11.9889, 29.3594, 13.6658, 67.2647, -166.555
4.69573, 2, -47.2489, -11.9889, 29.3594, 13.6659, 67.2647, -166.555
4.70377, 2, -47.2489, -11.9889, 29.3594, 13.6659, 67.2647, -166.555
4.71164, 2, -47.2488, -11.9888, 29.3594, 13.6659, 67.2647, -166.555
4.71965, 2, -47.2487, -11.9887, 29.3594, 13.6659, 67.2647, -166.555
4.72768, 2, -47.2487, -11.9887, 29.3594, 13.6658, 67.2647, -166.555
4.73572, 2, -47.2486, -11.9887, 29.3594, 13.6658, 67.2648, -166.555
4.74386, 2, -47.2485, -11.9886, 29.3594, 13.6658, 67.2648, -166.555
4.75069, 2, -47.2485, -11.9886, 29.3594, 13.6658, 67.2647, -166.555
4.75988, 2, -47.2485, -11.9886, 29.3594, 13.6658, 67.2648, -166.555
4.76827, 2, -47.2484, -11.9886, 29.3594, 13.6658, 67.2648, -166.555
4.77605, 2, -47.2484, -11.9886, 29.3594, 13.6658, 67.2647, -166.555
4.78261, 2, -47.2484, -11.9886, 29.3594, 13.6658, 67.2647, -166.555
4.79251, 2, -47.2483, -11.9886, 29.3594, 13.6657, 67.2647, -166.555
4.80016, 2, -47.2483, -11.9886, 29.3594, 13.6657, 67.2647, -166.555
4.80816, 2, -47.2483, -11.9885, 29.3594, 13.6657, 67.2647, -166.555
4.81664, 2, -47.2482, -11.9884, 29.3594, 13.6657, 67.2647, -166.555
4.8242, 2, -47.2481, -11.9884, 29.3594, 13.6657, 67.2648, -166.555
4.83216, 2, -47.2481, -11.9884, 29.3594, 13.6657, 67.2648, -166.554
4.84049, 2, -47.2479, -11.9883, 29.3594, 13.6657, 67.2648, -166.554
4.84763, 2, -47.2479, -11.9883, 29.3594, 13.6656, 67.2648, -166.554
4.85562, 2, -47.2478, -11.9883, 29.3594, 13.6656, 67.2648, -166.554
4.86359, 2, -47.2478, -11.9883, 29.3594, 13.6656, 67.2648, -166.554
4.87163, 2, -47.2477, -11.9882, 29.3594, 13.6656, 67.2648, -166.554
4.87962, 2, -47.2477, -11.9882, 29.3594, 13.6657, 67.2648, -166.554
4.88759, 2, -47.2477, -11.9882, 29.3594, 13.6656, 67.2648, -166.554
4.89564, 2, -47.2477, -11.9882, 29.3594, 13.6657, 67.2648, -166.554
4.90361, 2, -47.2477, -11.9882, 29.3595, 13.6656, 67.2648, -166.554
4.91167, 2, -47.2476, -11.9882, 29.3594, 13.6656, 67.2648, -166.554
4.91959, 2, -47.2476, -11.9881, 29.3595, 13.6656, 67.2648, -166.554
4.92761, 2, -47.2475, -11.988, 29.3594, 13.6655, 67.2649, -166.554
4.9356, 2, -47.2474, -11.988, 29.3595, 13.6655, 67.265, -166.554
4.94364, 2, -47.2473, -11.988, 29.3594, 13.6655, 67.2649, -166.554
4.95161, 2, -47.2473, -11.9879, 29.3594, 13.6655, 67.265, -166.554
4.9596, 2, -47.2472, -11.9879, 29.3594, 13.6655, 67.265, -166.554
4.96763, 2, -47.2471, -11.9879, 29.3594, 13.6655, 67.265, -166.554
4.97562, 2, -47.2471, -11.9879, 29.3594, 13.6655, 67.265, -166.554
4.98552, 2, -47.2471, -11.9879, 29.3594, 13.6655, 67.265, -166.554
4.99163, 2, -47.247, -11.9879, 29.3594, 13.6655, 67.265, -166.554
4.99961, 2, -47.247, -11.9879, 29.3594, 13.6655, 67.265, -166.554
5.00759, 2, -47.247, -11.9878, 29.3594, 13.6654, 67.265, -166.554
5.01565, 2, -47.247, -11.9878, 29.3594, 13.6654, 67.2651, -166.554
5.02361, 2, -47.247, -11.9878, 29.3594, 13.6654, 67.2651, -166.554
5.03159, 2, -47.2469, -11.9877, 29.3595, 13.6654, 67.265, -166.554
5.03964, 2, -47.2468, -11.9877, 29.3594, 13.6654, 67.265, -166.554
5.04761, 2, -47.2467, -11.9876, 29.3594, 13.6654, 67.2651, -166.554
5.05692, 2, -47.2466, -11.9876, 29.3594, 13.6653, 67.2651, -166.554
5.06363, 2, -47.2466, -11.9876, 29.3594, 13.6653, 67.2651, -166.554
5.07162, 2, -47.2465, -11.9876, 29.3594, 13.6654, 67.265, -166.554
5.07967, 2, -47.2465, -11.9876, 29.3594, 13.6654, 67.2651, -166.554
5.08763, 2, -47.2464, -11.9875, 29.3594, 13.6653, 67.2651, -166.554
5.09562, 2, -47.2464, -11.9875, 29.3594, 13.6652, 67.2651, -166.554
5.1036, 2, -47.2464, -11.9875, 29.3594, 13.6653, 67.2651, -166.554
5.11164, 2, -47.2464, -11.9875, 29.3594, 13.6653, 67.2651, -166.554
5.11963, 4, -47.2463, -11.9875, 29.3594, 13.6652, 67.2652, -166.554
5.12759, 4, -47.2463, -11.9874, 29.3594, 13.6652, 67.2651, -166.554
5.13565, 4, -47.2463, -11.9873, 29.3594, 13.6652, 67.2651, -166.554
5.14363, 4, -47.2462, -11.9873, 29.3594, 13.6652, 67.2652, -166.554
5.15162, 4, -47.2461, -11.9873, 29.3594, 13.6651, 67.2652, -166.554
5.15967, 4, -47.246, -11.9872, 29.3594, 13.6651, 67.2652, -166.554
5.1677, 4, -47.246, -11.9872, 29.3594, 13.6652, 67.2652, -166.554
5.17569, 4, -47.2459, -11.9872, 29.3594, 13.6651, 67.2653, -166.554
5.18375, 4, -47.2459, -11.9872, 29.3594, 13.6652, 67.2652, -166.554
5.19173, 4, -47.2458, -11.9872, 29.3594, 13.6652, 67.2653, -166.554
5.19971, 4, -47.2458, -11.9872, 29.3594, 13.6651, 67.2653, -166.554
5.20777, 4, -47.2458, -11.9872, 29.3594, 13.6651, 67.2653, -166.554
5.21591, 4, -47.2458, -11.9871, 29.3594, 13.6651, 67.2653, -166.554
5.23176, 4, -47.2458, -11.987, 29.3594, 13.6651, 67.2653, -166.553
5.23378, 4, -47.2457, -11.987, 29.3594, 13.6651, 67.2653, -166.553
5.24009, 4, -47.2457, -11.987, 29.3594, 13.6651, 67.2653, -166.553
5.24855, 4, -47.2457, -11.987, 29.3594, 13.665, 67.2653, -166.553
5.25621, 4, -47.2456, -11.987, 29.3594, 13.665, 67.2653, -166.553
5.26413, 4, -47.2456, -11.9869, 29.3594, 13.665, 67.2653, -166.553
5.27714, 4, -47.2455, -11.9869, 29.3594, 13.665, 67.2653, -166.553
5.28237, 4, -47.2454, -11.9869, 29.3594, 13.665, 67.2653, -166.553
5.29084, 4, -47.2454, -11.9869, 29.3594, 13.665, 67.2653, -166.553
5.29655, 4, -47.2454, -11.9869, 29.3594, 13.665, 67.2653, -166.553
5.30839, 4, -47.2453, -11.9869, 29.3594, 13.665, 67.2653, -166.553
5.3124, 4, -47.2453, -11.9869, 29.3594, 13.6649, 67.2653, -166.553
5.32155, 4, -47.2453, -11.9868, 29.3594, 13.665, 67.2653, -166.553
5.32853, 4, -47.2452, -11.9868, 29.3594, 13.665, 67.2653, -166.553
5.33641, 4, -47.2453, -11.9868, 29.3594, 13.6649, 67.2653, -166.553
5.34444, 4, -47.2453, -11.9867, 29.3594, 13.665, 67.2653, -166.553
5.35447, 4, -47.2452, -11.9867, 29.3594, 13.665, 67.2653, -166.553
5.36101, 4, -47.2452, -11.9867, 29.3594, 13.6649, 67.2653, -166.553
5.3678, 4, -47.2451, -11.9867, 29.3594, 13.6649, 67.2653, -166.553
5.3796, 4, -47.245, -11.9867, 29.3594, 13.6649, 67.2653, -166.553
5.38374, 4, -47.2451, -11.9867, 29.3594, 13.6649, 67.2653, -166.553
5.3936, 4, -47.2461, -11.9872, 29.3598, 13.665, 67.2654, -166.553
5.40136, 4, -47.2484, -11.9889, 29.3617, 13.6667, 67.266, -166.553
5.41321, 4, -47.2557, -11.9972, 29.3724, 13.6866, 67.2709, -166.55
5.41585, 4, -47.2557, -11.9972, 29.3724, 13.6866, 67.2709, -166.55
5.4238, 4, -47.2649, -12.009, 29.3903, 13.722, 67.2804, -166.543
5.43179, 5, -47.2794, -12.0284, 29.4231, 13.7884, 67.2989, -166.528
5.44345, 5, -47.3161, -12.0773, 29.5139, 13.9777, 67.3522, -166.485
5.44772, 5, -47.3333, -12.0997, 29.5584, 14.0719, 67.3783, -166.463
5.45615, 5, -47.3765, -12.155, 29.6729, 14.3169, 67.4458, -166.407
5.46373, 5, -47.4325, -12.2252, 29.8237, 14.6435, 67.5353, -166.332
5.47392, 5, -47.5401, -12.3588, 30.1218, 15.2906, 67.7094, -166.183
5.48368, 5, -47.627, -12.4664, 30.3671, 15.8183, 67.8493, -166.063
5.48873, 5, -47.6746, -12.5252, 30.5021, 16.1062, 67.9252, -165.998
5.49899, 5, -47.8312, -12.7195, 30.9499, 17.0452, 68.1689, -165.788
5.50376, 5, -47.8873, -12.7893, 31.1105, 17.3771, 68.2536, -165.715
5.51363, 5, -48.0035, -12.9346, 31.445, 18.0574, 68.4251, -165.491
5.52247, 5, -48.184, -13.1619, 31.9663, 19.0976, 68.6809, -165.343
5.52814, 5, -48.2444, -13.2385, 32.1431, 19.4447, 68.7648, -165.269
5.53999, 5, -48.4214, -13.4648, 32.6739, 20.4682, 69.0106, -165.047
5.54377, 5, -48.4772, -13.5381, 32.8495, 20.7995, 69.0908, -164.969
5.55518, 6, -48.581, -13.7449, 33.3605, 21.7436, 69.3293, -164.707
5.56082, 6, -48.6705, -13.8084, 33.5236, 22.0376, 69.4089, -164.604
5.5712, 7, -48.7691, -13.9852, 33.9841, 22.8481, 69.6535, -164.225
5.57574, 7, -48.7912, -14.04, 34.1277, 23.0934, 69.738, -164.069
5.58715, 8, -48.8253, -14.1918, 34.5276, 23.7629, 70.0042, -163.499
5.59179, 8, -48.8266, -14.2375, 34.6516, 23.9676, 70.0984, -163.274
5.60078, 8, -48.8157, -14.3218, 34.8896, 24.3561, 70.295, -162.774
5.60777, 9, -48.7895, -14.3982, 35.1161, 24.7255, 70.5029, -162.218
5.61581, 9, -48.7511, -14.469, 35.3351, 25.0851, 70.721, -161.618
5.6238, 10, -48.7026, -14.536, 35.5512, 25.4411, 70.9475, -160.991
5.63181, 10, -48.6448, -14.6003, 35.7661, 25.7973, 71.1804, -160.349
5.63975, 11, -48.579, -14.6624, 35.9803, 26.1551, 71.4167, -159.703
5.64798, 11, -48.5073, -14.7237, 36.1947, 26.5162, 71.6542, -159.058
5.6571, 12, -48.4311, -14.7855, 36.4079, 26.8819, 71.8923, -158.417
5.66409, 12, -48.3523, -14.8479, 36.6185, 27.2536, 72.1309, -157.775
5.67195, 13, -48.2723, -14.9095, 36.8276, 27.6324, 72.3708, -157.131
5.68023, 13, -48.1911, -14.9692, 37.0347, 28.0179, 72.6122, -156.484
5.68784, 14, -48.108, -15.0283, 37.2395, 28.4099, 72.8553, -155.834
5.69636, 14, -48.0221, -15.088, 37.4433, 28.8073, 73.1002, -155.181
5.70385, 15, -47.9328, -15.1479, 37.6464, 29.2082, 73.346, -154.528
5.71253, 15, -47.8399, -15.207, 37.847, 29.6111, 73.5918, -153.877
5.72154, 16, -47.7418, -15.2655, 38.0456, 30.0143, 73.8365, -153.228
5.72849, 16, -47.6369, -15.3248, 38.2424, 30.4168, 74.0793, -152.582
5.73673, 17, -47.5257, -15.3859, 38.4361, 30.8169, 74.3183, -151.942
5.74474, 17, -47.4095, -15.4484, 38.6266, 31.2137, 74.5524, -151.306
5.75213, 18, -47.2886, -15.5117, 38.8148, 31.6059, 74.7803, -150.677
5.76236, 18, -47.1625, -15.5759, 39.0008, 31.9939, 75.0021, -150.057
5.77083, 19, -47.0313, -15.6419, 39.184, 32.3782, 75.2174, -149.445
5.77868, 19, -46.895, -15.7104, 39.3658, 32.7602, 75.4271, -148.839
5.78443, 20, -46.7535, -15.7813, 39.5465, 33.1408, 75.6319, -148.241
5.79301, 20, -46.6067, -15.8544, 39.7251, 33.5203, 75.8324, -147.651
5.80081, 21, -46.4547, -15.9301, 39.9008, 33.8993, 76.0292, -147.066
5.8108, 21, -46.2979, -16.0083, 40.0745, 34.2771, 76.2217, -146.487
5.81774, 22, -46.1366, -16.0886, 40.246, 34.6536, 76.4096, -145.915
5.82523, 22, -45.9706, -16.1701, 40.4144, 35.0272, 76.5925, -145.349
5.83247, 23, -45.8856, -16.2532, 40.5796, 35.3973, 76.7703, -144.79
5.84113, 23, -45.7109, -16.3382, 40.7424, 35.7631, 76.9422, -144.236
5.84841, 24, -45.5294, -16.3814, 40.8227, 35.9441, 77.0262, -143.687
5.85707, 24, -45.3412, -16.4691, 40.9802, 36.3019, 77.1895, -143.415
5.86738, 25, -45.0464, -16.603, 41.2085, 36.8259, 77.4239, -142.606
5.87172, 25, -44.9448, -16.6482, 41.2826, 36.997, 77.4993, -142.339
5.88231, 26, -44.6301, -16.785, 41.4982, 37.4995, 77.7178, -141.541
5.88777, 26, -44.5218, -16.8309, 41.5675, 37.6632, 77.7884, -141.277
5.89761, 27, -44.1862, -16.9691, 41.7674, 38.1436, 77.9941, -140.487
5.90374, 27, -44.071, -17.0151, 41.8312, 38.2998, 78.0607, -140.224
5.91689, 28, -43.7155, -17.152, 42.0134, 38.757, 78.2556, -139.175
5.92347, 28, -43.47, -17.2418, 42.1266, 39.0514, 78.3811, -138.914
5.92785, 29, -43.3446, -17.2861, 42.1806, 39.1955, 78.4428, -138.653
5.93923, 29, -42.9587, -17.4163, 42.3324, 39.6153, 78.623, -137.869
5.94371, 30, -42.8266, -17.4588, 42.3793, 39.7512, 78.6814, -137.608
5.95391, 30, -42.5563, -17.5425, 42.4679, 40.0162, 78.7963, -136.826
5.95969, 31, -42.2775, -17.6236, 42.5493, 40.2727, 78.9081, -136.566
5.96859, 31, -41.9907, -17.7022, 42.6236, 40.5208, 79.0171, -136.046
5.97571, 32, -41.6966, -17.7785, 42.6909, 40.7603, 79.1237, -135.526
5.98375, 32, -41.3956, -17.8524, 42.7515, 40.9914, 79.2274, -135.006
5.99502, 33, -40.9318, -17.958, 42.8292, 41.3228, 79.3785, -134.23
6.00471, 33, -40.6142, -18.0243, 42.8721, 41.5336, 79.476, -133.713
6.00768, 34, -40.453, -18.0564, 42.8907, 41.6358, 79.5237, -133.455
6.01679, 34, -40.1273, -18.1188, 42.9226, 41.8344, 79.6172, -132.94
6.02666, 35, -39.6294, -18.2069, 42.9568, 42.1176, 79.7528, -132.169
6.03482, 35, -39.2899, -18.2614, 42.9708, 42.2971, 79.8401, -131.657
6.04374, 36, -38.9433, -18.3125, 42.9778, 42.4686, 79.9253, -131.145
6.04777, 36, -38.7671, -18.3368, 42.9788, 42.5515, 79.967, -130.89
6.05687, 37, -38.4101, -18.383, 42.9758, 42.7118, 80.0491, -130.381
6.06895, 38, -37.8636, -18.4455, 42.9584, 42.9379, 80.1684, -129.621
6.07177, 38, -37.6788, -18.4645, 42.9492, 43.0096, 80.2071, -129.368
6.07974, 38, -37.3057, -18.4999, 42.9259, 43.1476, 80.2829, -128.863
6.08884, 39, -36.9279, -18.5321, 42.8958, 43.2779, 80.3564, -128.36
6.09581, 39, -36.5455, -18.5606, 42.8591, 43.401, 80.4278, -127.859
6.10387, 40, -36.1581, -18.5854, 42.8156, 43.5166, 80.4976, -127.361
6.11174, 40, -35.7646, -18.6063, 42.7657, 43.6252, 80.5655, -126.864
6.12071, 41, -35.3653, -18.6233, 42.7092, 43.7266, 80.6316, -126.368
6.12963, 41, -34.9604, -18.6365, 42.6462, 43.8205, 80.6951, -125.875
6.13606, 42, -34.5511, -18.6464, 42.5768, 43.9077, 80.7575, -125.385
6.14471, 42, -34.1386, -18.6529, 42.501, 43.9876, 80.8169, -124.896
6.15277, 43, -33.723, -18.6562, 42.419, 44.0603, 80.8757, -124.41
6.16, 43, -33.3033, -18.6563, 42.331, 44.1259, 80.932, -123.926
6.16778, 44, -32.8778, -18.6526, 42.2373, 44.1846, 80.9866, -123.444
6.17611, 44, -32.446, -18.6452, 42.1379, 44.2355, 81.0404, -122.965
6.18389, 45, -32.0077, -18.6339, 42.0326, 44.2797, 81.0915, -122.488
6.1957, 45, -31.3416, -18.6103, 41.8634, 44.3321, 81.1661, -121.777
6.19988, 46, -31.1183, -18.6008, 41.804, 44.3456, 81.1901, -121.541
6.20833, 46, -30.6705, -18.579, 41.6808, 44.3669, 81.236, -121.072
6.21989, 47, -29.9923, -18.5389, 41.485, 44.3845, 81.3034, -120.371
6.22629, 47, -29.7637, -18.5232, 41.4168, 44.387, 81.3255, -120.139
6.23196, 48, -29.3014, -18.4887, 41.2759, 44.3866, 81.368, -119.675
6.24068, 48, -28.8327, -18.4499, 41.1288, 44.3773, 81.4098, -119.213
6.24817, 49, -28.3587, -18.4067, 40.9759, 44.3594, 81.4517, -118.753
6.25681, 49, -27.8819, -18.3591, 40.817, 44.3326, 81.4929, -118.295
6.266, 50, -27.4026, -18.307, 40.6518, 44.2956, 81.5333, -117.837
6.27321, 50, -26.9198, -18.2496, 40.4798, 44.2497, 81.5746, -117.381
6.28019, 51, -26.4306, -18.1866, 40.3015, 44.1948, 81.6171, -116.925
6.28903, 51, -25.9336, -18.1181, 40.1167, 44.1293, 81.6595, -116.471
6.29774, 52, -25.4297, -18.0441, 39.9242, 44.0547, 81.7024, -116.017
6.30512, 52, -24.9221, -17.9648, 39.7248, 43.969, 81.7468, -115.563
6.31232, 53, -24.4127, -17.8802, 39.5194, 43.8734, 81.7915, -115.111
6.32114, 53, -23.9004, -17.7898, 39.307, 43.768, 81.8367, -114.658
6.32964, 54, -23.382, -17.693, 39.0866, 43.6519, 81.8841, -114.207
6.33919, 54, -22.8552, -17.5901, 38.8597, 43.5251, 81.9333, -113.755
6.34526, 55, -22.3208, -17.481, 38.6255, 43.3871, 81.984, -113.303
6.35686, 55, -21.782, -17.3657, 38.3837, 43.2373, 82.0656, -112.625
6.3604, 56, -21.5119, -17.3059, 38.2606, 43.158, 82.0932, -112.399
6.37147, 56, -20.6965, -17.1178, 37.8807, 42.9028, 82.15, -111.949
6.37568, 57, -20.4217, -17.0523, 37.7505, 42.812, 82.1795, -111.723
6.38707, 57, -19.583, -16.8477, 37.3507, 42.5221, 82.2695, -111.048
6.3917, 58, -19.2992, -16.7764, 37.2138, 42.4192, 82.3006, -110.823
6.40091, 58, -18.4411, -16.5532, 36.7942, 42.0917, 82.3969, -110.148
6.40771, 59, -18.1539, -16.4759, 36.6509, 41.9763, 82.4298, -109.923
6.41738, 59, -17.2856, -16.237, 36.2112, 41.611, 82.5332, -109.249
6.42371, 60, -16.9921, -16.1553, 36.0614, 41.4826, 82.5686, -109.024
6.43175, 60, -16.3971, -15.9876, 35.7573, 41.2159, 82.642, -108.575
6.43972, 61, -15.7941, -15.814, 35.4481, 40.9361, 82.7165, -108.126
6.44771, 61, -15.1874, -15.6356, 35.1328, 40.6431, 82.7933, -107.677
6.45912, 62, -14.2711, -15.3605, 34.649, 40.1798, 82.9129, -107.004
6.46548, 62, -13.6505, -15.1713, 34.3203, 39.8547, 82.9954, -106.554
6.47387, 63, -13.0202, -14.9758, 33.9872, 39.5164, 83.0803, -106.105
6.47992, 63, -12.7023, -14.8757, 33.8188, 39.3423, 83.1235, -105.879
6.48961, 64, -12.0627, -14.672, 33.479, 38.8006, 83.2576, -105.204
6.49574, 64, -11.4196, -14.4631, 33.1338, 38.6134, 83.3038, -104.978
6.50368, 65, -10.7689, -14.2468, 32.7833, 38.2279, 83.3995, -104.526
6.51168, 65, -10.1069, -14.0229, 32.4265, 37.8265, 83.5003, -104.071
6.51971, 66, -9.4346, -13.7922, 32.0644, 37.4068, 83.6067, -103.615
6.529, 66, -8.75429, -13.5548, 31.6966, 36.969, 83.7203, -103.156
6.53575, 67, -8.0683, -13.3105, 31.3211, 36.512, 83.8409, -102.695
6.54472, 67, -7.37364, -13.0592, 30.938, 36.037, 83.9692, -102.231
6.55184, 68, -6.66956, -12.8002, 30.5491, 35.5451, 84.1046, -101.765
6.55976, 68, -5.9579, -12.534, 30.1567, 35.0393, 84.2463, -101.296
6.56777, 69, -5.24102, -12.2612, 29.7607, 34.5215, 84.3936, -100.826
6.57813, 69, -4.5184, -11.9802, 29.3619, 33.723, 84.6241, -100.117
6.58376, 70, -3.78732, -11.6918, 28.9619, 33.4512, 84.7036, -99.8797
6.59171, 70, -3.04714, -11.3953, 28.5611, 32.8964, 84.8673, -99.4032
6.60326, 71, -1.92052, -10.935, 27.9553, 32.0352, 85.1267, -98.6848
6.60776, 71, -1.54051, -10.778, 27.7513, 31.7399, 85.2181, -98.4437
6.6157, 72, -0.774763, -10.4591, 27.3405, 31.1357, 85.4081, -97.9592
6.62379, 72, -0.00276048, -10.1344, 26.9268, 30.5125, 85.6079, -97.4711
6.63368, 73, 0.774044, -9.80181, 26.511, 29.876, 85.8168, -96.9802
6.6407, 73, 1.55546, -9.46124, 26.095, 29.2283, 86.0337, -96.4882
6.64949, 74, 2.34029, -9.11421, 25.6803, 28.5716, 86.2583, -95.9946
6.65597, 74, 3.12712, -8.76293, 25.2692, 27.9081, 86.4897, -95.4999
6.66407, 75, 3.91513, -8.40666, 24.8639, 27.2393, 86.7273, -95.0046
6.67675, 76, 5.09905, -7.86249, 24.2664, 26.2341, 87.0929, -94.2617
6.6838, 76, 5.8871, -7.49379, 23.8762, 25.565, 87.3425, -93.7658
6.68828, 76, 6.28062, -7.30774, 23.684, 25.2307, 87.4691, -93.5178
6.70435, 77, 7.8522, -6.546, 22.9303, 23.9004, 87.9923, -92.526
6.7174, 78, 9.02962, -5.95603, 22.3783, 22.9012, 88.4081, -91.7816
6.71948, 78, 9.42177, -5.75593, 22.1969, 22.5662, 88.5523, -91.532
6.72252, 78, 9.42177, -5.75593, 22.1969, 22.5662, 88.5523, -91.532
6.72758, 79, 10.2068, -5.34906, 21.837, 21.8933, 88.8493, -91.0306
6.73558, 79, 10.993, -4.93336, 21.481, 21.2175, 89.1578, -90.5244
6.74369, 80, 11.7771, -4.5079, 21.1277, 20.5393, 89.478, -90.013
6.75178, 80, 12.5566, -4.07275, 20.7781, 19.8601, 89.8091, -89.4946
6.7606, 81, 13.331, -3.6282, 20.4319, 19.1871, 90.1508, -88.9692
6.76788, 81, 14.1011, -3.17556, 20.0903, 18.5227, 90.502, -88.438
6.77675, 82, 14.8643, -2.71588, 19.7548, 17.8696, 90.8611, -87.9023
6.78391, 82, 15.6189, -2.2485, 19.4279, 17.2303, 91.2267, -87.3632
6.79211, 82, 16.3632, -1.77371, 19.1099, 16.6077, 91.597, -86.8216
6.80011, 83, 17.0964, -1.29174, 18.8026, 16.0049, 91.9709, -86.2783
6.80807, 83, 17.8167, -0.803281, 18.5051, 15.4213, 92.3484, -85.7349
6.81615, 84, 18.5215, -0.310778, 18.2178, 14.858, 92.7311, -85.1928
6.82418, 84, 19.2094, 0.185368, 17.9385, 14.3145, 93.1202, -84.6515
6.83225, 85, 19.8797, 0.686708, 17.6656, 13.7906, 93.5176, -84.1121
6.84019, 85, 20.2085, 0.939088, 17.5316, 13.2863, 93.9228, -83.575
6.84751, 86, 20.8534, 1.44689, 17.2675, 13.0415, 94.1277, -83.3076
6.85554, 86, 21.4832, 1.95915, 17.0095, 12.5665, 94.5421, -82.7727
6.86441, 87, 22.0998, 2.47851, 16.7579, 11.8922, 95.1751, -81.9673
6.87159, 87, 22.7042, 3.00809, 16.5111, 11.6769, 95.3892, -81.6969
6.87954, 87, 23.2984, 3.54786, 16.2687, 11.2605, 95.8226, -81.1526
6.88764, 88, 23.883, 4.09516, 16.03, 10.8601, 96.2623, -80.6009
6.89553, 88, 24.457, 4.65072, 15.7944, 10.4753, 96.7088, -80.0389
6.90353, 89, 25.0202, 5.2175, 15.5637, 10.1053, 97.1624, -79.4664
6.91159, 89, 25.575, 5.79625, 15.337, 9.75024, 97.6229, -78.8818
6.91953, 90, 26.126, 6.38583, 15.1128, 9.41012, 98.0898, -78.2843
6.92754, 90, 26.6709, 6.98491, 14.8927, 9.08491, 98.5633, -77.6722
6.93559, 91, 27.2045, 7.59308, 14.6778, 8.77683, 99.0436, -77.0464
6.9436, 91, 27.725, 8.21171, 14.4672, 8.48682, 99.5299, -76.409
6.95158, 92, 28.2352, 8.84118, 14.2609, 8.21754, 100.021, -75.7592
6.95954, 92, 28.7381, 9.48118, 14.0592, 7.97003, 100.517, -75.0999
6.96911, 93, 29.2326, 10.1297, 13.8628, 7.74493, 101.016, -74.4338
6.97553, 93, 29.7149, 10.7846, 13.6732, 7.54304, 101.515, -73.7603
6.98353, 94, 30.1831, 11.4439, 13.4916, 7.36465, 102.013, -73.0801
6.99259, 94, 30.6363, 12.106, 13.3171, 7.21009, 102.509, -72.3951
6.99955, 95, 31.0757, 12.7703, 13.1495, 7.07908, 103.002, -71.7053
7.00754, 95, 31.5015, 13.4364, 12.99, 6.97196, 103.491, -71.0093
7.0156, 96, 31.9131, 14.1037, 12.8379, 6.88798, 103.977, -70.3081
7.02353, 96, 32.3091, 14.7719, 12.6921, 6.82866, 104.46, -69.6019
7.03165, 97, 32.6887, 15.4405, 12.5528, 6.79176, 104.937, -68.8894
7.03954, 97, 33.0524, 16.1079, 12.421, 6.77575, 105.409, -68.1722
7.04754, 98, 33.4005, 16.7731, 12.2976, 6.78201, 105.875, -67.4528
7.05564, 98, 33.7341, 17.4343, 12.1829, 6.80975, 106.332, -66.7296
7.06352, 99, 34.0539, 18.09, 12.0775, 6.85687, 106.779, -66.0055
7.07158, 99, 34.3616, 18.7385, 11.9818, 6.92427, 107.213, -65.2843
7.07961, 100, 34.6582, 19.3784, 11.8953, 7.00891, 107.635, -64.5646
7.08753, 100, 34.9434, 20.0092, 11.8179, 7.11147, 108.043, -63.8492
7.09553, 101, 35.2164, 20.6292, 11.749, 7.22996, 108.434, -63.1417
7.10361, 101, 35.4768, 21.2384, 11.6884, 7.36337, 108.809, -62.4406
7.11155, 102, 35.7249, 21.8353, 11.6362, 7.50942, 109.167, -61.7486
7.11953, 102, 35.9593, 22.4192, 11.5922, 7.66627, 109.509, -61.0684
7.12781, 103, 36.1819, 22.9892, 11.5564, 7.83184, 109.835, -60.3995
7.13554, 103, 36.3965, 23.5441, 11.5288, 8.00486, 110.146, -59.7425
7.14354, 103, 36.6051, 24.0833, 11.5101, 8.18584, 110.439, -59.0984
7.15165, 104, 36.8073, 24.6072, 11.5, 8.37504, 110.716, -58.4671
7.15957, 104, 37.003, 25.1155, 11.4969, 8.57339, 110.973, -57.8463
7.16766, 104, 37.1927, 25.6081, 11.5001, 8.7806, 111.21, -57.237
7.17577, 104, 37.3739, 26.0844, 11.5092, 8.99532, 111.427, -56.6403
7.18363, 104, 37.5447, 26.5447, 11.5223, 9.21608, 111.626, -56.0564
7.19173, 104, 37.7063, 26.9891, 11.5382, 9.44038, 111.809, -55.4878
7.1999, 104, 37.8624, 27.4185, 11.5569, 9.66498, 111.978, -54.9376
7.20765, 104, 38.0153, 27.8322, 11.5772, 9.88749, 112.137, -54.4088
7.21612, 104, 38.1641, 28.2295, 11.5979, 10.1059, 112.286, -53.9028
7.22311, 104, 38.2363, 28.4218, 11.6081, 10.2133, 112.357, -53.4199
7.23161, 104, 38.4438, 28.9742, 11.637, 10.5256, 112.56, -52.9613
7.23965, 104, 38.5729, 29.3199, 11.655, 10.7248, 112.685, -52.5272
7.24871, 104, 38.6937, 29.647, 11.6719, 10.9157, 112.802, -52.1185
7.25566, 104, 38.8061, 29.9547, 11.6875, 11.0977, 112.912, -51.7343
7.26407, 104, 38.9103, 30.2442, 11.7021, 11.2701, 113.014, -51.375
7.27053, 104, 38.9596, 30.3819, 11.7091, 11.3526, 113.062, -51.205
7.27988, 104, 39.0958, 30.765, 11.728, 11.5845, 113.196, -50.7333
7.28803, 104, 39.1768, 30.9961, 11.7391, 11.7255, 113.276, -50.4501
7.29601, 104, 39.2497, 31.2073, 11.7493, 11.8551, 113.348, -50.1923
7.30428, 104, 39.3147, 31.3985, 11.7587, 11.9729, 113.413, -49.9598
7.31243, 104, 39.3718, 31.5706, 11.7671, 12.0791, 113.472, -49.7525
7.32007, 104, 39.4221, 31.7232, 11.7745, 12.173, 113.523, -49.5702
7.32841, 104, 39.4662, 31.8568, 11.7812, 12.255, 113.566, -49.4127
7.33622, 104, 39.5046, 31.9727, 11.7874, 12.3245, 113.603, -49.2791
7.34414, 104, 39.5215, 32.0243, 11.7902, 12.383, 113.634, -49.169
7.35243, 104, 39.5633, 32.1546, 11.7976, 12.4292, 113.658, -49.08
7.35961, 104, 39.5746, 32.1905, 11.7998, 12.4483, 113.668, -49.0431
7.36756, 104, 39.5938, 32.2524, 11.804, 12.4798, 113.684, -48.9835
7.3764, 104, 39.6086, 32.3023, 11.8078, 12.5032, 113.695, -48.9402
7.38357, 104, 39.6201, 32.3414, 11.8112, 12.5199, 113.703, -48.91
7.3916, 104, 39.6288, 32.3708, 11.8143, 12.5311, 113.708, -48.8901
7.39952, 104, 39.6351, 32.3929, 11.817, 12.5384, 113.711, -48.8782
7.40757, 104, 39.6391, 32.4091, 11.8192, 12.5425, 113.713, -48.8717
7.41552, 104, 39.6415, 32.4202, 11.8209, 12.5447, 113.713, -48.8685
7.42353, 104, 39.6427, 32.4271, 11.8223, 12.5457, 113.714, -48.8671
7.43165, 105, 39.6427, 32.4315, 11.8233, 12.5462, 113.714, -48.8666
7.43952, 105, 39.6419, 32.4345, 11.8242, 12.5465, 113.714, -48.8665
7.44751, 105, 39.6411, 32.4366, 11.8249, 12.5466, 113.714, -48.8666
7.45558, 105, 39.6401, 32.4382, 11.8256, 12.5467, 113.714, -48.8669
7.46352, 105, 39.639, 32.4395, 11.8262, 12.5468, 113.714, -48.8671
7.47157, 105, 39.6377, 32.4408, 11.8267, 12.5468, 113.714, -48.8674
7.48052, 105, 39.637, 32.4419, 11.8273, 12.5468, 113.714, -48.8678
7.48751, 105, 39.6366, 32.443, 11.8279, 12.5469, 113.714, -48.8681
7.49555, 105, 39.6363, 32.4441, 11.8285, 12.5469, 113.714, -48.8683
7.50362, 105, 39.6361, 32.4451, 11.829, 12.5469, 113.714, -48.8686
7.51157, 105, 39.6359, 32.4459, 11.8294, 12.5468, 113.714, -48.8689
7.51952, 105, 39.6357, 32.4465, 11.8297, 12.5468, 113.714, -48.8691
7.52758, 105, 39.6354, 32.4469, 11.83, 12.5467, 113.714, -48.8693
7.53551, 105, 39.6351, 32.4471, 11.8302, 12.5468, 113.714, -48.8695
7.54354, 105, 39.6349, 32.4471, 11.8305, 12.5468, 113.714, -48.8698
