hehonglu123/Motion-Primitive-Planning/ILC/recorded_data/realrobot/from_NX/iteration_17/run_1.csv
timestamp, cmd_num, J1, J2, J3, J4, J5, J6
0.000358, -1, 39.63, 32.4471, 11.8319, 12.5453, 113.713, -48.8723
0.004595, -1, 39.63, 32.4471, 11.8319, 12.5453, 113.713, -48.8724
0.008221, -1, 39.63, 32.4471, 11.8319, 12.5453, 113.713, -48.8724
0.028788, -1, 39.63, 32.4471, 11.8319, 12.5453, 113.713, -48.8723
0.032915, -1, 39.63, 32.4471, 11.8319, 12.5453, 113.713, -48.8723
0.035025, -1, 39.63, 32.4471, 11.8319, 12.5453, 113.713, -48.8724
0.040119, -1, 39.63, 32.4471, 11.8319, 12.5453, 113.713, -48.8724
0.176456, -1, 38.7438, 32.0014, 11.9918, 12.5507, 113.274, -49.9998
0.177652, -1, 38.7438, 32.0014, 11.9918, 12.5507, 113.274, -49.9998
0.179771, -1, 38.668, 31.9615, 12.0097, 12.5517, 113.229, -50.1118
0.18116, -1, 38.668, 31.9615, 12.0097, 12.5517, 113.229, -50.1118
0.182427, -1, 38.668, 31.9615, 12.0097, 12.5517, 113.229, -50.1118
0.184448, -1, 38.5894, 31.9202, 12.0281, 12.5528, 113.184, -50.2273
0.185707, -1, 38.5894, 31.9202, 12.0281, 12.5528, 113.184, -50.2273
0.192085, -1, 38.425, 31.834, 12.0658, 12.5551, 113.089, -50.4671
0.193354, -1, 38.425, 31.834, 12.0658, 12.5551, 113.089, -50.4671
0.195216, -1, 38.425, 31.834, 12.0658, 12.5551, 113.089, -50.5903
0.197545, -1, 38.3397, 31.7893, 12.0852, 12.5564, 113.04, -50.5903
0.199484, -1, 38.2528, 31.7438, 12.1046, 12.5575, 112.991, -50.7152
0.200911, -1, 38.2528, 31.7438, 12.1046, 12.5575, 112.991, -50.7152
0.202107, -1, 38.2528, 31.7438, 12.1046, 12.5575, 112.991, -50.7152
0.204148, -1, 38.1642, 31.6975, 12.1242, 12.5587, 112.941, -50.8414
0.208488, -1, 38.0743, 31.6506, 12.1437, 12.5599, 112.89, -50.9685
0.20979, -1, 38.0743, 31.6506, 12.1437, 12.5599, 112.89, -50.9685
0.212469, -1, 37.9831, 31.6031, 12.1632, 12.5612, 112.84, -51.0965
0.213774, -1, 37.9831, 31.6031, 12.1632, 12.5612, 112.84, -51.0965
0.215692, -1, 37.8907, 31.5552, 12.1826, 12.5624, 112.789, -51.2251
0.217058, -1, 37.8907, 31.5552, 12.1826, 12.5624, 112.789, -51.2251
0.218434, -1, 37.8907, 31.5552, 12.1826, 12.5624, 112.789, -51.2251
0.22511, -1, 37.7033, 31.4583, 12.2214, 12.5648, 112.687, -51.4835
0.231687, -1, 37.513, 31.3606, 12.2601, 12.5673, 112.585, -51.743
0.240232, -1, 37.3214, 31.2626, 12.2989, 12.5697, 112.482, -52.0024
0.247594, -1, 37.2254, 31.2137, 12.3183, 12.5709, 112.431, -52.1322
0.256077, -1, 36.9371, 31.067, 12.3764, 12.5748, 112.276, -52.5221
0.263054, -1, 36.841, 31.0181, 12.3958, 12.5761, 112.225, -52.6522
0.272133, -1, 36.5534, 30.8715, 12.4541, 12.5799, 112.071, -53.0429
0.27909, -1, 36.4576, 30.8227, 12.4735, 12.5812, 112.019, -53.173
0.28859, -1, 36.1703, 30.676, 12.5318, 12.5851, 111.865, -53.5636
0.295049, -1, 36.0745, 30.6271, 12.5512, 12.5864, 111.813, -53.6939
0.304443, -1, 35.7872, 30.4801, 12.6096, 12.5903, 111.659, -54.0849
0.311046, -1, 35.6913, 30.4311, 12.6291, 12.5915, 111.607, -54.215
0.320516, -1, 35.4033, 30.284, 12.6873, 12.5954, 111.453, -54.6055
0.328614, -1, 35.211, 30.1856, 12.7261, 12.598, 111.35, -54.866
0.336923, -1, 35.0185, 30.0873, 12.7651, 12.6005, 111.247, -55.1269
0.344613, -1, 34.8262, 29.9888, 12.8039, 12.6032, 111.143, -55.3874
0.352728, -1, 34.6339, 29.8903, 12.8427, 12.6057, 111.04, -55.6482
0.360631, -1, 34.5378, 29.7918, 12.8817, 12.6083, 110.937, -55.909
0.368661, -1, 34.3456, 29.7426, 12.9012, 12.6109, 110.834, -56.1701
0.376727, -1, 34.1536, 29.6443, 12.9401, 12.6121, 110.783, -56.4309
0.384038, -1, 33.9617, 29.5461, 12.979, 12.6148, 110.68, -56.5612
0.392049, -1, 33.77, 29.4477, 13.0179, 12.6175, 110.577, -56.8219
0.400102, -1, 33.5783, 29.3494, 13.0567, 12.62, 110.473, -57.0828
0.40804, -1, 33.3861, 29.251, 13.0957, 12.6226, 110.371, -57.3441
0.416044, -1, 33.1935, 29.1524, 13.1347, 12.6253, 110.267, -57.6049
0.424047, -1, 33.0008, 29.0539, 13.1735, 12.6279, 110.164, -57.8661
0.432151, -1, 32.8078, 28.9553, 13.2124, 12.6305, 110.061, -58.1271
0.439051, -1, 32.6145, 28.8567, 13.2514, 12.6332, 109.958, -58.3886
0.44704, -1, 32.421, 28.758, 13.2902, 12.6359, 109.855, -58.6496
0.456046, -1, 32.2271, 28.6593, 13.3291, 12.6386, 109.752, -58.9106
0.464111, -1, 32.0329, 28.5606, 13.368, 12.6413, 109.649, -59.1717
0.472065, -1, 31.8391, 28.4617, 13.4069, 12.644, 109.546, -59.433
0.480117, -1, 31.6454, 28.363, 13.4459, 12.6467, 109.443, -59.6944
0.488136, -1, 31.4519, 28.2643, 13.4849, 12.6496, 109.34, -59.9555
0.496064, -1, 31.2588, 28.1658, 13.5238, 12.6523, 109.237, -60.2169
0.504042, -1, 31.0662, 28.0673, 13.5629, 12.6551, 109.134, -60.4784
0.512108, -1, 30.8739, 27.9687, 13.6019, 12.6579, 109.03, -60.74
0.521094, -1, 30.6818, 27.8701, 13.6409, 12.6607, 108.927, -61.0012
0.528032, -1, 30.49, 27.7716, 13.6799, 12.6635, 108.824, -61.2624
0.536124, -1, 30.298, 27.6728, 13.7189, 12.6663, 108.721, -61.524
0.543131, -1, 30.1058, 27.5741, 13.7579, 12.669, 108.618, -61.7859
0.551139, -1, 29.9132, 27.4754, 13.7969, 12.6717, 108.514, -62.0474
0.559333, -1, 29.7203, 27.3767, 13.8358, 12.6744, 108.411, -62.3091
0.567085, -1, 29.5266, 27.2779, 13.8747, 12.677, 108.308, -62.5708
0.576071, -1, 29.3327, 27.1791, 13.9137, 12.6797, 108.205, -62.8326
0.58432, -1, 29.1385, 27.0802, 13.9526, 12.6822, 108.101, -63.0942
0.591441, -1, 28.944, 26.9813, 13.9916, 12.6847, 107.998, -63.3557
0.599187, -1, 28.7498, 26.8824, 14.0306, 12.6873, 107.895, -63.6171
0.607145, -1, 28.5556, 26.7836, 14.0695, 12.6898, 107.791, -63.8789
0.616047, -1, 28.3617, 26.6848, 14.1086, 12.6922, 107.688, -64.1407
0.624106, -1, 28.1683, 26.5861, 14.1476, 12.6947, 107.584, -64.4022
0.75646, -1, 24.9797, 24.9552, 14.7906, 12.7331, 105.881, -68.7208
0.757844, -1, 24.9797, 24.9552, 14.7906, 12.7331, 105.881, -68.7208
0.759038, -1, 24.9797, 24.9552, 14.7906, 12.7331, 105.881, -68.7208
0.761289, -1, 24.8831, 24.9058, 14.81, 12.7343, 105.829, -68.8516
0.762485, -1, 24.8831, 24.9058, 14.81, 12.7343, 105.829, -68.8516
0.764514, -1, 24.7865, 24.8563, 14.8295, 12.7355, 105.777, -68.9824
0.765816, -1, 24.7865, 24.8563, 14.8295, 12.7355, 105.777, -68.9824
0.769168, -1, 24.6901, 24.8069, 14.8489, 12.7367, 105.726, -69.1133
0.77041, -1, 24.6901, 24.8069, 14.8489, 12.7367, 105.726, -69.1133
0.773234, -1, 24.5938, 24.7575, 14.8684, 12.738, 105.674, -69.2441
0.774568, -1, 24.5938, 24.7575, 14.8684, 12.738, 105.674, -69.2441
0.776674, -1, 24.4976, 24.7081, 14.8879, 12.7391, 105.623, -69.3751
0.778866, -1, 24.4976, 24.7081, 14.8879, 12.7391, 105.623, -69.3751
0.780927, -1, 24.4014, 24.6586, 14.9074, 12.7403, 105.571, -69.5061
0.782191, -1, 24.4014, 24.6586, 14.9074, 12.7403, 105.571, -69.5061
0.785128, -1, 24.3052, 24.6092, 14.927, 12.7415, 105.519, -69.6369
0.786338, -1, 24.3052, 24.6092, 14.927, 12.7415, 105.519, -69.6369
0.788244, -1, 24.2089, 24.5597, 14.9465, 12.7427, 105.468, -69.7677
0.789672, -1, 24.2089, 24.5597, 14.9465, 12.7427, 105.468, -69.7677
0.790992, -1, 24.2089, 24.5597, 14.9465, 12.7427, 105.468, -69.7677
0.793063, -1, 24.1127, 24.5103, 14.9659, 12.7439, 105.416, -69.8984
0.800385, -1, 23.9199, 24.4115, 15.0049, 12.7462, 105.313, -70.1598
0.80703, -1, 23.8235, 24.3621, 15.0244, 12.7474, 105.261, -70.2906
0.81657, -1, 23.534, 24.2138, 15.0827, 12.751, 105.106, -70.6834
0.824599, -1, 23.3405, 24.1149, 15.1217, 12.7533, 105.002, -70.9449
0.831022, -1, 23.2436, 24.0655, 15.1411, 12.7546, 104.951, -71.0757
0.840591, -1, 22.9528, 23.9171, 15.1994, 12.7583, 104.796, -71.4685
0.848654, -1, 22.7589, 23.8183, 15.2384, 12.7608, 104.692, -71.7304
0.855018, -1, 22.6619, 23.7689, 15.2579, 12.762, 104.641, -71.8612
0.864638, -1, 22.4681, 23.6703, 15.3164, 12.7657, 104.486, -72.2534
0.873675, -1, 22.1781, 23.5222, 15.3553, 12.7683, 104.382, -72.5148
0.880028, -1, 22.0816, 23.4729, 15.3747, 12.7696, 104.33, -72.6456
0.888026, -1, 21.8885, 23.3742, 15.4137, 12.7722, 104.227, -72.9073
0.896085, -1, 21.696, 23.2754, 15.4527, 12.7748, 104.124, -73.1686
0.904024, -1, 21.5039, 23.1767, 15.4916, 12.7775, 104.021, -73.4299
0.912039, -1, 21.3116, 23.0779, 15.5305, 12.7801, 103.918, -73.6915
0.920026, -1, 21.1192, 22.9793, 15.5695, 12.7828, 103.815, -73.9531
0.92807, -1, 20.9267, 22.8807, 15.6084, 12.7855, 103.712, -74.2143
0.936035, -1, 20.7341, 22.7821, 15.6474, 12.7882, 103.609, -74.4754
0.944031, -1, 20.5415, 22.6835, 15.6863, 12.7909, 103.505, -74.7367
0.952089, -1, 20.3483, 22.5848, 15.7251, 12.7936, 103.402, -74.998
0.959015, -1, 20.1547, 22.4861, 15.7641, 12.7964, 103.299, -75.2592
0.968024, -1, 19.961, 22.3873, 15.803, 12.7991, 103.196, -75.5203
0.976092, -1, 19.7675, 22.2886, 15.8417, 12.8018, 103.094, -75.7814
0.983012, -1, 19.5738, 22.19, 15.8806, 12.8045, 102.99, -76.0427
0.992061, -1, 19.3805, 22.0914, 15.9195, 12.8073, 102.887, -76.304
1.00102, -1, 19.1875, 21.9927, 15.9583, 12.81, 102.784, -76.5648
1.00702, -1, 18.9947, 21.8941, 15.9973, 12.8128, 102.681, -76.8256
1.01602, -1, 18.8022, 21.7954, 16.0361, 12.8155, 102.578, -77.0865
1.02409, -1, 18.6101, 21.6967, 16.0749, 12.8183, 102.475, -77.3477
1.03204, -1, 18.4183, 21.5981, 16.1138, 12.8209, 102.372, -77.6084
1.04002, -1, 18.2264, 21.4996, 16.1527, 12.8235, 102.27, -77.8691
1.04802, -1, 18.0345, 21.4011, 16.1915, 12.8261, 102.167, -78.1299
1.05602, -1, 17.8427, 21.3028, 16.2304, 12.8287, 102.064, -78.3908
1.06409, -1, 17.6506, 21.2044, 16.2693, 12.8312, 101.961, -78.6513
1.07204, -1, 17.4582, 21.1061, 16.3081, 12.8337, 101.858, -78.9116
1.08002, -1, 17.2654, 21.0078, 16.347, 12.8362, 101.755, -79.1723
1.08809, -1, 17.0722, 20.9095, 16.3858, 12.8385, 101.652, -79.4329
1.09511, -1, 16.8792, 20.8112, 16.4246, 12.8408, 101.549, -79.6935
1.10322, -1, 16.6861, 20.7131, 16.4634, 12.8432, 101.446, -79.9538
1.11112, -1, 16.4931, 20.6149, 16.5021, 12.8456, 101.344, -80.2143
1.11912, -1, 16.3003, 20.5165, 16.5409, 12.8479, 101.241, -80.475
1.1272, -1, 16.108, 20.4182, 16.5796, 12.8502, 101.138, -80.7355
1.13504, -1, 15.916, 20.3198, 16.6184, 12.8525, 101.036, -80.9957
1.14305, -1, 15.7243, 20.2212, 16.6571, 12.8548, 100.933, -81.2557
1.15117, -1, 15.533, 20.1229, 16.6957, 12.8572, 100.83, -81.5159
1.15927, -1, 15.3418, 20.0246, 16.7343, 12.8594, 100.728, -81.7762
1.16725, -1, 15.1508, 19.9263, 16.7732, 12.8617, 100.625, -82.0361
1.17534, -1, 14.9596, 19.8281, 16.8118, 12.864, 100.523, -82.2959
1.1833, -1, 14.7683, 19.73, 16.8505, 12.8663, 100.42, -82.5556
1.19147, -1, 14.5769, 19.6319, 16.8892, 12.8686, 100.318, -82.8157
1.19948, -1, 14.385, 19.5337, 16.9279, 12.8708, 100.215, -83.0755
1.20811, -1, 14.1926, 19.4357, 16.9666, 12.8731, 100.113, -83.335
1.21571, -1, 14.0003, 19.3377, 17.0053, 12.8753, 100.01, -83.5945
1.22418, -1, 13.8079, 19.2398, 17.0438, 12.8777, 99.9074, -83.8542
1.23157, -1, 13.6154, 19.142, 17.0825, 12.88, 99.805, -84.1137
1.24013, -1, 13.423, 19.0441, 17.1212, 12.8823, 99.7024, -84.373
1.24764, -1, 13.327, 18.9951, 17.1404, 12.8835, 99.6003, -84.6323
1.25602, -1, 13.0395, 18.8483, 17.1983, 12.887, 99.4978, -84.8917
1.26306, -1, 12.9438, 18.7993, 17.2176, 12.8881, 99.4465, -85.0214
1.27215, -1, 12.6573, 18.6523, 17.2754, 12.8917, 99.2932, -85.41
1.279, -1, 12.5619, 18.6034, 17.2947, 12.893, 99.2421, -85.5395
1.28823, -1, 12.2765, 18.4568, 17.3526, 12.8966, 99.0885, -85.9278
1.295, -1, 12.1814, 18.4079, 17.3718, 12.8977, 99.0375, -86.0574
1.30517, -1, 11.896, 18.2614, 17.4297, 12.9013, 98.8844, -86.4457
1.31101, -1, 11.8008, 18.2126, 17.449, 12.9025, 98.8334, -86.5749
1.3205, -1, 11.5147, 18.0661, 17.5067, 12.9062, 98.6807, -86.9628
1.32701, -1, 11.4192, 18.0173, 17.526, 12.9074, 98.6296, -87.0921
1.33508, -1, 11.2281, 17.9198, 17.5646, 12.9099, 98.5276, -87.3508
1.34458, -1, 10.9409, 17.7735, 17.6224, 12.9135, 98.3749, -87.7382
1.35358, -1, 10.7492, 17.6761, 17.6608, 12.9161, 98.2729, -87.9962
1.35909, -1, 10.6534, 17.6274, 17.6801, 12.9173, 98.2219, -88.1254
1.36863, -1, 10.3663, 17.4811, 17.7377, 12.9211, 98.0692, -88.5129
1.37744, -1, 10.2708, 17.4323, 17.7569, 12.9223, 98.0183, -88.7708
1.38316, -1, 10.08, 17.3348, 17.7953, 12.9249, 97.9164, -88.8999
1.39207, -1, 9.88948, 17.2371, 17.8336, 12.9276, 97.8147, -89.158
1.40001, -1, 9.69935, 17.1396, 17.872, 12.9302, 97.7127, -89.4162
1.40808, -1, 9.5097, 17.0422, 17.9103, 12.933, 97.6106, -89.6742
1.41601, -1, 9.32043, 16.9449, 17.9486, 12.9358, 97.5089, -89.9317
1.42401, -1, 9.13111, 16.8475, 17.987, 12.9384, 97.4069, -90.1893
1.43101, -1, 8.94175, 16.7503, 18.0254, 12.9411, 97.3051, -90.447
1.439, -1, 8.75225, 16.6532, 18.0637, 12.9437, 97.2036, -90.7046
1.44801, -1, 8.56268, 16.556, 18.1022, 12.9463, 97.1018, -90.9617
1.45501, -1, 8.37289, 16.4589, 18.1405, 12.949, 97.0003, -91.2188
1.46401, -1, 8.18265, 16.3619, 18.1787, 12.9517, 96.8988, -91.476
1.47202, -1, 7.99216, 16.265, 18.2171, 12.9543, 96.7972, -91.7334
1.47901, -1, 7.80169, 16.1681, 18.2553, 12.957, 96.6958, -91.9902
1.48801, -1, 7.61106, 16.0712, 18.2936, 12.9596, 96.5943, -92.2468
1.49608, -1, 7.42066, 15.9743, 18.332, 12.9622, 96.4929, -92.5035
1.50409, -1, 7.2305, 15.8773, 18.3701, 12.9647, 96.3917, -92.7604
1.51304, -1, 7.04059, 15.7803, 18.4083, 12.9673, 96.2903, -93.0172
1.52001, -1, 6.85114, 15.6834, 18.4466, 12.9698, 96.189, -93.2736
1.52808, -1, 6.6622, 15.5865, 18.4846, 12.9723, 96.0885, -93.5301
1.53601, -1, 6.47374, 15.4897, 18.5227, 12.9749, 95.9873, -93.7864
1.54401, -1, 6.28551, 15.393, 18.5609, 12.9774, 95.8862, -94.0429
1.55211, -1, 6.09739, 15.2963, 18.599, 12.9799, 95.7855, -94.2988
1.56007, -1, 5.90916, 15.1996, 18.6372, 12.9823, 95.6843, -94.5547
1.568, -1, 5.72078, 15.1029, 18.6754, 12.9846, 95.5834, -94.8106
1.57602, -1, 5.53234, 15.0063, 18.7134, 12.9869, 95.4828, -95.0666
1.58407, -1, 5.34354, 14.9097, 18.7515, 12.9893, 95.3819, -95.3222
1.59202, -1, 5.15444, 14.8133, 18.7897, 12.9915, 95.2812, -95.5776
1.60002, -1, 4.96503, 14.717, 18.8277, 12.9938, 95.1807, -95.8331
1.60807, -1, 4.77562, 14.6206, 18.8657, 12.996, 95.0798, -96.0886
1.616, -1, 4.58614, 14.5242, 18.9038, 12.9982, 94.979, -96.3439
1.6243, -1, 4.39694, 14.4279, 18.9418, 13.0004, 94.8784, -96.5988
1.631, -1, 4.20801, 14.3315, 18.9798, 13.0026, 94.7775, -96.8535
1.63909, -1, 4.01927, 14.2351, 19.0178, 13.0049, 94.6767, -97.1087
1.64704, -1, 3.83122, 14.1388, 19.0557, 13.0072, 94.5758, -97.3637
1.656, -1, 3.64366, 14.0427, 19.0937, 13.0093, 94.4751, -97.6184
1.66402, -1, 3.45653, 13.9465, 19.1316, 13.0117, 94.3745, -97.8732
1.67291, -1, 3.26965, 13.8505, 19.1693, 13.014, 94.2738, -98.1279
1.68001, -1, 3.08263, 13.7544, 19.2072, 13.0163, 94.1731, -98.3827
1.68818, -1, 2.89565, 13.6584, 19.2451, 13.0185, 94.0726, -98.6371
1.6954, -1, 2.70864, 13.5624, 19.2831, 13.0208, 93.9719, -98.8913
1.70353, -1, 2.52137, 13.4664, 19.3209, 13.023, 93.8715, -99.1454
1.71234, -1, 2.33391, 13.3705, 19.3587, 13.0253, 93.7712, -99.3996
1.71951, -1, 2.14601, 13.2747, 19.3964, 13.0276, 93.6708, -99.6536
1.72759, -1, 1.95787, 13.1788, 19.4343, 13.0298, 93.5706, -99.9072
1.73661, -1, 1.76974, 13.083, 19.472, 13.0321, 93.4708, -100.161
1.7449, -1, 1.58146, 12.9872, 19.5097, 13.0343, 93.3706, -100.414
1.75222, -1, 1.3934, 12.8914, 19.5476, 13.0366, 93.2705, -100.668
1.75899, -1, 1.29946, 12.8435, 19.5664, 13.0377, 93.2206, -100.795
1.76699, -1, 1.11176, 12.7477, 19.6041, 13.0401, 93.1205, -101.048
1.77504, -1, 0.924628, 12.6521, 19.6418, 13.0425, 93.0205, -101.301
1.78493, -1, 0.644948, 12.5087, 19.6983, 13.046, 92.871, -101.68
1.79216, -1, 0.459076, 12.4132, 19.7359, 13.0484, 92.7711, -101.933
1.7991, -1, 0.366195, 12.3656, 19.7547, 13.0497, 92.7212, -102.06
1.80913, -1, 0.0879031, 12.2225, 19.8112, 13.0534, 92.5722, -102.439
1.81504, -1, -0.00475305, 12.1749, 19.8299, 13.0546, 92.5222, -102.565
1.82451, -1, -0.283062, 12.032, 19.8865, 13.0582, 92.3729, -102.944
1.83333, -1, -0.469013, 11.9368, 19.924, 13.0607, 92.2736, -103.196
1.83905, -1, -0.562084, 11.8893, 19.9427, 13.062, 92.2237, -103.322
1.84857, -1, -0.841633, 11.7468, 19.9991, 13.0656, 92.0745, -103.7
1.85741, -1, -1.02826, 11.6517, 20.0365, 13.0681, 91.9753, -103.952
1.86306, -1, -1.12164, 11.6042, 20.0552, 13.0694, 91.9255, -104.078
1.87262, -1, -1.30859, 11.4616, 20.1116, 13.0732, 91.7766, -104.455
1.88151, -1, -1.49541, 11.4141, 20.1303, 13.0744, 91.7272, -104.581
1.88706, -1, -1.68199, 11.319, 20.1677, 13.0771, 91.6279, -104.833
1.89702, -1, -1.9613, 11.1764, 20.2239, 13.0809, 91.4791, -105.21
1.90299, -1, -2.05415, 11.129, 20.2426, 13.0823, 91.4296, -105.335
1.91199, -1, -2.23924, 11.0341, 20.28, 13.0849, 91.3304, -105.586
1.919, -1, -2.42401, 10.9392, 20.3174, 13.0876, 91.2312, -105.837
1.92799, -1, -2.60843, 10.8445, 20.3547, 13.0903, 91.1323, -106.088
1.93499, -1, -2.79237, 10.7497, 20.392, 13.0929, 91.0331, -106.339
1.94402, -1, -2.97625, 10.655, 20.4293, 13.0956, 90.934, -106.59
1.952, -1, -3.1603, 10.5603, 20.4667, 13.0982, 90.8353, -106.84
1.95898, -1, -3.34462, 10.4657, 20.5039, 13.1007, 90.7362, -107.091
1.96799, -1, -3.52932, 10.3712, 20.5412, 13.1033, 90.6373, -107.341
1.97599, -1, -3.71407, 10.2769, 20.5785, 13.1058, 90.5387, -107.592
1.98297, -1, -3.8991, 10.1825, 20.6157, 13.1083, 90.4397, -107.842
1.99199, -1, -4.08444, 10.0881, 20.653, 13.1107, 90.341, -108.092
2.00002, -1, -4.26995, 9.99385, 20.6901, 13.1132, 90.2426, -108.342
2.00703, -1, -4.45556, 9.8995, 20.7274, 13.1155, 90.1438, -108.591
2.01506, -1, -4.64086, 9.80517, 20.7647, 13.1178, 90.0453, -108.841
2.02406, -1, -4.82577, 9.71096, 20.8018, 13.1202, 89.947, -109.09
2.03199, -1, -5.0103, 9.61685, 20.8389, 13.1226, 89.8485, -109.34
2.04, -1, -5.19409, 9.52283, 20.8761, 13.1249, 89.75, -109.589
2.04806, -1, -5.37741, 9.42876, 20.9132, 13.1273, 89.6518, -109.838
2.05608, -1, -5.56035, 9.33486, 20.9502, 13.1295, 89.5533, -110.087
2.06307, -1, -5.74292, 9.24094, 20.9874, 13.1319, 89.4551, -110.336
2.07206, -1, -5.9253, 9.14703, 21.0244, 13.1342, 89.3571, -110.584
2.07999, -1, -6.10773, 9.05318, 21.0613, 13.1364, 89.2589, -110.833
2.08799, -1, -6.29046, 8.9594, 21.0984, 13.1386, 89.1609, -111.081
2.09607, -1, -6.47336, 8.86572, 21.1353, 13.1408, 89.0632, -111.33
2.10399, -1, -6.6565, 8.77204, 21.1721, 13.143, 88.9651, -111.578
2.11199, -1, -6.83999, 8.67843, 21.2091, 13.1451, 88.8671, -111.826
2.12005, -1, -7.02385, 8.58482, 21.246, 13.1473, 88.7693, -112.074
2.12799, -1, -7.20804, 8.49124, 21.2828, 13.1494, 88.6714, -112.322
2.136, -1, -7.39223, 8.39763, 21.3198, 13.1515, 88.5737, -112.569
2.14406, -1, -7.57609, 8.30399, 21.3566, 13.1537, 88.4761, -112.817
2.15199, -1, -7.75956, 8.21055, 21.3934, 13.1558, 88.3784, -113.064
2.15999, -1, -7.94261, 8.11715, 21.4303, 13.1581, 88.281, -113.311
2.16807, -1, -8.12518, 8.02374, 21.4671, 13.1603, 88.1838, -113.559
2.17601, -1, -8.30702, 7.93043, 21.5038, 13.1626, 88.0863, -113.806
2.18406, -1, -8.48842, 7.83718, 21.5407, 13.1648, 87.9889, -114.053
2.19199, -1, -8.66944, 7.74398, 21.5775, 13.1671, 87.8916, -114.299
2.20002, -1, -8.8502, 7.6508, 21.6142, 13.1693, 87.7941, -114.545
2.20811, -1, -9.03101, 7.55769, 21.651, 13.1715, 87.6967, -114.792
2.2161, -1, -9.2121, 7.4647, 21.6878, 13.1738, 87.5996, -115.038
2.22394, -1, -9.39331, 7.37189, 21.7244, 13.176, 87.5025, -115.285
2.23216, -1, -9.57491, 7.27908, 21.7611, 13.1782, 87.4053, -115.531
2.23954, -1, -9.75681, 7.18628, 21.7978, 13.1805, 87.3083, -115.777
2.24809, -1, -9.9392, 7.09355, 21.8342, 13.1827, 87.211, -116.023
2.25618, -1, -10.1217, 7.00079, 21.8708, 13.1849, 87.1138, -116.269
2.26297, -1, -10.213, 6.95441, 21.8892, 13.186, 87.0654, -116.392
2.27213, -1, -10.4869, 6.81526, 21.944, 13.1893, 86.9196, -116.76
2.27897, -1, -10.5781, 6.76889, 21.9623, 13.1905, 86.871, -116.883
2.2881, -1, -10.8509, 6.62994, 22.0171, 13.194, 86.7257, -117.251
2.29502, -1, -10.9416, 6.58364, 22.0353, 13.1952, 86.6772, -117.374
2.30435, -1, -11.2126, 6.44487, 22.0901, 13.1988, 86.5321, -117.741
2.31098, -1, -11.3027, 6.39863, 22.1084, 13.2001, 86.4839, -117.864
2.32075, -1, -11.5722, 6.25992, 22.163, 13.2036, 86.3387, -118.231
2.3285, -1, -11.7516, 6.1675, 22.1995, 13.2062, 86.2421, -118.476
2.33646, -1, -11.9308, 6.07521, 22.236, 13.2086, 86.1456, -118.72
2.34459, -1, -12.1101, 5.98298, 22.2724, 13.2111, 86.049, -118.964
2.35298, -1, -12.2895, 5.89091, 22.3088, 13.2136, 85.9525, -119.208
2.36054, -1, -12.4694, 5.79892, 22.3452, 13.2161, 85.8564, -119.453
2.36877, -1, -12.6497, 5.7069, 22.3814, 13.2185, 85.7599, -119.697
2.3765, -1, -12.74, 5.66092, 22.3996, 13.2197, 85.6638, -119.941
2.38398, -1, -12.9209, 5.56902, 22.436, 13.2222, 85.616, -120.062
2.39276, -1, -13.102, 5.47709, 22.4903, 13.2258, 85.4719, -120.428
2.39998, -1, -13.2832, 5.38505, 22.5084, 13.227, 85.4239, -120.55
2.40705, -1, -13.4643, 5.2931, 22.5447, 13.2295, 85.3282, -120.793
2.41603, -1, -13.6449, 5.20121, 22.5809, 13.232, 85.2323, -121.036
2.42398, -1, -13.8251, 5.10935, 22.6169, 13.2346, 85.1365, -121.279
2.43101, -1, -14.0047, 5.0175, 22.6532, 13.2372, 85.0409, -121.522
2.44001, -1, -14.1834, 4.92577, 22.6893, 13.2397, 84.9454, -121.765
2.44798, -1, -14.3617, 4.83408, 22.7253, 13.2423, 84.8497, -122.008
2.45513, -1, -14.5396, 4.74241, 22.7615, 13.2448, 84.7542, -122.25
2.46297, -1, -14.7173, 4.6508, 22.7977, 13.2474, 84.6585, -122.493
2.472, -1, -14.895, 4.55931, 22.8337, 13.2499, 84.5627, -122.735
2.47896, -1, -15.0727, 4.46788, 22.8699, 13.2523, 84.4671, -122.978
2.48798, -1, -15.2506, 4.37664, 22.906, 13.2548, 84.3715, -123.219
2.49598, -1, -15.429, 4.28531, 22.9419, 13.2571, 84.2758, -123.461
2.50296, -1, -15.6079, 4.19401, 22.978, 13.2595, 84.1803, -123.703
2.51199, -1, -15.7871, 4.10276, 23.014, 13.2617, 84.0848, -123.945
2.52105, -1, -15.9664, 4.01152, 23.0499, 13.264, 83.9893, -124.186
2.52698, -1, -16.146, 3.92022, 23.0859, 13.2661, 83.8939, -124.428
2.53597, -1, -16.3258, 3.82894, 23.1219, 13.2683, 83.7985, -124.669
2.54398, -1, -16.5051, 3.73774, 23.1577, 13.2705, 83.7031, -124.911
2.55205, -1, -16.6841, 3.6466, 23.1935, 13.2727, 83.6077, -125.152
2.56005, -1, -16.8625, 3.55546, 23.2294, 13.275, 83.5123, -125.393
2.56783, -1, -17.0401, 3.46445, 23.2652, 13.2772, 83.4169, -125.634
2.57598, -1, -17.217, 3.37349, 23.301, 13.2794, 83.3216, -125.874
2.58398, -1, -17.3935, 3.2826, 23.3369, 13.2816, 83.2266, -126.115
2.59206, -1, -17.5698, 3.19176, 23.3726, 13.2837, 83.1315, -126.356
2.59998, -1, -17.7459, 3.1011, 23.4085, 13.2859, 83.0366, -126.596
2.60721, -1, -17.9219, 3.01051, 23.4445, 13.288, 82.942, -126.836
2.61587, -1, -18.0981, 2.92005, 23.4802, 13.2901, 82.8471, -127.076
2.62398, -1, -18.2747, 2.82967, 23.5159, 13.2923, 82.7523, -127.317
2.63198, -1, -18.4517, 2.73925, 23.5517, 13.2943, 82.6578, -127.556
2.64005, -1, -18.6291, 2.64885, 23.5874, 13.2964, 82.563, -127.796
2.64702, -1, -18.8067, 2.55856, 23.6231, 13.2984, 82.4685, -128.035
2.65507, -1, -18.9847, 2.4681, 23.6589, 13.3004, 82.3742, -128.275
2.66394, -1, -19.163, 2.37761, 23.6944, 13.3024, 82.2797, -128.514
2.672, -1, -19.3411, 2.28727, 23.73, 13.3044, 82.1854, -128.753
2.67998, -1, -19.5188, 2.19689, 23.7657, 13.3066, 82.0916, -128.992
2.68814, -1, -19.6959, 2.10654, 23.8012, 13.3087, 81.9972, -129.231
2.69542, -1, -19.8724, 2.01627, 23.8365, 13.3109, 81.903, -129.471
2.70339, -1, -20.0482, 1.92604, 23.8722, 13.313, 81.8091, -129.709
2.71286, -1, -20.2234, 1.83583, 23.9077, 13.3153, 81.7149, -129.948
2.72007, -1, -20.3983, 1.74572, 23.9431, 13.3174, 81.6208, -130.186
2.72754, -1, -20.5729, 1.65565, 23.9787, 13.3196, 81.5271, -130.424
2.73687, -1, -20.7473, 1.56571, 24.0142, 13.3218, 81.433, -130.663
2.74408, -1, -20.922, 1.4758, 24.0496, 13.324, 81.3392, -130.901
2.75215, -1, -21.097, 1.38606, 24.0852, 13.3262, 81.2456, -131.139
2.75895, -1, -21.1846, 1.34119, 24.103, 13.3273, 81.1988, -131.258
2.76816, -1, -21.4481, 1.20658, 24.1561, 13.3306, 81.0578, -131.615
2.77496, -1, -21.5361, 1.16176, 24.1737, 13.3316, 81.0109, -131.733
2.78656, -1, -21.8003, 1.02728, 24.2269, 13.3348, 80.8703, -132.09
2.791, -1, -21.8885, 0.982437, 24.2446, 13.3359, 80.8234, -132.208
2.80016, -1, -22.1531, 0.848055, 24.2977, 13.3391, 80.6829, -132.564
2.80702, -1, -22.2414, 0.803267, 24.3154, 13.3402, 80.6362, -132.683
2.81496, -1, -22.4178, 0.713772, 24.3507, 13.3425, 80.5425, -132.92
2.82435, -1, -22.6813, 0.579518, 24.4035, 13.346, 80.4021, -133.275
2.83105, -1, -22.7689, 0.534817, 24.4211, 13.3472, 80.3554, -133.393
2.83896, -1, -22.9433, 0.445392, 24.4564, 13.3496, 80.2616, -133.63
2.84852, -1, -23.204, 0.311315, 24.5091, 13.3533, 80.1214, -133.985
2.85729, -1, -23.3772, 0.221979, 24.5443, 13.3557, 80.028, -134.222
2.86296, -1, -23.4638, 0.177351, 24.5619, 13.3569, 79.9812, -134.34
2.87258, -1, -23.6369, 0.0881602, 24.6147, 13.3604, 79.8412, -134.694
2.88136, -1, -23.8103, -0.000973138, 24.6323, 13.3616, 79.7948, -134.93
2.88694, -1, -23.9837, -0.0899714, 24.6674, 13.3641, 79.7016, -135.048
2.89716, -1, -24.2443, -0.223436, 24.72, 13.3678, 79.5619, -135.402
2.90305, -1, -24.3313, -0.267911, 24.7375, 13.369, 79.5155, -135.52
2.91307, -1, -24.5929, -0.401247, 24.7902, 13.3727, 79.3758, -135.873
2.91896, -1, -24.6802, -0.445715, 24.8077, 13.3739, 79.3293, -135.991
2.92797, -1, -24.8551, -0.534625, 24.8427, 13.3763, 79.2363, -136.227
2.93495, -1, -25.0302, -0.623482, 24.8779, 13.3787, 79.1434, -136.462
2.94396, -1, -25.2052, -0.712315, 24.9129, 13.3811, 79.0504, -136.697
2.95196, -1, -25.3796, -0.801038, 24.9479, 13.3835, 78.9577, -136.932
2.96004, -1, -25.5538, -0.88985, 24.9829, 13.3859, 78.8651, -137.167
2.96795, -1, -25.7274, -0.978586, 25.0177, 13.3884, 78.7723, -137.402
2.97596, -1, -25.9003, -1.06725, 25.0526, 13.3907, 78.6796, -137.636
2.98295, -1, -26.0728, -1.15594, 25.0876, 13.3932, 78.5875, -137.871
2.99196, -1, -26.2448, -1.24455, 25.1225, 13.3956, 78.4948, -138.105
3.00003, -1, -26.4166, -1.3331, 25.1573, 13.398, 78.4022, -138.34
3.00798, -1, -26.5884, -1.42156, 25.1922, 13.4002, 78.3099, -138.574
3.01596, -1, -26.7605, -1.50989, 25.2272, 13.4025, 78.2172, -138.808
3.02404, -1, -26.9327, -1.59809, 25.262, 13.4048, 78.1249, -139.042
3.033, -1, -27.1052, -1.68628, 25.2968, 13.407, 78.0327, -139.276
3.03995, -1, -27.2778, -1.77454, 25.3317, 13.4091, 77.9404, -139.51
3.04803, -1, -27.4506, -1.86263, 25.3664, 13.4113, 77.8485, -139.744
3.05596, -1, -27.6238, -1.95073, 25.4012, 13.4134, 77.7565, -139.977
3.06405, -1, -27.797, -2.03897, 25.4361, 13.4155, 77.6645, -140.211
3.07202, -1, -27.9703, -2.127, 25.4709, 13.4176, 77.5724, -140.444
3.07997, -1, -28.1435, -2.21502, 25.5055, 13.4196, 77.4804, -140.678
3.08796, -1, -28.3166, -2.30308, 25.5404, 13.4216, 77.3884, -140.911
3.09602, -1, -28.4894, -2.39116, 25.5751, 13.4237, 77.2963, -141.144
3.10396, -1, -28.6619, -2.47912, 25.6098, 13.4259, 77.2042, -141.377
3.11208, -1, -28.8337, -2.56712, 25.6444, 13.4281, 77.1123, -141.61
3.11997, -1, -29.0047, -2.65512, 25.6791, 13.4302, 77.0204, -141.842
3.12721, -1, -29.1752, -2.743, 25.7136, 13.4324, 76.9284, -142.075
3.13497, -1, -29.3459, -2.83081, 25.7483, 13.4344, 76.8367, -142.307
3.14298, -1, -29.5166, -2.91853, 25.783, 13.4365, 76.7448, -142.54
3.15196, -1, -29.6874, -3.00608, 25.8175, 13.4385, 76.6528, -142.772
3.16004, -1, -29.8585, -3.09365, 25.852, 13.4405, 76.5613, -143.005
3.16702, -1, -30.0295, -3.18112, 25.8867, 13.4427, 76.4694, -143.237
3.17601, -1, -30.2004, -3.26861, 25.9212, 13.4447, 76.3777, -143.468
3.18398, -1, -30.3716, -3.35603, 25.9557, 13.4469, 76.2862, -143.7
3.19196, -1, -30.5431, -3.44346, 25.9903, 13.4488, 76.1945, -143.932
3.20017, -1, -30.7148, -3.53102, 26.0247, 13.4509, 76.1032, -144.164
3.20736, -1, -30.8867, -3.61836, 26.0592, 13.4529, 76.0118, -144.395
3.21604, -1, -31.0585, -3.70574, 26.0937, 13.4549, 75.9205, -144.626
3.22432, -1, -31.2301, -3.79304, 26.1282, 13.457, 75.8291, -144.858
3.2315, -1, -31.4015, -3.88034, 26.1626, 13.4591, 75.7378, -145.089
3.24007, -1, -31.5723, -3.96759, 26.197, 13.4613, 75.6465, -145.32
3.24837, -1, -31.6576, -4.05482, 26.2314, 13.4635, 75.5552, -145.551
3.25556, -1, -31.8279, -4.09847, 26.2486, 13.4645, 75.4641, -145.782
3.26396, -1, -32.0826, -4.22932, 26.3002, 13.4678, 75.3731, -146.013
3.27283, -1, -32.252, -4.31641, 26.3346, 13.4701, 75.2819, -146.244
3.28001, -1, -32.4214, -4.40349, 26.3688, 13.4722, 75.1909, -146.475
3.28699, -1, -32.5062, -4.447, 26.386, 13.4732, 75.1456, -146.59
3.29691, -1, -32.7608, -4.57736, 26.4377, 13.4764, 75.0093, -146.935
3.30413, -1, -32.9303, -4.66425, 26.4719, 13.4786, 74.9185, -147.166
3.31099, -1, -33.0152, -4.7077, 26.489, 13.4796, 74.8732, -147.281
3.32119, -1, -33.2698, -4.83804, 26.5405, 13.483, 74.7373, -147.626
3.32699, -1, -33.3548, -4.88145, 26.5576, 13.4841, 74.6919, -147.741
3.33698, -1, -33.6102, -5.01183, 26.6089, 13.4874, 74.5562, -148.086
3.34532, -1, -33.7805, -5.09864, 26.6432, 13.4896, 74.4656, -148.316
3.35101, -1, -33.8656, -5.14203, 26.6603, 13.4908, 74.4202, -148.431
3.36054, -1, -34.121, -5.27216, 26.7115, 13.4941, 74.2846, -148.775
3.36935, -1, -34.2911, -5.35886, 26.7457, 13.4964, 74.1941, -149.004
3.375, -1, -34.3762, -5.40216, 26.7629, 13.4975, 74.1487, -149.119
3.38472, -1, -34.546, -5.48882, 26.7971, 13.501, 74.0128, -149.463
3.39195, -1, -34.7152, -5.57553, 26.8312, 13.5022, 73.9676, -149.578
3.39905, -1, -34.884, -5.66215, 26.8654, 13.5047, 73.8771, -149.807
3.408, -1, -35.0524, -5.74866, 26.8995, 13.5071, 73.7866, -150.036
3.41596, -1, -35.2206, -5.83516, 26.9336, 13.5095, 73.6963, -150.265
3.423, -1, -35.3889, -5.92152, 26.9677, 13.512, 73.6059, -150.494
3.432, -1, -35.5575, -6.00774, 27.0018, 13.5143, 73.5156, -150.723
3.43996, -1, -35.7259, -6.09398, 27.0358, 13.5166, 73.4253, -150.951
3.448, -1, -35.8944, -6.18017, 27.0699, 13.5191, 73.3351, -151.18
3.45595, -1, -36.0629, -6.26627, 27.104, 13.5215, 73.2445, -151.408
3.46396, -1, -36.2314, -6.35238, 27.138, 13.5239, 73.1541, -151.637
3.47094, -1, -36.4001, -6.4386, 27.1719, 13.5263, 73.0639, -151.865
3.47994, -1, -36.569, -6.52485, 27.2059, 13.5286, 72.9734, -152.093
3.48796, -1, -36.7379, -6.61103, 27.2398, 13.5309, 72.8832, -152.321
3.49493, -1, -36.9068, -6.69718, 27.2737, 13.5331, 72.7931, -152.55
3.50394, -1, -37.0759, -6.78337, 27.3077, 13.5355, 72.703, -152.778
3.51471, -1, -37.329, -6.91252, 27.3585, 13.5388, 72.568, -153.12
3.52001, -1, -37.4132, -6.95552, 27.3754, 13.54, 72.5232, -153.233
3.529, -1, -37.5813, -7.04159, 27.4094, 13.5422, 72.4334, -153.461
3.53593, -1, -37.7491, -7.1276, 27.4434, 13.5446, 72.3434, -153.688
3.54402, -1, -37.9167, -7.21359, 27.4772, 13.5467, 72.2537, -153.916
3.55195, -1, -38.0841, -7.29948, 27.5111, 13.5489, 72.164, -154.143
3.55993, -1, -38.2515, -7.38534, 27.5451, 13.5512, 72.0742, -154.371
3.56803, -1, -38.4188, -7.47109, 27.5789, 13.5533, 71.9845, -154.597
3.57595, -1, -38.586, -7.55676, 27.6127, 13.5554, 71.8951, -154.825
3.58401, -1, -38.7533, -7.64249, 27.6466, 13.5575, 71.8053, -155.052
3.59194, -1, -38.9207, -7.72818, 27.6804, 13.5595, 71.7158, -155.279
3.59995, -1, -39.088, -7.81378, 27.7141, 13.5616, 71.6268, -155.506
3.60801, -1, -39.2556, -7.89945, 27.748, 13.5636, 71.5372, -155.733
3.61593, -1, -39.4231, -7.98514, 27.7818, 13.5656, 71.4479, -155.959
3.62395, -1, -39.5906, -8.07071, 27.8154, 13.5675, 71.3586, -156.186
3.63201, -1, -39.7583, -8.15626, 27.8491, 13.5695, 71.2692, -156.413
3.63993, -1, -39.9259, -8.24174, 27.8828, 13.5714, 71.1799, -156.639
3.64795, -1, -40.0935, -8.32719, 27.9164, 13.5734, 71.0905, -156.865
3.65607, -1, -40.261, -8.41256, 27.9501, 13.5753, 71.0014, -157.092
3.66395, -1, -40.4282, -8.49795, 27.9839, 13.5773, 70.9119, -157.318
3.67196, -1, -40.5952, -8.58335, 28.0175, 13.5793, 70.8227, -157.544
3.68003, -1, -40.762, -8.66872, 28.051, 13.5813, 70.7338, -157.77
3.68792, -1, -40.9285, -8.75407, 28.0848, 13.5833, 70.6445, -157.996
3.69608, -1, -41.0949, -8.83939, 28.1185, 13.5853, 70.5554, -158.222
3.70397, -1, -41.2612, -8.92463, 28.152, 13.5873, 70.4664, -158.448
3.71198, -1, -41.4274, -9.00977, 28.1855, 13.5893, 70.3771, -158.673
3.72035, -1, -41.5938, -9.09494, 28.2192, 13.5913, 70.288, -158.899
3.72746, -1, -41.7601, -9.18006, 28.2528, 13.5933, 70.1989, -159.124
3.73611, -1, -41.9265, -9.26511, 28.2863, 13.5953, 70.1098, -159.35
3.74459, -1, -42.0929, -9.35011, 28.3199, 13.5973, 70.0208, -159.575
3.75203, -1, -42.2591, -9.43523, 28.3535, 13.5994, 69.9318, -159.8
3.76001, -1, -42.4254, -9.52026, 28.3869, 13.6014, 69.8431, -160.026
3.76867, -1, -42.5918, -9.60525, 28.4204, 13.6034, 69.754, -160.251
3.77612, -1, -42.7582, -9.69021, 28.4539, 13.6055, 69.665, -160.476
3.78304, -1, -42.8414, -9.73271, 28.4706, 13.6064, 69.6207, -160.589
3.79209, -1, -43.091, -9.86011, 28.5208, 13.6096, 69.4875, -160.926
3.799, -1, -43.1741, -9.90258, 28.5375, 13.6106, 69.4432, -161.038
3.80697, -1, -43.3402, -9.98749, 28.571, 13.6127, 69.3545, -161.263
3.81629, -1, -43.5892, -10.1149, 28.6212, 13.6158, 69.2216, -161.6
3.82298, -1, -43.6721, -10.1573, 28.638, 13.6168, 69.1773, -161.713
3.83098, -1, -43.838, -10.2422, 28.6714, 13.6189, 69.0889, -161.937
3.84077, -1, -44.0867, -10.3693, 28.7214, 13.6221, 68.9562, -162.274
3.8491, -1, -44.2519, -10.454, 28.755, 13.6243, 68.8676, -162.498
3.85499, -1, -44.3346, -10.4963, 28.7717, 13.6255, 68.8232, -162.61
3.86456, -1, -44.5823, -10.6231, 28.8216, 13.6288, 68.6904, -162.947
3.87314, -1, -44.7474, -10.7076, 28.855, 13.6309, 68.6017, -163.171
3.87899, -1, -44.8301, -10.7498, 28.8718, 13.632, 68.5575, -163.283
3.88862, -1, -44.9954, -10.8342, 28.9052, 13.6342, 68.4249, -163.619
3.89592, -1, -45.1607, -10.9187, 28.9386, 13.6364, 68.3807, -163.731
3.90459, -1, -45.3261, -11.0032, 28.972, 13.6386, 68.2922, -163.955
3.91202, -1, -45.4913, -11.0877, 29.0054, 13.6409, 68.2038, -164.179
3.92004, -1, -45.6566, -11.1721, 29.0385, 13.6432, 68.1159, -164.403
3.9289, -1, -45.8218, -11.2565, 29.0718, 13.6454, 68.0273, -164.626
3.93493, -1, -45.9861, -11.3403, 29.1053, 13.6477, 67.9389, -164.85
3.94392, -1, -46.1475, -11.4226, 29.1387, 13.65, 67.8509, -165.073
3.95192, -1, -46.3045, -11.502, 29.1723, 13.6524, 67.7634, -165.294
3.95999, -1, -46.4549, -11.577, 29.2059, 13.6547, 67.6782, -165.51
3.96793, -1, -46.5961, -11.6469, 29.2381, 13.6571, 67.5968, -165.716
3.97593, -1, -46.7257, -11.7103, 29.268, 13.6593, 67.522, -165.905
3.98398, -1, -46.8407, -11.7664, 29.2944, 13.6613, 67.4551, -166.074
3.99192, -1, -46.9395, -11.8156, 29.3165, 13.663, 67.3992, -166.216
3.99993, -1, -47.022, -11.8586, 29.3331, 13.6643, 67.3544, -166.329
4.008, -1, -47.0892, -11.8954, 29.3444, 13.665, 67.3208, -166.414
4.01596, -1, -47.1417, -11.9249, 29.3516, 13.6655, 67.2975, -166.473
4.02391, -1, -47.1806, -11.947, 29.3555, 13.6657, 67.2825, -166.51
4.032, -1, -47.2082, -11.9625, 29.3574, 13.6659, 67.2738, -166.533
4.03993, -1, -47.2264, -11.9725, 29.3582, 13.6659, 67.2689, -166.545
4.04792, -1, -47.2372, -11.9784, 29.3586, 13.666, 67.2666, -166.55
4.05601, -1, -47.2428, -11.9814, 29.3588, 13.666, 67.2654, -166.553
4.06392, 2, -47.245, -11.9827, 29.3589, 13.666, 67.2649, -166.554
4.072, 2, -47.245, -11.9832, 29.3591, 13.666, 67.2646, -166.555
4.08001, 2, -47.2448, -11.9834, 29.3591, 13.6661, 67.2645, -166.555
4.08791, 2, -47.2447, -11.9835, 29.3591, 13.666, 67.2645, -166.555
4.09593, 2, -47.2451, -11.9836, 29.3592, 13.666, 67.2644, -166.555
4.104, 2, -47.246, -11.9839, 29.3592, 13.6661, 67.2644, -166.555
4.11192, 2, -47.2472, -11.9843, 29.3592, 13.6661, 67.2644, -166.556
4.11993, 2, -47.249, -11.9851, 29.3592, 13.6661, 67.2644, -166.556
4.128, 2, -47.2506, -11.986, 29.3592, 13.6661, 67.2644, -166.555
4.13592, 2, -47.2519, -11.9868, 29.3592, 13.666, 67.2644, -166.555
4.14392, 2, -47.2529, -11.9875, 29.3592, 13.666, 67.2645, -166.555
4.15199, 2, -47.2534, -11.9879, 29.3592, 13.6661, 67.2644, -166.555
4.15993, 2, -47.2535, -11.9881, 29.3592, 13.666, 67.2644, -166.555
4.16792, 2, -47.2536, -11.9881, 29.3593, 13.6661, 67.2644, -166.555
4.176, 2, -47.2533, -11.9881, 29.3593, 13.6661, 67.2644, -166.555
4.18394, 2, -47.2529, -11.9881, 29.3593, 13.666, 67.2644, -166.556
4.19192, 2, -47.2524, -11.9881, 29.3593, 13.666, 67.2644, -166.555
4.20001, 2, -47.2521, -11.9881, 29.3593, 13.666, 67.2644, -166.555
4.20794, 2, -47.2519, -11.9881, 29.3593, 13.666, 67.2644, -166.555
4.21599, 2, -47.2519, -11.9882, 29.3593, 13.6661, 67.2644, -166.555
4.22407, 2, -47.252, -11.9883, 29.3593, 13.666, 67.2645, -166.555
4.23202, 2, -47.2522, -11.9886, 29.3593, 13.666, 67.2645, -166.555
4.24011, 2, -47.2528, -11.989, 29.3593, 13.666, 67.2645, -166.555
4.24809, 2, -47.2533, -11.9893, 29.3593, 13.666, 67.2644, -166.555
4.25604, 2, -47.2536, -11.9895, 29.3593, 13.6661, 67.2645, -166.555
4.26369, 2, -47.2538, -11.9895, 29.3593, 13.666, 67.2645, -166.555
4.272, 2, -47.2538, -11.9896, 29.3593, 13.6661, 67.2645, -166.555
4.27996, 2, -47.2537, -11.9895, 29.3593, 13.6661, 67.2645, -166.555
4.28697, 2, -47.2536, -11.9895, 29.3593, 13.6661, 67.2645, -166.555
4.29606, 2, -47.2532, -11.9895, 29.3593, 13.666, 67.2645, -166.555
4.30304, 2, -47.2529, -11.9895, 29.3593, 13.666, 67.2645, -166.555
4.31219, 2, -47.2525, -11.9894, 29.3593, 13.666, 67.2645, -166.555
4.31891, 2, -47.2524, -11.9895, 29.3593, 13.666, 67.2645, -166.555
4.32826, 2, -47.2522, -11.9895, 29.3593, 13.6661, 67.2645, -166.555
4.33497, 2, -47.2522, -11.9895, 29.3593, 13.6661, 67.2645, -166.555
4.34455, 2, -47.2521, -11.9896, 29.3593, 13.666, 67.2645, -166.555
4.35257, 2, -47.2521, -11.9897, 29.3593, 13.666, 67.2645, -166.555
4.36053, 2, -47.2521, -11.9897, 29.3593, 13.6659, 67.2645, -166.555
4.36851, 2, -47.2521, -11.9897, 29.3593, 13.666, 67.2645, -166.555
4.37649, 2, -47.2521, -11.9897, 29.3593, 13.666, 67.2645, -166.555
4.38456, 2, -47.2521, -11.9897, 29.3593, 13.666, 67.2645, -166.555
4.3925, 2, -47.252, -11.9896, 29.3593, 13.6659, 67.2645, -166.555
4.39991, 2, -47.252, -11.9896, 29.3593, 13.666, 67.2645, -166.555
4.408, 2, -47.2519, -11.9895, 29.3593, 13.666, 67.2645, -166.555
4.41597, 2, -47.2518, -11.9895, 29.3593, 13.6659, 67.2646, -166.555
4.4239, 2, -47.2517, -11.9895, 29.3593, 13.666, 67.2645, -166.555
4.43191, 2, -47.2516, -11.9895, 29.3593, 13.666, 67.2645, -166.555
4.43998, 2, -47.2515, -11.9895, 29.3593, 13.666, 67.2645, -166.555
4.44791, 2, -47.2515, -11.9895, 29.3593, 13.6659, 67.2646, -166.555
4.45591, 2, -47.2514, -11.9895, 29.3593, 13.6659, 67.2645, -166.555
4.46396, 2, -47.2514, -11.9895, 29.3593, 13.666, 67.2645, -166.555
4.47191, 2, -47.2513, -11.9895, 29.3593, 13.666, 67.2646, -166.555
4.47992, 2, -47.2512, -11.9895, 29.3593, 13.666, 67.2646, -166.555
4.48798, 2, -47.2511, -11.9895, 29.3593, 13.666, 67.2646, -166.555
4.49591, 2, -47.2511, -11.9895, 29.3593, 13.6659, 67.2646, -166.555
4.50391, 2, -47.2509, -11.9894, 29.3593, 13.666, 67.2646, -166.555
4.51198, 2, -47.2509, -11.9893, 29.3593, 13.666, 67.2646, -166.555
4.51993, 2, -47.2508, -11.9893, 29.3593, 13.666, 67.2646, -166.555
4.5289, 2, -47.2507, -11.9892, 29.3593, 13.666, 67.2646, -166.555
4.53599, 2, -47.2506, -11.9892, 29.3593, 13.666, 67.2646, -166.555
4.5439, 2, -47.2505, -11.9893, 29.3593, 13.6659, 67.2647, -166.555
4.5519, 2, -47.2504, -11.9893, 29.3593, 13.6659, 67.2646, -166.555
4.55999, 2, -47.2503, -11.9893, 29.3593, 13.6659, 67.2646, -166.555
4.56791, 2, -47.2502, -11.9893, 29.3593, 13.6659, 67.2646, -166.555
4.576, 2, -47.2501, -11.9893, 29.3593, 13.6659, 67.2646, -166.555
4.58398, 2, -47.25, -11.9892, 29.3593, 13.6659, 67.2646, -166.555
4.5919, 2, -47.2499, -11.9892, 29.3593, 13.6659, 67.2646, -166.555
4.59992, 2, -47.2498, -11.9892, 29.3593, 13.6659, 67.2646, -166.555
4.60798, 2, -47.2498, -11.9891, 29.3593, 13.6659, 67.2647, -166.555
4.61591, 2, -47.2496, -11.989, 29.3593, 13.6659, 67.2647, -166.555
4.62391, 2, -47.2495, -11.989, 29.3593, 13.6659, 67.2647, -166.555
4.63198, 2, -47.2494, -11.989, 29.3593, 13.6659, 67.2647, -166.555
4.63991, 2, -47.2494, -11.9889, 29.3593, 13.6659, 67.2647, -166.555
4.6479, 2, -47.2493, -11.9889, 29.3593, 13.6659, 67.2647, -166.555
4.65598, 2, -47.2493, -11.9889, 29.3593, 13.6659, 67.2647, -166.555
4.6639, 2, -47.2492, -11.989, 29.3593, 13.6659, 67.2647, -166.555
4.6719, 2, -47.2492, -11.9889, 29.3593, 13.6659, 67.2647, -166.555
4.67998, 2, -47.2491, -11.9889, 29.3593, 13.6659, 67.2647, -166.555
4.68792, 2, -47.2491, -11.9889, 29.3593, 13.6659, 67.2647, -166.555
4.69592, 2, -47.2491, -11.9889, 29.3593, 13.6659, 67.2647, -166.555
4.70398, 2, -47.2491, -11.9889, 29.3593, 13.6658, 67.2647, -166.555
4.71193, 2, -47.249, -11.9888, 29.3593, 13.6658, 67.2647, -166.555
4.72, 2, -47.2489, -11.9887, 29.3593, 13.6658, 67.2647, -166.555
4.72812, 2, -47.2488, -11.9886, 29.3593, 13.6658, 67.2647, -166.555
4.73546, 2, -47.2487, -11.9886, 29.3593, 13.6658, 67.2647, -166.555
4.74409, 2, -47.2487, -11.9886, 29.3593, 13.6658, 67.2647, -166.555
4.75207, 2, -47.2486, -11.9886, 29.3593, 13.6658, 67.2647, -166.555
4.76002, 2, -47.2486, -11.9886, 29.3593, 13.6658, 67.2647, -166.555
4.76791, 2, -47.2485, -11.9886, 29.3593, 13.6658, 67.2647, -166.555
4.77606, 2, -47.2485, -11.9886, 29.3593, 13.6657, 67.2647, -166.555
4.78399, 2, -47.2485, -11.9886, 29.3593, 13.6657, 67.2647, -166.555
4.79181, 2, -47.2485, -11.9886, 29.3593, 13.6657, 67.2647, -166.555
4.80008, 2, -47.2484, -11.9885, 29.3593, 13.6657, 67.2647, -166.555
4.80697, 2, -47.2484, -11.9885, 29.3593, 13.6657, 67.2647, -166.555
4.81639, 2, -47.2483, -11.9884, 29.3593, 13.6656, 67.2648, -166.555
4.82294, 2, -47.2482, -11.9884, 29.3593, 13.6657, 67.2648, -166.555
4.83229, 2, -47.2481, -11.9883, 29.3593, 13.6656, 67.2647, -166.555
4.83894, 2, -47.2481, -11.9883, 29.3593, 13.6656, 67.2647, -166.555
4.84851, 2, -47.2479, -11.9882, 29.3593, 13.6656, 67.2648, -166.554
4.85646, 2, -47.2479, -11.9882, 29.3593, 13.6656, 67.2648, -166.554
4.86468, 2, -47.2479, -11.9882, 29.3593, 13.6656, 67.2648, -166.554
4.87251, 2, -47.2478, -11.9882, 29.3593, 13.6656, 67.2648, -166.554
4.88049, 2, -47.2478, -11.9882, 29.3593, 13.6656, 67.2648, -166.554
4.8887, 2, -47.2478, -11.9882, 29.3593, 13.6656, 67.2648, -166.554
4.89651, 2, -47.2478, -11.9882, 29.3593, 13.6656, 67.2648, -166.554
4.90389, 2, -47.2477, -11.9882, 29.3593, 13.6656, 67.2648, -166.554
4.91286, 2, -47.2477, -11.9881, 29.3593, 13.6656, 67.2649, -166.554
4.91995, 2, -47.2476, -11.9881, 29.3593, 13.6656, 67.2649, -166.554
4.92789, 2, -47.2476, -11.988, 29.3593, 13.6656, 67.2649, -166.554
4.9359, 2, -47.2475, -11.9879, 29.3593, 13.6655, 67.2649, -166.554
4.94394, 2, -47.2474, -11.9879, 29.3593, 13.6655, 67.2649, -166.554
4.95188, 2, -47.2473, -11.9879, 29.3593, 13.6655, 67.2649, -166.554
4.9599, 2, -47.2472, -11.9878, 29.3593, 13.6655, 67.265, -166.554
4.96794, 2, -47.2471, -11.9878, 29.3593, 13.6655, 67.265, -166.554
4.97589, 2, -47.2471, -11.9878, 29.3593, 13.6655, 67.265, -166.554
4.98391, 2, -47.2471, -11.9878, 29.3593, 13.6655, 67.265, -166.554
4.99197, 2, -47.2471, -11.9878, 29.3593, 13.6655, 67.265, -166.554
4.9999, 2, -47.2471, -11.9878, 29.3593, 13.6655, 67.265, -166.554
5.00788, 2, -47.247, -11.9878, 29.3593, 13.6654, 67.265, -166.554
5.01597, 2, -47.247, -11.9878, 29.3593, 13.6655, 67.2651, -166.554
5.0239, 2, -47.2469, -11.9877, 29.3593, 13.6654, 67.2651, -166.554
5.03379, 2, -47.2469, -11.9876, 29.3593, 13.6654, 67.2651, -166.554
5.03997, 2, -47.2468, -11.9876, 29.3593, 13.6654, 67.2651, -166.554
5.04789, 2, -47.2467, -11.9875, 29.3593, 13.6654, 67.2651, -166.554
5.05589, 2, -47.2467, -11.9875, 29.3593, 13.6654, 67.265, -166.554
5.06525, 2, -47.2466, -11.9875, 29.3593, 13.6654, 67.2651, -166.554
5.07189, 2, -47.2465, -11.9875, 29.3592, 13.6653, 67.2651, -166.554
5.08005, 2, -47.2465, -11.9875, 29.3593, 13.6653, 67.2651, -166.554
5.08789, 2, -47.2464, -11.9875, 29.3593, 13.6653, 67.2651, -166.554
5.09501, 2, -47.2464, -11.9875, 29.3593, 13.6653, 67.2651, -166.554
5.10395, 2, -47.2464, -11.9874, 29.3593, 13.6653, 67.2651, -166.554
5.11189, 2, -47.2464, -11.9874, 29.3593, 13.6653, 67.2651, -166.554
5.11986, 2, -47.2463, -11.9874, 29.3593, 13.6653, 67.2651, -166.554
5.12795, 2, -47.2463, -11.9873, 29.3593, 13.6653, 67.2652, -166.554
5.13589, 2, -47.2463, -11.9873, 29.3593, 13.6653, 67.2652, -166.554
5.14385, 4, -47.2462, -11.9872, 29.3593, 13.6652, 67.2652, -166.554
5.15195, 4, -47.2462, -11.9872, 29.3593, 13.6652, 67.2652, -166.554
5.15989, 4, -47.2461, -11.9872, 29.3593, 13.6652, 67.2652, -166.554
5.16789, 4, -47.246, -11.9872, 29.3593, 13.6652, 67.2653, -166.554
5.17597, 4, -47.246, -11.9871, 29.3593, 13.6652, 67.2652, -166.554
5.18389, 4, -47.2459, -11.9871, 29.3593, 13.6651, 67.2652, -166.554
5.19191, 4, -47.2459, -11.9871, 29.3593, 13.6651, 67.2652, -166.554
5.19997, 4, -47.2458, -11.9871, 29.3593, 13.6651, 67.2652, -166.554
5.20789, 4, -47.2458, -11.9871, 29.3593, 13.6651, 67.2653, -166.554
5.21595, 4, -47.2458, -11.987, 29.3593, 13.6651, 67.2652, -166.554
5.22404, 4, -47.2458, -11.987, 29.3593, 13.6651, 67.2652, -166.554
5.232, 4, -47.2458, -11.987, 29.3593, 13.6651, 67.2653, -166.553
5.23948, 4, -47.2457, -11.9869, 29.3593, 13.6651, 67.2653, -166.554
5.24829, 4, -47.2457, -11.9869, 29.3592, 13.6651, 67.2653, -166.554
5.2599, 4, -47.2456, -11.9869, 29.3593, 13.665, 67.2652, -166.554
5.26371, 4, -47.2455, -11.9869, 29.3592, 13.665, 67.2652, -166.554
5.27489, 4, -47.2455, -11.9868, 29.3593, 13.6651, 67.2653, -166.553
5.28028, 4, -47.2454, -11.9868, 29.3593, 13.665, 67.2653, -166.553
5.28927, 4, -47.2454, -11.9868, 29.3592, 13.665, 67.2653, -166.553
5.29638, 4, -47.2453, -11.9868, 29.3592, 13.665, 67.2653, -166.553
5.30441, 4, -47.2453, -11.9868, 29.3593, 13.6649, 67.2653, -166.553
5.31242, 4, -47.2453, -11.9868, 29.3593, 13.6649, 67.2653, -166.553
5.32067, 4, -47.2452, -11.9868, 29.3593, 13.6649, 67.2653, -166.553
5.32884, 4, -47.2452, -11.9867, 29.3593, 13.665, 67.2653, -166.553
5.33506, 4, -47.2452, -11.9867, 29.3593, 13.665, 67.2653, -166.553
5.34683, 4, -47.2452, -11.9866, 29.3593, 13.6649, 67.2653, -166.553
5.35294, 4, -47.2452, -11.9866, 29.3593, 13.6649, 67.2653, -166.553
5.36137, 4, -47.2451, -11.9865, 29.3593, 13.6649, 67.2653, -166.553
5.36885, 4, -47.245, -11.9865, 29.3593, 13.6648, 67.2653, -166.553
5.3751, 4, -47.245, -11.9865, 29.3593, 13.6648, 67.2653, -166.553
5.38863, 4, -47.2449, -11.9865, 29.3593, 13.6649, 67.2653, -166.553
5.39102, 4, -47.2449, -11.9865, 29.3593, 13.6649, 67.2653, -166.553
5.4031, 4, -47.2449, -11.9865, 29.3593, 13.6649, 67.2653, -166.553
5.40943, 4, -47.2451, -11.9866, 29.3593, 13.6649, 67.2653, -166.553
5.41769, 4, -47.2453, -11.9867, 29.3594, 13.6649, 67.2654, -166.553
5.42315, 4, -47.2469, -11.9876, 29.3603, 13.6654, 67.2656, -166.553
5.43335, 4, -47.2525, -11.9932, 29.3672, 13.6764, 67.2683, -166.552
5.44003, 4, -47.2556, -11.997, 29.3723, 13.6865, 67.2708, -166.55
5.44801, 4, -47.2647, -12.0088, 29.3903, 13.7219, 67.2804, -166.543
5.45508, 5, -47.2791, -12.0281, 29.4232, 13.7883, 67.2989, -166.528
5.46435, 5, -47.3012, -12.0578, 29.4772, 13.9003, 67.3304, -166.503
5.47205, 5, -47.333, -12.0995, 29.5586, 14.0719, 67.3783, -166.464
5.47977, 5, -47.3762, -12.155, 29.6731, 14.3169, 67.4458, -166.407
5.48806, 5, -47.4322, -12.2252, 29.8239, 14.6436, 67.5352, -166.332
5.49504, 5, -47.5009, -12.3106, 30.0131, 15.0546, 67.6459, -166.237
5.50636, 5, -47.6267, -12.4666, 30.3676, 15.8183, 67.8493, -166.064
5.51203, 5, -47.6743, -12.5254, 30.5025, 16.1062, 67.9251, -165.998
5.51942, 5, -47.7767, -12.6521, 30.7948, 16.7214, 68.0857, -165.86
5.52813, 5, -47.8871, -12.7894, 31.1112, 17.3771, 68.2536, -165.715
5.53845, 5, -48.0631, -13.0097, 31.6176, 18.4025, 68.5107, -165.492
5.54411, 5, -48.1234, -13.0856, 31.7915, 18.7496, 68.5961, -165.417
5.55435, 5, -48.3043, -13.3149, 32.321, 19.7894, 68.8478, -165.196
5.56363, 5, -48.4211, -13.4649, 32.6749, 20.4682, 69.0107, -165.047
5.56804, 5, -48.4769, -13.5382, 32.8505, 20.7997, 69.0909, -164.97
5.57528, 6, -48.5807, -13.6786, 33.1943, 21.4388, 69.2499, -164.801
5.58705, 6, -48.7083, -13.8696, 33.6828, 22.3201, 69.4894, -164.491
5.59124, 6, -48.7413, -13.9284, 33.8364, 22.5905, 69.5708, -164.365
5.60003, 7, -48.7909, -14.0401, 34.1286, 23.0934, 69.738, -164.069
5.60824, 7, -48.8189, -14.1436, 34.4001, 23.5498, 69.913, -163.707
5.61603, 8, -48.8264, -14.2376, 34.6526, 23.9675, 70.0985, -163.274
5.62444, 8, -48.8156, -14.3219, 34.8907, 24.3561, 70.295, -162.775
5.63205, 9, -48.7894, -14.3982, 35.1171, 24.7255, 70.503, -162.218
5.6401, 9, -48.751, -14.469, 35.3361, 25.085, 70.7209, -161.618
5.64804, 10, -48.7025, -14.536, 35.5521, 25.4411, 70.9475, -160.992
5.6559, 10, -48.6446, -14.6003, 35.7669, 25.7973, 71.1805, -160.349
5.66552, 11, -48.5788, -14.6625, 35.9813, 26.1552, 71.4168, -159.703
5.67204, 11, -48.5071, -14.7238, 36.1959, 26.5161, 71.6542, -159.059
5.68027, 12, -48.4308, -14.7855, 36.409, 26.8819, 71.8922, -158.417
5.69285, 12, -48.3122, -14.879, 36.7242, 27.4421, 72.2507, -157.453
5.69616, 13, -48.2721, -14.9096, 36.8285, 27.6323, 72.3708, -157.131
5.7043, 13, -48.1909, -14.9694, 37.0355, 28.0179, 72.6123, -156.485
5.71164, 14, -48.1079, -15.0284, 37.2405, 28.4099, 72.8554, -155.834
5.72029, 14, -48.022, -15.0882, 37.4444, 28.8073, 73.1003, -155.181
5.72814, 15, -47.9327, -15.148, 37.6474, 29.2082, 73.346, -154.528
5.73841, 15, -47.8398, -15.2071, 37.8479, 29.6111, 73.5918, -153.877
5.746, 16, -47.7418, -15.2655, 38.0465, 30.0144, 73.8365, -153.228
5.7559, 16, -47.582, -15.3552, 38.3406, 30.6171, 74.1993, -152.262
5.75981, 17, -47.5258, -15.3859, 38.437, 30.8169, 74.3183, -151.942
5.77185, 17, -47.4095, -15.4484, 38.6275, 31.4103, 74.6671, -150.991
5.77577, 18, -47.3496, -15.5117, 38.8157, 31.606, 74.7804, -150.677
5.78599, 18, -47.1624, -15.5759, 39.0016, 31.9939, 75.0021, -150.057
5.79495, 19, -47.0312, -15.6418, 39.1848, 32.3782, 75.2173, -149.445
5.80218, 19, -46.8949, -15.7104, 39.3665, 32.7603, 75.427, -148.839
5.80838, 20, -46.7535, -15.7812, 39.5474, 33.1408, 75.6318, -148.241
5.81714, 20, -46.6067, -15.8543, 39.7259, 33.5203, 75.8324, -147.651
5.82473, 21, -46.4548, -15.9299, 39.9016, 33.8992, 76.0291, -147.066
5.83325, 21, -46.298, -16.0081, 40.0752, 34.2771, 76.2217, -146.487
5.84234, 22, -46.1367, -16.0883, 40.2467, 34.6536, 76.4096, -145.915
5.847, 22, -46.0543, -16.1289, 40.3313, 34.8408, 76.5017, -145.631
5.85705, 23, -45.7991, -16.2529, 40.5803, 35.3974, 76.7704, -144.79
5.86698, 23, -45.621, -16.3379, 40.7432, 35.7631, 76.9424, -144.236
5.87325, 24, -45.4362, -16.4247, 40.9028, 36.1237, 77.1087, -143.687
5.88138, 24, -45.2446, -16.5131, 41.058, 36.4783, 77.269, -143.145
5.88872, 25, -45.0464, -16.6026, 41.2092, 36.8259, 77.4239, -142.606
5.90084, 25, -44.8416, -16.7388, 41.4282, 37.3339, 77.6462, -141.806
5.90308, 26, -44.7367, -16.7388, 41.4282, 37.3339, 77.6462, -141.806
5.91495, 26, -44.4117, -16.8766, 41.6363, 37.8253, 77.8579, -141.013
5.92081, 27, -44.2999, -16.9227, 41.7029, 38.1437, 77.9941, -140.487
5.93325, 27, -43.8358, -17.1062, 41.9549, 38.6066, 78.1915, -139.699
5.93609, 28, -43.8358, -17.1062, 41.9549, 38.6066, 78.1915, -139.699
5.94712, 28, -43.4702, -17.2415, 42.1271, 39.0514, 78.3811, -138.914
5.95297, 29, -43.3449, -17.2857, 42.1811, 39.1954, 78.4427, -138.392
5.9622, 29, -42.959, -17.4161, 42.3328, 39.6154, 78.623, -137.869
5.96782, 30, -42.8269, -17.4586, 42.3798, 39.7512, 78.6814, -137.608
5.97603, 30, -42.5565, -17.5422, 42.4684, 40.0162, 78.7963, -137.087
6.00709, 32, -41.3956, -17.8521, 42.7519, 40.9913, 79.2274, -135.006
6.01029, 32, -41.3956, -17.8881, 42.7796, 41.1038, 79.2784, -134.747
6.01225, 32, -41.2426, -17.8881, 42.7796, 41.1038, 79.2784, -134.747
6.02014, 34, -41.0881, -17.9234, 42.8055, 41.2143, 79.3287, -134.488
6.03229, 34, -40.4532, -18.0563, 42.891, 41.6358, 79.5237, -133.455
6.03493, 34, -40.291, -18.0878, 42.9079, 41.7361, 79.5708, -133.197
6.03676, 34, -40.291, -18.0878, 42.9079, 41.7361, 79.5708, -133.197
6.03999, 34, -40.1276, -18.1186, 42.9229, 41.8344, 79.6171, -132.94
6.04823, 35, -39.797, -18.1783, 42.9474, 42.025, 79.7084, -132.425
6.05502, 35, -39.4607, -18.2345, 42.965, 42.2082, 79.7966, -131.913
6.06322, 36, -39.1178, -18.2873, 42.9754, 42.3838, 79.8831, -131.401
6.07209, 36, -38.7674, -18.3367, 42.9791, 42.5516, 79.9671, -130.89
6.08234, 37, -38.2296, -18.4046, 42.972, 42.789, 80.0892, -130.127
6.0881, 37, -38.0474, -18.4255, 42.9662, 42.8644, 80.1291, -129.874
6.09645, 38, -37.679, -18.4644, 42.9494, 43.0096, 80.207, -129.368
6.10402, 38, -37.3059, -18.4998, 42.9261, 43.1475, 80.2829, -128.863
6.11522, 39, -36.7375, -18.5467, 42.8786, 43.3403, 80.3921, -128.11
6.12303, 39, -36.3529, -18.5734, 42.8384, 43.4597, 80.463, -127.61
6.1281, 40, -36.1586, -18.5853, 42.8159, 43.5166, 80.4976, -127.361
6.13688, 40, -35.7651, -18.6063, 42.766, 43.6253, 80.5655, -126.864
6.14401, 41, -35.3657, -18.6232, 42.7094, 43.7267, 80.6316, -126.368
6.15301, 41, -34.9607, -18.6365, 42.6465, 43.8205, 80.6951, -125.875
6.16008, 42, -34.5514, -18.6463, 42.5771, 43.9077, 80.7576, -125.385
6.16961, 42, -34.1388, -18.6529, 42.5012, 43.9875, 80.8169, -124.896
6.17875, 43, -33.7232, -18.6563, 42.4193, 44.0603, 80.8756, -124.41
6.18522, 43, -33.3035, -18.6563, 42.3313, 44.1259, 80.932, -123.926
6.19157, 44, -32.8782, -18.6526, 42.2376, 44.1847, 80.9866, -123.444
6.2002, 44, -32.4464, -18.6452, 42.1382, 44.2355, 81.0404, -122.965
6.208, 45, -32.0082, -18.6339, 42.0329, 44.2797, 81.0915, -122.488
6.21807, 45, -31.5651, -18.6191, 41.9216, 44.3166, 81.1415, -122.014
6.22356, 46, -31.1188, -18.6008, 41.8042, 44.3456, 81.1902, -121.541
6.23238, 46, -30.6708, -18.5791, 41.6811, 44.3669, 81.236, -121.072
6.24343, 47, -30.2199, -18.5534, 41.5521, 44.3805, 81.281, -120.604
6.2485, 47, -29.7641, -18.5233, 41.4171, 44.387, 81.3254, -120.139
6.25778, 48, -29.3017, -18.4888, 41.2763, 44.3867, 81.368, -119.675
6.26455, 48, -28.833, -18.45, 41.1291, 44.3773, 81.4097, -119.213
6.27217, 49, -28.359, -18.4069, 40.9762, 44.3595, 81.4515, -118.754
6.28074, 49, -27.8823, -18.3593, 40.8173, 44.3326, 81.4929, -118.295
6.2888, 50, -27.403, -18.3072, 40.6521, 44.2956, 81.5332, -117.837
6.30034, 50, -26.9202, -18.2499, 40.4802, 44.2497, 81.5958, -117.153
6.30436, 51, -26.431, -18.1869, 40.302, 44.1948, 81.6171, -116.925
6.31598, 51, -25.934, -18.1184, 40.0218, 44.0933, 81.6807, -116.244
6.32045, 52, -25.4302, -18.0444, 39.9246, 44.0547, 81.7022, -116.017
6.32983, 52, -24.9227, -17.9651, 39.7251, 43.969, 81.7467, -115.563
6.33803, 53, -24.4134, -17.8805, 39.5199, 43.8734, 81.7915, -115.111
6.34559, 53, -23.901, -17.7901, 39.3074, 43.7679, 81.8365, -114.658
6.35249, 54, -23.3824, -17.6934, 39.087, 43.6518, 81.8841, -114.207
6.36161, 54, -22.8555, -17.5905, 38.8601, 43.5251, 81.9333, -113.755
6.36863, 55, -22.321, -17.4814, 38.6258, 43.3871, 81.984, -113.303
6.37678, 55, -21.7822, -17.3662, 38.384, 43.2373, 82.038, -112.851
6.38913, 56, -21.2412, -17.2452, 38.1362, 43.0758, 82.0933, -112.399
6.39266, 56, -20.6968, -17.1183, 37.8812, 42.9027, 82.15, -111.949
6.40246, 57, -20.1449, -16.9861, 37.6194, 42.7183, 82.2094, -111.498
6.40913, 57, -19.5835, -16.8482, 37.3512, 42.522, 82.2695, -111.048
6.41724, 58, -19.0143, -16.7041, 37.0757, 42.3132, 82.3325, -110.597
6.42606, 58, -18.4412, -16.5538, 36.7943, 42.0917, 82.3968, -110.147
6.43394, 59, -17.866, -16.3981, 36.506, 41.8579, 82.4638, -109.698
6.43907, 59, -17.5769, -16.3185, 36.3595, 41.7361, 82.4984, -109.474
6.44795, 60, -16.9924, -16.156, 36.0618, 41.4825, 82.5687, -109.024
6.45605, 60, -16.3973, -15.9884, 35.7576, 41.216, 82.642, -108.575
6.46635, 61, -15.4916, -15.7263, 35.2915, 40.7912, 82.7546, -107.901
6.472, 61, -15.188, -15.6366, 35.133, 40.6431, 82.7933, -107.677
6.48178, 62, -14.2716, -15.3613, 34.6492, 40.1798, 82.9129, -107.004
6.48926, 62, -13.9625, -15.2674, 34.4852, 40.0188, 82.9539, -106.554
6.49656, 63, -13.3367, -15.0752, 34.1545, 39.6872, 83.0376, -106.33
6.50416, 63, -12.7025, -14.8766, 33.819, 39.3423, 83.1235, -105.879
6.51224, 64, -12.0632, -14.673, 33.4793, 38.9844, 83.2123, -105.429
6.51899, 64, -11.42, -14.4639, 33.1339, 38.6133, 83.3038, -104.978
6.52718, 65, -10.7695, -14.2476, 32.7834, 38.2279, 83.3995, -104.526
6.535, 65, -10.1077, -14.0235, 32.4267, 37.8265, 83.5005, -104.071
6.544, 66, -9.43534, -13.7927, 32.0646, 37.4068, 83.6068, -103.614
6.55491, 66, -8.41246, -13.4337, 31.5099, 36.743, 83.7798, -102.926
6.55899, 67, -8.06857, -13.3106, 31.3211, 36.5122, 83.841, -102.695
6.5686, 67, -7.37409, -13.0593, 30.9381, 36.0371, 83.9692, -102.231
6.57706, 68, -6.67021, -12.8001, 30.5492, 35.5452, 84.1046, -101.765
6.58505, 68, -5.9586, -12.5339, 30.1568, 35.0394, 84.2463, -101.296
6.59293, 69, -5.24177, -12.261, 29.7608, 34.5215, 84.3936, -100.826
6.6029, 69, -4.15459, -11.8367, 29.1619, 33.7231, 84.6241, -100.117
6.60713, 70, -3.78791, -11.6915, 28.9619, 33.4512, 84.7037, -99.8798
6.61911, 70, -2.67388, -11.2433, 28.36, 32.6133, 84.9519, -99.1642
6.62397, 71, -2.29823, -11.0898, 28.1582, 32.3265, 85.0382, -98.9246
6.6329, 71, -1.54063, -10.7778, 27.7513, 31.7401, 85.2179, -98.4438
6.64403, 72, -0.389717, -10.2973, 27.1339, 30.8262, 85.5067, -97.7153
6.64786, 72, -0.00301164, -10.1342, 26.9267, 30.5126, 85.6079, -97.471
6.6586, 73, 0.773893, -9.80143, 26.5108, 29.8761, 85.9242, -96.7344
6.66698, 73, 1.94767, -9.28787, 25.887, 28.9008, 86.145, -96.2417
6.672, 74, 2.34054, -9.11365, 25.68, 28.5715, 86.2582, -95.9947
6.68146, 74, 3.12755, -8.76242, 25.2689, 27.9081, 86.4897, -95.5
6.68743, 75, 3.91539, -8.40623, 24.8637, 27.2394, 86.7273, -95.0046
6.697, 75, 4.70437, -8.04461, 24.464, 26.5687, 86.9697, -94.5094
6.70401, 76, 5.49282, -7.67842, 24.0705, 25.8996, 87.2172, -94.0139
6.71229, 76, 6.28016, -7.30735, 23.6839, 25.2307, 87.4691, -93.5177
6.72011, 77, 7.06601, -6.93006, 23.3042, 24.5649, 87.7269, -93.0219
6.73391, 78, 8.24473, -6.35059, 22.7448, 23.568, 88.1284, -92.2782
6.73657, 78, 8.63723, -6.15387, 22.5607, 23.235, 88.2669, -92.0301
6.75195, 79, 10.2068, -5.34847, 21.8369, 21.8933, 88.8493, -91.0307
6.75319, 79, 10.2068, -5.34847, 21.8369, 21.8933, 88.8493, -91.0307
6.75941, 79, 10.9928, -4.9328, 21.481, 21.2178, 89.1579, -90.5246
6.76802, 80, 11.7766, -4.50739, 21.1277, 20.5393, 89.4781, -90.0131
6.77601, 80, 12.5559, -4.0722, 20.7782, 19.8601, 89.8091, -89.4947
6.78469, 81, 13.3301, -3.62754, 20.4319, 19.1869, 90.1508, -88.9693
6.79186, 81, 14.1003, -3.17477, 20.0904, 18.5225, 90.5022, -88.438
6.80072, 82, 14.8634, -2.71507, 19.7548, 17.8697, 90.8612, -87.9024
6.80797, 82, 15.6179, -2.24781, 19.4279, 17.2303, 91.2268, -87.3633
6.81491, 82, 15.9913, -2.01143, 19.2676, 16.9166, 91.4115, -87.0927
6.82417, 83, 17.0954, -1.29111, 18.8026, 16.0049, 91.9709, -86.2783
6.83084, 83, 17.4575, -1.0474, 18.6526, 15.7106, 92.1592, -86.0063
6.84045, 84, 18.5204, -0.310068, 18.2179, 14.8581, 92.731, -85.1928
6.84831, 84, 19.208, 0.18587, 17.9386, 14.3145, 93.1202, -84.6514
6.8564, 85, 19.8784, 0.687207, 17.6657, 13.7906, 93.5177, -84.1121
6.86441, 85, 20.5319, 1.19313, 17.399, 13.2862, 93.9227, -83.5751
6.87293, 86, 21.1692, 1.70287, 17.1376, 12.8015, 94.3341, -83.0403
6.88042, 86, 21.7923, 2.21812, 16.8829, 12.3368, 94.7514, -82.5049
6.88882, 87, 22.4028, 2.74244, 16.6339, 11.8922, 95.1751, -81.9673
6.89648, 87, 22.7037, 3.27739, 16.3894, 11.4666, 95.605, -81.4254
6.9045, 87, 23.298, 3.54833, 16.2688, 11.2605, 95.8224, -80.8779
6.91183, 88, 23.8827, 4.0957, 16.0301, 10.86, 96.2623, -80.6007
6.91987, 88, 24.4568, 4.6513, 15.7944, 10.4754, 96.7087, -80.0389
6.9279, 89, 25.02, 5.21812, 15.5638, 10.1054, 97.1622, -79.4663
6.93583, 89, 25.5749, 5.79692, 15.3371, 9.75031, 97.6227, -78.8818
6.94389, 90, 26.1258, 6.3864, 15.113, 9.4102, 98.0896, -78.2843
6.95183, 90, 26.6708, 6.98552, 14.893, 9.08496, 98.5633, -77.6722
6.95985, 91, 27.2044, 7.59365, 14.678, 8.77681, 99.0435, -77.0465
6.96784, 91, 27.7247, 8.21212, 14.4674, 8.48694, 99.5298, -76.4089
6.97584, 92, 28.235, 8.84169, 14.2609, 8.2175, 100.021, -75.759
6.98382, 92, 28.7379, 9.48162, 14.0592, 7.97004, 100.517, -75.0999
6.99182, 93, 29.2324, 10.13, 13.8628, 7.74482, 101.016, -74.4336
6.99988, 93, 29.7148, 10.7849, 13.6733, 7.54309, 101.515, -73.7603
7.00783, 94, 30.183, 11.4441, 13.4917, 7.36472, 102.013, -73.08
7.01584, 94, 30.6362, 12.1063, 13.3172, 7.20998, 102.509, -72.3949
7.02387, 95, 31.0755, 12.7706, 13.1496, 7.07909, 103.002, -71.7052
7.03363, 95, 31.5014, 13.4366, 12.9132, 6.92703, 103.734, -70.659
7.03986, 96, 31.9133, 14.1043, 12.838, 6.88797, 103.977, -70.3079
7.04787, 96, 32.3094, 14.7725, 12.6921, 6.82862, 104.459, -69.602
7.05582, 97, 32.6891, 15.441, 12.5529, 6.79168, 104.937, -68.8895
7.06384, 97, 33.0528, 16.1083, 12.4211, 6.77579, 105.409, -68.1723
7.07184, 98, 33.4008, 16.7735, 12.2977, 6.78205, 105.875, -67.453
7.07983, 98, 33.7344, 17.4347, 12.183, 6.80976, 106.332, -66.7296
7.08887, 99, 34.0543, 18.0903, 12.0776, 6.8569, 106.779, -66.0056
7.0959, 99, 34.362, 18.7386, 11.9818, 6.92432, 107.213, -65.2843
7.10392, 100, 34.6589, 19.3785, 11.8953, 7.009, 107.635, -64.5645
7.11182, 100, 34.9441, 20.0093, 11.8179, 7.1115, 108.042, -63.8493
7.11982, 101, 35.217, 20.6293, 11.7491, 7.23001, 108.434, -63.1417
7.12791, 101, 35.4776, 21.2385, 11.6884, 7.36336, 108.809, -62.4407
7.13579, 102, 35.7256, 21.8354, 11.6362, 7.50941, 109.167, -61.7487
7.14382, 102, 35.9601, 22.4193, 11.5922, 7.66625, 109.509, -61.0684
7.1521, 103, 36.1827, 22.9893, 11.5563, 7.8318, 109.835, -60.3996
7.15967, 103, 36.3973, 23.5442, 11.5288, 8.00487, 110.146, -59.7424
7.16784, 103, 36.6058, 24.0835, 11.5101, 8.1859, 110.439, -59.0984
7.17589, 104, 36.808, 24.6074, 11.5, 8.37508, 110.716, -58.4672
7.18383, 104, 37.0037, 25.1156, 11.4968, 8.57341, 110.973, -57.8463
7.19182, 104, 37.1933, 25.6081, 11.5001, 8.78057, 111.21, -57.2372
7.19991, 104, 37.3745, 26.0847, 11.5092, 8.99533, 111.427, -56.6403
7.20784, 104, 37.5452, 26.545, 11.5223, 9.2161, 111.626, -56.0565
7.21583, 104, 37.7068, 26.9893, 11.5382, 9.44036, 111.809, -55.4879
7.22403, 104, 37.863, 27.4188, 11.5569, 9.66498, 111.978, -54.9376
7.2319, 104, 38.0159, 27.8326, 11.5772, 9.88753, 112.137, -54.4089
7.23997, 104, 38.1646, 28.2299, 11.5979, 10.1059, 112.286, -53.9028
7.24792, 104, 38.3076, 28.6105, 11.6181, 10.3191, 112.427, -53.4198
7.25593, 104, 38.4442, 28.9743, 11.637, 10.5256, 112.56, -52.9614
7.26408, 104, 38.5733, 29.3199, 11.655, 10.7248, 112.685, -52.5271
7.27272, 104, 38.6941, 29.6471, 11.6719, 10.9156, 112.802, -52.1183
7.28005, 104, 38.8065, 29.9549, 11.6875, 11.0977, 112.912, -51.7342
7.28791, 104, 38.9107, 30.2444, 11.7021, 11.2701, 113.014, -51.375
7.29585, 104, 39.0073, 30.5147, 11.7157, 11.4326, 113.109, -51.0416
7.30418, 104, 39.0962, 30.7651, 11.728, 11.5845, 113.196, -50.7334
7.31084, 104, 39.1377, 30.8831, 11.7337, 11.6564, 113.237, -50.5886
7.31995, 104, 39.2501, 31.2075, 11.7493, 11.855, 113.348, -50.1924
7.32794, 104, 39.2836, 31.3055, 11.7541, 11.973, 113.413, -49.9598
7.3362, 104, 39.3722, 31.5707, 11.7672, 12.0792, 113.471, -49.7525
7.34282, 104, 39.3981, 31.6495, 11.771, 12.1277, 113.498, -49.6582
7.35244, 104, 39.4664, 31.857, 11.7813, 12.2551, 113.566, -49.4126
7.36038, 104, 39.5049, 31.9729, 11.7875, 12.3245, 113.603, -49.279
7.36837, 104, 39.5371, 32.072, 11.7929, 12.383, 113.634, -49.1689
7.37662, 104, 39.5636, 32.1549, 11.7977, 12.4291, 113.658, -49.08
7.38444, 104, 39.5851, 32.2233, 11.802, 12.4651, 113.677, -49.0111
7.39242, 104, 39.6019, 32.2789, 11.806, 12.4924, 113.69, -48.96
7.4008, 104, 39.6149, 32.3233, 11.8096, 12.5123, 113.7, -48.9235
7.40864, 104, 39.6203, 32.3416, 11.8113, 12.5199, 113.706, -48.8989
7.41582, 104, 39.6291, 32.3709, 11.8143, 12.5311, 113.708, -48.8901
7.42383, 104, 39.6354, 32.3929, 11.817, 12.5384, 113.711, -48.8782
7.43194, 104, 39.6395, 32.4091, 11.8193, 12.5425, 113.713, -48.8715
7.43984, 104, 39.6418, 32.4201, 11.821, 12.5446, 113.713, -48.8683
7.44782, 104, 39.6429, 32.427, 11.8223, 12.5457, 113.714, -48.867
7.45593, 105, 39.6429, 32.4314, 11.8233, 12.5462, 113.714, -48.8665
7.46382, 105, 39.6421, 32.4344, 11.8242, 12.5464, 113.714, -48.8664
7.47182, 105, 39.6412, 32.4365, 11.8249, 12.5466, 113.714, -48.8665
7.47989, 105, 39.6402, 32.4382, 11.8256, 12.5466, 113.714, -48.8668
7.48781, 105, 39.639, 32.4396, 11.8262, 12.5466, 113.714, -48.867
7.49581, 105, 39.6378, 32.4409, 11.8267, 12.5467, 113.714, -48.8673
7.50389, 105, 39.637, 32.442, 11.8273, 12.5467, 113.714, -48.8676
7.51181, 105, 39.6366, 32.4431, 11.8279, 12.5468, 113.714, -48.868
7.51981, 105, 39.6363, 32.4442, 11.8285, 12.5467, 113.714, -48.8683
7.52788, 105, 39.6361, 32.4451, 11.829, 12.5467, 113.714, -48.8686
7.53772, 105, 39.6358, 32.4462, 11.8296, 12.5467, 113.714, -48.8689
7.54383, 105, 39.6357, 32.4465, 11.8297, 12.5467, 113.714, -48.8691
7.55185, 105, 39.6354, 32.4469, 11.83, 12.5467, 113.714, -48.8693
7.55981, 105, 39.6351, 32.4471, 11.8303, 12.5467, 113.714, -48.8695
7.56781, 105, 39.6349, 32.4472, 11.8305, 12.5467, 113.714, -48.8697
