MoveAbsJ [[35.953188161086224,10.302016642106,29.77008775887337,91.97581190859542,-51.189770582204325,52.565917803283384],[9E+09,9E+09,9E+09,9E+09,9E+09,9E+09]],v500,z1,Paintgun;
MoveC [[2312.7056889,950.72156218,700.04063677],[0.2903839213778441,0.6534962085504112,0.4224305660649816,0.5569311451781833],[1,2,1,0],[9E+09,9E+09,9E+09,9E+09,9E+09,9E+09]],[[2279.81585015,810.29024121,676.48787221],[0.49550939780166126,0.6235466545180437,0.43800109732571146,0.41691131559489125],[1,1,1,0],[9E+09,9E+09,9E+09,9E+09,9E+09,9E+09]],v500,z1,Paintgun;
MoveC [[2244.92290947,696.23990648,675.7311713],[0.49550939780166126,0.6235466545180437,0.43800109732571146,0.41691131559489125],[1,1,1,0],[9E+09,9E+09,9E+09,9E+09,9E+09,9E+09]],[[2205.82242816,584.31732704,687.84135988],[0.587845977349517,0.5617344004927598,0.4508374631686699,0.3682894948551598],[1,1,1,0],[9E+09,9E+09,9E+09,9E+09,9E+09,9E+09]],v500,z1,Paintgun;
MoveL [[2151.92407081,429.56182706,710.04878704],[0.6197440452174486,0.5189490236989976,0.44623626937554794,0.38403440095017977],[1,1,1,0],[9E+09,9E+09,9E+09,9E+09,9E+09,9E+09]],v500,z1,Paintgun;
MoveC [[2105.04114603,284.41124717,734.65978641],[0.6197440452174486,0.5189490236989976,0.44623626937554794,0.38403440095017977],[1,1,1,0],[9E+09,9E+09,9E+09,9E+09,9E+09,9E+09]],[[2067.60507559,135.57480938,751.60645313],[0.6145509509954113,0.46098096732548816,0.419769593202478,0.4833395959539409],[1,1,1,0],[9E+09,9E+09,9E+09,9E+09,9E+09,9E+09]],v500,z1,Paintgun;
MoveC [[2051.18313038,19.10199026,750.83545645],[0.6145509509954113,0.46098096732548816,0.419769593202478,0.4833395959539409],[1,1,1,0],[9E+09,9E+09,9E+09,9E+09,9E+09,9E+09]],[[2047.89634494,-97.30774679,734.27765914],[0.5222327944609845,0.4435485793018312,0.32602945870592837,0.6513388966158229],[1,1,2,0],[9E+09,9E+09,9E+09,9E+09,9E+09,9E+09]],v500,z1,Paintgun;
MoveC [[2057.77193947,-180.51669918,706.88044449],[0.5222327944609845,0.4435485793018312,0.32602945870592837,0.6513388966158229],[1,1,2,0],[9E+09,9E+09,9E+09,9E+09,9E+09,9E+09]],[[2077.19402148,-257.30765523,668.40983521],[0.43081968567013296,0.42144021307495555,0.18511499557468336,0.7762183865741709],[1,1,2,0],[9E+09,9E+09,9E+09,9E+09,9E+09,9E+09]],v500,z1,Paintgun;
MoveC [[2112.53923479,-337.11300754,609.99901382],[0.43081968567013296,0.42144021307495555,0.18511499557468336,0.7762183865741709],[1,1,2,0],[9E+09,9E+09,9E+09,9E+09,9E+09,9E+09]],[[2158.17150115,-404.47030348,543.5859803],[0.3840239128256776,0.3633112696256712,-0.053673763036527294,0.8471420677209567],[0,1,2,0],[9E+09,9E+09,9E+09,9E+09,9E+09,9E+09]],v500,z1,Paintgun;
MoveC [[2175.19513973,-429.38818194,517.93826525],[0.3840239128256776,0.3633112696256712,-0.053673763036527294,0.8471420677209567],[0,1,2,0],[9E+09,9E+09,9E+09,9E+09,9E+09,9E+09]],[[2194.11445497,-451.70675528,491.39282202],[0.3609887901242524,0.3478206146837914,-0.12094060372481194,0.8567854362536141],[0,1,2,0],[9E+09,9E+09,9E+09,9E+09,9E+09,9E+09]],v500,z1,Paintgun;
MoveL [[2215.84034237,-474.52189305,463.06632373],[0.3746240648092646,0.3241841837259663,-0.15310351366044272,0.8550559859988932],[0,1,2,0],[9E+09,9E+09,9E+09,9E+09,9E+09,9E+09]],v500,z1,Paintgun;