MoveAbsJ [[35.953189307001814,10.302047581826939,29.770073434928488,91.97579930352393,-51.189770582204325,52.565939002721805],[9E+09,9E+09,9E+09,9E+09,9E+09,9E+09]],v500,fine,Paintgun;
MoveC [[2312.70532395,950.72069748,700.0406453],[0.2903839213778442,0.6534962085504111,0.4224305660649816,0.5569311451781834],[1,2,1,0],[9E+09,9E+09,9E+09,9E+09,9E+09,9E+09]],[[2279.78959416,810.19767163,676.48217538],[0.4954507174832831,0.6236411281691681,0.4378435765515662,0.41700519454045165],[1,1,1,0],[9E+09,9E+09,9E+09,9E+09,9E+09,9E+09]],v5000,fine,Paintgun;
MoveC [[2245.22022606,697.13909796,675.68170529],[0.4954507174832831,0.6236411281691681,0.4378435765515662,0.41700519454045165],[1,1,1,0],[9E+09,9E+09,9E+09,9E+09,9E+09,9E+09]],[[2206.49060722,586.17518977,687.58827366],[0.5865901283333395,0.5631452486678032,0.4498693253017861,0.36931969944381554],[1,1,1,0],[9E+09,9E+09,9E+09,9E+09,9E+09,9E+09]],v5000,fine,Paintgun;
MoveC [[2184.55505772,524.2714652,694.91530683],[0.5865901283333395,0.5631452486678032,0.4498693253017861,0.36931969944381554],[1,1,1,0],[9E+09,9E+09,9E+09,9E+09,9E+09,9E+09]],[[2163.08199876,462.80992826,706.2427713],[0.6154279021326495,0.5263192906595779,0.4488240488935354,0.37788023855583935],[1,1,1,0],[9E+09,9E+09,9E+09,9E+09,9E+09,9E+09]],v5000,fine,Paintgun;
MoveL [[2107.05156511,293.17194643,733.59858611],[0.6269849505968357,0.48971789781288616,0.4391599552409308,0.41737846853856114],[1,1,1,0],[9E+09,9E+09,9E+09,9E+09,9E+09,9E+09]],v5000,fine,Paintgun;
MoveC [[2087.14494726,220.14079889,743.27073475],[0.6269849505968357,0.48971789781288616,0.4391599552409308,0.41737846853856114],[1,1,1,0],[9E+09,9E+09,9E+09,9E+09,9E+09,9E+09]],[[2069.96118658,146.11120161,750.17788458],[0.6139049215218652,0.46470824064921623,0.4194004525435865,0.4809056651882753],[1,1,1,0],[9E+09,9E+09,9E+09,9E+09,9E+09,9E+09]],v5000,fine,Paintgun;
MoveC [[2050.88288471,18.86835045,750.69212925],[0.6139049215218652,0.46470824064921623,0.4194004525435865,0.4809056651882753],[1,1,1,0],[9E+09,9E+09,9E+09,9E+09,9E+09,9E+09]],[[2048.37142196,-108.20251155,731.31775117],[0.5236303738312638,0.4389738972591372,0.32417176037473505,0.6542368217258953],[1,1,2,0],[9E+09,9E+09,9E+09,9E+09,9E+09,9E+09]],v5000,fine,Paintgun;
MoveC [[2058.67573286,-186.4986091,704.24060199],[0.5236303738312638,0.4389738972591372,0.32417176037473505,0.6542368217258953],[1,1,2,0],[9E+09,9E+09,9E+09,9E+09,9E+09,9E+09]],[[2077.58544902,-258.90109284,667.22805838],[0.4315870814782519,0.4206414575906788,0.1840125011631826,0.7764874465648132],[1,1,2,0],[9E+09,9E+09,9E+09,9E+09,9E+09,9E+09]],v5000,fine,Paintgun;
MoveC [[2109.60906933,-332.01519768,614.16784202],[0.4315870814782519,0.4206414575906788,0.1840125011631826,0.7764874465648132],[1,1,2,0],[9E+09,9E+09,9E+09,9E+09,9E+09,9E+09]],[[2150.39419982,-394.61093832,554.1269154],[0.379064573841548,0.3686038289323861,-0.037253194557095755,0.8479702032795734],[0,1,2,0],[9E+09,9E+09,9E+09,9E+09,9E+09,9E+09]],v5000,fine,Paintgun;
MoveL [[2186.23719525,-443.64496436,503.59333727],[0.35343446562136294,0.3565053948034613,-0.10929031304093635,0.8579298394754573],[0,1,2,0],[9E+09,9E+09,9E+09,9E+09,9E+09,9E+09]],v5000,fine,Paintgun;
MoveL [[2215.86966845,-474.21838079,462.72734594],[0.3746240648092646,0.3241841837259663,-0.15310351366044272,0.8550559859988932],[0,1,2,0],[9E+09,9E+09,9E+09,9E+09,9E+09,9E+09]],v5000,fine,Paintgun;