hehonglu123/Motion-Primitive-Planning/ILC/recorded_data/realrobot/wood/iteration_28/run_1.csv
timestamp, cmd_num, J1, J2, J3, J4, J5, J6
0.000376, -1, 11.3764, 13.6172, 17.3309, -145.52, -97.9272, 142.518
0.00293, -1, 11.3764, 13.6172, 17.3309, -145.52, -97.9272, 142.517
0.007902, -1, 11.3764, 13.6172, 17.3309, -145.52, -97.9272, 142.517
0.029059, -1, 11.3764, 13.6172, 17.3309, -145.52, -97.9273, 142.518
0.031761, -1, 11.3764, 13.6172, 17.3309, -145.52, -97.9273, 142.518
0.034514, -1, 11.3764, 13.6172, 17.3309, -145.52, -97.9273, 142.518
0.039566, -1, 11.3764, 13.6172, 17.3309, -145.52, -97.9273, 142.517
0.047648, -1, 11.3764, 13.6172, 17.3309, -145.52, -97.9273, 142.517
0.182511, -1, 10.3402, 13.3442, 17.3978, -145.842, -97.8171, 140.653
0.184626, -1, 10.2671, 13.3242, 17.4028, -145.866, -97.809, 140.516
0.185902, -1, 10.2671, 13.3242, 17.4028, -145.866, -97.809, 140.516
0.187666, -1, 10.1928, 13.3041, 17.4079, -145.89, -97.8008, 140.377
0.1891, -1, 10.1928, 13.3041, 17.4079, -145.89, -97.8008, 140.377
0.190348, -1, 10.1928, 13.3041, 17.4079, -145.89, -97.8008, 140.377
0.192448, -1, 10.1176, 13.2838, 17.4129, -145.914, -97.7925, 140.239
0.196168, -1, 10.0416, 13.2633, 17.4179, -145.937, -97.784, 140.1
0.197531, -1, 10.0416, 13.2633, 17.4179, -145.937, -97.784, 140.1
0.19874, -1, 10.0416, 13.2633, 17.4179, -145.937, -97.784, 140.1
0.20224, -1, 9.96507, 13.2427, 17.4229, -145.961, -97.7755, 139.96
0.204302, -1, 9.88789, 13.222, 17.428, -145.985, -97.7669, 139.821
0.205557, -1, 9.88789, 13.222, 17.428, -145.985, -97.7669, 139.821
0.206828, -1, 9.88789, 13.222, 17.428, -145.985, -97.7669, 139.821
0.208796, -1, 9.81032, 13.2013, 17.433, -146.009, -97.7582, 139.681
0.212058, -1, 9.73254, 13.1805, 17.438, -146.033, -97.7496, 139.541
0.213504, -1, 9.73254, 13.1805, 17.438, -146.033, -97.7496, 139.541
0.214776, -1, 9.73254, 13.1805, 17.438, -146.033, -97.7496, 139.541
0.216928, -1, 9.65476, 13.1598, 17.4431, -146.057, -97.741, 139.401
0.218185, -1, 9.65476, 13.1598, 17.4431, -146.057, -97.741, 139.401
0.220106, -1, 9.57707, 13.1391, 17.4482, -146.081, -97.7324, 139.262
0.225709, -1, 9.4995, 13.1185, 17.4532, -146.105, -97.7239, 139.122
0.232317, -1, 9.34471, 13.0773, 17.4631, -146.153, -97.7071, 138.842
0.24011, -1, 9.19034, 13.0362, 17.4731, -146.201, -97.6904, 138.563
0.248892, -1, 9.03644, 12.9951, 17.4832, -146.249, -97.6736, 138.283
0.256144, -1, 8.95955, 12.9745, 17.4933, -146.297, -97.6568, 138.003
0.264238, -1, 8.80581, 12.9335, 17.5035, -146.345, -97.6397, 137.723
0.272899, -1, 8.65251, 12.8924, 17.5086, -146.369, -97.631, 137.583
0.279553, -1, 8.49969, 12.8512, 17.5186, -146.417, -97.6135, 137.303
0.287549, -1, 8.34692, 12.81, 17.5288, -146.465, -97.596, 137.023
0.295619, -1, 8.19376, 12.7685, 17.5391, -146.513, -97.5789, 136.743
0.30355, -1, 8.04009, 12.7268, 17.5493, -146.561, -97.5619, 136.463
0.31155, -1, 7.88593, 12.6852, 17.5595, -146.609, -97.5452, 136.182
0.319599, -1, 7.73118, 12.6434, 17.5696, -146.656, -97.5286, 135.902
0.32755, -1, 7.57624, 12.6017, 17.5798, -146.704, -97.5119, 135.622
0.335556, -1, 7.42123, 12.5602, 17.59, -146.753, -97.4949, 135.342
0.34363, -1, 7.26625, 12.5186, 17.6002, -146.8, -97.4777, 135.061
0.351524, -1, 7.11127, 12.4771, 17.6105, -146.849, -97.4603, 134.781
0.359559, -1, 6.95613, 12.4357, 17.6208, -146.897, -97.4431, 134.501
0.367618, -1, 6.80106, 12.3944, 17.6311, -146.945, -97.4261, 134.22
0.375549, -1, 6.64622, 12.3531, 17.6416, -146.993, -97.4093, 133.94
0.383573, -1, 6.49155, 12.3118, 17.652, -147.041, -97.3925, 133.659
0.39254, -1, 6.33719, 12.2705, 17.6624, -147.089, -97.3757, 133.379
0.400586, -1, 6.18299, 12.229, 17.6728, -147.137, -97.3588, 133.098
0.407554, -1, 6.02869, 12.1875, 17.683, -147.186, -97.3416, 132.817
0.415613, -1, 5.87415, 12.1461, 17.6933, -147.233, -97.3241, 132.537
0.424542, -1, 5.71938, 12.1044, 17.7036, -147.281, -97.3064, 132.256
0.431708, -1, 5.56442, 12.0626, 17.7138, -147.33, -97.2892, 131.975
0.439518, -1, 5.40936, 12.021, 17.7241, -147.377, -97.2722, 131.694
0.447549, -1, 5.25402, 11.9793, 17.7345, -147.426, -97.2553, 131.413
0.455623, -1, 5.0984, 11.9376, 17.7448, -147.474, -97.2386, 131.132
0.46355, -1, 4.94264, 11.8959, 17.7553, -147.522, -97.2218, 130.851
0.47165, -1, 4.78694, 11.8543, 17.7658, -147.57, -97.2047, 130.57
0.479632, -1, 4.63117, 11.8127, 17.7762, -147.619, -97.1873, 130.289
0.487542, -1, 4.47544, 11.7712, 17.7867, -147.667, -97.1698, 130.008
0.495609, -1, 4.31993, 11.7297, 17.797, -147.715, -97.1525, 129.727
0.63784, -1, 1.67613, 11.0211, 17.9791, -148.56, -96.8526, 124.799
0.639913, -1, 1.51988, 10.9793, 17.9844, -148.585, -96.8441, 124.658
0.641198, -1, 1.51988, 10.9793, 17.9844, -148.585, -96.8441, 124.658
0.642517, -1, 1.51988, 10.9793, 17.9844, -148.585, -96.8441, 124.658
0.644544, -1, 1.4419, 10.9585, 17.9896, -148.609, -96.8357, 124.517
0.645731, -1, 1.4419, 10.9585, 17.9896, -148.609, -96.8357, 124.517
0.647688, -1, 1.36398, 10.9377, 17.9948, -148.633, -96.8272, 124.376
0.650573, -1, 1.36398, 10.9377, 17.9948, -148.633, -96.8272, 124.376
0.652651, -1, 1.28607, 10.9168, 18.0001, -148.657, -96.8187, 124.235
0.653855, -1, 1.28607, 10.9168, 18.0001, -148.657, -96.8187, 124.235
0.655946, -1, 1.20822, 10.896, 18.0053, -148.681, -96.8103, 124.094
0.65725, -1, 1.20822, 10.896, 18.0053, -148.681, -96.8103, 124.094
0.658507, -1, 1.20822, 10.896, 18.0053, -148.681, -96.8103, 124.094
0.662139, -1, 1.13048, 10.8751, 18.0105, -148.706, -96.8019, 123.953
0.664391, -1, 1.05286, 10.8542, 18.0156, -148.73, -96.7934, 123.812
0.668756, -1, 0.975299, 10.8333, 18.0208, -148.754, -96.7849, 123.67
0.669957, -1, 0.975299, 10.8333, 18.0208, -148.754, -96.7849, 123.67
0.672015, -1, 0.897767, 10.8124, 18.026, -148.779, -96.7763, 123.529
0.673314, -1, 0.897767, 10.8124, 18.026, -148.779, -96.7763, 123.529
0.674519, -1, 0.897767, 10.8124, 18.026, -148.779, -96.7763, 123.529
0.676655, -1, 0.820294, 10.7915, 18.0312, -148.803, -96.7677, 123.388
0.677889, -1, 0.820294, 10.7915, 18.0312, -148.803, -96.7677, 123.388
0.682555, -1, 0.742897, 10.7706, 18.0365, -148.827, -96.7589, 123.247
0.687818, -1, 0.588314, 10.7288, 18.0469, -148.876, -96.7413, 122.965
0.695872, -1, 0.433564, 10.687, 18.0573, -148.924, -96.7237, 122.682
0.703945, -1, 0.278446, 10.6452, 18.0677, -148.972, -96.7064, 122.399
0.712059, -1, 0.122815, 10.6032, 18.0781, -149.021, -96.6894, 122.116
0.720122, -1, -0.033142, 10.5614, 18.0887, -149.069, -96.6726, 121.834
0.728173, -1, -0.189477, 10.5195, 18.0992, -149.117, -96.6559, 121.551
0.736325, -1, -0.346102, 10.4777, 18.1097, -149.166, -96.639, 121.268
0.744192, -1, -0.503059, 10.4358, 18.1202, -149.215, -96.6219, 120.986
0.752197, -1, -0.660269, 10.3939, 18.1306, -149.263, -96.6046, 120.703
0.760295, -1, -0.73889, 10.373, 18.1411, -149.312, -96.5871, 120.42
0.768129, -1, -0.896335, 10.3311, 18.1463, -149.336, -96.5785, 120.137
0.776294, -1, -1.05365, 10.2893, 18.1566, -149.384, -96.5528, 119.854
0.783554, -1, -1.21084, 10.2474, 18.167, -149.433, -96.5443, 119.713
0.791616, -1, -1.36781, 10.2055, 18.1774, -149.482, -96.5275, 119.429
0.799542, -1, -1.52457, 10.1637, 18.1878, -149.53, -96.5107, 119.146
0.807551, -1, -1.68091, 10.1218, 18.1983, -149.579, -96.4938, 118.863
0.81564, -1, -1.83677, 10.0799, 18.2088, -149.628, -96.4766, 118.58
0.823532, -1, -1.99228, 10.0381, 18.2193, -149.676, -96.4591, 118.296
0.831608, -1, -2.14749, 9.99617, 18.2298, -149.725, -96.4414, 118.012
0.839587, -1, -2.30268, 9.95431, 18.2402, -149.774, -96.424, 117.729
0.847531, -1, -2.45805, 9.91238, 18.2506, -149.822, -96.4068, 117.445
0.855618, -1, -2.61372, 9.8704, 18.2611, -149.871, -96.3898, 117.161
0.863592, -1, -2.76979, 9.82843, 18.2714, -149.919, -96.3729, 116.877
0.87154, -1, -2.9262, 9.78647, 18.2819, -149.968, -96.3562, 116.594
0.879559, -1, -3.08298, 9.74448, 18.2922, -150.017, -96.3391, 116.31
0.887618, -1, -3.24013, 9.7025, 18.3026, -150.065, -96.3218, 116.026
0.895677, -1, -3.39777, 9.66046, 18.3132, -150.113, -96.3041, 115.743
0.903549, -1, -3.55558, 9.61843, 18.3237, -150.162, -96.2866, 115.459
0.911621, -1, -3.7134, 9.57651, 18.3341, -150.211, -96.2693, 115.175
0.920573, -1, -3.8714, 9.53451, 18.3445, -150.26, -96.2522, 114.89
0.92755, -1, -4.02937, 9.49246, 18.3549, -150.309, -96.2352, 114.606
0.935686, -1, -4.18719, 9.45051, 18.3653, -150.358, -96.2181, 114.322
0.943527, -1, -4.34494, 9.4085, 18.3757, -150.406, -96.201, 114.037
0.951559, -1, -4.50241, 9.36646, 18.386, -150.455, -96.1837, 113.752
0.959597, -1, -4.6594, 9.32441, 18.3964, -150.504, -96.1661, 113.468
0.967531, -1, -4.81587, 9.28235, 18.4068, -150.553, -96.1483, 113.183
0.975619, -1, -4.97221, 9.24022, 18.4173, -150.602, -96.1308, 112.898
0.98362, -1, -5.12826, 9.19817, 18.4279, -150.65, -96.1136, 112.613
0.991541, -1, -5.28413, 9.15607, 18.4385, -150.699, -96.0965, 112.329
0.99958, -1, -5.44009, 9.11389, 18.449, -150.748, -96.0796, 112.044
1.0076, -1, -5.59627, 9.07177, 18.4594, -150.797, -96.0627, 111.759
1.0156, -1, -5.75278, 9.02964, 18.4699, -150.845, -96.0455, 111.474
1.02383, -1, -5.90971, 8.9874, 18.4804, -150.895, -96.0281, 111.189
1.03154, -1, -6.06712, 8.9452, 18.4907, -150.943, -96.0104, 110.904
1.03954, -1, -6.2251, 8.90303, 18.5011, -150.992, -95.9929, 110.619
1.04832, -1, -6.38337, 8.86086, 18.5115, -151.041, -95.9755, 110.334
1.05561, -1, -6.54178, 8.81877, 18.5219, -151.09, -95.9585, 110.049
1.06359, -1, -6.70032, 8.7766, 18.5325, -151.139, -95.9415, 109.763
1.07233, -1, -6.85893, 8.73443, 18.543, -151.188, -95.9245, 109.478
1.07953, -1, -7.01751, 8.6923, 18.5535, -151.237, -95.9074, 109.192
1.08773, -1, -7.17602, 8.65014, 18.564, -151.286, -95.8899, 108.907
1.09645, -1, -7.33437, 8.60795, 18.5744, -151.335, -95.8722, 108.621
1.10365, -1, -7.49238, 8.56564, 18.5848, -151.384, -95.8545, 108.335
1.11194, -1, -7.65002, 8.52332, 18.5954, -151.433, -95.8369, 108.049
1.12043, -1, -7.80736, 8.48104, 18.6059, -151.483, -95.8197, 107.764
1.12765, -1, -7.96425, 8.43876, 18.6163, -151.531, -95.8026, 107.478
1.13616, -1, -8.12091, 8.39638, 18.6267, -151.58, -95.7857, 107.192
1.14498, -1, -8.27746, 8.35402, 18.6371, -151.63, -95.7688, 106.906
1.15155, -1, -8.43414, 8.31166, 18.6477, -151.678, -95.7515, 106.62
1.16036, -1, -8.59115, 8.26925, 18.6583, -151.727, -95.734, 106.334
1.16773, -1, -8.74849, 8.22696, 18.6688, -151.777, -95.7163, 106.047
1.17569, -1, -8.90618, 8.18464, 18.6792, -151.825, -95.6987, 105.761
1.18449, -1, -9.06429, 8.14227, 18.6896, -151.874, -95.6814, 105.475
1.19174, -1, -9.22281, 8.09999, 18.7001, -151.924, -95.6642, 105.189
1.19994, -1, -9.38168, 8.05765, 18.7106, -151.973, -95.6471, 104.902
1.20872, -1, -9.54079, 8.01526, 18.7211, -152.022, -95.63, 104.615
1.21597, -1, -9.69994, 7.97302, 18.7316, -152.072, -95.6127, 104.328
1.22409, -1, -9.8592, 7.93078, 18.7421, -152.12, -95.5951, 104.041
1.2329, -1, -10.0186, 7.88839, 18.7527, -152.17, -95.5772, 103.754
1.24009, -1, -10.1778, 7.84594, 18.7634, -152.219, -95.5594, 103.467
1.24829, -1, -10.3369, 7.80342, 18.774, -152.268, -95.5419, 103.181
1.25695, -1, -10.4958, 7.7609, 18.7846, -152.318, -95.5246, 102.894
1.26411, -1, -10.575, 7.73967, 18.7898, -152.367, -95.5076, 102.606
1.27226, -1, -10.7334, 7.69718, 18.8002, -152.416, -95.4906, 102.32
1.27952, -1, -10.8914, 7.6546, 18.8108, -152.441, -95.482, 102.176
1.28752, -1, -11.0492, 7.61199, 18.8213, -152.491, -95.4648, 101.889
1.29566, -1, -11.2067, 7.5695, 18.8317, -152.54, -95.4473, 101.601
1.30359, -1, -11.364, 7.52701, 18.8423, -152.589, -95.4294, 101.314
1.31152, -1, -11.5215, 7.48451, 18.8528, -152.639, -95.4117, 101.027
1.31957, -1, -11.6792, 7.44203, 18.8633, -152.687, -95.3942, 100.739
1.32752, -1, -11.8373, 7.3996, 18.874, -152.737, -95.3769, 100.451
1.33567, -1, -11.9959, 7.35715, 18.8846, -152.786, -95.3597, 100.164
1.34351, -1, -12.1548, 7.31474, 18.8952, -152.836, -95.3424, 99.8758
1.35152, -1, -12.3142, 7.2723, 18.9057, -152.885, -95.3252, 99.5878
1.3596, -1, -12.4739, 7.22982, 18.9162, -152.935, -95.3076, 99.2995
1.36909, -1, -12.7137, 7.16618, 18.9321, -153.009, -95.2807, 98.8678
1.37557, -1, -12.7938, 7.14495, 18.9373, -153.034, -95.2717, 98.7238
1.38358, -1, -12.9539, 7.10242, 18.9479, -153.083, -95.2539, 98.4357
1.39154, -1, -13.114, 7.05982, 18.9585, -153.132, -95.2364, 98.1475
1.39952, -1, -13.2739, 7.01721, 18.969, -153.182, -95.2191, 97.8594
1.40758, -1, -13.4336, 6.97456, 18.9797, -153.231, -95.202, 97.5712
1.41656, -1, -13.5928, 6.9318, 18.9903, -153.281, -95.1849, 97.2825
1.42352, -1, -13.752, 6.88906, 19.0009, -153.33, -95.1675, 96.9938
1.43158, -1, -13.9108, 6.84635, 19.0114, -153.38, -95.1499, 96.7054
1.43964, -1, -14.0691, 6.80364, 19.0218, -153.429, -95.132, 96.4168
1.44752, -1, -14.2273, 6.761, 19.0324, -153.479, -95.1143, 96.1279
1.45564, -1, -14.3855, 6.7183, 19.043, -153.528, -95.0968, 95.8387
1.46352, -1, -14.5438, 6.67557, 19.0535, -153.577, -95.0795, 95.5499
1.47151, -1, -14.7024, 6.63298, 19.0641, -153.627, -95.0623, 95.2606
1.4796, -1, -14.8614, 6.59042, 19.0746, -153.677, -95.0451, 94.9711
1.48754, -1, -15.0208, 6.54771, 19.0854, -153.726, -95.0277, 94.6821
1.49564, -1, -15.1805, 6.50512, 19.0962, -153.776, -95.01, 94.3931
1.50356, -1, -15.3406, 6.46252, 19.1069, -153.825, -94.992, 94.1039
1.51151, -1, -15.5011, 6.41982, 19.1176, -153.875, -94.974, 93.8144
1.5196, -1, -15.6618, 6.37711, 19.1281, -153.925, -94.9564, 93.5251
1.52751, -1, -15.8225, 6.33435, 19.1387, -153.974, -94.939, 93.2358
1.53557, -1, -15.9833, 6.29144, 19.1494, -154.024, -94.9218, 92.9462
1.54358, -1, -16.1442, 6.24862, 19.16, -154.074, -94.9047, 92.6563
1.55152, -1, -16.3049, 6.20573, 19.1706, -154.123, -94.8874, 92.3668
1.55955, -1, -16.4655, 6.16271, 19.1811, -154.173, -94.8699, 92.0772
1.56759, -1, -16.6258, 6.11973, 19.1916, -154.223, -94.8521, 91.7871
1.57557, -1, -16.7857, 6.07678, 19.2023, -154.272, -94.8341, 91.4971
1.58352, -1, -16.9451, 6.03378, 19.213, -154.322, -94.8165, 91.207
1.59161, -1, -17.1044, 5.9908, 19.2236, -154.372, -94.799, 90.9169
1.59959, -1, -17.2635, 5.94785, 19.2342, -154.421, -94.7815, 90.6265
1.60767, -1, -17.4226, 5.905, 19.2449, -154.471, -94.7643, 90.3362
1.61569, -1, -17.5819, 5.86214, 19.2556, -154.521, -94.747, 90.0462
1.62362, -1, -17.7412, 5.8193, 19.2663, -154.571, -94.7294, 89.756
1.63169, -1, -17.9008, 5.77652, 19.277, -154.621, -94.7114, 89.4655
1.63963, -1, -18.0609, 5.7337, 19.2876, -154.671, -94.6933, 89.1748
1.64752, -1, -18.2213, 5.69093, 19.2982, -154.72, -94.6754, 88.8845
1.65577, -1, -18.3822, 5.64813, 19.309, -154.771, -94.6578, 88.5937
1.66355, -1, -18.5437, 5.60516, 19.3197, -154.82, -94.6404, 88.3026
1.67162, -1, -18.7052, 5.56221, 19.3304, -154.87, -94.6231, 88.0118
1.67977, -1, -18.8668, 5.51923, 19.3411, -154.921, -94.6058, 87.7208
1.68767, -1, -19.0286, 5.47615, 19.3517, -154.97, -94.5882, 87.4296
1.6958, -1, -19.1901, 5.43298, 19.3623, -155.02, -94.5704, 87.1381
1.70397, -1, -19.3516, 5.38985, 19.373, -155.07, -94.5523, 86.8467
1.71186, -1, -19.5129, 5.34668, 19.3835, -155.12, -94.5343, 86.5551
1.71994, -1, -19.6738, 5.30345, 19.3942, -155.17, -94.5165, 86.2634
1.72809, -1, -19.8345, 5.26031, 19.4049, -155.22, -94.4989, 85.9715
1.73622, -1, -19.995, 5.21713, 19.4156, -155.27, -94.4815, 85.6801
1.74416, -1, -20.155, 5.17399, 19.4264, -155.32, -94.4642, 85.3886
1.75295, -1, -20.3147, 5.13104, 19.4373, -155.37, -94.4467, 85.0969
1.76008, -1, -20.3946, 5.08801, 19.4481, -155.42, -94.4288, 84.8049
1.76814, -1, -20.5547, 5.06644, 19.4589, -155.47, -94.4106, 84.5133
1.77711, -1, -20.7148, 5.02345, 19.4696, -155.521, -94.3927, 84.2215
1.78351, -1, -20.8753, 4.98053, 19.4749, -155.545, -94.3837, 84.0754
1.79156, -1, -21.0362, 4.93746, 19.4856, -155.595, -94.3661, 83.7831
1.79961, -1, -21.1974, 4.89438, 19.4963, -155.646, -94.3487, 83.4912
1.80751, -1, -21.3593, 4.85127, 19.507, -155.696, -94.3315, 83.1992
1.81562, -1, -21.5214, 4.80801, 19.5176, -155.746, -94.3142, 82.9067
1.82351, -1, -21.6835, 4.76478, 19.5284, -155.797, -94.2967, 82.6141
1.83156, -1, -21.8459, 4.72152, 19.5392, -155.846, -94.2788, 82.3215
1.83954, -1, -22.0083, 4.67812, 19.55, -155.897, -94.2608, 82.0288
1.84751, -1, -22.1709, 4.63478, 19.5608, -155.947, -94.2429, 81.7359
1.85562, -1, -22.3333, 4.5914, 19.5714, -155.997, -94.2252, 81.443
1.86354, -1, -22.4956, 4.54798, 19.5821, -156.048, -94.2077, 81.1505
1.8715, -1, -22.6574, 4.50459, 19.5928, -156.098, -94.1901, 80.8576
1.87957, -1, -22.8189, 4.46115, 19.6035, -156.148, -94.1727, 80.5645
1.8875, -1, -22.9801, 4.41778, 19.6143, -156.198, -94.155, 80.2714
1.8956, -1, -23.1413, 4.37448, 19.625, -156.249, -94.137, 79.9786
1.90357, -1, -23.3022, 4.33113, 19.6357, -156.299, -94.1187, 79.6851
1.91254, -1, -23.463, 4.28787, 19.6466, -156.349, -94.1005, 79.3916
1.91952, -1, -23.624, 4.24459, 19.6575, -156.4, -94.0826, 79.0983
1.92759, -1, -23.7852, 4.2013, 19.6683, -156.45, -94.0649, 78.8051
1.93557, -1, -23.9465, 4.15802, 19.679, -156.501, -94.0475, 78.5114
1.94355, -1, -24.1081, 4.11462, 19.6897, -156.551, -94.03, 78.2176
1.95151, -1, -24.2703, 4.07121, 19.7005, -156.601, -94.0125, 77.9238
1.95951, -1, -24.4329, 4.02778, 19.7112, -156.652, -93.9946, 77.6299
1.96758, -1, -24.5959, 3.98426, 19.7219, -156.702, -93.9765, 77.3356
1.97556, -1, -24.7591, 3.94068, 19.7326, -156.752, -93.9584, 77.0414
1.9835, -1, -24.9225, 3.89715, 19.7433, -156.803, -93.9406, 76.7474
1.99186, -1, -25.0859, 3.8536, 19.7543, -156.853, -93.9229, 76.4532
1.9995, -1, -25.2491, 3.81004, 19.7652, -156.903, -93.9054, 76.1589
2.00754, -1, -25.4123, 3.76643, 19.7761, -156.954, -93.888, 75.8644
2.01637, -1, -25.5751, 3.72275, 19.7868, -157.004, -93.8703, 75.5702
2.0235, -1, -25.7378, 3.67911, 19.7975, -157.055, -93.8523, 75.2757
2.03152, -1, -25.9003, 3.63562, 19.8083, -157.106, -93.834, 74.9807
2.0403, -1, -26.0625, 3.59205, 19.8191, -157.156, -93.8156, 74.6861
2.0475, -1, -26.2243, 3.54858, 19.8299, -157.206, -93.7975, 74.3916
2.05557, -1, -26.3858, 3.5052, 19.8407, -157.257, -93.7797, 74.0968
2.06432, -1, -26.5475, 3.4617, 19.8515, -157.307, -93.762, 73.8015
2.07151, -1, -26.7094, 3.41819, 19.8623, -157.358, -93.7444, 73.5064
2.07957, -1, -26.8716, 3.37471, 19.8732, -157.409, -93.7267, 73.2112
2.08982, -1, -27.0342, 3.3311, 19.884, -157.459, -93.7087, 72.9158
2.09565, -1, -27.1971, 3.28749, 19.8949, -157.51, -93.6905, 72.6203
2.10358, -1, -27.3603, 3.24388, 19.9056, -157.561, -93.6722, 72.3252
2.1117, -1, -27.524, 3.20006, 19.9164, -157.611, -93.6541, 72.0297
2.11967, -1, -27.6879, 3.15633, 19.9272, -157.662, -93.6362, 71.734
2.1276, -1, -27.8519, 3.11271, 19.938, -157.712, -93.6185, 71.4384
2.13565, -1, -28.0161, 3.06895, 19.9488, -157.763, -93.6008, 71.1428
2.14367, -1, -28.1803, 3.0252, 19.9595, -157.814, -93.583, 70.847
2.15151, -1, -28.3446, 2.98147, 19.9704, -157.865, -93.565, 70.5507
2.15953, -1, -28.5086, 2.93771, 19.9813, -157.915, -93.5466, 70.2548
2.16786, -1, -28.6724, 2.89403, 19.9922, -157.967, -93.5281, 69.9589
2.17564, -1, -28.8359, 2.85026, 20.003, -158.017, -93.5099, 69.6628
2.18364, -1, -28.999, 2.8065, 20.0138, -158.068, -93.492, 69.3662
2.19179, -1, -29.1617, 2.76283, 20.0246, -158.119, -93.4743, 69.0698
2.19972, -1, -29.3244, 2.71912, 20.0354, -158.17, -93.4566, 68.7731
2.20782, -1, -29.4871, 2.6754, 20.0463, -158.221, -93.4389, 68.4763
2.21633, -1, -29.6499, 2.6316, 20.0571, -158.272, -93.4209, 68.1793
2.22392, -1, -29.813, 2.58775, 20.0679, -158.323, -93.4025, 67.8827
2.23259, -1, -29.976, 2.54396, 20.0789, -158.374, -93.3841, 67.5859
2.24012, -1, -30.1393, 2.50001, 20.0899, -158.425, -93.3658, 67.2889
2.24808, -1, -30.3032, 2.45598, 20.1009, -158.475, -93.3478, 66.9918
2.25604, -1, -30.4675, 2.41202, 20.1118, -158.527, -93.33, 66.6949
2.26429, -1, -30.6322, 2.36794, 20.1227, -158.577, -93.3123, 66.3977
2.27203, -1, -30.7147, 2.34589, 20.1281, -158.602, -93.3035, 66.1002
2.28003, -1, -30.8798, 2.3019, 20.139, -158.654, -93.2855, 65.9515
2.28755, -1, -31.0449, 2.25784, 20.1499, -158.705, -93.2673, 65.6544
2.29549, -1, -31.21, 2.21375, 20.1607, -158.756, -93.2488, 65.3571
2.3036, -1, -31.375, 2.16983, 20.1716, -158.807, -93.2303, 65.0594
2.31161, -1, -31.5398, 2.12582, 20.1824, -158.858, -93.2121, 64.7615
2.31949, -1, -31.7043, 2.08174, 20.1933, -158.909, -93.1942, 64.4639
2.32751, -1, -31.8688, 2.03775, 20.2043, -158.961, -93.1766, 64.1659
2.33553, -1, -32.0328, 1.99375, 20.2153, -159.011, -93.159, 63.8676
2.34353, -1, -32.1966, 1.94968, 20.2263, -159.063, -93.1412, 63.5696
2.3515, -1, -32.3601, 1.90562, 20.2372, -159.114, -93.1232, 63.2718
2.35949, -1, -32.5236, 1.86151, 20.2481, -159.165, -93.1049, 62.9737
2.36753, -1, -32.6875, 1.81733, 20.2591, -159.217, -93.0865, 62.6753
2.37554, -1, -32.8514, 1.77324, 20.27, -159.268, -93.0684, 62.377
2.38349, -1, -33.0156, 1.72901, 20.281, -159.319, -93.0505, 62.0786
2.39149, -1, -33.1801, 1.68475, 20.2919, -159.37, -93.0327, 61.7799
2.40098, -1, -33.3449, 1.64055, 20.3028, -159.421, -93.0149, 61.4811
2.40749, -1, -33.5101, 1.59627, 20.3138, -159.472, -92.9969, 61.1826
2.41648, -1, -33.6758, 1.55197, 20.3248, -159.524, -92.9787, 60.8839
2.42355, -1, -33.8416, 1.50772, 20.3357, -159.575, -92.96, 60.5848
2.43149, -1, -34.0075, 1.46348, 20.3466, -159.626, -92.9414, 60.2857
2.43956, -1, -34.1735, 1.41929, 20.3576, -159.678, -92.923, 59.9866
2.4476, -1, -34.3396, 1.37507, 20.3686, -159.729, -92.905, 59.687
2.45548, -1, -34.5056, 1.33084, 20.3795, -159.781, -92.8871, 59.3873
2.46349, -1, -34.6713, 1.28664, 20.3905, -159.832, -92.8693, 59.0879
2.47156, -1, -34.8366, 1.24241, 20.4014, -159.883, -92.8514, 58.7888
2.47949, -1, -35.0016, 1.19814, 20.4124, -159.935, -92.8332, 58.4892
2.4875, -1, -35.1663, 1.15385, 20.4236, -159.986, -92.8147, 58.1893
2.4956, -1, -35.3309, 1.10953, 20.4346, -160.037, -92.7961, 57.8896
2.50349, -1, -35.4948, 1.06532, 20.4458, -160.089, -92.7778, 57.5898
2.51153, -1, -35.6572, 1.02149, 20.4571, -160.14, -92.7597, 57.29
2.51955, -1, -35.8166, 0.978273, 20.4686, -160.191, -92.7418, 56.9914
2.52749, -1, -35.9722, 0.936173, 20.4806, -160.242, -92.724, 56.6962
2.53549, -1, -36.1225, 0.895706, 20.4925, -160.291, -92.7065, 56.4071
2.54356, -1, -36.2653, 0.857492, 20.5044, -160.338, -92.6893, 56.1281
2.55149, -1, -36.3983, 0.822202, 20.516, -160.383, -92.6728, 55.8657
2.55949, -1, -36.5202, 0.789934, 20.5267, -160.424, -92.6576, 55.6259
2.56759, -1, -36.6292, 0.761088, 20.536, -160.46, -92.6444, 55.4144
2.57549, -1, -36.7239, 0.736018, 20.5433, -160.49, -92.6335, 55.2361
2.58349, -1, -36.8039, 0.7148, 20.5484, -160.514, -92.6248, 55.093
2.59156, -1, -36.8701, 0.697389, 20.5513, -160.533, -92.6183, 54.9846
2.59952, -1, -36.9232, 0.68338, 20.5526, -160.546, -92.6138, 54.908
2.60758, -1, -36.9637, 0.672515, 20.553, -160.555, -92.611, 54.8565
2.61577, -1, -36.9932, 0.664793, 20.5527, -160.561, -92.6093, 54.8251
2.62359, -1, -37.0135, 0.659763, 20.5523, -160.564, -92.6084, 54.8073
2.63159, -1, -37.0259, 0.656776, 20.552, -160.566, -92.6079, 54.7983
2.63962, 2, -37.0325, 0.655198, 20.5518, -160.567, -92.6076, 54.794
2.6476, 2, -37.0347, 0.65449, 20.5517, -160.567, -92.6076, 54.792
2.65549, 2, -37.0345, 0.654203, 20.5517, -160.568, -92.6075, 54.7911
2.66358, 2, -37.0338, 0.654089, 20.5516, -160.568, -92.6076, 54.7906
2.67154, 2, -37.0336, 0.654057, 20.5516, -160.568, -92.6076, 54.7905
2.67961, 2, -37.034, 0.654009, 20.5516, -160.568, -92.6076, 54.7905
2.68772, 2, -37.035, 0.65397, 20.5515, -160.568, -92.6075, 54.7905
2.6957, 2, -37.0361, 0.653874, 20.5514, -160.568, -92.6076, 54.7905
2.70406, 2, -37.0376, 0.653671, 20.5512, -160.568, -92.6076, 54.7905
2.71189, 2, -37.039, 0.653422, 20.551, -160.568, -92.6076, 54.7905
2.71989, 2, -37.0402, 0.653175, 20.5508, -160.568, -92.6077, 54.7906
2.72824, 2, -37.0412, 0.652964, 20.5506, -160.568, -92.6077, 54.7907
2.73608, 2, -37.0416, 0.652859, 20.5504, -160.568, -92.6078, 54.7908
2.74405, 2, -37.0416, 0.652817, 20.5502, -160.568, -92.6078, 54.7909
2.75237, 2, -37.0412, 0.652828, 20.5501, -160.568, -92.6078, 54.791
2.7601, 2, -37.0403, 0.65286, 20.5501, -160.568, -92.6079, 54.791
2.7681, 2, -37.0398, 0.65289, 20.55, -160.568, -92.608, 54.7912
2.77628, 2, -37.0377, 0.653032, 20.5499, -160.568, -92.608, 54.7914
2.7841, 2, -37.037, 0.653083, 20.5499, -160.568, -92.608, 54.7915
2.79147, 2, -37.0357, 0.653141, 20.5498, -160.568, -92.6081, 54.7916
2.80031, 2, -37.0348, 0.653167, 20.5497, -160.567, -92.608, 54.7917
2.80753, 2, -37.0344, 0.65315, 20.5497, -160.567, -92.608, 54.7917
2.81548, 2, -37.0343, 0.653128, 20.5497, -160.567, -92.608, 54.7918
2.82347, 2, -37.0345, 0.653082, 20.5497, -160.567, -92.6081, 54.7917
2.83152, 2, -37.0347, 0.653, 20.5496, -160.567, -92.6081, 54.7918
2.83947, 2, -37.0351, 0.652969, 20.5496, -160.567, -92.6081, 54.7919
2.84753, 2, -37.0358, 0.652929, 20.5496, -160.567, -92.608, 54.7919
2.85552, 2, -37.0366, 0.652899, 20.5496, -160.567, -92.608, 54.7919
2.86347, 2, -37.0373, 0.652897, 20.5496, -160.567, -92.6081, 54.792
2.87147, 2, -37.0378, 0.652915, 20.5496, -160.567, -92.6081, 54.7921
2.87954, 2, -37.0381, 0.652941, 20.5496, -160.567, -92.6081, 54.7921
2.88748, 2, -37.0381, 0.652989, 20.5496, -160.567, -92.6082, 54.7921
2.89547, 2, -37.0381, 0.653007, 20.5496, -160.567, -92.6082, 54.7921
2.90356, 2, -37.038, 0.653019, 20.5496, -160.567, -92.6081, 54.7922
2.91252, 2, -37.0375, 0.653021, 20.5496, -160.567, -92.6081, 54.7922
2.91953, 2, -37.0372, 0.653002, 20.5495, -160.567, -92.6081, 54.7923
2.92754, 2, -37.037, 0.652999, 20.5495, -160.567, -92.6081, 54.7924
2.93548, 2, -37.0368, 0.652961, 20.5495, -160.567, -92.6081, 54.7924
2.94348, 2, -37.0367, 0.652952, 20.5495, -160.567, -92.6081, 54.7924
2.95157, 2, -37.0367, 0.65294, 20.5495, -160.567, -92.6082, 54.7924
2.95947, 2, -37.0368, 0.652934, 20.5495, -160.567, -92.6082, 54.7925
2.96748, 2, -37.0369, 0.65295, 20.5495, -160.567, -92.6081, 54.7926
2.97554, 2, -37.0369, 0.652951, 20.5494, -160.567, -92.6081, 54.7926
2.98347, 2, -37.0371, 0.652975, 20.5494, -160.567, -92.6082, 54.7926
2.99147, 2, -37.0373, 0.652976, 20.5494, -160.567, -92.6082, 54.7927
2.99954, 2, -37.0374, 0.652994, 20.5494, -160.567, -92.6082, 54.7928
3.00748, 2, -37.0375, 0.653002, 20.5494, -160.567, -92.6082, 54.7929
3.01551, 2, -37.0375, 0.653006, 20.5494, -160.567, -92.6082, 54.7929
3.02354, 2, -37.0375, 0.652995, 20.5494, -160.567, -92.6082, 54.793
3.03147, 2, -37.0375, 0.652972, 20.5494, -160.567, -92.6082, 54.793
3.03947, 2, -37.0375, 0.652985, 20.5494, -160.567, -92.6083, 54.7931
3.04754, 2, -37.0375, 0.652973, 20.5494, -160.567, -92.6083, 54.7931
3.05546, 2, -37.0374, 0.652957, 20.5494, -160.567, -92.6083, 54.7932
3.06347, 2, -37.0374, 0.652953, 20.5493, -160.567, -92.6084, 54.7932
3.07156, 2, -37.0374, 0.652941, 20.5493, -160.567, -92.6083, 54.7932
3.07947, 2, -37.0374, 0.652953, 20.5493, -160.567, -92.6083, 54.7932
3.0875, 2, -37.0374, 0.652959, 20.5493, -160.567, -92.6083, 54.7933
3.09555, 2, -37.0374, 0.652969, 20.5493, -160.567, -92.6083, 54.7933
3.10352, 2, -37.0374, 0.653001, 20.5493, -160.567, -92.6084, 54.7934
3.11155, 2, -37.0374, 0.653013, 20.5493, -160.567, -92.6083, 54.7935
3.11966, 2, -37.0373, 0.652999, 20.5493, -160.567, -92.6083, 54.7935
3.12758, 2, -37.0373, 0.652985, 20.5493, -160.567, -92.6083, 54.7935
3.13557, 2, -37.0373, 0.652986, 20.5493, -160.567, -92.6084, 54.7935
3.14371, 2, -37.0373, 0.652986, 20.5493, -160.567, -92.6084, 54.7936
3.15153, 2, -37.0373, 0.652974, 20.5493, -160.567, -92.6084, 54.7937
3.15948, 2, -37.0373, 0.652968, 20.5492, -160.567, -92.6084, 54.7937
3.16758, 2, -37.0373, 0.652966, 20.5492, -160.567, -92.6084, 54.7937
3.1755, 2, -37.0372, 0.652954, 20.5492, -160.567, -92.6084, 54.7938
3.18385, 2, -37.0373, 0.652952, 20.5492, -160.567, -92.6084, 54.7938
3.19175, 2, -37.0373, 0.652965, 20.5492, -160.567, -92.6084, 54.7939
3.19967, 2, -37.0373, 0.652977, 20.5492, -160.567, -92.6084, 54.7939
3.20772, 2, -37.0372, 0.652994, 20.5492, -160.567, -92.6084, 54.794
3.21594, 2, -37.0373, 0.653002, 20.5492, -160.567, -92.6084, 54.794
3.22385, 2, -37.0372, 0.653006, 20.5492, -160.567, -92.6084, 54.794
3.23254, 2, -37.0372, 0.653, 20.5492, -160.567, -92.6084, 54.794
3.24015, 2, -37.0372, 0.653018, 20.5492, -160.567, -92.6085, 54.794
3.24799, 2, -37.0372, 0.653006, 20.5492, -160.567, -92.6085, 54.7941
3.25604, 2, -37.0372, 0.653003, 20.5492, -160.567, -92.6084, 54.7942
3.26417, 2, -37.0372, 0.652994, 20.5491, -160.567, -92.6085, 54.7942
3.27199, 2, -37.0372, 0.652999, 20.5491, -160.567, -92.6084, 54.7943
3.28018, 2, -37.0371, 0.653004, 20.5491, -160.567, -92.6084, 54.7943
3.28824, 2, -37.0371, 0.652995, 20.5491, -160.567, -92.6085, 54.7943
3.29546, 2, -37.0371, 0.652983, 20.5491, -160.567, -92.6084, 54.7943
3.30346, 2, -37.0371, 0.652992, 20.5491, -160.567, -92.6084, 54.7943
3.31151, 2, -37.0371, 0.653019, 20.5491, -160.567, -92.6084, 54.7943
3.31947, 2, -37.0371, 0.653002, 20.5491, -160.567, -92.6084, 54.7943
3.32746, 2, -37.0371, 0.653017, 20.549, -160.567, -92.6085, 54.7944
3.33551, 2, -37.0371, 0.65302, 20.5491, -160.567, -92.6084, 54.7944
3.34346, 2, -37.037, 0.653014, 20.5491, -160.567, -92.6084, 54.7945
3.3515, 2, -37.037, 0.653011, 20.549, -160.567, -92.6085, 54.7945
3.36099, 2, -37.037, 0.652997, 20.549, -160.567, -92.6085, 54.7945
3.369, 2, -37.037, 0.653015, 20.549, -160.567, -92.6085, 54.7945
3.37555, 2, -37.037, 0.653024, 20.549, -160.567, -92.6085, 54.7945
3.38351, 2, -37.037, 0.653003, 20.549, -160.567, -92.6085, 54.7945
3.39146, 2, -37.037, 0.652994, 20.549, -160.567, -92.6085, 54.7945
3.39947, 2, -37.037, 0.653002, 20.5489, -160.567, -92.6085, 54.7945
3.40755, 2, -37.037, 0.653006, 20.5489, -160.567, -92.6085, 54.7946
3.4165, 2, -37.0369, 0.653026, 20.5489, -160.567, -92.6085, 54.7947
3.42346, 2, -37.0369, 0.653017, 20.5489, -160.567, -92.6085, 54.7947
3.43152, 2, -37.0368, 0.653031, 20.5489, -160.567, -92.6086, 54.7947
3.43956, 2, -37.0368, 0.653037, 20.5489, -160.567, -92.6085, 54.7946
3.44746, 2, -37.0368, 0.653022, 20.5489, -160.567, -92.6085, 54.7947
3.45555, 2, -37.0368, 0.653026, 20.5489, -160.567, -92.6085, 54.7947
3.46346, 2, -37.0368, 0.653024, 20.5489, -160.567, -92.6085, 54.7947
3.47146, 2, -37.0368, 0.653016, 20.5489, -160.567, -92.6085, 54.7948
3.47954, 2, -37.0368, 0.653012, 20.5489, -160.567, -92.6085, 54.7948
3.48746, 2, -37.0368, 0.65301, 20.5489, -160.567, -92.6085, 54.7948
3.49546, 2, -37.0368, 0.652997, 20.5488, -160.566, -92.6085, 54.7948
3.50353, 2, -37.0368, 0.653004, 20.5488, -160.566, -92.6085, 54.7948
3.51145, 2, -37.0367, 0.653006, 20.5488, -160.566, -92.6085, 54.7948
3.51951, 2, -37.0367, 0.653019, 20.5488, -160.566, -92.6085, 54.7948
3.52753, 2, -37.0368, 0.653021, 20.5488, -160.566, -92.6086, 54.7949
3.53546, 2, -37.0367, 0.653033, 20.5488, -160.566, -92.6086, 54.795
3.54346, 2, -37.0367, 0.653038, 20.5488, -160.566, -92.6086, 54.795
3.55152, 2, -37.0367, 0.653052, 20.5488, -160.566, -92.6086, 54.795
3.55947, 2, -37.0367, 0.653036, 20.5488, -160.566, -92.6086, 54.795
3.56746, 2, -37.0367, 0.653051, 20.5488, -160.566, -92.6086, 54.795
3.57555, 2, -37.0367, 0.653036, 20.5488, -160.566, -92.6086, 54.795
3.58345, 2, -37.0367, 0.65304, 20.5488, -160.566, -92.6086, 54.795
3.59146, 2, -37.0367, 0.653041, 20.5488, -160.566, -92.6086, 54.795
3.59956, 2, -37.0366, 0.653024, 20.5487, -160.566, -92.6086, 54.795
3.60751, 2, -37.0366, 0.653016, 20.5487, -160.566, -92.6086, 54.795
3.61554, 2, -37.0366, 0.653041, 20.5487, -160.566, -92.6086, 54.7951
3.62365, 2, -37.0366, 0.653061, 20.5487, -160.566, -92.6086, 54.7951
3.63156, 2, -37.0366, 0.653069, 20.5487, -160.566, -92.6086, 54.7951
3.63968, 2, -37.0366, 0.653073, 20.5487, -160.566, -92.6087, 54.7951
3.64843, 2, -37.0366, 0.653075, 20.5487, -160.566, -92.6086, 54.7951
3.65546, 2, -37.0366, 0.653065, 20.5487, -160.566, -92.6086, 54.7951
3.66346, 2, -37.0366, 0.653064, 20.5487, -160.566, -92.6086, 54.7951
3.67155, 2, -37.0365, 0.653071, 20.5487, -160.566, -92.6086, 54.7951
3.67993, 2, -37.0365, 0.653074, 20.5486, -160.566, -92.6086, 54.7951
3.68761, 2, -37.0365, 0.653076, 20.5486, -160.566, -92.6086, 54.7951
3.69568, 2, -37.0366, 0.653058, 20.5486, -160.566, -92.6085, 54.7951
3.70392, 4, -37.0366, 0.653068, 20.5486, -160.566, -92.6086, 54.7951
3.71245, 4, -37.0365, 0.653054, 20.5486, -160.566, -92.6086, 54.7951
3.71987, 4, -37.0365, 0.653067, 20.5486, -160.566, -92.6086, 54.7951
3.72797, 4, -37.0364, 0.653072, 20.5486, -160.566, -92.6086, 54.7951
3.73593, 4, -37.0364, 0.653075, 20.5486, -160.566, -92.6086, 54.7951
3.74403, 4, -37.0364, 0.653076, 20.5486, -160.566, -92.6087, 54.7952
3.75206, 4, -37.0364, 0.653076, 20.5486, -160.566, -92.6086, 54.7952
3.76009, 4, -37.0365, 0.653077, 20.5486, -160.566, -92.6086, 54.7951
3.76806, 4, -37.0365, 0.653077, 20.5485, -160.566, -92.6086, 54.7951
3.77609, 4, -37.0365, 0.653077, 20.5485, -160.566, -92.6087, 54.7951
3.78344, 4, -37.0365, 0.653077, 20.5485, -160.566, -92.6086, 54.7951
3.79204, 4, -37.0364, 0.653077, 20.5485, -160.566, -92.6087, 54.7951
3.79946, 4, -37.0364, 0.653077, 20.5485, -160.566, -92.6086, 54.7951
3.8076, 4, -37.0364, 0.653077, 20.5485, -160.566, -92.6086, 54.7951
3.8312, 4, -37.0364, 0.653077, 20.5485, -160.566, -92.6087, 54.7952
3.83391, 4, -37.0364, 0.653077, 20.5485, -160.566, -92.6087, 54.7952
3.83575, 4, -37.0364, 0.653077, 20.5485, -160.566, -92.6087, 54.7952
3.84263, 4, -37.0364, 0.653077, 20.5485, -160.566, -92.6087, 54.7952
3.85018, 4, -37.0363, 0.653066, 20.5485, -160.566, -92.6087, 54.7952
3.85554, 4, -37.0361, 0.653029, 20.5485, -160.566, -92.6087, 54.7952
3.86344, 4, -37.0346, 0.652624, 20.5485, -160.566, -92.6087, 54.7952
3.87145, 4, -37.0306, 0.650903, 20.5489, -160.566, -92.6087, 54.7952
3.88233, 4, -37.0177, 0.643279, 20.552, -160.566, -92.6087, 54.7952
3.88744, 4, -37.0114, 0.638971, 20.5543, -160.566, -92.6087, 54.7952
3.89553, 4, -36.9957, 0.627442, 20.5617, -160.564, -92.6087, 54.7952
3.9036, 5, -36.9747, 0.611408, 20.5742, -160.562, -92.6086, 54.7951
3.91346, 5, -36.9328, 0.579087, 20.6047, -160.556, -92.6084, 54.7951
3.91944, 5, -36.9163, 0.566005, 20.6183, -160.553, -92.6083, 54.7951
3.92843, 5, -36.88, 0.536548, 20.6505, -160.546, -92.6077, 54.795
3.93552, 5, -36.8388, 0.502542, 20.6892, -160.538, -92.6067, 54.7949
3.94345, 5, -36.7923, 0.463735, 20.7332, -160.528, -92.6054, 54.7949
3.95168, 5, -36.7408, 0.42067, 20.7818, -160.517, -92.6038, 54.795
3.95946, 5, -36.6845, 0.373912, 20.8334, -160.505, -92.602, 54.7951
3.96752, 5, -36.6242, 0.324391, 20.8871, -160.493, -92.6002, 54.7951
3.97561, 5, -36.5602, 0.272727, 20.9421, -160.481, -92.5983, 54.7951
3.98472, 5, -36.4935, 0.219699, 20.9976, -160.468, -92.5964, 54.7951
3.99146, 5, -36.4257, 0.166062, 21.0531, -160.456, -92.5945, 54.7951
4.00066, 5, -36.3572, 0.112139, 21.1088, -160.444, -92.5925, 54.7951
4.00923, 5, -36.2885, 0.0581806, 21.1643, -160.432, -92.5905, 54.7951
4.01548, 5, -36.2196, 0.00433572, 21.2199, -160.42, -92.5885, 54.7951
4.0275, 5, -36.1164, -0.07606, 21.3032, -160.402, -92.5855, 54.7953
4.03159, 5, -36.0821, -0.102754, 21.3309, -160.396, -92.5845, 54.7954
4.03943, 5, -36.0135, -0.155985, 21.3862, -160.383, -92.5823, 54.7956
4.0475, 5, -35.9449, -0.209019, 21.4416, -160.37, -92.5803, 54.796
4.05545, 5, -35.8764, -0.261861, 21.4968, -160.357, -92.5781, 54.7965
4.06345, 5, -35.8077, -0.314559, 21.5519, -160.344, -92.576, 54.7973
4.07152, 5, -35.7387, -0.367294, 21.607, -160.332, -92.5739, 54.7982
4.07967, 5, -35.6696, -0.419993, 21.6619, -160.319, -92.5718, 54.7993
4.0886, 5, -35.6001, -0.472782, 21.7166, -160.307, -92.5697, 54.8005
4.09544, 5, -35.5303, -0.525625, 21.7711, -160.294, -92.5675, 54.8019
4.10397, 5, -35.4603, -0.578455, 21.8254, -160.282, -92.5654, 54.8035
4.1125, 5, -35.3901, -0.631285, 21.8795, -160.269, -92.5632, 54.8051
4.11953, 5, -35.3196, -0.684073, 21.9336, -160.256, -92.5611, 54.8069
4.12856, 5, -35.2491, -0.736802, 21.9876, -160.243, -92.5589, 54.8088
4.14028, 5, -35.1433, -0.815353, 22.0683, -160.223, -92.5556, 54.8119
4.14354, 5, -35.108, -0.841511, 22.0952, -160.216, -92.5545, 54.813
4.15368, 5, -35.0374, -0.893719, 22.1489, -160.203, -92.5522, 54.8152
4.16034, 5, -34.9668, -0.945551, 22.2023, -160.19, -92.5499, 54.8177
4.16947, 5, -34.8964, -0.997222, 22.2557, -160.177, -92.5476, 54.8202
4.17989, 5, -34.7907, -1.07443, 22.3357, -160.158, -92.5442, 54.8242
4.18451, 5, -34.7554, -1.10017, 22.3622, -160.151, -92.543, 54.8255
4.19166, 5, -34.6848, -1.1516, 22.4151, -160.138, -92.5407, 54.8285
4.19973, 5, -34.6139, -1.20294, 22.4679, -160.125, -92.5383, 54.8315
4.20775, 5, -34.5429, -1.25438, 22.5204, -160.112, -92.536, 54.8346
4.21575, 5, -34.4718, -1.30579, 22.5729, -160.099, -92.5337, 54.8377
4.2238, 5, -34.4003, -1.35718, 22.6252, -160.085, -92.5314, 54.841
4.23235, 5, -34.3288, -1.40856, 22.6774, -160.071, -92.5289, 54.8444
4.24093, 5, -34.2572, -1.45983, 22.7293, -160.057, -92.5265, 54.848
4.24825, 5, -34.1853, -1.51094, 22.7813, -160.044, -92.5241, 54.8516
4.25694, 5, -34.1133, -1.56179, 22.8331, -160.03, -92.5217, 54.8554
4.26458, 5, -34.0413, -1.61248, 22.8847, -160.017, -92.5193, 54.8593
4.27223, 5, -33.9691, -1.66295, 22.9364, -160.003, -92.5169, 54.8632
4.28029, 5, -33.8969, -1.7132, 22.9878, -159.99, -92.5145, 54.8673
4.29027, 5, -33.8609, -1.76329, 23.039, -159.976, -92.5122, 54.8714
4.2967, 5, -33.7526, -1.81329, 23.0901, -159.962, -92.5099, 54.8755
4.30588, 5, -33.6803, -1.86321, 23.141, -159.948, -92.5075, 54.8798
4.31163, 5, -33.6442, -1.88812, 23.1664, -159.941, -92.5063, 54.882
4.32064, 5, -33.5353, -1.96314, 23.2424, -159.919, -92.5028, 54.8884
4.32744, 5, -33.499, -1.98828, 23.2677, -159.912, -92.5016, 54.8905
4.33558, 5, -33.426, -2.0387, 23.3181, -159.898, -92.4994, 54.8942
4.34343, 5, -33.3532, -2.08951, 23.3685, -159.884, -92.497, 54.8967
4.35143, 6, -33.2806, -2.1407, 23.4189, -159.87, -92.4947, 54.8978
4.36317, 6, -33.1722, -2.21886, 23.4947, -159.848, -92.4909, 54.8958
4.36746, 6, -33.1363, -2.24538, 23.5202, -159.84, -92.4893, 54.8938
4.3774, 7, -33.0293, -2.3263, 23.5978, -159.816, -92.4835, 54.8794
4.38343, 7, -32.9938, -2.35382, 23.6242, -159.807, -92.4809, 54.8723
4.3915, 7, -32.9233, -2.40971, 23.6778, -159.788, -92.4746, 54.8559
4.39945, 7, -32.8532, -2.46703, 23.7328, -159.769, -92.4664, 54.8375
4.40758, 7, -32.7837, -2.52587, 23.7895, -159.747, -92.456, 54.8191
4.41543, 7, -32.715, -2.58635, 23.8474, -159.725, -92.4435, 54.8013
4.42353, 8, -32.6468, -2.64845, 23.9069, -159.702, -92.429, 54.784
4.43258, 8, -32.5795, -2.71231, 23.9676, -159.677, -92.4125, 54.767
4.44031, 8, -32.5128, -2.77792, 24.0295, -159.65, -92.3942, 54.7494
4.44744, 8, -32.4469, -2.84513, 24.0924, -159.623, -92.374, 54.7306
4.4562, 8, -32.3817, -2.91384, 24.1563, -159.595, -92.3526, 54.7105
4.46342, 9, -32.3171, -2.98392, 24.2212, -159.566, -92.3301, 54.6885
4.47143, 9, -32.253, -3.05528, 24.2871, -159.537, -92.3064, 54.6648
4.48234, 9, -32.158, -3.16485, 24.3878, -159.489, -92.2684, 54.6263
4.48766, 9, -32.1266, -3.20197, 24.4218, -159.473, -92.2548, 54.6128
4.49647, 9, -32.0642, -3.27725, 24.4907, -159.441, -92.2262, 54.585
4.50343, 10, -32.0023, -3.3538, 24.5605, -159.407, -92.1965, 54.5555
4.51143, 10, -31.9412, -3.43171, 24.6314, -159.372, -92.1658, 54.5242
4.51942, 10, -31.8806, -3.51111, 24.7034, -159.336, -92.1337, 54.4908
4.52754, 10, -31.8205, -3.59188, 24.7764, -159.3, -92.0997, 54.4557
4.53572, 10, -31.761, -3.67412, 24.8504, -159.262, -92.0641, 54.4196
4.54467, 11, -31.7021, -3.75778, 24.9255, -159.223, -92.0277, 54.3823
4.55144, 11, -31.6436, -3.843, 25.0014, -159.184, -91.9903, 54.3432
4.55952, 11, -31.5858, -3.92963, 25.0783, -159.144, -91.9508, 54.302
4.56817, 11, -31.5284, -4.01767, 25.1561, -159.103, -91.9098, 54.2594
4.57542, 11, -31.4716, -4.10723, 25.235, -159.06, -91.8681, 54.2159
4.58356, 12, -31.4153, -4.19825, 25.3149, -159.017, -91.8248, 54.1708
4.59156, 12, -31.3596, -4.29071, 25.3959, -158.973, -91.7794, 54.1235
4.59943, 12, -31.3043, -4.38459, 25.478, -158.927, -91.7334, 54.0747
4.61096, 12, -31.2224, -4.52784, 25.6031, -158.859, -91.6616, 53.9994
4.61574, 12, -31.1953, -4.5763, 25.6453, -158.835, -91.6367, 53.9735
4.62444, 13, -31.1416, -4.6743, 25.7303, -158.786, -91.5867, 53.92
4.63179, 13, -31.0883, -4.77365, 25.8163, -158.738, -91.5351, 53.8652
4.6397, 13, -31.0356, -4.87443, 25.9032, -158.688, -91.4816, 53.8094
4.64841, 13, -30.9834, -4.97684, 25.9914, -158.637, -91.4276, 53.7515
4.65553, 13, -30.9317, -5.08068, 26.0806, -158.586, -91.3717, 53.6922
4.66374, 14, -30.8805, -5.18589, 26.1709, -158.534, -91.3145, 53.632
4.67226, 14, -30.83, -5.29264, 26.2623, -158.479, -91.2566, 53.5696
4.67946, 14, -30.78, -5.40085, 26.3545, -158.426, -91.1963, 53.5061
4.68862, 14, -30.7305, -5.51051, 26.4477, -158.371, -91.1359, 53.4419
4.69592, 14, -30.6815, -5.62173, 26.5417, -158.314, -91.0732, 53.3753
4.70368, 14, -30.6331, -5.73444, 26.637, -158.258, -91.0094, 53.3075
4.71254, 15, -30.5851, -5.84851, 26.7333, -158.199, -90.9444, 53.2388
4.71974, 15, -30.5376, -5.96381, 26.8309, -158.141, -90.8775, 53.1677
4.72791, 15, -30.4907, -6.08051, 26.9294, -158.081, -90.8102, 53.0961
4.73684, 15, -30.4442, -6.19874, 27.029, -158.02, -90.7406, 53.0224
4.74621, 15, -30.3982, -6.31828, 27.1293, -157.959, -90.6704, 52.9469
4.75205, 16, -30.3528, -6.43945, 27.2306, -157.896, -90.598, 52.8707
4.76005, 16, -30.3079, -6.56205, 27.3331, -157.833, -90.5253, 52.7919
4.76865, 16, -30.2635, -6.686, 27.4367, -157.768, -90.4507, 52.7127
4.77659, 16, -30.2195, -6.81158, 27.5415, -157.704, -90.375, 52.6315
4.78398, 16, -30.1977, -6.87491, 27.5943, -157.671, -90.3365, 52.5492
4.79144, 17, -30.1544, -7.00274, 27.7005, -157.604, -90.2588, 52.5079
4.79943, 17, -30.1116, -7.13222, 27.8076, -157.537, -90.1796, 52.4234
4.80742, 17, -30.0694, -7.26316, 27.9155, -157.468, -90.0992, 52.3384
4.81767, 17, -30.007, -7.46205, 28.0795, -157.364, -89.976, 52.2074
4.82502, 17, -29.966, -7.59634, 28.1904, -157.294, -89.8921, 52.1188
4.83267, 18, -29.9256, -7.73212, 28.3023, -157.222, -89.8072, 52.0285
4.83942, 18, -29.9056, -7.80052, 28.3586, -157.186, -89.7639, 51.9831
4.84745, 18, -29.8659, -7.93843, 28.4718, -157.114, -89.6773, 51.8907
4.85541, 18, -29.8266, -8.07754, 28.5859, -157.039, -89.5891, 51.7972
4.86358, 18, -29.7878, -8.21793, 28.7012, -156.965, -89.4996, 51.7021
4.87139, 19, -29.7495, -8.35969, 28.8176, -156.889, -89.409, 51.6062
4.88099, 19, -29.6929, -8.57527, 28.9944, -156.774, -89.2708, 51.4596
4.8892, 19, -29.6556, -8.72091, 29.1133, -156.697, -89.1768, 51.3608
4.90161, 19, -29.6189, -8.86784, 29.2931, -156.579, -89.0342, 51.2107
4.90337, 19, -29.6007, -8.94175, 29.2931, -156.579, -89.0342, 51.2107
4.91146, 20, -29.5647, -9.09068, 29.4142, -156.498, -88.9376, 51.1085
4.92045, 20, -29.5293, -9.24111, 29.5366, -156.418, -88.8399, 51.0058
4.92749, 20, -29.4941, -9.39312, 29.6601, -156.336, -88.7414, 50.9014
4.93656, 20, -29.4595, -9.54634, 29.7844, -156.253, -88.6415, 50.7961
4.94356, 20, -29.4253, -9.70061, 29.9096, -156.17, -88.5407, 50.6893
4.95236, 21, -29.3917, -9.85621, 30.0357, -156.085, -88.4388, 50.5812
4.96018, 21, -29.3585, -10.0133, 30.1628, -156, -88.3356, 50.4725
4.96741, 21, -29.3256, -10.172, 30.291, -155.914, -88.2314, 50.3624
4.97541, 21, -29.2932, -10.3318, 30.4203, -155.827, -88.1264, 50.2517
4.98685, 21, -29.2454, -10.5732, 30.6157, -155.696, -87.9666, 50.0839
4.9916, 21, -29.2296, -10.6543, 30.6812, -155.651, -87.9129, 50.0275
5.00038, 22, -29.1984, -10.8177, 30.813, -155.561, -87.8046, 49.9141
5.00743, 22, -29.1675, -10.9823, 30.9458, -155.471, -87.6954, 49.7997
5.01564, 22, -29.1371, -11.1478, 31.0795, -155.379, -87.5853, 49.6844
5.02341, 22, -29.1072, -11.3144, 31.2141, -155.287, -87.4739, 49.5684
5.03141, 22, -29.0775, -11.4825, 31.3498, -155.194, -87.3618, 49.4513
5.03948, 23, -29.0483, -11.6523, 31.4861, -155.1, -87.2488, 49.3337
5.04741, 23, -29.0193, -11.8231, 31.6233, -155.005, -87.1346, 49.2151
5.05541, 23, -28.9908, -11.9946, 31.7612, -154.91, -87.0199, 49.0961
5.06381, 23, -28.9627, -12.1674, 31.9001, -154.813, -86.9041, 48.9767
5.07244, 23, -28.9349, -12.3416, 32.0398, -154.716, -86.7874, 48.8566
5.07941, 24, -28.9076, -12.5171, 32.1806, -154.618, -86.6698, 48.736
5.08958, 24, -28.8804, -12.693, 32.322, -154.519, -86.5512, 48.615
5.09568, 24, -28.8537, -12.8697, 32.464, -154.419, -86.4319, 48.4929
5.10948, 24, -28.8143, -13.1377, 32.6788, -154.268, -86.2512, 48.3089
5.11157, 24, -28.8013, -13.2277, 32.7509, -154.217, -86.1908, 48.2474
5.11956, 25, -28.7755, -13.4078, 32.8955, -154.114, -86.0691, 48.1241
5.12757, 25, -28.7501, -13.5887, 33.0408, -154.011, -85.9466, 48.0006
5.1355, 25, -28.7248, -13.7709, 33.1866, -153.907, -85.8238, 47.8771
5.14391, 25, -28.6997, -13.9545, 33.3331, -153.803, -85.6998, 47.7533
5.15153, 25, -28.675, -14.1387, 33.4806, -153.697, -85.5755, 47.6294
5.15959, 26, -28.6505, -14.3233, 33.6288, -153.591, -85.4505, 47.5056
5.16847, 26, -28.6264, -14.5091, 33.7774, -153.484, -85.3248, 47.3812
5.17544, 26, -28.6026, -14.6965, 33.9266, -153.376, -85.1988, 47.2568
5.18417, 26, -28.5789, -14.8843, 34.0768, -153.268, -85.0719, 47.1327
5.19588, 26, -28.5553, -15.0723, 34.3031, -153.103, -84.8807, 46.9466
5.19961, 27, -28.5319, -15.261, 34.3787, -153.048, -84.8167, 46.8848
5.20834, 27, -28.5089, -15.4508, 34.5304, -152.938, -84.6885, 46.7615
5.21624, 27, -28.486, -15.6409, 34.6827, -152.826, -84.5595, 46.6381
5.22533, 27, -28.4634, -15.8313, 34.836, -152.714, -84.4301, 46.515
5.23185, 27, -28.441, -16.0228, 34.9895, -152.601, -84.3005, 46.3923
5.23995, 27, -28.4187, -16.2158, 35.143, -152.488, -84.1705, 46.2698
5.24867, 28, -28.3963, -16.4094, 35.2972, -152.374, -84.0399, 46.1477
5.25596, 28, -28.3742, -16.6035, 35.4523, -152.259, -83.909, 46.0263
5.26524, 28, -28.3522, -16.7986, 35.6077, -152.144, -83.7781, 45.9055
5.27292, 28, -28.3303, -16.9946, 35.7632, -152.027, -83.6464, 45.7853
5.28002, 28, -28.3086, -17.1908, 35.9193, -151.911, -83.5149, 45.6661
5.28877, 29, -28.2977, -17.2889, 35.9976, -151.852, -83.4489, 45.5474
5.29594, 29, -28.2762, -17.4857, 36.1547, -151.734, -83.3165, 45.4885
5.30344, 29, -28.2547, -17.6835, 36.3122, -151.615, -83.1839, 45.371
5.31412, 29, -28.2225, -17.9803, 36.5484, -151.436, -82.9842, 45.1961
5.32152, 29, -28.2013, -18.1785, 36.7068, -151.316, -82.8509, 45.0809
5.32944, 30, -28.1802, -18.3775, 36.8657, -151.195, -82.7174, 44.9669
5.33543, 30, -28.1695, -18.4771, 36.9451, -151.134, -82.6508, 44.9105
5.34728, 30, -28.1377, -18.776, 37.1829, -150.951, -82.4501, 44.7434
5.35276, 30, -28.1164, -18.9759, 37.3417, -150.829, -82.3165, 44.6341
5.35946, 30, -28.1057, -19.0763, 37.4212, -150.768, -82.2494, 44.5803
5.36739, 31, -28.0842, -19.2773, 37.5805, -150.644, -82.1155, 44.4737
5.37545, 31, -28.0626, -19.478, 37.7394, -150.521, -81.9815, 44.3688
5.38581, 31, -28.0304, -19.7792, 37.9781, -150.334, -81.7804, 44.2147
5.39154, 31, -28.0196, -19.8797, 38.058, -150.272, -81.7134, 44.1641
5.39945, 31, -27.9978, -20.0806, 38.218, -150.146, -81.5789, 44.0636
5.40986, 32, -27.976, -20.2809, 38.3778, -150.02, -81.3776, 43.9165
5.4172, 32, -27.954, -20.4817, 38.6171, -149.831, -81.2434, 43.8213
5.42424, 32, -27.9317, -20.6831, 38.697, -149.767, -81.1765, 43.7744
5.43242, 32, -27.9092, -20.8842, 38.857, -149.64, -81.0424, 43.6824
5.43951, 32, -27.8865, -21.0849, 39.0166, -149.513, -80.9088, 43.5934
5.4474, 33, -27.8635, -21.2858, 39.1754, -149.385, -80.7757, 43.5069
5.45541, 33, -27.8403, -21.4866, 39.3343, -149.257, -80.6429, 43.4239
5.46453, 33, -27.8166, -21.6864, 39.4932, -149.13, -80.5105, 43.3433
5.47155, 33, -27.7925, -21.8855, 39.6513, -149.002, -80.3786, 43.2666
5.47952, 33, -27.7678, -22.0848, 39.8086, -148.875, -80.2472, 43.1925
5.48817, 34, -27.7427, -22.2834, 39.9654, -148.747, -80.116, 43.1221
5.49541, 34, -27.7171, -22.4809, 40.1221, -148.619, -79.9853, 43.0552
5.50346, 34, -27.691, -22.678, 40.2784, -148.492, -79.8545, 42.9907
5.51479, 34, -27.6512, -22.9733, 40.5114, -148.3, -79.6586, 42.9012
5.51959, 34, -27.6377, -23.0713, 40.5889, -148.236, -79.5932, 42.8729
5.52835, 35, -27.6103, -23.2669, 40.7442, -148.108, -79.4626, 42.8183
5.53647, 35, -27.5828, -23.4627, 40.8993, -147.98, -79.3319, 42.7672
5.54735, 35, -27.5412, -23.7568, 41.1308, -147.786, -79.1367, 42.6977
5.5514, 35, -27.5271, -23.8545, 41.2079, -147.722, -79.0716, 42.676
5.55945, 35, -27.499, -24.0496, 41.3622, -147.592, -78.9416, 42.6348
5.56755, 35, -27.4705, -24.2449, 41.5166, -147.461, -78.812, 42.5973
5.57543, 36, -27.4415, -24.44, 41.6705, -147.331, -78.6824, 42.5641
5.5834, 36, -27.4124, -24.6343, 41.8237, -147.2, -78.5537, 42.535
5.59162, 36, -27.3828, -24.8278, 41.9766, -147.069, -78.4248, 42.5101
5.60038, 36, -27.3526, -25.0213, 42.1291, -146.938, -78.2968, 42.4896
5.6075, 36, -27.3215, -25.214, 42.2807, -146.807, -78.1691, 42.4736
5.61545, 37, -27.2894, -25.4053, 42.4309, -146.677, -78.042, 42.4622
5.62348, 37, -27.2565, -25.5955, 42.58, -146.547, -77.9154, 42.456
5.63167, 37, -27.2226, -25.7849, 42.7281, -146.418, -77.7891, 42.4532
5.64322, 37, -27.1699, -26.0663, 42.9477, -146.226, -77.6009, 42.4559
5.64771, 38, -27.1518, -26.1591, 43.0202, -146.163, -77.5382, 42.4601
5.65554, 38, -27.1151, -26.344, 43.1643, -146.036, -77.4136, 42.4729
5.67, 38, -27.0587, -26.62, 43.379, -145.846, -77.2273, 42.5017
5.67265, 38, -27.0395, -26.7112, 43.4503, -145.783, -77.1654, 42.514
5.6804, 38, -27.0004, -26.8928, 43.5923, -145.657, -77.0419, 42.5427
5.68743, 38, -26.9607, -27.0735, 43.7334, -145.53, -76.9185, 42.5771
5.69552, 39, -26.9204, -27.2542, 43.8738, -145.404, -76.7956, 42.6177
5.70364, 39, -26.8793, -27.4341, 44.0136, -145.277, -76.6724, 42.6639
5.71158, 39, -26.8374, -27.6129, 44.1527, -145.151, -76.5495, 42.7156
5.72016, 39, -26.7948, -27.7909, 44.291, -145.024, -76.4266, 42.7732
5.72775, 39, -26.7515, -27.9688, 44.4281, -144.898, -76.3037, 42.8378
5.73583, 40, -26.7072, -28.1457, 44.5642, -144.773, -76.181, 42.9076
5.744, 40, -26.6618, -28.3209, 44.6992, -144.648, -76.0584, 42.9846
5.75253, 40, -26.6156, -28.4948, 44.833, -144.524, -75.9366, 43.0678
5.7603, 40, -26.5685, -28.6676, 44.9655, -144.401, -75.8148, 43.1572
5.76847, 40, -26.5201, -28.8391, 45.0964, -144.278, -75.6941, 43.2539
5.77598, 41, -26.4956, -29.0087, 45.2261, -144.157, -75.5735, 43.357
5.784, 41, -26.4456, -29.0928, 45.2904, -144.036, -75.4534, 43.467
5.79196, 41, -26.3946, -29.2601, 45.418, -143.976, -75.3938, 43.5245
5.79943, 41, -26.3422, -29.4262, 45.5442, -143.857, -75.2746, 43.6449
5.80738, 41, -26.2886, -29.5907, 45.6689, -143.739, -75.1557, 43.7724
5.81554, 42, -26.2337, -29.753, 45.7917, -143.622, -75.0377, 43.9071
5.82345, 42, -26.1772, -29.9135, 45.9127, -143.507, -74.9198, 44.0491
5.83138, 42, -26.1192, -30.0722, 46.0317, -143.393, -74.8027, 44.1983
5.83943, 42, -26.0595, -30.229, 46.1485, -143.28, -74.6861, 44.3545
5.84744, 42, -25.9981, -30.3833, 46.2632, -143.17, -74.5698, 44.518
5.8554, 42, -25.935, -30.5352, 46.3756, -143.062, -74.4544, 44.6884
5.86352, 43, -25.8702, -30.6848, 46.4858, -142.956, -74.3392, 44.8665
5.87285, 43, -25.8037, -30.8323, 46.6471, -142.8, -74.1675, 45.1481
5.87938, 43, -25.7356, -30.9776, 46.6999, -142.749, -74.1104, 45.2458
5.88985, 43, -25.6305, -31.191, 46.8554, -142.599, -73.9397, 45.5504
5.8956, 43, -25.5947, -31.2611, 46.9063, -142.55, -73.8831, 45.6558
5.9034, 44, -25.5218, -31.3998, 47.0065, -142.453, -73.7703, 45.8725
5.91139, 44, -25.4472, -31.5364, 47.1044, -142.358, -73.6583, 46.0971
5.92316, 44, -25.332, -31.7371, 47.2467, -142.22, -73.4911, 46.4492
5.92744, 44, -25.2927, -31.8027, 47.2929, -142.175, -73.4357, 46.5708
5.93644, 44, -25.2128, -31.9318, 47.3835, -142.088, -73.3257, 46.8199
5.94338, 45, -25.1311, -32.0583, 47.4718, -142.003, -73.216, 47.0774
5.95145, 45, -25.0472, -32.182, 47.5576, -141.922, -73.1068, 47.3435
5.95938, 45, -24.9613, -32.3028, 47.6406, -141.842, -72.9984, 47.6176
5.96755, 45, -24.8732, -32.4205, 47.7206, -141.766, -72.89, 47.9001
5.97802, 45, -24.7366, -32.5912, 47.8349, -141.657, -72.7289, 48.3396
5.98338, 46, -24.6899, -32.6464, 47.8715, -141.623, -72.6754, 48.4905
5.99264, 46, -24.5948, -32.7542, 47.9425, -141.556, -72.5689, 48.7982
5.99938, 46, -24.4971, -32.8586, 48.0105, -141.493, -72.4634, 49.1139
6.00745, 46, -24.3972, -32.9594, 48.0754, -141.435, -72.3587, 49.4385
6.01538, 46, -24.295, -33.0564, 48.1369, -141.379, -72.255, 49.7712
6.02453, 47, -24.1906, -33.1497, 48.1949, -141.328, -72.1527, 50.1117
6.03146, 47, -24.0838, -33.239, 48.2493, -141.281, -72.0512, 50.4607
6.03938, 47, -23.9742, -33.3244, 48.3002, -141.237, -71.951, 50.8181
6.04739, 47, -23.8621, -33.4057, 48.3472, -141.199, -71.8519, 51.1837
6.05538, 47, -23.7473, -33.4828, 48.3904, -141.165, -71.7539, 51.5583
6.06344, 48, -23.6296, -33.5557, 48.4297, -141.136, -71.6573, 51.9417
6.07154, 48, -23.5093, -33.6241, 48.4649, -141.11, -71.5624, 52.3336
6.08038, 48, -23.3865, -33.688, 48.4958, -141.09, -71.4688, 52.7351
6.08756, 48, -23.2612, -33.747, 48.5228, -141.075, -71.3769, 53.1461
6.09559, 48, -23.1332, -33.8009, 48.5453, -141.065, -71.2873, 53.5658
6.10444, 49, -23.0022, -33.8498, 48.5635, -141.06, -71.1993, 53.9949
6.11164, 49, -22.8684, -33.8933, 48.5772, -141.059, -71.1131, 54.4316
6.11945, 49, -22.7316, -33.9313, 48.5862, -141.064, -71.0294, 54.8757
6.12769, 49, -22.5919, -33.9636, 48.5904, -141.075, -70.9476, 55.3278
6.13547, 49, -22.4493, -33.9902, 48.5902, -141.092, -70.8683, 55.787
6.14364, 50, -22.304, -34.0108, 48.5851, -141.116, -70.7912, 56.2538
6.15298, 50, -22.156, -34.0253, 48.5749, -141.145, -70.7175, 56.7273
6.16044, 50, -22.0054, -34.0335, 48.5595, -141.18, -70.6462, 57.2087
6.16949, 50, -21.8519, -34.0356, 48.5389, -141.222, -70.5785, 57.6979
6.17563, 50, -21.6953, -34.0317, 48.5129, -141.27, -70.5134, 58.1948
6.1838, 50, -21.5355, -34.0211, 48.4812, -141.324, -70.4528, 58.6985
6.19568, 51, -21.2907, -33.9924, 48.4238, -141.418, -70.3674, 59.4654
6.20058, 51, -21.2077, -33.9793, 48.4018, -141.452, -70.3412, 59.7242
6.20844, 51, -21.0399, -33.9478, 48.3538, -141.525, -70.2913, 60.2462
6.21564, 51, -20.8696, -33.9093, 48.3001, -141.604, -70.2446, 60.7742
6.22401, 51, -20.6968, -33.8632, 48.2406, -141.689, -70.2025, 61.3074
6.23272, 52, -20.5212, -33.8093, 48.1751, -141.781, -70.1653, 61.8472
6.23982, 52, -20.3429, -33.7474, 48.1037, -141.88, -70.1324, 62.3937
6.24794, 52, -20.1617, -33.6775, 48.0261, -141.984, -70.104, 62.9468
6.25653, 52, -19.9778, -33.5994, 47.9423, -142.095, -70.0807, 63.5054
6.2639, 52, -19.7914, -33.5128, 47.8522, -142.213, -70.0629, 64.0706
6.27273, 53, -19.6029, -33.4178, 47.756, -142.336, -70.0505, 64.6411
6.28097, 53, -19.4126, -33.3145, 47.6538, -142.466, -70.0436, 65.2167
6.288, 53, -19.3166, -33.203, 47.5456, -142.602, -70.0416, 65.7955
6.29751, 53, -19.026, -33.0834, 47.4316, -142.742, -70.0447, 66.378
6.30734, 53, -18.9284, -33.0205, 47.3117, -142.888, -70.0539, 66.9634
6.31241, 54, -18.6327, -32.8193, 47.1859, -143.039, -70.0694, 67.5501
6.31937, 54, -18.5332, -32.748, 47.1208, -143.116, -70.0797, 67.8436
6.32874, 54, -18.2318, -32.5221, 46.9175, -143.354, -70.1206, 68.7263
6.33537, 54, -18.1305, -32.4427, 46.8469, -143.435, -70.1373, 69.0214
6.34462, 54, -17.8248, -32.1912, 46.6263, -143.687, -70.1969, 69.9091
6.35148, 55, -17.7224, -32.1028, 46.5496, -143.772, -70.2206, 70.2058
6.35935, 55, -17.517, -31.9189, 46.3916, -143.948, -70.2744, 70.8026
6.36878, 55, -17.2059, -31.6257, 46.1422, -144.221, -70.3688, 71.7065
6.37537, 55, -17.1013, -31.523, 46.0554, -144.314, -70.405, 72.0099
6.38338, 55, -16.891, -31.3095, 45.876, -144.505, -70.4832, 72.6203
6.39289, 56, -16.5723, -30.9694, 45.5938, -144.8, -70.6184, 73.5455
6.40715, 56, -16.2505, -30.6053, 45.2954, -145.105, -70.7737, 74.4791
6.41006, 56, -16.1429, -30.4783, 45.192, -145.209, -70.8303, 74.7918
6.41691, 56, -16.0353, -30.3488, 45.0869, -145.314, -70.8893, 75.4195
6.42438, 56, -15.8204, -30.0821, 44.8726, -145.526, -71.0139, 75.7343
6.43447, 57, -15.4968, -29.6616, 44.5384, -145.85, -71.2188, 76.6804
6.43944, 57, -15.3884, -29.5164, 44.4235, -145.959, -71.2919, 76.9962
6.44746, 57, -15.1706, -29.2182, 44.1895, -146.18, -71.4454, 77.6289
6.45537, 57, -14.9524, -28.9101, 43.9491, -146.402, -71.6085, 78.2619
6.46338, 57, -14.7344, -28.5937, 43.7029, -146.626, -71.7812, 78.8932
6.47432, 58, -14.4084, -28.1037, 43.3255, -146.962, -72.0565, 79.836
6.47958, 58, -14.3003, -27.9367, 43.1974, -147.074, -72.1522, 80.1482
6.48734, 58, -14.0851, -27.5967, 42.9391, -147.296, -72.3491, 80.7684
6.49541, 58, -13.8715, -27.2496, 42.678, -147.517, -72.5531, 81.3813
6.50338, 58, -13.6594, -26.8957, 42.4137, -147.736, -72.7638, 81.9879
6.51138, 58, -13.4484, -26.5357, 42.1471, -147.953, -72.9813, 82.5883
6.51942, 59, -13.2389, -26.1683, 41.8766, -148.167, -73.2058, 83.1823
6.52758, 59, -13.0313, -25.7944, 41.6026, -148.38, -73.4381, 83.7713
6.5364, 59, -12.8254, -25.4137, 41.325, -148.591, -73.6785, 84.3567
6.54337, 59, -12.6207, -25.0265, 41.0433, -148.801, -73.9272, 84.9388
6.55143, 59, -12.4169, -24.6318, 40.758, -149.008, -74.1848, 85.5166
6.55939, 60, -12.2144, -24.2303, 40.4681, -149.214, -74.4509, 86.0908
6.56737, 60, -12.0132, -23.8218, 40.1752, -149.418, -74.7256, 86.6614
6.57576, 60, -11.8135, -23.4073, 39.8789, -149.62, -75.0083, 87.2281
6.58441, 60, -11.6156, -22.9864, 39.5809, -149.818, -75.2986, 87.7888
6.59137, 60, -11.4199, -22.5602, 39.281, -150.013, -75.5959, 88.3442
6.60017, 61, -11.2265, -22.1302, 38.9799, -150.205, -75.8993, 88.8931
6.60755, 61, -11.0354, -21.696, 38.6779, -150.392, -76.2083, 89.4344
6.6154, 61, -10.8464, -21.258, 38.3749, -150.574, -76.5219, 89.9668
6.627, 61, -10.567, -20.5944, 37.9202, -150.838, -77.0015, 90.7494
6.63168, 61, -10.475, -20.3711, 37.7683, -150.924, -77.1637, 91.006
6.64039, 62, -10.2928, -19.9215, 37.4646, -151.092, -77.4917, 91.5133
6.64776, 62, -10.1135, -19.4685, 37.1598, -151.256, -77.8251, 92.0128
6.6556, 62, -9.93673, -19.013, 36.8545, -151.415, -78.164, 92.5047
6.66436, 62, -9.76256, -18.5548, 36.5478, -151.57, -78.5085, 92.9903
6.67137, 62, -9.59092, -18.0952, 36.241, -151.72, -78.8581, 93.4679
6.67939, 63, -9.42151, -17.6348, 35.9345, -151.866, -79.2118, 93.9374
6.68827, 63, -9.25434, -17.1732, 35.6294, -152.006, -79.5687, 94.3964
6.6954, 63, -9.08964, -16.7103, 35.3263, -152.14, -79.9277, 94.8448
6.7044, 63, -8.92765, -16.2456, 35.0251, -152.269, -80.2881, 95.2822
6.71156, 63, -8.76825, -15.7787, 34.7264, -152.391, -80.6499, 95.7081
6.71964, 63, -8.61134, -15.3097, 34.4291, -152.509, -81.0138, 96.1238
6.72874, 64, -8.45683, -14.839, 34.1336, -152.621, -81.3809, 96.5291
6.73634, 64, -8.30469, -14.3666, 33.8378, -152.728, -81.7523, 96.925
6.74464, 64, -8.15478, -13.8939, 33.5419, -152.831, -82.129, 97.3127
6.75221, 64, -8.00711, -13.4214, 33.2456, -152.93, -82.5109, 97.6909
6.76158, 64, -7.86173, -12.9495, 32.95, -153.023, -82.8971, 98.0588
6.76937, 65, -7.71892, -12.4788, 32.6561, -153.111, -83.2857, 98.4154
6.77729, 65, -7.57908, -12.0089, 32.3653, -153.194, -83.6751, 98.7584
6.78487, 65, -7.51038, -11.7745, 32.079, -153.27, -84.0638, 99.0869
6.79236, 65, -7.30882, -11.0715, 31.7967, -153.34, -84.4508, 99.4007
6.79937, 65, -7.24318, -10.8377, 31.6575, -153.372, -84.6437, 99.5519
6.80942, 66, -7.05005, -10.1404, 31.2462, -153.461, -85.2196, 99.9821
6.81645, 66, -6.92401, -9.68031, 30.9769, -153.513, -85.6024, 100.249
6.82335, 66, -6.8618, -9.45244, 30.8439, -153.537, -85.7936, 100.377
6.83145, 66, -6.73888, -9.00123, 30.5804, -153.581, -86.1748, 100.621
6.83942, 66, -6.61808, -8.55668, 30.3207, -153.619, -86.5545, 100.848
6.84735, 67, -6.49971, -8.11831, 30.066, -153.652, -86.9311, 101.059
6.85551, 67, -6.38424, -7.68632, 29.8167, -153.679, -87.3039, 101.252
6.86339, 67, -6.27182, -7.26053, 29.5745, -153.699, -87.6714, 101.426
6.87136, 67, -6.16214, -6.84009, 29.3394, -153.715, -88.0331, 101.584
6.88142, 67, -6.00249, -6.22161, 28.999, -153.727, -88.5646, 101.786
6.88757, 68, -5.95041, -6.01866, 28.8889, -153.729, -88.7394, 101.845
6.89699, 68, -5.79692, -5.41899, 28.5657, -153.729, -89.2579, 101.995
6.90506, 68, -5.69671, -5.02661, 28.3552, -153.723, -89.6005, 102.073
6.91134, 68, -5.64726, -4.83243, 28.2515, -153.718, -89.7713, 102.106
6.92088, 68, -5.54942, -4.44799, 28.0463, -153.705, -90.1125, 102.157
6.92834, 69, -5.45336, -4.06787, 27.8437, -153.688, -90.4525, 102.189
6.93549, 69, -5.35898, -3.69122, 27.6452, -153.666, -90.7924, 102.204
6.94343, 69, -5.26636, -3.31831, 27.451, -153.639, -91.1316, 102.202
6.95508, 69, -5.13067, -2.76612, 27.1655, -153.591, -91.639, 102.157
6.95956, 69, -5.08632, -2.58375, 27.0722, -153.574, -91.8076, 102.132
6.96749, 70, -4.99873, -2.22121, 26.8889, -153.536, -92.1438, 102.064
6.97542, 70, -4.91248, -1.86295, 26.7093, -153.494, -92.4785, 101.975
6.98336, 70, -4.82746, -1.50951, 26.5328, -153.447, -92.8117, 101.863
6.99141, 70, -4.74345, -1.16171, 26.3605, -153.398, -93.1428, 101.729
6.99938, 70, -4.66058, -0.818875, 26.1929, -153.346, -93.4718, 101.573
7.00748, 71, -4.5788, -0.482616, 26.029, -153.29, -93.7978, 101.396
7.0154, 71, -4.49802, -0.1527, 25.8691, -153.232, -94.1207, 101.197
7.02335, 71, -4.41831, 0.170199, 25.7146, -153.17, -94.4402, 100.978
7.03142, 71, -4.33955, 0.486689, 25.5656, -153.107, -94.7554, 100.738
7.03936, 71, -4.26148, 0.797105, 25.4214, -153.041, -95.0671, 100.478
7.04737, 71, -4.18428, 1.10058, 25.2818, -152.974, -95.3747, 100.198
7.05556, 72, -4.10771, 1.39741, 25.1467, -152.905, -95.6788, 99.8981
7.06446, 72, -4.03134, 1.68709, 25.0155, -152.834, -95.9797, 99.5779
7.07234, 72, -3.95517, 1.97068, 24.8877, -152.763, -96.2779, 99.2373
7.07971, 72, -3.8791, 2.24842, 24.7631, -152.69, -96.5736, 98.8762
7.08858, 72, -3.80303, 2.51966, 24.6415, -152.617, -96.867, 98.4933
7.09535, 73, -3.72715, 2.78521, 24.523, -152.544, -97.1579, 98.0883
7.10534, 73, -3.65109, 3.04456, 24.4077, -152.47, -97.4464, 97.661
7.11234, 73, -3.57469, 3.29743, 24.2961, -152.396, -97.7324, 97.2108
7.11945, 73, -3.49796, 3.54433, 24.1881, -152.323, -98.0152, 96.7393
7.12743, 73, -3.42087, 3.7843, 24.0842, -152.252, -98.2946, 96.2467
7.13561, 74, -3.34312, 4.01589, 23.9841, -152.181, -98.5699, 95.7345
7.1435, 74, -3.26473, 4.23936, 23.8879, -152.111, -98.8401, 95.2049
7.15144, 74, -3.18568, 4.45422, 23.7958, -152.043, -99.1046, 94.6604
7.15953, 74, -3.10596, 4.65924, 23.708, -151.977, -99.3627, 94.1035
7.16747, 74, -3.02558, 4.85456, 23.6245, -151.914, -99.6134, 93.5349
7.1754, 75, -2.94434, 5.04044, 23.5455, -151.853, -99.856, 92.9569
7.18369, 75, -2.86215, 5.21594, 23.4707, -151.796, -100.09, 92.3715
7.19239, 75, -2.77892, 5.38036, 23.3998, -151.74, -100.314, 91.7791
7.19958, 75, -2.69477, 5.53408, 23.3329, -151.689, -100.53, 91.18
7.20786, 75, -2.60976, 5.67692, 23.2701, -151.64, -100.735, 90.5744
7.21556, 76, -2.52373, 5.80846, 23.2115, -151.595, -100.932, 89.9621
7.2237, 76, -2.43676, 5.92848, 23.1572, -151.553, -101.119, 89.3416
7.23167, 76, -2.34893, 6.0367, 23.1073, -151.516, -101.297, 88.7116
7.24053, 76, -2.26033, 6.13269, 23.0616, -151.483, -101.465, 88.0737
7.24792, 76, -2.17097, 6.21612, 23.0206, -151.452, -101.624, 87.4293
7.25654, 77, -2.08072, 6.28661, 22.9845, -151.426, -101.771, 86.7789
7.26498, 77, -1.98957, 6.3441, 22.9537, -151.405, -101.905, 86.1267
7.27188, 77, -1.89749, 6.38818, 22.9286, -151.387, -102.027, 85.4762
7.28237, 77, -1.80459, 6.41813, 22.9091, -151.374, -102.134, 84.8281
7.2882, 77, -1.71081, 6.43407, 22.8955, -151.364, -102.226, 84.1833
7.29689, 78, -1.61622, 6.43563, 22.8877, -151.357, -102.303, 83.5436
7.30334, 78, -1.56868, 6.43078, 22.8859, -151.355, -102.336, 83.2254
7.31129, 78, -1.47304, 6.40953, 22.8862, -151.354, -102.39, 82.5912
7.32124, 78, -1.3288, 6.34882, 22.8978, -151.356, -102.441, 81.6475
7.32738, 78, -1.28054, 6.32054, 22.9046, -151.359, -102.45, 81.3354
7.33551, 78, -1.18386, 6.25193, 22.9232, -151.367, -102.458, 80.7155
7.34332, 79, -1.08706, 6.16716, 22.9487, -151.379, -102.448, 80.1011
7.35263, 79, -0.941504, 6.00977, 23.0005, -151.402, -102.399, 79.1945
7.35939, 79, -0.893012, 5.94925, 23.0214, -151.411, -102.374, 78.897
7.36733, 79, -0.796045, 5.8159, 23.069, -151.431, -102.311, 78.3088
7.37679, 79, -0.650528, 5.58475, 23.1546, -151.467, -102.183, 77.4454
7.38575, 80, -0.553427, 5.40999, 23.221, -151.493, -102.075, 76.883
7.39135, 80, -0.504852, 5.31643, 23.2572, -151.506, -102.013, 76.606
7.39933, 80, -0.407805, 5.11685, 23.3356, -151.535, -101.877, 76.0592
7.40915, 80, -0.26253, 4.785, 23.4685, -151.581, -101.638, 75.2565
7.41843, 80, -0.165819, 4.54098, 23.5676, -151.614, -101.455, 74.7334
7.42429, 81, -0.117502, 4.41254, 23.6205, -151.63, -101.356, 74.4757
7.43414, 81, 0.0271107, 4.00217, 23.7927, -151.682, -101.031, 73.7155
7.43957, 81, 0.0751989, 3.85685, 23.8547, -151.699, -100.912, 73.4667
7.44742, 81, 0.171266, 3.55401, 23.986, -151.736, -100.662, 72.9763
7.45634, 81, 0.267112, 3.23369, 24.1271, -151.773, -100.392, 72.4954
7.46453, 82, 0.362716, 2.89622, 24.2782, -151.81, -100.103, 72.0243
7.47173, 82, 0.458114, 2.54226, 24.4386, -151.847, -99.7946, 71.5625
7.48034, 82, 0.55325, 2.17231, 24.6082, -151.885, -99.4673, 71.1103
7.48734, 82, 0.648208, 1.78624, 24.7876, -151.922, -99.1224, 70.6677
7.4954, 82, 0.743001, 1.38373, 24.9765, -151.959, -98.7597, 70.2353
7.50331, 83, 0.837713, 0.965194, 25.1742, -151.994, -98.3801, 69.8136
7.51157, 83, 0.93243, 0.53213, 25.3818, -152.03, -97.9842, 69.4017
7.52037, 83, 1.02717, 0.0844428, 25.5999, -152.064, -97.5726, 69.0005
7.52833, 83, 1.12202, -0.377877, 25.8268, -152.097, -97.1457, 68.6093
7.53941, 83, 1.26437, -1.09788, 26.1841, -152.143, -96.4766, 68.041
7.54349, 84, 1.31193, -1.34493, 26.3082, -152.158, -96.2459, 67.8564
7.55238, 84, 1.40723, -1.84941, 26.5636, -152.187, -95.773, 67.4935
7.56033, 84, 1.50272, -2.36684, 26.8296, -152.214, -95.2855, 67.1381
7.56734, 84, 1.59846, -2.89774, 27.1056, -152.24, -94.782, 66.7903
7.57532, 84, 1.69464, -3.44213, 27.3919, -152.264, -94.2632, 66.4494
7.5834, 84, 1.79128, -3.99993, 27.6891, -152.286, -93.7296, 66.1151
7.59168, 85, 1.88817, -4.57066, 27.996, -152.307, -93.1806, 65.7884
7.60038, 85, 1.98537, -5.15243, 28.3131, -152.326, -92.617, 65.4697
7.60757, 85, 2.08294, -5.7446, 28.6394, -152.343, -92.0415, 65.1588
7.62003, 85, 2.23014, -6.64935, 29.1456, -152.363, -91.1586, 64.7084
7.62354, 85, 2.27957, -6.95496, 29.3186, -152.369, -90.8591, 64.563
7.63249, 86, 2.37886, -7.57165, 29.6704, -152.377, -90.253, 64.2796
7.63943, 86, 2.47914, -8.19455, 30.0292, -152.383, -89.6379, 64.0065
7.64768, 86, 2.58041, -8.82352, 30.3943, -152.386, -89.0148, 63.7441
7.6563, 86, 2.68238, -9.45774, 30.7649, -152.386, -88.3874, 63.4934
7.6635, 86, 2.78552, -10.0963, 31.1408, -152.384, -87.7555, 63.2543
7.67146, 87, 2.88969, -10.7385, 31.5224, -152.378, -87.118, 63.0268
7.67933, 87, 2.99444, -11.3831, 31.9083, -152.368, -86.4753, 62.8115
7.6876, 87, 3.1003, -12.0301, 32.2987, -152.355, -85.8278, 62.6086
7.69581, 87, 3.20691, -12.6787, 32.6934, -152.337, -85.1766, 62.4186
7.7044, 87, 3.31411, -13.329, 33.0929, -152.316, -84.5225, 62.2416
7.71149, 88, 3.42215, -13.9813, 33.497, -152.29, -83.8641, 62.0778
7.72247, 88, 3.53077, -14.6355, 33.9048, -152.261, -83.2019, 61.9276
7.72808, 88, 3.64014, -15.2912, 34.3169, -152.229, -82.5359, 61.7915
7.73641, 88, 3.75021, -15.9479, 34.7333, -152.191, -81.8659, 61.6697
7.74373, 88, 3.86068, -16.6053, 35.1537, -152.148, -81.1944, 61.5632
7.7519, 89, 3.97145, -17.2618, 35.578, -152.101, -80.5206, 61.4728
7.7605, 89, 4.08245, -17.9167, 36.0054, -152.049, -79.8436, 61.3998
7.76801, 89, 4.19351, -18.5694, 36.4354, -151.991, -79.1628, 61.3442
7.78619, 89, 4.41575, -19.8655, 37.3, -151.859, -77.798, 61.2898
7.78812, 89, 4.47127, -20.1866, 37.5162, -151.823, -77.4581, 61.2882
7.79183, 90, 4.47127, -20.1866, 37.5162, -151.823, -77.4581, 61.2924
7.80033, 90, 4.63873, -21.1437, 38.1637, -151.705, -76.4404, 61.3193
7.80803, 90, 4.6948, -21.4605, 38.379, -151.62, -75.7648, 61.3699
7.81531, 90, 4.80696, -22.0909, 38.8085, -151.575, -75.4287, 61.404
7.82342, 90, 4.91924, -22.7166, 39.236, -151.481, -74.7605, 61.4916
7.83152, 90, 5.03138, -23.3379, 39.6621, -151.381, -74.097, 61.6058
7.83955, 91, 5.14341, -23.9548, 40.0872, -151.276, -73.4349, 61.747
7.84739, 91, 5.2551, -24.5659, 40.5115, -151.163, -72.7736, 61.9168
7.85539, 91, 5.36599, -25.1708, 40.9354, -151.043, -72.1126, 62.1153
7.86331, 91, 5.47602, -25.7691, 41.3584, -150.918, -71.4503, 62.3441
7.87319, 92, 5.63993, -26.6525, 41.9909, -150.717, -70.4595, 62.7448
7.88123, 92, 5.74919, -27.2318, 42.4099, -150.575, -69.8016, 63.0515
7.88739, 92, 5.80403, -27.5184, 42.6182, -150.502, -69.4736, 63.2164
7.89776, 92, 5.96948, -28.3652, 43.2355, -150.276, -68.4945, 63.758
7.90331, 92, 6.02499, -28.6427, 43.4386, -150.199, -68.1701, 63.9544
7.91135, 92, 6.1369, -29.1894, 43.8397, -150.041, -67.5262, 64.3704
7.91936, 93, 6.25018, -29.725, 44.2344, -149.881, -66.8889, 64.818
7.93809, 93, 6.54193, -31.0201, 45.1936, -149.472, -65.3131, 66.0778
7.93934, 93, 6.54193, -31.0201, 45.1936, -149.472, -65.3131, 66.0778
7.94337, 93, 6.60188, -31.2732, 45.3816, -149.39, -64.9999, 66.3552
7.95238, 93, 6.7235, -31.775, 45.7542, -149.225, -64.3739, 66.9383
7.95928, 94, 6.84737, -32.2714, 46.1233, -149.059, -63.7476, 67.5632
7.96739, 94, 6.97355, -32.7629, 46.4897, -148.892, -63.1159, 68.235
7.97531, 94, 7.10184, -33.2487, 46.8545, -148.725, -62.4776, 68.9592
7.98333, 94, 7.2322, -33.7269, 47.2172, -148.559, -61.8331, 69.7364
7.99139, 94, 7.36559, -34.198, 47.5769, -148.396, -61.1821, 70.5654
7.99935, 95, 7.50304, -34.6608, 47.93, -148.239, -60.5295, 71.4488
8.00739, 95, 7.64544, -35.113, 48.2749, -148.091, -59.8802, 72.3784
8.01531, 95, 7.7939, -35.5544, 48.6087, -147.956, -59.2355, 73.3492
8.02341, 95, 7.94876, -35.9824, 48.9302, -147.835, -58.5981, 74.3589
8.03131, 95, 8.11042, -36.3924, 49.2361, -147.73, -57.9697, 75.4017
8.03956, 96, 8.2789, -36.7823, 49.5265, -147.644, -57.3516, 76.4786
8.04745, 96, 8.45421, -37.151, 49.8, -147.576, -56.7482, 77.585
8.05531, 96, 8.63547, -37.4967, 50.0568, -147.53, -56.1587, 78.7201
8.06332, 96, 8.82181, -37.8174, 50.2962, -147.504, -55.5844, 79.877
8.07138, 96, 9.01284, -38.1124, 50.5162, -147.498, -55.0276, 81.0503
8.07932, 96, 9.20716, -38.3826, 50.7168, -147.513, -54.491, 82.2349
8.0874, 97, 9.40308, -38.6272, 50.8981, -147.551, -53.9772, 83.4288
8.09539, 97, 9.59941, -38.8464, 51.0587, -147.61, -53.4884, 84.6275
8.10333, 97, 9.79496, -39.0413, 51.1989, -147.688, -53.0264, 85.82
8.11131, 97, 9.98896, -39.2111, 51.3196, -147.783, -52.5932, 86.9989
8.11947, 97, 10.1804, -39.3552, 51.4206, -147.894, -52.19, 88.1575
8.12742, 97, 10.3683, -39.4739, 51.5026, -148.017, -51.8174, 89.2899
8.13566, 98, 10.5524, -39.5674, 51.5663, -148.151, -51.4756, 90.3874
8.14342, 98, 10.734, -39.6369, 51.612, -148.295, -51.1641, 91.4525
8.15148, 98, 10.9141, -39.6836, 51.6403, -148.448, -50.8804, 92.4927
8.15944, 98, 11.0926, -39.7071, 51.6513, -148.612, -50.621, 93.5225
8.16748, 98, 11.2689, -39.7073, 51.6457, -148.789, -50.3824, 94.5553
8.17551, 98, 11.444, -39.6841, 51.6228, -148.979, -50.1627, 95.6025
8.18331, 98, 11.6195, -39.637, 51.5822, -149.182, -49.9619, 96.6711
8.19135, 99, 11.7947, -39.5666, 51.5238, -149.399, -49.7816, 97.7606
8.19943, 99, 11.9683, -39.4736, 51.447, -149.627, -49.6244, 98.8667
8.20821, 99, 12.1391, -39.358, 51.3518, -149.864, -49.4938, 99.978
8.2156, 99, 12.3063, -39.22, 51.2383, -150.106, -49.3924, 101.085
8.22357, 99, 12.4682, -39.0598, 51.1076, -150.351, -49.3221, 102.174
8.2317, 99, 12.6227, -38.8773, 50.9609, -150.593, -49.2825, 103.239
8.24036, 100, 12.7686, -38.6708, 50.7985, -150.833, -49.2743, 104.273
8.2477, 100, 12.9057, -38.4402, 50.6196, -151.068, -49.2981, 105.279
8.25586, 100, 13.0337, -38.187, 50.4236, -151.297, -49.3534, 106.256
8.26447, 100, 13.1533, -37.9115, 50.2111, -151.52, -49.4398, 107.21
8.2728, 100, 13.2647, -37.6153, 49.981, -151.737, -49.5576, 108.139
8.28199, 100, 13.3679, -37.2961, 49.7326, -151.948, -49.7061, 109.047
8.28846, 101, 13.463, -36.9528, 49.4676, -152.151, -49.8847, 109.934
8.29592, 101, 13.5076, -36.7716, 49.3285, -152.345, -50.0931, 110.796
8.3033, 101, 13.5908, -36.3889, 49.0375, -152.439, -50.2085, 111.219
8.31313, 101, 13.7003, -35.7662, 48.5676, -152.706, -50.6002, 112.454
8.31931, 101, 13.7328, -35.5466, 48.4017, -152.791, -50.7465, 112.854
8.33955, 101, 13.8177, -34.852, 47.8764, -153.028, -51.2347, 114.028
8.34172, 102, 13.8827, -34.104, 47.3104, -153.24, -51.7989, 115.15
8.34326, 102, 13.8827, -34.104, 47.3104, -153.24, -51.7989, 115.15
8.3534, 102, 13.9271, -33.301, 46.7049, -153.423, -52.4386, 116.223
8.35932, 102, 13.9373, -33.0216, 46.4951, -153.478, -52.6683, 116.567
8.3687, 102, 13.9553, -32.1502, 45.8446, -153.62, -53.4038, 117.562
8.37531, 102, 13.9572, -31.8486, 45.6208, -153.66, -53.663, 117.881
8.38329, 103, 13.9555, -31.2303, 45.1631, -153.73, -54.2007, 118.496
8.39135, 103, 13.9469, -30.5937, 44.6935, -153.788, -54.7626, 119.084
8.40087, 103, 13.9221, -29.6097, 43.97, -153.847, -55.6438, 119.918
8.40988, 103, 13.8983, -28.9364, 43.4777, -153.871, -56.2537, 120.44
8.41701, 103, 13.8845, -28.2511, 42.9791, -153.884, -56.8791, 120.935
8.42326, 104, 13.8535, -27.9047, 42.7279, -153.887, -57.1963, 121.173
8.4323, 104, 13.8184, -27.2054, 42.2232, -153.884, -57.8398, 121.63
8.43938, 104, 13.7792, -26.4988, 41.7156, -153.871, -58.497, 122.065
8.44842, 104, 13.7367, -25.7861, 41.2061, -153.849, -59.1664, 122.479
8.45537, 104, 13.6918, -25.0697, 40.6958, -153.819, -59.8464, 122.875
8.46329, 104, 13.6452, -24.3509, 40.1851, -153.781, -60.5338, 123.255
8.47129, 104, 13.5968, -23.6303, 39.675, -153.735, -61.2266, 123.624
8.47932, 104, 13.547, -22.908, 39.1658, -153.686, -61.9249, 123.985
8.4873, 104, 13.4962, -22.1852, 38.6576, -153.63, -62.6264, 124.34
8.49535, 104, 13.4448, -21.4614, 38.1513, -153.57, -63.3299, 124.692
8.50329, 104, 13.3929, -20.7384, 37.6463, -153.506, -64.0338, 125.042
8.51132, 104, 13.3407, -20.0153, 37.1426, -153.436, -64.7385, 125.39
8.51938, 104, 13.2883, -19.2918, 36.6409, -153.364, -65.4447, 125.736
8.52729, 104, 13.2358, -18.5682, 36.1412, -153.287, -66.1519, 126.082
8.5353, 104, 13.1834, -17.8447, 35.644, -153.207, -66.86, 126.428
8.54346, 104, 13.1313, -17.1206, 35.1491, -153.122, -67.5687, 126.772
8.55129, 104, 13.0795, -16.3962, 34.6559, -153.033, -68.2763, 127.116
8.5593, 104, 13.028, -15.6718, 34.165, -152.941, -68.9856, 127.46
8.56737, 104, 12.9769, -14.947, 33.6762, -152.844, -69.6967, 127.803
8.57537, 104, 12.9261, -14.2218, 33.1898, -152.744, -70.4082, 128.146
8.58329, 104, 12.8757, -13.4967, 32.7061, -152.641, -71.1184, 128.49
8.59136, 104, 12.8256, -12.771, 32.2251, -152.532, -71.8292, 128.834
8.5993, 104, 12.7757, -12.0452, 31.7467, -152.421, -72.5421, 129.178
8.60733, 104, 12.7261, -11.3202, 31.2708, -152.305, -73.2548, 129.523
8.61539, 104, 12.6772, -10.5951, 30.7974, -152.186, -73.9679, 129.869
8.62331, 104, 12.6284, -9.86952, 30.3269, -152.062, -74.6812, 130.215
8.63136, 104, 12.5799, -9.144, 29.8597, -151.935, -75.394, 130.562
8.63946, 104, 12.5321, -8.418, 29.3954, -151.803, -76.1087, 130.91
8.6474, 104, 12.4847, -7.69175, 28.9344, -151.668, -76.8238, 131.259
8.65541, 104, 12.4378, -6.96612, 28.4767, -151.528, -77.5397, 131.609
8.66346, 104, 12.3916, -6.24101, 28.0221, -151.384, -78.2546, 131.96
8.6721, 104, 12.3458, -5.5163, 27.5712, -151.236, -78.9686, 132.312
8.68032, 104, 12.3007, -4.79255, 27.1241, -151.083, -79.684, 132.666
8.68756, 104, 12.2566, -4.07005, 26.6811, -150.927, -80.3999, 133.021
8.69534, 104, 12.2135, -3.35049, 26.2434, -150.767, -81.1145, 133.377
8.70342, 104, 12.1714, -2.63603, 25.8105, -150.602, -81.8251, 133.734
8.7114, 104, 12.1307, -1.92789, 25.3837, -150.435, -82.532, 134.091
8.7195, 104, 12.0912, -1.22706, 24.9647, -150.264, -83.235, 134.446
8.72758, 104, 12.0525, -0.535295, 24.5541, -150.091, -83.9298, 134.799
8.73562, 104, 12.0149, 0.146311, 24.1538, -149.916, -84.614, 135.149
8.74367, 104, 11.9783, 0.817084, 23.7646, -149.74, -85.285, 135.495
8.75177, 104, 11.9427, 1.47515, 23.3877, -149.564, -85.9414, 135.836
8.7598, 104, 11.9085, 2.11969, 23.0236, -149.388, -86.5836, 136.171
8.76844, 104, 11.8753, 2.74862, 22.6718, -149.212, -87.2101, 136.499
8.77584, 104, 11.8431, 3.3616, 22.3328, -149.037, -87.8206, 136.82
8.78441, 104, 11.8124, 3.95796, 22.0071, -148.864, -88.4143, 137.135
8.79265, 104, 11.7828, 4.53731, 21.694, -148.691, -88.9902, 137.443
8.80007, 104, 11.7685, 4.82089, 21.5422, -148.606, -89.5492, 137.745
8.80728, 104, 11.741, 5.37527, 21.2466, -148.436, -89.8231, 137.893
8.81535, 104, 11.7147, 5.91204, 20.963, -148.267, -90.3586, 138.183
8.82495, 104, 11.6773, 6.68595, 20.5598, -148.019, -91.1312, 138.606
8.83235, 104, 11.6538, 7.18069, 20.3056, -147.857, -91.6257, 138.878
8.83933, 104, 11.6425, 7.4216, 20.1829, -147.777, -91.8662, 139.011
8.8473, 104, 11.6208, 7.89143, 19.9454, -147.619, -92.3346, 139.272
8.85538, 104, 11.6001, 8.34454, 19.7187, -147.464, -92.7866, 139.526
8.86329, 104, 11.5807, 8.78075, 19.5033, -147.312, -93.222, 139.771
8.87129, 104, 11.5623, 9.19911, 19.2982, -147.164, -93.6407, 140.008
8.88142, 104, 11.537, 9.79457, 19.0096, -146.95, -94.2368, 140.348
8.88728, 104, 11.529, 9.98402, 18.9189, -146.881, -94.4268, 140.457
8.89528, 104, 11.5139, 10.349, 18.7456, -146.746, -94.793, 140.668
8.90484, 104, 11.4932, 10.8603, 18.5044, -146.553, -95.3074, 140.966
8.91301, 104, 11.4807, 11.1768, 18.3573, -146.432, -95.6258, 141.152
8.91927, 104, 11.4749, 11.3273, 18.2878, -146.374, -95.7773, 141.241
8.92898, 104, 11.4639, 11.748, 18.0949, -146.211, -96.2009, 141.489
8.93528, 104, 11.4541, 11.8777, 18.0359, -146.16, -96.3313, 141.566
8.94432, 104, 11.445, 12.121, 17.9259, -146.064, -96.576, 141.71
8.95137, 104, 11.4366, 12.3431, 17.8264, -145.976, -96.7988, 141.843
8.95928, 104, 11.4291, 12.5445, 17.7373, -145.896, -96.9996, 141.962
8.96728, 104, 11.4223, 12.7246, 17.6585, -145.824, -97.1784, 142.069
8.97536, 104, 11.4163, 12.8837, 17.5899, -145.761, -97.3352, 142.162
8.98328, 104, 11.4108, 13.0228, 17.5309, -145.706, -97.47, 142.243
8.99129, 104, 11.4058, 13.1428, 17.4814, -145.66, -97.5839, 142.311
8.99936, 104, 11.4012, 13.2444, 17.4408, -145.623, -97.677, 142.367
9.00727, 104, 11.3971, 13.3286, 17.4081, -145.592, -97.7519, 142.412
9.0153, 104, 11.3933, 13.3976, 17.383, -145.568, -97.809, 142.447
9.02343, 104, 11.3899, 13.4532, 17.3643, -145.55, -97.8512, 142.472
9.03129, 104, 11.3869, 13.4969, 17.351, -145.538, -97.8813, 142.49
9.03928, 104, 11.3845, 13.5298, 17.3422, -145.529, -97.9019, 142.502
9.04734, 104, 11.3826, 13.5544, 17.3365, -145.524, -97.9151, 142.509
9.05528, 104, 11.3811, 13.5723, 17.333, -145.521, -97.9227, 142.513
9.06327, 104, 11.3799, 13.5845, 17.3311, -145.519, -97.9268, 142.515
9.07133, 105, 11.379, 13.593, 17.3301, -145.518, -97.9288, 142.516
9.07927, 105, 11.3784, 13.5986, 17.3296, -145.518, -97.9298, 142.517
9.0873, 105, 11.3779, 13.6022, 17.3294, -145.518, -97.9302, 142.517
9.09534, 105, 11.3776, 13.6048, 17.3293, -145.518, -97.9304, 142.517
9.10328, 105, 11.3773, 13.6069, 17.3293, -145.518, -97.9305, 142.517
9.11129, 105, 11.3771, 13.6087, 17.3293, -145.518, -97.9305, 142.517
9.11934, 105, 11.377, 13.6103, 17.3293, -145.518, -97.9305, 142.517
9.12731, 105, 11.3768, 13.6116, 17.3293, -145.518, -97.9305, 142.517
9.13534, 105, 11.3767, 13.6128, 17.3293, -145.518, -97.9304, 142.517
9.14343, 105, 11.3767, 13.6138, 17.3293, -145.518, -97.9303, 142.517
9.1514, 105, 11.3766, 13.6146, 17.3293, -145.518, -97.9302, 142.517
9.15939, 105, 11.3766, 13.6153, 17.3293, -145.518, -97.93, 142.517
9.16746, 105, 11.3766, 13.6157, 17.3293, -145.518, -97.9299, 142.517
9.17538, 105, 11.3766, 13.616, 17.3294, -145.518, -97.9297, 142.517
9.1833, 105, 11.3766, 13.6162, 17.3294, -145.518, -97.9296, 142.517
9.19176, 105, 11.3766, 13.6163, 17.3294, -145.518, -97.9295, 142.517
