hehonglu123/Motion-Primitive-Planning/ILC/recorded_data/realrobot/wood/iteration_28/run_3.csv
timestamp, cmd_num, J1, J2, J3, J4, J5, J6
0.001068, -1, 11.3764, 13.6172, 17.3309, -145.52, -97.9273, 142.517
0.004919, -1, 11.3764, 13.6172, 17.3309, -145.52, -97.9273, 142.517
0.007758, -1, 11.3764, 13.6172, 17.3309, -145.52, -97.9273, 142.517
0.029713, -1, 11.3764, 13.6172, 17.3309, -145.52, -97.9272, 142.517
0.031149, -1, 11.3764, 13.6171, 17.3309, -145.52, -97.9272, 142.517
0.033614, -1, 11.3764, 13.6172, 17.3309, -145.52, -97.9272, 142.517
0.039632, -1, 11.3764, 13.6172, 17.3309, -145.52, -97.9272, 142.517
0.047589, -1, 11.3764, 13.6172, 17.3309, -145.52, -97.9272, 142.517
0.05558, -1, 11.3758, 13.6171, 17.3309, -145.52, -97.9272, 142.517
0.189114, -1, 10.1925, 13.3046, 17.4077, -145.89, -97.801, 140.378
0.191135, -1, 10.1174, 13.2842, 17.4127, -145.913, -97.7927, 140.239
0.192383, -1, 10.1174, 13.2842, 17.4127, -145.913, -97.7927, 140.239
0.193635, -1, 10.1174, 13.2842, 17.4127, -145.913, -97.7927, 140.239
0.195598, -1, 10.0415, 13.2638, 17.4177, -145.937, -97.7843, 140.1
0.19688, -1, 10.0415, 13.2638, 17.4177, -145.937, -97.7843, 140.1
0.200439, -1, 9.96492, 13.2432, 17.4228, -145.961, -97.7758, 139.961
0.203648, -1, 9.88776, 13.2225, 17.4278, -145.985, -97.7672, 139.821
0.204978, -1, 9.88776, 13.2225, 17.4278, -145.985, -97.7672, 139.821
0.207383, -1, 9.81017, 13.2018, 17.4329, -146.009, -97.7585, 139.682
0.208666, -1, 9.81017, 13.2018, 17.4329, -146.009, -97.7585, 139.682
0.210477, -1, 9.81017, 13.2018, 17.4329, -146.009, -97.7585, 139.542
0.211926, -1, 9.73238, 13.181, 17.4379, -146.033, -97.7499, 139.542
0.213133, -1, 9.73238, 13.181, 17.4379, -146.033, -97.7499, 139.542
0.215148, -1, 9.65459, 13.1603, 17.4429, -146.057, -97.7412, 139.402
0.219347, -1, 9.57689, 13.1396, 17.448, -146.081, -97.7327, 139.262
0.220627, -1, 9.57689, 13.1396, 17.448, -146.081, -97.7327, 139.262
0.221829, -1, 9.57689, 13.1396, 17.448, -146.081, -97.7327, 139.262
0.225216, -1, 9.49934, 13.119, 17.453, -146.105, -97.7242, 139.123
0.227452, -1, 9.42192, 13.0984, 17.458, -146.129, -97.7157, 138.983
0.228672, -1, 9.42192, 13.0984, 17.458, -146.129, -97.7157, 138.983
0.231559, -1, 9.34459, 13.0778, 17.4629, -146.153, -97.7073, 138.843
0.239567, -1, 9.19018, 13.0367, 17.4729, -146.201, -97.6906, 138.563
0.249014, -1, 9.03622, 12.9956, 17.483, -146.249, -97.6739, 138.283
0.255645, -1, 8.88247, 12.9545, 17.4932, -146.297, -97.6571, 138.004
0.263723, -1, 8.72886, 12.9135, 17.5033, -146.345, -97.6399, 137.724
0.271942, -1, 8.5758, 12.8723, 17.5134, -146.392, -97.6225, 137.444
0.279663, -1, 8.42313, 12.8311, 17.5236, -146.441, -97.6049, 137.163
0.287731, -1, 8.27018, 12.7897, 17.5338, -146.489, -97.5876, 136.883
0.295921, -1, 8.11679, 12.7481, 17.544, -146.536, -97.5705, 136.603
0.303677, -1, 7.96298, 12.7064, 17.5542, -146.585, -97.5537, 136.323
0.311659, -1, 7.80846, 12.6647, 17.5644, -146.632, -97.5371, 136.042
0.321093, -1, 7.65359, 12.623, 17.5745, -146.68, -97.5204, 135.762
0.326606, -1, 7.57616, 12.6021, 17.5796, -146.704, -97.512, 135.622
0.335777, -1, 7.3436, 12.5398, 17.5949, -146.776, -97.4865, 135.201
0.343752, -1, 7.18865, 12.4982, 17.6052, -146.824, -97.4692, 134.921
0.352155, -1, 7.03364, 12.4567, 17.6155, -146.873, -97.4518, 134.641
0.359973, -1, 6.87845, 12.4154, 17.6258, -146.921, -97.4347, 134.361
0.36797, -1, 6.7235, 12.3741, 17.6361, -146.969, -97.4178, 134.08
0.376003, -1, 6.56875, 12.3327, 17.6466, -147.017, -97.401, 133.8
0.384187, -1, 6.41423, 12.2914, 17.657, -147.065, -97.3843, 133.519
0.392086, -1, 6.25993, 12.25, 17.6674, -147.113, -97.3674, 133.239
0.400276, -1, 6.10566, 12.2085, 17.6777, -147.161, -97.3503, 132.958
0.408288, -1, 5.95122, 12.167, 17.6879, -147.209, -97.3329, 132.677
0.416154, -1, 5.87394, 12.1463, 17.6983, -147.257, -97.3153, 132.397
0.424312, -1, 5.71919, 12.1045, 17.7086, -147.305, -97.2979, 132.116
0.431566, -1, 5.56426, 12.0628, 17.7137, -147.33, -97.2893, 131.975
0.439552, -1, 5.40914, 12.0211, 17.724, -147.377, -97.2723, 131.694
0.447601, -1, 5.25382, 11.9794, 17.7343, -147.426, -97.2554, 131.413
0.455554, -1, 5.09819, 11.9377, 17.7446, -147.474, -97.2387, 131.132
0.463562, -1, 4.94243, 11.8961, 17.7552, -147.522, -97.2218, 130.851
0.471627, -1, 4.78673, 11.8544, 17.7656, -147.57, -97.2048, 130.57
0.479556, -1, 4.63102, 11.8129, 17.7761, -147.619, -97.1874, 130.289
0.48759, -1, 4.47532, 11.7713, 17.7865, -147.666, -97.1699, 130.008
0.495604, -1, 4.31981, 11.7298, 17.7969, -147.715, -97.1526, 129.727
0.503564, -1, 4.16452, 11.6884, 17.8074, -147.763, -97.1355, 129.446
0.51156, -1, 4.00963, 11.6469, 17.8178, -147.811, -97.1185, 129.165
0.519676, -1, 3.85514, 11.6054, 17.8282, -147.86, -97.1017, 128.884
0.527553, -1, 3.70084, 11.5639, 17.8385, -147.908, -97.0848, 128.603
0.535548, -1, 3.54642, 11.5222, 17.8488, -147.956, -97.0678, 128.321
0.543629, -1, 3.39174, 11.4805, 17.8592, -148.005, -97.0505, 128.04
0.551549, -1, 3.23673, 11.4388, 17.8697, -148.053, -97.0329, 127.758
0.560546, -1, 3.08152, 11.397, 17.8801, -148.101, -97.0154, 127.477
0.567617, -1, 2.92617, 11.3552, 17.8906, -148.15, -96.9981, 127.195
0.576617, -1, 2.77064, 11.3134, 17.901, -148.198, -96.9811, 126.913
0.583556, -1, 2.61488, 11.2717, 17.9113, -148.246, -96.9643, 126.632
0.591606, -1, 2.45876, 11.2299, 17.9217, -148.294, -96.9476, 126.35
0.599558, -1, 2.30236, 11.1881, 17.9322, -148.343, -96.9307, 126.068
0.607561, -1, 2.14571, 11.1464, 17.9426, -148.391, -96.9135, 125.786
0.61571, -1, 1.98893, 11.1046, 17.953, -148.439, -96.8961, 125.504
0.623563, -1, 1.83234, 11.0629, 17.9634, -148.488, -96.8786, 125.222
0.631615, -1, 1.67597, 11.0212, 17.9738, -148.536, -96.8613, 124.94
0.639644, -1, 1.51975, 10.9794, 17.9843, -148.585, -96.8442, 124.658
0.64755, -1, 1.36386, 10.9377, 17.9948, -148.633, -96.8272, 124.376
0.783759, -1, -1.28947, 10.2265, 18.1721, -149.457, -96.536, 119.571
0.785053, -1, -1.28947, 10.2265, 18.1721, -149.457, -96.536, 119.571
0.786304, -1, -1.28947, 10.2265, 18.1721, -149.457, -96.536, 119.571
0.788501, -1, -1.36789, 10.2055, 18.1773, -149.482, -96.5276, 119.43
0.789686, -1, -1.36789, 10.2055, 18.1773, -149.482, -96.5276, 119.43
0.791726, -1, -1.4463, 10.1846, 18.1825, -149.506, -96.5192, 119.288
0.793021, -1, -1.4463, 10.1846, 18.1825, -149.506, -96.5192, 119.288
0.795753, -1, -1.52466, 10.1637, 18.1877, -149.53, -96.5108, 119.146
0.797073, -1, -1.52466, 10.1637, 18.1877, -149.53, -96.5108, 119.146
0.798383, -1, -1.52466, 10.1637, 18.1877, -149.53, -96.5108, 119.146
0.800481, -1, -1.60288, 10.1427, 18.1929, -149.554, -96.5024, 119.005
0.801667, -1, -1.60288, 10.1427, 18.1929, -149.554, -96.5024, 119.005
0.804332, -1, -1.681, 10.1218, 18.1982, -149.579, -96.4939, 118.863
0.807289, -1, -1.681, 10.1218, 18.1982, -149.579, -96.4939, 118.721
0.808734, -1, -1.759, 10.1009, 18.2035, -149.603, -96.4853, 118.721
0.814394, -1, -1.83688, 10.0799, 18.2087, -149.628, -96.4767, 118.58
0.8164, -1, -1.91466, 10.0589, 18.2139, -149.652, -96.468, 118.438
0.817742, -1, -1.91466, 10.0589, 18.2139, -149.652, -96.468, 118.438
0.819567, -1, -1.99237, 10.038, 18.2192, -149.676, -96.4591, 118.296
0.821015, -1, -1.99237, 10.038, 18.2192, -149.676, -96.4591, 118.296
0.822226, -1, -1.99237, 10.038, 18.2192, -149.676, -96.4591, 118.296
0.82435, -1, -2.06999, 10.017, 18.2244, -149.7, -96.4503, 118.154
0.833543, -1, -2.22509, 9.97514, 18.2349, -149.749, -96.4327, 117.871
0.839678, -1, -2.38035, 9.93323, 18.2452, -149.798, -96.4154, 117.587
0.84779, -1, -2.53594, 9.89122, 18.2558, -149.846, -96.3983, 117.303
0.855975, -1, -2.69176, 9.84927, 18.2662, -149.895, -96.3814, 117.019
0.863856, -1, -2.84794, 9.80731, 18.2765, -149.943, -96.3646, 116.736
0.872064, -1, -3.00457, 9.76533, 18.287, -149.992, -96.3478, 116.452
0.880086, -1, -3.16158, 9.72339, 18.2973, -150.041, -96.3306, 116.168
0.88807, -1, -3.31899, 9.6814, 18.3078, -150.089, -96.3131, 115.884
0.896241, -1, -3.47679, 9.63938, 18.3184, -150.138, -96.2955, 115.601
0.904171, -1, -3.63457, 9.59745, 18.3288, -150.187, -96.278, 115.317
0.912157, -1, -3.79245, 9.55556, 18.3392, -150.235, -96.2608, 115.032
0.920192, -1, -3.95052, 9.51349, 18.3496, -150.284, -96.2437, 114.748
0.928205, -1, -4.02945, 9.49249, 18.3549, -150.309, -96.2353, 114.464
0.935543, -1, -4.18726, 9.45057, 18.3653, -150.358, -96.2183, 114.322
0.943585, -1, -4.34503, 9.40856, 18.3756, -150.406, -96.2012, 114.037
0.951561, -1, -4.50255, 9.36653, 18.386, -150.455, -96.1838, 113.752
0.959538, -1, -4.65948, 9.32449, 18.3964, -150.504, -96.1661, 113.468
0.967586, -1, -4.81597, 9.2824, 18.4068, -150.553, -96.1484, 113.183
0.975552, -1, -4.97225, 9.24026, 18.4173, -150.602, -96.1308, 112.898
0.983538, -1, -5.12828, 9.19819, 18.4279, -150.65, -96.1136, 112.613
0.991605, -1, -5.28414, 9.15606, 18.4384, -150.699, -96.0966, 112.329
0.999549, -1, -5.44014, 9.11387, 18.449, -150.748, -96.0797, 112.044
1.00755, -1, -5.59633, 9.07178, 18.4594, -150.797, -96.0627, 111.759
1.01554, -1, -5.75283, 9.02966, 18.4699, -150.845, -96.0456, 111.474
1.02364, -1, -5.90981, 8.98745, 18.4804, -150.895, -96.0282, 111.189
1.0316, -1, -6.0672, 8.94529, 18.4907, -150.943, -96.0106, 110.904
1.03954, -1, -6.22515, 8.90315, 18.5011, -150.992, -95.993, 110.619
1.04755, -1, -6.38341, 8.861, 18.5115, -151.041, -95.9757, 110.334
1.0571, -1, -6.54179, 8.81891, 18.5219, -151.09, -95.9586, 110.049
1.06356, -1, -6.70032, 8.77673, 18.5324, -151.139, -95.9415, 109.763
1.07253, -1, -6.85898, 8.73456, 18.543, -151.188, -95.9246, 109.478
1.0796, -1, -7.01753, 8.69245, 18.5535, -151.237, -95.9074, 109.192
1.08754, -1, -7.17605, 8.65027, 18.564, -151.286, -95.89, 108.907
1.09555, -1, -7.33441, 8.60806, 18.5743, -151.335, -95.8722, 108.621
1.10363, -1, -7.49247, 8.56575, 18.5848, -151.384, -95.8545, 108.335
1.11154, -1, -7.65009, 8.52341, 18.5954, -151.433, -95.8369, 108.049
1.11961, -1, -7.80742, 8.48112, 18.6058, -151.483, -95.8197, 107.764
1.12753, -1, -7.96436, 8.43884, 18.6163, -151.531, -95.8027, 107.478
1.13554, -1, -8.12104, 8.39647, 18.6266, -151.58, -95.7858, 107.192
1.14403, -1, -8.27757, 8.35413, 18.6371, -151.63, -95.7688, 106.906
1.15155, -1, -8.43421, 8.31177, 18.6477, -151.678, -95.7516, 106.62
1.15955, -1, -8.59122, 8.26939, 18.6583, -151.727, -95.7341, 106.334
1.16834, -1, -8.74858, 8.22711, 18.6688, -151.777, -95.7163, 106.047
1.17553, -1, -8.90628, 8.18476, 18.6792, -151.825, -95.6988, 105.761
1.18354, -1, -9.06438, 8.14242, 18.6896, -151.875, -95.6814, 105.475
1.19241, -1, -9.22294, 8.10017, 18.7002, -151.924, -95.6642, 105.188
1.19961, -1, -9.38183, 8.05784, 18.7106, -151.973, -95.6471, 104.902
1.20755, -1, -9.54088, 8.01547, 18.7211, -152.022, -95.6301, 104.615
1.21633, -1, -9.70001, 7.97324, 18.7316, -152.072, -95.6127, 104.328
1.22354, -1, -9.85926, 7.93098, 18.7421, -152.121, -95.5952, 104.041
1.2316, -1, -10.0187, 7.88855, 18.7528, -152.17, -95.5773, 103.754
1.24035, -1, -10.1779, 7.84612, 18.7634, -152.22, -95.5595, 103.467
1.24754, -1, -10.3369, 7.8036, 18.774, -152.269, -95.5419, 103.181
1.25586, -1, -10.4959, 7.76111, 18.7846, -152.318, -95.5246, 102.894
1.26442, -1, -10.6544, 7.71863, 18.795, -152.367, -95.5076, 102.607
1.27163, -1, -10.8125, 7.67609, 18.8055, -152.416, -95.4906, 102.32
1.27998, -1, -10.9704, 7.6335, 18.8161, -152.466, -95.4735, 102.033
1.28844, -1, -11.128, 7.59097, 18.8265, -152.515, -95.4561, 101.745
1.29565, -1, -11.2854, 7.54847, 18.837, -152.564, -95.4384, 101.457
1.30415, -1, -11.4428, 7.50596, 18.8476, -152.614, -95.4206, 101.17
1.31247, -1, -11.6004, 7.46344, 18.858, -152.663, -95.403, 100.883
1.31962, -1, -11.7582, 7.421, 18.8687, -152.712, -95.3856, 100.595
1.3285, -1, -11.9166, 7.37854, 18.8793, -152.762, -95.3683, 100.307
1.33648, -1, -12.0754, 7.33614, 18.8899, -152.811, -95.3511, 100.02
1.34366, -1, -12.2345, 7.29374, 18.9005, -152.86, -95.3339, 99.7317
1.35255, -1, -12.3941, 7.2513, 18.9109, -152.91, -95.3164, 99.4436
1.36113, -1, -12.5539, 7.20888, 18.9215, -152.959, -95.2986, 99.1555
1.36804, -1, -12.7138, 7.16644, 18.9321, -153.008, -95.2806, 98.8676
1.376, -1, -12.8739, 7.12396, 18.9427, -153.058, -95.2628, 98.5798
1.38552, -1, -13.034, 7.08137, 18.9533, -153.108, -95.2452, 98.2915
1.39209, -1, -13.194, 7.03876, 18.9638, -153.157, -95.2279, 98.0036
1.40008, -1, -13.3538, 6.99612, 18.9744, -153.207, -95.2107, 97.7155
1.40961, -1, -13.5132, 6.95337, 18.985, -153.256, -95.1936, 97.427
1.41635, -1, -13.6724, 6.91059, 18.9956, -153.305, -95.1763, 97.1383
1.42418, -1, -13.8315, 6.86789, 19.0062, -153.355, -95.1588, 96.8498
1.43281, -1, -13.9109, 6.84655, 19.0114, -153.38, -95.1499, 96.7056
1.44015, -1, -14.0693, 6.80383, 19.0219, -153.429, -95.132, 96.4169
1.44753, -1, -14.2275, 6.7612, 19.0325, -153.479, -95.1143, 96.128
1.45554, -1, -14.3856, 6.71854, 19.0431, -153.528, -95.0969, 95.8389
1.46357, -1, -14.5439, 6.67585, 19.0536, -153.577, -95.0797, 95.5501
1.47153, -1, -14.7025, 6.6333, 19.0642, -153.627, -95.0624, 95.2607
1.47955, -1, -14.8615, 6.59075, 19.0747, -153.676, -95.0452, 94.9712
1.48757, -1, -15.0208, 6.54805, 19.0855, -153.726, -95.0278, 94.6821
1.49552, -1, -15.1806, 6.50546, 19.0962, -153.776, -95.0101, 94.3931
1.50352, -1, -15.3407, 6.46288, 19.1069, -153.825, -94.9921, 94.1039
1.51158, -1, -15.5011, 6.42017, 19.1177, -153.875, -94.9741, 93.8145
1.51953, -1, -15.6618, 6.37748, 19.1282, -153.925, -94.9564, 93.5252
1.5276, -1, -15.8225, 6.33469, 19.1388, -153.974, -94.9391, 93.236
1.53552, -1, -15.9833, 6.29179, 19.1496, -154.024, -94.9218, 92.9464
1.54352, -1, -16.1442, 6.24896, 19.1601, -154.074, -94.9047, 92.6565
1.55161, -1, -16.305, 6.20605, 19.1707, -154.123, -94.8874, 92.367
1.55952, -1, -16.4655, 6.16302, 19.1812, -154.173, -94.8699, 92.0774
1.56851, -1, -16.6259, 6.12005, 19.1918, -154.223, -94.8521, 91.7871
1.57558, -1, -16.7857, 6.07708, 19.2025, -154.272, -94.8342, 91.497
1.58352, -1, -16.9451, 6.03407, 19.2131, -154.322, -94.8165, 91.2069
1.59153, -1, -17.1044, 5.9911, 19.2238, -154.372, -94.7991, 90.9168
1.59959, -1, -17.2635, 5.94813, 19.2343, -154.421, -94.7817, 90.6263
1.60752, -1, -17.4226, 5.90529, 19.2449, -154.471, -94.7644, 90.336
1.61552, -1, -17.5819, 5.86246, 19.2557, -154.521, -94.747, 90.0459
1.62358, -1, -17.7412, 5.81961, 19.2664, -154.57, -94.7293, 89.7556
1.63163, -1, -17.9008, 5.77682, 19.2771, -154.621, -94.7114, 89.4654
1.63959, -1, -18.0609, 5.73397, 19.2878, -154.671, -94.6933, 89.1749
1.64754, -1, -18.2214, 5.69115, 19.2984, -154.72, -94.6754, 88.8845
1.65552, -1, -18.3823, 5.64834, 19.3091, -154.77, -94.6578, 88.5938
1.66359, -1, -18.5436, 5.6054, 19.3198, -154.82, -94.6404, 88.3028
1.67154, -1, -18.7052, 5.56243, 19.3305, -154.87, -94.6231, 88.0119
1.67951, -1, -18.8669, 5.51946, 19.3412, -154.92, -94.6058, 87.7211
1.6876, -1, -19.0286, 5.47642, 19.3517, -154.97, -94.5883, 87.4298
1.6956, -1, -19.1902, 5.43323, 19.3624, -155.02, -94.5704, 87.1384
1.70352, -1, -19.3517, 5.3901, 19.3731, -155.07, -94.5523, 86.847
1.71161, -1, -19.513, 5.34696, 19.3836, -155.12, -94.5342, 86.5555
1.71952, -1, -19.6739, 5.30373, 19.3943, -155.17, -94.5165, 86.2638
1.72759, -1, -19.8346, 5.26057, 19.4049, -155.22, -94.4989, 85.9718
1.73552, -1, -19.995, 5.21739, 19.4156, -155.27, -94.4816, 85.6804
1.74352, -1, -20.155, 5.17424, 19.4265, -155.32, -94.4642, 85.3888
1.75182, -1, -20.3148, 5.13127, 19.4373, -155.37, -94.4466, 85.0969
1.75959, -1, -20.4747, 5.08825, 19.4482, -155.42, -94.4288, 84.805
1.76761, -1, -20.6348, 5.04515, 19.4589, -155.47, -94.4106, 84.5132
1.77592, -1, -20.7951, 5.0022, 19.4696, -155.521, -94.3926, 84.2213
1.78362, -1, -20.9558, 4.9592, 19.4803, -155.57, -94.3748, 83.929
1.79164, -1, -21.1168, 4.91609, 19.491, -155.621, -94.3574, 83.6368
1.80017, -1, -21.2783, 4.873, 19.5017, -155.671, -94.3401, 83.3449
1.80753, -1, -21.4403, 4.82978, 19.5123, -155.721, -94.3229, 83.0526
1.81556, -1, -21.6024, 4.78651, 19.523, -155.771, -94.3055, 82.7601
1.82437, -1, -21.7647, 4.74331, 19.5338, -155.822, -94.2879, 82.4675
1.83157, -1, -21.9271, 4.69994, 19.5446, -155.871, -94.2699, 82.1751
1.83962, -1, -22.0896, 4.65655, 19.5554, -155.922, -94.2518, 81.8822
1.84856, -1, -22.2521, 4.6132, 19.5661, -155.972, -94.234, 81.5892
1.85573, -1, -22.4145, 4.56975, 19.5768, -156.022, -94.2164, 81.2966
1.86393, -1, -22.5765, 4.52635, 19.5876, -156.073, -94.199, 81.0039
1.87278, -1, -22.7382, 4.48292, 19.5982, -156.123, -94.1815, 80.7112
1.87997, -1, -22.8996, 4.43947, 19.6089, -156.173, -94.164, 80.4179
1.88808, -1, -23.0608, 4.39614, 19.6197, -156.223, -94.1461, 80.1249
1.89691, -1, -23.2219, 4.35282, 19.6303, -156.274, -94.1279, 79.832
1.90405, -1, -23.3827, 4.30949, 19.6412, -156.324, -94.1096, 79.5384
1.91211, -1, -23.5435, 4.26621, 19.6521, -156.375, -94.0915, 79.245
1.921, -1, -23.7046, 4.22293, 19.6629, -156.425, -94.0737, 78.9517
1.9281, -1, -23.7851, 4.20128, 19.6683, -156.475, -94.0562, 78.6581
1.93612, -1, -23.9464, 4.15799, 19.679, -156.501, -94.0388, 78.3643
1.94352, -1, -24.1081, 4.1146, 19.6897, -156.551, -94.03, 78.2173
1.95152, -1, -24.2704, 4.07117, 19.7006, -156.601, -94.0125, 77.9234
1.95956, -1, -24.433, 4.02774, 19.7112, -156.652, -93.9947, 77.6294
1.96753, -1, -24.5959, 3.98419, 19.7219, -156.702, -93.9765, 77.3352
1.97668, -1, -24.8408, 3.91879, 19.7379, -156.778, -93.9495, 76.8941
1.98353, -1, -24.9224, 3.897, 19.7433, -156.803, -93.9406, 76.7473
1.99152, -1, -25.0859, 3.85342, 19.7543, -156.853, -93.9229, 76.4531
1.99957, -1, -25.2492, 3.80981, 19.7652, -156.904, -93.9054, 76.1587
2.00756, -1, -25.4123, 3.76616, 19.776, -156.954, -93.8879, 75.8642
2.01552, -1, -25.5752, 3.72246, 19.7868, -157.004, -93.8702, 75.5701
2.02357, -1, -25.7379, 3.67878, 19.7975, -157.055, -93.8522, 75.2755
2.03157, -1, -25.9004, 3.63529, 19.8083, -157.105, -93.834, 74.9808
2.03952, -1, -26.0625, 3.59169, 19.8191, -157.156, -93.8157, 74.6862
2.04758, -1, -26.2243, 3.54818, 19.8299, -157.206, -93.7975, 74.3917
2.0555, -1, -26.3858, 3.50475, 19.8408, -157.257, -93.7797, 74.0968
2.0645, -1, -26.5475, 3.4612, 19.8515, -157.307, -93.7621, 73.8016
2.07158, -1, -26.7094, 3.41766, 19.8624, -157.358, -93.7444, 73.5064
2.08054, -1, -26.8717, 3.37411, 19.8732, -157.409, -93.7267, 73.2112
2.09024, -1, -27.0343, 3.33047, 19.8895, -157.485, -93.6997, 72.7678
2.09552, -1, -27.1971, 3.28684, 19.8949, -157.51, -93.6905, 72.6202
2.10361, -1, -27.3603, 3.24322, 19.9057, -157.561, -93.6723, 72.3251
2.11151, -1, -27.5239, 3.19938, 19.9165, -157.611, -93.6542, 72.0297
2.11952, -1, -27.6878, 3.15563, 19.9273, -157.662, -93.6363, 71.734
2.12767, -1, -27.8518, 3.11197, 19.9381, -157.712, -93.6185, 71.4383
2.13551, -1, -28.0161, 3.06821, 19.9489, -157.763, -93.6009, 71.1427
2.1435, -1, -28.1804, 3.02442, 19.9597, -157.814, -93.583, 70.8469
2.15159, -1, -28.3446, 2.98069, 19.9705, -157.864, -93.565, 70.5507
2.15949, -1, -28.5086, 2.93692, 19.9815, -157.915, -93.5466, 70.2547
2.16751, -1, -28.6724, 2.89323, 19.9924, -157.966, -93.5282, 69.959
2.17557, -1, -28.8359, 2.8495, 20.0032, -158.017, -93.5099, 69.6627
2.18351, -1, -28.9989, 2.80573, 20.0139, -158.068, -93.4919, 69.3661
2.19158, -1, -29.1617, 2.76204, 20.0247, -158.119, -93.4742, 69.0698
2.19965, -1, -29.3245, 2.71831, 20.0356, -158.169, -93.4565, 68.7731
2.2075, -1, -29.4872, 2.67459, 20.0464, -158.221, -93.4388, 68.4764
2.21551, -1, -29.6499, 2.63078, 20.0573, -158.272, -93.4208, 68.1795
2.22358, -1, -29.8129, 2.58695, 20.0681, -158.323, -93.4026, 67.8828
2.2315, -1, -29.976, 2.54318, 20.079, -158.374, -93.3842, 67.586
2.23951, -1, -30.1393, 2.49928, 20.09, -158.425, -93.3659, 67.289
2.24758, -1, -30.3031, 2.4553, 20.101, -158.475, -93.348, 66.9919
2.25563, -1, -30.4675, 2.41137, 20.112, -158.527, -93.33, 66.695
2.2636, -1, -30.6323, 2.36732, 20.1228, -158.577, -93.3123, 66.3978
2.27167, -1, -30.7973, 2.32335, 20.1336, -158.628, -93.2945, 66.1002
2.27965, -1, -30.9624, 2.2794, 20.1445, -158.68, -93.2764, 65.8029
2.28761, -1, -31.1274, 2.23531, 20.1554, -158.73, -93.2581, 65.5058
2.29569, -1, -31.2925, 2.19137, 20.1663, -158.781, -93.2395, 65.2084
2.3036, -1, -31.4575, 2.14749, 20.1771, -158.833, -93.2212, 64.9105
2.31151, -1, -31.6221, 2.10344, 20.1879, -158.884, -93.2032, 64.6128
2.31979, -1, -31.7867, 2.05946, 20.1989, -158.935, -93.1855, 64.3148
2.32751, -1, -31.9509, 2.01552, 20.2099, -158.986, -93.1678, 64.0167
2.33578, -1, -32.1149, 1.97147, 20.2209, -159.037, -93.1502, 63.7185
2.34368, -1, -32.2785, 1.92747, 20.2318, -159.089, -93.1323, 63.4208
2.35167, -1, -32.4419, 1.88345, 20.2427, -159.14, -93.1141, 63.1227
2.35987, -1, -32.6056, 1.83934, 20.2537, -159.191, -93.0957, 62.8245
2.36868, -1, -32.7694, 1.79528, 20.2646, -159.242, -93.0775, 62.5261
2.37585, -1, -32.9334, 1.75118, 20.2756, -159.293, -93.0594, 62.228
2.38438, -1, -33.0978, 1.70698, 20.2865, -159.344, -93.0415, 61.9294
2.3928, -1, -33.2625, 1.66282, 20.2973, -159.396, -93.0237, 61.6306
2.40008, -1, -33.4275, 1.61865, 20.3083, -159.447, -93.0059, 61.3321
2.40807, -1, -33.593, 1.57441, 20.3193, -159.498, -92.9878, 61.0336
2.41693, -1, -33.7587, 1.53021, 20.3303, -159.55, -92.9693, 60.7348
2.42409, -1, -33.8416, 1.48601, 20.3412, -159.6, -92.9507, 60.4356
2.43235, -1, -34.0905, 1.44183, 20.3521, -159.652, -92.9321, 60.1364
2.44076, -1, -34.1735, 1.41975, 20.3576, -159.678, -92.9229, 59.8372
2.44752, -1, -34.3397, 1.37555, 20.3686, -159.729, -92.9049, 59.6874
2.45554, -1, -34.5057, 1.33131, 20.3795, -159.78, -92.887, 59.3876
2.46349, -1, -34.6715, 1.28713, 20.3904, -159.832, -92.8692, 59.0883
2.4715, -1, -34.8366, 1.24292, 20.4014, -159.883, -92.8513, 58.789
2.4796, -1, -35.0016, 1.19865, 20.4124, -159.935, -92.8331, 58.4893
2.48753, -1, -35.1664, 1.15435, 20.4235, -159.986, -92.8147, 58.1894
2.4955, -1, -35.3308, 1.11007, 20.4346, -160.037, -92.7961, 57.8897
2.50354, -1, -35.4948, 1.06588, 20.4457, -160.089, -92.7778, 57.5899
2.51151, -1, -35.6571, 1.02205, 20.457, -160.14, -92.7597, 57.29
2.51955, -1, -35.8166, 0.978792, 20.4685, -160.191, -92.7417, 56.9914
2.52755, -1, -35.9722, 0.936681, 20.4805, -160.242, -92.724, 56.6962
2.53549, -1, -36.1225, 0.896193, 20.4924, -160.291, -92.7066, 56.407
2.5435, -1, -36.2652, 0.857961, 20.5043, -160.338, -92.6894, 56.1281
2.55155, -1, -36.3983, 0.822669, 20.5159, -160.383, -92.6729, 55.8656
2.55954, -1, -36.5202, 0.79039, 20.5266, -160.424, -92.6577, 55.6258
2.5675, -1, -36.6292, 0.761513, 20.5358, -160.46, -92.6445, 55.4143
2.57557, -1, -36.7239, 0.73642, 20.5431, -160.49, -92.6335, 55.2361
2.58457, -1, -36.804, 0.715156, 20.5482, -160.514, -92.6248, 55.0929
2.5915, -1, -36.8701, 0.697695, 20.5511, -160.533, -92.6183, 54.9846
2.59969, -1, -36.9233, 0.683688, 20.5525, -160.546, -92.6138, 54.908
2.6075, -1, -36.9637, 0.672832, 20.5529, -160.555, -92.611, 54.8564
2.61547, -1, -36.9932, 0.665068, 20.5526, -160.561, -92.6093, 54.825
2.62355, -1, -37.0135, 0.660004, 20.5522, -160.564, -92.6084, 54.8072
2.63148, -1, -37.0259, 0.656979, 20.5519, -160.566, -92.6079, 54.7981
2.63952, 2, -37.0325, 0.655383, 20.5517, -160.567, -92.6076, 54.7939
2.64757, 2, -37.0347, 0.654673, 20.5516, -160.567, -92.6076, 54.792
2.65551, 2, -37.0345, 0.654372, 20.5516, -160.567, -92.6076, 54.7912
2.66349, 2, -37.0338, 0.654235, 20.5516, -160.568, -92.6076, 54.7908
2.67157, 2, -37.0336, 0.654184, 20.5516, -160.568, -92.6075, 54.7906
2.67955, 2, -37.0339, 0.65413, 20.5515, -160.568, -92.6075, 54.7905
2.6875, 2, -37.035, 0.654083, 20.5515, -160.568, -92.6075, 54.7905
2.69555, 2, -37.0361, 0.65398, 20.5514, -160.568, -92.6075, 54.7905
2.70349, 2, -37.0376, 0.653773, 20.5511, -160.568, -92.6076, 54.7905
2.71149, 2, -37.039, 0.653484, 20.551, -160.568, -92.6077, 54.7906
2.71961, 2, -37.0402, 0.653221, 20.5508, -160.568, -92.6077, 54.7907
2.72751, 2, -37.0411, 0.652996, 20.5506, -160.568, -92.6078, 54.7907
2.73549, 2, -37.0415, 0.65287, 20.5504, -160.568, -92.6078, 54.7908
2.74356, 2, -37.0416, 0.652815, 20.5503, -160.568, -92.6078, 54.7909
2.75151, 2, -37.0411, 0.652827, 20.5501, -160.568, -92.6078, 54.791
2.75957, 2, -37.0403, 0.65287, 20.5501, -160.568, -92.6079, 54.7911
2.76772, 2, -37.0393, 0.652951, 20.55, -160.568, -92.6079, 54.7913
2.77559, 2, -37.0377, 0.653027, 20.55, -160.568, -92.6079, 54.7914
2.78358, 2, -37.0363, 0.65312, 20.5499, -160.568, -92.608, 54.7916
2.79165, 2, -37.0352, 0.653158, 20.5498, -160.567, -92.608, 54.7918
2.79966, 2, -37.0347, 0.653164, 20.5497, -160.567, -92.608, 54.7919
2.8076, 2, -37.0345, 0.653141, 20.5497, -160.568, -92.608, 54.792
2.81572, 2, -37.0346, 0.653111, 20.5497, -160.568, -92.6081, 54.792
2.82354, 2, -37.0349, 0.653033, 20.5497, -160.568, -92.6081, 54.7921
2.83153, 2, -37.0352, 0.652959, 20.5496, -160.568, -92.6081, 54.7921
2.83967, 2, -37.0357, 0.652925, 20.5496, -160.567, -92.6081, 54.7921
2.84794, 2, -37.0364, 0.652909, 20.5496, -160.567, -92.6081, 54.7921
2.85567, 2, -37.0372, 0.65289, 20.5496, -160.567, -92.6081, 54.7922
2.86381, 2, -37.0379, 0.652893, 20.5495, -160.567, -92.6081, 54.7922
2.8721, 2, -37.0383, 0.652905, 20.5495, -160.567, -92.6081, 54.7922
2.8799, 2, -37.0385, 0.652944, 20.5495, -160.567, -92.6081, 54.7922
2.88807, 2, -37.0386, 0.652979, 20.5495, -160.567, -92.6081, 54.7923
2.89638, 2, -37.0385, 0.653006, 20.5495, -160.567, -92.6081, 54.7923
2.90401, 2, -37.0381, 0.653015, 20.5495, -160.567, -92.6081, 54.7924
2.9121, 2, -37.0377, 0.653004, 20.5495, -160.567, -92.6081, 54.7924
2.92049, 2, -37.0374, 0.652995, 20.5495, -160.567, -92.6081, 54.7925
2.92809, 2, -37.0373, 0.652979, 20.5495, -160.567, -92.6081, 54.7925
2.93623, 2, -37.0372, 0.652952, 20.5495, -160.567, -92.6081, 54.7926
2.94436, 2, -37.0372, 0.652922, 20.5495, -160.567, -92.6081, 54.7927
2.95152, 2, -37.0372, 0.652924, 20.5495, -160.567, -92.6081, 54.7927
2.95958, 2, -37.0372, 0.652916, 20.5495, -160.567, -92.6081, 54.7928
2.96838, 2, -37.0373, 0.652905, 20.5494, -160.567, -92.6081, 54.7928
2.97548, 2, -37.0373, 0.6529, 20.5494, -160.567, -92.6081, 54.7928
2.98353, 2, -37.0375, 0.652927, 20.5494, -160.567, -92.6082, 54.7928
2.99151, 2, -37.0377, 0.652966, 20.5494, -160.567, -92.6082, 54.7928
2.99954, 2, -37.0378, 0.652989, 20.5494, -160.567, -92.6082, 54.7929
3.00755, 2, -37.0379, 0.652993, 20.5494, -160.567, -92.6082, 54.793
3.01549, 2, -37.0379, 0.652989, 20.5494, -160.567, -92.6082, 54.793
3.02348, 2, -37.0379, 0.652988, 20.5494, -160.567, -92.6082, 54.7931
3.03303, 2, -37.0379, 0.652979, 20.5494, -160.567, -92.6082, 54.7932
3.03953, 2, -37.0379, 0.652974, 20.5494, -160.567, -92.6082, 54.7932
3.0475, 2, -37.0379, 0.652958, 20.5494, -160.567, -92.6083, 54.7932
3.05707, 2, -37.0379, 0.652924, 20.5493, -160.567, -92.6083, 54.7933
3.06347, 2, -37.0379, 0.652938, 20.5493, -160.567, -92.6082, 54.7932
3.07148, 2, -37.0379, 0.652923, 20.5493, -160.567, -92.6083, 54.7933
3.07962, 2, -37.0378, 0.652939, 20.5493, -160.567, -92.6083, 54.7933
3.08937, 2, -37.0378, 0.652934, 20.5493, -160.567, -92.6083, 54.7933
3.09547, 2, -37.0378, 0.652943, 20.5493, -160.567, -92.6083, 54.7934
3.10364, 2, -37.0378, 0.652974, 20.5493, -160.567, -92.6083, 54.7935
3.11147, 2, -37.0378, 0.652985, 20.5493, -160.567, -92.6084, 54.7936
3.11953, 2, -37.0378, 0.652993, 20.5493, -160.567, -92.6084, 54.7936
3.12755, 2, -37.0378, 0.653002, 20.5493, -160.567, -92.6083, 54.7937
3.13548, 2, -37.0378, 0.652998, 20.5493, -160.567, -92.6084, 54.7937
3.14348, 2, -37.0378, 0.65298, 20.5493, -160.567, -92.6084, 54.7937
3.15155, 2, -37.0377, 0.652978, 20.5493, -160.567, -92.6083, 54.7937
3.15962, 2, -37.0377, 0.652975, 20.5492, -160.567, -92.6084, 54.7938
3.16749, 2, -37.0377, 0.652981, 20.5492, -160.567, -92.6084, 54.7938
3.17554, 2, -37.0377, 0.652972, 20.5492, -160.567, -92.6084, 54.7938
3.18348, 2, -37.0377, 0.652967, 20.5492, -160.567, -92.6083, 54.7939
3.19148, 2, -37.0377, 0.652965, 20.5492, -160.567, -92.6084, 54.7939
3.1996, 2, -37.0377, 0.652972, 20.5492, -160.567, -92.6083, 54.7939
3.20749, 2, -37.0376, 0.653003, 20.5492, -160.567, -92.6084, 54.794
3.21547, 2, -37.0376, 0.653014, 20.5492, -160.567, -92.6084, 54.794
3.22354, 2, -37.0376, 0.65304, 20.5492, -160.567, -92.6084, 54.794
3.23149, 2, -37.0376, 0.653042, 20.5492, -160.567, -92.6084, 54.7941
3.23953, 2, -37.0376, 0.653031, 20.5492, -160.567, -92.6084, 54.7942
3.24756, 2, -37.0376, 0.653012, 20.5492, -160.567, -92.6084, 54.7942
3.25548, 2, -37.0376, 0.653005, 20.5492, -160.567, -92.6084, 54.7942
3.26351, 2, -37.0375, 0.652995, 20.5491, -160.567, -92.6084, 54.7943
3.2717, 2, -37.0375, 0.652983, 20.5491, -160.567, -92.6084, 54.7943
3.27961, 2, -37.0375, 0.65298, 20.5491, -160.567, -92.6084, 54.7944
3.28757, 2, -37.0375, 0.652996, 20.5491, -160.567, -92.6084, 54.7943
3.29564, 2, -37.0374, 0.653003, 20.5491, -160.567, -92.6084, 54.7943
3.30358, 2, -37.0374, 0.653006, 20.5491, -160.567, -92.6084, 54.7944
3.31154, 2, -37.0374, 0.653008, 20.5491, -160.567, -92.6084, 54.7944
3.3197, 2, -37.0374, 0.653008, 20.5491, -160.567, -92.6084, 54.7944
3.32755, 2, -37.0374, 0.653009, 20.5491, -160.567, -92.6085, 54.7944
3.33554, 2, -37.0374, 0.653009, 20.5491, -160.567, -92.6084, 54.7945
3.34358, 2, -37.0373, 0.653009, 20.549, -160.567, -92.6085, 54.7945
3.35174, 2, -37.0373, 0.65302, 20.549, -160.567, -92.6085, 54.7945
3.35975, 2, -37.0373, 0.653032, 20.549, -160.567, -92.6085, 54.7945
3.36778, 2, -37.0373, 0.653026, 20.549, -160.567, -92.6085, 54.7945
3.37577, 2, -37.0373, 0.653024, 20.549, -160.567, -92.6085, 54.7946
3.3839, 2, -37.0373, 0.653004, 20.549, -160.567, -92.6085, 54.7946
3.39204, 2, -37.0372, 0.653006, 20.549, -160.567, -92.6085, 54.7946
3.40036, 2, -37.0372, 0.653008, 20.549, -160.567, -92.6085, 54.7946
3.40807, 2, -37.0372, 0.653008, 20.549, -160.567, -92.6085, 54.7947
3.41603, 2, -37.0372, 0.653038, 20.5489, -160.567, -92.6085, 54.7947
3.42403, 2, -37.0372, 0.653059, 20.5489, -160.566, -92.6085, 54.7947
3.43212, 2, -37.0372, 0.653065, 20.5489, -160.566, -92.6085, 54.7947
3.44022, 2, -37.0372, 0.653061, 20.5489, -160.566, -92.6085, 54.7947
3.44748, 2, -37.0372, 0.653066, 20.5489, -160.566, -92.6085, 54.7947
3.45547, 2, -37.0371, 0.653072, 20.5489, -160.566, -92.6085, 54.7947
3.46352, 2, -37.0371, 0.653045, 20.5489, -160.566, -92.6085, 54.7948
3.47147, 2, -37.0371, 0.653026, 20.5489, -160.566, -92.6085, 54.7948
3.47953, 2, -37.0371, 0.653035, 20.5489, -160.566, -92.6085, 54.7948
3.48752, 2, -37.0371, 0.653032, 20.5489, -160.566, -92.6085, 54.7949
3.49548, 2, -37.0371, 0.65302, 20.5489, -160.566, -92.6085, 54.7949
3.50347, 2, -37.0371, 0.65302, 20.5488, -160.566, -92.6085, 54.7949
3.51151, 2, -37.0371, 0.653051, 20.5488, -160.566, -92.6085, 54.7949
3.51959, 2, -37.037, 0.653065, 20.5488, -160.566, -92.6085, 54.795
3.52748, 2, -37.037, 0.653071, 20.5488, -160.566, -92.6085, 54.795
3.53551, 2, -37.037, 0.653063, 20.5488, -160.566, -92.6085, 54.795
3.54346, 2, -37.037, 0.653052, 20.5488, -160.566, -92.6085, 54.795
3.55148, 2, -37.037, 0.653058, 20.5488, -160.566, -92.6085, 54.795
3.55959, 2, -37.037, 0.653068, 20.5488, -160.566, -92.6085, 54.795
3.56747, 2, -37.037, 0.653062, 20.5488, -160.566, -92.6086, 54.795
3.57646, 2, -37.037, 0.653063, 20.5488, -160.566, -92.6086, 54.795
3.58354, 2, -37.037, 0.65307, 20.5488, -160.566, -92.6086, 54.795
3.59146, 2, -37.037, 0.653045, 20.5487, -160.566, -92.6086, 54.795
3.59953, 2, -37.037, 0.653025, 20.5487, -160.566, -92.6086, 54.795
3.60761, 2, -37.0369, 0.653035, 20.5487, -160.566, -92.6086, 54.795
3.61546, 2, -37.0369, 0.653039, 20.5487, -160.566, -92.6086, 54.7951
3.62352, 2, -37.0369, 0.653052, 20.5487, -160.566, -92.6086, 54.7951
3.63153, 2, -37.0369, 0.653047, 20.5487, -160.566, -92.6086, 54.7951
3.63968, 2, -37.0369, 0.653063, 20.5487, -160.566, -92.6085, 54.7951
3.64845, 2, -37.0368, 0.653071, 20.5487, -160.566, -92.6085, 54.7951
3.65553, 2, -37.0368, 0.653074, 20.5487, -160.566, -92.6086, 54.7951
3.66348, 2, -37.0368, 0.653076, 20.5487, -160.566, -92.6086, 54.7951
3.67146, 2, -37.0368, 0.653076, 20.5487, -160.566, -92.6086, 54.7951
3.67959, 2, -37.0368, 0.653077, 20.5487, -160.566, -92.6086, 54.7951
3.68745, 2, -37.0368, 0.653066, 20.5487, -160.566, -92.6086, 54.7951
3.69546, 2, -37.0367, 0.653064, 20.5487, -160.566, -92.6086, 54.7951
3.70353, 2, -37.0367, 0.653053, 20.5487, -160.566, -92.6086, 54.7951
3.71147, 4, -37.0367, 0.653066, 20.5486, -160.566, -92.6086, 54.7951
3.71952, 4, -37.0367, 0.653072, 20.5486, -160.566, -92.6086, 54.7951
3.72754, 4, -37.0366, 0.653075, 20.5486, -160.566, -92.6087, 54.7951
3.73546, 4, -37.0366, 0.653076, 20.5486, -160.566, -92.6086, 54.7951
3.74346, 4, -37.0366, 0.653076, 20.5486, -160.566, -92.6086, 54.7951
3.75153, 4, -37.0366, 0.653077, 20.5486, -160.566, -92.6086, 54.7952
3.75953, 4, -37.0366, 0.653077, 20.5486, -160.566, -92.6086, 54.7952
3.76752, 4, -37.0365, 0.653077, 20.5486, -160.566, -92.6087, 54.7951
3.77568, 4, -37.0365, 0.653077, 20.5486, -160.566, -92.6087, 54.7952
3.78355, 4, -37.0365, 0.653077, 20.5486, -160.566, -92.6086, 54.7952
3.79156, 4, -37.0365, 0.653077, 20.5486, -160.566, -92.6086, 54.7951
3.79968, 4, -37.0365, 0.653066, 20.5486, -160.566, -92.6087, 54.7952
3.80771, 4, -37.0364, 0.653064, 20.5485, -160.566, -92.6087, 54.7952
3.83379, 4, -37.0364, 0.653076, 20.5485, -160.566, -92.6087, 54.7952
3.8366, 4, -37.0364, 0.653076, 20.5485, -160.566, -92.6087, 54.7951
3.83846, 4, -37.0364, 0.653076, 20.5485, -160.566, -92.6087, 54.7951
3.84111, 4, -37.0364, 0.653076, 20.5485, -160.566, -92.6087, 54.7951
3.8516, 4, -37.0363, 0.653066, 20.5485, -160.566, -92.6087, 54.7951
3.85578, 4, -37.0361, 0.653022, 20.5485, -160.566, -92.6087, 54.7952
3.86372, 4, -37.0346, 0.652604, 20.5485, -160.566, -92.6087, 54.7952
3.87255, 4, -37.0306, 0.650912, 20.5489, -160.566, -92.6087, 54.7952
3.88036, 4, -37.023, 0.646642, 20.5505, -160.566, -92.6088, 54.7952
3.88785, 4, -37.0115, 0.638927, 20.5543, -160.566, -92.6088, 54.7952
3.89669, 4, -36.9958, 0.627399, 20.5616, -160.564, -92.6088, 54.7952
3.90477, 5, -36.9747, 0.611338, 20.574, -160.562, -92.6088, 54.7952
3.91257, 5, -36.9481, 0.590883, 20.5927, -160.558, -92.6087, 54.7952
3.92085, 5, -36.9165, 0.565918, 20.618, -160.553, -92.6084, 54.7952
3.92805, 5, -36.8801, 0.536483, 20.6503, -160.546, -92.6077, 54.7951
3.93604, 5, -36.8601, 0.520124, 20.6689, -160.538, -92.6068, 54.7951
3.94489, 5, -36.7923, 0.463683, 20.7329, -160.528, -92.6054, 54.7951
3.95227, 5, -36.7671, 0.442666, 20.7568, -160.517, -92.6038, 54.795
3.96098, 5, -36.7131, 0.373853, 20.8331, -160.505, -92.6021, 54.795
3.96745, 5, -36.6547, 0.34938, 20.8598, -160.499, -92.6012, 54.795
3.97635, 5, -36.5925, 0.298736, 20.9142, -160.487, -92.5993, 54.795
3.98661, 5, -36.4934, 0.219613, 20.9973, -160.468, -92.5965, 54.795
3.99139, 5, -36.4596, 0.192831, 21.0251, -160.462, -92.5955, 54.7951
4.00134, 5, -36.357, 0.112008, 21.1085, -160.444, -92.5926, 54.7951
4.01024, 5, -36.2883, 0.0580264, 21.164, -160.432, -92.5906, 54.7951
4.01549, 5, -36.2539, 0.031061, 21.1917, -160.426, -92.5896, 54.7951
4.02346, 5, -36.185, -0.0227095, 21.2473, -160.414, -92.5876, 54.7951
4.0316, 5, -36.1163, -0.0762478, 21.3029, -160.402, -92.5855, 54.7952
4.03956, 5, -36.0477, -0.129564, 21.3583, -160.39, -92.5835, 54.7954
4.04745, 5, -35.9792, -0.182661, 21.4136, -160.377, -92.5814, 54.7957
4.05549, 5, -35.9106, -0.235609, 21.469, -160.364, -92.5793, 54.7962
4.06579, 5, -35.842, -0.288364, 21.5241, -160.351, -92.5771, 54.7972
4.07144, 5, -35.7731, -0.341071, 21.5793, -160.338, -92.575, 54.7976
4.08124, 5, -35.7041, -0.393781, 21.6342, -160.319, -92.5719, 54.7991
4.08743, 5, -35.6348, -0.446482, 21.689, -160.313, -92.5708, 54.7997
4.09551, 5, -35.5651, -0.499311, 21.7436, -160.301, -92.5687, 54.801
4.10438, 5, -35.4952, -0.552105, 21.798, -160.288, -92.5665, 54.8025
4.11234, 5, -35.4251, -0.604948, 21.8522, -160.275, -92.5644, 54.8041
4.11953, 5, -35.3547, -0.657728, 21.9064, -160.263, -92.5622, 54.8058
4.12852, 5, -35.2842, -0.71049, 21.9604, -160.25, -92.56, 54.8077
4.13625, 5, -35.2137, -0.763089, 22.0143, -160.236, -92.5578, 54.8096
4.14345, 5, -35.1431, -0.815368, 22.0681, -160.223, -92.5556, 54.8117
4.15434, 5, -35.0373, -0.893697, 22.1486, -160.203, -92.5521, 54.8151
4.15963, 5, -35.002, -0.91963, 22.1754, -160.196, -92.551, 54.8163
4.1675, 5, -34.9315, -0.971344, 22.2288, -160.183, -92.5488, 54.8187
4.17544, 5, -34.8611, -1.02293, 22.2822, -160.17, -92.5465, 54.8213
4.18458, 5, -34.7906, -1.07438, 22.3355, -160.158, -92.5443, 54.8241
4.19475, 5, -34.6846, -1.15151, 22.4149, -160.138, -92.5407, 54.8284
4.19949, 5, -34.6492, -1.17715, 22.4413, -160.132, -92.5395, 54.8298
4.20745, 5, -34.5783, -1.22851, 22.4939, -160.119, -92.5372, 54.8328
4.21555, 5, -34.5073, -1.27992, 22.5464, -160.105, -92.5349, 54.836
4.22346, 5, -34.4359, -1.33128, 22.5988, -160.092, -92.5325, 54.8392
4.23168, 5, -34.3644, -1.38265, 22.651, -160.078, -92.5301, 54.8426
4.24049, 5, -34.2928, -1.43401, 22.7031, -160.064, -92.5277, 54.8461
4.24746, 5, -34.2211, -1.4852, 22.7551, -160.05, -92.5254, 54.8497
4.25552, 5, -34.1492, -1.53615, 22.8069, -160.037, -92.523, 54.8535
4.26346, 5, -34.0772, -1.58694, 22.8586, -160.023, -92.5205, 54.8574
4.27157, 5, -34.0051, -1.63757, 22.9103, -160.01, -92.5182, 54.8613
4.2799, 5, -33.9329, -1.68792, 22.9618, -159.997, -92.5158, 54.8653
4.28812, 5, -33.8608, -1.73809, 23.0132, -159.983, -92.5134, 54.8694
4.29645, 5, -33.7887, -1.78811, 23.0644, -159.969, -92.511, 54.8736
4.30492, 5, -33.7164, -1.83808, 23.1154, -159.955, -92.5086, 54.8779
4.31351, 5, -33.6441, -1.88796, 23.1662, -159.941, -92.5063, 54.8822
4.31968, 5, -33.5716, -1.93788, 23.2169, -159.926, -92.504, 54.8866
4.32745, 5, -33.4989, -1.98808, 23.2675, -159.912, -92.5016, 54.8908
4.33549, 5, -33.426, -2.03851, 23.318, -159.898, -92.4993, 54.8945
4.34354, 5, -33.3532, -2.08929, 23.3683, -159.884, -92.497, 54.897
4.35178, 6, -33.2805, -2.14046, 23.4187, -159.87, -92.4947, 54.898
4.36217, 6, -33.2081, -2.19233, 23.4693, -159.855, -92.4922, 54.8973
4.36843, 6, -33.1361, -2.24511, 23.5201, -159.84, -92.4893, 54.894
4.37569, 6, -33.0647, -2.29874, 23.5716, -159.825, -92.4857, 54.8857
4.38379, 7, -32.9937, -2.35353, 23.6241, -159.807, -92.481, 54.8724
4.39202, 7, -32.9231, -2.40943, 23.6777, -159.789, -92.4746, 54.856
4.39996, 7, -32.8531, -2.46671, 23.7327, -159.769, -92.4664, 54.8376
4.41183, 7, -32.7836, -2.52553, 23.7894, -159.747, -92.4501, 54.8101
4.4162, 7, -32.7148, -2.58598, 23.8473, -159.725, -92.4436, 54.8013
4.42396, 8, -32.6467, -2.64807, 23.9068, -159.702, -92.4291, 54.784
4.43254, 8, -32.5794, -2.71191, 23.9675, -159.677, -92.4126, 54.7671
4.4401, 8, -32.5127, -2.7775, 24.0294, -159.65, -92.3941, 54.7494
4.44812, 8, -32.4797, -2.8109, 24.0607, -159.623, -92.374, 54.7307
4.45626, 8, -32.4142, -2.87886, 24.1241, -159.609, -92.3634, 54.7105
4.46435, 9, -32.3493, -2.94827, 24.1885, -159.581, -92.3415, 54.6997
4.47148, 9, -32.285, -3.01895, 24.2539, -159.552, -92.3185, 54.6769
4.47967, 9, -32.2212, -3.09098, 24.3203, -159.521, -92.2942, 54.6523
4.48965, 9, -32.1579, -3.16433, 24.4217, -159.473, -92.2547, 54.6128
4.49543, 9, -32.0953, -3.23891, 24.456, -159.457, -92.2406, 54.599
4.50346, 10, -32.0331, -3.31484, 24.5254, -159.424, -92.2115, 54.5704
4.51149, 10, -31.9717, -3.39207, 24.5957, -159.39, -92.1813, 54.5401
4.52093, 10, -31.8806, -3.51065, 24.7033, -159.336, -92.1337, 54.4907
4.52985, 10, -31.8204, -3.59146, 24.7763, -159.3, -92.0997, 54.4556
4.53558, 10, -31.7906, -3.6324, 24.8132, -159.281, -92.082, 54.4377
4.54342, 10, -31.7314, -3.71539, 24.8877, -159.243, -92.046, 54.4011
4.55361, 11, -31.6727, -3.79983, 24.9632, -159.204, -92.0092, 54.3628
4.5595, 11, -31.6146, -3.88579, 25.0395, -159.164, -91.9709, 54.3226
4.56743, 11, -31.557, -3.97316, 25.1169, -159.124, -91.9304, 54.2805
4.57882, 11, -31.4715, -4.10692, 25.2348, -159.06, -91.8681, 54.2154
4.58357, 11, -31.4434, -4.15228, 25.2746, -159.038, -91.8467, 54.1931
4.59142, 12, -31.3873, -4.24408, 25.3551, -158.995, -91.8022, 54.1469
4.59957, 12, -31.3317, -4.33721, 25.4366, -158.95, -91.7565, 54.0986
4.60759, 12, -31.2768, -4.43174, 25.5192, -158.904, -91.71, 54.0492
4.61564, 12, -31.2223, -4.52759, 25.6028, -158.858, -91.6617, 53.9987
4.62442, 12, -31.1683, -4.6249, 25.6874, -158.811, -91.6119, 53.9462
4.6315, 13, -31.1149, -4.72359, 25.773, -158.762, -91.5613, 53.892
4.63949, 13, -31.0618, -4.82372, 25.8594, -158.713, -91.5085, 53.8369
4.64743, 13, -31.0094, -4.92535, 25.947, -158.663, -91.4547, 53.7802
4.6556, 13, -30.9574, -5.02851, 26.0356, -158.611, -91.4, 53.7214
4.66574, 13, -30.906, -5.13305, 26.1254, -158.56, -91.3431, 53.6317
4.67145, 14, -30.8551, -5.239, 26.2163, -158.506, -91.2859, 53.6009
4.68079, 14, -30.8049, -5.3465, 26.3081, -158.453, -91.2267, 53.5377
4.69083, 14, -30.7551, -5.4554, 26.4008, -158.399, -91.136, 53.4417
4.69551, 14, -30.7058, -5.56591, 26.4944, -158.342, -91.105, 53.4087
4.70343, 14, -30.657, -5.67789, 26.5891, -158.286, -91.0413, 53.3412
4.71142, 15, -30.6088, -5.79132, 26.6849, -158.229, -90.9774, 53.2732
4.71956, 15, -30.5611, -5.90604, 26.7818, -158.17, -90.911, 53.2033
4.72744, 15, -30.5139, -6.02202, 26.8799, -158.112, -90.8443, 53.1317
4.73939, 15, -30.444, -6.19881, 27.0288, -158.02, -90.7406, 53.0222
4.74343, 16, -30.421, -6.25841, 27.0789, -157.99, -90.7057, 52.9845
4.75198, 16, -30.3753, -6.37872, 27.1796, -157.928, -90.6344, 52.909
4.75966, 16, -30.3302, -6.50065, 27.2815, -157.865, -90.5618, 52.8313
4.76746, 16, -30.2856, -6.62397, 27.3846, -157.801, -90.4882, 52.7523
4.77573, 16, -30.2414, -6.74871, 27.4887, -157.736, -90.413, 52.6724
4.78375, 16, -30.1977, -6.87502, 27.594, -157.671, -90.3365, 52.5905
4.79563, 17, -30.133, -7.06745, 27.7536, -157.571, -90.2194, 52.466
4.8, 17, -30.1117, -7.13239, 27.8072, -157.537, -90.1796, 52.4235
4.80858, 17, -30.0694, -7.26331, 27.9151, -157.468, -90.0992, 52.3385
4.81681, 17, -30.0277, -7.39561, 28.0242, -157.399, -90.0172, 52.2514
4.82344, 17, -29.9864, -7.5292, 28.1345, -157.329, -89.9343, 52.1634
4.83231, 18, -29.9456, -7.66424, 28.2459, -157.258, -89.8499, 52.0739
4.84036, 18, -29.9054, -7.8007, 28.3584, -157.186, -89.764, 51.9832
4.84751, 18, -29.8657, -7.93863, 28.4716, -157.114, -89.6773, 51.8909
4.85957, 18, -29.8265, -8.14774, 28.6431, -157.002, -89.5446, 51.7502
4.86473, 18, -29.7876, -8.21813, 28.7009, -156.965, -89.4996, 51.7023
4.87286, 19, -29.7493, -8.35993, 28.8173, -156.889, -89.4089, 51.6063
4.88062, 19, -29.7115, -8.50328, 28.935, -156.813, -89.3172, 51.5088
4.88827, 19, -29.6741, -8.64818, 29.0535, -156.736, -89.224, 51.4106
4.89676, 19, -29.6372, -8.79451, 29.1727, -156.658, -89.1295, 51.3108
4.90392, 19, -29.6008, -8.94201, 29.2928, -156.578, -89.0343, 51.2107
4.91252, 19, -29.5648, -9.09094, 29.4138, -156.499, -88.9376, 51.1086
4.9209, 20, -29.5294, -9.24136, 29.5362, -156.418, -88.8399, 51.0058
4.92801, 20, -29.4942, -9.39333, 29.6597, -156.336, -88.7414, 50.9014
4.9363, 20, -29.4597, -9.54658, 29.7841, -156.253, -88.6415, 50.796
4.94491, 20, -29.4425, -9.7009, 29.9092, -156.17, -88.5407, 50.6892
4.95216, 20, -29.4086, -9.85641, 30.0353, -156.086, -88.4388, 50.5813
4.95942, 21, -29.3752, -9.93475, 30.0987, -156.043, -88.3873, 50.527
4.96742, 21, -29.342, -10.0927, 30.2263, -155.957, -88.2835, 50.4177
4.97547, 21, -29.3094, -10.252, 30.3551, -155.871, -88.179, 50.3072
4.98473, 21, -29.2612, -10.4926, 30.5499, -155.74, -88.0199, 50.1401
4.99548, 21, -29.2454, -10.6545, 30.6808, -155.651, -87.9128, 50.0274
4.9994, 22, -29.214, -10.736, 30.7466, -155.606, -87.8589, 49.9709
5.01026, 22, -29.1676, -10.9826, 30.9455, -155.471, -87.6954, 49.7997
5.01562, 22, -29.1524, -11.0653, 31.0122, -155.425, -87.6405, 49.7423
5.0234, 22, -29.1223, -11.2313, 31.1463, -155.333, -87.5296, 49.6265
5.03293, 22, -29.0777, -11.4829, 31.3494, -155.194, -87.3617, 49.4515
5.03945, 23, -29.063, -11.5676, 31.4176, -155.147, -87.3054, 49.3928
5.04904, 23, -29.0194, -11.8235, 31.623, -155.005, -87.1346, 49.2153
5.05542, 23, -29.0051, -11.9092, 31.6918, -154.958, -87.0773, 49.1559
5.06566, 23, -28.9627, -12.168, 31.8998, -154.813, -86.9041, 48.977
5.07236, 23, -28.9488, -12.2549, 31.9696, -154.765, -86.8458, 48.917
5.07945, 24, -28.9213, -12.4299, 32.1099, -154.667, -86.7287, 48.7966
5.08742, 24, -28.8941, -12.6056, 32.2511, -154.568, -86.6105, 48.6758
5.09642, 24, -28.867, -12.7819, 32.3928, -154.469, -86.4917, 48.5541
5.10351, 24, -28.8405, -12.9593, 32.5352, -154.369, -86.372, 48.4321
5.11166, 24, -28.8143, -13.1384, 32.6787, -154.268, -86.2512, 48.3093
5.11968, 25, -28.7884, -13.3184, 32.8231, -154.166, -86.1301, 48.1861
5.1284, 25, -28.7628, -13.4989, 32.9682, -154.063, -86.0079, 48.0626
5.13543, 25, -28.7375, -13.6803, 33.1137, -153.96, -85.8854, 47.9393
5.14348, 25, -28.7123, -13.8634, 33.2598, -153.855, -85.762, 47.8156
5.15143, 25, -28.6874, -14.0474, 33.4069, -153.75, -85.6377, 47.6917
5.15961, 26, -28.6628, -14.2318, 33.5548, -153.644, -85.5132, 47.5678
5.16764, 26, -28.6385, -14.4169, 33.7032, -153.537, -85.3876, 47.4436
5.17543, 26, -28.6145, -14.6036, 33.852, -153.43, -85.262, 47.3193
5.18449, 26, -28.5908, -14.7913, 34.0018, -153.322, -85.1354, 47.195
5.19142, 26, -28.5671, -14.9792, 34.1524, -153.213, -85.0083, 47.0707
5.19956, 26, -28.5436, -15.1674, 34.3034, -153.103, -84.8807, 46.9467
5.20741, 27, -28.5204, -15.3567, 34.4547, -152.993, -84.7525, 46.8231
5.21725, 27, -28.4975, -15.5467, 34.6067, -152.882, -84.6241, 46.6999
5.22348, 27, -28.4746, -15.7369, 34.7595, -152.77, -84.4948, 46.5767
5.23144, 27, -28.4521, -15.9278, 34.913, -152.658, -84.3654, 46.4538
5.23956, 27, -28.4299, -16.1201, 35.0664, -152.545, -84.2354, 46.3311
5.24748, 28, -28.4075, -16.3135, 35.2202, -152.431, -84.1052, 46.2089
5.25542, 28, -28.3853, -16.5073, 35.3749, -152.317, -83.9745, 46.0871
5.26357, 28, -28.3632, -16.7019, 35.5301, -152.201, -83.8436, 45.9658
5.27326, 28, -28.3413, -16.8975, 35.6856, -152.086, -83.7123, 45.8453
5.27956, 28, -28.3194, -17.0938, 35.8414, -151.969, -83.5807, 45.7255
5.28759, 29, -28.2977, -17.29, 35.9978, -151.852, -83.4489, 45.6066
5.2955, 29, -28.2762, -17.4868, 36.1549, -151.734, -83.3165, 45.4885
5.30358, 29, -28.2546, -17.6845, 36.3124, -151.615, -83.1839, 45.3708
5.31189, 29, -28.2331, -17.8824, 36.4698, -151.496, -83.0508, 45.2543
5.3197, 29, -28.2119, -18.0803, 36.6277, -151.376, -82.9177, 45.1384
5.32742, 30, -28.1907, -18.2789, 36.7865, -151.255, -82.784, 45.0237
5.3377, 30, -28.1694, -18.478, 36.9454, -151.134, -82.6507, 44.9105
5.34382, 30, -28.1481, -18.6772, 37.104, -151.012, -82.517, 44.7984
5.35639, 30, -28.1162, -18.9768, 37.342, -150.829, -82.3165, 44.634
5.35955, 30, -28.1055, -19.0772, 37.4215, -150.767, -82.2494, 44.5802
5.36769, 31, -28.084, -19.2781, 37.5808, -150.644, -82.1154, 44.4736
5.37569, 31, -28.0625, -19.4788, 37.7397, -150.521, -81.9815, 44.3686
5.38384, 31, -28.0411, -19.6794, 37.8986, -150.397, -81.8473, 44.2652
5.39349, 31, -28.0195, -19.8805, 38.0583, -150.272, -81.7133, 44.1637
5.39982, 31, -27.9978, -20.0813, 38.2184, -150.146, -81.5789, 44.0633
5.4085, 32, -27.9759, -20.2817, 38.3783, -150.02, -81.4447, 43.965
5.41637, 32, -27.9539, -20.4825, 38.5377, -149.894, -81.3104, 43.8685
5.42457, 32, -27.9316, -20.6839, 38.6975, -149.767, -81.1765, 43.7744
5.43285, 32, -27.9091, -20.8849, 38.8575, -149.64, -81.0424, 43.6823
5.44024, 32, -27.8864, -21.0856, 39.017, -149.513, -80.9088, 43.5933
5.44736, 33, -27.875, -21.186, 39.0965, -149.449, -80.8422, 43.5496
5.45541, 33, -27.8519, -21.3869, 39.2552, -149.321, -80.7092, 43.465
5.46419, 33, -27.8285, -21.5871, 39.4142, -149.194, -80.5767, 43.3432
5.47357, 33, -27.8046, -21.886, 39.6518, -149.002, -80.3786, 43.2665
5.4794, 33, -27.7802, -21.9856, 39.7306, -148.938, -80.3129, 43.2291
5.48743, 33, -27.7553, -22.1846, 39.8875, -148.811, -80.1814, 43.1566
5.49545, 34, -27.73, -22.3826, 40.0443, -148.683, -80.0506, 43.0881
5.50341, 34, -27.7041, -22.5796, 40.2009, -148.556, -79.9199, 43.0224
5.51446, 34, -27.6647, -22.8751, 40.4344, -148.364, -79.724, 42.9297
5.5223, 34, -27.6377, -23.0714, 40.5895, -148.236, -79.5932, 42.8725
5.52736, 34, -27.6241, -23.1692, 40.6671, -148.172, -79.5279, 42.8449
5.5354, 35, -27.5966, -23.3648, 40.8224, -148.044, -79.3973, 42.7919
5.54365, 35, -27.5691, -23.5608, 40.9772, -147.915, -79.2667, 42.7429
5.55146, 35, -27.5412, -23.7567, 41.1314, -147.786, -79.1367, 42.6973
5.5594, 35, -27.5131, -23.9519, 41.2856, -147.657, -79.0064, 42.6549
5.56899, 35, -27.4848, -24.147, 41.44, -147.461, -78.812, 42.5972
5.57546, 36, -27.456, -24.3421, 41.5942, -147.396, -78.7471, 42.5801
5.58444, 36, -27.427, -24.5368, 41.7477, -147.265, -78.6179, 42.5489
5.59323, 36, -27.3977, -24.7305, 41.9006, -147.135, -78.4249, 42.5101
5.59937, 36, -27.3679, -24.924, 42.0535, -147.003, -78.3607, 42.4992
5.60746, 36, -27.3372, -25.1173, 42.2056, -146.873, -78.233, 42.4809
5.61541, 37, -27.3056, -25.3092, 42.3564, -146.742, -78.1054, 42.4673
5.62344, 37, -27.2731, -25.4999, 42.506, -146.612, -77.9786, 42.4585
5.63152, 37, -27.2398, -25.6897, 42.6546, -146.482, -77.8522, 42.4543
5.64177, 37, -27.1878, -25.9725, 42.8753, -146.29, -77.6636, 42.4537
5.64756, 37, -27.17, -26.0658, 42.9481, -146.226, -77.6008, 42.456
5.65635, 38, -27.1336, -26.2512, 43.0928, -146.099, -77.4758, 42.4659
5.66342, 38, -27.0966, -26.4358, 43.2364, -145.973, -77.3515, 42.4813
5.67155, 38, -27.0587, -26.6196, 43.3794, -145.846, -77.2273, 42.5018
5.67953, 38, -27.02, -26.8019, 43.5217, -145.72, -77.1036, 42.5278
5.68754, 38, -26.9807, -26.9829, 43.6632, -145.593, -76.9801, 42.5592
5.69542, 39, -26.9406, -27.1638, 43.804, -145.467, -76.8571, 42.5966
5.70343, 39, -26.9, -27.3442, 43.944, -145.341, -76.734, 42.6402
5.71147, 39, -26.8586, -27.5234, 44.0835, -145.214, -76.6109, 42.6889
5.71958, 39, -26.8162, -27.7017, 44.2222, -145.088, -76.4881, 42.7434
5.72742, 39, -26.7732, -27.8796, 44.3599, -144.961, -76.3651, 42.8046
5.73562, 40, -26.7294, -28.0571, 44.4964, -144.836, -76.2423, 42.8719
5.74354, 40, -26.6846, -28.2331, 44.632, -144.71, -76.1196, 42.945
5.7514, 40, -26.6388, -28.4075, 44.7664, -144.586, -75.9975, 43.0256
5.7596, 40, -26.5921, -28.5808, 44.8995, -144.462, -75.8756, 43.1115
5.76756, 40, -26.5444, -28.7532, 45.0311, -144.339, -75.7542, 43.2049
5.77658, 41, -26.4955, -28.9237, 45.1614, -144.217, -75.6337, 43.3046
5.78376, 41, -26.4456, -29.0925, 45.2904, -144.096, -75.5133, 43.4114
5.79201, 41, -26.3946, -29.2598, 45.418, -143.976, -75.3938, 43.5247
5.80046, 41, -26.3422, -29.4261, 45.5442, -143.857, -75.2745, 43.6451
5.8075, 41, -26.2886, -29.5905, 45.6688, -143.739, -75.1557, 43.7727
5.81656, 42, -26.2336, -29.7527, 45.7917, -143.622, -75.0377, 43.9075
5.82798, 42, -26.1772, -29.9132, 45.9724, -143.449, -74.8611, 44.1233
5.8314, 42, -26.1192, -30.0719, 46.0316, -143.393, -74.8027, 44.1988
5.84142, 42, -26.0594, -30.2288, 46.1484, -143.28, -74.686, 44.3548
5.84751, 42, -25.9981, -30.383, 46.263, -143.17, -74.5698, 44.5183
5.85557, 42, -25.9351, -30.5349, 46.3755, -143.062, -74.4544, 44.6886
5.86363, 43, -25.8703, -30.6845, 46.4856, -142.956, -74.3392, 44.8666
5.87204, 43, -25.8038, -30.8321, 46.5936, -142.852, -74.2246, 45.0525
5.87975, 43, -25.7356, -30.9773, 46.6996, -142.749, -74.1104, 45.246
5.88784, 43, -25.6659, -31.1202, 46.8038, -142.649, -73.9964, 45.4472
5.89618, 43, -25.5947, -31.2608, 46.9061, -142.55, -73.8831, 45.656
5.90386, 44, -25.5219, -31.3995, 47.0063, -142.453, -73.7702, 45.8726
5.91248, 44, -25.4474, -31.536, 47.1042, -142.358, -73.6582, 46.0972
5.92033, 44, -25.3709, -31.6705, 47.1996, -142.265, -73.5467, 46.33
5.92793, 44, -25.2929, -31.8024, 47.2926, -142.175, -73.4357, 46.5709
5.93599, 44, -25.213, -31.9315, 47.3833, -142.088, -73.3256, 46.82
5.94399, 45, -25.1723, -31.9951, 47.4715, -142.003, -73.216, 47.0776
5.95203, 45, -25.0895, -32.1201, 47.5148, -141.962, -73.1613, 47.3437
5.9594, 45, -25.0045, -32.2424, 47.5992, -141.882, -73.0526, 47.4797
5.96886, 45, -24.9175, -32.3617, 47.6807, -141.804, -72.9442, 47.9003
5.97691, 45, -24.8283, -32.5349, 47.7973, -141.693, -72.7825, 48.191
5.98335, 46, -24.7367, -32.5909, 47.8347, -141.657, -72.7289, 48.3396
5.9914, 46, -24.6427, -32.7005, 47.9072, -141.589, -72.622, 48.6433
5.99945, 46, -24.5463, -32.8066, 47.9767, -141.524, -72.5161, 48.955
6.00738, 46, -24.4474, -32.9092, 48.0432, -141.464, -72.411, 49.2751
6.01785, 46, -24.295, -33.0562, 48.1367, -141.379, -72.2551, 49.7712
6.02555, 47, -24.1905, -33.1495, 48.1947, -141.328, -72.1527, 50.1118
6.03378, 47, -24.0837, -33.2389, 48.2491, -141.281, -72.0512, 50.4606
6.03944, 47, -24.0293, -33.282, 48.275, -141.258, -72.0008, 50.6383
6.05038, 47, -23.8621, -33.4056, 48.347, -141.199, -71.8519, 51.1837
6.05543, 47, -23.805, -33.4447, 48.3691, -141.181, -71.8028, 51.3698
6.06519, 47, -23.6296, -33.5556, 48.4296, -141.136, -71.6572, 51.9416
6.07153, 48, -23.5698, -33.5904, 48.4478, -141.123, -71.6096, 52.1364
6.08035, 48, -23.4482, -33.6566, 48.4808, -141.1, -71.5153, 52.5329
6.08744, 48, -23.3241, -33.718, 48.5098, -141.082, -71.4225, 52.9392
6.09716, 48, -23.1975, -33.7745, 48.5347, -141.069, -71.3319, 53.3546
6.10362, 48, -23.068, -33.8259, 48.555, -141.062, -71.243, 53.7792
6.11143, 49, -22.9357, -33.8722, 48.5709, -141.059, -71.156, 54.2121
6.11941, 49, -22.8004, -33.913, 48.5823, -141.06, -71.071, 54.6525
6.12745, 49, -22.6621, -33.9481, 48.5889, -141.068, -70.9882, 55.1009
6.1354, 49, -22.521, -33.9777, 48.591, -141.083, -70.9077, 55.5563
6.14352, 49, -22.377, -34.0014, 48.5884, -141.103, -70.8293, 56.0195
6.15242, 50, -22.2303, -34.0189, 48.5807, -141.13, -70.7542, 56.4897
6.15938, 50, -22.081, -34.0303, 48.568, -141.162, -70.6813, 56.9669
6.16854, 50, -21.9289, -34.0354, 48.55, -141.2, -70.612, 57.4525
6.17638, 50, -21.7739, -34.0346, 48.5267, -141.245, -70.5454, 57.9454
6.18443, 50, -21.6157, -34.0273, 48.4978, -141.297, -70.4827, 58.4458
6.19477, 51, -21.4546, -34.0132, 48.4636, -141.354, -70.3948, 59.208
6.19951, 51, -21.2907, -33.9924, 48.4239, -141.418, -70.3674, 59.4654
6.20745, 51, -21.1241, -33.9645, 48.3786, -141.487, -70.3158, 59.9844
6.2154, 51, -20.9551, -33.9295, 48.3277, -141.564, -70.2674, 60.5095
6.22459, 51, -20.7836, -33.8873, 48.2711, -141.646, -70.2229, 61.04
6.23189, 52, -20.6093, -33.8373, 48.2086, -141.735, -70.1832, 61.5764
6.23939, 52, -20.4324, -33.7795, 48.1402, -141.83, -70.1483, 62.1196
6.24763, 52, -20.2526, -33.7136, 48.0657, -141.931, -70.1176, 62.6694
6.25644, 52, -20.0701, -33.6397, 47.985, -142.039, -70.0917, 63.2253
6.26339, 52, -19.8849, -33.5574, 47.8981, -142.153, -70.0711, 63.7872
6.27153, 53, -19.6974, -33.4665, 47.8049, -142.274, -70.056, 64.355
6.27986, 53, -19.508, -33.3673, 47.7057, -142.401, -70.0464, 64.9285
6.28747, 53, -19.3165, -33.2599, 47.6005, -142.533, -70.042, 65.5056
6.2998, 53, -19.026, -33.0836, 47.4317, -142.742, -70.0446, 66.378
6.30365, 53, -18.9283, -33.0206, 47.3725, -142.815, -70.0485, 66.6703
6.31235, 54, -18.7316, -32.8885, 47.2497, -142.963, -70.0608, 67.2566
6.31989, 54, -18.5331, -32.7482, 47.121, -143.116, -70.0796, 67.8435
6.32845, 54, -18.3327, -32.5995, 46.9868, -143.273, -70.1052, 68.4317
6.336, 54, -18.1305, -32.4429, 46.847, -143.435, -70.1373, 69.0214
6.34443, 54, -17.9269, -32.2775, 46.7015, -143.602, -70.1752, 69.6128
6.35196, 54, -17.7224, -32.103, 46.5498, -143.772, -70.2206, 70.2057
6.3612, 55, -17.5169, -31.919, 46.3917, -143.948, -70.2744, 70.8028
6.36757, 55, -17.3099, -31.7258, 46.2272, -144.128, -70.335, 71.4041
6.37643, 55, -17.1013, -31.523, 46.0556, -144.314, -70.4051, 72.0098
6.38362, 55, -16.891, -31.3095, 45.8762, -144.505, -70.4833, 72.6203
6.39175, 55, -16.6789, -31.0853, 45.6896, -144.7, -70.5711, 73.2358
6.40094, 56, -16.4653, -30.8508, 45.4965, -144.901, -70.6679, 73.856
6.40879, 56, -16.2505, -30.6052, 45.2956, -145.105, -70.7737, 74.4789
6.41677, 56, -16.0353, -30.3486, 45.087, -145.314, -70.8893, 75.1053
6.4259, 56, -15.8203, -30.0819, 44.8727, -145.526, -71.0139, 75.7344
6.4322, 56, -15.6049, -29.8042, 44.6518, -145.741, -71.1481, 76.365
6.44101, 57, -15.3883, -29.5163, 44.4236, -145.959, -71.2918, 76.9963
6.44848, 57, -15.1706, -29.2181, 44.1896, -146.18, -71.4454, 77.629
6.45597, 57, -15.0616, -29.0651, 44.0703, -146.29, -71.6085, 78.262
6.46337, 57, -14.8434, -28.7528, 43.8267, -146.514, -71.6936, 78.5778
6.47139, 57, -14.6256, -28.4322, 43.5783, -146.738, -71.871, 79.208
6.48253, 58, -14.3002, -27.9367, 43.1974, -147.074, -72.1522, 80.1482
6.48733, 58, -14.1924, -27.7676, 43.0686, -147.185, -72.2497, 80.4591
6.49669, 58, -13.8714, -27.2495, 42.6781, -147.517, -72.553, 81.3813
6.50338, 58, -13.7652, -27.0735, 42.5463, -147.627, -72.6576, 81.6854
6.51138, 58, -13.5537, -26.7165, 42.2808, -147.845, -72.8717, 82.2889
6.52074, 59, -13.2389, -26.1682, 41.8766, -148.167, -73.2059, 83.1823
6.52737, 59, -13.1349, -25.982, 41.7399, -148.274, -73.321, 83.4773
6.53537, 59, -12.9282, -25.6048, 41.4644, -148.486, -73.5573, 84.0645
6.54528, 59, -12.6206, -25.0264, 41.0433, -148.801, -73.9272, 84.9387
6.55338, 59, -12.4169, -24.6317, 40.758, -149.008, -74.1848, 85.5165
6.56151, 60, -12.2143, -24.2301, 40.4681, -149.214, -74.451, 86.0907
6.56737, 60, -12.1135, -24.0266, 40.322, -149.316, -74.5873, 86.3766
6.57724, 60, -11.8135, -23.4071, 39.8788, -149.62, -75.0082, 87.2281
6.58419, 60, -11.7143, -23.1973, 39.7299, -149.719, -75.1525, 87.5093
6.59146, 60, -11.5174, -22.7738, 39.4311, -149.916, -75.4465, 88.0672
6.60034, 61, -11.3229, -22.3454, 39.1304, -150.109, -75.7468, 88.6196
6.60744, 61, -11.1307, -21.9134, 38.829, -150.299, -76.0532, 89.1649
6.61537, 61, -10.9406, -21.4773, 38.5263, -150.483, -76.3645, 89.702
6.62452, 61, -10.7527, -21.0375, 38.2235, -150.663, -76.6806, 90.2298
6.63153, 61, -10.567, -20.5942, 37.9201, -150.839, -77.0016, 90.7495
6.63994, 61, -10.3835, -20.1466, 37.6165, -151.009, -77.327, 91.2606
6.64815, 62, -10.2027, -19.6953, 37.3122, -151.175, -77.6578, 91.7642
6.65536, 62, -10.0247, -19.2411, 37.0071, -151.336, -77.9938, 92.2597
6.66337, 62, -9.8493, -18.7841, 36.7013, -151.493, -78.3356, 92.7485
6.6748, 62, -9.5909, -18.0951, 36.2409, -151.72, -78.8582, 93.4681
6.67952, 62, -9.50589, -17.865, 36.0876, -151.794, -79.0345, 93.7039
6.68739, 63, -9.33757, -17.404, 35.7815, -151.936, -79.39, 94.1684
6.69544, 63, -9.17159, -16.9421, 35.4776, -152.073, -79.748, 94.622
6.70337, 63, -9.00823, -16.4782, 35.1753, -152.205, -80.1077, 95.0651
6.71145, 63, -8.84753, -16.0124, 34.8754, -152.331, -80.4689, 95.4966
6.71937, 63, -8.68944, -15.5442, 34.5773, -152.45, -80.8315, 95.9172
6.72753, 64, -8.53376, -15.0742, 34.2812, -152.565, -81.1969, 96.328
6.73542, 64, -8.38052, -14.6029, 33.9857, -152.675, -81.566, 96.7283
6.74337, 64, -8.22948, -14.1302, 33.6897, -152.78, -81.94, 97.1201
6.752, 64, -8.08064, -13.6574, 33.3937, -152.881, -82.3194, 97.5033
6.75973, 64, -7.93407, -13.1852, 33.0976, -152.977, -82.7035, 97.8765
6.76737, 65, -7.78996, -12.7137, 32.8029, -153.068, -83.0912, 98.2389
6.7772, 65, -7.64863, -12.2435, 32.5101, -153.153, -83.4803, 98.5889
6.78343, 65, -7.51042, -11.7742, 32.2215, -153.233, -83.8697, 98.9248
6.79152, 65, -7.37526, -11.3054, 31.9371, -153.305, -84.2575, 99.2459
6.79946, 65, -7.2432, -10.8374, 31.6574, -153.372, -84.6437, 99.5521
6.80923, 66, -7.11382, -10.3717, 31.3823, -153.433, -85.028, 99.8427
6.81643, 66, -6.9867, -9.90944, 31.1109, -153.488, -85.411, 100.118
6.82347, 66, -6.86173, -9.45221, 30.8439, -153.537, -85.7935, 100.377
6.83197, 66, -6.73881, -9.001, 30.5804, -153.581, -86.1748, 100.621
6.84035, 66, -6.61802, -8.55648, 30.3207, -153.619, -86.5545, 100.848
6.84765, 67, -6.4997, -8.11811, 30.066, -153.652, -86.9312, 101.059
6.85649, 67, -6.38426, -7.68612, 29.8166, -153.679, -87.3039, 101.251
6.86353, 67, -6.27186, -7.26036, 29.5744, -153.7, -87.6714, 101.426
6.87235, 67, -6.16214, -6.84011, 29.3394, -153.715, -88.033, 101.584
6.87994, 67, -6.0551, -6.42619, 29.1107, -153.724, -88.3887, 101.723
6.88823, 68, -5.95039, -6.01864, 28.8889, -153.729, -88.7393, 101.845
6.89654, 68, -5.84765, -5.61755, 28.6724, -153.73, -89.0858, 101.949
6.90383, 68, -5.74659, -5.22206, 28.4599, -153.727, -89.4294, 102.037
6.91263, 68, -5.64721, -4.83243, 28.2514, -153.718, -89.7713, 102.106
6.9199, 68, -5.54939, -4.44792, 28.0462, -153.705, -90.1125, 102.157
6.92865, 68, -5.45332, -4.06782, 27.8436, -153.688, -90.4525, 102.189
6.93711, 69, -5.35899, -3.69126, 27.6452, -153.666, -90.7924, 102.204
6.94394, 69, -5.3125, -3.31834, 27.451, -153.639, -91.1316, 102.202
6.95446, 69, -5.17546, -2.94917, 27.2599, -153.608, -91.4701, 102.177
6.96022, 69, -5.13069, -2.58369, 27.0722, -153.574, -91.8077, 102.132
6.96947, 69, -4.99875, -2.22124, 26.8889, -153.536, -92.1438, 102.064
6.97536, 70, -4.95546, -2.04166, 26.7987, -153.515, -92.3113, 102.022
6.98332, 70, -4.86976, -1.68568, 26.6206, -153.471, -92.6453, 101.922
6.99248, 70, -4.74344, -1.16172, 26.3605, -153.398, -93.1428, 101.729
6.9994, 70, -4.70184, -0.989576, 26.2762, -153.373, -93.3076, 101.654
7.00758, 70, -4.61952, -0.649961, 26.1105, -153.318, -93.6352, 101.487
7.01534, 71, -4.53822, -0.316836, 25.9484, -153.261, -93.9596, 101.299
7.02486, 71, -4.41829, 0.170337, 25.7145, -153.17, -94.4402, 100.978
7.03291, 71, -4.33947, 0.486904, 25.5655, -153.107, -94.7555, 100.738
7.04094, 71, -4.26145, 0.797385, 25.4213, -153.041, -95.0671, 100.478
7.04892, 71, -4.1843, 1.10094, 25.2818, -152.974, -95.3747, 100.198
7.05712, 72, -4.10768, 1.39783, 25.1467, -152.905, -95.6788, 99.8982
7.06333, 72, -4.06944, 1.54355, 25.0807, -152.87, -95.8295, 99.7407
7.07297, 72, -3.99318, 1.9712, 24.8877, -152.763, -96.2779, 99.2374
7.07954, 72, -3.91705, 2.11093, 24.825, -152.726, -96.4261, 99.0594
7.08768, 72, -3.84103, 2.38548, 24.7019, -152.654, -96.7206, 98.6875
7.09544, 73, -3.76511, 2.65383, 24.5819, -152.58, -97.0127, 98.2935
7.10436, 73, -3.68918, 2.91648, 24.4649, -152.507, -97.3024, 97.8773
7.11241, 73, -3.61292, 3.17266, 24.3515, -152.433, -97.5897, 97.4384
7.11935, 73, -3.53644, 3.42251, 24.2416, -152.36, -97.8741, 96.9773
7.12843, 73, -3.45953, 3.66617, 24.1356, -152.287, -98.1553, 96.4954
7.13548, 74, -3.38212, 3.902, 24.0336, -152.216, -98.4328, 95.9926
7.14335, 74, -3.30401, 4.12945, 23.9355, -152.145, -98.7057, 95.4717
7.1538, 74, -3.18572, 4.45497, 23.7958, -152.043, -99.1046, 94.6603
7.15946, 74, -3.14593, 4.55874, 23.7514, -152.01, -99.2345, 94.3834
7.16744, 74, -3.06591, 4.75891, 23.6657, -151.945, -99.489, 93.8203
7.17532, 75, -2.98507, 4.94951, 23.5845, -151.883, -99.7358, 93.247
7.18513, 75, -2.90336, 5.13028, 23.5076, -151.824, -99.974, 92.665
7.19141, 75, -2.82059, 5.30017, 23.4348, -151.768, -100.203, 92.0762
7.19935, 75, -2.73692, 5.45916, 23.3659, -151.714, -100.423, 91.4803
7.20755, 75, -2.65238, 5.60743, 23.301, -151.664, -100.634, 90.8781
7.21542, 75, -2.56691, 5.74464, 23.2403, -151.617, -100.835, 90.2691
7.22338, 76, -2.48042, 5.87039, 23.1838, -151.573, -101.026, 89.6531
7.23136, 76, -2.393, 5.98454, 23.1317, -151.534, -101.209, 89.0277
7.23941, 76, -2.30488, 6.08667, 23.0838, -151.499, -101.382, 88.3935
7.24741, 76, -2.21585, 6.17638, 23.0404, -151.467, -101.546, 87.7524
7.25558, 76, -2.12597, 6.25339, 23.0019, -151.439, -101.699, 87.1046
7.2644, 77, -2.03528, 6.3174, 22.9683, -151.415, -101.84, 86.4528
7.27136, 77, -1.94368, 6.36824, 22.9403, -151.396, -101.968, 85.8015
7.28073, 77, -1.85116, 6.40525, 22.918, -151.38, -102.082, 85.152
7.28747, 77, -1.7578, 6.42821, 22.9014, -151.368, -102.182, 84.5054
7.29551, 77, -1.66361, 6.43699, 22.8907, -151.36, -102.267, 83.8628
7.30346, 78, -1.56866, 6.43105, 22.8857, -151.356, -102.336, 83.2255
7.31161, 78, -1.47301, 6.40977, 22.8861, -151.354, -102.39, 82.5913
7.31952, 78, -1.3769, 6.37319, 22.8923, -151.355, -102.428, 81.9608
7.32751, 78, -1.28049, 6.32071, 22.9046, -151.359, -102.45, 81.3355
7.33649, 78, -1.18381, 6.25208, 22.9232, -151.367, -102.458, 80.7154
7.34351, 79, -1.08699, 6.16725, 22.9488, -151.379, -102.448, 80.101
7.3514, 79, -0.990047, 6.06635, 22.9814, -151.393, -102.419, 79.4944
7.35949, 79, -0.893044, 5.94931, 23.0216, -151.411, -102.374, 78.897
7.36772, 79, -0.796048, 5.81584, 23.0691, -151.431, -102.311, 78.3088
7.37551, 79, -0.699001, 5.66573, 23.1244, -151.454, -102.23, 77.7305
7.38366, 80, -0.601967, 5.49925, 23.187, -151.48, -102.131, 77.1629
7.39168, 80, -0.504878, 5.31619, 23.2574, -151.506, -102.013, 76.6062
7.39968, 80, -0.407802, 5.11654, 23.3357, -151.535, -101.877, 76.0591
7.40859, 80, -0.310937, 4.8998, 23.4222, -151.565, -101.723, 75.5218
7.41727, 80, -0.214149, 4.6647, 23.5171, -151.597, -101.549, 74.9936
7.42388, 81, -0.117546, 4.41199, 23.6208, -151.63, -101.356, 74.4757
7.43423, 81, -0.0210401, 4.1427, 23.7332, -151.665, -101.144, 73.9667
7.44015, 81, 0.0752131, 3.85627, 23.8549, -151.699, -100.912, 73.4667
7.44857, 81, 0.17131, 3.55334, 23.9861, -151.736, -100.662, 72.9764
7.45589, 81, 0.21929, 3.39538, 24.0554, -151.754, -100.529, 72.4955
7.46552, 82, 0.362857, 2.89535, 24.2783, -151.81, -100.103, 72.0244
7.47435, 82, 0.458222, 2.54128, 24.4387, -151.848, -99.7947, 71.5625
7.48038, 82, 0.553342, 2.17135, 24.6083, -151.885, -99.4673, 71.1103
7.48734, 82, 0.60084, 1.9804, 24.6968, -151.904, -99.297, 70.8879
7.4965, 82, 0.742985, 1.3827, 24.9766, -151.959, -98.7596, 70.2354
7.50339, 82, 0.790324, 1.17528, 25.0744, -151.977, -98.5718, 70.0233
7.51156, 83, 0.885039, 0.749322, 25.2769, -152.013, -98.1841, 69.6063
7.51933, 83, 0.979697, 0.308952, 25.4898, -152.048, -97.7802, 69.1996
7.52959, 83, 1.12192, -0.378915, 25.827, -152.098, -97.1456, 68.6093
7.53913, 83, 1.21684, -0.855213, 26.0626, -152.129, -96.7033, 68.2279
7.54527, 83, 1.31181, -1.3458, 26.3083, -152.159, -96.2459, 67.8564
7.55133, 84, 1.35945, -1.59626, 26.4348, -152.173, -96.0113, 67.6739
7.55942, 84, 1.45487, -2.10727, 26.6953, -152.202, -95.5312, 67.3148
7.56734, 84, 1.55047, -2.63148, 26.9666, -152.228, -95.0356, 66.9633
7.57534, 84, 1.64652, -3.16907, 27.2475, -152.253, -94.5243, 66.619
7.5849, 84, 1.74291, -3.72, 27.5394, -152.276, -93.9983, 66.1149
7.59768, 85, 1.93665, -4.86097, 28.1535, -152.318, -92.9006, 65.628
7.59998, 85, 1.93665, -4.86097, 28.1535, -152.318, -92.9006, 65.628
7.60734, 85, 2.03405, -5.448, 28.4751, -152.336, -92.3305, 65.3132
7.61892, 85, 2.1808, -6.34639, 28.9748, -152.358, -91.4555, 64.856
7.62351, 85, 2.23005, -6.65, 29.1457, -152.364, -91.1585, 64.7082
7.63156, 86, 2.32909, -7.26313, 29.4938, -152.374, -90.5572, 64.4199
7.63933, 86, 2.42884, -7.88303, 29.8489, -152.381, -89.9466, 64.1417
7.64748, 86, 2.52962, -8.50863, 30.211, -152.385, -89.3273, 63.8739
7.65631, 86, 2.63126, -9.14047, 30.5789, -152.387, -88.7013, 63.6173
7.66341, 86, 2.73374, -9.77705, 30.9524, -152.386, -88.0719, 63.3724
7.67154, 87, 2.83754, -10.4176, 31.3311, -152.382, -87.4375, 63.1391
7.67935, 87, 2.94194, -11.061, 31.715, -152.374, -86.7972, 62.9177
7.6874, 87, 3.04723, -11.7068, 32.1032, -152.362, -86.1521, 62.7086
7.69664, 87, 3.15354, -12.3545, 32.4954, -152.346, -85.5026, 62.5121
7.70334, 87, 3.26043, -13.0039, 32.8926, -152.326, -84.8502, 62.3287
7.71141, 87, 3.3681, -13.6554, 33.2944, -152.303, -84.1938, 62.1581
7.71935, 88, 3.47637, -14.3087, 33.7005, -152.276, -83.5333, 62.0013
7.72751, 88, 3.58532, -14.9637, 34.1105, -152.245, -82.8694, 61.8579
7.7361, 88, 3.69504, -15.6197, 34.5247, -152.21, -82.2012, 61.7287
7.7444, 88, 3.80533, -16.2767, 34.9432, -152.169, -81.5305, 61.615
7.75134, 88, 3.91597, -16.9337, 35.3656, -152.124, -80.8579, 61.5161
7.7595, 89, 4.02694, -17.5894, 35.7913, -152.075, -80.1824, 61.4344
7.76741, 89, 4.13805, -18.2434, 36.2202, -152.019, -79.5036, 61.37
7.78035, 89, 4.30474, -19.2196, 36.8675, -151.927, -78.4795, 61.3078
7.78353, 89, 4.3603, -19.5432, 37.0838, -151.893, -78.1384, 61.2968
7.79157, 89, 4.47132, -20.1867, 37.5164, -151.822, -77.458, 61.2885
7.79967, 90, 4.58277, -20.8259, 37.9482, -151.745, -76.7791, 61.3028
7.80743, 90, 4.69484, -21.4609, 38.3792, -151.663, -76.1021, 61.3415
7.81583, 90, 4.807, -22.0912, 38.8086, -151.575, -75.4288, 61.4038
7.82345, 90, 4.91928, -22.7168, 39.236, -151.481, -74.7605, 61.4913
7.83157, 90, 5.03142, -23.3381, 39.6621, -151.381, -74.097, 61.6054
7.84061, 91, 5.14352, -23.9551, 40.0873, -151.275, -73.4349, 61.7466
7.84836, 91, 5.25517, -24.566, 40.5115, -151.162, -72.7737, 61.9164
7.85538, 91, 5.366, -25.1707, 40.9355, -151.043, -72.1126, 62.115
7.86347, 91, 5.47602, -25.7689, 41.3585, -150.917, -71.4502, 62.3437
7.87226, 91, 5.5854, -26.3598, 41.7804, -150.785, -70.7893, 62.603
7.88155, 92, 5.69455, -26.9432, 42.2009, -150.646, -70.1303, 62.894
7.88769, 92, 5.80412, -27.5184, 42.6183, -150.502, -69.4736, 63.2162
7.89567, 92, 5.91426, -28.085, 43.0309, -150.353, -68.8201, 63.5694
7.9038, 92, 6.02506, -28.6424, 43.4384, -150.199, -68.1702, 63.9544
7.91178, 92, 6.13697, -29.1892, 43.8396, -150.041, -67.5261, 64.3704
7.92043, 93, 6.25029, -29.7251, 44.2344, -149.881, -66.8887, 64.8179
7.92793, 93, 6.36532, -30.2505, 44.6223, -149.718, -66.256, 65.2979
7.94532, 93, 6.60194, -31.2733, 45.3817, -149.39, -64.9998, 66.3552
7.94658, 93, 6.60194, -31.2733, 45.3817, -149.39, -64.9998, 66.3552
7.95189, 93, 6.66246, -31.5249, 45.5685, -149.225, -64.374, 66.9381
7.96065, 94, 6.84744, -32.2715, 46.1231, -149.058, -63.7476, 67.5633
7.96794, 94, 6.91026, -32.5179, 46.3067, -148.975, -63.4324, 67.893
7.97532, 94, 7.03752, -33.0071, 46.6722, -148.808, -62.7974, 68.5904
7.98438, 94, 7.23224, -33.7272, 47.2173, -148.559, -61.8331, 69.7365
7.99134, 94, 7.29848, -33.9636, 47.3977, -148.477, -61.5083, 70.1441
7.99934, 94, 7.4338, -34.4308, 47.7544, -148.317, -60.8556, 71.0005
8.00737, 95, 7.57356, -34.8883, 48.1037, -148.164, -60.2044, 71.9086
8.01532, 95, 7.7189, -35.3355, 48.4432, -148.022, -59.557, 72.8584
8.02331, 95, 7.87045, -35.7704, 48.7711, -147.893, -58.9158, 73.8497
8.03142, 95, 8.02868, -36.19, 49.0851, -147.78, -58.2828, 74.8758
8.04173, 95, 8.27887, -36.7824, 49.5266, -147.643, -57.3517, 76.4787
8.04733, 96, 8.36575, -36.9696, 49.6656, -147.607, -57.0481, 77.0282
8.05688, 96, 8.63549, -37.4969, 50.0569, -147.53, -56.1586, 78.7201
8.06493, 96, 8.82181, -37.8176, 50.2962, -147.504, -55.5844, 79.8769
8.07292, 96, 9.01291, -38.1125, 50.5163, -147.498, -55.0276, 81.0506
8.08175, 96, 9.10979, -38.2507, 50.619, -147.513, -54.4911, 82.2349
8.08759, 97, 9.30505, -38.5082, 50.81, -147.529, -54.2312, 82.8311
8.09534, 97, 9.50129, -38.74, 50.981, -147.577, -53.7297, 84.0283
8.10434, 97, 9.69721, -38.9469, 51.1312, -147.646, -53.254, 85.2253
8.11139, 97, 9.89207, -39.1295, 51.2617, -147.733, -52.8062, 86.4114
8.11934, 97, 10.085, -39.2864, 51.3726, -147.837, -52.3878, 87.5816
8.12731, 97, 10.2747, -39.4177, 51.464, -147.954, -51.9998, 88.7272
8.1354, 97, 10.4607, -39.5238, 51.5368, -148.083, -51.6427, 89.8432
8.14331, 98, 10.6434, -39.6051, 51.5914, -148.222, -51.3161, 90.9236
8.15139, 98, 10.8243, -39.6631, 51.6284, -148.37, -51.0189, 91.9754
8.15931, 98, 11.0036, -39.6983, 51.648, -148.529, -50.7479, 93.0078
8.16734, 98, 11.181, -39.7101, 51.6506, -148.699, -50.4992, 94.038
8.17539, 98, 11.3565, -39.6986, 51.6365, -148.882, -50.2703, 95.0764
8.18332, 98, 11.5318, -39.6635, 51.6048, -149.079, -50.0599, 96.1344
8.19155, 99, 11.7072, -39.6046, 51.5553, -149.289, -49.869, 97.2128
8.1994, 99, 11.8818, -39.5229, 51.4878, -149.512, -49.7, 98.3125
8.20729, 99, 12.0541, -39.4185, 51.4017, -149.745, -49.5556, 99.422
8.21534, 99, 12.2233, -39.2916, 51.2973, -149.985, -49.4393, 100.533
8.22337, 99, 12.3881, -39.1424, 51.1751, -150.228, -49.3536, 101.632
8.23133, 99, 12.5464, -38.9712, 51.0362, -150.472, -49.2984, 102.711
8.23934, 99, 12.6968, -38.777, 50.8817, -150.714, -49.2746, 103.76
8.24739, 100, 12.8383, -38.5583, 50.7112, -150.951, -49.2823, 104.78
8.25532, 100, 12.9709, -38.3163, 50.5236, -151.183, -49.3223, 105.771
8.2634, 100, 13.0946, -38.0518, 50.3193, -151.409, -49.3928, 106.736
8.27141, 100, 13.2101, -37.766, 50.0983, -151.629, -49.4952, 107.678
8.28017, 100, 13.3174, -37.4587, 49.8588, -151.843, -49.6283, 108.595
8.2877, 101, 13.4166, -37.1274, 49.602, -152.05, -49.7918, 109.494
8.29547, 101, 13.5076, -36.7715, 49.3283, -152.249, -49.9853, 110.367
8.30343, 101, 13.5908, -36.3888, 49.0372, -152.439, -50.2087, 111.219
8.31142, 101, 13.6659, -35.9798, 48.7287, -152.619, -50.462, 112.049
8.31949, 101, 13.7329, -35.5463, 48.4015, -152.791, -50.7467, 112.855
8.33948, 102, 13.8636, -34.359, 47.5034, -153.172, -51.6025, 114.781
8.34073, 102, 13.8636, -34.359, 47.5034, -153.172, -51.6025, 114.781
8.34334, 102, 13.883, -34.1036, 47.3101, -153.24, -51.799, 115.15
8.35138, 102, 13.9147, -33.5743, 46.9107, -153.365, -52.2171, 115.871
8.35943, 102, 13.9375, -33.0214, 46.4949, -153.478, -52.6685, 116.567
8.36741, 102, 13.9516, -32.4459, 46.0647, -153.576, -53.1515, 117.236
8.37544, 102, 13.9574, -31.8483, 45.6206, -153.66, -53.6628, 117.88
8.38383, 103, 13.9556, -31.23, 45.1629, -153.731, -54.2009, 118.496
8.39162, 103, 13.947, -30.5934, 44.6933, -153.788, -54.7627, 119.084
8.39963, 103, 13.9319, -29.941, 44.2134, -153.83, -55.3454, 119.647
8.40774, 103, 13.9109, -29.2745, 43.7247, -153.86, -55.9465, 120.182
8.41581, 103, 13.8845, -28.5948, 43.2289, -153.879, -56.5648, 120.691
8.42436, 104, 13.8535, -27.9044, 42.7276, -153.887, -57.1964, 121.173
8.43207, 104, 13.8183, -27.2051, 42.2228, -153.884, -57.8398, 121.63
8.43994, 104, 13.7791, -26.4985, 41.7154, -153.871, -58.497, 122.065
8.44787, 104, 13.7366, -25.7857, 41.2058, -153.849, -59.1665, 122.479
8.45642, 104, 13.6917, -25.0692, 40.6955, -153.819, -59.8464, 122.875
8.46388, 104, 13.6686, -24.7101, 40.4403, -153.801, -60.1894, 123.067
8.4713, 104, 13.6211, -23.9903, 39.9298, -153.759, -60.8795, 123.441
8.47941, 104, 13.572, -23.2686, 39.42, -153.711, -61.5752, 123.805
8.4873, 104, 13.5216, -22.546, 38.9113, -153.659, -62.2754, 124.163
8.49529, 104, 13.4705, -21.8227, 38.4041, -153.6, -62.9779, 124.516
8.50451, 104, 13.3929, -20.7381, 37.6462, -153.506, -64.0339, 125.042
8.51131, 104, 13.3668, -20.3766, 37.3941, -153.471, -64.3862, 125.216
8.5193, 104, 13.3145, -19.6534, 36.8915, -153.401, -65.0913, 125.563
8.5291, 104, 13.2357, -18.5681, 36.1412, -153.287, -66.1518, 126.082
8.53532, 104, 13.2095, -18.2064, 35.8922, -153.247, -66.5057, 126.255
8.54488, 104, 13.1313, -17.1205, 35.1489, -153.122, -67.5686, 126.772
8.55293, 104, 13.0795, -16.396, 34.6556, -153.033, -68.2763, 127.116
8.56085, 104, 13.028, -15.6715, 34.1647, -152.941, -68.9855, 127.46
8.56888, 104, 12.977, -14.9469, 33.6762, -152.844, -69.6964, 127.803
8.57711, 104, 12.9261, -14.2216, 33.1897, -152.744, -70.4081, 128.147
8.5833, 104, 12.9008, -13.859, 32.9476, -152.693, -70.7635, 128.318
8.59231, 104, 12.8506, -13.1335, 32.4652, -152.587, -71.4736, 128.662
8.60035, 104, 12.8006, -12.4077, 31.9855, -152.477, -72.1854, 129.006
8.6074, 104, 12.7508, -11.6824, 31.5085, -152.364, -72.8985, 129.351
8.61631, 104, 12.7017, -10.9574, 31.0337, -152.246, -73.6114, 129.696
8.62436, 104, 12.6528, -10.2319, 30.5615, -152.125, -74.3247, 130.042
8.6313, 104, 12.6041, -9.50652, 30.0929, -151.999, -75.0374, 130.388
8.63939, 104, 12.556, -8.78099, 29.6272, -151.869, -75.7513, 130.736
8.6473, 104, 12.5084, -8.05457, 29.1644, -151.736, -76.4663, 131.084
8.6553, 104, 12.4611, -7.32875, 28.7051, -151.598, -77.1816, 131.433
8.66349, 104, 12.4146, -6.60356, 28.2492, -151.456, -77.8973, 131.784
8.67131, 104, 12.3688, -5.87863, 27.7963, -151.31, -78.6116, 132.136
8.67931, 104, 12.3232, -5.15403, 27.347, -151.16, -79.3263, 132.489
8.6874, 104, 12.2785, -4.43062, 26.902, -151.006, -80.0419, 132.843
8.69529, 104, 12.2349, -3.70933, 26.4617, -150.847, -80.7574, 133.199
8.70334, 104, 12.1923, -2.99212, 26.0262, -150.685, -81.4702, 133.555
8.71138, 104, 12.1509, -2.2806, 25.5964, -150.519, -82.179, 133.912
8.71931, 104, 12.1109, -1.5759, 25.1732, -150.35, -82.8842, 134.269
8.72729, 104, 12.0716, -0.879339, 24.7585, -150.177, -83.5835, 134.623
8.73539, 104, 12.0336, -0.192629, 24.3528, -150.003, -84.2734, 134.975
8.7433, 104, 11.9965, 0.483684, 23.9577, -149.828, -84.9512, 135.323
8.7513, 104, 11.9603, 1.14824, 23.5748, -149.652, -85.6149, 135.666
8.75939, 104, 11.9254, 1.79964, 23.2041, -149.476, -86.2643, 136.004
8.7673, 104, 11.8917, 2.4366, 22.8464, -149.3, -86.899, 136.335
8.77545, 104, 11.8589, 3.05736, 22.5007, -149.125, -87.5172, 136.66
8.78339, 104, 11.8274, 3.66199, 22.1685, -148.95, -88.1195, 136.978
8.79136, 104, 11.7974, 4.24994, 21.8489, -148.777, -88.7045, 137.29
8.7994, 104, 11.7684, 4.82123, 21.542, -148.606, -89.2717, 137.595
8.80746, 104, 11.7409, 5.37548, 21.2466, -148.435, -89.823, 137.892
8.81542, 104, 11.7145, 5.91221, 20.963, -148.267, -90.3586, 138.183
8.82342, 104, 11.6893, 6.43247, 20.6914, -148.101, -90.8778, 138.467
8.83148, 104, 11.6652, 6.93576, 20.4312, -147.938, -91.3806, 138.743
8.83931, 104, 11.6424, 7.42182, 20.1831, -147.777, -91.8663, 139.011
8.84787, 104, 11.6207, 7.89158, 19.9456, -147.619, -92.3346, 139.272
8.85541, 104, 11.6, 8.34462, 19.7187, -147.464, -92.7865, 139.526
8.86404, 104, 11.5806, 8.78075, 19.5033, -147.312, -93.222, 139.771
8.8723, 104, 11.5623, 9.19912, 19.298, -147.164, -93.6407, 140.008
8.87951, 104, 11.5451, 9.60054, 19.103, -147.02, -94.0424, 140.237
8.88757, 104, 11.5289, 9.98387, 18.919, -146.881, -94.4268, 140.457
8.89559, 104, 11.5138, 10.3489, 18.7455, -146.746, -94.7929, 140.668
8.90372, 104, 11.4998, 10.6945, 18.5821, -146.616, -95.1407, 140.87
8.91173, 104, 11.4868, 11.0211, 18.4294, -146.492, -95.4691, 141.061
8.92038, 104, 11.4748, 11.3273, 18.2878, -146.375, -95.7771, 141.241
8.9279, 104, 11.4639, 11.613, 18.1566, -146.264, -96.0648, 141.409
8.93645, 104, 11.454, 11.8778, 18.0358, -146.16, -96.3312, 141.566
8.94401, 104, 11.445, 12.121, 17.9259, -146.064, -96.5761, 141.71
8.95191, 104, 11.4366, 12.3432, 17.8264, -145.976, -96.7989, 141.843
8.96048, 104, 11.429, 12.5446, 17.7373, -145.896, -96.9998, 141.962
8.96787, 104, 11.4255, 12.6373, 17.6966, -145.859, -97.092, 142.069
8.97637, 104, 11.4162, 12.8837, 17.5899, -145.761, -97.3353, 142.162
8.98331, 104, 11.4134, 12.9557, 17.5592, -145.733, -97.4055, 142.204
8.99135, 104, 11.4082, 13.0851, 17.505, -145.682, -97.5297, 142.279
9.00043, 104, 11.4012, 13.2443, 17.4408, -145.623, -97.6772, 142.367
9.0073, 104, 11.3991, 13.2885, 17.4235, -145.607, -97.7168, 142.39
9.01531, 104, 11.3952, 13.3649, 17.3946, -145.58, -97.7826, 142.43
9.02332, 104, 11.3916, 13.427, 17.3729, -145.559, -97.8317, 142.46
9.03129, 104, 11.3883, 13.4765, 17.3571, -145.543, -97.8676, 142.482
9.03932, 104, 11.3857, 13.5146, 17.3461, -145.533, -97.8926, 142.497
9.04935, 104, 11.3826, 13.5544, 17.3365, -145.524, -97.9151, 142.509
9.05529, 104, 11.3818, 13.5641, 17.3345, -145.522, -97.9195, 142.511
9.06483, 104, 11.3799, 13.5845, 17.3311, -145.519, -97.9268, 142.515
9.0731, 104, 11.379, 13.5929, 17.3301, -145.518, -97.9288, 142.516
9.07926, 105, 11.3787, 13.5961, 17.3298, -145.518, -97.9293, 142.517
9.08877, 105, 11.3782, 13.6006, 17.3295, -145.518, -97.93, 142.517
9.09534, 105, 11.3778, 13.6036, 17.3294, -145.518, -97.9303, 142.517
9.1033, 105, 11.3775, 13.6059, 17.3293, -145.518, -97.9304, 142.517
9.11229, 105, 11.3772, 13.6078, 17.3292, -145.518, -97.9305, 142.517
9.12032, 105, 11.3771, 13.6095, 17.3292, -145.518, -97.9305, 142.517
9.12728, 105, 11.3769, 13.6109, 17.3292, -145.518, -97.9304, 142.517
9.13531, 105, 11.3768, 13.6122, 17.3293, -145.518, -97.9304, 142.517
9.14334, 105, 11.3767, 13.6133, 17.3293, -145.518, -97.9303, 142.517
9.15129, 105, 11.3766, 13.6142, 17.3293, -145.518, -97.9302, 142.517
9.1593, 105, 11.3766, 13.615, 17.3293, -145.518, -97.93, 142.517
9.16733, 105, 11.3766, 13.6155, 17.3293, -145.518, -97.9299, 142.517
9.17529, 105, 11.3766, 13.6159, 17.3293, -145.518, -97.9298, 142.517
9.1833, 105, 11.3766, 13.6161, 17.3294, -145.518, -97.9296, 142.517
9.19134, 105, 11.3766, 13.6162, 17.3294, -145.518, -97.9295, 142.517
