hehonglu123/Motion-Primitive-Planning/simulation/robotstudio_sim/scripts/fitting_output_new/matlab_movej_1/curve_exe_vmax_z10.csv
timestamp, cmd_num, J1, J2, J3, J4, J5, J6
0, 1, -22.0131, 43.2903, 24.1129, -32.8282, -59.2066, 146.009
0.002, 1, -22.0131, 43.2903, 24.1129, -32.8282, -59.2066, 146.009
0.004, 1, -22.0131, 43.2903, 24.1129, -32.8282, -59.2066, 146.009
0.008, 1, -22.0131, 43.2903, 24.1129, -32.8282, -59.2066, 146.009
0.011, 1, -22.0131, 43.2903, 24.1129, -32.8282, -59.2066, 146.009
0.016, 1, -22.0131, 43.2903, 24.1129, -32.8282, -59.2066, 146.009
0.02, 1, -22.0131, 43.2903, 24.1129, -32.8282, -59.2066, 146.009
0.024, 1, -22.0131, 43.2903, 24.1129, -32.8282, -59.2066, 146.009
0.028, 1, -22.0131, 43.2903, 24.1129, -32.8282, -59.2066, 146.009
0.032, 1, -22.0131, 43.2903, 24.1129, -32.8282, -59.2066, 146.009
0.036, 1, -22.0131, 43.2903, 24.1129, -32.8282, -59.2066, 146.009
0.04, 1, -22.013, 43.2903, 24.1129, -32.8282, -59.2066, 146.009
0.044, 1, -22.0128, 43.2903, 24.1129, -32.8282, -59.2066, 146.009
0.048, 1, -22.0123, 43.2902, 24.1129, -32.8282, -59.2066, 146.009
0.052, 1, -22.0113, 43.2902, 24.1129, -32.8281, -59.2066, 146.009
0.056, 1, -22.0097, 43.2901, 24.1129, -32.8278, -59.2067, 146.009
0.06, 1, -22.0075, 43.29, 24.1128, -32.8274, -59.2067, 146.008
0.064, 1, -22.0045, 43.2898, 24.1126, -32.8264, -59.2067, 146.008
0.068, 1, -22.0008, 43.2897, 24.1123, -32.8248, -59.2066, 146.006
0.072, 1, -21.9961, 43.2895, 24.1116, -32.8223, -59.2066, 146.004
0.076, 1, -21.9905, 43.2893, 24.1106, -32.8183, -59.2064, 146.001
0.08, 1, -21.9837, 43.2891, 24.1091, -32.8125, -59.2062, 145.997
0.084, 1, -21.9754, 43.2889, 24.107, -32.8044, -59.2058, 145.99
0.088, 1, -21.9655, 43.2888, 24.104, -32.7933, -59.2053, 145.982
0.092, 1, -21.9536, 43.2888, 24.0999, -32.7786, -59.2045, 145.97
0.096, 1, -21.9397, 43.2889, 24.0947, -32.7596, -59.2036, 145.955
0.1, 1, -21.9236, 43.2892, 24.0879, -32.7356, -59.2023, 145.936
0.104, 1, -21.9053, 43.2898, 24.0795, -32.7058, -59.2006, 145.913
0.108, 1, -21.8846, 43.2906, 24.0691, -32.6695, -59.1985, 145.885
0.112, 1, -21.8612, 43.2917, 24.0567, -32.6262, -59.196, 145.851
0.116, 1, -21.8352, 43.2932, 24.0421, -32.5753, -59.193, 145.811
0.12, 1, -21.8065, 43.295, 24.0251, -32.5164, -59.1895, 145.766
0.124, 1, -21.7751, 43.2973, 24.0056, -32.4491, -59.1855, 145.713
0.128, 1, -21.7409, 43.3, 23.9835, -32.3734, -59.1809, 145.654
0.131, 1, -21.7042, 43.3031, 23.959, -32.2891, -59.1758, 145.589
0.136, 1, -21.6649, 43.3066, 23.9319, -32.1965, -59.1701, 145.517
0.139, 1, -21.6231, 43.3106, 23.9025, -32.0959, -59.1639, 145.438
0.144, 1, -21.5787, 43.315, 23.8708, -31.9877, -59.1573, 145.354
0.148, 1, -21.5318, 43.3196, 23.8371, -31.8725, -59.1502, 145.264
0.152, 1, -21.4824, 43.3246, 23.8015, -31.751, -59.1427, 145.17
0.156, 1, -21.4307, 43.3297, 23.7642, -31.624, -59.1348, 145.071
0.16, 1, -21.3768, 43.3351, 23.7255, -31.492, -59.1267, 144.968
0.164, 1, -21.3211, 43.3406, 23.6856, -31.3559, -59.1183, 144.862
0.168, 1, -21.2637, 43.3462, 23.6447, -31.2163, -59.1097, 144.754
0.172, 1, -21.2046, 43.3518, 23.603, -31.0739, -59.101, 144.643
0.176, 1, -21.1441, 43.3575, 23.5607, -30.9294, -59.0921, 144.53
0.18, 1, -21.0822, 43.3632, 23.518, -30.7832, -59.0832, 144.417
0.184, 1, -21.019, 43.3688, 23.4749, -30.6358, -59.0742, 144.302
0.188, 1, -20.9547, 43.3744, 23.4316, -30.4874, -59.0652, 144.186
0.192, 1, -20.8895, 43.38, 23.3881, -30.3385, -59.0561, 144.07
0.196, 1, -20.8235, 43.3855, 23.3445, -30.189, -59.047, 143.954
0.2, 1, -20.7571, 43.3911, 23.3008, -30.0392, -59.038, 143.837
0.204, 1, -20.6902, 43.3966, 23.2571, -29.8891, -59.0289, 143.721
0.208, 1, -20.6232, 43.4021, 23.2133, -29.7389, -59.0198, 143.604
0.212, 1, -20.5559, 43.4077, 23.1694, -29.5884, -59.0107, 143.486
0.216, 1, -20.4885, 43.4132, 23.1255, -29.4378, -59.0015, 143.369
0.22, 1, -20.421, 43.4187, 23.0816, -29.2871, -58.9924, 143.252
0.224, 1, -20.3534, 43.4242, 23.0376, -29.1362, -58.9833, 143.134
0.228, 1, -20.2857, 43.4297, 22.9936, -28.9852, -58.9742, 143.017
0.232, 1, -20.218, 43.4353, 22.9496, -28.8341, -58.965, 142.899
0.236, 1, -20.1502, 43.4408, 22.9055, -28.6829, -58.9559, 142.781
0.24, 1, -20.0823, 43.4463, 22.8614, -28.5317, -58.9467, 142.664
0.244, 1, -20.0144, 43.4519, 22.8173, -28.3803, -58.9376, 142.546
0.248, 1, -19.9465, 43.4574, 22.7731, -28.2288, -58.9284, 142.428
0.252, 1, -19.8785, 43.463, 22.7289, -28.0772, -58.9192, 142.31
0.256, 1, -19.8104, 43.4685, 22.6847, -27.9255, -58.91, 142.192
0.26, 1, -19.7423, 43.4741, 22.6405, -27.7737, -58.9009, 142.073
0.264, 1, -19.6742, 43.4796, 22.5962, -27.6218, -58.8917, 141.955
0.268, 1, -19.606, 43.4852, 22.5519, -27.4698, -58.8825, 141.837
0.272, 1, -19.5378, 43.4907, 22.5076, -27.3177, -58.8733, 141.718
0.276, 1, -19.4695, 43.4963, 22.4632, -27.1655, -58.8641, 141.6
0.28, 1, -19.4012, 43.5019, 22.4188, -27.0132, -58.8549, 141.481
0.284, 1, -19.3328, 43.5075, 22.3744, -26.8608, -58.8456, 141.363
0.288, 1, -19.2644, 43.513, 22.33, -26.7084, -58.8364, 141.244
0.292, 1, -19.196, 43.5186, 22.2855, -26.5558, -58.8272, 141.125
0.296, 1, -19.1275, 43.5242, 22.241, -26.4031, -58.8179, 141.006
0.3, 1, -19.059, 43.5298, 22.1965, -26.2503, -58.8087, 140.887
0.304, 1, -18.9904, 43.5354, 22.1519, -26.0974, -58.7994, 140.768
0.308, 1, -18.9218, 43.541, 22.1073, -25.9444, -58.7902, 140.649
0.312, 1, -18.8531, 43.5466, 22.0627, -25.7913, -58.7809, 140.53
0.316, 1, -18.7844, 43.5522, 22.0181, -25.6382, -58.7717, 140.411
0.32, 1, -18.7156, 43.5578, 21.9734, -25.4849, -58.7624, 140.291
0.324, 1, -18.6468, 43.5634, 21.9287, -25.3315, -58.7531, 140.172
0.328, 1, -18.5779, 43.569, 21.884, -25.178, -58.7438, 140.052
0.332, 1, -18.509, 43.5746, 21.8392, -25.0244, -58.7345, 139.933
0.336, 1, -18.4401, 43.5802, 21.7944, -24.8707, -58.7252, 139.813
0.34, 1, -18.3711, 43.5859, 21.7496, -24.7169, -58.7159, 139.693
0.344, 1, -18.3021, 43.5915, 21.7047, -24.563, -58.7066, 139.573
0.348, 1, -18.233, 43.5971, 21.6598, -24.409, -58.6973, 139.454
0.352, 1, -18.1639, 43.6028, 21.6149, -24.2549, -58.688, 139.334
0.356, 1, -18.0947, 43.6084, 21.57, -24.1007, -58.6786, 139.214
0.36, 1, -18.0255, 43.614, 21.525, -23.9464, -58.6693, 139.093
0.364, 1, -17.9562, 43.6197, 21.48, -23.792, -58.66, 138.973
0.368, 1, -17.8869, 43.6253, 21.435, -23.6375, -58.6506, 138.853
0.372, 1, -17.8175, 43.631, 21.3899, -23.4829, -58.6413, 138.732
0.376, 1, -17.7481, 43.6366, 21.3448, -23.3282, -58.6319, 138.612
0.38, 1, -17.6787, 43.6423, 21.2997, -23.1734, -58.6225, 138.491
0.384, 1, -17.6092, 43.648, 21.2545, -23.0184, -58.6132, 138.371
0.388, 1, -17.5396, 43.6536, 21.2094, -22.8634, -58.6038, 138.25
0.392, 1, -17.4701, 43.6593, 21.1642, -22.7083, -58.5944, 138.129
0.396, 1, -17.4004, 43.665, 21.1189, -22.5531, -58.585, 138.008
0.4, 1, -17.3307, 43.6707, 21.0736, -22.3977, -58.5756, 137.887
0.404, 1, -17.261, 43.6764, 21.0283, -22.2423, -58.5662, 137.766
0.408, 1, -17.1913, 43.682, 20.983, -22.0868, -58.5568, 137.645
0.412, 1, -17.1214, 43.6877, 20.9376, -21.9311, -58.5474, 137.524
0.416, 1, -17.0516, 43.6934, 20.8922, -21.7754, -58.538, 137.403
0.42, 1, -16.9817, 43.6991, 20.8468, -21.6195, -58.5285, 137.282
0.424, 1, -16.9117, 43.7048, 20.8014, -21.4635, -58.5191, 137.16
0.428, 1, -16.8417, 43.7105, 20.7559, -21.3075, -58.5097, 137.039
0.432, 1, -16.7716, 43.7163, 20.7104, -21.1513, -58.5002, 136.917
0.436, 1, -16.7015, 43.722, 20.6648, -20.995, -58.4907, 136.795
0.44, 1, -16.6314, 43.7277, 20.6192, -20.8387, -58.4813, 136.674
0.444, 1, -16.5612, 43.7334, 20.5736, -20.6822, -58.4718, 136.552
0.448, 1, -16.491, 43.7391, 20.528, -20.5256, -58.4623, 136.43
0.452, 1, -16.4207, 43.7449, 20.4823, -20.3689, -58.4529, 136.308
0.456, 1, -16.3504, 43.7506, 20.4366, -20.2121, -58.4434, 136.186
0.46, 1, -16.28, 43.7563, 20.3909, -20.0552, -58.4339, 136.064
0.464, 1, -16.2096, 43.7621, 20.3451, -19.8982, -58.4244, 135.941
0.468, 1, -16.1391, 43.7678, 20.2994, -19.7411, -58.4149, 135.819
0.472, 1, -16.0686, 43.7736, 20.2535, -19.5839, -58.4054, 135.697
0.476, 1, -15.998, 43.7793, 20.2077, -19.4266, -58.3959, 135.574
0.48, 1, -15.9274, 43.7851, 20.1618, -19.2692, -58.3863, 135.451
0.484, 1, -15.8567, 43.7908, 20.1159, -19.1117, -58.3768, 135.329
0.488, 1, -15.786, 43.7966, 20.07, -18.9541, -58.3673, 135.206
0.492, 1, -15.7153, 43.8024, 20.024, -18.7963, -58.3577, 135.083
0.496, 1, -15.6445, 43.8082, 19.978, -18.6385, -58.3482, 134.96
0.5, 1, -15.5736, 43.8139, 19.932, -18.4806, -58.3386, 134.837
0.504, 1, -15.5027, 43.8197, 19.8859, -18.3225, -58.3291, 134.714
0.508, 1, -15.4318, 43.8255, 19.8398, -18.1644, -58.3195, 134.591
0.512, 1, -15.3608, 43.8313, 19.7937, -18.0061, -58.3099, 134.468
0.516, 1, -15.2898, 43.8371, 19.7475, -17.8478, -58.3003, 134.345
0.52, 1, -15.2187, 43.8429, 19.7013, -17.6893, -58.2908, 134.221
0.524, 1, -15.1476, 43.8487, 19.6551, -17.5307, -58.2812, 134.098
0.528, 1, -15.0764, 43.8545, 19.6089, -17.3721, -58.2716, 133.974
0.532, 1, -15.0052, 43.8603, 19.5626, -17.2133, -58.262, 133.851
0.536, 1, -14.9339, 43.8661, 19.5163, -17.0544, -58.2523, 133.727
0.54, 1, -14.8626, 43.8719, 19.47, -16.8954, -58.2427, 133.603
0.544, 1, -14.7912, 43.8777, 19.4236, -16.7363, -58.2331, 133.479
0.548, 1, -14.7198, 43.8835, 19.3772, -16.5771, -58.2235, 133.355
0.552, 1, -14.6484, 43.8894, 19.3308, -16.4179, -58.2138, 133.231
0.556, 1, -14.5769, 43.8952, 19.2843, -16.2584, -58.2042, 133.107
0.56, 1, -14.5053, 43.901, 19.2378, -16.0989, -58.1945, 132.983
0.564, 1, -14.4337, 43.9069, 19.1913, -15.9393, -58.1849, 132.859
0.568, 1, -14.3621, 43.9127, 19.1448, -15.7796, -58.1752, 132.734
0.572, 1, -14.2904, 43.9185, 19.0982, -15.6198, -58.1655, 132.61
0.576, 1, -14.2186, 43.9244, 19.0516, -15.4599, -58.1559, 132.485
0.58, 1, -14.1469, 43.9303, 19.0049, -15.2998, -58.1462, 132.361
0.584, 1, -14.075, 43.9361, 18.9583, -15.1397, -58.1365, 132.236
0.588, 1, -14.0031, 43.942, 18.9116, -14.9795, -58.1268, 132.111
0.592, 1, -13.9312, 43.9478, 18.8648, -14.8191, -58.1171, 131.986
0.596, 1, -13.8592, 43.9537, 18.8181, -14.6587, -58.1074, 131.862
0.6, 1, -13.7872, 43.9596, 18.7713, -14.4981, -58.0977, 131.737
0.604, 1, -13.7152, 43.9654, 18.7244, -14.3375, -58.088, 131.611
0.608, 1, -13.643, 43.9713, 18.6776, -14.1767, -58.0782, 131.486
0.612, 1, -13.5709, 43.9772, 18.6307, -14.0158, -58.0685, 131.361
0.616, 1, -13.4987, 43.9831, 18.5838, -13.8548, -58.0588, 131.236
0.62, 1, -13.4264, 43.989, 18.5368, -13.6938, -58.049, 131.11
0.624, 1, -13.3541, 43.9949, 18.4898, -13.5326, -58.0393, 130.985
0.628, 1, -13.2818, 44.0008, 18.4428, -13.3713, -58.0295, 130.859
0.632, 1, -13.2094, 44.0067, 18.3958, -13.2099, -58.0197, 130.733
0.636, 1, -13.1369, 44.0126, 18.3487, -13.0484, -58.01, 130.608
0.64, 1, -13.0645, 44.0185, 18.3016, -12.8868, -58.0002, 130.482
0.644, 1, -12.9919, 44.0244, 18.2545, -12.7251, -57.9904, 130.356
0.648, 1, -12.9193, 44.0303, 18.2073, -12.5633, -57.9806, 130.23
0.652, 1, -12.8467, 44.0363, 18.1601, -12.4013, -57.9708, 130.104
0.656, 1, -12.7741, 44.0422, 18.1129, -12.2393, -57.961, 129.978
0.66, 1, -12.7013, 44.0481, 18.0657, -12.0772, -57.9512, 129.852
0.664, 1, -12.6286, 44.054, 18.0184, -11.915, -57.9414, 129.725
0.668, 1, -12.5558, 44.06, 17.9711, -11.7526, -57.9316, 129.599
0.672, 1, -12.4829, 44.0659, 17.9237, -11.5902, -57.9218, 129.472
0.676, 1, -12.41, 44.0719, 17.8764, -11.4277, -57.9119, 129.346
0.68, 1, -12.3371, 44.0778, 17.829, -11.265, -57.9021, 129.219
0.684, 1, -12.2641, 44.0838, 17.7815, -11.1023, -57.8922, 129.092
0.688, 1, -12.191, 44.0897, 17.7341, -10.9395, -57.8824, 128.966
0.692, 1, -12.1179, 44.0957, 17.6866, -10.7765, -57.8725, 128.839
0.696, 1, -12.0448, 44.1016, 17.6391, -10.6135, -57.8627, 128.712
0.7, 1, -11.9716, 44.1076, 17.5915, -10.4503, -57.8528, 128.585
0.704, 1, -11.8984, 44.1136, 17.5439, -10.2871, -57.8429, 128.458
0.708, 1, -11.8252, 44.1196, 17.4963, -10.1238, -57.833, 128.33
0.712, 1, -11.7518, 44.1255, 17.4487, -9.96031, -57.8231, 128.203
0.716, 1, -11.6785, 44.1315, 17.401, -9.79677, -57.8132, 128.076
0.72, 1, -11.6051, 44.1375, 17.3533, -9.63313, -57.8033, 127.948
0.724, 1, -11.5317, 44.1435, 17.3056, -9.46939, -57.7934, 127.821
0.728, 1, -11.4582, 44.1495, 17.2579, -9.30556, -57.7835, 127.693
0.732, 1, -11.3846, 44.1555, 17.2101, -9.14162, -57.7736, 127.566
0.736, 1, -11.3111, 44.1615, 17.1623, -8.97759, -57.7637, 127.438
0.74, 1, -11.2375, 44.1675, 17.1144, -8.81346, -57.7538, 127.31
0.744, 1, -11.1638, 44.1735, 17.0666, -8.64923, -57.7438, 127.182
0.748, 1, -11.0901, 44.1795, 17.0187, -8.48491, -57.7339, 127.054
0.752, 1, -11.0163, 44.1855, 16.9708, -8.32049, -57.7239, 126.926
0.756, 1, -10.9426, 44.1915, 16.9228, -8.15597, -57.714, 126.798
0.76, 1, -10.8687, 44.1975, 16.8748, -7.99135, -57.704, 126.67
0.764, 1, -10.7949, 44.2036, 16.8268, -7.82664, -57.6941, 126.542
0.768, 1, -10.7209, 44.2096, 16.7788, -7.66184, -57.6841, 126.414
0.772, 1, -10.647, 44.2156, 16.7307, -7.49694, -57.6741, 126.285
0.776, 1, -10.573, 44.2217, 16.6826, -7.33195, -57.6641, 126.157
0.78, 1, -10.4989, 44.2277, 16.6345, -7.16686, -57.6541, 126.028
0.784, 1, -10.4248, 44.2337, 16.5864, -7.00167, -57.6441, 125.9
0.788, 1, -10.3507, 44.2398, 16.5382, -6.8364, -57.6341, 125.771
0.792, 1, -10.2765, 44.2458, 16.49, -6.67103, -57.6241, 125.642
0.796, 1, -10.2023, 44.2519, 16.4418, -6.50556, -57.6141, 125.513
0.8, 1, -10.1281, 44.2579, 16.3935, -6.34001, -57.6041, 125.384
0.804, 1, -10.0538, 44.264, 16.3453, -6.17436, -57.5941, 125.255
0.808, 1, -9.97943, 44.2701, 16.2969, -6.00862, -57.5841, 125.126
0.812, 1, -9.90505, 44.2761, 16.2486, -5.84278, -57.574, 124.997
0.816, 1, -9.83063, 44.2822, 16.2003, -5.67686, -57.564, 124.868
0.82, 1, -9.75617, 44.2883, 16.1519, -5.51084, -57.5539, 124.739
0.824, 1, -9.68167, 44.2943, 16.1035, -5.34474, -57.5439, 124.609
0.828, 1, -9.60713, 44.3004, 16.055, -5.17854, -57.5338, 124.48
0.832, 1, -9.53254, 44.3065, 16.0065, -5.01225, -57.5238, 124.35
0.836, 1, -9.45792, 44.3126, 15.9581, -4.84588, -57.5137, 124.221
0.84, 1, -9.38326, 44.3187, 15.9095, -4.67941, -57.5036, 124.091
0.844, 1, -9.30855, 44.3248, 15.861, -4.51285, -57.4936, 123.962
0.848, 1, -9.23381, 44.3309, 15.8124, -4.34621, -57.4835, 123.832
0.852, 1, -9.15903, 44.337, 15.7638, -4.17948, -57.4734, 123.702
0.856, 1, -9.0842, 44.3431, 15.7152, -4.01266, -57.4633, 123.572
0.86, 1, -9.00934, 44.3492, 15.6666, -3.84575, -57.4532, 123.442
0.864, 1, -8.93444, 44.3553, 15.6179, -3.67875, -57.4431, 123.312
0.868, 1, -8.8595, 44.3614, 15.5692, -3.51167, -57.433, 123.182
0.872, 1, -8.78452, 44.3675, 15.5205, -3.34449, -57.4229, 123.052
0.876, 1, -8.70951, 44.3736, 15.4717, -3.17724, -57.4128, 122.922
0.88, 1, -8.63446, 44.3797, 15.4229, -3.00989, -57.4026, 122.791
0.884, 1, -8.55937, 44.3859, 15.3741, -2.84246, -57.3925, 122.661
0.888, 1, -8.48424, 44.392, 15.3253, -2.67495, -57.3824, 122.531
0.892, 1, -8.40907, 44.3981, 15.2765, -2.50735, -57.3722, 122.4
0.896, 1, -8.33387, 44.4042, 15.2276, -2.33967, -57.3621, 122.269
0.9, 1, -8.25863, 44.4104, 15.1787, -2.1719, -57.3519, 122.139
0.904, 1, -8.18336, 44.4165, 15.1298, -2.00405, -57.3418, 122.008
0.908, 1, -8.10805, 44.4227, 15.0808, -1.83612, -57.3316, 121.877
0.912, 1, -8.0327, 44.4288, 15.0319, -1.66811, -57.3215, 121.747
0.916, 1, -7.95732, 44.435, 14.9829, -1.50002, -57.3113, 121.616
0.92, 1, -7.8819, 44.4411, 14.9339, -1.33185, -57.3011, 121.485
0.924, 1, -7.80645, 44.4473, 14.8848, -1.1636, -57.2909, 121.354
0.928, 1, -7.73096, 44.4534, 14.8358, -0.995267, -57.2808, 121.223
0.932, 1, -7.65544, 44.4596, 14.7867, -0.826861, -57.2706, 121.092
0.936, 1, -7.57989, 44.4657, 14.7376, -0.658378, -57.2604, 120.96
0.94, 1, -7.5043, 44.4719, 14.6884, -0.48982, -57.2502, 120.829
0.944, 1, -7.42867, 44.4781, 14.6393, -0.321186, -57.24, 120.698
0.948, 1, -7.35302, 44.4842, 14.5901, -0.152478, -57.2298, 120.566
0.952, 1, -7.27733, 44.4904, 14.5409, 0.0163032, -57.2196, 120.435
0.956, 1, -7.20161, 44.4966, 14.4917, 0.185157, -57.2093, 120.304
0.96, 1, -7.12585, 44.5028, 14.4425, 0.354083, -57.1991, 120.172
0.964, 1, -7.05007, 44.509, 14.3932, 0.52308, -57.1889, 120.04
0.968, 1, -6.97425, 44.5151, 14.344, 0.692146, -57.1787, 119.909
0.972, 1, -6.8984, 44.5213, 14.2947, 0.861282, -57.1684, 119.777
0.976, 1, -6.82252, 44.5275, 14.2453, 1.03049, -57.1582, 119.645
0.98, 1, -6.74661, 44.5337, 14.196, 1.19976, -57.148, 119.514
0.984, 1, -6.67068, 44.5399, 14.1466, 1.3691, -57.1377, 119.382
0.988, 1, -6.59471, 44.5461, 14.0973, 1.5385, -57.1275, 119.25
0.992, 1, -6.51871, 44.5523, 14.0479, 1.70797, -57.1172, 119.118
0.996, 1, -6.44269, 44.5585, 13.9985, 1.8775, -57.1069, 118.986
1, 1, -6.36663, 44.5647, 13.949, 2.0471, -57.0967, 118.854
1.004, 1, -6.29055, 44.5709, 13.8996, 2.21676, -57.0864, 118.722
1.008, 1, -6.21444, 44.5771, 13.8501, 2.38648, -57.0762, 118.59
1.012, 1, -6.1383, 44.5833, 13.8006, 2.55626, -57.0659, 118.457
1.016, 1, -6.06214, 44.5895, 13.7511, 2.7261, -57.0556, 118.325
1.02, 1, -5.98595, 44.5958, 13.7016, 2.89601, -57.0453, 118.193
1.024, 1, -5.90974, 44.602, 13.6521, 3.06597, -57.035, 118.06
1.027, 1, -5.83349, 44.6082, 13.6025, 3.23598, -57.0248, 117.928
1.032, 1, -5.75723, 44.6144, 13.5529, 3.40606, -57.0145, 117.796
1.036, 1, -5.68094, 44.6206, 13.5034, 3.57618, -57.0042, 117.663
1.04, 1, -5.60462, 44.6269, 13.4538, 3.74637, -56.9939, 117.531
1.044, 1, -5.52828, 44.6331, 13.4041, 3.91661, -56.9836, 117.398
1.048, 1, -5.45191, 44.6393, 13.3545, 4.0869, -56.9733, 117.266
1.052, 1, -5.37553, 44.6456, 13.3049, 4.25724, -56.963, 117.133
1.055, 1, -5.29912, 44.6518, 13.2552, 4.42763, -56.9527, 117
1.06, 1, -5.22269, 44.658, 13.2055, 4.59808, -56.9423, 116.867
1.064, 1, -5.14623, 44.6643, 13.1558, 4.76857, -56.932, 116.735
1.068, 1, -5.06975, 44.6705, 13.1061, 4.93912, -56.9217, 116.602
1.072, 1, -4.99326, 44.6767, 13.0564, 5.10971, -56.9114, 116.469
1.076, 1, -4.91674, 44.683, 13.0067, 5.28034, -56.9011, 116.336
1.08, 1, -4.8402, 44.6892, 12.9569, 5.45103, -56.8907, 116.203
1.084, 1, -4.76364, 44.6955, 12.9072, 5.62175, -56.8804, 116.07
1.088, 1, -4.68706, 44.7017, 12.8574, 5.79253, -56.8701, 115.937
1.091, 1, -4.61047, 44.708, 12.8076, 5.96334, -56.8597, 115.804
1.096, 1, -4.53385, 44.7142, 12.7578, 6.1342, -56.8494, 115.671
1.1, 1, -4.45721, 44.7205, 12.708, 6.3051, -56.8391, 115.538
1.104, 1, -4.38056, 44.7267, 12.6582, 6.47603, -56.8287, 115.405
1.108, 1, -4.30389, 44.733, 12.6083, 6.64701, -56.8184, 115.272
1.112, 1, -4.2272, 44.7392, 12.5585, 6.81803, -56.808, 115.139
1.116, 1, -4.15049, 44.7455, 12.5086, 6.98908, -56.7977, 115.006
1.119, 1, -4.07377, 44.7517, 12.4588, 7.16018, -56.7873, 114.873
1.124, 1, -3.99703, 44.758, 12.4089, 7.33131, -56.777, 114.739
1.128, 1, -3.92028, 44.7643, 12.359, 7.50247, -56.7666, 114.606
1.132, 1, -3.84351, 44.7705, 12.3091, 7.67367, -56.7563, 114.473
1.136, 1, -3.76672, 44.7768, 12.2592, 7.8449, -56.7459, 114.339
1.14, 1, -3.68993, 44.7831, 12.2093, 8.01616, -56.7355, 114.206
1.144, 1, -3.61312, 44.7893, 12.1593, 8.18745, -56.7252, 114.073
1.147, 1, -3.5363, 44.7956, 12.1094, 8.35878, -56.7148, 113.939
1.152, 1, -3.45946, 44.8019, 12.0595, 8.53013, -56.7045, 113.806
1.156, 1, -3.38262, 44.8081, 12.0095, 8.70152, -56.6941, 113.672
1.16, 1, -3.30576, 44.8144, 11.9596, 8.87293, -56.6837, 113.539
1.164, 1, -3.22889, 44.8207, 11.9096, 9.04436, -56.6733, 113.405
1.168, 1, -3.15202, 44.827, 11.8596, 9.21582, -56.663, 113.272
1.172, 1, -3.07513, 44.8332, 11.8096, 9.38731, -56.6526, 113.138
1.175, 1, -2.99823, 44.8395, 11.7596, 9.55881, -56.6422, 113.005
1.18, 1, -2.92133, 44.8458, 11.7096, 9.73034, -56.6318, 112.871
1.184, 1, -2.84441, 44.8521, 11.6596, 9.90188, -56.6215, 112.738
1.188, 1, -2.76749, 44.8583, 11.6096, 10.0734, -56.6111, 112.604
1.192, 1, -2.69056, 44.8646, 11.5596, 10.245, -56.6007, 112.471
1.196, 1, -2.61362, 44.8709, 11.5096, 10.4166, -56.5903, 112.337
1.2, 1, -2.53668, 44.8772, 11.4596, 10.5882, -56.5799, 112.203
1.204, 1, -2.45973, 44.8834, 11.4096, 10.7599, -56.5696, 112.07
1.208, 1, -2.38278, 44.8897, 11.3596, 10.9315, -56.5592, 111.936
1.212, 1, -2.30582, 44.896, 11.3095, 11.1031, -56.5488, 111.802
1.216, 1, -2.22886, 44.9023, 11.2595, 11.2748, -56.5384, 111.669
1.22, 1, -2.1519, 44.9086, 11.2095, 11.4464, -56.528, 111.535
1.224, 1, -2.07493, 44.9148, 11.1594, 11.6181, -56.5176, 111.401
1.228, 1, -1.99796, 44.9211, 11.1094, 11.7898, -56.5072, 111.268
1.232, 1, -1.92099, 44.9274, 11.0593, 11.9615, -56.4969, 111.134
1.236, 1, -1.84402, 44.9337, 11.0093, 12.1331, -56.4865, 111
1.24, 1, -1.76704, 44.94, 10.9593, 12.3048, -56.4761, 110.867
1.244, 1, -1.69007, 44.9463, 10.9092, 12.4765, -56.4657, 110.733
1.248, 1, -1.6131, 44.9525, 10.8592, 12.6482, -56.4553, 110.599
1.252, 1, -1.53613, 44.9588, 10.8092, 12.8198, -56.4449, 110.466
1.256, 1, -1.45917, 44.9651, 10.7591, 12.9915, -56.4345, 110.332
1.26, 1, -1.3822, 44.9714, 10.7091, 13.1632, -56.4242, 110.198
1.264, 1, -1.30524, 44.9777, 10.6591, 13.3348, -56.4138, 110.065
1.267, 1, -1.22828, 44.9839, 10.609, 13.5065, -56.4034, 109.931
1.272, 1, -1.15133, 44.9902, 10.559, 13.6781, -56.393, 109.797
1.276, 1, -1.07438, 44.9965, 10.509, 13.8497, -56.3826, 109.664
1.28, 1, -0.997443, 45.0028, 10.459, 14.0213, -56.3722, 109.53
1.284, 1, -0.920508, 45.0091, 10.4089, 14.1929, -56.3619, 109.397
1.288, 1, -0.84358, 45.0153, 10.3589, 14.3645, -56.3515, 109.263
1.292, 1, -0.766659, 45.0216, 10.3089, 14.5361, -56.3411, 109.129
1.295, 1, -0.689747, 45.0279, 10.2589, 14.7076, -56.3307, 108.996
1.3, 1, -0.612843, 45.0342, 10.2089, 14.8791, -56.3203, 108.862
1.304, 1, -0.535948, 45.0405, 10.1589, 15.0506, -56.31, 108.729
1.308, 1, -0.459064, 45.0467, 10.109, 15.2221, -56.2996, 108.595
1.312, 1, -0.38219, 45.053, 10.059, 15.3936, -56.2892, 108.462
1.316, 1, -0.305326, 45.0593, 10.009, 15.565, -56.2788, 108.328
1.32, 1, -0.228475, 45.0655, 9.95905, 15.7364, -56.2685, 108.195
1.324, 1, -0.151636, 45.0718, 9.9091, 15.9078, -56.2581, 108.061
1.328, 1, -0.0748096, 45.0781, 9.85915, 16.0792, -56.2477, 107.928
1.332, 1, 0.00200332, 45.0844, 9.80922, 16.2505, -56.2374, 107.794
1.336, 1, 0.0788023, 45.0906, 9.75929, 16.4218, -56.227, 107.661
1.34, 1, 0.155587, 45.0969, 9.70937, 16.593, -56.2166, 107.528
1.344, 1, 0.232356, 45.1032, 9.65946, 16.7643, -56.2063, 107.394
1.348, 1, 0.309109, 45.1094, 9.60957, 16.9355, -56.1959, 107.261
1.352, 1, 0.385847, 45.1157, 9.55968, 17.1066, -56.1856, 107.128
1.356, 1, 0.462567, 45.122, 9.5098, 17.2777, -56.1752, 106.995
1.36, 1, 0.53927, 45.1282, 9.45994, 17.4488, -56.1649, 106.861
1.364, 1, 0.615955, 45.1345, 9.41009, 17.6199, -56.1545, 106.728
1.368, 1, 0.692622, 45.1407, 9.36025, 17.7908, -56.1442, 106.595
1.372, 1, 0.76927, 45.147, 9.31042, 17.9618, -56.1338, 106.462
1.376, 1, 0.845899, 45.1532, 9.2606, 18.1327, -56.1235, 106.329
1.38, 1, 0.922508, 45.1595, 9.2108, 18.3036, -56.1132, 106.196
1.384, 1, 0.999096, 45.1657, 9.16101, 18.4744, -56.1028, 106.063
1.388, 1, 1.07566, 45.172, 9.11124, 18.6452, -56.0925, 105.93
1.392, 1, 1.15221, 45.1782, 9.06147, 18.8159, -56.0822, 105.797
1.396, 1, 1.22873, 45.1845, 9.01173, 18.9866, -56.0718, 105.664
1.4, 1, 1.30522, 45.1907, 8.962, 19.1572, -56.0615, 105.531
1.404, 1, 1.3817, 45.197, 8.91228, 19.3277, -56.0512, 105.398
1.408, 1, 1.45815, 45.2032, 8.86258, 19.4983, -56.0409, 105.266
1.412, 1, 1.53457, 45.2094, 8.8129, 19.6687, -56.0306, 105.133
1.416, 1, 1.61097, 45.2157, 8.76323, 19.8391, -56.0203, 105
1.42, 1, 1.68734, 45.2219, 8.71358, 20.0095, -56.01, 104.868
1.424, 1, 1.76368, 45.2282, 8.66394, 20.1797, -55.9997, 104.735
1.428, 1, 1.84, 45.2344, 8.61433, 20.35, -55.9894, 104.602
1.432, 1, 1.91629, 45.2406, 8.56473, 20.5201, -55.9791, 104.47
1.436, 1, 1.99255, 45.2468, 8.51515, 20.6902, -55.9688, 104.338
1.44, 1, 2.06878, 45.2531, 8.46559, 20.8603, -55.9585, 104.205
1.444, 1, 2.14498, 45.2593, 8.41605, 21.0302, -55.9482, 104.073
1.448, 1, 2.22115, 45.2655, 8.36652, 21.2001, -55.9379, 103.94
1.452, 1, 2.29729, 45.2717, 8.31702, 21.37, -55.9277, 103.808
1.456, 1, 2.3734, 45.2779, 8.26754, 21.5397, -55.9174, 103.676
1.46, 1, 2.44947, 45.2841, 8.21808, 21.7094, -55.9071, 103.544
1.464, 1, 2.52552, 45.2903, 8.16864, 21.879, -55.8969, 103.412
1.468, 1, 2.60153, 45.2966, 8.11922, 22.0486, -55.8866, 103.28
1.472, 1, 2.67751, 45.3028, 8.06982, 22.2181, -55.8763, 103.148
1.476, 1, 2.75345, 45.309, 8.02045, 22.3874, -55.8661, 103.016
1.48, 1, 2.82935, 45.3152, 7.9711, 22.5568, -55.8559, 102.884
1.484, 1, 2.90523, 45.3213, 7.92177, 22.726, -55.8456, 102.752
1.488, 1, 2.98106, 45.3275, 7.87247, 22.8951, -55.8354, 102.621
1.492, 1, 3.05686, 45.3337, 7.82319, 23.0642, -55.8251, 102.489
1.496, 1, 3.13262, 45.3399, 7.77393, 23.2332, -55.8149, 102.357
1.5, 1, 3.20834, 45.3461, 7.7247, 23.4021, -55.8047, 102.226
1.504, 1, 3.28402, 45.3523, 7.6755, 23.5709, -55.7945, 102.095
1.508, 1, 3.35967, 45.3584, 7.62632, 23.7396, -55.7843, 101.963
1.512, 1, 3.43527, 45.3646, 7.57717, 23.9083, -55.7741, 101.832
1.516, 1, 3.51084, 45.3708, 7.52804, 24.0768, -55.7639, 101.701
1.52, 1, 3.58636, 45.377, 7.47894, 24.2453, -55.7537, 101.569
1.524, 1, 3.66184, 45.3831, 7.42986, 24.4136, -55.7435, 101.438
1.528, 1, 3.73728, 45.3893, 7.38082, 24.5819, -55.7333, 101.307
1.532, 1, 3.81268, 45.3954, 7.3318, 24.7501, -55.7232, 101.176
1.536, 1, 3.88803, 45.4016, 7.28281, 24.9181, -55.713, 101.046
1.54, 1, 3.96334, 45.4077, 7.23385, 25.0861, -55.7028, 100.915
1.544, 1, 4.0386, 45.4139, 7.18492, 25.254, -55.6927, 100.784
1.548, 1, 4.11382, 45.42, 7.13601, 25.4218, -55.6825, 100.653
1.552, 1, 4.189, 45.4262, 7.08714, 25.5894, -55.6724, 100.523
1.556, 1, 4.26412, 45.4323, 7.0383, 25.757, -55.6622, 100.392
1.56, 1, 4.33921, 45.4384, 6.98949, 25.9245, -55.6521, 100.262
1.564, 1, 4.41424, 45.4445, 6.9407, 26.0918, -55.642, 100.132
1.568, 1, 4.48923, 45.4507, 6.89195, 26.2591, -55.6319, 100.001
1.572, 1, 4.56416, 45.4568, 6.84323, 26.4262, -55.6218, 99.8712
1.576, 1, 4.63905, 45.4629, 6.79454, 26.5933, -55.6116, 99.7412
1.58, 1, 4.71389, 45.469, 6.74589, 26.7602, -55.6015, 99.6112
1.584, 1, 4.78868, 45.4751, 6.69727, 26.927, -55.5915, 99.4813
1.588, 1, 4.86342, 45.4812, 6.64868, 27.0937, -55.5814, 99.3515
1.592, 1, 4.93811, 45.4873, 6.60012, 27.2603, -55.5713, 99.2218
1.596, 1, 5.01275, 45.4934, 6.5516, 27.4268, -55.5612, 99.0922
1.6, 1, 5.08734, 45.4995, 6.50311, 27.5931, -55.5512, 98.9626
1.604, 1, 5.16187, 45.5056, 6.45465, 27.7594, -55.5411, 98.8332
1.608, 1, 5.23635, 45.5117, 6.40623, 27.9255, -55.5311, 98.7038
1.612, 1, 5.31077, 45.5177, 6.35784, 28.0915, -55.521, 98.5746
1.616, 1, 5.38515, 45.5238, 6.30949, 28.2574, -55.511, 98.4454
1.62, 1, 5.45947, 45.5299, 6.26118, 28.4231, -55.5009, 98.3164
1.624, 1, 5.53373, 45.5359, 6.2129, 28.5888, -55.4909, 98.1874
1.628, 1, 5.60794, 45.542, 6.16465, 28.7543, -55.4809, 98.0585
1.632, 1, 5.6821, 45.5481, 6.11645, 28.9197, -55.4709, 97.9297
1.636, 1, 5.75619, 45.5541, 6.06827, 29.0849, -55.4609, 97.8011
1.64, 1, 5.83024, 45.5602, 6.02014, 29.2501, -55.4509, 97.6725
1.644, 1, 5.90422, 45.5662, 5.97204, 29.4151, -55.4409, 97.544
1.648, 1, 5.97815, 45.5722, 5.92399, 29.58, -55.431, 97.4156
1.652, 1, 6.05202, 45.5783, 5.87596, 29.7447, -55.421, 97.2873
1.656, 1, 6.12583, 45.5843, 5.82798, 29.9093, -55.411, 97.1591
1.66, 1, 6.19959, 45.5903, 5.78004, 30.0738, -55.4011, 97.0311
1.664, 1, 6.27328, 45.5963, 5.73213, 30.2382, -55.3911, 96.9031
1.668, 1, 6.34692, 45.6023, 5.68426, 30.4024, -55.3812, 96.7752
1.672, 1, 6.42049, 45.6083, 5.63643, 30.5665, -55.3713, 96.6475
1.676, 1, 6.494, 45.6143, 5.58864, 30.7305, -55.3614, 96.5198
1.68, 1, 6.56746, 45.6203, 5.54089, 30.8943, -55.3514, 96.3922
1.684, 1, 6.64085, 45.6263, 5.49318, 31.058, -55.3415, 96.2648
1.688, 1, 6.71418, 45.6323, 5.44551, 31.2215, -55.3316, 96.1375
1.692, 1, 6.78745, 45.6383, 5.39788, 31.3849, -55.3218, 96.0102
1.696, 1, 6.86065, 45.6443, 5.35029, 31.5482, -55.3119, 95.8831
1.7, 1, 6.9338, 45.6502, 5.30274, 31.7113, -55.302, 95.7561
1.704, 1, 7.00688, 45.6562, 5.25524, 31.8743, -55.2922, 95.6292
1.708, 1, 7.07989, 45.6622, 5.20777, 32.0371, -55.2823, 95.5024
1.712, 1, 7.15285, 45.6681, 5.16034, 32.1998, -55.2725, 95.3757
1.716, 1, 7.22573, 45.6741, 5.11296, 32.3624, -55.2626, 95.2491
1.72, 1, 7.29856, 45.68, 5.06562, 32.5248, -55.2528, 95.1226
1.724, 1, 7.37132, 45.686, 5.01832, 32.6871, -55.243, 94.9963
1.728, 1, 7.44401, 45.6919, 4.97106, 32.8492, -55.2332, 94.87
1.732, 1, 7.51664, 45.6978, 4.92385, 33.0112, -55.2234, 94.7439
1.736, 1, 7.5892, 45.7037, 4.87668, 33.173, -55.2136, 94.6179
1.74, 1, 7.6617, 45.7097, 4.82955, 33.3347, -55.2038, 94.492
1.744, 1, 7.73413, 45.7156, 4.78247, 33.4963, -55.194, 94.3662
1.748, 1, 7.80649, 45.7215, 4.73543, 33.6576, -55.1843, 94.2406
1.752, 1, 7.87879, 45.7274, 4.68843, 33.8189, -55.1745, 94.115
1.756, 1, 7.95102, 45.7333, 4.64148, 33.98, -55.1648, 93.9896
1.76, 1, 8.02318, 45.7392, 4.59457, 34.1409, -55.155, 93.8643
1.764, 1, 8.09527, 45.7451, 4.54771, 34.3017, -55.1453, 93.7391
1.768, 1, 8.16729, 45.7509, 4.50089, 34.4623, -55.1356, 93.614
1.772, 1, 8.23925, 45.7568, 4.45411, 34.6228, -55.1259, 93.4891
1.776, 1, 8.31113, 45.7627, 4.40738, 34.7831, -55.1162, 93.3643
1.78, 1, 8.38295, 45.7686, 4.3607, 34.9432, -55.1065, 93.2396
1.784, 1, 8.45469, 45.7744, 4.31406, 35.1032, -55.0968, 93.115
1.788, 1, 8.52637, 45.7803, 4.26747, 35.2631, -55.0871, 92.9905
1.792, 1, 8.59797, 45.7861, 4.22092, 35.4228, -55.0775, 92.8662
1.796, 1, 8.66951, 45.7919, 4.17442, 35.5823, -55.0678, 92.7419
1.8, 1, 8.74097, 45.7978, 4.12797, 35.7417, -55.0582, 92.6179
1.804, 1, 8.81236, 45.8036, 4.08156, 35.9009, -55.0486, 92.4939
1.808, 1, 8.88368, 45.8094, 4.0352, 36.0599, -55.0389, 92.37
1.812, 1, 8.95492, 45.8152, 3.98889, 36.2188, -55.0293, 92.2463
1.816, 1, 9.0261, 45.8211, 3.94262, 36.3776, -55.0197, 92.1227
1.82, 1, 9.0972, 45.8269, 3.8964, 36.5361, -55.0101, 91.9993
1.824, 1, 9.16823, 45.8327, 3.85023, 36.6945, -55.0005, 91.8759
1.828, 1, 9.23919, 45.8384, 3.80411, 36.8528, -54.991, 91.7527
1.832, 1, 9.31007, 45.8442, 3.75803, 37.0108, -54.9814, 91.6296
1.836, 1, 9.38088, 45.85, 3.71201, 37.1688, -54.9719, 91.5067
1.84, 1, 9.45162, 45.8558, 3.66603, 37.3265, -54.9623, 91.3838
1.844, 1, 9.52228, 45.8616, 3.62009, 37.4841, -54.9528, 91.2611
1.848, 1, 9.59287, 45.8673, 3.57421, 37.6415, -54.9433, 91.1386
1.852, 1, 9.66338, 45.8731, 3.52838, 37.7988, -54.9337, 91.0161
1.856, 1, 9.73382, 45.8788, 3.48259, 37.9558, -54.9242, 90.8938
1.86, 1, 9.80418, 45.8846, 3.43685, 38.1127, -54.9147, 90.7717
1.864, 1, 9.87446, 45.8903, 3.39117, 38.2695, -54.9053, 90.6496
1.868, 1, 9.94468, 45.896, 3.34553, 38.4261, -54.8958, 90.5277
1.872, 1, 10.0148, 45.9018, 3.29994, 38.5825, -54.8863, 90.4059
1.876, 1, 10.0849, 45.9075, 3.2544, 38.7387, -54.8769, 90.2843
1.88, 1, 10.1549, 45.9132, 3.20891, 38.8948, -54.8674, 90.1627
1.884, 1, 10.2248, 45.9189, 3.16347, 39.0507, -54.858, 90.0414
1.888, 1, 10.2946, 45.9246, 3.11808, 39.2064, -54.8486, 89.9201
1.892, 1, 10.3643, 45.9303, 3.07274, 39.3619, -54.8392, 89.799
1.896, 1, 10.434, 45.936, 3.02745, 39.5173, -54.8298, 89.678
1.9, 1, 10.5036, 45.9417, 2.98221, 39.6725, -54.8204, 89.5571
1.904, 1, 10.5731, 45.9473, 2.93702, 39.8275, -54.811, 89.4364
1.908, 1, 10.6426, 45.953, 2.89188, 39.9824, -54.8016, 89.3158
1.912, 1, 10.712, 45.9587, 2.84679, 40.1371, -54.7923, 89.1954
1.916, 1, 10.7812, 45.9643, 2.80176, 40.2916, -54.7829, 89.0751
1.92, 1, 10.8505, 45.97, 2.75677, 40.4459, -54.7736, 88.9549
1.924, 1, 10.9196, 45.9756, 2.71184, 40.6001, -54.7643, 88.8349
1.928, 1, 10.9886, 45.9813, 2.66695, 40.7541, -54.7549, 88.715
1.932, 1, 11.0576, 45.9869, 2.62212, 40.9079, -54.7456, 88.5952
1.936, 1, 11.1265, 45.9925, 2.57734, 41.0615, -54.7364, 88.4756
1.94, 1, 11.1953, 45.9981, 2.53261, 41.215, -54.7271, 88.3561
1.944, 1, 11.2641, 46.0037, 2.48793, 41.3683, -54.7178, 88.2368
1.948, 1, 11.3328, 46.0093, 2.44331, 41.5214, -54.7085, 88.1175
1.952, 1, 11.4013, 46.0149, 2.39873, 41.6743, -54.6993, 87.9985
1.956, 1, 11.4698, 46.0205, 2.35421, 41.8271, -54.69, 87.8795
1.96, 1, 11.5383, 46.0261, 2.30973, 41.9796, -54.6808, 87.7607
1.964, 1, 11.6066, 46.0317, 2.26531, 42.132, -54.6716, 87.6421
1.968, 1, 11.6749, 46.0373, 2.22095, 42.2843, -54.6624, 87.5235
1.972, 1, 11.7431, 46.0428, 2.17663, 42.4363, -54.6532, 87.4052
1.976, 1, 11.8112, 46.0484, 2.13236, 42.5882, -54.644, 87.2869
1.98, 1, 11.8792, 46.054, 2.08815, 42.7398, -54.6348, 87.1688
1.984, 1, 11.9472, 46.0595, 2.04399, 42.8914, -54.6257, 87.0508
1.988, 1, 12.015, 46.065, 1.99988, 43.0427, -54.6165, 86.933
1.992, 1, 12.0828, 46.0706, 1.95582, 43.1938, -54.6074, 86.8153
1.996, 1, 12.1505, 46.0761, 1.91181, 43.3448, -54.5982, 86.6977
1.999, 1, 12.2182, 46.0816, 1.86786, 43.4956, -54.5891, 86.5803
2.004, 1, 12.2857, 46.0871, 1.82396, 43.6462, -54.58, 86.4631
2.008, 1, 12.3532, 46.0926, 1.78011, 43.7967, -54.5709, 86.3459
2.012, 1, 12.4206, 46.0981, 1.73631, 43.9469, -54.5618, 86.2289
2.015, 1, 12.4879, 46.1036, 1.69257, 44.097, -54.5527, 86.1121
2.019, 1, 12.5551, 46.1091, 1.64887, 44.2469, -54.5436, 85.9953
2.024, 1, 12.6223, 46.1146, 1.60523, 44.3966, -54.5346, 85.8788
2.028, 1, 12.6893, 46.1201, 1.56164, 44.5462, -54.5255, 85.7623
2.031, 1, 12.7563, 46.1255, 1.51811, 44.6955, -54.5165, 85.646
2.036, 1, 12.8232, 46.131, 1.47462, 44.8447, -54.5075, 85.5299
2.04, 1, 12.89, 46.1365, 1.43119, 44.9937, -54.4985, 85.4138
2.044, 1, 12.9568, 46.1419, 1.38781, 45.1426, -54.4895, 85.2979
2.048, 1, 13.0235, 46.1473, 1.34448, 45.2912, -54.4805, 85.1822
2.051, 1, 13.0901, 46.1528, 1.30121, 45.4397, -54.4715, 85.0666
2.055, 1, 13.1566, 46.1582, 1.25798, 45.588, -54.4625, 84.9511
2.06, 1, 13.223, 46.1636, 1.21481, 45.7361, -54.4536, 84.8358
2.064, 1, 13.2893, 46.169, 1.1717, 45.884, -54.4446, 84.7206
2.068, 1, 13.3556, 46.1744, 1.12863, 46.0318, -54.4357, 84.6056
2.071, 1, 13.4218, 46.1799, 1.08562, 46.1793, -54.4267, 84.4907
2.076, 1, 13.4879, 46.1852, 1.04266, 46.3267, -54.4178, 84.3759
2.08, 1, 13.5539, 46.1906, 0.99975, 46.4739, -54.4089, 84.2613
2.084, 1, 13.6198, 46.196, 0.956894, 46.621, -54.4, 84.1468
2.087, 1, 13.6857, 46.2014, 0.914091, 46.7678, -54.3911, 84.0325
2.092, 1, 13.7515, 46.2068, 0.871341, 46.9145, -54.3823, 83.9183
2.096, 1, 13.8172, 46.2121, 0.828643, 47.061, -54.3734, 83.8042
2.1, 1, 13.8828, 46.2175, 0.785997, 47.2073, -54.3645, 83.6903
2.104, 1, 13.9484, 46.2228, 0.743404, 47.3534, -54.3557, 83.5765
2.107, 1, 14.0138, 46.2282, 0.700864, 47.4993, -54.3469, 83.4629
2.111, 1, 14.0792, 46.2335, 0.658376, 47.6451, -54.3381, 83.3494
2.116, 1, 14.1445, 46.2388, 0.61594, 47.7907, -54.3293, 83.236
2.12, 1, 14.2097, 46.2442, 0.573557, 47.9361, -54.3205, 83.1228
2.124, 1, 14.2748, 46.2495, 0.531227, 48.0813, -54.3117, 83.0097
2.127, 1, 14.3399, 46.2548, 0.488949, 48.2264, -54.3029, 82.8968
2.132, 1, 14.4049, 46.2601, 0.446723, 48.3712, -54.2941, 82.784
2.136, 1, 14.4698, 46.2654, 0.40455, 48.5159, -54.2854, 82.6713
2.14, 1, 14.5346, 46.2707, 0.362429, 48.6604, -54.2766, 82.5588
2.143, 1, 14.5993, 46.276, 0.320361, 48.8048, -54.2679, 82.4464
2.148, 1, 14.664, 46.2812, 0.278345, 48.9489, -54.2592, 82.3342
2.152, 1, 14.7285, 46.2865, 0.236382, 49.0929, -54.2505, 82.2221
2.156, 1, 14.793, 46.2918, 0.194471, 49.2367, -54.2418, 82.1101
2.16, 1, 14.8574, 46.297, 0.152613, 49.3803, -54.2331, 81.9983
2.163, 1, 14.9218, 46.3023, 0.110807, 49.5237, -54.2244, 81.8866
2.168, 1, 14.986, 46.3075, 0.0690531, 49.667, -54.2157, 81.7751
2.172, 1, 15.0502, 46.3128, 0.0273518, 49.81, -54.2071, 81.6637
2.176, 1, 15.1143, 46.318, -0.0142972, 49.9529, -54.1984, 81.5524
2.179, 1, 15.1783, 46.3232, -0.0558939, 50.0956, -54.1898, 81.4413
2.184, 1, 15.2422, 46.3284, -0.0974383, 50.2382, -54.1812, 81.3303
2.188, 1, 15.3061, 46.3336, -0.13893, 50.3805, -54.1726, 81.2195
2.192, 1, 15.3698, 46.3388, -0.18037, 50.5227, -54.164, 81.1088
2.196, 1, 15.4335, 46.344, -0.221758, 50.6647, -54.1554, 80.9982
2.199, 1, 15.4971, 46.3492, -0.263093, 50.8065, -54.1468, 80.8878
2.204, 1, 15.5607, 46.3544, -0.304376, 50.9481, -54.1382, 80.7775
2.208, 1, 15.6241, 46.3596, -0.345607, 51.0896, -54.1297, 80.6674
2.212, 1, 15.6875, 46.3648, -0.386786, 51.2309, -54.1211, 80.5574
2.216, 1, 15.7508, 46.3699, -0.427913, 51.372, -54.1126, 80.4475
2.219, 1, 15.814, 46.3751, -0.468988, 51.5129, -54.1041, 80.3378
2.224, 1, 15.8771, 46.3802, -0.51001, 51.6536, -54.0956, 80.2282
2.228, 1, 15.9401, 46.3854, -0.550981, 51.7942, -54.087, 80.1187
2.232, 1, 16.0031, 46.3905, -0.591899, 51.9346, -54.0786, 80.0094
2.235, 1, 16.066, 46.3956, -0.632766, 52.0748, -54.0701, 79.9002
2.24, 1, 16.1288, 46.4008, -0.673581, 52.2148, -54.0616, 79.7912
2.244, 1, 16.1915, 46.4059, -0.714344, 52.3547, -54.0531, 79.6823
2.248, 1, 16.2542, 46.411, -0.755055, 52.4943, -54.0447, 79.5736
2.252, 1, 16.3168, 46.4161, -0.795715, 52.6338, -54.0363, 79.465
2.255, 1, 16.3792, 46.4212, -0.836323, 52.7731, -54.0278, 79.3565
2.259, 1, 16.4417, 46.4263, -0.87688, 52.9123, -54.0194, 79.2481
2.264, 1, 16.504, 46.4314, -0.917385, 53.0513, -54.011, 79.1399
2.268, 1, 16.5663, 46.4365, -0.95784, 53.19, -54.0026, 79.0318
2.272, 1, 16.6284, 46.4415, -0.998242, 53.3287, -53.9942, 78.9239
2.275, 1, 16.6905, 46.4466, -1.03859, 53.4671, -53.9858, 78.8161
2.28, 1, 16.7526, 46.4517, -1.07889, 53.6054, -53.9775, 78.7085
2.284, 1, 16.8145, 46.4567, -1.11914, 53.7435, -53.9691, 78.6009
2.288, 1, 16.8764, 46.4618, -1.15934, 53.8814, -53.9608, 78.4936
2.291, 1, 16.9381, 46.4668, -1.19949, 54.0191, -53.9524, 78.3863
2.296, 1, 16.9998, 46.4718, -1.23959, 54.1567, -53.9441, 78.2792
2.3, 1, 17.0615, 46.4769, -1.27964, 54.2941, -53.9358, 78.1722
2.304, 1, 17.123, 46.4819, -1.31963, 54.4313, -53.9275, 78.0654
2.308, 1, 17.1845, 46.4869, -1.35958, 54.5683, -53.9192, 77.9587
2.311, 1, 17.2459, 46.4919, -1.39947, 54.7052, -53.9109, 77.8521
2.316, 1, 17.3072, 46.4969, -1.43932, 54.8419, -53.9027, 77.7456
2.32, 1, 17.3685, 46.5019, -1.47911, 54.9785, -53.8944, 77.6393
2.324, 1, 17.4296, 46.5069, -1.51886, 55.1148, -53.8862, 77.5332
2.328, 1, 17.4907, 46.5119, -1.55855, 55.251, -53.8779, 77.4271
2.331, 1, 17.5517, 46.5169, -1.5982, 55.387, -53.8697, 77.3212
2.336, 1, 17.6127, 46.5218, -1.63779, 55.5228, -53.8615, 77.2154
2.34, 1, 17.6735, 46.5268, -1.67733, 55.6585, -53.8533, 77.1098
2.344, 1, 17.7343, 46.5318, -1.71683, 55.794, -53.8451, 77.0043
2.347, 1, 17.795, 46.5367, -1.75627, 55.9294, -53.8369, 76.8989
2.352, 1, 17.8556, 46.5417, -1.79567, 56.0645, -53.8287, 76.7937
2.356, 1, 17.9162, 46.5466, -1.83502, 56.1995, -53.8205, 76.6886
2.36, 1, 17.9767, 46.5515, -1.87431, 56.3343, -53.8124, 76.5836
2.364, 1, 18.0371, 46.5565, -1.91356, 56.469, -53.8042, 76.4787
2.367, 1, 18.0974, 46.5614, -1.95276, 56.6035, -53.7961, 76.374
2.372, 1, 18.1576, 46.5663, -1.99191, 56.7378, -53.788, 76.2694
2.376, 1, 18.2178, 46.5712, -2.03101, 56.8719, -53.7799, 76.165
2.38, 1, 18.2779, 46.5761, -2.07006, 57.0059, -53.7717, 76.0607
2.383, 1, 18.3379, 46.581, -2.10906, 57.1397, -53.7637, 75.9565
2.388, 1, 18.3979, 46.5859, -2.14802, 57.2734, -53.7556, 75.8524
2.392, 1, 18.4578, 46.5908, -2.18692, 57.4068, -53.7475, 75.7485
2.396, 1, 18.5176, 46.5957, -2.22578, 57.5401, -53.7394, 75.6447
2.4, 1, 18.5773, 46.6006, -2.26459, 57.6733, -53.7314, 75.541
2.403, 1, 18.6369, 46.6054, -2.30334, 57.8063, -53.7233, 75.4375
2.408, 1, 18.6965, 46.6103, -2.34205, 57.9391, -53.7153, 75.3341
2.412, 1, 18.756, 46.6151, -2.38072, 58.0717, -53.7073, 75.2308
2.416, 1, 18.8154, 46.62, -2.41933, 58.2042, -53.6993, 75.1276
2.42, 1, 18.8748, 46.6248, -2.4579, 58.3365, -53.6913, 75.0246
2.423, 1, 18.9341, 46.6297, -2.49642, 58.4687, -53.6833, 74.9217
2.428, 1, 18.9933, 46.6345, -2.53489, 58.6007, -53.6753, 74.8189
2.432, 1, 19.0524, 46.6393, -2.57331, 58.7325, -53.6673, 74.7163
2.436, 1, 19.1115, 46.6441, -2.61168, 58.8641, -53.6593, 74.6138
2.439, 1, 19.1704, 46.6489, -2.65001, 58.9956, -53.6514, 74.5114
2.444, 1, 19.2293, 46.6538, -2.68829, 59.1269, -53.6434, 74.4091
2.448, 1, 19.2882, 46.6586, -2.72652, 59.2581, -53.6355, 74.307
2.452, 1, 19.347, 46.6634, -2.7647, 59.3891, -53.6276, 74.205
2.456, 1, 19.4056, 46.6681, -2.80284, 59.52, -53.6197, 74.1031
2.459, 1, 19.4643, 46.6729, -2.84093, 59.6506, -53.6117, 74.0014
2.464, 1, 19.5228, 46.6777, -2.87897, 59.7812, -53.6039, 73.8997
2.468, 1, 19.5813, 46.6825, -2.91697, 59.9115, -53.596, 73.7982
2.472, 1, 19.6397, 46.6872, -2.95491, 60.0417, -53.5881, 73.6969
2.476, 1, 19.698, 46.692, -2.99282, 60.1717, -53.5802, 73.5956
2.479, 1, 19.7563, 46.6967, -3.03067, 60.3016, -53.5724, 73.4945
2.484, 1, 19.8145, 46.7015, -3.06848, 60.4313, -53.5645, 73.3935
2.488, 1, 19.8726, 46.7062, -3.10624, 60.5609, -53.5567, 73.2926
2.492, 1, 19.9306, 46.711, -3.14395, 60.6903, -53.5489, 73.1919
2.495, 1, 19.9886, 46.7157, -3.18162, 60.8195, -53.541, 73.0912
2.5, 1, 20.0465, 46.7204, -3.21924, 60.9486, -53.5332, 72.9907
2.504, 1, 20.1043, 46.7251, -3.25682, 61.0775, -53.5254, 72.8904
2.508, 1, 20.1621, 46.7299, -3.29435, 61.2063, -53.5176, 72.7901
2.512, 1, 20.2198, 46.7346, -3.33183, 61.3349, -53.5099, 72.69
2.515, 1, 20.2774, 46.7393, -3.36926, 61.4633, -53.5021, 72.59
2.52, 1, 20.3349, 46.744, -3.40666, 61.5916, -53.4943, 72.4901
2.524, 1, 20.3924, 46.7486, -3.444, 61.7197, -53.4866, 72.3903
2.528, 1, 20.4498, 46.7533, -3.4813, 61.8477, -53.4788, 72.2907
2.531, 1, 20.5071, 46.758, -3.51855, 61.9755, -53.4711, 72.1912
2.536, 1, 20.5644, 46.7627, -3.55576, 62.1031, -53.4634, 72.0918
2.54, 1, 20.6216, 46.7673, -3.59292, 62.2306, -53.4557, 71.9925
2.544, 1, 20.6787, 46.772, -3.63004, 62.358, -53.448, 71.8933
2.548, 1, 20.7358, 46.7767, -3.66711, 62.4852, -53.4403, 71.7943
2.551, 1, 20.7927, 46.7813, -3.70413, 62.6122, -53.4326, 71.6954
2.556, 1, 20.8496, 46.786, -3.74111, 62.7391, -53.4249, 71.5966
2.56, 1, 20.9065, 46.7906, -3.77805, 62.8658, -53.4172, 71.4979
2.564, 1, 20.9633, 46.7952, -3.81494, 62.9923, -53.4096, 71.3994
2.568, 1, 21.02, 46.7999, -3.85178, 63.1188, -53.4019, 71.301
2.571, 1, 21.0766, 46.8045, -3.88859, 63.245, -53.3943, 71.2026
2.576, 1, 21.1332, 46.8091, -3.92534, 63.3711, -53.3867, 71.1045
2.58, 1, 21.1897, 46.8137, -3.96205, 63.4971, -53.379, 71.0064
2.584, 1, 21.2461, 46.8183, -3.99872, 63.6229, -53.3714, 70.9084
2.587, 1, 21.3025, 46.8229, -4.03534, 63.7485, -53.3638, 70.8106
2.592, 1, 21.3588, 46.8275, -4.07192, 63.874, -53.3562, 70.7129
2.596, 1, 21.415, 46.8321, -4.10845, 63.9993, -53.3487, 70.6153
2.6, 1, 21.4712, 46.8367, -4.14494, 64.1245, -53.3411, 70.5178
2.604, 1, 21.5273, 46.8412, -4.18139, 64.2496, -53.3335, 70.4205
2.607, 1, 21.5833, 46.8458, -4.21779, 64.3745, -53.326, 70.3232
2.612, 1, 21.6392, 46.8504, -4.25415, 64.4992, -53.3184, 70.2261
2.616, 1, 21.6951, 46.8549, -4.29046, 64.6238, -53.3109, 70.1291
2.62, 1, 21.751, 46.8595, -4.32673, 64.7482, -53.3034, 70.0322
2.624, 1, 21.8067, 46.864, -4.36296, 64.8725, -53.2958, 69.9354
2.627, 1, 21.8624, 46.8686, -4.39914, 64.9967, -53.2883, 69.8387
2.632, 1, 21.918, 46.8731, -4.43528, 65.1207, -53.2808, 69.7422
2.636, 1, 21.9736, 46.8777, -4.47138, 65.2445, -53.2733, 69.6458
2.64, 1, 22.0291, 46.8822, -4.50743, 65.3682, -53.2658, 69.5494
2.643, 1, 22.0845, 46.8867, -4.54345, 65.4918, -53.2584, 69.4532
2.648, 1, 22.1399, 46.8912, -4.57942, 65.6152, -53.2509, 69.3571
2.652, 1, 22.1952, 46.8957, -4.61534, 65.7384, -53.2434, 69.2612
2.656, 1, 22.2504, 46.9002, -4.65123, 65.8615, -53.236, 69.1653
2.66, 1, 22.3056, 46.9047, -4.68707, 65.9845, -53.2286, 69.0696
2.663, 1, 22.3606, 46.9092, -4.72287, 66.1073, -53.2211, 68.9739
2.668, 1, 22.4157, 46.9137, -4.75862, 66.23, -53.2137, 68.8784
2.672, 1, 22.4707, 46.9182, -4.79434, 66.3525, -53.2063, 68.783
2.676, 1, 22.5256, 46.9227, -4.83001, 66.4749, -53.1989, 68.6877
2.679, 1, 22.5804, 46.9272, -4.86564, 66.5972, -53.1915, 68.5925
2.684, 1, 22.6352, 46.9316, -4.90123, 66.7193, -53.1841, 68.4974
2.688, 1, 22.6899, 46.9361, -4.93678, 66.8412, -53.1767, 68.4025
2.692, 1, 22.7445, 46.9405, -4.97228, 66.9631, -53.1694, 68.3076
2.696, 1, 22.7991, 46.945, -5.00775, 67.0847, -53.162, 68.2129
2.699, 1, 22.8536, 46.9494, -5.04317, 67.2063, -53.1546, 68.1182
2.704, 1, 22.9081, 46.9539, -5.07855, 67.3277, -53.1473, 68.0237
2.708, 1, 22.9625, 46.9583, -5.1139, 67.4489, -53.14, 67.9293
2.712, 1, 23.0168, 46.9627, -5.14919, 67.57, -53.1326, 67.835
2.716, 1, 23.0711, 46.9672, -5.18445, 67.691, -53.1253, 67.7408
2.719, 1, 23.1253, 46.9716, -5.21967, 67.8118, -53.118, 67.6467
2.724, 1, 23.1794, 46.976, -5.25485, 67.9325, -53.1107, 67.5528
2.728, 1, 23.2335, 46.9804, -5.28999, 68.0531, -53.1034, 67.4589
2.732, 1, 23.2875, 46.9848, -5.32508, 68.1735, -53.0961, 67.3652
2.735, 1, 23.3415, 46.9892, -5.36014, 68.2937, -53.0889, 67.2715
2.74, 1, 23.3954, 46.9936, -5.39515, 68.4139, -53.0816, 67.178
2.744, 1, 23.4492, 46.998, -5.43013, 68.5339, -53.0743, 67.0845
2.748, 1, 23.503, 47.0024, -5.46506, 68.6537, -53.0671, 66.9912
2.752, 1, 23.5567, 47.0068, -5.49996, 68.7734, -53.0598, 66.898
2.755, 1, 23.6103, 47.0112, -5.53481, 68.893, -53.0526, 66.8049
2.76, 1, 23.6639, 47.0155, -5.56963, 69.0125, -53.0454, 66.7119
2.764, 1, 23.7174, 47.0199, -5.6044, 69.1318, -53.0382, 66.619
2.768, 1, 23.7709, 47.0243, -5.63914, 69.251, -53.0309, 66.5262
2.772, 1, 23.8243, 47.0286, -5.67383, 69.37, -53.0237, 66.4335
2.775, 1, 23.8776, 47.033, -5.70849, 69.4889, -53.0165, 66.3409
2.78, 1, 23.9309, 47.0373, -5.74311, 69.6077, -53.0094, 66.2484
2.784, 1, 23.9841, 47.0417, -5.77769, 69.7263, -53.0022, 66.156
2.788, 1, 24.0373, 47.046, -5.81222, 69.8448, -52.995, 66.0638
2.791, 1, 24.0904, 47.0503, -5.84672, 69.9632, -52.9879, 65.9716
2.796, 1, 24.1434, 47.0547, -5.88119, 70.0814, -52.9807, 65.8796
2.8, 1, 24.1964, 47.059, -5.91561, 70.1995, -52.9736, 65.7876
2.804, 1, 24.2493, 47.0633, -5.94999, 70.3175, -52.9664, 65.6957
2.808, 1, 24.3022, 47.0676, -5.98434, 70.4353, -52.9593, 65.604
2.811, 1, 24.355, 47.0719, -6.01864, 70.553, -52.9522, 65.5123
2.816, 1, 24.4077, 47.0762, -6.05291, 70.6706, -52.9451, 65.4208
2.82, 1, 24.4604, 47.0805, -6.08714, 70.788, -52.938, 65.3294
2.824, 1, 24.513, 47.0848, -6.12133, 70.9053, -52.9309, 65.238
2.828, 1, 24.5656, 47.0891, -6.15548, 71.0225, -52.9238, 65.1468
2.831, 1, 24.6181, 47.0934, -6.1896, 71.1395, -52.9167, 65.0556
2.836, 1, 24.6705, 47.0977, -6.22367, 71.2564, -52.9096, 64.9646
2.84, 1, 24.7229, 47.1019, -6.25771, 71.3732, -52.9025, 64.8737
2.844, 1, 24.7752, 47.1062, -6.29171, 71.4899, -52.8955, 64.7829
2.847, 1, 24.8275, 47.1105, -6.32568, 71.6064, -52.8884, 64.6921
2.852, 1, 24.8797, 47.1147, -6.3596, 71.7228, -52.8814, 64.6015
2.856, 1, 24.9319, 47.119, -6.39349, 71.8391, -52.8744, 64.511
2.86, 1, 24.984, 47.1232, -6.42734, 71.9552, -52.8673, 64.4205
2.864, 1, 25.036, 47.1275, -6.46115, 72.0712, -52.8603, 64.3302
2.867, 1, 25.088, 47.1317, -6.49493, 72.1871, -52.8533, 64.24
2.872, 1, 25.1399, 47.1359, -6.52867, 72.3028, -52.8463, 64.1498
2.876, 1, 25.1918, 47.1402, -6.56237, 72.4185, -52.8393, 64.0598
2.88, 1, 25.2436, 47.1444, -6.59603, 72.534, -52.8323, 63.9699
2.883, 1, 25.2954, 47.1486, -6.62966, 72.6493, -52.8253, 63.8801
2.888, 1, 25.3471, 47.1528, -6.66325, 72.7646, -52.8184, 63.7903
2.892, 1, 25.3987, 47.1571, -6.6968, 72.8797, -52.8114, 63.7007
2.896, 1, 25.4503, 47.1613, -6.73032, 72.9947, -52.8044, 63.6111
2.9, 1, 25.5018, 47.1655, -6.7638, 73.1096, -52.7975, 63.5217
2.903, 1, 25.5533, 47.1697, -6.79724, 73.2243, -52.7906, 63.4324
2.908, 1, 25.6047, 47.1739, -6.83065, 73.3389, -52.7836, 63.3431
2.912, 1, 25.6561, 47.1781, -6.86402, 73.4534, -52.7767, 63.254
2.916, 1, 25.7074, 47.1822, -6.89736, 73.5678, -52.7698, 63.1649
2.92, 1, 25.7586, 47.1864, -6.93066, 73.682, -52.7629, 63.076
2.923, 1, 25.8098, 47.1906, -6.96392, 73.7962, -52.756, 62.9871
2.928, 1, 25.861, 47.1948, -6.99715, 73.9102, -52.7491, 62.8983
2.932, 1, 25.9121, 47.1989, -7.03034, 74.024, -52.7422, 62.8097
2.936, 1, 25.9631, 47.2031, -7.06349, 74.1378, -52.7353, 62.7211
2.939, 1, 26.0141, 47.2073, -7.09661, 74.2514, -52.7284, 62.6326
2.944, 1, 26.065, 47.2114, -7.1297, 74.3649, -52.7215, 62.5442
2.948, 1, 26.1158, 47.2156, -7.16274, 74.4783, -52.7147, 62.4559
2.952, 1, 26.1667, 47.2197, -7.19576, 74.5916, -52.7078, 62.3677
2.956, 1, 26.2174, 47.2238, -7.22873, 74.7047, -52.701, 62.2797
2.959, 1, 26.2681, 47.228, -7.26168, 74.8177, -52.6942, 62.1917
2.964, 1, 26.3188, 47.2321, -7.29458, 74.9306, -52.6873, 62.1037
2.968, 1, 26.3694, 47.2362, -7.32745, 75.0434, -52.6805, 62.0159
2.972, 1, 26.4199, 47.2404, -7.36029, 75.1561, -52.6737, 61.9282
2.976, 1, 26.4704, 47.2445, -7.39309, 75.2686, -52.6669, 61.8406
2.98, 1, 26.5208, 47.2486, -7.42586, 75.381, -52.6601, 61.753
2.984, 1, 26.5712, 47.2527, -7.45859, 75.4933, -52.6533, 61.6656
2.988, 1, 26.6215, 47.2568, -7.49129, 75.6055, -52.6465, 61.5782
2.992, 1, 26.6718, 47.2609, -7.52396, 75.7176, -52.6397, 61.491
2.995, 1, 26.722, 47.265, -7.55658, 75.8296, -52.6329, 61.4038
3, 1, 26.7722, 47.2691, -7.58918, 75.9414, -52.6262, 61.3167
3.004, 1, 26.8223, 47.2732, -7.62174, 76.0531, -52.6194, 61.2298
3.008, 1, 26.8724, 47.2773, -7.65427, 76.1647, -52.6127, 61.1429
3.012, 1, 26.9224, 47.2814, -7.68676, 76.2762, -52.6059, 61.0561
3.015, 1, 26.9723, 47.2854, -7.71922, 76.3875, -52.5992, 60.9693
3.02, 1, 27.0222, 47.2895, -7.75164, 76.4988, -52.5925, 60.8827
3.024, 1, 27.0721, 47.2936, -7.78403, 76.6099, -52.5857, 60.7962
3.028, 1, 27.1219, 47.2976, -7.81639, 76.7209, -52.579, 60.7098
3.031, 1, 27.1716, 47.3017, -7.84872, 76.8318, -52.5723, 60.6234
3.036, 1, 27.2213, 47.3057, -7.88101, 76.9426, -52.5656, 60.5371
3.04, 1, 27.271, 47.3098, -7.91327, 77.0533, -52.5589, 60.451
3.044, 1, 27.3206, 47.3138, -7.94549, 77.1638, -52.5522, 60.3649
3.048, 1, 27.3701, 47.3179, -7.97768, 77.2743, -52.5455, 60.2789
3.051, 1, 27.4196, 47.3219, -8.00984, 77.3846, -52.5389, 60.193
3.056, 1, 27.4691, 47.3259, -8.04196, 77.4948, -52.5322, 60.1071
3.06, 1, 27.5185, 47.33, -8.07406, 77.6049, -52.5255, 60.0214
3.064, 1, 27.5678, 47.334, -8.10612, 77.7149, -52.5189, 59.9358
3.068, 1, 27.6171, 47.338, -8.13814, 77.8248, -52.5122, 59.8502
3.071, 1, 27.6663, 47.342, -8.17014, 77.9346, -52.5056, 59.7647
3.076, 1, 27.7155, 47.3461, -8.2021, 78.0443, -52.499, 59.6794
3.08, 1, 27.7647, 47.3501, -8.23403, 78.1538, -52.4923, 59.5941
3.084, 1, 27.8138, 47.3541, -8.26592, 78.2632, -52.4857, 59.5089
3.087, 1, 27.8628, 47.3581, -8.29779, 78.3726, -52.4791, 59.4237
3.092, 1, 27.9118, 47.3621, -8.32962, 78.4818, -52.4725, 59.3387
3.096, 1, 27.9608, 47.3661, -8.36142, 78.5909, -52.4659, 59.2537
3.1, 1, 28.0097, 47.37, -8.39319, 78.6999, -52.4593, 59.1689
3.104, 1, 28.0585, 47.374, -8.42493, 78.8088, -52.4527, 59.0841
3.107, 1, 28.1073, 47.378, -8.45663, 78.9175, -52.4461, 58.9994
3.112, 1, 28.156, 47.382, -8.48831, 79.0262, -52.4395, 58.9148
3.116, 1, 28.2047, 47.386, -8.51995, 79.1348, -52.433, 58.8302
3.12, 1, 28.2534, 47.3899, -8.55156, 79.2432, -52.4264, 58.7458
3.124, 1, 28.302, 47.3939, -8.58313, 79.3516, -52.4199, 58.6614
3.128, 1, 28.3506, 47.3979, -8.61468, 79.4598, -52.4133, 58.5772
3.132, 1, 28.3991, 47.4018, -8.6462, 79.5679, -52.4068, 58.493
3.136, 1, 28.4475, 47.4058, -8.67768, 79.6759, -52.4002, 58.4089
3.14, 1, 28.4959, 47.4097, -8.70913, 79.7839, -52.3937, 58.3248
3.143, 1, 28.5443, 47.4137, -8.74056, 79.8917, -52.3872, 58.2409
3.148, 1, 28.5926, 47.4176, -8.77195, 79.9994, -52.3807, 58.157
3.152, 1, 28.6409, 47.4215, -8.80331, 80.107, -52.3742, 58.0733
3.156, 1, 28.6891, 47.4255, -8.83464, 80.2144, -52.3677, 57.9896
3.16, 1, 28.7373, 47.4294, -8.86594, 80.3218, -52.3612, 57.9059
3.163, 1, 28.7854, 47.4333, -8.8972, 80.4291, -52.3547, 57.8224
3.168, 1, 28.8335, 47.4372, -8.92844, 80.5363, -52.3482, 57.739
3.172, 1, 28.8815, 47.4412, -8.95965, 80.6433, -52.3417, 57.6556
3.176, 1, 28.9295, 47.4451, -8.99082, 80.7503, -52.3352, 57.5723
3.179, 1, 28.9774, 47.449, -9.02197, 80.8572, -52.3288, 57.4891
3.184, 1, 29.0253, 47.4529, -9.05309, 80.9639, -52.3223, 57.406
3.188, 1, 29.0732, 47.4568, -9.08417, 81.0706, -52.3159, 57.3229
3.192, 1, 29.1209, 47.4607, -9.11523, 81.1771, -52.3094, 57.24
3.196, 1, 29.1687, 47.4646, -9.14625, 81.2836, -52.303, 57.1571
3.199, 1, 29.2164, 47.4685, -9.17725, 81.3899, -52.2965, 57.0743
3.204, 1, 29.2641, 47.4724, -9.20822, 81.4962, -52.2901, 56.9916
3.208, 1, 29.3117, 47.4762, -9.23915, 81.6023, -52.2837, 56.9089
3.212, 1, 29.3592, 47.4801, -9.27006, 81.7084, -52.2773, 56.8263
3.216, 1, 29.4068, 47.484, -9.30093, 81.8143, -52.2709, 56.7439
3.22, 1, 29.4543, 47.4879, -9.33178, 81.9201, -52.2645, 56.6615
3.224, 1, 29.5017, 47.4917, -9.3626, 82.0259, -52.2581, 56.5791
3.228, 1, 29.5491, 47.4956, -9.39339, 82.1315, -52.2517, 56.4969
3.232, 1, 29.5964, 47.4995, -9.42415, 82.237, -52.2453, 56.4147
3.235, 1, 29.6437, 47.5033, -9.45488, 82.3424, -52.2389, 56.3326
3.24, 1, 29.691, 47.5072, -9.48558, 82.4478, -52.2325, 56.2506
3.244, 1, 29.7382, 47.511, -9.51625, 82.553, -52.2262, 56.1687
3.248, 1, 29.7853, 47.5149, -9.54689, 82.6581, -52.2198, 56.0868
3.252, 1, 29.8324, 47.5187, -9.5775, 82.7632, -52.2135, 56.005
3.255, 1, 29.8795, 47.5226, -9.60809, 82.8681, -52.2071, 55.9233
3.26, 1, 29.9265, 47.5264, -9.63864, 82.9729, -52.2008, 55.8417
3.264, 1, 29.9735, 47.5302, -9.66917, 83.0777, -52.1944, 55.7601
3.268, 1, 30.0205, 47.5341, -9.69967, 83.1823, -52.1881, 55.6787
3.272, 1, 30.0674, 47.5379, -9.73014, 83.2868, -52.1818, 55.5973
3.276, 1, 30.1142, 47.5417, -9.76058, 83.3913, -52.1755, 55.5159
3.28, 1, 30.161, 47.5455, -9.79099, 83.4956, -52.1692, 55.4347
3.284, 1, 30.2078, 47.5493, -9.82138, 83.5999, -52.1628, 55.3535
3.288, 1, 30.2545, 47.5532, -9.85173, 83.704, -52.1565, 55.2724
3.291, 1, 30.3012, 47.557, -9.88206, 83.8081, -52.1502, 55.1914
3.296, 1, 30.3478, 47.5608, -9.91236, 83.912, -52.144, 55.1105
3.3, 1, 30.3944, 47.5646, -9.94263, 84.0159, -52.1377, 55.0296
3.304, 1, 30.441, 47.5684, -9.97287, 84.1197, -52.1314, 54.9488
3.308, 1, 30.4875, 47.5722, -10.0031, 84.2233, -52.1251, 54.8681
3.312, 1, 30.5339, 47.5759, -10.0333, 84.3269, -52.1189, 54.7874
3.316, 1, 30.5803, 47.5797, -10.0634, 84.4304, -52.1126, 54.7069
3.32, 1, 30.6267, 47.5835, -10.0936, 84.5337, -52.1063, 54.6264
3.324, 1, 30.673, 47.5873, -10.1237, 84.637, -52.1001, 54.546
3.328, 1, 30.7193, 47.5911, -10.1537, 84.7402, -52.0939, 54.4656
3.332, 1, 30.7656, 47.5948, -10.1838, 84.8433, -52.0876, 54.3853
3.336, 1, 30.8118, 47.5986, -10.2138, 84.9463, -52.0814, 54.3051
3.34, 1, 30.8579, 47.6024, -10.2438, 85.0492, -52.0752, 54.225
3.344, 1, 30.9041, 47.6061, -10.2738, 85.152, -52.0689, 54.1449
3.347, 1, 30.9501, 47.6099, -10.3037, 85.2548, -52.0627, 54.065
3.352, 1, 30.9962, 47.6137, -10.3336, 85.3574, -52.0565, 53.9851
3.356, 1, 31.0422, 47.6174, -10.3635, 85.4599, -52.0503, 53.9052
3.36, 1, 31.0881, 47.6212, -10.3934, 85.5624, -52.0441, 53.8255
3.364, 1, 31.134, 47.6249, -10.4232, 85.6647, -52.0379, 53.7458
3.368, 1, 31.1799, 47.6286, -10.453, 85.767, -52.0317, 53.6661
3.372, 1, 31.2257, 47.6324, -10.4828, 85.8691, -52.0256, 53.5866
3.376, 1, 31.2715, 47.6361, -10.5125, 85.9712, -52.0194, 53.5071
3.38, 1, 31.3173, 47.6398, -10.5423, 86.0732, -52.0132, 53.4277
3.383, 1, 31.363, 47.6436, -10.572, 86.1751, -52.007, 53.3484
3.388, 1, 31.4087, 47.6473, -10.6016, 86.2769, -52.0009, 53.2691
3.392, 1, 31.4543, 47.651, -10.6313, 86.3786, -51.9947, 53.1899
3.396, 1, 31.4999, 47.6547, -10.6609, 86.4802, -51.9886, 53.1108
3.4, 1, 31.5454, 47.6585, -10.6905, 86.5817, -51.9824, 53.0318
3.403, 1, 31.5909, 47.6622, -10.72, 86.6831, -51.9763, 52.9528
3.408, 1, 31.6364, 47.6659, -10.7496, 86.7845, -51.9702, 52.8739
3.412, 1, 31.6818, 47.6696, -10.7791, 86.8857, -51.9641, 52.795
3.416, 1, 31.7272, 47.6733, -10.8086, 86.9869, -51.9579, 52.7163
3.42, 1, 31.7725, 47.677, -10.838, 87.088, -51.9518, 52.6376
3.424, 1, 31.8178, 47.6807, -10.8675, 87.189, -51.9457, 52.5589
3.428, 1, 31.8631, 47.6844, -10.8969, 87.2899, -51.9396, 52.4804
3.432, 1, 31.9083, 47.688, -10.9263, 87.3907, -51.9335, 52.4019
3.436, 1, 31.9535, 47.6917, -10.9556, 87.4914, -51.9274, 52.3234
3.439, 1, 31.9986, 47.6954, -10.985, 87.592, -51.9213, 52.2451
3.444, 1, 32.0438, 47.6991, -11.0143, 87.6926, -51.9152, 52.1668
3.448, 1, 32.0888, 47.7028, -11.0435, 87.793, -51.9092, 52.0886
3.452, 1, 32.1338, 47.7064, -11.0728, 87.8934, -51.9031, 52.0104
3.456, 1, 32.1788, 47.7101, -11.102, 87.9937, -51.897, 51.9323
3.46, 1, 32.2238, 47.7138, -11.1312, 88.0939, -51.891, 51.8543
3.464, 1, 32.2687, 47.7174, -11.1604, 88.194, -51.8849, 51.7764
3.468, 1, 32.3136, 47.7211, -11.1896, 88.294, -51.8788, 51.6985
3.472, 1, 32.3584, 47.7248, -11.2187, 88.394, -51.8728, 51.6207
3.476, 1, 32.4032, 47.7284, -11.2478, 88.4938, -51.8668, 51.5429
3.48, 1, 32.4479, 47.7321, -11.2769, 88.5936, -51.8607, 51.4652
3.484, 1, 32.4927, 47.7357, -11.3059, 88.6933, -51.8547, 51.3876
3.488, 1, 32.5373, 47.7394, -11.335, 88.7929, -51.8487, 51.3101
3.492, 1, 32.582, 47.743, -11.364, 88.8924, -51.8426, 51.2326
3.495, 1, 32.6266, 47.7466, -11.3929, 88.9918, -51.8366, 51.1552
3.5, 1, 32.6711, 47.7503, -11.4219, 89.0911, -51.8306, 51.0778
3.504, 1, 32.7157, 47.7539, -11.4508, 89.1904, -51.8246, 51.0005
3.508, 1, 32.7602, 47.7575, -11.4797, 89.2896, -51.8186, 50.9233
3.512, 1, 32.8046, 47.7612, -11.5086, 89.3887, -51.8126, 50.8461
3.516, 1, 32.849, 47.7648, -11.5375, 89.4877, -51.8066, 50.7691
3.52, 1, 32.8934, 47.7684, -11.5663, 89.5866, -51.8006, 50.692
3.524, 1, 32.9377, 47.772, -11.5951, 89.6854, -51.7947, 50.6151
3.528, 1, 32.982, 47.7756, -11.6239, 89.7842, -51.7887, 50.5382
3.531, 1, 33.0263, 47.7792, -11.6526, 89.8829, -51.7827, 50.4613
3.536, 1, 33.0705, 47.7828, -11.6814, 89.9815, -51.7768, 50.3846
3.54, 1, 33.1147, 47.7865, -11.7101, 90.08, -51.7708, 50.3079
3.544, 1, 33.1589, 47.7901, -11.7388, 90.1784, -51.7648, 50.2312
3.548, 1, 33.203, 47.7937, -11.7674, 90.2767, -51.7589, 50.1547
3.552, 1, 33.2471, 47.7972, -11.7961, 90.375, -51.753, 50.0781
3.556, 1, 33.2911, 47.8008, -11.8247, 90.4732, -51.747, 50.0017
3.56, 1, 33.3351, 47.8044, -11.8533, 90.5713, -51.7411, 49.9253
3.564, 1, 33.3791, 47.808, -11.8819, 90.6693, -51.7351, 49.849
3.568, 1, 33.423, 47.8116, -11.9104, 90.7672, -51.7292, 49.7727
3.572, 1, 33.4669, 47.8152, -11.9389, 90.8651, -51.7233, 49.6965
3.576, 1, 33.5108, 47.8188, -11.9674, 90.9629, -51.7174, 49.6204
3.58, 1, 33.5546, 47.8223, -11.9959, 91.0606, -51.7115, 49.5443
3.584, 1, 33.5984, 47.8259, -12.0244, 91.1582, -51.7056, 49.4683
3.587, 1, 33.6421, 47.8295, -12.0528, 91.2557, -51.6997, 49.3924
3.592, 1, 33.6859, 47.833, -12.0812, 91.3532, -51.6938, 49.3165
3.596, 1, 33.7295, 47.8366, -12.1096, 91.4505, -51.6879, 49.2407
3.6, 1, 33.7732, 47.8402, -12.1379, 91.5478, -51.682, 49.1649
3.604, 1, 33.8168, 47.8437, -12.1663, 91.6451, -51.6761, 49.0892
3.608, 1, 33.8604, 47.8473, -12.1946, 91.7422, -51.6702, 49.0136
3.612, 1, 33.9039, 47.8508, -12.2229, 91.8393, -51.6644, 48.938
3.616, 1, 33.9474, 47.8544, -12.2511, 91.9362, -51.6585, 48.8625
3.62, 1, 33.9909, 47.8579, -12.2794, 92.0331, -51.6526, 48.7871
3.624, 1, 34.0343, 47.8615, -12.3076, 92.13, -51.6468, 48.7117
3.628, 1, 34.0777, 47.865, -12.3358, 92.2267, -51.6409, 48.6363
3.632, 1, 34.1211, 47.8685, -12.364, 92.3234, -51.6351, 48.5611
3.636, 1, 34.1644, 47.8721, -12.3921, 92.42, -51.6292, 48.4859
3.64, 1, 34.2077, 47.8756, -12.4203, 92.5165, -51.6234, 48.4107
3.644, 1, 34.251, 47.8791, -12.4484, 92.6129, -51.6176, 48.3356
3.648, 1, 34.2942, 47.8827, -12.4764, 92.7093, -51.6117, 48.2606
3.652, 1, 34.3374, 47.8862, -12.5045, 92.8056, -51.6059, 48.1856
3.656, 1, 34.3805, 47.8897, -12.5326, 92.9018, -51.6001, 48.1107
3.66, 1, 34.4237, 47.8932, -12.5606, 92.9979, -51.5943, 48.0359
3.664, 1, 34.4668, 47.8967, -12.5886, 93.0939, -51.5885, 47.9611
3.668, 1, 34.5098, 47.9002, -12.6165, 93.1899, -51.5826, 47.8863
3.672, 1, 34.5528, 47.9038, -12.6445, 93.2858, -51.5768, 47.8117
3.676, 1, 34.5958, 47.9073, -12.6724, 93.3816, -51.5711, 47.7371
3.679, 1, 34.6388, 47.9108, -12.7003, 93.4774, -51.5653, 47.6625
3.684, 1, 34.6817, 47.9143, -12.7282, 93.5731, -51.5595, 47.588
3.688, 1, 34.7246, 47.9178, -12.7561, 93.6687, -51.5537, 47.5136
3.692, 1, 34.7674, 47.9213, -12.7839, 93.7642, -51.5479, 47.4392
3.696, 1, 34.8102, 47.9248, -12.8117, 93.8596, -51.5421, 47.3649
3.7, 1, 34.853, 47.9282, -12.8395, 93.955, -51.5364, 47.2906
3.704, 1, 34.8958, 47.9317, -12.8673, 94.0503, -51.5306, 47.2164
3.708, 1, 34.9385, 47.9352, -12.8951, 94.1455, -51.5248, 47.1423
3.712, 1, 34.9812, 47.9387, -12.9228, 94.2407, -51.5191, 47.0682
3.716, 1, 35.0238, 47.9422, -12.9505, 94.3357, -51.5133, 46.9941
3.72, 1, 35.0664, 47.9456, -12.9782, 94.4308, -51.5076, 46.9202
3.724, 1, 35.1089, 47.9491, -13.0059, 94.5257, -51.5018, 46.8463
3.728, 1, 35.1511, 47.9526, -13.0336, 94.6205, -51.4961, 46.7724
3.732, 1, 35.1928, 47.9562, -13.0612, 94.7152, -51.4904, 46.6986
3.735, 1, 35.234, 47.9598, -13.089, 94.8098, -51.4847, 46.625
3.74, 1, 35.2744, 47.9635, -13.1167, 94.9042, -51.479, 46.5515
3.744, 1, 35.3139, 47.9673, -13.1445, 94.9982, -51.4734, 46.4783
3.748, 1, 35.3525, 47.9713, -13.1722, 95.0916, -51.4678, 46.4055
3.752, 1, 35.39, 47.9753, -13.1998, 95.1843, -51.4623, 46.3332
3.756, 1, 35.4264, 47.9795, -13.2273, 95.276, -51.4569, 46.2618
3.76, 1, 35.4616, 47.9837, -13.2545, 95.3661, -51.4516, 46.1915
3.764, 1, 35.4955, 47.988, -13.2812, 95.4544, -51.4465, 46.1227
3.768, 1, 35.528, 47.9923, -13.3074, 95.5404, -51.4415, 46.0557
3.772, 1, 35.5593, 47.9965, -13.3327, 95.6235, -51.4367, 45.9909
3.776, 1, 35.5892, 48.0005, -13.357, 95.7031, -51.432, 45.9288
3.78, 1, 35.618, 48.0043, -13.3801, 95.7789, -51.4276, 45.8697
3.784, 1, 35.6455, 48.0078, -13.4018, 95.8503, -51.4235, 45.8141
3.788, 1, 35.6717, 48.0109, -13.4219, 95.9169, -51.4196, 45.7621
3.792, 1, 35.6966, 48.0137, -13.4403, 95.9784, -51.4159, 45.7142
3.796, 1, 35.7201, 48.0161, -13.457, 96.0345, -51.4126, 45.6705
3.8, 1, 35.7424, 48.0181, -13.4719, 96.0852, -51.4095, 45.631
3.804, 1, 35.7634, 48.0196, -13.4849, 96.1303, -51.4068, 45.5959
3.808, 1, 35.7832, 48.0207, -13.4961, 96.17, -51.4043, 45.565
3.812, 1, 35.8018, 48.0214, -13.5055, 96.2044, -51.4021, 45.5383
3.816, 1, 35.819, 48.0217, -13.5133, 96.2338, -51.4002, 45.5154
3.82, 1, 35.8349, 48.0217, -13.5197, 96.2586, -51.3985, 45.4962
3.824, 1, 35.8492, 48.0215, -13.5247, 96.2792, -51.3971, 45.4802
3.828, 2, 35.8618, 48.0211, -13.5287, 96.2961, -51.3959, 45.4672
3.832, 2, 35.8729, 48.0207, -13.5317, 96.3096, -51.3949, 45.4567
3.836, 2, 35.8826, 48.0202, -13.534, 96.3204, -51.3941, 45.4484
3.84, 2, 35.8912, 48.0196, -13.5356, 96.3287, -51.3935, 45.442
3.844, 2, 35.8987, 48.0191, -13.5366, 96.335, -51.3929, 45.4372
3.848, 2, 35.9053, 48.0185, -13.5373, 96.3397, -51.3925, 45.4336
3.852, 2, 35.911, 48.018, -13.5377, 96.3431, -51.3922, 45.4309
3.856, 2, 35.9157, 48.0176, -13.5379, 96.3456, -51.392, 45.4291
3.86, 2, 35.9196, 48.0172, -13.5379, 96.3473, -51.3918, 45.4278
3.864, 2, 35.9226, 48.0169, -13.538, 96.3484, -51.3916, 45.4269
3.868, 2, 35.9248, 48.0167, -13.538, 96.3492, -51.3916, 45.4263
3.872, 2, 35.9263, 48.0166, -13.538, 96.3498, -51.3915, 45.4259
3.876, 2, 35.9273, 48.0165, -13.538, 96.3501, -51.3915, 45.4256
3.88, 2, 35.928, 48.0164, -13.538, 96.3504, -51.3914, 45.4255
3.884, 2, 35.9285, 48.0164, -13.538, 96.3505, -51.3914, 45.4253
3.888, 2, 35.9288, 48.0163, -13.538, 96.3507, -51.3914, 45.4252
3.892, 2, 35.929, 48.0163, -13.538, 96.3507, -51.3914, 45.4252
3.896, 2, 35.9292, 48.0163, -13.538, 96.3508, -51.3914, 45.4251
3.9, 2, 35.9293, 48.0163, -13.538, 96.3508, -51.3914, 45.4251
3.904, 2, 35.9293, 48.0163, -13.538, 96.3509, -51.3914, 45.4251
3.908, 2, 35.9294, 48.0163, -13.538, 96.3509, -51.3914, 45.4251
3.912, 2, 35.9294, 48.0163, -13.538, 96.3509, -51.3914, 45.4251
3.916, 2, 35.9294, 48.0163, -13.538, 96.3509, -51.3914, 45.4251
3.92, 2, 35.9294, 48.0163, -13.538, 96.3509, -51.3914, 45.4251
3.924, 2, 35.9294, 48.0163, -13.538, 96.3509, -51.3914, 45.4251
3.928, 2, 35.9295, 48.0163, -13.538, 96.3509, -51.3914, 45.4251
3.932, 2, 35.9295, 48.0163, -13.538, 96.3509, -51.3914, 45.4251
3.936, 2, 35.9295, 48.0163, -13.538, 96.3509, -51.3914, 45.4251
3.94, 2, 35.9295, 48.0163, -13.538, 96.3509, -51.3914, 45.4251
3.944, 2, 35.9295, 48.0163, -13.538, 96.3509, -51.3914, 45.4251
3.948, 2, 35.9295, 48.0163, -13.538, 96.3509, -51.3914, 45.4251
3.952, 2, 35.9295, 48.0163, -13.538, 96.3509, -51.3914, 45.4251
3.956, 2, 35.9295, 48.0163, -13.538, 96.3509, -51.3914, 45.4251
3.96, 2, 35.9295, 48.0163, -13.538, 96.3509, -51.3914, 45.4251
3.964, 2, 35.9295, 48.0163, -13.538, 96.3509, -51.3914, 45.4251
3.968, 2, 35.9295, 48.0163, -13.538, 96.3509, -51.3914, 45.4251
3.972, 2, 35.9295, 48.0163, -13.538, 96.3509, -51.3914, 45.4251
3.976, 2, 35.9295, 48.0163, -13.538, 96.3509, -51.3914, 45.4251
3.98, 2, 35.9295, 48.0163, -13.538, 96.3509, -51.3914, 45.4251
3.984, 2, 35.9295, 48.0163, -13.538, 96.3509, -51.3914, 45.4251
3.988, 2, 35.9295, 48.0163, -13.538, 96.3509, -51.3914, 45.4251
3.992, 2, 35.9295, 48.0163, -13.538, 96.3509, -51.3914, 45.4251
3.996, 2, 35.9295, 48.0163, -13.538, 96.3509, -51.3914, 45.4251
3.999, 2, 35.9295, 48.0163, -13.538, 96.3509, -51.3914, 45.4251
4.004, 2, 35.9295, 48.0163, -13.538, 96.3509, -51.3914, 45.4251
4.008, 2, 35.9295, 48.0163, -13.538, 96.3509, -51.3914, 45.4251
4.012, 2, 35.9295, 48.0163, -13.538, 96.3509, -51.3914, 45.4251
4.016, 2, 35.9295, 48.0163, -13.538, 96.3509, -51.3914, 45.4251
4.02, 2, 35.9295, 48.0163, -13.538, 96.3509, -51.3914, 45.4251
4.024, 2, 35.9295, 48.0163, -13.538, 96.3509, -51.3914, 45.4251
4.028, 2, 35.9295, 48.0163, -13.538, 96.3509, -51.3914, 45.4251
4.032, 2, 35.9295, 48.0163, -13.538, 96.3509, -51.3914, 45.4251
4.036, 2, 35.9295, 48.0163, -13.538, 96.3509, -51.3914, 45.4251
4.04, 2, 35.9295, 48.0163, -13.538, 96.3509, -51.3914, 45.4251
4.044, 2, 35.9295, 48.0163, -13.538, 96.3509, -51.3914, 45.4251
4.048, 2, 35.9295, 48.0163, -13.538, 96.3509, -51.3914, 45.4251
4.052, 2, 35.9295, 48.0163, -13.538, 96.3509, -51.3914, 45.4251
4.056, 2, 35.9295, 48.0163, -13.538, 96.3509, -51.3914, 45.4251
4.06, 2, 35.9295, 48.0163, -13.538, 96.3509, -51.3914, 45.4251
4.064, 2, 35.9295, 48.0163, -13.538, 96.3509, -51.3914, 45.4251
4.068, 2, 35.9295, 48.0163, -13.538, 96.3509, -51.3914, 45.4251
4.072, 2, 35.9295, 48.0163, -13.538, 96.3509, -51.3914, 45.4251
4.076, 2, 35.9295, 48.0163, -13.538, 96.3509, -51.3914, 45.4251
4.08, 2, 35.9295, 48.0163, -13.538, 96.3509, -51.3914, 45.4251
4.084, 2, 35.9295, 48.0163, -13.538, 96.3509, -51.3914, 45.4251
4.088, 2, 35.9295, 48.0163, -13.538, 96.3509, -51.3914, 45.4251
4.092, 2, 35.9295, 48.0163, -13.538, 96.3509, -51.3914, 45.4251
4.096, 2, 35.9295, 48.0163, -13.538, 96.3509, -51.3914, 45.4251
4.1, 2, 35.9295, 48.0163, -13.538, 96.3509, -51.3914, 45.4251
4.104, 2, 35.9295, 48.0163, -13.538, 96.3509, -51.3914, 45.4251
4.108, 2, 35.9295, 48.0163, -13.538, 96.3509, -51.3914, 45.4251
4.112, 2, 35.9295, 48.0163, -13.538, 96.3509, -51.3914, 45.4251
4.116, 2, 35.9295, 48.0163, -13.538, 96.3509, -51.3914, 45.4251
4.12, 2, 35.9295, 48.0163, -13.538, 96.3509, -51.3914, 45.4251
4.124, 2, 35.9295, 48.0163, -13.538, 96.3509, -51.3914, 45.4251
4.128, 2, 35.9295, 48.0163, -13.538, 96.3509, -51.3914, 45.4251
4.132, 2, 35.9295, 48.0163, -13.538, 96.3509, -51.3914, 45.4251
4.136, 2, 35.9295, 48.0163, -13.538, 96.3509, -51.3914, 45.4251
4.14, 2, 35.9295, 48.0163, -13.538, 96.3509, -51.3914, 45.4251
4.144, 2, 35.9295, 48.0163, -13.538, 96.3509, -51.3914, 45.4251
4.148, 2, 35.9295, 48.0163, -13.538, 96.3509, -51.3914, 45.4251
4.152, 2, 35.9295, 48.0163, -13.538, 96.3509, -51.3914, 45.4251
4.156, 2, 35.9295, 48.0163, -13.538, 96.3509, -51.3914, 45.4251
4.16, 2, 35.9295, 48.0163, -13.538, 96.3509, -51.3914, 45.4251
4.164, 2, 35.9295, 48.0163, -13.538, 96.3509, -51.3914, 45.4251
4.168, 2, 35.9295, 48.0163, -13.538, 96.3509, -51.3914, 45.4251
4.172, 2, 35.9295, 48.0163, -13.538, 96.3509, -51.3914, 45.4251
4.176, 2, 35.9295, 48.0163, -13.538, 96.3509, -51.3914, 45.4251
4.18, 2, 35.9295, 48.0163, -13.538, 96.3509, -51.3914, 45.4251
4.184, 2, 35.9295, 48.0163, -13.538, 96.3509, -51.3914, 45.4251
4.188, 2, 35.9295, 48.0163, -13.538, 96.3509, -51.3914, 45.4251
4.192, 2, 35.9295, 48.0163, -13.538, 96.3509, -51.3914, 45.4251
4.196, 2, 35.9295, 48.0163, -13.538, 96.3509, -51.3914, 45.4251
4.2, 2, 35.9295, 48.0163, -13.538, 96.3509, -51.3914, 45.4251
4.204, 2, 35.9295, 48.0163, -13.538, 96.3509, -51.3914, 45.4251
4.208, 2, 35.9295, 48.0163, -13.538, 96.3509, -51.3914, 45.4251
4.212, 2, 35.9295, 48.0163, -13.538, 96.3509, -51.3914, 45.4251
4.216, 2, 35.9295, 48.0163, -13.538, 96.3509, -51.3914, 45.4251
4.22, 2, 35.9295, 48.0163, -13.538, 96.3509, -51.3914, 45.4251
4.224, 2, 35.9295, 48.0163, -13.538, 96.3509, -51.3914, 45.4251
4.228, 2, 35.9295, 48.0163, -13.538, 96.3509, -51.3914, 45.4251
4.232, 2, 35.9295, 48.0163, -13.538, 96.3509, -51.3914, 45.4251
4.236, 2, 35.9295, 48.0163, -13.538, 96.3509, -51.3914, 45.4251
4.24, 2, 35.9295, 48.0163, -13.538, 96.3509, -51.3914, 45.4251
4.244, 2, 35.9295, 48.0163, -13.538, 96.3509, -51.3914, 45.4251
4.248, 2, 35.9295, 48.0163, -13.538, 96.3509, -51.3914, 45.4251
4.252, 2, 35.9295, 48.0163, -13.538, 96.3509, -51.3914, 45.4251
4.256, 2, 35.9295, 48.0163, -13.538, 96.3509, -51.3914, 45.4251
4.26, 2, 35.9295, 48.0163, -13.538, 96.3509, -51.3914, 45.4251
4.264, 2, 35.9295, 48.0163, -13.538, 96.3509, -51.3914, 45.4251
4.268, 2, 35.9295, 48.0163, -13.538, 96.3509, -51.3914, 45.4251
4.272, 2, 35.9295, 48.0163, -13.538, 96.3509, -51.3914, 45.4251
4.276, 2, 35.9295, 48.0163, -13.538, 96.3509, -51.3914, 45.4251
4.28, 2, 35.9295, 48.0163, -13.538, 96.3509, -51.3914, 45.4251
4.284, 2, 35.9295, 48.0163, -13.538, 96.3509, -51.3914, 45.4251
4.288, 2, 35.9295, 48.0163, -13.538, 96.3509, -51.3914, 45.4251
4.292, 2, 35.9295, 48.0163, -13.538, 96.3509, -51.3914, 45.4251
4.296, 2, 35.9295, 48.0163, -13.538, 96.3509, -51.3914, 45.4251
4.3, 2, 35.9295, 48.0163, -13.538, 96.3509, -51.3914, 45.4251
4.304, 2, 35.9295, 48.0163, -13.538, 96.3509, -51.3914, 45.4251
4.308, 2, 35.9295, 48.0163, -13.538, 96.3509, -51.3914, 45.4251
4.312, 2, 35.9295, 48.0163, -13.538, 96.3509, -51.3914, 45.4251
4.316, 2, 35.9295, 48.0163, -13.538, 96.3509, -51.3914, 45.4251
4.32, 2, 35.9295, 48.0163, -13.538, 96.3509, -51.3914, 45.4251
4.324, 2, 35.9295, 48.0163, -13.538, 96.3509, -51.3914, 45.4251
4.328, 2, 35.9295, 48.0163, -13.538, 96.3509, -51.3914, 45.4251
4.332, 2, 35.9295, 48.0163, -13.538, 96.3509, -51.3914, 45.4251
4.336, 2, 35.9295, 48.0163, -13.538, 96.3509, -51.3914, 45.4251
4.34, 2, 35.9295, 48.0163, -13.538, 96.3509, -51.3914, 45.4251
4.344, 2, 35.9295, 48.0163, -13.538, 96.3509, -51.3914, 45.4251
4.348, 2, 35.9295, 48.0163, -13.538, 96.3509, -51.3914, 45.4251
4.352, 2, 35.9295, 48.0163, -13.538, 96.3509, -51.3914, 45.4251
4.356, 2, 35.9295, 48.0163, -13.538, 96.3509, -51.3914, 45.4251
4.36, 2, 35.9295, 48.0163, -13.538, 96.3509, -51.3914, 45.4251
4.364, 2, 35.9295, 48.0163, -13.538, 96.3509, -51.3914, 45.4251
4.368, 2, 35.9295, 48.0163, -13.538, 96.3509, -51.3914, 45.4251
4.372, 2, 35.9295, 48.0163, -13.538, 96.3509, -51.3914, 45.4251
4.376, 2, 35.9295, 48.0163, -13.538, 96.3509, -51.3914, 45.4251
4.38, 2, 35.9295, 48.0163, -13.538, 96.3509, -51.3914, 45.4251
4.384, 2, 35.9295, 48.0163, -13.538, 96.3509, -51.3914, 45.4251
4.388, 2, 35.9295, 48.0163, -13.538, 96.3509, -51.3914, 45.4251
4.392, 2, 35.9295, 48.0163, -13.538, 96.3509, -51.3914, 45.4251
4.396, 2, 35.9295, 48.0163, -13.538, 96.3509, -51.3914, 45.4251
4.4, 2, 35.9295, 48.0163, -13.538, 96.3509, -51.3914, 45.4251
4.404, 2, 35.9295, 48.0163, -13.538, 96.3509, -51.3914, 45.4251
4.408, 2, 35.9295, 48.0163, -13.538, 96.3509, -51.3914, 45.4251
4.412, 2, 35.9295, 48.0163, -13.538, 96.3509, -51.3914, 45.4251
4.416, 2, 35.9295, 48.0163, -13.538, 96.3509, -51.3914, 45.4251
4.42, 2, 35.9295, 48.0163, -13.538, 96.3509, -51.3914, 45.4251
4.424, 2, 35.9295, 48.0163, -13.538, 96.3509, -51.3914, 45.4251
4.428, 2, 35.9295, 48.0163, -13.538, 96.3509, -51.3914, 45.4251
4.432, 2, 35.9295, 48.0163, -13.538, 96.3509, -51.3914, 45.4251
4.436, 2, 35.9295, 48.0163, -13.538, 96.3509, -51.3914, 45.4251
4.44, 2, 35.9295, 48.0163, -13.538, 96.3509, -51.3914, 45.4251
4.444, 2, 35.9295, 48.0163, -13.538, 96.3509, -51.3914, 45.4251
4.448, 2, 35.9295, 48.0163, -13.538, 96.3509, -51.3914, 45.4251
4.452, 2, 35.9295, 48.0163, -13.538, 96.3509, -51.3914, 45.4251
4.456, 2, 35.9295, 48.0163, -13.538, 96.3509, -51.3914, 45.4251
4.46, 2, 35.9295, 48.0163, -13.538, 96.3509, -51.3914, 45.4251
4.464, 2, 35.9295, 48.0163, -13.538, 96.3509, -51.3914, 45.4251
4.468, 2, 35.9295, 48.0163, -13.538, 96.3509, -51.3914, 45.4251
4.472, 2, 35.9295, 48.0163, -13.538, 96.3509, -51.3914, 45.4251
4.476, 2, 35.9295, 48.0163, -13.538, 96.3509, -51.3914, 45.4251
4.48, 2, 35.9295, 48.0163, -13.538, 96.3509, -51.3914, 45.4251
4.484, 2, 35.9295, 48.0163, -13.538, 96.3509, -51.3914, 45.4251
4.488, 2, 35.9295, 48.0163, -13.538, 96.3509, -51.3914, 45.4251
4.492, 2, 35.9295, 48.0163, -13.538, 96.3509, -51.3914, 45.4251
4.496, 2, 35.9295, 48.0163, -13.538, 96.3509, -51.3914, 45.4251
4.5, 2, 35.9295, 48.0163, -13.538, 96.3509, -51.3914, 45.4251
4.504, 2, 35.9295, 48.0163, -13.538, 96.3509, -51.3914, 45.4251
4.508, 2, 35.9295, 48.0163, -13.538, 96.3509, -51.3914, 45.4251
4.512, 2, 35.9295, 48.0163, -13.538, 96.3509, -51.3914, 45.4251
4.516, 2, 35.9295, 48.0163, -13.538, 96.3509, -51.3914, 45.4251
4.52, 2, 35.9295, 48.0163, -13.538, 96.3509, -51.3914, 45.4251
4.524, 2, 35.9295, 48.0163, -13.538, 96.3509, -51.3914, 45.4251
4.528, 2, 35.9295, 48.0163, -13.538, 96.3509, -51.3914, 45.4251
4.532, 2, 35.9295, 48.0163, -13.538, 96.3509, -51.3914, 45.4251
4.536, 2, 35.9295, 48.0163, -13.538, 96.3509, -51.3914, 45.4251
4.54, 2, 35.9295, 48.0163, -13.538, 96.3509, -51.3914, 45.4251
4.544, 2, 35.9295, 48.0163, -13.538, 96.3509, -51.3914, 45.4251
4.548, 2, 35.9295, 48.0163, -13.538, 96.3509, -51.3914, 45.4251
4.552, 2, 35.9295, 48.0163, -13.538, 96.3509, -51.3914, 45.4251
4.556, 2, 35.9295, 48.0163, -13.538, 96.3509, -51.3914, 45.4251
4.56, 2, 35.9295, 48.0163, -13.538, 96.3509, -51.3914, 45.4251
4.564, 2, 35.9295, 48.0163, -13.538, 96.3509, -51.3914, 45.4251
4.568, 2, 35.9295, 48.0163, -13.538, 96.3509, -51.3914, 45.4251
4.572, 2, 35.9295, 48.0163, -13.538, 96.3509, -51.3914, 45.4251
4.576, 2, 35.9295, 48.0163, -13.538, 96.3509, -51.3914, 45.4251
4.58, 2, 35.9295, 48.0163, -13.538, 96.3509, -51.3914, 45.4251
4.584, 2, 35.9295, 48.0163, -13.538, 96.3509, -51.3914, 45.4251
4.588, 2, 35.9295, 48.0163, -13.538, 96.3509, -51.3914, 45.4251
4.592, 2, 35.9295, 48.0163, -13.538, 96.3509, -51.3914, 45.4251
4.596, 2, 35.9295, 48.0163, -13.538, 96.3509, -51.3914, 45.4251
4.6, 2, 35.9295, 48.0163, -13.538, 96.3509, -51.3914, 45.4251
4.604, 2, 35.9295, 48.0163, -13.538, 96.3509, -51.3914, 45.4251
4.608, 2, 35.9295, 48.0163, -13.538, 96.3509, -51.3914, 45.4251
4.612, 2, 35.9295, 48.0163, -13.538, 96.3509, -51.3914, 45.4251
4.616, 2, 35.9295, 48.0163, -13.538, 96.3509, -51.3914, 45.4251
4.62, 2, 35.9295, 48.0163, -13.538, 96.3509, -51.3914, 45.4251
4.624, 2, 35.9295, 48.0163, -13.538, 96.3509, -51.3914, 45.4251
4.628, 2, 35.9295, 48.0163, -13.538, 96.3509, -51.3914, 45.4251
4.632, 2, 35.9295, 48.0163, -13.538, 96.3509, -51.3914, 45.4251
4.636, 2, 35.9295, 48.0163, -13.538, 96.3509, -51.3914, 45.4251
4.64, 2, 35.9295, 48.0163, -13.538, 96.3509, -51.3914, 45.4251
4.644, 2, 35.9295, 48.0163, -13.538, 96.3509, -51.3914, 45.4251
4.648, 2, 35.9295, 48.0163, -13.538, 96.3509, -51.3914, 45.4251
4.652, 2, 35.9295, 48.0163, -13.538, 96.3509, -51.3914, 45.4251
4.656, 2, 35.9295, 48.0163, -13.538, 96.3509, -51.3914, 45.4251
4.66, 2, 35.9295, 48.0163, -13.538, 96.3509, -51.3914, 45.4251
4.664, 2, 35.9295, 48.0163, -13.538, 96.3509, -51.3914, 45.4251
4.668, 2, 35.9295, 48.0163, -13.538, 96.3509, -51.3914, 45.4251
4.672, 2, 35.9295, 48.0163, -13.538, 96.3509, -51.3914, 45.4251
4.676, 2, 35.9295, 48.0163, -13.538, 96.3509, -51.3914, 45.4251
4.68, 2, 35.9295, 48.0163, -13.538, 96.3509, -51.3914, 45.4251
4.684, 2, 35.9295, 48.0163, -13.538, 96.3509, -51.3914, 45.4251
4.688, 2, 35.9295, 48.0163, -13.538, 96.3509, -51.3914, 45.4251
4.692, 2, 35.9295, 48.0163, -13.538, 96.3509, -51.3914, 45.4251
4.696, 2, 35.9295, 48.0163, -13.538, 96.3509, -51.3914, 45.4251
4.7, 2, 35.9295, 48.0163, -13.538, 96.3509, -51.3914, 45.4251
4.704, 2, 35.9295, 48.0163, -13.538, 96.3509, -51.3914, 45.4251
4.708, 2, 35.9295, 48.0163, -13.538, 96.3509, -51.3914, 45.4251
4.712, 2, 35.9295, 48.0163, -13.538, 96.3509, -51.3914, 45.4251
4.716, 2, 35.9295, 48.0163, -13.538, 96.3509, -51.3914, 45.4251
4.72, 2, 35.9295, 48.0163, -13.538, 96.3509, -51.3914, 45.4251
4.724, 2, 35.9295, 48.0163, -13.538, 96.3509, -51.3914, 45.4251
4.728, 2, 35.9295, 48.0163, -13.538, 96.3509, -51.3914, 45.4251
4.732, 2, 35.9295, 48.0163, -13.538, 96.3509, -51.3914, 45.4251
4.736, 2, 35.9295, 48.0163, -13.538, 96.3509, -51.3914, 45.4251
4.74, 2, 35.9295, 48.0163, -13.538, 96.3509, -51.3914, 45.4251
4.744, 2, 35.9295, 48.0163, -13.538, 96.3509, -51.3914, 45.4251
4.748, 2, 35.9295, 48.0163, -13.538, 96.3509, -51.3914, 45.4251
4.752, 2, 35.9295, 48.0163, -13.538, 96.3509, -51.3914, 45.4251
4.756, 2, 35.9295, 48.0163, -13.538, 96.3509, -51.3914, 45.4251
4.76, 2, 35.9295, 48.0163, -13.538, 96.3509, -51.3914, 45.4251
4.764, 2, 35.9295, 48.0163, -13.538, 96.3509, -51.3914, 45.4251
4.768, 2, 35.9295, 48.0163, -13.538, 96.3509, -51.3914, 45.4251
4.772, 2, 35.9295, 48.0163, -13.538, 96.3509, -51.3914, 45.4251
4.776, 2, 35.9295, 48.0163, -13.538, 96.3509, -51.3914, 45.4251
4.78, 2, 35.9295, 48.0163, -13.538, 96.3509, -51.3914, 45.4251
4.784, 2, 35.9295, 48.0163, -13.538, 96.3509, -51.3914, 45.4251
4.788, 2, 35.9295, 48.0163, -13.538, 96.3509, -51.3914, 45.4251
4.792, 2, 35.9295, 48.0163, -13.538, 96.3509, -51.3914, 45.4251
4.796, 2, 35.9295, 48.0163, -13.538, 96.3509, -51.3914, 45.4251
4.8, 2, 35.9295, 48.0163, -13.538, 96.3509, -51.3914, 45.4251
4.804, 2, 35.9295, 48.0163, -13.538, 96.3509, -51.3914, 45.4251
4.808, 2, 35.9295, 48.0163, -13.538, 96.3509, -51.3914, 45.4251
4.812, 2, 35.9295, 48.0163, -13.538, 96.3509, -51.3914, 45.4251
4.816, 2, 35.9295, 48.0163, -13.538, 96.3509, -51.3914, 45.4251
4.82, 2, 35.9295, 48.0163, -13.538, 96.3509, -51.3914, 45.4251
4.824, 2, 35.9295, 48.0163, -13.538, 96.3509, -51.3914, 45.4251
4.828, 3, 35.9295, 48.0163, -13.538, 96.3509, -51.3914, 45.4251
4.832, 3, 35.9295, 48.0163, -13.538, 96.3509, -51.3914, 45.4251
4.836, 3, 35.9295, 48.0163, -13.538, 96.3509, -51.3914, 45.4251
4.84, 3, 35.9295, 48.0163, -13.538, 96.3509, -51.3914, 45.4251
4.844, 3, 35.9295, 48.0163, -13.538, 96.3509, -51.3914, 45.4251
4.848, 3, 35.9295, 48.0163, -13.538, 96.3509, -51.3914, 45.4251
4.852, 3, 35.9295, 48.0163, -13.538, 96.3509, -51.3914, 45.4251
4.856, 3, 35.9295, 48.0163, -13.538, 96.3509, -51.3914, 45.4251
4.86, 3, 35.9295, 48.0163, -13.538, 96.3509, -51.3914, 45.4251
4.864, 3, 35.9295, 48.0163, -13.538, 96.3509, -51.3914, 45.4251
4.868, 4, 35.9295, 48.0163, -13.538, 96.3509, -51.3914, 45.4251
4.872, 4, 35.9295, 48.0163, -13.538, 96.3509, -51.3914, 45.4251
4.876, 4, 35.9295, 48.0163, -13.538, 96.3509, -51.3914, 45.4251
4.88, 4, 35.9295, 48.0163, -13.538, 96.3509, -51.3914, 45.4251
4.884, 4, 35.9295, 48.0163, -13.538, 96.3509, -51.3914, 45.4251
4.888, 4, 35.9295, 48.0163, -13.538, 96.3509, -51.3914, 45.4251
4.892, 4, 35.9295, 48.0163, -13.538, 96.3509, -51.3914, 45.4251
4.896, 4, 35.9295, 48.0163, -13.538, 96.3509, -51.3914, 45.4251
4.9, 4, 35.9295, 48.0163, -13.538, 96.3509, -51.3914, 45.4251
4.904, 4, 35.9295, 48.0163, -13.538, 96.3509, -51.3914, 45.4251
4.908, 4, 35.9295, 48.0163, -13.538, 96.3509, -51.3914, 45.4251
4.912, 4, 35.9295, 48.0163, -13.538, 96.3509, -51.3914, 45.4251
4.916, 4, 35.9295, 48.0163, -13.538, 96.3509, -51.3914, 45.4251
4.92, 4, 35.9295, 48.0163, -13.538, 96.3509, -51.3914, 45.4251
4.924, 4, 35.9295, 48.0163, -13.538, 96.3509, -51.3914, 45.4251
4.928, 4, 35.9295, 48.0163, -13.538, 96.3509, -51.3914, 45.4251
4.932, 4, 35.9295, 48.0163, -13.538, 96.3509, -51.3914, 45.4251
4.936, 4, 35.9295, 48.0163, -13.538, 96.3509, -51.3914, 45.4251
4.94, 4, 35.9295, 48.0163, -13.538, 96.3509, -51.3914, 45.4251
4.944, 4, 35.9295, 48.0163, -13.538, 96.3509, -51.3914, 45.4251
4.948, 4, 35.9295, 48.0163, -13.538, 96.3509, -51.3914, 45.4251
4.952, 4, 35.9295, 48.0163, -13.538, 96.3509, -51.3914, 45.4251
4.956, 4, 35.9295, 48.0163, -13.538, 96.3509, -51.3914, 45.4251
4.96, 4, 35.9295, 48.0163, -13.538, 96.3509, -51.3914, 45.4251
4.964, 4, 35.9295, 48.0163, -13.538, 96.3509, -51.3914, 45.4251
4.968, 6, 35.9295, 48.0163, -13.538, 96.3509, -51.3914, 45.4251
4.972, 6, 35.9295, 48.0163, -13.538, 96.3509, -51.3914, 45.4251
4.976, 7, 35.9295, 48.0163, -13.538, 96.3509, -51.3914, 45.4251
4.98, 8, 35.9295, 48.0163, -13.538, 96.3509, -51.3914, 45.4251
4.984, 8, 35.9295, 48.0163, -13.538, 96.3509, -51.3914, 45.4251
4.988, 9, 35.9295, 48.0163, -13.538, 96.3509, -51.3914, 45.4251
4.992, 9, 35.9295, 48.0163, -13.538, 96.3509, -51.3914, 45.4251
4.996, 10, 35.9295, 48.0163, -13.538, 96.3509, -51.3914, 45.4251
5, 11, 35.9295, 48.0163, -13.538, 96.3509, -51.3914, 45.4251
5.004, 11, 35.9295, 48.0163, -13.538, 96.3509, -51.3914, 45.4251
5.008, 12, 35.9295, 48.0163, -13.538, 96.3509, -51.3914, 45.4251
5.012, 12, 35.9295, 48.0163, -13.538, 96.3509, -51.3914, 45.4251
5.016, 13, 35.9295, 48.0163, -13.538, 96.3509, -51.3914, 45.4251
5.02, 13, 35.9295, 48.0163, -13.538, 96.3509, -51.3914, 45.4251
5.024, 13, 35.9294, 48.0163, -13.538, 96.3509, -51.3914, 45.4251
5.028, 13, 35.9294, 48.0165, -13.538, 96.3509, -51.3914, 45.4251
5.032, 13, 35.9292, 48.0169, -13.538, 96.3509, -51.3914, 45.425
5.036, 13, 35.9288, 48.0176, -13.5381, 96.351, -51.3916, 45.4249
5.04, 13, 35.9282, 48.0189, -13.5382, 96.351, -51.392, 45.4246
5.044, 13, 35.9273, 48.0208, -13.5385, 96.3512, -51.3928, 45.4239
5.048, 13, 35.9261, 48.0235, -13.5389, 96.3515, -51.3943, 45.4227
5.052, 13, 35.9246, 48.0271, -13.5396, 96.352, -51.3968, 45.4206
5.056, 13, 35.9229, 48.0317, -13.5406, 96.3528, -51.401, 45.4171
5.06, 13, 35.9208, 48.0376, -13.542, 96.3539, -51.4073, 45.4119
5.064, 13, 35.9185, 48.0449, -13.544, 96.3557, -51.4165, 45.4042
5.068, 13, 35.9159, 48.054, -13.5467, 96.3581, -51.4295, 45.3935
5.072, 13, 35.9129, 48.065, -13.5502, 96.3613, -51.4471, 45.379
5.076, 13, 35.9096, 48.0783, -13.5548, 96.3657, -51.4704, 45.3596
5.08, 13, 35.906, 48.0939, -13.5606, 96.3712, -51.5005, 45.3347
5.084, 13, 35.9021, 48.112, -13.5678, 96.3783, -51.5386, 45.3031
5.088, 13, 35.8979, 48.1328, -13.5765, 96.387, -51.586, 45.2638
5.092, 13, 35.8933, 48.1564, -13.5871, 96.3976, -51.6437, 45.216
5.096, 13, 35.8885, 48.1831, -13.5996, 96.4104, -51.7128, 45.1587
5.1, 13, 35.8833, 48.2132, -13.6143, 96.4254, -51.7944, 45.091
5.104, 13, 35.8777, 48.2468, -13.6313, 96.4429, -51.8893, 45.0123
5.108, 13, 35.8717, 48.2841, -13.6506, 96.4629, -51.9984, 44.9218
5.112, 13, 35.8653, 48.3253, -13.6725, 96.4857, -52.1224, 44.819
5.116, 13, 35.8585, 48.3705, -13.6971, 96.5113, -52.2618, 44.7034
5.12, 13, 35.8513, 48.4199, -13.7243, 96.5399, -52.4171, 44.5746
5.124, 13, 35.8436, 48.4735, -13.7543, 96.5714, -52.5886, 44.4325
5.128, 13, 35.8355, 48.5311, -13.7871, 96.6058, -52.7763, 44.2768
5.132, 14, 35.8271, 48.5927, -13.8227, 96.6433, -52.9802, 44.1077
5.136, 14, 35.8184, 48.6578, -13.8609, 96.6837, -53.2002, 43.9253
5.14, 14, 35.8096, 48.726, -13.9017, 96.7269, -53.4356, 43.7301
5.144, 14, 35.8008, 48.797, -13.9449, 96.7728, -53.6856, 43.5226
5.148, 14, 35.792, 48.8704, -13.9903, 96.8213, -53.9492, 43.304
5.152, 14, 35.7834, 48.946, -14.0378, 96.872, -54.2248, 43.0752
5.156, 14, 35.7749, 49.0237, -14.0869, 96.9247, -54.5108, 42.8377
5.16, 14, 35.7665, 49.1035, -14.1375, 96.9789, -54.8054, 42.5932
5.164, 14, 35.7579, 49.1854, -14.189, 97.034, -55.1064, 42.3436
5.168, 14, 35.7491, 49.2693, -14.2412, 97.0895, -55.4122, 42.0907
5.172, 14, 35.7398, 49.3552, -14.2934, 97.1444, -55.721, 41.8367
5.176, 14, 35.7298, 49.4432, -14.3454, 97.1976, -56.0314, 41.5838
5.18, 14, 35.7187, 49.5336, -14.3966, 97.2479, -56.3421, 41.3341
5.184, 14, 35.7059, 49.6263, -14.4469, 97.2942, -56.6525, 41.0896
5.188, 14, 35.6915, 49.7213, -14.4957, 97.3353, -56.9622, 40.8518
5.192, 14, 35.6755, 49.8181, -14.5428, 97.3701, -57.2713, 40.6217
5.196, 14, 35.6582, 49.9162, -14.588, 97.3982, -57.5805, 40.3996
5.2, 14, 35.6401, 50.0147, -14.631, 97.419, -57.8905, 40.1854
5.204, 14, 35.6218, 50.1131, -14.6717, 97.4325, -58.2024, 39.9782
5.208, 14, 35.6037, 50.2106, -14.71, 97.439, -58.5171, 39.7772
5.212, 14, 35.5861, 50.3069, -14.7458, 97.4387, -58.8357, 39.5811
5.216, 14, 35.569, 50.4018, -14.7794, 97.4323, -59.1587, 39.3887
5.22, 14, 35.5523, 50.4951, -14.8109, 97.4205, -59.4865, 39.1987
5.224, 14, 35.5361, 50.5869, -14.8404, 97.4044, -59.8192, 39.0099
5.228, 14, 35.5204, 50.677, -14.8682, 97.3849, -60.1564, 38.8212
5.232, 14, 35.5054, 50.7654, -14.8944, 97.3632, -60.4972, 38.6319
5.236, 14, 35.4913, 50.8521, -14.9193, 97.3403, -60.8406, 38.4412
5.24, 14, 35.4781, 50.9375, -14.9428, 97.3171, -61.1852, 38.2492
5.244, 14, 35.4653, 51.022, -14.9653, 97.2942, -61.5295, 38.0561
5.248, 14, 35.4524, 51.1058, -14.9868, 97.272, -61.8717, 37.8627
5.252, 15, 35.4389, 51.1895, -15.0073, 97.2506, -62.2101, 37.6701
5.256, 15, 35.4238, 51.2732, -15.0268, 97.2298, -62.5434, 37.4796
5.26, 15, 35.4069, 51.3568, -15.045, 97.209, -62.8704, 37.2927
5.264, 15, 35.3879, 51.44, -15.0616, 97.1876, -63.1902, 37.1106
5.268, 15, 35.3671, 51.5225, -15.0762, 97.1648, -63.5023, 36.9347
5.272, 15, 35.3448, 51.604, -15.0881, 97.1396, -63.8066, 36.7662
5.276, 15, 35.3214, 51.6845, -15.0969, 97.111, -64.1033, 36.6061
5.28, 15, 35.2971, 51.764, -15.1018, 97.078, -64.393, 36.455
5.284, 15, 35.272, 51.8424, -15.1024, 97.0395, -64.6765, 36.3134
5.288, 15, 35.2461, 51.9196, -15.098, 96.9947, -64.9552, 36.1815
5.292, 15, 35.2194, 51.9952, -15.088, 96.9429, -65.2306, 36.059
5.296, 15, 35.192, 52.0691, -15.0721, 96.8836, -65.5043, 35.9451
5.3, 15, 35.1641, 52.1407, -15.0499, 96.8164, -65.7783, 35.8392
5.304, 15, 35.1359, 52.2097, -15.0212, 96.7413, -66.0543, 35.74
5.308, 15, 35.1077, 52.2758, -14.9859, 96.6582, -66.3341, 35.6464
5.312, 15, 35.0797, 52.3388, -14.9442, 96.5677, -66.619, 35.557
5.316, 15, 35.0522, 52.3987, -14.8963, 96.4702, -66.91, 35.4705
5.32, 15, 35.0251, 52.4554, -14.8428, 96.3667, -67.2076, 35.3856
5.324, 15, 34.9985, 52.5091, -14.7842, 96.2582, -67.5118, 35.3013
5.328, 15, 34.9726, 52.5598, -14.7213, 96.1458, -67.822, 35.2167
5.332, 15, 34.9474, 52.608, -14.6547, 96.0308, -68.1371, 35.1313
5.336, 15, 34.9226, 52.6541, -14.5853, 95.9143, -68.4557, 35.0449
5.34, 15, 34.8981, 52.6987, -14.5141, 95.7974, -68.7757, 34.9576
5.344, 15, 34.8735, 52.7421, -14.4419, 95.6812, -69.095, 34.8699
5.349, 17, 34.8485, 52.7847, -14.3693, 95.5665, -69.4114, 34.7823
5.352, 17, 34.8227, 52.8266, -14.2972, 95.4539, -69.7227, 34.6956
5.358, 17, 34.7673, 52.9088, -14.1561, 95.2379, -70.3217, 34.528
5.36, 17, 34.7673, 52.9088, -14.1561, 95.2379, -70.3217, 34.528
5.364, 17, 34.7372, 52.9489, -14.0875, 95.1351, -70.606, 34.4488
5.368, 17, 34.7053, 52.9881, -14.0202, 95.0358, -70.8784, 34.3735
5.372, 17, 34.6716, 53.0264, -13.9536, 94.94, -71.1382, 34.3029
5.376, 17, 34.6362, 53.0635, -13.8873, 94.8471, -71.3852, 34.2376
5.38, 17, 34.5992, 53.0991, -13.8204, 94.7566, -71.6197, 34.178
5.384, 17, 34.5609, 53.1327, -13.7519, 94.6677, -71.8424, 34.1244
5.388, 17, 34.5216, 53.1642, -13.6807, 94.5792, -72.0545, 34.0772
5.392, 17, 34.4816, 53.1929, -13.6055, 94.4903, -72.2575, 34.0363
5.396, 17, 34.4413, 53.2188, -13.5253, 94.3996, -72.4531, 34.0019
5.4, 17, 34.4008, 53.2413, -13.4389, 94.3062, -72.6434, 33.9738
5.404, 17, 34.3605, 53.2602, -13.3454, 94.2088, -72.8303, 33.9518
5.408, 17, 34.3203, 53.2752, -13.2439, 94.1066, -73.0157, 33.9356
5.412, 17, 34.2806, 53.2862, -13.1339, 93.9989, -73.2014, 33.9248
5.416, 17, 34.2413, 53.2931, -13.0153, 93.8852, -73.3888, 33.9189
5.42, 17, 34.2024, 53.2957, -12.8882, 93.7653, -73.579, 33.9173
5.424, 17, 34.1641, 53.2942, -12.7531, 93.6394, -73.7728, 33.9194
5.428, 17, 34.1263, 53.2888, -12.6105, 93.508, -73.9705, 33.9246
5.432, 17, 34.089, 53.2797, -12.4617, 93.3717, -74.1721, 33.9323
5.436, 17, 34.0521, 53.2674, -12.3077, 93.2313, -74.3772, 33.9418
5.44, 17, 34.0154, 53.2526, -12.1499, 93.088, -74.5847, 33.9526
5.444, 17, 33.9787, 53.2361, -11.9897, 92.9429, -74.7937, 33.9644
5.448, 17, 33.9415, 53.2187, -11.8285, 92.7971, -75.0028, 33.9767
5.452, 17, 33.9034, 53.2011, -11.6677, 92.6518, -75.2107, 33.9893
5.456, 17, 33.8643, 53.1841, -11.5084, 92.508, -75.4161, 34.0019
5.46, 17, 33.824, 53.1679, -11.3517, 92.3666, -75.6179, 34.0144
5.464, 17, 33.7827, 53.1527, -11.1985, 92.2283, -75.8152, 34.0266
5.469, 19, 33.7409, 53.1382, -11.0493, 92.0935, -76.0073, 34.0385
5.471, 19, 33.6989, 53.1242, -10.9046, 91.9627, -76.1938, 34.0501
5.476, 19, 33.657, 53.1106, -10.7646, 91.8361, -76.3742, 34.0612
5.48, 19, 33.6153, 53.0972, -10.6292, 91.7138, -76.5485, 34.072
5.484, 19, 33.5739, 53.0839, -10.4983, 91.5959, -76.7166, 34.0826
5.488, 19, 33.5327, 53.0703, -10.3716, 91.4825, -76.8783, 34.0929
5.492, 19, 33.4915, 53.0561, -10.2488, 91.3736, -77.0338, 34.1032
5.496, 19, 33.4504, 53.0411, -10.1293, 91.269, -77.1832, 34.1136
5.5, 19, 33.4093, 53.0248, -10.0126, 91.1688, -77.3265, 34.1243
5.504, 19, 33.3683, 53.0072, -9.89794, 91.0729, -77.4637, 34.1355
5.508, 19, 33.3274, 52.988, -9.78468, 90.9812, -77.5948, 34.1474
5.512, 19, 33.2867, 52.9672, -9.67195, 90.8937, -77.7201, 34.1603
5.516, 20, 33.246, 52.9449, -9.55886, 90.8098, -77.8394, 34.1744
5.52, 20, 33.2053, 52.9208, -9.44446, 90.7291, -77.9531, 34.19
5.524, 20, 33.1643, 52.8947, -9.32778, 90.6509, -78.0613, 34.2075
5.528, 20, 33.123, 52.8662, -9.20785, 90.5741, -78.1646, 34.2272
5.532, 20, 33.0813, 52.8349, -9.08367, 90.4977, -78.2633, 34.2493
5.536, 20, 33.0391, 52.8003, -8.95434, 90.4204, -78.3581, 34.2743
5.54, 20, 32.9964, 52.7623, -8.81897, 90.341, -78.4495, 34.3022
5.544, 20, 32.9529, 52.7207, -8.67682, 90.2585, -78.5381, 34.3333
5.548, 20, 32.9088, 52.6754, -8.52728, 90.1718, -78.6245, 34.3678
5.552, 20, 32.864, 52.6265, -8.36995, 90.0801, -78.7092, 34.4056
5.556, 20, 32.8186, 52.5741, -8.20466, 89.9827, -78.7927, 34.4469
5.56, 20, 32.7727, 52.5182, -8.03148, 89.8793, -78.8755, 34.4914
5.564, 21, 32.7265, 52.459, -7.85073, 89.7697, -78.9578, 34.5392
5.568, 21, 32.6802, 52.3967, -7.66298, 89.654, -79.0399, 34.5898
5.572, 21, 32.6339, 52.3318, -7.469, 89.5327, -79.1219, 34.6429
5.576, 21, 32.5876, 52.2644, -7.26972, 89.4065, -79.2039, 34.6983
5.58, 21, 32.5412, 52.1951, -7.0662, 89.2763, -79.2858, 34.7553
5.584, 21, 32.4944, 52.1242, -6.85957, 89.1432, -79.3676, 34.8136
5.588, 22, 32.4471, 52.0522, -6.65097, 89.0081, -79.449, 34.8727
5.592, 22, 32.3992, 51.9795, -6.44154, 88.8721, -79.5301, 34.9322
5.596, 22, 32.3505, 51.9064, -6.2323, 88.7358, -79.6105, 34.9917
5.6, 22, 32.3011, 51.8332, -6.02417, 88.6002, -79.6901, 35.0509
5.604, 22, 32.251, 51.7601, -5.81787, 88.4656, -79.7688, 35.1096
5.608, 22, 32.2002, 51.6869, -5.61397, 88.3326, -79.8465, 35.1677
5.612, 22, 32.1488, 51.6138, -5.41281, 88.2015, -79.9229, 35.2249
5.616, 22, 32.0964, 51.5404, -5.21456, 88.0725, -79.9979, 35.2813
5.62, 22, 32.0432, 51.4667, -5.01919, 87.9457, -80.0715, 35.337
5.624, 22, 31.989, 51.3926, -4.8265, 87.8213, -80.1435, 35.3919
5.628, 22, 31.9341, 51.3179, -4.63613, 87.6991, -80.2138, 35.4464
5.632, 22, 31.8786, 51.2426, -4.4476, 87.5792, -80.2824, 35.5007
5.636, 22, 31.8226, 51.1667, -4.26028, 87.4615, -80.3492, 35.5548
5.64, 22, 31.7662, 51.0899, -4.07347, 87.3458, -80.4141, 35.6092
5.644, 22, 31.7094, 51.0121, -3.88642, 87.232, -80.4771, 35.6641
5.648, 22, 31.6522, 50.933, -3.69828, 87.1198, -80.5381, 35.7199
5.652, 22, 31.5942, 50.8523, -3.50824, 87.0089, -80.5972, 35.7767
5.656, 22, 31.5356, 50.7696, -3.31548, 86.899, -80.6545, 35.835
5.66, 23, 31.4762, 50.6848, -3.11923, 86.7897, -80.7102, 35.8949
5.664, 23, 31.4158, 50.5975, -2.9188, 86.6805, -80.7645, 35.9567
5.668, 23, 31.3546, 50.5076, -2.71357, 86.5711, -80.8176, 36.0207
5.672, 23, 31.2923, 50.4149, -2.50308, 86.461, -80.8698, 36.0868
5.676, 23, 31.229, 50.3195, -2.28702, 86.3499, -80.9213, 36.1552
5.68, 23, 31.1647, 50.2211, -2.06524, 86.2374, -80.9725, 36.2259
5.684, 23, 31.0996, 50.1201, -1.83783, 86.1233, -81.0236, 36.2988
5.688, 23, 31.0341, 50.0166, -1.60505, 86.0074, -81.0748, 36.3738
5.692, 23, 30.9684, 49.9108, -1.36741, 85.8897, -81.1263, 36.4507
5.696, 23, 30.9026, 49.8032, -1.12561, 85.7703, -81.1782, 36.5292
5.7, 23, 30.8368, 49.6941, -0.880524, 85.6495, -81.2303, 36.6089
5.704, 23, 30.7706, 49.5835, -0.633146, 85.5278, -81.2828, 36.6896
5.708, 24, 30.7039, 49.4719, -0.384541, 85.4055, -81.3353, 36.7707
5.712, 24, 30.6361, 49.3593, -0.135783, 85.2834, -81.3878, 36.8519
5.716, 24, 30.5673, 49.2461, 0.112101, 85.1617, -81.44, 36.9328
5.72, 24, 30.4976, 49.1325, 0.358191, 85.0411, -81.4918, 37.0131
5.724, 24, 30.427, 49.0189, 0.601719, 84.9219, -81.543, 37.0926
5.728, 24, 30.3562, 48.9055, 0.842084, 84.8043, -81.5934, 37.1709
5.732, 24, 30.2852, 48.7924, 1.07886, 84.6885, -81.6427, 37.2481
5.736, 24, 30.2144, 48.6795, 1.31181, 84.5747, -81.6907, 37.324
5.74, 24, 30.1439, 48.5668, 1.54082, 84.463, -81.737, 37.3987
5.744, 24, 30.0735, 48.4539, 1.76598, 84.3532, -81.7812, 37.4723
5.748, 24, 30.0031, 48.3409, 1.9875, 84.2453, -81.8227, 37.5447
5.752, 24, 29.9325, 48.2275, 2.20574, 84.1393, -81.8611, 37.6163
5.756, 24, 29.8615, 48.1138, 2.42116, 84.0348, -81.8956, 37.6872
5.76, 24, 29.7902, 47.9996, 2.63437, 83.9316, -81.9258, 37.7577
5.764, 24, 29.7186, 47.8848, 2.84604, 83.8295, -81.9509, 37.8281
5.768, 24, 29.6467, 47.7691, 3.05698, 83.7281, -81.9705, 37.8987
5.772, 24, 29.5745, 47.652, 3.268, 83.6269, -81.9841, 37.9698
5.776, 24, 29.5022, 47.5333, 3.47995, 83.5256, -81.9915, 38.0417
5.78, 25, 29.4297, 47.4125, 3.69369, 83.4238, -81.9925, 38.1148
5.784, 25, 29.3567, 47.2892, 3.91007, 83.321, -81.9869, 38.1894
5.788, 25, 29.2829, 47.1631, 4.12988, 83.2169, -81.9751, 38.2658
5.792, 25, 29.2081, 47.0338, 4.35387, 83.111, -81.9571, 38.3441
5.796, 25, 29.1321, 46.901, 4.5827, 83.003, -81.9335, 38.4247
5.8, 25, 29.0549, 46.7645, 4.81695, 82.8927, -81.9048, 38.5076
5.804, 26, 28.9765, 46.6241, 5.05704, 82.7796, -81.8714, 38.593
5.808, 26, 28.8969, 46.4797, 5.30328, 82.6637, -81.8342, 38.6809
5.812, 26, 28.816, 46.3312, 5.55575, 82.5447, -81.7935, 38.7714
5.816, 26, 28.7339, 46.1788, 5.81438, 82.4228, -81.7501, 38.8643
5.82, 26, 28.6502, 46.0224, 6.07891, 82.2979, -81.7044, 38.9597
5.824, 26, 28.5648, 45.8622, 6.34893, 82.1702, -81.6568, 39.0573
5.828, 26, 28.4773, 45.6981, 6.6239, 82.04, -81.6076, 39.1569
5.832, 26, 28.3875, 45.5304, 6.90321, 81.9075, -81.5569, 39.2586
5.836, 26, 28.2954, 45.3594, 7.18625, 81.773, -81.505, 39.362
5.84, 26, 28.2012, 45.1852, 7.47239, 81.6368, -81.4517, 39.4671
5.844, 26, 28.1052, 45.0083, 7.76103, 81.4992, -81.3971, 39.5739
5.848, 26, 28.0076, 44.8291, 8.0516, 81.3605, -81.341, 39.6823
5.852, 26, 27.9087, 44.6477, 8.34355, 81.2209, -81.2831, 39.7922
5.856, 26, 27.8088, 44.4645, 8.63637, 81.0807, -81.2234, 39.9036
5.86, 26, 27.7081, 44.2799, 8.92957, 80.94, -81.1614, 40.0163
5.864, 26, 27.607, 44.0942, 9.22268, 80.799, -81.0968, 40.1303
5.868, 26, 27.5056, 43.9079, 9.51528, 80.6579, -81.0294, 40.2454
5.872, 26, 27.4043, 43.7217, 9.80697, 80.5169, -80.9589, 40.3613
5.876, 26, 27.3032, 43.5359, 10.0974, 80.3762, -80.8852, 40.4779
5.88, 26, 27.2025, 43.3511, 10.3861, 80.2361, -80.8082, 40.5947
5.884, 26, 27.1021, 43.1673, 10.6726, 80.0966, -80.7279, 40.7116
5.888, 26, 27.0021, 42.9848, 10.9564, 79.9582, -80.6446, 40.828
5.892, 26, 26.9022, 42.8037, 11.237, 79.8211, -80.5587, 40.9436
5.896, 26, 26.8026, 42.6241, 11.5138, 79.6856, -80.4706, 41.0579
5.9, 27, 26.7036, 42.4464, 11.7861, 79.552, -80.3808, 41.1707
5.904, 27, 26.6053, 42.2709, 12.0534, 79.4207, -80.2899, 41.2813
5.908, 27, 26.508, 42.098, 12.315, 79.292, -80.1984, 41.3896
5.912, 27, 26.4119, 41.9279, 12.5703, 79.1663, -80.1071, 41.4953
5.916, 27, 26.317, 41.7608, 12.8188, 79.0437, -80.0165, 41.5979
5.92, 27, 26.2234, 41.5964, 13.0598, 78.9247, -79.9272, 41.6975
5.924, 27, 26.131, 41.4348, 13.2931, 78.8094, -79.8394, 41.7939
5.928, 27, 26.04, 41.276, 13.5184, 78.698, -79.7533, 41.8869
5.932, 27, 25.9503, 41.1199, 13.7357, 78.5903, -79.6687, 41.9768
5.936, 27, 25.8622, 40.9666, 13.9454, 78.4863, -79.5851, 42.0636
5.94, 27, 25.7756, 40.8158, 14.1477, 78.3858, -79.5022, 42.1475
5.944, 27, 25.6902, 40.6675, 14.3434, 78.2882, -79.4192, 42.2289
5.948, 28, 25.6058, 40.5212, 14.5332, 78.1929, -79.3354, 42.3081
5.952, 28, 25.5219, 40.3765, 14.718, 78.0994, -79.2502, 42.3855
5.956, 28, 25.4382, 40.2327, 14.8988, 78.0069, -79.1628, 42.4617
5.96, 28, 25.3546, 40.0895, 15.0768, 77.9144, -79.0727, 42.5372
5.964, 28, 25.271, 39.9464, 15.2534, 77.8213, -78.9791, 42.6125
5.968, 28, 25.1875, 39.8031, 15.43, 77.7267, -78.8814, 42.6882
5.972, 28, 25.1042, 39.6591, 15.6079, 77.6298, -78.7793, 42.7648
5.976, 28, 25.0207, 39.5139, 15.7883, 77.53, -78.6723, 42.8428
5.98, 28, 24.9367, 39.3667, 15.9723, 77.4267, -78.5603, 42.9226
5.984, 28, 24.8515, 39.2169, 16.1607, 77.3192, -78.4432, 43.0047
5.988, 28, 24.7645, 39.0638, 16.3543, 77.2073, -78.3209, 43.0892
5.992, 28, 24.6753, 38.9069, 16.5535, 77.0906, -78.1936, 43.1766
5.996, 29, 24.5835, 38.7458, 16.7585, 76.9691, -78.0612, 43.267
6, 29, 24.4889, 38.5802, 16.9697, 76.8427, -77.9236, 43.3605
6.004, 29, 24.3917, 38.4103, 17.1869, 76.7114, -77.7808, 43.4574
6.008, 29, 24.2919, 38.2363, 17.41, 76.5753, -77.6325, 43.5576
6.012, 29, 24.1897, 38.0583, 17.6387, 76.4347, -77.4786, 43.6614
6.016, 29, 24.0853, 37.8765, 17.8724, 76.2895, -77.3189, 43.7686
6.02, 29, 23.9786, 37.6913, 18.1105, 76.1402, -77.1534, 43.8793
6.024, 29, 23.8698, 37.503, 18.3525, 75.9869, -76.9823, 43.9933
