/JOB
//NAME AAA
//POS
///NPOS 104,0,0,0,0,0
C00000=-68490,-24165,-35106,-11897,-66738,76331
C00001=-68490,-24165,-35106,-11897,-66738,76331
C00002=-69499,-30257,-42570,-18909,-69402,74527
C00003=-69705,-31406,-44012,-20162,-69808,74223
C00004=-69549,-32276,-45094,-20883,-70341,73613
C00005=-69228,-32989,-45983,-21392,-70939,72872
C00006=-68847,-33623,-46778,-21857,-71568,72091
C00007=-68455,-34220,-47531,-22349,-72206,71309
C00008=-68061,-34801,-48261,-22885,-72842,70541
C00009=-67664,-35372,-48972,-23459,-73473,69786
C00010=-67255,-35930,-49660,-24059,-74096,69042
C00011=-66826,-36471,-50319,-24671,-74712,68304
C00012=-66373,-36997,-50948,-25288,-75318,67573
C00013=-65895,-37511,-51549,-25910,-75911,66851
C00014=-65393,-38019,-52126,-26535,-76486,66139
C00015=-64867,-38529,-52687,-27164,-77041,65442
C00016=-64319,-39049,-53236,-27798,-77570,64761
C00017=-63747,-39584,-53775,-28435,-78070,64097
C00018=-63152,-40136,-54305,-29073,-78541,63450
C00019=-62529,-40703,-54824,-29706,-78981,62818
C00020=-61875,-41281,-55326,-30328,-79393,62200
C00021=-61188,-41863,-55804,-30936,-79778,61593
C00022=-60465,-42441,-56253,-31523,-80139,60996
C00023=-59703,-43005,-56665,-32086,-80478,60405
C00024=-58901,-43548,-57035,-32621,-80798,59821
C00025=-58059,-44064,-57359,-33128,-81100,59241
C00026=-57177,-44547,-57634,-33605,-81387,58667
C00027=-56255,-44994,-57859,-34052,-81659,58097
C00028=-55295,-45402,-58034,-34469,-81917,57533
C00029=-54298,-45769,-58157,-34858,-82161,56973
C00030=-53265,-46094,-58229,-35219,-82391,56420
C00031=-52199,-46376,-58251,-35552,-82609,55872
C00032=-51099,-46612,-58224,-35858,-82815,55330
C00033=-49967,-46803,-58146,-36137,-83009,54795
C00034=-48805,-46947,-58019,-36390,-83192,54265
C00035=-47613,-47043,-57843,-36616,-83365,53743
C00036=-46393,-47090,-57619,-36817,-83528,53227
C00037=-45145,-47090,-57348,-36991,-83682,52718
C00038=-43871,-47043,-57031,-37139,-83826,52216
C00039=-42572,-46949,-56669,-37262,-83961,51722
C00040=-41248,-46811,-56265,-37358,-84088,51235
C00041=-39899,-46628,-55818,-37428,-84206,50756
C00042=-38527,-46401,-55330,-37470,-84316,50284
C00043=-37131,-46128,-54800,-37485,-84420,49819
C00044=-35710,-45808,-54226,-37469,-84518,49362
C00045=-34265,-45438,-53609,-37423,-84614,48911
C00046=-32796,-45014,-52944,-37344,-84709,48466
C00047=-31301,-44532,-52232,-37230,-84806,48027
C00048=-29780,-43989,-51469,-37080,-84908,47593
C00049=-28234,-43383,-50655,-36893,-85018,47165
C00050=-26661,-42711,-49788,-36668,-85136,46741
C00051=-25060,-41974,-48869,-36402,-85265,46321
C00052=-23433,-41173,-47899,-36096,-85405,45907
C00053=-21778,-40310,-46881,-35747,-85557,45497
C00054=-20094,-39388,-45815,-35355,-85721,45093
C00055=-18381,-38410,-44705,-34918,-85897,44693
C00056=-16638,-37379,-43552,-34434,-86086,44298
C00057=-14863,-36295,-42358,-33902,-86289,43909
C00058=-13056,-35157,-41123,-33319,-86506,43524
C00059=-11214,-33965,-39847,-32684,-86742,43143
C00060=-9338,-32714,-38530,-31995,-86998,42766
C00061=-7425,-31401,-37171,-31250,-87278,42392
C00062=-5474,-30023,-35771,-30448,-87587,42021
C00063=-3487,-28576,-34329,-29590,-87927,41652
C00064=-1462,-27060,-32849,-28674,-88300,41285
C00065=600,-25474,-31333,-27702,-88709,40920
C00066=2698,-23819,-29786,-26676,-89155,40557
C00067=4829,-22099,-28216,-25597,-89639,40196
C00068=6992,-20316,-26627,-24470,-90160,39837
C00069=9182,-18472,-25028,-23298,-90719,39481
C00070=11396,-16568,-23425,-22087,-91317,39126
C00071=13627,-14604,-21823,-20844,-91954,38773
C00072=15870,-12581,-20228,-19576,-92632,38422
C00073=18117,-10495,-18644,-18292,-93352,38071
C00074=20359,-8345,-17076,-17003,-94115,37720
C00075=22589,-6130,-15528,-15719,-94922,37368
C00076=24796,-3848,-14001,-14451,-95774,37014
C00077=26971,-1496,-12498,-13210,-96670,36656
C00078=29106,930,-11018,-12009,-97612,36294
C00079=31190,3432,-9560,-10858,-98600,35925
C00080=33215,6015,-8121,-9767,-99636,35548
C00081=35174,8682,-6700,-8748,-100719,35160
C00082=37059,11434,-5295,-7809,-101849,34761
C00083=38864,14264,-3907,-6958,-103021,34348
C00084=40585,17162,-2543,-6201,-104228,33920
C00085=42221,20110,-1210,-5541,-105459,33478
C00086=43770,23088,82,-4980,-106701,33021
C00087=45234,26079,1326,-4518,-107944,32550
C00088=46614,29074,2518,-4155,-109182,32065
C00089=47912,32069,3659,-3892,-110412,31565
C00090=49128,35070,4755,-3731,-111637,31047
C00091=50262,38079,5807,-3674,-112859,30510
C00092=51316,41089,6814,-3723,-114072,29952
C00093=52294,44083,7767,-3877,-115267,29373
C00094=53199,47042,8657,-4132,-116433,28776
C00095=54038,49954,9478,-4483,-117562,28160
C00096=54816,52823,10233,-4927,-118655,27526
C00097=55534,55645,10920,-5461,-119711,26873
C00098=56204,58383,11523,-6075,-120706,26208
C00099=56840,60977,12021,-6742,-121603,25546
C00100=57447,63448,12428,-7454,-122415,24887
C00101=57992,65992,12821,-8280,-123258,24185
C00102=58534,68041,12995,-9088,-123781,23559
C00103=61401,79843,14084,-14356,-126554,19963
//INST
///DATE 2023/04/03 12:39
///ATTR SC,RW
///GROUP1 RB1
NOP
MOVJ C00000 VJ=5.0
TIMER T=1.00
MOVJ C00001 VJ=1.0
TIMER T=0.10
MOVL C00002 V=50.0 PL=1
MOVL C00003 V=50.0 PL=1
MOVL C00004 V=50.0 PL=1
MOVL C00005 V=50.0 PL=1
MOVL C00006 V=50.0 PL=1
MOVL C00007 V=50.0 PL=1
MOVL C00008 V=50.0 PL=1
MOVL C00009 V=50.0 PL=1
MOVL C00010 V=50.0 PL=1
MOVL C00011 V=50.0 PL=1
MOVL C00012 V=50.0 PL=1
MOVL C00013 V=50.0 PL=1
MOVL C00014 V=50.0 PL=1
MOVL C00015 V=50.0 PL=1
MOVL C00016 V=50.0 PL=1
MOVL C00017 V=50.0 PL=1
MOVL C00018 V=50.0 PL=1
MOVL C00019 V=50.0 PL=1
MOVL C00020 V=50.0 PL=1
MOVL C00021 V=50.0 PL=1
MOVL C00022 V=50.0 PL=1
MOVL C00023 V=50.0 PL=1
MOVL C00024 V=50.0 PL=1
MOVL C00025 V=50.0 PL=1
MOVL C00026 V=50.0 PL=1
MOVL C00027 V=50.0 PL=1
MOVL C00028 V=50.0 PL=1
MOVL C00029 V=50.0 PL=1
MOVL C00030 V=50.0 PL=1
MOVL C00031 V=50.0 PL=1
MOVL C00032 V=50.0 PL=1
MOVL C00033 V=50.0 PL=1
MOVL C00034 V=50.0 PL=1
MOVL C00035 V=50.0 PL=1
MOVL C00036 V=50.0 PL=1
MOVL C00037 V=50.0 PL=1
MOVL C00038 V=50.0 PL=1
MOVL C00039 V=50.0 PL=1
MOVL C00040 V=50.0 PL=1
MOVL C00041 V=50.0 PL=1
MOVL C00042 V=50.0 PL=1
MOVL C00043 V=50.0 PL=1
MOVL C00044 V=50.0 PL=1
MOVL C00045 V=50.0 PL=1
MOVL C00046 V=50.0 PL=1
MOVL C00047 V=50.0 PL=1
MOVL C00048 V=50.0 PL=1
MOVL C00049 V=50.0 PL=1
MOVL C00050 V=50.0 PL=1
MOVL C00051 V=50.0 PL=1
MOVL C00052 V=50.0 PL=1
MOVL C00053 V=50.0 PL=1
MOVL C00054 V=50.0 PL=1
MOVL C00055 V=50.0 PL=1
MOVL C00056 V=50.0 PL=1
MOVL C00057 V=50.0 PL=1
MOVL C00058 V=50.0 PL=1
MOVL C00059 V=50.0 PL=1
MOVL C00060 V=50.0 PL=1
MOVL C00061 V=50.0 PL=1
MOVL C00062 V=50.0 PL=1
MOVL C00063 V=50.0 PL=1
MOVL C00064 V=50.0 PL=1
MOVL C00065 V=50.0 PL=1
MOVL C00066 V=50.0 PL=1
MOVL C00067 V=50.0 PL=1
MOVL C00068 V=50.0 PL=1
MOVL C00069 V=50.0 PL=1
MOVL C00070 V=50.0 PL=1
MOVL C00071 V=50.0 PL=1
MOVL C00072 V=50.0 PL=1
MOVL C00073 V=50.0 PL=1
MOVL C00074 V=50.0 PL=1
MOVL C00075 V=50.0 PL=1
MOVL C00076 V=50.0 PL=1
MOVL C00077 V=50.0 PL=1
MOVL C00078 V=50.0 PL=1
MOVL C00079 V=50.0 PL=1
MOVL C00080 V=50.0 PL=1
MOVL C00081 V=50.0 PL=1
MOVL C00082 V=50.0 PL=1
MOVL C00083 V=50.0 PL=1
MOVL C00084 V=50.0 PL=1
MOVL C00085 V=50.0 PL=1
MOVL C00086 V=50.0 PL=1
MOVL C00087 V=50.0 PL=1
MOVL C00088 V=50.0 PL=1
MOVL C00089 V=50.0 PL=1
MOVL C00090 V=50.0 PL=1
MOVL C00091 V=50.0 PL=1
MOVL C00092 V=50.0 PL=1
MOVL C00093 V=50.0 PL=1
MOVL C00094 V=50.0 PL=1
MOVL C00095 V=50.0 PL=1
MOVL C00096 V=50.0 PL=1
MOVL C00097 V=50.0 PL=1
MOVL C00098 V=50.0 PL=1
MOVL C00099 V=50.0 PL=1
MOVL C00100 V=50.0 PL=1
MOVL C00101 V=50.0 PL=1
MOVL C00102 V=50.0 PL=1
MOVL C00103 V=50.0 PL=1
END
