/JOB
//NAME AAA
//POS
///NPOS 404,0,0,0,0,0
///TOOL 11
///POSTYPE PULSE
///PULSE
C00000=-50228,2873,-14433,-13325,-96324,56089
C00001=-50228,2873,-14433,-13325,-96324,56089
C00002=-44932,-4570,-20740,-13991,-96319,55770
C00003=-44791,-4749,-20889,-14010,-96320,55760
C00004=-44651,-4934,-21041,-14030,-96318,55751
C00005=-44511,-5124,-21197,-14053,-96314,55742
C00006=-44373,-5320,-21356,-14077,-96307,55735
C00007=-44236,-5520,-21518,-14103,-96297,55729
C00008=-44100,-5725,-21684,-14131,-96286,55723
C00009=-43965,-5935,-21853,-14161,-96271,55719
C00010=-43832,-6151,-22025,-14192,-96254,55715
C00011=-43700,-6371,-22201,-14225,-96235,55713
C00012=-43569,-6597,-22380,-14260,-96213,55711
C00013=-43440,-6827,-22562,-14297,-96188,55710
C00014=-43312,-7063,-22747,-14335,-96161,55710
C00015=-43185,-7304,-22936,-14375,-96132,55711
C00016=-43059,-7551,-23128,-14417,-96099,55714
C00017=-42934,-7802,-23323,-14461,-96065,55716
C00018=-42811,-8059,-23522,-14506,-96028,55720
C00019=-42689,-8321,-23723,-14552,-95988,55725
C00020=-42568,-8588,-23929,-14601,-95946,55731
C00021=-42448,-8861,-24137,-14651,-95901,55737
C00022=-42329,-9139,-24349,-14703,-95854,55745
C00023=-42212,-9422,-24564,-14756,-95804,55753
C00024=-42096,-9711,-24782,-14811,-95752,55763
C00025=-41981,-10005,-25004,-14867,-95697,55773
C00026=-41867,-10304,-25229,-14925,-95640,55784
C00027=-41754,-10609,-25457,-14985,-95580,55796
C00028=-41642,-10919,-25689,-15046,-95517,55809
C00029=-41532,-11234,-25923,-15108,-95453,55822
C00030=-41423,-11555,-26162,-15173,-95385,55837
C00031=-41315,-11882,-26403,-15238,-95315,55853
C00032=-41208,-12214,-26648,-15306,-95243,55869
C00033=-41102,-12551,-26896,-15374,-95168,55886
C00034=-40997,-12894,-27148,-15445,-95091,55905
C00035=-40894,-13242,-27403,-15516,-95011,55924
C00036=-40792,-13596,-27661,-15590,-94929,55943
C00037=-40690,-13956,-27923,-15664,-94844,55964
C00038=-40590,-14321,-28188,-15741,-94757,55986
C00039=-40491,-14691,-28456,-15818,-94668,56008
C00040=-40393,-15067,-28728,-15897,-94576,56032
C00041=-40296,-15449,-29003,-15978,-94482,56056
C00042=-40201,-15836,-29281,-16060,-94385,56081
C00043=-40106,-16229,-29563,-16144,-94286,56106
C00044=-40012,-16627,-29848,-16229,-94184,56133
C00045=-39920,-17031,-30136,-16315,-94080,56160
C00046=-39828,-17441,-30428,-16403,-93974,56189
C00047=-39738,-17856,-30723,-16492,-93865,56218
C00048=-39649,-18276,-31021,-16583,-93754,56247
C00049=-39561,-18702,-31323,-16675,-93641,56278
C00050=-39473,-19134,-31627,-16768,-93526,56309
C00051=-39387,-19571,-31936,-16863,-93408,56341
C00052=-39302,-20014,-32247,-16959,-93288,56374
C00053=-39218,-20462,-32562,-17056,-93166,56408
C00054=-39135,-20916,-32880,-17155,-93041,56442
C00055=-39053,-21375,-33201,-17256,-92915,56477
C00056=-38971,-21840,-33526,-17357,-92786,56512
C00057=-38891,-22310,-33854,-17460,-92655,56549
C00058=-38812,-22786,-34185,-17564,-92522,56585
C00059=-38734,-23267,-34519,-17670,-92387,56623
C00060=-38656,-23753,-34856,-17777,-92250,56661
C00061=-38580,-24245,-35197,-17885,-92111,56700
C00062=-38504,-24741,-35540,-17995,-91970,56739
C00063=-38430,-25244,-35887,-18105,-91826,56779
C00064=-38356,-25751,-36237,-18217,-91681,56820
C00065=-38283,-26263,-36589,-18331,-91535,56861
C00066=-38211,-26781,-36945,-18445,-91386,56902
C00067=-38140,-27303,-37304,-18561,-91235,56944
C00068=-38069,-27831,-37665,-18678,-91083,56986
C00069=-38000,-28364,-38030,-18796,-90929,57029
C00070=-37931,-28901,-38397,-18916,-90773,57072
C00071=-37863,-29443,-38767,-19036,-90616,57116
C00072=-37795,-29990,-39140,-19158,-90457,57160
C00073=-37728,-30542,-39515,-19281,-90296,57204
C00074=-37662,-31098,-39893,-19405,-90134,57248
C00075=-37597,-31659,-40274,-19530,-89970,57293
C00076=-37532,-32224,-40657,-19656,-89805,57338
C00077=-37468,-32794,-41042,-19783,-89639,57383
C00078=-37404,-33368,-41430,-19911,-89471,57428
C00079=-37341,-33946,-41821,-20041,-89302,57473
C00080=-37278,-34528,-42213,-20171,-89132,57518
C00081=-37216,-35114,-42608,-20302,-88960,57563
C00082=-37154,-35704,-43005,-20434,-88788,57608
C00083=-37092,-36298,-43404,-20568,-88614,57653
C00084=-37031,-36895,-43805,-20702,-88439,57698
C00085=-36970,-37496,-44208,-20836,-88264,57743
C00086=-36910,-38100,-44612,-20972,-88087,57787
C00087=-36849,-38708,-45019,-21109,-87910,57831
C00088=-36789,-39319,-45427,-21246,-87731,57875
C00089=-36729,-39933,-45836,-21384,-87552,57918
C00090=-36670,-40550,-46247,-21523,-87373,57961
C00091=-36610,-41170,-46660,-21663,-87192,58004
C00092=-36550,-41792,-47073,-21803,-87011,58045
C00093=-36490,-42417,-47488,-21944,-86830,58086
C00094=-36430,-43045,-47904,-22085,-86648,58127
C00095=-36370,-43674,-48321,-22227,-86466,58167
C00096=-36310,-44306,-48739,-22369,-86283,58205
C00097=-36250,-44940,-49157,-22512,-86100,58243
C00098=-36189,-45575,-49576,-22656,-85917,58280
C00099=-36128,-46212,-49996,-22799,-85734,58316
C00100=-36067,-46851,-50416,-22943,-85550,58351
C00101=-36005,-47491,-50837,-23088,-85367,58384
C00102=-35943,-48132,-51257,-23232,-85183,58417
C00103=-35880,-48774,-51678,-23377,-85000,58448
C00104=-35817,-49417,-52099,-23522,-84816,58477
C00105=-35753,-50060,-52519,-23667,-84633,58505
C00106=-35688,-50704,-52939,-23812,-84450,58531
C00107=-35623,-51349,-53359,-23957,-84267,58556
C00108=-35557,-51993,-53779,-24102,-84084,58579
C00109=-35489,-52638,-54197,-24247,-83902,58600
C00110=-35421,-53282,-54615,-24392,-83720,58620
C00111=-35352,-53926,-55032,-24537,-83538,58637
C00112=-35282,-54569,-55448,-24682,-83357,58652
C00113=-35210,-55211,-55863,-24826,-83176,58665
C00114=-35138,-55853,-56276,-24970,-82996,58675
C00115=-35064,-56493,-56689,-25113,-82817,58684
C00116=-34989,-57132,-57099,-25256,-82638,58690
C00117=-34912,-57770,-57508,-25398,-82460,58693
C00118=-34834,-58405,-57915,-25540,-82282,58693
C00119=-34755,-59039,-58320,-25681,-82105,58691
C00120=-34673,-59671,-58723,-25822,-81929,58686
C00121=-34590,-60300,-59123,-25961,-81754,58678
C00122=-34506,-60927,-59522,-26100,-81580,58667
C00123=-34420,-61551,-59918,-26238,-81406,58653
C00124=-34331,-62172,-60311,-26375,-81233,58636
C00125=-34241,-62790,-60701,-26511,-81061,58615
C00126=-34149,-63405,-61089,-26646,-80890,58591
C00127=-34054,-64016,-61473,-26780,-80720,58563
C00128=-33958,-64623,-61854,-26912,-80551,58532
C00129=-33859,-65226,-62232,-27043,-80383,58497
C00130=-33758,-65825,-62606,-27173,-80215,58458
C00131=-33655,-66420,-62977,-27301,-80049,58415
C00132=-33549,-67010,-63344,-27427,-79884,58369
C00133=-33441,-67594,-63706,-27552,-79720,58318
C00134=-33330,-68174,-64065,-27676,-79556,58263
C00135=-33216,-68748,-64419,-27797,-79394,58203
C00136=-33099,-69317,-64769,-27916,-79233,58140
C00137=-32980,-69879,-65114,-28034,-79073,58072
C00138=-32858,-70436,-65455,-28149,-78914,57999
C00139=-32732,-70986,-65790,-28263,-78756,57921
C00140=-32604,-71529,-66121,-28374,-78600,57839
C00141=-32472,-72065,-66446,-28482,-78444,57752
C00142=-32338,-72594,-66765,-28588,-78290,57660
C00143=-32199,-73115,-67079,-28692,-78136,57563
C00144=-32058,-73628,-67387,-28792,-77984,57461
C00145=-31912,-74133,-67689,-28890,-77833,57354
C00146=-31764,-74630,-67985,-28985,-77683,57242
C00147=-31611,-75117,-68275,-29077,-77535,57124
C00148=-31455,-75596,-68557,-29165,-77388,57002
C00149=-31295,-76065,-68833,-29250,-77241,56873
C00150=-31130,-76524,-69102,-29332,-77097,56740
C00151=-30962,-76972,-69363,-29410,-76953,56600
C00152=-30790,-77410,-69617,-29484,-76811,56455
C00153=-30613,-77837,-69864,-29555,-76671,56305
C00154=-30432,-78253,-70102,-29621,-76531,56149
C00155=-30246,-78656,-70332,-29683,-76394,55987
C00156=-30057,-79047,-70553,-29741,-76258,55820
C00157=-29862,-79425,-70766,-29794,-76123,55647
C00158=-29663,-79790,-70969,-29842,-75990,55469
C00159=-29459,-80141,-71163,-29886,-75859,55284
C00160=-29250,-80478,-71348,-29924,-75730,55094
C00161=-29036,-80800,-71523,-29957,-75603,54899
C00162=-28817,-81107,-71687,-29985,-75478,54697
C00163=-28593,-81398,-71841,-30008,-75355,54490
C00164=-28364,-81673,-71984,-30024,-75234,54278
C00165=-28130,-81930,-72117,-30035,-75116,54059
C00166=-27890,-82171,-72238,-30040,-75001,53836
C00167=-27645,-82393,-72347,-30039,-74888,53606
C00168=-27395,-82597,-72444,-30031,-74777,53372
C00169=-27139,-82781,-72528,-30017,-74670,53132
C00170=-26877,-82945,-72600,-29996,-74567,52886
C00171=-26610,-83089,-72659,-29969,-74466,52636
C00172=-26338,-83211,-72704,-29934,-74370,52380
C00173=-26060,-83312,-72736,-29893,-74277,52120
C00174=-25777,-83390,-72753,-29845,-74188,51855
C00175=-25488,-83445,-72756,-29789,-74104,51585
C00176=-25194,-83476,-72744,-29726,-74024,51310
C00177=-24894,-83482,-72716,-29656,-73950,51032
C00178=-24589,-83463,-72673,-29579,-73880,50748
C00179=-24279,-83418,-72615,-29494,-73817,50461
C00180=-23964,-83346,-72540,-29402,-73759,50170
C00181=-23643,-83248,-72448,-29302,-73707,49876
C00182=-23318,-83121,-72339,-29195,-73662,49577
C00183=-22988,-82966,-72213,-29081,-73623,49276
C00184=-22653,-82781,-72070,-28960,-73592,48971
C00185=-22314,-82567,-71909,-28832,-73569,48663
C00186=-21970,-82322,-71729,-28696,-73554,48353
C00187=-21622,-82046,-71531,-28554,-73547,48040
C00188=-21270,-81739,-71314,-28405,-73549,47724
C00189=-20915,-81400,-71079,-28250,-73560,47407
C00190=-20555,-81028,-70824,-28088,-73580,47088
C00191=-20193,-80624,-70549,-27921,-73611,46767
C00192=-19828,-80185,-70255,-27747,-73652,46445
C00193=-19460,-79714,-69942,-27568,-73704,46121
C00194=-19089,-79208,-69608,-27384,-73767,45797
C00195=-18717,-78667,-69254,-27196,-73841,45472
C00196=-18342,-78092,-68880,-27002,-73928,45146
C00197=-17966,-77482,-68486,-26805,-74026,44820
C00198=-17589,-76837,-68071,-26604,-74138,44495
C00199=-17210,-76157,-67637,-26400,-74262,44169
C00200=-16831,-75442,-67182,-26193,-74400,43844
C00201=-16452,-74691,-66707,-25983,-74551,43519
C00202=-16073,-73906,-66211,-25772,-74716,43196
C00203=-15694,-73086,-65696,-25559,-74895,42873
C00204=-15316,-72231,-65161,-25345,-75089,42552
C00205=-14939,-71342,-64607,-25130,-75297,42233
C00206=-14564,-70418,-64033,-24916,-75520,41915
C00207=-14190,-69461,-63440,-24702,-75757,41599
C00208=-13818,-68471,-62829,-24489,-76010,41285
C00209=-13448,-67449,-62199,-24277,-76277,40974
C00210=-13081,-66394,-61552,-24067,-76559,40664
C00211=-12717,-65309,-60887,-23859,-76857,40358
C00212=-12356,-64193,-60205,-23655,-77169,40055
C00213=-11998,-63048,-59508,-23453,-77496,39754
C00214=-11645,-61874,-58794,-23256,-77838,39457
C00215=-11295,-60673,-58066,-23062,-78194,39163
C00216=-10949,-59446,-57324,-22873,-78564,38872
C00217=-10608,-58193,-56569,-22689,-78948,38585
C00218=-10271,-56916,-55801,-22510,-79345,38302
C00219=-9939,-55618,-55021,-22337,-79756,38023
C00220=-9612,-54298,-54231,-22170,-80179,37748
C00221=-9290,-52959,-53432,-22010,-80615,37477
C00222=-8973,-51602,-52623,-21856,-81062,37211
C00223=-8662,-50228,-51807,-21709,-81520,36949
C00224=-8356,-48840,-50985,-21569,-81988,36692
C00225=-8056,-47438,-50157,-21437,-82467,36439
C00226=-7761,-46025,-49324,-21312,-82954,36192
C00227=-7472,-44603,-48489,-21195,-83450,35949
C00228=-7189,-43174,-47651,-21085,-83954,35712
C00229=-6911,-41738,-46812,-20984,-84465,35480
C00230=-6639,-40297,-45974,-20891,-84982,35254
C00231=-6373,-38854,-45136,-20806,-85504,35033
C00232=-6112,-37410,-44301,-20729,-86031,34819
C00233=-5857,-35968,-43470,-20660,-86562,34610
C00234=-5608,-34529,-42644,-20599,-87095,34408
C00235=-5364,-33095,-41823,-20547,-87631,34213
C00236=-5126,-31667,-41009,-20503,-88168,34024
C00237=-4893,-30247,-40202,-20467,-88706,33842
C00238=-4665,-28836,-39404,-20439,-89244,33667
C00239=-4442,-27436,-38615,-20419,-89782,33499
C00240=-4224,-26048,-37837,-20407,-90318,33340
C00241=-4012,-24674,-37069,-20403,-90852,33188
C00242=-3804,-23314,-36313,-20407,-91383,33044
C00243=-3601,-21969,-35569,-20418,-91912,32908
C00244=-3402,-20642,-34838,-20436,-92437,32782
C00245=-3208,-19334,-34121,-20462,-92957,32664
C00246=-3018,-18045,-33417,-20496,-93472,32556
C00247=-2832,-16775,-32728,-20536,-93983,32457
C00248=-2651,-15526,-32054,-20583,-94488,32369
C00249=-2473,-14299,-31395,-20637,-94987,32290
C00250=-2299,-13094,-30751,-20698,-95480,32222
C00251=-2129,-11912,-30123,-20765,-95966,32165
C00252=-1962,-10753,-29510,-20839,-96446,32120
C00253=-1799,-9617,-28914,-20919,-96918,32086
C00254=-1638,-8506,-28333,-21004,-97384,32063
C00255=-1481,-7419,-27768,-21096,-97842,32053
C00256=-1327,-6356,-27220,-21193,-98294,32056
C00257=-1175,-5319,-26687,-21295,-98737,32071
C00258=-1026,-4306,-26170,-21403,-99174,32100
C00259=-880,-3319,-25669,-21516,-99603,32142
C00260=-736,-2357,-25184,-21633,-100024,32198
C00261=-593,-1421,-24715,-21755,-100438,32268
C00262=-453,-510,-24261,-21881,-100844,32352
C00263=-314,374,-23823,-22011,-101243,32451
C00264=-177,1233,-23400,-22145,-101634,32564
C00265=-41,2066,-22992,-22281,-102018,32692
C00266=93,2872,-22600,-22421,-102394,32835
C00267=227,3652,-22222,-22563,-102762,32994
C00268=361,4405,-21860,-22707,-103123,33167
C00269=493,5130,-21512,-22853,-103475,33355
C00270=626,5829,-21179,-23000,-103819,33558
C00271=759,6499,-20860,-23147,-104155,33776
C00272=892,7141,-20557,-23294,-104483,34008
C00273=1025,7754,-20268,-23441,-104801,34255
C00274=1159,8338,-19993,-23587,-105111,34516
C00275=1295,8891,-19734,-23731,-105410,34790
C00276=1431,9413,-19489,-23872,-105699,35077
C00277=1569,9904,-19259,-24010,-105978,35376
C00278=1709,10361,-19045,-24145,-106245,35686
C00279=1850,10785,-18846,-24275,-106500,36007
C00280=1993,11174,-18663,-24401,-106741,36338
C00281=2139,11527,-18496,-24520,-106969,36678
C00282=2286,11842,-18345,-24634,-107183,37026
C00283=2437,12120,-18211,-24741,-107381,37381
C00284=2589,12358,-18094,-24841,-107562,37741
C00285=2745,12555,-17994,-24933,-107727,38107
C00286=2903,12711,-17913,-25017,-107873,38476
C00287=3063,12823,-17850,-25093,-107999,38848
C00288=3226,12890,-17807,-25160,-108105,39221
C00289=3392,12911,-17784,-25218,-108189,39594
C00290=3560,12885,-17781,-25267,-108251,39966
C00291=3731,12811,-17799,-25308,-108289,40336
C00292=3904,12687,-17839,-25339,-108303,40703
C00293=4079,12513,-17901,-25361,-108292,41066
C00294=4257,12287,-17987,-25373,-108255,41425
C00295=4437,12009,-18097,-25377,-108191,41778
C00296=4618,11678,-18231,-25373,-108100,42125
C00297=4802,11292,-18390,-25359,-107981,42465
C00298=4988,10851,-18576,-25338,-107832,42797
C00299=5176,10355,-18788,-25308,-107655,43122
C00300=5366,9803,-19028,-25271,-107449,43438
C00301=5557,9194,-19296,-25226,-107212,43746
C00302=5751,8528,-19592,-25174,-106945,44045
C00303=5947,7804,-19919,-25115,-106647,44335
C00304=6145,7023,-20275,-25049,-106320,44616
C00305=6344,6184,-20662,-24978,-105961,44888
C00306=6547,5286,-21081,-24900,-105572,45150
C00307=6752,4331,-21532,-24817,-105152,45403
C00308=6959,3318,-22015,-24728,-104701,45646
C00309=7169,2248,-22530,-24634,-104221,45881
C00310=7382,1120,-23079,-24536,-103710,46106
C00311=7599,-64,-23662,-24433,-103170,46322
C00312=7818,-1304,-24278,-24325,-102600,46528
C00313=8042,-2599,-24928,-24214,-102003,46726
C00314=8270,-3948,-25612,-24099,-101377,46915
C00315=8501,-5349,-26328,-23981,-100725,47095
C00316=8738,-6802,-27078,-23859,-100046,47266
C00317=8979,-8303,-27861,-23735,-99342,47428
C00318=9225,-9852,-28675,-23607,-98614,47582
C00319=9476,-11447,-29521,-23477,-97863,47726
C00320=9733,-13083,-30396,-23345,-97090,47862
C00321=9995,-14760,-31301,-23210,-96298,47988
C00322=10264,-16475,-32233,-23073,-95486,48105
C00323=10539,-18223,-33192,-22934,-94657,48213
C00324=10819,-20003,-34174,-22794,-93812,48311
C00325=11107,-21811,-35180,-22651,-92953,48399
C00326=11401,-23643,-36206,-22508,-92082,48476
C00327=11701,-25496,-37251,-22363,-91199,48543
C00328=12008,-27365,-38313,-22216,-90308,48599
C00329=12321,-29248,-39389,-22069,-89410,48643
C00330=12641,-31141,-40478,-21920,-88506,48676
C00331=12967,-33040,-41576,-21771,-87598,48695
C00332=13299,-34941,-42683,-21621,-86687,48702
C00333=13638,-36842,-43795,-21470,-85775,48695
C00334=13982,-38738,-44910,-21319,-84863,48674
C00335=14331,-40626,-46027,-21168,-83953,48637
C00336=14686,-42504,-47142,-21016,-83046,48585
C00337=15045,-44367,-48255,-20865,-82143,48517
C00338=15409,-46214,-49363,-20713,-81245,48432
C00339=15776,-48042,-50465,-20563,-80353,48328
C00340=16147,-49849,-51558,-20412,-79468,48206
C00341=16522,-51631,-52642,-20263,-78589,48065
C00342=16899,-53388,-53715,-20114,-77719,47903
C00343=17278,-55118,-54775,-19967,-76856,47720
C00344=17659,-56819,-55822,-19821,-76002,47514
C00345=18042,-58490,-56854,-19676,-75156,47286
C00346=18426,-60129,-57870,-19532,-74318,47034
C00347=18811,-61735,-58870,-19390,-73490,46757
C00348=19197,-63307,-59852,-19249,-72669,46453
C00349=19583,-64844,-60816,-19108,-71857,46123
C00350=19969,-66346,-61761,-18968,-71053,45765
C00351=20356,-67809,-62685,-18828,-70258,45379
C00352=20743,-69235,-63588,-18688,-69470,44962
C00353=21131,-70621,-64469,-18545,-68690,44514
C00354=21519,-71965,-65326,-18401,-67918,44036
C00355=21908,-73266,-66158,-18252,-67155,43525
C00356=22299,-74520,-66964,-18099,-66400,42981
C00357=22691,-75727,-67741,-17939,-65655,42405
C00358=23085,-76882,-68488,-17770,-64921,41795
C00359=23480,-77983,-69202,-17592,-64198,41154
C00360=23879,-79024,-69880,-17403,-63488,40480
C00361=24280,-80002,-70519,-17200,-62793,39775
C00362=24683,-80911,-71116,-16983,-62117,39041
C00363=25088,-81746,-71668,-16750,-61460,38280
C00364=25495,-82502,-72170,-16501,-60827,37494
C00365=25902,-83171,-72620,-16236,-60221,36688
C00366=26307,-83750,-73012,-15956,-59646,35864
C00367=26711,-84231,-73343,-15662,-59105,35026
C00368=27110,-84611,-73611,-15355,-58601,34179
C00369=27502,-84883,-73811,-15040,-58139,33328
C00370=27885,-85043,-73941,-14719,-57722,32479
C00371=28255,-85088,-73997,-14396,-57355,31635
C00372=28611,-85015,-73979,-14078,-57038,30802
C00373=28948,-84823,-73885,-13767,-56776,29986
C00374=29265,-84510,-73713,-13471,-56570,29191
C00375=29558,-84076,-73464,-13194,-56423,28421
C00376=29825,-83523,-73137,-12940,-56334,27679
C00377=30065,-82852,-72734,-12715,-56305,26969
C00378=30275,-82064,-72254,-12522,-56336,26293
C00379=30455,-81163,-71701,-12364,-56427,25654
C00380=30603,-80152,-71074,-12244,-56578,25052
C00381=30720,-79033,-70376,-12164,-56788,24488
C00382=30804,-77811,-69609,-12125,-57056,23962
C00383=30856,-76489,-68775,-12127,-57381,23475
C00384=30877,-75071,-67878,-12171,-57762,23024
C00385=30868,-73562,-66918,-12255,-58198,22610
C00386=30829,-71964,-65899,-12378,-58687,22231
C00387=30762,-70282,-64825,-12539,-59227,21886
C00388=30668,-68521,-63697,-12735,-59817,21572
C00389=30550,-66685,-62518,-12964,-60456,21287
C00390=30409,-64777,-61294,-13224,-61140,21030
C00391=30247,-62803,-60025,-13512,-61868,20798
C00392=30066,-60768,-58716,-13825,-62638,20589
C00393=29868,-58675,-57371,-14160,-63447,20402
C00394=29656,-56531,-55994,-14515,-64293,20234
C00395=29431,-54341,-54588,-14887,-65171,20084
C00396=29197,-52111,-53158,-15274,-66081,19949
C00397=28954,-49844,-51708,-15673,-67018,19829
C00398=28704,-47549,-50242,-16082,-67980,19722
C00399=28451,-45231,-48766,-16500,-68962,19627
C00400=28195,-42895,-47282,-16925,-69962,19543
C00401=27939,-40547,-45795,-17354,-70976,19469
C00402=27684,-38195,-44311,-17787,-72001,19406
C00403=22112,41795,1583,-35279,-109257,13680
//INST
///DATE 2023/04/04 17:37
///ATTR SC,RW
///GROUP1 RB1
NOP
MOVJ C00000 VJ=5.0
TIMER T=1.00
MOVJ C00001 VJ=1.0
TIMER T=0.10
MOVL C00002 V=67.5 PL=8
MOVL C00003 V=67.5 PL=8
MOVL C00004 V=67.5 PL=8
MOVL C00005 V=67.5 PL=8
MOVL C00006 V=67.5 PL=8
MOVL C00007 V=67.5 PL=8
MOVL C00008 V=67.5 PL=8
MOVL C00009 V=67.5 PL=8
MOVL C00010 V=67.5 PL=8
MOVL C00011 V=67.5 PL=8
MOVL C00012 V=67.5 PL=8
MOVL C00013 V=67.5 PL=8
MOVL C00014 V=67.5 PL=8
MOVL C00015 V=67.5 PL=8
MOVL C00016 V=67.5 PL=8
MOVL C00017 V=67.5 PL=8
MOVL C00018 V=67.5 PL=8
MOVL C00019 V=67.5 PL=8
MOVL C00020 V=67.5 PL=8
MOVL C00021 V=67.5 PL=8
MOVL C00022 V=67.5 PL=8
MOVL C00023 V=67.5 PL=8
MOVL C00024 V=67.5 PL=8
MOVL C00025 V=67.5 PL=8
MOVL C00026 V=67.5 PL=8
MOVL C00027 V=67.5 PL=8
MOVL C00028 V=67.5 PL=8
MOVL C00029 V=67.5 PL=8
MOVL C00030 V=67.5 PL=8
MOVL C00031 V=67.5 PL=8
MOVL C00032 V=67.5 PL=8
MOVL C00033 V=67.5 PL=8
MOVL C00034 V=67.5 PL=8
MOVL C00035 V=67.5 PL=8
MOVL C00036 V=67.5 PL=8
MOVL C00037 V=67.5 PL=8
MOVL C00038 V=67.5 PL=8
MOVL C00039 V=67.5 PL=8
MOVL C00040 V=67.5 PL=8
MOVL C00041 V=67.5 PL=8
MOVL C00042 V=67.5 PL=8
MOVL C00043 V=67.5 PL=8
MOVL C00044 V=67.5 PL=8
MOVL C00045 V=67.5 PL=8
MOVL C00046 V=67.5 PL=8
MOVL C00047 V=67.5 PL=8
MOVL C00048 V=67.5 PL=8
MOVL C00049 V=67.5 PL=8
MOVL C00050 V=67.5 PL=8
MOVL C00051 V=67.5 PL=8
MOVL C00052 V=67.5 PL=8
MOVL C00053 V=67.5 PL=8
MOVL C00054 V=67.5 PL=8
MOVL C00055 V=67.5 PL=8
MOVL C00056 V=67.5 PL=8
MOVL C00057 V=67.5 PL=8
MOVL C00058 V=67.5 PL=8
MOVL C00059 V=67.5 PL=8
MOVL C00060 V=67.5 PL=8
MOVL C00061 V=67.5 PL=8
MOVL C00062 V=67.5 PL=8
MOVL C00063 V=67.5 PL=8
MOVL C00064 V=67.5 PL=8
MOVL C00065 V=67.5 PL=8
MOVL C00066 V=67.5 PL=8
MOVL C00067 V=67.5 PL=8
MOVL C00068 V=67.5 PL=8
MOVL C00069 V=67.5 PL=8
MOVL C00070 V=67.5 PL=8
MOVL C00071 V=67.5 PL=8
MOVL C00072 V=67.5 PL=8
MOVL C00073 V=67.5 PL=8
MOVL C00074 V=67.5 PL=8
MOVL C00075 V=67.5 PL=8
MOVL C00076 V=67.5 PL=8
MOVL C00077 V=67.5 PL=8
MOVL C00078 V=67.5 PL=8
MOVL C00079 V=67.5 PL=8
MOVL C00080 V=67.5 PL=8
MOVL C00081 V=67.5 PL=8
MOVL C00082 V=67.5 PL=8
MOVL C00083 V=67.5 PL=8
MOVL C00084 V=67.5 PL=8
MOVL C00085 V=67.5 PL=8
MOVL C00086 V=67.5 PL=8
MOVL C00087 V=67.5 PL=8
MOVL C00088 V=67.5 PL=8
MOVL C00089 V=67.5 PL=8
MOVL C00090 V=67.5 PL=8
MOVL C00091 V=67.5 PL=8
MOVL C00092 V=67.5 PL=8
MOVL C00093 V=67.5 PL=8
MOVL C00094 V=67.5 PL=8
MOVL C00095 V=67.5 PL=8
MOVL C00096 V=67.5 PL=8
MOVL C00097 V=67.5 PL=8
MOVL C00098 V=67.5 PL=8
MOVL C00099 V=67.5 PL=8
MOVL C00100 V=67.5 PL=8
MOVL C00101 V=67.5 PL=8
MOVL C00102 V=67.5 PL=8
MOVL C00103 V=67.5 PL=8
MOVL C00104 V=67.5 PL=8
MOVL C00105 V=67.5 PL=8
MOVL C00106 V=67.5 PL=8
MOVL C00107 V=67.5 PL=8
MOVL C00108 V=67.5 PL=8
MOVL C00109 V=67.5 PL=8
MOVL C00110 V=67.5 PL=8
MOVL C00111 V=67.5 PL=8
MOVL C00112 V=67.5 PL=8
MOVL C00113 V=67.5 PL=8
MOVL C00114 V=67.5 PL=8
MOVL C00115 V=67.5 PL=8
MOVL C00116 V=67.5 PL=8
MOVL C00117 V=67.5 PL=8
MOVL C00118 V=67.5 PL=8
MOVL C00119 V=67.5 PL=8
MOVL C00120 V=67.5 PL=8
MOVL C00121 V=67.5 PL=8
MOVL C00122 V=67.5 PL=8
MOVL C00123 V=67.5 PL=8
MOVL C00124 V=67.5 PL=8
MOVL C00125 V=67.5 PL=8
MOVL C00126 V=67.5 PL=8
MOVL C00127 V=67.5 PL=8
MOVL C00128 V=67.5 PL=8
MOVL C00129 V=67.5 PL=8
MOVL C00130 V=67.5 PL=8
MOVL C00131 V=67.5 PL=8
MOVL C00132 V=67.5 PL=8
MOVL C00133 V=67.5 PL=8
MOVL C00134 V=67.5 PL=8
MOVL C00135 V=67.5 PL=8
MOVL C00136 V=67.5 PL=8
MOVL C00137 V=67.5 PL=8
MOVL C00138 V=67.5 PL=8
MOVL C00139 V=67.5 PL=8
MOVL C00140 V=67.5 PL=8
MOVL C00141 V=67.5 PL=8
MOVL C00142 V=67.5 PL=8
MOVL C00143 V=67.5 PL=8
MOVL C00144 V=67.5 PL=8
MOVL C00145 V=67.5 PL=8
MOVL C00146 V=67.5 PL=8
MOVL C00147 V=67.5 PL=8
MOVL C00148 V=67.5 PL=8
MOVL C00149 V=67.5 PL=8
MOVL C00150 V=67.5 PL=8
MOVL C00151 V=67.5 PL=8
MOVL C00152 V=67.5 PL=8
MOVL C00153 V=67.5 PL=8
MOVL C00154 V=67.5 PL=8
MOVL C00155 V=67.5 PL=8
MOVL C00156 V=67.5 PL=8
MOVL C00157 V=67.5 PL=8
MOVL C00158 V=67.5 PL=8
MOVL C00159 V=67.5 PL=8
MOVL C00160 V=67.5 PL=8
MOVL C00161 V=67.5 PL=8
MOVL C00162 V=67.5 PL=8
MOVL C00163 V=67.5 PL=8
MOVL C00164 V=67.5 PL=8
MOVL C00165 V=67.5 PL=8
MOVL C00166 V=67.5 PL=8
MOVL C00167 V=67.5 PL=8
MOVL C00168 V=67.5 PL=8
MOVL C00169 V=67.5 PL=8
MOVL C00170 V=67.5 PL=8
MOVL C00171 V=67.5 PL=8
MOVL C00172 V=67.5 PL=8
MOVL C00173 V=67.5 PL=8
MOVL C00174 V=67.5 PL=8
MOVL C00175 V=67.5 PL=8
MOVL C00176 V=67.5 PL=8
MOVL C00177 V=67.5 PL=8
MOVL C00178 V=67.5 PL=8
MOVL C00179 V=67.5 PL=8
MOVL C00180 V=67.5 PL=8
MOVL C00181 V=67.5 PL=8
MOVL C00182 V=67.5 PL=8
MOVL C00183 V=67.5 PL=8
MOVL C00184 V=67.5 PL=8
MOVL C00185 V=67.5 PL=8
MOVL C00186 V=67.5 PL=8
MOVL C00187 V=67.5 PL=8
MOVL C00188 V=67.5 PL=8
MOVL C00189 V=67.5 PL=8
MOVL C00190 V=67.5 PL=8
MOVL C00191 V=67.5 PL=8
MOVL C00192 V=67.5 PL=8
MOVL C00193 V=67.5 PL=8
MOVL C00194 V=67.5 PL=8
MOVL C00195 V=67.5 PL=8
MOVL C00196 V=67.5 PL=8
MOVL C00197 V=67.5 PL=8
MOVL C00198 V=67.5 PL=8
MOVL C00199 V=67.5 PL=8
MOVL C00200 V=67.5 PL=8
MOVL C00201 V=67.5 PL=8
MOVL C00202 V=67.5 PL=8
MOVL C00203 V=67.5 PL=8
MOVL C00204 V=67.5 PL=8
MOVL C00205 V=67.5 PL=8
MOVL C00206 V=67.5 PL=8
MOVL C00207 V=67.5 PL=8
MOVL C00208 V=67.5 PL=8
MOVL C00209 V=67.5 PL=8
MOVL C00210 V=67.5 PL=8
MOVL C00211 V=67.5 PL=8
MOVL C00212 V=67.5 PL=8
MOVL C00213 V=67.5 PL=8
MOVL C00214 V=67.5 PL=8
MOVL C00215 V=67.5 PL=8
MOVL C00216 V=67.5 PL=8
MOVL C00217 V=67.5 PL=8
MOVL C00218 V=67.5 PL=8
MOVL C00219 V=67.5 PL=8
MOVL C00220 V=67.5 PL=8
MOVL C00221 V=67.5 PL=8
MOVL C00222 V=67.5 PL=8
MOVL C00223 V=67.5 PL=8
MOVL C00224 V=67.5 PL=8
MOVL C00225 V=67.5 PL=8
MOVL C00226 V=67.5 PL=8
MOVL C00227 V=67.5 PL=8
MOVL C00228 V=67.5 PL=8
MOVL C00229 V=67.5 PL=8
MOVL C00230 V=67.5 PL=8
MOVL C00231 V=67.5 PL=8
MOVL C00232 V=67.5 PL=8
MOVL C00233 V=67.5 PL=8
MOVL C00234 V=67.5 PL=8
MOVL C00235 V=67.5 PL=8
MOVL C00236 V=67.5 PL=8
MOVL C00237 V=67.5 PL=8
MOVL C00238 V=67.5 PL=8
MOVL C00239 V=67.5 PL=8
MOVL C00240 V=67.5 PL=8
MOVL C00241 V=67.5 PL=8
MOVL C00242 V=67.5 PL=8
MOVL C00243 V=67.5 PL=8
MOVL C00244 V=67.5 PL=8
MOVL C00245 V=67.5 PL=8
MOVL C00246 V=67.5 PL=8
MOVL C00247 V=67.5 PL=8
MOVL C00248 V=67.5 PL=8
MOVL C00249 V=67.5 PL=8
MOVL C00250 V=67.5 PL=8
MOVL C00251 V=67.5 PL=8
MOVL C00252 V=67.5 PL=8
MOVL C00253 V=67.5 PL=8
MOVL C00254 V=67.5 PL=8
MOVL C00255 V=67.5 PL=8
MOVL C00256 V=67.5 PL=8
MOVL C00257 V=67.5 PL=8
MOVL C00258 V=67.5 PL=8
MOVL C00259 V=67.5 PL=8
MOVL C00260 V=67.5 PL=8
MOVL C00261 V=67.5 PL=8
MOVL C00262 V=67.5 PL=8
MOVL C00263 V=67.5 PL=8
MOVL C00264 V=67.5 PL=8
MOVL C00265 V=67.5 PL=8
MOVL C00266 V=67.5 PL=8
MOVL C00267 V=67.5 PL=8
MOVL C00268 V=67.5 PL=8
MOVL C00269 V=67.5 PL=8
MOVL C00270 V=67.5 PL=8
MOVL C00271 V=67.5 PL=8
MOVL C00272 V=67.5 PL=8
MOVL C00273 V=67.5 PL=8
MOVL C00274 V=67.5 PL=8
MOVL C00275 V=67.5 PL=8
MOVL C00276 V=67.5 PL=8
MOVL C00277 V=67.5 PL=8
MOVL C00278 V=67.5 PL=8
MOVL C00279 V=67.5 PL=8
MOVL C00280 V=67.5 PL=8
MOVL C00281 V=67.5 PL=8
MOVL C00282 V=67.5 PL=8
MOVL C00283 V=67.5 PL=8
MOVL C00284 V=67.5 PL=8
MOVL C00285 V=67.5 PL=8
MOVL C00286 V=67.5 PL=8
MOVL C00287 V=67.5 PL=8
MOVL C00288 V=67.5 PL=8
MOVL C00289 V=67.5 PL=8
MOVL C00290 V=67.5 PL=8
MOVL C00291 V=67.5 PL=8
MOVL C00292 V=67.5 PL=8
MOVL C00293 V=67.5 PL=8
MOVL C00294 V=67.5 PL=8
MOVL C00295 V=67.5 PL=8
MOVL C00296 V=67.5 PL=8
MOVL C00297 V=67.5 PL=8
MOVL C00298 V=67.5 PL=8
MOVL C00299 V=67.5 PL=8
MOVL C00300 V=67.5 PL=8
MOVL C00301 V=67.5 PL=8
MOVL C00302 V=67.5 PL=8
MOVL C00303 V=67.5 PL=8
MOVL C00304 V=67.5 PL=8
MOVL C00305 V=67.5 PL=8
MOVL C00306 V=67.5 PL=8
MOVL C00307 V=67.5 PL=8
MOVL C00308 V=67.5 PL=8
MOVL C00309 V=67.5 PL=8
MOVL C00310 V=67.5 PL=8
MOVL C00311 V=67.5 PL=8
MOVL C00312 V=67.5 PL=8
MOVL C00313 V=67.5 PL=8
MOVL C00314 V=67.5 PL=8
MOVL C00315 V=67.5 PL=8
MOVL C00316 V=67.5 PL=8
MOVL C00317 V=67.5 PL=8
MOVL C00318 V=67.5 PL=8
MOVL C00319 V=67.5 PL=8
MOVL C00320 V=67.5 PL=8
MOVL C00321 V=67.5 PL=8
MOVL C00322 V=67.5 PL=8
MOVL C00323 V=67.5 PL=8
MOVL C00324 V=67.5 PL=8
MOVL C00325 V=67.5 PL=8
MOVL C00326 V=67.5 PL=8
MOVL C00327 V=67.5 PL=8
MOVL C00328 V=67.5 PL=8
MOVL C00329 V=67.5 PL=8
MOVL C00330 V=67.5 PL=8
MOVL C00331 V=67.5 PL=8
MOVL C00332 V=67.5 PL=8
MOVL C00333 V=67.5 PL=8
MOVL C00334 V=67.5 PL=8
MOVL C00335 V=67.5 PL=8
MOVL C00336 V=67.5 PL=8
MOVL C00337 V=67.5 PL=8
MOVL C00338 V=67.5 PL=8
MOVL C00339 V=67.5 PL=8
MOVL C00340 V=67.5 PL=8
MOVL C00341 V=67.5 PL=8
MOVL C00342 V=67.5 PL=8
MOVL C00343 V=67.5 PL=8
MOVL C00344 V=67.5 PL=8
MOVL C00345 V=67.5 PL=8
MOVL C00346 V=67.5 PL=8
MOVL C00347 V=67.5 PL=8
MOVL C00348 V=67.5 PL=8
MOVL C00349 V=67.5 PL=8
MOVL C00350 V=67.5 PL=8
MOVL C00351 V=67.5 PL=8
MOVL C00352 V=67.5 PL=8
MOVL C00353 V=67.5 PL=8
MOVL C00354 V=67.5 PL=8
MOVL C00355 V=67.5 PL=8
MOVL C00356 V=67.5 PL=8
MOVL C00357 V=67.5 PL=8
MOVL C00358 V=67.5 PL=8
MOVL C00359 V=67.5 PL=8
MOVL C00360 V=67.5 PL=8
MOVL C00361 V=67.5 PL=8
MOVL C00362 V=67.5 PL=8
MOVL C00363 V=67.5 PL=8
MOVL C00364 V=67.5 PL=8
MOVL C00365 V=67.5 PL=8
MOVL C00366 V=67.5 PL=8
MOVL C00367 V=67.5 PL=8
MOVL C00368 V=67.5 PL=8
MOVL C00369 V=67.5 PL=8
MOVL C00370 V=67.5 PL=8
MOVL C00371 V=67.5 PL=8
MOVL C00372 V=67.5 PL=8
MOVL C00373 V=67.5 PL=8
MOVL C00374 V=67.5 PL=8
MOVL C00375 V=67.5 PL=8
MOVL C00376 V=67.5 PL=8
MOVL C00377 V=67.5 PL=8
MOVL C00378 V=67.5 PL=8
MOVL C00379 V=67.5 PL=8
MOVL C00380 V=67.5 PL=8
MOVL C00381 V=67.5 PL=8
MOVL C00382 V=67.5 PL=8
MOVL C00383 V=67.5 PL=8
MOVL C00384 V=67.5 PL=8
MOVL C00385 V=67.5 PL=8
MOVL C00386 V=67.5 PL=8
MOVL C00387 V=67.5 PL=8
MOVL C00388 V=67.5 PL=8
MOVL C00389 V=67.5 PL=8
MOVL C00390 V=67.5 PL=8
MOVL C00391 V=67.5 PL=8
MOVL C00392 V=67.5 PL=8
MOVL C00393 V=67.5 PL=8
MOVL C00394 V=67.5 PL=8
MOVL C00395 V=67.5 PL=8
MOVL C00396 V=67.5 PL=8
MOVL C00397 V=67.5 PL=8
MOVL C00398 V=67.5 PL=8
MOVL C00399 V=67.5 PL=8
MOVL C00400 V=67.5 PL=8
MOVL C00401 V=67.5 PL=8
MOVL C00402 V=67.5 PL=8
MOVL C00403 V=67.5 PL=8
END
