/JOB
//NAME AAA
//POS
///NPOS 104,0,0,0,0,0
///TOOL 11
///POSTYPE PULSE
///PULSE
C00000=-68488,-24165,-35106,-11896,-66737,76331
C00001=-68488,-24165,-35106,-11896,-66737,76331
C00002=-69497,-30256,-42569,-18909,-69401,74527
C00003=-69703,-31406,-44011,-20161,-69807,74222
C00004=-69547,-32276,-45094,-20883,-70340,73613
C00005=-69226,-32989,-45983,-21392,-70938,72872
C00006=-68846,-33622,-46777,-21857,-71566,72090
C00007=-68453,-34220,-47530,-22348,-72204,71309
C00008=-68060,-34801,-48260,-22885,-72841,70541
C00009=-67662,-35372,-48971,-23459,-73472,69786
C00010=-67253,-35929,-49659,-24058,-74095,69041
C00011=-66824,-36471,-50318,-24670,-74711,68304
C00012=-66371,-36997,-50947,-25288,-75317,67573
C00013=-65893,-37511,-51548,-25909,-75909,66850
C00014=-65391,-38018,-52126,-26534,-76485,66139
C00015=-64865,-38528,-52686,-27164,-77040,65442
C00016=-64317,-39048,-53235,-27798,-77568,64761
C00017=-63746,-39583,-53774,-28435,-78069,64097
C00018=-63150,-40135,-54304,-29072,-78539,63450
C00019=-62527,-40703,-54823,-29705,-78980,62818
C00020=-61874,-41281,-55325,-30328,-79392,62200
C00021=-61187,-41863,-55803,-30935,-79777,61593
C00022=-60463,-42440,-56252,-31523,-80137,60996
C00023=-59702,-43004,-56664,-32085,-80477,60405
C00024=-58900,-43548,-57034,-32621,-80797,59821
C00025=-58058,-44063,-57358,-33128,-81099,59241
C00026=-57175,-44547,-57633,-33604,-81386,58667
C00027=-56253,-44994,-57858,-34051,-81658,58097
C00028=-55293,-45402,-58033,-34469,-81915,57532
C00029=-54296,-45769,-58156,-34858,-82159,56973
C00030=-53264,-46094,-58228,-35219,-82390,56419
C00031=-52197,-46375,-58250,-35552,-82608,55872
C00032=-51098,-46612,-58223,-35858,-82814,55330
C00033=-49966,-46803,-58145,-36137,-83008,54794
C00034=-48804,-46947,-58018,-36390,-83191,54265
C00035=-47612,-47042,-57842,-36616,-83364,53743
C00036=-46392,-47090,-57618,-36816,-83527,53227
C00037=-45144,-47090,-57347,-36990,-83681,52718
C00038=-43870,-47042,-57030,-37139,-83825,52216
C00039=-42571,-46949,-56668,-37261,-83960,51722
C00040=-41247,-46811,-56264,-37358,-84087,51235
C00041=-39898,-46628,-55817,-37428,-84204,50756
C00042=-38526,-46401,-55329,-37470,-84315,50284
C00043=-37130,-46128,-54799,-37484,-84418,49819
C00044=-35709,-45808,-54225,-37469,-84517,49362
C00045=-34264,-45438,-53608,-37422,-84613,48911
C00046=-32795,-45014,-52944,-37343,-84708,48466
C00047=-31300,-44532,-52231,-37229,-84805,48027
C00048=-29780,-43989,-51468,-37080,-84907,47593
C00049=-28233,-43383,-50654,-36893,-85016,47164
C00050=-26660,-42711,-49787,-36667,-85134,46740
C00051=-25060,-41974,-48868,-36402,-85263,46321
C00052=-23432,-41172,-47899,-36095,-85403,45907
C00053=-21777,-40309,-46880,-35747,-85556,45497
C00054=-20094,-39388,-45814,-35354,-85720,45092
C00055=-18381,-38410,-44704,-34917,-85896,44693
C00056=-16637,-37378,-43551,-34434,-86085,44298
C00057=-14863,-36294,-42357,-33901,-86287,43909
C00058=-13055,-35157,-41122,-33319,-86505,43524
C00059=-11214,-33965,-39846,-32684,-86740,43143
C00060=-9337,-32714,-38529,-31994,-86996,42766
C00061=-7424,-31401,-37171,-31249,-87277,42392
C00062=-5474,-30023,-35770,-30448,-87586,42021
C00063=-3487,-28576,-34329,-29589,-87925,41652
C00064=-1462,-27060,-32848,-28674,-88299,41285
C00065=600,-25474,-31332,-27702,-88708,40920
C00066=2698,-23819,-29786,-26676,-89154,40557
C00067=4829,-22099,-28215,-25597,-89638,40196
C00068=6992,-20316,-26627,-24470,-90159,39837
C00069=9182,-18472,-25028,-23298,-90718,39480
C00070=11396,-16568,-23424,-22087,-91315,39126
C00071=13627,-14604,-21822,-20844,-91953,38773
C00072=15870,-12581,-20227,-19576,-92631,38422
C00073=18116,-10495,-18644,-18292,-93351,38071
C00074=20359,-8345,-17076,-17003,-94114,37720
C00075=22588,-6130,-15527,-15719,-94921,37368
C00076=24795,-3848,-14001,-14451,-95772,37014
C00077=26970,-1496,-12497,-13210,-96668,36656
C00078=29105,930,-11017,-12009,-97610,36294
C00079=31189,3432,-9559,-10858,-98598,35925
C00080=33214,6015,-8121,-9767,-99634,35548
C00081=35173,8682,-6700,-8748,-100718,35160
C00082=37058,11434,-5295,-7809,-101848,34761
C00083=38863,14264,-3907,-6958,-103020,34348
C00084=40584,17162,-2543,-6201,-104227,33920
C00085=42220,20109,-1210,-5541,-105457,33477
C00086=43769,23088,82,-4980,-106699,33021
C00087=45233,26079,1326,-4518,-107942,32550
C00088=46613,29073,2518,-4155,-109180,32065
C00089=47910,32069,3659,-3892,-110410,31565
C00090=49126,35070,4755,-3731,-111636,31047
C00091=50261,38079,5807,-3674,-112857,30510
C00092=51315,41088,6814,-3723,-114070,29952
C00093=52292,44083,7767,-3877,-115265,29373
C00094=53198,47041,8657,-4132,-116431,28776
C00095=54037,49954,9478,-4483,-117560,28160
C00096=54814,52822,10232,-4926,-118653,27526
C00097=55533,55644,10919,-5461,-119709,26873
C00098=56202,58383,11523,-6075,-120704,26208
C00099=56838,60976,12021,-6742,-121601,25546
C00100=57446,63448,12428,-7454,-122413,24886
C00101=57990,65991,12821,-8280,-123257,24185
C00102=58533,68041,12994,-9088,-123779,23559
C00103=61400,79843,14084,-14356,-126552,19963
//INST
///DATE 2023/04/07 14:00
///ATTR SC,RW
///GROUP1 RB1
NOP
MOVJ C00000 VJ=5.0
TIMER T=1.00
MOVJ C00001 VJ=1.0
TIMER T=0.10
MOVL C00002 V=250.0
MOVL C00003 V=250.0
MOVL C00004 V=250.0
MOVL C00005 V=250.0
MOVL C00006 V=250.0
MOVL C00007 V=250.0
MOVL C00008 V=250.0
MOVL C00009 V=250.0
MOVL C00010 V=250.0
MOVL C00011 V=250.0
MOVL C00012 V=250.0
MOVL C00013 V=250.0
MOVL C00014 V=250.0
MOVL C00015 V=250.0
MOVL C00016 V=250.0
MOVL C00017 V=250.0
MOVL C00018 V=250.0
MOVL C00019 V=250.0
MOVL C00020 V=250.0
MOVL C00021 V=250.0
MOVL C00022 V=250.0
MOVL C00023 V=250.0
MOVL C00024 V=250.0
MOVL C00025 V=250.0
MOVL C00026 V=250.0
MOVL C00027 V=250.0
MOVL C00028 V=250.0
MOVL C00029 V=250.0
MOVL C00030 V=250.0
MOVL C00031 V=250.0
MOVL C00032 V=250.0
MOVL C00033 V=250.0
MOVL C00034 V=250.0
MOVL C00035 V=250.0
MOVL C00036 V=250.0
MOVL C00037 V=250.0
MOVL C00038 V=250.0
MOVL C00039 V=250.0
MOVL C00040 V=250.0
MOVL C00041 V=250.0
MOVL C00042 V=250.0
MOVL C00043 V=250.0
MOVL C00044 V=250.0
MOVL C00045 V=250.0
MOVL C00046 V=250.0
MOVL C00047 V=250.0
MOVL C00048 V=250.0
MOVL C00049 V=250.0
MOVL C00050 V=250.0
MOVL C00051 V=250.0
MOVL C00052 V=250.0
MOVL C00053 V=250.0
MOVL C00054 V=250.0
MOVL C00055 V=250.0
MOVL C00056 V=250.0
MOVL C00057 V=250.0
MOVL C00058 V=250.0
MOVL C00059 V=250.0
MOVL C00060 V=250.0
MOVL C00061 V=250.0
MOVL C00062 V=250.0
MOVL C00063 V=250.0
MOVL C00064 V=250.0
MOVL C00065 V=250.0
MOVL C00066 V=250.0
MOVL C00067 V=250.0
MOVL C00068 V=250.0
MOVL C00069 V=250.0
MOVL C00070 V=250.0
MOVL C00071 V=250.0
MOVL C00072 V=250.0
MOVL C00073 V=250.0
MOVL C00074 V=250.0
MOVL C00075 V=250.0
MOVL C00076 V=250.0
MOVL C00077 V=250.0
MOVL C00078 V=250.0
MOVL C00079 V=250.0
MOVL C00080 V=250.0
MOVL C00081 V=250.0
MOVL C00082 V=250.0
MOVL C00083 V=250.0
MOVL C00084 V=250.0
MOVL C00085 V=250.0
MOVL C00086 V=250.0
MOVL C00087 V=250.0
MOVL C00088 V=250.0
MOVL C00089 V=250.0
MOVL C00090 V=250.0
MOVL C00091 V=250.0
MOVL C00092 V=250.0
MOVL C00093 V=250.0
MOVL C00094 V=250.0
MOVL C00095 V=250.0
MOVL C00096 V=250.0
MOVL C00097 V=250.0
MOVL C00098 V=250.0
MOVL C00099 V=250.0
MOVL C00100 V=250.0
MOVL C00101 V=250.0
MOVL C00102 V=250.0
MOVL C00103 V=250.0
END
