hehonglu123/Motion-Primitive-Planning/ILC/recorded_data/realrobot/from_NX/iteration_7/run_3.csv
timestamp, cmd_num, J1, J2, J3, J4, J5, J6
0.000452, -1, 39.6317, 32.4461, 11.8315, 12.5469, 113.714, -48.8709
0.004321, -1, 39.6317, 32.4461, 11.8315, 12.5469, 113.714, -48.8709
0.007723, -1, 39.6317, 32.4461, 11.8315, 12.5469, 113.714, -48.8709
0.028363, -1, 39.6317, 32.4461, 11.8315, 12.5469, 113.714, -48.8709
0.031118, -1, 39.6317, 32.4461, 11.8315, 12.5469, 113.714, -48.8709
0.034438, -1, 39.6317, 32.4461, 11.8315, 12.5469, 113.714, -48.8709
0.039652, -1, 39.6317, 32.4461, 11.8315, 12.5469, 113.714, -48.8708
0.047606, -1, 39.6317, 32.4461, 11.8315, 12.5469, 113.714, -48.8709
0.055662, -1, 39.6311, 32.446, 11.8315, 12.5469, 113.714, -48.8709
0.063583, -1, 39.6288, 32.4456, 11.8315, 12.5469, 113.714, -48.8709
0.071609, -1, 39.6235, 32.4442, 11.8315, 12.5469, 113.714, -48.8711
0.079652, -1, 39.6146, 32.4413, 11.8314, 12.5469, 113.713, -48.8722
0.0876, -1, 39.6014, 32.436, 11.8314, 12.5469, 113.712, -48.8771
0.095606, -1, 39.5817, 32.4275, 11.8314, 12.5468, 113.708, -48.8883
0.103674, -1, 39.5531, 32.4149, 11.8319, 12.5468, 113.701, -48.909
0.11158, -1, 39.5147, 32.3972, 11.8339, 12.5468, 113.689, -48.9424
0.119586, -1, 39.4653, 32.3735, 11.8387, 12.5468, 113.67, -48.9927
0.127665, -1, 39.4032, 32.3431, 11.8471, 12.5468, 113.643, -49.0644
0.135583, -1, 39.3279, 32.3053, 11.8599, 12.5468, 113.605, -49.1587
0.143584, -1, 39.2388, 32.2597, 11.8777, 12.5471, 113.559, -49.2787
0.151647, -1, 39.1358, 32.2062, 11.9001, 12.5476, 113.502, -49.4239
0.159597, -1, 39.0187, 32.1448, 11.9269, 12.5485, 113.435, -49.5938
0.167602, -1, 38.8881, 32.076, 11.9575, 12.5499, 113.359, -49.786
0.175652, -1, 38.7453, 32.0008, 11.9914, 12.5518, 113.275, -49.9978
0.183587, -1, 38.5909, 31.9195, 12.0277, 12.5539, 113.185, -50.2255
0.191599, -1, 38.4265, 31.8333, 12.0655, 12.5562, 113.09, -50.4654
0.199774, -1, 38.2543, 31.7431, 12.1043, 12.5585, 112.992, -50.7136
0.207681, -1, 38.0759, 31.65, 12.1433, 12.5609, 112.892, -50.9669
0.215678, -1, 37.8923, 31.5546, 12.1822, 12.5633, 112.79, -51.2235
0.22368, -1, 37.7048, 31.4577, 12.221, 12.5658, 112.688, -51.4819
0.231683, -1, 37.5146, 31.36, 12.2598, 12.5682, 112.586, -51.7414
0.239759, -1, 37.323, 31.2621, 12.2985, 12.5706, 112.483, -52.0009
0.247662, -1, 37.1309, 31.1642, 12.3374, 12.573, 112.38, -52.2606
0.25559, -1, 36.9387, 31.0664, 12.3761, 12.5757, 112.277, -52.5206
0.263683, -1, 36.7467, 30.9687, 12.4148, 12.5783, 112.174, -52.7809
0.271653, -1, 36.555, 30.871, 12.4537, 12.5809, 112.071, -53.0413
0.279703, -1, 36.3634, 30.7733, 12.4926, 12.5834, 111.969, -53.3016
0.287851, -1, 36.1719, 30.6755, 12.5314, 12.586, 111.866, -53.562
0.295823, -1, 35.9804, 30.5776, 12.5703, 12.5886, 111.763, -53.8227
0.30389, -1, 35.7889, 30.4796, 12.6093, 12.5912, 111.66, -54.0833
0.312035, -1, 35.5972, 30.3817, 12.6481, 12.5937, 111.557, -54.3435
0.320042, -1, 35.4051, 30.2834, 12.6869, 12.5963, 111.454, -54.604
0.328165, -1, 35.2127, 30.1851, 12.7258, 12.599, 111.351, -54.8646
0.336115, -1, 35.0202, 30.0868, 12.7647, 12.6015, 111.248, -55.1254
0.344226, -1, 34.828, 29.9883, 12.8036, 12.6042, 111.144, -55.386
0.352289, -1, 34.6357, 29.8898, 12.8423, 12.6067, 111.041, -55.6467
0.489834, -1, 31.357, 28.2145, 13.504, 12.6522, 109.289, -60.0848
0.49115, -1, 31.357, 28.2145, 13.504, 12.6522, 109.289, -60.0848
0.49235, -1, 31.357, 28.2145, 13.504, 12.6522, 109.289, -60.0848
0.495086, -1, 31.2605, 28.1652, 13.5234, 12.6536, 109.238, -60.2155
0.496389, -1, 31.2605, 28.1652, 13.5234, 12.6536, 109.238, -60.2155
0.498497, -1, 31.1641, 28.116, 13.543, 12.655, 109.186, -60.3461
0.499763, -1, 31.1641, 28.116, 13.543, 12.655, 109.186, -60.3461
0.503629, -1, 31.0679, 28.0667, 13.5626, 12.6565, 109.135, -60.4769
0.50558, -1, 30.9717, 28.0174, 13.5821, 12.6579, 109.083, -60.6077
0.506924, -1, 30.9717, 28.0174, 13.5821, 12.6579, 109.083, -60.6077
0.508124, -1, 30.9717, 28.0174, 13.5821, 12.6579, 109.083, -60.6077
0.510927, -1, 30.8756, 27.9682, 13.6016, 12.6592, 109.032, -60.7384
0.512214, -1, 30.8756, 27.9682, 13.6016, 12.6592, 109.032, -60.7384
0.514492, -1, 30.7796, 27.9189, 13.621, 12.6607, 108.98, -60.869
0.515725, -1, 30.7796, 27.9189, 13.621, 12.6607, 108.98, -60.869
0.522164, -1, 30.5877, 27.8204, 13.6601, 12.6635, 108.877, -61.1302
0.523477, -1, 30.5877, 27.8204, 13.6601, 12.6635, 108.877, -61.1302
0.524674, -1, 30.5877, 27.8204, 13.6601, 12.6635, 108.877, -61.1302
0.526878, -1, 30.4917, 27.7711, 13.6796, 12.6649, 108.825, -61.2608
0.528088, -1, 30.4917, 27.7711, 13.6796, 12.6649, 108.825, -61.2608
0.530135, -1, 30.3957, 27.7217, 13.6991, 12.6663, 108.773, -61.3916
0.531379, -1, 30.3957, 27.7217, 13.6991, 12.6663, 108.773, -61.3916
0.537777, -1, 30.2037, 27.6229, 13.738, 12.669, 108.67, -61.6532
0.543573, -1, 30.1076, 27.5736, 13.7575, 12.6703, 108.619, -61.7842
0.551601, -1, 29.915, 27.4748, 13.7965, 12.6731, 108.516, -62.0458
0.559604, -1, 29.722, 27.3761, 13.8354, 12.6758, 108.412, -62.3074
0.56761, -1, 29.5283, 27.2773, 13.8743, 12.6783, 108.309, -62.5692
0.575612, -1, 29.3343, 27.1785, 13.9133, 12.6809, 108.206, -62.8311
0.583876, -1, 29.1401, 27.0797, 13.9522, 12.6835, 108.102, -63.0926
0.591579, -1, 28.9457, 26.9808, 13.9913, 12.686, 107.999, -63.354
0.599619, -1, 28.7514, 26.8819, 14.0302, 12.6885, 107.896, -63.6156
0.608973, -1, 28.5573, 26.783, 14.0691, 12.691, 107.792, -63.8773
0.615576, -1, 28.3635, 26.6843, 14.1082, 12.6935, 107.689, -64.1391
0.623631, -1, 28.17, 26.5855, 14.1472, 12.6959, 107.586, -64.4006
0.631567, -1, 27.9771, 26.4867, 14.1862, 12.6983, 107.482, -64.6624
0.639569, -1, 27.7843, 26.3879, 14.2253, 12.7008, 107.379, -64.9243
0.778586, -1, 24.4993, 24.7076, 14.8877, 12.7402, 105.624, -69.3733
0.780632, -1, 24.4032, 24.6581, 14.9072, 12.7414, 105.572, -69.5042
0.781837, -1, 24.4032, 24.6581, 14.9072, 12.7414, 105.572, -69.5042
0.783713, -1, 24.307, 24.6087, 14.9267, 12.7426, 105.52, -69.635
0.785066, -1, 24.307, 24.6087, 14.9267, 12.7426, 105.52, -69.635
0.78636, -1, 24.307, 24.6087, 14.9267, 12.7426, 105.52, -69.635
0.78842, -1, 24.2108, 24.5593, 14.9462, 12.7438, 105.469, -69.7658
0.791838, -1, 24.1145, 24.5098, 14.9657, 12.745, 105.417, -69.8965
0.793283, -1, 24.1145, 24.5098, 14.9657, 12.745, 105.417, -69.8965
0.79447, -1, 24.1145, 24.5098, 14.9657, 12.745, 105.417, -69.8965
0.797206, -1, 24.0182, 24.4605, 14.9852, 12.7461, 105.365, -70.0272
0.798504, -1, 24.0182, 24.4605, 14.9852, 12.7461, 105.365, -70.0272
0.801328, -1, 23.9218, 24.4111, 15.0047, 12.7472, 105.314, -70.158
0.802632, -1, 23.9218, 24.4111, 15.0047, 12.7472, 105.314, -70.158
0.80463, -1, 23.8254, 24.3616, 15.0241, 12.7485, 105.262, -70.2889
0.808907, -1, 23.7289, 24.3122, 15.0435, 12.7498, 105.21, -70.4197
0.810125, -1, 23.7289, 24.3122, 15.0435, 12.7498, 105.21, -70.4197
0.812055, -1, 23.6324, 24.2628, 15.063, 12.7509, 105.159, -70.5506
0.813403, -1, 23.6324, 24.2628, 15.063, 12.7509, 105.159, -70.5506
0.814666, -1, 23.6324, 24.2628, 15.063, 12.7509, 105.159, -70.5506
0.816773, -1, 23.5359, 24.2134, 15.0825, 12.7521, 105.107, -70.6816
0.818159, -1, 23.5359, 24.2134, 15.0825, 12.7521, 105.107, -70.6816
0.826625, -1, 23.3423, 24.1145, 15.1214, 12.7545, 105.004, -70.9433
0.832054, -1, 23.1485, 24.0156, 15.1603, 12.7569, 104.9, -71.205
0.840076, -1, 22.9546, 23.9167, 15.1991, 12.7594, 104.797, -71.4667
0.848176, -1, 22.7606, 23.8178, 15.2381, 12.7619, 104.693, -71.7286
0.85614, -1, 22.5667, 23.7191, 15.2771, 12.7643, 104.59, -71.9902
0.864324, -1, 22.4699, 23.6698, 15.3161, 12.7668, 104.487, -72.2516
0.873168, -1, 22.1798, 23.5217, 15.355, 12.7694, 104.383, -72.5131
0.879549, -1, 22.0832, 23.4724, 15.3744, 12.7707, 104.332, -72.6438
0.887554, -1, 21.8902, 23.3737, 15.4134, 12.7733, 104.228, -72.9054
0.895618, -1, 21.6977, 23.275, 15.4524, 12.7759, 104.125, -73.1668
0.902563, -1, 21.5055, 23.1762, 15.4913, 12.7786, 104.022, -73.4282
0.911556, -1, 21.3132, 23.0775, 15.5303, 12.7812, 103.919, -73.6896
0.919607, -1, 21.1209, 22.9789, 15.5693, 12.7838, 103.816, -73.9512
0.927555, -1, 20.9284, 22.8802, 15.6082, 12.7866, 103.713, -74.2125
0.935568, -1, 20.736, 22.7816, 15.6471, 12.7894, 103.61, -74.4735
0.943576, -1, 20.5434, 22.683, 15.686, 12.7921, 103.506, -74.7348
0.950613, -1, 20.3502, 22.5843, 15.7248, 12.7948, 103.403, -74.9963
0.959615, -1, 20.1565, 22.4856, 15.7638, 12.7975, 103.3, -75.2574
0.967553, -1, 19.9629, 22.3869, 15.8026, 12.8003, 103.197, -75.5186
0.975553, -1, 19.7692, 22.2882, 15.8413, 12.803, 103.095, -75.7797
0.983619, -1, 19.5756, 22.1896, 15.8803, 12.8056, 102.991, -76.0408
0.991567, -1, 19.3822, 22.091, 15.9192, 12.8084, 102.888, -76.3022
0.999552, -1, 19.1892, 21.9923, 15.958, 12.8111, 102.785, -76.5631
1.00856, -1, 18.9964, 21.8937, 15.997, 12.8139, 102.682, -76.8237
1.01555, -1, 18.804, 21.795, 16.0358, 12.8166, 102.579, -77.0847
1.02455, -1, 18.6119, 21.6963, 16.0745, 12.8193, 102.476, -77.3458
1.03164, -1, 18.42, 21.5977, 16.1135, 12.822, 102.374, -77.6066
1.03962, -1, 18.2282, 21.4992, 16.1524, 12.8246, 102.271, -77.8674
1.04755, -1, 18.0363, 21.4007, 16.1911, 12.8271, 102.168, -78.1281
1.05557, -1, 17.8444, 21.3024, 16.2301, 12.8297, 102.065, -78.389
1.06355, -1, 17.6523, 21.2041, 16.269, 12.8322, 101.962, -78.6495
1.07158, -1, 17.46, 21.1057, 16.3078, 12.8347, 101.859, -78.9099
1.07955, -1, 17.2671, 21.0074, 16.3467, 12.8371, 101.756, -79.1705
1.0876, -1, 17.074, 20.9091, 16.3854, 12.8395, 101.653, -79.4311
1.0956, -1, 16.881, 20.8108, 16.4242, 12.8419, 101.55, -79.6917
1.10355, -1, 16.6879, 20.7127, 16.463, 12.8442, 101.447, -79.9521
1.11163, -1, 16.4949, 20.6145, 16.5017, 12.8465, 101.345, -80.2127
1.11958, -1, 16.3021, 20.5162, 16.5404, 12.8488, 101.242, -80.4733
1.12755, -1, 16.1098, 20.4179, 16.5792, 12.8511, 101.14, -80.7339
1.1356, -1, 15.9179, 20.3194, 16.6179, 12.8534, 101.037, -80.994
1.14357, -1, 15.7262, 20.2209, 16.6567, 12.8557, 100.934, -81.2541
1.15156, -1, 15.5349, 20.1226, 16.6952, 12.8581, 100.832, -81.5142
1.15966, -1, 15.3438, 20.0243, 16.7339, 12.8604, 100.729, -81.7744
1.16757, -1, 15.1526, 19.926, 16.7727, 12.8626, 100.626, -82.0343
1.17555, -1, 14.9614, 19.8278, 16.8114, 12.8649, 100.524, -82.2941
1.1836, -1, 14.7701, 19.7297, 16.8501, 12.8672, 100.421, -82.5539
1.19159, -1, 14.5786, 19.6316, 16.8888, 12.8695, 100.319, -82.814
1.19963, -1, 14.3867, 19.5335, 16.9275, 12.8718, 100.216, -83.0737
1.2077, -1, 14.1944, 19.4355, 16.9662, 12.8741, 100.114, -83.3332
1.21564, -1, 14.0021, 19.3375, 17.0049, 12.8763, 100.011, -83.5928
1.2237, -1, 13.8096, 19.2396, 17.0434, 12.8787, 99.9085, -83.8525
1.23169, -1, 13.6171, 19.1418, 17.0821, 12.8809, 99.806, -84.112
1.23981, -1, 13.4247, 19.0439, 17.1208, 12.8833, 99.7035, -84.3712
1.24771, -1, 13.2328, 18.946, 17.1593, 12.8855, 99.6014, -84.6304
1.25557, -1, 13.0412, 18.8481, 17.1979, 12.8879, 99.4989, -84.8898
1.26357, -1, 12.85, 18.7501, 17.2366, 12.8902, 99.3964, -85.1491
1.27167, -1, 12.659, 18.6521, 17.2751, 12.8926, 99.2944, -85.4081
1.27962, -1, 12.4684, 18.5543, 17.3136, 12.895, 99.1919, -85.667
1.28776, -1, 12.2782, 18.4565, 17.3522, 12.8974, 99.0896, -85.9259
1.29581, -1, 12.0882, 18.3588, 17.3907, 12.8999, 98.9877, -86.185
1.30456, -1, 11.8978, 18.2612, 17.4293, 12.9023, 98.8855, -86.4436
1.31194, -1, 11.7073, 18.1635, 17.4679, 12.9047, 98.7836, -86.7021
1.32002, -1, 11.5165, 18.0659, 17.5063, 12.9072, 98.6818, -86.9607
1.32879, -1, 11.3255, 17.9683, 17.5449, 12.9097, 98.5798, -87.2193
1.33605, -1, 11.1341, 17.8708, 17.5835, 12.912, 98.4779, -87.4778
1.34415, -1, 10.9427, 17.7733, 17.6219, 12.9146, 98.3761, -87.736
1.35303, -1, 10.7509, 17.6759, 17.6605, 12.9171, 98.274, -87.9943
1.36018, -1, 10.5593, 17.5783, 17.6988, 12.9197, 98.1722, -88.2526
1.36827, -1, 10.368, 17.4808, 17.7372, 12.9222, 98.0704, -88.511
1.37703, -1, 10.2724, 17.3833, 17.7757, 12.9247, 97.9685, -88.769
1.38263, -1, 10.0816, 17.3344, 17.7949, 12.9261, 97.9175, -88.898
1.39257, -1, 9.79603, 17.1881, 17.8524, 12.93, 97.7647, -89.2851
1.39954, -1, 9.70099, 17.1393, 17.8716, 12.9313, 97.7137, -89.4142
1.40754, -1, 9.51139, 17.0419, 17.9099, 12.9341, 97.6117, -89.6723
1.41559, -1, 9.32213, 16.9446, 17.9482, 12.9368, 97.5099, -89.9299
1.42354, -1, 9.13289, 16.8473, 17.9866, 12.9394, 97.408, -90.1873
1.43161, -1, 8.94355, 16.7501, 18.025, 12.9421, 97.3062, -90.4449
1.43955, -1, 8.75405, 16.6529, 18.0633, 12.9448, 97.2047, -90.7025
1.44756, -1, 8.56453, 16.5558, 18.1018, 12.9474, 97.1029, -90.9597
1.45561, -1, 8.37466, 16.4587, 18.1401, 12.9501, 97.0015, -91.217
1.46354, -1, 8.18432, 16.3617, 18.1784, 12.9527, 96.8999, -91.4741
1.47155, -1, 7.9938, 16.2649, 18.2168, 12.9554, 96.7983, -91.7314
1.47961, -1, 7.80331, 16.168, 18.255, 12.958, 96.6969, -91.9884
1.48753, -1, 7.61276, 16.071, 18.2933, 12.9605, 96.5954, -92.2451
1.49553, -1, 7.42229, 15.9741, 18.3316, 12.9631, 96.4939, -92.5019
1.50509, -1, 7.23212, 15.8772, 18.3697, 12.9656, 96.3928, -92.7587
1.51155, -1, 7.04227, 15.7802, 18.4079, 12.9682, 96.2914, -93.0154
1.52054, -1, 6.85285, 15.6833, 18.4462, 12.9707, 96.1901, -93.2718
1.52761, -1, 6.66396, 15.5865, 18.4843, 12.9732, 96.0895, -93.5281
1.53553, -1, 6.4755, 15.4897, 18.5224, 12.9757, 95.9883, -93.7845
1.54361, -1, 6.28731, 15.393, 18.5606, 12.9782, 95.8872, -94.041
1.55163, -1, 6.0993, 15.2963, 18.5987, 12.9807, 95.7865, -94.2968
1.55954, -1, 5.911, 15.1996, 18.6368, 12.983, 95.6854, -94.5528
1.56754, -1, 5.72261, 15.1029, 18.675, 12.9853, 95.5845, -94.8087
1.57555, -1, 5.53412, 15.0063, 18.713, 12.9877, 95.4839, -95.0648
1.58353, -1, 5.3453, 14.9097, 18.7512, 12.9899, 95.3829, -95.3203
1.59162, -1, 5.15616, 14.8133, 18.7893, 12.9922, 95.2822, -95.5757
1.59955, -1, 4.96674, 14.717, 18.8273, 12.9945, 95.1817, -95.8311
1.60753, -1, 4.77735, 14.6206, 18.8654, 12.9967, 95.0809, -96.0867
1.61562, -1, 4.58789, 14.5242, 18.9035, 12.9989, 94.98, -96.342
1.62378, -1, 4.39864, 14.4278, 18.9415, 13.0011, 94.8795, -96.5969
1.63155, -1, 4.20969, 14.3315, 18.9795, 13.0033, 94.7785, -96.8518
1.6396, -1, 4.02105, 14.2351, 19.0175, 13.0055, 94.6778, -97.1069
1.64841, -1, 3.833, 14.1388, 19.0553, 13.0078, 94.577, -97.3618
1.65553, -1, 3.64549, 14.0427, 19.0933, 13.01, 94.4762, -97.6164
1.66366, -1, 3.45838, 13.9465, 19.1312, 13.0124, 94.3756, -97.8712
1.67235, -1, 3.27147, 13.8505, 19.169, 13.0147, 94.275, -98.126
1.67953, -1, 3.08446, 13.7544, 19.2069, 13.0169, 94.1743, -98.3807
1.68778, -1, 2.89747, 13.6584, 19.2449, 13.0192, 94.0737, -98.6351
1.69633, -1, 2.71046, 13.5623, 19.2827, 13.0214, 93.9731, -98.8891
1.70356, -1, 2.52308, 13.4663, 19.3206, 13.0237, 93.8726, -99.1432
1.71192, -1, 2.33563, 13.3704, 19.3583, 13.026, 93.7723, -99.3975
1.72044, -1, 2.14778, 13.2747, 19.3961, 13.0283, 93.6719, -99.6515
1.72764, -1, 1.95967, 13.1789, 19.434, 13.0304, 93.5717, -99.905
1.73613, -1, 1.77155, 13.083, 19.4718, 13.0328, 93.4719, -100.159
1.74444, -1, 1.58329, 12.9872, 19.5095, 13.035, 93.3717, -100.412
1.7516, -1, 1.39516, 12.8914, 19.5473, 13.0373, 93.2716, -100.666
1.7602, -1, 1.20735, 12.7956, 19.585, 13.0396, 93.1718, -100.919
1.76847, -1, 1.01993, 12.6999, 19.6227, 13.042, 93.0716, -101.172
1.77556, -1, 0.83317, 12.6043, 19.6605, 13.0444, 92.9716, -101.425
1.78477, -1, 0.646834, 12.5087, 19.6981, 13.0467, 92.872, -101.678
1.79167, -1, 0.46095, 12.4132, 19.7356, 13.0492, 92.7722, -101.931
1.79984, -1, 0.275287, 12.3179, 19.7734, 13.0517, 92.6725, -102.184
1.80859, -1, 0.0898347, 12.2224, 19.8109, 13.0542, 92.5732, -102.437
1.81673, -1, -0.0955812, 12.1271, 19.8485, 13.0566, 92.4735, -102.689
1.82398, -1, -0.28115, 12.0319, 19.8862, 13.059, 92.374, -102.942
1.83294, -1, -0.467062, 11.9367, 19.9237, 13.0615, 92.2747, -103.194
1.84003, -1, -0.653332, 11.8416, 19.9613, 13.0641, 92.1752, -103.446
1.84812, -1, -0.83978, 11.7466, 19.9989, 13.0665, 92.0757, -103.698
1.85689, -1, -1.02638, 11.6516, 20.0363, 13.069, 91.9765, -103.95
1.8641, -1, -1.21325, 11.5565, 20.0737, 13.0716, 91.877, -104.202
1.87216, -1, -1.40017, 11.4615, 20.1113, 13.0741, 91.7777, -104.453
1.88112, -1, -1.49357, 11.4139, 20.1487, 13.0767, 91.6787, -104.705
1.88754, -1, -1.68017, 11.3188, 20.1674, 13.078, 91.629, -104.831
1.89558, -1, -1.86637, 11.2237, 20.2049, 13.0805, 91.5298, -105.082
1.90352, -1, -2.05212, 11.1287, 20.2423, 13.0832, 91.4308, -105.333
1.91152, -1, -2.23718, 11.0338, 20.2797, 13.0859, 91.3315, -105.584
1.91957, -1, -2.42202, 10.9389, 20.3171, 13.0885, 91.2323, -105.835
1.92754, -1, -2.60647, 10.8441, 20.3544, 13.0911, 91.1333, -106.086
1.93557, -1, -2.79042, 10.7494, 20.3916, 13.0938, 91.0342, -106.337
1.94352, -1, -2.97433, 10.6547, 20.429, 13.0964, 90.9352, -106.588
1.95154, -1, -3.15835, 10.56, 20.4664, 13.099, 90.8364, -106.838
1.95958, -1, -3.34267, 10.4654, 20.5036, 13.1016, 90.7374, -107.089
1.96758, -1, -3.52729, 10.371, 20.5409, 13.1041, 90.6384, -107.339
1.97552, -1, -3.71206, 10.2767, 20.5782, 13.1066, 90.5398, -107.59
1.98361, -1, -3.8972, 10.1823, 20.6154, 13.1091, 90.4408, -107.84
1.99152, -1, -4.0825, 10.0879, 20.6527, 13.1116, 90.3422, -108.089
1.99953, -1, -4.26805, 9.99368, 20.6899, 13.114, 90.2438, -108.34
2.00762, -1, -4.45372, 9.89932, 20.727, 13.1162, 90.145, -108.589
2.01552, -1, -4.63904, 9.80499, 20.7644, 13.1186, 90.0465, -108.839
2.0236, -1, -4.82396, 9.7108, 20.8015, 13.1209, 89.9481, -109.088
2.03257, -1, -5.00849, 9.61666, 20.8385, 13.1233, 89.8495, -109.338
2.03952, -1, -5.19229, 9.52261, 20.8757, 13.1256, 89.7511, -109.587
2.04766, -1, -5.3756, 9.42855, 20.9128, 13.128, 89.6529, -109.836
2.05552, -1, -5.55849, 9.33468, 20.9499, 13.1302, 89.5544, -110.085
2.06353, -1, -5.74101, 9.24077, 20.987, 13.1325, 89.4561, -110.333
2.07159, -1, -5.92334, 9.14687, 21.024, 13.1349, 89.3582, -110.582
2.07953, -1, -6.10573, 9.05302, 21.061, 13.137, 89.2599, -110.831
2.08752, -1, -6.28846, 8.95925, 21.0981, 13.1392, 89.162, -111.079
2.09561, -1, -6.47144, 8.86559, 21.1351, 13.1414, 89.0643, -111.327
2.10352, -1, -6.65458, 8.77195, 21.1718, 13.1436, 88.9662, -111.576
2.11152, -1, -6.83815, 8.67833, 21.2088, 13.1458, 88.8682, -111.824
2.11962, -1, -7.02201, 8.58475, 21.2457, 13.1478, 88.7705, -112.072
2.12755, -1, -7.20619, 8.4912, 21.2826, 13.15, 88.6726, -112.319
2.13551, -1, -7.3904, 8.39754, 21.3196, 13.1521, 88.5748, -112.567
2.14359, -1, -7.57419, 8.30388, 21.3564, 13.1543, 88.4773, -112.815
2.15152, -1, -7.75767, 8.21045, 21.3931, 13.1564, 88.3796, -113.062
2.15954, -1, -7.94082, 8.11707, 21.43, 13.1586, 88.2822, -113.309
2.16758, -1, -8.12342, 8.02369, 21.4668, 13.1609, 88.185, -113.556
2.17552, -1, -8.30521, 7.93042, 21.5036, 13.1631, 88.0875, -113.804
2.18359, -1, -8.48653, 7.8372, 21.5404, 13.1654, 87.9901, -114.051
2.19152, -1, -8.66759, 7.74401, 21.5773, 13.1677, 87.8928, -114.297
2.19952, -1, -8.8483, 7.65085, 21.614, 13.1699, 87.7953, -114.543
2.20766, -1, -9.02906, 7.55776, 21.6507, 13.1721, 87.6979, -114.79
2.21569, -1, -9.21016, 7.46475, 21.6875, 13.1744, 87.6008, -115.036
2.22361, -1, -9.39144, 7.37195, 21.7241, 13.1766, 87.5036, -115.283
2.23168, -1, -9.57311, 7.27912, 21.7608, 13.1788, 87.4065, -115.529
2.23967, -1, -9.75505, 7.18634, 21.7975, 13.181, 87.3095, -115.775
2.24763, -1, -9.93742, 7.09361, 21.834, 13.1832, 87.2122, -116.021
2.25571, -1, -10.1199, 7.00088, 21.8706, 13.1855, 87.115, -116.267
2.26352, -1, -10.3026, 6.90809, 21.9072, 13.1877, 87.0179, -116.513
2.27155, -1, -10.4851, 6.81531, 21.9437, 13.1899, 86.9207, -116.758
2.27967, -1, -10.6673, 6.72261, 21.9803, 13.1922, 86.8236, -117.003
2.28763, -1, -10.8491, 6.62999, 22.0168, 13.1946, 86.7268, -117.249
2.29573, -1, -11.0303, 6.53739, 22.0532, 13.1971, 86.6298, -117.494
2.30381, -1, -11.2108, 6.4449, 22.0898, 13.1994, 86.5332, -117.739
2.31179, -1, -11.3907, 6.35242, 22.1263, 13.2019, 86.4366, -117.984
2.32001, -1, -11.5703, 6.26001, 22.1627, 13.2042, 86.3398, -118.229
2.32794, -1, -11.7496, 6.16761, 22.1992, 13.2067, 86.2432, -118.474
2.336, -1, -11.9289, 6.0753, 22.2357, 13.2092, 86.1466, -118.718
2.3446, -1, -12.1082, 5.98309, 22.2721, 13.2116, 86.05, -118.962
2.35208, -1, -12.2877, 5.89102, 22.3086, 13.2141, 85.9536, -119.206
2.36011, -1, -12.4676, 5.79903, 22.3449, 13.2166, 85.8574, -119.451
2.36817, -1, -12.6479, 5.70701, 22.3811, 13.2191, 85.7611, -119.695
2.37612, -1, -12.7381, 5.66103, 22.3993, 13.2215, 85.6648, -119.938
2.38422, -1, -12.919, 5.56911, 22.4538, 13.224, 85.5691, -120.182
2.39211, -1, -13.1001, 5.47714, 22.4719, 13.2252, 85.521, -120.304
2.39951, -1, -13.2813, 5.38513, 22.5081, 13.2276, 85.425, -120.547
2.40751, -1, -13.4624, 5.29318, 22.5445, 13.2301, 85.3293, -120.791
2.41556, -1, -13.643, 5.20126, 22.5806, 13.2326, 85.2335, -121.034
2.42351, -1, -13.8232, 5.10944, 22.6167, 13.2352, 85.1377, -121.277
2.43154, -1, -14.0028, 5.01765, 22.6529, 13.2378, 85.0421, -121.52
2.43954, -1, -14.1814, 4.92594, 22.689, 13.2404, 84.9465, -121.763
2.44751, -1, -14.3597, 4.83428, 22.7251, 13.243, 84.8508, -122.006
2.45557, -1, -14.5377, 4.74267, 22.7614, 13.2454, 84.7554, -122.248
2.46356, -1, -14.7154, 4.65108, 22.7976, 13.2479, 84.6597, -122.49
2.47152, -1, -14.893, 4.55958, 22.8336, 13.2504, 84.5639, -122.733
2.47955, -1, -15.0708, 4.46812, 22.8698, 13.2528, 84.4682, -122.975
2.4875, -1, -15.2488, 4.37688, 22.9059, 13.2553, 84.3726, -123.217
2.49552, -1, -15.4272, 4.28554, 22.9419, 13.2576, 84.2769, -123.459
2.50357, -1, -15.6061, 4.19424, 22.9779, 13.2599, 84.1814, -123.701
2.51151, -1, -15.7853, 4.10299, 23.0139, 13.2623, 84.0859, -123.943
2.52056, -1, -15.9646, 4.01175, 23.0498, 13.2646, 83.9904, -124.184
2.52757, -1, -16.1442, 3.92044, 23.0858, 13.2667, 83.895, -124.425
2.5355, -1, -16.3239, 3.82918, 23.1218, 13.2688, 83.7996, -124.667
2.54351, -1, -16.5033, 3.73797, 23.1576, 13.271, 83.7041, -124.908
2.55166, -1, -16.6823, 3.64684, 23.1935, 13.2732, 83.6088, -125.15
2.55951, -1, -16.8607, 3.55576, 23.2293, 13.2754, 83.5134, -125.391
2.56751, -1, -17.0382, 3.46474, 23.2651, 13.2776, 83.4181, -125.632
2.57551, -1, -17.2151, 3.37379, 23.301, 13.2798, 83.3227, -125.872
2.5835, -1, -17.3916, 3.28292, 23.3368, 13.282, 83.2277, -126.113
2.59159, -1, -17.5679, 3.19208, 23.3725, 13.2841, 83.1325, -126.354
2.5995, -1, -17.744, 3.10142, 23.4084, 13.2863, 83.0377, -126.594
2.60751, -1, -17.92, 3.01081, 23.4443, 13.2884, 82.943, -126.834
2.61558, -1, -18.0962, 2.92034, 23.4801, 13.2905, 82.8481, -127.074
2.62352, -1, -18.2727, 2.82996, 23.5158, 13.2927, 82.7533, -127.314
2.63151, -1, -18.4497, 2.73954, 23.5515, 13.2948, 82.6588, -127.554
2.63958, -1, -18.6272, 2.64913, 23.5871, 13.2968, 82.5641, -127.794
2.6475, -1, -18.8049, 2.55881, 23.6228, 13.2988, 82.4695, -128.033
2.6555, -1, -18.983, 2.46835, 23.6586, 13.3008, 82.3753, -128.273
2.66364, -1, -19.1612, 2.37785, 23.6942, 13.3028, 82.2807, -128.512
2.67152, -1, -19.3394, 2.28748, 23.7297, 13.3048, 82.1863, -128.751
2.6795, -1, -19.517, 2.19708, 23.7654, 13.3069, 82.0925, -128.99
2.68766, -1, -19.6941, 2.10671, 23.8008, 13.3091, 81.9981, -129.229
2.69551, -1, -19.8705, 2.01642, 23.8362, 13.3113, 81.904, -129.468
2.70358, -1, -20.0463, 1.92618, 23.8718, 13.3134, 81.8101, -129.707
2.71236, -1, -20.2215, 1.83599, 23.9073, 13.3157, 81.7159, -129.946
2.71967, -1, -20.3964, 1.74588, 23.9427, 13.3178, 81.6219, -130.184
2.72766, -1, -20.571, 1.65579, 23.9784, 13.32, 81.5281, -130.422
2.73641, -1, -20.7454, 1.56583, 24.0138, 13.3222, 81.4341, -130.661
2.74361, -1, -20.9201, 1.47595, 24.0492, 13.3244, 81.3404, -130.899
2.75169, -1, -21.0951, 1.38623, 24.0847, 13.3265, 81.2468, -131.136
2.75952, -1, -21.2705, 1.29645, 24.1202, 13.3287, 81.1529, -131.374
2.76751, -1, -21.4462, 1.20677, 24.1555, 13.3309, 81.059, -131.612
2.7756, -1, -21.6222, 1.11718, 24.1908, 13.333, 80.9652, -131.85
2.78606, -1, -21.7985, 1.0275, 24.2263, 13.3352, 80.8714, -132.087
2.79169, -1, -21.9748, 0.937887, 24.2617, 13.3375, 80.7776, -132.324
2.7998, -1, -22.1514, 0.848332, 24.297, 13.3396, 80.684, -132.562
2.80847, -1, -22.3278, 0.75877, 24.3324, 13.3418, 80.5903, -132.799
2.81582, -1, -22.5038, 0.66929, 24.3675, 13.344, 80.4967, -133.036
2.82385, -1, -22.6794, 0.579827, 24.4028, 13.3464, 80.4031, -133.273
2.83265, -1, -22.8543, 0.490425, 24.438, 13.3488, 80.3096, -133.509
2.84004, -1, -23.0283, 0.401008, 24.4732, 13.3512, 80.2161, -133.746
2.84816, -1, -23.202, 0.311664, 24.5084, 13.3537, 80.1225, -133.983
2.85679, -1, -23.3754, 0.222318, 24.5436, 13.3561, 80.0291, -134.22
2.86408, -1, -23.5485, 0.133135, 24.5788, 13.3585, 79.9356, -134.456
2.87208, -1, -23.6351, 0.043997, 24.6139, 13.3608, 79.8423, -134.692
2.88102, -1, -23.8952, -0.0450712, 24.6492, 13.3633, 79.7493, -134.928
2.88826, -1, -24.0687, -0.134, 24.6843, 13.3658, 79.656, -135.164
2.89549, -1, -24.1556, -0.178505, 24.7018, 13.367, 79.6095, -135.282
2.90349, -1, -24.3296, -0.267449, 24.7369, 13.3694, 79.5165, -135.518
2.91154, -1, -24.5038, -0.356332, 24.7721, 13.3719, 79.4235, -135.753
2.91948, -1, -24.6784, -0.445207, 24.8071, 13.3743, 79.3304, -135.989
2.92751, -1, -24.8534, -0.534098, 24.8421, 13.3767, 79.2374, -136.224
2.93554, -1, -25.0285, -0.622958, 24.8773, 13.3791, 79.1444, -136.46
2.94349, -1, -25.2034, -0.711761, 24.9123, 13.3815, 79.0515, -136.695
2.95149, -1, -25.3779, -0.800509, 24.9473, 13.3838, 78.9587, -136.93
2.95957, -1, -25.552, -0.889335, 24.9823, 13.3863, 78.8662, -137.165
2.9675, -1, -25.7256, -0.978052, 25.0172, 13.3887, 78.7733, -137.4
2.97549, -1, -25.8985, -1.06674, 25.052, 13.3911, 78.6807, -137.634
2.9835, -1, -26.0709, -1.15546, 25.0871, 13.3936, 78.5885, -137.869
2.99149, -1, -26.243, -1.24406, 25.122, 13.396, 78.4958, -138.103
2.99955, -1, -26.4147, -1.33257, 25.1567, 13.3984, 78.4032, -138.338
3.0075, -1, -26.5866, -1.42101, 25.1917, 13.4006, 78.3109, -138.572
3.01549, -1, -26.7586, -1.50934, 25.2266, 13.4029, 78.2183, -138.806
3.02357, -1, -26.9309, -1.59754, 25.2614, 13.4051, 78.1259, -139.04
3.03254, -1, -27.1034, -1.68576, 25.2962, 13.4073, 78.0338, -139.274
3.03949, -1, -27.276, -1.77401, 25.3311, 13.4094, 77.9416, -139.508
3.04756, -1, -27.4488, -1.86209, 25.3658, 13.4117, 77.8495, -139.742
3.05557, -1, -27.622, -1.95019, 25.4006, 13.4137, 77.7576, -139.975
3.0635, -1, -27.7952, -2.03837, 25.4355, 13.4159, 77.6655, -140.208
3.07155, -1, -27.9685, -2.12638, 25.4703, 13.4179, 77.5735, -140.442
3.07956, -1, -28.1418, -2.21439, 25.5049, 13.42, 77.4815, -140.675
3.08749, -1, -28.3148, -2.3024, 25.5398, 13.422, 77.3895, -140.908
3.09558, -1, -28.4876, -2.39046, 25.5745, 13.424, 77.2974, -141.141
3.10349, -1, -28.66, -2.47841, 25.6091, 13.4262, 77.2053, -141.374
3.11156, -1, -28.8317, -2.5664, 25.6438, 13.4283, 77.1134, -141.607
3.1195, -1, -29.0027, -2.65434, 25.6785, 13.4305, 77.0215, -141.84
3.12751, -1, -29.1733, -2.74221, 25.713, 13.4326, 76.9294, -142.072
3.13555, -1, -29.3439, -2.83004, 25.7477, 13.4346, 76.8378, -142.305
3.14349, -1, -29.5147, -2.91774, 25.7824, 13.4367, 76.7458, -142.537
3.15149, -1, -29.6855, -3.0053, 25.8169, 13.4388, 76.654, -142.77
3.15959, -1, -29.8566, -3.09286, 25.8515, 13.4408, 76.5624, -143.002
3.16748, -1, -30.0276, -3.18033, 25.8861, 13.443, 76.4704, -143.234
3.17552, -1, -30.1985, -3.26782, 25.9206, 13.445, 76.3788, -143.466
3.18353, -1, -30.3697, -3.35522, 25.9551, 13.4471, 76.2873, -143.698
3.19148, -1, -30.5412, -3.44266, 25.9897, 13.4492, 76.1956, -143.93
3.19968, -1, -30.7131, -3.5302, 26.0241, 13.4512, 76.1041, -144.162
3.20752, -1, -30.8849, -3.61751, 26.0586, 13.4532, 76.0129, -144.393
3.21554, -1, -31.0567, -3.7049, 26.0931, 13.4552, 75.9214, -144.624
3.22401, -1, -31.2282, -3.7922, 26.1276, 13.4573, 75.8301, -144.855
3.23158, -1, -31.3996, -3.87953, 26.1619, 13.4593, 75.7387, -145.087
3.23959, -1, -31.5705, -3.96683, 26.1964, 13.4615, 75.6475, -145.318
3.24804, -1, -31.7409, -4.05406, 26.2308, 13.4637, 75.5562, -145.549
3.25559, -1, -31.9109, -4.14134, 26.2651, 13.4658, 75.4651, -145.78
3.26349, -1, -32.0806, -4.22857, 26.2995, 13.4681, 75.3742, -146.011
3.27225, -1, -32.25, -4.31565, 26.334, 13.4702, 75.2829, -146.242
3.27953, -1, -32.4194, -4.40271, 26.3682, 13.4723, 75.1919, -146.472
3.28752, -1, -32.5892, -4.48966, 26.4025, 13.4744, 75.1013, -146.702
3.29645, -1, -32.7589, -4.57657, 26.437, 13.4766, 75.0103, -146.933
3.30373, -1, -32.9285, -4.6635, 26.4712, 13.4787, 74.9195, -147.163
3.3117, -1, -33.0983, -4.75045, 26.5054, 13.4809, 74.8291, -147.394
3.32068, -1, -33.268, -4.83726, 26.5397, 13.4832, 74.7383, -147.624
3.32785, -1, -33.438, -4.92414, 26.574, 13.4854, 74.6477, -147.853
3.33597, -1, -33.6084, -5.01111, 26.6082, 13.4876, 74.5572, -148.083
3.34483, -1, -33.7786, -5.09786, 26.6424, 13.4898, 74.4667, -148.313
3.35205, -1, -33.9488, -5.1846, 26.6766, 13.492, 74.3761, -148.543
3.36006, -1, -34.1191, -5.27131, 26.7106, 13.4943, 74.2856, -148.772
3.36891, -1, -34.2891, -5.35798, 26.7449, 13.4965, 74.1951, -149.001
3.3761, -1, -34.4591, -5.44462, 26.7791, 13.4989, 74.1044, -149.231
3.38414, -1, -34.544, -5.53126, 26.8132, 13.5013, 74.0138, -149.46
3.39298, -1, -34.7133, -5.5746, 26.8302, 13.5036, 73.9234, -149.69
3.39949, -1, -34.882, -5.6612, 26.8644, 13.5048, 73.8781, -149.804
3.40753, -1, -35.0505, -5.74771, 26.8985, 13.5073, 73.7876, -150.033
3.41549, -1, -35.2187, -5.8342, 26.9326, 13.5097, 73.6973, -150.262
3.42348, -1, -35.3871, -5.92057, 26.9667, 13.5122, 73.607, -150.491
3.43153, -1, -35.5556, -6.00676, 27.0008, 13.5145, 73.5166, -150.72
3.43953, -1, -35.7241, -6.09303, 27.0348, 13.5168, 73.4262, -150.949
3.4488, -1, -35.9769, -6.22227, 27.0859, 13.5204, 73.2907, -151.291
3.45548, -1, -36.0612, -6.26534, 27.1029, 13.5217, 73.2456, -151.406
3.46352, -1, -36.2296, -6.35145, 27.1369, 13.5241, 73.1551, -151.634
3.47154, -1, -36.3984, -6.43766, 27.1708, 13.5265, 73.065, -151.863
3.47948, -1, -36.5672, -6.52388, 27.2048, 13.5287, 72.9743, -152.091
3.48749, -1, -36.736, -6.61006, 27.2388, 13.531, 72.8842, -152.319
3.49555, -1, -36.905, -6.6962, 27.2727, 13.5334, 72.7942, -152.547
3.50358, -1, -37.074, -6.78235, 27.3067, 13.5356, 72.704, -152.775
3.51423, -1, -37.3271, -6.91152, 27.3575, 13.5391, 72.5691, -153.117
3.51954, -1, -37.4113, -6.9545, 27.3745, 13.5402, 72.5242, -153.231
3.52853, -1, -37.5794, -7.04059, 27.4085, 13.5424, 72.4343, -153.458
3.53548, -1, -37.7471, -7.12666, 27.4424, 13.5447, 72.3445, -153.686
3.54355, -1, -37.9147, -7.21264, 27.4763, 13.5469, 72.2546, -153.914
3.55149, -1, -38.0822, -7.29856, 27.5101, 13.5491, 72.165, -154.141
3.55957, -1, -38.2496, -7.38444, 27.5441, 13.5513, 72.0751, -154.368
3.56749, -1, -38.4169, -7.47019, 27.5779, 13.5534, 71.9855, -154.595
3.57549, -1, -38.5842, -7.55592, 27.6117, 13.5555, 71.8961, -154.823
3.58354, -1, -38.7515, -7.64164, 27.6456, 13.5576, 71.8063, -155.05
3.59147, -1, -38.9188, -7.72732, 27.6794, 13.5596, 71.7168, -155.277
3.59949, -1, -39.0862, -7.81292, 27.7131, 13.5617, 71.6278, -155.504
3.60755, -1, -39.2537, -7.8986, 27.7469, 13.5637, 71.5383, -155.73
3.61548, -1, -39.4212, -7.98431, 27.7808, 13.5657, 71.4489, -155.957
3.6235, -1, -39.5888, -8.06982, 27.8144, 13.5677, 71.3596, -156.184
3.63156, -1, -39.7565, -8.15534, 27.848, 13.5696, 71.2703, -156.41
3.63948, -1, -39.9241, -8.24082, 27.8818, 13.5716, 71.1809, -156.637
3.64749, -1, -40.0917, -8.32626, 27.9155, 13.5734, 71.0915, -156.863
3.65554, -1, -40.2592, -8.41162, 27.9492, 13.5754, 71.0024, -157.089
3.66349, -1, -40.4264, -8.49703, 27.9829, 13.5773, 70.913, -157.316
3.67152, -1, -40.5934, -8.58243, 28.0166, 13.5793, 70.8238, -157.542
3.67952, -1, -40.7602, -8.66784, 28.0502, 13.5814, 70.7349, -157.767
3.68758, -1, -40.9268, -8.75317, 28.0839, 13.5834, 70.6456, -157.993
3.69561, -1, -41.0932, -8.83851, 28.1176, 13.5854, 70.5565, -158.219
3.70349, -1, -41.2595, -8.92376, 28.1512, 13.5874, 70.4675, -158.445
3.71151, -1, -41.4256, -9.00894, 28.1848, 13.5894, 70.3782, -158.671
3.71986, -1, -41.5919, -9.09407, 28.2185, 13.5913, 70.289, -158.896
3.72764, -1, -41.7583, -9.17915, 28.2521, 13.5934, 70.1999, -159.122
3.73558, -1, -41.9246, -9.26419, 28.2857, 13.5954, 70.1109, -159.347
3.74406, -1, -42.091, -9.34921, 28.3194, 13.5975, 70.0219, -159.573
3.75159, -1, -42.2573, -9.43429, 28.353, 13.5994, 69.9329, -159.798
3.75959, -1, -42.4235, -9.51931, 28.3865, 13.6015, 69.8441, -160.023
3.76833, -1, -42.5899, -9.60428, 28.4201, 13.6035, 69.755, -160.248
3.7755, -1, -42.7563, -9.68922, 28.4536, 13.6055, 69.6661, -160.474
3.78351, -1, -42.9227, -9.77418, 28.487, 13.6075, 69.5775, -160.699
3.79157, -1, -43.0891, -9.85908, 28.5205, 13.6096, 69.4885, -160.924
3.80043, -1, -43.2552, -9.94403, 28.554, 13.6117, 69.3999, -161.148
3.80765, -1, -43.4213, -10.029, 28.5875, 13.6138, 69.3114, -161.373
3.81602, -1, -43.5873, -10.1139, 28.621, 13.6158, 69.2227, -161.598
3.8246, -1, -43.7532, -10.1989, 28.6545, 13.6179, 69.1341, -161.823
3.83185, -1, -43.9191, -10.2836, 28.6879, 13.6201, 69.0457, -162.047
3.83996, -1, -44.0847, -10.3684, 28.7213, 13.6223, 68.9572, -162.271
3.84858, -1, -44.25, -10.4531, 28.7549, 13.6244, 68.8685, -162.496
3.856, -1, -44.4152, -10.5376, 28.7883, 13.6266, 68.7798, -162.72
3.86458, -1, -44.5804, -10.6221, 28.8216, 13.6289, 68.6914, -162.944
3.87267, -1, -44.7455, -10.7066, 28.8551, 13.631, 68.6027, -163.168
3.88006, -1, -44.8282, -10.791, 28.8886, 13.6332, 68.5142, -163.392
3.88821, -1, -45.0763, -10.8755, 28.922, 13.6353, 68.4259, -163.616
3.89629, -1, -45.1589, -10.9177, 28.9387, 13.6375, 68.3374, -163.841
3.9035, -1, -45.3242, -11.0022, 28.9721, 13.6386, 68.2932, -163.953
3.91155, -1, -45.4895, -11.0867, 29.0055, 13.6409, 68.2048, -164.177
3.91951, -1, -45.6547, -11.171, 29.0386, 13.6432, 68.1169, -164.4
3.92845, -1, -45.8199, -11.2555, 29.0719, 13.6455, 68.0283, -164.736
3.93552, -1, -45.9841, -11.3394, 29.1054, 13.6478, 67.9399, -164.848
3.94347, -1, -46.1456, -11.4217, 29.1388, 13.65, 67.8518, -165.071
3.95148, -1, -46.3027, -11.5011, 29.1724, 13.6525, 67.7644, -165.292
3.95954, -1, -46.4532, -11.5762, 29.206, 13.6548, 67.6792, -165.507
3.96747, -1, -46.5945, -11.6462, 29.2382, 13.6571, 67.5976, -165.713
3.97547, -1, -46.7242, -11.7096, 29.2681, 13.6593, 67.5229, -165.903
3.98352, -1, -46.8394, -11.7658, 29.2945, 13.6613, 67.4558, -166.072
3.99146, -1, -46.9384, -11.8151, 29.3167, 13.663, 67.3998, -166.215
3.99949, -1, -47.0212, -11.8582, 29.3333, 13.6643, 67.3549, -166.328
4.00753, -1, -47.0885, -11.8951, 29.3446, 13.665, 67.3212, -166.413
4.01547, -1, -47.1411, -11.9247, 29.3519, 13.6655, 67.2977, -166.472
4.02553, -1, -47.1953, -11.9555, 29.3569, 13.6658, 67.2775, -166.523
4.03156, -1, -47.2079, -11.9625, 29.3576, 13.6658, 67.2737, -166.533
4.03947, -1, -47.2261, -11.9726, 29.3584, 13.6659, 67.2689, -166.545
4.04746, -1, -47.2371, -11.9785, 29.3588, 13.6659, 67.2666, -166.551
4.05554, -1, -47.2428, -11.9815, 29.359, 13.666, 67.2654, -166.553
4.06354, 2, -47.2449, -11.9828, 29.3592, 13.6661, 67.2649, -166.555
4.07146, 2, -47.245, -11.9834, 29.3592, 13.6661, 67.2646, -166.555
4.07955, 2, -47.2449, -11.9836, 29.3593, 13.6661, 67.2645, -166.555
4.08747, 2, -47.2448, -11.9837, 29.3593, 13.6661, 67.2645, -166.556
4.0955, 2, -47.2452, -11.9838, 29.3593, 13.6661, 67.2645, -166.556
4.10354, 2, -47.2461, -11.984, 29.3594, 13.6661, 67.2644, -166.556
4.11146, 2, -47.2474, -11.9845, 29.3594, 13.6661, 67.2644, -166.556
4.11947, 2, -47.2492, -11.9853, 29.3594, 13.6661, 67.2644, -166.556
4.12753, 2, -47.2508, -11.9862, 29.3594, 13.6661, 67.2645, -166.556
4.13547, 2, -47.2522, -11.987, 29.3594, 13.6661, 67.2645, -166.556
4.14347, 2, -47.2531, -11.9877, 29.3594, 13.666, 67.2644, -166.556
4.15155, 2, -47.2535, -11.9881, 29.3594, 13.6661, 67.2644, -166.556
4.15948, 2, -47.2537, -11.9883, 29.3594, 13.6661, 67.2645, -166.556
4.16746, 2, -47.2537, -11.9883, 29.3594, 13.6661, 67.2644, -166.556
4.17554, 2, -47.2534, -11.9883, 29.3594, 13.6661, 67.2645, -166.556
4.18347, 2, -47.2529, -11.9883, 29.3594, 13.6661, 67.2644, -166.556
4.19147, 2, -47.2525, -11.9883, 29.3594, 13.6661, 67.2644, -166.556
4.19957, 2, -47.2522, -11.9883, 29.3594, 13.6662, 67.2644, -166.556
4.20747, 2, -47.252, -11.9883, 29.3594, 13.6661, 67.2645, -166.556
4.2156, 2, -47.252, -11.9884, 29.3594, 13.6661, 67.2644, -166.556
4.22362, 2, -47.2522, -11.9885, 29.3594, 13.6661, 67.2645, -166.556
4.23162, 2, -47.2523, -11.9888, 29.3594, 13.6661, 67.2644, -166.556
4.23957, 2, -47.2529, -11.9892, 29.3594, 13.6661, 67.2644, -166.556
4.24762, 2, -47.2534, -11.9895, 29.3594, 13.6661, 67.2645, -166.556
4.25558, 2, -47.2538, -11.9897, 29.3594, 13.6661, 67.2645, -166.556
4.26357, 2, -47.2539, -11.9898, 29.3594, 13.666, 67.2645, -166.556
4.27163, 2, -47.2539, -11.9898, 29.3594, 13.6661, 67.2645, -166.556
4.27951, 2, -47.2538, -11.9898, 29.3594, 13.6661, 67.2645, -166.556
4.28753, 2, -47.2537, -11.9897, 29.3594, 13.6661, 67.2644, -166.556
4.29561, 2, -47.2532, -11.9896, 29.3594, 13.6661, 67.2644, -166.556
4.30355, 2, -47.2528, -11.9896, 29.3594, 13.6661, 67.2645, -166.556
4.31173, 2, -47.2526, -11.9896, 29.3594, 13.6661, 67.2645, -166.556
4.31979, 2, -47.2524, -11.9896, 29.3594, 13.6661, 67.2646, -166.556
4.32774, 2, -47.2523, -11.9896, 29.3594, 13.666, 67.2645, -166.556
4.33591, 2, -47.2523, -11.9897, 29.3594, 13.6661, 67.2645, -166.556
4.34399, 2, -47.2522, -11.9898, 29.3594, 13.6661, 67.2645, -166.556
4.3526, 2, -47.2522, -11.9898, 29.3594, 13.6661, 67.2645, -166.556
4.36008, 2, -47.2522, -11.9898, 29.3594, 13.6661, 67.2645, -166.556
4.36807, 2, -47.2522, -11.9898, 29.3594, 13.666, 67.2645, -166.555
4.376, 2, -47.2522, -11.9898, 29.3594, 13.666, 67.2645, -166.555
4.3842, 2, -47.2522, -11.9898, 29.3594, 13.666, 67.2645, -166.555
4.3922, 2, -47.2522, -11.9898, 29.3594, 13.666, 67.2645, -166.555
4.40026, 2, -47.2521, -11.9897, 29.3594, 13.666, 67.2645, -166.555
4.40746, 2, -47.252, -11.9896, 29.3594, 13.666, 67.2645, -166.555
4.41551, 2, -47.2519, -11.9896, 29.3594, 13.666, 67.2645, -166.555
4.42345, 2, -47.2518, -11.9896, 29.3594, 13.666, 67.2646, -166.555
4.43146, 2, -47.2517, -11.9896, 29.3594, 13.666, 67.2645, -166.555
4.43951, 2, -47.2516, -11.9895, 29.3594, 13.666, 67.2645, -166.555
4.44745, 2, -47.2515, -11.9896, 29.3594, 13.666, 67.2645, -166.555
4.45546, 2, -47.2514, -11.9896, 29.3594, 13.666, 67.2646, -166.555
4.46363, 2, -47.2514, -11.9896, 29.3594, 13.666, 67.2645, -166.555
4.47145, 2, -47.2514, -11.9896, 29.3594, 13.666, 67.2645, -166.555
4.47945, 2, -47.2513, -11.9896, 29.3594, 13.666, 67.2645, -166.555
4.48751, 2, -47.2512, -11.9896, 29.3594, 13.666, 67.2646, -166.555
4.49545, 2, -47.2511, -11.9896, 29.3594, 13.666, 67.2646, -166.555
4.50345, 2, -47.2511, -11.9895, 29.3594, 13.666, 67.2645, -166.555
4.51152, 2, -47.251, -11.9894, 29.3594, 13.666, 67.2646, -166.555
4.52102, 2, -47.2508, -11.9893, 29.3594, 13.666, 67.2646, -166.555
4.52746, 2, -47.2507, -11.9893, 29.3594, 13.666, 67.2646, -166.555
4.53554, 2, -47.2507, -11.9893, 29.3594, 13.666, 67.2646, -166.555
4.54451, 2, -47.2506, -11.9893, 29.3594, 13.666, 67.2646, -166.555
4.55145, 2, -47.2505, -11.9893, 29.3594, 13.666, 67.2646, -166.555
4.55954, 2, -47.2504, -11.9893, 29.3594, 13.666, 67.2646, -166.555
4.56752, 2, -47.2503, -11.9893, 29.3594, 13.666, 67.2646, -166.555
4.57546, 2, -47.2502, -11.9893, 29.3594, 13.666, 67.2646, -166.555
4.58352, 2, -47.2501, -11.9893, 29.3594, 13.666, 67.2646, -166.555
4.59144, 2, -47.25, -11.9893, 29.3594, 13.666, 67.2646, -166.555
4.59947, 2, -47.2499, -11.9893, 29.3594, 13.666, 67.2646, -166.555
4.60752, 2, -47.2498, -11.9892, 29.3594, 13.666, 67.2646, -166.555
4.61545, 2, -47.2497, -11.9891, 29.3594, 13.666, 67.2646, -166.555
4.62345, 2, -47.2496, -11.989, 29.3594, 13.666, 67.2646, -166.555
4.63152, 2, -47.2495, -11.989, 29.3594, 13.666, 67.2647, -166.555
4.63946, 2, -47.2494, -11.9889, 29.3594, 13.6659, 67.2646, -166.555
4.64745, 2, -47.2493, -11.9889, 29.3594, 13.6659, 67.2647, -166.555
4.65552, 2, -47.2493, -11.9889, 29.3594, 13.6659, 67.2647, -166.555
4.66345, 2, -47.2492, -11.9889, 29.3594, 13.6659, 67.2647, -166.555
4.67145, 2, -47.2491, -11.9889, 29.3594, 13.6659, 67.2647, -166.555
4.67952, 2, -47.2491, -11.9889, 29.3594, 13.6659, 67.2647, -166.555
4.68745, 2, -47.249, -11.9889, 29.3594, 13.6659, 67.2647, -166.555
4.69552, 2, -47.249, -11.9889, 29.3594, 13.6659, 67.2647, -166.555
4.70353, 2, -47.249, -11.9888, 29.3594, 13.6658, 67.2647, -166.555
4.71146, 2, -47.2489, -11.9888, 29.3594, 13.6658, 67.2647, -166.555
4.7195, 2, -47.2488, -11.9887, 29.3594, 13.6658, 67.2647, -166.555
4.7276, 2, -47.2487, -11.9886, 29.3594, 13.6658, 67.2647, -166.555
4.73562, 2, -47.2486, -11.9886, 29.3594, 13.6658, 67.2647, -166.555
4.74355, 2, -47.2486, -11.9886, 29.3594, 13.6658, 67.2647, -166.555
4.75161, 2, -47.2485, -11.9885, 29.3594, 13.6658, 67.2647, -166.555
4.75957, 2, -47.2485, -11.9885, 29.3594, 13.6658, 67.2647, -166.555
4.76755, 2, -47.2485, -11.9885, 29.3594, 13.6658, 67.2647, -166.555
4.77557, 2, -47.2485, -11.9885, 29.3594, 13.6658, 67.2647, -166.555
4.78349, 2, -47.2485, -11.9885, 29.3594, 13.6658, 67.2647, -166.555
4.79149, 2, -47.2485, -11.9885, 29.3594, 13.6658, 67.2647, -166.555
4.79959, 2, -47.2484, -11.9885, 29.3594, 13.6658, 67.2648, -166.555
4.80755, 2, -47.2484, -11.9884, 29.3594, 13.6658, 67.2648, -166.555
4.81597, 2, -47.2483, -11.9883, 29.3594, 13.6658, 67.2647, -166.554
4.82375, 2, -47.2482, -11.9883, 29.3594, 13.6657, 67.2647, -166.554
4.83188, 2, -47.2481, -11.9882, 29.3594, 13.6657, 67.2648, -166.554
4.84053, 2, -47.248, -11.9882, 29.3594, 13.6657, 67.2648, -166.554
4.84793, 2, -47.248, -11.9881, 29.3594, 13.6657, 67.2648, -166.554
4.85599, 2, -47.2479, -11.9881, 29.3594, 13.6657, 67.2648, -166.554
4.86427, 2, -47.2479, -11.9881, 29.3594, 13.6657, 67.2648, -166.554
4.87203, 2, -47.2479, -11.9881, 29.3594, 13.6656, 67.2648, -166.554
4.88024, 2, -47.2478, -11.9881, 29.3594, 13.6656, 67.2648, -166.554
4.88822, 2, -47.2478, -11.9881, 29.3594, 13.6656, 67.2648, -166.554
4.89609, 2, -47.2478, -11.9881, 29.3594, 13.6656, 67.2648, -166.554
4.90404, 2, -47.2478, -11.9881, 29.3594, 13.6656, 67.2648, -166.554
4.91228, 2, -47.2478, -11.988, 29.3594, 13.6656, 67.2649, -166.554
4.9195, 2, -47.2478, -11.988, 29.3594, 13.6656, 67.2649, -166.554
4.92744, 2, -47.2477, -11.9879, 29.3594, 13.6656, 67.2649, -166.554
4.93544, 2, -47.2476, -11.9878, 29.3594, 13.6656, 67.2649, -166.554
4.94349, 2, -47.2474, -11.9878, 29.3594, 13.6655, 67.265, -166.554
4.95143, 2, -47.2474, -11.9877, 29.3594, 13.6655, 67.265, -166.554
4.95946, 2, -47.2473, -11.9877, 29.3594, 13.6655, 67.265, -166.554
4.96749, 2, -47.2473, -11.9877, 29.3594, 13.6654, 67.265, -166.554
4.97723, 2, -47.2472, -11.9877, 29.3594, 13.6654, 67.265, -166.554
4.98344, 2, -47.2472, -11.9877, 29.3594, 13.6654, 67.265, -166.554
4.99151, 2, -47.2472, -11.9877, 29.3594, 13.6654, 67.265, -166.554
4.99945, 2, -47.2472, -11.9877, 29.3594, 13.6655, 67.2651, -166.554
5.00743, 2, -47.2472, -11.9876, 29.3594, 13.6654, 67.2651, -166.554
5.0155, 2, -47.2472, -11.9876, 29.3594, 13.6654, 67.265, -166.554
5.02522, 2, -47.2471, -11.9876, 29.3594, 13.6654, 67.2651, -166.554
5.03143, 2, -47.247, -11.9875, 29.3594, 13.6654, 67.2651, -166.554
5.03953, 2, -47.2469, -11.9874, 29.3594, 13.6653, 67.265, -166.554
5.04743, 2, -47.2469, -11.9874, 29.3594, 13.6653, 67.2651, -166.554
5.05544, 2, -47.2468, -11.9874, 29.3594, 13.6653, 67.2651, -166.554
5.06471, 2, -47.2467, -11.9874, 29.3594, 13.6653, 67.2651, -166.554
5.07151, 2, -47.2467, -11.9873, 29.3594, 13.6653, 67.2651, -166.554
5.07951, 2, -47.2466, -11.9873, 29.3594, 13.6653, 67.2651, -166.554
5.08743, 2, -47.2466, -11.9873, 29.3594, 13.6653, 67.2651, -166.554
5.09549, 2, -47.2465, -11.9873, 29.3594, 13.6652, 67.2651, -166.554
5.1035, 2, -47.2465, -11.9873, 29.3594, 13.6652, 67.2651, -166.554
5.11143, 2, -47.2466, -11.9872, 29.3594, 13.6652, 67.2651, -166.554
5.11959, 2, -47.2466, -11.9872, 29.3594, 13.6652, 67.2651, -166.554
5.1275, 2, -47.2465, -11.9872, 29.3594, 13.6652, 67.2651, -166.554
5.13544, 2, -47.2464, -11.9871, 29.3594, 13.6652, 67.2651, -166.554
5.1434, 4, -47.2463, -11.9871, 29.3594, 13.6652, 67.2651, -166.554
5.1515, 4, -47.2462, -11.987, 29.3594, 13.6652, 67.2651, -166.554
5.15945, 4, -47.2462, -11.987, 29.3594, 13.6652, 67.2652, -166.554
5.16744, 4, -47.2461, -11.987, 29.3594, 13.6652, 67.2652, -166.554
5.1755, 4, -47.246, -11.987, 29.3594, 13.6651, 67.2652, -166.554
5.18344, 4, -47.246, -11.987, 29.3594, 13.6651, 67.2652, -166.554
5.19144, 4, -47.246, -11.9869, 29.3594, 13.6651, 67.2652, -166.554
5.19952, 4, -47.246, -11.9869, 29.3594, 13.6651, 67.2652, -166.554
5.20746, 4, -47.2459, -11.9869, 29.3594, 13.6651, 67.2652, -166.554
5.21546, 4, -47.2459, -11.9869, 29.3594, 13.6651, 67.2652, -166.554
5.22354, 4, -47.2459, -11.9869, 29.3594, 13.6651, 67.2653, -166.554
5.23151, 4, -47.2458, -11.9868, 29.3594, 13.6651, 67.2653, -166.554
5.2396, 4, -47.2458, -11.9868, 29.3594, 13.6651, 67.2653, -166.554
5.24776, 4, -47.2457, -11.9867, 29.3594, 13.6651, 67.2653, -166.554
5.27223, 4, -47.2456, -11.9867, 29.3594, 13.665, 67.2653, -166.553
5.27591, 4, -47.2455, -11.9867, 29.3594, 13.665, 67.2653, -166.553
5.27769, 4, -47.2455, -11.9867, 29.3594, 13.665, 67.2653, -166.553
5.28052, 4, -47.2455, -11.9866, 29.3594, 13.665, 67.2653, -166.553
5.28857, 4, -47.2454, -11.9866, 29.3594, 13.665, 67.2653, -166.553
5.29583, 4, -47.2454, -11.9866, 29.3594, 13.665, 67.2653, -166.553
5.3078, 4, -47.2454, -11.9866, 29.3594, 13.665, 67.2653, -166.553
5.31192, 4, -47.2454, -11.9866, 29.3594, 13.6649, 67.2653, -166.553
5.32, 4, -47.2453, -11.9865, 29.3594, 13.6649, 67.2653, -166.553
5.3283, 4, -47.2453, -11.9865, 29.3594, 13.6649, 67.2654, -166.553
5.33626, 4, -47.2453, -11.9865, 29.3594, 13.6649, 67.2654, -166.553
5.35013, 4, -47.2452, -11.9865, 29.3594, 13.6649, 67.2654, -166.553
5.35283, 4, -47.2452, -11.9864, 29.3594, 13.6649, 67.2654, -166.553
5.36405, 4, -47.2452, -11.9864, 29.3594, 13.6648, 67.2653, -166.553
5.36819, 4, -47.2451, -11.9864, 29.3594, 13.6648, 67.2653, -166.553
5.37993, 4, -47.245, -11.9863, 29.3594, 13.6649, 67.2653, -166.553
5.38432, 4, -47.245, -11.9863, 29.3594, 13.6648, 67.2653, -166.553
5.39276, 4, -47.2449, -11.9863, 29.3594, 13.6648, 67.2653, -166.553
5.40135, 4, -47.2449, -11.9863, 29.3594, 13.6648, 67.2653, -166.553
5.40841, 4, -47.2451, -11.9864, 29.3594, 13.6648, 67.2653, -166.553
5.41705, 4, -47.2454, -11.9865, 29.3595, 13.6648, 67.2654, -166.553
5.42548, 4, -47.2483, -11.9886, 29.3617, 13.6667, 67.266, -166.553
5.43664, 4, -47.2555, -11.997, 29.3723, 13.6865, 67.2708, -166.55
5.44123, 4, -47.2595, -12.0021, 29.3798, 13.7013, 67.2747, -166.547
5.45131, 4, -47.271, -12.0174, 29.4044, 13.7502, 67.2883, -166.536
5.45685, 5, -47.279, -12.0417, 29.4471, 13.8378, 67.3127, -166.517
5.46684, 5, -47.3157, -12.0772, 29.5139, 13.9777, 67.3523, -166.485
5.47356, 5, -47.353, -12.1256, 29.6114, 14.1846, 67.4092, -166.437
5.48108, 5, -47.4026, -12.1884, 29.7437, 14.4696, 67.488, -166.371
5.48966, 5, -47.465, -12.2662, 29.9134, 14.8386, 67.5878, -166.287
5.49751, 5, -47.5398, -12.3592, 30.122, 15.2906, 67.7093, -166.183
5.5037, 5, -47.5818, -12.4112, 30.2403, 15.5457, 67.7773, -166.125
5.51153, 5, -47.6743, -12.5256, 30.5022, 16.1062, 67.9252, -165.998
5.52306, 5, -47.831, -12.7198, 30.9501, 17.0452, 68.1689, -165.788
5.52756, 5, -47.8871, -12.7895, 31.1108, 17.3772, 68.2536, -165.715
5.53798, 5, -48.063, -13.0098, 31.6172, 18.4025, 68.5107, -165.491
5.54367, 5, -48.1233, -13.0857, 31.7912, 18.7496, 68.5961, -165.417
5.55392, 5, -48.3038, -13.3155, 32.3212, 19.7902, 68.8479, -165.195
5.55964, 5, -48.3625, -13.3914, 32.4986, 20.132, 68.93, -165.121
5.56757, 5, -48.475, -13.5401, 32.8515, 20.8013, 69.0912, -164.968
5.57567, 6, -48.5772, -13.6819, 33.1963, 21.4409, 69.2501, -164.799
5.58356, 6, -48.6648, -13.8135, 33.5279, 22.0399, 69.4085, -164.601
5.59573, 7, -48.7606, -13.9918, 33.9906, 22.8497, 69.6513, -164.219
5.59958, 7, -48.7819, -14.0466, 34.1348, 23.0946, 69.7349, -164.062
5.60993, 7, -48.8091, -14.1489, 34.4074, 23.7636, 69.9996, -163.488
5.61564, 8, -48.8169, -14.2403, 34.6603, 23.9688, 70.094, -163.261
5.6267, 9, -48.7951, -14.3594, 35.0119, 24.5493, 70.3985, -162.478
5.63471, 9, -48.7612, -14.432, 35.2332, 24.9216, 70.6202, -161.885
5.64077, 9, -48.7394, -14.467, 35.3419, 25.1064, 70.7359, -161.572
5.64863, 10, -48.6879, -14.5345, 35.5584, 25.4766, 70.9753, -160.924
5.65657, 11, -48.627, -14.5987, 35.7752, 25.8496, 71.2221, -160.256
5.66356, 11, -48.5592, -14.661, 35.9937, 26.2251, 71.4714, -159.582
5.67168, 11, -48.4859, -14.7232, 36.215, 26.6027, 71.7194, -158.91
5.68268, 12, -48.3693, -14.8176, 36.5465, 27.1741, 72.0868, -157.913
5.68758, 12, -48.3293, -14.8492, 36.656, 27.3662, 72.2082, -157.582
5.69942, 13, -48.2063, -14.9438, 36.9806, 27.9481, 72.5714, -156.597
5.70383, 13, -48.1641, -14.9754, 37.0869, 28.1443, 72.6927, -156.269
5.71558, 14, -48.0326, -15.0708, 37.4001, 28.7388, 73.0582, -155.286
5.71978, 14, -47.9869, -15.1026, 37.5031, 28.9387, 73.1808, -154.959
5.72764, 15, -47.8929, -15.1654, 37.7065, 29.3401, 73.4258, -154.306
5.73591, 15, -47.7957, -15.2261, 37.9062, 29.7421, 73.6699, -153.656
5.74537, 16, -47.6942, -15.2855, 38.1038, 30.1435, 73.9124, -153.008
5.75218, 16, -47.5873, -15.3453, 38.2992, 30.5436, 74.1524, -152.365
5.76093, 17, -47.4751, -15.4064, 38.4912, 30.942, 74.3892, -151.726
5.76767, 17, -47.3582, -15.4686, 38.6805, 31.3378, 74.6216, -151.091
5.77724, 18, -47.2365, -15.5314, 38.8681, 31.7305, 74.8493, -150.464
5.78456, 18, -47.1095, -15.5953, 39.0531, 32.1201, 75.0715, -149.844
5.79191, 19, -46.977, -15.6613, 39.2355, 32.5072, 75.2881, -149.231
5.80257, 20, -46.8391, -15.7298, 39.4167, 32.8919, 75.4991, -148.626
5.80984, 20, -46.6962, -15.8004, 39.5966, 33.2744, 75.7048, -148.029
5.81597, 20, -46.5484, -15.8736, 39.774, 33.655, 75.9054, -147.439
5.82407, 21, -46.396, -15.9499, 39.9491, 34.0336, 76.1008, -146.856
5.8321, 21, -46.239, -16.0291, 40.1227, 34.4103, 76.2911, -146.281
5.84062, 22, -46.0768, -16.1107, 40.2943, 34.7843, 76.4758, -145.712
5.85063, 23, -45.9089, -16.1939, 40.4628, 35.155, 76.6553, -145.151
5.85661, 23, -45.735, -16.279, 40.6285, 35.5217, 76.8292, -144.596
5.86472, 23, -45.5545, -16.366, 40.7919, 35.8841, 76.9975, -144.045
5.87273, 24, -45.3675, -16.4545, 40.9515, 36.2417, 77.1605, -143.501
5.88064, 24, -45.1739, -16.5441, 41.1066, 36.5934, 77.3183, -142.961
5.8887, 25, -44.9739, -16.6348, 41.2575, 36.9387, 77.4713, -142.424
5.89677, 25, -44.7675, -16.7262, 41.4039, 37.2775, 77.6197, -141.891
5.90902, 26, -44.4449, -16.8643, 41.614, 37.7723, 77.834, -141.096
5.91453, 27, -44.3337, -16.9103, 41.6812, 37.9336, 77.9035, -140.833
5.92026, 27, -44.2207, -16.9563, 41.747, 38.093, 78.039, -140.306
5.92916, 27, -43.8719, -17.0931, 41.9354, 38.5587, 78.1708, -139.781
5.93555, 28, -43.7523, -17.1384, 41.9951, 38.7099, 78.2354, -139.519
5.94355, 28, -43.5081, -17.2281, 42.1093, 39.0059, 78.3616, -138.996
5.95157, 29, -43.2574, -17.3163, 42.2168, 39.2933, 78.4848, -138.473
5.95955, 29, -43.0001, -17.403, 42.3173, 39.5726, 78.6047, -137.951
5.97042, 30, -42.6003, -17.5296, 42.4546, 39.9754, 78.7785, -137.168
5.9756, 30, -42.4626, -17.5707, 42.4967, 40.1054, 78.8352, -136.907
5.9853, 31, -42.0369, -17.6901, 42.6125, 40.4826, 79.0002, -136.127
5.99157, 31, -41.8911, -17.7287, 42.6475, 40.6041, 79.054, -135.867
6.00146, 32, -41.4434, -17.841, 42.7426, 40.956, 79.2114, -135.087
6.00763, 32, -41.2909, -17.8772, 42.7708, 41.069, 79.2625, -134.828
6.01554, 33, -40.9811, -17.9473, 42.8219, 41.2892, 79.3631, -134.311
6.02717, 33, -40.504, -18.0465, 42.8852, 41.6043, 79.5089, -133.536
6.03558, 34, -40.1792, -18.1093, 42.9182, 41.8041, 79.6028, -133.02
6.03955, 34, -40.0151, -18.1397, 42.932, 41.9009, 79.6488, -132.763
6.0496, 35, -39.5146, -18.2261, 42.9625, 42.1802, 79.783, -131.993
6.05883, 36, -39.1729, -18.2795, 42.9741, 42.357, 79.8698, -131.481
6.06357, 36, -38.9993, -18.3049, 42.9773, 42.4424, 79.9121, -131.225
6.07428, 36, -38.6464, -18.3532, 42.9787, 42.6076, 79.9957, -130.46
6.07966, 37, -38.2871, -18.3982, 42.9733, 42.7652, 80.0767, -130.206
6.09037, 38, -37.7375, -18.4588, 42.9524, 42.9875, 80.1951, -129.447
6.09565, 38, -37.5518, -18.4772, 42.942, 43.058, 80.2332, -129.194
6.10462, 38, -37.177, -18.5115, 42.9165, 43.1932, 80.3085, -128.69
6.11168, 39, -36.7975, -18.5425, 42.8841, 43.3211, 80.381, -128.188
6.12054, 39, -36.4135, -18.5698, 42.8451, 43.4416, 80.4521, -127.688
6.1319, 40, -35.8273, -18.6036, 42.7742, 43.6088, 80.5549, -126.941
6.13655, 40, -35.629, -18.6129, 42.7473, 43.661, 80.5886, -126.693
6.14657, 41, -35.0252, -18.635, 42.6567, 43.8063, 80.6852, -125.952
6.15264, 41, -34.8214, -18.6406, 42.6233, 43.8513, 80.7168, -125.706
6.16315, 42, -34.2046, -18.6524, 42.5135, 43.9755, 80.8078, -124.972
6.16763, 42, -33.9976, -18.6547, 42.4737, 44.0134, 80.8372, -124.728
6.17561, 43, -33.5807, -18.657, 42.3897, 44.0835, 80.8954, -124.243
6.18561, 44, -33.1589, -18.6558, 42.2997, 44.1469, 80.9507, -123.759
6.19293, 44, -32.731, -18.6508, 42.204, 44.203, 81.0053, -123.279
6.19958, 44, -32.2969, -18.642, 42.1027, 44.2515, 81.0583, -122.801
6.20754, 45, -31.8568, -18.6294, 41.9953, 44.2931, 81.1087, -122.325
6.22041, 46, -31.1894, -18.604, 41.823, 44.3416, 81.1827, -121.615
6.22405, 46, -30.9659, -18.5939, 41.7626, 44.3538, 81.2062, -121.379
6.23533, 46, -30.2915, -18.5578, 41.5726, 44.3788, 81.274, -120.677
6.23965, 47, -30.0647, -18.5437, 41.5063, 44.3835, 81.2965, -120.444
6.25187, 48, -29.3754, -18.4945, 41.2987, 44.3873, 81.3615, -119.747
6.25564, 48, -29.1423, -18.4759, 41.2264, 44.3845, 81.3824, -119.516
6.2656, 49, -28.6716, -18.4356, 41.0772, 44.3722, 81.4241, -119.055
6.27173, 49, -28.1963, -18.3909, 40.9223, 44.3515, 81.466, -118.596
6.28056, 50, -27.7188, -18.3418, 40.7613, 44.321, 81.5068, -118.137
6.28766, 50, -27.2385, -18.288, 40.5937, 44.2808, 81.5473, -117.68
6.29667, 50, -26.7538, -18.2286, 40.4196, 44.2321, 81.5892, -117.224
6.31031, 51, -26.2617, -18.1292, 40.1465, 44.1403, 81.6529, -116.541
6.31305, 51, -25.762, -18.0933, 40.0519, 44.105, 81.6741, -116.314
6.31992, 52, -25.2566, -18.0175, 39.8569, 44.0267, 81.7174, -115.861
6.33229, 53, -24.4938, -17.8939, 39.5525, 43.8892, 81.7846, -115.181
6.33785, 53, -24.2385, -17.8498, 39.4478, 43.8385, 81.8069, -114.955
6.34465, 53, -23.7242, -17.7573, 39.2325, 43.7294, 81.8526, -114.503
6.35266, 54, -23.203, -17.6584, 39.0099, 43.6096, 81.901, -114.051
6.36392, 54, -22.4056, -17.4985, 38.6632, 43.4095, 81.9759, -113.374
6.36845, 55, -22.1367, -17.4421, 38.5436, 43.337, 82.0023, -113.148
6.37809, 56, -21.597, -17.3248, 38.2998, 43.1831, 82.057, -112.696
6.38449, 56, -21.0551, -17.2018, 38.0497, 43.0177, 82.1125, -112.244
6.39247, 56, -20.5085, -17.073, 37.7921, 42.8406, 82.1703, -111.794
6.40031, 57, -20.2321, -16.9389, 37.5283, 42.6523, 82.23, -111.343
6.40827, 57, -19.6721, -16.8697, 37.3938, 42.4517, 82.2908, -110.893
6.42096, 58, -18.8182, -16.6529, 36.98, 42.2385, 82.3867, -110.218
6.42352, 58, -18.5317, -16.5775, 36.8392, 42.1272, 82.3867, -110.218
6.43157, 59, -17.9572, -16.4231, 36.5522, 41.8955, 82.4528, -109.769
6.4416, 60, -17.0859, -16.1828, 36.1101, 41.5241, 82.5568, -109.094
6.44753, 60, -16.7907, -16.1003, 35.9595, 41.394, 82.5925, -108.87
6.46145, 61, -15.5892, -15.7569, 35.3448, 40.8412, 82.7398, -107.972
6.46359, 61, -15.5892, -15.7569, 35.3448, 40.8412, 82.7398, -107.972
6.47156, 61, -14.9824, -15.5783, 35.029, 40.5454, 82.8163, -107.524
6.47961, 62, -14.3719, -15.3954, 34.7078, 40.2371, 82.8949, -107.075
6.48753, 62, -13.7529, -15.207, 34.3812, 39.9154, 82.976, -106.627
6.49799, 63, -12.8053, -14.912, 33.8821, 39.406, 83.1032, -105.952
6.50619, 64, -12.1651, -14.7086, 33.5426, 39.0473, 83.1926, -105.502
6.51163, 64, -11.8438, -14.6051, 33.3705, 38.8624, 83.2388, -105.277
6.51995, 64, -11.1974, -14.3931, 33.0214, 38.4814, 83.3343, -104.824
6.5279, 65, -10.5415, -14.1734, 32.6661, 38.0853, 83.4345, -104.371
6.54043, 66, -9.53798, -13.8307, 32.1228, 37.4609, 83.5942, -103.687
6.54352, 66, -9.19936, -13.7133, 31.9391, 37.2448, 83.6502, -103.458
6.55489, 67, -8.17511, -13.3499, 31.3797, 36.5719, 83.827, -102.768
6.55953, 67, -7.83025, -13.2251, 31.1898, 36.3394, 83.889, -102.537
6.56855, 68, -7.13277, -12.9701, 30.8057, 35.862, 84.0185, -102.073
6.57553, 68, -6.42568, -12.7076, 30.4167, 35.3679, 84.1546, -101.606
6.58361, 68, -5.71084, -12.4388, 30.0239, 34.8589, 84.2978, -101.137
6.59673, 69, -4.6268, -12.0212, 29.4269, 34.0672, 84.5244, -100.43
6.60058, 70, -4.26168, -11.878, 29.2263, 33.7966, 84.6032, -100.193
6.61393, 70, -2.77953, -11.2868, 28.4207, 32.6773, 84.9349, -99.2387
6.61629, 70, -2.77953, -11.2868, 28.4207, 32.6773, 84.9349, -99.2387
6.6276, 71, -1.64685, -10.8223, 27.8097, 31.7988, 85.2031, -98.5173
6.63419, 72, -1.26536, -10.6639, 27.6046, 31.4985, 85.393, -98.0324
6.64053, 72, -0.497415, -10.3434, 27.1923, 30.8856, 85.4914, -97.7888
6.64772, 72, 0.276617, -10.0172, 26.7788, 30.2577, 85.6942, -97.2998
6.65553, 73, 1.0563, -9.6824, 26.3657, 29.6199, 85.9043, -96.8084
6.66456, 74, 1.84111, -9.34023, 25.9536, 28.9722, 86.1212, -96.3157
6.67268, 74, 2.62885, -8.99271, 25.5444, 28.3171, 86.3448, -95.8209
6.68055, 74, 3.41909, -8.64126, 25.1392, 27.6555, 86.5746, -95.3244
6.69184, 75, 4.61052, -8.10087, 24.5408, 26.6542, 86.9299, -94.5774
6.69555, 75, 5.00916, -7.91732, 24.3436, 26.3196, 87.0516, -94.3279
6.70534, 76, 5.80744, -7.54501, 23.9521, 25.6472, 87.3001, -93.827
6.71153, 76, 6.60644, -7.16679, 23.5652, 24.971, 87.5566, -93.324
6.72051, 77, 7.40666, -6.7804, 23.1811, 24.2925, 87.8227, -92.8186
6.7296, 78, 8.20857, -6.38584, 22.7998, 23.6097, 88.0996, -92.3111
6.74285, 78, 9.41136, -5.57168, 22.0471, 22.2324, 88.6876, -91.2871
6.75683, 79, 10.2122, -4.93697, 21.493, 21.1958, 89.1581, -90.5091
6.75812, 79, 11.0121, -4.93697, 21.493, 21.1958, 89.1581, -90.5091
6.76111, 80, 11.4109, -4.72049, 21.3104, 20.8512, 89.3203, -90.2479
6.76844, 80, 12.2057, -4.28058, 20.9498, 20.1621, 89.6521, -89.7224
6.7759, 80, 12.9953, -3.83129, 20.5948, 19.4784, 89.9943, -89.1914
6.78352, 81, 13.7796, -3.37408, 20.2461, 18.8035, 90.3456, -88.656
6.79142, 81, 14.557, -2.90985, 19.9041, 18.1393, 90.7055, -88.1163
6.79944, 82, 15.3258, -2.43734, 19.5708, 17.4868, 91.0722, -87.5741
6.80768, 82, 16.0846, -1.9572, 19.2466, 16.8484, 91.4461, -87.0284
6.81568, 83, 16.8325, -1.47025, 18.9321, 16.227, 91.8258, -86.4803
6.82357, 83, 17.568, -0.976556, 18.6265, 15.6239, 92.2118, -85.9307
6.83172, 84, 18.288, -0.477453, 18.3299, 15.0387, 92.6036, -85.3808
6.8397, 84, 18.9911, 0.0262649, 18.0416, 14.4744, 93.0027, -84.8295
6.84845, 85, 19.6778, 0.5354, 17.7594, 13.9308, 93.4089, -84.2785
6.85582, 85, 20.3479, 1.0496, 17.4838, 13.4085, 93.8226, -83.7282
6.8648, 86, 21.0011, 1.56809, 17.2138, 12.9085, 94.2411, -83.1795
6.87201, 86, 21.6384, 2.09165, 16.9505, 12.4306, 94.6644, -82.6309
6.88096, 87, 22.2611, 2.62297, 16.6939, 11.9752, 95.0926, -82.0815
6.88795, 87, 22.8713, 3.1637, 16.4427, 11.5409, 95.5266, -81.5298
6.89676, 87, 23.4712, 3.71333, 16.1966, 11.1259, 95.9665, -80.9751
6.90392, 88, 23.7674, 3.99079, 16.0751, 10.925, 96.1886, -80.4136
6.91138, 88, 24.3525, 4.55146, 15.8353, 10.5351, 96.637, -80.13
6.91946, 89, 24.9262, 5.12221, 15.6016, 10.1614, 97.0917, -79.5559
6.92738, 89, 25.4885, 5.70357, 15.3732, 9.80309, 97.5524, -78.9713
6.93538, 90, 26.0432, 6.29438, 15.1479, 9.46057, 98.0191, -78.3749
6.94339, 90, 26.5911, 6.89364, 14.9267, 9.13259, 98.492, -77.7645
6.95138, 91, 27.1275, 7.50112, 14.7107, 8.82174, 98.9715, -77.1405
6.95939, 91, 27.6495, 8.11811, 14.4993, 8.52899, 99.4569, -76.5044
6.96738, 92, 28.1598, 8.74575, 14.2921, 8.25631, 99.948, -75.8563
6.97538, 92, 28.6621, 9.3839, 14.0896, 8.00554, 100.443, -75.1984
6.98487, 93, 29.4005, 10.357, 13.7958, 7.67118, 101.191, -74.1981
6.99299, 93, 29.8778, 11.0135, 13.6089, 7.47774, 101.69, -73.5221
7.00091, 94, 30.341, 11.6738, 13.4298, 7.30764, 102.187, -72.84
7.0074, 94, 30.5671, 12.005, 13.3429, 7.23144, 102.435, -72.4972
7.01537, 95, 31.0089, 12.6691, 13.1742, 7.09694, 102.928, -71.8083
7.025, 95, 31.4368, 13.6686, 12.936, 6.93964, 103.662, -70.7635
7.03139, 96, 31.8508, 14.0025, 12.8603, 6.89878, 103.905, -70.4126
7.04039, 97, 32.2495, 14.6709, 12.7136, 6.83595, 104.388, -69.7076
7.04744, 97, 32.6321, 15.3398, 12.5733, 6.79585, 104.866, -68.9961
7.05639, 97, 32.9987, 16.008, 12.4403, 6.77674, 105.339, -68.2793
7.06444, 98, 33.3495, 16.6743, 12.3156, 6.77962, 105.806, -67.5601
7.07142, 98, 33.686, 17.3374, 12.1997, 6.80436, 106.264, -66.8369
7.07938, 99, 34.0084, 17.9956, 12.0928, 6.84873, 106.714, -66.1118
7.08741, 99, 34.3181, 18.6477, 11.9953, 6.91344, 107.152, -65.3885
7.09547, 100, 34.6163, 19.2914, 11.9066, 6.99581, 107.578, -64.666
7.10337, 100, 34.9032, 19.9268, 11.8266, 7.0959, 107.991, -63.9457
7.11137, 101, 35.1782, 20.5518, 11.7549, 7.21215, 108.39, -63.232
7.11945, 101, 35.4415, 21.1661, 11.6914, 7.34347, 108.775, -62.5242
7.12735, 102, 35.6937, 21.7685, 11.6364, 7.48805, 109.144, -61.8237
7.13537, 102, 35.9335, 22.3583, 11.59, 7.64448, 109.495, -61.1348
7.14346, 103, 36.1614, 22.9345, 11.5523, 7.81105, 109.829, -60.4565
7.15143, 103, 36.3804, 23.4953, 11.5233, 7.98667, 110.145, -59.7901
7.15939, 103, 36.5922, 24.04, 11.5034, 8.17129, 110.443, -59.1365
7.16745, 104, 36.7966, 24.5687, 11.4924, 8.365, 110.721, -58.4965
7.17537, 104, 36.9936, 25.0812, 11.4888, 8.56782, 110.978, -57.8679
7.18338, 104, 37.1845, 25.5772, 11.4921, 8.7788, 111.216, -57.2523
7.19144, 104, 37.3681, 26.057, 11.5015, 8.99658, 111.433, -56.6507
7.19939, 104, 37.5425, 26.5203, 11.5152, 9.21908, 111.632, -56.0638
7.20738, 104, 37.7081, 26.9668, 11.5318, 9.44419, 111.815, -55.4935
7.2155, 104, 37.8672, 27.3981, 11.5511, 9.66909, 111.984, -54.9422
7.2234, 104, 38.0214, 27.8131, 11.572, 9.89132, 112.142, -54.4134
7.23142, 104, 38.1707, 28.2116, 11.593, 10.1095, 112.291, -53.907
7.23952, 104, 38.3134, 28.5933, 11.6137, 10.3222, 112.431, -53.424
7.24747, 104, 38.4495, 28.9583, 11.6331, 10.5283, 112.564, -52.9653
7.25551, 104, 38.578, 29.3049, 11.6513, 10.7272, 112.688, -52.5308
7.26413, 104, 38.6985, 29.6331, 11.6686, 10.9176, 112.805, -52.1218
7.27243, 104, 38.8106, 29.9418, 11.6845, 11.0993, 112.915, -51.7374
7.27944, 104, 38.9145, 30.2323, 11.6994, 11.2714, 113.017, -51.3779
7.28755, 104, 39.0106, 30.5037, 11.7132, 11.4337, 113.111, -51.0442
7.29541, 104, 39.099, 30.755, 11.7259, 11.5854, 113.198, -50.7359
7.30341, 104, 39.1795, 30.9869, 11.7372, 11.7261, 113.277, -50.4526
7.31149, 104, 39.2522, 31.199, 11.7475, 11.8555, 113.35, -50.1947
7.31965, 104, 39.3172, 31.391, 11.7571, 11.9733, 113.414, -49.962
7.32757, 104, 39.3744, 31.5638, 11.7658, 12.0795, 113.473, -49.7544
7.33574, 104, 39.4246, 31.7172, 11.7733, 12.1733, 113.523, -49.5718
7.34376, 104, 39.4684, 31.8514, 11.7802, 12.2552, 113.567, -49.4139
7.3518, 104, 39.5066, 31.9679, 11.7865, 12.3248, 113.604, -49.2799
7.3599, 104, 39.5387, 32.0675, 11.792, 12.3834, 113.635, -49.1695
7.36852, 104, 39.5652, 32.1509, 11.7969, 12.4297, 113.659, -49.0801
7.37593, 104, 39.5867, 32.2198, 11.8013, 12.4659, 113.677, -49.0107
7.38446, 104, 39.6036, 32.2759, 11.8053, 12.4934, 113.691, -48.9592
7.39232, 104, 39.6166, 32.3207, 11.8089, 12.5135, 113.701, -48.9225
7.39995, 104, 39.6219, 32.3551, 11.8122, 12.5274, 113.707, -48.8975
7.40836, 104, 39.6338, 32.3808, 11.8151, 12.5366, 113.711, -48.8816
7.4164, 104, 39.639, 32.4, 11.8176, 12.5421, 113.713, -48.8725
7.42345, 104, 39.6408, 32.4076, 11.8187, 12.5439, 113.714, -48.8697
7.43142, 104, 39.6432, 32.419, 11.8205, 12.5462, 113.714, -48.8667
7.43937, 104, 39.6444, 32.4261, 11.8218, 12.5472, 113.715, -48.8654
7.44737, 105, 39.6445, 32.4306, 11.8229, 12.5478, 113.715, -48.8648
7.4566, 105, 39.6432, 32.4347, 11.8242, 12.5482, 113.715, -48.8648
7.46337, 105, 39.6427, 32.4357, 11.8245, 12.5482, 113.715, -48.8648
7.47136, 105, 39.6417, 32.4374, 11.8252, 12.5482, 113.715, -48.8652
7.48077, 105, 39.6402, 32.4393, 11.8261, 12.5483, 113.715, -48.8656
7.48742, 105, 39.6397, 32.4399, 11.8263, 12.5483, 113.715, -48.8658
7.49537, 105, 39.6389, 32.441, 11.8269, 12.5484, 113.715, -48.8661
7.50491, 105, 39.6383, 32.4426, 11.8278, 12.5483, 113.715, -48.8665
7.51305, 105, 39.638, 32.4436, 11.8283, 12.5483, 113.715, -48.8668
7.51936, 105, 39.6379, 32.4441, 11.8285, 12.5483, 113.715, -48.8669
7.52743, 105, 39.6376, 32.4449, 11.829, 12.5483, 113.715, -48.8671
7.53705, 105, 39.6373, 32.4455, 11.8293, 12.5483, 113.715, -48.8675
7.54334, 105, 39.637, 32.4459, 11.8296, 12.5483, 113.715, -48.8676
7.55143, 105, 39.6367, 32.4461, 11.8299, 12.5483, 113.715, -48.8679
7.55938, 105, 39.6364, 32.4462, 11.8301, 12.5483, 113.715, -48.8682
