hehonglu123/Motion-Primitive-Planning/ILC/recorded_data/realrobot/from_NX/iteration_7/run_2.csv
timestamp, cmd_num, J1, J2, J3, J4, J5, J6
0.000358, -1, 39.6319, 32.446, 11.8315, 12.5469, 113.714, -48.8709
0.004654, -1, 39.6319, 32.446, 11.8315, 12.5469, 113.714, -48.8709
0.008034, -1, 39.6319, 32.446, 11.8315, 12.5469, 113.714, -48.8709
0.028805, -1, 39.6319, 32.446, 11.8315, 12.5469, 113.714, -48.8709
0.031515, -1, 39.6319, 32.446, 11.8315, 12.5469, 113.714, -48.871
0.034827, -1, 39.6319, 32.446, 11.8315, 12.5469, 113.714, -48.871
0.039985, -1, 39.6319, 32.446, 11.8315, 12.5469, 113.714, -48.871
0.047924, -1, 39.6319, 32.446, 11.8315, 12.5469, 113.714, -48.871
0.055995, -1, 39.6314, 32.446, 11.8315, 12.5469, 113.714, -48.8709
0.063909, -1, 39.6291, 32.4455, 11.8315, 12.5469, 113.714, -48.8709
0.071943, -1, 39.6237, 32.4442, 11.8314, 12.5469, 113.714, -48.8712
0.079991, -1, 39.6149, 32.4412, 11.8314, 12.5469, 113.713, -48.8724
0.08792, -1, 39.6016, 32.4358, 11.8313, 12.5469, 113.712, -48.8771
0.095916, -1, 39.5819, 32.4273, 11.8314, 12.5469, 113.708, -48.8883
0.104037, -1, 39.5533, 32.4146, 11.8318, 12.5468, 113.701, -48.9088
0.111944, -1, 39.5149, 32.397, 11.8339, 12.5468, 113.689, -48.9424
0.119998, -1, 39.4655, 32.3732, 11.8388, 12.5468, 113.67, -48.9927
0.128075, -1, 39.4034, 32.3428, 11.8471, 12.5469, 113.643, -49.0643
0.136145, -1, 39.328, 32.305, 11.8598, 12.5469, 113.605, -49.1587
0.143714, -1, 39.2389, 32.2594, 11.8776, 12.5472, 113.559, -49.2785
0.152084, -1, 39.1359, 32.2059, 11.9001, 12.5477, 113.502, -49.4239
0.159979, -1, 39.0188, 32.1445, 11.9268, 12.5486, 113.435, -49.5937
0.167945, -1, 38.8882, 32.0758, 11.9574, 12.5501, 113.359, -49.7861
0.17617, -1, 38.7453, 32.0005, 11.9914, 12.552, 113.275, -49.9979
0.182894, -1, 38.6695, 31.9605, 12.0093, 12.553, 113.231, -50.1101
0.192214, -1, 38.4266, 31.8331, 12.0654, 12.5563, 113.09, -50.4654
0.198894, -1, 38.3413, 31.7885, 12.0848, 12.5576, 113.041, -50.5886
0.208099, -1, 38.0758, 31.6497, 12.1433, 12.5611, 112.892, -50.9669
0.214901, -1, 37.9846, 31.6023, 12.1628, 12.5624, 112.841, -51.0949
0.22427, -1, 37.7048, 31.4575, 12.221, 12.5659, 112.689, -51.482
0.23097, -1, 37.6099, 31.4087, 12.2404, 12.5671, 112.637, -51.6117
0.240723, -1, 37.323, 31.2618, 12.2985, 12.5708, 112.483, -52.001
0.24844, -1, 37.1309, 31.164, 12.3373, 12.5733, 112.381, -52.2606
0.256433, -1, 36.9387, 31.0663, 12.3761, 12.5759, 112.278, -52.5207
0.264554, -1, 36.7468, 30.9685, 12.4148, 12.5785, 112.175, -52.7811
0.27255, -1, 36.5551, 30.8708, 12.4537, 12.5811, 112.072, -53.0415
0.280475, -1, 36.4593, 30.822, 12.4926, 12.5836, 111.969, -53.3017
0.288719, -1, 36.2678, 30.7243, 12.512, 12.5862, 111.866, -53.5622
0.295908, -1, 36.0763, 30.6265, 12.5508, 12.5875, 111.815, -53.6924
0.303896, -1, 35.8847, 30.5285, 12.5898, 12.5902, 111.712, -53.9531
0.31197, -1, 35.6931, 30.4305, 12.6287, 12.5926, 111.608, -54.2135
0.319908, -1, 35.5013, 30.3325, 12.6676, 12.5952, 111.506, -54.4738
0.32791, -1, 35.309, 30.2342, 12.7063, 12.5978, 111.402, -54.7343
0.335975, -1, 35.1165, 30.1359, 12.7452, 12.6004, 111.299, -54.9949
0.343936, -1, 34.9242, 30.0375, 12.7841, 12.603, 111.196, -55.2557
0.351917, -1, 34.732, 29.939, 12.8229, 12.6057, 111.093, -55.5162
0.48874, -1, 31.4537, 28.2637, 13.4845, 12.651, 109.341, -59.9541
0.490733, -1, 31.3571, 28.2144, 13.504, 12.6523, 109.289, -60.0848
0.491997, -1, 31.3571, 28.2144, 13.504, 12.6523, 109.289, -60.0848
0.493271, -1, 31.3571, 28.2144, 13.504, 12.6523, 109.289, -60.0848
0.49598, -1, 31.2607, 28.1652, 13.5234, 12.6537, 109.238, -60.2154
0.497279, -1, 31.2607, 28.1652, 13.5234, 12.6537, 109.238, -60.2154
0.499338, -1, 31.1643, 28.1159, 13.543, 12.6551, 109.187, -60.3461
0.502809, -1, 31.068, 28.0667, 13.5625, 12.6565, 109.135, -60.4769
0.504072, -1, 31.068, 28.0667, 13.5625, 12.6565, 109.135, -60.4769
0.50551, -1, 31.068, 28.0667, 13.5625, 12.6565, 109.135, -60.4769
0.50775, -1, 30.9719, 28.0174, 13.5821, 12.6579, 109.083, -60.6077
0.508955, -1, 30.9719, 28.0174, 13.5821, 12.6579, 109.083, -60.6077
0.511795, -1, 30.8758, 27.9681, 13.6016, 12.6593, 109.032, -60.7384
0.513056, -1, 30.8758, 27.9681, 13.6016, 12.6593, 109.032, -60.7384
0.515107, -1, 30.7798, 27.9188, 13.621, 12.6607, 108.98, -60.869
0.520734, -1, 30.6838, 27.8696, 13.6405, 12.6621, 108.929, -60.9997
0.522657, -1, 30.5878, 27.8203, 13.66, 12.6635, 108.877, -61.1303
0.524089, -1, 30.5878, 27.8203, 13.66, 12.6635, 108.877, -61.1303
0.525307, -1, 30.5878, 27.8203, 13.66, 12.6635, 108.877, -61.1303
0.527405, -1, 30.4918, 27.771, 13.6795, 12.665, 108.825, -61.261
0.5287, -1, 30.4918, 27.771, 13.6795, 12.665, 108.825, -61.261
0.53064, -1, 30.4918, 27.7216, 13.699, 12.6664, 108.774, -61.3917
0.538538, -1, 30.2998, 27.6722, 13.738, 12.6691, 108.67, -61.6534
0.54398, -1, 30.1076, 27.5735, 13.7575, 12.6704, 108.619, -61.7843
0.551928, -1, 29.915, 27.4748, 13.7965, 12.6732, 108.516, -62.0458
0.559909, -1, 29.7221, 27.376, 13.8353, 12.6759, 108.412, -62.3074
0.567976, -1, 29.5285, 27.2772, 13.8742, 12.6784, 108.309, -62.5691
0.575916, -1, 29.3345, 27.1785, 13.9132, 12.681, 108.206, -62.831
0.584519, -1, 29.1403, 27.0796, 13.9522, 12.6835, 108.102, -63.0926
0.591965, -1, 28.9458, 26.9807, 13.9912, 12.686, 107.999, -63.354
0.599897, -1, 28.7516, 26.8818, 14.0301, 12.6885, 107.896, -63.6155
0.609399, -1, 28.5574, 26.7829, 14.0691, 12.6909, 107.792, -63.8772
0.615944, -1, 28.3636, 26.6842, 14.1082, 12.6935, 107.689, -64.139
0.624047, -1, 28.1702, 26.5855, 14.1471, 12.6959, 107.586, -64.4004
0.631984, -1, 27.9771, 26.4867, 14.1861, 12.6984, 107.483, -64.6623
0.64013, -1, 27.7844, 26.3878, 14.2252, 12.7008, 107.379, -64.9241
0.778782, -1, 24.4996, 24.7075, 14.8875, 12.7402, 105.624, -69.3731
0.780614, -1, 24.4034, 24.6581, 14.907, 12.7414, 105.572, -69.504
0.782055, -1, 24.4034, 24.6581, 14.907, 12.7414, 105.572, -69.504
0.783252, -1, 24.4034, 24.6581, 14.907, 12.7414, 105.572, -69.504
0.785446, -1, 24.3072, 24.6086, 14.9266, 12.7426, 105.52, -69.6349
0.786693, -1, 24.3072, 24.6086, 14.9266, 12.7426, 105.52, -69.6349
0.788592, -1, 24.3072, 24.5592, 14.9461, 12.7438, 105.469, -69.7656
0.793059, -1, 24.1147, 24.5098, 14.9656, 12.7449, 105.417, -69.8964
0.79454, -1, 24.1147, 24.5098, 14.9656, 12.7449, 105.417, -69.8964
0.795739, -1, 24.1147, 24.5098, 14.9656, 12.7449, 105.417, -69.8964
0.798613, -1, 24.0184, 24.4604, 14.9851, 12.7461, 105.366, -70.0271
0.799885, -1, 24.0184, 24.4604, 14.9851, 12.7461, 105.366, -70.0271
0.802717, -1, 23.922, 24.411, 15.0046, 12.7473, 105.314, -70.1579
0.803937, -1, 23.922, 24.411, 15.0046, 12.7473, 105.314, -70.1579
0.805969, -1, 23.8256, 24.3616, 15.024, 12.7485, 105.262, -70.2888
0.809497, -1, 23.7292, 24.3122, 15.0434, 12.7498, 105.21, -70.4196
0.810713, -1, 23.7292, 24.3122, 15.0434, 12.7498, 105.21, -70.4196
0.811985, -1, 23.7292, 24.3122, 15.0434, 12.7498, 105.21, -70.4196
0.813967, -1, 23.6327, 24.2628, 15.0629, 12.7509, 105.159, -70.5505
0.815247, -1, 23.6327, 24.2628, 15.0629, 12.7509, 105.159, -70.5505
0.817243, -1, 23.5361, 24.2134, 15.0824, 12.7521, 105.107, -70.6815
0.8187, -1, 23.5361, 24.2134, 15.0824, 12.7521, 105.107, -70.6815
0.825904, -1, 23.3426, 24.1145, 15.1214, 12.7545, 105.004, -70.9431
0.831885, -1, 23.2457, 24.065, 15.1408, 12.7557, 104.952, -71.074
0.839936, -1, 23.0518, 23.9661, 15.1797, 12.7581, 104.849, -71.3357
0.84789, -1, 22.8578, 23.8672, 15.2186, 12.7607, 104.745, -71.5976
0.854871, -1, 22.6638, 23.7684, 15.2576, 12.7631, 104.642, -71.8595
0.863908, -1, 22.4701, 23.6698, 15.2966, 12.7656, 104.539, -72.1208
0.871885, -1, 22.2767, 23.5711, 15.3355, 12.7682, 104.435, -72.3823
0.879949, -1, 22.0834, 23.4724, 15.3744, 12.7708, 104.332, -72.6438
0.887879, -1, 21.8903, 23.3737, 15.4134, 12.7734, 104.228, -72.9055
0.895884, -1, 21.6978, 23.2749, 15.4524, 12.7761, 104.125, -73.1668
0.905481, -1, 21.5057, 23.1268, 15.5108, 12.7802, 103.971, -73.5589
0.911899, -1, 21.3134, 23.0774, 15.5303, 12.7815, 103.919, -73.6896
0.919898, -1, 21.121, 22.9788, 15.5693, 12.7842, 103.816, -73.9512
0.928939, -1, 20.9286, 22.8801, 15.6082, 12.7869, 103.713, -74.2125
0.935879, -1, 20.7361, 22.7815, 15.6472, 12.7896, 103.61, -74.4736
0.944018, -1, 20.5434, 22.6829, 15.6861, 12.7924, 103.506, -74.7349
0.952919, -1, 20.3504, 22.5843, 15.7249, 12.7951, 103.404, -74.9962
0.958935, -1, 20.1567, 22.4855, 15.7639, 12.7979, 103.301, -75.2575
0.967946, -1, 19.9631, 22.3868, 15.8028, 12.8007, 103.198, -75.5185
0.975904, -1, 19.7696, 22.2881, 15.8415, 12.8034, 103.095, -75.7797
0.983881, -1, 19.5759, 22.1895, 15.8804, 12.8061, 102.992, -76.0409
0.991945, -1, 19.3825, 22.0909, 15.9193, 12.8089, 102.888, -76.3022
0.999897, -1, 19.1895, 21.9922, 15.9581, 12.8116, 102.786, -76.5629
1.0079, -1, 18.9967, 21.8936, 15.9971, 12.8144, 102.682, -76.8236
1.01594, -1, 18.8042, 21.795, 16.0359, 12.817, 102.579, -77.0846
1.02388, -1, 18.6122, 21.6962, 16.0746, 12.8197, 102.477, -77.3457
1.03187, -1, 18.4204, 21.5977, 16.1136, 12.8224, 102.374, -77.6065
1.03996, -1, 18.2284, 21.4991, 16.1525, 12.825, 102.271, -77.8672
1.04788, -1, 18.0364, 21.4007, 16.1912, 12.8275, 102.168, -78.128
1.05588, -1, 17.8446, 21.3024, 16.2302, 12.83, 102.065, -78.3889
1.06394, -1, 17.6526, 21.204, 16.269, 12.8325, 101.962, -78.6495
1.07188, -1, 17.4602, 21.1057, 16.3078, 12.835, 101.859, -78.9098
1.07992, -1, 17.2673, 21.0073, 16.3467, 12.8374, 101.756, -79.1704
1.08794, -1, 17.0742, 20.909, 16.3854, 12.8398, 101.653, -79.4311
1.09588, -1, 16.8812, 20.8108, 16.4243, 12.8421, 101.55, -79.6916
1.10395, -1, 16.6881, 20.7126, 16.4631, 12.8444, 101.448, -79.952
1.11204, -1, 16.495, 20.6144, 16.5018, 12.8468, 101.345, -80.2125
1.1194, -1, 16.3022, 20.5161, 16.5405, 12.849, 101.242, -80.4732
1.12803, -1, 16.11, 20.4177, 16.5792, 12.8514, 101.14, -80.7338
1.13597, -1, 15.9181, 20.3193, 16.6179, 12.8537, 101.037, -80.9939
1.14349, -1, 15.7264, 20.2209, 16.6567, 12.8559, 100.934, -81.2538
1.15205, -1, 15.5352, 20.1225, 16.6953, 12.8583, 100.832, -81.5141
1.15999, -1, 15.344, 20.0242, 16.7339, 12.8606, 100.729, -81.7743
1.16794, -1, 15.1529, 19.926, 16.7727, 12.8629, 100.627, -82.0341
1.17609, -1, 14.9617, 19.8278, 16.8114, 12.8651, 100.524, -82.2939
1.18287, -1, 14.866, 19.7787, 16.8307, 12.8663, 100.473, -82.4238
1.19193, -1, 14.5788, 19.6315, 16.8888, 12.8697, 100.319, -82.8139
1.20007, -1, 14.3869, 19.5334, 16.9275, 12.872, 100.216, -83.0736
1.20686, -1, 14.2908, 19.4844, 16.9468, 12.8731, 100.165, -83.2033
1.21617, -1, 14.0023, 19.3374, 17.0049, 12.8764, 100.011, -83.5926
1.22286, -1, 13.9061, 19.2884, 17.0242, 12.8776, 99.9598, -83.7224
1.23221, -1, 13.6173, 19.1417, 17.0821, 12.881, 99.8061, -84.1118
1.23888, -1, 13.5211, 19.0928, 17.1015, 12.8822, 99.7548, -84.2414
1.2484, -1, 13.2329, 18.9459, 17.1592, 12.8857, 99.6014, -84.6304
1.25673, -1, 13.0414, 18.848, 17.1978, 12.8881, 99.499, -84.8897
1.26446, -1, 12.8502, 18.75, 17.2365, 12.8903, 99.3965, -85.1491
1.27247, -1, 12.6592, 18.6521, 17.275, 12.8927, 99.2944, -85.4079
1.28049, -1, 12.4686, 18.5544, 17.3136, 12.8952, 99.192, -85.6668
1.28841, -1, 12.3735, 18.5055, 17.3329, 12.8964, 99.0898, -85.9258
1.29643, -1, 12.1834, 18.4077, 17.3713, 12.8988, 99.0388, -86.0554
1.30392, -1, 11.9932, 18.31, 17.4098, 12.9012, 98.9367, -86.3143
1.3113, -1, 11.8028, 18.2125, 17.4485, 12.9036, 98.8347, -86.5727
1.31992, -1, 11.6122, 18.1148, 17.487, 12.9061, 98.7329, -86.8313
1.32792, -1, 11.4213, 18.0171, 17.5255, 12.9085, 98.631, -87.0899
1.33567, -1, 11.2301, 17.9196, 17.5641, 12.9109, 98.5289, -87.3485
1.34292, -1, 11.0386, 17.822, 17.6026, 12.9134, 98.4271, -87.6068
1.35186, -1, 10.847, 17.7246, 17.641, 12.9159, 98.3251, -87.865
1.35994, -1, 10.6552, 17.6272, 17.6795, 12.9184, 98.2231, -88.1233
1.36786, -1, 10.4638, 17.5296, 17.7178, 12.9209, 98.1215, -88.3817
1.37597, -1, 10.2727, 17.4321, 17.7563, 12.9234, 98.0195, -88.6399
1.38394, -1, 10.0818, 17.3345, 17.7947, 12.9261, 97.9176, -88.8979
1.39186, -1, 9.8913, 17.2369, 17.833, 12.9287, 97.816, -89.1561
1.39987, -1, 9.7012, 17.1394, 17.8713, 12.9313, 97.7139, -89.4142
1.40768, -1, 9.51159, 17.042, 17.9097, 12.9341, 97.6119, -89.6722
1.4159, -1, 9.32232, 16.9447, 17.948, 12.9368, 97.5102, -89.9298
1.42386, -1, 9.13305, 16.8474, 17.9864, 12.9395, 97.4082, -90.1872
1.43286, -1, 8.94378, 16.7502, 18.0247, 12.9421, 97.3064, -90.4449
1.43986, -1, 8.75429, 16.6531, 18.063, 12.9448, 97.2047, -90.7025
1.44793, -1, 8.56475, 16.5559, 18.1015, 12.9474, 97.103, -90.9596
1.4559, -1, 8.375, 16.4588, 18.1398, 12.9501, 97.0016, -91.2168
1.46386, -1, 8.1847, 16.3618, 18.1781, 12.9528, 96.9, -91.474
1.47191, -1, 7.99412, 16.2649, 18.2165, 12.9554, 96.7984, -91.7313
1.47988, -1, 7.80362, 16.168, 18.2547, 12.958, 96.6971, -91.9882
1.48786, -1, 7.61305, 16.0711, 18.293, 12.9606, 96.5954, -92.2449
1.49594, -1, 7.42258, 15.9741, 18.3313, 12.9632, 96.494, -92.5017
1.50388, -1, 7.23242, 15.8772, 18.3694, 12.9656, 96.3929, -92.7585
1.51188, -1, 7.04254, 15.7802, 18.4076, 12.9682, 96.2915, -93.0153
1.51993, -1, 6.85307, 15.6833, 18.446, 12.9708, 96.1902, -93.2716
1.52788, -1, 6.6642, 15.5864, 18.484, 12.9732, 96.0895, -93.528
1.53588, -1, 6.47572, 15.4896, 18.5221, 12.9758, 95.9884, -93.7844
1.54393, -1, 6.28754, 15.3928, 18.5603, 12.9782, 95.8874, -94.0408
1.55189, -1, 6.09939, 15.2961, 18.5984, 12.9807, 95.7866, -94.2967
1.55986, -1, 5.9112, 15.1994, 18.6366, 12.983, 95.6856, -94.5526
1.56792, -1, 5.72276, 15.1027, 18.6748, 12.9853, 95.5845, -94.8086
1.57589, -1, 5.53428, 15.0061, 18.7128, 12.9876, 95.484, -95.0645
1.58388, -1, 5.34549, 14.9096, 18.7509, 12.99, 95.383, -95.3202
1.59203, -1, 5.15637, 14.8132, 18.7891, 12.9922, 95.2824, -95.5756
1.60007, -1, 4.967, 14.7168, 18.8272, 12.9945, 95.1819, -95.8311
1.60786, -1, 4.7776, 14.6205, 18.8652, 12.9967, 95.081, -96.0867
1.6159, -1, 4.58824, 14.5241, 18.9033, 12.9989, 94.9802, -96.3419
1.62511, -1, 4.39902, 14.4278, 18.9413, 13.0011, 94.8795, -96.5967
1.63148, -1, 4.20999, 14.3314, 18.9793, 13.0032, 94.7786, -96.8517
1.64007, -1, 4.02128, 14.235, 19.0173, 13.0055, 94.6778, -97.1067
1.64796, -1, 3.83327, 14.1388, 19.0552, 13.0078, 94.5771, -97.3618
1.65597, -1, 3.64574, 14.0426, 19.0932, 13.01, 94.4763, -97.6164
1.66451, -1, 3.45855, 13.9464, 19.1311, 13.0124, 94.3757, -97.871
1.67186, -1, 3.27163, 13.8504, 19.1689, 13.0147, 94.2751, -98.1258
1.68011, -1, 3.08463, 13.7543, 19.2068, 13.0169, 94.1744, -98.3805
1.68685, -1, 2.99115, 13.7063, 19.2258, 13.018, 94.124, -98.5077
1.69484, -1, 2.80419, 13.6102, 19.2637, 13.0203, 94.0236, -98.7619
1.70397, -1, 2.52321, 13.4663, 19.3206, 13.0237, 93.8727, -99.1432
1.71288, -1, 2.33586, 13.3704, 19.3583, 13.026, 93.7724, -99.3974
1.72013, -1, 2.14805, 13.2746, 19.3961, 13.0283, 93.672, -99.6514
1.72686, -1, 2.05396, 13.2267, 19.415, 13.0294, 93.6219, -99.7783
1.73712, -1, 1.77176, 13.083, 19.4718, 13.0328, 93.472, -100.159
1.74297, -1, 1.67762, 13.035, 19.4906, 13.034, 93.4219, -100.285
1.75085, -1, 1.48938, 12.9392, 19.5284, 13.0361, 93.3217, -100.539
1.76127, -1, 1.20757, 12.7955, 19.5851, 13.0396, 93.1719, -100.919
1.7669, -1, 1.11384, 12.7476, 19.6039, 13.0408, 93.1218, -101.046
1.77647, -1, 0.833578, 12.6042, 19.6605, 13.0443, 92.9718, -101.425
1.78536, -1, 0.740366, 12.5564, 19.6981, 13.0468, 92.8722, -101.678
1.79091, -1, 0.554175, 12.4608, 19.7169, 13.048, 92.8222, -101.805
1.80069, -1, 0.368349, 12.3655, 19.7546, 13.0517, 92.6726, -102.184
1.80785, -1, 0.182807, 12.2701, 19.7923, 13.0529, 92.6231, -102.31
1.81493, -1, -0.00258104, 12.1748, 19.8298, 13.0553, 92.5235, -102.563
1.8239, -1, -0.188155, 12.0795, 19.8675, 13.0577, 92.4239, -102.815
1.83186, -1, -0.373916, 11.9843, 19.9051, 13.0602, 92.3245, -103.068
1.83884, -1, -0.560019, 11.8891, 19.9426, 13.0627, 92.225, -103.32
1.84793, -1, -0.746265, 11.7941, 19.9802, 13.0652, 92.1255, -103.572
1.85585, -1, -0.932792, 11.6991, 20.0177, 13.0677, 92.0262, -103.824
1.86285, -1, -1.11954, 11.604, 20.0551, 13.0702, 91.9268, -104.076
1.87188, -1, -1.30653, 11.509, 20.0927, 13.0728, 91.8275, -104.327
1.87985, -1, -1.4934, 11.4139, 20.1302, 13.0753, 91.7284, -104.579
1.88684, -1, -1.68, 11.3188, 20.1676, 13.0779, 91.6292, -104.83
1.89585, -1, -1.86619, 11.2237, 20.205, 13.0805, 91.5299, -105.082
1.90385, -1, -2.05193, 11.1288, 20.2425, 13.0831, 91.4309, -105.333
1.91092, -1, -2.23704, 11.0339, 20.2798, 13.0857, 91.3316, -105.584
1.91988, -1, -2.42188, 10.939, 20.3172, 13.0884, 91.2324, -105.835
1.92884, -1, -2.60626, 10.8443, 20.3546, 13.091, 91.1335, -106.086
1.93486, -1, -2.79024, 10.7495, 20.3918, 13.0937, 91.0343, -106.337
1.94385, -1, -2.97417, 10.6548, 20.4292, 13.0963, 90.9352, -106.588
1.95186, -1, -3.15824, 10.5601, 20.4666, 13.099, 90.8365, -106.838
1.95991, -1, -3.34246, 10.4656, 20.5037, 13.1015, 90.7375, -107.089
1.96786, -1, -3.52706, 10.3711, 20.541, 13.104, 90.6386, -107.339
1.97585, -1, -3.71185, 10.2768, 20.5783, 13.1066, 90.5399, -107.589
1.98386, -1, -3.89691, 10.1824, 20.6155, 13.109, 90.441, -107.839
1.99185, -1, -4.08225, 10.088, 20.6528, 13.1114, 90.3423, -108.089
1.99992, -1, -4.26784, 9.99377, 20.6899, 13.1138, 90.2438, -108.339
2.00785, -1, -4.45346, 9.89941, 20.7271, 13.1162, 90.1451, -108.589
2.01599, -1, -4.63877, 9.80508, 20.7644, 13.1186, 90.0465, -108.839
2.02385, -1, -4.82371, 9.71089, 20.8015, 13.1209, 89.9482, -109.088
2.03185, -1, -5.00824, 9.61682, 20.8385, 13.1233, 89.8496, -109.338
2.03992, -1, -5.19203, 9.52278, 20.8757, 13.1256, 89.7512, -109.587
2.04785, -1, -5.3754, 9.42874, 20.9128, 13.1279, 89.653, -109.836
2.05585, -1, -5.55838, 9.33488, 20.9498, 13.1302, 89.5545, -110.084
2.06393, -1, -5.74083, 9.24097, 20.987, 13.1325, 89.4563, -110.333
2.07187, -1, -5.92318, 9.14703, 21.024, 13.1349, 89.3583, -110.582
2.07985, -1, -6.10555, 9.05319, 21.0609, 13.137, 89.2601, -110.831
2.08793, -1, -6.28825, 8.95937, 21.098, 13.1392, 89.162, -111.079
2.09584, -1, -6.47116, 8.8657, 21.1349, 13.1414, 89.0644, -111.327
2.10385, -1, -6.6543, 8.77206, 21.1716, 13.1436, 88.9663, -111.576
2.11192, -1, -6.83789, 8.67844, 21.2086, 13.1458, 88.8684, -111.824
2.1199, -1, -7.02181, 8.58484, 21.2455, 13.1479, 88.7707, -112.072
2.12793, -1, -7.20601, 8.49133, 21.2824, 13.1501, 88.6728, -112.319
2.13605, -1, -7.39022, 8.39771, 21.3193, 13.1521, 88.5749, -112.567
2.144, -1, -7.57404, 8.3041, 21.3562, 13.1543, 88.4774, -112.815
2.15195, -1, -7.75754, 8.21068, 21.3928, 13.1564, 88.3797, -113.062
2.16003, -1, -7.94061, 8.1173, 21.4297, 13.1587, 88.2824, -113.309
2.16794, -1, -8.12322, 8.02393, 21.4666, 13.161, 88.1851, -113.556
2.17589, -1, -8.30502, 7.93069, 21.5032, 13.1632, 88.0877, -113.803
2.18418, -1, -8.48639, 7.83743, 21.5401, 13.1654, 87.9902, -114.05
2.19083, -1, -8.57695, 7.79081, 21.5585, 13.1665, 87.9416, -114.174
2.19997, -1, -8.84817, 7.65103, 21.6136, 13.17, 87.7955, -114.543
2.20804, -1, -9.02892, 7.55793, 21.6503, 13.1722, 87.6981, -114.79
2.21484, -1, -9.1194, 7.51141, 21.6687, 13.1733, 87.6496, -114.913
2.22448, -1, -9.39117, 7.37209, 21.7236, 13.1766, 87.5037, -115.283
2.23216, -1, -9.57279, 7.27928, 21.7603, 13.1789, 87.4066, -115.529
2.23888, -1, -9.66372, 7.23286, 21.7786, 13.18, 87.3582, -115.652
2.24837, -1, -9.93715, 7.09376, 21.8334, 13.1833, 87.2123, -116.021
2.25639, -1, -10.1196, 7.00103, 21.87, 13.1855, 87.1151, -116.267
2.26436, -1, -10.3023, 6.90826, 21.9066, 13.1878, 87.018, -116.513
2.27259, -1, -10.4849, 6.8155, 21.9432, 13.19, 86.9208, -116.758
2.28043, -1, -10.6671, 6.72282, 21.9798, 13.1922, 86.8237, -117.003
2.2884, -1, -10.7581, 6.67652, 22.0162, 13.1946, 86.7269, -117.249
2.29651, -1, -10.9396, 6.5839, 22.0526, 13.1971, 86.63, -117.494
2.30383, -1, -11.1205, 6.49133, 22.0709, 13.1983, 86.5816, -117.616
2.31189, -1, -11.3006, 6.39885, 22.1075, 13.2007, 86.4851, -117.861
2.31999, -1, -11.4804, 6.30633, 22.1439, 13.2031, 86.3883, -118.106
2.32785, -1, -11.6598, 6.21391, 22.1803, 13.2055, 86.2916, -118.351
2.33584, -1, -11.8391, 6.12152, 22.2169, 13.208, 86.1951, -118.596
2.34384, -1, -12.0183, 6.02928, 22.2532, 13.2105, 86.0984, -118.84
2.35192, -1, -12.1976, 5.93715, 22.2896, 13.2129, 86.0019, -119.084
2.35988, -1, -12.3773, 5.84514, 22.3261, 13.2154, 85.9057, -119.328
2.36785, -1, -12.5575, 5.75309, 22.3623, 13.2179, 85.8093, -119.572
2.37584, -1, -12.7379, 5.6611, 22.3986, 13.2204, 85.7129, -119.816
2.38389, -1, -12.9187, 5.5692, 22.435, 13.2228, 85.6171, -120.06
2.39184, -1, -13.0999, 5.47724, 22.4713, 13.2253, 85.521, -120.303
2.39985, -1, -13.2811, 5.38523, 22.5074, 13.2277, 85.4251, -120.547
2.40683, -1, -13.4621, 5.2933, 22.5438, 13.2301, 85.3294, -120.791
2.41584, -1, -13.6428, 5.2014, 22.58, 13.2327, 85.2336, -121.034
2.42386, -1, -13.823, 5.10955, 22.616, 13.2353, 85.1378, -121.277
2.43283, -1, -14.0026, 5.01773, 22.6522, 13.2378, 85.0421, -121.52
2.43983, -1, -14.1813, 4.92601, 22.6884, 13.2404, 84.9465, -121.763
2.44786, -1, -14.3595, 4.83432, 22.7244, 13.2429, 84.8509, -122.006
2.45591, -1, -14.5374, 4.74269, 22.7607, 13.2454, 84.7553, -122.248
2.46383, -1, -14.7151, 4.65112, 22.7969, 13.248, 84.6597, -122.49
2.47185, -1, -14.8927, 4.55963, 22.8329, 13.2505, 84.564, -122.733
2.47983, -1, -15.0704, 4.4682, 22.8691, 13.2529, 84.4684, -122.975
2.48784, -1, -15.2485, 4.37696, 22.9052, 13.2553, 84.3727, -123.217
2.49592, -1, -15.4269, 4.28566, 22.9412, 13.2577, 84.277, -123.459
2.50385, -1, -15.6058, 4.1944, 22.9773, 13.26, 84.1815, -123.701
2.51183, -1, -15.785, 4.10316, 23.0133, 13.2624, 84.086, -123.942
2.51999, -1, -15.9643, 4.01192, 23.0492, 13.2646, 83.9906, -124.184
2.52783, -1, -16.1439, 3.92061, 23.0852, 13.2667, 83.8952, -124.425
2.53592, -1, -16.3236, 3.82935, 23.1213, 13.2688, 83.7998, -124.667
2.54392, -1, -16.503, 3.73812, 23.157, 13.271, 83.7043, -124.908
2.55186, -1, -16.682, 3.64696, 23.1929, 13.2732, 83.6089, -125.15
2.55982, -1, -16.8605, 3.55586, 23.2288, 13.2755, 83.5135, -125.391
2.56839, -1, -17.0379, 3.46486, 23.2646, 13.2777, 83.4181, -125.631
2.57491, -1, -17.2148, 3.37392, 23.3004, 13.2799, 83.3229, -125.872
2.58384, -1, -17.3914, 3.28303, 23.3363, 13.2821, 83.2279, -126.113
2.59263, -1, -17.5676, 3.19221, 23.3721, 13.2842, 83.1327, -126.353
2.59983, -1, -17.7437, 3.10159, 23.4079, 13.2864, 83.0379, -126.593
2.60787, -1, -17.9197, 3.01098, 23.4439, 13.2885, 82.9432, -126.834
2.61663, -1, -18.096, 2.9205, 23.4796, 13.2906, 82.8482, -127.074
2.62387, -1, -18.2725, 2.83014, 23.5153, 13.2928, 82.7535, -127.314
2.63198, -1, -18.4494, 2.73973, 23.5512, 13.2947, 82.659, -127.554
2.64079, -1, -18.627, 2.64933, 23.5868, 13.2968, 82.5642, -127.793
2.64793, -1, -18.8047, 2.55897, 23.6225, 13.2988, 82.4696, -128.033
2.656, -1, -18.9827, 2.46853, 23.6582, 13.3008, 82.3754, -128.272
2.66474, -1, -19.161, 2.37802, 23.6938, 13.3028, 82.2808, -128.512
2.67189, -1, -19.3391, 2.28766, 23.7294, 13.3048, 82.1865, -128.751
2.68001, -1, -19.5167, 2.19724, 23.7651, 13.307, 82.0927, -128.99
2.68882, -1, -19.6938, 2.10685, 23.8006, 13.3092, 81.9984, -129.229
2.69589, -1, -19.8703, 2.01658, 23.836, 13.3113, 81.9042, -129.468
2.70399, -1, -20.0461, 1.92633, 23.8716, 13.3135, 81.8103, -129.707
2.71284, -1, -20.2213, 1.83612, 23.9072, 13.3157, 81.716, -129.945
2.72008, -1, -20.3962, 1.74601, 23.9426, 13.3179, 81.6221, -130.184
2.72681, -1, -20.4835, 1.70096, 23.9603, 13.319, 81.5751, -130.303
2.73716, -1, -20.7453, 1.56594, 24.0137, 13.3222, 81.4342, -130.66
2.74282, -1, -20.8326, 1.52098, 24.0314, 13.3233, 81.3873, -130.78
2.75229, -1, -21.0949, 1.38636, 24.0847, 13.3266, 81.2469, -131.136
2.76034, -1, -21.2703, 1.2966, 24.1202, 13.3288, 81.153, -131.374
2.76844, -1, -21.446, 1.20686, 24.1555, 13.331, 81.0591, -131.612
2.77641, -1, -21.622, 1.11729, 24.1909, 13.3332, 80.9653, -131.849
2.78702, -1, -21.7981, 1.02766, 24.2264, 13.3353, 80.8715, -132.087
2.79238, -1, -21.8863, 0.98282, 24.2441, 13.3364, 80.8246, -132.324
2.80035, -1, -22.0628, 0.893205, 24.2795, 13.3385, 80.7309, -132.443
2.80918, -1, -22.2394, 0.803683, 24.3149, 13.3407, 80.6374, -132.68
2.81487, -1, -22.4157, 0.714169, 24.3502, 13.3429, 80.5437, -132.917
2.8249, -1, -22.6792, 0.579927, 24.403, 13.3465, 80.4033, -133.272
2.83082, -1, -22.7668, 0.535226, 24.4206, 13.3477, 80.3566, -133.391
2.83983, -1, -22.9412, 0.445839, 24.4559, 13.3501, 80.2629, -133.627
2.84781, -1, -23.115, 0.356402, 24.491, 13.3526, 80.1694, -133.864
2.85596, -1, -23.2885, 0.267082, 24.5262, 13.355, 80.076, -134.101
2.86281, -1, -23.4616, 0.177805, 24.5614, 13.3574, 79.9824, -134.337
2.87179, -1, -23.6348, 0.0886493, 24.5966, 13.3598, 79.8891, -134.574
2.87987, -1, -23.8082, -0.000452337, 24.6318, 13.3622, 79.796, -134.81
2.88682, -1, -23.9816, -0.0894326, 24.6669, 13.3646, 79.7027, -135.046
2.89581, -1, -24.1553, -0.178408, 24.7019, 13.3671, 79.6096, -135.282
2.90388, -1, -24.3292, -0.267378, 24.737, 13.3695, 79.5167, -135.517
2.91081, -1, -24.5035, -0.356251, 24.7722, 13.372, 79.4236, -135.753
2.91981, -1, -24.6782, -0.445181, 24.8072, 13.3744, 79.3305, -135.988
2.92881, -1, -24.8531, -0.534073, 24.8421, 13.3768, 79.2375, -136.224
2.93581, -1, -25.0282, -0.622905, 24.8773, 13.3792, 79.1446, -136.459
2.94387, -1, -25.2031, -0.711732, 24.9123, 13.3815, 79.0515, -136.694
2.95189, -1, -25.3776, -0.800458, 24.9473, 13.3838, 78.9589, -136.929
2.95981, -1, -25.5518, -0.889254, 24.9824, 13.3863, 78.8663, -137.164
2.96781, -1, -25.7253, -0.977976, 25.0172, 13.3888, 78.7735, -137.4
2.97588, -1, -25.8982, -1.06664, 25.052, 13.3912, 78.6809, -137.634
2.98381, -1, -26.0706, -1.15538, 25.0871, 13.3936, 78.5887, -137.869
2.99182, -1, -26.2427, -1.24405, 25.122, 13.396, 78.4959, -138.103
2.9999, -1, -26.4145, -1.33254, 25.1568, 13.3984, 78.4033, -138.338
3.00782, -1, -26.5863, -1.42096, 25.1918, 13.4007, 78.3111, -138.572
3.01588, -1, -26.7584, -1.50932, 25.2267, 13.4029, 78.2184, -138.806
3.02389, -1, -26.9306, -1.59752, 25.2616, 13.4052, 78.1261, -139.04
3.03181, -1, -27.1031, -1.68565, 25.2964, 13.4073, 78.034, -139.274
3.03988, -1, -27.2756, -1.77388, 25.3313, 13.4095, 77.9417, -139.508
3.04781, -1, -27.4485, -1.86197, 25.366, 13.4117, 77.8497, -139.742
3.0558, -1, -27.6217, -1.95008, 25.4007, 13.4137, 77.7577, -139.975
3.06388, -1, -27.795, -2.03826, 25.4357, 13.4159, 77.6656, -140.208
3.0718, -1, -27.9683, -2.12624, 25.4704, 13.4178, 77.5736, -140.442
3.07981, -1, -28.1416, -2.21429, 25.5051, 13.4199, 77.4816, -140.675
3.0879, -1, -28.3147, -2.30231, 25.5399, 13.422, 77.3896, -140.908
3.09584, -1, -28.4875, -2.39036, 25.5747, 13.424, 77.2974, -141.141
3.10381, -1, -28.6598, -2.47828, 25.6093, 13.4262, 77.2054, -141.374
3.11189, -1, -28.8315, -2.56629, 25.644, 13.4283, 77.1135, -141.607
3.11981, -1, -29.0025, -2.65426, 25.6787, 13.4305, 77.0215, -141.84
3.12786, -1, -29.1731, -2.74212, 25.7132, 13.4327, 76.9296, -142.072
3.13597, -1, -29.3437, -2.82997, 25.7479, 13.4347, 76.8379, -142.305
3.14392, -1, -29.5144, -2.91769, 25.7826, 13.4368, 76.7459, -142.537
3.15198, -1, -29.6853, -3.00525, 25.8171, 13.4388, 76.6541, -142.769
3.15992, -1, -29.8564, -3.09278, 25.8517, 13.4408, 76.5625, -143.002
3.16792, -1, -30.0273, -3.18022, 25.8863, 13.443, 76.4705, -143.234
3.17645, -1, -30.1983, -3.26773, 25.9209, 13.445, 76.3788, -143.466
3.18382, -1, -30.3694, -3.35515, 25.9554, 13.4471, 76.2874, -143.698
3.19203, -1, -30.541, -3.44259, 25.99, 13.4491, 76.1957, -143.93
3.20077, -1, -30.7128, -3.53012, 26.0244, 13.4512, 76.1043, -144.161
3.20793, -1, -30.8847, -3.61749, 26.0589, 13.4532, 76.013, -144.393
3.21484, -1, -30.9705, -3.6612, 26.0762, 13.4541, 75.9673, -144.508
3.22486, -1, -31.228, -3.79223, 26.1279, 13.4573, 75.8302, -144.855
3.23206, -1, -31.3994, -3.87955, 26.1623, 13.4593, 75.7389, -145.087
3.23882, -1, -31.4849, -3.92321, 26.1795, 13.4604, 75.6934, -145.202
3.24909, -1, -31.7407, -4.05407, 26.2312, 13.4637, 75.5564, -145.549
3.25628, -1, -31.9107, -4.1413, 26.2655, 13.4658, 75.4652, -145.779
3.26279, -1, -31.9955, -4.1849, 26.2826, 13.4669, 75.4198, -145.895
3.27317, -1, -32.2498, -4.31558, 26.3342, 13.4703, 75.283, -146.241
3.27886, -1, -32.3345, -4.35912, 26.3513, 13.4713, 75.2375, -146.357
3.28861, -1, -32.5889, -4.48958, 26.4027, 13.4745, 75.1014, -146.702
3.2973, -1, -32.6738, -4.53303, 26.4199, 13.4766, 75.0104, -146.933
3.30286, -1, -32.8434, -4.61994, 26.4542, 13.4777, 74.9651, -147.048
3.31282, -1, -33.0979, -4.7503, 26.5054, 13.481, 74.8293, -147.393
3.3198, -1, -33.1828, -4.79373, 26.5226, 13.482, 74.7839, -147.508
3.32691, -1, -33.3527, -4.88055, 26.5569, 13.4843, 74.6932, -147.738
3.33703, -1, -33.6081, -5.01097, 26.6081, 13.4876, 74.5573, -148.083
3.3428, -1, -33.6933, -5.05438, 26.6252, 13.4887, 74.5121, -148.198
3.35182, -1, -33.8635, -5.14114, 26.6595, 13.491, 74.4214, -148.428
3.35991, -1, -34.0337, -5.22788, 26.6936, 13.4932, 74.3309, -148.657
3.3678, -1, -34.2039, -5.31462, 26.7277, 13.4955, 74.2406, -148.886
3.37481, -1, -34.374, -5.40126, 26.762, 13.4977, 74.1498, -149.116
3.3838, -1, -34.5437, -5.48789, 26.7961, 13.5001, 74.0593, -149.345
3.39181, -1, -34.713, -5.57454, 26.8301, 13.5024, 73.9688, -149.575
3.39879, -1, -34.8818, -5.66113, 26.8643, 13.5048, 73.8782, -149.804
3.40779, -1, -35.0503, -5.74765, 26.8984, 13.5073, 73.7877, -150.033
3.4158, -1, -35.2185, -5.83411, 26.9325, 13.5098, 73.6974, -150.262
3.42535, -1, -35.3868, -5.92045, 26.9666, 13.5121, 73.5619, -150.605
3.43181, -1, -35.5554, -6.00667, 27.0007, 13.5145, 73.5168, -150.72
3.4408, -1, -35.7239, -6.09293, 27.0346, 13.5168, 73.4264, -150.948
3.44679, -1, -35.8925, -6.17907, 27.0686, 13.5192, 73.3362, -151.177
3.45579, -1, -36.0609, -6.26521, 27.1028, 13.5217, 73.2457, -151.405
3.46469, -1, -36.2295, -6.35133, 27.1367, 13.5241, 73.1553, -151.634
3.4708, -1, -36.3981, -6.43755, 27.1706, 13.5265, 73.0651, -151.863
3.47981, -1, -36.567, -6.5238, 27.2047, 13.5288, 72.9746, -152.091
3.4886, -1, -36.7358, -6.60997, 27.2386, 13.5311, 72.8843, -152.319
3.4958, -1, -36.9047, -6.69613, 27.2725, 13.5334, 72.7943, -152.547
3.50379, -1, -37.0738, -6.7823, 27.3065, 13.5357, 72.7041, -152.775
3.51566, -1, -37.3268, -6.91144, 27.3574, 13.539, 72.5692, -153.117
3.51985, -1, -37.4111, -6.95445, 27.3743, 13.5402, 72.5244, -153.23
3.52788, -1, -37.5792, -7.04054, 27.4083, 13.5424, 72.4344, -153.458
3.53588, -1, -37.7469, -7.12657, 27.4423, 13.5447, 72.3446, -153.686
3.54379, -1, -37.9145, -7.21257, 27.4761, 13.5469, 72.2548, -153.913
3.55181, -1, -38.082, -7.29851, 27.51, 13.5491, 72.1651, -154.141
3.55987, -1, -38.2494, -7.38438, 27.5441, 13.5512, 72.0753, -154.368
3.56779, -1, -38.4168, -7.47012, 27.5779, 13.5534, 71.9856, -154.595
3.57581, -1, -38.584, -7.55581, 27.6117, 13.5554, 71.8962, -154.822
3.58387, -1, -38.7514, -7.64155, 27.6457, 13.5576, 71.8064, -155.05
3.5918, -1, -38.9187, -7.72724, 27.6795, 13.5597, 71.717, -155.277
3.59989, -1, -39.086, -7.81283, 27.7132, 13.5617, 71.6279, -155.503
3.60779, -1, -39.2535, -7.89853, 27.7471, 13.5637, 71.5383, -155.73
3.6158, -1, -39.421, -7.98422, 27.7809, 13.5657, 71.4491, -155.957
3.62405, -1, -39.5886, -8.06976, 27.8145, 13.5677, 71.3598, -156.183
3.63185, -1, -39.7563, -8.15531, 27.8482, 13.5696, 71.2704, -156.41
3.63989, -1, -39.9239, -8.2408, 27.882, 13.5715, 71.1811, -156.636
3.64822, -1, -40.0915, -8.32625, 27.9157, 13.5734, 71.0916, -156.863
3.65534, -1, -40.259, -8.4116, 27.9494, 13.5754, 71.0026, -157.089
3.6639, -1, -40.4262, -8.49698, 27.9832, 13.5774, 70.9131, -157.315
3.67245, -1, -40.5932, -8.58236, 28.0168, 13.5794, 70.8239, -157.541
3.67979, -1, -40.76, -8.66776, 28.0504, 13.5814, 70.735, -157.767
3.68779, -1, -40.9266, -8.75312, 28.0841, 13.5834, 70.6458, -157.993
3.6967, -1, -41.093, -8.83841, 28.1178, 13.5853, 70.5566, -158.219
3.70382, -1, -41.2592, -8.92368, 28.1514, 13.5874, 70.4676, -158.445
3.71191, -1, -41.4254, -9.00884, 28.1849, 13.5894, 70.3783, -158.671
3.72082, -1, -41.5917, -9.09401, 28.2186, 13.5914, 70.2891, -158.896
3.728, -1, -41.758, -9.17911, 28.2522, 13.5934, 70.2, -159.122
3.73481, -1, -41.8411, -9.22165, 28.2689, 13.5943, 70.1556, -159.234
3.74512, -1, -42.0908, -9.34916, 28.3194, 13.5974, 70.0219, -159.573
3.75085, -1, -42.1739, -9.39168, 28.3362, 13.5984, 69.9774, -159.685
3.76033, -1, -42.4233, -9.51924, 28.3864, 13.6015, 69.8442, -160.023
3.7692, -1, -42.5897, -9.60422, 28.42, 13.6035, 69.7551, -160.248
3.77484, -1, -42.6729, -9.6467, 28.4367, 13.6045, 69.7107, -160.361
3.78438, -1, -42.9225, -9.77408, 28.4868, 13.6075, 69.5776, -160.698
3.79255, -1, -43.0057, -9.859, 28.5203, 13.6096, 69.4886, -160.923
3.8012, -1, -43.172, -9.90147, 28.5371, 13.6106, 69.4, -161.148
3.80678, -1, -43.3381, -9.98641, 28.5706, 13.6127, 69.3556, -161.26
3.81688, -1, -43.5871, -10.1138, 28.6208, 13.6158, 69.2227, -161.598
3.82378, -1, -43.6701, -10.1563, 28.6376, 13.6168, 69.1784, -161.71
3.83082, -1, -43.8359, -10.2411, 28.671, 13.619, 69.09, -161.935
3.83978, -1, -44.0017, -10.3259, 28.7044, 13.6212, 69.0016, -162.159
3.84778, -1, -44.1671, -10.4107, 28.7378, 13.6232, 68.9129, -162.383
3.85585, -1, -44.3324, -10.4953, 28.7714, 13.6254, 68.8243, -162.608
3.86386, -1, -44.4976, -10.5798, 28.8048, 13.6277, 68.7358, -162.832
3.87178, -1, -44.6627, -10.6643, 28.8381, 13.6298, 68.6471, -163.056
3.87983, -1, -44.828, -10.7488, 28.8717, 13.632, 68.5585, -163.28
3.88778, -1, -44.9934, -10.8333, 28.9051, 13.6342, 68.4701, -163.504
3.89579, -1, -45.1587, -10.9178, 28.9385, 13.6364, 68.3819, -163.728
3.90384, -1, -45.324, -11.0023, 28.9719, 13.6386, 68.2933, -163.952
3.91178, -1, -45.4892, -11.0867, 29.0053, 13.6409, 68.205, -164.176
3.91977, -1, -45.6545, -11.1711, 29.0385, 13.6432, 68.117, -164.4
3.92785, -1, -45.8197, -11.2555, 29.0718, 13.6455, 68.0284, -164.624
3.93581, -1, -45.9839, -11.3394, 29.1053, 13.6478, 67.94, -164.847
3.94377, -1, -46.1454, -11.4218, 29.1387, 13.65, 67.852, -165.07
3.95185, -1, -46.3026, -11.5012, 29.1723, 13.6524, 67.7645, -165.291
3.95977, -1, -46.453, -11.5763, 29.2058, 13.6548, 67.6793, -165.507
3.96778, -1, -46.5943, -11.6463, 29.2381, 13.6571, 67.5978, -165.713
3.97587, -1, -46.7241, -11.7097, 29.268, 13.6593, 67.523, -165.903
3.98377, -1, -46.8393, -11.7659, 29.2944, 13.6613, 67.4558, -166.072
3.99178, -1, -46.9383, -11.8152, 29.3166, 13.663, 67.3999, -166.214
3.99985, -1, -47.0211, -11.8583, 29.3333, 13.6643, 67.3549, -166.328
4.00777, -1, -47.0886, -11.8952, 29.3446, 13.6651, 67.3211, -166.413
4.01579, -1, -47.1411, -11.9247, 29.3519, 13.6655, 67.2977, -166.472
4.02385, -1, -47.1802, -11.9469, 29.3558, 13.6657, 67.2826, -166.51
4.03181, -1, -47.208, -11.9625, 29.3577, 13.6658, 67.2737, -166.533
4.03977, -1, -47.2263, -11.9726, 29.3585, 13.6659, 67.2689, -166.545
4.04785, -1, -47.2372, -11.9785, 29.3589, 13.6659, 67.2666, -166.551
4.0558, 2, -47.2428, -11.9815, 29.3591, 13.666, 67.2654, -166.554
4.06378, 2, -47.2449, -11.9828, 29.3593, 13.666, 67.2649, -166.555
4.07185, 2, -47.2451, -11.9834, 29.3593, 13.666, 67.2646, -166.555
4.07977, 2, -47.2448, -11.9836, 29.3594, 13.666, 67.2645, -166.556
4.08778, 2, -47.2448, -11.9837, 29.3594, 13.6661, 67.2644, -166.556
4.09587, 2, -47.2452, -11.9838, 29.3595, 13.666, 67.2644, -166.556
4.1038, 2, -47.2461, -11.984, 29.3595, 13.6661, 67.2644, -166.556
4.11178, 2, -47.2474, -11.9846, 29.3595, 13.6661, 67.2644, -166.556
4.11986, 2, -47.2492, -11.9854, 29.3595, 13.6661, 67.2644, -166.556
4.1278, 2, -47.2508, -11.9862, 29.3595, 13.666, 67.2644, -166.556
4.13585, 2, -47.2521, -11.9871, 29.3595, 13.666, 67.2644, -166.556
4.14395, 2, -47.253, -11.9877, 29.3595, 13.6661, 67.2644, -166.556
4.15188, 2, -47.2535, -11.9882, 29.3595, 13.666, 67.2644, -166.556
4.15989, 2, -47.2537, -11.9883, 29.3595, 13.6661, 67.2644, -166.556
4.16796, 2, -47.2538, -11.9884, 29.3595, 13.6661, 67.2644, -166.556
4.17589, 2, -47.2535, -11.9884, 29.3595, 13.666, 67.2644, -166.556
4.18378, 2, -47.253, -11.9884, 29.3595, 13.666, 67.2645, -166.556
4.19194, 2, -47.2525, -11.9884, 29.3595, 13.666, 67.2644, -166.556
4.19989, 2, -47.2522, -11.9884, 29.3595, 13.666, 67.2644, -166.556
4.20794, 2, -47.252, -11.9884, 29.3595, 13.666, 67.2644, -166.556
4.21603, 2, -47.252, -11.9885, 29.3595, 13.6661, 67.2644, -166.556
4.22277, 2, -47.2521, -11.9885, 29.3595, 13.6661, 67.2644, -166.556
4.23199, 2, -47.2523, -11.9889, 29.3595, 13.6661, 67.2644, -166.556
4.24019, 2, -47.2529, -11.9893, 29.3595, 13.666, 67.2645, -166.556
4.24677, 2, -47.2532, -11.9895, 29.3595, 13.666, 67.2645, -166.556
4.25655, 2, -47.2538, -11.9898, 29.3595, 13.666, 67.2644, -166.556
4.26439, 2, -47.2539, -11.9899, 29.3595, 13.666, 67.2644, -166.556
4.2723, 2, -47.254, -11.9899, 29.3595, 13.666, 67.2645, -166.556
4.28031, 2, -47.2539, -11.9899, 29.3595, 13.666, 67.2644, -166.556
4.28843, 2, -47.2537, -11.9898, 29.3595, 13.666, 67.2645, -166.556
4.29637, 2, -47.2534, -11.9898, 29.3595, 13.6661, 67.2645, -166.556
4.30457, 2, -47.253, -11.9897, 29.3595, 13.6661, 67.2645, -166.556
4.31239, 2, -47.2527, -11.9897, 29.3595, 13.6661, 67.2645, -166.556
4.31977, 2, -47.2524, -11.9897, 29.3595, 13.666, 67.2645, -166.556
4.32776, 2, -47.2523, -11.9897, 29.3595, 13.666, 67.2645, -166.556
4.33583, 2, -47.2522, -11.9898, 29.3595, 13.666, 67.2645, -166.556
4.34376, 2, -47.2522, -11.9899, 29.3595, 13.666, 67.2644, -166.556
4.35177, 2, -47.2522, -11.9899, 29.3595, 13.666, 67.2645, -166.556
4.35982, 2, -47.2522, -11.99, 29.3595, 13.666, 67.2645, -166.556
4.36784, 2, -47.2523, -11.99, 29.3595, 13.666, 67.2645, -166.556
4.37578, 2, -47.2523, -11.99, 29.3595, 13.6659, 67.2645, -166.556
4.38385, 2, -47.2523, -11.99, 29.3595, 13.666, 67.2645, -166.556
4.39176, 2, -47.2522, -11.9899, 29.3595, 13.666, 67.2645, -166.555
4.39975, 2, -47.2521, -11.9899, 29.3595, 13.666, 67.2645, -166.555
4.40781, 2, -47.2519, -11.9898, 29.3595, 13.666, 67.2645, -166.556
4.41577, 2, -47.2518, -11.9898, 29.3595, 13.666, 67.2645, -166.556
4.42376, 2, -47.2516, -11.9897, 29.3595, 13.666, 67.2645, -166.556
4.43183, 2, -47.2516, -11.9897, 29.3595, 13.666, 67.2645, -166.555
4.44133, 2, -47.2515, -11.9897, 29.3595, 13.666, 67.2645, -166.555
4.44776, 2, -47.2514, -11.9898, 29.3595, 13.666, 67.2645, -166.555
4.45583, 2, -47.2514, -11.9898, 29.3595, 13.666, 67.2645, -166.555
4.46376, 2, -47.2513, -11.9898, 29.3595, 13.666, 67.2645, -166.555
4.47176, 2, -47.2513, -11.9898, 29.3595, 13.666, 67.2645, -166.555
4.47982, 2, -47.2512, -11.9898, 29.3595, 13.666, 67.2645, -166.555
4.48776, 2, -47.2512, -11.9898, 29.3595, 13.666, 67.2645, -166.555
4.49577, 2, -47.2512, -11.9897, 29.3595, 13.666, 67.2645, -166.555
4.50383, 2, -47.2511, -11.9897, 29.3595, 13.666, 67.2645, -166.555
4.51176, 2, -47.2509, -11.9896, 29.3595, 13.666, 67.2646, -166.555
4.51976, 2, -47.2508, -11.9895, 29.3595, 13.666, 67.2646, -166.555
4.52782, 2, -47.2508, -11.9895, 29.3595, 13.666, 67.2646, -166.555
4.53585, 2, -47.2507, -11.9895, 29.3595, 13.666, 67.2646, -166.555
4.54376, 2, -47.2506, -11.9895, 29.3595, 13.6659, 67.2646, -166.555
4.55186, 2, -47.2505, -11.9895, 29.3595, 13.6659, 67.2646, -166.555
4.55982, 2, -47.2504, -11.9895, 29.3595, 13.6659, 67.2646, -166.555
4.56776, 2, -47.2503, -11.9895, 29.3595, 13.6659, 67.2646, -166.555
4.57584, 2, -47.2502, -11.9895, 29.3595, 13.6659, 67.2646, -166.555
4.58376, 2, -47.2501, -11.9895, 29.3595, 13.6659, 67.2646, -166.555
4.59176, 2, -47.25, -11.9895, 29.3595, 13.6659, 67.2646, -166.555
4.59984, 2, -47.2499, -11.9894, 29.3595, 13.6659, 67.2646, -166.555
4.60778, 2, -47.2498, -11.9893, 29.3595, 13.6659, 67.2646, -166.555
4.61577, 2, -47.2496, -11.9892, 29.3595, 13.6659, 67.2646, -166.555
4.62383, 2, -47.2495, -11.9892, 29.3595, 13.6659, 67.2646, -166.555
4.63179, 2, -47.2495, -11.9891, 29.3595, 13.6658, 67.2646, -166.555
4.63984, 2, -47.2493, -11.9891, 29.3595, 13.6659, 67.2646, -166.555
4.64794, 2, -47.2493, -11.9891, 29.3595, 13.6658, 67.2647, -166.555
4.65587, 2, -47.2492, -11.9891, 29.3595, 13.6658, 67.2647, -166.555
4.66387, 2, -47.2491, -11.9891, 29.3595, 13.6658, 67.2647, -166.555
4.67194, 2, -47.2491, -11.9891, 29.3595, 13.6658, 67.2647, -166.555
4.67981, 2, -47.249, -11.9891, 29.3595, 13.6659, 67.2647, -166.555
4.68776, 2, -47.2489, -11.9891, 29.3595, 13.6659, 67.2647, -166.555
4.69594, 2, -47.2488, -11.9891, 29.3595, 13.6658, 67.2647, -166.555
4.70388, 2, -47.2488, -11.989, 29.3595, 13.6658, 67.2647, -166.555
4.71187, 2, -47.2487, -11.989, 29.3595, 13.6658, 67.2647, -166.555
4.71999, 2, -47.2487, -11.9888, 29.3595, 13.6658, 67.2647, -166.555
4.72675, 2, -47.2486, -11.9888, 29.3595, 13.6658, 67.2647, -166.555
4.73603, 2, -47.2485, -11.9887, 29.3595, 13.6658, 67.2647, -166.555
4.74273, 2, -47.2485, -11.9887, 29.3595, 13.6658, 67.2647, -166.555
4.75213, 2, -47.2484, -11.9887, 29.3595, 13.6658, 67.2647, -166.555
4.7588, 2, -47.2484, -11.9887, 29.3595, 13.6658, 67.2647, -166.555
4.76871, 2, -47.2483, -11.9887, 29.3595, 13.6658, 67.2647, -166.555
4.77634, 2, -47.2483, -11.9887, 29.3595, 13.6658, 67.2647, -166.555
4.78431, 2, -47.2483, -11.9887, 29.3595, 13.6658, 67.2647, -166.555
4.7926, 2, -47.2482, -11.9887, 29.3595, 13.6658, 67.2647, -166.555
4.80036, 2, -47.2482, -11.9887, 29.3595, 13.6657, 67.2647, -166.555
4.80831, 2, -47.2482, -11.9886, 29.3595, 13.6657, 67.2647, -166.555
4.81661, 2, -47.2481, -11.9885, 29.3595, 13.6657, 67.2647, -166.555
4.82375, 2, -47.2481, -11.9885, 29.3595, 13.6657, 67.2647, -166.555
4.83175, 2, -47.248, -11.9884, 29.3595, 13.6657, 67.2647, -166.554
4.84068, 2, -47.248, -11.9884, 29.3595, 13.6656, 67.2648, -166.554
4.84775, 2, -47.2479, -11.9883, 29.3595, 13.6656, 67.2647, -166.554
4.85575, 2, -47.2478, -11.9883, 29.3595, 13.6657, 67.2648, -166.554
4.8638, 2, -47.2478, -11.9883, 29.3595, 13.6656, 67.2648, -166.554
4.87182, 2, -47.2477, -11.9883, 29.3595, 13.6656, 67.2648, -166.554
4.87974, 2, -47.2477, -11.9883, 29.3595, 13.6656, 67.2648, -166.554
4.8878, 2, -47.2476, -11.9883, 29.3595, 13.6656, 67.2648, -166.554
4.89576, 2, -47.2476, -11.9883, 29.3595, 13.6656, 67.2648, -166.554
4.90374, 2, -47.2476, -11.9882, 29.3595, 13.6656, 67.2649, -166.554
4.91181, 2, -47.2476, -11.9882, 29.3595, 13.6656, 67.2649, -166.554
4.91975, 2, -47.2475, -11.9881, 29.3595, 13.6656, 67.2649, -166.554
4.92774, 2, -47.2475, -11.9881, 29.3595, 13.6656, 67.2649, -166.554
4.93755, 2, -47.2474, -11.9879, 29.3595, 13.6656, 67.265, -166.554
4.94376, 2, -47.2473, -11.9879, 29.3595, 13.6656, 67.265, -166.554
4.95274, 2, -47.2472, -11.9879, 29.3595, 13.6655, 67.2649, -166.554
4.95981, 2, -47.2472, -11.9879, 29.3595, 13.6655, 67.265, -166.554
4.96774, 2, -47.2471, -11.9878, 29.3595, 13.6655, 67.2649, -166.554
4.97682, 2, -47.2471, -11.9878, 29.3595, 13.6655, 67.265, -166.554
4.9838, 2, -47.2471, -11.9878, 29.3595, 13.6655, 67.2651, -166.554
4.99174, 2, -47.2471, -11.9878, 29.3595, 13.6655, 67.265, -166.554
4.99975, 2, -47.2471, -11.9878, 29.3595, 13.6655, 67.2651, -166.554
5.00781, 2, -47.247, -11.9878, 29.3595, 13.6655, 67.2651, -166.554
5.01576, 2, -47.247, -11.9877, 29.3595, 13.6655, 67.2651, -166.554
5.02374, 2, -47.2469, -11.9877, 29.3595, 13.6654, 67.2651, -166.554
5.03181, 2, -47.2469, -11.9876, 29.3595, 13.6654, 67.2651, -166.554
5.03982, 2, -47.2468, -11.9876, 29.3595, 13.6654, 67.2651, -166.554
5.04775, 2, -47.2467, -11.9875, 29.3595, 13.6654, 67.2651, -166.554
5.05598, 2, -47.2466, -11.9875, 29.3595, 13.6654, 67.2651, -166.554
5.06385, 2, -47.2466, -11.9875, 29.3595, 13.6654, 67.2651, -166.554
5.07174, 2, -47.2465, -11.9875, 29.3595, 13.6653, 67.2651, -166.554
5.07974, 2, -47.2465, -11.9875, 29.3595, 13.6653, 67.2651, -166.554
5.08782, 2, -47.2465, -11.9875, 29.3595, 13.6653, 67.2651, -166.554
5.09575, 2, -47.2465, -11.9874, 29.3595, 13.6653, 67.2651, -166.554
5.10374, 2, -47.2464, -11.9874, 29.3595, 13.6653, 67.2651, -166.554
5.11184, 2, -47.2464, -11.9874, 29.3595, 13.6652, 67.2651, -166.554
5.11974, 2, -47.2464, -11.9873, 29.3595, 13.6652, 67.2651, -166.554
5.12774, 2, -47.2464, -11.9873, 29.3595, 13.6652, 67.2652, -166.554
5.1361, 2, -47.2463, -11.9872, 29.3595, 13.6652, 67.2652, -166.554
5.14326, 4, -47.2462, -11.9872, 29.3595, 13.6652, 67.2652, -166.554
5.15184, 4, -47.2461, -11.9872, 29.3595, 13.6652, 67.2653, -166.554
5.15992, 4, -47.2461, -11.9871, 29.3595, 13.6652, 67.2653, -166.554
5.16784, 4, -47.246, -11.9871, 29.3595, 13.6652, 67.2653, -166.554
5.17588, 4, -47.246, -11.9871, 29.3595, 13.6652, 67.2653, -166.554
5.18392, 4, -47.2459, -11.9871, 29.3595, 13.6652, 67.2653, -166.554
5.19175, 4, -47.2459, -11.987, 29.3595, 13.6652, 67.2652, -166.553
5.19977, 4, -47.2459, -11.987, 29.3595, 13.6652, 67.2653, -166.554
5.20799, 4, -47.2459, -11.987, 29.3595, 13.6652, 67.2653, -166.553
5.2158, 4, -47.2459, -11.987, 29.3595, 13.6651, 67.2653, -166.553
5.22403, 4, -47.2458, -11.9869, 29.3595, 13.6651, 67.2653, -166.553
5.23076, 4, -47.2458, -11.9869, 29.3595, 13.6651, 67.2653, -166.553
5.24025, 4, -47.2457, -11.9869, 29.3595, 13.6651, 67.2653, -166.553
5.25457, 4, -47.2456, -11.9868, 29.3595, 13.6651, 67.2653, -166.553
5.25724, 4, -47.2456, -11.9868, 29.3595, 13.6651, 67.2653, -166.553
5.26456, 4, -47.2456, -11.9868, 29.3595, 13.6651, 67.2653, -166.553
5.2733, 4, -47.2455, -11.9868, 29.3595, 13.6651, 67.2653, -166.553
5.28068, 4, -47.2454, -11.9867, 29.3595, 13.665, 67.2653, -166.553
5.28873, 4, -47.2454, -11.9867, 29.3595, 13.665, 67.2653, -166.553
5.29658, 4, -47.2454, -11.9867, 29.3595, 13.665, 67.2653, -166.553
5.30472, 4, -47.2454, -11.9867, 29.3595, 13.665, 67.2653, -166.553
5.3109, 4, -47.2454, -11.9867, 29.3595, 13.665, 67.2653, -166.553
5.32072, 4, -47.2453, -11.9867, 29.3595, 13.6649, 67.2653, -166.553
5.32688, 4, -47.2454, -11.9866, 29.3595, 13.6649, 67.2653, -166.553
5.33591, 4, -47.2453, -11.9866, 29.3595, 13.6649, 67.2653, -166.553
5.34678, 4, -47.2453, -11.9866, 29.3595, 13.6649, 67.2653, -166.553
5.35187, 4, -47.2453, -11.9865, 29.3595, 13.6649, 67.2654, -166.553
5.35992, 4, -47.2452, -11.9865, 29.3595, 13.6649, 67.2654, -166.553
5.37373, 4, -47.245, -11.9865, 29.3595, 13.6649, 67.2653, -166.553
5.37603, 4, -47.245, -11.9865, 29.3595, 13.6649, 67.2653, -166.553
5.38562, 4, -47.245, -11.9865, 29.3595, 13.6649, 67.2653, -166.553
5.39381, 4, -47.245, -11.9865, 29.3595, 13.6649, 67.2654, -166.553
5.39888, 4, -47.245, -11.9865, 29.3595, 13.6648, 67.2653, -166.553
5.40694, 4, -47.2454, -11.9867, 29.3596, 13.6648, 67.2654, -166.553
5.41895, 4, -47.2483, -11.9887, 29.3617, 13.6667, 67.266, -166.553
5.42435, 4, -47.2501, -11.9905, 29.3638, 13.6701, 67.2668, -166.552
5.43731, 4, -47.2596, -12.0022, 29.3798, 13.7014, 67.2746, -166.547
5.44001, 5, -47.2647, -12.0088, 29.3902, 13.722, 67.2803, -166.542
5.45079, 5, -47.2892, -12.0417, 29.447, 13.8379, 67.3127, -166.517
5.45595, 5, -47.3013, -12.058, 29.477, 13.9003, 67.3304, -166.502
5.46387, 5, -47.3331, -12.0996, 29.5584, 14.072, 67.3784, -166.463
5.47494, 5, -47.4027, -12.1883, 29.7437, 14.4697, 67.488, -166.371
5.47899, 5, -47.4323, -12.2252, 29.8237, 14.6436, 67.5352, -166.332
5.4879, 5, -47.5009, -12.3106, 30.0128, 15.0547, 67.646, -166.237
5.49594, 5, -47.5818, -12.411, 30.2403, 15.5458, 67.7774, -166.125
5.5039, 5, -47.6743, -12.5253, 30.5021, 16.1063, 67.9253, -165.998
5.5147, 5, -47.831, -12.7195, 30.9499, 17.0453, 68.169, -165.788
5.52237, 5, -47.9447, -12.8611, 31.276, 17.7153, 68.3393, -165.64
5.52788, 5, -48.0034, -12.9347, 31.4452, 18.0575, 68.4251, -165.566
5.53996, 5, -48.1838, -13.1621, 31.9667, 19.0979, 68.681, -165.343
5.543, 5, -48.2441, -13.2388, 32.1436, 19.4452, 68.765, -165.269
5.55273, 5, -48.3626, -13.3911, 32.4981, 20.132, 68.93, -165.121
5.5599, 5, -48.4751, -13.5398, 32.8511, 20.8011, 69.0912, -164.968
5.56724, 6, -48.5774, -13.6816, 33.1959, 21.4407, 69.2501, -164.799
5.57651, 6, -48.6649, -13.8133, 33.5274, 22.0398, 69.4086, -164.6
5.58498, 7, -48.7339, -13.9345, 33.8408, 22.5923, 69.5693, -164.359
5.59463, 7, -48.782, -14.0463, 34.1345, 23.0946, 69.7349, -163.888
5.59997, 7, -48.8092, -14.1487, 34.4071, 23.5503, 69.9085, -163.697
5.60892, 8, -48.817, -14.24, 34.6599, 23.9687, 70.094, -163.261
5.61606, 8, -48.8066, -14.3212, 34.8975, 24.3601, 70.2932, -162.755
5.62715, 9, -48.7613, -14.4316, 35.2327, 24.9216, 70.6201, -161.884
5.6322, 9, -48.7395, -14.4667, 35.3415, 25.1064, 70.7359, -161.571
5.64031, 10, -48.6879, -14.5341, 35.558, 25.4767, 70.9754, -160.924
5.64822, 10, -48.6271, -14.5984, 35.7748, 25.8496, 71.2221, -160.256
5.65604, 11, -48.5593, -14.6607, 35.9933, 26.2251, 71.4714, -159.582
5.66451, 11, -48.4861, -14.723, 36.2145, 26.6027, 71.7194, -158.91
5.67398, 12, -48.409, -14.7858, 36.436, 26.983, 71.965, -158.244
5.68055, 12, -48.3294, -14.849, 36.6556, 27.3662, 72.2082, -157.582
5.68894, 13, -48.248, -14.9121, 36.8731, 27.7531, 72.4503, -156.924
5.69631, 13, -48.2064, -14.9436, 37.0868, 28.1443, 72.6927, -156.269
5.7107, 14, -48.0327, -15.0706, 37.4, 28.7388, 73.0582, -155.286
5.71404, 14, -47.9869, -15.1024, 37.5029, 28.9386, 73.1808, -154.959
5.72032, 15, -47.893, -15.1652, 37.7062, 29.34, 73.4257, -154.306
5.72891, 15, -47.7957, -15.2259, 37.9059, 29.7421, 73.6699, -153.656
5.73633, 16, -47.6942, -15.2853, 38.1036, 30.1435, 73.9124, -153.008
5.74579, 16, -47.5874, -15.3451, 38.2991, 30.5437, 74.1524, -152.365
5.75245, 17, -47.4753, -15.4062, 38.4912, 30.942, 74.3892, -151.726
5.76289, 17, -47.3584, -15.4684, 38.6805, 31.3378, 74.6216, -151.092
5.76861, 18, -47.2366, -15.5312, 38.8679, 31.7305, 74.8493, -150.464
5.77778, 18, -47.1096, -15.5951, 39.0529, 32.1202, 75.0715, -149.844
5.78449, 19, -46.9771, -15.6611, 39.2354, 32.5071, 75.2881, -149.231
5.79271, 19, -46.8393, -15.7295, 39.4167, 32.8919, 75.4991, -148.626
5.80252, 20, -46.6963, -15.8002, 39.5966, 33.2744, 75.7048, -148.029
5.80859, 20, -46.5485, -15.8735, 39.774, 33.6549, 75.9054, -147.439
5.81699, 21, -46.396, -15.9497, 39.949, 34.0337, 76.1009, -146.856
5.8245, 21, -46.3181, -15.989, 40.036, 34.2223, 76.1967, -146.281
5.83489, 22, -46.0768, -16.1104, 40.2943, 34.7843, 76.4759, -145.712
5.83985, 22, -45.9936, -16.1518, 40.379, 34.9701, 76.5662, -145.431
5.849, 23, -45.7351, -16.2787, 40.6287, 35.5217, 76.8292, -144.596
5.85979, 23, -45.6457, -16.322, 40.7919, 35.8841, 76.9975, -144.046
5.86385, 24, -45.462, -16.4097, 40.8723, 36.0636, 77.0797, -143.772
5.87483, 25, -45.1741, -16.5438, 41.1066, 36.5933, 77.3183, -142.961
5.89224, 26, -44.7675, -16.7259, 41.404, 37.2775, 77.6197, -141.891
5.89487, 26, -44.6617, -16.7719, 41.4754, 37.4443, 77.6922, -141.625
5.90009, 26, -44.5541, -16.8179, 41.5454, 37.6092, 77.7636, -141.361
5.90692, 27, -44.3337, -16.91, 41.6813, 37.9336, 77.9035, -140.833
5.91187, 27, -44.2207, -16.9559, 41.7471, 38.093, 77.9718, -140.57
5.92004, 28, -43.9899, -17.0473, 41.8741, 38.4055, 78.1052, -140.044
5.93145, 28, -43.6312, -17.183, 42.053, 38.859, 78.299, -139.257
5.93487, 28, -43.5083, -17.2277, 42.1093, 39.0059, 78.3616, -138.996
5.94665, 29, -43.13, -17.3594, 42.2679, 39.4339, 78.5453, -138.212
5.95226, 29, -43.0006, -17.4026, 42.3173, 39.5725, 78.6047, -137.951
5.96086, 30, -42.7361, -17.4875, 42.4106, 39.8433, 78.7213, -137.429
5.96789, 30, -42.463, -17.5703, 42.4967, 40.1053, 78.8352, -136.907
5.97596, 31, -42.1812, -17.6506, 42.5756, 40.3591, 78.9459, -136.387
5.98385, 31, -41.8915, -17.7283, 42.6475, 40.6042, 79.0541, -135.867
5.99438, 32, -41.4436, -17.8406, 42.7425, 40.9559, 79.2114, -135.087
5.99994, 32, -41.291, -17.8768, 42.7707, 41.069, 79.2626, -134.828
6.00791, 33, -40.9813, -17.947, 42.8218, 41.2892, 79.3631, -134.311
6.01596, 33, -40.6649, -18.0138, 42.8658, 41.5013, 79.461, -133.794
6.02385, 34, -40.3423, -18.0778, 42.9025, 41.7051, 79.5562, -133.278
6.03324, 34, -40.0153, -18.1393, 42.9318, 41.9009, 79.6487, -132.762
6.03985, 35, -39.6831, -18.1978, 42.9539, 42.089, 79.7391, -132.249
6.04785, 35, -39.3449, -18.2528, 42.9691, 42.2696, 79.8266, -131.737
6.05686, 36, -38.9996, -18.3044, 42.9771, 42.4424, 79.9122, -131.225
6.06733, 37, -38.4676, -18.3757, 42.9767, 42.6874, 80.0366, -130.46
6.07184, 37, -38.2873, -18.3977, 42.9732, 42.7652, 80.0767, -130.206
6.08036, 37, -37.9223, -18.4391, 42.961, 42.9152, 80.1562, -129.699
6.08709, 38, -37.552, -18.4768, 42.942, 43.0581, 80.2332, -129.194
6.0993, 38, -37.1771, -18.511, 42.9165, 43.1932, 80.3086, -128.439
6.10588, 39, -36.7977, -18.542, 42.8842, 43.321, 80.381, -128.188
6.11481, 39, -36.4138, -18.5692, 42.8451, 43.4417, 80.4521, -127.688
6.1193, 40, -36.0244, -18.5927, 42.7994, 43.5548, 80.521, -127.19
6.12857, 40, -35.629, -18.6123, 42.7473, 43.661, 80.5886, -126.693
6.13998, 41, -35.0252, -18.6343, 42.6568, 43.8063, 80.6852, -125.952
6.14722, 41, -34.8214, -18.6447, 42.5884, 43.8947, 80.748, -125.461
6.15201, 42, -34.411, -18.6486, 42.5518, 43.936, 80.7783, -125.216
6.16033, 42, -33.9974, -18.654, 42.4738, 44.0135, 80.8372, -124.728
6.16796, 43, -33.5805, -18.6563, 42.3898, 44.0835, 80.8954, -124.243
6.17597, 43, -33.159, -18.6552, 42.2998, 44.147, 80.9509, -123.759
6.18558, 44, -32.7312, -18.6502, 42.2042, 44.203, 81.0054, -123.279
6.19206, 44, -32.297, -18.6416, 42.1028, 44.2515, 81.0583, -122.801
6.20008, 45, -31.8569, -18.6291, 41.9954, 44.2933, 81.1087, -122.325
6.20801, 45, -31.4126, -18.6131, 41.882, 44.3275, 81.1585, -121.851
6.21877, 46, -30.9658, -18.5937, 41.7626, 44.3538, 81.2062, -121.379
6.22422, 46, -30.5171, -18.5707, 41.6375, 44.3723, 81.2515, -120.911
6.23295, 47, -30.0647, -18.5436, 41.5064, 44.3835, 81.2964, -120.444
6.24049, 47, -29.6069, -18.5119, 41.3695, 44.3878, 81.3403, -119.979
6.24833, 48, -29.1422, -18.476, 41.2264, 44.3845, 81.3823, -119.516
6.25827, 48, -28.6715, -18.4357, 41.0773, 44.3722, 81.424, -119.055
6.26459, 49, -28.1963, -18.391, 40.9224, 44.3514, 81.4659, -118.596
6.27288, 49, -27.7188, -18.3419, 40.7615, 44.3211, 81.5067, -118.137
6.27899, 50, -27.4791, -18.3157, 40.6785, 44.3021, 81.5269, -117.909
6.29245, 51, -26.5089, -18.197, 40.3303, 44.2041, 81.6105, -116.996
6.29646, 51, -26.2619, -18.1639, 40.2393, 44.1735, 81.6317, -116.769
6.30481, 51, -25.7622, -18.0935, 40.0519, 44.1049, 81.674, -116.314
6.31264, 52, -25.51, -18.0563, 39.9554, 44.0265, 81.7174, -115.861
6.32066, 52, -25.0029, -17.9778, 39.6555, 43.9374, 81.7623, -115.408
6.32692, 53, -24.4938, -17.8941, 39.5526, 43.8891, 81.7846, -115.181
6.33583, 53, -23.982, -17.8046, 39.3414, 43.7852, 81.8294, -114.729
6.34594, 54, -23.2031, -17.6586, 39.0099, 43.6095, 81.901, -114.051
6.35193, 54, -22.9392, -17.6069, 38.8962, 43.5456, 81.9257, -113.825
6.36135, 55, -22.137, -17.4424, 38.544, 43.337, 82.0022, -113.148
6.36999, 56, -21.5973, -17.325, 38.3001, 43.183, 82.057, -112.696
6.37975, 56, -21.0553, -17.202, 38.05, 43.0176, 82.1124, -112.244
6.38394, 56, -20.7829, -17.1383, 37.922, 42.9306, 82.1409, -112.019
6.39546, 57, -19.9534, -16.9392, 37.5284, 42.6522, 82.23, -111.343
6.39884, 57, -19.6722, -16.8699, 37.394, 42.5535, 82.26, -111.118
6.41052, 58, -18.8181, -16.6531, 36.9803, 42.2385, 82.3545, -110.443
6.41593, 58, -18.5316, -16.5778, 36.8394, 42.1272, 82.3867, -110.218
6.42384, 59, -17.9571, -16.4233, 36.5525, 41.8954, 82.4529, -109.769
6.43086, 59, -17.3784, -16.2643, 36.2592, 41.651, 82.5219, -109.319
6.43986, 60, -16.7907, -16.1006, 35.9598, 41.394, 82.5925, -108.87
6.44695, 60, -16.1929, -15.9314, 35.655, 41.1242, 82.6656, -108.421
6.45756, 61, -15.5892, -15.7571, 35.3451, 40.6948, 82.7778, -107.748
6.46383, 61, -14.9825, -15.5786, 35.0293, 40.5454, 82.8163, -107.524
6.47456, 62, -14.0638, -15.3023, 34.5453, 40.0779, 82.9353, -106.851
6.48224, 63, -13.4394, -15.1107, 34.2167, 39.7495, 83.0175, -106.402
6.48901, 63, -13.1234, -15.0123, 34.0503, 39.5796, 83.06, -106.177
6.49584, 63, -12.486, -14.8111, 33.7134, 39.2285, 83.1473, -105.727
6.5038, 64, -11.8438, -14.6052, 33.3706, 38.8624, 83.2388, -105.277
6.51501, 65, -10.8709, -14.2843, 32.8447, 38.2852, 83.3837, -104.598
6.52091, 65, -10.5415, -14.1735, 32.6662, 38.0853, 83.4344, -104.371
6.5308, 65, -9.53795, -13.8309, 32.1228, 37.4609, 83.5941, -103.687
6.53584, 66, -9.19918, -13.7133, 31.9391, 37.2447, 83.6502, -103.458
6.54492, 66, -8.51772, -13.4729, 31.5681, 36.8004, 83.7667, -102.999
6.55182, 67, -7.83018, -13.2251, 31.1899, 36.3393, 83.889, -102.537
6.55985, 67, -7.13273, -12.9701, 30.8058, 35.8621, 84.0184, -102.073
6.57184, 68, -6.06885, -12.5739, 30.221, 35.1152, 84.2253, -101.372
6.57678, 68, -5.7107, -12.4388, 30.0241, 34.8589, 84.2977, -101.137
6.58488, 69, -4.98988, -12.1626, 29.6271, 34.3347, 84.4473, -100.666
6.59186, 69, -4.26174, -11.8781, 29.2265, 33.7966, 84.6032, -100.193
6.60549, 70, -3.52501, -11.5867, 28.8245, 33.2446, 84.8495, -99.4781
6.60829, 70, -2.77986, -11.2869, 28.4209, 32.6772, 84.935, -99.2386
6.61977, 71, -2.02675, -10.979, 27.8099, 31.7988, 85.2029, -98.5173
6.6239, 71, -1.26571, -10.664, 27.6047, 31.4986, 85.2967, -98.2753
6.63288, 72, -0.497893, -10.3436, 27.1924, 30.8856, 85.4914, -97.7887
6.64085, 73, 0.2761, -10.0174, 26.779, 30.2577, 85.694, -97.2997
6.64799, 73, 1.05601, -9.68251, 26.3658, 29.6198, 85.9044, -96.8085
6.6592, 74, 1.84095, -9.16709, 25.7487, 28.6456, 86.2321, -96.0688
6.66409, 74, 2.62878, -8.99286, 25.5446, 28.3172, 86.3447, -95.8211
6.67438, 75, 3.4189, -8.64139, 25.1394, 27.6556, 86.5745, -95.3246
6.68048, 75, 4.21214, -8.28296, 24.7395, 26.9887, 86.8099, -94.8267
6.69158, 76, 5.40796, -7.73206, 24.1476, 25.9841, 87.1749, -94.0778
6.69599, 76, 5.80722, -7.54518, 23.9523, 25.6473, 87.3, -93.8272
6.70505, 76, 6.60624, -7.16701, 23.5654, 24.971, 87.5566, -93.3241
6.71203, 77, 7.40644, -6.78066, 23.1813, 24.2924, 87.8227, -92.8186
6.72589, 78, 8.60948, -6.18558, 22.6102, 23.2668, 88.2422, -92.0565
6.72866, 78, 9.01042, -5.9831, 22.4215, 22.9227, 88.3877, -91.8009
6.74254, 79, 10.212, -5.36264, 21.8613, 21.8866, 88.8417, -91.0288
6.74459, 79, 10.6122, -5.15109, 21.6767, 21.5409, 88.9985, -90.7694
6.75291, 79, 11.4111, -4.72057, 21.3104, 20.8511, 89.3203, -90.2478
6.76011, 80, 12.206, -4.28057, 20.9498, 20.1621, 89.6521, -89.7223
6.76675, 80, 12.6015, -4.05705, 20.7717, 19.8193, 89.822, -89.4574
6.77474, 81, 13.3883, -3.60386, 20.4197, 19.1399, 90.1688, -88.9242
6.7843, 81, 14.5574, -2.90992, 19.9041, 18.1392, 90.7055, -88.1161
6.79231, 82, 15.3261, -2.43744, 19.5709, 17.4869, 91.0722, -87.5739
6.80026, 82, 16.0849, -1.95733, 19.2467, 16.8485, 91.4461, -87.0282
6.80832, 83, 16.8329, -1.47039, 18.9321, 16.227, 91.8257, -86.4804
6.81635, 83, 17.2024, -1.22442, 18.7783, 15.9233, 92.018, -85.9307
6.82368, 84, 17.9307, -0.727842, 18.4771, 15.3288, 92.4069, -85.6558
6.83175, 84, 18.6423, -0.226318, 18.185, 14.754, 92.8023, -85.1053
6.83965, 85, 19.3371, 0.279926, 17.8997, 14.1998, 93.2048, -84.5539
6.84769, 85, 20.0155, 0.79168, 17.6208, 13.667, 93.6151, -84.0031
6.85571, 86, 20.6772, 1.30826, 17.3481, 13.1556, 94.0313, -83.4537
6.86269, 86, 21.3222, 1.82893, 17.0812, 12.6669, 94.4521, -82.9053
6.8717, 86, 21.9519, 2.35583, 16.8216, 12.2001, 94.8779, -82.3563
6.87974, 87, 22.568, 2.8917, 16.5678, 11.7556, 95.3089, -81.8059
6.88776, 87, 23.173, 3.43725, 16.3191, 11.3311, 95.7458, -81.2529
6.89574, 88, 23.768, 3.99045, 16.0751, 10.9249, 96.1887, -80.6954
6.90368, 88, 24.3531, 4.55114, 15.8352, 10.5351, 96.6371, -80.1299
6.91169, 89, 24.9266, 5.12192, 15.6015, 10.1613, 97.0918, -79.5558
6.91977, 89, 25.4889, 5.70337, 15.3731, 9.80314, 97.5525, -78.9713
6.92768, 90, 26.0434, 6.29408, 15.1479, 9.46054, 98.0191, -78.3749
6.93568, 90, 26.5912, 6.89329, 14.9268, 9.13265, 98.492, -77.7645
6.94523, 91, 27.1276, 7.5008, 14.7108, 8.82176, 98.9715, -77.1404
6.95168, 91, 27.6498, 8.11796, 14.4994, 8.52903, 99.457, -76.5045
6.96068, 92, 28.1601, 8.74555, 14.2922, 8.25638, 99.948, -75.8564
6.96776, 92, 28.6625, 9.38375, 14.0895, 8.00558, 100.443, -75.1985
6.97568, 93, 29.1576, 10.0308, 13.8919, 7.77681, 100.941, -74.5331
6.98368, 93, 29.6412, 10.6846, 13.7011, 7.57155, 101.44, -73.8611
6.99175, 94, 30.1114, 11.343, 13.5185, 7.3898, 101.939, -73.1818
6.9997, 94, 30.5671, 12.0048, 13.343, 7.23153, 102.435, -72.4973
7.00775, 95, 31.009, 12.669, 13.1744, 7.09696, 102.928, -71.8084
7.01569, 95, 31.437, 13.3348, 13.0136, 6.98634, 103.418, -71.1133
7.02375, 96, 31.851, 14.0023, 12.8604, 6.89879, 103.905, -70.4127
7.03168, 96, 32.2498, 14.6707, 12.7136, 6.83592, 104.388, -69.7076
7.0397, 97, 32.6324, 15.3397, 12.5733, 6.79588, 104.866, -68.9961
7.04775, 97, 32.9989, 16.0079, 12.4404, 6.77674, 105.339, -68.2793
7.05576, 98, 33.3496, 16.6742, 12.3157, 6.77966, 105.806, -67.5601
7.06368, 98, 33.6859, 17.3374, 12.1997, 6.80437, 106.264, -66.837
7.07174, 99, 34.0083, 17.9955, 12.0929, 6.84871, 106.714, -66.1119
7.0797, 99, 34.318, 18.6475, 11.9953, 6.91344, 107.151, -65.3885
7.08769, 100, 34.6162, 19.2915, 11.9066, 6.99577, 107.578, -64.6661
7.09574, 100, 34.903, 19.9269, 11.8266, 7.09589, 107.991, -63.9459
7.10368, 101, 35.1781, 20.552, 11.7549, 7.21218, 108.39, -63.232
7.11169, 101, 35.4414, 21.1664, 11.6913, 7.34345, 108.775, -62.5241
7.11973, 102, 35.6936, 21.7688, 11.6364, 7.48809, 109.144, -61.8238
7.1277, 102, 35.9333, 22.3587, 11.59, 7.64448, 109.495, -61.1347
7.13592, 103, 36.1612, 22.9351, 11.5523, 7.81097, 109.829, -60.4568
7.14411, 103, 36.3802, 23.4959, 11.5233, 7.98673, 110.145, -59.79
7.15176, 103, 36.592, 24.0405, 11.5033, 8.17135, 110.443, -59.1366
7.15978, 104, 36.7964, 24.5692, 11.4923, 8.36505, 110.721, -58.4965
7.16783, 104, 36.9934, 25.0818, 11.4888, 8.5678, 110.978, -57.868
7.1758, 104, 37.1843, 25.5778, 11.4921, 8.77886, 111.216, -57.2522
7.18379, 104, 37.368, 26.0576, 11.5015, 8.99662, 111.433, -56.6507
7.19186, 104, 37.5424, 26.5208, 11.5152, 9.2191, 111.632, -56.0638
7.19969, 104, 37.7079, 26.9675, 11.5318, 9.44421, 111.815, -55.4934
7.20843, 104, 37.867, 27.3987, 11.5511, 9.66907, 111.984, -54.9422
7.21579, 104, 38.0213, 27.8138, 11.572, 9.89141, 112.142, -54.4132
7.22434, 104, 38.1705, 28.2122, 11.593, 10.1094, 112.291, -53.907
7.23179, 104, 38.3133, 28.5938, 11.6137, 10.3222, 112.431, -53.424
7.23995, 104, 38.4494, 28.9585, 11.6331, 10.5283, 112.564, -52.9653
7.24796, 104, 38.5779, 29.3051, 11.6513, 10.727, 112.688, -52.5308
7.25472, 104, 38.6392, 29.4716, 11.6601, 10.8233, 112.748, -52.3232
7.2641, 104, 38.8105, 29.942, 11.6845, 11.0993, 112.915, -51.7374
7.27068, 104, 38.8635, 30.0895, 11.692, 11.1866, 112.967, -51.5545
7.2803, 104, 39.0106, 30.5038, 11.7133, 11.4338, 113.111, -51.0443
7.28836, 104, 39.099, 30.7552, 11.7259, 11.5854, 113.198, -50.736
7.29625, 104, 39.1795, 30.9871, 11.7372, 11.7262, 113.277, -50.4527
7.30451, 104, 39.2522, 31.1992, 11.7475, 11.8557, 113.35, -50.1946
7.31269, 104, 39.3171, 31.3912, 11.7571, 11.9735, 113.414, -49.962
7.32029, 104, 39.3467, 31.48, 11.7616, 12.028, 113.473, -49.7543
7.3277, 104, 39.4003, 31.6431, 11.7696, 12.128, 113.499, -49.6599
7.33661, 104, 39.4684, 31.8515, 11.7802, 12.2553, 113.567, -49.4139
7.3437, 104, 39.4882, 31.9119, 11.7834, 12.2915, 113.586, -49.3441
7.35172, 104, 39.5235, 32.0199, 11.7893, 12.3555, 113.62, -49.2217
7.36062, 104, 39.5526, 32.1112, 11.7945, 12.408, 113.647, -49.1224
7.36768, 104, 39.5766, 32.1871, 11.7991, 12.4489, 113.669, -49.043
7.37568, 104, 39.5957, 32.2494, 11.8033, 12.4807, 113.685, -48.983
7.38373, 104, 39.6106, 32.2997, 11.8071, 12.5043, 113.696, -48.9393
7.39176, 104, 39.622, 32.3392, 11.8106, 12.5211, 113.704, -48.9088
7.39968, 104, 39.6305, 32.3689, 11.8137, 12.5324, 113.709, -48.8887
7.40773, 104, 39.6367, 32.3912, 11.8164, 12.5396, 113.712, -48.8766
7.41568, 104, 39.6408, 32.4077, 11.8187, 12.5439, 113.714, -48.8699
7.42366, 104, 39.6432, 32.419, 11.8205, 12.5462, 113.714, -48.8668
7.43068, 104, 39.6444, 32.4262, 11.8218, 12.5473, 113.715, -48.8654
7.43968, 105, 39.6445, 32.4306, 11.8229, 12.5479, 113.715, -48.8648
7.44767, 105, 39.6437, 32.4336, 11.8238, 12.5481, 113.715, -48.8647
7.45668, 105, 39.6427, 32.4357, 11.8245, 12.5483, 113.715, -48.8649
7.46369, 105, 39.6417, 32.4373, 11.8252, 12.5483, 113.715, -48.8651
7.47355, 105, 39.6407, 32.4386, 11.8257, 12.5483, 113.715, -48.8654
7.47974, 105, 39.6396, 32.4398, 11.8263, 12.5484, 113.715, -48.8657
7.48767, 105, 39.6389, 32.441, 11.8269, 12.5484, 113.715, -48.866
7.49566, 105, 39.6384, 32.442, 11.8275, 12.5484, 113.715, -48.8664
7.50373, 105, 39.6381, 32.4431, 11.828, 12.5484, 113.715, -48.8666
7.51168, 105, 39.6378, 32.4441, 11.8285, 12.5484, 113.715, -48.8669
7.51967, 105, 39.6376, 32.4449, 11.8289, 12.5484, 113.715, -48.8672
7.52774, 105, 39.6373, 32.4454, 11.8293, 12.5484, 113.715, -48.8675
7.53566, 105, 39.637, 32.4458, 11.8296, 12.5484, 113.715, -48.8678
7.54367, 105, 39.6367, 32.4461, 11.8299, 12.5484, 113.715, -48.868
7.55177, 105, 39.6364, 32.4462, 11.8301, 12.5483, 113.715, -48.8682
