hehonglu123/Motion-Primitive-Planning/ILC/recorded_data/realrobot/from_NX/iteration_7/run_0.csv
timestamp, cmd_num, J1, J2, J3, J4, J5, J6
0.001082, -1, 39.6311, 32.4445, 11.8317, 12.5471, 113.714, -48.8708
0.003246, -1, 39.6311, 32.4445, 11.8317, 12.5471, 113.714, -48.8708
0.009721, -1, 39.6311, 32.4445, 11.8317, 12.5471, 113.714, -48.8708
0.035371, -1, 39.6311, 32.4445, 11.8317, 12.5471, 113.714, -48.8708
0.037366, -1, 39.6311, 32.4445, 11.8317, 12.5471, 113.714, -48.8708
0.038751, -1, 39.6311, 32.4445, 11.8317, 12.5471, 113.714, -48.8708
0.040134, -1, 39.6311, 32.4445, 11.8317, 12.5471, 113.714, -48.8708
0.047379, -1, 39.6311, 32.4445, 11.8317, 12.5471, 113.714, -48.8708
0.055536, -1, 39.6307, 32.4445, 11.8317, 12.5471, 113.714, -48.8708
0.063508, -1, 39.6285, 32.4441, 11.8316, 12.5471, 113.714, -48.8709
0.071397, -1, 39.6233, 32.4429, 11.8315, 12.547, 113.714, -48.871
0.079452, -1, 39.6146, 32.44, 11.8313, 12.547, 113.713, -48.872
0.087369, -1, 39.6014, 32.4348, 11.8312, 12.5471, 113.712, -48.876
0.09537, -1, 39.5817, 32.4263, 11.8311, 12.547, 113.709, -48.887
0.103461, -1, 39.5531, 32.4138, 11.8315, 12.5471, 113.702, -48.9073
0.111366, -1, 39.5147, 32.3963, 11.8332, 12.5471, 113.69, -48.9406
0.11937, -1, 39.4652, 32.3726, 11.8377, 12.5471, 113.671, -48.9906
0.127452, -1, 39.4032, 32.3422, 11.8458, 12.5471, 113.643, -49.062
0.13537, -1, 39.3278, 32.3044, 11.8582, 12.5474, 113.606, -49.1562
0.143383, -1, 39.2387, 32.2587, 11.8757, 12.5478, 113.56, -49.276
0.151464, -1, 39.1357, 32.2051, 11.898, 12.5487, 113.503, -49.4213
0.15937, -1, 39.0186, 32.1436, 11.9245, 12.55, 113.436, -49.5913
0.167367, -1, 38.888, 32.0747, 11.9549, 12.5518, 113.36, -49.7839
0.175578, -1, 38.7452, 31.9992, 11.9887, 12.5538, 113.276, -49.9959
0.183382, -1, 38.5908, 31.9178, 12.0247, 12.5559, 113.186, -50.2235
0.191372, -1, 38.4265, 31.8315, 12.0624, 12.5582, 113.091, -50.4635
0.200154, -1, 38.2543, 31.7411, 12.1011, 12.5606, 112.993, -50.7118
0.207408, -1, 38.0759, 31.6478, 12.14, 12.5631, 112.892, -50.9651
0.215458, -1, 37.8923, 31.5524, 12.1788, 12.5656, 112.791, -51.222
0.224744, -1, 37.7048, 31.4554, 12.2176, 12.5679, 112.689, -51.4806
0.231475, -1, 37.5145, 31.3576, 12.2563, 12.5704, 112.586, -51.7402
0.239534, -1, 37.323, 31.2597, 12.295, 12.5729, 112.483, -51.9999
0.247482, -1, 37.1309, 31.1617, 12.3339, 12.5753, 112.381, -52.2597
0.255377, -1, 36.9386, 31.0639, 12.3726, 12.5779, 112.278, -52.5198
0.26355, -1, 36.7466, 30.9661, 12.4113, 12.5804, 112.174, -52.7802
0.271404, -1, 36.555, 30.8683, 12.4502, 12.5829, 112.072, -53.0406
0.279404, -1, 36.3634, 30.7705, 12.4891, 12.5854, 111.969, -53.301
0.287577, -1, 36.1719, 30.6727, 12.528, 12.5879, 111.866, -53.5615
0.29549, -1, 35.9805, 30.5747, 12.5669, 12.5905, 111.763, -53.8222
0.303572, -1, 35.789, 30.4766, 12.6059, 12.5931, 111.66, -54.083
0.311792, -1, 35.5972, 30.3786, 12.6448, 12.5955, 111.557, -54.3432
0.321182, -1, 35.4051, 30.2803, 12.6836, 12.5981, 111.454, -54.6036
0.327861, -1, 35.2128, 30.182, 12.7225, 12.6006, 111.351, -54.8643
0.33651, -1, 35.0203, 30.0837, 12.7615, 12.6031, 111.248, -55.1251
0.343881, -1, 34.828, 29.9852, 12.8004, 12.6057, 111.144, -55.3857
0.352055, -1, 34.6357, 29.8867, 12.8393, 12.6082, 111.041, -55.6465
0.489024, -1, 31.3568, 28.2116, 13.502, 12.653, 109.289, -60.0845
0.49127, -1, 31.3568, 28.2116, 13.502, 12.653, 109.289, -60.0845
0.493916, -1, 31.2604, 28.1624, 13.5215, 12.6543, 109.238, -60.2152
0.495202, -1, 31.2604, 28.1624, 13.5215, 12.6543, 109.238, -60.2152
0.497236, -1, 31.164, 28.1132, 13.5411, 12.6557, 109.186, -60.3459
0.498588, -1, 31.164, 28.1132, 13.5411, 12.6557, 109.186, -60.3459
0.500017, -1, 31.164, 28.1132, 13.5411, 12.6557, 109.186, -60.3459
0.505165, -1, 31.0677, 28.0147, 13.5802, 12.6586, 109.083, -60.6076
0.506543, -1, 30.9716, 28.0147, 13.5802, 12.6586, 109.083, -60.6076
0.507734, -1, 30.9716, 28.0147, 13.5802, 12.6586, 109.083, -60.6076
0.509944, -1, 30.8755, 27.9654, 13.5997, 12.66, 109.032, -60.7383
0.511261, -1, 30.8755, 27.9654, 13.5997, 12.66, 109.032, -60.7383
0.513935, -1, 30.8755, 27.9654, 13.6192, 12.6613, 108.98, -60.869
0.515319, -1, 30.7794, 27.9161, 13.6192, 12.6613, 108.98, -60.869
0.518017, -1, 30.7794, 27.8669, 13.6387, 12.6627, 108.928, -60.9996
0.520278, -1, 30.6834, 27.8669, 13.6387, 12.6627, 108.928, -60.9996
0.522288, -1, 30.5875, 27.8176, 13.6582, 12.6641, 108.877, -61.1302
0.523557, -1, 30.5875, 27.8176, 13.6582, 12.6641, 108.877, -61.1302
0.525374, -1, 30.4915, 27.7683, 13.6778, 12.6655, 108.825, -61.2609
0.526815, -1, 30.4915, 27.7683, 13.6778, 12.6655, 108.825, -61.2609
0.528, -1, 30.4915, 27.7683, 13.6778, 12.6655, 108.825, -61.2609
0.530119, -1, 30.3955, 27.719, 13.6973, 12.6669, 108.773, -61.3916
0.538352, -1, 30.2034, 27.6202, 13.7363, 12.6696, 108.67, -61.6533
0.543364, -1, 30.1072, 27.5709, 13.7558, 12.6709, 108.619, -61.7843
0.551363, -1, 29.9146, 27.4722, 13.7949, 12.6736, 108.516, -62.0458
0.559425, -1, 29.7216, 27.3734, 13.8338, 12.6763, 108.412, -62.3075
0.567354, -1, 29.528, 27.2747, 13.8727, 12.6789, 108.309, -62.5692
0.575374, -1, 29.334, 27.1759, 13.9117, 12.6815, 108.206, -62.8311
0.583428, -1, 29.1397, 27.077, 13.9507, 12.684, 108.102, -63.0927
0.59136, -1, 28.9452, 26.9782, 13.9898, 12.6864, 107.999, -63.3541
0.599427, -1, 28.751, 26.8793, 14.0288, 12.6889, 107.896, -63.6156
0.607355, -1, 28.5569, 26.7804, 14.0677, 12.6913, 107.792, -63.8774
0.615434, -1, 28.363, 26.6817, 14.1069, 12.6939, 107.689, -64.1392
0.623429, -1, 28.1696, 26.583, 14.1459, 12.6963, 107.586, -64.4006
0.631355, -1, 27.9766, 26.4843, 14.1849, 12.6987, 107.482, -64.6623
0.639417, -1, 27.7839, 26.3855, 14.224, 12.7011, 107.379, -64.9243
0.779979, -1, 24.4028, 24.656, 14.9065, 12.7417, 105.572, -69.5043
0.78222, -1, 24.4028, 24.656, 14.9065, 12.7417, 105.572, -69.5043
0.784313, -1, 24.3066, 24.6065, 14.926, 12.7429, 105.52, -69.6351
0.78552, -1, 24.3066, 24.6065, 14.926, 12.7429, 105.52, -69.6351
0.787403, -1, 24.2104, 24.5571, 14.9455, 12.7441, 105.469, -69.7659
0.788756, -1, 24.2104, 24.5571, 14.9455, 12.7441, 105.469, -69.7659
0.790053, -1, 24.2104, 24.5571, 14.9455, 12.7441, 105.469, -69.7659
0.793482, -1, 24.1141, 24.5077, 14.965, 12.7452, 105.417, -69.8966
0.7962, -1, 24.1141, 24.4584, 14.9845, 12.7464, 105.365, -70.0273
0.797522, -1, 24.0178, 24.4584, 14.9845, 12.7464, 105.365, -70.0273
0.799585, -1, 23.9214, 24.409, 15.004, 12.7476, 105.314, -70.1581
0.800957, -1, 23.9214, 24.409, 15.004, 12.7476, 105.314, -70.1581
0.802277, -1, 23.9214, 24.409, 15.004, 12.7476, 105.314, -70.1581
0.805083, -1, 23.825, 24.3595, 15.0235, 12.7488, 105.262, -70.2889
0.806316, -1, 23.825, 24.3595, 15.0235, 12.7488, 105.262, -70.2889
0.808549, -1, 23.7285, 24.3101, 15.0429, 12.75, 105.21, -70.4197
0.809727, -1, 23.7285, 24.3101, 15.0429, 12.75, 105.21, -70.4197
0.811609, -1, 23.632, 24.2607, 15.0624, 12.7512, 105.159, -70.5506
0.813151, -1, 23.632, 24.2607, 15.0624, 12.7512, 105.159, -70.5506
0.814347, -1, 23.632, 24.2607, 15.0624, 12.7512, 105.159, -70.5506
0.816417, -1, 23.5354, 24.2113, 15.0818, 12.7524, 105.107, -70.6816
0.817713, -1, 23.5354, 24.2113, 15.0818, 12.7524, 105.107, -70.6816
0.825351, -1, 23.3419, 24.1124, 15.1208, 12.7548, 105.004, -70.9433
0.831777, -1, 23.148, 24.0135, 15.1597, 12.7573, 104.9, -71.205
0.840423, -1, 22.9541, 23.9147, 15.1987, 12.7598, 104.797, -71.4667
0.848228, -1, 22.76, 23.8159, 15.2376, 12.7622, 104.693, -71.7286
0.855938, -1, 22.5662, 23.7172, 15.2766, 12.7647, 104.59, -71.9902
0.863915, -1, 22.3725, 23.6186, 15.3156, 12.7671, 104.487, -72.2517
0.872472, -1, 22.1793, 23.5199, 15.3546, 12.7697, 104.383, -72.5131
0.879935, -1, 22.0827, 23.4705, 15.374, 12.7723, 104.28, -72.7747
0.887341, -1, 21.8897, 23.3718, 15.413, 12.7736, 104.228, -72.9056
0.896659, -1, 21.601, 23.2237, 15.4715, 12.7777, 104.074, -73.2975
0.903343, -1, 21.5049, 23.1743, 15.4909, 12.7791, 104.022, -73.4283
0.911346, -1, 21.3127, 23.0756, 15.5299, 12.7816, 103.919, -73.6898
0.920508, -1, 21.0241, 22.9277, 15.5884, 12.7856, 103.764, -74.0821
0.927347, -1, 20.9279, 22.8783, 15.6078, 12.787, 103.713, -74.2127
0.935351, -1, 20.7355, 22.7798, 15.6468, 12.7897, 103.61, -74.4738
0.945001, -1, 20.4463, 22.6318, 15.7051, 12.7938, 103.455, -74.8656
0.953528, -1, 20.2529, 22.5332, 15.744, 12.7965, 103.352, -75.1271
0.959493, -1, 20.156, 22.4838, 15.7636, 12.7978, 103.3, -75.2576
0.967335, -1, 19.9623, 22.385, 15.8024, 12.8006, 103.197, -75.5187
0.977813, -1, 19.6719, 22.2371, 15.8606, 12.8047, 103.043, -75.9104
0.983391, -1, 19.5751, 22.1878, 15.8801, 12.806, 102.991, -76.0411
0.993114, -1, 19.2851, 22.0399, 15.9384, 12.8101, 102.837, -76.4328
0.999346, -1, 19.1887, 21.9905, 15.9578, 12.8115, 102.785, -76.5632
1.00742, -1, 18.9959, 21.8919, 15.9968, 12.8142, 102.682, -76.824
1.01693, -1, 18.8033, 21.7933, 16.0356, 12.8169, 102.579, -77.085
1.02345, -1, 18.6112, 21.6945, 16.0743, 12.8195, 102.477, -77.346
1.03235, -1, 18.4195, 21.596, 16.1133, 12.8222, 102.373, -77.6068
1.03934, -1, 18.2276, 21.4975, 16.1521, 12.8248, 102.271, -77.8675
1.04736, -1, 18.0358, 21.3991, 16.1909, 12.8274, 102.168, -78.1282
1.05541, -1, 17.8439, 21.3008, 16.2299, 12.8299, 102.065, -78.3891
1.06334, -1, 17.6519, 21.2024, 16.2687, 12.8324, 101.962, -78.6497
1.07134, -1, 17.4594, 21.1041, 16.3075, 12.8349, 101.859, -78.9101
1.07934, -1, 17.2666, 21.0058, 16.3464, 12.8373, 101.756, -79.1706
1.08735, -1, 17.0734, 20.9076, 16.3852, 12.8397, 101.653, -79.4313
1.09541, -1, 16.8804, 20.8093, 16.424, 12.842, 101.55, -79.692
1.10335, -1, 16.6872, 20.7112, 16.4628, 12.8443, 101.447, -79.9523
1.11134, -1, 16.4942, 20.613, 16.5015, 12.8467, 101.345, -80.2128
1.11942, -1, 16.3014, 20.5147, 16.5402, 12.8489, 101.242, -80.4734
1.12741, -1, 16.1092, 20.4163, 16.579, 12.8513, 101.14, -80.734
1.13533, -1, 15.9172, 20.3179, 16.6178, 12.8536, 101.037, -80.9941
1.14343, -1, 15.7256, 20.2194, 16.6565, 12.8559, 100.934, -81.2542
1.15134, -1, 15.5343, 20.1211, 16.6951, 12.8582, 100.832, -81.5144
1.15936, -1, 15.3431, 20.0228, 16.7338, 12.8605, 100.729, -81.7746
1.16741, -1, 15.152, 19.9245, 16.7726, 12.8628, 100.626, -82.0344
1.17541, -1, 14.9608, 19.8263, 16.8113, 12.8651, 100.524, -82.2942
1.18336, -1, 14.7695, 19.7282, 16.8501, 12.8674, 100.421, -82.554
1.19154, -1, 14.578, 19.6301, 16.8888, 12.8697, 100.319, -82.8141
1.19934, -1, 14.3862, 19.532, 16.9275, 12.872, 100.216, -83.0738
1.20744, -1, 14.1939, 19.4339, 16.9662, 12.8742, 100.114, -83.3332
1.21619, -1, 14.0015, 19.336, 17.0049, 12.8764, 100.011, -83.5928
1.22342, -1, 13.8089, 19.2381, 17.0435, 12.8788, 99.9085, -83.8525
1.23149, -1, 13.6164, 19.1403, 17.0822, 12.8811, 99.8061, -84.112
1.2403, -1, 13.4241, 19.0425, 17.1209, 12.8834, 99.7035, -84.3713
1.24745, -1, 13.2321, 18.9446, 17.1594, 12.8857, 99.6013, -84.6306
1.25551, -1, 13.0405, 18.8467, 17.198, 12.8881, 99.4989, -84.8899
1.26424, -1, 12.8493, 18.7487, 17.2366, 12.8904, 99.3964, -85.1494
1.27136, -1, 12.6583, 18.6508, 17.2752, 12.8928, 99.2943, -85.4084
1.27955, -1, 12.4678, 18.553, 17.3137, 12.8953, 99.1919, -85.6671
1.28876, -1, 12.2776, 18.4553, 17.3523, 12.8977, 99.0896, -85.926
1.29553, -1, 12.0874, 18.3576, 17.3908, 12.9001, 98.9877, -86.185
1.30436, -1, 11.8971, 18.26, 17.4294, 12.9024, 98.8855, -86.4438
1.31154, -1, 11.7066, 18.1623, 17.468, 12.9049, 98.7836, -86.7022
1.31979, -1, 11.5158, 18.0647, 17.5065, 12.9073, 98.6818, -86.9609
1.32857, -1, 11.3248, 17.9671, 17.5451, 12.9098, 98.5798, -87.2195
1.33575, -1, 11.1335, 17.8696, 17.5836, 12.9122, 98.4779, -87.478
1.34388, -1, 10.942, 17.7721, 17.6221, 12.9147, 98.376, -87.7362
1.35273, -1, 10.7502, 17.6747, 17.6606, 12.9172, 98.274, -87.9944
1.35993, -1, 10.5586, 17.5772, 17.699, 12.9197, 98.1721, -88.2528
1.36843, -1, 10.3673, 17.4797, 17.7374, 12.9222, 98.0703, -88.5111
1.37677, -1, 10.2718, 17.3822, 17.7758, 12.9247, 97.9684, -88.7691
1.38388, -1, 10.081, 17.3334, 17.795, 12.9261, 97.8666, -89.0272
1.39234, -1, 9.79539, 17.187, 17.8525, 12.9301, 97.7646, -89.2853
1.39939, -1, 9.7004, 17.1382, 17.8717, 12.9314, 97.7136, -89.4145
1.40841, -1, 9.4162, 16.9922, 17.9292, 12.9355, 97.5609, -89.8014
1.4154, -1, 9.32155, 16.9435, 17.9483, 12.9369, 97.51, -89.9302
1.42332, -1, 9.1323, 16.8462, 17.9867, 12.9395, 97.408, -90.1877
1.43136, -1, 8.94291, 16.749, 18.025, 12.9422, 97.3062, -90.4452
1.44066, -1, 8.65866, 16.6032, 18.0826, 12.9462, 97.1537, -90.8316
1.44733, -1, 8.56385, 16.5547, 18.1018, 12.9475, 97.1028, -90.9602
1.45539, -1, 8.37405, 16.4576, 18.1401, 12.9503, 97.0014, -91.2173
1.46486, -1, 8.08841, 16.3122, 18.1976, 12.9541, 96.849, -91.6032
1.47374, -1, 7.89788, 16.2153, 18.2359, 12.9568, 96.7475, -91.8603
1.47945, -1, 7.80263, 16.1669, 18.255, 12.9581, 96.6969, -91.9887
1.48943, -1, 7.51677, 16.0215, 18.3125, 12.962, 96.5445, -92.3738
1.49534, -1, 7.42161, 15.973, 18.3316, 12.9633, 96.4939, -92.5022
1.50339, -1, 7.23147, 15.8761, 18.3697, 12.9658, 96.3927, -92.7591
1.51333, -1, 6.94692, 15.7306, 18.4271, 12.9696, 96.2407, -93.1438
1.51939, -1, 6.85226, 15.6821, 18.4462, 12.9709, 96.19, -93.2721
1.52832, -1, 6.66331, 15.5853, 18.4843, 12.9734, 96.0894, -93.5284
1.53533, -1, 6.47488, 15.4885, 18.5223, 12.976, 95.9882, -93.7847
1.54332, -1, 6.28672, 15.3917, 18.5606, 12.9784, 95.8871, -94.0411
1.5514, -1, 6.09866, 15.295, 18.5987, 12.9809, 95.7865, -94.2971
1.55939, -1, 5.91039, 15.1983, 18.6368, 12.9832, 95.6853, -94.553
1.56732, -1, 5.72199, 15.1016, 18.675, 12.9855, 95.5844, -94.8089
1.57535, -1, 5.53348, 15.005, 18.7131, 12.9879, 95.4839, -95.0649
1.58333, -1, 5.34467, 14.9085, 18.7512, 12.9902, 95.3829, -95.3206
1.59139, -1, 5.15551, 14.8121, 18.7894, 12.9924, 95.2822, -95.5758
1.59938, -1, 4.96612, 14.7158, 18.8274, 12.9947, 95.1817, -95.8313
1.60732, -1, 4.77667, 14.6194, 18.8654, 12.997, 95.0808, -96.0869
1.61541, -1, 4.58718, 14.523, 18.9035, 12.999, 94.98, -96.3421
1.62332, -1, 4.39793, 14.4267, 18.9415, 13.0013, 94.8794, -96.5971
1.6314, -1, 4.20899, 14.3303, 18.9795, 13.0035, 94.7785, -96.852
1.63944, -1, 4.0204, 14.2338, 19.0175, 13.0057, 94.6777, -97.1071
1.64733, -1, 3.83239, 14.1376, 19.0553, 13.008, 94.5769, -97.3621
1.65534, -1, 3.64485, 14.0415, 19.0933, 13.0102, 94.4762, -97.6167
1.66343, -1, 3.45767, 13.9453, 19.1312, 13.0126, 94.3756, -97.8715
1.67132, -1, 3.27075, 13.8493, 19.169, 13.0149, 94.2749, -98.1262
1.67938, -1, 3.0838, 13.7533, 19.2069, 13.0171, 94.1742, -98.3809
1.6874, -1, 2.89679, 13.6572, 19.2449, 13.0193, 94.0736, -98.6354
1.69534, -1, 2.70972, 13.5612, 19.2827, 13.0216, 93.9729, -98.8895
1.70332, -1, 2.52243, 13.4653, 19.3206, 13.0238, 93.8724, -99.1435
1.71154, -1, 2.33497, 13.3694, 19.3584, 13.0262, 93.7722, -99.3978
1.71945, -1, 2.1471, 13.2736, 19.3962, 13.0285, 93.6718, -99.6519
1.72741, -1, 1.95899, 13.1778, 19.4341, 13.0306, 93.5716, -99.9054
1.73577, -1, 1.77081, 13.0819, 19.4719, 13.033, 93.4718, -100.159
1.74342, -1, 1.58253, 12.9861, 19.5096, 13.0352, 93.3716, -100.413
1.75143, -1, 1.39442, 12.8903, 19.5474, 13.0374, 93.2715, -100.666
1.75998, -1, 1.20657, 12.7945, 19.5851, 13.0398, 93.1717, -100.92
1.76841, -1, 1.01918, 12.6987, 19.6228, 13.0421, 93.0715, -101.173
1.77536, -1, 0.832491, 12.6032, 19.6606, 13.0445, 92.9716, -101.426
1.78414, -1, 0.646173, 12.5076, 19.6982, 13.0469, 92.872, -101.679
1.79137, -1, 0.460254, 12.4121, 19.7358, 13.0494, 92.7721, -101.932
1.79954, -1, 0.274669, 12.3168, 19.7735, 13.0518, 92.6724, -102.184
1.8083, -1, 0.0892421, 12.2214, 19.8111, 13.0543, 92.5731, -102.437
1.81587, -1, -0.0961979, 12.1261, 19.8487, 13.0567, 92.4734, -102.689
1.82432, -1, -0.28179, 12.0308, 19.8864, 13.0592, 92.3738, -102.942
1.83252, -1, -0.467705, 11.9356, 19.924, 13.0617, 92.2746, -103.194
1.83979, -1, -0.653935, 11.8406, 19.9615, 13.0641, 92.175, -103.446
1.84791, -1, -0.840378, 11.7457, 19.9991, 13.0666, 92.0755, -103.698
1.85669, -1, -1.0271, 11.6506, 20.0365, 13.0691, 91.9763, -103.95
1.86405, -1, -1.21399, 11.5555, 20.074, 13.0716, 91.8768, -104.202
1.87194, -1, -1.40096, 11.4605, 20.1116, 13.0741, 91.7776, -104.454
1.88084, -1, -1.58768, 11.3653, 20.149, 13.0767, 91.6786, -104.705
1.88788, -1, -1.68094, 11.3177, 20.1677, 13.078, 91.5793, -104.957
1.89592, -1, -1.86718, 11.2227, 20.2051, 13.0806, 91.5297, -105.208
1.90517, -1, -2.14555, 11.0803, 20.2612, 13.0846, 91.381, -105.459
1.91131, -1, -2.23801, 11.0328, 20.2799, 13.0859, 91.3314, -105.584
1.91942, -1, -2.42277, 10.938, 20.3173, 13.0886, 91.2322, -105.835
1.92732, -1, -2.60716, 10.8432, 20.3546, 13.0912, 91.1333, -106.087
1.93533, -1, -2.7911, 10.7484, 20.3918, 13.0939, 91.0341, -106.337
1.94468, -1, -3.06701, 10.6063, 20.4479, 13.0977, 90.8856, -106.713
1.95138, -1, -3.15904, 10.559, 20.4666, 13.099, 90.8363, -106.839
1.95942, -1, -3.34331, 10.4644, 20.5038, 13.1016, 90.7373, -107.089
1.96739, -1, -3.52798, 10.37, 20.5411, 13.1041, 90.6383, -107.34
1.97532, -1, -3.71272, 10.2757, 20.5784, 13.1067, 90.5397, -107.59
1.98343, -1, -3.89784, 10.1813, 20.6156, 13.1091, 90.4407, -107.84
1.99289, -1, -4.17589, 10.0398, 20.6715, 13.1128, 90.2928, -108.215
2.00163, -1, -4.36159, 9.94557, 20.7086, 13.1151, 90.1942, -108.465
2.00731, -1, -4.45437, 9.89839, 20.7272, 13.1163, 90.1448, -108.59
2.01687, -1, -4.63969, 9.80409, 20.7645, 13.1187, 90.0463, -108.839
2.02435, -1, -4.82462, 9.70988, 20.8017, 13.121, 89.948, -109.089
2.03131, -1, -5.00912, 9.61579, 20.8387, 13.1235, 89.8494, -109.338
2.04016, -1, -5.19291, 9.52173, 20.8759, 13.1257, 89.7509, -109.587
2.04837, -1, -5.37624, 9.42769, 20.913, 13.128, 89.6527, -109.836
2.05531, -1, -5.55917, 9.33379, 20.95, 13.1304, 89.5542, -110.085
2.06411, -1, -5.74166, 9.23988, 20.9871, 13.1326, 89.456, -110.334
2.07131, -1, -5.92398, 9.14597, 21.0241, 13.135, 89.3581, -110.583
2.07937, -1, -6.10639, 9.0521, 21.061, 13.1371, 89.2598, -110.831
2.0881, -1, -6.28913, 8.95836, 21.0982, 13.1394, 89.1618, -111.08
2.09531, -1, -6.47202, 8.86472, 21.1351, 13.1416, 89.0641, -111.328
2.10331, -1, -6.65524, 8.7711, 21.1719, 13.1438, 88.966, -111.576
2.1121, -1, -6.83887, 8.67749, 21.2088, 13.146, 88.8681, -111.824
2.12037, -1, -7.02271, 8.58393, 21.2457, 13.148, 88.7703, -112.072
2.12731, -1, -7.20687, 8.49036, 21.2826, 13.1502, 88.6725, -112.32
2.13618, -1, -7.39112, 8.3967, 21.3196, 13.1523, 88.5746, -112.568
2.1433, -1, -7.57495, 8.30309, 21.3564, 13.1545, 88.4771, -112.815
2.1513, -1, -7.7585, 8.20964, 21.3931, 13.1566, 88.3794, -113.063
2.16017, -1, -7.94154, 8.11623, 21.43, 13.1589, 88.2821, -113.31
2.16733, -1, -8.12408, 8.02288, 21.4668, 13.1611, 88.1848, -113.557
2.17532, -1, -8.30591, 7.92963, 21.5035, 13.1633, 88.0873, -113.804
2.18413, -1, -8.48724, 7.8364, 21.5403, 13.1656, 87.9899, -114.051
2.19131, -1, -8.66824, 7.74321, 21.5772, 13.1678, 87.8926, -114.298
2.19938, -1, -8.84898, 7.65004, 21.6139, 13.1701, 87.7951, -114.544
2.20809, -1, -9.02975, 7.55695, 21.6506, 13.1723, 87.6977, -114.79
2.21637, -1, -9.21085, 7.46395, 21.6873, 13.1746, 87.6006, -115.037
2.22338, -1, -9.39217, 7.37112, 21.7239, 13.1768, 87.5034, -115.283
2.23219, -1, -9.57381, 7.2783, 21.7606, 13.179, 87.4063, -115.529
2.23946, -1, -9.75574, 7.18549, 21.7973, 13.1813, 87.3093, -115.775
2.24742, -1, -9.93806, 7.0928, 21.8337, 13.1834, 87.212, -116.021
2.25621, -1, -10.1206, 7.00005, 21.8704, 13.1857, 87.1148, -116.268
2.26336, -1, -10.3032, 6.90727, 21.907, 13.1879, 87.0177, -116.513
2.27131, -1, -10.4858, 6.81452, 21.9435, 13.1901, 86.9205, -116.759
2.28027, -1, -10.668, 6.72181, 21.9801, 13.1924, 86.8235, -117.004
2.28734, -1, -10.8498, 6.62922, 22.0165, 13.1948, 86.7267, -117.249
2.29543, -1, -11.0311, 6.53661, 22.0529, 13.1972, 86.6297, -117.495
2.30438, -1, -11.2115, 6.44411, 22.0895, 13.1995, 86.533, -117.739
2.31148, -1, -11.3914, 6.35164, 22.126, 13.202, 86.4365, -117.984
2.31982, -1, -11.571, 6.2592, 22.1623, 13.2044, 86.3396, -118.229
2.32762, -1, -11.7503, 6.1668, 22.1988, 13.2068, 86.243, -118.474
2.3357, -1, -11.9295, 6.07451, 22.2353, 13.2093, 86.1464, -118.718
2.34388, -1, -12.1088, 5.98225, 22.2716, 13.2118, 86.0498, -118.963
2.35321, -1, -12.2883, 5.89016, 22.3081, 13.2142, 85.9534, -119.207
2.35987, -1, -12.4683, 5.79815, 22.3444, 13.2168, 85.8572, -119.451
2.3684, -1, -12.6485, 5.70614, 22.3806, 13.2193, 85.7608, -119.695
2.37588, -1, -12.8291, 5.6142, 22.4169, 13.2217, 85.6646, -119.939
2.3844, -1, -13.0102, 5.5223, 22.4533, 13.2241, 85.5688, -120.182
2.39201, -1, -13.1007, 5.4763, 22.4714, 13.2266, 85.4728, -120.426
2.39929, -1, -13.282, 5.3843, 22.5075, 13.2278, 85.4248, -120.548
2.40726, -1, -13.4631, 5.29236, 22.5438, 13.2302, 85.3291, -120.792
2.41531, -1, -13.6437, 5.20046, 22.58, 13.2328, 85.2332, -121.035
2.42334, -1, -13.8239, 5.10861, 22.6161, 13.2354, 85.1375, -121.277
2.4313, -1, -14.0035, 5.01682, 22.6523, 13.2379, 85.0419, -121.521
2.4393, -1, -14.1822, 4.9251, 22.6885, 13.2405, 84.9462, -121.764
2.44735, -1, -14.3604, 4.83341, 22.7245, 13.2431, 84.8506, -122.006
2.45531, -1, -14.5384, 4.74181, 22.7608, 13.2456, 84.7551, -122.248
2.46329, -1, -14.716, 4.65024, 22.797, 13.2481, 84.6594, -122.491
2.47355, -1, -14.9824, 4.51299, 22.851, 13.2518, 84.5157, -122.855
2.47929, -1, -15.0713, 4.46731, 22.8692, 13.253, 84.468, -122.976
2.48894, -1, -15.3385, 4.33037, 22.9233, 13.2566, 84.3245, -123.339
2.49536, -1, -15.4278, 4.28471, 22.9413, 13.2578, 84.2767, -123.459
2.50332, -1, -15.6067, 4.19345, 22.9774, 13.2601, 84.1812, -123.701
2.5129, -1, -15.7859, 4.10221, 23.0134, 13.2623, 84.0379, -124.064
2.51935, -1, -15.9651, 4.01098, 23.0493, 13.2646, 83.9903, -124.185
2.52726, -1, -16.1448, 3.91967, 23.0853, 13.2667, 83.8948, -124.426
2.53531, -1, -16.3245, 3.82842, 23.1213, 13.2689, 83.7994, -124.668
2.54336, -1, -16.5039, 3.73719, 23.1572, 13.271, 83.7039, -124.909
2.55129, -1, -16.6829, 3.64607, 23.193, 13.2732, 83.6085, -125.15
2.55936, -1, -16.8614, 3.55499, 23.2289, 13.2755, 83.5131, -125.391
2.56729, -1, -17.0389, 3.46395, 23.2647, 13.2777, 83.4177, -125.632
2.57532, -1, -17.2158, 3.37301, 23.3005, 13.2799, 83.3225, -125.873
2.58336, -1, -17.3923, 3.28215, 23.3364, 13.2822, 83.2275, -126.113
2.59129, -1, -17.5686, 3.19131, 23.3722, 13.2842, 83.1324, -126.354
2.59929, -1, -17.7447, 3.10067, 23.408, 13.2864, 83.0376, -126.594
2.60735, -1, -17.9207, 3.0101, 23.444, 13.2885, 82.9429, -126.834
2.6153, -1, -18.0969, 2.91966, 23.4797, 13.2906, 82.8479, -127.075
2.6233, -1, -18.2733, 2.82931, 23.5154, 13.2927, 82.7532, -127.315
2.6314, -1, -18.4504, 2.73887, 23.5512, 13.2948, 82.6587, -127.555
2.63936, -1, -18.6278, 2.64846, 23.5868, 13.2969, 82.5639, -127.794
2.6473, -1, -18.8055, 2.55813, 23.6225, 13.2989, 82.4693, -128.034
2.65537, -1, -18.9836, 2.46768, 23.6582, 13.3008, 82.375, -128.273
2.66329, -1, -19.1619, 2.37719, 23.6938, 13.3028, 82.2805, -128.513
2.67131, -1, -19.34, 2.28681, 23.7293, 13.3048, 82.1862, -128.752
2.67935, -1, -19.5176, 2.19643, 23.765, 13.307, 82.0924, -128.991
2.68729, -1, -19.6948, 2.10604, 23.8004, 13.3092, 81.998, -129.23
2.6953, -1, -19.8713, 2.01575, 23.8358, 13.3113, 81.9038, -129.469
2.70336, -1, -20.047, 1.92553, 23.8715, 13.3135, 81.8099, -129.708
2.71131, -1, -20.2222, 1.83529, 23.907, 13.3157, 81.7157, -129.946
2.71933, -1, -20.3971, 1.74522, 23.9424, 13.3179, 81.6217, -130.184
2.72744, -1, -20.5717, 1.65516, 23.978, 13.3202, 81.528, -130.423
2.73539, -1, -20.7461, 1.56523, 24.0135, 13.3223, 81.4339, -130.661
2.74339, -1, -20.9208, 1.47534, 24.0489, 13.3245, 81.3402, -130.899
2.75146, -1, -21.0958, 1.38565, 24.0845, 13.3267, 81.2466, -131.137
2.75939, -1, -21.2712, 1.29587, 24.12, 13.3289, 81.1527, -131.375
2.76747, -1, -21.4469, 1.20615, 24.1553, 13.3311, 81.0588, -131.613
2.77531, -1, -21.6229, 1.11653, 24.1907, 13.3332, 80.965, -131.85
2.78413, -1, -21.7992, 1.02686, 24.2262, 13.3353, 80.8712, -132.088
2.79137, -1, -21.9755, 0.937231, 24.2616, 13.3375, 80.7773, -132.325
2.79935, -1, -22.1521, 0.847671, 24.297, 13.3396, 80.6837, -132.562
2.80827, -1, -22.3286, 0.758127, 24.3324, 13.3418, 80.5901, -132.799
2.81551, -1, -22.5046, 0.668654, 24.3675, 13.3441, 80.4965, -133.036
2.82356, -1, -22.6802, 0.579157, 24.4028, 13.3465, 80.4029, -133.273
2.8327, -1, -22.8551, 0.489755, 24.4381, 13.3489, 80.3094, -133.51
2.83972, -1, -23.029, 0.40038, 24.4733, 13.3513, 80.2158, -133.747
2.84781, -1, -23.2027, 0.311069, 24.5084, 13.3539, 80.1222, -133.984
2.85664, -1, -23.376, 0.221744, 24.5436, 13.3562, 80.0288, -134.22
2.86384, -1, -23.5492, 0.132535, 24.5789, 13.3586, 79.9354, -134.456
2.8724, -1, -23.7225, 0.0433811, 24.614, 13.361, 79.8421, -134.692
2.88086, -1, -23.8959, -0.0456611, 24.6492, 13.3634, 79.7491, -134.929
2.88839, -1, -24.0694, -0.134621, 24.6843, 13.3659, 79.6558, -135.165
2.89592, -1, -24.1563, -0.179126, 24.7018, 13.3671, 79.5627, -135.4
2.90501, -1, -24.4173, -0.31257, 24.7545, 13.3707, 79.4699, -135.636
2.91241, -1, -24.5918, -0.401423, 24.7896, 13.3732, 79.3767, -135.871
2.91933, -1, -24.6791, -0.445882, 24.8071, 13.3744, 79.3302, -135.989
2.92729, -1, -24.854, -0.534759, 24.8421, 13.3768, 79.2371, -136.225
2.93646, -1, -25.1166, -0.667992, 24.8948, 13.3804, 79.0976, -136.578
2.94328, -1, -25.204, -0.7124, 24.9123, 13.3815, 79.0512, -136.695
2.95127, -1, -25.3785, -0.801154, 24.9472, 13.3839, 78.9585, -136.93
2.95934, -1, -25.5527, -0.889983, 24.9823, 13.3864, 78.8659, -137.165
2.96728, -1, -25.7262, -0.978687, 25.0171, 13.3888, 78.773, -137.4
2.97773, -1, -25.9853, -1.11172, 25.0695, 13.3924, 78.6345, -137.752
2.98336, -1, -26.0715, -1.15606, 25.087, 13.3937, 78.5883, -137.869
2.99286, -1, -26.3295, -1.28897, 25.1393, 13.3973, 78.4493, -138.221
3.00171, -1, -26.5013, -1.37741, 25.1742, 13.3996, 78.3568, -138.456
3.00737, -1, -26.5872, -1.42162, 25.1917, 13.4007, 78.3107, -138.573
3.0169, -1, -26.7593, -1.50999, 25.2441, 13.4041, 78.172, -138.924
3.02329, -1, -26.9315, -1.59816, 25.2615, 13.4052, 78.1257, -139.041
3.03229, -1, -27.104, -1.68634, 25.2964, 13.4074, 78.0336, -139.275
3.04041, -1, -27.2766, -1.77462, 25.3313, 13.4095, 77.9414, -139.509
3.04728, -1, -27.4495, -1.8627, 25.366, 13.4117, 77.8493, -139.742
3.05535, -1, -27.6227, -1.95081, 25.4008, 13.4138, 77.7574, -139.976
3.06329, -1, -27.7959, -2.03899, 25.4357, 13.4159, 77.6653, -140.209
3.07128, -1, -27.9692, -2.127, 25.4705, 13.418, 77.5732, -140.443
3.07929, -1, -28.1425, -2.21506, 25.5052, 13.42, 77.4812, -140.676
3.08734, -1, -28.3156, -2.3031, 25.54, 13.4221, 77.3892, -140.909
3.09533, -1, -28.4883, -2.39114, 25.5748, 13.4242, 77.2971, -141.142
3.10329, -1, -28.6606, -2.47911, 25.6094, 13.4263, 77.205, -141.375
3.11137, -1, -28.8323, -2.56713, 25.6441, 13.4284, 77.1131, -141.608
3.11929, -1, -29.0034, -2.65512, 25.6788, 13.4306, 77.0211, -141.841
3.12729, -1, -29.174, -2.743, 25.7134, 13.4328, 76.9292, -142.073
3.13533, -1, -29.3445, -2.8308, 25.7481, 13.4348, 76.8375, -142.306
3.14335, -1, -29.5152, -2.91851, 25.7828, 13.4369, 76.7455, -142.538
3.15129, -1, -29.6862, -3.00606, 25.8173, 13.4388, 76.6538, -142.77
3.15935, -1, -29.8572, -3.09359, 25.8519, 13.4409, 76.5622, -143.003
3.16732, -1, -30.0282, -3.18106, 25.8865, 13.443, 76.4701, -143.235
3.17594, -1, -30.1992, -3.26858, 25.9211, 13.445, 76.3785, -143.467
3.18435, -1, -30.3704, -3.356, 25.9556, 13.4472, 76.287, -143.699
3.19127, -1, -30.5419, -3.44348, 25.9902, 13.4492, 76.1953, -143.931
3.20057, -1, -30.7137, -3.531, 26.0247, 13.4512, 76.1039, -144.162
3.20727, -1, -30.8856, -3.61833, 26.0592, 13.4533, 76.0126, -144.394
3.21536, -1, -31.0574, -3.70572, 26.0938, 13.4552, 75.9212, -144.625
3.22344, -1, -31.229, -3.79302, 26.1282, 13.4573, 75.8298, -144.856
3.23135, -1, -31.4003, -3.88034, 26.1626, 13.4593, 75.7385, -145.088
3.23944, -1, -31.5712, -3.96762, 26.1971, 13.4615, 75.6472, -145.319
3.24764, -1, -31.7416, -4.05486, 26.2315, 13.4636, 75.5559, -145.55
3.25538, -1, -31.9115, -4.14209, 26.2658, 13.4659, 75.4648, -145.78
3.26345, -1, -32.0813, -4.22933, 26.3003, 13.468, 75.3738, -146.011
3.27186, -1, -32.2507, -4.31644, 26.3347, 13.4703, 75.2827, -146.242
3.27929, -1, -32.4201, -4.40348, 26.3689, 13.4724, 75.1916, -146.473
3.28737, -1, -32.5899, -4.49044, 26.4032, 13.4745, 75.1011, -146.703
3.29691, -1, -32.7595, -4.57731, 26.4377, 13.4767, 75.01, -146.934
3.30428, -1, -32.9292, -4.66423, 26.4719, 13.4789, 74.9192, -147.164
3.31158, -1, -33.0989, -4.75115, 26.506, 13.4811, 74.8289, -147.394
3.3211, -1, -33.2687, -4.83797, 26.5404, 13.4833, 74.738, -147.624
3.32753, -1, -33.4388, -4.92488, 26.5746, 13.4855, 74.6474, -147.854
3.33571, -1, -33.6091, -5.01183, 26.6088, 13.4877, 74.5569, -148.084
3.34584, -1, -33.7794, -5.09861, 26.643, 13.4899, 74.4663, -148.314
3.35233, -1, -33.9497, -5.18536, 26.6772, 13.4921, 74.3758, -148.544
3.35983, -1, -34.1199, -5.27208, 26.7113, 13.4944, 74.2853, -148.773
3.36864, -1, -34.29, -5.35876, 26.7455, 13.4967, 74.1949, -149.002
3.37594, -1, -34.4598, -5.44534, 26.7798, 13.499, 74.1042, -149.232
3.38445, -1, -34.6293, -5.532, 26.8138, 13.5013, 74.0135, -149.461
3.3926, -1, -34.7139, -5.57535, 26.8309, 13.5024, 73.9231, -149.69
3.39992, -1, -34.8826, -5.66191, 26.865, 13.5049, 73.8325, -149.919
3.40726, -1, -35.0511, -5.74843, 26.8992, 13.5073, 73.7873, -150.034
3.41526, -1, -35.2194, -5.83492, 26.9333, 13.5098, 73.697, -150.263
3.42439, -1, -35.472, -5.96435, 26.9845, 13.5134, 73.5614, -150.606
3.43126, -1, -35.5563, -6.00744, 27.0015, 13.5145, 73.5163, -150.721
3.44131, -1, -35.8091, -6.13678, 27.0525, 13.518, 73.381, -151.064
3.44726, -1, -35.8934, -6.17986, 27.0695, 13.5192, 73.3358, -151.178
3.45527, -1, -36.0619, -6.26598, 27.1036, 13.5216, 73.2453, -151.406
3.46537, -1, -36.3147, -6.39522, 27.1545, 13.5252, 73.1098, -151.749
3.47126, -1, -36.3991, -6.43833, 27.1715, 13.5264, 73.0647, -151.863
3.48082, -1, -36.6524, -6.56761, 27.2225, 13.53, 72.9291, -152.206
3.48954, -1, -36.8212, -6.65383, 27.2564, 13.5323, 72.8388, -152.434
3.49525, -1, -36.9057, -6.69687, 27.2734, 13.5334, 72.7939, -152.548
3.50489, -1, -37.159, -6.82607, 27.3243, 13.5368, 72.6587, -152.89
3.51364, -1, -37.2434, -6.86911, 27.3582, 13.5391, 72.5688, -153.118
3.51929, -1, -37.4119, -6.9551, 27.3751, 13.5402, 72.524, -153.231
3.52828, -1, -37.58, -7.04114, 27.4091, 13.5424, 72.4341, -153.459
3.53626, -1, -37.7478, -7.12716, 27.4431, 13.5447, 72.3442, -153.686
3.5433, -1, -37.9155, -7.21315, 27.4769, 13.5469, 72.2544, -153.914
3.55126, -1, -38.0829, -7.29906, 27.5108, 13.5491, 72.1647, -154.142
3.55931, -1, -38.2504, -7.38492, 27.5448, 13.5513, 72.0749, -154.369
3.56726, -1, -38.4177, -7.47064, 27.5786, 13.5534, 71.9852, -154.596
3.57528, -1, -38.5849, -7.55636, 27.6124, 13.5555, 71.8958, -154.823
3.58333, -1, -38.7522, -7.64208, 27.6463, 13.5576, 71.806, -155.051
3.59126, -1, -38.9196, -7.72774, 27.6801, 13.5597, 71.7165, -155.278
3.59927, -1, -39.0869, -7.81334, 27.7138, 13.5617, 71.6275, -155.504
3.60732, -1, -39.2544, -7.89898, 27.7476, 13.5637, 71.5379, -155.731
3.61527, -1, -39.4219, -7.98468, 27.7814, 13.5657, 71.4486, -155.958
3.62328, -1, -39.5895, -8.07025, 27.815, 13.5677, 71.3594, -156.185
3.63133, -1, -39.7571, -8.15576, 27.8487, 13.5696, 71.27, -156.411
3.63927, -1, -39.9247, -8.24125, 27.8825, 13.5715, 71.1807, -156.637
3.64736, -1, -40.0923, -8.3267, 27.9162, 13.5735, 71.0912, -156.864
3.65534, -1, -40.2598, -8.41205, 27.9498, 13.5754, 71.0022, -157.09
3.66326, -1, -40.4269, -8.49741, 27.9836, 13.5773, 70.9127, -157.316
3.67127, -1, -40.5939, -8.58278, 28.0172, 13.5793, 70.8234, -157.543
3.67934, -1, -40.7607, -8.66816, 28.0508, 13.5813, 70.7345, -157.768
3.68726, -1, -40.9273, -8.75349, 28.0845, 13.5833, 70.6453, -157.994
3.69534, -1, -41.0937, -8.83878, 28.1182, 13.5854, 70.5561, -158.22
3.70327, -1, -41.2601, -8.92401, 28.1517, 13.5874, 70.4671, -158.446
3.71212, -1, -41.4264, -9.00917, 28.1853, 13.5894, 70.3778, -158.672
3.71951, -1, -41.5926, -9.09432, 28.219, 13.5913, 70.2886, -158.897
3.72732, -1, -41.7589, -9.17939, 28.2525, 13.5933, 70.1996, -159.122
3.73535, -1, -41.9252, -9.26446, 28.2861, 13.5954, 70.1105, -159.348
3.74377, -1, -42.0916, -9.34952, 28.3198, 13.5974, 70.0215, -159.574
3.75136, -1, -42.2579, -9.43458, 28.3533, 13.5995, 69.9325, -159.799
3.75936, -1, -42.4242, -9.51959, 28.3868, 13.6015, 69.8438, -160.024
3.76784, -1, -42.5906, -9.60455, 28.4203, 13.6035, 69.7547, -160.249
3.77547, -1, -42.757, -9.68946, 28.4538, 13.6055, 69.6658, -160.474
3.78327, -1, -42.9234, -9.77439, 28.4872, 13.6076, 69.5772, -160.7
3.79135, -1, -43.0897, -9.85925, 28.5207, 13.6096, 69.4882, -160.924
3.80029, -1, -43.2558, -9.94414, 28.5542, 13.6117, 69.3995, -161.149
3.80732, -1, -43.4219, -10.029, 28.5877, 13.6137, 69.311, -161.374
3.81554, -1, -43.5879, -10.1139, 28.6212, 13.6158, 69.2223, -161.599
3.8243, -1, -43.7538, -10.1988, 28.6547, 13.6179, 69.1338, -161.823
3.83152, -1, -43.9197, -10.2836, 28.6881, 13.6201, 69.0453, -162.048
3.83973, -1, -44.0854, -10.3684, 28.7215, 13.6222, 68.9569, -162.272
3.8485, -1, -44.2507, -10.453, 28.755, 13.6243, 68.8682, -162.497
3.85575, -1, -44.4159, -10.5376, 28.7885, 13.6266, 68.7795, -162.721
3.86382, -1, -44.581, -10.6221, 28.8218, 13.6288, 68.6911, -162.945
3.87248, -1, -44.7462, -10.7066, 28.8552, 13.6309, 68.6023, -163.169
3.87984, -1, -44.9115, -10.791, 28.8887, 13.6332, 68.5139, -163.393
3.88836, -1, -45.0769, -10.8755, 28.922, 13.6354, 68.4256, -163.617
3.89612, -1, -45.1596, -10.9178, 28.9387, 13.6365, 68.337, -163.841
3.90387, -1, -45.3248, -11.0023, 28.9721, 13.6387, 68.2928, -164.066
3.9113, -1, -45.49, -11.0868, 29.0055, 13.6409, 68.2045, -164.178
3.92052, -1, -45.738, -11.2134, 29.0552, 13.6444, 68.0722, -164.513
3.92725, -1, -45.8206, -11.2557, 29.0719, 13.6455, 68.0279, -164.625
3.93639, -1, -46.066, -11.381, 29.1221, 13.6489, 67.8954, -164.96
3.94325, -1, -46.1463, -11.4219, 29.1387, 13.6501, 67.8515, -165.072
3.95125, -1, -46.3034, -11.5014, 29.1723, 13.6525, 67.7641, -165.293
3.9593, -1, -46.4537, -11.5765, 29.2058, 13.6549, 67.6789, -165.508
3.96725, -1, -46.595, -11.6465, 29.2381, 13.6571, 67.5974, -165.714
3.97675, -1, -46.7843, -11.7389, 29.2816, 13.6603, 67.4878, -165.991
3.98478, -1, -46.8914, -11.7916, 29.306, 13.6623, 67.4262, -166.147
3.99299, -1, -46.9822, -11.8376, 29.3255, 13.6637, 67.3757, -166.276
3.99925, -1, -47.0215, -11.8584, 29.3331, 13.6643, 67.3547, -166.329
4.00729, -1, -47.0888, -11.8953, 29.3445, 13.6651, 67.3211, -166.413
4.01689, -1, -47.1624, -11.9369, 29.354, 13.6657, 67.2892, -166.493
4.02539, -1, -47.1955, -11.9556, 29.3567, 13.6658, 67.2774, -166.523
4.03131, -1, -47.2081, -11.9626, 29.3575, 13.6659, 67.2737, -166.533
4.03925, -1, -47.2263, -11.9727, 29.3583, 13.6659, 67.2689, -166.545
4.04825, -1, -47.2373, -11.9786, 29.3587, 13.666, 67.2665, -166.551
4.05625, -1, -47.2429, -11.9816, 29.3589, 13.666, 67.2654, -166.553
4.06325, 2, -47.245, -11.9829, 29.3591, 13.6661, 67.2649, -166.555
4.07124, 2, -47.2451, -11.9834, 29.3592, 13.6661, 67.2646, -166.555
4.0793, 2, -47.2449, -11.9836, 29.3592, 13.6661, 67.2645, -166.556
4.08725, 2, -47.2449, -11.9837, 29.3593, 13.6661, 67.2645, -166.556
4.09525, 2, -47.2453, -11.9838, 29.3593, 13.6661, 67.2644, -166.556
4.10333, 2, -47.2462, -11.984, 29.3593, 13.6661, 67.2645, -166.556
4.11124, 2, -47.2475, -11.9846, 29.3593, 13.6661, 67.2645, -166.556
4.11924, 2, -47.2493, -11.9854, 29.3593, 13.6661, 67.2644, -166.556
4.12731, 2, -47.2509, -11.9863, 29.3593, 13.6661, 67.2644, -166.556
4.13525, 2, -47.2523, -11.9871, 29.3593, 13.666, 67.2644, -166.556
4.14325, 2, -47.2532, -11.9878, 29.3593, 13.666, 67.2644, -166.556
4.15138, 2, -47.2537, -11.9882, 29.3593, 13.6661, 67.2644, -166.556
4.15924, 2, -47.2538, -11.9884, 29.3593, 13.666, 67.2644, -166.556
4.16724, 2, -47.2539, -11.9884, 29.3594, 13.6661, 67.2644, -166.556
4.17533, 2, -47.2536, -11.9884, 29.3594, 13.6661, 67.2644, -166.556
4.18327, 2, -47.2531, -11.9884, 29.3594, 13.6661, 67.2644, -166.556
4.19125, 2, -47.2527, -11.9884, 29.3594, 13.6661, 67.2645, -166.556
4.19932, 2, -47.2523, -11.9884, 29.3594, 13.6661, 67.2644, -166.556
4.20725, 2, -47.2521, -11.9884, 29.3594, 13.6661, 67.2644, -166.556
4.21526, 2, -47.2521, -11.9884, 29.3594, 13.6661, 67.2644, -166.556
4.22334, 2, -47.2523, -11.9886, 29.3594, 13.6661, 67.2644, -166.556
4.2314, 2, -47.2525, -11.9889, 29.3594, 13.6661, 67.2644, -166.556
4.23934, 2, -47.2531, -11.9893, 29.3594, 13.6661, 67.2644, -166.556
4.2474, 2, -47.2536, -11.9896, 29.3594, 13.6661, 67.2645, -166.556
4.25534, 2, -47.2539, -11.9898, 29.3594, 13.6661, 67.2645, -166.556
4.26335, 2, -47.2541, -11.9899, 29.3594, 13.666, 67.2645, -166.556
4.27142, 2, -47.2541, -11.9899, 29.3594, 13.666, 67.2645, -166.556
4.27925, 2, -47.254, -11.9899, 29.3594, 13.6661, 67.2645, -166.556
4.28727, 2, -47.2538, -11.9898, 29.3594, 13.6661, 67.2645, -166.556
4.29534, 2, -47.2533, -11.9898, 29.3594, 13.6661, 67.2645, -166.556
4.30337, 2, -47.253, -11.9897, 29.3594, 13.6661, 67.2645, -166.556
4.31139, 2, -47.2527, -11.9897, 29.3594, 13.6661, 67.2645, -166.556
4.31954, 2, -47.2525, -11.9897, 29.3594, 13.6661, 67.2645, -166.556
4.32749, 2, -47.2524, -11.9897, 29.3594, 13.666, 67.2645, -166.556
4.33558, 2, -47.2524, -11.9898, 29.3594, 13.666, 67.2645, -166.556
4.34369, 2, -47.2523, -11.9898, 29.3594, 13.666, 67.2645, -166.556
4.3517, 2, -47.2523, -11.9899, 29.3594, 13.6661, 67.2646, -166.555
4.36032, 2, -47.2523, -11.9899, 29.3594, 13.6661, 67.2645, -166.556
4.36784, 2, -47.2524, -11.9899, 29.3594, 13.666, 67.2645, -166.556
4.37641, 2, -47.2524, -11.9899, 29.3594, 13.666, 67.2645, -166.555
4.38393, 2, -47.2524, -11.9899, 29.3594, 13.666, 67.2645, -166.555
4.39236, 2, -47.2523, -11.9898, 29.3594, 13.666, 67.2645, -166.555
4.39984, 2, -47.2522, -11.9898, 29.3594, 13.666, 67.2645, -166.556
4.40725, 2, -47.2521, -11.9897, 29.3594, 13.666, 67.2645, -166.556
4.41527, 2, -47.252, -11.9897, 29.3594, 13.666, 67.2645, -166.556
4.42441, 2, -47.2518, -11.9896, 29.3594, 13.666, 67.2645, -166.555
4.43126, 2, -47.2518, -11.9896, 29.3594, 13.666, 67.2645, -166.555
4.44039, 2, -47.2517, -11.9896, 29.3594, 13.666, 67.2645, -166.555
4.44724, 2, -47.2517, -11.9897, 29.3594, 13.666, 67.2646, -166.555
4.4566, 2, -47.2516, -11.9897, 29.3594, 13.666, 67.2646, -166.555
4.46327, 2, -47.2516, -11.9897, 29.3594, 13.666, 67.2646, -166.555
4.47268, 2, -47.2515, -11.9897, 29.3594, 13.666, 67.2646, -166.555
4.47925, 2, -47.2515, -11.9897, 29.3594, 13.666, 67.2646, -166.555
4.48877, 2, -47.2513, -11.9896, 29.3594, 13.666, 67.2646, -166.555
4.49683, 2, -47.2513, -11.9896, 29.3594, 13.666, 67.2646, -166.555
4.50489, 2, -47.2512, -11.9895, 29.3594, 13.666, 67.2646, -166.555
4.51283, 2, -47.2511, -11.9895, 29.3594, 13.666, 67.2646, -166.555
4.52086, 2, -47.251, -11.9894, 29.3594, 13.666, 67.2646, -166.555
4.5288, 2, -47.2509, -11.9894, 29.3594, 13.666, 67.2646, -166.555
4.53524, 2, -47.2508, -11.9894, 29.3594, 13.666, 67.2646, -166.555
4.54323, 2, -47.2507, -11.9894, 29.3594, 13.666, 67.2646, -166.555
4.55223, 2, -47.2506, -11.9894, 29.3594, 13.666, 67.2646, -166.555
4.56024, 2, -47.2505, -11.9894, 29.3594, 13.666, 67.2646, -166.555
4.56722, 2, -47.2504, -11.9894, 29.3594, 13.666, 67.2646, -166.555
4.57525, 2, -47.2503, -11.9894, 29.3594, 13.666, 67.2646, -166.555
4.58329, 2, -47.2502, -11.9894, 29.3594, 13.666, 67.2646, -166.555
4.59123, 2, -47.2501, -11.9894, 29.3594, 13.666, 67.2646, -166.555
4.59925, 2, -47.25, -11.9893, 29.3594, 13.666, 67.2646, -166.555
4.60728, 2, -47.2499, -11.9892, 29.3594, 13.666, 67.2646, -166.555
4.61523, 2, -47.2498, -11.9891, 29.3594, 13.6659, 67.2646, -166.555
4.62325, 2, -47.2497, -11.989, 29.3594, 13.6659, 67.2646, -166.555
4.63129, 2, -47.2496, -11.989, 29.3594, 13.6659, 67.2646, -166.555
4.63923, 2, -47.2495, -11.989, 29.3594, 13.6659, 67.2646, -166.555
4.64724, 2, -47.2495, -11.989, 29.3594, 13.6659, 67.2647, -166.555
4.65536, 2, -47.2494, -11.989, 29.3594, 13.6659, 67.2647, -166.555
4.66323, 2, -47.2493, -11.989, 29.3594, 13.6659, 67.2647, -166.555
4.67126, 2, -47.2493, -11.989, 29.3594, 13.6659, 67.2647, -166.555
4.67928, 2, -47.2492, -11.989, 29.3594, 13.6658, 67.2646, -166.555
4.68725, 2, -47.2492, -11.989, 29.3594, 13.6659, 67.2647, -166.555
4.69525, 2, -47.2492, -11.989, 29.3594, 13.6658, 67.2647, -166.555
4.70329, 2, -47.2491, -11.9889, 29.3594, 13.6658, 67.2647, -166.555
4.7113, 2, -47.2491, -11.9888, 29.3594, 13.6659, 67.2647, -166.555
4.71925, 2, -47.249, -11.9887, 29.3594, 13.6658, 67.2647, -166.555
4.72731, 2, -47.2489, -11.9887, 29.3594, 13.6658, 67.2647, -166.555
4.7353, 2, -47.2488, -11.9886, 29.3594, 13.6659, 67.2647, -166.555
4.74334, 2, -47.2487, -11.9886, 29.3594, 13.6659, 67.2647, -166.555
4.75138, 2, -47.2487, -11.9886, 29.3594, 13.6658, 67.2647, -166.555
4.75933, 2, -47.2486, -11.9886, 29.3594, 13.6658, 67.2647, -166.555
4.76735, 2, -47.2486, -11.9886, 29.3594, 13.6658, 67.2647, -166.555
4.77539, 2, -47.2486, -11.9886, 29.3594, 13.6658, 67.2647, -166.555
4.78324, 2, -47.2485, -11.9886, 29.3594, 13.6658, 67.2648, -166.555
4.79129, 2, -47.2485, -11.9886, 29.3594, 13.6658, 67.2648, -166.555
4.79932, 2, -47.2485, -11.9885, 29.3594, 13.6658, 67.2648, -166.555
4.80729, 2, -47.2484, -11.9885, 29.3594, 13.6657, 67.2647, -166.555
4.81552, 2, -47.2484, -11.9884, 29.3594, 13.6657, 67.2648, -166.555
4.82352, 2, -47.2483, -11.9883, 29.3594, 13.6658, 67.2648, -166.554
4.83146, 2, -47.2482, -11.9883, 29.3594, 13.6657, 67.2648, -166.554
4.83985, 2, -47.2481, -11.9882, 29.3594, 13.6657, 67.2648, -166.554
4.84827, 2, -47.248, -11.9882, 29.3594, 13.6657, 67.2648, -166.554
4.85567, 2, -47.248, -11.9882, 29.3594, 13.6657, 67.2648, -166.554
4.86432, 2, -47.2479, -11.9882, 29.3594, 13.6657, 67.2648, -166.554
4.87179, 2, -47.2479, -11.9881, 29.3594, 13.6656, 67.2648, -166.554
4.88038, 2, -47.2479, -11.9881, 29.3594, 13.6656, 67.2649, -166.554
4.88805, 2, -47.2479, -11.9881, 29.3594, 13.6656, 67.2649, -166.554
4.89583, 2, -47.2479, -11.9881, 29.3594, 13.6656, 67.2649, -166.554
4.90438, 2, -47.2478, -11.9881, 29.3594, 13.6656, 67.2649, -166.554
4.91218, 2, -47.2478, -11.9881, 29.3594, 13.6655, 67.2649, -166.554
4.9193, 2, -47.2477, -11.988, 29.3594, 13.6655, 67.2649, -166.554
4.92839, 2, -47.2476, -11.9879, 29.3594, 13.6655, 67.2648, -166.554
4.93601, 2, -47.2475, -11.9879, 29.3594, 13.6656, 67.2648, -166.554
4.94326, 2, -47.2474, -11.9878, 29.3594, 13.6655, 67.2649, -166.554
4.95248, 2, -47.2473, -11.9878, 29.3594, 13.6656, 67.265, -166.554
4.95923, 2, -47.2473, -11.9878, 29.3594, 13.6656, 67.265, -166.554
4.96725, 2, -47.2473, -11.9878, 29.3594, 13.6655, 67.265, -166.554
4.97667, 2, -47.2472, -11.9877, 29.3594, 13.6655, 67.265, -166.554
4.98325, 2, -47.2472, -11.9877, 29.3594, 13.6655, 67.265, -166.554
4.99134, 2, -47.2472, -11.9877, 29.3594, 13.6655, 67.265, -166.554
5.00076, 2, -47.2472, -11.9877, 29.3594, 13.6655, 67.2649, -166.554
5.0093, 2, -47.2471, -11.9877, 29.3594, 13.6655, 67.265, -166.554
5.01526, 2, -47.2471, -11.9877, 29.3594, 13.6654, 67.265, -166.554
5.02483, 2, -47.247, -11.9876, 29.3594, 13.6654, 67.2649, -166.554
5.03316, 2, -47.2469, -11.9875, 29.3594, 13.6654, 67.265, -166.554
5.03926, 2, -47.2468, -11.9875, 29.3594, 13.6654, 67.265, -166.554
5.04721, 2, -47.2468, -11.9874, 29.3594, 13.6654, 67.265, -166.554
5.05523, 2, -47.2467, -11.9874, 29.3594, 13.6654, 67.265, -166.554
5.06444, 2, -47.2466, -11.9874, 29.3594, 13.6654, 67.265, -166.554
5.07225, 2, -47.2466, -11.9874, 29.3594, 13.6654, 67.265, -166.554
5.08025, 2, -47.2465, -11.9874, 29.3594, 13.6654, 67.265, -166.554
5.08721, 2, -47.2465, -11.9874, 29.3594, 13.6654, 67.265, -166.554
5.0963, 2, -47.2465, -11.9874, 29.3594, 13.6653, 67.2651, -166.554
5.10328, 2, -47.2465, -11.9873, 29.3594, 13.6653, 67.2651, -166.554
5.11123, 2, -47.2465, -11.9873, 29.3594, 13.6653, 67.2651, -166.554
5.11921, 2, -47.2464, -11.9873, 29.3594, 13.6653, 67.2651, -166.554
5.12728, 2, -47.2464, -11.9872, 29.3594, 13.6652, 67.2651, -166.554
5.13522, 2, -47.2463, -11.9872, 29.3594, 13.6652, 67.2651, -166.554
5.14321, 4, -47.2462, -11.9871, 29.3594, 13.6652, 67.2651, -166.554
5.15129, 4, -47.2461, -11.9871, 29.3594, 13.6652, 67.2651, -166.554
5.15929, 4, -47.2461, -11.9871, 29.3594, 13.6652, 67.2651, -166.554
5.16721, 4, -47.246, -11.987, 29.3594, 13.6652, 67.2651, -166.554
5.17528, 4, -47.2459, -11.987, 29.3594, 13.6652, 67.2651, -166.554
5.18321, 4, -47.2459, -11.987, 29.3594, 13.6652, 67.2651, -166.554
5.19124, 4, -47.2459, -11.987, 29.3594, 13.6652, 67.2652, -166.554
5.19928, 4, -47.2459, -11.987, 29.3594, 13.6652, 67.2652, -166.554
5.20722, 4, -47.2458, -11.987, 29.3593, 13.6651, 67.2652, -166.554
5.21521, 4, -47.2459, -11.9869, 29.3593, 13.6651, 67.2652, -166.554
5.22329, 4, -47.2458, -11.9869, 29.3593, 13.6651, 67.2653, -166.554
5.23126, 4, -47.2458, -11.9869, 29.3593, 13.6651, 67.2652, -166.553
5.23946, 4, -47.2457, -11.9868, 29.3594, 13.6651, 67.2652, -166.553
5.25533, 4, -47.2455, -11.9868, 29.3594, 13.665, 67.2653, -166.553
5.25724, 4, -47.2455, -11.9868, 29.3594, 13.665, 67.2653, -166.553
5.26358, 4, -47.2455, -11.9867, 29.3594, 13.665, 67.2653, -166.553
5.27234, 4, -47.2454, -11.9867, 29.3593, 13.665, 67.2654, -166.553
5.27946, 4, -47.2454, -11.9867, 29.3593, 13.665, 67.2654, -166.553
5.28837, 4, -47.2453, -11.9867, 29.3594, 13.6649, 67.2654, -166.553
5.29561, 4, -47.2453, -11.9867, 29.3594, 13.6649, 67.2653, -166.553
5.30444, 4, -47.2453, -11.9867, 29.3594, 13.6649, 67.2653, -166.553
5.31753, 4, -47.2453, -11.9866, 29.3594, 13.6649, 67.2653, -166.553
5.322, 4, -47.2452, -11.9866, 29.3593, 13.6649, 67.2653, -166.553
5.32847, 4, -47.2452, -11.9866, 29.3593, 13.6649, 67.2653, -166.553
5.33638, 4, -47.2452, -11.9866, 29.3594, 13.6649, 67.2654, -166.553
5.34662, 4, -47.2451, -11.9865, 29.3594, 13.6649, 67.2654, -166.553
5.35207, 4, -47.2451, -11.9865, 29.3594, 13.6649, 67.2654, -166.553
5.36071, 4, -47.245, -11.9865, 29.3593, 13.6649, 67.2654, -166.553
5.36845, 4, -47.245, -11.9865, 29.3594, 13.6649, 67.2654, -166.553
5.37812, 4, -47.2449, -11.9864, 29.3594, 13.6648, 67.2653, -166.553
5.38424, 4, -47.2449, -11.9864, 29.3593, 13.6648, 67.2653, -166.553
5.39211, 4, -47.2449, -11.9864, 29.3593, 13.6648, 67.2654, -166.553
5.40395, 4, -47.2448, -11.9864, 29.3594, 13.6648, 67.2653, -166.553
5.40806, 4, -47.2449, -11.9864, 29.3594, 13.6648, 67.2653, -166.553
5.41727, 4, -47.2459, -11.9869, 29.3597, 13.665, 67.2654, -166.553
5.43021, 4, -47.25, -11.9905, 29.3637, 13.67, 67.2668, -166.552
5.43364, 4, -47.2524, -11.9932, 29.3671, 13.6763, 67.2683, -166.552
5.44522, 4, -47.2594, -12.0021, 29.3797, 13.7218, 67.2804, -166.542
5.44736, 4, -47.2645, -12.0088, 29.3902, 13.7218, 67.2804, -166.542
5.4593, 5, -47.289, -12.0417, 29.447, 13.8377, 67.3127, -166.517
5.46664, 5, -47.3157, -12.0772, 29.5139, 13.9776, 67.3523, -166.485
5.47135, 5, -47.3329, -12.0997, 29.5585, 14.0719, 67.3783, -166.463
5.47953, 5, -47.3762, -12.1551, 29.673, 14.3167, 67.4458, -166.406
5.48738, 5, -47.4322, -12.2253, 29.8238, 14.6434, 67.5352, -166.332
5.49753, 5, -47.5398, -12.359, 30.122, 15.2906, 67.7094, -166.183
5.50671, 5, -47.6267, -12.4666, 30.3675, 15.8181, 67.8494, -166.063
5.51133, 5, -47.6743, -12.5254, 30.5024, 16.106, 67.9251, -165.998
5.51937, 5, -47.7766, -12.6522, 30.7946, 16.7212, 68.0858, -165.86
5.53346, 5, -48.0033, -12.9348, 31.4456, 18.0574, 68.4251, -165.566
5.53714, 5, -48.0033, -13.0097, 31.6176, 18.4025, 68.5108, -165.491
5.54641, 5, -48.1836, -13.1622, 31.9673, 19.0977, 68.681, -165.343
5.553, 5, -48.2439, -13.2389, 32.1443, 19.4452, 68.765, -165.269
5.55937, 5, -48.3624, -13.3913, 32.4988, 20.132, 68.93, -165.121
5.5675, 5, -48.4749, -13.54, 32.8519, 20.8011, 69.0912, -164.968
5.57535, 6, -48.5771, -13.6818, 33.1966, 21.4407, 69.2501, -164.799
5.58668, 6, -48.7017, -13.8753, 33.6873, 22.3223, 69.4885, -164.486
5.59235, 7, -48.7337, -13.9346, 33.8415, 22.5923, 69.5693, -164.359
5.60031, 7, -48.7818, -14.0465, 34.1351, 23.0945, 69.7349, -164.062
5.61021, 7, -48.8153, -14.1959, 34.5364, 23.7635, 69.9997, -163.488
5.61816, 8, -48.8138, -14.2818, 34.7812, 24.1671, 70.1918, -163.016
5.62335, 8, -48.8064, -14.3213, 34.8983, 24.3602, 70.2933, -162.755
5.63198, 9, -48.7798, -14.3959, 35.1239, 24.7361, 70.5076, -162.187
5.64391, 10, -48.7148, -14.501, 35.4506, 25.2913, 70.8544, -161.251
5.65012, 10, -48.6878, -14.5343, 35.6671, 25.6627, 71.0981, -160.592
5.65841, 11, -48.5938, -14.6298, 35.8846, 26.0371, 71.3468, -159.919
5.66342, 11, -48.5591, -14.6609, 35.9942, 26.2251, 71.4714, -159.582
5.67235, 11, -48.4859, -14.7232, 36.2154, 26.6027, 71.7195, -158.91
5.68041, 12, -48.4087, -14.786, 36.4369, 26.983, 71.965, -158.244
5.68895, 12, -48.3293, -14.8492, 36.6565, 27.3662, 72.2082, -157.582
5.69642, 13, -48.2478, -14.9123, 36.8738, 27.7531, 72.4503, -156.924
5.70402, 13, -48.1642, -14.9753, 37.0875, 28.1442, 72.6927, -156.269
5.7124, 14, -48.0775, -15.0388, 37.297, 28.5397, 72.9361, -155.614
5.72035, 14, -47.9869, -15.1026, 37.5037, 28.9387, 73.1808, -154.959
5.73169, 15, -47.8448, -15.196, 37.8073, 29.5411, 73.548, -153.981
5.73734, 16, -47.7957, -15.2261, 37.9068, 29.7421, 73.6699, -153.656
5.74551, 16, -47.6942, -15.2855, 38.1044, 30.1435, 73.9124, -153.008
5.75231, 16, -47.5873, -15.3453, 38.2998, 30.5437, 74.1524, -152.365
5.76127, 17, -47.4752, -15.4064, 38.4919, 30.9419, 74.3892, -151.726
5.76744, 17, -47.3584, -15.4686, 38.6811, 31.3378, 74.6216, -151.091
5.77631, 18, -47.2367, -15.5314, 38.8685, 31.7306, 74.8493, -150.464
5.7853, 18, -47.1096, -15.5953, 39.0537, 32.1202, 75.0715, -149.844
5.79161, 19, -46.9771, -15.6613, 39.2361, 32.5071, 75.2881, -149.232
5.80043, 19, -46.8393, -15.7297, 39.4173, 32.8919, 75.4991, -148.626
5.80761, 20, -46.6964, -15.8004, 39.5972, 33.2744, 75.7048, -148.029
5.81968, 21, -46.4729, -15.9113, 39.8624, 33.8444, 76.0037, -147.147
5.82543, 21, -46.3961, -15.9499, 39.9497, 34.0336, 76.1009, -146.856
5.83203, 21, -46.2391, -16.0291, 40.1233, 34.4103, 76.2911, -146.28
5.84139, 22, -46.0769, -16.1106, 40.295, 34.7842, 76.4758, -145.712
5.85061, 23, -45.9091, -16.1938, 40.4634, 35.1551, 76.6553, -145.151
5.85645, 23, -45.7352, -16.2789, 40.6291, 35.5217, 76.8292, -144.596
5.86759, 24, -45.5548, -16.3659, 40.7924, 35.8841, 77.0797, -143.772
5.874, 24, -45.3678, -16.4543, 40.952, 36.2417, 77.1605, -143.501
5.88212, 24, -45.1741, -16.544, 41.1071, 36.5933, 77.3183, -142.961
5.8881, 25, -44.9741, -16.6347, 41.2579, 36.9387, 77.4713, -142.424
5.89696, 25, -44.7676, -16.7261, 41.4044, 37.2775, 77.6197, -141.891
5.90403, 26, -44.5543, -16.8181, 41.5457, 37.6093, 77.7635, -141.361
5.91365, 27, -44.3338, -16.9103, 41.6816, 37.9336, 77.9034, -140.833
5.92003, 27, -44.221, -16.9562, 41.7473, 38.2503, 78.039, -140.307
5.92902, 27, -43.8723, -17.093, 41.9357, 38.5587, 78.1708, -139.781
5.93535, 28, -43.7528, -17.1382, 41.9953, 38.7099, 78.2354, -139.519
5.94332, 28, -43.5086, -17.2278, 42.1095, 39.0058, 78.3615, -138.996
5.95466, 29, -43.1301, -17.3596, 42.2681, 39.4339, 78.5452, -138.212
5.96107, 29, -43.0007, -17.4027, 42.3175, 39.5725, 78.6632, -137.69
5.96946, 30, -42.6009, -17.5293, 42.4547, 39.9754, 78.7786, -137.168
5.97714, 30, -42.3234, -17.6109, 42.5372, 40.2333, 78.8909, -136.647
5.98605, 31, -42.0376, -17.6899, 42.6126, 40.4827, 79.0002, -136.127
5.99319, 31, -41.7443, -17.7665, 42.681, 40.7235, 79.1073, -135.607
6.0012, 32, -41.4441, -17.8408, 42.7426, 40.956, 79.2114, -135.087
6.00908, 32, -41.2916, -17.877, 42.7709, 41.069, 79.2625, -134.828
6.0154, 33, -40.9818, -17.9471, 42.822, 41.2891, 79.3631, -134.311
6.02702, 34, -40.5047, -18.0463, 42.8852, 41.6042, 79.5089, -133.536
6.03302, 34, -40.1799, -18.1091, 42.9182, 41.8041, 79.6028, -133.02
6.04021, 34, -40.0159, -18.1395, 42.932, 41.9009, 79.6488, -132.763
6.04733, 35, -39.6837, -18.198, 42.9541, 42.089, 79.7391, -132.249
6.05534, 35, -39.3455, -18.253, 42.9692, 42.2696, 79.8266, -131.737
6.0656, 36, -39, -18.3292, 42.9788, 42.5259, 79.9541, -130.97
6.07439, 37, -38.4683, -18.3758, 42.977, 42.6873, 80.0366, -130.46
6.07941, 37, -38.2879, -18.3979, 42.9735, 42.7651, 80.0767, -130.206
6.08835, 37, -37.9229, -18.4393, 42.9612, 42.9152, 80.1563, -129.699
6.09533, 38, -37.5526, -18.4769, 42.9422, 43.058, 80.2333, -129.194
6.10565, 38, -37.1777, -18.5113, 42.9014, 43.2581, 80.3452, -128.439
6.11234, 39, -36.7983, -18.5422, 42.8844, 43.321, 80.381, -128.188
6.11935, 39, -36.4145, -18.5695, 42.8453, 43.4416, 80.4521, -127.688
6.12734, 40, -36.0251, -18.593, 42.7996, 43.5549, 80.521, -127.19
6.1381, 41, -35.4298, -18.6208, 42.7189, 43.7114, 80.6215, -126.446
6.14334, 41, -35.2285, -18.6282, 42.6887, 43.7597, 80.6536, -126.198
6.15129, 41, -34.8221, -18.6403, 42.6235, 43.8513, 80.7168, -125.706
6.16296, 42, -34.2053, -18.6521, 42.5137, 43.9755, 80.8078, -124.972
6.16742, 42, -33.9982, -18.6544, 42.474, 44.0134, 80.8372, -124.728
6.17629, 43, -33.5813, -18.6567, 42.3899, 44.0836, 80.8954, -124.243
6.18339, 43, -33.1596, -18.6555, 42.3, 44.147, 80.9508, -123.759
6.19231, 44, -32.7319, -18.6505, 42.2043, 44.203, 81.0054, -123.279
6.19944, 44, -32.2978, -18.6417, 42.1029, 44.2515, 81.0583, -122.801
6.20939, 45, -31.8576, -18.6292, 41.9955, 44.2932, 81.1087, -122.325
6.21533, 45, -31.4131, -18.6131, 41.8822, 44.3274, 81.1586, -121.851
6.22345, 46, -30.9664, -18.5937, 41.7628, 44.3537, 81.2062, -121.379
6.23474, 47, -30.2922, -18.5576, 41.5729, 44.3788, 81.274, -120.677
6.23949, 47, -30.0654, -18.5435, 41.5066, 44.3835, 81.2965, -120.444
6.24834, 47, -29.6075, -18.5117, 41.3697, 44.3879, 81.3403, -119.979
6.26034, 48, -29.1428, -18.4758, 41.2266, 44.3794, 81.4032, -119.285
6.26358, 48, -28.6721, -18.4355, 41.0775, 44.3722, 81.4241, -119.055
6.27341, 49, -28.197, -18.3908, 40.9226, 44.3515, 81.4659, -118.596
6.27951, 49, -27.7195, -18.3417, 40.7617, 44.3211, 81.5067, -118.137
6.28831, 50, -27.2392, -18.2878, 40.5941, 44.2808, 81.5473, -117.68
6.29642, 51, -26.7545, -18.2285, 40.4199, 44.2321, 81.5891, -117.224
6.30603, 51, -26.2624, -18.1637, 40.2394, 44.1735, 81.6316, -116.768
6.31232, 51, -25.7627, -18.0933, 40.0521, 44.1049, 81.674, -116.314
6.32045, 52, -25.2573, -18.0174, 39.8572, 44.0265, 81.7174, -115.86
6.3293, 53, -24.7492, -17.9364, 39.6557, 43.9374, 81.7623, -115.407
6.33636, 53, -24.239, -17.8498, 39.4482, 43.8384, 81.8069, -114.955
6.34398, 53, -23.7247, -17.7572, 39.2328, 43.7293, 81.8527, -114.503
6.35193, 54, -23.2036, -17.6583, 39.0102, 43.6095, 81.901, -114.051
6.36268, 55, -22.6739, -17.5533, 38.781, 43.479, 81.9506, -113.6
6.36934, 55, -22.1374, -17.4421, 38.5441, 43.337, 82.0022, -113.148
6.38077, 55, -21.5977, -17.3248, 38.1761, 43.1018, 82.0847, -112.47
6.38425, 56, -21.0556, -17.2017, 38.0502, 43.0176, 82.1125, -112.244
6.39223, 56, -20.5091, -17.073, 37.7925, 42.8407, 82.1703, -111.794
6.40479, 57, -19.6726, -16.8696, 37.3941, 42.5535, 82.26, -111.118
6.4103, 58, -19.3893, -16.7989, 37.2577, 42.4517, 82.2908, -110.893
6.41729, 58, -18.8187, -16.6528, 36.9805, 42.2385, 82.3546, -110.443
6.42579, 59, -18.2451, -16.5009, 36.6971, 42.0128, 82.4192, -109.993
6.43253, 59, -17.6691, -16.344, 36.4068, 41.7748, 82.4872, -109.544
6.44126, 60, -17.0862, -16.1827, 36.1105, 41.5241, 82.5568, -109.095
6.44744, 60, -16.7911, -16.1002, 35.96, 41.394, 82.5925, -108.87
6.45638, 60, -16.1932, -15.931, 35.6551, 41.1243, 82.7024, -108.196
6.46484, 61, -15.2865, -15.668, 35.188, 40.6948, 82.7778, -107.748
6.47136, 61, -14.9829, -15.5782, 35.0295, 40.5454, 82.8163, -107.524
6.47932, 62, -14.3724, -15.3953, 34.7084, 40.2371, 82.895, -107.075
6.4873, 62, -13.7535, -15.207, 34.3817, 39.9155, 82.9761, -106.627
6.49749, 63, -12.806, -14.912, 33.8825, 39.4061, 83.1032, -105.952
6.50562, 64, -12.1658, -14.7085, 33.543, 39.0473, 83.1927, -105.502
6.5137, 64, -11.522, -14.4998, 33.197, 38.6739, 83.2859, -105.051
6.52503, 65, -10.5422, -14.1733, 32.6665, 38.0852, 83.4344, -104.371
6.52739, 65, -10.5422, -14.1733, 32.6665, 38.0852, 83.4344, -104.371
6.53781, 66, -9.53872, -13.8307, 32.1231, 37.4609, 83.5942, -103.687
6.54345, 66, -9.2001, -13.7132, 31.9395, 37.2447, 83.6502, -103.458
6.55206, 66, -8.51874, -13.4729, 31.5684, 36.8005, 83.7667, -102.999
6.55933, 67, -7.83113, -13.2251, 31.1902, 36.3394, 83.889, -102.537
6.56836, 68, -7.13353, -12.9701, 30.806, 35.862, 84.0185, -102.073
6.57944, 68, -6.0697, -12.574, 30.2212, 35.1152, 84.2253, -101.372
6.5834, 68, -5.71152, -12.4389, 30.0243, 34.8588, 84.2978, -101.137
6.59429, 69, -4.62756, -12.0213, 29.4272, 34.0672, 84.5244, -100.43
6.60335, 70, -3.89519, -11.7334, 29.0258, 33.5226, 84.6836, -99.9553
6.61368, 70, -2.78029, -11.287, 28.4211, 32.6772, 84.935, -99.2386
6.61584, 70, -2.78029, -11.287, 28.4211, 32.6772, 84.935, -99.2386
6.62744, 71, -1.6474, -10.8224, 27.8101, 31.7988, 85.2032, -98.5173
6.63231, 72, -1.2658, -10.664, 27.6049, 31.4986, 85.2971, -98.2752
6.63964, 72, -0.497768, -10.3435, 27.1926, 30.8857, 85.4915, -97.7889
6.65224, 73, 0.665353, -9.85109, 26.5725, 29.9401, 85.7985, -97.0542
6.65531, 73, 1.05588, -9.68258, 26.3661, 29.6198, 85.9044, -96.8085
6.66726, 74, 2.23427, -9.16718, 25.749, 28.6456, 86.2322, -96.0687
6.67468, 74, 2.62847, -8.99294, 25.5449, 28.3172, 86.3448, -95.573
6.68394, 75, 3.81505, -8.46324, 24.9391, 27.3226, 86.6915, -95.0757
6.6883, 75, 4.21223, -8.28303, 24.7396, 26.9887, 86.8099, -94.8266
6.69838, 76, 5.40819, -7.73216, 24.1477, 25.9841, 87.1749, -94.0778
6.70706, 76, 5.80747, -7.54526, 23.9524, 25.6473, 87.2999, -93.5758
6.71943, 77, 7.4065, -6.78077, 23.1815, 24.2926, 87.8226, -92.8187
6.72116, 77, 7.4065, -6.78077, 23.1815, 24.2926, 87.8226, -92.8187
6.73464, 78, 9.01083, -5.98297, 22.4216, 22.9227, 88.3878, -91.8011
6.73619, 78, 9.01083, -5.98297, 22.4216, 22.9227, 88.3878, -91.8011
6.74331, 78, 9.81209, -5.57182, 22.0473, 22.2324, 88.6877, -91.2872
6.75133, 79, 10.6124, -5.15114, 21.6769, 21.541, 88.9985, -90.7695
6.75957, 79, 11.4113, -4.72056, 21.3106, 20.8511, 89.3204, -90.2479
6.76816, 80, 12.2061, -4.28055, 20.95, 20.1622, 89.6521, -89.7223
6.77566, 80, 12.9956, -3.83139, 20.5951, 19.4785, 89.9943, -89.1913
6.78423, 81, 13.7797, -3.37425, 20.2463, 18.8034, 90.3456, -88.656
6.79119, 81, 14.557, -2.91003, 19.9042, 18.1393, 90.7054, -88.1162
6.79941, 82, 15.3256, -2.43763, 19.571, 17.4869, 91.0722, -87.574
6.8072, 82, 16.0845, -1.95748, 19.2468, 16.8483, 91.4461, -87.0282
6.81523, 83, 16.8325, -1.47048, 18.9322, 16.227, 91.8257, -86.4803
6.82341, 83, 17.568, -0.976797, 18.6266, 15.6238, 92.2118, -85.9307
6.83136, 84, 18.2879, -0.477765, 18.33, 15.0387, 92.6036, -85.3809
6.83947, 84, 18.9908, 0.0260222, 18.0416, 14.4744, 93.0027, -84.8296
6.84817, 85, 19.6774, 0.535308, 17.7595, 13.9306, 93.4089, -84.2785
6.85553, 85, 20.3473, 1.04957, 17.484, 13.4085, 93.8226, -83.7281
6.86442, 86, 21.0005, 1.5681, 17.2139, 12.9084, 94.2411, -83.1795
6.87175, 86, 21.6377, 2.09171, 16.9505, 12.4305, 94.6644, -82.6308
6.88047, 86, 22.2606, 2.62309, 16.694, 11.9752, 95.0926, -82.0814
6.88826, 87, 22.8709, 3.16377, 16.4428, 11.5409, 95.5265, -81.5298
6.89666, 87, 23.4708, 3.71333, 16.1967, 11.1258, 95.9664, -80.975
6.90372, 88, 23.7671, 3.99082, 16.0752, 10.728, 96.4121, -80.4138
6.91223, 88, 24.6403, 4.83541, 15.7176, 10.3463, 96.8636, -79.8443
6.91917, 89, 24.9255, 5.12211, 15.6016, 10.1613, 97.0918, -79.5559
6.92826, 89, 25.7656, 5.99762, 15.2603, 9.62998, 97.785, -78.6749
6.93513, 90, 26.0423, 6.29421, 15.1481, 9.46044, 98.0191, -78.3748
6.94473, 90, 26.8606, 7.19613, 14.8181, 8.97495, 98.7309, -77.4541
6.95117, 91, 27.1272, 7.50098, 14.7107, 8.82175, 98.9715, -77.1404
6.96037, 91, 27.9058, 8.4305, 14.3951, 8.38993, 99.7019, -76.1818
6.96721, 92, 28.1598, 8.7456, 14.2921, 8.25631, 99.9479, -75.8564
6.97662, 92, 28.9108, 9.7063, 13.9902, 7.88839, 100.692, -74.8664
6.98316, 93, 29.1572, 10.0308, 13.8922, 7.77681, 100.941, -74.533
6.99295, 93, 29.878, 11.0134, 13.6089, 7.47779, 101.69, -73.5221
7.0007, 94, 30.3414, 11.6738, 13.4298, 7.30762, 102.187, -72.8399
7.00877, 94, 30.7904, 12.3369, 13.2576, 7.16131, 102.682, -72.1536
7.01673, 95, 31.2254, 13.0018, 13.0928, 7.03868, 103.174, -71.4616
7.02477, 95, 31.6464, 13.6684, 12.936, 6.93967, 103.662, -70.7635
7.03279, 96, 31.8516, 14.3365, 12.7862, 6.86427, 104.147, -70.0608
7.04166, 96, 32.2503, 14.6708, 12.7135, 6.83596, 104.388, -69.7076
7.04816, 97, 32.6328, 15.3398, 12.5732, 6.79587, 104.866, -68.9961
7.05621, 97, 32.9993, 16.008, 12.4403, 6.77682, 105.339, -68.2792
7.06316, 98, 33.3502, 16.6743, 12.3156, 6.77966, 105.806, -67.5602
7.07123, 98, 33.6866, 17.3374, 12.1997, 6.80444, 106.264, -66.8371
7.07915, 99, 34.009, 17.9954, 12.0928, 6.84878, 106.713, -66.1119
7.08718, 99, 34.3186, 18.6474, 11.9952, 6.91349, 107.151, -65.3886
7.09522, 100, 34.617, 19.2915, 11.9066, 6.99582, 107.578, -64.6661
7.10315, 100, 34.9038, 19.927, 11.8266, 7.0959, 107.991, -63.946
7.11116, 101, 35.1788, 20.5516, 11.7549, 7.21213, 108.39, -63.2322
7.11922, 101, 35.4421, 21.166, 11.6913, 7.34344, 108.775, -62.5241
7.12713, 102, 35.6943, 21.7686, 11.6364, 7.48803, 109.144, -61.8237
7.13515, 102, 35.9341, 22.3586, 11.5899, 7.64445, 109.495, -61.1347
7.14318, 103, 36.162, 22.935, 11.5522, 7.81102, 109.829, -60.4568
7.15117, 103, 36.3809, 23.4956, 11.5232, 7.98677, 110.145, -59.7901
7.15915, 103, 36.5928, 24.0403, 11.5033, 8.17139, 110.443, -59.1364
7.16723, 104, 36.7971, 24.569, 11.4923, 8.36504, 110.721, -58.4966
7.17522, 104, 36.9942, 25.0815, 11.4888, 8.56785, 110.978, -57.8679
7.18316, 104, 37.185, 25.5775, 11.492, 8.77883, 111.216, -57.2523
7.19122, 104, 37.3687, 26.0573, 11.5015, 8.99663, 111.433, -56.6506
7.19915, 104, 37.5431, 26.5206, 11.5152, 9.21909, 111.632, -56.0638
7.20718, 104, 37.7086, 26.9672, 11.5317, 9.44422, 111.815, -55.4934
7.21523, 104, 37.8676, 27.3984, 11.551, 9.66907, 111.984, -54.9423
7.22316, 104, 38.0219, 27.8135, 11.5719, 9.89134, 112.142, -54.4132
7.23124, 104, 38.171, 28.2119, 11.5929, 10.1094, 112.291, -53.907
7.23919, 104, 38.3138, 28.5934, 11.6136, 10.3222, 112.431, -53.4238
7.24724, 104, 38.4498, 28.9583, 11.633, 10.5283, 112.564, -52.9652
7.2553, 104, 38.5784, 29.305, 11.6513, 10.7272, 112.688, -52.5306
7.26375, 104, 38.6988, 29.6332, 11.6685, 10.9176, 112.805, -52.1217
7.27216, 104, 38.811, 29.9418, 11.6844, 11.0994, 112.915, -51.7373
7.27933, 104, 38.9149, 30.2323, 11.6993, 11.2715, 113.017, -51.3778
7.28727, 104, 39.011, 30.5037, 11.7132, 11.4337, 113.111, -51.0441
7.29515, 104, 39.0993, 30.7551, 11.7258, 11.5853, 113.198, -50.7358
7.30324, 104, 39.1798, 30.987, 11.7371, 11.7261, 113.277, -50.4524
7.31118, 104, 39.2525, 31.1992, 11.7475, 11.8555, 113.35, -50.1946
7.31929, 104, 39.3174, 31.3911, 11.7571, 11.9733, 113.414, -49.9619
7.32741, 104, 39.3746, 31.5639, 11.7657, 12.0795, 113.472, -49.7543
7.33535, 104, 39.4248, 31.7172, 11.7733, 12.1733, 113.523, -49.5718
7.34353, 104, 39.4686, 31.8514, 11.7801, 12.2553, 113.567, -49.4139
7.3516, 104, 39.5068, 31.9679, 11.7864, 12.3248, 113.604, -49.2801
7.35951, 104, 39.5389, 32.0675, 11.7919, 12.3834, 113.634, -49.1695
7.36769, 104, 39.5654, 32.1509, 11.7968, 12.4297, 113.659, -49.0801
7.37623, 104, 39.5869, 32.2198, 11.8012, 12.4659, 113.677, -49.0107
7.38368, 104, 39.6038, 32.276, 11.8052, 12.4933, 113.691, -48.9593
7.39226, 104, 39.6168, 32.3208, 11.8088, 12.5134, 113.701, -48.9226
7.3998, 104, 39.6267, 32.3552, 11.8121, 12.5274, 113.707, -48.8977
7.40832, 104, 39.6341, 32.3809, 11.815, 12.5366, 113.711, -48.8819
7.41606, 104, 39.6391, 32.4002, 11.8175, 12.5421, 113.713, -48.8727
7.42373, 104, 39.641, 32.4077, 11.8186, 12.5439, 113.714, -48.87
7.43225, 104, 39.6441, 32.4231, 11.8212, 12.5469, 113.715, -48.8661
7.43917, 105, 39.6446, 32.4262, 11.8218, 12.5473, 113.715, -48.8655
7.44836, 105, 39.6443, 32.4323, 11.8233, 12.548, 113.715, -48.8648
7.45514, 105, 39.6439, 32.4336, 11.8238, 12.5481, 113.715, -48.8648
7.46314, 105, 39.6429, 32.4357, 11.8245, 12.5483, 113.715, -48.8649
7.47256, 105, 39.6414, 32.438, 11.8254, 12.5484, 113.715, -48.8653
7.47914, 105, 39.6408, 32.4387, 11.8257, 12.5484, 113.715, -48.8655
7.48715, 105, 39.6397, 32.4399, 11.8263, 12.5484, 113.715, -48.8659
7.49663, 105, 39.6387, 32.4416, 11.8272, 12.5483, 113.715, -48.8664
7.50313, 105, 39.6385, 32.4421, 11.8274, 12.5484, 113.715, -48.8666
7.51121, 105, 39.6382, 32.4431, 11.828, 12.5484, 113.715, -48.8669
7.52073, 105, 39.6378, 32.4445, 11.8288, 12.5483, 113.715, -48.8672
7.52902, 105, 39.6375, 32.4452, 11.8291, 12.5484, 113.715, -48.8674
7.53515, 105, 39.6374, 32.4455, 11.8293, 12.5483, 113.715, -48.8676
7.54468, 105, 39.6371, 32.4459, 11.8296, 12.5483, 113.715, -48.8678
7.5522, 105, 39.6368, 32.4461, 11.8299, 12.5483, 113.715, -48.868
7.56014, 105, 39.6365, 32.4462, 11.83, 12.5483, 113.715, -48.8682
