hehonglu123/Motion-Primitive-Planning/ILC/recorded_data/realrobot/from_NX/iteration_7/run_4.csv
timestamp, cmd_num, J1, J2, J3, J4, J5, J6
0.000385, -1, 39.6319, 32.446, 11.8315, 12.5469, 113.714, -48.8709
0.003031, -1, 39.6319, 32.446, 11.8315, 12.5469, 113.714, -48.8709
0.008694, -1, 39.6319, 32.446, 11.8315, 12.5469, 113.714, -48.871
0.031649, -1, 39.6319, 32.4461, 11.8315, 12.5469, 113.714, -48.8709
0.032984, -1, 39.6319, 32.4461, 11.8315, 12.5469, 113.714, -48.8709
0.034797, -1, 39.6319, 32.4461, 11.8315, 12.5469, 113.714, -48.8709
0.039536, -1, 39.6319, 32.4461, 11.8315, 12.5469, 113.714, -48.8709
0.047728, -1, 39.6319, 32.446, 11.8315, 12.5469, 113.714, -48.8709
0.055514, -1, 39.6314, 32.446, 11.8315, 12.5469, 113.714, -48.871
0.063508, -1, 39.629, 32.4455, 11.8315, 12.5469, 113.714, -48.871
0.07191, -1, 39.6238, 32.4442, 11.8314, 12.5469, 113.714, -48.8711
0.080216, -1, 39.615, 32.4412, 11.8314, 12.5469, 113.713, -48.8724
0.087392, -1, 39.6017, 32.4359, 11.8314, 12.5469, 113.712, -48.8773
0.095417, -1, 39.582, 32.4274, 11.8314, 12.5469, 113.708, -48.8887
0.104318, -1, 39.5534, 32.4147, 11.8319, 12.5469, 113.701, -48.9093
0.111454, -1, 39.5149, 32.3971, 11.8339, 12.5469, 113.689, -48.9428
0.11964, -1, 39.4654, 32.3733, 11.8388, 12.5469, 113.67, -48.9932
0.128644, -1, 39.4034, 32.3429, 11.8471, 12.5469, 113.642, -49.065
0.13574, -1, 39.3279, 32.3051, 11.8599, 12.547, 113.605, -49.1594
0.143824, -1, 39.2388, 32.2595, 11.8776, 12.5472, 113.559, -49.2794
0.151772, -1, 39.1357, 32.206, 11.9001, 12.5477, 113.502, -49.4247
0.159832, -1, 39.0186, 32.1446, 11.9268, 12.5486, 113.434, -49.5947
0.168468, -1, 38.888, 32.0758, 11.9574, 12.5501, 113.359, -49.7869
0.176994, -1, 38.7452, 32.0005, 11.9914, 12.5519, 113.275, -49.9986
0.184522, -1, 38.5908, 31.9193, 12.0276, 12.554, 113.185, -50.2261
0.19202, -1, 38.4265, 31.8331, 12.0654, 12.5563, 113.09, -50.466
0.199908, -1, 38.3413, 31.7885, 12.0847, 12.5575, 112.992, -50.7141
0.20737, -1, 38.1658, 31.6967, 12.1238, 12.5598, 112.942, -50.8404
0.216407, -1, 37.8923, 31.5544, 12.1821, 12.5635, 112.79, -51.2241
0.223371, -1, 37.799, 31.5062, 12.2015, 12.5647, 112.739, -51.3531
0.231427, -1, 37.61, 31.4088, 12.2403, 12.5671, 112.637, -51.6121
0.239377, -1, 37.4189, 31.311, 12.2791, 12.5695, 112.534, -51.8716
0.247411, -1, 37.227, 31.213, 12.3179, 12.5719, 112.432, -52.1312
0.256623, -1, 36.9387, 31.0663, 12.376, 12.5758, 112.277, -52.521
0.263371, -1, 36.8427, 31.0175, 12.3953, 12.577, 112.226, -52.651
0.271384, -1, 36.6509, 30.9197, 12.4342, 12.5796, 112.123, -52.9116
0.279472, -1, 36.4592, 30.822, 12.4731, 12.5823, 112.02, -53.1717
0.289023, -1, 36.172, 30.6755, 12.5313, 12.5861, 111.866, -53.5623
0.295366, -1, 36.0762, 30.6265, 12.5508, 12.5874, 111.814, -53.6926
0.304923, -1, 35.7889, 30.4795, 12.6092, 12.5913, 111.66, -54.0835
0.313008, -1, 35.5971, 30.3815, 12.6481, 12.5938, 111.557, -54.3438
0.319389, -1, 35.5011, 30.3324, 12.6675, 12.5951, 111.505, -54.4739
0.329438, -1, 35.2128, 30.185, 12.7257, 12.5991, 111.351, -54.8647
0.335363, -1, 35.1165, 30.1359, 12.7451, 12.6004, 111.299, -54.9951
0.343368, -1, 34.9241, 30.0375, 12.7841, 12.6029, 111.196, -55.2558
0.351486, -1, 34.7318, 29.939, 12.8229, 12.6056, 111.093, -55.5164
0.360411, -1, 34.5395, 29.8405, 12.8618, 12.608, 110.99, -55.7772
0.367366, -1, 34.3473, 29.7421, 12.9007, 12.6106, 110.887, -56.0381
0.503849, -1, 31.0681, 28.0669, 13.5625, 12.6565, 109.135, -60.477
0.50507, -1, 31.0681, 28.0669, 13.5625, 12.6565, 109.135, -60.477
0.507102, -1, 30.9719, 28.0176, 13.582, 12.658, 109.083, -60.6079
0.508341, -1, 30.9719, 28.0176, 13.582, 12.658, 109.083, -60.6079
0.509624, -1, 30.9719, 28.0176, 13.582, 12.658, 109.083, -60.6079
0.511648, -1, 30.8758, 27.9683, 13.6015, 12.6594, 109.032, -60.7386
0.512937, -1, 30.8758, 27.9683, 13.6015, 12.6594, 109.032, -60.7386
0.517401, -1, 30.7797, 27.919, 13.6209, 12.6608, 108.98, -60.8692
0.520238, -1, 30.6837, 27.8697, 13.6404, 12.6622, 108.928, -60.9999
0.52146, -1, 30.6837, 27.8697, 13.6404, 12.6622, 108.928, -60.9999
0.523736, -1, 30.5877, 27.8204, 13.6599, 12.6636, 108.877, -61.1305
0.524951, -1, 30.5877, 27.8204, 13.6599, 12.6636, 108.877, -61.1305
0.526866, -1, 30.4918, 27.7711, 13.6794, 12.6649, 108.825, -61.2612
0.528332, -1, 30.4918, 27.7711, 13.6794, 12.6649, 108.825, -61.2612
0.529569, -1, 30.4918, 27.7711, 13.6794, 12.6649, 108.825, -61.2612
0.53476, -1, 30.3958, 27.7217, 13.6989, 12.6677, 108.722, -61.5226
0.536147, -1, 30.2998, 27.6724, 13.7184, 12.6677, 108.722, -61.5226
0.53741, -1, 30.2998, 27.6724, 13.7184, 12.6677, 108.722, -61.5226
0.540281, -1, 30.2038, 27.623, 13.7379, 12.6691, 108.67, -61.6535
0.541562, -1, 30.2038, 27.623, 13.7379, 12.6691, 108.67, -61.6535
0.544363, -1, 30.1076, 27.5736, 13.7574, 12.6705, 108.619, -61.7844
0.545563, -1, 30.1076, 27.5736, 13.7574, 12.6705, 108.619, -61.7844
0.553366, -1, 29.915, 27.4748, 13.7965, 12.6732, 108.516, -62.0459
0.560347, -1, 29.7221, 27.3762, 13.8353, 12.6758, 108.412, -62.3075
0.56773, -1, 29.5285, 27.2774, 13.8742, 12.6784, 108.309, -62.5693
0.575466, -1, 29.3344, 27.1786, 13.9132, 12.681, 108.206, -62.8311
0.583564, -1, 29.1403, 27.0798, 13.9522, 12.6835, 108.102, -63.0927
0.59219, -1, 28.9458, 26.9809, 13.9912, 12.686, 107.999, -63.3541
0.599453, -1, 28.7516, 26.882, 14.0301, 12.6886, 107.896, -63.6156
0.607513, -1, 28.5575, 26.7831, 14.0691, 12.6911, 107.792, -63.8773
0.615495, -1, 28.3636, 26.6844, 14.1082, 12.6935, 107.689, -64.1391
0.623581, -1, 28.1702, 26.5857, 14.1472, 12.696, 107.586, -64.4005
0.631754, -1, 27.9772, 26.4868, 14.1861, 12.6984, 107.482, -64.6623
0.639692, -1, 27.7844, 26.3879, 14.2252, 12.7009, 107.379, -64.9242
0.647754, -1, 27.5919, 26.2891, 14.2641, 12.7033, 107.276, -65.186
0.65595, -1, 27.3997, 26.1901, 14.3031, 12.7057, 107.173, -65.4475
0.794341, -1, 24.1148, 24.5098, 14.9656, 12.7451, 105.417, -69.8966
0.79555, -1, 24.1148, 24.5098, 14.9656, 12.7451, 105.417, -69.8966
0.798259, -1, 24.0184, 24.4604, 14.9851, 12.7463, 105.365, -70.0273
0.799463, -1, 24.0184, 24.4604, 14.9851, 12.7463, 105.365, -70.0273
0.801532, -1, 23.922, 24.411, 15.0046, 12.7475, 105.314, -70.158
0.802762, -1, 23.922, 24.411, 15.0046, 12.7475, 105.314, -70.158
0.804871, -1, 23.922, 24.411, 15.0046, 12.7475, 105.262, -70.2888
0.808981, -1, 23.7292, 24.3121, 15.0435, 12.75, 105.21, -70.4196
0.810438, -1, 23.7292, 24.3121, 15.0435, 12.75, 105.21, -70.4196
0.811627, -1, 23.7292, 24.3121, 15.0435, 12.75, 105.21, -70.4196
0.813717, -1, 23.6327, 24.2627, 15.063, 12.7512, 105.159, -70.5506
0.814976, -1, 23.6327, 24.2627, 15.063, 12.7512, 105.159, -70.5506
0.816881, -1, 23.6327, 24.2627, 15.0824, 12.7523, 105.107, -70.6816
0.818337, -1, 23.5361, 24.2133, 15.0824, 12.7523, 105.107, -70.6816
0.819551, -1, 23.5361, 24.2133, 15.0824, 12.7523, 105.107, -70.6816
0.822512, -1, 23.4394, 24.1639, 15.1019, 12.7535, 105.055, -70.8124
0.82381, -1, 23.4394, 24.1639, 15.1019, 12.7535, 105.055, -70.8124
0.825911, -1, 23.3426, 24.1144, 15.1214, 12.7547, 105.004, -70.9432
0.827193, -1, 23.3426, 24.1144, 15.1214, 12.7547, 105.004, -70.9432
0.828976, -1, 23.3426, 24.1144, 15.1409, 12.7559, 104.952, -71.0741
0.831207, -1, 23.2457, 24.065, 15.1409, 12.7559, 104.952, -71.0741
0.833007, -1, 23.2457, 24.065, 15.1409, 12.7571, 104.9, -71.2049
0.841364, -1, 22.9548, 23.9167, 15.1992, 12.7596, 104.797, -71.4667
0.847351, -1, 22.8577, 23.8673, 15.2186, 12.7608, 104.745, -71.5976
0.856372, -1, 22.6638, 23.7685, 15.2576, 12.7633, 104.642, -71.8594
0.863467, -1, 22.47, 23.6698, 15.2966, 12.7658, 104.538, -72.1209
0.871351, -1, 22.2765, 23.5712, 15.3356, 12.7683, 104.435, -72.3822
0.879318, -1, 22.0834, 23.4725, 15.3745, 12.771, 104.332, -72.6438
0.887411, -1, 21.8904, 23.3737, 15.4135, 12.7735, 104.228, -72.9054
0.895353, -1, 21.6979, 23.275, 15.4525, 12.7761, 104.125, -73.1667
0.903488, -1, 21.5058, 23.1762, 15.4913, 12.7788, 104.022, -73.428
0.911344, -1, 21.3135, 23.0775, 15.5303, 12.7814, 103.919, -73.6895
0.919388, -1, 21.1211, 22.9788, 15.5693, 12.7842, 103.816, -73.9512
0.927646, -1, 20.9286, 22.8802, 15.6082, 12.7869, 103.713, -74.2125
0.935341, -1, 20.7363, 22.7816, 15.6472, 12.7896, 103.61, -74.4735
0.943418, -1, 20.5436, 22.683, 15.6861, 12.7923, 103.506, -74.7348
0.952139, -1, 20.3504, 22.5844, 15.7249, 12.795, 103.403, -74.9962
0.959358, -1, 20.1568, 22.4856, 15.7639, 12.7977, 103.3, -75.2575
0.967345, -1, 19.9631, 22.3869, 15.8027, 12.8005, 103.197, -75.5186
0.976158, -1, 19.7695, 22.2883, 15.8414, 12.8032, 103.095, -75.7796
0.983415, -1, 19.5758, 22.1897, 15.8804, 12.8059, 102.991, -76.0408
0.991365, -1, 19.3825, 22.0911, 15.9193, 12.8087, 102.888, -76.3021
1.00015, -1, 19.1895, 21.9924, 15.958, 12.8113, 102.786, -76.563
1.00735, -1, 18.9966, 21.8937, 15.997, 12.8141, 102.682, -76.8238
1.01541, -1, 18.8042, 21.795, 16.0358, 12.8167, 102.579, -77.0847
1.02431, -1, 18.6121, 21.6963, 16.0745, 12.8194, 102.476, -77.3457
1.03138, -1, 18.4203, 21.5977, 16.1135, 12.822, 102.373, -77.6064
1.0395, -1, 18.2284, 21.4992, 16.1523, 12.8246, 102.271, -77.8672
1.04824, -1, 18.0365, 21.4007, 16.1911, 12.8272, 102.168, -78.128
1.05545, -1, 17.8447, 21.3023, 16.23, 12.8297, 102.065, -78.389
1.06355, -1, 17.6526, 21.204, 16.2689, 12.8322, 101.962, -78.6494
1.07224, -1, 17.4602, 21.1057, 16.3077, 12.8348, 101.859, -78.9098
1.07946, -1, 17.2673, 21.0074, 16.3465, 12.8372, 101.756, -79.1704
1.08761, -1, 17.0742, 20.9091, 16.3853, 12.8396, 101.653, -79.4311
1.09633, -1, 16.8812, 20.8109, 16.4241, 12.842, 101.55, -79.6917
1.10343, -1, 16.6882, 20.7127, 16.4629, 12.8442, 101.447, -79.9521
1.11146, -1, 16.4951, 20.6145, 16.5016, 12.8466, 101.345, -80.2127
1.12038, -1, 16.3023, 20.5162, 16.5403, 12.8489, 101.242, -80.4733
1.12762, -1, 16.11, 20.4178, 16.5791, 12.8512, 101.14, -80.7339
1.13558, -1, 15.9181, 20.3194, 16.6178, 12.8536, 101.037, -80.9939
1.14468, -1, 15.7264, 20.2208, 16.6565, 12.8558, 100.934, -81.254
1.15183, -1, 15.5352, 20.1224, 16.6951, 12.8582, 100.832, -81.5141
1.15979, -1, 15.344, 20.0241, 16.7337, 12.8605, 100.729, -81.7743
1.16923, -1, 15.1528, 19.9259, 16.7726, 12.8627, 100.626, -82.0341
1.17609, -1, 14.9616, 19.8277, 16.8112, 12.865, 100.524, -82.2939
1.18392, -1, 14.7702, 19.7296, 16.8499, 12.8673, 100.421, -82.5538
1.19294, -1, 14.5787, 19.6315, 16.8886, 12.8695, 100.319, -82.8139
1.20045, -1, 14.3869, 19.5334, 16.9272, 12.8719, 100.216, -83.0737
1.20783, -1, 14.2908, 19.4843, 16.9466, 12.873, 100.165, -83.2034
1.21722, -1, 14.0023, 19.3374, 17.0046, 12.8764, 100.011, -83.5926
1.22404, -1, 13.9061, 19.2884, 17.0239, 12.8776, 99.9598, -83.7224
1.23133, -1, 13.7135, 19.1906, 17.0625, 12.8798, 99.8575, -83.9821
1.24149, -1, 13.4249, 19.0438, 17.1206, 12.8833, 99.7035, -84.3711
1.24734, -1, 13.3289, 18.9949, 17.1398, 12.8844, 99.6524, -84.5007
1.25536, -1, 13.1371, 18.897, 17.1783, 12.8868, 99.5503, -84.7599
1.26344, -1, 12.9458, 18.7991, 17.217, 12.8893, 99.4477, -85.0193
1.27133, -1, 12.7548, 18.7011, 17.2556, 12.8916, 99.3454, -85.2786
1.27935, -1, 12.564, 18.6032, 17.2941, 12.894, 99.2432, -85.5374
1.28892, -1, 12.2786, 18.4566, 17.3519, 12.8976, 99.0896, -85.9258
1.29534, -1, 12.1836, 18.4077, 17.3712, 12.8989, 99.0387, -86.0553
1.30569, -1, 11.8982, 18.2612, 17.4291, 12.9025, 98.8856, -86.4435
1.3114, -1, 11.8029, 18.2124, 17.4484, 12.9037, 98.8346, -86.5727
1.32092, -1, 11.5168, 18.066, 17.5061, 12.9073, 98.6819, -86.9606
1.32967, -1, 11.4213, 18.0172, 17.5253, 12.9085, 98.5798, -87.2193
1.33533, -1, 11.2301, 17.9196, 17.564, 12.911, 98.5289, -87.3486
1.34434, -1, 11.0387, 17.8221, 17.6025, 12.9134, 98.4271, -87.6068
1.3514, -1, 10.847, 17.7247, 17.641, 12.916, 98.3251, -87.8651
1.35938, -1, 10.6552, 17.6272, 17.6794, 12.9185, 98.223, -88.1234
1.36833, -1, 10.4638, 17.5297, 17.7178, 12.921, 98.1214, -88.3817
1.3754, -1, 10.2726, 17.4321, 17.7562, 12.9235, 98.0195, -88.6399
1.38343, -1, 10.0817, 17.3346, 17.7947, 12.9261, 97.9176, -88.8979
1.39133, -1, 9.89129, 17.2369, 17.833, 12.9288, 97.8159, -89.1561
1.39941, -1, 9.70121, 17.1394, 17.8714, 12.9314, 97.7138, -89.4141
1.40733, -1, 9.5116, 17.042, 17.9097, 12.9342, 97.6118, -89.6723
1.41534, -1, 9.32239, 16.9447, 17.948, 12.9369, 97.51, -89.9298
1.42348, -1, 9.13312, 16.8473, 17.9864, 12.9395, 97.4081, -90.1873
1.43133, -1, 8.94382, 16.7502, 18.0248, 12.9421, 97.3063, -90.4448
1.43935, -1, 8.75443, 16.653, 18.0631, 12.9448, 97.2047, -90.7024
1.4474, -1, 8.56484, 16.5558, 18.1015, 12.9474, 97.1029, -90.9597
1.45533, -1, 8.37502, 16.4588, 18.1399, 12.9501, 97.0015, -91.2169
1.46338, -1, 8.1847, 16.3618, 18.1781, 12.9527, 96.9, -91.474
1.4714, -1, 7.99415, 16.2649, 18.2165, 12.9553, 96.7983, -91.7313
1.47934, -1, 7.80362, 16.168, 18.2547, 12.958, 96.697, -91.9882
1.48734, -1, 7.61302, 16.0711, 18.293, 12.9606, 96.5955, -92.2448
1.49542, -1, 7.42258, 15.9741, 18.3314, 12.9632, 96.494, -92.5017
1.5034, -1, 7.23244, 15.8772, 18.3695, 12.9656, 96.3929, -92.7585
1.51133, -1, 7.04251, 15.7802, 18.4077, 12.9682, 96.2914, -93.0153
1.51941, -1, 6.85304, 15.6832, 18.446, 12.9708, 96.1901, -93.2716
1.52738, -1, 6.66414, 15.5864, 18.484, 12.9732, 96.0895, -93.5279
1.53543, -1, 6.47568, 15.4896, 18.522, 12.9758, 95.9884, -93.7843
1.54347, -1, 6.28746, 15.3928, 18.5602, 12.9783, 95.8873, -94.0408
1.55142, -1, 6.09941, 15.2961, 18.5984, 12.9808, 95.7866, -94.2967
1.5595, -1, 5.91118, 15.1994, 18.6365, 12.9831, 95.6855, -94.5526
1.56743, -1, 5.72283, 15.1027, 18.6747, 12.9854, 95.5845, -94.8085
1.57544, -1, 5.53434, 15.0061, 18.7127, 12.9877, 95.484, -95.0645
1.58355, -1, 5.34561, 14.9096, 18.7509, 12.99, 95.383, -95.3201
1.59137, -1, 5.15646, 14.8131, 18.789, 12.9922, 95.2823, -95.5756
1.59938, -1, 4.96704, 14.7168, 18.8271, 12.9945, 95.1819, -95.831
1.60743, -1, 4.77763, 14.6204, 18.8651, 12.9968, 95.081, -96.0866
1.61541, -1, 4.5882, 14.5241, 18.9032, 12.9989, 94.9802, -96.3418
1.62359, -1, 4.39897, 14.4277, 18.9413, 13.0012, 94.8795, -96.5967
1.6316, -1, 4.20995, 14.3313, 18.9793, 13.0033, 94.7786, -96.8517
1.63961, -1, 4.02126, 14.2349, 19.0173, 13.0056, 94.6778, -97.1068
1.64778, -1, 3.83325, 14.1387, 19.0552, 13.0079, 94.577, -97.3618
1.65575, -1, 3.6457, 14.0426, 19.0932, 13.0101, 94.4763, -97.6165
1.66458, -1, 3.4585, 13.9464, 19.1311, 13.0125, 94.3757, -97.8712
1.67195, -1, 3.27159, 13.8503, 19.1689, 13.0148, 94.2751, -98.1259
1.68048, -1, 3.08462, 13.7543, 19.2068, 13.017, 94.1743, -98.3807
1.68867, -1, 2.89763, 13.6583, 19.2448, 13.0193, 94.0738, -98.6351
1.69605, -1, 2.71056, 13.5623, 19.2827, 13.0215, 93.9731, -98.8891
1.70391, -1, 2.6169, 13.5143, 19.3016, 13.0238, 93.8727, -99.1431
1.71263, -1, 2.42955, 13.4183, 19.3395, 13.025, 93.8224, -99.2702
1.71994, -1, 2.24197, 13.3225, 19.3772, 13.0273, 93.7222, -99.5245
1.72843, -1, 1.95993, 13.1788, 19.4341, 13.0306, 93.5718, -99.905
1.73531, -1, 1.86592, 13.1309, 19.453, 13.0318, 93.5218, -100.032
1.74337, -1, 1.67769, 13.0351, 19.4907, 13.034, 93.4219, -100.285
1.75131, -1, 1.48942, 12.9393, 19.5285, 13.0362, 93.3217, -100.539
1.75935, -1, 1.30151, 12.8435, 19.5663, 13.0386, 93.2217, -100.792
1.7674, -1, 1.11384, 12.7477, 19.604, 13.0409, 93.1217, -101.046
1.77532, -1, 0.926741, 12.652, 19.6418, 13.0433, 93.0217, -101.298
1.78562, -1, 0.647139, 12.5087, 19.6983, 13.0469, 92.8722, -101.678
1.79136, -1, 0.554164, 12.4609, 19.717, 13.0481, 92.8222, -101.805
1.80095, -1, 0.275515, 12.3179, 19.7736, 13.0518, 92.6726, -102.184
1.80969, -1, 0.0900509, 12.2225, 19.8111, 13.0543, 92.5733, -102.436
1.8154, -1, -0.00261288, 12.1748, 19.8299, 13.0555, 92.5234, -102.563
1.82495, -1, -0.280992, 12.0319, 19.8864, 13.0592, 92.374, -102.942
1.8314, -1, -0.373903, 11.9843, 19.9052, 13.0604, 92.3244, -103.068
1.83938, -1, -0.560005, 11.8892, 19.9427, 13.0629, 92.225, -103.32
1.84836, -1, -0.746282, 11.7942, 19.9803, 13.0654, 92.1255, -103.572
1.85631, -1, -0.932763, 11.6992, 20.0178, 13.0679, 92.0262, -103.824
1.86341, -1, -1.11952, 11.6041, 20.0552, 13.0704, 91.9268, -104.076
1.87131, -1, -1.30654, 11.5091, 20.0928, 13.0729, 91.8275, -104.327
1.87946, -1, -1.49334, 11.414, 20.1303, 13.0754, 91.7284, -104.579
1.88733, -1, -1.67988, 11.3188, 20.1677, 13.078, 91.6292, -104.831
1.89541, -1, -1.86607, 11.2238, 20.2051, 13.0806, 91.5299, -105.082
1.90338, -1, -2.05184, 11.1288, 20.2426, 13.0833, 91.4309, -105.333
1.91133, -1, -2.23694, 11.034, 20.2799, 13.0859, 91.3316, -105.584
1.91933, -1, -2.42174, 10.9391, 20.3173, 13.0886, 91.2324, -105.835
1.92741, -1, -2.6062, 10.8443, 20.3547, 13.0912, 91.1334, -106.086
1.9353, -1, -2.79012, 10.7496, 20.3919, 13.0939, 91.0343, -106.337
1.94333, -1, -2.97393, 10.6549, 20.4293, 13.0965, 90.9351, -106.588
1.9514, -1, -3.158, 10.5602, 20.4667, 13.0991, 90.8365, -106.838
1.9593, -1, -3.34237, 10.4656, 20.5039, 13.1016, 90.7375, -107.089
1.96741, -1, -3.52703, 10.3712, 20.5411, 13.1042, 90.6385, -107.339
1.9753, -1, -3.71183, 10.2769, 20.5784, 13.1067, 90.5399, -107.589
1.9833, -1, -3.89694, 10.1825, 20.6156, 13.1091, 90.4409, -107.839
1.99269, -1, -4.08225, 10.0882, 20.6529, 13.1116, 90.3423, -108.089
1.99933, -1, -4.26778, 9.99391, 20.69, 13.1139, 90.2438, -108.339
2.00739, -1, -4.4534, 9.89955, 20.7272, 13.1163, 90.145, -108.589
2.0153, -1, -4.63869, 9.80521, 20.7645, 13.1187, 90.0465, -108.839
2.02339, -1, -4.82352, 9.71101, 20.8016, 13.121, 89.9482, -109.088
2.03136, -1, -5.00806, 9.6169, 20.8387, 13.1234, 89.8496, -109.337
2.03943, -1, -5.19181, 9.52279, 20.8758, 13.1257, 89.7512, -109.587
2.04747, -1, -5.37516, 9.42874, 20.9129, 13.128, 89.653, -109.836
2.05543, -1, -5.55813, 9.33483, 20.9499, 13.1303, 89.5544, -110.084
2.06347, -1, -5.74069, 9.2409, 20.9871, 13.1326, 89.4563, -110.333
2.07142, -1, -5.92302, 9.14701, 21.0241, 13.1349, 89.3583, -110.582
2.07942, -1, -6.10546, 9.05318, 21.061, 13.1371, 89.26, -110.831
2.08755, -1, -6.28818, 8.9594, 21.0981, 13.1393, 89.162, -111.079
2.09536, -1, -6.47108, 8.86581, 21.1351, 13.1416, 89.0644, -111.327
2.10335, -1, -6.65422, 8.77217, 21.1718, 13.1437, 88.9662, -111.576
2.11166, -1, -6.83784, 8.67854, 21.2088, 13.1458, 88.8683, -111.824
2.1194, -1, -7.02174, 8.58492, 21.2457, 13.1479, 88.7706, -112.072
2.12757, -1, -7.20595, 8.49138, 21.2825, 13.1501, 88.6726, -112.319
2.13557, -1, -7.39015, 8.39775, 21.3195, 13.1521, 88.5748, -112.567
2.14359, -1, -7.57391, 8.30408, 21.3563, 13.1543, 88.4773, -112.815
2.15175, -1, -7.75742, 8.21062, 21.393, 13.1565, 88.3796, -113.062
2.15984, -1, -7.94051, 8.11722, 21.4299, 13.1587, 88.2823, -113.309
2.16845, -1, -8.12307, 8.02387, 21.4667, 13.161, 88.1851, -113.556
2.17593, -1, -8.30492, 7.93059, 21.5034, 13.1631, 88.0876, -113.803
2.18449, -1, -8.48635, 7.83731, 21.5403, 13.1654, 87.9902, -114.05
2.19186, -1, -8.66724, 7.74414, 21.5771, 13.1677, 87.8929, -114.297
2.20045, -1, -8.848, 7.65096, 21.6138, 13.1699, 87.7954, -114.543
2.20818, -1, -8.93837, 7.60441, 21.6321, 13.1711, 87.698, -114.79
2.21529, -1, -9.11933, 7.51136, 21.6689, 13.1733, 87.6495, -114.913
2.22434, -1, -9.39115, 7.37209, 21.7239, 13.1767, 87.5037, -115.283
2.2313, -1, -9.48194, 7.32568, 21.7422, 13.1777, 87.455, -115.406
2.23929, -1, -9.66375, 7.23284, 21.7789, 13.18, 87.3581, -115.652
2.2485, -1, -9.93714, 7.09372, 21.8338, 13.1833, 87.2123, -116.021
2.25529, -1, -10.0284, 7.04735, 21.8521, 13.1844, 87.1636, -116.144
2.26458, -1, -10.3023, 6.90817, 21.907, 13.1877, 87.018, -116.512
2.2713, -1, -10.3936, 6.86177, 21.9253, 13.1888, 86.9692, -116.635
2.27931, -1, -10.5759, 6.76903, 21.9618, 13.191, 86.8722, -116.881
2.28872, -1, -10.8488, 6.6301, 22.0166, 13.1946, 86.7269, -117.249
2.2969, -1, -11.0301, 6.53752, 22.053, 13.197, 86.6299, -117.494
2.30598, -1, -11.2105, 6.445, 22.0896, 13.1994, 86.5332, -117.739
2.31284, -1, -11.3904, 6.35255, 22.1261, 13.2018, 86.4367, -117.984
2.32092, -1, -11.57, 6.26014, 22.1625, 13.2043, 86.3399, -118.229
2.32889, -1, -11.6597, 6.16771, 22.199, 13.2068, 86.2432, -118.473
2.33683, -1, -11.839, 6.12156, 22.2173, 13.208, 86.1951, -118.718
2.345, -1, -12.0183, 6.02932, 22.2537, 13.2104, 86.0984, -118.962
2.35129, -1, -12.1977, 5.93715, 22.2902, 13.2129, 86.0018, -119.084
2.35939, -1, -12.3774, 5.84515, 22.3267, 13.2154, 85.9057, -119.328
2.36734, -1, -12.5575, 5.75312, 22.3629, 13.2179, 85.8092, -119.572
2.37529, -1, -12.7379, 5.66115, 22.3991, 13.2204, 85.7129, -119.816
2.38339, -1, -12.9188, 5.56923, 22.4356, 13.2228, 85.6171, -120.06
2.39131, -1, -13.0998, 5.4773, 22.4718, 13.2252, 85.521, -120.304
2.39937, -1, -13.2811, 5.38527, 22.508, 13.2277, 85.4251, -120.547
2.40734, -1, -13.4621, 5.29334, 22.5444, 13.2301, 85.3294, -120.791
2.41532, -1, -13.6427, 5.20148, 22.5806, 13.2327, 85.2335, -121.034
2.42329, -1, -13.823, 5.10963, 22.6166, 13.2352, 85.1377, -121.277
2.4313, -1, -14.0026, 5.01781, 22.6529, 13.2378, 85.0421, -121.52
2.43931, -1, -14.1812, 4.92614, 22.689, 13.2404, 84.9465, -121.763
2.44739, -1, -14.3594, 4.83449, 22.725, 13.2429, 84.8509, -122.005
2.45538, -1, -14.5374, 4.74287, 22.7613, 13.2454, 84.7554, -122.248
2.46331, -1, -14.7151, 4.65128, 22.7975, 13.2479, 84.6597, -122.49
2.47136, -1, -14.8928, 4.55979, 22.8335, 13.2503, 84.564, -122.733
2.47927, -1, -15.0705, 4.46836, 22.8697, 13.2529, 84.4684, -122.975
2.48731, -1, -15.2485, 4.3771, 22.9058, 13.2553, 84.3727, -123.217
2.49538, -1, -15.4269, 4.28574, 22.9418, 13.2576, 84.277, -123.459
2.50331, -1, -15.6059, 4.19448, 22.9778, 13.2599, 84.1815, -123.701
2.51138, -1, -15.785, 4.10323, 23.0139, 13.2622, 84.086, -123.942
2.51928, -1, -15.9643, 4.01201, 23.0498, 13.2645, 83.9905, -124.184
2.52738, -1, -16.1439, 3.92069, 23.0858, 13.2666, 83.8952, -124.425
2.53542, -1, -16.3237, 3.82943, 23.1218, 13.2688, 83.7997, -124.667
2.54336, -1, -16.503, 3.73821, 23.1576, 13.2709, 83.7042, -124.908
2.55145, -1, -16.682, 3.64709, 23.1934, 13.2731, 83.6089, -125.15
2.55942, -1, -16.8604, 3.556, 23.2293, 13.2754, 83.5135, -125.391
2.56741, -1, -17.038, 3.46497, 23.2651, 13.2776, 83.4181, -125.631
2.57546, -1, -17.2147, 3.374, 23.3009, 13.2799, 83.3228, -125.872
2.5834, -1, -17.3913, 3.28311, 23.3368, 13.2821, 83.2278, -126.113
2.59129, -1, -17.5677, 3.19221, 23.3725, 13.2842, 83.1327, -126.353
2.59945, -1, -17.7437, 3.10158, 23.4084, 13.2863, 83.0379, -126.593
2.60734, -1, -17.9197, 3.01096, 23.4443, 13.2884, 82.9432, -126.834
2.61535, -1, -18.096, 2.92046, 23.48, 13.2906, 82.8482, -127.074
2.6235, -1, -18.2725, 2.83011, 23.5157, 13.2927, 82.7535, -127.314
2.63145, -1, -18.4495, 2.73969, 23.5515, 13.2947, 82.6589, -127.554
2.63955, -1, -18.627, 2.64927, 23.5871, 13.2967, 82.5642, -127.793
2.64771, -1, -18.8046, 2.55892, 23.6228, 13.2988, 82.4696, -128.033
2.65636, -1, -18.9827, 2.46846, 23.6586, 13.3008, 82.3754, -128.272
2.66375, -1, -19.1609, 2.37796, 23.6941, 13.3027, 82.2808, -128.512
2.67187, -1, -19.339, 2.28761, 23.7297, 13.3048, 82.1865, -128.751
2.68043, -1, -19.5167, 2.1972, 23.7654, 13.307, 82.0927, -128.99
2.68789, -1, -19.6937, 2.10679, 23.8008, 13.3091, 81.9984, -129.229
2.69646, -1, -19.8702, 2.01652, 23.8361, 13.3113, 81.9042, -129.468
2.70398, -1, -20.046, 1.92628, 23.8718, 13.3134, 81.8103, -129.707
2.71202, -1, -20.2213, 1.83603, 23.9073, 13.3157, 81.7161, -129.945
2.71928, -1, -20.3088, 1.79096, 23.925, 13.3168, 81.6691, -130.064
2.72835, -1, -20.5707, 1.65588, 23.9783, 13.3201, 81.5283, -130.422
2.73533, -1, -20.6579, 1.61088, 23.996, 13.3212, 81.4813, -130.541
2.74444, -1, -20.9198, 1.47604, 24.0491, 13.3244, 81.3405, -130.898
2.75128, -1, -21.0073, 1.43117, 24.0668, 13.3255, 81.2936, -131.017
2.7605, -1, -21.2702, 1.29652, 24.1201, 13.3288, 81.153, -131.374
2.76728, -1, -21.358, 1.25165, 24.1378, 13.3299, 81.106, -131.493
2.77528, -1, -21.5338, 1.16202, 24.173, 13.3321, 81.0121, -131.731
2.78545, -1, -21.7981, 1.02757, 24.2263, 13.3353, 80.8715, -132.087
2.7913, -1, -21.8862, 0.982731, 24.2439, 13.3364, 80.8246, -132.205
2.79932, -1, -22.0627, 0.89315, 24.2792, 13.3386, 80.7308, -132.442
2.80973, -1, -22.3275, 0.758834, 24.3323, 13.3418, 80.5904, -132.798
2.81537, -1, -22.4156, 0.714116, 24.3499, 13.3429, 80.5436, -132.917
2.8249, -1, -22.6791, 0.579895, 24.4027, 13.3465, 80.4032, -133.272
2.83372, -1, -22.7667, 0.535193, 24.438, 13.3488, 80.3097, -133.509
2.8394, -1, -22.9411, 0.445803, 24.4556, 13.35, 80.2627, -133.627
2.84885, -1, -23.1149, 0.356392, 24.4907, 13.3525, 80.1693, -133.864
2.85629, -1, -23.2885, 0.267076, 24.5259, 13.3549, 80.076, -134.101
2.86336, -1, -23.4617, 0.177763, 24.5611, 13.3573, 79.9824, -134.337
2.87131, -1, -23.6348, 0.0886029, 24.5962, 13.3597, 79.8891, -134.574
2.87928, -1, -23.8082, -0.000504216, 24.6314, 13.3621, 79.796, -134.81
2.88729, -1, -23.9816, -0.0894491, 24.6666, 13.3645, 79.7027, -135.046
2.89527, -1, -24.1553, -0.178407, 24.7016, 13.3669, 79.6096, -135.282
2.90335, -1, -24.3292, -0.267364, 24.7367, 13.3694, 79.5166, -135.517
2.91129, -1, -24.5035, -0.356212, 24.7719, 13.3718, 79.4236, -135.753
2.91928, -1, -24.6782, -0.44512, 24.8069, 13.3742, 79.3305, -135.988
2.92734, -1, -24.8531, -0.534003, 24.8418, 13.3767, 79.2375, -136.224
2.9353, -1, -25.0282, -0.622852, 24.877, 13.3791, 79.1446, -136.459
2.94327, -1, -25.203, -0.711649, 24.912, 13.3815, 79.0516, -136.694
2.95135, -1, -25.3775, -0.800389, 24.9469, 13.3838, 78.9588, -136.929
2.95931, -1, -25.5517, -0.88921, 24.982, 13.3863, 78.8663, -137.164
2.96727, -1, -25.7253, -0.977923, 25.0169, 13.3888, 78.7734, -137.399
2.97536, -1, -25.8981, -1.06659, 25.0517, 13.3911, 78.6808, -137.634
2.98329, -1, -26.0706, -1.15531, 25.0868, 13.3936, 78.5887, -137.868
2.99127, -1, -26.2427, -1.24396, 25.1217, 13.396, 78.4959, -138.103
2.99938, -1, -26.4144, -1.33245, 25.1565, 13.3983, 78.4033, -138.337
3.00737, -1, -26.5863, -1.4209, 25.1914, 13.4006, 78.3111, -138.572
3.01529, -1, -26.7583, -1.50927, 25.2264, 13.4028, 78.2184, -138.806
3.02335, -1, -26.9306, -1.59743, 25.2612, 13.4051, 78.126, -139.04
3.03175, -1, -27.1031, -1.68559, 25.2961, 13.4072, 78.0339, -139.274
3.03933, -1, -27.2756, -1.77381, 25.331, 13.4094, 77.9417, -139.508
3.04736, -1, -27.4485, -1.86187, 25.3657, 13.4117, 77.8497, -139.742
3.05619, -1, -27.6217, -1.94997, 25.4005, 13.4137, 77.7578, -139.975
3.06338, -1, -27.795, -2.03816, 25.4354, 13.4159, 77.6657, -140.208
3.07145, -1, -27.9682, -2.12615, 25.4702, 13.4179, 77.5736, -140.442
3.08017, -1, -28.1415, -2.21421, 25.5049, 13.4199, 77.4816, -140.675
3.08733, -1, -28.3146, -2.30224, 25.5397, 13.422, 77.3896, -140.908
3.09528, -1, -28.4873, -2.39027, 25.5744, 13.4241, 77.2975, -141.141
3.10429, -1, -28.6598, -2.47824, 25.6091, 13.4262, 77.2054, -141.374
3.11139, -1, -28.8315, -2.56623, 25.6438, 13.4283, 77.1135, -141.607
3.11932, -1, -29.0025, -2.65419, 25.6784, 13.4305, 77.0215, -141.84
3.12846, -1, -29.1731, -2.74206, 25.713, 13.4327, 76.9296, -142.072
3.13545, -1, -29.3437, -2.82987, 25.7476, 13.4347, 76.838, -142.305
3.14357, -1, -29.5144, -2.9176, 25.7823, 13.4368, 76.746, -142.537
3.1517, -1, -29.6853, -3.00518, 25.8168, 13.4389, 76.6541, -142.769
3.15963, -1, -29.8563, -3.09271, 25.8514, 13.4409, 76.5625, -143.002
3.16778, -1, -30.0274, -3.18018, 25.886, 13.443, 76.4705, -143.234
3.17755, -1, -30.1983, -3.26768, 25.9205, 13.445, 76.3788, -143.466
3.18388, -1, -30.3695, -3.3551, 25.9551, 13.4471, 76.2874, -143.698
3.19244, -1, -30.541, -3.44256, 25.9897, 13.4491, 76.1957, -143.93
3.20059, -1, -30.7128, -3.53006, 26.0241, 13.4511, 76.1043, -144.161
3.20845, -1, -30.8846, -3.61741, 26.0585, 13.4532, 76.013, -144.393
3.2158, -1, -30.9705, -3.66111, 26.0758, 13.4542, 75.9674, -144.624
3.22504, -1, -31.228, -3.79214, 26.1276, 13.4573, 75.8301, -144.855
3.2324, -1, -31.3994, -3.87945, 26.1619, 13.4593, 75.7389, -145.087
3.23926, -1, -31.4848, -3.92312, 26.1792, 13.4604, 75.6934, -145.202
3.24912, -1, -31.7406, -4.054, 26.2309, 13.4636, 75.5564, -145.549
3.25651, -1, -31.9106, -4.14125, 26.2652, 13.4658, 75.4652, -145.779
3.26326, -1, -31.9955, -4.18487, 26.2824, 13.4669, 75.4199, -145.895
3.2735, -1, -32.2497, -4.31559, 26.334, 13.4703, 75.2831, -146.241
3.27926, -1, -32.3344, -4.35912, 26.3511, 13.4713, 75.2375, -146.357
3.28868, -1, -32.5889, -4.48962, 26.4026, 13.4745, 75.1015, -146.702
3.29533, -1, -32.6738, -4.53308, 26.4199, 13.4756, 75.0559, -146.817
3.30327, -1, -32.8434, -4.61998, 26.4543, 13.4777, 74.9651, -147.048
3.31284, -1, -33.0979, -4.75036, 26.5055, 13.481, 74.8292, -147.393
3.32173, -1, -33.2678, -4.83719, 26.5399, 13.4832, 74.7384, -147.623
3.32727, -1, -33.3527, -4.88061, 26.5571, 13.4844, 74.6931, -147.738
3.33687, -1, -33.523, -5.01099, 26.6084, 13.4876, 74.5573, -148.083
3.34336, -1, -33.6933, -5.0544, 26.6256, 13.4887, 74.5122, -148.198
3.35228, -1, -33.8635, -5.14114, 26.6598, 13.4909, 74.4214, -148.428
3.35932, -1, -34.0338, -5.22789, 26.694, 13.4932, 74.3309, -148.657
3.36727, -1, -34.204, -5.31461, 26.7281, 13.4954, 74.2406, -148.887
3.3754, -1, -34.374, -5.40125, 26.7625, 13.4978, 74.1498, -149.116
3.38336, -1, -34.5437, -5.48789, 26.7966, 13.5, 74.0593, -149.345
3.39131, -1, -34.713, -5.57459, 26.8307, 13.5024, 73.9688, -149.575
3.39929, -1, -34.8817, -5.66118, 26.8649, 13.5048, 73.8782, -149.804
3.40733, -1, -35.0501, -5.74772, 26.899, 13.5073, 73.7877, -150.033
3.41526, -1, -35.2184, -5.83423, 26.9331, 13.5097, 73.6974, -150.262
3.42334, -1, -35.3868, -5.92061, 26.9672, 13.5121, 73.607, -150.491
3.43132, -1, -35.5553, -6.00683, 27.0014, 13.5145, 73.5168, -150.72
3.43927, -1, -35.7239, -6.09308, 27.0353, 13.5169, 73.4264, -150.948
3.44728, -1, -35.8924, -6.17925, 27.0694, 13.5192, 73.3363, -151.177
3.45526, -1, -36.061, -6.26538, 27.1035, 13.5217, 73.2457, -151.405
3.46333, -1, -36.2294, -6.35149, 27.1375, 13.5241, 73.1553, -151.634
3.47133, -1, -36.3981, -6.43773, 27.1714, 13.5265, 73.0651, -151.863
3.47925, -1, -36.5669, -6.52395, 27.2054, 13.5289, 72.9745, -152.091
3.4873, -1, -36.7358, -6.6101, 27.2393, 13.5311, 72.8843, -152.319
3.49541, -1, -36.9047, -6.69627, 27.2732, 13.5333, 72.7943, -152.547
3.50327, -1, -37.0737, -6.78242, 27.3072, 13.5356, 72.7041, -152.775
3.51133, -1, -37.2425, -6.86855, 27.3411, 13.5379, 72.6141, -153.003
3.51939, -1, -37.411, -6.95457, 27.3749, 13.5402, 72.5243, -153.23
3.52726, -1, -37.5791, -7.04062, 27.4089, 13.5424, 72.4345, -153.458
3.53527, -1, -37.7469, -7.12664, 27.4429, 13.5447, 72.3446, -153.685
3.54342, -1, -37.9145, -7.21263, 27.4767, 13.5469, 72.2548, -153.913
3.55141, -1, -38.082, -7.29855, 27.5106, 13.5491, 72.1651, -154.14
3.55936, -1, -38.2494, -7.38442, 27.5445, 13.5512, 72.0753, -154.368
3.56751, -1, -38.4168, -7.47018, 27.5783, 13.5534, 71.9857, -154.595
3.5757, -1, -38.5839, -7.55587, 27.6122, 13.5555, 71.8963, -154.822
3.58338, -1, -38.7513, -7.64161, 27.6461, 13.5576, 71.8065, -155.049
3.59154, -1, -38.9185, -7.72728, 27.6798, 13.5596, 71.717, -155.276
3.59986, -1, -39.0859, -7.81288, 27.7135, 13.5617, 71.6279, -155.503
3.60827, -1, -39.2534, -7.89855, 27.7474, 13.5637, 71.5384, -155.73
3.61549, -1, -39.421, -7.98422, 27.7812, 13.5657, 71.449, -155.957
3.62426, -1, -39.5885, -8.06975, 27.8148, 13.5676, 71.3598, -156.183
3.63152, -1, -39.7562, -8.15532, 27.8485, 13.5696, 71.2704, -156.41
3.63955, -1, -39.9238, -8.2408, 27.8823, 13.5715, 71.1811, -156.636
3.64837, -1, -40.0914, -8.32625, 27.916, 13.5735, 71.0917, -156.863
3.65563, -1, -40.2588, -8.41161, 27.9496, 13.5754, 71.0026, -157.089
3.66378, -1, -40.426, -8.497, 27.9834, 13.5774, 70.9131, -157.315
3.67264, -1, -40.593, -8.58235, 28.017, 13.5794, 70.8239, -157.541
3.6798, -1, -40.7598, -8.66773, 28.0506, 13.5814, 70.735, -157.767
3.68836, -1, -40.9264, -8.75308, 28.0843, 13.5833, 70.6457, -157.993
3.69667, -1, -41.0929, -8.83842, 28.118, 13.5854, 70.5566, -158.219
3.70386, -1, -41.2592, -8.92363, 28.1515, 13.5874, 70.4676, -158.445
3.71242, -1, -41.4253, -9.00879, 28.1851, 13.5894, 70.3783, -158.671
3.72065, -1, -41.5085, -9.05138, 28.202, 13.5904, 70.3337, -158.783
3.72725, -1, -41.6747, -9.13651, 28.2356, 13.5924, 70.2445, -159.009
3.73632, -1, -41.9243, -9.2641, 28.2859, 13.5954, 70.111, -159.347
3.74326, -1, -42.0075, -9.30661, 28.3027, 13.5964, 70.0665, -159.46
3.75242, -1, -42.257, -9.4342, 28.3531, 13.5994, 69.933, -159.798
3.7593, -1, -42.3401, -9.47674, 28.3698, 13.6004, 69.8888, -159.91
3.76929, -1, -42.5896, -9.60417, 28.4201, 13.6034, 69.7551, -160.248
3.7753, -1, -42.6729, -9.64666, 28.4369, 13.6045, 69.7107, -160.361
3.78326, -1, -42.8392, -9.73162, 28.4703, 13.6066, 69.6219, -160.586
3.7927, -1, -43.0887, -9.85895, 28.5205, 13.6096, 69.4886, -160.923
3.80152, -1, -43.2549, -9.9439, 28.554, 13.6117, 69.4001, -161.148
3.80725, -1, -43.3379, -9.98636, 28.5707, 13.6128, 69.3556, -161.26
3.81684, -1, -43.587, -10.1138, 28.6209, 13.6158, 69.2228, -161.597
3.82571, -1, -43.7529, -10.1987, 28.6544, 13.6179, 69.1342, -161.822
3.8329, -1, -43.9188, -10.2835, 28.6878, 13.6201, 69.0458, -162.047
3.84087, -1, -44.0017, -10.3258, 28.7212, 13.6222, 68.9573, -162.271
3.84942, -1, -44.1672, -10.4106, 28.7379, 13.6233, 68.9129, -162.383
3.85525, -1, -44.3323, -10.4952, 28.7714, 13.6255, 68.8243, -162.607
3.86425, -1, -44.4976, -10.5797, 28.8048, 13.6277, 68.7358, -162.832
3.87231, -1, -44.6627, -10.6642, 28.8381, 13.6299, 68.6472, -163.056
3.87927, -1, -44.828, -10.7487, 28.8716, 13.6321, 68.5586, -163.28
3.88724, -1, -44.9934, -10.8331, 28.9051, 13.6343, 68.4701, -163.504
3.89531, -1, -45.1586, -10.9176, 28.9384, 13.6364, 68.3819, -163.728
3.90329, -1, -45.3239, -11.002, 28.9719, 13.6386, 68.2933, -163.952
3.91124, -1, -45.4891, -11.0864, 29.0052, 13.6409, 68.205, -164.176
3.91931, -1, -45.6544, -11.1708, 29.0383, 13.6432, 68.117, -164.4
3.92725, -1, -45.8197, -11.2552, 29.0717, 13.6455, 68.0284, -164.624
3.93525, -1, -45.984, -11.3391, 29.1051, 13.6478, 67.9401, -164.847
3.94332, -1, -46.1455, -11.4214, 29.1386, 13.6501, 67.852, -165.07
3.95125, -1, -46.3026, -11.5009, 29.1721, 13.6524, 67.7646, -165.291
3.95924, -1, -46.453, -11.576, 29.2057, 13.6548, 67.6793, -165.507
3.96741, -1, -46.5943, -11.646, 29.2379, 13.6572, 67.5978, -165.713
3.97524, -1, -46.7241, -11.7095, 29.2678, 13.6593, 67.5231, -165.903
3.98325, -1, -46.8393, -11.7657, 29.2943, 13.6614, 67.4558, -166.072
3.99131, -1, -46.9383, -11.815, 29.3165, 13.6631, 67.3999, -166.215
3.99924, -1, -47.0211, -11.8581, 29.3331, 13.6643, 67.3549, -166.328
4.00724, -1, -47.0885, -11.895, 29.3444, 13.6651, 67.3212, -166.413
4.01533, -1, -47.1411, -11.9245, 29.3517, 13.6655, 67.2978, -166.472
4.02326, -1, -47.1802, -11.9468, 29.3557, 13.6658, 67.2826, -166.51
4.03125, -1, -47.2079, -11.9623, 29.3576, 13.6659, 67.2737, -166.533
4.03931, -1, -47.2262, -11.9724, 29.3584, 13.6659, 67.269, -166.545
4.04754, -1, -47.2371, -11.9784, 29.3588, 13.666, 67.2665, -166.551
4.05533, 2, -47.2428, -11.9813, 29.359, 13.666, 67.2654, -166.554
4.06342, 2, -47.245, -11.9827, 29.3592, 13.6661, 67.2649, -166.555
4.07139, 2, -47.2451, -11.9832, 29.3593, 13.6662, 67.2646, -166.555
4.07935, 2, -47.2449, -11.9834, 29.3593, 13.6661, 67.2645, -166.556
4.08741, 2, -47.2448, -11.9835, 29.3593, 13.6661, 67.2644, -166.556
4.09533, 2, -47.2452, -11.9836, 29.3594, 13.666, 67.2644, -166.556
4.10325, 2, -47.2461, -11.9839, 29.3594, 13.6661, 67.2645, -166.556
4.11134, 2, -47.2473, -11.9844, 29.3594, 13.6661, 67.2645, -166.556
4.11933, 2, -47.2491, -11.9851, 29.3594, 13.6661, 67.2645, -166.556
4.1273, 2, -47.2507, -11.986, 29.3594, 13.6661, 67.2644, -166.556
4.13546, 2, -47.2521, -11.9868, 29.3594, 13.6662, 67.2644, -166.556
4.14371, 2, -47.253, -11.9875, 29.3594, 13.6661, 67.2644, -166.556
4.15158, 2, -47.2534, -11.9879, 29.3594, 13.6661, 67.2644, -166.556
4.15966, 2, -47.2536, -11.9881, 29.3594, 13.6661, 67.2644, -166.556
4.16774, 2, -47.2537, -11.9881, 29.3594, 13.6661, 67.2644, -166.556
4.17634, 2, -47.2534, -11.9881, 29.3594, 13.6661, 67.2644, -166.556
4.18382, 2, -47.2529, -11.9881, 29.3594, 13.6661, 67.2644, -166.556
4.19245, 2, -47.2525, -11.9881, 29.3595, 13.6661, 67.2644, -166.556
4.19982, 2, -47.2521, -11.988, 29.3595, 13.6661, 67.2644, -166.556
4.20836, 2, -47.252, -11.9881, 29.3595, 13.6661, 67.2644, -166.556
4.21603, 2, -47.252, -11.9882, 29.3595, 13.6661, 67.2644, -166.556
4.22378, 2, -47.2521, -11.9882, 29.3595, 13.6661, 67.2644, -166.556
4.23231, 2, -47.2523, -11.9886, 29.3594, 13.6661, 67.2645, -166.556
4.23926, 2, -47.2526, -11.9888, 29.3594, 13.6661, 67.2644, -166.556
4.24723, 2, -47.2532, -11.9891, 29.3595, 13.6661, 67.2645, -166.556
4.25632, 2, -47.2537, -11.9894, 29.3595, 13.666, 67.2645, -166.556
4.26325, 2, -47.2538, -11.9895, 29.3595, 13.666, 67.2644, -166.556
4.27123, 2, -47.2539, -11.9895, 29.3594, 13.666, 67.2645, -166.556
4.28053, 2, -47.2538, -11.9895, 29.3595, 13.666, 67.2645, -166.556
4.28724, 2, -47.2537, -11.9895, 29.3595, 13.666, 67.2645, -166.556
4.29524, 2, -47.2534, -11.9894, 29.3595, 13.6661, 67.2645, -166.556
4.30471, 2, -47.2528, -11.9894, 29.3595, 13.666, 67.2645, -166.556
4.31123, 2, -47.2527, -11.9894, 29.3595, 13.666, 67.2645, -166.556
4.32087, 2, -47.2524, -11.9894, 29.3595, 13.666, 67.2645, -166.556
4.3288, 2, -47.2523, -11.9894, 29.3595, 13.666, 67.2645, -166.555
4.33705, 2, -47.2523, -11.9895, 29.3595, 13.666, 67.2644, -166.556
4.34324, 2, -47.2522, -11.9895, 29.3595, 13.666, 67.2644, -166.556
4.35283, 2, -47.2523, -11.9896, 29.3595, 13.666, 67.2644, -166.556
4.35923, 2, -47.2523, -11.9896, 29.3595, 13.666, 67.2644, -166.556
4.36825, 2, -47.2523, -11.9896, 29.3595, 13.666, 67.2645, -166.556
4.37624, 2, -47.2523, -11.9896, 29.3594, 13.666, 67.2644, -166.555
4.38429, 2, -47.2522, -11.9896, 29.3595, 13.666, 67.2645, -166.556
4.39123, 2, -47.2522, -11.9895, 29.3595, 13.666, 67.2645, -166.556
4.39929, 2, -47.2521, -11.9895, 29.3595, 13.666, 67.2645, -166.555
4.40726, 2, -47.252, -11.9894, 29.3595, 13.666, 67.2645, -166.555
4.41524, 2, -47.2519, -11.9894, 29.3595, 13.666, 67.2646, -166.555
4.42331, 2, -47.2518, -11.9894, 29.3595, 13.666, 67.2645, -166.555
4.43123, 2, -47.2517, -11.9894, 29.3594, 13.666, 67.2645, -166.555
4.43923, 2, -47.2516, -11.9894, 29.3595, 13.666, 67.2645, -166.555
4.44729, 2, -47.2515, -11.9894, 29.3595, 13.666, 67.2645, -166.555
4.45524, 2, -47.2515, -11.9894, 29.3595, 13.666, 67.2645, -166.555
4.46324, 2, -47.2514, -11.9894, 29.3595, 13.666, 67.2646, -166.555
4.47131, 2, -47.2514, -11.9895, 29.3595, 13.666, 67.2645, -166.555
4.47923, 2, -47.2513, -11.9894, 29.3595, 13.666, 67.2645, -166.555
4.48723, 2, -47.2512, -11.9894, 29.3594, 13.666, 67.2645, -166.555
4.49534, 2, -47.2512, -11.9894, 29.3594, 13.666, 67.2645, -166.555
4.50324, 2, -47.251, -11.9893, 29.3595, 13.666, 67.2646, -166.555
4.51123, 2, -47.251, -11.9893, 29.3595, 13.666, 67.2646, -166.555
4.51931, 2, -47.2509, -11.9892, 29.3595, 13.666, 67.2645, -166.555
4.52724, 2, -47.2508, -11.9892, 29.3595, 13.666, 67.2645, -166.555
4.53523, 2, -47.2507, -11.9892, 29.3595, 13.666, 67.2645, -166.555
4.54333, 2, -47.2506, -11.9892, 29.3595, 13.6659, 67.2646, -166.555
4.55131, 2, -47.2505, -11.9892, 29.3595, 13.666, 67.2646, -166.555
4.55931, 2, -47.2504, -11.9892, 29.3595, 13.666, 67.2646, -166.555
4.56739, 2, -47.2503, -11.9892, 29.3595, 13.666, 67.2646, -166.555
4.57538, 2, -47.2502, -11.9892, 29.3595, 13.666, 67.2646, -166.555
4.58334, 2, -47.25, -11.9892, 29.3595, 13.666, 67.2646, -166.555
4.59141, 2, -47.25, -11.9892, 29.3594, 13.6659, 67.2646, -166.555
4.59923, 2, -47.2499, -11.9891, 29.3595, 13.666, 67.2646, -166.555
4.60723, 2, -47.2498, -11.9891, 29.3595, 13.6659, 67.2646, -166.555
4.61533, 2, -47.2497, -11.989, 29.3595, 13.6659, 67.2646, -166.555
4.62339, 2, -47.2495, -11.989, 29.3595, 13.6659, 67.2646, -166.555
4.63128, 2, -47.2494, -11.9889, 29.3595, 13.6659, 67.2646, -166.555
4.63946, 2, -47.2494, -11.9889, 29.3595, 13.6659, 67.2646, -166.555
4.64778, 2, -47.2492, -11.9889, 29.3595, 13.6659, 67.2647, -166.555
4.65627, 2, -47.2492, -11.9889, 29.3595, 13.6659, 67.2647, -166.555
4.66366, 2, -47.2491, -11.9889, 29.3595, 13.6659, 67.2647, -166.555
4.67214, 2, -47.2491, -11.9889, 29.3595, 13.6659, 67.2647, -166.555
4.67977, 2, -47.249, -11.9889, 29.3594, 13.6659, 67.2647, -166.555
4.68833, 2, -47.249, -11.9889, 29.3595, 13.6659, 67.2647, -166.555
4.69622, 2, -47.249, -11.9889, 29.3595, 13.6659, 67.2647, -166.555
4.7038, 2, -47.2489, -11.9889, 29.3595, 13.6659, 67.2647, -166.555
4.71239, 2, -47.2488, -11.9888, 29.3594, 13.6658, 67.2647, -166.555
4.72012, 2, -47.2488, -11.9887, 29.3594, 13.6658, 67.2647, -166.555
4.72721, 2, -47.2487, -11.9887, 29.3594, 13.6658, 67.2647, -166.555
4.73626, 2, -47.2486, -11.9886, 29.3594, 13.6658, 67.2647, -166.555
4.74325, 2, -47.2486, -11.9886, 29.3594, 13.6658, 67.2647, -166.555
4.75122, 2, -47.2485, -11.9886, 29.3594, 13.6658, 67.2647, -166.555
4.76036, 2, -47.2485, -11.9886, 29.3594, 13.6658, 67.2647, -166.555
4.76721, 2, -47.2485, -11.9886, 29.3594, 13.6658, 67.2647, -166.555
4.77522, 2, -47.2484, -11.9886, 29.3595, 13.6658, 67.2647, -166.555
4.78454, 2, -47.2485, -11.9886, 29.3594, 13.6658, 67.2647, -166.555
4.79121, 2, -47.2484, -11.9886, 29.3594, 13.6658, 67.2647, -166.555
4.79921, 2, -47.2484, -11.9886, 29.3594, 13.6658, 67.2647, -166.555
4.80872, 2, -47.2483, -11.9885, 29.3595, 13.6657, 67.2647, -166.554
4.81521, 2, -47.2483, -11.9885, 29.3594, 13.6657, 67.2647, -166.554
4.82323, 2, -47.2482, -11.9884, 29.3594, 13.6657, 67.2648, -166.554
4.83282, 2, -47.2481, -11.9883, 29.3595, 13.6657, 67.2648, -166.554
4.84108, 2, -47.248, -11.9883, 29.3594, 13.6657, 67.2648, -166.554
4.84721, 2, -47.2479, -11.9883, 29.3594, 13.6656, 67.2648, -166.554
4.85622, 2, -47.2479, -11.9883, 29.3594, 13.6656, 67.2648, -166.554
4.86515, 2, -47.2478, -11.9882, 29.3594, 13.6656, 67.2648, -166.554
4.87121, 2, -47.2478, -11.9882, 29.3594, 13.6656, 67.2648, -166.554
4.87928, 2, -47.2478, -11.9882, 29.3594, 13.6656, 67.2648, -166.554
4.88724, 2, -47.2478, -11.9882, 29.3594, 13.6656, 67.2648, -166.554
4.89531, 2, -47.2478, -11.9882, 29.3594, 13.6655, 67.2648, -166.554
4.90328, 2, -47.2477, -11.9882, 29.3594, 13.6655, 67.2648, -166.554
4.91125, 2, -47.2477, -11.9882, 29.3594, 13.6655, 67.2648, -166.554
4.91921, 2, -47.2477, -11.9881, 29.3594, 13.6656, 67.2649, -166.554
4.92728, 2, -47.2476, -11.988, 29.3594, 13.6656, 67.2649, -166.554
4.93521, 2, -47.2475, -11.988, 29.3594, 13.6656, 67.2649, -166.554
4.94322, 2, -47.2474, -11.9879, 29.3594, 13.6656, 67.2649, -166.554
4.95128, 2, -47.2473, -11.9879, 29.3594, 13.6656, 67.265, -166.554
4.95921, 2, -47.2473, -11.9878, 29.3594, 13.6656, 67.265, -166.554
4.96721, 2, -47.2472, -11.9878, 29.3594, 13.6655, 67.265, -166.554
4.9753, 2, -47.2472, -11.9878, 29.3594, 13.6655, 67.265, -166.554
4.98322, 2, -47.2472, -11.9878, 29.3594, 13.6655, 67.265, -166.554
4.99121, 2, -47.2472, -11.9878, 29.3594, 13.6655, 67.265, -166.554
4.99928, 2, -47.2472, -11.9878, 29.3594, 13.6655, 67.2651, -166.554
5.00721, 2, -47.2471, -11.9878, 29.3594, 13.6654, 67.2651, -166.554
5.01522, 2, -47.2471, -11.9878, 29.3594, 13.6654, 67.2651, -166.554
5.02331, 2, -47.2471, -11.9877, 29.3594, 13.6654, 67.2651, -166.554
5.03121, 2, -47.247, -11.9876, 29.3594, 13.6654, 67.2651, -166.554
5.03921, 2, -47.2469, -11.9876, 29.3594, 13.6654, 67.2651, -166.554
5.04731, 2, -47.2468, -11.9875, 29.3594, 13.6654, 67.2651, -166.554
5.05748, 2, -47.2467, -11.9875, 29.3594, 13.6654, 67.2651, -166.554
5.06339, 2, -47.2466, -11.9875, 29.3594, 13.6653, 67.2651, -166.554
5.07131, 2, -47.2466, -11.9875, 29.3594, 13.6653, 67.2651, -166.554
5.07934, 2, -47.2466, -11.9875, 29.3594, 13.6653, 67.2651, -166.554
5.08739, 2, -47.2465, -11.9875, 29.3594, 13.6653, 67.2651, -166.554
5.09549, 2, -47.2465, -11.9875, 29.3594, 13.6653, 67.2651, -166.554
5.10423, 2, -47.2465, -11.9875, 29.3594, 13.6652, 67.2651, -166.554
5.11129, 2, -47.2465, -11.9875, 29.3594, 13.6652, 67.2651, -166.554
5.11942, 4, -47.2464, -11.9874, 29.3594, 13.6652, 67.2651, -166.554
5.12725, 4, -47.2464, -11.9874, 29.3594, 13.6652, 67.2651, -166.554
5.13536, 4, -47.2463, -11.9873, 29.3594, 13.6652, 67.2652, -166.554
5.14343, 4, -47.2462, -11.9873, 29.3594, 13.6651, 67.2652, -166.554
5.15142, 4, -47.2461, -11.9872, 29.3594, 13.6651, 67.2652, -166.554
5.16003, 4, -47.2461, -11.9872, 29.3594, 13.6651, 67.2652, -166.554
5.1683, 4, -47.246, -11.9872, 29.3594, 13.6651, 67.2652, -166.554
5.17561, 4, -47.246, -11.9872, 29.3594, 13.6651, 67.2652, -166.554
5.18411, 4, -47.246, -11.9872, 29.3594, 13.6651, 67.2652, -166.554
5.19173, 4, -47.246, -11.9872, 29.3594, 13.6651, 67.2652, -166.554
5.20031, 4, -47.2459, -11.9872, 29.3594, 13.6651, 67.2652, -166.553
5.20832, 4, -47.2459, -11.9872, 29.3594, 13.6651, 67.2652, -166.553
5.21578, 4, -47.2459, -11.9871, 29.3594, 13.6651, 67.2652, -166.553
5.22448, 4, -47.2458, -11.9871, 29.3594, 13.6651, 67.2653, -166.553
5.23629, 4, -47.2458, -11.987, 29.3594, 13.6651, 67.2653, -166.553
5.23997, 4, -47.2458, -11.987, 29.3594, 13.6651, 67.2653, -166.553
5.2513, 4, -47.2457, -11.987, 29.3594, 13.6651, 67.2653, -166.553
5.25534, 4, -47.2456, -11.9869, 29.3594, 13.665, 67.2653, -166.553
5.26564, 4, -47.2455, -11.9869, 29.3594, 13.665, 67.2653, -166.553
5.27286, 4, -47.2455, -11.9869, 29.3594, 13.665, 67.2653, -166.553
5.28192, 4, -47.2454, -11.9869, 29.3594, 13.665, 67.2653, -166.553
5.28742, 4, -47.2454, -11.9869, 29.3594, 13.665, 67.2653, -166.553
5.29553, 4, -47.2454, -11.9869, 29.3594, 13.665, 67.2653, -166.553
5.30335, 4, -47.2454, -11.9868, 29.3594, 13.6649, 67.2653, -166.553
5.31316, 4, -47.2453, -11.9868, 29.3594, 13.6649, 67.2653, -166.553
5.32483, 4, -47.2453, -11.9868, 29.3594, 13.6649, 67.2654, -166.553
5.32733, 4, -47.2453, -11.9868, 29.3594, 13.6649, 67.2654, -166.553
5.33825, 4, -47.2453, -11.9867, 29.3594, 13.6649, 67.2654, -166.553
5.34345, 4, -47.2453, -11.9867, 29.3594, 13.6649, 67.2654, -166.553
5.35733, 4, -47.2452, -11.9867, 29.3594, 13.6648, 67.2654, -166.553
5.35943, 4, -47.2452, -11.9867, 29.3594, 13.6648, 67.2654, -166.553
5.37051, 4, -47.2451, -11.9866, 29.3594, 13.6648, 67.2653, -166.553
5.37779, 4, -47.245, -11.9866, 29.3594, 13.6648, 67.2653, -166.553
5.38535, 4, -47.2451, -11.9867, 29.3594, 13.6649, 67.2653, -166.553
5.39241, 4, -47.2454, -11.9868, 29.3595, 13.6649, 67.2654, -166.553
5.39935, 4, -47.247, -11.9878, 29.3605, 13.6654, 67.2656, -166.553
5.41036, 4, -47.2525, -11.9934, 29.3673, 13.6764, 67.2683, -166.552
5.41641, 4, -47.2556, -11.9973, 29.3724, 13.6865, 67.2709, -166.55
5.42981, 4, -47.2792, -12.0284, 29.4232, 13.7883, 67.2989, -166.528
5.43204, 5, -47.2792, -12.0284, 29.4232, 13.7883, 67.2989, -166.528
5.44034, 5, -47.3014, -12.0581, 29.4771, 13.9002, 67.3305, -166.502
5.45136, 5, -47.3533, -12.1256, 29.6114, 14.1845, 67.4093, -166.437
5.4584, 5, -47.4028, -12.1883, 29.7438, 14.4695, 67.488, -166.371
5.46337, 5, -47.4323, -12.2253, 29.8238, 14.6434, 67.5353, -166.332
5.47436, 5, -47.5398, -12.359, 30.1218, 15.2905, 67.7094, -166.183
5.48331, 5, -47.6267, -12.4666, 30.3672, 15.8182, 67.8494, -166.063
5.48733, 5, -47.6743, -12.5254, 30.502, 16.1061, 67.9252, -165.998
5.50275, 5, -47.831, -12.7196, 30.9498, 17.0451, 68.169, -165.714
5.50466, 5, -47.887, -12.7894, 31.1105, 17.3771, 68.2537, -165.714
5.51477, 5, -48.063, -13.0097, 31.6169, 18.4026, 68.5108, -165.491
5.52046, 5, -48.1233, -13.0857, 31.7908, 18.7497, 68.5962, -165.417
5.52936, 5, -48.2441, -13.2391, 32.1434, 19.4451, 68.765, -165.269
5.53559, 5, -48.3626, -13.3914, 32.498, 20.1319, 68.93, -165.121
5.54442, 5, -48.4751, -13.5401, 32.8509, 20.8009, 69.0912, -164.968
5.55507, 6, -48.6232, -13.7492, 33.3634, 21.7459, 69.3292, -164.704
5.55951, 6, -48.6649, -13.8136, 33.5273, 22.0399, 69.4086, -164.601
5.5684, 7, -48.734, -13.9348, 33.8407, 22.5924, 69.5693, -164.359
5.57643, 7, -48.782, -14.0467, 34.1343, 23.0946, 69.7349, -164.062
5.58747, 8, -48.8154, -14.1961, 34.5354, 23.7635, 69.9996, -163.488
5.59248, 8, -48.8169, -14.2403, 34.6596, 23.9688, 70.094, -163.261
5.60069, 8, -48.8065, -14.3215, 34.8972, 24.3602, 70.2932, -162.755
5.60752, 9, -48.7798, -14.3961, 35.1228, 24.7362, 70.5076, -162.187
5.61635, 9, -48.7395, -14.467, 35.3412, 25.1064, 70.7359, -161.572
5.62558, 10, -48.6879, -14.5345, 35.5578, 25.4767, 70.9754, -160.924
5.63246, 10, -48.6272, -14.5988, 35.7746, 25.8496, 71.2221, -160.256
5.64036, 11, -48.5593, -14.6611, 35.993, 26.2251, 71.4714, -159.582
5.64844, 11, -48.4861, -14.7234, 36.2142, 26.6027, 71.7195, -158.91
5.65838, 12, -48.4089, -14.7862, 36.4357, 26.9829, 71.965, -158.244
5.66461, 12, -48.3294, -14.8493, 36.6552, 27.3662, 72.2083, -157.582
5.67601, 13, -48.2065, -14.9439, 36.98, 27.948, 72.5713, -156.597
5.68063, 13, -48.1643, -14.9755, 37.0863, 28.1442, 72.6927, -156.269
5.68813, 14, -48.0775, -15.0389, 37.2958, 28.5397, 72.9361, -155.614
5.69798, 14, -47.9869, -15.1027, 37.5025, 28.9386, 73.1808, -154.959
5.70451, 15, -47.8929, -15.1654, 37.7059, 29.34, 73.4258, -154.306
5.71303, 15, -47.7957, -15.2262, 37.9056, 29.7421, 73.6698, -153.656
5.72003, 16, -47.6942, -15.2856, 38.1031, 30.1435, 73.9124, -153.008
5.72885, 16, -47.5873, -15.3455, 38.2986, 30.5437, 74.1524, -152.365
5.73648, 17, -47.4752, -15.4066, 38.4907, 30.942, 74.3893, -151.726
5.746, 17, -47.3583, -15.4688, 38.6799, 31.3378, 74.6216, -151.091
5.75266, 18, -47.2366, -15.5317, 38.8674, 31.7305, 74.8493, -150.464
5.76, 18, -47.1738, -15.5635, 38.9604, 31.9257, 74.9612, -150.153
5.76741, 19, -47.044, -15.6283, 39.144, 32.3139, 75.1805, -149.537
5.77532, 19, -46.9089, -15.6956, 39.3256, 32.6998, 75.3943, -148.928
5.78546, 20, -46.6963, -15.8007, 39.596, 33.2744, 75.7048, -148.028
5.79306, 20, -46.5485, -15.8739, 39.7735, 33.6549, 75.9054, -147.439
5.80174, 21, -46.3961, -15.9502, 39.9486, 34.0337, 76.1009, -146.856
5.80908, 21, -46.2391, -16.0294, 40.1222, 34.4104, 76.2911, -146.281
5.81813, 22, -46.0768, -16.111, 40.2939, 34.7843, 76.4758, -145.712
5.82333, 22, -45.9936, -16.1524, 40.3786, 34.9701, 76.5662, -145.431
5.83134, 23, -45.8228, -16.2365, 40.5456, 35.3389, 76.743, -144.873
5.83942, 23, -45.6457, -16.3225, 40.7101, 35.7034, 76.9139, -144.32
5.84733, 24, -45.462, -16.4103, 40.8718, 36.0636, 77.0797, -143.772
5.85532, 24, -45.2716, -16.4994, 41.0292, 36.4184, 77.24, -143.23
5.86523, 25, -44.974, -16.635, 41.2571, 36.9387, 77.4713, -142.424
5.8736, 25, -44.7675, -16.7264, 41.4036, 37.2776, 77.6197, -141.891
5.88033, 26, -44.6617, -16.7723, 41.475, 37.4443, 77.6922, -141.625
5.88792, 26, -44.4448, -16.8645, 41.6137, 37.7724, 77.834, -141.096
5.89769, 27, -44.1061, -17.0022, 41.811, 38.2503, 78.039, -140.306
5.90559, 27, -43.8719, -17.0932, 41.9351, 38.5587, 78.1707, -139.781
5.91133, 28, -43.7524, -17.1385, 41.9947, 38.7099, 78.2354, -139.519
5.91957, 28, -43.5081, -17.2281, 42.109, 39.0059, 78.3615, -138.996
5.92734, 29, -43.2573, -17.3164, 42.2165, 39.2934, 78.4847, -138.473
5.93641, 29, -43, -17.403, 42.317, 39.5725, 78.6047, -137.951
5.94342, 30, -42.7356, -17.4879, 42.4104, 39.8433, 78.7212, -137.429
5.95136, 30, -42.4625, -17.5708, 42.4965, 40.1054, 78.8352, -136.907
5.96213, 31, -42.0368, -17.6902, 42.6122, 40.4826, 79.0002, -136.127
5.97237, 32, -41.7435, -17.7668, 42.6806, 40.7236, 79.1073, -135.607
5.9801, 32, -41.4434, -17.8411, 42.7423, 40.956, 79.2114, -135.087
5.98441, 32, -41.2909, -17.8773, 42.7706, 41.069, 79.2625, -134.828
5.9947, 33, -40.8236, -17.9812, 42.8446, 41.3963, 79.4125, -134.052
6.00208, 33, -40.6646, -18.0142, 42.8657, 41.5013, 79.5089, -133.536
6.00844, 34, -40.342, -18.0782, 42.9024, 41.7051, 79.5562, -133.278
6.0154, 34, -40.0149, -18.1397, 42.9317, 41.9009, 79.6488, -132.763
6.02334, 35, -39.6827, -18.1982, 42.9539, 42.0889, 79.739, -132.249
6.03159, 35, -39.3445, -18.2532, 42.969, 42.2696, 79.8266, -131.737
6.03941, 36, -38.9992, -18.3049, 42.977, 42.4424, 79.9122, -131.225
6.04969, 36, -38.6464, -18.3532, 42.9784, 42.6076, 79.9957, -130.715
6.05545, 37, -38.2872, -18.3982, 42.9731, 42.7652, 80.0767, -130.206
6.06758, 38, -37.7375, -18.4589, 42.9522, 42.9875, 80.1951, -129.447
6.07233, 38, -37.5517, -18.4773, 42.9419, 43.058, 80.2332, -129.194
6.08072, 38, -37.1768, -18.5116, 42.9163, 43.1932, 80.3086, -128.69
6.08836, 39, -36.7974, -18.5426, 42.884, 43.321, 80.381, -128.188
6.09641, 39, -36.4136, -18.5698, 42.8449, 43.4416, 80.4521, -127.688
6.10346, 40, -36.0244, -18.5933, 42.7992, 43.5549, 80.521, -127.19
6.11204, 40, -35.629, -18.6128, 42.7471, 43.661, 80.5886, -126.693
6.12091, 41, -35.2278, -18.6284, 42.6883, 43.7598, 80.6536, -126.198
6.12831, 41, -34.8213, -18.6405, 42.6231, 43.8513, 80.7168, -125.706
6.13832, 42, -34.4109, -18.6492, 42.5515, 43.936, 80.7783, -125.216
6.14365, 42, -33.9974, -18.6547, 42.4736, 44.0135, 80.8372, -124.729
6.15234, 43, -33.5805, -18.657, 42.3895, 44.0835, 80.8954, -124.243
6.1604, 43, -33.1588, -18.6558, 42.2996, 44.147, 80.9508, -123.759
6.17262, 44, -32.5151, -18.6469, 42.154, 44.228, 81.0322, -123.04
6.17636, 44, -32.2972, -18.642, 42.1025, 44.2514, 81.0583, -122.801
6.18447, 45, -31.8569, -18.6294, 41.9952, 44.2932, 81.1088, -122.325
6.1935, 45, -31.4124, -18.6133, 41.8818, 44.3274, 81.1586, -121.851
6.20481, 46, -30.7416, -18.5828, 41.7006, 44.364, 81.229, -121.145
6.20843, 46, -30.517, -18.5708, 41.6373, 44.3723, 81.2515, -120.911
6.21643, 47, -30.0646, -18.5436, 41.5063, 44.3834, 81.2964, -120.444
6.22452, 47, -29.6068, -18.5119, 41.3693, 44.3878, 81.3403, -119.979
6.23205, 48, -29.1422, -18.4759, 41.2263, 44.3845, 81.3824, -119.516
6.24221, 48, -28.6714, -18.4356, 41.0771, 44.3722, 81.424, -119.055
6.24803, 49, -28.4341, -18.4138, 41.0004, 44.363, 81.4659, -118.596
6.25655, 49, -27.7185, -18.3417, 40.7612, 44.3211, 81.5067, -118.137
6.26459, 50, -27.2382, -18.2879, 40.5937, 44.2808, 81.5473, -117.68
6.27299, 50, -26.7535, -18.2286, 40.4195, 44.2321, 81.5892, -117.224
6.27929, 51, -26.5085, -18.1969, 40.3301, 44.2042, 81.6105, -116.996
6.28926, 51, -25.762, -18.0933, 40.0518, 44.1049, 81.674, -116.314
6.29532, 52, -25.5098, -18.0561, 39.9552, 44.0672, 81.6955, -116.087
6.30503, 52, -24.7487, -17.9364, 39.6553, 43.9374, 81.7622, -115.408
6.31131, 53, -24.4939, -17.8939, 39.5524, 43.8891, 81.7846, -115.181
6.32337, 54, -23.7241, -17.7573, 39.2324, 43.7293, 81.8527, -114.503
6.32971, 54, -23.2029, -17.6584, 39.0098, 43.6095, 81.901, -114.051
6.33703, 54, -22.6732, -17.5534, 38.7806, 43.479, 81.9505, -113.6
6.34403, 55, -22.4056, -17.4985, 38.6632, 43.4095, 81.9759, -113.374
6.35437, 56, -21.5972, -17.3248, 38.2997, 43.1831, 82.057, -112.696
6.36579, 56, -21.055, -17.2017, 38.0496, 42.9306, 82.141, -112.019
6.36779, 56, -20.7825, -17.1381, 37.9216, 42.9306, 82.141, -112.019
6.37991, 57, -19.9531, -16.939, 37.5281, 42.6522, 82.23, -111.343
6.3843, 57, -19.672, -16.8698, 37.3937, 42.5535, 82.2601, -111.118
6.39479, 58, -18.818, -16.6529, 36.9799, 42.2385, 82.3546, -110.443
6.40038, 58, -18.5316, -16.5776, 36.8391, 42.1272, 82.3867, -110.218
6.40841, 59, -17.9571, -16.4231, 36.5522, 41.8954, 82.4529, -109.769
6.4153, 59, -17.3784, -16.264, 36.2589, 41.6511, 82.5219, -109.319
6.42635, 60, -16.4928, -16.0164, 35.8075, 41.2608, 82.629, -108.646
6.43157, 60, -16.1927, -15.931, 35.6546, 41.1243, 82.6656, -108.421
6.4431, 61, -15.2859, -15.668, 35.1876, 40.6948, 82.7778, -107.748
6.44733, 61, -14.9823, -15.5782, 35.0291, 40.5454, 82.8163, -107.524
6.45781, 62, -14.0636, -15.3019, 34.5451, 40.078, 82.9352, -106.851
6.46606, 62, -13.4393, -15.1103, 34.2165, 39.7496, 83.0176, -106.402
6.47303, 63, -13.1234, -15.0119, 34.0501, 39.5797, 83.0601, -106.177
6.48031, 63, -12.4859, -14.8108, 33.7131, 39.2286, 83.1473, -105.727
6.48774, 64, -11.8438, -14.605, 33.3705, 38.8624, 83.2388, -105.277
6.50016, 65, -10.8708, -14.2842, 32.8447, 38.2851, 83.3838, -104.598
6.50437, 65, -10.5413, -14.1733, 32.6661, 38.0851, 83.4345, -104.371
6.51137, 65, -9.87465, -13.9465, 32.3051, 37.6732, 83.5396, -103.915
6.52032, 66, -9.19919, -13.7133, 31.9392, 37.2446, 83.6503, -103.458
6.53158, 67, -8.1751, -13.3499, 31.3799, 36.5719, 83.827, -102.768
6.53633, 67, -7.83027, -13.2252, 31.1899, 36.3394, 83.889, -102.537
6.54724, 68, -6.78024, -12.8398, 30.6116, 35.617, 84.0857, -101.84
6.55134, 68, -6.42559, -12.7077, 30.4167, 35.368, 84.1547, -101.606
6.56122, 68, -5.71073, -12.4389, 30.0239, 34.8588, 84.2978, -101.137
6.56757, 69, -4.9898, -12.1627, 29.627, 34.3348, 84.4473, -100.666
6.57707, 69, -4.26156, -11.8782, 29.2263, 33.7965, 84.6033, -100.193
6.58342, 70, -3.52454, -11.5868, 28.8242, 33.2446, 84.7656, -99.717
6.59455, 71, -2.77936, -11.2871, 28.4207, 32.6773, 84.935, -99.2386
6.60039, 71, -2.0264, -10.9792, 28.0143, 32.0953, 85.1121, -98.7584
6.60873, 72, -1.2652, -10.6641, 27.6045, 31.4986, 85.2971, -98.275
6.621, 72, -0.111048, -10.1815, 26.9857, 30.573, 85.5917, -97.5445
6.62435, 72, 0.276705, -10.0174, 26.7788, 30.2576, 85.6941, -97.2996
6.63425, 73, 1.05634, -9.68255, 26.3656, 29.6198, 85.9043, -96.8085
6.6404, 73, 1.84095, -9.34043, 25.9536, 28.9723, 86.1212, -96.3159
6.64962, 74, 2.6286, -8.99291, 25.5444, 28.3171, 86.3448, -95.821
6.65743, 75, 3.41877, -8.6414, 25.1393, 27.6555, 86.5745, -95.3244
6.67009, 75, 4.6101, -8.10102, 24.5408, 26.6543, 86.9298, -94.5774
6.67278, 75, 5.00878, -7.91745, 24.3435, 26.3196, 87.0515, -94.3279
6.68008, 76, 5.8071, -7.54512, 23.9519, 25.6472, 87.3, -93.827
6.68802, 76, 6.60607, -7.16695, 23.565, 24.9711, 87.5566, -93.324
6.70536, 78, 8.2085, -6.3859, 22.7998, 23.6095, 88.0995, -92.3112
6.70791, 78, 8.60959, -6.18536, 22.61, 23.2666, 88.2422, -92.0566
6.72065, 78, 9.81154, -5.57193, 22.0471, 22.2325, 88.6876, -91.2872
6.72396, 79, 10.2118, -5.36274, 21.8613, 21.8867, 88.8417, -91.0289
6.72827, 79, 10.6119, -5.15126, 21.6767, 21.5409, 88.9985, -90.7695
6.73681, 79, 11.4109, -4.72065, 21.3104, 20.8509, 89.3203, -90.2479
6.74424, 80, 12.206, -4.2806, 20.9498, 20.162, 89.6521, -89.7224
6.75121, 80, 12.6016, -4.05697, 20.7716, 19.8191, 89.822, -89.4575
6.75918, 81, 13.3885, -3.60369, 20.4196, 19.1398, 90.1688, -88.9244
6.76828, 81, 14.5573, -2.90994, 19.9039, 18.1393, 90.7054, -88.1163
6.77527, 82, 14.9429, -2.67475, 19.7361, 17.8114, 90.8879, -87.8455
6.78443, 82, 16.0848, -1.95719, 19.2467, 16.8484, 91.446, -87.0284
6.79116, 83, 16.4601, -1.71444, 19.0882, 16.5352, 91.6351, -86.7546
6.80059, 83, 17.5679, -0.97659, 18.6265, 15.6238, 92.2118, -85.9307
6.80715, 84, 17.9301, -0.727645, 18.4769, 15.3287, 92.4069, -85.6558
6.81667, 84, 18.9912, 0.0263293, 18.0415, 14.4745, 93.0026, -84.8297
6.82525, 85, 19.6778, 0.535382, 17.7594, 13.9307, 93.4089, -84.2786
6.83116, 85, 20.0149, 0.791825, 17.6208, 13.6669, 93.6151, -84.0032
6.84155, 86, 21.001, 1.56796, 17.2138, 12.9086, 94.2411, -83.1797
6.84715, 86, 21.3215, 1.82894, 17.0812, 12.6668, 94.4521, -82.9054
6.85763, 86, 21.9511, 2.35592, 16.8215, 11.9751, 95.0926, -82.0815
6.86324, 87, 22.5671, 2.8919, 16.5676, 11.7556, 95.3089, -81.806
6.87221, 87, 23.172, 3.43747, 16.319, 11.3309, 95.7458, -81.2529
6.87916, 88, 23.7671, 3.99073, 16.075, 10.9249, 96.1887, -80.6954
6.88722, 88, 24.3522, 4.55134, 15.8351, 10.5352, 96.637, -80.1301
6.89518, 89, 24.9256, 5.12189, 15.6015, 10.1614, 97.0917, -79.556
6.90319, 89, 25.4877, 5.70335, 15.3732, 9.80315, 97.5525, -78.9714
6.91122, 90, 26.0424, 6.29434, 15.1479, 9.46056, 98.0191, -78.3749
6.91915, 90, 26.5904, 6.89367, 14.9267, 9.13258, 98.4921, -77.7646
6.92723, 91, 27.1269, 7.50111, 14.7106, 8.82176, 98.9715, -77.1405
6.93521, 91, 27.6492, 8.11816, 14.4992, 8.52887, 99.457, -76.5044
6.94321, 92, 28.1595, 8.74575, 14.2921, 8.25629, 99.9479, -75.8564
6.95116, 92, 28.6619, 9.38408, 14.0895, 8.00556, 100.443, -75.1982
6.95922, 93, 29.157, 10.0313, 13.892, 7.77694, 100.941, -74.5331
6.96716, 93, 29.6407, 10.6849, 13.7012, 7.57167, 101.44, -73.861
6.9752, 94, 30.111, 11.3431, 13.5185, 7.3898, 101.939, -73.1817
6.98322, 94, 30.5669, 12.0049, 13.3429, 7.23154, 102.435, -72.4971
6.99115, 95, 31.0088, 12.669, 13.1743, 7.09699, 102.928, -71.8083
6.99924, 95, 31.4369, 13.3349, 13.0135, 6.98638, 103.419, -71.1131
7.00723, 96, 31.851, 14.0026, 12.8603, 6.89888, 103.905, -70.4126
7.0152, 96, 32.2497, 14.6709, 12.7135, 6.83596, 104.388, -69.7075
7.02315, 97, 32.6322, 15.3397, 12.5732, 6.79583, 104.866, -68.9961
7.03122, 97, 32.9988, 16.008, 12.4403, 6.77676, 105.339, -68.2793
7.03917, 98, 33.3495, 16.6742, 12.3157, 6.77968, 105.806, -67.5602
7.04729, 98, 33.6859, 17.3373, 12.1997, 6.80438, 106.264, -66.837
7.05526, 99, 34.0084, 17.9957, 12.0928, 6.84876, 106.714, -66.1119
7.06326, 99, 34.3181, 18.6476, 11.9952, 6.91342, 107.151, -65.3886
7.07154, 100, 34.6165, 19.2915, 11.9065, 6.99581, 107.578, -64.666
7.07925, 100, 34.9034, 19.9271, 11.8265, 7.09597, 107.991, -63.9457
7.08732, 101, 35.1783, 20.5519, 11.7549, 7.21218, 108.39, -63.2321
7.09534, 101, 35.4415, 21.1661, 11.6914, 7.34345, 108.775, -62.5241
7.10322, 102, 35.6936, 21.7686, 11.6365, 7.48803, 109.144, -61.8237
7.11132, 102, 35.9334, 22.3587, 11.59, 7.64447, 109.495, -61.1346
7.11915, 102, 36.1613, 22.9351, 11.5523, 7.81104, 109.829, -60.4567
7.12809, 103, 36.3803, 23.496, 11.5233, 7.98675, 110.145, -59.79
7.1353, 103, 36.5921, 24.0406, 11.5034, 8.17132, 110.443, -59.1365
7.14338, 104, 36.7965, 24.5692, 11.4924, 8.36501, 110.721, -58.4965
7.15129, 104, 36.9935, 25.0818, 11.4889, 8.56778, 110.978, -57.8679
7.15946, 104, 37.1844, 25.578, 11.4922, 8.7788, 111.216, -57.2523
7.16743, 104, 37.368, 26.0578, 11.5016, 8.99654, 111.433, -56.6507
7.17553, 104, 37.5424, 26.5209, 11.5153, 9.21904, 111.632, -56.0637
7.18364, 104, 37.7079, 26.9675, 11.5318, 9.44416, 111.815, -55.4934
7.19255, 104, 37.867, 27.3987, 11.5511, 9.66904, 111.984, -54.9421
7.19966, 104, 38.0213, 27.8138, 11.572, 9.89132, 112.142, -54.4132
7.20832, 104, 38.1704, 28.2122, 11.593, 10.1094, 112.291, -53.9069
7.21574, 104, 38.3132, 28.5936, 11.6137, 10.3222, 112.431, -53.424
7.22426, 104, 38.4493, 28.9584, 11.6331, 10.5283, 112.564, -52.9653
7.23177, 104, 38.5146, 29.1339, 11.6514, 10.7271, 112.688, -52.5308
7.24123, 104, 38.6984, 29.6332, 11.6686, 10.9177, 112.805, -52.1218
7.24786, 104, 38.7555, 29.7899, 11.6767, 11.0096, 112.861, -51.7374
7.25629, 104, 38.9145, 30.2323, 11.6994, 11.2715, 113.017, -51.378
7.26316, 104, 38.9636, 30.3705, 11.7065, 11.3539, 113.065, -51.2079
7.27229, 104, 39.0991, 30.7549, 11.7259, 11.5853, 113.198, -50.7359
7.27914, 104, 39.1403, 30.8733, 11.7317, 11.6571, 113.239, -50.5911
7.28855, 104, 39.2522, 31.1989, 11.7476, 11.8555, 113.35, -50.1946
7.29526, 104, 39.2856, 31.2973, 11.7525, 11.9159, 113.383, -50.075
7.30461, 104, 39.3744, 31.5637, 11.7658, 12.0795, 113.473, -49.7543
7.31266, 104, 39.4246, 31.7169, 11.7734, 12.1733, 113.524, -49.5718
7.32069, 104, 39.4684, 31.8512, 11.7802, 12.2553, 113.567, -49.414
7.32872, 104, 39.5066, 31.9676, 11.7865, 12.3248, 113.604, -49.28
7.33694, 104, 39.5387, 32.0672, 11.792, 12.3835, 113.634, -49.1694
7.34498, 104, 39.5652, 32.1506, 11.7969, 12.4298, 113.659, -49.0801
7.35114, 104, 39.5766, 32.1868, 11.7991, 12.449, 113.669, -49.043
7.36071, 104, 39.5958, 32.2491, 11.8033, 12.4935, 113.691, -48.9593
7.36905, 104, 39.6168, 32.3205, 11.8089, 12.5134, 113.701, -48.9226
7.37522, 104, 39.6221, 32.339, 11.8106, 12.5211, 113.704, -48.9088
7.38417, 104, 39.6306, 32.3687, 11.8137, 12.5324, 113.709, -48.8888
7.3912, 104, 39.6368, 32.391, 11.8164, 12.5396, 113.712, -48.8766
7.39913, 104, 39.6409, 32.4076, 11.8187, 12.5438, 113.714, -48.87
7.40718, 104, 39.6433, 32.4189, 11.8205, 12.5461, 113.714, -48.8669
7.41527, 104, 39.6445, 32.4261, 11.8218, 12.5472, 113.715, -48.8654
7.42313, 105, 39.6446, 32.4306, 11.8229, 12.5478, 113.715, -48.8649
7.43117, 105, 39.6438, 32.4336, 11.8238, 12.548, 113.715, -48.8647
7.43926, 105, 39.6427, 32.4357, 11.8246, 12.5482, 113.715, -48.8649
7.44715, 105, 39.6417, 32.4373, 11.8252, 12.5482, 113.715, -48.8652
7.45519, 105, 39.6407, 32.4386, 11.8258, 12.5483, 113.715, -48.8655
7.4632, 105, 39.6396, 32.4398, 11.8264, 12.5483, 113.715, -48.8658
7.47113, 105, 39.6389, 32.4409, 11.827, 12.5483, 113.715, -48.8662
7.47914, 105, 39.6384, 32.442, 11.8275, 12.5483, 113.715, -48.8665
7.48721, 105, 39.6381, 32.4431, 11.8281, 12.5483, 113.715, -48.8668
7.4952, 105, 39.6379, 32.4441, 11.8286, 12.5483, 113.715, -48.8671
7.50313, 105, 39.6376, 32.4449, 11.829, 12.5484, 113.715, -48.8674
7.51121, 105, 39.6373, 32.4455, 11.8293, 12.5483, 113.715, -48.8676
7.51911, 105, 39.637, 32.4459, 11.8297, 12.5483, 113.715, -48.8679
7.52715, 105, 39.6367, 32.4461, 11.8299, 12.5483, 113.715, -48.8681
7.53526, 105, 39.6364, 32.4462, 11.8301, 12.5482, 113.715, -48.8683
