MoveAbsJ [[35.953105655163725,10.299017781006286,29.771508694205288,91.97702887095228,-51.18976198783739,52.563891251562005],[9E+09,9E+09,9E+09,9E+09,9E+09,9E+09]],v500,z1,Paintgun;
MoveC [[2312.7056889,950.72156218,700.04063677],[0.2903839213778441,0.6534962085504112,0.42243056606498147,0.5569311451781833],[1,2,1,0],[9E+09,9E+09,9E+09,9E+09,9E+09,9E+09]],[[2279.81585015,810.29024121,676.48787221],[0.49550939780166126,0.6235466545180437,0.4380010973257116,0.41691131559489125],[1,1,1,0],[9E+09,9E+09,9E+09,9E+09,9E+09,9E+09]],v500,z1,Paintgun;
MoveC [[2244.92290947,696.23990648,675.7311713],[0.49550939780166126,0.6235466545180437,0.4380010973257116,0.41691131559489125],[1,1,1,0],[9E+09,9E+09,9E+09,9E+09,9E+09,9E+09]],[[2205.82242816,584.31732704,687.84135988],[0.5878459773495169,0.5617344004927599,0.45083746316867007,0.36828949485515977],[1,1,1,0],[9E+09,9E+09,9E+09,9E+09,9E+09,9E+09]],v500,z1,Paintgun;
MoveC [[2205.4756458,583.31722306,687.87420656],[0.5878459773495169,0.5617344004927599,0.45083746316867007,0.36828949485515977],[1,1,1,0],[9E+09,9E+09,9E+09,9E+09,9E+09,9E+09]],[[2205.29726065,582.30126624,687.98438748],[0.5874168064758147,0.5623815037099716,0.4491959964173755,0.36998850868272604],[1,1,1,0],[9E+09,9E+09,9E+09,9E+09,9E+09,9E+09]],v500,z1,Paintgun;
MoveC [[2181.2663378,514.42654569,696.44242522],[0.5874168064758147,0.5623815037099716,0.4491959964173755,0.36998850868272604],[1,1,1,0],[9E+09,9E+09,9E+09,9E+09,9E+09,9E+09]],[[2157.76920871,447.09692301,708.93491551],[0.6175141397398164,0.5227954641956428,0.44764374561668313,0.3807574908627842],[1,1,1,0],[9E+09,9E+09,9E+09,9E+09,9E+09,9E+09]],v500,z1,Paintgun;
MoveC [[2157.53504313,446.25444214,708.94309654],[0.6175141397398164,0.5227954641956428,0.44764374561668313,0.3807574908627842],[1,1,1,0],[9E+09,9E+09,9E+09,9E+09,9E+09,9E+09]],[[2157.44990865,445.42913067,708.971163],[0.617573165698712,0.5226164308346967,0.4473109293792217,0.38129828702522484],[1,1,1,0],[9E+09,9E+09,9E+09,9E+09,9E+09,9E+09]],v500,z1,Paintgun;
MoveC [[2133.82134558,375.89004998,720.79970171],[0.617573165698712,0.5226164308346967,0.4473109293792217,0.38129828702522484],[1,1,1,0],[9E+09,9E+09,9E+09,9E+09,9E+09,9E+09]],[[2111.6067933,305.9269522,732.86558577],[0.625311425864584,0.4942743536301242,0.4380215110729143,0.41571100522373045],[1,1,1,0],[9E+09,9E+09,9E+09,9E+09,9E+09,9E+09]],v500,z1,Paintgun;
MoveC [[2111.17413457,304.72904913,732.95881583],[0.625311425864584,0.4942743536301242,0.4380215110729143,0.41571100522373045],[1,1,1,0],[9E+09,9E+09,9E+09,9E+09,9E+09,9E+09]],[[2111.0013482,303.48376536,733.06376791],[0.6256045177874281,0.4934484980982195,0.4382160236451305,0.4160460114809676],[1,1,1,0],[9E+09,9E+09,9E+09,9E+09,9E+09,9E+09]],v500,z1,Paintgun;
MoveC [[2102.15962097,270.59780076,737.35041045],[0.6256045177874281,0.4934484980982195,0.4382160236451305,0.4160460114809676],[1,1,1,0],[9E+09,9E+09,9E+09,9E+09,9E+09,9E+09]],[[2092.1234977,238.2138849,742.69791923],[0.6220435320602064,0.4824470622242445,0.4305578808380341,0.441504912341324],[1,1,1,0],[9E+09,9E+09,9E+09,9E+09,9E+09,9E+09]],v500,z1,Paintgun;
MoveC [[2091.91340421,237.33633581,742.53741679],[0.6220435320602064,0.4824470622242445,0.4305578808380341,0.441504912341324],[1,1,1,0],[9E+09,9E+09,9E+09,9E+09,9E+09,9E+09]],[[2091.97596367,236.48778747,742.38955751],[0.6210664368549795,0.48296470477862646,0.42942988627011336,0.44340900727025323],[1,1,1,0],[9E+09,9E+09,9E+09,9E+09,9E+09,9E+09]],v500,z1,Paintgun;
MoveC [[2065.84609045,119.82760242,752.31472022],[0.6210664368549795,0.48296470477862646,0.42942988627011336,0.44340900727025323],[1,1,1,0],[9E+09,9E+09,9E+09,9E+09,9E+09,9E+09]],[[2049.79305,0.955637939,750.692335],[0.5667138755472622,0.45273666968084036,0.3732746334684053,0.5783864963824206],[1,1,1,0],[9E+09,9E+09,9E+09,9E+09,9E+09,9E+09]],v500,z1,Paintgun;
MoveC [[2048.60496541,-15.86367939,748.91228252],[0.5667138755472622,0.45273666968084036,0.3732746334684053,0.5783864963824206],[1,1,1,0],[9E+09,9E+09,9E+09,9E+09,9E+09,9E+09]],[[2047.76432524,-32.71419182,747.23213249],[0.5438598131338331,0.4547703074231096,0.35321250055094794,0.6104436096797716],[1,1,1,0],[9E+09,9E+09,9E+09,9E+09,9E+09,9E+09]],v500,z1,Paintgun;
MoveC [[2047.70131454,-33.89414383,746.94318385],[0.5438598131338331,0.4547703074231096,0.35321250055094794,0.6104436096797716],[1,1,1,0],[9E+09,9E+09,9E+09,9E+09,9E+09,9E+09]],[[2047.84760862,-34.94924938,746.70600418],[0.5448278187712561,0.45343940746903444,0.3535700088546027,0.6103634986511255],[1,1,1,0],[9E+09,9E+09,9E+09,9E+09,9E+09,9E+09]],v500,z1,Paintgun;
MoveC [[2049.80502999,-109.9468112,730.86523464],[0.5448278187712561,0.45343940746903444,0.3535700088546027,0.6103634986511255],[1,1,1,0],[9E+09,9E+09,9E+09,9E+09,9E+09,9E+09]],[[2058.39231505,-182.21553803,707.0484116],[0.4736551857063957,0.43528189993908656,0.26395191751866853,0.7186861748197727],[1,1,2,0],[9E+09,9E+09,9E+09,9E+09,9E+09,9E+09]],v500,z1,Paintgun;
MoveC [[2079.59286719,-262.33755605,665.68036537],[0.4736551857063957,0.43528189993908656,0.26395191751866853,0.7186861748197727],[1,1,2,0],[9E+09,9E+09,9E+09,9E+09,9E+09,9E+09]],[[2110.82046807,-332.65412604,614.09809569],[0.40071514644753964,0.39716893297054695,0.0786628574420738,0.821885858832972],[0,1,2,0],[9E+09,9E+09,9E+09,9E+09,9E+09,9E+09]],v500,z1,Paintgun;
MoveC [[2138.65949942,-378.1125104,572.6515971],[0.40071514644753964,0.39716893297054695,0.0786628574420738,0.821885858832972],[0,1,2,0],[9E+09,9E+09,9E+09,9E+09,9E+09,9E+09]],[[2169.47882808,-419.16407299,528.78559494],[0.3869693559409812,0.36326386794823295,-0.0685812699705047,0.8447429722792275],[0,1,2,0],[9E+09,9E+09,9E+09,9E+09,9E+09,9E+09]],v500,z1,Paintgun;
MoveC [[2187.39973708,-444.18647984,502.22166317],[0.3869693559409812,0.36326386794823295,-0.0685812699705047,0.8447429722792275],[0,1,2,0],[9E+09,9E+09,9E+09,9E+09,9E+09,9E+09]],[[2208.2463249,-465.06812706,474.39728919],[0.3704058616563075,0.3336266888092204,-0.14024248836272868,0.8554675766051416],[0,1,2,0],[9E+09,9E+09,9E+09,9E+09,9E+09,9E+09]],v500,z1,Paintgun;
MoveC [[2212.42725694,-469.51542896,468.7204033],[0.3704058616563075,0.3336266888092204,-0.14024248836272868,0.8554675766051416],[0,1,2,0],[9E+09,9E+09,9E+09,9E+09,9E+09,9E+09]],[[2216.60084952,-473.97388591,463.19918606],[0.3746240648092644,0.3241841837259662,-0.15310351366044292,0.8550559859988933],[0,1,2,0],[9E+09,9E+09,9E+09,9E+09,9E+09,9E+09]],v500,z1,Paintgun;

