MoveAbsJ [[35.953188161086224,10.302016642106,29.77008775887337,91.97581190859542,-51.189770582204325,52.565917803283384],[9E+09,9E+09,9E+09,9E+09,9E+09,9E+09]],v500,z1,Paintgun;
MoveC [[2312.7056889,950.72156218,700.04063677],[0.2903839213778441,0.6534962085504112,0.4224305660649816,0.5569311451781833],[1,2,1,0],[9E+09,9E+09,9E+09,9E+09,9E+09,9E+09]],[[2279.81585015,810.29024121,676.48787221],[0.49550939780166126,0.6235466545180437,0.43800109732571146,0.41691131559489125],[1,1,1,0],[9E+09,9E+09,9E+09,9E+09,9E+09,9E+09]],v500,z1,Paintgun;
MoveC [[2244.92290947,696.23990648,675.7311713],[0.49550939780166126,0.6235466545180437,0.43800109732571146,0.41691131559489125],[1,1,1,0],[9E+09,9E+09,9E+09,9E+09,9E+09,9E+09]],[[2205.82242816,584.31732704,687.84135988],[0.587845977349517,0.5617344004927598,0.4508374631686699,0.3682894948551598],[1,1,1,0],[9E+09,9E+09,9E+09,9E+09,9E+09,9E+09]],v500,z1,Paintgun;
MoveC [[2205.47564125,583.31722408,687.87422392],[0.587845977349517,0.5617344004927598,0.4508374631686699,0.3682894948551598],[1,1,1,0],[9E+09,9E+09,9E+09,9E+09,9E+09,9E+09]],[[2205.29723015,582.30126813,687.98441374],[0.5874168064758147,0.5623815037099716,0.4491959964173755,0.36998850868272604],[1,1,1,0],[9E+09,9E+09,9E+09,9E+09,9E+09,9E+09]],v500,z1,Paintgun;
MoveC [[2181.26630606,514.42655052,696.44241967],[0.5874168064758147,0.5623815037099716,0.4491959964173755,0.36998850868272604],[1,1,1,0],[9E+09,9E+09,9E+09,9E+09,9E+09,9E+09]],[[2157.76918242,447.09693705,708.93493484],[0.6175141397398164,0.5227954641956428,0.44764374561668313,0.38075749086278426],[1,1,1,0],[9E+09,9E+09,9E+09,9E+09,9E+09,9E+09]],v500,z1,Paintgun;
MoveC [[2157.53503033,446.25444985,708.94311123],[0.6175141397398164,0.5227954641956428,0.44764374561668313,0.38075749086278426],[1,1,1,0],[9E+09,9E+09,9E+09,9E+09,9E+09,9E+09]],[[2157.44990355,445.42913968,708.97117316],[0.6175731656987119,0.5226164308346967,0.4473109293792218,0.38129828702522495],[1,1,1,0],[9E+09,9E+09,9E+09,9E+09,9E+09,9E+09]],v500,z1,Paintgun;
MoveC [[2133.82134572,375.89005455,720.79971255],[0.6175731656987119,0.5226164308346967,0.4473109293792218,0.38129828702522495],[1,1,1,0],[9E+09,9E+09,9E+09,9E+09,9E+09,9E+09]],[[2111.60678907,305.92695546,732.86559696],[0.625311425864584,0.4942743536301242,0.4380215110729144,0.4157110052237305],[1,1,1,0],[9E+09,9E+09,9E+09,9E+09,9E+09,9E+09]],v500,z1,Paintgun;
MoveC [[2111.17413243,304.72905149,732.95882516],[0.625311425864584,0.4942743536301242,0.4380215110729144,0.4157110052237305],[1,1,1,0],[9E+09,9E+09,9E+09,9E+09,9E+09,9E+09]],[[2111.00134795,303.48376793,733.06377519],[0.625604517787428,0.4934484980982195,0.43821602364513057,0.4160460114809677],[1,1,1,0],[9E+09,9E+09,9E+09,9E+09,9E+09,9E+09]],v500,z1,Paintgun;
MoveC [[2102.15962645,270.59780052,737.35041259],[0.625604517787428,0.4934484980982195,0.43821602364513057,0.4160460114809677],[1,1,1,0],[9E+09,9E+09,9E+09,9E+09,9E+09,9E+09]],[[2092.12349741,238.21388667,742.69792636],[0.6220435320602062,0.4824470622242446,0.43055788083803415,0.44150491234132405],[1,1,1,0],[9E+09,9E+09,9E+09,9E+09,9E+09,9E+09]],v500,z1,Paintgun;
MoveC [[2091.91340639,237.33633626,742.53741598],[0.6220435320602062,0.4824470622242446,0.43055788083803415,0.44150491234132405],[1,1,1,0],[9E+09,9E+09,9E+09,9E+09,9E+09,9E+09]],[[2091.97597105,236.48778901,742.38954949],[0.6210664368549795,0.48296470477862646,0.42942988627011336,0.44340900727025323],[1,1,1,0],[9E+09,9E+09,9E+09,9E+09,9E+09,9E+09]],v500,z1,Paintgun;
MoveC [[2065.84609014,119.82760444,752.31472082],[0.6210664368549795,0.48296470477862646,0.42942988627011336,0.44340900727025323],[1,1,1,0],[9E+09,9E+09,9E+09,9E+09,9E+09,9E+09]],[[2049.79305,0.955637853,750.692334],[0.5667138755472622,0.45273666968084036,0.37327463346840517,0.5783864963824205],[1,1,1,0],[9E+09,9E+09,9E+09,9E+09,9E+09,9E+09]],v500,z1,Paintgun;
MoveC [[2048.60496563,-15.86367929,748.9122808],[0.5667138755472622,0.45273666968084036,0.37327463346840517,0.5783864963824205],[1,1,1,0],[9E+09,9E+09,9E+09,9E+09,9E+09,9E+09]],[[2047.76432642,-32.71419172,747.23213103],[0.543859813133833,0.4547703074231096,0.3532125005509479,0.6104436096797716],[1,1,1,0],[9E+09,9E+09,9E+09,9E+09,9E+09,9E+09]],v500,z1,Paintgun;
MoveC [[2047.70131555,-33.89414395,746.94318334],[0.543859813133833,0.4547703074231096,0.3532125005509479,0.6104436096797716],[1,1,1,0],[9E+09,9E+09,9E+09,9E+09,9E+09,9E+09]],[[2047.84760858,-34.94924998,746.70600431],[0.5448278187712561,0.45343940746903444,0.3535700088546027,0.6103634986511254],[1,1,1,0],[9E+09,9E+09,9E+09,9E+09,9E+09,9E+09]],v500,z1,Paintgun;
MoveC [[2049.8050301,-109.94681148,730.86523463],[0.5448278187712561,0.45343940746903444,0.3535700088546027,0.6103634986511254],[1,1,1,0],[9E+09,9E+09,9E+09,9E+09,9E+09,9E+09]],[[2058.39231513,-182.21553805,707.04841167],[0.4736551857063957,0.43528189993908656,0.2639519175186686,0.7186861748197727],[1,1,2,0],[9E+09,9E+09,9E+09,9E+09,9E+09,9E+09]],v500,z1,Paintgun;
MoveC [[2079.59286726,-262.33755606,665.68036544],[0.4736551857063957,0.43528189993908656,0.2639519175186686,0.7186861748197727],[1,1,2,0],[9E+09,9E+09,9E+09,9E+09,9E+09,9E+09]],[[2110.82046815,-332.65412605,614.09809575],[0.4007151464475396,0.397168932970547,0.07866285744207378,0.8218858588329719],[0,1,2,0],[9E+09,9E+09,9E+09,9E+09,9E+09,9E+09]],v500,z1,Paintgun;
MoveC [[2138.65949946,-378.11251042,572.65159714],[0.4007151464475396,0.397168932970547,0.07866285744207378,0.8218858588329719],[0,1,2,0],[9E+09,9E+09,9E+09,9E+09,9E+09,9E+09]],[[2169.47882814,-419.164073,528.78559499],[0.3869693559409812,0.36326386794823295,-0.06858126997050451,0.8447429722792275],[0,1,2,0],[9E+09,9E+09,9E+09,9E+09,9E+09,9E+09]],v500,z1,Paintgun;
MoveC [[2187.39973713,-444.18647986,502.22166323],[0.3869693559409812,0.36326386794823295,-0.06858126997050451,0.8447429722792275],[0,1,2,0],[9E+09,9E+09,9E+09,9E+09,9E+09,9E+09]],[[2208.24632495,-465.06812708,474.39728924],[0.3704058616563075,0.3336266888092204,-0.14024248836272868,0.8554675766051416],[0,1,2,0],[9E+09,9E+09,9E+09,9E+09,9E+09,9E+09]],v500,z1,Paintgun;
MoveC [[2212.42725696,-469.51542892,468.72040328],[0.3704058616563075,0.3336266888092204,-0.14024248836272868,0.8554675766051416],[0,1,2,0],[9E+09,9E+09,9E+09,9E+09,9E+09,9E+09]],[[2216.60084957,-473.97388592,463.19918611],[0.3746240648092646,0.3241841837259663,-0.15310351366044272,0.8550559859988932],[0,1,2,0],[9E+09,9E+09,9E+09,9E+09,9E+09,9E+09]],v500,z1,Paintgun;