hehonglu123/Motion-Primitive-Planning/simulation/roboguide/traj_test/data/curve_js_100_exe.csv
timestamp,J1,J2,J3,J4,J5,J6
 0,  24.9667,  11.7652, -31.4170, -44.8040,  35.3501,  32.1385
 8,  24.9667,  11.7652, -31.4170, -44.8040,  35.3501,  32.1385
 16,  24.9667,  11.7652, -31.4170, -44.8039,  35.3501,  32.1385
 24,  24.9666,  11.7652, -31.4171, -44.8037,  35.3501,  32.1383
 40,  24.9656,  11.7648, -31.4185, -44.8002,  35.3513,  32.1353
 48,  24.9656,  11.7648, -31.4185, -44.8002,  35.3513,  32.1353
 56,  24.9648,  11.7645, -31.4195, -44.7975,  35.3522,  32.1330
 64,  24.9636,  11.7640, -31.4210, -44.7936,  35.3534,  32.1298
 72,  24.9621,  11.7634, -31.4230, -44.7885,  35.3551,  32.1254
 80,  24.9601,  11.7626, -31.4255, -44.7820,  35.3572,  32.1199
 88,  24.9577,  11.7616, -31.4287, -44.7738,  35.3598,  32.1130
 96,  24.9547,  11.7604, -31.4326, -44.7639,  35.3631,  32.1045
 104,  24.9512,  11.7590, -31.4373, -44.7519,  35.3669,  32.0943
 112,  24.9469,  11.7574, -31.4428, -44.7378,  35.3715,  32.0824
 120,  24.9420,  11.7554, -31.4492, -44.7213,  35.3768,  32.0684
 128,  24.9363,  11.7531, -31.4566, -44.7023,  35.3830,  32.0523
 136,  24.9298,  11.7506, -31.4650, -44.6806,  35.3901,  32.0338
 144,  24.9225,  11.7477, -31.4746, -44.6560,  35.3981,  32.0130
 152,  24.9142,  11.7444, -31.4854, -44.6283,  35.4071,  31.9895
 168,  24.8833,  11.7322, -31.5255, -44.5252,  35.4407,  31.9021
 176,  24.8833,  11.7322, -31.5255, -44.5252,  35.4407,  31.9021
 184,  24.8708,  11.7273, -31.5417, -44.4836,  35.4543,  31.8668
 192,  24.8571,  11.7220, -31.5594, -44.4383,  35.4692,  31.8284
 200,  24.8424,  11.7162, -31.5784, -44.3893,  35.4852,  31.7869
 208,  24.8266,  11.7101, -31.5988, -44.3370,  35.5024,  31.7426
 216,  24.8099,  11.7036, -31.6204, -44.2815,  35.5207,  31.6955
 224,  24.7922,  11.6967, -31.6432, -44.2229,  35.5401,  31.6459
 232,  24.7736,  11.6896, -31.6671, -44.1616,  35.5604,  31.5940
 240,  24.7542,  11.6821, -31.6920, -44.0976,  35.5816,  31.5398
 248,  24.7341,  11.6744, -31.7179, -44.0311,  35.6037,  31.4835
 256,  24.7132,  11.6664, -31.7446, -43.9624,  35.6266,  31.4254
 264,  24.6917,  11.6582, -31.7722, -43.8916,  35.6503,  31.3654
 272,  24.6695,  11.6498, -31.8005, -43.8189,  35.6746,  31.3039
 280,  24.6468,  11.6412, -31.8295, -43.7444,  35.6996,  31.2410
 296,  24.5758,  11.6147, -31.9197, -43.5126,  35.7780,  31.0451
 304,  24.5758,  11.6147, -31.9197, -43.5126,  35.7780,  31.0451
 312,  24.5514,  11.6056, -31.9507, -43.4332,  35.8050,  30.9780
 320,  24.5267,  11.5964, -31.9819, -43.3529,  35.8323,  30.9102
 328,  24.5017,  11.5873, -32.0135, -43.2720,  35.8600,  30.8419
 336,  24.4766,  11.5780, -32.0451, -43.1906,  35.8879,  30.7732
 344,  24.4514,  11.5688, -32.0769, -43.1090,  35.9160,  30.7043
 352,  24.4260,  11.5596, -32.1087, -43.0273,  35.9442,  30.6354
 360,  24.4007,  11.5504, -32.1405, -42.9456,  35.9724,  30.5665
 368,  24.3753,  11.5413, -32.1723, -42.8641,  36.0007,  30.4978
 376,  24.3499,  11.5322, -32.2040, -42.7826,  36.0291,  30.4291
 384,  24.3245,  11.5231, -32.2357, -42.7012,  36.0575,  30.3605
 392,  24.2990,  11.5141, -32.2674, -42.6199,  36.0860,  30.2921
 400,  24.2736,  11.5051, -32.2990, -42.5387,  36.1145,  30.2237
 408,  24.2481,  11.4961, -32.3306, -42.4575,  36.1431,  30.1554
 424,  24.1716,  11.4695, -32.4252, -42.2146,  36.2292,  29.9511
 432,  24.1716,  11.4695, -32.4252, -42.2146,  36.2292,  29.9511
 440,  24.1460,  11.4607, -32.4567, -42.1339,  36.2580,  29.8831
 448,  24.1205,  11.4519, -32.4881, -42.0532,  36.2868,  29.8153
 456,  24.0949,  11.4431, -32.5195, -41.9725,  36.3157,  29.7476
 464,  24.0693,  11.4344, -32.5509, -41.8920,  36.3447,  29.6800
 472,  24.0437,  11.4257, -32.5822, -41.8116,  36.3737,  29.6124
 480,  24.0180,  11.4171, -32.6135, -41.7312,  36.4028,  29.5450
 488,  23.9924,  11.4085, -32.6447, -41.6510,  36.4319,  29.4776
 496,  23.9667,  11.3999, -32.6760, -41.5708,  36.4611,  29.4103
 504,  23.9410,  11.3913, -32.7071, -41.4907,  36.4903,  29.3432
 512,  23.9153,  11.3828, -32.7383, -41.4107,  36.5196,  29.2761
 520,  23.8895,  11.3744, -32.7694, -41.3308,  36.5489,  29.2091
 528,  23.8638,  11.3659, -32.8005, -41.2509,  36.5783,  29.1422
 536,  23.8380,  11.3575, -32.8316, -41.1712,  36.6077,  29.0754
 552,  23.7606,  11.3326, -32.9245, -40.9325,  36.6964,  28.8756
 560,  23.7606,  11.3326, -32.9245, -40.9325,  36.6964,  28.8756
 568,  23.7347,  11.3243, -32.9555, -40.8531,  36.7260,  28.8092
 576,  23.7089,  11.3161, -32.9863, -40.7738,  36.7557,  28.7429
 584,  23.6830,  11.3079, -33.0172, -40.6945,  36.7855,  28.6766
 592,  23.6571,  11.2997, -33.0480, -40.6154,  36.8153,  28.6105
 600,  23.6312,  11.2916, -33.0788, -40.5364,  36.8451,  28.5445
 608,  23.6052,  11.2835, -33.1096, -40.4574,  36.8751,  28.4785
 616,  23.5793,  11.2755, -33.1403, -40.3785,  36.9050,  28.4127
 624,  23.5533,  11.2675, -33.1709, -40.2997,  36.9351,  28.3469
 632,  23.5273,  11.2595, -33.2016, -40.2210,  36.9651,  28.2812
 640,  23.5013,  11.2516, -33.2322, -40.1424,  36.9952,  28.2156
 648,  23.4752,  11.2437, -33.2628, -40.0639,  37.0254,  28.1501
 656,  23.4492,  11.2358, -33.2933, -39.9854,  37.0556,  28.0847
 664,  23.4231,  11.2280, -33.3239, -39.9070,  37.0859,  28.0194
 680,  23.3448,  11.2047, -33.4152, -39.6725,  37.1771,  27.8241
 688,  23.3448,  11.2047, -33.4152, -39.6725,  37.1771,  27.8241
 696,  23.3186,  11.1970, -33.4456, -39.5944,  37.2076,  27.7592
 704,  23.2925,  11.1894, -33.4759, -39.5165,  37.2381,  27.6943
 712,  23.2663,  11.1818, -33.5062, -39.4387,  37.2687,  27.6296
 720,  23.2401,  11.1742, -33.5365, -39.3609,  37.2993,  27.5649
 728,  23.2139,  11.1667, -33.5667, -39.2832,  37.3300,  27.5004
 736,  23.1876,  11.1592, -33.5969, -39.2056,  37.3608,  27.4359
 744,  23.1614,  11.1517, -33.6271, -39.1281,  37.3916,  27.3715
 752,  23.1351,  11.1443, -33.6572, -39.0507,  37.4224,  27.3072
 760,  23.1088,  11.1369, -33.6873, -38.9733,  37.4533,  27.2430
 768,  23.0825,  11.1295, -33.7174, -38.8961,  37.4843,  27.1789
 776,  23.0561,  11.1222, -33.7474, -38.8189,  37.5153,  27.1149
 784,  23.0298,  11.1149, -33.7774, -38.7418,  37.5463,  27.0510
 792,  23.0034,  11.1076, -33.8074, -38.6648,  37.5774,  26.9872
 808,  22.9242,  11.0861, -33.8971, -38.4344,  37.6710,  26.7963
 816,  22.9242,  11.0861, -33.8971, -38.4344,  37.6710,  26.7963
 824,  22.8977,  11.0790, -33.9269, -38.3577,  37.7023,  26.7328
 832,  22.8713,  11.0719, -33.9567, -38.2811,  37.7337,  26.6695
 840,  22.8448,  11.0649, -33.9865, -38.2047,  37.7651,  26.6062
 848,  22.8183,  11.0579, -34.0162, -38.1282,  37.7965,  26.5430
 856,  22.7918,  11.0509, -34.0459, -38.0519,  37.8280,  26.4799
 864,  22.7652,  11.0440, -34.0755, -37.9757,  37.8596,  26.4169
 872,  22.7387,  11.0371, -34.1052, -37.8996,  37.8912,  26.3540
 880,  22.7121,  11.0303, -34.1347, -37.8235,  37.9229,  26.2912
 888,  22.6855,  11.0235, -34.1643, -37.7475,  37.9546,  26.2285
 896,  22.6589,  11.0167, -34.1938, -37.6716,  37.9863,  26.1659
 904,  22.6323,  11.0099, -34.2233, -37.5958,  38.0181,  26.1033
 912,  22.6056,  11.0032, -34.2527, -37.5201,  38.0500,  26.0409
 920,  22.5790,  10.9966, -34.2821, -37.4445,  38.0819,  25.9785
 936,  22.4988,  10.9768, -34.3702, -37.2180,  38.1779,  25.7920
 944,  22.4988,  10.9768, -34.3702, -37.2180,  38.1779,  25.7920
 952,  22.4721,  10.9703, -34.3994, -37.1427,  38.2100,  25.7300
 960,  22.4453,  10.9638, -34.4287, -37.0675,  38.2421,  25.6682
 968,  22.4185,  10.9573, -34.4579, -36.9924,  38.2743,  25.6063
 976,  22.3917,  10.9509, -34.4871, -36.9173,  38.3066,  25.5446
 984,  22.3649,  10.9446, -34.5162, -36.8424,  38.3389,  25.4830
 992,  22.3381,  10.9382, -34.5453, -36.7675,  38.3712,  25.4215
 1000,  22.3112,  10.9319, -34.5743, -36.6927,  38.4036,  25.3600
 1008,  22.2844,  10.9256, -34.6034, -36.6179,  38.4361,  25.2987
 1016,  22.2575,  10.9194, -34.6324, -36.5433,  38.4686,  25.2374
 1024,  22.2306,  10.9132, -34.6613, -36.4688,  38.5011,  25.1763
 1032,  22.2036,  10.9071, -34.6903, -36.3943,  38.5337,  25.1152
 1040,  22.1767,  10.9010, -34.7191, -36.3199,  38.5663,  25.0542
 1048,  22.1497,  10.8949, -34.7480, -36.2456,  38.5990,  24.9933
 1064,  22.0687,  10.8769, -34.8344, -36.0232,  38.6974,  24.8111
 1072,  22.0687,  10.8769, -34.8344, -36.0232,  38.6974,  24.8111
 1080,  22.0417,  10.8709, -34.8631, -35.9492,  38.7303,  24.7506
 1088,  22.0146,  10.8651, -34.8918, -35.8753,  38.7632,  24.6901
 1096,  21.9875,  10.8592, -34.9204, -35.8015,  38.7962,  24.6298
 1104,  21.9604,  10.8534, -34.9490, -35.7278,  38.8292,  24.5695
 1112,  21.9333,  10.8476, -34.9776, -35.6542,  38.8622,  24.5093
 1120,  21.9062,  10.8418, -35.0061, -35.5806,  38.8954,  24.4492
 1128,  21.8790,  10.8361, -35.0346, -35.5071,  38.9285,  24.3892
 1136,  21.8519,  10.8305, -35.0631, -35.4338,  38.9618,  24.3293
 1144,  21.8247,  10.8248, -35.0915, -35.3605,  38.9950,  24.2695
 1152,  21.7975,  10.8192, -35.1199, -35.2872,  39.0283,  24.2098
 1160,  21.7702,  10.8137, -35.1483, -35.2141,  39.0617,  24.1502
 1168,  21.7430,  10.8082, -35.1766, -35.1410,  39.0951,  24.0906
 1176,  21.7157,  10.8027, -35.2049, -35.0680,  39.1285,  24.0311
 1192,  21.6338,  10.7865, -35.2896, -34.8496,  39.2292,  23.8533
 1200,  21.6338,  10.7865, -35.2896, -34.8496,  39.2292,  23.8533
 1208,  21.6065,  10.7811, -35.3178, -34.7769,  39.2628,  23.7942
 1216,  21.5792,  10.7758, -35.3459, -34.7044,  39.2965,  23.7352
 1224,  21.5518,  10.7706, -35.3740, -34.6319,  39.3302,  23.6762
 1232,  21.5244,  10.7654, -35.4020, -34.5595,  39.3640,  23.6174
 1240,  21.4970,  10.7602, -35.4300, -34.4871,  39.3979,  23.5587
 1248,  21.4696,  10.7550, -35.4580, -34.4149,  39.4317,  23.5000
 1256,  21.4421,  10.7499, -35.4860, -34.3427,  39.4657,  23.4414
 1264,  21.4146,  10.7449, -35.5139, -34.2707,  39.4996,  23.3829
 1272,  21.3872,  10.7398, -35.5417, -34.1987,  39.5336,  23.3246
 1280,  21.3597,  10.7348, -35.5696, -34.1267,  39.5677,  23.2663
 1288,  21.3321,  10.7299, -35.5974, -34.0549,  39.6018,  23.2080
 1296,  21.3046,  10.7250, -35.6251, -33.9831,  39.6360,  23.1499
 1304,  21.2771,  10.7201, -35.6529, -33.9115,  39.6702,  23.0919
 1320,  21.1943,  10.7057, -35.7358, -33.6969,  39.7731,  22.9183
 1328,  21.1943,  10.7057, -35.7358, -33.6969,  39.7731,  22.9183
 1336,  21.1666,  10.7009, -35.7634, -33.6256,  39.8074,  22.8606
 1344,  21.1390,  10.6962, -35.7910, -33.5543,  39.8419,  22.8030
 1352,  21.1113,  10.6916, -35.8185, -33.4831,  39.8763,  22.7455
 1360,  21.0836,  10.6870, -35.8460, -33.4120,  39.9109,  22.6881
 1368,  21.0559,  10.6824, -35.8734, -33.3410,  39.9454,  22.6307
 1376,  21.0282,  10.6779, -35.9008, -33.2700,  39.9801,  22.5735
 1384,  21.0005,  10.6734, -35.9282, -33.1991,  40.0147,  22.5163
 1392,  20.9727,  10.6689, -35.9555, -33.1284,  40.0494,  22.4592
 1400,  20.9450,  10.6645, -35.9828, -33.0576,  40.0842,  22.4022
 1408,  20.9172,  10.6601, -36.0101, -32.9870,  40.1190,  22.3453
 1416,  20.8894,  10.6557, -36.0373, -32.9165,  40.1538,  22.2885
 1424,  20.8615,  10.6514, -36.0645, -32.8460,  40.1887,  22.2318
 1432,  20.8337,  10.6472, -36.0917, -32.7756,  40.2236,  22.1752
 1448,  20.7500,  10.6346, -36.1730, -32.5649,  40.3287,  22.0058
 1456,  20.7500,  10.6346, -36.1730, -32.5649,  40.3287,  22.0058
 1464,  20.7221,  10.6305, -36.2000, -32.4948,  40.3638,  21.9495
 1472,  20.6942,  10.6264, -36.2270, -32.4248,  40.3990,  21.8933
 1480,  20.6662,  10.6223, -36.2539, -32.3549,  40.4342,  21.8371
 1488,  20.6382,  10.6183, -36.2808, -32.2850,  40.4694,  21.7811
 1496,  20.6102,  10.6144, -36.3077, -32.2153,  40.5047,  21.7252
 1504,  20.5822,  10.6104, -36.3345, -32.1456,  40.5400,  21.6693
 1512,  20.5542,  10.6065, -36.3613, -32.0760,  40.5754,  21.6135
 1520,  20.5261,  10.6027, -36.3881, -32.0065,  40.6108,  21.5579
 1528,  20.4981,  10.5989, -36.4148, -31.9370,  40.6463,  21.5023
 1536,  20.4700,  10.5951, -36.4415, -31.8677,  40.6818,  21.4467
 1544,  20.4419,  10.5914, -36.4682, -31.7984,  40.7174,  21.3913
 1552,  20.4138,  10.5877, -36.4948, -31.7292,  40.7530,  21.3360
 1560,  20.3856,  10.5840, -36.5214, -31.6600,  40.7886,  21.2807
 1576,  20.3011,  10.5733, -36.6009, -31.4531,  40.8958,  21.1155
 1584,  20.3011,  10.5733, -36.6009, -31.4531,  40.8958,  21.1155
 1592,  20.2729,  10.5698, -36.6273, -31.3843,  40.9317,  21.0605
 1600,  20.2447,  10.5663, -36.6537, -31.3155,  40.9675,  21.0057
 1608,  20.2164,  10.5629, -36.6801, -31.2469,  41.0034,  20.9510
 1616,  20.1882,  10.5595, -36.7064, -31.1783,  41.0394,  20.8963
 1624,  20.1599,  10.5561, -36.7327, -31.1098,  41.0754,  20.8417
 1632,  20.1316,  10.5528, -36.7590, -31.0413,  41.1114,  20.7872
 1640,  20.1033,  10.5496, -36.7852, -30.9730,  41.1475,  20.7328
 1648,  20.0749,  10.5463, -36.8114, -30.9047,  41.1836,  20.6785
 1656,  20.0466,  10.5432, -36.8376, -30.8365,  41.2198,  20.6243
 1664,  20.0182,  10.5400, -36.8637, -30.7684,  41.2560,  20.5701
 1672,  19.9898,  10.5369, -36.8898, -30.7003,  41.2923,  20.5161
 1680,  19.9614,  10.5338, -36.9158, -30.6324,  41.3286,  20.4621
 1688,  19.9330,  10.5308, -36.9418, -30.5645,  41.3649,  20.4082
 1704,  19.8476,  10.5219, -37.0196, -30.3613,  41.4742,  20.2470
 1712,  19.8476,  10.5219, -37.0196, -30.3613,  41.4742,  20.2470
 1720,  19.8191,  10.5190, -37.0455, -30.2937,  41.5107,  20.1934
 1728,  19.7906,  10.5162, -37.0713, -30.2262,  41.5473,  20.1400
 1736,  19.7621,  10.5134, -37.0971, -30.1587,  41.5839,  20.0866
 1744,  19.7335,  10.5106, -37.1228, -30.0914,  41.6205,  20.0333
 1752,  19.7049,  10.5079, -37.1485, -30.0241,  41.6572,  19.9800
 1760,  19.6764,  10.5052, -37.1742, -29.9569,  41.6939,  19.9269
 1768,  19.6478,  10.5025, -37.1999, -29.8898,  41.7307,  19.8738
 1776,  19.6191,  10.4999, -37.2254, -29.8227,  41.7675,  19.8209
 1784,  19.5905,  10.4974, -37.2510, -29.7557,  41.8043,  19.7680
 1792,  19.5618,  10.4948, -37.2765, -29.6888,  41.8412,  19.7152
 1800,  19.5332,  10.4923, -37.3020, -29.6220,  41.8782,  19.6624
 1808,  19.5045,  10.4899, -37.3275, -29.5552,  41.9152,  19.6098
 1816,  19.4758,  10.4875, -37.3529, -29.4886,  41.9522,  19.5572
 1832,  19.3895,  10.4805, -37.4290, -29.2890,  42.0635,  19.4001
 1840,  19.3895,  10.4805, -37.4290, -29.2890,  42.0635,  19.4001
 1848,  19.3607,  10.4782, -37.4542, -29.2226,  42.1007,  19.3478
 1856,  19.3319,  10.4760, -37.4795, -29.1563,  42.1379,  19.2957
 1864,  19.3031,  10.4739, -37.5047, -29.0901,  42.1752,  19.2436
 1872,  19.2743,  10.4717, -37.5298, -29.0239,  42.2125,  19.1917
 1880,  19.2454,  10.4696, -37.5549, -28.9578,  42.2499,  19.1398
 1888,  19.2166,  10.4676, -37.5800, -28.8918,  42.2873,  19.0879
 1896,  19.1877,  10.4655, -37.6051, -28.8259,  42.3247,  19.0362
 1904,  19.1588,  10.4636, -37.6301, -28.7601,  42.3622,  18.9846
 1912,  19.1299,  10.4616, -37.6551, -28.6943,  42.3997,  18.9330
 1920,  19.1009,  10.4597, -37.6800, -28.6286,  42.4373,  18.8815
 1928,  19.0720,  10.4579, -37.7049, -28.5629,  42.4749,  18.8301
 1936,  19.0430,  10.4561, -37.7298, -28.4974,  42.5125,  18.7788
 1944,  19.0140,  10.4543, -37.7546, -28.4319,  42.5502,  18.7275
 1960,  18.9269,  10.4492, -37.8289, -28.2359,  42.6635,  18.5743
 1968,  18.9269,  10.4492, -37.8289, -28.2359,  42.6635,  18.5743
 1976,  18.8978,  10.4476, -37.8536, -28.1707,  42.7014,  18.5234
 1984,  18.8688,  10.4460, -37.8782, -28.1056,  42.7392,  18.4726
 1992,  18.8397,  10.4444, -37.9028, -28.0405,  42.7772,  18.4218
 2000,  18.8106,  10.4429, -37.9274, -27.9756,  42.8151,  18.3711
 2008,  18.7814,  10.4415, -37.9519, -27.9107,  42.8532,  18.3205
 2016,  18.7523,  10.4401, -37.9764, -27.8458,  42.8912,  18.2700
 2024,  18.7231,  10.4387, -38.0009, -27.7811,  42.9293,  18.2196
 2032,  18.6939,  10.4373, -38.0253, -27.7164,  42.9674,  18.1693
 2040,  18.6647,  10.4360, -38.0497, -27.6518,  43.0056,  18.1190
 2048,  18.6355,  10.4348, -38.0740, -27.5873,  43.0438,  18.0688
 2056,  18.6063,  10.4335, -38.0983, -27.5228,  43.0821,  18.0187
 2064,  18.5770,  10.4324, -38.1226, -27.4584,  43.1203,  17.9687
 2072,  18.5477,  10.4312, -38.1468, -27.3941,  43.1587,  17.9187
 2088,  18.4598,  10.4280, -38.2193, -27.2016,  43.2739,  17.7694
 2096,  18.4598,  10.4280, -38.2193, -27.2016,  43.2739,  17.7694
 2104,  18.4305,  10.4271, -38.2434, -27.1376,  43.3124,  17.7197
 2112,  18.4011,  10.4261, -38.2675, -27.0736,  43.3509,  17.6702
 2120,  18.3718,  10.4252, -38.2915, -27.0097,  43.3895,  17.6207
 2128,  18.3424,  10.4243, -38.3155, -26.9459,  43.4281,  17.5713
 2136,  18.3129,  10.4235, -38.3394, -26.8822,  43.4668,  17.5220
 2144,  18.2835,  10.4227, -38.3633, -26.8185,  43.5055,  17.4728
 2152,  18.2541,  10.4220, -38.3871, -26.7549,  43.5442,  17.4236
 2160,  18.2246,  10.4213, -38.4110, -26.6914,  43.5830,  17.3746
 2168,  18.1951,  10.4206, -38.4347, -26.6279,  43.6218,  17.3256
 2176,  18.1656,  10.4200, -38.4585, -26.5646,  43.6606,  17.2767
 2184,  18.1361,  10.4194, -38.4822, -26.5012,  43.6995,  17.2278
 2192,  18.1066,  10.4189, -38.5059, -26.4380,  43.7384,  17.1791
 2200,  18.0771,  10.4184, -38.5295, -26.3748,  43.7774,  17.1304
 2216,  17.9883,  10.4171, -38.6002, -26.1857,  43.8945,  16.9849
 2224,  17.9883,  10.4171, -38.6002, -26.1857,  43.8945,  16.9849
 2232,  17.9587,  10.4168, -38.6237, -26.1228,  43.9336,  16.9365
 2240,  17.9291,  10.4165, -38.6471, -26.0600,  43.9728,  16.8882
 2248,  17.8994,  10.4162, -38.6705, -25.9973,  44.0120,  16.8400
 2256,  17.8698,  10.4160, -38.6939, -25.9346,  44.0512,  16.7919
 2264,  17.8401,  10.4159, -38.7172, -25.8720,  44.0905,  16.7438
 2272,  17.8104,  10.4157, -38.7405, -25.8094,  44.1298,  16.6959
 2280,  17.7807,  10.4156, -38.7638, -25.7470,  44.1691,  16.6480
 2288,  17.7509,  10.4156, -38.7870, -25.6846,  44.2085,  16.6002
 2296,  17.7212,  10.4155, -38.8102, -25.6222,  44.2479,  16.5524
 2304,  17.6914,  10.4156, -38.8333, -25.5600,  44.2874,  16.5048
 2312,  17.6616,  10.4156, -38.8564, -25.4978,  44.3269,  16.4572
 2320,  17.6318,  10.4157, -38.8795, -25.4357,  44.3664,  16.4097
 2328,  17.6020,  10.4159, -38.9025, -25.3736,  44.4060,  16.3622
 2344,  17.5124,  10.4166, -38.9714, -25.1879,  44.5250,  16.2204
 2352,  17.5124,  10.4166, -38.9714, -25.1879,  44.5250,  16.2204
 2360,  17.4826,  10.4169, -38.9942, -25.1261,  44.5647,  16.1733
 2368,  17.4527,  10.4172, -39.0171, -25.0644,  44.6045,  16.1263
 2376,  17.4227,  10.4176, -39.0399, -25.0028,  44.6443,  16.0793
 2384,  17.3928,  10.4181, -39.0626, -24.9412,  44.6841,  16.0324
 2392,  17.3629,  10.4185, -39.0854, -24.8797,  44.7240,  15.9856
 2400,  17.3329,  10.4191, -39.1081, -24.8183,  44.7639,  15.9389
 2408,  17.3029,  10.4196, -39.1307, -24.7569,  44.8038,  15.8922
 2416,  17.2729,  10.4202, -39.1533, -24.6956,  44.8438,  15.8456
 2424,  17.2429,  10.4208, -39.1759, -24.6344,  44.8839,  15.7991
 2432,  17.2128,  10.4215, -39.1984, -24.5732,  44.9239,  15.7527
 2440,  17.1828,  10.4222, -39.2209, -24.5121,  44.9640,  15.7064
 2448,  17.1527,  10.4230, -39.2433, -24.4511,  45.0042,  15.6601
 2456,  17.1226,  10.4238, -39.2658, -24.3902,  45.0443,  15.6139
 2472,  17.0323,  10.4264, -39.3328, -24.2077,  45.1651,  15.4757
 2480,  17.0323,  10.4264, -39.3328, -24.2077,  45.1651,  15.4757
 2488,  17.0021,  10.4274, -39.3550, -24.1470,  45.2054,  15.4298
 2496,  16.9720,  10.4284, -39.3773, -24.0864,  45.2458,  15.3840
 2504,  16.9418,  10.4295, -39.3994, -24.0259,  45.2862,  15.3383
 2512,  16.9116,  10.4305, -39.4216, -23.9654,  45.3266,  15.2926
 2520,  16.8814,  10.4317, -39.4437, -23.9050,  45.3671,  15.2470
 2528,  16.8511,  10.4328, -39.4658, -23.8446,  45.4076,  15.2015
 2536,  16.8209,  10.4340, -39.4878, -23.7843,  45.4481,  15.1560
 2544,  16.7906,  10.4353, -39.5098, -23.7241,  45.4887,  15.1107
 2552,  16.7603,  10.4366, -39.5318, -23.6640,  45.5293,  15.0654
 2560,  16.7300,  10.4379, -39.5537, -23.6039,  45.5699,  15.0202
 2568,  16.6997,  10.4393, -39.5756, -23.5439,  45.6106,  14.9750
 2576,  16.6694,  10.4407, -39.5974, -23.4839,  45.6513,  14.9299
 2584,  16.6390,  10.4422, -39.6192, -23.4240,  45.6921,  14.8849
 2600,  16.5479,  10.4468, -39.6844, -23.2448,  45.8146,  14.7504
 2608,  16.5479,  10.4468, -39.6844, -23.2448,  45.8146,  14.7504
 2616,  16.5175,  10.4484, -39.7060, -23.1852,  45.8555,  14.7057
 2624,  16.4870,  10.4500, -39.7276, -23.1256,  45.8964,  14.6611
 2632,  16.4566,  10.4518, -39.7492, -23.0661,  45.9374,  14.6165
 2640,  16.4261,  10.4535, -39.7707, -23.0067,  45.9784,  14.5720
 2648,  16.3957,  10.4553, -39.7922, -22.9473,  46.0194,  14.5276
 2656,  16.3652,  10.4571, -39.8136, -22.8881,  46.0605,  14.4833
 2664,  16.3347,  10.4590, -39.8351, -22.8288,  46.1016,  14.4391
 2672,  16.3041,  10.4609, -39.8564, -22.7697,  46.1428,  14.3949
 2680,  16.2736,  10.4628, -39.8777, -22.7106,  46.1840,  14.3508
 2688,  16.2430,  10.4648, -39.8990, -22.6515,  46.2252,  14.3067
 2696,  16.2125,  10.4669, -39.9203, -22.5926,  46.2664,  14.2628
 2704,  16.1819,  10.4689, -39.9415, -22.5337,  46.3077,  14.2189
 2712,  16.1513,  10.4711, -39.9627, -22.4748,  46.3490,  14.1750
 2728,  16.0593,  10.4776, -40.0260, -22.2987,  46.4732,  14.0440
 2736,  16.0593,  10.4776, -40.0260, -22.2987,  46.4732,  14.0440
 2744,  16.0287,  10.4799, -40.0470, -22.2401,  46.5147,  14.0005
 2752,  15.9980,  10.4823, -40.0680, -22.1816,  46.5562,  13.9570
 2760,  15.9673,  10.4846, -40.0889, -22.1232,  46.5977,  13.9137
 2768,  15.9366,  10.4870, -40.1098, -22.0648,  46.6392,  13.8704
 2776,  15.9058,  10.4895, -40.1307, -22.0064,  46.6808,  13.8271
 2784,  15.8751,  10.4920, -40.1515, -21.9482,  46.7225,  13.7840
 2792,  15.8443,  10.4945, -40.1723, -21.8900,  46.7641,  13.7409
 2800,  15.8135,  10.4971, -40.1931, -21.8319,  46.8058,  13.6978
 2808,  15.7827,  10.4997, -40.2138, -21.7738,  46.8476,  13.6549
 2816,  15.7519,  10.5023, -40.2344, -21.7158,  46.8893,  13.6120
 2824,  15.7211,  10.5050, -40.2551, -21.6578,  46.9311,  13.5692
 2832,  15.6902,  10.5078, -40.2757, -21.6000,  46.9730,  13.5265
 2840,  15.6594,  10.5106, -40.2962, -21.5421,  47.0149,  13.4838
 2856,  15.5667,  10.5191, -40.3576, -21.3691,  47.1407,  13.3563
 2864,  15.5667,  10.5191, -40.3576, -21.3691,  47.1407,  13.3563
 2872,  15.5358,  10.5221, -40.3780, -21.3115,  47.1827,  13.3139
 2880,  15.5048,  10.5251, -40.3983, -21.2540,  47.2247,  13.2716
 2888,  15.4739,  10.5281, -40.4187, -21.1966,  47.2668,  13.2293
 2896,  15.4429,  10.5312, -40.4389, -21.1392,  47.3089,  13.1872
 2904,  15.4119,  10.5343, -40.4592, -21.0819,  47.3510,  13.1451
 2912,  15.3809,  10.5374, -40.4794, -21.0246,  47.3932,  13.1031
 2920,  15.3499,  10.5406, -40.4995, -20.9675,  47.4354,  13.0611
 2928,  15.3189,  10.5439, -40.5196, -20.9103,  47.4776,  13.0192
 2936,  15.2878,  10.5472, -40.5397, -20.8533,  47.5199,  12.9774
 2944,  15.2568,  10.5505, -40.5597, -20.7963,  47.5622,  12.9357
 2952,  15.2257,  10.5538, -40.5797, -20.7393,  47.6046,  12.8940
 2960,  15.1946,  10.5572, -40.5997, -20.6825,  47.6469,  12.8524
 2968,  15.1635,  10.5607, -40.6196, -20.6256,  47.6893,  12.8109
 2984,  15.0701,  10.5713, -40.6791, -20.4556,  47.8167,  12.6867
 2992,  15.0701,  10.5713, -40.6791, -20.4556,  47.8167,  12.6867
 3000,  15.0389,  10.5749, -40.6989, -20.3990,  47.8593,  12.6455
 3008,  15.0077,  10.5786, -40.7186, -20.3425,  47.9018,  12.6043
 3016,  14.9765,  10.5823, -40.7382, -20.2860,  47.9444,  12.5632
 3024,  14.9453,  10.5860, -40.7579, -20.2296,  47.9871,  12.5222
 3032,  14.9141,  10.5898, -40.7775, -20.1733,  48.0297,  12.4812
 3040,  14.8828,  10.5936, -40.7970, -20.1171,  48.0724,  12.4403
 3048,  14.8516,  10.5975, -40.8166, -20.0608,  48.1152,  12.3995
 3056,  14.8203,  10.6014, -40.8360, -20.0047,  48.1579,  12.3587
 3064,  14.7890,  10.6053, -40.8555, -19.9486,  48.2007,  12.3180
 3072,  14.7577,  10.6093, -40.8749, -19.8926,  48.2435,  12.2774
 3080,  14.7264,  10.6134, -40.8942, -19.8366,  48.2864,  12.2369
 3088,  14.6951,  10.6174, -40.9135, -19.7807,  48.3293,  12.1964
 3096,  14.6637,  10.6215, -40.9328, -19.7249,  48.3722,  12.1560
 3112,  14.5696,  10.6341, -40.9904, -19.5577,  48.5011,  12.0351
 3120,  14.5696,  10.6341, -40.9904, -19.5577,  48.5011,  12.0351
 3128,  14.5381,  10.6384, -41.0095, -19.5021,  48.5442,  11.9950
 3136,  14.5067,  10.6428, -41.0286, -19.4466,  48.5873,  11.9549
 3144,  14.4753,  10.6471, -41.0476, -19.3911,  48.6304,  11.9149
 3152,  14.4438,  10.6515, -41.0666, -19.3357,  48.6735,  11.8750
 3160,  14.4124,  10.6560, -41.0856, -19.2803,  48.7167,  11.8351
 3168,  14.3809,  10.6605, -41.1045, -19.2250,  48.7599,  11.7953
 3176,  14.3494,  10.6650, -41.1234, -19.1698,  48.8031,  11.7556
 3184,  14.3179,  10.6696, -41.1422, -19.1146,  48.8464,  11.7159
 3192,  14.2863,  10.6742, -41.1610, -19.0595,  48.8897,  11.6763
 3200,  14.2548,  10.6789, -41.1797, -19.0044,  48.9330,  11.6368
 3208,  14.2232,  10.6836, -41.1985, -18.9494,  48.9763,  11.5973
 3216,  14.1917,  10.6883, -41.2171, -18.8944,  49.0197,  11.5579
 3224,  14.1601,  10.6931, -41.2358, -18.8395,  49.0632,  11.5186
 3240,  14.0652,  10.7078, -41.2914, -18.6752,  49.1936,  11.4010
 3248,  14.0652,  10.7078, -41.2914, -18.6752,  49.1936,  11.4010
 3256,  14.0336,  10.7127, -41.3099, -18.6206,  49.2371,  11.3620
 3264,  14.0019,  10.7177, -41.3283, -18.5660,  49.2807,  11.3230
 3272,  13.9702,  10.7227, -41.3467, -18.5114,  49.3243,  11.2841
 3280,  13.9385,  10.7278, -41.3650, -18.4569,  49.3679,  11.2452
 3288,  13.9068,  10.7330, -41.3833, -18.4025,  49.4116,  11.2064
 3296,  13.8751,  10.7381, -41.4016, -18.3482,  49.4553,  11.1677
 3304,  13.8434,  10.7433, -41.4198, -18.2939,  49.4990,  11.1290
 3312,  13.8116,  10.7486, -41.4380, -18.2396,  49.5428,  11.0904
 3320,  13.7799,  10.7539, -41.4562, -18.1854,  49.5866,  11.0519
 3328,  13.7481,  10.7592, -41.4743, -18.1313,  49.6304,  11.0135
 3336,  13.7163,  10.7646, -41.4923, -18.0772,  49.6742,  10.9751
 3344,  13.6845,  10.7700, -41.5103, -18.0232,  49.7181,  10.9368
 3352,  13.6527,  10.7755, -41.5283, -17.9692,  49.7620,  10.8985
 3368,  13.5572,  10.7921, -41.5820, -17.8077,  49.8939,  10.7841
 3376,  13.5572,  10.7921, -41.5820, -17.8077,  49.8939,  10.7841
 3384,  13.5253,  10.7978, -41.5998, -17.7539,  49.9379,  10.7461
 3392,  13.4934,  10.8034, -41.6176, -17.7003,  49.9819,  10.7082
 3400,  13.4615,  10.8092, -41.6353, -17.6467,  50.0260,  10.6703
 3408,  13.4296,  10.8149, -41.6531, -17.5931,  50.0701,  10.6325
 3416,  13.3976,  10.8207, -41.6707, -17.5396,  50.1143,  10.5948
 3424,  13.3657,  10.8266, -41.6883, -17.4861,  50.1584,  10.5571
 3432,  13.3337,  10.8325, -41.7059, -17.4327,  50.2026,  10.5195
 3440,  13.3018,  10.8384, -41.7234, -17.3794,  50.2468,  10.4820
 3448,  13.2698,  10.8444, -41.7409, -17.3261,  50.2911,  10.4445
 3456,  13.2378,  10.8504, -41.7584, -17.2729,  50.3354,  10.4071
 3464,  13.2057,  10.8564, -41.7758, -17.2197,  50.3797,  10.3698
 3472,  13.1737,  10.8625, -41.7931, -17.1666,  50.4240,  10.3325
 3480,  13.1417,  10.8687, -41.8105, -17.1136,  50.4684,  10.2953
 3496,  13.0455,  10.8873, -41.8622, -16.9547,  50.6017,  10.1841
 3504,  13.0455,  10.8873, -41.8622, -16.9547,  50.6017,  10.1841
 3512,  13.0134,  10.8936, -41.8793, -16.9019,  50.6461,  10.1471
 3520,  12.9813,  10.9000, -41.8965, -16.8491,  50.6907,  10.1102
 3528,  12.9491,  10.9064, -41.9136, -16.7964,  50.7352,  10.0734
 3536,  12.9170,  10.9128, -41.9306, -16.7437,  50.7798,  10.0366
 3544,  12.8848,  10.9193, -41.9476, -16.6911,  50.8244,   9.9999
 3552,  12.8527,  10.9258, -41.9645, -16.6385,  50.8690,   9.9633
 3560,  12.8205,  10.9324, -41.9815, -16.5860,  50.9136,   9.9267
 3568,  12.7883,  10.9390, -41.9983, -16.5336,  50.9583,   9.8902
 3576,  12.7561,  10.9457, -42.0152, -16.4812,  51.0030,   9.8538
 3584,  12.7239,  10.9523, -42.0319, -16.4289,  51.0477,   9.8174
 3592,  12.6916,  10.9591, -42.0487, -16.3766,  51.0925,   9.7811
 3600,  12.6594,  10.9658, -42.0654, -16.3244,  51.1373,   9.7448
 3608,  12.6271,  10.9727, -42.0821, -16.2722,  51.1821,   9.7086
 3624,  12.5303,  10.9934, -42.1318, -16.1160,  51.3167,   9.6005
 3632,  12.5303,  10.9934, -42.1318, -16.1160,  51.3167,   9.6005
 3640,  12.4980,  11.0004, -42.1483, -16.0640,  51.3616,   9.5645
 3648,  12.4656,  11.0074, -42.1648, -16.0121,  51.4066,   9.5287
 3656,  12.4333,  11.0145, -42.1812, -15.9603,  51.4516,   9.4929
 3664,  12.4009,  11.0216, -42.1975, -15.9085,  51.4966,   9.4571
 3672,  12.3686,  11.0287, -42.2139, -15.8567,  51.5416,   9.4214
 3680,  12.3362,  11.0359, -42.2302, -15.8050,  51.5867,   9.3858
 3688,  12.3038,  11.0432, -42.2464, -15.7534,  51.6318,   9.3502
 3696,  12.2714,  11.0504, -42.2626, -15.7018,  51.6769,   9.3148
 3704,  12.2390,  11.0578, -42.2788, -15.6503,  51.7220,   9.2793
 3712,  12.2065,  11.0651, -42.2949, -15.5988,  51.7672,   9.2440
 3720,  12.1741,  11.0726, -42.3110, -15.5474,  51.8124,   9.2086
 3728,  12.1416,  11.0800, -42.3270, -15.4960,  51.8576,   9.1734
 3736,  12.1092,  11.0875, -42.3430, -15.4447,  51.9028,   9.1382
 3752,  12.0117,  11.1102, -42.3908, -15.2911,  52.0387,   9.0330
 3760,  12.0117,  11.1102, -42.3908, -15.2911,  52.0387,   9.0330
 3768,  11.9792,  11.1179, -42.4066, -15.2400,  52.0841,   8.9981
 3776,  11.9466,  11.1256, -42.4224, -15.1889,  52.1295,   8.9632
 3784,  11.9141,  11.1334, -42.4381, -15.1379,  52.1749,   8.9284
 3792,  11.8815,  11.1411, -42.4538, -15.0870,  52.2203,   8.8937
 3800,  11.8489,  11.1490, -42.4695, -15.0361,  52.2658,   8.8590
 3808,  11.8163,  11.1569, -42.4851, -14.9853,  52.3112,   8.8244
 3816,  11.7838,  11.1648, -42.5007, -14.9345,  52.3567,   8.7898
 3824,  11.7511,  11.1727, -42.5162, -14.8837,  52.4023,   8.7553
 3832,  11.7185,  11.1807, -42.5317, -14.8331,  52.4478,   8.7208
 3840,  11.6859,  11.1888, -42.5472, -14.7824,  52.4934,   8.6865
 3848,  11.6532,  11.1969, -42.5626, -14.7319,  52.5390,   8.6521
 3856,  11.6206,  11.2050, -42.5780, -14.6813,  52.5847,   8.6179
 3864,  11.5879,  11.2132, -42.5933, -14.6308,  52.6303,   8.5837
 3880,  11.4898,  11.2380, -42.6390, -14.4797,  52.7674,   8.4814
 3888,  11.4898,  11.2380, -42.6390, -14.4797,  52.7674,   8.4814
 3896,  11.4571,  11.2463, -42.6542, -14.4295,  52.8132,   8.4475
 3904,  11.4243,  11.2547, -42.6693, -14.3792,  52.8590,   8.4136
 3912,  11.3916,  11.2631, -42.6844, -14.3291,  52.9048,   8.3797
 3920,  11.3588,  11.2716, -42.6994, -14.2790,  52.9506,   8.3460
 3928,  11.3261,  11.2801, -42.7144, -14.2289,  52.9965,   8.3122
 3936,  11.2933,  11.2886, -42.7293, -14.1789,  53.0424,   8.2786
 3944,  11.2605,  11.2972, -42.7442, -14.1289,  53.0883,   8.2450
 3952,  11.2277,  11.3059, -42.7591, -14.0790,  53.1342,   8.2115
 3960,  11.1948,  11.3145, -42.7739, -14.0291,  53.1802,   8.1780
 3968,  11.1620,  11.3233, -42.7887, -13.9793,  53.2262,   8.1446
 3976,  11.1292,  11.3320, -42.8034, -13.9296,  53.2722,   8.1112
 3984,  11.0963,  11.3408, -42.8181, -13.8799,  53.3182,   8.0779
 3992,  11.0634,  11.3497, -42.8328, -13.8302,  53.3643,   8.0447
 4008,  10.9648,  11.3765, -42.8765, -13.6815,  53.5026,   7.9453
 4016,  10.9648,  11.3765, -42.8765, -13.6815,  53.5026,   7.9453
 4024,  10.9318,  11.3855, -42.8909, -13.6321,  53.5487,   7.9123
 4032,  10.8989,  11.3946, -42.9054, -13.5827,  53.5949,   7.8794
 4040,  10.8660,  11.4037, -42.9198, -13.5333,  53.6411,   7.8465
 4048,  10.8330,  11.4128, -42.9341, -13.4840,  53.6873,   7.8137
 4056,  10.8000,  11.4220, -42.9484, -13.4348,  53.7336,   7.7809
 4064,  10.7671,  11.4312, -42.9627, -13.3856,  53.7798,   7.7482
 4072,  10.7341,  11.4405, -42.9769, -13.3364,  53.8261,   7.7156
 4080,  10.7011,  11.4498, -42.9911, -13.2873,  53.8724,   7.6830
 4088,  10.6681,  11.4592, -43.0053, -13.2382,  53.9188,   7.6504
 4096,  10.6350,  11.4686, -43.0193, -13.1892,  53.9651,   7.6180
 4104,  10.6020,  11.4780, -43.0334, -13.1403,  54.0115,   7.5856
 4112,  10.5690,  11.4875, -43.0474, -13.0913,  54.0579,   7.5532
 4120,  10.5359,  11.4970, -43.0614, -13.0425,  54.1044,   7.5209
 4136,  10.4367,  11.5259, -43.1030, -12.8962,  54.2438,   7.4244
 4144,  10.4367,  11.5259, -43.1030, -12.8962,  54.2438,   7.4244
 4152,  10.4036,  11.5355, -43.1168, -12.8475,  54.2903,   7.3923
 4160,  10.3704,  11.5453, -43.1306, -12.7989,  54.3369,   7.3603
 4168,  10.3373,  11.5551, -43.1443, -12.7503,  54.3834,   7.3284
 4176,  10.3042,  11.5649, -43.1580, -12.7018,  54.4300,   7.2965
 4184,  10.2710,  11.5747, -43.1716, -12.6534,  54.4766,   7.2646
 4192,  10.2379,  11.5846, -43.1852, -12.6049,  54.5233,   7.2329
 4200,  10.2047,  11.5946, -43.1987, -12.5566,  54.5699,   7.2012
 4208,  10.1715,  11.6046, -43.2122, -12.5082,  54.6166,   7.1695
 4216,  10.1383,  11.6146, -43.2257, -12.4600,  54.6633,   7.1379
 4224,  10.1051,  11.6247, -43.2391, -12.4117,  54.7100,   7.1064
 4232,  10.0719,  11.6348, -43.2524, -12.3635,  54.7568,   7.0749
 4240,  10.0387,  11.6450, -43.2658, -12.3154,  54.8035,   7.0434
 4248,  10.0054,  11.6552, -43.2790, -12.2673,  54.8503,   7.0121
 4264,   9.9057,  11.6860, -43.3186, -12.1233,  54.9908,   6.9183
 4272,   9.9057,  11.6860, -43.3186, -12.1233,  54.9908,   6.9183
 4280,   9.8724,  11.6964, -43.3317, -12.0755,  55.0377,   6.8871
 4288,   9.8391,  11.7068, -43.3448, -12.0276,  55.0846,   6.8561
 4296,   9.8058,  11.7172, -43.3578, -11.9798,  55.1315,   6.8250
 4304,   9.7725,  11.7277, -43.3708, -11.9320,  55.1785,   6.7940
 4312,   9.7392,  11.7383, -43.3837, -11.8843,  55.2254,   6.7631
 4320,   9.7058,  11.7488, -43.3966, -11.8367,  55.2724,   6.7323
 4328,   9.6725,  11.7595, -43.4095, -11.7891,  55.3194,   6.7015
 4336,   9.6391,  11.7701, -43.4223, -11.7415,  55.3664,   6.6707
 4344,   9.6057,  11.7808, -43.4351, -11.6940,  55.4135,   6.6400
 4352,   9.5724,  11.7916, -43.4478, -11.6465,  55.4606,   6.6094
 4360,   9.5390,  11.8024, -43.4605, -11.5991,  55.5076,   6.5788
 4368,   9.5056,  11.8132, -43.4731, -11.5517,  55.5547,   6.5483
 4376,   9.4722,  11.8240, -43.4857, -11.5044,  55.6019,   6.5178
 4392,   9.3719,  11.8569, -43.5232, -11.3627,  55.7434,   6.4267
 4400,   9.3719,  11.8569, -43.5232, -11.3627,  55.7434,   6.4267
 4408,   9.3384,  11.8679, -43.5356, -11.3156,  55.7906,   6.3965
 4416,   9.3050,  11.8790, -43.5480, -11.2685,  55.8378,   6.3663
 4424,   9.2715,  11.8902, -43.5603, -11.2214,  55.8851,   6.3362
 4432,   9.2380,  11.9013, -43.5726, -11.1744,  55.9323,   6.3061
 4440,   9.2045,  11.9125, -43.5848, -11.1274,  55.9796,   6.2761
 4448,   9.1710,  11.9238, -43.5970, -11.0805,  56.0269,   6.2461
 4456,   9.1375,  11.9351, -43.6092, -11.0337,  56.0743,   6.2162
 4464,   9.1040,  11.9464, -43.6213, -10.9868,  56.1216,   6.1863
 4472,   9.0705,  11.9578, -43.6334, -10.9401,  56.1690,   6.1565
 4480,   9.0369,  11.9692, -43.6454, -10.8933,  56.2164,   6.1268
 4488,   9.0034,  11.9806, -43.6574, -10.8467,  56.2638,   6.0971
 4496,   8.9698,  11.9921, -43.6693, -10.8000,  56.3112,   6.0674
 4504,   8.9362,  12.0037, -43.6812, -10.7534,  56.3587,   6.0379
 4520,   8.8355,  12.0385, -43.7166, -10.6139,  56.5011,   5.9494
 4528,   8.8355,  12.0385, -43.7166, -10.6139,  56.5011,   5.9494
 4536,   8.8018,  12.0502, -43.7284, -10.5675,  56.5487,   5.9201
 4544,   8.7682,  12.0620, -43.7400, -10.5211,  56.5962,   5.8907
 4552,   8.7346,  12.0738, -43.7517, -10.4748,  56.6438,   5.8615
 4560,   8.7010,  12.0856, -43.7633, -10.4285,  56.6914,   5.8323
 4568,   8.6673,  12.0975, -43.7748, -10.3823,  56.7390,   5.8031
 4576,   8.6337,  12.1094, -43.7863, -10.3361,  56.7866,   5.7740
 4584,   8.6000,  12.1214, -43.7978, -10.2900,  56.8342,   5.7450
 4592,   8.5663,  12.1333, -43.8092, -10.2439,  56.8819,   5.7160
 4600,   8.5326,  12.1454, -43.8205, -10.1978,  56.9296,   5.6871
 4608,   8.4989,  12.1575, -43.8319, -10.1518,  56.9772,   5.6582
 4616,   8.4652,  12.1696, -43.8432, -10.1059,  57.0250,   5.6294
 4624,   8.4315,  12.1817, -43.8544, -10.0599,  57.0727,   5.6006
 4632,   8.3978,  12.1940, -43.8656, -10.0141,  57.1204,   5.5719
 4648,   8.2965,  12.2308, -43.8989,  -9.8767,  57.2638,   5.4860
 4656,   8.2965,  12.2308, -43.8989,  -9.8767,  57.2638,   5.4860
 4664,   8.2628,  12.2432, -43.9099,  -9.8310,  57.3116,   5.4575
 4672,   8.2290,  12.2556, -43.9209,  -9.7853,  57.3594,   5.4291
 4680,   8.1952,  12.2680, -43.9318,  -9.7397,  57.4073,   5.4007
 4688,   8.1614,  12.2805, -43.9427,  -9.6942,  57.4552,   5.3723
 4696,   8.1276,  12.2931, -43.9536,  -9.6486,  57.5031,   5.3440
 4704,   8.0938,  12.3056, -43.9644,  -9.6032,  57.5510,   5.3158
 4712,   8.0600,  12.3183, -43.9751,  -9.5577,  57.5989,   5.2876
 4720,   8.0262,  12.3309, -43.9858,  -9.5123,  57.6468,   5.2595
 4728,   7.9923,  12.3436, -43.9965,  -9.4670,  57.6948,   5.2314
 4736,   7.9585,  12.3564, -44.0071,  -9.4217,  57.7428,   5.2034
 4744,   7.9247,  12.3692, -44.0177,  -9.3764,  57.7908,   5.1754
 4752,   7.8908,  12.3820, -44.0282,  -9.3312,  57.8388,   5.1475
 4760,   7.8569,  12.3948, -44.0387,  -9.2860,  57.8868,   5.1196
 4776,   7.7553,  12.4337, -44.0699,  -9.1507,  58.0310,   5.0363
 4784,   7.7553,  12.4337, -44.0699,  -9.1507,  58.0310,   5.0363
 4792,   7.7213,  12.4467, -44.0802,  -9.1057,  58.0791,   5.0086
 4800,   7.6874,  12.4598, -44.0905,  -9.0608,  58.1272,   4.9810
 4808,   7.6535,  12.4729, -44.1007,  -9.0159,  58.1754,   4.9534
 4816,   7.6196,  12.4860, -44.1109,  -8.9710,  58.2235,   4.9259
 4824,   7.5856,  12.4992, -44.1210,  -8.9261,  58.2717,   4.8985
 4832,   7.5517,  12.5125, -44.1311,  -8.8814,  58.3198,   4.8711
 4840,   7.5177,  12.5257, -44.1412,  -8.8366,  58.3680,   4.8437
 4848,   7.4838,  12.5391, -44.1512,  -8.7919,  58.4163,   4.8164
 4856,   7.4498,  12.5524, -44.1612,  -8.7472,  58.4645,   4.7891
 4864,   7.4158,  12.5658, -44.1711,  -8.7026,  58.5127,   4.7620
 4872,   7.3818,  12.5793, -44.1809,  -8.6580,  58.5610,   4.7348
 4880,   7.3478,  12.5927, -44.1908,  -8.6135,  58.6093,   4.7077
 4888,   7.3138,  12.6063, -44.2005,  -8.5690,  58.6575,   4.6807
 4904,   7.2118,  12.6471, -44.2296,  -8.4358,  58.8025,   4.5998
 4912,   7.2118,  12.6471, -44.2296,  -8.4358,  58.8025,   4.5998
 4920,   7.1777,  12.6607, -44.2392,  -8.3914,  58.8509,   4.5730
 4928,   7.1437,  12.6745, -44.2488,  -8.3471,  58.8992,   4.5462
 4936,   7.1096,  12.6882, -44.2583,  -8.3029,  58.9476,   4.5195
 4944,   7.0756,  12.7020, -44.2678,  -8.2587,  58.9960,   4.4928
 4952,   7.0415,  12.7159, -44.2772,  -8.2145,  59.0444,   4.4661
 4960,   7.0074,  12.7298, -44.2866,  -8.1704,  59.0928,   4.4395
 4968,   6.9733,  12.7437, -44.2959,  -8.1263,  59.1413,   4.4130
 4976,   6.9392,  12.7577, -44.3052,  -8.0823,  59.1898,   4.3865
 4984,   6.9051,  12.7717, -44.3145,  -8.0383,  59.2382,   4.3601
 4992,   6.8710,  12.7857, -44.3237,  -7.9943,  59.2867,   4.3337
 5000,   6.8369,  12.7998, -44.3328,  -7.9504,  59.3352,   4.3074
 5008,   6.8028,  12.8139, -44.3419,  -7.9065,  59.3837,   4.2811
 5016,   6.7686,  12.8281, -44.3510,  -7.8627,  59.4322,   4.2548
 5032,   6.6662,  12.8709, -44.3779,  -7.7315,  59.5779,   4.1764
 5040,   6.6662,  12.8709, -44.3779,  -7.7315,  59.5779,   4.1764
 5048,   6.6320,  12.8852, -44.3868,  -7.6878,  59.6265,   4.1504
 5056,   6.5979,  12.8996, -44.3957,  -7.6442,  59.6751,   4.1244
 5064,   6.5637,  12.9140, -44.4045,  -7.6006,  59.7237,   4.0985
 5072,   6.5295,  12.9284, -44.4132,  -7.5570,  59.7723,   4.0726
 5080,   6.4953,  12.9429, -44.4220,  -7.5135,  59.8210,   4.0467
 5088,   6.4611,  12.9575, -44.4306,  -7.4700,  59.8696,   4.0210
 5096,   6.4269,  12.9721, -44.4392,  -7.4266,  59.9183,   3.9952
 5104,   6.3927,  12.9867, -44.4478,  -7.3832,  59.9670,   3.9695
 5112,   6.3585,  13.0013, -44.4564,  -7.3399,  60.0157,   3.9439
 5120,   6.3242,  13.0160, -44.4649,  -7.2966,  60.0644,   3.9183
 5128,   6.2900,  13.0307, -44.4733,  -7.2533,  60.1131,   3.8927
 5136,   6.2558,  13.0455, -44.4817,  -7.2101,  60.1618,   3.8673
 5144,   6.2215,  13.0603, -44.4900,  -7.1669,  60.2106,   3.8418
 5160,   6.1187,  13.1050, -44.5148,  -7.0376,  60.3569,   3.7658
 5168,   6.1187,  13.1050, -44.5148,  -7.0376,  60.3569,   3.7658
 5176,   6.0845,  13.1200, -44.5230,  -6.9945,  60.4057,   3.7405
 5184,   6.0502,  13.1350, -44.5311,  -6.9515,  60.4545,   3.7153
 5192,   6.0159,  13.1501, -44.5392,  -6.9086,  60.5034,   3.6902
 5200,   5.9816,  13.1652, -44.5473,  -6.8657,  60.5522,   3.6651
 5208,   5.9473,  13.1803, -44.5553,  -6.8228,  60.6010,   3.6400
 5216,   5.9130,  13.1955, -44.5632,  -6.7800,  60.6499,   3.6150
 5224,   5.8787,  13.2107, -44.5711,  -6.7372,  60.6988,   3.5900
 5232,   5.8443,  13.2259, -44.5790,  -6.6944,  60.7477,   3.5651
 5240,   5.8100,  13.2412, -44.5868,  -6.6517,  60.7966,   3.5403
 5248,   5.7757,  13.2566, -44.5946,  -6.6090,  60.8455,   3.5155
 5256,   5.7413,  13.2719, -44.6023,  -6.5664,  60.8944,   3.4907
 5264,   5.7070,  13.2873, -44.6100,  -6.5238,  60.9433,   3.4660
 5272,   5.6726,  13.3028, -44.6176,  -6.4812,  60.9923,   3.4413
 5288,   5.5695,  13.3494, -44.6402,  -6.3538,  61.1392,   3.3676
 5296,   5.5695,  13.3494, -44.6402,  -6.3538,  61.1392,   3.3676
 5304,   5.5351,  13.3650, -44.6477,  -6.3114,  61.1882,   3.3431
 5312,   5.5008,  13.3806, -44.6551,  -6.2690,  61.2372,   3.3187
 5320,   5.4664,  13.3963, -44.6625,  -6.2267,  61.2862,   3.2943
 5328,   5.4320,  13.4121, -44.6698,  -6.1844,  61.3352,   3.2699
 5336,   5.3976,  13.4278, -44.6771,  -6.1421,  61.3842,   3.2456
 5344,   5.3632,  13.4436, -44.6843,  -6.0999,  61.4333,   3.2214
 5352,   5.3287,  13.4595, -44.6915,  -6.0577,  61.4824,   3.1972
 5360,   5.2943,  13.4754, -44.6986,  -6.0156,  61.5314,   3.1731
 5368,   5.2599,  13.4913, -44.7057,  -5.9735,  61.5805,   3.1489
 5376,   5.2254,  13.5073, -44.7127,  -5.9314,  61.6296,   3.1249
 5384,   5.1910,  13.5233, -44.7198,  -5.8894,  61.6787,   3.1009
 5392,   5.1566,  13.5393, -44.7267,  -5.8474,  61.7278,   3.0769
 5400,   5.1221,  13.5554, -44.7336,  -5.8055,  61.7769,   3.0530
 5416,   5.0187,  13.6039, -44.7541,  -5.6799,  61.9244,   2.9815
 5424,   5.0187,  13.6039, -44.7541,  -5.6799,  61.9244,   2.9815
 5432,   4.9842,  13.6201, -44.7608,  -5.6381,  61.9735,   2.9578
 5440,   4.9498,  13.6364, -44.7675,  -5.5963,  62.0227,   2.9341
 5448,   4.9153,  13.6527, -44.7742,  -5.5546,  62.0719,   2.9105
 5456,   4.8808,  13.6691, -44.7808,  -5.5129,  62.1211,   2.8869
 5464,   4.8463,  13.6854, -44.7873,  -5.4713,  62.1703,   2.8634
 5472,   4.8118,  13.7019, -44.7938,  -5.4296,  62.2195,   2.8399
 5480,   4.7773,  13.7183, -44.8003,  -5.3881,  62.2687,   2.8164
 5488,   4.7428,  13.7349, -44.8067,  -5.3465,  62.3179,   2.7930
 5496,   4.7083,  13.7514, -44.8131,  -5.3050,  62.3672,   2.7696
 5504,   4.6737,  13.7680, -44.8194,  -5.2636,  62.4164,   2.7463
 5512,   4.6392,  13.7846, -44.8257,  -5.2221,  62.4657,   2.7231
 5520,   4.6047,  13.8013, -44.8319,  -5.1808,  62.5149,   2.6998
 5528,   4.5701,  13.8180, -44.8381,  -5.1394,  62.5642,   2.6767
 5544,   4.4665,  13.8683, -44.8564,  -5.0156,  62.7121,   2.6074
 5552,   4.4665,  13.8683, -44.8564,  -5.0156,  62.7121,   2.6074
 5560,   4.4319,  13.8852, -44.8624,  -4.9744,  62.7614,   2.5844
 5568,   4.3974,  13.9021, -44.8683,  -4.9332,  62.8107,   2.5615
 5576,   4.3628,  13.9190, -44.8743,  -4.8921,  62.8601,   2.5385
 5584,   4.3282,  13.9360, -44.8801,  -4.8510,  62.9094,   2.5157
 5592,   4.2937,  13.9530, -44.8859,  -4.8099,  62.9588,   2.4929
 5600,   4.2591,  13.9701, -44.8917,  -4.7689,  63.0081,   2.4701
 5608,   4.2245,  13.9872, -44.8975,  -4.7279,  63.0575,   2.4474
 5616,   4.1899,  14.0043, -44.9032,  -4.6869,  63.1068,   2.4247
 5624,   4.1553,  14.0214, -44.9088,  -4.6460,  63.1562,   2.4021
 5632,   4.1207,  14.0386, -44.9144,  -4.6051,  63.2056,   2.3795
 5640,   4.0861,  14.0559, -44.9200,  -4.5643,  63.2550,   2.3569
 5648,   4.0515,  14.0732, -44.9255,  -4.5235,  63.3044,   2.3344
 5656,   4.0169,  14.0905, -44.9309,  -4.4827,  63.3538,   2.3120
 5672,   3.9130,  14.1427, -44.9470,  -4.3606,  63.5021,   2.2449
 5680,   3.9130,  14.1427, -44.9470,  -4.3606,  63.5021,   2.2449
 5688,   3.8784,  14.1601, -44.9523,  -4.3200,  63.5515,   2.2226
 5696,   3.8437,  14.1776, -44.9575,  -4.2794,  63.6010,   2.2003
 5704,   3.8091,  14.1952, -44.9627,  -4.2388,  63.6504,   2.1782
 5712,   3.7745,  14.2128, -44.9679,  -4.1983,  63.6999,   2.1560
 5720,   3.7398,  14.2304, -44.9730,  -4.1578,  63.7494,   2.1339
 5728,   3.7052,  14.2480, -44.9780,  -4.1174,  63.7988,   2.1118
 5736,   3.6705,  14.2657, -44.9830,  -4.0770,  63.8483,   2.0898
 5744,   3.6358,  14.2835, -44.9880,  -4.0366,  63.8978,   2.0679
 5752,   3.6012,  14.3012, -44.9929,  -3.9962,  63.9473,   2.0459
 5760,   3.5665,  14.3190, -44.9978,  -3.9559,  63.9968,   2.0240
 5768,   3.5318,  14.3369, -45.0026,  -3.9156,  64.0463,   2.0022
 5776,   3.4972,  14.3548, -45.0074,  -3.8754,  64.0958,   1.9804
 5784,   3.4625,  14.3727, -45.0121,  -3.8352,  64.1453,   1.9587
 5800,   3.3584,  14.4267, -45.0260,  -3.7148,  64.2939,   1.8937
 5808,   3.3584,  14.4267, -45.0260,  -3.7148,  64.2939,   1.8937
 5816,   3.3237,  14.4447, -45.0306,  -3.6747,  64.3435,   1.8721
 5824,   3.2890,  14.4629, -45.0351,  -3.6347,  64.3931,   1.8505
 5832,   3.2543,  14.4810, -45.0395,  -3.5947,  64.4426,   1.8290
 5840,   3.2196,  14.4992, -45.0439,  -3.5547,  64.4922,   1.8076
 5848,   3.1849,  14.5174, -45.0483,  -3.5148,  64.5417,   1.7862
 5856,   3.1502,  14.5356, -45.0526,  -3.4749,  64.5913,   1.7648
 5864,   3.1155,  14.5539, -45.0569,  -3.4350,  64.6409,   1.7435
 5872,   3.0808,  14.5723, -45.0611,  -3.3952,  64.6905,   1.7222
 5880,   3.0460,  14.5906, -45.0653,  -3.3554,  64.7401,   1.7010
 5888,   3.0113,  14.6090, -45.0694,  -3.3157,  64.7896,   1.6798
 5896,   2.9766,  14.6275, -45.0735,  -3.2759,  64.8393,   1.6586
 5904,   2.9419,  14.6459, -45.0776,  -3.2363,  64.8889,   1.6375
 5912,   2.9071,  14.6645, -45.0816,  -3.1966,  64.9385,   1.6165
 5928,   2.8029,  14.7202, -45.0933,  -3.0778,  65.0873,   1.5535
 5936,   2.8029,  14.7202, -45.0933,  -3.0778,  65.0873,   1.5535
 5944,   2.7682,  14.7389, -45.0971,  -3.0383,  65.1369,   1.5326
 5952,   2.7334,  14.7576, -45.1009,  -2.9988,  65.1866,   1.5118
 5960,   2.6987,  14.7763, -45.1046,  -2.9594,  65.2362,   1.4909
 5968,   2.6639,  14.7951, -45.1083,  -2.9200,  65.2859,   1.4702
 5976,   2.6291,  14.8139, -45.1119,  -2.8806,  65.3355,   1.4494
 5984,   2.5944,  14.8327, -45.1155,  -2.8412,  65.3852,   1.4287
 5992,   2.5596,  14.8516, -45.1191,  -2.8019,  65.4348,   1.4081
 6000,   2.5249,  14.8705, -45.1226,  -2.7626,  65.4845,   1.3875
 6008,   2.4901,  14.8895, -45.1260,  -2.7234,  65.5341,   1.3669
 6016,   2.4553,  14.9085, -45.1294,  -2.6841,  65.5838,   1.3464
 6024,   2.4205,  14.9275, -45.1328,  -2.6450,  65.6335,   1.3259
 6032,   2.3858,  14.9466, -45.1361,  -2.6058,  65.6831,   1.3055
 6040,   2.3510,  14.9657, -45.1394,  -2.5667,  65.7328,   1.2851
 6056,   2.2466,  15.0232, -45.1489,  -2.4495,  65.8819,   1.2241
 6064,   2.2466,  15.0232, -45.1489,  -2.4495,  65.8819,   1.2241
 6072,   2.2119,  15.0424, -45.1520,  -2.4105,  65.9316,   1.2039
 6080,   2.1771,  15.0617, -45.1550,  -2.3716,  65.9812,   1.1837
 6088,   2.1423,  15.0810, -45.1580,  -2.3327,  66.0309,   1.1636
 6096,   2.1075,  15.1003, -45.1609,  -2.2938,  66.0806,   1.1434
 6104,   2.0727,  15.1197, -45.1638,  -2.2549,  66.1303,   1.1234
 6112,   2.0379,  15.1391, -45.1667,  -2.2161,  66.1800,   1.1033
 6120,   2.0031,  15.1586, -45.1695,  -2.1773,  66.2297,   1.0833
 6128,   1.9683,  15.1781, -45.1723,  -2.1386,  66.2795,   1.0634
 6136,   1.9335,  15.1976, -45.1750,  -2.0998,  66.3292,   1.0435
 6144,   1.8987,  15.2172, -45.1776,  -2.0611,  66.3789,   1.0236
 6152,   1.8639,  15.2368, -45.1803,  -2.0225,  66.4286,   1.0038
 6160,   1.8290,  15.2564, -45.1828,  -1.9838,  66.4783,    .9840
 6168,   1.7942,  15.2761, -45.1854,  -1.9453,  66.5280,    .9642
 6184,   1.6898,  15.3353, -45.1927,  -1.8297,  66.6772,    .9052
 6192,   1.6898,  15.3353, -45.1927,  -1.8297,  66.6772,    .9052
 6200,   1.6550,  15.3551, -45.1951,  -1.7912,  66.7269,    .8856
 6208,   1.6202,  15.3750, -45.1973,  -1.7528,  66.7767,    .8661
 6216,   1.5853,  15.3948, -45.1996,  -1.7144,  66.8264,    .8466
 6224,   1.5505,  15.4148, -45.2018,  -1.6760,  66.8761,    .8271
 6232,   1.5157,  15.4347, -45.2040,  -1.6376,  66.9259,    .8077
 6240,   1.4809,  15.4547, -45.2061,  -1.5993,  66.9756,    .7883
 6248,   1.4460,  15.4747, -45.2082,  -1.5611,  67.0253,    .7689
 6256,   1.4112,  15.4948, -45.2102,  -1.5228,  67.0751,    .7496
 6264,   1.3764,  15.5149, -45.2122,  -1.4846,  67.1248,    .7304
 6272,   1.3415,  15.5350, -45.2141,  -1.4464,  67.1746,    .7111
 6280,   1.3067,  15.5552, -45.2160,  -1.4083,  67.2243,    .6919
 6288,   1.2719,  15.5754, -45.2178,  -1.3701,  67.2740,    .6728
 6296,   1.2370,  15.5956, -45.2196,  -1.3321,  67.3238,    .6537
 6312,   1.1325,  15.6565, -45.2248,  -1.2180,  67.4730,    .5966
 6320,   1.1325,  15.6565, -45.2248,  -1.2180,  67.4730,    .5966
 6328,   1.0977,  15.6769, -45.2264,  -1.1800,  67.5228,    .5776
 6336,   1.0628,  15.6973, -45.2279,  -1.1421,  67.5725,    .5587
 6344,   1.0280,  15.7177, -45.2294,  -1.1042,  67.6223,    .5398
 6352,    .9931,  15.7382, -45.2309,  -1.0663,  67.6720,    .5210
 6360,    .9583,  15.7587, -45.2323,  -1.0285,  67.7217,    .5022
 6368,    .9234,  15.7792, -45.2337,   -.9906,  67.7715,    .4834
 6376,    .8886,  15.7998, -45.2351,   -.9529,  67.8212,    .4647
 6384,    .8537,  15.8204, -45.2364,   -.9151,  67.8710,    .4460
 6392,    .8189,  15.8410, -45.2376,   -.8774,  67.9207,    .4273
 6400,    .7840,  15.8617, -45.2388,   -.8397,  67.9705,    .4087
 6408,    .7492,  15.8824, -45.2399,   -.8021,  68.0202,    .3901
 6416,    .7143,  15.9032, -45.2410,   -.7645,  68.0700,    .3716
 6424,    .6795,  15.9240, -45.2421,   -.7269,  68.1197,    .3531
 6440,    .5752,  15.9872, -45.2440,   -.6145,  68.2687,    .2980
 6448,    .5752,  15.9872, -45.2440,   -.6145,  68.2687,    .2980
 6456,    .5405,  16.0086, -45.2442,   -.5772,  68.3182,    .2797
 6464,    .5058,  16.0303, -45.2440,   -.5400,  68.3677,    .2615
 6472,    .4712,  16.0522, -45.2435,   -.5029,  68.4170,    .2434
 6480,    .4368,  16.0745, -45.2426,   -.4659,  68.4663,    .2253
 6488,    .4024,  16.0971, -45.2411,   -.4290,  68.5155,    .2074
 6496,    .3681,  16.1200, -45.2392,   -.3923,  68.5645,    .1895
 6504,    .3339,  16.1434, -45.2367,   -.3557,  68.6134,    .1717
 6512,    .2998,  16.1672, -45.2336,   -.3193,  68.6621,    .1540
 6520,    .2659,  16.1914, -45.2298,   -.2830,  68.7106,    .1365
 6528,    .2321,  16.2162, -45.2254,   -.2470,  68.7590,    .1190
 6536,    .1984,  16.2415, -45.2202,   -.2111,  68.8071,    .1016
 6544,    .1650,  16.2674, -45.2142,   -.1754,  68.8551,    .0844
 6552,    .1317,  16.2938, -45.2073,   -.1400,  68.9028,    .0673
 6568,    .0329,  16.3772, -45.1813,   -.0350,  69.0444,    .0168
 6576,    .0329,  16.3772, -45.1813,   -.0350,  69.0444,    .0168
 6584,    .0005,  16.4064, -45.1706,   -.0005,  69.0911,    .0002
 6592,   -.0317,  16.4363, -45.1590,    .0336,  69.1375,   -.0161
 6600,   -.0637,  16.4669, -45.1463,    .0676,  69.1836,   -.0324
 6608,   -.0956,  16.4982, -45.1327,    .1013,  69.2294,   -.0485
 6616,   -.1272,  16.5301, -45.1183,    .1348,  69.2750,   -.0646
 6624,   -.1587,  16.5626, -45.1030,    .1681,  69.3204,   -.0805
 6632,   -.1900,  16.5956, -45.0869,    .2012,  69.3655,   -.0963
 6640,   -.2211,  16.6292, -45.0700,    .2340,  69.4104,   -.1120
 6648,   -.2520,  16.6633, -45.0525,    .2667,  69.4551,   -.1275
 6656,   -.2828,  16.6978, -45.0343,    .2992,  69.4996,   -.1430
 6664,   -.3135,  16.7327, -45.0155,    .3315,  69.5439,   -.1584
 6672,   -.3440,  16.7680, -44.9962,    .3637,  69.5881,   -.1737
 6680,   -.3745,  16.8036, -44.9763,    .3957,  69.6321,   -.1889
 6696,   -.4651,  16.9123, -44.9141,    .4909,  69.7633,   -.2340
 6704,   -.4651,  16.9123, -44.9141,    .4909,  69.7633,   -.2340
 6712,   -.4951,  16.9490, -44.8927,    .5225,  69.8068,   -.2489
 6720,   -.5251,  16.9859, -44.8710,    .5539,  69.8503,   -.2638
 6728,   -.5550,  17.0229, -44.8491,    .5852,  69.8936,   -.2786
 6736,   -.5848,  17.0600, -44.8270,    .6165,  69.9369,   -.2934
 6744,   -.6147,  17.0972, -44.8047,    .6477,  69.9801,   -.3081
 6752,   -.6444,  17.1344, -44.7824,    .6789,  70.0233,   -.3228
 6760,   -.6742,  17.1717, -44.7600,    .7100,  70.0665,   -.3374
 6768,   -.7040,  17.2090, -44.7376,    .7410,  70.1096,   -.3520
 6776,   -.7337,  17.2462, -44.7151,    .7721,  70.1528,   -.3666
 6784,   -.7634,  17.2835, -44.6926,    .8031,  70.1959,   -.3812
 6792,   -.7931,  17.3208, -44.6701,    .8340,  70.2389,   -.3957
 6800,   -.8228,  17.3581, -44.6475,    .8649,  70.2820,   -.4102
 6808,   -.8524,  17.3955, -44.6249,    .8958,  70.3250,   -.4247
 6824,   -.9412,  17.5075, -44.5567,    .9881,  70.4539,   -.4679
 6832,   -.9412,  17.5075, -44.5567,    .9881,  70.4539,   -.4679
 6840,   -.9708,  17.5448, -44.5339,   1.0189,  70.4969,   -.4822
 6848,  -1.0004,  17.5822, -44.5111,   1.0495,  70.5398,   -.4965
 6856,  -1.0299,  17.6195, -44.4882,   1.0802,  70.5826,   -.5108
 6864,  -1.0595,  17.6569, -44.4653,   1.1107,  70.6255,   -.5251
 6872,  -1.0890,  17.6943, -44.4424,   1.1413,  70.6683,   -.5393
 6880,  -1.1184,  17.7317, -44.4193,   1.1718,  70.7111,   -.5535
 6888,  -1.1479,  17.7691, -44.3963,   1.2022,  70.7539,   -.5676
 6896,  -1.1773,  17.8066, -44.3732,   1.2327,  70.7966,   -.5818
 6904,  -1.2067,  17.8440, -44.3501,   1.2630,  70.8394,   -.5959
 6912,  -1.2361,  17.8814, -44.3269,   1.2934,  70.8821,   -.6099
 6920,  -1.2655,  17.9189, -44.3037,   1.3237,  70.9247,   -.6240
 6928,  -1.2949,  17.9563, -44.2805,   1.3539,  70.9674,   -.6380
 6936,  -1.3242,  17.9938, -44.2572,   1.3842,  71.0100,   -.6520
 6952,  -1.4121,  18.1062, -44.1871,   1.4746,  71.1377,   -.6937
 6960,  -1.4121,  18.1062, -44.1871,   1.4746,  71.1377,   -.6937
 6968,  -1.4414,  18.1437, -44.1636,   1.5046,  71.1802,   -.7076
 6976,  -1.4706,  18.1812, -44.1401,   1.5347,  71.2227,   -.7214
 6984,  -1.4999,  18.2187, -44.1166,   1.5647,  71.2652,   -.7352
 6992,  -1.5291,  18.2563, -44.0930,   1.5946,  71.3076,   -.7490
 7000,  -1.5583,  18.2938, -44.0694,   1.6245,  71.3500,   -.7628
 7008,  -1.5874,  18.3313, -44.0458,   1.6544,  71.3924,   -.7765
 7016,  -1.6166,  18.3689, -44.0221,   1.6842,  71.4348,   -.7902
 7024,  -1.6457,  18.4065, -43.9983,   1.7140,  71.4771,   -.8039
 7032,  -1.6748,  18.4440, -43.9746,   1.7437,  71.5194,   -.8175
 7040,  -1.7039,  18.4816, -43.9507,   1.7735,  71.5617,   -.8311
 7048,  -1.7330,  18.5192, -43.9269,   1.8031,  71.6040,   -.8447
 7056,  -1.7620,  18.5568, -43.9030,   1.8328,  71.6462,   -.8582
 7064,  -1.7911,  18.5944, -43.8790,   1.8624,  71.6884,   -.8718
 7080,  -1.8781,  18.7072, -43.8070,   1.9509,  71.8148,   -.9122
 7088,  -1.8781,  18.7072, -43.8070,   1.9509,  71.8148,   -.9122
 7096,  -1.9070,  18.7448, -43.7829,   1.9804,  71.8569,   -.9256
 7104,  -1.9359,  18.7825, -43.7587,   2.0098,  71.8990,   -.9390
 7112,  -1.9649,  18.8201, -43.7345,   2.0391,  71.9411,   -.9524
 7120,  -1.9938,  18.8578, -43.7103,   2.0685,  71.9831,   -.9657
 7128,  -2.0226,  18.8954, -43.6860,   2.0977,  72.0251,   -.9790
 7136,  -2.0515,  18.9331, -43.6617,   2.1270,  72.0670,   -.9923
 7144,  -2.0803,  18.9708, -43.6374,   2.1562,  72.1089,  -1.0056
 7152,  -2.1091,  19.0084, -43.6130,   2.1854,  72.1509,  -1.0188
 7160,  -2.1380,  19.0461, -43.5886,   2.2145,  72.1927,  -1.0320
 7168,  -2.1667,  19.0838, -43.5641,   2.2436,  72.2346,  -1.0452
 7176,  -2.1955,  19.1215, -43.5396,   2.2727,  72.2764,  -1.0583
 7184,  -2.2242,  19.1592, -43.5150,   2.3017,  72.3182,  -1.0715
 7192,  -2.2530,  19.1970, -43.4904,   2.3307,  72.3600,  -1.0845
 7208,  -2.3390,  19.3102, -43.4164,   2.4174,  72.4851,  -1.1237
 7216,  -2.3390,  19.3102, -43.4164,   2.4174,  72.4851,  -1.1237
 7224,  -2.3676,  19.3479, -43.3917,   2.4463,  72.5268,  -1.1367
 7232,  -2.3963,  19.3857, -43.3669,   2.4751,  72.5684,  -1.1496
 7240,  -2.4249,  19.4234, -43.3420,   2.5038,  72.6100,  -1.1626
 7248,  -2.4535,  19.4612, -43.3172,   2.5326,  72.6516,  -1.1755
 7256,  -2.4820,  19.4990, -43.2922,   2.5613,  72.6931,  -1.1884
 7264,  -2.5106,  19.5367, -43.2673,   2.5899,  72.7347,  -1.2013
 7272,  -2.5391,  19.5745, -43.2423,   2.6185,  72.7761,  -1.2141
 7280,  -2.5676,  19.6123, -43.2173,   2.6471,  72.8176,  -1.2269
 7288,  -2.5961,  19.6501, -43.1922,   2.6756,  72.8590,  -1.2397
 7296,  -2.6246,  19.6879, -43.1671,   2.7042,  72.9004,  -1.2525
 7304,  -2.6530,  19.7258, -43.1419,   2.7326,  72.9418,  -1.2652
 7312,  -2.6814,  19.7636, -43.1167,   2.7610,  72.9832,  -1.2780
 7320,  -2.7098,  19.8014, -43.0915,   2.7894,  73.0245,  -1.2906
 7336,  -2.7950,  19.9149, -43.0155,   2.8744,  73.1483,  -1.3286
 7344,  -2.7950,  19.9149, -43.0155,   2.8744,  73.1483,  -1.3286
 7352,  -2.8233,  19.9528, -42.9901,   2.9027,  73.1895,  -1.3412
 7360,  -2.8516,  19.9907, -42.9647,   2.9309,  73.2307,  -1.3537
 7368,  -2.8799,  20.0285, -42.9392,   2.9590,  73.2718,  -1.3663
 7376,  -2.9082,  20.0664, -42.9137,   2.9872,  73.3130,  -1.3788
 7384,  -2.9364,  20.1043, -42.8881,   3.0153,  73.3540,  -1.3913
 7392,  -2.9646,  20.1422, -42.8625,   3.0433,  73.3951,  -1.4038
 7400,  -2.9929,  20.1801, -42.8369,   3.0714,  73.4361,  -1.4162
 7408,  -3.0210,  20.2180, -42.8112,   3.0994,  73.4771,  -1.4287
 7416,  -3.0492,  20.2559, -42.7855,   3.1273,  73.5181,  -1.4411
 7424,  -3.0774,  20.2938, -42.7597,   3.1552,  73.5591,  -1.4534
 7432,  -3.1055,  20.3317, -42.7339,   3.1831,  73.6000,  -1.4658
 7440,  -3.1336,  20.3696, -42.7081,   3.2110,  73.6409,  -1.4781
 7448,  -3.1617,  20.4076, -42.6822,   3.2388,  73.6817,  -1.4904
 7464,  -3.2459,  20.5214, -42.6043,   3.3220,  73.8042,  -1.5272
 7472,  -3.2459,  20.5214, -42.6043,   3.3220,  73.8042,  -1.5272
 7480,  -3.2739,  20.5593, -42.5783,   3.3497,  73.8449,  -1.5395
 7488,  -3.3019,  20.5973, -42.5522,   3.3773,  73.8856,  -1.5517
 7496,  -3.3298,  20.6353, -42.5261,   3.4049,  73.9263,  -1.5638
 7504,  -3.3578,  20.6732, -42.4999,   3.4325,  73.9670,  -1.5760
 7512,  -3.3857,  20.7112, -42.4737,   3.4600,  74.0076,  -1.5881
 7520,  -3.4136,  20.7492, -42.4475,   3.4875,  74.0482,  -1.6002
 7528,  -3.4415,  20.7872, -42.4212,   3.5150,  74.0888,  -1.6123
 7536,  -3.4694,  20.8251, -42.3949,   3.5424,  74.1293,  -1.6244
 7544,  -3.4973,  20.8632, -42.3685,   3.5698,  74.1698,  -1.6364
 7552,  -3.5251,  20.9012, -42.3421,   3.5971,  74.2103,  -1.6484
 7560,  -3.5529,  20.9392, -42.3157,   3.6244,  74.2507,  -1.6604
 7568,  -3.5807,  20.9772, -42.2892,   3.6517,  74.2911,  -1.6724
 7576,  -3.6085,  21.0152, -42.2627,   3.6790,  74.3315,  -1.6844
 7592,  -3.6917,  21.1293, -42.1829,   3.7605,  74.4525,  -1.7201
 7600,  -3.6917,  21.1293, -42.1829,   3.7605,  74.4525,  -1.7201
 7608,  -3.7194,  21.1673, -42.1562,   3.7876,  74.4928,  -1.7320
 7616,  -3.7470,  21.2054, -42.1295,   3.8147,  74.5331,  -1.7438
 7624,  -3.7747,  21.2434, -42.1028,   3.8417,  74.5733,  -1.7556
 7632,  -3.8023,  21.2815, -42.0760,   3.8687,  74.6134,  -1.7674
 7640,  -3.8300,  21.3195, -42.0491,   3.8957,  74.6536,  -1.7792
 7648,  -3.8575,  21.3576, -42.0223,   3.9226,  74.6937,  -1.7910
 7656,  -3.8851,  21.3957, -41.9953,   3.9495,  74.7338,  -1.8027
 7664,  -3.9127,  21.4337, -41.9684,   3.9764,  74.7738,  -1.8144
 7672,  -3.9402,  21.4718, -41.9414,   4.0032,  74.8139,  -1.8261
 7680,  -3.9677,  21.5099, -41.9144,   4.0300,  74.8539,  -1.8378
 7688,  -3.9952,  21.5480, -41.8873,   4.0568,  74.8938,  -1.8495
 7696,  -4.0227,  21.5861, -41.8602,   4.0835,  74.9338,  -1.8611
 7704,  -4.0502,  21.6242, -41.8330,   4.1102,  74.9737,  -1.8727
 7720,  -4.1324,  21.7385, -41.7513,   4.1901,  75.0932,  -1.9075
 7728,  -4.1324,  21.7385, -41.7513,   4.1901,  75.0932,  -1.9075
 7736,  -4.1598,  21.7766, -41.7240,   4.2166,  75.1330,  -1.9190
 7744,  -4.1872,  21.8148, -41.6967,   4.2431,  75.1728,  -1.9305
 7752,  -4.2145,  21.8529, -41.6693,   4.2696,  75.2125,  -1.9420
 7760,  -4.2418,  21.8910, -41.6419,   4.2961,  75.2522,  -1.9535
 7768,  -4.2691,  21.9291, -41.6144,   4.3225,  75.2918,  -1.9650
 7776,  -4.2964,  21.9673, -41.5869,   4.3489,  75.3315,  -1.9764
 7784,  -4.3237,  22.0054, -41.5594,   4.3753,  75.3711,  -1.9878
 7792,  -4.3509,  22.0436, -41.5318,   4.4016,  75.4106,  -1.9992
 7800,  -4.3781,  22.0817, -41.5041,   4.4279,  75.4502,  -2.0106
 7808,  -4.4053,  22.1199, -41.4765,   4.4541,  75.4897,  -2.0220
 7816,  -4.4325,  22.1581, -41.4488,   4.4803,  75.5292,  -2.0333
 7824,  -4.4596,  22.1962, -41.4210,   4.5065,  75.5686,  -2.0447
 7832,  -4.4868,  22.2344, -41.3932,   4.5327,  75.6080,  -2.0560
 7848,  -4.5681,  22.3489, -41.3097,   4.6109,  75.7261,  -2.0898
 7856,  -4.5681,  22.3489, -41.3097,   4.6109,  75.7261,  -2.0898
 7864,  -4.5951,  22.3871, -41.2817,   4.6369,  75.7654,  -2.1010
 7872,  -4.6222,  22.4253, -41.2538,   4.6629,  75.8046,  -2.1122
 7880,  -4.6492,  22.4635, -41.2257,   4.6889,  75.8438,  -2.1234
 7888,  -4.6762,  22.5017, -41.1977,   4.7148,  75.8830,  -2.1346
 7896,  -4.7032,  22.5399, -41.1696,   4.7407,  75.9222,  -2.1457
 7904,  -4.7301,  22.5781, -41.1415,   4.7665,  75.9613,  -2.1569
 7912,  -4.7571,  22.6163, -41.1133,   4.7924,  76.0004,  -2.1680
 7920,  -4.7840,  22.6545, -41.0851,   4.8181,  76.0395,  -2.1791
 7928,  -4.8109,  22.6927, -41.0568,   4.8439,  76.0785,  -2.1902
 7936,  -4.8378,  22.7310, -41.0285,   4.8696,  76.1175,  -2.2013
 7944,  -4.8646,  22.7692, -41.0002,   4.8953,  76.1565,  -2.2123
 7952,  -4.8915,  22.8074, -40.9718,   4.9210,  76.1955,  -2.2233
 7960,  -4.9183,  22.8457, -40.9434,   4.9466,  76.2344,  -2.2343
 7976,  -4.9986,  22.9604, -40.8580,   5.0232,  76.3509,  -2.2673
 7984,  -4.9986,  22.9604, -40.8580,   5.0232,  76.3509,  -2.2673
 7992,  -5.0253,  22.9986, -40.8294,   5.0487,  76.3897,  -2.2782
 8000,  -5.0521,  23.0369, -40.8008,   5.0742,  76.4285,  -2.2892
 8008,  -5.0788,  23.0751, -40.7722,   5.0996,  76.4672,  -2.3001
 8016,  -5.1054,  23.1134, -40.7435,   5.1250,  76.5059,  -2.3110
 8024,  -5.1321,  23.1516, -40.7148,   5.1504,  76.5445,  -2.3218
 8032,  -5.1587,  23.1899, -40.6860,   5.1757,  76.5832,  -2.3327
 8040,  -5.1853,  23.2282, -40.6572,   5.2010,  76.6218,  -2.3435
 8048,  -5.2119,  23.2664, -40.6284,   5.2262,  76.6603,  -2.3544
 8056,  -5.2385,  23.3047, -40.5995,   5.2515,  76.6988,  -2.3652
 8064,  -5.2651,  23.3430, -40.5706,   5.2767,  76.7373,  -2.3760
 8072,  -5.2916,  23.3813, -40.5417,   5.3018,  76.7758,  -2.3867
 8080,  -5.3181,  23.4196, -40.5127,   5.3270,  76.8142,  -2.3975
 8088,  -5.3446,  23.4579, -40.4836,   5.3521,  76.8527,  -2.4083
 8104,  -5.4240,  23.5727, -40.3963,   5.4272,  76.9677,  -2.4404
 8112,  -5.4240,  23.5727, -40.3963,   5.4272,  76.9677,  -2.4404
 8120,  -5.4504,  23.6110, -40.3671,   5.4522,  77.0059,  -2.4511
 8128,  -5.4768,  23.6493, -40.3379,   5.4771,  77.0442,  -2.4617
 8136,  -5.5032,  23.6876, -40.3086,   5.5020,  77.0824,  -2.4724
 8144,  -5.5295,  23.7260, -40.2793,   5.5269,  77.1206,  -2.4830
 8152,  -5.5559,  23.7643, -40.2500,   5.5517,  77.1587,  -2.4936
 8160,  -5.5822,  23.8026, -40.2206,   5.5766,  77.1968,  -2.5042
 8168,  -5.6085,  23.8409, -40.1912,   5.6013,  77.2349,  -2.5148
 8176,  -5.6348,  23.8792, -40.1618,   5.6261,  77.2729,  -2.5254
 8184,  -5.6610,  23.9176, -40.1323,   5.6508,  77.3110,  -2.5359
 8192,  -5.6873,  23.9559, -40.1027,   5.6755,  77.3489,  -2.5465
 8200,  -5.7135,  23.9942, -40.0732,   5.7002,  77.3869,  -2.5570
 8208,  -5.7397,  24.0325, -40.0435,   5.7248,  77.4248,  -2.5675
 8216,  -5.7659,  24.0709, -40.0139,   5.7494,  77.4627,  -2.5780
 8232,  -5.8443,  24.1859, -39.9247,   5.8230,  77.5761,  -2.6094
 8240,  -5.8443,  24.1859, -39.9247,   5.8230,  77.5761,  -2.6094
 8248,  -5.8704,  24.2242, -39.8949,   5.8474,  77.6139,  -2.6198
 8256,  -5.8964,  24.2626, -39.8651,   5.8719,  77.6516,  -2.6302
 8264,  -5.9225,  24.3009, -39.8352,   5.8963,  77.6893,  -2.6406
 8272,  -5.9485,  24.3393, -39.8053,   5.9206,  77.7270,  -2.6510
 8280,  -5.9746,  24.3777, -39.7753,   5.9450,  77.7646,  -2.6614
 8288,  -6.0005,  24.4160, -39.7453,   5.9693,  77.8022,  -2.6718
 8296,  -6.0265,  24.4544, -39.7153,   5.9936,  77.8397,  -2.6821
 8304,  -6.0525,  24.4927, -39.6852,   6.0178,  77.8773,  -2.6924
 8312,  -6.0784,  24.5311, -39.6551,   6.0420,  77.9148,  -2.7028
 8320,  -6.1043,  24.5695, -39.6250,   6.0662,  77.9522,  -2.7131
 8328,  -6.1302,  24.6079, -39.5948,   6.0904,  77.9896,  -2.7233
 8336,  -6.1561,  24.6462, -39.5646,   6.1145,  78.0270,  -2.7336
 8344,  -6.1820,  24.6846, -39.5343,   6.1386,  78.0644,  -2.7439
 8360,  -6.2594,  24.7997, -39.4433,   6.2107,  78.1763,  -2.7746
 8368,  -6.2594,  24.7997, -39.4433,   6.2107,  78.1763,  -2.7746
 8376,  -6.2852,  24.8381, -39.4129,   6.2347,  78.2135,  -2.7848
 8384,  -6.3109,  24.8765, -39.3824,   6.2586,  78.2507,  -2.7950
 8392,  -6.3367,  24.9149, -39.3519,   6.2825,  78.2879,  -2.8052
 8400,  -6.3624,  24.9533, -39.3214,   6.3064,  78.3250,  -2.8153
 8408,  -6.3881,  24.9917, -39.2908,   6.3302,  78.3621,  -2.8255
 8416,  -6.4138,  25.0301, -39.2602,   6.3540,  78.3992,  -2.8356
 8424,  -6.4394,  25.0685, -39.2296,   6.3778,  78.4362,  -2.8458
 8432,  -6.4651,  25.1069, -39.1989,   6.4016,  78.4732,  -2.8559
 8440,  -6.4907,  25.1453, -39.1682,   6.4253,  78.5102,  -2.8660
 8448,  -6.5163,  25.1837, -39.1374,   6.4490,  78.5471,  -2.8760
 8456,  -6.5419,  25.2221, -39.1066,   6.4727,  78.5840,  -2.8861
 8464,  -6.5674,  25.2605, -39.0758,   6.4963,  78.6209,  -2.8962
 8472,  -6.5929,  25.2989, -39.0449,   6.5199,  78.6577,  -2.9062
 8488,  -6.6694,  25.4142, -38.9521,   6.5905,  78.7680,  -2.9363
 8496,  -6.6694,  25.4142, -38.9521,   6.5905,  78.7680,  -2.9363
 8504,  -6.6949,  25.4526, -38.9210,   6.6140,  78.8047,  -2.9463
 8512,  -6.7203,  25.4910, -38.8900,   6.6374,  78.8413,  -2.9563
 8520,  -6.7457,  25.5294, -38.8589,   6.6608,  78.8780,  -2.9663
 8528,  -6.7711,  25.5679, -38.8277,   6.6842,  78.9146,  -2.9762
 8536,  -6.7965,  25.6063, -38.7966,   6.7076,  78.9511,  -2.9862
 8544,  -6.8218,  25.6447, -38.7653,   6.7309,  78.9877,  -2.9961
 8552,  -6.8472,  25.6831, -38.7341,   6.7542,  79.0242,  -3.0060
 8560,  -6.8725,  25.7216, -38.7028,   6.7775,  79.0606,  -3.0159
 8568,  -6.8978,  25.7600, -38.6715,   6.8007,  79.0971,  -3.0258
 8576,  -6.9231,  25.7984, -38.6401,   6.8239,  79.1335,  -3.0357
 8584,  -6.9483,  25.8369, -38.6087,   6.8471,  79.1698,  -3.0456
 8592,  -6.9735,  25.8753, -38.5772,   6.8702,  79.2061,  -3.0555
 8600,  -6.9988,  25.9138, -38.5458,   6.8934,  79.2424,  -3.0653
 8616,  -7.0743,  26.0291, -38.4511,   6.9625,  79.3511,  -3.0948
 8624,  -7.0743,  26.0291, -38.4511,   6.9625,  79.3511,  -3.0948
 8632,  -7.0994,  26.0675, -38.4195,   6.9855,  79.3873,  -3.1046
 8640,  -7.1245,  26.1060, -38.3878,   7.0085,  79.4234,  -3.1144
 8648,  -7.1496,  26.1444, -38.3561,   7.0314,  79.4595,  -3.1242
 8656,  -7.1747,  26.1829, -38.3243,   7.0543,  79.4956,  -3.1340
 8664,  -7.1998,  26.2213, -38.2925,   7.0772,  79.5316,  -3.1437
 8672,  -7.2248,  26.2598, -38.2607,   7.1001,  79.5676,  -3.1535
 8680,  -7.2498,  26.2983, -38.2289,   7.1229,  79.6036,  -3.1632
 8688,  -7.2748,  26.3367, -38.1970,   7.1457,  79.6395,  -3.1730
 8696,  -7.2998,  26.3752, -38.1650,   7.1684,  79.6754,  -3.1827
 8704,  -7.3247,  26.4136, -38.1331,   7.1912,  79.7113,  -3.1924
 8712,  -7.3497,  26.4521, -38.1010,   7.2139,  79.7471,  -3.2021
 8720,  -7.3746,  26.4906, -38.0690,   7.2365,  79.7829,  -3.2118
 8728,  -7.3995,  26.5290, -38.0369,   7.2592,  79.8186,  -3.2214
 8744,  -7.4740,  26.6444, -37.9404,   7.3269,  79.9257,  -3.2504
 8752,  -7.4740,  26.6444, -37.9404,   7.3269,  79.9257,  -3.2504
 8760,  -7.4989,  26.6829, -37.9082,   7.3495,  79.9613,  -3.2600
 8768,  -7.5237,  26.7214, -37.8759,   7.3720,  79.9969,  -3.2697
 8776,  -7.5484,  26.7598, -37.8436,   7.3944,  80.0324,  -3.2793
 8784,  -7.5732,  26.7983, -37.8113,   7.4169,  80.0680,  -3.2889
 8792,  -7.5979,  26.8368, -37.7789,   7.4393,  80.1035,  -3.2985
 8800,  -7.6226,  26.8753, -37.7464,   7.4616,  80.1389,  -3.3081
 8808,  -7.6473,  26.9137, -37.7140,   7.4840,  80.1743,  -3.3176
 8816,  -7.6720,  26.9522, -37.6815,   7.5063,  80.2097,  -3.3272
 8824,  -7.6967,  26.9907, -37.6489,   7.5286,  80.2451,  -3.3368
 8832,  -7.7213,  27.0292, -37.6164,   7.5509,  80.2804,  -3.3463
 8840,  -7.7459,  27.0677, -37.5837,   7.5731,  80.3157,  -3.3558
 8848,  -7.7705,  27.1062, -37.5511,   7.5953,  80.3509,  -3.3654
 8856,  -7.7951,  27.1446, -37.5184,   7.6175,  80.3861,  -3.3749
 8872,  -7.8687,  27.2601, -37.4201,   7.6838,  80.4916,  -3.4034
 8880,  -7.8687,  27.2601, -37.4201,   7.6838,  80.4916,  -3.4034
 8888,  -7.8932,  27.2986, -37.3873,   7.7059,  80.5266,  -3.4129
 8896,  -7.9177,  27.3371, -37.3544,   7.7279,  80.5617,  -3.4223
 8904,  -7.9421,  27.3756, -37.3215,   7.7499,  80.5967,  -3.4318
 8912,  -7.9666,  27.4141, -37.2885,   7.7719,  80.6317,  -3.4412
 8920,  -7.9910,  27.4526, -37.2555,   7.7938,  80.6666,  -3.4507
 8928,  -8.0154,  27.4911, -37.2225,   7.8157,  80.7015,  -3.4601
 8936,  -8.0398,  27.5295, -37.1895,   7.8376,  80.7364,  -3.4695
 8944,  -8.0641,  27.5680, -37.1564,   7.8595,  80.7712,  -3.4790
 8952,  -8.0885,  27.6065, -37.1232,   7.8813,  80.8060,  -3.4884
 8960,  -8.1128,  27.6450, -37.0900,   7.9031,  80.8408,  -3.4978
 8968,  -8.1371,  27.6835, -37.0568,   7.9249,  80.8755,  -3.5072
 8976,  -8.1614,  27.7220, -37.0236,   7.9466,  80.9102,  -3.5165
 8984,  -8.1856,  27.7605, -36.9903,   7.9683,  80.9449,  -3.5259
 9000,  -8.2583,  27.8760, -36.8902,   8.0333,  81.0487,  -3.5540
 9008,  -8.2583,  27.8760, -36.8902,   8.0333,  81.0487,  -3.5540
 9016,  -8.2825,  27.9146, -36.8568,   8.0549,  81.0832,  -3.5633
 9024,  -8.3066,  27.9531, -36.8233,   8.0765,  81.1177,  -3.5726
 9032,  -8.3308,  27.9916, -36.7898,   8.0980,  81.1522,  -3.5820
 9040,  -8.3549,  28.0301, -36.7562,   8.1195,  81.1866,  -3.5913
 9048,  -8.3790,  28.0686, -36.7226,   8.1410,  81.2210,  -3.6006
 9056,  -8.4030,  28.1071, -36.6890,   8.1625,  81.2554,  -3.6099
 9064,  -8.4271,  28.1456, -36.6554,   8.1839,  81.2897,  -3.6192
 9072,  -8.4511,  28.1841, -36.6217,   8.2053,  81.3240,  -3.6284
 9080,  -8.4752,  28.2226, -36.5879,   8.2266,  81.3582,  -3.6377
 9088,  -8.4992,  28.2611, -36.5542,   8.2480,  81.3925,  -3.6470
 9096,  -8.5231,  28.2996, -36.5204,   8.2693,  81.4266,  -3.6562
 9104,  -8.5471,  28.3381, -36.4865,   8.2906,  81.4608,  -3.6655
 9112,  -8.5710,  28.3767, -36.4526,   8.3118,  81.4949,  -3.6747
 9128,  -8.6427,  28.4922, -36.3507,   8.3754,  81.5971,  -3.7024
 9136,  -8.6427,  28.4922, -36.3507,   8.3754,  81.5971,  -3.7024
 9144,  -8.6666,  28.5307, -36.3167,   8.3966,  81.6311,  -3.7116
 9152,  -8.6905,  28.5692, -36.2826,   8.4177,  81.6650,  -3.7208
 9160,  -8.7143,  28.6077, -36.2485,   8.4388,  81.6989,  -3.7300
 9168,  -8.7381,  28.6463, -36.2144,   8.4598,  81.7328,  -3.7392
 9176,  -8.7619,  28.6848, -36.1802,   8.4809,  81.7666,  -3.7484
 9184,  -8.7856,  28.7233, -36.1460,   8.5019,  81.8004,  -3.7576
 9192,  -8.8094,  28.7618, -36.1117,   8.5229,  81.8342,  -3.7668
 9200,  -8.8331,  28.8003, -36.0774,   8.5438,  81.8679,  -3.7759
 9208,  -8.8568,  28.8389, -36.0431,   8.5647,  81.9016,  -3.7851
 9216,  -8.8805,  28.8774, -36.0087,   8.5856,  81.9353,  -3.7942
 9224,  -8.9041,  28.9159, -35.9743,   8.6065,  81.9689,  -3.8034
 9232,  -8.9278,  28.9544, -35.9399,   8.6273,  82.0026,  -3.8125
 9240,  -8.9514,  28.9930, -35.9054,   8.6481,  82.0361,  -3.8217
 9256,  -9.0222,  29.1085, -35.8018,   8.7104,  82.1366,  -3.8490
 9264,  -9.0222,  29.1085, -35.8018,   8.7104,  82.1366,  -3.8490
 9272,  -9.0457,  29.1471, -35.7671,   8.7311,  82.1701,  -3.8581
 9280,  -9.0692,  29.1856, -35.7325,   8.7517,  82.2034,  -3.8672
 9288,  -9.0928,  29.2241, -35.6978,   8.7724,  82.2368,  -3.8763
 9296,  -9.1162,  29.2626, -35.6631,   8.7930,  82.2701,  -3.8854
 9304,  -9.1397,  29.3012, -35.6283,   8.8136,  82.3034,  -3.8945
 9312,  -9.1632,  29.3397, -35.5935,   8.8341,  82.3367,  -3.9035
 9320,  -9.1866,  29.3782, -35.5586,   8.8547,  82.3699,  -3.9126
 9328,  -9.2100,  29.4167, -35.5237,   8.8752,  82.4031,  -3.9217
 9336,  -9.2334,  29.4553, -35.4888,   8.8956,  82.4362,  -3.9307
 9344,  -9.2568,  29.4938, -35.4538,   8.9161,  82.4694,  -3.9398
 9352,  -9.2801,  29.5323, -35.4188,   8.9365,  82.5024,  -3.9488
 9360,  -9.3034,  29.5709, -35.3838,   8.9569,  82.5355,  -3.9579
 9368,  -9.3268,  29.6094, -35.3487,   8.9773,  82.5685,  -3.9669
 9384,  -9.3966,  29.7250, -35.2433,   9.0382,  82.6673,  -3.9940
 9392,  -9.3966,  29.7250, -35.2433,   9.0382,  82.6673,  -3.9940
 9400,  -9.4198,  29.7635, -35.2081,   9.0584,  82.7002,  -4.0030
 9408,  -9.4430,  29.8020, -35.1729,   9.0787,  82.7331,  -4.0120
 9416,  -9.4662,  29.8406, -35.1376,   9.0989,  82.7659,  -4.0210
 9424,  -9.4894,  29.8791, -35.1022,   9.1190,  82.7986,  -4.0300
 9432,  -9.5125,  29.9176, -35.0669,   9.1392,  82.8314,  -4.0389
 9440,  -9.5357,  29.9562, -35.0315,   9.1593,  82.8641,  -4.0479
 9448,  -9.5588,  29.9947, -34.9960,   9.1794,  82.8967,  -4.0569
 9456,  -9.5819,  30.0332, -34.9605,   9.1994,  82.9294,  -4.0659
 9464,  -9.6050,  30.0718, -34.9250,   9.2195,  82.9620,  -4.0748
 9472,  -9.6280,  30.1103, -34.8895,   9.2395,  82.9945,  -4.0838
 9480,  -9.6511,  30.1488, -34.8539,   9.2595,  83.0271,  -4.0928
 9488,  -9.6741,  30.1874, -34.8183,   9.2794,  83.0595,  -4.1017
 9496,  -9.6971,  30.2259, -34.7826,   9.2993,  83.0920,  -4.1107
 9512,  -9.7660,  30.3415, -34.6754,   9.3589,  83.1892,  -4.1375
 9520,  -9.7660,  30.3415, -34.6754,   9.3589,  83.1892,  -4.1375
 9528,  -9.7889,  30.3800, -34.6396,   9.3788,  83.2215,  -4.1464
 9536,  -9.8118,  30.4186, -34.6038,   9.3985,  83.2538,  -4.1553
 9544,  -9.8347,  30.4571, -34.5679,   9.4183,  83.2860,  -4.1643
 9552,  -9.8575,  30.4957, -34.5320,   9.4380,  83.3183,  -4.1732
 9560,  -9.8804,  30.5342, -34.4960,   9.4577,  83.3505,  -4.1821
 9568,  -9.9032,  30.5727, -34.4600,   9.4774,  83.3826,  -4.1910
 9576,  -9.9260,  30.6113, -34.4240,   9.4971,  83.4147,  -4.1999
 9584,  -9.9488,  30.6498, -34.3880,   9.5167,  83.4468,  -4.2088
 9592,  -9.9715,  30.6883, -34.3518,   9.5363,  83.4788,  -4.2177
 9600,  -9.9943,  30.7269, -34.3157,   9.5559,  83.5108,  -4.2266
 9608, -10.0170,  30.7654, -34.2795,   9.5754,  83.5428,  -4.2355
 9616, -10.0397,  30.8040, -34.2433,   9.5949,  83.5747,  -4.2443
 9624, -10.0624,  30.8425, -34.2071,   9.6144,  83.6067,  -4.2532
 9640, -10.1303,  30.9581, -34.0981,   9.6727,  83.7022,  -4.2798
 9648, -10.1303,  30.9581, -34.0981,   9.6727,  83.7022,  -4.2798
 9656, -10.1529,  30.9967, -34.0617,   9.6921,  83.7339,  -4.2887
 9664, -10.1755,  31.0352, -34.0253,   9.7115,  83.7656,  -4.2975
 9672, -10.1981,  31.0737, -33.9888,   9.7308,  83.7973,  -4.3064
 9680, -10.2207,  31.1123, -33.9523,   9.7501,  83.8290,  -4.3152
 9688, -10.2432,  31.1508, -33.9158,   9.7694,  83.8606,  -4.3241
 9696, -10.2657,  31.1894, -33.8792,   9.7886,  83.8922,  -4.3329
 9704, -10.2882,  31.2279, -33.8426,   9.8078,  83.9238,  -4.3418
 9712, -10.3107,  31.2664, -33.8060,   9.8270,  83.9553,  -4.3506
 9720, -10.3331,  31.3050, -33.7692,   9.8462,  83.9868,  -4.3594
 9728, -10.3556,  31.3435, -33.7325,   9.8653,  84.0182,  -4.3683
 9736, -10.3780,  31.3821, -33.6958,   9.8844,  84.0497,  -4.3771
 9744, -10.4004,  31.4206, -33.6590,   9.9035,  84.0810,  -4.3859
 9752, -10.4228,  31.4591, -33.6222,   9.9226,  84.1124,  -4.3947
 9768, -10.4898,  31.5748, -33.5114,   9.9796,  84.2062,  -4.4212
 9776, -10.4898,  31.5748, -33.5114,   9.9796,  84.2062,  -4.4212
 9784, -10.5121,  31.6133, -33.4745,   9.9986,  84.2374,  -4.4300
 9792, -10.5344,  31.6519, -33.4374,  10.0175,  84.2686,  -4.4388
 9800, -10.5566,  31.6904, -33.4004,  10.0364,  84.2998,  -4.4476
 9808, -10.5789,  31.7289, -33.3633,  10.0553,  84.3309,  -4.4564
 9816, -10.6011,  31.7675, -33.3262,  10.0741,  84.3619,  -4.4652
 9824, -10.6233,  31.8060, -33.2890,  10.0929,  84.3930,  -4.4740
 9832, -10.6455,  31.8446, -33.2518,  10.1117,  84.4240,  -4.4828
 9840, -10.6676,  31.8831, -33.2146,  10.1305,  84.4549,  -4.4916
 9848, -10.6898,  31.9216, -33.1773,  10.1492,  84.4859,  -4.5003
 9856, -10.7119,  31.9602, -33.1400,  10.1680,  84.5168,  -4.5091
 9864, -10.7340,  31.9987, -33.1026,  10.1866,  84.5476,  -4.5179
 9872, -10.7561,  32.0373, -33.0653,  10.2053,  84.5784,  -4.5267
 9880, -10.7782,  32.0758, -33.0278,  10.2239,  84.6092,  -4.5355
 9896, -10.8443,  32.1914, -32.9154,  10.2797,  84.7014,  -4.5618
 9904, -10.8443,  32.1914, -32.9154,  10.2797,  84.7014,  -4.5618
 9912, -10.8663,  32.2300, -32.8778,  10.2982,  84.7321,  -4.5705
 9920, -10.8883,  32.2685, -32.8402,  10.3167,  84.7627,  -4.5793
 9928, -10.9102,  32.3071, -32.8026,  10.3352,  84.7933,  -4.5881
 9936, -10.9322,  32.3456, -32.7649,  10.3536,  84.8238,  -4.5968
 9944, -10.9541,  32.3842, -32.7272,  10.3721,  84.8543,  -4.6056
 9952, -10.9760,  32.4227, -32.6894,  10.3905,  84.8848,  -4.6143
 9960, -10.9979,  32.4613, -32.6517,  10.4088,  84.9153,  -4.6231
 9968, -11.0197,  32.4998, -32.6138,  10.4272,  84.9457,  -4.6318
 9976, -11.0416,  32.5384, -32.5760,  10.4455,  84.9760,  -4.6406
 9984, -11.0634,  32.5769, -32.5381,  10.4638,  85.0064,  -4.6493
 9992, -11.0852,  32.6154, -32.5001,  10.4821,  85.0367,  -4.6581
 10000, -11.1070,  32.6540, -32.4622,  10.5003,  85.0670,  -4.6668
 10008, -11.1287,  32.6925, -32.4242,  10.5185,  85.0972,  -4.6755
 10024, -11.1939,  32.8082, -32.3100,  10.5730,  85.1877,  -4.7018
 10032, -11.1939,  32.8082, -32.3100,  10.5730,  85.1877,  -4.7018
 10040, -11.2156,  32.8467, -32.2718,  10.5911,  85.2178,  -4.7105
 10048, -11.2373,  32.8853, -32.2336,  10.6092,  85.2478,  -4.7192
 10056, -11.2589,  32.9238, -32.1954,  10.6272,  85.2779,  -4.7280
 10064, -11.2806,  32.9623, -32.1571,  10.6452,  85.3079,  -4.7367
 10072, -11.3022,  33.0009, -32.1189,  10.6633,  85.3378,  -4.7454
 10080, -11.3238,  33.0394, -32.0805,  10.6812,  85.3677,  -4.7542
 10088, -11.3453,  33.0780, -32.0422,  10.6992,  85.3976,  -4.7629
 10096, -11.3669,  33.1165, -32.0038,  10.7171,  85.4275,  -4.7716
 10104, -11.3884,  33.1551, -31.9653,  10.7350,  85.4573,  -4.7803
 10112, -11.4100,  33.1936, -31.9268,  10.7529,  85.4871,  -4.7890
 10120, -11.4315,  33.2322, -31.8883,  10.7707,  85.5168,  -4.7978
 10128, -11.4529,  33.2707, -31.8498,  10.7885,  85.5465,  -4.8065
 10136, -11.4744,  33.3093, -31.8112,  10.8063,  85.5762,  -4.8152
 10152, -11.5387,  33.4249, -31.6952,  10.8595,  85.6651,  -4.8414
 10160, -11.5387,  33.4249, -31.6952,  10.8595,  85.6651,  -4.8414
 10168, -11.5601,  33.4635, -31.6565,  10.8772,  85.6946,  -4.8501
 10176, -11.5814,  33.5020, -31.6177,  10.8949,  85.7241,  -4.8588
 10184, -11.6028,  33.5405, -31.5789,  10.9125,  85.7536,  -4.8675
 10192, -11.6241,  33.5791, -31.5401,  10.9301,  85.7830,  -4.8762
 10200, -11.6454,  33.6176, -31.5012,  10.9477,  85.8124,  -4.8849
 10208, -11.6667,  33.6562, -31.4623,  10.9653,  85.8418,  -4.8936
 10216, -11.6880,  33.6947, -31.4233,  10.9828,  85.8711,  -4.9024
 10224, -11.7092,  33.7333, -31.3844,  11.0003,  85.9004,  -4.9111
 10232, -11.7305,  33.7718, -31.3453,  11.0178,  85.9297,  -4.9198
 10240, -11.7517,  33.8104, -31.3063,  11.0353,  85.9589,  -4.9285
 10248, -11.7729,  33.8489, -31.2672,  11.0527,  85.9881,  -4.9372
 10256, -11.7941,  33.8875, -31.2280,  11.0701,  86.0173,  -4.9459
 10264, -11.8152,  33.9260, -31.1889,  11.0875,  86.0464,  -4.9546
 10280, -11.8786,  34.0417, -31.0712,  11.1395,  86.1336,  -4.9808
 10288, -11.8786,  34.0417, -31.0712,  11.1395,  86.1336,  -4.9808
 10296, -11.8997,  34.0802, -31.0319,  11.1567,  86.1625,  -4.9895
 10304, -11.9208,  34.1188, -30.9925,  11.1740,  86.1915,  -4.9982
 10312, -11.9418,  34.1573, -30.9531,  11.1912,  86.2204,  -5.0069
 10320, -11.9628,  34.1959, -30.9137,  11.2084,  86.2493,  -5.0156
 10328, -11.9839,  34.2344, -30.8742,  11.2256,  86.2781,  -5.0243
 10336, -12.0048,  34.2730, -30.8347,  11.2427,  86.3070,  -5.0330
 10344, -12.0258,  34.3115, -30.7952,  11.2599,  86.3357,  -5.0417
 10352, -12.0468,  34.3501, -30.7556,  11.2770,  86.3645,  -5.0504
 10360, -12.0677,  34.3887, -30.7160,  11.2940,  86.3932,  -5.0592
 10368, -12.0886,  34.4272, -30.6764,  11.3111,  86.4219,  -5.0679
 10376, -12.1095,  34.4658, -30.6367,  11.3281,  86.4505,  -5.0766
 10384, -12.1304,  34.5043, -30.5970,  11.3451,  86.4791,  -5.0853
 10392, -12.1513,  34.5429, -30.5573,  11.3620,  86.5077,  -5.0940
 10408, -12.2138,  34.6585, -30.4378,  11.4128,  86.5932,  -5.1201
 10416, -12.2138,  34.6585, -30.4378,  11.4128,  86.5932,  -5.1201
 10424, -12.2346,  34.6971, -30.3979,  11.4297,  86.6216,  -5.1288
 10432, -12.2553,  34.7356, -30.3580,  11.4465,  86.6500,  -5.1376
 10440, -12.2761,  34.7742, -30.3180,  11.4633,  86.6784,  -5.1463
 10448, -12.2968,  34.8127, -30.2780,  11.4801,  86.7067,  -5.1550
 10456, -12.3175,  34.8513, -30.2379,  11.4969,  86.7350,  -5.1637
 10464, -12.3382,  34.8898, -30.1979,  11.5136,  86.7632,  -5.1724
 10472, -12.3589,  34.9284, -30.1577,  11.5303,  86.7915,  -5.1811
 10480, -12.3796,  34.9670, -30.1176,  11.5470,  86.8196,  -5.1899
 10488, -12.4002,  35.0055, -30.0774,  11.5637,  86.8478,  -5.1986
 10496, -12.4208,  35.0441, -30.0372,  11.5803,  86.8759,  -5.2073
 10504, -12.4414,  35.0826, -29.9969,  11.5969,  86.9040,  -5.2160
 10512, -12.4620,  35.1212, -29.9566,  11.6135,  86.9321,  -5.2247
 10520, -12.4826,  35.1597, -29.9163,  11.6300,  86.9601,  -5.2335
 10536, -12.5442,  35.2754, -29.7951,  11.6795,  87.0439,  -5.2596
 10544, -12.5442,  35.2754, -29.7951,  11.6795,  87.0439,  -5.2596
 10552, -12.5647,  35.3140, -29.7546,  11.6960,  87.0718,  -5.2684
 10560, -12.5851,  35.3525, -29.7141,  11.7124,  87.0996,  -5.2771
 10568, -12.6056,  35.3911, -29.6735,  11.7288,  87.1274,  -5.2858
 10576, -12.6260,  35.4297, -29.6330,  11.7452,  87.1552,  -5.2946
 10584, -12.6465,  35.4682, -29.5923,  11.7616,  87.1830,  -5.3033
 10592, -12.6669,  35.5068, -29.5517,  11.7779,  87.2107,  -5.3120
 10600, -12.6872,  35.5454, -29.5110,  11.7942,  87.2383,  -5.3207
 10608, -12.7076,  35.5839, -29.4702,  11.8105,  87.2660,  -5.3295
 10616, -12.7279,  35.6225, -29.4295,  11.8267,  87.2936,  -5.3382
 10624, -12.7483,  35.6610, -29.3887,  11.8429,  87.3211,  -5.3470
 10632, -12.7686,  35.6996, -29.3478,  11.8591,  87.3487,  -5.3557
 10640, -12.7889,  35.7382, -29.3069,  11.8753,  87.3762,  -5.3644
 10648, -12.8091,  35.7767, -29.2660,  11.8915,  87.4036,  -5.3732
 10664, -12.8699,  35.8924, -29.1431,  11.9398,  87.4858,  -5.3994
 10672, -12.8699,  35.8924, -29.1431,  11.9398,  87.4858,  -5.3994
 10680, -12.8901,  35.9310, -29.1020,  11.9558,  87.5131,  -5.4082
 10688, -12.9102,  35.9696, -29.0609,  11.9718,  87.5404,  -5.4169
 10696, -12.9304,  36.0081, -29.0198,  11.9878,  87.5677,  -5.4257
 10704, -12.9505,  36.0467, -28.9786,  12.0038,  87.5949,  -5.4344
 10712, -12.9707,  36.0853, -28.9374,  12.0198,  87.6221,  -5.4432
 10720, -12.9908,  36.1238, -28.8962,  12.0357,  87.6492,  -5.4520
 10728, -13.0109,  36.1624, -28.8549,  12.0516,  87.6764,  -5.4607
 10736, -13.0309,  36.2010, -28.8136,  12.0674,  87.7035,  -5.4695
 10744, -13.0510,  36.2395, -28.7722,  12.0833,  87.7305,  -5.4783
 10752, -13.0710,  36.2781, -28.7308,  12.0991,  87.7575,  -5.4870
 10760, -13.0911,  36.3167, -28.6894,  12.1149,  87.7845,  -5.4958
 10768, -13.1111,  36.3553, -28.6479,  12.1307,  87.8114,  -5.5046
 10776, -13.1310,  36.3938, -28.6064,  12.1464,  87.8384,  -5.5133
 10792, -13.1909,  36.5096, -28.4817,  12.1935,  87.9189,  -5.5397
 10800, -13.1909,  36.5096, -28.4817,  12.1935,  87.9189,  -5.5397
 10808, -13.2108,  36.5481, -28.4401,  12.2092,  87.9457,  -5.5485
 10816, -13.2307,  36.5867, -28.3984,  12.2248,  87.9724,  -5.5572
 10824, -13.2506,  36.6253, -28.3567,  12.2404,  87.9991,  -5.5660
 10832, -13.2704,  36.6639, -28.3149,  12.2559,  88.0258,  -5.5748
 10840, -13.2903,  36.7025, -28.2731,  12.2715,  88.0524,  -5.5836
 10848, -13.3101,  36.7410, -28.2313,  12.2870,  88.0790,  -5.5924
 10856, -13.3299,  36.7796, -28.1894,  12.3025,  88.1056,  -5.6012
 10864, -13.3497,  36.8182, -28.1475,  12.3180,  88.1321,  -5.6100
 10872, -13.3694,  36.8568, -28.1056,  12.3334,  88.1586,  -5.6188
 10880, -13.3892,  36.8954, -28.0636,  12.3488,  88.1851,  -5.6276
 10888, -13.4089,  36.9340, -28.0216,  12.3642,  88.2115,  -5.6364
 10896, -13.4286,  36.9725, -27.9796,  12.3796,  88.2379,  -5.6452
 10904, -13.4483,  37.0111, -27.9375,  12.3950,  88.2643,  -5.6541
 10920, -13.5073,  37.1269, -27.8110,  12.4408,  88.3431,  -5.6805
 10928, -13.5073,  37.1269, -27.8110,  12.4408,  88.3431,  -5.6805
 10936, -13.5269,  37.1655, -27.7688,  12.4561,  88.3694,  -5.6894
 10944, -13.5465,  37.2041, -27.7265,  12.4713,  88.3956,  -5.6982
 10952, -13.5661,  37.2427, -27.6842,  12.4865,  88.4217,  -5.7070
 10960, -13.5857,  37.2812, -27.6419,  12.5017,  88.4478,  -5.7159
 10968, -13.6053,  37.3198, -27.5995,  12.5168,  88.4739,  -5.7247
 10976, -13.6248,  37.3584, -27.5571,  12.5319,  88.5000,  -5.7335
 10984, -13.6443,  37.3970, -27.5146,  12.5470,  88.5260,  -5.7424
 10992, -13.6638,  37.4356, -27.4722,  12.5621,  88.5520,  -5.7512
 11000, -13.6833,  37.4742, -27.4296,  12.5771,  88.5779,  -5.7601
 11008, -13.7027,  37.5128, -27.3871,  12.5922,  88.6038,  -5.7689
 11016, -13.7222,  37.5514, -27.3445,  12.6071,  88.6297,  -5.7778
 11024, -13.7416,  37.5900, -27.3018,  12.6221,  88.6555,  -5.7866
 11032, -13.7610,  37.6286, -27.2592,  12.6371,  88.6814,  -5.7955
 11048, -13.8191,  37.7444, -27.1309,  12.6817,  88.7586,  -5.8221
 11056, -13.8191,  37.7444, -27.1309,  12.6817,  88.7586,  -5.8221
 11064, -13.8385,  37.7830, -27.0881,  12.6966,  88.7843,  -5.8310
 11072, -13.8578,  37.8216, -27.0453,  12.7114,  88.8099,  -5.8399
 11080, -13.8771,  37.8602, -27.0024,  12.7262,  88.8355,  -5.8488
 11088, -13.8964,  37.8988, -26.9595,  12.7410,  88.8611,  -5.8576
 11096, -13.9157,  37.9374, -26.9165,  12.7557,  88.8866,  -5.8665
 11104, -13.9349,  37.9760, -26.8735,  12.7704,  88.9121,  -5.8754
 11112, -13.9541,  38.0147, -26.8305,  12.7851,  88.9376,  -5.8843
 11120, -13.9734,  38.0533, -26.7874,  12.7998,  88.9630,  -5.8932
 11128, -13.9925,  38.0919, -26.7443,  12.8144,  88.9884,  -5.9021
 11136, -14.0117,  38.1305, -26.7011,  12.8291,  89.0138,  -5.9110
 11144, -14.0309,  38.1691, -26.6580,  12.8436,  89.0391,  -5.9200
 11152, -14.0500,  38.2077, -26.6147,  12.8582,  89.0644,  -5.9289
 11160, -14.0692,  38.2463, -26.5715,  12.8728,  89.0897,  -5.9378
 11176, -14.1264,  38.3622, -26.4415,  12.9163,  89.1653,  -5.9646
 11184, -14.1264,  38.3622, -26.4415,  12.9163,  89.1653,  -5.9646
 11192, -14.1455,  38.4008, -26.3981,  12.9307,  89.1904,  -5.9735
 11200, -14.1645,  38.4394, -26.3546,  12.9451,  89.2155,  -5.9825
 11208, -14.1835,  38.4781, -26.3112,  12.9595,  89.2405,  -5.9914
 11216, -14.2025,  38.5167, -26.2677,  12.9739,  89.2656,  -6.0003
 11224, -14.2215,  38.5553, -26.2241,  12.9882,  89.2905,  -6.0093
 11232, -14.2405,  38.5939, -26.1805,  13.0026,  89.3155,  -6.0183
 11240, -14.2595,  38.6326, -26.1369,  13.0169,  89.3404,  -6.0272
 11248, -14.2784,  38.6712, -26.0932,  13.0311,  89.3653,  -6.0362
 11256, -14.2973,  38.7098, -26.0495,  13.0454,  89.3902,  -6.0451
 11264, -14.3162,  38.7485, -26.0058,  13.0596,  89.4150,  -6.0541
 11272, -14.3351,  38.7871, -25.9620,  13.0738,  89.4398,  -6.0631
 11280, -14.3539,  38.8257, -25.9182,  13.0880,  89.4645,  -6.0721
 11288, -14.3728,  38.8644, -25.8744,  13.1021,  89.4892,  -6.0811
 11304, -14.4292,  38.9803, -25.7426,  13.1444,  89.5632,  -6.1081
 11312, -14.4292,  38.9803, -25.7426,  13.1444,  89.5632,  -6.1081
 11320, -14.4480,  39.0190, -25.6986,  13.1585,  89.5877,  -6.1171
 11328, -14.4668,  39.0576, -25.6546,  13.1725,  89.6123,  -6.1261
 11336, -14.4855,  39.0962, -25.6105,  13.1865,  89.6368,  -6.1351
 11344, -14.5042,  39.1349, -25.5664,  13.2005,  89.6613,  -6.1441
 11352, -14.5230,  39.1735, -25.5223,  13.2144,  89.6857,  -6.1531
 11360, -14.5416,  39.2122, -25.4781,  13.2284,  89.7101,  -6.1621
 11368, -14.5603,  39.2508, -25.4339,  13.2423,  89.7345,  -6.1712
 11376, -14.5790,  39.2895, -25.3896,  13.2562,  89.7589,  -6.1802
 11384, -14.5976,  39.3282, -25.3453,  13.2700,  89.7831,  -6.1893
 11392, -14.6162,  39.3668, -25.3010,  13.2838,  89.8074,  -6.1983
 11400, -14.6348,  39.4055, -25.2566,  13.2976,  89.8317,  -6.2074
 11408, -14.6534,  39.4441, -25.2122,  13.3114,  89.8559,  -6.2164
 11416, -14.6720,  39.4828, -25.1678,  13.3252,  89.8800,  -6.2255
 11432, -14.7276,  39.5988, -25.0342,  13.3663,  89.9523,  -6.2527
 11440, -14.7276,  39.5988, -25.0342,  13.3663,  89.9523,  -6.2527
 11448, -14.7461,  39.6375, -24.9896,  13.3800,  89.9764,  -6.2618
 11456, -14.7646,  39.6762, -24.9450,  13.3936,  90.0004,  -6.2708
 11464, -14.7831,  39.7148, -24.9004,  13.4072,  90.0243,  -6.2799
 11472, -14.8015,  39.7535, -24.8557,  13.4208,  90.0483,  -6.2890
 11480, -14.8199,  39.7922, -24.8109,  13.4343,  90.0722,  -6.2981
 11488, -14.8384,  39.8309, -24.7662,  13.4479,  90.0960,  -6.3072
 11496, -14.8568,  39.8695, -24.7213,  13.4614,  90.1199,  -6.3163
 11504, -14.8751,  39.9082, -24.6765,  13.4749,  90.1437,  -6.3254
 11512, -14.8935,  39.9469, -24.6316,  13.4883,  90.1674,  -6.3346
 11520, -14.9119,  39.9856, -24.5867,  13.5018,  90.1912,  -6.3437
 11528, -14.9302,  40.0243, -24.5417,  13.5152,  90.2148,  -6.3528
 11536, -14.9485,  40.0630, -24.4967,  13.5286,  90.2385,  -6.3620
 11544, -14.9668,  40.1017, -24.4517,  13.5419,  90.2621,  -6.3711
 11560, -15.0216,  40.2177, -24.3164,  13.5819,  90.3328,  -6.3985
 11568, -15.0216,  40.2177, -24.3164,  13.5819,  90.3328,  -6.3985
 11576, -15.0398,  40.2565, -24.2712,  13.5951,  90.3563,  -6.4077
 11584, -15.0580,  40.2952, -24.2260,  13.6084,  90.3797,  -6.4169
 11592, -15.0762,  40.3339, -24.1807,  13.6216,  90.4032,  -6.4260
 11600, -15.0944,  40.3726, -24.1354,  13.6348,  90.4266,  -6.4352
 11608, -15.1125,  40.4113, -24.0901,  13.6480,  90.4499,  -6.4444
 11616, -15.1307,  40.4500, -24.0447,  13.6611,  90.4732,  -6.4536
 11624, -15.1488,  40.4887, -23.9993,  13.6742,  90.4965,  -6.4628
 11632, -15.1669,  40.5274, -23.9538,  13.6873,  90.5198,  -6.4720
 11640, -15.1850,  40.5661, -23.9084,  13.7004,  90.5430,  -6.4812
 11648, -15.2031,  40.6048, -23.8628,  13.7134,  90.5662,  -6.4904
 11656, -15.2211,  40.6436, -23.8173,  13.7264,  90.5893,  -6.4996
 11664, -15.2392,  40.6823, -23.7717,  13.7394,  90.6124,  -6.5088
 11672, -15.2572,  40.7210, -23.7261,  13.7524,  90.6355,  -6.5181
 11688, -15.3112,  40.8372, -23.5889,  13.7912,  90.7046,  -6.5458
 11696, -15.3112,  40.8372, -23.5889,  13.7912,  90.7046,  -6.5458
 11704, -15.3291,  40.8759, -23.5432,  13.8040,  90.7275,  -6.5550
 11712, -15.3471,  40.9147, -23.4973,  13.8169,  90.7504,  -6.5643
 11720, -15.3650,  40.9534, -23.4515,  13.8297,  90.7733,  -6.5736
 11728, -15.3829,  40.9922, -23.4056,  13.8425,  90.7961,  -6.5828
 11736, -15.4008,  41.0309, -23.3596,  13.8553,  90.8189,  -6.5921
 11744, -15.4187,  41.0697, -23.3137,  13.8680,  90.8417,  -6.6014
 11752, -15.4365,  41.1084, -23.2677,  13.8808,  90.8645,  -6.6107
 11760, -15.4544,  41.1472, -23.2216,  13.8935,  90.8872,  -6.6200
 11768, -15.4722,  41.1859, -23.1755,  13.9062,  90.9098,  -6.6293
 11776, -15.4900,  41.2247, -23.1294,  13.9188,  90.9325,  -6.6386
 11784, -15.5078,  41.2634, -23.0832,  13.9314,  90.9551,  -6.6479
 11792, -15.5256,  41.3022, -23.0370,  13.9440,  90.9777,  -6.6572
 11800, -15.5433,  41.3410, -22.9908,  13.9566,  91.0002,  -6.6665
 11816, -15.5965,  41.4573, -22.8519,  13.9942,  91.0676,  -6.6945
 11824, -15.5965,  41.4573, -22.8519,  13.9942,  91.0676,  -6.6945
 11832, -15.6142,  41.4960, -22.8055,  14.0067,  91.0900,  -6.7039
 11840, -15.6319,  41.5348, -22.7591,  14.0192,  91.1124,  -6.7132
 11848, -15.6495,  41.5736, -22.7126,  14.0316,  91.1347,  -6.7226
 11856, -15.6672,  41.6124, -22.6661,  14.0440,  91.1570,  -6.7319
 11864, -15.6848,  41.6512, -22.6196,  14.0564,  91.1793,  -6.7413
 11872, -15.7024,  41.6900, -22.5730,  14.0688,  91.2015,  -6.7507
 11880, -15.7200,  41.7288, -22.5264,  14.0811,  91.2237,  -6.7601
 11888, -15.7376,  41.7675, -22.4797,  14.0934,  91.2459,  -6.7695
 11896, -15.7551,  41.8063, -22.4330,  14.1057,  91.2680,  -6.7789
 11904, -15.7727,  41.8451, -22.3863,  14.1180,  91.2901,  -6.7883
 11912, -15.7902,  41.8839, -22.3395,  14.1302,  91.3122,  -6.7977
 11920, -15.8077,  41.9228, -22.2927,  14.1425,  91.3342,  -6.8071
 11928, -15.8252,  41.9616, -22.2459,  14.1547,  91.3562,  -6.8165
 11944, -15.8776,  42.0780, -22.1051,  14.1911,  91.4220,  -6.8448
 11952, -15.8776,  42.0780, -22.1051,  14.1911,  91.4220,  -6.8448
 11960, -15.8950,  42.1168, -22.0581,  14.2032,  91.4439,  -6.8543
 11968, -15.9124,  42.1557, -22.0111,  14.2153,  91.4657,  -6.8637
 11976, -15.9298,  42.1945, -21.9640,  14.2273,  91.4875,  -6.8732
 11984, -15.9472,  42.2333, -21.9169,  14.2393,  91.5093,  -6.8827
 11992, -15.9645,  42.2722, -21.8698,  14.2513,  91.5310,  -6.8922
 12000, -15.9819,  42.3110, -21.8226,  14.2633,  91.5527,  -6.9016
 12008, -15.9992,  42.3498, -21.7754,  14.2753,  91.5743,  -6.9111
 12016, -16.0165,  42.3887, -21.7281,  14.2872,  91.5959,  -6.9206
 12024, -16.0338,  42.4275, -21.6808,  14.2991,  91.6175,  -6.9301
 12032, -16.0511,  42.4664, -21.6335,  14.3110,  91.6391,  -6.9396
 12040, -16.0684,  42.5052, -21.5861,  14.3228,  91.6606,  -6.9492
 12048, -16.0856,  42.5441, -21.5387,  14.3347,  91.6821,  -6.9587
 12056, -16.1028,  42.5829, -21.4912,  14.3465,  91.7036,  -6.9682
 12072, -16.1544,  42.6995, -21.3486,  14.3817,  91.7677,  -6.9968
 12080, -16.1544,  42.6995, -21.3486,  14.3817,  91.7677,  -6.9968
 12088, -16.1716,  42.7384, -21.3010,  14.3935,  91.7890,  -7.0064
 12096, -16.1887,  42.7773, -21.2534,  14.4051,  91.8103,  -7.0160
 12104, -16.2059,  42.8161, -21.2057,  14.4168,  91.8316,  -7.0255
 12112, -16.2230,  42.8550, -21.1580,  14.4284,  91.8528,  -7.0351
 12120, -16.2401,  42.8939, -21.1102,  14.4400,  91.8740,  -7.0447
 12128, -16.2572,  42.9328, -21.0624,  14.4516,  91.8951,  -7.0543
 12136, -16.2742,  42.9717, -21.0146,  14.4632,  91.9163,  -7.0639
 12144, -16.2913,  43.0106, -20.9667,  14.4747,  91.9373,  -7.0735
 12152, -16.3083,  43.0495, -20.9188,  14.4863,  91.9584,  -7.0831
 12160, -16.3254,  43.0884, -20.8708,  14.4978,  91.9794,  -7.0928
 12168, -16.3424,  43.1273, -20.8228,  14.5092,  92.0004,  -7.1024
 12176, -16.3593,  43.1662, -20.7748,  14.5207,  92.0213,  -7.1120
 12184, -16.3763,  43.2051, -20.7267,  14.5321,  92.0422,  -7.1217
 12200, -16.4271,  43.3219, -20.5823,  14.5662,  92.1048,  -7.1506
 12208, -16.4271,  43.3219, -20.5823,  14.5662,  92.1048,  -7.1506
 12216, -16.4440,  43.3608, -20.5341,  14.5775,  92.1256,  -7.1603
 12224, -16.4609,  43.3997, -20.4858,  14.5888,  92.1463,  -7.1700
 12232, -16.4778,  43.4387, -20.4375,  14.6001,  92.1670,  -7.1797
 12240, -16.4947,  43.4776, -20.3891,  14.6114,  92.1877,  -7.1894
 12248, -16.5115,  43.5166, -20.3408,  14.6226,  92.2084,  -7.1991
 12256, -16.5283,  43.5555, -20.2924,  14.6338,  92.2290,  -7.2088
 12264, -16.5451,  43.5945, -20.2439,  14.6450,  92.2495,  -7.2185
 12272, -16.5619,  43.6334, -20.1954,  14.6561,  92.2701,  -7.2282
 12280, -16.5787,  43.6724, -20.1469,  14.6673,  92.2906,  -7.2380
 12288, -16.5955,  43.7113, -20.0983,  14.6784,  92.3111,  -7.2477
 12296, -16.6122,  43.7503, -20.0497,  14.6895,  92.3315,  -7.2575
 12304, -16.6290,  43.7893, -20.0010,  14.7005,  92.3519,  -7.2672
 12312, -16.6457,  43.8282, -19.9523,  14.7116,  92.3723,  -7.2770
 12328, -16.6957,  43.9452, -19.8060,  14.7445,  92.4332,  -7.3063
 12336, -16.6957,  43.9452, -19.8060,  14.7445,  92.4332,  -7.3063
 12344, -16.7124,  43.9842, -19.7572,  14.7555,  92.4534,  -7.3161
 12352, -16.7290,  44.0232, -19.7083,  14.7664,  92.4737,  -7.3259
 12360, -16.7456,  44.0622, -19.6593,  14.7773,  92.4938,  -7.3357
 12368, -16.7623,  44.1012, -19.6104,  14.7882,  92.5140,  -7.3455
 12376, -16.7788,  44.1402, -19.5614,  14.7990,  92.5341,  -7.3554
 12384, -16.7954,  44.1792, -19.5123,  14.8098,  92.5541,  -7.3652
 12392, -16.8120,  44.2182, -19.4632,  14.8206,  92.5742,  -7.3751
 12400, -16.8285,  44.2572, -19.4141,  14.8314,  92.5942,  -7.3849
 12408, -16.8450,  44.2963, -19.3649,  14.8421,  92.6141,  -7.3948
 12416, -16.8616,  44.3353, -19.3158,  14.8529,  92.6341,  -7.4046
 12424, -16.8780,  44.3743, -19.2665,  14.8636,  92.6540,  -7.4145
 12432, -16.8945,  44.4134, -19.2172,  14.8742,  92.6738,  -7.4244
 12440, -16.9110,  44.4524, -19.1679,  14.8849,  92.6937,  -7.4343
 12456, -16.9603,  44.5696, -19.0197,  14.9167,  92.7530,  -7.4640
 12464, -16.9603,  44.5696, -19.0197,  14.9167,  92.7530,  -7.4640
 12472, -16.9767,  44.6086, -18.9702,  14.9273,  92.7727,  -7.4739
 12480, -16.9931,  44.6477, -18.9207,  14.9378,  92.7923,  -7.4838
 12488, -17.0094,  44.6868, -18.8711,  14.9483,  92.8120,  -7.4938
 12496, -17.0258,  44.7259, -18.8215,  14.9588,  92.8316,  -7.5037
 12504, -17.0421,  44.7649, -18.7719,  14.9693,  92.8511,  -7.5137
 12512, -17.0585,  44.8040, -18.7222,  14.9797,  92.8707,  -7.5236
 12520, -17.0748,  44.8431, -18.6725,  14.9901,  92.8901,  -7.5336
 12528, -17.0911,  44.8822, -18.6227,  15.0005,  92.9096,  -7.5436
 12536, -17.1073,  44.9213, -18.5729,  15.0109,  92.9290,  -7.5536
 12544, -17.1236,  44.9604, -18.5231,  15.0212,  92.9484,  -7.5636
 12552, -17.1398,  44.9995, -18.4732,  15.0316,  92.9678,  -7.5736
 12560, -17.1561,  45.0386, -18.4233,  15.0419,  92.9871,  -7.5836
 12568, -17.1723,  45.0777, -18.3734,  15.0521,  93.0064,  -7.5936
 12584, -17.2208,  45.1951, -18.2232,  15.0828,  93.0641,  -7.6237
 12592, -17.2208,  45.1951, -18.2232,  15.0828,  93.0641,  -7.6237
 12600, -17.2370,  45.2343, -18.1731,  15.0930,  93.0832,  -7.6337
 12608, -17.2531,  45.2734, -18.1230,  15.1031,  93.1024,  -7.6438
 12616, -17.2692,  45.3126, -18.0728,  15.1133,  93.1215,  -7.6539
 12624, -17.2853,  45.3517, -18.0225,  15.1234,  93.1405,  -7.6640
 12632, -17.3014,  45.3909, -17.9723,  15.1334,  93.1595,  -7.6740
 12640, -17.3175,  45.4300, -17.9219,  15.1435,  93.1785,  -7.6841
 12648, -17.3336,  45.4692, -17.8716,  15.1535,  93.1975,  -7.6942
 12656, -17.3496,  45.5084, -17.8212,  15.1635,  93.2164,  -7.7043
 12664, -17.3656,  45.5476, -17.7707,  15.1735,  93.2353,  -7.7145
 12672, -17.3817,  45.5867, -17.7203,  15.1835,  93.2541,  -7.7246
 12680, -17.3976,  45.6259, -17.6698,  15.1934,  93.2730,  -7.7347
 12688, -17.4136,  45.6651, -17.6192,  15.2033,  93.2917,  -7.7449
 12696, -17.4296,  45.7043, -17.5686,  15.2132,  93.3105,  -7.7550
 12712, -17.4774,  45.8220, -17.4166,  15.2428,  93.3665,  -7.7855
 12720, -17.4774,  45.8220, -17.4166,  15.2428,  93.3665,  -7.7855
 12728, -17.4933,  45.8612, -17.3658,  15.2526,  93.3852,  -7.7957
 12736, -17.5092,  45.9004, -17.3150,  15.2623,  93.4038,  -7.8059
 12744, -17.5251,  45.9396, -17.2641,  15.2721,  93.4223,  -7.8161
 12752, -17.5409,  45.9789, -17.2132,  15.2818,  93.4408,  -7.8263
 12760, -17.5568,  46.0181, -17.1623,  15.2915,  93.4593,  -7.8366
 12768, -17.5726,  46.0574, -17.1114,  15.3012,  93.4777,  -7.8468
 12776, -17.5884,  46.0966, -17.0604,  15.3108,  93.4962,  -7.8570
 12784, -17.6042,  46.1359, -17.0093,  15.3205,  93.5145,  -7.8673
 12792, -17.6200,  46.1752, -16.9582,  15.3301,  93.5329,  -7.8776
 12800, -17.6358,  46.2144, -16.9071,  15.3396,  93.5512,  -7.8878
 12808, -17.6515,  46.2537, -16.8559,  15.3492,  93.5695,  -7.8981
 12816, -17.6673,  46.2930, -16.8047,  15.3587,  93.5877,  -7.9084
 12824, -17.6830,  46.3322, -16.7536,  15.3682,  93.6059,  -7.9186
 12840, -17.7294,  46.4484, -16.6018,  15.3962,  93.6595,  -7.9491
 12848, -17.7294,  46.4484, -16.6018,  15.3962,  93.6595,  -7.9491
 12856, -17.7445,  46.4865, -16.5521,  15.4053,  93.6770,  -7.9591
 12864, -17.7595,  46.5240, -16.5030,  15.4143,  93.6942,  -7.9690
 12872, -17.7741,  46.5609, -16.4546,  15.4231,  93.7111,  -7.9787
 12880, -17.7885,  46.5972, -16.4071,  15.4317,  93.7277,  -7.9883
 12888, -17.8026,  46.6326, -16.3606,  15.4401,  93.7439,  -7.9976
