hehonglu123/Motion-Primitive-Planning/ILC/recorded_data/curve2_1100/realrobot/1100_iteration4.csv
timestamp, cmd_num, J1, J2, J3, J4, J5, J6
0.000366, -1, 39.6328, 32.445, 11.8315, 12.5477, 113.715, -48.8701
0.006505, -1, 39.6328, 32.445, 11.8315, 12.5477, 113.715, -48.87
0.008483, -1, 39.6328, 32.445, 11.8315, 12.5477, 113.715, -48.87
0.031833, -1, 39.6327, 32.445, 11.8315, 12.5477, 113.715, -48.87
0.034823, -1, 39.6328, 32.445, 11.8315, 12.5477, 113.715, -48.87
0.036063, -1, 39.6328, 32.445, 11.8315, 12.5477, 113.715, -48.87
0.040854, -1, 39.6328, 32.445, 11.8315, 12.5477, 113.715, -48.87
0.047882, -1, 39.6327, 32.445, 11.8315, 12.5477, 113.715, -48.87
0.055951, -1, 39.6322, 32.4449, 11.8315, 12.5477, 113.715, -48.8701
0.063954, -1, 39.6299, 32.4446, 11.8315, 12.5477, 113.715, -48.8701
0.071883, -1, 39.6246, 32.4433, 11.8314, 12.5477, 113.715, -48.8702
0.080053, -1, 39.6157, 32.4404, 11.8314, 12.5477, 113.714, -48.8717
0.087866, -1, 39.6023, 32.4351, 11.8314, 12.5477, 113.713, -48.8772
0.095869, -1, 39.5825, 32.4267, 11.8314, 12.5476, 113.709, -48.8889
0.103947, -1, 39.5539, 32.4141, 11.8318, 12.5476, 113.702, -48.9097
0.111879, -1, 39.5154, 32.3965, 11.8339, 12.5476, 113.69, -48.9435
0.119869, -1, 39.4659, 32.3728, 11.8388, 12.5476, 113.671, -48.9941
0.127942, -1, 39.4039, 32.3425, 11.8472, 12.5476, 113.644, -49.0658
0.135903, -1, 39.3285, 32.3047, 11.86, 12.5477, 113.606, -49.1602
0.143868, -1, 39.2393, 32.2591, 11.8779, 12.5479, 113.56, -49.2801
0.151955, -1, 39.1363, 32.2056, 11.9004, 12.5484, 113.503, -49.4252
0.159881, -1, 39.0191, 32.1442, 11.9271, 12.5492, 113.436, -49.5947
0.167871, -1, 38.8886, 32.0754, 11.9579, 12.5506, 113.36, -49.7868
0.176028, -1, 38.7458, 32.0001, 11.9919, 12.5524, 113.276, -49.9985
0.183871, -1, 38.5914, 31.9189, 12.0282, 12.5544, 113.186, -50.226
0.191874, -1, 38.4272, 31.8328, 12.066, 12.5567, 113.091, -50.4658
0.20069, -1, 38.255, 31.7426, 12.1049, 12.559, 112.993, -50.714
0.208049, -1, 38.0766, 31.6494, 12.1439, 12.5614, 112.893, -50.9673
0.215527, -1, 37.8931, 31.5542, 12.1828, 12.5638, 112.792, -51.224
0.225251, -1, 37.7056, 31.4573, 12.2217, 12.5662, 112.69, -51.4823
0.231467, -1, 37.5155, 31.3597, 12.2604, 12.5686, 112.587, -51.7416
0.240047, -1, 37.3239, 31.2618, 12.2992, 12.5711, 112.484, -52.0011
0.247993, -1, 37.1319, 31.1639, 12.338, 12.5735, 112.382, -52.2608
0.255859, -1, 36.9398, 31.0662, 12.3767, 12.5762, 112.279, -52.5208
0.264146, -1, 36.748, 30.9685, 12.4155, 12.5788, 112.176, -52.7811
0.270856, -1, 36.6522, 30.9196, 12.435, 12.58, 112.124, -52.9112
0.279915, -1, 36.3649, 30.7732, 12.4933, 12.584, 111.97, -53.3015
0.288347, -1, 36.1735, 30.6754, 12.5321, 12.5866, 111.867, -53.5619
0.294865, -1, 36.0777, 30.6265, 12.5516, 12.5878, 111.816, -53.6922
0.304132, -1, 35.7904, 30.4795, 12.6099, 12.5918, 111.661, -54.083
0.310863, -1, 35.6946, 30.4305, 12.6294, 12.593, 111.61, -54.2131
0.320228, -1, 35.4068, 30.2833, 12.6876, 12.597, 111.455, -54.6036
0.32686, -1, 35.3107, 30.2341, 12.707, 12.5983, 111.403, -54.7338
0.336526, -1, 35.022, 30.0867, 12.7654, 12.6022, 111.249, -55.1249
0.344449, -1, 34.8298, 29.9882, 12.8042, 12.6048, 111.146, -55.3854
0.352497, -1, 34.6375, 29.8897, 12.843, 12.6074, 111.042, -55.646
0.360444, -1, 34.4452, 29.7913, 12.882, 12.61, 110.94, -55.9067
0.368461, -1, 34.3491, 29.6929, 12.9209, 12.6126, 110.836, -56.1678
0.376579, -1, 34.157, 29.6437, 12.9598, 12.6152, 110.733, -56.4286
0.383859, -1, 33.9651, 29.5454, 12.9793, 12.6165, 110.682, -56.559
0.391866, -1, 33.7734, 29.4471, 13.0182, 12.6192, 110.579, -56.8198
0.399926, -1, 33.5816, 29.3487, 13.057, 12.6219, 110.476, -57.0807
0.407857, -1, 33.3894, 29.2504, 13.0959, 12.6246, 110.373, -57.3419
0.415858, -1, 33.1969, 29.1518, 13.1349, 12.6272, 110.269, -57.6028
0.422861, -1, 33.0042, 29.0532, 13.1737, 12.6299, 110.166, -57.8637
0.431863, -1, 32.8113, 28.9546, 13.2126, 12.6326, 110.063, -58.1249
0.439891, -1, 32.6179, 28.856, 13.2515, 12.6353, 109.96, -58.3862
0.446862, -1, 32.4243, 28.7573, 13.2903, 12.638, 109.857, -58.6473
0.455864, -1, 32.2304, 28.6587, 13.3293, 12.6407, 109.754, -58.9082
0.463908, -1, 32.0363, 28.5599, 13.3681, 12.6434, 109.651, -59.1694
0.471893, -1, 31.8423, 28.4611, 13.407, 12.6462, 109.548, -59.4308
0.479854, -1, 31.6486, 28.3623, 13.4461, 12.6489, 109.445, -59.6922
0.487925, -1, 31.4551, 28.2636, 13.4851, 12.6518, 109.342, -59.9533
0.495869, -1, 31.2621, 28.165, 13.5239, 12.6545, 109.239, -60.2146
0.631923, -1, 27.9786, 26.4863, 14.1865, 12.6992, 107.483, -64.6613
0.633118, -1, 27.9786, 26.4863, 14.1865, 12.6992, 107.483, -64.6613
0.635151, -1, 27.8822, 26.4369, 14.2061, 12.7004, 107.432, -64.7922
0.636354, -1, 27.8822, 26.4369, 14.2061, 12.7004, 107.432, -64.7922
0.63927, -1, 27.7858, 26.3875, 14.2256, 12.7016, 107.38, -64.9232
0.6408, -1, 27.7858, 26.3875, 14.2256, 12.7016, 107.38, -64.9232
0.642743, -1, 27.6894, 26.338, 14.2451, 12.7028, 107.328, -65.0542
0.646967, -1, 27.5932, 26.2886, 14.2645, 12.704, 107.276, -65.1852
0.817089, -1, 23.5373, 24.2129, 15.0829, 12.7529, 105.108, -70.6807
0.818287, -1, 23.5373, 24.2129, 15.0829, 12.7529, 105.108, -70.6807
0.821031, -1, 23.5373, 24.1635, 15.1024, 12.7541, 105.056, -70.8115
0.822383, -1, 23.4406, 24.1635, 15.1024, 12.7541, 105.056, -70.8115
0.82428, -1, 23.3438, 24.1141, 15.1219, 12.7553, 105.004, -70.9423
0.825644, -1, 23.3438, 24.1141, 15.1219, 12.7553, 105.004, -70.9423
0.826962, -1, 23.3438, 24.1141, 15.1219, 12.7553, 105.004, -70.9423
0.833039, -1, 23.1499, 24.0151, 15.1608, 12.7578, 104.901, -71.2041
0.834307, -1, 23.1499, 24.0151, 15.1608, 12.7578, 104.901, -71.2041
0.836072, -1, 23.1499, 24.0151, 15.1608, 12.7578, 104.901, -71.2041
0.837498, -1, 23.0529, 23.9656, 15.1802, 12.759, 104.849, -71.3349
0.838758, -1, 23.0529, 23.9656, 15.1802, 12.759, 104.849, -71.3349
0.840759, -1, 22.9559, 23.9162, 15.1996, 12.7602, 104.798, -71.4659
0.842115, -1, 22.9559, 23.9162, 15.1996, 12.7602, 104.798, -71.4659
0.843318, -1, 22.9559, 23.9162, 15.1996, 12.7602, 104.798, -71.4659
0.848475, -1, 22.7618, 23.8173, 15.2386, 12.7627, 104.694, -71.7278
0.849879, -1, 22.7618, 23.8173, 15.2386, 12.7627, 104.694, -71.7278
0.851158, -1, 22.7618, 23.8173, 15.2386, 12.7627, 104.694, -71.7278
0.854034, -1, 22.6648, 23.7679, 15.2581, 12.7639, 104.642, -71.8587
0.855244, -1, 22.6648, 23.7679, 15.2581, 12.7639, 104.642, -71.8587
0.857268, -1, 22.5679, 23.7186, 15.2776, 12.7652, 104.591, -71.9894
0.858459, -1, 22.5679, 23.7186, 15.2776, 12.7652, 104.591, -71.9894
0.861032, -1, 22.471, 23.6693, 15.297, 12.7665, 104.539, -72.1201
0.862358, -1, 22.471, 23.6693, 15.297, 12.7665, 104.539, -72.1201
0.86364, -1, 22.471, 23.6693, 15.297, 12.7665, 104.539, -72.1201
0.865692, -1, 22.3743, 23.6199, 15.3165, 12.7677, 104.487, -72.2508
0.866899, -1, 22.3743, 23.6199, 15.3165, 12.7677, 104.487, -72.2508
0.869719, -1, 22.2776, 23.5706, 15.336, 12.769, 104.436, -72.3815
0.870976, -1, 22.2776, 23.5706, 15.336, 12.769, 104.436, -72.3815
0.873088, -1, 22.181, 23.5212, 15.3555, 12.7703, 104.384, -72.5123
0.874635, -1, 22.181, 23.5212, 15.3555, 12.7703, 104.384, -72.5123
0.876381, -1, 22.181, 23.5212, 15.3555, 12.7703, 104.384, -72.643
0.878663, -1, 22.0844, 23.4719, 15.3749, 12.7716, 104.332, -72.643
0.880473, -1, 22.0844, 23.4719, 15.3749, 12.7716, 104.332, -72.7738
0.882, -1, 21.9878, 23.4225, 15.3944, 12.7729, 104.281, -72.7738
0.883209, -1, 21.9878, 23.4225, 15.3944, 12.7729, 104.281, -72.7738
0.885202, -1, 21.8913, 23.3732, 15.4139, 12.7742, 104.229, -72.9046
0.887759, -1, 21.8913, 23.3732, 15.4139, 12.7742, 104.229, -72.9046
0.88991, -1, 21.795, 23.3239, 15.4335, 12.7755, 104.177, -73.0353
0.891109, -1, 21.795, 23.3239, 15.4335, 12.7755, 104.177, -73.0353
0.893966, -1, 21.6989, 23.2745, 15.4529, 12.7768, 104.126, -73.1659
0.895907, -1, 21.6989, 23.2745, 15.4529, 12.7768, 104.126, -73.1659
0.903842, -1, 21.5067, 23.1757, 15.4918, 12.7796, 104.023, -73.4273
0.91185, -1, 21.3145, 23.077, 15.5308, 12.7822, 103.92, -73.6887
0.919891, -1, 21.1222, 22.9784, 15.5698, 12.7849, 103.816, -73.9504
0.927839, -1, 20.9298, 22.8798, 15.6087, 12.7876, 103.713, -74.2117
0.935839, -1, 20.7373, 22.7812, 15.6477, 12.7903, 103.61, -74.4728
0.943842, -1, 20.5447, 22.6826, 15.6866, 12.7931, 103.507, -74.7342
0.951858, -1, 20.3515, 22.584, 15.7254, 12.7959, 103.404, -74.9955
0.958839, -1, 20.1578, 22.4852, 15.7644, 12.7985, 103.301, -75.2568
0.96785, -1, 19.964, 22.3865, 15.8032, 12.8012, 103.198, -75.5179
0.975876, -1, 19.7704, 22.2879, 15.8419, 12.804, 103.095, -75.7789
0.982833, -1, 19.5768, 22.1892, 15.8809, 12.8066, 102.992, -76.0401
0.991846, -1, 19.3833, 22.0905, 15.9198, 12.8093, 102.889, -76.3015
0.999842, -1, 19.1903, 21.9919, 15.9586, 12.812, 102.786, -76.5623
1.00937, -1, 18.9975, 21.8933, 15.9975, 12.8148, 102.683, -76.8231
1.01588, -1, 18.805, 21.7946, 16.0363, 12.8175, 102.58, -77.0841
1.02484, -1, 18.613, 21.6958, 16.0751, 12.8202, 102.477, -77.3449
1.03084, -1, 18.4213, 21.5973, 16.114, 12.8229, 102.374, -77.6057
1.03985, -1, 18.2294, 21.4988, 16.1529, 12.8254, 102.271, -77.8664
1.04784, -1, 18.0375, 21.4004, 16.1917, 12.828, 102.168, -78.1271
1.05587, -1, 17.8457, 21.302, 16.2306, 12.8305, 102.065, -78.3881
1.06384, -1, 17.6536, 21.2037, 16.2695, 12.8329, 101.962, -78.6487
1.07188, -1, 17.4611, 21.1054, 16.3083, 12.8354, 101.86, -78.9091
1.07984, -1, 17.2683, 21.0071, 16.3472, 12.8378, 101.756, -79.1697
1.08783, -1, 17.0752, 20.9088, 16.3859, 12.8402, 101.654, -79.4303
1.09591, -1, 16.8821, 20.8105, 16.4247, 12.8425, 101.551, -79.6909
1.10383, -1, 16.6889, 20.7123, 16.4636, 12.8447, 101.448, -79.9513
1.11184, -1, 16.4958, 20.6141, 16.5022, 12.8471, 101.345, -80.2117
1.11992, -1, 16.3029, 20.5157, 16.5409, 12.8494, 101.243, -80.4723
1.12783, -1, 16.1106, 20.4174, 16.5797, 12.8517, 101.14, -80.7329
1.13583, -1, 15.9188, 20.319, 16.6185, 12.854, 101.037, -80.9931
1.14394, -1, 15.7272, 20.2205, 16.6572, 12.8564, 100.935, -81.2531
1.15188, -1, 15.5359, 20.1221, 16.6958, 12.8587, 100.832, -81.5133
1.15983, -1, 15.3448, 20.0238, 16.7345, 12.861, 100.729, -81.7734
1.16791, -1, 15.1537, 19.9256, 16.7733, 12.8633, 100.627, -82.0333
1.17584, -1, 14.9626, 19.8274, 16.812, 12.8655, 100.524, -82.293
1.18388, -1, 14.7713, 19.7293, 16.8507, 12.8678, 100.422, -82.5528
1.192, -1, 14.5797, 19.6312, 16.8894, 12.8701, 100.319, -82.8129
1.19984, -1, 14.3878, 19.533, 16.9281, 12.8725, 100.216, -83.0727
1.20795, -1, 14.1957, 19.435, 16.9668, 12.8747, 100.114, -83.3322
1.21673, -1, 14.0032, 19.337, 17.0055, 12.8769, 100.011, -83.5919
1.22393, -1, 13.8106, 19.2391, 17.0441, 12.8793, 99.9089, -83.8515
1.232, -1, 13.618, 19.1413, 17.0827, 12.8815, 99.8065, -84.1109
1.24072, -1, 13.4256, 19.0434, 17.1215, 12.8839, 99.7038, -84.3702
1.24795, -1, 13.2336, 18.9455, 17.1599, 12.8863, 99.6017, -84.6294
1.25601, -1, 13.042, 18.8476, 17.1985, 12.8886, 99.4992, -84.8889
1.26469, -1, 12.8508, 18.7496, 17.2372, 12.8909, 99.3967, -85.1483
1.27188, -1, 12.6599, 18.6517, 17.2757, 12.8934, 99.2948, -85.4073
1.27993, -1, 12.4693, 18.554, 17.3143, 12.8958, 99.1923, -85.6662
1.2893, -1, 12.2792, 18.4562, 17.3528, 12.8982, 99.09, -85.9251
1.29488, -1, 12.1842, 18.4073, 17.3721, 12.8994, 99.039, -86.0546
1.305, -1, 11.8989, 18.2609, 17.43, 12.903, 98.8858, -86.4428
1.31212, -1, 11.7084, 18.1632, 17.4685, 12.9054, 98.7839, -86.7013
1.32023, -1, 11.5176, 18.0655, 17.507, 12.9079, 98.6821, -86.9598
1.32684, -1, 11.4221, 18.0167, 17.5263, 12.9091, 98.6311, -87.0891
1.33638, -1, 11.1352, 17.8704, 17.5841, 12.9127, 98.4782, -87.477
1.34442, -1, 10.9437, 17.7729, 17.6226, 12.9152, 98.3764, -87.7352
1.35336, -1, 10.7519, 17.6755, 17.6611, 12.9177, 98.2744, -87.9935
1.35889, -1, 10.656, 17.6267, 17.6803, 12.919, 98.2234, -88.1227
1.36844, -1, 10.3689, 17.4805, 17.7378, 12.9229, 98.0708, -88.5102
1.37726, -1, 10.2733, 17.4317, 17.7763, 12.9254, 97.9688, -88.7682
1.3829, -1, 10.0825, 17.3342, 17.7955, 12.9267, 97.9178, -88.8972
1.39285, -1, 9.79696, 17.1879, 17.853, 12.9307, 97.765, -89.2844
1.39983, -1, 9.70189, 17.1392, 17.8722, 12.932, 97.714, -89.4136
1.40784, -1, 9.51226, 17.0418, 17.9105, 12.9348, 97.6121, -89.6716
1.41588, -1, 9.32308, 16.9444, 17.9488, 12.9375, 97.5104, -89.9292
1.42382, -1, 9.1339, 16.8471, 17.9872, 12.9401, 97.4084, -90.1866
1.43085, -1, 8.94458, 16.7499, 18.0255, 12.9428, 97.3066, -90.4443
1.43988, -1, 8.75508, 16.6527, 18.0638, 12.9454, 97.2049, -90.7018
1.44784, -1, 8.5655, 16.5555, 18.1023, 12.948, 97.1031, -90.9589
1.45588, -1, 8.37582, 16.4585, 18.1406, 12.9508, 97.0017, -91.2161
1.46382, -1, 8.18552, 16.3615, 18.1789, 12.9534, 96.9001, -91.4732
1.47182, -1, 7.99488, 16.2646, 18.2173, 12.956, 96.7984, -91.7305
1.47883, -1, 7.80424, 16.1677, 18.2555, 12.9586, 96.6971, -91.9875
1.48782, -1, 7.61365, 16.0708, 18.2938, 12.9612, 96.5956, -92.2441
1.49583, -1, 7.42317, 15.9739, 18.3321, 12.9637, 96.4942, -92.501
1.50282, -1, 7.23292, 15.877, 18.3702, 12.9663, 96.393, -92.7578
1.51182, -1, 7.04309, 15.78, 18.4084, 12.9688, 96.2915, -93.0144
1.52082, -1, 6.85373, 15.6831, 18.4467, 12.9713, 96.1902, -93.2709
1.52789, -1, 6.66482, 15.5863, 18.4848, 12.9738, 96.0896, -93.5272
1.53582, -1, 6.47633, 15.4895, 18.5228, 12.9763, 95.9885, -93.7836
1.54385, -1, 6.28823, 15.3927, 18.5611, 12.9788, 95.8876, -94.0401
1.55182, -1, 6.10025, 15.2961, 18.5992, 12.9813, 95.7869, -94.2961
1.55982, -1, 5.91197, 15.1994, 18.6373, 12.9836, 95.6858, -94.5519
1.56788, -1, 5.72359, 15.1027, 18.6755, 12.9859, 95.5848, -94.8079
1.57582, -1, 5.53508, 15.006, 18.7136, 12.9882, 95.4842, -95.0638
1.58383, -1, 5.34627, 14.9095, 18.7517, 12.9905, 95.3833, -95.3194
1.59188, -1, 5.15706, 14.813, 18.7899, 12.9927, 95.2825, -95.5749
1.59983, -1, 4.96762, 14.7167, 18.8279, 12.995, 95.1819, -95.8302
1.60785, -1, 4.77822, 14.6203, 18.8659, 12.9973, 95.0811, -96.0857
1.61588, -1, 4.58882, 14.524, 18.904, 12.9994, 94.9803, -96.3411
1.62382, -1, 4.39952, 14.4277, 18.9421, 13.0017, 94.8797, -96.5961
1.63182, -1, 4.21044, 14.3313, 18.9801, 13.0039, 94.7788, -96.8511
1.63989, -1, 4.0218, 14.2349, 19.0181, 13.0061, 94.678, -97.1061
1.64787, -1, 3.83384, 14.1388, 19.056, 13.0084, 94.5772, -97.3611
1.65582, -1, 3.64634, 14.0426, 19.094, 13.0107, 94.4764, -97.6158
1.6639, -1, 3.45917, 13.9464, 19.1319, 13.013, 94.3758, -97.8705
1.67182, -1, 3.2723, 13.8504, 19.1696, 13.0153, 94.2751, -98.1252
1.67983, -1, 3.08532, 13.7544, 19.2075, 13.0175, 94.1744, -98.38
1.68799, -1, 2.89838, 13.6583, 19.2455, 13.0198, 94.0739, -98.6344
1.69582, -1, 2.71136, 13.5622, 19.2834, 13.0221, 93.9732, -98.8886
1.70383, -1, 2.52407, 13.4663, 19.3213, 13.0243, 93.8727, -99.1427
1.7122, -1, 2.33661, 13.3704, 19.359, 13.0266, 93.7724, -99.3969
1.71933, -1, 2.14871, 13.2746, 19.3969, 13.0289, 93.6719, -99.6507
1.72792, -1, 1.96054, 13.1788, 19.4348, 13.031, 93.5716, -99.9043
1.73629, -1, 1.77242, 13.083, 19.4725, 13.0334, 93.4718, -100.158
1.74338, -1, 1.58411, 12.9872, 19.5103, 13.0356, 93.3716, -100.411
1.75192, -1, 1.39592, 12.8913, 19.5482, 13.0378, 93.2716, -100.665
1.7605, -1, 1.20809, 12.7955, 19.5859, 13.0402, 93.1717, -100.919
1.76783, -1, 1.02076, 12.6998, 19.6236, 13.0425, 93.0716, -101.172
1.77585, -1, 0.834065, 12.6043, 19.6614, 13.045, 92.9717, -101.425
1.78471, -1, 0.647714, 12.5087, 19.699, 13.0474, 92.8721, -101.678
1.79189, -1, 0.461781, 12.4132, 19.7365, 13.0498, 92.7721, -101.931
1.79886, -1, 0.368958, 12.3656, 19.7554, 13.051, 92.7222, -102.057
1.80894, -1, 0.0908011, 12.2225, 19.8118, 13.0547, 92.5732, -102.436
1.81611, -1, -0.0945614, 12.1272, 19.8494, 13.0572, 92.4735, -102.689
1.82281, -1, -0.187337, 12.0796, 19.8682, 13.0584, 92.4238, -102.815
1.83306, -1, -0.466108, 11.9367, 19.9246, 13.0622, 92.2748, -103.193
1.84032, -1, -0.652333, 11.8417, 19.9621, 13.0647, 92.1752, -103.445
1.84844, -1, -0.838811, 11.7467, 19.9997, 13.0671, 92.0757, -103.697
1.85722, -1, -1.02554, 11.6517, 20.0371, 13.0696, 91.9765, -103.949
1.86288, -1, -1.11894, 11.6042, 20.0559, 13.0709, 91.9267, -104.075
1.87247, -1, -1.39947, 11.4616, 20.1122, 13.0746, 91.7777, -104.452
1.88127, -1, -1.4929, 11.4141, 20.1496, 13.0772, 91.6787, -104.704
1.88687, -1, -1.6795, 11.3189, 20.1683, 13.0785, 91.629, -104.83
1.89683, -1, -1.95866, 11.1765, 20.2245, 13.0825, 91.4803, -105.207
1.90381, -1, -2.05139, 11.129, 20.2432, 13.0838, 91.4308, -105.332
1.91087, -1, -2.23653, 11.0341, 20.2805, 13.0864, 91.3316, -105.583
1.91987, -1, -2.42142, 10.9393, 20.318, 13.0892, 91.2324, -105.834
1.92781, -1, -2.60574, 10.8445, 20.3552, 13.0918, 91.1335, -106.085
1.93482, -1, -2.78963, 10.7497, 20.3925, 13.0945, 91.0342, -106.336
1.94381, -1, -2.97348, 10.655, 20.4299, 13.0971, 90.9351, -106.587
1.95181, -1, -3.15754, 10.5602, 20.4672, 13.0997, 90.8364, -106.837
1.95881, -1, -3.34185, 10.4656, 20.5044, 13.1024, 90.7374, -107.088
1.96791, -1, -3.52648, 10.3711, 20.5416, 13.1048, 90.6385, -107.339
1.9758, -1, -3.71124, 10.2768, 20.5789, 13.1074, 90.5398, -107.589
1.9828, -1, -3.89637, 10.1824, 20.6161, 13.1098, 90.4409, -107.839
1.99181, -1, -4.08176, 10.0881, 20.6534, 13.1122, 90.3421, -108.089
1.99881, -1, -4.26736, 9.99389, 20.6905, 13.1146, 90.2437, -108.339
2.0078, -1, -4.45305, 9.89955, 20.7277, 13.1169, 90.1448, -108.589
2.01602, -1, -4.63841, 9.80524, 20.765, 13.1193, 90.0462, -108.838
2.02385, -1, -4.82336, 9.71106, 20.8022, 13.1216, 89.9479, -109.087
2.03281, -1, -5.0079, 9.61694, 20.8392, 13.124, 89.8493, -109.337
2.0406, -1, -5.19165, 9.52285, 20.8764, 13.1263, 89.7509, -109.586
2.04684, -1, -5.37498, 9.42878, 20.9135, 13.1287, 89.6527, -109.835
2.0558, -1, -5.55786, 9.33488, 20.9506, 13.131, 89.5543, -110.084
2.06462, -1, -5.74032, 9.24094, 20.9877, 13.1332, 89.456, -110.333
2.0708, -1, -5.92261, 9.14699, 21.0247, 13.1355, 89.3581, -110.582
2.07981, -1, -6.105, 9.05311, 21.0616, 13.1377, 89.2598, -110.83
2.08865, -1, -6.28768, 8.95935, 21.0987, 13.1399, 89.1617, -111.079
2.09489, -1, -6.47065, 8.86571, 21.1357, 13.1421, 89.0641, -111.327
2.1038, -1, -6.65378, 8.77207, 21.1725, 13.1442, 88.966, -111.575
2.1126, -1, -6.83741, 8.67848, 21.2095, 13.1464, 88.8681, -111.823
2.11981, -1, -7.02128, 8.58494, 21.2464, 13.1485, 88.7704, -112.071
2.1278, -1, -7.20548, 8.49139, 21.2832, 13.1507, 88.6725, -112.319
2.13659, -1, -7.3897, 8.39775, 21.3202, 13.1527, 88.5747, -112.566
2.14386, -1, -7.57352, 8.30412, 21.357, 13.1549, 88.4772, -112.814
2.15184, -1, -7.75707, 8.21071, 21.3937, 13.157, 88.3794, -113.061
2.1607, -1, -7.94018, 8.11728, 21.4306, 13.1593, 88.282, -113.309
2.1678, -1, -8.12272, 8.02393, 21.4675, 13.1615, 88.1847, -113.556
2.17581, -1, -8.30455, 7.9307, 21.5042, 13.1638, 88.0872, -113.803
2.18461, -1, -8.48594, 7.83746, 21.541, 13.166, 87.9898, -114.05
2.19185, -1, -8.66686, 7.74425, 21.5778, 13.1683, 87.8926, -114.297
2.19981, -1, -8.8476, 7.65108, 21.6146, 13.1706, 87.7951, -114.543
2.20864, -1, -9.02843, 7.55799, 21.6514, 13.1727, 87.6978, -114.79
2.21586, -1, -9.20945, 7.465, 21.6881, 13.175, 87.6007, -115.036
2.22389, -1, -9.39073, 7.37221, 21.7248, 13.1772, 87.5034, -115.282
2.23269, -1, -9.57239, 7.27936, 21.7615, 13.1794, 87.4062, -115.528
2.2399, -1, -9.75433, 7.18659, 21.7982, 13.1816, 87.3092, -115.774
2.24792, -1, -9.93672, 7.09392, 21.8347, 13.1838, 87.212, -116.02
2.25674, -1, -10.1193, 7.00116, 21.8713, 13.186, 87.1147, -116.267
2.2638, -1, -10.3019, 6.90834, 21.9079, 13.1883, 87.0177, -116.512
2.27195, -1, -10.4844, 6.81558, 21.9445, 13.1905, 86.9205, -116.758
2.28075, -1, -10.6667, 6.7229, 21.9811, 13.1928, 86.8235, -117.003
2.28783, -1, -10.8486, 6.63029, 22.0176, 13.1952, 86.7266, -117.248
2.29595, -1, -11.0298, 6.53768, 22.0539, 13.1976, 86.6296, -117.494
2.30485, -1, -11.2103, 6.44519, 22.0905, 13.1999, 86.5328, -117.738
2.31202, -1, -11.3901, 6.35271, 22.1271, 13.2024, 86.4363, -117.983
2.3188, -1, -11.4799, 6.30649, 22.1452, 13.2036, 86.3878, -118.106
2.32902, -1, -11.749, 6.16789, 22.1999, 13.2073, 86.2429, -118.473
2.33619, -1, -11.9283, 6.07561, 22.2365, 13.2098, 86.1464, -118.718
2.34281, -1, -12.0179, 6.0295, 22.2546, 13.211, 86.098, -118.84
2.35234, -1, -12.287, 5.89134, 22.3093, 13.2147, 85.9533, -119.206
2.35885, -1, -12.377, 5.84533, 22.3276, 13.216, 85.9052, -119.328
2.36856, -1, -12.6473, 5.70731, 22.3819, 13.2197, 85.7606, -119.694
2.37636, -1, -12.7376, 5.61536, 22.4183, 13.2222, 85.6644, -119.938
2.38435, -1, -12.9184, 5.5694, 22.4365, 13.2234, 85.5686, -120.181
2.39251, -1, -13.0995, 5.47742, 22.4727, 13.2258, 85.4726, -120.425
2.39979, -1, -13.2807, 5.38538, 22.5089, 13.2283, 85.4246, -120.547
2.40775, -1, -13.4618, 5.29346, 22.5453, 13.2307, 85.329, -120.79
2.41579, -1, -13.6425, 5.20158, 22.5815, 13.2332, 85.2331, -121.033
2.42385, -1, -13.8228, 5.10975, 22.6176, 13.2358, 85.1374, -121.276
2.43079, -1, -14.0024, 5.01792, 22.6539, 13.2384, 85.0417, -121.519
2.43979, -1, -14.1809, 4.92622, 22.69, 13.2409, 84.9461, -121.762
2.44787, -1, -14.3592, 4.83455, 22.7261, 13.2435, 84.8504, -122.005
2.45479, -1, -14.5372, 4.74292, 22.7623, 13.246, 84.7549, -122.247
2.46379, -1, -14.7148, 4.65134, 22.7986, 13.2486, 84.6592, -122.49
2.47185, -1, -14.8924, 4.55985, 22.8346, 13.251, 84.5635, -122.732
2.47879, -1, -15.0701, 4.46845, 22.8708, 13.2534, 84.4679, -122.975
2.48782, -1, -15.2482, 4.3772, 22.907, 13.2558, 84.3723, -123.217
2.49586, -1, -15.4265, 4.28594, 22.943, 13.2583, 84.2766, -123.458
2.50279, -1, -15.6054, 4.19467, 22.979, 13.2605, 84.1811, -123.7
2.51179, -1, -15.7846, 4.10346, 23.015, 13.2628, 84.0855, -123.942
2.52079, -1, -15.9639, 4.01223, 23.0509, 13.265, 83.9901, -124.184
2.52783, -1, -16.1435, 3.92094, 23.087, 13.2671, 83.8947, -124.425
2.53679, -1, -16.3233, 3.82969, 23.1231, 13.2692, 83.7992, -124.666
2.54386, -1, -16.5028, 3.73847, 23.1589, 13.2714, 83.7037, -124.908
2.5518, -1, -16.6818, 3.64735, 23.1947, 13.2736, 83.6084, -125.149
2.55986, -1, -16.8602, 3.55625, 23.2306, 13.2759, 83.5131, -125.39
2.56779, -1, -17.0377, 3.46527, 23.2664, 13.2782, 83.4177, -125.631
2.57579, -1, -17.2146, 3.37434, 23.3023, 13.2804, 83.3224, -125.872
2.58386, -1, -17.3911, 3.28349, 23.3381, 13.2826, 83.2273, -126.112
2.59185, -1, -17.5674, 3.19268, 23.3739, 13.2846, 83.1321, -126.353
2.59979, -1, -17.7435, 3.10204, 23.4098, 13.2868, 83.0372, -126.593
2.6079, -1, -17.9194, 3.01143, 23.4457, 13.2888, 82.9425, -126.833
2.61581, -1, -18.0957, 2.92095, 23.4814, 13.2909, 82.8476, -127.073
2.62379, -1, -18.2722, 2.83058, 23.5171, 13.2931, 82.7529, -127.314
2.63187, -1, -18.4492, 2.74013, 23.5529, 13.2952, 82.6584, -127.553
2.63978, -1, -18.6267, 2.64972, 23.5885, 13.2972, 82.5636, -127.793
2.6478, -1, -18.8043, 2.55941, 23.6242, 13.2993, 82.4691, -128.033
2.65589, -1, -18.9823, 2.46894, 23.6599, 13.3012, 82.3748, -128.272
2.66379, -1, -19.1607, 2.37841, 23.6954, 13.3032, 82.2802, -128.511
2.6718, -1, -19.3389, 2.28807, 23.731, 13.3052, 82.1858, -128.751
2.67986, -1, -19.5165, 2.19767, 23.7667, 13.3074, 82.092, -128.99
2.6878, -1, -19.6936, 2.10727, 23.8021, 13.3095, 81.9977, -129.229
2.69579, -1, -19.8701, 2.01701, 23.8374, 13.3117, 81.9035, -129.468
2.70386, -1, -20.0459, 1.92676, 23.8731, 13.3138, 81.8098, -129.707
2.71184, -1, -20.2211, 1.8366, 23.9085, 13.3161, 81.7155, -129.945
2.71985, -1, -20.396, 1.7465, 23.9439, 13.3182, 81.6215, -130.183
2.72795, -1, -20.5706, 1.65644, 23.9796, 13.3205, 81.5277, -130.422
2.73589, -1, -20.745, 1.56651, 24.015, 13.3227, 81.4336, -130.66
2.7439, -1, -20.9197, 1.47663, 24.0504, 13.3249, 81.3398, -130.898
2.75197, -1, -21.0947, 1.3869, 24.0859, 13.3271, 81.2461, -131.136
2.75995, -1, -21.2701, 1.29708, 24.1214, 13.3293, 81.1522, -131.373
2.76796, -1, -21.4457, 1.20739, 24.1567, 13.3314, 81.0584, -131.611
2.77581, -1, -21.6216, 1.11778, 24.1921, 13.3336, 80.9646, -131.849
2.78457, -1, -21.7978, 1.0281, 24.2276, 13.3357, 80.8709, -132.087
2.79189, -1, -21.9742, 0.938463, 24.2629, 13.338, 80.7772, -132.324
2.79991, -1, -22.1508, 0.848914, 24.2983, 13.3401, 80.6836, -132.561
2.80878, -1, -22.3274, 0.759415, 24.3337, 13.3423, 80.5899, -132.798
2.81617, -1, -22.5034, 0.669923, 24.3689, 13.3446, 80.4962, -133.035
2.82417, -1, -22.6791, 0.580415, 24.4041, 13.347, 80.4026, -133.272
2.83078, -1, -22.7667, 0.53571, 24.4218, 13.3482, 80.3559, -133.39
2.83885, -1, -22.9412, 0.446332, 24.457, 13.3505, 80.2621, -133.627
2.84839, -1, -23.2018, 0.312288, 24.5096, 13.3542, 80.122, -133.983
2.85715, -1, -23.375, 0.222934, 24.5449, 13.3566, 80.0286, -134.219
2.86287, -1, -23.4615, 0.178304, 24.5625, 13.3578, 79.9818, -134.337
2.87243, -1, -23.7213, 0.0445818, 24.6152, 13.3614, 79.8419, -134.691
2.88119, -1, -23.808, -0.0445003, 24.6505, 13.3638, 79.7488, -134.928
2.8884, -1, -23.9814, -0.0889717, 24.668, 13.3651, 79.6554, -135.163
2.89641, -1, -24.1551, -0.177962, 24.7031, 13.3676, 79.6089, -135.399
2.90377, -1, -24.329, -0.266908, 24.7382, 13.3701, 79.5159, -135.517
2.91085, -1, -24.5032, -0.355742, 24.7734, 13.3725, 79.4227, -135.753
2.91983, -1, -24.6778, -0.444645, 24.8085, 13.3749, 79.3297, -135.988
2.92784, -1, -24.8528, -0.533528, 24.8435, 13.3773, 79.2367, -136.224
2.93485, -1, -25.028, -0.622356, 24.8787, 13.3797, 79.1438, -136.459
2.94392, -1, -25.2029, -0.711179, 24.9137, 13.382, 79.0509, -136.694
2.95185, -1, -25.3774, -0.799909, 24.9487, 13.3844, 78.9582, -136.929
2.9588, -1, -25.5516, -0.888779, 24.9838, 13.3868, 78.8656, -137.164
2.96777, -1, -25.7252, -0.977472, 25.0187, 13.3893, 78.7727, -137.399
2.97578, -1, -25.8981, -1.06612, 25.0535, 13.3916, 78.6801, -137.634
2.98278, -1, -26.0706, -1.15486, 25.0886, 13.3941, 78.5879, -137.868
2.99181, -1, -26.2427, -1.24347, 25.1236, 13.3965, 78.4952, -138.103
2.99978, -1, -26.4143, -1.33197, 25.1584, 13.3988, 78.4027, -138.337
3.00682, -1, -26.5861, -1.42038, 25.1933, 13.4011, 78.3105, -138.572
3.01578, -1, -26.7582, -1.5087, 25.2283, 13.4034, 78.2179, -138.806
3.02476, -1, -26.9304, -1.59691, 25.2632, 13.4056, 78.1254, -139.04
3.03078, -1, -27.1028, -1.68507, 25.298, 13.4078, 78.0333, -139.274
3.03977, -1, -27.2753, -1.77328, 25.333, 13.4099, 77.941, -139.508
3.04778, -1, -27.4481, -1.86133, 25.3677, 13.4121, 77.8488, -139.741
3.05585, -1, -27.6214, -1.94943, 25.4025, 13.4142, 77.7569, -139.975
3.06378, -1, -27.7947, -2.03764, 25.4374, 13.4163, 77.6648, -140.208
3.07178, -1, -27.968, -2.12563, 25.4722, 13.4184, 77.5728, -140.441
3.0798, -1, -28.1414, -2.21368, 25.5069, 13.4204, 77.4808, -140.675
3.08778, -1, -28.3145, -2.30173, 25.5417, 13.4224, 77.3888, -140.908
3.09589, -1, -28.4873, -2.38979, 25.5764, 13.4245, 77.2967, -141.141
3.10379, -1, -28.6597, -2.47772, 25.611, 13.4267, 77.2046, -141.374
3.11177, -1, -28.8314, -2.56568, 25.6457, 13.4288, 77.1127, -141.607
3.11987, -1, -29.0024, -2.65366, 25.6804, 13.431, 77.0206, -141.84
3.12779, -1, -29.173, -2.74149, 25.7149, 13.4331, 76.9286, -142.072
3.13578, -1, -29.3436, -2.82927, 25.7495, 13.4351, 76.837, -142.304
3.14385, -1, -29.5142, -2.91693, 25.7842, 13.4372, 76.7451, -142.537
3.15178, -1, -29.6851, -3.00448, 25.8187, 13.4392, 76.6532, -142.769
3.15982, -1, -29.8561, -3.09204, 25.8532, 13.4412, 76.5617, -143.002
3.16784, -1, -30.0271, -3.17949, 25.8879, 13.4433, 76.4697, -143.234
3.17632, -1, -30.198, -3.26696, 25.9224, 13.4454, 76.378, -143.466
3.18378, -1, -30.3692, -3.35439, 25.9568, 13.4475, 76.2865, -143.698
3.19188, -1, -30.5408, -3.44184, 25.9914, 13.4495, 76.1947, -143.929
3.20111, -1, -30.7126, -3.52941, 26.0259, 13.4515, 76.1032, -144.161
3.20778, -1, -30.8845, -3.61674, 26.0603, 13.4537, 76.0119, -144.392
3.21588, -1, -31.0562, -3.70416, 26.0949, 13.4556, 75.9204, -144.624
3.22401, -1, -31.228, -3.79148, 26.1294, 13.4577, 75.8291, -144.855
3.23187, -1, -31.3994, -3.87881, 26.1637, 13.4597, 75.7379, -145.087
3.23994, -1, -31.5702, -3.96608, 26.1982, 13.4619, 75.6466, -145.318
3.24818, -1, -31.7406, -4.05325, 26.2327, 13.464, 75.5554, -145.549
3.25591, -1, -31.9106, -4.14051, 26.2671, 13.4663, 75.4643, -145.78
3.264, -1, -32.0801, -4.22771, 26.3015, 13.4684, 75.3732, -146.011
3.27237, -1, -32.2495, -4.31477, 26.3359, 13.4707, 75.282, -146.241
3.27881, -1, -32.3342, -4.35831, 26.353, 13.4718, 75.2364, -146.357
3.28809, -1, -32.5887, -4.48881, 26.4045, 13.4749, 75.1003, -146.702
3.29735, -1, -32.7584, -4.57571, 26.439, 13.477, 75.0093, -146.933
3.30281, -1, -32.8432, -4.61919, 26.4562, 13.4781, 74.9641, -147.048
3.31201, -1, -33.0977, -4.74958, 26.5074, 13.4815, 74.8283, -147.393
3.3188, -1, -33.1826, -4.79302, 26.5246, 13.4825, 74.783, -147.508
3.32686, -1, -33.3525, -4.87981, 26.5589, 13.4848, 74.6922, -147.738
3.33641, -1, -33.608, -5.01022, 26.6103, 13.4881, 74.5564, -148.083
3.34636, -1, -33.7783, -5.09697, 26.6446, 13.4903, 74.4658, -148.313
3.35234, -1, -33.9485, -5.18367, 26.6788, 13.4926, 74.3752, -148.543
3.36032, -1, -34.1188, -5.2704, 26.7129, 13.4948, 74.2847, -148.772
3.36911, -1, -34.2889, -5.35712, 26.7472, 13.497, 74.1941, -149.001
3.37639, -1, -34.4588, -5.44371, 26.7815, 13.4994, 74.1035, -149.231
3.3846, -1, -34.5436, -5.53036, 26.8156, 13.5017, 74.0129, -149.46
3.39313, -1, -34.7129, -5.5737, 26.8326, 13.5029, 73.9678, -149.689
3.39876, -1, -34.8816, -5.66035, 26.8668, 13.5053, 73.8772, -149.804
3.40887, -1, -35.1342, -5.79014, 26.918, 13.509, 73.7415, -150.147
3.41578, -1, -35.2183, -5.83339, 26.935, 13.5102, 73.6964, -150.262
3.42376, -1, -35.3867, -5.91975, 26.9691, 13.5126, 73.6061, -150.491
3.43181, -1, -35.5552, -6.00602, 27.0033, 13.5149, 73.5157, -150.72
3.43982, -1, -35.7236, -6.09226, 27.0372, 13.5173, 73.4253, -150.948
3.44677, -1, -35.8922, -6.17844, 27.0712, 13.5197, 73.3351, -151.177
3.45579, -1, -36.0607, -6.26457, 27.1054, 13.5221, 73.2446, -151.405
3.46381, -1, -36.2293, -6.35068, 27.1393, 13.5245, 73.1542, -151.634
3.47076, -1, -36.3979, -6.4369, 27.1732, 13.5269, 73.0641, -151.862
3.47976, -1, -36.5669, -6.52312, 27.2073, 13.5292, 72.9735, -152.091
3.48782, -1, -36.7358, -6.60928, 27.2412, 13.5315, 72.8832, -152.319
3.49481, -1, -36.9047, -6.69542, 27.275, 13.5338, 72.7932, -152.547
3.50376, -1, -37.0737, -6.78161, 27.309, 13.5361, 72.703, -152.775
3.51177, -1, -37.2425, -6.86773, 27.3429, 13.5383, 72.613, -153.003
3.52076, -1, -37.411, -6.95375, 27.3768, 13.5405, 72.5231, -153.23
3.52776, -1, -37.5791, -7.03979, 27.4108, 13.5428, 72.4332, -153.458
3.53681, -1, -37.7468, -7.1258, 27.4448, 13.5451, 72.3434, -153.685
3.54383, -1, -37.9144, -7.21181, 27.4785, 13.5473, 72.2536, -153.913
3.55177, -1, -38.0819, -7.2977, 27.5125, 13.5495, 72.164, -154.141
3.55976, -1, -38.2493, -7.38355, 27.5465, 13.5517, 72.0742, -154.368
3.56777, -1, -38.4166, -7.46928, 27.5803, 13.5539, 71.9845, -154.595
3.57577, -1, -38.5839, -7.55501, 27.6141, 13.5559, 71.8951, -154.822
3.58383, -1, -38.7512, -7.64074, 27.648, 13.5581, 71.8052, -155.049
3.59176, -1, -38.9185, -7.72639, 27.6818, 13.56, 71.7158, -155.276
3.59981, -1, -39.0859, -7.81199, 27.7155, 13.5621, 71.6267, -155.503
3.60786, -1, -39.2535, -7.89767, 27.7494, 13.5641, 71.5371, -155.73
3.61577, -1, -39.4209, -7.98336, 27.7832, 13.5661, 71.4479, -155.957
3.6238, -1, -39.5885, -8.06891, 27.8168, 13.568, 71.3587, -156.183
3.63183, -1, -39.7562, -8.15444, 27.8505, 13.5699, 71.2694, -156.41
3.63976, -1, -39.9238, -8.23993, 27.8843, 13.5719, 71.18, -156.636
3.64778, -1, -40.0915, -8.32538, 27.9179, 13.5738, 71.0906, -156.863
3.65583, -1, -40.2589, -8.41074, 27.9516, 13.5758, 71.0015, -157.089
3.6638, -1, -40.426, -8.49611, 27.9854, 13.5778, 70.9119, -157.315
3.67177, -1, -40.593, -8.58146, 28.019, 13.5798, 70.8227, -157.541
3.67983, -1, -40.7598, -8.6669, 28.0526, 13.5817, 70.7337, -157.767
3.68776, -1, -40.9264, -8.75221, 28.0864, 13.5838, 70.6445, -157.993
3.69591, -1, -41.0928, -8.8375, 28.1201, 13.5858, 70.5554, -158.219
3.70377, -1, -41.2591, -8.92276, 28.1536, 13.5878, 70.4665, -158.445
3.71177, -1, -41.4254, -9.00794, 28.1872, 13.5898, 70.3772, -158.671
3.72003, -1, -41.5916, -9.0931, 28.2209, 13.5918, 70.288, -158.896
3.72784, -1, -41.7579, -9.17815, 28.2544, 13.5938, 70.199, -159.121
3.73586, -1, -41.9243, -9.26322, 28.288, 13.5958, 70.1098, -159.347
3.74435, -1, -42.0908, -9.34827, 28.3217, 13.5978, 70.0208, -159.572
3.75131, -1, -42.257, -9.43336, 28.3552, 13.5999, 69.9318, -159.798
3.75993, -1, -42.4233, -9.51838, 28.3887, 13.6019, 69.843, -160.023
3.7685, -1, -42.5898, -9.60333, 28.4223, 13.6039, 69.7539, -160.248
3.77577, -1, -42.7561, -9.68826, 28.4558, 13.6059, 69.665, -160.473
3.78379, -1, -42.9224, -9.77321, 28.4891, 13.608, 69.5765, -160.698
3.79188, -1, -43.0886, -9.85813, 28.5226, 13.61, 69.4875, -160.923
3.80065, -1, -43.2548, -9.94302, 28.5561, 13.6121, 69.3988, -161.148
3.80789, -1, -43.421, -10.0279, 28.5895, 13.6142, 69.3102, -161.373
3.81604, -1, -43.587, -10.1129, 28.623, 13.6162, 69.2215, -161.598
3.82281, -1, -43.6701, -10.1554, 28.6398, 13.6173, 69.1771, -161.71
3.83084, -1, -43.836, -10.2402, 28.6732, 13.6194, 69.0886, -161.935
3.84023, -1, -44.0845, -10.3674, 28.7232, 13.6227, 68.9559, -162.271
3.84674, -1, -44.1672, -10.4098, 28.74, 13.6237, 68.9115, -162.383
3.85628, -1, -44.415, -10.5367, 28.7901, 13.627, 68.7786, -162.72
3.86438, -1, -44.5802, -10.6212, 28.8234, 13.6293, 68.6903, -162.944
3.87302, -1, -44.7454, -10.7057, 28.8569, 13.6314, 68.6015, -163.168
3.87881, -1, -44.828, -10.7479, 28.8737, 13.6325, 68.5573, -163.28
3.88847, -1, -45.076, -10.8747, 28.9237, 13.6358, 68.4248, -163.616
3.89633, -1, -45.1587, -10.917, 28.9404, 13.6369, 68.3805, -163.728
3.90378, -1, -45.3239, -11.0015, 28.9739, 13.6391, 68.292, -163.952
3.91183, -1, -45.4891, -11.0859, 29.0072, 13.6414, 68.2035, -164.176
3.91979, -1, -45.6544, -11.1703, 29.0403, 13.6436, 68.1156, -164.4
3.92874, -1, -45.8196, -11.2548, 29.0904, 13.6471, 67.9829, -164.736
3.93585, -1, -45.984, -11.3387, 29.1071, 13.6482, 67.9387, -164.847
3.94375, -1, -46.1455, -11.421, 29.1405, 13.6505, 67.8507, -165.071
3.95176, -1, -46.3027, -11.5005, 29.1741, 13.6529, 67.7632, -165.292
3.95982, -1, -46.4532, -11.5756, 29.2076, 13.6553, 67.6779, -165.507
3.96775, -1, -46.5947, -11.6457, 29.2399, 13.6576, 67.5964, -165.713
3.97575, -1, -46.7245, -11.7092, 29.2698, 13.6598, 67.5215, -165.904
3.9838, -1, -46.8398, -11.7654, 29.2963, 13.6618, 67.4543, -166.073
3.99174, -1, -46.9389, -11.8147, 29.3185, 13.6635, 67.3982, -166.216
3.99978, -1, -47.0218, -11.8578, 29.3352, 13.6647, 67.3531, -166.33
4.00781, -1, -47.0893, -11.8947, 29.3466, 13.6655, 67.3192, -166.415
4.01575, -1, -47.142, -11.9244, 29.354, 13.6659, 67.2957, -166.474
4.02374, -1, -47.1812, -11.9467, 29.358, 13.6661, 67.2806, -166.512
4.03181, -1, -47.209, -11.9623, 29.3598, 13.6662, 67.2717, -166.535
4.03975, -1, -47.2275, -11.9724, 29.3607, 13.6663, 67.2668, -166.547
4.04874, -1, -47.2386, -11.9784, 29.3611, 13.6664, 67.2644, -166.553
4.05582, -1, -47.2444, -11.9814, 29.3613, 13.6664, 67.2633, -166.556
4.06375, 2, -47.2467, -11.9827, 29.3615, 13.6665, 67.2628, -166.557
4.07174, 2, -47.2468, -11.9832, 29.3616, 13.6665, 67.2626, -166.558
4.07983, 2, -47.2465, -11.9834, 29.3616, 13.6665, 67.2624, -166.558
4.08775, 2, -47.2465, -11.9835, 29.3617, 13.6665, 67.2624, -166.558
4.09575, 2, -47.2468, -11.9836, 29.3617, 13.6666, 67.2624, -166.558
4.10386, 2, -47.2478, -11.9838, 29.3617, 13.6665, 67.2623, -166.558
4.11174, 2, -47.249, -11.9843, 29.3618, 13.6665, 67.2623, -166.558
4.11975, 2, -47.2508, -11.9851, 29.3618, 13.6665, 67.2623, -166.558
4.12783, 2, -47.2525, -11.986, 29.3618, 13.6666, 67.2623, -166.558
4.13575, 2, -47.254, -11.9868, 29.3618, 13.6666, 67.2622, -166.558
4.14375, 2, -47.255, -11.9874, 29.3618, 13.6665, 67.2622, -166.558
4.1518, 2, -47.2555, -11.9878, 29.3618, 13.6666, 67.2623, -166.558
4.15975, 2, -47.2557, -11.988, 29.3618, 13.6665, 67.2623, -166.558
4.16777, 2, -47.2558, -11.9881, 29.3618, 13.6666, 67.2623, -166.558
4.17581, 2, -47.2556, -11.9881, 29.3618, 13.6665, 67.2622, -166.558
4.18374, 2, -47.2551, -11.9881, 29.3618, 13.6665, 67.2622, -166.558
4.19175, 2, -47.2546, -11.988, 29.3618, 13.6665, 67.2623, -166.558
4.19986, 2, -47.2542, -11.988, 29.3618, 13.6666, 67.2623, -166.558
4.20775, 2, -47.254, -11.988, 29.3618, 13.6666, 67.2623, -166.558
4.21577, 2, -47.254, -11.9881, 29.3618, 13.6665, 67.2622, -166.558
4.22384, 2, -47.254, -11.9882, 29.3618, 13.6665, 67.2623, -166.558
4.23183, 2, -47.2542, -11.9885, 29.3618, 13.6666, 67.2623, -166.558
4.23985, 2, -47.2547, -11.9888, 29.3618, 13.6666, 67.2623, -166.558
4.24791, 2, -47.2554, -11.989, 29.3618, 13.6666, 67.2623, -166.558
4.25586, 2, -47.2557, -11.9892, 29.3618, 13.6665, 67.2623, -166.558
4.26387, 2, -47.2559, -11.9893, 29.3618, 13.6666, 67.2623, -166.558
4.27196, 2, -47.2559, -11.9893, 29.3618, 13.6665, 67.2623, -166.558
4.27976, 2, -47.2558, -11.9893, 29.3618, 13.6665, 67.2623, -166.558
4.2878, 2, -47.2558, -11.9892, 29.3618, 13.6665, 67.2623, -166.558
4.29586, 2, -47.2554, -11.9892, 29.3618, 13.6664, 67.2623, -166.558
4.30394, 2, -47.255, -11.9892, 29.3618, 13.6665, 67.2623, -166.558
4.31077, 2, -47.2549, -11.9892, 29.3618, 13.6664, 67.2623, -166.558
4.31999, 2, -47.2545, -11.9892, 29.3618, 13.6665, 67.2623, -166.558
4.32807, 2, -47.2544, -11.9892, 29.3618, 13.6665, 67.2623, -166.558
4.33483, 2, -47.2543, -11.9893, 29.3618, 13.6665, 67.2623, -166.558
4.34416, 2, -47.2542, -11.9893, 29.3618, 13.6665, 67.2623, -166.558
4.35074, 2, -47.2542, -11.9894, 29.3618, 13.6665, 67.2623, -166.558
4.36035, 2, -47.2541, -11.9894, 29.3618, 13.6664, 67.2623, -166.558
4.36831, 2, -47.2542, -11.9894, 29.3618, 13.6664, 67.2623, -166.558
4.3763, 2, -47.2542, -11.9894, 29.3618, 13.6664, 67.2623, -166.558
4.38438, 2, -47.2542, -11.9893, 29.3618, 13.6664, 67.2623, -166.558
4.39253, 2, -47.2541, -11.9893, 29.3618, 13.6664, 67.2624, -166.558
4.40053, 2, -47.2541, -11.9893, 29.3618, 13.6664, 67.2624, -166.558
4.40775, 2, -47.254, -11.9892, 29.3618, 13.6664, 67.2624, -166.558
4.41578, 2, -47.2538, -11.9892, 29.3618, 13.6665, 67.2623, -166.558
4.42373, 2, -47.2537, -11.9892, 29.3618, 13.6665, 67.2624, -166.558
4.43175, 2, -47.2536, -11.9892, 29.3618, 13.6665, 67.2624, -166.558
4.43983, 2, -47.2535, -11.9892, 29.3618, 13.6665, 67.2624, -166.558
4.44774, 2, -47.2535, -11.9893, 29.3618, 13.6664, 67.2624, -166.558
4.45576, 2, -47.2534, -11.9893, 29.3618, 13.6664, 67.2623, -166.558
4.46379, 2, -47.2533, -11.9893, 29.3618, 13.6664, 67.2624, -166.558
4.47173, 2, -47.2533, -11.9893, 29.3618, 13.6664, 67.2624, -166.558
4.47975, 2, -47.2532, -11.9893, 29.3618, 13.6664, 67.2623, -166.558
4.48777, 2, -47.2531, -11.9892, 29.3618, 13.6664, 67.2623, -166.558
4.49574, 2, -47.253, -11.9892, 29.3618, 13.6664, 67.2623, -166.558
4.50378, 2, -47.2529, -11.9892, 29.3618, 13.6664, 67.2623, -166.558
4.51177, 2, -47.2528, -11.9891, 29.3618, 13.6664, 67.2623, -166.558
4.51976, 2, -47.2527, -11.9891, 29.3618, 13.6664, 67.2624, -166.558
4.52774, 2, -47.2526, -11.9891, 29.3618, 13.6664, 67.2624, -166.558
4.53673, 2, -47.2525, -11.9891, 29.3618, 13.6664, 67.2624, -166.557
4.54373, 2, -47.2524, -11.9891, 29.3618, 13.6664, 67.2624, -166.558
4.55272, 2, -47.2523, -11.9891, 29.3618, 13.6664, 67.2624, -166.558
4.55978, 2, -47.2522, -11.9891, 29.3618, 13.6664, 67.2624, -166.557
4.56779, 2, -47.2521, -11.9891, 29.3618, 13.6664, 67.2624, -166.557
4.57575, 2, -47.2519, -11.9891, 29.3618, 13.6664, 67.2624, -166.557
4.58378, 2, -47.2518, -11.9891, 29.3618, 13.6664, 67.2625, -166.557
4.59173, 2, -47.2517, -11.9891, 29.3618, 13.6664, 67.2624, -166.557
4.59976, 2, -47.2516, -11.9891, 29.3618, 13.6664, 67.2624, -166.557
4.60786, 2, -47.2516, -11.989, 29.3618, 13.6664, 67.2624, -166.557
4.61573, 2, -47.2515, -11.9889, 29.3618, 13.6664, 67.2624, -166.557
4.62374, 2, -47.2514, -11.9889, 29.3618, 13.6664, 67.2625, -166.557
4.6318, 2, -47.2512, -11.9889, 29.3618, 13.6664, 67.2624, -166.557
4.63974, 2, -47.2512, -11.9888, 29.3618, 13.6664, 67.2624, -166.557
4.64775, 2, -47.2511, -11.9889, 29.3618, 13.6663, 67.2625, -166.557
4.65578, 2, -47.2511, -11.9888, 29.3618, 13.6663, 67.2625, -166.557
4.66373, 2, -47.251, -11.9889, 29.3618, 13.6663, 67.2625, -166.557
4.67177, 2, -47.251, -11.9888, 29.3618, 13.6663, 67.2625, -166.557
4.67978, 2, -47.2509, -11.9888, 29.3618, 13.6663, 67.2625, -166.557
4.68773, 2, -47.2509, -11.9888, 29.3618, 13.6663, 67.2625, -166.557
4.69576, 2, -47.2509, -11.9888, 29.3618, 13.6663, 67.2625, -166.557
4.70378, 2, -47.2508, -11.9888, 29.3618, 13.6663, 67.2625, -166.557
4.71173, 2, -47.2508, -11.9887, 29.3618, 13.6663, 67.2625, -166.557
4.71979, 2, -47.2507, -11.9886, 29.3618, 13.6663, 67.2625, -166.557
4.72783, 2, -47.2506, -11.9886, 29.3618, 13.6663, 67.2625, -166.557
4.73582, 2, -47.2505, -11.9886, 29.3618, 13.6663, 67.2625, -166.557
4.74384, 2, -47.2504, -11.9886, 29.3618, 13.6663, 67.2625, -166.557
4.75187, 2, -47.2504, -11.9886, 29.3618, 13.6663, 67.2626, -166.557
4.75984, 2, -47.2503, -11.9886, 29.3618, 13.6663, 67.2626, -166.557
4.76785, 2, -47.2503, -11.9886, 29.3618, 13.6663, 67.2626, -166.557
4.77595, 2, -47.2502, -11.9886, 29.3618, 13.6662, 67.2626, -166.557
4.78373, 2, -47.2502, -11.9886, 29.3618, 13.6663, 67.2626, -166.557
4.79179, 2, -47.2502, -11.9885, 29.3618, 13.6663, 67.2627, -166.557
4.79984, 2, -47.2501, -11.9885, 29.3618, 13.6663, 67.2627, -166.557
4.80783, 2, -47.25, -11.9885, 29.3618, 13.6663, 67.2626, -166.556
4.8162, 2, -47.25, -11.9884, 29.3618, 13.6663, 67.2626, -166.556
4.82277, 2, -47.25, -11.9884, 29.3618, 13.6662, 67.2626, -166.556
4.83205, 2, -47.2499, -11.9883, 29.3618, 13.6662, 67.2627, -166.556
4.83881, 2, -47.2498, -11.9883, 29.3618, 13.6662, 67.2627, -166.556
4.84819, 2, -47.2497, -11.9882, 29.3618, 13.6662, 67.2627, -166.556
4.85473, 2, -47.2496, -11.9882, 29.3618, 13.6662, 67.2627, -166.556
4.86461, 2, -47.2495, -11.9882, 29.3618, 13.6662, 67.2627, -166.556
4.87234, 2, -47.2495, -11.9882, 29.3618, 13.6662, 67.2628, -166.556
4.88031, 2, -47.2494, -11.9882, 29.3618, 13.6662, 67.2627, -166.556
4.88854, 2, -47.2494, -11.9882, 29.3618, 13.6661, 67.2627, -166.556
4.89634, 2, -47.2494, -11.9882, 29.3618, 13.6661, 67.2628, -166.556
4.90372, 2, -47.2494, -11.9881, 29.3618, 13.6661, 67.2628, -166.556
4.91259, 2, -47.2493, -11.9881, 29.3618, 13.6661, 67.2628, -166.556
4.91976, 2, -47.2493, -11.988, 29.3618, 13.6661, 67.2628, -166.556
4.92772, 2, -47.2492, -11.988, 29.3618, 13.666, 67.2627, -166.556
4.93595, 2, -47.2491, -11.9879, 29.3618, 13.6661, 67.2627, -166.556
4.94381, 2, -47.2491, -11.9878, 29.3618, 13.6661, 67.2627, -166.556
4.95171, 2, -47.249, -11.9878, 29.3618, 13.6661, 67.2628, -166.556
4.95974, 2, -47.2489, -11.9878, 29.3618, 13.666, 67.2628, -166.556
4.96777, 2, -47.2488, -11.9878, 29.3618, 13.666, 67.2628, -166.556
4.97572, 2, -47.2487, -11.9878, 29.3618, 13.666, 67.2628, -166.556
4.98373, 2, -47.2487, -11.9878, 29.3618, 13.666, 67.2628, -166.556
4.99175, 2, -47.2487, -11.9878, 29.3618, 13.6659, 67.2628, -166.556
4.99972, 2, -47.2486, -11.9878, 29.3618, 13.666, 67.2628, -166.556
5.00775, 2, -47.2486, -11.9877, 29.3618, 13.6659, 67.2628, -166.556
5.01576, 2, -47.2486, -11.9877, 29.3618, 13.6659, 67.2628, -166.556
5.02371, 2, -47.2486, -11.9876, 29.3618, 13.6659, 67.2628, -166.556
5.03359, 2, -47.2485, -11.9875, 29.3617, 13.6659, 67.2628, -166.556
5.03977, 2, -47.2485, -11.9875, 29.3617, 13.6659, 67.2628, -166.556
5.0488, 2, -47.2484, -11.9874, 29.3617, 13.6659, 67.2628, -166.556
5.05573, 2, -47.2483, -11.9874, 29.3618, 13.6659, 67.2628, -166.556
5.06479, 2, -47.2482, -11.9874, 29.3618, 13.6659, 67.2628, -166.556
5.07184, 2, -47.2481, -11.9874, 29.3618, 13.6659, 67.2629, -166.556
5.07983, 2, -47.2481, -11.9874, 29.3618, 13.6658, 67.2629, -166.556
5.08803, 2, -47.248, -11.9874, 29.3617, 13.6658, 67.2629, -166.556
5.09479, 2, -47.248, -11.9874, 29.3617, 13.6658, 67.2629, -166.556
5.10378, 2, -47.248, -11.9874, 29.3617, 13.6658, 67.263, -166.556
5.11176, 2, -47.248, -11.9873, 29.3617, 13.6657, 67.263, -166.556
5.11972, 2, -47.248, -11.9873, 29.3617, 13.6657, 67.2629, -166.556
5.12778, 2, -47.2479, -11.9872, 29.3618, 13.6657, 67.263, -166.556
5.13575, 2, -47.2479, -11.9872, 29.3618, 13.6657, 67.263, -166.556
5.14371, 4, -47.2478, -11.9871, 29.3618, 13.6657, 67.263, -166.556
5.15177, 4, -47.2478, -11.9871, 29.3618, 13.6656, 67.263, -166.556
5.15972, 4, -47.2477, -11.987, 29.3618, 13.6656, 67.263, -166.556
5.16771, 4, -47.2477, -11.987, 29.3618, 13.6656, 67.263, -166.556
5.17582, 4, -47.2476, -11.987, 29.3617, 13.6656, 67.263, -166.556
5.18371, 4, -47.2475, -11.987, 29.3617, 13.6656, 67.263, -166.556
5.19171, 4, -47.2475, -11.987, 29.3617, 13.6656, 67.263, -166.556
5.19988, 4, -47.2474, -11.987, 29.3617, 13.6656, 67.2631, -166.556
5.20771, 4, -47.2474, -11.987, 29.3617, 13.6656, 67.2631, -166.556
5.21572, 4, -47.2474, -11.987, 29.3617, 13.6656, 67.2631, -166.556
5.22381, 4, -47.2474, -11.9869, 29.3617, 13.6656, 67.2631, -166.556
5.23178, 4, -47.2473, -11.9868, 29.3617, 13.6655, 67.2631, -166.555
5.23997, 4, -47.2473, -11.9868, 29.3617, 13.6655, 67.263, -166.556
5.25547, 4, -47.2473, -11.9867, 29.3618, 13.6655, 67.2631, -166.556
5.25737, 4, -47.2472, -11.9867, 29.3618, 13.6655, 67.2631, -166.556
5.26584, 4, -47.2472, -11.9867, 29.3617, 13.6654, 67.2631, -166.555
5.27567, 4, -47.2471, -11.9866, 29.3617, 13.6655, 67.2631, -166.555
5.27962, 4, -47.2471, -11.9866, 29.3617, 13.6654, 67.2631, -166.555
5.28869, 4, -47.247, -11.9866, 29.3617, 13.6654, 67.2631, -166.555
5.29601, 4, -47.2469, -11.9866, 29.3617, 13.6654, 67.2631, -166.555
5.30422, 4, -47.2469, -11.9866, 29.3617, 13.6654, 67.2631, -166.555
5.31459, 4, -47.2469, -11.9866, 29.3618, 13.6654, 67.2631, -166.555
5.32046, 4, -47.2468, -11.9866, 29.3618, 13.6654, 67.2631, -166.555
5.33181, 4, -47.2468, -11.9865, 29.3617, 13.6654, 67.2631, -166.555
5.33634, 4, -47.2468, -11.9865, 29.3618, 13.6654, 67.2631, -166.555
5.34677, 4, -47.2468, -11.9864, 29.3617, 13.6653, 67.2632, -166.555
5.35843, 4, -47.2467, -11.9864, 29.3617, 13.6653, 67.2632, -166.555
5.361, 4, -47.2467, -11.9864, 29.3617, 13.6653, 67.2632, -166.555
5.36877, 4, -47.2467, -11.9863, 29.3617, 13.6653, 67.2632, -166.555
5.37672, 4, -47.2466, -11.9863, 29.3617, 13.6653, 67.2632, -166.555
5.393, 4, -47.2465, -11.9863, 29.3617, 13.6653, 67.2632, -166.555
5.39487, 4, -47.2465, -11.9863, 29.3617, 13.6653, 67.2632, -166.555
5.4008, 4, -47.2465, -11.9863, 29.3617, 13.6653, 67.2632, -166.555
5.40684, 4, -47.2465, -11.9863, 29.3617, 13.6653, 67.2632, -166.555
5.41882, 4, -47.2466, -11.9863, 29.3618, 13.6652, 67.2632, -166.555
5.42383, 4, -47.2469, -11.9864, 29.3618, 13.6653, 67.2632, -166.555
5.43256, 4, -47.2484, -11.9873, 29.3627, 13.6658, 67.2634, -166.555
5.44366, 4, -47.2539, -11.9927, 29.3694, 13.6766, 67.2661, -166.554
5.44926, 4, -47.257, -11.9965, 29.3745, 13.6867, 67.2686, -166.552
5.45867, 5, -47.2726, -12.0168, 29.4068, 13.7507, 67.286, -166.538
5.4639, 5, -47.2806, -12.0277, 29.4256, 13.789, 67.2965, -166.529
5.47187, 5, -47.3027, -12.0574, 29.4798, 13.9016, 67.328, -166.504
5.47997, 5, -47.3346, -12.0991, 29.5618, 14.074, 67.3759, -166.464
5.48836, 5, -47.3779, -12.1545, 29.677, 14.3201, 67.4433, -166.408
5.49583, 5, -47.434, -12.2246, 29.8285, 14.6481, 67.5326, -166.333
5.50383, 5, -47.5027, -12.3099, 30.0184, 15.0606, 67.6431, -166.238
5.51427, 5, -47.6285, -12.4656, 30.3739, 15.8262, 67.8457, -166.064
5.51982, 5, -47.6761, -12.5243, 30.5092, 16.1146, 67.9211, -165.999
5.52822, 5, -47.7783, -12.6507, 30.802, 16.7306, 68.0808, -165.861
5.53788, 5, -47.9459, -12.8589, 31.2843, 17.7248, 68.3326, -165.642
5.54384, 5, -48.0043, -12.9321, 31.4536, 18.067, 68.4179, -165.568
5.55193, 5, -48.1237, -13.082, 31.7994, 18.7585, 68.5876, -165.419
5.55985, 5, -48.2437, -13.2343, 32.1514, 19.4521, 68.7548, -165.272
5.56783, 5, -48.3612, -13.3858, 32.505, 20.1362, 68.918, -165.126
5.57595, 5, -48.472, -13.5339, 32.8569, 20.8025, 69.0775, -164.973
5.58454, 6, -48.5718, -13.6756, 33.2009, 21.4405, 69.2357, -164.802
5.59185, 6, -48.6565, -13.8081, 33.5325, 22.0406, 69.3951, -164.599
5.60258, 7, -48.7473, -13.9901, 33.9978, 22.8587, 69.6437, -164.198
5.60795, 7, -48.7668, -14.0464, 34.1439, 23.1081, 69.7307, -164.033
5.61593, 7, -48.7897, -14.1521, 34.4214, 23.5747, 69.9126, -163.646
5.624, 8, -48.7924, -14.2479, 34.6806, 24.0048, 70.107, -163.186
5.63191, 8, -48.7769, -14.3349, 34.9255, 24.4065, 70.314, -162.657
5.64331, 9, -48.7246, -14.453, 35.2715, 24.9762, 70.6467, -161.763
5.64872, 10, -48.7011, -14.4896, 35.3834, 25.1619, 70.7627, -161.445
5.65621, 10, -48.6469, -14.5586, 35.6048, 25.5323, 71.001, -160.791
5.66495, 11, -48.5844, -14.6235, 35.8239, 25.9049, 71.2459, -160.12
5.67348, 11, -48.5149, -14.6864, 36.0425, 26.2817, 71.4952, -159.443
5.67913, 11, -48.4402, -14.7489, 36.2617, 26.6637, 71.7465, -158.766
5.69375, 12, -48.3228, -14.8419, 36.5875, 27.2465, 72.1243, -157.755
5.69665, 12, -48.2827, -14.8727, 36.6952, 27.4432, 72.2499, -157.42
5.7089, 13, -48.2011, -14.9341, 36.9095, 27.8392, 72.6254, -156.423
5.71191, 13, -48.1174, -14.9954, 37.1211, 28.238, 72.7499, -156.093
5.72377, 14, -48.0314, -15.0564, 37.3298, 28.6382, 73.1205, -155.106
5.7278, 14, -47.9428, -15.1173, 37.5367, 29.0392, 73.2432, -154.78
5.73717, 15, -47.8508, -15.1783, 37.7407, 29.4404, 73.4871, -154.129
5.74406, 15, -47.754, -15.239, 37.9412, 29.8405, 73.7289, -153.482
5.75248, 16, -47.6517, -15.2996, 38.1395, 30.2395, 73.9684, -152.837
5.75995, 16, -47.5436, -15.3605, 38.3349, 30.6369, 74.2052, -152.198
5.77041, 17, -47.4304, -15.4221, 38.5264, 31.0329, 74.439, -151.561
5.7756, 17, -47.372, -15.4845, 38.7151, 31.4268, 74.6693, -150.929
5.78475, 18, -47.1889, -15.548, 38.9018, 31.8188, 74.8958, -150.303
5.79205, 18, -47.0606, -15.6128, 39.0858, 32.2089, 75.118, -149.684
5.80008, 19, -46.9276, -15.6795, 39.2677, 32.5974, 75.3354, -149.072
5.81074, 20, -46.7898, -15.748, 39.4488, 32.9842, 75.5476, -148.466
5.81617, 20, -46.6467, -15.8187, 39.6286, 33.3687, 75.7544, -147.869
5.82618, 21, -46.4987, -15.8918, 39.8056, 33.751, 75.9556, -147.28
5.83382, 21, -46.3459, -15.9677, 39.9801, 34.1309, 76.1512, -146.698
5.84422, 22, -46.1073, -16.0863, 40.2387, 34.6953, 76.4336, -145.838
5.8485, 22, -46.0251, -16.1269, 40.3236, 34.8817, 76.5248, -145.556
5.85747, 23, -45.8564, -16.2098, 40.4908, 35.2519, 76.7029, -144.995
5.86458, 23, -45.6812, -16.2946, 40.6557, 35.6176, 76.8752, -144.441
5.87273, 23, -45.4993, -16.3811, 40.818, 35.979, 77.0421, -143.892
5.88271, 24, -45.3105, -16.4693, 40.9762, 36.3352, 77.2033, -143.349
5.88872, 25, -45.115, -16.5589, 41.1298, 36.6856, 77.3598, -142.81
5.8968, 25, -44.9128, -16.6498, 41.2793, 37.0297, 77.5113, -142.274
5.90461, 26, -44.704, -16.7414, 41.4242, 37.3669, 77.6584, -141.741
5.91482, 26, -44.4885, -16.8333, 41.5643, 37.6969, 77.8009, -141.211
5.92061, 27, -44.3781, -16.8792, 41.6324, 38.0195, 77.9396, -140.684
5.92878, 27, -44.0371, -17.0161, 41.8281, 38.3339, 78.0736, -140.159
5.93585, 27, -43.9204, -17.0614, 41.8904, 38.4881, 78.1394, -139.896
5.94389, 28, -43.6819, -17.1513, 42.0101, 38.7906, 78.2682, -139.372
5.95529, 28, -43.4365, -17.2402, 42.1228, 39.228, 78.4546, -138.588
5.95984, 29, -43.1843, -17.3277, 42.2284, 39.3696, 78.5153, -138.327
5.96909, 29, -42.793, -17.4561, 42.3734, 39.7822, 78.6919, -137.543
5.97583, 30, -42.6588, -17.4979, 42.418, 39.9154, 78.7495, -137.282
5.98674, 31, -42.2426, -17.6195, 42.5414, 40.3023, 78.9177, -136.501
5.99189, 31, -42.0997, -17.6588, 42.579, 40.427, 78.9723, -136.241
6.00193, 32, -41.6598, -17.7733, 42.6816, 40.7881, 79.1324, -135.461
6.00782, 32, -41.5096, -17.8102, 42.7124, 40.9042, 79.1842, -135.202
6.02131, 33, -41.0493, -17.9172, 42.7945, 41.3485, 79.3858, -134.166
6.02778, 33, -40.7342, -17.9851, 42.8402, 41.4545, 79.4346, -133.908
6.03184, 33, -40.5741, -18.018, 42.8604, 41.5584, 79.4826, -133.65
6.04011, 34, -40.2503, -18.0815, 42.8953, 41.7601, 79.5769, -133.134
6.04785, 34, -39.9222, -18.1422, 42.9233, 41.9538, 79.6689, -132.62
6.05583, 35, -39.5889, -18.1997, 42.9439, 42.1399, 79.7584, -132.107
6.06706, 36, -39.0768, -18.2799, 42.9622, 42.4049, 79.8884, -131.339
6.07266, 36, -38.9024, -18.305, 42.9649, 42.4893, 79.9305, -131.084
6.0799, 37, -38.5481, -18.3527, 42.9651, 42.6523, 80.0135, -130.574
6.08789, 37, -38.1878, -18.397, 42.9584, 42.8079, 80.0938, -130.067
6.09818, 38, -37.6364, -18.4568, 42.9355, 43.0273, 80.2112, -129.308
6.10392, 38, -37.4501, -18.475, 42.9246, 43.0968, 80.249, -129.056
6.11283, 39, -37.0741, -18.5088, 42.8976, 43.23, 80.3238, -128.552
6.12424, 39, -36.5015, -18.5526, 42.8444, 43.4161, 80.4312, -127.801
6.12785, 39, -36.3082, -18.5652, 42.8233, 43.4744, 80.4663, -127.552
6.1362, 40, -35.9173, -18.5878, 42.7763, 43.5857, 80.5346, -127.054
6.14903, 41, -35.3196, -18.6151, 42.6934, 43.7392, 80.6343, -126.311
6.1558, 41, -34.9145, -18.6285, 42.6302, 43.8323, 80.6976, -125.818
6.15983, 41, -34.7103, -18.6339, 42.5962, 43.8764, 80.7292, -125.573
6.16874, 42, -34.2996, -18.6421, 42.5235, 43.959, 80.79, -125.084
6.17585, 42, -33.8857, -18.6466, 42.4447, 44.0345, 80.849, -124.597
6.18397, 43, -33.4681, -18.648, 42.3598, 44.1025, 80.907, -124.112
6.19181, 43, -33.0451, -18.6461, 42.269, 44.1641, 80.9619, -123.629
6.20149, 44, -32.6158, -18.6405, 42.1723, 44.2179, 81.0163, -123.15
6.20785, 45, -32.1799, -18.6315, 42.0697, 44.2646, 81.0682, -122.672
6.21584, 45, -31.7383, -18.6187, 41.9611, 44.3044, 81.1182, -122.197
6.225, 46, -31.293, -18.6023, 41.8464, 44.3365, 81.1676, -121.724
6.23189, 46, -30.8457, -18.582, 41.7258, 44.3606, 81.2146, -121.253
6.23978, 46, -30.3964, -18.5579, 41.5996, 44.3769, 81.2597, -120.785
6.24795, 47, -29.9429, -18.5298, 41.4675, 44.386, 81.3047, -120.319
6.25692, 48, -29.4834, -18.4973, 41.3295, 44.3887, 81.3481, -119.854
6.26369, 48, -29.0172, -18.4607, 41.1852, 44.383, 81.3902, -119.392
6.27189, 49, -28.5452, -18.4194, 41.0349, 44.3685, 81.4319, -118.931
6.28201, 49, -28.0693, -18.3736, 40.8788, 44.3453, 81.4737, -118.473
6.2898, 50, -27.5911, -18.3232, 40.7165, 44.3123, 81.5142, -118.015
6.29843, 50, -27.1098, -18.2677, 40.5476, 44.2698, 81.5545, -117.558
6.30744, 51, -26.6231, -18.2068, 40.3721, 44.2188, 81.5959, -117.102
6.31662, 51, -25.8783, -18.1054, 40.097, 44.1231, 81.6584, -116.421
6.32021, 52, -25.6265, -18.0689, 40.0015, 44.0866, 81.6793, -116.194
6.32814, 52, -25.12, -17.9916, 39.8049, 44.0052, 81.7225, -115.741
6.3365, 53, -24.6113, -17.9087, 39.602, 43.9132, 81.7674, -115.288
6.34644, 53, -24.1004, -17.8199, 39.3928, 43.8112, 81.8125, -114.836
6.35255, 53, -23.5844, -17.7252, 39.1756, 43.6987, 81.8592, -114.384
6.36116, 54, -23.0607, -17.6245, 38.9516, 43.5754, 81.9085, -113.932
6.36892, 55, -22.5283, -17.5181, 38.7211, 43.4412, 81.9585, -113.481
6.37854, 55, -21.9905, -17.4058, 38.4826, 43.2957, 82.0106, -113.029
6.38489, 56, -21.4503, -17.2877, 38.238, 43.1388, 82.0651, -112.578
6.39338, 56, -20.9077, -17.164, 37.9869, 42.9707, 82.1201, -112.127
6.40053, 56, -20.3592, -17.0343, 37.7286, 42.7911, 82.1779, -111.677
6.40924, 57, -20.0816, -16.8992, 37.4645, 42.6003, 82.2372, -111.227
6.41841, 58, -19.2355, -16.7587, 37.1934, 42.3971, 82.2981, -110.777
6.42569, 58, -18.6646, -16.6127, 36.9162, 42.1814, 82.3615, -110.327
6.4332, 59, -18.091, -16.4612, 36.633, 41.9537, 82.4255, -109.878
6.44146, 59, -17.8033, -16.3836, 36.4889, 41.8354, 82.4926, -109.429
6.44957, 60, -16.9294, -16.1433, 36.048, 41.4614, 82.561, -108.981
6.45587, 60, -16.633, -16.0606, 35.8977, 41.3303, 82.5963, -108.757
6.46402, 61, -16.0336, -15.8908, 35.5931, 41.058, 82.6689, -108.308
6.47393, 61, -15.1259, -15.6267, 35.1242, 40.6237, 82.7821, -107.635
6.48279, 62, -14.5166, -15.4448, 34.8035, 40.3176, 82.8613, -107.186
6.49145, 62, -13.8995, -15.258, 34.4762, 39.9975, 82.9437, -106.736
6.49755, 63, -13.5868, -15.1623, 34.311, 39.8323, 82.9858, -106.511
6.50598, 63, -12.9539, -14.8649, 33.8082, 39.3146, 83.1166, -105.836
6.51191, 64, -12.3144, -14.763, 33.6383, 39.1346, 83.1616, -105.611
6.52011, 64, -11.6715, -14.5554, 33.294, 38.7638, 83.254, -105.16
6.52779, 65, -11.0231, -14.3411, 32.9438, 38.3784, 83.3503, -104.708
6.53579, 65, -10.3641, -14.1192, 32.5872, 37.978, 83.4513, -104.254
6.54725, 66, -9.35743, -13.775, 32.0419, 37.347, 83.6134, -103.569
6.5518, 66, -9.01828, -13.6571, 31.8573, 37.129, 83.6704, -103.339
6.56178, 67, -7.99295, -13.2931, 31.2953, 36.4515, 83.8501, -102.648
6.5668, 67, -7.64711, -13.1684, 31.1052, 36.218, 83.9128, -102.416
6.57831, 68, -6.59455, -12.7821, 30.5289, 35.4942, 84.1098, -101.719
6.58691, 68, -5.88301, -12.5156, 30.1408, 34.9923, 84.2485, -101.251
6.59483, 69, -5.16554, -12.2429, 29.7486, 34.4753, 84.3937, -100.782
6.59888, 69, -4.80414, -12.1037, 29.551, 34.2107, 84.4688, -100.546
6.6085, 70, -4.07471, -11.82, 29.1527, 33.6713, 84.6247, -100.073
6.61491, 70, -3.33671, -11.5295, 28.7523, 33.1171, 84.7875, -99.5966
6.62391, 71, -2.59134, -11.231, 28.35, 32.5477, 84.9576, -99.1181
6.63551, 71, -1.46014, -10.7708, 27.7428, 31.669, 85.2259, -98.3968
6.63984, 72, -1.07948, -10.6136, 27.5399, 31.3698, 85.3188, -98.1552
6.6488, 72, -0.313287, -10.2937, 27.1333, 30.7599, 85.5103, -97.6703
6.65599, 73, 0.459306, -9.96648, 26.7261, 30.1377, 85.7094, -97.1826
6.66388, 73, 1.2377, -9.63165, 26.3188, 29.505, 85.9166, -96.6929
6.67191, 74, 2.02188, -9.29055, 25.9112, 28.8608, 86.1322, -96.2005
6.68059, 74, 2.81088, -8.94274, 25.5043, 28.207, 86.3557, -95.7054
6.69738, 75, 4.4007, -8.22787, 24.6986, 26.8726, 86.8254, -94.7089
6.70345, 76, 5.20093, -7.85971, 24.3005, 26.196, 87.072, -94.2086
6.70481, 76, 5.20093, -7.85971, 24.3005, 26.196, 87.072, -94.2086
6.71173, 76, 6.00265, -7.48406, 23.9059, 25.5134, 87.3264, -93.7056
6.71964, 77, 6.80498, -7.10146, 23.516, 24.8268, 87.59, -93.2003
6.73264, 77, 8.01228, -6.51169, 22.937, 23.7922, 88.0033, -92.437
6.7357, 78, 8.41532, -6.31102, 22.7457, 23.4462, 88.1461, -92.1815
6.74383, 78, 9.22097, -5.904, 22.3669, 22.7534, 88.4385, -91.6674
6.75173, 79, 10.0259, -5.48824, 21.9936, 22.0604, 88.7404, -91.1499
6.75982, 79, 10.8303, -5.06288, 21.6253, 21.3692, 89.0516, -90.6285
6.76774, 80, 11.6326, -4.62768, 21.2617, 20.6807, 89.3734, -90.1032
6.77577, 80, 12.4304, -4.18334, 20.9036, 19.9936, 89.7056, -89.5736
6.78385, 81, 13.2233, -3.72903, 20.55, 19.3126, 90.0492, -89.0385
6.79172, 81, 14.0123, -3.26531, 20.2012, 18.6392, 90.4038, -88.4988
6.80056, 82, 14.7944, -2.79326, 19.8572, 17.9746, 90.7689, -87.9546
6.80779, 82, 15.5664, -2.31265, 19.5205, 17.3199, 91.1441, -87.4066
6.81684, 83, 16.3279, -1.82401, 19.1908, 16.6768, 91.5285, -86.8543
6.8238, 83, 17.0784, -1.32814, 18.8692, 16.0501, 91.9209, -86.2993
6.8329, 84, 17.8145, -0.826612, 18.5552, 15.4401, 92.3207, -85.7427
6.83994, 84, 18.5324, -0.321084, 18.2501, 14.8497, 92.7272, -85.186
6.84884, 84, 19.232, 0.189207, 17.9538, 14.2825, 93.1394, -84.6294
6.85605, 85, 19.9156, 0.706649, 17.666, 13.7397, 93.5566, -84.0745
6.86265, 85, 20.2519, 0.968226, 17.5257, 13.4776, 93.7667, -83.7979
6.87068, 86, 20.9143, 1.49685, 17.2508, 12.9719, 94.1887, -83.2471
6.88102, 86, 21.887, 2.30656, 16.8546, 12.2556, 94.8293, -82.4197
6.88823, 87, 22.5235, 2.85973, 16.5997, 11.8042, 95.2645, -81.863
6.89704, 87, 23.1504, 3.42271, 16.3489, 11.3692, 95.7088, -81.298
6.90423, 88, 23.4597, 3.70706, 16.2245, 11.1575, 96.1636, -80.7224
6.91305, 88, 24.0693, 4.28134, 15.9767, 10.7447, 96.3946, -80.4291
6.91866, 89, 24.6662, 4.86412, 15.7306, 10.3448, 96.8637, -79.8325
6.92768, 89, 25.249, 5.45631, 15.4889, 9.95951, 97.3416, -79.2227
6.93474, 90, 25.8188, 6.05805, 15.2513, 9.59155, 97.8262, -78.6018
6.94368, 90, 26.3792, 6.67007, 15.019, 9.24101, 98.3162, -77.9696
6.95061, 91, 26.9311, 7.29263, 14.7942, 8.91159, 98.8104, -77.3281
6.95971, 91, 27.4721, 7.92507, 14.5762, 8.60435, 99.3076, -76.6799
6.96684, 92, 28.0002, 8.56588, 14.3643, 8.32047, 99.8073, -76.0245
6.97565, 92, 28.5169, 9.21373, 14.1582, 8.06117, 100.309, -75.362
6.98372, 93, 29.0253, 9.86746, 13.9575, 7.82581, 100.811, -74.6945
6.99165, 93, 29.522, 10.5255, 13.7631, 7.61388, 101.311, -74.0226
6.99884, 94, 30.0025, 11.1866, 13.5774, 7.42604, 101.81, -73.3441
7.00765, 94, 30.4635, 11.8494, 13.4, 7.26169, 102.307, -72.6606
7.01469, 95, 30.9066, 12.514, 13.2297, 7.12163, 102.801, -71.9727
7.02372, 95, 31.3355, 13.1801, 13.0665, 7.0059, 103.293, -71.2784
7.0306, 96, 31.7515, 13.8481, 12.9106, 6.91337, 103.782, -70.5781
7.03966, 96, 32.1544, 14.517, 12.761, 6.84502, 104.267, -69.8733
7.04863, 97, 32.5418, 15.1859, 12.6182, 6.79988, 104.749, -69.1625
7.05565, 97, 32.9127, 15.854, 12.4834, 6.77574, 105.224, -68.4457
7.06363, 98, 33.2666, 16.5201, 12.3573, 6.77308, 105.692, -67.7266
7.07171, 98, 33.6064, 17.1838, 12.2403, 6.79293, 106.152, -67.004
7.0806, 99, 33.9339, 17.8428, 12.1325, 6.83285, 106.604, -66.278
7.08771, 99, 34.2491, 18.4964, 12.0339, 6.89353, 107.046, -65.552
7.0966, 100, 34.5519, 19.1428, 11.9438, 6.97311, 107.477, -64.826
7.10372, 100, 34.8426, 19.7808, 11.8618, 7.07059, 107.897, -64.1007
7.11197, 101, 35.1214, 20.409, 11.7883, 7.18515, 108.303, -63.3809
7.11966, 101, 35.3883, 21.0263, 11.7231, 7.31473, 108.694, -62.6678
7.1277, 101, 35.6436, 21.6319, 11.6665, 7.45783, 109.068, -61.9621
7.13564, 102, 35.8869, 22.2249, 11.6179, 7.61275, 109.425, -61.2684
7.14371, 102, 36.1184, 22.8046, 11.5773, 7.77795, 109.764, -60.5873
7.15169, 103, 36.3406, 23.3694, 11.5452, 7.95236, 110.085, -59.918
7.15966, 103, 36.5553, 23.9183, 11.5215, 8.13549, 110.387, -59.2622
7.16772, 104, 36.7617, 24.4512, 11.5065, 8.32757, 110.669, -58.6203
7.17565, 104, 36.9598, 24.9674, 11.4995, 8.52878, 110.931, -57.9897
7.18365, 104, 37.1512, 25.4666, 11.4995, 8.73818, 111.173, -57.3719
7.19171, 104, 37.3362, 25.9499, 11.5062, 8.95464, 111.394, -56.7681
7.19966, 104, 37.5125, 26.4165, 11.5179, 9.17608, 111.597, -56.1789
7.20765, 104, 37.6796, 26.8665, 11.5329, 9.40076, 111.782, -55.6056
7.21573, 104, 37.8396, 27.3013, 11.5511, 9.62566, 111.954, -55.0509
7.22365, 104, 37.9945, 27.72, 11.5713, 9.84826, 112.113, -54.5177
7.23173, 104, 38.1444, 28.1224, 11.592, 10.0669, 112.264, -54.0074
7.23971, 104, 38.2882, 28.5076, 11.6125, 10.2805, 112.405, -53.5197
7.24774, 104, 38.4254, 28.8765, 11.6318, 10.4879, 112.539, -53.0567
7.25581, 104, 38.5555, 29.2272, 11.65, 10.688, 112.665, -52.6175
7.26374, 104, 38.6777, 29.5599, 11.6673, 10.88, 112.784, -52.2036
7.27176, 104, 38.7917, 29.8731, 11.6833, 11.0634, 112.895, -51.8143
7.27983, 104, 38.8971, 30.1677, 11.6982, 11.2373, 112.998, -51.45
7.28765, 104, 38.9946, 30.4435, 11.712, 11.4014, 113.093, -51.1112
7.29571, 104, 39.0845, 30.6991, 11.7246, 11.5551, 113.182, -50.7978
7.30402, 104, 39.1666, 30.9354, 11.736, 11.698, 113.262, -50.5093
7.31176, 104, 39.2407, 31.1521, 11.7464, 11.8298, 113.336, -50.2461
7.31983, 104, 39.3071, 31.3485, 11.7561, 11.95, 113.402, -50.008
7.32788, 104, 39.3657, 31.5255, 11.7647, 12.0586, 113.462, -49.7952
7.33588, 104, 39.4172, 31.6831, 11.7723, 12.155, 113.514, -49.6074
7.34398, 104, 39.4621, 31.8215, 11.7791, 12.2394, 113.559, -49.4443
7.35063, 104, 39.4823, 31.8838, 11.7822, 12.2769, 113.579, -49.3721
7.36008, 104, 39.5346, 32.0451, 11.7909, 12.3723, 113.629, -49.1899
7.36818, 104, 39.5622, 32.132, 11.7958, 12.4212, 113.655, -49.0962
7.37623, 104, 39.5848, 32.2039, 11.8002, 12.4594, 113.675, -49.0226
7.38418, 104, 39.6026, 32.2628, 11.8042, 12.4887, 113.689, -48.9676
7.39243, 104, 39.6164, 32.31, 11.8078, 12.5102, 113.7, -48.9278
7.40049, 104, 39.6271, 32.3467, 11.8111, 12.5253, 113.707, -48.9006
7.40824, 104, 39.6313, 32.3615, 11.8126, 12.5355, 113.711, -48.883
7.41654, 104, 39.6404, 32.3948, 11.8168, 12.5417, 113.714, -48.8725
7.42369, 104, 39.6423, 32.403, 11.8179, 12.5437, 113.714, -48.8693
7.43164, 104, 39.6451, 32.4155, 11.8198, 12.5463, 113.715, -48.8654
7.43961, 105, 39.6464, 32.4236, 11.8212, 12.5476, 113.716, -48.8637
7.44768, 105, 39.6467, 32.4286, 11.8223, 12.5483, 113.716, -48.8632
7.45564, 105, 39.6458, 32.4319, 11.8233, 12.5486, 113.716, -48.863
7.46369, 105, 39.6447, 32.4342, 11.8242, 12.5487, 113.716, -48.8633
7.47168, 105, 39.6435, 32.4359, 11.8249, 12.5488, 113.716, -48.8636
7.47965, 105, 39.6423, 32.4373, 11.8255, 12.5488, 113.716, -48.864
7.48768, 105, 39.6412, 32.4385, 11.826, 12.5488, 113.716, -48.8645
7.49569, 105, 39.6402, 32.4397, 11.8265, 12.5488, 113.716, -48.8649
7.50364, 105, 39.6396, 32.4407, 11.8271, 12.5488, 113.716, -48.8653
7.51163, 105, 39.6392, 32.4418, 11.8278, 12.5488, 113.716, -48.8657
7.51971, 105, 39.6388, 32.4427, 11.8283, 12.5488, 113.716, -48.8661
7.52763, 105, 39.6386, 32.4435, 11.8287, 12.5488, 113.716, -48.8664
7.53564, 105, 39.6383, 32.4442, 11.8291, 12.5488, 113.716, -48.8667
7.5437, 105, 39.638, 32.4446, 11.8294, 12.5488, 113.716, -48.8671
7.55163, 105, 39.6378, 32.4449, 11.8297, 12.5488, 113.716, -48.8674
7.56063, 105, 39.6374, 32.445, 11.8299, 12.5488, 113.716, -48.8676
