hehonglu123/Motion-Primitive-Planning/ILC/recorded_data/curve2_1100/realrobot/1100_iteration1.csv
timestamp, cmd_num, J1, J2, J3, J4, J5, J6
0.000381, -1, 39.6327, 32.4449, 11.8315, 12.5477, 113.715, -48.87
0.004394, -1, 39.6327, 32.4449, 11.8315, 12.5477, 113.715, -48.87
0.007808, -1, 39.6327, 32.4449, 11.8315, 12.5477, 113.715, -48.87
0.028558, -1, 39.6327, 32.4449, 11.8315, 12.5477, 113.715, -48.8701
0.031295, -1, 39.6327, 32.4449, 11.8315, 12.5477, 113.715, -48.8701
0.034476, -1, 39.6327, 32.4449, 11.8315, 12.5477, 113.715, -48.8701
0.039658, -1, 39.6327, 32.4449, 11.8315, 12.5477, 113.715, -48.8701
0.04762, -1, 39.6327, 32.4449, 11.8315, 12.5477, 113.715, -48.87
0.055664, -1, 39.6322, 32.4449, 11.8315, 12.5477, 113.715, -48.87
0.063607, -1, 39.6298, 32.4445, 11.8315, 12.5477, 113.715, -48.87
0.071642, -1, 39.6245, 32.4432, 11.8315, 12.5477, 113.715, -48.8702
0.079622, -1, 39.6156, 32.4402, 11.8314, 12.5477, 113.714, -48.8715
0.087604, -1, 39.6022, 32.435, 11.8314, 12.5477, 113.713, -48.8768
0.095691, -1, 39.5825, 32.4265, 11.8314, 12.5477, 113.709, -48.8884
0.103762, -1, 39.5538, 32.414, 11.8319, 12.5476, 113.702, -48.9091
0.111691, -1, 39.5153, 32.3964, 11.8339, 12.5476, 113.69, -48.9428
0.119742, -1, 39.4658, 32.3727, 11.8388, 12.5476, 113.671, -48.9932
0.127766, -1, 39.4038, 32.3423, 11.8472, 12.5477, 113.643, -49.0647
0.1357, -1, 39.3284, 32.3045, 11.8599, 12.5477, 113.606, -49.1589
0.14377, -1, 39.2393, 32.2589, 11.8778, 12.5479, 113.56, -49.2784
0.151623, -1, 39.1363, 32.2054, 11.9003, 12.5484, 113.503, -49.4234
0.159626, -1, 39.0191, 32.144, 11.9271, 12.5492, 113.436, -49.5932
0.167698, -1, 38.8886, 32.0752, 11.9577, 12.5507, 113.36, -49.7855
0.175744, -1, 38.7458, 32, 11.9917, 12.5524, 113.276, -49.9974
0.183711, -1, 38.5915, 31.9187, 12.028, 12.5545, 113.186, -50.2252
0.19215, -1, 38.4272, 31.8326, 12.0658, 12.5567, 113.091, -50.4651
0.198706, -1, 38.3421, 31.7879, 12.0851, 12.5578, 113.042, -50.5884
0.20793, -1, 38.0767, 31.6492, 12.1437, 12.5615, 112.893, -50.9667
0.216097, -1, 37.8933, 31.5539, 12.1826, 12.5638, 112.791, -51.2234
0.22412, -1, 37.7059, 31.457, 12.2214, 12.5662, 112.689, -51.4819
0.232126, -1, 37.5158, 31.3594, 12.2601, 12.5686, 112.587, -51.7413
0.24032, -1, 37.3242, 31.2616, 12.2989, 12.5711, 112.484, -52.0008
0.248204, -1, 37.1322, 31.1638, 12.3378, 12.5735, 112.382, -52.2604
0.256189, -1, 36.9399, 31.0661, 12.3765, 12.5762, 112.279, -52.5206
0.264284, -1, 36.748, 30.9684, 12.4153, 12.5787, 112.176, -52.7809
0.272363, -1, 36.6522, 30.9195, 12.4347, 12.58, 112.073, -53.0411
0.279581, -1, 36.4607, 30.8219, 12.4736, 12.5826, 112.021, -53.1712
0.287634, -1, 36.2692, 30.7242, 12.5124, 12.5852, 111.918, -53.4316
0.295642, -1, 36.0777, 30.6263, 12.5512, 12.5878, 111.816, -53.692
0.303625, -1, 35.8863, 30.5284, 12.5902, 12.5905, 111.712, -53.9528
0.311633, -1, 35.6947, 30.4303, 12.6291, 12.593, 111.609, -54.2132
0.319583, -1, 35.5028, 30.3322, 12.6679, 12.5957, 111.507, -54.4734
0.327641, -1, 35.3107, 30.2339, 12.7067, 12.5983, 111.403, -54.7337
0.335634, -1, 35.1183, 30.1357, 12.7455, 12.6009, 111.3, -54.9943
0.343597, -1, 34.926, 30.0373, 12.7845, 12.6035, 111.197, -55.255
0.351584, -1, 34.7337, 29.9388, 12.8233, 12.6061, 111.094, -55.5156
0.359729, -1, 34.5413, 29.8403, 12.8621, 12.6086, 110.991, -55.7763
0.367651, -1, 34.3491, 29.7419, 12.9011, 12.6113, 110.888, -56.0372
0.375592, -1, 34.157, 29.6436, 12.94, 12.6139, 110.785, -56.2981
0.383647, -1, 33.9652, 29.5453, 12.9789, 12.6165, 110.682, -56.5589
0.391583, -1, 33.7735, 29.447, 13.0178, 12.6192, 110.579, -56.8197
0.399595, -1, 33.5817, 29.3486, 13.0566, 12.6219, 110.475, -57.0806
0.408578, -1, 33.3895, 29.2503, 13.0956, 12.6246, 110.372, -57.3419
0.415581, -1, 33.1969, 29.1517, 13.1345, 12.6273, 110.269, -57.6027
0.424596, -1, 33.0042, 29.0531, 13.1733, 12.6299, 110.166, -57.8638
0.431645, -1, 32.8113, 28.9545, 13.2122, 12.6326, 110.063, -58.1249
0.439649, -1, 32.618, 28.8559, 13.2512, 12.6352, 109.96, -58.3863
0.447606, -1, 32.4243, 28.7572, 13.29, 12.638, 109.857, -58.6474
0.455612, -1, 32.2304, 28.6585, 13.3289, 12.6407, 109.754, -58.9084
0.463632, -1, 32.0363, 28.5598, 13.3678, 12.6434, 109.651, -59.1695
0.471652, -1, 31.8424, 28.4609, 13.4067, 12.6462, 109.548, -59.4309
0.479575, -1, 31.6486, 28.3621, 13.4458, 12.6488, 109.445, -59.6923
0.487589, -1, 31.4552, 28.2635, 13.4848, 12.6518, 109.342, -59.9534
0.6216, -1, 28.2682, 26.6344, 14.1279, 12.6955, 107.638, -64.2689
0.62354, -1, 28.1716, 26.5851, 14.1474, 12.6967, 107.586, -64.3996
0.624951, -1, 28.1716, 26.5851, 14.1474, 12.6967, 107.586, -64.3996
0.626185, -1, 28.1716, 26.5851, 14.1474, 12.6967, 107.586, -64.3996
0.628934, -1, 28.0751, 26.5357, 14.1668, 12.6979, 107.535, -64.5304
0.630126, -1, 28.0751, 26.5357, 14.1668, 12.6979, 107.535, -64.5304
0.63233, -1, 27.9786, 26.4863, 14.1863, 12.6991, 107.483, -64.6613
0.637572, -1, 27.8821, 26.4369, 14.2059, 12.7004, 107.431, -64.7922
0.798685, -1, 24.0196, 24.4599, 14.9855, 12.7469, 105.366, -70.0264
0.800643, -1, 23.9232, 24.4105, 15.005, 12.7481, 105.314, -70.1572
0.802897, -1, 23.9232, 24.4105, 15.005, 12.7481, 105.314, -70.1572
0.804787, -1, 23.8267, 24.361, 15.0244, 12.7493, 105.263, -70.288
0.806207, -1, 23.8267, 24.361, 15.0244, 12.7493, 105.263, -70.288
0.80741, -1, 23.8267, 24.361, 15.0244, 12.7493, 105.263, -70.288
0.809422, -1, 23.7302, 24.3116, 15.0438, 12.7505, 105.211, -70.4189
0.812806, -1, 23.6336, 24.2622, 15.0633, 12.7517, 105.159, -70.5498
0.814132, -1, 23.6336, 24.2622, 15.0633, 12.7517, 105.159, -70.5498
0.815408, -1, 23.6336, 24.2622, 15.0633, 12.7517, 105.159, -70.5498
0.817656, -1, 23.5371, 24.2127, 15.0828, 12.7529, 105.108, -70.6807
0.81894, -1, 23.5371, 24.2127, 15.0828, 12.7529, 105.108, -70.6807
0.82162, -1, 23.4404, 24.1633, 15.1022, 12.7541, 105.056, -70.8115
0.822878, -1, 23.4404, 24.1633, 15.1022, 12.7541, 105.056, -70.8115
0.824745, -1, 23.4404, 24.1139, 15.1217, 12.7553, 105.004, -70.9423
0.829012, -1, 23.2467, 24.0644, 15.1412, 12.7566, 104.952, -71.0732
0.830587, -1, 23.2467, 24.0644, 15.1412, 12.7566, 104.952, -71.0732
0.831809, -1, 23.2467, 24.0644, 15.1412, 12.7566, 104.952, -71.0732
0.834048, -1, 23.1498, 24.0149, 15.1606, 12.7578, 104.901, -71.2041
0.835226, -1, 23.1498, 24.0149, 15.1606, 12.7578, 104.901, -71.2041
0.837218, -1, 23.0528, 23.9655, 15.18, 12.759, 104.849, -71.3349
0.838576, -1, 23.0528, 23.9655, 15.18, 12.759, 104.849, -71.3349
0.842722, -1, 22.9558, 23.916, 15.1995, 12.7602, 104.797, -71.4659
0.84396, -1, 22.9558, 23.916, 15.1995, 12.7602, 104.797, -71.4659
0.846673, -1, 22.8587, 23.8666, 15.2189, 12.7614, 104.746, -71.5968
0.847859, -1, 22.8587, 23.8666, 15.2189, 12.7614, 104.746, -71.5968
0.850671, -1, 22.7618, 23.8172, 15.2384, 12.7627, 104.694, -71.7278
0.851985, -1, 22.7618, 23.8172, 15.2384, 12.7627, 104.694, -71.7278
0.853971, -1, 22.6648, 23.7679, 15.2579, 12.7639, 104.642, -71.8587
0.855235, -1, 22.6648, 23.7679, 15.2579, 12.7639, 104.642, -71.8587
0.857854, -1, 22.568, 23.7185, 15.2774, 12.7652, 104.591, -71.9893
0.859137, -1, 22.568, 23.7185, 15.2774, 12.7652, 104.591, -71.9893
0.861034, -1, 22.4711, 23.6692, 15.2969, 12.7664, 104.539, -72.1201
0.862423, -1, 22.4711, 23.6692, 15.2969, 12.7664, 104.539, -72.1201
0.863732, -1, 22.4711, 23.6692, 15.2969, 12.7664, 104.539, -72.1201
0.865691, -1, 22.3744, 23.6199, 15.3164, 12.7677, 104.487, -72.2508
0.866996, -1, 22.3744, 23.6199, 15.3164, 12.7677, 104.487, -72.2508
0.873078, -1, 22.181, 23.5212, 15.3553, 12.7702, 104.384, -72.5123
0.875475, -1, 22.181, 23.5212, 15.3553, 12.7702, 104.384, -72.5123
0.877368, -1, 22.0845, 23.4719, 15.3747, 12.7715, 104.332, -72.643
0.879565, -1, 22.0845, 23.4719, 15.3747, 12.7715, 104.332, -72.643
0.887621, -1, 21.8915, 23.3732, 15.4137, 12.7742, 104.229, -72.9047
0.895568, -1, 21.699, 23.2745, 15.4527, 12.7768, 104.126, -73.1659
0.903567, -1, 21.5069, 23.1757, 15.4916, 12.7796, 104.022, -73.4272
0.911656, -1, 21.3147, 23.077, 15.5305, 12.7823, 103.919, -73.6887
0.920611, -1, 21.1223, 22.9784, 15.5695, 12.7849, 103.816, -73.9504
0.927556, -1, 20.9298, 22.8797, 15.6084, 12.7877, 103.713, -74.2117
0.935624, -1, 20.7373, 22.7811, 15.6473, 12.7903, 103.61, -74.4728
0.943615, -1, 20.5446, 22.6825, 15.6862, 12.7931, 103.507, -74.734
0.951559, -1, 20.3514, 22.5838, 15.725, 12.7958, 103.404, -74.9954
0.959561, -1, 20.1577, 22.4851, 15.764, 12.7985, 103.301, -75.2567
0.967559, -1, 19.964, 22.3864, 15.8028, 12.8012, 103.198, -75.5179
0.975634, -1, 19.7703, 22.2877, 15.8415, 12.8039, 103.095, -75.779
0.983557, -1, 19.5767, 22.1891, 15.8804, 12.8066, 102.992, -76.0403
0.991567, -1, 19.3832, 22.0905, 15.9193, 12.8094, 102.889, -76.3015
0.999625, -1, 19.1902, 21.9918, 15.9581, 12.8121, 102.786, -76.5624
1.00756, -1, 18.9974, 21.8932, 15.9971, 12.8148, 102.683, -76.8232
1.01556, -1, 18.8049, 21.7946, 16.0359, 12.8175, 102.58, -77.0841
1.02363, -1, 18.6129, 21.6958, 16.0746, 12.8202, 102.477, -77.3451
1.03162, -1, 18.4212, 21.5973, 16.1136, 12.8229, 102.374, -77.6057
1.03956, -1, 18.2294, 21.4988, 16.1525, 12.8254, 102.271, -77.8665
1.04762, -1, 18.0375, 21.4003, 16.1913, 12.828, 102.168, -78.1273
1.05555, -1, 17.8458, 21.302, 16.2302, 12.8305, 102.065, -78.3882
1.06356, -1, 17.6537, 21.2038, 16.2691, 12.833, 101.962, -78.6488
1.07164, -1, 17.4612, 21.1055, 16.3079, 12.8354, 101.859, -78.9092
1.07956, -1, 17.2683, 21.0071, 16.3468, 12.8378, 101.756, -79.1697
1.08762, -1, 17.0752, 20.9089, 16.3855, 12.8401, 101.653, -79.4304
1.09559, -1, 16.8821, 20.8107, 16.4244, 12.8425, 101.551, -79.691
1.10368, -1, 16.6889, 20.7125, 16.4633, 12.8448, 101.448, -79.9515
1.1117, -1, 16.4958, 20.6143, 16.5019, 12.8471, 101.345, -80.212
1.1197, -1, 16.3028, 20.516, 16.5407, 12.8494, 101.243, -80.4727
1.12772, -1, 16.1106, 20.4176, 16.5795, 12.8518, 101.14, -80.7331
1.13572, -1, 15.9187, 20.3192, 16.6182, 12.854, 101.037, -80.9932
1.14366, -1, 15.727, 20.2207, 16.657, 12.8563, 100.934, -81.2532
1.15174, -1, 15.5357, 20.1222, 16.6956, 12.8587, 100.832, -81.5134
1.15982, -1, 15.3446, 20.024, 16.7343, 12.861, 100.729, -81.7735
1.16759, -1, 15.1536, 19.9257, 16.7731, 12.8632, 100.627, -82.0333
1.17569, -1, 14.9625, 19.8274, 16.8118, 12.8655, 100.524, -82.293
1.18366, -1, 14.7712, 19.7293, 16.8505, 12.8678, 100.422, -82.5528
1.19177, -1, 14.5797, 19.6312, 16.8893, 12.8701, 100.319, -82.8129
1.20005, -1, 14.3878, 19.5331, 16.928, 12.8724, 100.216, -83.0727
1.20783, -1, 14.1956, 19.435, 16.9667, 12.8747, 100.114, -83.3323
1.21602, -1, 14.0032, 19.337, 17.0054, 12.8769, 100.011, -83.5919
1.22401, -1, 13.8106, 19.2391, 17.044, 12.8792, 99.9088, -83.8516
1.23205, -1, 13.618, 19.1413, 17.0827, 12.8815, 99.8063, -84.111
1.23855, -1, 13.5217, 19.0924, 17.1021, 12.8827, 99.755, -84.2406
1.24814, -1, 13.2336, 18.9455, 17.1599, 12.8862, 99.6014, -84.6295
1.25611, -1, 13.042, 18.8476, 17.1985, 12.8885, 99.4991, -84.8888
1.26421, -1, 12.8507, 18.7496, 17.2371, 12.8909, 99.3967, -85.1482
1.27217, -1, 12.7552, 18.7006, 17.2564, 12.892, 99.2946, -85.4073
1.28021, -1, 12.5644, 18.6028, 17.2949, 12.8945, 99.2435, -85.6662
1.28846, -1, 12.374, 18.505, 17.3336, 12.897, 99.1411, -85.9251
1.29556, -1, 12.1841, 18.4072, 17.3721, 12.8994, 99.039, -86.0546
1.30362, -1, 11.994, 18.3096, 17.4106, 12.9018, 98.9369, -86.3136
1.31157, -1, 11.8036, 18.212, 17.4493, 12.9042, 98.8347, -86.5721
1.31972, -1, 11.6129, 18.1143, 17.4878, 12.9067, 98.7329, -86.8307
1.32755, -1, 11.422, 18.0167, 17.5263, 12.9091, 98.631, -87.0893
1.33562, -1, 11.2309, 17.9191, 17.5649, 12.9116, 98.529, -87.3481
1.34354, -1, 11.0395, 17.8216, 17.6034, 12.914, 98.4273, -87.6063
1.35156, -1, 10.8478, 17.7242, 17.6419, 12.9165, 98.3254, -87.8646
1.35962, -1, 10.656, 17.6267, 17.6804, 12.919, 98.2233, -88.1229
1.36766, -1, 10.4645, 17.5292, 17.7188, 12.9216, 98.1217, -88.3812
1.37555, -1, 10.2733, 17.4317, 17.7573, 12.9241, 98.0197, -88.6393
1.38362, -1, 10.0825, 17.3342, 17.7957, 12.9267, 97.9177, -88.8973
1.39155, -1, 9.89205, 17.2366, 17.8341, 12.9294, 97.816, -89.1554
1.39954, -1, 9.70184, 17.1391, 17.8724, 12.932, 97.7139, -89.4136
1.40855, -1, 9.51218, 17.0417, 17.9108, 12.9348, 97.612, -89.6717
1.41554, -1, 9.32298, 16.9444, 17.9491, 12.9375, 97.5103, -89.9293
1.42454, -1, 9.13374, 16.847, 17.9875, 12.9401, 97.4083, -90.1869
1.43164, -1, 8.94442, 16.7499, 18.0258, 12.9428, 97.3065, -90.4444
1.43955, -1, 8.75499, 16.6527, 18.0641, 12.9454, 97.2049, -90.7018
1.44759, -1, 8.5655, 16.5555, 18.1026, 12.9481, 97.103, -90.959
1.45555, -1, 8.37581, 16.4585, 18.1409, 12.9508, 97.0015, -91.2161
1.46355, -1, 8.18546, 16.3615, 18.1792, 12.9533, 96.9, -91.4732
1.47162, -1, 7.99485, 16.2646, 18.2176, 12.9559, 96.7983, -91.7306
1.47956, -1, 7.80424, 16.1677, 18.2559, 12.9586, 96.697, -91.9875
1.48754, -1, 7.61365, 16.0708, 18.2941, 12.9612, 96.5955, -92.2442
1.4956, -1, 7.42316, 15.9738, 18.3325, 12.9637, 96.494, -92.5009
1.50356, -1, 7.23294, 15.8769, 18.3706, 12.9663, 96.3929, -92.7578
1.51155, -1, 7.04315, 15.7799, 18.4087, 12.9688, 96.2914, -93.0144
1.51961, -1, 6.85369, 15.683, 18.4471, 12.9713, 96.1901, -93.2709
1.52755, -1, 6.66472, 15.5861, 18.4851, 12.9737, 96.0895, -93.5272
1.53559, -1, 6.47625, 15.4893, 18.5232, 12.9763, 95.9884, -93.7836
1.54365, -1, 6.28813, 15.3925, 18.5614, 12.9788, 95.8875, -94.04
1.55156, -1, 6.10008, 15.2958, 18.5995, 12.9813, 95.7868, -94.296
1.55955, -1, 5.9118, 15.1991, 18.6376, 12.9835, 95.6857, -94.5519
1.5676, -1, 5.72348, 15.1024, 18.6758, 12.9859, 95.5847, -94.8079
1.57565, -1, 5.53496, 15.0058, 18.7138, 12.9882, 95.4841, -95.0637
1.58354, -1, 5.34617, 14.9093, 18.752, 12.9904, 95.3831, -95.3193
1.59159, -1, 5.15704, 14.8129, 18.7901, 12.9926, 95.2824, -95.5748
1.60036, -1, 4.96764, 14.7166, 18.8281, 12.995, 95.1819, -95.8303
1.60766, -1, 4.77821, 14.6202, 18.8662, 12.9972, 95.081, -96.0859
1.61568, -1, 4.58881, 14.5239, 18.9043, 12.9994, 94.9802, -96.3412
1.62481, -1, 4.39945, 14.4276, 18.9423, 13.0016, 94.8796, -96.5961
1.6317, -1, 4.21047, 14.3312, 18.9802, 13.0038, 94.7787, -96.851
1.63967, -1, 4.0219, 14.2348, 19.0182, 13.0061, 94.6779, -97.1061
1.64765, -1, 3.83385, 14.1387, 19.0561, 13.0084, 94.5771, -97.3612
1.65569, -1, 3.64629, 14.0425, 19.0941, 13.0106, 94.4762, -97.616
1.66431, -1, 3.45916, 13.9464, 19.132, 13.0129, 94.3757, -97.8706
1.67159, -1, 3.27225, 13.8503, 19.1697, 13.0152, 94.2749, -98.1253
1.67962, -1, 3.08523, 13.7543, 19.2076, 13.0174, 94.1742, -98.3801
1.68847, -1, 2.89827, 13.6583, 19.2456, 13.0197, 94.0738, -98.6345
1.6957, -1, 2.71131, 13.5623, 19.2834, 13.022, 93.9731, -98.8886
1.70413, -1, 2.52396, 13.4663, 19.3213, 13.0242, 93.8726, -99.1426
1.71054, -1, 2.43024, 13.4184, 19.3402, 13.0254, 93.8224, -99.2697
1.71988, -1, 2.14865, 13.2747, 19.3969, 13.0288, 93.6719, -99.6507
1.72843, -1, 1.96056, 13.1789, 19.4348, 13.031, 93.5716, -99.9043
1.73688, -1, 1.77245, 13.0831, 19.4725, 13.0333, 93.4717, -100.158
1.74409, -1, 1.58413, 12.9873, 19.5103, 13.0355, 93.3715, -100.412
1.75053, -1, 1.48999, 12.9394, 19.5292, 13.0366, 93.3215, -100.538
1.76099, -1, 1.20808, 12.7957, 19.5858, 13.0402, 93.1717, -100.918
1.76812, -1, 1.11428, 12.6999, 19.6235, 13.0425, 93.0716, -101.171
1.77617, -1, 0.927315, 12.6521, 19.6613, 13.0449, 92.9716, -101.425
1.78497, -1, 0.740853, 12.5566, 19.6801, 13.0461, 92.9218, -101.551
1.79153, -1, 0.554689, 12.461, 19.7176, 13.0486, 92.822, -101.804
1.79959, -1, 0.368994, 12.3656, 19.7553, 13.051, 92.7221, -102.057
1.80754, -1, 0.183449, 12.2703, 19.793, 13.0535, 92.6227, -102.31
1.81553, -1, -0.00196179, 12.1749, 19.8305, 13.056, 92.5232, -102.562
1.82358, -1, -0.187418, 12.0796, 19.8681, 13.0584, 92.4237, -102.815
1.83153, -1, -0.373146, 11.9844, 19.9058, 13.0608, 92.3243, -103.067
1.83958, -1, -0.559267, 11.8892, 19.9433, 13.0634, 92.2249, -103.319
1.84753, -1, -0.745592, 11.7942, 19.9808, 13.0658, 92.1254, -103.571
1.85553, -1, -0.932118, 11.6992, 20.0184, 13.0684, 92.0261, -103.823
1.86359, -1, -1.11895, 11.6041, 20.0558, 13.0708, 91.9266, -104.075
1.87157, -1, -1.30596, 11.5091, 20.0934, 13.0734, 91.8272, -104.327
1.87953, -1, -1.4929, 11.414, 20.1309, 13.0759, 91.7281, -104.578
1.8876, -1, -1.67953, 11.3189, 20.1683, 13.0785, 91.6289, -104.83
1.8973, -1, -1.95869, 11.1764, 20.2245, 13.0824, 91.4802, -105.207
1.90355, -1, -2.05142, 11.1289, 20.2432, 13.0838, 91.4307, -105.333
1.91253, -1, -2.23657, 11.034, 20.2806, 13.0864, 91.3314, -105.583
1.91854, -1, -2.42147, 10.9391, 20.318, 13.0891, 91.2322, -105.835
1.92753, -1, -2.60582, 10.8444, 20.3554, 13.0917, 91.1333, -106.085
1.9356, -1, -2.78975, 10.7496, 20.3927, 13.0944, 91.0341, -106.336
1.9436, -1, -2.9736, 10.6549, 20.4301, 13.097, 90.9349, -106.587
1.95158, -1, -3.15766, 10.5602, 20.4675, 13.0996, 90.8362, -106.838
1.95953, -1, -3.34199, 10.4657, 20.5047, 13.1022, 90.7373, -107.088
1.96753, -1, -3.5266, 10.3712, 20.5419, 13.1047, 90.6383, -107.339
1.9756, -1, -3.71136, 10.2768, 20.5792, 13.1072, 90.5397, -107.589
1.98363, -1, -3.8964, 10.1825, 20.6165, 13.1097, 90.4408, -107.839
1.99153, -1, -4.08179, 10.0881, 20.6538, 13.1121, 90.3421, -108.089
1.9996, -1, -4.26738, 9.99387, 20.6909, 13.1146, 90.2436, -108.339
2.00752, -1, -4.45298, 9.89957, 20.7281, 13.1169, 90.1447, -108.589
2.01559, -1, -4.63835, 9.80523, 20.7655, 13.1192, 90.0461, -108.838
2.02354, -1, -4.82331, 9.71107, 20.8026, 13.1216, 89.9478, -109.087
2.03153, -1, -5.00782, 9.617, 20.8397, 13.124, 89.8492, -109.337
2.03963, -1, -5.19159, 9.52293, 20.8769, 13.1263, 89.7508, -109.586
2.04753, -1, -5.37496, 9.42889, 20.914, 13.1286, 89.6527, -109.835
2.05553, -1, -5.55784, 9.33503, 20.951, 13.1309, 89.5542, -110.084
2.06361, -1, -5.74028, 9.2411, 20.9882, 13.1332, 89.456, -110.333
2.07153, -1, -5.9226, 9.14714, 21.0252, 13.1355, 89.358, -110.582
2.07951, -1, -6.10502, 9.05328, 21.0621, 13.1377, 89.2597, -110.83
2.0876, -1, -6.28774, 8.9595, 21.0992, 13.1399, 89.1617, -111.079
2.09553, -1, -6.4707, 8.86583, 21.1362, 13.1421, 89.064, -111.327
2.10356, -1, -6.6538, 8.77216, 21.173, 13.1442, 88.9661, -111.575
2.11177, -1, -6.83735, 8.67857, 21.2099, 13.1464, 88.8681, -111.823
2.11967, -1, -7.02135, 8.58497, 21.2469, 13.1485, 88.7705, -112.071
2.12762, -1, -7.20549, 8.49142, 21.2837, 13.1506, 88.6725, -112.319
2.13569, -1, -7.38962, 8.39783, 21.3207, 13.1527, 88.5746, -112.566
2.14363, -1, -7.57347, 8.30421, 21.3575, 13.1548, 88.4771, -112.814
2.15159, -1, -7.75707, 8.21079, 21.3942, 13.157, 88.3793, -113.062
2.15972, -1, -7.94021, 8.11742, 21.4312, 13.1593, 88.2819, -113.309
2.16755, -1, -8.12276, 8.02406, 21.468, 13.1615, 88.1847, -113.556
2.17557, -1, -8.30462, 7.93079, 21.5046, 13.1638, 88.0872, -113.803
2.18368, -1, -8.48601, 7.83754, 21.5415, 13.1661, 87.9898, -114.05
2.19162, -1, -8.667, 7.74434, 21.5783, 13.1683, 87.8926, -114.297
2.19976, -1, -8.84772, 7.65115, 21.615, 13.1706, 87.7952, -114.543
2.20794, -1, -9.02854, 7.55803, 21.6518, 13.1728, 87.6977, -114.79
2.21581, -1, -9.20954, 7.46503, 21.6884, 13.1751, 87.6006, -115.036
2.22401, -1, -9.39072, 7.37222, 21.7251, 13.1773, 87.5033, -115.282
2.23202, -1, -9.57231, 7.27936, 21.7618, 13.1795, 87.4062, -115.528
2.24003, -1, -9.75427, 7.18657, 21.7985, 13.1817, 87.3092, -115.774
2.24818, -1, -9.93672, 7.09387, 21.8349, 13.1839, 87.212, -116.02
2.25613, -1, -10.1193, 7.00115, 21.8715, 13.1861, 87.1148, -116.267
2.26408, -1, -10.3019, 6.90839, 21.9082, 13.1884, 87.0177, -116.512
2.27219, -1, -10.4844, 6.81562, 21.9447, 13.1906, 86.9205, -116.758
2.28014, -1, -10.5756, 6.76928, 21.963, 13.1917, 86.872, -117.003
2.28811, -1, -10.7577, 6.67668, 21.9996, 13.194, 86.775, -117.126
2.29558, -1, -10.9394, 6.58408, 22.036, 13.1964, 86.6779, -117.371
2.30355, -1, -11.1202, 6.49153, 22.0724, 13.1988, 86.5811, -117.616
2.31151, -1, -11.3003, 6.39908, 22.109, 13.2012, 86.4846, -117.861
2.31957, -1, -11.4801, 6.3066, 22.1455, 13.2037, 86.3877, -118.106
2.32751, -1, -11.6595, 6.21418, 22.1818, 13.2061, 86.2911, -118.351
2.33552, -1, -11.8388, 6.12177, 22.2184, 13.2087, 86.1946, -118.595
2.34352, -1, -12.0181, 6.0295, 22.2548, 13.2112, 86.0979, -118.84
2.35153, -1, -12.1974, 5.93734, 22.2912, 13.2136, 86.0014, -119.084
2.35956, -1, -12.377, 5.84533, 22.3276, 13.2161, 85.9052, -119.328
2.36751, -1, -12.5571, 5.75329, 22.3639, 13.2186, 85.8087, -119.572
2.37557, -1, -12.7376, 5.66133, 22.4001, 13.221, 85.7123, -119.816
2.38358, -1, -12.9184, 5.56943, 22.4365, 13.2235, 85.6165, -120.06
2.39154, -1, -13.0994, 5.4775, 22.4728, 13.2259, 85.5204, -120.303
2.39952, -1, -13.2807, 5.38545, 22.509, 13.2283, 85.4245, -120.547
2.40851, -1, -13.4618, 5.29354, 22.5453, 13.2308, 85.3289, -120.79
2.41551, -1, -13.6425, 5.20166, 22.5815, 13.2334, 85.2331, -121.034
2.42455, -1, -13.8228, 5.10981, 22.6176, 13.236, 85.1374, -121.276
2.4316, -1, -14.0024, 5.01799, 22.6538, 13.2385, 85.0417, -121.52
2.43951, -1, -14.1811, 4.92629, 22.6899, 13.2411, 84.946, -121.763
2.44752, -1, -14.3594, 4.83463, 22.726, 13.2436, 84.8503, -122.005
2.45556, -1, -14.5372, 4.74298, 22.7622, 13.2461, 84.7548, -122.247
2.46351, -1, -14.7149, 4.65137, 22.7984, 13.2487, 84.6592, -122.49
2.4716, -1, -14.8925, 4.5599, 22.8345, 13.2511, 84.5634, -122.732
2.47951, -1, -15.0702, 4.46848, 22.8706, 13.2535, 84.4678, -122.975
2.48753, -1, -15.2482, 4.37721, 22.9068, 13.256, 84.3722, -123.217
2.49559, -1, -15.4266, 4.28591, 22.9428, 13.2583, 84.2765, -123.459
2.50351, -1, -15.6054, 4.19465, 22.9788, 13.2607, 84.1811, -123.701
2.51151, -1, -15.7846, 4.10344, 23.0149, 13.2629, 84.0855, -123.942
2.51959, -1, -15.9638, 4.0122, 23.0508, 13.2651, 83.99, -124.184
2.5275, -1, -16.1434, 3.9209, 23.0868, 13.2673, 83.8946, -124.425
2.53551, -1, -16.3232, 3.82969, 23.1228, 13.2693, 83.7991, -124.666
2.54363, -1, -16.5027, 3.73852, 23.1587, 13.2715, 83.7037, -124.908
2.55152, -1, -16.6817, 3.64739, 23.1945, 13.2737, 83.6083, -125.149
2.55957, -1, -16.8602, 3.55629, 23.2304, 13.276, 83.5129, -125.39
2.56812, -1, -17.0378, 3.46532, 23.2662, 13.2782, 83.4176, -125.631
2.57511, -1, -17.2146, 3.37436, 23.3021, 13.2803, 83.3223, -125.872
2.58358, -1, -17.3912, 3.28349, 23.338, 13.2826, 83.2273, -126.112
2.59232, -1, -17.5675, 3.19263, 23.3737, 13.2847, 83.132, -126.353
2.59951, -1, -17.7436, 3.102, 23.4096, 13.2869, 83.0371, -126.593
2.60761, -1, -17.9196, 3.01139, 23.4455, 13.2889, 82.9424, -126.833
2.61641, -1, -18.0958, 2.92091, 23.4812, 13.2911, 82.8475, -127.073
2.62365, -1, -18.2724, 2.83048, 23.5169, 13.2932, 82.7528, -127.314
2.63168, -1, -18.4493, 2.74003, 23.5527, 13.2952, 82.6583, -127.554
2.6404, -1, -18.6266, 2.64968, 23.5883, 13.2972, 82.5636, -127.793
2.64762, -1, -18.8042, 2.55936, 23.624, 13.2993, 82.469, -128.033
2.65569, -1, -18.9823, 2.4689, 23.6598, 13.3013, 82.3747, -128.272
2.66441, -1, -19.1605, 2.3784, 23.6953, 13.3032, 82.2801, -128.512
2.67164, -1, -19.3386, 2.28808, 23.7308, 13.3053, 82.1858, -128.751
2.67961, -1, -19.5164, 2.19769, 23.7666, 13.3074, 82.0919, -128.99
2.68845, -1, -19.6936, 2.10729, 23.802, 13.3095, 81.9976, -129.229
2.69568, -1, -19.8701, 2.01704, 23.8373, 13.3117, 81.9035, -129.468
2.70376, -1, -20.0459, 1.92682, 23.873, 13.3139, 81.8097, -129.707
2.7127, -1, -20.2212, 1.83656, 23.9085, 13.3161, 81.7155, -129.945
2.72019, -1, -20.3961, 1.74643, 23.9439, 13.3183, 81.6214, -130.183
2.7279, -1, -20.5706, 1.65635, 23.9795, 13.3206, 81.5277, -130.422
2.73593, -1, -20.7451, 1.56638, 24.015, 13.3227, 81.4335, -130.66
2.74411, -1, -20.9197, 1.4765, 24.0503, 13.3249, 81.3397, -130.898
2.75212, -1, -21.0947, 1.38676, 24.0859, 13.3271, 81.2461, -131.136
2.76005, -1, -21.27, 1.29699, 24.1214, 13.3293, 81.1522, -131.373
2.76828, -1, -21.4457, 1.2073, 24.1567, 13.3315, 81.0583, -131.611
2.77609, -1, -21.5336, 1.1625, 24.1743, 13.3336, 80.9646, -131.849
2.78663, -1, -21.7098, 1.07289, 24.2099, 13.3347, 80.9178, -131.968
2.79152, -1, -21.886, 0.983199, 24.2453, 13.3369, 80.824, -132.205
2.7995, -1, -22.0625, 0.893617, 24.2806, 13.3391, 80.7301, -132.442
2.80755, -1, -22.2391, 0.804092, 24.316, 13.3412, 80.6367, -132.68
2.8155, -1, -22.4155, 0.714622, 24.3513, 13.3434, 80.5429, -132.917
2.8235, -1, -22.5913, 0.62509, 24.3865, 13.3457, 80.4492, -133.154
2.83157, -1, -22.7667, 0.535661, 24.4218, 13.3481, 80.3559, -133.39
2.83949, -1, -22.9412, 0.446269, 24.457, 13.3504, 80.262, -133.627
2.8475, -1, -23.1151, 0.356844, 24.4921, 13.353, 80.1686, -133.864
2.85767, -1, -23.3751, 0.222844, 24.5449, 13.3566, 80.0285, -134.219
2.8635, -1, -23.4616, 0.178206, 24.5625, 13.3578, 79.9817, -134.337
2.8715, -1, -23.6347, 0.0890475, 24.5977, 13.3603, 79.8885, -134.573
2.8796, -1, -23.8081, -7.10711E-05, 24.6329, 13.3626, 79.7953, -134.809
2.88751, -1, -23.9815, -0.0890691, 24.6681, 13.3651, 79.702, -135.046
2.8955, -1, -24.1552, -0.178017, 24.7032, 13.3676, 79.6088, -135.281
2.90583, -1, -24.3291, -0.266956, 24.7383, 13.37, 79.4694, -135.635
2.91149, -1, -24.5033, -0.355802, 24.7735, 13.3725, 79.4227, -135.753
2.9205, -1, -24.6779, -0.444701, 24.8085, 13.3749, 79.3296, -135.988
2.92758, -1, -24.8528, -0.533617, 24.8435, 13.3773, 79.2367, -136.224
2.9355, -1, -25.0279, -0.622464, 24.8787, 13.3797, 79.1438, -136.459
2.9435, -1, -25.2029, -0.711259, 24.9137, 13.382, 79.0508, -136.694
2.95165, -1, -25.3775, -0.799996, 24.9487, 13.3843, 78.958, -136.929
2.95954, -1, -25.5517, -0.88884, 24.9838, 13.3868, 78.8655, -137.164
2.9675, -1, -25.7253, -0.977548, 25.0186, 13.3892, 78.7726, -137.399
2.97557, -1, -25.8983, -1.06623, 25.0535, 13.3916, 78.68, -137.634
2.98351, -1, -26.0706, -1.15492, 25.0885, 13.3941, 78.5878, -137.868
2.99149, -1, -26.2427, -1.24354, 25.1234, 13.3964, 78.4951, -138.103
2.99956, -1, -26.4143, -1.33206, 25.1582, 13.3989, 78.4026, -138.337
3.00749, -1, -26.5861, -1.42046, 25.1932, 13.4011, 78.3104, -138.572
3.01556, -1, -26.7582, -1.50876, 25.2281, 13.4034, 78.2178, -138.806
3.0235, -1, -26.9305, -1.59699, 25.263, 13.4056, 78.1253, -139.04
3.0315, -1, -27.1029, -1.68513, 25.2978, 13.4078, 78.0332, -139.274
3.03955, -1, -27.2754, -1.77332, 25.3327, 13.41, 77.9409, -139.507
3.04754, -1, -27.4483, -1.86139, 25.3675, 13.4122, 77.8487, -139.741
3.05555, -1, -27.6214, -1.94952, 25.4023, 13.4143, 77.7568, -139.974
3.06357, -1, -27.7947, -2.03776, 25.4372, 13.4163, 77.6647, -140.208
3.07149, -1, -27.968, -2.12575, 25.472, 13.4184, 77.5727, -140.441
3.07949, -1, -28.1414, -2.2138, 25.5067, 13.4204, 77.4808, -140.675
3.08756, -1, -28.3145, -2.30184, 25.5415, 13.4224, 77.3887, -140.908
3.09549, -1, -28.4873, -2.38991, 25.5762, 13.4244, 77.2966, -141.141
3.1035, -1, -28.6597, -2.47785, 25.6109, 13.4267, 77.2046, -141.374
3.1116, -1, -28.8314, -2.56584, 25.6456, 13.4287, 77.1126, -141.607
3.11959, -1, -29.0025, -2.6538, 25.6802, 13.431, 77.0207, -141.84
3.1277, -1, -29.1731, -2.74168, 25.7147, 13.4331, 76.9286, -142.072
3.13559, -1, -29.3436, -2.82946, 25.7494, 13.4352, 76.837, -142.304
3.14365, -1, -29.5143, -2.91716, 25.7841, 13.4372, 76.745, -142.537
3.15167, -1, -29.6852, -3.0047, 25.8186, 13.4392, 76.6532, -142.769
3.15956, -1, -29.8562, -3.09225, 25.8532, 13.4413, 76.5616, -143.002
3.16749, -1, -30.0271, -3.17972, 25.8878, 13.4434, 76.4696, -143.234
3.17634, -1, -30.198, -3.2672, 25.9223, 13.4454, 76.378, -143.466
3.18358, -1, -30.3692, -3.35465, 25.9569, 13.4475, 76.2865, -143.698
3.19157, -1, -30.5407, -3.44211, 25.9914, 13.4496, 76.1946, -143.929
3.20063, -1, -30.7125, -3.52963, 26.0259, 13.4516, 76.1032, -144.161
3.20772, -1, -30.8845, -3.61696, 26.0604, 13.4536, 76.0119, -144.392
3.21588, -1, -31.0563, -3.70435, 26.095, 13.4556, 75.9204, -144.624
3.22477, -1, -31.228, -3.79168, 26.1294, 13.4577, 75.8291, -144.855
3.23187, -1, -31.3994, -3.87895, 26.1638, 13.4597, 75.7378, -145.087
3.24002, -1, -31.5703, -3.96623, 26.1983, 13.4619, 75.6466, -145.318
3.24889, -1, -31.7407, -4.05346, 26.2327, 13.4641, 75.5553, -145.549
3.25606, -1, -31.9107, -4.1407, 26.267, 13.4663, 75.4642, -145.78
3.26428, -1, -32.0803, -4.22791, 26.3015, 13.4685, 75.3732, -146.011
3.27295, -1, -32.2497, -4.31498, 26.3359, 13.4707, 75.2821, -146.241
3.28008, -1, -32.3343, -4.35851, 26.353, 13.4728, 75.191, -146.472
3.28813, -1, -32.5039, -4.44555, 26.3872, 13.4739, 75.1004, -146.702
3.29553, -1, -32.6736, -4.53247, 26.4216, 13.476, 75.0548, -146.817
3.30351, -1, -32.8433, -4.61941, 26.456, 13.4782, 74.964, -147.048
3.31153, -1, -33.0128, -4.70632, 26.4901, 13.4804, 74.8733, -147.278
3.3195, -1, -33.1826, -4.79321, 26.5244, 13.4826, 74.7829, -147.508
3.32752, -1, -33.3525, -4.88003, 26.5587, 13.4848, 74.6922, -147.738
3.33551, -1, -33.5227, -4.96699, 26.5929, 13.487, 74.6015, -147.968
3.34348, -1, -33.6931, -5.05388, 26.6271, 13.4892, 74.5112, -148.198
3.35153, -1, -33.8634, -5.14059, 26.6614, 13.4915, 74.4204, -148.428
3.35948, -1, -34.0336, -5.22729, 26.6955, 13.4937, 74.3298, -148.657
3.36748, -1, -34.2038, -5.31405, 26.7297, 13.496, 74.2395, -148.887
3.37555, -1, -34.3739, -5.40066, 26.7641, 13.4982, 74.1488, -149.116
3.38353, -1, -34.5437, -5.48727, 26.7982, 13.5005, 74.0582, -149.345
3.3915, -1, -34.713, -5.57391, 26.8323, 13.5029, 73.9678, -149.575
3.39955, -1, -34.8816, -5.66051, 26.8665, 13.5053, 73.8772, -149.804
3.40748, -1, -35.05, -5.74704, 26.9007, 13.5079, 73.7868, -150.033
3.41648, -1, -35.2183, -5.83354, 26.9347, 13.5103, 73.6964, -150.262
3.42354, -1, -35.3867, -5.91988, 26.9689, 13.5127, 73.6061, -150.491
3.43148, -1, -35.5552, -6.0061, 27.003, 13.515, 73.5157, -150.72
3.43964, -1, -35.7236, -6.09238, 27.037, 13.5173, 73.4253, -150.948
3.44853, -1, -35.8921, -6.17855, 27.071, 13.5197, 73.3351, -151.177
3.45549, -1, -36.0607, -6.26466, 27.1052, 13.5221, 73.2446, -151.405
3.46432, -1, -36.2293, -6.35077, 27.1391, 13.5245, 73.1542, -151.634
3.47149, -1, -36.3979, -6.43694, 27.1731, 13.527, 73.0641, -151.862
3.47947, -1, -36.5668, -6.52317, 27.2071, 13.5293, 72.9735, -152.091
3.48833, -1, -36.7358, -6.60929, 27.241, 13.5315, 72.8833, -152.319
3.49547, -1, -36.9047, -6.69543, 27.2749, 13.5338, 72.7932, -152.547
3.50348, -1, -37.0737, -6.78161, 27.3089, 13.5361, 72.703, -152.775
3.51526, -1, -37.3268, -6.91073, 27.3597, 13.5394, 72.568, -153.117
3.51948, -1, -37.411, -6.95371, 27.3766, 13.5406, 72.5232, -153.23
3.52748, -1, -37.5791, -7.03977, 27.4106, 13.5428, 72.4332, -153.458
3.53554, -1, -37.7469, -7.12579, 27.4446, 13.545, 72.3434, -153.685
3.54348, -1, -37.9145, -7.21176, 27.4783, 13.5473, 72.2536, -153.913
3.55153, -1, -38.082, -7.29767, 27.5122, 13.5495, 72.164, -154.141
3.55954, -1, -38.2494, -7.38352, 27.5462, 13.5516, 72.0742, -154.368
3.56748, -1, -38.4166, -7.46926, 27.58, 13.5538, 71.9845, -154.595
3.57549, -1, -38.5838, -7.55499, 27.6138, 13.5559, 71.8951, -154.822
3.58355, -1, -38.7511, -7.64069, 27.6477, 13.558, 71.8053, -155.05
3.59149, -1, -38.9184, -7.72635, 27.6814, 13.56, 71.7158, -155.277
3.59964, -1, -39.0858, -7.81192, 27.7151, 13.5622, 71.6267, -155.503
3.60749, -1, -39.2534, -7.89758, 27.749, 13.5641, 71.5372, -155.73
3.61552, -1, -39.4209, -7.98326, 27.7828, 13.566, 71.448, -155.957
3.62379, -1, -39.5885, -8.0688, 27.8164, 13.568, 71.3587, -156.183
3.63163, -1, -39.7562, -8.15436, 27.8501, 13.5699, 71.2694, -156.41
3.63958, -1, -39.9239, -8.23985, 27.8838, 13.5719, 71.1801, -156.636
3.64802, -1, -40.0915, -8.32532, 27.9175, 13.5738, 71.0906, -156.863
3.65558, -1, -40.2589, -8.41068, 27.9511, 13.5758, 71.0015, -157.089
3.66348, -1, -40.4261, -8.49607, 27.985, 13.5778, 70.9119, -157.315
3.67222, -1, -40.593, -8.58144, 28.0186, 13.5797, 70.8227, -157.541
3.67951, -1, -40.7598, -8.66682, 28.0521, 13.5817, 70.7337, -157.767
3.68766, -1, -40.9264, -8.75216, 28.0859, 13.5837, 70.6445, -157.993
3.6964, -1, -41.0929, -8.83747, 28.1196, 13.5858, 70.5553, -158.219
3.70362, -1, -41.2592, -8.9227, 28.1531, 13.5877, 70.4664, -158.445
3.7117, -1, -41.4254, -9.00783, 28.1867, 13.5898, 70.3773, -158.671
3.72063, -1, -41.5916, -9.09301, 28.2204, 13.5918, 70.288, -158.896
3.72781, -1, -41.7579, -9.17805, 28.254, 13.5938, 70.199, -159.122
3.73614, -1, -41.9243, -9.26309, 28.2876, 13.5958, 70.1099, -159.347
3.74488, -1, -42.0908, -9.34811, 28.3213, 13.5978, 70.0208, -159.573
3.75199, -1, -42.257, -9.4332, 28.3548, 13.5998, 69.9317, -159.798
3.76057, -1, -42.4233, -9.51821, 28.3883, 13.6018, 69.8429, -160.023
3.76888, -1, -42.5897, -9.60316, 28.4219, 13.6038, 69.7539, -160.248
3.77605, -1, -42.6729, -9.68816, 28.4555, 13.6059, 69.665, -160.473
3.78429, -1, -42.9224, -9.77313, 28.4889, 13.6079, 69.5765, -160.698
3.79148, -1, -43.0056, -9.81559, 28.5056, 13.609, 69.532, -160.811
3.79951, -1, -43.1718, -9.90052, 28.5392, 13.611, 69.4432, -161.036
3.80752, -1, -43.3379, -9.98547, 28.5726, 13.6131, 69.3544, -161.26
3.81547, -1, -43.5041, -10.0704, 28.6061, 13.6152, 69.2659, -161.485
3.82347, -1, -43.6701, -10.1554, 28.6397, 13.6173, 69.1771, -161.71
3.83153, -1, -43.8359, -10.2402, 28.6731, 13.6194, 69.0886, -161.935
3.83947, -1, -44.0017, -10.325, 28.7065, 13.6216, 69.0003, -162.159
3.84747, -1, -44.1672, -10.4097, 28.74, 13.6237, 68.9115, -162.383
3.85552, -1, -44.3324, -10.4944, 28.7735, 13.6259, 68.8229, -162.608
3.86352, -1, -44.4976, -10.5789, 28.8068, 13.6281, 68.7344, -162.832
3.87147, -1, -44.6628, -10.6634, 28.8402, 13.6303, 68.6459, -163.056
3.87951, -1, -44.828, -10.7479, 28.8737, 13.6325, 68.5573, -163.28
3.88757, -1, -44.9934, -10.8324, 28.9071, 13.6347, 68.4689, -163.505
3.89546, -1, -45.1586, -10.9169, 28.9405, 13.6368, 68.3806, -163.729
3.90354, -1, -45.3239, -11.0014, 28.9739, 13.6391, 68.292, -163.953
3.91147, -1, -45.4892, -11.0859, 29.0073, 13.6414, 68.2035, -164.176
3.91946, -1, -45.6545, -11.1703, 29.0404, 13.6437, 68.1156, -164.4
3.92954, -1, -45.9021, -11.2968, 29.0905, 13.6471, 67.9829, -164.736
3.93546, -1, -45.984, -11.3386, 29.1072, 13.6482, 67.9387, -164.847
3.94346, -1, -46.1456, -11.421, 29.1407, 13.6505, 67.8507, -165.071
3.95159, -1, -46.3027, -11.5005, 29.1743, 13.6529, 67.7633, -165.292
3.95946, -1, -46.4532, -11.5756, 29.2078, 13.6552, 67.678, -165.507
3.96751, -1, -46.5946, -11.6456, 29.2401, 13.6576, 67.5964, -165.713
3.97554, -1, -46.7245, -11.7091, 29.27, 13.6598, 67.5216, -165.904
3.98346, -1, -46.8399, -11.7653, 29.2965, 13.6617, 67.4543, -166.073
3.99147, -1, -46.939, -11.8146, 29.3188, 13.6634, 67.3982, -166.216
3.99954, -1, -47.0219, -11.8577, 29.3354, 13.6647, 67.3531, -166.329
4.00746, -1, -47.0894, -11.8947, 29.3469, 13.6655, 67.3192, -166.415
4.01546, -1, -47.1421, -11.9243, 29.3542, 13.6659, 67.2957, -166.474
4.02352, -1, -47.1813, -11.9466, 29.3582, 13.6661, 67.2805, -166.512
4.03144, -1, -47.2092, -11.9623, 29.36, 13.6662, 67.2716, -166.535
4.03946, -1, -47.2276, -11.9724, 29.3609, 13.6663, 67.2668, -166.547
4.04752, -1, -47.2388, -11.9784, 29.3613, 13.6664, 67.2644, -166.553
4.05542, 2, -47.2446, -11.9814, 29.3615, 13.6664, 67.2632, -166.556
4.06346, 2, -47.2468, -11.9827, 29.3616, 13.6664, 67.2627, -166.557
4.07154, 2, -47.2469, -11.9832, 29.3617, 13.6664, 67.2624, -166.558
4.07946, 2, -47.2466, -11.9834, 29.3618, 13.6664, 67.2623, -166.558
4.08745, 2, -47.2465, -11.9835, 29.3618, 13.6665, 67.2623, -166.558
4.09554, 2, -47.2468, -11.9836, 29.3618, 13.6665, 67.2622, -166.558
4.10346, 2, -47.2477, -11.9838, 29.3619, 13.6665, 67.2622, -166.558
4.1115, 2, -47.249, -11.9843, 29.3619, 13.6665, 67.2622, -166.558
4.11964, 2, -47.2508, -11.9851, 29.3619, 13.6665, 67.2622, -166.558
4.12755, 2, -47.2526, -11.986, 29.3619, 13.6666, 67.2622, -166.558
4.1356, 2, -47.254, -11.9868, 29.3619, 13.6666, 67.2622, -166.558
4.14363, 2, -47.255, -11.9875, 29.3619, 13.6665, 67.2622, -166.558
4.15157, 2, -47.2555, -11.9879, 29.3619, 13.6666, 67.2622, -166.558
4.15956, 2, -47.2557, -11.9881, 29.3619, 13.6666, 67.2623, -166.558
4.16763, 2, -47.2558, -11.9881, 29.3619, 13.6666, 67.2622, -166.558
4.17548, 2, -47.2556, -11.9881, 29.3619, 13.6665, 67.2622, -166.558
4.18349, 2, -47.2551, -11.9881, 29.3619, 13.6665, 67.2622, -166.558
4.19166, 2, -47.2546, -11.9881, 29.3619, 13.6666, 67.2623, -166.558
4.19955, 2, -47.2542, -11.9881, 29.3619, 13.6666, 67.2622, -166.558
4.20764, 2, -47.254, -11.9881, 29.3619, 13.6666, 67.2622, -166.558
4.21586, 2, -47.2539, -11.9882, 29.3619, 13.6666, 67.2622, -166.558
4.22374, 2, -47.254, -11.9883, 29.3619, 13.6665, 67.2622, -166.558
4.23182, 2, -47.2542, -11.9886, 29.3619, 13.6666, 67.2622, -166.558
4.24005, 2, -47.2547, -11.9889, 29.3619, 13.6665, 67.2622, -166.558
4.24792, 2, -47.2553, -11.9891, 29.3619, 13.6665, 67.2622, -166.558
4.25657, 2, -47.2557, -11.9893, 29.3619, 13.6665, 67.2622, -166.558
4.26418, 2, -47.2559, -11.9894, 29.3619, 13.6665, 67.2622, -166.558
4.27205, 2, -47.256, -11.9894, 29.3619, 13.6666, 67.2622, -166.558
4.28002, 2, -47.2559, -11.9894, 29.3619, 13.6665, 67.2622, -166.558
4.28824, 2, -47.2558, -11.9894, 29.3619, 13.6665, 67.2622, -166.558
4.29545, 2, -47.2557, -11.9893, 29.3619, 13.6665, 67.2622, -166.558
4.30352, 2, -47.2552, -11.9893, 29.3619, 13.6665, 67.2623, -166.558
4.31151, 2, -47.2548, -11.9893, 29.3619, 13.6665, 67.2622, -166.558
4.31945, 2, -47.2546, -11.9893, 29.3619, 13.6665, 67.2622, -166.558
4.32745, 2, -47.2544, -11.9893, 29.3619, 13.6665, 67.2623, -166.558
4.33552, 2, -47.2542, -11.9893, 29.3619, 13.6665, 67.2623, -166.558
4.34345, 2, -47.2542, -11.9894, 29.3619, 13.6664, 67.2623, -166.558
4.35145, 2, -47.2542, -11.9894, 29.3619, 13.6664, 67.2623, -166.558
4.3595, 2, -47.2541, -11.9895, 29.3619, 13.6664, 67.2623, -166.558
4.36745, 2, -47.2541, -11.9895, 29.3619, 13.6665, 67.2623, -166.558
4.37542, 2, -47.2541, -11.9895, 29.3619, 13.6665, 67.2622, -166.558
4.3835, 2, -47.2541, -11.9894, 29.3619, 13.6665, 67.2623, -166.558
4.39146, 2, -47.2541, -11.9894, 29.3619, 13.6665, 67.2622, -166.558
4.39945, 2, -47.254, -11.9894, 29.3619, 13.6665, 67.2623, -166.558
4.4075, 2, -47.2539, -11.9893, 29.3619, 13.6665, 67.2623, -166.558
4.41545, 2, -47.2538, -11.9893, 29.3619, 13.6665, 67.2623, -166.558
4.42444, 2, -47.2537, -11.9893, 29.3619, 13.6664, 67.2623, -166.558
4.43153, 2, -47.2536, -11.9893, 29.3619, 13.6665, 67.2623, -166.558
4.4405, 2, -47.2535, -11.9893, 29.3619, 13.6666, 67.2623, -166.558
4.44744, 2, -47.2534, -11.9893, 29.3619, 13.6666, 67.2623, -166.558
4.45565, 2, -47.2533, -11.9894, 29.3619, 13.6665, 67.2623, -166.558
4.46344, 2, -47.2532, -11.9894, 29.3619, 13.6665, 67.2623, -166.558
4.4715, 2, -47.2532, -11.9894, 29.3619, 13.6665, 67.2623, -166.558
4.47951, 2, -47.2531, -11.9894, 29.3619, 13.6665, 67.2624, -166.558
4.48744, 2, -47.2531, -11.9893, 29.3619, 13.6665, 67.2624, -166.558
4.49545, 2, -47.253, -11.9893, 29.3619, 13.6665, 67.2623, -166.558
4.50351, 2, -47.2529, -11.9893, 29.3619, 13.6665, 67.2623, -166.558
4.51146, 2, -47.2528, -11.9892, 29.3619, 13.6665, 67.2623, -166.558
4.51945, 2, -47.2527, -11.9892, 29.3619, 13.6664, 67.2623, -166.558
4.52751, 2, -47.2526, -11.9891, 29.3619, 13.6664, 67.2624, -166.558
4.53544, 2, -47.2525, -11.9891, 29.3619, 13.6664, 67.2624, -166.558
4.54344, 2, -47.2524, -11.9891, 29.3619, 13.6664, 67.2624, -166.558
4.55152, 2, -47.2523, -11.9892, 29.3619, 13.6664, 67.2624, -166.557
4.55944, 2, -47.2522, -11.9892, 29.3619, 13.6664, 67.2624, -166.557
4.56744, 2, -47.2521, -11.9892, 29.3619, 13.6664, 67.2624, -166.557
4.57552, 2, -47.2519, -11.9891, 29.3619, 13.6664, 67.2624, -166.557
4.58345, 2, -47.2518, -11.9891, 29.3619, 13.6664, 67.2624, -166.557
4.59145, 2, -47.2517, -11.9891, 29.3619, 13.6664, 67.2624, -166.557
4.59952, 2, -47.2516, -11.9891, 29.3619, 13.6664, 67.2624, -166.557
4.60744, 2, -47.2515, -11.9891, 29.3619, 13.6665, 67.2624, -166.557
4.61548, 2, -47.2514, -11.989, 29.3619, 13.6664, 67.2624, -166.557
4.62362, 2, -47.2513, -11.9889, 29.3619, 13.6664, 67.2624, -166.557
4.63155, 2, -47.2512, -11.9889, 29.3619, 13.6664, 67.2624, -166.557
4.63959, 2, -47.2511, -11.9889, 29.3619, 13.6664, 67.2624, -166.557
4.64761, 2, -47.251, -11.9889, 29.3619, 13.6664, 67.2624, -166.557
4.65555, 2, -47.251, -11.9889, 29.3619, 13.6664, 67.2625, -166.557
4.6635, 2, -47.2509, -11.9889, 29.3619, 13.6664, 67.2625, -166.557
4.67169, 2, -47.2508, -11.9889, 29.3619, 13.6663, 67.2625, -166.557
4.67947, 2, -47.2508, -11.9889, 29.3619, 13.6664, 67.2625, -166.557
4.68748, 2, -47.2507, -11.9889, 29.3619, 13.6664, 67.2625, -166.557
4.69557, 2, -47.2507, -11.9889, 29.3619, 13.6664, 67.2625, -166.557
4.70368, 2, -47.2506, -11.9888, 29.3619, 13.6663, 67.2625, -166.557
4.71164, 2, -47.2506, -11.9888, 29.3619, 13.6662, 67.2625, -166.557
4.72006, 2, -47.2506, -11.9887, 29.3619, 13.6663, 67.2625, -166.557
4.72856, 2, -47.2505, -11.9886, 29.3619, 13.6663, 67.2625, -166.557
4.7358, 2, -47.2504, -11.9886, 29.3619, 13.6663, 67.2625, -166.557
4.74431, 2, -47.2504, -11.9886, 29.3619, 13.6663, 67.2625, -166.557
4.75206, 2, -47.2503, -11.9886, 29.3619, 13.6663, 67.2625, -166.557
4.75995, 2, -47.2502, -11.9886, 29.3619, 13.6663, 67.2625, -166.557
4.76854, 2, -47.2501, -11.9886, 29.3619, 13.6663, 67.2625, -166.557
4.77601, 2, -47.2501, -11.9886, 29.3619, 13.6663, 67.2625, -166.557
4.784, 2, -47.2501, -11.9886, 29.3619, 13.6662, 67.2626, -166.557
4.79245, 2, -47.25, -11.9886, 29.3619, 13.6662, 67.2626, -166.557
4.79943, 2, -47.25, -11.9886, 29.3619, 13.6662, 67.2626, -166.557
4.80748, 2, -47.25, -11.9885, 29.3619, 13.6662, 67.2627, -166.557
4.81634, 2, -47.2499, -11.9884, 29.3619, 13.6662, 67.2627, -166.557
4.82343, 2, -47.2498, -11.9884, 29.3619, 13.6662, 67.2627, -166.557
4.83149, 2, -47.2498, -11.9883, 29.3619, 13.6662, 67.2627, -166.557
4.83948, 2, -47.2497, -11.9882, 29.3619, 13.6662, 67.2626, -166.557
4.84743, 2, -47.2496, -11.9882, 29.3619, 13.6662, 67.2627, -166.557
4.85543, 2, -47.2495, -11.9882, 29.3619, 13.6662, 67.2627, -166.557
4.86502, 2, -47.2494, -11.9882, 29.3619, 13.6662, 67.2627, -166.557
4.87295, 2, -47.2494, -11.9882, 29.3619, 13.6662, 67.2627, -166.556
4.87943, 2, -47.2494, -11.9882, 29.3619, 13.6662, 67.2627, -166.556
4.88749, 2, -47.2493, -11.9881, 29.3619, 13.6661, 67.2627, -166.556
4.89545, 2, -47.2493, -11.9881, 29.3619, 13.6661, 67.2627, -166.556
4.90344, 2, -47.2492, -11.9881, 29.3619, 13.666, 67.2627, -166.556
4.91151, 2, -47.2492, -11.9881, 29.3619, 13.666, 67.2628, -166.556
4.91943, 2, -47.2491, -11.988, 29.3619, 13.6661, 67.2628, -166.556
4.92843, 2, -47.2491, -11.988, 29.3619, 13.666, 67.2628, -166.556
4.9355, 2, -47.2491, -11.9879, 29.3619, 13.666, 67.2628, -166.556
4.94343, 2, -47.249, -11.9878, 29.3619, 13.666, 67.2628, -166.556
4.95144, 2, -47.2489, -11.9878, 29.3619, 13.666, 67.2628, -166.556
4.95956, 2, -47.2489, -11.9878, 29.3619, 13.666, 67.2628, -166.556
4.96743, 2, -47.2488, -11.9878, 29.3619, 13.666, 67.2628, -166.556
4.97548, 2, -47.2487, -11.9877, 29.3619, 13.666, 67.2628, -166.556
4.98349, 2, -47.2487, -11.9877, 29.3619, 13.666, 67.2628, -166.556
4.99144, 2, -47.2487, -11.9877, 29.3619, 13.666, 67.2628, -166.556
4.99943, 2, -47.2486, -11.9877, 29.3619, 13.666, 67.2628, -166.556
5.00749, 2, -47.2486, -11.9877, 29.3619, 13.666, 67.2628, -166.556
5.01543, 2, -47.2485, -11.9877, 29.3619, 13.6659, 67.2628, -166.556
5.02343, 2, -47.2485, -11.9876, 29.3619, 13.6659, 67.2628, -166.556
5.03151, 2, -47.2485, -11.9875, 29.3619, 13.6659, 67.2628, -166.556
5.03943, 2, -47.2484, -11.9875, 29.3619, 13.6659, 67.2628, -166.556
5.04743, 2, -47.2483, -11.9874, 29.3619, 13.6658, 67.2629, -166.556
5.05566, 2, -47.2483, -11.9874, 29.3619, 13.6658, 67.2629, -166.556
5.06446, 2, -47.2482, -11.9874, 29.3619, 13.6658, 67.2629, -166.556
5.07143, 2, -47.2481, -11.9873, 29.3619, 13.6658, 67.2629, -166.556
5.07942, 2, -47.2481, -11.9873, 29.3619, 13.6658, 67.2629, -166.556
5.08751, 2, -47.248, -11.9873, 29.3619, 13.6658, 67.263, -166.556
5.09543, 2, -47.248, -11.9873, 29.3619, 13.6657, 67.263, -166.556
5.10343, 2, -47.248, -11.9873, 29.3619, 13.6657, 67.2631, -166.556
5.11152, 2, -47.2479, -11.9873, 29.3619, 13.6658, 67.263, -166.556
5.11946, 2, -47.2479, -11.9872, 29.3619, 13.6657, 67.2631, -166.556
5.12756, 2, -47.2479, -11.9872, 29.3619, 13.6657, 67.2631, -166.556
5.13581, 2, -47.2479, -11.9871, 29.3619, 13.6657, 67.263, -166.556
5.14357, 4, -47.2479, -11.987, 29.3619, 13.6657, 67.2631, -166.556
5.15154, 4, -47.2478, -11.987, 29.3619, 13.6657, 67.2631, -166.556
5.1596, 4, -47.2477, -11.987, 29.3619, 13.6657, 67.263, -166.556
5.16743, 4, -47.2476, -11.9869, 29.3619, 13.6657, 67.2631, -166.556
5.17544, 4, -47.2476, -11.9869, 29.3618, 13.6656, 67.2631, -166.556
5.18352, 4, -47.2475, -11.9869, 29.3618, 13.6656, 67.2631, -166.556
5.19147, 4, -47.2474, -11.9869, 29.3619, 13.6656, 67.2631, -166.555
5.19948, 4, -47.2474, -11.9869, 29.3618, 13.6656, 67.2631, -166.555
5.20768, 4, -47.2473, -11.9869, 29.3618, 13.6656, 67.2631, -166.555
5.21561, 4, -47.2473, -11.9869, 29.3618, 13.6656, 67.2631, -166.555
5.22367, 4, -47.2473, -11.9868, 29.3619, 13.6656, 67.2631, -166.555
5.23194, 4, -47.2473, -11.9868, 29.3619, 13.6656, 67.2631, -166.555
5.24069, 4, -47.2473, -11.9867, 29.3619, 13.6655, 67.2631, -166.555
5.25584, 4, -47.2472, -11.9866, 29.3618, 13.6656, 67.2631, -166.555
5.25786, 4, -47.2472, -11.9866, 29.3618, 13.6655, 67.2631, -166.555
5.26435, 4, -47.2471, -11.9866, 29.3619, 13.6655, 67.2632, -166.555
5.27335, 4, -47.2471, -11.9865, 29.3619, 13.6654, 67.2632, -166.555
5.28164, 4, -47.247, -11.9865, 29.3618, 13.6654, 67.2631, -166.555
5.2892, 4, -47.247, -11.9865, 29.3618, 13.6654, 67.2631, -166.555
5.29628, 4, -47.2469, -11.9865, 29.3618, 13.6654, 67.2631, -166.555
5.30502, 4, -47.2468, -11.9865, 29.3618, 13.6654, 67.2631, -166.555
5.31226, 4, -47.2468, -11.9865, 29.3618, 13.6654, 67.2631, -166.555
5.32072, 4, -47.2468, -11.9865, 29.3618, 13.6654, 67.2631, -166.555
5.33264, 4, -47.2468, -11.9865, 29.3618, 13.6653, 67.2631, -166.555
5.33694, 4, -47.2468, -11.9864, 29.3618, 13.6653, 67.2631, -166.555
5.34642, 4, -47.2467, -11.9864, 29.3618, 13.6653, 67.2631, -166.555
5.35457, 4, -47.2467, -11.9863, 29.3618, 13.6653, 67.2632, -166.555
5.36519, 4, -47.2467, -11.9863, 29.3618, 13.6653, 67.2632, -166.555
5.37074, 4, -47.2467, -11.9863, 29.3618, 13.6653, 67.2632, -166.555
5.37743, 4, -47.2466, -11.9862, 29.3618, 13.6653, 67.2632, -166.555
5.38659, 4, -47.2466, -11.9862, 29.3618, 13.6653, 67.2632, -166.555
5.39164, 4, -47.2465, -11.9862, 29.3618, 13.6652, 67.2632, -166.555
5.39958, 4, -47.2465, -11.9862, 29.3619, 13.6652, 67.2632, -166.555
5.40761, 4, -47.2465, -11.9862, 29.3619, 13.6652, 67.2631, -166.555
5.41725, 4, -47.2465, -11.9862, 29.3618, 13.6652, 67.2632, -166.555
5.42731, 4, -47.2475, -11.9866, 29.3622, 13.6654, 67.2632, -166.555
5.43231, 4, -47.2484, -11.9872, 29.3628, 13.6657, 67.2634, -166.555
5.44348, 4, -47.254, -11.9927, 29.3694, 13.6766, 67.2661, -166.553
5.44788, 4, -47.2571, -11.9965, 29.3746, 13.6867, 67.2686, -166.551
5.45826, 4, -47.2727, -12.0168, 29.4068, 13.7507, 67.2861, -166.538
5.46848, 5, -47.2907, -12.0411, 29.4496, 13.8388, 67.3104, -166.518
5.47156, 5, -47.3029, -12.0573, 29.4798, 13.9015, 67.3281, -166.504
5.48207, 5, -47.3548, -12.1249, 29.6149, 14.1872, 67.4069, -166.438
5.49062, 5, -47.4045, -12.1876, 29.748, 14.4735, 67.4856, -166.372
5.49658, 5, -47.4341, -12.2245, 29.8283, 14.6481, 67.5327, -166.332
5.50361, 5, -47.5028, -12.3098, 30.0181, 15.0605, 67.6432, -166.237
5.51593, 5, -47.6286, -12.4655, 30.3736, 15.8262, 67.8457, -166.064
5.51986, 5, -47.6762, -12.5242, 30.5089, 16.1146, 67.9212, -165.999
5.53103, 5, -47.8326, -12.7178, 30.9576, 17.0545, 68.1636, -165.789
5.53556, 5, -47.8886, -12.7873, 31.1184, 17.3866, 68.2477, -165.716
5.54493, 5, -48.0044, -12.932, 31.4532, 18.0668, 68.418, -165.567
5.55343, 5, -48.1238, -13.0819, 31.7988, 18.7584, 68.5877, -165.419
5.56001, 5, -48.2437, -13.2342, 32.1508, 19.452, 68.7549, -165.272
5.56756, 5, -48.3613, -13.3857, 32.5044, 20.1361, 68.9181, -165.125
5.57656, 5, -48.472, -13.5338, 32.8563, 20.8024, 69.0776, -164.973
5.58362, 6, -48.5718, -13.6755, 33.2001, 21.4404, 69.2359, -164.802
5.59164, 6, -48.6564, -13.808, 33.5316, 22.0405, 69.3952, -164.599
5.60121, 7, -48.7222, -13.9315, 33.8463, 22.5976, 69.5592, -164.347
5.60755, 7, -48.7668, -14.0464, 34.143, 23.1079, 69.7308, -164.032
5.61718, 7, -48.7896, -14.152, 34.4204, 23.5746, 69.9127, -163.646
5.62456, 8, -48.7923, -14.2478, 34.6797, 24.0047, 70.1071, -163.186
5.63657, 9, -48.7631, -14.3756, 35.0423, 24.5994, 70.4222, -162.37
5.64357, 9, -48.7456, -14.415, 35.1574, 24.789, 70.5333, -161.762
5.64855, 9, -48.7012, -14.4895, 35.3825, 25.1618, 70.7628, -161.445
5.65589, 10, -48.647, -14.5585, 35.6039, 25.5323, 71.001, -160.791
5.66366, 10, -48.5845, -14.6234, 35.823, 25.9049, 71.2459, -160.12
5.67628, 11, -48.4782, -14.7176, 36.1511, 26.472, 71.6208, -159.104
5.67966, 11, -48.4404, -14.7488, 36.2607, 26.6637, 71.7466, -158.765
5.68854, 12, -48.3626, -14.811, 36.4785, 27.0508, 71.9985, -158.091
5.69656, 12, -48.2829, -14.8726, 36.6943, 27.4431, 72.2499, -157.42
5.7039, 13, -48.2013, -14.934, 36.9085, 27.8393, 72.5005, -156.754
5.71346, 13, -48.1176, -14.9954, 37.12, 28.2379, 72.7499, -156.092
5.72058, 14, -48.0316, -15.0564, 37.3287, 28.6382, 72.9973, -155.434
5.72832, 14, -47.943, -15.1174, 37.5356, 29.0393, 73.2433, -154.78
5.73625, 15, -47.8509, -15.1783, 37.7396, 29.4403, 73.4871, -154.129
5.74407, 15, -47.7541, -15.239, 37.9401, 29.8405, 73.7289, -153.482
5.75269, 16, -47.6518, -15.2996, 38.1383, 30.2395, 73.9685, -152.837
5.7647, 17, -47.4878, -15.3912, 38.43, 30.8351, 74.3225, -151.879
5.77281, 17, -47.4306, -15.4532, 38.62, 31.23, 74.5546, -151.245
5.7764, 17, -47.3124, -15.4846, 38.714, 31.4267, 74.6693, -150.929
5.78671, 18, -47.189, -15.5481, 38.9008, 31.8188, 74.8959, -150.303
5.79228, 18, -47.0607, -15.6129, 39.0849, 32.2089, 75.118, -149.684
5.80152, 19, -46.9278, -15.6795, 39.2668, 32.5974, 75.3354, -149.071
5.80837, 19, -46.8595, -15.7481, 39.4479, 32.9842, 75.5476, -148.466
5.81728, 20, -46.6469, -15.8187, 39.6277, 33.3688, 75.7543, -147.869
5.8242, 20, -46.5735, -15.855, 39.7166, 33.5602, 75.8557, -147.574
5.83329, 21, -46.346, -15.9677, 39.9795, 34.1309, 76.1512, -146.697
5.83954, 21, -46.2678, -16.0066, 40.0661, 34.3199, 76.2468, -146.409
5.84934, 22, -46.0253, -16.127, 40.3229, 34.8818, 76.5247, -145.556
5.85705, 22, -45.8565, -16.2099, 40.4902, 35.2519, 76.703, -144.995
5.86355, 23, -45.7698, -16.252, 40.5729, 35.4353, 76.7899, -144.717
5.87473, 24, -45.4995, -16.3812, 40.8174, 35.979, 77.0421, -143.892
5.88131, 24, -45.3107, -16.4694, 40.9757, 36.3352, 77.2034, -143.349
5.88955, 24, -45.1152, -16.5591, 41.1294, 36.6856, 77.3598, -142.81
5.89562, 25, -45.0149, -16.6044, 41.2047, 36.8584, 77.4362, -142.541
5.90356, 25, -44.8094, -16.6957, 41.3519, 37.1991, 77.5854, -142.007
5.9133, 26, -44.4887, -16.8334, 41.5639, 37.6969, 77.801, -141.211
5.92154, 26, -44.2663, -16.9251, 41.6986, 38.0195, 77.9396, -140.684
5.92761, 27, -44.1526, -16.9707, 41.7639, 38.1778, 78.0071, -140.421
5.93954, 28, -43.8023, -17.1065, 41.9507, 38.6404, 78.2043, -139.634
5.9467, 28, -43.5604, -17.196, 42.067, 38.9386, 78.3311, -139.11
5.9526, 28, -43.4367, -17.2403, 42.1225, 39.0844, 78.3931, -138.849
5.95972, 29, -43.1844, -17.3278, 42.2282, 39.3697, 78.5153, -138.327
5.96768, 29, -42.9255, -17.4139, 42.3266, 39.6468, 78.6339, -137.804
5.98029, 30, -42.659, -17.5391, 42.4607, 40.0466, 78.8065, -137.021
5.98359, 30, -42.3837, -17.5796, 42.5018, 40.1755, 78.8625, -136.761
5.99454, 31, -42.1001, -17.6976, 42.6148, 40.5494, 79.0262, -135.981
5.99955, 31, -41.8088, -17.7357, 42.649, 40.6698, 79.0797, -135.721
6.00857, 32, -41.5102, -17.8102, 42.7123, 40.9042, 79.1843, -135.202
6.0165, 32, -41.2048, -17.8821, 42.7688, 41.1303, 79.2862, -134.683
6.02356, 33, -40.8929, -17.9514, 42.8181, 41.3485, 79.3858, -134.166
6.03162, 33, -40.5745, -18.0179, 42.8603, 41.5584, 79.4826, -133.65
6.04356, 34, -40.0873, -18.1121, 42.9101, 41.858, 79.6231, -132.877
6.04758, 34, -39.9227, -18.1421, 42.9232, 41.9539, 79.6689, -132.62
6.05556, 35, -39.5894, -18.1996, 42.9439, 42.14, 79.7584, -132.107
6.06644, 36, -39.0776, -18.2798, 42.9622, 42.4049, 79.8884, -131.339
6.0716, 36, -38.9032, -18.3049, 42.9649, 42.4892, 79.9305, -131.084
6.08122, 37, -38.5489, -18.3526, 42.9651, 42.6523, 80.0135, -130.574
6.08917, 37, -38.1885, -18.3969, 42.9584, 42.8079, 80.0939, -130.067
6.09635, 37, -37.8222, -18.4377, 42.9447, 42.9559, 80.1729, -129.561
6.1079, 38, -37.2633, -18.4922, 42.9118, 43.1643, 80.2868, -128.804
6.11487, 39, -36.8849, -18.5242, 42.8815, 43.2938, 80.3599, -128.301
6.11969, 39, -36.694, -18.5388, 42.8638, 43.3558, 80.3956, -128.051
6.12855, 40, -36.3089, -18.5651, 42.8233, 43.4745, 80.4663, -127.552
6.1366, 40, -35.918, -18.5877, 42.7763, 43.5858, 80.5346, -127.054
6.14374, 40, -35.521, -18.6068, 42.7226, 43.69, 80.6018, -126.558
6.15578, 41, -35.1185, -18.6221, 42.6626, 43.7866, 80.666, -126.064
6.15967, 41, -34.7112, -18.6338, 42.5963, 43.8765, 80.7292, -125.573
6.16964, 42, -34.3004, -18.6419, 42.5236, 43.9591, 80.79, -125.084
6.17589, 43, -33.8864, -18.6465, 42.4448, 44.0346, 80.8491, -124.597
6.18364, 43, -33.4688, -18.6479, 42.3599, 44.1026, 80.907, -124.112
6.19177, 43, -33.0458, -18.646, 42.2691, 44.1641, 80.962, -123.629
6.20234, 44, -32.6165, -18.6405, 42.1724, 44.2179, 81.0163, -123.15
6.20791, 44, -32.1805, -18.6314, 42.0698, 44.2646, 81.0682, -122.672
6.21673, 45, -31.7388, -18.6186, 41.9612, 44.3045, 81.1182, -122.197
6.22405, 45, -31.2934, -18.6022, 41.8465, 44.3365, 81.1675, -121.724
6.2321, 46, -30.8461, -18.5819, 41.7259, 44.3606, 81.2146, -121.253
6.24249, 47, -30.3968, -18.5579, 41.5997, 44.3769, 81.2598, -120.785
6.25298, 47, -29.7148, -18.514, 41.3994, 44.3882, 81.3267, -120.086
6.25636, 47, -29.4841, -18.4973, 41.3296, 44.3887, 81.3482, -119.854
6.26434, 48, -29.0179, -18.4606, 41.1854, 44.383, 81.3902, -119.392
6.27477, 49, -28.5458, -18.4194, 41.0351, 44.3684, 81.432, -118.931
6.28025, 49, -28.0699, -18.3736, 40.879, 44.3453, 81.4737, -118.472
6.28922, 50, -27.5918, -18.3232, 40.7167, 44.3122, 81.5142, -118.015
6.29622, 50, -27.3516, -18.2677, 40.5478, 44.2697, 81.5544, -117.558
6.30743, 51, -26.6236, -18.2068, 40.3724, 44.2187, 81.5959, -117.102
6.31222, 51, -26.3773, -18.1744, 40.2824, 44.1574, 81.6376, -116.648
6.32132, 51, -25.6272, -18.0689, 40.0018, 44.0865, 81.6793, -116.194
6.32892, 52, -25.1206, -17.9916, 39.8051, 44.0052, 81.7225, -115.741
6.33551, 52, -24.8665, -17.9509, 39.7044, 43.9605, 81.7449, -115.515
6.34767, 53, -24.3568, -17.8651, 39.4987, 43.8112, 81.8125, -114.836
6.35153, 53, -23.8437, -17.7734, 39.2855, 43.7563, 81.8355, -114.61
6.36195, 54, -23.0613, -17.6246, 38.9519, 43.5753, 81.9085, -113.932
6.36765, 55, -22.7961, -17.5721, 38.8375, 43.5097, 81.9334, -113.707
6.3795, 55, -21.9911, -17.4058, 38.4829, 43.2958, 82.0105, -113.029
6.38363, 56, -21.7212, -17.3475, 38.3613, 43.2187, 82.0377, -112.803
6.3938, 56, -20.9079, -17.164, 37.9871, 42.9707, 82.1201, -112.127
6.40117, 57, -20.3595, -17.0345, 37.7289, 42.7911, 82.1779, -111.677
6.40754, 57, -20.082, -16.9676, 37.5976, 42.6971, 82.2076, -111.452
6.41909, 58, -19.2359, -16.7588, 37.1936, 42.397, 82.2981, -110.776
6.42604, 58, -18.6649, -16.613, 36.9165, 42.1814, 82.3615, -110.327
6.43371, 59, -18.0914, -16.4616, 36.6335, 41.9537, 82.4255, -109.878
6.44189, 59, -17.8038, -16.384, 36.4894, 41.8354, 82.4587, -109.654
6.44948, 60, -16.9299, -16.1437, 36.0483, 41.4614, 82.561, -108.981
6.45552, 60, -16.6335, -16.061, 35.8979, 41.3303, 82.5964, -108.757
6.46365, 61, -16.0339, -15.8912, 35.5933, 41.058, 82.6689, -108.308
6.47157, 61, -15.4295, -15.7163, 35.2826, 40.7718, 82.7434, -107.859
6.48163, 62, -14.8222, -15.4451, 34.8038, 40.3176, 82.8612, -107.186
6.4886, 62, -14.2096, -15.3524, 34.6408, 40.1593, 82.9021, -106.961
6.49651, 63, -13.5873, -15.1625, 34.3115, 39.8324, 82.9858, -106.511
6.50352, 63, -12.9548, -14.9659, 33.9775, 39.4909, 83.0724, -106.061
6.51154, 64, -12.3152, -14.7633, 33.6386, 39.1346, 83.1616, -105.611
6.52312, 64, -11.3487, -14.4494, 33.1197, 38.5729, 83.3016, -104.934
6.53064, 65, -10.6952, -14.2311, 32.7666, 38.1801, 83.4001, -104.481
6.53883, 65, -10.3643, -14.1194, 32.4071, 37.7718, 83.504, -104.026
6.54364, 66, -9.69538, -13.8915, 32.2255, 37.5613, 83.5579, -103.797
6.55272, 66, -9.01876, -13.6573, 31.8577, 37.1289, 83.6705, -103.339
6.56038, 67, -8.3371, -13.4163, 31.4847, 36.6812, 83.7888, -102.879
6.5678, 67, -7.64823, -13.1685, 31.1057, 36.218, 83.9128, -102.417
6.57563, 68, -6.94879, -12.913, 30.7223, 35.7395, 84.0428, -101.952
6.5845, 68, -6.24071, -12.6495, 30.3356, 35.2452, 84.1783, -101.485
6.59169, 69, -5.52589, -12.3799, 29.9454, 34.7357, 84.3203, -101.017
6.60157, 69, -4.80466, -12.1034, 29.5513, 34.2108, 84.4689, -100.546
6.60761, 70, -4.07531, -11.8198, 29.1531, 33.6714, 84.6247, -100.073
6.61661, 70, -3.33749, -11.5293, 28.7528, 33.117, 84.7875, -99.5966
6.62736, 71, -2.21712, -11.0791, 28.1485, 32.2579, 85.0452, -98.8781
6.63162, 71, -1.84014, -10.9258, 27.946, 31.965, 85.1346, -98.6379
6.64071, 72, -1.0805, -10.6134, 27.5403, 31.3697, 85.3188, -98.1553
6.64858, 72, -0.313918, -10.2935, 27.1336, 30.7599, 85.5104, -97.6703
6.65656, 73, 0.458641, -9.96645, 26.7265, 30.1379, 85.7093, -97.1827
6.66364, 73, 1.23684, -9.63185, 26.3194, 29.505, 85.9167, -96.6929
6.67501, 74, 2.02109, -9.29077, 25.9116, 28.8609, 86.1322, -95.9533
6.67971, 74, 2.80996, -8.94298, 25.5048, 28.2072, 86.3557, -95.7055
6.68864, 75, 3.60248, -8.58944, 25.1003, 27.5442, 86.5868, -95.2082
6.70571, 76, 5.19976, -7.86011, 24.3007, 26.1962, 87.0719, -94.2087
6.70836, 76, 5.60051, -7.67317, 24.103, 25.8557, 87.1982, -93.9576
6.71157, 76, 6.00167, -7.48446, 23.9062, 25.5134, 87.3265, -93.7057
6.72002, 77, 6.80435, -7.10183, 23.5162, 24.8267, 87.59, -93.2004
6.72843, 77, 7.60865, -6.71063, 23.1293, 24.1379, 87.863, -92.6922
6.74126, 78, 8.81772, -6.1088, 22.5557, 23.0999, 88.291, -91.9251
6.74384, 78, 9.22044, -5.90439, 22.3671, 22.7535, 88.4384, -91.6676
6.75245, 79, 10.0254, -5.48861, 21.9939, 22.0607, 88.7404, -91.1499
6.75986, 79, 10.8297, -5.06318, 21.6256, 21.3692, 89.0516, -90.6285
6.7685, 80, 11.6319, -4.62789, 21.2618, 20.6807, 89.3733, -90.1031
6.77594, 80, 12.43, -4.18342, 20.9036, 19.9935, 89.7055, -89.5735
6.78444, 81, 13.2229, -3.72918, 20.55, 19.3128, 90.0491, -89.0386
6.79198, 81, 14.0119, -3.2655, 20.2013, 18.6392, 90.4038, -88.4986
6.80103, 82, 14.7941, -2.79334, 19.8573, 17.9746, 90.7689, -87.9544
6.80843, 82, 15.5663, -2.31279, 19.5207, 17.32, 91.144, -87.4065
6.81545, 82, 15.9483, -2.06959, 19.355, 16.9967, 91.3352, -87.1308
6.82448, 83, 17.0782, -1.32836, 18.8693, 16.05, 91.921, -86.2991
6.83137, 83, 17.4485, -1.07804, 18.7113, 15.743, 92.1201, -86.0208
6.83946, 84, 18.1758, -0.57453, 18.4015, 15.142, 92.523, -85.4643
6.84737, 84, 18.8843, -0.0668978, 18.101, 14.5632, 92.9327, -84.9075
6.85543, 85, 19.5759, 0.446822, 17.8088, 14.0079, 93.3473, -84.3516
6.86336, 85, 20.2521, 0.967939, 17.5257, 13.4776, 93.7667, -83.7981
6.87141, 86, 20.9145, 1.49655, 17.2508, 12.9719, 94.1887, -83.2471
6.88179, 86, 21.8871, 2.30616, 16.8547, 12.2555, 94.8292, -82.4198
6.88739, 87, 22.2066, 2.58149, 16.7266, 12.0274, 95.0458, -82.1423
6.8977, 87, 23.1507, 3.42261, 16.3487, 11.3692, 95.7088, -81.298
6.90337, 88, 23.4601, 3.70694, 16.2244, 11.1575, 95.9348, -81.012
6.91142, 88, 24.0699, 4.28114, 15.9766, 10.7447, 96.3946, -80.4292
6.91934, 89, 24.6669, 4.86386, 15.7305, 10.3447, 96.8637, -79.8326
6.9274, 89, 25.2498, 5.45613, 15.4888, 9.95946, 97.3416, -79.2228
6.93637, 90, 25.8193, 6.05778, 15.2512, 9.59156, 97.8261, -78.6019
6.94439, 90, 26.3797, 6.66983, 15.0189, 9.241, 98.3162, -77.9697
6.95163, 91, 26.9314, 7.29241, 14.794, 8.91159, 98.8103, -77.3282
6.96039, 91, 27.4726, 7.92489, 14.5761, 8.60425, 99.3076, -76.6798
6.96733, 92, 28.0008, 8.56575, 14.3642, 8.32047, 99.8072, -76.0244
6.97546, 92, 28.5175, 9.2136, 14.1582, 8.06115, 100.309, -75.3619
6.98333, 93, 29.0259, 9.86734, 13.9575, 7.82576, 100.811, -74.6945
6.99142, 93, 29.5228, 10.5256, 13.763, 7.61388, 101.311, -74.0223
6.99932, 94, 30.0032, 11.1866, 13.5772, 7.42602, 101.81, -73.3442
7.00736, 94, 30.464, 11.849, 13.3999, 7.26164, 102.307, -72.6606
7.01533, 95, 30.9068, 12.5134, 13.2297, 7.12163, 102.801, -71.9727
7.02336, 95, 31.3358, 13.1798, 13.0665, 7.00586, 103.293, -71.2783
7.03141, 96, 31.752, 13.848, 12.9105, 6.91343, 103.782, -70.5781
7.03936, 96, 32.1549, 14.5168, 12.761, 6.84507, 104.267, -69.8733
7.04736, 97, 32.5423, 15.1855, 12.6181, 6.79988, 104.749, -69.1624
7.05541, 97, 32.9132, 15.8535, 12.4833, 6.77578, 105.224, -68.4457
7.06333, 98, 33.267, 16.5197, 12.3573, 6.77302, 105.692, -67.7266
7.0714, 98, 33.6067, 17.1832, 12.2402, 6.79286, 106.152, -67.0039
7.07958, 99, 33.9342, 17.8424, 12.1325, 6.8328, 106.604, -66.2779
7.08736, 99, 34.2494, 18.4961, 12.0339, 6.89345, 107.046, -65.552
7.09646, 100, 34.5522, 19.1425, 11.9437, 6.97304, 107.477, -64.826
7.10337, 100, 34.843, 19.7807, 11.8617, 7.07059, 107.897, -64.1007
7.1116, 101, 35.1218, 20.4089, 11.7882, 7.18517, 108.303, -63.3808
7.11943, 101, 35.3886, 21.0261, 11.7231, 7.3147, 108.694, -62.6676
7.1274, 101, 35.6438, 21.6316, 11.6665, 7.45779, 109.068, -61.9621
7.1355, 102, 35.8871, 22.2245, 11.6179, 7.6128, 109.425, -61.2683
7.14349, 102, 36.1187, 22.8045, 11.5772, 7.77801, 109.764, -60.5873
7.15148, 103, 36.341, 23.3693, 11.5451, 7.95231, 110.085, -59.9181
7.15957, 103, 36.5555, 23.9178, 11.5215, 8.13544, 110.386, -59.2622
7.16747, 104, 36.762, 24.4506, 11.5065, 8.32755, 110.669, -58.6201
7.17543, 104, 36.9602, 24.9671, 11.4995, 8.5287, 110.931, -57.9897
7.1835, 104, 37.1515, 25.4663, 11.4995, 8.73813, 111.173, -57.372
7.1914, 104, 37.3365, 25.9496, 11.5062, 8.95457, 111.394, -56.7679
7.1994, 104, 37.5129, 26.4161, 11.5178, 9.17606, 111.597, -56.1788
7.20752, 104, 37.6799, 26.8661, 11.5328, 9.40069, 111.782, -55.6056
7.21636, 104, 37.8399, 27.3009, 11.5509, 9.62555, 111.954, -55.0508
7.22364, 104, 37.9949, 27.7197, 11.5712, 9.84823, 112.113, -54.5178
7.23233, 104, 38.1448, 28.1222, 11.5919, 10.0669, 112.264, -54.0074
7.23968, 104, 38.2886, 28.5074, 11.6124, 10.2805, 112.405, -53.5198
7.24773, 104, 38.4258, 28.8763, 11.6317, 10.4878, 112.539, -53.0568
7.25588, 104, 38.5559, 29.227, 11.6499, 10.6879, 112.665, -52.6175
7.26456, 104, 38.6781, 29.5598, 11.6672, 10.88, 112.784, -52.2036
7.27196, 104, 38.7921, 29.8732, 11.6832, 11.0634, 112.895, -51.8144
7.28052, 104, 38.8974, 30.1678, 11.698, 11.2373, 112.998, -51.4501
7.28811, 104, 38.9949, 30.4436, 11.7119, 11.4014, 113.093, -51.1113
7.29608, 104, 39.0848, 30.6993, 11.7246, 11.555, 113.182, -50.7978
7.30399, 104, 39.1269, 30.8199, 11.7304, 11.698, 113.262, -50.5093
7.31207, 104, 39.2049, 31.0466, 11.7412, 11.7652, 113.336, -50.2462
7.32032, 104, 39.3074, 31.3489, 11.756, 11.95, 113.402, -50.0081
7.32743, 104, 39.3377, 31.4398, 11.7605, 12.0057, 113.433, -49.8986
7.33538, 104, 39.3927, 31.6073, 11.7686, 12.1084, 113.489, -49.6981
7.34365, 104, 39.4408, 31.7552, 11.7757, 12.1987, 113.538, -49.5228
7.35137, 104, 39.4828, 31.8843, 11.7822, 12.277, 113.579, -49.3721
7.35935, 104, 39.5191, 31.9961, 11.7882, 12.3434, 113.614, -49.2449
7.3674, 104, 39.5495, 32.0911, 11.7934, 12.3984, 113.643, -49.1408
7.37535, 104, 39.5745, 32.1703, 11.7981, 12.4415, 113.666, -49.0575
7.38487, 104, 39.603, 32.2633, 11.8042, 12.4887, 113.689, -48.968
7.39293, 104, 39.6167, 32.3105, 11.8078, 12.5102, 113.7, -48.9282
7.40097, 104, 39.6274, 32.3472, 11.8111, 12.5254, 113.707, -48.9009
7.40901, 104, 39.6352, 32.3745, 11.8141, 12.5355, 113.711, -48.8832
7.41541, 104, 39.6382, 32.3855, 11.8155, 12.5391, 113.712, -48.8773
7.42335, 104, 39.6427, 32.4033, 11.8179, 12.5438, 113.714, -48.8694
7.43137, 104, 39.6453, 32.4157, 11.8198, 12.5464, 113.715, -48.8656
7.44142, 105, 39.6469, 32.4264, 11.8218, 12.548, 113.716, -48.8635
7.44734, 105, 39.6469, 32.4286, 11.8223, 12.5483, 113.716, -48.8633
7.45635, 105, 39.646, 32.4319, 11.8232, 12.5486, 113.716, -48.8632
7.46342, 105, 39.6448, 32.4342, 11.8241, 12.5488, 113.716, -48.8634
7.47136, 105, 39.6436, 32.436, 11.8248, 12.5489, 113.716, -48.8637
7.4794, 105, 39.6424, 32.4374, 11.8254, 12.5489, 113.716, -48.8641
7.48745, 105, 39.6412, 32.4386, 11.8259, 12.5489, 113.716, -48.8646
7.49542, 105, 39.6402, 32.4397, 11.8265, 12.5489, 113.716, -48.865
7.50335, 105, 39.6396, 32.4408, 11.8271, 12.5489, 113.716, -48.8654
7.51143, 105, 39.6391, 32.4418, 11.8277, 12.549, 113.716, -48.8658
7.51934, 105, 39.6389, 32.4428, 11.8283, 12.549, 113.716, -48.8662
7.52734, 105, 39.6386, 32.4436, 11.8287, 12.549, 113.716, -48.8666
7.53541, 105, 39.6383, 32.4442, 11.829, 12.549, 113.716, -48.8668
7.54331, 105, 39.6381, 32.4446, 11.8293, 12.549, 113.716, -48.8671
7.55146, 105, 39.6378, 32.4449, 11.8297, 12.549, 113.716, -48.8674
7.55941, 105, 39.6375, 32.445, 11.8299, 12.549, 113.716, -48.8676
