hehonglu123/Motion-Primitive-Planning/ILC/recorded_data/realrobot/wood/iteration_7/run_2.csv
timestamp, cmd_num, J1, J2, J3, J4, J5, J6
0.00036, -1, 11.3758, 13.6141, 17.3365, -145.52, -97.9256, 142.516
0.00307, -1, 11.3758, 13.6141, 17.3366, -145.52, -97.9256, 142.516
0.00797, -1, 11.3758, 13.6141, 17.3366, -145.52, -97.9256, 142.516
0.028426, -1, 11.3757, 13.6141, 17.3366, -145.52, -97.9256, 142.516
0.031078, -1, 11.3757, 13.6141, 17.3366, -145.52, -97.9256, 142.516
0.032414, -1, 11.3757, 13.6141, 17.3366, -145.52, -97.9256, 142.516
0.03894, -1, 11.3757, 13.6141, 17.3366, -145.52, -97.9256, 142.516
0.047772, -1, 11.3757, 13.6141, 17.3365, -145.52, -97.9256, 142.516
0.055827, -1, 11.3751, 13.614, 17.3365, -145.52, -97.9256, 142.516
0.063765, -1, 11.3724, 13.6139, 17.3365, -145.52, -97.9256, 142.516
0.07176, -1, 11.3659, 13.6132, 17.3363, -145.521, -97.9256, 142.515
0.079827, -1, 11.3547, 13.6115, 17.3359, -145.521, -97.9257, 142.514
0.087767, -1, 11.3372, 13.608, 17.3351, -145.523, -97.9254, 142.506
0.09576, -1, 11.3103, 13.6021, 17.3343, -145.526, -97.9246, 142.485
0.103896, -1, 11.2718, 13.5929, 17.3337, -145.533, -97.9228, 142.445
0.111761, -1, 11.2216, 13.5806, 17.3339, -145.545, -97.9193, 142.38
0.119819, -1, 11.1599, 13.5652, 17.3355, -145.562, -97.9138, 142.284
0.127908, -1, 11.0865, 13.5462, 17.3395, -145.585, -97.9059, 142.154
0.13578, -1, 11.0013, 13.5232, 17.3459, -145.614, -97.8957, 141.988
0.143897, -1, 10.9043, 13.4969, 17.3545, -145.648, -97.8835, 141.79
0.152236, -1, 10.7966, 13.4672, 17.365, -145.687, -97.8698, 141.564
0.159423, -1, 10.6781, 13.4344, 17.3762, -145.729, -97.855, 141.318
0.167928, -1, 10.549, 13.3987, 17.3874, -145.773, -97.8395, 141.057
0.176247, -1, 10.4109, 13.3608, 17.3981, -145.819, -97.8236, 140.788
0.18351, -1, 10.266, 13.3213, 17.4083, -145.867, -97.8075, 140.513
0.191928, -1, 10.1165, 13.2808, 17.4184, -145.914, -97.7908, 140.236
0.20067, -1, 9.96406, 13.2398, 17.4284, -145.962, -97.7739, 139.958
0.207798, -1, 9.80931, 13.1984, 17.4385, -146.01, -97.7567, 139.679
0.342071, -1, 7.26512, 12.5161, 17.605, -146.801, -97.4762, 135.059
0.345667, -1, 7.18762, 12.4953, 17.6102, -146.825, -97.4675, 134.919
0.346937, -1, 7.18762, 12.4953, 17.6102, -146.825, -97.4675, 134.919
0.34878, -1, 7.11012, 12.4745, 17.6153, -146.849, -97.4588, 134.779
0.350201, -1, 7.11012, 12.4745, 17.6153, -146.849, -97.4588, 134.779
0.351472, -1, 7.11012, 12.4745, 17.6153, -146.849, -97.4588, 134.779
0.353513, -1, 7.03258, 12.4538, 17.6204, -146.873, -97.4502, 134.639
0.355887, -1, 7.03258, 12.4538, 17.6204, -146.873, -97.4502, 134.639
0.358743, -1, 6.955, 12.4331, 17.6256, -146.897, -97.4417, 134.499
0.360065, -1, 6.955, 12.4331, 17.6256, -146.897, -97.4417, 134.499
0.362197, -1, 6.87741, 12.4125, 17.6307, -146.921, -97.4331, 134.359
0.363399, -1, 6.87741, 12.4125, 17.6307, -146.921, -97.4331, 134.359
0.365493, -1, 6.7999, 12.3919, 17.6358, -146.945, -97.4246, 134.219
0.3667, -1, 6.7999, 12.3919, 17.6358, -146.945, -97.4246, 134.219
0.369618, -1, 6.72245, 12.3712, 17.641, -146.969, -97.4162, 134.078
0.373907, -1, 6.64508, 12.3505, 17.6462, -146.993, -97.4079, 133.938
0.375197, -1, 6.64508, 12.3505, 17.6462, -146.993, -97.4079, 133.938
0.377002, -1, 6.56775, 12.3299, 17.6514, -147.018, -97.3995, 133.798
0.378534, -1, 6.56775, 12.3299, 17.6514, -147.018, -97.3995, 133.798
0.379739, -1, 6.56775, 12.3299, 17.6514, -147.018, -97.3995, 133.798
0.382541, -1, 6.49049, 12.3093, 17.6566, -147.042, -97.3912, 133.657
0.383852, -1, 6.49049, 12.3093, 17.6566, -147.042, -97.3912, 133.657
0.393877, -1, 6.259, 12.2473, 17.6722, -147.114, -97.3659, 133.237
0.399808, -1, 6.18188, 12.2265, 17.6773, -147.138, -97.3574, 133.096
0.407754, -1, 6.02756, 12.1851, 17.6875, -147.186, -97.3402, 132.816
0.417881, -1, 5.79569, 12.1228, 17.703, -147.258, -97.3138, 132.395
0.423828, -1, 5.7183, 12.1019, 17.7081, -147.282, -97.305, 132.254
0.431754, -1, 5.56333, 12.0602, 17.7183, -147.33, -97.2878, 131.973
0.439747, -1, 5.40818, 12.0185, 17.7287, -147.378, -97.2708, 131.692
0.447816, -1, 5.25286, 11.9768, 17.7389, -147.427, -97.254, 131.411
0.456808, -1, 5.0972, 11.9351, 17.7493, -147.475, -97.2373, 131.13
0.463753, -1, 4.94145, 11.8935, 17.7598, -147.522, -97.2204, 130.849
0.471875, -1, 4.78574, 11.8519, 17.7702, -147.571, -97.2033, 130.568
0.479753, -1, 4.63, 11.8103, 17.7807, -147.619, -97.1859, 130.287
0.487784, -1, 4.4743, 11.7688, 17.7911, -147.667, -97.1684, 130.006
0.495744, -1, 4.31879, 11.7273, 17.8014, -147.716, -97.151, 129.725
0.503782, -1, 4.16347, 11.6859, 17.8119, -147.764, -97.134, 129.444
0.511811, -1, 4.00861, 11.6444, 17.8223, -147.812, -97.1171, 129.163
0.519743, -1, 3.85415, 11.6029, 17.8326, -147.86, -97.1003, 128.882
0.52775, -1, 3.69983, 11.5613, 17.843, -147.909, -97.0835, 128.601
0.535809, -1, 3.54534, 11.5197, 17.8533, -147.957, -97.0664, 128.319
0.543757, -1, 3.39067, 11.478, 17.8637, -148.006, -97.0491, 128.037
0.551752, -1, 3.23564, 11.4363, 17.8741, -148.054, -97.0315, 127.756
0.55984, -1, 3.08043, 11.3946, 17.8846, -148.102, -97.0139, 127.475
0.567747, -1, 2.92507, 11.3527, 17.895, -148.15, -96.9967, 127.193
0.575753, -1, 2.76953, 11.311, 17.9053, -148.198, -96.9797, 126.911
0.583823, -1, 2.61373, 11.2692, 17.9156, -148.246, -96.963, 126.63
0.591739, -1, 2.45762, 11.2274, 17.9261, -148.295, -96.9462, 126.348
0.599791, -1, 2.3012, 11.1857, 17.9365, -148.343, -96.9293, 126.066
0.60778, -1, 2.14458, 11.144, 17.9469, -148.391, -96.9122, 125.784
0.615744, -1, 1.98781, 11.1022, 17.9573, -148.44, -96.8948, 125.502
0.624025, -1, 1.83132, 11.0606, 17.9677, -148.488, -96.8773, 125.22
0.631749, -1, 1.67495, 11.0189, 17.9781, -148.536, -96.8599, 124.938
0.63978, -1, 1.51873, 10.9771, 17.9886, -148.585, -96.8428, 124.656
0.647839, -1, 1.36283, 10.9355, 17.999, -148.634, -96.8259, 124.374
0.65595, -1, 1.20707, 10.8938, 18.0094, -148.682, -96.809, 124.092
0.793576, -1, -1.44742, 10.1825, 18.1864, -149.507, -96.518, 119.286
0.794766, -1, -1.44742, 10.1825, 18.1864, -149.507, -96.518, 119.286
0.796805, -1, -1.52579, 10.1616, 18.1916, -149.531, -96.5096, 119.144
0.798008, -1, -1.52579, 10.1616, 18.1916, -149.531, -96.5096, 119.144
0.799284, -1, -1.52579, 10.1616, 18.1916, -149.531, -96.5096, 119.144
0.801569, -1, -1.60401, 10.1407, 18.1969, -149.555, -96.5011, 119.003
0.802892, -1, -1.60401, 10.1407, 18.1969, -149.555, -96.5011, 119.003
0.808495, -1, -1.76009, 10.0988, 18.2074, -149.604, -96.4841, 118.72
0.809875, -1, -1.76009, 10.0988, 18.2074, -149.604, -96.4841, 118.72
0.811171, -1, -1.76009, 10.0988, 18.2074, -149.604, -96.4841, 118.72
0.813219, -1, -1.83798, 10.0779, 18.2126, -149.628, -96.4755, 118.578
0.814537, -1, -1.83798, 10.0779, 18.2126, -149.628, -96.4755, 118.578
0.816572, -1, -1.91581, 10.0569, 18.2179, -149.652, -96.4668, 118.436
0.817923, -1, -1.91581, 10.0569, 18.2179, -149.652, -96.4668, 118.436
0.81911, -1, -1.91581, 10.0569, 18.2179, -149.652, -96.4668, 118.436
0.82363, -1, -1.99354, 10.036, 18.2231, -149.677, -96.4579, 118.294
0.825734, -1, -2.07117, 10.0151, 18.2283, -149.701, -96.449, 118.152
0.826928, -1, -2.07117, 10.0151, 18.2283, -149.701, -96.449, 118.152
0.829702, -1, -2.14875, 9.99413, 18.2335, -149.726, -96.4402, 118.01
0.832423, -1, -2.14875, 9.99413, 18.2335, -149.726, -96.4402, 118.01
0.833895, -1, -2.2263, 9.97321, 18.2387, -149.75, -96.4315, 117.869
0.835178, -1, -2.2263, 9.97321, 18.2387, -149.75, -96.4315, 117.869
0.841732, -1, -2.38155, 9.93132, 18.2491, -149.798, -96.4142, 117.585
0.84773, -1, -2.4593, 9.91031, 18.2544, -149.822, -96.4057, 117.443
0.855817, -1, -2.61496, 9.86831, 18.2648, -149.871, -96.3887, 117.159
0.863718, -1, -2.77093, 9.82642, 18.2751, -149.92, -96.372, 116.876
0.87173, -1, -2.92737, 9.78443, 18.2855, -149.968, -96.3551, 116.592
0.879745, -1, -3.0842, 9.74249, 18.2959, -150.017, -96.3381, 116.308
0.887737, -1, -3.24139, 9.70055, 18.3064, -150.066, -96.3207, 116.024
0.895793, -1, -3.39901, 9.65852, 18.3169, -150.114, -96.3031, 115.741
0.903742, -1, -3.55679, 9.61652, 18.3273, -150.163, -96.2856, 115.457
0.911748, -1, -3.7146, 9.57467, 18.3377, -150.212, -96.2682, 115.172
0.919793, -1, -3.87259, 9.53269, 18.3481, -150.26, -96.2512, 114.888
0.927739, -1, -4.03056, 9.49069, 18.3585, -150.309, -96.2341, 114.604
0.935728, -1, -4.18835, 9.44878, 18.3689, -150.358, -96.2172, 114.32
0.945318, -1, -4.34609, 9.40679, 18.3792, -150.407, -96.2001, 114.035
0.951754, -1, -4.50357, 9.36479, 18.3896, -150.456, -96.1827, 113.75
0.960736, -1, -4.66056, 9.32279, 18.3999, -150.505, -96.165, 113.466
0.967793, -1, -4.81713, 9.28074, 18.4104, -150.553, -96.1473, 113.181
0.975729, -1, -4.97339, 9.23864, 18.4209, -150.602, -96.1298, 112.896
0.983728, -1, -5.12937, 9.19659, 18.4314, -150.651, -96.1125, 112.611
0.991851, -1, -5.28524, 9.15449, 18.442, -150.699, -96.0955, 112.327
0.99974, -1, -5.44128, 9.11232, 18.4525, -150.749, -96.0786, 112.042
1.00786, -1, -5.59747, 9.07023, 18.4629, -150.798, -96.0617, 111.757
1.01573, -1, -5.75399, 9.0281, 18.4734, -150.846, -96.0445, 111.472
1.02404, -1, -5.91097, 8.98589, 18.4838, -150.895, -96.0271, 111.188
1.03177, -1, -6.06839, 8.94373, 18.4941, -150.944, -96.0094, 110.903
1.03973, -1, -6.22635, 8.9016, 18.5045, -150.993, -95.9919, 110.617
1.0485, -1, -6.38463, 8.85946, 18.5149, -151.042, -95.9747, 110.332
1.05572, -1, -6.54301, 8.81741, 18.5252, -151.091, -95.9576, 110.047
1.06373, -1, -6.70151, 8.77525, 18.5358, -151.14, -95.9406, 109.761
1.07255, -1, -6.8602, 8.7331, 18.5463, -151.189, -95.9236, 109.476
1.07973, -1, -7.01874, 8.691, 18.5568, -151.238, -95.9064, 109.19
1.08774, -1, -7.17725, 8.64885, 18.5673, -151.287, -95.8889, 108.905
1.09661, -1, -7.33559, 8.60667, 18.5776, -151.336, -95.8712, 108.619
1.10372, -1, -7.49362, 8.56441, 18.5881, -151.385, -95.8535, 108.333
1.11175, -1, -7.65129, 8.52209, 18.5986, -151.434, -95.836, 108.048
1.1205, -1, -7.80857, 8.47983, 18.609, -151.483, -95.8188, 107.762
1.12778, -1, -7.96552, 8.43754, 18.6194, -151.532, -95.8017, 107.476
1.13594, -1, -8.12222, 8.39519, 18.6298, -151.581, -95.7849, 107.19
1.14512, -1, -8.27873, 8.35286, 18.6402, -151.63, -95.7679, 106.904
1.15126, -1, -8.43542, 8.31051, 18.6508, -151.679, -95.7506, 106.618
1.16012, -1, -8.59241, 8.26814, 18.6613, -151.728, -95.7331, 106.332
1.16744, -1, -8.74979, 8.22587, 18.6718, -151.777, -95.7154, 106.046
1.17583, -1, -8.90747, 8.18352, 18.6821, -151.826, -95.6978, 105.759
1.18448, -1, -9.0656, 8.14116, 18.6926, -151.875, -95.6805, 105.473
1.19184, -1, -9.22412, 8.09894, 18.703, -151.925, -95.6633, 105.187
1.19974, -1, -9.38303, 8.05661, 18.7134, -151.973, -95.6462, 104.9
1.20847, -1, -9.5421, 8.01427, 18.7239, -152.023, -95.6291, 104.613
1.21588, -1, -9.70122, 7.97206, 18.7344, -152.072, -95.6118, 104.326
1.22378, -1, -9.86047, 7.92982, 18.7449, -152.121, -95.5943, 104.039
1.23274, -1, -10.0199, 7.88744, 18.7556, -152.171, -95.5764, 103.752
1.23991, -1, -10.1791, 7.84502, 18.7662, -152.22, -95.5586, 103.466
1.24796, -1, -10.3382, 7.80253, 18.7767, -152.269, -95.541, 103.179
1.25688, -1, -10.4971, 7.76001, 18.7873, -152.319, -95.5238, 102.892
1.26425, -1, -10.6556, 7.71756, 18.7977, -152.368, -95.5068, 102.605
1.27073, -1, -10.7347, 7.69631, 18.803, -152.393, -95.4983, 102.461
1.28109, -1, -10.9716, 7.63243, 18.8187, -152.466, -95.4727, 102.031
1.28679, -1, -11.0505, 7.61117, 18.8239, -152.491, -95.464, 101.887
1.29636, -1, -11.2866, 7.54747, 18.8396, -152.565, -95.4375, 101.456
1.30508, -1, -11.4441, 7.50498, 18.8501, -152.614, -95.4197, 101.169
1.31331, -1, -11.5229, 7.48371, 18.8607, -152.664, -95.4021, 100.881
1.32028, -1, -11.6806, 7.44125, 18.866, -152.712, -95.3848, 100.593
1.32925, -1, -11.8387, 7.39883, 18.8765, -152.737, -95.3761, 100.449
1.33479, -1, -11.9972, 7.35642, 18.8871, -152.787, -95.3589, 100.162
1.34377, -1, -12.1561, 7.31403, 18.8977, -152.836, -95.3417, 99.874
1.35173, -1, -12.3155, 7.27161, 18.9081, -152.886, -95.3243, 99.5861
1.35884, -1, -12.4752, 7.22917, 18.9187, -152.935, -95.3068, 99.2979
1.36777, -1, -12.6351, 7.18673, 18.9292, -152.984, -95.2888, 99.01
1.37572, -1, -12.7951, 7.14429, 18.9398, -153.034, -95.2709, 98.7222
1.38372, -1, -12.9552, 7.10178, 18.9503, -153.084, -95.2532, 98.434
1.39178, -1, -13.1152, 7.05917, 18.9608, -153.133, -95.2357, 98.1457
1.39972, -1, -13.2751, 7.01656, 18.9714, -153.183, -95.2185, 97.8577
1.40773, -1, -13.4348, 6.97389, 18.982, -153.232, -95.2014, 97.5694
1.41571, -1, -13.5941, 6.93112, 18.9926, -153.281, -95.1842, 97.2808
1.42371, -1, -13.7532, 6.8884, 19.0032, -153.331, -95.1668, 96.9921
1.43072, -1, -13.9121, 6.84573, 19.0137, -153.38, -95.1491, 96.7037
1.43972, -1, -14.0705, 6.80303, 19.0241, -153.429, -95.1312, 96.4151
1.44771, -1, -14.2286, 6.76043, 19.0347, -153.479, -95.1136, 96.1262
1.45674, -1, -14.3868, 6.71777, 19.0452, -153.529, -95.0961, 95.8371
1.46376, -1, -14.5451, 6.67508, 19.0557, -153.578, -95.0788, 95.5482
1.47272, -1, -14.7037, 6.63254, 19.0663, -153.628, -95.0617, 95.2591
1.47978, -1, -14.8627, 6.59002, 19.0769, -153.677, -95.0445, 94.9696
1.48771, -1, -15.0221, 6.54733, 19.0876, -153.726, -95.0271, 94.6805
1.49576, -1, -15.1818, 6.50475, 19.0983, -153.776, -95.0093, 94.3915
1.5038, -1, -15.3419, 6.46219, 19.109, -153.826, -94.9913, 94.1022
1.51173, -1, -15.5023, 6.41951, 19.1196, -153.875, -94.9734, 93.8127
1.51974, -1, -15.6631, 6.37682, 19.1302, -153.925, -94.9557, 93.5236
1.52775, -1, -15.8238, 6.33407, 19.1408, -153.975, -94.9383, 93.2343
1.53571, -1, -15.9846, 6.29118, 19.1515, -154.025, -94.9211, 92.9448
1.54374, -1, -16.1455, 6.24832, 19.162, -154.075, -94.904, 92.6549
1.55177, -1, -16.3062, 6.20545, 19.1726, -154.124, -94.8867, 92.3655
1.55974, -1, -16.4667, 6.16247, 19.1831, -154.173, -94.8692, 92.0759
1.56778, -1, -16.627, 6.11952, 19.1936, -154.223, -94.8514, 91.7858
1.57575, -1, -16.7869, 6.07657, 19.2043, -154.273, -94.8335, 91.4957
1.58377, -1, -16.9463, 6.03358, 19.2149, -154.323, -94.8158, 91.2057
1.59179, -1, -17.1057, 5.99062, 19.2255, -154.373, -94.7983, 90.9154
1.59971, -1, -17.2648, 5.9477, 19.236, -154.422, -94.7809, 90.6249
1.60771, -1, -17.4239, 5.90489, 19.2467, -154.472, -94.7637, 90.3346
1.61578, -1, -17.5831, 5.8621, 19.2574, -154.522, -94.7463, 90.0446
1.62371, -1, -17.7425, 5.81929, 19.2681, -154.571, -94.7287, 89.7542
1.63177, -1, -17.9021, 5.77652, 19.2787, -154.622, -94.7108, 89.4641
1.63981, -1, -18.0622, 5.73373, 19.2893, -154.671, -94.6926, 89.1734
1.64776, -1, -18.2227, 5.69095, 19.2999, -154.721, -94.6747, 88.883
1.65587, -1, -18.3836, 5.6482, 19.3107, -154.771, -94.657, 88.5923
1.66385, -1, -18.5449, 5.60527, 19.3214, -154.821, -94.6397, 88.3012
1.67181, -1, -18.7065, 5.56231, 19.3321, -154.871, -94.6225, 88.0103
1.67988, -1, -18.8681, 5.51935, 19.3427, -154.921, -94.6052, 87.7194
1.68783, -1, -19.0298, 5.4763, 19.3532, -154.971, -94.5877, 87.4283
1.69578, -1, -19.1914, 5.43313, 19.3639, -155.02, -94.5699, 87.1369
1.70379, -1, -19.3528, 5.38997, 19.3745, -155.071, -94.5518, 86.8455
1.71174, -1, -19.5142, 5.34681, 19.3851, -155.12, -94.5338, 86.5539
1.71975, -1, -19.6751, 5.30355, 19.3957, -155.17, -94.516, 86.2622
1.72784, -1, -19.8358, 5.2604, 19.4063, -155.221, -94.4984, 85.9704
1.73585, -1, -19.9962, 5.21721, 19.4171, -155.27, -94.481, 85.6789
1.744, -1, -20.1563, 5.17405, 19.4279, -155.32, -94.4636, 85.3873
1.75284, -1, -20.316, 5.13109, 19.4387, -155.371, -94.446, 85.0954
1.76005, -1, -20.476, 5.0881, 19.4496, -155.42, -94.4283, 84.8036
1.76675, -1, -20.556, 5.06652, 19.4549, -155.445, -94.4192, 84.6578
1.77697, -1, -20.7964, 5.00209, 19.471, -155.521, -94.3921, 84.2199
1.78422, -1, -20.9571, 4.95914, 19.4817, -155.571, -94.3744, 83.9277
1.7923, -1, -21.1181, 4.91607, 19.4923, -155.621, -94.3569, 83.6356
1.80116, -1, -21.2796, 4.873, 19.503, -155.672, -94.3396, 83.3437
1.80677, -1, -21.3605, 4.85142, 19.5083, -155.697, -94.331, 83.1977
1.81636, -1, -21.5226, 4.78653, 19.5244, -155.772, -94.305, 82.7587
1.82509, -1, -21.6848, 4.76495, 19.5298, -155.797, -94.2962, 82.6124
1.83085, -1, -21.8471, 4.72171, 19.5405, -155.847, -94.2784, 82.3199
1.83975, -1, -22.0096, 4.6783, 19.5513, -155.897, -94.2604, 82.0273
1.84772, -1, -22.1721, 4.63498, 19.562, -155.948, -94.2425, 81.7345
1.85478, -1, -22.3346, 4.59163, 19.5726, -155.998, -94.2247, 81.4417
1.86376, -1, -22.4968, 4.54823, 19.5834, -156.048, -94.2072, 81.1492
1.87171, -1, -22.6587, 4.50486, 19.5941, -156.098, -94.1898, 80.8564
1.87872, -1, -22.8202, 4.46143, 19.6047, -156.148, -94.1723, 80.5634
1.8877, -1, -22.9814, 4.41808, 19.6155, -156.199, -94.1546, 80.2705
1.89575, -1, -23.1426, 4.37482, 19.6261, -156.249, -94.1365, 79.9776
1.90271, -1, -23.3035, 4.33148, 19.6369, -156.299, -94.1183, 79.6842
1.9117, -1, -23.4644, 4.28825, 19.6478, -156.35, -94.1001, 79.3906
1.91971, -1, -23.6253, 4.24499, 19.6586, -156.4, -94.0822, 79.0974
1.92671, -1, -23.7864, 4.20174, 19.6693, -156.45, -94.0646, 78.8041
1.9357, -1, -23.9477, 4.15847, 19.6801, -156.501, -94.0471, 78.5103
1.94372, -1, -24.1093, 4.11509, 19.6907, -156.551, -94.0297, 78.2165
1.95271, -1, -24.2715, 4.0717, 19.7015, -156.602, -94.0121, 77.9226
1.9597, -1, -24.4342, 4.0283, 19.7122, -156.652, -93.9943, 77.6285
1.96879, -1, -24.5971, 3.98479, 19.7228, -156.702, -93.9762, 77.3343
1.97471, -1, -24.7603, 3.94123, 19.7335, -156.753, -93.958, 77.04
1.98371, -1, -24.9236, 3.89768, 19.7442, -156.804, -93.9403, 76.7462
1.99188, -1, -25.0871, 3.85413, 19.7551, -156.854, -93.9226, 76.452
1.99975, -1, -25.2504, 3.81055, 19.766, -156.904, -93.9051, 76.1577
2.0077, -1, -25.4135, 3.76694, 19.7769, -156.955, -93.8876, 75.8633
2.01649, -1, -25.5764, 3.72326, 19.7876, -157.005, -93.87, 75.5691
2.02372, -1, -25.7391, 3.67965, 19.7983, -157.055, -93.852, 75.2745
2.0317, -1, -25.9015, 3.6362, 19.8091, -157.106, -93.8337, 74.9796
2.04048, -1, -26.0638, 3.59263, 19.8199, -157.156, -93.8153, 74.6851
2.04769, -1, -26.2256, 3.54917, 19.8307, -157.207, -93.7972, 74.3906
2.0557, -1, -26.387, 3.50578, 19.8415, -157.258, -93.7794, 74.0958
2.06451, -1, -26.5487, 3.4623, 19.8522, -157.308, -93.7617, 73.8005
2.0717, -1, -26.7107, 3.4188, 19.863, -157.359, -93.7441, 73.5054
2.07969, -1, -26.8729, 3.37532, 19.8739, -157.41, -93.7265, 73.2102
2.09136, -1, -27.1168, 3.30991, 19.8902, -157.486, -93.6994, 72.7671
2.09576, -1, -27.1983, 3.28814, 19.8956, -157.511, -93.6903, 72.6194
2.10371, -1, -27.3615, 3.24455, 19.9062, -157.561, -93.672, 72.3242
2.1117, -1, -27.5251, 3.20075, 19.917, -157.612, -93.6539, 72.0289
2.11976, -1, -27.689, 3.15702, 19.9279, -157.663, -93.636, 71.7333
2.1277, -1, -27.8531, 3.11338, 19.9385, -157.713, -93.6183, 71.4377
2.13575, -1, -28.0173, 3.06968, 19.9493, -157.764, -93.6006, 71.1422
2.14377, -1, -28.1816, 3.02596, 19.9601, -157.815, -93.5828, 70.8463
2.15174, -1, -28.3458, 2.98225, 19.9709, -157.865, -93.5648, 70.5502
2.15979, -1, -28.5099, 2.9385, 19.9819, -157.916, -93.5465, 70.2544
2.16791, -1, -28.6738, 2.89486, 19.9927, -157.967, -93.528, 69.9585
2.17579, -1, -28.8372, 2.85115, 20.0035, -158.018, -93.5097, 69.6623
2.18385, -1, -29.0002, 2.80741, 20.0142, -158.069, -93.4918, 69.3656
2.19187, -1, -29.163, 2.76377, 20.025, -158.12, -93.4741, 69.0691
2.19977, -1, -29.3257, 2.72009, 20.0358, -158.17, -93.4564, 68.7725
2.2077, -1, -29.4884, 2.6764, 20.0466, -158.221, -93.4387, 68.4756
2.2158, -1, -29.6511, 2.63259, 20.0574, -158.272, -93.4207, 68.1785
2.22378, -1, -29.8141, 2.58873, 20.0683, -158.323, -93.4025, 67.8819
2.23191, -1, -29.9772, 2.54494, 20.0792, -158.375, -93.384, 67.5853
2.23997, -1, -30.1404, 2.50101, 20.0901, -158.425, -93.3657, 67.2882
2.2467, -1, -30.2223, 2.47897, 20.0956, -158.45, -93.3567, 67.1395
2.25596, -1, -30.4686, 2.41301, 20.112, -158.527, -93.33, 66.6941
2.26421, -1, -30.6333, 2.36894, 20.1228, -158.578, -93.3123, 66.3969
2.27213, -1, -30.7984, 2.32492, 20.1336, -158.629, -93.2944, 66.0994
2.28028, -1, -30.9635, 2.28092, 20.1446, -158.68, -93.2764, 65.8021
2.2883, -1, -31.1286, 2.23682, 20.1554, -158.731, -93.258, 65.5049
2.29622, -1, -31.2936, 2.19286, 20.1663, -158.782, -93.2394, 65.2075
2.30428, -1, -31.4586, 2.14896, 20.1771, -158.833, -93.2211, 64.9097
2.31233, -1, -31.6232, 2.10493, 20.1879, -158.884, -93.2032, 64.6119
2.32022, -1, -31.7055, 2.08292, 20.1933, -158.91, -93.1854, 64.314
2.32769, -1, -31.87, 2.03896, 20.2043, -158.961, -93.1766, 64.165
2.33645, -1, -32.034, 1.99501, 20.2153, -159.037, -93.1502, 63.7177
2.34369, -1, -32.1978, 1.95098, 20.2263, -159.063, -93.1413, 63.5689
2.35169, -1, -32.3613, 1.90697, 20.2371, -159.115, -93.1232, 63.271
2.35974, -1, -32.5248, 1.86289, 20.2481, -159.166, -93.1048, 62.973
2.36768, -1, -32.6885, 1.81873, 20.259, -159.217, -93.0865, 62.6745
2.37474, -1, -32.8525, 1.77466, 20.2699, -159.268, -93.0684, 62.3763
2.38373, -1, -33.0166, 1.73042, 20.2808, -159.319, -93.0504, 62.0779
2.39174, -1, -33.1811, 1.68614, 20.2917, -159.371, -93.0326, 61.7793
2.39876, -1, -33.3459, 1.64195, 20.3026, -159.422, -93.0148, 61.4805
2.40769, -1, -33.5112, 1.59767, 20.3136, -159.473, -92.9969, 61.182
2.41569, -1, -33.6769, 1.55338, 20.3245, -159.525, -92.9786, 60.8834
2.42269, -1, -33.8426, 1.50919, 20.3354, -159.575, -92.96, 60.5842
2.43168, -1, -34.0085, 1.46496, 20.3463, -159.627, -92.9413, 60.2851
2.43969, -1, -34.1745, 1.42079, 20.3572, -159.678, -92.923, 59.9862
2.44774, -1, -34.3406, 1.3766, 20.3682, -159.73, -92.9049, 59.6867
2.45726, -1, -34.5066, 1.33238, 20.379, -159.781, -92.8871, 59.387
2.46369, -1, -34.6724, 1.28819, 20.39, -159.833, -92.8693, 59.0876
2.4727, -1, -34.8377, 1.24402, 20.4009, -159.884, -92.8514, 58.7884
2.47968, -1, -35.0027, 1.19979, 20.4119, -159.935, -92.8332, 58.4889
2.48768, -1, -35.1674, 1.15554, 20.423, -159.987, -92.8147, 58.189
2.49576, -1, -35.3318, 1.11122, 20.434, -160.038, -92.7962, 57.8893
2.50373, -1, -35.4958, 1.06705, 20.4452, -160.09, -92.7778, 57.5896
2.51168, -1, -35.6581, 1.02321, 20.4564, -160.141, -92.7597, 57.2898
2.51975, -1, -35.8176, 0.979954, 20.4679, -160.192, -92.7419, 56.9913
2.52769, -1, -35.9732, 0.937867, 20.4798, -160.242, -92.7241, 56.6961
2.53569, -1, -36.1236, 0.897398, 20.4917, -160.292, -92.7066, 56.4068
2.54375, -1, -36.2664, 0.859144, 20.5036, -160.339, -92.6895, 56.1278
2.55168, -1, -36.3995, 0.823828, 20.5152, -160.384, -92.6731, 55.8652
2.55973, -1, -36.5215, 0.791574, 20.5258, -160.425, -92.6578, 55.6253
2.56775, -1, -36.6306, 0.762742, 20.5351, -160.46, -92.6446, 55.4135
2.57569, -1, -36.7254, 0.73771, 20.5424, -160.49, -92.6336, 55.2351
2.58368, -1, -36.8054, 0.716488, 20.5475, -160.515, -92.6248, 55.0916
2.59174, -1, -36.8717, 0.699017, 20.5504, -160.534, -92.6183, 54.983
2.59969, -1, -36.925, 0.685001, 20.5517, -160.547, -92.6138, 54.9062
2.60768, -1, -36.9655, 0.674164, 20.5521, -160.556, -92.611, 54.8545
2.61588, -1, -36.995, 0.66637, 20.5518, -160.562, -92.6093, 54.823
2.62368, -1, -37.0154, 0.661269, 20.5514, -160.565, -92.6084, 54.8051
2.63168, -1, -37.0278, 0.658271, 20.551, -160.567, -92.608, 54.7959
2.63978, 2, -37.0344, 0.656674, 20.5508, -160.568, -92.6077, 54.7916
2.64771, 2, -37.0367, 0.655964, 20.5508, -160.568, -92.6075, 54.7896
2.65575, 2, -37.0365, 0.655668, 20.5507, -160.568, -92.6075, 54.7888
2.66383, 2, -37.0359, 0.655576, 20.5507, -160.568, -92.6074, 54.7883
2.67182, 2, -37.0357, 0.655569, 20.5507, -160.568, -92.6075, 54.7882
2.67977, 2, -37.0361, 0.655502, 20.5506, -160.568, -92.6075, 54.7881
2.68784, 2, -37.0371, 0.655452, 20.5506, -160.568, -92.6075, 54.7881
2.69579, 2, -37.0382, 0.655336, 20.5504, -160.568, -92.6075, 54.7881
2.70368, 2, -37.0396, 0.655154, 20.5502, -160.568, -92.6076, 54.7881
2.71175, 2, -37.0409, 0.654901, 20.55, -160.568, -92.6076, 54.7882
2.71971, 2, -37.0421, 0.654667, 20.5499, -160.568, -92.6077, 54.7883
2.72777, 2, -37.0431, 0.654444, 20.5497, -160.568, -92.6077, 54.7884
2.73588, 2, -37.0436, 0.654328, 20.5494, -160.568, -92.6077, 54.7885
2.74382, 2, -37.0436, 0.654288, 20.5492, -160.568, -92.6078, 54.7886
2.75075, 2, -37.0435, 0.654288, 20.5492, -160.568, -92.6078, 54.7887
2.76006, 2, -37.0423, 0.654345, 20.5491, -160.568, -92.6079, 54.7891
2.76669, 2, -37.0419, 0.654388, 20.549, -160.568, -92.6079, 54.7892
2.77644, 2, -37.0398, 0.654515, 20.549, -160.568, -92.6079, 54.7894
2.78427, 2, -37.0383, 0.654606, 20.5489, -160.568, -92.608, 54.7896
2.79217, 2, -37.0374, 0.65466, 20.5488, -160.568, -92.608, 54.7897
2.80053, 2, -37.0367, 0.654662, 20.5487, -160.568, -92.608, 54.7898
2.80834, 2, -37.0365, 0.654666, 20.5487, -160.568, -92.6081, 54.7898
2.81624, 2, -37.0365, 0.654628, 20.5487, -160.568, -92.6081, 54.7898
2.82455, 2, -37.0368, 0.654553, 20.5487, -160.568, -92.6081, 54.7899
2.83227, 2, -37.0369, 0.654511, 20.5487, -160.568, -92.6081, 54.7899
2.83973, 2, -37.0372, 0.654464, 20.5486, -160.568, -92.6081, 54.79
2.84853, 2, -37.0378, 0.654423, 20.5486, -160.568, -92.6081, 54.79
2.85573, 2, -37.0385, 0.654405, 20.5486, -160.568, -92.6081, 54.79
2.86367, 2, -37.0392, 0.654397, 20.5486, -160.568, -92.6081, 54.79
2.87167, 2, -37.0396, 0.654411, 20.5486, -160.568, -92.6081, 54.7901
2.87972, 2, -37.0399, 0.654418, 20.5486, -160.568, -92.6081, 54.7901
2.88767, 2, -37.04, 0.654464, 20.5486, -160.568, -92.6081, 54.7902
2.89568, 2, -37.04, 0.654485, 20.5486, -160.568, -92.6081, 54.7903
2.90377, 2, -37.0398, 0.654494, 20.5486, -160.568, -92.6081, 54.7904
2.91167, 2, -37.0394, 0.654499, 20.5486, -160.568, -92.6082, 54.7904
2.91967, 2, -37.0391, 0.654501, 20.5486, -160.568, -92.6081, 54.7905
2.92772, 2, -37.0389, 0.654502, 20.5486, -160.568, -92.6081, 54.7905
2.93568, 2, -37.0388, 0.654464, 20.5486, -160.568, -92.6081, 54.7905
2.94367, 2, -37.0388, 0.654462, 20.5486, -160.568, -92.6082, 54.7905
2.95173, 2, -37.0387, 0.654423, 20.5485, -160.568, -92.6082, 54.7906
2.96124, 2, -37.0388, 0.654416, 20.5485, -160.568, -92.6082, 54.7907
2.96767, 2, -37.0388, 0.654409, 20.5485, -160.568, -92.6083, 54.7907
2.97578, 2, -37.0389, 0.654417, 20.5485, -160.568, -92.6083, 54.7907
2.98479, 2, -37.039, 0.654438, 20.5485, -160.568, -92.6083, 54.7908
2.99166, 2, -37.0392, 0.654473, 20.5485, -160.568, -92.6083, 54.7909
2.99974, 2, -37.0393, 0.654489, 20.5485, -160.568, -92.6083, 54.791
3.00771, 2, -37.0394, 0.654496, 20.5485, -160.568, -92.6083, 54.791
3.01567, 2, -37.0394, 0.6545, 20.5484, -160.568, -92.6083, 54.791
3.02373, 2, -37.0394, 0.654501, 20.5484, -160.568, -92.6083, 54.7911
3.03176, 2, -37.0394, 0.654502, 20.5484, -160.568, -92.6083, 54.7911
3.03967, 2, -37.0394, 0.654495, 20.5484, -160.568, -92.6083, 54.7912
3.04773, 2, -37.0394, 0.654482, 20.5484, -160.568, -92.6083, 54.7913
3.05568, 2, -37.0393, 0.654463, 20.5484, -160.568, -92.6083, 54.7913
3.06366, 2, -37.0393, 0.654452, 20.5484, -160.568, -92.6084, 54.7914
3.07173, 2, -37.0393, 0.654426, 20.5484, -160.568, -92.6084, 54.7914
3.07966, 2, -37.0393, 0.654435, 20.5484, -160.568, -92.6084, 54.7915
3.08767, 2, -37.0393, 0.654447, 20.5484, -160.568, -92.6084, 54.7916
3.09574, 2, -37.0393, 0.654472, 20.5484, -160.568, -92.6084, 54.7916
3.10366, 2, -37.0393, 0.654489, 20.5484, -160.568, -92.6084, 54.7917
3.11166, 2, -37.0393, 0.654496, 20.5484, -160.568, -92.6083, 54.7917
3.11973, 2, -37.0393, 0.6545, 20.5484, -160.568, -92.6083, 54.7917
3.12767, 2, -37.0393, 0.654494, 20.5483, -160.568, -92.6083, 54.7917
3.13568, 2, -37.0393, 0.654486, 20.5483, -160.568, -92.6083, 54.7918
3.14378, 2, -37.0393, 0.654483, 20.5483, -160.568, -92.6083, 54.7918
3.1517, 2, -37.0393, 0.654469, 20.5483, -160.568, -92.6083, 54.7918
3.15973, 2, -37.0393, 0.65447, 20.5483, -160.568, -92.6083, 54.7918
3.16782, 2, -37.0393, 0.654468, 20.5483, -160.568, -92.6084, 54.7919
3.17581, 2, -37.0393, 0.654469, 20.5483, -160.568, -92.6084, 54.7919
3.18376, 2, -37.0392, 0.654468, 20.5483, -160.568, -92.6083, 54.792
3.19183, 2, -37.0392, 0.654462, 20.5483, -160.568, -92.6083, 54.7921
3.19984, 2, -37.0392, 0.654459, 20.5483, -160.568, -92.6084, 54.7921
3.20767, 2, -37.0392, 0.654471, 20.5483, -160.568, -92.6084, 54.7922
3.21576, 2, -37.0392, 0.654483, 20.5483, -160.568, -92.6084, 54.7922
3.2237, 2, -37.0392, 0.654494, 20.5483, -160.568, -92.6084, 54.7922
3.2317, 2, -37.0392, 0.654491, 20.5482, -160.568, -92.6084, 54.7922
3.23989, 2, -37.0392, 0.65448, 20.5482, -160.568, -92.6084, 54.7923
3.24796, 2, -37.0392, 0.654473, 20.5482, -160.568, -92.6084, 54.7924
3.25472, 2, -37.0392, 0.654468, 20.5482, -160.568, -92.6084, 54.7923
3.2641, 2, -37.0392, 0.654469, 20.5482, -160.568, -92.6084, 54.7924
3.27203, 2, -37.0392, 0.654463, 20.5482, -160.568, -92.6085, 54.7924
3.27872, 2, -37.0391, 0.654468, 20.5481, -160.568, -92.6084, 54.7924
3.28827, 2, -37.0391, 0.654464, 20.5481, -160.568, -92.6085, 54.7924
3.2963, 2, -37.0391, 0.654473, 20.5481, -160.568, -92.6084, 54.7925
3.3042, 2, -37.0391, 0.654472, 20.5481, -160.568, -92.6084, 54.7925
3.31238, 2, -37.039, 0.654476, 20.5481, -160.568, -92.6085, 54.7925
3.32022, 2, -37.039, 0.654485, 20.5481, -160.568, -92.6084, 54.7925
3.32818, 2, -37.039, 0.654494, 20.5481, -160.568, -92.6084, 54.7925
3.33636, 2, -37.039, 0.65451, 20.5481, -160.568, -92.6084, 54.7926
3.3437, 2, -37.039, 0.654513, 20.5481, -160.568, -92.6084, 54.7926
3.35165, 2, -37.039, 0.654495, 20.5481, -160.568, -92.6084, 54.7926
3.3597, 2, -37.039, 0.65448, 20.5481, -160.568, -92.6085, 54.7927
3.36766, 2, -37.039, 0.65448, 20.5481, -160.568, -92.6085, 54.7927
3.37567, 2, -37.039, 0.65448, 20.5481, -160.568, -92.6085, 54.7928
3.38371, 2, -37.0389, 0.65448, 20.5481, -160.568, -92.6085, 54.7927
3.39165, 2, -37.0389, 0.654475, 20.548, -160.568, -92.6085, 54.7927
3.39966, 2, -37.0389, 0.654478, 20.548, -160.568, -92.6085, 54.7928
3.40781, 2, -37.0389, 0.654491, 20.548, -160.568, -92.6085, 54.7928
3.41566, 2, -37.0389, 0.654497, 20.548, -160.567, -92.6085, 54.7928
3.42365, 2, -37.0389, 0.6545, 20.548, -160.568, -92.6085, 54.7928
3.4317, 2, -37.0389, 0.654501, 20.548, -160.568, -92.6085, 54.7929
3.43966, 2, -37.0389, 0.654502, 20.548, -160.567, -92.6085, 54.7929
3.44765, 2, -37.0388, 0.654513, 20.548, -160.567, -92.6085, 54.7929
3.45573, 2, -37.0388, 0.654515, 20.548, -160.567, -92.6085, 54.7929
3.46538, 2, -37.0388, 0.654489, 20.548, -160.567, -92.6086, 54.7929
3.47165, 2, -37.0388, 0.654491, 20.548, -160.567, -92.6086, 54.7929
3.48067, 2, -37.0388, 0.654485, 20.548, -160.567, -92.6087, 54.793
3.48765, 2, -37.0388, 0.654475, 20.548, -160.567, -92.6086, 54.7929
3.49566, 2, -37.0387, 0.654485, 20.5479, -160.567, -92.6086, 54.7929
3.50374, 2, -37.0387, 0.654494, 20.5479, -160.567, -92.6086, 54.7929
3.5117, 2, -37.0387, 0.654491, 20.5479, -160.567, -92.6086, 54.793
3.51965, 2, -37.0387, 0.654492, 20.5479, -160.567, -92.6086, 54.793
3.52772, 2, -37.0388, 0.654509, 20.5479, -160.567, -92.6086, 54.7931
3.5357, 2, -37.0387, 0.654513, 20.5479, -160.567, -92.6086, 54.7931
3.54365, 2, -37.0387, 0.654507, 20.5479, -160.567, -92.6086, 54.7931
3.55172, 2, -37.0387, 0.654523, 20.5479, -160.567, -92.6086, 54.7931
3.55967, 2, -37.0387, 0.654523, 20.5479, -160.567, -92.6085, 54.7931
3.56765, 2, -37.0386, 0.654519, 20.5479, -160.567, -92.6086, 54.7931
3.57573, 2, -37.0387, 0.65451, 20.5479, -160.567, -92.6086, 54.7931
3.58365, 2, -37.0387, 0.654506, 20.5479, -160.567, -92.6086, 54.793
3.59165, 2, -37.0386, 0.654504, 20.5479, -160.567, -92.6086, 54.793
3.59975, 2, -37.0386, 0.654491, 20.5479, -160.567, -92.6087, 54.7931
3.60766, 2, -37.0386, 0.654497, 20.5478, -160.567, -92.6086, 54.7931
3.61566, 2, -37.0386, 0.654488, 20.5478, -160.567, -92.6086, 54.7932
3.62373, 2, -37.0386, 0.654489, 20.5478, -160.567, -92.6086, 54.7932
3.63165, 2, -37.0386, 0.654491, 20.5478, -160.567, -92.6086, 54.7932
3.63984, 2, -37.0386, 0.654497, 20.5478, -160.567, -92.6086, 54.7932
3.64779, 2, -37.0386, 0.6545, 20.5478, -160.567, -92.6086, 54.7932
3.6557, 2, -37.0386, 0.654531, 20.5478, -160.567, -92.6086, 54.7932
3.66374, 2, -37.0386, 0.654534, 20.5478, -160.567, -92.6087, 54.7931
3.67181, 2, -37.0386, 0.654524, 20.5478, -160.567, -92.6087, 54.7931
3.67981, 2, -37.0386, 0.654513, 20.5478, -160.567, -92.6087, 54.7932
3.68776, 2, -37.0385, 0.654507, 20.5478, -160.567, -92.6087, 54.7932
3.69583, 2, -37.0385, 0.654492, 20.5478, -160.567, -92.6086, 54.7932
3.70397, 2, -37.0385, 0.654498, 20.5478, -160.567, -92.6086, 54.7932
3.7113, 4, -37.0385, 0.654499, 20.5478, -160.567, -92.6086, 54.7932
3.71975, 4, -37.0385, 0.654531, 20.5477, -160.567, -92.6087, 54.7932
3.72774, 4, -37.0385, 0.654552, 20.5477, -160.567, -92.6087, 54.7932
3.73576, 4, -37.0385, 0.654533, 20.5477, -160.567, -92.6087, 54.7932
3.74387, 4, -37.0384, 0.654546, 20.5477, -160.567, -92.6087, 54.7932
3.75193, 4, -37.0385, 0.654548, 20.5477, -160.567, -92.6087, 54.7932
3.7587, 4, -37.0384, 0.654533, 20.5477, -160.567, -92.6087, 54.7932
3.76801, 4, -37.0384, 0.654566, 20.5477, -160.567, -92.6087, 54.7932
3.77466, 4, -37.0384, 0.654557, 20.5477, -160.567, -92.6087, 54.7932
3.78408, 4, -37.0384, 0.65455, 20.5477, -160.567, -92.6087, 54.7932
3.7922, 4, -37.0383, 0.654535, 20.5477, -160.567, -92.6087, 54.7933
3.80028, 4, -37.0383, 0.654536, 20.5476, -160.567, -92.6086, 54.7932
3.80841, 4, -37.0383, 0.654544, 20.5476, -160.567, -92.6086, 54.7933
3.83459, 4, -37.0383, 0.654539, 20.5476, -160.567, -92.6086, 54.7932
3.83728, 4, -37.0383, 0.654545, 20.5476, -160.567, -92.6086, 54.7932
3.83906, 4, -37.0383, 0.654545, 20.5476, -160.567, -92.6086, 54.7932
3.8417, 4, -37.0382, 0.65455, 20.5476, -160.567, -92.6086, 54.7932
3.85344, 4, -37.0381, 0.654517, 20.5476, -160.567, -92.6087, 54.7932
3.85648, 4, -37.0381, 0.654517, 20.5476, -160.567, -92.6087, 54.7932
3.86365, 4, -37.0375, 0.654382, 20.5476, -160.567, -92.6087, 54.7932
3.87165, 4, -37.0348, 0.653475, 20.5478, -160.567, -92.6087, 54.7932
3.87922, 4, -37.0291, 0.650619, 20.5486, -160.567, -92.6087, 54.7932
3.88901, 4, -37.0133, 0.640371, 20.5534, -160.566, -92.6087, 54.7932
3.89465, 4, -37.006, 0.635136, 20.5566, -160.566, -92.6088, 54.7932
3.90509, 5, -36.9766, 0.612855, 20.5733, -160.563, -92.6087, 54.7933
3.91071, 5, -36.9639, 0.603148, 20.5819, -160.561, -92.6087, 54.7933
3.91964, 5, -36.9347, 0.580484, 20.6038, -160.557, -92.6084, 54.7932
3.92934, 5, -36.8819, 0.537989, 20.6495, -160.547, -92.6078, 54.7932
3.937, 5, -36.8619, 0.521629, 20.6681, -160.543, -92.6075, 54.7931
3.94271, 5, -36.8181, 0.485176, 20.7094, -160.534, -92.6064, 54.7931
3.95329, 5, -36.769, 0.444246, 20.7558, -160.518, -92.6042, 54.7931
3.9598, 5, -36.7149, 0.399293, 20.8059, -160.512, -92.6034, 54.7931
3.96764, 5, -36.6565, 0.351062, 20.8586, -160.5, -92.6017, 54.793
3.97571, 5, -36.5942, 0.300491, 20.913, -160.488, -92.5999, 54.793
3.98476, 5, -36.5285, 0.248098, 20.9681, -160.476, -92.5981, 54.793
3.99166, 5, -36.4612, 0.194756, 21.0236, -160.464, -92.5963, 54.7929
4.00242, 5, -36.3584, 0.114115, 21.1068, -160.446, -92.5935, 54.793
4.00794, 5, -36.3241, 0.0871608, 21.1345, -160.439, -92.5925, 54.793
4.01569, 5, -36.2552, 0.0333084, 21.1899, -160.428, -92.5906, 54.793
4.02365, 5, -36.1862, -0.0203778, 21.2453, -160.415, -92.5887, 54.7931
4.03189, 5, -36.1175, -0.0738077, 21.3007, -160.403, -92.5867, 54.7931
4.03963, 5, -36.0488, -0.127027, 21.356, -160.391, -92.5847, 54.7932
4.04765, 5, -35.9802, -0.180051, 21.4112, -160.378, -92.5827, 54.7933
4.05571, 5, -35.9116, -0.232888, 21.4664, -160.365, -92.5807, 54.7935
4.06365, 5, -35.843, -0.285519, 21.5213, -160.352, -92.5787, 54.7938
4.07164, 5, -35.7741, -0.33813, 21.5763, -160.339, -92.5767, 54.7944
4.07976, 5, -35.705, -0.390774, 21.6312, -160.327, -92.5747, 54.7952
4.08855, 5, -35.6357, -0.443371, 21.6858, -160.314, -92.5727, 54.7962
4.09564, 5, -35.566, -0.496118, 21.7402, -160.302, -92.5706, 54.7974
4.10556, 5, -35.4961, -0.548871, 21.7945, -160.289, -92.5686, 54.7988
4.11179, 5, -35.4259, -0.601615, 21.8486, -160.277, -92.5665, 54.8002
4.12162, 5, -35.3555, -0.654322, 21.9025, -160.264, -92.5645, 54.8018
4.12765, 5, -35.2849, -0.70702, 21.9565, -160.251, -92.5624, 54.8036
4.13637, 5, -35.2144, -0.75957, 22.0102, -160.237, -92.5603, 54.8055
4.14371, 5, -35.1437, -0.811768, 22.0639, -160.224, -92.5582, 54.8074
4.1517, 5, -35.0731, -0.86395, 22.1175, -160.211, -92.556, 54.8095
4.15987, 5, -35.0024, -0.915847, 22.1709, -160.197, -92.5539, 54.8117
4.16773, 5, -34.9319, -0.967446, 22.2242, -160.184, -92.5517, 54.814
4.1758, 5, -34.8613, -1.01895, 22.2775, -160.172, -92.5496, 54.8166
4.18401, 5, -34.7908, -1.0703, 22.3306, -160.159, -92.5474, 54.8192
4.1926, 5, -34.7203, -1.12171, 22.3834, -160.146, -92.5451, 54.8218
4.19975, 5, -34.6494, -1.17299, 22.4362, -160.133, -92.5429, 54.8247
4.20782, 5, -34.5785, -1.22429, 22.4887, -160.12, -92.5407, 54.8277
4.21568, 5, -34.5074, -1.27568, 22.541, -160.107, -92.5385, 54.8308
4.22368, 5, -34.436, -1.327, 22.5933, -160.093, -92.5363, 54.8339
4.23199, 5, -34.3645, -1.37833, 22.6454, -160.079, -92.5341, 54.8372
4.24073, 5, -34.2929, -1.42962, 22.6974, -160.066, -92.5318, 54.8407
4.2478, 5, -34.2211, -1.48077, 22.7492, -160.052, -92.5294, 54.8441
4.25679, 5, -34.1492, -1.53166, 22.8009, -160.038, -92.5271, 54.8477
4.26426, 5, -34.0771, -1.58238, 22.8524, -160.025, -92.5248, 54.8514
4.27195, 5, -34.0049, -1.63288, 22.904, -160.011, -92.5225, 54.8552
4.28051, 5, -33.9327, -1.68312, 22.9554, -159.998, -92.5202, 54.8592
4.28924, 5, -33.8605, -1.73316, 23.0066, -159.984, -92.5179, 54.8631
4.29612, 5, -33.7884, -1.78313, 23.0576, -159.971, -92.5156, 54.8673
4.30263, 5, -33.7522, -1.80808, 23.0831, -159.964, -92.5145, 54.8694
4.31272, 5, -33.6437, -1.88284, 23.1592, -159.942, -92.511, 54.8758
4.32037, 5, -33.5712, -1.93274, 23.2097, -159.928, -92.5088, 54.8801
4.32828, 5, -33.4986, -1.98298, 23.2601, -159.914, -92.5065, 54.8843
4.33614, 5, -33.4622, -2.00821, 23.2853, -159.907, -92.5054, 54.8862
4.34364, 5, -33.3894, -2.05892, 23.3357, -159.893, -92.503, 54.8892
4.35253, 6, -33.2807, -2.13584, 23.4115, -159.871, -92.4993, 54.8911
4.36057, 6, -33.2446, -2.1618, 23.4369, -159.864, -92.4979, 54.891
4.3676, 6, -33.1727, -2.21443, 23.4879, -159.85, -92.4949, 54.8894
4.37563, 6, -33.1011, -2.26792, 23.5397, -159.834, -92.4912, 54.8845
4.38368, 7, -33.0301, -2.32239, 23.5923, -159.817, -92.4865, 54.8743
4.39163, 7, -32.9594, -2.37805, 23.6461, -159.799, -92.4803, 54.8602
4.39977, 7, -32.8893, -2.43491, 23.7011, -159.78, -92.4724, 54.8438
4.40943, 7, -32.7851, -2.52292, 23.7863, -159.748, -92.457, 54.8176
4.41844, 7, -32.7165, -2.58354, 23.8446, -159.726, -92.4443, 54.8004
4.42359, 8, -32.6824, -2.61448, 23.8743, -159.715, -92.4372, 54.792
4.43442, 8, -32.5813, -2.70971, 23.9651, -159.678, -92.4131, 54.7669
4.43986, 8, -32.548, -2.74233, 23.9959, -159.665, -92.4042, 54.7582
4.44765, 8, -32.4818, -2.80874, 24.0583, -159.638, -92.3849, 54.7403
4.45564, 8, -32.4163, -2.87669, 24.1217, -159.61, -92.3641, 54.7209
4.46366, 9, -32.3514, -2.9461, 24.186, -159.582, -92.3422, 54.6999
4.47163, 9, -32.2871, -3.01676, 24.2514, -159.553, -92.3192, 54.6772
4.48064, 9, -32.2233, -3.08872, 24.3178, -159.522, -92.295, 54.6526
4.48779, 9, -32.16, -3.162, 24.3851, -159.49, -92.2692, 54.6267
4.49565, 9, -32.0974, -3.23651, 24.4534, -159.458, -92.2415, 54.5995
4.50367, 9, -32.0352, -3.31237, 24.5228, -159.425, -92.2124, 54.571
4.51272, 10, -31.9738, -3.38951, 24.5931, -159.391, -92.1823, 54.5407
4.51867, 10, -31.9129, -3.46813, 24.6645, -159.355, -92.151, 54.5085
4.52767, 10, -31.8525, -3.54817, 24.737, -159.319, -92.1181, 54.4742
4.53585, 10, -31.7927, -3.6296, 24.8105, -159.282, -92.0832, 54.4386
4.54361, 10, -31.7335, -3.7125, 24.885, -159.244, -92.0472, 54.4021
4.55165, 11, -31.6747, -3.79691, 24.9604, -159.205, -92.0105, 54.364
4.55985, 11, -31.6166, -3.88281, 25.0368, -159.165, -91.9722, 54.324
4.56767, 11, -31.5589, -3.97007, 25.1141, -159.125, -91.9318, 54.2819
4.57564, 11, -31.5018, -4.05885, 25.1924, -159.083, -91.8905, 54.2389
4.58364, 11, -31.4454, -4.1491, 25.2718, -159.04, -91.8482, 54.1947
4.59169, 12, -31.3893, -4.24083, 25.3522, -158.997, -91.8037, 54.1487
4.59963, 12, -31.3337, -4.33393, 25.4338, -158.952, -91.758, 54.1005
4.60891, 12, -31.2787, -4.42839, 25.5164, -158.906, -91.7116, 54.0513
4.61578, 12, -31.2242, -4.52411, 25.6, -158.86, -91.6633, 54.0009
4.62467, 12, -31.1701, -4.62133, 25.6846, -158.812, -91.6135, 53.9484
4.63238, 13, -31.1166, -4.71996, 25.7701, -158.763, -91.563, 53.8941
4.63964, 13, -31.0636, -4.81997, 25.8565, -158.715, -91.5103, 53.839
4.64772, 13, -31.0111, -4.92155, 25.9441, -158.665, -91.4566, 53.7823
4.659, 13, -30.9334, -5.07672, 26.0774, -158.588, -91.3737, 53.6939
4.66391, 13, -30.9078, -5.12914, 26.1224, -158.562, -91.3451, 53.6641
4.67172, 14, -30.8569, -5.23505, 26.2132, -158.508, -91.2879, 53.6031
4.67972, 14, -30.8066, -5.3425, 26.305, -158.455, -91.2288, 53.54
4.6879, 14, -30.7568, -5.45132, 26.3977, -158.401, -91.1682, 53.4763
4.69618, 14, -30.7075, -5.56175, 26.4912, -158.344, -91.1072, 53.4112
4.70326, 14, -30.6831, -5.61751, 26.5859, -158.288, -91.0434, 53.3437
4.7117, 15, -30.6105, -5.78699, 26.6816, -158.231, -90.9796, 53.2757
4.72043, 15, -30.5628, -5.90166, 26.7786, -158.172, -90.9132, 53.2059
4.72766, 15, -30.5156, -6.01756, 26.8766, -158.114, -90.8465, 53.1344
4.73669, 15, -30.4689, -6.13496, 26.9757, -158.053, -90.778, 53.0621
4.74416, 15, -30.4226, -6.25378, 27.0756, -157.992, -90.7082, 52.9872
4.75087, 16, -30.3997, -6.31373, 27.1258, -157.961, -90.6729, 52.9495
4.76069, 16, -30.3318, -6.49603, 27.2781, -157.867, -90.5644, 52.8343
4.76794, 16, -30.2871, -6.61929, 27.3812, -157.803, -90.4907, 52.7553
4.77676, 16, -30.2429, -6.74403, 27.4854, -157.738, -90.4156, 52.6755
4.78436, 16, -30.1991, -6.87025, 27.5906, -157.673, -90.3391, 52.5935
4.7932, 17, -30.1558, -6.99807, 27.6968, -157.606, -90.2615, 52.511
4.80104, 17, -30.113, -7.12751, 27.8037, -157.539, -90.1823, 52.4266
4.80946, 17, -30.0708, -7.25844, 27.9116, -157.471, -90.102, 52.3416
4.81783, 17, -30.0291, -7.39071, 28.0206, -157.402, -90.02, 52.2545
4.82424, 17, -29.9878, -7.52417, 28.1308, -157.331, -89.9372, 52.1664
4.83222, 17, -29.9674, -7.59148, 28.1864, -157.261, -89.8528, 52.0769
4.83869, 18, -29.9269, -7.72722, 28.2983, -157.225, -89.8101, 52.0316
4.84866, 18, -29.8671, -7.93348, 28.4678, -157.116, -89.6803, 51.894
4.85567, 18, -29.8474, -8.00287, 28.5246, -157.079, -89.6365, 51.8473
4.86377, 18, -29.8083, -8.14256, 28.6392, -157.005, -89.5476, 51.7533
4.87166, 18, -29.7697, -8.28363, 28.7551, -156.93, -89.4574, 51.6575
4.87962, 19, -29.7316, -8.42607, 28.872, -156.854, -89.3665, 51.5611
4.88676, 19, -29.694, -8.57014, 28.9901, -156.777, -89.274, 51.4629
4.90171, 19, -29.6383, -8.86265, 29.2286, -156.621, -89.0854, 51.264
4.90356, 19, -29.62, -8.86265, 29.2286, -156.621, -89.0854, 51.264
4.91163, 19, -29.5837, -9.01075, 29.3491, -156.541, -88.9895, 51.1631
4.91967, 20, -29.5481, -9.16035, 29.4709, -156.461, -88.8923, 51.0605
4.92762, 20, -29.5127, -9.31151, 29.5938, -156.38, -88.7943, 50.957
4.93583, 20, -29.4778, -9.46416, 29.7177, -156.298, -88.6952, 50.8524
4.94659, 20, -29.4265, -9.69501, 29.905, -156.173, -88.5443, 50.6929
4.95162, 20, -29.4096, -9.77261, 29.968, -156.131, -88.4935, 50.6392
4.95963, 21, -29.3762, -9.92883, 30.0945, -156.046, -88.391, 50.5306
4.96862, 21, -29.3431, -10.0867, 30.2222, -155.96, -88.2873, 50.4214
4.97561, 21, -29.3104, -10.2459, 30.3509, -155.874, -88.1828, 50.3109
4.98605, 21, -29.2622, -10.4863, 30.5456, -155.743, -88.0237, 50.144
4.99176, 21, -29.2464, -10.5671, 30.6109, -155.699, -87.9703, 50.0879
5.00178, 22, -29.1995, -10.8116, 30.8082, -155.564, -87.8084, 49.9182
5.00761, 22, -29.184, -10.8938, 30.8745, -155.519, -87.7539, 49.8612
5.01577, 22, -29.1534, -11.0589, 31.0077, -155.428, -87.6443, 49.7465
5.02366, 22, -29.1232, -11.2249, 31.1419, -155.337, -87.5336, 49.6307
5.03168, 22, -29.0934, -11.3921, 31.2769, -155.244, -87.4219, 49.5144
5.03959, 23, -29.064, -11.561, 31.4129, -155.151, -87.3094, 49.397
5.04763, 23, -29.0348, -11.7314, 31.5497, -155.056, -87.1958, 49.2789
5.05573, 23, -29.0061, -11.9025, 31.6872, -154.961, -87.0814, 49.1604
5.0638, 23, -28.9777, -12.0745, 31.8255, -154.865, -86.9662, 49.0412
5.07164, 23, -28.9498, -12.2479, 31.9648, -154.768, -86.8499, 48.9213
5.07958, 24, -28.9222, -12.4229, 32.105, -154.671, -86.7328, 48.801
5.08765, 24, -28.895, -12.5986, 32.246, -154.572, -86.6146, 48.6802
5.09575, 24, -28.868, -12.7748, 32.3877, -154.472, -86.4958, 48.5586
5.10361, 24, -28.8415, -12.952, 32.5301, -154.372, -86.3761, 48.4365
5.11177, 24, -28.8153, -13.131, 32.6736, -154.271, -86.2554, 48.3136
5.11979, 24, -28.7894, -13.3109, 32.8179, -154.169, -86.1344, 48.1905
5.12764, 25, -28.7638, -13.4913, 32.9628, -154.067, -86.0122, 48.0672
5.13652, 25, -28.7385, -13.6726, 33.1083, -153.963, -85.8896, 47.9437
5.14542, 25, -28.7132, -13.8555, 33.2544, -153.859, -85.7663, 47.82
5.15161, 25, -28.6883, -14.0396, 33.4014, -153.754, -85.642, 47.6962
5.16058, 25, -28.6637, -14.2239, 33.5493, -153.648, -85.5175, 47.5723
5.16774, 26, -28.6394, -14.4088, 33.6976, -153.541, -85.392, 47.4481
5.1757, 26, -28.6155, -14.5954, 33.8464, -153.434, -85.2664, 47.3238
5.18581, 26, -28.5918, -14.7832, 33.9962, -153.326, -85.1398, 47.1995
5.19191, 26, -28.568, -14.9711, 34.1466, -153.217, -85.0128, 47.0751
5.19978, 26, -28.5445, -15.1592, 34.2976, -153.107, -84.8852, 46.9512
5.20778, 27, -28.5213, -15.3484, 34.4488, -152.997, -84.7571, 46.8276
5.21561, 27, -28.4984, -15.5385, 34.6008, -152.886, -84.6286, 46.7041
5.22389, 27, -28.4755, -15.7287, 34.7536, -152.774, -84.4993, 46.581
5.23172, 27, -28.453, -15.9194, 34.907, -152.662, -84.37, 46.4581
5.23997, 27, -28.4307, -16.1117, 35.0605, -152.549, -84.24, 46.3354
5.24786, 28, -28.4084, -16.3051, 35.2142, -152.435, -84.1099, 46.2133
5.25581, 28, -28.386, -16.4988, 35.3688, -152.321, -83.9791, 46.0914
5.2641, 28, -28.3639, -16.6931, 35.5241, -152.205, -83.8481, 45.9703
5.27199, 28, -28.3419, -16.8885, 35.6796, -152.09, -83.7168, 45.85
5.2801, 28, -28.3198, -17.0845, 35.8352, -151.973, -83.5852, 45.7303
5.28813, 29, -28.2979, -17.2801, 35.9914, -151.856, -83.4536, 45.6116
5.29618, 29, -28.2761, -17.4763, 36.1482, -151.738, -83.3213, 45.4939
5.30411, 29, -28.2543, -17.6734, 36.3053, -151.62, -83.1888, 45.377
5.31305, 29, -28.2324, -17.8707, 36.4622, -151.501, -83.0559, 45.2611
5.32173, 29, -28.2108, -18.0679, 36.6195, -151.382, -82.9232, 45.1463
5.3285, 30, -28.1893, -18.2656, 36.7776, -151.262, -82.7899, 45.0325
5.33621, 30, -28.1785, -18.3648, 36.8568, -151.202, -82.6569, 44.9202
5.34439, 30, -28.1568, -18.5635, 37.0151, -151.02, -82.5235, 44.809
5.35339, 30, -28.1245, -18.8613, 37.2522, -150.898, -82.3902, 44.6997
5.3597, 30, -28.1136, -18.961, 37.3315, -150.837, -82.3234, 44.6455
5.36662, 30, -28.0918, -19.1611, 37.4904, -150.715, -82.1894, 44.5386
5.3777, 31, -28.0589, -19.4611, 37.7287, -150.53, -81.9891, 44.3812
5.38366, 31, -28.0481, -19.561, 37.8079, -150.469, -81.9221, 44.3296
5.39178, 31, -28.0263, -19.7611, 37.9668, -150.345, -81.7885, 44.2278
5.39964, 31, -28.0043, -19.9617, 38.1264, -150.22, -81.6548, 44.1276
5.4076, 31, -27.9822, -20.1618, 38.286, -150.095, -81.5209, 44.0289
5.4156, 32, -27.9602, -20.3618, 38.445, -149.97, -81.3871, 43.932
5.42367, 32, -27.9378, -20.5626, 38.6043, -149.843, -81.2532, 43.8372
5.4316, 32, -27.9152, -20.7637, 38.764, -149.717, -81.1194, 43.7441
5.43974, 32, -27.8924, -20.9643, 38.9239, -149.59, -80.9853, 43.6535
5.44757, 32, -27.8695, -21.1647, 39.0831, -149.462, -80.8518, 43.5653
5.45566, 33, -27.8463, -21.3655, 39.2421, -149.334, -80.7182, 43.4799
5.46383, 33, -27.8228, -21.5658, 39.4014, -149.207, -80.5852, 43.3975
5.47238, 33, -27.7989, -21.7653, 39.5604, -149.079, -80.4522, 43.3179
5.47961, 33, -27.7745, -21.9647, 39.7184, -148.951, -80.32, 43.2421
5.48869, 33, -27.7498, -22.1642, 39.8757, -148.823, -80.1879, 43.1688
5.49566, 34, -27.7248, -22.3629, 40.0328, -148.695, -80.0565, 43.0996
5.50363, 34, -27.6994, -22.5609, 40.1898, -148.567, -79.9252, 43.0332
5.51272, 34, -27.6736, -22.7588, 40.3463, -148.438, -79.7941, 42.9692
5.51974, 34, -27.6474, -22.9564, 40.5021, -148.31, -79.6631, 42.9093
5.52764, 34, -27.6207, -23.1532, 40.658, -148.181, -79.5321, 42.8521
5.53636, 35, -27.5936, -23.3496, 40.814, -148.052, -79.4014, 42.798
5.54363, 35, -27.5664, -23.5462, 40.9694, -147.923, -79.2706, 42.7479
5.55159, 35, -27.5387, -23.7428, 41.124, -147.793, -79.1404, 42.7015
5.56304, 35, -27.4966, -24.0361, 41.3553, -147.598, -78.9454, 42.6382
5.56773, 35, -27.4823, -24.1336, 41.4324, -147.533, -78.8807, 42.6188
5.57559, 36, -27.4534, -24.3286, 41.5861, -147.403, -78.751, 42.5834
5.58368, 36, -27.424, -24.5229, 41.739, -147.273, -78.6219, 42.5525
5.59175, 36, -27.3943, -24.716, 41.8913, -147.143, -78.4932, 42.5259
5.59977, 36, -27.3641, -24.9087, 42.0434, -147.012, -78.3647, 42.5036
5.60759, 36, -27.3331, -25.1015, 42.195, -146.882, -78.2369, 42.4856
5.61559, 37, -27.3013, -25.2932, 42.3454, -146.752, -78.1092, 42.4721
5.62374, 37, -27.2687, -25.4839, 42.495, -146.621, -77.9822, 42.4632
5.6316, 37, -27.2356, -25.674, 42.6439, -146.492, -77.8553, 42.4585
5.63987, 37, -27.2016, -25.8635, 42.792, -146.362, -77.7287, 42.4569
5.64778, 37, -27.1667, -26.0515, 42.9392, -146.233, -77.6025, 42.4591
5.65556, 38, -27.1309, -26.2378, 43.0851, -146.105, -77.4768, 42.4678
5.6639, 38, -27.0945, -26.4232, 43.2298, -145.977, -77.3518, 42.482
5.67166, 38, -27.0572, -26.608, 43.3739, -145.849, -77.2271, 42.5018
5.67995, 38, -27.019, -26.7913, 43.5169, -145.722, -77.1032, 42.5272
5.68809, 38, -26.98, -26.9732, 43.6588, -145.595, -76.9796, 42.5582
5.69593, 39, -26.9403, -27.1546, 43.7996, -145.469, -76.8567, 42.5956
5.70407, 39, -26.8998, -27.3355, 43.9397, -145.343, -76.734, 42.6391
5.7138, 39, -26.8585, -27.515, 44.0789, -145.217, -76.6113, 42.6879
5.72045, 39, -26.8162, -27.6932, 44.2173, -145.091, -76.4891, 42.7424
5.7296, 39, -26.7733, -27.8711, 44.3548, -144.966, -76.3666, 42.8035
5.73764, 40, -26.7295, -28.0485, 44.4911, -144.84, -76.2443, 42.8706
5.7444, 40, -26.6846, -28.2243, 44.6266, -144.715, -76.122, 42.9434
5.75178, 40, -26.6388, -28.3986, 44.7609, -144.591, -76.0003, 43.0238
5.75979, 40, -26.5921, -28.5717, 44.894, -144.467, -75.8788, 43.1093
5.76821, 40, -26.5443, -28.7438, 45.0256, -144.345, -75.7575, 43.2024
5.77591, 40, -26.4952, -28.914, 45.1557, -144.223, -75.6372, 43.3015
5.78397, 41, -26.4449, -29.0821, 45.2842, -144.102, -75.5169, 43.4078
5.79213, 41, -26.3935, -29.2487, 45.4113, -143.982, -75.3975, 43.5203
5.80011, 41, -26.3407, -29.4142, 45.5368, -143.864, -75.2785, 43.6399
5.80821, 41, -26.2865, -29.5781, 45.6606, -143.747, -75.1598, 43.7666
5.81647, 41, -26.2311, -29.7398, 45.7826, -143.631, -75.0421, 43.9005
5.82415, 42, -26.1742, -29.9, 45.9029, -143.516, -74.9243, 44.0418
5.83225, 42, -26.1453, -30.0586, 46.0215, -143.403, -74.8075, 44.1902
5.84044, 42, -26.0563, -30.2155, 46.1383, -143.29, -74.6908, 44.3458
5.84909, 42, -26.0259, -30.37, 46.2534, -143.18, -74.5744, 44.509
5.85563, 42, -25.9641, -30.4465, 46.3103, -143.125, -74.5165, 44.5931
5.86363, 43, -25.9007, -30.5979, 46.4225, -143.017, -74.4009, 44.7672
5.87159, 43, -25.8357, -30.7474, 46.5326, -142.911, -74.2857, 44.9493
5.87965, 43, -25.7691, -30.8947, 46.6406, -142.806, -74.171, 45.1392
5.88891, 43, -25.6661, -31.1115, 46.7989, -142.653, -73.9994, 45.4386
5.89711, 43, -25.631, -31.253, 46.9019, -142.553, -73.886, 45.6475
5.90262, 44, -25.5594, -31.3229, 46.9526, -142.504, -73.8294, 45.755
5.91441, 44, -25.4485, -31.5293, 47.101, -142.361, -73.6603, 46.0891
5.91981, 44, -25.4106, -31.5969, 47.1491, -142.314, -73.6041, 46.2045
5.92756, 44, -25.3333, -31.7302, 47.2436, -142.222, -73.4921, 46.4413
5.93559, 44, -25.2542, -31.8607, 47.3357, -142.133, -73.3806, 46.6864
5.94361, 45, -25.1732, -31.9884, 47.4254, -142.046, -73.2699, 46.9396
5.95159, 45, -25.0903, -32.1133, 47.5126, -141.963, -73.1595, 47.2014
5.95959, 45, -25.0053, -32.2355, 47.5972, -141.882, -73.0501, 47.4715
5.97084, 45, -24.874, -32.4133, 47.7185, -141.766, -72.8871, 47.892
5.97559, 45, -24.8291, -32.4711, 47.7574, -141.729, -72.8332, 48.0363
5.98397, 46, -24.7375, -32.5843, 47.833, -141.657, -72.7261, 48.3314
5.99158, 46, -24.6438, -32.6941, 47.9057, -141.589, -72.6196, 48.6353
5.99959, 46, -24.5477, -32.8007, 47.9755, -141.524, -72.5141, 48.9473
6.00765, 46, -24.4491, -32.9039, 48.0421, -141.463, -72.4094, 49.2678
6.01582, 46, -24.3484, -33.0033, 48.1056, -141.406, -72.3053, 49.5973
6.02374, 46, -24.2453, -33.0991, 48.1655, -141.352, -72.2028, 49.9348
6.03163, 47, -24.1399, -33.191, 48.222, -141.304, -72.101, 50.2803
6.03961, 47, -24.032, -33.2788, 48.2748, -141.258, -72.0001, 50.6346
6.04766, 47, -23.9214, -33.3625, 48.3239, -141.216, -71.9007, 50.9972
6.05559, 47, -23.8081, -33.4419, 48.3692, -141.18, -71.8021, 51.3678
6.06379, 47, -23.6919, -33.5171, 48.4106, -141.149, -71.7046, 51.7473
6.07263, 48, -23.5729, -33.5879, 48.448, -141.122, -71.6089, 52.1345
6.07958, 48, -23.4513, -33.654, 48.4812, -141.099, -71.5146, 52.53
6.08858, 48, -23.3273, -33.7154, 48.5103, -141.081, -71.4218, 52.9342
6.09664, 48, -23.2008, -33.7719, 48.5354, -141.068, -71.3312, 53.3466
6.10457, 48, -23.0714, -33.8233, 48.556, -141.061, -71.2424, 53.7675
6.1126, 49, -22.9391, -33.8696, 48.5723, -141.057, -71.1554, 54.1965
6.11973, 49, -22.8039, -33.9105, 48.5841, -141.059, -71.0703, 54.6327
6.12758, 49, -22.6658, -33.9458, 48.5912, -141.067, -70.9874, 55.0771
6.13893, 49, -22.4534, -33.9884, 48.5934, -141.09, -70.8671, 55.7579
6.14379, 49, -22.3812, -33.9998, 48.5919, -141.1, -70.8281, 55.9889
6.15159, 50, -22.2349, -34.0179, 48.5849, -141.127, -70.7527, 56.4564
6.15959, 50, -22.086, -34.0298, 48.5729, -141.158, -70.6794, 56.9309
6.16762, 50, -21.9343, -34.0357, 48.5558, -141.196, -70.6098, 57.4139
6.17587, 50, -21.7797, -34.0355, 48.5335, -141.24, -70.5428, 57.9044
6.18367, 50, -21.6219, -34.029, 48.5056, -141.291, -70.4797, 58.4024
6.19184, 51, -21.461, -34.0156, 48.4722, -141.347, -70.4201, 58.9071
6.20049, 51, -21.2975, -33.9955, 48.4335, -141.41, -70.3636, 59.4187
6.20769, 51, -21.1312, -33.9683, 48.389, -141.479, -70.3115, 59.9373
6.21645, 51, -20.9624, -33.9339, 48.3389, -141.555, -70.2625, 60.4624
6.22447, 51, -20.7911, -33.8924, 48.283, -141.637, -70.2176, 60.9935
6.23182, 52, -20.617, -33.8433, 48.2212, -141.725, -70.1774, 61.5305
6.24171, 52, -20.4403, -33.7863, 48.1535, -141.82, -70.1418, 62.0738
6.24808, 52, -20.2608, -33.7215, 48.0798, -141.921, -70.1103, 62.6233
6.25652, 52, -20.0785, -33.6484, 48.0002, -142.028, -70.0838, 63.1778
6.26375, 52, -19.8938, -33.5672, 47.9143, -142.141, -70.0626, 63.7375
6.27209, 53, -19.7068, -33.4774, 47.8222, -142.261, -70.0468, 64.3029
6.2807, 53, -19.5179, -33.3791, 47.724, -142.386, -70.0364, 64.8736
6.288, 53, -19.3269, -33.2725, 47.6197, -142.518, -70.0314, 65.4489
6.29698, 53, -19.1339, -33.1577, 47.5093, -142.655, -70.0314, 66.0284
6.30407, 53, -18.9391, -33.0344, 47.3927, -142.798, -70.037, 66.6129
6.31214, 53, -18.7422, -32.9023, 47.2696, -142.947, -70.0491, 67.201
6.32118, 54, -18.5434, -32.7615, 47.1403, -143.101, -70.0681, 67.7912
6.32811, 54, -18.3425, -32.6121, 47.0049, -143.259, -70.0941, 68.384
6.337, 54, -18.1395, -32.4542, 46.8635, -143.423, -70.1274, 68.9794
6.34508, 54, -17.9351, -32.2874, 46.7162, -143.591, -70.167, 69.5774
6.35234, 54, -17.8325, -32.2005, 46.6401, -143.764, -70.2139, 70.1774
6.35961, 55, -17.6266, -32.0198, 46.4833, -143.852, -70.2407, 70.4787
6.36762, 55, -17.4194, -31.8296, 46.3204, -144.033, -70.2997, 71.0847
6.3756, 55, -17.2107, -31.6303, 46.1512, -144.218, -70.3662, 71.6946
6.38357, 55, -17.0005, -31.421, 45.9747, -144.408, -70.4419, 72.3076
6.3916, 55, -16.7886, -31.201, 45.7908, -144.602, -70.5255, 72.9249
6.40179, 56, -16.4681, -30.8524, 45.5035, -144.903, -70.6681, 73.8574
6.40759, 56, -16.3606, -30.731, 45.4043, -145.005, -70.7199, 74.1694
6.41557, 56, -16.1453, -30.4802, 45.1999, -145.212, -70.8305, 74.7945
6.42749, 56, -15.8229, -30.0859, 44.8819, -145.528, -71.0134, 75.736
6.43177, 56, -15.7155, -29.9495, 44.773, -145.635, -71.0789, 76.0503
6.43961, 57, -15.5, -29.6692, 44.55, -145.85, -71.2166, 76.6779
6.4476, 57, -15.2838, -29.3799, 44.3209, -146.067, -71.3631, 77.3049
6.45559, 57, -15.067, -29.0805, 44.0868, -146.286, -71.5189, 77.9315
6.46361, 57, -14.8501, -28.7723, 43.8464, -146.506, -71.6834, 78.5562
6.47157, 57, -14.6338, -28.4555, 43.6014, -146.726, -71.8569, 79.178
6.47957, 58, -14.4179, -28.1305, 43.3521, -146.947, -72.0387, 79.7981
6.48764, 58, -14.2029, -27.7975, 43.0978, -147.168, -72.2287, 80.4151
6.49663, 58, -13.9892, -27.4562, 42.8401, -147.388, -72.4271, 81.0276
6.50358, 58, -13.7767, -27.1078, 42.5781, -147.607, -72.6335, 81.636
6.51164, 58, -13.5651, -26.7518, 42.3123, -147.825, -72.8478, 82.2404
6.51971, 59, -13.3546, -26.3892, 42.043, -148.042, -73.0698, 82.8407
6.52853, 59, -13.1456, -26.0185, 41.769, -148.257, -73.2999, 83.4358
6.53561, 59, -12.9383, -25.6405, 41.4916, -148.471, -73.5381, 84.0272
6.54603, 59, -12.6299, -25.0606, 41.0684, -148.788, -73.9104, 84.9067
6.55183, 59, -12.5276, -24.8638, 40.9258, -148.893, -74.0387, 85.1977
6.55963, 60, -12.3239, -24.4643, 40.6374, -149.1, -74.3017, 85.7759
6.56758, 60, -12.1215, -24.0576, 40.3452, -149.306, -74.5727, 86.3503
6.57556, 60, -11.9207, -23.6446, 40.0505, -149.51, -74.852, 86.9207
6.58357, 60, -11.7213, -23.2247, 39.7527, -149.711, -75.1394, 87.4864
6.59163, 60, -11.5238, -22.7991, 39.453, -149.908, -75.4344, 88.0464
6.59974, 61, -11.3286, -22.3683, 39.1509, -150.103, -75.7367, 88.6016
6.60855, 61, -11.1356, -21.9333, 38.8474, -150.294, -76.0457, 89.1504
6.61662, 61, -10.9448, -21.4938, 38.542, -150.48, -76.3604, 89.6919
6.62472, 61, -10.756, -21.0506, 38.2358, -150.662, -76.6808, 90.2247
6.63201, 61, -10.5695, -20.6042, 37.9288, -150.84, -77.0065, 90.7498
6.63957, 61, -10.3853, -20.1543, 37.6215, -151.013, -77.3366, 91.2661
6.64765, 62, -10.2039, -19.7016, 37.3145, -151.18, -77.6712, 91.7737
6.65557, 62, -10.0255, -19.2465, 37.0076, -151.342, -78.0098, 92.2717
6.66363, 62, -9.84973, -18.7884, 36.7011, -151.5, -78.3523, 92.7613
6.67199, 62, -9.67682, -18.3281, 36.3946, -151.652, -78.6988, 93.2421
6.6805, 62, -9.50633, -17.8658, 36.0892, -151.799, -79.0491, 93.7142
6.68767, 63, -9.33799, -17.4017, 35.7839, -151.941, -79.4035, 94.1774
6.69757, 63, -9.17181, -16.9362, 35.48, -152.078, -79.762, 94.6308
6.70371, 63, -9.0081, -16.469, 35.1761, -152.21, -80.1243, 95.0755
6.71178, 63, -8.84687, -16.0006, 34.8729, -152.337, -80.4906, 95.5106
6.71963, 63, -8.68823, -15.5305, 34.5701, -152.459, -80.8599, 95.9359
6.72784, 64, -8.53221, -15.0594, 34.2691, -152.575, -81.2322, 96.3512
6.73566, 64, -8.37879, -14.5875, 33.9695, -152.686, -81.6066, 96.7549
6.7436, 64, -8.22793, -14.1148, 33.6714, -152.792, -81.9828, 97.1479
6.75256, 64, -8.07958, -13.6424, 33.3755, -152.892, -82.3607, 97.5294
6.75972, 64, -7.93373, -13.1711, 33.0815, -152.987, -82.7398, 97.8982
6.76779, 65, -7.79048, -12.7014, 32.7909, -153.076, -83.1199, 98.2552
6.77622, 65, -7.64992, -12.234, 32.503, -153.159, -83.5006, 98.5992
6.78424, 65, -7.51225, -11.7688, 32.2193, -153.236, -83.8819, 98.9296
6.79204, 65, -7.37759, -11.3052, 31.9391, -153.307, -84.2629, 99.2466
6.80394, 65, -7.24561, -10.8441, 31.5259, -153.403, -84.8346, 99.6964
6.80809, 66, -7.11625, -10.3858, 31.3899, -153.433, -85.0249, 99.8392
6.81627, 66, -6.98914, -9.93057, 31.1202, -153.487, -85.4051, 100.114
6.82416, 66, -6.86422, -9.47988, 30.8551, -153.536, -85.785, 100.373
6.83299, 66, -6.74154, -9.03427, 30.5938, -153.579, -86.1634, 100.617
6.84018, 66, -6.68104, -8.81383, 30.4645, -153.617, -86.5397, 100.844
6.84834, 67, -6.56191, -8.16028, 30.0843, -153.649, -86.9127, 101.055
6.85934, 67, -6.38803, -7.73151, 29.8372, -153.675, -87.2817, 101.248
6.86255, 67, -6.33152, -7.51908, 29.716, -153.686, -87.4644, 101.338
6.87473, 67, -6.16597, -6.88889, 29.3624, -153.711, -88.0049, 101.582
6.87974, 67, -6.11204, -6.68114, 29.2472, -153.716, -88.1826, 101.655
6.88753, 67, -6.00583, -6.26916, 29.0211, -153.724, -88.5353, 101.787
6.89557, 68, -5.90167, -5.86215, 28.8005, -153.727, -88.885, 101.901
6.90355, 68, -5.79925, -5.45977, 28.5835, -153.726, -89.2335, 101.998
6.91155, 68, -5.69838, -5.06256, 28.3694, -153.721, -89.5818, 102.078
6.91963, 68, -5.59918, -4.67061, 28.1587, -153.71, -89.9307, 102.138
6.92771, 68, -5.50165, -4.2845, 27.9508, -153.696, -90.2794, 102.18
6.93555, 69, -5.40589, -3.90291, 27.7463, -153.677, -90.6272, 102.204
6.94361, 69, -5.31208, -3.52588, 27.5471, -153.653, -90.9727, 102.21
6.95155, 69, -5.22021, -3.15298, 27.3532, -153.625, -91.3146, 102.197
6.95962, 69, -5.13036, -2.7847, 27.1637, -153.592, -91.6527, 102.162
6.9676, 69, -5.04223, -2.41992, 26.9793, -153.555, -91.9866, 102.107
6.97572, 70, -4.95569, -2.05971, 26.7999, -153.515, -92.3172, 102.03
6.98362, 70, -4.87026, -1.70445, 26.6242, -153.471, -92.6453, 101.933
6.99259, 70, -4.78588, -1.35539, 26.4519, -153.424, -92.9718, 101.813
6.99972, 70, -4.70249, -1.01217, 26.2839, -153.373, -93.2971, 101.671
7.00836, 70, -4.62009, -0.67462, 26.1195, -153.319, -93.6214, 101.507
7.01556, 71, -4.53864, -0.343242, 25.9583, -153.262, -93.9437, 101.321
7.02457, 71, -4.45839, -0.0176137, 25.8011, -153.203, -94.2642, 101.113
7.03155, 71, -4.37915, 0.301832, 25.6493, -153.14, -94.5816, 100.883
7.03963, 71, -4.30079, 0.616416, 25.5023, -153.076, -94.8956, 100.633
7.04855, 71, -4.22337, 0.924949, 25.3599, -153.01, -95.2063, 100.363
7.0557, 72, -4.14674, 1.22721, 25.2218, -152.942, -95.5136, 100.072
7.06359, 72, -4.07032, 1.52294, 25.0878, -152.871, -95.8176, 99.7607
7.07411, 72, -3.95598, 1.95331, 24.8934, -152.764, -96.2689, 99.255
7.07955, 72, -3.91792, 2.09363, 24.8303, -152.728, -96.418, 99.0761
7.08762, 72, -3.84177, 2.36893, 24.7062, -152.655, -96.7142, 98.7026
7.09553, 73, -3.76564, 2.63738, 24.5855, -152.581, -97.0075, 98.3083
7.10681, 73, -3.65146, 3.02788, 24.4111, -152.471, -97.4408, 97.6789
7.11176, 73, -3.61328, 3.15452, 24.3549, -152.434, -97.5834, 97.4589
7.11955, 73, -3.53677, 3.40307, 24.2457, -152.361, -97.8653, 97.0047
7.12768, 73, -3.45999, 3.64537, 24.1406, -152.289, -98.1429, 96.532
7.13587, 74, -3.38285, 3.87991, 24.0397, -152.218, -98.4163, 96.04
7.14356, 74, -3.30501, 4.10616, 23.9426, -152.147, -98.685, 95.5301
7.15162, 74, -3.22648, 4.32443, 23.8491, -152.079, -98.9492, 95.0025
7.15959, 74, -3.14719, 4.53373, 23.7593, -152.012, -99.2085, 94.4592
7.16756, 74, -3.06729, 4.73323, 23.6734, -151.947, -99.4625, 93.9008
7.17587, 75, -2.98643, 4.92364, 23.5914, -151.884, -99.7102, 93.3288
7.18407, 75, -2.90473, 5.10502, 23.5136, -151.825, -99.9502, 92.745
7.19164, 75, -2.82195, 5.27624, 23.4397, -151.768, -100.182, 92.1522
7.20128, 75, -2.73835, 5.43686, 23.3698, -151.714, -100.405, 91.5506
7.20932, 75, -2.6538, 5.5872, 23.304, -151.664, -100.619, 90.9414
7.21573, 75, -2.56833, 5.7266, 23.2426, -151.617, -100.823, 90.3254
7.22414, 76, -2.48179, 5.85452, 23.1856, -151.573, -101.017, 89.7028
7.23156, 76, -2.39427, 5.97064, 23.1331, -151.534, -101.202, 89.0721
7.23965, 76, -2.30595, 6.07464, 23.0849, -151.498, -101.377, 88.4337
7.24759, 76, -2.21678, 6.16609, 23.0411, -151.466, -101.542, 87.7899
7.25588, 76, -2.12681, 6.24465, 23.0022, -151.438, -101.696, 87.1401
7.26402, 77, -2.036, 6.31006, 22.9683, -151.414, -101.838, 86.4871
7.27179, 77, -1.94429, 6.36214, 22.9398, -151.394, -101.966, 85.834
7.27984, 77, -1.85176, 6.40026, 22.917, -151.379, -102.081, 85.1828
7.28796, 77, -1.75845, 6.42405, 22.8998, -151.367, -102.181, 84.5338
7.29596, 77, -1.66434, 6.43363, 22.8886, -151.359, -102.267, 83.8888
7.30273, 78, -1.61706, 6.43293, 22.8851, -151.356, -102.304, 83.5684
7.31698, 78, -1.42616, 6.39205, 22.885, -151.352, -102.413, 82.2973
7.32006, 78, -1.37808, 6.37221, 22.8887, -151.353, -102.43, 81.9827
7.32892, 78, -1.28164, 6.32042, 22.9006, -151.357, -102.454, 81.358
7.33822, 78, -1.18493, 6.25235, 22.9188, -151.365, -102.462, 80.7393
7.34416, 79, -1.13647, 6.21216, 22.9439, -151.377, -102.453, 80.126
7.35208, 79, -1.03946, 6.11952, 22.9591, -151.383, -102.441, 79.8217
7.35954, 79, -0.942234, 6.01051, 22.9953, -151.399, -102.405, 79.2185
7.36754, 79, -0.845097, 5.88519, 23.039, -151.418, -102.351, 78.6235
7.37565, 79, -0.748028, 5.74325, 23.0905, -151.441, -102.279, 78.0359
7.38353, 80, -0.650919, 5.58484, 23.1498, -151.465, -102.189, 77.4574
7.39155, 80, -0.55382, 5.40996, 23.2168, -151.492, -102.08, 76.8895
7.39959, 80, -0.456682, 5.2187, 23.2917, -151.52, -101.952, 76.3327
7.40774, 80, -0.359578, 5.01083, 23.3747, -151.55, -101.805, 75.7867
7.41697, 80, -0.214158, 4.66558, 23.5147, -151.597, -101.55, 74.9882
7.42254, 80, -0.165689, 4.54158, 23.5657, -151.614, -101.456, 74.7279
7.43343, 81, -0.0207746, 4.14517, 23.7315, -151.665, -101.144, 73.9624
7.44242, 81, 0.0754623, 3.86019, 23.8532, -151.7, -100.913, 73.4643
7.44755, 81, 0.123515, 3.7117, 23.9175, -151.717, -100.79, 73.2189
7.45729, 81, 0.219403, 3.4026, 24.1248, -151.772, -100.394, 72.4978
7.46372, 82, 0.315006, 3.07628, 24.1987, -151.791, -100.253, 72.2627
7.47158, 82, 0.41052, 2.73378, 24.3533, -151.827, -99.9564, 71.7997
7.48206, 82, 0.55341, 2.18972, 24.6018, -151.883, -99.4772, 71.1242
7.4876, 82, 0.600946, 2.00044, 24.6892, -151.901, -99.3088, 70.9041
7.49657, 82, 0.695935, 1.60903, 24.8713, -151.937, -98.9587, 70.4712
7.50355, 82, 0.790682, 1.20101, 25.0626, -151.972, -98.5913, 70.0487
7.51168, 83, 0.885415, 0.777164, 25.2632, -152.007, -98.2069, 69.6351
7.51955, 83, 0.979997, 0.338285, 25.4746, -152.042, -97.8056, 69.2306
7.52753, 83, 1.07471, -0.115871, 25.6966, -152.076, -97.3877, 68.8349
7.5384, 83, 1.21699, -0.825774, 26.0469, -152.124, -96.7296, 68.2567
7.54388, 83, 1.26447, -1.07, 26.169, -152.139, -96.5021, 68.0681
7.55154, 84, 1.35969, -1.56948, 26.4214, -152.169, -96.0343, 67.6971
7.55957, 84, 1.45509, -2.08302, 26.6839, -152.199, -95.5507, 67.3333
7.56761, 84, 1.55065, -2.61031, 26.9576, -152.226, -95.0506, 66.9768
7.57555, 84, 1.64658, -3.15144, 27.241, -152.252, -94.5345, 66.6279
7.58353, 84, 1.74289, -3.70585, 27.5352, -152.275, -94.0039, 66.2863
7.59173, 85, 1.83971, -4.27348, 27.8391, -152.297, -93.4581, 65.9523
7.60069, 85, 1.93676, -4.85298, 28.1531, -152.318, -92.898, 65.6272
7.60753, 85, 2.03432, -5.44263, 28.4761, -152.336, -92.325, 65.3105
7.61927, 85, 2.18158, -6.34428, 28.9769, -152.358, -91.4469, 64.852
7.62368, 85, 2.23096, -6.64858, 29.1479, -152.364, -91.1494, 64.7039
7.63162, 86, 2.33027, -7.26265, 29.4961, -152.374, -90.5472, 64.4152
7.63965, 86, 2.43033, -7.88298, 29.8512, -152.381, -89.9362, 64.1371
7.64767, 86, 2.53141, -8.50893, 30.2131, -152.385, -89.3172, 63.8696
7.65633, 86, 2.63338, -9.14114, 30.5804, -152.387, -88.6918, 63.6136
7.66361, 86, 2.73626, -9.77894, 30.9536, -152.386, -88.0626, 63.3691
7.67179, 87, 2.84048, -10.4215, 31.3325, -152.381, -87.4278, 63.136
7.67958, 87, 2.94528, -11.0677, 31.7172, -152.373, -86.7861, 62.9142
7.68769, 87, 3.05086, -11.7172, 32.1074, -152.361, -86.1376, 62.704
7.69672, 87, 3.15729, -12.3696, 32.503, -152.346, -85.4827, 62.5059
7.70364, 87, 3.26412, -13.0239, 32.9046, -152.326, -84.8234, 62.3201
7.71197, 88, 3.37152, -13.6805, 33.3114, -152.302, -84.1589, 62.1469
7.7201, 88, 3.47963, -14.339, 33.7228, -152.274, -83.4896, 61.9875
7.72836, 88, 3.58831, -14.9995, 34.1386, -152.243, -82.8169, 61.842
7.73919, 88, 3.69777, -15.66, 34.5577, -152.207, -82.1415, 61.7114
7.74363, 88, 3.80781, -16.3197, 34.9798, -152.166, -81.4655, 61.5966
7.75158, 88, 3.91812, -16.9772, 35.4043, -152.12, -80.79, 61.498
7.76039, 89, 4.02869, -17.6312, 35.8299, -152.071, -80.1152, 61.4174
7.7678, 89, 4.13946, -18.2815, 36.2563, -152.015, -79.44, 61.3546
7.781, 89, 4.30638, -19.25, 36.8966, -151.923, -78.4273, 61.2959
7.78422, 89, 4.3622, -19.5707, 37.1098, -151.889, -78.0913, 61.286
7.79205, 89, 4.47393, -20.2082, 37.5358, -151.819, -77.4222, 61.2805
7.80073, 90, 4.58621, -20.8416, 37.9613, -151.743, -76.7542, 61.2976
7.80814, 90, 4.69879, -21.4709, 38.387, -151.661, -76.0864, 61.338
7.81704, 90, 4.81108, -22.096, 38.8125, -151.573, -75.4198, 61.4016
7.82406, 90, 4.92308, -22.7174, 39.238, -151.48, -74.7549, 61.4898
7.83236, 90, 5.03469, -23.3351, 39.6638, -151.38, -74.0919, 61.6042
7.84088, 91, 5.14612, -23.9493, 40.0897, -151.274, -73.4282, 61.7455
7.84812, 91, 5.20176, -24.2547, 40.3027, -151.218, -72.7637, 61.9154
7.85618, 91, 5.31267, -24.8621, 40.7289, -151.102, -72.0993, 62.1139
7.86358, 91, 5.42307, -25.4643, 41.1539, -150.978, -71.7666, 62.2244
7.87153, 91, 5.53291, -26.0598, 41.5779, -150.848, -71.1018, 62.4681
7.88307, 92, 5.69714, -26.9391, 42.2106, -150.642, -70.1089, 62.8924
7.88749, 92, 5.75204, -27.2281, 42.4199, -150.57, -69.779, 63.0495
7.89552, 92, 5.86233, -27.7997, 42.8357, -150.422, -69.121, 63.387
7.90353, 92, 5.97317, -28.3622, 43.2463, -150.27, -68.4662, 63.7564
7.91153, 92, 6.08485, -28.9149, 43.6518, -150.113, -67.8154, 64.1581
7.91961, 93, 6.19774, -29.4568, 44.0511, -149.952, -67.1713, 64.5918
7.92752, 93, 6.31218, -29.9887, 44.4437, -149.79, -66.5326, 65.0588
7.93774, 93, 6.42845, -30.5108, 44.8306, -149.625, -65.8978, 65.5583
7.94357, 93, 6.54682, -31.0242, 45.2117, -149.46, -65.2666, 66.0919
7.95152, 93, 6.66713, -31.5308, 45.5879, -149.293, -64.6377, 66.662
7.96317, 94, 6.85166, -32.279, 46.1437, -149.044, -63.6963, 67.5924
7.96753, 94, 6.91439, -32.5258, 46.3273, -148.96, -63.3812, 67.9244
7.97558, 94, 7.04174, -33.0156, 46.6924, -148.794, -62.7477, 68.6255
7.9853, 94, 7.17124, -33.4974, 47.0548, -148.628, -62.1098, 69.772
7.99152, 94, 7.30354, -33.9709, 47.414, -148.465, -61.4667, 70.1786
8.00141, 95, 7.43965, -34.436, 47.7674, -148.307, -60.8202, 71.4758
8.0076, 95, 7.58046, -34.8907, 48.1133, -148.157, -60.1757, 71.9317
8.01553, 95, 7.72695, -35.3344, 48.4491, -148.018, -59.5348, 72.8725
8.02352, 95, 7.8795, -35.765, 48.7737, -147.891, -58.8995, 73.8543
8.03157, 95, 8.03863, -36.1802, 49.0847, -147.779, -58.2711, 74.8711
8.03952, 95, 8.20459, -36.5763, 49.3807, -147.685, -57.6505, 75.923
8.04754, 96, 8.37733, -36.9531, 49.6613, -147.608, -57.0413, 77.0075
8.05552, 96, 8.55633, -37.3081, 49.9252, -147.551, -56.4454, 78.1245
8.06359, 96, 8.7404, -37.6399, 50.1731, -147.515, -55.8624, 79.2697
8.07152, 96, 8.92939, -37.9464, 50.403, -147.498, -55.2942, 80.4381
8.07952, 96, 9.12221, -38.2279, 50.6136, -147.502, -54.7445, 81.6209
8.08782, 97, 9.31734, -38.4851, 50.8051, -147.528, -54.2163, 82.8165
8.09552, 97, 9.51351, -38.7173, 50.9766, -147.576, -53.7128, 84.019
8.10352, 97, 9.70958, -38.9252, 51.1272, -147.645, -53.2354, 85.2206
8.11167, 97, 9.90468, -39.1091, 51.2581, -147.732, -52.7867, 86.4101
8.11953, 97, 10.0982, -39.2674, 51.3693, -147.836, -52.3675, 87.5847
8.12753, 97, 10.2886, -39.3998, 51.4611, -147.954, -51.9788, 88.7362
8.13554, 97, 10.4754, -39.5067, 51.5343, -148.084, -51.6205, 89.8598
8.14357, 98, 10.6596, -39.5886, 51.5893, -148.225, -51.2921, 90.9523
8.15159, 98, 10.8416, -39.6469, 51.6265, -148.376, -50.9925, 92.0194
8.15952, 98, 11.022, -39.6824, 51.6462, -148.538, -50.719, 93.0698
8.16776, 98, 11.2003, -39.6946, 51.6488, -148.712, -50.4683, 94.1185
8.17556, 98, 11.3763, -39.6831, 51.6344, -148.898, -50.2382, 95.1731
8.18546, 98, 11.5516, -39.6478, 51.6022, -149.098, -50.028, 96.2445
8.19158, 99, 11.7265, -39.5889, 51.5522, -149.31, -49.8388, 97.3319
8.19968, 99, 11.8999, -39.507, 51.4839, -149.533, -49.6726, 98.4347
8.20762, 99, 12.0705, -39.4026, 51.3971, -149.766, -49.5325, 99.5419
8.21563, 99, 12.2378, -39.276, 51.292, -150.005, -49.4211, 100.647
8.2237, 99, 12.4005, -39.1272, 51.1692, -150.248, -49.3404, 101.737
8.2343, 99, 12.5567, -38.9568, 51.03, -150.49, -49.2899, 102.805
8.23993, 100, 12.7051, -38.7638, 50.8755, -150.729, -49.27, 103.843
8.24755, 100, 12.845, -38.5462, 50.7054, -150.965, -49.2806, 104.851
8.25556, 100, 12.9763, -38.3052, 50.5184, -151.195, -49.3225, 105.83
8.26368, 100, 13.0989, -38.0409, 50.3151, -151.419, -49.394, 106.783
8.27172, 100, 13.2136, -37.7545, 50.0948, -151.637, -49.4969, 107.715
8.28012, 100, 13.3206, -37.4458, 49.8554, -151.85, -49.6304, 108.626
8.28783, 100, 13.4196, -37.1123, 49.5977, -152.056, -49.7949, 109.52
8.29586, 101, 13.5111, -36.7537, 49.3219, -152.255, -49.9905, 110.395
8.30405, 101, 13.5951, -36.3685, 49.0274, -152.446, -50.2173, 111.252
8.31205, 101, 13.6713, -35.9574, 48.7147, -152.629, -50.4754, 112.09
8.3201, 101, 13.7393, -35.5214, 48.383, -152.801, -50.7655, 112.906
8.32895, 101, 13.7985, -35.0617, 48.0337, -152.963, -51.088, 113.701
8.34168, 102, 13.87, -34.3287, 47.4777, -153.184, -51.6337, 114.846
8.34414, 102, 13.8889, -34.0722, 47.2838, -153.251, -51.8319, 115.215
8.353, 102, 13.9052, -33.8093, 46.8843, -153.376, -52.2522, 115.934
8.35951, 102, 13.9305, -33.2655, 46.6788, -153.432, -52.4745, 116.283
8.36756, 102, 13.9465, -32.6993, 46.2573, -153.536, -52.9427, 116.959
8.37551, 102, 13.9538, -32.1111, 45.8216, -153.625, -53.4405, 117.61
8.38352, 103, 13.9535, -31.5019, 45.3718, -153.7, -53.9659, 118.234
8.39153, 103, 13.9463, -30.8736, 44.9086, -153.762, -54.5174, 118.831
8.39951, 103, 13.9326, -30.2279, 44.4332, -153.81, -55.0928, 119.404
8.40754, 103, 13.9133, -29.5665, 43.9469, -153.845, -55.6892, 119.951
8.41551, 103, 13.8885, -28.8905, 43.4518, -153.869, -56.305, 120.473
8.42372, 104, 13.859, -28.2023, 42.9499, -153.881, -56.9367, 120.969
8.43156, 104, 13.8253, -27.5043, 42.4431, -153.883, -57.5805, 121.439
8.43951, 104, 13.7876, -26.7985, 41.9334, -153.875, -58.2371, 121.886
8.44756, 104, 13.7461, -26.0861, 41.4216, -153.856, -58.9061, 122.31
8.45556, 104, 13.7019, -25.3694, 40.9095, -153.83, -59.5849, 122.715
8.46352, 104, 13.6557, -24.6505, 40.3977, -153.795, -60.2713, 123.102
8.47151, 104, 13.6079, -23.9298, 39.8864, -153.753, -60.9628, 123.475
8.48104, 104, 13.5585, -23.2075, 39.3763, -153.704, -61.6592, 123.839
8.48751, 104, 13.508, -22.4845, 38.8675, -153.652, -62.3595, 124.197
8.4965, 104, 13.457, -21.761, 38.3605, -153.593, -63.0619, 124.55
8.50361, 104, 13.4054, -21.0375, 37.855, -153.531, -63.7656, 124.9
8.51255, 104, 13.3534, -20.3147, 37.3507, -153.463, -64.4693, 125.249
8.51951, 104, 13.3013, -19.5914, 36.8485, -153.392, -65.1744, 125.597
8.52758, 104, 13.249, -18.8678, 36.3484, -153.317, -65.8808, 125.942
8.53551, 104, 13.1967, -18.1442, 35.8502, -153.239, -66.5882, 126.288
8.54352, 104, 13.1447, -17.4201, 35.3543, -153.155, -67.2966, 126.633
8.55158, 104, 13.0929, -16.6955, 34.8604, -153.069, -68.004, 126.977
8.55952, 104, 13.0415, -15.9712, 34.3686, -152.978, -68.7119, 127.321
8.56751, 104, 12.9905, -15.2468, 33.879, -152.883, -69.422, 127.665
8.57567, 104, 12.9397, -14.5217, 33.3916, -152.784, -70.1333, 128.008
8.58352, 104, 12.8893, -13.796, 32.907, -152.682, -70.8437, 128.351
8.59151, 104, 12.8394, -13.0704, 32.425, -152.576, -71.5534, 128.695
8.59957, 104, 12.7897, -12.3445, 31.9456, -152.466, -72.2649, 129.039
8.60751, 104, 12.7403, -11.6192, 31.4691, -152.352, -72.9775, 129.384
8.61555, 104, 12.6912, -10.8942, 30.9948, -152.234, -73.69, 129.729
8.62358, 104, 12.6425, -10.1686, 30.523, -152.112, -74.4031, 130.075
8.63152, 104, 12.594, -9.44285, 30.0545, -151.986, -75.1158, 130.421
8.6395, 104, 12.546, -8.71708, 29.589, -151.856, -75.8293, 130.769
8.64762, 104, 12.4986, -7.99089, 29.1266, -151.722, -76.5437, 131.117
8.65562, 104, 12.4516, -7.26519, 28.6676, -151.584, -77.259, 131.467
8.66352, 104, 12.4054, -6.54003, 28.212, -151.442, -77.9742, 131.818
8.67157, 104, 12.3598, -5.81542, 27.7597, -151.296, -78.688, 132.17
8.67957, 104, 12.3145, -5.09119, 27.311, -151.145, -79.4021, 132.523
8.68765, 104, 12.2702, -4.36837, 26.8666, -150.99, -80.117, 132.877
8.69559, 104, 12.2269, -3.64753, 26.427, -150.832, -80.8317, 133.232
8.70406, 104, 12.1845, -2.93128, 25.9924, -150.669, -81.5431, 133.588
8.71166, 104, 12.1435, -2.22109, 25.5638, -150.503, -82.25, 133.945
8.71961, 104, 12.1038, -1.51763, 25.142, -150.334, -82.9539, 134.3
8.72756, 104, 12.0649, -0.822501, 24.7286, -150.162, -83.6512, 134.654
8.73567, 104, 12.027, -0.137254, 24.3244, -149.988, -84.3388, 135.005
8.74355, 104, 11.9901, 0.537779, 23.9306, -149.812, -85.0146, 135.353
8.75154, 104, 11.9542, 1.20066, 23.5489, -149.637, -85.6763, 135.695
8.75967, 104, 11.9195, 1.85056, 23.1794, -149.46, -86.3239, 136.032
8.76833, 104, 11.8861, 2.48566, 22.823, -149.285, -86.9563, 136.363
8.77573, 104, 11.8535, 3.10465, 22.4786, -149.109, -87.5728, 136.687
8.78389, 104, 11.8224, 3.70782, 22.1475, -148.935, -88.1737, 137.004
8.79179, 104, 11.7925, 4.29417, 21.8289, -148.763, -88.7567, 137.315
8.79996, 104, 11.7638, 4.86401, 21.523, -148.591, -89.3221, 137.62
8.80796, 104, 11.7366, 5.41688, 21.2284, -148.421, -89.8719, 137.917
8.81614, 104, 11.7103, 5.95221, 20.9458, -148.253, -90.4059, 138.206
8.82405, 104, 11.6852, 6.47088, 20.6752, -148.087, -90.9234, 138.489
8.83212, 104, 11.6614, 6.97275, 20.416, -147.924, -91.4246, 138.765
8.84011, 104, 11.6387, 7.45753, 20.1687, -147.763, -91.9084, 139.033
8.84885, 104, 11.6278, 7.6938, 19.932, -147.606, -92.3751, 139.293
8.85614, 104, 11.6068, 8.15408, 19.8176, -147.528, -92.6023, 139.545
8.86474, 104, 11.587, 8.59731, 19.5975, -147.375, -93.0443, 139.669
8.87149, 104, 11.5683, 9.02283, 19.3883, -147.225, -93.4698, 139.91
8.87949, 104, 11.5507, 9.43155, 19.1889, -147.08, -93.8783, 140.142
8.88755, 104, 11.5342, 9.82249, 19.0001, -146.938, -94.2699, 140.366
8.89551, 104, 11.5188, 10.1952, 18.8222, -146.801, -94.6435, 140.581
8.90351, 104, 11.5044, 10.5487, 18.6545, -146.669, -94.9989, 140.786
8.91155, 104, 11.491, 10.8832, 18.4972, -146.543, -95.3353, 140.981
8.91949, 104, 11.4786, 11.198, 18.3509, -146.423, -95.6517, 141.166
8.92749, 104, 11.4673, 11.4921, 18.2155, -146.309, -95.9478, 141.339
8.93554, 104, 11.457, 11.7658, 18.0903, -146.203, -96.223, 141.501
8.9435, 104, 11.4477, 12.0182, 17.9758, -146.103, -96.4766, 141.651
8.95154, 104, 11.4391, 12.2492, 17.8719, -146.012, -96.7085, 141.788
8.95949, 104, 11.4312, 12.4595, 17.7784, -145.928, -96.9183, 141.913
8.96749, 104, 11.4241, 12.6486, 17.6954, -145.853, -97.1062, 142.025
8.97714, 104, 11.4179, 12.8164, 17.5898, -145.757, -97.3466, 142.168
8.98355, 104, 11.4122, 12.9639, 17.5595, -145.729, -97.4158, 142.21
8.9915, 104, 11.407, 13.092, 17.5061, -145.679, -97.5379, 142.283
8.99956, 104, 11.4023, 13.2014, 17.4618, -145.638, -97.6396, 142.344
9.00854, 104, 11.398, 13.2927, 17.4259, -145.605, -97.7216, 142.393
9.01549, 104, 11.3941, 13.368, 17.3977, -145.578, -97.786, 142.432
9.02358, 104, 11.3905, 13.4291, 17.3765, -145.558, -97.8338, 142.461
9.0315, 104, 11.3874, 13.4777, 17.3611, -145.543, -97.8687, 142.482
9.03949, 104, 11.3848, 13.515, 17.3504, -145.533, -97.8929, 142.497
9.04755, 104, 11.3826, 13.5428, 17.3436, -145.526, -97.909, 142.505
9.05549, 104, 11.3809, 13.5635, 17.3393, -145.522, -97.9187, 142.511
9.0635, 104, 11.3796, 13.578, 17.3369, -145.52, -97.924, 142.513
9.07156, 104, 11.3786, 13.5878, 17.3357, -145.519, -97.9267, 142.515
9.07946, 105, 11.3779, 13.5944, 17.3351, -145.519, -97.928, 142.515
9.08749, 105, 11.3774, 13.5987, 17.3348, -145.519, -97.9285, 142.516
9.09556, 105, 11.377, 13.6016, 17.3346, -145.518, -97.9288, 142.516
9.1035, 105, 11.3767, 13.6038, 17.3346, -145.518, -97.9289, 142.516
9.11149, 105, 11.3765, 13.6056, 17.3346, -145.518, -97.9289, 142.516
9.11961, 105, 11.3763, 13.6073, 17.3346, -145.518, -97.9289, 142.516
9.12749, 105, 11.3762, 13.6087, 17.3346, -145.518, -97.9289, 142.516
9.13549, 105, 11.3761, 13.6099, 17.3346, -145.518, -97.9288, 142.516
9.14358, 105, 11.376, 13.6109, 17.3346, -145.518, -97.9286, 142.516
9.15155, 105, 11.3759, 13.6118, 17.3346, -145.518, -97.9286, 142.516
9.15949, 105, 11.3759, 13.6125, 17.3346, -145.518, -97.9284, 142.516
9.16756, 105, 11.3759, 13.613, 17.3347, -145.518, -97.9283, 142.516
9.17549, 105, 11.3759, 13.6133, 17.3347, -145.518, -97.9281, 142.516
9.18353, 105, 11.3759, 13.6134, 17.3348, -145.519, -97.928, 142.516
9.19164, 105, 11.3759, 13.6135, 17.3348, -145.519, -97.9278, 142.516
9.19985, 105, 11.3758, 13.6135, 17.3349, -145.519, -97.9277, 142.516
