hehonglu123/Motion-Primitive-Planning/ILC/recorded_data/realrobot/wood/iteration_7/run_1.csv
timestamp, cmd_num, J1, J2, J3, J4, J5, J6
0.000372, -1, 11.3757, 13.6141, 17.3366, -145.52, -97.9257, 142.516
0.004259, -1, 11.3757, 13.6141, 17.3366, -145.52, -97.9257, 142.516
0.008076, -1, 11.3757, 13.6141, 17.3366, -145.521, -97.9257, 142.516
0.028392, -1, 11.3757, 13.6141, 17.3366, -145.521, -97.9257, 142.516
0.032749, -1, 11.3757, 13.6141, 17.3366, -145.521, -97.9257, 142.516
0.03481, -1, 11.3757, 13.6141, 17.3366, -145.521, -97.9257, 142.516
0.039915, -1, 11.3757, 13.6141, 17.3366, -145.52, -97.9257, 142.516
0.047876, -1, 11.3757, 13.6141, 17.3366, -145.521, -97.9257, 142.516
0.055927, -1, 11.3751, 13.6141, 17.3366, -145.521, -97.9257, 142.516
0.06384, -1, 11.3724, 13.6139, 17.3365, -145.52, -97.9257, 142.516
0.071878, -1, 11.3659, 13.6132, 17.3364, -145.521, -97.9257, 142.515
0.079922, -1, 11.3547, 13.6114, 17.3359, -145.521, -97.9256, 142.514
0.087873, -1, 11.3372, 13.608, 17.3352, -145.523, -97.9254, 142.505
0.095862, -1, 11.3102, 13.602, 17.3343, -145.526, -97.9247, 142.484
0.103932, -1, 11.2718, 13.5928, 17.3338, -145.533, -97.9228, 142.443
0.111856, -1, 11.2216, 13.5805, 17.3339, -145.545, -97.9193, 142.378
0.119856, -1, 11.1599, 13.565, 17.3355, -145.562, -97.9137, 142.282
0.128393, -1, 11.0865, 13.546, 17.3396, -145.585, -97.9059, 142.151
0.134865, -1, 11.0012, 13.5229, 17.346, -145.614, -97.8958, 141.986
0.143906, -1, 10.9043, 13.4966, 17.3545, -145.648, -97.8836, 141.788
0.152717, -1, 10.7967, 13.4669, 17.365, -145.687, -97.8698, 141.562
0.159851, -1, 10.6781, 13.4341, 17.3762, -145.729, -97.855, 141.316
0.167868, -1, 10.5491, 13.3984, 17.3874, -145.774, -97.8396, 141.055
0.176835, -1, 10.4109, 13.3604, 17.3981, -145.82, -97.8237, 140.786
0.18386, -1, 10.266, 13.3208, 17.4083, -145.867, -97.8075, 140.511
0.191856, -1, 10.1165, 13.2804, 17.4184, -145.914, -97.7909, 140.234
0.200729, -1, 9.9641, 13.2393, 17.4285, -145.962, -97.774, 139.956
0.207904, -1, 9.80941, 13.198, 17.4385, -146.01, -97.7567, 139.677
0.21593, -1, 9.65382, 13.1565, 17.4486, -146.058, -97.7395, 139.398
0.225026, -1, 9.49859, 13.1153, 17.4585, -146.106, -97.7225, 139.118
0.231955, -1, 9.34382, 13.0741, 17.4684, -146.154, -97.7057, 138.839
0.240029, -1, 9.18937, 13.033, 17.4784, -146.202, -97.6889, 138.559
0.248233, -1, 9.03538, 12.9919, 17.4884, -146.25, -97.6722, 138.28
0.256039, -1, 8.88165, 12.9509, 17.4985, -146.298, -97.6553, 138
0.26285, -1, 8.8048, 12.9304, 17.5036, -146.322, -97.6468, 137.86
0.27267, -1, 8.57501, 12.8687, 17.5188, -146.394, -97.6208, 137.44
0.279959, -1, 8.42225, 12.8275, 17.5289, -146.442, -97.6033, 137.16
0.287897, -1, 8.26931, 12.7862, 17.539, -146.489, -97.5859, 136.88
0.296504, -1, 8.11589, 12.7446, 17.5492, -146.537, -97.5689, 136.6
0.304282, -1, 7.96202, 12.703, 17.5594, -146.586, -97.5522, 136.32
0.310848, -1, 7.88485, 12.6821, 17.5645, -146.61, -97.5438, 136.179
0.321199, -1, 7.65268, 12.6196, 17.5796, -146.681, -97.5189, 135.759
0.326851, -1, 7.57523, 12.5988, 17.5847, -146.705, -97.5105, 135.619
0.336363, -1, 7.34271, 12.5364, 17.5999, -146.777, -97.485, 135.199
0.344377, -1, 7.18773, 12.4949, 17.6101, -146.825, -97.4676, 134.918
0.478831, -1, 4.6301, 11.81, 17.7807, -147.619, -97.186, 130.287
0.480095, -1, 4.6301, 11.81, 17.7807, -147.619, -97.186, 130.287
0.482128, -1, 4.5522, 11.7893, 17.786, -147.643, -97.1773, 130.147
0.483333, -1, 4.5522, 11.7893, 17.786, -147.643, -97.1773, 130.147
0.48533, -1, 4.5522, 11.7893, 17.786, -147.643, -97.1773, 130.006
0.486707, -1, 4.47434, 11.7686, 17.7912, -147.667, -97.1685, 130.006
0.48797, -1, 4.47434, 11.7686, 17.7912, -147.667, -97.1685, 130.006
0.491925, -1, 4.39657, 11.7478, 17.7963, -147.691, -97.1599, 129.866
0.494186, -1, 4.31886, 11.7271, 17.8015, -147.716, -97.1513, 129.725
0.495402, -1, 4.31886, 11.7271, 17.8015, -147.716, -97.1513, 129.725
0.496689, -1, 4.31886, 11.7271, 17.8015, -147.716, -97.1513, 129.725
0.498761, -1, 4.24119, 11.7064, 17.8068, -147.74, -97.1427, 129.585
0.500038, -1, 4.24119, 11.7064, 17.8068, -147.74, -97.1427, 129.585
0.502845, -1, 4.16358, 11.6856, 17.812, -147.764, -97.1341, 129.444
0.504068, -1, 4.16358, 11.6856, 17.812, -147.764, -97.1341, 129.444
0.510444, -1, 4.0087, 11.6442, 17.8223, -147.812, -97.1172, 129.163
0.511745, -1, 4.0087, 11.6442, 17.8223, -147.812, -97.1172, 129.163
0.513707, -1, 4.0087, 11.6235, 17.8275, -147.836, -97.1088, 129.022
0.515949, -1, 3.93142, 11.6235, 17.8275, -147.836, -97.1088, 129.022
0.517912, -1, 3.8542, 11.6027, 17.8326, -147.861, -97.1004, 128.882
0.519297, -1, 3.8542, 11.6027, 17.8326, -147.861, -97.1004, 128.882
0.520482, -1, 3.8542, 11.6027, 17.8326, -147.861, -97.1004, 128.882
0.528863, -1, 3.69984, 11.5612, 17.843, -147.909, -97.0835, 128.6
0.535903, -1, 3.54537, 11.5196, 17.8533, -147.957, -97.0665, 128.319
0.54385, -1, 3.39072, 11.4779, 17.8637, -148.006, -97.0491, 128.037
0.551897, -1, 3.23576, 11.4362, 17.8742, -148.054, -97.0316, 127.756
0.559908, -1, 3.0806, 11.3944, 17.8846, -148.102, -97.014, 127.475
0.567838, -1, 2.9253, 11.3526, 17.895, -148.15, -96.9968, 127.193
0.575972, -1, 2.76975, 11.3108, 17.9053, -148.199, -96.9798, 126.911
0.58391, -1, 2.61386, 11.2691, 17.9157, -148.247, -96.963, 126.63
0.59184, -1, 2.45776, 11.2273, 17.9261, -148.295, -96.9463, 126.348
0.599858, -1, 2.30136, 11.1856, 17.9365, -148.344, -96.9294, 126.066
0.60791, -1, 2.14469, 11.1439, 17.9469, -148.391, -96.9123, 125.784
0.615841, -1, 1.98794, 11.1021, 17.9573, -148.44, -96.8949, 125.503
0.623861, -1, 1.83141, 11.0605, 17.9677, -148.489, -96.8774, 125.221
0.631908, -1, 1.67498, 11.0189, 17.9781, -148.537, -96.86, 124.939
0.772693, -1, -1.05479, 10.2873, 18.1606, -149.385, -96.5602, 119.994
0.774108, -1, -1.05479, 10.2873, 18.1606, -149.385, -96.5602, 119.994
0.776205, -1, -1.13339, 10.2664, 18.1658, -149.409, -96.5517, 119.853
0.777409, -1, -1.13339, 10.2664, 18.1658, -149.409, -96.5517, 119.853
0.778769, -1, -1.13339, 10.2664, 18.1658, -149.409, -96.5517, 119.853
0.782925, -1, -1.21199, 10.2454, 18.171, -149.434, -96.5432, 119.711
0.784997, -1, -1.29051, 10.2245, 18.1761, -149.458, -96.5348, 119.569
0.788251, -1, -1.36893, 10.2036, 18.1813, -149.483, -96.5264, 119.428
0.789494, -1, -1.36893, 10.2036, 18.1813, -149.483, -96.5264, 119.428
0.790787, -1, -1.36893, 10.2036, 18.1813, -149.483, -96.5264, 119.428
0.792762, -1, -1.44734, 10.1827, 18.1864, -149.507, -96.5181, 119.286
0.79403, -1, -1.44734, 10.1827, 18.1864, -149.507, -96.5181, 119.286
0.795889, -1, -1.52571, 10.1618, 18.1917, -149.531, -96.5097, 119.144
0.797434, -1, -1.52571, 10.1618, 18.1917, -149.531, -96.5097, 119.144
0.798764, -1, -1.52571, 10.1618, 18.1917, -149.531, -96.5097, 119.144
0.806729, -1, -1.68206, 10.12, 18.2023, -149.58, -96.4927, 118.861
0.808856, -1, -1.76008, 10.0991, 18.2075, -149.604, -96.4841, 118.72
0.810074, -1, -1.76008, 10.0991, 18.2075, -149.604, -96.4841, 118.72
0.811927, -1, -1.76008, 10.0991, 18.2075, -149.629, -96.4755, 118.578
0.813298, -1, -1.83799, 10.0781, 18.2127, -149.629, -96.4755, 118.578
0.814483, -1, -1.83799, 10.0781, 18.2127, -149.629, -96.4755, 118.578
0.816613, -1, -1.9158, 10.0572, 18.2179, -149.653, -96.4668, 118.436
0.820103, -1, -1.9935, 10.0362, 18.2232, -149.677, -96.4579, 118.294
0.822776, -1, -1.9935, 10.0362, 18.2232, -149.677, -96.4579, 118.294
0.832344, -1, -2.22624, 9.97336, 18.2387, -149.75, -96.4315, 117.869
0.840296, -1, -2.38146, 9.93146, 18.2492, -149.799, -96.4143, 117.585
0.84687, -1, -2.45921, 9.91046, 18.2544, -149.823, -96.4057, 117.443
0.856407, -1, -2.69286, 9.84752, 18.27, -149.896, -96.3804, 117.018
0.864414, -1, -2.84909, 9.80559, 18.2804, -149.944, -96.3636, 116.734
0.872481, -1, -3.00574, 9.76357, 18.2908, -149.993, -96.3467, 116.45
0.880444, -1, -3.0842, 9.7426, 18.3011, -150.042, -96.3295, 116.167
0.888388, -1, -3.24135, 9.70067, 18.3064, -150.066, -96.3208, 116.025
0.896538, -1, -3.39895, 9.65867, 18.3169, -150.114, -96.3032, 115.599
0.903841, -1, -3.55679, 9.61667, 18.3274, -150.163, -96.2856, 115.457
0.911826, -1, -3.71465, 9.57482, 18.3377, -150.212, -96.2683, 115.173
0.919892, -1, -3.87267, 9.53287, 18.3481, -150.26, -96.2512, 114.888
0.92784, -1, -4.03059, 9.49086, 18.3585, -150.309, -96.2342, 114.604
0.935826, -1, -4.1884, 9.44894, 18.3689, -150.358, -96.2173, 114.32
0.943882, -1, -4.34613, 9.40697, 18.3792, -150.407, -96.2002, 114.035
0.951877, -1, -4.50358, 9.365, 18.3896, -150.456, -96.1828, 113.751
0.959843, -1, -4.66053, 9.32299, 18.4, -150.505, -96.1651, 113.466
0.967881, -1, -4.81708, 9.28098, 18.4104, -150.553, -96.1474, 113.181
0.975837, -1, -4.97341, 9.23891, 18.421, -150.603, -96.1299, 112.896
0.983878, -1, -5.1294, 9.19688, 18.4315, -150.651, -96.1126, 112.611
0.991892, -1, -5.28527, 9.15479, 18.442, -150.7, -96.0956, 112.327
0.999845, -1, -5.44126, 9.11265, 18.4525, -150.749, -96.0787, 112.042
1.00783, -1, -5.5975, 9.07054, 18.4629, -150.798, -96.0618, 111.757
1.0159, -1, -5.75402, 9.02842, 18.4734, -150.846, -96.0446, 111.472
1.02485, -1, -5.91096, 8.98623, 18.4838, -150.896, -96.0272, 111.188
1.03189, -1, -6.06836, 8.94407, 18.4942, -150.944, -96.0096, 110.903
1.03984, -1, -6.22632, 8.90192, 18.5046, -150.993, -95.992, 110.617
1.04784, -1, -6.38456, 8.85978, 18.5149, -151.042, -95.9747, 110.332
1.0559, -1, -6.54296, 8.81772, 18.5252, -151.091, -95.9576, 110.047
1.06383, -1, -6.70148, 8.77557, 18.5358, -151.14, -95.9406, 109.762
1.07187, -1, -6.86016, 8.73342, 18.5463, -151.189, -95.9237, 109.476
1.07986, -1, -7.01872, 8.69135, 18.5568, -151.238, -95.9065, 109.19
1.08783, -1, -7.17723, 8.64922, 18.5673, -151.287, -95.8891, 108.905
1.0959, -1, -7.33558, 8.60705, 18.5776, -151.336, -95.8714, 108.619
1.10383, -1, -7.49361, 8.56476, 18.5881, -151.385, -95.8536, 108.333
1.11183, -1, -7.65129, 8.52245, 18.5986, -151.434, -95.8361, 108.048
1.11997, -1, -7.80855, 8.48017, 18.609, -151.483, -95.8189, 107.762
1.12782, -1, -7.96551, 8.43787, 18.6194, -151.532, -95.8018, 107.476
1.13584, -1, -8.12222, 8.39551, 18.6298, -151.581, -95.7848, 107.19
1.14431, -1, -8.27877, 8.35317, 18.6403, -151.63, -95.7678, 106.904
1.15187, -1, -8.43548, 8.3108, 18.6509, -151.679, -95.7506, 106.619
1.15985, -1, -8.59243, 8.2684, 18.6614, -151.728, -95.7332, 106.332
1.16862, -1, -8.74981, 8.22612, 18.6719, -151.777, -95.7154, 106.046
1.17582, -1, -8.90749, 8.18378, 18.6822, -151.826, -95.6979, 105.76
1.18386, -1, -9.06561, 8.14145, 18.6926, -151.875, -95.6805, 105.473
1.19269, -1, -9.22418, 8.09918, 18.7031, -151.925, -95.6633, 105.187
1.19984, -1, -9.38298, 8.05687, 18.7135, -151.974, -95.6463, 104.9
1.208, -1, -9.54204, 8.01453, 18.724, -152.023, -95.6292, 104.613
1.21668, -1, -9.70123, 7.97229, 18.7345, -152.073, -95.6118, 104.327
1.2239, -1, -9.86054, 7.93002, 18.745, -152.121, -95.5943, 104.04
1.23221, -1, -10.0199, 7.88761, 18.7557, -152.171, -95.5764, 103.752
1.24042, -1, -10.1791, 7.84518, 18.7663, -152.22, -95.5586, 103.466
1.24793, -1, -10.3382, 7.80268, 18.7769, -152.269, -95.5411, 103.179
1.25638, -1, -10.4972, 7.76012, 18.7874, -152.319, -95.5238, 102.892
1.26474, -1, -10.6557, 7.71765, 18.7978, -152.368, -95.5068, 102.605
1.27183, -1, -10.8138, 7.67509, 18.8083, -152.417, -95.4897, 102.318
1.28059, -1, -10.9716, 7.63247, 18.8188, -152.467, -95.4726, 102.031
1.28889, -1, -11.1293, 7.58996, 18.8292, -152.516, -95.4553, 101.743
1.29588, -1, -11.2867, 7.54749, 18.8397, -152.565, -95.4376, 101.456
1.30478, -1, -11.4441, 7.50501, 18.8502, -152.615, -95.4197, 101.169
1.31203, -1, -11.6017, 7.46252, 18.8607, -152.664, -95.4021, 100.881
1.32014, -1, -11.7595, 7.42009, 18.8713, -152.713, -95.3848, 100.593
1.32681, -1, -11.8386, 7.39888, 18.8766, -152.738, -95.3761, 100.449
1.33488, -1, -11.9972, 7.35644, 18.8872, -152.787, -95.3589, 100.162
1.34437, -1, -12.2358, 7.29285, 18.903, -152.861, -95.3331, 99.7299
1.35316, -1, -12.3953, 7.25044, 18.9135, -152.911, -95.3156, 99.4418
1.35894, -1, -12.4752, 7.22923, 18.9188, -152.936, -95.3068, 99.2978
1.36841, -1, -12.7151, 7.16562, 18.9346, -153.009, -95.2799, 98.866
1.37639, -1, -12.8752, 7.12313, 18.9452, -153.059, -95.262, 98.578
1.3853, -1, -12.9553, 7.10184, 18.9504, -153.108, -95.2444, 98.2899
1.39081, -1, -13.1153, 7.05925, 18.9609, -153.133, -95.2358, 98.1458
1.4009, -1, -13.3551, 6.99534, 18.9768, -153.207, -95.2099, 97.7137
1.40781, -1, -13.4349, 6.97399, 18.9821, -153.232, -95.2014, 97.5695
1.4159, -1, -13.5942, 6.9312, 18.9927, -153.281, -95.1842, 97.2808
1.42381, -1, -13.7533, 6.88846, 19.0032, -153.331, -95.1668, 96.9922
1.43185, -1, -13.9122, 6.84576, 19.0137, -153.38, -95.1492, 96.7039
1.43887, -1, -14.0706, 6.80305, 19.0242, -153.429, -95.1313, 96.4153
1.44781, -1, -14.2288, 6.76045, 19.0348, -153.479, -95.1136, 96.1264
1.45595, -1, -14.3869, 6.71783, 19.0452, -153.528, -95.0961, 95.8372
1.46281, -1, -14.5453, 6.67514, 19.0558, -153.578, -95.0789, 95.5483
1.47181, -1, -14.7039, 6.63261, 19.0664, -153.627, -95.0616, 95.2592
1.47988, -1, -14.8629, 6.59012, 19.0769, -153.677, -95.0445, 94.9697
1.48681, -1, -15.0222, 6.54742, 19.0877, -153.726, -95.0271, 94.6805
1.49582, -1, -15.1819, 6.50483, 19.0984, -153.776, -95.0093, 94.3915
1.50282, -1, -15.342, 6.46229, 19.109, -153.826, -94.9913, 94.1023
1.51181, -1, -15.5024, 6.41957, 19.1197, -153.875, -94.9734, 93.8128
1.51981, -1, -15.6632, 6.3769, 19.1302, -153.926, -94.9557, 93.5236
1.52788, -1, -15.8239, 6.33417, 19.1408, -153.975, -94.9384, 93.2344
1.53686, -1, -15.9847, 6.2913, 19.1515, -154.025, -94.9212, 92.9448
1.54389, -1, -16.1455, 6.24844, 19.1621, -154.075, -94.9041, 92.6549
1.55187, -1, -16.3063, 6.20553, 19.1726, -154.124, -94.8868, 92.3655
1.55982, -1, -16.4668, 6.16251, 19.1831, -154.174, -94.8693, 92.0759
1.56781, -1, -16.6271, 6.11955, 19.1936, -154.224, -94.8515, 91.7857
1.5759, -1, -16.787, 6.07658, 19.2043, -154.273, -94.8336, 91.4954
1.58381, -1, -16.9464, 6.0336, 19.2149, -154.323, -94.8159, 91.2055
1.59186, -1, -17.1058, 5.99064, 19.2255, -154.373, -94.7984, 90.9152
1.59982, -1, -17.2649, 5.9477, 19.2361, -154.422, -94.7811, 90.6248
1.60781, -1, -17.424, 5.90488, 19.2467, -154.472, -94.7638, 90.3344
1.61589, -1, -17.5833, 5.86209, 19.2574, -154.522, -94.7464, 90.0444
1.62387, -1, -17.7426, 5.81927, 19.268, -154.571, -94.7288, 89.7543
1.63181, -1, -17.9022, 5.77653, 19.2787, -154.622, -94.7108, 89.4639
1.63988, -1, -18.0622, 5.73373, 19.2893, -154.672, -94.6926, 89.1734
1.64781, -1, -18.2227, 5.69095, 19.2999, -154.721, -94.6748, 88.883
1.65587, -1, -18.3837, 5.64816, 19.3107, -154.771, -94.6572, 88.5921
1.66387, -1, -18.545, 5.60522, 19.3214, -154.821, -94.6398, 88.3009
1.6718, -1, -18.7065, 5.56225, 19.3321, -154.871, -94.6225, 88.01
1.67984, -1, -18.8681, 5.5193, 19.3427, -154.921, -94.6053, 87.7192
1.68787, -1, -19.0299, 5.47625, 19.3532, -154.971, -94.5878, 87.4279
1.69583, -1, -19.1914, 5.4331, 19.3639, -155.02, -94.5699, 87.1365
1.70381, -1, -19.3529, 5.38993, 19.3745, -155.071, -94.5518, 86.8452
1.71189, -1, -19.5142, 5.34674, 19.385, -155.12, -94.5338, 86.5537
1.71992, -1, -19.6751, 5.30349, 19.3957, -155.17, -94.516, 86.2621
1.72796, -1, -19.8358, 5.26037, 19.4063, -155.221, -94.4985, 85.9702
1.73591, -1, -19.9963, 5.2172, 19.417, -155.27, -94.481, 85.6786
1.74391, -1, -20.1564, 5.17407, 19.4279, -155.32, -94.4636, 85.3873
1.75231, -1, -20.3161, 5.13113, 19.4387, -155.371, -94.446, 85.0954
1.7594, -1, -20.396, 5.10966, 19.4495, -155.421, -94.4283, 84.8034
1.76781, -1, -20.6361, 5.04507, 19.4602, -155.471, -94.4102, 84.5117
1.7766, -1, -20.7964, 5.00215, 19.4709, -155.521, -94.3922, 84.2199
1.78384, -1, -20.9571, 4.95919, 19.4816, -155.571, -94.3744, 83.9277
1.79189, -1, -21.1181, 4.91612, 19.4922, -155.621, -94.3569, 83.6356
1.80084, -1, -21.2796, 4.87307, 19.5029, -155.672, -94.3397, 83.3437
1.80794, -1, -21.4415, 4.82985, 19.5135, -155.722, -94.3224, 83.0514
1.81611, -1, -21.6037, 4.78658, 19.5242, -155.772, -94.3051, 82.7589
1.8228, -1, -21.6848, 4.76498, 19.5296, -155.798, -94.2963, 82.6126
1.83086, -1, -21.8471, 4.72171, 19.5403, -155.847, -94.2785, 82.32
1.84035, -1, -22.0909, 4.65659, 19.5565, -155.923, -94.2515, 81.881
1.84912, -1, -22.2534, 4.61328, 19.5672, -155.973, -94.2336, 81.588
1.8549, -1, -22.3346, 4.59157, 19.5725, -155.998, -94.2248, 81.4416
1.86443, -1, -22.5779, 4.52645, 19.5886, -156.074, -94.1985, 81.0028
1.87321, -1, -22.7396, 4.48301, 19.5992, -156.123, -94.1811, 80.7099
1.87887, -1, -22.8203, 4.46128, 19.6046, -156.148, -94.1724, 80.5635
1.88851, -1, -23.062, 4.39629, 19.6207, -156.224, -94.1456, 80.1242
1.89727, -1, -23.1426, 4.37466, 19.626, -156.249, -94.1366, 79.9776
1.90287, -1, -23.3036, 4.33136, 19.6367, -156.299, -94.1183, 79.6842
1.91284, -1, -23.5449, 4.26652, 19.6531, -156.375, -94.0912, 79.244
1.91987, -1, -23.6254, 4.2449, 19.6584, -156.4, -94.0823, 79.0974
1.92783, -1, -23.7865, 4.20164, 19.6692, -156.45, -94.0646, 78.8041
1.93587, -1, -23.9478, 4.15835, 19.6799, -156.501, -94.047, 78.5103
1.9438, -1, -24.1094, 4.11497, 19.6906, -156.551, -94.0297, 78.2165
1.95085, -1, -24.2716, 4.07159, 19.7014, -156.602, -94.0122, 77.9226
1.95991, -1, -24.4342, 4.02819, 19.7121, -156.652, -93.9943, 77.6286
1.9678, -1, -24.5972, 3.98464, 19.7227, -156.703, -93.9762, 77.3343
1.9748, -1, -24.7604, 3.94103, 19.7333, -156.753, -93.9581, 77.0399
1.98389, -1, -24.9238, 3.8975, 19.7441, -156.804, -93.9403, 76.7462
1.9918, -1, -25.0872, 3.85393, 19.755, -156.854, -93.9226, 76.452
1.99879, -1, -25.2505, 3.81035, 19.7659, -156.904, -93.9051, 76.1576
2.00779, -1, -25.4136, 3.76676, 19.7768, -156.955, -93.8877, 75.8632
2.01583, -1, -25.5765, 3.7231, 19.7875, -157.005, -93.87, 75.5689
2.02479, -1, -25.7392, 3.67952, 19.7982, -157.055, -93.852, 75.2744
2.03179, -1, -25.9016, 3.63606, 19.809, -157.106, -93.8337, 74.9795
2.04081, -1, -26.0638, 3.59249, 19.8198, -157.156, -93.8154, 74.6848
2.04679, -1, -26.2256, 3.54902, 19.8306, -157.207, -93.7972, 74.3904
2.05586, -1, -26.3871, 3.50565, 19.8414, -157.258, -93.7794, 74.0956
2.06381, -1, -26.5488, 3.46216, 19.8521, -157.308, -93.7617, 73.8003
2.07182, -1, -26.7107, 3.41867, 19.8629, -157.359, -93.7441, 73.5052
2.07984, -1, -26.8729, 3.3752, 19.8738, -157.41, -93.7265, 73.21
2.0891, -1, -27.0355, 3.33158, 19.8846, -157.46, -93.7085, 72.9146
2.09581, -1, -27.1983, 3.28795, 19.8954, -157.511, -93.6903, 72.6192
2.10386, -1, -27.3615, 3.24432, 19.9061, -157.561, -93.6719, 72.3239
2.11179, -1, -27.5253, 3.2005, 19.9169, -157.612, -93.6539, 72.0285
2.11985, -1, -27.6891, 3.1568, 19.9277, -157.663, -93.636, 71.7331
2.12791, -1, -27.8532, 3.11313, 19.9385, -157.713, -93.6182, 71.4373
2.1358, -1, -28.0174, 3.06937, 19.9493, -157.764, -93.6006, 71.1419
2.14379, -1, -28.1817, 3.02565, 19.96, -157.815, -93.5828, 70.846
2.15185, -1, -28.3459, 2.98191, 19.9709, -157.865, -93.5647, 70.5498
2.15984, -1, -28.5099, 2.93817, 19.9818, -157.916, -93.5464, 70.2539
2.16779, -1, -28.6737, 2.89449, 19.9927, -157.967, -93.528, 69.9581
2.17588, -1, -28.8372, 2.85079, 20.0035, -158.018, -93.5097, 69.6619
2.18379, -1, -29.0003, 2.80708, 20.0142, -158.069, -93.4918, 69.3653
2.1918, -1, -29.1631, 2.76339, 20.025, -158.12, -93.4741, 69.0688
2.19992, -1, -29.3258, 2.71968, 20.0358, -158.17, -93.4564, 68.7722
2.20779, -1, -29.4885, 2.67597, 20.0466, -158.221, -93.4387, 68.4754
2.21582, -1, -29.6512, 2.63218, 20.0574, -158.272, -93.4207, 68.1785
2.22399, -1, -29.8142, 2.58831, 20.0682, -158.323, -93.4024, 67.8818
2.2319, -1, -29.9773, 2.54456, 20.0791, -158.375, -93.384, 67.5851
2.23994, -1, -30.1406, 2.50065, 20.0902, -158.425, -93.3658, 67.288
2.24796, -1, -30.3044, 2.45663, 20.1012, -158.476, -93.3478, 66.9909
2.2559, -1, -30.4688, 2.41269, 20.1121, -158.527, -93.33, 66.6941
2.26345, -1, -30.6335, 2.36864, 20.1229, -158.578, -93.3123, 66.3969
2.27198, -1, -30.7985, 2.32465, 20.1337, -158.629, -93.2945, 66.0993
2.27985, -1, -30.9636, 2.28069, 20.1446, -158.68, -93.2764, 65.8021
2.28783, -1, -31.1286, 2.2366, 20.1555, -158.731, -93.2581, 65.5049
2.29594, -1, -31.2937, 2.19265, 20.1663, -158.782, -93.2395, 65.2075
2.30405, -1, -31.4586, 2.14877, 20.1771, -158.833, -93.2212, 64.9097
2.31084, -1, -31.5409, 2.12677, 20.1825, -158.859, -93.2121, 64.7608
2.32014, -1, -31.7878, 2.06073, 20.1989, -158.936, -93.1854, 64.3141
2.32679, -1, -31.87, 2.03878, 20.2044, -158.961, -93.1766, 64.1651
2.33618, -1, -32.1161, 1.9728, 20.2208, -159.037, -93.1502, 63.7178
2.34278, -1, -32.1979, 1.9508, 20.2263, -159.063, -93.1413, 63.5689
2.35242, -1, -32.4431, 1.88481, 20.2426, -159.14, -93.1141, 63.1221
2.3605, -1, -32.6068, 1.84065, 20.2536, -159.191, -93.0957, 62.8238
2.36918, -1, -32.7707, 1.79653, 20.2645, -159.243, -93.0774, 62.5255
2.37485, -1, -32.8526, 1.77448, 20.27, -159.268, -93.0683, 62.3765
2.38442, -1, -33.099, 1.70812, 20.2863, -159.345, -93.0415, 61.9287
2.39325, -1, -33.1812, 1.6639, 20.2972, -159.396, -93.0237, 61.6299
2.39885, -1, -33.346, 1.64182, 20.3026, -159.422, -93.0148, 61.4806
2.40782, -1, -33.5113, 1.59761, 20.3136, -159.473, -92.9968, 61.1822
2.41579, -1, -33.6769, 1.55335, 20.3246, -159.525, -92.9786, 60.8835
2.42284, -1, -33.8427, 1.50914, 20.3355, -159.576, -92.96, 60.5844
2.43186, -1, -34.0086, 1.46493, 20.3463, -159.627, -92.9413, 60.2853
2.43984, -1, -34.1746, 1.42077, 20.3573, -159.678, -92.923, 59.9862
2.44686, -1, -34.3407, 1.37659, 20.3682, -159.73, -92.9049, 59.6868
2.45583, -1, -34.5067, 1.33237, 20.3791, -159.781, -92.8871, 59.387
2.46383, -1, -34.6724, 1.2882, 20.3901, -159.833, -92.8693, 59.0877
2.47181, -1, -34.8376, 1.244, 20.401, -159.884, -92.8514, 58.7884
2.47988, -1, -35.0027, 1.19978, 20.4119, -159.935, -92.8332, 58.4888
2.48778, -1, -35.1675, 1.15549, 20.423, -159.987, -92.8147, 58.189
2.4958, -1, -35.332, 1.11118, 20.4341, -160.038, -92.7961, 57.8893
2.50385, -1, -35.4959, 1.06703, 20.4453, -160.09, -92.7778, 57.5895
2.51179, -1, -35.6583, 1.02319, 20.4565, -160.141, -92.7597, 57.2894
2.51984, -1, -35.8177, 0.979969, 20.468, -160.192, -92.7418, 56.9909
2.52881, -1, -35.9732, 0.937869, 20.4799, -160.242, -92.7241, 56.6958
2.53577, -1, -36.1236, 0.897386, 20.4918, -160.292, -92.7066, 56.4065
2.54478, -1, -36.2664, 0.859135, 20.5037, -160.339, -92.6894, 56.1275
2.55186, -1, -36.3996, 0.823834, 20.5152, -160.384, -92.6729, 55.8648
2.55988, -1, -36.5215, 0.791577, 20.5259, -160.425, -92.6578, 55.625
2.56778, -1, -36.6307, 0.762731, 20.5352, -160.46, -92.6446, 55.4134
2.57587, -1, -36.7255, 0.737693, 20.5424, -160.49, -92.6335, 55.2349
2.58378, -1, -36.8055, 0.71645, 20.5475, -160.515, -92.6248, 55.0916
2.5918, -1, -36.8717, 0.698956, 20.5504, -160.534, -92.6183, 54.983
2.59989, -1, -36.925, 0.684943, 20.5518, -160.547, -92.6138, 54.9063
2.60777, -1, -36.9655, 0.674118, 20.5521, -160.556, -92.611, 54.8544
2.61578, -1, -36.995, 0.666325, 20.5519, -160.562, -92.6093, 54.8228
2.62384, -1, -37.0154, 0.661278, 20.5514, -160.565, -92.6084, 54.8049
2.63184, -1, -37.0278, 0.658271, 20.551, -160.567, -92.6079, 54.7959
2.63985, -1, -37.0345, 0.656659, 20.5509, -160.568, -92.6077, 54.7916
2.64784, 2, -37.0367, 0.655922, 20.5508, -160.568, -92.6075, 54.7896
2.65579, 2, -37.0365, 0.655649, 20.5507, -160.568, -92.6075, 54.7887
2.66378, 2, -37.0359, 0.655541, 20.5507, -160.568, -92.6075, 54.7883
2.67186, 2, -37.0357, 0.655507, 20.5507, -160.568, -92.6075, 54.7881
2.67985, 2, -37.0361, 0.655466, 20.5507, -160.568, -92.6075, 54.7881
2.68779, 2, -37.0371, 0.655428, 20.5506, -160.568, -92.6076, 54.7881
2.69585, 2, -37.0382, 0.655321, 20.5504, -160.568, -92.6076, 54.7881
2.70378, 2, -37.0396, 0.655154, 20.5502, -160.568, -92.6076, 54.7882
2.7118, 2, -37.041, 0.654918, 20.5501, -160.568, -92.6077, 54.7882
2.71993, 2, -37.0422, 0.65467, 20.5499, -160.568, -92.6077, 54.7883
2.72789, 2, -37.0432, 0.654469, 20.5497, -160.568, -92.6077, 54.7884
2.73588, 2, -37.0436, 0.654357, 20.5495, -160.568, -92.6078, 54.7885
2.74394, 2, -37.0437, 0.654296, 20.5493, -160.568, -92.6078, 54.7886
2.7519, 2, -37.0432, 0.654315, 20.5492, -160.568, -92.6079, 54.7888
2.75994, 2, -37.0424, 0.65435, 20.5491, -160.568, -92.6079, 54.789
2.76795, 2, -37.0414, 0.654408, 20.549, -160.568, -92.6079, 54.7892
2.77578, 2, -37.0398, 0.654496, 20.549, -160.568, -92.608, 54.7894
2.78381, 2, -37.0384, 0.65459, 20.5489, -160.568, -92.608, 54.7895
2.79189, 2, -37.0373, 0.654641, 20.5488, -160.568, -92.608, 54.7897
2.79992, 2, -37.0367, 0.654653, 20.5488, -160.568, -92.608, 54.7898
2.80683, 2, -37.0366, 0.654641, 20.5488, -160.568, -92.6081, 54.7898
2.816, 2, -37.0365, 0.654593, 20.5488, -160.568, -92.6081, 54.7899
2.82277, 2, -37.0366, 0.654564, 20.5487, -160.568, -92.6081, 54.7899
2.83219, 2, -37.0369, 0.654481, 20.5487, -160.568, -92.6081, 54.79
2.83873, 2, -37.0371, 0.654463, 20.5487, -160.568, -92.6081, 54.79
2.8482, 2, -37.0381, 0.654412, 20.5486, -160.568, -92.608, 54.79
2.85637, 2, -37.0388, 0.6544, 20.5486, -160.568, -92.6081, 54.7901
2.86436, 2, -37.0395, 0.654423, 20.5487, -160.568, -92.6081, 54.7901
2.87233, 2, -37.0398, 0.654442, 20.5486, -160.568, -92.6081, 54.7902
2.88058, 2, -37.04, 0.65447, 20.5486, -160.568, -92.6081, 54.7902
2.88839, 2, -37.0401, 0.654487, 20.5486, -160.568, -92.6082, 54.7902
2.89642, 2, -37.0401, 0.654492, 20.5486, -160.568, -92.6082, 54.7903
2.90377, 2, -37.0399, 0.654498, 20.5486, -160.568, -92.6082, 54.7904
2.91183, 2, -37.0394, 0.6545, 20.5486, -160.568, -92.6081, 54.7904
2.92072, 2, -37.0391, 0.654502, 20.5486, -160.568, -92.6082, 54.7905
2.92777, 2, -37.0389, 0.654502, 20.5486, -160.568, -92.6082, 54.7905
2.93582, 2, -37.0388, 0.654472, 20.5486, -160.568, -92.6082, 54.7905
2.9438, 2, -37.0388, 0.654469, 20.5486, -160.568, -92.6083, 54.7906
2.95178, 2, -37.0387, 0.654433, 20.5486, -160.568, -92.6082, 54.7906
2.95988, 2, -37.0388, 0.654439, 20.5485, -160.568, -92.6082, 54.7907
2.96781, 2, -37.0388, 0.654449, 20.5485, -160.568, -92.6082, 54.7908
2.97578, 2, -37.0388, 0.654453, 20.5485, -160.568, -92.6082, 54.7909
2.98382, 2, -37.0389, 0.654468, 20.5485, -160.568, -92.6083, 54.7909
2.99178, 2, -37.0392, 0.654482, 20.5485, -160.568, -92.6082, 54.7909
2.99983, 2, -37.0393, 0.654493, 20.5485, -160.568, -92.6083, 54.791
3.00785, 2, -37.0394, 0.654498, 20.5485, -160.568, -92.6083, 54.791
3.01576, 2, -37.0394, 0.6545, 20.5485, -160.568, -92.6083, 54.7911
3.02376, 2, -37.0394, 0.654502, 20.5485, -160.568, -92.6083, 54.7912
3.03276, 2, -37.0394, 0.654502, 20.5485, -160.568, -92.6083, 54.7912
3.03982, 2, -37.0394, 0.65449, 20.5484, -160.568, -92.6083, 54.7913
3.04776, 2, -37.0393, 0.654477, 20.5484, -160.568, -92.6083, 54.7913
3.05584, 2, -37.0393, 0.654455, 20.5484, -160.568, -92.6083, 54.7913
3.06381, 2, -37.0393, 0.654449, 20.5484, -160.568, -92.6083, 54.7913
3.07179, 2, -37.0393, 0.654453, 20.5484, -160.568, -92.6083, 54.7914
3.07988, 2, -37.0393, 0.654475, 20.5484, -160.568, -92.6083, 54.7914
3.08776, 2, -37.0393, 0.65449, 20.5484, -160.568, -92.6083, 54.7915
3.09577, 2, -37.0393, 0.654497, 20.5484, -160.568, -92.6083, 54.7915
3.10383, 2, -37.0393, 0.654488, 20.5484, -160.568, -92.6083, 54.7917
3.11178, 2, -37.0393, 0.654496, 20.5484, -160.568, -92.6084, 54.7917
3.11982, 2, -37.0393, 0.654499, 20.5484, -160.568, -92.6084, 54.7917
3.12783, 2, -37.0393, 0.654501, 20.5484, -160.568, -92.6083, 54.7917
3.13581, 2, -37.0393, 0.654502, 20.5484, -160.568, -92.6084, 54.7918
3.14376, 2, -37.0392, 0.654502, 20.5483, -160.568, -92.6084, 54.7919
3.15184, 2, -37.0392, 0.654502, 20.5483, -160.568, -92.6084, 54.792
3.15981, 2, -37.0392, 0.654495, 20.5483, -160.568, -92.6084, 54.7919
3.16776, 2, -37.0392, 0.654494, 20.5483, -160.568, -92.6083, 54.792
3.17583, 2, -37.0392, 0.654499, 20.5483, -160.568, -92.6083, 54.792
3.18376, 2, -37.0392, 0.654501, 20.5483, -160.568, -92.6084, 54.7921
3.19178, 2, -37.0392, 0.654489, 20.5483, -160.568, -92.6084, 54.7921
3.19992, 2, -37.0392, 0.654497, 20.5483, -160.568, -92.6084, 54.7921
3.20777, 2, -37.0392, 0.6545, 20.5483, -160.568, -92.6084, 54.7922
3.21578, 2, -37.0392, 0.654501, 20.5483, -160.568, -92.6084, 54.7922
3.22386, 2, -37.0392, 0.654502, 20.5483, -160.568, -92.6084, 54.7922
3.23191, 2, -37.0392, 0.654521, 20.5483, -160.568, -92.6084, 54.7922
3.2399, 2, -37.0391, 0.654529, 20.5482, -160.568, -92.6084, 54.7922
3.24792, 2, -37.0391, 0.654515, 20.5482, -160.568, -92.6084, 54.7923
3.25586, 2, -37.0391, 0.654508, 20.5482, -160.568, -92.6084, 54.7924
3.26387, 2, -37.0391, 0.654505, 20.5482, -160.568, -92.6084, 54.7924
3.27196, 2, -37.0391, 0.654504, 20.5482, -160.568, -92.6084, 54.7924
3.27988, 2, -37.0391, 0.654503, 20.5482, -160.568, -92.6084, 54.7925
3.28779, 2, -37.0391, 0.654495, 20.5482, -160.568, -92.6085, 54.7925
3.29587, 2, -37.0391, 0.654494, 20.5482, -160.568, -92.6085, 54.7925
3.30384, 2, -37.0391, 0.654499, 20.5481, -160.568, -92.6084, 54.7925
3.31193, 2, -37.0391, 0.654501, 20.5481, -160.568, -92.6084, 54.7925
3.3203, 2, -37.039, 0.654502, 20.5481, -160.568, -92.6084, 54.7926
3.32687, 2, -37.039, 0.654502, 20.5481, -160.568, -92.6084, 54.7926
3.33611, 2, -37.039, 0.654502, 20.5481, -160.568, -92.6084, 54.7926
3.34275, 2, -37.039, 0.654502, 20.5481, -160.568, -92.6085, 54.7927
3.3522, 2, -37.039, 0.654502, 20.5481, -160.568, -92.6085, 54.7927
3.36038, 2, -37.039, 0.654503, 20.5481, -160.568, -92.6084, 54.7927
3.3685, 2, -37.039, 0.654503, 20.5481, -160.568, -92.6085, 54.7927
3.3763, 2, -37.039, 0.654503, 20.5481, -160.568, -92.6085, 54.7928
3.38438, 2, -37.0389, 0.654503, 20.548, -160.568, -92.6085, 54.7928
3.39241, 2, -37.0389, 0.654503, 20.548, -160.568, -92.6085, 54.7928
3.40052, 2, -37.0389, 0.654503, 20.548, -160.567, -92.6084, 54.7928
3.40775, 2, -37.0389, 0.654503, 20.548, -160.567, -92.6084, 54.7928
3.4158, 2, -37.0389, 0.654513, 20.548, -160.567, -92.6085, 54.7928
3.42375, 2, -37.0389, 0.654515, 20.548, -160.567, -92.6085, 54.7928
3.43177, 2, -37.0389, 0.654519, 20.548, -160.567, -92.6085, 54.7928
3.43986, 2, -37.0389, 0.654518, 20.548, -160.567, -92.6085, 54.7928
3.44775, 2, -37.0388, 0.654509, 20.548, -160.567, -92.6085, 54.7928
3.45577, 2, -37.0388, 0.654535, 20.548, -160.567, -92.6085, 54.7929
3.4638, 2, -37.0388, 0.654525, 20.548, -160.567, -92.6085, 54.7928
3.47181, 2, -37.0388, 0.654513, 20.548, -160.567, -92.6085, 54.7929
3.47981, 2, -37.0388, 0.654507, 20.548, -160.567, -92.6086, 54.7929
3.4878, 2, -37.0388, 0.654505, 20.548, -160.567, -92.6086, 54.793
3.49575, 2, -37.0387, 0.654504, 20.5479, -160.567, -92.6086, 54.793
3.50375, 2, -37.0388, 0.654503, 20.5479, -160.567, -92.6085, 54.793
3.51183, 2, -37.0387, 0.654503, 20.5479, -160.567, -92.6085, 54.793
3.51981, 2, -37.0387, 0.654503, 20.5479, -160.567, -92.6085, 54.793
3.52775, 2, -37.0387, 0.654514, 20.5479, -160.567, -92.6085, 54.7931
3.53676, 2, -37.0388, 0.654526, 20.5479, -160.567, -92.6086, 54.7931
3.54374, 2, -37.0387, 0.654532, 20.5479, -160.567, -92.6086, 54.7931
3.55176, 2, -37.0387, 0.654553, 20.5479, -160.567, -92.6086, 54.7931
3.55986, 2, -37.0387, 0.654533, 20.5479, -160.567, -92.6086, 54.7931
3.5678, 2, -37.0387, 0.654516, 20.5479, -160.567, -92.6087, 54.7931
3.57577, 2, -37.0387, 0.654509, 20.5479, -160.567, -92.6087, 54.7931
3.58382, 2, -37.0387, 0.654505, 20.5479, -160.567, -92.6087, 54.7931
3.59176, 2, -37.0387, 0.654504, 20.5479, -160.567, -92.6087, 54.7932
3.59981, 2, -37.0387, 0.654503, 20.5479, -160.567, -92.6086, 54.7932
3.60781, 2, -37.0387, 0.654503, 20.5478, -160.567, -92.6086, 54.7931
3.61581, 2, -37.0386, 0.654503, 20.5478, -160.567, -92.6087, 54.7931
3.62377, 2, -37.0386, 0.654503, 20.5478, -160.567, -92.6086, 54.7931
3.63183, 2, -37.0386, 0.654521, 20.5478, -160.567, -92.6086, 54.7932
3.63996, 2, -37.0386, 0.654529, 20.5478, -160.567, -92.6086, 54.7932
3.64891, 2, -37.0386, 0.654533, 20.5478, -160.567, -92.6086, 54.7932
3.65872, 2, -37.0386, 0.654543, 20.5478, -160.567, -92.6086, 54.7932
3.66374, 2, -37.0386, 0.65453, 20.5478, -160.567, -92.6086, 54.7932
3.67176, 2, -37.0386, 0.654533, 20.5478, -160.567, -92.6087, 54.7932
3.67999, 2, -37.0386, 0.654535, 20.5478, -160.567, -92.6087, 54.7932
3.68774, 2, -37.0386, 0.654517, 20.5478, -160.567, -92.6087, 54.7932
3.69575, 2, -37.0386, 0.654539, 20.5478, -160.567, -92.6087, 54.7932
3.70393, 2, -37.0385, 0.654545, 20.5478, -160.567, -92.6087, 54.7932
3.71177, 2, -37.0385, 0.65454, 20.5477, -160.567, -92.6087, 54.7932
3.7198, 2, -37.0385, 0.654538, 20.5477, -160.567, -92.6087, 54.7932
3.72782, 4, -37.0385, 0.654548, 20.5477, -160.567, -92.6087, 54.7932
3.73588, 4, -37.0385, 0.654542, 20.5477, -160.567, -92.6087, 54.7932
3.74384, 4, -37.0385, 0.654546, 20.5477, -160.567, -92.6087, 54.7932
3.75192, 4, -37.0385, 0.654552, 20.5477, -160.567, -92.6087, 54.7932
3.7599, 4, -37.0384, 0.654551, 20.5477, -160.567, -92.6086, 54.7933
3.76785, 4, -37.0384, 0.654555, 20.5477, -160.567, -92.6087, 54.7932
3.77593, 4, -37.0384, 0.654545, 20.5477, -160.567, -92.6087, 54.7932
3.78375, 4, -37.0384, 0.654551, 20.5477, -160.567, -92.6087, 54.7932
3.79179, 4, -37.0384, 0.654562, 20.5477, -160.567, -92.6087, 54.7932
3.80011, 4, -37.0383, 0.654566, 20.5477, -160.567, -92.6087, 54.7932
3.80675, 4, -37.0383, 0.654568, 20.5476, -160.567, -92.6087, 54.7932
3.81614, 4, -37.0383, 0.654559, 20.5476, -160.567, -92.6087, 54.7932
3.82274, 4, -37.0383, 0.654552, 20.5476, -160.567, -92.6087, 54.7932
3.83233, 4, -37.0383, 0.654546, 20.5476, -160.567, -92.6087, 54.7932
3.85682, 4, -37.0383, 0.654541, 20.5476, -160.567, -92.6087, 54.7932
3.85866, 4, -37.0383, 0.654541, 20.5476, -160.567, -92.6087, 54.7932
3.8613, 4, -37.0383, 0.654551, 20.5476, -160.567, -92.6087, 54.7932
3.86588, 4, -37.0383, 0.654557, 20.5476, -160.567, -92.6087, 54.7933
3.87496, 4, -37.0382, 0.654553, 20.5476, -160.567, -92.6087, 54.7933
3.88074, 4, -37.0375, 0.654404, 20.5476, -160.567, -92.6087, 54.7932
3.88831, 4, -37.0365, 0.653473, 20.5477, -160.567, -92.6087, 54.7932
3.8964, 4, -37.0325, 0.652349, 20.5486, -160.567, -92.6087, 54.7933
3.90462, 4, -37.0196, 0.644558, 20.5511, -160.567, -92.6087, 54.7933
3.91382, 4, -37.0062, 0.634974, 20.5566, -160.566, -92.6087, 54.7933
3.91985, 4, -36.9978, 0.628695, 20.5608, -160.565, -92.6087, 54.7932
3.92774, 5, -36.9769, 0.612668, 20.5732, -160.563, -92.6087, 54.7932
3.93574, 5, -36.9503, 0.592235, 20.5919, -160.559, -92.6086, 54.7932
3.94379, 5, -36.9186, 0.567324, 20.6172, -160.554, -92.6083, 54.7931
3.95195, 5, -36.8821, 0.537981, 20.6495, -160.547, -92.6078, 54.7931
3.95977, 5, -36.8407, 0.504085, 20.688, -160.539, -92.6069, 54.793
3.96774, 5, -36.7941, 0.465375, 20.732, -160.529, -92.6057, 54.793
3.97593, 5, -36.7424, 0.422428, 20.7804, -160.518, -92.6041, 54.793
3.98537, 5, -36.6564, 0.351308, 20.8586, -160.5, -92.6016, 54.793
3.99175, 5, -36.6257, 0.326289, 20.8856, -160.494, -92.6007, 54.7929
3.99979, 5, -36.5614, 0.274706, 20.9404, -160.482, -92.599, 54.7929
4.0078, 5, -36.4948, 0.221738, 20.9958, -160.47, -92.5971, 54.7929
4.01575, 5, -36.4269, 0.168149, 21.0512, -160.458, -92.5953, 54.7929
4.02398, 5, -36.3583, 0.114303, 21.1067, -160.446, -92.5934, 54.793
4.03255, 5, -36.2896, 0.0603761, 21.1621, -160.434, -92.5915, 54.7931
4.03881, 5, -36.2207, 0.00661894, 21.2175, -160.422, -92.5896, 54.7931
4.05078, 5, -36.1175, -0.0736365, 21.3006, -160.403, -92.5866, 54.7931
4.05595, 5, -36.0832, -0.100273, 21.3283, -160.397, -92.5857, 54.7931
4.06372, 5, -36.0146, -0.153337, 21.3835, -160.384, -92.5837, 54.7933
4.07179, 5, -35.9459, -0.206232, 21.4387, -160.372, -92.5816, 54.7934
4.07985, 5, -35.8773, -0.258935, 21.4937, -160.359, -92.5796, 54.7937
4.08774, 5, -35.8086, -0.311522, 21.5487, -160.346, -92.5776, 54.7941
4.09581, 5, -35.7396, -0.36416, 21.6037, -160.333, -92.5756, 54.7948
4.10398, 5, -35.6704, -0.416764, 21.6584, -160.321, -92.5736, 54.7957
4.1119, 5, -35.6008, -0.469451, 21.713, -160.308, -92.5716, 54.7968
4.11978, 5, -35.531, -0.5222, 21.7673, -160.296, -92.5696, 54.798
4.12789, 5, -35.4609, -0.574956, 21.8215, -160.283, -92.5676, 54.7994
4.13606, 5, -35.3907, -0.627727, 21.8755, -160.27, -92.5655, 54.8009
4.14378, 5, -35.3202, -0.680449, 21.9295, -160.258, -92.5634, 54.8026
4.15193, 5, -35.2496, -0.733161, 21.9834, -160.244, -92.5613, 54.8044
4.1603, 5, -35.1791, -0.785558, 22.037, -160.231, -92.5592, 54.8063
4.16678, 5, -35.1083, -0.837768, 22.0907, -160.217, -92.5571, 54.8084
4.17708, 5, -35.0377, -0.889898, 22.1442, -160.204, -92.555, 54.8106
4.1839, 5, -34.9671, -0.941662, 22.1976, -160.191, -92.5528, 54.8129
4.19183, 5, -34.8966, -0.993259, 22.2509, -160.178, -92.5507, 54.8154
4.20322, 5, -34.7908, -1.07032, 22.3306, -160.159, -92.5474, 54.8192
4.20811, 5, -34.7555, -1.09601, 22.357, -160.152, -92.5463, 54.8206
4.21577, 5, -34.6848, -1.14741, 22.4098, -160.14, -92.5441, 54.8233
4.22374, 5, -34.6138, -1.19865, 22.4625, -160.127, -92.5419, 54.8262
4.23201, 5, -34.5428, -1.25001, 22.5149, -160.113, -92.5396, 54.8292
4.23992, 5, -34.4716, -1.30137, 22.5672, -160.1, -92.5374, 54.8324
4.24784, 5, -34.4002, -1.35267, 22.6193, -160.086, -92.5351, 54.8357
4.25657, 5, -34.3286, -1.40395, 22.6714, -160.072, -92.5328, 54.839
4.2639, 5, -34.2569, -1.45515, 22.7232, -160.059, -92.5305, 54.8424
4.27183, 5, -34.185, -1.50622, 22.775, -160.045, -92.5282, 54.846
4.28006, 5, -34.113, -1.55701, 22.8265, -160.031, -92.5259, 54.8497
4.28817, 5, -34.0409, -1.60766, 22.878, -160.018, -92.5236, 54.8534
4.29579, 5, -33.9687, -1.65809, 22.9295, -160.005, -92.5213, 54.8573
4.30377, 5, -33.8965, -1.70825, 22.9807, -159.991, -92.519, 54.8613
4.3119, 5, -33.8244, -1.75825, 23.0318, -159.977, -92.5167, 54.8654
4.3199, 5, -33.7522, -1.80819, 23.0828, -159.964, -92.5144, 54.8696
4.33014, 5, -33.6799, -1.85805, 23.1336, -159.949, -92.5121, 54.8738
4.33726, 5, -33.6075, -1.90785, 23.1842, -159.935, -92.5098, 54.8781
4.34408, 5, -33.5348, -1.9579, 23.2347, -159.921, -92.5076, 54.8824
4.35072, 5, -33.4984, -1.98302, 23.2599, -159.914, -92.5064, 54.8844
4.36128, 5, -33.3893, -2.0589, 23.3355, -159.892, -92.5029, 54.8895
4.36679, 5, -33.353, -2.08442, 23.3607, -159.885, -92.5018, 54.8904
4.37637, 6, -33.2444, -2.1618, 23.4367, -159.864, -92.498, 54.8913
4.38586, 6, -33.1726, -2.21442, 23.4877, -159.849, -92.4949, 54.8895
4.39227, 6, -33.1368, -2.24107, 23.5395, -159.834, -92.4912, 54.8847
4.40035, 6, -33.0655, -2.32239, 23.5922, -159.817, -92.4864, 54.8743
4.40921, 7, -32.9946, -2.35008, 23.619, -159.808, -92.4803, 54.8603
4.41479, 7, -32.9242, -2.40633, 23.6734, -159.789, -92.4765, 54.8523
4.42553, 7, -32.8197, -2.49329, 23.7575, -159.759, -92.4627, 54.8263
4.43186, 7, -32.7851, -2.52302, 23.7862, -159.748, -92.457, 54.8176
4.43992, 7, -32.7165, -2.58367, 23.8446, -159.726, -92.4443, 54.8004
4.44672, 8, -32.6486, -2.64588, 23.9042, -159.703, -92.4297, 54.7837
4.4559, 8, -32.5813, -2.70979, 23.9651, -159.678, -92.4131, 54.7669
4.46589, 8, -32.5147, -2.7754, 24.0582, -159.637, -92.3849, 54.7404
4.47172, 8, -32.449, -2.84259, 24.0898, -159.624, -92.3746, 54.7309
4.47973, 8, -32.3838, -2.91122, 24.1537, -159.596, -92.3532, 54.7107
4.48777, 9, -32.3191, -2.98123, 24.2185, -159.567, -92.3308, 54.6888
4.49472, 9, -32.255, -3.05256, 24.2844, -159.538, -92.3072, 54.6651
4.50554, 9, -32.16, -3.16199, 24.385, -159.49, -92.2692, 54.6265
4.51186, 9, -32.1286, -3.19907, 24.419, -159.474, -92.2556, 54.6131
4.51969, 9, -32.0662, -3.27431, 24.4879, -159.442, -92.2271, 54.5854
4.52849, 10, -32.0044, -3.35083, 24.5577, -159.408, -92.1975, 54.556
4.53572, 10, -31.9433, -3.42868, 24.6285, -159.373, -92.1668, 54.5247
4.54472, 10, -31.8827, -3.50802, 24.7004, -159.337, -92.1348, 54.4914
4.5552, 10, -31.7927, -3.62963, 24.8103, -159.282, -92.0831, 54.4385
4.55983, 10, -31.7631, -3.6709, 24.8475, -159.264, -92.0652, 54.4204
4.5677, 11, -31.7041, -3.75449, 24.9224, -159.225, -92.0289, 54.3831
4.57586, 11, -31.6457, -3.83966, 24.9984, -159.185, -91.9916, 54.344
4.58387, 11, -31.5878, -3.92622, 25.0751, -159.145, -91.9522, 54.3029
4.59256, 11, -31.5305, -4.01425, 25.1529, -159.104, -91.9112, 54.2603
4.59872, 11, -31.4736, -4.10379, 25.2318, -159.061, -91.8695, 54.2167
4.6077, 12, -31.4174, -4.19476, 25.3117, -159.019, -91.8263, 54.1717
4.61579, 12, -31.3615, -4.28711, 25.3927, -158.975, -91.7809, 54.1245
4.62373, 12, -31.3062, -4.38091, 25.4748, -158.929, -91.7349, 54.0756
4.63196, 12, -31.2514, -4.476, 25.5579, -158.883, -91.6878, 54.0259
4.63989, 12, -31.1971, -4.57243, 25.642, -158.837, -91.6384, 53.9746
4.6478, 13, -31.1433, -4.67037, 25.7271, -158.788, -91.5885, 53.9209
4.6558, 13, -31.09, -4.76965, 25.813, -158.739, -91.537, 53.8664
4.66371, 13, -31.0373, -4.87039, 25.9, -158.69, -91.4834, 53.8108
4.67172, 13, -30.9851, -4.9727, 25.9881, -158.639, -91.4295, 53.7531
4.68017, 13, -30.9334, -5.07646, 26.0773, -158.588, -91.3737, 53.6939
4.68791, 14, -30.8822, -5.18162, 26.1676, -158.535, -91.3166, 53.6339
4.69574, 14, -30.8316, -5.28829, 26.259, -158.481, -91.2588, 53.5717
4.70579, 14, -30.7817, -5.39644, 26.3512, -158.428, -91.1985, 53.5083
4.71192, 14, -30.7321, -5.50609, 26.4443, -158.373, -91.138, 53.4442
4.72168, 14, -30.6831, -5.61729, 26.5384, -158.316, -91.0755, 53.3776
4.72775, 14, -30.6347, -5.72996, 26.6336, -158.26, -91.0117, 53.3098
4.73579, 15, -30.5866, -5.844, 26.7299, -158.201, -90.9467, 53.2411
4.74392, 15, -30.5391, -5.95929, 26.8275, -158.143, -90.8799, 53.1701
4.75181, 15, -30.4922, -6.07598, 26.926, -158.083, -90.8126, 53.0984
4.76004, 15, -30.4456, -6.19415, 27.0255, -158.022, -90.7431, 53.0249
4.76783, 15, -30.3997, -6.31365, 27.1258, -157.961, -90.6729, 52.9494
4.7758, 16, -30.3543, -6.43479, 27.2271, -157.898, -90.6006, 52.8732
4.78389, 16, -30.3094, -6.55739, 27.3295, -157.835, -90.5279, 52.7945
4.79173, 16, -30.2649, -6.68134, 27.4332, -157.771, -90.4532, 52.7153
4.79975, 16, -30.221, -6.80681, 27.5379, -157.706, -90.3777, 52.6344
4.80817, 16, -30.1775, -6.93383, 27.6436, -157.64, -90.3003, 52.5522
4.81586, 17, -30.1344, -7.06248, 27.7502, -157.573, -90.2221, 52.4688
4.82272, 17, -30.1131, -7.12741, 27.8037, -157.539, -90.1823, 52.4263
4.83229, 17, -30.0499, -7.32428, 27.9659, -157.436, -90.061, 52.2982
4.84492, 17, -29.9879, -7.5241, 28.1308, -157.331, -89.9371, 52.1663
4.84808, 17, -29.9675, -7.59142, 28.1864, -157.296, -89.895, 52.1219
4.85615, 18, -29.927, -7.72712, 28.2984, -157.225, -89.8101, 52.0316
4.86271, 18, -29.9069, -7.79546, 28.3546, -157.189, -89.7669, 51.9863
4.87224, 18, -29.8476, -8.00275, 28.5246, -157.079, -89.6365, 51.8473
4.88129, 18, -29.8085, -8.14242, 28.6392, -157.005, -89.5477, 51.7533
4.88918, 18, -29.7699, -8.28344, 28.755, -156.93, -89.4575, 51.6575
4.89469, 19, -29.7507, -8.35448, 28.8134, -156.892, -89.4121, 51.6095
4.90432, 19, -29.7129, -8.49771, 28.931, -156.816, -89.274, 51.463
4.913, 19, -29.6568, -8.71566, 29.109, -156.7, -89.1801, 51.3642
4.91869, 19, -29.6384, -8.78898, 29.1687, -156.661, -89.1328, 51.3141
4.92771, 19, -29.6019, -8.93636, 29.2887, -156.581, -89.0376, 51.214
4.93572, 20, -29.5659, -9.08521, 29.4098, -156.501, -88.941, 51.1118
4.9437, 20, -29.5304, -9.23562, 29.5322, -156.421, -88.8434, 51.0091
4.95074, 20, -29.4952, -9.38753, 29.6556, -156.339, -88.7449, 50.9048
4.95984, 20, -29.4606, -9.5407, 29.7799, -156.256, -88.6451, 50.7996
4.96915, 20, -29.4095, -9.77258, 29.9679, -156.131, -88.4935, 50.6394
4.97476, 20, -29.3927, -9.85051, 30.031, -156.088, -88.4424, 50.5851
4.9837, 21, -29.3594, -10.0076, 30.1581, -156.003, -88.3392, 50.4764
4.9907, 21, -29.3265, -10.1661, 30.2863, -155.917, -88.2352, 50.3665
4.9997, 21, -29.2941, -10.3259, 30.4154, -155.83, -88.1301, 50.2558
5.00686, 21, -29.2622, -10.4864, 30.5455, -155.743, -88.0237, 50.1442
5.01499, 21, -29.2307, -10.6483, 30.6763, -155.654, -87.9166, 50.0317
5.02377, 22, -29.1995, -10.8116, 30.8081, -155.564, -87.8084, 49.9184
5.03199, 22, -29.1686, -10.9762, 30.9409, -155.474, -87.6992, 49.8041
5.0405, 22, -29.1382, -11.1417, 31.0746, -155.383, -87.5891, 49.6888
5.04775, 22, -29.1082, -11.3081, 31.2091, -155.29, -87.4779, 49.5728
5.05648, 22, -29.0786, -11.4762, 31.3447, -155.197, -87.3658, 49.4557
5.0637, 23, -29.0493, -11.6459, 31.4811, -155.103, -87.2527, 49.3382
5.07171, 23, -29.0203, -11.8167, 31.6183, -155.009, -87.1386, 49.2198
5.08397, 23, -28.9777, -12.0744, 31.8255, -154.865, -86.9662, 49.0414
5.08785, 23, -28.9637, -12.1609, 31.895, -154.817, -86.9082, 48.9816
5.09576, 23, -28.9359, -12.3352, 32.0347, -154.719, -86.7914, 48.8613
5.1037, 24, -28.9085, -12.5107, 32.1754, -154.621, -86.6739, 48.7407
5.11194, 24, -28.8814, -12.6866, 32.3168, -154.522, -86.5552, 48.6197
5.11967, 24, -28.8546, -12.8631, 32.4588, -154.422, -86.4361, 48.4977
5.12771, 24, -28.8283, -13.0414, 32.6017, -154.322, -86.3158, 48.3752
5.13578, 24, -28.8022, -13.221, 32.7456, -154.22, -86.195, 48.2524
5.1437, 25, -28.7765, -13.4012, 32.8902, -154.118, -86.0734, 48.129
5.15174, 25, -28.7511, -13.5819, 33.0354, -154.015, -85.9509, 48.0055
5.15982, 25, -28.7258, -13.764, 33.1812, -153.911, -85.8282, 47.8822
5.1682, 25, -28.7007, -13.9476, 33.3278, -153.806, -85.7041, 47.7583
5.17473, 25, -28.6759, -14.1319, 33.4753, -153.701, -85.5799, 47.6343
5.18371, 26, -28.6515, -14.3164, 33.6235, -153.595, -85.4549, 47.5105
5.19178, 26, -28.6274, -14.5021, 33.772, -153.488, -85.3292, 47.386
5.1997, 26, -28.6036, -14.6894, 33.9212, -153.38, -85.2033, 47.2616
5.21131, 26, -28.5681, -14.9712, 34.1467, -153.217, -85.0128, 47.0751
5.21607, 26, -28.5562, -15.0652, 34.2221, -153.162, -84.9491, 47.0131
5.22437, 27, -28.5329, -15.2539, 34.3733, -153.052, -84.8212, 46.8892
5.23198, 27, -28.5098, -15.4437, 34.5249, -152.942, -84.693, 46.766
5.23993, 27, -28.4869, -15.6338, 34.6772, -152.83, -84.5641, 46.6425
5.24807, 27, -28.4642, -15.8241, 34.8304, -152.718, -84.4347, 46.5195
5.2558, 27, -28.4419, -16.0157, 34.9839, -152.605, -84.3051, 46.3969
5.26402, 28, -28.4196, -16.2087, 35.1374, -152.492, -84.175, 46.2742
5.27226, 28, -28.3972, -16.4023, 35.2915, -152.378, -84.0445, 46.1521
5.27945, 28, -28.375, -16.5963, 35.4466, -152.263, -83.9136, 46.0305
5.28862, 28, -28.3529, -16.7912, 35.602, -152.148, -83.7827, 45.9097
5.29615, 28, -28.3309, -16.9871, 35.7574, -152.032, -83.651, 45.7896
5.30281, 28, -28.3199, -17.085, 35.8353, -151.973, -83.5852, 45.73
5.31262, 29, -28.287, -17.3787, 36.0698, -151.797, -83.3874, 45.5523
5.31978, 29, -28.2652, -17.5754, 36.2269, -151.679, -83.2551, 45.4351
5.32865, 29, -28.2434, -17.7728, 36.3839, -151.561, -83.1224, 45.319
5.33626, 29, -28.2216, -17.9699, 36.5408, -151.442, -82.9896, 45.2033
5.34597, 30, -28.2001, -18.1672, 36.6986, -151.322, -82.8566, 45.0892
5.35311, 30, -28.1785, -18.3656, 36.857, -151.202, -82.7234, 44.976
5.36147, 30, -28.1569, -18.5642, 37.0152, -151.081, -82.5904, 44.8644
5.37048, 30, -28.1353, -18.7625, 37.1732, -150.959, -82.4568, 44.7542
5.38558, 30, -28.0918, -19.1616, 37.4906, -150.715, -82.1895, 44.5387
5.38703, 31, -28.0918, -19.1616, 37.4906, -150.715, -82.1895, 44.5387
5.39229, 31, -28.0699, -19.3617, 37.6495, -150.592, -82.056, 44.4331
5.4005, 31, -28.0481, -19.5615, 37.808, -150.469, -81.9221, 44.3295
5.40831, 31, -28.0372, -19.6615, 37.8874, -150.407, -81.7885, 44.2277
5.41704, 31, -28.0043, -19.9621, 38.1265, -150.22, -81.6547, 44.1276
5.42878, 32, -27.9713, -20.2621, 38.3656, -150.032, -81.454, 43.9806
5.43169, 32, -27.9713, -20.2621, 38.3656, -150.032, -81.454, 43.9806
5.4397, 32, -27.9491, -20.4624, 38.5247, -149.907, -81.32, 43.8845
5.44769, 32, -27.9265, -20.6634, 38.6841, -149.78, -81.1863, 43.7909
5.45574, 32, -27.9039, -20.8642, 38.8441, -149.653, -81.0523, 43.6987
5.4653, 32, -27.8695, -21.1649, 39.0833, -149.462, -80.8517, 43.5657
5.47173, 33, -27.858, -21.2652, 39.1628, -149.398, -80.7849, 43.5225
5.47969, 33, -27.8346, -21.4658, 39.3219, -149.271, -80.6516, 43.4388
5.48784, 33, -27.8109, -21.6656, 39.4811, -149.143, -80.5186, 43.3575
5.4986, 33, -27.7745, -21.9646, 39.7185, -148.951, -80.32, 43.2423
5.50375, 33, -27.7622, -22.0645, 39.7972, -148.887, -80.2539, 43.2053
5.51165, 34, -27.7374, -22.2637, 39.9543, -148.759, -80.1221, 43.134
5.51969, 34, -27.7121, -22.4619, 40.1114, -148.631, -79.9909, 43.0664
5.52775, 34, -27.6865, -22.6596, 40.2682, -148.503, -79.8596, 43.001
5.53769, 34, -27.6474, -22.9563, 40.5022, -148.31, -79.6631, 42.9096
5.54295, 34, -27.6341, -23.0548, 40.58, -148.246, -79.5975, 42.8807
5.55265, 35, -27.6071, -23.2511, 40.736, -148.117, -79.4667, 42.8249
5.55969, 35, -27.58, -23.4476, 40.8918, -147.987, -79.3359, 42.7726
5.56783, 35, -27.5526, -23.6444, 41.0468, -147.858, -79.2055, 42.7243
5.5787, 35, -27.5107, -23.9383, 41.2783, -147.663, -79.0103, 42.6585
5.58381, 35, -27.4966, -24.0359, 41.3554, -147.598, -78.9454, 42.6382
5.59191, 36, -27.4679, -24.231, 41.5094, -147.468, -78.8159, 42.6007
5.59969, 36, -27.4387, -24.4257, 41.6627, -147.338, -78.6863, 42.5676
5.60768, 36, -27.4093, -24.6194, 41.8152, -147.208, -78.5576, 42.5388
5.61586, 36, -27.3793, -24.8122, 41.9674, -147.078, -78.4289, 42.5144
5.62327, 36, -27.3487, -25.0051, 42.1193, -146.947, -78.3007, 42.4942
5.6317, 36, -27.3173, -25.1975, 42.2703, -146.817, -78.173, 42.4785
5.63975, 37, -27.2851, -25.3887, 42.4202, -146.686, -78.0456, 42.4671
5.64768, 37, -27.2522, -25.5789, 42.5694, -146.557, -77.9186, 42.4605
5.65568, 37, -27.2186, -25.7689, 42.7179, -146.427, -77.7918, 42.4574
5.66385, 37, -27.1842, -25.9577, 42.8656, -146.298, -77.6656, 42.4572
5.67167, 37, -27.1489, -26.1448, 43.0122, -146.169, -77.5395, 42.4623
5.67972, 38, -27.1128, -26.3306, 43.1574, -146.041, -77.4142, 42.474
5.68866, 38, -27.076, -26.5158, 43.3018, -145.913, -77.2894, 42.4907
5.6969, 38, -27.0382, -26.6998, 43.4454, -145.786, -77.1651, 42.5133
5.70301, 38, -26.9996, -26.8823, 43.5879, -145.659, -77.0414, 42.5413
5.71101, 38, -26.9602, -27.0638, 43.7293, -145.532, -76.918, 42.5755
5.71973, 39, -26.9201, -27.2451, 43.8697, -145.406, -76.7954, 42.6158
5.7277, 39, -26.8793, -27.4253, 44.0093, -145.28, -76.6725, 42.662
5.7379, 39, -26.8374, -27.6041, 44.1482, -145.154, -76.5502, 42.7136
5.744, 39, -26.7948, -27.7821, 44.2861, -145.028, -76.4278, 42.7712
5.75187, 39, -26.7515, -27.9598, 44.423, -144.903, -76.3054, 42.8358
5.75982, 40, -26.7071, -28.1366, 44.5589, -144.778, -76.1832, 42.9055
5.76781, 40, -26.6618, -28.3116, 44.6939, -144.653, -76.0611, 42.9823
5.77585, 40, -26.6155, -28.4852, 44.8275, -144.529, -75.9395, 43.0655
5.78432, 40, -26.5682, -28.6579, 44.9599, -144.406, -75.818, 43.1545
5.79193, 40, -26.5198, -28.8292, 45.0907, -144.284, -75.6973, 43.251
5.7998, 41, -26.4701, -28.9983, 45.22, -144.162, -75.577, 43.3537
5.80859, 41, -26.4194, -29.1655, 45.3478, -144.042, -75.4571, 43.4633
5.81607, 41, -26.3673, -29.3316, 45.4741, -143.923, -75.3379, 43.5794
5.82494, 41, -26.3138, -29.4964, 45.5988, -143.805, -75.2189, 43.7026
5.83194, 41, -26.259, -29.6592, 45.7217, -143.688, -75.1009, 43.8329
5.83996, 42, -26.2028, -29.8201, 45.8429, -143.573, -74.9832, 43.9705
5.84672, 42, -26.1742, -29.8999, 45.9028, -143.516, -74.9243, 44.042
5.85469, 42, -26.116, -30.0585, 46.0214, -143.402, -74.8074, 44.1904
5.86523, 42, -26.0259, -30.293, 46.196, -143.235, -74.6325, 44.4267
5.87309, 42, -25.9641, -30.4465, 46.3102, -143.125, -74.5165, 44.5933
5.87868, 42, -25.9327, -30.5225, 46.3666, -143.071, -74.4587, 44.6794
5.88914, 43, -25.8358, -30.7473, 46.5326, -142.911, -74.2857, 44.9496
5.89475, 43, -25.8027, -30.8213, 46.5869, -142.858, -74.2283, 45.0436
5.90513, 43, -25.7009, -31.0398, 46.7466, -142.704, -74.0564, 45.3372
5.91311, 43, -25.6311, -31.1825, 46.8507, -142.603, -73.9427, 45.5423
5.92119, 43, -25.5955, -31.3229, 46.9526, -142.504, -73.8293, 45.7552
5.92772, 44, -25.5231, -31.3923, 47.0027, -142.456, -73.7727, 45.8645
5.93568, 44, -25.4487, -31.5294, 47.1011, -142.361, -73.6602, 46.0892
5.94381, 44, -25.3723, -31.664, 47.1968, -142.268, -73.548, 46.3221
5.9517, 44, -25.2941, -31.7959, 47.2901, -142.177, -73.4361, 46.5631
5.95969, 44, -25.214, -31.9249, 47.381, -142.089, -73.3252, 46.8121
5.96767, 45, -25.1321, -32.0512, 47.4694, -142.004, -73.2146, 47.0695
5.97468, 45, -25.0481, -32.1748, 47.5554, -141.922, -73.1047, 47.3356
5.98367, 45, -24.9621, -32.2956, 47.6386, -141.843, -72.9957, 47.6097
5.99181, 45, -24.874, -32.4134, 47.7187, -141.766, -72.8872, 47.8921
5.99973, 45, -24.7837, -32.5281, 47.7958, -141.693, -72.7796, 48.1827
6.00767, 46, -24.691, -32.6396, 47.8699, -141.623, -72.6728, 48.4823
6.01569, 46, -24.5961, -32.7478, 47.9411, -141.556, -72.5666, 48.7901
6.02373, 46, -24.4987, -32.8527, 48.0094, -141.493, -72.4616, 49.1063
6.03172, 46, -24.3991, -32.9541, 48.0745, -141.435, -72.3573, 49.4313
6.0399, 46, -24.2972, -33.0517, 48.1362, -141.379, -72.2539, 49.7649
6.04777, 47, -24.1929, -33.1456, 48.1945, -141.327, -72.1517, 50.1064
6.05667, 47, -24.0863, -33.2354, 48.2491, -141.28, -72.0504, 50.4562
6.0637, 47, -23.977, -33.3212, 48.3001, -141.236, -71.9503, 50.8147
6.07171, 47, -23.865, -33.4027, 48.3473, -141.198, -71.8512, 51.1812
6.07969, 47, -23.7503, -33.4801, 48.3907, -141.164, -71.7532, 51.5563
6.08792, 48, -23.6327, -33.5531, 48.4301, -141.135, -71.6565, 51.9397
6.09947, 48, -23.4513, -33.6541, 48.4814, -141.099, -71.5147, 52.5297
6.10367, 48, -23.3896, -33.6854, 48.4965, -141.089, -71.4681, 52.7307
6.11414, 48, -23.2006, -33.7719, 48.5356, -141.068, -71.3313, 53.3463
6.11983, 48, -23.1363, -33.7982, 48.5465, -141.064, -71.2866, 53.5557
6.12771, 49, -23.0055, -33.8471, 48.565, -141.059, -71.1987, 53.9809
6.13569, 49, -22.8718, -33.8907, 48.5791, -141.058, -71.1125, 54.4134
6.14367, 49, -22.7351, -33.9289, 48.5886, -141.062, -71.0287, 54.8537
6.15167, 49, -22.5957, -33.9614, 48.5933, -141.073, -70.9467, 55.302
6.15973, 49, -22.4534, -33.9884, 48.5937, -141.09, -70.8672, 55.7577
6.16782, 50, -22.3083, -34.0095, 48.5892, -141.113, -70.79, 56.2217
6.17623, 50, -22.1607, -34.0246, 48.5797, -141.142, -70.7158, 56.6925
6.18271, 50, -22.0104, -34.0334, 48.5651, -141.176, -70.6441, 57.1712
6.19169, 50, -21.8573, -34.0362, 48.5453, -141.217, -70.576, 57.6581
6.19972, 50, -21.7011, -34.0329, 48.5202, -141.265, -70.5106, 58.1524
6.20769, 50, -21.5418, -34.023, 48.4895, -141.318, -70.4496, 58.654
6.21585, 51, -21.3795, -34.0063, 48.4535, -141.378, -70.3912, 59.1619
6.22329, 51, -21.2147, -33.9827, 48.4119, -141.444, -70.3371, 59.6772
6.23173, 51, -21.0471, -33.9518, 48.3646, -141.516, -70.2866, 60.1989
6.24109, 51, -20.8769, -33.914, 48.3116, -141.595, -70.2394, 60.7272
6.24965, 51, -20.7043, -33.8688, 48.2528, -141.68, -70.1969, 61.2609
6.2567, 52, -20.5289, -33.8157, 48.188, -141.772, -70.1591, 61.8013
6.26377, 52, -20.3508, -33.7548, 48.1174, -141.87, -70.1255, 62.3475
6.27373, 52, -20.1699, -33.6859, 48.0407, -141.974, -70.0964, 62.8998
6.27984, 52, -19.9864, -33.6088, 47.958, -142.084, -70.0725, 63.4568
6.28767, 52, -19.8006, -33.5233, 47.869, -142.2, -70.0539, 64.0194
6.29594, 53, -19.6126, -33.4292, 47.7739, -142.323, -70.0409, 64.5873
6.30403, 53, -19.4226, -33.3267, 47.6726, -142.451, -70.0333, 65.1608
6.3117, 53, -19.2305, -33.2161, 47.5653, -142.586, -70.0307, 65.7379
6.32023, 53, -19.0366, -33.097, 47.4518, -142.726, -70.0334, 66.3201
6.32884, 53, -18.8408, -32.9693, 47.332, -142.872, -70.0423, 66.9065
6.33589, 54, -18.6429, -32.8328, 47.2058, -143.023, -70.0578, 67.4958
6.34559, 54, -18.4431, -32.6877, 47.0734, -143.179, -70.0801, 68.0871
6.35232, 54, -18.2412, -32.5342, 46.935, -143.34, -70.1099, 68.6814
6.36013, 54, -18.0375, -32.372, 46.7907, -143.506, -70.1464, 69.2782
6.36667, 54, -17.9351, -32.2874, 46.7162, -143.591, -70.167, 69.5775
6.37618, 55, -17.6265, -32.0198, 46.4834, -143.852, -70.2406, 70.4787
6.38428, 55, -17.4193, -31.8296, 46.3204, -144.033, -70.2997, 71.0847
6.39229, 55, -17.2106, -31.6304, 46.1511, -144.218, -70.3662, 71.6945
6.40027, 55, -17.0004, -31.4212, 45.9746, -144.408, -70.4419, 72.3076
6.40826, 55, -16.8946, -31.3125, 45.8836, -144.602, -70.5256, 72.9248
6.41637, 56, -16.682, -31.0873, 45.6966, -144.701, -70.571, 73.2348
6.42466, 56, -16.468, -30.8524, 45.4043, -145.005, -70.7199, 74.1695
6.43164, 56, -16.2529, -30.6069, 45.3031, -145.108, -70.774, 74.4818
6.43968, 56, -16.0376, -30.3511, 45.0953, -145.316, -70.8894, 75.1082
6.44682, 56, -15.8228, -30.086, 44.882, -145.528, -71.0134, 75.7361
6.45562, 57, -15.6078, -29.8107, 44.6626, -145.742, -71.1467, 76.3642
6.4637, 57, -15.392, -29.5259, 44.4363, -145.959, -71.2888, 76.9913
6.47167, 57, -15.1754, -29.2317, 44.2046, -146.177, -71.4399, 77.6183
6.47966, 57, -14.9584, -28.9276, 43.9674, -146.396, -71.6, 78.2442
6.48777, 57, -14.7418, -28.6153, 43.7245, -146.616, -71.769, 78.8674
6.49587, 58, -14.5256, -28.2941, 43.4775, -146.837, -71.9467, 79.4885
6.5037, 58, -14.3102, -27.9653, 43.2256, -147.057, -72.1327, 80.107
6.51066, 58, -14.0959, -27.6279, 42.9695, -147.278, -72.3268, 80.722
6.51966, 58, -13.8828, -27.2831, 42.7099, -147.498, -72.5292, 81.3321
6.52772, 58, -13.6708, -26.9309, 42.4458, -147.716, -72.7396, 81.9388
6.53566, 58, -13.4597, -26.5717, 42.1784, -147.934, -72.9578, 82.5412
6.54382, 59, -13.2497, -26.2048, 41.9065, -148.15, -73.1839, 83.1389
6.55251, 59, -13.0416, -25.8305, 41.6307, -148.364, -73.418, 83.7319
6.5597, 59, -12.8351, -25.449, 41.3515, -148.577, -73.6602, 84.3213
6.5688, 59, -12.6298, -25.0609, 41.0684, -148.788, -73.9105, 84.9067
6.57663, 59, -12.4256, -24.6652, 40.7822, -148.997, -74.1692, 85.4872
6.58365, 60, -12.2225, -24.2622, 40.4918, -149.204, -74.4362, 86.0634
6.59262, 60, -12.0209, -23.8521, 40.1985, -149.408, -74.7114, 86.636
6.59965, 60, -11.8208, -23.4358, 39.9019, -149.61, -74.9946, 87.2042
6.60765, 60, -11.6223, -23.0128, 39.6032, -149.81, -75.286, 87.767
6.61667, 60, -11.4259, -22.5846, 39.3023, -150.006, -75.5847, 88.3246
6.62379, 61, -11.2319, -22.1517, 38.9994, -150.199, -75.8905, 88.8769
6.63167, 61, -11.0399, -21.7142, 38.695, -150.388, -76.2024, 89.4222
6.64238, 61, -10.7559, -21.0509, 38.2359, -150.662, -76.6807, 90.2247
6.64779, 61, -10.6624, -20.8282, 38.0826, -150.752, -76.843, 90.4883
6.65576, 61, -10.477, -20.38, 37.7752, -150.927, -77.1709, 91.009
6.66365, 62, -10.2941, -19.9286, 37.4682, -151.097, -77.5033, 91.521
6.67167, 62, -10.1143, -19.4744, 37.161, -151.262, -77.84, 92.0239
6.67975, 62, -9.93723, -19.018, 36.8545, -151.422, -78.1805, 92.5174
6.68765, 62, -9.76293, -18.5587, 36.5478, -151.576, -78.525, 93.0029
6.6958, 62, -9.59131, -18.0974, 36.242, -151.726, -78.8735, 93.4792
6.70392, 63, -9.42185, -17.6344, 35.9366, -151.87, -79.2258, 93.9472
6.71167, 63, -9.2546, -17.1694, 35.632, -152.01, -79.5823, 94.4052
6.71973, 63, -9.08964, -16.7031, 35.3282, -152.145, -79.9427, 94.8542
6.72785, 63, -8.92715, -16.2354, 35.0245, -152.274, -80.3071, 95.2944
6.73569, 63, -8.76726, -15.766, 34.7215, -152.398, -80.6748, 95.7243
6.74398, 64, -8.6099, -15.2953, 34.4193, -152.518, -81.0458, 96.145
6.75207, 64, -8.45519, -14.8237, 34.1192, -152.631, -81.4191, 96.5545
6.75923, 64, -8.30301, -14.3511, 33.8201, -152.74, -81.7944, 96.9527
6.76811, 64, -8.15341, -13.8786, 33.5233, -152.843, -82.1715, 97.34
6.7753, 64, -8.00631, -13.4067, 33.2282, -152.94, -82.55, 97.7154
6.78384, 64, -7.86173, -12.9361, 32.936, -153.032, -82.9297, 98.0783
6.79273, 65, -7.71984, -12.4677, 32.6468, -153.118, -83.3101, 98.4289
6.80016, 65, -7.58068, -12.0012, 32.3608, -153.198, -83.6912, 98.7661
6.8086, 65, -7.44458, -11.537, 32.0789, -153.272, -84.0723, 99.0897
6.81768, 65, -7.31111, -11.0747, 31.8001, -153.341, -84.4535, 99.4
6.82411, 65, -7.18056, -10.6148, 31.5257, -153.403, -84.8346, 99.6964
6.83269, 66, -7.05236, -10.1582, 31.2545, -153.461, -85.215, 99.9783
6.83986, 66, -6.92638, -9.70497, 30.9871, -153.512, -85.5951, 100.245
6.84809, 66, -6.80259, -9.25665, 30.7241, -153.558, -85.9744, 100.497
6.85608, 66, -6.68104, -8.81409, 30.4644, -153.598, -86.3518, 100.733
6.86266, 66, -6.62113, -8.59487, 30.3363, -153.617, -86.5396, 100.844
6.87249, 67, -6.44531, -7.94549, 29.9601, -153.663, -87.0976, 101.154
6.88028, 67, -6.33154, -7.51914, 29.7159, -153.686, -87.4644, 101.338
6.88823, 67, -6.22054, -7.09799, 29.4787, -153.704, -87.8259, 101.505
6.89669, 67, -6.11201, -6.68113, 29.2472, -153.716, -88.1826, 101.655
6.90511, 67, -6.00586, -6.26913, 29.0211, -153.724, -88.5353, 101.787
6.9106, 68, -5.95356, -6.06489, 28.9102, -153.726, -88.7104, 101.846
6.92065, 68, -5.79919, -5.45975, 28.5836, -153.726, -89.2334, 101.998
6.92831, 68, -5.74853, -5.26049, 28.4761, -153.724, -89.5817, 102.078
6.93564, 68, -5.64848, -4.86601, 28.2636, -153.716, -89.7561, 102.11
6.94379, 68, -5.55007, -4.47689, 28.0543, -153.704, -90.1052, 102.161
6.95186, 69, -5.45343, -4.09317, 27.8478, -153.687, -90.4534, 102.194
6.95964, 69, -5.35865, -3.71379, 27.646, -153.666, -90.8003, 102.209
6.96934, 69, -5.22008, -3.153, 27.3531, -153.625, -91.3147, 102.197
6.97565, 69, -5.17493, -2.9682, 27.2577, -153.609, -91.4842, 102.182
6.9837, 69, -5.08594, -2.60171, 27.0706, -153.574, -91.8201, 102.138
6.99165, 70, -4.99869, -2.23889, 26.8889, -153.536, -92.1523, 102.071
6.9998, 70, -4.91278, -1.88119, 26.7115, -153.494, -92.4814, 101.985
7.00771, 70, -4.82794, -1.52893, 26.5375, -153.448, -92.8088, 101.876
7.01569, 70, -4.74403, -1.18296, 26.3673, -153.399, -93.1346, 101.745
7.02378, 70, -4.66118, -0.842374, 26.2013, -153.347, -93.4594, 101.592
7.03167, 71, -4.57929, -0.50811, 26.0384, -153.291, -93.7827, 101.416
7.03964, 71, -4.49842, -0.17948, 25.879, -153.233, -94.1042, 101.219
7.04926, 71, -4.4187, 0.142919, 25.7244, -153.172, -94.4233, 100.883
7.05565, 71, -4.33992, 0.459897, 25.5751, -153.109, -94.739, 100.761
7.06376, 71, -4.26204, 0.771716, 25.4304, -153.043, -95.0514, 100.5
7.07342, 72, -4.18502, 1.07692, 25.2903, -152.976, -95.3602, 100.22
7.07986, 72, -4.10856, 1.37614, 25.1543, -152.907, -95.6659, 99.919
7.08772, 72, -4.03224, 1.6683, 25.0221, -152.836, -95.9686, 99.5974
7.096, 72, -3.95605, 1.9537, 24.8934, -152.764, -96.2689, 99.2547
7.10601, 72, -3.84181, 2.36925, 24.7062, -152.655, -96.7142, 98.7025
7.11071, 72, -3.80372, 2.5042, 24.6454, -152.618, -96.8612, 98.5079
7.12064, 73, -3.72767, 2.76949, 24.5264, -152.545, -97.1528, 98.1035
7.12783, 73, -3.65151, 3.02819, 24.411, -152.471, -97.4408, 97.6789
7.13663, 73, -3.57511, 3.27993, 24.2997, -152.398, -97.7249, 97.234
7.14274, 73, -3.49845, 3.52543, 24.1925, -152.325, -98.0046, 96.7707
7.15176, 73, -3.42156, 3.76403, 24.0896, -152.253, -98.28, 96.2883
7.15967, 74, -3.34401, 3.99437, 23.9906, -152.182, -98.5512, 95.7873
7.16776, 74, -3.26582, 4.21672, 23.8953, -152.113, -98.8177, 95.2684
7.17567, 74, -3.18698, 4.43071, 23.8037, -152.045, -99.0795, 94.7327
7.18369, 74, -3.1074, 4.63502, 23.7159, -151.979, -99.3363, 94.182
7.19164, 74, -3.02703, 4.82986, 23.6319, -151.916, -99.5873, 93.6163
7.19983, 75, -2.94578, 5.01579, 23.552, -151.854, -99.8311, 93.0384
7.20746, 75, -2.86352, 5.19223, 23.476, -151.796, -100.067, 92.4497
7.21565, 75, -2.78031, 5.35808, 23.4041, -151.741, -100.295, 91.8525
7.2238, 75, -2.69621, 5.51355, 23.3363, -151.689, -100.513, 91.247
7.23781, 76, -2.56829, 5.72685, 23.2425, -151.617, -100.823, 90.3256
7.24082, 76, -2.52518, 5.79227, 23.2135, -151.594, -100.922, 90.0153
7.24977, 76, -2.43819, 5.91433, 23.1587, -151.553, -101.111, 89.3887
7.25579, 76, -2.35027, 6.02442, 23.1084, -151.516, -101.291, 88.7542
7.26394, 76, -2.26151, 6.12219, 23.0624, -151.482, -101.461, 88.1126
7.27174, 76, -2.17191, 6.20727, 23.0211, -151.451, -101.621, 87.466
7.27999, 77, -2.08149, 6.27929, 22.9846, -151.425, -101.769, 86.814
7.28871, 77, -1.99024, 6.33806, 22.9534, -151.404, -101.904, 86.1604
7.29565, 77, -1.89813, 6.3833, 22.9277, -151.386, -102.025, 85.5082
7.3043, 77, -1.80521, 6.4142, 22.9077, -151.372, -102.133, 84.858
7.31174, 77, -1.71154, 6.43092, 22.8935, -151.362, -102.226, 84.2107
7.32002, 78, -1.61709, 6.43321, 22.8852, -151.356, -102.304, 83.5683
7.32882, 78, -1.52201, 6.42037, 22.8823, -151.353, -102.366, 82.9309
7.33612, 78, -1.4262, 6.39227, 22.885, -151.352, -102.413, 82.2973
7.34263, 78, -1.37812, 6.37241, 22.8887, -151.353, -102.43, 81.9826
7.3522, 78, -1.2333, 6.28859, 22.9088, -151.361, -102.46, 81.048
7.3609, 78, -1.13648, 6.21235, 22.9305, -151.371, -102.459, 80.4319
7.36663, 79, -1.08799, 6.16804, 22.9439, -151.377, -102.453, 80.126
7.37615, 79, -0.942194, 6.01063, 22.9953, -151.399, -102.405, 79.2186
7.38511, 79, -0.845053, 5.88529, 23.039, -151.418, -102.351, 78.6234
7.39217, 79, -0.747946, 5.74329, 23.0905, -151.44, -102.279, 78.0358
7.40029, 79, -0.650861, 5.58484, 23.1498, -151.465, -102.189, 77.4573
7.40911, 80, -0.602309, 5.40985, 23.2167, -151.492, -102.08, 76.8895
7.41471, 80, -0.50515, 5.31616, 23.2532, -151.506, -102.018, 76.6098
7.42737, 80, -0.359537, 5.01032, 23.3747, -151.55, -101.805, 75.7867
7.43272, 80, -0.311034, 4.89979, 23.4193, -151.565, -101.725, 75.2516
7.44049, 80, -0.214119, 4.66492, 23.5147, -151.597, -101.55, 74.7277
7.44767, 81, -0.117272, 4.41266, 23.6187, -151.631, -101.356, 74.4703
7.45479, 81, -0.0207616, 4.14417, 23.7315, -151.665, -101.144, 73.9623
7.4636, 81, 0.0754481, 3.85899, 23.8531, -151.699, -100.913, 73.4641
7.47162, 81, 0.171494, 3.55795, 23.9841, -151.735, -100.663, 72.9759
7.47978, 81, 0.267224, 3.24014, 24.1247, -151.772, -100.394, 72.4978
7.48781, 82, 0.362745, 2.90566, 24.2748, -151.809, -100.107, 72.0299
7.4972, 82, 0.505771, 2.37335, 24.5167, -151.864, -99.6415, 71.3467
7.50364, 82, 0.55334, 2.18812, 24.6018, -151.883, -99.4773, 71.1242
7.51162, 82, 0.648406, 1.80517, 24.7791, -151.919, -99.1359, 70.6862
7.51964, 82, 0.743295, 1.40541, 24.9658, -151.955, -98.7772, 70.2585
7.52947, 83, 0.838017, 0.989245, 25.2631, -152.007, -98.207, 69.6351
7.53603, 83, 0.932669, 0.558133, 25.3673, -152.025, -98.0084, 69.4316
7.54362, 83, 1.02731, 0.111667, 25.5842, -152.059, -97.5988, 69.0317
7.55864, 83, 1.21699, -0.826912, 26.0468, -152.124, -96.7295, 68.2565
7.56065, 83, 1.21699, -0.826912, 26.0468, -152.124, -96.7295, 68.2565
7.57, 84, 1.35973, -1.57027, 26.4213, -152.17, -96.0344, 67.697
7.57571, 84, 1.40742, -1.82523, 26.5512, -152.184, -95.7944, 67.5143
7.58362, 84, 1.5029, -2.34521, 26.8194, -152.213, -95.3027, 67.154
7.59163, 84, 1.59863, -2.87923, 27.0979, -152.239, -94.7945, 66.8015
7.59969, 84, 1.69472, -3.42709, 27.3867, -152.264, -94.2709, 66.4561
7.61067, 85, 1.83972, -4.27354, 27.8392, -152.297, -93.4582, 65.9523
7.61585, 85, 1.88818, -4.56184, 27.9948, -152.308, -93.18, 65.7887
7.62364, 85, 1.98546, -5.1464, 28.3135, -152.327, -92.6128, 65.4678
7.63169, 85, 2.08325, -5.74112, 28.6408, -152.344, -92.0346, 65.1554
7.63978, 85, 2.18157, -6.34448, 28.977, -152.358, -91.447, 64.8519
7.64868, 85, 2.28055, -6.95499, 29.321, -152.37, -90.8495, 64.5584
7.65577, 86, 2.38018, -7.57231, 29.6728, -152.378, -90.2427, 64.2749
7.66549, 86, 2.48071, -8.19523, 30.0312, -152.383, -89.6277, 64.0021
7.67177, 86, 2.5823, -8.8243, 30.3958, -152.386, -89.005, 63.7402
7.67863, 86, 2.68464, -9.45951, 30.7661, -152.387, -88.3778, 63.49
7.68762, 86, 2.78821, -10.0996, 31.1419, -152.384, -87.7462, 63.2513
7.69565, 87, 2.89282, -10.744, 31.524, -152.378, -87.1078, 63.0237
7.70368, 87, 2.99789, -11.3917, 31.9114, -152.368, -86.4627, 62.8078
7.71163, 87, 3.10397, -12.0427, 32.3044, -152.354, -85.8109, 62.6034
7.71963, 87, 3.21058, -12.6957, 32.7028, -152.336, -85.1537, 62.4115
7.72769, 87, 3.31768, -13.3512, 33.107, -152.314, -84.4918, 62.2321
7.73568, 88, 3.42548, -14.009, 33.5166, -152.288, -83.8245, 62.0657
7.74536, 88, 3.53383, -14.6686, 33.93, -152.259, -83.1536, 61.9131
7.75184, 88, 3.64291, -15.3293, 34.3475, -152.226, -82.4796, 61.7749
7.76063, 88, 3.75271, -15.9895, 34.7683, -152.187, -81.8034, 61.652
7.76772, 88, 3.86289, -16.6485, 35.1915, -152.144, -81.1276, 61.5451
7.77575, 89, 3.97336, -17.3043, 35.6166, -152.096, -80.4526, 61.4556
7.78379, 89, 4.08408, -17.9566, 36.0428, -152.043, -79.7777, 61.3839
7.79168, 89, 4.19505, -18.6053, 36.4695, -151.986, -79.1021, 61.3305
7.80061, 89, 4.30645, -19.2499, 36.8964, -151.923, -78.4275, 61.2962
7.80797, 89, 4.41806, -19.8897, 37.3226, -151.854, -77.7566, 61.281
7.81566, 90, 4.52997, -20.5251, 37.7483, -151.782, -77.0881, 61.2861
7.82379, 90, 4.64248, -21.1563, 38.174, -151.702, -76.4202, 61.3149
7.83178, 90, 4.7549, -21.7835, 38.5994, -151.618, -75.753, 61.3669
7.8399, 90, 4.86708, -22.4068, 39.0249, -151.528, -75.087, 61.4422
7.85048, 90, 4.97891, -23.0262, 39.4509, -151.431, -74.4233, 61.5436
7.85638, 91, 5.09044, -23.6425, 39.8769, -151.328, -73.76, 61.6711
7.86563, 91, 5.2018, -24.2545, 40.3028, -151.218, -73.096, 61.8265
7.87203, 91, 5.31267, -24.8616, 40.7287, -151.102, -72.4318, 62.0107
7.87861, 91, 5.36792, -25.1635, 40.9415, -151.041, -72.0993, 62.1138
7.8888, 91, 5.53287, -26.0596, 41.5779, -150.848, -71.1017, 62.4679
7.89642, 92, 5.64231, -26.6477, 42, -150.712, -70.4394, 62.7429
7.90441, 92, 5.75193, -27.2278, 42.4196, -150.57, -69.779, 63.0494
7.91224, 92, 5.80698, -27.5146, 42.8356, -150.422, -69.1209, 63.3871
7.9211, 92, 5.91758, -28.0819, 43.0416, -150.269, -68.4659, 63.7566
7.92761, 92, 6.02884, -28.64, 43.45, -150.192, -68.1399, 63.9534
7.93563, 92, 6.14108, -29.1871, 43.8521, -150.033, -67.4927, 64.3709
7.94365, 93, 6.25463, -29.7238, 44.2482, -149.871, -66.8514, 64.8211
7.95534, 93, 6.42838, -30.5107, 44.8305, -149.625, -65.8978, 65.5582
7.95956, 93, 6.48731, -30.7684, 45.0217, -149.542, -65.5817, 65.8204
7.9677, 93, 6.60661, -31.2781, 45.4002, -149.377, -64.9518, 66.3722
7.97462, 93, 6.72794, -31.7813, 45.7738, -149.21, -64.3239, 66.9615
7.98357, 94, 6.8516, -32.2788, 46.1437, -149.044, -63.6961, 67.5925
7.99161, 94, 6.97775, -32.7712, 46.5101, -148.877, -63.065, 68.2686
7.99971, 94, 7.10615, -33.2573, 46.8741, -148.711, -62.4293, 68.9952
8.00761, 94, 7.23696, -33.735, 47.2349, -148.546, -61.7888, 69.7722
8.01561, 94, 7.37105, -34.2043, 47.5916, -148.385, -61.1435, 70.598
8.02364, 95, 7.50932, -34.6646, 47.9413, -148.231, -60.4978, 71.4757
8.03163, 95, 7.6528, -35.1136, 48.2825, -148.086, -59.8548, 72.3972
8.03961, 95, 7.80229, -35.551, 48.6128, -147.953, -59.2163, 73.3585
8.04768, 95, 7.95817, -35.9746, 48.931, -147.833, -58.5841, 74.3588
8.05663, 95, 8.12076, -36.3804, 49.2345, -147.73, -57.9596, 75.3926
8.06365, 96, 8.29014, -36.767, 49.5231, -147.644, -57.3442, 76.4615
8.07166, 96, 8.46619, -37.1331, 49.7954, -147.577, -56.7416, 77.5621
8.07961, 96, 8.64776, -37.4767, 50.0513, -147.53, -56.1521, 78.6941
8.08767, 96, 8.83433, -37.7961, 50.2905, -147.504, -55.5762, 79.8514
8.09562, 96, 9.02539, -38.0899, 50.5107, -147.497, -55.0168, 81.0283
8.10402, 96, 9.21966, -38.3594, 50.7118, -147.513, -54.4774, 82.2177
8.11267, 97, 9.41548, -38.6042, 50.8935, -147.549, -53.9612, 83.4173
8.1196, 97, 9.61168, -38.8242, 51.0545, -147.608, -53.4707, 84.6206
8.12774, 97, 9.80734, -39.0201, 51.1951, -147.686, -53.0074, 85.8169
8.13561, 97, 10.0018, -39.1914, 51.3162, -147.782, -52.5734, 87.0001
8.1436, 97, 10.1939, -39.3367, 51.4176, -147.893, -52.1694, 88.1634
8.15285, 97, 10.3824, -39.4563, 51.5, -148.018, -51.7959, 89.3022
8.15959, 98, 10.5678, -39.5505, 51.5641, -148.154, -51.4526, 90.4097
8.1678, 98, 10.7509, -39.6205, 51.6101, -148.3, -51.1389, 91.4888
8.17562, 98, 10.9321, -39.6674, 51.6385, -148.456, -50.8528, 92.5459
8.18361, 98, 11.1115, -39.6913, 51.6495, -148.624, -50.591, 93.5939
8.19167, 98, 11.2885, -39.6917, 51.6438, -148.804, -50.3508, 94.6444
8.19961, 98, 11.4641, -39.6683, 51.6206, -148.996, -50.1305, 95.7068
8.20762, 98, 11.6393, -39.6212, 51.5795, -149.202, -49.9306, 96.7861
8.21567, 99, 11.8136, -39.5507, 51.5204, -149.42, -49.7526, 97.8819
8.2236, 99, 11.9857, -39.4576, 51.4429, -149.649, -49.599, 98.9883
8.23188, 99, 12.1547, -39.3421, 51.3468, -149.885, -49.473, 100.096
8.23966, 99, 12.32, -39.2043, 51.2327, -150.126, -49.3769, 101.195
8.24765, 99, 12.4796, -39.0447, 51.1016, -150.369, -49.3113, 102.274
8.25576, 99, 12.6321, -38.8632, 50.9547, -150.61, -49.2761, 103.328
8.26376, 100, 12.7763, -38.6579, 50.7926, -150.848, -49.2714, 104.351
8.27175, 100, 12.9119, -38.4284, 50.6142, -151.08, -49.2978, 105.344
8.27971, 100, 13.0386, -38.1758, 50.4189, -151.307, -49.3544, 106.309
8.28777, 100, 13.1572, -37.9003, 50.2073, -151.529, -49.4416, 107.252
8.29643, 100, 13.268, -37.6031, 49.9777, -151.744, -49.5597, 108.173
8.3043, 100, 13.371, -37.2821, 49.7289, -151.954, -49.7089, 109.075
8.31181, 101, 13.4664, -36.9363, 49.4623, -152.157, -49.8889, 109.96
8.31964, 101, 13.5541, -36.5645, 49.1771, -152.352, -50.1001, 110.826
8.32769, 101, 13.6344, -36.1664, 48.8737, -152.539, -50.3424, 111.674
8.33663, 101, 13.7064, -35.7426, 48.5513, -152.716, -50.6165, 112.501
8.34377, 101, 13.7701, -35.2947, 48.2109, -152.884, -50.9228, 113.306
8.36005, 102, 13.8701, -34.3287, 47.4778, -153.184, -51.6338, 114.846
8.3615, 102, 13.8701, -34.3287, 47.4778, -153.184, -51.6338, 114.846
8.36809, 102, 13.9052, -33.8093, 47.0861, -153.315, -52.038, 115.578
8.37607, 102, 13.9306, -33.2654, 46.6788, -153.432, -52.4745, 116.283
8.38487, 102, 13.9466, -32.6992, 46.2574, -153.536, -52.9426, 116.959
8.39215, 102, 13.9539, -32.111, 45.8219, -153.625, -53.4405, 117.61
8.40036, 103, 13.9536, -31.5017, 45.372, -153.7, -53.9658, 118.234
8.40901, 103, 13.9463, -30.8734, 44.9088, -153.762, -54.5174, 118.831
8.41622, 103, 13.9327, -30.2278, 44.4334, -153.81, -55.0928, 119.404
8.4241, 103, 13.9236, -29.8991, 44.1915, -153.829, -55.3884, 119.681
8.4316, 103, 13.9015, -29.2303, 43.7006, -153.859, -55.9947, 120.215
8.43862, 103, 13.8743, -28.5479, 43.2017, -153.876, -56.6191, 120.725
8.44897, 104, 13.8253, -27.5044, 42.4432, -153.884, -57.5804, 121.439
8.4556, 104, 13.8069, -27.1524, 42.1887, -153.881, -57.907, 121.665
8.46371, 104, 13.7673, -26.4433, 41.6778, -153.866, -58.5702, 122.101
8.47159, 104, 13.7242, -25.7284, 41.1657, -153.844, -59.2443, 122.515
8.4796, 104, 13.679, -25.0105, 40.6536, -153.813, -59.9273, 122.91
8.48766, 104, 13.6319, -24.2905, 40.1419, -153.775, -60.6166, 123.29
8.4956, 104, 13.5833, -23.5689, 39.6312, -153.729, -61.3103, 123.658
8.5037, 104, 13.5333, -22.8463, 39.1218, -153.679, -62.0089, 124.018
8.51159, 104, 13.4826, -22.1232, 38.6137, -153.623, -62.7104, 124.373
8.51959, 104, 13.4312, -21.3995, 38.1075, -153.562, -63.4138, 124.725
8.52767, 104, 13.3794, -20.6764, 37.6028, -153.498, -64.1174, 125.075
8.53559, 104, 13.3273, -19.9533, 37.0995, -153.428, -64.8215, 125.423
8.54359, 104, 13.2752, -19.23, 36.5984, -153.355, -65.5275, 125.769
8.5536, 104, 13.1967, -18.1444, 35.8501, -153.239, -66.5882, 126.288
8.55959, 104, 13.1707, -17.7825, 35.6018, -153.198, -66.9424, 126.46
8.5686, 104, 13.1188, -17.0581, 35.1072, -153.112, -67.6503, 126.805
8.57573, 104, 13.0672, -16.3337, 34.6143, -153.024, -68.3574, 127.149
8.58464, 104, 13.0159, -15.6094, 34.1237, -152.931, -69.0667, 127.493
8.59159, 104, 12.9651, -14.8846, 33.6353, -152.834, -69.7775, 127.836
8.59966, 104, 12.9145, -14.1591, 33.1492, -152.734, -70.4885, 128.179
8.6076, 104, 12.8644, -13.4336, 32.6658, -152.629, -71.1984, 128.523
8.61559, 104, 12.8146, -12.7077, 32.1851, -152.521, -71.9089, 128.867
8.62367, 104, 12.765, -11.9821, 31.7072, -152.409, -72.6211, 129.211
8.63159, 104, 12.7157, -11.2572, 31.2317, -152.293, -73.3336, 129.557
8.63959, 104, 12.6669, -10.5318, 30.7584, -152.173, -74.0466, 129.902
8.64767, 104, 12.6182, -9.80575, 30.2884, -152.05, -74.7595, 130.248
8.6556, 104, 12.5699, -9.08012, 29.8214, -151.922, -75.4722, 130.595
8.66359, 104, 12.5222, -8.35437, 29.3575, -151.789, -76.1863, 130.943
8.6717, 104, 12.475, -7.62836, 28.8969, -151.654, -76.9012, 131.292
8.67962, 104, 12.4284, -6.90294, 28.4396, -151.513, -77.6168, 131.642
8.6876, 104, 12.3825, -6.17783, 27.9854, -151.369, -78.3313, 131.994
8.69567, 104, 12.337, -5.4534, 27.535, -151.221, -79.0449, 132.346
8.7036, 104, 12.2922, -4.72999, 27.0883, -151.068, -79.7594, 132.7
8.71159, 104, 12.2484, -4.008, 26.646, -150.911, -80.4746, 133.054
8.71966, 104, 12.2055, -3.28915, 26.2091, -150.751, -81.1881, 133.41
8.7276, 104, 12.1637, -2.57574, 25.7773, -150.586, -81.8971, 133.766
8.73567, 104, 12.1234, -1.86869, 25.3518, -150.419, -82.6025, 134.123
8.7436, 104, 12.0841, -1.16928, 24.9341, -150.248, -83.3036, 134.478
8.75195, 104, 12.0457, -0.479018, 24.525, -150.075, -83.9963, 134.83
8.75968, 104, 12.0083, 0.201227, 24.1259, -149.9, -84.6785, 135.179
8.76771, 104, 11.9719, 0.870459, 23.738, -149.725, -85.3473, 135.525
8.77575, 104, 11.9366, 1.52687, 23.3625, -149.548, -86.0018, 135.864
8.78371, 104, 11.9025, 2.16969, 22.9996, -149.372, -86.6422, 136.199
8.7917, 104, 11.8695, 2.79689, 22.649, -149.197, -87.2667, 136.526
8.79976, 104, 11.8376, 3.40812, 22.3112, -149.022, -87.8754, 136.847
8.80764, 104, 11.8072, 4.00292, 21.9865, -148.849, -88.4674, 137.161
8.81615, 104, 11.7779, 4.58095, 21.6743, -148.676, -89.0415, 137.469
8.82259, 104, 11.7637, 4.86391, 21.5229, -148.591, -89.3222, 137.62
8.83267, 104, 11.7232, 5.68687, 21.0854, -148.337, -90.141, 138.063
8.83977, 104, 11.6975, 6.21381, 20.809, -148.17, -90.6666, 138.349
8.84852, 104, 11.673, 6.72414, 20.544, -148.005, -91.176, 138.628
8.85589, 104, 11.6498, 7.21759, 20.2908, -147.843, -91.6686, 138.9
8.86391, 104, 11.6277, 7.69401, 20.049, -147.684, -92.1437, 139.164
8.87207, 104, 11.6067, 8.15425, 19.8176, -147.528, -92.6023, 139.42
8.88006, 104, 11.5869, 8.59755, 19.5975, -147.375, -93.0443, 139.669
8.88818, 104, 11.5683, 9.02323, 19.3883, -147.225, -93.4699, 139.91
8.89617, 104, 11.5506, 9.43197, 19.1888, -147.08, -93.8783, 140.142
8.90476, 104, 11.5342, 9.82283, 19, -146.938, -94.2698, 140.366
8.91222, 104, 11.5187, 10.1955, 18.8222, -146.801, -94.6434, 140.581
8.92129, 104, 11.5114, 10.3747, 18.6545, -146.669, -94.9989, 140.786
8.92757, 104, 11.4975, 10.7186, 18.5745, -146.605, -95.1694, 140.885
8.93563, 104, 11.4846, 11.0436, 18.4227, -146.482, -95.496, 141.075
8.94358, 104, 11.4727, 11.348, 18.2819, -146.365, -95.8023, 141.254
8.95158, 104, 11.4619, 11.6319, 18.1515, -146.255, -96.0881, 141.421
8.95967, 104, 11.4521, 11.8949, 18.0317, -146.152, -96.3524, 141.577
8.96758, 104, 11.4431, 12.1365, 17.9226, -146.057, -96.5953, 141.721
8.97564, 104, 11.4348, 12.3571, 17.8239, -145.969, -96.8162, 141.852
8.98363, 104, 11.4274, 12.5568, 17.7356, -145.89, -97.015, 141.97
8.99158, 104, 11.4208, 12.7352, 17.6577, -145.819, -97.1917, 142.076
8.99959, 104, 11.4149, 12.8927, 17.5898, -145.757, -97.3466, 142.168
9.00768, 104, 11.4095, 13.0304, 17.5317, -145.703, -97.4795, 142.248
9.01558, 104, 11.4046, 13.149, 17.4829, -145.657, -97.5915, 142.315
9.0236, 104, 11.4, 13.2492, 17.443, -145.62, -97.6829, 142.369
9.03164, 104, 11.396, 13.3322, 17.4109, -145.591, -97.7561, 142.413
9.03959, 104, 11.3922, 13.4001, 17.3863, -145.567, -97.8118, 142.448
9.04758, 104, 11.3888, 13.4548, 17.3682, -145.55, -97.8528, 142.472
9.05565, 104, 11.3859, 13.4977, 17.3552, -145.537, -97.882, 142.49
9.0652, 104, 11.3836, 13.5299, 17.3467, -145.529, -97.9019, 142.501
9.07157, 104, 11.3817, 13.5539, 17.3412, -145.524, -97.9145, 142.508
9.07966, 104, 11.3801, 13.5714, 17.3379, -145.521, -97.9217, 142.512
9.08758, 104, 11.379, 13.5834, 17.3362, -145.52, -97.9255, 142.514
9.09558, 104, 11.3781, 13.5914, 17.3353, -145.519, -97.9274, 142.515
9.10365, 105, 11.3776, 13.5968, 17.3349, -145.519, -97.9283, 142.515
9.11158, 105, 11.3771, 13.6003, 17.3347, -145.518, -97.9287, 142.516
9.1196, 105, 11.3768, 13.6028, 17.3346, -145.518, -97.9288, 142.516
9.12764, 105, 11.3765, 13.6048, 17.3346, -145.518, -97.9289, 142.516
9.13559, 105, 11.3764, 13.6065, 17.3346, -145.518, -97.9289, 142.516
9.14363, 105, 11.3762, 13.608, 17.3346, -145.518, -97.9289, 142.516
9.15164, 105, 11.3761, 13.6094, 17.3346, -145.518, -97.9289, 142.516
9.15958, 105, 11.376, 13.6105, 17.3346, -145.518, -97.9288, 142.516
9.16758, 105, 11.376, 13.6114, 17.3346, -145.518, -97.9287, 142.516
9.17569, 105, 11.3759, 13.6121, 17.3346, -145.518, -97.9285, 142.516
9.18357, 105, 11.3759, 13.6127, 17.3346, -145.518, -97.9284, 142.516
9.19158, 105, 11.3759, 13.6131, 17.3347, -145.519, -97.9282, 142.516
9.19962, 105, 11.3759, 13.6133, 17.3347, -145.519, -97.9281, 142.516
9.20757, 105, 11.3759, 13.6134, 17.3348, -145.519, -97.9279, 142.516
9.21559, 105, 11.3759, 13.6135, 17.3348, -145.519, -97.9278, 142.516
