hehonglu123/Motion-Primitive-Planning/simulation/robotstudio_sim/scripts/fitting_output_new/Jon/curve_exe_v1600_z10.csv
timestamp, cmd_num, J1, J2, J3, J4, J5, J6
0, 1, -0.804314, 64.433, 8.47718, 44.6, -96.4084, 169.856
0.002, 1, -0.804314, 64.433, 8.47718, 44.6, -96.4084, 169.856
0.004, 1, -0.804314, 64.433, 8.47718, 44.6, -96.4084, 169.856
0.008, 1, -0.804314, 64.433, 8.47718, 44.6, -96.4084, 169.856
0.011, 1, -0.804314, 64.433, 8.47718, 44.6, -96.4084, 169.856
0.016, 1, -0.804314, 64.433, 8.47718, 44.6, -96.4084, 169.856
0.02, 1, -0.804314, 64.433, 8.47718, 44.6, -96.4084, 169.856
0.024, 1, -0.804314, 64.433, 8.47718, 44.6, -96.4084, 169.856
0.028, 1, -0.804314, 64.433, 8.47718, 44.6, -96.4084, 169.856
0.032, 1, -0.804305, 64.433, 8.47718, 44.6, -96.4084, 169.856
0.036, 1, -0.804239, 64.433, 8.47718, 44.6, -96.4084, 169.856
0.04, 1, -0.80401, 64.4329, 8.4772, 44.6, -96.4084, 169.856
0.044, 1, -0.803466, 64.4326, 8.47723, 44.5999, -96.4083, 169.856
0.048, 1, -0.802459, 64.4321, 8.4773, 44.5998, -96.4082, 169.856
0.052, 1, -0.800874, 64.4312, 8.47742, 44.5995, -96.4081, 169.855
0.056, 1, -0.798637, 64.4298, 8.47758, 44.599, -96.4076, 169.853
0.06, 1, -0.795717, 64.4278, 8.47778, 44.598, -96.4068, 169.85
0.064, 1, -0.792136, 64.4252, 8.47802, 44.5962, -96.4053, 169.844
0.068, 1, -0.787945, 64.4219, 8.47828, 44.5935, -96.4029, 169.834
0.072, 1, -0.783168, 64.4179, 8.47852, 44.5894, -96.3993, 169.82
0.076, 1, -0.777771, 64.4131, 8.47874, 44.5836, -96.394, 169.8
0.08, 1, -0.771677, 64.4074, 8.4789, 44.5757, -96.3869, 169.772
0.084, 1, -0.764814, 64.4008, 8.47897, 44.5652, -96.3773, 169.736
0.088, 1, -0.757168, 64.3932, 8.47894, 44.5518, -96.365, 169.689
0.092, 1, -0.748787, 64.3846, 8.47874, 44.535, -96.3496, 169.63
0.096, 1, -0.739745, 64.3753, 8.47836, 44.5146, -96.3308, 169.558
0.1, 1, -0.730111, 64.3653, 8.47775, 44.4903, -96.3083, 169.472
0.104, 1, -0.719927, 64.3547, 8.47689, 44.4618, -96.2819, 169.371
0.108, 1, -0.7092, 64.3434, 8.47578, 44.4292, -96.2516, 169.256
0.112, 1, -0.69788, 64.3315, 8.47443, 44.3926, -96.2175, 169.126
0.116, 1, -0.685877, 64.3187, 8.47286, 44.3519, -96.1797, 168.982
0.12, 1, -0.673116, 64.305, 8.47112, 44.3076, -96.1384, 168.824
0.124, 1, -0.659578, 64.2904, 8.46921, 44.2599, -96.0939, 168.655
0.128, 1, -0.645314, 64.2748, 8.46719, 44.2092, -96.0467, 168.475
0.131, 1, -0.630399, 64.2584, 8.46506, 44.1559, -95.997, 168.286
0.136, 1, -0.614873, 64.2411, 8.46286, 44.1003, -95.9452, 168.089
0.139, 1, -0.598722, 64.2229, 8.46063, 44.0429, -95.8917, 167.885
0.144, 1, -0.581903, 64.204, 8.45838, 43.984, -95.8369, 167.676
0.148, 1, -0.564374, 64.1844, 8.45614, 43.9239, -95.781, 167.464
0.152, 1, -0.546108, 64.1641, 8.45393, 43.8631, -95.7244, 167.248
0.156, 1, -0.527107, 64.1432, 8.45175, 43.8016, -95.6673, 167.03
0.16, 1, -0.507434, 64.1218, 8.44961, 43.7397, -95.6097, 166.811
0.164, 1, -0.487217, 64.1, 8.4475, 43.6775, -95.5519, 166.591
0.168, 1, -0.466605, 64.078, 8.44542, 43.6151, -95.494, 166.37
0.172, 1, -0.445723, 64.0557, 8.44335, 43.5526, -95.436, 166.148
0.176, 1, -0.424659, 64.0334, 8.44129, 43.49, -95.3778, 165.927
0.18, 1, -0.403475, 64.011, 8.43923, 43.4274, -95.3197, 165.705
0.184, 1, -0.38221, 63.9886, 8.43719, 43.3647, -95.2615, 165.483
0.188, 1, -0.360893, 63.9661, 8.43514, 43.3021, -95.2033, 165.261
0.192, 1, -0.339541, 63.9436, 8.4331, 43.2394, -95.1451, 165.039
0.196, 1, -0.318168, 63.9211, 8.43106, 43.1767, -95.0869, 164.818
0.2, 1, -0.296783, 63.8986, 8.42902, 43.114, -95.0287, 164.596
0.204, 1, -0.27539, 63.876, 8.42698, 43.0514, -94.9706, 164.374
0.208, 1, -0.253994, 63.8535, 8.42495, 42.9887, -94.9124, 164.152
0.212, 1, -0.232597, 63.831, 8.42291, 42.9261, -94.8542, 163.93
0.216, 1, -0.211201, 63.8085, 8.42088, 42.8635, -94.7961, 163.709
0.22, 1, -0.189808, 63.7859, 8.41884, 42.8008, -94.7379, 163.487
0.224, 1, -0.168418, 63.7634, 8.41681, 42.7383, -94.6798, 163.265
0.228, 1, -0.147031, 63.7409, 8.41478, 42.6757, -94.6217, 163.044
0.232, 1, -0.125648, 63.7184, 8.41274, 42.6131, -94.5636, 162.822
0.236, 1, -0.104269, 63.6959, 8.41071, 42.5505, -94.5055, 162.601
0.24, 1, -0.0828949, 63.6734, 8.40868, 42.488, -94.4475, 162.38
0.244, 1, -0.0615245, 63.6509, 8.40665, 42.4255, -94.3894, 162.158
0.248, 1, -0.0401584, 63.6284, 8.40462, 42.3629, -94.3314, 161.937
0.252, 1, -0.0187965, 63.606, 8.40259, 42.3004, -94.2733, 161.716
0.256, 1, 0.00256108, 63.5835, 8.40056, 42.2379, -94.2153, 161.494
0.26, 1, 0.0239145, 63.561, 8.39853, 42.1754, -94.1573, 161.273
0.264, 1, 0.0452637, 63.5386, 8.3965, 42.113, -94.0993, 161.052
0.268, 1, 0.0666088, 63.5161, 8.39447, 42.0505, -94.0413, 160.831
0.272, 1, 0.0879499, 63.4936, 8.39244, 41.9881, -93.9833, 160.61
0.276, 1, 0.109287, 63.4712, 8.39041, 41.9256, -93.9253, 160.389
0.28, 1, 0.13062, 63.4487, 8.38838, 41.8632, -93.8674, 160.168
0.284, 1, 0.15195, 63.4263, 8.38636, 41.8008, -93.8094, 159.947
0.288, 1, 0.173276, 63.4038, 8.38433, 41.7384, -93.7515, 159.726
0.292, 1, 0.194598, 63.3814, 8.3823, 41.676, -93.6936, 159.505
0.296, 1, 0.215916, 63.359, 8.38028, 41.6136, -93.6357, 159.284
0.3, 1, 0.237231, 63.3365, 8.37825, 41.5513, -93.5778, 159.064
0.304, 1, 0.258542, 63.3141, 8.37622, 41.4889, -93.5199, 158.843
0.308, 1, 0.27985, 63.2917, 8.3742, 41.4266, -93.462, 158.622
0.312, 1, 0.301154, 63.2692, 8.37218, 41.3642, -93.4041, 158.401
0.316, 1, 0.322455, 63.2468, 8.37015, 41.3019, -93.3462, 158.181
0.32, 1, 0.343753, 63.2244, 8.36813, 41.2396, -93.2884, 157.96
0.324, 1, 0.365047, 63.202, 8.3661, 41.1773, -93.2305, 157.74
0.328, 1, 0.386339, 63.1796, 8.36408, 41.115, -93.1727, 157.519
0.332, 1, 0.407627, 63.1572, 8.36205, 41.0527, -93.1148, 157.298
0.336, 1, 0.428912, 63.1348, 8.36003, 40.9904, -93.057, 157.078
0.34, 1, 0.450194, 63.1124, 8.35801, 40.9281, -92.9992, 156.858
0.344, 1, 0.471473, 63.09, 8.35599, 40.8658, -92.9414, 156.637
0.348, 1, 0.492749, 63.0676, 8.35396, 40.8036, -92.8836, 156.417
0.352, 1, 0.514022, 63.0452, 8.35194, 40.7413, -92.8258, 156.196
0.356, 1, 0.535292, 63.0228, 8.34992, 40.6791, -92.768, 155.976
0.36, 1, 0.55656, 63.0005, 8.3479, 40.6169, -92.7102, 155.756
0.364, 1, 0.577826, 62.9781, 8.34588, 40.5546, -92.6524, 155.535
0.368, 1, 0.599088, 62.9557, 8.34386, 40.4924, -92.5947, 155.315
0.372, 1, 0.620348, 62.9333, 8.34184, 40.4302, -92.5369, 155.095
0.376, 1, 0.641606, 62.9109, 8.33982, 40.368, -92.4792, 154.875
0.38, 1, 0.662862, 62.8886, 8.33779, 40.3058, -92.4214, 154.655
0.384, 1, 0.684115, 62.8662, 8.33577, 40.2436, -92.3637, 154.434
0.388, 1, 0.705365, 62.8439, 8.33375, 40.1814, -92.3059, 154.214
0.392, 1, 0.726614, 62.8215, 8.33173, 40.1193, -92.2482, 153.994
0.396, 1, 0.74786, 62.7991, 8.32971, 40.0571, -92.1905, 153.774
0.4, 1, 0.769105, 62.7768, 8.3277, 39.9949, -92.1328, 153.554
0.404, 1, 0.790347, 62.7544, 8.32568, 39.9328, -92.0751, 153.334
0.408, 1, 0.811588, 62.7321, 8.32366, 39.8706, -92.0174, 153.114
0.412, 1, 0.832826, 62.7097, 8.32164, 39.8085, -91.9597, 152.894
0.416, 1, 0.854063, 62.6874, 8.31962, 39.7463, -91.902, 152.674
0.42, 1, 0.875298, 62.665, 8.3176, 39.6842, -91.8443, 152.454
0.424, 1, 0.896531, 62.6427, 8.31558, 39.6221, -91.7866, 152.234
0.428, 1, 0.917762, 62.6203, 8.31357, 39.5599, -91.7289, 152.014
0.432, 1, 0.938992, 62.598, 8.31155, 39.4978, -91.6712, 151.794
0.436, 1, 0.96022, 62.5756, 8.30953, 39.4357, -91.6136, 151.574
0.44, 1, 0.981447, 62.5533, 8.30751, 39.3736, -91.5559, 151.355
0.444, 1, 1.00267, 62.531, 8.30549, 39.3115, -91.4982, 151.135
0.448, 1, 1.0239, 62.5086, 8.30348, 39.2494, -91.4406, 150.915
0.452, 1, 1.04512, 62.4863, 8.30146, 39.1873, -91.3829, 150.695
0.456, 1, 1.06634, 62.464, 8.29944, 39.1252, -91.3252, 150.475
0.46, 1, 1.08756, 62.4416, 8.29743, 39.0631, -91.2676, 150.255
0.464, 1, 1.10878, 62.4193, 8.29541, 39.001, -91.21, 150.036
0.468, 1, 1.13, 62.397, 8.29339, 38.9389, -91.1523, 149.816
0.472, 1, 1.15121, 62.3746, 8.29138, 38.8768, -91.0947, 149.596
0.476, 1, 1.17243, 62.3523, 8.28936, 38.8147, -91.037, 149.376
0.48, 1, 1.19365, 62.33, 8.28734, 38.7527, -90.9794, 149.156
0.484, 1, 1.21486, 62.3077, 8.28533, 38.6906, -90.9218, 148.937
0.488, 1, 1.23607, 62.2853, 8.28331, 38.6285, -90.8641, 148.717
0.492, 1, 1.25729, 62.263, 8.28129, 38.5664, -90.8065, 148.497
0.496, 1, 1.2785, 62.2407, 8.27928, 38.5044, -90.7489, 148.278
0.5, 1, 1.29971, 62.2184, 8.27726, 38.4423, -90.6912, 148.058
0.504, 1, 1.32092, 62.196, 8.27525, 38.3802, -90.6336, 147.838
0.508, 1, 1.34213, 62.1737, 8.27323, 38.3182, -90.576, 147.618
0.512, 1, 1.36335, 62.1514, 8.27121, 38.2561, -90.5184, 147.399
0.516, 1, 1.38456, 62.1291, 8.2692, 38.194, -90.4607, 147.179
0.52, 1, 1.40576, 62.1068, 8.26718, 38.132, -90.4031, 146.959
0.524, 1, 1.42697, 62.0844, 8.26517, 38.0699, -90.3455, 146.74
0.528, 1, 1.44818, 62.0621, 8.26315, 38.0079, -90.2879, 146.52
0.532, 1, 1.46939, 62.0398, 8.26113, 37.9458, -90.2303, 146.3
0.536, 1, 1.4906, 62.0175, 8.25912, 37.8837, -90.1726, 146.081
0.54, 1, 1.51181, 61.9951, 8.2571, 37.8217, -90.115, 145.861
0.544, 1, 1.53302, 61.9728, 8.25508, 37.7596, -90.0574, 145.641
0.548, 1, 1.55423, 61.9505, 8.25307, 37.6976, -89.9998, 145.421
0.552, 1, 1.57544, 61.9282, 8.25105, 37.6355, -89.9422, 145.202
0.556, 1, 1.59665, 61.9059, 8.24904, 37.5734, -89.8845, 144.982
0.56, 1, 1.61786, 61.8835, 8.24702, 37.5114, -89.8269, 144.762
0.564, 1, 1.63907, 61.8612, 8.24501, 37.4493, -89.7693, 144.543
0.568, 1, 1.66028, 61.8389, 8.24299, 37.3872, -89.7117, 144.323
0.572, 1, 1.68149, 61.8166, 8.24097, 37.3252, -89.654, 144.103
0.576, 1, 1.7027, 61.7942, 8.23896, 37.2631, -89.5964, 143.883
0.58, 1, 1.72392, 61.7719, 8.23694, 37.201, -89.5388, 143.664
0.584, 1, 1.74513, 61.7496, 8.23492, 37.139, -89.4811, 143.444
0.588, 1, 1.76635, 61.7273, 8.23291, 37.0769, -89.4235, 143.224
0.592, 1, 1.78756, 61.7049, 8.23089, 37.0148, -89.3659, 143.004
0.596, 1, 1.80878, 61.6826, 8.22888, 36.9527, -89.3082, 142.785
0.6, 1, 1.83, 61.6603, 8.22686, 36.8906, -89.2506, 142.565
0.604, 1, 1.85121, 61.638, 8.22484, 36.8286, -89.1929, 142.345
0.608, 1, 1.87243, 61.6156, 8.22283, 36.7665, -89.1353, 142.125
0.612, 1, 1.89365, 61.5933, 8.22081, 36.7044, -89.0776, 141.905
0.616, 1, 1.91487, 61.571, 8.21879, 36.6423, -89.02, 141.686
0.62, 1, 1.9361, 61.5486, 8.21677, 36.5802, -88.9623, 141.466
0.624, 1, 1.95732, 61.5263, 8.21476, 36.5181, -88.9047, 141.246
0.628, 1, 1.97855, 61.5039, 8.21274, 36.456, -88.847, 141.026
0.632, 1, 1.99977, 61.4816, 8.21072, 36.3938, -88.7893, 140.806
0.636, 1, 2.021, 61.4593, 8.2087, 36.3317, -88.7317, 140.586
0.64, 1, 2.04223, 61.4369, 8.20669, 36.2696, -88.674, 140.366
0.644, 1, 2.06346, 61.4146, 8.20467, 36.2075, -88.6163, 140.146
0.648, 1, 2.0847, 61.3922, 8.20265, 36.1454, -88.5586, 139.927
0.652, 1, 2.10593, 61.3699, 8.20063, 36.0832, -88.5009, 139.707
0.656, 1, 2.12717, 61.3475, 8.19861, 36.0211, -88.4432, 139.487
0.66, 1, 2.14841, 61.3252, 8.19659, 35.9589, -88.3855, 139.267
0.664, 1, 2.16965, 61.3028, 8.19458, 35.8968, -88.3278, 139.047
0.668, 1, 2.19089, 61.2805, 8.19256, 35.8346, -88.2701, 138.827
0.672, 1, 2.21214, 61.2581, 8.19054, 35.7725, -88.2124, 138.606
0.676, 1, 2.23338, 61.2358, 8.18852, 35.7103, -88.1547, 138.386
0.68, 1, 2.25463, 61.2134, 8.1865, 35.6481, -88.0969, 138.166
0.684, 1, 2.27588, 61.191, 8.18448, 35.5859, -88.0392, 137.946
0.688, 1, 2.29714, 61.1687, 8.18246, 35.5237, -87.9815, 137.726
0.692, 1, 2.31839, 61.1463, 8.18044, 35.4615, -87.9237, 137.506
0.696, 1, 2.33965, 61.1239, 8.17842, 35.3993, -87.866, 137.286
0.7, 1, 2.36091, 61.1015, 8.1764, 35.3371, -87.8082, 137.065
0.704, 1, 2.38217, 61.0792, 8.17437, 35.2749, -87.7504, 136.845
0.708, 1, 2.40344, 61.0568, 8.17235, 35.2127, -87.6927, 136.625
0.712, 1, 2.42471, 61.0344, 8.17033, 35.1504, -87.6349, 136.405
0.716, 1, 2.44598, 61.012, 8.16831, 35.0882, -87.5771, 136.184
0.72, 1, 2.46725, 60.9896, 8.16629, 35.026, -87.5193, 135.964
0.724, 1, 2.48853, 60.9672, 8.16427, 34.9637, -87.4615, 135.743
0.728, 1, 2.50981, 60.9448, 8.16224, 34.9014, -87.4037, 135.523
0.732, 1, 2.53109, 60.9224, 8.16022, 34.8392, -87.3459, 135.303
0.736, 1, 2.55238, 60.9, 8.1582, 34.7769, -87.288, 135.082
0.74, 1, 2.57366, 60.8776, 8.15617, 34.7146, -87.2302, 134.862
0.744, 1, 2.59496, 60.8552, 8.15415, 34.6523, -87.1724, 134.641
0.748, 1, 2.61625, 60.8328, 8.15213, 34.59, -87.1145, 134.42
0.752, 1, 2.63755, 60.8104, 8.1501, 34.5276, -87.0566, 134.2
0.756, 1, 2.65885, 60.788, 8.14808, 34.4653, -86.9988, 133.979
0.76, 1, 2.68016, 60.7656, 8.14605, 34.403, -86.9409, 133.759
0.764, 1, 2.70146, 60.7431, 8.14403, 34.3406, -86.883, 133.538
0.768, 1, 2.72278, 60.7207, 8.142, 34.2783, -86.8251, 133.317
0.772, 1, 2.74409, 60.6983, 8.13998, 34.2159, -86.7672, 133.096
0.776, 1, 2.76541, 60.6758, 8.13795, 34.1535, -86.7093, 132.875
0.78, 1, 2.78673, 60.6534, 8.13592, 34.0911, -86.6514, 132.655
0.784, 1, 2.80806, 60.631, 8.1339, 34.0287, -86.5934, 132.434
0.788, 1, 2.82939, 60.6085, 8.13187, 33.9663, -86.5355, 132.213
0.792, 1, 2.85073, 60.5861, 8.12984, 33.9039, -86.4775, 131.992
0.796, 1, 2.87207, 60.5636, 8.12781, 33.8414, -86.4195, 131.771
0.8, 1, 2.89341, 60.5411, 8.12578, 33.779, -86.3616, 131.55
0.804, 1, 2.91475, 60.5187, 8.12376, 33.7165, -86.3036, 131.329
0.808, 1, 2.93611, 60.4962, 8.12173, 33.6541, -86.2456, 131.107
0.812, 1, 2.95746, 60.4737, 8.1197, 33.5916, -86.1875, 130.886
0.816, 1, 2.97882, 60.4513, 8.11767, 33.5291, -86.1295, 130.665
0.82, 1, 3.00018, 60.4288, 8.11564, 33.4666, -86.0715, 130.444
0.824, 1, 3.02155, 60.4063, 8.1136, 33.404, -86.0134, 130.222
0.828, 1, 3.04293, 60.3838, 8.11157, 33.3415, -85.9554, 130.001
0.832, 1, 3.0643, 60.3613, 8.10954, 33.2789, -85.8973, 129.779
0.836, 1, 3.08568, 60.3388, 8.10751, 33.2164, -85.8392, 129.558
0.84, 1, 3.10707, 60.3163, 8.10548, 33.1538, -85.7811, 129.336
0.844, 1, 3.12846, 60.2938, 8.10344, 33.0912, -85.723, 129.115
0.848, 1, 3.14986, 60.2712, 8.10141, 33.0286, -85.6648, 128.893
0.852, 1, 3.17126, 60.2487, 8.09938, 32.966, -85.6067, 128.672
0.856, 1, 3.19267, 60.2262, 8.09734, 32.9033, -85.5485, 128.45
0.86, 1, 3.21408, 60.2037, 8.09531, 32.8407, -85.4904, 128.228
0.864, 1, 3.2355, 60.1811, 8.09327, 32.778, -85.4322, 128.006
0.868, 1, 3.25692, 60.1586, 8.09123, 32.7153, -85.374, 127.784
0.872, 1, 3.27834, 60.136, 8.0892, 32.6526, -85.3158, 127.562
0.876, 1, 3.29978, 60.1135, 8.08716, 32.5899, -85.2576, 127.34
0.88, 1, 3.32121, 60.0909, 8.08512, 32.5272, -85.1993, 127.118
0.884, 1, 3.34266, 60.0683, 8.08309, 32.4645, -85.1411, 126.896
0.888, 1, 3.36411, 60.0458, 8.08105, 32.4017, -85.0828, 126.674
0.892, 1, 3.38556, 60.0232, 8.07901, 32.3389, -85.0245, 126.452
0.896, 1, 3.40702, 60.0006, 8.07697, 32.2761, -84.9662, 126.229
0.9, 1, 3.42849, 59.978, 8.07493, 32.2133, -84.9079, 126.007
0.904, 1, 3.44996, 59.9554, 8.07289, 32.1505, -84.8495, 125.785
0.908, 1, 3.47143, 59.9328, 8.07085, 32.0876, -84.7912, 125.562
0.912, 1, 3.49292, 59.9102, 8.0688, 32.0248, -84.7328, 125.34
0.916, 1, 3.51441, 59.8876, 8.06676, 31.9619, -84.6745, 125.117
0.92, 1, 3.5359, 59.865, 8.06472, 31.899, -84.6161, 124.894
0.924, 1, 3.5574, 59.8424, 8.06268, 31.8361, -84.5577, 124.672
0.928, 1, 3.57891, 59.8197, 8.06063, 31.7732, -84.4992, 124.449
0.932, 1, 3.60042, 59.7971, 8.05859, 31.7102, -84.4408, 124.226
0.936, 1, 3.62194, 59.7744, 8.05654, 31.6472, -84.3823, 124.003
0.94, 1, 3.64347, 59.7518, 8.05449, 31.5843, -84.3238, 123.78
0.944, 1, 3.665, 59.7291, 8.05245, 31.5212, -84.2653, 123.557
0.948, 1, 3.68654, 59.7064, 8.0504, 31.4582, -84.2068, 123.334
0.952, 1, 3.70809, 59.6838, 8.04835, 31.3952, -84.1483, 123.111
0.956, 1, 3.72964, 59.6611, 8.0463, 31.3321, -84.0897, 122.888
0.96, 1, 3.7512, 59.6384, 8.04426, 31.269, -84.0312, 122.664
0.964, 1, 3.77276, 59.6157, 8.04221, 31.2059, -83.9726, 122.441
0.968, 1, 3.79434, 59.593, 8.04016, 31.1428, -83.914, 122.217
0.972, 1, 3.81592, 59.5703, 8.03811, 31.0797, -83.8553, 121.994
0.976, 1, 3.8375, 59.5476, 8.03605, 31.0165, -83.7967, 121.77
0.98, 1, 3.8591, 59.5248, 8.034, 30.9533, -83.738, 121.547
0.984, 1, 3.8807, 59.5021, 8.03195, 30.8901, -83.6794, 121.323
0.988, 1, 3.9023, 59.4794, 8.02989, 30.8269, -83.6206, 121.099
0.992, 1, 3.92392, 59.4566, 8.02784, 30.7636, -83.5619, 120.875
0.996, 1, 3.94554, 59.4339, 8.02579, 30.7004, -83.5032, 120.651
1, 1, 3.96717, 59.4111, 8.02373, 30.6371, -83.4444, 120.427
1.004, 1, 3.98881, 59.3883, 8.02167, 30.5738, -83.3856, 120.203
1.008, 1, 4.01045, 59.3656, 8.01962, 30.5104, -83.3268, 119.979
1.012, 1, 4.03211, 59.3428, 8.01756, 30.4471, -83.268, 119.755
1.016, 1, 4.05377, 59.32, 8.0155, 30.3837, -83.2092, 119.53
1.02, 1, 4.07544, 59.2972, 8.01344, 30.3203, -83.1503, 119.306
1.024, 1, 4.09711, 59.2744, 8.01138, 30.2569, -83.0914, 119.081
1.027, 1, 4.1188, 59.2515, 8.00932, 30.1934, -83.0325, 118.857
1.032, 1, 4.14049, 59.2287, 8.00726, 30.13, -82.9736, 118.632
1.036, 1, 4.16219, 59.2059, 8.00519, 30.0665, -82.9146, 118.407
1.04, 1, 4.1839, 59.183, 8.00313, 30.0029, -82.8557, 118.182
1.044, 1, 4.20561, 59.1602, 8.00107, 29.9394, -82.7967, 117.957
1.048, 1, 4.22734, 59.1373, 7.999, 29.8758, -82.7376, 117.732
1.052, 1, 4.24907, 59.1144, 7.99694, 29.8122, -82.6786, 117.507
1.055, 1, 4.27081, 59.0916, 7.99487, 29.7486, -82.6195, 117.282
1.06, 1, 4.29256, 59.0687, 7.9928, 29.685, -82.5604, 117.057
1.064, 1, 4.31432, 59.0458, 7.99074, 29.6213, -82.5013, 116.831
1.068, 1, 4.33609, 59.0229, 7.98867, 29.5576, -82.4422, 116.606
1.072, 1, 4.35787, 58.9999, 7.9866, 29.4939, -82.383, 116.38
1.076, 1, 4.37965, 58.977, 7.98453, 29.4302, -82.3239, 116.155
1.08, 1, 4.40144, 58.9541, 7.98246, 29.3664, -82.2646, 115.929
1.084, 1, 4.42325, 58.9311, 7.98038, 29.3026, -82.2054, 115.703
1.088, 1, 4.44506, 58.9082, 7.97831, 29.2388, -82.1462, 115.477
1.091, 1, 4.46688, 58.8852, 7.97624, 29.1749, -82.0869, 115.251
1.096, 1, 4.48871, 58.8622, 7.97416, 29.1111, -82.0276, 115.025
1.1, 1, 4.51055, 58.8393, 7.97209, 29.0471, -81.9682, 114.799
1.104, 1, 4.5324, 58.8163, 7.97001, 28.9832, -81.9089, 114.573
1.108, 1, 4.55426, 58.7933, 7.96793, 28.9193, -81.8495, 114.346
1.112, 1, 4.57612, 58.7703, 7.96586, 28.8553, -81.7901, 114.12
1.116, 1, 4.598, 58.7472, 7.96378, 28.7913, -81.7307, 113.893
1.119, 1, 4.61989, 58.7242, 7.9617, 28.7272, -81.6712, 113.666
1.124, 1, 4.64179, 58.7011, 7.95961, 28.6631, -81.6117, 113.439
1.128, 1, 4.66369, 58.6781, 7.95753, 28.599, -81.5522, 113.213
1.132, 1, 4.68561, 58.655, 7.95545, 28.5349, -81.4927, 112.986
1.136, 1, 4.70754, 58.632, 7.95337, 28.4708, -81.4331, 112.758
1.14, 1, 4.72947, 58.6089, 7.95128, 28.4066, -81.3735, 112.531
1.144, 1, 4.75142, 58.5858, 7.94919, 28.3424, -81.3139, 112.304
1.147, 1, 4.77338, 58.5627, 7.94711, 28.2781, -81.2542, 112.076
1.152, 1, 4.79534, 58.5395, 7.94502, 28.2138, -81.1946, 111.849
1.156, 1, 4.81732, 58.5164, 7.94293, 28.1495, -81.1348, 111.621
1.16, 1, 4.83931, 58.4933, 7.94084, 28.0852, -81.0751, 111.393
1.164, 1, 4.86131, 58.4701, 7.93875, 28.0208, -81.0154, 111.166
1.168, 1, 4.88331, 58.447, 7.93666, 27.9564, -80.9556, 110.938
1.172, 1, 4.90533, 58.4238, 7.93457, 27.892, -80.8957, 110.71
1.175, 1, 4.92736, 58.4006, 7.93247, 27.8275, -80.8359, 110.481
1.18, 1, 4.94941, 58.3774, 7.93038, 27.763, -80.776, 110.253
1.184, 1, 4.97146, 58.3542, 7.92828, 27.6985, -80.7161, 110.025
1.188, 1, 4.99352, 58.331, 7.92619, 27.634, -80.6562, 109.796
1.192, 1, 5.01559, 58.3078, 7.92409, 27.5694, -80.5962, 109.567
1.196, 1, 5.03768, 58.2845, 7.92199, 27.5048, -80.5362, 109.339
1.2, 1, 5.05978, 58.2613, 7.91989, 27.4401, -80.4762, 109.11
1.204, 1, 5.08188, 58.238, 7.91779, 27.3754, -80.4161, 108.881
1.208, 1, 5.104, 58.2147, 7.91569, 27.3107, -80.356, 108.652
1.212, 1, 5.12613, 58.1914, 7.91358, 27.2459, -80.2959, 108.423
1.216, 1, 5.14828, 58.1681, 7.91148, 27.1812, -80.2358, 108.193
1.22, 1, 5.17043, 58.1448, 7.90937, 27.1163, -80.1756, 107.964
1.224, 1, 5.1926, 58.1215, 7.90727, 27.0515, -80.1153, 107.734
1.228, 1, 5.21477, 58.0981, 7.90516, 26.9866, -80.0551, 107.504
1.232, 1, 5.23696, 58.0748, 7.90305, 26.9217, -79.9948, 107.275
1.236, 1, 5.25916, 58.0514, 7.90094, 26.8567, -79.9345, 107.045
1.24, 1, 5.28138, 58.0281, 7.89883, 26.7917, -79.8742, 106.815
1.244, 1, 5.3036, 58.0047, 7.89672, 26.7267, -79.8138, 106.584
1.248, 1, 5.32584, 57.9813, 7.8946, 26.6616, -79.7534, 106.354
1.252, 1, 5.34809, 57.9578, 7.89249, 26.5965, -79.6929, 106.124
1.256, 1, 5.37035, 57.9344, 7.89037, 26.5314, -79.6325, 105.893
1.26, 1, 5.39263, 57.911, 7.88826, 26.4662, -79.572, 105.662
1.264, 1, 5.41491, 57.8875, 7.88614, 26.401, -79.5114, 105.431
1.267, 1, 5.43721, 57.8641, 7.88402, 26.3357, -79.4508, 105.2
1.272, 1, 5.45953, 57.8406, 7.8819, 26.2705, -79.3902, 104.969
1.276, 1, 5.48185, 57.8171, 7.87977, 26.2051, -79.3296, 104.738
1.28, 1, 5.50419, 57.7936, 7.87765, 26.1398, -79.2689, 104.507
1.284, 1, 5.52654, 57.7701, 7.87553, 26.0744, -79.2082, 104.275
1.288, 1, 5.54891, 57.7465, 7.8734, 26.0089, -79.1474, 104.044
1.292, 1, 5.57129, 57.723, 7.87128, 25.9435, -79.0866, 103.812
1.295, 1, 5.59368, 57.6994, 7.86915, 25.8779, -79.0258, 103.58
1.3, 1, 5.61608, 57.6758, 7.86702, 25.8124, -78.9649, 103.348
1.304, 1, 5.6385, 57.6522, 7.86489, 25.7468, -78.904, 103.116
1.308, 1, 5.66093, 57.6286, 7.86276, 25.6812, -78.8431, 102.883
1.312, 1, 5.68338, 57.605, 7.86063, 25.6155, -78.7821, 102.651
1.316, 1, 5.70584, 57.5814, 7.85849, 25.5498, -78.7211, 102.418
1.32, 1, 5.72831, 57.5577, 7.85636, 25.484, -78.66, 102.185
1.324, 1, 5.75079, 57.5341, 7.85422, 25.4182, -78.599, 101.952
1.328, 1, 5.7733, 57.5104, 7.85208, 25.3524, -78.5378, 101.719
1.332, 1, 5.79581, 57.4867, 7.84994, 25.2865, -78.4767, 101.486
1.336, 1, 5.81834, 57.463, 7.8478, 25.2206, -78.4155, 101.253
1.34, 1, 5.84088, 57.4393, 7.84566, 25.1546, -78.3542, 101.019
1.344, 1, 5.86344, 57.4155, 7.84352, 25.0886, -78.2929, 100.786
1.348, 1, 5.88601, 57.3918, 7.84137, 25.0226, -78.2316, 100.552
1.352, 1, 5.9086, 57.368, 7.83923, 24.9565, -78.1703, 100.318
1.356, 1, 5.9312, 57.3442, 7.83708, 24.8904, -78.1089, 100.084
1.36, 1, 5.95382, 57.3204, 7.83493, 24.8242, -78.0474, 99.8496
1.364, 1, 5.97645, 57.2966, 7.83278, 24.758, -77.986, 99.6152
1.368, 1, 5.99909, 57.2728, 7.83063, 24.6917, -77.9244, 99.3806
1.372, 1, 6.02175, 57.2489, 7.82847, 24.6254, -77.8629, 99.1459
1.376, 1, 6.04443, 57.225, 7.82632, 24.5591, -77.8013, 98.911
1.38, 1, 6.06712, 57.2012, 7.82416, 24.4927, -77.7396, 98.676
1.384, 1, 6.08983, 57.1773, 7.822, 24.4262, -77.6779, 98.4408
1.388, 1, 6.11255, 57.1534, 7.81984, 24.3598, -77.6162, 98.2054
1.392, 1, 6.13529, 57.1294, 7.81768, 24.2932, -77.5545, 97.9699
1.396, 1, 6.15804, 57.1055, 7.81552, 24.2267, -77.4926, 97.7343
1.4, 1, 6.18081, 57.0815, 7.81335, 24.16, -77.4308, 97.4984
1.404, 1, 6.20359, 57.0575, 7.81119, 24.0934, -77.3689, 97.2624
1.408, 1, 6.22639, 57.0335, 7.80902, 24.0267, -77.307, 97.0263
1.412, 1, 6.24921, 57.0095, 7.80686, 23.9599, -77.245, 96.7899
1.416, 1, 6.27204, 56.9855, 7.80468, 23.8931, -77.1829, 96.5535
1.42, 1, 6.29489, 56.9615, 7.80251, 23.8262, -77.1209, 96.3168
1.424, 1, 6.31775, 56.9374, 7.80034, 23.7593, -77.0588, 96.08
1.428, 1, 6.34064, 56.9133, 7.79817, 23.6924, -76.9966, 95.843
1.432, 1, 6.36353, 56.8892, 7.79599, 23.6254, -76.9344, 95.6058
1.436, 1, 6.38645, 56.8651, 7.79381, 23.5584, -76.8722, 95.3685
1.44, 1, 6.40938, 56.841, 7.79163, 23.4913, -76.8099, 95.131
1.444, 1, 6.43233, 56.8168, 7.78945, 23.4241, -76.7475, 94.8933
1.448, 1, 6.45529, 56.7927, 7.78727, 23.3569, -76.6851, 94.6554
1.452, 1, 6.47827, 56.7685, 7.78509, 23.2897, -76.6227, 94.4174
1.456, 1, 6.50127, 56.7443, 7.7829, 23.2224, -76.5602, 94.1792
1.46, 1, 6.52429, 56.7201, 7.78071, 23.1551, -76.4977, 93.9408
1.464, 1, 6.54732, 56.6958, 7.77853, 23.0877, -76.4352, 93.7022
1.468, 1, 6.57037, 56.6716, 7.77634, 23.0202, -76.3725, 93.4635
1.472, 1, 6.59344, 56.6473, 7.77414, 22.9527, -76.3099, 93.2246
1.476, 1, 6.61652, 56.623, 7.77195, 22.8852, -76.2472, 92.9855
1.48, 1, 6.63962, 56.5987, 7.76975, 22.8176, -76.1844, 92.7462
1.484, 1, 6.66274, 56.5743, 7.76756, 22.75, -76.1216, 92.5067
1.488, 1, 6.68588, 56.55, 7.76536, 22.6823, -76.0587, 92.2671
1.492, 1, 6.70904, 56.5256, 7.76316, 22.6145, -75.9958, 92.0272
1.496, 1, 6.73222, 56.5012, 7.76096, 22.5467, -75.9329, 91.7872
1.5, 1, 6.75541, 56.4768, 7.75875, 22.4788, -75.8699, 91.547
1.504, 1, 6.77862, 56.4524, 7.75655, 22.4109, -75.8068, 91.3065
1.508, 1, 6.80185, 56.428, 7.75434, 22.343, -75.7437, 91.0659
1.512, 1, 6.8251, 56.4035, 7.75213, 22.2749, -75.6806, 90.8252
1.516, 1, 6.84837, 56.379, 7.74992, 22.2069, -75.6174, 90.5842
1.52, 1, 6.87165, 56.3545, 7.74771, 22.1387, -75.5541, 90.343
1.524, 1, 6.89496, 56.33, 7.74549, 22.0706, -75.4908, 90.1016
1.528, 1, 6.91828, 56.3054, 7.74328, 22.0023, -75.4274, 89.86
1.532, 1, 6.94162, 56.2809, 7.74106, 21.934, -75.364, 89.6183
1.536, 1, 6.96499, 56.2563, 7.73884, 21.8657, -75.3006, 89.3763
1.54, 1, 6.98837, 56.2317, 7.73662, 21.7973, -75.2371, 89.1341
1.544, 1, 7.01177, 56.2071, 7.73439, 21.7288, -75.1735, 88.8918
1.548, 1, 7.03519, 56.1824, 7.73217, 21.6603, -75.1099, 88.6492
1.552, 1, 7.05863, 56.1577, 7.72994, 21.5917, -75.0462, 88.4064
1.556, 1, 7.08209, 56.1331, 7.72771, 21.523, -74.9825, 88.1634
1.56, 1, 7.10557, 56.1083, 7.72548, 21.4543, -74.9187, 87.9202
1.564, 1, 7.12907, 56.0836, 7.72325, 21.3856, -74.8548, 87.6768
1.568, 1, 7.15259, 56.0589, 7.72101, 21.3168, -74.7909, 87.4332
1.572, 1, 7.17613, 56.0341, 7.71877, 21.2479, -74.727, 87.1894
1.576, 1, 7.19969, 56.0093, 7.71654, 21.179, -74.663, 86.9454
1.58, 1, 7.22327, 55.9845, 7.71429, 21.11, -74.5989, 86.7012
1.584, 1, 7.24687, 55.9596, 7.71205, 21.0409, -74.5348, 86.4567
1.588, 1, 7.27049, 55.9348, 7.70981, 20.9718, -74.4707, 86.212
1.592, 1, 7.29414, 55.9099, 7.70756, 20.9026, -74.4064, 85.9672
1.596, 1, 7.3178, 55.885, 7.70531, 20.8334, -74.3421, 85.7221
1.6, 1, 7.34149, 55.8601, 7.70306, 20.7641, -74.2778, 85.4767
1.604, 1, 7.36519, 55.8351, 7.70081, 20.6947, -74.2134, 85.2312
1.608, 1, 7.38892, 55.8102, 7.69855, 20.6253, -74.149, 84.9854
1.612, 1, 7.41267, 55.7852, 7.6963, 20.5558, -74.0844, 84.7395
1.616, 1, 7.43644, 55.7602, 7.69404, 20.4863, -74.0199, 84.4933
1.62, 1, 7.46023, 55.7351, 7.69178, 20.4167, -73.9552, 84.2468
1.624, 1, 7.48404, 55.7101, 7.68951, 20.347, -73.8905, 84.0002
1.628, 1, 7.50788, 55.685, 7.68725, 20.2773, -73.8258, 83.7533
1.632, 1, 7.53174, 55.6599, 7.68498, 20.2075, -73.761, 83.5062
1.636, 1, 7.55562, 55.6347, 7.68271, 20.1376, -73.6961, 83.2589
1.64, 1, 7.57952, 55.6096, 7.68044, 20.0677, -73.6312, 83.0113
1.644, 1, 7.60344, 55.5844, 7.67817, 19.9977, -73.5662, 82.7635
1.648, 1, 7.62739, 55.5592, 7.67589, 19.9276, -73.5012, 82.5155
1.652, 1, 7.65136, 55.534, 7.67362, 19.8575, -73.436, 82.2673
1.656, 1, 7.67535, 55.5087, 7.67134, 19.7873, -73.3709, 82.0188
1.66, 1, 7.69937, 55.4835, 7.66905, 19.717, -73.3056, 81.7701
1.664, 1, 7.7234, 55.4582, 7.66677, 19.6467, -73.2403, 81.5211
1.668, 1, 7.74747, 55.4329, 7.66448, 19.5763, -73.175, 81.2719
1.672, 1, 7.77155, 55.4075, 7.6622, 19.5058, -73.1096, 81.0224
1.676, 1, 7.79566, 55.3821, 7.65991, 19.4353, -73.0441, 80.7728
1.68, 1, 7.81979, 55.3568, 7.65761, 19.3647, -72.9785, 80.5228
1.684, 1, 7.84394, 55.3313, 7.65532, 19.294, -72.9129, 80.2727
1.688, 1, 7.86812, 55.3059, 7.65302, 19.2233, -72.8472, 80.0222
1.692, 1, 7.89232, 55.2804, 7.65072, 19.1525, -72.7815, 79.7716
1.696, 1, 7.91655, 55.2549, 7.64842, 19.0816, -72.7157, 79.5207
1.7, 1, 7.9408, 55.2294, 7.64611, 19.0106, -72.6498, 79.2695
1.704, 1, 7.96507, 55.2039, 7.64381, 18.9396, -72.5839, 79.0181
1.708, 1, 7.98937, 55.1783, 7.6415, 18.8685, -72.5179, 78.7665
1.712, 1, 8.01369, 55.1527, 7.63919, 18.7974, -72.4518, 78.5145
1.716, 1, 8.03804, 55.1271, 7.63687, 18.7261, -72.3857, 78.2624
1.72, 1, 8.06241, 55.1014, 7.63456, 18.6548, -72.3195, 78.01
1.724, 1, 8.08681, 55.0758, 7.63224, 18.5835, -72.2532, 77.7573
1.728, 1, 8.11123, 55.0501, 7.62992, 18.512, -72.1868, 77.5043
1.732, 1, 8.13568, 55.0243, 7.6276, 18.4405, -72.1204, 77.2511
1.736, 1, 8.16015, 54.9986, 7.62527, 18.3689, -72.054, 76.9977
1.74, 1, 8.18465, 54.9728, 7.62295, 18.2972, -71.9874, 76.7439
1.744, 1, 8.20918, 54.947, 7.62062, 18.2255, -71.9208, 76.4899
1.748, 1, 8.23373, 54.9212, 7.61828, 18.1536, -71.8541, 76.2357
1.752, 1, 8.2583, 54.8953, 7.61595, 18.0817, -71.7874, 75.9812
1.756, 1, 8.28291, 54.8694, 7.61361, 18.0098, -71.7205, 75.7264
1.76, 1, 8.30753, 54.8435, 7.61127, 17.9377, -71.6536, 75.4713
1.764, 1, 8.33219, 54.8175, 7.60893, 17.8656, -71.5867, 75.216
1.768, 1, 8.35687, 54.7916, 7.60658, 17.7934, -71.5196, 74.9604
1.772, 1, 8.38158, 54.7656, 7.60424, 17.7211, -71.4525, 74.7045
1.776, 1, 8.40631, 54.7395, 7.60189, 17.6487, -71.3853, 74.4483
1.78, 1, 8.43107, 54.7135, 7.59953, 17.5763, -71.3181, 74.1919
1.784, 1, 8.45586, 54.6874, 7.59718, 17.5038, -71.2507, 73.9351
1.788, 1, 8.48067, 54.6613, 7.59482, 17.4312, -71.1833, 73.6781
1.792, 1, 8.50551, 54.6351, 7.59246, 17.3585, -71.1159, 73.4208
1.796, 1, 8.53038, 54.609, 7.5901, 17.2857, -71.0483, 73.1633
1.8, 1, 8.55528, 54.5828, 7.58773, 17.2129, -70.9807, 72.9054
1.804, 1, 8.5802, 54.5565, 7.58536, 17.14, -70.913, 72.6473
1.808, 1, 8.60515, 54.5303, 7.58299, 17.067, -70.8452, 72.3888
1.812, 1, 8.63014, 54.504, 7.58062, 16.9939, -70.7773, 72.1301
1.816, 1, 8.65514, 54.4777, 7.57824, 16.9207, -70.7094, 71.8711
1.82, 1, 8.68018, 54.4513, 7.57586, 16.8475, -70.6414, 71.6118
1.824, 1, 8.70525, 54.425, 7.57348, 16.7741, -70.5733, 71.3522
1.828, 1, 8.73034, 54.3986, 7.5711, 16.7007, -70.5051, 71.0923
1.832, 1, 8.75546, 54.3721, 7.56871, 16.6272, -70.4369, 70.8321
1.836, 1, 8.78061, 54.3456, 7.56632, 16.5536, -70.3686, 70.5716
1.84, 1, 8.80579, 54.3191, 7.56393, 16.4799, -70.3002, 70.3108
1.844, 1, 8.831, 54.2926, 7.56153, 16.4062, -70.2317, 70.0497
1.848, 1, 8.85624, 54.2661, 7.55913, 16.3324, -70.1631, 69.7883
1.852, 1, 8.88151, 54.2395, 7.55673, 16.2584, -70.0945, 69.5266
1.856, 1, 8.9068, 54.2128, 7.55433, 16.1844, -70.0258, 69.2646
1.86, 1, 8.93213, 54.1862, 7.55192, 16.1103, -69.957, 69.0023
1.864, 1, 8.95749, 54.1595, 7.54952, 16.0361, -69.8881, 68.7397
1.868, 1, 8.98287, 54.1328, 7.5471, 15.9619, -69.8192, 68.4768
1.872, 1, 9.00829, 54.1061, 7.54469, 15.8875, -69.7501, 68.2135
1.876, 1, 9.03374, 54.0793, 7.54227, 15.813, -69.681, 67.95
1.88, 1, 9.05922, 54.0525, 7.53985, 15.7385, -69.6118, 67.6861
1.884, 1, 9.08472, 54.0256, 7.53743, 15.6639, -69.5425, 67.4219
1.888, 1, 9.11026, 53.9987, 7.535, 15.5892, -69.4731, 67.1574
1.892, 1, 9.13583, 53.9718, 7.53257, 15.5144, -69.4037, 66.8926
1.896, 1, 9.16143, 53.9449, 7.53014, 15.4395, -69.3341, 66.6275
1.9, 1, 9.18707, 53.9179, 7.5277, 15.3645, -69.2645, 66.362
1.904, 1, 9.21273, 53.8909, 7.52527, 15.2894, -69.1948, 66.0962
1.908, 1, 9.23842, 53.8639, 7.52282, 15.2142, -69.125, 65.8301
1.912, 1, 9.26415, 53.8368, 7.52038, 15.1389, -69.0551, 65.5637
1.916, 1, 9.28991, 53.8097, 7.51793, 15.0636, -68.9851, 65.2969
1.92, 1, 9.3157, 53.7826, 7.51548, 14.9881, -68.9151, 65.0298
1.924, 1, 9.34152, 53.7554, 7.51303, 14.9126, -68.845, 64.7624
1.928, 1, 9.36738, 53.7282, 7.51057, 14.837, -68.7747, 64.4946
1.932, 1, 9.39326, 53.7009, 7.50811, 14.7612, -68.7044, 64.2265
1.936, 1, 9.41918, 53.6737, 7.50565, 14.6854, -68.634, 63.9581
1.94, 1, 9.44514, 53.6464, 7.50318, 14.6095, -68.5635, 63.6893
1.944, 1, 9.47112, 53.619, 7.50072, 14.5334, -68.4929, 63.4202
1.948, 1, 9.49714, 53.5916, 7.49824, 14.4573, -68.4223, 63.1507
1.952, 1, 9.52319, 53.5642, 7.49577, 14.3811, -68.3515, 62.8809
1.956, 1, 9.54928, 53.5368, 7.49329, 14.3048, -68.2806, 62.6107
1.96, 1, 9.5754, 53.5093, 7.49081, 14.2284, -68.2097, 62.3402
1.964, 1, 9.60155, 53.4818, 7.48833, 14.1519, -68.1387, 62.0694
1.968, 1, 9.62774, 53.4542, 7.48584, 14.0752, -68.0675, 61.7982
1.972, 1, 9.65396, 53.4266, 7.48335, 13.9985, -67.9963, 61.5266
1.976, 1, 9.68022, 53.399, 7.48085, 13.9217, -67.925, 61.2547
1.98, 1, 9.70651, 53.3713, 7.47835, 13.8448, -67.8536, 60.9824
1.984, 1, 9.73283, 53.3436, 7.47585, 13.7678, -67.7821, 60.7098
1.988, 1, 9.75919, 53.3159, 7.47335, 13.6907, -67.7105, 60.4368
1.992, 1, 9.78558, 53.2881, 7.47084, 13.6135, -67.6388, 60.1635
1.996, 1, 9.81201, 53.2603, 7.46833, 13.5361, -67.567, 59.8897
1.999, 1, 9.83848, 53.2324, 7.46582, 13.4587, -67.4951, 59.6157
2.004, 1, 9.86498, 53.2045, 7.4633, 13.3812, -67.4231, 59.3412
2.008, 1, 9.89151, 53.1766, 7.46078, 13.3036, -67.351, 59.0664
2.012, 1, 9.91808, 53.1487, 7.45825, 13.2258, -67.2789, 58.7912
2.015, 1, 9.94469, 53.1207, 7.45572, 13.148, -67.2066, 58.5156
2.019, 1, 9.97133, 53.0926, 7.45319, 13.07, -67.1342, 58.2397
2.024, 1, 9.99801, 53.0646, 7.45066, 12.992, -67.0618, 57.9634
2.028, 1, 10.0247, 53.0364, 7.44812, 12.9138, -66.9892, 57.6867
2.031, 1, 10.0515, 53.0083, 7.44558, 12.8355, -66.9165, 57.4096
2.036, 1, 10.0783, 52.9801, 7.44303, 12.7572, -66.8438, 57.1322
2.04, 1, 10.1051, 52.9519, 7.44049, 12.6787, -66.7709, 56.8543
2.044, 1, 10.132, 52.9236, 7.43793, 12.6001, -66.6979, 56.5761
2.048, 1, 10.1589, 52.8953, 7.43538, 12.5214, -66.6248, 56.2975
2.051, 1, 10.1858, 52.8669, 7.43282, 12.4426, -66.5517, 56.0185
2.055, 1, 10.2128, 52.8386, 7.43025, 12.3637, -66.4784, 55.7392
2.06, 1, 10.2398, 52.8101, 7.42769, 12.2846, -66.405, 55.4594
2.064, 1, 10.2668, 52.7817, 7.42512, 12.2055, -66.3315, 55.1792
2.068, 1, 10.2939, 52.7532, 7.42254, 12.1262, -66.258, 54.8987
2.071, 1, 10.321, 52.7246, 7.41997, 12.0469, -66.1843, 54.6177
2.076, 1, 10.3482, 52.696, 7.41739, 11.9674, -66.1105, 54.3364
2.08, 1, 10.3754, 52.6674, 7.4148, 11.8878, -66.0366, 54.0547
2.084, 1, 10.4026, 52.6387, 7.41221, 11.8081, -65.9626, 53.7725
2.087, 1, 10.4299, 52.61, 7.40962, 11.7283, -65.8885, 53.49
2.092, 1, 10.4572, 52.5813, 7.40703, 11.6484, -65.8143, 53.207
2.096, 1, 10.4846, 52.5525, 7.40443, 11.5683, -65.74, 52.9237
2.1, 1, 10.512, 52.5236, 7.40182, 11.4882, -65.6656, 52.6399
2.104, 1, 10.5394, 52.4948, 7.39922, 11.4079, -65.591, 52.3558
2.107, 1, 10.5669, 52.4659, 7.39661, 11.3275, -65.5164, 52.0712
2.111, 1, 10.5944, 52.4369, 7.39399, 11.247, -65.4416, 51.7862
2.116, 1, 10.622, 52.4079, 7.39138, 11.1664, -65.3668, 51.5008
2.12, 1, 10.6496, 52.3789, 7.38875, 11.0857, -65.2918, 51.215
2.124, 1, 10.6772, 52.3498, 7.38613, 11.0048, -65.2168, 50.9288
2.127, 1, 10.7049, 52.3207, 7.3835, 10.9238, -65.1416, 50.6421
2.132, 1, 10.7326, 52.2915, 7.38086, 10.8427, -65.0663, 50.355
2.136, 1, 10.7604, 52.2623, 7.37823, 10.7615, -64.9909, 50.0675
2.14, 1, 10.7882, 52.233, 7.37559, 10.6802, -64.9154, 49.7796
2.143, 1, 10.816, 52.2037, 7.37294, 10.5987, -64.8397, 49.4913
2.148, 1, 10.8439, 52.1744, 7.37029, 10.5171, -64.764, 49.2025
2.152, 1, 10.8718, 52.145, 7.36764, 10.4355, -64.6881, 48.9133
2.156, 1, 10.8998, 52.1156, 7.36498, 10.3536, -64.6122, 48.6236
2.16, 1, 10.9278, 52.0861, 7.36232, 10.2717, -64.5361, 48.3335
2.163, 1, 10.9559, 52.0566, 7.35966, 10.1896, -64.4599, 48.043
2.168, 1, 10.984, 52.027, 7.35699, 10.1074, -64.3836, 47.7521
2.172, 1, 11.0121, 51.9974, 7.35431, 10.0251, -64.3072, 47.4607
2.176, 1, 11.0403, 51.9677, 7.35164, 9.94268, -64.2306, 47.1689
2.179, 1, 11.0685, 51.938, 7.34896, 9.86012, -64.154, 46.8766
2.184, 1, 11.0968, 51.9083, 7.34627, 9.77743, -64.0772, 46.5839
2.188, 1, 11.1251, 51.8785, 7.34358, 9.69461, -64.0003, 46.2907
2.192, 1, 11.1534, 51.8487, 7.34089, 9.61167, -63.9233, 45.9971
2.196, 1, 11.1818, 51.8188, 7.33819, 9.5286, -63.8462, 45.703
2.199, 1, 11.2102, 51.7889, 7.33549, 9.4454, -63.7689, 45.4085
2.204, 1, 11.2387, 51.7589, 7.33278, 9.36207, -63.6916, 45.1135
2.208, 1, 11.2672, 51.7289, 7.33007, 9.27861, -63.6141, 44.8181
2.212, 1, 11.2958, 51.6988, 7.32736, 9.19503, -63.5365, 44.5222
2.216, 1, 11.3244, 51.6687, 7.32464, 9.11131, -63.4587, 44.2258
2.219, 1, 11.3531, 51.6385, 7.32192, 9.02747, -63.3809, 43.929
2.224, 1, 11.3818, 51.6083, 7.31919, 8.94349, -63.3029, 43.6317
2.228, 1, 11.4105, 51.5781, 7.31646, 8.85939, -63.2248, 43.334
2.232, 1, 11.4393, 51.5478, 7.31372, 8.77515, -63.1466, 43.0358
2.235, 1, 11.4681, 51.5174, 7.31098, 8.69078, -63.0683, 42.7371
2.24, 1, 11.497, 51.487, 7.30824, 8.60628, -62.9898, 42.438
2.244, 1, 11.5259, 51.4566, 7.30549, 8.52165, -62.9113, 42.1384
2.248, 1, 11.5549, 51.4261, 7.30274, 8.43688, -62.8326, 41.8383
2.252, 1, 11.5839, 51.3956, 7.29998, 8.35198, -62.7537, 41.5378
2.255, 1, 11.613, 51.365, 7.29722, 8.26695, -62.6748, 41.2367
2.259, 1, 11.6421, 51.3343, 7.29445, 8.18178, -62.5957, 40.9353
2.264, 1, 11.6713, 51.3037, 7.29168, 8.09648, -62.5165, 40.6333
2.268, 1, 11.7005, 51.2729, 7.28891, 8.01105, -62.4372, 40.3308
2.272, 1, 11.7297, 51.2422, 7.28613, 7.92547, -62.3577, 40.0279
2.275, 1, 11.759, 51.2113, 7.28335, 7.83977, -62.2782, 39.7245
2.28, 1, 11.7883, 51.1805, 7.28056, 7.75393, -62.1985, 39.4206
2.284, 1, 11.8177, 51.1495, 7.27777, 7.66795, -62.1186, 39.1163
2.288, 1, 11.8471, 51.1185, 7.27497, 7.58183, -62.0387, 38.8114
2.291, 1, 11.8766, 51.0875, 7.27217, 7.49558, -61.9586, 38.5061
2.296, 1, 11.9061, 51.0564, 7.26936, 7.40919, -61.8784, 38.2003
2.3, 1, 11.9357, 51.0253, 7.26655, 7.32266, -61.7981, 37.894
2.304, 1, 11.9653, 50.9941, 7.26374, 7.23599, -61.7176, 37.5872
2.308, 1, 11.995, 50.9629, 7.26092, 7.14919, -61.637, 37.2799
2.311, 1, 12.0247, 50.9316, 7.2581, 7.06225, -61.5563, 36.9721
2.316, 1, 12.0545, 50.9003, 7.25527, 6.97516, -61.4754, 36.6638
2.32, 1, 12.0843, 50.8689, 7.25244, 6.88794, -61.3944, 36.355
2.324, 1, 12.1142, 50.8375, 7.2496, 6.80057, -61.3133, 36.0458
2.328, 1, 12.1441, 50.806, 7.24676, 6.71307, -61.2321, 35.736
2.331, 1, 12.174, 50.7745, 7.24391, 6.62542, -61.1507, 35.4257
2.336, 1, 12.204, 50.7429, 7.24106, 6.53763, -61.0692, 35.115
2.34, 1, 12.2341, 50.7113, 7.2382, 6.44971, -60.9876, 34.8037
2.344, 1, 12.2642, 50.6796, 7.23534, 6.36163, -60.9058, 34.4919
2.347, 1, 12.2943, 50.6479, 7.23248, 6.27342, -60.8239, 34.1796
2.352, 1, 12.3245, 50.6161, 7.22961, 6.18506, -60.7418, 33.8668
2.356, 1, 12.3548, 50.5843, 7.22674, 6.09656, -60.6597, 33.5535
2.36, 1, 12.3851, 50.5524, 7.22386, 6.00791, -60.5774, 33.2397
2.364, 1, 12.4154, 50.5205, 7.22097, 5.91912, -60.4949, 32.9254
2.367, 1, 12.4458, 50.4885, 7.21809, 5.83019, -60.4124, 32.6106
2.372, 1, 12.4762, 50.4564, 7.21519, 5.74111, -60.3297, 32.2952
2.376, 1, 12.5067, 50.4243, 7.2123, 5.65188, -60.2468, 31.9794
2.38, 1, 12.5373, 50.3922, 7.20939, 5.56251, -60.1638, 31.663
2.383, 1, 12.5679, 50.36, 7.20649, 5.47299, -60.0807, 31.3461
2.388, 1, 12.5985, 50.3277, 7.20357, 5.38333, -59.9975, 31.0287
2.392, 1, 12.6292, 50.2954, 7.20066, 5.29352, -59.9141, 30.7108
2.396, 1, 12.6599, 50.2631, 7.19774, 5.20357, -59.8306, 30.3923
2.4, 1, 12.6907, 50.2307, 7.19481, 5.11347, -59.7469, 30.0734
2.403, 1, 12.7215, 50.1982, 7.19188, 5.02322, -59.6631, 29.7539
2.408, 1, 12.7524, 50.1657, 7.18894, 4.93282, -59.5792, 29.4339
2.412, 1, 12.7834, 50.1331, 7.186, 4.84228, -59.4951, 29.1134
2.416, 1, 12.8144, 50.1005, 7.18306, 4.75159, -59.4109, 28.7923
2.42, 1, 12.8454, 50.0678, 7.18011, 4.66075, -59.3266, 28.4708
2.423, 1, 12.8765, 50.0351, 7.17715, 4.56977, -59.2421, 28.1487
2.428, 1, 12.9076, 50.0023, 7.17419, 4.47864, -59.1575, 27.8261
2.432, 1, 12.9388, 49.9695, 7.17123, 4.38736, -59.0728, 27.5029
2.436, 1, 12.97, 49.9366, 7.16826, 4.29593, -58.9879, 27.1793
2.439, 1, 13.0013, 49.9037, 7.16528, 4.20436, -58.9029, 26.8551
2.444, 1, 13.0327, 49.8707, 7.1623, 4.11264, -58.8177, 26.5304
2.448, 1, 13.0641, 49.8377, 7.15932, 4.02077, -58.7324, 26.2052
2.452, 1, 13.0955, 49.8046, 7.15633, 3.92875, -58.647, 25.8795
2.456, 1, 13.127, 49.7714, 7.15334, 3.83659, -58.5614, 25.5532
2.459, 1, 13.1585, 49.7382, 7.15034, 3.74427, -58.4757, 25.2264
2.464, 1, 13.1901, 49.705, 7.14734, 3.65181, -58.3898, 24.8991
2.468, 1, 13.2218, 49.6716, 7.14433, 3.5592, -58.3039, 24.5713
2.472, 1, 13.2535, 49.6383, 7.14132, 3.46645, -58.2177, 24.2429
2.476, 1, 13.2852, 49.6049, 7.1383, 3.37354, -58.1315, 23.914
2.479, 1, 13.317, 49.5714, 7.13528, 3.28049, -58.0451, 23.5846
2.484, 1, 13.3488, 49.5379, 7.13225, 3.18729, -57.9585, 23.2547
2.488, 1, 13.3807, 49.5043, 7.12922, 3.09394, -57.8719, 22.9242
2.492, 1, 13.4127, 49.4707, 7.12618, 3.00045, -57.7851, 22.5933
2.495, 1, 13.4447, 49.437, 7.12314, 2.9068, -57.6981, 22.2618
2.5, 1, 13.4767, 49.4033, 7.12009, 2.81301, -57.611, 21.9297
2.504, 1, 13.5088, 49.3695, 7.11704, 2.71907, -57.5238, 21.5972
2.508, 1, 13.541, 49.3356, 7.11398, 2.62499, -57.4365, 21.2641
2.512, 1, 13.5732, 49.3017, 7.11092, 2.53075, -57.349, 20.9305
2.515, 1, 13.6054, 49.2678, 7.10786, 2.43637, -57.2614, 20.5964
2.52, 1, 13.6377, 49.2338, 7.10479, 2.34184, -57.1736, 20.2618
2.524, 1, 13.67, 49.1997, 7.10171, 2.24716, -57.0857, 19.9266
2.528, 1, 13.7024, 49.1656, 7.09863, 2.15233, -56.9976, 19.5909
2.531, 1, 13.7349, 49.1315, 7.09555, 2.05736, -56.9095, 19.2547
2.536, 1, 13.7674, 49.0973, 7.09246, 1.96224, -56.8211, 18.918
2.54, 1, 13.7999, 49.063, 7.08936, 1.86697, -56.7327, 18.5807
2.544, 1, 13.8325, 49.0287, 7.08626, 1.77156, -56.6441, 18.243
2.548, 1, 13.8652, 48.9943, 7.08316, 1.676, -56.5554, 17.9047
2.551, 1, 13.8979, 48.9599, 7.08005, 1.58029, -56.4665, 17.5659
2.556, 1, 13.9306, 48.9254, 7.07694, 1.48444, -56.3775, 17.2266
2.56, 1, 13.9634, 48.8909, 7.07382, 1.38844, -56.2884, 16.8867
2.564, 1, 13.9962, 48.8563, 7.07069, 1.2923, -56.1991, 16.5464
2.568, 1, 14.0291, 48.8217, 7.06757, 1.19601, -56.1097, 16.2055
2.571, 1, 14.0621, 48.787, 7.06443, 1.09957, -56.0202, 15.8641
2.576, 1, 14.095, 48.7523, 7.0613, 1.00299, -55.9305, 15.5222
2.58, 1, 14.1281, 48.7175, 7.05815, 0.906273, -55.8407, 15.1798
2.584, 1, 14.1612, 48.6827, 7.05501, 0.809408, -55.7508, 14.8369
2.587, 1, 14.1943, 48.6478, 7.05186, 0.7124, -55.6607, 14.4935
2.592, 1, 14.2275, 48.6128, 7.0487, 0.615251, -55.5705, 14.1496
2.596, 1, 14.2607, 48.5779, 7.04554, 0.51796, -55.4802, 13.8052
2.6, 1, 14.294, 48.5428, 7.04237, 0.420528, -55.3897, 13.4603
2.604, 1, 14.3273, 48.5077, 7.0392, 0.322955, -55.2991, 13.1149
2.607, 1, 14.3607, 48.4726, 7.03603, 0.225243, -55.2084, 12.769
2.612, 1, 14.3941, 48.4374, 7.03285, 0.127392, -55.1176, 12.4226
2.616, 1, 14.4276, 48.4022, 7.02967, 0.0294018, -55.0266, 12.0757
2.62, 1, 14.4611, 48.3669, 7.02648, -0.0687261, -54.9355, 11.7283
2.624, 1, 14.4946, 48.3315, 7.02329, -0.166991, -54.8442, 11.3805
2.627, 1, 14.5282, 48.2961, 7.02009, -0.265393, -54.7529, 11.0321
2.632, 1, 14.5619, 48.2607, 7.01689, -0.363931, -54.6614, 10.6833
2.636, 1, 14.5956, 48.2252, 7.01368, -0.462604, -54.5698, 10.334
2.64, 1, 14.6293, 48.1897, 7.01047, -0.561412, -54.478, 9.98421
2.643, 1, 14.6631, 48.1541, 7.00726, -0.660353, -54.3862, 9.63396
2.648, 1, 14.697, 48.1185, 7.00404, -0.759428, -54.2942, 9.28323
2.652, 1, 14.7308, 48.0828, 7.00082, -0.858635, -54.2021, 8.93203
2.656, 1, 14.7648, 48.0471, 6.99759, -0.957973, -54.1098, 8.58037
2.66, 1, 14.7987, 48.0113, 6.99436, -1.05744, -54.0175, 8.22825
2.663, 1, 14.8328, 47.9755, 6.99112, -1.15704, -53.925, 7.87566
2.668, 1, 14.8668, 47.9396, 6.98788, -1.25677, -53.8324, 7.52262
2.672, 1, 14.9009, 47.9037, 6.98463, -1.35663, -53.7397, 7.16912
2.676, 1, 14.9351, 47.8678, 6.98139, -1.45661, -53.6469, 6.81518
2.679, 1, 14.9692, 47.8318, 6.97813, -1.55672, -53.5539, 6.46078
2.684, 1, 15.0035, 47.7957, 6.97488, -1.65696, -53.4609, 6.10593
2.688, 1, 15.0377, 47.7596, 6.97161, -1.75733, -53.3677, 5.75065
2.692, 1, 15.0721, 47.7235, 6.96835, -1.85781, -53.2744, 5.39492
2.696, 1, 15.1064, 47.6873, 6.96508, -1.95842, -53.181, 5.03876
2.699, 1, 15.1408, 47.6511, 6.96181, -2.05915, -53.0874, 4.68216
2.704, 1, 15.1752, 47.6148, 6.95853, -2.16001, -52.9938, 4.32514
2.708, 1, 15.2097, 47.5785, 6.95525, -2.26098, -52.9, 3.96769
2.712, 1, 15.2442, 47.5422, 6.95196, -2.36207, -52.8062, 3.60982
2.716, 1, 15.2788, 47.5058, 6.94868, -2.46328, -52.7122, 3.25153
2.719, 1, 15.3134, 47.4693, 6.94538, -2.56461, -52.6181, 2.89283
2.724, 1, 15.348, 47.4329, 6.94209, -2.66606, -52.524, 2.53372
2.728, 1, 15.3827, 47.3963, 6.93879, -2.76761, -52.4297, 2.1742
2.732, 1, 15.4174, 47.3598, 6.93548, -2.86929, -52.3353, 1.81428
2.735, 1, 15.4522, 47.3232, 6.93217, -2.97107, -52.2408, 1.45396
2.74, 1, 15.487, 47.2865, 6.92886, -3.07296, -52.1462, 1.09325
2.744, 1, 15.5218, 47.2499, 6.92555, -3.17497, -52.0514, 0.732149
2.748, 1, 15.5566, 47.2131, 6.92223, -3.27708, -51.9566, 0.370665
2.752, 1, 15.5915, 47.1764, 6.91891, -3.3793, -51.8617, 0.00880142
2.755, 1, 15.6265, 47.1396, 6.91558, -3.48163, -51.7667, -0.353437
2.76, 1, 15.6614, 47.1028, 6.91225, -3.58406, -51.6716, -0.716047
2.764, 1, 15.6964, 47.0659, 6.90892, -3.68659, -51.5764, -1.07902
2.768, 1, 15.7315, 47.029, 6.90559, -3.78923, -51.4811, -1.44236
2.772, 1, 15.7666, 46.9921, 6.90225, -3.89197, -51.3857, -1.80605
2.775, 1, 15.8017, 46.9551, 6.89891, -3.9948, -51.2903, -2.17009
2.78, 1, 15.8368, 46.9181, 6.89556, -4.09774, -51.1947, -2.53448
2.784, 1, 15.872, 46.881, 6.89221, -4.20077, -51.099, -2.89922
2.788, 1, 15.9072, 46.844, 6.88886, -4.30389, -51.0033, -3.26428
2.791, 1, 15.9424, 46.8068, 6.8855, -4.40711, -50.9074, -3.62968
2.796, 1, 15.9777, 46.7697, 6.88215, -4.51043, -50.8115, -3.99541
2.8, 1, 16.013, 46.7325, 6.87879, -4.61383, -50.7155, -4.36145
2.804, 1, 16.0483, 46.6953, 6.87542, -4.71732, -50.6194, -4.72782
2.808, 1, 16.0837, 46.6581, 6.87206, -4.8209, -50.5233, -5.09449
2.811, 1, 16.1191, 46.6208, 6.86869, -4.92456, -50.427, -5.46146
2.816, 1, 16.1545, 46.5835, 6.86532, -5.02831, -50.3307, -5.82874
2.82, 1, 16.1899, 46.5462, 6.86194, -5.13214, -50.2343, -6.19631
2.824, 1, 16.2254, 46.5088, 6.85856, -5.23606, -50.1378, -6.56417
2.828, 1, 16.2609, 46.4714, 6.85518, -5.34005, -50.0412, -6.93232
2.831, 1, 16.2964, 46.434, 6.8518, -5.44413, -49.9446, -7.30074
2.836, 1, 16.332, 46.3966, 6.84842, -5.54828, -49.8479, -7.66944
2.84, 1, 16.3676, 46.3591, 6.84503, -5.6525, -49.7511, -8.0384
2.844, 1, 16.4032, 46.3216, 6.84164, -5.7568, -49.6543, -8.40762
2.847, 1, 16.4388, 46.2841, 6.83825, -5.86117, -49.5574, -8.7771
2.852, 1, 16.4744, 46.2465, 6.83485, -5.96561, -49.4604, -9.14682
2.856, 1, 16.5101, 46.2089, 6.83145, -6.07012, -49.3634, -9.5168
2.86, 1, 16.5458, 46.1713, 6.82805, -6.1747, -49.2663, -9.887
2.864, 1, 16.5815, 46.1337, 6.82465, -6.27934, -49.1691, -10.2574
2.867, 1, 16.6173, 46.0961, 6.82125, -6.38405, -49.0719, -10.6281
2.872, 1, 16.653, 46.0584, 6.81784, -6.48882, -48.9746, -10.999
2.876, 1, 16.6888, 46.0207, 6.81444, -6.59365, -48.8773, -11.3701
2.88, 1, 16.7246, 45.983, 6.81103, -6.69854, -48.7799, -11.7414
2.883, 1, 16.7604, 45.9453, 6.80762, -6.80349, -48.6825, -12.1129
2.888, 1, 16.7963, 45.9075, 6.8042, -6.90849, -48.585, -12.4846
2.892, 1, 16.8322, 45.8698, 6.80079, -7.01354, -48.4875, -12.8565
2.896, 1, 16.868, 45.832, 6.79737, -7.11865, -48.3899, -13.2286
2.9, 1, 16.9039, 45.7942, 6.79395, -7.22381, -48.2922, -13.6009
2.903, 1, 16.9398, 45.7563, 6.79053, -7.32902, -48.1945, -13.9733
2.908, 1, 16.9758, 45.7185, 6.78711, -7.43428, -48.0968, -14.3459
2.912, 1, 17.0117, 45.6806, 6.78369, -7.53958, -47.9991, -14.7187
2.916, 1, 17.0477, 45.6428, 6.78027, -7.64492, -47.9012, -15.0916
2.92, 1, 17.0837, 45.6049, 6.77684, -7.75031, -47.8034, -15.4647
2.923, 1, 17.1196, 45.567, 6.77341, -7.85574, -47.7055, -15.8379
2.928, 1, 17.1556, 45.5291, 6.76999, -7.96121, -47.6076, -16.2113
2.932, 1, 17.1917, 45.4911, 6.76656, -8.06672, -47.5096, -16.5848
2.936, 1, 17.2277, 45.4532, 6.76313, -8.17226, -47.4116, -16.9584
2.939, 1, 17.2637, 45.4152, 6.75969, -8.27784, -47.3136, -17.3322
2.944, 1, 17.2998, 45.3773, 6.75626, -8.38345, -47.2155, -17.706
2.948, 1, 17.3358, 45.3393, 6.75283, -8.48909, -47.1175, -18.08
2.952, 1, 17.3719, 45.3013, 6.74939, -8.59476, -47.0193, -18.4541
2.956, 1, 17.408, 45.2633, 6.74596, -8.70046, -46.9212, -18.8283
2.959, 1, 17.4441, 45.2253, 6.74252, -8.80618, -46.8231, -19.2025
2.964, 1, 17.4802, 45.1873, 6.73908, -8.91193, -46.7249, -19.5769
2.968, 1, 17.5163, 45.1492, 6.73564, -9.0177, -46.6267, -19.9513
2.972, 1, 17.5524, 45.1112, 6.73221, -9.1235, -46.5284, -20.3258
2.976, 1, 17.5885, 45.0732, 6.72877, -9.22931, -46.4302, -20.7004
2.98, 1, 17.6246, 45.0351, 6.72533, -9.33513, -46.3319, -21.075
2.984, 1, 17.6608, 44.9971, 6.72189, -9.44098, -46.2337, -21.4497
2.988, 1, 17.6969, 44.959, 6.71844, -9.54683, -46.1354, -21.8245
2.992, 1, 17.733, 44.921, 6.715, -9.6527, -46.0371, -22.1992
2.995, 1, 17.7692, 44.8829, 6.71156, -9.75858, -45.9388, -22.5741
3, 1, 17.8053, 44.8448, 6.70812, -9.86447, -45.8405, -22.9489
3.004, 1, 17.8415, 44.8068, 6.70468, -9.97037, -45.7421, -23.3238
3.008, 1, 17.8776, 44.7687, 6.70123, -10.0763, -45.6438, -23.6987
3.012, 1, 17.9138, 44.7306, 6.69779, -10.1822, -45.5455, -24.0736
3.015, 1, 17.95, 44.6925, 6.69435, -10.2881, -45.4472, -24.4485
3.02, 1, 17.9861, 44.6545, 6.69091, -10.394, -45.3488, -24.8235
3.024, 1, 18.0223, 44.6164, 6.68746, -10.4999, -45.2505, -25.1984
3.028, 1, 18.0584, 44.5783, 6.68402, -10.6058, -45.1521, -25.5733
3.031, 1, 18.0946, 44.5402, 6.68058, -10.7117, -45.0538, -25.9482
3.036, 1, 18.1308, 44.5022, 6.67714, -10.8176, -44.9555, -26.3231
3.04, 1, 18.1669, 44.4641, 6.67369, -10.9235, -44.8572, -26.698
3.044, 1, 18.2031, 44.426, 6.67025, -11.0294, -44.7588, -27.0729
3.048, 1, 18.2392, 44.388, 6.66681, -11.1353, -44.6605, -27.4477
3.051, 1, 18.2754, 44.3499, 6.66337, -11.2412, -44.5622, -27.8225
3.056, 1, 18.3115, 44.3118, 6.65993, -11.347, -44.4639, -28.1973
3.06, 1, 18.3477, 44.2738, 6.65649, -11.4529, -44.3657, -28.572
3.064, 1, 18.3838, 44.2357, 6.65305, -11.5587, -44.2674, -28.9466
3.068, 1, 18.4199, 44.1977, 6.64961, -11.6646, -44.1691, -29.3213
3.071, 1, 18.4561, 44.1596, 6.64617, -11.7704, -44.0709, -29.6958
3.076, 1, 18.4922, 44.1216, 6.64273, -11.8762, -43.9727, -30.0703
3.08, 1, 18.5283, 44.0836, 6.63929, -11.9819, -43.8745, -30.4448
3.084, 1, 18.5644, 44.0455, 6.63586, -12.0877, -43.7763, -30.8191
3.087, 1, 18.6005, 44.0075, 6.63242, -12.1934, -43.6781, -31.1934
3.092, 1, 18.6366, 43.9695, 6.62898, -12.2991, -43.58, -31.5676
3.096, 1, 18.6727, 43.9315, 6.62555, -12.4048, -43.4819, -31.9418
3.1, 1, 18.7088, 43.8936, 6.62212, -12.5105, -43.3838, -32.3158
3.104, 1, 18.7448, 43.8556, 6.61868, -12.6161, -43.2857, -32.6898
3.107, 1, 18.7809, 43.8176, 6.61525, -12.7217, -43.1876, -33.0636
3.112, 1, 18.817, 43.7797, 6.61182, -12.8273, -43.0896, -33.4374
3.116, 1, 18.853, 43.7417, 6.60839, -12.9329, -42.9916, -33.8111
3.12, 1, 18.889, 43.7038, 6.60496, -13.0384, -42.8936, -34.1846
3.124, 1, 18.9251, 43.6659, 6.60153, -13.1439, -42.7957, -34.5581
3.128, 1, 18.9611, 43.6279, 6.5981, -13.2493, -42.6977, -34.9314
3.132, 1, 18.9971, 43.59, 6.59467, -13.3548, -42.5999, -35.3046
3.136, 1, 19.0331, 43.5521, 6.59125, -13.4602, -42.502, -35.6777
3.14, 1, 19.069, 43.5143, 6.58783, -13.5655, -42.4042, -36.0507
3.143, 1, 19.105, 43.4764, 6.5844, -13.6708, -42.3064, -36.4235
3.148, 1, 19.141, 43.4385, 6.58098, -13.7761, -42.2086, -36.7962
3.152, 1, 19.1769, 43.4007, 6.57756, -13.8814, -42.1109, -37.1688
3.156, 1, 19.2128, 43.3629, 6.57414, -13.9866, -42.0133, -37.5412
3.16, 1, 19.2487, 43.3251, 6.57072, -14.0917, -41.9156, -37.9135
3.163, 1, 19.2846, 43.2873, 6.56731, -14.1969, -41.818, -38.2856
3.168, 1, 19.3205, 43.2495, 6.56389, -14.3019, -41.7204, -38.6576
3.172, 1, 19.3564, 43.2117, 6.56048, -14.407, -41.6229, -39.0294
3.176, 1, 19.3923, 43.174, 6.55707, -14.512, -41.5254, -39.4011
3.179, 1, 19.4281, 43.1363, 6.55365, -14.6169, -41.428, -39.7726
3.184, 1, 19.4639, 43.0985, 6.55025, -14.7218, -41.3306, -40.144
3.188, 1, 19.4998, 43.0608, 6.54684, -14.8267, -41.2333, -40.5152
3.192, 1, 19.5356, 43.0232, 6.54343, -14.9315, -41.1359, -40.8862
3.196, 1, 19.5713, 42.9855, 6.54003, -15.0362, -41.0387, -41.257
3.199, 1, 19.6071, 42.9478, 6.53662, -15.1409, -40.9415, -41.6277
3.204, 1, 19.6429, 42.9102, 6.53322, -15.2456, -40.8443, -41.9982
3.208, 1, 19.6786, 42.8726, 6.52982, -15.3502, -40.7472, -42.3686
3.212, 1, 19.7143, 42.835, 6.52643, -15.4548, -40.6501, -42.7388
3.216, 1, 19.75, 42.7974, 6.52303, -15.5593, -40.553, -43.1087
3.22, 1, 19.7857, 42.7598, 6.51963, -15.6638, -40.456, -43.4786
3.224, 1, 19.8214, 42.7223, 6.51624, -15.7682, -40.3591, -43.8482
3.228, 1, 19.857, 42.6848, 6.51285, -15.8725, -40.2622, -44.2176
3.232, 1, 19.8927, 42.6472, 6.50946, -15.9769, -40.1653, -44.5869
3.235, 1, 19.9283, 42.6098, 6.50607, -16.0811, -40.0685, -44.956
3.24, 1, 19.9639, 42.5723, 6.50269, -16.1853, -39.9718, -45.3249
3.244, 1, 19.9995, 42.5348, 6.4993, -16.2895, -39.8751, -45.6936
3.248, 1, 20.035, 42.4974, 6.49592, -16.3936, -39.7784, -46.0621
3.252, 1, 20.0706, 42.46, 6.49254, -16.4976, -39.6818, -46.4305
3.255, 1, 20.1061, 42.4226, 6.48916, -16.6016, -39.5853, -46.7986
3.26, 1, 20.1416, 42.3852, 6.48578, -16.7056, -39.4888, -47.1666
3.264, 1, 20.1771, 42.3478, 6.48241, -16.8095, -39.3923, -47.5344
3.268, 1, 20.2126, 42.3105, 6.47903, -16.9133, -39.2959, -47.9019
3.272, 1, 20.248, 42.2732, 6.47566, -17.0171, -39.1995, -48.2693
3.276, 1, 20.2835, 42.2359, 6.47229, -17.1208, -39.1032, -48.6365
3.28, 1, 20.3189, 42.1986, 6.46892, -17.2245, -39.007, -49.0035
3.284, 1, 20.3543, 42.1614, 6.46555, -17.3281, -38.9108, -49.3703
3.288, 1, 20.3897, 42.1241, 6.46219, -17.4316, -38.8146, -49.7368
3.291, 1, 20.425, 42.0869, 6.45882, -17.5351, -38.7185, -50.1032
3.296, 1, 20.4604, 42.0497, 6.45546, -17.6386, -38.6225, -50.4694
3.3, 1, 20.4957, 42.0125, 6.4521, -17.742, -38.5265, -50.8354
3.304, 1, 20.531, 41.9754, 6.44875, -17.8453, -38.4306, -51.2011
3.308, 1, 20.5663, 41.9382, 6.44539, -17.9485, -38.3347, -51.5667
3.312, 1, 20.6015, 41.9011, 6.44204, -18.0518, -38.2389, -51.9321
3.316, 1, 20.6368, 41.864, 6.43869, -18.1549, -38.1431, -52.2972
3.32, 1, 20.672, 41.827, 6.43534, -18.258, -38.0474, -52.6621
3.324, 1, 20.7072, 41.7899, 6.43199, -18.361, -37.9517, -53.0269
3.328, 1, 20.7424, 41.7529, 6.42864, -18.464, -37.8561, -53.3914
3.332, 1, 20.7775, 41.7159, 6.4253, -18.5669, -37.7606, -53.7557
3.336, 1, 20.8127, 41.6789, 6.42196, -18.6698, -37.6651, -54.1198
3.34, 1, 20.8478, 41.6419, 6.41862, -18.7726, -37.5696, -54.4837
3.344, 1, 20.8829, 41.6049, 6.41528, -18.8753, -37.4743, -54.8474
3.347, 1, 20.918, 41.568, 6.41194, -18.978, -37.3789, -55.2109
3.352, 1, 20.9531, 41.5311, 6.40861, -19.0806, -37.2836, -55.5742
3.356, 1, 20.9881, 41.4942, 6.40528, -19.1832, -37.1884, -55.9373
3.36, 1, 21.0232, 41.4573, 6.40195, -19.2857, -37.0933, -56.3001
3.364, 1, 21.0582, 41.4205, 6.39862, -19.3881, -36.9981, -56.6628
3.368, 1, 21.0932, 41.3837, 6.39529, -19.4905, -36.9031, -57.0253
3.372, 1, 21.1281, 41.3468, 6.39197, -19.5928, -36.8081, -57.3875
3.376, 1, 21.1631, 41.3101, 6.38865, -19.6951, -36.7131, -57.7496
3.38, 1, 21.198, 41.2733, 6.38532, -19.7973, -36.6182, -58.1114
3.383, 1, 21.2329, 41.2365, 6.38201, -19.8995, -36.5233, -58.4731
3.388, 1, 21.2678, 41.1998, 6.37869, -20.0016, -36.4285, -58.8345
3.392, 1, 21.3027, 41.1631, 6.37537, -20.1037, -36.3338, -59.1958
3.396, 1, 21.3376, 41.1264, 6.37206, -20.2056, -36.2391, -59.5569
3.4, 1, 21.3724, 41.0897, 6.36875, -20.3076, -36.1444, -59.9177
3.403, 1, 21.4072, 41.0531, 6.36544, -20.4095, -36.0498, -60.2784
3.408, 1, 21.442, 41.0165, 6.36213, -20.5113, -35.9553, -60.6389
3.412, 1, 21.4768, 40.9799, 6.35882, -20.6131, -35.8608, -60.9992
3.416, 1, 21.5116, 40.9433, 6.35552, -20.7148, -35.7664, -61.3593
3.42, 1, 21.5463, 40.9067, 6.35221, -20.8165, -35.672, -61.7192
3.424, 1, 21.581, 40.8702, 6.34891, -20.9181, -35.5776, -62.0789
3.428, 1, 21.6157, 40.8336, 6.34561, -21.0197, -35.4833, -62.4385
3.432, 1, 21.6504, 40.7971, 6.34232, -21.1212, -35.3891, -62.7978
3.436, 1, 21.6851, 40.7606, 6.33902, -21.2226, -35.2949, -63.157
3.439, 1, 21.7198, 40.7242, 6.33573, -21.324, -35.2007, -63.5159
3.444, 1, 21.7544, 40.6877, 6.33243, -21.4254, -35.1066, -63.8747
3.448, 1, 21.789, 40.6513, 6.32914, -21.5267, -35.0126, -64.2333
3.452, 1, 21.8236, 40.6148, 6.32585, -21.6279, -34.9186, -64.5918
3.456, 1, 21.8582, 40.5784, 6.32256, -21.7291, -34.8246, -64.95
3.46, 1, 21.8928, 40.5421, 6.31928, -21.8303, -34.7307, -65.308
3.464, 1, 21.9273, 40.5057, 6.31599, -21.9314, -34.6368, -65.6659
3.468, 1, 21.9619, 40.4694, 6.31271, -22.0324, -34.543, -66.0236
3.472, 1, 21.9964, 40.433, 6.30943, -22.1334, -34.4493, -66.3812
3.476, 1, 22.0309, 40.3967, 6.30615, -22.2344, -34.3555, -66.7385
3.48, 1, 22.0654, 40.3604, 6.30287, -22.3353, -34.2618, -67.0957
3.484, 1, 22.0998, 40.3242, 6.2996, -22.4361, -34.1682, -67.4527
3.488, 1, 22.1343, 40.2879, 6.29632, -22.5369, -34.0746, -67.8096
3.492, 1, 22.1687, 40.2517, 6.29305, -22.6377, -33.9811, -68.1662
3.495, 1, 22.2031, 40.2154, 6.28978, -22.7384, -33.8876, -68.5227
3.5, 1, 22.2375, 40.1793, 6.2865, -22.839, -33.7941, -68.8791
3.504, 1, 22.2716, 40.1433, 6.28322, -22.9396, -33.7007, -69.2352
3.508, 1, 22.3054, 40.1077, 6.2799, -23.0401, -33.6073, -69.5911
3.512, 1, 22.3386, 40.0726, 6.27655, -23.1405, -33.5141, -69.9465
3.516, 1, 22.3712, 40.0383, 6.27313, -23.2407, -33.421, -70.3012
3.52, 1, 22.4028, 40.0049, 6.26964, -23.3404, -33.3283, -70.6545
3.524, 1, 22.4334, 39.9726, 6.26606, -23.4395, -33.236, -71.0057
3.528, 1, 22.4629, 39.9415, 6.2624, -23.5376, -33.1446, -71.3534
3.531, 1, 22.4912, 39.9116, 6.25868, -23.6343, -33.0545, -71.6963
3.536, 1, 22.5184, 39.8827, 6.25495, -23.729, -32.9662, -72.0322
3.54, 1, 22.5445, 39.855, 6.25125, -23.8212, -32.8802, -72.3592
3.544, 1, 22.5695, 39.8283, 6.24764, -23.9102, -32.7971, -72.6749
3.548, 1, 22.5934, 39.8027, 6.24416, -23.9953, -32.7177, -72.9768
3.552, 1, 22.6162, 39.7784, 6.24088, -24.0759, -32.6424, -73.2628
3.556, 1, 22.6377, 39.7554, 6.23783, -24.1514, -32.572, -73.5306
3.56, 1, 22.6581, 39.7336, 6.23507, -24.2213, -32.5069, -73.7783
3.564, 1, 22.6774, 39.7131, 6.23264, -24.285, -32.4475, -74.0044
3.568, 1, 22.6957, 39.6937, 6.23059, -24.3424, -32.3941, -74.2075
3.572, 1, 22.7132, 39.6754, 6.22895, -24.3931, -32.347, -74.3873
3.576, 1, 22.7298, 39.6581, 6.22771, -24.4374, -32.306, -74.5438
3.58, 1, 22.7455, 39.6419, 6.22686, -24.4753, -32.2711, -74.6776
3.584, 1, 22.7601, 39.6269, 6.22633, -24.5072, -32.2418, -74.79
3.587, 1, 22.7735, 39.6133, 6.22608, -24.5336, -32.2177, -74.8827
3.592, 1, 22.7856, 39.6011, 6.22604, -24.5549, -32.1982, -74.9577
3.596, 1, 22.7964, 39.5902, 6.22615, -24.5719, -32.1828, -75.0173
3.6, 2, 22.8059, 39.5805, 6.22636, -24.5852, -32.1709, -75.0636
3.604, 2, 22.8143, 39.5719, 6.22665, -24.5953, -32.1619, -75.0987
3.608, 2, 22.8216, 39.5645, 6.22696, -24.6028, -32.1553, -75.1248
3.612, 2, 22.8279, 39.5581, 6.22728, -24.6083, -32.1505, -75.1438
3.616, 2, 22.8332, 39.5529, 6.22758, -24.6122, -32.1471, -75.1572
3.62, 2, 22.8374, 39.5486, 6.22783, -24.615, -32.1448, -75.1666
3.624, 2, 22.8407, 39.5455, 6.22802, -24.6168, -32.1432, -75.173
3.628, 2, 22.843, 39.5432, 6.22817, -24.6181, -32.1421, -75.1774
3.632, 2, 22.8447, 39.5416, 6.22827, -24.619, -32.1414, -75.1804
3.636, 2, 22.8458, 39.5405, 6.22834, -24.6196, -32.1409, -75.1824
3.64, 2, 22.8466, 39.5398, 6.22839, -24.62, -32.1405, -75.1837
3.644, 2, 22.8471, 39.5393, 6.22842, -24.6203, -32.1403, -75.1847
3.648, 2, 22.8474, 39.539, 6.22844, -24.6205, -32.1402, -75.1853
3.652, 2, 22.8477, 39.5388, 6.22845, -24.6206, -32.1401, -75.1857
3.656, 2, 22.8478, 39.5386, 6.22846, -24.6207, -32.14, -75.186
3.66, 2, 22.8479, 39.5385, 6.22847, -24.6207, -32.1399, -75.1862
3.664, 2, 22.848, 39.5384, 6.22847, -24.6208, -32.1399, -75.1863
3.668, 2, 22.848, 39.5384, 6.22848, -24.6208, -32.1399, -75.1864
3.672, 2, 22.8481, 39.5384, 6.22848, -24.6208, -32.1399, -75.1865
3.676, 2, 22.8481, 39.5383, 6.22848, -24.6208, -32.1399, -75.1865
3.679, 2, 22.8481, 39.5383, 6.22848, -24.6208, -32.1399, -75.1865
3.684, 2, 22.8481, 39.5383, 6.22848, -24.6208, -32.1399, -75.1865
3.688, 2, 22.8481, 39.5383, 6.22848, -24.6208, -32.1398, -75.1866
3.692, 2, 22.8481, 39.5383, 6.22848, -24.6208, -32.1398, -75.1866
3.696, 2, 22.8481, 39.5383, 6.22848, -24.6208, -32.1398, -75.1866
3.7, 2, 22.8481, 39.5383, 6.22848, -24.6208, -32.1398, -75.1866
3.704, 2, 22.8482, 39.5383, 6.22848, -24.6208, -32.1398, -75.1866
3.708, 2, 22.8482, 39.5383, 6.22848, -24.6208, -32.1398, -75.1866
3.712, 2, 22.8482, 39.5383, 6.22848, -24.6208, -32.1398, -75.1866
3.716, 2, 22.8482, 39.5383, 6.22848, -24.6208, -32.1398, -75.1866
3.72, 2, 22.8482, 39.5383, 6.22848, -24.6208, -32.1398, -75.1866
3.724, 2, 22.8482, 39.5383, 6.22848, -24.6208, -32.1398, -75.1866
3.728, 2, 22.8482, 39.5383, 6.22848, -24.6208, -32.1398, -75.1866
3.732, 2, 22.8482, 39.5383, 6.22848, -24.6208, -32.1398, -75.1866
3.735, 2, 22.8482, 39.5383, 6.22848, -24.6208, -32.1398, -75.1866
3.74, 2, 22.8482, 39.5383, 6.22848, -24.6208, -32.1398, -75.1866
3.744, 2, 22.8482, 39.5383, 6.22848, -24.6208, -32.1398, -75.1866
3.748, 2, 22.8482, 39.5383, 6.22848, -24.6208, -32.1398, -75.1866
3.752, 2, 22.8482, 39.5383, 6.22848, -24.6208, -32.1398, -75.1866
3.756, 2, 22.8482, 39.5383, 6.22848, -24.6208, -32.1398, -75.1866
3.76, 2, 22.8482, 39.5383, 6.22848, -24.6208, -32.1398, -75.1866
3.764, 2, 22.8482, 39.5383, 6.22848, -24.6208, -32.1398, -75.1866
3.768, 2, 22.8482, 39.5383, 6.22848, -24.6208, -32.1398, -75.1866
3.772, 2, 22.8482, 39.5383, 6.22848, -24.6208, -32.1398, -75.1866
3.776, 2, 22.8482, 39.5383, 6.22848, -24.6208, -32.1398, -75.1866
3.78, 2, 22.8482, 39.5383, 6.22848, -24.6208, -32.1398, -75.1866
3.784, 2, 22.8482, 39.5383, 6.22848, -24.6208, -32.1398, -75.1866
3.788, 2, 22.8482, 39.5383, 6.22848, -24.6208, -32.1398, -75.1866
3.792, 2, 22.8482, 39.5383, 6.22848, -24.6208, -32.1398, -75.1866
3.796, 2, 22.8482, 39.5383, 6.22848, -24.6208, -32.1398, -75.1866
3.8, 2, 22.8482, 39.5383, 6.22848, -24.6208, -32.1398, -75.1866
3.804, 2, 22.8482, 39.5383, 6.22848, -24.6208, -32.1398, -75.1866
3.808, 2, 22.8482, 39.5383, 6.22848, -24.6208, -32.1398, -75.1866
3.812, 2, 22.8482, 39.5383, 6.22848, -24.6208, -32.1398, -75.1866
3.816, 2, 22.8482, 39.5383, 6.22848, -24.6208, -32.1398, -75.1866
3.82, 2, 22.8482, 39.5383, 6.22848, -24.6208, -32.1398, -75.1866
3.824, 2, 22.8482, 39.5383, 6.22848, -24.6208, -32.1398, -75.1866
3.828, 2, 22.8482, 39.5383, 6.22848, -24.6208, -32.1398, -75.1866
3.832, 2, 22.8482, 39.5383, 6.22848, -24.6208, -32.1398, -75.1866
3.836, 2, 22.8482, 39.5383, 6.22848, -24.6208, -32.1398, -75.1866
3.84, 2, 22.8482, 39.5383, 6.22848, -24.6208, -32.1398, -75.1866
3.844, 2, 22.8482, 39.5383, 6.22848, -24.6208, -32.1398, -75.1866
3.848, 2, 22.8482, 39.5383, 6.22848, -24.6208, -32.1398, -75.1866
3.852, 2, 22.8482, 39.5383, 6.22848, -24.6208, -32.1398, -75.1866
3.856, 2, 22.8482, 39.5383, 6.22848, -24.6208, -32.1398, -75.1866
3.86, 2, 22.8482, 39.5383, 6.22848, -24.6208, -32.1398, -75.1866
3.864, 2, 22.8482, 39.5383, 6.22848, -24.6208, -32.1398, -75.1866
3.868, 2, 22.8482, 39.5383, 6.22848, -24.6208, -32.1398, -75.1866
3.872, 2, 22.8482, 39.5383, 6.22848, -24.6208, -32.1398, -75.1866
3.876, 2, 22.8482, 39.5383, 6.22848, -24.6208, -32.1398, -75.1866
3.88, 2, 22.8482, 39.5383, 6.22848, -24.6208, -32.1398, -75.1866
3.884, 2, 22.8482, 39.5383, 6.22848, -24.6208, -32.1398, -75.1866
3.888, 2, 22.8482, 39.5383, 6.22848, -24.6208, -32.1398, -75.1866
3.892, 2, 22.8482, 39.5383, 6.22848, -24.6208, -32.1398, -75.1866
3.896, 2, 22.8482, 39.5383, 6.22848, -24.6208, -32.1398, -75.1866
3.9, 2, 22.8482, 39.5383, 6.22848, -24.6208, -32.1398, -75.1866
3.904, 2, 22.8482, 39.5383, 6.22848, -24.6208, -32.1398, -75.1866
3.908, 2, 22.8482, 39.5383, 6.22848, -24.6208, -32.1398, -75.1866
3.912, 2, 22.8482, 39.5383, 6.22848, -24.6208, -32.1398, -75.1866
3.916, 2, 22.8482, 39.5383, 6.22848, -24.6208, -32.1398, -75.1866
3.92, 2, 22.8482, 39.5383, 6.22848, -24.6208, -32.1398, -75.1866
3.924, 2, 22.8482, 39.5383, 6.22848, -24.6208, -32.1398, -75.1866
3.928, 2, 22.8482, 39.5383, 6.22848, -24.6208, -32.1398, -75.1866
3.932, 2, 22.8482, 39.5383, 6.22848, -24.6208, -32.1398, -75.1866
3.936, 2, 22.8482, 39.5383, 6.22848, -24.6208, -32.1398, -75.1866
3.94, 2, 22.8482, 39.5383, 6.22848, -24.6208, -32.1398, -75.1866
3.944, 2, 22.8482, 39.5383, 6.22848, -24.6208, -32.1398, -75.1866
3.948, 2, 22.8482, 39.5383, 6.22848, -24.6208, -32.1398, -75.1866
3.952, 2, 22.8482, 39.5383, 6.22848, -24.6208, -32.1398, -75.1866
3.956, 2, 22.8482, 39.5383, 6.22848, -24.6208, -32.1398, -75.1866
3.96, 2, 22.8482, 39.5383, 6.22848, -24.6208, -32.1398, -75.1866
3.964, 2, 22.8482, 39.5383, 6.22848, -24.6208, -32.1398, -75.1866
3.968, 2, 22.8482, 39.5383, 6.22848, -24.6208, -32.1398, -75.1866
3.972, 2, 22.8482, 39.5383, 6.22848, -24.6208, -32.1398, -75.1866
3.976, 2, 22.8482, 39.5383, 6.22848, -24.6208, -32.1398, -75.1866
3.98, 2, 22.8482, 39.5383, 6.22848, -24.6208, -32.1398, -75.1866
3.984, 2, 22.8482, 39.5383, 6.22848, -24.6208, -32.1398, -75.1866
3.988, 2, 22.8482, 39.5383, 6.22848, -24.6208, -32.1398, -75.1866
3.992, 2, 22.8482, 39.5383, 6.22848, -24.6208, -32.1398, -75.1866
3.996, 2, 22.8482, 39.5383, 6.22848, -24.6208, -32.1398, -75.1866
3.999, 2, 22.8482, 39.5383, 6.22848, -24.6208, -32.1398, -75.1866
4.004, 2, 22.8482, 39.5383, 6.22848, -24.6208, -32.1398, -75.1866
4.008, 2, 22.8482, 39.5383, 6.22848, -24.6208, -32.1398, -75.1866
4.012, 2, 22.8482, 39.5383, 6.22848, -24.6208, -32.1398, -75.1866
4.016, 2, 22.8482, 39.5383, 6.22848, -24.6208, -32.1398, -75.1866
4.02, 2, 22.8482, 39.5383, 6.22848, -24.6208, -32.1398, -75.1866
4.024, 2, 22.8482, 39.5383, 6.22848, -24.6208, -32.1398, -75.1866
4.028, 2, 22.8482, 39.5383, 6.22848, -24.6208, -32.1398, -75.1866
4.032, 2, 22.8482, 39.5383, 6.22848, -24.6208, -32.1398, -75.1866
4.036, 2, 22.8482, 39.5383, 6.22848, -24.6208, -32.1398, -75.1866
4.04, 2, 22.8482, 39.5383, 6.22848, -24.6208, -32.1398, -75.1866
4.044, 2, 22.8482, 39.5383, 6.22848, -24.6208, -32.1398, -75.1866
4.048, 2, 22.8482, 39.5383, 6.22848, -24.6208, -32.1398, -75.1866
4.052, 2, 22.8482, 39.5383, 6.22848, -24.6208, -32.1398, -75.1866
4.056, 2, 22.8482, 39.5383, 6.22848, -24.6208, -32.1398, -75.1866
4.06, 2, 22.8482, 39.5383, 6.22848, -24.6208, -32.1398, -75.1866
4.064, 2, 22.8482, 39.5383, 6.22848, -24.6208, -32.1398, -75.1866
4.068, 2, 22.8482, 39.5383, 6.22848, -24.6208, -32.1398, -75.1866
4.072, 2, 22.8482, 39.5383, 6.22848, -24.6208, -32.1398, -75.1866
4.076, 2, 22.8482, 39.5383, 6.22848, -24.6208, -32.1398, -75.1866
4.08, 2, 22.8482, 39.5383, 6.22848, -24.6208, -32.1398, -75.1866
4.084, 2, 22.8482, 39.5383, 6.22848, -24.6208, -32.1398, -75.1866
4.088, 2, 22.8482, 39.5383, 6.22848, -24.6208, -32.1398, -75.1866
4.092, 2, 22.8482, 39.5383, 6.22848, -24.6208, -32.1398, -75.1866
4.096, 2, 22.8482, 39.5383, 6.22848, -24.6208, -32.1398, -75.1866
4.1, 2, 22.8482, 39.5383, 6.22848, -24.6208, -32.1398, -75.1866
4.104, 2, 22.8482, 39.5383, 6.22848, -24.6208, -32.1398, -75.1866
4.108, 2, 22.8482, 39.5383, 6.22848, -24.6208, -32.1398, -75.1866
4.112, 2, 22.8482, 39.5383, 6.22848, -24.6208, -32.1398, -75.1866
4.116, 2, 22.8482, 39.5383, 6.22848, -24.6208, -32.1398, -75.1866
4.12, 2, 22.8482, 39.5383, 6.22848, -24.6208, -32.1398, -75.1866
4.124, 2, 22.8482, 39.5383, 6.22848, -24.6208, -32.1398, -75.1866
4.128, 2, 22.8482, 39.5383, 6.22848, -24.6208, -32.1398, -75.1866
4.132, 2, 22.8482, 39.5383, 6.22848, -24.6208, -32.1398, -75.1866
4.136, 2, 22.8482, 39.5383, 6.22848, -24.6208, -32.1398, -75.1866
4.14, 2, 22.8482, 39.5383, 6.22848, -24.6208, -32.1398, -75.1866
4.144, 2, 22.8482, 39.5383, 6.22848, -24.6208, -32.1398, -75.1866
4.148, 2, 22.8482, 39.5383, 6.22848, -24.6208, -32.1398, -75.1866
4.152, 2, 22.8482, 39.5383, 6.22848, -24.6208, -32.1398, -75.1866
4.156, 2, 22.8482, 39.5383, 6.22848, -24.6208, -32.1398, -75.1866
4.16, 2, 22.8482, 39.5383, 6.22848, -24.6208, -32.1398, -75.1866
4.164, 2, 22.8482, 39.5383, 6.22848, -24.6208, -32.1398, -75.1866
4.168, 2, 22.8482, 39.5383, 6.22848, -24.6208, -32.1398, -75.1866
4.172, 2, 22.8482, 39.5383, 6.22848, -24.6208, -32.1398, -75.1866
4.176, 2, 22.8482, 39.5383, 6.22848, -24.6208, -32.1398, -75.1866
4.18, 2, 22.8482, 39.5383, 6.22848, -24.6208, -32.1398, -75.1866
4.184, 2, 22.8482, 39.5383, 6.22848, -24.6208, -32.1398, -75.1866
4.188, 2, 22.8482, 39.5383, 6.22848, -24.6208, -32.1398, -75.1866
4.192, 2, 22.8482, 39.5383, 6.22848, -24.6208, -32.1398, -75.1866
4.196, 2, 22.8482, 39.5383, 6.22848, -24.6208, -32.1398, -75.1866
4.2, 2, 22.8482, 39.5383, 6.22848, -24.6208, -32.1398, -75.1866
4.204, 2, 22.8482, 39.5383, 6.22848, -24.6208, -32.1398, -75.1866
4.208, 2, 22.8482, 39.5383, 6.22848, -24.6208, -32.1398, -75.1866
4.212, 2, 22.8482, 39.5383, 6.22848, -24.6208, -32.1398, -75.1866
4.216, 2, 22.8482, 39.5383, 6.22848, -24.6208, -32.1398, -75.1866
4.22, 2, 22.8482, 39.5383, 6.22848, -24.6208, -32.1398, -75.1866
4.224, 2, 22.8482, 39.5383, 6.22848, -24.6208, -32.1398, -75.1866
4.228, 2, 22.8482, 39.5383, 6.22848, -24.6208, -32.1398, -75.1866
4.232, 2, 22.8482, 39.5383, 6.22848, -24.6208, -32.1398, -75.1866
4.236, 2, 22.8482, 39.5383, 6.22848, -24.6208, -32.1398, -75.1866
4.24, 2, 22.8482, 39.5383, 6.22848, -24.6208, -32.1398, -75.1866
4.244, 2, 22.8482, 39.5383, 6.22848, -24.6208, -32.1398, -75.1866
4.248, 2, 22.8482, 39.5383, 6.22848, -24.6208, -32.1398, -75.1866
4.252, 2, 22.8482, 39.5383, 6.22848, -24.6208, -32.1398, -75.1866
4.256, 2, 22.8482, 39.5383, 6.22848, -24.6208, -32.1398, -75.1866
4.26, 2, 22.8482, 39.5383, 6.22848, -24.6208, -32.1398, -75.1866
4.264, 2, 22.8482, 39.5383, 6.22848, -24.6208, -32.1398, -75.1866
4.268, 2, 22.8482, 39.5383, 6.22848, -24.6208, -32.1398, -75.1866
4.272, 2, 22.8482, 39.5383, 6.22848, -24.6208, -32.1398, -75.1866
4.276, 2, 22.8482, 39.5383, 6.22848, -24.6208, -32.1398, -75.1866
4.28, 2, 22.8482, 39.5383, 6.22848, -24.6208, -32.1398, -75.1866
4.284, 2, 22.8482, 39.5383, 6.22848, -24.6208, -32.1398, -75.1866
4.288, 2, 22.8482, 39.5383, 6.22848, -24.6208, -32.1398, -75.1866
4.292, 2, 22.8482, 39.5383, 6.22848, -24.6208, -32.1398, -75.1866
4.296, 2, 22.8482, 39.5383, 6.22848, -24.6208, -32.1398, -75.1866
4.3, 2, 22.8482, 39.5383, 6.22848, -24.6208, -32.1398, -75.1866
4.304, 2, 22.8482, 39.5383, 6.22848, -24.6208, -32.1398, -75.1866
4.308, 2, 22.8482, 39.5383, 6.22848, -24.6208, -32.1398, -75.1866
4.312, 2, 22.8482, 39.5383, 6.22848, -24.6208, -32.1398, -75.1866
4.316, 2, 22.8482, 39.5383, 6.22848, -24.6208, -32.1398, -75.1866
4.32, 2, 22.8482, 39.5383, 6.22848, -24.6208, -32.1398, -75.1866
4.324, 2, 22.8482, 39.5383, 6.22848, -24.6208, -32.1398, -75.1866
4.328, 2, 22.8482, 39.5383, 6.22848, -24.6208, -32.1398, -75.1866
4.332, 2, 22.8482, 39.5383, 6.22848, -24.6208, -32.1398, -75.1866
4.336, 2, 22.8482, 39.5383, 6.22848, -24.6208, -32.1398, -75.1866
4.34, 2, 22.8482, 39.5383, 6.22848, -24.6208, -32.1398, -75.1866
4.344, 2, 22.8482, 39.5383, 6.22848, -24.6208, -32.1398, -75.1866
4.348, 2, 22.8482, 39.5383, 6.22848, -24.6208, -32.1398, -75.1866
4.352, 2, 22.8482, 39.5383, 6.22848, -24.6208, -32.1398, -75.1866
4.356, 2, 22.8482, 39.5383, 6.22848, -24.6208, -32.1398, -75.1866
4.36, 2, 22.8482, 39.5383, 6.22848, -24.6208, -32.1398, -75.1866
4.364, 2, 22.8482, 39.5383, 6.22848, -24.6208, -32.1398, -75.1866
4.368, 2, 22.8482, 39.5383, 6.22848, -24.6208, -32.1398, -75.1866
4.372, 2, 22.8482, 39.5383, 6.22848, -24.6208, -32.1398, -75.1866
4.376, 2, 22.8482, 39.5383, 6.22848, -24.6208, -32.1398, -75.1866
4.38, 2, 22.8482, 39.5383, 6.22848, -24.6208, -32.1398, -75.1866
4.384, 2, 22.8482, 39.5383, 6.22848, -24.6208, -32.1398, -75.1866
4.388, 2, 22.8482, 39.5383, 6.22848, -24.6208, -32.1398, -75.1866
4.392, 2, 22.8482, 39.5383, 6.22848, -24.6208, -32.1398, -75.1866
4.396, 2, 22.8482, 39.5383, 6.22848, -24.6208, -32.1398, -75.1866
4.4, 2, 22.8482, 39.5383, 6.22848, -24.6208, -32.1398, -75.1866
4.404, 2, 22.8482, 39.5383, 6.22848, -24.6208, -32.1398, -75.1866
4.408, 2, 22.8482, 39.5383, 6.22848, -24.6208, -32.1398, -75.1866
4.412, 2, 22.8482, 39.5383, 6.22848, -24.6208, -32.1398, -75.1866
4.416, 2, 22.8482, 39.5383, 6.22848, -24.6208, -32.1398, -75.1866
4.42, 2, 22.8482, 39.5383, 6.22848, -24.6208, -32.1398, -75.1866
4.424, 2, 22.8482, 39.5383, 6.22848, -24.6208, -32.1398, -75.1866
4.428, 2, 22.8482, 39.5383, 6.22848, -24.6208, -32.1398, -75.1866
4.432, 2, 22.8482, 39.5383, 6.22848, -24.6208, -32.1398, -75.1866
4.436, 2, 22.8482, 39.5383, 6.22848, -24.6208, -32.1398, -75.1866
4.44, 2, 22.8482, 39.5383, 6.22848, -24.6208, -32.1398, -75.1866
4.444, 2, 22.8482, 39.5383, 6.22848, -24.6208, -32.1398, -75.1866
4.448, 2, 22.8482, 39.5383, 6.22848, -24.6208, -32.1398, -75.1866
4.452, 2, 22.8482, 39.5383, 6.22848, -24.6208, -32.1398, -75.1866
4.456, 2, 22.8482, 39.5383, 6.22848, -24.6208, -32.1398, -75.1866
4.46, 2, 22.8482, 39.5383, 6.22848, -24.6208, -32.1398, -75.1866
4.464, 2, 22.8482, 39.5383, 6.22848, -24.6208, -32.1398, -75.1866
4.468, 2, 22.8482, 39.5383, 6.22848, -24.6208, -32.1398, -75.1866
4.472, 2, 22.8482, 39.5383, 6.22848, -24.6208, -32.1398, -75.1866
4.476, 2, 22.8482, 39.5383, 6.22848, -24.6208, -32.1398, -75.1866
4.48, 2, 22.8482, 39.5383, 6.22848, -24.6208, -32.1398, -75.1866
4.484, 2, 22.8482, 39.5383, 6.22848, -24.6208, -32.1398, -75.1866
4.488, 2, 22.8482, 39.5383, 6.22848, -24.6208, -32.1398, -75.1866
4.492, 2, 22.8482, 39.5383, 6.22848, -24.6208, -32.1398, -75.1866
4.496, 2, 22.8482, 39.5383, 6.22848, -24.6208, -32.1398, -75.1866
4.5, 2, 22.8482, 39.5383, 6.22848, -24.6208, -32.1398, -75.1866
4.504, 2, 22.8482, 39.5383, 6.22848, -24.6208, -32.1398, -75.1866
4.508, 2, 22.8482, 39.5383, 6.22848, -24.6208, -32.1398, -75.1866
4.512, 2, 22.8482, 39.5383, 6.22848, -24.6208, -32.1398, -75.1866
4.516, 2, 22.8482, 39.5383, 6.22848, -24.6208, -32.1398, -75.1866
4.52, 2, 22.8482, 39.5383, 6.22848, -24.6208, -32.1398, -75.1866
4.524, 2, 22.8482, 39.5383, 6.22848, -24.6208, -32.1398, -75.1866
4.528, 2, 22.8482, 39.5383, 6.22848, -24.6208, -32.1398, -75.1866
4.532, 2, 22.8482, 39.5383, 6.22848, -24.6208, -32.1398, -75.1866
4.536, 2, 22.8482, 39.5383, 6.22848, -24.6208, -32.1398, -75.1866
4.54, 2, 22.8482, 39.5383, 6.22848, -24.6208, -32.1398, -75.1866
4.544, 2, 22.8482, 39.5383, 6.22848, -24.6208, -32.1398, -75.1866
4.548, 2, 22.8482, 39.5383, 6.22848, -24.6208, -32.1398, -75.1866
4.552, 2, 22.8482, 39.5383, 6.22848, -24.6208, -32.1398, -75.1866
4.556, 2, 22.8482, 39.5383, 6.22848, -24.6208, -32.1398, -75.1866
4.56, 2, 22.8482, 39.5383, 6.22848, -24.6208, -32.1398, -75.1866
4.564, 2, 22.8482, 39.5383, 6.22848, -24.6208, -32.1398, -75.1866
4.568, 2, 22.8482, 39.5383, 6.22848, -24.6208, -32.1398, -75.1866
4.572, 2, 22.8482, 39.5383, 6.22848, -24.6208, -32.1398, -75.1866
4.576, 2, 22.8482, 39.5383, 6.22848, -24.6208, -32.1398, -75.1866
4.58, 2, 22.8482, 39.5383, 6.22848, -24.6208, -32.1398, -75.1866
4.584, 2, 22.8482, 39.5383, 6.22848, -24.6208, -32.1398, -75.1866
4.588, 2, 22.8482, 39.5383, 6.22848, -24.6208, -32.1398, -75.1866
4.592, 2, 22.8482, 39.5383, 6.22848, -24.6208, -32.1398, -75.1866
4.596, 2, 22.8482, 39.5383, 6.22848, -24.6208, -32.1398, -75.1866
4.6, 3, 22.8482, 39.5383, 6.22848, -24.6208, -32.1398, -75.1866
4.604, 3, 22.8482, 39.5383, 6.22848, -24.6208, -32.1398, -75.1866
4.608, 3, 22.8482, 39.5383, 6.22848, -24.6208, -32.1398, -75.1866
4.612, 3, 22.8482, 39.5383, 6.22848, -24.6208, -32.1398, -75.1866
4.616, 3, 22.8482, 39.5383, 6.22848, -24.6208, -32.1398, -75.1866
4.62, 3, 22.8482, 39.5383, 6.22848, -24.6208, -32.1398, -75.1866
4.624, 3, 22.8482, 39.5383, 6.22848, -24.6208, -32.1398, -75.1866
4.628, 3, 22.8482, 39.5383, 6.22848, -24.6208, -32.1398, -75.1866
4.632, 3, 22.8482, 39.5383, 6.22848, -24.6208, -32.1398, -75.1866
4.636, 3, 22.8482, 39.5383, 6.22848, -24.6208, -32.1398, -75.1866
4.64, 3, 22.8482, 39.5383, 6.22848, -24.6208, -32.1398, -75.1866
4.644, 3, 22.8482, 39.5383, 6.22848, -24.6208, -32.1398, -75.1866
4.648, 3, 22.8482, 39.5383, 6.22848, -24.6208, -32.1398, -75.1866
4.652, 4, 22.8482, 39.5383, 6.22848, -24.6208, -32.1398, -75.1866
4.656, 4, 22.8482, 39.5383, 6.22848, -24.6208, -32.1398, -75.1866
4.66, 4, 22.8482, 39.5383, 6.22848, -24.6208, -32.1398, -75.1866
4.664, 4, 22.8482, 39.5383, 6.22848, -24.6208, -32.1398, -75.1866
4.668, 4, 22.8482, 39.5383, 6.22848, -24.6208, -32.1398, -75.1866
4.672, 4, 22.8482, 39.5383, 6.22848, -24.6208, -32.1398, -75.1866
4.676, 4, 22.8482, 39.5383, 6.22848, -24.6208, -32.1398, -75.1866
4.68, 4, 22.8482, 39.5383, 6.22848, -24.6208, -32.1398, -75.1866
4.684, 4, 22.8482, 39.5383, 6.22848, -24.6208, -32.1398, -75.1866
4.688, 4, 22.8482, 39.5383, 6.22848, -24.6208, -32.1398, -75.1866
4.692, 4, 22.8482, 39.5383, 6.22848, -24.6208, -32.1398, -75.1866
4.696, 4, 22.8482, 39.5383, 6.22848, -24.6208, -32.1398, -75.1866
4.7, 4, 22.8482, 39.5383, 6.22848, -24.6208, -32.1398, -75.1866
4.704, 4, 22.8482, 39.5383, 6.22848, -24.6208, -32.1398, -75.1866
4.708, 4, 22.8482, 39.5383, 6.22848, -24.6208, -32.1398, -75.1866
4.712, 4, 22.8482, 39.5383, 6.22848, -24.6208, -32.1398, -75.1866
4.716, 4, 22.8482, 39.5383, 6.22848, -24.6208, -32.1398, -75.1866
4.72, 4, 22.8482, 39.5383, 6.22848, -24.6208, -32.1398, -75.1866
4.724, 4, 22.8482, 39.5383, 6.22848, -24.6208, -32.1398, -75.1866
4.728, 4, 22.8482, 39.5383, 6.22848, -24.6208, -32.1398, -75.1866
4.732, 4, 22.8482, 39.5383, 6.22848, -24.6208, -32.1398, -75.1866
4.736, 4, 22.8482, 39.5383, 6.22848, -24.6208, -32.1398, -75.1866
4.74, 4, 22.8482, 39.5383, 6.22848, -24.6208, -32.1398, -75.1866
4.744, 4, 22.8482, 39.5383, 6.22848, -24.6208, -32.1398, -75.1866
4.748, 4, 22.8482, 39.5383, 6.22848, -24.6208, -32.1398, -75.1866
4.752, 5, 22.8482, 39.5383, 6.22848, -24.6208, -32.1398, -75.1866
4.755, 5, 22.8482, 39.5383, 6.22848, -24.6208, -32.1398, -75.1866
4.76, 6, 22.8482, 39.5383, 6.22848, -24.6208, -32.1398, -75.1866
4.764, 6, 22.8482, 39.5383, 6.22848, -24.6208, -32.1398, -75.1866
4.768, 6, 22.8482, 39.5383, 6.22848, -24.6208, -32.1398, -75.1866
4.772, 7, 22.8482, 39.5383, 6.22848, -24.6208, -32.1398, -75.1866
4.776, 7, 22.8482, 39.5383, 6.22848, -24.6208, -32.1398, -75.1866
4.78, 7, 22.8482, 39.5383, 6.22848, -24.6208, -32.1398, -75.1866
4.784, 8, 22.8482, 39.5383, 6.22848, -24.6208, -32.1398, -75.1866
4.788, 8, 22.8482, 39.5383, 6.22848, -24.6208, -32.1398, -75.1866
4.792, 8, 22.8482, 39.5383, 6.22848, -24.6208, -32.1398, -75.1866
4.796, 9, 22.8482, 39.5383, 6.22848, -24.6208, -32.1398, -75.1866
4.8, 9, 22.8482, 39.5383, 6.22848, -24.6208, -32.1398, -75.1866
4.804, 9, 22.8482, 39.5383, 6.22848, -24.6208, -32.1398, -75.1866
4.808, 10, 22.8481, 39.5383, 6.22848, -24.6208, -32.1398, -75.1866
4.812, 10, 22.8481, 39.5383, 6.22848, -24.6208, -32.1398, -75.1866
4.816, 11, 22.8478, 39.5384, 6.22849, -24.6208, -32.1398, -75.1866
4.82, 11, 22.8472, 39.5385, 6.2285, -24.6208, -32.1398, -75.1866
4.824, 11, 22.8461, 39.5388, 6.22855, -24.6209, -32.1399, -75.1866
4.828, 11, 22.8443, 39.5392, 6.22867, -24.6209, -32.14, -75.1866
4.832, 11, 22.8419, 39.5399, 6.22893, -24.6211, -32.1402, -75.1865
4.836, 11, 22.8386, 39.5408, 6.22942, -24.6214, -32.1406, -75.1864
4.84, 11, 22.8344, 39.542, 6.23029, -24.622, -32.1415, -75.1863
4.844, 11, 22.8294, 39.5435, 6.2317, -24.6229, -32.1429, -75.1861
4.848, 11, 22.8233, 39.5453, 6.23385, -24.6243, -32.1451, -75.1857
4.852, 11, 22.816, 39.5473, 6.237, -24.6264, -32.1484, -75.1852
4.856, 11, 22.8072, 39.5495, 6.24143, -24.6293, -32.1531, -75.1845
4.861, 12, 22.7967, 39.5517, 6.24747, -24.6334, -32.1596, -75.1836
4.864, 12, 22.7844, 39.5539, 6.25548, -24.6388, -32.1682, -75.1823
4.867, 12, 22.77, 39.556, 6.26586, -24.6458, -32.1793, -75.1807
4.872, 12, 22.7536, 39.5579, 6.27902, -24.6548, -32.1936, -75.1786
4.876, 12, 22.7349, 39.5593, 6.29537, -24.6659, -32.2113, -75.176
4.88, 12, 22.7138, 39.5604, 6.31532, -24.6795, -32.233, -75.1729
4.885, 13, 22.6901, 39.5609, 6.33924, -24.6958, -32.259, -75.1692
4.887, 13, 22.6636, 39.5609, 6.3675, -24.7151, -32.2897, -75.1647
4.892, 13, 22.634, 39.5603, 6.40041, -24.7375, -32.3255, -75.1596
4.896, 13, 22.6013, 39.559, 6.43828, -24.7634, -32.3666, -75.1537
4.9, 13, 22.5653, 39.557, 6.48134, -24.7929, -32.4133, -75.147
4.904, 13, 22.5257, 39.5543, 6.52982, -24.826, -32.4657, -75.1394
4.908, 13, 22.4824, 39.5507, 6.58389, -24.863, -32.5241, -75.131
4.912, 13, 22.4353, 39.5461, 6.64369, -24.904, -32.5885, -75.1218
4.916, 13, 22.3842, 39.5406, 6.70932, -24.9489, -32.6589, -75.1116
4.92, 13, 22.329, 39.5341, 6.78087, -24.9979, -32.7355, -75.1005
4.924, 13, 22.2694, 39.5264, 6.8584, -25.051, -32.818, -75.0885
4.928, 13, 22.2055, 39.5176, 6.94196, -25.1083, -32.9067, -75.0756
4.933, 14, 22.137, 39.5077, 7.03156, -25.1697, -33.0013, -75.0618
4.936, 14, 22.0641, 39.4966, 7.12725, -25.2353, -33.1018, -75.0471
4.939, 14, 21.9865, 39.4844, 7.22905, -25.3051, -33.2083, -75.0315
4.944, 14, 21.9044, 39.4709, 7.33698, -25.3791, -33.3205, -75.0149
4.948, 14, 21.8177, 39.4562, 7.45108, -25.4574, -33.4384, -74.9974
4.952, 14, 21.7264, 39.44, 7.57136, -25.5399, -33.5619, -74.979
4.956, 14, 21.6305, 39.4224, 7.69785, -25.6268, -33.6909, -74.9596
4.96, 14, 21.53, 39.4031, 7.83055, -25.718, -33.8254, -74.9393
4.964, 14, 21.425, 39.3819, 7.96948, -25.8135, -33.9652, -74.9181
4.968, 14, 21.3155, 39.3589, 8.11464, -25.9133, -34.1101, -74.8959
4.972, 14, 21.2016, 39.3337, 8.26602, -26.0176, -34.2602, -74.8728
4.976, 14, 21.0835, 39.3062, 8.42359, -26.1262, -34.4151, -74.8487
4.98, 14, 20.9616, 39.2764, 8.58729, -26.2391, -34.5748, -74.8236
4.984, 14, 20.8358, 39.244, 8.75702, -26.3564, -34.7389, -74.7976
4.988, 14, 20.7065, 39.2092, 8.9326, -26.4779, -34.9073, -74.7707
4.992, 14, 20.5738, 39.1717, 9.11383, -26.6034, -35.0795, -74.7429
4.996, 14, 20.4378, 39.1316, 9.30041, -26.7329, -35.2552, -74.7141
5, 14, 20.2985, 39.0888, 9.49203, -26.866, -35.434, -74.6845
5.004, 14, 20.1561, 39.0434, 9.68831, -27.0027, -35.6155, -74.6541
5.008, 14, 20.0108, 38.9954, 9.88887, -27.1425, -35.799, -74.6229
5.012, 14, 19.8626, 38.9448, 10.0933, -27.2853, -35.9842, -74.5909
5.016, 14, 19.712, 38.8915, 10.3011, -27.4308, -36.1706, -74.5582
5.02, 14, 19.559, 38.8357, 10.5119, -27.5787, -36.3578, -74.5249
5.024, 14, 19.4038, 38.7774, 10.7253, -27.7288, -36.5452, -74.491
5.028, 14, 19.2465, 38.7166, 10.9409, -27.8807, -36.7325, -74.4565
5.032, 14, 19.0871, 38.6534, 11.1583, -28.0343, -36.9192, -74.4214
5.036, 14, 18.9257, 38.5879, 11.3773, -28.1893, -37.1052, -74.3859
5.04, 14, 18.7626, 38.52, 11.5974, -28.3457, -37.2901, -74.3498
5.044, 14, 18.598, 38.4498, 11.8186, -28.5032, -37.4737, -74.3132
5.048, 14, 18.432, 38.3772, 12.0406, -28.6618, -37.6559, -74.2762
5.053, 15, 18.2649, 38.3023, 12.2633, -28.8215, -37.8367, -74.2386
5.056, 15, 18.097, 38.225, 12.4867, -28.9822, -38.016, -74.2006
5.06, 15, 17.9285, 38.1453, 12.7105, -29.1439, -38.1936, -74.162
5.064, 15, 17.7593, 38.0634, 12.9348, -29.3065, -38.3696, -74.123
5.068, 15, 17.5896, 37.9791, 13.1594, -29.4701, -38.544, -74.0834
5.072, 15, 17.4194, 37.8926, 13.3843, -29.6347, -38.7168, -74.0432
5.076, 15, 17.2487, 37.8038, 13.6094, -29.8002, -38.8879, -74.0025
5.08, 15, 17.0776, 37.7127, 13.8348, -29.9667, -39.0572, -73.9612
5.084, 15, 16.9062, 37.6194, 14.0603, -30.1342, -39.2249, -73.9193
5.088, 15, 16.7344, 37.5239, 14.2859, -30.3026, -39.3909, -73.8768
5.092, 15, 16.5623, 37.4263, 14.5116, -30.4721, -39.5551, -73.8336
5.096, 15, 16.3898, 37.3266, 14.7372, -30.6425, -39.7177, -73.7898
5.101, 16, 16.2168, 37.2249, 14.9629, -30.8138, -39.8784, -73.7453
5.103, 16, 16.0434, 37.1213, 15.1886, -30.9862, -40.0374, -73.7
5.108, 16, 15.8695, 37.0158, 15.4141, -31.1595, -40.1946, -73.6541
5.112, 16, 15.6951, 36.9084, 15.6395, -31.3339, -40.3501, -73.6074
5.116, 16, 15.5202, 36.7993, 15.8646, -31.5092, -40.5038, -73.56
5.12, 16, 15.3448, 36.6882, 16.0896, -31.6854, -40.6558, -73.5118
5.124, 16, 15.169, 36.5754, 16.3143, -31.8627, -40.8061, -73.4629
5.128, 16, 14.9929, 36.4608, 16.5387, -32.0409, -40.9546, -73.4133
5.132, 16, 14.8163, 36.3445, 16.7626, -32.2202, -41.1015, -73.3628
5.136, 16, 14.6394, 36.2265, 16.9862, -32.4004, -41.2467, -73.3117
5.14, 16, 14.4621, 36.1069, 17.2093, -32.5815, -41.3903, -73.2597
5.144, 16, 14.2845, 35.9856, 17.4319, -32.7637, -41.5323, -73.2069
5.148, 16, 14.1065, 35.8628, 17.6539, -32.9469, -41.6726, -73.1533
5.152, 16, 13.9282, 35.7383, 17.8754, -33.1311, -41.8113, -73.0989
5.156, 16, 13.7496, 35.6124, 18.0963, -33.3162, -41.9485, -73.0437
5.16, 16, 13.5706, 35.485, 18.3165, -33.5024, -42.084, -72.9877
5.164, 16, 13.3913, 35.3563, 18.536, -33.6896, -42.2179, -72.9307
5.168, 16, 13.2115, 35.2263, 18.7548, -33.8778, -42.3503, -72.8729
5.172, 16, 13.0312, 35.0951, 18.9728, -34.0671, -42.481, -72.8142
5.176, 16, 12.8506, 34.9628, 19.1901, -34.2574, -42.6102, -72.7545
5.18, 16, 12.6695, 34.8294, 19.4065, -34.4487, -42.7379, -72.694
5.184, 16, 12.488, 34.6948, 19.6221, -34.641, -42.864, -72.6325
5.188, 16, 12.306, 34.5591, 19.8369, -34.8344, -42.9887, -72.5702
5.192, 16, 12.1237, 34.4223, 20.0507, -35.0288, -43.1118, -72.5069
5.196, 16, 11.941, 34.2844, 20.2636, -35.2243, -43.2336, -72.4427
5.2, 16, 11.758, 34.1456, 20.4756, -35.4208, -43.3539, -72.3775
5.204, 16, 11.5745, 34.0058, 20.6865, -35.6183, -43.4729, -72.3114
5.208, 16, 11.3906, 33.865, 20.8964, -35.8169, -43.5905, -72.2444
5.212, 16, 11.2064, 33.7233, 21.1052, -36.0166, -43.7068, -72.1764
5.216, 16, 11.0218, 33.5807, 21.313, -36.2173, -43.8218, -72.1075
5.221, 17, 10.8368, 33.4373, 21.5196, -36.4192, -43.9354, -72.0376
5.224, 17, 10.6513, 33.2932, 21.7252, -36.622, -44.0478, -71.9667
5.228, 17, 10.4654, 33.1484, 21.9295, -36.826, -44.1589, -71.8949
5.232, 17, 10.279, 33.0031, 22.1327, -37.0311, -44.2688, -71.822
5.236, 17, 10.0921, 32.8571, 22.3346, -37.2372, -44.3774, -71.7481
5.24, 17, 9.90471, 32.7106, 22.5353, -37.4444, -44.4848, -71.6732
5.244, 17, 9.71684, 32.5635, 22.7348, -37.6527, -44.591, -71.5973
5.248, 17, 9.52851, 32.4159, 22.933, -37.8622, -44.6961, -71.5204
5.252, 17, 9.33971, 32.2678, 23.1299, -38.0727, -44.8001, -71.4425
5.256, 17, 9.15044, 32.1193, 23.3255, -38.2843, -44.903, -71.3636
5.26, 17, 8.96068, 31.9704, 23.5197, -38.497, -45.0048, -71.2836
5.264, 17, 8.77043, 31.8211, 23.7125, -38.7108, -45.1056, -71.2027
5.268, 17, 8.57966, 31.6715, 23.9039, -38.9258, -45.2054, -71.1207
5.272, 17, 8.38835, 31.5217, 24.0938, -39.1419, -45.3042, -71.0377
5.276, 17, 8.1965, 31.3716, 24.2823, -39.3591, -45.402, -70.9536
5.28, 17, 8.00409, 31.2214, 24.4693, -39.5774, -45.4988, -70.8685
5.284, 17, 7.81111, 31.0711, 24.6547, -39.7969, -45.5948, -70.7823
5.288, 17, 7.61757, 30.9207, 24.8386, -40.0176, -45.6898, -70.6951
5.292, 17, 7.42349, 30.7703, 25.0209, -40.2394, -45.784, -70.6068
5.296, 17, 7.22887, 30.6198, 25.2017, -40.4624, -45.8774, -70.5175
5.3, 17, 7.03372, 30.4693, 25.3808, -40.6865, -45.97, -70.4272
5.304, 17, 6.83802, 30.3189, 25.5583, -40.9117, -46.0618, -70.3358
5.308, 17, 6.64176, 30.1686, 25.7342, -41.1381, -46.153, -70.2435
5.312, 17, 6.44493, 30.0184, 25.9085, -41.3656, -46.2434, -70.1502
5.316, 17, 6.24753, 29.8684, 26.0811, -41.5942, -46.3333, -70.0559
5.32, 17, 6.04953, 29.7186, 26.252, -41.8239, -46.4225, -69.9606
5.324, 17, 5.85096, 29.569, 26.4213, -42.0547, -46.5111, -69.8644
5.328, 17, 5.65181, 29.4196, 26.5889, -42.2866, -46.5992, -69.7672
5.332, 17, 5.45208, 29.2705, 26.7548, -42.5195, -46.6868, -69.6691
5.336, 17, 5.25174, 29.1218, 26.919, -42.7535, -46.7738, -69.5701
5.34, 17, 5.05076, 28.9734, 27.0814, -42.9886, -46.8604, -69.4702
5.344, 17, 4.8491, 28.8255, 27.2422, -43.2247, -46.9465, -69.3693
5.348, 17, 4.64676, 28.6781, 27.4011, -43.4619, -47.0321, -69.2675
5.352, 17, 4.44375, 28.5312, 27.5583, -43.7001, -47.1173, -69.1648
5.356, 17, 4.2401, 28.3848, 27.7137, -43.9393, -47.202, -69.0612
5.36, 17, 4.03581, 28.239, 27.8673, -44.1796, -47.2864, -68.9566
5.365, 18, 3.83089, 28.0938, 28.0191, -44.4209, -47.3705, -68.8512
5.367, 18, 3.62535, 27.9492, 28.169, -44.6632, -47.4542, -68.7449
5.372, 18, 3.41915, 27.8053, 28.3171, -44.9066, -47.5377, -68.6378
5.376, 18, 3.21228, 27.662, 28.4633, -45.1509, -47.6209, -68.5298
5.38, 18, 3.0047, 27.5196, 28.6076, -45.3961, -47.7039, -68.4211
5.384, 18, 2.79642, 27.3781, 28.7499, -45.6424, -47.7868, -68.3115
5.389, 19, 2.58743, 27.2374, 28.8903, -45.8896, -47.8695, -68.2012
5.392, 19, 2.37776, 27.0976, 29.0288, -46.1377, -47.9521, -68.0902
5.396, 19, 2.16739, 26.9589, 29.1652, -46.3867, -48.0347, -67.9784
5.4, 19, 1.95633, 26.8212, 29.2997, -46.6367, -48.1172, -67.8659
5.404, 19, 1.74458, 26.6845, 29.432, -46.8876, -48.1997, -67.7528
5.408, 19, 1.53215, 26.549, 29.5623, -47.1393, -48.2822, -67.6389
5.412, 19, 1.31907, 26.4145, 29.6905, -47.392, -48.3647, -67.5244
5.416, 19, 1.10535, 26.2813, 29.8164, -47.6455, -48.4474, -67.4093
5.42, 19, 0.890985, 26.1493, 29.9403, -47.8999, -48.5301, -67.2935
5.424, 19, 0.675979, 26.0185, 30.0619, -48.1552, -48.6129, -67.1771
5.428, 19, 0.460305, 25.8891, 30.1812, -48.4113, -48.6959, -67.0601
5.432, 19, 0.243929, 25.7611, 30.2983, -48.6683, -48.779, -66.9425
5.436, 19, 0.026817, 25.6347, 30.4132, -48.9261, -48.8622, -66.8243
5.44, 19, -0.19106, 25.5099, 30.5257, -49.1847, -48.9457, -66.7056
5.444, 19, -0.409711, 25.3868, 30.6359, -49.444, -49.0294, -66.5863
5.448, 19, -0.629128, 25.2655, 30.7437, -49.7041, -49.1133, -66.4666
5.452, 19, -0.849289, 25.1459, 30.8492, -49.9648, -49.1974, -66.3465
5.456, 19, -1.07018, 25.0282, 30.9523, -50.2263, -49.282, -66.2259
5.46, 19, -1.29179, 24.9124, 31.053, -50.4883, -49.3668, -66.1051
5.464, 19, -1.51412, 24.7985, 31.1513, -50.751, -49.4521, -65.9839
5.468, 19, -1.73716, 24.6867, 31.247, -51.0142, -49.5378, -65.8626
5.472, 19, -1.96088, 24.577, 31.3404, -51.2779, -49.6241, -65.7411
5.476, 19, -2.18527, 24.4692, 31.4312, -51.5421, -49.7108, -65.6194
5.48, 19, -2.41029, 24.3636, 31.5194, -51.8067, -49.798, -65.4977
5.484, 19, -2.63593, 24.2599, 31.6051, -52.0717, -49.8859, -65.376
5.488, 19, -2.86216, 24.1584, 31.6883, -52.3371, -49.9744, -65.2543
5.492, 19, -3.08898, 24.0589, 31.7688, -52.6029, -50.0634, -65.1326
5.496, 19, -3.31639, 23.9617, 31.8467, -52.869, -50.1531, -65.011
5.5, 19, -3.5444, 23.8667, 31.9219, -53.1353, -50.2435, -64.8896
5.504, 19, -3.77304, 23.7742, 31.9945, -53.4019, -50.3344, -64.7683
5.508, 19, -4.00231, 23.6842, 32.0643, -53.6687, -50.4261, -64.6471
5.512, 19, -4.23224, 23.597, 32.1315, -53.9357, -50.5183, -64.5262
5.516, 19, -4.46283, 23.5126, 32.1959, -54.2028, -50.6112, -64.4055
5.52, 19, -4.69407, 23.431, 32.2575, -54.47, -50.7048, -64.2851
5.524, 19, -4.92594, 23.3523, 32.3164, -54.7372, -50.7991, -64.1651
5.528, 19, -5.15842, 23.2765, 32.3723, -55.0045, -50.8941, -64.0454
5.532, 19, -5.39145, 23.2036, 32.4255, -55.2717, -50.9898, -63.9262
5.536, 19, -5.625, 23.1338, 32.4757, -55.5388, -51.0863, -63.8076
5.54, 19, -5.85904, 23.0669, 32.5229, -55.8057, -51.1836, -63.6895
5.544, 19, -6.09355, 23.0031, 32.5672, -56.0724, -51.2817, -63.5722
5.548, 19, -6.3285, 22.9425, 32.6084, -56.3389, -51.3806, -63.4555
5.552, 19, -6.56387, 22.8852, 32.6466, -56.605, -51.4804, -63.3397
5.556, 19, -6.79961, 22.8312, 32.6816, -56.8707, -51.581, -63.2248
5.56, 19, -7.0357, 22.7805, 32.7135, -57.136, -51.6825, -63.1108
5.564, 19, -7.27208, 22.7333, 32.7423, -57.4007, -51.7849, -62.9979
5.568, 19, -7.50874, 22.6895, 32.7678, -57.665, -51.8882, -62.886
5.572, 19, -7.74566, 22.6492, 32.7902, -57.9286, -51.9923, -62.7752
5.576, 19, -7.98284, 22.6126, 32.8093, -58.1915, -52.0974, -62.6655
5.58, 19, -8.22027, 22.5799, 32.8252, -58.4538, -52.2032, -62.5571
5.584, 19, -8.45798, 22.5511, 32.8378, -58.7153, -52.3099, -62.4498
5.588, 19, -8.69594, 22.5264, 32.8471, -58.976, -52.4174, -62.3439
5.592, 19, -8.93411, 22.5058, 32.853, -59.2359, -52.5258, -62.2392
5.596, 19, -9.17245, 22.4894, 32.8556, -59.4948, -52.6349, -62.1359
5.6, 19, -9.41091, 22.4771, 32.8548, -59.7527, -52.7448, -62.0341
5.604, 19, -9.64942, 22.4691, 32.8506, -60.0096, -52.8555, -61.9338
5.608, 19, -9.88795, 22.4654, 32.8429, -60.2653, -52.9669, -61.8351
5.612, 19, -10.1264, 22.466, 32.8316, -60.5198, -53.0792, -61.738
5.616, 19, -10.3648, 22.4711, 32.8168, -60.7731, -53.1922, -61.6427
5.62, 19, -10.6031, 22.4806, 32.7984, -61.025, -53.306, -61.5492
5.624, 19, -10.8412, 22.4947, 32.7764, -61.2755, -53.4206, -61.4575
5.628, 19, -11.079, 22.5133, 32.7507, -61.5245, -53.5358, -61.3678
5.632, 19, -11.3165, 22.5366, 32.7213, -61.772, -53.6518, -61.2801
5.636, 19, -11.5537, 22.5644, 32.6881, -62.0178, -53.7685, -61.1944
5.64, 19, -11.7904, 22.5969, 32.6513, -62.262, -53.8858, -61.1108
5.644, 19, -12.0267, 22.6341, 32.6106, -62.5044, -54.0038, -61.0293
5.648, 19, -12.2625, 22.6762, 32.5662, -62.7451, -54.1223, -60.9499
5.652, 19, -12.4977, 22.7233, 32.5181, -62.9839, -54.2414, -60.8727
5.656, 19, -12.7324, 22.7754, 32.4661, -63.2209, -54.3609, -60.7976
5.66, 19, -12.9664, 22.8326, 32.4103, -63.456, -54.4809, -60.7247
5.664, 19, -13.1996, 22.895, 32.3507, -63.689, -54.6012, -60.654
5.668, 19, -13.4322, 22.9625, 32.2873, -63.9201, -54.7219, -60.5855
5.672, 19, -13.6638, 23.0351, 32.2199, -64.149, -54.8429, -60.5193
5.676, 19, -13.8946, 23.1129, 32.1487, -64.3758, -54.9642, -60.4554
5.68, 19, -14.1244, 23.1958, 32.0736, -64.6004, -55.0856, -60.3939
5.684, 19, -14.3531, 23.2839, 31.9946, -64.8227, -55.2073, -60.3347
5.688, 19, -14.5807, 23.3772, 31.9116, -65.0426, -55.3291, -60.2779
5.692, 19, -14.8072, 23.4756, 31.8246, -65.2601, -55.451, -60.2236
5.696, 19, -15.0324, 23.5793, 31.7337, -65.4751, -55.5729, -60.1717
5.7, 19, -15.2564, 23.6881, 31.6388, -65.6875, -55.6948, -60.1224
5.704, 19, -15.4789, 23.8021, 31.5399, -65.8974, -55.8167, -60.0755
5.708, 19, -15.7, 23.9211, 31.4371, -66.1047, -55.9385, -60.0312
5.712, 19, -15.9196, 24.0454, 31.3304, -66.3092, -56.0602, -59.9894
5.716, 19, -16.1377, 24.1747, 31.2197, -66.5111, -56.1817, -59.9502
5.72, 19, -16.3541, 24.3091, 31.1051, -66.7103, -56.303, -59.9134
5.724, 19, -16.5689, 24.4487, 30.9866, -66.9067, -56.424, -59.8791
5.728, 19, -16.7821, 24.5934, 30.8643, -67.1003, -56.5446, -59.8472
5.732, 19, -16.9934, 24.7431, 30.7382, -67.2912, -56.6648, -59.8177
5.736, 19, -17.203, 24.8979, 30.6083, -67.4793, -56.7846, -59.7906
5.74, 19, -17.4107, 25.0576, 30.4747, -67.6646, -56.9038, -59.7659
5.744, 19, -17.6165, 25.2222, 30.3373, -67.8471, -57.0225, -59.7434
5.748, 19, -17.8203, 25.3916, 30.1963, -68.0267, -57.1406, -59.7232
5.752, 19, -18.0222, 25.5657, 30.0516, -68.2036, -57.258, -59.7052
5.756, 19, -18.222, 25.7446, 29.9032, -68.3776, -57.3747, -59.6893
5.76, 19, -18.4198, 25.928, 29.7512, -68.5488, -57.4906, -59.6756
5.764, 19, -18.6154, 26.1161, 29.5957, -68.7171, -57.6057, -59.6639
5.768, 19, -18.8089, 26.3086, 29.4366, -68.8826, -57.72, -59.6543
5.772, 19, -19.0001, 26.5055, 29.274, -69.0453, -57.8334, -59.6466
5.776, 19, -19.1891, 26.7068, 29.1078, -69.2052, -57.9458, -59.6409
5.78, 19, -19.3758, 26.9124, 28.9382, -69.3622, -58.0573, -59.637
5.784, 19, -19.5602, 27.1222, 28.7652, -69.5165, -58.1677, -59.635
5.788, 19, -19.7423, 27.336, 28.5887, -69.6679, -58.2771, -59.6347
5.792, 19, -19.9221, 27.5539, 28.4089, -69.8165, -58.3854, -59.6362
5.796, 19, -20.0996, 27.7757, 28.2257, -69.9624, -58.4926, -59.6392
5.8, 19, -20.2747, 28.0012, 28.0393, -70.1055, -58.5987, -59.6439
5.804, 19, -20.4475, 28.2305, 27.8495, -70.2458, -58.7035, -59.6501
5.808, 19, -20.6179, 28.4635, 27.6566, -70.3835, -58.8072, -59.6577
5.812, 19, -20.786, 28.7, 27.4605, -70.5186, -58.9096, -59.6667
5.816, 19, -20.9516, 28.9401, 27.2614, -70.651, -59.0108, -59.6769
5.82, 19, -21.1149, 29.1835, 27.0592, -70.7809, -59.1107, -59.6884
5.824, 19, -21.2757, 29.4302, 26.854, -70.9083, -59.2093, -59.701
5.828, 19, -21.4342, 29.6802, 26.6459, -71.0333, -59.3067, -59.7146
5.832, 19, -21.5902, 29.9332, 26.4349, -71.1558, -59.4027, -59.7293
5.836, 19, -21.7438, 30.1893, 26.2211, -71.276, -59.4974, -59.7448
5.84, 19, -21.895, 30.4484, 26.0045, -71.3939, -59.5907, -59.7612
5.844, 19, -22.0439, 30.7103, 25.7851, -71.5094, -59.6828, -59.7783
5.848, 19, -22.1903, 30.9751, 25.5631, -71.6228, -59.7734, -59.7962
5.852, 19, -22.3344, 31.2425, 25.3384, -71.7339, -59.8628, -59.8148
5.856, 19, -22.4761, 31.5124, 25.111, -71.8429, -59.9507, -59.834
5.86, 19, -22.6156, 31.7848, 24.8811, -71.9496, -60.0373, -59.8537
5.864, 19, -22.7528, 32.0596, 24.6485, -72.0543, -60.1225, -59.874
5.868, 19, -22.8879, 32.3367, 24.4134, -72.1569, -60.2063, -59.8947
5.872, 19, -23.0207, 32.616, 24.1758, -72.2574, -60.2887, -59.9157
5.876, 19, -23.1513, 32.8973, 23.9357, -72.356, -60.3698, -59.9371
5.88, 19, -23.2796, 33.1807, 23.6933, -72.4526, -60.4495, -59.9588
5.884, 19, -23.4055, 33.4655, 23.4485, -72.5474, -60.5279, -59.9806
5.888, 19, -23.5289, 33.7515, 23.2017, -72.6403, -60.6049, -60.0026
5.892, 19, -23.6497, 34.0382, 22.9528, -72.7315, -60.6805, -60.0246
5.896, 19, -23.7678, 34.3253, 22.7021, -72.8209, -60.7548, -60.0465
5.9, 19, -23.8831, 34.6124, 22.4499, -72.9086, -60.8277, -60.0684
5.904, 19, -23.9957, 34.8993, 22.1964, -72.9945, -60.8992, -60.0901
5.908, 19, -24.1054, 35.186, 21.9419, -73.0786, -60.9692, -60.1116
5.912, 19, -24.2125, 35.4722, 21.6867, -73.1609, -61.0376, -60.1328
5.916, 19, -24.3168, 35.7579, 21.4312, -73.2413, -61.1044, -60.1536
5.92, 19, -24.4185, 36.0426, 21.1758, -73.3197, -61.1696, -60.1741
5.924, 19, -24.5175, 36.326, 20.9209, -73.3961, -61.2329, -60.1941
5.928, 19, -24.6139, 36.6076, 20.6669, -73.4704, -61.2944, -60.2136
5.932, 19, -24.7077, 36.887, 20.4143, -73.5425, -61.354, -60.2325
5.936, 19, -24.7991, 37.1639, 20.1635, -73.6124, -61.4117, -60.2508
5.94, 19, -24.888, 37.4382, 19.9148, -73.6802, -61.4674, -60.2685
5.944, 19, -24.9745, 37.7095, 19.6686, -73.7457, -61.5211, -60.2856
5.948, 19, -25.0585, 37.9776, 19.4253, -73.809, -61.5728, -60.3019
5.952, 19, -25.1402, 38.2421, 19.1851, -73.8702, -61.6225, -60.3175
5.956, 19, -25.2193, 38.5026, 18.9483, -73.9293, -61.6703, -60.3324
5.96, 19, -25.2958, 38.7589, 18.7152, -73.9863, -61.7162, -60.3465
5.964, 19, -25.3698, 39.0104, 18.4857, -74.0414, -61.7604, -60.3599
5.968, 19, -25.441, 39.2571, 18.2603, -74.0947, -61.8027, -60.3725
5.972, 19, -25.5096, 39.4987, 18.0389, -74.146, -61.8434, -60.3843
5.976, 19, -25.5757, 39.7351, 17.8216, -74.1957, -61.8825, -60.3955
5.98, 19, -25.6392, 39.9662, 17.6086, -74.2437, -61.92, -60.4059
