hehonglu123/Motion-Primitive-Planning/simulation/robotstudio_sim/scripts/fitting_output_new/Jon/curve_exe_v629_z10.csv
timestamp, cmd_num, J1, J2, J3, J4, J5, J6
0, 1, -0.804314, 64.433, 8.47718, 44.6, -96.4084, 169.856
0.002, 1, -0.804314, 64.433, 8.47718, 44.6, -96.4084, 169.856
0.004, 1, -0.804314, 64.433, 8.47718, 44.6, -96.4084, 169.856
0.008, 1, -0.804314, 64.433, 8.47718, 44.6, -96.4084, 169.856
0.011, 1, -0.804314, 64.433, 8.47718, 44.6, -96.4084, 169.856
0.016, 1, -0.804314, 64.433, 8.47718, 44.6, -96.4084, 169.856
0.02, 1, -0.804314, 64.433, 8.47718, 44.6, -96.4084, 169.856
0.024, 1, -0.804314, 64.433, 8.47718, 44.6, -96.4084, 169.856
0.028, 1, -0.804314, 64.433, 8.47718, 44.6, -96.4084, 169.856
0.032, 1, -0.804314, 64.433, 8.47718, 44.6, -96.4084, 169.856
0.036, 1, -0.804305, 64.433, 8.47718, 44.6, -96.4084, 169.856
0.04, 1, -0.804241, 64.433, 8.47718, 44.6, -96.4084, 169.856
0.044, 1, -0.804017, 64.4329, 8.4772, 44.6, -96.4084, 169.856
0.048, 1, -0.803489, 64.4328, 8.47724, 44.6, -96.4084, 169.856
0.052, 1, -0.802514, 64.4325, 8.47732, 44.5999, -96.4083, 169.856
0.056, 1, -0.800981, 64.4321, 8.47746, 44.5998, -96.4083, 169.855
0.06, 1, -0.798818, 64.4315, 8.47765, 44.5997, -96.4082, 169.854
0.064, 1, -0.795974, 64.4305, 8.4779, 44.5994, -96.408, 169.852
0.068, 1, -0.792418, 64.4293, 8.4782, 44.5988, -96.4076, 169.849
0.072, 1, -0.788102, 64.4276, 8.47855, 44.598, -96.407, 169.843
0.076, 1, -0.782933, 64.4256, 8.47893, 44.5968, -96.406, 169.834
0.08, 1, -0.776756, 64.423, 8.47932, 44.595, -96.4046, 169.821
0.084, 1, -0.76938, 64.4198, 8.47971, 44.5925, -96.4026, 169.804
0.088, 1, -0.760648, 64.4159, 8.48006, 44.5891, -96.3999, 169.779
0.092, 1, -0.750511, 64.4114, 8.48032, 44.5846, -96.3963, 169.747
0.096, 1, -0.739047, 64.4063, 8.48039, 44.5789, -96.3916, 169.706
0.1, 1, -0.726398, 64.4007, 8.4802, 44.5717, -96.3857, 169.654
0.104, 1, -0.712688, 64.3946, 8.47965, 44.563, -96.3784, 169.59
0.108, 1, -0.697984, 64.3881, 8.4787, 44.5524, -96.3696, 169.512
0.112, 1, -0.6823, 64.3812, 8.47731, 44.54, -96.3592, 169.421
0.116, 1, -0.665585, 64.3739, 8.47547, 44.5257, -96.3471, 169.316
0.12, 1, -0.647748, 64.3661, 8.4732, 44.5096, -96.3334, 169.197
0.124, 1, -0.6287, 64.3577, 8.47051, 44.4915, -96.3181, 169.064
0.128, 1, -0.60842, 64.3489, 8.46746, 44.4717, -96.3012, 168.917
0.131, 1, -0.586976, 64.3395, 8.46407, 44.4503, -96.283, 168.759
0.136, 1, -0.564484, 64.3296, 8.46039, 44.4273, -96.2635, 168.59
0.139, 1, -0.541022, 64.3193, 8.45646, 44.4031, -96.2429, 168.41
0.144, 1, -0.516567, 64.3084, 8.45237, 44.3777, -96.2213, 168.223
0.148, 1, -0.49102, 64.297, 8.44818, 44.3514, -96.1989, 168.029
0.152, 1, -0.464281, 64.2849, 8.44398, 44.3243, -96.1759, 167.829
0.156, 1, -0.436291, 64.2723, 8.43981, 44.2967, -96.1525, 167.625
0.16, 1, -0.407038, 64.2592, 8.43571, 44.2687, -96.1287, 167.418
0.164, 1, -0.376588, 64.2455, 8.4317, 44.2403, -96.1047, 167.21
0.168, 1, -0.34511, 64.2315, 8.42776, 44.2118, -96.0806, 166.999
0.172, 1, -0.312843, 64.2171, 8.42389, 44.1831, -96.0563, 166.788
0.176, 1, -0.280022, 64.2026, 8.42005, 44.1543, -96.0319, 166.576
0.18, 1, -0.246825, 64.188, 8.41625, 44.1254, -96.0076, 166.363
0.184, 1, -0.213374, 64.1732, 8.41246, 44.0965, -95.9831, 166.151
0.188, 1, -0.179753, 64.1584, 8.40869, 44.0676, -95.9587, 165.938
0.192, 1, -0.146018, 64.1436, 8.40493, 44.0387, -95.9342, 165.725
0.196, 1, -0.112206, 64.1287, 8.40118, 44.0097, -95.9098, 165.512
0.2, 1, -0.0783429, 64.1138, 8.39743, 43.9808, -95.8853, 165.299
0.204, 1, -0.0444467, 64.0989, 8.39368, 43.9518, -95.8609, 165.085
0.208, 1, -0.0105288, 64.084, 8.38993, 43.9228, -95.8364, 164.872
0.212, 1, 0.0234028, 64.0691, 8.38619, 43.8939, -95.8119, 164.659
0.216, 1, 0.0573428, 64.0542, 8.38245, 43.8649, -95.7875, 164.446
0.22, 1, 0.0912874, 64.0393, 8.37871, 43.8359, -95.763, 164.233
0.224, 1, 0.125234, 64.0244, 8.37497, 43.807, -95.7385, 164.019
0.228, 1, 0.159182, 64.0094, 8.37123, 43.778, -95.7141, 163.806
0.232, 1, 0.193129, 63.9945, 8.36749, 43.749, -95.6896, 163.593
0.236, 1, 0.227075, 63.9796, 8.36375, 43.7201, -95.6652, 163.38
0.24, 1, 0.261019, 63.9647, 8.36001, 43.6911, -95.6407, 163.167
0.244, 1, 0.294961, 63.9498, 8.35627, 43.6622, -95.6162, 162.954
0.248, 1, 0.328901, 63.9349, 8.35253, 43.6332, -95.5918, 162.741
0.252, 1, 0.362839, 63.9199, 8.34879, 43.6043, -95.5673, 162.528
0.256, 1, 0.396774, 63.905, 8.34506, 43.5753, -95.5429, 162.315
0.26, 1, 0.430708, 63.8901, 8.34132, 43.5464, -95.5184, 162.102
0.264, 1, 0.464638, 63.8752, 8.33758, 43.5175, -95.494, 161.889
0.268, 1, 0.498567, 63.8603, 8.33385, 43.4885, -95.4696, 161.676
0.272, 1, 0.532493, 63.8454, 8.33011, 43.4596, -95.4451, 161.463
0.276, 1, 0.566417, 63.8305, 8.32637, 43.4306, -95.4207, 161.25
0.28, 1, 0.600338, 63.8156, 8.32264, 43.4017, -95.3962, 161.037
0.284, 1, 0.634258, 63.8007, 8.3189, 43.3728, -95.3718, 160.824
0.288, 1, 0.668175, 63.7858, 8.31517, 43.3438, -95.3474, 160.611
0.292, 1, 0.702091, 63.7709, 8.31143, 43.3149, -95.3229, 160.398
0.296, 1, 0.736004, 63.756, 8.3077, 43.286, -95.2985, 160.185
0.3, 1, 0.769915, 63.7411, 8.30396, 43.2571, -95.274, 159.972
0.304, 1, 0.803825, 63.7262, 8.30023, 43.2281, -95.2496, 159.759
0.308, 1, 0.837732, 63.7113, 8.29649, 43.1992, -95.2252, 159.546
0.312, 1, 0.871638, 63.6964, 8.29276, 43.1703, -95.2008, 159.334
0.316, 1, 0.905541, 63.6815, 8.28903, 43.1414, -95.1763, 159.121
0.32, 1, 0.939443, 63.6666, 8.28529, 43.1125, -95.1519, 158.908
0.324, 1, 0.973343, 63.6517, 8.28156, 43.0835, -95.1275, 158.695
0.328, 1, 1.00724, 63.6368, 8.27783, 43.0546, -95.1031, 158.482
0.332, 1, 1.04114, 63.6219, 8.27409, 43.0257, -95.0787, 158.27
0.336, 1, 1.07503, 63.607, 8.27036, 42.9968, -95.0542, 158.057
0.34, 1, 1.10893, 63.5921, 8.26663, 42.9679, -95.0298, 157.844
0.344, 1, 1.14282, 63.5772, 8.26289, 42.939, -95.0054, 157.631
0.348, 1, 1.17671, 63.5623, 8.25916, 42.9101, -94.981, 157.418
0.352, 1, 1.2106, 63.5474, 8.25543, 42.8812, -94.9566, 157.206
0.356, 1, 1.24449, 63.5325, 8.2517, 42.8523, -94.9321, 156.993
0.36, 1, 1.27837, 63.5177, 8.24796, 42.8234, -94.9077, 156.78
0.364, 1, 1.31226, 63.5028, 8.24423, 42.7945, -94.8833, 156.568
0.368, 1, 1.34614, 63.4879, 8.2405, 42.7656, -94.8589, 156.355
0.372, 1, 1.38003, 63.473, 8.23677, 42.7367, -94.8345, 156.142
0.376, 1, 1.41391, 63.4581, 8.23304, 42.7078, -94.8101, 155.929
0.38, 1, 1.44779, 63.4432, 8.22931, 42.6789, -94.7857, 155.717
0.384, 1, 1.48167, 63.4283, 8.22557, 42.65, -94.7613, 155.504
0.388, 1, 1.51555, 63.4134, 8.22184, 42.6211, -94.7369, 155.291
0.392, 1, 1.54943, 63.3985, 8.21811, 42.5922, -94.7124, 155.079
0.396, 1, 1.58331, 63.3837, 8.21438, 42.5633, -94.688, 154.866
0.4, 1, 1.61719, 63.3688, 8.21065, 42.5344, -94.6636, 154.653
0.404, 1, 1.65106, 63.3539, 8.20692, 42.5055, -94.6392, 154.441
0.408, 1, 1.68494, 63.339, 8.20319, 42.4766, -94.6148, 154.228
0.412, 1, 1.71882, 63.3241, 8.19946, 42.4477, -94.5904, 154.015
0.416, 1, 1.75269, 63.3092, 8.19573, 42.4188, -94.566, 153.803
0.42, 1, 1.78657, 63.2943, 8.192, 42.3899, -94.5416, 153.59
0.424, 1, 1.82044, 63.2795, 8.18827, 42.361, -94.5172, 153.377
0.428, 1, 1.85431, 63.2646, 8.18454, 42.3321, -94.4928, 153.165
0.432, 1, 1.88819, 63.2497, 8.18081, 42.3032, -94.4684, 152.952
0.436, 1, 1.92206, 63.2348, 8.17708, 42.2743, -94.444, 152.739
0.44, 1, 1.95593, 63.2199, 8.17335, 42.2454, -94.4196, 152.527
0.444, 1, 1.98981, 63.205, 8.16961, 42.2165, -94.3952, 152.314
0.448, 1, 2.02368, 63.1902, 8.16588, 42.1876, -94.3708, 152.101
0.452, 1, 2.05755, 63.1753, 8.16215, 42.1587, -94.3464, 151.889
0.456, 1, 2.09142, 63.1604, 8.15842, 42.1299, -94.322, 151.676
0.46, 1, 2.12529, 63.1455, 8.15469, 42.101, -94.2976, 151.463
0.464, 1, 2.15917, 63.1306, 8.15096, 42.0721, -94.2731, 151.251
0.468, 1, 2.19304, 63.1157, 8.14723, 42.0432, -94.2487, 151.038
0.472, 1, 2.22691, 63.1009, 8.1435, 42.0143, -94.2243, 150.826
0.476, 1, 2.26078, 63.086, 8.13977, 41.9854, -94.1999, 150.613
0.48, 1, 2.29466, 63.0711, 8.13604, 41.9565, -94.1755, 150.4
0.484, 1, 2.32853, 63.0562, 8.13231, 41.9276, -94.1511, 150.188
0.488, 1, 2.3624, 63.0413, 8.12858, 41.8987, -94.1267, 149.975
0.492, 1, 2.39628, 63.0264, 8.12485, 41.8698, -94.1023, 149.762
0.496, 1, 2.43015, 63.0115, 8.12112, 41.8409, -94.0779, 149.55
0.5, 1, 2.46403, 62.9967, 8.11739, 41.812, -94.0535, 149.337
0.504, 1, 2.4979, 62.9818, 8.11366, 41.7831, -94.0291, 149.124
0.508, 1, 2.53178, 62.9669, 8.10993, 41.7542, -94.0047, 148.912
0.512, 1, 2.56565, 62.952, 8.1062, 41.7254, -93.9803, 148.699
0.516, 1, 2.59953, 62.9371, 8.10246, 41.6965, -93.9559, 148.486
0.52, 1, 2.63341, 62.9222, 8.09873, 41.6676, -93.9315, 148.274
0.524, 1, 2.66729, 62.9073, 8.095, 41.6387, -93.9071, 148.061
0.528, 1, 2.70117, 62.8925, 8.09127, 41.6098, -93.8827, 147.848
0.532, 1, 2.73505, 62.8776, 8.08754, 41.5809, -93.8582, 147.636
0.536, 1, 2.76893, 62.8627, 8.08381, 41.552, -93.8338, 147.423
0.54, 1, 2.80281, 62.8478, 8.08008, 41.5231, -93.8094, 147.21
0.544, 1, 2.8367, 62.8329, 8.07635, 41.4942, -93.785, 146.997
0.548, 1, 2.87058, 62.818, 8.07261, 41.4653, -93.7606, 146.785
0.552, 1, 2.90447, 62.8031, 8.06888, 41.4364, -93.7362, 146.572
0.556, 1, 2.93835, 62.7882, 8.06515, 41.4075, -93.7118, 146.359
0.56, 1, 2.97224, 62.7733, 8.06142, 41.3785, -93.6874, 146.147
0.564, 1, 3.00613, 62.7585, 8.05769, 41.3496, -93.6629, 145.934
0.568, 1, 3.04002, 62.7436, 8.05395, 41.3207, -93.6385, 145.721
0.572, 1, 3.07391, 62.7287, 8.05022, 41.2918, -93.6141, 145.508
0.576, 1, 3.10781, 62.7138, 8.04649, 41.2629, -93.5897, 145.296
0.58, 1, 3.1417, 62.6989, 8.04276, 41.234, -93.5653, 145.083
0.584, 1, 3.1756, 62.684, 8.03902, 41.2051, -93.5409, 144.87
0.588, 1, 3.2095, 62.6691, 8.03529, 41.1762, -93.5164, 144.657
0.592, 1, 3.2434, 62.6542, 8.03156, 41.1473, -93.492, 144.444
0.596, 1, 3.2773, 62.6393, 8.02782, 41.1183, -93.4676, 144.232
0.6, 1, 3.3112, 62.6244, 8.02409, 41.0894, -93.4432, 144.019
0.604, 1, 3.34511, 62.6095, 8.02036, 41.0605, -93.4187, 143.806
0.608, 1, 3.37901, 62.5946, 8.01662, 41.0316, -93.3943, 143.593
0.612, 1, 3.41292, 62.5797, 8.01289, 41.0027, -93.3699, 143.38
0.616, 1, 3.44683, 62.5648, 8.00915, 40.9737, -93.3454, 143.167
0.62, 1, 3.48074, 62.5499, 8.00542, 40.9448, -93.321, 142.954
0.624, 1, 3.51466, 62.535, 8.00168, 40.9159, -93.2966, 142.741
0.628, 1, 3.54858, 62.5201, 7.99795, 40.887, -93.2721, 142.529
0.632, 1, 3.58249, 62.5052, 7.99421, 40.858, -93.2477, 142.316
0.636, 1, 3.61642, 62.4903, 7.99048, 40.8291, -93.2233, 142.103
0.64, 1, 3.65034, 62.4754, 7.98674, 40.8002, -93.1988, 141.89
0.644, 1, 3.68426, 62.4605, 7.983, 40.7712, -93.1744, 141.677
0.648, 1, 3.71819, 62.4456, 7.97927, 40.7423, -93.1499, 141.464
0.652, 1, 3.75212, 62.4307, 7.97553, 40.7133, -93.1255, 141.251
0.656, 1, 3.78605, 62.4157, 7.97179, 40.6844, -93.101, 141.038
0.66, 1, 3.81999, 62.4008, 7.96806, 40.6554, -93.0766, 140.825
0.664, 1, 3.85393, 62.3859, 7.96432, 40.6265, -93.0521, 140.612
0.668, 1, 3.88787, 62.371, 7.96058, 40.5975, -93.0277, 140.399
0.672, 1, 3.92181, 62.3561, 7.95684, 40.5686, -93.0032, 140.185
0.676, 1, 3.95575, 62.3412, 7.9531, 40.5396, -92.9788, 139.972
0.68, 1, 3.9897, 62.3263, 7.94937, 40.5107, -92.9543, 139.759
0.684, 1, 4.02365, 62.3113, 7.94563, 40.4817, -92.9299, 139.546
0.688, 1, 4.05761, 62.2964, 7.94189, 40.4528, -92.9054, 139.333
0.692, 1, 4.09156, 62.2815, 7.93815, 40.4238, -92.8809, 139.12
0.696, 1, 4.12552, 62.2666, 7.93441, 40.3948, -92.8565, 138.907
0.7, 1, 4.15948, 62.2517, 7.93067, 40.3659, -92.832, 138.693
0.704, 1, 4.19345, 62.2367, 7.92693, 40.3369, -92.8075, 138.48
0.708, 1, 4.22742, 62.2218, 7.92319, 40.3079, -92.7831, 138.267
0.712, 1, 4.26139, 62.2069, 7.91945, 40.2789, -92.7586, 138.054
0.716, 1, 4.29536, 62.1919, 7.9157, 40.25, -92.7341, 137.84
0.72, 1, 4.32934, 62.177, 7.91196, 40.221, -92.7096, 137.627
0.724, 1, 4.36332, 62.1621, 7.90822, 40.192, -92.6851, 137.414
0.728, 1, 4.39731, 62.1472, 7.90448, 40.163, -92.6607, 137.2
0.732, 1, 4.43129, 62.1322, 7.90073, 40.134, -92.6362, 136.987
0.736, 1, 4.46529, 62.1173, 7.89699, 40.105, -92.6117, 136.774
0.74, 1, 4.49928, 62.1023, 7.89325, 40.076, -92.5872, 136.56
0.744, 1, 4.53328, 62.0874, 7.8895, 40.047, -92.5627, 136.347
0.748, 1, 4.56728, 62.0725, 7.88576, 40.018, -92.5382, 136.133
0.752, 1, 4.60128, 62.0575, 7.88201, 39.989, -92.5137, 135.92
0.756, 1, 4.63529, 62.0426, 7.87827, 39.96, -92.4892, 135.706
0.76, 1, 4.6693, 62.0276, 7.87452, 39.931, -92.4647, 135.493
0.764, 1, 4.70332, 62.0127, 7.87078, 39.902, -92.4402, 135.279
0.768, 1, 4.73734, 61.9977, 7.86703, 39.873, -92.4157, 135.066
0.772, 1, 4.77136, 61.9828, 7.86328, 39.844, -92.3912, 134.852
0.776, 1, 4.80539, 61.9678, 7.85954, 39.8149, -92.3666, 134.639
0.78, 1, 4.83942, 61.9529, 7.85579, 39.7859, -92.3421, 134.425
0.784, 1, 4.87345, 61.9379, 7.85204, 39.7569, -92.3176, 134.211
0.788, 1, 4.90749, 61.923, 7.84829, 39.7278, -92.2931, 133.998
0.792, 1, 4.94154, 61.908, 7.84454, 39.6988, -92.2686, 133.784
0.796, 1, 4.97558, 61.8931, 7.84079, 39.6698, -92.244, 133.57
0.8, 1, 5.00963, 61.8781, 7.83704, 39.6407, -92.2195, 133.356
0.804, 1, 5.04369, 61.8631, 7.83329, 39.6117, -92.195, 133.143
0.808, 1, 5.07775, 61.8482, 7.82954, 39.5826, -92.1704, 132.929
0.812, 1, 5.11181, 61.8332, 7.82579, 39.5536, -92.1459, 132.715
0.816, 1, 5.14588, 61.8182, 7.82204, 39.5245, -92.1213, 132.501
0.82, 1, 5.17996, 61.8032, 7.81828, 39.4954, -92.0968, 132.287
0.824, 1, 5.21403, 61.7883, 7.81453, 39.4664, -92.0722, 132.073
0.828, 1, 5.24811, 61.7733, 7.81078, 39.4373, -92.0477, 131.859
0.832, 1, 5.2822, 61.7583, 7.80702, 39.4082, -92.0231, 131.645
0.836, 1, 5.31629, 61.7433, 7.80327, 39.3791, -91.9986, 131.431
0.84, 1, 5.35039, 61.7284, 7.79951, 39.3501, -91.974, 131.217
0.844, 1, 5.38449, 61.7134, 7.79576, 39.321, -91.9494, 131.003
0.848, 1, 5.41859, 61.6984, 7.792, 39.2919, -91.9249, 130.789
0.852, 1, 5.4527, 61.6834, 7.78825, 39.2628, -91.9003, 130.575
0.856, 1, 5.48682, 61.6684, 7.78449, 39.2337, -91.8757, 130.361
0.86, 1, 5.52094, 61.6534, 7.78073, 39.2046, -91.8511, 130.147
0.864, 1, 5.55506, 61.6384, 7.77697, 39.1755, -91.8265, 129.932
0.868, 1, 5.58919, 61.6234, 7.77322, 39.1464, -91.8019, 129.718
0.872, 1, 5.62333, 61.6084, 7.76946, 39.1173, -91.7774, 129.504
0.876, 1, 5.65747, 61.5934, 7.7657, 39.0881, -91.7528, 129.289
0.88, 1, 5.69161, 61.5784, 7.76194, 39.059, -91.7282, 129.075
0.884, 1, 5.72576, 61.5634, 7.75818, 39.0299, -91.7036, 128.861
0.888, 1, 5.75991, 61.5484, 7.75441, 39.0008, -91.6789, 128.646
0.892, 1, 5.79407, 61.5334, 7.75065, 38.9716, -91.6543, 128.432
0.896, 1, 5.82824, 61.5184, 7.74689, 38.9425, -91.6297, 128.217
0.9, 1, 5.86241, 61.5034, 7.74313, 38.9133, -91.6051, 128.003
0.904, 1, 5.89659, 61.4883, 7.73936, 38.8842, -91.5805, 127.788
0.908, 1, 5.93077, 61.4733, 7.7356, 38.855, -91.5559, 127.574
0.912, 1, 5.96496, 61.4583, 7.73183, 38.8259, -91.5312, 127.359
0.916, 1, 5.99915, 61.4433, 7.72807, 38.7967, -91.5066, 127.144
0.92, 1, 6.03335, 61.4283, 7.7243, 38.7675, -91.4819, 126.93
0.924, 1, 6.06755, 61.4132, 7.72053, 38.7383, -91.4573, 126.715
0.928, 1, 6.10177, 61.3982, 7.71677, 38.7092, -91.4327, 126.5
0.932, 1, 6.13598, 61.3832, 7.713, 38.68, -91.408, 126.285
0.936, 1, 6.1702, 61.3681, 7.70923, 38.6508, -91.3833, 126.071
0.94, 1, 6.20443, 61.3531, 7.70546, 38.6216, -91.3587, 125.856
0.944, 1, 6.23866, 61.338, 7.70169, 38.5924, -91.334, 125.641
0.948, 1, 6.2729, 61.323, 7.69792, 38.5632, -91.3094, 125.426
0.952, 1, 6.30715, 61.3079, 7.69415, 38.534, -91.2847, 125.211
0.956, 1, 6.3414, 61.2929, 7.69038, 38.5048, -91.26, 124.996
0.96, 1, 6.37566, 61.2778, 7.6866, 38.4755, -91.2353, 124.781
0.964, 1, 6.40992, 61.2628, 7.68283, 38.4463, -91.2106, 124.566
0.968, 1, 6.44419, 61.2477, 7.67906, 38.4171, -91.186, 124.351
0.972, 1, 6.47847, 61.2327, 7.67528, 38.3878, -91.1612, 124.135
0.976, 1, 6.51275, 61.2176, 7.6715, 38.3586, -91.1365, 123.92
0.98, 1, 6.54704, 61.2025, 7.66773, 38.3294, -91.1118, 123.705
0.984, 1, 6.58134, 61.1875, 7.66395, 38.3001, -91.0871, 123.49
0.988, 1, 6.61564, 61.1724, 7.66017, 38.2708, -91.0624, 123.274
0.992, 1, 6.64995, 61.1573, 7.6564, 38.2416, -91.0377, 123.059
0.996, 1, 6.68426, 61.1422, 7.65262, 38.2123, -91.013, 122.843
1, 1, 6.71858, 61.1272, 7.64884, 38.183, -90.9883, 122.628
1.004, 1, 6.75291, 61.1121, 7.64506, 38.1538, -90.9635, 122.412
1.008, 1, 6.78724, 61.097, 7.64128, 38.1245, -90.9388, 122.197
1.012, 1, 6.82159, 61.0819, 7.63749, 38.0952, -90.914, 121.981
1.016, 1, 6.85593, 61.0668, 7.63371, 38.0659, -90.8893, 121.766
1.02, 1, 6.89029, 61.0517, 7.62993, 38.0366, -90.8646, 121.55
1.024, 1, 6.92465, 61.0366, 7.62614, 38.0073, -90.8398, 121.334
1.027, 1, 6.95902, 61.0215, 7.62236, 37.978, -90.815, 121.119
1.032, 1, 6.99339, 61.0064, 7.61857, 37.9486, -90.7903, 120.903
1.036, 1, 7.02778, 60.9913, 7.61479, 37.9193, -90.7655, 120.687
1.04, 1, 7.06217, 60.9762, 7.611, 37.89, -90.7407, 120.471
1.044, 1, 7.09656, 60.9611, 7.60721, 37.8606, -90.7159, 120.255
1.048, 1, 7.13097, 60.9459, 7.60342, 37.8313, -90.6911, 120.039
1.052, 1, 7.16538, 60.9308, 7.59963, 37.8019, -90.6664, 119.823
1.055, 1, 7.1998, 60.9157, 7.59584, 37.7726, -90.6416, 119.607
1.06, 1, 7.23422, 60.9006, 7.59205, 37.7432, -90.6168, 119.391
1.064, 1, 7.26865, 60.8854, 7.58826, 37.7138, -90.5919, 119.175
1.068, 1, 7.30309, 60.8703, 7.58447, 37.6845, -90.5671, 118.959
1.072, 1, 7.33754, 60.8552, 7.58067, 37.6551, -90.5423, 118.742
1.076, 1, 7.372, 60.84, 7.57688, 37.6257, -90.5175, 118.526
1.08, 1, 7.40646, 60.8249, 7.57308, 37.5963, -90.4927, 118.31
1.084, 1, 7.44093, 60.8097, 7.56929, 37.5669, -90.4678, 118.093
1.088, 1, 7.47541, 60.7946, 7.56549, 37.5375, -90.443, 117.877
1.091, 1, 7.50989, 60.7794, 7.56169, 37.5081, -90.4181, 117.66
1.096, 1, 7.54439, 60.7643, 7.55789, 37.4786, -90.3933, 117.444
1.1, 1, 7.57889, 60.7491, 7.55409, 37.4492, -90.3684, 117.227
1.104, 1, 7.6134, 60.734, 7.55029, 37.4198, -90.3436, 117.011
1.108, 1, 7.64791, 60.7188, 7.54649, 37.3903, -90.3187, 116.794
1.112, 1, 7.68244, 60.7036, 7.54269, 37.3609, -90.2938, 116.577
1.116, 1, 7.71697, 60.6884, 7.53889, 37.3314, -90.269, 116.36
1.119, 1, 7.75151, 60.6733, 7.53508, 37.302, -90.2441, 116.144
1.124, 1, 7.78606, 60.6581, 7.53128, 37.2725, -90.2192, 115.927
1.128, 1, 7.82062, 60.6429, 7.52747, 37.243, -90.1943, 115.71
1.132, 1, 7.85518, 60.6277, 7.52367, 37.2135, -90.1694, 115.493
1.136, 1, 7.88976, 60.6125, 7.51986, 37.1841, -90.1445, 115.276
1.14, 1, 7.92434, 60.5973, 7.51605, 37.1546, -90.1196, 115.059
1.144, 1, 7.95893, 60.5821, 7.51224, 37.1251, -90.0946, 114.841
1.147, 1, 7.99353, 60.5669, 7.50843, 37.0955, -90.0697, 114.624
1.152, 1, 8.02813, 60.5517, 7.50462, 37.066, -90.0448, 114.407
1.156, 1, 8.06275, 60.5365, 7.50081, 37.0365, -90.0198, 114.19
1.16, 1, 8.09737, 60.5213, 7.49699, 37.007, -89.9949, 113.972
1.164, 1, 8.132, 60.5061, 7.49318, 36.9774, -89.9699, 113.755
1.168, 1, 8.16664, 60.4909, 7.48937, 36.9479, -89.945, 113.537
1.172, 1, 8.20129, 60.4756, 7.48555, 36.9183, -89.92, 113.32
1.175, 1, 8.23595, 60.4604, 7.48173, 36.8888, -89.8951, 113.102
1.18, 1, 8.27062, 60.4452, 7.47791, 36.8592, -89.8701, 112.885
1.184, 1, 8.30529, 60.4299, 7.4741, 36.8296, -89.8451, 112.667
1.188, 1, 8.33998, 60.4147, 7.47028, 36.8, -89.8201, 112.449
1.192, 1, 8.37467, 60.3994, 7.46645, 36.7704, -89.7951, 112.231
1.196, 1, 8.40938, 60.3842, 7.46263, 36.7408, -89.7701, 112.014
1.2, 1, 8.44409, 60.3689, 7.45881, 36.7112, -89.7451, 111.796
1.204, 1, 8.47881, 60.3537, 7.45499, 36.6816, -89.7201, 111.578
1.208, 1, 8.51354, 60.3384, 7.45116, 36.652, -89.6951, 111.36
1.212, 1, 8.54828, 60.3232, 7.44734, 36.6224, -89.67, 111.142
1.216, 1, 8.58302, 60.3079, 7.44351, 36.5927, -89.645, 110.923
1.22, 1, 8.61778, 60.2926, 7.43968, 36.5631, -89.6199, 110.705
1.224, 1, 8.65255, 60.2773, 7.43585, 36.5334, -89.5949, 110.487
1.228, 1, 8.68732, 60.2621, 7.43202, 36.5038, -89.5698, 110.269
1.232, 1, 8.72211, 60.2468, 7.42819, 36.4741, -89.5448, 110.05
1.236, 1, 8.7569, 60.2315, 7.42436, 36.4444, -89.5197, 109.832
1.24, 1, 8.79171, 60.2162, 7.42053, 36.4147, -89.4946, 109.613
1.244, 1, 8.82652, 60.2009, 7.41669, 36.385, -89.4696, 109.395
1.248, 1, 8.86134, 60.1856, 7.41286, 36.3553, -89.4445, 109.176
1.252, 1, 8.89617, 60.1703, 7.40902, 36.3256, -89.4194, 108.958
1.256, 1, 8.93102, 60.155, 7.40519, 36.2959, -89.3943, 108.739
1.26, 1, 8.96587, 60.1397, 7.40135, 36.2662, -89.3692, 108.52
1.264, 1, 9.00073, 60.1243, 7.39751, 36.2364, -89.344, 108.301
1.267, 1, 9.0356, 60.109, 7.39367, 36.2067, -89.3189, 108.082
1.272, 1, 9.07048, 60.0937, 7.38983, 36.1769, -89.2938, 107.863
1.276, 1, 9.10537, 60.0784, 7.38598, 36.1472, -89.2687, 107.644
1.28, 1, 9.14027, 60.063, 7.38214, 36.1174, -89.2435, 107.425
1.284, 1, 9.17518, 60.0477, 7.3783, 36.0876, -89.2184, 107.206
1.288, 1, 9.2101, 60.0323, 7.37445, 36.0578, -89.1932, 106.987
1.292, 1, 9.24504, 60.017, 7.3706, 36.028, -89.168, 106.768
1.295, 1, 9.27998, 60.0016, 7.36676, 35.9982, -89.1429, 106.548
1.3, 1, 9.31493, 59.9863, 7.36291, 35.9684, -89.1177, 106.329
1.304, 1, 9.34989, 59.9709, 7.35906, 35.9386, -89.0925, 106.109
1.308, 1, 9.38486, 59.9555, 7.3552, 35.9088, -89.0673, 105.89
1.312, 1, 9.41984, 59.9402, 7.35135, 35.8789, -89.0421, 105.67
1.316, 1, 9.45483, 59.9248, 7.3475, 35.8491, -89.0169, 105.45
1.32, 1, 9.48983, 59.9094, 7.34364, 35.8192, -88.9917, 105.231
1.324, 1, 9.52485, 59.894, 7.33979, 35.7894, -88.9664, 105.011
1.328, 1, 9.55987, 59.8786, 7.33593, 35.7595, -88.9412, 104.791
1.332, 1, 9.5949, 59.8633, 7.33207, 35.7296, -88.916, 104.571
1.336, 1, 9.62995, 59.8479, 7.32821, 35.6997, -88.8907, 104.351
1.34, 1, 9.665, 59.8325, 7.32435, 35.6698, -88.8655, 104.131
1.344, 1, 9.70007, 59.817, 7.32049, 35.6399, -88.8402, 103.911
1.348, 1, 9.73514, 59.8016, 7.31663, 35.61, -88.8149, 103.691
1.352, 1, 9.77023, 59.7862, 7.31276, 35.5801, -88.7896, 103.47
1.356, 1, 9.80533, 59.7708, 7.3089, 35.5501, -88.7644, 103.25
1.36, 1, 9.84043, 59.7554, 7.30503, 35.5202, -88.7391, 103.03
1.364, 1, 9.87555, 59.7399, 7.30117, 35.4902, -88.7138, 102.809
1.368, 1, 9.91068, 59.7245, 7.2973, 35.4603, -88.6884, 102.589
1.372, 1, 9.94582, 59.709, 7.29343, 35.4303, -88.6631, 102.368
1.376, 1, 9.98098, 59.6936, 7.28956, 35.4003, -88.6378, 102.147
1.38, 1, 10.0161, 59.6782, 7.28568, 35.3703, -88.6125, 101.927
1.384, 1, 10.0513, 59.6627, 7.28181, 35.3403, -88.5871, 101.706
1.388, 1, 10.0865, 59.6472, 7.27793, 35.3103, -88.5618, 101.485
1.392, 1, 10.1217, 59.6318, 7.27406, 35.2803, -88.5364, 101.264
1.396, 1, 10.1569, 59.6163, 7.27018, 35.2502, -88.5111, 101.043
1.4, 1, 10.1921, 59.6008, 7.2663, 35.2202, -88.4857, 100.822
1.404, 1, 10.2274, 59.5853, 7.26242, 35.1902, -88.4603, 100.601
1.408, 1, 10.2626, 59.5699, 7.25854, 35.1601, -88.4349, 100.38
1.412, 1, 10.2979, 59.5544, 7.25466, 35.13, -88.4095, 100.158
1.416, 1, 10.3331, 59.5389, 7.25078, 35.0999, -88.3841, 99.9368
1.42, 1, 10.3684, 59.5234, 7.24689, 35.0699, -88.3587, 99.7153
1.424, 1, 10.4037, 59.5079, 7.243, 35.0397, -88.3333, 99.4938
1.428, 1, 10.439, 59.4923, 7.23912, 35.0096, -88.3078, 99.2722
1.432, 1, 10.4743, 59.4768, 7.23523, 34.9795, -88.2824, 99.0505
1.436, 1, 10.5096, 59.4613, 7.23134, 34.9494, -88.2569, 98.8288
1.44, 1, 10.5449, 59.4458, 7.22745, 34.9193, -88.2315, 98.6069
1.444, 1, 10.5803, 59.4303, 7.22355, 34.8891, -88.206, 98.385
1.448, 1, 10.6157, 59.4147, 7.21966, 34.8589, -88.1805, 98.1631
1.452, 1, 10.651, 59.3992, 7.21576, 34.8288, -88.1551, 97.941
1.456, 1, 10.6864, 59.3836, 7.21187, 34.7986, -88.1296, 97.7189
1.46, 1, 10.7218, 59.3681, 7.20797, 34.7684, -88.1041, 97.4967
1.464, 1, 10.7572, 59.3525, 7.20407, 34.7382, -88.0786, 97.2744
1.468, 1, 10.7926, 59.337, 7.20017, 34.708, -88.053, 97.0521
1.472, 1, 10.8281, 59.3214, 7.19627, 34.6778, -88.0275, 96.8296
1.476, 1, 10.8635, 59.3058, 7.19237, 34.6475, -88.002, 96.6071
1.48, 1, 10.899, 59.2902, 7.18846, 34.6173, -87.9764, 96.3846
1.484, 1, 10.9344, 59.2746, 7.18455, 34.587, -87.9509, 96.1619
1.488, 1, 10.9699, 59.2591, 7.18065, 34.5568, -87.9253, 95.9392
1.492, 1, 11.0054, 59.2435, 7.17674, 34.5265, -87.8997, 95.7164
1.496, 1, 11.0409, 59.2279, 7.17283, 34.4962, -87.8742, 95.4935
1.5, 1, 11.0764, 59.2122, 7.16892, 34.4659, -87.8486, 95.2705
1.504, 1, 11.1119, 59.1966, 7.165, 34.4356, -87.823, 95.0475
1.508, 1, 11.1475, 59.181, 7.16109, 34.4053, -87.7974, 94.8243
1.512, 1, 11.183, 59.1654, 7.15717, 34.375, -87.7718, 94.6011
1.516, 1, 11.2186, 59.1498, 7.15326, 34.3446, -87.7461, 94.3779
1.52, 1, 11.2542, 59.1341, 7.14934, 34.3143, -87.7205, 94.1545
1.524, 1, 11.2898, 59.1185, 7.14542, 34.2839, -87.6949, 93.9311
1.528, 1, 11.3254, 59.1028, 7.1415, 34.2536, -87.6692, 93.7075
1.532, 1, 11.361, 59.0872, 7.13758, 34.2232, -87.6435, 93.4839
1.536, 1, 11.3966, 59.0715, 7.13365, 34.1928, -87.6179, 93.2603
1.54, 1, 11.4323, 59.0559, 7.12973, 34.1624, -87.5922, 93.0365
1.544, 1, 11.4679, 59.0402, 7.1258, 34.132, -87.5665, 92.8127
1.548, 1, 11.5036, 59.0245, 7.12187, 34.1015, -87.5408, 92.5888
1.552, 1, 11.5393, 59.0089, 7.11794, 34.0711, -87.5151, 92.3648
1.556, 1, 11.575, 58.9932, 7.11401, 34.0407, -87.4894, 92.1407
1.56, 1, 11.6107, 58.9775, 7.11008, 34.0102, -87.4637, 91.9165
1.564, 1, 11.6464, 58.9618, 7.10615, 33.9797, -87.4379, 91.6923
1.568, 1, 11.6821, 58.9461, 7.10221, 33.9493, -87.4122, 91.4679
1.572, 1, 11.7179, 58.9304, 7.09827, 33.9188, -87.3864, 91.2435
1.576, 1, 11.7536, 58.9147, 7.09434, 33.8883, -87.3607, 91.0191
1.58, 1, 11.7894, 58.8989, 7.0904, 33.8578, -87.3349, 90.7945
1.584, 1, 11.8252, 58.8832, 7.08646, 33.8272, -87.3091, 90.5698
1.588, 1, 11.861, 58.8675, 7.08251, 33.7967, -87.2833, 90.3451
1.592, 1, 11.8968, 58.8518, 7.07857, 33.7661, -87.2575, 90.1203
1.596, 1, 11.9326, 58.836, 7.07462, 33.7356, -87.2317, 89.8954
1.6, 1, 11.9685, 58.8203, 7.07068, 33.705, -87.2059, 89.6704
1.604, 1, 12.0043, 58.8045, 7.06673, 33.6744, -87.1801, 89.4453
1.608, 1, 12.0402, 58.7887, 7.06278, 33.6438, -87.1542, 89.2201
1.612, 1, 12.0761, 58.773, 7.05883, 33.6132, -87.1284, 88.9949
1.616, 1, 12.1119, 58.7572, 7.05487, 33.5826, -87.1025, 88.7695
1.62, 1, 12.1479, 58.7414, 7.05092, 33.552, -87.0766, 88.5441
1.624, 1, 12.1838, 58.7257, 7.04696, 33.5214, -87.0508, 88.3186
1.628, 1, 12.2197, 58.7099, 7.04301, 33.4907, -87.0249, 88.093
1.632, 1, 12.2557, 58.6941, 7.03905, 33.46, -86.999, 87.8674
1.636, 1, 12.2916, 58.6783, 7.03509, 33.4294, -86.9731, 87.6416
1.64, 1, 12.3276, 58.6625, 7.03113, 33.3987, -86.9471, 87.4158
1.644, 1, 12.3636, 58.6466, 7.02716, 33.368, -86.9212, 87.1898
1.648, 1, 12.3996, 58.6308, 7.0232, 33.3373, -86.8953, 86.9638
1.652, 1, 12.4356, 58.615, 7.01923, 33.3066, -86.8693, 86.7377
1.656, 1, 12.4716, 58.5992, 7.01526, 33.2758, -86.8434, 86.5115
1.66, 1, 12.5077, 58.5833, 7.01129, 33.2451, -86.8174, 86.2852
1.664, 1, 12.5437, 58.5675, 7.00732, 33.2143, -86.7914, 86.0588
1.668, 1, 12.5798, 58.5516, 7.00335, 33.1835, -86.7654, 85.8324
1.672, 1, 12.6159, 58.5358, 6.99937, 33.1528, -86.7394, 85.6058
1.676, 1, 12.652, 58.5199, 6.9954, 33.122, -86.7134, 85.3792
1.68, 1, 12.6881, 58.504, 6.99142, 33.0912, -86.6874, 85.1525
1.684, 1, 12.7242, 58.4882, 6.98744, 33.0603, -86.6614, 84.9256
1.688, 1, 12.7604, 58.4723, 6.98346, 33.0295, -86.6353, 84.6987
1.692, 1, 12.7966, 58.4564, 6.97948, 32.9987, -86.6093, 84.4717
1.696, 1, 12.8327, 58.4405, 6.9755, 32.9678, -86.5832, 84.2446
1.7, 1, 12.8689, 58.4246, 6.97151, 32.9369, -86.5571, 84.0174
1.704, 1, 12.9051, 58.4087, 6.96752, 32.9061, -86.531, 83.7902
1.708, 1, 12.9413, 58.3928, 6.96353, 32.8752, -86.505, 83.5628
1.712, 1, 12.9776, 58.3768, 6.95954, 32.8443, -86.4788, 83.3353
1.716, 1, 13.0138, 58.3609, 6.95555, 32.8134, -86.4527, 83.1078
1.72, 1, 13.0501, 58.345, 6.95156, 32.7824, -86.4266, 82.8801
1.724, 1, 13.0863, 58.329, 6.94756, 32.7515, -86.4005, 82.6524
1.728, 1, 13.1226, 58.3131, 6.94357, 32.7205, -86.3743, 82.4246
1.732, 1, 13.1589, 58.2971, 6.93957, 32.6896, -86.3482, 82.1967
1.736, 1, 13.1953, 58.2812, 6.93557, 32.6586, -86.322, 81.9687
1.74, 1, 13.2316, 58.2652, 6.93157, 32.6276, -86.2958, 81.7406
1.744, 1, 13.2679, 58.2492, 6.92756, 32.5966, -86.2696, 81.5124
1.748, 1, 13.3043, 58.2333, 6.92356, 32.5656, -86.2434, 81.2841
1.752, 1, 13.3407, 58.2173, 6.91955, 32.5345, -86.2172, 81.0557
1.756, 1, 13.3771, 58.2013, 6.91555, 32.5035, -86.191, 80.8272
1.76, 1, 13.4135, 58.1853, 6.91154, 32.4724, -86.1648, 80.5986
1.764, 1, 13.4499, 58.1693, 6.90752, 32.4414, -86.1385, 80.37
1.768, 1, 13.4863, 58.1533, 6.90351, 32.4103, -86.1123, 80.1412
1.772, 1, 13.5228, 58.1373, 6.8995, 32.3792, -86.086, 79.9124
1.776, 1, 13.5593, 58.1212, 6.89548, 32.3481, -86.0597, 79.6834
1.78, 1, 13.5957, 58.1052, 6.89146, 32.317, -86.0335, 79.4544
1.784, 1, 13.6322, 58.0892, 6.88744, 32.2858, -86.0071, 79.2253
1.788, 1, 13.6688, 58.0731, 6.88342, 32.2547, -85.9809, 78.996
1.792, 1, 13.7053, 58.0571, 6.8794, 32.2235, -85.9545, 78.7667
1.796, 1, 13.7418, 58.041, 6.87537, 32.1924, -85.9282, 78.5373
1.8, 1, 13.7784, 58.0249, 6.87135, 32.1612, -85.9019, 78.3078
1.804, 1, 13.815, 58.0089, 6.86732, 32.13, -85.8755, 78.0782
1.808, 1, 13.8515, 57.9928, 6.86329, 32.0988, -85.8491, 77.8485
1.812, 1, 13.8881, 57.9767, 6.85926, 32.0675, -85.8228, 77.6187
1.816, 1, 13.9248, 57.9606, 6.85523, 32.0363, -85.7964, 77.3888
1.82, 1, 13.9614, 57.9445, 6.85119, 32.0051, -85.77, 77.1588
1.824, 1, 13.9981, 57.9284, 6.84716, 31.9738, -85.7436, 76.9287
1.828, 1, 14.0347, 57.9123, 6.84312, 31.9425, -85.7172, 76.6985
1.832, 1, 14.0714, 57.8962, 6.83908, 31.9112, -85.6907, 76.4682
1.836, 1, 14.1081, 57.8801, 6.83504, 31.8799, -85.6643, 76.2379
1.84, 1, 14.1448, 57.8639, 6.83099, 31.8486, -85.6379, 76.0074
1.844, 1, 14.1815, 57.8478, 6.82695, 31.8173, -85.6114, 75.7768
1.848, 1, 14.2183, 57.8316, 6.8229, 31.7859, -85.5849, 75.5461
1.852, 1, 14.255, 57.8155, 6.81885, 31.7546, -85.5584, 75.3154
1.856, 1, 14.2918, 57.7993, 6.8148, 31.7232, -85.5319, 75.0845
1.86, 1, 14.3286, 57.7832, 6.81075, 31.6918, -85.5054, 74.8535
1.864, 1, 14.3654, 57.767, 6.8067, 31.6604, -85.4789, 74.6225
1.868, 1, 14.4022, 57.7508, 6.80264, 31.629, -85.4524, 74.3913
1.872, 1, 14.4391, 57.7346, 6.79859, 31.5976, -85.4258, 74.1601
1.876, 1, 14.4759, 57.7184, 6.79453, 31.5662, -85.3993, 73.9287
1.88, 1, 14.5128, 57.7022, 6.79047, 31.5347, -85.3727, 73.6972
1.884, 1, 14.5497, 57.686, 6.7864, 31.5033, -85.3462, 73.4657
1.888, 1, 14.5866, 57.6698, 6.78234, 31.4718, -85.3196, 73.234
1.892, 1, 14.6235, 57.6536, 6.77828, 31.4403, -85.293, 73.0023
1.896, 1, 14.6604, 57.6374, 6.77421, 31.4088, -85.2664, 72.7704
1.9, 1, 14.6974, 57.6211, 6.77014, 31.3773, -85.2397, 72.5385
1.904, 1, 14.7343, 57.6049, 6.76607, 31.3457, -85.2131, 72.3064
1.908, 1, 14.7713, 57.5886, 6.762, 31.3142, -85.1865, 72.0742
1.912, 1, 14.8083, 57.5724, 6.75792, 31.2826, -85.1598, 71.842
1.916, 1, 14.8453, 57.5561, 6.75385, 31.2511, -85.1331, 71.6096
1.92, 1, 14.8823, 57.5398, 6.74977, 31.2195, -85.1065, 71.3772
1.924, 1, 14.9194, 57.5236, 6.74569, 31.1879, -85.0798, 71.1446
1.928, 1, 14.9564, 57.5073, 6.74161, 31.1563, -85.0531, 70.912
1.932, 1, 14.9935, 57.491, 6.73752, 31.1247, -85.0264, 70.6792
1.936, 1, 15.0306, 57.4747, 6.73344, 31.093, -84.9996, 70.4463
1.94, 1, 15.0677, 57.4584, 6.72935, 31.0614, -84.9729, 70.2134
1.944, 1, 15.1048, 57.4421, 6.72526, 31.0297, -84.9462, 69.9803
1.948, 1, 15.142, 57.4257, 6.72117, 30.998, -84.9194, 69.7471
1.952, 1, 15.1791, 57.4094, 6.71708, 30.9663, -84.8926, 69.5138
1.956, 1, 15.2163, 57.3931, 6.71299, 30.9346, -84.8658, 69.2805
1.96, 1, 15.2535, 57.3767, 6.70889, 30.9029, -84.8391, 69.047
1.964, 1, 15.2907, 57.3604, 6.70479, 30.8712, -84.8122, 68.8134
1.968, 1, 15.3279, 57.344, 6.70069, 30.8394, -84.7854, 68.5797
1.972, 1, 15.3652, 57.3277, 6.69659, 30.8076, -84.7586, 68.3459
1.976, 1, 15.4024, 57.3113, 6.69249, 30.7759, -84.7318, 68.1121
1.98, 1, 15.4397, 57.2949, 6.68838, 30.7441, -84.7049, 67.8781
1.984, 1, 15.477, 57.2785, 6.68428, 30.7123, -84.678, 67.644
1.988, 1, 15.5143, 57.2621, 6.68017, 30.6804, -84.6511, 67.4098
1.992, 1, 15.5516, 57.2457, 6.67606, 30.6486, -84.6243, 67.1755
1.996, 1, 15.5889, 57.2293, 6.67195, 30.6168, -84.5974, 66.9411
1.999, 1, 15.6263, 57.2129, 6.66783, 30.5849, -84.5704, 66.7066
2.004, 1, 15.6637, 57.1965, 6.66371, 30.553, -84.5435, 66.472
2.008, 1, 15.701, 57.1801, 6.6596, 30.5211, -84.5166, 66.2372
2.012, 1, 15.7384, 57.1636, 6.65548, 30.4892, -84.4896, 66.0024
2.015, 1, 15.7759, 57.1472, 6.65136, 30.4573, -84.4627, 65.7675
2.019, 1, 15.8133, 57.1307, 6.64723, 30.4254, -84.4357, 65.5325
2.024, 1, 15.8507, 57.1143, 6.64311, 30.3934, -84.4087, 65.2974
2.028, 1, 15.8882, 57.0978, 6.63898, 30.3615, -84.3817, 65.0621
2.031, 1, 15.9257, 57.0813, 6.63485, 30.3295, -84.3547, 64.8268
2.036, 1, 15.9632, 57.0649, 6.63072, 30.2975, -84.3277, 64.5914
2.04, 1, 16.0007, 57.0484, 6.62659, 30.2655, -84.3007, 64.3558
2.044, 1, 16.0382, 57.0319, 6.62246, 30.2335, -84.2736, 64.1202
2.048, 1, 16.0758, 57.0154, 6.61832, 30.2014, -84.2466, 63.8844
2.051, 1, 16.1134, 56.9989, 6.61418, 30.1694, -84.2195, 63.6486
2.055, 1, 16.1509, 56.9824, 6.61005, 30.1373, -84.1924, 63.4126
2.06, 1, 16.1885, 56.9658, 6.6059, 30.1053, -84.1653, 63.1766
2.064, 1, 16.2262, 56.9493, 6.60176, 30.0732, -84.1382, 62.9404
2.068, 1, 16.2638, 56.9328, 6.59762, 30.0411, -84.1111, 62.7041
2.071, 1, 16.3014, 56.9162, 6.59347, 30.009, -84.084, 62.4678
2.076, 1, 16.3391, 56.8997, 6.58932, 29.9768, -84.0569, 62.2313
2.08, 1, 16.3768, 56.8831, 6.58517, 29.9447, -84.0297, 61.9947
2.084, 1, 16.4145, 56.8665, 6.58102, 29.9125, -84.0025, 61.758
2.087, 1, 16.4522, 56.85, 6.57687, 29.8804, -83.9754, 61.5213
2.092, 1, 16.4899, 56.8334, 6.57271, 29.8482, -83.9482, 61.2844
2.096, 1, 16.5277, 56.8168, 6.56855, 29.816, -83.921, 61.0474
2.1, 1, 16.5654, 56.8002, 6.56439, 29.7838, -83.8938, 60.8103
2.104, 1, 16.6032, 56.7836, 6.56023, 29.7515, -83.8665, 60.5731
2.107, 1, 16.641, 56.767, 6.55607, 29.7193, -83.8393, 60.3358
2.111, 1, 16.6788, 56.7504, 6.5519, 29.687, -83.8121, 60.0984
2.116, 1, 16.7167, 56.7338, 6.54774, 29.6548, -83.7848, 59.8609
2.12, 1, 16.7545, 56.7171, 6.54357, 29.6225, -83.7575, 59.6232
2.124, 1, 16.7924, 56.7005, 6.5394, 29.5902, -83.7303, 59.3855
2.127, 1, 16.8303, 56.6838, 6.53523, 29.5579, -83.703, 59.1477
2.132, 1, 16.8682, 56.6672, 6.53105, 29.5255, -83.6757, 58.9098
2.136, 1, 16.9061, 56.6505, 6.52688, 29.4932, -83.6483, 58.6717
2.14, 1, 16.944, 56.6339, 6.5227, 29.4608, -83.621, 58.4336
2.143, 1, 16.982, 56.6172, 6.51852, 29.4285, -83.5937, 58.1953
2.148, 1, 17.0199, 56.6005, 6.51434, 29.3961, -83.5663, 57.957
2.152, 1, 17.0579, 56.5838, 6.51015, 29.3637, -83.5389, 57.7185
2.156, 1, 17.0959, 56.5671, 6.50597, 29.3313, -83.5116, 57.48
2.16, 1, 17.1339, 56.5504, 6.50178, 29.2988, -83.4842, 57.2413
2.163, 1, 17.1719, 56.5337, 6.49759, 29.2664, -83.4568, 57.0026
2.168, 1, 17.21, 56.517, 6.4934, 29.2339, -83.4294, 56.7637
2.172, 1, 17.2481, 56.5002, 6.48921, 29.2015, -83.4019, 56.5247
2.176, 1, 17.2861, 56.4835, 6.48502, 29.169, -83.3745, 56.2856
2.179, 1, 17.3242, 56.4668, 6.48082, 29.1365, -83.347, 56.0464
2.184, 1, 17.3623, 56.45, 6.47662, 29.104, -83.3196, 55.8071
2.188, 1, 17.4005, 56.4333, 6.47242, 29.0714, -83.2921, 55.5678
2.192, 1, 17.4386, 56.4165, 6.46822, 29.0389, -83.2646, 55.3283
2.196, 1, 17.4768, 56.3997, 6.46402, 29.0063, -83.2371, 55.0886
2.199, 1, 17.515, 56.383, 6.45981, 28.9738, -83.2096, 54.8489
2.204, 1, 17.5532, 56.3662, 6.4556, 28.9412, -83.1821, 54.6091
2.208, 1, 17.5914, 56.3494, 6.4514, 28.9086, -83.1545, 54.3692
2.212, 1, 17.6296, 56.3326, 6.44719, 28.876, -83.127, 54.1292
2.216, 1, 17.6679, 56.3158, 6.44297, 28.8434, -83.0995, 53.8891
2.219, 1, 17.7061, 56.299, 6.43876, 28.8107, -83.0719, 53.6488
2.224, 1, 17.7444, 56.2821, 6.43454, 28.7781, -83.0443, 53.4085
2.228, 1, 17.7827, 56.2653, 6.43032, 28.7454, -83.0167, 53.168
2.232, 1, 17.821, 56.2485, 6.4261, 28.7127, -82.9891, 52.9275
2.235, 1, 17.8593, 56.2316, 6.42188, 28.68, -82.9615, 52.6868
2.24, 1, 17.8977, 56.2148, 6.41766, 28.6473, -82.9338, 52.4461
2.244, 1, 17.936, 56.1979, 6.41343, 28.6146, -82.9062, 52.2052
2.248, 1, 17.9744, 56.181, 6.4092, 28.5818, -82.8786, 51.9643
2.252, 1, 18.0128, 56.1642, 6.40498, 28.5491, -82.8509, 51.7232
2.255, 1, 18.0512, 56.1473, 6.40074, 28.5163, -82.8232, 51.4821
2.259, 1, 18.0896, 56.1304, 6.39651, 28.4835, -82.7955, 51.2408
2.264, 1, 18.1281, 56.1135, 6.39228, 28.4507, -82.7678, 50.9994
2.268, 1, 18.1666, 56.0966, 6.38804, 28.4179, -82.7401, 50.7579
2.272, 1, 18.205, 56.0797, 6.3838, 28.3851, -82.7124, 50.5164
2.275, 1, 18.2435, 56.0628, 6.37956, 28.3523, -82.6846, 50.2747
2.28, 1, 18.282, 56.0459, 6.37532, 28.3194, -82.6569, 50.0329
2.284, 1, 18.3206, 56.0289, 6.37108, 28.2866, -82.6291, 49.791
2.288, 1, 18.3591, 56.012, 6.36683, 28.2537, -82.6014, 49.5491
2.291, 1, 18.3976, 55.9951, 6.36259, 28.2208, -82.5736, 49.307
2.296, 1, 18.4362, 55.9781, 6.35834, 28.1879, -82.5458, 49.0648
2.3, 1, 18.4748, 55.9611, 6.35409, 28.155, -82.518, 48.8225
2.304, 1, 18.5134, 55.9442, 6.34984, 28.122, -82.4902, 48.5801
2.308, 1, 18.552, 55.9272, 6.34558, 28.0891, -82.4623, 48.3377
2.311, 1, 18.5907, 55.9102, 6.34133, 28.0561, -82.4345, 48.0951
2.316, 1, 18.6293, 55.8932, 6.33707, 28.0231, -82.4067, 47.8524
2.32, 1, 18.668, 55.8763, 6.33281, 27.9902, -82.3788, 47.6096
2.324, 1, 18.7067, 55.8593, 6.32855, 27.9572, -82.3509, 47.3667
2.328, 1, 18.7454, 55.8422, 6.32429, 27.9241, -82.323, 47.1237
2.331, 1, 18.7841, 55.8252, 6.32002, 27.8911, -82.2951, 46.8806
2.336, 1, 18.8228, 55.8082, 6.31575, 27.8581, -82.2672, 46.6375
2.34, 1, 18.8616, 55.7912, 6.31149, 27.825, -82.2393, 46.3942
2.344, 1, 18.9003, 55.7742, 6.30722, 27.7919, -82.2114, 46.1508
2.347, 1, 18.9391, 55.7571, 6.30295, 27.7589, -82.1834, 45.9073
2.352, 1, 18.9779, 55.7401, 6.29867, 27.7258, -82.1555, 45.6637
2.356, 1, 19.0167, 55.723, 6.2944, 27.6927, -82.1275, 45.4201
2.36, 1, 19.0555, 55.7059, 6.29012, 27.6595, -82.0995, 45.1763
2.364, 1, 19.0944, 55.6889, 6.28584, 27.6264, -82.0715, 44.9324
2.367, 1, 19.1332, 55.6718, 6.28156, 27.5933, -82.0435, 44.6884
2.372, 1, 19.1721, 55.6547, 6.27728, 27.5601, -82.0155, 44.4444
2.376, 1, 19.211, 55.6376, 6.273, 27.5269, -81.9875, 44.2002
2.38, 1, 19.2499, 55.6205, 6.26871, 27.4937, -81.9595, 43.956
2.383, 1, 19.2888, 55.6034, 6.26442, 27.4605, -81.9314, 43.7116
2.388, 1, 19.3278, 55.5863, 6.26014, 27.4273, -81.9034, 43.4671
2.392, 1, 19.3667, 55.5692, 6.25585, 27.3941, -81.8753, 43.2226
2.396, 1, 19.4057, 55.5521, 6.25155, 27.3608, -81.8472, 42.9779
2.4, 1, 19.4447, 55.5349, 6.24726, 27.3276, -81.8192, 42.7332
2.403, 1, 19.4837, 55.5178, 6.24296, 27.2943, -81.7911, 42.4884
2.408, 1, 19.5227, 55.5007, 6.23867, 27.261, -81.7629, 42.2434
2.412, 1, 19.5617, 55.4835, 6.23437, 27.2277, -81.7348, 41.9984
2.416, 1, 19.6007, 55.4664, 6.23007, 27.1944, -81.7067, 41.7533
2.42, 1, 19.6398, 55.4492, 6.22577, 27.1611, -81.6785, 41.5081
2.423, 1, 19.6789, 55.432, 6.22146, 27.1278, -81.6504, 41.2627
2.428, 1, 19.7179, 55.4148, 6.21716, 27.0945, -81.6222, 41.0173
2.432, 1, 19.757, 55.3977, 6.21285, 27.0611, -81.5941, 40.7718
2.436, 1, 19.7962, 55.3805, 6.20854, 27.0277, -81.5659, 40.5262
2.439, 1, 19.8353, 55.3633, 6.20423, 26.9943, -81.5377, 40.2805
2.444, 1, 19.8744, 55.3461, 6.19992, 26.9609, -81.5095, 40.0348
2.448, 1, 19.9136, 55.3289, 6.19561, 26.9275, -81.4812, 39.7889
2.452, 1, 19.9528, 55.3116, 6.19129, 26.8941, -81.453, 39.5429
2.456, 1, 19.992, 55.2944, 6.18697, 26.8607, -81.4248, 39.2968
2.459, 1, 20.0312, 55.2772, 6.18265, 26.8272, -81.3965, 39.0507
2.464, 1, 20.0704, 55.26, 6.17833, 26.7938, -81.3683, 38.8044
2.468, 1, 20.1096, 55.2427, 6.17401, 26.7603, -81.34, 38.5581
2.472, 1, 20.1489, 55.2255, 6.16969, 26.7268, -81.3117, 38.3117
2.476, 1, 20.1881, 55.2082, 6.16536, 26.6933, -81.2834, 38.0652
2.479, 1, 20.2274, 55.191, 6.16104, 26.6598, -81.2551, 37.8186
2.484, 1, 20.2667, 55.1737, 6.15671, 26.6263, -81.2268, 37.5719
2.488, 1, 20.306, 55.1564, 6.15238, 26.5928, -81.1985, 37.3251
2.492, 1, 20.3453, 55.1391, 6.14805, 26.5592, -81.1702, 37.0782
2.495, 1, 20.3846, 55.1219, 6.14372, 26.5257, -81.1418, 36.8312
2.5, 1, 20.424, 55.1046, 6.13938, 26.4921, -81.1135, 36.5842
2.504, 1, 20.4633, 55.0873, 6.13505, 26.4585, -81.0851, 36.337
2.508, 1, 20.5027, 55.07, 6.13071, 26.4249, -81.0567, 36.0898
2.512, 1, 20.5421, 55.0526, 6.12637, 26.3913, -81.0283, 35.8425
2.515, 1, 20.5815, 55.0353, 6.12203, 26.3577, -81, 35.5951
2.52, 1, 20.6209, 55.018, 6.11769, 26.3241, -80.9715, 35.3476
2.524, 1, 20.6603, 55.0007, 6.11334, 26.2905, -80.9431, 35.1001
2.528, 1, 20.6998, 54.9834, 6.109, 26.2568, -80.9147, 34.8524
2.531, 1, 20.7392, 54.966, 6.10465, 26.2232, -80.8863, 34.6047
2.536, 1, 20.7787, 54.9487, 6.1003, 26.1895, -80.8578, 34.3569
2.54, 1, 20.8182, 54.9313, 6.09595, 26.1558, -80.8294, 34.109
2.544, 1, 20.8577, 54.914, 6.0916, 26.1221, -80.8009, 33.861
2.548, 1, 20.8972, 54.8966, 6.08725, 26.0884, -80.7725, 33.6129
2.551, 1, 20.9367, 54.8792, 6.0829, 26.0547, -80.744, 33.3648
2.556, 1, 20.9762, 54.8619, 6.07854, 26.021, -80.7155, 33.1165
2.56, 1, 21.0158, 54.8445, 6.07419, 25.9872, -80.687, 32.8682
2.564, 1, 21.0553, 54.8271, 6.06983, 25.9535, -80.6585, 32.6198
2.568, 1, 21.0949, 54.8097, 6.06547, 25.9197, -80.63, 32.3714
2.571, 1, 21.1345, 54.7923, 6.06111, 25.8859, -80.6015, 32.1228
2.576, 1, 21.1741, 54.7749, 6.05675, 25.8522, -80.5729, 31.8742
2.58, 1, 21.2137, 54.7575, 6.05238, 25.8184, -80.5444, 31.6255
2.584, 1, 21.2533, 54.7401, 6.04802, 25.7846, -80.5158, 31.3767
2.587, 1, 21.293, 54.7227, 6.04365, 25.7507, -80.4873, 31.1278
2.592, 1, 21.3326, 54.7052, 6.03929, 25.7169, -80.4587, 30.8789
2.596, 1, 21.3723, 54.6878, 6.03492, 25.6831, -80.4301, 30.6299
2.6, 1, 21.4119, 54.6704, 6.03055, 25.6492, -80.4015, 30.3808
2.604, 1, 21.4516, 54.6529, 6.02618, 25.6154, -80.3729, 30.1316
2.607, 1, 21.4913, 54.6355, 6.0218, 25.5815, -80.3443, 29.8824
2.612, 1, 21.531, 54.618, 6.01743, 25.5477, -80.3157, 29.6331
2.616, 1, 21.5707, 54.6006, 6.01305, 25.5138, -80.2871, 29.3837
2.62, 1, 21.6105, 54.5831, 6.00868, 25.4799, -80.2585, 29.1342
2.624, 1, 21.6502, 54.5657, 6.0043, 25.446, -80.2298, 28.8847
2.627, 1, 21.69, 54.5482, 5.99992, 25.4121, -80.2012, 28.6351
2.632, 1, 21.7297, 54.5307, 5.99554, 25.3781, -80.1725, 28.3854
2.636, 1, 21.7695, 54.5132, 5.99116, 25.3442, -80.1439, 28.1356
2.64, 1, 21.8093, 54.4958, 5.98677, 25.3103, -80.1152, 27.8858
2.643, 1, 21.8491, 54.4783, 5.98239, 25.2763, -80.0865, 27.6359
2.648, 1, 21.8889, 54.4608, 5.978, 25.2423, -80.0578, 27.386
2.652, 1, 21.9287, 54.4433, 5.97362, 25.2084, -80.0291, 27.1359
2.656, 1, 21.9685, 54.4258, 5.96923, 25.1744, -80.0004, 26.8858
2.66, 1, 22.0084, 54.4083, 5.96484, 25.1404, -79.9717, 26.6357
2.663, 1, 22.0482, 54.3907, 5.96045, 25.1064, -79.943, 26.3854
2.668, 1, 22.0881, 54.3732, 5.95606, 25.0724, -79.9143, 26.1351
2.672, 1, 22.128, 54.3557, 5.95167, 25.0384, -79.8855, 25.8848
2.676, 1, 22.1678, 54.3382, 5.94727, 25.0043, -79.8568, 25.6343
2.679, 1, 22.2077, 54.3206, 5.94288, 24.9703, -79.828, 25.3838
2.684, 1, 22.2476, 54.3031, 5.93848, 24.9363, -79.7993, 25.1333
2.688, 1, 22.2876, 54.2856, 5.93408, 24.9022, -79.7705, 24.8827
2.692, 1, 22.3275, 54.268, 5.92969, 24.8681, -79.7418, 24.632
2.696, 1, 22.3674, 54.2505, 5.92529, 24.8341, -79.713, 24.3812
2.699, 1, 22.4074, 54.2329, 5.92089, 24.8, -79.6842, 24.1304
2.704, 1, 22.4473, 54.2154, 5.91648, 24.7659, -79.6554, 23.8795
2.708, 1, 22.4873, 54.1978, 5.91208, 24.7318, -79.6266, 23.6286
2.712, 1, 22.5272, 54.1802, 5.90768, 24.6977, -79.5978, 23.3776
2.716, 1, 22.5672, 54.1627, 5.90327, 24.6636, -79.569, 23.1265
2.719, 1, 22.6072, 54.1451, 5.89887, 24.6295, -79.5402, 22.8754
2.724, 1, 22.6472, 54.1275, 5.89446, 24.5954, -79.5113, 22.6242
2.728, 1, 22.6872, 54.1099, 5.89005, 24.5612, -79.4825, 22.373
2.732, 1, 22.7272, 54.0923, 5.88564, 24.5271, -79.4537, 22.1217
2.735, 1, 22.7673, 54.0747, 5.88123, 24.4929, -79.4248, 21.8704
2.74, 1, 22.8073, 54.0571, 5.87682, 24.4588, -79.396, 21.619
2.744, 1, 22.8473, 54.0395, 5.87241, 24.4246, -79.3671, 21.3675
2.748, 1, 22.8874, 54.0219, 5.868, 24.3904, -79.3383, 21.116
2.752, 1, 22.9275, 54.0043, 5.86358, 24.3562, -79.3094, 20.8644
2.755, 1, 22.9675, 53.9867, 5.85917, 24.3221, -79.2805, 20.6128
2.76, 1, 23.0076, 53.9691, 5.85475, 24.2879, -79.2516, 20.3612
2.764, 1, 23.0477, 53.9515, 5.85034, 24.2537, -79.2227, 20.1094
2.768, 1, 23.0878, 53.9339, 5.84592, 24.2195, -79.1938, 19.8577
2.772, 1, 23.1279, 53.9162, 5.8415, 24.1852, -79.1649, 19.6059
2.775, 1, 23.168, 53.8986, 5.83708, 24.151, -79.136, 19.354
2.78, 1, 23.2081, 53.881, 5.83266, 24.1168, -79.1071, 19.1021
2.784, 1, 23.2482, 53.8633, 5.82824, 24.0826, -79.0782, 18.8501
2.788, 1, 23.2884, 53.8457, 5.82382, 24.0483, -79.0493, 18.5981
2.791, 1, 23.3285, 53.8281, 5.8194, 24.0141, -79.0204, 18.3461
2.796, 1, 23.3687, 53.8104, 5.81497, 23.9798, -78.9914, 18.094
2.8, 1, 23.4088, 53.7928, 5.81055, 23.9456, -78.9625, 17.8419
2.804, 1, 23.449, 53.7751, 5.80613, 23.9113, -78.9336, 17.5897
2.808, 1, 23.4891, 53.7575, 5.8017, 23.877, -78.9046, 17.3375
2.811, 1, 23.5293, 53.7398, 5.79727, 23.8428, -78.8757, 17.0852
2.816, 1, 23.5695, 53.7222, 5.79285, 23.8085, -78.8467, 16.8329
2.82, 1, 23.6097, 53.7045, 5.78842, 23.7742, -78.8177, 16.5805
2.824, 1, 23.6499, 53.6868, 5.78399, 23.7399, -78.7888, 16.3282
2.828, 1, 23.6901, 53.6692, 5.77956, 23.7056, -78.7598, 16.0757
2.831, 1, 23.7303, 53.6515, 5.77513, 23.6713, -78.7308, 15.8233
2.836, 1, 23.7705, 53.6338, 5.7707, 23.637, -78.7019, 15.5708
2.84, 1, 23.8107, 53.6162, 5.76627, 23.6027, -78.6729, 15.3182
2.844, 1, 23.8509, 53.5985, 5.76184, 23.5684, -78.6439, 15.0657
2.847, 1, 23.8911, 53.5808, 5.75741, 23.534, -78.6149, 14.8131
2.852, 1, 23.9314, 53.5631, 5.75298, 23.4997, -78.5859, 14.5604
2.856, 1, 23.9716, 53.5454, 5.74854, 23.4654, -78.5569, 14.3078
2.86, 1, 24.0118, 53.5277, 5.74411, 23.431, -78.5279, 14.0551
2.864, 1, 24.0521, 53.5101, 5.73968, 23.3967, -78.4989, 13.8023
2.867, 1, 24.0923, 53.4924, 5.73524, 23.3624, -78.4699, 13.5496
2.872, 1, 24.1326, 53.4747, 5.7308, 23.328, -78.4409, 13.2968
2.876, 1, 24.1729, 53.457, 5.72637, 23.2937, -78.4119, 13.0439
2.88, 1, 24.2131, 53.4393, 5.72193, 23.2593, -78.3828, 12.7911
2.883, 1, 24.2534, 53.4216, 5.7175, 23.225, -78.3538, 12.5382
2.888, 1, 24.2937, 53.4039, 5.71306, 23.1906, -78.3248, 12.2853
2.892, 1, 24.334, 53.3862, 5.70862, 23.1562, -78.2958, 12.0324
2.896, 1, 24.3742, 53.3685, 5.70418, 23.1219, -78.2667, 11.7794
2.9, 1, 24.4145, 53.3508, 5.69974, 23.0875, -78.2377, 11.5264
2.903, 1, 24.4548, 53.3331, 5.6953, 23.0531, -78.2087, 11.2734
2.908, 1, 24.4951, 53.3154, 5.69086, 23.0187, -78.1796, 11.0204
2.912, 1, 24.5354, 53.2976, 5.68642, 22.9843, -78.1506, 10.7673
2.916, 1, 24.5757, 53.2799, 5.68198, 22.95, -78.1215, 10.5142
2.92, 1, 24.616, 53.2622, 5.67754, 22.9156, -78.0925, 10.2612
2.923, 1, 24.6563, 53.2445, 5.6731, 22.8812, -78.0635, 10.008
2.928, 1, 24.6966, 53.2268, 5.66866, 22.8468, -78.0344, 9.7549
2.932, 1, 24.7369, 53.2091, 5.66422, 22.8124, -78.0053, 9.50175
2.936, 1, 24.7773, 53.1914, 5.65978, 22.778, -77.9763, 9.24858
2.939, 1, 24.8176, 53.1736, 5.65533, 22.7436, -77.9472, 8.9954
2.944, 1, 24.8579, 53.1559, 5.65089, 22.7092, -77.9182, 8.7422
2.948, 1, 24.8982, 53.1382, 5.64645, 22.6748, -77.8891, 8.48898
2.952, 1, 24.9386, 53.1205, 5.64201, 22.6404, -77.8601, 8.23576
2.956, 1, 24.9789, 53.1027, 5.63756, 22.606, -77.831, 7.98251
2.959, 1, 25.0192, 53.085, 5.63312, 22.5716, -77.8019, 7.72926
2.964, 1, 25.0595, 53.0673, 5.62867, 22.5371, -77.7729, 7.476
2.968, 1, 25.0999, 53.0496, 5.62423, 22.5027, -77.7438, 7.22272
2.972, 1, 25.1402, 53.0318, 5.61979, 22.4683, -77.7147, 6.96944
2.976, 1, 25.1805, 53.0141, 5.61534, 22.4339, -77.6857, 6.71615
2.98, 1, 25.2209, 52.9964, 5.6109, 22.3995, -77.6566, 6.46285
2.984, 1, 25.2612, 52.9787, 5.60645, 22.3651, -77.6275, 6.20955
2.988, 1, 25.3016, 52.9609, 5.60201, 22.3307, -77.5984, 5.95624
2.992, 1, 25.3419, 52.9432, 5.59756, 22.2962, -77.5694, 5.70292
2.995, 1, 25.3822, 52.9255, 5.59312, 22.2618, -77.5403, 5.4496
3, 1, 25.4226, 52.9077, 5.58867, 22.2274, -77.5112, 5.19628
3.004, 1, 25.4629, 52.89, 5.58423, 22.193, -77.4822, 4.94296
3.008, 1, 25.5033, 52.8723, 5.57979, 22.1586, -77.4531, 4.68963
3.012, 1, 25.5436, 52.8546, 5.57534, 22.1241, -77.424, 4.43631
3.015, 1, 25.5839, 52.8368, 5.5709, 22.0897, -77.3949, 4.18298
3.02, 1, 25.6243, 52.8191, 5.56645, 22.0553, -77.3659, 3.92966
3.024, 1, 25.6646, 52.8014, 5.56201, 22.0209, -77.3368, 3.67634
3.028, 1, 25.705, 52.7836, 5.55756, 21.9865, -77.3077, 3.42303
3.031, 1, 25.7453, 52.7659, 5.55312, 21.952, -77.2786, 3.16971
3.036, 1, 25.7856, 52.7482, 5.54867, 21.9176, -77.2496, 2.91641
3.04, 1, 25.826, 52.7304, 5.54423, 21.8832, -77.2205, 2.66311
3.044, 1, 25.8663, 52.7127, 5.53978, 21.8488, -77.1914, 2.40981
3.048, 1, 25.9066, 52.695, 5.53534, 21.8144, -77.1624, 2.15653
3.051, 1, 25.947, 52.6773, 5.53089, 21.78, -77.1333, 1.90325
3.056, 1, 25.9873, 52.6595, 5.52645, 21.7456, -77.1042, 1.64999
3.06, 1, 26.0276, 52.6418, 5.52201, 21.7111, -77.0752, 1.39673
3.064, 1, 26.068, 52.6241, 5.51756, 21.6767, -77.0461, 1.14349
3.068, 1, 26.1083, 52.6064, 5.51312, 21.6423, -77.0171, 0.890258
3.071, 1, 26.1486, 52.5887, 5.50868, 21.6079, -76.988, 0.63704
3.076, 1, 26.1889, 52.5709, 5.50423, 21.5735, -76.9589, 0.383837
3.08, 1, 26.2292, 52.5532, 5.49979, 21.5391, -76.9299, 0.130649
3.084, 1, 26.2696, 52.5355, 5.49535, 21.5047, -76.9008, -0.122523
3.087, 1, 26.3099, 52.5178, 5.49091, 21.4703, -76.8718, -0.375678
3.092, 1, 26.3502, 52.5001, 5.48647, 21.4359, -76.8427, -0.628815
3.096, 1, 26.3905, 52.4823, 5.48203, 21.4015, -76.8137, -0.881933
3.1, 1, 26.4308, 52.4646, 5.47758, 21.3671, -76.7846, -1.13503
3.104, 1, 26.4711, 52.4469, 5.47314, 21.3328, -76.7556, -1.38811
3.107, 1, 26.5114, 52.4292, 5.4687, 21.2984, -76.7265, -1.64116
3.112, 1, 26.5517, 52.4115, 5.46426, 21.264, -76.6975, -1.8942
3.116, 1, 26.592, 52.3938, 5.45982, 21.2296, -76.6685, -2.14721
3.12, 1, 26.6323, 52.3761, 5.45539, 21.1952, -76.6394, -2.40019
3.124, 1, 26.6725, 52.3584, 5.45095, 21.1609, -76.6104, -2.65316
3.128, 1, 26.7128, 52.3407, 5.44651, 21.1265, -76.5814, -2.90609
3.132, 1, 26.7531, 52.323, 5.44207, 21.0922, -76.5523, -3.159
3.136, 1, 26.7934, 52.3053, 5.43763, 21.0578, -76.5233, -3.41188
3.14, 1, 26.8336, 52.2876, 5.4332, 21.0234, -76.4943, -3.66473
3.143, 1, 26.8739, 52.2699, 5.42876, 20.9891, -76.4653, -3.91755
3.148, 1, 26.9142, 52.2522, 5.42433, 20.9547, -76.4363, -4.17034
3.152, 1, 26.9544, 52.2345, 5.41989, 20.9204, -76.4073, -4.42311
3.156, 1, 26.9947, 52.2168, 5.41546, 20.8861, -76.3783, -4.67583
3.16, 1, 27.0349, 52.1991, 5.41102, 20.8517, -76.3493, -4.92853
3.163, 1, 27.0751, 52.1814, 5.40659, 20.8174, -76.3203, -5.18119
3.168, 1, 27.1154, 52.1638, 5.40216, 20.7831, -76.2913, -5.43382
3.172, 1, 27.1556, 52.1461, 5.39772, 20.7487, -76.2623, -5.68641
3.176, 1, 27.1958, 52.1284, 5.39329, 20.7144, -76.2333, -5.93897
3.179, 1, 27.236, 52.1107, 5.38886, 20.6801, -76.2043, -6.19148
3.184, 1, 27.2762, 52.0931, 5.38443, 20.6458, -76.1753, -6.44396
3.188, 1, 27.3164, 52.0754, 5.38, 20.6115, -76.1464, -6.6964
3.192, 1, 27.3566, 52.0577, 5.37557, 20.5772, -76.1174, -6.9488
3.196, 1, 27.3968, 52.0401, 5.37115, 20.5429, -76.0884, -7.20116
3.199, 1, 27.437, 52.0224, 5.36672, 20.5087, -76.0595, -7.45348
3.204, 1, 27.4772, 52.0048, 5.36229, 20.4744, -76.0305, -7.70576
3.208, 1, 27.5173, 51.9871, 5.35787, 20.4401, -76.0016, -7.95799
3.212, 1, 27.5575, 51.9695, 5.35344, 20.4058, -75.9726, -8.21018
3.216, 1, 27.5976, 51.9518, 5.34902, 20.3716, -75.9437, -8.46232
3.22, 1, 27.6378, 51.9342, 5.34459, 20.3373, -75.9148, -8.71442
3.224, 1, 27.6779, 51.9165, 5.34017, 20.3031, -75.8858, -8.96647
3.228, 1, 27.718, 51.8989, 5.33575, 20.2688, -75.8569, -9.21847
3.232, 1, 27.7582, 51.8813, 5.33133, 20.2346, -75.828, -9.47042
3.235, 1, 27.7983, 51.8636, 5.32691, 20.2004, -75.7991, -9.72233
3.24, 1, 27.8384, 51.846, 5.32249, 20.1662, -75.7702, -9.97418
3.244, 1, 27.8785, 51.8284, 5.31807, 20.1319, -75.7413, -10.226
3.248, 1, 27.9186, 51.8108, 5.31365, 20.0977, -75.7124, -10.4777
3.252, 1, 27.9587, 51.7931, 5.30924, 20.0635, -75.6835, -10.7294
3.255, 1, 27.9987, 51.7755, 5.30482, 20.0294, -75.6546, -10.9811
3.26, 1, 28.0388, 51.7579, 5.30041, 19.9952, -75.6258, -11.2327
3.264, 1, 28.0789, 51.7403, 5.29599, 19.961, -75.5969, -11.4842
3.268, 1, 28.1189, 51.7227, 5.29158, 19.9268, -75.568, -11.7357
3.272, 1, 28.1589, 51.7051, 5.28717, 19.8927, -75.5392, -11.9871
3.276, 1, 28.199, 51.6875, 5.28276, 19.8585, -75.5103, -12.2385
3.28, 1, 28.239, 51.6699, 5.27835, 19.8244, -75.4815, -12.4898
3.284, 1, 28.279, 51.6524, 5.27394, 19.7902, -75.4527, -12.741
3.288, 1, 28.319, 51.6348, 5.26953, 19.7561, -75.4238, -12.9922
3.291, 1, 28.359, 51.6172, 5.26513, 19.722, -75.395, -13.2433
3.296, 1, 28.399, 51.5996, 5.26072, 19.6879, -75.3662, -13.4944
3.3, 1, 28.4389, 51.5821, 5.25632, 19.6538, -75.3374, -13.7454
3.304, 1, 28.4789, 51.5645, 5.25192, 19.6197, -75.3086, -13.9963
3.308, 1, 28.5189, 51.5469, 5.24751, 19.5856, -75.2798, -14.2472
3.312, 1, 28.5588, 51.5294, 5.24311, 19.5515, -75.251, -14.498
3.316, 1, 28.5987, 51.5118, 5.23871, 19.5174, -75.2222, -14.7487
3.32, 1, 28.6386, 51.4943, 5.23431, 19.4834, -75.1935, -14.9994
3.324, 1, 28.6785, 51.4768, 5.22992, 19.4493, -75.1647, -15.25
3.328, 1, 28.7184, 51.4592, 5.22552, 19.4153, -75.136, -15.5005
3.332, 1, 28.7583, 51.4417, 5.22113, 19.3813, -75.1072, -15.751
3.336, 1, 28.7982, 51.4242, 5.21673, 19.3472, -75.0785, -16.0014
3.34, 1, 28.8381, 51.4067, 5.21234, 19.3132, -75.0498, -16.2517
3.344, 1, 28.8779, 51.3891, 5.20795, 19.2792, -75.021, -16.502
3.347, 1, 28.9177, 51.3717, 5.20355, 19.2452, -74.9923, -16.7521
3.352, 1, 28.9572, 51.3542, 5.19914, 19.2113, -74.9636, -17.0022
3.356, 1, 28.9965, 51.3368, 5.19471, 19.1773, -74.9349, -17.2522
3.36, 1, 29.0353, 51.3196, 5.19023, 19.1434, -74.9063, -17.5019
3.364, 1, 29.0736, 51.3026, 5.1857, 19.1095, -74.8776, -17.7512
3.368, 1, 29.1112, 51.2858, 5.18112, 19.0758, -74.8491, -17.9999
3.372, 1, 29.1482, 51.2693, 5.17648, 19.0422, -74.8206, -18.2475
3.376, 1, 29.1846, 51.253, 5.1718, 19.0088, -74.7924, -18.4936
3.38, 1, 29.2203, 51.2371, 5.16708, 18.9757, -74.7643, -18.7376
3.383, 1, 29.2552, 51.2216, 5.16233, 18.943, -74.7366, -18.9788
3.388, 1, 29.2892, 51.2066, 5.15757, 18.9108, -74.7094, -19.2162
3.392, 1, 29.3221, 51.1921, 5.15281, 18.8793, -74.6826, -19.4489
3.396, 1, 29.3538, 51.1783, 5.14808, 18.8486, -74.6565, -19.6758
3.4, 1, 29.3842, 51.1649, 5.14345, 18.8188, -74.6312, -19.8957
3.403, 1, 29.4135, 51.1522, 5.13896, 18.7902, -74.6069, -20.1072
3.408, 1, 29.4415, 51.14, 5.13469, 18.7629, -74.5837, -20.3092
3.412, 1, 29.4683, 51.1283, 5.1307, 18.737, -74.5617, -20.5004
3.416, 1, 29.4938, 51.1172, 5.12701, 18.7127, -74.541, -20.6798
3.42, 1, 29.518, 51.1067, 5.12366, 18.6901, -74.5219, -20.8466
3.424, 1, 29.5407, 51.0967, 5.12066, 18.6693, -74.5043, -20.9999
3.428, 1, 29.5619, 51.0875, 5.11803, 18.6504, -74.4882, -21.1394
3.432, 1, 29.5818, 51.0787, 5.1158, 18.6334, -74.4739, -21.2648
3.436, 1, 29.6003, 51.0706, 5.11398, 18.6182, -74.4611, -21.376
3.439, 1, 29.6175, 51.063, 5.11258, 18.605, -74.45, -21.4733
3.444, 1, 29.6335, 51.0558, 5.11156, 18.5935, -74.4404, -21.5571
3.448, 1, 29.6483, 51.0493, 5.11089, 18.5837, -74.4322, -21.6284
3.452, 1, 29.6617, 51.0433, 5.11052, 18.5755, -74.4254, -21.6879
3.456, 1, 29.6736, 51.0379, 5.11037, 18.5688, -74.4199, -21.7369
3.46, 2, 29.6842, 51.0332, 5.11039, 18.5633, -74.4154, -21.7766
3.464, 2, 29.6934, 51.0291, 5.11054, 18.5589, -74.4118, -21.808
3.468, 2, 29.7015, 51.0256, 5.11079, 18.5555, -74.409, -21.8326
3.472, 2, 29.7087, 51.0225, 5.1111, 18.5528, -74.4069, -21.8512
3.476, 2, 29.715, 51.02, 5.11144, 18.5508, -74.4054, -21.8651
3.48, 2, 29.7205, 51.0179, 5.11179, 18.5494, -74.4042, -21.8752
3.484, 2, 29.725, 51.0162, 5.1121, 18.5484, -74.4035, -21.8824
3.488, 2, 29.7288, 51.0148, 5.11238, 18.5476, -74.4029, -21.8873
3.492, 2, 29.7316, 51.0138, 5.11259, 18.5471, -74.4025, -21.8908
3.495, 2, 29.7337, 51.0131, 5.11275, 18.5468, -74.4023, -21.8931
3.5, 2, 29.7352, 51.0126, 5.11286, 18.5465, -74.4021, -21.8947
3.504, 2, 29.7362, 51.0123, 5.11294, 18.5464, -74.402, -21.8958
3.508, 2, 29.7369, 51.0121, 5.11299, 18.5463, -74.4019, -21.8965
3.512, 2, 29.7373, 51.0119, 5.11302, 18.5462, -74.4019, -21.897
3.516, 2, 29.7376, 51.0118, 5.11305, 18.5461, -74.4018, -21.8973
3.52, 2, 29.7379, 51.0117, 5.11306, 18.5461, -74.4018, -21.8976
3.524, 2, 29.738, 51.0117, 5.11307, 18.5461, -74.4018, -21.8977
3.528, 2, 29.7381, 51.0117, 5.11308, 18.5461, -74.4018, -21.8978
3.531, 2, 29.7382, 51.0116, 5.11309, 18.5461, -74.4018, -21.8979
3.536, 2, 29.7382, 51.0116, 5.11309, 18.546, -74.4017, -21.8979
3.54, 2, 29.7382, 51.0116, 5.11309, 18.546, -74.4017, -21.898
3.544, 2, 29.7382, 51.0116, 5.11309, 18.546, -74.4017, -21.898
3.548, 2, 29.7383, 51.0116, 5.11309, 18.546, -74.4017, -21.898
3.552, 2, 29.7383, 51.0116, 5.1131, 18.546, -74.4017, -21.898
3.556, 2, 29.7383, 51.0116, 5.1131, 18.546, -74.4017, -21.898
3.56, 2, 29.7383, 51.0116, 5.1131, 18.546, -74.4017, -21.898
3.564, 2, 29.7383, 51.0116, 5.1131, 18.546, -74.4017, -21.898
3.568, 2, 29.7383, 51.0116, 5.1131, 18.546, -74.4017, -21.898
3.572, 2, 29.7383, 51.0116, 5.1131, 18.546, -74.4017, -21.898
3.576, 2, 29.7383, 51.0116, 5.1131, 18.546, -74.4017, -21.898
3.58, 2, 29.7383, 51.0116, 5.1131, 18.546, -74.4017, -21.898
3.584, 2, 29.7383, 51.0116, 5.1131, 18.546, -74.4017, -21.898
3.587, 2, 29.7383, 51.0116, 5.1131, 18.546, -74.4017, -21.898
3.592, 2, 29.7383, 51.0116, 5.1131, 18.546, -74.4017, -21.898
3.596, 2, 29.7383, 51.0116, 5.1131, 18.546, -74.4017, -21.898
3.6, 2, 29.7383, 51.0116, 5.1131, 18.546, -74.4017, -21.898
3.604, 2, 29.7383, 51.0116, 5.1131, 18.546, -74.4017, -21.898
3.608, 2, 29.7383, 51.0116, 5.1131, 18.546, -74.4017, -21.898
3.612, 2, 29.7383, 51.0116, 5.1131, 18.546, -74.4017, -21.898
3.616, 2, 29.7383, 51.0116, 5.1131, 18.546, -74.4017, -21.898
3.62, 2, 29.7383, 51.0116, 5.1131, 18.546, -74.4017, -21.898
3.624, 2, 29.7383, 51.0116, 5.1131, 18.546, -74.4017, -21.898
3.628, 2, 29.7383, 51.0116, 5.1131, 18.546, -74.4017, -21.898
3.632, 2, 29.7383, 51.0116, 5.1131, 18.546, -74.4017, -21.898
3.636, 2, 29.7383, 51.0116, 5.1131, 18.546, -74.4017, -21.898
3.64, 2, 29.7383, 51.0116, 5.1131, 18.546, -74.4017, -21.898
3.644, 2, 29.7383, 51.0116, 5.1131, 18.546, -74.4017, -21.898
3.648, 2, 29.7383, 51.0116, 5.1131, 18.546, -74.4017, -21.898
3.652, 2, 29.7383, 51.0116, 5.1131, 18.546, -74.4017, -21.898
3.656, 2, 29.7383, 51.0116, 5.1131, 18.546, -74.4017, -21.898
3.66, 2, 29.7383, 51.0116, 5.1131, 18.546, -74.4017, -21.898
3.664, 2, 29.7383, 51.0116, 5.1131, 18.546, -74.4017, -21.898
3.668, 2, 29.7383, 51.0116, 5.1131, 18.546, -74.4017, -21.898
3.672, 2, 29.7383, 51.0116, 5.1131, 18.546, -74.4017, -21.898
3.676, 2, 29.7383, 51.0116, 5.1131, 18.546, -74.4017, -21.898
3.679, 2, 29.7383, 51.0116, 5.1131, 18.546, -74.4017, -21.898
3.684, 2, 29.7383, 51.0116, 5.1131, 18.546, -74.4017, -21.898
3.688, 2, 29.7383, 51.0116, 5.1131, 18.546, -74.4017, -21.898
3.692, 2, 29.7383, 51.0116, 5.1131, 18.546, -74.4017, -21.898
3.696, 2, 29.7383, 51.0116, 5.1131, 18.546, -74.4017, -21.898
3.7, 2, 29.7383, 51.0116, 5.1131, 18.546, -74.4017, -21.898
3.704, 2, 29.7383, 51.0116, 5.1131, 18.546, -74.4017, -21.898
3.708, 2, 29.7383, 51.0116, 5.1131, 18.546, -74.4017, -21.898
3.712, 2, 29.7383, 51.0116, 5.1131, 18.546, -74.4017, -21.898
3.716, 2, 29.7383, 51.0116, 5.1131, 18.546, -74.4017, -21.898
3.72, 2, 29.7383, 51.0116, 5.1131, 18.546, -74.4017, -21.898
3.724, 2, 29.7383, 51.0116, 5.1131, 18.546, -74.4017, -21.898
3.728, 2, 29.7383, 51.0116, 5.1131, 18.546, -74.4017, -21.898
3.732, 2, 29.7383, 51.0116, 5.1131, 18.546, -74.4017, -21.898
3.735, 2, 29.7383, 51.0116, 5.1131, 18.546, -74.4017, -21.898
3.74, 2, 29.7383, 51.0116, 5.1131, 18.546, -74.4017, -21.898
3.744, 2, 29.7383, 51.0116, 5.1131, 18.546, -74.4017, -21.898
3.748, 2, 29.7383, 51.0116, 5.1131, 18.546, -74.4017, -21.898
3.752, 2, 29.7383, 51.0116, 5.1131, 18.546, -74.4017, -21.898
3.756, 2, 29.7383, 51.0116, 5.1131, 18.546, -74.4017, -21.898
3.76, 2, 29.7383, 51.0116, 5.1131, 18.546, -74.4017, -21.898
3.764, 2, 29.7383, 51.0116, 5.1131, 18.546, -74.4017, -21.898
3.768, 2, 29.7383, 51.0116, 5.1131, 18.546, -74.4017, -21.898
3.772, 2, 29.7383, 51.0116, 5.1131, 18.546, -74.4017, -21.898
3.776, 2, 29.7383, 51.0116, 5.1131, 18.546, -74.4017, -21.898
3.78, 2, 29.7383, 51.0116, 5.1131, 18.546, -74.4017, -21.898
3.784, 2, 29.7383, 51.0116, 5.1131, 18.546, -74.4017, -21.898
3.788, 2, 29.7383, 51.0116, 5.1131, 18.546, -74.4017, -21.898
3.792, 2, 29.7383, 51.0116, 5.1131, 18.546, -74.4017, -21.898
3.796, 2, 29.7383, 51.0116, 5.1131, 18.546, -74.4017, -21.898
3.8, 2, 29.7383, 51.0116, 5.1131, 18.546, -74.4017, -21.898
3.804, 2, 29.7383, 51.0116, 5.1131, 18.546, -74.4017, -21.898
3.808, 2, 29.7383, 51.0116, 5.1131, 18.546, -74.4017, -21.898
3.812, 2, 29.7383, 51.0116, 5.1131, 18.546, -74.4017, -21.898
3.816, 2, 29.7383, 51.0116, 5.1131, 18.546, -74.4017, -21.898
3.82, 2, 29.7383, 51.0116, 5.1131, 18.546, -74.4017, -21.898
3.824, 2, 29.7383, 51.0116, 5.1131, 18.546, -74.4017, -21.898
3.828, 2, 29.7383, 51.0116, 5.1131, 18.546, -74.4017, -21.898
3.832, 2, 29.7383, 51.0116, 5.1131, 18.546, -74.4017, -21.898
3.836, 2, 29.7383, 51.0116, 5.1131, 18.546, -74.4017, -21.898
3.84, 2, 29.7383, 51.0116, 5.1131, 18.546, -74.4017, -21.898
3.844, 2, 29.7383, 51.0116, 5.1131, 18.546, -74.4017, -21.898
3.848, 2, 29.7383, 51.0116, 5.1131, 18.546, -74.4017, -21.898
3.852, 2, 29.7383, 51.0116, 5.1131, 18.546, -74.4017, -21.898
3.856, 2, 29.7383, 51.0116, 5.1131, 18.546, -74.4017, -21.898
3.86, 2, 29.7383, 51.0116, 5.1131, 18.546, -74.4017, -21.898
3.864, 2, 29.7383, 51.0116, 5.1131, 18.546, -74.4017, -21.898
3.868, 2, 29.7383, 51.0116, 5.1131, 18.546, -74.4017, -21.898
3.872, 2, 29.7383, 51.0116, 5.1131, 18.546, -74.4017, -21.898
3.876, 2, 29.7383, 51.0116, 5.1131, 18.546, -74.4017, -21.898
3.88, 2, 29.7383, 51.0116, 5.1131, 18.546, -74.4017, -21.898
3.884, 2, 29.7383, 51.0116, 5.1131, 18.546, -74.4017, -21.898
3.888, 2, 29.7383, 51.0116, 5.1131, 18.546, -74.4017, -21.898
3.892, 2, 29.7383, 51.0116, 5.1131, 18.546, -74.4017, -21.898
3.896, 2, 29.7383, 51.0116, 5.1131, 18.546, -74.4017, -21.898
3.9, 2, 29.7383, 51.0116, 5.1131, 18.546, -74.4017, -21.898
3.904, 2, 29.7383, 51.0116, 5.1131, 18.546, -74.4017, -21.898
3.908, 2, 29.7383, 51.0116, 5.1131, 18.546, -74.4017, -21.898
3.912, 2, 29.7383, 51.0116, 5.1131, 18.546, -74.4017, -21.898
3.916, 2, 29.7383, 51.0116, 5.1131, 18.546, -74.4017, -21.898
3.92, 2, 29.7383, 51.0116, 5.1131, 18.546, -74.4017, -21.898
3.924, 2, 29.7383, 51.0116, 5.1131, 18.546, -74.4017, -21.898
3.928, 2, 29.7383, 51.0116, 5.1131, 18.546, -74.4017, -21.898
3.932, 2, 29.7383, 51.0116, 5.1131, 18.546, -74.4017, -21.898
3.936, 2, 29.7383, 51.0116, 5.1131, 18.546, -74.4017, -21.898
3.94, 2, 29.7383, 51.0116, 5.1131, 18.546, -74.4017, -21.898
3.944, 2, 29.7383, 51.0116, 5.1131, 18.546, -74.4017, -21.898
3.948, 2, 29.7383, 51.0116, 5.1131, 18.546, -74.4017, -21.898
3.952, 2, 29.7383, 51.0116, 5.1131, 18.546, -74.4017, -21.898
3.956, 2, 29.7383, 51.0116, 5.1131, 18.546, -74.4017, -21.898
3.96, 2, 29.7383, 51.0116, 5.1131, 18.546, -74.4017, -21.898
3.964, 2, 29.7383, 51.0116, 5.1131, 18.546, -74.4017, -21.898
3.968, 2, 29.7383, 51.0116, 5.1131, 18.546, -74.4017, -21.898
3.972, 2, 29.7383, 51.0116, 5.1131, 18.546, -74.4017, -21.898
3.976, 2, 29.7383, 51.0116, 5.1131, 18.546, -74.4017, -21.898
3.98, 2, 29.7383, 51.0116, 5.1131, 18.546, -74.4017, -21.898
3.984, 2, 29.7383, 51.0116, 5.1131, 18.546, -74.4017, -21.898
3.988, 2, 29.7383, 51.0116, 5.1131, 18.546, -74.4017, -21.898
3.992, 2, 29.7383, 51.0116, 5.1131, 18.546, -74.4017, -21.898
3.996, 2, 29.7383, 51.0116, 5.1131, 18.546, -74.4017, -21.898
3.999, 2, 29.7383, 51.0116, 5.1131, 18.546, -74.4017, -21.898
4.004, 2, 29.7383, 51.0116, 5.1131, 18.546, -74.4017, -21.898
4.008, 2, 29.7383, 51.0116, 5.1131, 18.546, -74.4017, -21.898
4.012, 2, 29.7383, 51.0116, 5.1131, 18.546, -74.4017, -21.898
4.016, 2, 29.7383, 51.0116, 5.1131, 18.546, -74.4017, -21.898
4.02, 2, 29.7383, 51.0116, 5.1131, 18.546, -74.4017, -21.898
4.024, 2, 29.7383, 51.0116, 5.1131, 18.546, -74.4017, -21.898
4.028, 2, 29.7383, 51.0116, 5.1131, 18.546, -74.4017, -21.898
4.032, 2, 29.7383, 51.0116, 5.1131, 18.546, -74.4017, -21.898
4.036, 2, 29.7383, 51.0116, 5.1131, 18.546, -74.4017, -21.898
4.04, 2, 29.7383, 51.0116, 5.1131, 18.546, -74.4017, -21.898
4.044, 2, 29.7383, 51.0116, 5.1131, 18.546, -74.4017, -21.898
4.048, 2, 29.7383, 51.0116, 5.1131, 18.546, -74.4017, -21.898
4.052, 2, 29.7383, 51.0116, 5.1131, 18.546, -74.4017, -21.898
4.056, 2, 29.7383, 51.0116, 5.1131, 18.546, -74.4017, -21.898
4.06, 2, 29.7383, 51.0116, 5.1131, 18.546, -74.4017, -21.898
4.064, 2, 29.7383, 51.0116, 5.1131, 18.546, -74.4017, -21.898
4.068, 2, 29.7383, 51.0116, 5.1131, 18.546, -74.4017, -21.898
4.072, 2, 29.7383, 51.0116, 5.1131, 18.546, -74.4017, -21.898
4.076, 2, 29.7383, 51.0116, 5.1131, 18.546, -74.4017, -21.898
4.08, 2, 29.7383, 51.0116, 5.1131, 18.546, -74.4017, -21.898
4.084, 2, 29.7383, 51.0116, 5.1131, 18.546, -74.4017, -21.898
4.088, 2, 29.7383, 51.0116, 5.1131, 18.546, -74.4017, -21.898
4.092, 2, 29.7383, 51.0116, 5.1131, 18.546, -74.4017, -21.898
4.096, 2, 29.7383, 51.0116, 5.1131, 18.546, -74.4017, -21.898
4.1, 2, 29.7383, 51.0116, 5.1131, 18.546, -74.4017, -21.898
4.104, 2, 29.7383, 51.0116, 5.1131, 18.546, -74.4017, -21.898
4.108, 2, 29.7383, 51.0116, 5.1131, 18.546, -74.4017, -21.898
4.112, 2, 29.7383, 51.0116, 5.1131, 18.546, -74.4017, -21.898
4.116, 2, 29.7383, 51.0116, 5.1131, 18.546, -74.4017, -21.898
4.12, 2, 29.7383, 51.0116, 5.1131, 18.546, -74.4017, -21.898
4.124, 2, 29.7383, 51.0116, 5.1131, 18.546, -74.4017, -21.898
4.128, 2, 29.7383, 51.0116, 5.1131, 18.546, -74.4017, -21.898
4.132, 2, 29.7383, 51.0116, 5.1131, 18.546, -74.4017, -21.898
4.136, 2, 29.7383, 51.0116, 5.1131, 18.546, -74.4017, -21.898
4.14, 2, 29.7383, 51.0116, 5.1131, 18.546, -74.4017, -21.898
4.144, 2, 29.7383, 51.0116, 5.1131, 18.546, -74.4017, -21.898
4.148, 2, 29.7383, 51.0116, 5.1131, 18.546, -74.4017, -21.898
4.152, 2, 29.7383, 51.0116, 5.1131, 18.546, -74.4017, -21.898
4.156, 2, 29.7383, 51.0116, 5.1131, 18.546, -74.4017, -21.898
4.16, 2, 29.7383, 51.0116, 5.1131, 18.546, -74.4017, -21.898
4.164, 2, 29.7383, 51.0116, 5.1131, 18.546, -74.4017, -21.898
4.168, 2, 29.7383, 51.0116, 5.1131, 18.546, -74.4017, -21.898
4.172, 2, 29.7383, 51.0116, 5.1131, 18.546, -74.4017, -21.898
4.176, 2, 29.7383, 51.0116, 5.1131, 18.546, -74.4017, -21.898
4.18, 2, 29.7383, 51.0116, 5.1131, 18.546, -74.4017, -21.898
4.184, 2, 29.7383, 51.0116, 5.1131, 18.546, -74.4017, -21.898
4.188, 2, 29.7383, 51.0116, 5.1131, 18.546, -74.4017, -21.898
4.192, 2, 29.7383, 51.0116, 5.1131, 18.546, -74.4017, -21.898
4.196, 2, 29.7383, 51.0116, 5.1131, 18.546, -74.4017, -21.898
4.2, 2, 29.7383, 51.0116, 5.1131, 18.546, -74.4017, -21.898
4.204, 2, 29.7383, 51.0116, 5.1131, 18.546, -74.4017, -21.898
4.208, 2, 29.7383, 51.0116, 5.1131, 18.546, -74.4017, -21.898
4.212, 2, 29.7383, 51.0116, 5.1131, 18.546, -74.4017, -21.898
4.216, 2, 29.7383, 51.0116, 5.1131, 18.546, -74.4017, -21.898
4.22, 2, 29.7383, 51.0116, 5.1131, 18.546, -74.4017, -21.898
4.224, 2, 29.7383, 51.0116, 5.1131, 18.546, -74.4017, -21.898
4.228, 2, 29.7383, 51.0116, 5.1131, 18.546, -74.4017, -21.898
4.232, 2, 29.7383, 51.0116, 5.1131, 18.546, -74.4017, -21.898
4.236, 2, 29.7383, 51.0116, 5.1131, 18.546, -74.4017, -21.898
4.24, 2, 29.7383, 51.0116, 5.1131, 18.546, -74.4017, -21.898
4.244, 2, 29.7383, 51.0116, 5.1131, 18.546, -74.4017, -21.898
4.248, 2, 29.7383, 51.0116, 5.1131, 18.546, -74.4017, -21.898
4.252, 2, 29.7383, 51.0116, 5.1131, 18.546, -74.4017, -21.898
4.256, 2, 29.7383, 51.0116, 5.1131, 18.546, -74.4017, -21.898
4.26, 2, 29.7383, 51.0116, 5.1131, 18.546, -74.4017, -21.898
4.264, 2, 29.7383, 51.0116, 5.1131, 18.546, -74.4017, -21.898
4.268, 2, 29.7383, 51.0116, 5.1131, 18.546, -74.4017, -21.898
4.272, 2, 29.7383, 51.0116, 5.1131, 18.546, -74.4017, -21.898
4.276, 2, 29.7383, 51.0116, 5.1131, 18.546, -74.4017, -21.898
4.28, 2, 29.7383, 51.0116, 5.1131, 18.546, -74.4017, -21.898
4.284, 2, 29.7383, 51.0116, 5.1131, 18.546, -74.4017, -21.898
4.288, 2, 29.7383, 51.0116, 5.1131, 18.546, -74.4017, -21.898
4.292, 2, 29.7383, 51.0116, 5.1131, 18.546, -74.4017, -21.898
4.296, 2, 29.7383, 51.0116, 5.1131, 18.546, -74.4017, -21.898
4.3, 2, 29.7383, 51.0116, 5.1131, 18.546, -74.4017, -21.898
4.304, 2, 29.7383, 51.0116, 5.1131, 18.546, -74.4017, -21.898
4.308, 2, 29.7383, 51.0116, 5.1131, 18.546, -74.4017, -21.898
4.312, 2, 29.7383, 51.0116, 5.1131, 18.546, -74.4017, -21.898
4.316, 2, 29.7383, 51.0116, 5.1131, 18.546, -74.4017, -21.898
4.32, 2, 29.7383, 51.0116, 5.1131, 18.546, -74.4017, -21.898
4.324, 2, 29.7383, 51.0116, 5.1131, 18.546, -74.4017, -21.898
4.328, 2, 29.7383, 51.0116, 5.1131, 18.546, -74.4017, -21.898
4.332, 2, 29.7383, 51.0116, 5.1131, 18.546, -74.4017, -21.898
4.336, 2, 29.7383, 51.0116, 5.1131, 18.546, -74.4017, -21.898
4.34, 2, 29.7383, 51.0116, 5.1131, 18.546, -74.4017, -21.898
4.344, 2, 29.7383, 51.0116, 5.1131, 18.546, -74.4017, -21.898
4.348, 2, 29.7383, 51.0116, 5.1131, 18.546, -74.4017, -21.898
4.352, 2, 29.7383, 51.0116, 5.1131, 18.546, -74.4017, -21.898
4.356, 2, 29.7383, 51.0116, 5.1131, 18.546, -74.4017, -21.898
4.36, 2, 29.7383, 51.0116, 5.1131, 18.546, -74.4017, -21.898
4.364, 2, 29.7383, 51.0116, 5.1131, 18.546, -74.4017, -21.898
4.368, 2, 29.7383, 51.0116, 5.1131, 18.546, -74.4017, -21.898
4.372, 2, 29.7383, 51.0116, 5.1131, 18.546, -74.4017, -21.898
4.376, 2, 29.7383, 51.0116, 5.1131, 18.546, -74.4017, -21.898
4.38, 2, 29.7383, 51.0116, 5.1131, 18.546, -74.4017, -21.898
4.384, 2, 29.7383, 51.0116, 5.1131, 18.546, -74.4017, -21.898
4.388, 2, 29.7383, 51.0116, 5.1131, 18.546, -74.4017, -21.898
4.392, 2, 29.7383, 51.0116, 5.1131, 18.546, -74.4017, -21.898
4.396, 2, 29.7383, 51.0116, 5.1131, 18.546, -74.4017, -21.898
4.4, 2, 29.7383, 51.0116, 5.1131, 18.546, -74.4017, -21.898
4.404, 2, 29.7383, 51.0116, 5.1131, 18.546, -74.4017, -21.898
4.408, 2, 29.7383, 51.0116, 5.1131, 18.546, -74.4017, -21.898
4.412, 2, 29.7383, 51.0116, 5.1131, 18.546, -74.4017, -21.898
4.416, 2, 29.7383, 51.0116, 5.1131, 18.546, -74.4017, -21.898
4.42, 2, 29.7383, 51.0116, 5.1131, 18.546, -74.4017, -21.898
4.424, 2, 29.7383, 51.0116, 5.1131, 18.546, -74.4017, -21.898
4.428, 2, 29.7383, 51.0116, 5.1131, 18.546, -74.4017, -21.898
4.432, 2, 29.7383, 51.0116, 5.1131, 18.546, -74.4017, -21.898
4.436, 2, 29.7383, 51.0116, 5.1131, 18.546, -74.4017, -21.898
4.44, 2, 29.7383, 51.0116, 5.1131, 18.546, -74.4017, -21.898
4.444, 2, 29.7383, 51.0116, 5.1131, 18.546, -74.4017, -21.898
4.448, 2, 29.7383, 51.0116, 5.1131, 18.546, -74.4017, -21.898
4.452, 2, 29.7383, 51.0116, 5.1131, 18.546, -74.4017, -21.898
4.456, 2, 29.7383, 51.0116, 5.1131, 18.546, -74.4017, -21.898
4.46, 3, 29.7383, 51.0116, 5.1131, 18.546, -74.4017, -21.898
4.464, 3, 29.7383, 51.0116, 5.1131, 18.546, -74.4017, -21.898
4.468, 3, 29.7383, 51.0116, 5.1131, 18.546, -74.4017, -21.898
4.472, 3, 29.7383, 51.0116, 5.1131, 18.546, -74.4017, -21.898
4.476, 3, 29.7383, 51.0116, 5.1131, 18.546, -74.4017, -21.898
4.48, 3, 29.7383, 51.0116, 5.1131, 18.546, -74.4017, -21.898
4.484, 3, 29.7383, 51.0116, 5.1131, 18.546, -74.4017, -21.898
4.488, 3, 29.7383, 51.0116, 5.1131, 18.546, -74.4017, -21.898
4.492, 3, 29.7383, 51.0116, 5.1131, 18.546, -74.4017, -21.898
4.496, 4, 29.7383, 51.0116, 5.1131, 18.546, -74.4017, -21.898
4.5, 4, 29.7383, 51.0116, 5.1131, 18.546, -74.4017, -21.898
4.504, 4, 29.7383, 51.0116, 5.1131, 18.546, -74.4017, -21.898
4.508, 4, 29.7383, 51.0116, 5.1131, 18.546, -74.4017, -21.898
4.512, 4, 29.7383, 51.0116, 5.1131, 18.546, -74.4017, -21.898
4.516, 4, 29.7383, 51.0116, 5.1131, 18.546, -74.4017, -21.898
4.52, 4, 29.7383, 51.0116, 5.1131, 18.546, -74.4017, -21.898
4.524, 4, 29.7383, 51.0116, 5.1131, 18.546, -74.4017, -21.898
4.528, 4, 29.7383, 51.0116, 5.1131, 18.546, -74.4017, -21.898
4.532, 4, 29.7383, 51.0116, 5.1131, 18.546, -74.4017, -21.898
4.536, 4, 29.7383, 51.0116, 5.1131, 18.546, -74.4017, -21.898
4.54, 4, 29.7383, 51.0116, 5.1131, 18.546, -74.4017, -21.898
4.544, 4, 29.7383, 51.0116, 5.1131, 18.546, -74.4017, -21.898
4.548, 4, 29.7383, 51.0116, 5.1131, 18.546, -74.4017, -21.898
4.552, 4, 29.7383, 51.0116, 5.1131, 18.546, -74.4017, -21.898
4.556, 4, 29.7383, 51.0116, 5.1131, 18.546, -74.4017, -21.898
4.56, 4, 29.7383, 51.0116, 5.1131, 18.546, -74.4017, -21.898
4.564, 4, 29.7383, 51.0116, 5.1131, 18.546, -74.4017, -21.898
4.568, 4, 29.7383, 51.0116, 5.1131, 18.546, -74.4017, -21.898
4.572, 4, 29.7383, 51.0116, 5.1131, 18.546, -74.4017, -21.898
4.576, 4, 29.7383, 51.0116, 5.1131, 18.546, -74.4017, -21.898
4.58, 4, 29.7383, 51.0116, 5.1131, 18.546, -74.4017, -21.898
4.584, 4, 29.7383, 51.0116, 5.1131, 18.546, -74.4017, -21.898
4.588, 4, 29.7383, 51.0116, 5.1131, 18.546, -74.4017, -21.898
4.592, 4, 29.7383, 51.0116, 5.1131, 18.546, -74.4017, -21.898
4.596, 5, 29.7383, 51.0116, 5.1131, 18.546, -74.4017, -21.898
4.6, 6, 29.7383, 51.0116, 5.1131, 18.546, -74.4017, -21.898
4.604, 6, 29.7383, 51.0116, 5.1131, 18.546, -74.4017, -21.898
4.608, 6, 29.7383, 51.0116, 5.1131, 18.546, -74.4017, -21.898
4.612, 6, 29.7383, 51.0116, 5.1131, 18.546, -74.4017, -21.898
4.616, 6, 29.7383, 51.0116, 5.1131, 18.546, -74.4017, -21.898
4.62, 6, 29.7383, 51.0116, 5.1131, 18.546, -74.4017, -21.898
4.624, 6, 29.7383, 51.0116, 5.1131, 18.546, -74.4017, -21.898
4.628, 6, 29.7383, 51.0116, 5.1131, 18.546, -74.4017, -21.898
4.632, 6, 29.7382, 51.0116, 5.1131, 18.546, -74.4017, -21.898
4.636, 6, 29.738, 51.0116, 5.11313, 18.546, -74.4017, -21.8981
4.64, 6, 29.7374, 51.0115, 5.1132, 18.5461, -74.4017, -21.8982
4.644, 6, 29.7365, 51.0114, 5.11338, 18.5462, -74.4017, -21.8985
4.648, 6, 29.7349, 51.0112, 5.11375, 18.5464, -74.4016, -21.8992
4.652, 6, 29.7327, 51.0109, 5.11445, 18.5467, -74.4014, -21.9007
4.656, 6, 29.7299, 51.0104, 5.11564, 18.5474, -74.4011, -21.9036
4.66, 6, 29.7264, 51.0095, 5.11757, 18.5485, -74.4005, -21.9086
4.664, 6, 29.7222, 51.0083, 5.12051, 18.5503, -74.3996, -21.9165
4.668, 6, 29.7174, 51.0066, 5.1248, 18.553, -74.3983, -21.9286
4.672, 6, 29.7119, 51.0043, 5.13082, 18.5567, -74.3964, -21.946
4.676, 6, 29.7055, 51.0011, 5.139, 18.5618, -74.3937, -21.97
4.68, 6, 29.6981, 50.9971, 5.14977, 18.5687, -74.3902, -22.0021
4.684, 6, 29.6897, 50.992, 5.16359, 18.5775, -74.3857, -22.0439
4.688, 6, 29.6804, 50.9857, 5.18089, 18.5886, -74.38, -22.0967
4.692, 6, 29.6702, 50.9781, 5.20208, 18.6022, -74.373, -22.162
4.696, 6, 29.6591, 50.9691, 5.22746, 18.6187, -74.3646, -22.2409
4.7, 6, 29.6473, 50.9588, 5.25729, 18.6381, -74.3547, -22.3342
4.704, 6, 29.6347, 50.9469, 5.29171, 18.6605, -74.3433, -22.4423
4.708, 6, 29.6212, 50.9337, 5.33074, 18.6859, -74.3304, -22.5652
4.712, 6, 29.6068, 50.9189, 5.37429, 18.7144, -74.316, -22.7027
4.716, 6, 29.5914, 50.9028, 5.42221, 18.7457, -74.3003, -22.8539
4.72, 6, 29.575, 50.8852, 5.47421, 18.7797, -74.2834, -23.018
4.724, 6, 29.5576, 50.8664, 5.52995, 18.8161, -74.2654, -23.1938
4.728, 6, 29.5394, 50.8465, 5.58905, 18.8546, -74.2464, -23.38
4.732, 6, 29.5204, 50.8254, 5.65108, 18.8951, -74.2267, -23.5751
4.736, 6, 29.5006, 50.8035, 5.71563, 18.9372, -74.2063, -23.7777
4.74, 6, 29.4799, 50.7806, 5.78226, 18.9805, -74.1856, -23.9863
4.744, 6, 29.4583, 50.7571, 5.85059, 19.0249, -74.1645, -24.1997
4.748, 6, 29.4359, 50.7328, 5.92027, 19.0701, -74.1433, -24.4165
4.752, 6, 29.4125, 50.7081, 5.991, 19.1159, -74.122, -24.636
4.756, 6, 29.3883, 50.6828, 6.06255, 19.1621, -74.1008, -24.8572
4.76, 6, 29.3634, 50.6571, 6.13472, 19.2087, -74.0796, -25.0798
4.764, 6, 29.3379, 50.631, 6.20738, 19.2555, -74.0586, -25.3033
4.768, 6, 29.3122, 50.6046, 6.28043, 19.3025, -74.0377, -25.5274
4.772, 6, 29.2862, 50.5779, 6.3538, 19.3496, -74.017, -25.752
4.776, 6, 29.26, 50.5509, 6.42744, 19.3969, -73.9965, -25.9769
4.78, 6, 29.2336, 50.5236, 6.50133, 19.4442, -73.9762, -26.2021
4.784, 6, 29.2072, 50.4961, 6.57544, 19.4917, -73.9561, -26.4275
4.788, 6, 29.1807, 50.4683, 6.64975, 19.5392, -73.9362, -26.6531
4.792, 6, 29.1541, 50.4403, 6.72426, 19.5868, -73.9166, -26.8788
4.796, 6, 29.1275, 50.412, 6.79897, 19.6344, -73.8971, -27.1046
4.8, 6, 29.1008, 50.3835, 6.87385, 19.6821, -73.8778, -27.3306
4.804, 6, 29.0741, 50.3547, 6.94892, 19.7299, -73.8588, -27.5567
4.808, 6, 29.0474, 50.3257, 7.02417, 19.7777, -73.8399, -27.7829
4.812, 6, 29.0206, 50.2964, 7.09959, 19.8256, -73.8213, -28.0091
4.816, 6, 28.9938, 50.2669, 7.17519, 19.8736, -73.8029, -28.2355
4.82, 6, 28.967, 50.2371, 7.25096, 19.9216, -73.7847, -28.462
4.824, 6, 28.9401, 50.2071, 7.3269, 19.9696, -73.7667, -28.6885
4.828, 6, 28.9132, 50.1769, 7.40301, 20.0177, -73.7489, -28.9152
4.832, 6, 28.8863, 50.1464, 7.47929, 20.0659, -73.7313, -29.142
4.836, 6, 28.8594, 50.1156, 7.55573, 20.1141, -73.7139, -29.3688
4.84, 7, 28.8324, 50.0846, 7.63235, 20.1623, -73.6967, -29.5957
4.844, 7, 28.8055, 50.0533, 7.70913, 20.2106, -73.6797, -29.8228
4.848, 7, 28.7785, 50.0218, 7.78608, 20.259, -73.6629, -30.0499
4.852, 7, 28.7515, 49.9901, 7.86319, 20.3074, -73.6463, -30.2771
4.856, 7, 28.7244, 49.9581, 7.94046, 20.3559, -73.6299, -30.5044
4.86, 7, 28.6973, 49.9258, 8.0179, 20.4044, -73.6137, -30.7318
4.864, 7, 28.6703, 49.8933, 8.0955, 20.4529, -73.5977, -30.9593
4.868, 7, 28.6431, 49.8606, 8.17325, 20.5015, -73.5819, -31.1869
4.872, 7, 28.616, 49.8276, 8.25117, 20.5502, -73.5663, -31.4146
4.876, 7, 28.5889, 49.7943, 8.32925, 20.5989, -73.5509, -31.6424
4.88, 7, 28.5617, 49.7608, 8.40748, 20.6476, -73.5357, -31.8703
4.884, 7, 28.5345, 49.7271, 8.48588, 20.6964, -73.5206, -32.0982
4.888, 7, 28.5073, 49.693, 8.56442, 20.7452, -73.5058, -32.3263
4.892, 7, 28.4801, 49.6588, 8.64313, 20.7941, -73.4911, -32.5544
4.896, 7, 28.4529, 49.6243, 8.72198, 20.843, -73.4767, -32.7827
4.9, 7, 28.4256, 49.5895, 8.80099, 20.892, -73.4624, -33.011
4.904, 7, 28.3983, 49.5545, 8.88016, 20.941, -73.4483, -33.2395
4.908, 7, 28.371, 49.5192, 8.95947, 20.99, -73.4343, -33.468
4.912, 7, 28.3437, 49.4837, 9.03894, 21.0391, -73.4206, -33.6966
4.916, 7, 28.3164, 49.4479, 9.11855, 21.0883, -73.4071, -33.9253
4.92, 7, 28.2891, 49.4118, 9.19831, 21.1374, -73.3937, -34.1541
4.924, 7, 28.2617, 49.3756, 9.27822, 21.1866, -73.3805, -34.383
4.928, 7, 28.2344, 49.339, 9.35828, 21.2359, -73.3675, -34.612
4.932, 7, 28.207, 49.3022, 9.43848, 21.2852, -73.3546, -34.8411
4.936, 7, 28.1796, 49.2651, 9.51883, 21.3345, -73.342, -35.0703
4.94, 7, 28.1522, 49.2278, 9.59932, 21.3838, -73.3295, -35.2996
4.944, 7, 28.1248, 49.1902, 9.67996, 21.4332, -73.3171, -35.5289
4.948, 7, 28.0974, 49.1524, 9.76073, 21.4827, -73.305, -35.7584
4.952, 7, 28.0699, 49.1143, 9.84165, 21.5322, -73.293, -35.988
4.956, 7, 28.0425, 49.076, 9.92271, 21.5817, -73.2812, -36.2176
4.96, 7, 28.015, 49.0373, 10.0039, 21.6312, -73.2696, -36.4474
4.964, 7, 27.9876, 48.9985, 10.0853, 21.6808, -73.2581, -36.6773
4.968, 7, 27.9601, 48.9594, 10.1667, 21.7304, -73.2468, -36.9072
4.972, 7, 27.9326, 48.92, 10.2483, 21.7801, -73.2356, -37.1373
4.976, 7, 27.9051, 48.8803, 10.3301, 21.8297, -73.2246, -37.3675
4.98, 7, 27.8776, 48.8404, 10.412, 21.8795, -73.2138, -37.5978
4.984, 7, 27.8501, 48.8003, 10.494, 21.9292, -73.2031, -37.8281
4.988, 7, 27.8226, 48.7598, 10.5762, 21.979, -73.1926, -38.0586
4.992, 7, 27.7951, 48.7191, 10.6584, 22.0288, -73.1822, -38.2892
4.996, 7, 27.7676, 48.6782, 10.7409, 22.0787, -73.172, -38.5199
5, 7, 27.74, 48.637, 10.8234, 22.1286, -73.162, -38.7507
5.004, 7, 27.7125, 48.5955, 10.9061, 22.1785, -73.1521, -38.9816
5.008, 7, 27.685, 48.5538, 10.9889, 22.2285, -73.1424, -39.2126
5.012, 7, 27.6574, 48.5118, 11.0718, 22.2785, -73.1328, -39.4437
5.016, 7, 27.6299, 48.4695, 11.1549, 22.3285, -73.1233, -39.6749
5.02, 7, 27.6024, 48.427, 11.2381, 22.3786, -73.114, -39.9062
5.024, 7, 27.5748, 48.3842, 11.3214, 22.4287, -73.1049, -40.1376
5.028, 7, 27.5473, 48.3412, 11.4048, 22.4788, -73.0959, -40.3691
5.032, 7, 27.5197, 48.2979, 11.4883, 22.529, -73.087, -40.6007
5.036, 7, 27.4922, 48.2543, 11.572, 22.5792, -73.0783, -40.8325
5.04, 7, 27.4646, 48.2104, 11.6558, 22.6294, -73.0697, -41.0643
5.044, 7, 27.4371, 48.1663, 11.7397, 22.6797, -73.0613, -41.2963
5.048, 7, 27.4096, 48.122, 11.8237, 22.7299, -73.053, -41.5283
5.052, 7, 27.382, 48.0773, 11.9079, 22.7803, -73.0449, -41.7605
5.056, 7, 27.3545, 48.0324, 11.9921, 22.8306, -73.0368, -41.9928
5.06, 7, 27.327, 47.9873, 12.0765, 22.881, -73.0289, -42.2252
5.064, 7, 27.2994, 47.9418, 12.161, 22.9314, -73.0212, -42.4577
5.068, 7, 27.2719, 47.8962, 12.2456, 22.9819, -73.0136, -42.6903
5.072, 7, 27.2444, 47.8502, 12.3303, 23.0323, -73.0061, -42.923
5.076, 7, 27.2169, 47.804, 12.4151, 23.0828, -72.9987, -43.1558
5.08, 7, 27.1894, 47.7575, 12.5, 23.1334, -72.9915, -43.3887
5.084, 7, 27.1619, 47.7107, 12.5851, 23.1839, -72.9844, -43.6218
5.088, 7, 27.1344, 47.6637, 12.6702, 23.2345, -72.9774, -43.8549
5.092, 7, 27.1069, 47.6164, 12.7554, 23.2851, -72.9705, -44.0882
5.096, 7, 27.0794, 47.5688, 12.8408, 23.3358, -72.9638, -44.3216
5.1, 7, 27.052, 47.5211, 12.9262, 23.3865, -72.9571, -44.5551
5.104, 8, 27.0247, 47.4732, 13.0117, 23.4372, -72.9506, -44.7886
5.108, 8, 26.9975, 47.4254, 13.0972, 23.4878, -72.9443, -45.0221
5.112, 8, 26.9704, 47.3779, 13.1826, 23.5384, -72.9381, -45.2555
5.116, 8, 26.9432, 47.3306, 13.268, 23.5888, -72.9321, -45.4883
5.12, 8, 26.9156, 47.2836, 13.3532, 23.6388, -72.9265, -45.7201
5.124, 8, 26.8873, 47.2371, 13.4381, 23.6882, -72.9214, -45.9504
5.128, 8, 26.8583, 47.191, 13.5228, 23.7367, -72.917, -46.1786
5.132, 8, 26.8284, 47.1455, 13.6071, 23.784, -72.9137, -46.4038
5.136, 8, 26.7977, 47.1004, 13.6912, 23.8296, -72.9119, -46.6255
5.14, 8, 26.7661, 47.0561, 13.775, 23.8731, -72.9118, -46.8429
5.144, 8, 26.734, 47.0125, 13.8586, 23.914, -72.9141, -47.0553
5.148, 8, 26.7013, 46.9698, 13.9422, 23.9518, -72.9193, -47.262
5.152, 8, 26.6682, 46.9279, 14.0259, 23.9859, -72.9278, -47.4623
5.156, 8, 26.6344, 46.8867, 14.1099, 24.0158, -72.9402, -47.6557
5.16, 8, 26.6001, 46.8462, 14.1944, 24.0411, -72.9569, -47.8417
5.164, 8, 26.5653, 46.8061, 14.2795, 24.0614, -72.9784, -48.0199
5.168, 8, 26.5299, 46.7666, 14.3655, 24.0764, -73.0051, -48.1903
5.172, 8, 26.4939, 46.7275, 14.4525, 24.086, -73.0369, -48.3529
5.176, 8, 26.4574, 46.6889, 14.5407, 24.0901, -73.074, -48.508
5.18, 8, 26.4203, 46.6508, 14.63, 24.089, -73.1162, -48.656
5.184, 8, 26.3826, 46.6134, 14.7205, 24.0828, -73.1633, -48.7975
5.188, 8, 26.3442, 46.5766, 14.8121, 24.0719, -73.2149, -48.9329
5.192, 8, 26.305, 46.5402, 14.9049, 24.0567, -73.2706, -49.0629
5.196, 8, 26.2651, 46.5043, 14.9987, 24.0376, -73.3299, -49.1881
5.2, 9, 26.2244, 46.4688, 15.0933, 24.0151, -73.3923, -49.3092
5.204, 9, 26.1829, 46.4337, 15.1887, 23.9898, -73.4573, -49.4268
5.208, 9, 26.1405, 46.399, 15.2847, 23.9621, -73.5242, -49.5416
5.212, 9, 26.0971, 46.3647, 15.3811, 23.9325, -73.5927, -49.6541
5.216, 9, 26.0529, 46.3308, 15.478, 23.9014, -73.6624, -49.765
5.22, 9, 26.0078, 46.2974, 15.5751, 23.8692, -73.7327, -49.8746
5.224, 9, 25.9619, 46.2642, 15.6724, 23.836, -73.8036, -49.9834
5.228, 9, 25.9154, 46.2312, 15.7699, 23.8021, -73.8748, -50.0916
5.232, 9, 25.8684, 46.1982, 15.8676, 23.7677, -73.9461, -50.1995
5.236, 9, 25.821, 46.1653, 15.9653, 23.7327, -74.0175, -50.3071
5.24, 9, 25.7734, 46.1323, 16.0632, 23.6974, -74.0889, -50.4146
5.244, 9, 25.7255, 46.0991, 16.1612, 23.6617, -74.1602, -50.522
5.248, 9, 25.6774, 46.0657, 16.2593, 23.6257, -74.2314, -50.6294
5.252, 9, 25.6291, 46.0321, 16.3575, 23.5894, -74.3025, -50.7367
5.256, 9, 25.5807, 45.9983, 16.4558, 23.5528, -74.3734, -50.8441
5.26, 9, 25.5321, 45.9643, 16.5542, 23.5159, -74.4443, -50.9515
5.264, 9, 25.4834, 45.93, 16.6527, 23.4787, -74.5149, -51.059
5.268, 9, 25.4346, 45.8955, 16.7512, 23.4412, -74.5855, -51.1665
5.272, 9, 25.3857, 45.8608, 16.8499, 23.4035, -74.6558, -51.2741
5.276, 9, 25.3366, 45.8258, 16.9486, 23.3655, -74.726, -51.3817
5.28, 9, 25.2875, 45.7905, 17.0474, 23.3273, -74.796, -51.4894
5.284, 9, 25.2382, 45.755, 17.1463, 23.2887, -74.8659, -51.5972
5.288, 9, 25.1888, 45.7192, 17.2453, 23.2499, -74.9356, -51.705
5.292, 9, 25.1393, 45.6831, 17.3443, 23.2109, -75.0051, -51.8129
5.296, 9, 25.0896, 45.6468, 17.4435, 23.1716, -75.0744, -51.9209
5.3, 9, 25.0399, 45.6102, 17.5427, 23.132, -75.1436, -52.029
5.304, 9, 24.99, 45.5734, 17.642, 23.0921, -75.2126, -52.1371
5.308, 9, 24.9401, 45.5363, 17.7413, 23.052, -75.2813, -52.2453
5.312, 9, 24.89, 45.4989, 17.8408, 23.0116, -75.35, -52.3536
5.316, 9, 24.8398, 45.4613, 17.9403, 22.971, -75.4184, -52.4619
5.32, 9, 24.7895, 45.4234, 18.0399, 22.9301, -75.4866, -52.5703
5.324, 9, 24.7391, 45.3852, 18.1396, 22.889, -75.5546, -52.6788
5.328, 9, 24.6886, 45.3468, 18.2393, 22.8475, -75.6225, -52.7874
5.332, 9, 24.6379, 45.3081, 18.3392, 22.8058, -75.6901, -52.8961
5.336, 9, 24.5872, 45.2691, 18.4391, 22.7639, -75.7576, -53.0049
5.34, 9, 24.5363, 45.2299, 18.539, 22.7217, -75.8248, -53.1137
5.344, 9, 24.4854, 45.1904, 18.6391, 22.6792, -75.8919, -53.2226
5.348, 9, 24.4343, 45.1506, 18.7392, 22.6365, -75.9587, -53.3316
5.352, 9, 24.3831, 45.1105, 18.8394, 22.5935, -76.0254, -53.4407
5.356, 9, 24.3318, 45.0702, 18.9396, 22.5503, -76.0918, -53.5499
5.36, 9, 24.2804, 45.0296, 19.04, 22.5068, -76.158, -53.6591
5.364, 9, 24.2288, 44.9887, 19.1404, 22.463, -76.224, -53.7685
5.368, 9, 24.1772, 44.9474, 19.2408, 22.419, -76.2898, -53.8779
5.372, 9, 24.1253, 44.9057, 19.3414, 22.3747, -76.3554, -53.9874
5.376, 9, 24.0732, 44.8636, 19.442, 22.3301, -76.4207, -54.0969
5.38, 9, 24.0208, 44.8208, 19.5427, 22.2853, -76.4858, -54.2063
5.384, 9, 23.968, 44.7774, 19.6435, 22.2401, -76.5506, -54.3156
5.388, 9, 23.9149, 44.7334, 19.7445, 22.1945, -76.615, -54.4244
5.392, 9, 23.8615, 44.6886, 19.8457, 22.1485, -76.679, -54.5324
5.396, 9, 23.8077, 44.6432, 19.9472, 22.1019, -76.7424, -54.6394
5.4, 9, 23.7536, 44.5972, 20.0489, 22.0548, -76.8051, -54.7449
5.404, 9, 23.6992, 44.5506, 20.1511, 22.0069, -76.8671, -54.8484
5.408, 9, 23.6445, 44.5034, 20.2536, 21.9581, -76.9281, -54.9494
5.412, 9, 23.5895, 44.4555, 20.3567, 21.9084, -76.988, -55.0472
5.416, 10, 23.5342, 44.4069, 20.4603, 21.8576, -77.0467, -55.1415
5.42, 10, 23.4785, 44.3576, 20.5644, 21.8056, -77.1039, -55.2315
5.424, 10, 23.4225, 44.3077, 20.6692, 21.7525, -77.1597, -55.317
5.428, 10, 23.3661, 44.2571, 20.7746, 21.698, -77.2138, -55.3975
5.432, 10, 23.3095, 44.2059, 20.8805, 21.6423, -77.2662, -55.4729
5.436, 10, 23.2525, 44.154, 20.9871, 21.5853, -77.317, -55.5432
5.44, 10, 23.1951, 44.1016, 21.0941, 21.527, -77.3661, -55.6082
5.444, 10, 23.1375, 44.0485, 21.2017, 21.4675, -77.4136, -55.6685
5.448, 10, 23.0795, 43.9949, 21.3096, 21.407, -77.4595, -55.7241
5.452, 10, 23.0211, 43.9407, 21.4179, 21.3455, -77.5041, -55.7756
5.456, 10, 22.9624, 43.8859, 21.5264, 21.2831, -77.5475, -55.8235
5.46, 10, 22.9033, 43.8305, 21.6352, 21.22, -77.5897, -55.8683
5.464, 10, 22.844, 43.7746, 21.744, 21.1562, -77.6309, -55.9105
5.468, 10, 22.7843, 43.7181, 21.853, 21.0919, -77.6714, -55.9507
5.472, 10, 22.7242, 43.661, 21.9619, 21.0272, -77.7112, -55.9893
5.476, 10, 22.6639, 43.6035, 22.0708, 20.9622, -77.7504, -56.0267
5.48, 10, 22.6033, 43.5454, 22.1797, 20.8968, -77.7892, -56.0634
5.484, 10, 22.5424, 43.4869, 22.2884, 20.8313, -77.8276, -56.0995
5.488, 10, 22.4812, 43.428, 22.3971, 20.7655, -77.8658, -56.1353
5.492, 10, 22.4198, 43.3688, 22.5057, 20.6996, -77.9036, -56.171
5.496, 10, 22.3583, 43.3093, 22.6141, 20.6335, -77.9412, -56.2065
5.5, 10, 22.2965, 43.2497, 22.7224, 20.5673, -77.9786, -56.242
5.504, 10, 22.2346, 43.19, 22.8306, 20.501, -78.0157, -56.2776
5.508, 10, 22.1726, 43.13, 22.9386, 20.4346, -78.0527, -56.3132
5.512, 10, 22.1105, 43.07, 23.0465, 20.368, -78.0895, -56.3489
5.516, 10, 22.0482, 43.0099, 23.1542, 20.3013, -78.126, -56.3848
5.52, 10, 21.9858, 42.9496, 23.2618, 20.2346, -78.1624, -56.4207
5.524, 10, 21.9233, 42.8892, 23.3692, 20.1677, -78.1986, -56.4567
5.528, 10, 21.8607, 42.8288, 23.4765, 20.1007, -78.2346, -56.4929
5.532, 10, 21.7979, 42.7682, 23.5836, 20.0336, -78.2704, -56.5291
5.536, 10, 21.7351, 42.7076, 23.6906, 19.9664, -78.306, -56.5655
5.54, 10, 21.6721, 42.6468, 23.7975, 19.899, -78.3414, -56.6021
5.544, 10, 21.6091, 42.586, 23.9042, 19.8316, -78.3766, -56.6387
5.548, 10, 21.5459, 42.525, 24.0107, 19.7641, -78.4116, -56.6755
5.552, 10, 21.4826, 42.464, 24.1171, 19.6964, -78.4465, -56.7124
5.556, 10, 21.4192, 42.4028, 24.2234, 19.6287, -78.4811, -56.7494
5.56, 10, 21.3557, 42.3416, 24.3295, 19.5608, -78.5155, -56.7865
5.564, 10, 21.2921, 42.2803, 24.4354, 19.4928, -78.5497, -56.8238
5.568, 10, 21.2284, 42.2188, 24.5412, 19.4248, -78.5838, -56.8612
5.572, 10, 21.1646, 42.1573, 24.6469, 19.3566, -78.6176, -56.8987
5.576, 10, 21.1007, 42.0956, 24.7524, 19.2883, -78.6512, -56.9363
5.58, 10, 21.0366, 42.0339, 24.8577, 19.2198, -78.6847, -56.9741
5.584, 10, 20.9725, 41.972, 24.9629, 19.1513, -78.7179, -57.012
5.588, 10, 20.9082, 41.91, 25.068, 19.0827, -78.7509, -57.05
5.592, 10, 20.8438, 41.848, 25.1729, 19.0139, -78.7837, -57.0881
5.596, 10, 20.7793, 41.7858, 25.2776, 18.9451, -78.8163, -57.1263
5.6, 10, 20.7147, 41.7236, 25.3822, 18.8761, -78.8487, -57.1647
5.604, 10, 20.65, 41.6612, 25.4867, 18.807, -78.8809, -57.2032
5.608, 10, 20.5852, 41.5987, 25.591, 18.7378, -78.9129, -57.2418
5.612, 10, 20.5203, 41.5361, 25.6951, 18.6685, -78.9447, -57.2805
5.616, 10, 20.4553, 41.4735, 25.7991, 18.5991, -78.9763, -57.3194
5.62, 10, 20.3901, 41.4107, 25.9029, 18.5296, -79.0076, -57.3583
5.624, 10, 20.3249, 41.3478, 26.0066, 18.4599, -79.0388, -57.3974
5.628, 10, 20.2595, 41.2848, 26.1101, 18.3902, -79.0697, -57.4366
5.632, 10, 20.194, 41.2217, 26.2135, 18.3203, -79.1004, -57.4759
5.636, 10, 20.1284, 41.1584, 26.3168, 18.2503, -79.1309, -57.5154
5.64, 10, 20.0627, 41.0951, 26.4198, 18.1802, -79.1612, -57.5549
5.644, 10, 19.9969, 41.0317, 26.5228, 18.1099, -79.1912, -57.5946
5.648, 10, 19.9308, 40.9682, 26.6255, 18.0396, -79.2211, -57.6344
5.652, 10, 19.8643, 40.9047, 26.7281, 17.9691, -79.2507, -57.6742
5.656, 10, 19.7973, 40.8412, 26.8305, 17.8984, -79.2801, -57.714
5.66, 10, 19.7296, 40.7779, 26.9326, 17.8274, -79.3094, -57.7535
5.664, 10, 19.6611, 40.7149, 27.0346, 17.7559, -79.3385, -57.7922
5.668, 10, 19.5916, 40.6521, 27.1363, 17.6836, -79.3675, -57.8296
5.672, 10, 19.5211, 40.5896, 27.2378, 17.61, -79.3966, -57.8647
5.676, 10, 19.4496, 40.5272, 27.3392, 17.5348, -79.4259, -57.8965
5.68, 10, 19.3771, 40.4648, 27.4405, 17.4571, -79.4555, -57.9236
5.684, 10, 19.3038, 40.4024, 27.5418, 17.3765, -79.4856, -57.9447
5.688, 10, 19.2297, 40.3396, 27.6433, 17.2922, -79.5164, -57.9584
5.692, 10, 19.155, 40.2764, 27.745, 17.2036, -79.548, -57.9636
5.696, 10, 19.0797, 40.2127, 27.8471, 17.1104, -79.5805, -57.9593
5.7, 10, 19.0039, 40.1485, 27.9497, 17.0122, -79.6139, -57.945
5.704, 11, 18.9279, 40.0837, 28.0528, 16.909, -79.6482, -57.9207
5.708, 11, 18.8516, 40.0184, 28.1564, 16.801, -79.6832, -57.8866
5.712, 11, 18.7752, 39.9528, 28.2606, 16.6886, -79.7188, -57.8436
5.716, 11, 18.6987, 39.887, 28.3652, 16.5725, -79.7545, -57.7927
5.72, 11, 18.6219, 39.8209, 28.4702, 16.4534, -79.7903, -57.7355
5.724, 11, 18.5447, 39.7547, 28.5755, 16.3322, -79.8256, -57.6737
5.728, 11, 18.4671, 39.6883, 28.6811, 16.2099, -79.8603, -57.609
5.732, 11, 18.3886, 39.6219, 28.7866, 16.0873, -79.894, -57.5432
5.736, 11, 18.3093, 39.5554, 28.8922, 15.9654, -79.9263, -57.478
5.74, 11, 18.229, 39.4889, 28.9975, 15.8448, -79.9573, -57.4148
5.744, 11, 18.1477, 39.4224, 29.1025, 15.726, -79.9866, -57.3546
5.748, 11, 18.0655, 39.3559, 29.2072, 15.6093, -80.0143, -57.2981
5.752, 11, 17.9825, 39.2893, 29.3116, 15.495, -80.0403, -57.2455
5.756, 11, 17.8988, 39.2225, 29.4155, 15.3828, -80.0649, -57.1969
5.76, 11, 17.8147, 39.1555, 29.5191, 15.2726, -80.0881, -57.1519
5.764, 11, 17.7304, 39.088, 29.6223, 15.1641, -80.1102, -57.11
5.768, 11, 17.6463, 39.0202, 29.7252, 15.0568, -80.1313, -57.0706
5.772, 11, 17.5626, 38.9519, 29.8279, 14.9505, -80.1516, -57.0331
5.776, 11, 17.4794, 38.8832, 29.9303, 14.8447, -80.1714, -56.9972
5.78, 11, 17.3969, 38.8142, 30.0325, 14.7393, -80.1907, -56.9622
5.784, 11, 17.3149, 38.745, 30.1345, 14.6341, -80.2096, -56.928
5.788, 11, 17.2333, 38.6757, 30.2362, 14.5289, -80.2282, -56.8944
5.792, 11, 17.1518, 38.6062, 30.3377, 14.4236, -80.2466, -56.8611
5.796, 11, 17.0702, 38.5367, 30.439, 14.3182, -80.2648, -56.8281
5.8, 11, 16.9886, 38.4671, 30.5399, 14.2127, -80.2828, -56.7954
5.804, 11, 16.9068, 38.3975, 30.6406, 14.1071, -80.3006, -56.7628
5.808, 11, 16.8247, 38.3278, 30.741, 14.0013, -80.3182, -56.7303
5.812, 11, 16.7425, 38.2582, 30.8411, 13.8954, -80.3356, -56.698
5.816, 11, 16.66, 38.1886, 30.9409, 13.7893, -80.3529, -56.6658
5.82, 11, 16.5773, 38.1191, 31.0403, 13.683, -80.37, -56.6337
5.824, 11, 16.4945, 38.0496, 31.1395, 13.5766, -80.3869, -56.6016
5.828, 11, 16.4114, 37.9802, 31.2383, 13.47, -80.4037, -56.5697
5.832, 11, 16.3282, 37.9109, 31.3367, 13.3632, -80.4203, -56.5379
5.836, 11, 16.2447, 37.8416, 31.4349, 13.2563, -80.4367, -56.5061
5.84, 11, 16.1611, 37.7724, 31.5327, 13.1492, -80.453, -56.4744
5.844, 11, 16.0773, 37.7033, 31.6302, 13.0419, -80.4691, -56.4428
5.848, 11, 15.9932, 37.6343, 31.7273, 12.9345, -80.485, -56.4113
5.852, 11, 15.909, 37.5654, 31.8241, 12.8269, -80.5008, -56.3799
5.856, 11, 15.8247, 37.4966, 31.9206, 12.7191, -80.5164, -56.3485
5.86, 11, 15.7401, 37.4279, 32.0168, 12.6112, -80.5318, -56.3172
5.864, 11, 15.6554, 37.3592, 32.1126, 12.5031, -80.5471, -56.286
5.868, 11, 15.5704, 37.2907, 32.2081, 12.3948, -80.5622, -56.2549
5.872, 11, 15.4853, 37.2222, 32.3032, 12.2864, -80.5771, -56.2238
5.876, 11, 15.4, 37.1538, 32.398, 12.1777, -80.5919, -56.1928
5.88, 11, 15.3145, 37.0855, 32.4925, 12.069, -80.6064, -56.1619
5.884, 11, 15.2288, 37.0173, 32.5867, 11.96, -80.6209, -56.131
5.888, 11, 15.143, 36.9491, 32.6805, 11.8509, -80.6351, -56.1002
5.892, 11, 15.0569, 36.8811, 32.7739, 11.7416, -80.6492, -56.0695
5.896, 11, 14.9707, 36.8132, 32.8671, 11.6321, -80.6631, -56.0388
5.9, 11, 14.8843, 36.7453, 32.9599, 11.5225, -80.6768, -56.0082
5.904, 11, 14.7977, 36.6775, 33.0523, 11.4127, -80.6904, -55.9777
5.908, 11, 14.7109, 36.6098, 33.1445, 11.3027, -80.7038, -55.9472
5.912, 11, 14.6239, 36.5422, 33.2363, 11.1926, -80.717, -55.9168
5.916, 11, 14.5368, 36.4747, 33.3277, 11.0823, -80.7301, -55.8864
5.92, 11, 14.4494, 36.4073, 33.4188, 10.9718, -80.743, -55.8562
5.924, 11, 14.3619, 36.34, 33.5096, 10.8612, -80.7557, -55.8259
5.928, 11, 14.2742, 36.2727, 33.6001, 10.7503, -80.7682, -55.7957
5.932, 11, 14.1863, 36.2056, 33.6902, 10.6394, -80.7806, -55.7656
5.936, 11, 14.0982, 36.1385, 33.78, 10.5282, -80.7928, -55.7355
5.94, 11, 14.0098, 36.0715, 33.8694, 10.4169, -80.8048, -55.7055
5.944, 11, 13.9211, 36.0045, 33.9585, 10.3053, -80.8166, -55.6755
5.948, 11, 13.8319, 35.9374, 34.0472, 10.1936, -80.8283, -55.6455
5.952, 11, 13.7423, 35.8703, 34.1357, 10.0816, -80.8398, -55.6153
5.956, 11, 13.6521, 35.8031, 34.2238, 9.9692, -80.851, -55.5847
5.96, 11, 13.5613, 35.7358, 34.3116, 9.85634, -80.8621, -55.5534
5.964, 11, 13.4699, 35.6683, 34.3992, 9.7428, -80.8729, -55.5211
5.968, 11, 13.378, 35.6007, 34.4866, 9.62838, -80.8833, -55.4872
5.972, 11, 13.2855, 35.5329, 34.5738, 9.51279, -80.8935, -55.4512
5.976, 11, 13.1924, 35.465, 34.6608, 9.39575, -80.9032, -55.4122
5.98, 11, 13.0986, 35.3969, 34.7478, 9.27695, -80.9125, -55.3696
5.984, 11, 13.004, 35.3286, 34.8347, 9.15606, -80.9213, -55.3227
5.988, 11, 12.9085, 35.26, 34.9216, 9.03275, -80.9296, -55.2705
5.992, 11, 12.8122, 35.1912, 35.0086, 8.90671, -80.9372, -55.2126
5.996, 11, 12.7148, 35.1221, 35.0956, 8.77765, -80.9443, -55.1481
6, 11, 12.6166, 35.0528, 35.1827, 8.64533, -80.9506, -55.0765
6.004, 11, 12.5174, 34.9833, 35.27, 8.50958, -80.9563, -54.9977
6.008, 11, 12.4173, 34.9135, 35.3574, 8.37032, -80.9613, -54.9114
6.012, 11, 12.3163, 34.8436, 35.4448, 8.22755, -80.9656, -54.8176
6.016, 11, 12.2143, 34.7736, 35.5324, 8.08136, -80.9693, -54.7168
6.02, 11, 12.1113, 34.7033, 35.62, 7.93191, -80.9725, -54.6093
6.024, 11, 12.0073, 34.6328, 35.7076, 7.77943, -80.9751, -54.4956
6.028, 11, 11.9022, 34.5622, 35.7951, 7.62418, -80.9773, -54.3765
6.032, 11, 11.7963, 34.4916, 35.8824, 7.46643, -80.979, -54.2527
6.036, 11, 11.6895, 34.4209, 35.9696, 7.30648, -80.9805, -54.1249
6.04, 12, 11.5819, 34.3502, 36.0565, 7.14465, -80.9817, -53.9937
6.044, 12, 11.4735, 34.2796, 36.143, 6.98121, -80.9827, -53.86
6.048, 12, 11.3644, 34.2091, 36.2291, 6.81645, -80.9835, -53.7242
6.052, 12, 11.2545, 34.1387, 36.3148, 6.65059, -80.9842, -53.587
6.056, 12, 11.1439, 34.0683, 36.4, 6.48385, -80.9848, -53.4487
6.06, 12, 11.0325, 33.9981, 36.4846, 6.31637, -80.9853, -53.3096
6.064, 12, 10.9204, 33.928, 36.5687, 6.14829, -80.9858, -53.1699
6.068, 12, 10.8077, 33.8582, 36.6521, 5.97967, -80.9862, -53.03
6.072, 12, 10.6946, 33.7887, 36.735, 5.81059, -80.9867, -52.8897
6.076, 12, 10.581, 33.7195, 36.8172, 5.64107, -80.9871, -52.7493
6.08, 12, 10.467, 33.6506, 36.8988, 5.47116, -80.9874, -52.6088
6.084, 12, 10.3527, 33.5821, 36.9797, 5.30085, -80.9878, -52.4681
6.088, 12, 10.238, 33.5141, 37.06, 5.13018, -80.9882, -52.3274
6.092, 12, 10.1229, 33.4464, 37.1397, 4.95915, -80.9885, -52.1867
6.096, 12, 10.0076, 33.3792, 37.2187, 4.78776, -80.9888, -52.0459
6.1, 12, 9.89195, 33.3124, 37.2971, 4.61602, -80.9892, -51.905
6.104, 12, 9.77599, 33.246, 37.3748, 4.44394, -80.9895, -51.7642
6.108, 12, 9.65973, 33.1801, 37.4519, 4.27151, -80.9898, -51.6233
