hehonglu123/Motion-Primitive-Planning/ILC/recorded_data/realrobot/from_NX/iteration_2/run_0.csv
timestamp, cmd_num, J1, J2, J3, J4, J5, J6
0.000371, -1, 39.6311, 32.4445, 11.8317, 12.5471, 113.714, -48.8708
0.003068, -1, 39.6311, 32.4445, 11.8317, 12.5471, 113.714, -48.8708
0.007972, -1, 39.6311, 32.4445, 11.8317, 12.5471, 113.714, -48.8708
0.028531, -1, 39.6312, 32.4445, 11.8317, 12.5471, 113.714, -48.8708
0.031227, -1, 39.6312, 32.4445, 11.8317, 12.5471, 113.714, -48.8708
0.032539, -1, 39.6312, 32.4445, 11.8317, 12.5471, 113.714, -48.8708
0.039832, -1, 39.6312, 32.4445, 11.8317, 12.5471, 113.714, -48.8708
0.047778, -1, 39.6311, 32.4445, 11.8317, 12.5471, 113.714, -48.8707
0.055851, -1, 39.6307, 32.4445, 11.8317, 12.5471, 113.714, -48.8708
0.188538, -1, 38.5098, 31.8752, 12.0439, 12.5572, 113.139, -50.3429
0.189786, -1, 38.5098, 31.8752, 12.0439, 12.5572, 113.139, -50.3429
0.191937, -1, 38.4266, 31.8315, 12.0628, 12.5584, 113.091, -50.4641
0.1932, -1, 38.4266, 31.8315, 12.0628, 12.5584, 113.091, -50.4641
0.194501, -1, 38.4266, 31.8315, 12.0628, 12.5584, 113.091, -50.4641
0.197228, -1, 38.3413, 31.7868, 12.0821, 12.5596, 113.042, -50.5874
0.198692, -1, 38.3413, 31.7868, 12.0821, 12.5596, 113.042, -50.5874
0.201839, -1, 38.2544, 31.7412, 12.1016, 12.5608, 112.993, -50.7124
0.204004, -1, 38.1659, 31.6948, 12.121, 12.562, 112.943, -50.8386
0.205252, -1, 38.1659, 31.6948, 12.121, 12.562, 112.943, -50.8386
0.20653, -1, 38.1659, 31.6948, 12.121, 12.562, 112.943, -50.8386
0.208604, -1, 38.076, 31.6479, 12.1405, 12.5632, 112.893, -50.9657
0.209825, -1, 38.076, 31.6479, 12.1405, 12.5632, 112.893, -50.9657
0.212578, -1, 37.9848, 31.6004, 12.16, 12.5645, 112.842, -51.0938
0.213847, -1, 37.9848, 31.6004, 12.16, 12.5645, 112.842, -51.0938
0.216354, -1, 37.8925, 31.5524, 12.1793, 12.5657, 112.791, -51.2226
0.21764, -1, 37.8925, 31.5524, 12.1793, 12.5657, 112.791, -51.2226
0.218825, -1, 37.8925, 31.5524, 12.1793, 12.5657, 112.791, -51.2226
0.222154, -1, 37.7991, 31.5041, 12.1987, 12.5668, 112.74, -51.3517
0.224161, -1, 37.7049, 31.4554, 12.2181, 12.568, 112.689, -51.4811
0.225494, -1, 37.7049, 31.4554, 12.2181, 12.568, 112.689, -51.4811
0.23185, -1, 37.5147, 31.3577, 12.2568, 12.5705, 112.586, -51.7408
0.240569, -1, 37.3231, 31.2597, 12.2956, 12.573, 112.484, -52.0004
0.248005, -1, 37.1311, 31.1618, 12.3344, 12.5754, 112.381, -52.2599
0.254838, -1, 37.035, 31.1129, 12.3538, 12.5766, 112.329, -52.3899
0.264214, -1, 36.7469, 30.9662, 12.4119, 12.5805, 112.175, -52.7804
0.270777, -1, 36.6511, 30.9173, 12.4313, 12.5817, 112.123, -52.9108
0.280244, -1, 36.3637, 30.7707, 12.4896, 12.5856, 111.969, -53.3014
0.288652, -1, 36.1723, 30.6728, 12.5285, 12.5881, 111.866, -53.5618
0.296343, -1, 35.9808, 30.5748, 12.5674, 12.5906, 111.763, -53.8225
0.304338, -1, 35.7894, 30.4768, 12.6064, 12.5931, 111.66, -54.0832
0.312421, -1, 35.5976, 30.3787, 12.6453, 12.5956, 111.557, -54.3434
0.320385, -1, 35.5016, 30.3296, 12.6647, 12.5969, 111.454, -54.6038
0.328294, -1, 35.3094, 30.2313, 12.7035, 12.5994, 111.402, -54.734
0.335814, -1, 35.117, 30.1329, 12.7424, 12.6019, 111.299, -54.9948
0.343772, -1, 34.9246, 30.0345, 12.7814, 12.6044, 111.196, -55.2556
0.35176, -1, 34.7323, 29.936, 12.8203, 12.607, 111.093, -55.5161
0.359832, -1, 34.5398, 29.8375, 12.8592, 12.6094, 110.99, -55.7769
0.367791, -1, 34.3476, 29.7391, 12.8982, 12.612, 110.887, -56.0378
0.375767, -1, 34.1555, 29.6409, 12.9372, 12.6145, 110.784, -56.2988
0.383818, -1, 33.9636, 29.5426, 12.9762, 12.6171, 110.681, -56.5596
0.391758, -1, 33.7719, 29.4443, 13.0152, 12.6197, 110.578, -56.8203
0.399755, -1, 33.58, 29.3459, 13.0541, 12.6224, 110.475, -57.0813
0.407804, -1, 33.3878, 29.2476, 13.0931, 12.625, 110.372, -57.3425
0.415772, -1, 33.1952, 29.1491, 13.1322, 12.6276, 110.269, -57.6034
0.423781, -1, 33.0025, 29.0504, 13.171, 12.6302, 110.165, -57.8645
0.431817, -1, 32.8096, 28.9519, 13.21, 12.6328, 110.063, -58.1255
0.439782, -1, 32.6163, 28.8533, 13.249, 12.6355, 109.959, -58.3869
0.447764, -1, 32.4227, 28.7546, 13.2879, 12.6381, 109.856, -58.648
0.456753, -1, 32.2288, 28.6559, 13.3269, 12.6408, 109.753, -58.9091
0.463759, -1, 32.0347, 28.5572, 13.3658, 12.6435, 109.65, -59.1701
0.472782, -1, 31.8409, 28.4584, 13.4047, 12.6461, 109.547, -59.4315
0.479816, -1, 31.6472, 28.3597, 13.4438, 12.6488, 109.444, -59.6929
0.487757, -1, 31.4538, 28.261, 13.4829, 12.6517, 109.341, -59.954
0.495803, -1, 31.2608, 28.1625, 13.5219, 12.6544, 109.238, -60.2154
0.503823, -1, 31.0681, 28.0641, 13.561, 12.6572, 109.135, -60.4769
0.511752, -1, 30.8758, 27.9656, 13.6, 12.66, 109.032, -60.7385
0.519825, -1, 30.6837, 27.867, 13.6391, 12.6628, 108.928, -60.9997
0.527767, -1, 30.4917, 27.7685, 13.6781, 12.6656, 108.825, -61.261
0.535807, -1, 30.2997, 27.6697, 13.7171, 12.6682, 108.722, -61.5225
0.543823, -1, 30.1074, 27.571, 13.7562, 12.6709, 108.619, -61.7844
0.551746, -1, 29.9148, 27.4722, 13.7952, 12.6736, 108.516, -62.0458
0.559763, -1, 29.7218, 27.3735, 13.8341, 12.6763, 108.412, -62.3076
0.567826, -1, 29.5282, 27.2747, 13.8731, 12.6788, 108.309, -62.5692
0.575754, -1, 29.3342, 27.1759, 13.9121, 12.6815, 108.206, -62.8311
0.5841, -1, 29.1399, 27.0771, 13.9511, 12.6839, 108.102, -63.0928
0.591511, -1, 28.9454, 26.9782, 13.9901, 12.6864, 107.999, -63.3542
0.599746, -1, 28.7512, 26.8793, 14.0291, 12.6889, 107.896, -63.6156
0.609189, -1, 28.5571, 26.7805, 14.0681, 12.6913, 107.792, -63.8773
0.615819, -1, 28.3632, 26.6818, 14.1072, 12.6939, 107.689, -64.1392
0.62382, -1, 28.1698, 26.5831, 14.1462, 12.6963, 107.586, -64.4006
0.631751, -1, 27.9768, 26.4843, 14.1853, 12.6987, 107.482, -64.6624
0.639839, -1, 27.7841, 26.3855, 14.2244, 12.7011, 107.379, -64.9242
0.647922, -1, 27.5916, 26.2866, 14.2633, 12.7035, 107.276, -65.186
0.655856, -1, 27.3995, 26.1877, 14.3023, 12.7059, 107.173, -65.4475
0.663915, -1, 27.2073, 26.0887, 14.3414, 12.7082, 107.069, -65.7092
0.802831, -1, 23.9216, 24.4089, 15.0042, 12.7476, 105.314, -70.1581
0.804808, -1, 23.8252, 24.3595, 15.0236, 12.7488, 105.262, -70.289
0.806094, -1, 23.8252, 24.3595, 15.0236, 12.7488, 105.262, -70.289
0.807293, -1, 23.8252, 24.3595, 15.0236, 12.7488, 105.262, -70.289
0.809448, -1, 23.7287, 24.31, 15.0431, 12.7501, 105.21, -70.4199
0.810635, -1, 23.7287, 24.31, 15.0431, 12.7501, 105.21, -70.4199
0.812534, -1, 23.6322, 24.2606, 15.0625, 12.7513, 105.159, -70.5508
0.816425, -1, 23.5356, 24.2112, 15.082, 12.7524, 105.107, -70.6818
0.817944, -1, 23.5356, 24.2112, 15.082, 12.7524, 105.107, -70.6818
0.819172, -1, 23.5356, 24.2112, 15.082, 12.7524, 105.107, -70.6818
0.82211, -1, 23.4389, 24.1618, 15.1015, 12.7536, 105.055, -70.8126
0.823348, -1, 23.4389, 24.1618, 15.1015, 12.7536, 105.055, -70.8126
0.826229, -1, 23.342, 24.1123, 15.121, 12.7549, 105.004, -70.9433
0.827553, -1, 23.342, 24.1123, 15.121, 12.7549, 105.004, -70.9433
0.829682, -1, 23.2451, 24.0629, 15.1404, 12.7561, 104.952, -71.0742
0.83146, -1, 23.2451, 24.0629, 15.1404, 12.7561, 104.952, -71.0742
0.833509, -1, 23.1482, 24.0135, 15.1598, 12.7573, 104.9, -71.2051
0.834696, -1, 23.1482, 24.0135, 15.1598, 12.7573, 104.9, -71.2051
0.836577, -1, 23.0513, 23.9641, 15.1793, 12.7585, 104.849, -71.336
0.837943, -1, 23.0513, 23.9641, 15.1793, 12.7585, 104.849, -71.336
0.83926, -1, 23.0513, 23.9641, 15.1793, 12.7585, 104.849, -71.336
0.841326, -1, 22.9542, 23.9147, 15.1988, 12.7597, 104.797, -71.4669
0.84965, -1, 22.7601, 23.8159, 15.2378, 12.7622, 104.693, -71.7288
0.855735, -1, 22.6631, 23.7665, 15.2573, 12.7634, 104.642, -71.8597
0.863759, -1, 22.4693, 23.6679, 15.2963, 12.7659, 104.538, -72.1211
0.871769, -1, 22.2759, 23.5692, 15.3353, 12.7684, 104.435, -72.3824
0.879792, -1, 22.0827, 23.4705, 15.3742, 12.771, 104.332, -72.6439
0.887747, -1, 21.8897, 23.3719, 15.4132, 12.7736, 104.228, -72.9056
0.895742, -1, 21.6972, 23.2731, 15.4522, 12.7762, 104.125, -73.1669
0.903801, -1, 21.505, 23.1743, 15.4911, 12.779, 104.022, -73.4283
0.911736, -1, 21.3128, 23.0756, 15.5301, 12.7816, 103.919, -73.6896
0.919741, -1, 21.1205, 22.977, 15.5691, 12.7843, 103.816, -73.9512
0.929353, -1, 20.8318, 22.8291, 15.6275, 12.7883, 103.661, -74.3431
0.935737, -1, 20.7356, 22.7798, 15.647, 12.7897, 103.61, -74.4736
0.943845, -1, 20.543, 22.6812, 15.6859, 12.7924, 103.506, -74.735
0.951739, -1, 20.3498, 22.5826, 15.7247, 12.7952, 103.403, -74.9964
0.958809, -1, 20.1561, 22.4838, 15.7637, 12.7978, 103.3, -75.2576
0.96783, -1, 19.9624, 22.3851, 15.8026, 12.8006, 103.197, -75.5187
0.976791, -1, 19.7687, 22.2865, 15.8413, 12.8033, 103.095, -75.7798
0.982802, -1, 19.5751, 22.1879, 15.8802, 12.806, 102.991, -76.0411
0.991799, -1, 19.3817, 22.0893, 15.9191, 12.8088, 102.888, -76.3024
0.999741, -1, 19.1887, 21.9906, 15.9579, 12.8115, 102.785, -76.5632
1.00774, -1, 18.9959, 21.892, 15.9969, 12.8142, 102.682, -76.824
1.0158, -1, 18.8034, 21.7934, 16.0357, 12.8168, 102.579, -77.085
1.02374, -1, 18.6113, 21.6946, 16.0744, 12.8196, 102.476, -77.3461
1.03194, -1, 18.4196, 21.596, 16.1134, 12.8223, 102.373, -77.6068
1.03983, -1, 18.2277, 21.4975, 16.1523, 12.8248, 102.271, -77.8675
1.04774, -1, 18.0358, 21.3991, 16.1911, 12.8274, 102.168, -78.1282
1.05573, -1, 17.844, 21.3007, 16.2301, 12.8299, 102.065, -78.3891
1.06382, -1, 17.6519, 21.2024, 16.2689, 12.8324, 101.962, -78.6496
1.07173, -1, 17.4595, 21.1042, 16.3077, 12.8349, 101.859, -78.91
1.07974, -1, 17.2666, 21.0058, 16.3466, 12.8373, 101.756, -79.1706
1.0878, -1, 17.0735, 20.9076, 16.3854, 12.8396, 101.653, -79.4313
1.09577, -1, 16.8804, 20.8094, 16.4242, 12.842, 101.55, -79.6918
1.10374, -1, 16.6873, 20.7112, 16.463, 12.8443, 101.447, -79.9523
1.11182, -1, 16.4942, 20.613, 16.5017, 12.8467, 101.345, -80.2128
1.11974, -1, 16.3014, 20.5147, 16.5404, 12.8489, 101.242, -80.4734
1.12775, -1, 16.1092, 20.4164, 16.5792, 12.8512, 101.139, -80.7341
1.13578, -1, 15.9173, 20.3179, 16.6179, 12.8536, 101.037, -80.994
1.14377, -1, 15.7256, 20.2194, 16.6566, 12.8558, 100.934, -81.2541
1.15183, -1, 15.5343, 20.121, 16.6952, 12.8582, 100.832, -81.5143
1.15982, -1, 15.3431, 20.0227, 16.7339, 12.8606, 100.729, -81.7744
1.16783, -1, 15.152, 19.9245, 16.7727, 12.8628, 100.626, -82.0343
1.17588, -1, 14.9608, 19.8263, 16.8114, 12.8651, 100.524, -82.294
1.18393, -1, 14.7695, 19.7282, 16.85, 12.8674, 100.421, -82.5539
1.19184, -1, 14.578, 19.6301, 16.8888, 12.8696, 100.319, -82.814
1.19993, -1, 14.3861, 19.5319, 16.9274, 12.872, 100.216, -83.0738
1.20793, -1, 14.1939, 19.4339, 16.9662, 12.8742, 100.114, -83.3332
1.21576, -1, 14.0015, 19.336, 17.0049, 12.8765, 100.011, -83.5928
1.22386, -1, 13.809, 19.2381, 17.0434, 12.8788, 99.9085, -83.8525
1.23177, -1, 13.6165, 19.1402, 17.0821, 12.8811, 99.8061, -84.1121
1.23988, -1, 13.4241, 19.0424, 17.1208, 12.8834, 99.7034, -84.3714
1.24804, -1, 13.2321, 18.9445, 17.1593, 12.8857, 99.6013, -84.6306
1.25473, -1, 13.1363, 18.8956, 17.1785, 12.8869, 99.5501, -84.7603
1.26414, -1, 12.8494, 18.7487, 17.2365, 12.8904, 99.3963, -85.1494
1.27076, -1, 12.7539, 18.6997, 17.2558, 12.8916, 99.3452, -85.2789
1.28017, -1, 12.4679, 18.5529, 17.3136, 12.8953, 99.1919, -85.6672
1.28828, -1, 12.2777, 18.4552, 17.3521, 12.8977, 99.0896, -85.9261
1.29635, -1, 12.0876, 18.3575, 17.3906, 12.9001, 98.9877, -86.1852
1.30526, -1, 11.8973, 18.2599, 17.4292, 12.9025, 98.8855, -86.4439
1.31114, -1, 11.802, 18.211, 17.4486, 12.9037, 98.8345, -86.5731
1.32036, -1, 11.5159, 18.0646, 17.5063, 12.9073, 98.6818, -86.9609
1.32917, -1, 11.4204, 18.0158, 17.5256, 12.9085, 98.6308, -87.2196
1.33552, -1, 11.2292, 17.9182, 17.5642, 12.9109, 98.5288, -87.3489
1.34274, -1, 11.0377, 17.8207, 17.6028, 12.9134, 98.427, -87.6072
1.35373, -1, 10.7502, 17.6746, 17.6605, 12.9172, 98.274, -87.9946
1.35973, -1, 10.6543, 17.6258, 17.6797, 12.9185, 98.223, -88.1236
1.3678, -1, 10.4628, 17.5283, 17.7181, 12.921, 98.1213, -88.382
1.37575, -1, 10.2717, 17.4308, 17.7565, 12.9235, 98.0194, -88.6402
1.38354, -1, 10.0809, 17.3332, 17.795, 12.9261, 97.9174, -88.8982
1.39072, -1, 9.89052, 17.2356, 17.8332, 12.9288, 97.8157, -89.1564
1.39972, -1, 9.70041, 17.1381, 17.8716, 12.9314, 97.7136, -89.4146
1.4078, -1, 9.51082, 17.0407, 17.91, 12.9342, 97.6117, -89.6726
1.41572, -1, 9.32159, 16.9434, 17.9483, 12.937, 97.51, -89.9302
1.42387, -1, 9.13234, 16.8461, 17.9867, 12.9396, 97.408, -90.1877
1.43182, -1, 8.94298, 16.7489, 18.025, 12.9422, 97.3062, -90.4454
1.43972, -1, 8.75355, 16.6517, 18.0634, 12.9448, 97.2046, -90.7029
1.44774, -1, 8.56394, 16.5545, 18.1018, 12.9475, 97.1029, -90.9602
1.4558, -1, 8.37413, 16.4575, 18.1402, 12.9503, 97.0015, -91.2173
1.46477, -1, 8.18379, 16.3605, 18.1784, 12.9529, 96.8999, -91.4745
1.47172, -1, 7.99322, 16.2636, 18.2169, 12.9555, 96.7982, -91.7318
1.47982, -1, 7.80264, 16.1667, 18.2551, 12.9582, 96.6968, -91.9887
1.48879, -1, 7.61198, 16.0698, 18.2933, 12.9607, 96.5953, -92.2454
1.49572, -1, 7.4215, 15.9728, 18.3317, 12.9633, 96.4939, -92.5022
1.50374, -1, 7.2313, 15.8759, 18.3698, 12.9658, 96.3927, -92.7591
1.51172, -1, 7.04158, 15.7789, 18.408, 12.9684, 96.2913, -93.0157
1.51978, -1, 6.85221, 15.682, 18.4463, 12.9709, 96.19, -93.2721
1.52773, -1, 6.66333, 15.5851, 18.4843, 12.9734, 96.0894, -93.5285
1.53573, -1, 6.47488, 15.4883, 18.5224, 12.9759, 95.9883, -93.7849
1.54383, -1, 6.28673, 15.3916, 18.5606, 12.9784, 95.8872, -94.0412
1.55173, -1, 6.09869, 15.2949, 18.5987, 12.9809, 95.7865, -94.2972
1.55971, -1, 5.91042, 15.1981, 18.6368, 12.9832, 95.6853, -94.5531
1.56778, -1, 5.72206, 15.1014, 18.675, 12.9855, 95.5844, -94.809
1.57573, -1, 5.53359, 15.0048, 18.7131, 12.9879, 95.4838, -95.0651
1.58372, -1, 5.34478, 14.9083, 18.7512, 12.9902, 95.3829, -95.3207
1.59178, -1, 5.15554, 14.8119, 18.7894, 12.9924, 95.2822, -95.576
1.59974, -1, 4.96608, 14.7156, 18.8274, 12.9947, 95.1816, -95.8314
1.60771, -1, 4.77662, 14.6192, 18.8654, 12.9969, 95.0808, -96.087
1.6158, -1, 4.58711, 14.5228, 18.9035, 12.999, 94.98, -96.3422
1.62425, -1, 4.39782, 14.4265, 18.9415, 13.0013, 94.8794, -96.5971
1.63171, -1, 4.20887, 14.3301, 18.9795, 13.0035, 94.7785, -96.8518
1.63978, -1, 4.02031, 14.2337, 19.0175, 13.0058, 94.6777, -97.1069
1.64854, -1, 3.83228, 14.1375, 19.0554, 13.0081, 94.5769, -97.362
1.65582, -1, 3.64474, 14.0414, 19.0934, 13.0103, 94.4761, -97.6167
1.66407, -1, 3.4576, 13.9452, 19.1313, 13.0126, 94.3755, -97.8715
1.67233, -1, 3.27074, 13.8492, 19.169, 13.0149, 94.2749, -98.1262
1.67988, -1, 3.08377, 13.7532, 19.2069, 13.0171, 94.1742, -98.3809
1.68816, -1, 2.89682, 13.6571, 19.2449, 13.0194, 94.0736, -98.6352
1.69533, -1, 2.70978, 13.5611, 19.2827, 13.0217, 93.9729, -98.8895
1.70325, -1, 2.61616, 13.5131, 19.3017, 13.0228, 93.9227, -99.1436
1.71251, -1, 2.33506, 13.3692, 19.3584, 13.0262, 93.7721, -99.3978
1.72059, -1, 2.1472, 13.2735, 19.3962, 13.0285, 93.6718, -99.6518
1.72781, -1, 1.95906, 13.1777, 19.4341, 13.0307, 93.5716, -99.9054
1.73666, -1, 1.77089, 13.0819, 19.4719, 13.033, 93.4718, -100.159
1.74473, -1, 1.58258, 12.9861, 19.5095, 13.0352, 93.3716, -100.413
1.75203, -1, 1.39445, 12.8903, 19.5474, 13.0375, 93.2715, -100.666
1.75872, -1, 1.30049, 12.8424, 19.5663, 13.0387, 93.2216, -100.793
1.76678, -1, 1.11284, 12.7466, 19.6039, 13.041, 93.1216, -101.046
1.77474, -1, 0.925846, 12.6509, 19.6417, 13.0434, 93.0215, -101.299
1.78511, -1, 0.646163, 12.5076, 19.6982, 13.047, 92.872, -101.679
1.79223, -1, 0.460285, 12.4122, 19.7357, 13.0494, 92.7721, -101.932
1.80033, -1, 0.274677, 12.3168, 19.7735, 13.0519, 92.6724, -102.184
1.80916, -1, 0.0892674, 12.2215, 19.811, 13.0543, 92.5732, -102.437
1.8148, -1, -0.00339826, 12.1738, 19.8298, 13.0556, 92.5233, -102.563
1.82489, -1, -0.281747, 12.0309, 19.8863, 13.0592, 92.3738, -102.942
1.83312, -1, -0.37467, 11.9833, 19.9051, 13.0605, 92.3243, -103.068
1.83877, -1, -0.560744, 11.8882, 19.9426, 13.063, 92.2247, -103.32
1.84874, -1, -0.840316, 11.7458, 19.999, 13.0666, 92.0755, -103.698
1.8557, -1, -0.933653, 11.6982, 20.0177, 13.0679, 92.026, -103.824
1.86277, -1, -1.12045, 11.6032, 20.0551, 13.0704, 91.9266, -104.076
1.87177, -1, -1.30747, 11.5081, 20.0927, 13.0729, 91.8272, -104.328
1.87974, -1, -1.49435, 11.413, 20.1302, 13.0755, 91.7282, -104.579
1.8867, -1, -1.68094, 11.3178, 20.1675, 13.078, 91.6289, -104.831
1.8957, -1, -1.86718, 11.2228, 20.205, 13.0806, 91.5297, -105.082
1.9037, -1, -2.05288, 11.1278, 20.2424, 13.0833, 91.4306, -105.334
1.91071, -1, -2.238, 11.0329, 20.2798, 13.0859, 91.3314, -105.584
1.91971, -1, -2.42278, 10.9381, 20.3172, 13.0886, 91.2322, -105.835
1.9277, -1, -2.60717, 10.8433, 20.3545, 13.0912, 91.1333, -106.087
1.93472, -1, -2.79107, 10.7486, 20.3918, 13.0939, 91.0341, -106.337
1.94371, -1, -2.97497, 10.6539, 20.4291, 13.0965, 90.9351, -106.588
1.95182, -1, -3.15905, 10.5592, 20.4665, 13.0991, 90.8363, -106.839
1.95977, -1, -3.3433, 10.4646, 20.5037, 13.1017, 90.7373, -107.089
1.96875, -1, -3.52793, 10.3701, 20.541, 13.1042, 90.6383, -107.34
1.97568, -1, -3.71274, 10.2758, 20.5783, 13.1068, 90.5397, -107.59
1.98379, -1, -3.89786, 10.1814, 20.6155, 13.1092, 90.4408, -107.84
1.9917, -1, -4.08319, 10.087, 20.6528, 13.1116, 90.3421, -108.09
1.9997, -1, -4.26877, 9.99271, 20.69, 13.114, 90.2436, -108.34
2.0077, -1, -4.45438, 9.89839, 20.7272, 13.1163, 90.1448, -108.59
2.01571, -1, -4.63971, 9.80404, 20.7645, 13.1187, 90.0463, -108.839
2.02378, -1, -4.82465, 9.70986, 20.8016, 13.121, 89.948, -109.089
2.03179, -1, -5.00917, 9.6158, 20.8387, 13.1234, 89.8493, -109.338
2.03972, -1, -5.1929, 9.52177, 20.8758, 13.1257, 89.7509, -109.587
2.0478, -1, -5.37625, 9.42776, 20.913, 13.128, 89.6527, -109.836
2.0557, -1, -5.55917, 9.33388, 20.95, 13.1303, 89.5542, -110.085
2.0637, -1, -5.74163, 9.23999, 20.9872, 13.1326, 89.4561, -110.334
2.07178, -1, -5.92394, 9.1461, 21.0242, 13.135, 89.3581, -110.583
2.0797, -1, -6.10633, 9.05224, 21.0611, 13.1371, 89.2598, -110.831
2.0877, -1, -6.28903, 8.95846, 21.0982, 13.1394, 89.1618, -111.08
2.09577, -1, -6.47194, 8.86481, 21.1352, 13.1416, 89.0641, -111.328
2.10372, -1, -6.65517, 8.77113, 21.1719, 13.1437, 88.966, -111.576
2.11171, -1, -6.83876, 8.67753, 21.2089, 13.1459, 88.8681, -111.825
2.11978, -1, -7.02264, 8.58395, 21.2458, 13.1479, 88.7704, -112.072
2.1277, -1, -7.20688, 8.49036, 21.2827, 13.1501, 88.6724, -112.32
2.13573, -1, -7.39107, 8.39674, 21.3196, 13.1522, 88.5746, -112.567
2.14374, -1, -7.57494, 8.30311, 21.3564, 13.1543, 88.4772, -112.815
2.15174, -1, -7.75847, 8.20965, 21.3932, 13.1565, 88.3795, -113.063
2.15982, -1, -7.94158, 8.11627, 21.4301, 13.1588, 88.2821, -113.31
2.16785, -1, -8.12415, 8.02291, 21.4669, 13.161, 88.1849, -113.557
2.1758, -1, -8.306, 7.92968, 21.5036, 13.1633, 88.0873, -113.804
2.18388, -1, -8.4873, 7.83646, 21.5405, 13.1655, 87.9899, -114.051
2.1918, -1, -8.66821, 7.74328, 21.5773, 13.1678, 87.8927, -114.298
2.19981, -1, -8.84896, 7.6501, 21.614, 13.1701, 87.7951, -114.544
2.20796, -1, -9.02967, 7.55701, 21.6507, 13.1723, 87.6978, -114.79
2.21574, -1, -9.21071, 7.46401, 21.6875, 13.1745, 87.6007, -115.037
2.22383, -1, -9.39204, 7.3712, 21.7241, 13.1767, 87.5035, -115.283
2.23185, -1, -9.57371, 7.27837, 21.7608, 13.1789, 87.4064, -115.529
2.23978, -1, -9.75567, 7.18559, 21.7974, 13.1812, 87.3093, -115.775
2.24796, -1, -9.93803, 7.09288, 21.8339, 13.1833, 87.212, -116.021
2.256, -1, -10.1206, 7.00013, 21.8705, 13.1856, 87.1148, -116.268
2.2627, -1, -10.2119, 6.95374, 21.8888, 13.1867, 87.0664, -116.39
2.27241, -1, -10.4858, 6.81461, 21.9437, 13.19, 86.9205, -116.759
2.28011, -1, -10.6681, 6.72191, 21.9803, 13.1923, 86.8235, -117.004
2.28674, -1, -10.759, 6.67561, 21.9986, 13.1935, 86.7751, -117.127
2.29634, -1, -11.0312, 6.53673, 22.0531, 13.1971, 86.6297, -117.495
2.30425, -1, -11.2116, 6.44423, 22.0897, 13.1995, 86.533, -117.739
2.31225, -1, -11.3914, 6.35176, 22.1263, 13.202, 86.4365, -117.984
2.32056, -1, -11.571, 6.25933, 22.1626, 13.2043, 86.3396, -118.229
2.3283, -1, -11.6607, 6.21311, 22.1808, 13.2069, 86.243, -118.474
2.33569, -1, -11.8399, 6.12073, 22.2174, 13.2081, 86.1948, -118.596
2.34433, -1, -12.0192, 6.02845, 22.2538, 13.2105, 86.0981, -118.84
2.35169, -1, -12.1986, 5.93626, 22.2902, 13.213, 86.0015, -119.085
2.35969, -1, -12.3783, 5.84428, 22.3267, 13.2155, 85.9053, -119.329
2.36774, -1, -12.5584, 5.75226, 22.3629, 13.218, 85.8089, -119.573
2.37571, -1, -12.7388, 5.66029, 22.3992, 13.2205, 85.7126, -119.817
2.38373, -1, -12.9197, 5.56837, 22.4356, 13.2229, 85.6168, -120.06
2.39312, -1, -13.1915, 5.43041, 22.4899, 13.2266, 85.4727, -120.426
2.39878, -1, -13.2821, 5.3844, 22.508, 13.2278, 85.4248, -120.548
2.40776, -1, -13.4631, 5.29246, 22.5444, 13.2302, 85.3291, -120.791
2.41568, -1, -13.6437, 5.20054, 22.5806, 13.2328, 85.2332, -121.035
2.42371, -1, -13.824, 5.10868, 22.6166, 13.2353, 85.1374, -121.277
2.4307, -1, -14.0035, 5.0169, 22.6529, 13.2379, 85.0419, -121.52
2.43971, -1, -14.1821, 4.92519, 22.689, 13.2404, 84.9463, -121.764
2.44771, -1, -14.3603, 4.83351, 22.7251, 13.2431, 84.8506, -122.006
2.45469, -1, -14.5383, 4.74183, 22.7613, 13.2456, 84.7551, -122.249
2.46369, -1, -14.7159, 4.65022, 22.7975, 13.2481, 84.6594, -122.491
2.4727, -1, -14.8936, 4.55872, 22.8336, 13.2506, 84.5637, -122.734
2.47873, -1, -15.0714, 4.46726, 22.8698, 13.253, 84.4681, -122.976
2.4877, -1, -15.2494, 4.37601, 22.9059, 13.2554, 84.3724, -123.218
2.49571, -1, -15.4278, 4.28472, 22.9419, 13.2578, 84.2767, -123.459
2.50375, -1, -15.6068, 4.19344, 22.9779, 13.2601, 84.1812, -123.701
2.51169, -1, -15.786, 4.10219, 23.014, 13.2623, 84.0857, -123.943
2.51972, -1, -15.9653, 4.01097, 23.0499, 13.2646, 83.9903, -124.185
2.52768, -1, -16.1448, 3.91969, 23.0859, 13.2667, 83.8949, -124.426
2.5357, -1, -16.3246, 3.82843, 23.1219, 13.2689, 83.7994, -124.667
2.54379, -1, -16.504, 3.73721, 23.1577, 13.271, 83.704, -124.909
2.55173, -1, -16.683, 3.64612, 23.1935, 13.2733, 83.6086, -125.15
2.55968, -1, -16.8614, 3.55499, 23.2294, 13.2756, 83.5132, -125.391
2.5682, -1, -17.0389, 3.46399, 23.2653, 13.2778, 83.4178, -125.632
2.5748, -1, -17.2157, 3.37306, 23.3011, 13.28, 83.3225, -125.873
2.5837, -1, -17.3921, 3.28216, 23.337, 13.2822, 83.2275, -126.113
2.59252, -1, -17.5684, 3.19129, 23.3727, 13.2843, 83.1324, -126.354
2.59969, -1, -17.7445, 3.10067, 23.4086, 13.2864, 83.0375, -126.594
2.6077, -1, -17.9207, 3.01006, 23.4446, 13.2885, 82.9428, -126.834
2.61649, -1, -18.097, 2.91959, 23.4803, 13.2906, 82.8479, -127.075
2.62371, -1, -18.2734, 2.82924, 23.516, 13.2928, 82.7532, -127.315
2.6317, -1, -18.4504, 2.73883, 23.5518, 13.2949, 82.6586, -127.554
2.64049, -1, -18.6279, 2.64845, 23.5875, 13.2969, 82.5639, -127.794
2.6477, -1, -18.8056, 2.55811, 23.6231, 13.2989, 82.4693, -128.034
2.6558, -1, -18.9836, 2.4677, 23.6589, 13.3008, 82.375, -128.273
2.66456, -1, -19.1619, 2.37724, 23.6945, 13.3029, 82.2805, -128.513
2.67177, -1, -19.3401, 2.28689, 23.73, 13.3048, 82.1862, -128.752
2.67985, -1, -19.5177, 2.19654, 23.7657, 13.307, 82.0924, -128.991
2.68859, -1, -19.6948, 2.1062, 23.8012, 13.3092, 81.998, -129.23
2.69579, -1, -19.8712, 2.01592, 23.8366, 13.3114, 81.9038, -129.469
2.70386, -1, -20.0469, 1.9257, 23.8722, 13.3135, 81.81, -129.708
2.71264, -1, -20.2221, 1.83548, 23.9077, 13.3157, 81.7157, -129.946
2.71974, -1, -20.397, 1.7454, 23.9431, 13.3179, 81.6217, -130.184
2.72779, -1, -20.5716, 1.65534, 23.9787, 13.3201, 81.528, -130.423
2.73667, -1, -20.746, 1.56536, 24.0142, 13.3223, 81.4339, -130.661
2.74383, -1, -20.9207, 1.4755, 24.0495, 13.3244, 81.3402, -130.899
2.75192, -1, -21.0958, 1.38578, 24.0851, 13.3266, 81.2466, -131.137
2.75995, -1, -21.2712, 1.29604, 24.1205, 13.3288, 81.1527, -131.375
2.76669, -1, -21.359, 1.25117, 24.1382, 13.3299, 81.1057, -131.494
2.77606, -1, -21.6229, 1.11672, 24.1912, 13.3332, 80.965, -131.85
2.78277, -1, -21.711, 1.07192, 24.2089, 13.3343, 80.9182, -131.969
2.79223, -1, -21.9755, 0.937435, 24.262, 13.3375, 80.7774, -132.325
2.80027, -1, -22.1521, 0.847877, 24.2973, 13.3396, 80.6839, -132.562
2.809, -1, -22.3286, 0.758327, 24.3327, 13.3418, 80.5901, -132.8
2.81643, -1, -22.5046, 0.668849, 24.3679, 13.3441, 80.4966, -133.036
2.82431, -1, -22.6802, 0.579369, 24.4031, 13.3465, 80.403, -133.273
2.83305, -1, -22.7678, 0.534651, 24.4207, 13.3489, 80.3093, -133.51
2.84027, -1, -22.9422, 0.445234, 24.456, 13.3501, 80.2625, -133.628
2.84769, -1, -23.1159, 0.355861, 24.4911, 13.3525, 80.1691, -133.865
2.8557, -1, -23.2894, 0.266508, 24.5262, 13.355, 80.0757, -134.102
2.8637, -1, -23.4625, 0.177226, 24.5614, 13.3574, 79.9821, -134.338
2.87168, -1, -23.6357, 0.0880869, 24.5966, 13.3598, 79.8888, -134.574
2.87974, -1, -23.8091, -0.00104339, 24.6318, 13.3622, 79.7956, -134.811
2.88774, -1, -23.9826, -0.0900161, 24.6669, 13.3647, 79.7024, -135.047
2.89567, -1, -24.1562, -0.178972, 24.7019, 13.3671, 79.6093, -135.283
2.9037, -1, -24.3302, -0.26797, 24.737, 13.3696, 79.5163, -135.518
2.9117, -1, -24.5044, -0.356829, 24.7722, 13.3719, 79.4232, -135.754
2.91968, -1, -24.6791, -0.445722, 24.8072, 13.3744, 79.3302, -135.989
2.92771, -1, -24.854, -0.534623, 24.8421, 13.3768, 79.2372, -136.225
2.93567, -1, -25.0291, -0.623466, 24.8773, 13.3792, 79.1442, -136.46
2.94367, -1, -25.204, -0.712279, 24.9123, 13.3816, 79.0512, -136.695
2.95174, -1, -25.3785, -0.801014, 24.9473, 13.3839, 78.9585, -136.93
2.95969, -1, -25.5527, -0.889858, 24.9823, 13.3864, 78.8659, -137.165
2.96768, -1, -25.7262, -0.978597, 25.0171, 13.3888, 78.7731, -137.4
2.97581, -1, -25.899, -1.06729, 25.052, 13.3912, 78.6805, -137.635
2.98474, -1, -26.0714, -1.15599, 25.087, 13.3937, 78.5883, -137.87
2.99169, -1, -26.2435, -1.24463, 25.1219, 13.3961, 78.4956, -138.104
2.99974, -1, -26.4153, -1.33311, 25.1567, 13.3985, 78.403, -138.338
3.0077, -1, -26.5871, -1.42152, 25.1916, 13.4006, 78.3107, -138.573
3.01567, -1, -26.7592, -1.50985, 25.2266, 13.4029, 78.2181, -138.807
3.02374, -1, -26.9315, -1.59802, 25.2615, 13.4052, 78.1257, -139.041
3.03167, -1, -27.1039, -1.68619, 25.2963, 13.4074, 78.0336, -139.275
3.03973, -1, -27.2765, -1.77444, 25.3312, 13.4095, 77.9414, -139.509
3.04778, -1, -27.4494, -1.86253, 25.366, 13.4117, 77.8493, -139.742
3.0557, -1, -27.6226, -1.95068, 25.4008, 13.4138, 77.7574, -139.976
3.06375, -1, -27.7959, -2.03889, 25.4357, 13.416, 77.6653, -140.209
3.07168, -1, -27.9691, -2.12689, 25.4704, 13.418, 77.5733, -140.442
3.07967, -1, -28.1424, -2.21495, 25.5052, 13.4199, 77.4813, -140.676
3.08774, -1, -28.3155, -2.30299, 25.54, 13.422, 77.3892, -140.909
3.09571, -1, -28.4882, -2.39105, 25.5747, 13.4241, 77.2972, -141.142
3.10367, -1, -28.6605, -2.47899, 25.6094, 13.4262, 77.2051, -141.375
3.11174, -1, -28.8322, -2.56698, 25.6441, 13.4284, 77.1131, -141.608
3.11967, -1, -29.0032, -2.65493, 25.6787, 13.4305, 77.0211, -141.84
3.12771, -1, -29.1738, -2.74279, 25.7132, 13.4327, 76.9292, -142.073
3.13574, -1, -29.3444, -2.83061, 25.7479, 13.4348, 76.8376, -142.305
3.14368, -1, -29.5152, -2.91832, 25.7826, 13.4368, 76.7455, -142.538
3.15168, -1, -29.6861, -3.00589, 25.8171, 13.4388, 76.6537, -142.77
3.15979, -1, -29.8571, -3.09343, 25.8517, 13.4409, 76.5621, -143.003
3.16775, -1, -30.0281, -3.18092, 25.8862, 13.443, 76.4701, -143.235
3.17607, -1, -30.1991, -3.26846, 25.9208, 13.445, 76.3784, -143.467
3.18377, -1, -30.3703, -3.35591, 25.9553, 13.4471, 76.287, -143.699
3.19178, -1, -30.5418, -3.44335, 25.9899, 13.4492, 76.1953, -143.931
3.20021, -1, -30.7136, -3.53089, 26.0243, 13.4512, 76.1039, -144.162
3.20724, -1, -30.7996, -3.57458, 26.0416, 13.4522, 76.0126, -144.393
3.21569, -1, -31.0573, -3.70564, 26.0934, 13.4552, 75.9211, -144.625
3.2245, -1, -31.2289, -3.79295, 26.1278, 13.4573, 75.8298, -144.856
3.23171, -1, -31.4002, -3.88029, 26.1622, 13.4594, 75.7385, -145.088
3.23985, -1, -31.5711, -3.96759, 26.1967, 13.4615, 75.6472, -145.319
3.24865, -1, -31.7415, -4.05482, 26.2312, 13.4637, 75.5559, -145.55
3.25583, -1, -31.9115, -4.14207, 26.2655, 13.4659, 75.4648, -145.781
3.26391, -1, -32.0812, -4.2293, 26.2999, 13.4681, 75.3739, -146.011
3.27279, -1, -32.2506, -4.31641, 26.3344, 13.4703, 75.2827, -146.242
3.28001, -1, -32.4201, -4.40347, 26.3686, 13.4724, 75.1916, -146.473
3.28669, -1, -32.5049, -4.44698, 26.3857, 13.4735, 75.1463, -146.588
3.29704, -1, -32.7595, -4.57736, 26.4375, 13.4767, 75.0099, -146.934
3.30423, -1, -32.9291, -4.66429, 26.4717, 13.4789, 74.9192, -147.164
3.31223, -1, -33.0988, -4.75122, 26.5058, 13.481, 74.8289, -147.394
3.3211, -1, -33.2687, -4.83804, 26.5402, 13.4833, 74.738, -147.624
3.32826, -1, -33.4387, -4.92494, 26.5745, 13.4855, 74.6475, -147.854
3.33644, -1, -33.5239, -4.96842, 26.6087, 13.4876, 74.5569, -148.084
3.34367, -1, -33.6942, -5.05528, 26.6258, 13.4887, 74.5117, -148.199
3.35166, -1, -33.8645, -5.14203, 26.6601, 13.491, 74.421, -148.429
3.35971, -1, -34.0347, -5.22875, 26.6942, 13.4932, 74.3305, -148.658
3.36768, -1, -34.2048, -5.31548, 26.7284, 13.4955, 74.2402, -148.888
3.37473, -1, -34.3749, -5.40214, 26.7627, 13.4978, 74.1494, -149.117
3.38374, -1, -34.5446, -5.48876, 26.7969, 13.5001, 74.0589, -149.346
3.39169, -1, -34.7138, -5.57544, 26.831, 13.5025, 73.9684, -149.576
3.39867, -1, -34.8825, -5.66203, 26.8652, 13.505, 73.8778, -149.805
3.40766, -1, -35.051, -5.74854, 26.8993, 13.5074, 73.7873, -150.034
3.41565, -1, -35.2193, -5.83504, 26.9334, 13.5098, 73.6971, -150.263
3.42372, -1, -35.3877, -5.92138, 26.9675, 13.5123, 73.6067, -150.492
3.43166, -1, -35.5563, -6.00758, 27.0017, 13.5146, 73.5164, -150.721
3.43967, -1, -35.7249, -6.09382, 27.0357, 13.5168, 73.426, -150.949
3.44774, -1, -35.8934, -6.17996, 27.0697, 13.5193, 73.3358, -151.178
3.45565, -1, -36.0619, -6.2661, 27.1038, 13.5217, 73.2453, -151.406
3.46372, -1, -36.2304, -6.35219, 27.1378, 13.5241, 73.1549, -151.635
3.47265, -1, -36.3991, -6.4384, 27.1717, 13.5265, 73.0647, -151.864
3.47966, -1, -36.5679, -6.52462, 27.2057, 13.5289, 72.9741, -152.092
3.4887, -1, -36.7368, -6.61079, 27.2397, 13.5311, 72.8839, -152.32
3.49574, -1, -36.9057, -6.69693, 27.2735, 13.5334, 72.7939, -152.548
3.50471, -1, -37.0747, -6.78307, 27.3075, 13.5356, 72.7037, -152.776
3.5145, -1, -37.2434, -6.86919, 27.3414, 13.539, 72.5688, -153.118
3.51967, -1, -37.4119, -6.95517, 27.3752, 13.5401, 72.5239, -153.232
3.52772, -1, -37.58, -7.04121, 27.4091, 13.5424, 72.4341, -153.459
3.53566, -1, -37.7477, -7.12721, 27.4431, 13.5447, 72.3442, -153.686
3.54366, -1, -37.9154, -7.21316, 27.4769, 13.5469, 72.2544, -153.914
3.55174, -1, -38.0829, -7.29908, 27.5107, 13.5491, 72.1647, -154.142
3.5597, -1, -38.2504, -7.38494, 27.5447, 13.5513, 72.0748, -154.369
3.56765, -1, -38.4177, -7.47066, 27.5785, 13.5534, 71.9852, -154.596
3.57575, -1, -38.585, -7.55637, 27.6123, 13.5554, 71.8958, -154.823
3.58366, -1, -38.7522, -7.64211, 27.6462, 13.5576, 71.806, -155.051
3.59166, -1, -38.9195, -7.72777, 27.6799, 13.5597, 71.7166, -155.278
3.59978, -1, -39.0869, -7.81338, 27.7136, 13.5618, 71.6275, -155.504
3.60765, -1, -39.2543, -7.89906, 27.7474, 13.5637, 71.538, -155.731
3.61565, -1, -39.4218, -7.98476, 27.7812, 13.5656, 71.4486, -155.958
3.62374, -1, -39.5894, -8.07029, 27.8148, 13.5677, 71.3594, -156.185
3.63167, -1, -39.7571, -8.15582, 27.8484, 13.5696, 71.27, -156.411
3.63966, -1, -39.9248, -8.24128, 27.8822, 13.5715, 71.1807, -156.638
3.64785, -1, -40.0923, -8.32668, 27.9158, 13.5735, 71.0912, -156.864
3.65565, -1, -40.2598, -8.41206, 27.9495, 13.5754, 71.0021, -157.09
3.66371, -1, -40.427, -8.49739, 27.9832, 13.5774, 70.9127, -157.316
3.67205, -1, -40.594, -8.58276, 28.0168, 13.5793, 70.8235, -157.543
3.67977, -1, -40.7608, -8.66814, 28.0503, 13.5813, 70.7346, -157.768
3.68775, -1, -40.9274, -8.75346, 28.084, 13.5833, 70.6453, -157.994
3.69618, -1, -41.0939, -8.83875, 28.1177, 13.5854, 70.5562, -158.22
3.70325, -1, -41.177, -8.92398, 28.1512, 13.5874, 70.4671, -158.446
3.71181, -1, -41.4264, -9.00913, 28.1847, 13.5894, 70.3779, -158.672
3.72041, -1, -41.5926, -9.09426, 28.2185, 13.5914, 70.2887, -158.897
3.72772, -1, -41.7588, -9.17932, 28.252, 13.5934, 70.1997, -159.122
3.73569, -1, -41.9252, -9.26439, 28.2856, 13.5954, 70.1106, -159.348
3.74468, -1, -42.0916, -9.34939, 28.3193, 13.5975, 70.0216, -159.574
3.75181, -1, -42.2579, -9.43446, 28.3529, 13.5995, 69.9325, -159.799
3.75988, -1, -42.4242, -9.51946, 28.3863, 13.6015, 69.8439, -160.024
3.76883, -1, -42.5906, -9.60446, 28.4199, 13.6035, 69.7547, -160.249
3.77595, -1, -42.757, -9.68941, 28.4535, 13.6055, 69.6658, -160.474
3.78409, -1, -42.9234, -9.77434, 28.4869, 13.6076, 69.5773, -160.7
3.79067, -1, -43.0066, -9.81681, 28.5036, 13.6086, 69.5328, -160.812
3.80093, -1, -43.2559, -9.94423, 28.5539, 13.6118, 69.3996, -161.149
3.80825, -1, -43.422, -10.0291, 28.5875, 13.6138, 69.311, -161.374
3.81623, -1, -43.588, -10.1141, 28.6209, 13.6158, 69.2223, -161.599
3.82504, -1, -43.7539, -10.1991, 28.6545, 13.6179, 69.1338, -161.823
3.83066, -1, -43.8368, -10.2415, 28.6712, 13.619, 69.0895, -161.936
3.8402, -1, -44.0026, -10.3263, 28.7046, 13.6212, 69.0012, -162.16
3.8489, -1, -44.168, -10.411, 28.7381, 13.6233, 68.9125, -162.497
3.8557, -1, -44.3332, -10.4957, 28.7716, 13.6255, 68.8239, -162.609
3.86365, -1, -44.4984, -10.5802, 28.805, 13.6277, 68.7353, -162.833
3.87169, -1, -44.6635, -10.6648, 28.8384, 13.6299, 68.6467, -163.057
3.87969, -1, -44.8289, -10.7493, 28.8719, 13.632, 68.5581, -163.281
3.88767, -1, -44.9943, -10.8337, 28.9053, 13.6342, 68.4697, -163.505
3.89569, -1, -45.1596, -10.9183, 28.9387, 13.6364, 68.3814, -163.729
3.90372, -1, -45.3249, -11.0028, 28.9722, 13.6387, 68.2929, -163.954
3.91169, -1, -45.4902, -11.0873, 29.0056, 13.6409, 68.2045, -164.177
3.91964, -1, -45.6554, -11.1717, 29.0387, 13.6433, 68.1165, -164.401
3.9277, -1, -45.8206, -11.2562, 29.0721, 13.6456, 68.0279, -164.625
3.93565, -1, -45.9848, -11.3401, 29.1056, 13.6478, 67.9396, -164.848
3.94365, -1, -46.1463, -11.4225, 29.139, 13.6501, 67.8516, -165.071
3.95176, -1, -46.3034, -11.5019, 29.1726, 13.6525, 67.7641, -165.292
3.95964, -1, -46.4537, -11.577, 29.2061, 13.6548, 67.6789, -165.508
3.96766, -1, -46.595, -11.6469, 29.2384, 13.6572, 67.5973, -165.714
3.97754, -1, -46.7842, -11.7393, 29.282, 13.6603, 67.4878, -165.991
3.98364, -1, -46.8398, -11.7665, 29.2947, 13.6613, 67.4555, -166.073
3.99269, -1, -46.9388, -11.8157, 29.3168, 13.663, 67.3997, -166.215
3.99972, -1, -47.0215, -11.8586, 29.3335, 13.6643, 67.3547, -166.329
4.00764, -1, -47.0888, -11.8955, 29.3448, 13.665, 67.321, -166.413
4.01567, -1, -47.1413, -11.925, 29.352, 13.6655, 67.2977, -166.473
4.02372, -1, -47.1803, -11.9471, 29.356, 13.6657, 67.2826, -166.51
4.03167, -1, -47.208, -11.9627, 29.3578, 13.6658, 67.2737, -166.533
4.03964, -1, -47.2263, -11.9727, 29.3586, 13.6658, 67.269, -166.545
4.04771, -1, -47.2373, -11.9787, 29.359, 13.6659, 67.2666, -166.551
4.05564, 2, -47.2429, -11.9816, 29.3592, 13.666, 67.2655, -166.554
4.06367, 2, -47.245, -11.983, 29.3593, 13.666, 67.2649, -166.555
4.07175, 2, -47.2451, -11.9835, 29.3594, 13.666, 67.2647, -166.555
4.07964, 2, -47.245, -11.9836, 29.3595, 13.666, 67.2645, -166.556
4.08764, 2, -47.2449, -11.9837, 29.3595, 13.666, 67.2645, -166.556
4.09571, 2, -47.2453, -11.9838, 29.3596, 13.666, 67.2644, -166.556
4.10365, 2, -47.2462, -11.9841, 29.3596, 13.6661, 67.2644, -166.556
4.1117, 2, -47.2476, -11.9846, 29.3596, 13.6661, 67.2644, -166.556
4.11971, 2, -47.2494, -11.9854, 29.3596, 13.6661, 67.2645, -166.556
4.12764, 2, -47.251, -11.9863, 29.3596, 13.6661, 67.2645, -166.556
4.13568, 2, -47.2524, -11.9871, 29.3596, 13.6661, 67.2644, -166.556
4.1437, 2, -47.2533, -11.9878, 29.3596, 13.6661, 67.2645, -166.556
4.15169, 2, -47.2538, -11.9882, 29.3596, 13.6661, 67.2645, -166.556
4.15964, 2, -47.254, -11.9884, 29.3596, 13.6661, 67.2644, -166.556
4.16776, 2, -47.254, -11.9884, 29.3596, 13.6661, 67.2644, -166.556
4.17574, 2, -47.2537, -11.9884, 29.3596, 13.6661, 67.2644, -166.556
4.18376, 2, -47.2532, -11.9884, 29.3596, 13.666, 67.2644, -166.556
4.19184, 2, -47.2527, -11.9884, 29.3596, 13.666, 67.2644, -166.556
4.19974, 2, -47.2524, -11.9884, 29.3596, 13.666, 67.2644, -166.556
4.20775, 2, -47.2522, -11.9884, 29.3596, 13.6661, 67.2645, -166.556
4.21593, 2, -47.2522, -11.9884, 29.3596, 13.6661, 67.2644, -166.556
4.22385, 2, -47.2524, -11.9886, 29.3596, 13.6661, 67.2644, -166.556
4.23181, 2, -47.2526, -11.9889, 29.3596, 13.666, 67.2645, -166.556
4.23975, 2, -47.2532, -11.9892, 29.3596, 13.6661, 67.2645, -166.556
4.2477, 2, -47.2537, -11.9895, 29.3596, 13.6661, 67.2645, -166.556
4.25591, 2, -47.254, -11.9897, 29.3596, 13.6661, 67.2644, -166.556
4.26397, 2, -47.2542, -11.9898, 29.3596, 13.666, 67.2645, -166.556
4.27194, 2, -47.2542, -11.9898, 29.3596, 13.666, 67.2644, -166.556
4.27869, 2, -47.2541, -11.9898, 29.3596, 13.666, 67.2645, -166.556
4.28814, 2, -47.2539, -11.9897, 29.3596, 13.6661, 67.2645, -166.556
4.29608, 2, -47.2534, -11.9897, 29.3596, 13.666, 67.2645, -166.556
4.30452, 2, -47.2531, -11.9896, 29.3596, 13.6661, 67.2645, -166.556
4.31238, 2, -47.2528, -11.9896, 29.3596, 13.666, 67.2645, -166.556
4.32017, 2, -47.2526, -11.9896, 29.3596, 13.666, 67.2644, -166.556
4.32818, 2, -47.2525, -11.9897, 29.3596, 13.666, 67.2645, -166.556
4.33639, 2, -47.2524, -11.9897, 29.3596, 13.666, 67.2645, -166.556
4.34414, 2, -47.2524, -11.9897, 29.3596, 13.666, 67.2645, -166.556
4.35248, 2, -47.2524, -11.9898, 29.3596, 13.666, 67.2645, -166.556
4.35968, 2, -47.2524, -11.9898, 29.3596, 13.666, 67.2645, -166.556
4.36763, 2, -47.2525, -11.9899, 29.3596, 13.6659, 67.2645, -166.556
4.37565, 2, -47.2525, -11.9899, 29.3596, 13.666, 67.2645, -166.556
4.38368, 2, -47.2525, -11.9898, 29.3596, 13.666, 67.2645, -166.556
4.3917, 2, -47.2524, -11.9898, 29.3596, 13.666, 67.2645, -166.556
4.39965, 2, -47.2523, -11.9897, 29.3596, 13.666, 67.2645, -166.555
4.40768, 2, -47.2522, -11.9896, 29.3596, 13.666, 67.2645, -166.556
4.41564, 2, -47.2521, -11.9896, 29.3596, 13.666, 67.2645, -166.555
4.42363, 2, -47.2519, -11.9896, 29.3596, 13.666, 67.2645, -166.555
4.43175, 2, -47.2518, -11.9896, 29.3596, 13.666, 67.2645, -166.555
4.43962, 2, -47.2518, -11.9896, 29.3596, 13.666, 67.2645, -166.556
4.44763, 2, -47.2517, -11.9896, 29.3596, 13.666, 67.2646, -166.556
4.4557, 2, -47.2517, -11.9896, 29.3596, 13.666, 67.2646, -166.556
4.46362, 2, -47.2516, -11.9896, 29.3596, 13.6659, 67.2645, -166.556
4.4717, 2, -47.2516, -11.9896, 29.3596, 13.666, 67.2646, -166.555
4.48064, 2, -47.2515, -11.9896, 29.3596, 13.666, 67.2645, -166.555
4.48762, 2, -47.2515, -11.9896, 29.3596, 13.666, 67.2646, -166.555
4.49665, 2, -47.2514, -11.9895, 29.3596, 13.666, 67.2646, -166.555
4.50372, 2, -47.2513, -11.9895, 29.3596, 13.666, 67.2646, -166.555
4.51168, 2, -47.2512, -11.9894, 29.3596, 13.666, 67.2646, -166.556
4.51964, 2, -47.2511, -11.9893, 29.3596, 13.666, 67.2646, -166.555
4.52769, 2, -47.251, -11.9893, 29.3596, 13.666, 67.2646, -166.555
4.53564, 2, -47.2509, -11.9893, 29.3596, 13.666, 67.2646, -166.555
4.54363, 2, -47.2509, -11.9893, 29.3596, 13.666, 67.2646, -166.555
4.55175, 2, -47.2508, -11.9893, 29.3596, 13.666, 67.2645, -166.555
4.55965, 2, -47.2507, -11.9893, 29.3596, 13.666, 67.2645, -166.555
4.56765, 2, -47.2506, -11.9893, 29.3596, 13.666, 67.2646, -166.555
4.57571, 2, -47.2505, -11.9893, 29.3596, 13.666, 67.2646, -166.555
4.58363, 2, -47.2504, -11.9893, 29.3596, 13.6659, 67.2646, -166.555
4.59168, 2, -47.2502, -11.9892, 29.3596, 13.6659, 67.2646, -166.555
4.59969, 2, -47.2501, -11.9892, 29.3596, 13.666, 67.2646, -166.555
4.60762, 2, -47.25, -11.9891, 29.3596, 13.6659, 67.2646, -166.555
4.61564, 2, -47.2499, -11.989, 29.3596, 13.6659, 67.2646, -166.555
4.62369, 2, -47.2498, -11.989, 29.3596, 13.6659, 67.2646, -166.555
4.63167, 2, -47.2497, -11.9889, 29.3596, 13.666, 67.2646, -166.555
4.63964, 2, -47.2496, -11.9889, 29.3596, 13.6659, 67.2646, -166.555
4.64771, 2, -47.2495, -11.9889, 29.3596, 13.6659, 67.2646, -166.555
4.6557, 2, -47.2494, -11.9889, 29.3596, 13.6659, 67.2647, -166.555
4.66366, 2, -47.2493, -11.9889, 29.3596, 13.6659, 67.2647, -166.555
4.67181, 2, -47.2492, -11.9889, 29.3596, 13.6659, 67.2647, -166.555
4.67971, 2, -47.2492, -11.9889, 29.3596, 13.6659, 67.2647, -166.555
4.68773, 2, -47.2491, -11.9889, 29.3596, 13.6659, 67.2647, -166.555
4.6958, 2, -47.249, -11.9889, 29.3596, 13.6659, 67.2647, -166.555
4.70372, 2, -47.249, -11.9888, 29.3596, 13.6659, 67.2647, -166.555
4.71178, 2, -47.2489, -11.9887, 29.3596, 13.6658, 67.2647, -166.555
4.7198, 2, -47.2489, -11.9886, 29.3596, 13.6658, 67.2647, -166.555
4.72764, 2, -47.2487, -11.9886, 29.3596, 13.6658, 67.2647, -166.555
4.7357, 2, -47.2487, -11.9885, 29.3596, 13.6658, 67.2647, -166.555
4.74374, 2, -47.2486, -11.9885, 29.3596, 13.6658, 67.2647, -166.555
4.75176, 2, -47.2485, -11.9885, 29.3596, 13.6658, 67.2647, -166.555
4.7598, 2, -47.2485, -11.9885, 29.3596, 13.6658, 67.2647, -166.555
4.76822, 2, -47.2485, -11.9885, 29.3596, 13.6658, 67.2647, -166.555
4.77593, 2, -47.2485, -11.9885, 29.3596, 13.6658, 67.2648, -166.555
4.78267, 2, -47.2485, -11.9885, 29.3596, 13.6658, 67.2648, -166.555
4.7925, 2, -47.2484, -11.9884, 29.3596, 13.6658, 67.2647, -166.555
4.80012, 2, -47.2484, -11.9884, 29.3596, 13.6657, 67.2647, -166.555
4.80819, 2, -47.2483, -11.9884, 29.3596, 13.6657, 67.2647, -166.555
4.81659, 2, -47.2483, -11.9883, 29.3596, 13.6657, 67.2648, -166.554
4.82418, 2, -47.2482, -11.9882, 29.3596, 13.6657, 67.2648, -166.554
4.83226, 2, -47.2482, -11.9882, 29.3596, 13.6657, 67.2648, -166.554
4.84053, 2, -47.2481, -11.9881, 29.3596, 13.6657, 67.2648, -166.554
4.84813, 2, -47.248, -11.9881, 29.3596, 13.6657, 67.2648, -166.554
4.85564, 2, -47.2479, -11.9881, 29.3596, 13.6657, 67.2648, -166.554
4.86449, 2, -47.2478, -11.9881, 29.3596, 13.6657, 67.2648, -166.554
4.87166, 2, -47.2478, -11.9881, 29.3596, 13.6657, 67.2648, -166.554
4.87962, 2, -47.2478, -11.9881, 29.3596, 13.6657, 67.2648, -166.554
4.88766, 2, -47.2478, -11.9881, 29.3596, 13.6656, 67.2648, -166.554
4.89565, 2, -47.2478, -11.9881, 29.3596, 13.6657, 67.2648, -166.554
4.90364, 2, -47.2478, -11.988, 29.3596, 13.6656, 67.2648, -166.554
4.91172, 2, -47.2478, -11.988, 29.3596, 13.6656, 67.2648, -166.554
4.91961, 2, -47.2477, -11.9879, 29.3596, 13.6656, 67.2648, -166.554
4.92761, 2, -47.2476, -11.9878, 29.3596, 13.6656, 67.2648, -166.554
4.93568, 2, -47.2476, -11.9878, 29.3596, 13.6656, 67.2649, -166.554
4.94361, 2, -47.2475, -11.9877, 29.3596, 13.6655, 67.2649, -166.554
4.95166, 2, -47.2474, -11.9877, 29.3596, 13.6655, 67.2649, -166.554
4.95967, 2, -47.2474, -11.9877, 29.3596, 13.6655, 67.2649, -166.554
4.96761, 2, -47.2473, -11.9877, 29.3596, 13.6656, 67.265, -166.554
4.97661, 2, -47.2472, -11.9877, 29.3596, 13.6655, 67.265, -166.554
4.98368, 2, -47.2472, -11.9876, 29.3596, 13.6655, 67.265, -166.554
4.99166, 2, -47.2471, -11.9876, 29.3596, 13.6655, 67.265, -166.554
5.00069, 2, -47.2471, -11.9876, 29.3596, 13.6655, 67.2651, -166.554
5.00769, 2, -47.2471, -11.9876, 29.3596, 13.6655, 67.265, -166.554
5.01563, 2, -47.2471, -11.9876, 29.3596, 13.6655, 67.265, -166.554
5.02363, 2, -47.2471, -11.9875, 29.3596, 13.6655, 67.265, -166.554
5.03173, 2, -47.247, -11.9875, 29.3596, 13.6654, 67.265, -166.554
5.03961, 2, -47.2469, -11.9874, 29.3596, 13.6654, 67.265, -166.554
5.04761, 2, -47.2468, -11.9874, 29.3596, 13.6654, 67.2651, -166.554
5.05585, 2, -47.2467, -11.9873, 29.3596, 13.6654, 67.265, -166.554
5.06369, 2, -47.2466, -11.9873, 29.3596, 13.6654, 67.2651, -166.554
5.07171, 2, -47.2466, -11.9873, 29.3596, 13.6654, 67.2651, -166.554
5.07961, 2, -47.2466, -11.9873, 29.3596, 13.6654, 67.2651, -166.554
5.08766, 2, -47.2465, -11.9873, 29.3596, 13.6654, 67.2652, -166.554
5.09565, 2, -47.2465, -11.9873, 29.3596, 13.6654, 67.2651, -166.554
5.1036, 2, -47.2465, -11.9873, 29.3596, 13.6654, 67.2651, -166.554
5.1117, 2, -47.2465, -11.9872, 29.3596, 13.6654, 67.2652, -166.554
5.11963, 2, -47.2464, -11.9872, 29.3596, 13.6654, 67.2652, -166.554
5.1276, 2, -47.2464, -11.9872, 29.3596, 13.6654, 67.2652, -166.554
5.13589, 2, -47.2464, -11.9871, 29.3596, 13.6653, 67.2652, -166.554
5.14367, 4, -47.2463, -11.9871, 29.3596, 13.6653, 67.2652, -166.554
5.15167, 4, -47.2462, -11.987, 29.3596, 13.6653, 67.2652, -166.554
5.15966, 4, -47.2461, -11.987, 29.3596, 13.6653, 67.2653, -166.554
5.16767, 4, -47.2461, -11.987, 29.3596, 13.6653, 67.2653, -166.554
5.1757, 4, -47.246, -11.987, 29.3596, 13.6653, 67.2652, -166.554
5.18374, 4, -47.246, -11.987, 29.3596, 13.6652, 67.2652, -166.554
5.19179, 4, -47.2459, -11.987, 29.3596, 13.6652, 67.2652, -166.554
5.1997, 4, -47.2459, -11.9869, 29.3596, 13.6652, 67.2652, -166.554
5.20775, 4, -47.2459, -11.9869, 29.3596, 13.6652, 67.2653, -166.554
5.21576, 4, -47.2458, -11.9869, 29.3596, 13.6652, 67.2652, -166.554
5.22362, 4, -47.2458, -11.9869, 29.3596, 13.6652, 67.2652, -166.554
5.23184, 4, -47.2458, -11.9868, 29.3596, 13.6652, 67.2653, -166.554
5.24001, 4, -47.2458, -11.9868, 29.3596, 13.6652, 67.2653, -166.554
5.25559, 4, -47.2457, -11.9867, 29.3596, 13.6652, 67.2653, -166.553
5.25759, 4, -47.2456, -11.9867, 29.3596, 13.6652, 67.2653, -166.553
5.26577, 4, -47.2456, -11.9867, 29.3596, 13.6651, 67.2653, -166.553
5.27441, 4, -47.2455, -11.9867, 29.3595, 13.6651, 67.2653, -166.553
5.28172, 4, -47.2455, -11.9867, 29.3595, 13.6651, 67.2653, -166.553
5.28906, 4, -47.2454, -11.9866, 29.3595, 13.6651, 67.2653, -166.553
5.29622, 4, -47.2454, -11.9866, 29.3596, 13.665, 67.2653, -166.553
5.30516, 4, -47.2453, -11.9866, 29.3596, 13.665, 67.2653, -166.553
5.31252, 4, -47.2454, -11.9866, 29.3596, 13.665, 67.2653, -166.553
5.32072, 4, -47.2453, -11.9866, 29.3595, 13.665, 67.2653, -166.553
5.32901, 4, -47.2453, -11.9865, 29.3596, 13.665, 67.2653, -166.553
5.33907, 4, -47.2453, -11.9865, 29.3595, 13.665, 67.2653, -166.553
5.34449, 4, -47.2453, -11.9865, 29.3595, 13.665, 67.2653, -166.553
5.35323, 4, -47.2452, -11.9865, 29.3595, 13.665, 67.2653, -166.553
5.36043, 4, -47.2452, -11.9865, 29.3595, 13.665, 67.2653, -166.553
5.36854, 4, -47.2451, -11.9864, 29.3596, 13.665, 67.2653, -166.553
5.38108, 4, -47.245, -11.9864, 29.3595, 13.6649, 67.2653, -166.553
5.38374, 4, -47.245, -11.9864, 29.3595, 13.6649, 67.2653, -166.553
5.39385, 4, -47.245, -11.9864, 29.3595, 13.6649, 67.2653, -166.553
5.39981, 4, -47.2449, -11.9863, 29.3595, 13.6649, 67.2653, -166.553
5.40798, 4, -47.2449, -11.9864, 29.3596, 13.6649, 67.2653, -166.553
5.42591, 4, -47.2482, -11.9886, 29.3618, 13.6667, 67.266, -166.553
5.42968, 4, -47.25, -11.9904, 29.3639, 13.67, 67.2668, -166.552
5.43189, 4, -47.25, -11.9904, 29.3639, 13.67, 67.2668, -166.552
5.44236, 4, -47.2594, -12.0021, 29.3798, 13.7012, 67.2747, -166.547
5.4466, 4, -47.2645, -12.0088, 29.3902, 13.7218, 67.2804, -166.543
5.45555, 5, -47.2791, -12.0282, 29.423, 13.7882, 67.2989, -166.528
5.46268, 5, -47.3012, -12.0579, 29.4768, 13.9001, 67.3304, -166.502
5.47172, 5, -47.3329, -12.0996, 29.5582, 14.0718, 67.3783, -166.463
5.47966, 5, -47.3762, -12.155, 29.6727, 14.3167, 67.4458, -166.406
5.4886, 5, -47.4322, -12.2253, 29.8233, 14.6434, 67.5353, -166.332
5.49575, 5, -47.5008, -12.3107, 30.0123, 15.0545, 67.646, -166.237
5.5067, 5, -47.6266, -12.4667, 30.3665, 15.8181, 67.8494, -166.063
5.51184, 5, -47.6742, -12.5255, 30.5013, 16.106, 67.9252, -165.998
5.52163, 5, -47.7766, -12.6522, 30.7934, 16.7213, 68.0858, -165.86
5.52778, 5, -47.887, -12.7895, 31.1097, 17.377, 68.2536, -165.715
5.53675, 5, -48.0033, -12.9349, 31.444, 18.0573, 68.4251, -165.566
5.54489, 5, -48.1232, -13.0858, 31.7899, 18.7497, 68.5962, -165.417
5.55187, 5, -48.2439, -13.2391, 32.1424, 19.4452, 68.7651, -165.269
5.55972, 5, -48.3623, -13.3914, 32.4968, 20.1319, 68.9301, -165.121
5.56779, 5, -48.4749, -13.5401, 32.8497, 20.8011, 69.0913, -164.968
5.57862, 6, -48.5771, -13.6819, 33.1944, 21.4407, 69.3293, -164.704
5.58374, 6, -48.6645, -13.8136, 33.5258, 22.0397, 69.4086, -164.6
5.59253, 7, -48.7333, -13.9353, 33.8391, 22.5922, 69.5693, -164.359
5.59976, 7, -48.7807, -14.0481, 34.1328, 23.0943, 69.7348, -164.062
5.60783, 7, -48.8066, -14.1519, 34.4056, 23.5493, 69.9077, -163.698
5.61874, 8, -48.8079, -14.2886, 34.7797, 24.1632, 70.1879, -163.021
5.62387, 8, -48.7991, -14.3295, 34.8972, 24.3545, 70.2875, -162.761
5.63279, 9, -48.7693, -14.4072, 35.1238, 24.7259, 70.4971, -162.199
5.63989, 9, -48.7263, -14.4806, 35.3436, 25.0902, 70.719, -161.59
5.65067, 10, -48.6738, -14.5491, 35.5613, 25.4537, 70.9512, -160.949
5.65622, 10, -48.6132, -14.6135, 35.779, 25.8206, 71.1914, -160.288
5.66569, 11, -48.5454, -14.6759, 35.9982, 26.1921, 71.4365, -159.618
5.67353, 11, -48.4718, -14.7386, 36.2196, 26.5689, 71.6837, -158.947
5.68023, 12, -48.3947, -14.8014, 36.4406, 26.9513, 71.9317, -158.278
5.68783, 12, -48.3158, -14.8639, 36.659, 27.3394, 72.1802, -157.611
5.6959, 13, -48.2351, -14.9261, 36.8752, 27.7328, 72.4292, -156.947
5.70823, 14, -48.1094, -15.0192, 37.1921, 28.3303, 72.803, -155.954
5.71192, 14, -48.0665, -15.0501, 37.2957, 28.5308, 72.9273, -155.624
5.72075, 14, -47.9804, -15.111, 37.5001, 28.9319, 73.1747, -154.967
5.73209, 15, -47.8539, -15.1976, 37.7953, 29.526, 73.5376, -154.001
5.73714, 15, -47.8127, -15.2247, 37.8892, 29.7184, 73.6544, -153.688
5.74805, 16, -47.6925, -15.3007, 38.1542, 30.2646, 73.984, -152.802
5.7527, 16, -47.6538, -15.3241, 38.2352, 30.4321, 74.0848, -152.53
5.7624, 16, -47.5803, -15.3673, 38.3826, 30.7386, 74.269, -152.031
5.76812, 16, -47.5138, -15.4051, 38.5092, 31.0024, 74.427, -151.601
5.77743, 16, -47.4549, -15.4368, 38.614, 31.2185, 74.5559, -151.25
5.7843, 16, -47.4037, -15.4628, 38.6972, 31.3864, 74.656, -150.976
5.79247, 16, -47.3612, -15.4831, 38.7606, 31.51, 74.7303, -150.775
5.80012, 16, -47.3283, -15.4984, 38.8065, 31.5961, 74.7821, -150.635
5.80816, 16, -47.3041, -15.5095, 38.8382, 31.6533, 74.8158, -150.541
5.818, 16, -47.2865, -15.5173, 38.8594, 31.6876, 74.8365, -150.485
5.82423, 16, -47.274, -15.5225, 38.8727, 31.707, 74.848, -150.453
5.83218, 16, -47.2661, -15.5256, 38.8806, 31.7168, 74.8541, -150.436
5.84047, 16, -47.2618, -15.5274, 38.8853, 31.7214, 74.8571, -150.429
5.85419, 16, -47.2595, -15.5288, 38.8891, 31.7243, 74.8589, -150.424
5.85757, 16, -47.2592, -15.5291, 38.8899, 31.7247, 74.8592, -150.423
5.86448, 16, -47.2588, -15.5294, 38.8914, 31.7253, 74.8596, -150.422
5.87324, 16, -47.2573, -15.5301, 38.8922, 31.7256, 74.8598, -150.422
5.88196, 16, -47.2487, -15.5327, 38.8973, 31.7294, 74.8622, -150.417
5.88783, 16, -47.2433, -15.5344, 38.9008, 31.7334, 74.8644, -150.412
5.89686, 17, -47.2177, -15.5439, 38.9216, 31.7647, 74.8823, -150.365
5.90375, 17, -47.2054, -15.5491, 38.9334, 31.7852, 74.8939, -150.334
5.91348, 17, -47.153, -15.5732, 38.9907, 31.8924, 74.9546, -150.17
5.91974, 17, -47.1299, -15.5843, 39.0186, 31.9477, 74.9853, -150.084
5.93007, 18, -47.0418, -15.6278, 39.132, 32.1846, 75.1172, -149.716
5.93572, 18, -47.0058, -15.6459, 39.18, 32.2886, 75.1743, -149.554
5.94583, 19, -46.8765, -15.7122, 39.3541, 32.6719, 75.384, -148.957
5.95179, 19, -46.8262, -15.738, 39.4211, 32.8208, 75.4643, -148.726
5.95973, 20, -46.7155, -15.7946, 39.5661, 33.1432, 75.6372, -148.226
5.9678, 20, -46.592, -15.8573, 39.722, 33.4903, 75.8206, -147.691
5.9798, 21, -46.3848, -15.9617, 39.9683, 34.0364, 76.1031, -146.853
5.98662, 21, -46.2334, -16.0373, 40.1366, 34.4077, 76.2902, -146.288
5.99192, 22, -46.1542, -16.0764, 40.221, 34.5935, 76.3824, -146.005
6.00251, 22, -45.9048, -16.1981, 40.4715, 35.1486, 76.6522, -145.166
6.00778, 23, -45.8183, -16.24, 40.5539, 35.3322, 76.7397, -144.888
6.01868, 23, -45.5497, -16.369, 40.798, 35.8767, 76.9938, -144.062
6.02381, 24, -45.4574, -16.4129, 40.8777, 36.0559, 77.076, -143.79
6.03217, 24, -45.2685, -16.5018, 41.0338, 36.4104, 77.2362, -143.248
6.03972, 25, -45.0739, -16.5919, 41.1857, 36.7586, 77.3916, -142.71
6.05048, 25, -44.8733, -16.6828, 41.3338, 37.1007, 77.5423, -141.909
6.05907, 26, -44.559, -16.8203, 41.5469, 37.6011, 77.7598, -141.378
6.06777, 27, -44.3397, -16.9122, 41.6823, 37.9257, 77.8998, -140.85
6.07276, 27, -44.2269, -16.958, 41.7478, 38.0852, 77.9681, -140.587
6.08077, 27, -43.9957, -17.0491, 41.8745, 38.3978, 78.1017, -140.061
6.0903, 28, -43.757, -17.1395, 42.0529, 38.8518, 78.2955, -139.274
6.09651, 28, -43.5108, -17.2289, 42.1091, 38.9988, 78.3581, -139.012
6.10372, 29, -43.2573, -17.3169, 42.2164, 39.2866, 78.4814, -138.49
6.1118, 29, -42.9972, -17.4034, 42.3167, 39.566, 78.6014, -137.967
6.12166, 30, -42.7305, -17.4882, 42.4098, 39.8369, 78.7181, -137.444
6.12774, 30, -42.4565, -17.571, 42.4956, 40.0993, 78.8322, -136.923
6.13586, 31, -42.1754, -17.6514, 42.5743, 40.353, 78.9429, -136.402
6.14388, 31, -41.8879, -17.7291, 42.646, 40.5983, 79.0511, -135.882
6.15467, 32, -41.5942, -17.8046, 42.7109, 40.835, 79.1569, -135.362
6.16081, 32, -41.2939, -17.8777, 42.7691, 41.0634, 79.2598, -134.842
6.16974, 33, -40.9868, -17.9478, 42.8202, 41.2838, 79.3605, -134.325
6.17597, 33, -40.6718, -18.0146, 42.8641, 41.4962, 79.4584, -133.808
6.18397, 34, -40.3494, -18.0784, 42.9008, 41.7003, 79.5537, -133.291
6.19401, 34, -40.0213, -18.1398, 42.9302, 41.8964, 79.6463, -132.776
6.19999, 35, -39.6871, -18.1981, 42.9525, 42.0847, 79.7368, -132.262
6.20821, 35, -39.3467, -18.2531, 42.9676, 42.2655, 79.8243, -131.75
6.2159, 36, -38.9998, -18.3047, 42.9757, 42.4386, 79.91, -131.238
6.22415, 36, -38.6464, -18.3531, 42.9771, 42.6039, 79.9936, -130.727
6.23256, 37, -38.2877, -18.3982, 42.9718, 42.7616, 80.0747, -130.218
6.24398, 37, -37.9243, -18.459, 42.951, 42.9841, 80.1932, -129.459
6.24792, 38, -37.5559, -18.4775, 42.9408, 43.0547, 80.2313, -129.206
6.25788, 38, -37.1831, -18.5119, 42.9154, 43.1901, 80.3067, -128.702
6.26408, 39, -36.8054, -18.5429, 42.8831, 43.3181, 80.3792, -128.199
6.27308, 39, -36.4224, -18.5701, 42.8442, 43.4389, 80.4505, -127.699
6.28015, 40, -36.0331, -18.5935, 42.7987, 43.5523, 80.5194, -127.201
6.28891, 40, -35.6367, -18.6131, 42.7467, 43.6586, 80.587, -126.704
6.29651, 41, -35.2342, -18.6286, 42.6881, 43.7576, 80.6521, -126.209
6.30505, 41, -34.8264, -18.6407, 42.6231, 43.8494, 80.7153, -125.717
6.31474, 42, -34.4151, -18.6494, 42.5516, 43.9341, 80.7769, -125.227
6.32174, 42, -34.0013, -18.655, 42.4737, 44.0118, 80.8358, -124.739
6.32838, 43, -33.5849, -18.6574, 42.3898, 44.082, 80.8942, -124.253
6.33673, 43, -33.1644, -18.6563, 42.3, 44.1455, 80.9496, -123.77
6.34442, 44, -32.7383, -18.6515, 42.2044, 44.2017, 81.0041, -123.289
6.35468, 44, -32.3055, -18.6428, 42.1031, 44.2503, 81.0571, -122.811
6.36043, 45, -32.0867, -18.6371, 41.9959, 44.2922, 81.1076, -122.335
6.3676, 45, -31.645, -18.6228, 41.9401, 44.3104, 81.1325, -122.098
6.37641, 46, -31.1993, -18.6051, 41.8238, 44.341, 81.1817, -121.389
6.38562, 46, -30.5261, -18.5719, 41.6384, 44.372, 81.2505, -120.92
6.39177, 47, -30.2999, -18.5589, 41.5737, 44.3786, 81.273, -120.687
6.39972, 47, -29.8441, -18.5295, 41.4399, 44.3863, 81.3177, -120.221
6.40961, 48, -29.1489, -18.4772, 41.2278, 44.3846, 81.3815, -119.525
6.41575, 48, -28.9142, -18.4576, 41.1541, 44.3796, 81.4023, -119.294
6.42356, 49, -28.441, -18.4153, 41.0021, 44.3633, 81.4442, -118.834
6.43162, 49, -27.9652, -18.3685, 40.8443, 44.3381, 81.4856, -118.376
6.43971, 50, -27.4873, -18.3173, 40.6802, 44.3028, 81.5261, -117.918
6.45082, 51, -26.7636, -18.2306, 40.4215, 44.2331, 81.5882, -117.233
6.45777, 51, -26.2722, -18.1658, 40.2412, 44.1747, 81.6308, -116.778
6.46547, 51, -25.7728, -18.0955, 40.054, 44.1062, 81.6731, -116.323
6.47178, 52, -25.5206, -18.0582, 39.9576, 44.0686, 81.6946, -116.096
6.47978, 52, -25.0133, -17.9799, 39.7593, 43.9849, 81.7389, -115.643
6.48792, 53, -24.5037, -17.8961, 39.555, 43.891, 81.7837, -115.19
6.49855, 53, -23.7332, -17.7597, 39.2354, 43.7315, 81.8516, -114.512
6.5038, 54, -23.4735, -17.711, 39.1249, 43.6731, 81.8755, -114.286
6.51232, 54, -22.9478, -17.6091, 38.8991, 43.5482, 81.9247, -113.834
6.51973, 55, -22.4145, -17.5012, 38.6664, 43.4122, 81.9749, -113.382
6.52779, 55, -21.8766, -17.387, 38.4259, 43.2645, 82.0283, -112.93
6.53578, 56, -21.3366, -17.267, 38.1792, 43.105, 82.0835, -112.478
6.54373, 56, -20.7933, -17.1412, 37.9253, 42.934, 82.1399, -112.028
6.55167, 57, -20.2433, -17.01, 37.6645, 42.7516, 82.199, -111.577
6.55956, 57, -19.6836, -16.8734, 37.3976, 42.5574, 82.2589, -111.127
6.56771, 58, -19.1158, -16.7311, 37.1238, 42.351, 82.3212, -110.676
6.57885, 59, -18.2565, -16.5065, 36.7023, 42.0185, 82.4172, -110.002
6.58778, 59, -17.6807, -16.3502, 36.4132, 41.782, 82.4842, -109.553
6.59179, 59, -17.3907, -16.2703, 36.2665, 41.6591, 82.5183, -109.329
6.59972, 60, -16.8037, -16.1069, 35.9686, 41.4039, 82.5877, -108.88
6.61234, 61, -15.9053, -15.8517, 35.5111, 40.9962, 82.6964, -108.207
6.61672, 61, -15.6031, -15.7641, 35.3557, 40.8534, 82.7335, -107.982
6.6256, 61, -14.9967, -15.5855, 35.0401, 40.5579, 82.8101, -107.534
6.63177, 62, -14.3864, -15.4027, 34.7184, 40.2491, 82.8892, -107.086
6.64308, 63, -13.4541, -15.1179, 34.2255, 39.76, 83.0133, -106.412
6.64774, 63, -13.1382, -15.0195, 34.0587, 39.5896, 83.0562, -106.187
6.65971, 64, -12.1801, -14.7153, 33.55, 39.0561, 83.1899, -105.512
6.66372, 64, -11.8586, -14.6115, 33.3775, 38.871, 83.2363, -105.286
6.6735, 64, -11.212, -14.399, 33.0281, 38.4898, 83.3319, -104.834
6.67983, 65, -10.5559, -14.179, 32.6726, 38.0937, 83.432, -104.38
6.68879, 65, -9.88928, -13.9524, 32.3118, 37.6821, 83.5372, -103.925
6.69583, 66, -9.21419, -13.7202, 31.9465, 37.2542, 83.6476, -103.467
6.70472, 66, -8.53352, -13.4814, 31.5766, 36.8113, 83.7634, -103.009
6.71396, 67, -7.84733, -13.2355, 31.2006, 36.3526, 83.8842, -102.547
6.72039, 67, -7.1518, -12.9821, 30.8195, 35.8791, 84.0114, -102.084
6.72971, 68, -6.44683, -12.7209, 30.434, 35.3895, 84.1448, -101.619
6.73648, 68, -5.73421, -12.4536, 30.0448, 34.8846, 84.2851, -101.151
6.74385, 69, -5.01556, -12.1794, 29.651, 34.3646, 84.4324, -100.681
6.75195, 69, -4.28961, -11.8973, 29.2527, 33.8297, 84.5865, -100.208
6.76134, 70, -3.55479, -11.6083, 28.8524, 33.2807, 84.7475, -99.7332
6.76806, 70, -2.81175, -11.3117, 28.4505, 32.7164, 84.9154, -99.2555
6.77617, 71, -2.06223, -11.0083, 28.0466, 32.1384, 85.0899, -98.7765
6.78953, 72, -0.924124, -10.5398, 27.4375, 31.2469, 85.3659, -98.0529
6.79298, 72, -0.541336, -10.3801, 27.234, 30.9428, 85.4616, -97.8105
6.80658, 73, 0.616315, -9.88958, 26.6229, 30.0108, 85.7603, -97.0797
6.80928, 73, 1.00518, -9.72166, 26.4189, 29.6944, 85.8639, -96.835
6.81713, 73, 1.78758, -9.38055, 26.0103, 29.0525, 86.0775, -96.3442
6.82451, 74, 2.57497, -9.03303, 25.6018, 28.3994, 86.3002, -95.8509
6.84134, 75, 4.15951, -8.32265, 24.7897, 27.0637, 86.7711, -94.8575
6.84304, 75, 4.15951, -8.32265, 24.7897, 27.0637, 86.7711, -94.8575
6.84806, 75, 4.55761, -8.14108, 24.5883, 26.7256, 86.8935, -94.3588
6.85619, 76, 5.35516, -7.77344, 24.1893, 26.0482, 87.2705, -93.858
6.86355, 76, 6.15311, -7.39983, 23.7961, 25.3683, 87.399, -93.6069
6.87743, 77, 7.3505, -6.82538, 23.0294, 24.0108, 87.9286, -92.5974
6.87954, 77, 7.75061, -6.62946, 23.0294, 24.0108, 87.9286, -92.5974
6.88753, 78, 8.55154, -6.23146, 22.654, 23.3318, 88.2054, -92.0895
6.89556, 78, 9.35286, -5.82599, 22.2838, 22.6501, 88.4924, -91.5781
6.90356, 79, 10.1542, -5.41175, 21.9171, 21.9656, 88.7911, -91.0629
6.91164, 79, 10.9558, -4.98803, 21.553, 21.2794, 89.1018, -90.5432
6.91954, 80, 11.7552, -4.55476, 21.1914, 20.5928, 89.4249, -90.0198
6.92755, 80, 12.5505, -4.11227, 20.8342, 19.9055, 89.76, -89.4911
6.93557, 81, 13.3412, -3.6589, 20.4813, 19.2237, 90.1061, -88.9573
6.94355, 81, 14.1272, -3.1951, 20.1336, 18.5501, 90.4625, -88.4184
6.95164, 82, 14.9051, -2.72241, 19.7917, 17.886, 90.8283, -87.8752
6.95955, 82, 15.6734, -2.24127, 19.4577, 17.2326, 91.2035, -87.328
6.96753, 83, 16.4318, -1.75207, 19.1308, 16.5917, 91.5877, -86.7767
6.97563, 83, 17.1797, -1.25582, 18.812, 15.9679, 91.9798, -86.2226
6.98357, 84, 17.9131, -0.75406, 18.501, 15.3606, 92.3791, -85.6671
6.99256, 84, 18.6286, -0.248451, 18.1994, 14.7739, 92.7847, -85.1117
6.99958, 85, 19.3266, 0.262282, 17.9067, 14.2102, 93.1955, -84.5563
7.00754, 85, 20.008, 0.779713, 17.623, 13.671, 93.6113, -84.003
7.0159, 86, 20.6731, 1.30234, 17.3478, 13.1561, 94.0307, -83.452
7.02463, 86, 21.3215, 1.82823, 17.0802, 12.6656, 94.4532, -82.9027
7.0316, 86, 21.9555, 2.35928, 16.8207, 12.1976, 94.88, -82.353
7.03964, 87, 22.5768, 2.8985, 16.5673, 11.7527, 95.3121, -81.8014
7.04754, 87, 23.1868, 3.4467, 16.3189, 11.3273, 95.7501, -81.2463
7.05561, 88, 23.7852, 4.00237, 16.0748, 10.92, 96.1946, -80.6855
7.06355, 88, 24.3724, 4.56565, 15.8342, 10.5289, 96.6449, -80.1157
7.07167, 89, 24.9469, 5.13906, 15.5997, 10.1536, 97.102, -79.5366
7.07956, 89, 25.5102, 5.72275, 15.3702, 9.79366, 97.5657, -78.9467
7.08759, 90, 26.0655, 6.31595, 15.1435, 9.44937, 98.0355, -78.3454
7.09558, 90, 26.6138, 6.91776, 14.9206, 9.1199, 98.5118, -77.7306
7.10358, 91, 27.1511, 7.52788, 14.7029, 8.80806, 98.9944, -77.1034
7.11164, 91, 27.6752, 8.14777, 14.4901, 8.51467, 99.4829, -76.4651
7.11958, 92, 28.188, 8.77824, 14.2819, 8.24179, 99.9762, -75.8154
7.12756, 92, 28.6924, 9.41925, 14.0784, 7.99146, 100.473, -75.1565
7.13558, 93, 29.1883, 10.0686, 13.8803, 7.76375, 100.972, -74.4906
7.1436, 93, 29.6722, 10.724, 13.6895, 7.55965, 101.472, -73.8177
7.15164, 94, 30.142, 11.3839, 13.5069, 7.37912, 101.97, -73.1379
7.15979, 94, 30.5967, 12.0466, 13.3318, 7.2222, 102.467, -72.4531
7.16755, 95, 31.0372, 12.7114, 13.1635, 7.08913, 102.96, -71.7637
7.1758, 95, 31.4638, 13.3776, 13.0032, 6.98004, 103.45, -71.0683
7.18362, 96, 31.8767, 14.0452, 12.8506, 6.89406, 103.936, -70.3674
7.19193, 96, 32.2748, 14.7136, 12.7042, 6.83272, 104.419, -69.6619
7.19964, 97, 32.6569, 15.3827, 12.5643, 6.79401, 104.897, -68.9502
7.20769, 97, 33.0224, 16.0505, 12.4319, 6.77618, 105.37, -68.2332
7.21571, 98, 33.3721, 16.7165, 12.3077, 6.78055, 105.836, -67.5137
7.22366, 98, 33.7075, 17.3792, 12.1923, 6.80655, 106.293, -66.7904
7.2317, 99, 34.0292, 18.0371, 12.086, 6.85223, 106.742, -66.0653
7.23961, 99, 34.3382, 18.6885, 11.9891, 6.91815, 107.179, -65.3421
7.2485, 100, 34.6359, 19.332, 11.901, 7.00158, 107.604, -64.6196
7.25573, 100, 34.9222, 19.9667, 11.8215, 7.10281, 108.017, -63.8998
7.26369, 101, 35.1966, 20.5909, 11.7502, 7.22, 108.415, -63.1865
7.27265, 101, 35.4593, 21.2045, 11.6872, 7.35223, 108.799, -62.4787
7.28009, 102, 35.7108, 21.8065, 11.6329, 7.49766, 109.167, -61.7791
7.28787, 102, 35.9498, 22.3957, 11.5871, 7.65481, 109.517, -61.0907
7.29589, 102, 36.1771, 22.9711, 11.5499, 7.82195, 109.85, -60.4134
7.3026, 103, 36.2873, 23.253, 11.5346, 7.90899, 110.01, -60.0791
7.31207, 103, 36.6071, 24.0746, 11.5021, 8.18342, 110.461, -59.0948
7.32009, 104, 36.811, 24.6024, 11.4917, 8.37765, 110.738, -58.4557
7.32809, 104, 37.0076, 25.1139, 11.4886, 8.58108, 110.994, -57.8278
7.33617, 104, 37.1979, 25.6089, 11.4923, 8.79256, 111.23, -57.2131
7.3441, 104, 37.2905, 26.0874, 11.5021, 9.01071, 111.446, -56.6125
7.35233, 104, 37.4691, 26.5496, 11.5159, 9.23343, 111.644, -56.0264
7.36025, 104, 37.6382, 26.7742, 11.5326, 9.45861, 111.826, -55.4574
7.36755, 104, 37.7998, 27.2123, 11.542, 9.57121, 111.912, -55.1799
7.37557, 104, 37.9561, 27.6343, 11.5625, 9.79474, 112.074, -54.6407
7.38366, 104, 38.1075, 28.0401, 11.5835, 10.0149, 112.227, -54.1248
7.39157, 104, 38.2532, 28.4288, 11.6045, 10.23, 112.371, -53.6311
7.39953, 104, 38.3922, 28.8013, 11.6245, 10.4393, 112.507, -53.162
7.40759, 104, 38.524, 29.1558, 11.6432, 10.6414, 112.635, -52.7167
7.41553, 104, 38.648, 29.4922, 11.6609, 10.8356, 112.755, -52.2967
7.42358, 104, 38.7638, 29.8095, 11.6774, 11.0213, 112.868, -51.9017
7.43158, 104, 38.8713, 30.1078, 11.6927, 11.1977, 112.973, -51.5312
7.43953, 104, 38.9707, 30.3878, 11.707, 11.3643, 113.071, -51.1862
7.4476, 104, 39.0625, 30.6479, 11.7201, 11.5206, 113.161, -50.867
7.45553, 104, 39.1465, 30.8883, 11.732, 11.6663, 113.244, -50.5727
7.46354, 104, 39.2225, 31.1093, 11.7427, 11.8006, 113.319, -50.3036
7.47163, 104, 39.2907, 31.31, 11.7527, 11.9236, 113.387, -50.0597
7.47953, 104, 39.3513, 31.4911, 11.7618, 12.0348, 113.448, -49.8412
7.48758, 104, 39.4045, 31.6529, 11.7697, 12.1341, 113.502, -49.6478
7.49656, 104, 39.451, 31.7953, 11.7768, 12.2212, 113.549, -49.4793
7.50353, 104, 39.4916, 31.9194, 11.7833, 12.2959, 113.588, -49.3352
7.51173, 104, 39.5264, 32.0262, 11.7892, 12.3593, 113.622, -49.2146
7.52054, 104, 39.5552, 32.1166, 11.7944, 12.411, 113.649, -49.1163
7.52757, 104, 39.5788, 32.1915, 11.799, 12.4512, 113.67, -49.0385
7.53553, 104, 39.5977, 32.2531, 11.8032, 12.4824, 113.686, -48.9796
7.54364, 104, 39.6122, 32.3026, 11.807, 12.5056, 113.697, -48.9368
7.55157, 104, 39.6234, 32.3414, 11.8104, 12.5219, 113.705, -48.9071
7.55953, 104, 39.6318, 32.3706, 11.8134, 12.533, 113.709, -48.8875
7.56761, 104, 39.6377, 32.3925, 11.8162, 12.5401, 113.712, -48.8758
7.57553, 104, 39.6417, 32.4086, 11.8185, 12.5441, 113.714, -48.8693
7.58353, 104, 39.644, 32.4196, 11.8203, 12.5462, 113.714, -48.8662
7.59161, 105, 39.6451, 32.4265, 11.8216, 12.5473, 113.715, -48.8648
7.59953, 105, 39.645, 32.4308, 11.8227, 12.5479, 113.715, -48.8643
7.60754, 105, 39.6442, 32.4337, 11.8236, 12.5481, 113.715, -48.8643
7.6156, 105, 39.6431, 32.4358, 11.8243, 12.5483, 113.715, -48.8645
7.62353, 105, 39.642, 32.4375, 11.825, 12.5483, 113.715, -48.8648
7.63158, 105, 39.6409, 32.4388, 11.8257, 12.5484, 113.715, -48.8651
7.63959, 105, 39.6398, 32.44, 11.8262, 12.5484, 113.715, -48.8655
7.64754, 105, 39.6391, 32.4411, 11.8268, 12.5484, 113.715, -48.8658
7.65557, 105, 39.6387, 32.4422, 11.8274, 12.5484, 113.715, -48.8662
7.66362, 105, 39.6383, 32.4432, 11.828, 12.5484, 113.715, -48.8665
7.67158, 105, 39.638, 32.4442, 11.8285, 12.5484, 113.715, -48.8668
7.67957, 105, 39.6377, 32.445, 11.8289, 12.5483, 113.715, -48.8671
7.68767, 105, 39.6375, 32.4456, 11.8293, 12.5483, 113.715, -48.8674
7.69566, 105, 39.6371, 32.4459, 11.8296, 12.5483, 113.715, -48.8677
7.70364, 105, 39.6368, 32.4461, 11.8298, 12.5483, 113.715, -48.868
7.71201, 105, 39.6365, 32.4462, 11.83, 12.5483, 113.715, -48.8682
