hehonglu123/Motion-Primitive-Planning/ILC/recorded_data/realrobot/from_NX/iteration_2/run_3.csv
timestamp, cmd_num, J1, J2, J3, J4, J5, J6
0.00039, -1, 39.632, 32.446, 11.8315, 12.5469, 113.714, -48.871
0.004406, -1, 39.632, 32.446, 11.8315, 12.5469, 113.714, -48.871
0.007813, -1, 39.632, 32.446, 11.8315, 12.547, 113.714, -48.871
0.028712, -1, 39.632, 32.446, 11.8315, 12.547, 113.714, -48.8709
0.031478, -1, 39.632, 32.446, 11.8315, 12.5469, 113.714, -48.8709
0.034536, -1, 39.632, 32.446, 11.8315, 12.5469, 113.714, -48.8709
0.039737, -1, 39.632, 32.446, 11.8315, 12.5469, 113.714, -48.8709
0.047689, -1, 39.632, 32.446, 11.8315, 12.5469, 113.714, -48.8709
0.191454, -1, 38.4261, 31.8328, 12.0655, 12.5563, 113.09, -50.4655
0.192694, -1, 38.4261, 31.8328, 12.0655, 12.5563, 113.09, -50.4655
0.193979, -1, 38.4261, 31.8328, 12.0655, 12.5563, 113.09, -50.4655
0.195931, -1, 38.3409, 31.7881, 12.0848, 12.5575, 113.041, -50.5887
0.198062, -1, 38.3409, 31.7881, 12.0848, 12.5575, 113.041, -50.5887
0.200136, -1, 38.2539, 31.7426, 12.1043, 12.5587, 112.992, -50.7136
0.201329, -1, 38.2539, 31.7426, 12.1043, 12.5587, 112.992, -50.7136
0.204734, -1, 38.1654, 31.6963, 12.1238, 12.5598, 112.942, -50.8398
0.20605, -1, 38.1654, 31.6963, 12.1238, 12.5598, 112.942, -50.8398
0.208071, -1, 38.0754, 31.6494, 12.1433, 12.5611, 112.892, -50.9669
0.209381, -1, 38.0754, 31.6494, 12.1433, 12.5611, 112.892, -50.9669
0.212041, -1, 37.9842, 31.602, 12.1628, 12.5623, 112.841, -51.0949
0.213284, -1, 37.9842, 31.602, 12.1628, 12.5623, 112.841, -51.0949
0.215276, -1, 37.8919, 31.5541, 12.1822, 12.5635, 112.79, -51.2235
0.216632, -1, 37.8919, 31.5541, 12.1822, 12.5635, 112.79, -51.2235
0.219275, -1, 37.7986, 31.5058, 12.2016, 12.5646, 112.739, -51.3526
0.221898, -1, 37.7986, 31.5058, 12.2016, 12.5646, 112.739, -51.3526
0.223931, -1, 37.7044, 31.4572, 12.221, 12.5658, 112.688, -51.4819
0.225227, -1, 37.7044, 31.4572, 12.221, 12.5658, 112.688, -51.4819
0.227048, -1, 37.7044, 31.4084, 12.2404, 12.567, 112.637, -51.6116
0.228572, -1, 37.6096, 31.4084, 12.2404, 12.567, 112.637, -51.6116
0.229773, -1, 37.6096, 31.4084, 12.2404, 12.567, 112.637, -51.6116
0.233832, -1, 37.5142, 31.3595, 12.2598, 12.5683, 112.586, -51.7415
0.239271, -1, 37.3226, 31.2616, 12.2985, 12.5707, 112.483, -52.0009
0.247786, -1, 37.1306, 31.1638, 12.3373, 12.5732, 112.381, -52.2605
0.255823, -1, 36.9384, 31.066, 12.3761, 12.5758, 112.277, -52.5206
0.263863, -1, 36.7465, 30.9683, 12.4148, 12.5783, 112.174, -52.781
0.271691, -1, 36.5549, 30.8706, 12.4537, 12.5809, 112.072, -53.0413
0.279713, -1, 36.3634, 30.773, 12.4926, 12.5835, 111.969, -53.3016
0.287825, -1, 36.1719, 30.6751, 12.5314, 12.5861, 111.866, -53.562
0.295767, -1, 35.9804, 30.5772, 12.5703, 12.5888, 111.763, -53.8227
0.303804, -1, 35.789, 30.4792, 12.6092, 12.5914, 111.66, -54.0833
0.312105, -1, 35.5972, 30.3812, 12.6481, 12.5938, 111.557, -54.3435
0.318729, -1, 35.5012, 30.3321, 12.6675, 12.5952, 111.505, -54.4737
0.328102, -1, 35.2129, 30.1847, 12.7257, 12.5991, 111.351, -54.8645
0.334672, -1, 35.1166, 30.1355, 12.7452, 12.6004, 111.299, -54.9948
0.344133, -1, 34.8282, 29.9879, 12.8035, 12.6044, 111.145, -55.3859
0.350693, -1, 34.7321, 29.9386, 12.8229, 12.6056, 111.093, -55.5162
0.360256, -1, 34.4436, 29.7909, 12.8813, 12.6094, 110.939, -55.9073
0.368295, -1, 34.2515, 29.6926, 12.9202, 12.612, 110.835, -56.1683
0.376438, -1, 34.0595, 29.5944, 12.9591, 12.6146, 110.732, -56.4291
0.384504, -1, 33.9635, 29.5453, 12.9982, 12.6173, 110.629, -56.6899
0.392235, -1, 33.7718, 29.4469, 13.0176, 12.6187, 110.526, -56.9508
0.400409, -1, 33.58, 29.3486, 13.0564, 12.6213, 110.475, -57.212
0.407675, -1, 33.3878, 29.2502, 13.0953, 12.624, 110.372, -57.3426
0.415674, -1, 33.1953, 29.1517, 13.1343, 12.6266, 110.269, -57.6033
0.423756, -1, 33.0026, 29.0531, 13.1731, 12.6292, 110.165, -57.8644
0.431669, -1, 32.8096, 28.9545, 13.212, 12.6319, 110.063, -58.1255
0.439681, -1, 32.6163, 28.8559, 13.251, 12.6346, 109.959, -58.3868
0.447675, -1, 32.4228, 28.7571, 13.2897, 12.6373, 109.856, -58.6479
0.455681, -1, 32.2289, 28.6585, 13.3287, 12.64, 109.753, -58.9089
0.463755, -1, 32.0348, 28.5597, 13.3676, 12.6427, 109.65, -59.1699
0.471675, -1, 31.8409, 28.4609, 13.4065, 12.6454, 109.547, -59.4314
0.479711, -1, 31.6473, 28.3622, 13.4455, 12.6481, 109.444, -59.6928
0.487779, -1, 31.4538, 28.2635, 13.4845, 12.651, 109.341, -59.954
0.495793, -1, 31.2608, 28.165, 13.5234, 12.6538, 109.238, -60.2153
0.503675, -1, 31.0684, 28.0666, 13.5625, 12.6566, 109.135, -60.4767
0.511739, -1, 30.876, 27.968, 13.6015, 12.6594, 109.032, -60.7383
0.644774, -1, 27.6882, 26.3383, 14.2446, 12.7021, 107.328, -65.0551
0.646618, -1, 27.592, 26.2888, 14.2641, 12.7033, 107.276, -65.1859
0.648075, -1, 27.592, 26.2888, 14.2641, 12.7033, 107.276, -65.1859
0.649256, -1, 27.592, 26.2888, 14.2641, 12.7033, 107.276, -65.1859
0.652008, -1, 27.496, 26.2394, 14.2835, 12.7045, 107.224, -65.3167
0.653224, -1, 27.496, 26.2394, 14.2835, 12.7045, 107.224, -65.3167
0.6555, -1, 27.4, 26.1899, 14.303, 12.7057, 107.173, -65.4475
0.658776, -1, 27.304, 26.1404, 14.3226, 12.7069, 107.121, -65.5782
0.660215, -1, 27.304, 26.1404, 14.3226, 12.7069, 107.121, -65.5782
0.661469, -1, 27.304, 26.1404, 14.3226, 12.7069, 107.121, -65.5782
0.663518, -1, 27.2079, 26.0909, 14.3421, 12.708, 107.069, -65.7091
0.664708, -1, 27.2079, 26.0909, 14.3421, 12.708, 107.069, -65.7091
0.666615, -1, 27.1117, 26.0414, 14.3615, 12.7092, 107.017, -65.84
0.66798, -1, 27.1117, 26.0414, 14.3615, 12.7092, 107.017, -65.84
0.669303, -1, 27.1117, 26.0414, 14.3615, 12.7092, 107.017, -65.84
0.671741, -1, 27.0154, 25.992, 14.3809, 12.7103, 106.966, -65.9708
0.672956, -1, 27.0154, 25.992, 14.3809, 12.7103, 106.966, -65.9708
0.675706, -1, 26.9191, 25.9426, 14.4004, 12.7115, 106.914, -66.1018
0.676994, -1, 26.9191, 25.9426, 14.4004, 12.7115, 106.914, -66.1018
0.679029, -1, 26.8228, 25.8932, 14.4199, 12.7127, 106.862, -66.2328
0.681221, -1, 26.8228, 25.8932, 14.4199, 12.7127, 106.862, -66.2328
0.687666, -1, 26.6297, 25.7943, 14.4589, 12.7149, 106.759, -66.4944
0.695746, -1, 26.4361, 25.6955, 14.4977, 12.7172, 106.656, -66.7561
0.703691, -1, 26.2422, 25.5967, 14.5367, 12.7194, 106.553, -67.0178
0.711737, -1, 26.048, 25.4978, 14.5757, 12.7216, 106.45, -67.2799
0.7197, -1, 25.8536, 25.3989, 14.6146, 12.7239, 106.347, -67.5415
0.727752, -1, 25.6594, 25.3001, 14.6537, 12.7262, 106.243, -67.803
0.735831, -1, 25.4654, 25.2014, 14.6927, 12.7284, 106.14, -68.0647
0.743769, -1, 25.2716, 25.1027, 14.7316, 12.7309, 106.037, -68.3265
0.751772, -1, 25.0783, 25.0039, 14.7707, 12.7331, 105.934, -68.5884
0.759939, -1, 24.885, 24.9051, 14.8097, 12.7355, 105.83, -68.8499
0.767778, -1, 24.6921, 24.8063, 14.8486, 12.7379, 105.727, -69.1115
0.775683, -1, 24.4997, 24.7074, 14.8876, 12.7403, 105.624, -69.3733
0.783764, -1, 24.3074, 24.6085, 14.9266, 12.7427, 105.52, -69.6349
0.791692, -1, 24.115, 24.5097, 14.9656, 12.7451, 105.417, -69.8964
0.800055, -1, 23.9222, 24.4109, 15.0046, 12.7474, 105.314, -70.158
0.806644, -1, 23.8258, 24.3614, 15.0241, 12.7487, 105.262, -70.2888
0.815877, -1, 23.5363, 24.2132, 15.0824, 12.7522, 105.107, -70.6815
0.824243, -1, 23.3428, 24.1143, 15.1214, 12.7546, 105.004, -70.943
0.831983, -1, 23.149, 24.0154, 15.1602, 12.7571, 104.9, -71.2049
0.838703, -1, 23.052, 23.9659, 15.1796, 12.7583, 104.849, -71.3358
0.849161, -1, 22.7608, 23.8177, 15.2381, 12.7621, 104.694, -71.7285
0.854651, -1, 22.6639, 23.7683, 15.2576, 12.7633, 104.642, -71.8594
0.864161, -1, 22.3734, 23.6203, 15.3161, 12.767, 104.487, -72.2515
0.873144, -1, 22.1801, 23.5217, 15.355, 12.7695, 104.383, -72.5129
0.878688, -1, 22.0834, 23.4723, 15.3745, 12.7709, 104.332, -72.6437
0.888258, -1, 21.8904, 23.3736, 15.433, 12.7748, 104.177, -73.0361
0.897224, -1, 21.6979, 23.2749, 15.4719, 12.7774, 104.074, -73.2973
0.903657, -1, 21.5057, 23.176, 15.4914, 12.7788, 104.022, -73.428
0.911655, -1, 21.3135, 23.0773, 15.5303, 12.7814, 103.919, -73.6893
0.919704, -1, 21.1212, 22.9787, 15.5693, 12.7841, 103.816, -73.9511
0.927655, -1, 20.9288, 22.8801, 15.6082, 12.7868, 103.713, -74.2123
0.935667, -1, 20.7364, 22.7815, 15.6472, 12.7895, 103.61, -74.4734
0.943668, -1, 20.5437, 22.6829, 15.6861, 12.7923, 103.506, -74.7347
0.951671, -1, 20.3505, 22.5842, 15.7249, 12.795, 103.404, -74.9961
0.958646, -1, 20.1569, 22.4855, 15.7639, 12.7977, 103.3, -75.2573
0.967678, -1, 19.9632, 22.3868, 15.8028, 12.8005, 103.197, -75.5184
0.974712, -1, 19.7696, 22.2881, 15.8414, 12.8032, 103.095, -75.7796
0.983739, -1, 19.5759, 22.1895, 15.8804, 12.8058, 102.992, -76.0409
0.991685, -1, 19.3824, 22.0909, 15.9193, 12.8086, 102.888, -76.3022
0.999654, -1, 19.1894, 21.9922, 15.9581, 12.8113, 102.786, -76.563
1.00773, -1, 18.9966, 21.8936, 15.9971, 12.8141, 102.682, -76.8237
1.01566, -1, 18.8042, 21.7949, 16.0359, 12.8168, 102.579, -77.0847
1.02365, -1, 18.6121, 21.6962, 16.0746, 12.8195, 102.477, -77.3457
1.03266, -1, 18.4204, 21.5976, 16.1135, 12.8221, 102.374, -77.6064
1.03967, -1, 18.2285, 21.4991, 16.1524, 12.8247, 102.271, -77.8671
1.04864, -1, 18.0366, 21.4006, 16.1912, 12.8272, 102.168, -78.1279
1.05571, -1, 17.8447, 21.3023, 16.2301, 12.8298, 102.065, -78.3889
1.06365, -1, 17.6527, 21.2039, 16.269, 12.8323, 101.962, -78.6494
1.07166, -1, 17.4603, 21.1056, 16.3078, 12.8348, 101.859, -78.9098
1.07966, -1, 17.2674, 21.0073, 16.3466, 12.8372, 101.756, -79.1704
1.08766, -1, 17.0743, 20.909, 16.3854, 12.8396, 101.653, -79.4311
1.09565, -1, 16.8813, 20.8108, 16.4242, 12.8419, 101.55, -79.6916
1.10366, -1, 16.6882, 20.7126, 16.463, 12.8442, 101.448, -79.952
1.11172, -1, 16.4951, 20.6144, 16.5017, 12.8466, 101.345, -80.2125
1.11965, -1, 16.3023, 20.5161, 16.5405, 12.8489, 101.242, -80.4731
1.12765, -1, 16.11, 20.4178, 16.5792, 12.8512, 101.14, -80.7336
1.13574, -1, 15.9182, 20.3194, 16.6179, 12.8535, 101.037, -80.9938
1.14366, -1, 15.7265, 20.2208, 16.6567, 12.8558, 100.934, -81.2538
1.15169, -1, 15.5351, 20.1224, 16.6953, 12.8581, 100.832, -81.514
1.15975, -1, 15.344, 20.0241, 16.7339, 12.8604, 100.729, -81.7741
1.16766, -1, 15.1529, 19.9259, 16.7727, 12.8627, 100.627, -82.0339
1.17565, -1, 14.9617, 19.8277, 16.8114, 12.8649, 100.524, -82.2937
1.18373, -1, 14.7704, 19.7296, 16.8501, 12.8673, 100.422, -82.5536
1.19166, -1, 14.5789, 19.6314, 16.8888, 12.8695, 100.319, -82.8137
1.19972, -1, 14.387, 19.5333, 16.9275, 12.8719, 100.216, -83.0734
1.20767, -1, 14.1948, 19.4353, 16.9662, 12.8741, 100.114, -83.3329
1.21566, -1, 14.0024, 19.3373, 17.0049, 12.8763, 100.011, -83.5925
1.22376, -1, 13.81, 19.2394, 17.0434, 12.8787, 99.9087, -83.8522
1.23174, -1, 13.6174, 19.1416, 17.0821, 12.881, 99.8062, -84.1118
1.2398, -1, 13.4251, 19.0437, 17.1208, 12.8833, 99.7036, -84.371
1.24782, -1, 13.2331, 18.9458, 17.1593, 12.8856, 99.6015, -84.6303
1.25575, -1, 13.0416, 18.8479, 17.1979, 12.888, 99.4991, -84.8896
1.26376, -1, 12.8504, 18.75, 17.2365, 12.8903, 99.3966, -85.149
1.27183, -1, 12.6594, 18.652, 17.275, 12.8927, 99.2945, -85.408
1.27977, -1, 12.4688, 18.5543, 17.3136, 12.8952, 99.1921, -85.6669
1.28775, -1, 12.2787, 18.4565, 17.3521, 12.8976, 99.0897, -85.9258
1.29573, -1, 12.0885, 18.3588, 17.3906, 12.9, 98.9879, -86.1848
1.30455, -1, 11.8982, 18.2612, 17.4292, 12.9024, 98.8857, -86.4436
1.31182, -1, 11.7077, 18.1636, 17.4678, 12.9048, 98.7838, -86.7019
1.31994, -1, 11.5169, 18.0659, 17.5062, 12.9073, 98.682, -86.9605
1.3288, -1, 11.3259, 17.9683, 17.5448, 12.9098, 98.58, -87.2192
1.33602, -1, 11.1345, 17.8708, 17.5833, 12.9121, 98.4781, -87.4777
1.34263, -1, 11.0387, 17.822, 17.6026, 12.9134, 98.4272, -87.6069
1.35313, -1, 10.7512, 17.6759, 17.6603, 12.9171, 98.2742, -87.9942
1.35871, -1, 10.6553, 17.6271, 17.6795, 12.9183, 98.2232, -88.1234
1.36824, -1, 10.3682, 17.4808, 17.737, 12.9222, 98.0705, -88.5109
1.37708, -1, 10.1772, 17.3834, 17.7755, 12.9247, 97.9687, -88.7688
1.38424, -1, 9.98664, 17.2857, 17.8138, 12.9274, 97.8669, -89.027
1.39229, -1, 9.79636, 17.1882, 17.8521, 12.93, 97.7649, -89.285
1.40114, -1, 9.70135, 17.1394, 17.8713, 12.9327, 97.6629, -89.5432
1.40671, -1, 9.5118, 17.042, 17.9096, 12.9341, 97.6119, -89.6721
1.41667, -1, 9.22794, 16.896, 17.9671, 12.9382, 97.459, -90.0586
1.42364, -1, 9.13327, 16.8474, 17.9863, 12.9395, 97.4082, -90.1873
1.43071, -1, 8.94393, 16.7502, 18.0245, 12.9421, 97.3064, -90.4449
1.43976, -1, 8.75446, 16.653, 18.0629, 12.9448, 97.2048, -90.7025
1.44763, -1, 8.56486, 16.5558, 18.1013, 12.9474, 97.103, -90.9596
1.45571, -1, 8.37507, 16.4588, 18.1396, 12.9501, 97.0016, -91.2169
1.46364, -1, 8.18477, 16.3618, 18.1778, 12.9528, 96.9001, -91.474
1.47166, -1, 7.99417, 16.2649, 18.2162, 12.9553, 96.7984, -91.7313
1.47978, -1, 7.80357, 16.1681, 18.2544, 12.958, 96.6971, -91.9882
1.48773, -1, 7.61293, 16.0711, 18.2927, 12.9606, 96.5955, -92.2449
1.49564, -1, 7.42249, 15.9742, 18.331, 12.9632, 96.4941, -92.5017
1.50264, -1, 7.23235, 15.8772, 18.3691, 12.9657, 96.3929, -92.7585
1.51164, -1, 7.04252, 15.7802, 18.4073, 12.9683, 96.2915, -93.0153
1.5197, -1, 6.8531, 15.6833, 18.4456, 12.9708, 96.1903, -93.2716
1.52863, -1, 6.66416, 15.5864, 18.4837, 12.9732, 96.0896, -93.528
1.53564, -1, 6.47574, 15.4896, 18.5217, 12.9758, 95.9885, -93.7843
1.54464, -1, 6.28763, 15.3929, 18.5599, 12.9782, 95.8874, -94.0407
1.55067, -1, 6.09957, 15.2961, 18.5981, 12.9807, 95.7867, -94.2966
1.55973, -1, 5.91135, 15.1994, 18.6362, 12.9831, 95.6856, -94.5525
1.56764, -1, 5.72304, 15.1028, 18.6744, 12.9854, 95.5847, -94.8085
1.57565, -1, 5.53454, 15.0061, 18.7124, 12.9877, 95.4841, -95.0645
1.5837, -1, 5.34571, 14.9096, 18.7505, 12.9901, 95.3832, -95.3201
1.59163, -1, 5.15655, 14.8132, 18.7888, 12.9923, 95.2825, -95.5754
1.59971, -1, 4.96708, 14.7169, 18.8268, 12.9946, 95.1819, -95.8309
1.6077, -1, 4.77758, 14.6205, 18.8648, 12.9968, 95.0811, -96.0864
1.61564, -1, 4.58809, 14.5241, 18.9029, 12.9989, 94.9803, -96.3416
1.62402, -1, 4.39882, 14.4278, 18.9409, 13.0012, 94.8797, -96.5965
1.63163, -1, 4.20987, 14.3314, 18.9789, 13.0034, 94.7787, -96.8514
1.63971, -1, 4.02117, 14.235, 19.0169, 13.0056, 94.6779, -97.1065
1.64851, -1, 3.83316, 14.1388, 19.0549, 13.0079, 94.5771, -97.3616
1.65567, -1, 3.64568, 14.0426, 19.0928, 13.0101, 94.4764, -97.6163
1.66366, -1, 3.45851, 13.9465, 19.1308, 13.0125, 94.3758, -97.871
1.67243, -1, 3.27163, 13.8505, 19.1686, 13.0148, 94.2752, -98.1257
1.67969, -1, 3.08467, 13.7544, 19.2065, 13.017, 94.1744, -98.3805
1.68764, -1, 2.8978, 13.6584, 19.2445, 13.0192, 94.0739, -98.6348
1.69645, -1, 2.71079, 13.5624, 19.2824, 13.0216, 93.9732, -98.889
1.70363, -1, 2.52352, 13.4664, 19.3203, 13.0238, 93.8726, -99.1431
1.7118, -1, 2.33606, 13.3705, 19.3581, 13.0261, 93.7724, -99.3974
1.72052, -1, 2.14816, 13.2748, 19.3959, 13.0284, 93.672, -99.6514
1.72772, -1, 1.95997, 13.1789, 19.4339, 13.0306, 93.5718, -99.9049
1.73607, -1, 1.77182, 13.0831, 19.4716, 13.0329, 93.472, -100.159
1.74317, -1, 1.58353, 12.9873, 19.5094, 13.0351, 93.3718, -100.412
1.7512, -1, 1.39541, 12.8914, 19.5473, 13.0373, 93.2717, -100.666
1.76023, -1, 1.20759, 12.7956, 19.585, 13.0396, 93.1719, -100.919
1.76854, -1, 1.02014, 12.6999, 19.6227, 13.042, 93.0717, -101.172
1.77564, -1, 0.833448, 12.6043, 19.6605, 13.0444, 92.9718, -101.425
1.78433, -1, 0.647092, 12.5087, 19.6981, 13.0468, 92.8722, -101.678
1.79168, -1, 0.461146, 12.4132, 19.7357, 13.0492, 92.7723, -101.931
1.79972, -1, 0.275501, 12.3179, 19.7735, 13.0517, 92.6726, -102.184
1.80855, -1, 0.0901115, 12.2225, 19.8111, 13.0542, 92.5734, -102.436
1.81688, -1, -0.0952569, 12.1272, 19.8486, 13.0566, 92.4736, -102.689
1.8239, -1, -0.280894, 12.0319, 19.8863, 13.0591, 92.3742, -102.941
1.83276, -1, -0.466784, 11.9367, 19.9239, 13.0616, 92.2749, -103.194
1.84003, -1, -0.652993, 11.8417, 19.9614, 13.0641, 92.1753, -103.446
1.84815, -1, -0.83942, 11.7467, 19.999, 13.0666, 92.0757, -103.698
1.85691, -1, -1.02604, 11.6517, 20.0364, 13.069, 91.9767, -103.95
1.86511, -1, -1.2129, 11.5566, 20.0739, 13.0716, 91.8772, -104.202
1.87218, -1, -1.39991, 11.4615, 20.1115, 13.074, 91.7779, -104.453
1.88106, -1, -1.58662, 11.3664, 20.1489, 13.0766, 91.6789, -104.705
1.8882, -1, -1.77309, 11.2713, 20.1863, 13.0792, 91.5795, -104.956
1.89633, -1, -1.95913, 11.1763, 20.2238, 13.0819, 91.4804, -105.207
1.90363, -1, -2.05187, 11.1288, 20.2425, 13.0832, 91.4309, -105.333
1.91163, -1, -2.23691, 11.0339, 20.2798, 13.0858, 91.3316, -105.584
1.91972, -1, -2.42171, 10.939, 20.3172, 13.0885, 91.2324, -105.835
1.92764, -1, -2.60613, 10.8442, 20.3545, 13.0912, 91.1335, -106.086
1.93468, -1, -2.79006, 10.7494, 20.3918, 13.0939, 91.0344, -106.337
1.94368, -1, -2.97395, 10.6547, 20.4292, 13.0964, 90.9353, -106.588
1.95162, -1, -3.15802, 10.56, 20.4665, 13.099, 90.8366, -106.838
1.95974, -1, -3.34236, 10.4655, 20.5037, 13.1016, 90.7375, -107.089
1.96763, -1, -3.52703, 10.3711, 20.541, 13.1041, 90.6386, -107.339
1.97564, -1, -3.71176, 10.2767, 20.5783, 13.1066, 90.5399, -107.59
1.98368, -1, -3.89687, 10.1824, 20.6155, 13.1091, 90.441, -107.839
1.99326, -1, -4.17498, 10.0409, 20.6713, 13.1127, 90.2931, -108.214
1.99968, -1, -4.26783, 9.99378, 20.6899, 13.1139, 90.2439, -108.339
2.00661, -1, -4.4534, 9.89943, 20.727, 13.1162, 90.1451, -108.589
2.01563, -1, -4.63868, 9.80507, 20.7643, 13.1186, 90.0465, -108.838
2.0237, -1, -4.82362, 9.71084, 20.8014, 13.1209, 89.9483, -109.088
2.03162, -1, -5.00819, 9.61676, 20.8384, 13.1233, 89.8496, -109.337
2.04061, -1, -5.19188, 9.52271, 20.8756, 13.1257, 89.7513, -109.587
2.04771, -1, -5.37525, 9.42866, 20.9127, 13.128, 89.653, -109.836
2.05666, -1, -5.55815, 9.33477, 20.9497, 13.1302, 89.5545, -110.084
2.06367, -1, -5.74063, 9.24088, 20.9868, 13.1326, 89.4563, -110.333
2.07169, -1, -5.923, 9.14698, 21.0238, 13.1349, 89.3583, -110.582
2.0797, -1, -6.10538, 9.05317, 21.0608, 13.1371, 89.2601, -110.831
2.08763, -1, -6.28812, 8.95941, 21.0979, 13.1393, 89.1621, -111.079
2.09568, -1, -6.4711, 8.86578, 21.1348, 13.1415, 89.0645, -111.327
2.10363, -1, -6.65419, 8.77214, 21.1715, 13.1437, 88.9664, -111.576
2.11162, -1, -6.83782, 8.6785, 21.2085, 13.1458, 88.8684, -111.824
2.11974, -1, -7.02175, 8.5849, 21.2454, 13.1479, 88.7707, -112.072
2.12762, -1, -7.20601, 8.49136, 21.2823, 13.15, 88.6728, -112.319
2.13562, -1, -7.39016, 8.39771, 21.3192, 13.1521, 88.5749, -112.567
2.14372, -1, -7.57397, 8.30404, 21.3561, 13.1543, 88.4774, -112.814
2.15162, -1, -7.75752, 8.21059, 21.3928, 13.1564, 88.3798, -113.062
2.15971, -1, -7.9406, 8.11718, 21.4297, 13.1587, 88.2823, -113.309
2.16769, -1, -8.12312, 8.02382, 21.4665, 13.1609, 88.1851, -113.556
2.17562, -1, -8.30498, 7.93054, 21.5032, 13.1632, 88.0876, -113.803
2.18364, -1, -8.48633, 7.83732, 21.5401, 13.1654, 87.9902, -114.05
2.19169, -1, -8.66728, 7.74414, 21.5769, 13.1677, 87.893, -114.297
2.19968, -1, -8.84794, 7.65098, 21.6137, 13.17, 87.7954, -114.543
2.20769, -1, -9.02871, 7.55788, 21.6504, 13.1721, 87.698, -114.79
2.21564, -1, -9.20979, 7.46488, 21.6872, 13.1744, 87.6009, -115.036
2.22366, -1, -9.39104, 7.37208, 21.7238, 13.1766, 87.5038, -115.282
2.2318, -1, -9.57269, 7.27925, 21.7605, 13.1788, 87.4067, -115.528
2.23977, -1, -9.75478, 7.18642, 21.7972, 13.1811, 87.3096, -115.774
2.24771, -1, -9.93718, 7.0937, 21.8337, 13.1833, 87.2123, -116.021
2.25579, -1, -10.1197, 7.00096, 21.8702, 13.1856, 87.1151, -116.267
2.26373, -1, -10.3023, 6.90816, 21.9069, 13.1878, 87.018, -116.512
2.27172, -1, -10.4848, 6.81537, 21.9434, 13.1899, 86.9209, -116.758
2.27987, -1, -10.6671, 6.72267, 21.98, 13.1923, 86.8238, -117.003
2.28764, -1, -10.8489, 6.63008, 22.0165, 13.1946, 86.727, -117.249
2.29566, -1, -11.0302, 6.5375, 22.0528, 13.197, 86.63, -117.494
2.30375, -1, -11.2106, 6.445, 22.0894, 13.1994, 86.5334, -117.739
2.31173, -1, -11.3905, 6.35248, 22.126, 13.2018, 86.4368, -117.984
2.31993, -1, -11.57, 6.26005, 22.1623, 13.2043, 86.34, -118.228
2.32795, -1, -11.7492, 6.16763, 22.1988, 13.2068, 86.2433, -118.473
2.33591, -1, -11.9286, 6.0753, 22.2353, 13.2092, 86.1468, -118.718
2.34411, -1, -12.1079, 5.98305, 22.2717, 13.2117, 86.0501, -118.962
2.35205, -1, -12.2874, 5.89102, 22.3081, 13.2141, 85.9537, -119.206
2.3601, -1, -12.4673, 5.799, 22.3445, 13.2167, 85.8575, -119.45
2.36829, -1, -12.6476, 5.70696, 22.3806, 13.2192, 85.7611, -119.694
2.37614, -1, -12.8283, 5.61503, 22.417, 13.2216, 85.6649, -119.938
2.38423, -1, -13.0092, 5.52314, 22.4534, 13.224, 85.5692, -120.182
2.39235, -1, -13.1905, 5.43111, 22.4896, 13.2265, 85.4731, -120.425
2.40114, -1, -13.2811, 5.3851, 22.5258, 13.2289, 85.3772, -120.669
2.40667, -1, -13.4622, 5.29319, 22.544, 13.2301, 85.3294, -120.791
2.41665, -1, -13.733, 5.15539, 22.5982, 13.234, 85.1857, -121.155
2.42362, -1, -13.8231, 5.10946, 22.6163, 13.2353, 85.1378, -121.277
2.43068, -1, -14.0025, 5.01766, 22.6525, 13.2378, 85.0422, -121.52
2.43966, -1, -14.1811, 4.92594, 22.6887, 13.2404, 84.9465, -121.763
2.44761, -1, -14.3594, 4.83425, 22.7247, 13.243, 84.8509, -122.006
2.45566, -1, -14.5373, 4.74261, 22.761, 13.2455, 84.7554, -122.248
2.46362, -1, -14.715, 4.65102, 22.7972, 13.248, 84.6598, -122.49
2.47162, -1, -14.8926, 4.55952, 22.8332, 13.2505, 84.564, -122.733
2.47968, -1, -15.0703, 4.46811, 22.8694, 13.2529, 84.4684, -122.975
2.48761, -1, -15.2484, 4.37683, 22.9055, 13.2553, 84.3728, -123.217
2.49566, -1, -15.4268, 4.28552, 22.9416, 13.2577, 84.2771, -123.459
2.5026, -1, -15.6057, 4.19426, 22.9776, 13.26, 84.1816, -123.701
2.51161, -1, -15.7849, 4.10304, 23.0136, 13.2623, 84.0861, -123.942
2.51962, -1, -15.9642, 4.01184, 23.0495, 13.2645, 83.9906, -124.184
2.5267, -1, -16.1438, 3.92054, 23.0856, 13.2666, 83.8952, -124.425
2.53562, -1, -16.3236, 3.82933, 23.1216, 13.2688, 83.7998, -124.667
2.5446, -1, -16.503, 3.73815, 23.1574, 13.2709, 83.7043, -124.908
2.55061, -1, -16.6819, 3.64705, 23.1932, 13.2732, 83.609, -125.15
2.5596, -1, -16.8604, 3.55595, 23.2291, 13.2755, 83.5136, -125.391
2.56766, -1, -17.0379, 3.46491, 23.2649, 13.2777, 83.4182, -125.631
2.57568, -1, -17.2146, 3.37399, 23.3008, 13.2799, 83.3229, -125.872
2.58361, -1, -17.3911, 3.28313, 23.3366, 13.2821, 83.2279, -126.113
2.59162, -1, -17.5675, 3.19226, 23.3724, 13.2842, 83.1327, -126.353
2.59966, -1, -17.7435, 3.10164, 23.4083, 13.2864, 83.0379, -126.593
2.60761, -1, -17.9196, 3.01102, 23.4442, 13.2884, 82.9432, -126.834
2.6157, -1, -18.0959, 2.92058, 23.4799, 13.2905, 82.8483, -127.074
2.62364, -1, -18.2724, 2.83021, 23.5156, 13.2927, 82.7535, -127.314
2.63161, -1, -18.4494, 2.73979, 23.5514, 13.2948, 82.659, -127.554
2.63968, -1, -18.6268, 2.6494, 23.587, 13.2968, 82.5642, -127.793
2.64762, -1, -18.8045, 2.55907, 23.6227, 13.2988, 82.4697, -128.033
2.65561, -1, -18.9826, 2.46865, 23.6585, 13.3008, 82.3754, -128.272
2.66372, -1, -19.1609, 2.37816, 23.694, 13.3028, 82.2808, -128.512
2.67161, -1, -19.339, 2.2878, 23.7295, 13.3048, 82.1865, -128.751
2.6796, -1, -19.5167, 2.1974, 23.7652, 13.3069, 82.0927, -128.99
2.68772, -1, -19.6937, 2.10699, 23.8006, 13.3091, 81.9984, -129.229
2.69562, -1, -19.8702, 2.01668, 23.836, 13.3113, 81.9042, -129.468
2.7036, -1, -20.0459, 1.92644, 23.8716, 13.3134, 81.8103, -129.707
2.71241, -1, -20.2211, 1.83623, 23.9071, 13.3157, 81.7161, -129.945
2.71963, -1, -20.396, 1.74608, 23.9425, 13.3179, 81.6221, -130.184
2.72781, -1, -20.5706, 1.65603, 23.9781, 13.3201, 81.5284, -130.422
2.73653, -1, -20.7451, 1.56608, 24.0136, 13.3222, 81.4343, -130.66
2.7437, -1, -20.9198, 1.47618, 24.0489, 13.3245, 81.3405, -130.898
2.75177, -1, -21.0949, 1.38648, 24.0845, 13.3267, 81.2469, -131.136
2.75971, -1, -21.2702, 1.29674, 24.12, 13.3288, 81.153, -131.374
2.76772, -1, -21.4459, 1.20706, 24.1553, 13.331, 81.0591, -131.612
2.77578, -1, -21.6219, 1.11747, 24.1907, 13.3332, 80.9653, -131.85
2.78614, -1, -21.7982, 1.02781, 24.2261, 13.3353, 80.8715, -132.087
2.79171, -1, -21.9746, 0.938188, 24.2615, 13.3375, 80.7777, -132.324
2.79964, -1, -22.1511, 0.848614, 24.2969, 13.3396, 80.6841, -132.561
2.80843, -1, -22.3276, 0.759066, 24.3323, 13.3418, 80.5904, -132.798
2.81578, -1, -22.5036, 0.669596, 24.3675, 13.3441, 80.4969, -133.035
2.82377, -1, -22.6792, 0.58006, 24.4027, 13.3464, 80.4033, -133.272
2.83274, -1, -22.8541, 0.49064, 24.438, 13.3488, 80.3097, -133.509
2.83994, -1, -23.0281, 0.401227, 24.4732, 13.3512, 80.2162, -133.746
2.84658, -1, -23.1149, 0.356537, 24.4907, 13.3525, 80.1694, -133.864
2.85678, -1, -23.3751, 0.222534, 24.5436, 13.3561, 80.0293, -134.219
2.86417, -1, -23.5482, 0.133343, 24.5788, 13.3585, 79.9358, -134.455
2.87215, -1, -23.7215, 0.0442087, 24.6139, 13.3609, 79.8425, -134.692
2.8811, -1, -23.8949, -0.044837, 24.6492, 13.3633, 79.7495, -134.928
2.88822, -1, -24.0684, -0.133753, 24.6843, 13.3658, 79.6562, -135.164
2.8962, -1, -24.2422, -0.222754, 24.7193, 13.3683, 79.5631, -135.399
2.90494, -1, -24.3293, -0.267219, 24.7369, 13.3707, 79.4702, -135.635
2.91219, -1, -24.5035, -0.356083, 24.7722, 13.3719, 79.4236, -135.87
2.91959, -1, -24.6781, -0.444981, 24.8072, 13.3743, 79.3305, -135.988
2.92759, -1, -24.853, -0.533869, 24.8422, 13.3767, 79.2375, -136.224
2.93566, -1, -25.0281, -0.622701, 24.8774, 13.3792, 79.1446, -136.459
2.9436, -1, -25.2031, -0.711527, 24.9124, 13.3815, 79.0516, -136.694
2.9516, -1, -25.3776, -0.800265, 24.9474, 13.3839, 78.9589, -136.929
2.95965, -1, -25.5517, -0.889067, 24.9825, 13.3863, 78.8663, -137.164
2.9676, -1, -25.7253, -0.977789, 25.0173, 13.3887, 78.7735, -137.399
2.97559, -1, -25.8982, -1.06645, 25.0522, 13.3911, 78.6809, -137.634
2.98361, -1, -26.0705, -1.15516, 25.0873, 13.3936, 78.5888, -137.868
2.99159, -1, -26.2426, -1.2438, 25.1222, 13.396, 78.496, -138.103
2.99965, -1, -26.4144, -1.33234, 25.157, 13.3983, 78.4034, -138.338
3.00659, -1, -26.5864, -1.42075, 25.192, 13.4006, 78.3111, -138.572
3.0156, -1, -26.7584, -1.50911, 25.2269, 13.4028, 78.2185, -138.806
3.0226, -1, -26.9306, -1.5973, 25.2618, 13.4051, 78.1261, -139.04
3.03159, -1, -27.1031, -1.68547, 25.2966, 13.4073, 78.0341, -139.274
3.04058, -1, -27.2756, -1.7737, 25.3315, 13.4095, 77.9418, -139.508
3.04767, -1, -27.4485, -1.86177, 25.3663, 13.4116, 77.8497, -139.741
3.05663, -1, -27.6216, -1.94987, 25.4011, 13.4138, 77.7578, -139.975
3.06363, -1, -27.7949, -2.03809, 25.436, 13.4159, 77.6657, -140.208
3.07169, -1, -27.9682, -2.12611, 25.4708, 13.4179, 77.5737, -140.442
3.07959, -1, -28.1415, -2.21418, 25.5055, 13.4199, 77.4817, -140.675
3.08761, -1, -28.3145, -2.30221, 25.5403, 13.422, 77.3896, -140.908
3.09566, -1, -28.4873, -2.39028, 25.5751, 13.4241, 77.2975, -141.141
3.1036, -1, -28.6597, -2.47822, 25.6097, 13.4262, 77.2054, -141.374
3.11159, -1, -28.8314, -2.5662, 25.6444, 13.4283, 77.1136, -141.607
3.11966, -1, -29.0024, -2.65417, 25.6791, 13.4305, 77.0216, -141.84
3.12759, -1, -29.1731, -2.74205, 25.7136, 13.4327, 76.9296, -142.072
3.13566, -1, -29.3437, -2.82984, 25.7482, 13.4347, 76.8381, -142.304
3.1436, -1, -29.5144, -2.91754, 25.7829, 13.4368, 76.746, -142.537
3.15161, -1, -29.6853, -3.00513, 25.8174, 13.4388, 76.6542, -142.769
3.15966, -1, -29.8562, -3.09267, 25.852, 13.4408, 76.5626, -143.002
3.1676, -1, -30.0272, -3.18014, 25.8866, 13.443, 76.4706, -143.234
3.1756, -1, -30.1981, -3.26764, 25.9211, 13.4449, 76.3789, -143.466
3.18367, -1, -30.3693, -3.35506, 25.9556, 13.4471, 76.2875, -143.698
3.19159, -1, -30.5408, -3.44254, 25.9901, 13.4491, 76.1958, -143.93
3.1996, -1, -30.7127, -3.53008, 26.0245, 13.4511, 76.1044, -144.161
3.20766, -1, -30.8845, -3.61741, 26.059, 13.4532, 76.013, -144.392
3.21559, -1, -31.0563, -3.70482, 26.0936, 13.4552, 75.9215, -144.624
3.22389, -1, -31.228, -3.79214, 26.128, 13.4573, 75.8302, -144.855
3.23165, -1, -31.3993, -3.87945, 26.1623, 13.4593, 75.7389, -145.087
3.2397, -1, -31.5701, -3.96674, 26.1968, 13.4615, 75.6477, -145.318
3.24795, -1, -31.7406, -4.05398, 26.2312, 13.4636, 75.5563, -145.549
3.25568, -1, -31.9106, -4.14123, 26.2655, 13.4658, 75.4652, -145.779
3.26376, -1, -32.0802, -4.22842, 26.2999, 13.468, 75.3743, -146.01
3.27221, -1, -32.2496, -4.31553, 26.3343, 13.4702, 75.2831, -146.241
3.27965, -1, -32.419, -4.40258, 26.3686, 13.4724, 75.192, -146.472
3.28759, -1, -32.5887, -4.48953, 26.4029, 13.4745, 75.1015, -146.702
3.29635, -1, -32.7584, -4.57642, 26.4373, 13.4766, 75.0104, -146.933
3.30369, -1, -32.9281, -4.66334, 26.4715, 13.4788, 74.9197, -147.163
3.3117, -1, -33.0978, -4.75027, 26.5057, 13.481, 74.8293, -147.393
3.32058, -1, -33.2676, -4.83712, 26.5401, 13.4832, 74.7384, -147.623
3.32778, -1, -33.4377, -4.924, 26.5743, 13.4854, 74.6479, -147.853
3.33589, -1, -33.6081, -5.01097, 26.6085, 13.4876, 74.5573, -148.083
3.34485, -1, -33.7783, -5.09776, 26.6428, 13.4898, 74.4668, -148.313
3.35202, -1, -33.9486, -5.18455, 26.677, 13.4921, 74.3762, -148.543
3.35857, -1, -34.0337, -5.22791, 26.694, 13.4932, 74.3309, -148.657
3.36895, -1, -34.289, -5.35802, 26.7453, 13.4965, 74.1953, -149.001
3.37612, -1, -34.4589, -5.44465, 26.7796, 13.4989, 74.1046, -149.231
3.38419, -1, -34.6284, -5.53129, 26.8137, 13.5012, 74.014, -149.46
3.39302, -1, -34.7972, -5.61791, 26.8478, 13.5037, 73.9236, -149.689
3.4002, -1, -34.9658, -5.70451, 26.882, 13.5061, 73.833, -149.918
3.40836, -1, -35.1342, -5.79099, 26.9161, 13.5085, 73.7425, -150.147
3.41559, -1, -35.2183, -5.83421, 26.9331, 13.5097, 73.6975, -150.262
3.42358, -1, -35.3867, -5.92057, 26.9673, 13.5121, 73.6071, -150.491
3.43162, -1, -35.5553, -6.00681, 27.0014, 13.5145, 73.5168, -150.719
3.4396, -1, -35.7238, -6.09305, 27.0354, 13.5169, 73.4265, -150.948
3.44763, -1, -35.8924, -6.17922, 27.0694, 13.5193, 73.3363, -151.177
3.45558, -1, -36.0609, -6.26539, 27.1035, 13.5217, 73.2458, -151.405
3.46359, -1, -36.2293, -6.35152, 27.1375, 13.5241, 73.1553, -151.634
3.47062, -1, -36.3981, -6.43774, 27.1714, 13.5264, 73.0651, -151.863
3.47958, -1, -36.567, -6.52398, 27.2055, 13.5287, 72.9745, -152.091
3.48761, -1, -36.7358, -6.61015, 27.2394, 13.5311, 72.8844, -152.319
3.49564, -1, -36.9048, -6.6963, 27.2733, 13.5334, 72.7943, -152.547
3.50357, -1, -37.0738, -6.78245, 27.3073, 13.5356, 72.7041, -152.775
3.51442, -1, -37.3268, -6.91159, 27.3581, 13.539, 72.5692, -153.117
3.51964, -1, -37.411, -6.95459, 27.375, 13.5401, 72.5244, -153.23
3.52758, -1, -37.579, -7.04066, 27.409, 13.5424, 72.4345, -153.458
3.53563, -1, -37.7467, -7.12669, 27.443, 13.5446, 72.3446, -153.686
3.54457, -1, -37.9144, -7.21269, 27.4767, 13.5469, 72.2548, -153.913
3.55157, -1, -38.0819, -7.29861, 27.5106, 13.549, 72.1652, -154.141
3.55959, -1, -38.2494, -7.3845, 27.5446, 13.5512, 72.0753, -154.368
3.56768, -1, -38.4167, -7.47021, 27.5784, 13.5534, 71.9856, -154.595
3.57563, -1, -38.5839, -7.55593, 27.6122, 13.5555, 71.8963, -154.822
3.58358, -1, -38.7512, -7.64165, 27.6461, 13.5576, 71.8065, -155.05
3.59164, -1, -38.9184, -7.72735, 27.6798, 13.5597, 71.717, -155.277
3.59959, -1, -39.0858, -7.81294, 27.7135, 13.5617, 71.6279, -155.503
3.60764, -1, -39.2534, -7.89862, 27.7474, 13.5637, 71.5383, -155.73
3.61559, -1, -39.421, -7.98431, 27.7812, 13.5657, 71.449, -155.957
3.6236, -1, -39.5885, -8.06985, 27.8148, 13.5677, 71.3597, -156.184
3.63163, -1, -39.7562, -8.1554, 27.8484, 13.5696, 71.2704, -156.41
3.63958, -1, -39.9238, -8.24085, 27.8822, 13.5715, 71.1811, -156.636
3.64758, -1, -40.0914, -8.32628, 27.9158, 13.5734, 71.0917, -156.863
3.65568, -1, -40.2588, -8.41165, 27.9495, 13.5754, 71.0026, -157.089
3.66357, -1, -40.4259, -8.49704, 27.9832, 13.5774, 70.9131, -157.315
3.67159, -1, -40.5929, -8.58241, 28.0168, 13.5794, 70.8239, -157.541
3.67964, -1, -40.7598, -8.6678, 28.0503, 13.5813, 70.735, -157.767
3.68757, -1, -40.9264, -8.75313, 28.084, 13.5833, 70.6458, -157.993
3.69561, -1, -41.0929, -8.83845, 28.1177, 13.5854, 70.5566, -158.219
3.70364, -1, -41.2591, -8.92369, 28.1512, 13.5874, 70.4677, -158.445
3.71157, -1, -41.4253, -9.00885, 28.1848, 13.5894, 70.3784, -158.67
3.71972, -1, -41.5915, -9.094, 28.2184, 13.5913, 70.2892, -158.896
3.7276, -1, -41.7578, -9.17907, 28.252, 13.5934, 70.2001, -159.121
3.73569, -1, -41.9242, -9.26412, 28.2855, 13.5954, 70.111, -159.347
3.74404, -1, -42.0907, -9.34915, 28.3192, 13.5974, 70.022, -159.573
3.75167, -1, -42.257, -9.43423, 28.3527, 13.5995, 69.933, -159.798
3.75966, -1, -42.4232, -9.51923, 28.3862, 13.6015, 69.8443, -160.023
3.76805, -1, -42.5896, -9.6042, 28.4198, 13.6034, 69.7552, -160.248
3.7757, -1, -42.7559, -9.68915, 28.4533, 13.6056, 69.6663, -160.473
3.78363, -1, -42.9223, -9.77411, 28.4867, 13.6076, 69.5777, -160.698
3.7917, -1, -43.0886, -9.85903, 28.5202, 13.6097, 69.4887, -160.923
3.8006, -1, -43.2548, -9.94396, 28.5538, 13.6117, 69.4, -161.148
3.80761, -1, -43.421, -10.0289, 28.5873, 13.6137, 69.3114, -161.373
3.81573, -1, -43.5871, -10.1138, 28.6208, 13.6159, 69.2228, -161.597
3.82455, -1, -43.7529, -10.1988, 28.6543, 13.6179, 69.1343, -161.822
3.83174, -1, -43.9188, -10.2835, 28.6877, 13.6201, 69.0459, -162.047
3.83987, -1, -44.0843, -10.3683, 28.7211, 13.6222, 68.9574, -162.271
3.84871, -1, -44.2496, -10.453, 28.7547, 13.6243, 68.8687, -162.495
3.85599, -1, -44.4148, -10.5376, 28.7881, 13.6266, 68.78, -162.72
3.86411, -1, -44.58, -10.6221, 28.8215, 13.6287, 68.6916, -162.944
3.87271, -1, -44.7452, -10.7066, 28.8549, 13.6309, 68.6028, -163.168
3.88009, -1, -44.9106, -10.791, 28.8885, 13.6331, 68.5143, -163.392
3.88816, -1, -45.076, -10.8755, 28.9219, 13.6353, 68.4261, -163.616
3.89653, -1, -45.2412, -10.96, 28.9553, 13.6375, 68.3375, -163.84
3.90419, -1, -45.4065, -11.0445, 28.9888, 13.6398, 68.2491, -164.064
3.91236, -1, -45.5717, -11.1289, 29.0219, 13.6421, 68.161, -164.288
3.9196, -1, -45.6543, -11.1711, 29.0385, 13.6432, 68.117, -164.4
3.92855, -1, -45.902, -11.2976, 29.0886, 13.6466, 67.9843, -164.735
3.93563, -1, -45.9839, -11.3394, 29.1054, 13.6477, 67.9401, -164.847
3.94357, -1, -46.1453, -11.4218, 29.1388, 13.65, 67.8521, -165.07
3.95157, -1, -46.3025, -11.5012, 29.1724, 13.6525, 67.7646, -165.291
3.95961, -1, -46.4529, -11.5763, 29.2059, 13.6548, 67.6794, -165.507
3.96757, -1, -46.5942, -11.6463, 29.2382, 13.6571, 67.5978, -165.713
3.97558, -1, -46.724, -11.7098, 29.2681, 13.6593, 67.523, -165.903
3.98365, -1, -46.8392, -11.766, 29.2946, 13.6614, 67.4558, -166.072
3.99158, -1, -46.9382, -11.8153, 29.3167, 13.6631, 67.4, -166.214
3.99957, -1, -47.021, -11.8583, 29.3334, 13.6643, 67.355, -166.328
4.00762, -1, -47.0884, -11.8952, 29.3447, 13.6651, 67.3212, -166.413
4.01558, -1, -47.141, -11.9247, 29.352, 13.6655, 67.2977, -166.472
4.02356, -1, -47.1801, -11.9469, 29.3559, 13.6657, 67.2826, -166.51
4.03159, -1, -47.2078, -11.9625, 29.3578, 13.6658, 67.2738, -166.533
4.04134, -1, -47.2261, -11.9725, 29.3586, 13.6659, 67.269, -166.548
4.04764, -1, -47.2371, -11.9785, 29.359, 13.6659, 67.2666, -166.551
4.05653, 2, -47.2428, -11.9815, 29.3592, 13.666, 67.2655, -166.554
4.06357, 2, -47.245, -11.9829, 29.3594, 13.666, 67.2649, -166.555
4.0716, 2, -47.2451, -11.9834, 29.3594, 13.6661, 67.2647, -166.555
4.07966, 2, -47.2449, -11.9836, 29.3595, 13.6661, 67.2645, -166.556
4.08756, 2, -47.2449, -11.9837, 29.3595, 13.6661, 67.2645, -166.556
4.09558, 2, -47.2453, -11.9838, 29.3596, 13.6661, 67.2645, -166.556
4.10363, 2, -47.2462, -11.9841, 29.3596, 13.6661, 67.2645, -166.556
4.11156, 2, -47.2475, -11.9846, 29.3596, 13.6661, 67.2645, -166.556
4.11956, 2, -47.2493, -11.9853, 29.3596, 13.6661, 67.2644, -166.556
4.12763, 2, -47.2509, -11.9862, 29.3596, 13.6661, 67.2645, -166.556
4.13558, 2, -47.2522, -11.987, 29.3596, 13.6661, 67.2645, -166.556
4.14356, 2, -47.2532, -11.9876, 29.3596, 13.6661, 67.2644, -166.556
4.15163, 2, -47.2536, -11.988, 29.3596, 13.6661, 67.2644, -166.556
4.15957, 2, -47.2538, -11.9882, 29.3596, 13.6661, 67.2644, -166.556
4.16756, 2, -47.2539, -11.9883, 29.3596, 13.6661, 67.2645, -166.556
4.17564, 2, -47.2536, -11.9883, 29.3596, 13.6661, 67.2644, -166.556
4.18356, 2, -47.2531, -11.9883, 29.3596, 13.666, 67.2644, -166.556
4.19156, 2, -47.2527, -11.9883, 29.3596, 13.6661, 67.2644, -166.556
4.19963, 2, -47.2524, -11.9883, 29.3596, 13.6661, 67.2645, -166.556
4.20756, 2, -47.2522, -11.9883, 29.3596, 13.6661, 67.2645, -166.556
4.21564, 2, -47.2522, -11.9884, 29.3596, 13.666, 67.2645, -166.556
4.22363, 2, -47.2523, -11.9886, 29.3596, 13.6661, 67.2645, -166.556
4.23161, 2, -47.2525, -11.9888, 29.3596, 13.6661, 67.2645, -166.556
4.23964, 2, -47.2531, -11.9892, 29.3596, 13.6661, 67.2645, -166.556
4.24778, 2, -47.2536, -11.9895, 29.3596, 13.666, 67.2644, -166.556
4.25567, 2, -47.2539, -11.9897, 29.3596, 13.666, 67.2645, -166.556
4.26366, 2, -47.2541, -11.9897, 29.3596, 13.666, 67.2645, -166.556
4.27172, 2, -47.2541, -11.9897, 29.3596, 13.6661, 67.2645, -166.556
4.27967, 2, -47.254, -11.9897, 29.3596, 13.6661, 67.2645, -166.556
4.28756, 2, -47.2538, -11.9897, 29.3596, 13.666, 67.2645, -166.556
4.2957, 2, -47.2534, -11.9896, 29.3596, 13.6661, 67.2645, -166.556
4.30359, 2, -47.253, -11.9896, 29.3596, 13.6661, 67.2645, -166.556
4.31166, 2, -47.2528, -11.9896, 29.3596, 13.6661, 67.2645, -166.556
4.31973, 2, -47.2526, -11.9896, 29.3596, 13.666, 67.2646, -166.556
4.32774, 2, -47.2525, -11.9896, 29.3596, 13.666, 67.2645, -166.556
4.33584, 2, -47.2524, -11.9897, 29.3596, 13.6661, 67.2645, -166.556
4.34388, 2, -47.2524, -11.9897, 29.3596, 13.666, 67.2645, -166.556
4.35191, 2, -47.2524, -11.9898, 29.3596, 13.666, 67.2645, -166.556
4.3586, 2, -47.2524, -11.9898, 29.3596, 13.666, 67.2645, -166.556
4.36807, 2, -47.2524, -11.9898, 29.3596, 13.666, 67.2646, -166.556
4.37612, 2, -47.2524, -11.9898, 29.3596, 13.666, 67.2645, -166.556
4.38415, 2, -47.2524, -11.9898, 29.3596, 13.666, 67.2645, -166.555
4.39214, 2, -47.2523, -11.9897, 29.3596, 13.6661, 67.2645, -166.556
4.40017, 2, -47.2522, -11.9897, 29.3596, 13.666, 67.2645, -166.555
4.40823, 2, -47.2521, -11.9896, 29.3596, 13.666, 67.2645, -166.555
4.41621, 2, -47.252, -11.9896, 29.3596, 13.666, 67.2645, -166.555
4.42355, 2, -47.2519, -11.9896, 29.3596, 13.666, 67.2645, -166.555
4.43155, 2, -47.2518, -11.9896, 29.3596, 13.666, 67.2646, -166.555
4.4396, 2, -47.2518, -11.9896, 29.3596, 13.666, 67.2646, -166.555
4.44755, 2, -47.2517, -11.9896, 29.3596, 13.666, 67.2646, -166.555
4.45557, 2, -47.2516, -11.9896, 29.3596, 13.6659, 67.2646, -166.555
4.46361, 2, -47.2516, -11.9896, 29.3596, 13.666, 67.2645, -166.555
4.47155, 2, -47.2515, -11.9896, 29.3596, 13.666, 67.2646, -166.555
4.47955, 2, -47.2514, -11.9896, 29.3596, 13.666, 67.2646, -166.555
4.48759, 2, -47.2513, -11.9896, 29.3596, 13.666, 67.2645, -166.555
4.49569, 2, -47.2512, -11.9896, 29.3596, 13.666, 67.2646, -166.555
4.50356, 2, -47.2511, -11.9895, 29.3596, 13.666, 67.2646, -166.555
4.51161, 2, -47.251, -11.9894, 29.3596, 13.666, 67.2646, -166.555
4.51955, 2, -47.2509, -11.9894, 29.3596, 13.666, 67.2646, -166.555
4.52755, 2, -47.2508, -11.9893, 29.3596, 13.666, 67.2647, -166.555
4.53708, 2, -47.2507, -11.9894, 29.3596, 13.666, 67.2646, -166.555
4.54354, 2, -47.2506, -11.9893, 29.3596, 13.666, 67.2646, -166.555
4.55254, 2, -47.2505, -11.9894, 29.3596, 13.666, 67.2646, -166.555
4.55961, 2, -47.2504, -11.9894, 29.3596, 13.666, 67.2646, -166.555
4.56756, 2, -47.2504, -11.9894, 29.3596, 13.666, 67.2646, -166.555
4.5756, 2, -47.2503, -11.9894, 29.3596, 13.666, 67.2646, -166.555
4.58364, 2, -47.2502, -11.9894, 29.3596, 13.666, 67.2646, -166.555
4.59154, 2, -47.2501, -11.9894, 29.3596, 13.666, 67.2646, -166.555
4.59955, 2, -47.2501, -11.9893, 29.3596, 13.6659, 67.2646, -166.555
4.60761, 2, -47.25, -11.9892, 29.3596, 13.6659, 67.2647, -166.555
4.61565, 2, -47.2499, -11.9892, 29.3596, 13.666, 67.2646, -166.555
4.62358, 2, -47.2498, -11.9891, 29.3596, 13.666, 67.2647, -166.555
4.63161, 2, -47.2497, -11.989, 29.3596, 13.666, 67.2646, -166.555
4.63954, 2, -47.2497, -11.989, 29.3596, 13.666, 67.2646, -166.555
4.64755, 2, -47.2496, -11.989, 29.3596, 13.6659, 67.2647, -166.555
4.65563, 2, -47.2496, -11.989, 29.3596, 13.6659, 67.2646, -166.555
4.66356, 2, -47.2495, -11.989, 29.3596, 13.6659, 67.2646, -166.555
4.67154, 2, -47.2495, -11.989, 29.3596, 13.6659, 67.2646, -166.555
4.67961, 2, -47.2495, -11.989, 29.3596, 13.6659, 67.2646, -166.555
4.68754, 2, -47.2495, -11.989, 29.3596, 13.6659, 67.2647, -166.555
4.69557, 2, -47.2495, -11.989, 29.3596, 13.6659, 67.2647, -166.555
4.70361, 2, -47.2494, -11.9889, 29.3596, 13.6659, 67.2647, -166.555
4.71154, 2, -47.2494, -11.9889, 29.3596, 13.6659, 67.2647, -166.555
4.71955, 2, -47.2492, -11.9888, 29.3596, 13.6659, 67.2647, -166.555
4.72761, 2, -47.2492, -11.9887, 29.3596, 13.6659, 67.2647, -166.555
4.73561, 2, -47.2491, -11.9887, 29.3596, 13.6659, 67.2647, -166.555
4.74365, 2, -47.249, -11.9887, 29.3596, 13.6659, 67.2647, -166.555
4.75173, 2, -47.249, -11.9886, 29.3596, 13.6659, 67.2647, -166.555
4.75962, 2, -47.2489, -11.9886, 29.3596, 13.6659, 67.2648, -166.555
4.76765, 2, -47.2489, -11.9886, 29.3596, 13.6658, 67.2647, -166.555
4.77572, 2, -47.2488, -11.9886, 29.3596, 13.6658, 67.2647, -166.555
4.78364, 2, -47.2488, -11.9886, 29.3596, 13.6658, 67.2648, -166.555
4.79155, 2, -47.2488, -11.9886, 29.3596, 13.6658, 67.2647, -166.555
4.79962, 2, -47.2488, -11.9886, 29.3596, 13.6658, 67.2647, -166.555
4.80758, 2, -47.2487, -11.9885, 29.3596, 13.6658, 67.2648, -166.555
4.81591, 2, -47.2486, -11.9885, 29.3596, 13.6657, 67.2648, -166.555
4.82373, 2, -47.2485, -11.9884, 29.3596, 13.6657, 67.2648, -166.555
4.83171, 2, -47.2484, -11.9883, 29.3596, 13.6657, 67.2648, -166.554
4.84003, 2, -47.2483, -11.9883, 29.3596, 13.6657, 67.2648, -166.554
4.84653, 2, -47.2482, -11.9882, 29.3596, 13.6657, 67.2648, -166.554
4.8559, 2, -47.2481, -11.9882, 29.3596, 13.6657, 67.2648, -166.554
4.86258, 2, -47.2481, -11.9882, 29.3596, 13.6657, 67.2648, -166.554
4.87207, 2, -47.2481, -11.9882, 29.3596, 13.6657, 67.2648, -166.554
4.88014, 2, -47.2481, -11.9882, 29.3596, 13.6656, 67.2648, -166.554
4.88831, 2, -47.248, -11.9882, 29.3596, 13.6656, 67.2648, -166.554
4.89613, 2, -47.248, -11.9882, 29.3596, 13.6656, 67.2648, -166.554
4.90414, 2, -47.248, -11.9882, 29.3596, 13.6656, 67.2648, -166.554
4.91247, 2, -47.248, -11.9881, 29.3596, 13.6656, 67.2648, -166.554
4.92015, 2, -47.2479, -11.9881, 29.3596, 13.6656, 67.2648, -166.554
4.92753, 2, -47.2478, -11.988, 29.3596, 13.6656, 67.2648, -166.554
4.9364, 2, -47.2477, -11.9879, 29.3596, 13.6656, 67.2648, -166.554
4.94359, 2, -47.2476, -11.9879, 29.3596, 13.6656, 67.2648, -166.554
4.95154, 2, -47.2476, -11.9879, 29.3596, 13.6656, 67.2648, -166.554
4.95954, 2, -47.2475, -11.9878, 29.3596, 13.6656, 67.2649, -166.554
4.96759, 2, -47.2474, -11.9878, 29.3596, 13.6655, 67.2649, -166.554
4.97555, 2, -47.2474, -11.9878, 29.3596, 13.6655, 67.2649, -166.554
4.98353, 2, -47.2474, -11.9878, 29.3596, 13.6655, 67.265, -166.554
4.99158, 2, -47.2473, -11.9878, 29.3596, 13.6654, 67.265, -166.554
4.99955, 2, -47.2473, -11.9878, 29.3596, 13.6654, 67.265, -166.554
5.00753, 2, -47.2473, -11.9878, 29.3596, 13.6655, 67.265, -166.554
5.01561, 2, -47.2472, -11.9877, 29.3596, 13.6654, 67.265, -166.554
5.02359, 2, -47.2471, -11.9876, 29.3596, 13.6654, 67.265, -166.554
5.03153, 2, -47.247, -11.9876, 29.3596, 13.6654, 67.265, -166.554
5.03959, 2, -47.2469, -11.9875, 29.3596, 13.6654, 67.265, -166.554
5.04908, 2, -47.2469, -11.9875, 29.3596, 13.6654, 67.265, -166.554
5.05569, 2, -47.2467, -11.9875, 29.3596, 13.6653, 67.2651, -166.554
5.06352, 2, -47.2467, -11.9874, 29.3596, 13.6654, 67.265, -166.554
5.07162, 2, -47.2466, -11.9874, 29.3596, 13.6654, 67.2651, -166.554
5.07957, 2, -47.2466, -11.9874, 29.3596, 13.6654, 67.2651, -166.554
5.08757, 2, -47.2466, -11.9874, 29.3596, 13.6653, 67.2652, -166.554
5.09561, 2, -47.2466, -11.9874, 29.3596, 13.6654, 67.2651, -166.554
5.10353, 2, -47.2465, -11.9874, 29.3596, 13.6653, 67.2651, -166.554
5.11154, 2, -47.2465, -11.9873, 29.3596, 13.6653, 67.2651, -166.554
5.1196, 2, -47.2464, -11.9873, 29.3596, 13.6652, 67.2651, -166.554
5.12753, 2, -47.2464, -11.9873, 29.3596, 13.6652, 67.2652, -166.554
5.13556, 2, -47.2464, -11.9872, 29.3595, 13.6652, 67.2652, -166.554
5.1436, 4, -47.2462, -11.9872, 29.3596, 13.6652, 67.2652, -166.554
5.15153, 4, -47.2462, -11.9871, 29.3596, 13.6652, 67.2652, -166.554
5.15953, 4, -47.2461, -11.9871, 29.3596, 13.6652, 67.2651, -166.554
5.16761, 4, -47.246, -11.9871, 29.3596, 13.6652, 67.2652, -166.554
5.17555, 4, -47.246, -11.9871, 29.3596, 13.6652, 67.2652, -166.554
5.18353, 4, -47.2459, -11.987, 29.3596, 13.6652, 67.2652, -166.554
5.19159, 4, -47.2459, -11.987, 29.3596, 13.6651, 67.2653, -166.554
5.19953, 4, -47.2459, -11.987, 29.3596, 13.6651, 67.2652, -166.554
5.20753, 4, -47.2459, -11.987, 29.3596, 13.6651, 67.2652, -166.554
5.21561, 4, -47.2459, -11.987, 29.3596, 13.6651, 67.2653, -166.554
5.22353, 4, -47.2459, -11.9869, 29.3596, 13.6651, 67.2653, -166.554
5.23153, 4, -47.2458, -11.9869, 29.3596, 13.6651, 67.2653, -166.554
5.23981, 4, -47.2458, -11.9868, 29.3596, 13.6651, 67.2653, -166.554
5.25356, 4, -47.2456, -11.9868, 29.3595, 13.6651, 67.2653, -166.553
5.25641, 4, -47.2456, -11.9868, 29.3595, 13.6651, 67.2653, -166.553
5.26378, 4, -47.2455, -11.9867, 29.3595, 13.6651, 67.2652, -166.553
5.28075, 4, -47.2454, -11.9867, 29.3596, 13.665, 67.2653, -166.553
5.28316, 4, -47.2454, -11.9867, 29.3596, 13.665, 67.2653, -166.553
5.28879, 4, -47.2453, -11.9867, 29.3596, 13.665, 67.2653, -166.553
5.2958, 4, -47.2453, -11.9867, 29.3596, 13.665, 67.2653, -166.553
5.30406, 4, -47.2453, -11.9867, 29.3596, 13.6651, 67.2653, -166.553
5.31433, 4, -47.2453, -11.9866, 29.3596, 13.665, 67.2653, -166.553
5.31997, 4, -47.2453, -11.9866, 29.3596, 13.665, 67.2653, -166.553
5.32954, 4, -47.2453, -11.9866, 29.3596, 13.665, 67.2654, -166.553
5.33605, 4, -47.2452, -11.9865, 29.3595, 13.665, 67.2654, -166.553
5.34429, 4, -47.2452, -11.9865, 29.3596, 13.6649, 67.2654, -166.553
5.35623, 4, -47.2451, -11.9865, 29.3596, 13.6649, 67.2654, -166.553
5.36123, 4, -47.245, -11.9864, 29.3596, 13.6649, 67.2654, -166.553
5.36833, 4, -47.245, -11.9864, 29.3596, 13.6649, 67.2654, -166.553
5.37839, 4, -47.2449, -11.9864, 29.3596, 13.6649, 67.2653, -166.553
5.38447, 4, -47.2449, -11.9864, 29.3595, 13.6649, 67.2653, -166.553
5.39252, 4, -47.2449, -11.9864, 29.3595, 13.6649, 67.2653, -166.553
5.4029, 4, -47.2449, -11.9864, 29.3595, 13.6648, 67.2653, -166.553
5.40862, 4, -47.245, -11.9864, 29.3596, 13.6648, 67.2654, -166.553
5.41753, 4, -47.2459, -11.9869, 29.3599, 13.6649, 67.2654, -166.553
5.42897, 4, -47.25, -11.9904, 29.3639, 13.67, 67.2668, -166.552
5.43501, 4, -47.2523, -11.9932, 29.3673, 13.6763, 67.2683, -166.552
5.44144, 4, -47.2594, -12.0021, 29.3799, 13.7012, 67.2747, -166.547
5.45167, 4, -47.2709, -12.0173, 29.4044, 13.7501, 67.2882, -166.536
5.45567, 5, -47.2789, -12.0282, 29.423, 13.7882, 67.2989, -166.528
5.46366, 5, -47.3011, -12.0579, 29.4769, 13.9002, 67.3305, -166.503
5.47474, 5, -47.3529, -12.1256, 29.6111, 14.1844, 67.4092, -166.437
5.48167, 5, -47.4025, -12.1883, 29.7434, 14.4695, 67.488, -166.372
5.48986, 5, -47.4648, -12.2661, 29.913, 14.8385, 67.5878, -166.287
5.49574, 5, -47.5007, -12.3107, 30.0123, 15.0544, 67.646, -166.237
5.50768, 5, -47.6265, -12.4667, 30.3664, 15.8181, 67.8493, -166.063
5.51171, 5, -47.6741, -12.5255, 30.5013, 16.106, 67.9252, -165.998
5.51964, 5, -47.7765, -12.6522, 30.7934, 16.7212, 68.0858, -165.859
5.53105, 5, -47.9445, -12.8613, 31.2748, 17.715, 68.3392, -165.64
5.53564, 5, -48.0032, -12.9348, 31.4439, 18.0572, 68.425, -165.566
5.5464, 5, -48.1835, -13.1623, 31.9654, 19.0977, 68.681, -165.342
5.55369, 5, -48.3035, -13.3155, 32.3195, 19.7901, 68.848, -165.195
5.56005, 5, -48.3622, -13.3913, 32.4967, 20.1319, 68.93, -165.121
5.56789, 5, -48.4747, -13.54, 32.8497, 20.8009, 69.0912, -164.968
5.5757, 6, -48.5769, -13.6819, 33.1945, 21.4407, 69.2502, -164.798
5.58377, 6, -48.6645, -13.8136, 33.5259, 22.0397, 69.4085, -164.6
5.59175, 7, -48.7333, -13.9352, 33.8391, 22.5922, 69.5692, -164.359
5.60246, 7, -48.7962, -14.1011, 34.2718, 23.3271, 69.82, -163.889
5.61042, 7, -48.8118, -14.2, 34.5344, 23.7617, 69.998, -163.49
5.61839, 8, -48.8078, -14.2885, 34.7798, 24.1631, 70.1878, -163.021
5.62368, 8, -48.799, -14.3294, 34.8973, 24.3544, 70.2875, -162.761
5.63455, 9, -48.7491, -14.4444, 35.2342, 24.9085, 70.6067, -161.899
5.63966, 9, -48.7262, -14.4805, 35.3435, 25.0902, 70.719, -161.59
5.64769, 10, -48.6737, -14.549, 35.5612, 25.4537, 70.9512, -160.949
5.65576, 10, -48.6131, -14.6134, 35.7789, 25.8207, 71.1914, -160.288
5.66546, 11, -48.5452, -14.6759, 35.9981, 26.1922, 71.4365, -159.618
5.67169, 11, -48.4715, -14.7385, 36.2196, 26.5689, 71.6836, -158.947
5.67971, 12, -48.3944, -14.8013, 36.4405, 26.9514, 71.9317, -158.278
5.69059, 12, -48.2755, -14.8949, 36.7673, 27.5355, 72.3046, -157.278
5.69568, 13, -48.2349, -14.926, 36.875, 27.7328, 72.4291, -156.946
5.70569, 13, -48.1517, -14.9881, 37.0875, 28.1303, 72.6785, -156.285
5.71347, 14, -48.0658, -15.0502, 37.2959, 28.5309, 72.9274, -155.624
5.72117, 14, -47.977, -15.1118, 37.5017, 28.9329, 73.1753, -154.966
5.72865, 15, -47.8852, -15.1724, 37.7047, 29.3353, 73.4213, -154.312
5.73731, 15, -47.7892, -15.232, 37.9044, 29.7365, 73.6647, -153.662
5.74373, 16, -47.6881, -15.2914, 38.1022, 30.1359, 73.9054, -153.015
5.75202, 16, -47.5813, -15.3513, 38.298, 30.5336, 74.143, -152.374
5.7598, 17, -47.4692, -15.4123, 38.4904, 30.9298, 74.3776, -151.737
5.76866, 17, -47.3521, -15.4743, 38.6798, 31.324, 74.6083, -151.104
5.77584, 18, -47.2299, -15.5372, 38.8673, 31.7164, 74.8356, -150.476
5.78784, 19, -47.037, -15.6342, 39.1437, 32.3015, 75.1684, -149.548
5.79354, 19, -46.9703, -15.6675, 39.2346, 32.4958, 75.2771, -149.241
5.80177, 20, -46.8334, -15.7355, 39.4156, 32.8829, 75.4905, -148.634
5.80935, 20, -46.6915, -15.8056, 39.5953, 33.2679, 75.6987, -148.034
5.81813, 20, -46.5448, -15.8781, 39.7725, 33.6506, 75.9015, -147.443
5.82496, 21, -46.3934, -15.9533, 39.9475, 34.0311, 76.0986, -146.859
5.83224, 21, -46.2373, -16.0312, 40.1209, 34.4088, 76.2898, -146.282
5.84114, 22, -46.0758, -16.1117, 40.2926, 34.7834, 76.4751, -145.714
5.84816, 22, -45.9085, -16.1941, 40.4612, 35.1543, 76.6548, -145.152
5.85629, 23, -45.735, -16.2788, 40.627, 35.521, 76.8287, -144.596
5.86437, 23, -45.5549, -16.3655, 40.7904, 35.8835, 76.9972, -144.046
5.87238, 24, -45.3681, -16.4539, 40.9501, 36.2412, 77.1602, -143.501
5.88384, 25, -45.1744, -16.5436, 41.1052, 36.5929, 77.318, -142.693
5.88853, 25, -44.9741, -16.6343, 41.256, 36.9383, 77.4711, -142.425
5.89754, 25, -44.7673, -16.7258, 41.4025, 37.2771, 77.6194, -141.892
5.90437, 26, -44.5539, -16.818, 41.5439, 37.6088, 77.7634, -141.361
5.91232, 26, -44.4445, -16.9102, 41.6798, 37.9332, 77.9033, -140.834
5.92324, 27, -44.1062, -17.002, 41.8099, 38.2499, 78.0388, -140.307
5.92888, 27, -43.8724, -17.093, 41.934, 38.5583, 78.1706, -139.782
5.93894, 28, -43.753, -17.1383, 41.9936, 38.7095, 78.2352, -139.258
5.94365, 28, -43.5092, -17.2278, 42.1079, 39.0054, 78.3614, -138.996
5.95464, 29, -43.1308, -17.3594, 42.2667, 39.4335, 78.5451, -138.213
5.95971, 29, -43.0013, -17.4025, 42.316, 39.5721, 78.6045, -137.951
5.96866, 30, -42.7369, -17.4873, 42.4094, 39.8429, 78.7784, -137.168
5.97566, 30, -42.464, -17.5701, 42.4956, 40.105, 78.835, -136.908
5.98566, 31, -42.0383, -17.6895, 42.6114, 40.4823, 79.0001, -136.127
5.99165, 31, -41.8924, -17.7281, 42.6465, 40.6038, 79.0539, -135.867
6.00183, 32, -41.4445, -17.8405, 42.7415, 40.9556, 79.2113, -135.088
6.01176, 33, -41.1377, -17.9123, 42.7963, 41.1798, 79.313, -134.57
6.01812, 33, -40.8245, -17.9808, 42.8439, 41.396, 79.4124, -134.053
6.02371, 33, -40.6654, -18.0138, 42.865, 41.501, 79.4609, -133.795
6.03167, 34, -40.3429, -18.0779, 42.9017, 41.7049, 79.5561, -133.278
6.03972, 34, -40.0161, -18.1393, 42.9311, 41.9006, 79.6486, -132.763
6.04954, 35, -39.5159, -18.2257, 42.9618, 42.18, 79.7829, -131.993
6.05893, 36, -39.1743, -18.279, 42.9734, 42.3567, 79.8696, -131.481
6.06533, 36, -39.0008, -18.3044, 42.9766, 42.4421, 79.9539, -130.971
6.07449, 36, -38.4691, -18.3756, 42.9763, 42.6871, 80.0364, -130.461
6.07974, 37, -38.2887, -18.3976, 42.9729, 42.7649, 80.0765, -130.207
6.09076, 38, -37.739, -18.4583, 42.952, 42.9874, 80.195, -129.447
6.0967, 38, -37.5532, -18.4767, 42.9417, 43.0578, 80.2331, -129.195
6.10421, 38, -37.1784, -18.5111, 42.9162, 43.193, 80.3085, -128.691
6.11165, 39, -36.7989, -18.5421, 42.8839, 43.3209, 80.3809, -128.188
6.1221, 39, -36.415, -18.5694, 42.8449, 43.4415, 80.4868, -127.439
6.13076, 40, -35.8287, -18.6032, 42.774, 43.6087, 80.5549, -126.942
6.13665, 40, -35.6303, -18.6125, 42.7471, 43.6608, 80.5885, -126.694
6.1466, 41, -35.2291, -18.6282, 42.6884, 43.8061, 80.6851, -125.953
6.15164, 41, -34.8227, -18.6403, 42.6233, 43.8512, 80.7167, -125.707
6.16312, 42, -34.2061, -18.652, 42.5135, 43.9754, 80.8077, -124.973
6.16772, 42, -33.999, -18.6544, 42.4738, 44.0134, 80.8371, -124.729
6.17677, 43, -33.582, -18.6567, 42.3898, 44.0835, 80.8954, -124.244
6.18372, 43, -33.1602, -18.6554, 42.2999, 44.1469, 80.9507, -123.76
6.1917, 44, -32.7325, -18.6504, 42.2042, 44.203, 81.0053, -123.28
6.20371, 45, -32.0789, -18.6359, 42.0499, 44.2732, 81.0836, -122.563
6.20772, 45, -31.8582, -18.6292, 41.9955, 44.2933, 81.1087, -122.325
6.21763, 45, -31.4138, -18.6132, 41.8822, 44.3275, 81.1585, -121.852
6.2237, 46, -30.9671, -18.5938, 41.7628, 44.3538, 81.2061, -121.38
6.23173, 46, -30.5185, -18.5708, 41.6376, 44.3723, 81.2514, -120.911
6.23968, 47, -30.0661, -18.5438, 41.5066, 44.3834, 81.2964, -120.444
6.24869, 47, -29.6082, -18.512, 41.3697, 44.3878, 81.3402, -119.98
6.2567, 48, -29.1434, -18.476, 41.2267, 44.3845, 81.3823, -119.517
6.26381, 48, -28.6727, -18.4358, 41.0776, 44.3722, 81.424, -119.055
6.27389, 49, -28.1974, -18.391, 40.9227, 44.3515, 81.4658, -118.596
6.27981, 49, -27.7199, -18.342, 40.7617, 44.3211, 81.5067, -118.138
6.28854, 50, -27.2396, -18.2882, 40.5942, 44.2809, 81.5472, -117.681
6.29674, 51, -26.7549, -18.2289, 40.42, 44.2322, 81.5891, -117.224
6.30504, 51, -26.2628, -18.164, 40.2396, 44.1735, 81.6316, -116.769
6.31369, 52, -25.7632, -18.0936, 40.0524, 44.105, 81.674, -116.315
6.32039, 52, -25.2578, -18.0178, 39.8574, 44.0266, 81.7174, -115.861
6.32794, 52, -24.7497, -17.9368, 39.656, 43.9376, 81.7622, -115.408
6.33605, 53, -24.2397, -17.8503, 39.4484, 43.8386, 81.8068, -114.955
6.34663, 54, -23.7254, -17.7577, 39.233, 43.7295, 81.8525, -114.503
6.35213, 54, -23.2043, -17.6588, 39.0104, 43.6097, 81.9009, -114.052
6.36112, 54, -22.6746, -17.5538, 38.7813, 43.4792, 81.9505, -113.6
6.37359, 55, -21.8686, -17.3846, 38.4231, 43.2617, 82.0293, -112.922
6.38059, 56, -21.3279, -17.2644, 38.1764, 43.1021, 82.0846, -112.47
6.3848, 56, -21.0565, -17.2021, 38.0504, 43.0179, 82.1124, -112.245
6.39312, 57, -20.5099, -17.0734, 37.7927, 42.841, 82.1703, -111.794
6.40026, 57, -19.9546, -16.9394, 37.5289, 42.6525, 82.23, -111.343
6.40865, 57, -19.3903, -16.8, 37.2583, 42.4521, 82.2907, -110.893
6.41866, 58, -18.82, -16.6546, 36.9814, 42.2393, 82.3542, -110.443
6.42447, 58, -18.2471, -16.5035, 36.6988, 42.0145, 82.4183, -109.994
6.43247, 59, -17.9598, -16.3471, 36.4095, 41.7777, 82.4854, -109.545
6.44043, 59, -17.3816, -16.2672, 36.1145, 41.5286, 82.5538, -109.096
6.45126, 60, -16.4973, -16.0202, 35.8134, 41.2667, 82.625, -108.648
6.457, 60, -15.8964, -15.8486, 35.5071, 40.9913, 82.6978, -108.199
6.46576, 61, -15.2909, -15.672, 35.1944, 40.702, 82.773, -107.75
6.47314, 62, -14.6826, -15.4912, 34.8758, 40.3998, 82.8507, -107.302
6.47973, 62, -14.3764, -15.3991, 34.7141, 40.2435, 82.8907, -107.078
6.49103, 63, -13.4432, -15.114, 34.221, 39.754, 83.0148, -106.404
6.49565, 63, -13.127, -15.0155, 34.0542, 39.5836, 83.0578, -106.179
6.50379, 63, -12.4891, -14.8139, 33.7163, 39.2313, 83.1459, -105.729
6.51168, 64, -11.847, -14.6074, 33.3731, 38.8644, 83.2379, -105.278
6.52152, 65, -10.8739, -14.2856, 32.8466, 38.2867, 83.3832, -104.599
6.53059, 65, -10.2124, -14.062, 32.488, 37.8827, 83.486, -104.144
6.53784, 66, -9.54137, -13.8326, 32.1248, 37.4625, 83.5937, -103.688
6.54813, 66, -8.86326, -13.5973, 31.7572, 37.0269, 83.7069, -103.23
6.55344, 66, -8.52244, -13.477, 31.5716, 36.5757, 83.8252, -102.77
6.56367, 67, -7.48919, -13.1051, 31.0053, 36.1094, 83.9493, -102.308
6.56761, 67, -7.13981, -12.9773, 30.814, 35.8705, 84.0137, -102.076
6.57982, 68, -6.07865, -12.583, 30.2344, 35.13, 84.2165, -101.377
6.58455, 69, -5.72144, -12.4486, 30.0391, 34.8757, 84.2877, -101.143
6.59425, 69, -5.00239, -12.1743, 29.6452, 34.3552, 84.4351, -100.436
6.59966, 69, -4.27611, -11.892, 29.247, 33.8201, 84.5892, -100.2
6.61233, 70, -3.5411, -11.6028, 28.8467, 32.9901, 84.8335, -99.486
6.61561, 70, -2.79802, -11.3061, 28.4447, 32.7061, 84.9184, -99.2469
6.62693, 71, -1.67077, -10.8482, 27.8378, 31.8338, 85.1832, -98.5275
6.63163, 71, -1.29129, -10.692, 27.6348, 31.5368, 85.2754, -98.2863
6.63981, 72, -0.527081, -10.3742, 27.2278, 30.9318, 85.4652, -97.802
6.64879, 73, 0.243608, -10.0492, 26.8205, 30.313, 85.6623, -97.3152
6.65578, 73, 1.01983, -9.71556, 26.4126, 29.6833, 85.8676, -96.8264
6.66364, 73, 1.80168, -9.3746, 26.0042, 29.0411, 86.0813, -96.3356
6.67165, 74, 2.58862, -9.02707, 25.5956, 28.3877, 86.3043, -95.8421
6.67976, 75, 3.37981, -8.67467, 25.1879, 27.7241, 86.5359, -95.3463
6.69257, 75, 4.57252, -8.13423, 24.5818, 26.7135, 86.8978, -94.5994
6.69561, 75, 4.97119, -7.95127, 24.3817, 26.3752, 87.022, -94.35
6.71365, 77, 6.56704, -7.2037, 23.5962, 25.0162, 87.5336, -93.3465
6.71622, 77, 6.96611, -7.0121, 23.4039, 24.6769, 87.6652, -93.0944
6.72883, 77, 8.16564, -6.42404, 22.8354, 23.6594, 88.0707, -92.3348
6.73103, 78, 8.56589, -6.22388, 22.6483, 23.3196, 88.2104, -92.0805
6.73656, 78, 8.96627, -6.02193, 22.4625, 22.9791, 88.3526, -91.8252
6.74349, 78, 9.76742, -5.61233, 22.0943, 22.296, 88.6454, -91.3117
6.75168, 79, 10.5688, -5.19309, 21.729, 21.6104, 88.9502, -90.7944
6.75984, 80, 11.3693, -4.76458, 21.3662, 20.9243, 89.2676, -90.2726
6.76853, 80, 12.1667, -4.32678, 21.0068, 20.2364, 89.5969, -89.7467
6.77609, 80, 12.9594, -3.87864, 20.6517, 19.5515, 89.9378, -89.2153
6.78358, 81, 13.7479, -3.41985, 20.3013, 18.8738, 90.2894, -88.679
6.79198, 81, 14.53, -2.95156, 19.9564, 18.2051, 90.6508, -88.1377
6.79971, 82, 15.3028, -2.47435, 19.6186, 17.5462, 91.0213, -87.5927
6.80748, 82, 16.066, -1.98904, 19.2883, 16.8989, 91.4015, -87.0429
6.81554, 83, 16.8193, -1.49589, 18.9656, 16.2665, 91.7898, -86.4901
6.82365, 83, 17.5604, -0.996419, 18.6507, 15.6513, 92.1858, -85.9349
6.83158, 84, 18.285, -0.492655, 18.3442, 15.0538, 92.5883, -85.3796
6.83965, 84, 18.9913, 0.0152847, 18.0474, 14.4792, 92.9968, -84.824
6.84853, 85, 19.6809, 0.529553, 17.7593, 13.928, 93.4102, -84.2696
6.85575, 85, 20.3541, 1.04993, 17.4803, 13.4013, 93.8282, -83.7172
6.86393, 86, 21.0107, 1.57426, 17.2088, 12.8993, 94.249, -83.1675
6.87261, 86, 21.6513, 2.10246, 16.9455, 12.4203, 94.6736, -82.6181
6.88041, 86, 22.2783, 2.63732, 16.6895, 11.9647, 95.103, -82.0678
6.88803, 87, 22.8936, 3.18107, 16.4387, 11.53, 95.5382, -81.5143
6.89633, 87, 23.4981, 3.73353, 16.1926, 11.1144, 95.9795, -80.9569
6.90406, 88, 24.091, 4.29295, 15.9502, 10.7154, 96.427, -80.3915
6.91206, 88, 24.6717, 4.86112, 15.7125, 10.3328, 96.8807, -79.8173
6.9202, 89, 25.2401, 5.43983, 15.4809, 9.96509, 97.3413, -79.2324
6.92806, 89, 25.5203, 5.73299, 15.3665, 9.78738, 97.574, -78.6371
6.9355, 90, 26.0756, 6.32656, 15.1398, 9.44335, 98.0439, -78.3345
6.94441, 90, 26.6239, 6.92849, 14.917, 9.11421, 98.7609, -77.4071
6.95149, 91, 27.1612, 7.53881, 14.6995, 8.80264, 99.003, -77.0919
6.95946, 91, 27.685, 8.15881, 14.4868, 8.50959, 99.4916, -76.4537
6.96756, 92, 28.1977, 8.78948, 14.2787, 8.23711, 99.985, -75.8038
6.97546, 92, 28.7018, 9.43058, 14.0753, 7.98723, 100.482, -75.1447
6.98348, 93, 29.1975, 10.0801, 13.8774, 7.75976, 100.981, -74.4789
6.99153, 93, 29.6809, 10.7356, 13.6866, 7.55612, 101.481, -73.8057
6.99946, 94, 30.1505, 11.3955, 13.5042, 7.37606, 101.979, -73.1258
7.00905, 94, 30.8267, 12.3902, 13.2441, 7.15034, 102.722, -72.097
7.01554, 95, 31.0451, 12.7228, 13.1609, 7.08698, 102.969, -71.7515
7.02353, 95, 31.4714, 13.3891, 13.0008, 6.97834, 103.459, -71.0558
7.03147, 96, 31.8839, 14.0568, 12.8483, 6.89281, 103.945, -70.355
7.03954, 96, 32.2817, 14.7253, 12.7019, 6.83183, 104.427, -69.6492
7.04754, 97, 32.6634, 15.3943, 12.5622, 6.79349, 104.905, -68.9374
7.05795, 97, 33.0287, 16.0623, 12.4299, 6.77608, 105.378, -67.8609
7.06353, 98, 33.3781, 16.7284, 12.3059, 6.78087, 105.844, -67.5009
7.07247, 98, 33.7132, 17.3911, 12.1907, 6.80729, 106.302, -66.7775
7.07946, 99, 34.0346, 18.0486, 12.0846, 6.85323, 106.75, -66.0525
7.08759, 99, 34.3433, 18.6999, 11.9877, 6.91956, 107.187, -65.3293
7.09558, 100, 34.6407, 19.3431, 11.8997, 7.00324, 107.612, -64.6068
7.10349, 100, 34.9266, 19.9777, 11.8204, 7.10477, 108.024, -63.887
7.11147, 101, 35.2007, 20.6018, 11.7493, 7.22227, 108.422, -63.1738
7.11955, 101, 35.4631, 21.2152, 11.6865, 7.35469, 108.806, -62.4663
7.12746, 102, 35.7144, 21.8169, 11.6324, 7.5004, 109.173, -61.7667
7.13546, 102, 35.9532, 22.4059, 11.5867, 7.65772, 109.523, -61.0786
7.14349, 103, 36.1802, 22.981, 11.5497, 7.82502, 109.856, -60.4015
7.15149, 103, 36.3986, 23.5406, 11.5214, 8.0014, 110.171, -59.7359
7.15945, 103, 36.6099, 24.084, 11.5022, 8.18674, 110.466, -59.0835
7.16754, 104, 36.8136, 24.6113, 11.4919, 8.38126, 110.743, -58.4443
7.17546, 104, 37.0101, 25.1225, 11.4889, 8.58478, 110.999, -57.8169
7.18348, 104, 37.2004, 25.6174, 11.4927, 8.79644, 111.234, -57.2023
7.19154, 104, 37.3833, 26.0957, 11.5025, 9.01469, 111.45, -56.6019
7.19945, 104, 37.557, 26.5575, 11.5164, 9.23746, 111.648, -56.0163
7.20745, 104, 37.7218, 27.0028, 11.5331, 9.46262, 111.829, -55.4473
7.21555, 104, 37.8805, 27.4326, 11.5526, 9.6874, 111.997, -54.8979
7.22346, 104, 38.0343, 27.8464, 11.5735, 9.90944, 112.154, -54.3709
7.23147, 104, 38.1829, 28.2435, 11.5946, 10.1271, 112.303, -53.8664
7.23954, 104, 38.3252, 28.6238, 11.6151, 10.3394, 112.442, -53.3854
7.24749, 104, 38.4607, 28.9871, 11.6344, 10.545, 112.574, -52.9285
7.25551, 104, 38.5886, 29.3323, 11.6526, 10.7431, 112.698, -52.4962
7.26404, 104, 38.7084, 29.659, 11.6697, 10.9329, 112.815, -52.0891
7.27161, 104, 38.8199, 29.9663, 11.6855, 11.1139, 112.924, -51.7067
7.27958, 104, 38.9231, 30.2554, 11.7003, 11.2851, 113.025, -51.3495
7.28764, 104, 39.0186, 30.5251, 11.7141, 11.4465, 113.118, -51.0178
7.29557, 104, 39.1064, 30.7749, 11.7266, 11.5973, 113.205, -50.7117
7.30346, 104, 39.1863, 31.0053, 11.7378, 11.7371, 113.283, -50.4304
7.31161, 104, 39.2583, 31.2158, 11.7481, 11.8656, 113.355, -50.1745
7.31951, 104, 39.3226, 31.4063, 11.7577, 11.9826, 113.419, -49.9437
7.32749, 104, 39.3793, 31.5775, 11.7662, 12.0878, 113.477, -49.7381
7.33564, 104, 39.4289, 31.7291, 11.7737, 12.1805, 113.527, -49.5575
7.34368, 104, 39.4723, 31.8619, 11.7805, 12.2615, 113.57, -49.4016
7.35179, 104, 39.51, 31.9769, 11.7867, 12.3301, 113.607, -49.2697
7.36015, 104, 39.5416, 32.0751, 11.7922, 12.3877, 113.637, -49.1609
7.36784, 104, 39.5677, 32.1572, 11.797, 12.4331, 113.661, -49.0733
7.37654, 104, 39.5888, 32.225, 11.8014, 12.4685, 113.679, -49.0056
7.38435, 104, 39.6054, 32.2801, 11.8054, 12.4953, 113.692, -48.9555
7.39209, 104, 39.6182, 32.324, 11.809, 12.5148, 113.701, -48.9199
7.40005, 104, 39.6278, 32.3576, 11.8122, 12.5283, 113.707, -48.8958
7.40806, 104, 39.6349, 32.3827, 11.8151, 12.537, 113.711, -48.8806
7.41625, 104, 39.6377, 32.3928, 11.8176, 12.5424, 113.713, -48.8719
7.42408, 104, 39.6416, 32.4089, 11.8186, 12.5442, 113.714, -48.8674
7.43215, 104, 39.6438, 32.4198, 11.8204, 12.5469, 113.715, -48.8654
7.43945, 105, 39.6449, 32.4266, 11.8217, 12.5474, 113.715, -48.8649
7.4475, 105, 39.6448, 32.431, 11.8228, 12.5479, 113.715, -48.8644
7.45643, 105, 39.644, 32.4339, 11.8237, 12.5482, 113.715, -48.8645
7.46345, 105, 39.6429, 32.4359, 11.8245, 12.5483, 113.715, -48.8646
7.47145, 105, 39.6419, 32.4375, 11.8251, 12.5483, 113.715, -48.8649
7.47951, 105, 39.6408, 32.4388, 11.8257, 12.5484, 113.715, -48.8653
7.48746, 105, 39.6397, 32.44, 11.8263, 12.5484, 113.715, -48.8656
7.49545, 105, 39.6389, 32.4411, 11.8269, 12.5484, 113.715, -48.8659
7.50498, 105, 39.6383, 32.4427, 11.8277, 12.5484, 113.715, -48.8664
7.513, 105, 39.638, 32.4437, 11.8282, 12.5484, 113.715, -48.8667
7.51947, 105, 39.6379, 32.4442, 11.8285, 12.5484, 113.715, -48.8669
7.52749, 105, 39.6376, 32.445, 11.8289, 12.5483, 113.715, -48.8672
7.53544, 105, 39.6373, 32.4455, 11.8293, 12.5483, 113.715, -48.8674
7.54345, 105, 39.637, 32.4459, 11.8296, 12.5483, 113.715, -48.8677
7.55297, 105, 39.6367, 32.4461, 11.8298, 12.5483, 113.715, -48.8679
7.55945, 105, 39.6364, 32.4462, 11.83, 12.5483, 113.715, -48.8682
