hehonglu123/Motion-Primitive-Planning/ILC/recorded_data/realrobot/from_NX/iteration_2/run_2.csv
timestamp, cmd_num, J1, J2, J3, J4, J5, J6
0.007697, -1, 39.6319, 32.446, 11.8315, 12.5469, 113.714, -48.8709
0.010628, -1, 39.6319, 32.446, 11.8315, 12.5469, 113.714, -48.8709
0.01491, -1, 39.6319, 32.446, 11.8315, 12.5469, 113.714, -48.8709
0.016723, -1, 39.6319, 32.446, 11.8315, 12.5469, 113.714, -48.8709
0.038658, -1, 39.6319, 32.446, 11.8315, 12.5469, 113.714, -48.8709
0.039989, -1, 39.6319, 32.446, 11.8315, 12.5469, 113.714, -48.8709
0.042726, -1, 39.6319, 32.446, 11.8315, 12.5469, 113.714, -48.8709
0.047166, -1, 39.6319, 32.446, 11.8315, 12.5469, 113.714, -48.8709
0.055173, -1, 39.6319, 32.446, 11.8315, 12.5469, 113.714, -48.8709
0.063288, -1, 39.6314, 32.4459, 11.8315, 12.547, 113.714, -48.8709
0.071141, -1, 39.629, 32.4455, 11.8315, 12.547, 113.714, -48.8709
0.209829, -1, 38.254, 31.7426, 12.1042, 12.5586, 112.992, -50.7136
0.211868, -1, 38.1655, 31.6963, 12.1237, 12.5598, 112.942, -50.8397
0.213061, -1, 38.1655, 31.6963, 12.1237, 12.5598, 112.942, -50.8397
0.214364, -1, 38.1655, 31.6963, 12.1237, 12.5598, 112.942, -50.8397
0.216353, -1, 38.0756, 31.6494, 12.1432, 12.561, 112.892, -50.9668
0.217641, -1, 38.0756, 31.6494, 12.1432, 12.561, 112.892, -50.9668
0.22032, -1, 37.9844, 31.602, 12.1627, 12.5622, 112.841, -51.0948
0.223631, -1, 37.892, 31.5541, 12.1821, 12.5634, 112.79, -51.2235
0.224883, -1, 37.892, 31.5541, 12.1821, 12.5634, 112.79, -51.2235
0.226138, -1, 37.892, 31.5541, 12.1821, 12.5634, 112.79, -51.2235
0.228214, -1, 37.7987, 31.5058, 12.2015, 12.5646, 112.739, -51.3525
0.229514, -1, 37.7987, 31.5058, 12.2015, 12.5646, 112.739, -51.3525
0.231317, -1, 37.7045, 31.4572, 12.2209, 12.5658, 112.688, -51.4818
0.234018, -1, 37.7045, 31.4572, 12.2209, 12.5658, 112.688, -51.4818
0.236138, -1, 37.6097, 31.4084, 12.2403, 12.567, 112.637, -51.6116
0.237861, -1, 37.6097, 31.4084, 12.2403, 12.567, 112.637, -51.6116
0.23993, -1, 37.5143, 31.3595, 12.2597, 12.5682, 112.586, -51.7414
0.241138, -1, 37.5143, 31.3595, 12.2597, 12.5682, 112.586, -51.7414
0.242474, -1, 37.5143, 31.3595, 12.2597, 12.5682, 112.586, -51.7414
0.245184, -1, 37.4187, 31.3106, 12.2791, 12.5695, 112.535, -51.8711
0.246398, -1, 37.4187, 31.3106, 12.2791, 12.5695, 112.535, -51.8711
0.248584, -1, 37.3228, 31.2616, 12.2984, 12.5707, 112.483, -52.0008
0.257944, -1, 37.1308, 31.1638, 12.3373, 12.5731, 112.38, -52.2605
0.26376, -1, 36.9386, 31.0661, 12.376, 12.5758, 112.277, -52.5206
0.272299, -1, 36.7466, 30.9683, 12.4148, 12.5784, 112.174, -52.7811
0.279691, -1, 36.555, 30.8706, 12.4537, 12.5809, 112.072, -53.0414
0.28831, -1, 36.3635, 30.773, 12.4925, 12.5835, 111.969, -53.3016
0.295883, -1, 36.2677, 30.7241, 12.5313, 12.5861, 111.866, -53.562
0.304135, -1, 35.9805, 30.5773, 12.5702, 12.5887, 111.763, -53.8227
0.311706, -1, 35.8848, 30.5283, 12.5897, 12.59, 111.711, -53.9531
0.320243, -1, 35.5973, 30.3813, 12.648, 12.5938, 111.557, -54.3436
0.327124, -1, 35.5012, 30.3322, 12.6674, 12.5951, 111.505, -54.4737
0.336276, -1, 35.2129, 30.1847, 12.7256, 12.5991, 111.351, -54.8644
0.343134, -1, 35.1166, 30.1356, 12.7451, 12.6004, 111.299, -54.9948
0.352339, -1, 34.8282, 29.988, 12.8034, 12.6043, 111.145, -55.3859
0.359125, -1, 34.732, 29.9387, 12.8228, 12.6056, 111.093, -55.5162
0.368568, -1, 34.4436, 29.791, 12.8812, 12.6094, 110.939, -55.9073
0.37653, -1, 34.2515, 29.6927, 12.9201, 12.612, 110.835, -56.1683
0.383128, -1, 34.1555, 29.6435, 12.9396, 12.6133, 110.784, -56.2988
0.392683, -1, 33.8677, 29.4961, 12.998, 12.6174, 110.629, -56.6899
0.400665, -1, 33.6759, 29.3978, 13.0368, 12.62, 110.526, -56.9508
0.407126, -1, 33.58, 29.3486, 13.0563, 12.6213, 110.474, -57.0812
0.416753, -1, 33.2916, 29.201, 13.1148, 12.6253, 110.32, -57.4729
0.424741, -1, 33.1953, 29.1024, 13.1536, 12.6278, 110.217, -57.7338
0.431154, -1, 33.0025, 29.0531, 13.173, 12.6292, 110.165, -57.8643
0.440112, -1, 32.8096, 28.9545, 13.2119, 12.6319, 110.063, -58.1255
0.448211, -1, 32.6163, 28.8559, 13.2509, 12.6346, 109.959, -58.3869
0.456172, -1, 32.4227, 28.7572, 13.2897, 12.6373, 109.856, -58.6479
0.464115, -1, 32.2289, 28.6585, 13.3287, 12.64, 109.753, -58.9088
0.472117, -1, 32.0348, 28.5598, 13.3675, 12.6426, 109.65, -59.1699
0.479108, -1, 31.841, 28.461, 13.4064, 12.6454, 109.547, -59.4312
0.487221, -1, 31.6473, 28.3623, 13.4455, 12.6481, 109.444, -59.6927
0.495113, -1, 31.4538, 28.2637, 13.4845, 12.651, 109.341, -59.9537
0.503145, -1, 31.2608, 28.1651, 13.5234, 12.6537, 109.238, -60.2152
0.511181, -1, 31.0683, 28.0667, 13.5625, 12.6566, 109.135, -60.4767
0.519118, -1, 30.876, 27.9681, 13.6015, 12.6594, 109.032, -60.7382
0.527129, -1, 30.6839, 27.8695, 13.6405, 12.6622, 108.929, -60.9995
0.535183, -1, 30.4921, 27.7709, 13.6795, 12.665, 108.825, -61.2609
0.543144, -1, 30.3, 27.6722, 13.7184, 12.6678, 108.722, -61.5224
0.551125, -1, 30.1078, 27.5734, 13.7574, 12.6705, 108.619, -61.7841
0.559183, -1, 29.9152, 27.4747, 13.7965, 12.6732, 108.516, -62.0457
0.567117, -1, 29.7222, 27.3759, 13.8353, 12.6759, 108.412, -62.3073
0.575128, -1, 29.5286, 27.2771, 13.8742, 12.6785, 108.309, -62.5691
0.583188, -1, 29.3346, 27.1784, 13.9132, 12.681, 108.206, -62.831
0.591117, -1, 29.1404, 27.0795, 13.9522, 12.6836, 108.103, -63.0925
0.599218, -1, 28.9458, 26.9806, 13.9912, 12.6861, 107.999, -63.3539
0.607117, -1, 28.7517, 26.8817, 14.0301, 12.6886, 107.896, -63.6153
0.615121, -1, 28.5576, 26.7829, 14.069, 12.6911, 107.792, -63.8772
0.6232, -1, 28.3637, 26.6842, 14.1081, 12.6936, 107.689, -64.139
0.631154, -1, 28.1703, 26.5854, 14.1472, 12.6961, 107.586, -64.4005
0.639217, -1, 27.9773, 26.4866, 14.1861, 12.6985, 107.483, -64.6621
0.647274, -1, 27.7846, 26.3878, 14.2252, 12.7009, 107.379, -64.924
0.655245, -1, 27.5921, 26.2889, 14.2641, 12.7033, 107.276, -65.1858
0.663232, -1, 27.3999, 26.1899, 14.303, 12.7057, 107.173, -65.4474
0.800429, -1, 24.1149, 24.5096, 14.9656, 12.7451, 105.417, -69.8966
0.801725, -1, 24.1149, 24.5096, 14.9656, 12.7451, 105.417, -69.8966
0.802995, -1, 24.1149, 24.5096, 14.9656, 12.7451, 105.417, -69.8966
0.805702, -1, 24.0186, 24.4602, 14.9851, 12.7462, 105.366, -70.0272
0.806998, -1, 24.0186, 24.4602, 14.9851, 12.7462, 105.366, -70.0272
0.809121, -1, 23.9222, 24.4108, 15.0046, 12.7474, 105.314, -70.158
0.810412, -1, 23.9222, 24.4108, 15.0046, 12.7474, 105.314, -70.158
0.814159, -1, 23.8257, 24.3614, 15.0241, 12.7487, 105.262, -70.2888
0.816113, -1, 23.7293, 24.312, 15.0435, 12.7499, 105.21, -70.4196
0.817471, -1, 23.7293, 24.312, 15.0435, 12.7499, 105.21, -70.4196
0.818686, -1, 23.7293, 24.312, 15.0435, 12.7499, 105.21, -70.4196
0.820756, -1, 23.6328, 24.2626, 15.0629, 12.7511, 105.159, -70.5506
0.822054, -1, 23.6328, 24.2626, 15.0629, 12.7511, 105.159, -70.5506
0.823932, -1, 23.6328, 24.2131, 15.0824, 12.7522, 105.107, -70.6815
0.825367, -1, 23.5362, 24.2131, 15.0824, 12.7522, 105.107, -70.6815
0.826798, -1, 23.5362, 24.2131, 15.0824, 12.7522, 105.107, -70.6815
0.829859, -1, 23.4395, 24.1637, 15.1019, 12.7534, 105.055, -70.8123
0.831138, -1, 23.4395, 24.1637, 15.1019, 12.7534, 105.055, -70.8123
0.833301, -1, 23.3427, 24.1142, 15.1214, 12.7546, 105.004, -70.9431
0.834717, -1, 23.3427, 24.1142, 15.1214, 12.7546, 105.004, -70.9431
0.837567, -1, 23.2458, 24.0648, 15.1408, 12.7558, 104.952, -71.074
0.839055, -1, 23.2458, 24.0648, 15.1408, 12.7558, 104.952, -71.074
0.851135, -1, 22.9549, 23.9165, 15.1991, 12.7595, 104.797, -71.4666
0.85505, -1, 22.8578, 23.8671, 15.2186, 12.7608, 104.745, -71.5976
0.864406, -1, 22.5669, 23.7189, 15.2771, 12.7644, 104.59, -71.99
0.872546, -1, 22.3733, 23.6204, 15.316, 12.7669, 104.487, -72.2514
0.879119, -1, 22.2767, 23.571, 15.3355, 12.7682, 104.435, -72.382
0.887113, -1, 22.0834, 23.4723, 15.3744, 12.7708, 104.332, -72.6436
0.896616, -1, 21.794, 23.3242, 15.4329, 12.7747, 104.177, -73.036
0.90473, -1, 21.6018, 23.2254, 15.4719, 12.7774, 104.074, -73.2971
0.912743, -1, 21.4096, 23.1267, 15.5108, 12.7801, 103.971, -73.5585
0.920717, -1, 21.3135, 23.028, 15.5498, 12.7827, 103.868, -73.8201
0.929006, -1, 21.0249, 22.9293, 15.5887, 12.7854, 103.764, -74.0817
0.935152, -1, 20.9287, 22.88, 15.6081, 12.7868, 103.713, -74.2122
0.944099, -1, 20.7364, 22.7814, 15.6471, 12.7895, 103.61, -74.4733
0.952154, -1, 20.5437, 22.6828, 15.686, 12.7922, 103.506, -74.7346
0.960111, -1, 20.3505, 22.5841, 15.7248, 12.7949, 103.404, -74.996
0.967168, -1, 20.1568, 22.4854, 15.7638, 12.7976, 103.301, -75.2572
0.975131, -1, 19.9631, 22.3867, 15.8027, 12.8004, 103.197, -75.5184
0.983113, -1, 19.7695, 22.2881, 15.8414, 12.8031, 103.095, -75.7796
0.991137, -1, 19.5758, 22.1895, 15.8803, 12.8058, 102.992, -76.0408
0.999103, -1, 19.3824, 22.0909, 15.9192, 12.8086, 102.888, -76.3021
1.00819, -1, 19.1894, 21.9922, 15.958, 12.8112, 102.786, -76.5629
1.0151, -1, 18.9966, 21.8936, 15.997, 12.8141, 102.682, -76.8237
1.02311, -1, 18.8041, 21.7949, 16.0358, 12.8168, 102.579, -77.0847
1.03118, -1, 18.612, 21.6961, 16.0745, 12.8194, 102.477, -77.3457
1.0391, -1, 18.4203, 21.5976, 16.1135, 12.8221, 102.374, -77.6064
1.04712, -1, 18.2284, 21.499, 16.1523, 12.8247, 102.271, -77.8672
1.05518, -1, 18.0364, 21.4006, 16.1911, 12.8272, 102.168, -78.128
1.06311, -1, 17.8446, 21.3022, 16.23, 12.8297, 102.065, -78.3887
1.0711, -1, 17.6526, 21.2039, 16.2689, 12.8322, 101.962, -78.6493
1.08014, -1, 17.4602, 21.1056, 16.3077, 12.8347, 101.859, -78.9096
1.0871, -1, 17.2674, 21.0073, 16.3466, 12.8372, 101.756, -79.1702
1.0951, -1, 17.0743, 20.909, 16.3853, 12.8395, 101.653, -79.4309
1.10323, -1, 16.8813, 20.8108, 16.4241, 12.8419, 101.55, -79.6914
1.1111, -1, 16.6882, 20.7126, 16.463, 12.8442, 101.447, -79.9519
1.11915, -1, 16.4952, 20.6144, 16.5016, 12.8466, 101.345, -80.2124
1.1273, -1, 16.3023, 20.5161, 16.5404, 12.8489, 101.242, -80.473
1.13514, -1, 16.1101, 20.4177, 16.5791, 12.8512, 101.14, -80.7336
1.14328, -1, 15.9182, 20.3193, 16.6178, 12.8534, 101.037, -80.9937
1.15202, -1, 15.7265, 20.2208, 16.6565, 12.8558, 100.934, -81.2539
1.1601, -1, 15.5351, 20.1224, 16.6951, 12.8581, 100.832, -81.514
1.16726, -1, 15.344, 20.0241, 16.7338, 12.8604, 100.729, -81.7741
1.17616, -1, 15.1528, 19.9258, 16.7726, 12.8627, 100.626, -82.0339
1.18317, -1, 14.9616, 19.8277, 16.8113, 12.8649, 100.524, -82.2937
1.19123, -1, 14.7703, 19.7295, 16.8499, 12.8673, 100.422, -82.5536
1.19913, -1, 14.5788, 19.6314, 16.8887, 12.8696, 100.319, -82.8137
1.20716, -1, 14.3869, 19.5333, 16.9273, 12.8719, 100.216, -83.0735
1.21527, -1, 14.1947, 19.4353, 16.966, 12.8741, 100.114, -83.3329
1.22325, -1, 14.0024, 19.3373, 17.0048, 12.8764, 100.011, -83.5925
1.23136, -1, 13.81, 19.2394, 17.0433, 12.8787, 99.9086, -83.8522
1.2394, -1, 13.6174, 19.1416, 17.082, 12.881, 99.8061, -84.1118
1.24741, -1, 13.4251, 19.0438, 17.1207, 12.8834, 99.7035, -84.371
1.25568, -1, 13.2331, 18.9459, 17.1592, 12.8856, 99.6015, -84.6302
1.26428, -1, 13.0415, 18.8479, 17.1978, 12.888, 99.499, -84.8896
1.27164, -1, 12.8503, 18.7499, 17.2365, 12.8903, 99.3966, -85.149
1.27972, -1, 12.6594, 18.652, 17.275, 12.8927, 99.2944, -85.4079
1.28833, -1, 12.4688, 18.5542, 17.3135, 12.8952, 99.192, -85.6668
1.29566, -1, 12.2785, 18.4564, 17.3521, 12.8975, 99.0897, -85.9257
1.3042, -1, 12.0885, 18.3587, 17.3905, 12.9, 98.9879, -86.1847
1.31254, -1, 11.9933, 18.3099, 17.4098, 12.9011, 98.9368, -86.3141
1.3191, -1, 11.8029, 18.2124, 17.4485, 12.9035, 98.8347, -86.5726
1.32909, -1, 11.5168, 18.0659, 17.5062, 12.9072, 98.682, -86.9605
1.33702, -1, 11.3258, 17.9683, 17.5448, 12.9097, 98.5799, -87.2191
1.34421, -1, 11.1344, 17.8708, 17.5834, 12.9121, 98.478, -87.4777
1.35109, -1, 11.0387, 17.822, 17.6026, 12.9133, 98.4271, -87.6068
1.36118, -1, 10.7511, 17.6759, 17.6603, 12.9171, 98.2741, -87.9941
1.36714, -1, 10.6552, 17.6272, 17.6796, 12.9183, 98.2231, -88.1233
1.37671, -1, 10.3683, 17.4809, 17.7371, 12.9222, 98.0705, -88.5108
1.38539, -1, 10.1772, 17.3833, 17.7756, 12.9246, 97.9686, -88.7687
1.39114, -1, 10.0818, 17.3345, 17.7948, 12.926, 97.9176, -88.8978
1.40067, -1, 9.79632, 17.1882, 17.8523, 12.9299, 97.7648, -89.285
1.40954, -1, 9.60641, 17.0907, 17.8907, 12.9326, 97.6628, -89.5432
1.41515, -1, 9.5117, 17.042, 17.9098, 12.934, 97.6119, -89.6721
1.42472, -1, 9.22787, 16.896, 17.9673, 12.9381, 97.4591, -90.0586
1.43359, -1, 9.1332, 16.8473, 17.9866, 12.9407, 97.3573, -90.316
1.43927, -1, 8.94383, 16.7502, 18.0249, 12.9421, 97.3064, -90.4449
1.44883, -1, 8.75435, 16.653, 18.0632, 12.9448, 97.2048, -90.8312
1.45608, -1, 8.56475, 16.5558, 18.1017, 12.9474, 97.103, -90.9597
1.46316, -1, 8.37496, 16.4587, 18.14, 12.9501, 97.0016, -91.2169
1.47109, -1, 8.18463, 16.3618, 18.1783, 12.9528, 96.9, -91.474
1.47911, -1, 7.9941, 16.2649, 18.2167, 12.9554, 96.7984, -91.7313
1.48823, -1, 7.80354, 16.1681, 18.2549, 12.9581, 96.697, -91.9882
1.49608, -1, 7.61292, 16.0711, 18.2932, 12.9606, 96.5955, -92.2449
1.50408, -1, 7.42243, 15.9742, 18.3316, 12.9632, 96.494, -92.5017
1.51108, -1, 7.2323, 15.8772, 18.3697, 12.9657, 96.3929, -92.7585
1.5192, -1, 7.04247, 15.7802, 18.4079, 12.9683, 96.2915, -93.0152
1.52715, -1, 6.85308, 15.6833, 18.4462, 12.9708, 96.1902, -93.2716
1.53508, -1, 6.66415, 15.5864, 18.4843, 12.9733, 96.0895, -93.528
1.54309, -1, 6.47577, 15.4896, 18.5223, 12.9758, 95.9884, -93.7843
1.55117, -1, 6.28759, 15.3928, 18.5605, 12.9783, 95.8874, -94.0408
1.55909, -1, 6.09953, 15.2961, 18.5987, 12.9808, 95.7867, -94.2967
1.56708, -1, 5.91127, 15.1994, 18.6368, 12.9831, 95.6856, -94.5526
1.57515, -1, 5.72286, 15.1027, 18.675, 12.9854, 95.5846, -94.8085
1.5831, -1, 5.53437, 15.0061, 18.713, 12.9876, 95.4841, -95.0645
1.59108, -1, 5.3456, 14.9096, 18.7511, 12.9901, 95.3831, -95.3201
1.60012, -1, 5.15639, 14.8132, 18.7893, 12.9923, 95.2824, -95.5754
1.60711, -1, 4.96693, 14.7169, 18.8273, 12.9946, 95.1819, -95.8309
1.61513, -1, 4.77752, 14.6205, 18.8654, 12.9968, 95.081, -96.0865
1.62312, -1, 4.5881, 14.5242, 18.9035, 12.999, 94.9803, -96.3417
1.6311, -1, 4.39886, 14.4278, 18.9415, 13.0012, 94.8796, -96.5966
1.64018, -1, 4.2099, 14.3314, 18.9795, 13.0034, 94.7787, -96.8514
1.64719, -1, 4.02124, 14.235, 19.0174, 13.0057, 94.6779, -97.1066
1.65518, -1, 3.83323, 14.1388, 19.0553, 13.0079, 94.5771, -97.3616
1.66329, -1, 3.64568, 14.0427, 19.0933, 13.0101, 94.4763, -97.6162
1.67154, -1, 3.45852, 13.9465, 19.1312, 13.0125, 94.3757, -97.8709
1.6792, -1, 3.27158, 13.8505, 19.169, 13.0148, 94.2751, -98.1257
1.68726, -1, 3.08467, 13.7545, 19.2069, 13.0171, 94.1743, -98.3804
1.6957, -1, 2.8977, 13.6584, 19.2448, 13.0193, 94.0738, -98.6348
1.70411, -1, 2.71069, 13.5624, 19.2827, 13.0216, 93.9731, -98.889
1.71119, -1, 2.52339, 13.4665, 19.3206, 13.0238, 93.8726, -99.143
1.7201, -1, 2.33595, 13.3706, 19.3584, 13.0261, 93.7724, -99.3972
1.72814, -1, 2.14814, 13.2749, 19.3961, 13.0284, 93.672, -99.6513
1.73537, -1, 1.96003, 13.179, 19.4341, 13.0305, 93.5718, -99.9048
1.74417, -1, 1.77189, 13.0831, 19.4718, 13.0329, 93.472, -100.159
1.75156, -1, 1.58359, 12.9873, 19.5095, 13.0351, 93.3718, -100.412
1.76011, -1, 1.39546, 12.8914, 19.5474, 13.0374, 93.2717, -100.666
1.76845, -1, 1.20761, 12.7956, 19.5851, 13.0397, 93.1719, -100.919
1.77561, -1, 1.0202, 12.6998, 19.6227, 13.0421, 93.0717, -101.172
1.78419, -1, 0.833509, 12.6043, 19.6605, 13.0444, 92.9718, -101.425
1.79247, -1, 0.647169, 12.5087, 19.6981, 13.0469, 92.8722, -101.678
1.79982, -1, 0.46119, 12.4132, 19.7357, 13.0493, 92.7723, -101.931
1.80823, -1, 0.275545, 12.3179, 19.7734, 13.0517, 92.6726, -102.184
1.81647, -1, 0.182829, 12.2702, 19.7922, 13.053, 92.6231, -102.31
1.82307, -1, -0.00246548, 12.1749, 19.8297, 13.0554, 92.5235, -102.563
1.83211, -1, -0.280847, 12.032, 19.8863, 13.0591, 92.374, -102.942
1.8391, -1, -0.373749, 11.9844, 19.9051, 13.0603, 92.3245, -103.068
1.84853, -1, -0.652976, 11.8417, 19.9613, 13.0641, 92.1753, -103.446
1.85507, -1, -0.746184, 11.7942, 19.9801, 13.0653, 92.1255, -103.572
1.86513, -1, -1.02607, 11.6516, 20.0363, 13.069, 91.9766, -103.95
1.87119, -1, -1.11948, 11.6041, 20.055, 13.0703, 91.9268, -104.076
1.88055, -1, -1.39996, 11.4615, 20.1113, 13.0741, 91.7779, -104.453
1.88709, -1, -1.49339, 11.4139, 20.13, 13.0753, 91.7284, -104.579
1.89512, -1, -1.68001, 11.3188, 20.1674, 13.0779, 91.6291, -104.83
1.90471, -1, -1.95918, 11.1762, 20.2236, 13.0818, 91.4803, -105.208
1.91345, -1, -2.14456, 11.0813, 20.261, 13.0845, 91.3812, -105.459
1.91915, -1, -2.23705, 11.0339, 20.2797, 13.0858, 91.3316, -105.584
1.92873, -1, -2.51417, 10.8916, 20.3358, 13.0898, 91.1829, -105.961
1.93753, -1, -2.60629, 10.8443, 20.3544, 13.0925, 91.0838, -106.212
1.94315, -1, -2.79016, 10.7495, 20.3916, 13.0938, 91.0343, -106.337
1.95212, -1, -2.97406, 10.6548, 20.429, 13.0964, 90.9352, -106.588
1.96007, -1, -3.15814, 10.5601, 20.4664, 13.099, 90.8366, -106.838
1.9672, -1, -3.34247, 10.4655, 20.5036, 13.1016, 90.7375, -107.089
1.97507, -1, -3.52713, 10.3711, 20.5409, 13.1041, 90.6386, -107.339
1.98315, -1, -3.71186, 10.2768, 20.5781, 13.1067, 90.5399, -107.589
1.99107, -1, -3.89696, 10.1824, 20.6153, 13.1091, 90.4409, -107.839
1.99913, -1, -4.08232, 10.0881, 20.6526, 13.1115, 90.3423, -108.089
2.00715, -1, -4.26787, 9.99379, 20.6898, 13.1139, 90.2439, -108.339
2.01508, -1, -4.45351, 9.89942, 20.7269, 13.1162, 90.1451, -108.589
2.02336, -1, -4.63882, 9.80506, 20.7642, 13.1186, 90.0466, -108.838
2.03107, -1, -4.82377, 9.71088, 20.8014, 13.1209, 89.9483, -109.088
2.03907, -1, -5.0083, 9.61676, 20.8384, 13.1233, 89.8496, -109.337
2.0481, -1, -5.19203, 9.52271, 20.8756, 13.1256, 89.7512, -109.587
2.05613, -1, -5.3753, 9.42869, 20.9127, 13.1279, 89.653, -109.836
2.06307, -1, -5.55829, 9.33476, 20.9497, 13.1303, 89.5545, -110.085
2.07208, -1, -5.74079, 9.24086, 20.9869, 13.1326, 89.4563, -110.333
2.08015, -1, -5.92312, 9.14698, 21.0239, 13.1349, 89.3583, -110.582
2.08807, -1, -6.10554, 9.05315, 21.0608, 13.1371, 89.2601, -110.831
2.09586, -1, -6.28829, 8.95936, 21.0979, 13.1393, 89.1621, -111.079
2.10416, -1, -6.47122, 8.86575, 21.1349, 13.1415, 89.0644, -111.327
2.11109, -1, -6.65435, 8.7721, 21.1716, 13.1437, 88.9663, -111.576
2.11989, -1, -6.83795, 8.6785, 21.2086, 13.1458, 88.8683, -111.824
2.12813, -1, -7.02184, 8.5849, 21.2455, 13.1479, 88.7706, -112.072
2.13509, -1, -7.20604, 8.49133, 21.2823, 13.15, 88.6727, -112.319
2.14408, -1, -7.39026, 8.39767, 21.3193, 13.1521, 88.5748, -112.567
2.15223, -1, -7.57405, 8.30403, 21.3561, 13.1543, 88.4774, -112.815
2.15917, -1, -7.75759, 8.21057, 21.3928, 13.1565, 88.3797, -113.062
2.16798, -1, -7.9407, 8.11716, 21.4297, 13.1587, 88.2823, -113.309
2.17614, -1, -8.12321, 8.02382, 21.4665, 13.161, 88.1851, -113.556
2.18317, -1, -8.30505, 7.93058, 21.5032, 13.1632, 88.0876, -113.803
2.19203, -1, -8.48647, 7.8373, 21.5401, 13.1654, 87.9902, -114.05
2.20013, -1, -8.66739, 7.74413, 21.5769, 13.1677, 87.8929, -114.297
2.20711, -1, -8.84809, 7.65094, 21.6137, 13.17, 87.7954, -114.543
2.21614, -1, -9.02884, 7.55784, 21.6504, 13.1722, 87.698, -114.79
2.22321, -1, -9.20989, 7.46487, 21.6872, 13.1745, 87.6009, -115.036
2.23155, -1, -9.39118, 7.37204, 21.7238, 13.1767, 87.5037, -115.283
2.24016, -1, -9.57279, 7.2792, 21.7605, 13.1789, 87.4066, -115.529
2.24734, -1, -9.75473, 7.1864, 21.7972, 13.1811, 87.3095, -115.775
2.25556, -1, -9.93717, 7.09368, 21.8337, 13.1833, 87.2123, -116.021
2.26492, -1, -10.1197, 7.0009, 21.8703, 13.1856, 87.1151, -116.267
2.27225, -1, -10.3024, 6.90811, 21.9069, 13.1878, 87.018, -116.512
2.27978, -1, -10.4849, 6.81532, 21.9435, 13.1899, 86.9208, -116.758
2.28896, -1, -10.6672, 6.72258, 21.9801, 13.1923, 86.8237, -117.003
2.29617, -1, -10.849, 6.62998, 22.0165, 13.1946, 86.7269, -117.249
2.30376, -1, -11.0302, 6.53738, 22.0529, 13.1971, 86.6299, -117.494
2.31303, -1, -11.2107, 6.44488, 22.0895, 13.1994, 86.5333, -117.739
2.32007, -1, -11.3906, 6.35241, 22.126, 13.2019, 86.4368, -117.984
2.32713, -1, -11.4804, 6.3062, 22.1442, 13.2031, 86.3883, -118.106
2.33701, -1, -11.7495, 6.16759, 22.199, 13.2067, 86.2433, -118.473
2.34412, -1, -11.9288, 6.07529, 22.2355, 13.2092, 86.1468, -118.718
2.35111, -1, -12.0184, 6.02917, 22.2537, 13.2105, 86.0984, -118.84
2.36118, -1, -12.2875, 5.89101, 22.3083, 13.2141, 85.9537, -119.206
2.36711, -1, -12.3774, 5.845, 22.3266, 13.2154, 85.9056, -119.328
2.37651, -1, -12.6477, 5.70697, 22.3809, 13.2191, 85.761, -119.694
2.38446, -1, -12.8284, 5.615, 22.4173, 13.2216, 85.6649, -119.938
2.39259, -1, -13.0093, 5.52312, 22.4536, 13.224, 85.5691, -120.182
2.4007, -1, -13.1906, 5.43106, 22.4898, 13.2265, 85.473, -120.425
2.41112, -1, -13.3718, 5.33906, 22.5261, 13.2289, 85.3771, -120.669
2.41671, -1, -13.5526, 5.24716, 22.5624, 13.2314, 85.2815, -120.912
2.42469, -1, -13.733, 5.15528, 22.5985, 13.2339, 85.1856, -121.155
2.43355, -1, -13.913, 5.06341, 22.6347, 13.2365, 85.0898, -121.398
2.43906, -1, -14.0026, 5.01754, 22.6528, 13.2378, 85.0422, -121.52
2.44907, -1, -14.2704, 4.88001, 22.7069, 13.2416, 84.8986, -121.884
2.45505, -1, -14.3595, 4.83419, 22.725, 13.2429, 84.8509, -122.006
2.46406, -1, -14.5374, 4.74259, 22.7612, 13.2455, 84.7554, -122.248
2.47213, -1, -14.7151, 4.65099, 22.7975, 13.248, 84.6598, -122.49
2.4801, -1, -14.8928, 4.55951, 22.8335, 13.2504, 84.564, -122.733
2.48709, -1, -15.0705, 4.46809, 22.8697, 13.2529, 84.4684, -122.975
2.49519, -1, -15.2485, 4.37682, 22.9058, 13.2553, 84.3727, -123.217
2.5031, -1, -15.4269, 4.28551, 22.9418, 13.2576, 84.277, -123.459
2.51107, -1, -15.6058, 4.19427, 22.9779, 13.26, 84.1815, -123.701
2.51912, -1, -15.785, 4.10303, 23.0139, 13.2624, 84.086, -123.942
2.52706, -1, -15.9643, 4.01177, 23.0498, 13.2646, 83.9905, -124.184
2.53506, -1, -16.1439, 3.92048, 23.0858, 13.2667, 83.8951, -124.425
2.54405, -1, -16.3237, 3.82923, 23.1219, 13.2688, 83.7997, -124.667
2.55219, -1, -16.5031, 3.73804, 23.1577, 13.271, 83.7043, -124.908
2.56166, -1, -16.6821, 3.6469, 23.1935, 13.2732, 83.5613, -125.27
2.56812, -1, -16.8605, 3.55581, 23.2294, 13.2755, 83.5135, -125.391
2.57605, -1, -17.038, 3.46478, 23.2652, 13.2777, 83.4181, -125.631
2.58405, -1, -17.2148, 3.37385, 23.301, 13.2799, 83.3228, -125.872
2.59221, -1, -17.3913, 3.28297, 23.3369, 13.2821, 83.2279, -126.113
2.60005, -1, -17.5676, 3.19212, 23.3726, 13.2842, 83.1327, -126.353
2.60714, -1, -17.7437, 3.10149, 23.4085, 13.2864, 83.0379, -126.593
2.61507, -1, -17.9197, 3.01088, 23.4445, 13.2884, 82.9432, -126.833
2.62305, -1, -18.096, 2.92041, 23.4802, 13.2906, 82.8482, -127.074
2.63212, -1, -18.2725, 2.83004, 23.5159, 13.2927, 82.7535, -127.314
2.63908, -1, -18.4495, 2.73963, 23.5517, 13.2948, 82.659, -127.554
2.64712, -1, -18.6269, 2.64924, 23.5873, 13.2968, 82.5642, -127.793
2.65523, -1, -18.8046, 2.55887, 23.623, 13.2989, 82.4696, -128.033
2.66315, -1, -18.9828, 2.4684, 23.6587, 13.3008, 82.3753, -128.272
2.67119, -1, -19.161, 2.37792, 23.6943, 13.3028, 82.2807, -128.512
2.67928, -1, -19.3391, 2.28756, 23.7298, 13.3048, 82.1865, -128.751
2.68716, -1, -19.5168, 2.19713, 23.7655, 13.3069, 82.0927, -128.99
2.69505, -1, -19.6938, 2.10673, 23.8009, 13.3091, 81.9984, -129.229
2.70322, -1, -19.8703, 2.01647, 23.8363, 13.3113, 81.9042, -129.468
2.71109, -1, -20.0461, 1.92622, 23.8719, 13.3134, 81.8103, -129.707
2.71923, -1, -20.2212, 1.83603, 23.9075, 13.3156, 81.7161, -129.945
2.7273, -1, -20.3961, 1.74592, 23.9429, 13.3178, 81.622, -130.184
2.73524, -1, -20.5707, 1.65589, 23.9785, 13.3201, 81.5283, -130.422
2.74365, -1, -20.7452, 1.56593, 24.014, 13.3222, 81.4342, -130.66
2.75153, -1, -20.9199, 1.47607, 24.0493, 13.3244, 81.3405, -130.898
2.76014, -1, -21.0949, 1.38635, 24.0849, 13.3266, 81.2469, -131.136
2.76761, -1, -21.2703, 1.29658, 24.1203, 13.3288, 81.153, -131.374
2.77621, -1, -21.446, 1.20688, 24.1556, 13.3309, 81.0591, -131.612
2.78362, -1, -21.622, 1.11725, 24.191, 13.3331, 80.9653, -131.85
2.79252, -1, -21.7982, 1.02759, 24.2265, 13.3352, 80.8715, -132.087
2.79965, -1, -21.9746, 0.937954, 24.2618, 13.3374, 80.7777, -132.324
2.80815, -1, -22.1513, 0.848381, 24.2972, 13.3396, 80.6841, -132.561
2.81661, -1, -22.2395, 0.803598, 24.3149, 13.3418, 80.5904, -132.799
2.82306, -1, -22.4158, 0.71412, 24.3501, 13.3429, 80.5436, -132.917
2.83217, -1, -22.6793, 0.579889, 24.4029, 13.3464, 80.4033, -133.272
2.83911, -1, -22.7669, 0.535175, 24.4206, 13.3476, 80.3567, -133.391
2.84707, -1, -22.9413, 0.445797, 24.4558, 13.35, 80.2628, -133.627
2.8562, -1, -23.2018, 0.311741, 24.5084, 13.3537, 80.1226, -133.983
2.86308, -1, -23.2885, 0.267091, 24.526, 13.3549, 80.076, -134.101
2.87246, -1, -23.5482, 0.133244, 24.5788, 13.3586, 79.9358, -134.455
2.87904, -1, -23.6348, 0.0886678, 24.5964, 13.3597, 79.8891, -134.574
2.88925, -1, -23.8949, -0.0449625, 24.6491, 13.3634, 79.7495, -134.928
2.89508, -1, -23.9816, -0.0894271, 24.6666, 13.3646, 79.7028, -135.046
2.90458, -1, -24.2423, -0.22291, 24.7191, 13.3682, 79.5631, -135.399
2.91355, -1, -24.4164, -0.311836, 24.7543, 13.3707, 79.4702, -135.635
2.91906, -1, -24.5036, -0.356246, 24.7718, 13.3719, 79.4236, -135.753
2.92869, -1, -24.7657, -0.48955, 24.8243, 13.3755, 79.2839, -136.106
2.93745, -1, -24.8532, -0.533996, 24.8594, 13.3779, 79.1911, -136.342
2.94308, -1, -25.0282, -0.622839, 24.877, 13.3791, 79.1445, -136.459
2.95265, -1, -25.2032, -0.711638, 24.912, 13.3815, 79.0516, -136.694
2.96004, -1, -25.3777, -0.800377, 24.9469, 13.3838, 78.9589, -136.929
2.96706, -1, -25.5518, -0.889199, 24.982, 13.3863, 78.8663, -137.165
2.97504, -1, -25.7254, -0.977918, 25.0168, 13.3888, 78.7734, -137.4
2.98404, -1, -25.8982, -1.0666, 25.0516, 13.3912, 78.6809, -137.634
2.99111, -1, -26.0706, -1.15529, 25.0866, 13.3936, 78.5888, -137.868
2.99909, -1, -26.2428, -1.24393, 25.1215, 13.396, 78.496, -138.103
3.00708, -1, -26.4146, -1.33243, 25.1562, 13.3984, 78.4034, -138.338
3.01507, -1, -26.5864, -1.42083, 25.1911, 13.4006, 78.3111, -138.572
3.02404, -1, -26.7584, -1.50918, 25.226, 13.4029, 78.2185, -138.806
3.03213, -1, -26.9307, -1.59738, 25.2609, 13.4051, 78.126, -139.04
3.03906, -1, -27.1031, -1.68557, 25.2956, 13.4073, 78.034, -139.274
3.04804, -1, -27.2757, -1.7738, 25.3305, 13.4095, 77.9417, -139.508
3.0561, -1, -27.4485, -1.86184, 25.3653, 13.4117, 77.8497, -139.742
3.06407, -1, -27.6218, -1.94996, 25.4, 13.4137, 77.7577, -139.975
3.0721, -1, -27.795, -2.03816, 25.4349, 13.4158, 77.6657, -140.208
3.08008, -1, -27.9684, -2.12616, 25.4697, 13.4179, 77.5736, -140.442
3.08909, -1, -28.1416, -2.21419, 25.5044, 13.4199, 77.4817, -140.675
3.09606, -1, -28.3147, -2.30219, 25.5393, 13.422, 77.3896, -140.908
3.1041, -1, -28.4875, -2.39026, 25.574, 13.4241, 77.2975, -141.141
3.11112, -1, -28.6598, -2.47821, 25.6086, 13.4262, 77.2054, -141.374
3.11907, -1, -28.8315, -2.56624, 25.6433, 13.4283, 77.1135, -141.607
3.12704, -1, -29.0025, -2.65421, 25.678, 13.4305, 77.0215, -141.84
3.13604, -1, -29.1731, -2.7421, 25.7125, 13.4327, 76.9296, -142.072
3.14411, -1, -29.3437, -2.8299, 25.7472, 13.4347, 76.838, -142.305
3.15111, -1, -29.5143, -2.91764, 25.7819, 13.4368, 76.746, -142.537
3.15995, -1, -29.6852, -3.00523, 25.8164, 13.4388, 76.6541, -142.769
3.16812, -1, -29.8563, -3.09274, 25.851, 13.4408, 76.5625, -143.002
3.17519, -1, -30.0273, -3.18021, 25.8856, 13.4429, 76.4705, -143.234
3.18431, -1, -30.1983, -3.26771, 25.9202, 13.445, 76.3789, -143.466
3.19123, -1, -30.3694, -3.35515, 25.9547, 13.4471, 76.2874, -143.698
3.19917, -1, -30.541, -3.44258, 25.9893, 13.4492, 76.1957, -143.93
3.20889, -1, -30.7128, -3.5301, 26.0238, 13.4512, 76.1043, -144.161
3.21603, -1, -30.8846, -3.61742, 26.0583, 13.4532, 76.0129, -144.392
3.22412, -1, -31.0564, -3.70483, 26.093, 13.4552, 75.9215, -144.624
3.23199, -1, -31.2281, -3.79216, 26.1274, 13.4573, 75.8301, -144.855
3.24005, -1, -31.3995, -3.8795, 26.1618, 13.4593, 75.7389, -145.087
3.2481, -1, -31.5702, -3.96678, 26.1963, 13.4615, 75.6476, -145.318
3.25616, -1, -31.7407, -4.05404, 26.2307, 13.4636, 75.5563, -145.548
3.26407, -1, -31.9107, -4.14132, 26.2651, 13.4658, 75.4652, -145.779
3.2722, -1, -32.0803, -4.22852, 26.2995, 13.468, 75.3743, -146.01
3.28034, -1, -32.2497, -4.31562, 26.3339, 13.4702, 75.283, -146.241
3.28764, -1, -32.4192, -4.40268, 26.3681, 13.4723, 75.1921, -146.472
3.29628, -1, -32.5889, -4.48964, 26.4024, 13.4745, 75.1015, -146.702
3.30437, -1, -32.7586, -4.57649, 26.4369, 13.4766, 75.0104, -146.933
3.31168, -1, -32.9282, -4.66344, 26.4711, 13.4788, 74.9196, -147.163
3.32021, -1, -33.0979, -4.75037, 26.5053, 13.481, 74.8292, -147.393
3.32705, -1, -33.1828, -4.79379, 26.5224, 13.4821, 74.7839, -147.508
3.33508, -1, -33.3527, -4.88063, 26.5568, 13.4844, 74.6931, -147.738
3.34415, -1, -33.6081, -5.01102, 26.6081, 13.4876, 74.5573, -148.083
3.35105, -1, -33.6933, -5.05442, 26.6253, 13.4888, 74.5121, -148.198
3.36026, -1, -33.9487, -5.18459, 26.6767, 13.492, 74.3762, -148.543
3.36702, -1, -34.0339, -5.22794, 26.6937, 13.4932, 74.3309, -148.658
3.37718, -1, -34.289, -5.358, 26.745, 13.4965, 74.1953, -149.001
3.38456, -1, -34.4589, -5.44466, 26.7793, 13.4989, 74.1046, -149.231
3.39254, -1, -34.6284, -5.53134, 26.8134, 13.5013, 74.014, -149.46
3.40126, -1, -34.7974, -5.61797, 26.8475, 13.5036, 73.9236, -149.689
3.40704, -1, -34.8817, -5.66127, 26.8646, 13.5049, 73.8782, -149.804
3.4166, -1, -35.1343, -5.79108, 26.9158, 13.5085, 73.7425, -150.147
3.42534, -1, -35.3026, -5.87752, 26.9498, 13.511, 73.6523, -150.376
3.43268, -1, -35.4711, -5.96379, 26.984, 13.5134, 73.5619, -150.605
3.44067, -1, -35.5554, -6.0069, 27.0011, 13.5145, 73.4715, -150.834
3.44946, -1, -35.7239, -6.09314, 27.035, 13.5181, 73.3814, -151.063
3.45506, -1, -35.8925, -6.17931, 27.0691, 13.5193, 73.3362, -151.177
3.46506, -1, -36.1452, -6.30851, 27.1202, 13.5229, 73.2005, -151.52
3.47102, -1, -36.2295, -6.35158, 27.1372, 13.5241, 73.1553, -151.634
3.48002, -1, -36.3982, -6.4378, 27.1711, 13.5265, 73.0651, -151.863
3.48802, -1, -36.567, -6.52404, 27.2051, 13.5289, 72.9746, -152.091
3.49608, -1, -36.7359, -6.61021, 27.2391, 13.5311, 72.8844, -152.319
3.50305, -1, -36.9048, -6.69641, 27.273, 13.5333, 72.7943, -152.547
3.51208, -1, -37.0738, -6.78259, 27.307, 13.5356, 72.7041, -152.775
3.5201, -1, -37.2426, -6.86869, 27.3409, 13.5379, 72.6142, -153.003
3.52702, -1, -37.4111, -6.95472, 27.3748, 13.5401, 72.5244, -153.23
3.53602, -1, -37.5792, -7.04079, 27.4088, 13.5424, 72.4345, -153.458
3.54409, -1, -37.7469, -7.12679, 27.4428, 13.5446, 72.3446, -153.685
3.55104, -1, -37.9145, -7.21275, 27.4766, 13.5469, 72.2548, -153.913
3.56002, -1, -38.0821, -7.29868, 27.5105, 13.549, 72.1651, -154.141
3.5681, -1, -38.2495, -7.38453, 27.5445, 13.5513, 72.0752, -154.368
3.57502, -1, -38.4169, -7.47027, 27.5783, 13.5534, 71.9856, -154.595
3.58402, -1, -38.584, -7.55594, 27.6122, 13.5555, 71.8962, -154.822
3.59214, -1, -38.7513, -7.64167, 27.6461, 13.5576, 71.8064, -155.05
3.60004, -1, -38.9186, -7.72736, 27.6798, 13.5596, 71.717, -155.277
3.6071, -1, -39.0859, -7.81292, 27.7135, 13.5617, 71.6279, -155.503
3.61502, -1, -39.2535, -7.89861, 27.7474, 13.5637, 71.5383, -155.73
3.62303, -1, -39.4211, -7.9843, 27.7812, 13.5656, 71.4491, -155.957
3.63209, -1, -39.5886, -8.06982, 27.8149, 13.5676, 71.3597, -156.184
3.63902, -1, -39.7563, -8.15537, 27.8486, 13.5696, 71.2704, -156.41
3.64706, -1, -39.924, -8.24085, 27.8824, 13.5715, 71.1811, -156.636
3.65603, -1, -40.0915, -8.32629, 27.9161, 13.5734, 71.0916, -156.863
3.66408, -1, -40.259, -8.41164, 27.9497, 13.5754, 71.0026, -157.089
3.67209, -1, -40.4261, -8.497, 27.9836, 13.5774, 70.913, -157.315
3.67955, -1, -40.5931, -8.58238, 28.0172, 13.5793, 70.8239, -157.541
3.68717, -1, -40.76, -8.66776, 28.0508, 13.5813, 70.7349, -157.767
3.69514, -1, -40.9266, -8.75311, 28.0846, 13.5834, 70.6457, -157.993
3.70384, -1, -41.0931, -8.8384, 28.1183, 13.5854, 70.5565, -158.219
3.71214, -1, -41.2593, -8.92365, 28.1518, 13.5874, 70.4676, -158.445
3.71905, -1, -41.4255, -9.0088, 28.1854, 13.5894, 70.3783, -158.671
3.72794, -1, -41.5917, -9.09395, 28.2191, 13.5913, 70.2891, -158.896
3.73608, -1, -41.758, -9.17906, 28.2526, 13.5934, 70.2, -159.122
3.74402, -1, -41.9244, -9.26415, 28.2862, 13.5954, 70.111, -159.347
3.75227, -1, -42.0908, -9.34919, 28.3199, 13.5974, 70.022, -159.573
3.75934, -1, -42.2571, -9.43429, 28.3534, 13.5995, 69.933, -159.798
3.76745, -1, -42.4234, -9.51932, 28.3869, 13.6014, 69.8443, -160.023
3.77629, -1, -42.5897, -9.60426, 28.4205, 13.6035, 69.7552, -160.248
3.78392, -1, -42.7561, -9.68919, 28.454, 13.6055, 69.6663, -160.473
3.79219, -1, -42.9225, -9.77415, 28.4873, 13.6076, 69.5777, -160.699
3.79958, -1, -43.0889, -9.85905, 28.5208, 13.6096, 69.4887, -160.923
3.80847, -1, -43.255, -9.94396, 28.5543, 13.6117, 69.4, -161.148
3.81564, -1, -43.3381, -10.0289, 28.5878, 13.6137, 69.3114, -161.373
3.82419, -1, -43.5872, -10.1138, 28.6213, 13.6158, 69.2227, -161.598
3.83103, -1, -43.6701, -10.1564, 28.638, 13.6169, 69.1784, -161.71
3.84007, -1, -43.9189, -10.2836, 28.6881, 13.6201, 69.0457, -162.047
3.84705, -1, -44.0017, -10.326, 28.7048, 13.6212, 69.0016, -162.159
3.85677, -1, -44.2498, -10.4531, 28.755, 13.6244, 68.8686, -162.495
3.86418, -1, -44.415, -10.5376, 28.7884, 13.6266, 68.78, -162.72
3.87101, -1, -44.4976, -10.5799, 28.8051, 13.6277, 68.7358, -162.832
3.8811, -1, -44.7454, -10.7066, 28.8551, 13.6309, 68.6028, -163.168
3.88706, -1, -44.828, -10.7488, 28.8719, 13.632, 68.5586, -163.28
3.89652, -1, -45.0761, -10.8755, 28.922, 13.6353, 68.426, -163.616
3.90468, -1, -45.2413, -10.96, 28.9553, 13.6375, 68.3375, -163.84
3.91255, -1, -45.4066, -11.0445, 28.9888, 13.6398, 68.2491, -164.064
3.92064, -1, -45.5718, -11.1289, 29.022, 13.6421, 68.1609, -164.288
3.92883, -1, -45.7371, -11.2133, 29.0552, 13.6444, 68.0726, -164.512
3.93691, -1, -45.9021, -11.2976, 29.0886, 13.6467, 67.9843, -164.735
3.94302, -1, -45.984, -11.3394, 29.1054, 13.6478, 67.94, -164.847
3.95262, -1, -46.1455, -11.4217, 29.1388, 13.6501, 67.8082, -165.181
3.96092, -1, -46.3788, -11.5393, 29.1892, 13.6537, 67.7215, -165.4
3.96815, -1, -46.453, -11.5762, 29.2059, 13.6548, 67.6793, -165.507
3.97604, -1, -46.5943, -11.6462, 29.2382, 13.6571, 67.5977, -165.713
3.98425, -1, -46.724, -11.7097, 29.2682, 13.6593, 67.523, -165.903
3.99101, -1, -46.8393, -11.7659, 29.2946, 13.6613, 67.4558, -166.072
4.00001, -1, -46.9383, -11.8152, 29.3168, 13.663, 67.3999, -166.215
4.00805, -1, -47.021, -11.8582, 29.3335, 13.6643, 67.3549, -166.328
4.01606, -1, -47.0884, -11.8951, 29.3448, 13.6651, 67.3212, -166.413
4.02401, -1, -47.141, -11.9246, 29.352, 13.6655, 67.2978, -166.472
4.03201, -1, -47.18, -11.9469, 29.356, 13.6658, 67.2826, -166.51
4.04005, -1, -47.2078, -11.9624, 29.3579, 13.6658, 67.2737, -166.533
4.04803, -1, -47.2261, -11.9725, 29.3587, 13.6659, 67.2689, -166.545
4.05601, -1, -47.237, -11.9784, 29.3591, 13.666, 67.2665, -166.551
4.06407, -1, -47.2427, -11.9814, 29.3593, 13.666, 67.2654, -166.554
4.072, 2, -47.2449, -11.9827, 29.3595, 13.666, 67.2648, -166.555
4.08, 2, -47.245, -11.9833, 29.3595, 13.6661, 67.2646, -166.555
4.08809, 2, -47.2449, -11.9835, 29.3596, 13.6661, 67.2645, -166.556
4.09705, 2, -47.2448, -11.9836, 29.3596, 13.666, 67.2645, -166.556
4.10408, 2, -47.2452, -11.9837, 29.3596, 13.6661, 67.2644, -166.556
4.11101, 2, -47.2462, -11.984, 29.3597, 13.6662, 67.2644, -166.556
4.12004, 2, -47.2474, -11.9845, 29.3597, 13.6661, 67.2644, -166.556
4.12806, 2, -47.2493, -11.9853, 29.3596, 13.6661, 67.2644, -166.556
4.13607, 2, -47.2509, -11.9861, 29.3596, 13.6661, 67.2644, -166.556
4.144, 2, -47.2523, -11.987, 29.3596, 13.6661, 67.2644, -166.556
4.15201, 2, -47.2532, -11.9876, 29.3597, 13.6661, 67.2644, -166.556
4.15909, 2, -47.2537, -11.988, 29.3597, 13.6661, 67.2645, -166.556
4.16712, 2, -47.2539, -11.9882, 29.3597, 13.6661, 67.2644, -166.556
4.17517, 2, -47.254, -11.9883, 29.3597, 13.6661, 67.2644, -166.556
4.18315, 2, -47.2536, -11.9883, 29.3597, 13.6661, 67.2644, -166.556
4.19115, 2, -47.2532, -11.9882, 29.3597, 13.6661, 67.2645, -166.556
4.19918, 2, -47.2527, -11.9882, 29.3597, 13.6661, 67.2645, -166.556
4.207, 2, -47.2524, -11.9882, 29.3597, 13.6661, 67.2644, -166.556
4.21504, 2, -47.2522, -11.9882, 29.3597, 13.6661, 67.2644, -166.556
4.22317, 2, -47.2522, -11.9883, 29.3597, 13.6661, 67.2645, -166.556
4.23115, 2, -47.2523, -11.9885, 29.3597, 13.6661, 67.2644, -166.556
4.23918, 2, -47.2525, -11.9888, 29.3597, 13.6661, 67.2645, -166.556
4.24736, 2, -47.2531, -11.9891, 29.3597, 13.6661, 67.2645, -166.556
4.25528, 2, -47.2537, -11.9894, 29.3597, 13.6661, 67.2645, -166.556
4.26336, 2, -47.254, -11.9896, 29.3597, 13.666, 67.2645, -166.556
4.27154, 2, -47.2541, -11.9897, 29.3597, 13.6661, 67.2645, -166.556
4.28014, 2, -47.2541, -11.9897, 29.3597, 13.6661, 67.2645, -166.556
4.28756, 2, -47.254, -11.9897, 29.3597, 13.6661, 67.2645, -166.556
4.29613, 2, -47.2538, -11.9896, 29.3597, 13.6661, 67.2645, -166.556
4.30359, 2, -47.2534, -11.9896, 29.3597, 13.6661, 67.2645, -166.556
4.31211, 2, -47.253, -11.9895, 29.3597, 13.6661, 67.2645, -166.556
4.3197, 2, -47.2529, -11.9895, 29.3597, 13.6661, 67.2645, -166.556
4.32819, 2, -47.2526, -11.9896, 29.3597, 13.666, 67.2645, -166.556
4.33501, 2, -47.2525, -11.9896, 29.3597, 13.666, 67.2645, -166.556
4.34405, 2, -47.2525, -11.9897, 29.3597, 13.666, 67.2645, -166.556
4.35103, 2, -47.2525, -11.9897, 29.3597, 13.6661, 67.2645, -166.556
4.36014, 2, -47.2525, -11.9897, 29.3597, 13.666, 67.2644, -166.556
4.36705, 2, -47.2524, -11.9898, 29.3597, 13.666, 67.2644, -166.556
4.37632, 2, -47.2525, -11.9898, 29.3597, 13.666, 67.2644, -166.556
4.38301, 2, -47.2524, -11.9898, 29.3597, 13.666, 67.2644, -166.556
4.39242, 2, -47.2524, -11.9898, 29.3597, 13.666, 67.2645, -166.556
4.40049, 2, -47.2524, -11.9897, 29.3597, 13.666, 67.2645, -166.556
4.40854, 2, -47.2523, -11.9896, 29.3597, 13.666, 67.2645, -166.556
4.41663, 2, -47.2521, -11.9896, 29.3597, 13.666, 67.2645, -166.556
4.42458, 2, -47.252, -11.9895, 29.3597, 13.666, 67.2645, -166.556
4.43259, 2, -47.2519, -11.9895, 29.3597, 13.666, 67.2645, -166.555
4.44065, 2, -47.2519, -11.9895, 29.3597, 13.666, 67.2645, -166.555
4.44872, 2, -47.2518, -11.9895, 29.3597, 13.666, 67.2645, -166.555
4.45657, 2, -47.2517, -11.9896, 29.3597, 13.666, 67.2645, -166.555
4.46402, 2, -47.2517, -11.9896, 29.3597, 13.6661, 67.2645, -166.555
4.47204, 2, -47.2516, -11.9896, 29.3597, 13.6661, 67.2645, -166.555
4.47999, 2, -47.2516, -11.9896, 29.3597, 13.666, 67.2645, -166.556
4.48801, 2, -47.2515, -11.9896, 29.3597, 13.666, 67.2645, -166.555
4.49606, 2, -47.2514, -11.9895, 29.3597, 13.666, 67.2645, -166.555
4.50397, 2, -47.2514, -11.9895, 29.3597, 13.666, 67.2645, -166.555
4.51201, 2, -47.2513, -11.9895, 29.3597, 13.666, 67.2646, -166.555
4.52004, 2, -47.2512, -11.9894, 29.3597, 13.666, 67.2646, -166.556
4.52801, 2, -47.2511, -11.9893, 29.3597, 13.666, 67.2646, -166.555
4.53599, 2, -47.2509, -11.9893, 29.3597, 13.666, 67.2646, -166.555
4.54404, 2, -47.2508, -11.9893, 29.3597, 13.666, 67.2646, -166.555
4.55199, 2, -47.2507, -11.9893, 29.3597, 13.666, 67.2646, -166.555
4.55999, 2, -47.2506, -11.9893, 29.3597, 13.666, 67.2646, -166.555
4.56807, 2, -47.2506, -11.9893, 29.3597, 13.666, 67.2646, -166.555
4.57599, 2, -47.2504, -11.9893, 29.3597, 13.666, 67.2646, -166.555
4.58499, 2, -47.2503, -11.9893, 29.3597, 13.666, 67.2646, -166.555
4.59205, 2, -47.2502, -11.9893, 29.3597, 13.666, 67.2646, -166.555
4.59999, 2, -47.2501, -11.9893, 29.3597, 13.666, 67.2646, -166.555
4.60803, 2, -47.25, -11.9892, 29.3597, 13.666, 67.2646, -166.555
4.61605, 2, -47.2499, -11.9891, 29.3597, 13.6659, 67.2646, -166.555
4.62402, 2, -47.2498, -11.989, 29.3597, 13.6659, 67.2646, -166.555
4.63203, 2, -47.2497, -11.989, 29.3597, 13.6659, 67.2646, -166.555
4.639, 2, -47.2496, -11.9889, 29.3597, 13.6659, 67.2647, -166.555
4.64801, 2, -47.2495, -11.9889, 29.3597, 13.6659, 67.2647, -166.555
4.65599, 2, -47.2494, -11.9889, 29.3597, 13.6658, 67.2647, -166.555
4.66405, 2, -47.2493, -11.9889, 29.3597, 13.6659, 67.2647, -166.555
4.67198, 2, -47.2492, -11.9889, 29.3597, 13.6659, 67.2647, -166.555
4.67916, 2, -47.2492, -11.9889, 29.3597, 13.6659, 67.2647, -166.555
4.68713, 2, -47.2491, -11.9889, 29.3597, 13.6658, 67.2647, -166.555
4.69514, 2, -47.2491, -11.9889, 29.3597, 13.6658, 67.2647, -166.555
4.70319, 2, -47.249, -11.9889, 29.3597, 13.6658, 67.2647, -166.555
4.71101, 2, -47.249, -11.9888, 29.3597, 13.6658, 67.2647, -166.555
4.71902, 2, -47.249, -11.9888, 29.3597, 13.6659, 67.2647, -166.555
4.72711, 2, -47.2489, -11.9887, 29.3597, 13.6658, 67.2647, -166.555
4.73506, 2, -47.2488, -11.9886, 29.3597, 13.6658, 67.2647, -166.555
4.74315, 2, -47.2487, -11.9886, 29.3597, 13.6658, 67.2647, -166.555
4.75176, 2, -47.2486, -11.9885, 29.3597, 13.6658, 67.2647, -166.555
4.76006, 2, -47.2486, -11.9886, 29.3597, 13.6658, 67.2648, -166.555
4.76801, 2, -47.2485, -11.9886, 29.3597, 13.6658, 67.2648, -166.555
4.77605, 2, -47.2485, -11.9886, 29.3597, 13.6658, 67.2648, -166.555
4.78413, 2, -47.2485, -11.9885, 29.3597, 13.6658, 67.2648, -166.555
4.7915, 2, -47.2485, -11.9885, 29.3597, 13.6658, 67.2648, -166.555
4.80012, 2, -47.2484, -11.9885, 29.3597, 13.6657, 67.2647, -166.555
4.80754, 2, -47.2484, -11.9885, 29.3597, 13.6657, 67.2648, -166.555
4.81609, 2, -47.2484, -11.9884, 29.3597, 13.6657, 67.2648, -166.555
4.82385, 2, -47.2483, -11.9884, 29.3597, 13.6657, 67.2648, -166.554
4.83212, 2, -47.2482, -11.9883, 29.3597, 13.6657, 67.2648, -166.554
4.839, 2, -47.2482, -11.9882, 29.3597, 13.6657, 67.2648, -166.554
4.84823, 2, -47.2481, -11.9882, 29.3597, 13.6656, 67.2648, -166.554
4.85502, 2, -47.2481, -11.9882, 29.3597, 13.6656, 67.2648, -166.554
4.86408, 2, -47.2479, -11.9881, 29.3597, 13.6657, 67.2648, -166.554
4.87103, 2, -47.2479, -11.9881, 29.3597, 13.6657, 67.2648, -166.554
4.88034, 2, -47.2479, -11.9881, 29.3597, 13.6657, 67.2648, -166.554
4.88698, 2, -47.2479, -11.9881, 29.3597, 13.6656, 67.2648, -166.554
4.89686, 2, -47.2479, -11.9881, 29.3597, 13.6656, 67.2648, -166.554
4.90448, 2, -47.2479, -11.9881, 29.3597, 13.6656, 67.2648, -166.554
4.91256, 2, -47.2478, -11.9881, 29.3597, 13.6656, 67.2649, -166.554
4.92072, 2, -47.2478, -11.988, 29.3597, 13.6656, 67.2649, -166.554
4.92857, 2, -47.2478, -11.9879, 29.3597, 13.6656, 67.2649, -166.554
4.93655, 2, -47.2477, -11.9879, 29.3597, 13.6655, 67.2649, -166.554
4.94491, 2, -47.2476, -11.9878, 29.3597, 13.6655, 67.2649, -166.554
4.95262, 2, -47.2475, -11.9878, 29.3597, 13.6655, 67.265, -166.554
4.96001, 2, -47.2474, -11.9878, 29.3597, 13.6656, 67.265, -166.554
4.96884, 2, -47.2473, -11.9877, 29.3597, 13.6656, 67.265, -166.554
4.97603, 2, -47.2473, -11.9877, 29.3597, 13.6656, 67.265, -166.554
4.98397, 2, -47.2473, -11.9877, 29.3597, 13.6655, 67.265, -166.554
4.99197, 2, -47.2472, -11.9877, 29.3597, 13.6655, 67.265, -166.554
4.99898, 2, -47.2472, -11.9877, 29.3597, 13.6655, 67.265, -166.554
5.00799, 2, -47.2472, -11.9877, 29.3597, 13.6655, 67.2651, -166.554
5.016, 2, -47.2472, -11.9877, 29.3597, 13.6655, 67.265, -166.554
5.02404, 2, -47.2472, -11.9877, 29.3597, 13.6655, 67.2651, -166.554
5.03197, 2, -47.2472, -11.9876, 29.3597, 13.6655, 67.2651, -166.554
5.03997, 2, -47.2471, -11.9875, 29.3597, 13.6654, 67.2651, -166.554
5.04698, 2, -47.2469, -11.9875, 29.3597, 13.6654, 67.2651, -166.554
5.05598, 2, -47.2469, -11.9874, 29.3597, 13.6654, 67.2651, -166.554
5.06397, 2, -47.2468, -11.9874, 29.3597, 13.6655, 67.2651, -166.554
5.07389, 2, -47.2467, -11.9874, 29.3597, 13.6653, 67.2651, -166.554
5.07994, 2, -47.2466, -11.9874, 29.3597, 13.6653, 67.2652, -166.554
5.08806, 2, -47.2466, -11.9874, 29.3597, 13.6653, 67.2652, -166.554
5.098, 2, -47.2466, -11.9874, 29.3597, 13.6653, 67.2651, -166.554
5.10306, 2, -47.2466, -11.9873, 29.3597, 13.6653, 67.2651, -166.554
5.11206, 2, -47.2466, -11.9873, 29.3597, 13.6653, 67.2652, -166.554
5.11898, 2, -47.2465, -11.9873, 29.3596, 13.6653, 67.2651, -166.554
5.12803, 2, -47.2465, -11.9873, 29.3597, 13.6653, 67.2651, -166.554
5.13607, 2, -47.2465, -11.9872, 29.3597, 13.6653, 67.2652, -166.554
5.14399, 2, -47.2464, -11.9872, 29.3597, 13.6652, 67.2652, -166.554
5.15198, 4, -47.2463, -11.9871, 29.3597, 13.6652, 67.2651, -166.554
5.16004, 4, -47.2462, -11.9871, 29.3597, 13.6652, 67.2652, -166.554
5.16799, 4, -47.2462, -11.9871, 29.3597, 13.6652, 67.2652, -166.554
5.17597, 4, -47.2461, -11.987, 29.3597, 13.6652, 67.2652, -166.554
5.18405, 4, -47.246, -11.987, 29.3597, 13.6653, 67.2652, -166.554
5.19197, 4, -47.246, -11.987, 29.3596, 13.6652, 67.2652, -166.554
5.19918, 4, -47.246, -11.987, 29.3597, 13.6652, 67.2652, -166.554
5.20698, 4, -47.246, -11.987, 29.3597, 13.6651, 67.2652, -166.554
5.21506, 4, -47.2459, -11.987, 29.3597, 13.6651, 67.2652, -166.553
5.22308, 4, -47.2459, -11.9869, 29.3597, 13.6651, 67.2652, -166.553
5.23103, 4, -47.2459, -11.9869, 29.3597, 13.6651, 67.2652, -166.554
5.23913, 4, -47.2458, -11.9869, 29.3597, 13.6651, 67.2652, -166.553
5.24755, 4, -47.2458, -11.9868, 29.3597, 13.6651, 67.2652, -166.553
5.2618, 4, -47.2457, -11.9868, 29.3597, 13.665, 67.2652, -166.553
5.26458, 4, -47.2456, -11.9868, 29.3597, 13.665, 67.2652, -166.553
5.27213, 4, -47.2456, -11.9867, 29.3596, 13.665, 67.2652, -166.553
5.28035, 4, -47.2455, -11.9867, 29.3596, 13.665, 67.2653, -166.553
5.28833, 4, -47.2455, -11.9867, 29.3596, 13.665, 67.2653, -166.553
5.29634, 4, -47.2454, -11.9867, 29.3596, 13.665, 67.2652, -166.553
5.30862, 4, -47.2454, -11.9867, 29.3596, 13.665, 67.2653, -166.553
5.31403, 4, -47.2454, -11.9867, 29.3596, 13.665, 67.2652, -166.553
5.32218, 4, -47.2453, -11.9866, 29.3597, 13.665, 67.2653, -166.553
5.3278, 4, -47.2453, -11.9866, 29.3597, 13.6649, 67.2653, -166.553
5.33974, 4, -47.2453, -11.9866, 29.3597, 13.6649, 67.2653, -166.553
5.34384, 4, -47.2453, -11.9866, 29.3596, 13.6649, 67.2654, -166.553
5.35299, 4, -47.2452, -11.9865, 29.3597, 13.6649, 67.2654, -166.553
5.35991, 4, -47.2452, -11.9865, 29.3597, 13.6649, 67.2653, -166.553
5.36851, 4, -47.2451, -11.9865, 29.3596, 13.6649, 67.2653, -166.553
5.38083, 4, -47.2451, -11.9864, 29.3596, 13.6649, 67.2653, -166.553
5.38318, 4, -47.2451, -11.9864, 29.3596, 13.6649, 67.2653, -166.553
5.39413, 4, -47.245, -11.9864, 29.3596, 13.6649, 67.2654, -166.553
5.40139, 4, -47.245, -11.9864, 29.3596, 13.6649, 67.2654, -166.553
5.40902, 4, -47.2452, -11.9865, 29.3597, 13.6649, 67.2653, -166.553
5.41514, 4, -47.2455, -11.9866, 29.3597, 13.665, 67.2654, -166.553
5.42499, 4, -47.2483, -11.9887, 29.3618, 13.6667, 67.266, -166.553
5.43379, 4, -47.2525, -11.9932, 29.3673, 13.6764, 67.2683, -166.552
5.43921, 4, -47.2556, -11.9971, 29.3724, 13.6865, 67.2708, -166.55
5.45115, 5, -47.2711, -12.0175, 29.4044, 13.7501, 67.2883, -166.536
5.45548, 5, -47.2791, -12.0283, 29.423, 13.7882, 67.2989, -166.528
5.46632, 5, -47.3158, -12.0772, 29.5137, 13.9776, 67.3523, -166.485
5.47291, 5, -47.333, -12.0997, 29.5583, 14.1846, 67.4092, -166.437
5.48083, 5, -47.3762, -12.1551, 29.6727, 14.3168, 67.4458, -166.407
5.48718, 5, -47.4321, -12.2253, 29.8233, 14.6435, 67.5353, -166.332
5.49618, 5, -47.5007, -12.3106, 30.0122, 15.0545, 67.646, -166.237
5.5059, 5, -47.5816, -12.4111, 30.2395, 15.8182, 67.8494, -166.063
5.51373, 5, -47.7242, -12.5873, 30.6436, 16.4077, 68.0044, -165.93
5.52312, 5, -47.8308, -12.7196, 30.9487, 17.0451, 68.169, -165.788
5.5298, 5, -47.9445, -12.8612, 31.2746, 17.7152, 68.3393, -165.64
5.53821, 5, -48.0629, -13.0097, 31.6156, 18.4026, 68.5108, -165.491
5.54414, 5, -48.1232, -13.0857, 31.7895, 18.7498, 68.5962, -165.417
5.55211, 5, -48.2439, -13.239, 32.1419, 19.4451, 68.765, -165.269
5.55912, 5, -48.3624, -13.3913, 32.4963, 20.1319, 68.9301, -165.121
5.57135, 5, -48.5276, -13.612, 33.0228, 21.1255, 69.1709, -164.886
5.57872, 6, -48.623, -13.749, 33.3615, 21.7457, 69.3292, -164.704
5.58424, 6, -48.6647, -13.8135, 33.5253, 22.0397, 69.4085, -164.601
5.59384, 7, -48.7334, -13.9352, 33.8385, 22.8495, 69.6512, -164.219
5.59924, 7, -48.7809, -14.048, 34.1321, 23.0942, 69.7347, -164.062
5.60884, 7, -48.8068, -14.1519, 34.405, 23.5493, 69.9076, -163.698
5.61612, 8, -48.8124, -14.2455, 34.6583, 23.966, 70.0914, -163.264
5.62511, 8, -48.7992, -14.3294, 34.8965, 24.3546, 70.2875, -162.761
5.633, 9, -48.7694, -14.4072, 35.1232, 24.726, 70.4971, -162.199
5.64022, 9, -48.7264, -14.4805, 35.3429, 25.0903, 70.719, -161.59
5.64815, 10, -48.6739, -14.549, 35.5606, 25.4538, 70.9512, -160.949
5.65611, 10, -48.6132, -14.6134, 35.7784, 25.8207, 71.1914, -160.288
5.66632, 11, -48.5454, -14.6759, 35.9976, 26.1922, 71.4365, -159.282
5.67496, 11, -48.4334, -14.77, 36.3298, 26.7594, 71.8076, -158.612
5.67923, 12, -48.3946, -14.8013, 36.44, 26.9513, 71.9317, -158.278
5.68814, 12, -48.3158, -14.8638, 36.6585, 27.3394, 72.1802, -157.611
5.69859, 13, -48.2351, -14.9259, 36.8745, 27.7328, 72.4292, -156.615
5.70422, 13, -48.1519, -14.988, 37.087, 28.1304, 72.6785, -156.285
5.71476, 16, -48.0659, -15.05, 37.2955, 28.5309, 73.0515, -155.294
5.7498, 16, -47.6356, -15.3212, 38.2, 30.335, 74.0246, -152.694
5.75322, 16, -47.5815, -15.3514, 38.2976, 30.5337, 74.1431, -152.374
5.75589, 17, -47.5261, -15.3817, 38.3942, 30.7319, 74.2608, -152.055
5.75933, 17, -47.4694, -15.4124, 38.49, 30.9297, 74.3776, -151.737
5.76125, 17, -47.4694, -15.4124, 38.49, 30.9297, 74.3776, -151.737
5.76451, 17, -47.4114, -15.4433, 38.5851, 31.1271, 74.4934, -151.42
5.77277, 19, -47.2918, -15.5056, 38.7735, 31.5204, 74.7225, -150.789
5.79681, 19, -46.9026, -15.7012, 39.3249, 32.6895, 75.3845, -148.937
5.79859, 19, -46.9026, -15.7012, 39.3249, 32.6895, 75.3845, -148.937
5.80125, 19, -46.8336, -15.7355, 39.4153, 32.8829, 75.4905, -148.634
5.80501, 20, -46.7633, -15.7703, 39.5054, 33.0757, 75.5953, -148.333
5.80807, 20, -46.6917, -15.8056, 39.5951, 33.2679, 75.6987, -148.034
5.81604, 20, -46.545, -15.8781, 39.7723, 33.6506, 75.9015, -147.443
5.83228, 21, -46.2375, -16.0313, 40.1207, 34.4087, 76.2898, -146.282
5.83428, 22, -46.2375, -16.0313, 40.1207, 34.4087, 76.2898, -146.282
5.84029, 22, -46.0759, -16.1118, 40.2924, 34.7834, 76.475, -145.714
5.84831, 22, -45.9087, -16.1943, 40.461, 35.1543, 76.6548, -145.152
5.85636, 23, -45.7352, -16.279, 40.6268, 35.5211, 76.8287, -144.596
5.86452, 23, -45.5551, -16.3657, 40.7902, 35.8835, 76.9972, -144.046
5.87385, 24, -45.3682, -16.4541, 40.9499, 36.2411, 77.1602, -143.502
5.88317, 25, -45.1746, -16.5437, 41.1051, 36.5929, 77.318, -142.962
5.89042, 25, -44.9743, -16.6345, 41.256, 36.9383, 77.4711, -142.425
5.89816, 26, -44.7675, -16.726, 41.4026, 37.2771, 77.6195, -141.892
5.90622, 26, -44.554, -16.8181, 41.544, 37.6088, 77.7634, -141.361
5.91329, 26, -44.3335, -16.9104, 41.6799, 37.9332, 77.9033, -140.834
5.92119, 27, -44.1062, -17.0022, 41.81, 38.2498, 78.0388, -140.307
5.9271, 27, -43.9901, -17.0478, 41.8728, 38.405, 78.1051, -140.044
5.93725, 28, -43.6322, -17.1834, 42.0518, 38.8586, 78.2988, -139.258
5.94478, 28, -43.3851, -17.2723, 42.1627, 39.1502, 78.4233, -138.735
5.95112, 29, -43.259, -17.3162, 42.2157, 39.2929, 78.4846, -138.474
5.95916, 29, -43.0017, -17.4027, 42.3163, 39.5721, 78.6045, -137.951
5.97121, 30, -42.602, -17.5292, 42.4537, 39.975, 78.7784, -137.168
5.97675, 30, -42.4643, -17.5703, 42.4959, 40.105, 78.8351, -136.908
5.98409, 31, -42.1824, -17.6506, 42.5748, 40.3587, 78.9457, -136.388
5.99429, 32, -41.745, -17.7664, 42.6801, 40.7232, 79.1072, -135.607
6.00015, 32, -41.5957, -17.8039, 42.7118, 40.8404, 79.1596, -135.347
6.00998, 32, -41.1379, -17.9126, 42.7966, 41.1797, 79.3129, -134.57
6.01515, 33, -40.9821, -17.9473, 42.8212, 41.2888, 79.363, -134.311
6.02373, 33, -40.6656, -18.0142, 42.8653, 41.501, 79.4609, -133.794
6.03517, 34, -40.1803, -18.1093, 42.9176, 41.8037, 79.6027, -133.021
6.04207, 34, -39.851, -18.1694, 42.9433, 41.9955, 79.6943, -132.506
6.0492, 35, -39.6843, -18.1982, 42.9535, 42.0886, 79.739, -132.25
6.05618, 35, -39.3461, -18.2531, 42.9688, 42.2693, 79.8265, -131.737
6.06556, 36, -39.001, -18.3047, 42.9769, 42.5256, 79.9539, -130.971
6.07508, 37, -38.4694, -18.3759, 42.9765, 42.6871, 80.0365, -130.461
6.08285, 37, -38.1072, -18.4191, 42.9677, 42.8409, 80.1165, -129.953
6.08713, 37, -37.924, -18.4393, 42.9607, 42.915, 80.1561, -129.7
6.09671, 38, -37.5535, -18.4771, 42.9417, 43.0578, 80.2331, -129.195
6.10409, 38, -37.1786, -18.5114, 42.9162, 43.1931, 80.3084, -128.691
6.11115, 39, -36.7991, -18.5425, 42.8838, 43.3209, 80.3809, -128.188
6.11928, 39, -36.4153, -18.5698, 42.8448, 43.4415, 80.452, -127.689
6.13085, 40, -36.026, -18.5933, 42.7739, 43.6087, 80.5548, -126.942
6.13519, 40, -35.6306, -18.6129, 42.747, 43.6609, 80.5885, -126.694
6.14424, 41, -35.2294, -18.6285, 42.6883, 43.7596, 80.6534, -126.199
6.15522, 42, -34.6183, -18.6454, 42.5882, 43.8945, 80.7479, -125.462
6.16023, 42, -34.4127, -18.6493, 42.5516, 43.9358, 80.7781, -125.217
6.17179, 43, -33.7912, -18.6563, 42.4324, 44.0494, 80.8665, -124.486
6.17518, 43, -33.5822, -18.657, 42.3897, 44.0835, 80.8953, -124.244
6.18656, 44, -32.9474, -18.6537, 42.2527, 44.1759, 80.978, -123.52
6.19218, 44, -32.7328, -18.6507, 42.2041, 44.2029, 81.0052, -123.28
6.20014, 44, -32.2987, -18.642, 42.1027, 44.2515, 81.0582, -122.802
6.20729, 45, -31.8586, -18.6295, 41.9954, 44.2932, 81.1087, -122.325
6.21711, 46, -31.4141, -18.6134, 41.8821, 44.3274, 81.1585, -121.852
6.22409, 46, -30.9673, -18.594, 41.7627, 44.3538, 81.2061, -121.38
6.2341, 47, -30.5188, -18.571, 41.6375, 44.3723, 81.2514, -120.911
6.23938, 47, -30.0664, -18.5439, 41.5065, 44.3835, 81.2964, -120.445
6.24836, 47, -29.6084, -18.5122, 41.3696, 44.3878, 81.3402, -119.98
6.2561, 48, -29.1438, -18.4762, 41.2266, 44.3846, 81.3823, -119.517
6.26357, 48, -28.6731, -18.4359, 41.0775, 44.3723, 81.424, -119.055
6.27411, 49, -28.1979, -18.3912, 40.9226, 44.3515, 81.4658, -118.596
6.28352, 50, -27.4806, -18.3158, 40.6787, 44.3021, 81.5269, -117.909
6.29237, 50, -27.24, -18.2882, 40.5941, 44.2576, 81.5679, -117.453
6.29715, 51, -26.7551, -18.2289, 40.4199, 44.2322, 81.5891, -117.225
6.30629, 51, -26.263, -18.1641, 40.2395, 44.1735, 81.6316, -116.769
6.31222, 51, -25.7633, -18.0937, 40.0523, 44.105, 81.674, -116.315
6.3228, 52, -25.258, -18.0178, 39.8573, 44.0267, 81.7174, -115.861
6.3283, 52, -24.7499, -17.9368, 39.6559, 43.9375, 81.7622, -115.408
6.33716, 53, -24.2399, -17.8503, 39.4483, 43.8385, 81.8068, -114.955
6.34513, 54, -23.7258, -17.7577, 39.233, 43.7294, 81.8526, -114.504
6.35245, 54, -23.2046, -17.6587, 39.0103, 43.6097, 81.901, -114.052
6.36035, 54, -22.6749, -17.5537, 38.7812, 43.4793, 81.9505, -113.6
6.36856, 55, -22.1384, -17.4425, 38.5442, 43.3372, 82.0021, -113.148
6.37638, 55, -21.5986, -17.3252, 38.3004, 43.1833, 82.0569, -112.696
6.38456, 56, -21.0567, -17.2021, 38.0503, 43.0179, 82.1124, -112.245
6.39618, 56, -20.5102, -17.0734, 37.7927, 42.8409, 82.1702, -111.794
6.40071, 57, -19.9549, -16.9395, 37.5289, 42.6526, 82.23, -111.343
6.40998, 58, -19.3905, -16.7999, 37.2582, 42.4521, 82.2907, -110.893
6.41518, 58, -19.1058, -16.728, 37.1204, 42.3472, 82.3222, -110.668
6.42308, 58, -18.5338, -16.5798, 36.8408, 42.1283, 82.3861, -110.218
6.43118, 59, -17.9597, -16.4259, 36.5547, 41.8976, 82.4515, -109.77
6.44477, 60, -16.7947, -16.1038, 35.9646, 41.3992, 82.5891, -108.872
6.44706, 60, -16.7947, -16.1038, 35.9646, 41.3992, 82.5891, -108.872
6.45544, 60, -16.1974, -15.9348, 35.6607, 41.1306, 82.6613, -108.423
6.46964, 61, -14.9872, -15.582, 35.0357, 40.5526, 82.8116, -107.526
6.47286, 61, -14.9872, -15.582, 35.0357, 40.5526, 82.8507, -107.302
6.47911, 62, -14.3764, -15.3989, 34.7139, 40.2435, 82.8907, -107.078
6.48708, 62, -13.7571, -15.2106, 34.3863, 39.9207, 82.9727, -106.629
6.49892, 63, -12.809, -14.9153, 33.8856, 39.4093, 83.1013, -105.954
6.50574, 64, -12.1685, -14.7112, 33.5452, 39.0497, 83.1915, -105.504
6.51357, 64, -11.5244, -14.5019, 33.1986, 38.6755, 83.2853, -105.052
6.52301, 65, -10.8738, -14.2856, 32.8461, 38.2865, 83.3833, -104.599
6.52815, 65, -10.5445, -14.1746, 32.6675, 38.0865, 83.434, -104.372
6.53815, 66, -9.54141, -13.8326, 32.1246, 37.4624, 83.5937, -103.688
6.54407, 66, -9.20302, -13.7158, 31.9413, 37.2464, 83.6497, -103.459
6.55395, 67, -8.1801, -13.3548, 31.384, 36.5757, 83.8253, -102.77
6.56312, 67, -7.48924, -13.1051, 31.005, 36.1094, 83.9492, -102.308
6.56819, 68, -7.14, -12.9774, 30.8138, 35.8705, 84.0137, -102.076
6.57527, 68, -6.4345, -12.7161, 30.4281, 35.3805, 84.1472, -101.61
6.58421, 69, -5.72144, -12.4487, 30.0389, 34.8756, 84.2878, -101.142
6.59117, 69, -5.0025, -12.1744, 29.645, 34.3553, 84.4351, -100.673
6.60229, 70, -3.90985, -11.7484, 29.0468, 33.5473, 84.6691, -99.9626
6.60809, 70, -3.54114, -11.6029, 28.8464, 33.2707, 84.7504, -99.7247
6.6209, 71, -2.42412, -11.1552, 28.2429, 32.4187, 85.0049, -99.0077
6.62407, 71, -2.04844, -11.0027, 28.0405, 32.1278, 85.0932, -98.7678
6.63545, 72, -0.910154, -10.5341, 27.4313, 31.2363, 85.3692, -98.0443
6.6401, 72, -0.527321, -10.3744, 27.2278, 30.9319, 85.465, -97.8018
6.65067, 73, 0.63049, -9.88369, 26.6165, 29.9996, 85.7639, -97.0708
6.65614, 73, 1.0192, -9.71582, 26.4126, 29.6833, 85.8675, -96.8261
6.66436, 73, 1.8014, -9.37471, 26.004, 29.0409, 86.0813, -96.3354
6.67118, 74, 2.5888, -9.02705, 25.5953, 28.3877, 86.3042, -95.842
6.68096, 75, 3.37989, -8.67476, 25.1878, 27.7242, 86.5358, -95.3463
6.68809, 75, 4.17395, -8.31618, 24.7832, 27.0516, 86.7754, -94.8486
6.69861, 76, 4.97085, -7.76697, 24.183, 26.0362, 87.1479, -94.0998
6.70419, 76, 5.76865, -7.58079, 23.9856, 25.6964, 87.2751, -93.8491
6.71286, 76, 6.56677, -7.20373, 23.5963, 25.0161, 87.5337, -93.3464
6.72012, 77, 7.36503, -6.81829, 23.2131, 24.3381, 87.7983, -92.8416
6.73488, 78, 8.56541, -6.22422, 22.6483, 23.3196, 88.2104, -92.0805
6.73695, 78, 8.96596, -6.02223, 22.4625, 22.9789, 88.3526, -91.8252
6.75377, 79, 10.1682, -5.4039, 21.9113, 21.9533, 88.9503, -90.7944
6.75589, 79, 10.9697, -4.9802, 21.5474, 21.2674, 89.1073, -90.5341
6.76001, 79, 11.3696, -4.76479, 21.3662, 20.9244, 89.2676, -90.2728
6.76794, 80, 12.1669, -4.32711, 21.0068, 20.2365, 89.5968, -89.7468
6.77618, 80, 12.9595, -3.87907, 20.6518, 19.5517, 89.9378, -89.2154
6.78349, 81, 13.7478, -3.42026, 20.3016, 18.8738, 90.2893, -88.679
6.79219, 81, 14.5298, -2.95191, 19.9567, 18.2051, 90.6509, -88.1377
6.79943, 82, 15.3029, -2.47452, 19.6186, 17.5461, 91.0214, -87.5926
6.80806, 82, 16.0665, -1.98918, 19.2881, 16.8988, 91.4015, -87.043
6.81619, 83, 16.8198, -1.49623, 18.9654, 16.2665, 91.7897, -86.49
6.82351, 83, 17.5609, -0.996753, 18.6506, 15.6513, 92.1859, -85.9348
6.83198, 84, 18.2856, -0.492882, 18.3442, 15.0538, 92.5883, -85.3795
6.84009, 84, 18.9916, 0.0150158, 18.0475, 14.4793, 92.9968, -84.824
6.84798, 85, 19.6807, 0.529236, 17.7595, 13.928, 93.4101, -84.2696
6.85497, 85, 20.0193, 0.788684, 17.6189, 13.6617, 93.6187, -83.9931
6.86408, 86, 21.0105, 1.57398, 17.2089, 12.8993, 94.2491, -83.1675
6.87094, 86, 21.3328, 1.83757, 17.0762, 12.657, 94.4608, -82.8929
6.88066, 87, 22.2785, 2.63714, 16.6895, 11.9648, 95.1029, -82.0677
6.88821, 87, 22.8937, 3.18078, 16.4387, 11.5299, 95.5381, -81.5143
6.89492, 87, 23.1973, 3.45607, 16.3152, 11.3197, 95.7579, -81.2362
6.90428, 88, 24.0908, 4.2926, 15.9503, 10.7154, 96.4271, -80.3915
6.91091, 88, 24.3828, 4.57539, 15.8306, 10.5221, 96.653, -80.1055
6.9205, 89, 25.2397, 5.43947, 15.481, 9.96508, 97.3414, -79.2324
6.9288, 89, 25.7982, 6.02827, 15.2529, 9.61362, 97.8082, -78.637
6.93653, 90, 26.3503, 6.62604, 15.0279, 9.27667, 98.2812, -78.0285
6.94451, 90, 26.8936, 7.23207, 14.8077, 8.95606, 98.7609, -77.4072
6.95256, 91, 27.4242, 7.84716, 14.5927, 8.65362, 99.2466, -76.774
6.96073, 91, 27.6845, 8.15848, 14.3822, 8.37068, 99.7378, -76.1301
6.96792, 92, 28.197, 8.78905, 14.2787, 8.23715, 99.985, -75.8038
6.97681, 92, 28.701, 9.43015, 14.0754, 7.98726, 100.482, -75.1446
6.98394, 93, 29.1968, 10.0798, 13.8774, 7.75975, 100.981, -74.4787
6.99192, 93, 29.6803, 10.7354, 13.6867, 7.55616, 101.481, -73.8056
6.99997, 94, 30.1499, 11.3952, 13.5043, 7.37612, 101.979, -73.1257
7.00791, 94, 30.6043, 12.0578, 13.3292, 7.21965, 102.476, -72.4409
7.01597, 95, 31.0445, 12.7225, 13.1611, 7.08708, 102.969, -71.7515
7.02394, 95, 31.4708, 13.3889, 13.0009, 6.9784, 103.459, -71.0558
7.03193, 96, 31.8834, 14.0568, 12.8483, 6.89281, 103.945, -70.355
7.03996, 96, 32.2812, 14.7252, 12.702, 6.83186, 104.427, -69.6493
7.04792, 97, 32.663, 15.3941, 12.5623, 6.79358, 104.905, -68.9374
7.05602, 97, 33.0284, 16.0621, 12.4299, 6.77615, 105.378, -68.2203
7.06302, 98, 33.3779, 16.7283, 12.306, 6.7809, 105.844, -67.5009
7.07191, 98, 33.713, 17.3909, 12.1907, 6.80726, 106.302, -66.7775
7.07999, 99, 34.0344, 18.0484, 12.0845, 6.85322, 106.75, -66.0525
7.08791, 99, 34.3432, 18.6996, 11.9877, 6.91958, 107.187, -65.3293
7.09598, 100, 34.6407, 19.3429, 11.8997, 7.00329, 107.612, -64.6068
7.10493, 100, 34.9267, 19.9777, 11.8204, 7.10482, 108.024, -63.887
7.11191, 101, 35.2007, 20.6018, 11.7493, 7.22231, 108.422, -63.1739
7.11993, 101, 35.4631, 21.2152, 11.6864, 7.35478, 108.806, -62.4662
7.12799, 102, 35.7145, 21.8169, 11.6323, 7.50042, 109.173, -61.7668
7.13597, 102, 35.9533, 22.406, 11.5866, 7.65772, 109.523, -61.0787
7.14388, 103, 36.1804, 22.9812, 11.5496, 7.82505, 109.856, -60.4016
7.15202, 103, 36.3987, 23.5408, 11.5213, 8.00143, 110.171, -59.7361
7.15991, 103, 36.61, 24.0842, 11.5021, 8.18672, 110.466, -59.0836
7.16704, 104, 36.8137, 24.6116, 11.4918, 8.38122, 110.743, -58.4444
7.17604, 104, 37.0101, 25.1228, 11.4888, 8.58475, 110.999, -57.8169
7.18391, 104, 37.2005, 25.6177, 11.4926, 8.79644, 111.234, -57.2023
7.19193, 104, 37.3834, 26.096, 11.5024, 9.01463, 111.45, -56.602
7.2, 104, 37.557, 26.5575, 11.5164, 9.23745, 111.648, -56.0162
7.20795, 104, 37.722, 27.0027, 11.5331, 9.46264, 111.829, -55.4473
7.21599, 104, 37.8806, 27.4328, 11.5526, 9.68738, 111.997, -54.8978
7.22398, 104, 38.0345, 27.8465, 11.5736, 9.90932, 112.154, -54.3709
7.23191, 104, 38.1831, 28.2434, 11.5946, 10.1271, 112.303, -53.8663
7.23991, 104, 38.3254, 28.6237, 11.6152, 10.3394, 112.442, -53.3852
7.24799, 104, 38.4609, 28.9871, 11.6345, 10.5449, 112.574, -52.9286
7.25598, 104, 38.5888, 29.3322, 11.6526, 10.7431, 112.698, -52.496
7.26431, 104, 38.7087, 29.6589, 11.6698, 10.9329, 112.815, -52.0892
7.27129, 104, 38.8201, 29.9662, 11.6856, 11.1139, 112.924, -51.7068
7.27936, 104, 38.9234, 30.2552, 11.7004, 11.2852, 113.025, -51.3495
7.28801, 104, 39.0188, 30.5249, 11.7141, 11.4465, 113.118, -51.018
7.29605, 104, 39.1066, 30.7745, 11.7266, 11.5974, 113.205, -50.7117
7.30352, 104, 39.1865, 31.0049, 11.7379, 11.7372, 113.283, -50.4303
7.31207, 104, 39.2585, 31.2155, 11.7481, 11.8656, 113.355, -50.1745
7.31964, 104, 39.3227, 31.4058, 11.7577, 11.9825, 113.419, -49.9438
7.32807, 104, 39.3794, 31.577, 11.7662, 12.0877, 113.477, -49.7382
7.33614, 104, 39.4291, 31.7287, 11.7737, 12.1805, 113.527, -49.5577
7.34352, 104, 39.4515, 31.7973, 11.7772, 12.2225, 113.57, -49.4017
7.35201, 104, 39.5101, 31.9764, 11.7866, 12.33, 113.607, -49.2697
7.35996, 104, 39.5417, 32.0747, 11.7921, 12.3876, 113.637, -49.1611
7.36696, 104, 39.5553, 32.1177, 11.7946, 12.4118, 113.649, -49.1147
7.3762, 104, 39.5888, 32.2247, 11.8013, 12.4685, 113.679, -49.0057
7.38293, 104, 39.5977, 32.2538, 11.8033, 12.4829, 113.686, -48.9786
7.39223, 104, 39.6181, 32.3238, 11.8089, 12.5148, 113.701, -48.9199
7.39891, 104, 39.6233, 32.3419, 11.8106, 12.5222, 113.705, -48.9065
7.40875, 104, 39.6349, 32.3826, 11.815, 12.5372, 113.711, -48.8806
7.41643, 104, 39.6398, 32.4014, 11.8175, 12.5425, 113.713, -48.8719
7.42448, 104, 39.6428, 32.4149, 11.8196, 12.5454, 113.714, -48.8675
7.43289, 104, 39.6445, 32.4236, 11.8211, 12.5469, 113.715, -48.8655
7.44045, 105, 39.645, 32.429, 11.8223, 12.5476, 113.715, -48.8647
7.44853, 105, 39.6445, 32.4325, 11.8232, 12.548, 113.715, -48.8645
7.45699, 105, 39.6435, 32.4349, 11.8241, 12.5482, 113.715, -48.8646
7.46443, 105, 39.6429, 32.4358, 11.8245, 12.5482, 113.715, -48.8647
7.47249, 105, 39.6419, 32.4374, 11.8251, 12.5482, 113.715, -48.865
7.4799, 105, 39.6408, 32.4387, 11.8257, 12.5483, 113.715, -48.8653
7.48793, 105, 39.6397, 32.4399, 11.8263, 12.5484, 113.715, -48.8657
7.49602, 105, 39.639, 32.441, 11.8268, 12.5484, 113.715, -48.866
7.5039, 105, 39.6385, 32.4421, 11.8274, 12.5483, 113.715, -48.8663
7.5119, 105, 39.6382, 32.4432, 11.828, 12.5483, 113.715, -48.8666
7.51995, 105, 39.6379, 32.4442, 11.8285, 12.5483, 113.715, -48.8669
7.52792, 105, 39.6377, 32.445, 11.829, 12.5483, 113.715, -48.8672
7.53637, 105, 39.6374, 32.4456, 11.8293, 12.5483, 113.715, -48.8675
7.5429, 105, 39.6371, 32.446, 11.8296, 12.5483, 113.715, -48.8677
7.5519, 105, 39.6368, 32.4461, 11.8299, 12.5483, 113.715, -48.868
7.5599, 105, 39.6364, 32.4462, 11.8301, 12.5483, 113.715, -48.8682
