hehonglu123/Motion-Primitive-Planning/ILC/recorded_data/realrobot/wood/iteration_8/run_3.csv
timestamp, cmd_num, J1, J2, J3, J4, J5, J6
0.000383, -1, 11.3757, 13.614, 17.3365, -145.521, -97.9257, 142.516
0.004434, -1, 11.3757, 13.614, 17.3365, -145.521, -97.9257, 142.516
0.007839, -1, 11.3757, 13.614, 17.3365, -145.521, -97.9257, 142.516
0.028505, -1, 11.3757, 13.614, 17.3365, -145.521, -97.9256, 142.516
0.031167, -1, 11.3757, 13.614, 17.3365, -145.521, -97.9256, 142.516
0.03368, -1, 11.3757, 13.614, 17.3365, -145.521, -97.9256, 142.516
0.039713, -1, 11.3757, 13.614, 17.3365, -145.521, -97.9256, 142.516
0.047648, -1, 11.3757, 13.614, 17.3365, -145.521, -97.9257, 142.516
0.055771, -1, 11.3751, 13.6139, 17.3365, -145.521, -97.9256, 142.516
0.063627, -1, 11.3724, 13.6137, 17.3364, -145.521, -97.9257, 142.516
0.201575, -1, 9.96396, 13.2394, 17.4283, -145.962, -97.774, 139.957
0.203665, -1, 9.88682, 13.2187, 17.4334, -145.986, -97.7654, 139.817
0.204871, -1, 9.88682, 13.2187, 17.4334, -145.986, -97.7654, 139.817
0.206134, -1, 9.88682, 13.2187, 17.4334, -145.986, -97.7654, 139.817
0.208104, -1, 9.80926, 13.198, 17.4384, -146.01, -97.7567, 139.678
0.209399, -1, 9.80926, 13.198, 17.4384, -146.01, -97.7567, 139.678
0.211194, -1, 9.73147, 13.1773, 17.4434, -146.034, -97.7481, 139.538
0.213715, -1, 9.73147, 13.1773, 17.4434, -146.034, -97.7481, 139.538
0.215783, -1, 9.65366, 13.1566, 17.4485, -146.058, -97.7396, 139.398
0.216981, -1, 9.65366, 13.1566, 17.4485, -146.058, -97.7396, 139.398
0.218983, -1, 9.65366, 13.1566, 17.4485, -146.082, -97.731, 139.258
0.220444, -1, 9.57596, 13.136, 17.4535, -146.082, -97.731, 139.258
0.221653, -1, 9.57596, 13.136, 17.4535, -146.082, -97.731, 139.258
0.22509, -1, 9.4984, 13.1153, 17.4584, -146.106, -97.7225, 139.119
0.227038, -1, 9.4984, 13.1153, 17.4584, -146.106, -97.7141, 138.979
0.228567, -1, 9.42095, 13.0947, 17.4634, -146.13, -97.7141, 138.979
0.229765, -1, 9.42095, 13.0947, 17.4634, -146.13, -97.7141, 138.979
0.231916, -1, 9.34361, 13.0742, 17.4683, -146.154, -97.7058, 138.839
0.233126, -1, 9.34361, 13.0742, 17.4683, -146.154, -97.7058, 138.839
0.23506, -1, 9.34361, 13.0742, 17.4683, -146.178, -97.6974, 138.7
0.236604, -1, 9.26639, 13.0536, 17.4732, -146.178, -97.6974, 138.7
0.239789, -1, 9.18921, 13.033, 17.4783, -146.202, -97.689, 138.56
0.248145, -1, 9.03525, 12.992, 17.4883, -146.25, -97.6723, 138.28
0.255848, -1, 8.88152, 12.9509, 17.4985, -146.298, -97.6554, 138
0.263644, -1, 8.72796, 12.91, 17.5087, -146.346, -97.6383, 137.72
0.272324, -1, 8.57493, 12.8688, 17.5187, -146.393, -97.6209, 137.44
0.279951, -1, 8.42217, 12.8276, 17.5288, -146.442, -97.6033, 137.16
0.287668, -1, 8.2692, 12.7862, 17.539, -146.489, -97.586, 136.88
0.296325, -1, 8.11576, 12.7446, 17.5491, -146.537, -97.569, 136.6
0.303973, -1, 7.96189, 12.703, 17.5594, -146.586, -97.5522, 136.32
0.311883, -1, 7.80739, 12.6613, 17.5695, -146.633, -97.5355, 136.04
0.320747, -1, 7.6525, 12.6196, 17.5796, -146.681, -97.5189, 135.759
0.3284, -1, 7.49759, 12.578, 17.5898, -146.729, -97.5021, 135.479
0.336091, -1, 7.34253, 12.5365, 17.5999, -146.777, -97.485, 135.199
0.344142, -1, 7.18752, 12.4949, 17.6102, -146.825, -97.4676, 134.918
0.352189, -1, 7.03244, 12.4534, 17.6205, -146.874, -97.4503, 134.638
0.360215, -1, 6.87729, 12.4121, 17.6308, -146.922, -97.4333, 134.358
0.368278, -1, 6.72234, 12.3709, 17.6411, -146.969, -97.4164, 134.078
0.376406, -1, 6.56765, 12.3296, 17.6516, -147.018, -97.3996, 133.797
0.384246, -1, 6.4904, 12.3089, 17.6567, -147.042, -97.383, 133.517
0.391622, -1, 6.33606, 12.2676, 17.6671, -147.09, -97.3745, 133.377
0.399672, -1, 6.18179, 12.2262, 17.6774, -147.138, -97.3575, 133.096
0.407629, -1, 6.02743, 12.1847, 17.6876, -147.186, -97.3402, 132.816
0.415615, -1, 5.87287, 12.1432, 17.6979, -147.234, -97.3227, 132.535
0.425096, -1, 5.64072, 12.0807, 17.7133, -147.306, -97.2965, 132.114
0.431664, -1, 5.56323, 12.0598, 17.7185, -147.33, -97.2879, 131.973
0.439684, -1, 5.40817, 12.0182, 17.7288, -147.378, -97.2709, 131.692
0.447618, -1, 5.25282, 11.9765, 17.739, -147.427, -97.2541, 131.411
0.455613, -1, 5.09718, 11.9348, 17.7494, -147.475, -97.2374, 131.13
0.463675, -1, 4.94144, 11.8932, 17.7599, -147.522, -97.2205, 130.849
0.471617, -1, 4.7857, 11.8515, 17.7703, -147.571, -97.2033, 130.568
0.479606, -1, 4.62995, 11.81, 17.7808, -147.619, -97.186, 130.287
0.487688, -1, 4.47423, 11.7685, 17.7912, -147.667, -97.1685, 130.006
0.495672, -1, 4.31874, 11.727, 17.8015, -147.716, -97.1512, 129.725
0.503634, -1, 4.16346, 11.6856, 17.812, -147.764, -97.1341, 129.444
0.513126, -1, 4.00855, 11.6442, 17.8224, -147.812, -97.1172, 129.163
0.651747, -1, 1.28478, 10.9146, 18.0043, -148.658, -96.8176, 124.233
0.652944, -1, 1.28478, 10.9146, 18.0043, -148.658, -96.8176, 124.233
0.654984, -1, 1.20695, 10.8938, 18.0094, -148.682, -96.8091, 124.092
0.65624, -1, 1.20695, 10.8938, 18.0094, -148.682, -96.8091, 124.092
0.657509, -1, 1.20695, 10.8938, 18.0094, -148.682, -96.8091, 124.092
0.66018, -1, 1.12924, 10.8729, 18.0146, -148.706, -96.8007, 123.951
0.663066, -1, 1.05161, 10.852, 18.0197, -148.731, -96.7923, 123.81
0.665647, -1, 1.05161, 10.852, 18.0197, -148.731, -96.7923, 123.81
0.667838, -1, 0.974074, 10.8311, 18.0249, -148.755, -96.7838, 123.669
0.669043, -1, 0.974074, 10.8311, 18.0249, -148.755, -96.7838, 123.669
0.671094, -1, 0.896595, 10.8102, 18.0301, -148.779, -96.7752, 123.527
0.672403, -1, 0.896595, 10.8102, 18.0301, -148.779, -96.7752, 123.527
0.673611, -1, 0.896595, 10.8102, 18.0301, -148.779, -96.7752, 123.527
0.675709, -1, 0.819143, 10.7893, 18.0353, -148.803, -96.7665, 123.386
0.676934, -1, 0.819143, 10.7893, 18.0353, -148.803, -96.7665, 123.386
0.680422, -1, 0.741747, 10.7684, 18.0405, -148.828, -96.7578, 123.245
0.681803, -1, 0.741747, 10.7684, 18.0405, -148.828, -96.7578, 123.245
0.685405, -1, 0.664403, 10.7475, 18.0457, -148.852, -96.749, 123.104
0.687665, -1, 0.587075, 10.7266, 18.0509, -148.876, -96.7401, 122.963
0.688889, -1, 0.587075, 10.7266, 18.0509, -148.876, -96.7401, 122.963
0.690763, -1, 0.587075, 10.7266, 18.0509, -148.901, -96.7313, 122.821
0.692147, -1, 0.509712, 10.7057, 18.0561, -148.901, -96.7313, 122.821
0.697653, -1, 0.432265, 10.6848, 18.0613, -148.925, -96.7225, 122.68
0.703627, -1, 0.277146, 10.643, 18.0717, -148.973, -96.7053, 122.397
0.711722, -1, 0.121639, 10.6011, 18.0821, -149.022, -96.6883, 122.115
0.719712, -1, -0.0342875, 10.5592, 18.0927, -149.07, -96.6715, 121.832
0.727713, -1, -0.190663, 10.5173, 18.1032, -149.118, -96.6548, 121.549
0.735778, -1, -0.347277, 10.4755, 18.1136, -149.167, -96.6379, 121.266
0.743705, -1, -0.504239, 10.4336, 18.124, -149.215, -96.6209, 120.984
0.75172, -1, -0.661483, 10.3918, 18.1344, -149.263, -96.6035, 120.701
0.759937, -1, -0.818825, 10.3499, 18.1449, -149.312, -96.586, 120.418
0.767619, -1, -0.976164, 10.3081, 18.1552, -149.361, -96.5687, 120.135
0.775645, -1, -1.13342, 10.2663, 18.1656, -149.409, -96.5517, 119.852
0.783724, -1, -1.29045, 10.2244, 18.1759, -149.458, -96.5348, 119.569
0.791677, -1, -1.4473, 10.1826, 18.1862, -149.507, -96.518, 119.286
0.799822, -1, -1.60392, 10.1408, 18.1968, -149.555, -96.5012, 119.003
0.807896, -1, -1.76004, 10.0989, 18.2073, -149.604, -96.4842, 118.719
0.814661, -1, -1.83795, 10.078, 18.2124, -149.628, -96.4755, 118.578
0.824107, -1, -2.07113, 10.0151, 18.2282, -149.701, -96.4491, 118.152
0.832107, -1, -2.22629, 9.97324, 18.2385, -149.75, -96.4316, 117.869
0.840051, -1, -2.38155, 9.93134, 18.2489, -149.799, -96.4143, 117.585
0.846604, -1, -2.45929, 9.91035, 18.2541, -149.823, -96.4057, 117.443
0.856202, -1, -2.69291, 9.84745, 18.2697, -149.896, -96.3804, 117.018
0.864173, -1, -2.8491, 9.8055, 18.2802, -149.944, -96.3636, 116.734
0.872195, -1, -3.00574, 9.76351, 18.2905, -149.993, -96.3467, 116.45
0.88024, -1, -3.08421, 9.74255, 18.2957, -150.042, -96.3295, 116.167
0.888172, -1, -3.24142, 9.70061, 18.3061, -150.066, -96.3208, 115.883
0.896172, -1, -3.39903, 9.65857, 18.3166, -150.114, -96.3033, 115.741
0.90361, -1, -3.55684, 9.61659, 18.3271, -150.163, -96.2856, 115.457
0.911601, -1, -3.71466, 9.57475, 18.3375, -150.212, -96.2684, 115.173
0.91966, -1, -3.87266, 9.53276, 18.3479, -150.26, -96.2513, 114.888
0.92764, -1, -4.03062, 9.49077, 18.3583, -150.309, -96.2342, 114.604
0.935603, -1, -4.18843, 9.44885, 18.3687, -150.358, -96.2173, 114.32
0.943642, -1, -4.34619, 9.40685, 18.379, -150.407, -96.2002, 114.035
0.951603, -1, -4.50367, 9.36486, 18.3894, -150.456, -96.1828, 113.751
0.959641, -1, -4.66058, 9.32286, 18.3998, -150.505, -96.1651, 113.466
0.967625, -1, -4.81714, 9.28079, 18.4102, -150.553, -96.1473, 113.181
0.975604, -1, -4.97346, 9.2387, 18.4207, -150.603, -96.1299, 112.896
0.983624, -1, -5.12949, 9.19668, 18.4312, -150.651, -96.1126, 112.611
0.991641, -1, -5.28537, 9.15456, 18.4418, -150.7, -96.0956, 112.327
0.999662, -1, -5.44135, 9.1124, 18.4523, -150.749, -96.0787, 112.042
1.00762, -1, -5.59755, 9.07031, 18.4627, -150.798, -96.0618, 111.757
1.0172, -1, -5.75406, 9.02819, 18.4732, -150.846, -96.0446, 111.33
1.02361, -1, -5.91099, 8.98601, 18.4836, -150.895, -96.0272, 111.188
1.03166, -1, -6.0684, 8.94387, 18.4939, -150.944, -96.0096, 110.903
1.04065, -1, -6.22637, 8.90174, 18.5043, -150.993, -95.992, 110.617
1.04761, -1, -6.38466, 8.85959, 18.5147, -151.042, -95.9747, 110.332
1.05566, -1, -6.54303, 8.81754, 18.525, -151.091, -95.9577, 110.047
1.0636, -1, -6.7015, 8.77539, 18.5356, -151.14, -95.9406, 109.762
1.07164, -1, -6.86023, 8.73322, 18.5461, -151.189, -95.9237, 109.476
1.07966, -1, -7.01878, 8.69114, 18.5566, -151.238, -95.9065, 109.19
1.0876, -1, -7.17732, 8.64899, 18.5671, -151.287, -95.889, 108.905
1.09574, -1, -7.33569, 8.60682, 18.5774, -151.336, -95.8713, 108.619
1.10359, -1, -7.49371, 8.56451, 18.5879, -151.385, -95.8536, 108.333
1.1116, -1, -7.65134, 8.52216, 18.5984, -151.434, -95.8361, 108.048
1.11969, -1, -7.80864, 8.47992, 18.6088, -151.483, -95.8189, 107.762
1.12759, -1, -7.96562, 8.43764, 18.6192, -151.532, -95.8018, 107.476
1.13566, -1, -8.12231, 8.39528, 18.6296, -151.581, -95.7849, 107.19
1.14405, -1, -8.27887, 8.35295, 18.6402, -151.63, -95.7679, 106.904
1.15159, -1, -8.43553, 8.3106, 18.6507, -151.679, -95.7507, 106.618
1.15963, -1, -8.59247, 8.2682, 18.6612, -151.728, -95.7332, 106.332
1.16844, -1, -8.74982, 8.22593, 18.6717, -151.778, -95.7154, 106.046
1.1756, -1, -8.90747, 8.18364, 18.682, -151.826, -95.6978, 105.759
1.18361, -1, -9.06561, 8.14134, 18.6925, -151.875, -95.6805, 105.473
1.1924, -1, -9.22417, 8.0991, 18.703, -151.925, -95.6634, 105.187
1.19961, -1, -9.38307, 8.05678, 18.7134, -151.974, -95.6462, 104.9
1.20783, -1, -9.54216, 8.01442, 18.7239, -152.023, -95.6292, 104.613
1.21644, -1, -9.70131, 7.9722, 18.7343, -152.073, -95.6119, 104.326
1.22368, -1, -9.86056, 7.92996, 18.7448, -152.121, -95.5943, 104.04
1.23197, -1, -10.02, 7.88756, 18.7555, -152.171, -95.5764, 103.752
1.2405, -1, -10.1792, 7.84511, 18.7662, -152.22, -95.5586, 103.466
1.24769, -1, -10.3383, 7.80264, 18.7767, -152.269, -95.5411, 103.179
1.25614, -1, -10.4972, 7.76012, 18.7873, -152.319, -95.5238, 102.892
1.26312, -1, -10.5766, 7.73889, 18.7925, -152.344, -95.5153, 102.605
1.2716, -1, -10.8139, 7.67512, 18.8082, -152.417, -95.4898, 102.318
1.28038, -1, -10.9718, 7.63253, 18.8187, -152.466, -95.4726, 102.031
1.28852, -1, -11.1293, 7.59004, 18.8291, -152.516, -95.4553, 101.743
1.29581, -1, -11.2867, 7.54758, 18.8396, -152.565, -95.4375, 101.456
1.30456, -1, -11.4441, 7.50513, 18.8501, -152.615, -95.4198, 101.169
1.31266, -1, -11.6016, 7.46263, 18.8606, -152.664, -95.4022, 100.881
1.31987, -1, -11.7595, 7.42022, 18.8713, -152.713, -95.3848, 100.593
1.32889, -1, -11.9179, 7.37781, 18.8818, -152.762, -95.3675, 100.305
1.33606, -1, -12.0766, 7.33542, 18.8924, -152.812, -95.3503, 100.018
1.34423, -1, -12.2358, 7.29305, 18.9029, -152.861, -95.3331, 99.73
1.35292, -1, -12.3954, 7.25061, 18.9134, -152.911, -95.3157, 99.4418
1.36012, -1, -12.5552, 7.20819, 18.924, -152.96, -95.2979, 99.1539
1.36819, -1, -12.7151, 7.16575, 18.9345, -153.009, -95.2799, 98.8662
1.37615, -1, -12.7952, 7.12325, 18.9451, -153.059, -95.262, 98.5782
1.38494, -1, -12.9553, 7.10194, 18.9504, -153.084, -95.2444, 98.29
1.39246, -1, -13.1153, 7.05931, 18.9609, -153.133, -95.2271, 98.0019
1.3996, -1, -13.2752, 7.01669, 18.9714, -153.183, -95.2185, 97.8579
1.40758, -1, -13.4349, 6.97402, 18.982, -153.232, -95.2014, 97.5695
1.41563, -1, -13.5943, 6.93122, 18.9926, -153.281, -95.1842, 97.2808
1.42358, -1, -13.7534, 6.88848, 19.0032, -153.331, -95.1668, 96.9921
1.43162, -1, -13.9122, 6.84578, 19.0136, -153.38, -95.1492, 96.7036
1.43966, -1, -14.0705, 6.80305, 19.0241, -153.429, -95.1313, 96.415
1.44758, -1, -14.2287, 6.76042, 19.0347, -153.479, -95.1136, 96.126
1.45558, -1, -14.3869, 6.71775, 19.0452, -153.529, -95.0961, 95.837
1.46365, -1, -14.5451, 6.67503, 19.0557, -153.578, -95.0789, 95.5482
1.47158, -1, -14.7038, 6.63249, 19.0663, -153.628, -95.0616, 95.2589
1.4796, -1, -14.8629, 6.58995, 19.0768, -153.677, -95.0445, 94.9695
1.48758, -1, -15.0222, 6.54726, 19.0876, -153.726, -95.027, 94.6805
1.4956, -1, -15.1819, 6.50467, 19.0983, -153.777, -95.0093, 94.3915
1.50258, -1, -15.3421, 6.4621, 19.1089, -153.826, -94.9913, 94.1024
1.51158, -1, -15.5025, 6.41936, 19.1196, -153.875, -94.9734, 93.8129
1.52135, -1, -15.6633, 6.37667, 19.1302, -153.926, -94.9557, 93.5235
1.52765, -1, -15.824, 6.33393, 19.1408, -153.975, -94.9384, 93.2342
1.53666, -1, -15.9847, 6.29102, 19.1515, -154.025, -94.9212, 92.9447
1.54358, -1, -16.1456, 6.24815, 19.162, -154.075, -94.904, 92.6549
1.55165, -1, -16.3063, 6.20524, 19.1725, -154.124, -94.8868, 92.3654
1.5596, -1, -16.4668, 6.16223, 19.183, -154.173, -94.8693, 92.0758
1.56758, -1, -16.6271, 6.11928, 19.1935, -154.223, -94.8515, 91.7857
1.57565, -1, -16.787, 6.07636, 19.2042, -154.273, -94.8335, 91.4956
1.58362, -1, -16.9465, 6.03339, 19.2149, -154.323, -94.8159, 91.2056
1.59158, -1, -17.1058, 5.99045, 19.2255, -154.373, -94.7984, 90.9153
1.59969, -1, -17.2649, 5.94751, 19.2361, -154.422, -94.781, 90.6249
1.60758, -1, -17.424, 5.9047, 19.2467, -154.472, -94.7637, 90.3345
1.61563, -1, -17.5833, 5.86191, 19.2574, -154.522, -94.7464, 90.0444
1.62359, -1, -17.7427, 5.81911, 19.2681, -154.571, -94.7288, 89.7541
1.63158, -1, -17.9023, 5.77635, 19.2788, -154.622, -94.7108, 89.4637
1.63966, -1, -18.0623, 5.73356, 19.2894, -154.672, -94.6927, 89.1731
1.64768, -1, -18.2228, 5.69081, 19.3, -154.721, -94.6748, 88.8829
1.65558, -1, -18.3836, 5.64802, 19.3107, -154.771, -94.6571, 88.592
1.66366, -1, -18.545, 5.60508, 19.3214, -154.821, -94.6398, 88.3008
1.67162, -1, -18.7066, 5.56214, 19.332, -154.871, -94.6225, 88.01
1.6796, -1, -18.8683, 5.51917, 19.3427, -154.921, -94.6053, 87.7191
1.68765, -1, -19.0299, 5.47612, 19.3532, -154.971, -94.5877, 87.4279
1.69558, -1, -19.1914, 5.43296, 19.3639, -155.021, -94.5699, 87.1364
1.70359, -1, -19.3529, 5.38983, 19.3745, -155.071, -94.5518, 86.8451
1.71167, -1, -19.5143, 5.34666, 19.385, -155.121, -94.5338, 86.5536
1.71971, -1, -19.6752, 5.30342, 19.3957, -155.17, -94.516, 86.262
1.72774, -1, -19.8359, 5.26027, 19.4063, -155.221, -94.4985, 85.9701
1.73568, -1, -19.9964, 5.21711, 19.417, -155.27, -94.481, 85.6786
1.74367, -1, -20.1565, 5.17396, 19.4279, -155.32, -94.4636, 85.3871
1.75216, -1, -20.3161, 5.13103, 19.4387, -155.371, -94.446, 85.0954
1.75914, -1, -20.396, 5.10957, 19.4441, -155.421, -94.4282, 84.8035
1.76768, -1, -20.6361, 5.04491, 19.4602, -155.471, -94.41, 84.5118
1.77649, -1, -20.7964, 5.00201, 19.4709, -155.521, -94.3921, 84.2199
1.78362, -1, -20.9571, 4.95902, 19.4816, -155.571, -94.3744, 83.9277
1.79163, -1, -21.1182, 4.91594, 19.4923, -155.621, -94.3569, 83.6355
1.8006, -1, -21.2796, 4.8729, 19.5029, -155.672, -94.3396, 83.3437
1.80772, -1, -21.4416, 4.82972, 19.5136, -155.722, -94.3225, 83.0515
1.81585, -1, -21.6037, 4.78642, 19.5243, -155.772, -94.3051, 82.7589
1.82476, -1, -21.7659, 4.74322, 19.5351, -155.822, -94.2874, 82.4663
1.83196, -1, -21.9284, 4.69986, 19.5457, -155.872, -94.2695, 82.1738
1.84032, -1, -22.0909, 4.65648, 19.5566, -155.923, -94.2514, 81.8811
1.84891, -1, -22.2534, 4.61318, 19.5672, -155.973, -94.2337, 81.5882
1.85608, -1, -22.4158, 4.56972, 19.5779, -156.023, -94.2161, 81.2955
1.86415, -1, -22.5779, 4.52634, 19.5887, -156.074, -94.1985, 81.0029
1.87306, -1, -22.7396, 4.48291, 19.5993, -156.123, -94.1811, 80.71
1.88021, -1, -22.9009, 4.43946, 19.61, -156.173, -94.1636, 80.4168
1.88819, -1, -22.9815, 4.4178, 19.6207, -156.224, -94.1456, 80.1241
1.89558, -1, -23.1427, 4.3745, 19.626, -156.249, -94.1366, 79.9777
1.90363, -1, -23.3036, 4.33118, 19.6368, -156.299, -94.1184, 79.6844
1.91162, -1, -23.4645, 4.28792, 19.6478, -156.35, -94.1001, 79.3909
1.91965, -1, -23.6254, 4.24463, 19.6586, -156.4, -94.0822, 79.0977
1.92663, -1, -23.7865, 4.20132, 19.6694, -156.45, -94.0645, 78.8043
1.93566, -1, -23.9477, 4.15801, 19.68, -156.501, -94.0471, 78.5106
1.94364, -1, -24.1094, 4.11458, 19.6907, -156.552, -94.0297, 78.2166
1.95161, -1, -24.2716, 4.07118, 19.7015, -156.602, -94.0121, 77.9226
1.95963, -1, -24.4343, 4.02776, 19.7122, -156.652, -93.9943, 77.6287
1.96758, -1, -24.5972, 3.98425, 19.7228, -156.702, -93.9762, 77.3343
1.97563, -1, -24.7605, 3.94068, 19.7335, -156.753, -93.9581, 77.04
1.98357, -1, -24.9238, 3.89711, 19.7442, -156.804, -93.9402, 76.7462
1.99158, -1, -25.0873, 3.85354, 19.7551, -156.854, -93.9226, 76.4519
1.99969, -1, -25.2505, 3.80996, 19.766, -156.904, -93.9051, 76.1576
2.00757, -1, -25.4136, 3.76636, 19.7769, -156.955, -93.8876, 75.8632
2.01559, -1, -25.5765, 3.72268, 19.7876, -157.005, -93.8699, 75.569
2.02457, -1, -25.7392, 3.67907, 19.7983, -157.055, -93.852, 75.2743
2.03157, -1, -25.9017, 3.63559, 19.8091, -157.106, -93.8337, 74.9794
2.04062, -1, -26.0639, 3.59199, 19.8199, -157.156, -93.8153, 74.6847
2.04657, -1, -26.2257, 3.5485, 19.8307, -157.207, -93.7972, 74.3903
2.05557, -1, -26.3872, 3.50512, 19.8414, -157.258, -93.7794, 74.0954
2.06358, -1, -26.5488, 3.46164, 19.8522, -157.308, -93.7617, 73.8001
2.07162, -1, -26.7107, 3.41817, 19.863, -157.359, -93.7441, 73.505
2.07963, -1, -26.873, 3.37467, 19.8739, -157.41, -93.7264, 73.2098
2.0889, -1, -27.0356, 3.33105, 19.8847, -157.46, -93.7085, 72.9144
2.09562, -1, -27.1985, 3.28742, 19.8955, -157.511, -93.6903, 72.619
2.10367, -1, -27.3616, 3.24381, 19.9062, -157.561, -93.6719, 72.3238
2.11158, -1, -27.5253, 3.2, 19.917, -157.612, -93.6539, 72.0285
2.11962, -1, -27.6891, 3.1563, 19.9278, -157.663, -93.636, 71.733
2.12762, -1, -27.8532, 3.11268, 19.9385, -157.713, -93.6182, 71.4373
2.13556, -1, -28.0174, 3.06893, 19.9494, -157.764, -93.6006, 71.1419
2.14356, -1, -28.1818, 3.0252, 19.9601, -157.815, -93.5828, 70.8461
2.15164, -1, -28.346, 2.98148, 19.9709, -157.865, -93.5648, 70.5499
2.15963, -1, -28.51, 2.93771, 19.9819, -157.916, -93.5464, 70.254
2.16758, -1, -28.6738, 2.89405, 19.9927, -157.967, -93.5279, 69.9582
2.17563, -1, -28.8373, 2.85038, 20.0035, -158.018, -93.5097, 69.6621
2.18356, -1, -29.0003, 2.80667, 20.0142, -158.069, -93.4918, 69.3655
2.19158, -1, -29.1631, 2.76303, 20.025, -158.12, -93.4741, 69.0692
2.19968, -1, -29.3258, 2.71933, 20.0359, -158.17, -93.4565, 68.7724
2.20757, -1, -29.4885, 2.67566, 20.0467, -158.222, -93.4387, 68.4755
2.2156, -1, -29.6513, 2.6319, 20.0575, -158.273, -93.4207, 68.1785
2.22371, -1, -29.8143, 2.5881, 20.0683, -158.323, -93.4025, 67.8819
2.23167, -1, -29.9774, 2.54436, 20.0792, -158.375, -93.384, 67.5851
2.23976, -1, -30.1407, 2.50049, 20.0903, -158.425, -93.3657, 67.2881
2.24773, -1, -30.3044, 2.45651, 20.1012, -158.476, -93.3478, 66.991
2.25567, -1, -30.4688, 2.41256, 20.1122, -158.527, -93.33, 66.6941
2.26367, -1, -30.6335, 2.36853, 20.1229, -158.578, -93.3123, 66.3969
2.27179, -1, -30.7985, 2.32458, 20.1337, -158.629, -93.2946, 66.0993
2.2798, -1, -30.9636, 2.28064, 20.1447, -158.68, -93.2765, 65.802
2.2876, -1, -31.1287, 2.23659, 20.1555, -158.731, -93.2581, 65.5049
2.29568, -1, -31.2938, 2.19266, 20.1664, -158.782, -93.2395, 65.2074
2.30367, -1, -31.4587, 2.14882, 20.1772, -158.833, -93.2212, 64.9096
2.31205, -1, -31.6233, 2.1048, 20.188, -158.884, -93.2032, 64.6119
2.31987, -1, -31.7879, 2.06086, 20.199, -158.936, -93.1854, 64.314
2.32783, -1, -31.9521, 2.01696, 20.2099, -158.987, -93.1679, 64.0159
2.33604, -1, -32.116, 1.97297, 20.2209, -159.037, -93.1502, 63.7177
2.34406, -1, -32.2797, 1.92899, 20.2318, -159.089, -93.1323, 63.4199
2.35206, -1, -32.4432, 1.885, 20.2427, -159.14, -93.114, 63.1219
2.36049, -1, -32.6069, 1.84086, 20.2537, -159.191, -93.0956, 62.8236
2.36893, -1, -32.7707, 1.7968, 20.2646, -159.243, -93.0774, 62.5252
2.37613, -1, -32.9347, 1.75269, 20.2755, -159.294, -93.0593, 62.227
2.38418, -1, -33.0991, 1.70843, 20.2864, -159.345, -93.0415, 61.9284
2.39297, -1, -33.1814, 1.68632, 20.2918, -159.371, -93.0237, 61.6295
2.40013, -1, -33.3462, 1.64216, 20.3027, -159.422, -93.0148, 61.331
2.40842, -1, -33.5114, 1.59792, 20.3137, -159.473, -92.9968, 61.0325
2.41556, -1, -33.677, 1.55365, 20.3246, -159.525, -92.9786, 60.8831
2.42354, -1, -33.8427, 1.50943, 20.3356, -159.575, -92.96, 60.584
2.43162, -1, -34.0086, 1.4652, 20.3464, -159.627, -92.9413, 60.2849
2.43965, -1, -34.1745, 1.42105, 20.3573, -159.678, -92.9229, 59.9859
2.44754, -1, -34.3406, 1.37688, 20.3683, -159.73, -92.9049, 59.6863
2.4556, -1, -34.5067, 1.33266, 20.3792, -159.781, -92.887, 59.3866
2.46354, -1, -34.6725, 1.28849, 20.3901, -159.833, -92.8693, 59.0873
2.47158, -1, -34.8377, 1.24432, 20.401, -159.884, -92.8514, 58.788
2.47967, -1, -35.0028, 1.20008, 20.4119, -159.935, -92.8331, 58.4885
2.48754, -1, -35.1676, 1.15579, 20.423, -159.987, -92.8146, 58.1887
2.49553, -1, -35.3321, 1.11149, 20.4341, -160.038, -92.7961, 57.889
2.50363, -1, -35.4961, 1.06733, 20.4452, -160.09, -92.7778, 57.5893
2.51157, -1, -35.6584, 1.0235, 20.4565, -160.141, -92.7597, 57.2894
2.51961, -1, -35.8178, 0.980237, 20.468, -160.192, -92.7418, 56.9909
2.52858, -1, -35.9734, 0.938109, 20.4798, -160.243, -92.7241, 56.6957
2.53554, -1, -36.1238, 0.897623, 20.4917, -160.292, -92.7066, 56.4065
2.54354, -1, -36.2666, 0.859376, 20.5036, -160.339, -92.6894, 56.1275
2.55163, -1, -36.3997, 0.824045, 20.5152, -160.384, -92.673, 55.8649
2.5596, -1, -36.5216, 0.791747, 20.5258, -160.425, -92.6578, 55.6252
2.56754, -1, -36.6307, 0.762886, 20.5351, -160.46, -92.6445, 55.4135
2.57566, -1, -36.7255, 0.737837, 20.5424, -160.49, -92.6335, 55.235
2.58354, -1, -36.8056, 0.7166, 20.5475, -160.515, -92.6248, 55.0915
2.59157, -1, -36.8719, 0.699117, 20.5504, -160.534, -92.6184, 54.983
2.59975, -1, -36.9251, 0.685121, 20.5517, -160.547, -92.6139, 54.9062
2.60758, -1, -36.9656, 0.674291, 20.5521, -160.556, -92.6111, 54.8544
2.61555, -1, -36.9952, 0.666526, 20.5519, -160.562, -92.6094, 54.8229
2.62361, -1, -37.0155, 0.661451, 20.5514, -160.565, -92.6084, 54.805
2.63156, -1, -37.0279, 0.658435, 20.5511, -160.567, -92.6079, 54.7959
2.63962, -1, -37.0346, 0.656821, 20.5509, -160.568, -92.6077, 54.7916
2.64761, 2, -37.0368, 0.656098, 20.5508, -160.568, -92.6076, 54.7896
2.65553, 2, -37.0366, 0.655793, 20.5508, -160.568, -92.6075, 54.7888
2.66354, 2, -37.036, 0.655658, 20.5507, -160.568, -92.6075, 54.7884
2.67164, 2, -37.0357, 0.655596, 20.5507, -160.569, -92.6075, 54.7882
2.67961, 2, -37.0361, 0.655548, 20.5507, -160.569, -92.6076, 54.7882
2.68754, 2, -37.0371, 0.65551, 20.5506, -160.568, -92.6076, 54.7882
2.69562, 2, -37.0382, 0.655412, 20.5505, -160.569, -92.6076, 54.7881
2.70354, 2, -37.0397, 0.655232, 20.5503, -160.568, -92.6076, 54.7882
2.71157, 2, -37.0411, 0.654998, 20.5501, -160.568, -92.6076, 54.7883
2.7197, 2, -37.0422, 0.654761, 20.5499, -160.568, -92.6077, 54.7884
2.72764, 2, -37.0432, 0.654548, 20.5497, -160.568, -92.6077, 54.7884
2.73564, 2, -37.0436, 0.654438, 20.5495, -160.568, -92.6077, 54.7886
2.74375, 2, -37.0437, 0.654387, 20.5493, -160.568, -92.6078, 54.7887
2.75172, 2, -37.0432, 0.654394, 20.5492, -160.568, -92.6079, 54.7888
2.7597, 2, -37.0424, 0.654448, 20.5491, -160.568, -92.6079, 54.789
2.76772, 2, -37.0414, 0.654496, 20.549, -160.568, -92.6079, 54.7892
2.77559, 2, -37.0398, 0.654572, 20.549, -160.568, -92.6079, 54.7893
2.78358, 2, -37.0384, 0.654663, 20.5489, -160.568, -92.608, 54.7895
2.79168, 2, -37.0373, 0.654694, 20.5488, -160.568, -92.6081, 54.7896
2.79968, 2, -37.0366, 0.654693, 20.5488, -160.568, -92.6081, 54.7897
2.80766, 2, -37.0364, 0.654677, 20.5487, -160.568, -92.6081, 54.7897
2.81581, 2, -37.0365, 0.654637, 20.5487, -160.568, -92.6081, 54.7898
2.82409, 2, -37.0367, 0.654564, 20.5487, -160.568, -92.6081, 54.7898
2.83187, 2, -37.0369, 0.654519, 20.5487, -160.568, -92.6081, 54.7898
2.84009, 2, -37.0375, 0.654467, 20.5486, -160.568, -92.6081, 54.7898
2.84842, 2, -37.0381, 0.654462, 20.5486, -160.568, -92.6081, 54.7899
2.85604, 2, -37.0389, 0.654467, 20.5486, -160.568, -92.6081, 54.7899
2.86414, 2, -37.0395, 0.654474, 20.5486, -160.568, -92.6082, 54.79
2.87255, 2, -37.0399, 0.654489, 20.5486, -160.568, -92.6082, 54.7901
2.88018, 2, -37.04, 0.654507, 20.5486, -160.568, -92.6082, 54.7901
2.88818, 2, -37.0401, 0.654523, 20.5486, -160.568, -92.6082, 54.7902
2.89644, 2, -37.04, 0.654561, 20.5486, -160.568, -92.6082, 54.7902
2.90353, 2, -37.0399, 0.654564, 20.5486, -160.568, -92.6082, 54.7902
2.91219, 2, -37.0394, 0.654557, 20.5486, -160.568, -92.6082, 54.7903
2.9205, 2, -37.0391, 0.654519, 20.5486, -160.568, -92.6082, 54.7904
2.92752, 2, -37.0389, 0.654514, 20.5486, -160.568, -92.6082, 54.7904
2.93559, 2, -37.0388, 0.654508, 20.5486, -160.568, -92.6082, 54.7904
2.94357, 2, -37.0388, 0.654498, 20.5486, -160.568, -92.6082, 54.7905
2.95155, 2, -37.0387, 0.654488, 20.5486, -160.568, -92.6082, 54.7905
2.95965, 2, -37.0387, 0.654484, 20.5485, -160.568, -92.6083, 54.7906
2.96752, 2, -37.0388, 0.654469, 20.5485, -160.568, -92.6083, 54.7906
2.97553, 2, -37.0389, 0.654482, 20.5485, -160.568, -92.6083, 54.7908
2.98359, 2, -37.039, 0.654493, 20.5485, -160.568, -92.6083, 54.7908
2.99154, 2, -37.0392, 0.654498, 20.5485, -160.568, -92.6083, 54.7909
2.99959, 2, -37.0394, 0.654519, 20.5485, -160.568, -92.6083, 54.7909
3.00762, 2, -37.0394, 0.654539, 20.5485, -160.568, -92.6083, 54.7909
3.01552, 2, -37.0395, 0.654556, 20.5485, -160.568, -92.6083, 54.791
3.0236, 2, -37.0395, 0.654545, 20.5484, -160.568, -92.6083, 54.791
3.03259, 2, -37.0394, 0.65453, 20.5484, -160.568, -92.6083, 54.791
3.03961, 2, -37.0393, 0.654508, 20.5484, -160.568, -92.6083, 54.7911
3.04759, 2, -37.0393, 0.6545, 20.5484, -160.568, -92.6083, 54.7912
3.05553, 2, -37.0393, 0.654494, 20.5484, -160.568, -92.6083, 54.7912
3.06352, 2, -37.0394, 0.654494, 20.5484, -160.568, -92.6083, 54.7913
3.07161, 2, -37.0394, 0.654498, 20.5484, -160.568, -92.6083, 54.7914
3.07965, 2, -37.0393, 0.654501, 20.5484, -160.568, -92.6083, 54.7914
3.08752, 2, -37.0393, 0.654502, 20.5484, -160.568, -92.6083, 54.7914
3.09562, 2, -37.0393, 0.654513, 20.5484, -160.568, -92.6083, 54.7915
3.10353, 2, -37.0393, 0.654544, 20.5484, -160.568, -92.6083, 54.7916
3.11158, 2, -37.0393, 0.654558, 20.5484, -160.568, -92.6083, 54.7916
3.11965, 2, -37.0393, 0.654565, 20.5484, -160.568, -92.6083, 54.7916
3.12753, 2, -37.0393, 0.654549, 20.5483, -160.568, -92.6083, 54.7917
3.13552, 2, -37.0393, 0.654531, 20.5483, -160.568, -92.6083, 54.7917
3.14359, 2, -37.0393, 0.654527, 20.5483, -160.568, -92.6083, 54.7918
3.15155, 2, -37.0392, 0.654532, 20.5483, -160.568, -92.6084, 54.7918
3.15962, 2, -37.0392, 0.654523, 20.5483, -160.568, -92.6084, 54.7918
3.16759, 2, -37.0392, 0.654512, 20.5483, -160.568, -92.6084, 54.7919
3.17555, 2, -37.0392, 0.654507, 20.5483, -160.568, -92.6084, 54.7919
3.18352, 2, -37.0392, 0.654505, 20.5483, -160.568, -92.6084, 54.792
3.19161, 2, -37.0392, 0.654503, 20.5483, -160.568, -92.6084, 54.792
3.1996, 2, -37.0392, 0.654503, 20.5483, -160.568, -92.6084, 54.7921
3.20752, 2, -37.0392, 0.654533, 20.5483, -160.568, -92.6084, 54.7921
3.2156, 2, -37.0392, 0.654528, 20.5482, -160.568, -92.6084, 54.7921
3.22361, 2, -37.0392, 0.654521, 20.5482, -160.568, -92.6084, 54.7921
3.23164, 2, -37.0391, 0.65453, 20.5482, -160.568, -92.6084, 54.7921
3.23973, 2, -37.0391, 0.654544, 20.5482, -160.568, -92.6084, 54.7922
3.24769, 2, -37.0391, 0.654529, 20.5482, -160.568, -92.6084, 54.7922
3.25563, 2, -37.0391, 0.654515, 20.5482, -160.568, -92.6084, 54.7923
3.26369, 2, -37.0391, 0.654508, 20.5482, -160.568, -92.6084, 54.7924
3.27166, 2, -37.0391, 0.654505, 20.5482, -160.568, -92.6084, 54.7924
3.27973, 2, -37.0391, 0.654504, 20.5482, -160.568, -92.6085, 54.7925
3.28763, 2, -37.0391, 0.654503, 20.5481, -160.568, -92.6085, 54.7925
3.29558, 2, -37.0391, 0.654514, 20.5481, -160.568, -92.6084, 54.7925
3.30361, 2, -37.039, 0.654515, 20.5481, -160.568, -92.6084, 54.7925
3.31177, 2, -37.039, 0.654538, 20.5481, -160.568, -92.6084, 54.7926
3.31978, 2, -37.039, 0.654555, 20.5481, -160.568, -92.6084, 54.7926
3.32789, 2, -37.039, 0.654534, 20.5481, -160.568, -92.6085, 54.7926
3.33597, 2, -37.039, 0.654546, 20.5481, -160.568, -92.6085, 54.7926
3.34395, 2, -37.039, 0.654541, 20.5481, -160.568, -92.6085, 54.7927
3.35202, 2, -37.0389, 0.654546, 20.5481, -160.568, -92.6085, 54.7927
3.36022, 2, -37.0389, 0.654522, 20.548, -160.568, -92.6085, 54.7927
3.36805, 2, -37.0389, 0.654541, 20.548, -160.567, -92.6085, 54.7927
3.37625, 2, -37.0389, 0.654528, 20.548, -160.567, -92.6085, 54.7927
3.38418, 2, -37.0389, 0.654532, 20.548, -160.567, -92.6085, 54.7928
3.3921, 2, -37.0388, 0.654523, 20.548, -160.567, -92.6086, 54.7928
3.40011, 2, -37.0388, 0.65453, 20.548, -160.567, -92.6085, 54.7928
3.40756, 2, -37.0388, 0.654534, 20.548, -160.567, -92.6085, 54.7928
3.41558, 2, -37.0388, 0.654546, 20.548, -160.567, -92.6085, 54.7928
3.42351, 2, -37.0388, 0.654559, 20.548, -160.567, -92.6085, 54.7928
3.43158, 2, -37.0388, 0.654554, 20.548, -160.567, -92.6085, 54.7928
3.43958, 2, -37.0387, 0.654556, 20.548, -160.567, -92.6085, 54.7928
3.44755, 2, -37.0387, 0.654564, 20.548, -160.567, -92.6085, 54.7928
3.45556, 2, -37.0387, 0.654567, 20.548, -160.567, -92.6085, 54.7929
3.46352, 2, -37.0387, 0.654569, 20.548, -160.567, -92.6085, 54.793
3.47152, 2, -37.0387, 0.65457, 20.548, -160.567, -92.6085, 54.793
3.47966, 2, -37.0387, 0.65457, 20.5479, -160.567, -92.6086, 54.7931
3.48751, 2, -37.0387, 0.65457, 20.5479, -160.567, -92.6086, 54.793
3.49551, 2, -37.0387, 0.654552, 20.5479, -160.567, -92.6085, 54.793
3.50356, 2, -37.0387, 0.654544, 20.5479, -160.567, -92.6085, 54.7931
3.51155, 2, -37.0387, 0.654558, 20.5479, -160.567, -92.6085, 54.7931
3.51958, 2, -37.0387, 0.654572, 20.5479, -160.567, -92.6085, 54.7931
3.52758, 2, -37.0387, 0.654576, 20.5479, -160.567, -92.6085, 54.7931
3.53657, 2, -37.0387, 0.654573, 20.5479, -160.567, -92.6085, 54.7931
3.54351, 2, -37.0387, 0.654572, 20.5479, -160.567, -92.6086, 54.7931
3.5516, 2, -37.0387, 0.654571, 20.5479, -160.567, -92.6086, 54.7931
3.55965, 2, -37.0386, 0.654578, 20.5479, -160.567, -92.6086, 54.7931
3.56751, 2, -37.0386, 0.654568, 20.5479, -160.567, -92.6087, 54.7931
3.57558, 2, -37.0386, 0.654551, 20.5478, -160.567, -92.6087, 54.7932
3.58356, 2, -37.0386, 0.654554, 20.5478, -160.567, -92.6086, 54.7932
3.59153, 2, -37.0386, 0.65457, 20.5478, -160.567, -92.6086, 54.7931
3.59966, 2, -37.0386, 0.654575, 20.5478, -160.567, -92.6086, 54.7931
3.60752, 2, -37.0386, 0.654562, 20.5478, -160.567, -92.6086, 54.7931
3.61554, 2, -37.0386, 0.654559, 20.5478, -160.567, -92.6086, 54.7932
3.62358, 2, -37.0386, 0.654577, 20.5478, -160.567, -92.6086, 54.7932
3.63154, 2, -37.0386, 0.654574, 20.5478, -160.567, -92.6087, 54.7932
3.63958, 2, -37.0386, 0.654579, 20.5478, -160.567, -92.6086, 54.7932
3.64772, 2, -37.0386, 0.654587, 20.5478, -160.567, -92.6086, 54.7932
3.65554, 2, -37.0386, 0.654602, 20.5478, -160.567, -92.6086, 54.7932
3.66366, 2, -37.0385, 0.65459, 20.5478, -160.567, -92.6087, 54.7932
3.67156, 2, -37.0385, 0.654579, 20.5478, -160.567, -92.6087, 54.7932
3.6796, 2, -37.0385, 0.654594, 20.5478, -160.567, -92.6086, 54.7932
3.68758, 2, -37.0385, 0.654594, 20.5478, -160.567, -92.6086, 54.7932
3.6955, 2, -37.0385, 0.654593, 20.5478, -160.567, -92.6087, 54.7932
3.70362, 2, -37.0385, 0.654605, 20.5477, -160.567, -92.6086, 54.7932
3.71159, 2, -37.0386, 0.654591, 20.5477, -160.567, -92.6086, 54.7932
3.71958, 2, -37.0385, 0.65458, 20.5477, -160.567, -92.6086, 54.7932
3.72756, 4, -37.0385, 0.654575, 20.5477, -160.567, -92.6086, 54.7932
3.73567, 4, -37.0385, 0.654585, 20.5477, -160.567, -92.6086, 54.7932
3.74361, 4, -37.0385, 0.654584, 20.5477, -160.567, -92.6087, 54.7932
3.75168, 4, -37.0385, 0.654594, 20.5477, -160.567, -92.6087, 54.7932
3.75973, 4, -37.0384, 0.654593, 20.5477, -160.567, -92.6087, 54.7932
3.76762, 4, -37.0384, 0.654593, 20.5477, -160.567, -92.6087, 54.7932
3.77552, 4, -37.0385, 0.6546, 20.5477, -160.567, -92.6086, 54.7932
3.78367, 4, -37.0385, 0.654609, 20.5477, -160.567, -92.6086, 54.7932
3.79161, 4, -37.0385, 0.654605, 20.5477, -160.567, -92.6087, 54.7932
3.79962, 4, -37.0385, 0.654599, 20.5477, -160.567, -92.6087, 54.7933
3.80769, 4, -37.0384, 0.654596, 20.5476, -160.567, -92.6087, 54.7933
3.81597, 4, -37.0384, 0.654589, 20.5476, -160.567, -92.6087, 54.7933
3.82377, 4, -37.0384, 0.654604, 20.5476, -160.567, -92.6087, 54.7933
3.83221, 4, -37.0384, 0.654591, 20.5476, -160.567, -92.6086, 54.7933
3.8529, 4, -37.0383, 0.654597, 20.5476, -160.567, -92.6087, 54.7933
3.85476, 4, -37.0383, 0.654597, 20.5476, -160.567, -92.6087, 54.7933
3.85746, 4, -37.0383, 0.654603, 20.5476, -160.567, -92.6087, 54.7932
3.86663, 4, -37.0382, 0.65461, 20.5476, -160.567, -92.6087, 54.7932
3.87627, 4, -37.038, 0.654565, 20.5476, -160.567, -92.6087, 54.7932
3.88153, 4, -37.0375, 0.654443, 20.5476, -160.567, -92.6087, 54.7933
3.88808, 4, -37.0365, 0.65413, 20.5477, -160.567, -92.6087, 54.7933
3.8962, 4, -37.0325, 0.650545, 20.5486, -160.567, -92.6087, 54.7932
3.90435, 4, -37.0249, 0.644526, 20.5511, -160.567, -92.6087, 54.7932
3.91148, 4, -37.0136, 0.640188, 20.5533, -160.566, -92.6087, 54.7932
3.92028, 4, -36.998, 0.628616, 20.5607, -160.565, -92.6087, 54.7933
3.92755, 5, -36.9771, 0.612575, 20.5732, -160.563, -92.6087, 54.7933
3.9355, 5, -36.9505, 0.592132, 20.5918, -160.559, -92.6086, 54.7932
3.9435, 5, -36.9188, 0.567199, 20.6172, -160.554, -92.6083, 54.7932
3.9517, 5, -36.8823, 0.537814, 20.6494, -160.547, -92.6079, 54.7931
3.96098, 5, -36.8408, 0.485064, 20.7093, -160.534, -92.6063, 54.7931
3.9675, 5, -36.7942, 0.465133, 20.7319, -160.529, -92.6056, 54.7931
3.97566, 5, -36.7424, 0.422149, 20.7804, -160.518, -92.6041, 54.7931
3.98371, 5, -36.686, 0.375469, 20.8319, -160.506, -92.6025, 54.7931
3.99152, 5, -36.6256, 0.325969, 20.8856, -160.494, -92.6008, 54.793
3.99955, 5, -36.5614, 0.274343, 20.9404, -160.482, -92.599, 54.793
4.00756, 5, -36.4947, 0.221348, 20.9957, -160.469, -92.5972, 54.793
4.01551, 5, -36.4268, 0.167739, 21.0511, -160.457, -92.5953, 54.7929
4.02532, 5, -36.324, 0.0869521, 21.1343, -160.439, -92.5925, 54.793
4.03392, 5, -36.2896, 0.033095, 21.1897, -160.428, -92.5905, 54.7931
4.03959, 5, -36.2207, 0.00624059, 21.2175, -160.421, -92.5896, 54.7931
4.05156, 5, -36.1176, -0.0739818, 21.3006, -160.403, -92.5867, 54.7931
4.05565, 5, -36.0833, -0.100609, 21.3283, -160.397, -92.5857, 54.7931
4.06371, 5, -36.0146, -0.153704, 21.3835, -160.384, -92.5837, 54.7932
4.07158, 5, -35.946, -0.206599, 21.4387, -160.371, -92.5816, 54.7934
4.07955, 5, -35.8774, -0.259328, 21.4938, -160.358, -92.5796, 54.7937
4.08754, 5, -35.8086, -0.311906, 21.5488, -160.346, -92.5776, 54.7941
4.09559, 5, -35.7394, -0.364536, 21.6038, -160.333, -92.5756, 54.7948
4.10374, 5, -35.6702, -0.417144, 21.6586, -160.32, -92.5737, 54.7957
4.11248, 5, -35.6006, -0.469824, 21.7131, -160.308, -92.5716, 54.7968
4.11966, 5, -35.5308, -0.522581, 21.7675, -160.295, -92.5696, 54.798
4.12766, 5, -35.4607, -0.575341, 21.8217, -160.283, -92.5676, 54.7994
4.13639, 5, -35.3905, -0.6281, 21.8756, -160.27, -92.5655, 54.8009
4.14349, 5, -35.32, -0.680819, 21.9296, -160.257, -92.5634, 54.8026
4.1517, 5, -35.2495, -0.733487, 21.9835, -160.244, -92.5614, 54.8044
4.16045, 5, -35.1789, -0.785835, 22.0372, -160.231, -92.5593, 54.8063
4.16749, 5, -35.1083, -0.837999, 22.0909, -160.217, -92.5571, 54.8084
4.17679, 5, -35.0377, -0.89011, 22.1444, -160.204, -92.555, 54.8106
4.18379, 5, -34.9672, -0.941811, 22.1977, -160.191, -92.5528, 54.813
4.19171, 5, -34.8967, -0.993391, 22.251, -160.178, -92.5506, 54.8154
4.20287, 5, -34.7908, -1.07043, 22.3308, -160.159, -92.5473, 54.8192
4.20784, 5, -34.7555, -1.0961, 22.3572, -160.152, -92.5462, 54.8206
4.21549, 5, -34.6848, -1.14748, 22.41, -160.14, -92.5441, 54.8234
4.22352, 5, -34.6138, -1.1987, 22.4627, -160.127, -92.5418, 54.8263
4.23173, 5, -34.5428, -1.25005, 22.515, -160.114, -92.5396, 54.8293
4.23964, 5, -34.4716, -1.30137, 22.5673, -160.1, -92.5374, 54.8324
4.24771, 5, -34.4001, -1.35267, 22.6195, -160.086, -92.5352, 54.8355
4.25631, 5, -34.3285, -1.40395, 22.6715, -160.073, -92.5329, 54.8388
4.26372, 5, -34.2568, -1.45515, 22.7233, -160.059, -92.5306, 54.8423
4.27161, 5, -34.1849, -1.50617, 22.7752, -160.045, -92.5283, 54.8459
4.27982, 5, -34.113, -1.55693, 22.8268, -160.032, -92.526, 54.8495
4.28795, 5, -34.0409, -1.60757, 22.8783, -160.018, -92.5237, 54.8533
4.2956, 5, -33.9687, -1.65797, 22.9298, -160.005, -92.5212, 54.8573
4.30353, 5, -33.8966, -1.70807, 22.9811, -159.991, -92.519, 54.8612
4.31169, 5, -33.8245, -1.75805, 23.0321, -159.978, -92.5167, 54.8653
4.3197, 5, -33.7522, -1.80795, 23.0831, -159.964, -92.5144, 54.8694
4.33012, 5, -33.6799, -1.85779, 23.1339, -159.95, -92.5121, 54.8736
4.33684, 5, -33.6075, -1.90756, 23.1845, -159.935, -92.5098, 54.8778
4.34482, 5, -33.5348, -1.95759, 23.235, -159.921, -92.5075, 54.8821
4.352, 5, -33.462, -2.00791, 23.2855, -159.907, -92.5053, 54.886
4.36099, 5, -33.3893, -2.05859, 23.3358, -159.893, -92.503, 54.8891
4.36806, 5, -33.3168, -2.10971, 23.3862, -159.879, -92.5005, 54.8907
4.37606, 6, -33.2445, -2.16143, 23.437, -159.864, -92.4979, 54.891
4.38727, 6, -33.1726, -2.21402, 23.488, -159.85, -92.4949, 54.8894
4.39226, 6, -33.1368, -2.24068, 23.5138, -159.834, -92.4912, 54.8847
4.40011, 6, -33.0655, -2.29461, 23.5925, -159.817, -92.4864, 54.8744
4.40892, 7, -32.9946, -2.3497, 23.6192, -159.808, -92.4835, 54.8677
4.41548, 7, -32.9242, -2.40591, 23.6736, -159.79, -92.4766, 54.8524
4.42359, 7, -32.8544, -2.46353, 23.7293, -159.77, -92.4677, 54.8352
4.43165, 7, -32.7851, -2.52257, 23.7864, -159.748, -92.457, 54.8177
4.43945, 7, -32.7165, -2.58321, 23.8447, -159.726, -92.4442, 54.8006
4.44754, 8, -32.6486, -2.64544, 23.9044, -159.703, -92.4296, 54.7838
4.45569, 8, -32.5814, -2.70934, 23.9652, -159.678, -92.4131, 54.7671
4.46572, 8, -32.5148, -2.77495, 24.0584, -159.638, -92.3848, 54.7405
4.4715, 8, -32.449, -2.84215, 24.09, -159.624, -92.3746, 54.731
4.47949, 8, -32.3838, -2.91083, 24.1539, -159.596, -92.3532, 54.7109
4.48754, 9, -32.3191, -2.98083, 24.2187, -159.568, -92.3308, 54.689
4.49548, 9, -32.2551, -3.05215, 24.2846, -159.538, -92.3071, 54.6653
4.5052, 9, -32.1601, -3.16163, 24.3852, -159.49, -92.2691, 54.6268
4.51164, 9, -32.1287, -3.19872, 24.4192, -159.474, -92.2556, 54.6134
4.51948, 9, -32.0663, -3.27396, 24.488, -159.442, -92.2271, 54.5856
4.52913, 10, -32.0044, -3.35049, 24.5931, -159.391, -92.1823, 54.5409
4.53548, 10, -31.9433, -3.42837, 24.6287, -159.373, -92.1668, 54.525
4.54449, 10, -31.8826, -3.5077, 24.7006, -159.337, -92.1348, 54.4917
4.55486, 10, -31.7927, -3.62936, 24.8105, -159.282, -92.0831, 54.4388
4.55964, 10, -31.763, -3.67064, 24.8476, -159.264, -92.0653, 54.4207
4.56746, 11, -31.7041, -3.75426, 24.9226, -159.225, -92.0289, 54.3835
4.57555, 11, -31.6456, -3.83941, 24.9986, -159.185, -91.9916, 54.3444
4.58363, 11, -31.5878, -3.92599, 25.0754, -159.145, -91.9522, 54.3034
4.59247, 11, -31.5304, -4.01404, 25.1532, -159.104, -91.9112, 54.2608
4.60062, 11, -31.4736, -4.10358, 25.232, -159.061, -91.8696, 54.2173
4.60746, 12, -31.4174, -4.19458, 25.3119, -159.018, -91.8263, 54.1723
4.61555, 12, -31.3615, -4.28699, 25.3929, -158.974, -91.7808, 54.1251
4.62351, 12, -31.3062, -4.38081, 25.475, -158.929, -91.7349, 54.0762
4.63173, 12, -31.2514, -4.47592, 25.5581, -158.883, -91.6878, 54.0266
4.64083, 12, -31.1971, -4.57241, 25.6422, -158.836, -91.6385, 53.975
4.64746, 13, -31.1434, -4.6704, 25.7272, -158.788, -91.5885, 53.9215
4.65564, 13, -31.0901, -4.76971, 25.8131, -158.739, -91.537, 53.8669
4.66348, 13, -31.0374, -4.87048, 25.9001, -158.69, -91.4833, 53.8111
4.67148, 13, -30.9851, -4.97285, 25.9882, -158.639, -91.4295, 53.7534
4.67994, 13, -30.9334, -5.07663, 26.0774, -158.588, -91.3737, 53.694
4.68773, 14, -30.8822, -5.18181, 26.1677, -158.535, -91.3165, 53.6339
4.69549, 14, -30.8317, -5.2885, 26.259, -158.481, -91.2587, 53.5718
4.7056, 14, -30.7817, -5.39666, 26.3513, -158.428, -91.1985, 53.5083
4.71164, 14, -30.7322, -5.5063, 26.4444, -158.373, -91.1381, 53.444
4.71955, 14, -30.6831, -5.61752, 26.5385, -158.316, -91.0755, 53.3773
4.72752, 14, -30.6347, -5.73019, 26.6336, -158.26, -91.0117, 53.3095
4.73556, 15, -30.5866, -5.84428, 26.7299, -158.201, -90.9467, 53.2408
4.74365, 15, -30.5391, -5.95959, 26.8275, -158.143, -90.8799, 53.1698
4.75158, 15, -30.4922, -6.07627, 26.926, -158.083, -90.8126, 53.0983
4.7607, 15, -30.4457, -6.19444, 27.0254, -158.023, -90.743, 53.0247
4.76759, 15, -30.3997, -6.31396, 27.1257, -157.961, -90.6729, 52.9492
4.77554, 16, -30.3543, -6.43508, 27.227, -157.898, -90.6005, 52.8731
4.78362, 16, -30.3095, -6.55765, 27.3294, -157.835, -90.5279, 52.7945
4.79154, 16, -30.2649, -6.6816, 27.433, -157.771, -90.4532, 52.7153
4.79951, 16, -30.221, -6.8071, 27.5378, -157.706, -90.3776, 52.6344
4.80794, 16, -30.1775, -6.93413, 27.6435, -157.64, -90.3003, 52.5522
4.81565, 17, -30.1344, -7.06279, 27.75, -157.573, -90.2221, 52.4688
4.82373, 17, -30.0919, -7.19298, 27.8574, -157.505, -90.1423, 52.384
4.83206, 17, -30.0499, -7.32463, 27.9658, -157.436, -90.0611, 52.2983
4.84081, 17, -30.0084, -7.4575, 28.0754, -157.367, -89.9789, 52.2103
4.8479, 17, -29.9674, -7.59174, 28.1863, -157.296, -89.8951, 52.1219
4.85652, 18, -29.9269, -7.72747, 28.2982, -157.225, -89.8102, 52.0316
4.86407, 18, -29.887, -7.86461, 28.411, -157.152, -89.7237, 51.9405
4.87203, 18, -29.8475, -8.00316, 28.5246, -157.079, -89.6364, 51.8473
4.88096, 18, -29.8084, -8.14279, 28.6391, -157.005, -89.5477, 51.7534
4.88894, 18, -29.7698, -8.28377, 28.7549, -156.93, -89.4575, 51.6575
4.89611, 19, -29.7507, -8.4262, 28.8719, -156.854, -89.3666, 51.5611
4.90404, 19, -29.7128, -8.49802, 28.9309, -156.816, -89.3204, 51.4629
4.91278, 19, -29.6567, -8.71587, 29.1089, -156.7, -89.1801, 51.3642
4.91947, 19, -29.6383, -8.78917, 29.1686, -156.661, -89.1328, 51.3141
4.92755, 19, -29.6019, -8.93658, 29.2886, -156.581, -89.0376, 51.214
4.93662, 20, -29.5481, -9.16045, 29.4707, -156.461, -88.8923, 51.0606
4.94347, 20, -29.5304, -9.2358, 29.5321, -156.421, -88.8434, 51.0091
4.95151, 20, -29.4952, -9.38773, 29.6555, -156.339, -88.7449, 50.9048
4.96332, 20, -29.4435, -9.61788, 29.8422, -156.215, -88.5948, 50.7462
4.96749, 20, -29.4265, -9.69516, 29.9048, -156.173, -88.5443, 50.6929
4.97548, 20, -29.3928, -9.85067, 30.0309, -156.089, -88.4424, 50.585
4.98347, 21, -29.3596, -10.0077, 30.1579, -156.003, -88.3392, 50.4763
4.99152, 21, -29.3267, -10.1663, 30.2861, -155.917, -88.2352, 50.3662
4.99946, 21, -29.2942, -10.326, 30.4153, -155.83, -88.1301, 50.2556
5.00883, 21, -29.2622, -10.4866, 30.5453, -155.743, -88.0237, 50.1441
5.01561, 21, -29.2306, -10.6484, 30.6761, -155.654, -87.9167, 50.0315
5.02354, 22, -29.1994, -10.8117, 30.8079, -155.564, -87.8084, 49.9182
5.03172, 22, -29.1685, -10.9764, 30.9407, -155.474, -87.6992, 49.804
5.04029, 22, -29.1382, -11.1419, 31.0744, -155.383, -87.5891, 49.6887
5.04747, 22, -29.1082, -11.3084, 31.209, -155.29, -87.4778, 49.5727
5.0555, 22, -29.0785, -11.4763, 31.3446, -155.197, -87.3657, 49.4557
5.06349, 23, -29.0492, -11.6461, 31.4809, -155.103, -87.2527, 49.3381
5.07146, 23, -29.0203, -11.8169, 31.618, -155.009, -87.1386, 49.2196
5.0806, 23, -28.9917, -11.9883, 31.7559, -154.913, -87.0239, 49.1007
5.08764, 23, -28.9636, -12.161, 31.8947, -154.817, -86.9082, 48.9813
5.09553, 23, -28.9359, -12.3353, 32.0345, -154.72, -86.7914, 48.861
5.10423, 24, -28.9085, -12.5107, 32.1752, -154.621, -86.6738, 48.7405
5.11146, 24, -28.8814, -12.6867, 32.3166, -154.522, -86.5553, 48.6195
5.11946, 24, -28.8545, -12.8633, 32.4586, -154.422, -86.4361, 48.4974
5.13095, 24, -28.8151, -13.1312, 32.6733, -154.271, -86.2554, 48.3136
5.1356, 24, -28.8021, -13.2211, 32.7453, -154.22, -86.195, 48.2522
5.14346, 25, -28.7764, -13.4013, 32.89, -154.118, -86.0734, 48.1288
5.15154, 25, -28.751, -13.582, 33.0352, -154.015, -85.951, 48.0053
5.15961, 25, -28.7256, -13.7641, 33.1809, -153.911, -85.8281, 47.882
5.16775, 25, -28.7005, -13.9478, 33.3275, -153.807, -85.7041, 47.7582
5.17552, 25, -28.6758, -14.132, 33.475, -153.701, -85.5799, 47.6342
5.1835, 26, -28.6514, -14.3166, 33.6232, -153.595, -85.4549, 47.5104
5.19155, 26, -28.6272, -14.5022, 33.7718, -153.488, -85.3293, 47.386
5.19946, 26, -28.6034, -14.6896, 33.921, -153.38, -85.2033, 47.2616
5.20774, 26, -28.5798, -14.8774, 34.0712, -153.271, -85.0763, 47.1374
5.21652, 26, -28.5561, -15.0653, 34.222, -153.162, -84.9491, 47.0132
5.22346, 27, -28.5328, -15.254, 34.3731, -153.052, -84.8211, 46.8893
5.23175, 27, -28.5097, -15.4438, 34.5247, -152.942, -84.6929, 46.766
5.23954, 27, -28.4868, -15.6339, 34.6771, -152.83, -84.564, 46.6426
5.24789, 27, -28.4641, -15.8243, 34.8303, -152.718, -84.4347, 46.5196
5.25593, 27, -28.4417, -16.0158, 34.9838, -152.605, -84.3051, 46.397
5.26447, 28, -28.4194, -16.2088, 35.1373, -152.492, -84.175, 46.2744
5.27195, 28, -28.397, -16.4024, 35.2914, -152.378, -84.0445, 46.1523
5.28167, 28, -28.3748, -16.5963, 35.4465, -152.263, -83.9136, 46.0308
5.28829, 28, -28.3528, -16.7912, 35.6019, -152.148, -83.7826, 45.9099
5.29746, 28, -28.3308, -16.9871, 35.7574, -152.032, -83.651, 45.7899
5.30527, 29, -28.3087, -17.1829, 35.9132, -151.915, -83.5195, 45.6708
5.31248, 29, -28.2869, -17.3787, 36.0698, -151.797, -83.3874, 45.5525
5.3197, 29, -28.2651, -17.5754, 36.2268, -151.679, -83.2551, 45.4352
5.33181, 29, -28.2324, -17.8713, 36.4622, -151.501, -83.056, 45.2611
5.33598, 29, -28.2215, -17.9698, 36.5407, -151.442, -82.9896, 45.2034
5.34379, 29, -28.2, -18.1672, 36.6985, -151.322, -82.8566, 45.0892
5.35267, 30, -28.1785, -18.3655, 36.8568, -151.202, -82.7234, 44.9761
5.36048, 30, -28.1568, -18.5641, 37.0151, -151.081, -82.5903, 44.8643
5.36797, 30, -28.1352, -18.7626, 37.1731, -150.959, -82.4567, 44.7541
5.37619, 30, -28.1136, -18.9617, 37.3316, -150.837, -82.3234, 44.6454
5.38402, 30, -28.0917, -19.1617, 37.4905, -150.715, -82.1894, 44.5386
5.392, 31, -28.0808, -19.3618, 37.6494, -150.592, -82.0559, 44.4331
5.40019, 31, -28.048, -19.5616, 37.8079, -150.469, -81.922, 44.3295
5.40842, 31, -28.0371, -19.7618, 37.9668, -150.345, -81.7884, 44.2278
5.41691, 31, -28.0153, -19.9623, 38.1264, -150.22, -81.6547, 44.1275
5.42349, 31, -27.9933, -20.0624, 38.2062, -150.158, -81.5877, 44.0779
5.43151, 32, -27.9712, -20.2623, 38.3656, -150.032, -81.454, 43.9803
5.43949, 32, -27.9491, -20.4626, 38.5247, -149.907, -81.32, 43.8842
5.44749, 32, -27.9266, -20.6636, 38.6841, -149.78, -81.1863, 43.7905
5.45699, 32, -27.8925, -20.9646, 38.9239, -149.59, -80.9853, 43.6534
5.46499, 32, -27.8811, -21.165, 39.0832, -149.462, -80.8517, 43.5652
5.47142, 33, -27.858, -21.2654, 39.1627, -149.398, -80.7849, 43.522
5.48234, 33, -27.8229, -21.566, 39.4014, -149.207, -80.5852, 43.3974
5.48768, 33, -27.811, -21.6658, 39.481, -149.143, -80.5186, 43.3571
5.49543, 33, -27.7869, -21.8651, 39.6395, -149.015, -80.386, 43.2795
5.50347, 33, -27.7623, -22.0647, 39.7971, -148.887, -80.254, 43.2049
5.51148, 34, -27.7375, -22.2639, 39.9542, -148.759, -80.1221, 43.1336
5.52112, 34, -27.6994, -22.561, 40.1899, -148.567, -79.9252, 43.033
5.52747, 34, -27.6865, -22.6599, 40.2682, -148.503, -79.8596, 43.0006
5.53929, 34, -27.6475, -22.9565, 40.5021, -148.31, -79.6631, 42.9092
5.54346, 34, -27.6342, -23.0551, 40.58, -148.246, -79.5975, 42.8804
5.55148, 35, -27.6072, -23.2515, 40.736, -148.117, -79.4668, 42.8245
5.55945, 35, -27.5801, -23.4479, 40.8918, -147.987, -79.3359, 42.7722
5.56745, 35, -27.5526, -23.6446, 41.0467, -147.858, -79.2055, 42.7242
5.57551, 35, -27.5248, -23.8407, 41.2011, -147.728, -79.0754, 42.6796
5.58369, 35, -27.4966, -24.036, 41.3553, -147.598, -78.9454, 42.6383
5.59164, 36, -27.4679, -24.2311, 41.5093, -147.468, -78.8159, 42.6007
5.59949, 36, -27.4388, -24.4259, 41.6627, -147.338, -78.6863, 42.5676
5.60766, 36, -27.4093, -24.6195, 41.8151, -147.208, -78.5576, 42.5388
5.61643, 36, -27.3793, -24.8123, 41.9673, -147.078, -78.4289, 42.5145
5.62345, 36, -27.3487, -25.0052, 42.1192, -146.947, -78.3008, 42.4943
5.63152, 36, -27.3173, -25.1977, 42.2702, -146.817, -78.1731, 42.4785
5.63951, 37, -27.2851, -25.3888, 42.4201, -146.687, -78.0456, 42.4672
5.64745, 37, -27.2522, -25.5791, 42.5694, -146.557, -77.9187, 42.4605
5.65669, 37, -27.2186, -25.7689, 42.7179, -146.427, -77.7919, 42.4575
5.66363, 37, -27.1842, -25.9577, 42.8656, -146.298, -77.6656, 42.4573
5.67245, 37, -27.1488, -26.1448, 43.0121, -146.169, -77.5395, 42.4625
5.68029, 38, -27.1127, -26.3306, 43.1574, -146.041, -77.4143, 42.4742
5.68755, 38, -27.0759, -26.5158, 43.3018, -145.913, -77.2894, 42.4911
5.69549, 38, -27.0381, -26.6998, 43.4454, -145.786, -77.1651, 42.5136
5.70681, 38, -26.9799, -26.9731, 43.6587, -145.595, -76.9796, 42.5581
5.71181, 38, -26.9601, -27.0638, 43.7293, -145.532, -76.918, 42.5759
5.72051, 39, -26.92, -27.245, 43.8697, -145.406, -76.7953, 42.6163
5.72746, 39, -26.8792, -27.4253, 44.0094, -145.28, -76.6725, 42.6625
5.73562, 39, -26.8373, -27.6041, 44.1482, -145.154, -76.5502, 42.7141
5.74366, 39, -26.7947, -27.7821, 44.2862, -145.028, -76.4278, 42.7718
5.75154, 39, -26.7514, -27.9599, 44.4231, -144.903, -76.3055, 42.8363
5.75955, 40, -26.7071, -28.1366, 44.5589, -144.778, -76.1832, 42.9061
5.76767, 40, -26.6617, -28.3116, 44.6939, -144.653, -76.0611, 42.9828
5.77555, 40, -26.6154, -28.4853, 44.8276, -144.529, -75.9395, 43.0659
5.78443, 40, -26.5682, -28.658, 44.9599, -144.406, -75.818, 43.1549
5.79197, 40, -26.5198, -28.8293, 45.0907, -144.284, -75.6974, 43.2513
5.79956, 41, -26.4701, -28.9983, 45.2201, -144.162, -75.577, 43.3538
5.80833, 41, -26.4193, -29.1655, 45.3479, -144.042, -75.4571, 43.4633
5.81564, 41, -26.3672, -29.3316, 45.4742, -143.923, -75.3379, 43.5794
5.82444, 41, -26.3137, -29.4963, 45.5989, -143.805, -75.2189, 43.7025
5.83199, 41, -26.2589, -29.6591, 45.7218, -143.689, -75.1009, 43.8327
5.84028, 42, -26.2028, -29.82, 45.843, -143.573, -74.9832, 43.9703
5.84862, 42, -26.1452, -29.9793, 45.9625, -143.459, -74.8657, 44.1153
5.85725, 42, -26.0863, -30.1371, 46.0801, -143.346, -74.7492, 44.2673
5.86565, 42, -26.0258, -30.2929, 46.1961, -143.235, -74.6325, 44.4268
5.87201, 42, -25.964, -30.4464, 46.3103, -143.125, -74.5166, 44.5934
5.88007, 42, -25.9007, -30.5978, 46.4225, -143.017, -74.401, 44.7674
5.88883, 43, -25.8358, -30.7472, 46.5327, -142.911, -74.2858, 44.9496
5.89604, 43, -25.7692, -30.8947, 46.6407, -142.806, -74.171, 45.1395
5.90806, 43, -25.7353, -30.9675, 46.6939, -142.704, -74.0565, 45.4389
5.91225, 43, -25.6662, -31.1113, 46.8507, -142.603, -73.9427, 45.5424
5.91948, 43, -25.5955, -31.2529, 46.9019, -142.553, -73.886, 45.6479
5.92743, 44, -25.523, -31.3922, 47.0027, -142.456, -73.7728, 45.8646
5.93628, 44, -25.4486, -31.5291, 47.101, -142.361, -73.6602, 46.0893
5.94352, 44, -25.3722, -31.6638, 47.1967, -142.268, -73.548, 46.3221
5.9515, 44, -25.294, -31.7956, 47.29, -142.177, -73.4361, 46.5631
5.95944, 44, -25.2139, -31.9246, 47.3808, -142.089, -73.3251, 46.812
5.96746, 45, -25.132, -32.051, 47.4692, -142.004, -73.2146, 47.0695
5.97549, 45, -25.0481, -32.1746, 47.5552, -141.922, -73.1047, 47.3355
5.98368, 45, -24.9621, -32.2954, 47.6384, -141.843, -72.9957, 47.6096
5.99426, 45, -24.8291, -32.4709, 47.7574, -141.729, -72.8332, 48.0362
5.99943, 45, -24.7836, -32.5279, 47.7955, -141.693, -72.7796, 48.1827
6.00918, 46, -24.6438, -32.6939, 47.9057, -141.589, -72.6195, 48.6352
6.01545, 46, -24.5961, -32.7476, 47.9409, -141.556, -72.5666, 48.7901
6.02343, 46, -24.4986, -32.8525, 48.0091, -141.493, -72.4616, 49.1063
6.03399, 46, -24.3484, -33.0031, 48.1055, -141.406, -72.3054, 49.5972
6.03969, 46, -24.2972, -33.0515, 48.1359, -141.379, -72.254, 49.765
6.04848, 47, -24.1929, -33.1454, 48.1942, -141.327, -72.1518, 50.1065
6.05545, 47, -24.0863, -33.2352, 48.2488, -141.28, -72.0505, 50.4563
6.06344, 47, -23.977, -33.321, 48.2998, -141.236, -71.9502, 50.8148
6.0715, 47, -23.865, -33.4025, 48.347, -141.198, -71.8512, 51.1813
6.07943, 47, -23.7503, -33.4799, 48.3904, -141.164, -71.7532, 51.5564
6.08758, 48, -23.6327, -33.5529, 48.4298, -141.135, -71.6565, 51.9398
6.09642, 48, -23.5124, -33.6214, 48.4651, -141.11, -71.5616, 52.331
6.10455, 48, -23.3895, -33.6852, 48.4962, -141.089, -71.468, 52.7309
6.11143, 48, -23.2643, -33.7442, 48.5233, -141.074, -71.3762, 53.1393
6.1195, 48, -23.1363, -33.7981, 48.5461, -141.064, -71.2866, 53.5558
6.1274, 49, -23.0056, -33.847, 48.5646, -141.059, -71.1987, 53.9811
6.13569, 49, -22.8719, -33.8906, 48.5787, -141.058, -71.1125, 54.4136
6.14598, 49, -22.7353, -33.9288, 48.5881, -141.067, -70.9874, 55.077
6.15142, 49, -22.5957, -33.9614, 48.5929, -141.073, -70.9467, 55.3021
6.1596, 49, -22.4534, -33.9884, 48.5933, -141.09, -70.8672, 55.7578
6.16773, 50, -22.3084, -34.0095, 48.5889, -141.113, -70.7899, 56.2217
6.17545, 50, -22.1607, -34.0246, 48.5795, -141.142, -70.7158, 56.6925
6.18464, 50, -22.0105, -34.0334, 48.565, -141.176, -70.6441, 57.1712
6.19143, 50, -21.8573, -34.0362, 48.5453, -141.217, -70.576, 57.658
6.19951, 50, -21.7011, -34.033, 48.5202, -141.265, -70.5106, 58.1522
6.20745, 50, -21.5418, -34.0231, 48.4895, -141.318, -70.4496, 58.6539
6.21577, 51, -21.3796, -34.0064, 48.4535, -141.378, -70.3912, 59.1618
6.22435, 51, -21.2147, -33.9827, 48.4119, -141.444, -70.3371, 59.6772
6.23145, 51, -21.0471, -33.9519, 48.3646, -141.516, -70.2867, 60.199
6.23965, 51, -20.877, -33.9139, 48.3115, -141.595, -70.2396, 60.7275
6.24863, 51, -20.7043, -33.8686, 48.2525, -141.681, -70.1971, 61.2617
6.2556, 52, -20.5288, -33.8153, 48.1874, -141.772, -70.1596, 61.8028
6.26375, 52, -20.3506, -33.7542, 48.1162, -141.87, -70.1264, 62.3503
6.27198, 52, -20.1696, -33.6849, 48.0389, -141.975, -70.0977, 62.9041
6.27961, 52, -19.9858, -33.6073, 47.9552, -142.086, -70.0744, 63.4631
6.28891, 52, -19.7997, -33.5212, 47.8652, -142.203, -70.0566, 64.0282
6.29825, 53, -19.6114, -33.4264, 47.7689, -142.326, -70.0444, 64.5991
6.30356, 53, -19.4211, -33.3233, 47.6663, -142.456, -70.0378, 65.1754
6.31146, 53, -19.2287, -33.212, 47.5577, -142.591, -70.0361, 65.7557
6.31953, 53, -19.0345, -33.0923, 47.443, -142.732, -70.0397, 66.3404
6.32792, 53, -18.8384, -32.9641, 47.3222, -142.879, -70.0496, 66.929
6.33566, 54, -18.6405, -32.8274, 47.1953, -143.031, -70.0658, 67.5193
6.34473, 54, -18.4406, -32.6822, 47.0627, -143.187, -70.0886, 68.1108
6.35183, 54, -18.2386, -32.5287, 46.9246, -143.348, -70.1182, 68.7039
6.35993, 54, -18.0351, -32.3669, 46.781, -143.513, -70.154, 69.2983
6.36874, 54, -17.8304, -32.1961, 46.6317, -143.683, -70.196, 69.8939
6.37647, 55, -17.6249, -32.0159, 46.4762, -143.857, -70.2462, 70.492
6.38458, 55, -17.4182, -31.8265, 46.3147, -144.036, -70.3038, 71.0941
6.39202, 55, -17.21, -31.628, 46.1469, -144.22, -70.3692, 71.7007
6.40005, 55, -17, -31.4193, 45.9715, -144.409, -70.4438, 72.3112
6.40803, 55, -16.8943, -31.311, 45.881, -144.505, -70.5267, 72.9267
6.41619, 56, -16.6818, -31.0863, 45.5995, -144.802, -70.6192, 73.5467
6.42512, 56, -16.4678, -30.8518, 45.4033, -145.005, -70.7203, 74.17
6.43143, 56, -16.2527, -30.6067, 45.3022, -145.108, -70.7743, 74.4823
6.44195, 56, -15.93, -30.2197, 44.9885, -145.422, -70.9506, 75.4226
6.44764, 56, -15.8226, -30.0859, 44.8812, -145.528, -71.0137, 75.7368
6.45538, 57, -15.6077, -29.8104, 44.6618, -145.742, -71.147, 76.3651
6.46342, 57, -15.3918, -29.5255, 44.4356, -145.959, -71.2891, 76.9923
6.47152, 57, -15.1752, -29.2311, 44.204, -146.177, -71.4403, 77.6192
6.47942, 57, -14.9583, -28.9269, 43.9667, -146.396, -71.6004, 78.2452
6.48747, 57, -14.7415, -28.6145, 43.7238, -146.616, -71.7695, 78.8684
6.49563, 58, -14.5253, -28.2932, 43.4767, -146.837, -71.9472, 79.4894
6.50342, 58, -14.3098, -27.9642, 43.2249, -147.058, -72.1332, 80.1081
6.5115, 58, -14.0955, -27.6268, 42.9688, -147.278, -72.3273, 80.723
6.51959, 58, -13.8824, -27.2821, 42.7092, -147.498, -72.5297, 81.3332
6.52741, 58, -13.6705, -26.9299, 42.445, -147.717, -72.7401, 81.9398
6.5355, 58, -13.4593, -26.5706, 42.1776, -147.934, -72.9583, 82.5422
6.54342, 59, -13.2494, -26.2037, 41.9057, -148.15, -73.1843, 83.1399
6.55242, 59, -13.0414, -25.8294, 41.6301, -148.364, -73.4184, 83.7329
6.5596, 59, -12.8348, -25.448, 41.3509, -148.577, -73.6607, 84.3224
6.56856, 59, -12.6295, -25.0599, 41.0678, -148.788, -73.9109, 84.9077
6.57546, 59, -12.4252, -24.6641, 40.7817, -148.997, -74.1698, 85.4883
6.58341, 60, -12.2221, -24.261, 40.4912, -149.204, -74.4367, 86.0646
6.59144, 60, -12.0205, -23.8509, 40.1978, -149.409, -74.7119, 86.6368
6.59948, 60, -11.8204, -23.4346, 39.9013, -149.611, -74.9953, 87.2052
6.60747, 60, -11.6219, -23.0116, 39.6025, -149.81, -75.2866, 87.7679
6.61563, 60, -11.4256, -22.5832, 39.3016, -150.006, -75.5853, 88.3256
6.6267, 61, -11.1354, -21.932, 38.8468, -150.294, -76.0462, 89.1512
6.63143, 61, -11.0397, -21.7124, 38.6941, -150.388, -76.203, 89.4231
6.64072, 61, -10.8498, -21.2705, 38.3878, -150.572, -76.5206, 89.9603
6.64756, 61, -10.6621, -20.8247, 38.081, -150.752, -76.8439, 90.4894
6.65548, 61, -10.4767, -20.3751, 37.773, -150.927, -77.1721, 91.0105
6.66419, 62, -10.2938, -19.9221, 37.465, -151.098, -77.5052, 91.523
6.67144, 62, -10.1138, -19.466, 37.1564, -151.263, -77.8429, 92.0268
6.67948, 62, -9.93655, -19.0072, 36.8482, -151.424, -78.1849, 92.5216
6.69084, 62, -9.67583, -18.3143, 36.3854, -151.655, -78.7058, 93.2484
6.69562, 62, -9.59019, -18.0824, 36.2315, -151.729, -78.8815, 93.4862
6.7034, 63, -9.42055, -17.618, 35.9241, -151.874, -79.2356, 93.9555
6.71151, 63, -9.25321, -17.1525, 35.6181, -152.015, -79.5937, 94.4147
6.71942, 63, -9.08825, -16.686, 35.3135, -152.149, -79.9548, 94.864
6.72763, 63, -8.92585, -16.2183, 35.01, -152.279, -80.3193, 95.304
6.73544, 63, -8.76612, -15.7494, 34.708, -152.403, -80.6861, 95.7331
6.74369, 64, -8.60906, -15.2798, 34.4075, -152.521, -81.0555, 96.1523
6.75286, 64, -8.4546, -14.8098, 34.1096, -152.634, -81.4268, 96.5601
6.75951, 64, -8.30269, -14.339, 33.8126, -152.742, -81.8001, 96.9569
6.76794, 64, -8.15327, -13.8685, 33.5177, -152.844, -82.1755, 97.3429
6.77556, 64, -8.00627, -13.3986, 33.2243, -152.941, -82.5525, 97.717
6.78353, 64, -7.86177, -12.93, 32.9334, -153.033, -82.9313, 98.0792
6.79238, 65, -7.71988, -12.4631, 32.6449, -153.118, -83.3111, 98.4295
6.79976, 65, -7.58083, -11.9975, 32.3594, -153.199, -83.6917, 98.7665
6.80837, 65, -7.44483, -11.5336, 32.0778, -153.272, -84.0728, 99.09
6.81644, 65, -7.31147, -11.0709, 31.7991, -153.341, -84.4541, 99.4002
6.82567, 66, -7.18102, -10.6097, 31.5243, -153.404, -84.8355, 99.6967
6.83244, 66, -7.0529, -10.1512, 31.2523, -153.461, -85.2165, 99.9787
6.84193, 66, -6.92689, -9.69595, 30.984, -153.513, -85.5978, 100.246
6.84785, 66, -6.80297, -9.24571, 30.7197, -153.559, -85.9787, 100.498
6.85582, 66, -6.68123, -8.80119, 30.4585, -153.6, -86.358, 100.734
6.86382, 66, -6.56189, -8.36232, 30.2024, -153.635, -86.7347, 100.953
6.87293, 67, -6.44512, -7.92976, 29.9515, -153.665, -87.1075, 101.155
6.87998, 67, -6.33127, -7.50273, 29.7066, -153.688, -87.4754, 101.339
6.8881, 67, -6.22028, -7.08115, 29.4692, -153.706, -87.8375, 101.506
6.89658, 67, -6.11191, -6.66428, 29.238, -153.718, -88.1941, 101.655
6.90404, 67, -6.0586, -6.25276, 29.0129, -153.725, -88.546, 101.786
6.91204, 68, -5.95364, -6.04899, 28.9027, -153.728, -88.8945, 101.9
6.92028, 68, -5.85043, -5.6457, 28.6855, -153.728, -89.2416, 101.997
6.92746, 68, -5.74888, -5.24736, 28.4712, -153.725, -89.4149, 102.039
6.93546, 68, -5.64892, -4.85488, 28.2601, -153.717, -89.7619, 102.109
6.9436, 68, -5.55054, -4.46807, 28.052, -153.704, -90.1094, 102.16
6.95142, 69, -5.45387, -4.08643, 27.8464, -153.687, -90.4564, 102.193
6.9594, 69, -5.35911, -3.70884, 27.6452, -153.666, -90.8021, 102.208
6.96749, 69, -5.26626, -3.33559, 27.4493, -153.64, -91.1451, 102.205
6.97543, 69, -5.17531, -2.9661, 27.2577, -153.609, -91.4846, 102.181
6.98342, 69, -5.08631, -2.60073, 27.0708, -153.574, -91.8199, 102.137
6.99329, 70, -4.95602, -2.0595, 26.8, -153.516, -92.3166, 102.031
6.99955, 70, -4.91318, -1.88146, 26.7119, -153.494, -92.4808, 101.985
7.00745, 70, -4.82832, -1.52947, 26.5378, -153.448, -92.808, 101.876
7.01778, 70, -4.70285, -1.01275, 26.2842, -153.373, -93.2962, 101.672
7.02342, 70, -4.66153, -0.84319, 26.2017, -153.347, -93.4585, 101.592
7.03139, 71, -4.57964, -0.508847, 26.0388, -153.291, -93.7819, 101.417
7.04181, 71, -4.49882, -0.18021, 25.8795, -153.233, -94.1033, 101.113
7.04761, 71, -4.41904, 0.142253, 25.725, -153.172, -94.4225, 101.001
7.05542, 71, -4.34019, 0.459247, 25.5757, -153.109, -94.7381, 100.761
7.06681, 71, -4.22358, 0.924255, 25.3603, -153.01, -95.2054, 100.363
7.07155, 71, -4.18517, 1.07606, 25.2908, -152.976, -95.3594, 100.221
7.07939, 72, -4.10864, 1.37523, 25.1547, -152.907, -95.6652, 99.9197
7.08747, 72, -4.03234, 1.66718, 25.0226, -152.836, -95.9678, 99.5983
7.09543, 72, -3.9562, 1.9524, 24.8938, -152.765, -96.268, 99.2559
7.10341, 72, -3.88005, 2.23132, 24.7682, -152.692, -96.5657, 98.8931
7.11145, 72, -3.80388, 2.503, 24.6458, -152.619, -96.8605, 98.5093
7.12019, 73, -3.72784, 2.7682, 24.5268, -152.545, -97.152, 98.1048
7.12847, 73, -3.65169, 3.02686, 24.4114, -152.471, -97.44, 97.6803
7.13641, 73, -3.57534, 3.27853, 24.3001, -152.398, -97.724, 97.2354
7.14361, 73, -3.49878, 3.52396, 24.1929, -152.325, -98.0038, 96.772
7.15327, 73, -3.42192, 3.7625, 24.09, -152.253, -98.2793, 96.2897
7.15939, 74, -3.3444, 3.99291, 23.991, -152.183, -98.5505, 95.7887
7.16852, 74, -3.26619, 4.21522, 23.8957, -152.113, -98.817, 95.27
7.1764, 74, -3.18728, 4.42912, 23.804, -152.045, -99.0788, 94.7342
7.18441, 74, -3.10754, 4.63347, 23.7161, -151.979, -99.3356, 94.1834
7.1914, 74, -3.02713, 4.82839, 23.6321, -151.916, -99.5865, 93.6178
7.2014, 75, -2.94584, 5.01441, 23.5522, -151.854, -99.8305, 93.0398
7.20842, 75, -2.86361, 5.1909, 23.4762, -151.797, -100.067, 92.4513
7.2154, 75, -2.7804, 5.35675, 23.4044, -151.741, -100.294, 91.8541
7.22365, 75, -2.69631, 5.51231, 23.3365, -151.689, -100.513, 91.2485
7.23245, 75, -2.61134, 5.65738, 23.273, -151.64, -100.722, 90.6359
7.23944, 76, -2.52537, 5.7911, 23.2137, -151.594, -100.921, 90.0168
7.24776, 76, -2.4384, 5.91322, 23.1589, -151.553, -101.111, 89.3902
7.25549, 76, -2.35051, 6.02341, 23.1086, -151.516, -101.291, 88.7556
7.26372, 76, -2.26179, 6.12124, 23.0625, -151.482, -101.461, 88.1141
7.27249, 76, -2.17227, 6.20639, 23.0212, -151.451, -101.62, 87.4674
7.27972, 77, -2.0819, 6.27848, 22.9848, -151.425, -101.768, 86.8154
7.28799, 77, -1.99062, 6.33735, 22.9535, -151.404, -101.903, 86.162
7.29746, 77, -1.89844, 6.38269, 22.9279, -151.386, -102.025, 85.5098
7.30442, 77, -1.80544, 6.41371, 22.9078, -151.372, -102.133, 84.8592
7.31146, 77, -1.7116, 6.43045, 22.8937, -151.362, -102.225, 84.2113
7.31973, 78, -1.61704, 6.43266, 22.8855, -151.356, -102.303, 83.5678
7.32865, 78, -1.52175, 6.41972, 22.8828, -151.353, -102.365, 82.9283
7.33561, 78, -1.42576, 6.39149, 22.8858, -151.352, -102.412, 82.292
7.34801, 78, -1.28108, 6.31941, 22.9019, -151.358, -102.452, 81.3471
7.35196, 78, -1.2327, 6.28724, 22.9104, -151.362, -102.458, 81.0348
7.35979, 78, -1.13576, 6.21061, 22.9325, -151.372, -102.457, 80.4144
7.36876, 79, -1.03872, 6.11762, 22.9617, -151.385, -102.438, 79.8005
7.37601, 79, -0.941487, 6.00833, 22.9983, -151.402, -102.401, 79.1947
7.38478, 79, -0.844404, 5.88279, 23.0424, -151.421, -102.346, 78.5982
7.3921, 79, -0.747354, 5.74067, 23.0942, -151.443, -102.273, 78.0107
7.4, 79, -0.650325, 5.58215, 23.1536, -151.468, -102.183, 77.4336
7.40882, 80, -0.601844, 5.49674, 23.186, -151.495, -102.074, 76.8681
7.41595, 80, -0.504749, 5.31362, 23.2568, -151.508, -102.012, 76.3144
7.42491, 80, -0.407691, 5.11421, 23.3354, -151.537, -101.875, 75.7717
7.43287, 80, -0.310757, 4.89788, 23.4685, -151.583, -101.636, 75.24
7.43946, 80, -0.213969, 4.66338, 23.517, -151.599, -101.546, 74.9783
7.44757, 81, -0.117228, 4.41158, 23.6205, -151.632, -101.354, 74.4633
7.45691, 81, -0.0208111, 4.14368, 23.7919, -151.683, -101.029, 73.7087
7.46339, 81, 0.0752717, 3.85926, 23.8537, -151.7, -100.912, 73.462
7.47383, 81, 0.218999, 3.40256, 24.0531, -151.754, -100.531, 72.7357
7.47964, 81, 0.266778, 3.24172, 24.1244, -151.772, -100.395, 72.4986
7.48736, 82, 0.362222, 2.90769, 24.2741, -151.809, -100.108, 72.0317
7.49539, 82, 0.457585, 2.5574, 24.4329, -151.846, -99.8031, 71.5744
7.50639, 82, 0.600287, 2.00196, 24.6882, -151.901, -99.3112, 70.907
7.5114, 82, 0.647754, 1.80846, 24.778, -151.919, -99.1385, 70.6894
7.52096, 82, 0.789936, 1.20295, 25.0613, -151.972, -98.5942, 70.0518
7.52755, 83, 0.837297, 0.993015, 25.1603, -151.99, -98.4042, 69.844
7.53551, 83, 0.931949, 0.562041, 25.366, -152.025, -98.0114, 69.4349
7.54347, 83, 1.02655, 0.115645, 25.5829, -152.059, -97.602, 69.0349
7.5562, 83, 1.16874, -0.58271, 25.9258, -152.108, -96.9566, 68.4504
7.55953, 83, 1.21618, -0.822921, 26.0451, -152.123, -96.7332, 68.2597
7.56769, 84, 1.3112, -1.31474, 26.2921, -152.154, -96.2741, 67.8847
7.57645, 84, 1.40654, -1.82095, 26.5494, -152.184, -95.7982, 67.5173
7.58339, 84, 1.50201, -2.34096, 26.8175, -152.212, -95.3066, 67.1571
7.59146, 84, 1.5978, -2.87508, 27.0959, -152.239, -94.7985, 66.8044
7.59944, 84, 1.69387, -3.42274, 27.3846, -152.263, -94.2752, 66.4591
7.60794, 84, 1.79045, -3.98381, 27.6839, -152.286, -93.7371, 66.121
7.61662, 85, 1.88739, -4.55747, 27.9928, -152.307, -93.1843, 65.7914
7.62339, 85, 1.98471, -5.14202, 28.3114, -152.327, -92.6176, 65.4706
7.63591, 85, 2.13159, -6.03724, 28.8055, -152.351, -91.7467, 65.005
7.64053, 85, 2.18083, -6.33986, 28.9745, -152.358, -91.4516, 64.8544
7.64815, 85, 2.27982, -6.95036, 29.3185, -152.369, -90.8542, 64.5608
7.65541, 86, 2.37943, -7.56747, 29.6702, -152.378, -90.2477, 64.2772
7.66348, 86, 2.47999, -8.19053, 30.0287, -152.383, -89.6325, 64.0042
7.672, 86, 2.58158, -8.81967, 30.3933, -152.386, -89.0099, 63.7423
7.68047, 86, 2.68388, -9.45484, 30.7636, -152.387, -88.3828, 63.4919
7.68838, 86, 2.78742, -10.0948, 31.1393, -152.384, -87.7512, 63.253
7.69639, 87, 2.89203, -10.7393, 31.5213, -152.378, -87.1128, 63.0253
7.70339, 87, 2.99713, -11.3873, 31.9087, -152.368, -86.4677, 62.8093
7.71271, 87, 3.10322, -12.0384, 32.3015, -152.354, -85.8161, 62.6049
7.72143, 87, 3.20977, -12.6914, 32.6999, -152.336, -85.159, 62.4128
7.72746, 87, 3.31683, -13.3469, 33.1042, -152.314, -84.4971, 62.2332
7.73539, 88, 3.42454, -14.0045, 33.5135, -152.289, -83.8301, 62.0666
7.74342, 88, 3.53292, -14.6642, 33.9269, -152.259, -83.159, 61.9139
7.75152, 88, 3.64204, -15.3248, 34.3444, -152.226, -82.4849, 61.7757
7.75947, 88, 3.75181, -15.985, 34.7651, -152.187, -81.8088, 61.6528
7.7686, 88, 3.86202, -16.6439, 35.1884, -152.144, -81.133, 61.5457
7.77658, 89, 3.97253, -17.2998, 35.6136, -152.097, -80.4578, 61.456
7.78438, 89, 4.08328, -17.9522, 36.0398, -152.044, -79.783, 61.384
7.79684, 89, 4.2499, -18.9235, 36.6798, -151.956, -78.77, 61.3106
7.79973, 89, 4.30564, -19.2453, 36.8933, -151.924, -78.4328, 61.2958
7.80844, 89, 4.41721, -19.8854, 37.3195, -151.855, -77.7617, 61.2807
7.81546, 90, 4.52912, -20.5208, 37.745, -151.782, -77.0935, 61.286
7.82359, 90, 4.64159, -21.1523, 38.1707, -151.703, -76.4256, 61.3147
7.8315, 90, 4.75406, -21.7797, 38.5962, -151.619, -75.7583, 61.3666
7.83969, 90, 4.86628, -22.4034, 39.0216, -151.528, -75.0923, 61.4419
7.84835, 90, 4.97812, -23.0235, 39.4476, -151.432, -74.4285, 61.5433
7.85614, 91, 5.08965, -23.6407, 39.8737, -151.329, -73.7651, 61.6709
7.86441, 91, 5.20102, -24.2542, 40.3, -151.219, -73.1006, 61.8267
7.87197, 91, 5.31184, -24.8631, 40.7264, -151.102, -72.436, 62.0114
7.88094, 91, 5.42215, -25.4673, 41.1521, -150.979, -71.7702, 62.2259
7.88868, 91, 5.53187, -26.0649, 41.5767, -150.849, -71.1046, 62.4709
7.9006, 92, 5.69579, -26.9472, 42.2102, -150.642, -70.1106, 62.8977
7.90472, 92, 5.75053, -27.237, 42.4199, -150.57, -69.7803, 63.0557
7.91196, 92, 5.80546, -27.5247, 42.6287, -150.422, -69.1215, 63.3952
7.92087, 92, 5.91586, -28.0934, 43.0425, -150.346, -68.7934, 63.5766
7.929, 92, 6.08276, -28.9275, 43.6529, -150.112, -67.8152, 64.1692
7.9368, 93, 6.19554, -29.4694, 44.0518, -149.952, -67.1715, 64.6033
7.94337, 93, 6.25247, -29.7362, 44.2486, -149.871, -66.8519, 64.8327
7.9543, 93, 6.42619, -30.5205, 44.8295, -149.625, -65.8998, 65.5686
7.95939, 93, 6.48518, -30.7772, 45.0201, -149.542, -65.5844, 65.8299
7.96737, 93, 6.60468, -31.2845, 45.3972, -149.377, -64.9566, 66.3788
7.97538, 93, 6.72628, -31.785, 45.7691, -149.212, -64.3308, 66.9645
7.98478, 94, 6.91304, -32.5253, 46.32, -148.963, -63.3914, 67.9208
7.99142, 94, 6.97649, -32.7696, 46.502, -148.88, -63.0762, 68.2628
8.00186, 94, 7.16984, -33.4917, 47.0452, -148.632, -62.1236, 69.3652
8.00742, 94, 7.23552, -33.7284, 47.2249, -148.55, -61.8034, 69.7577
8.017, 94, 7.4376, -34.4265, 47.7572, -148.311, -60.836, 71.0114
8.02491, 95, 7.5778, -34.8799, 48.1032, -148.161, -60.1921, 71.9096
8.03145, 95, 7.65, -35.1027, 48.2727, -148.09, -59.8714, 72.3741
8.03939, 95, 7.79887, -35.54, 48.6034, -147.956, -59.2335, 73.3334
8.0474, 95, 7.95409, -35.9637, 48.9219, -147.836, -58.6023, 74.3312
8.05544, 95, 8.11627, -36.3705, 49.2258, -147.733, -57.9781, 75.3632
8.06527, 96, 8.28527, -36.7583, 49.653, -147.61, -57.0601, 76.9763
8.07138, 96, 8.46086, -37.1257, 49.7872, -147.579, -56.7605, 77.5305
8.07944, 96, 8.64212, -37.4705, 50.0437, -147.532, -56.1706, 78.6636
8.08737, 96, 8.82811, -37.7909, 50.2836, -147.506, -55.5941, 79.8224
8.0955, 96, 9.01824, -38.0854, 50.5045, -147.498, -55.0344, 81.0006
8.10339, 96, 9.21122, -38.3553, 50.7061, -147.513, -54.4956, 82.1903
8.11144, 97, 9.40549, -38.6002, 50.8882, -147.549, -53.9804, 83.3869
8.11937, 97, 9.60019, -38.8207, 51.0493, -147.606, -53.4921, 84.5828
8.12739, 97, 9.79449, -39.0175, 51.19, -147.682, -53.0318, 85.7684
8.13543, 97, 9.9877, -39.1898, 51.3111, -147.776, -52.6013, 86.9383
8.14337, 97, 10.1786, -39.3358, 51.4127, -147.885, -52.2003, 88.0881
8.1518, 97, 10.3663, -39.4559, 51.4956, -148.007, -51.8286, 89.2157
8.15937, 98, 10.5509, -39.5507, 51.5605, -148.141, -51.4856, 90.3156
8.16738, 98, 10.7335, -39.6211, 51.6076, -148.286, -51.1706, 91.3912
8.1762, 98, 10.9146, -39.6686, 51.6374, -148.441, -50.8821, 92.4486
8.18342, 98, 11.0942, -39.6933, 51.6497, -148.608, -50.6172, 93.4986
8.19137, 98, 11.2718, -39.6948, 51.6453, -148.788, -50.3738, 94.5522
8.20017, 98, 11.4483, -39.6726, 51.6235, -148.98, -50.1503, 95.6179
8.20738, 98, 11.6245, -39.6268, 51.5836, -149.186, -49.9475, 96.7003
8.21539, 99, 11.7997, -39.5575, 51.5257, -149.404, -49.7667, 97.7989
8.22437, 99, 11.9727, -39.4655, 51.4491, -149.632, -49.6105, 98.9085
8.23246, 99, 12.1426, -39.3511, 51.3539, -149.869, -49.4818, 100.019
8.23937, 99, 12.3087, -39.2144, 51.2408, -150.111, -49.3831, 101.121
8.24749, 99, 12.4692, -39.0557, 51.1104, -150.354, -49.3152, 102.205
8.25545, 99, 12.6224, -38.8755, 50.9644, -150.595, -49.2779, 103.262
8.26381, 100, 12.7674, -38.6716, 50.8031, -150.833, -49.2711, 104.287
8.27338, 100, 12.9036, -38.4434, 50.6257, -151.066, -49.2953, 105.283
8.28036, 100, 13.031, -38.192, 50.4314, -151.293, -49.3501, 106.25
8.28753, 100, 13.15, -37.9177, 50.2208, -151.515, -49.4353, 107.194
8.29758, 100, 13.2613, -37.6218, 49.9923, -151.731, -49.5515, 108.116
8.3035, 100, 13.3647, -37.3022, 49.7445, -151.941, -49.6987, 109.02
8.31158, 101, 13.4604, -36.9579, 49.4789, -152.144, -49.877, 109.906
8.31943, 101, 13.5486, -36.588, 49.1947, -152.34, -50.0863, 110.773
8.32749, 101, 13.6292, -36.1921, 48.8924, -152.527, -50.3269, 111.622
8.33634, 101, 13.7017, -35.7708, 48.5713, -152.705, -50.5988, 112.449
8.34357, 101, 13.7658, -35.3257, 48.2323, -152.874, -50.9028, 113.255
8.35734, 102, 13.8447, -34.6143, 47.6913, -153.104, -51.4195, 114.42
8.36006, 102, 13.8662, -34.3656, 47.5028, -153.175, -51.6081, 114.795
8.36848, 102, 13.9015, -33.85, 47.1134, -153.306, -52.009, 115.525
8.37659, 102, 13.9268, -33.3103, 46.7086, -153.424, -52.4416, 116.229
8.38476, 102, 13.9427, -32.7486, 46.2899, -153.527, -52.9057, 116.903
8.39192, 102, 13.95, -32.1655, 45.8575, -153.617, -53.3993, 117.552
8.40069, 103, 13.95, -31.5616, 45.4111, -153.693, -53.9202, 118.174
8.40896, 103, 13.9431, -30.9388, 44.9519, -153.756, -54.4665, 118.77
8.41648, 103, 13.9301, -30.2985, 44.4805, -153.805, -55.0365, 119.341
8.42414, 103, 13.9214, -29.9723, 43.9984, -153.842, -55.6266, 119.888
8.43141, 103, 13.9001, -29.3089, 43.7541, -153.855, -55.9289, 120.152
8.43936, 103, 13.8739, -28.6314, 43.2595, -153.874, -56.5467, 120.661
8.44842, 104, 13.8263, -27.5947, 42.5069, -153.884, -57.4986, 121.377
8.45536, 104, 13.8084, -27.2447, 42.2541, -153.881, -57.8222, 121.604
8.46453, 104, 13.7491, -26.1837, 41.4913, -153.859, -58.8133, 122.251
8.47141, 104, 13.7277, -25.8269, 41.2362, -153.848, -59.1495, 122.456
8.47936, 104, 13.6833, -25.1113, 40.7257, -153.818, -59.8293, 122.853
8.48748, 104, 13.6371, -24.3933, 40.215, -153.781, -60.5165, 123.235
8.49536, 104, 13.5893, -23.6731, 39.7045, -153.736, -61.2092, 123.604
8.50502, 104, 13.5147, -22.5897, 38.9411, -153.66, -62.2569, 124.144
8.51147, 104, 13.4894, -22.2284, 38.6873, -153.631, -62.6075, 124.321
8.52092, 104, 13.4126, -21.1431, 37.9283, -153.54, -63.6627, 124.848
8.52896, 104, 13.3606, -20.4201, 37.4239, -153.474, -64.3663, 125.198
8.53542, 104, 13.3346, -20.0585, 37.1725, -153.439, -64.7183, 125.372
8.545, 104, 13.2824, -19.3351, 36.4207, -153.329, -65.7774, 125.891
8.55144, 104, 13.2301, -18.6113, 36.1711, -153.29, -66.1308, 126.064
8.56036, 104, 13.1779, -17.8876, 35.6737, -153.21, -66.8385, 126.409
8.5684, 104, 13.126, -17.1632, 35.1789, -153.125, -67.5467, 126.754
8.57536, 104, 13.0744, -16.4389, 34.6859, -153.037, -68.2538, 127.098
8.58344, 104, 13.0231, -15.7147, 34.195, -152.945, -68.9627, 127.442
8.59141, 104, 12.9723, -14.9901, 33.7063, -152.849, -69.6732, 127.785
8.59935, 104, 12.9216, -14.2647, 33.2198, -152.749, -70.3844, 128.128
8.60737, 104, 12.8714, -13.5391, 32.736, -152.645, -71.0945, 128.472
8.61536, 104, 12.8215, -12.8135, 32.2549, -152.537, -71.8046, 128.816
8.62342, 104, 12.7719, -12.0878, 31.7765, -152.426, -72.5168, 129.16
8.63141, 104, 12.7226, -11.3627, 31.3004, -152.311, -73.2294, 129.505
8.63935, 104, 12.6737, -10.6375, 30.8269, -152.191, -73.9421, 129.851
8.64743, 104, 12.6251, -9.91182, 30.3566, -152.068, -74.6548, 130.197
8.65539, 104, 12.5767, -9.18617, 29.8893, -151.941, -75.3675, 130.544
8.66335, 104, 12.529, -8.46017, 29.425, -151.809, -76.0817, 130.892
8.67147, 104, 12.4817, -7.73404, 28.9638, -151.674, -76.7964, 131.24
8.67935, 104, 12.435, -7.00845, 28.506, -151.534, -77.5119, 131.591
8.6874, 104, 12.389, -6.28339, 28.0513, -151.391, -78.2267, 131.942
8.69544, 104, 12.3435, -5.55894, 27.6002, -151.243, -78.94, 132.294
8.70335, 104, 12.2985, -4.8354, 27.153, -151.091, -79.6545, 132.647
8.71141, 104, 12.2546, -4.11325, 26.7102, -150.935, -80.3697, 133.002
8.71944, 104, 12.2116, -3.39372, 26.2725, -150.775, -81.0837, 133.358
8.72736, 104, 12.1696, -2.67945, 25.8399, -150.611, -81.7932, 133.714
8.73542, 104, 12.1291, -1.9714, 25.4133, -150.444, -82.4991, 134.07
8.74337, 104, 12.0896, -1.27083, 24.9945, -150.273, -83.201, 134.425
8.75147, 104, 12.0511, -0.578991, 24.584, -150.1, -83.8953, 134.778
8.75951, 104, 12.0135, 0.102604, 24.1834, -149.926, -84.5793, 135.128
8.76745, 104, 11.9771, 0.773459, 23.7938, -149.75, -85.2502, 135.474
8.77545, 104, 11.9416, 1.43181, 23.4166, -149.574, -85.9067, 135.815
8.78353, 104, 11.9074, 2.07688, 23.0517, -149.398, -86.5494, 136.15
8.7915, 104, 11.8743, 2.70661, 22.6993, -149.223, -87.1763, 136.478
8.79936, 104, 11.8421, 3.32018, 22.3594, -149.048, -87.7872, 136.8
8.8075, 104, 11.8115, 3.91731, 22.033, -148.874, -88.3818, 137.115
8.81598, 104, 11.782, 4.49761, 21.7189, -148.702, -88.9585, 137.424
8.82436, 104, 11.7538, 5.06154, 21.4171, -148.531, -89.5182, 137.726
8.83226, 104, 11.727, 5.608, 21.1267, -148.361, -90.0624, 138.02
8.83954, 104, 11.7012, 6.13736, 20.8486, -148.194, -90.5906, 138.307
8.84825, 104, 11.6766, 6.65026, 20.5818, -148.029, -91.1025, 138.588
8.85574, 104, 11.6531, 7.14614, 20.3268, -147.867, -91.5976, 138.86
8.86381, 104, 11.6309, 7.62503, 20.0835, -147.707, -92.0751, 139.125
8.87238, 104, 11.6097, 8.0877, 19.8506, -147.551, -92.5361, 139.383
8.87983, 104, 11.5897, 8.53357, 19.6288, -147.397, -92.9805, 139.633
8.88846, 104, 11.5709, 8.96198, 19.4179, -147.247, -93.4086, 139.875
8.89591, 104, 11.5532, 9.37319, 19.2171, -147.101, -93.8195, 140.109
8.90446, 104, 11.5366, 9.76663, 19.0268, -146.959, -94.2136, 140.333
8.91216, 104, 11.521, 10.1421, 18.8475, -146.821, -94.5899, 140.55
8.92094, 104, 11.5136, 10.3227, 18.7617, -146.688, -94.948, 140.757
8.92817, 104, 11.4996, 10.6695, 18.5194, -146.561, -95.2872, 140.953
8.93539, 104, 11.4866, 10.9974, 18.4441, -146.5, -95.4494, 141.048
8.94335, 104, 11.4746, 11.3049, 18.3017, -146.382, -95.7587, 141.229
8.9514, 104, 11.4636, 11.5918, 18.1698, -146.271, -96.0475, 141.398
8.95939, 104, 11.4538, 11.8579, 18.0485, -146.167, -96.3151, 141.555
8.96732, 104, 11.4447, 12.1026, 17.9378, -146.07, -96.5611, 141.701
8.97535, 104, 11.4363, 12.3263, 17.8377, -145.981, -96.7851, 141.834
8.9834, 104, 11.4287, 12.5292, 17.7478, -145.901, -96.9871, 141.954
8.99142, 104, 11.4219, 12.7107, 17.6684, -145.829, -97.1672, 142.061
8.99935, 104, 11.4159, 12.8711, 17.5991, -145.765, -97.3251, 142.155
9.00893, 104, 11.4078, 13.0745, 17.5133, -145.686, -97.5212, 142.273
9.01694, 104, 11.403, 13.1865, 17.4678, -145.643, -97.626, 142.336
9.02532, 104, 11.3987, 13.2803, 17.4307, -145.609, -97.7107, 142.386
9.03146, 104, 11.3967, 13.3209, 17.4151, -145.595, -97.7464, 142.408
9.03935, 104, 11.3929, 13.3909, 17.3895, -145.57, -97.8046, 142.443
9.04928, 104, 11.3879, 13.471, 17.3631, -145.545, -97.8643, 142.479
9.05543, 104, 11.3865, 13.4918, 17.3568, -145.539, -97.8784, 142.488
9.06443, 104, 11.3841, 13.5254, 17.3476, -145.53, -97.8995, 142.5
9.0714, 104, 11.3822, 13.5504, 17.3419, -145.525, -97.913, 142.507
9.07941, 104, 11.3806, 13.5688, 17.3383, -145.522, -97.9209, 142.511
9.08735, 104, 11.3794, 13.5814, 17.3363, -145.52, -97.9251, 142.514
9.09537, 104, 11.3784, 13.59, 17.3354, -145.519, -97.9272, 142.515
9.10342, 105, 11.3778, 13.5957, 17.3349, -145.519, -97.9282, 142.515
9.11139, 105, 11.3773, 13.5994, 17.3347, -145.518, -97.9286, 142.515
9.11935, 105, 11.3769, 13.602, 17.3346, -145.518, -97.9288, 142.516
9.1274, 105, 11.3766, 13.6041, 17.3346, -145.518, -97.9289, 142.516
9.13534, 105, 11.3764, 13.6059, 17.3345, -145.518, -97.9289, 142.516
9.14335, 105, 11.3763, 13.6075, 17.3345, -145.518, -97.9289, 142.516
9.15146, 105, 11.3761, 13.6089, 17.3346, -145.518, -97.9289, 142.516
9.15937, 105, 11.376, 13.6101, 17.3346, -145.518, -97.9288, 142.516
9.16734, 105, 11.376, 13.6111, 17.3346, -145.518, -97.9286, 142.516
9.1754, 105, 11.3759, 13.6119, 17.3346, -145.518, -97.9285, 142.516
9.18336, 105, 11.3759, 13.6126, 17.3346, -145.518, -97.9283, 142.516
9.19142, 105, 11.3759, 13.613, 17.3346, -145.518, -97.9282, 142.516
9.19938, 105, 11.3759, 13.6133, 17.3347, -145.518, -97.928, 142.516
9.20734, 105, 11.3759, 13.6134, 17.3348, -145.519, -97.9279, 142.516
9.21539, 105, 11.3758, 13.6135, 17.3348, -145.519, -97.9278, 142.516
