hehonglu123/Motion-Primitive-Planning/ILC/recorded_data/realrobot/wood/iteration_8/run_2.csv
timestamp, cmd_num, J1, J2, J3, J4, J5, J6
0.000371, -1, 11.3757, 13.6141, 17.3366, -145.52, -97.9256, 142.516
0.003055, -1, 11.3757, 13.6141, 17.3366, -145.52, -97.9256, 142.516
0.008084, -1, 11.3757, 13.6141, 17.3366, -145.52, -97.9256, 142.516
0.02858, -1, 11.3757, 13.6141, 17.3366, -145.52, -97.9256, 142.516
0.031194, -1, 11.3757, 13.6141, 17.3366, -145.52, -97.9256, 142.516
0.032437, -1, 11.3757, 13.6141, 17.3366, -145.52, -97.9256, 142.516
0.039016, -1, 11.3757, 13.6141, 17.3366, -145.52, -97.9256, 142.516
0.184663, -1, 10.266, 13.3208, 17.4084, -145.867, -97.8074, 140.512
0.185971, -1, 10.266, 13.3208, 17.4084, -145.867, -97.8074, 140.512
0.187968, -1, 10.1917, 13.3007, 17.4134, -145.89, -97.7992, 140.374
0.189288, -1, 10.1917, 13.3007, 17.4134, -145.89, -97.7992, 140.374
0.190471, -1, 10.1917, 13.3007, 17.4134, -145.89, -97.7992, 140.374
0.192494, -1, 10.1165, 13.2804, 17.4185, -145.914, -97.7909, 140.235
0.193744, -1, 10.1165, 13.2804, 17.4185, -145.914, -97.7909, 140.235
0.196952, -1, 10.0406, 13.2599, 17.4235, -145.938, -97.7824, 140.096
0.200645, -1, 9.96402, 13.2393, 17.4285, -145.961, -97.7739, 139.957
0.201888, -1, 9.96402, 13.2393, 17.4285, -145.961, -97.7739, 139.957
0.203844, -1, 9.88689, 13.2187, 17.4335, -145.986, -97.7653, 139.818
0.205203, -1, 9.88689, 13.2187, 17.4335, -145.986, -97.7653, 139.818
0.206398, -1, 9.88689, 13.2187, 17.4335, -145.986, -97.7653, 139.818
0.208676, -1, 9.80932, 13.198, 17.4386, -146.01, -97.7566, 139.678
0.209957, -1, 9.80932, 13.198, 17.4386, -146.01, -97.7566, 139.678
0.212349, -1, 9.73151, 13.1773, 17.4436, -146.034, -97.748, 139.538
0.21368, -1, 9.73151, 13.1773, 17.4436, -146.034, -97.748, 139.538
0.214868, -1, 9.73151, 13.1773, 17.4436, -146.034, -97.748, 139.538
0.217015, -1, 9.6537, 13.1566, 17.4486, -146.058, -97.7394, 139.398
0.218311, -1, 9.6537, 13.1566, 17.4486, -146.058, -97.7394, 139.398
0.220398, -1, 9.57604, 13.136, 17.4536, -146.081, -97.7309, 139.259
0.222436, -1, 9.57604, 13.136, 17.4536, -146.081, -97.7309, 139.259
0.226818, -1, 9.49853, 13.1154, 17.4586, -146.105, -97.7225, 139.119
0.231931, -1, 9.34376, 13.0742, 17.4685, -146.154, -97.7057, 138.839
0.240248, -1, 9.18934, 13.033, 17.4785, -146.202, -97.6889, 138.56
0.246875, -1, 9.11232, 13.0125, 17.4835, -146.225, -97.6805, 138.42
0.254912, -1, 8.95856, 12.9714, 17.4936, -146.274, -97.6637, 138.14
0.264231, -1, 8.72807, 12.9099, 17.5088, -146.345, -97.6382, 137.72
0.271129, -1, 8.6515, 12.8894, 17.5138, -146.369, -97.6295, 137.58
0.280419, -1, 8.42228, 12.8276, 17.529, -146.442, -97.6032, 137.16
0.288363, -1, 8.26934, 12.7862, 17.5392, -146.489, -97.5859, 136.88
0.297024, -1, 8.11592, 12.7447, 17.5493, -146.537, -97.5689, 136.6
0.303037, -1, 8.03903, 12.7239, 17.5544, -146.561, -97.5605, 136.46
0.312464, -1, 7.80746, 12.6613, 17.5696, -146.633, -97.5355, 136.039
0.321191, -1, 7.73005, 12.6405, 17.5797, -146.681, -97.5188, 135.759
0.32686, -1, 7.5751, 12.5988, 17.5848, -146.705, -97.5104, 135.619
0.335865, -1, 7.42009, 12.5572, 17.595, -146.753, -97.4935, 135.339
0.34489, -1, 7.18759, 12.4949, 17.6104, -146.825, -97.4674, 134.918
0.351861, -1, 7.1101, 12.4742, 17.6155, -146.849, -97.4587, 134.778
0.359876, -1, 6.95499, 12.4328, 17.6258, -146.898, -97.4416, 134.498
0.36946, -1, 6.72249, 12.3709, 17.6413, -146.969, -97.4163, 134.078
0.374962, -1, 6.64511, 12.3503, 17.6465, -146.994, -97.4079, 133.938
0.383878, -1, 6.49051, 12.309, 17.6569, -147.042, -97.3912, 133.657
0.391855, -1, 6.33618, 12.2677, 17.6673, -147.09, -97.3743, 133.377
0.398887, -1, 6.18198, 12.2262, 17.6776, -147.138, -97.3574, 133.096
0.407864, -1, 6.02766, 12.1848, 17.6878, -147.186, -97.3401, 132.815
0.415853, -1, 5.87307, 12.1433, 17.6981, -147.234, -97.3225, 132.535
0.425599, -1, 5.64091, 12.0807, 17.7135, -147.306, -97.2964, 132.114
0.431868, -1, 5.56341, 12.0599, 17.7186, -147.33, -97.2878, 131.973
0.439942, -1, 5.40828, 12.0182, 17.7289, -147.378, -97.2708, 131.692
0.447906, -1, 5.25291, 11.9765, 17.7392, -147.426, -97.254, 131.411
0.455864, -1, 5.0973, 11.9349, 17.7496, -147.475, -97.2373, 131.13
0.464844, -1, 4.94152, 11.8932, 17.7601, -147.522, -97.2204, 130.849
0.472906, -1, 4.7858, 11.8516, 17.7705, -147.571, -97.2033, 130.568
0.479964, -1, 4.63003, 11.81, 17.7809, -147.619, -97.1859, 130.287
0.487925, -1, 4.47432, 11.7686, 17.7913, -147.667, -97.1684, 130.006
0.495861, -1, 4.31881, 11.7271, 17.8017, -147.716, -97.1511, 129.725
0.503868, -1, 4.16353, 11.6856, 17.8121, -147.764, -97.1341, 129.444
0.511924, -1, 4.00864, 11.6442, 17.8225, -147.812, -97.1171, 129.163
0.519853, -1, 3.85419, 11.6027, 17.8328, -147.861, -97.1002, 128.882
0.527862, -1, 3.69985, 11.5612, 17.8432, -147.909, -97.0834, 128.6
0.535927, -1, 3.54538, 11.5195, 17.8534, -147.957, -97.0663, 128.319
0.543877, -1, 3.39077, 11.4779, 17.8638, -148.006, -97.049, 128.037
0.551862, -1, 3.23577, 11.4361, 17.8743, -148.054, -97.0315, 127.756
0.559928, -1, 3.08056, 11.3944, 17.8847, -148.102, -97.0139, 127.474
0.567858, -1, 2.92525, 11.3525, 17.8951, -148.15, -96.9967, 127.193
0.575865, -1, 2.76977, 11.3108, 17.9054, -148.199, -96.9797, 126.911
0.583937, -1, 2.61395, 11.2691, 17.9157, -148.246, -96.9629, 126.63
0.591853, -1, 2.45784, 11.2273, 17.9262, -148.295, -96.9462, 126.348
0.599861, -1, 2.30141, 11.1856, 17.9365, -148.343, -96.9293, 126.066
0.607942, -1, 2.14473, 11.1439, 17.947, -148.391, -96.9122, 125.784
0.615902, -1, 1.98795, 11.1021, 17.9574, -148.44, -96.8948, 125.502
0.62394, -1, 1.83134, 11.0605, 17.9677, -148.489, -96.8773, 125.221
0.631858, -1, 1.67493, 11.0188, 17.9782, -148.537, -96.8599, 124.939
0.769799, -1, -0.97612, 10.3081, 18.1553, -149.361, -96.5687, 120.135
0.770997, -1, -0.97612, 10.3081, 18.1553, -149.361, -96.5687, 120.135
0.773036, -1, -1.05471, 10.2872, 18.1604, -149.385, -96.5601, 119.994
0.774277, -1, -1.05471, 10.2872, 18.1604, -149.385, -96.5601, 119.994
0.776203, -1, -1.13329, 10.2663, 18.1656, -149.409, -96.5516, 119.852
0.7777, -1, -1.13329, 10.2663, 18.1656, -149.409, -96.5516, 119.852
0.778911, -1, -1.13329, 10.2663, 18.1656, -149.409, -96.5516, 119.852
0.785081, -1, -1.29042, 10.2245, 18.176, -149.458, -96.5347, 119.569
0.78634, -1, -1.29042, 10.2245, 18.176, -149.458, -96.5347, 119.569
0.788344, -1, -1.29042, 10.2245, 18.176, -149.458, -96.5264, 119.427
0.789717, -1, -1.36888, 10.2036, 18.1812, -149.482, -96.5264, 119.427
0.790989, -1, -1.36888, 10.2036, 18.1812, -149.482, -96.5264, 119.427
0.792957, -1, -1.4473, 10.1827, 18.1863, -149.507, -96.518, 119.286
0.794315, -1, -1.4473, 10.1827, 18.1863, -149.507, -96.518, 119.286
0.796128, -1, -1.4473, 10.1827, 18.1863, -149.507, -96.518, 119.144
0.800297, -1, -1.52566, 10.1618, 18.1916, -149.555, -96.5011, 119.003
0.801724, -1, -1.60391, 10.1408, 18.1969, -149.555, -96.5011, 119.003
0.802988, -1, -1.60391, 10.1408, 18.1969, -149.555, -96.5011, 119.003
0.806509, -1, -1.68203, 10.1199, 18.2021, -149.58, -96.4927, 118.861
0.808427, -1, -1.76002, 10.099, 18.2074, -149.604, -96.4841, 118.719
0.809883, -1, -1.76002, 10.099, 18.2074, -149.604, -96.4841, 118.719
0.811102, -1, -1.76002, 10.099, 18.2074, -149.604, -96.4841, 118.719
0.817977, -1, -1.91572, 10.0571, 18.2178, -149.652, -96.4668, 118.436
0.824615, -1, -2.07112, 10.0153, 18.2282, -149.701, -96.4491, 118.152
0.832508, -1, -2.14866, 9.99432, 18.2334, -149.726, -96.4402, 117.869
0.839843, -1, -2.30384, 9.95248, 18.2438, -149.774, -96.4227, 117.727
0.847895, -1, -2.45923, 9.91055, 18.2543, -149.822, -96.4057, 117.443
0.855866, -1, -2.61492, 9.86857, 18.2647, -149.871, -96.3887, 117.159
0.863835, -1, -2.77089, 9.82663, 18.2751, -149.92, -96.3719, 116.876
0.871898, -1, -2.92727, 9.78467, 18.2854, -149.968, -96.3551, 116.592
0.879853, -1, -3.08407, 9.74271, 18.2958, -150.017, -96.3381, 116.308
0.887851, -1, -3.24126, 9.70075, 18.3063, -150.066, -96.3207, 116.024
0.895903, -1, -3.39889, 9.65872, 18.3168, -150.114, -96.303, 115.741
0.903852, -1, -3.55671, 9.61672, 18.3272, -150.163, -96.2855, 115.457
0.911858, -1, -3.71449, 9.57489, 18.3376, -150.212, -96.2682, 115.173
0.919889, -1, -3.87249, 9.5329, 18.348, -150.26, -96.2512, 114.888
0.927847, -1, -4.03043, 9.49087, 18.3584, -150.309, -96.2341, 114.604
0.935909, -1, -4.18826, 9.44899, 18.3688, -150.358, -96.2172, 114.32
0.943866, -1, -4.34598, 9.407, 18.3791, -150.407, -96.2, 114.035
0.951919, -1, -4.50345, 9.365, 18.3895, -150.456, -96.1827, 113.75
0.959906, -1, -4.66045, 9.32299, 18.3998, -150.505, -96.1651, 113.466
0.968888, -1, -4.81703, 9.28095, 18.4102, -150.553, -96.1473, 113.181
0.975845, -1, -4.97335, 9.23883, 18.4208, -150.602, -96.1298, 112.896
0.983942, -1, -5.12935, 9.19678, 18.4313, -150.651, -96.1126, 112.611
0.991841, -1, -5.2852, 9.15468, 18.4419, -150.699, -96.0955, 112.327
0.999844, -1, -5.44124, 9.11251, 18.4524, -150.749, -96.0787, 112.042
1.00792, -1, -5.59738, 9.07041, 18.4627, -150.797, -96.0617, 111.757
1.01584, -1, -5.75388, 9.0283, 18.4732, -150.846, -96.0445, 111.472
1.02406, -1, -5.91085, 8.98607, 18.4837, -150.895, -96.027, 111.188
1.03184, -1, -6.06824, 8.94392, 18.494, -150.944, -96.0094, 110.903
1.03985, -1, -6.22623, 8.90178, 18.5044, -150.993, -95.9919, 110.617
1.04871, -1, -6.38451, 8.85963, 18.5147, -151.042, -95.9746, 110.332
1.05494, -1, -6.54287, 8.81758, 18.5251, -151.091, -95.9576, 110.047
1.06386, -1, -6.70141, 8.77544, 18.5357, -151.14, -95.9405, 109.762
1.07265, -1, -6.86007, 8.73328, 18.5462, -151.189, -95.9236, 109.476
1.07985, -1, -7.01869, 8.69121, 18.5567, -151.238, -95.9064, 109.19
1.08785, -1, -7.17723, 8.64903, 18.5671, -151.286, -95.889, 108.905
1.09664, -1, -7.33558, 8.60685, 18.5775, -151.336, -95.8713, 108.619
1.10385, -1, -7.49363, 8.56457, 18.588, -151.385, -95.8535, 108.333
1.11188, -1, -7.65128, 8.52229, 18.5985, -151.434, -95.836, 108.048
1.12067, -1, -7.80857, 8.47996, 18.6089, -151.483, -95.8188, 107.762
1.12784, -1, -7.96549, 8.43767, 18.6193, -151.532, -95.8018, 107.476
1.13589, -1, -8.12219, 8.39531, 18.6297, -151.581, -95.7848, 107.19
1.14523, -1, -8.27874, 8.35297, 18.6402, -151.63, -95.7679, 106.904
1.15129, -1, -8.43544, 8.31059, 18.6507, -151.679, -95.7506, 106.618
1.16012, -1, -8.5924, 8.26825, 18.6613, -151.728, -95.7331, 106.332
1.16732, -1, -8.74976, 8.22599, 18.6718, -151.777, -95.7153, 106.046
1.17566, -1, -8.90746, 8.18363, 18.6821, -151.826, -95.6978, 105.759
1.18428, -1, -9.06557, 8.14132, 18.6926, -151.875, -95.6805, 105.473
1.19138, -1, -9.2241, 8.09909, 18.7031, -151.925, -95.6633, 105.186
1.19999, -1, -9.38294, 8.05675, 18.7135, -151.973, -95.6462, 104.9
1.20825, -1, -9.46246, 8.03556, 18.7187, -151.998, -95.6377, 104.613
1.21555, -1, -9.6216, 7.99328, 18.7292, -152.048, -95.6205, 104.47
1.22393, -1, -9.86048, 7.92992, 18.745, -152.121, -95.5943, 104.039
1.23079, -1, -9.9402, 7.90873, 18.7503, -152.146, -95.5854, 103.896
1.23883, -1, -10.0995, 7.86635, 18.761, -152.195, -95.5674, 103.609
1.24795, -1, -10.3382, 7.8026, 18.7768, -152.269, -95.541, 103.179
1.25689, -1, -10.4971, 7.76008, 18.7874, -152.319, -95.5238, 102.892
1.26416, -1, -10.6556, 7.71759, 18.7978, -152.368, -95.5068, 102.605
1.27087, -1, -10.7347, 7.69633, 18.8031, -152.393, -95.4983, 102.461
1.28112, -1, -10.9717, 7.63245, 18.8188, -152.466, -95.4726, 102.031
1.28688, -1, -11.0505, 7.61118, 18.824, -152.491, -95.464, 101.887
1.29642, -1, -11.2866, 7.54745, 18.8397, -152.565, -95.4375, 101.456
1.3052, -1, -11.4441, 7.50494, 18.8502, -152.614, -95.4197, 101.169
1.3109, -1, -11.5228, 7.48368, 18.8554, -152.639, -95.4108, 101.025
1.32067, -1, -11.7594, 7.42004, 18.8714, -152.712, -95.3847, 100.593
1.32938, -1, -11.8385, 7.39882, 18.8766, -152.762, -95.3675, 100.305
1.33638, -1, -11.9971, 7.3564, 18.8872, -152.787, -95.3589, 100.162
1.34284, -1, -12.1561, 7.31404, 18.8978, -152.836, -95.3417, 99.8739
1.35364, -1, -12.3953, 7.25039, 18.9135, -152.911, -95.3156, 99.4419
1.35983, -1, -12.4751, 7.22915, 18.9188, -152.935, -95.3067, 99.298
1.36787, -1, -12.635, 7.18673, 18.9293, -152.985, -95.2888, 99.0102
1.37583, -1, -12.7951, 7.14427, 18.9399, -153.034, -95.2709, 98.7223
1.38382, -1, -12.9552, 7.10172, 18.9504, -153.084, -95.2531, 98.4342
1.39191, -1, -13.1152, 7.05913, 18.961, -153.133, -95.2357, 98.146
1.39983, -1, -13.2751, 7.0165, 18.9715, -153.183, -95.2185, 97.858
1.40782, -1, -13.4348, 6.97383, 18.9821, -153.232, -95.2013, 97.5696
1.41589, -1, -13.5941, 6.93104, 18.9927, -153.281, -95.1842, 97.2809
1.42383, -1, -13.7532, 6.88828, 19.0033, -153.331, -95.1668, 96.9922
1.43183, -1, -13.9121, 6.84556, 19.0137, -153.38, -95.1491, 96.7039
1.43982, -1, -14.0704, 6.80284, 19.0242, -153.429, -95.1313, 96.4153
1.44782, -1, -14.2286, 6.76021, 19.0348, -153.479, -95.1135, 96.1263
1.45483, -1, -14.3868, 6.71755, 19.0453, -153.529, -95.0961, 95.8373
1.46383, -1, -14.5452, 6.67484, 19.0558, -153.578, -95.0789, 95.5483
1.47284, -1, -14.7038, 6.6323, 19.0663, -153.628, -95.0617, 95.2591
1.47989, -1, -14.8628, 6.58978, 19.0769, -153.677, -95.0445, 94.9696
1.48888, -1, -15.0221, 6.54713, 19.0876, -153.726, -95.0271, 94.6805
1.49584, -1, -15.1818, 6.50455, 19.0984, -153.776, -95.0093, 94.3914
1.50389, -1, -15.342, 6.46197, 19.109, -153.826, -94.9913, 94.1023
1.51185, -1, -15.5024, 6.41928, 19.1196, -153.875, -94.9733, 93.8129
1.51983, -1, -15.6631, 6.37663, 19.1302, -153.925, -94.9556, 93.5236
1.52789, -1, -15.8238, 6.33386, 19.1408, -153.975, -94.9383, 93.2344
1.53583, -1, -15.9846, 6.29094, 19.1514, -154.025, -94.9211, 92.9448
1.54383, -1, -16.1454, 6.24809, 19.162, -154.075, -94.904, 92.6549
1.5519, -1, -16.3062, 6.20519, 19.1726, -154.124, -94.8867, 92.3654
1.55982, -1, -16.4668, 6.16216, 19.183, -154.173, -94.8692, 92.0758
1.56789, -1, -16.6271, 6.11922, 19.1936, -154.223, -94.8515, 91.7857
1.57583, -1, -16.7869, 6.07625, 19.2042, -154.273, -94.8335, 91.4956
1.58392, -1, -16.9464, 6.03326, 19.2148, -154.323, -94.8158, 91.2055
1.59189, -1, -17.1057, 5.99031, 19.2255, -154.373, -94.7984, 90.9153
1.59982, -1, -17.2649, 5.94738, 19.236, -154.422, -94.781, 90.625
1.60782, -1, -17.4239, 5.90456, 19.2466, -154.472, -94.7637, 90.3346
1.6159, -1, -17.5832, 5.86178, 19.2574, -154.522, -94.7463, 90.0444
1.62387, -1, -17.7426, 5.81895, 19.268, -154.571, -94.7287, 89.7542
1.63183, -1, -17.9022, 5.77618, 19.2787, -154.621, -94.7108, 89.4638
1.63989, -1, -18.0622, 5.73342, 19.2893, -154.671, -94.6926, 89.1733
1.64782, -1, -18.2227, 5.69066, 19.2999, -154.721, -94.6747, 88.883
1.65589, -1, -18.3836, 5.64787, 19.3106, -154.771, -94.6571, 88.5922
1.66394, -1, -18.5449, 5.60497, 19.3213, -154.821, -94.6398, 88.3012
1.67192, -1, -18.7065, 5.56203, 19.332, -154.871, -94.6225, 88.0103
1.67999, -1, -18.8681, 5.51906, 19.3426, -154.921, -94.6052, 87.7194
1.68794, -1, -19.0298, 5.47602, 19.3531, -154.971, -94.5877, 87.4283
1.69592, -1, -19.1913, 5.43286, 19.3638, -155.021, -94.5699, 87.1367
1.704, -1, -19.3529, 5.38967, 19.3744, -155.071, -94.5518, 86.8454
1.71185, -1, -19.5142, 5.34652, 19.385, -155.12, -94.5338, 86.554
1.71982, -1, -19.6751, 5.3033, 19.3956, -155.17, -94.516, 86.2622
1.72787, -1, -19.8358, 5.26016, 19.4063, -155.221, -94.4984, 85.9704
1.73585, -1, -19.9962, 5.217, 19.417, -155.27, -94.4811, 85.6788
1.74398, -1, -20.1562, 5.17386, 19.4278, -155.32, -94.4636, 85.3874
1.75286, -1, -20.316, 5.1309, 19.4386, -155.371, -94.4461, 85.0955
1.76003, -1, -20.4759, 5.08791, 19.4494, -155.42, -94.4282, 84.8036
1.76682, -1, -20.5559, 5.06636, 19.4548, -155.445, -94.4191, 84.6578
1.77702, -1, -20.7963, 5.00196, 19.4709, -155.521, -94.392, 84.2199
1.78421, -1, -20.957, 4.95898, 19.4816, -155.571, -94.3743, 83.9278
1.79081, -1, -21.0375, 4.93743, 19.4869, -155.596, -94.3656, 83.7817
1.80128, -1, -21.2795, 4.87283, 19.5029, -155.672, -94.3396, 83.3437
1.80688, -1, -21.3604, 4.85126, 19.5082, -155.697, -94.331, 83.1977
1.81642, -1, -21.6036, 4.78642, 19.5242, -155.772, -94.305, 82.7588
1.82531, -1, -21.7659, 4.74326, 19.535, -155.822, -94.2873, 82.4663
1.83088, -1, -21.8471, 4.7216, 19.5404, -155.847, -94.2783, 82.3201
1.84047, -1, -22.0095, 4.67821, 19.5511, -155.897, -94.2513, 81.881
1.84783, -1, -22.1721, 4.63487, 19.5619, -155.948, -94.2424, 81.7345
1.85493, -1, -22.3345, 4.59148, 19.5725, -155.998, -94.2248, 81.4418
1.86488, -1, -22.5777, 4.5264, 19.5886, -156.073, -94.1985, 81.0029
1.87183, -1, -22.6586, 4.5047, 19.5939, -156.098, -94.1898, 80.8565
1.87886, -1, -22.8202, 4.46128, 19.6046, -156.148, -94.1724, 80.5635
1.88785, -1, -22.9814, 4.41796, 19.6153, -156.199, -94.1546, 80.2704
1.89582, -1, -23.1425, 4.37473, 19.626, -156.249, -94.1366, 79.9775
1.90386, -1, -23.3034, 4.33141, 19.6368, -156.299, -94.1183, 79.6842
1.91181, -1, -23.4643, 4.28819, 19.6477, -156.35, -94.1001, 79.3907
1.91982, -1, -23.6253, 4.24493, 19.6585, -156.4, -94.0822, 79.0974
1.92681, -1, -23.7864, 4.20171, 19.6693, -156.45, -94.0645, 78.8041
1.93581, -1, -23.9476, 4.15846, 19.68, -156.501, -94.0471, 78.5104
1.94383, -1, -24.1093, 4.11508, 19.6907, -156.552, -94.0297, 78.2165
1.95081, -1, -24.2715, 4.07173, 19.7014, -156.602, -94.0121, 77.9227
1.95986, -1, -24.4342, 4.02832, 19.7121, -156.652, -93.9943, 77.6287
1.96783, -1, -24.5972, 3.98481, 19.7228, -156.703, -93.9762, 77.3344
1.97681, -1, -24.7604, 3.94124, 19.7334, -156.753, -93.958, 77.0401
1.9838, -1, -24.9237, 3.89769, 19.7442, -156.804, -93.9402, 76.7463
1.99203, -1, -25.0871, 3.85412, 19.7551, -156.854, -93.9226, 76.452
2.00205, -1, -25.3319, 3.78871, 19.7714, -156.93, -93.8964, 76.0104
2.00688, -1, -25.4134, 3.7669, 19.7768, -156.955, -93.8877, 75.8632
2.01662, -1, -25.5763, 3.72322, 19.7876, -157.005, -93.87, 75.569
2.02286, -1, -25.739, 3.67959, 19.7983, -157.055, -93.852, 75.2744
2.03182, -1, -25.9015, 3.63609, 19.8091, -157.106, -93.8337, 74.9796
2.04062, -1, -26.0637, 3.59252, 19.8198, -157.156, -93.8154, 74.685
2.04689, -1, -26.2255, 3.54905, 19.8306, -157.207, -93.7972, 74.3905
2.05581, -1, -26.3871, 3.50568, 19.8414, -157.258, -93.7794, 74.0957
2.06468, -1, -26.5487, 3.4622, 19.8521, -157.308, -93.7617, 73.8004
2.07286, -1, -26.7106, 3.4187, 19.863, -157.359, -93.7441, 73.5053
2.0798, -1, -26.8729, 3.3752, 19.8739, -157.41, -93.7264, 73.2101
2.09146, -1, -27.1169, 3.30976, 19.8901, -157.486, -93.6994, 72.7671
2.09588, -1, -27.1983, 3.28797, 19.8955, -157.511, -93.6902, 72.6194
2.10381, -1, -27.3615, 3.24435, 19.9062, -157.561, -93.672, 72.3242
2.1118, -1, -27.5251, 3.20055, 19.917, -157.612, -93.6539, 72.0289
2.11988, -1, -27.689, 3.15681, 19.9278, -157.663, -93.636, 71.7333
2.12786, -1, -27.8531, 3.11315, 19.9386, -157.713, -93.6183, 71.4375
2.13581, -1, -28.0173, 3.06943, 19.9493, -157.764, -93.6006, 71.1422
2.14388, -1, -28.1816, 3.02568, 19.9601, -157.815, -93.5828, 70.8463
2.15184, -1, -28.3459, 2.98197, 19.9709, -157.865, -93.5648, 70.5501
2.15985, -1, -28.51, 2.93823, 19.9818, -157.916, -93.5465, 70.2542
2.16793, -1, -28.6738, 2.89457, 19.9927, -157.967, -93.528, 69.9582
2.17589, -1, -28.8371, 2.85087, 20.0035, -158.018, -93.5097, 69.6619
2.18397, -1, -29.0002, 2.80714, 20.0142, -158.069, -93.4918, 69.3652
2.19198, -1, -29.1629, 2.7635, 20.025, -158.12, -93.4741, 69.0689
2.19992, -1, -29.3256, 2.71981, 20.0358, -158.17, -93.4564, 68.7722
2.20791, -1, -29.4883, 2.67614, 20.0466, -158.221, -93.4387, 68.4754
2.21598, -1, -29.6511, 2.6324, 20.0575, -158.273, -93.4208, 68.1785
2.22391, -1, -29.8141, 2.58858, 20.0683, -158.323, -93.4025, 67.8819
2.23191, -1, -29.9772, 2.54481, 20.0792, -158.375, -93.384, 67.5852
2.24019, -1, -30.1405, 2.50091, 20.0902, -158.425, -93.3658, 67.2882
2.24681, -1, -30.2223, 2.47889, 20.0957, -158.45, -93.3567, 67.1396
2.25595, -1, -30.4687, 2.41293, 20.1121, -158.527, -93.33, 66.6943
2.26419, -1, -30.6334, 2.36888, 20.1229, -158.578, -93.3123, 66.3971
2.27081, -1, -30.7159, 2.34687, 20.1283, -158.603, -93.3034, 66.2483
2.28018, -1, -30.9634, 2.28094, 20.1446, -158.68, -93.2764, 65.8021
2.28684, -1, -31.046, 2.25891, 20.15, -158.706, -93.2673, 65.6536
2.29633, -1, -31.2936, 2.19294, 20.1663, -158.782, -93.2394, 65.2075
2.30429, -1, -31.4585, 2.14908, 20.1771, -158.833, -93.2211, 64.9097
2.31244, -1, -31.6231, 2.10502, 20.1879, -158.884, -93.2031, 64.612
2.32037, -1, -31.7877, 2.06106, 20.1989, -158.936, -93.1854, 64.3142
2.32837, -1, -31.8699, 2.01715, 20.2098, -158.987, -93.1678, 64.0161
2.33664, -1, -32.0341, 1.97312, 20.2208, -159.037, -93.1501, 63.718
2.34381, -1, -32.1978, 1.95112, 20.2263, -159.063, -93.1412, 63.5691
2.35181, -1, -32.3613, 1.90713, 20.2372, -159.115, -93.1232, 63.2712
2.35985, -1, -32.5248, 1.86307, 20.2481, -159.166, -93.1048, 62.9731
2.36779, -1, -32.6886, 1.81891, 20.259, -159.217, -93.0865, 62.6746
2.37486, -1, -32.8526, 1.77488, 20.2699, -159.268, -93.0684, 62.3764
2.38384, -1, -33.0167, 1.73067, 20.2808, -159.319, -93.0504, 62.0781
2.39183, -1, -33.1812, 1.68641, 20.2917, -159.371, -93.0326, 61.7793
2.3988, -1, -33.3459, 1.64221, 20.3026, -159.422, -93.0148, 61.4805
2.4078, -1, -33.5113, 1.59794, 20.3136, -159.473, -92.9969, 61.1821
2.4158, -1, -33.6769, 1.55366, 20.3245, -159.524, -92.9786, 60.8835
2.4228, -1, -33.8426, 1.50945, 20.3354, -159.575, -92.96, 60.5845
2.43179, -1, -34.0086, 1.46522, 20.3463, -159.627, -92.9414, 60.2853
2.4398, -1, -34.1746, 1.42106, 20.3572, -159.678, -92.923, 59.9862
2.44787, -1, -34.3406, 1.37691, 20.3682, -159.73, -92.9049, 59.6868
2.4558, -1, -34.5066, 1.3327, 20.3791, -159.781, -92.887, 59.387
2.46385, -1, -34.6724, 1.28851, 20.39, -159.833, -92.8692, 59.0877
2.47187, -1, -34.8376, 1.24434, 20.4009, -159.884, -92.8513, 58.7885
2.48085, -1, -35.0026, 1.20009, 20.4119, -159.935, -92.8331, 58.4889
2.48779, -1, -35.1674, 1.1558, 20.423, -159.987, -92.8146, 58.1891
2.49587, -1, -35.3319, 1.11151, 20.434, -160.038, -92.7961, 57.8895
2.50379, -1, -35.4958, 1.06736, 20.4452, -160.09, -92.7778, 57.5898
2.51179, -1, -35.6582, 1.0235, 20.4564, -160.141, -92.7597, 57.2898
2.51988, -1, -35.8176, 0.980252, 20.4679, -160.192, -92.7419, 56.9913
2.52779, -1, -35.9732, 0.938125, 20.4798, -160.243, -92.7241, 56.696
2.53581, -1, -36.1236, 0.897641, 20.4917, -160.292, -92.7067, 56.4068
2.54386, -1, -36.2664, 0.859358, 20.5036, -160.339, -92.6895, 56.1277
2.55179, -1, -36.3995, 0.824044, 20.5151, -160.384, -92.673, 55.8651
2.55982, -1, -36.5215, 0.791776, 20.5258, -160.425, -92.6579, 55.6251
2.56786, -1, -36.6306, 0.762901, 20.535, -160.46, -92.6446, 55.4135
2.5758, -1, -36.7254, 0.737829, 20.5423, -160.49, -92.6335, 55.235
2.58379, -1, -36.8055, 0.716604, 20.5474, -160.515, -92.6248, 55.0917
2.59186, -1, -36.8718, 0.699142, 20.5503, -160.534, -92.6184, 54.983
2.59979, -1, -36.925, 0.685147, 20.5517, -160.547, -92.6139, 54.9063
2.60779, -1, -36.9655, 0.674327, 20.5521, -160.556, -92.611, 54.8544
2.61588, -1, -36.9951, 0.666513, 20.5519, -160.562, -92.6093, 54.8229
2.62379, -1, -37.0154, 0.661437, 20.5514, -160.565, -92.6084, 54.805
2.63183, -1, -37.0278, 0.658417, 20.5511, -160.567, -92.6079, 54.7959
2.63983, 2, -37.0344, 0.656842, 20.5509, -160.568, -92.6077, 54.7916
2.64779, 2, -37.0367, 0.656122, 20.5508, -160.568, -92.6076, 54.7896
2.6558, 2, -37.0366, 0.655827, 20.5508, -160.568, -92.6076, 54.7888
2.66389, 2, -37.0359, 0.655685, 20.5507, -160.568, -92.6076, 54.7883
2.67185, 2, -37.0357, 0.655634, 20.5507, -160.568, -92.6076, 54.7882
2.67988, 2, -37.036, 0.655578, 20.5507, -160.568, -92.6076, 54.7882
2.68796, 2, -37.0371, 0.655547, 20.5506, -160.568, -92.6076, 54.7882
2.6959, 2, -37.0382, 0.655455, 20.5505, -160.568, -92.6076, 54.7882
2.70389, 2, -37.0397, 0.655246, 20.5503, -160.568, -92.6076, 54.7882
2.71196, 2, -37.0411, 0.655012, 20.5501, -160.568, -92.6077, 54.7882
2.7198, 2, -37.0423, 0.654749, 20.5499, -160.568, -92.6077, 54.7883
2.72785, 2, -37.0433, 0.654548, 20.5497, -160.568, -92.6077, 54.7883
2.7359, 2, -37.0437, 0.654412, 20.5495, -160.568, -92.6077, 54.7885
2.74279, 2, -37.0437, 0.65439, 20.5494, -160.568, -92.6077, 54.7886
2.75193, 2, -37.0432, 0.654358, 20.5492, -160.568, -92.6078, 54.7888
2.76003, 2, -37.0424, 0.654388, 20.5491, -160.568, -92.6079, 54.789
2.76679, 2, -37.042, 0.654418, 20.5491, -160.568, -92.6079, 54.7891
2.77644, 2, -37.0398, 0.654533, 20.549, -160.568, -92.608, 54.7893
2.7842, 2, -37.0384, 0.654614, 20.5489, -160.568, -92.608, 54.7896
2.79223, 2, -37.0374, 0.654652, 20.5488, -160.568, -92.6081, 54.7897
2.80071, 2, -37.0367, 0.654658, 20.5488, -160.568, -92.6081, 54.7898
2.80837, 2, -37.0365, 0.654653, 20.5488, -160.568, -92.6081, 54.7898
2.8164, 2, -37.0366, 0.654603, 20.5488, -160.568, -92.6081, 54.7898
2.82465, 2, -37.0368, 0.65453, 20.5487, -160.568, -92.6081, 54.7899
2.83239, 2, -37.037, 0.654483, 20.5487, -160.568, -92.6081, 54.7899
2.84041, 2, -37.0372, 0.654475, 20.5487, -160.568, -92.6081, 54.7899
2.8486, 2, -37.0382, 0.654421, 20.5487, -160.568, -92.6081, 54.79
2.85586, 2, -37.0386, 0.654422, 20.5487, -160.568, -92.6081, 54.7899
2.86378, 2, -37.0393, 0.654423, 20.5487, -160.568, -92.6081, 54.79
2.872, 2, -37.0398, 0.654441, 20.5487, -160.568, -92.6081, 54.7901
2.87983, 2, -37.04, 0.654469, 20.5487, -160.568, -92.6081, 54.7902
2.88778, 2, -37.0401, 0.654487, 20.5486, -160.568, -92.6081, 54.7902
2.89583, 2, -37.0401, 0.654496, 20.5487, -160.568, -92.6081, 54.7903
2.90383, 2, -37.0399, 0.654499, 20.5486, -160.568, -92.6081, 54.7903
2.91178, 2, -37.0395, 0.654501, 20.5486, -160.568, -92.6081, 54.7904
2.91978, 2, -37.0392, 0.654502, 20.5486, -160.568, -92.6081, 54.7904
2.92785, 2, -37.039, 0.654502, 20.5486, -160.568, -92.6082, 54.7905
2.93579, 2, -37.0388, 0.654483, 20.5486, -160.568, -92.6082, 54.7905
2.94379, 2, -37.0387, 0.654458, 20.5486, -160.568, -92.6082, 54.7906
2.95184, 2, -37.0387, 0.654451, 20.5486, -160.568, -92.6082, 54.7906
2.95977, 2, -37.0388, 0.654447, 20.5486, -160.568, -92.6082, 54.7907
2.96789, 2, -37.0388, 0.65446, 20.5485, -160.568, -92.6082, 54.7907
2.97586, 2, -37.0389, 0.654463, 20.5485, -160.568, -92.6082, 54.7908
2.98489, 2, -37.039, 0.654467, 20.5485, -160.568, -92.6083, 54.7908
2.99178, 2, -37.0393, 0.654486, 20.5485, -160.568, -92.6082, 54.7909
3.00082, 2, -37.0394, 0.654495, 20.5485, -160.568, -92.6083, 54.791
3.00778, 2, -37.0394, 0.654499, 20.5485, -160.568, -92.6083, 54.7909
3.01579, 2, -37.0394, 0.654501, 20.5485, -160.568, -92.6083, 54.791
3.02386, 2, -37.0394, 0.654502, 20.5485, -160.568, -92.6083, 54.7911
3.03177, 2, -37.0394, 0.654502, 20.5485, -160.568, -92.6083, 54.7912
3.03978, 2, -37.0394, 0.654502, 20.5485, -160.568, -92.6084, 54.7912
3.04785, 2, -37.0394, 0.654483, 20.5485, -160.568, -92.6083, 54.7913
3.05579, 2, -37.0394, 0.654469, 20.5484, -160.568, -92.6084, 54.7913
3.06381, 2, -37.0394, 0.654463, 20.5484, -160.568, -92.6083, 54.7914
3.07185, 2, -37.0394, 0.654467, 20.5484, -160.568, -92.6083, 54.7914
3.07978, 2, -37.0394, 0.654474, 20.5484, -160.568, -92.6083, 54.7915
3.08777, 2, -37.0393, 0.65447, 20.5484, -160.568, -92.6083, 54.7915
3.09585, 2, -37.0393, 0.654483, 20.5484, -160.568, -92.6083, 54.7916
3.10377, 2, -37.0393, 0.654493, 20.5484, -160.568, -92.6083, 54.7916
3.11177, 2, -37.0393, 0.654498, 20.5484, -160.568, -92.6083, 54.7916
3.11985, 2, -37.0393, 0.654501, 20.5484, -160.568, -92.6083, 54.7917
3.12777, 2, -37.0393, 0.654502, 20.5484, -160.568, -92.6083, 54.7917
3.13584, 2, -37.0393, 0.654502, 20.5484, -160.568, -92.6083, 54.7918
3.14386, 2, -37.0393, 0.654502, 20.5483, -160.568, -92.6083, 54.7918
3.15178, 2, -37.0393, 0.654502, 20.5483, -160.568, -92.6084, 54.7919
3.15977, 2, -37.0392, 0.65449, 20.5483, -160.568, -92.6084, 54.7919
3.16788, 2, -37.0392, 0.654497, 20.5483, -160.568, -92.6084, 54.792
3.17586, 2, -37.0392, 0.654493, 20.5483, -160.568, -92.6084, 54.792
3.18387, 2, -37.0392, 0.654486, 20.5483, -160.568, -92.6084, 54.792
3.19196, 2, -37.0392, 0.65449, 20.5483, -160.568, -92.6084, 54.792
3.19988, 2, -37.0392, 0.654497, 20.5483, -160.568, -92.6084, 54.7921
3.20788, 2, -37.0392, 0.6545, 20.5483, -160.568, -92.6084, 54.7921
3.21596, 2, -37.0392, 0.654501, 20.5483, -160.568, -92.6084, 54.7921
3.22378, 2, -37.0392, 0.654502, 20.5483, -160.568, -92.6084, 54.7922
3.23196, 2, -37.0392, 0.654502, 20.5482, -160.568, -92.6084, 54.7922
3.2399, 2, -37.0391, 0.654502, 20.5482, -160.568, -92.6084, 54.7923
3.24783, 2, -37.0391, 0.654502, 20.5482, -160.568, -92.6084, 54.7923
3.25604, 2, -37.0391, 0.654503, 20.5482, -160.568, -92.6084, 54.7924
3.26277, 2, -37.0391, 0.654503, 20.5482, -160.568, -92.6084, 54.7924
3.27201, 2, -37.0391, 0.654503, 20.5482, -160.568, -92.6084, 54.7924
3.27882, 2, -37.0391, 0.654503, 20.5482, -160.568, -92.6084, 54.7924
3.28825, 2, -37.0391, 0.654503, 20.5481, -160.568, -92.6084, 54.7925
3.29481, 2, -37.0391, 0.654503, 20.5481, -160.568, -92.6083, 54.7925
3.30472, 2, -37.0391, 0.654503, 20.5481, -160.568, -92.6084, 54.7925
3.31243, 2, -37.0391, 0.654503, 20.5481, -160.568, -92.6084, 54.7925
3.32034, 2, -37.0391, 0.654503, 20.5481, -160.568, -92.6084, 54.7925
3.32834, 2, -37.039, 0.654503, 20.5481, -160.568, -92.6084, 54.7926
3.33651, 2, -37.039, 0.654503, 20.5481, -160.568, -92.6084, 54.7926
3.34427, 2, -37.039, 0.654503, 20.5481, -160.568, -92.6084, 54.7926
3.35177, 2, -37.039, 0.654503, 20.5481, -160.567, -92.6085, 54.7926
3.35982, 2, -37.039, 0.654521, 20.5481, -160.567, -92.6085, 54.7927
3.36787, 2, -37.039, 0.654511, 20.5481, -160.567, -92.6085, 54.7927
3.37578, 2, -37.039, 0.654506, 20.5481, -160.567, -92.6085, 54.7928
3.38381, 2, -37.0389, 0.654497, 20.5481, -160.567, -92.6085, 54.7928
3.39177, 2, -37.0389, 0.654495, 20.548, -160.567, -92.6085, 54.7928
3.3998, 2, -37.0389, 0.654499, 20.548, -160.567, -92.6085, 54.7928
3.40782, 2, -37.0389, 0.654501, 20.548, -160.567, -92.6085, 54.7928
3.41577, 2, -37.0389, 0.65452, 20.548, -160.567, -92.6085, 54.7929
3.42376, 2, -37.0389, 0.654511, 20.548, -160.567, -92.6085, 54.7929
3.43181, 2, -37.0389, 0.654517, 20.548, -160.567, -92.6085, 54.7929
3.43976, 2, -37.0389, 0.654517, 20.548, -160.567, -92.6086, 54.7929
3.44777, 2, -37.0389, 0.654509, 20.548, -160.567, -92.6085, 54.7929
3.45583, 2, -37.0389, 0.654505, 20.548, -160.567, -92.6085, 54.793
3.46377, 2, -37.0389, 0.654504, 20.548, -160.567, -92.6086, 54.7929
3.47262, 2, -37.0388, 0.654503, 20.548, -160.567, -92.6085, 54.793
3.47987, 2, -37.0388, 0.654495, 20.548, -160.567, -92.6085, 54.793
3.4888, 2, -37.0388, 0.654494, 20.548, -160.567, -92.6085, 54.7931
3.49588, 2, -37.0388, 0.654499, 20.548, -160.567, -92.6085, 54.7931
3.50486, 2, -37.0387, 0.654501, 20.548, -160.567, -92.6085, 54.7931
3.51176, 2, -37.0387, 0.654502, 20.5479, -160.567, -92.6085, 54.7931
3.51976, 2, -37.0387, 0.654513, 20.5479, -160.567, -92.6085, 54.7931
3.52785, 2, -37.0387, 0.654515, 20.5479, -160.567, -92.6085, 54.7931
3.53577, 2, -37.0387, 0.654508, 20.5479, -160.567, -92.6085, 54.7931
3.54376, 2, -37.0387, 0.654516, 20.5479, -160.567, -92.6086, 54.7931
3.55183, 2, -37.0387, 0.654516, 20.5479, -160.567, -92.6086, 54.7931
3.55976, 2, -37.0386, 0.654538, 20.5479, -160.567, -92.6086, 54.7931
3.5678, 2, -37.0386, 0.654526, 20.5479, -160.567, -92.6087, 54.7932
3.57584, 2, -37.0386, 0.654513, 20.5479, -160.567, -92.6086, 54.7931
3.58376, 2, -37.0386, 0.654526, 20.5479, -160.567, -92.6086, 54.7931
3.59176, 2, -37.0386, 0.654524, 20.5479, -160.567, -92.6086, 54.7931
3.59983, 2, -37.0386, 0.65452, 20.5478, -160.567, -92.6087, 54.7931
3.60776, 2, -37.0386, 0.65451, 20.5478, -160.567, -92.6087, 54.7931
3.61577, 2, -37.0386, 0.654525, 20.5478, -160.567, -92.6086, 54.7931
3.62384, 2, -37.0386, 0.654513, 20.5478, -160.567, -92.6087, 54.7932
3.63176, 2, -37.0386, 0.654526, 20.5478, -160.567, -92.6087, 54.7932
3.63998, 2, -37.0386, 0.654513, 20.5478, -160.567, -92.6087, 54.7932
3.64795, 2, -37.0386, 0.654518, 20.5478, -160.567, -92.6087, 54.7932
3.65577, 2, -37.0386, 0.654517, 20.5478, -160.567, -92.6087, 54.7932
3.66378, 2, -37.0386, 0.654508, 20.5478, -160.567, -92.6086, 54.7932
3.67188, 2, -37.0385, 0.654512, 20.5478, -160.567, -92.6087, 54.7932
3.67994, 2, -37.0385, 0.654507, 20.5478, -160.567, -92.6086, 54.7932
3.6874, 2, -37.0386, 0.654516, 20.5478, -160.567, -92.6085, 54.7932
3.69595, 2, -37.0386, 0.654516, 20.5478, -160.567, -92.6085, 54.7933
3.70382, 4, -37.0385, 0.654509, 20.5477, -160.567, -92.6086, 54.7933
3.71187, 4, -37.0385, 0.654505, 20.5478, -160.567, -92.6086, 54.7933
3.71993, 4, -37.0385, 0.654515, 20.5477, -160.567, -92.6086, 54.7932
3.72777, 4, -37.0385, 0.654534, 20.5477, -160.567, -92.6086, 54.7932
3.73584, 4, -37.0385, 0.654535, 20.5477, -160.567, -92.6086, 54.7932
3.74388, 4, -37.0384, 0.654518, 20.5477, -160.567, -92.6086, 54.7932
3.75077, 4, -37.0384, 0.654524, 20.5477, -160.567, -92.6087, 54.7932
3.75991, 4, -37.0384, 0.654537, 20.5477, -160.567, -92.6087, 54.7932
3.76834, 4, -37.0384, 0.654544, 20.5477, -160.567, -92.6087, 54.7933
3.77476, 4, -37.0384, 0.654542, 20.5477, -160.567, -92.6087, 54.7932
3.78413, 4, -37.0384, 0.654551, 20.5477, -160.567, -92.6087, 54.7933
3.79076, 4, -37.0384, 0.654546, 20.5477, -160.567, -92.6087, 54.7932
3.80019, 4, -37.0384, 0.65455, 20.5476, -160.567, -92.6086, 54.7933
3.82831, 4, -37.0383, 0.654561, 20.5476, -160.567, -92.6087, 54.7932
3.8303, 4, -37.0383, 0.654551, 20.5476, -160.567, -92.6087, 54.7932
3.83292, 4, -37.0384, 0.654557, 20.5476, -160.567, -92.6087, 54.7932
3.83479, 4, -37.0384, 0.654557, 20.5476, -160.567, -92.6087, 54.7932
3.84109, 4, -37.0383, 0.654564, 20.5476, -160.567, -92.6087, 54.7932
3.85069, 4, -37.0383, 0.654549, 20.5476, -160.567, -92.6087, 54.7933
3.85662, 4, -37.0381, 0.654392, 20.5476, -160.567, -92.6088, 54.7932
3.86375, 4, -37.0366, 0.654096, 20.5477, -160.567, -92.6088, 54.7932
3.87175, 4, -37.0326, 0.652351, 20.548, -160.567, -92.6087, 54.7933
3.88255, 4, -37.0196, 0.644703, 20.5511, -160.567, -92.6087, 54.7932
3.88774, 4, -37.0134, 0.6404, 20.5534, -160.566, -92.6087, 54.7932
3.89579, 4, -36.9977, 0.628896, 20.5608, -160.565, -92.6087, 54.7933
3.90378, 5, -36.9767, 0.612882, 20.5732, -160.563, -92.6087, 54.7932
3.91179, 5, -36.9501, 0.592414, 20.5919, -160.559, -92.6086, 54.7932
3.91976, 5, -36.9184, 0.567442, 20.6172, -160.554, -92.6083, 54.7931
3.9279, 5, -36.8821, 0.538005, 20.6494, -160.547, -92.6078, 54.7931
3.9358, 5, -36.8408, 0.504033, 20.6879, -160.539, -92.6069, 54.7931
3.94375, 5, -36.7943, 0.465233, 20.7319, -160.529, -92.6056, 54.793
3.95189, 5, -36.7426, 0.422222, 20.7803, -160.518, -92.6041, 54.793
3.95979, 5, -36.6862, 0.3755, 20.8318, -160.506, -92.6025, 54.793
3.96775, 5, -36.6258, 0.325998, 20.8854, -160.494, -92.6008, 54.7929
3.97581, 5, -36.5616, 0.274454, 20.9403, -160.482, -92.599, 54.7929
3.9848, 5, -36.4949, 0.221508, 20.9956, -160.47, -92.5971, 54.7929
3.99175, 5, -36.4271, 0.167978, 21.0511, -160.457, -92.5953, 54.793
3.9999, 5, -36.3584, 0.1142, 21.1066, -160.445, -92.5934, 54.793
4.00772, 5, -36.2897, 0.0603154, 21.162, -160.433, -92.5915, 54.793
4.01582, 5, -36.2208, 0.00653352, 21.2175, -160.421, -92.5896, 54.7931
4.02607, 5, -36.1176, -0.0736932, 21.3006, -160.403, -92.5866, 54.7931
4.03192, 5, -36.0833, -0.100344, 21.3283, -160.397, -92.5857, 54.7931
4.03996, 5, -36.0147, -0.153444, 21.3835, -160.384, -92.5836, 54.7932
4.04775, 5, -35.9462, -0.20641, 21.4387, -160.371, -92.5816, 54.7934
4.05576, 5, -35.8776, -0.259158, 21.4937, -160.358, -92.5796, 54.7937
4.06383, 5, -35.8088, -0.311773, 21.5487, -160.346, -92.5776, 54.7941
4.07178, 5, -35.7397, -0.364414, 21.6037, -160.333, -92.5756, 54.7949
4.07991, 5, -35.6705, -0.417034, 21.6584, -160.32, -92.5736, 54.7957
4.08875, 5, -35.6009, -0.469739, 21.7129, -160.308, -92.5716, 54.7968
4.09582, 5, -35.5311, -0.522486, 21.7673, -160.295, -92.5695, 54.798
4.10397, 5, -35.461, -0.575227, 21.8215, -160.283, -92.5675, 54.7994
4.1126, 5, -35.3907, -0.627941, 21.8755, -160.27, -92.5655, 54.8009
4.11974, 5, -35.3202, -0.680617, 21.9295, -160.257, -92.5634, 54.8026
4.12796, 5, -35.2496, -0.733269, 21.9833, -160.244, -92.5613, 54.8045
4.13594, 5, -35.1791, -0.785638, 22.037, -160.231, -92.5592, 54.8064
4.14381, 5, -35.1084, -0.837829, 22.0907, -160.217, -92.5571, 54.8085
4.1519, 5, -35.0377, -0.889956, 22.1442, -160.204, -92.555, 54.8107
4.16072, 5, -34.9672, -0.941734, 22.1975, -160.191, -92.5528, 54.813
4.16777, 5, -34.8967, -0.993328, 22.2508, -160.178, -92.5506, 54.8153
4.17833, 5, -34.8262, -1.04475, 22.304, -160.165, -92.5484, 54.8179
4.18428, 5, -34.7557, -1.09613, 22.3569, -160.152, -92.5463, 54.8205
4.19198, 5, -34.685, -1.14751, 22.4097, -160.14, -92.544, 54.8234
4.19986, 5, -34.614, -1.19876, 22.4624, -160.127, -92.5418, 54.8263
4.20821, 5, -34.543, -1.25011, 22.5147, -160.114, -92.5396, 54.8293
4.21533, 5, -34.5074, -1.27578, 22.5409, -160.1, -92.5374, 54.8324
4.22374, 5, -34.4003, -1.35276, 22.6193, -160.086, -92.5351, 54.8356
4.23275, 5, -34.3288, -1.40406, 22.6713, -160.073, -92.5328, 54.8389
4.2387, 5, -34.293, -1.42969, 22.6972, -160.066, -92.5316, 54.8407
4.24778, 5, -34.1852, -1.50625, 22.7749, -160.045, -92.5283, 54.8461
4.25617, 5, -34.1132, -1.55703, 22.8265, -160.032, -92.526, 54.8498
4.26691, 5, -34.0411, -1.60768, 22.878, -160.018, -92.5237, 54.8536
4.27211, 5, -33.9689, -1.65808, 22.9295, -160.005, -92.5213, 54.8574
4.27879, 5, -33.9328, -1.68318, 22.9552, -159.998, -92.5202, 54.8594
4.28816, 5, -33.8246, -1.75825, 23.0319, -159.978, -92.5167, 54.8655
4.29474, 5, -33.7885, -1.78322, 23.0574, -159.971, -92.5156, 54.8677
4.3063, 5, -33.68, -1.85806, 23.1336, -159.95, -92.5121, 54.874
4.31337, 5, -33.6076, -1.90786, 23.1842, -159.935, -92.5099, 54.8783
4.31878, 5, -33.5713, -1.93283, 23.2095, -159.928, -92.5088, 54.8804
4.32836, 5, -33.4622, -2.00825, 23.2852, -159.907, -92.5052, 54.8864
4.33738, 5, -33.3894, -2.05891, 23.3355, -159.893, -92.503, 54.8895
4.34438, 5, -33.3531, -2.08442, 23.3859, -159.879, -92.5006, 54.8912
4.35231, 6, -33.2807, -2.13582, 23.4113, -159.872, -92.4993, 54.8913
4.36351, 6, -33.1726, -2.21435, 23.4877, -159.85, -92.495, 54.8896
4.36771, 6, -33.1368, -2.241, 23.5135, -159.842, -92.4932, 54.8877
4.3758, 6, -33.0655, -2.29497, 23.5657, -159.826, -92.489, 54.8801
4.38374, 7, -32.9947, -2.35005, 23.6189, -159.809, -92.4835, 54.8677
4.39078, 7, -32.9243, -2.4063, 23.6733, -159.79, -92.4765, 54.8524
4.39978, 7, -32.8545, -2.4639, 23.729, -159.77, -92.4677, 54.8351
4.40689, 7, -32.7851, -2.52297, 23.7862, -159.749, -92.457, 54.8176
4.41621, 7, -32.7165, -2.58363, 23.8446, -159.726, -92.4443, 54.8005
4.42378, 8, -32.6486, -2.64585, 23.9042, -159.703, -92.4297, 54.7837
4.43197, 8, -32.5814, -2.70973, 23.9651, -159.678, -92.4132, 54.7668
4.44194, 8, -32.5148, -2.77534, 24.027, -159.638, -92.3849, 54.7402
4.44776, 8, -32.449, -2.8425, 24.0899, -159.624, -92.3747, 54.7307
4.45575, 8, -32.3839, -2.9111, 24.1538, -159.596, -92.3532, 54.7106
4.46376, 9, -32.3192, -2.98108, 24.2186, -159.568, -92.3307, 54.6887
4.47177, 9, -32.2552, -3.05239, 24.2845, -159.538, -92.3072, 54.665
4.48157, 9, -32.1916, -3.1618, 24.3851, -159.49, -92.2692, 54.6265
4.48789, 9, -32.1287, -3.19886, 24.4192, -159.474, -92.2556, 54.6131
4.49575, 9, -32.0663, -3.27405, 24.488, -159.442, -92.2271, 54.5853
4.5045, 10, -32.0045, -3.35057, 24.5578, -159.408, -92.1975, 54.5558
4.51079, 10, -31.9433, -3.42843, 24.6287, -159.373, -92.1668, 54.5247
4.51977, 10, -31.8827, -3.50777, 24.7006, -159.337, -92.1348, 54.4913
4.5311, 10, -31.7927, -3.62941, 24.8105, -159.282, -92.0831, 54.4384
4.53589, 10, -31.7631, -3.67069, 24.8476, -159.264, -92.0652, 54.4203
4.54372, 11, -31.7041, -3.75428, 24.9226, -159.225, -92.029, 54.3829
4.55182, 11, -31.6456, -3.83942, 24.9985, -159.185, -91.9916, 54.3439
4.55988, 11, -31.5877, -3.92602, 25.0753, -159.145, -91.9522, 54.3027
4.56852, 11, -31.5303, -4.01402, 25.153, -159.104, -91.9112, 54.2601
4.57576, 11, -31.4735, -4.10354, 25.2319, -159.061, -91.8696, 54.2165
4.58377, 12, -31.4173, -4.1945, 25.3118, -159.018, -91.8263, 54.1715
4.59185, 12, -31.3614, -4.2869, 25.3928, -158.975, -91.7809, 54.1243
4.59973, 12, -31.3061, -4.38067, 25.4749, -158.929, -91.7349, 54.0754
4.60799, 12, -31.2513, -4.47574, 25.558, -158.883, -91.6878, 54.0257
4.61843, 12, -31.197, -4.57223, 25.6421, -158.836, -91.6384, 53.9744
4.62372, 13, -31.1433, -4.67017, 25.7271, -158.788, -91.5886, 53.9208
4.63183, 13, -31.0901, -4.76952, 25.8131, -158.739, -91.5369, 53.8663
4.63973, 13, -31.0374, -4.8703, 25.9, -158.69, -91.4834, 53.8106
4.6479, 13, -30.9852, -4.97268, 25.9881, -158.639, -91.4294, 53.7529
4.6562, 13, -30.9335, -5.07648, 26.0773, -158.587, -91.3737, 53.6937
4.66397, 14, -30.8823, -5.18169, 26.1676, -158.535, -91.3164, 53.6336
4.67199, 14, -30.8317, -5.2884, 26.2589, -158.481, -91.2587, 53.5715
4.68196, 14, -30.7818, -5.39655, 26.3512, -158.428, -91.1985, 53.508
4.68803, 14, -30.7322, -5.5062, 26.4442, -158.372, -91.1381, 53.4438
4.69586, 14, -30.6833, -5.61744, 26.5383, -158.316, -91.0755, 53.3773
4.70387, 14, -30.6348, -5.7301, 26.6335, -158.26, -91.0117, 53.3095
4.71186, 15, -30.5868, -5.84417, 26.7298, -158.201, -90.9467, 53.241
4.71987, 15, -30.5393, -5.95943, 26.8274, -158.143, -90.8799, 53.1699
4.72782, 15, -30.4923, -6.07607, 26.9259, -158.083, -90.8126, 53.0983
4.73607, 15, -30.4458, -6.19423, 27.0254, -158.022, -90.7431, 53.0248
4.74379, 15, -30.3998, -6.31369, 27.1257, -157.961, -90.6728, 52.9494
4.75185, 16, -30.3543, -6.43482, 27.227, -157.898, -90.6005, 52.8733
4.75997, 16, -30.3094, -6.55742, 27.3294, -157.835, -90.5279, 52.7945
4.76792, 16, -30.2649, -6.68138, 27.433, -157.771, -90.4532, 52.7154
4.77474, 16, -30.2429, -6.74395, 27.4853, -157.738, -90.4156, 52.6753
4.78442, 16, -30.1775, -6.93395, 27.6435, -157.64, -90.3003, 52.5523
4.79213, 17, -30.1345, -7.06255, 27.75, -157.573, -90.2221, 52.469
4.80027, 17, -30.092, -7.19273, 27.8574, -157.505, -90.1423, 52.3842
4.80865, 17, -30.0499, -7.32439, 27.9658, -157.436, -90.0611, 52.2985
4.81727, 17, -30.0085, -7.45722, 28.0754, -157.367, -89.9788, 52.2106
4.82274, 17, -29.9879, -7.52413, 28.1307, -157.331, -89.9372, 52.1666
4.83232, 18, -29.9271, -7.7271, 28.2982, -157.225, -89.8101, 52.0319
4.84039, 18, -29.8871, -7.86424, 28.411, -157.152, -89.7236, 51.9408
4.84834, 18, -29.8673, -7.93338, 28.4677, -157.116, -89.6365, 51.8476
4.8571, 18, -29.8084, -8.14244, 28.6391, -157.005, -89.5477, 51.7536
4.86517, 18, -29.7891, -8.28348, 28.7549, -156.93, -89.4575, 51.6576
4.87068, 19, -29.7507, -8.3545, 28.8132, -156.892, -89.4121, 51.6096
4.87972, 19, -29.7128, -8.49778, 28.9308, -156.816, -89.3204, 51.5122
4.88788, 19, -29.6754, -8.64268, 29.0493, -156.738, -89.2272, 51.4139
4.89571, 19, -29.6384, -8.78901, 29.1685, -156.661, -89.1328, 51.3142
4.90273, 19, -29.602, -8.93646, 29.2886, -156.581, -89.0376, 51.214
4.91171, 20, -29.566, -9.08535, 29.4097, -156.501, -88.941, 51.1119
4.91972, 20, -29.5305, -9.23571, 29.5321, -156.421, -88.8434, 51.0091
4.92677, 20, -29.4954, -9.38766, 29.6556, -156.339, -88.7448, 50.9048
4.93587, 20, -29.4608, -9.54087, 29.7798, -156.257, -88.6451, 50.7996
4.94375, 20, -29.4267, -9.69512, 29.9049, -156.173, -88.5442, 50.6929
4.95191, 21, -29.393, -9.85061, 30.031, -156.089, -88.4424, 50.585
4.95972, 21, -29.3597, -10.0076, 30.158, -156.003, -88.3392, 50.4764
4.96681, 21, -29.3268, -10.1663, 30.2862, -155.917, -88.2352, 50.3664
4.97572, 21, -29.2944, -10.326, 30.4155, -155.83, -88.1301, 50.2557
4.98615, 21, -29.2465, -10.5673, 30.6108, -155.699, -87.9703, 50.0881
4.99197, 21, -29.2307, -10.6484, 30.6763, -155.654, -87.9167, 50.0316
4.99971, 22, -29.1995, -10.8118, 30.8081, -155.564, -87.8085, 49.9183
5.00891, 22, -29.1686, -10.9765, 30.9409, -155.474, -87.6992, 49.8041
5.01889, 22, -29.1382, -11.2251, 31.1418, -155.337, -87.5336, 49.6309
5.02374, 22, -29.1082, -11.3085, 31.2092, -155.29, -87.4778, 49.5729
5.0325, 22, -29.0785, -11.4765, 31.3448, -155.197, -87.3657, 49.4559
5.03974, 23, -29.0492, -11.6463, 31.4811, -155.103, -87.2527, 49.3383
5.04773, 23, -29.0202, -11.8171, 31.6182, -155.009, -87.1387, 49.2198
5.05922, 23, -28.9776, -12.0748, 31.8254, -154.865, -86.9662, 49.0412
5.06387, 23, -28.9636, -12.1613, 31.8949, -154.817, -86.9082, 48.9815
5.0709, 23, -28.9359, -12.3356, 32.0346, -154.719, -86.7915, 48.8612
5.07975, 24, -28.9085, -12.5111, 32.1753, -154.621, -86.6739, 48.7406
5.08883, 24, -28.8813, -12.6871, 32.3167, -154.522, -86.5553, 48.6196
5.09578, 24, -28.8545, -12.8637, 32.4587, -154.422, -86.4361, 48.4976
5.10376, 24, -28.8282, -13.0418, 32.6015, -154.322, -86.3158, 48.3751
5.11185, 24, -28.8021, -13.2215, 32.7455, -154.22, -86.195, 48.2522
5.11904, 25, -28.7763, -13.4017, 32.8901, -154.118, -86.0734, 48.129
5.12772, 25, -28.7509, -13.5825, 33.0354, -154.015, -85.9509, 48.0056
5.13595, 25, -28.7256, -13.7646, 33.1812, -153.911, -85.8281, 47.8822
5.144, 25, -28.7005, -13.9481, 33.3277, -153.807, -85.7041, 47.7583
5.15176, 25, -28.6758, -14.1324, 33.4752, -153.701, -85.5799, 47.6343
5.15979, 26, -28.6514, -14.317, 33.6234, -153.595, -85.4549, 47.5105
5.16789, 26, -28.6273, -14.5027, 33.7719, -153.488, -85.3293, 47.386
5.17575, 26, -28.6035, -14.69, 33.9211, -153.38, -85.2033, 47.2616
5.18488, 26, -28.5798, -14.8778, 34.0713, -153.271, -85.0763, 47.1374
5.19532, 26, -28.5445, -15.16, 34.2977, -153.107, -84.8852, 46.9513
5.19934, 27, -28.5329, -15.2545, 34.3733, -153.052, -84.8212, 46.8893
5.21032, 27, -28.5098, -15.4442, 34.5248, -152.942, -84.693, 46.7661
5.21603, 27, -28.4869, -15.6343, 34.6772, -152.83, -84.5641, 46.6426
5.22426, 27, -28.4641, -15.8247, 34.8304, -152.718, -84.4346, 46.5196
5.23171, 27, -28.4418, -16.0163, 34.9839, -152.605, -84.3051, 46.3969
5.24016, 28, -28.4195, -16.2093, 35.1374, -152.492, -84.175, 46.2745
5.24671, 28, -28.4083, -16.3061, 35.2143, -152.435, -84.1099, 46.2134
5.25577, 28, -28.3749, -16.5968, 35.4466, -152.263, -83.9136, 46.0309
5.26481, 28, -28.3528, -16.7917, 35.602, -152.148, -83.7826, 45.9101
5.27222, 28, -28.3308, -16.9876, 35.7575, -152.032, -83.651, 45.79
5.27871, 28, -28.3198, -17.0855, 35.8354, -151.973, -83.5852, 45.7302
5.28907, 29, -28.2869, -17.3792, 36.0699, -151.797, -83.3874, 45.5525
5.29608, 29, -28.2651, -17.5759, 36.227, -151.679, -83.2551, 45.4352
5.30269, 29, -28.2542, -17.6745, 36.3055, -151.62, -83.1888, 45.3769
5.31222, 29, -28.2215, -17.9702, 36.5409, -151.442, -82.9896, 45.2034
5.32068, 29, -28.2, -18.1677, 36.6987, -151.322, -82.8565, 45.0892
5.32914, 30, -28.1785, -18.3659, 36.857, -151.202, -82.7234, 44.9762
5.33768, 30, -28.1568, -18.5644, 37.0153, -151.081, -82.5903, 44.8644
5.34679, 30, -28.1352, -18.7628, 37.1734, -150.959, -82.4568, 44.7542
5.35227, 30, -28.1244, -18.8622, 37.2525, -150.898, -82.3901, 44.6454
5.35971, 30, -28.1027, -19.0618, 37.4111, -150.776, -82.2564, 44.5917
5.36678, 31, -28.0808, -19.262, 37.5701, -150.653, -82.1226, 44.4857
5.37679, 31, -28.048, -19.5618, 37.8081, -150.469, -81.9221, 44.3295
5.3837, 31, -28.0372, -19.6618, 37.8875, -150.407, -81.8552, 44.2783
5.39193, 31, -28.0153, -19.8622, 38.0467, -150.283, -81.7217, 44.1776
5.39969, 31, -27.9933, -20.0626, 38.2064, -150.158, -81.5877, 44.0778
5.40777, 32, -27.9713, -20.2624, 38.3657, -150.032, -81.454, 43.9803
5.41571, 32, -27.9491, -20.4627, 38.5248, -149.907, -81.3201, 43.8842
5.4237, 32, -27.9265, -20.6638, 38.6842, -149.78, -81.1864, 43.7905
5.4317, 32, -27.9039, -20.8645, 38.8442, -149.653, -81.0523, 43.6984
5.43986, 32, -27.8811, -21.0648, 39.0038, -149.526, -80.9185, 43.6092
5.44768, 33, -27.858, -21.2654, 39.1628, -149.398, -80.7849, 43.5221
5.45472, 33, -27.8346, -21.466, 39.3219, -149.27, -80.6516, 43.4384
5.46391, 33, -27.8109, -21.6658, 39.4811, -149.143, -80.5186, 43.3571
5.47547, 33, -27.7745, -21.9647, 39.7185, -148.951, -80.32, 43.2418
5.47975, 33, -27.7622, -22.0645, 39.7972, -148.887, -80.254, 43.2048
5.48776, 34, -27.7373, -22.2638, 39.9544, -148.759, -80.1221, 43.1334
5.4967, 34, -27.7121, -22.4621, 40.1115, -148.631, -79.9909, 43.0658
5.5037, 34, -27.6864, -22.6598, 40.2683, -148.503, -79.8596, 43.0003
5.51398, 34, -27.6473, -22.9565, 40.5022, -148.31, -79.6631, 42.909
5.51986, 34, -27.634, -23.055, 40.5801, -148.246, -79.5976, 42.8801
5.52866, 35, -27.6071, -23.2514, 40.7361, -148.117, -79.4667, 42.8243
5.5357, 35, -27.5799, -23.4478, 40.8918, -147.987, -79.3358, 42.7719
5.54387, 35, -27.5525, -23.6446, 41.0467, -147.858, -79.2055, 42.7237
5.5517, 35, -27.5246, -23.8408, 41.2011, -147.728, -79.0754, 42.6791
5.55971, 35, -27.4965, -24.036, 41.3553, -147.598, -78.9454, 42.6377
5.56792, 36, -27.4678, -24.2312, 41.5094, -147.468, -78.8159, 42.6001
5.57576, 36, -27.4386, -24.4259, 41.6627, -147.338, -78.6863, 42.567
5.5837, 36, -27.4091, -24.6196, 41.8152, -147.208, -78.5576, 42.5382
5.59185, 36, -27.3792, -24.8123, 41.9673, -147.078, -78.4289, 42.5138
5.59923, 36, -27.3486, -25.0051, 42.1192, -146.947, -78.3008, 42.4936
5.6077, 36, -27.3172, -25.1976, 42.2703, -146.817, -78.1731, 42.4778
5.61581, 37, -27.285, -25.3888, 42.4202, -146.686, -78.0456, 42.4665
5.62377, 37, -27.2522, -25.579, 42.5694, -146.557, -77.9187, 42.4599
5.6317, 37, -27.2186, -25.7689, 42.718, -146.427, -77.7919, 42.4569
5.63987, 37, -27.1842, -25.9577, 42.8657, -146.298, -77.6656, 42.4569
5.64794, 37, -27.1488, -26.1448, 43.0122, -146.169, -77.5395, 42.4626
5.65581, 38, -27.1127, -26.3306, 43.1575, -146.041, -77.4142, 42.4745
5.66455, 38, -27.0758, -26.5158, 43.3019, -145.913, -77.2894, 42.4915
5.67326, 38, -27.0381, -26.6999, 43.4455, -145.786, -77.1651, 42.5142
5.67931, 38, -26.9995, -26.8823, 43.588, -145.659, -77.0414, 42.5424
5.68855, 38, -26.9601, -27.0639, 43.7294, -145.532, -76.9181, 42.5764
5.6958, 39, -26.92, -27.2452, 43.8698, -145.406, -76.7954, 42.6169
5.7038, 39, -26.8791, -27.4254, 44.0094, -145.28, -76.6726, 42.6632
5.71393, 39, -26.8372, -27.6042, 44.1482, -145.154, -76.5502, 42.7147
5.72002, 39, -26.7946, -27.7821, 44.2862, -145.028, -76.4278, 42.7723
5.72782, 39, -26.7513, -27.9599, 44.4232, -144.903, -76.3054, 42.8367
5.73571, 40, -26.707, -28.1367, 44.5591, -144.778, -76.1832, 42.9063
5.74379, 40, -26.6617, -28.3116, 44.694, -144.653, -76.0611, 42.9831
5.75176, 40, -26.6154, -28.4853, 44.8277, -144.529, -75.9395, 43.0662
5.76379, 40, -26.5681, -28.7438, 45.0256, -144.345, -75.7575, 43.2027
5.76683, 40, -26.5441, -28.7438, 45.0256, -144.345, -75.7575, 43.2027
5.77592, 41, -26.47, -28.9983, 45.2202, -144.162, -75.5769, 43.3542
5.7848, 41, -26.4192, -29.1655, 45.348, -144.042, -75.457, 43.4636
5.79212, 41, -26.3671, -29.3316, 45.4743, -143.923, -75.338, 43.5797
5.79869, 41, -26.3405, -29.4142, 45.5368, -143.864, -75.2785, 43.6404
5.80675, 41, -26.2864, -29.578, 45.6606, -143.747, -75.1598, 43.767
5.81675, 42, -26.2027, -29.82, 45.843, -143.573, -74.9832, 43.9705
5.82514, 42, -26.1452, -29.9794, 45.9624, -143.459, -74.8658, 44.1154
5.83078, 42, -26.1159, -30.0584, 46.0215, -143.403, -74.8074, 44.1905
5.84128, 42, -26.0258, -30.2928, 46.196, -143.235, -74.6325, 44.4267
5.84917, 42, -25.9641, -30.4463, 46.3102, -143.125, -74.5166, 44.5935
5.85469, 42, -25.9326, -30.5223, 46.3666, -143.071, -74.4587, 44.6796
5.86369, 43, -25.8684, -30.6726, 46.4778, -142.964, -74.3432, 44.8576
5.87071, 43, -25.8027, -30.821, 46.5869, -142.858, -74.2283, 45.0437
5.88156, 43, -25.701, -31.0396, 46.7467, -142.704, -74.0564, 45.3373
5.88917, 43, -25.6311, -31.1822, 46.8507, -142.603, -73.9426, 45.5424
5.89725, 43, -25.5955, -31.3227, 46.9526, -142.504, -73.8293, 45.7553
5.90276, 44, -25.523, -31.392, 47.0027, -142.456, -73.7727, 45.8646
5.91449, 44, -25.4106, -31.5966, 47.1492, -142.314, -73.604, 46.2047
5.91988, 44, -25.3722, -31.6636, 47.1968, -142.268, -73.548, 46.3221
5.92769, 44, -25.294, -31.7955, 47.2901, -142.177, -73.4361, 46.5631
5.93569, 44, -25.214, -31.9246, 47.381, -142.089, -73.3252, 46.812
5.94598, 45, -25.0904, -32.1131, 47.5127, -141.963, -73.1594, 47.2015
5.9517, 45, -25.0481, -32.1745, 47.5554, -141.922, -73.1047, 47.3355
5.95968, 45, -24.9621, -32.2953, 47.6385, -141.843, -72.9957, 47.6096
5.97009, 45, -24.8292, -32.4708, 47.7576, -141.729, -72.8333, 48.0362
5.97723, 45, -24.7837, -32.5278, 47.7958, -141.693, -72.7796, 48.3314
5.98372, 46, -24.691, -32.6393, 47.8699, -141.623, -72.6728, 48.4824
5.99175, 46, -24.5961, -32.7475, 47.9411, -141.557, -72.5667, 48.7902
6.00069, 46, -24.4987, -32.8524, 48.0093, -141.493, -72.4616, 49.1064
6.00768, 46, -24.3991, -32.9538, 48.0744, -141.435, -72.3573, 49.4314
6.01589, 46, -24.2972, -33.0514, 48.1361, -141.379, -72.2539, 49.7649
6.02395, 47, -24.1929, -33.1453, 48.1943, -141.327, -72.1517, 50.1064
6.0327, 47, -24.0863, -33.2351, 48.2489, -141.28, -72.0504, 50.4563
6.0397, 47, -23.977, -33.3209, 48.2999, -141.236, -71.9502, 50.8148
6.04777, 47, -23.865, -33.4025, 48.3471, -141.198, -71.8512, 51.1814
6.05568, 47, -23.7503, -33.4798, 48.3905, -141.164, -71.7532, 51.5564
6.06384, 48, -23.6327, -33.5528, 48.4299, -141.135, -71.6565, 51.9399
6.07189, 48, -23.5124, -33.6213, 48.4652, -141.11, -71.5616, 52.331
6.07968, 48, -23.3896, -33.685, 48.4963, -141.089, -71.4681, 52.7308
6.09052, 48, -23.2007, -33.7717, 48.5354, -141.068, -71.3313, 53.3465
6.09584, 48, -23.1364, -33.798, 48.5463, -141.064, -71.2866, 53.5559
6.10375, 49, -23.0055, -33.8468, 48.5647, -141.059, -71.1987, 53.981
6.1117, 49, -22.8718, -33.8905, 48.5788, -141.058, -71.1125, 54.4135
6.11969, 49, -22.7352, -33.9286, 48.5883, -141.062, -71.0287, 54.8537
6.12768, 49, -22.5957, -33.9612, 48.5931, -141.073, -70.9467, 55.302
6.13575, 49, -22.4534, -33.9882, 48.5934, -141.09, -70.8672, 55.7577
6.14388, 50, -22.3084, -34.0094, 48.589, -141.113, -70.79, 56.2217
6.15183, 50, -22.1607, -34.0244, 48.5795, -141.142, -70.7159, 56.6925
6.15973, 50, -22.0105, -34.0332, 48.565, -141.176, -70.6442, 57.1712
6.16788, 50, -21.8573, -34.0361, 48.5453, -141.217, -70.576, 57.658
6.17569, 50, -21.7012, -34.0329, 48.5202, -141.265, -70.5106, 58.1524
6.18379, 50, -21.5418, -34.023, 48.4895, -141.318, -70.4497, 58.6539
6.19233, 51, -21.3796, -34.0063, 48.4535, -141.378, -70.3913, 59.162
6.20016, 51, -21.2147, -33.9827, 48.4119, -141.444, -70.3372, 59.6772
6.20743, 51, -21.0471, -33.9519, 48.3646, -141.516, -70.2867, 60.199
6.21792, 51, -20.8771, -33.914, 48.3115, -141.595, -70.2395, 60.7276
6.22397, 51, -20.7043, -33.8687, 48.2524, -141.681, -70.197, 61.2618
6.23189, 52, -20.5288, -33.8154, 48.1873, -141.772, -70.1595, 61.8029
6.23969, 52, -20.3506, -33.7543, 48.1162, -141.87, -70.1263, 62.3503
6.25299, 52, -20.1695, -33.685, 48.0389, -142.029, -70.0853, 63.183
6.25589, 52, -19.9858, -33.6074, 47.9552, -142.086, -70.0744, 63.4632
6.26377, 52, -19.7997, -33.5213, 47.8652, -142.203, -70.0566, 64.0283
6.27217, 53, -19.6114, -33.4265, 47.7688, -142.326, -70.0444, 64.5991
6.27999, 53, -19.4211, -33.3234, 47.6663, -142.456, -70.0377, 65.1755
6.28796, 53, -19.2287, -33.212, 47.5576, -142.591, -70.036, 65.7555
6.29468, 53, -19.1318, -33.1532, 47.501, -142.661, -70.0371, 66.0473
6.30423, 53, -18.8384, -32.9641, 47.3221, -142.879, -70.0496, 66.929
6.31213, 54, -18.6404, -32.8274, 47.1953, -143.031, -70.0658, 67.5194
6.32137, 54, -18.4405, -32.6822, 47.0626, -143.187, -70.0886, 68.1109
6.33137, 54, -18.2386, -32.5288, 46.9246, -143.348, -70.1183, 68.7038
6.33626, 54, -18.0351, -32.367, 46.781, -143.513, -70.154, 69.2984
6.34431, 54, -17.8304, -32.1962, 46.6316, -143.683, -70.196, 69.8939
6.35264, 55, -17.6249, -32.016, 46.4762, -143.857, -70.2462, 70.4919
6.36032, 55, -17.5217, -31.9225, 46.3962, -143.946, -70.3039, 71.0942
6.36769, 55, -17.3142, -31.7285, 46.2316, -144.127, -70.3353, 71.3969
6.37567, 55, -17.1051, -31.525, 46.0602, -144.314, -70.4056, 72.0055
6.38369, 55, -16.8944, -31.311, 45.881, -144.505, -70.484, 72.6184
6.3917, 56, -16.6819, -31.0865, 45.6949, -144.702, -70.5719, 73.2363
6.39982, 56, -16.4679, -30.852, 45.5023, -144.903, -70.6686, 73.8582
6.40765, 56, -16.2528, -30.6068, 45.3022, -145.108, -70.7744, 74.4824
6.41572, 56, -16.0374, -30.351, 45.0944, -145.317, -70.8896, 75.1088
6.42382, 56, -15.8226, -30.0859, 44.8812, -145.528, -71.0137, 75.7368
6.43163, 57, -15.6076, -29.8105, 44.6617, -145.742, -71.147, 76.3652
6.43972, 57, -15.3918, -29.5256, 44.4354, -145.959, -71.2891, 76.9923
6.44768, 57, -15.1752, -29.2311, 44.2038, -146.177, -71.4403, 77.6194
6.45567, 57, -14.9583, -28.9269, 43.9666, -146.396, -71.6003, 78.2452
6.46374, 57, -14.7416, -28.6145, 43.7237, -146.616, -71.7694, 78.8683
6.47188, 58, -14.5254, -28.2934, 43.4767, -146.837, -71.9471, 79.4894
6.47974, 58, -14.3099, -27.9644, 43.2248, -147.058, -72.1332, 80.108
6.48771, 58, -14.0955, -27.627, 42.9687, -147.278, -72.3272, 80.723
6.49838, 58, -13.8825, -27.2822, 42.709, -147.498, -72.6339, 81.6369
6.50372, 58, -13.6706, -26.93, 42.4449, -147.717, -72.7401, 81.9397
6.51168, 58, -13.4594, -26.5707, 42.1774, -147.934, -72.9583, 82.5421
6.52067, 59, -13.2496, -26.2039, 41.9056, -148.15, -73.1843, 83.1397
6.52668, 59, -13.0415, -25.8296, 41.6299, -148.364, -73.4185, 83.7328
6.53578, 59, -12.8349, -25.4481, 41.3507, -148.577, -73.6607, 84.3222
6.54382, 59, -12.6296, -25.06, 41.0677, -148.788, -73.9109, 84.9076
6.55178, 59, -12.4253, -24.6642, 40.7815, -148.997, -74.1698, 85.4883
6.55978, 60, -12.2221, -24.2611, 40.491, -149.204, -74.4367, 86.0645
6.56884, 60, -12.0205, -23.8509, 40.1976, -149.409, -74.7119, 86.6368
6.57567, 60, -11.8204, -23.4347, 39.9011, -149.611, -74.9952, 87.2052
6.58375, 60, -11.6219, -23.0116, 39.6023, -149.81, -75.2865, 87.7677
6.59167, 60, -11.4256, -22.5832, 39.3014, -150.006, -75.5853, 88.3254
6.60233, 61, -11.2316, -22.1502, 38.8466, -150.294, -76.0462, 89.1513
6.60775, 61, -11.0397, -21.7125, 38.694, -150.388, -76.203, 89.4232
6.61571, 61, -10.8498, -21.2707, 38.3876, -150.572, -76.5206, 89.9602
6.62383, 61, -10.6622, -20.8251, 38.0808, -150.752, -76.8438, 90.4894
6.63078, 61, -10.4767, -20.3755, 37.7728, -150.927, -77.1721, 91.0104
6.63973, 62, -10.2938, -19.9224, 37.4648, -151.098, -77.5052, 91.5229
6.64768, 62, -10.1139, -19.4661, 37.1562, -151.263, -77.8428, 92.0267
6.65577, 62, -9.9366, -19.0074, 36.848, -151.424, -78.1849, 92.5215
6.6637, 62, -9.76202, -18.546, 36.5393, -151.579, -78.5312, 93.0084
6.67182, 62, -9.59022, -18.0827, 36.2314, -151.729, -78.8815, 93.4862
6.6803, 63, -9.42061, -17.6183, 35.9241, -151.875, -79.2357, 93.9556
6.68801, 63, -9.2532, -17.1526, 35.618, -152.015, -79.5937, 94.4147
6.69641, 63, -9.08823, -16.6861, 35.3134, -152.149, -79.9549, 94.8641
6.70401, 63, -8.92584, -16.2184, 35.0099, -152.279, -80.3193, 95.3042
6.71129, 63, -8.76613, -15.7495, 34.7078, -152.402, -80.6861, 95.7333
6.72081, 64, -8.60906, -15.2799, 34.4074, -152.521, -81.0555, 96.1525
6.72857, 64, -8.45455, -14.81, 34.1096, -152.634, -81.4268, 96.5603
6.73567, 64, -8.30265, -14.3393, 33.8126, -152.742, -81.8002, 96.9569
6.74797, 64, -8.07939, -13.6336, 33.3708, -152.893, -82.3639, 97.5316
6.75196, 64, -8.00621, -13.3988, 33.2243, -152.941, -82.5526, 97.7172
6.76027, 64, -7.86171, -12.9301, 32.9332, -153.033, -82.9314, 98.0794
6.76865, 65, -7.71987, -12.4633, 32.6448, -153.118, -83.3111, 98.4295
6.77622, 65, -7.58075, -11.9977, 32.3593, -153.199, -83.6917, 98.7665
6.78492, 65, -7.44474, -11.5338, 32.0777, -153.272, -84.0728, 99.0899
6.79195, 65, -7.31135, -11.071, 31.799, -153.341, -84.454, 99.4002
6.79867, 65, -7.2458, -10.8401, 31.6611, -153.373, -84.6448, 99.5503
6.80889, 66, -7.05291, -10.1515, 31.2524, -153.461, -85.2165, 99.9786
6.81618, 66, -6.92689, -9.69621, 30.9839, -153.513, -85.5979, 100.246
6.82425, 66, -6.80297, -9.24579, 30.7196, -153.559, -85.9787, 100.497
6.83231, 66, -6.68122, -8.80125, 30.4584, -153.6, -86.3581, 100.734
6.84023, 66, -6.56177, -8.36235, 30.2023, -153.635, -86.7347, 100.953
6.84844, 67, -6.44491, -7.92984, 29.9513, -153.665, -87.1075, 101.155
6.85719, 67, -6.33111, -7.5028, 29.7065, -153.688, -87.4754, 101.339
6.86266, 67, -6.27531, -7.29147, 29.5869, -153.698, -87.6572, 101.425
6.87413, 67, -6.11175, -6.66426, 29.2381, -153.718, -88.1941, 101.655
6.88056, 67, -6.0585, -6.45798, 29.1248, -153.722, -88.5459, 101.786
6.88763, 68, -5.95355, -6.04908, 28.9028, -153.727, -88.7205, 101.845
6.89571, 68, -5.85039, -5.64581, 28.6855, -153.729, -89.0681, 101.95
6.90366, 68, -5.74888, -5.24758, 28.4711, -153.725, -89.4148, 102.038
6.91164, 68, -5.64891, -4.85516, 28.26, -153.717, -89.7619, 102.108
6.91971, 68, -5.55057, -4.46827, 28.0519, -153.704, -90.1095, 102.16
6.92779, 69, -5.45392, -4.08676, 27.8465, -153.687, -90.4564, 102.192
6.93564, 69, -5.35913, -3.70911, 27.6452, -153.666, -90.8022, 102.207
6.9437, 69, -5.26629, -3.3356, 27.4492, -153.64, -91.1451, 102.205
6.95165, 69, -5.17542, -2.96614, 27.2577, -153.609, -91.4846, 102.181
6.95973, 69, -5.08639, -2.6007, 27.0707, -153.574, -91.8201, 102.137
6.96763, 70, -4.9991, -2.23867, 26.8891, -153.536, -92.1518, 102.072
6.9758, 70, -4.91311, -1.88155, 26.7119, -153.494, -92.4808, 101.985
6.9837, 70, -4.82828, -1.52957, 26.5379, -153.448, -92.808, 101.877
6.99412, 70, -4.74437, -1.18378, 26.3678, -153.399, -93.1338, 101.672
6.99903, 70, -4.66149, -0.843224, 26.2017, -153.347, -93.4586, 101.592
7.0078, 71, -4.57965, -0.508913, 26.0388, -153.291, -93.7819, 101.417
7.01671, 71, -4.49881, -0.18029, 25.8794, -153.233, -94.1033, 101.22
7.02456, 71, -4.41907, 0.142119, 25.7249, -153.172, -94.4224, 101.001
7.03166, 71, -4.34025, 0.459074, 25.5756, -153.109, -94.7381, 100.762
7.03967, 71, -4.26228, 0.770939, 25.4309, -153.043, -95.0506, 100.501
7.04873, 72, -4.18525, 1.07634, 25.2907, -152.976, -95.3595, 100.221
7.05898, 72, -4.07055, 1.52244, 25.0882, -152.872, -95.8168, 99.7617
7.0637, 72, -4.03242, 1.66756, 25.0226, -152.836, -95.9678, 99.5984
7.07495, 72, -3.91814, 2.09324, 24.8306, -152.728, -96.4172, 99.077
7.07966, 72, -3.88005, 2.23187, 24.7682, -152.692, -96.5656, 98.8929
7.08772, 72, -3.80387, 2.50363, 24.6458, -152.619, -96.8605, 98.5092
7.09565, 73, -3.72778, 2.76896, 24.5268, -152.545, -97.152, 98.1046
7.10377, 73, -3.65162, 3.02763, 24.4114, -152.471, -97.44, 97.6802
7.11365, 73, -3.57527, 3.27932, 24.3001, -152.398, -97.7241, 97.2353
7.11869, 73, -3.49875, 3.52485, 24.1929, -152.325, -98.0038, 96.7721
7.1278, 73, -3.4219, 3.76352, 24.09, -152.253, -98.2793, 96.2897
7.13475, 74, -3.34442, 3.99397, 23.991, -152.182, -98.5505, 95.7887
7.14365, 74, -3.2662, 4.21632, 23.8957, -152.113, -98.8169, 95.27
7.15172, 74, -3.18728, 4.43027, 23.804, -152.045, -99.0789, 94.7342
7.15969, 74, -3.10759, 4.63465, 23.7161, -151.979, -99.3356, 94.1836
7.16773, 74, -3.02721, 4.82957, 23.6322, -151.916, -99.5865, 93.6179
7.17583, 75, -2.94593, 5.01552, 23.5522, -151.854, -99.8304, 93.0399
7.18404, 75, -2.8637, 5.19192, 23.4764, -151.797, -100.067, 92.4514
7.19177, 75, -2.78046, 5.35779, 23.4044, -151.741, -100.294, 91.8541
7.20063, 75, -2.69634, 5.51331, 23.3366, -151.689, -100.513, 91.2486
7.2086, 75, -2.61136, 5.6583, 23.273, -151.64, -100.722, 90.636
7.21581, 76, -2.52533, 5.792, 23.2138, -151.594, -100.921, 90.017
7.22624, 76, -2.43835, 5.91408, 23.159, -151.553, -101.111, 89.3904
7.23187, 76, -2.35047, 6.02424, 23.1087, -151.516, -101.291, 88.7556
7.24021, 76, -2.26178, 6.12201, 23.0626, -151.482, -101.461, 88.1143
7.24766, 76, -2.17229, 6.2071, 23.0213, -151.451, -101.62, 87.4675
7.25609, 77, -2.08188, 6.27916, 22.9848, -151.425, -101.768, 86.8157
7.2646, 77, -1.9906, 6.33797, 22.9536, -151.404, -101.903, 86.1621
7.2719, 77, -1.89839, 6.38323, 22.9279, -151.386, -102.025, 85.5099
7.28069, 77, -1.8054, 6.41417, 22.9079, -151.372, -102.133, 84.8594
7.28797, 77, -1.71155, 6.43091, 22.8938, -151.362, -102.225, 84.2114
7.29641, 78, -1.61694, 6.43312, 22.8855, -151.356, -102.303, 83.5679
7.30506, 78, -1.52168, 6.42015, 22.8828, -151.353, -102.365, 82.9283
7.31218, 78, -1.42572, 6.39185, 22.8859, -151.352, -102.412, 82.2921
7.32107, 78, -1.3294, 6.34784, 22.895, -151.355, -102.443, 81.6608
7.32858, 78, -1.23273, 6.28754, 22.9104, -151.362, -102.458, 81.0349
7.33725, 78, -1.13577, 6.21088, 22.9326, -151.372, -102.457, 80.4145
7.34518, 79, -1.03875, 6.11783, 22.9618, -151.385, -102.438, 79.8006
7.35328, 79, -0.941522, 6.00848, 22.9984, -151.402, -102.401, 79.1948
7.36097, 79, -0.89295, 5.94773, 23.0195, -151.411, -102.376, 78.5982
7.36841, 79, -0.795859, 5.81387, 23.0674, -151.432, -102.312, 78.0106
7.37571, 79, -0.698801, 5.66344, 23.123, -151.455, -102.23, 77.7206
7.38364, 80, -0.601759, 5.4967, 23.1861, -151.481, -102.131, 77.1493
7.39171, 80, -0.504669, 5.31348, 23.2568, -151.508, -102.012, 76.5898
7.39969, 80, -0.407611, 5.11394, 23.3355, -151.537, -101.875, 76.0417
7.40784, 80, -0.310719, 4.89748, 23.4222, -151.567, -101.72, 75.5046
7.41989, 81, -0.165547, 4.53894, 23.5677, -151.615, -101.452, 74.7194
7.42361, 81, -0.117216, 4.41098, 23.6205, -151.632, -101.354, 74.4634
7.43183, 81, -0.0208216, 4.143, 23.7326, -151.666, -101.142, 73.958
7.44102, 81, 0.0752547, 3.71009, 23.9179, -151.718, -100.79, 73.2177
7.44665, 81, 0.171143, 3.55791, 23.9843, -151.736, -100.663, 72.9755
7.45586, 81, 0.266824, 3.24053, 24.1245, -151.772, -100.395, 72.4987
7.46569, 82, 0.409949, 2.73339, 24.3524, -151.827, -99.9581, 71.802
7.47334, 82, 0.505134, 2.3749, 24.5156, -151.864, -99.6436, 71.3495
7.48046, 82, 0.552677, 2.18986, 24.6006, -151.882, -99.4796, 71.1271
7.48669, 82, 0.647681, 1.80728, 24.7778, -151.919, -99.1385, 70.6894
7.49575, 82, 0.742543, 1.40777, 24.9644, -151.955, -98.7799, 70.2617
7.50642, 83, 0.884614, 0.778124, 25.2617, -152.007, -98.2099, 69.6383
7.51186, 83, 0.931924, 0.560783, 25.3659, -152.025, -98.0115, 69.4349
7.51961, 83, 1.02657, 0.114563, 25.5827, -152.059, -97.602, 69.0348
7.52763, 83, 1.12132, -0.347099, 25.809, -152.092, -97.176, 68.6432
7.53618, 83, 1.21619, -0.823721, 26.0449, -152.123, -96.7331, 68.2597
7.54383, 84, 1.31123, -1.31555, 26.2919, -152.154, -96.274, 67.8846
7.55174, 84, 1.40662, -1.82189, 26.5493, -152.184, -95.7982, 67.5173
7.55972, 84, 1.50212, -2.34177, 26.8174, -152.212, -95.3067, 67.157
7.56769, 84, 1.59789, -2.87574, 27.0959, -152.239, -94.7985, 66.8045
7.57577, 84, 1.69396, -3.42331, 27.3845, -152.263, -94.2753, 66.459
7.58809, 85, 1.83893, -4.26964, 27.8369, -152.297, -93.4626, 65.955
7.5918, 85, 1.88741, -4.55789, 27.9925, -152.308, -93.1844, 65.7914
7.59976, 85, 1.9847, -5.14235, 28.311, -152.327, -92.6176, 65.4704
7.60764, 85, 2.08244, -5.73692, 28.6383, -152.344, -92.0393, 65.1579
7.61643, 85, 2.18078, -6.3401, 28.9743, -152.358, -91.4517, 64.8544
7.6269, 86, 2.32958, -7.25835, 29.4935, -152.374, -90.552, 64.4176
7.63166, 86, 2.37947, -7.56777, 29.6702, -152.378, -90.2476, 64.2772
7.64353, 86, 2.53068, -8.50433, 30.2102, -152.385, -89.3222, 63.8718
7.64782, 86, 2.58161, -8.81969, 30.3931, -152.386, -89.01, 63.7423
7.65569, 86, 2.68395, -9.45487, 30.7634, -152.387, -88.3828, 63.4919
7.66374, 86, 2.78747, -10.095, 31.1392, -152.384, -87.7512, 63.2531
7.67174, 87, 2.89203, -10.7395, 31.5212, -152.378, -87.113, 63.0254
7.67964, 87, 2.9971, -11.3872, 31.9084, -152.368, -86.4679, 62.8094
7.68774, 87, 3.10313, -12.0382, 32.3013, -152.354, -85.8161, 62.605
7.69577, 87, 3.20975, -12.6912, 32.6997, -152.336, -85.1591, 62.413
7.70373, 87, 3.31685, -13.3467, 33.1039, -152.314, -84.4972, 62.2333
7.7118, 88, 3.42457, -14.0045, 33.5134, -152.289, -83.83, 62.0669
7.72386, 88, 3.58735, -14.9944, 34.1352, -152.243, -82.8224, 61.8432
7.72791, 88, 3.64198, -15.3246, 34.3443, -152.226, -82.485, 61.776
7.736, 88, 3.75178, -15.9848, 34.765, -152.187, -81.8088, 61.653
7.74376, 88, 3.86199, -16.6436, 35.1881, -152.144, -81.1332, 61.5459
7.75167, 89, 3.97252, -17.2995, 35.6133, -152.097, -80.458, 61.4561
7.75969, 89, 4.08332, -17.9519, 36.0394, -152.044, -79.7831, 61.3842
7.76774, 89, 4.19443, -18.6005, 36.4661, -151.986, -79.1076, 61.3305
7.7781, 89, 4.30578, -19.245, 36.893, -151.924, -78.4328, 61.2961
7.78665, 89, 4.41734, -19.8848, 37.3193, -151.855, -77.762, 61.2809
7.79082, 90, 4.47317, -20.203, 37.5322, -151.819, -77.4276, 61.2805
7.80008, 90, 4.64162, -21.1519, 38.1707, -151.703, -76.4255, 61.3146
7.80665, 90, 4.69788, -21.4662, 38.3834, -151.662, -76.0917, 61.3377
7.81617, 90, 4.86622, -22.4031, 39.0215, -151.528, -75.0922, 61.4418
7.82418, 90, 4.97811, -23.0232, 39.4476, -151.432, -74.4285, 61.5431
7.8349, 91, 5.08968, -23.6404, 39.8737, -151.329, -73.7651, 61.6707
7.84017, 91, 5.20105, -24.2541, 40.3, -151.219, -73.1006, 61.8265
7.84823, 91, 5.31193, -24.8629, 40.7264, -151.102, -72.436, 62.0112
7.85728, 91, 5.42219, -25.467, 41.152, -150.979, -71.7703, 62.2258
7.86491, 91, 5.47709, -25.7667, 41.3646, -150.915, -71.4371, 62.4708
7.87159, 92, 5.58652, -26.3606, 41.7884, -150.781, -70.7728, 62.605
7.88115, 92, 5.75055, -27.2368, 42.4201, -150.57, -69.7803, 63.0557
7.8867, 92, 5.80547, -27.5245, 42.6289, -150.496, -69.4506, 63.2216
7.89569, 92, 5.91588, -28.0931, 43.0426, -150.346, -68.7934, 63.5768
7.90367, 92, 6.0269, -28.652, 43.4512, -150.191, -68.1399, 63.9638
7.91256, 92, 6.13897, -29.1997, 43.8532, -150.032, -67.4926, 64.3824
7.91968, 93, 6.25249, -29.736, 44.2488, -149.871, -66.8518, 64.8328
7.92763, 93, 6.36772, -30.2617, 44.6375, -149.707, -66.2162, 65.3155
7.93749, 93, 6.54462, -31.0317, 45.2093, -149.46, -65.2704, 66.1
7.94364, 93, 6.60459, -31.2844, 45.3973, -149.377, -64.9567, 66.3788
7.95162, 93, 6.72622, -31.7849, 45.7691, -149.212, -64.3307, 66.9644
7.9596, 94, 6.85018, -32.2799, 46.1373, -149.046, -63.7054, 67.5911
7.9667, 94, 6.97647, -32.7695, 46.5022, -148.88, -63.0763, 68.2628
7.97562, 94, 7.10493, -33.253, 46.865, -148.714, -62.4424, 68.9849
7.98362, 94, 7.23555, -33.7282, 47.225, -148.55, -61.8033, 69.7577
7.9917, 94, 7.36928, -34.1955, 47.5815, -148.39, -61.159, 70.5802
8.00123, 95, 7.50706, -34.6544, 47.9312, -148.235, -60.5137, 71.4551
8.00762, 95, 7.64991, -35.1026, 48.2727, -148.09, -59.8713, 72.3742
8.01783, 95, 7.87559, -35.7534, 48.7643, -147.894, -58.917, 73.828
8.02363, 95, 7.95408, -35.9635, 48.9219, -147.836, -58.6022, 74.3313
8.03162, 95, 8.11629, -36.3703, 49.2258, -147.733, -57.9781, 75.3633
8.03985, 96, 8.28526, -36.7581, 49.5146, -147.647, -57.3629, 76.4306
8.04769, 96, 8.46095, -37.1255, 49.7872, -147.579, -56.7602, 77.5309
8.05562, 96, 8.64216, -37.4704, 50.0437, -147.532, -56.1705, 78.6636
8.06363, 96, 8.82813, -37.7908, 50.2836, -147.506, -55.5943, 79.8223
8.07174, 96, 9.01828, -38.0854, 50.5046, -147.498, -55.0345, 81.0007
8.07964, 96, 9.21116, -38.3552, 50.7062, -147.513, -54.4956, 82.19
8.08769, 97, 9.40546, -38.6001, 50.8881, -147.549, -53.9803, 83.3868
8.09562, 97, 9.60021, -38.8206, 51.0493, -147.606, -53.4921, 84.583
8.10362, 97, 9.7945, -39.0173, 51.1899, -147.682, -53.0318, 85.7683
8.11169, 97, 9.98767, -39.1897, 51.3111, -147.776, -52.6014, 86.9381
8.11969, 97, 10.1786, -39.3357, 51.4127, -147.885, -52.2002, 88.0882
8.12762, 97, 10.3663, -39.4558, 51.4956, -148.008, -51.8285, 89.2157
8.13602, 98, 10.551, -39.5505, 51.5605, -148.141, -51.4857, 90.3154
8.14362, 98, 10.7336, -39.621, 51.6076, -148.286, -51.1707, 91.391
8.15162, 98, 10.9146, -39.6685, 51.6374, -148.441, -50.8821, 92.4485
8.1597, 98, 11.0942, -39.6932, 51.6498, -148.608, -50.6172, 93.4984
8.16767, 98, 11.2719, -39.6947, 51.6454, -148.788, -50.3738, 94.5521
8.17569, 98, 11.4483, -39.6726, 51.6235, -148.98, -50.1503, 95.6177
8.1836, 98, 11.6244, -39.6267, 51.5835, -149.186, -49.9474, 96.7001
8.19172, 99, 11.7996, -39.5574, 51.5256, -149.404, -49.7667, 97.7986
8.19977, 99, 11.9727, -39.4655, 51.449, -149.632, -49.6104, 98.9084
8.20788, 99, 12.1426, -39.351, 51.3539, -149.869, -49.4817, 100.019
8.21574, 99, 12.3087, -39.2143, 51.2408, -150.11, -49.383, 101.121
8.22373, 99, 12.4692, -39.0558, 51.1105, -150.353, -49.3153, 102.204
8.23224, 99, 12.6224, -38.8755, 50.9645, -150.595, -49.2779, 103.261
8.24045, 100, 12.7674, -38.6715, 50.8032, -150.833, -49.2711, 104.287
8.24763, 100, 12.9036, -38.4434, 50.6257, -151.066, -49.2953, 105.283
8.25572, 100, 13.0309, -38.1921, 50.4314, -151.293, -49.3501, 106.25
8.26372, 100, 13.15, -37.9177, 50.2207, -151.515, -49.4353, 107.194
8.27256, 100, 13.2614, -37.6217, 49.9921, -151.731, -49.5515, 108.116
8.28127, 100, 13.3647, -37.3022, 49.7444, -151.941, -49.6987, 109.02
8.28798, 101, 13.4604, -36.9581, 49.4789, -152.144, -49.877, 109.906
8.29591, 101, 13.5486, -36.5881, 49.1947, -152.34, -50.0863, 110.773
8.30393, 101, 13.6293, -36.1922, 48.8924, -152.527, -50.3268, 111.622
8.31065, 101, 13.6665, -35.9846, 48.7342, -152.617, -50.4588, 112.039
8.32017, 101, 13.7658, -35.3257, 48.2321, -152.874, -50.9028, 113.255
8.34018, 102, 13.8851, -34.1111, 47.31, -153.242, -51.8046, 115.163
8.34164, 102, 13.8851, -34.1111, 47.31, -153.242, -51.8046, 115.163
8.34417, 102, 13.9014, -33.8501, 47.1133, -153.306, -52.0089, 115.525
8.35295, 102, 13.9268, -33.3106, 46.7087, -153.424, -52.4416, 116.229
8.36107, 102, 13.9427, -32.7487, 46.2899, -153.527, -52.9058, 116.903
8.36813, 102, 13.9474, -32.4598, 46.0754, -153.574, -53.149, 117.231
8.37644, 103, 13.9509, -31.5618, 45.4111, -153.693, -53.9201, 118.174
8.38366, 103, 13.9473, -31.2527, 45.1829, -153.726, -54.1903, 118.476
8.39062, 103, 13.9372, -30.6208, 44.7174, -153.782, -54.7487, 119.059
8.39969, 103, 13.9214, -29.9724, 44.2407, -153.825, -55.329, 119.618
8.4077, 103, 13.9001, -29.309, 43.7542, -153.855, -55.9288, 120.152
8.41463, 103, 13.8738, -28.6316, 43.2597, -153.874, -56.5465, 120.662
8.42358, 104, 13.8431, -27.943, 42.7591, -153.883, -57.1782, 121.145
8.43166, 104, 13.8084, -27.2449, 42.2543, -153.882, -57.8221, 121.604
8.43863, 104, 13.7698, -26.5392, 41.7463, -153.869, -58.4797, 122.041
8.44761, 104, 13.7276, -25.8272, 41.2363, -153.848, -59.1494, 122.456
8.45566, 104, 13.6833, -25.1116, 40.7258, -153.818, -59.8293, 122.853
8.46361, 104, 13.6371, -24.3935, 40.2149, -153.781, -60.5166, 123.235
8.47161, 104, 13.5893, -23.6731, 39.7045, -153.736, -61.2091, 123.604
8.47976, 104, 13.5398, -22.9509, 39.1953, -153.687, -61.9068, 123.966
8.48763, 104, 13.4895, -22.2281, 38.6873, -153.631, -62.6077, 124.321
8.49561, 104, 13.4383, -21.5046, 38.181, -153.571, -63.3107, 124.673
8.50371, 104, 13.3866, -20.7813, 37.6761, -153.508, -64.0143, 125.023
8.51272, 104, 13.3346, -20.0583, 37.1725, -153.439, -64.7184, 125.371
8.51968, 104, 13.2824, -19.3349, 36.6708, -153.367, -65.424, 125.718
8.52768, 104, 13.2301, -18.6111, 36.1711, -153.29, -66.1308, 126.064
8.53561, 104, 13.178, -17.8875, 35.6738, -153.21, -66.8385, 126.409
8.5436, 104, 13.1262, -17.1634, 35.179, -153.125, -67.5466, 126.754
8.55168, 104, 13.0745, -16.439, 34.6858, -153.037, -68.254, 127.098
8.55966, 104, 13.0233, -15.7147, 34.1949, -152.945, -68.9627, 127.442
8.56762, 104, 12.9724, -14.9903, 33.7062, -152.849, -69.6731, 127.785
8.57573, 104, 12.9217, -14.2649, 33.2196, -152.749, -70.3844, 128.128
8.58361, 104, 12.8715, -13.5393, 32.7359, -152.645, -71.0945, 128.472
8.59161, 104, 12.8216, -12.8135, 32.2548, -152.537, -71.8046, 128.816
8.59972, 104, 12.772, -12.0878, 31.7765, -152.426, -72.5168, 129.16
8.6076, 104, 12.7227, -11.363, 31.3006, -152.311, -73.2292, 129.505
8.61561, 104, 12.6738, -10.6376, 30.827, -152.191, -73.9422, 129.851
8.62367, 104, 12.6251, -9.91192, 30.3567, -152.068, -74.6549, 130.197
8.63161, 104, 12.5768, -9.18623, 29.8894, -151.941, -75.3676, 130.544
8.63965, 104, 12.529, -8.46011, 29.4248, -151.809, -76.0818, 130.892
8.64767, 104, 12.4817, -7.73412, 28.9638, -151.674, -76.7964, 131.24
8.65562, 104, 12.435, -7.00862, 28.5059, -151.534, -77.5119, 131.591
8.66367, 104, 12.3891, -6.28362, 28.0514, -151.391, -78.2267, 131.942
8.67184, 104, 12.3435, -5.5591, 27.6004, -151.243, -78.9401, 132.294
8.67967, 104, 12.2985, -4.83537, 27.1531, -151.091, -79.6547, 132.648
8.68768, 104, 12.2545, -4.11305, 26.7102, -150.935, -80.3698, 133.002
8.69567, 104, 12.2116, -3.39383, 26.2726, -150.775, -81.0834, 133.358
8.7037, 104, 12.1696, -2.67973, 25.8399, -150.611, -81.7931, 133.714
8.71177, 104, 12.129, -1.97166, 25.4133, -150.444, -82.4992, 134.071
8.71976, 104, 12.0895, -1.27112, 24.9945, -150.273, -83.2011, 134.426
8.72771, 104, 12.051, -0.579472, 24.5841, -150.101, -83.8952, 134.778
8.7358, 104, 12.0135, 0.102107, 24.1835, -149.926, -84.5793, 135.128
8.74376, 104, 11.977, 0.773057, 23.7937, -149.75, -85.2502, 135.474
8.75162, 104, 11.9415, 1.43143, 23.4165, -149.574, -85.9067, 135.815
8.75987, 104, 11.9073, 2.07645, 23.0518, -149.398, -86.5493, 136.15
8.76766, 104, 11.8742, 2.70625, 22.6994, -149.223, -87.1763, 136.478
8.77568, 104, 11.842, 3.31996, 22.3594, -149.048, -87.7874, 136.8
8.78383, 104, 11.8114, 3.91719, 22.033, -148.874, -88.3818, 137.115
8.79258, 104, 11.7819, 4.49732, 21.719, -148.702, -88.9584, 137.424
8.79992, 104, 11.7537, 5.06118, 21.4173, -148.531, -89.5182, 137.725
8.8087, 104, 11.7269, 5.6079, 21.1267, -148.361, -90.0627, 138.02
8.81602, 104, 11.7011, 6.13736, 20.8486, -148.194, -90.5907, 138.307
8.8227, 104, 11.6887, 6.39593, 20.7139, -148.112, -90.8486, 138.448
8.83213, 104, 11.6531, 7.14598, 20.3269, -147.867, -91.5975, 138.86
8.84033, 104, 11.6308, 7.62489, 20.0835, -147.707, -92.0751, 139.125
8.84818, 104, 11.6097, 8.08753, 19.8506, -147.551, -92.5362, 139.383
8.85618, 104, 11.5897, 8.53346, 19.6288, -147.397, -92.9806, 139.633
8.8643, 104, 11.5801, 8.96178, 19.418, -147.247, -93.4086, 139.875
8.87214, 104, 11.5618, 9.16944, 19.3164, -147.173, -93.6162, 139.993
8.88016, 104, 11.5446, 9.57205, 19.1206, -147.029, -94.0186, 140.222
8.88764, 104, 11.5285, 9.95652, 18.9358, -146.889, -94.4041, 140.443
8.8956, 104, 11.5134, 10.3227, 18.7617, -146.754, -94.7711, 140.654
8.90366, 104, 11.4994, 10.6694, 18.5975, -146.624, -95.12, 140.856
8.91166, 104, 11.4864, 10.9973, 18.4441, -146.5, -95.4494, 141.048
8.91965, 104, 11.4745, 11.3048, 18.3017, -146.382, -95.7589, 141.228
8.92771, 104, 11.4635, 11.5918, 18.1699, -146.271, -96.0476, 141.398
8.9356, 104, 11.4537, 11.858, 18.0485, -146.167, -96.3151, 141.555
8.94359, 104, 11.4446, 12.1027, 17.9378, -146.07, -96.5611, 141.701
8.95166, 104, 11.4362, 12.3264, 17.8377, -145.981, -96.7851, 141.834
8.95967, 104, 11.4286, 12.5294, 17.7478, -145.901, -96.9872, 141.954
8.96768, 104, 11.4218, 12.7109, 17.6684, -145.829, -97.1672, 142.061
8.97565, 104, 11.4158, 12.8713, 17.5991, -145.765, -97.3252, 142.155
8.98359, 104, 11.4103, 13.0117, 17.5396, -145.71, -97.4613, 142.237
8.9916, 104, 11.4053, 13.133, 17.4895, -145.663, -97.5763, 142.306
9.00148, 104, 11.3986, 13.2805, 17.4308, -145.609, -97.7107, 142.386
9.00764, 104, 11.3966, 13.3211, 17.4152, -145.595, -97.7464, 142.408
9.01668, 104, 11.3928, 13.3911, 17.3895, -145.57, -97.8046, 142.443
9.02373, 104, 11.3893, 13.4474, 17.3706, -145.552, -97.8475, 142.47
9.03159, 104, 11.3864, 13.4919, 17.3569, -145.539, -97.8783, 142.488
9.03965, 104, 11.384, 13.5255, 17.3477, -145.53, -97.8994, 142.5
9.04768, 104, 11.382, 13.5505, 17.342, -145.525, -97.913, 142.507
9.05559, 104, 11.3805, 13.5689, 17.3384, -145.522, -97.9209, 142.512
9.06359, 104, 11.3793, 13.5815, 17.3364, -145.52, -97.9252, 142.514
9.07168, 104, 11.3784, 13.59, 17.3354, -145.519, -97.9273, 142.515
9.0797, 105, 11.3777, 13.5958, 17.335, -145.519, -97.9282, 142.516
9.08763, 105, 11.3773, 13.5995, 17.3348, -145.518, -97.9287, 142.516
9.09566, 105, 11.3769, 13.6021, 17.3347, -145.518, -97.9289, 142.516
9.10359, 105, 11.3766, 13.6042, 17.3346, -145.518, -97.929, 142.516
9.11159, 105, 11.3764, 13.606, 17.3346, -145.518, -97.929, 142.516
9.11972, 105, 11.3763, 13.6076, 17.3346, -145.518, -97.9289, 142.516
9.1276, 105, 11.3762, 13.6089, 17.3346, -145.518, -97.9289, 142.516
9.13559, 105, 11.3761, 13.6101, 17.3346, -145.518, -97.9288, 142.516
9.14366, 105, 11.376, 13.6111, 17.3346, -145.518, -97.9287, 142.516
9.1516, 105, 11.376, 13.6119, 17.3346, -145.518, -97.9286, 142.516
9.15966, 105, 11.3759, 13.6125, 17.3347, -145.518, -97.9285, 142.516
9.16767, 105, 11.3759, 13.6129, 17.3347, -145.518, -97.9283, 142.516
9.17562, 105, 11.3759, 13.6132, 17.3348, -145.519, -97.9281, 142.516
9.18359, 105, 11.3759, 13.6134, 17.3348, -145.519, -97.9279, 142.516
9.19168, 105, 11.3759, 13.6135, 17.3348, -145.519, -97.9278, 142.516
