hehonglu123/Motion-Primitive-Planning/ILC/recorded_data/realrobot/wood/iteration_26/run_3.csv
timestamp, cmd_num, J1, J2, J3, J4, J5, J6
0.012696, -1, 11.3758, 13.6163, 17.3334, -145.52, -97.9263, 142.516
0.015345, -1, 11.3758, 13.6163, 17.3334, -145.52, -97.9262, 142.516
0.01712, -1, 11.3758, 13.6163, 17.3334, -145.52, -97.9262, 142.516
0.040642, -1, 11.3758, 13.6163, 17.3334, -145.52, -97.9263, 142.516
0.04345, -1, 11.3758, 13.6163, 17.3334, -145.52, -97.9263, 142.516
0.044646, -1, 11.3758, 13.6163, 17.3334, -145.52, -97.9263, 142.516
0.047113, -1, 11.3758, 13.6163, 17.3334, -145.52, -97.9263, 142.516
0.055214, -1, 11.3758, 13.6163, 17.3334, -145.52, -97.9264, 142.516
0.06315, -1, 11.3756, 13.6163, 17.3334, -145.52, -97.9263, 142.516
0.072147, -1, 11.3742, 13.6162, 17.3334, -145.52, -97.9264, 142.516
0.079281, -1, 11.3697, 13.6158, 17.3333, -145.52, -97.9263, 142.516
0.087236, -1, 11.361, 13.6146, 17.3329, -145.521, -97.9263, 142.515
0.095296, -1, 11.3469, 13.6122, 17.3323, -145.521, -97.9263, 142.512
0.103528, -1, 11.3251, 13.6077, 17.3315, -145.524, -97.9259, 142.499
0.111257, -1, 11.2926, 13.6002, 17.3307, -145.529, -97.9248, 142.47
0.119317, -1, 11.2482, 13.5894, 17.3304, -145.538, -97.9222, 142.418
0.127258, -1, 11.1922, 13.5756, 17.3312, -145.553, -97.9178, 142.339
0.135149, -1, 11.1247, 13.5584, 17.334, -145.573, -97.9113, 142.226
0.143161, -1, 11.0454, 13.5374, 17.3393, -145.599, -97.9022, 142.078
0.151252, -1, 10.9542, 13.5127, 17.3468, -145.63, -97.891, 141.896
0.159186, -1, 10.852, 13.4847, 17.3564, -145.667, -97.878, 141.683
0.167408, -1, 10.7389, 13.4534, 17.3674, -145.708, -97.8636, 141.446
0.175331, -1, 10.615, 13.419, 17.3787, -145.751, -97.8484, 141.192
0.18338, -1, 10.4812, 13.3821, 17.3897, -145.796, -97.8327, 140.926
0.191562, -1, 10.3394, 13.3432, 17.4001, -145.843, -97.8167, 140.653
0.19951, -1, 10.1919, 13.3031, 17.4102, -145.89, -97.8003, 140.377
0.207545, -1, 10.0408, 13.2623, 17.4202, -145.938, -97.7835, 140.1
0.343039, -1, 7.49801, 12.5799, 17.587, -146.729, -97.5029, 135.481
0.345688, -1, 7.42045, 12.5591, 17.5921, -146.753, -97.4943, 135.341
0.347096, -1, 7.42045, 12.5591, 17.5921, -146.753, -97.4943, 135.341
0.349148, -1, 7.34293, 12.5383, 17.5972, -146.777, -97.4857, 135.2
0.350368, -1, 7.34293, 12.5383, 17.5972, -146.777, -97.4857, 135.2
0.351549, -1, 7.34293, 12.5383, 17.5972, -146.777, -97.4857, 135.2
0.353582, -1, 7.26543, 12.5176, 17.6023, -146.801, -97.477, 135.06
0.356857, -1, 7.18794, 12.4967, 17.6074, -146.825, -97.4683, 134.92
0.35907, -1, 7.18794, 12.4967, 17.6074, -146.825, -97.4683, 134.92
0.361179, -1, 7.11045, 12.476, 17.6126, -146.849, -97.4596, 134.78
0.362414, -1, 7.11045, 12.476, 17.6126, -146.849, -97.4596, 134.78
0.363622, -1, 7.11045, 12.476, 17.6126, -146.849, -97.4596, 134.78
0.365696, -1, 7.03291, 12.4552, 17.6178, -146.873, -97.451, 134.64
0.367068, -1, 7.03291, 12.4552, 17.6178, -146.873, -97.451, 134.64
0.369717, -1, 6.9553, 12.4345, 17.6229, -146.897, -97.4424, 134.5
0.371842, -1, 6.9553, 12.4345, 17.6229, -146.897, -97.4424, 134.5
0.374055, -1, 6.87771, 12.4139, 17.6281, -146.921, -97.4339, 134.359
0.375252, -1, 6.87771, 12.4139, 17.6281, -146.921, -97.4339, 134.359
0.377352, -1, 6.80019, 12.3932, 17.6332, -146.945, -97.4254, 134.219
0.37859, -1, 6.80019, 12.3932, 17.6332, -146.945, -97.4254, 134.219
0.3799, -1, 6.80019, 12.3932, 17.6332, -146.945, -97.4254, 134.219
0.383146, -1, 6.72277, 12.3726, 17.6384, -146.969, -97.417, 134.079
0.39214, -1, 6.56809, 12.3313, 17.6489, -147.018, -97.4003, 133.798
0.39913, -1, 6.41365, 12.29, 17.6593, -147.066, -97.3836, 133.518
0.408152, -1, 6.25936, 12.2486, 17.6697, -147.114, -97.3667, 133.237
0.416137, -1, 6.1051, 12.2071, 17.6799, -147.162, -97.3496, 132.957
0.423156, -1, 5.95066, 12.1657, 17.6902, -147.21, -97.3322, 132.676
0.431561, -1, 5.79606, 12.1242, 17.7005, -147.258, -97.3146, 132.395
0.440248, -1, 5.64124, 12.0824, 17.7108, -147.306, -97.2971, 132.114
0.447131, -1, 5.48621, 12.0408, 17.721, -147.354, -97.28, 131.833
0.455921, -1, 5.33101, 11.9991, 17.7313, -147.402, -97.2631, 131.552
0.463139, -1, 5.17556, 11.9573, 17.7417, -147.451, -97.2463, 131.271
0.471192, -1, 5.01979, 11.9156, 17.7521, -147.498, -97.2295, 130.99
0.479914, -1, 4.86403, 11.874, 17.7626, -147.546, -97.2126, 130.709
0.488211, -1, 4.70831, 11.8324, 17.773, -147.595, -97.1953, 130.428
0.495132, -1, 4.5526, 11.7909, 17.7835, -147.643, -97.1779, 130.147
0.504002, -1, 4.39699, 11.7494, 17.7939, -147.691, -97.1604, 129.866
0.51223, -1, 4.2415, 11.7079, 17.8043, -147.74, -97.1432, 129.585
0.51913, -1, 4.08636, 11.6664, 17.8148, -147.788, -97.1262, 129.304
0.528107, -1, 3.93162, 11.625, 17.8251, -147.836, -97.1093, 129.023
0.536196, -1, 3.77723, 11.5835, 17.8354, -147.885, -97.0925, 128.742
0.543144, -1, 3.62281, 11.5419, 17.8458, -147.933, -97.0756, 128.46
0.551926, -1, 3.46828, 11.5002, 17.8561, -147.981, -97.0584, 128.179
0.560199, -1, 3.31351, 11.4585, 17.8666, -148.03, -97.0409, 127.897
0.567138, -1, 3.15845, 11.4168, 17.877, -148.078, -97.0233, 127.616
0.575944, -1, 3.00321, 11.375, 17.8874, -148.126, -97.0059, 127.334
0.584197, -1, 2.8478, 11.3332, 17.8978, -148.175, -96.9888, 127.052
0.591237, -1, 2.69216, 11.2914, 17.9082, -148.222, -96.9719, 126.771
0.600009, -1, 2.5362, 11.2496, 17.9186, -148.271, -96.9551, 126.489
0.608292, -1, 2.37994, 11.2079, 17.929, -148.319, -96.9384, 126.207
0.615232, -1, 2.22345, 11.1661, 17.9394, -148.367, -96.9214, 125.925
0.623318, -1, 2.06671, 11.1243, 17.9498, -148.416, -96.9042, 125.643
0.631234, -1, 1.90996, 11.0826, 17.9602, -148.464, -96.8867, 125.362
0.639142, -1, 1.75349, 11.0409, 17.9706, -148.512, -96.8693, 125.08
0.649735, -1, 1.59715, 10.9991, 17.9811, -148.561, -96.852, 124.798
0.655235, -1, 1.44105, 10.9575, 17.9916, -148.61, -96.8351, 124.516
0.663344, -1, 1.2852, 10.9158, 18.002, -148.658, -96.8181, 124.234
0.796718, -1, -1.29008, 10.2255, 18.1739, -149.458, -96.5353, 119.569
0.798129, -1, -1.29008, 10.2255, 18.1739, -149.458, -96.5353, 119.569
0.799318, -1, -1.29008, 10.2255, 18.1739, -149.458, -96.5353, 119.569
0.801363, -1, -1.36852, 10.2046, 18.1791, -149.482, -96.5269, 119.428
0.802548, -1, -1.36852, 10.2046, 18.1791, -149.482, -96.5269, 119.428
0.80448, -1, -1.44696, 10.1837, 18.1843, -149.507, -96.5185, 119.286
0.805932, -1, -1.44696, 10.1837, 18.1843, -149.507, -96.5185, 119.286
0.809279, -1, -1.52536, 10.1628, 18.1895, -149.531, -96.5101, 119.144
0.810524, -1, -1.52536, 10.1628, 18.1895, -149.531, -96.5101, 119.144
0.812384, -1, -1.60363, 10.1418, 18.1948, -149.555, -96.5017, 119.003
0.813746, -1, -1.60363, 10.1418, 18.1948, -149.555, -96.5017, 119.003
0.815026, -1, -1.60363, 10.1418, 18.1948, -149.555, -96.5017, 119.003
0.817633, -1, -1.68174, 10.1209, 18.2001, -149.579, -96.4932, 118.861
0.820442, -1, -1.75976, 10.1, 18.2053, -149.604, -96.4846, 118.72
0.821917, -1, -1.75976, 10.1, 18.2053, -149.604, -96.4846, 118.72
0.824479, -1, -1.83769, 10.079, 18.2105, -149.628, -96.476, 118.578
0.825842, -1, -1.83769, 10.079, 18.2105, -149.628, -96.476, 118.578
0.827196, -1, -1.83769, 10.079, 18.2105, -149.628, -96.476, 118.578
0.829223, -1, -1.91553, 10.0581, 18.2158, -149.652, -96.4673, 118.436
0.8305, -1, -1.91553, 10.0581, 18.2158, -149.652, -96.4673, 118.436
0.832369, -1, -1.91553, 10.0371, 18.221, -149.676, -96.4585, 118.294
0.839228, -1, -2.07085, 10.0162, 18.2262, -149.701, -96.4497, 118.152
0.848769, -1, -2.30357, 9.95339, 18.2418, -149.774, -96.4233, 117.727
0.856777, -1, -2.45898, 9.91145, 18.2523, -149.822, -96.4062, 117.443
0.865417, -1, -2.61461, 9.86948, 18.2627, -149.871, -96.3892, 117.159
0.871116, -1, -2.69252, 9.84851, 18.2679, -149.896, -96.3808, 117.018
0.880681, -1, -2.84869, 9.80657, 18.2783, -149.968, -96.3556, 116.592
0.889491, -1, -3.00533, 9.76456, 18.2887, -149.992, -96.3471, 116.309
0.895115, -1, -3.1623, 9.72264, 18.2991, -150.041, -96.3299, 116.167
0.904129, -1, -3.31968, 9.6807, 18.3095, -150.09, -96.3124, 115.883
0.91212, -1, -3.47748, 9.63865, 18.3201, -150.138, -96.2948, 115.599
0.919113, -1, -3.63532, 9.59673, 18.3306, -150.187, -96.2775, 115.315
0.927189, -1, -3.79326, 9.55485, 18.341, -150.236, -96.2603, 115.03
0.935182, -1, -3.95122, 9.5128, 18.3514, -150.285, -96.2431, 114.746
0.943127, -1, -4.1091, 9.47086, 18.3618, -150.334, -96.2261, 114.462
0.951111, -1, -4.26692, 9.42891, 18.3721, -150.382, -96.2091, 114.177
0.959182, -1, -4.42458, 9.38689, 18.3825, -150.431, -96.1919, 113.893
0.967214, -1, -4.58181, 9.34493, 18.3929, -150.48, -96.1744, 113.608
0.975114, -1, -4.73863, 9.30289, 18.4032, -150.529, -96.1567, 113.324
0.983197, -1, -4.89506, 9.26079, 18.4137, -150.578, -96.139, 113.039
0.991113, -1, -5.05126, 9.21872, 18.4243, -150.627, -96.1216, 112.754
0.999112, -1, -5.20709, 9.17666, 18.4348, -150.675, -96.1045, 112.469
1.00813, -1, -5.36297, 9.1345, 18.4454, -150.724, -96.0875, 112.184
1.0162, -1, -5.51907, 9.09229, 18.4559, -150.773, -96.0706, 111.9
1.02412, -1, -5.67538, 9.05019, 18.4663, -150.822, -96.0536, 111.615
1.03225, -1, -5.83214, 9.00801, 18.4768, -150.871, -96.0363, 111.33
1.04116, -1, -5.98928, 8.96578, 18.4872, -150.92, -96.0188, 111.045
1.04813, -1, -6.14695, 8.92365, 18.4975, -150.968, -96.0011, 110.76
1.05512, -1, -6.30512, 8.88147, 18.5079, -151.017, -95.9837, 110.474
1.06319, -1, -6.46346, 8.83931, 18.5183, -151.066, -95.9666, 110.189
1.07112, -1, -6.62187, 8.79721, 18.5287, -151.115, -95.9495, 109.904
1.07914, -1, -6.78055, 8.75502, 18.5393, -151.164, -95.9325, 109.619
1.08727, -1, -6.93918, 8.7129, 18.5498, -151.213, -95.9155, 109.333
1.09522, -1, -7.09773, 8.6708, 18.5604, -151.262, -95.8981, 109.048
1.10321, -1, -7.25618, 8.62863, 18.5708, -151.311, -95.8805, 108.762
1.11127, -1, -7.41448, 8.58636, 18.5812, -151.36, -95.8628, 108.476
1.11922, -1, -7.57222, 8.54404, 18.5917, -151.409, -95.8452, 108.19
1.12727, -1, -7.72965, 8.50171, 18.6021, -151.458, -95.8279, 107.905
1.13529, -1, -7.88678, 8.45942, 18.6126, -151.507, -95.8107, 107.619
1.14312, -1, -8.04363, 8.41707, 18.623, -151.556, -95.7937, 107.333
1.15114, -1, -8.20016, 8.37469, 18.6334, -151.605, -95.7768, 107.047
1.15923, -1, -8.35674, 8.33233, 18.644, -151.654, -95.7597, 106.762
1.16724, -1, -8.51359, 8.28989, 18.6545, -151.703, -95.7423, 106.476
1.17533, -1, -8.67074, 8.24755, 18.6651, -151.753, -95.7247, 106.189
1.18339, -1, -8.82822, 8.20525, 18.6755, -151.802, -95.7069, 105.903
1.19139, -1, -8.98613, 8.16288, 18.6859, -151.85, -95.6895, 105.616
1.19953, -1, -9.14452, 8.12059, 18.6964, -151.9, -95.6722, 105.33
1.20754, -1, -9.30327, 8.07831, 18.7068, -151.949, -95.6551, 105.043
1.21616, -1, -9.46228, 8.03592, 18.7173, -151.998, -95.638, 104.756
1.22386, -1, -9.62135, 7.99363, 18.7278, -152.048, -95.6208, 104.47
1.23227, -1, -9.78057, 7.95137, 18.7382, -152.097, -95.6034, 104.183
1.23969, -1, -9.94005, 7.90904, 18.7488, -152.146, -95.5857, 103.896
1.24822, -1, -10.0993, 7.86665, 18.7595, -152.195, -95.5678, 103.609
1.25572, -1, -10.1789, 7.82417, 18.7701, -152.245, -95.5501, 103.322
1.26411, -1, -10.4175, 7.78166, 18.7807, -152.294, -95.5328, 103.035
1.27173, -1, -10.4969, 7.76041, 18.786, -152.319, -95.5242, 102.892
1.28039, -1, -10.7345, 7.69669, 18.8016, -152.392, -95.4986, 102.461
1.28722, -1, -10.8135, 7.67538, 18.8069, -152.417, -95.4901, 102.318
1.29516, -1, -10.9713, 7.63276, 18.8174, -152.466, -95.473, 102.031
1.30433, -1, -11.2076, 7.56903, 18.8331, -152.54, -95.4468, 101.599
1.31111, -1, -11.2863, 7.54779, 18.8383, -152.565, -95.4379, 101.455
1.32049, -1, -11.5225, 7.48405, 18.8541, -152.639, -95.4112, 101.025
1.32723, -1, -11.6013, 7.46282, 18.8594, -152.663, -95.4024, 100.881
1.33517, -1, -11.7591, 7.42037, 18.87, -152.712, -95.385, 100.593
1.34467, -1, -11.9969, 7.35675, 18.8859, -152.787, -95.3591, 100.161
1.35269, -1, -12.1559, 7.31436, 18.8964, -152.836, -95.342, 99.8736
1.36066, -1, -12.3153, 7.27195, 18.9069, -152.886, -95.3246, 99.5856
1.36874, -1, -12.4751, 7.22952, 18.9175, -152.935, -95.3071, 99.2975
1.37671, -1, -12.6349, 7.1871, 18.9281, -152.984, -95.2891, 99.0096
1.3847, -1, -12.7149, 7.16587, 18.9333, -153.009, -95.2711, 98.7217
1.39274, -1, -12.8751, 7.12338, 18.9439, -153.059, -95.2534, 98.4335
1.40011, -1, -13.0351, 7.08083, 18.9545, -153.108, -95.2446, 98.2894
1.40811, -1, -13.195, 7.03823, 18.965, -153.157, -95.2273, 98.0014
1.41616, -1, -13.3547, 6.99564, 18.9756, -153.207, -95.2102, 97.7132
1.42411, -1, -13.5143, 6.95293, 18.9862, -153.256, -95.193, 97.4246
1.4321, -1, -13.6734, 6.91015, 18.9969, -153.306, -95.1758, 97.1359
1.44016, -1, -13.8324, 6.86744, 19.0074, -153.355, -95.1583, 96.8474
1.44817, -1, -13.991, 6.82474, 19.0179, -153.404, -95.1405, 96.5591
1.45623, -1, -14.1493, 6.78203, 19.0284, -153.454, -95.1227, 96.2702
1.4631, -1, -14.3075, 6.7394, 19.039, -153.504, -95.1051, 95.9812
1.47115, -1, -14.4657, 6.69669, 19.0495, -153.553, -95.0877, 95.6923
1.47914, -1, -14.6241, 6.65406, 19.0601, -153.602, -95.0705, 95.4033
1.48715, -1, -14.783, 6.61154, 19.0706, -153.652, -95.0533, 95.1139
1.49529, -1, -14.9422, 6.56888, 19.0813, -153.701, -95.0361, 94.8246
1.5031, -1, -15.1017, 6.5262, 19.0921, -153.751, -95.0184, 94.5356
1.51117, -1, -15.2617, 6.48361, 19.1028, -153.801, -95.0005, 94.2465
1.5199, -1, -15.422, 6.44094, 19.1135, -153.85, -94.9825, 93.9572
1.52816, -1, -15.5826, 6.39822, 19.1241, -153.9, -94.9646, 93.6679
1.53613, -1, -15.7433, 6.35552, 19.1347, -153.95, -94.9472, 93.3786
1.54412, -1, -15.904, 6.31268, 19.1454, -153.999, -94.93, 93.0891
1.55111, -1, -16.0649, 6.26976, 19.156, -154.049, -94.9128, 92.7993
1.5591, -1, -16.2256, 6.22692, 19.1666, -154.099, -94.8957, 92.5096
1.56813, -1, -16.3863, 6.18392, 19.1771, -154.148, -94.8783, 92.2202
1.5751, -1, -16.5467, 6.14091, 19.1876, -154.198, -94.8606, 91.9305
1.58312, -1, -16.7068, 6.09796, 19.1982, -154.248, -94.8427, 91.6402
1.59211, -1, -16.8664, 6.05494, 19.2089, -154.297, -94.8249, 91.3501
1.60017, -1, -17.0258, 6.01195, 19.2196, -154.348, -94.8073, 91.0601
1.60724, -1, -17.185, 5.96899, 19.2302, -154.397, -94.7899, 90.7698
1.61632, -1, -17.344, 5.92608, 19.2407, -154.446, -94.7725, 90.4794
1.6232, -1, -17.5032, 5.88328, 19.2514, -154.497, -94.7552, 90.1892
1.63128, -1, -17.6626, 5.84047, 19.2621, -154.546, -94.7378, 89.8992
1.63964, -1, -17.822, 5.79766, 19.2728, -154.596, -94.7199, 89.609
1.64722, -1, -17.9819, 5.75487, 19.2835, -154.646, -94.7019, 89.3185
1.6552, -1, -18.1421, 5.71208, 19.2941, -154.696, -94.6838, 89.028
1.66482, -1, -18.3027, 5.66925, 19.3048, -154.746, -94.6661, 88.7373
1.67195, -1, -18.464, 5.6264, 19.3155, -154.796, -94.6486, 88.4462
1.6801, -1, -18.6256, 5.58341, 19.3262, -154.846, -94.6313, 88.1551
1.68908, -1, -18.7871, 5.5404, 19.3369, -154.896, -94.6141, 87.8643
1.69611, -1, -18.9488, 5.49738, 19.3475, -154.946, -94.5967, 87.5734
1.70347, -1, -19.1105, 5.45424, 19.3581, -154.995, -94.579, 87.2819
1.71303, -1, -19.272, 5.41105, 19.3687, -155.045, -94.561, 86.9903
1.72014, -1, -19.4334, 5.36788, 19.3793, -155.096, -94.5429, 86.699
1.72803, -1, -19.5944, 5.32465, 19.39, -155.145, -94.5249, 86.4074
1.73764, -1, -19.7552, 5.28144, 19.4006, -155.195, -94.5073, 86.1154
1.74367, -1, -19.9159, 5.23828, 19.4113, -155.245, -94.4899, 85.8238
1.75227, -1, -20.0761, 5.1951, 19.4221, -155.295, -94.4725, 85.5324
1.75966, -1, -20.1561, 5.17354, 19.4275, -155.345, -94.455, 85.2407
1.76829, -1, -20.3957, 5.10908, 19.4438, -155.395, -94.4374, 84.9488
1.77509, -1, -20.4757, 5.08751, 19.4491, -155.42, -94.4284, 84.8028
1.7843, -1, -20.7159, 5.02296, 19.4652, -155.496, -94.4011, 84.3652
1.79115, -1, -20.7961, 5.00149, 19.4706, -155.521, -94.3922, 84.2192
1.80024, -1, -21.0373, 4.93692, 19.4866, -155.596, -94.3656, 83.7809
1.8071, -1, -21.1179, 4.91537, 19.492, -155.621, -94.3569, 83.6348
1.81642, -1, -21.3603, 4.85065, 19.508, -155.696, -94.3311, 83.197
1.82309, -1, -21.4414, 4.82901, 19.5133, -155.721, -94.3225, 83.0508
1.83244, -1, -21.6846, 4.76408, 19.5294, -155.797, -94.2964, 82.6118
1.83909, -1, -21.7657, 4.74246, 19.5348, -155.822, -94.2875, 82.4655
1.84862, -1, -22.0093, 4.67735, 19.5509, -155.897, -94.2605, 82.0266
1.85668, -1, -22.1719, 4.63398, 19.5617, -155.948, -94.2426, 81.7337
1.86469, -1, -22.3344, 4.5906, 19.5723, -155.998, -94.2249, 81.4409
1.87291, -1, -22.4966, 4.54718, 19.5831, -156.048, -94.2074, 81.1485
1.88066, -1, -22.5776, 4.50377, 19.5938, -156.098, -94.1899, 80.8557
1.88731, -1, -22.7393, 4.48203, 19.5991, -156.123, -94.1812, 80.7092
1.89508, -1, -22.9007, 4.43859, 19.6098, -156.173, -94.1637, 80.4162
1.90661, -1, -23.1423, 4.37362, 19.6258, -156.249, -94.1367, 79.9767
1.91109, -1, -23.2228, 4.35195, 19.6312, -156.274, -94.1276, 79.8302
1.92019, -1, -23.3837, 4.30866, 19.6421, -156.324, -94.1093, 79.5368
1.92815, -1, -23.5446, 4.2654, 19.6529, -156.375, -94.0912, 79.2432
1.93614, -1, -23.7057, 4.2221, 19.6637, -156.425, -94.0735, 78.9501
1.9441, -1, -23.8668, 4.17884, 19.6745, -156.476, -94.0558, 78.6566
1.95215, -1, -24.0282, 4.13551, 19.6851, -156.526, -94.0384, 78.3627
1.96158, -1, -24.2714, 4.07042, 19.7013, -156.601, -94.0122, 77.9218
1.96715, -1, -24.3527, 4.04872, 19.7066, -156.627, -94.0033, 77.7748
1.97509, -1, -24.5155, 4.00526, 19.7173, -156.677, -93.9853, 77.4806
1.98309, -1, -24.6786, 3.96165, 19.7279, -156.727, -93.9671, 77.1862
1.99207, -1, -24.8419, 3.91803, 19.7386, -156.778, -93.9492, 76.8922
1.99909, -1, -25.0053, 3.87447, 19.7495, -156.828, -93.9314, 76.5982
2.00709, -1, -25.1687, 3.83086, 19.7604, -156.878, -93.9139, 76.3039
2.01521, -1, -25.3319, 3.78725, 19.7713, -156.929, -93.8964, 76.0094
2.02308, -1, -25.4949, 3.7436, 19.7821, -156.98, -93.8788, 75.7152
2.0311, -1, -25.6576, 3.69991, 19.7928, -157.03, -93.861, 75.4207
2.0401, -1, -25.8202, 3.65638, 19.8036, -157.081, -93.8429, 75.1259
2.04822, -1, -25.9826, 3.61288, 19.8144, -157.131, -93.8245, 74.8311
2.05509, -1, -26.1447, 3.56929, 19.8252, -157.181, -93.8062, 74.5366
2.06408, -1, -26.3063, 3.52587, 19.836, -157.232, -93.7882, 74.2419
2.07215, -1, -26.4678, 3.48247, 19.8467, -157.283, -93.7705, 73.947
2.07933, -1, -26.6295, 3.43892, 19.8575, -157.333, -93.7529, 73.6516
2.08717, -1, -26.7916, 3.3954, 19.8684, -157.384, -93.7353, 73.3567
2.09513, -1, -26.954, 3.35182, 19.8793, -157.434, -93.7175, 73.0613
2.10339, -1, -27.1167, 3.30816, 19.8901, -157.485, -93.6994, 72.7656
2.11119, -1, -27.2798, 3.26456, 19.9009, -157.536, -93.6811, 72.4704
2.11925, -1, -27.4431, 3.22082, 19.9116, -157.586, -93.6629, 72.1751
2.12754, -1, -27.6069, 3.177, 19.9225, -157.637, -93.6449, 71.8796
2.13607, -1, -27.7709, 3.13333, 19.9332, -157.688, -93.6271, 71.5838
2.14325, -1, -27.9351, 3.08961, 19.944, -157.738, -93.6094, 71.2883
2.15171, -1, -28.0994, 3.04585, 19.9548, -157.789, -93.5917, 70.9925
2.16007, -1, -28.2637, 3.00211, 19.9656, -157.84, -93.5738, 70.6966
2.16719, -1, -28.4278, 2.95836, 19.9765, -157.89, -93.5556, 70.4004
2.17602, -1, -28.5918, 2.91467, 19.9874, -157.942, -93.5372, 70.1046
2.18408, -1, -28.7554, 2.871, 19.9982, -157.992, -93.5188, 69.8086
2.19135, -1, -28.9187, 2.82725, 20.0091, -158.043, -93.5007, 69.5122
2.20023, -1, -29.0815, 2.78354, 20.0198, -158.094, -93.4829, 69.2157
2.20744, -1, -29.2443, 2.73987, 20.0306, -158.145, -93.4652, 68.9193
2.21554, -1, -29.407, 2.69611, 20.0415, -158.196, -93.4475, 68.6225
2.22438, -1, -29.5697, 2.65238, 20.0523, -158.247, -93.4296, 68.3255
2.23162, -1, -29.7325, 2.60853, 20.0631, -158.298, -93.4115, 68.0289
2.24019, -1, -29.8956, 2.56473, 20.0739, -158.349, -93.3931, 67.7323
2.24853, -1, -30.0588, 2.52092, 20.0849, -158.4, -93.3747, 67.4353
2.2557, -1, -30.2223, 2.47691, 20.0959, -158.45, -93.3566, 67.1384
2.26414, -1, -30.3864, 2.43296, 20.1069, -158.501, -93.3387, 66.8414
2.27251, -1, -30.4686, 2.41098, 20.1124, -158.527, -93.3298, 66.5445
2.27908, -1, -30.6334, 2.36692, 20.1231, -158.578, -93.3121, 66.3958
2.28824, -1, -30.8809, 2.30099, 20.1394, -158.654, -93.2853, 65.9496
2.29509, -1, -30.9635, 2.27901, 20.1449, -158.68, -93.2763, 65.801
2.30424, -1, -31.2111, 2.21293, 20.1612, -158.756, -93.2486, 65.3552
2.31113, -1, -31.2937, 2.19098, 20.1666, -158.782, -93.2393, 65.2064
2.32115, -1, -31.5409, 2.12509, 20.1828, -158.858, -93.212, 64.7597
2.32712, -1, -31.6232, 2.10304, 20.1882, -158.884, -93.203, 64.6108
2.3365, -1, -31.8699, 2.03709, 20.2047, -158.961, -93.1764, 64.1639
2.34307, -1, -31.952, 2.01513, 20.2101, -158.986, -93.1676, 64.0148
2.35121, -1, -32.1159, 1.9711, 20.2211, -159.037, -93.15, 63.7166
2.36078, -1, -32.3613, 1.90507, 20.2375, -159.115, -93.123, 63.2698
2.36952, -1, -32.5249, 1.86098, 20.2484, -159.166, -93.1047, 62.9717
2.37514, -1, -32.6067, 1.83888, 20.2539, -159.191, -93.0955, 62.8224
2.3847, -1, -32.8526, 1.77273, 20.2703, -159.268, -93.0682, 62.375
2.39261, -1, -32.9346, 1.75063, 20.2757, -159.294, -93.0592, 62.0766
2.40006, -1, -33.0989, 1.70638, 20.2866, -159.345, -93.0414, 61.9272
2.4088, -1, -33.2636, 1.66218, 20.2975, -159.396, -93.0236, 61.479
2.41607, -1, -33.4286, 1.61799, 20.3084, -159.447, -93.0057, 61.3298
2.42408, -1, -33.5941, 1.57373, 20.3195, -159.499, -92.9876, 61.0313
2.43213, -1, -33.7598, 1.52952, 20.3304, -159.55, -92.9691, 60.7324
2.44006, -1, -33.9256, 1.48529, 20.3413, -159.601, -92.9505, 60.4332
2.44813, -1, -34.0916, 1.44111, 20.3521, -159.652, -92.932, 60.1342
2.45615, -1, -34.2576, 1.39697, 20.3631, -159.704, -92.9137, 59.8348
2.46406, -1, -34.4237, 1.35275, 20.3741, -159.755, -92.8957, 59.5352
2.47212, -1, -34.5896, 1.30854, 20.385, -159.807, -92.878, 59.2355
2.48006, -1, -34.7552, 1.26437, 20.3959, -159.858, -92.8602, 58.9364
2.48827, -1, -34.9203, 1.22011, 20.4069, -159.909, -92.8422, 58.637
2.49605, -1, -35.0852, 1.17585, 20.418, -159.961, -92.8238, 58.3372
2.50406, -1, -35.2497, 1.13157, 20.429, -160.012, -92.8051, 58.0375
2.51107, -1, -35.4141, 1.0873, 20.4402, -160.064, -92.7867, 57.7378
2.51913, -1, -35.5773, 1.04332, 20.4514, -160.115, -92.7685, 57.438
2.52715, -1, -35.7383, 0.999734, 20.4627, -160.166, -92.7505, 57.1385
2.53506, -1, -35.896, 0.957016, 20.4744, -160.217, -92.7328, 56.8414
2.54307, -1, -36.0492, 0.915688, 20.4864, -160.267, -92.7151, 56.5489
2.55216, -1, -36.196, 0.876261, 20.4983, -160.315, -92.6978, 56.2642
2.55907, -1, -36.3341, 0.83946, 20.5101, -160.362, -92.6809, 55.9927
2.56708, -1, -36.4616, 0.805736, 20.5213, -160.405, -92.665, 55.7409
2.57514, -1, -36.5772, 0.775146, 20.5313, -160.443, -92.6508, 55.5148
2.58307, -1, -36.6791, 0.748228, 20.5396, -160.476, -92.6386, 55.3197
2.5911, -1, -36.7663, 0.725111, 20.5458, -160.503, -92.6288, 55.1592
2.5992, -1, -36.8392, 0.705838, 20.5498, -160.524, -92.6213, 55.0338
2.60718, -1, -36.8987, 0.690215, 20.5518, -160.54, -92.6158, 54.9424
2.61516, -1, -36.9452, 0.677824, 20.5526, -160.551, -92.6122, 54.8789
2.62323, -1, -36.9798, 0.668591, 20.5527, -160.559, -92.61, 54.8384
2.6313, -1, -37.0045, 0.662285, 20.5523, -160.563, -92.6087, 54.8146
2.64006, -1, -37.0206, 0.658371, 20.5519, -160.565, -92.6081, 54.8019
2.64725, -1, -37.0298, 0.656131, 20.5517, -160.567, -92.6078, 54.7957
2.65514, 2, -37.034, 0.655042, 20.5516, -160.567, -92.6077, 54.7928
2.66309, 2, -37.0347, 0.654549, 20.5516, -160.567, -92.6076, 54.7915
2.67117, 2, -37.0341, 0.654369, 20.5516, -160.568, -92.6076, 54.7909
2.67919, 2, -37.0336, 0.654294, 20.5515, -160.568, -92.6075, 54.7907
2.68726, 2, -37.0337, 0.654242, 20.5515, -160.568, -92.6076, 54.7905
2.69585, 2, -37.0345, 0.654175, 20.5515, -160.568, -92.6076, 54.7905
2.70414, 2, -37.0355, 0.654096, 20.5514, -160.568, -92.6076, 54.7905
2.7114, 2, -37.0369, 0.653925, 20.5512, -160.568, -92.6076, 54.7906
2.71983, 2, -37.0384, 0.653658, 20.551, -160.568, -92.6076, 54.7906
2.72827, 2, -37.0396, 0.653404, 20.5509, -160.568, -92.6077, 54.7906
2.73556, 2, -37.0407, 0.653149, 20.5507, -160.568, -92.6077, 54.7908
2.74419, 2, -37.0414, 0.652974, 20.5505, -160.568, -92.6077, 54.7908
2.75161, 2, -37.0416, 0.652907, 20.5504, -160.568, -92.6078, 54.7909
2.76017, 2, -37.0414, 0.652896, 20.5502, -160.568, -92.6078, 54.791
2.76803, 2, -37.0407, 0.652896, 20.5501, -160.568, -92.6079, 54.7911
2.77558, 2, -37.0403, 0.652914, 20.5501, -160.568, -92.6079, 54.7911
2.78409, 2, -37.0384, 0.653021, 20.55, -160.568, -92.608, 54.7913
2.79108, 2, -37.0376, 0.653057, 20.55, -160.568, -92.608, 54.7914
2.80015, 2, -37.0357, 0.653138, 20.5498, -160.567, -92.6081, 54.7916
2.80715, 2, -37.0352, 0.653144, 20.5498, -160.567, -92.6081, 54.7916
2.81634, 2, -37.0345, 0.653146, 20.5497, -160.567, -92.6081, 54.7918
2.82306, 2, -37.0344, 0.653131, 20.5497, -160.567, -92.6081, 54.7918
2.83236, 2, -37.0347, 0.653075, 20.5497, -160.567, -92.6081, 54.7919
2.83909, 2, -37.0348, 0.653028, 20.5497, -160.567, -92.6081, 54.7919
2.84855, 2, -37.0353, 0.652937, 20.5497, -160.567, -92.6081, 54.7919
2.85654, 2, -37.036, 0.652915, 20.5497, -160.567, -92.6081, 54.792
2.86471, 2, -37.0367, 0.652904, 20.5496, -160.567, -92.6081, 54.792
2.87264, 2, -37.0374, 0.6529, 20.5496, -160.567, -92.6081, 54.792
2.88063, 2, -37.0379, 0.652916, 20.5496, -160.567, -92.6081, 54.7921
2.8889, 2, -37.0382, 0.652942, 20.5496, -160.567, -92.6081, 54.7921
2.89662, 2, -37.0382, 0.652963, 20.5496, -160.567, -92.6081, 54.7922
2.90405, 2, -37.0383, 0.652988, 20.5496, -160.567, -92.6081, 54.7921
2.91209, 2, -37.0383, 0.653018, 20.5496, -160.567, -92.6081, 54.7922
2.92007, 2, -37.0379, 0.653013, 20.5496, -160.567, -92.6081, 54.7922
2.92819, 2, -37.0375, 0.653011, 20.5496, -160.567, -92.6081, 54.7923
2.93607, 2, -37.0373, 0.653002, 20.5496, -160.567, -92.6081, 54.7924
2.94407, 2, -37.037, 0.652981, 20.5496, -160.567, -92.6081, 54.7924
2.95206, 2, -37.0369, 0.652961, 20.5496, -160.567, -92.6081, 54.7926
2.96015, 2, -37.0369, 0.652926, 20.5496, -160.567, -92.6081, 54.7926
2.96814, 2, -37.0369, 0.65292, 20.5495, -160.567, -92.6082, 54.7927
2.97604, 2, -37.037, 0.652915, 20.5495, -160.567, -92.6082, 54.7927
2.98407, 2, -37.0371, 0.652904, 20.5495, -160.567, -92.6082, 54.7927
2.99215, 2, -37.0371, 0.652929, 20.5495, -160.567, -92.6082, 54.7927
3.00005, 2, -37.0373, 0.652967, 20.5495, -160.567, -92.6083, 54.7928
3.00815, 2, -37.0375, 0.652978, 20.5495, -160.567, -92.6083, 54.7928
3.01608, 2, -37.0376, 0.652995, 20.5495, -160.567, -92.6083, 54.7928
3.02405, 2, -37.0377, 0.652995, 20.5495, -160.567, -92.6083, 54.7929
3.03305, 2, -37.0377, 0.653009, 20.5495, -160.567, -92.6083, 54.793
3.04008, 2, -37.0377, 0.652984, 20.5495, -160.567, -92.6083, 54.793
3.04709, 2, -37.0377, 0.652973, 20.5495, -160.567, -92.6083, 54.7931
3.05516, 2, -37.0376, 0.65295, 20.5494, -160.567, -92.6083, 54.7931
3.06305, 2, -37.0376, 0.652946, 20.5494, -160.567, -92.6083, 54.7932
3.07206, 2, -37.0376, 0.652919, 20.5494, -160.567, -92.6083, 54.7932
3.08008, 2, -37.0376, 0.652906, 20.5494, -160.567, -92.6083, 54.7932
3.08815, 2, -37.0375, 0.652919, 20.5494, -160.567, -92.6083, 54.7933
3.09513, 2, -37.0375, 0.652936, 20.5494, -160.567, -92.6084, 54.7933
3.10316, 2, -37.0376, 0.652963, 20.5493, -160.567, -92.6083, 54.7933
3.11115, 2, -37.0375, 0.652983, 20.5493, -160.567, -92.6083, 54.7934
3.11919, 2, -37.0375, 0.652997, 20.5494, -160.567, -92.6083, 54.7934
3.12721, 2, -37.0375, 0.653003, 20.5493, -160.567, -92.6083, 54.7935
3.13516, 2, -37.0375, 0.653006, 20.5493, -160.567, -92.6083, 54.7935
3.14319, 2, -37.0375, 0.653008, 20.5493, -160.567, -92.6083, 54.7936
3.15116, 2, -37.0375, 0.652989, 20.5493, -160.567, -92.6084, 54.7936
3.15907, 2, -37.0375, 0.652975, 20.5493, -160.567, -92.6084, 54.7936
3.16713, 2, -37.0375, 0.652981, 20.5493, -160.567, -92.6084, 54.7938
3.17518, 2, -37.0375, 0.652953, 20.5493, -160.567, -92.6084, 54.7938
3.18318, 2, -37.0375, 0.652966, 20.5493, -160.567, -92.6084, 54.794
3.19128, 2, -37.0375, 0.65297, 20.5493, -160.567, -92.6084, 54.7939
3.19967, 2, -37.0374, 0.652966, 20.5492, -160.567, -92.6084, 54.7939
3.20815, 2, -37.0375, 0.652965, 20.5492, -160.567, -92.6084, 54.7939
3.21544, 2, -37.0375, 0.652984, 20.5492, -160.567, -92.6084, 54.794
3.2239, 2, -37.0374, 0.652997, 20.5492, -160.567, -92.6084, 54.794
3.23219, 2, -37.0374, 0.652991, 20.5492, -160.567, -92.6084, 54.794
3.23959, 2, -37.0374, 0.653001, 20.5492, -160.567, -92.6084, 54.7941
3.24824, 2, -37.0374, 0.653005, 20.5492, -160.567, -92.6084, 54.7942
3.2556, 2, -37.0374, 0.653, 20.5492, -160.567, -92.6085, 54.7941
3.26415, 2, -37.0373, 0.653, 20.5492, -160.567, -92.6085, 54.7941
3.27194, 2, -37.0373, 0.652985, 20.5492, -160.567, -92.6084, 54.7942
3.28009, 2, -37.0373, 0.652963, 20.5492, -160.567, -92.6084, 54.7942
3.28708, 2, -37.0373, 0.652959, 20.5492, -160.567, -92.6084, 54.7943
3.2965, 2, -37.0373, 0.652986, 20.5491, -160.567, -92.6085, 54.7943
3.30302, 2, -37.0373, 0.652986, 20.5491, -160.567, -92.6084, 54.7944
3.31223, 2, -37.0373, 0.65299, 20.5491, -160.567, -92.6085, 54.7943
3.31907, 2, -37.0373, 0.652996, 20.5491, -160.567, -92.6085, 54.7943
3.32705, 2, -37.0372, 0.653003, 20.5491, -160.567, -92.6085, 54.7944
3.33635, 2, -37.0372, 0.653, 20.5491, -160.567, -92.6084, 54.7945
3.34307, 2, -37.0372, 0.652995, 20.5491, -160.567, -92.6084, 54.7945
3.35104, 2, -37.0372, 0.653003, 20.5491, -160.567, -92.6084, 54.7945
3.36055, 2, -37.0372, 0.653007, 20.5491, -160.567, -92.6084, 54.7945
3.36908, 2, -37.0372, 0.653019, 20.5491, -160.567, -92.6085, 54.7945
3.37506, 2, -37.0371, 0.653001, 20.5491, -160.567, -92.6085, 54.7945
3.38462, 2, -37.0371, 0.652965, 20.5491, -160.567, -92.6085, 54.7946
3.39291, 2, -37.0371, 0.652984, 20.549, -160.567, -92.6085, 54.7946
3.4007, 2, -37.0371, 0.652992, 20.549, -160.567, -92.6085, 54.7947
3.40865, 2, -37.0371, 0.652982, 20.549, -160.567, -92.6085, 54.7947
3.41694, 2, -37.0371, 0.65299, 20.549, -160.567, -92.6085, 54.7948
3.42406, 2, -37.0371, 0.652989, 20.549, -160.567, -92.6085, 54.7948
3.43205, 2, -37.0371, 0.653, 20.549, -160.567, -92.6085, 54.7948
3.44006, 2, -37.0371, 0.653005, 20.549, -160.567, -92.6085, 54.7948
3.44707, 2, -37.0371, 0.653025, 20.549, -160.567, -92.6085, 54.7948
3.45507, 2, -37.0371, 0.653017, 20.549, -160.567, -92.6085, 54.7948
3.46412, 2, -37.0371, 0.653012, 20.549, -160.567, -92.6086, 54.7948
3.47104, 2, -37.037, 0.653029, 20.5489, -160.567, -92.6085, 54.7948
3.48003, 2, -37.037, 0.653011, 20.5489, -160.567, -92.6085, 54.7949
3.48813, 2, -37.0371, 0.652993, 20.5489, -160.566, -92.6085, 54.7949
3.49504, 2, -37.037, 0.65302, 20.5489, -160.566, -92.6085, 54.7949
3.50402, 2, -37.037, 0.653032, 20.5489, -160.566, -92.6086, 54.7949
3.51207, 2, -37.037, 0.653012, 20.5489, -160.566, -92.6086, 54.7949
3.52006, 2, -37.037, 0.653006, 20.5489, -160.566, -92.6086, 54.7949
3.52808, 2, -37.037, 0.653007, 20.5489, -160.566, -92.6086, 54.795
3.53607, 2, -37.037, 0.653008, 20.5489, -160.566, -92.6086, 54.7951
3.54406, 2, -37.037, 0.653009, 20.5489, -160.566, -92.6087, 54.795
3.55206, 2, -37.037, 0.653009, 20.5489, -160.566, -92.6087, 54.7949
3.55908, 2, -37.0369, 0.653009, 20.5488, -160.566, -92.6087, 54.795
3.56814, 2, -37.0369, 0.653009, 20.5488, -160.566, -92.6087, 54.795
3.57506, 2, -37.0369, 0.653009, 20.5488, -160.566, -92.6086, 54.795
3.58405, 2, -37.0369, 0.653009, 20.5488, -160.566, -92.6086, 54.7949
3.59208, 2, -37.0369, 0.653027, 20.5488, -160.566, -92.6086, 54.795
3.59912, 2, -37.0369, 0.653036, 20.5488, -160.566, -92.6085, 54.795
3.60814, 2, -37.0369, 0.653021, 20.5488, -160.566, -92.6086, 54.795
3.61514, 2, -37.0369, 0.653033, 20.5488, -160.566, -92.6086, 54.795
3.62316, 2, -37.0369, 0.65302, 20.5488, -160.566, -92.6086, 54.7951
3.63118, 2, -37.0369, 0.653014, 20.5488, -160.566, -92.6086, 54.7951
3.63914, 2, -37.0368, 0.65303, 20.5488, -160.566, -92.6086, 54.7951
3.64718, 2, -37.0368, 0.653018, 20.5487, -160.566, -92.6086, 54.7951
3.65538, 2, -37.0368, 0.653024, 20.5487, -160.566, -92.6086, 54.7951
3.66426, 2, -37.0368, 0.653053, 20.5487, -160.566, -92.6086, 54.7951
3.67207, 2, -37.0368, 0.653036, 20.5487, -160.566, -92.6087, 54.7951
3.67914, 2, -37.0368, 0.65304, 20.5487, -160.566, -92.6087, 54.7951
3.68714, 2, -37.0368, 0.653041, 20.5487, -160.566, -92.6087, 54.7951
3.69603, 2, -37.0367, 0.653024, 20.5487, -160.566, -92.6086, 54.7951
3.70375, 2, -37.0367, 0.653027, 20.5487, -160.566, -92.6086, 54.7951
3.71212, 2, -37.0367, 0.653035, 20.5486, -160.566, -92.6086, 54.7951
3.71939, 2, -37.0367, 0.65304, 20.5486, -160.566, -92.6087, 54.7952
3.72751, 2, -37.0367, 0.653041, 20.5487, -160.566, -92.6087, 54.7952
3.73641, 2, -37.0367, 0.653042, 20.5486, -160.566, -92.6087, 54.7952
3.74354, 4, -37.0367, 0.653043, 20.5486, -160.566, -92.6087, 54.7951
3.75215, 4, -37.0367, 0.653061, 20.5486, -160.566, -92.6087, 54.7951
3.76016, 4, -37.0366, 0.653051, 20.5486, -160.566, -92.6087, 54.7952
3.76763, 4, -37.0366, 0.653065, 20.5486, -160.566, -92.6087, 54.7951
3.77602, 4, -37.0366, 0.653071, 20.5486, -160.566, -92.6087, 54.7952
3.78397, 4, -37.0366, 0.653045, 20.5486, -160.566, -92.6087, 54.7952
3.79207, 4, -37.0366, 0.653055, 20.5486, -160.566, -92.6086, 54.7951
3.79908, 4, -37.0366, 0.653051, 20.5486, -160.566, -92.6087, 54.7951
3.80853, 4, -37.0366, 0.653064, 20.5486, -160.566, -92.6087, 54.7952
3.81503, 4, -37.0365, 0.653057, 20.5486, -160.566, -92.6087, 54.7952
3.82437, 4, -37.0365, 0.653024, 20.5485, -160.566, -92.6087, 54.7952
3.83102, 4, -37.0365, 0.65303, 20.5485, -160.566, -92.6087, 54.7952
3.84068, 4, -37.0365, 0.65305, 20.5485, -160.566, -92.6087, 54.7951
3.86583, 4, -37.0365, 0.653048, 20.5485, -160.566, -92.6087, 54.7952
3.86767, 4, -37.0364, 0.653056, 20.5485, -160.566, -92.6087, 54.7952
3.87032, 4, -37.0363, 0.653063, 20.5485, -160.566, -92.6087, 54.7952
3.87304, 4, -37.0363, 0.653067, 20.5485, -160.566, -92.6087, 54.7952
3.88306, 4, -37.0363, 0.653072, 20.5485, -160.566, -92.6087, 54.7951
3.88886, 4, -37.0361, 0.65302, 20.5485, -160.566, -92.6087, 54.7951
3.89655, 4, -37.0356, 0.6529, 20.5485, -160.566, -92.6087, 54.7952
3.90559, 4, -37.033, 0.651951, 20.5486, -160.566, -92.6087, 54.7952
3.91116, 4, -37.0273, 0.649028, 20.5494, -160.566, -92.6087, 54.7952
3.91906, 4, -37.0178, 0.64302, 20.5519, -160.566, -92.6087, 54.7952
3.92814, 4, -37.0043, 0.633407, 20.5573, -160.565, -92.6087, 54.7952
3.93523, 4, -36.9862, 0.619685, 20.567, -160.563, -92.6088, 54.7952
3.94301, 5, -36.9623, 0.601444, 20.5825, -160.56, -92.6087, 54.7952
3.95204, 5, -36.9331, 0.578852, 20.6044, -160.556, -92.6085, 54.7952
3.96007, 5, -36.8991, 0.551595, 20.6333, -160.55, -92.608, 54.7951
3.96815, 5, -36.8602, 0.520034, 20.6689, -160.542, -92.6072, 54.7951
3.97601, 5, -36.8162, 0.483612, 20.7102, -160.533, -92.6061, 54.7951
3.98373, 5, -36.7671, 0.442695, 20.7566, -160.522, -92.6046, 54.7951
3.99345, 5, -36.713, 0.39767, 20.833, -160.505, -92.6021, 54.7951
3.99902, 5, -36.6546, 0.349377, 20.8597, -160.499, -92.6012, 54.7951
4.00825, 5, -36.5923, 0.29872, 20.9141, -160.487, -92.5993, 54.795
4.01532, 5, -36.5267, 0.246177, 20.9694, -160.475, -92.5974, 54.795
4.02301, 5, -36.4594, 0.192679, 21.0249, -160.462, -92.5954, 54.7951
4.03382, 5, -36.3912, 0.138835, 21.1083, -160.444, -92.5925, 54.7951
4.03916, 5, -36.3226, 0.0848194, 21.1361, -160.438, -92.5915, 54.7951
4.04809, 5, -36.2538, 0.0308358, 21.1917, -160.426, -92.5895, 54.7951
4.06001, 5, -36.1508, -0.0497213, 21.275, -160.408, -92.5864, 54.7952
4.06415, 5, -36.1165, -0.0764656, 21.3028, -160.402, -92.5854, 54.7953
4.07121, 5, -36.0478, -0.129766, 21.3582, -160.389, -92.5834, 54.7955
4.07903, 5, -35.9792, -0.182846, 21.4135, -160.377, -92.5813, 54.7957
4.08808, 5, -35.9107, -0.235755, 21.4688, -160.364, -92.5792, 54.7961
4.09608, 5, -35.842, -0.288474, 21.524, -160.351, -92.577, 54.7967
4.10402, 5, -35.7731, -0.341208, 21.5792, -160.338, -92.5749, 54.7975
4.11225, 5, -35.7041, -0.393947, 21.6342, -160.325, -92.5728, 54.7986
4.11986, 5, -35.6347, -0.446671, 21.6889, -160.313, -92.5708, 54.7998
4.12808, 5, -35.5651, -0.499523, 21.7435, -160.3, -92.5686, 54.8011
4.13651, 5, -35.4952, -0.552355, 21.7979, -160.288, -92.5665, 54.8025
4.14852, 5, -35.3899, -0.631634, 21.8792, -160.269, -92.5632, 54.8049
4.1512, 5, -35.3547, -0.658025, 21.9063, -160.262, -92.5621, 54.8058
4.15904, 5, -35.2842, -0.710803, 21.9604, -160.249, -92.5599, 54.8077
4.168, 5, -35.2137, -0.763421, 22.0143, -160.236, -92.5578, 54.8097
4.17601, 5, -35.1431, -0.815686, 22.0681, -160.223, -92.5555, 54.8118
4.18615, 5, -35.0725, -0.867948, 22.1218, -160.209, -92.5533, 54.814
4.19156, 5, -35.002, -0.919936, 22.1754, -160.196, -92.5511, 54.8164
4.20008, 5, -34.9316, -0.971652, 22.2289, -160.183, -92.5488, 54.8189
4.20731, 5, -34.8612, -1.02322, 22.2823, -160.17, -92.5465, 54.8216
4.2158, 5, -34.7906, -1.07461, 22.3355, -160.157, -92.5442, 54.8242
4.22414, 5, -34.72, -1.12611, 22.3885, -160.145, -92.5418, 54.827
4.23146, 5, -34.6492, -1.17746, 22.4414, -160.132, -92.5395, 54.83
4.23963, 5, -34.5784, -1.22884, 22.494, -160.119, -92.5372, 54.833
4.24843, 5, -34.5073, -1.28029, 22.5466, -160.105, -92.5349, 54.8362
4.2556, 5, -34.4359, -1.33167, 22.599, -160.092, -92.5325, 54.8395
4.26437, 5, -34.3644, -1.38302, 22.6512, -160.078, -92.5301, 54.8428
4.27356, 5, -34.2928, -1.43434, 22.7032, -160.064, -92.5277, 54.8464
4.27965, 5, -34.2569, -1.45996, 22.7292, -160.05, -92.5253, 54.8499
4.28827, 5, -34.1491, -1.53649, 22.8071, -160.037, -92.5229, 54.8536
4.29502, 5, -34.1131, -1.56191, 22.8329, -160.03, -92.5217, 54.8555
4.3041, 5, -34.005, -1.63791, 22.9105, -160.01, -92.5181, 54.8614
4.31123, 5, -33.969, -1.6631, 22.9363, -160.003, -92.5169, 54.8634
4.31921, 5, -33.8969, -1.71331, 22.9877, -159.99, -92.5145, 54.8675
4.32835, 5, -33.7887, -1.78845, 23.0644, -159.969, -92.5109, 54.8738
4.33751, 5, -33.7164, -1.83843, 23.1155, -159.955, -92.5086, 54.878
4.34919, 5, -33.6441, -1.91323, 23.1916, -159.933, -92.5051, 54.8845
4.35097, 5, -33.6079, -1.91323, 23.1916, -159.933, -92.5051, 54.8845
4.3605, 5, -33.4989, -1.98845, 23.2675, -159.912, -92.5016, 54.8909
4.36713, 5, -33.4624, -2.01364, 23.2928, -159.905, -92.5005, 54.8929
4.37671, 5, -33.3531, -2.08968, 23.3683, -159.884, -92.497, 54.897
4.38457, 6, -33.2804, -2.14087, 23.4187, -159.87, -92.4946, 54.898
4.39285, 6, -33.2081, -2.19275, 23.4692, -159.855, -92.4922, 54.8972
4.40119, 6, -33.1362, -2.24555, 23.5201, -159.84, -92.4894, 54.8939
4.40707, 6, -33.1003, -2.27225, 23.5457, -159.833, -92.4877, 54.8906
4.41708, 7, -32.9937, -2.35398, 23.624, -159.807, -92.481, 54.8722
4.42303, 7, -32.9583, -2.38177, 23.6507, -159.798, -92.4781, 54.8643
4.43201, 7, -32.888, -2.43833, 23.705, -159.779, -92.4708, 54.8465
4.44218, 7, -32.7836, -2.52604, 23.7893, -159.748, -92.456, 54.8188
4.44798, 7, -32.7492, -2.55605, 23.8181, -159.737, -92.4501, 54.8097
4.45603, 8, -32.6807, -2.61734, 23.8769, -159.714, -92.4366, 54.7922
4.464, 8, -32.613, -2.68027, 23.937, -159.69, -92.421, 54.7752
4.47208, 8, -32.546, -2.74505, 23.9983, -159.664, -92.4035, 54.7579
4.47999, 8, -32.4797, -2.81145, 24.0607, -159.637, -92.3842, 54.7398
4.48817, 8, -32.4142, -2.8794, 24.1241, -159.609, -92.3633, 54.7204
4.49524, 9, -32.3493, -2.94877, 24.1885, -159.581, -92.3414, 54.6994
4.50302, 9, -32.285, -3.01944, 24.2539, -159.552, -92.3183, 54.6765
4.5123, 9, -32.2213, -3.09144, 24.3203, -159.521, -92.2941, 54.6518
4.52226, 9, -32.158, -3.16476, 24.3877, -159.489, -92.2683, 54.6258
4.52709, 9, -32.0953, -3.23934, 24.4561, -159.457, -92.2406, 54.5987
4.53615, 10, -32.0333, -3.31524, 24.5254, -159.424, -92.2114, 54.57
4.54401, 10, -31.9718, -3.39239, 24.5958, -159.39, -92.1813, 54.5397
4.55302, 10, -31.9109, -3.47103, 24.6672, -159.354, -92.1499, 54.5074
4.56113, 10, -31.8505, -3.5511, 24.7397, -159.318, -92.1169, 54.473
4.56815, 10, -31.7907, -3.63256, 24.8133, -159.281, -92.0819, 54.4375
4.57601, 10, -31.7315, -3.71553, 24.8878, -159.243, -92.046, 54.4008
4.58475, 11, -31.6728, -3.79991, 24.9633, -159.204, -92.0092, 54.3627
4.59101, 11, -31.6147, -3.88581, 25.0396, -159.164, -91.9709, 54.3225
4.6, 11, -31.5571, -3.97315, 25.117, -159.124, -91.9304, 54.2804
4.61155, 11, -31.4717, -4.10689, 25.2349, -159.06, -91.8681, 54.2154
4.61615, 11, -31.4435, -4.15224, 25.2747, -159.038, -91.8467, 54.1931
4.62399, 12, -31.3875, -4.24401, 25.3552, -158.995, -91.8021, 54.1468
4.63206, 12, -31.3319, -4.33713, 25.4368, -158.95, -91.7565, 54.0985
4.64024, 12, -31.2769, -4.43159, 25.5194, -158.904, -91.71, 54.0491
4.6483, 12, -31.2224, -4.52744, 25.603, -158.858, -91.6616, 53.9985
4.65522, 12, -31.1683, -4.62476, 25.6877, -158.811, -91.6118, 53.946
4.66307, 13, -31.1148, -4.72342, 25.7732, -158.762, -91.5613, 53.8918
4.67106, 13, -31.0618, -4.82351, 25.8596, -158.713, -91.5084, 53.8367
4.67927, 13, -31.0094, -4.92513, 25.9472, -158.663, -91.4546, 53.7799
4.68742, 13, -30.9574, -5.02832, 26.0359, -158.611, -91.4001, 53.7212
4.69614, 13, -30.9059, -5.13285, 26.1257, -158.56, -91.3431, 53.6617
4.70327, 14, -30.8551, -5.23881, 26.2165, -158.506, -91.2859, 53.6006
4.71289, 14, -30.8049, -5.34634, 26.3084, -158.453, -91.2267, 53.5374
4.722, 14, -30.7551, -5.45525, 26.4011, -158.399, -91.1662, 53.4739
4.72768, 14, -30.7057, -5.56573, 26.4947, -158.342, -91.105, 53.4086
4.73684, 14, -30.6571, -5.67768, 26.5894, -158.286, -91.0413, 53.3411
4.74409, 15, -30.6089, -5.7911, 26.6852, -158.229, -90.9773, 53.2731
4.75161, 15, -30.5611, -5.90584, 26.7822, -158.17, -90.9109, 53.2032
4.76222, 15, -30.5139, -6.02177, 26.8803, -158.112, -90.8442, 53.1317
4.76857, 15, -30.4672, -6.13929, 26.9793, -158.051, -90.7755, 53.0594
4.7762, 15, -30.421, -6.25821, 27.0792, -157.99, -90.7057, 52.9844
4.78357, 16, -30.3981, -6.31818, 27.1295, -157.959, -90.6704, 52.9089
4.79269, 16, -30.3302, -6.50046, 27.2819, -157.865, -90.5619, 52.8312
4.80009, 16, -30.2856, -6.62378, 27.385, -157.801, -90.4882, 52.7521
4.80699, 16, -30.2634, -6.68596, 27.4369, -157.768, -90.4507, 52.7125
4.81642, 16, -30.1977, -6.87486, 27.5944, -157.671, -90.3365, 52.5901
4.82443, 17, -30.1544, -7.00276, 27.7006, -157.604, -90.2587, 52.5077
4.831, 17, -30.1329, -7.0673, 27.754, -157.571, -90.2194, 52.4657
4.83917, 17, -30.0904, -7.19755, 27.8614, -157.503, -90.1395, 52.3809
4.84697, 17, -30.0484, -7.32922, 27.9699, -157.434, -90.0582, 52.2951
4.85507, 17, -30.007, -7.46216, 28.0795, -157.364, -89.976, 52.2072
4.86492, 18, -29.9457, -7.66421, 28.2463, -157.258, -89.8498, 52.0736
4.87351, 18, -29.9055, -7.80067, 28.3587, -157.186, -89.7639, 51.983
4.87906, 18, -29.8856, -7.86946, 28.4152, -157.15, -89.7206, 51.9371
4.88958, 18, -29.8265, -8.07774, 28.586, -157.039, -89.5891, 51.7971
4.89743, 18, -29.7877, -8.21816, 28.7012, -156.965, -89.4996, 51.7021
4.90299, 18, -29.7684, -8.28888, 28.7593, -156.927, -89.4543, 51.6541
4.91199, 19, -29.7304, -8.43137, 28.8763, -156.851, -89.3633, 51.5577
4.91999, 19, -29.6928, -8.5755, 28.9945, -156.774, -89.2707, 51.4596
4.92804, 19, -29.6555, -8.72116, 29.1134, -156.697, -89.1768, 51.3607
4.93743, 19, -29.6006, -8.94194, 29.2932, -156.579, -89.0342, 51.2105
4.94544, 19, -29.5826, -9.09081, 29.4143, -156.499, -88.9376, 51.1084
4.95101, 20, -29.5469, -9.16585, 29.4753, -156.458, -88.8887, 51.0571
4.96279, 20, -29.4941, -9.39319, 29.6602, -156.336, -88.7414, 50.9012
4.96821, 20, -29.4767, -9.46968, 29.7222, -156.295, -88.6916, 50.8488
4.97497, 20, -29.4423, -9.62342, 29.8469, -156.212, -88.5912, 50.7426
4.984, 20, -29.4084, -9.77831, 29.9725, -156.128, -88.4899, 50.6355
4.99203, 21, -29.375, -9.93464, 30.0991, -156.043, -88.3873, 50.5269
4.99998, 21, -29.3419, -10.0925, 30.2268, -155.957, -88.2836, 50.4176
5.00799, 21, -29.3092, -10.2518, 30.3555, -155.871, -88.1791, 50.3072
5.01833, 21, -29.2611, -10.4923, 30.5503, -155.74, -88.02, 50.1402
5.02556, 21, -29.2453, -10.5731, 30.6156, -155.696, -87.9129, 50.0275
5.03203, 22, -29.214, -10.7358, 30.747, -155.606, -87.8589, 49.971
5.04159, 22, -29.1829, -10.8999, 30.8792, -155.516, -87.7501, 49.8571
5.04803, 22, -29.1523, -11.065, 31.0125, -155.425, -87.6405, 49.7424
5.05604, 22, -29.1222, -11.231, 31.1467, -155.333, -87.5297, 49.6266
5.06422, 22, -29.0923, -11.3983, 31.2818, -155.241, -87.4179, 49.5102
5.07138, 23, -29.0629, -11.5673, 31.4178, -155.147, -87.3054, 49.3929
5.07909, 23, -29.0337, -11.7377, 31.5546, -155.053, -87.1918, 49.2748
5.08817, 23, -29.005, -11.9089, 31.6921, -154.958, -87.0773, 49.1563
5.09692, 23, -28.9767, -12.081, 31.8305, -154.862, -86.9622, 49.0371
5.10404, 23, -28.9488, -12.2545, 31.9698, -154.765, -86.8458, 48.9173
5.11204, 24, -28.9212, -12.4295, 32.11, -154.667, -86.7287, 48.7969
5.12007, 24, -28.894, -12.6051, 32.2512, -154.568, -86.6105, 48.6762
5.128, 24, -28.867, -12.7814, 32.3929, -154.469, -86.4917, 48.5545
5.13873, 24, -28.8274, -13.0481, 32.6068, -154.318, -86.3117, 48.371
5.14331, 24, -28.8143, -13.1378, 32.6787, -154.268, -86.2512, 48.3095
5.15226, 25, -28.7884, -13.3178, 32.8231, -154.166, -86.1301, 48.1862
5.15962, 25, -28.7629, -13.4983, 32.9681, -154.063, -86.0079, 48.0629
5.17001, 25, -28.7375, -13.6797, 33.1135, -153.96, -85.8854, 47.9395
5.17598, 25, -28.7123, -13.8626, 33.2597, -153.855, -85.7619, 47.8158
5.18405, 25, -28.6873, -14.0466, 33.4067, -153.75, -85.6377, 47.6919
5.19211, 25, -28.6628, -14.231, 33.5546, -153.644, -85.5131, 47.5681
5.19999, 26, -28.6385, -14.416, 33.703, -153.537, -85.3876, 47.4438
5.20805, 26, -28.6145, -14.6026, 33.8518, -153.43, -85.2619, 47.3195
5.21529, 26, -28.5908, -14.7903, 34.0015, -153.322, -85.1354, 47.1951
5.22359, 26, -28.5671, -14.9782, 34.1521, -153.213, -85.0083, 47.0707
5.23209, 26, -28.5436, -15.1665, 34.3031, -153.103, -84.8807, 46.9467
5.23981, 27, -28.5204, -15.3558, 34.4545, -152.993, -84.7526, 46.823
5.24853, 27, -28.4975, -15.5459, 34.6065, -152.882, -84.6241, 46.6997
5.25615, 27, -28.4747, -15.7362, 34.7593, -152.77, -84.4948, 46.5766
5.26439, 27, -28.4522, -15.927, 34.9127, -152.658, -84.3654, 46.4538
5.27294, 27, -28.4299, -16.1195, 35.0662, -152.545, -84.2354, 46.3311
5.28012, 28, -28.4076, -16.313, 35.22, -152.431, -84.1052, 46.209
5.28758, 28, -28.3964, -16.4098, 35.2972, -152.374, -84.0399, 46.0871
5.29634, 28, -28.3632, -16.7013, 35.5299, -152.201, -83.8436, 45.9659
5.30406, 28, -28.3413, -16.897, 35.6855, -152.086, -83.7122, 45.8455
5.31102, 28, -28.3303, -16.9951, 35.7633, -152.027, -83.6464, 45.7855
5.31902, 29, -28.3085, -17.1914, 35.9193, -151.911, -83.5149, 45.6662
5.32827, 29, -28.2761, -17.4863, 36.1547, -151.734, -83.3165, 45.4885
5.33503, 29, -28.2654, -17.5851, 36.2335, -151.675, -83.2502, 45.4296
5.34845, 29, -28.2225, -17.9809, 36.5485, -151.436, -82.9842, 45.1961
5.35242, 29, -28.2119, -18.0799, 36.6275, -151.376, -82.9176, 45.1384
5.36043, 30, -28.1908, -18.2785, 36.7862, -151.255, -82.7841, 45.0238
5.36698, 30, -28.1802, -18.378, 36.8657, -151.195, -82.7174, 44.9671
5.37655, 30, -28.1482, -18.6768, 37.1036, -151.012, -82.5171, 44.7987
5.38458, 30, -28.127, -18.8763, 37.2622, -150.89, -82.3834, 44.6887
5.39641, 30, -28.1057, -19.0767, 37.4212, -150.768, -82.2494, 44.5804
5.40054, 31, -28.0949, -19.1772, 37.5008, -150.706, -82.1823, 44.4738
5.40859, 31, -28.0733, -19.378, 37.6599, -150.583, -82.0486, 44.3688
5.41597, 31, -28.0518, -19.5785, 37.8187, -150.459, -81.9143, 44.3169
5.42397, 31, -28.0304, -19.7794, 37.978, -150.334, -81.7803, 44.2147
5.43204, 31, -28.0087, -19.9803, 38.1379, -150.209, -81.6461, 44.1134
5.44012, 32, -27.9869, -20.1808, 38.298, -150.083, -81.5118, 44.0141
5.4472, 32, -27.965, -20.3812, 38.4576, -149.957, -81.3776, 43.9165
5.45602, 32, -27.9429, -20.5824, 38.6171, -149.831, -81.2434, 43.8213
5.46416, 32, -27.9204, -20.7837, 38.7771, -149.704, -81.1095, 43.7279
5.47341, 32, -27.8978, -20.9845, 39.0167, -149.513, -80.9088, 43.5934
5.47901, 32, -27.875, -21.1852, 39.0961, -149.449, -80.8422, 43.5497
5.48775, 33, -27.852, -21.3861, 39.2549, -149.321, -80.7092, 43.4651
5.49498, 33, -27.8285, -21.5864, 39.4139, -149.194, -80.5768, 43.3832
5.50397, 33, -27.8047, -21.7858, 39.5725, -149.066, -80.4444, 43.3046
5.51441, 33, -27.7678, -22.0846, 39.8088, -148.875, -80.2472, 43.1926
5.52082, 33, -27.7553, -22.184, 39.8872, -148.811, -80.1814, 43.1568
5.52796, 34, -27.73, -22.382, 40.044, -148.683, -80.0507, 43.0884
5.53504, 34, -27.7041, -22.5791, 40.2006, -148.556, -79.9199, 43.0227
5.54412, 34, -27.6779, -22.7761, 40.3565, -148.428, -79.7892, 42.9599
5.55195, 34, -27.6512, -22.9728, 40.5116, -148.3, -79.6586, 42.9011
5.56003, 34, -27.6241, -23.1687, 40.6668, -148.172, -79.5279, 42.8451
5.56797, 35, -27.5966, -23.3642, 40.8221, -148.044, -79.3973, 42.792
5.57598, 35, -27.569, -23.5602, 40.9769, -147.915, -79.2666, 42.7429
5.58403, 35, -27.5412, -23.7562, 41.1312, -147.786, -79.1366, 42.6974
5.59111, 35, -27.513, -23.9515, 41.2854, -147.657, -79.0064, 42.6549
5.59995, 35, -27.4847, -24.1467, 41.4398, -147.526, -78.8768, 42.6156
5.60799, 36, -27.456, -24.342, 41.5939, -147.396, -78.7471, 42.5802
5.61618, 36, -27.427, -24.5367, 41.7474, -147.265, -78.6179, 42.5491
5.62753, 36, -27.3828, -24.8274, 41.9769, -147.069, -78.4248, 42.5103
5.63134, 36, -27.3678, -24.9241, 42.0532, -147.003, -78.3607, 42.4994
5.63983, 36, -27.3371, -25.1175, 42.2053, -146.872, -78.233, 42.481
5.6481, 37, -27.3056, -25.3095, 42.3562, -146.742, -78.1055, 42.4674
5.65597, 37, -27.273, -25.5001, 42.5058, -146.612, -77.9787, 42.4586
5.66521, 37, -27.2397, -25.6899, 42.6544, -146.482, -77.8522, 42.4543
5.67198, 37, -27.2053, -25.8789, 42.8018, -146.354, -77.7263, 42.4529
5.68001, 37, -27.1699, -26.0661, 42.948, -146.226, -77.6008, 42.4557
5.68897, 38, -27.1336, -26.2515, 43.0926, -146.099, -77.4759, 42.4655
5.69604, 38, -27.0965, -26.4361, 43.2362, -145.973, -77.3515, 42.4807
5.70396, 38, -27.0587, -26.6199, 43.3792, -145.846, -77.2272, 42.5013
5.71538, 38, -27.0004, -26.8927, 43.5924, -145.657, -77.0419, 42.5422
5.72034, 38, -26.9806, -26.9831, 43.663, -145.593, -76.9801, 42.5587
5.72822, 39, -26.9406, -27.1639, 43.8038, -145.467, -76.8571, 42.5961
5.73623, 39, -26.8999, -27.3444, 43.9439, -145.341, -76.734, 42.6397
5.74401, 39, -26.8585, -27.5237, 44.0834, -145.214, -76.611, 42.6886
5.75326, 39, -26.8162, -27.7019, 44.222, -145.088, -76.4882, 42.7431
5.7595, 39, -26.7732, -27.8799, 44.3597, -144.961, -76.3651, 42.8044
5.76807, 39, -26.7295, -28.0575, 44.4962, -144.836, -76.2424, 42.8716
5.77638, 40, -26.7071, -28.1457, 44.6318, -144.71, -76.1196, 42.9447
5.7835, 40, -26.6619, -28.3208, 44.6992, -144.648, -76.0584, 43.0254
5.79291, 40, -26.5922, -28.5812, 44.8993, -144.462, -75.8756, 43.1113
5.79999, 40, -26.5444, -28.7535, 45.031, -144.339, -75.7543, 43.2047
5.80703, 40, -26.5201, -28.839, 45.0964, -144.278, -75.694, 43.2538
5.81715, 41, -26.4456, -29.0927, 45.2903, -144.096, -75.5133, 43.4112
5.82447, 41, -26.4202, -29.2601, 45.4179, -143.976, -75.3937, 43.5246
5.83101, 41, -26.3685, -29.3433, 45.4811, -143.916, -75.3341, 43.5838
5.84069, 41, -26.2886, -29.5907, 45.6688, -143.739, -75.1557, 43.7724
5.8493, 41, -26.2337, -29.753, 45.7916, -143.622, -75.0377, 43.9071
5.85496, 42, -26.2056, -29.8335, 45.8523, -143.564, -74.9787, 43.9772
5.86555, 42, -26.1192, -30.0722, 46.0316, -143.393, -74.8027, 44.1983
5.87104, 42, -26.0895, -30.1509, 46.0902, -143.336, -74.7444, 44.2755
5.88056, 42, -25.9981, -30.3833, 46.263, -143.17, -74.5698, 44.5181
5.88971, 42, -25.935, -30.5351, 46.3755, -143.062, -74.4544, 44.6885
5.89814, 43, -25.8702, -30.6847, 46.4856, -142.956, -74.3392, 44.8666
5.9029, 43, -25.8372, -30.7587, 46.5399, -142.904, -74.2818, 44.9586
5.9152, 43, -25.7356, -30.9774, 46.6997, -142.749, -74.1103, 45.2459
5.92084, 43, -25.7009, -31.0492, 46.752, -142.649, -73.9964, 45.4471
5.92701, 43, -25.6305, -31.1908, 46.8552, -142.599, -73.9398, 45.5505
5.936, 44, -25.5584, -31.3305, 46.9566, -142.501, -73.8267, 45.7632
5.94398, 44, -25.4848, -31.4681, 47.0556, -142.405, -73.7142, 45.9838
5.95204, 44, -25.4092, -31.6037, 47.1523, -142.311, -73.6024, 46.2126
5.95995, 44, -25.332, -31.7369, 47.2465, -142.22, -73.4911, 46.4493
5.96811, 44, -25.253, -31.8673, 47.3384, -142.131, -73.3806, 46.6944
5.97522, 45, -25.1722, -31.9952, 47.4279, -142.045, -73.2709, 46.9474
5.98298, 45, -25.0894, -32.1202, 47.5149, -141.962, -73.1614, 47.2092
5.99218, 45, -25.0045, -32.2424, 47.5994, -141.882, -73.0526, 47.4793
5.99984, 45, -24.9176, -32.3618, 47.6809, -141.804, -72.9442, 47.7576
6.00697, 45, -24.8283, -32.478, 47.7594, -141.729, -72.8361, 48.0441
6.01591, 46, -24.7367, -32.591, 47.8348, -141.657, -72.7289, 48.3393
6.02395, 46, -24.6427, -32.7004, 47.9072, -141.589, -72.622, 48.6431
6.03095, 46, -24.5463, -32.8066, 47.9768, -141.524, -72.5161, 48.9549
6.03998, 46, -24.4475, -32.9093, 48.0432, -141.464, -72.411, 49.275
6.04899, 46, -24.3465, -33.0082, 48.1065, -141.407, -72.3066, 49.6037
6.05618, 47, -24.2431, -33.1034, 48.1662, -141.353, -72.2038, 49.9404
6.06413, 47, -24.1375, -33.1948, 48.2225, -141.304, -72.1018, 50.2851
6.0745, 47, -23.9742, -33.3244, 48.3, -141.237, -71.9509, 50.8182
6.079, 47, -23.9185, -33.3655, 48.324, -141.217, -71.9014, 50.9999
6.09035, 47, -23.7473, -33.4829, 48.3903, -141.165, -71.7539, 51.5583
6.09609, 47, -23.6888, -33.5199, 48.4105, -141.15, -71.7053, 51.749
6.10401, 48, -23.5698, -33.5906, 48.4477, -141.122, -71.6096, 52.1365
6.11201, 48, -23.4482, -33.6568, 48.4808, -141.1, -71.5153, 52.5329
6.11997, 48, -23.3241, -33.7182, 48.5097, -141.082, -71.4225, 52.9392
6.12796, 48, -23.1975, -33.7747, 48.5346, -141.069, -71.3319, 53.3548
6.13602, 48, -23.068, -33.8261, 48.5549, -141.062, -71.243, 53.7792
6.14409, 49, -22.9357, -33.8723, 48.5708, -141.058, -71.156, 54.2122
6.15205, 49, -22.8004, -33.9131, 48.5822, -141.06, -71.071, 54.6526
6.16001, 49, -22.6621, -33.9482, 48.5888, -141.068, -70.9883, 55.101
6.16811, 49, -22.5209, -33.9777, 48.5908, -141.082, -70.9078, 55.5565
6.17596, 49, -22.377, -34.0014, 48.5883, -141.103, -70.8293, 56.0197
6.18402, 50, -22.2302, -34.019, 48.5806, -141.13, -70.7542, 56.49
6.19201, 50, -22.081, -34.0303, 48.5679, -141.162, -70.6813, 56.9673
6.20004, 50, -21.9289, -34.0354, 48.5499, -141.2, -70.612, 57.4529
6.20796, 50, -21.7739, -34.0346, 48.5267, -141.245, -70.5454, 57.9458
6.21636, 50, -21.6157, -34.0274, 48.4978, -141.297, -70.4827, 58.4462
6.22418, 51, -21.4545, -34.0134, 48.4635, -141.353, -70.4235, 58.9527
6.23203, 51, -21.2907, -33.9925, 48.4239, -141.418, -70.3674, 59.4656
6.24409, 51, -21.1241, -33.9646, 48.3786, -141.525, -70.2913, 60.2463
6.24827, 51, -20.955, -33.9296, 48.3278, -141.564, -70.2674, 60.5097
6.25605, 51, -20.7835, -33.8873, 48.2712, -141.646, -70.2229, 61.0401
6.26356, 52, -20.6092, -33.8373, 48.2087, -141.735, -70.1833, 61.5763
6.27235, 52, -20.4324, -33.7794, 48.1403, -141.83, -70.1483, 62.1195
6.28441, 52, -20.1616, -33.6776, 48.0263, -141.984, -70.104, 62.9468
6.2883, 52, -20.1616, -33.6776, 48.0263, -141.984, -70.104, 62.9468
6.2958, 52, -19.9777, -33.5995, 47.8982, -142.153, -70.0711, 63.7872
6.30375, 53, -19.7913, -33.5129, 47.8524, -142.213, -70.056, 64.3551
6.31289, 53, -19.508, -33.3672, 47.7058, -142.401, -70.0464, 64.9285
6.32013, 53, -19.3166, -33.2598, 47.6006, -142.533, -70.042, 65.5057
6.327, 53, -19.2201, -33.2031, 47.5458, -142.602, -70.0416, 65.7956
6.33495, 53, -19.026, -33.0835, 47.4317, -142.742, -70.0446, 66.3782
6.34551, 54, -18.7317, -32.8885, 47.2497, -142.963, -70.0608, 67.2568
6.35715, 54, -18.4332, -32.6748, 47.0546, -143.194, -70.0915, 68.1376
6.36044, 54, -18.3327, -32.5995, 46.9868, -143.273, -70.1052, 68.4319
6.36695, 54, -18.2317, -32.5221, 46.9176, -143.354, -70.1205, 68.7265
6.37715, 54, -17.9269, -32.2774, 46.7015, -143.602, -70.1753, 69.6129
6.38306, 54, -17.8248, -32.1912, 46.6264, -143.687, -70.1969, 69.9091
6.39346, 55, -17.517, -31.919, 46.3917, -143.948, -70.2744, 70.8027
6.39896, 55, -17.4137, -31.8236, 46.3103, -144.038, -70.3038, 71.1029
6.40702, 55, -17.2059, -31.6258, 46.1424, -144.221, -70.3688, 71.7066
6.41494, 55, -16.9965, -31.4177, 45.9668, -144.409, -70.4432, 72.3144
6.42538, 55, -16.679, -31.0854, 45.6897, -144.7, -70.5711, 73.2359
6.43376, 56, -16.5723, -30.9695, 45.594, -144.8, -70.6678, 73.8561
6.43999, 56, -16.358, -30.7297, 45.3971, -145.002, -70.7195, 74.1673
6.44817, 56, -16.1429, -30.4785, 45.1922, -145.209, -70.8302, 74.7918
6.45746, 56, -15.9278, -30.2169, 44.8729, -145.526, -71.0138, 75.7345
6.46295, 56, -15.7128, -29.9448, 44.7633, -145.633, -71.0797, 76.0498
6.47195, 57, -15.4969, -29.6618, 44.5387, -145.85, -71.2189, 76.6804
6.47896, 57, -15.2798, -29.369, 44.3075, -146.069, -71.3674, 77.3125
6.48801, 57, -15.0616, -29.0655, 44.0704, -146.29, -71.5259, 77.9455
6.49778, 57, -14.7344, -28.5939, 43.703, -146.626, -71.7812, 78.8932
6.50311, 57, -14.6255, -28.4324, 43.5783, -146.738, -71.8709, 79.2081
6.51194, 58, -14.4082, -28.1038, 43.3256, -146.962, -72.0564, 79.8359
6.5207, 58, -14.1923, -27.7679, 43.0687, -147.185, -72.2496, 80.4591
6.52695, 58, -13.9779, -27.4242, 42.8092, -147.407, -72.4502, 81.0756
6.53595, 58, -13.7651, -27.0737, 42.5464, -147.627, -72.6576, 81.6854
6.54494, 58, -13.5537, -26.7167, 42.281, -147.845, -72.8717, 82.2888
6.55198, 59, -13.3434, -26.3531, 42.0125, -148.06, -73.0926, 82.8861
6.56097, 59, -13.1348, -25.9823, 41.7401, -148.274, -73.3209, 83.4772
6.57074, 59, -12.8254, -25.4139, 41.3251, -148.591, -73.6785, 84.3567
6.57618, 59, -12.7229, -25.2211, 41.1847, -148.696, -73.8017, 84.6481
6.58391, 59, -12.5185, -24.8304, 40.9014, -148.905, -74.0549, 85.2282
6.5919, 60, -12.3153, -24.4321, 40.6137, -149.112, -74.3169, 85.804
6.60002, 60, -12.1134, -24.0269, 40.3222, -149.316, -74.5872, 86.3765
6.60796, 60, -11.9131, -23.6156, 40.0276, -149.519, -74.866, 86.9453
6.61595, 60, -11.7143, -23.1977, 39.7302, -149.719, -75.1526, 87.5093
6.6241, 60, -11.5174, -22.7742, 39.4313, -149.916, -75.4464, 88.0672
6.63244, 61, -11.3228, -22.3458, 39.1306, -150.109, -75.7469, 88.6196
6.63905, 61, -11.1306, -21.9136, 38.8291, -150.299, -76.0532, 89.1649
6.64877, 61, -10.9405, -21.4776, 38.5264, -150.483, -76.3645, 89.7018
6.65681, 61, -10.7526, -21.0379, 38.2237, -150.663, -76.6806, 90.2296
6.66495, 61, -10.5669, -20.5945, 37.9203, -150.839, -77.0016, 90.7494
6.67269, 61, -10.3835, -20.1469, 37.6167, -151.009, -77.3271, 91.2604
6.68005, 62, -10.2026, -19.6954, 37.3124, -151.175, -77.6578, 91.7641
6.68707, 62, -10.0246, -19.2409, 37.0071, -151.336, -77.994, 92.2596
6.69814, 62, -9.8491, -18.7835, 36.7011, -151.493, -78.3359, 92.7484
6.7041, 62, -9.67619, -18.324, 36.3939, -151.646, -78.6834, 93.2305
6.7113, 62, -9.50551, -17.8628, 36.0869, -151.794, -79.0358, 93.7045
6.71926, 63, -9.33707, -17.4005, 35.7802, -151.937, -79.3922, 94.1699
6.72736, 63, -9.17091, -16.9371, 35.4755, -152.075, -79.7516, 94.6245
6.73534, 63, -9.00735, -16.4717, 35.172, -152.207, -80.1132, 95.0693
6.74346, 63, -8.84645, -16.0046, 34.8708, -152.333, -80.4765, 95.5024
6.75641, 63, -8.60987, -15.3001, 34.4221, -152.512, -81.025, 96.1324
6.76011, 64, -8.53227, -15.0644, 34.2737, -152.569, -81.209, 96.337
6.76754, 64, -8.37894, -14.5925, 33.9774, -152.679, -81.5795, 96.7383
6.7761, 64, -8.22792, -14.12, 33.6812, -152.784, -81.9541, 97.1304
6.78352, 64, -8.15326, -13.8838, 33.5334, -152.885, -82.333, 97.5129
6.79195, 64, -7.93292, -13.1759, 33.0902, -152.98, -82.7157, 97.8848
6.80031, 65, -7.78906, -12.7052, 32.7969, -153.071, -83.1011, 98.2455
6.81014, 65, -7.648, -12.2361, 32.5058, -153.155, -83.4877, 98.5937
6.81603, 65, -7.50999, -11.768, 32.2186, -153.234, -83.8747, 98.9279
6.82601, 65, -7.37503, -11.3006, 31.9354, -153.306, -84.2605, 99.2476
6.83243, 65, -7.24307, -10.8343, 31.6567, -153.373, -84.6453, 99.553
6.83888, 66, -7.17815, -10.6017, 31.519, -153.404, -84.8372, 99.6999
6.84828, 66, -6.98679, -9.90892, 31.111, -153.488, -85.411, 100.118
6.85493, 66, -6.92406, -9.68006, 30.977, -153.514, -85.6023, 100.249
6.86508, 66, -6.73892, -9.00184, 30.5805, -153.581, -86.1744, 100.621
6.87093, 66, -6.67828, -8.77905, 30.45, -153.601, -86.3645, 100.737
6.88084, 67, -6.49983, -8.11927, 30.066, -153.652, -86.9309, 101.059
6.88704, 67, -6.4417, -7.90241, 29.9405, -153.666, -87.1178, 101.157
6.89495, 67, -6.32782, -7.47331, 29.6947, -153.69, -87.4881, 101.341
6.90544, 67, -6.16226, -6.84077, 29.3396, -153.715, -88.0328, 101.584
6.91092, 67, -6.10836, -6.63289, 29.2243, -153.72, -88.2113, 101.656
6.92047, 67, -6.00251, -6.22193, 28.999, -153.727, -88.5643, 101.786
6.92956, 68, -5.89884, -5.81768, 28.7803, -153.73, -89.0856, 101.949
6.93786, 68, -5.74668, -5.22219, 28.4602, -153.726, -89.4292, 102.037
6.9439, 68, -5.69678, -5.02667, 28.3555, -153.723, -89.6003, 102.074
6.95198, 68, -5.59821, -4.63943, 28.1487, -153.712, -89.9418, 102.134
6.96121, 68, -5.45347, -4.0679, 27.8441, -153.688, -90.4523, 102.19
6.96692, 69, -5.40607, -3.87915, 27.7443, -153.677, -90.6222, 102.199
6.9775, 69, -5.26648, -3.31859, 27.4514, -153.64, -91.1312, 102.202
6.98392, 69, -5.22076, -3.13345, 27.3556, -153.625, -91.3006, 102.192
6.99094, 69, -5.13082, -2.76623, 27.1659, -153.592, -91.6388, 102.157
6.99992, 69, -5.04244, -2.40218, 26.9803, -153.555, -91.9756, 102.101
7.0104, 70, -4.91252, -1.86334, 26.7095, -153.493, -92.4782, 101.975
7.01492, 70, -4.86986, -1.68587, 26.6208, -153.471, -92.645, 101.922
7.02392, 70, -4.78539, -1.33533, 26.4463, -153.423, -92.9772, 101.799
7.03099, 70, -4.70192, -0.989909, 26.2765, -153.373, -93.3074, 101.654
7.03999, 70, -4.61959, -0.650163, 26.1107, -153.318, -93.635, 101.487
7.04964, 71, -4.53827, -0.31697, 25.9486, -153.261, -93.9593, 101.299
7.05621, 71, -4.45804, 0.00952617, 25.7913, -153.202, -94.2807, 101.09
7.06313, 71, -4.37882, 0.3291, 25.6397, -153.139, -94.598, 100.861
7.07193, 71, -4.30032, 0.642841, 25.4931, -153.075, -94.9115, 100.611
7.08014, 71, -4.22274, 0.949679, 25.3513, -153.008, -95.2211, 100.34
7.08791, 72, -4.14594, 1.24986, 25.2139, -152.94, -95.5269, 100.051
7.09593, 72, -4.06936, 1.54325, 25.0808, -152.87, -95.8293, 99.741
7.10393, 72, -3.99317, 1.82977, 24.9513, -152.799, -96.1288, 99.4105
7.11199, 72, -3.9171, 2.11048, 24.8252, -152.726, -96.4258, 99.0597
7.11992, 72, -3.84099, 2.38498, 24.702, -152.654, -96.7203, 98.6878
7.12802, 73, -3.76506, 2.65336, 24.582, -152.58, -97.0125, 98.2938
7.13554, 73, -3.68915, 2.91608, 24.465, -152.507, -97.3023, 97.8777
7.14303, 73, -3.61293, 3.17226, 24.3515, -152.433, -97.5895, 97.4389
7.15472, 73, -3.49808, 3.54467, 24.1882, -152.324, -98.0149, 96.7396
7.15928, 73, -3.45958, 3.66563, 24.1357, -152.287, -98.155, 96.496
7.16799, 74, -3.3822, 3.90154, 24.0337, -152.216, -98.4326, 95.9931
7.17594, 74, -3.30411, 4.12918, 23.9356, -152.145, -98.7054, 95.4722
7.18392, 74, -3.2254, 4.34849, 23.8414, -152.077, -98.9728, 94.9348
7.19183, 74, -3.14598, 4.55848, 23.7515, -152.01, -99.2343, 94.384
7.19998, 74, -3.06601, 4.75861, 23.6658, -151.946, -99.4888, 93.821
7.20808, 75, -2.9852, 4.94918, 23.5846, -151.883, -99.7356, 93.2476
7.21606, 75, -2.9035, 5.12997, 23.5077, -151.824, -99.9738, 92.6656
7.22392, 75, -2.82077, 5.29987, 23.4349, -151.768, -100.203, 92.0769
7.23225, 75, -2.73708, 5.45885, 23.3659, -151.714, -100.423, 91.4809
7.24075, 75, -2.65246, 5.60716, 23.301, -151.664, -100.633, 90.8786
7.2481, 75, -2.56699, 5.74434, 23.2403, -151.617, -100.834, 90.2696
7.2563, 76, -2.48048, 5.87009, 23.1838, -151.573, -101.026, 89.6535
7.26351, 76, -2.39305, 5.98428, 23.1317, -151.534, -101.209, 89.0282
7.27209, 76, -2.30488, 6.08642, 23.0838, -151.499, -101.382, 88.394
7.28197, 76, -2.21591, 6.17617, 23.0403, -151.467, -101.546, 87.7528
7.28818, 76, -2.12608, 6.25319, 23.0018, -151.439, -101.699, 87.105
7.29616, 77, -2.03537, 6.31719, 22.9683, -151.415, -101.84, 86.4532
7.30291, 77, -1.98967, 6.34429, 22.9535, -151.405, -101.905, 86.1272
7.31394, 77, -1.85126, 6.40509, 22.9179, -151.38, -102.082, 85.1525
7.321, 77, -1.75794, 6.42803, 22.9013, -151.368, -102.182, 84.5058
7.32809, 77, -1.66376, 6.43682, 22.8906, -151.36, -102.267, 83.8634
7.33505, 78, -1.61636, 6.43576, 22.8875, -151.358, -102.303, 83.5442
7.3429, 78, -1.52106, 6.42218, 22.8851, -151.354, -102.364, 82.9085
7.35224, 78, -1.37706, 6.37309, 22.8922, -151.355, -102.428, 81.9614
7.35907, 78, -1.32885, 6.34888, 22.8976, -151.356, -102.441, 81.6481
7.36827, 78, -1.23224, 6.25205, 22.9232, -151.367, -102.458, 80.716
7.37497, 79, -1.13547, 6.21169, 22.9351, -151.373, -102.455, 80.408
7.38451, 79, -0.990068, 6.06642, 22.9814, -151.393, -102.42, 79.4949
7.3925, 79, -0.89307, 5.94941, 23.0215, -151.411, -102.374, 78.8976
7.40049, 79, -0.796146, 5.81609, 23.069, -151.431, -102.311, 78.3095
7.40855, 79, -0.747677, 5.66611, 23.1242, -151.454, -102.23, 77.7311
7.41647, 80, -0.650666, 5.58497, 23.1546, -151.467, -102.131, 77.1634
7.42391, 80, -0.553515, 5.41017, 23.2211, -151.493, -102.075, 76.8837
7.43444, 80, -0.407892, 5.11709, 23.3356, -151.535, -101.878, 76.0597
7.44082, 80, -0.35945, 5.011, 23.3778, -151.565, -101.723, 75.5223
7.44937, 80, -0.214249, 4.6654, 23.5169, -151.597, -101.549, 74.9941
7.45611, 81, -0.16595, 4.54116, 23.5676, -151.614, -101.455, 74.7339
7.4641, 81, -0.0693767, 4.28017, 23.6756, -151.647, -101.252, 74.2208
7.4719, 81, 0.0269497, 4.00241, 23.7926, -151.682, -101.031, 73.716
7.4799, 81, 0.123154, 3.7077, 23.9191, -151.717, -100.79, 73.2207
7.48808, 81, 0.219152, 3.3963, 24.0552, -151.755, -100.529, 72.7349
7.49526, 81, 0.31489, 3.06725, 24.2013, -151.792, -100.25, 72.259
7.50292, 82, 0.410433, 2.72169, 24.3571, -151.829, -99.9515, 71.7924
7.51192, 82, 0.505665, 2.35961, 24.5221, -151.866, -99.6336, 71.3355
7.52, 82, 0.600651, 1.98197, 24.6965, -151.904, -99.2974, 70.8881
7.52694, 82, 0.695484, 1.5877, 24.8807, -151.941, -98.9436, 70.4505
7.53607, 82, 0.790224, 1.17707, 25.0741, -151.977, -98.5722, 70.0235
7.54487, 83, 0.884962, 0.751216, 25.2766, -152.013, -98.1846, 69.6065
7.5509, 83, 0.97966, 0.310757, 25.4895, -152.048, -97.7806, 69.1998
7.5664, 83, 1.16927, -0.61358, 25.9432, -152.113, -96.9267, 68.4176
7.56834, 83, 1.16927, -0.61358, 25.9432, -152.113, -96.9267, 68.4176
7.57642, 83, 1.2642, -1.09721, 26.1839, -152.144, -96.4769, 68.0412
7.58292, 84, 1.35936, -1.59466, 26.4346, -152.173, -96.0117, 67.6743
7.59191, 84, 1.45481, -2.10563, 26.695, -152.202, -95.5316, 67.3151
7.5999, 84, 1.55042, -2.62991, 26.9662, -152.228, -95.036, 66.9635
7.60793, 84, 1.64647, -3.16767, 27.2472, -152.253, -94.5246, 66.6192
7.61929, 84, 1.79128, -3.99947, 27.689, -152.287, -93.7299, 66.1153
7.62404, 85, 1.83968, -4.28323, 27.8411, -152.298, -93.4574, 65.951
7.63192, 85, 1.9367, -4.85966, 28.1532, -152.318, -92.9011, 65.6284
7.63991, 85, 2.03411, -5.44674, 28.4748, -152.336, -92.3309, 65.3135
7.64809, 85, 2.1318, -6.04366, 28.8057, -152.351, -91.7503, 65.0067
7.65946, 85, 2.2795, -6.95443, 29.3183, -152.369, -90.8596, 64.5632
7.66302, 86, 2.32907, -7.26187, 29.4934, -152.374, -90.5577, 64.4202
7.67482, 86, 2.47908, -8.1937, 30.0288, -152.383, -89.6386, 64.0067
7.6793, 86, 2.52963, -8.5073, 30.2107, -152.385, -89.3279, 63.8742
7.68794, 86, 2.63133, -9.13914, 30.5785, -152.387, -88.7019, 63.6177
7.6959, 86, 2.7338, -9.77564, 30.952, -152.386, -88.0725, 63.3728
7.70392, 87, 2.83755, -10.4162, 31.3307, -152.382, -87.438, 63.1394
7.71196, 87, 2.94196, -11.06, 31.7146, -152.374, -86.7977, 62.9179
7.7199, 87, 3.04728, -11.7064, 32.103, -152.362, -86.1526, 62.7088
7.72815, 87, 3.15365, -12.3551, 32.4955, -152.346, -85.5028, 62.5121
7.7353, 87, 3.26065, -13.006, 32.8931, -152.326, -84.8497, 62.3284
7.74337, 87, 3.36845, -13.6595, 33.2957, -152.303, -84.192, 62.1575
7.75213, 88, 3.47692, -14.3155, 33.703, -152.275, -83.5294, 62
7.75949, 88, 3.58591, -14.9738, 34.1154, -152.245, -82.8619, 61.8557
7.76831, 88, 3.69554, -15.6332, 34.5324, -152.209, -82.1894, 61.7254
7.776, 88, 3.80559, -16.2931, 34.954, -152.168, -81.514, 61.6102
7.78349, 88, 3.86076, -16.623, 35.3798, -152.123, -80.8357, 61.5101
7.79248, 89, 4.02666, -17.6109, 35.8087, -152.073, -80.1553, 61.4277
7.80528, 89, 4.19301, -18.5932, 36.4554, -151.988, -79.1313, 61.3373
7.80888, 89, 4.24855, -18.9191, 36.6718, -151.957, -78.7888, 61.3166
7.81562, 89, 4.30415, -19.244, 36.8882, -151.925, -78.4467, 61.3009
7.82297, 89, 4.41535, -19.89, 37.3202, -151.855, -77.7662, 61.2842
7.83293, 90, 4.58258, -20.8489, 37.9654, -151.743, -76.752, 61.2988
7.84007, 90, 4.69481, -21.4817, 38.394, -151.66, -76.0788, 61.3386
7.84692, 90, 4.75092, -21.7961, 38.6077, -151.617, -75.7438, 61.3673
7.85678, 90, 4.91941, -22.7318, 39.2458, -151.479, -74.7456, 61.4902
7.86501, 90, 5.0316, -23.35, 39.6697, -151.38, -74.0858, 61.6049
7.87308, 91, 5.14363, -23.9639, 40.0927, -151.274, -73.4271, 61.7463
7.8789, 91, 5.19951, -24.2688, 40.3039, -151.219, -73.0978, 61.8277
7.88842, 91, 5.3662, -25.1749, 40.938, -151.043, -72.109, 62.1149
7.89647, 91, 5.47623, -25.7717, 41.36, -150.917, -71.4482, 62.3435
7.9096, 92, 5.64006, -26.6534, 41.9913, -150.716, -70.4592, 62.7443
7.9125, 92, 5.64006, -26.6534, 42.2012, -150.646, -70.1301, 62.8937
7.92069, 92, 5.74929, -27.232, 42.4102, -150.575, -69.8016, 63.0509
7.92789, 92, 5.85911, -27.8027, 42.8254, -150.428, -69.1466, 63.3886
7.93594, 92, 5.96948, -28.3647, 43.2351, -150.276, -68.4951, 63.7575
7.9439, 92, 6.08068, -28.9168, 43.6394, -150.12, -67.8478, 64.1581
7.95209, 93, 6.19319, -29.458, 44.0374, -149.961, -67.2073, 64.5896
7.96419, 93, 6.36504, -30.2501, 44.622, -149.718, -66.2564, 65.2972
7.96787, 93, 6.42337, -30.5088, 44.8139, -149.637, -65.9414, 65.5487
7.97595, 93, 6.54174, -31.02, 45.1934, -149.472, -65.3135, 66.0772
7.9839, 93, 6.66221, -31.5246, 45.5681, -149.307, -64.6874, 66.6411
7.99189, 93, 6.78502, -32.0234, 45.9386, -149.142, -64.0617, 67.2447
7.99996, 94, 6.91007, -32.5175, 46.3063, -148.975, -63.433, 67.8921
8.00794, 94, 7.03738, -33.0067, 46.6718, -148.808, -62.7979, 68.5898
8.0159, 94, 7.16664, -33.4887, 47.0359, -148.642, -62.1566, 69.3408
8.02394, 94, 7.29836, -33.9634, 47.3974, -148.477, -61.5089, 70.1434
8.03091, 94, 7.43366, -34.4305, 47.7541, -148.317, -60.8563, 70.9996
8.03992, 95, 7.57343, -34.888, 48.1034, -148.164, -60.205, 71.9078
8.04889, 95, 7.7188, -35.3351, 48.4428, -148.022, -59.5575, 72.8575
8.05588, 95, 7.87034, -35.7701, 48.7707, -147.893, -58.9164, 73.849
8.06492, 95, 8.02851, -36.1899, 49.0847, -147.78, -58.2834, 74.8753
8.07189, 95, 8.19361, -36.5898, 49.3829, -147.684, -57.6596, 75.9355
8.0799, 96, 8.36562, -36.9695, 49.6651, -147.607, -57.0486, 77.0272
8.08796, 96, 8.54405, -37.3268, 49.9302, -147.55, -56.4522, 78.1488
8.09589, 96, 8.72789, -37.6603, 50.1785, -147.515, -55.8701, 79.2948
8.1039, 96, 8.91666, -37.9681, 50.4084, -147.498, -55.3042, 80.4613
8.11274, 96, 9.10955, -38.2506, 50.6187, -147.503, -54.7571, 81.64
8.11892, 96, 9.30486, -38.5081, 50.8098, -147.529, -54.2316, 82.8302
8.12723, 97, 9.50108, -38.74, 50.9808, -147.577, -53.7301, 84.027
8.13501, 97, 9.69709, -38.9469, 51.1311, -147.646, -53.2541, 85.2242
8.14389, 97, 9.89196, -39.1295, 51.2616, -147.733, -52.8065, 86.4105
8.15189, 97, 10.0849, -39.2865, 51.3724, -147.837, -52.388, 87.5804
8.16112, 97, 10.2746, -39.4178, 51.4638, -147.954, -52.0001, 88.7262
8.16796, 97, 10.4605, -39.5239, 51.5366, -148.083, -51.643, 89.8424
8.17596, 98, 10.6433, -39.6052, 51.5913, -148.221, -51.3165, 90.9228
8.18389, 98, 10.8241, -39.6632, 51.6283, -148.37, -51.0193, 91.9743
8.19188, 98, 11.0034, -39.6984, 51.6479, -148.529, -50.7481, 93.0065
8.19997, 98, 11.1808, -39.7103, 51.6506, -148.699, -50.4995, 94.0371
8.2079, 98, 11.3562, -39.6989, 51.6365, -148.882, -50.2705, 95.0751
8.21591, 98, 11.5316, -39.6637, 51.6048, -149.079, -50.0601, 96.1333
8.22397, 98, 11.7071, -39.6048, 51.5554, -149.289, -49.8693, 97.2121
8.23131, 99, 11.8816, -39.5232, 51.4879, -149.512, -49.7002, 98.3112
8.2393, 99, 12.054, -39.4189, 51.4018, -149.745, -49.5557, 99.421
8.24736, 99, 12.2232, -39.292, 51.2974, -149.985, -49.4393, 100.532
8.25597, 99, 12.3879, -39.1429, 51.1752, -150.228, -49.3536, 101.631
8.26437, 99, 12.5462, -38.9717, 51.0363, -150.472, -49.2984, 102.71
8.27144, 99, 12.6965, -38.7775, 50.8818, -150.713, -49.2745, 103.759
8.28, 100, 12.8381, -38.5588, 50.7114, -150.951, -49.2821, 104.779
8.28806, 100, 12.9707, -38.3167, 50.5238, -151.183, -49.322, 105.77
8.29589, 100, 13.0944, -38.0522, 50.3196, -151.409, -49.3925, 106.735
8.30391, 100, 13.21, -37.7664, 50.0986, -151.629, -49.4949, 107.677
8.31199, 100, 13.3173, -37.4592, 49.8591, -151.843, -49.628, 108.594
8.32086, 100, 13.4165, -37.128, 49.6023, -152.05, -49.7915, 109.493
8.32799, 101, 13.5075, -36.7725, 49.3289, -152.249, -49.985, 110.366
8.33608, 101, 13.5908, -36.3908, 49.038, -152.439, -50.2082, 111.218
8.34293, 101, 13.6295, -36.1902, 48.8863, -152.53, -50.3309, 111.636
8.35227, 101, 13.7331, -35.5513, 48.4034, -152.79, -50.7452, 112.852
8.36676, 101, 13.8179, -34.8598, 47.88, -153.027, -51.2312, 114.022
8.36916, 102, 13.8419, -34.6178, 47.6968, -153.101, -51.4098, 114.4
8.37496, 102, 13.8636, -34.37, 47.5092, -153.171, -51.5968, 114.773
8.38446, 102, 13.9143, -33.5904, 46.9207, -153.363, -52.2068, 115.857
8.39246, 102, 13.9365, -33.0408, 46.5082, -153.475, -52.6544, 116.548
8.40051, 102, 13.9499, -32.4691, 46.0817, -153.573, -53.1332, 117.213
8.40851, 102, 13.9552, -31.8754, 45.6413, -153.657, -53.6405, 117.853
8.41649, 103, 13.9551, -31.5705, 45.4157, -153.727, -54.174, 118.465
8.42447, 103, 13.9495, -30.9468, 44.9553, -153.757, -54.4499, 118.761
8.43193, 103, 13.9372, -30.306, 44.4837, -153.807, -55.0184, 119.333
8.43989, 103, 13.919, -29.6501, 44.0018, -153.843, -55.6064, 119.88
8.44789, 103, 13.8952, -28.9798, 43.5118, -153.868, -56.2127, 120.401
8.45669, 104, 13.8666, -28.2971, 43.0153, -153.881, -56.8345, 120.896
8.46388, 104, 13.8335, -27.6044, 42.5138, -153.885, -57.469, 121.365
8.4719, 104, 13.7966, -26.9029, 42.0087, -153.877, -58.1166, 121.811
8.47994, 104, 13.7558, -26.1944, 41.5008, -153.86, -58.778, 122.235
8.48787, 104, 13.7122, -25.4807, 40.9915, -153.835, -59.451, 122.64
8.49599, 104, 13.6667, -24.7639, 40.4815, -153.801, -60.134, 123.029
8.50399, 104, 13.6195, -24.0447, 39.971, -153.76, -60.8234, 123.404
8.51188, 104, 13.5706, -23.3234, 39.4612, -153.713, -61.5183, 123.769
8.51887, 104, 13.5204, -22.601, 38.9524, -153.661, -62.2183, 124.127
8.52788, 104, 13.4695, -21.8781, 38.4451, -153.603, -62.9206, 124.481
8.53588, 104, 13.418, -21.1547, 37.9392, -153.542, -63.6248, 124.832
8.54287, 104, 13.3661, -20.4317, 37.4345, -153.476, -64.329, 125.182
8.55189, 104, 13.314, -19.7085, 36.9318, -153.405, -65.0341, 125.53
8.56091, 104, 13.2616, -18.9851, 36.4311, -153.331, -65.741, 125.876
8.56694, 104, 13.2092, -18.2615, 35.932, -153.253, -66.4487, 126.222
8.57586, 104, 13.1571, -17.5375, 35.4355, -153.171, -67.1575, 126.567
8.58387, 104, 13.1052, -16.8131, 34.9415, -153.084, -67.8656, 126.911
8.59194, 104, 13.0536, -16.0889, 34.4493, -152.994, -68.5737, 127.256
8.59988, 104, 13.0025, -15.3645, 33.9592, -152.9, -69.2841, 127.6
8.6079, 104, 12.9515, -14.6394, 33.4713, -152.802, -69.9956, 127.943
8.61595, 104, 12.9009, -13.9139, 32.986, -152.701, -70.7068, 128.287
8.62389, 104, 12.8507, -13.1887, 32.5035, -152.595, -71.417, 128.631
8.63188, 104, 12.8009, -12.463, 32.0235, -152.486, -72.1288, 128.975
8.63997, 104, 12.7512, -11.7376, 31.5462, -152.373, -72.8419, 129.32
8.64787, 104, 12.7021, -11.0123, 31.0712, -152.255, -73.5548, 129.665
8.65587, 104, 12.6534, -10.287, 30.5989, -152.134, -74.268, 130.011
8.66395, 104, 12.6048, -9.56169, 30.1301, -152.009, -74.981, 130.357
8.67193, 104, 12.5567, -8.83603, 29.664, -151.88, -75.6951, 130.705
8.67988, 104, 12.5091, -8.10957, 29.201, -151.747, -76.4099, 131.053
8.68795, 104, 12.462, -7.38371, 28.7414, -151.609, -77.1254, 131.403
8.69588, 104, 12.4155, -6.65831, 28.2852, -151.468, -77.8414, 131.754
8.70387, 104, 12.3696, -5.93336, 27.8319, -151.322, -78.5558, 132.106
8.71195, 104, 12.3241, -5.20921, 27.3825, -151.172, -79.27, 132.459
8.7199, 104, 12.2795, -4.48593, 26.9373, -151.018, -79.9858, 132.813
8.72787, 104, 12.2358, -3.76424, 26.4963, -150.86, -80.7017, 133.169
8.73622, 104, 12.1932, -3.04676, 26.0608, -150.698, -81.4146, 133.525
8.74338, 104, 12.1518, -2.33494, 25.6305, -150.532, -82.1234, 133.882
8.75191, 104, 12.1117, -1.62989, 25.2067, -150.363, -82.8293, 134.238
8.76003, 104, 12.0726, -0.932698, 24.7913, -150.191, -83.5292, 134.593
8.76826, 104, 12.0345, -0.245006, 24.3848, -150.017, -84.2199, 134.945
8.77544, 104, 11.9974, 0.432022, 23.9889, -149.842, -84.8988, 135.294
8.78403, 104, 11.9613, 1.09726, 23.6052, -149.666, -85.5634, 135.637
8.792, 104, 11.9263, 1.74965, 23.2336, -149.49, -86.2141, 135.976
8.80033, 104, 11.8926, 2.38808, 22.8749, -149.314, -86.8501, 136.308
8.80686, 104, 11.8761, 2.70121, 22.6999, -149.226, -87.1618, 136.472
8.81592, 104, 11.8283, 3.61617, 22.1949, -148.964, -88.0731, 136.952
8.82292, 104, 11.8131, 3.91292, 22.0331, -148.878, -88.3686, 137.109
8.83205, 104, 11.7692, 4.77766, 21.5665, -148.619, -89.2278, 137.57
8.83892, 104, 11.7553, 5.05755, 21.417, -148.534, -89.5059, 137.72
8.84811, 104, 11.7153, 5.87119, 20.9859, -148.281, -90.3175, 138.159
8.85486, 104, 11.7024, 6.13402, 20.8484, -148.198, -90.5797, 138.302
8.86423, 104, 11.6659, 6.89735, 20.4524, -147.951, -91.342, 138.72
8.87095, 104, 11.6543, 7.14329, 20.3263, -147.87, -91.5877, 138.855
8.88118, 104, 11.6211, 7.85591, 19.9649, -147.631, -92.2986, 139.25
8.88691, 104, 11.6106, 8.08519, 19.8497, -147.553, -92.5273, 139.378
8.8971, 104, 11.581, 8.7477, 19.5212, -147.324, -93.1886, 139.751
8.90443, 104, 11.5626, 9.16741, 19.3154, -147.176, -93.6086, 139.989
8.91246, 104, 11.5453, 9.57015, 19.1195, -147.032, -94.0115, 140.218
8.9211, 104, 11.5371, 9.76475, 18.9346, -146.892, -94.3974, 140.439
8.92838, 104, 11.5215, 10.1405, 18.8462, -146.823, -94.5834, 140.546
8.93589, 104, 11.5069, 10.4972, 18.677, -146.69, -94.9419, 140.753
8.94391, 104, 11.4933, 10.8348, 18.518, -146.563, -95.2816, 140.95
8.95186, 104, 11.4808, 11.1529, 18.3701, -146.442, -95.6015, 141.137
8.95988, 104, 11.4693, 11.4504, 18.2329, -146.327, -95.901, 141.312
8.96789, 104, 11.4588, 11.7273, 18.1062, -146.219, -96.1797, 141.476
8.9759, 104, 11.4494, 11.9829, 17.9901, -146.119, -96.4369, 141.627
8.98388, 104, 11.4406, 12.2173, 17.8846, -146.026, -96.6724, 141.767
8.99087, 104, 11.4325, 12.4307, 17.7896, -145.941, -96.8859, 141.894
8.99986, 104, 11.4253, 12.6231, 17.7049, -145.865, -97.0774, 142.008
9.00795, 104, 11.4189, 12.7942, 17.6305, -145.797, -97.2467, 142.109
9.01591, 104, 11.4131, 12.9447, 17.566, -145.738, -97.3944, 142.197
9.02386, 104, 11.4078, 13.0757, 17.5111, -145.686, -97.5201, 142.273
9.03187, 104, 11.403, 13.1878, 17.4655, -145.644, -97.625, 142.335
9.0399, 104, 11.3986, 13.2818, 17.4283, -145.61, -97.7101, 142.386
9.04786, 104, 11.3947, 13.3593, 17.3988, -145.582, -97.7773, 142.427
9.05597, 104, 11.391, 13.4224, 17.3767, -145.561, -97.8276, 142.457
9.0639, 104, 11.3878, 13.4727, 17.3605, -145.545, -97.8643, 142.48
9.07294, 104, 11.3852, 13.5116, 17.3491, -145.534, -97.8901, 142.495
9.07988, 104, 11.383, 13.5406, 17.3418, -145.527, -97.9073, 142.505
9.08791, 104, 11.3813, 13.5622, 17.3372, -145.523, -97.9179, 142.51
9.09587, 104, 11.3799, 13.5775, 17.3344, -145.521, -97.9238, 142.513
9.10388, 104, 11.3789, 13.5879, 17.333, -145.519, -97.9269, 142.515
9.11187, 105, 11.3782, 13.595, 17.3323, -145.519, -97.9283, 142.515
9.11986, 105, 11.3776, 13.5996, 17.332, -145.518, -97.929, 142.516
9.12788, 105, 11.3772, 13.6027, 17.3318, -145.518, -97.9293, 142.516
9.13591, 105, 11.3769, 13.605, 17.3317, -145.518, -97.9294, 142.516
9.14388, 105, 11.3767, 13.6069, 17.3317, -145.518, -97.9294, 142.516
9.15187, 105, 11.3765, 13.6086, 17.3317, -145.518, -97.9294, 142.516
9.1599, 105, 11.3764, 13.6101, 17.3317, -145.518, -97.9294, 142.516
9.16783, 105, 11.3762, 13.6114, 17.3317, -145.518, -97.9294, 142.516
9.17596, 105, 11.3761, 13.6125, 17.3317, -145.518, -97.9293, 142.516
9.1839, 105, 11.3761, 13.6134, 17.3317, -145.518, -97.9292, 142.516
9.19185, 105, 11.376, 13.6141, 17.3317, -145.518, -97.9291, 142.516
9.19989, 105, 11.376, 13.6146, 17.3318, -145.518, -97.929, 142.516
9.2079, 105, 11.376, 13.615, 17.3318, -145.518, -97.9289, 142.516
9.21587, 105, 11.376, 13.6153, 17.3318, -145.518, -97.9288, 142.516
9.2239, 105, 11.376, 13.6154, 17.3319, -145.518, -97.9286, 142.516
