hehonglu123/Motion-Primitive-Planning/ILC/recorded_data/realrobot/wood/iteration_9/run_3.csv
timestamp, cmd_num, J1, J2, J3, J4, J5, J6
0.000373, -1, 11.3757, 13.6141, 17.3366, -145.52, -97.9256, 142.516
0.002243, -1, 11.3757, 13.6141, 17.3366, -145.52, -97.9256, 142.516
0.008106, -1, 11.3757, 13.6141, 17.3366, -145.52, -97.9257, 142.516
0.029786, -1, 11.3757, 13.6141, 17.3366, -145.521, -97.9257, 142.516
0.031895, -1, 11.3757, 13.6141, 17.3366, -145.521, -97.9257, 142.516
0.033137, -1, 11.3757, 13.6141, 17.3366, -145.521, -97.9257, 142.516
0.039776, -1, 11.3757, 13.6141, 17.3366, -145.521, -97.9257, 142.516
0.047778, -1, 11.3755, 13.6141, 17.3366, -145.521, -97.9257, 142.516
0.185762, -1, 10.1916, 13.3006, 17.4135, -145.891, -97.7994, 140.374
0.186958, -1, 10.1916, 13.3006, 17.4135, -145.891, -97.7994, 140.374
0.188856, -1, 10.1164, 13.2803, 17.4185, -145.914, -97.7911, 140.235
0.190214, -1, 10.1164, 13.2803, 17.4185, -145.914, -97.7911, 140.235
0.191556, -1, 10.1164, 13.2803, 17.4185, -145.914, -97.7911, 140.235
0.193596, -1, 10.0405, 13.2598, 17.4235, -145.938, -97.7826, 140.096
0.194798, -1, 10.0405, 13.2598, 17.4235, -145.938, -97.7826, 140.096
0.201124, -1, 9.8868, 13.2186, 17.4336, -145.986, -97.7655, 139.818
0.202423, -1, 9.8868, 13.2186, 17.4336, -145.986, -97.7655, 139.818
0.203755, -1, 9.8868, 13.2186, 17.4336, -145.986, -97.7655, 139.818
0.205853, -1, 9.80925, 13.1979, 17.4386, -146.01, -97.7568, 139.678
0.207064, -1, 9.80925, 13.1979, 17.4386, -146.01, -97.7568, 139.678
0.208913, -1, 9.73148, 13.1772, 17.4437, -146.034, -97.7482, 139.538
0.210269, -1, 9.73148, 13.1772, 17.4437, -146.034, -97.7482, 139.538
0.211635, -1, 9.73148, 13.1772, 17.4437, -146.034, -97.7482, 139.538
0.213825, -1, 9.65368, 13.1565, 17.4487, -146.058, -97.7396, 139.398
0.215107, -1, 9.65368, 13.1565, 17.4487, -146.058, -97.7396, 139.398
0.217013, -1, 9.57598, 13.1358, 17.4537, -146.082, -97.7311, 139.259
0.218521, -1, 9.57598, 13.1358, 17.4537, -146.082, -97.7311, 139.259
0.219717, -1, 9.57598, 13.1358, 17.4537, -146.082, -97.7311, 139.259
0.223084, -1, 9.49843, 13.1152, 17.4587, -146.106, -97.7226, 139.119
0.225139, -1, 9.42101, 13.0946, 17.4636, -146.13, -97.7142, 138.979
0.233116, -1, 9.26642, 13.0535, 17.4735, -146.178, -97.6974, 138.7
0.238763, -1, 9.18925, 13.0329, 17.4785, -146.202, -97.689, 138.56
0.247792, -1, 9.03536, 12.9919, 17.4885, -146.25, -97.6723, 138.28
0.255874, -1, 8.88162, 12.9508, 17.4986, -146.298, -97.6555, 138
0.263754, -1, 8.72802, 12.9098, 17.5088, -146.346, -97.6383, 137.721
0.27179, -1, 8.575, 12.8686, 17.5189, -146.393, -97.6209, 137.441
0.279825, -1, 8.42226, 12.8274, 17.529, -146.442, -97.6034, 137.16
0.287794, -1, 8.26929, 12.7861, 17.5392, -146.489, -97.5861, 136.88
0.295819, -1, 8.11585, 12.7445, 17.5493, -146.537, -97.5691, 136.6
0.304759, -1, 7.96194, 12.7029, 17.5595, -146.586, -97.5522, 136.32
0.311824, -1, 7.80742, 12.6612, 17.5696, -146.633, -97.5356, 136.039
0.320768, -1, 7.65258, 12.6195, 17.5798, -146.681, -97.5189, 135.759
0.327869, -1, 7.49762, 12.5779, 17.59, -146.729, -97.5021, 135.479
0.335816, -1, 7.34258, 12.5364, 17.6001, -146.777, -97.485, 135.199
0.34377, -1, 7.18761, 12.4948, 17.6103, -146.825, -97.4676, 134.918
0.351829, -1, 7.03255, 12.4533, 17.6206, -146.874, -97.4503, 134.638
0.359796, -1, 6.8774, 12.412, 17.6309, -146.922, -97.4332, 134.358
0.367767, -1, 6.72245, 12.3707, 17.6413, -146.969, -97.4164, 134.078
0.37588, -1, 6.56779, 12.3294, 17.6517, -147.018, -97.3996, 133.797
0.383762, -1, 6.41334, 12.2882, 17.662, -147.066, -97.3829, 133.517
0.391783, -1, 6.25909, 12.2468, 17.6724, -147.114, -97.366, 133.236
0.399826, -1, 6.10487, 12.2053, 17.6826, -147.162, -97.3489, 132.956
0.407778, -1, 5.95039, 12.1639, 17.6929, -147.21, -97.3314, 132.675
0.416393, -1, 5.79574, 12.1223, 17.7032, -147.258, -97.3138, 132.394
0.423751, -1, 5.64093, 12.0807, 17.7134, -147.306, -97.2964, 132.114
0.43177, -1, 5.48587, 12.039, 17.7237, -147.354, -97.2794, 131.833
0.440553, -1, 5.33067, 11.9974, 17.734, -147.402, -97.2625, 131.552
0.447756, -1, 5.1752, 11.9557, 17.7443, -147.451, -97.2457, 131.271
0.455851, -1, 5.01943, 11.914, 17.7548, -147.499, -97.2289, 130.99
0.464599, -1, 4.86368, 11.8724, 17.7652, -147.547, -97.212, 130.709
0.471842, -1, 4.70797, 11.8308, 17.7756, -147.595, -97.1947, 130.427
0.47976, -1, 4.55218, 11.7893, 17.7861, -147.643, -97.1773, 130.147
0.488582, -1, 4.39656, 11.7478, 17.7965, -147.691, -97.1598, 129.866
0.495849, -1, 4.2411, 11.7064, 17.8069, -147.74, -97.1426, 129.585
0.503888, -1, 4.08598, 11.6649, 17.8173, -147.788, -97.1257, 129.304
0.512692, -1, 3.93133, 11.6235, 17.8276, -147.836, -97.1087, 129.023
0.649829, -1, 1.28487, 10.9146, 18.0043, -148.658, -96.8176, 124.233
0.651057, -1, 1.28487, 10.9146, 18.0043, -148.658, -96.8176, 124.233
0.653082, -1, 1.20701, 10.8938, 18.0095, -148.682, -96.8092, 124.092
0.654345, -1, 1.20701, 10.8938, 18.0095, -148.682, -96.8092, 124.092
0.657023, -1, 1.20701, 10.8938, 18.0095, -148.682, -96.8008, 123.951
0.658315, -1, 1.12926, 10.8729, 18.0147, -148.706, -96.8008, 123.951
0.66122, -1, 1.05163, 10.852, 18.0198, -148.731, -96.7923, 123.81
0.664626, -1, 1.05163, 10.8311, 18.025, -148.755, -96.7838, 123.669
0.66603, -1, 0.97408, 10.8311, 18.025, -148.755, -96.7838, 123.669
0.667223, -1, 0.97408, 10.8311, 18.025, -148.755, -96.7838, 123.669
0.669329, -1, 0.896585, 10.8103, 18.0302, -148.779, -96.7752, 123.527
0.670632, -1, 0.896585, 10.8103, 18.0302, -148.779, -96.7752, 123.527
0.672466, -1, 0.896585, 10.8103, 18.0354, -148.803, -96.7665, 123.386
0.673896, -1, 0.819141, 10.7894, 18.0354, -148.803, -96.7665, 123.386
0.675144, -1, 0.819141, 10.7894, 18.0354, -148.803, -96.7665, 123.386
0.678561, -1, 0.74175, 10.7685, 18.0406, -148.828, -96.7578, 123.245
0.681152, -1, 0.74175, 10.7685, 18.0406, -148.828, -96.7578, 123.245
0.68328, -1, 0.664414, 10.7475, 18.0458, -148.852, -96.749, 123.104
0.685371, -1, 0.587106, 10.7266, 18.051, -148.877, -96.7401, 122.963
0.686724, -1, 0.587106, 10.7266, 18.051, -148.877, -96.7401, 122.963
0.688648, -1, 0.587106, 10.7266, 18.051, -148.877, -96.7313, 122.821
0.690004, -1, 0.50977, 10.7058, 18.0562, -148.901, -96.7313, 122.821
0.697826, -1, 0.35481, 10.664, 18.0666, -148.949, -96.7139, 122.539
0.703797, -1, 0.27721, 10.6431, 18.0718, -148.973, -96.7053, 122.397
0.710758, -1, 0.121704, 10.6012, 18.0823, -149.022, -96.6883, 122.115
0.719747, -1, -0.0342482, 10.5593, 18.0928, -149.07, -96.6716, 121.832
0.727805, -1, -0.190612, 10.5174, 18.1033, -149.118, -96.6548, 121.549
0.734747, -1, -0.347139, 10.4756, 18.1138, -149.167, -96.638, 121.266
0.743767, -1, -0.504141, 10.4337, 18.1242, -149.215, -96.6209, 120.984
0.751805, -1, -0.661395, 10.3919, 18.1346, -149.264, -96.6035, 120.701
0.758796, -1, -0.818825, 10.35, 18.1451, -149.312, -96.586, 120.418
0.767746, -1, -0.976183, 10.3082, 18.1554, -149.361, -96.5687, 120.135
0.775866, -1, -1.13341, 10.2664, 18.1658, -149.409, -96.5517, 119.852
0.782813, -1, -1.29052, 10.2245, 18.1761, -149.458, -96.5348, 119.569
0.791845, -1, -1.44737, 10.1827, 18.1864, -149.507, -96.5181, 119.285
0.799742, -1, -1.60395, 10.1409, 18.1969, -149.555, -96.5013, 119.002
0.806824, -1, -1.7601, 10.099, 18.2075, -149.604, -96.4841, 118.719
0.815853, -1, -1.91583, 10.0571, 18.2179, -149.653, -96.4668, 118.436
0.82478, -1, -2.07116, 10.0152, 18.2283, -149.701, -96.4492, 118.152
0.830816, -1, -2.22628, 9.97333, 18.2387, -149.75, -96.4316, 117.869
0.839799, -1, -2.38148, 9.93145, 18.2491, -149.798, -96.4143, 117.585
0.84774, -1, -2.53705, 9.88945, 18.2596, -149.847, -96.3973, 117.301
0.855797, -1, -2.69288, 9.84753, 18.27, -149.896, -96.3804, 117.017
0.863833, -1, -2.84911, 9.80557, 18.2804, -149.944, -96.3636, 116.734
0.871747, -1, -3.00577, 9.76357, 18.2907, -149.993, -96.3467, 116.45
0.87975, -1, -3.16279, 9.72167, 18.3011, -150.042, -96.3295, 116.167
0.887794, -1, -3.32019, 9.6797, 18.3116, -150.09, -96.312, 115.883
0.895827, -1, -3.47797, 9.63767, 18.322, -150.139, -96.2943, 115.599
0.903744, -1, -3.63569, 9.5958, 18.3325, -150.188, -96.2769, 115.315
0.911818, -1, -3.79358, 9.55392, 18.3429, -150.236, -96.2598, 115.03
0.919779, -1, -3.95158, 9.51185, 18.3532, -150.285, -96.2427, 114.746
0.927742, -1, -4.10945, 9.46994, 18.3637, -150.334, -96.2257, 114.462
0.935851, -1, -4.26723, 9.428, 18.374, -150.383, -96.2087, 114.177
0.94375, -1, -4.42488, 9.38597, 18.3843, -150.431, -96.1915, 113.893
0.951738, -1, -4.58209, 9.34398, 18.3947, -150.48, -96.174, 113.608
0.959842, -1, -4.73886, 9.30192, 18.405, -150.529, -96.1561, 113.323
0.967753, -1, -4.89526, 9.25986, 18.4155, -150.578, -96.1385, 113.039
0.975798, -1, -5.05148, 9.21779, 18.4261, -150.627, -96.1212, 112.754
0.983797, -1, -5.20733, 9.17575, 18.4366, -150.675, -96.1041, 112.469
0.991783, -1, -5.36327, 9.13362, 18.4472, -150.724, -96.0871, 112.184
0.999793, -1, -5.51941, 9.09146, 18.4576, -150.773, -96.0703, 111.899
1.00789, -1, -5.6757, 9.04941, 18.468, -150.822, -96.0532, 111.615
1.01589, -1, -5.83244, 9.00724, 18.4785, -150.871, -96.0359, 111.33
1.02393, -1, -5.98958, 8.96506, 18.4888, -150.92, -96.0184, 111.045
1.03188, -1, -6.14728, 8.92298, 18.4992, -150.968, -96.0007, 110.76
1.03985, -1, -6.30545, 8.88085, 18.5096, -151.017, -95.9833, 110.474
1.04791, -1, -6.46377, 8.83875, 18.5199, -151.067, -95.9662, 110.189
1.05581, -1, -6.62224, 8.79665, 18.5304, -151.115, -95.9491, 109.904
1.06377, -1, -6.78086, 8.7545, 18.5409, -151.164, -95.9321, 109.619
1.07192, -1, -6.93955, 8.7124, 18.5514, -151.214, -95.915, 109.333
1.07984, -1, -7.0981, 8.67032, 18.5619, -151.262, -95.8978, 109.047
1.08805, -1, -7.25651, 8.62816, 18.5723, -151.311, -95.8802, 108.762
1.09476, -1, -7.33564, 8.60706, 18.5775, -151.336, -95.8714, 108.619
1.10415, -1, -7.57258, 8.54361, 18.5932, -151.409, -95.8448, 108.19
1.11075, -1, -7.65134, 8.52245, 18.5984, -151.434, -95.8361, 108.047
1.12028, -1, -7.88715, 8.45905, 18.6141, -151.508, -95.8103, 107.619
1.12824, -1, -8.04401, 8.41672, 18.6245, -151.556, -95.7933, 107.333
1.13474, -1, -8.1223, 8.39554, 18.6296, -151.581, -95.7849, 107.19
1.14433, -1, -8.35716, 8.33205, 18.6454, -151.655, -95.7593, 106.761
1.15233, -1, -8.51395, 8.28965, 18.656, -151.703, -95.7419, 106.476
1.16047, -1, -8.67113, 8.24736, 18.6665, -151.753, -95.7243, 106.189
1.16836, -1, -8.74986, 8.22621, 18.6717, -151.777, -95.7066, 105.903
1.17634, -1, -8.90755, 8.18387, 18.6821, -151.826, -95.6892, 105.616
1.18378, -1, -9.06567, 8.14155, 18.6925, -151.875, -95.6805, 105.473
1.19174, -1, -9.22421, 8.09928, 18.703, -151.925, -95.6634, 105.187
1.19976, -1, -9.38304, 8.05694, 18.7134, -151.974, -95.6463, 104.9
1.20778, -1, -9.54213, 8.01458, 18.7239, -152.023, -95.6291, 104.613
1.21581, -1, -9.70128, 7.97236, 18.7344, -152.073, -95.6118, 104.326
1.22373, -1, -9.86059, 7.93007, 18.7449, -152.121, -95.5943, 104.039
1.23173, -1, -10.02, 7.88765, 18.7556, -152.171, -95.5765, 103.752
1.23973, -1, -10.1791, 7.84523, 18.7662, -152.22, -95.5586, 103.465
1.2478, -1, -10.3382, 7.80272, 18.7768, -152.269, -95.5411, 103.179
1.25582, -1, -10.4972, 7.76018, 18.7873, -152.319, -95.5238, 102.892
1.26372, -1, -10.6558, 7.71771, 18.7977, -152.368, -95.5068, 102.605
1.2718, -1, -10.8139, 7.67516, 18.8083, -152.417, -95.4898, 102.318
1.27973, -1, -10.9718, 7.63255, 18.8188, -152.466, -95.4726, 102.031
1.28773, -1, -11.1294, 7.59004, 18.8291, -152.516, -95.4553, 101.743
1.29725, -1, -11.2868, 7.54756, 18.8397, -152.565, -95.4376, 101.456
1.30374, -1, -11.4442, 7.50506, 18.8501, -152.615, -95.4198, 101.169
1.31273, -1, -11.6018, 7.46259, 18.8607, -152.664, -95.4021, 100.881
1.31979, -1, -11.7596, 7.42019, 18.8713, -152.713, -95.3847, 100.593
1.32773, -1, -11.918, 7.37776, 18.8819, -152.762, -95.3675, 100.305
1.33586, -1, -12.0767, 7.33538, 18.8924, -152.812, -95.3503, 100.018
1.34374, -1, -12.2359, 7.293, 18.9029, -152.861, -95.3331, 99.7298
1.35173, -1, -12.3954, 7.25057, 18.9134, -152.911, -95.3157, 99.4417
1.3598, -1, -12.5553, 7.20816, 18.924, -152.96, -95.2979, 99.1537
1.36776, -1, -12.7152, 7.16573, 18.9346, -153.009, -95.2799, 98.8658
1.37579, -1, -12.8753, 7.12325, 18.9452, -153.059, -95.262, 98.5779
1.38382, -1, -13.0353, 7.08065, 18.9557, -153.108, -95.2444, 98.2896
1.39172, -1, -13.1953, 7.03802, 18.9662, -153.158, -95.2271, 98.0016
1.39973, -1, -13.3551, 6.99542, 18.9768, -153.208, -95.21, 97.7134
1.40796, -1, -13.5147, 6.95269, 18.9874, -153.257, -95.1929, 97.425
1.41581, -1, -13.6738, 6.90991, 18.998, -153.306, -95.1756, 97.1362
1.42375, -1, -13.8329, 6.86721, 19.0085, -153.356, -95.1581, 96.8476
1.43251, -1, -13.9914, 6.82451, 19.019, -153.405, -95.1402, 96.5592
1.43972, -1, -14.1497, 6.78184, 19.0295, -153.454, -95.1224, 96.2704
1.44772, -1, -14.3079, 6.73922, 19.04, -153.504, -95.1049, 95.9813
1.4566, -1, -14.4661, 6.69652, 19.0505, -153.553, -95.0875, 95.6924
1.46377, -1, -14.6245, 6.65392, 19.0611, -153.603, -95.0702, 95.4034
1.4718, -1, -14.7834, 6.6114, 19.0716, -153.653, -95.0531, 95.114
1.48055, -1, -14.9425, 6.5688, 19.0823, -153.702, -95.0358, 94.8247
1.48773, -1, -15.102, 6.52614, 19.0931, -153.752, -95.0183, 94.5357
1.49582, -1, -15.2619, 6.48357, 19.1037, -153.801, -95.0004, 94.2466
1.50471, -1, -15.4222, 6.44094, 19.1144, -153.851, -94.9823, 93.9574
1.51181, -1, -15.5829, 6.39821, 19.125, -153.901, -94.9644, 93.668
1.51982, -1, -15.7436, 6.35552, 19.1355, -153.95, -94.947, 93.3788
1.52892, -1, -15.9042, 6.31271, 19.1462, -154, -94.9297, 93.0894
1.53597, -1, -16.0652, 6.26979, 19.1568, -154.05, -94.9126, 92.7996
1.5439, -1, -16.2261, 6.22695, 19.1674, -154.099, -94.8954, 92.51
1.55233, -1, -16.3866, 6.18394, 19.1779, -154.149, -94.878, 92.2205
1.55877, -1, -16.4669, 6.16244, 19.1831, -154.173, -94.8693, 92.0757
1.56782, -1, -16.7072, 6.09802, 19.199, -154.248, -94.8425, 91.6405
1.57747, -1, -16.8669, 6.05503, 19.2097, -154.298, -94.8247, 91.3503
1.58398, -1, -17.0261, 6.01208, 19.2203, -154.348, -94.8071, 91.0603
1.59197, -1, -17.1854, 5.96913, 19.2309, -154.397, -94.7897, 90.77
1.60151, -1, -17.3444, 5.92624, 19.2415, -154.447, -94.7724, 90.4795
1.608, -1, -17.5036, 5.88346, 19.2522, -154.497, -94.7551, 90.1893
1.61472, -1, -17.5833, 5.86206, 19.2575, -154.522, -94.7464, 90.0443
1.62574, -1, -17.8224, 5.79789, 19.2736, -154.596, -94.7198, 89.6089
1.63249, -1, -17.9822, 5.75511, 19.2842, -154.647, -94.7017, 89.3184
1.64027, -1, -18.1426, 5.71234, 19.2948, -154.696, -94.6837, 89.0279
1.64981, -1, -18.3032, 5.66955, 19.3054, -154.746, -94.666, 88.7372
1.65641, -1, -18.4643, 5.62668, 19.3162, -154.796, -94.6484, 88.4462
1.6643, -1, -18.5451, 5.60522, 19.3268, -154.846, -94.6312, 88.1552
1.67318, -1, -18.7874, 5.54077, 19.3375, -154.896, -94.6139, 87.8645
1.68055, -1, -18.8683, 5.51928, 19.3428, -154.921, -94.5965, 87.5735
1.68772, -1, -19.03, 5.47625, 19.3534, -154.971, -94.5877, 87.4279
1.69578, -1, -19.1915, 5.43311, 19.364, -155.021, -94.5699, 87.1364
1.7038, -1, -19.353, 5.38998, 19.3746, -155.071, -94.5518, 86.8452
1.71171, -1, -19.5143, 5.34684, 19.3852, -155.12, -94.5338, 86.5537
1.71971, -1, -19.6752, 5.3036, 19.3958, -155.17, -94.516, 86.262
1.72671, -1, -19.8359, 5.26045, 19.4065, -155.221, -94.4985, 85.9702
1.73578, -1, -19.9963, 5.21728, 19.4172, -155.27, -94.481, 85.6786
1.74376, -1, -20.1563, 5.17412, 19.428, -155.32, -94.4636, 85.3873
1.75172, -1, -20.3161, 5.13117, 19.4388, -155.371, -94.4461, 85.0954
1.75973, -1, -20.476, 5.08818, 19.4496, -155.421, -94.4283, 84.8035
1.76777, -1, -20.6361, 5.04507, 19.4604, -155.471, -94.4101, 84.5118
1.77579, -1, -20.7964, 5.00213, 19.4711, -155.521, -94.3921, 84.2199
1.78371, -1, -20.9571, 4.95912, 19.4818, -155.571, -94.3744, 83.9278
1.79072, -1, -21.1181, 4.91606, 19.4924, -155.621, -94.3569, 83.6356
1.79975, -1, -21.2797, 4.87299, 19.5031, -155.672, -94.3396, 83.3437
1.80771, -1, -21.4417, 4.82977, 19.5137, -155.722, -94.3224, 83.0516
1.81589, -1, -21.6038, 4.78652, 19.5244, -155.772, -94.305, 82.7589
1.82478, -1, -21.7661, 4.74333, 19.5352, -155.822, -94.2874, 82.4664
1.83172, -1, -21.9285, 4.69995, 19.5459, -155.872, -94.2695, 82.1738
1.84072, -1, -22.091, 4.65654, 19.5567, -155.923, -94.2514, 81.881
1.84871, -1, -22.2535, 4.61319, 19.5674, -155.973, -94.2336, 81.5881
1.85583, -1, -22.4158, 4.56975, 19.578, -156.023, -94.216, 81.2954
1.86371, -1, -22.5779, 4.52632, 19.5888, -156.074, -94.1985, 81.0028
1.87177, -1, -22.7396, 4.48287, 19.5994, -156.123, -94.1811, 80.71
1.87981, -1, -22.9009, 4.43941, 19.6102, -156.173, -94.1636, 80.4168
1.88771, -1, -23.0621, 4.39608, 19.6208, -156.224, -94.1456, 80.1239
1.89578, -1, -23.2231, 4.35278, 19.6315, -156.274, -94.1275, 79.8307
1.90378, -1, -23.3839, 4.30946, 19.6423, -156.325, -94.1092, 79.5372
1.91172, -1, -23.5448, 4.26618, 19.6532, -156.375, -94.0912, 79.2437
1.91972, -1, -23.7059, 4.2229, 19.664, -156.425, -94.0734, 78.9505
1.92786, -1, -23.8671, 4.17961, 19.6748, -156.476, -94.0558, 78.657
1.93576, -1, -24.0285, 4.13627, 19.6854, -156.527, -94.0384, 78.3631
1.94371, -1, -24.1905, 4.09288, 19.6962, -156.577, -94.0209, 78.0692
1.95179, -1, -24.353, 4.0495, 19.7069, -156.627, -94.0033, 77.7753
1.95971, -1, -24.5158, 4.00605, 19.7175, -156.678, -93.9853, 77.4813
1.96781, -1, -24.6789, 3.9625, 19.7282, -156.728, -93.9671, 77.1869
1.97578, -1, -24.8422, 3.91892, 19.7389, -156.778, -93.9491, 76.8929
1.98373, -1, -25.0056, 3.87536, 19.7497, -156.829, -93.9314, 76.599
1.99197, -1, -25.169, 3.83178, 19.7606, -156.879, -93.9138, 76.3048
1.99974, -1, -25.3321, 3.7882, 19.7715, -156.93, -93.8964, 76.0102
2.00779, -1, -25.4952, 3.74459, 19.7823, -156.98, -93.8788, 75.7161
2.01619, -1, -25.6579, 3.70093, 19.793, -157.03, -93.8611, 75.4217
2.02325, -1, -25.8205, 3.65743, 19.8037, -157.081, -93.8429, 75.1269
2.03182, -1, -25.9828, 3.61396, 19.8146, -157.131, -93.8246, 74.8322
2.04044, -1, -26.1447, 3.57042, 19.8253, -157.182, -93.8063, 74.5377
2.04777, -1, -26.3064, 3.52702, 19.8361, -157.233, -93.7883, 74.2431
2.05582, -1, -26.468, 3.48362, 19.8469, -157.283, -93.7705, 73.948
2.06453, -1, -26.6297, 3.4401, 19.8576, -157.333, -93.7529, 73.6529
2.07176, -1, -26.7918, 3.39664, 19.8685, -157.384, -93.7353, 73.3577
2.07978, -1, -26.9543, 3.35311, 19.8793, -157.435, -93.7175, 73.0624
2.08868, -1, -27.117, 3.30947, 19.8902, -157.486, -93.6994, 72.7668
2.09603, -1, -27.28, 3.2659, 19.901, -157.536, -93.6811, 72.4716
2.10274, -1, -27.3617, 3.24406, 19.9063, -157.561, -93.672, 72.324
2.11283, -1, -27.6073, 3.17834, 19.9225, -157.637, -93.6449, 71.8808
2.12018, -1, -27.7712, 3.13471, 19.9332, -157.688, -93.6271, 71.5852
2.12671, -1, -27.8532, 3.11288, 19.9386, -157.713, -93.6182, 71.4374
2.1372, -1, -28.0996, 3.04725, 19.9548, -157.79, -93.5917, 70.9941
2.14427, -1, -28.2639, 3.00356, 19.9655, -157.84, -93.5738, 70.6981
2.15228, -1, -28.428, 2.95979, 19.9764, -157.891, -93.5556, 70.4018
2.16109, -1, -28.5919, 2.91608, 19.9873, -157.942, -93.5371, 70.1061
2.1667, -1, -28.6737, 2.89425, 19.9927, -157.967, -93.5279, 69.9581
2.17623, -1, -28.8372, 2.85056, 20.0035, -158.018, -93.5097, 69.6619
2.1837, -1, -29.0003, 2.80685, 20.0143, -158.069, -93.4918, 69.3653
2.1907, -1, -29.1631, 2.7632, 20.025, -158.12, -93.4741, 69.0688
2.1997, -1, -29.3258, 2.71951, 20.0359, -158.17, -93.4564, 68.7722
2.20774, -1, -29.4885, 2.67581, 20.0467, -158.222, -93.4388, 68.4753
2.21472, -1, -29.6512, 2.63205, 20.0575, -158.272, -93.4208, 68.1784
2.2237, -1, -29.8142, 2.58821, 20.0683, -158.323, -93.4025, 67.8817
2.2317, -1, -29.9773, 2.54446, 20.0792, -158.375, -93.384, 67.585
2.23871, -1, -30.1406, 2.50057, 20.0902, -158.425, -93.3658, 67.288
2.24769, -1, -30.3044, 2.4566, 20.1012, -158.476, -93.3478, 66.9909
2.2557, -1, -30.4688, 2.41268, 20.1121, -158.527, -93.3299, 66.694
2.2627, -1, -30.6336, 2.36864, 20.1229, -158.578, -93.3122, 66.3967
2.27169, -1, -30.7986, 2.32465, 20.1336, -158.629, -93.2944, 66.0993
2.2797, -1, -30.9636, 2.28072, 20.1446, -158.68, -93.2763, 65.8019
2.2867, -1, -31.1287, 2.23667, 20.1554, -158.731, -93.2579, 65.5048
2.2957, -1, -31.2938, 2.19273, 20.1663, -158.782, -93.2394, 65.2074
2.30374, -1, -31.4587, 2.14888, 20.1771, -158.833, -93.2211, 64.9096
2.31273, -1, -31.6233, 2.10487, 20.1879, -158.884, -93.2031, 64.6117
2.31971, -1, -31.7879, 2.0609, 20.1989, -158.936, -93.1854, 64.3139
2.3287, -1, -31.9521, 2.017, 20.2098, -158.987, -93.1678, 64.0158
2.33575, -1, -32.1161, 1.97303, 20.2208, -159.037, -93.1502, 63.7176
2.3437, -1, -32.2797, 1.92905, 20.2318, -159.089, -93.1322, 63.4199
2.3517, -1, -32.4432, 1.88507, 20.2426, -159.14, -93.1141, 63.1218
2.3597, -1, -32.6068, 1.84095, 20.2536, -159.191, -93.0956, 62.8236
2.3677, -1, -32.7707, 1.79688, 20.2645, -159.243, -93.0774, 62.5253
2.37579, -1, -32.9347, 1.75275, 20.2754, -159.294, -93.0593, 62.227
2.38369, -1, -33.0991, 1.70851, 20.2863, -159.345, -93.0415, 61.9285
2.3917, -1, -33.2637, 1.66431, 20.2972, -159.396, -93.0237, 61.6297
2.39976, -1, -33.4287, 1.62011, 20.3081, -159.447, -93.0059, 61.3312
2.40769, -1, -33.5942, 1.57584, 20.3191, -159.499, -92.9878, 61.0327
2.41571, -1, -33.7598, 1.5316, 20.33, -159.55, -92.9693, 60.7338
2.42376, -1, -33.9257, 1.48736, 20.3409, -159.601, -92.9506, 60.4346
2.43171, -1, -34.0916, 1.44317, 20.3518, -159.653, -92.9321, 60.1356
2.4397, -1, -34.2576, 1.39903, 20.3628, -159.704, -92.914, 59.8363
2.44776, -1, -34.4237, 1.35483, 20.3737, -159.755, -92.896, 59.5367
2.45571, -1, -34.5896, 1.31065, 20.3846, -159.807, -92.8782, 59.2372
2.46369, -1, -34.7551, 1.2665, 20.3956, -159.858, -92.8604, 58.9379
2.47179, -1, -34.9202, 1.22229, 20.4065, -159.909, -92.8423, 58.6385
2.47969, -1, -35.0851, 1.17805, 20.4175, -159.961, -92.8239, 58.3388
2.4877, -1, -35.2497, 1.13376, 20.4286, -160.012, -92.8054, 58.0391
2.49579, -1, -35.4141, 1.0895, 20.4397, -160.064, -92.7869, 57.7394
2.50373, -1, -35.5774, 1.04551, 20.4509, -160.115, -92.7687, 57.4395
2.51179, -1, -35.7385, 1.00192, 20.4622, -160.166, -92.7507, 57.14
2.51986, -1, -35.8962, 0.959184, 20.474, -160.217, -92.733, 56.8428
2.5278, -1, -36.0494, 0.917847, 20.4859, -160.267, -92.7153, 56.5502
2.5358, -1, -36.1963, 0.878386, 20.4978, -160.316, -92.698, 56.2654
2.5439, -1, -36.3344, 0.841527, 20.5096, -160.362, -92.6812, 55.9937
2.55177, -1, -36.4621, 0.807716, 20.5207, -160.405, -92.6652, 55.7417
2.5597, -1, -36.5778, 0.777067, 20.5308, -160.443, -92.6509, 55.5153
2.5678, -1, -36.6799, 0.750097, 20.5391, -160.476, -92.6387, 55.3197
2.57573, -1, -36.7673, 0.726929, 20.5453, -160.503, -92.6289, 55.1589
2.5838, -1, -36.8404, 0.707595, 20.5493, -160.525, -92.6212, 55.0329
2.59192, -1, -36.9001, 0.691908, 20.5513, -160.541, -92.6159, 54.9412
2.60008, -1, -36.9468, 0.679548, 20.5521, -160.552, -92.6123, 54.8776
2.60677, -1, -36.9656, 0.674516, 20.5522, -160.556, -92.611, 54.8546
2.61611, -1, -37.0064, 0.663878, 20.5517, -160.564, -92.6088, 54.8126
2.62269, -1, -37.0155, 0.661634, 20.5514, -160.565, -92.6084, 54.8051
2.63215, -1, -37.0318, 0.657657, 20.551, -160.567, -92.6078, 54.7935
2.64031, 2, -37.0361, 0.656569, 20.5508, -160.568, -92.6077, 54.7906
2.64854, 2, -37.0367, 0.656086, 20.5508, -160.568, -92.6076, 54.7893
2.65651, 2, -37.0362, 0.655891, 20.5508, -160.568, -92.6076, 54.7887
2.66431, 2, -37.0357, 0.655801, 20.5507, -160.568, -92.6075, 54.7884
2.67226, 2, -37.0357, 0.655776, 20.5507, -160.568, -92.6075, 54.7883
2.68057, 2, -37.0365, 0.655679, 20.5507, -160.568, -92.6076, 54.7883
2.68774, 2, -37.0371, 0.655657, 20.5506, -160.568, -92.6076, 54.7883
2.69569, 2, -37.0382, 0.655554, 20.5505, -160.568, -92.6076, 54.7884
2.70368, 2, -37.0397, 0.655348, 20.5502, -160.568, -92.6076, 54.7884
2.71177, 2, -37.0411, 0.655082, 20.55, -160.568, -92.6077, 54.7884
2.7197, 2, -37.0422, 0.654835, 20.5499, -160.568, -92.6077, 54.7885
2.72769, 2, -37.0432, 0.654632, 20.5497, -160.568, -92.6078, 54.7886
2.7358, 2, -37.0436, 0.65453, 20.5494, -160.568, -92.6078, 54.7887
2.74368, 2, -37.0437, 0.65448, 20.5492, -160.568, -92.6079, 54.7887
2.75169, 2, -37.0432, 0.65448, 20.5491, -160.568, -92.6079, 54.7889
2.75973, 2, -37.0424, 0.654492, 20.549, -160.568, -92.6079, 54.789
2.76775, 2, -37.0413, 0.654516, 20.549, -160.568, -92.608, 54.7892
2.77569, 2, -37.0398, 0.65457, 20.5489, -160.568, -92.608, 54.7893
2.78375, 2, -37.0383, 0.654631, 20.5488, -160.568, -92.608, 54.7895
2.79168, 2, -37.0373, 0.654665, 20.5487, -160.568, -92.608, 54.7897
2.79968, 2, -37.0367, 0.654664, 20.5487, -160.568, -92.6081, 54.7897
2.80868, 2, -37.0364, 0.654638, 20.5487, -160.568, -92.608, 54.7897
2.81569, 2, -37.0365, 0.654619, 20.5487, -160.568, -92.6081, 54.7898
2.8247, 2, -37.0367, 0.654556, 20.5487, -160.568, -92.6081, 54.7899
2.83174, 2, -37.0369, 0.654503, 20.5486, -160.568, -92.6081, 54.7898
2.83968, 2, -37.0375, 0.654478, 20.5486, -160.568, -92.6081, 54.7899
2.84769, 2, -37.0381, 0.654467, 20.5486, -160.568, -92.6081, 54.7898
2.85576, 2, -37.0389, 0.654443, 20.5486, -160.568, -92.6081, 54.7899
2.86368, 2, -37.0396, 0.654451, 20.5486, -160.568, -92.6081, 54.79
2.87168, 2, -37.0399, 0.654474, 20.5486, -160.568, -92.6081, 54.79
2.87978, 2, -37.0401, 0.654489, 20.5486, -160.568, -92.6081, 54.7901
2.88771, 2, -37.0401, 0.654515, 20.5486, -160.568, -92.6081, 54.7901
2.89569, 2, -37.0401, 0.654508, 20.5485, -160.568, -92.6081, 54.7902
2.90375, 2, -37.0397, 0.654523, 20.5485, -160.568, -92.6082, 54.7902
2.91168, 2, -37.0392, 0.654512, 20.5485, -160.568, -92.6082, 54.7902
2.91968, 2, -37.039, 0.654507, 20.5485, -160.568, -92.6081, 54.7903
2.92778, 2, -37.0388, 0.654505, 20.5485, -160.568, -92.6082, 54.7904
2.93571, 2, -37.0387, 0.654503, 20.5485, -160.568, -92.6081, 54.7904
2.94368, 2, -37.0386, 0.654483, 20.5485, -160.568, -92.6081, 54.7904
2.95175, 2, -37.0386, 0.654469, 20.5485, -160.568, -92.6082, 54.7905
2.95968, 2, -37.0387, 0.654463, 20.5484, -160.568, -92.6082, 54.7905
2.9677, 2, -37.0388, 0.65446, 20.5484, -160.568, -92.6082, 54.7906
2.9758, 2, -37.0388, 0.654471, 20.5484, -160.568, -92.6083, 54.7906
2.98369, 2, -37.039, 0.654483, 20.5484, -160.568, -92.6083, 54.7907
2.99169, 2, -37.0392, 0.654494, 20.5484, -160.568, -92.6083, 54.7908
2.99977, 2, -37.0393, 0.654498, 20.5484, -160.568, -92.6083, 54.7908
3.00774, 2, -37.0393, 0.654519, 20.5484, -160.568, -92.6083, 54.7908
3.01579, 2, -37.0394, 0.65451, 20.5484, -160.568, -92.6083, 54.7909
3.02385, 2, -37.0393, 0.654506, 20.5484, -160.568, -92.6083, 54.791
3.03179, 2, -37.0393, 0.654504, 20.5484, -160.568, -92.6083, 54.791
3.03979, 2, -37.0393, 0.654491, 20.5484, -160.568, -92.6084, 54.791
3.0479, 2, -37.0393, 0.654485, 20.5483, -160.568, -92.6083, 54.7911
3.05582, 2, -37.0393, 0.654482, 20.5483, -160.568, -92.6084, 54.7912
3.06369, 2, -37.0393, 0.654481, 20.5483, -160.568, -92.6083, 54.7912
3.07178, 2, -37.0393, 0.654473, 20.5483, -160.568, -92.6083, 54.7913
3.07972, 2, -37.0393, 0.654484, 20.5483, -160.568, -92.6084, 54.7913
3.08783, 2, -37.0393, 0.654494, 20.5483, -160.568, -92.6084, 54.7914
3.0959, 2, -37.0392, 0.654499, 20.5483, -160.568, -92.6084, 54.7914
3.10393, 2, -37.0393, 0.654501, 20.5483, -160.568, -92.6084, 54.7915
3.11077, 2, -37.0393, 0.654501, 20.5483, -160.568, -92.6084, 54.7915
3.12007, 2, -37.0393, 0.654502, 20.5483, -160.568, -92.6084, 54.7915
3.12667, 2, -37.0393, 0.654502, 20.5483, -160.568, -92.6084, 54.7915
3.13647, 2, -37.0392, 0.654502, 20.5483, -160.568, -92.6083, 54.7917
3.1443, 2, -37.0392, 0.654495, 20.5483, -160.568, -92.6084, 54.7917
3.15227, 2, -37.0392, 0.654494, 20.5482, -160.568, -92.6084, 54.7918
3.1605, 2, -37.0392, 0.654499, 20.5482, -160.568, -92.6084, 54.7918
3.16833, 2, -37.0391, 0.654501, 20.5482, -160.568, -92.6084, 54.7918
3.17629, 2, -37.0391, 0.654494, 20.5482, -160.568, -92.6084, 54.7918
3.18448, 2, -37.0391, 0.654497, 20.5482, -160.568, -92.6084, 54.7919
3.19172, 2, -37.0391, 0.654498, 20.5482, -160.568, -92.6084, 54.792
3.19967, 2, -37.0391, 0.654501, 20.5482, -160.568, -92.6084, 54.792
3.20855, 2, -37.0391, 0.654502, 20.5482, -160.568, -92.6084, 54.792
3.21578, 2, -37.0391, 0.654521, 20.5482, -160.568, -92.6084, 54.7921
3.22369, 2, -37.0391, 0.654511, 20.5482, -160.568, -92.6084, 54.7921
3.23167, 2, -37.0391, 0.654506, 20.5482, -160.568, -92.6084, 54.7921
3.23973, 2, -37.0391, 0.654523, 20.5481, -160.568, -92.6084, 54.7921
3.24767, 2, -37.0391, 0.654512, 20.5481, -160.568, -92.6084, 54.7922
3.25568, 2, -37.0391, 0.654507, 20.5481, -160.568, -92.6084, 54.7922
3.26372, 2, -37.0391, 0.654504, 20.5481, -160.568, -92.6084, 54.7922
3.27169, 2, -37.0391, 0.654503, 20.5481, -160.568, -92.6084, 54.7923
3.27968, 2, -37.039, 0.654503, 20.548, -160.568, -92.6085, 54.7923
3.28774, 2, -37.039, 0.654503, 20.5481, -160.568, -92.6085, 54.7923
3.29568, 2, -37.039, 0.654503, 20.548, -160.568, -92.6084, 54.7924
3.30367, 2, -37.039, 0.654514, 20.548, -160.568, -92.6084, 54.7924
3.31177, 2, -37.039, 0.654515, 20.5481, -160.568, -92.6084, 54.7924
3.32076, 2, -37.039, 0.654508, 20.548, -160.568, -92.6084, 54.7924
3.32767, 2, -37.0389, 0.654523, 20.548, -160.568, -92.6084, 54.7925
3.33585, 2, -37.0389, 0.654512, 20.548, -160.568, -92.6084, 54.7925
3.34471, 2, -37.0389, 0.654507, 20.548, -160.568, -92.6084, 54.7925
3.35167, 2, -37.0389, 0.654505, 20.548, -160.568, -92.6084, 54.7925
3.35974, 2, -37.0389, 0.654503, 20.548, -160.568, -92.6084, 54.7925
3.36768, 2, -37.0389, 0.654503, 20.548, -160.568, -92.6085, 54.7927
3.37568, 2, -37.0389, 0.654503, 20.548, -160.567, -92.6085, 54.7927
3.38377, 2, -37.0389, 0.654503, 20.548, -160.567, -92.6085, 54.7927
3.39168, 2, -37.0389, 0.654514, 20.548, -160.567, -92.6085, 54.7927
3.39971, 2, -37.0389, 0.654515, 20.548, -160.567, -92.6085, 54.7927
3.40774, 2, -37.0389, 0.654508, 20.5479, -160.567, -92.6085, 54.7928
3.41568, 2, -37.0388, 0.654523, 20.5479, -160.567, -92.6085, 54.7927
3.42367, 2, -37.0389, 0.654523, 20.5479, -160.567, -92.6085, 54.7928
3.43173, 2, -37.0388, 0.654549, 20.5479, -160.567, -92.6085, 54.7928
3.43969, 2, -37.0389, 0.654531, 20.5479, -160.567, -92.6085, 54.7928
3.44767, 2, -37.0388, 0.654516, 20.5479, -160.567, -92.6085, 54.7928
3.45575, 2, -37.0388, 0.654509, 20.5479, -160.567, -92.6085, 54.7928
3.46368, 2, -37.0388, 0.654505, 20.5479, -160.567, -92.6085, 54.7929
3.47167, 2, -37.0388, 0.654504, 20.5479, -160.567, -92.6085, 54.7929
3.47977, 2, -37.0388, 0.654503, 20.5479, -160.567, -92.6085, 54.7929
3.48768, 2, -37.0388, 0.654503, 20.5479, -160.567, -92.6086, 54.7929
3.49568, 2, -37.0388, 0.654503, 20.5479, -160.567, -92.6085, 54.7929
3.50377, 2, -37.0388, 0.654521, 20.5479, -160.567, -92.6085, 54.793
3.51173, 2, -37.0388, 0.654511, 20.5479, -160.567, -92.6085, 54.7929
3.51975, 2, -37.0387, 0.654506, 20.5478, -160.567, -92.6085, 54.7929
3.52783, 2, -37.0387, 0.654504, 20.5478, -160.567, -92.6086, 54.7929
3.53578, 2, -37.0387, 0.654503, 20.5478, -160.567, -92.6085, 54.7929
3.54383, 2, -37.0387, 0.654521, 20.5478, -160.567, -92.6085, 54.7929
3.55187, 2, -37.0387, 0.654522, 20.5478, -160.567, -92.6086, 54.793
3.55975, 2, -37.0387, 0.654537, 20.5478, -160.567, -92.6086, 54.7931
3.5677, 2, -37.0387, 0.654537, 20.5478, -160.567, -92.6086, 54.7931
3.57578, 2, -37.0386, 0.654518, 20.5478, -160.567, -92.6086, 54.7931
3.5837, 2, -37.0386, 0.654521, 20.5478, -160.567, -92.6087, 54.7931
3.5918, 2, -37.0386, 0.654518, 20.5478, -160.567, -92.6086, 54.7931
3.59993, 2, -37.0386, 0.65451, 20.5478, -160.567, -92.6086, 54.7931
3.6079, 2, -37.0386, 0.654506, 20.5478, -160.567, -92.6086, 54.7931
3.61608, 2, -37.0386, 0.654504, 20.5478, -160.567, -92.6086, 54.7932
3.62268, 2, -37.0386, 0.654504, 20.5477, -160.567, -92.6086, 54.7932
3.63208, 2, -37.0386, 0.654503, 20.5477, -160.567, -92.6086, 54.7931
3.64047, 2, -37.0386, 0.654514, 20.5477, -160.567, -92.6086, 54.7932
3.65073, 2, -37.0386, 0.654526, 20.5477, -160.567, -92.6086, 54.7931
3.65653, 2, -37.0386, 0.654532, 20.5477, -160.567, -92.6087, 54.7931
3.6644, 2, -37.0386, 0.654523, 20.5477, -160.567, -92.6086, 54.7931
3.67232, 2, -37.0386, 0.65453, 20.5477, -160.567, -92.6086, 54.7932
3.6805, 2, -37.0385, 0.654521, 20.5477, -160.567, -92.6087, 54.7931
3.68766, 2, -37.0385, 0.654522, 20.5477, -160.567, -92.6087, 54.7931
3.69572, 2, -37.0385, 0.654519, 20.5477, -160.567, -92.6087, 54.7931
3.70367, 2, -37.0385, 0.65451, 20.5477, -160.567, -92.6087, 54.7932
3.71166, 4, -37.0385, 0.654506, 20.5477, -160.567, -92.6086, 54.7932
3.71976, 4, -37.0385, 0.654522, 20.5477, -160.567, -92.6087, 54.7932
3.72767, 4, -37.0385, 0.654523, 20.5476, -160.567, -92.6087, 54.7931
3.73567, 4, -37.0385, 0.654519, 20.5477, -160.567, -92.6087, 54.7931
3.7437, 4, -37.0385, 0.654539, 20.5476, -160.567, -92.6087, 54.7931
3.75166, 4, -37.0385, 0.654527, 20.5476, -160.567, -92.6086, 54.7932
3.75966, 4, -37.0385, 0.654525, 20.5476, -160.567, -92.6086, 54.7932
3.76771, 4, -37.0385, 0.654549, 20.5476, -160.567, -92.6086, 54.7932
3.77568, 4, -37.0385, 0.65455, 20.5476, -160.567, -92.6086, 54.7932
3.78366, 4, -37.0385, 0.654535, 20.5476, -160.567, -92.6087, 54.7932
3.79173, 4, -37.0385, 0.654567, 20.5476, -160.567, -92.6087, 54.7932
3.79965, 4, -37.0385, 0.654539, 20.5475, -160.567, -92.6087, 54.7932
3.80782, 4, -37.0384, 0.654519, 20.5475, -160.567, -92.6087, 54.7932
3.8319, 4, -37.0384, 0.654555, 20.5475, -160.567, -92.6087, 54.7932
3.83457, 4, -37.0384, 0.65456, 20.5475, -160.567, -92.6087, 54.7932
3.83646, 4, -37.0384, 0.65456, 20.5475, -160.567, -92.6087, 54.7932
3.84185, 4, -37.0383, 0.654566, 20.5475, -160.567, -92.6087, 54.7932
3.85127, 4, -37.0383, 0.654557, 20.5475, -160.567, -92.6087, 54.7932
3.85877, 4, -37.0376, 0.654413, 20.5475, -160.567, -92.6087, 54.7932
3.86372, 4, -37.0366, 0.654117, 20.5476, -160.567, -92.6087, 54.7932
3.87175, 4, -37.0326, 0.652404, 20.548, -160.567, -92.6087, 54.7932
3.8798, 4, -37.0248, 0.648156, 20.5495, -160.567, -92.6087, 54.7932
3.88865, 4, -37.0134, 0.640446, 20.5534, -160.566, -92.6087, 54.7932
3.89665, 5, -36.9977, 0.628905, 20.5609, -160.565, -92.6087, 54.7931
3.90372, 5, -36.9767, 0.612867, 20.5733, -160.563, -92.6086, 54.7932
3.91167, 5, -36.9501, 0.592373, 20.592, -160.559, -92.6085, 54.7932
3.91966, 5, -36.9184, 0.567398, 20.6173, -160.554, -92.6083, 54.7931
3.92784, 5, -36.882, 0.537984, 20.6495, -160.547, -92.6078, 54.7931
3.93557, 5, -36.8407, 0.504012, 20.6881, -160.539, -92.6069, 54.7931
3.94371, 5, -36.7942, 0.465256, 20.7321, -160.529, -92.6056, 54.793
3.95187, 5, -36.7426, 0.422242, 20.7806, -160.518, -92.6041, 54.7929
3.95992, 5, -36.6862, 0.375509, 20.8321, -160.506, -92.6024, 54.793
3.96769, 5, -36.6258, 0.326021, 20.8857, -160.494, -92.6007, 54.793
3.9757, 5, -36.5616, 0.274419, 20.9406, -160.482, -92.5989, 54.7929
3.98377, 5, -36.495, 0.221437, 20.9959, -160.469, -92.5971, 54.793
3.99178, 5, -36.4271, 0.167845, 21.0513, -160.457, -92.5953, 54.7929
3.99975, 5, -36.3585, 0.113976, 21.1069, -160.445, -92.5934, 54.7929
4.00854, 5, -36.2897, 0.0600644, 21.1623, -160.434, -92.5914, 54.793
4.01588, 5, -36.2208, 0.00627519, 21.2178, -160.421, -92.5895, 54.7931
4.02726, 5, -36.1176, -0.07407, 21.3009, -160.403, -92.5866, 54.7931
4.03199, 5, -36.0832, -0.100731, 21.3285, -160.397, -92.5857, 54.7931
4.04007, 5, -36.0146, -0.153859, 21.3837, -160.384, -92.5836, 54.7932
4.04733, 5, -35.946, -0.206809, 21.4389, -160.371, -92.5816, 54.7934
4.05586, 5, -35.8774, -0.259586, 21.494, -160.358, -92.5796, 54.7937
4.06425, 5, -35.8086, -0.312229, 21.549, -160.346, -92.5776, 54.7941
4.0717, 5, -35.7396, -0.364868, 21.604, -160.333, -92.5756, 54.7948
4.07997, 5, -35.6704, -0.417504, 21.6587, -160.32, -92.5736, 54.7957
4.0886, 5, -35.6009, -0.470212, 21.7132, -160.308, -92.5715, 54.7968
4.09581, 5, -35.5311, -0.522972, 21.7676, -160.295, -92.5695, 54.798
4.10413, 5, -35.461, -0.575703, 21.8218, -160.283, -92.5675, 54.7994
4.11293, 5, -35.3907, -0.628458, 21.8758, -160.27, -92.5654, 54.801
4.12004, 5, -35.3203, -0.681173, 21.9297, -160.257, -92.5634, 54.8026
4.12678, 5, -35.285, -0.707538, 21.9567, -160.251, -92.5623, 54.8035
4.1369, 5, -35.1791, -0.786199, 22.0372, -160.231, -92.5592, 54.8063
4.14424, 5, -35.1084, -0.83841, 22.0909, -160.217, -92.5571, 54.8084
4.15261, 5, -35.0378, -0.890541, 22.1444, -160.204, -92.555, 54.8106
4.16182, 5, -34.9671, -0.942282, 22.1978, -160.191, -92.5528, 54.813
4.16825, 5, -34.8966, -0.993852, 22.251, -160.178, -92.5507, 54.8155
4.1783, 5, -34.8261, -1.04525, 22.3042, -160.165, -92.5485, 54.8181
4.18545, 5, -34.7556, -1.09656, 22.3572, -160.152, -92.5462, 54.8207
4.1916, 5, -34.7202, -1.12227, 22.3836, -160.146, -92.5451, 54.8221
4.19964, 5, -34.6494, -1.17353, 22.4363, -160.133, -92.5429, 54.8249
4.2077, 5, -34.5785, -1.22481, 22.4888, -160.12, -92.5407, 54.8278
4.21564, 5, -34.5074, -1.27614, 22.5412, -160.107, -92.5385, 54.8308
4.22368, 5, -34.436, -1.32743, 22.5934, -160.093, -92.5362, 54.834
4.23553, 5, -34.3288, -1.40439, 22.6715, -160.073, -92.5328, 54.8388
4.23966, 5, -34.293, -1.43002, 22.6974, -160.066, -92.5316, 54.8405
4.24764, 5, -34.2212, -1.48114, 22.7492, -160.052, -92.5294, 54.844
4.25565, 5, -34.1492, -1.53205, 22.8009, -160.038, -92.5271, 54.8476
4.26371, 5, -34.0771, -1.58275, 22.8524, -160.025, -92.5248, 54.8514
4.27164, 5, -34.0049, -1.63327, 22.9039, -160.012, -92.5224, 54.8552
4.27988, 5, -33.9327, -1.68353, 22.9553, -159.998, -92.5201, 54.8592
4.28769, 5, -33.8604, -1.7336, 23.0065, -159.984, -92.5179, 54.8632
4.29564, 5, -33.7883, -1.78352, 23.0576, -159.971, -92.5156, 54.8674
4.30381, 5, -33.716, -1.8334, 23.1085, -159.957, -92.5133, 54.8715
4.31246, 5, -33.6436, -1.8832, 23.1592, -159.942, -92.5109, 54.8758
4.31974, 5, -33.5711, -1.93305, 23.2097, -159.928, -92.5087, 54.8801
4.32765, 5, -33.4985, -1.98326, 23.2602, -159.914, -92.5064, 54.8842
4.3357, 5, -33.4257, -2.03375, 23.3106, -159.9, -92.5042, 54.8879
4.34368, 5, -33.3531, -2.08466, 23.3609, -159.886, -92.5018, 54.8902
4.35281, 6, -33.2806, -2.13606, 23.4115, -159.871, -92.4993, 54.8912
4.36349, 6, -33.1726, -2.21464, 23.4879, -159.85, -92.495, 54.8894
4.36764, 6, -33.1368, -2.24128, 23.5137, -159.842, -92.4932, 54.8876
4.37643, 6, -33.0655, -2.2952, 23.5659, -159.826, -92.489, 54.8803
4.38376, 7, -32.9946, -2.35031, 23.6191, -159.808, -92.4836, 54.868
4.39167, 7, -32.9242, -2.40653, 23.6735, -159.79, -92.4766, 54.8526
4.40317, 7, -32.8197, -2.49346, 23.7576, -159.759, -92.4627, 54.8268
4.4078, 7, -32.7851, -2.52318, 23.7863, -159.748, -92.457, 54.8181
4.41485, 7, -32.7165, -2.5838, 23.8446, -159.726, -92.4443, 54.801
4.42367, 8, -32.6486, -2.646, 23.9043, -159.703, -92.4297, 54.7843
4.43264, 8, -32.5814, -2.7099, 23.9651, -159.678, -92.4131, 54.7676
4.43968, 8, -32.5149, -2.7755, 24.027, -159.651, -92.3947, 54.7501
4.44766, 8, -32.449, -2.84267, 24.0899, -159.624, -92.3747, 54.7313
4.45507, 8, -32.3838, -2.91134, 24.1538, -159.596, -92.3532, 54.7112
4.46372, 9, -32.3191, -2.98138, 24.2187, -159.568, -92.3307, 54.6893
4.47164, 9, -32.2551, -3.05267, 24.2845, -159.538, -92.3072, 54.6656
4.47989, 9, -32.1916, -3.12531, 24.3514, -159.506, -92.2823, 54.6402
4.48802, 9, -32.1287, -3.19921, 24.4192, -159.474, -92.2556, 54.6137
4.49501, 9, -32.0663, -3.27442, 24.4881, -159.442, -92.2271, 54.5859
4.50301, 10, -32.0045, -3.35092, 24.5578, -159.408, -92.1974, 54.5564
4.51186, 10, -31.9433, -3.42882, 24.6287, -159.373, -92.1667, 54.5252
4.51972, 10, -31.8827, -3.50817, 24.7006, -159.337, -92.1347, 54.4919
4.52811, 10, -31.8226, -3.58888, 24.7736, -159.301, -92.1008, 54.4568
4.53652, 10, -31.7631, -3.67108, 24.8476, -159.264, -92.0652, 54.4207
4.54403, 11, -31.7042, -3.75467, 24.9226, -159.225, -92.0289, 54.3834
4.55214, 11, -31.6457, -3.83984, 24.9985, -159.185, -91.9916, 54.3444
4.55928, 11, -31.6167, -3.92644, 25.0753, -159.145, -91.9522, 54.3033
4.56829, 11, -31.5304, -4.01443, 25.1531, -159.104, -91.9112, 54.2606
4.57705, 11, -31.4736, -4.10395, 25.232, -159.061, -91.8696, 54.217
4.58482, 12, -31.4173, -4.19497, 25.3119, -159.018, -91.8263, 54.1719
4.59259, 12, -31.3614, -4.28738, 25.3929, -158.975, -91.7809, 54.1247
4.59977, 12, -31.3061, -4.3812, 25.4749, -158.929, -91.7349, 54.0758
4.60884, 12, -31.2513, -4.47629, 25.5581, -158.883, -91.6878, 54.0261
4.61669, 12, -31.1971, -4.57276, 25.6422, -158.836, -91.6385, 53.9748
4.62432, 13, -31.1433, -4.67071, 25.7272, -158.788, -91.5885, 53.9213
4.63299, 13, -31.0901, -4.77002, 25.8132, -158.739, -91.537, 53.8667
4.64009, 13, -31.0374, -4.87079, 25.9002, -158.69, -91.4834, 53.8111
4.64663, 13, -31.0112, -4.92175, 25.9441, -158.665, -91.4566, 53.7825
4.65661, 13, -30.9334, -5.07694, 26.0775, -158.588, -91.3736, 53.6942
4.6652, 13, -30.8822, -5.1821, 26.1678, -158.535, -91.3166, 53.6342
4.67296, 14, -30.8317, -5.28879, 26.2591, -158.481, -91.2587, 53.572
4.68063, 14, -30.7818, -5.39696, 26.3513, -158.428, -91.1984, 53.5085
4.68913, 14, -30.7322, -5.5066, 26.4444, -158.373, -91.138, 53.4444
4.69462, 14, -30.7076, -5.56203, 26.4914, -158.344, -91.1072, 53.4114
4.70365, 14, -30.6589, -5.67398, 26.586, -158.288, -91.0435, 53.3439
4.71168, 15, -30.6106, -5.78731, 26.6817, -158.231, -90.9796, 53.2759
4.71963, 15, -30.5629, -5.90198, 26.7787, -158.172, -90.9132, 53.206
4.72976, 15, -30.4922, -6.0764, 26.9261, -158.083, -90.8126, 53.0987
4.73578, 15, -30.4689, -6.13529, 26.9757, -158.053, -90.7779, 53.0623
4.74368, 15, -30.4226, -6.25413, 27.0756, -157.992, -90.7081, 52.9873
4.75163, 16, -30.3769, -6.37438, 27.1763, -157.93, -90.6369, 52.9118
4.75963, 16, -30.3318, -6.49627, 27.2782, -157.867, -90.5644, 52.8343
4.76763, 16, -30.287, -6.61951, 27.3813, -157.803, -90.4907, 52.7553
4.77562, 16, -30.2428, -6.74418, 27.4854, -157.738, -90.4156, 52.6754
4.78378, 16, -30.1991, -6.87044, 27.5907, -157.673, -90.3391, 52.5934
4.79167, 17, -30.1559, -6.99821, 27.6969, -157.606, -90.2614, 52.5109
4.79963, 17, -30.1131, -7.12761, 27.8038, -157.539, -90.1823, 52.4264
4.80778, 17, -30.0708, -7.25852, 27.9116, -157.471, -90.1019, 52.3413
4.81858, 17, -30.0084, -7.45738, 28.0756, -157.367, -89.9788, 52.2102
4.82373, 17, -29.9878, -7.52428, 28.1308, -157.331, -89.9372, 52.1663
4.8327, 18, -29.9471, -7.65928, 28.2423, -157.261, -89.8528, 52.0769
4.83963, 18, -29.9068, -7.79569, 28.3546, -157.189, -89.7669, 51.9862
4.8477, 18, -29.8671, -7.93358, 28.4677, -157.116, -89.6803, 51.894
4.85813, 18, -29.8083, -8.14267, 28.6392, -157.005, -89.5477, 51.7534
4.86379, 18, -29.789, -8.21303, 28.697, -156.968, -89.5028, 51.7056
4.87165, 19, -29.7506, -8.35472, 28.8133, -156.892, -89.4121, 51.6097
4.87964, 19, -29.7128, -8.49797, 28.931, -156.816, -89.3204, 51.5122
4.88778, 19, -29.6753, -8.64285, 29.0495, -156.738, -89.2272, 51.414
4.89658, 19, -29.6383, -8.78914, 29.1686, -156.661, -89.1328, 51.3143
4.90363, 19, -29.6018, -8.93654, 29.2887, -156.581, -89.0376, 51.2141
4.91182, 20, -29.5658, -9.08541, 29.4098, -156.501, -88.941, 51.1121
4.9197, 20, -29.5303, -9.23581, 29.5322, -156.421, -88.8433, 51.0093
4.92763, 20, -29.4951, -9.38775, 29.6556, -156.339, -88.7448, 50.9049
4.93584, 20, -29.4605, -9.54094, 29.7798, -156.256, -88.6451, 50.7997
4.94317, 20, -29.4264, -9.6952, 29.9049, -156.173, -88.5443, 50.693
4.9507, 20, -29.3927, -9.85072, 30.031, -156.089, -88.4424, 50.585
4.95969, 21, -29.3594, -10.0077, 30.1581, -156.003, -88.3392, 50.4762
4.96764, 21, -29.3265, -10.1664, 30.2863, -155.917, -88.2351, 50.3661
4.97562, 21, -29.2941, -10.3261, 30.4155, -155.83, -88.1301, 50.2554
4.9838, 21, -29.2622, -10.4866, 30.5454, -155.743, -88.0238, 50.1438
4.99189, 21, -29.2306, -10.6484, 30.6763, -155.654, -87.9167, 50.0312
4.99969, 22, -29.1995, -10.8118, 30.8081, -155.564, -87.8086, 49.9179
5.00847, 22, -29.1686, -10.9764, 30.9409, -155.474, -87.6992, 49.8037
5.02081, 22, -29.1232, -11.2251, 31.1417, -155.337, -87.5336, 49.6305
5.02371, 22, -29.1082, -11.3085, 31.2091, -155.29, -87.4777, 49.5725
5.03249, 22, -29.0786, -11.4766, 31.3447, -155.197, -87.3656, 49.4555
5.03978, 23, -29.0493, -11.6463, 31.481, -155.103, -87.2527, 49.338
5.04772, 23, -29.0203, -11.8171, 31.6181, -155.009, -87.1385, 49.2196
5.05787, 23, -28.9918, -11.9886, 31.7561, -154.913, -87.0239, 49.1007
5.06394, 23, -28.9637, -12.1614, 31.8949, -154.817, -86.9082, 48.9813
5.07203, 23, -28.9359, -12.3357, 32.0346, -154.72, -86.7915, 48.861
5.07972, 24, -28.9085, -12.5112, 32.1753, -154.621, -86.6739, 48.7403
5.08772, 24, -28.8814, -12.6871, 32.3167, -154.522, -86.5553, 48.6193
5.09574, 24, -28.8546, -12.8637, 32.4586, -154.422, -86.4361, 48.4971
5.10781, 24, -28.8152, -13.1315, 32.6734, -154.271, -86.2554, 48.3132
5.11221, 24, -28.8022, -13.2215, 32.7455, -154.22, -86.195, 48.2517
5.11996, 25, -28.7765, -13.4016, 32.8902, -154.118, -86.0734, 48.1285
5.12879, 25, -28.7511, -13.5824, 33.0354, -154.015, -85.9509, 48.005
5.13647, 25, -28.7258, -13.7645, 33.1811, -153.911, -85.8282, 47.8817
5.14503, 25, -28.7007, -13.9481, 33.3277, -153.807, -85.7041, 47.7579
5.15213, 25, -28.6759, -14.1323, 33.4752, -153.701, -85.5799, 47.6339
5.16069, 25, -28.6515, -14.3169, 33.6234, -153.595, -85.4549, 47.5101
5.16905, 26, -28.6273, -14.5026, 33.7719, -153.488, -85.3292, 47.3857
5.17618, 26, -28.6035, -14.6898, 33.9211, -153.38, -85.2033, 47.2612
5.18523, 26, -28.5799, -14.8777, 34.0713, -153.271, -85.0763, 47.137
5.19307, 26, -28.568, -15.0656, 34.222, -153.162, -84.9491, 47.0128
5.19861, 26, -28.5445, -15.1598, 34.2976, -153.107, -84.8852, 46.9508
5.20961, 27, -28.5099, -15.4441, 34.5247, -152.942, -84.6929, 46.7657
5.21565, 27, -28.4984, -15.5391, 34.6008, -152.886, -84.6286, 46.704
5.22363, 27, -28.4756, -15.7293, 34.7536, -152.774, -84.4993, 46.5808
5.23304, 27, -28.4418, -16.0161, 34.9838, -152.605, -84.3051, 46.3967
5.24137, 27, -28.4307, -16.2091, 35.1372, -152.492, -84.175, 46.2742
5.24761, 28, -28.4084, -16.3058, 35.2142, -152.435, -84.1098, 46.2132
5.25843, 28, -28.375, -16.5965, 35.4465, -152.263, -83.9135, 46.0307
5.26381, 28, -28.364, -16.6938, 35.5242, -152.205, -83.8481, 45.9701
5.27159, 28, -28.342, -16.8893, 35.6796, -152.09, -83.7168, 45.8497
5.27967, 28, -28.3199, -17.0851, 35.8352, -151.973, -83.5852, 45.7302
5.28994, 29, -28.287, -17.3788, 36.0698, -151.797, -83.3873, 45.5525
5.29561, 29, -28.2761, -17.477, 36.1483, -151.738, -83.3212, 45.4938
5.30361, 29, -28.2543, -17.6741, 36.3054, -151.62, -83.1888, 45.3769
5.31336, 29, -28.2324, -17.8713, 36.5408, -151.442, -82.9896, 45.2034
5.31975, 29, -28.2108, -18.0684, 36.6196, -151.382, -82.9231, 45.1463
5.32764, 30, -28.1893, -18.2662, 36.7777, -151.262, -82.7899, 45.0326
5.33742, 30, -28.1677, -18.4647, 36.9359, -151.141, -82.6569, 44.9203
5.34444, 30, -28.1461, -18.6633, 37.094, -151.02, -82.5235, 44.8092
5.35062, 30, -28.1245, -18.8619, 37.2523, -150.898, -82.3901, 44.6998
5.35968, 30, -28.1027, -19.0615, 37.411, -150.776, -82.2564, 44.5919
5.36769, 31, -28.0808, -19.2617, 37.57, -150.653, -82.1226, 44.4857
5.37562, 31, -28.0589, -19.4616, 37.7287, -150.53, -81.989, 44.3812
5.38473, 31, -28.0371, -19.6614, 37.8873, -150.407, -81.8551, 44.2784
5.39178, 31, -28.0152, -19.8618, 38.0465, -150.283, -81.7216, 44.1777
5.39976, 31, -27.9932, -20.0622, 38.2061, -150.158, -81.5877, 44.078
5.40837, 32, -27.9712, -20.262, 38.3655, -150.032, -81.454, 43.9805
5.41563, 32, -27.949, -20.4623, 38.5246, -149.907, -81.32, 43.8844
5.42368, 32, -27.9265, -20.6633, 38.6841, -149.78, -81.1863, 43.7907
5.43502, 32, -27.8925, -20.9642, 38.9238, -149.59, -80.9853, 43.6537
5.43981, 32, -27.881, -21.0643, 39.0036, -149.526, -80.9185, 43.6094
5.44764, 33, -27.8579, -21.2649, 39.1626, -149.398, -80.7849, 43.5222
5.4557, 33, -27.8346, -21.4654, 39.3216, -149.271, -80.6516, 43.4385
5.46383, 33, -27.8109, -21.6652, 39.4808, -149.143, -80.5185, 43.3572
5.47175, 33, -27.7867, -21.8644, 39.6395, -149.015, -80.3859, 43.2796
5.47966, 33, -27.7622, -22.0641, 39.7971, -148.887, -80.2539, 43.205
5.48787, 34, -27.7374, -22.2633, 39.9542, -148.759, -80.1221, 43.1337
5.49567, 34, -27.7121, -22.4615, 40.1113, -148.631, -79.9909, 43.0661
5.50361, 34, -27.6865, -22.6593, 40.2681, -148.503, -79.8596, 43.0007
5.51203, 34, -27.6606, -22.8572, 40.4242, -148.374, -79.7286, 42.9388
5.52054, 34, -27.6341, -23.0546, 40.5799, -148.246, -79.5975, 42.8804
5.52775, 34, -27.6071, -23.251, 40.736, -148.117, -79.4668, 42.8246
5.536, 35, -27.58, -23.4475, 40.8917, -147.987, -79.3359, 42.7723
5.54371, 35, -27.5525, -23.6443, 41.0466, -147.858, -79.2056, 42.7242
5.55177, 35, -27.5246, -23.8404, 41.201, -147.728, -79.0755, 42.6796
5.56107, 35, -27.4965, -24.0357, 41.3552, -147.598, -78.9454, 42.6382
5.56854, 35, -27.4678, -24.2309, 41.5092, -147.468, -78.8159, 42.6006
5.57661, 36, -27.4387, -24.4257, 41.6625, -147.338, -78.6863, 42.5675
5.58364, 36, -27.4092, -24.6194, 41.815, -147.208, -78.5576, 42.5388
5.59201, 36, -27.3793, -24.8121, 41.9672, -147.078, -78.4289, 42.5144
5.59996, 36, -27.3486, -25.0049, 42.1191, -146.947, -78.3007, 42.4942
5.6078, 36, -27.3172, -25.1973, 42.2701, -146.817, -78.173, 42.4785
5.61589, 37, -27.285, -25.3885, 42.42, -146.686, -78.0456, 42.4672
5.62391, 37, -27.2522, -25.5787, 42.5693, -146.557, -77.9187, 42.4606
5.63068, 37, -27.2355, -25.6737, 42.6436, -146.492, -77.8552, 42.4587
5.64048, 37, -27.1842, -25.9575, 42.8656, -146.298, -77.6656, 42.4573
5.64842, 37, -27.1488, -26.1446, 43.0121, -146.169, -77.5395, 42.4624
5.65616, 38, -27.1127, -26.3303, 43.1573, -146.041, -77.4142, 42.4741
5.66424, 38, -27.0759, -26.5155, 43.3017, -145.913, -77.2894, 42.491
5.67218, 38, -27.0381, -26.6996, 43.4453, -145.786, -77.1651, 42.5135
5.6802, 38, -26.9995, -26.882, 43.5878, -145.659, -77.0414, 42.5416
5.6885, 38, -26.9601, -27.0636, 43.7292, -145.532, -76.9181, 42.5757
5.69664, 39, -26.92, -27.2449, 43.8697, -145.406, -76.7954, 42.6161
5.70365, 39, -26.8996, -27.3351, 43.9396, -145.343, -76.734, 42.6387
5.71238, 39, -26.8583, -27.5147, 44.0788, -145.217, -76.6114, 42.7139
5.72113, 39, -26.8161, -27.6929, 44.2861, -145.028, -76.4279, 42.7716
5.72663, 39, -26.7731, -27.8708, 44.3547, -144.966, -76.3666, 42.8031
5.73565, 40, -26.7294, -28.0483, 44.491, -144.84, -76.2443, 42.8701
5.7436, 40, -26.6845, -28.2242, 44.6265, -144.715, -76.122, 42.943
5.75161, 40, -26.6387, -28.3985, 44.7608, -144.591, -76.0003, 43.0234
5.76182, 40, -26.5682, -28.6579, 44.9599, -144.406, -75.8179, 43.1547
5.76766, 40, -26.5441, -28.7437, 45.0255, -144.345, -75.7575, 43.2023
5.77556, 41, -26.495, -28.9139, 45.1556, -144.223, -75.6372, 43.3015
5.78596, 41, -26.4193, -29.1655, 45.3479, -144.042, -75.457, 43.4633
5.79182, 41, -26.3934, -29.2486, 45.4112, -143.982, -75.3974, 43.5206
5.7996, 41, -26.3406, -29.4141, 45.5367, -143.864, -75.2784, 43.6402
5.81108, 41, -26.2589, -29.659, 45.7217, -143.688, -75.1008, 43.8329
5.81579, 42, -26.231, -29.7396, 45.7825, -143.631, -75.042, 43.9007
5.82357, 42, -26.1741, -29.8998, 45.9029, -143.516, -74.9243, 44.042
5.83259, 42, -26.1159, -30.0583, 46.0214, -143.402, -74.8074, 44.1904
5.84283, 42, -26.0258, -30.2928, 46.196, -143.235, -74.6325, 44.4267
5.84758, 42, -25.9951, -30.3697, 46.2534, -143.18, -74.5744, 44.5092
5.85562, 42, -25.9326, -30.5222, 46.3666, -143.071, -74.4587, 44.6795
5.86375, 43, -25.8685, -30.6726, 46.4777, -142.964, -74.3433, 44.8576
5.87161, 43, -25.8028, -30.821, 46.5868, -142.858, -74.2283, 45.0437
5.8796, 43, -25.7353, -30.9674, 46.6939, -142.755, -74.1138, 45.2375
5.88776, 43, -25.6663, -31.1113, 46.7988, -142.653, -73.9995, 45.4389
5.89656, 43, -25.5955, -31.2528, 46.9018, -142.553, -73.886, 45.6479
5.90362, 44, -25.523, -31.3921, 47.0026, -142.456, -73.7728, 45.8646
5.91283, 44, -25.4486, -31.5291, 47.1009, -142.361, -73.6602, 46.0895
5.92307, 44, -25.3334, -31.73, 47.2436, -142.222, -73.492, 46.4417
5.92766, 44, -25.2941, -31.7955, 47.29, -142.177, -73.4362, 46.5633
5.93645, 44, -25.214, -31.9246, 47.3809, -142.089, -73.3252, 46.8122
5.9436, 45, -25.1321, -32.0509, 47.4692, -142.004, -73.2146, 47.0696
5.95162, 45, -25.0482, -32.1744, 47.5552, -141.922, -73.1047, 47.3357
5.96225, 45, -24.9621, -32.2952, 47.6383, -141.843, -72.9957, 47.6098
5.96783, 45, -24.874, -32.413, 47.7184, -141.766, -72.8871, 47.8922
5.97566, 45, -24.7836, -32.5278, 47.7955, -141.693, -72.7796, 48.1828
5.98359, 46, -24.6909, -32.6393, 47.8696, -141.623, -72.6728, 48.4824
5.99171, 46, -24.596, -32.7475, 47.9407, -141.556, -72.5666, 48.7903
5.99963, 46, -24.4986, -32.8524, 48.0089, -141.493, -72.4616, 49.1065
6.00777, 46, -24.3991, -32.9538, 48.0741, -141.435, -72.3573, 49.4315
6.01578, 46, -24.2972, -33.0514, 48.1357, -141.379, -72.2539, 49.765
6.02375, 47, -24.193, -33.1453, 48.194, -141.327, -72.1518, 50.1064
6.03191, 47, -24.0863, -33.2352, 48.2486, -141.28, -72.0505, 50.4563
6.03975, 47, -23.9769, -33.3209, 48.2996, -141.236, -71.9502, 50.8147
6.04797, 47, -23.865, -33.4024, 48.3468, -141.198, -71.8512, 51.1812
6.05575, 47, -23.7503, -33.4798, 48.3901, -141.164, -71.7532, 51.5563
6.06393, 48, -23.6327, -33.5528, 48.4295, -141.135, -71.6565, 51.9397
6.07306, 48, -23.5124, -33.6213, 48.4648, -141.109, -71.5616, 52.3308
6.07961, 48, -23.3896, -33.6851, 48.4959, -141.089, -71.468, 52.7307
6.0884, 48, -23.2643, -33.7441, 48.523, -141.074, -71.3762, 53.1392
6.09562, 48, -23.1364, -33.798, 48.5458, -141.064, -71.2866, 53.5558
6.10413, 49, -23.0055, -33.8469, 48.5643, -141.059, -71.1987, 53.9809
6.11071, 49, -22.9391, -33.8694, 48.5719, -141.057, -71.1554, 54.1963
6.12396, 49, -22.7352, -33.9457, 48.5907, -141.067, -70.9875, 55.0772
6.12652, 49, -22.6658, -33.9457, 48.5907, -141.067, -70.9875, 55.0772
6.13705, 49, -22.4533, -33.9882, 48.5928, -141.09, -70.8674, 55.7586
6.14505, 49, -22.3082, -34.0092, 48.5883, -141.113, -70.7903, 56.2235
6.15295, 50, -22.1605, -34.0241, 48.5785, -141.142, -70.7162, 56.6957
6.16007, 50, -22.0101, -34.0327, 48.5636, -141.177, -70.6449, 57.1765
6.16902, 50, -21.8568, -34.0353, 48.5435, -141.218, -70.5771, 57.6662
6.17619, 50, -21.7004, -34.0319, 48.5178, -141.266, -70.512, 58.1637
6.1842, 50, -21.5408, -34.0218, 48.4865, -141.32, -70.4515, 58.6685
6.19346, 51, -21.3784, -34.0048, 48.45, -141.381, -70.3935, 59.1792
6.19959, 51, -21.2962, -33.9938, 48.4297, -141.413, -70.366, 59.4371
6.20761, 51, -21.1298, -33.9664, 48.3848, -141.483, -70.3142, 59.9569
6.22104, 51, -20.8754, -33.8905, 48.2786, -141.641, -70.2205, 61.0127
6.22259, 51, -20.7894, -33.8905, 48.2786, -141.641, -70.2205, 61.0127
6.23156, 52, -20.6154, -33.8412, 48.2169, -141.729, -70.1803, 61.548
6.23978, 52, -20.4387, -33.7841, 48.1493, -141.823, -70.1448, 62.0898
6.25143, 52, -20.1685, -33.6835, 48.0365, -141.977, -70.0995, 62.914
6.25553, 52, -20.077, -33.6459, 47.9958, -142.031, -70.087, 63.1915
6.26603, 52, -19.7989, -33.5203, 47.8639, -142.204, -70.0576, 64.0337
6.2718, 53, -19.7051, -33.4741, 47.8168, -142.265, -70.0507, 64.3176
6.27956, 53, -19.516, -33.3753, 47.7177, -142.391, -70.041, 64.8901
6.28758, 53, -19.3247, -33.2682, 47.6124, -142.523, -70.0368, 65.4674
6.29565, 53, -19.1314, -33.1528, 47.501, -142.662, -70.0375, 66.0493
6.30359, 53, -18.9363, -33.029, 47.3834, -142.806, -70.044, 66.6357
6.31157, 54, -18.7394, -32.8966, 47.2596, -142.955, -70.057, 67.2252
6.32149, 54, -18.5405, -32.682, 47.0628, -143.187, -70.0887, 68.1119
6.3296, 54, -18.2383, -32.5284, 46.9247, -143.348, -70.1183, 68.7048
6.33561, 54, -18.1367, -32.4487, 46.8536, -143.43, -70.1355, 69.0018
6.34543, 54, -17.9326, -32.2824, 46.7072, -143.597, -70.1742, 69.5969
6.35186, 55, -17.7275, -32.1069, 46.5548, -143.769, -70.2201, 70.1935
6.36062, 55, -17.5214, -31.9221, 46.3963, -143.946, -70.2744, 70.7935
6.36848, 55, -17.3139, -31.7282, 46.2317, -144.127, -70.3354, 71.398
6.37559, 55, -17.1048, -31.5247, 46.0601, -144.314, -70.4057, 72.0066
6.38365, 55, -16.8939, -31.3106, 45.8809, -144.506, -70.4841, 72.6194
6.39264, 56, -16.6814, -31.0859, 45.6947, -144.702, -70.5721, 73.2372
6.39976, 56, -16.4675, -30.8513, 45.5022, -144.903, -70.6688, 73.8592
6.40768, 56, -16.2524, -30.606, 45.3019, -145.108, -70.7746, 74.4834
6.41835, 56, -15.9294, -30.2181, 44.9878, -145.423, -70.951, 75.4243
6.42372, 56, -15.8221, -30.0838, 44.8803, -145.529, -71.0142, 75.7387
6.43414, 57, -15.6069, -29.8072, 44.5472, -145.852, -71.2183, 76.6824
6.43961, 57, -15.3907, -29.5207, 44.4327, -145.961, -71.2908, 76.9969
6.44758, 57, -15.1737, -29.2243, 44.1997, -146.18, -71.4434, 77.6263
6.45565, 57, -14.9561, -28.9181, 43.9605, -146.4, -71.6051, 78.2557
6.46358, 57, -14.7389, -28.6038, 43.7154, -146.622, -71.7763, 78.8827
6.47158, 57, -14.5221, -28.281, 43.4663, -146.845, -71.9561, 79.5076
6.47959, 58, -14.3062, -27.9509, 43.2124, -147.067, -72.1441, 80.1297
6.48764, 58, -14.0915, -27.6129, 42.9551, -147.288, -72.3396, 80.7467
6.49558, 58, -13.8783, -27.2678, 42.6948, -147.508, -72.5427, 81.3577
6.50363, 58, -13.6664, -26.9156, 42.431, -147.727, -72.7529, 81.9634
6.51174, 58, -13.4556, -26.5569, 42.1646, -147.943, -72.9701, 82.5635
6.51976, 59, -13.2461, -26.1908, 41.8943, -148.158, -73.1946, 83.158
6.52775, 59, -13.0385, -25.8178, 41.6204, -148.371, -73.427, 83.7476
6.53567, 59, -12.8325, -25.4378, 41.3432, -148.582, -73.6674, 84.3338
6.54389, 59, -12.6277, -25.0514, 41.062, -148.792, -73.9161, 84.9162
6.55207, 59, -12.4238, -24.6575, 40.7773, -149, -74.1735, 85.4944
6.55975, 60, -12.221, -24.2561, 40.4879, -149.206, -74.4394, 86.0691
6.56921, 60, -12.0197, -23.8473, 40.1953, -149.41, -74.7139, 86.6403
6.57737, 60, -11.8197, -23.4318, 39.8992, -149.612, -74.9968, 87.2079
6.58437, 60, -11.6213, -23.0094, 39.6008, -149.811, -75.2879, 87.7701
6.59163, 60, -11.4251, -22.5816, 39.3002, -150.007, -75.5864, 88.3275
6.59965, 61, -11.231, -22.149, 38.9973, -150.2, -75.892, 88.8795
6.60858, 61, -11.0392, -21.7112, 38.6928, -150.388, -76.204, 89.4247
6.61589, 61, -10.8494, -21.2693, 38.3867, -150.573, -76.5214, 89.9617
6.62488, 61, -10.6617, -20.8235, 38.08, -150.753, -76.8448, 90.4908
6.63189, 61, -10.4763, -20.3739, 37.7719, -150.928, -77.173, 91.0119
6.64034, 62, -10.2934, -19.9207, 37.464, -151.098, -77.506, 91.5244
6.64883, 62, -10.1134, -19.4643, 37.1554, -151.263, -77.8438, 92.0282
6.65612, 62, -9.93606, -19.0056, 36.8471, -151.424, -78.1858, 92.523
6.6651, 62, -9.76153, -18.5441, 36.5383, -151.579, -78.5321, 93.0098
6.67252, 62, -9.58969, -18.081, 36.2304, -151.73, -78.8824, 93.4876
6.68012, 62, -9.42012, -17.6166, 35.9231, -151.875, -79.2366, 93.9569
6.6889, 63, -9.33615, -17.3838, 35.617, -152.015, -79.5947, 94.416
6.69621, 63, -9.16994, -16.9178, 35.4647, -152.083, -79.9558, 94.8654
6.70359, 63, -9.00633, -16.4507, 35.1605, -152.215, -80.1376, 95.0867
6.7116, 63, -8.84526, -15.9826, 34.8578, -152.342, -80.5034, 95.5211
6.71972, 63, -8.68688, -15.5134, 34.5563, -152.463, -80.8715, 95.9452
6.72918, 64, -8.53111, -15.0434, 34.2573, -152.579, -81.2419, 96.3588
6.7356, 64, -8.37792, -14.5731, 33.9599, -152.689, -81.6143, 96.7609
6.74362, 64, -8.22722, -14.1023, 33.6639, -152.794, -81.9886, 97.1523
6.75162, 64, -8.07899, -13.6321, 33.3699, -152.894, -82.3648, 97.5324
6.75957, 64, -7.93326, -13.1629, 33.0774, -152.988, -82.7428, 97.9006
6.76784, 65, -7.7901, -12.695, 32.7879, -153.076, -83.1221, 98.2568
6.77756, 65, -7.64962, -12.2289, 32.3584, -153.199, -83.6927, 98.7673
6.78357, 65, -7.51212, -11.7642, 32.2172, -153.236, -83.8833, 98.9307
6.79458, 65, -7.31109, -11.0694, 31.798, -153.342, -84.455, 99.401
6.79978, 65, -7.24555, -10.8385, 31.6601, -153.373, -84.6458, 99.5509
6.8102, 66, -7.05271, -10.1499, 31.2515, -153.461, -85.2175, 99.9793
6.81558, 66, -6.98945, -9.92159, 31.1168, -153.488, -85.4082, 100.115
6.82357, 66, -6.86447, -9.46825, 30.8505, -153.537, -85.7895, 100.374
6.83164, 66, -6.74167, -9.01954, 30.5874, -153.58, -86.17, 100.618
6.84062, 67, -6.62108, -8.57652, 30.3281, -153.618, -86.5488, 100.846
6.85209, 67, -6.44493, -7.92224, 29.9485, -153.665, -87.1114, 101.156
6.85565, 67, -6.38755, -7.70681, 29.8247, -153.677, -87.2971, 101.25
6.8636, 67, -6.27502, -7.28033, 29.5823, -153.698, -87.6648, 101.426
6.87173, 67, -6.16509, -6.85857, 29.3465, -153.714, -88.0275, 101.584
6.87958, 67, -6.0577, -6.44257, 29.1163, -153.724, -88.3852, 101.724
6.88753, 68, -5.95253, -6.03208, 28.8924, -153.729, -88.7388, 101.846
6.8966, 68, -5.84924, -5.6278, 28.6736, -153.73, -89.0893, 101.951
6.90356, 68, -5.74769, -5.22902, 28.4584, -153.727, -89.4378, 102.038
6.91165, 68, -5.64787, -4.83637, 28.2473, -153.718, -89.7853, 102.108
6.92058, 68, -5.54961, -4.4497, 28.0398, -153.705, -90.1317, 102.158
6.93061, 69, -5.45319, -3.88008, 27.7351, -153.678, -90.6479, 102.2
6.93564, 69, -5.35865, -3.69258, 27.6361, -153.667, -90.819, 102.205
6.94611, 69, -5.26599, -3.32091, 27.4419, -153.64, -91.3272, 102.194
6.95157, 69, -5.17526, -2.95367, 27.2521, -153.609, -91.4949, 102.179
6.95962, 69, -5.08631, -2.59057, 27.0666, -153.574, -91.8278, 102.135
6.96778, 70, -4.99903, -2.23084, 26.8861, -153.536, -92.1574, 102.07
6.97576, 70, -4.91308, -1.87574, 26.7097, -153.494, -92.4847, 101.984
6.98363, 70, -4.82821, -1.52547, 26.5364, -153.448, -92.8107, 101.876
6.99165, 70, -4.74431, -1.18094, 26.3667, -153.399, -93.1356, 101.745
6.99971, 70, -4.66147, -0.84132, 26.2009, -153.347, -93.4598, 101.592
7.00768, 70, -4.57962, -0.507583, 26.0382, -153.291, -93.7828, 101.416
7.01558, 71, -4.49887, -0.179334, 25.8791, -153.233, -94.104, 101.22
7.02362, 71, -4.41912, 0.142871, 25.7247, -153.172, -94.423, 101.001
7.03168, 71, -4.3403, 0.459781, 25.5754, -153.109, -94.7386, 100.761
7.03971, 71, -4.26232, 0.77167, 25.4307, -153.043, -95.051, 100.501
7.04783, 71, -4.18527, 1.0771, 25.2905, -152.976, -95.3599, 100.22
7.05589, 72, -4.10879, 1.37636, 25.1546, -152.907, -95.6656, 99.9192
7.06373, 72, -4.03241, 1.66864, 25.0224, -152.836, -95.9684, 99.5972
7.07163, 72, -3.95622, 1.95432, 24.8936, -152.764, -96.2687, 99.2543
7.0796, 72, -3.88006, 2.23376, 24.7679, -152.692, -96.5666, 98.8906
7.08765, 72, -3.80386, 2.50606, 24.6454, -152.618, -96.8618, 98.5058
7.09591, 73, -3.7278, 2.77205, 24.5262, -152.545, -97.1539, 98.0999
7.104, 73, -3.65159, 3.03145, 24.4106, -152.471, -97.4426, 97.6735
7.11173, 73, -3.57525, 3.28387, 24.299, -152.398, -97.7275, 97.2262
7.12101, 73, -3.49868, 3.52997, 24.1916, -152.325, -98.0083, 96.76
7.12869, 73, -3.42183, 3.76914, 24.0884, -152.253, -98.2848, 96.2745
7.13596, 74, -3.34433, 3.99983, 23.9893, -152.182, -98.5568, 95.7708
7.144, 74, -3.26618, 4.22224, 23.8939, -152.113, -98.8239, 95.2497
7.15207, 74, -3.18728, 4.43619, 23.8024, -152.045, -99.086, 94.7128
7.1601, 74, -3.10767, 4.64042, 23.7149, -151.979, -99.3424, 94.1621
7.16812, 74, -3.02736, 4.83507, 23.6313, -151.916, -99.5927, 93.5974
7.1765, 75, -2.94613, 5.02068, 23.5519, -151.854, -99.8356, 93.0214
7.18415, 75, -2.86394, 5.1965, 23.4764, -151.797, -100.071, 92.4355
7.19217, 75, -2.82244, 5.36163, 23.4049, -151.741, -100.297, 91.8411
7.20503, 75, -2.69663, 5.5898, 23.305, -151.664, -100.62, 90.9345
7.2075, 75, -2.65422, 5.5898, 23.305, -151.664, -100.62, 90.9345
7.21557, 76, -2.56869, 5.72848, 23.2436, -151.617, -100.824, 90.321
7.22462, 76, -2.43858, 5.91505, 23.1596, -151.553, -101.111, 89.3872
7.23157, 76, -2.39471, 5.97141, 23.1339, -151.534, -101.202, 89.0717
7.23961, 76, -2.30642, 6.07507, 23.0855, -151.498, -101.377, 88.4347
7.24656, 76, -2.21735, 6.16634, 23.0416, -151.466, -101.542, 87.7917
7.25575, 77, -2.12743, 6.2448, 23.0026, -151.438, -101.695, 87.1427
7.26361, 77, -2.03659, 6.31018, 22.9686, -151.414, -101.837, 86.49
7.27156, 77, -1.94488, 6.36229, 22.9401, -151.394, -101.966, 85.8372
7.27957, 77, -1.85232, 6.40046, 22.9172, -151.379, -102.08, 85.186
7.28655, 77, -1.75888, 6.42434, 22.9001, -151.367, -102.181, 84.5366
7.29555, 77, -1.66465, 6.43399, 22.8889, -151.359, -102.266, 83.8907
7.3037, 78, -1.56971, 6.42874, 22.8835, -151.354, -102.336, 83.2496
7.31231, 78, -1.47407, 6.40814, 22.8835, -151.352, -102.39, 82.6114
7.31955, 78, -1.37787, 6.37211, 22.8896, -151.353, -102.429, 81.9775
7.3277, 78, -1.28131, 6.32, 22.9019, -151.358, -102.452, 81.3488
7.33553, 78, -1.18446, 6.25154, 22.9205, -151.367, -102.459, 80.7257
7.34364, 79, -1.08742, 6.16666, 22.9462, -151.378, -102.45, 80.1084
7.35258, 79, -0.990263, 6.0655, 22.979, -151.393, -102.421, 79.4979
7.35961, 79, -0.893081, 5.94804, 23.0194, -151.411, -102.376, 78.8969
7.36758, 79, -0.796052, 5.8142, 23.0673, -151.432, -102.312, 78.3046
7.37556, 79, -0.699034, 5.66383, 23.1229, -151.455, -102.23, 77.7222
7.38362, 80, -0.601975, 5.49707, 23.186, -151.481, -102.131, 77.1507
7.39156, 80, -0.504873, 5.31393, 23.2567, -151.508, -102.012, 76.5914
7.40272, 80, -0.40785, 5.1145, 23.3776, -151.552, -101.801, 75.7732
7.41045, 80, -0.310939, 4.89815, 23.422, -151.567, -101.721, 75.2416
7.41564, 80, -0.214166, 4.66361, 23.5168, -151.599, -101.547, 74.9798
7.42354, 81, -0.117544, 4.41182, 23.6203, -151.632, -101.354, 74.4648
7.43171, 81, -0.0212037, 4.14392, 23.7323, -151.666, -101.143, 73.9595
7.43983, 81, 0.0749192, 3.85926, 23.8535, -151.7, -100.913, 73.4633
7.44758, 81, 0.170835, 3.55873, 23.984, -151.736, -100.663, 72.9769
7.45666, 81, 0.266495, 3.24144, 24.124, -151.772, -100.396, 72.5
7.46552, 82, 0.361974, 2.9074, 24.2738, -151.809, -100.109, 72.0331
7.47156, 82, 0.45732, 2.55703, 24.4325, -151.845, -99.804, 71.5758
7.47962, 82, 0.552424, 2.19062, 24.6002, -151.882, -99.4805, 71.1284
7.48758, 82, 0.647441, 1.80806, 24.7774, -151.919, -99.1395, 70.6908
7.49552, 82, 0.742287, 1.4087, 24.9639, -151.955, -98.781, 70.263
7.50373, 83, 0.837039, 0.992786, 25.1596, -151.99, -98.4052, 69.8453
7.51366, 83, 0.931731, 0.561802, 25.3653, -152.025, -98.0126, 69.4361
7.51957, 83, 1.02637, 0.115484, 25.5821, -152.059, -97.6031, 69.036
7.53306, 83, 1.16846, -0.582656, 25.9251, -152.108, -96.9579, 68.4516
7.53667, 83, 1.21587, -0.822775, 26.0444, -152.123, -96.7344, 68.2608
7.54378, 83, 1.3109, -1.31452, 26.2913, -152.154, -96.2753, 67.8856
7.55168, 84, 1.40625, -1.82084, 26.5484, -152.184, -95.7995, 67.5182
7.55971, 84, 1.5017, -2.34072, 26.8164, -152.212, -95.3081, 67.158
7.56811, 84, 1.59753, -2.87464, 27.0949, -152.239, -94.8, 66.8053
7.57594, 84, 1.69364, -3.42225, 27.3837, -152.263, -94.2766, 66.46
7.58544, 84, 1.79023, -3.98315, 27.683, -152.286, -93.7388, 66.1219
7.59765, 85, 1.9357, -4.8477, 28.1499, -152.317, -92.904, 65.6307
7.60115, 85, 1.98439, -5.14117, 28.3103, -152.327, -92.619, 65.4713
7.60653, 85, 2.03319, -5.43724, 28.4727, -152.335, -92.3312, 65.314
7.61608, 85, 2.1805, -6.33896, 28.9735, -152.358, -91.4533, 64.8552
7.62378, 85, 2.27955, -6.94938, 29.3175, -152.369, -90.8559, 64.5615
7.6328, 86, 2.37924, -7.56661, 29.6692, -152.378, -90.2494, 64.2779
7.64038, 86, 2.47978, -8.18943, 30.0275, -152.383, -89.6345, 64.005
7.64964, 86, 2.58136, -8.81845, 30.3922, -152.386, -89.0117, 63.743
7.65598, 86, 2.68365, -9.4536, 30.7625, -152.387, -88.3845, 63.4926
7.66441, 86, 2.78718, -10.0936, 31.1383, -152.384, -87.7529, 63.2537
7.67289, 87, 2.89176, -10.7381, 31.5204, -152.378, -87.1146, 63.026
7.68028, 87, 2.99685, -11.3858, 31.9077, -152.368, -86.4696, 62.8099
7.69015, 87, 3.10291, -12.0366, 32.3005, -152.354, -85.818, 62.6055
7.69616, 87, 3.15619, -12.6898, 32.699, -152.336, -85.1607, 62.4135
7.70412, 87, 3.26304, -13.0173, 32.9004, -152.326, -84.8305, 62.234
7.7115, 88, 3.37046, -13.6739, 33.3072, -152.302, -84.1661, 62.149
7.7196, 88, 3.4785, -14.3325, 33.7186, -152.274, -83.4968, 61.9894
7.72754, 88, 3.58716, -14.9928, 34.1343, -152.243, -82.8242, 61.8438
7.73553, 88, 3.69659, -15.6532, 34.5534, -152.207, -82.1487, 61.713
7.74979, 88, 3.91691, -16.9704, 35.3999, -152.121, -80.7974, 61.4992
7.75159, 89, 3.91691, -16.9704, 35.3999, -152.121, -80.7974, 61.4992
7.75954, 89, 4.02759, -17.6246, 35.8255, -152.071, -80.1223, 61.4185
7.774, 89, 4.24967, -18.9216, 36.6788, -151.956, -78.7719, 61.3113
7.77597, 89, 4.24967, -18.9216, 36.6788, -151.956, -78.7719, 61.3113
7.78403, 89, 4.3612, -19.5641, 37.1054, -151.89, -78.0985, 61.2866
7.79183, 90, 4.47285, -20.2017, 37.5315, -151.82, -77.4292, 61.2807
7.79954, 90, 4.58503, -20.8353, 37.957, -151.744, -76.7613, 61.2973
7.80754, 90, 4.69757, -21.4649, 38.3825, -151.662, -76.0937, 61.3373
7.8156, 90, 4.8099, -22.0906, 38.8082, -151.574, -75.4269, 61.4007
7.82368, 90, 4.92201, -22.7128, 39.2337, -151.481, -74.7618, 61.4885
7.83339, 91, 5.0895, -23.6409, 39.8733, -151.329, -73.7661, 61.6701
7.83954, 91, 5.14521, -23.9488, 40.0868, -151.275, -73.4338, 61.7444
7.84859, 91, 5.25632, -24.5611, 40.5137, -151.161, -72.7687, 61.9149
7.85564, 91, 5.36682, -25.1691, 40.941, -151.041, -72.1025, 62.1147
7.86458, 91, 5.47669, -25.7718, 41.3674, -150.914, -71.435, 62.3451
7.87512, 92, 5.6405, -26.6628, 42.0047, -150.711, -70.4369, 62.7494
7.87854, 92, 5.69505, -26.9561, 42.2161, -150.64, -70.105, 62.9003
7.88759, 92, 5.80445, -27.5358, 42.6363, -150.494, -69.4426, 63.2258
7.8956, 92, 5.91451, -28.1066, 43.0519, -150.343, -68.7833, 63.5827
7.90355, 92, 6.02524, -28.6674, 43.4623, -150.187, -68.1276, 63.9719
7.91153, 92, 6.13706, -29.2166, 43.866, -150.027, -67.4783, 64.3921
7.91963, 93, 6.25032, -29.7539, 44.2626, -149.865, -66.8363, 64.8444
7.93015, 93, 6.42382, -30.5386, 44.8441, -149.619, -65.8838, 65.5817
7.93561, 93, 6.48279, -30.795, 45.0345, -149.537, -65.5688, 65.8432
7.94354, 93, 6.60229, -31.3012, 45.4106, -149.372, -64.942, 66.3917
7.95156, 93, 6.72405, -31.8004, 45.781, -149.207, -64.318, 66.9761
7.9595, 94, 6.84836, -32.2939, 46.1474, -149.042, -63.6952, 67.6007
7.9676, 94, 6.97529, -32.7823, 46.5105, -148.877, -63.0687, 68.2704
7.97553, 94, 7.10456, -33.2649, 46.8719, -148.712, -62.4368, 68.9908
7.98354, 94, 7.23602, -33.7394, 47.231, -148.548, -61.7988, 69.7632
7.99161, 94, 7.3705, -34.2064, 47.5873, -148.388, -61.1539, 70.5876
7.99952, 95, 7.50906, -34.6656, 47.9376, -148.233, -60.5068, 71.4665
8.00754, 95, 7.65262, -35.1147, 48.2803, -148.088, -59.8613, 72.392
8.01563, 95, 7.80195, -35.5531, 48.6124, -147.954, -59.2195, 73.3592
8.02363, 95, 7.95757, -35.9783, 48.9326, -147.834, -58.5845, 74.3655
8.03167, 95, 8.12002, -36.3865, 49.2378, -147.73, -57.9577, 75.4052
8.0399, 95, 8.28937, -36.7757, 49.5276, -147.644, -57.3409, 76.4789
8.04763, 96, 8.46529, -37.1444, 49.8006, -147.577, -56.7382, 77.5831
8.0557, 96, 8.64671, -37.4899, 50.0569, -147.531, -56.1491, 78.7176
8.06363, 96, 8.83294, -37.8102, 50.2961, -147.506, -55.5742, 79.8765
8.07163, 96, 9.02352, -38.1045, 50.5161, -147.499, -55.0161, 81.054
8.08017, 96, 9.21693, -38.374, 50.7166, -147.515, -54.4785, 82.243
8.08757, 97, 9.41174, -38.6181, 50.8975, -147.552, -53.964, 83.4403
8.09564, 97, 9.60694, -38.8376, 51.0576, -147.61, -53.4759, 84.6389
8.10358, 97, 9.8017, -39.033, 51.1974, -147.688, -53.0152, 85.8285
8.11166, 97, 9.99524, -39.2038, 51.3177, -147.783, -52.5841, 87.0038
8.11981, 97, 10.1865, -39.3482, 51.4184, -147.894, -52.1825, 88.1591
8.1278, 97, 10.3743, -39.4669, 51.5002, -148.017, -51.8108, 89.291
8.13628, 98, 10.5591, -39.5603, 51.5639, -148.152, -51.4686, 90.3938
8.14388, 98, 10.7418, -39.6295, 51.6097, -148.298, -51.155, 91.4704
8.15197, 98, 10.9227, -39.6758, 51.6381, -148.454, -50.8684, 92.527
8.16009, 98, 11.102, -39.6992, 51.6492, -148.621, -50.6057, 93.5761
8.16813, 98, 11.2791, -39.6993, 51.6435, -148.801, -50.3646, 94.6273
8.1761, 98, 11.4549, -39.676, 51.6204, -148.994, -50.1433, 95.69
8.18422, 98, 11.6303, -39.6289, 51.5795, -149.199, -49.9427, 96.7682
8.19208, 99, 11.7177, -39.5964, 51.5208, -149.416, -49.7641, 97.8615
8.2003, 99, 11.9772, -39.4648, 51.4435, -149.644, -49.6097, 98.9654
8.20897, 99, 12.0623, -39.4095, 51.398, -149.761, -49.4826, 100.07
8.21553, 99, 12.2301, -39.2822, 51.2931, -150, -49.43, 100.621
8.22353, 99, 12.3934, -39.1324, 51.1705, -150.242, -49.3479, 101.71
8.23164, 99, 12.5506, -38.9605, 51.0309, -150.485, -49.296, 102.781
8.23949, 100, 12.7003, -38.7653, 50.8757, -150.726, -49.2748, 103.823
8.24918, 100, 12.9092, -38.4264, 50.6121, -151.079, -49.3014, 105.337
8.25557, 100, 12.9746, -38.3016, 50.5155, -151.195, -49.326, 105.828
8.26357, 100, 13.0989, -38.0345, 50.3098, -151.421, -49.398, 106.791
8.27152, 100, 13.2152, -37.7453, 50.0868, -151.642, -49.502, 107.733
8.27952, 100, 13.3234, -37.4339, 49.8447, -151.857, -49.6373, 108.653
8.28756, 101, 13.4234, -37.0977, 49.5845, -152.064, -49.804, 109.556
8.29555, 101, 13.5154, -36.7366, 49.3064, -152.265, -50.0019, 110.437
8.30352, 101, 13.5995, -36.3492, 49.0102, -152.456, -50.2309, 111.297
8.3116, 101, 13.6753, -35.9365, 48.6961, -152.638, -50.4911, 112.136
8.31952, 101, 13.7426, -35.4996, 48.3637, -152.811, -50.7827, 112.95
8.33454, 102, 13.8501, -34.5565, 47.6475, -153.121, -51.4627, 114.509
8.33586, 102, 13.8501, -34.5565, 47.6475, -153.121, -51.4627, 114.509
8.34352, 102, 13.8892, -34.0504, 47.2646, -153.257, -51.8513, 115.248
8.35163, 102, 13.9181, -33.5199, 46.8659, -153.38, -52.2715, 115.962
8.36062, 102, 13.9375, -32.9666, 46.4523, -153.489, -52.7237, 116.647
8.36752, 102, 13.948, -32.3918, 46.0252, -153.584, -53.2064, 117.306
8.37582, 103, 13.9507, -31.7957, 45.5843, -153.665, -53.7168, 117.938
8.38456, 103, 13.9464, -31.1802, 45.1297, -153.733, -54.2536, 118.544
8.39153, 103, 13.9357, -30.5465, 44.6628, -153.788, -54.8148, 119.125
8.39958, 103, 13.9192, -29.8964, 44.1847, -153.829, -55.3974, 119.681
8.40752, 103, 13.8973, -29.231, 43.6972, -153.858, -55.9993, 120.212
8.41552, 103, 13.8705, -28.5521, 43.2019, -153.876, -56.6188, 120.719
8.42362, 104, 13.8393, -27.8623, 42.7006, -153.883, -57.2519, 121.199
8.43153, 104, 13.8041, -27.1632, 42.1953, -153.881, -57.8973, 121.655
8.43952, 104, 13.765, -26.4568, 41.6873, -153.867, -58.5564, 122.09
8.44758, 104, 13.7227, -25.7442, 41.1772, -153.845, -59.2274, 122.503
8.45553, 104, 13.6781, -25.0281, 40.6665, -153.814, -59.9085, 122.898
8.46353, 104, 13.6317, -24.3098, 40.1558, -153.776, -60.5963, 123.278
8.47159, 104, 13.5837, -23.5892, 39.6455, -153.73, -61.2896, 123.646
8.47952, 104, 13.534, -22.8671, 39.1363, -153.681, -61.9877, 124.007
8.48752, 104, 13.4835, -22.1443, 38.6283, -153.625, -62.6889, 124.362
8.49558, 104, 13.4324, -21.4205, 38.1222, -153.564, -63.3921, 124.714
8.50353, 104, 13.3806, -20.6972, 37.6174, -153.5, -64.0958, 125.064
8.5116, 104, 13.3286, -19.9742, 37.1142, -153.43, -64.7997, 125.412
8.51954, 104, 13.2764, -19.2509, 36.6129, -153.358, -65.5057, 125.758
8.52755, 104, 13.2241, -18.5271, 36.1134, -153.281, -66.2125, 126.104
8.53565, 104, 13.172, -17.8032, 35.6163, -153.2, -66.9205, 126.449
8.54363, 104, 13.1201, -17.0789, 35.1217, -153.115, -67.6285, 126.794
8.55163, 104, 13.0684, -16.3546, 34.6286, -153.026, -68.3355, 127.138
8.55968, 104, 13.0172, -15.6303, 34.1379, -152.934, -69.0448, 127.482
8.56762, 104, 12.9664, -14.9057, 33.6495, -152.837, -69.7553, 127.825
8.57562, 104, 12.9157, -14.1804, 33.1634, -152.737, -70.4665, 128.168
8.58372, 104, 12.8656, -13.4549, 32.68, -152.633, -71.1765, 128.512
8.59158, 104, 12.8158, -12.7292, 32.1993, -152.525, -71.8867, 128.856
8.59961, 104, 12.7661, -12.0036, 31.7211, -152.413, -72.5992, 129.2
8.60781, 104, 12.7169, -11.2784, 31.2454, -152.297, -73.3117, 129.545
8.61563, 104, 12.668, -10.5533, 30.7721, -152.177, -74.0245, 129.891
8.6237, 104, 12.6194, -9.82761, 30.302, -152.054, -74.7373, 130.237
8.63187, 104, 12.5712, -9.1021, 29.8351, -151.926, -75.45, 130.584
8.6398, 104, 12.5236, -8.37612, 29.3711, -151.794, -76.1643, 130.932
8.648, 104, 12.4764, -7.64996, 28.9104, -151.658, -76.879, 131.281
8.65603, 104, 12.4297, -6.92461, 28.453, -151.518, -77.5945, 131.631
8.66399, 104, 12.3838, -6.19948, 27.9986, -151.374, -78.3092, 131.983
8.6729, 104, 12.3383, -5.47504, 27.5481, -151.226, -79.0227, 132.335
8.68011, 104, 12.2934, -4.7515, 27.1013, -151.073, -79.7373, 132.688
8.68808, 104, 12.2495, -4.02937, 26.659, -150.916, -80.4524, 133.043
8.69633, 104, 12.2067, -3.31061, 26.2221, -150.756, -81.1657, 133.399
8.70416, 104, 12.1856, -2.59716, 25.7902, -150.592, -81.875, 133.755
8.71204, 104, 12.1445, -2.24258, 25.5764, -150.508, -82.2283, 133.934
8.71951, 104, 12.1046, -1.53882, 25.1542, -150.339, -82.9321, 134.289
8.72757, 104, 12.0657, -0.843659, 24.7406, -150.167, -83.6293, 134.643
8.73554, 104, 12.0279, -0.158113, 24.3361, -149.993, -84.3176, 134.994
8.74352, 104, 11.9909, 0.517057, 23.942, -149.818, -84.9939, 135.342
8.75157, 104, 11.9551, 1.18062, 23.56, -149.642, -85.656, 135.684
8.75954, 104, 11.9204, 1.83094, 23.1902, -149.466, -86.3039, 136.022
8.76752, 104, 11.887, 2.46666, 22.8334, -149.29, -86.9371, 136.353
8.77555, 104, 11.8544, 3.08634, 22.4884, -149.115, -87.5542, 136.677
8.78351, 104, 11.8232, 3.68986, 22.157, -148.941, -88.1553, 136.995
8.79152, 104, 11.7933, 4.27669, 21.8381, -148.768, -88.7388, 137.306
8.79957, 104, 11.7645, 4.84713, 21.5318, -148.596, -89.305, 137.61
8.80751, 104, 11.7373, 5.40063, 21.2368, -148.426, -89.8552, 137.908
8.81556, 104, 11.711, 5.93649, 20.9539, -148.258, -90.3895, 138.198
8.82353, 104, 11.6859, 6.45553, 20.683, -148.093, -90.9076, 138.481
8.83151, 104, 11.662, 6.95797, 20.4235, -147.929, -91.4094, 138.757
8.8405, 104, 11.6392, 7.44334, 20.1758, -147.768, -91.8935, 139.025
8.84752, 104, 11.6177, 7.91233, 19.9388, -147.61, -92.3609, 139.285
8.85652, 104, 11.5972, 8.36449, 19.7126, -147.456, -92.8118, 139.538
8.86359, 104, 11.578, 8.79971, 19.4977, -147.304, -93.246, 139.783
8.87151, 104, 11.5598, 9.21723, 19.2931, -147.157, -93.6637, 140.02
8.87952, 104, 11.5427, 9.61784, 19.0986, -147.013, -94.0641, 140.248
8.88756, 104, 11.5268, 10.0003, 18.9151, -146.874, -94.4474, 140.468
8.89552, 104, 11.5118, 10.3641, 18.7422, -146.739, -94.8124, 140.678
8.90353, 104, 11.498, 10.7086, 18.5792, -146.609, -95.1591, 140.879
8.91156, 104, 11.4851, 11.0341, 18.427, -146.486, -95.4863, 141.069
8.91953, 104, 11.4732, 11.3391, 18.2859, -146.369, -95.7931, 141.249
8.92754, 104, 11.4623, 11.6237, 18.1553, -146.258, -96.0796, 141.416
8.93556, 104, 11.4526, 11.8874, 18.0351, -146.155, -96.3446, 141.572
8.94352, 104, 11.4436, 12.1295, 17.9257, -146.06, -96.5881, 141.716
8.9515, 104, 11.4353, 12.3506, 17.8268, -145.972, -96.8096, 141.848
8.95958, 104, 11.4278, 12.551, 17.7381, -145.892, -97.0091, 141.967
8.96751, 104, 11.421, 12.73, 17.6599, -145.821, -97.1866, 142.073
8.9755, 104, 11.4151, 12.8881, 17.5917, -145.759, -97.3421, 142.165
8.98357, 104, 11.4097, 13.0264, 17.5333, -145.704, -97.4757, 142.246
8.99154, 104, 11.4047, 13.1456, 17.4842, -145.659, -97.5883, 142.313
8.99957, 104, 11.4002, 13.2464, 17.444, -145.622, -97.6803, 142.368
9.00756, 104, 11.3961, 13.3298, 17.4118, -145.591, -97.7541, 142.412
9.01552, 104, 11.3923, 13.3982, 17.387, -145.568, -97.8103, 142.447
9.02355, 104, 11.3889, 13.4533, 17.3687, -145.55, -97.8517, 142.472
9.03159, 104, 11.386, 13.4965, 17.3556, -145.538, -97.8812, 142.49
9.03959, 104, 11.3837, 13.529, 17.3469, -145.53, -97.9013, 142.501
9.04763, 104, 11.3818, 13.5533, 17.3414, -145.524, -97.9141, 142.508
9.05567, 104, 11.3803, 13.571, 17.3381, -145.521, -97.9215, 142.512
9.06361, 104, 11.3791, 13.5831, 17.3363, -145.52, -97.9254, 142.514
9.0716, 104, 11.3783, 13.5912, 17.3354, -145.519, -97.9273, 142.515
9.07967, 105, 11.3776, 13.5966, 17.335, -145.519, -97.9282, 142.515
9.0876, 105, 11.3772, 13.6001, 17.3347, -145.518, -97.9286, 142.516
9.09558, 105, 11.3769, 13.6026, 17.3347, -145.518, -97.9288, 142.516
9.1036, 105, 11.3766, 13.6047, 17.3346, -145.518, -97.9288, 142.516
9.11155, 105, 11.3764, 13.6064, 17.3346, -145.518, -97.9288, 142.516
9.11969, 105, 11.3762, 13.6079, 17.3346, -145.518, -97.9288, 142.516
9.12775, 105, 11.3761, 13.6093, 17.3346, -145.518, -97.9288, 142.516
9.13577, 105, 11.376, 13.6104, 17.3346, -145.518, -97.9287, 142.516
9.14387, 105, 11.376, 13.6113, 17.3347, -145.518, -97.9286, 142.516
9.15194, 105, 11.3759, 13.6121, 17.3347, -145.518, -97.9285, 142.516
9.15992, 105, 11.3759, 13.6127, 17.3347, -145.518, -97.9284, 142.516
9.16863, 105, 11.3759, 13.6131, 17.3347, -145.519, -97.9282, 142.516
9.17614, 105, 11.3759, 13.6133, 17.3348, -145.519, -97.928, 142.516
9.18407, 105, 11.3759, 13.6134, 17.3348, -145.519, -97.9279, 142.516
9.19207, 105, 11.3759, 13.6135, 17.3349, -145.519, -97.9278, 142.516
