hehonglu123/Motion-Primitive-Planning/ILC/recorded_data/realrobot/wood/iteration_29/run_4.csv
timestamp, cmd_num, J1, J2, J3, J4, J5, J6
0.000444, -1, 11.3762, 13.6178, 17.3312, -145.52, -97.9267, 142.517
0.004408, -1, 11.3762, 13.6177, 17.3312, -145.52, -97.9267, 142.517
0.007809, -1, 11.3762, 13.6177, 17.3312, -145.52, -97.9267, 142.517
0.028557, -1, 11.3763, 13.6178, 17.3312, -145.52, -97.9267, 142.517
0.031289, -1, 11.3762, 13.6178, 17.3312, -145.52, -97.9267, 142.517
0.034531, -1, 11.3762, 13.6178, 17.3312, -145.52, -97.9267, 142.517
0.039752, -1, 11.3762, 13.6178, 17.3312, -145.52, -97.9267, 142.517
0.047775, -1, 11.3762, 13.6178, 17.3312, -145.52, -97.9267, 142.517
0.055786, -1, 11.376, 13.6178, 17.3312, -145.52, -97.9267, 142.517
0.193341, -1, 10.1924, 13.3048, 17.4081, -145.89, -97.8003, 140.378
0.19541, -1, 10.1172, 13.2845, 17.4131, -145.914, -97.792, 140.239
0.196653, -1, 10.1172, 13.2845, 17.4131, -145.914, -97.792, 140.239
0.198015, -1, 10.1172, 13.2845, 17.4131, -145.914, -97.792, 140.239
0.200832, -1, 10.0413, 13.264, 17.4181, -145.937, -97.7836, 140.1
0.202035, -1, 10.0413, 13.264, 17.4181, -145.937, -97.7836, 140.1
0.204821, -1, 9.96475, 13.2434, 17.4232, -145.961, -97.7751, 139.961
0.207861, -1, 9.88756, 13.2227, 17.4282, -145.985, -97.7664, 139.822
0.209112, -1, 9.88756, 13.2227, 17.4282, -145.985, -97.7664, 139.822
0.211158, -1, 9.88756, 13.2227, 17.4282, -145.985, -97.7664, 139.822
0.212636, -1, 9.80997, 13.202, 17.4332, -146.01, -97.7578, 139.682
0.213852, -1, 9.80997, 13.202, 17.4332, -146.01, -97.7578, 139.682
0.215972, -1, 9.73219, 13.1812, 17.4383, -146.033, -97.7491, 139.542
0.217195, -1, 9.73219, 13.1812, 17.4383, -146.033, -97.7491, 139.542
0.219151, -1, 9.65443, 13.1605, 17.4433, -146.057, -97.7405, 139.402
0.221505, -1, 9.65443, 13.1605, 17.4433, -146.057, -97.7405, 139.402
0.223314, -1, 9.5768, 13.1399, 17.4484, -146.081, -97.732, 139.262
0.225592, -1, 9.5768, 13.1399, 17.4484, -146.081, -97.732, 139.262
0.228245, -1, 9.49928, 13.1193, 17.4534, -146.105, -97.7235, 139.123
0.229535, -1, 9.49928, 13.1193, 17.4534, -146.105, -97.7235, 139.123
0.231504, -1, 9.42189, 13.0986, 17.4583, -146.129, -97.7151, 138.983
0.232858, -1, 9.42189, 13.0986, 17.4583, -146.129, -97.7151, 138.983
0.241725, -1, 9.26732, 13.0575, 17.4683, -146.177, -97.6984, 138.703
0.248546, -1, 9.11312, 13.0163, 17.4783, -146.225, -97.6816, 138.423
0.255893, -1, 8.95941, 12.9752, 17.4884, -146.273, -97.6649, 138.143
0.263788, -1, 8.80573, 12.9342, 17.4986, -146.321, -97.6478, 137.863
0.273041, -1, 8.65241, 12.8931, 17.5087, -146.369, -97.6305, 137.583
0.279841, -1, 8.49954, 12.8519, 17.5188, -146.417, -97.613, 137.303
0.287893, -1, 8.34678, 12.8106, 17.529, -146.465, -97.5956, 137.023
0.295897, -1, 8.19359, 12.7691, 17.5393, -146.513, -97.5784, 136.743
0.304047, -1, 8.03995, 12.7275, 17.5494, -146.561, -97.5615, 136.463
0.310677, -1, 7.96295, 12.7066, 17.5546, -146.585, -97.5531, 136.323
0.320179, -1, 7.73094, 12.644, 17.5698, -146.656, -97.5281, 135.902
0.328302, -1, 7.57601, 12.6023, 17.5799, -146.705, -97.5114, 135.622
0.337001, -1, 7.42097, 12.5607, 17.5902, -146.753, -97.4945, 135.341
0.34423, -1, 7.26592, 12.5192, 17.6004, -146.8, -97.4772, 135.061
0.352427, -1, 7.11104, 12.4776, 17.6107, -146.849, -97.4598, 134.78
0.361101, -1, 6.95593, 12.4362, 17.621, -146.897, -97.4426, 134.5
0.366747, -1, 6.87833, 12.4156, 17.6261, -146.921, -97.4341, 134.36
0.376351, -1, 6.72335, 12.3743, 17.6365, -146.969, -97.4088, 133.94
0.385267, -1, 6.56865, 12.333, 17.6469, -147.041, -97.3921, 133.659
0.391672, -1, 6.4142, 12.2917, 17.6573, -147.065, -97.3838, 133.519
0.399736, -1, 6.25992, 12.2503, 17.6677, -147.113, -97.3669, 133.239
0.407674, -1, 6.10569, 12.2088, 17.678, -147.162, -97.3498, 132.958
0.414777, -1, 5.95124, 12.1674, 17.6883, -147.209, -97.3324, 132.677
0.423674, -1, 5.7966, 12.1258, 17.6987, -147.257, -97.3148, 132.396
0.431672, -1, 5.64183, 12.084, 17.7089, -147.306, -97.2974, 132.116
0.438682, -1, 5.48679, 12.0423, 17.7191, -147.354, -97.2803, 131.835
0.44768, -1, 5.33153, 12.0006, 17.7295, -147.402, -97.2633, 131.553
0.455772, -1, 5.17606, 11.9589, 17.7398, -147.45, -97.2466, 131.272
0.46372, -1, 5.0203, 11.9172, 17.7502, -147.498, -97.2298, 130.991
0.471674, -1, 4.86456, 11.8756, 17.7607, -147.546, -97.2128, 130.71
0.479681, -1, 4.70891, 11.834, 17.7712, -147.595, -97.1956, 130.429
0.48774, -1, 4.55319, 11.7925, 17.7816, -147.643, -97.1781, 130.148
0.495668, -1, 4.39749, 11.751, 17.792, -147.691, -97.1607, 129.867
0.506092, -1, 4.24203, 11.7095, 17.8024, -147.739, -97.1435, 129.586
0.510748, -1, 4.08693, 11.6681, 17.8129, -147.787, -97.1265, 129.305
0.647477, -1, 1.44176, 10.959, 17.9898, -148.609, -96.8353, 124.517
0.648703, -1, 1.44176, 10.959, 17.9898, -148.609, -96.8353, 124.517
0.650558, -1, 1.44176, 10.959, 17.9898, -148.609, -96.8269, 124.376
0.651921, -1, 1.36379, 10.9382, 17.995, -148.633, -96.8269, 124.376
0.653125, -1, 1.36379, 10.9382, 17.995, -148.633, -96.8269, 124.376
0.655201, -1, 1.28588, 10.9173, 18.0002, -148.657, -96.8184, 124.235
0.656578, -1, 1.28588, 10.9173, 18.0002, -148.657, -96.8184, 124.235
0.661718, -1, 1.20805, 10.8965, 18.0054, -148.681, -96.81, 124.094
0.66448, -1, 1.13032, 10.8755, 18.0106, -148.706, -96.8016, 123.952
0.665756, -1, 1.13032, 10.8755, 18.0106, -148.706, -96.8016, 123.952
0.667952, -1, 1.0527, 10.8547, 18.0158, -148.73, -96.7931, 123.811
0.669231, -1, 1.0527, 10.8547, 18.0158, -148.73, -96.7931, 123.811
0.671198, -1, 0.975148, 10.8338, 18.021, -148.754, -96.7846, 123.67
0.672528, -1, 0.975148, 10.8338, 18.021, -148.754, -96.7846, 123.67
0.673726, -1, 0.975148, 10.8338, 18.021, -148.754, -96.7846, 123.67
0.676372, -1, 0.897632, 10.8129, 18.0262, -148.779, -96.776, 123.529
0.677731, -1, 0.897632, 10.8129, 18.0262, -148.779, -96.776, 123.529
0.679786, -1, 0.820198, 10.792, 18.0314, -148.803, -96.7673, 123.388
0.681076, -1, 0.820198, 10.792, 18.0314, -148.803, -96.7673, 123.388
0.682878, -1, 0.742818, 10.7711, 18.0366, -148.827, -96.7586, 123.247
0.68514, -1, 0.742818, 10.7711, 18.0366, -148.827, -96.7586, 123.247
0.689666, -1, 0.66548, 10.7502, 18.0418, -148.851, -96.7498, 123.106
0.695699, -1, 0.510863, 10.7083, 18.0522, -148.9, -96.7322, 122.823
0.703732, -1, 0.355899, 10.6665, 18.0626, -148.948, -96.7148, 122.54
0.712061, -1, 0.200594, 10.6246, 18.073, -148.996, -96.6977, 122.257
0.719855, -1, 0.0448088, 10.5827, 18.0835, -149.045, -96.6808, 121.975
0.727778, -1, -0.111345, 10.5409, 18.0941, -149.093, -96.6639, 121.692
0.73622, -1, -0.267834, 10.499, 18.1046, -149.142, -96.6472, 121.409
0.743407, -1, -0.34619, 10.478, 18.1098, -149.191, -96.6303, 121.126
0.751766, -1, -0.581818, 10.4152, 18.1255, -149.239, -96.6131, 120.844
0.760435, -1, -0.739022, 10.3733, 18.1359, -149.287, -96.5956, 120.561
0.767704, -1, -0.896393, 10.3314, 18.1463, -149.336, -96.5781, 120.278
0.775717, -1, -1.05373, 10.2896, 18.1567, -149.384, -96.5609, 119.995
0.784642, -1, -1.21084, 10.2477, 18.1671, -149.433, -96.544, 119.712
0.791962, -1, -1.36782, 10.2058, 18.1775, -149.482, -96.5272, 119.429
0.798784, -1, -1.44626, 10.1849, 18.1827, -149.506, -96.5188, 119.287
0.808799, -1, -1.68105, 10.1221, 18.1984, -149.579, -96.4935, 118.862
0.816055, -1, -1.83691, 10.0802, 18.2089, -149.628, -96.4762, 118.579
0.822663, -1, -1.91472, 10.0592, 18.2141, -149.652, -96.4675, 118.437
0.832976, -1, -2.14769, 9.99638, 18.2299, -149.725, -96.4411, 118.012
0.84034, -1, -2.30287, 9.95449, 18.2402, -149.774, -96.4236, 117.728
0.848224, -1, -2.45825, 9.91252, 18.2507, -149.822, -96.4065, 117.445
0.857095, -1, -2.61388, 9.87055, 18.2612, -149.871, -96.3895, 117.161
0.864212, -1, -2.69182, 9.82859, 18.2715, -149.919, -96.3727, 116.877
0.872272, -1, -2.84802, 9.8076, 18.282, -149.968, -96.3558, 116.594
0.881037, -1, -3.00463, 9.76561, 18.2872, -149.992, -96.3474, 116.452
0.887732, -1, -3.16164, 9.72367, 18.2975, -150.041, -96.3302, 116.168
0.895725, -1, -3.31905, 9.68166, 18.308, -150.089, -96.3127, 115.884
0.903661, -1, -3.47684, 9.63963, 18.3185, -150.138, -96.2951, 115.6
0.910782, -1, -3.63463, 9.59769, 18.329, -150.187, -96.2776, 115.316
0.919723, -1, -3.79254, 9.55579, 18.3394, -150.235, -96.2604, 115.032
0.927665, -1, -3.95053, 9.51372, 18.3498, -150.284, -96.2434, 114.747
0.934665, -1, -4.10841, 9.47174, 18.3602, -150.333, -96.2264, 114.463
0.943655, -1, -4.26621, 9.42977, 18.3706, -150.382, -96.2094, 114.179
0.951658, -1, -4.42388, 9.38774, 18.381, -150.43, -96.1922, 113.894
0.959725, -1, -4.58119, 9.34572, 18.3913, -150.48, -96.1747, 113.609
0.96765, -1, -4.73795, 9.30365, 18.4017, -150.528, -96.1569, 113.325
0.975658, -1, -4.8943, 9.26156, 18.4122, -150.577, -96.1392, 113.04
0.983745, -1, -5.05045, 9.21947, 18.4228, -150.626, -96.1219, 112.755
0.99165, -1, -5.20635, 9.1774, 18.4333, -150.675, -96.1048, 112.47
0.999669, -1, -5.36225, 9.13524, 18.4439, -150.723, -96.0878, 112.186
1.00866, -1, -5.51833, 9.09305, 18.4544, -150.773, -96.0709, 111.901
1.01565, -1, -5.67461, 9.05098, 18.4648, -150.821, -96.0538, 111.616
1.02467, -1, -5.83131, 9.00878, 18.4753, -150.87, -96.0365, 111.331
1.03172, -1, -5.98845, 8.96656, 18.4857, -150.919, -96.0191, 111.047
1.03967, -1, -6.14611, 8.92442, 18.4961, -150.968, -96.0014, 110.761
1.04767, -1, -6.30427, 8.88225, 18.5065, -151.017, -95.984, 110.476
1.05583, -1, -6.46266, 8.84014, 18.5168, -151.066, -95.9668, 110.191
1.06365, -1, -6.62112, 8.79804, 18.5273, -151.114, -95.9497, 109.906
1.07166, -1, -6.77977, 8.75586, 18.5379, -151.164, -95.9328, 109.62
1.07983, -1, -6.9384, 8.71367, 18.5484, -151.213, -95.9157, 109.334
1.08765, -1, -7.09695, 8.67156, 18.5589, -151.261, -95.8984, 109.049
1.09567, -1, -7.25542, 8.62938, 18.5693, -151.311, -95.8809, 108.763
1.10372, -1, -7.41367, 8.5871, 18.5797, -151.36, -95.863, 108.477
1.11165, -1, -7.57147, 8.54482, 18.5903, -151.409, -95.8454, 108.192
1.11969, -1, -7.7289, 8.50248, 18.6008, -151.458, -95.828, 107.906
1.12772, -1, -7.88605, 8.4602, 18.6112, -151.507, -95.8109, 107.62
1.13565, -1, -8.04283, 8.41786, 18.6217, -151.556, -95.794, 107.334
1.14429, -1, -8.19938, 8.37551, 18.6321, -151.605, -95.777, 107.048
1.15165, -1, -8.35598, 8.33315, 18.6426, -151.654, -95.7599, 106.763
1.15966, -1, -8.51281, 8.29073, 18.6532, -151.703, -95.7426, 106.477
1.16843, -1, -8.66996, 8.24842, 18.6638, -151.752, -95.7249, 106.19
1.17565, -1, -8.82745, 8.20615, 18.6742, -151.801, -95.7073, 105.904
1.18365, -1, -8.98533, 8.16373, 18.6846, -151.85, -95.6898, 105.618
1.19244, -1, -9.14364, 8.12146, 18.6951, -151.9, -95.6725, 105.331
1.1997, -1, -9.30241, 8.07917, 18.7056, -151.949, -95.6553, 105.045
1.20786, -1, -9.4614, 8.03675, 18.716, -151.997, -95.6383, 104.758
1.21653, -1, -9.6205, 7.99445, 18.7266, -152.047, -95.6212, 104.471
1.22382, -1, -9.77967, 7.95223, 18.737, -152.096, -95.6037, 104.184
1.23177, -1, -9.93906, 7.90987, 18.7476, -152.145, -95.586, 103.897
1.24054, -1, -10.0984, 7.86746, 18.7583, -152.195, -95.5681, 103.61
1.24775, -1, -10.2575, 7.82496, 18.7689, -152.244, -95.5503, 103.324
1.25566, -1, -10.4166, 7.78245, 18.7795, -152.293, -95.5329, 103.037
1.26456, -1, -10.5753, 7.73996, 18.79, -152.343, -95.5158, 102.75
1.2717, -1, -10.7336, 7.69749, 18.8005, -152.392, -95.4988, 102.463
1.27974, -1, -10.8916, 7.6549, 18.811, -152.441, -95.4818, 102.176
1.2887, -1, -11.0493, 7.61233, 18.8215, -152.491, -95.4646, 101.889
1.29585, -1, -11.2067, 7.56988, 18.8319, -152.54, -95.447, 101.601
1.30394, -1, -11.3641, 7.5274, 18.8425, -152.589, -95.4292, 101.314
1.3129, -1, -11.5217, 7.4849, 18.8529, -152.638, -95.4114, 101.026
1.32006, -1, -11.6794, 7.44243, 18.8635, -152.687, -95.3939, 100.739
1.32664, -1, -11.7584, 7.42123, 18.8689, -152.712, -95.3853, 100.595
1.33619, -1, -11.996, 7.35761, 18.8848, -152.786, -95.3594, 100.163
1.3427, -1, -12.0754, 7.33641, 18.8901, -152.811, -95.3509, 100.019
1.35221, -1, -12.3144, 7.27279, 18.9059, -152.885, -95.325, 99.5873
1.36029, -1, -12.4741, 7.23032, 18.9164, -152.935, -95.3074, 99.2992
1.36828, -1, -12.634, 7.18792, 18.927, -152.984, -95.2894, 99.0113
1.37617, -1, -12.7139, 7.16669, 18.9323, -153.009, -95.2804, 98.7235
1.38364, -1, -12.8741, 7.12421, 18.9429, -153.058, -95.2625, 98.5795
1.39169, -1, -13.0342, 7.08165, 18.9534, -153.108, -95.2449, 98.2913
1.39965, -1, -13.1941, 7.03904, 18.964, -153.157, -95.2276, 98.0031
1.40764, -1, -13.3539, 6.99641, 18.9746, -153.207, -95.2105, 97.7149
1.41574, -1, -13.5133, 6.95368, 18.9852, -153.256, -95.1933, 97.4264
1.42364, -1, -13.6725, 6.91089, 18.9958, -153.305, -95.176, 97.1377
1.43165, -1, -13.8315, 6.86819, 19.0064, -153.355, -95.1586, 96.8492
1.43966, -1, -13.9902, 6.82549, 19.0169, -153.404, -95.1407, 96.5607
1.44764, -1, -14.1484, 6.78279, 19.0275, -153.454, -95.123, 96.2719
1.45576, -1, -14.3066, 6.74017, 19.0381, -153.503, -95.1053, 95.9829
1.46364, -1, -14.4648, 6.69744, 19.0485, -153.552, -95.088, 95.694
1.47164, -1, -14.6232, 6.65477, 19.0591, -153.602, -95.0707, 95.4049
1.4797, -1, -14.7821, 6.61225, 19.0697, -153.652, -95.0536, 95.1155
1.48764, -1, -14.9412, 6.56962, 19.0803, -153.701, -95.0363, 94.8262
1.49564, -1, -15.1007, 6.52692, 19.0911, -153.751, -95.0187, 94.5371
1.5037, -1, -15.2607, 6.48434, 19.1018, -153.801, -95.0008, 94.2481
1.51327, -1, -15.421, 6.44169, 19.1125, -153.85, -94.9828, 93.9587
1.51966, -1, -15.5816, 6.39896, 19.1232, -153.9, -94.965, 93.6694
1.52773, -1, -15.7423, 6.35623, 19.1337, -153.95, -94.9475, 93.3802
1.53575, -1, -15.9031, 6.31337, 19.1444, -153.999, -94.9302, 93.0908
1.54465, -1, -16.064, 6.27044, 19.1551, -154.049, -94.913, 92.801
1.5517, -1, -16.2248, 6.22759, 19.1656, -154.099, -94.8959, 92.5113
1.55965, -1, -16.3854, 6.18461, 19.1762, -154.148, -94.8784, 92.2218
1.5677, -1, -16.5458, 6.14159, 19.1867, -154.198, -94.8608, 91.9321
1.57564, -1, -16.706, 6.09862, 19.1973, -154.247, -94.8429, 91.6418
1.58364, -1, -16.8656, 6.05559, 19.208, -154.297, -94.8251, 91.3516
1.5917, -1, -17.025, 6.01262, 19.2186, -154.347, -94.8075, 91.0616
1.59969, -1, -17.1842, 5.96965, 19.2293, -154.397, -94.7901, 90.7714
1.60765, -1, -17.3433, 5.92673, 19.2398, -154.446, -94.7728, 90.4808
1.6157, -1, -17.5024, 5.88393, 19.2505, -154.496, -94.7555, 90.1906
1.62371, -1, -17.6618, 5.8411, 19.2613, -154.546, -94.738, 89.9004
1.63165, -1, -17.8212, 5.79827, 19.2719, -154.596, -94.7203, 89.61
1.63971, -1, -17.981, 5.75548, 19.2826, -154.646, -94.7022, 89.3194
1.64764, -1, -18.1413, 5.71266, 19.2932, -154.695, -94.6841, 89.029
1.65565, -1, -18.302, 5.66986, 19.3039, -154.745, -94.6664, 88.7385
1.6637, -1, -18.4632, 5.62702, 19.3147, -154.796, -94.6488, 88.4475
1.67164, -1, -18.6247, 5.58403, 19.3254, -154.845, -94.6314, 88.1564
1.67991, -1, -18.7863, 5.54103, 19.3361, -154.895, -94.6143, 87.8657
1.68764, -1, -18.948, 5.49802, 19.3466, -154.946, -94.5969, 87.5747
1.69566, -1, -19.1096, 5.45486, 19.3572, -154.995, -94.5792, 87.2835
1.70397, -1, -19.2711, 5.4117, 19.3679, -155.045, -94.5612, 86.9919
1.71171, -1, -19.4326, 5.36855, 19.3785, -155.095, -94.5431, 86.7006
1.71978, -1, -19.5936, 5.32533, 19.3891, -155.145, -94.5252, 86.409
1.7282, -1, -19.7544, 5.28213, 19.3998, -155.195, -94.5076, 86.1171
1.73575, -1, -19.915, 5.23897, 19.4104, -155.245, -94.4901, 85.8256
1.74374, -1, -20.0752, 5.19577, 19.4212, -155.295, -94.4727, 85.5341
1.75181, -1, -20.235, 5.15271, 19.432, -155.345, -94.4552, 85.2424
1.75982, -1, -20.3948, 5.10977, 19.4429, -155.395, -94.4375, 84.9505
1.76766, -1, -20.5549, 5.06663, 19.4537, -155.445, -94.4195, 84.6588
1.77573, -1, -20.715, 5.02364, 19.4644, -155.496, -94.4014, 84.3671
1.78375, -1, -20.8756, 4.98068, 19.4751, -155.546, -94.3835, 84.0751
1.79186, -1, -21.0364, 4.93759, 19.4858, -155.595, -94.3659, 83.7828
1.79997, -1, -21.1977, 4.89449, 19.4965, -155.646, -94.3486, 83.4908
1.80806, -1, -21.3594, 4.85132, 19.5072, -155.696, -94.3314, 83.1988
1.81595, -1, -21.5215, 4.80805, 19.5178, -155.746, -94.3141, 82.9063
1.82412, -1, -21.6837, 4.76484, 19.5286, -155.797, -94.2966, 82.6136
1.83212, -1, -21.846, 4.72153, 19.5394, -155.847, -94.2787, 82.3211
1.84018, -1, -22.0085, 4.6781, 19.5501, -155.897, -94.2606, 82.0284
1.84821, -1, -22.1711, 4.63473, 19.5609, -155.947, -94.2427, 81.7356
1.85644, -1, -22.3335, 4.59134, 19.5716, -155.997, -94.225, 81.4428
1.86422, -1, -22.4958, 4.5479, 19.5823, -156.048, -94.2076, 81.1504
1.87226, -1, -22.6576, 4.5045, 19.593, -156.098, -94.1901, 80.8576
1.8804, -1, -22.7384, 4.48278, 19.6037, -156.148, -94.1726, 80.5647
1.88762, -1, -22.8997, 4.43936, 19.6091, -156.173, -94.1637, 80.4181
1.89563, -1, -23.0608, 4.39605, 19.6198, -156.223, -94.1459, 80.1254
1.90363, -1, -23.2219, 4.35271, 19.6304, -156.274, -94.1277, 79.8324
1.91167, -1, -23.3827, 4.30937, 19.6413, -156.324, -94.1095, 79.539
1.9198, -1, -23.5436, 4.26612, 19.6522, -156.375, -94.0914, 79.2455
1.92763, -1, -23.7046, 4.22281, 19.663, -156.425, -94.0736, 78.9523
1.93569, -1, -23.8658, 4.17955, 19.6738, -156.475, -94.056, 78.6587
1.94363, -1, -24.0272, 4.13621, 19.6844, -156.526, -94.0386, 78.3649
1.95163, -1, -24.1892, 4.09281, 19.6952, -156.576, -94.0213, 78.0708
1.95981, -1, -24.3517, 4.04941, 19.706, -156.627, -94.0035, 77.7769
1.96763, -1, -24.5146, 4.00594, 19.7166, -156.677, -93.9855, 77.4827
1.97564, -1, -24.6777, 3.96236, 19.7273, -156.727, -93.9673, 77.1882
1.98372, -1, -24.8409, 3.91881, 19.738, -156.778, -93.9493, 76.8942
1.99163, -1, -25.0044, 3.87525, 19.7488, -156.828, -93.9315, 76.6001
1.99976, -1, -25.1678, 3.83166, 19.7598, -156.878, -93.914, 76.3058
2.00762, -1, -25.3309, 3.78807, 19.7707, -156.929, -93.8965, 76.0112
2.01661, -1, -25.4938, 3.74444, 19.7815, -156.979, -93.879, 75.7168
2.02369, -1, -25.6565, 3.70074, 19.7922, -157.029, -93.8612, 75.4225
2.03267, -1, -25.8192, 3.6572, 19.8029, -157.08, -93.8431, 75.1277
2.03969, -1, -25.9816, 3.61371, 19.8138, -157.131, -93.8247, 74.8328
2.04771, -1, -26.1436, 3.57014, 19.8245, -157.181, -93.8064, 74.5384
2.05566, -1, -26.3051, 3.52672, 19.8354, -157.232, -93.7885, 74.2437
2.06363, -1, -26.4667, 3.48328, 19.8461, -157.282, -93.7707, 73.9486
2.07171, -1, -26.6285, 3.43975, 19.8569, -157.333, -93.7531, 73.6533
2.07968, -1, -26.7906, 3.39624, 19.8678, -157.384, -93.7355, 73.3583
2.08901, -1, -26.9531, 3.35268, 19.8786, -157.434, -93.7177, 73.063
2.09563, -1, -27.1158, 3.30903, 19.8895, -157.485, -93.6995, 72.7674
2.10368, -1, -27.2788, 3.26545, 19.9003, -157.536, -93.6812, 72.4723
2.11163, -1, -27.4422, 3.22171, 19.911, -157.586, -93.663, 72.1771
2.11969, -1, -27.606, 3.17789, 19.9219, -157.637, -93.6451, 71.8816
2.12776, -1, -27.7699, 3.13422, 19.9327, -157.687, -93.6272, 71.586
2.13562, -1, -27.9341, 3.09049, 19.9435, -157.738, -93.6095, 71.2906
2.14363, -1, -28.0983, 3.04673, 19.9543, -157.789, -93.5919, 70.9949
2.1517, -1, -28.2626, 3.00299, 19.965, -157.84, -93.574, 70.6988
2.15969, -1, -28.4267, 2.95921, 19.976, -157.89, -93.5558, 70.4026
2.16763, -1, -28.5907, 2.91549, 19.9869, -157.941, -93.5373, 70.1069
2.17571, -1, -28.7543, 2.87182, 19.9978, -157.992, -93.519, 69.8108
2.18362, -1, -28.9176, 2.82806, 20.0086, -158.042, -93.5009, 69.5144
2.19183, -1, -29.0805, 2.78436, 20.0193, -158.094, -93.483, 69.2177
2.1997, -1, -29.2432, 2.74073, 20.0301, -158.144, -93.4653, 68.9212
2.20766, -1, -29.4059, 2.69698, 20.041, -158.195, -93.4477, 68.6244
2.21598, -1, -29.5687, 2.65326, 20.0518, -158.247, -93.4298, 68.3274
2.22377, -1, -29.7316, 2.60944, 20.0626, -158.297, -93.4117, 68.0306
2.23173, -1, -29.8947, 2.56564, 20.0735, -158.348, -93.3933, 67.7339
2.24024, -1, -30.0578, 2.52185, 20.0845, -158.399, -93.3749, 67.4371
2.24772, -1, -30.2214, 2.47786, 20.0955, -158.45, -93.3567, 67.1399
2.25563, -1, -30.3855, 2.43392, 20.1065, -158.501, -93.3389, 66.843
2.26434, -1, -30.55, 2.38995, 20.1174, -158.552, -93.3212, 66.5461
2.27166, -1, -30.7149, 2.34588, 20.1282, -158.603, -93.3035, 66.2486
2.27971, -1, -30.88, 2.30197, 20.1391, -158.654, -93.2855, 65.9511
2.28857, -1, -31.045, 2.25794, 20.15, -158.705, -93.2672, 65.654
2.29576, -1, -31.2101, 2.21388, 20.1608, -158.756, -93.2487, 65.3567
2.30267, -1, -31.2927, 2.19194, 20.1663, -158.781, -93.2394, 65.2079
2.31276, -1, -31.5399, 2.12604, 20.1825, -158.858, -93.212, 64.7611
2.31999, -1, -31.7045, 2.08199, 20.1934, -158.909, -93.1942, 64.4636
2.32811, -1, -31.8689, 2.03801, 20.2044, -158.961, -93.1765, 64.1655
2.33675, -1, -32.033, 1.99404, 20.2154, -159.012, -93.159, 63.8673
2.34413, -1, -32.1968, 1.94998, 20.2264, -159.063, -93.1412, 63.5692
2.35217, -1, -32.3604, 1.90594, 20.2373, -159.114, -93.1232, 63.2714
2.36117, -1, -32.5239, 1.86186, 20.2482, -159.165, -93.1048, 62.9732
2.36668, -1, -32.6058, 1.83975, 20.2537, -159.191, -93.0956, 62.824
2.37625, -1, -32.7697, 1.77356, 20.2701, -159.268, -93.0683, 62.3765
2.38416, -1, -32.9336, 1.75145, 20.2756, -159.293, -93.0594, 62.2274
2.39161, -1, -33.0979, 1.70719, 20.2865, -159.344, -93.0415, 61.9289
2.39966, -1, -33.2626, 1.66298, 20.2974, -159.396, -93.0238, 61.63
2.40762, -1, -33.4276, 1.61876, 20.3084, -159.447, -93.0059, 61.3314
2.41561, -1, -33.5932, 1.57451, 20.3194, -159.498, -92.9878, 61.0329
2.42371, -1, -33.7588, 1.53027, 20.3304, -159.55, -92.9693, 60.7339
2.43161, -1, -33.9246, 1.48604, 20.3412, -159.6, -92.9506, 60.4347
2.43966, -1, -34.0906, 1.44185, 20.3521, -159.652, -92.932, 60.1357
2.44762, -1, -34.2566, 1.39767, 20.3631, -159.704, -92.9139, 59.8364
2.45561, -1, -34.4228, 1.35342, 20.3741, -159.755, -92.8959, 59.5368
2.46366, -1, -34.5886, 1.3092, 20.385, -159.806, -92.8781, 59.2372
2.47161, -1, -34.7542, 1.26502, 20.3959, -159.858, -92.8603, 58.938
2.47967, -1, -34.9193, 1.22075, 20.4069, -159.909, -92.8422, 58.6387
2.48772, -1, -35.0842, 1.17649, 20.418, -159.961, -92.8238, 58.3389
2.49561, -1, -35.2488, 1.13216, 20.4291, -160.012, -92.8053, 58.0392
2.50368, -1, -35.4131, 1.08787, 20.4401, -160.063, -92.7869, 57.7396
2.51161, -1, -35.5764, 1.04387, 20.4514, -160.115, -92.7686, 57.4398
2.52168, -1, -35.8167, 0.978758, 20.4685, -160.191, -92.7417, 56.9914
2.52775, -1, -35.895, 0.957549, 20.4745, -160.217, -92.7328, 56.8433
2.5367, -1, -36.0482, 0.91619, 20.4864, -160.267, -92.7152, 56.5507
2.54362, -1, -36.1951, 0.876731, 20.4983, -160.315, -92.6979, 56.2659
2.5526, -1, -36.3332, 0.839893, 20.5102, -160.361, -92.681, 55.9944
2.55961, -1, -36.4608, 0.806116, 20.5213, -160.404, -92.6651, 55.7427
2.56762, -1, -36.5765, 0.775482, 20.5314, -160.443, -92.6509, 55.5163
2.57567, -1, -36.6785, 0.748526, 20.5397, -160.475, -92.6387, 55.321
2.58362, -1, -36.7658, 0.725351, 20.5459, -160.503, -92.6288, 55.1603
2.59161, -1, -36.8389, 0.706045, 20.5499, -160.524, -92.6213, 55.0345
2.59967, -1, -36.8985, 0.690365, 20.5519, -160.54, -92.6159, 54.9429
2.60761, -1, -36.9451, 0.677944, 20.5528, -160.551, -92.6122, 54.8794
2.61571, -1, -36.9798, 0.66865, 20.5528, -160.559, -92.61, 54.8386
2.62365, -1, -37.0046, 0.662302, 20.5524, -160.563, -92.6087, 54.8147
2.6316, -1, -37.0207, 0.658361, 20.552, -160.565, -92.6081, 54.8019
2.63961, -1, -37.0299, 0.656137, 20.5518, -160.567, -92.6077, 54.7957
2.64764, 2, -37.0341, 0.655044, 20.5516, -160.567, -92.6076, 54.7929
2.65561, 2, -37.0348, 0.65455, 20.5516, -160.567, -92.6076, 54.7916
2.66362, 2, -37.0342, 0.654359, 20.5515, -160.568, -92.6075, 54.791
2.67167, 2, -37.0336, 0.654282, 20.5515, -160.568, -92.6075, 54.7907
2.67961, 2, -37.0337, 0.654225, 20.5515, -160.568, -92.6076, 54.7906
2.68762, 2, -37.0345, 0.654172, 20.5515, -160.568, -92.6076, 54.7905
2.69575, 2, -37.0355, 0.654113, 20.5514, -160.568, -92.6076, 54.7906
2.70367, 2, -37.0369, 0.65394, 20.5512, -160.568, -92.6076, 54.7906
2.71166, 2, -37.0384, 0.653701, 20.551, -160.568, -92.6076, 54.7907
2.71975, 2, -37.0396, 0.653461, 20.5509, -160.568, -92.6077, 54.7907
2.7277, 2, -37.0407, 0.653211, 20.5507, -160.568, -92.6077, 54.7908
2.73571, 2, -37.0414, 0.65304, 20.5505, -160.568, -92.6077, 54.7909
2.74378, 2, -37.0416, 0.652962, 20.5503, -160.568, -92.6078, 54.7909
2.75171, 2, -37.0414, 0.652926, 20.5502, -160.568, -92.6078, 54.791
2.75961, 2, -37.0407, 0.652939, 20.5501, -160.568, -92.6079, 54.7911
2.76768, 2, -37.0399, 0.653001, 20.55, -160.568, -92.6079, 54.7912
2.77567, 2, -37.0386, 0.653042, 20.55, -160.568, -92.608, 54.7914
2.78368, 2, -37.037, 0.65311, 20.5499, -160.568, -92.608, 54.7915
2.79175, 2, -37.0357, 0.653165, 20.5498, -160.567, -92.608, 54.7916
2.79973, 2, -37.0348, 0.653179, 20.5498, -160.567, -92.608, 54.7916
2.80797, 2, -37.0344, 0.653155, 20.5497, -160.567, -92.608, 54.7917
2.81455, 2, -37.0343, 0.653145, 20.5497, -160.567, -92.608, 54.7917
2.82408, 2, -37.0345, 0.653099, 20.5497, -160.567, -92.608, 54.7917
2.83208, 2, -37.0348, 0.65302, 20.5497, -160.567, -92.608, 54.7918
2.8386, 2, -37.0349, 0.652991, 20.5497, -160.567, -92.608, 54.7918
2.84808, 2, -37.0357, 0.652949, 20.5496, -160.567, -92.6081, 54.7919
2.8562, 2, -37.0365, 0.65292, 20.5496, -160.567, -92.6081, 54.7919
2.86424, 2, -37.0372, 0.652956, 20.5496, -160.567, -92.6081, 54.7919
2.87244, 2, -37.0377, 0.652965, 20.5496, -160.567, -92.6081, 54.792
2.88022, 2, -37.0379, 0.652972, 20.5496, -160.567, -92.6081, 54.792
2.8882, 2, -37.038, 0.652992, 20.5496, -160.567, -92.6081, 54.7921
2.8956, 2, -37.0381, 0.653001, 20.5496, -160.567, -92.6081, 54.7921
2.90361, 2, -37.038, 0.653016, 20.5496, -160.567, -92.6081, 54.7921
2.91164, 2, -37.0377, 0.653031, 20.5496, -160.567, -92.6081, 54.7922
2.91959, 2, -37.0373, 0.653045, 20.5496, -160.567, -92.6081, 54.7922
2.9276, 2, -37.0371, 0.653036, 20.5496, -160.567, -92.6081, 54.7923
2.93576, 2, -37.0368, 0.653022, 20.5496, -160.567, -92.6081, 54.7924
2.94361, 2, -37.0367, 0.65299, 20.5496, -160.567, -92.6081, 54.7924
2.9516, 2, -37.0367, 0.652976, 20.5496, -160.567, -92.6081, 54.7924
2.95964, 2, -37.0367, 0.652969, 20.5495, -160.567, -92.6081, 54.7925
2.9676, 2, -37.0368, 0.652986, 20.5495, -160.567, -92.6081, 54.7925
2.9756, 2, -37.0368, 0.652979, 20.5495, -160.567, -92.6081, 54.7926
2.9837, 2, -37.0369, 0.652978, 20.5495, -160.567, -92.6081, 54.7927
2.99159, 2, -37.037, 0.652982, 20.5495, -160.567, -92.6082, 54.7927
2.9996, 2, -37.0372, 0.653015, 20.5494, -160.567, -92.6082, 54.7927
3.00916, 2, -37.0373, 0.653012, 20.5494, -160.567, -92.6082, 54.7928
3.01559, 2, -37.0374, 0.653029, 20.5494, -160.567, -92.6082, 54.7927
3.02458, 2, -37.0374, 0.653018, 20.5494, -160.567, -92.6082, 54.7928
3.03179, 2, -37.0374, 0.653013, 20.5494, -160.567, -92.6082, 54.7928
3.04063, 2, -37.0374, 0.653004, 20.5494, -160.567, -92.6083, 54.7929
3.04759, 2, -37.0373, 0.652994, 20.5494, -160.567, -92.6083, 54.793
3.05569, 2, -37.0373, 0.652978, 20.5494, -160.567, -92.6083, 54.793
3.06361, 2, -37.0373, 0.652959, 20.5494, -160.567, -92.6083, 54.793
3.0716, 2, -37.0373, 0.652954, 20.5494, -160.567, -92.6083, 54.7931
3.07966, 2, -37.0374, 0.652959, 20.5493, -160.567, -92.6083, 54.7931
3.08759, 2, -37.0373, 0.652962, 20.5493, -160.567, -92.6083, 54.7932
3.0956, 2, -37.0373, 0.652982, 20.5493, -160.567, -92.6083, 54.7932
3.10366, 2, -37.0373, 0.653026, 20.5493, -160.567, -92.6083, 54.7933
3.11159, 2, -37.0373, 0.653012, 20.5493, -160.567, -92.6084, 54.7933
3.11959, 2, -37.0372, 0.653021, 20.5493, -160.567, -92.6083, 54.7934
3.12766, 2, -37.0373, 0.653015, 20.5493, -160.567, -92.6083, 54.7935
3.13559, 2, -37.0373, 0.653007, 20.5493, -160.567, -92.6083, 54.7935
3.1436, 2, -37.0373, 0.653008, 20.5493, -160.567, -92.6084, 54.7936
3.15166, 2, -37.0372, 0.653001, 20.5493, -160.567, -92.6084, 54.7936
3.1596, 2, -37.0372, 0.652993, 20.5493, -160.567, -92.6084, 54.7936
3.16759, 2, -37.0372, 0.652997, 20.5493, -160.567, -92.6084, 54.7937
3.17565, 2, -37.0372, 0.652991, 20.5492, -160.567, -92.6084, 54.7937
3.1836, 2, -37.0372, 0.653001, 20.5492, -160.567, -92.6084, 54.7937
3.1916, 2, -37.0371, 0.653005, 20.5492, -160.567, -92.6084, 54.7938
3.19973, 2, -37.0372, 0.653018, 20.5492, -160.567, -92.6084, 54.7938
3.20765, 2, -37.0371, 0.653039, 20.5492, -160.567, -92.6084, 54.7939
3.21566, 2, -37.0371, 0.653034, 20.5492, -160.567, -92.6084, 54.7939
3.22375, 2, -37.0371, 0.653026, 20.5492, -160.567, -92.6084, 54.7939
3.23169, 2, -37.0371, 0.653035, 20.5492, -160.567, -92.6084, 54.7939
3.23969, 2, -37.0371, 0.653039, 20.5492, -160.567, -92.6084, 54.794
3.24775, 2, -37.0371, 0.65303, 20.5492, -160.567, -92.6084, 54.794
3.2557, 2, -37.0371, 0.653019, 20.5492, -160.567, -92.6084, 54.794
3.26361, 2, -37.0371, 0.653013, 20.5492, -160.567, -92.6084, 54.7941
3.27168, 2, -37.0371, 0.652991, 20.5491, -160.567, -92.6084, 54.7942
3.27963, 2, -37.0371, 0.652996, 20.5491, -160.567, -92.6084, 54.7943
3.28765, 2, -37.0371, 0.652991, 20.5491, -160.567, -92.6085, 54.7943
3.29576, 2, -37.037, 0.652993, 20.5491, -160.567, -92.6085, 54.7943
3.30377, 2, -37.037, 0.653015, 20.5491, -160.567, -92.6084, 54.7943
3.31222, 2, -37.037, 0.653023, 20.5491, -160.567, -92.6084, 54.7944
3.31996, 2, -37.037, 0.653041, 20.5491, -160.567, -92.6085, 54.7944
3.32797, 2, -37.037, 0.653042, 20.5491, -160.567, -92.6084, 54.7944
3.33469, 2, -37.037, 0.653042, 20.5491, -160.567, -92.6084, 54.7944
3.34414, 2, -37.037, 0.653054, 20.5491, -160.567, -92.6084, 54.7944
3.35213, 2, -37.037, 0.653037, 20.5491, -160.567, -92.6085, 54.7944
3.36036, 2, -37.037, 0.653009, 20.549, -160.567, -92.6084, 54.7944
3.36823, 2, -37.0369, 0.653028, 20.549, -160.567, -92.6084, 54.7945
3.37633, 2, -37.0369, 0.653047, 20.549, -160.567, -92.6084, 54.7945
3.38437, 2, -37.0369, 0.653045, 20.549, -160.567, -92.6085, 54.7945
3.39217, 2, -37.0369, 0.653044, 20.549, -160.567, -92.6085, 54.7945
3.39958, 2, -37.0369, 0.653043, 20.549, -160.567, -92.6085, 54.7945
3.40842, 2, -37.0369, 0.653025, 20.549, -160.567, -92.6085, 54.7946
3.41563, 2, -37.0368, 0.653046, 20.549, -160.567, -92.6085, 54.7946
3.42359, 2, -37.0368, 0.653044, 20.5489, -160.567, -92.6085, 54.7947
3.43158, 2, -37.0368, 0.653043, 20.5489, -160.567, -92.6085, 54.7947
3.43963, 2, -37.0368, 0.653062, 20.5489, -160.567, -92.6085, 54.7947
3.44758, 2, -37.0368, 0.65304, 20.5489, -160.567, -92.6085, 54.7947
3.45558, 2, -37.0368, 0.653042, 20.5489, -160.567, -92.6086, 54.7948
3.46364, 2, -37.0368, 0.653053, 20.5489, -160.567, -92.6085, 54.7948
3.47158, 2, -37.0368, 0.653055, 20.5489, -160.567, -92.6085, 54.7948
3.47958, 2, -37.0368, 0.65303, 20.5489, -160.567, -92.6085, 54.7948
3.48765, 2, -37.0368, 0.653037, 20.5489, -160.567, -92.6085, 54.7948
3.49558, 2, -37.0367, 0.653022, 20.5489, -160.567, -92.6086, 54.7949
3.50359, 2, -37.0367, 0.653026, 20.5489, -160.567, -92.6085, 54.7948
3.51164, 2, -37.0367, 0.653035, 20.5489, -160.567, -92.6086, 54.7948
3.52062, 2, -37.0367, 0.653058, 20.5489, -160.567, -92.6086, 54.7948
3.52758, 2, -37.0367, 0.653068, 20.5488, -160.567, -92.6086, 54.7949
3.53571, 2, -37.0367, 0.653073, 20.5488, -160.566, -92.6086, 54.7949
3.54462, 2, -37.0366, 0.653075, 20.5488, -160.567, -92.6086, 54.7949
3.55158, 2, -37.0366, 0.653076, 20.5488, -160.566, -92.6085, 54.7949
3.55964, 2, -37.0366, 0.653076, 20.5488, -160.567, -92.6085, 54.7949
3.56758, 2, -37.0366, 0.653077, 20.5488, -160.566, -92.6085, 54.795
3.57557, 2, -37.0366, 0.653077, 20.5488, -160.566, -92.6085, 54.795
3.58365, 2, -37.0366, 0.653066, 20.5488, -160.566, -92.6085, 54.795
3.59158, 2, -37.0366, 0.653053, 20.5488, -160.566, -92.6086, 54.795
3.59958, 2, -37.0366, 0.653059, 20.5488, -160.566, -92.6086, 54.7951
3.60764, 2, -37.0366, 0.65305, 20.5488, -160.566, -92.6086, 54.7951
3.61558, 2, -37.0365, 0.653065, 20.5487, -160.566, -92.6085, 54.7951
3.62359, 2, -37.0366, 0.653071, 20.5487, -160.566, -92.6086, 54.7951
3.63164, 2, -37.0366, 0.653074, 20.5487, -160.566, -92.6086, 54.7951
3.63957, 2, -37.0365, 0.653076, 20.5487, -160.566, -92.6086, 54.795
3.64771, 2, -37.0365, 0.653076, 20.5487, -160.566, -92.6086, 54.7951
3.65579, 2, -37.0366, 0.653077, 20.5487, -160.566, -92.6086, 54.7951
3.66362, 2, -37.0366, 0.653077, 20.5487, -160.566, -92.6086, 54.7951
3.67161, 2, -37.0365, 0.653077, 20.5487, -160.566, -92.6086, 54.7951
3.67994, 2, -37.0365, 0.653077, 20.5487, -160.566, -92.6086, 54.7951
3.68757, 2, -37.0365, 0.653077, 20.5487, -160.566, -92.6087, 54.7951
3.69558, 2, -37.0365, 0.653077, 20.5487, -160.566, -92.6086, 54.7951
3.70373, 2, -37.0365, 0.653077, 20.5487, -160.566, -92.6086, 54.7951
3.71163, 2, -37.0365, 0.653066, 20.5486, -160.566, -92.6086, 54.7951
3.71966, 2, -37.0365, 0.653053, 20.5486, -160.566, -92.6086, 54.7951
3.72796, 2, -37.0365, 0.653059, 20.5486, -160.566, -92.6087, 54.7951
3.73567, 4, -37.0365, 0.653068, 20.5486, -160.566, -92.6087, 54.7952
3.74368, 4, -37.0365, 0.653073, 20.5486, -160.566, -92.6087, 54.7952
3.75174, 4, -37.0364, 0.653075, 20.5486, -160.566, -92.6087, 54.7952
3.75967, 4, -37.0364, 0.653076, 20.5486, -160.566, -92.6087, 54.7951
3.76758, 4, -37.0364, 0.653076, 20.5486, -160.566, -92.6087, 54.7951
3.77567, 4, -37.0364, 0.653077, 20.5486, -160.566, -92.6086, 54.7951
3.78362, 4, -37.0364, 0.653077, 20.5486, -160.566, -92.6087, 54.7952
3.79195, 4, -37.0364, 0.653077, 20.5486, -160.566, -92.6087, 54.7951
3.79984, 4, -37.0364, 0.653077, 20.5486, -160.566, -92.6087, 54.7951
3.80779, 4, -37.0364, 0.653077, 20.5485, -160.566, -92.6087, 54.7951
3.8158, 4, -37.0364, 0.653077, 20.5485, -160.566, -92.6087, 54.7951
3.824, 4, -37.0364, 0.653077, 20.5485, -160.566, -92.6086, 54.7951
3.83212, 4, -37.0364, 0.653077, 20.5485, -160.566, -92.6086, 54.7951
3.85845, 4, -37.0364, 0.653077, 20.5485, -160.566, -92.6087, 54.7952
3.86111, 4, -37.0363, 0.653077, 20.5485, -160.566, -92.6087, 54.7951
3.86297, 4, -37.0363, 0.653077, 20.5485, -160.566, -92.6087, 54.7951
3.86557, 4, -37.0363, 0.653077, 20.5485, -160.566, -92.6087, 54.7951
3.87352, 4, -37.0363, 0.653077, 20.5485, -160.566, -92.6088, 54.7951
3.88077, 4, -37.036, 0.653022, 20.5485, -160.566, -92.6087, 54.7951
3.8883, 4, -37.0355, 0.652901, 20.5485, -160.566, -92.6087, 54.7951
3.8969, 4, -37.0329, 0.651975, 20.5487, -160.566, -92.6087, 54.7951
3.90357, 4, -37.0272, 0.649088, 20.5495, -160.566, -92.6087, 54.7952
3.91435, 4, -37.0178, 0.643097, 20.552, -160.566, -92.6087, 54.7951
3.91952, 4, -37.0045, 0.633517, 20.5575, -160.565, -92.6087, 54.7951
3.92754, 5, -36.9864, 0.619774, 20.5672, -160.563, -92.6087, 54.7951
3.9418, 5, -36.9333, 0.578935, 20.6047, -160.556, -92.6085, 54.795
3.94353, 5, -36.9333, 0.578935, 20.6047, -160.556, -92.6085, 54.795
3.95161, 5, -36.8992, 0.551705, 20.6335, -160.55, -92.6081, 54.795
3.95956, 5, -36.8604, 0.520187, 20.6691, -160.542, -92.6074, 54.795
3.96757, 5, -36.8164, 0.483783, 20.7105, -160.533, -92.6062, 54.795
3.97561, 5, -36.7673, 0.442855, 20.757, -160.522, -92.6047, 54.7949
3.98376, 5, -36.7132, 0.397858, 20.8072, -160.511, -92.603, 54.7949
3.9916, 5, -36.6548, 0.34955, 20.86, -160.499, -92.6012, 54.795
3.99959, 5, -36.5925, 0.29888, 20.9145, -160.487, -92.5993, 54.7949
4.0078, 5, -36.5269, 0.246335, 20.9698, -160.475, -92.5975, 54.7949
4.01561, 5, -36.4596, 0.192858, 21.0252, -160.462, -92.5955, 54.795
4.0246, 5, -36.3915, 0.138998, 21.0808, -160.45, -92.5936, 54.795
4.0317, 5, -36.3229, 0.0849935, 21.1364, -160.438, -92.5916, 54.7951
4.03964, 5, -36.2541, 0.0310037, 21.1919, -160.426, -92.5896, 54.7951
4.04763, 5, -36.1853, -0.0227639, 21.2475, -160.414, -92.5875, 54.7951
4.05778, 5, -36.0823, -0.103005, 21.3308, -160.396, -92.5845, 54.7954
4.06371, 5, -36.048, -0.129628, 21.3585, -160.39, -92.5835, 54.7954
4.07259, 5, -35.9794, -0.182714, 21.4138, -160.377, -92.5813, 54.7957
4.07958, 5, -35.9108, -0.235614, 21.4691, -160.364, -92.5792, 54.7961
4.08763, 5, -35.8422, -0.288347, 21.5243, -160.351, -92.5771, 54.7967
4.09557, 5, -35.7733, -0.341056, 21.5794, -160.338, -92.575, 54.7976
4.10356, 5, -35.7042, -0.3938, 21.6344, -160.326, -92.5729, 54.7986
4.11169, 5, -35.6348, -0.446541, 21.6892, -160.313, -92.5708, 54.7997
4.11956, 5, -35.5651, -0.499386, 21.7438, -160.301, -92.5686, 54.801
4.12763, 5, -35.4953, -0.552241, 21.7982, -160.288, -92.5665, 54.8024
4.1358, 5, -35.4252, -0.605095, 21.8524, -160.275, -92.5643, 54.804
4.14548, 5, -35.3549, -0.657904, 21.9066, -160.263, -92.5622, 54.8057
4.15156, 5, -35.2844, -0.710731, 21.9606, -160.25, -92.56, 54.8076
4.1598, 5, -35.2139, -0.763332, 22.0145, -160.236, -92.5578, 54.8097
4.16859, 5, -35.1433, -0.815614, 22.0683, -160.223, -92.5556, 54.8118
4.17557, 5, -35.0728, -0.867903, 22.1221, -160.209, -92.5534, 54.814
4.18367, 5, -35.0023, -0.919883, 22.1757, -160.196, -92.5511, 54.8163
4.1924, 5, -34.9318, -0.971605, 22.2291, -160.183, -92.5488, 54.8188
4.19956, 5, -34.8613, -1.02318, 22.2825, -160.17, -92.5465, 54.8215
4.20985, 5, -34.7908, -1.07462, 22.3358, -160.158, -92.5442, 54.8242
4.21585, 5, -34.7202, -1.12608, 22.3888, -160.145, -92.5419, 54.8271
4.22365, 5, -34.6493, -1.17743, 22.4417, -160.132, -92.5395, 54.83
4.23166, 5, -34.5784, -1.22879, 22.4943, -160.119, -92.5372, 54.8331
4.23994, 5, -34.5074, -1.28023, 22.5468, -160.105, -92.5348, 54.8361
4.24766, 5, -34.4361, -1.33161, 22.5992, -160.092, -92.5324, 54.8394
4.25566, 5, -34.3645, -1.38296, 22.6515, -160.078, -92.5301, 54.8427
4.26454, 5, -34.2929, -1.4343, 22.7035, -160.064, -92.5277, 54.8461
4.27227, 5, -34.2212, -1.48548, 22.7555, -160.05, -92.5253, 54.8497
4.27959, 5, -34.1492, -1.53644, 22.8074, -160.037, -92.5229, 54.8535
4.2879, 5, -34.0773, -1.5872, 22.8591, -160.023, -92.5205, 54.8573
4.29602, 5, -34.0052, -1.63778, 22.9108, -160.01, -92.5181, 54.8612
4.30368, 5, -33.9331, -1.68809, 22.9623, -159.997, -92.5157, 54.8653
4.31263, 5, -33.8609, -1.73822, 23.0136, -159.983, -92.5133, 54.8693
4.31989, 5, -33.7888, -1.78828, 23.0648, -159.969, -92.5109, 54.8735
4.32788, 5, -33.7166, -1.83826, 23.1158, -159.955, -92.5085, 54.8778
4.3381, 5, -33.6442, -1.88813, 23.1666, -159.941, -92.5061, 54.8821
4.34451, 5, -33.5717, -1.93806, 23.2173, -159.926, -92.5039, 54.8864
4.35208, 5, -33.4989, -1.98827, 23.2679, -159.912, -92.5016, 54.8906
4.36007, 5, -33.426, -2.03869, 23.3183, -159.898, -92.4993, 54.8942
4.36821, 5, -33.3532, -2.08948, 23.3686, -159.884, -92.497, 54.8967
4.37659, 6, -33.2806, -2.14068, 23.4191, -159.87, -92.4947, 54.8977
4.38418, 6, -33.2444, -2.19255, 23.4695, -159.855, -92.4922, 54.897
4.3937, 6, -33.1363, -2.24534, 23.5204, -159.84, -92.4894, 54.8937
4.4024, 6, -33.0648, -2.29897, 23.5719, -159.825, -92.4857, 54.8856
4.40758, 7, -33.0292, -2.32621, 23.5979, -159.816, -92.4835, 54.8794
4.41555, 7, -32.9584, -2.38152, 23.651, -159.798, -92.478, 54.8645
4.42355, 7, -32.8881, -2.43807, 23.7052, -159.779, -92.4707, 54.8469
4.43159, 7, -32.8183, -2.49617, 23.761, -159.758, -92.4614, 54.8284
4.43978, 7, -32.7493, -2.55578, 23.8183, -159.737, -92.45, 54.8101
4.44761, 8, -32.6808, -2.61706, 23.8771, -159.714, -92.4366, 54.7926
4.45555, 8, -32.613, -2.67999, 23.9372, -159.69, -92.421, 54.7755
4.46379, 8, -32.546, -2.74474, 23.9985, -159.664, -92.4036, 54.7583
4.47541, 8, -32.4469, -2.84497, 24.0924, -159.623, -92.374, 54.7307
4.47952, 8, -32.4142, -2.87916, 24.1243, -159.609, -92.3634, 54.7208
4.48761, 9, -32.3492, -2.94857, 24.1886, -159.581, -92.3414, 54.6997
4.49555, 9, -32.2849, -3.01928, 24.254, -159.552, -92.3184, 54.6768
4.50355, 9, -32.2211, -3.09133, 24.3204, -159.521, -92.2942, 54.6522
4.51405, 9, -32.1579, -3.16468, 24.4218, -159.473, -92.2547, 54.6127
4.51971, 9, -32.0953, -3.23928, 24.4561, -159.457, -92.2406, 54.599
4.52751, 10, -32.0331, -3.31522, 24.5255, -159.424, -92.2115, 54.5703
4.53631, 10, -31.9717, -3.39246, 24.5958, -159.39, -92.1813, 54.5399
4.54355, 10, -31.9108, -3.47117, 24.6673, -159.354, -92.1499, 54.5075
4.55254, 10, -31.8504, -3.55127, 24.7398, -159.318, -92.117, 54.4731
4.56303, 10, -31.761, -3.6741, 24.8504, -159.262, -92.0641, 54.4194
4.56771, 10, -31.7315, -3.71576, 24.8878, -159.243, -92.0461, 54.4009
4.57552, 11, -31.6729, -3.80019, 24.9633, -159.204, -92.0092, 54.3628
4.58355, 11, -31.6148, -3.88614, 25.0397, -159.164, -91.9709, 54.3226
4.5917, 11, -31.5571, -3.97348, 25.117, -159.124, -91.9304, 54.2806
4.60039, 11, -31.5, -4.06234, 25.1953, -159.081, -91.8891, 54.2375
4.60762, 11, -31.4435, -4.15268, 25.2748, -159.038, -91.8467, 54.1932
4.61561, 12, -31.3874, -4.24448, 25.3552, -158.995, -91.8022, 54.1471
4.62355, 12, -31.3318, -4.3376, 25.4368, -158.95, -91.7565, 54.0988
4.63154, 12, -31.2769, -4.43212, 25.5194, -158.904, -91.71, 54.0495
4.63972, 12, -31.2223, -4.52795, 25.603, -158.858, -91.6616, 53.9989
4.64789, 12, -31.1683, -4.62523, 25.6876, -158.811, -91.6119, 53.9464
4.65555, 13, -31.1148, -4.7239, 25.7732, -158.762, -91.5613, 53.892
4.66494, 13, -31.0618, -4.824, 25.8596, -158.713, -91.5085, 53.837
4.67346, 13, -31.0094, -4.92561, 25.9472, -158.663, -91.4547, 53.7803
4.67962, 13, -30.9574, -5.02876, 26.0359, -158.611, -91.4, 53.7215
4.68754, 13, -30.906, -5.13329, 26.1257, -158.56, -91.343, 53.662
4.69555, 14, -30.8552, -5.23921, 26.2165, -158.506, -91.2858, 53.6009
4.70362, 14, -30.8049, -5.34674, 26.3084, -158.453, -91.2267, 53.5378
4.71156, 14, -30.7552, -5.45564, 26.4011, -158.399, -91.1663, 53.4741
4.72072, 14, -30.7059, -5.56612, 26.4947, -158.342, -91.1051, 53.4089
4.72854, 14, -30.6572, -5.67812, 26.5894, -158.286, -91.0413, 53.3414
4.73565, 15, -30.609, -5.79154, 26.6852, -158.229, -90.9773, 53.2732
4.74364, 15, -30.5612, -5.90623, 26.7822, -158.17, -90.9109, 53.2032
4.75171, 15, -30.514, -6.02217, 26.8803, -158.112, -90.8442, 53.1317
4.76011, 15, -30.4672, -6.13964, 26.9793, -158.051, -90.7755, 53.0594
4.77206, 15, -30.421, -6.3185, 27.1296, -157.959, -90.6704, 52.9468
4.77448, 16, -30.3981, -6.3185, 27.1296, -157.959, -90.6704, 52.9468
4.78427, 16, -30.3302, -6.50079, 27.282, -157.865, -90.5619, 52.8314
4.7919, 16, -30.2855, -6.62408, 27.3851, -157.801, -90.4882, 52.7524
4.80237, 16, -30.2413, -6.74891, 27.4893, -157.736, -90.413, 52.6726
4.80801, 16, -30.1976, -6.87518, 27.5946, -157.671, -90.3365, 52.5905
4.81578, 17, -30.1544, -7.00303, 27.7007, -157.604, -90.2588, 52.5081
4.82456, 17, -30.1116, -7.13252, 27.8077, -157.537, -90.1796, 52.4236
4.83191, 17, -30.0694, -7.26349, 27.9156, -157.468, -90.0992, 52.3386
4.84175, 17, -30.0276, -7.39576, 28.0247, -157.399, -90.0172, 52.2515
4.8495, 17, -29.9864, -7.52927, 28.1349, -157.329, -89.9343, 52.1634
4.85626, 17, -29.9457, -7.66439, 28.2464, -157.258, -89.8498, 52.0739
4.86695, 18, -29.9055, -7.80084, 28.3588, -157.186, -89.7639, 51.9833
4.87237, 18, -29.8658, -7.93876, 28.4719, -157.114, -89.6773, 51.8909
4.88095, 18, -29.8461, -8.07792, 28.586, -157.039, -89.5891, 51.7973
4.88653, 18, -29.807, -8.14795, 28.6435, -157.002, -89.5446, 51.75
4.89606, 18, -29.7684, -8.28905, 28.7593, -156.927, -89.4544, 51.6541
4.90353, 19, -29.7304, -8.43153, 28.8764, -156.851, -89.3634, 51.5576
4.91158, 19, -29.6927, -8.57568, 28.9945, -156.774, -89.2708, 51.4595
4.92116, 19, -29.6555, -8.72134, 29.1134, -156.697, -89.1768, 51.3607
4.92751, 19, -29.6188, -8.86824, 29.233, -156.618, -89.0821, 51.2607
4.93554, 19, -29.5826, -9.01645, 29.3536, -156.539, -88.9861, 51.1595
4.94361, 20, -29.547, -9.16609, 29.4753, -156.458, -88.8888, 51.057
4.95163, 20, -29.5117, -9.31727, 29.5983, -156.377, -88.7908, 50.9534
4.95953, 20, -29.4767, -9.46997, 29.7222, -156.295, -88.6917, 50.8486
4.96907, 20, -29.4254, -9.7009, 29.9095, -156.17, -88.5407, 50.6889
4.97692, 20, -29.4085, -9.7785, 29.9725, -156.086, -88.4388, 50.581
4.98356, 21, -29.3751, -9.93484, 30.0991, -156.043, -88.3874, 50.5266
4.99433, 21, -29.3256, -10.1722, 30.291, -155.914, -88.2314, 50.3622
4.99973, 21, -29.3094, -10.252, 30.3555, -155.871, -88.179, 50.3069
5.00772, 21, -29.2772, -10.4121, 30.4851, -155.784, -88.0733, 50.1956
5.01555, 21, -29.2454, -10.5734, 30.6155, -155.696, -87.9665, 50.0837
5.02452, 22, -29.2141, -10.736, 30.7468, -155.606, -87.8588, 49.9707
5.03154, 22, -29.183, -10.9001, 30.8791, -155.516, -87.7501, 49.8569
5.04053, 22, -29.1524, -11.0652, 31.0124, -155.425, -87.6404, 49.7423
5.04769, 22, -29.1222, -11.2312, 31.1465, -155.333, -87.5297, 49.6265
5.05562, 22, -29.0924, -11.3985, 31.2816, -155.241, -87.4179, 49.5101
5.0635, 23, -29.063, -11.5675, 31.4176, -155.147, -87.3054, 49.3927
5.07154, 23, -29.0338, -11.7379, 31.5544, -155.053, -87.1918, 49.2747
5.0796, 23, -29.0051, -11.9091, 31.6919, -154.958, -87.0773, 49.1561
5.08753, 23, -28.9768, -12.0812, 31.8303, -154.862, -86.9622, 49.0369
5.09576, 23, -28.9489, -12.2547, 31.9696, -154.765, -86.8459, 48.917
5.10455, 24, -28.9213, -12.4297, 32.1099, -154.667, -86.7287, 48.7967
5.11155, 24, -28.8941, -12.6054, 32.251, -154.568, -86.6105, 48.6758
5.11971, 24, -28.8671, -12.7817, 32.3927, -154.469, -86.4917, 48.5542
5.12789, 24, -28.8405, -12.9591, 32.535, -154.369, -86.3719, 48.4322
5.13553, 24, -28.8143, -13.1382, 32.6786, -154.268, -86.2512, 48.3093
5.14374, 25, -28.7884, -13.3182, 32.8229, -154.166, -86.1301, 48.1861
5.15162, 25, -28.7628, -13.4987, 32.9679, -154.063, -86.0079, 48.0627
5.15952, 25, -28.7374, -13.6801, 33.1134, -153.96, -85.8854, 47.9393
5.16857, 25, -28.7122, -13.8631, 33.2596, -153.855, -85.762, 47.8157
5.1756, 25, -28.6873, -14.047, 33.4066, -153.75, -85.6377, 47.6918
5.1836, 25, -28.6627, -14.2314, 33.5546, -153.644, -85.5132, 47.568
5.19253, 26, -28.6384, -14.4165, 33.703, -153.537, -85.3877, 47.4436
5.20326, 26, -28.6026, -14.6969, 33.9265, -153.376, -85.1989, 47.2571
5.2076, 26, -28.5907, -14.7909, 34.0015, -153.322, -85.1354, 47.195
5.21894, 26, -28.5553, -15.0729, 34.2276, -153.158, -84.9447, 47.0088
5.22381, 26, -28.5436, -15.1671, 34.3031, -153.103, -84.8808, 46.9468
5.23163, 27, -28.5204, -15.3564, 34.4544, -152.993, -84.7526, 46.8232
5.23962, 27, -28.4975, -15.5465, 34.6064, -152.882, -84.6241, 46.6998
5.24777, 27, -28.4746, -15.7367, 34.7592, -152.77, -84.4948, 46.5766
5.25653, 27, -28.4521, -15.9276, 34.9126, -152.658, -84.3654, 46.4538
5.26363, 27, -28.4298, -16.12, 35.0661, -152.545, -84.2355, 46.3312
5.27161, 28, -28.4075, -16.3134, 35.2198, -152.431, -84.1053, 46.209
5.27967, 28, -28.3852, -16.5073, 35.3745, -152.316, -83.9744, 46.0871
5.28758, 28, -28.3632, -16.7019, 35.5298, -152.201, -83.8436, 45.9659
5.29581, 28, -28.3413, -16.8976, 35.6853, -152.085, -83.7123, 45.8456
5.30459, 28, -28.3194, -17.0939, 35.8411, -151.969, -83.5807, 45.7258
5.31176, 29, -28.2977, -17.2901, 35.9975, -151.852, -83.4489, 45.6068
5.32139, 29, -28.2762, -17.487, 36.1546, -151.734, -83.3165, 45.4887
5.3327, 29, -28.2439, -17.7837, 36.3907, -151.555, -83.1173, 45.3128
5.33598, 29, -28.2332, -17.8827, 36.4695, -151.496, -83.0508, 45.2545
5.344, 29, -28.2119, -18.0806, 36.6274, -151.376, -82.9177, 45.1386
5.35203, 30, -28.1908, -18.2791, 36.7861, -151.255, -82.784, 45.0239
5.36018, 30, -28.1695, -18.4782, 36.9449, -151.134, -82.6507, 44.9107
5.36806, 30, -28.1482, -18.6774, 37.1035, -151.012, -82.517, 44.7986
5.37635, 30, -28.127, -18.8768, 37.2619, -150.89, -82.3834, 44.6887
5.38412, 30, -28.1164, -18.9769, 37.4209, -150.767, -82.2494, 44.5804
5.39217, 31, -28.0949, -19.1778, 37.5006, -150.644, -82.1154, 44.4737
5.40023, 31, -28.0733, -19.3786, 37.6597, -150.583, -81.9815, 44.3688
5.40753, 31, -28.0519, -19.5791, 37.8185, -150.459, -81.9143, 44.317
5.41551, 31, -28.0304, -19.78, 37.9777, -150.334, -81.7804, 44.2146
5.42736, 31, -27.9979, -20.0813, 38.2177, -150.146, -81.5789, 44.0635
5.43152, 32, -27.987, -20.1816, 38.2977, -150.083, -81.5117, 44.0143
5.43952, 32, -27.9652, -20.382, 38.4573, -149.957, -81.3776, 43.9167
5.44767, 32, -27.943, -20.5832, 38.6169, -149.831, -81.2434, 43.8214
5.45559, 32, -27.9205, -20.7845, 38.7769, -149.704, -81.1095, 43.7281
5.46357, 32, -27.8979, -20.9854, 38.9368, -149.576, -80.9755, 43.6378
5.47172, 33, -27.8751, -21.186, 39.0959, -149.449, -80.8423, 43.5499
5.47952, 33, -27.852, -21.3869, 39.2547, -149.321, -80.7091, 43.4652
5.48758, 33, -27.8285, -21.5871, 39.4137, -149.194, -80.5767, 43.3833
5.49574, 33, -27.8047, -21.7865, 39.5724, -149.066, -80.4444, 43.3046
5.50431, 33, -27.7803, -21.9856, 39.73, -148.938, -80.3129, 43.2293
5.51161, 33, -27.7553, -22.1847, 39.887, -148.811, -80.1815, 43.1567
5.51953, 34, -27.73, -22.3827, 40.0438, -148.683, -80.0506, 43.0884
5.5276, 34, -27.7041, -22.5798, 40.2004, -148.556, -79.9199, 43.0226
5.53656, 34, -27.6779, -22.7768, 40.3563, -148.428, -79.7892, 42.9598
5.54587, 34, -27.6378, -23.0715, 40.589, -148.236, -79.5932, 42.8729
5.55362, 34, -27.6241, -23.1694, 40.6666, -148.172, -79.5279, 42.8183
5.56053, 35, -27.5966, -23.365, 40.8219, -148.044, -79.3974, 42.7922
5.56752, 35, -27.569, -23.561, 40.9768, -147.915, -79.2667, 42.7432
5.57567, 35, -27.5412, -23.7569, 41.131, -147.786, -79.1367, 42.6977
5.58353, 35, -27.513, -23.9522, 41.2853, -147.657, -79.0065, 42.6552
5.59158, 35, -27.4847, -24.1473, 41.4397, -147.526, -78.8768, 42.6159
5.59951, 36, -27.456, -24.3426, 41.5938, -147.396, -78.7471, 42.5806
5.60752, 36, -27.427, -24.5373, 41.7473, -147.265, -78.6179, 42.5494
5.61558, 36, -27.3977, -24.7311, 41.9003, -147.134, -78.4892, 42.5226
5.62375, 36, -27.3678, -24.9246, 42.0531, -147.003, -78.3607, 42.4999
5.63154, 36, -27.3372, -25.1179, 42.2052, -146.872, -78.233, 42.4816
5.63951, 37, -27.3055, -25.31, 42.3562, -146.742, -78.1055, 42.4679
5.64756, 37, -27.2731, -25.5005, 42.5058, -146.612, -77.9787, 42.4592
5.65555, 37, -27.2397, -25.6903, 42.6544, -146.482, -77.8521, 42.4549
5.66353, 37, -27.2054, -25.8791, 42.8018, -146.354, -77.7262, 42.4534
5.67166, 37, -27.1699, -26.0662, 42.9479, -146.226, -77.6008, 42.456
5.68008, 38, -27.1336, -26.2516, 43.0926, -146.099, -77.4758, 42.4657
5.68757, 38, -27.0965, -26.4362, 43.2362, -145.973, -77.3515, 42.4808
5.69634, 38, -27.0587, -26.62, 43.3792, -145.846, -77.2272, 42.5014
5.70382, 38, -27.02, -26.8021, 43.5215, -145.72, -77.1037, 42.5273
5.71195, 38, -26.9806, -26.9832, 43.6631, -145.593, -76.9801, 42.5588
5.72052, 39, -26.9406, -27.1639, 43.8037, -145.467, -76.8571, 42.5961
5.72787, 39, -26.8999, -27.3443, 43.9438, -145.341, -76.734, 42.6397
5.7356, 39, -26.8585, -27.5235, 44.0832, -145.214, -76.6109, 42.6886
5.7472, 39, -26.7948, -27.7908, 44.2909, -145.024, -76.4267, 42.7729
5.75182, 39, -26.7732, -27.8797, 44.3596, -144.961, -76.3652, 42.8043
5.76053, 40, -26.7294, -28.0573, 44.4961, -144.836, -76.2423, 42.8715
5.76804, 40, -26.6846, -28.2332, 44.6317, -144.71, -76.1196, 42.9446
5.77758, 40, -26.6389, -28.4076, 44.7661, -144.586, -75.9975, 43.0253
5.78458, 40, -26.5921, -28.581, 44.8992, -144.462, -75.8757, 43.1113
5.79157, 40, -26.5444, -28.7533, 45.0309, -144.339, -75.7542, 43.2047
5.79986, 40, -26.4955, -28.9238, 45.1612, -144.217, -75.6338, 43.3043
5.80848, 41, -26.4456, -29.0925, 45.2902, -144.096, -75.5133, 43.4112
5.81568, 41, -26.3946, -29.2598, 45.4178, -143.976, -75.3938, 43.5245
5.82407, 41, -26.3422, -29.426, 45.544, -143.857, -75.2745, 43.6448
5.83188, 41, -26.2886, -29.5905, 45.6687, -143.739, -75.1556, 43.7724
5.83987, 41, -26.2336, -29.7527, 45.7916, -143.622, -75.0376, 43.9071
5.84835, 42, -26.1772, -29.9132, 45.9126, -143.506, -74.9197, 44.0493
5.85701, 42, -26.1192, -30.0719, 46.0316, -143.393, -74.8027, 44.1984
5.86408, 42, -26.0594, -30.2287, 46.1484, -143.28, -74.686, 44.3546
5.873, 42, -25.998, -30.383, 46.263, -143.17, -74.5698, 44.5181
5.88093, 42, -25.935, -30.5349, 46.3755, -143.062, -74.4544, 44.6885
5.88809, 43, -25.9028, -30.6845, 46.4856, -142.956, -74.3392, 44.8666
5.89823, 43, -25.8371, -30.7585, 46.5937, -142.852, -74.2246, 45.0525
5.90479, 43, -25.7356, -30.9773, 46.6997, -142.749, -74.1104, 45.2458
5.91147, 43, -25.7009, -31.049, 46.752, -142.699, -74.0533, 45.3454
5.91953, 43, -25.6305, -31.1907, 46.8552, -142.599, -73.9397, 45.5502
5.92753, 44, -25.5584, -31.3304, 46.9565, -142.501, -73.8267, 45.7629
5.93552, 44, -25.4848, -31.468, 47.0556, -142.405, -73.7142, 45.9835
5.94359, 44, -25.4092, -31.6036, 47.1523, -142.311, -73.6024, 46.2122
5.95164, 44, -25.332, -31.7368, 47.2464, -142.22, -73.4911, 46.449
5.95951, 44, -25.253, -31.8672, 47.3383, -142.131, -73.3806, 46.6941
5.96752, 45, -25.1721, -31.9951, 47.4278, -142.045, -73.2708, 46.9473
5.97551, 45, -25.0893, -32.1201, 47.5148, -141.962, -73.1613, 47.2091
5.98359, 45, -25.0044, -32.2424, 47.5992, -141.882, -73.0526, 47.4793
5.99156, 45, -24.9174, -32.3618, 47.6808, -141.804, -72.9442, 47.7577
5.99965, 45, -24.8282, -32.478, 47.7593, -141.729, -72.8362, 48.0441
6.00746, 46, -24.7365, -32.5909, 47.8347, -141.657, -72.7289, 48.3393
6.01563, 46, -24.6426, -32.7004, 47.9072, -141.589, -72.622, 48.6431
6.02383, 46, -24.5461, -32.8066, 47.9768, -141.524, -72.5161, 48.9549
6.03232, 46, -24.4473, -32.9092, 48.0432, -141.464, -72.4111, 49.2749
6.03962, 46, -24.3463, -33.0081, 48.1065, -141.406, -72.3066, 49.6037
6.04925, 47, -24.243, -33.1033, 48.1662, -141.353, -72.2038, 49.9403
6.05553, 47, -24.1373, -33.1946, 48.2225, -141.304, -72.1018, 50.285
6.06356, 47, -24.0292, -33.282, 48.2751, -141.258, -72.0008, 50.6383
6.07238, 47, -23.9184, -33.3653, 48.3241, -141.217, -71.9014, 50.9999
6.07951, 47, -23.8049, -33.4445, 48.3692, -141.181, -71.8028, 51.3699
6.0875, 47, -23.6887, -33.5196, 48.4106, -141.15, -71.7053, 51.7489
6.09648, 48, -23.5697, -33.5903, 48.4478, -141.123, -71.6096, 52.1364
6.10371, 48, -23.4482, -33.6564, 48.4809, -141.1, -71.5154, 52.533
6.11148, 48, -23.324, -33.7178, 48.5099, -141.082, -71.4225, 52.9394
6.12302, 48, -23.1331, -33.8006, 48.5454, -141.065, -71.2872, 53.5658
6.12766, 48, -23.068, -33.8256, 48.555, -141.062, -71.243, 53.7792
6.13646, 49, -22.9356, -33.8718, 48.571, -141.059, -71.156, 54.2123
6.14361, 49, -22.8003, -33.9126, 48.5824, -141.06, -71.071, 54.6526
6.1515, 49, -22.662, -33.9478, 48.5889, -141.068, -70.9883, 55.1011
6.15959, 49, -22.5209, -33.9772, 48.591, -141.082, -70.9077, 55.5566
6.16751, 49, -22.377, -34.0009, 48.5884, -141.103, -70.8293, 56.0197
6.17565, 50, -22.2303, -34.0185, 48.5807, -141.13, -70.7542, 56.49
6.18369, 50, -22.081, -34.0298, 48.568, -141.162, -70.6814, 56.9672
6.19149, 50, -21.9289, -34.0349, 48.55, -141.2, -70.6121, 57.4528
6.19966, 50, -21.7739, -34.0342, 48.5267, -141.245, -70.5454, 57.9457
6.20847, 50, -21.6158, -34.027, 48.4978, -141.297, -70.4827, 58.4461
6.21557, 51, -21.4545, -34.013, 48.4636, -141.354, -70.4235, 58.9526
6.22493, 51, -21.2907, -33.9922, 48.424, -141.418, -70.3674, 59.4656
6.23658, 51, -21.0399, -33.9477, 48.3539, -141.525, -70.2913, 60.2464
6.23965, 51, -20.955, -33.9294, 48.3278, -141.564, -70.2674, 60.5098
6.2476, 51, -20.7835, -33.8872, 48.2712, -141.646, -70.2229, 61.0402
6.25582, 52, -20.6093, -33.8373, 48.2087, -141.735, -70.1832, 61.5764
6.26706, 52, -20.4324, -33.7794, 48.1403, -141.88, -70.1324, 62.3937
6.2715, 52, -20.2526, -33.7136, 48.0658, -141.931, -70.1176, 62.6694
6.28026, 52, -20.07, -33.6397, 47.9851, -142.039, -70.0917, 63.2254
6.28753, 52, -19.8849, -33.5573, 47.8982, -142.153, -70.0711, 63.7873
6.29556, 53, -19.6974, -33.4665, 47.805, -142.274, -70.056, 64.3552
6.30462, 53, -19.508, -33.3673, 47.7058, -142.401, -70.0463, 64.9286
6.31249, 53, -19.3166, -33.2599, 47.6005, -142.533, -70.042, 65.5058
6.32052, 53, -19.1233, -33.1444, 47.4895, -142.671, -70.0423, 66.0864
6.32809, 53, -18.9284, -33.0207, 47.3726, -142.815, -70.0484, 66.6705
6.3363, 54, -18.7317, -32.8885, 47.2497, -142.963, -70.0609, 67.2568
6.34475, 54, -18.5331, -32.7481, 47.1209, -143.116, -70.0796, 67.8437
6.35319, 54, -18.3327, -32.5995, 46.9867, -143.273, -70.1052, 68.4318
6.3608, 54, -18.1304, -32.4428, 46.8469, -143.435, -70.1373, 69.0215
6.36807, 54, -17.9268, -32.2774, 46.7014, -143.602, -70.1753, 69.6129
6.37607, 54, -17.7223, -32.1029, 46.5497, -143.772, -70.2206, 70.2057
6.38506, 55, -17.517, -31.9191, 46.3917, -143.948, -70.2744, 70.8026
6.39259, 55, -17.31, -31.7259, 46.2272, -144.128, -70.335, 71.4041
6.40336, 55, -17.2059, -31.6257, 46.1423, -144.221, -70.3688, 71.7064
6.40822, 55, -16.9964, -31.4176, 45.9667, -144.505, -70.4833, 72.6202
6.41554, 55, -16.7852, -31.1986, 45.7835, -144.602, -70.5259, 72.9273
6.42345, 56, -16.5724, -30.9694, 45.5938, -144.8, -70.6183, 73.5452
6.43163, 56, -16.3581, -30.7296, 45.3969, -145.002, -70.7194, 74.167
6.43946, 56, -16.143, -30.4785, 45.192, -145.209, -70.83, 74.7912
6.44754, 56, -15.928, -30.217, 44.9806, -145.419, -70.95, 75.4188
6.45553, 56, -15.7132, -29.9451, 44.7633, -145.632, -71.079, 76.0482
6.46351, 57, -15.4974, -29.6624, 44.5387, -145.849, -71.2176, 76.6781
6.47153, 57, -15.2805, -29.3699, 44.3077, -146.067, -71.3653, 77.3086
6.47953, 57, -15.0627, -29.067, 44.0712, -146.288, -71.5229, 77.9398
6.48748, 57, -14.8448, -28.7552, 43.8281, -146.51, -71.6896, 78.5703
6.49555, 57, -14.6271, -28.4348, 43.5803, -146.734, -71.8658, 79.1983
6.5037, 58, -14.4101, -28.1065, 43.3281, -146.957, -72.0502, 79.8243
6.51228, 58, -14.1944, -27.7709, 43.0716, -147.18, -72.2426, 80.4463
6.51955, 58, -13.98, -27.4271, 42.8122, -147.402, -72.4428, 81.0625
6.5275, 58, -13.7672, -27.0766, 42.5493, -147.622, -72.6503, 81.6727
6.53556, 58, -13.5556, -26.7193, 42.2836, -147.84, -72.8651, 82.2774
6.54529, 59, -13.3451, -26.3555, 42.0147, -148.056, -73.0869, 82.8765
6.55261, 59, -13.1363, -25.9843, 41.7416, -148.271, -73.3164, 83.4696
6.56251, 59, -12.8265, -25.4152, 41.3259, -148.589, -73.6757, 84.352
6.56747, 59, -12.7239, -25.2223, 41.1853, -148.694, -73.7994, 84.6442
6.57562, 59, -12.5194, -24.8312, 40.9017, -148.904, -74.0534, 85.2256
6.58344, 60, -12.316, -24.4327, 40.6137, -149.111, -74.3159, 85.8025
6.59149, 60, -12.114, -24.0272, 40.322, -149.316, -74.5867, 86.3756
6.60288, 60, -11.8138, -23.4074, 39.8788, -149.619, -75.008, 87.2277
6.60764, 60, -11.7145, -23.1975, 39.7299, -149.719, -75.1523, 87.5089
6.61813, 60, -11.4199, -22.5601, 39.2808, -150.013, -75.5958, 88.344
6.62375, 61, -11.3229, -22.3453, 39.1303, -150.109, -75.7468, 88.6194
6.63151, 61, -11.1307, -21.9132, 38.8289, -150.299, -76.0531, 89.1646
6.63948, 61, -10.9406, -21.4772, 38.5263, -150.483, -76.3644, 89.7017
6.64755, 61, -10.7527, -21.0375, 38.2236, -150.663, -76.6805, 90.2294
6.65566, 61, -10.567, -20.5941, 37.9202, -150.838, -77.0014, 90.7491
6.66444, 61, -10.3836, -20.1466, 37.6166, -151.009, -77.3269, 91.2603
6.67154, 62, -10.2029, -19.6952, 37.3123, -151.175, -77.6576, 91.7639
6.68036, 62, -10.025, -19.2411, 37.0072, -151.336, -77.9936, 92.2593
6.69219, 62, -9.7626, -18.5547, 36.5477, -151.57, -78.5084, 92.99
6.6955, 62, -9.67651, -18.3251, 36.3942, -151.646, -78.6826, 93.2297
6.70425, 62, -9.50595, -17.865, 36.0877, -151.794, -79.0344, 93.7033
6.71148, 63, -9.33764, -17.4041, 35.7816, -151.936, -79.3898, 94.1679
6.71949, 63, -9.17164, -16.942, 35.4777, -152.074, -79.7479, 94.6214
6.72946, 63, -9.00833, -16.4781, 35.1754, -152.205, -80.1076, 95.0646
6.73556, 63, -8.84765, -16.0124, 34.8755, -152.331, -80.4687, 95.4962
6.74364, 63, -8.68949, -15.5442, 34.5773, -152.45, -80.8314, 95.917
6.75159, 64, -8.53381, -15.0741, 34.2812, -152.565, -81.1968, 96.3277
6.76221, 64, -8.38055, -14.6028, 33.9858, -152.675, -81.5658, 96.7281
6.76765, 64, -8.22946, -14.1301, 33.6899, -152.78, -81.9398, 97.12
6.77554, 64, -8.08069, -13.6574, 33.3939, -152.881, -82.3192, 97.503
6.78377, 64, -7.93423, -13.1853, 33.0977, -152.977, -82.7034, 97.8762
6.79254, 65, -7.79006, -12.7138, 32.803, -153.068, -83.0911, 98.2387
6.79954, 65, -7.64872, -12.2436, 32.5102, -153.153, -83.4801, 98.5887
6.80757, 65, -7.51048, -11.7744, 32.2216, -153.233, -83.8695, 98.9245
6.81568, 65, -7.37528, -11.3055, 31.9372, -153.305, -84.2574, 99.2456
6.82373, 65, -7.24323, -10.8376, 31.6575, -153.372, -84.6436, 99.5518
6.83208, 66, -7.11388, -10.3721, 31.3825, -153.433, -85.0278, 99.8425
6.84036, 66, -6.98673, -9.90972, 31.111, -153.488, -85.4109, 100.118
6.84785, 66, -6.86175, -9.45238, 30.844, -153.537, -85.7934, 100.377
6.85885, 66, -6.73887, -9.00121, 30.5804, -153.581, -86.1746, 100.621
6.86438, 66, -6.61811, -8.55683, 30.3207, -153.619, -86.5543, 100.848
6.872, 67, -6.49972, -8.11852, 30.066, -153.652, -86.931, 101.058
6.88085, 67, -6.38424, -7.68654, 29.8167, -153.679, -87.3037, 101.251
6.88826, 67, -6.27182, -7.26101, 29.5746, -153.699, -87.6712, 101.426
6.89688, 67, -6.21665, -7.05026, 29.4562, -153.715, -88.033, 101.584
6.90399, 67, -6.10828, -6.63305, 29.2241, -153.72, -88.2115, 101.656
6.91242, 67, -6.00248, -6.0195, 28.8887, -153.729, -88.7392, 101.845
6.91944, 68, -5.89877, -5.81835, 28.78, -153.73, -88.9129, 101.899
6.92746, 68, -5.797, -5.42002, 28.5656, -153.729, -89.2578, 101.995
6.93547, 68, -5.69679, -5.02759, 28.3552, -153.723, -89.6003, 102.074
6.94463, 68, -5.54954, -4.44894, 28.0461, -153.705, -90.1123, 102.157
6.95147, 68, -5.50128, -4.2585, 27.9445, -153.697, -90.2825, 102.175
6.95962, 69, -5.40606, -3.88002, 27.7438, -153.677, -90.6223, 102.199
6.96889, 69, -5.31262, -3.31912, 27.4509, -153.639, -91.1314, 102.202
6.97546, 69, -5.22077, -3.13394, 27.355, -153.624, -91.3008, 102.192
6.98512, 69, -5.08635, -2.58433, 27.0722, -153.574, -91.8074, 102.132
6.99378, 70, -4.99881, -2.22182, 26.8888, -153.536, -92.1437, 102.064
6.99945, 70, -4.95551, -2.04214, 26.7986, -153.515, -92.3112, 102.022
7.01006, 70, -4.82745, -1.50992, 26.5328, -153.447, -92.8116, 101.863
7.01556, 70, -4.78532, -1.3353, 26.4461, -153.423, -92.9774, 101.799
7.02355, 70, -4.70185, -0.989724, 26.2762, -153.373, -93.3075, 101.654
7.03146, 70, -4.61952, -0.650046, 26.1106, -153.318, -93.6351, 101.487
7.0421, 71, -4.49796, -0.152779, 25.8692, -153.232, -94.1206, 101.197
7.04747, 71, -4.45801, 0.00957747, 25.7912, -153.202, -94.2809, 101.09
7.05646, 71, -4.37883, 0.329173, 25.6396, -153.139, -94.5983, 100.86
7.06446, 71, -4.30037, 0.642885, 25.493, -153.075, -94.9116, 100.61
7.07159, 71, -4.22278, 0.949762, 25.3511, -153.008, -95.2213, 100.34
7.07947, 72, -4.14601, 1.24991, 25.2138, -152.94, -95.527, 100.051
7.08764, 72, -4.06946, 1.54317, 25.0808, -152.87, -95.8295, 99.7408
7.09643, 72, -3.9932, 1.82969, 24.9513, -152.799, -96.129, 99.4103
7.10445, 72, -3.91706, 2.11055, 24.8251, -152.726, -96.426, 99.0594
7.11481, 72, -3.80303, 2.51983, 24.6416, -152.617, -96.8669, 98.4934
7.12028, 73, -3.76507, 2.65332, 24.5819, -152.58, -97.0127, 98.2936
7.12747, 73, -3.68913, 2.91605, 24.465, -152.507, -97.3024, 97.8775
7.1355, 73, -3.61289, 3.17223, 24.3515, -152.433, -97.5897, 97.4386
7.14364, 73, -3.53637, 3.42207, 24.2417, -152.36, -97.8741, 96.9775
7.15146, 73, -3.45942, 3.66574, 24.1357, -152.287, -98.1552, 96.4955
7.15964, 74, -3.38202, 3.90158, 24.0337, -152.216, -98.4327, 95.9928
7.16834, 74, -3.30394, 4.12903, 23.9355, -152.145, -98.7056, 95.4718
7.17546, 74, -3.22522, 4.34825, 23.8414, -152.077, -98.973, 94.9344
7.18662, 74, -3.10603, 4.65951, 23.7081, -151.977, -99.3626, 94.1036
7.19261, 74, -3.06598, 4.75836, 23.6658, -151.945, -99.4889, 93.8205
7.19943, 75, -2.9852, 4.94888, 23.5846, -151.883, -99.7357, 93.2471
7.20767, 75, -2.90354, 5.12965, 23.5077, -151.824, -99.9739, 92.6651
7.21569, 75, -2.82082, 5.29956, 23.4348, -151.768, -100.203, 92.0765
7.22371, 75, -2.73713, 5.4586, 23.3659, -151.714, -100.423, 91.4805
7.23151, 75, -2.65257, 5.60689, 23.3011, -151.664, -100.634, 90.8782
7.23962, 75, -2.56711, 5.74406, 23.2404, -151.617, -100.835, 90.2694
7.2479, 76, -2.48054, 5.86982, 23.1839, -151.573, -101.026, 89.6531
7.25557, 76, -2.39308, 5.98399, 23.1318, -151.534, -101.209, 89.0279
7.26369, 76, -2.30487, 6.08612, 23.0839, -151.499, -101.382, 88.3936
7.27156, 76, -2.21584, 6.17587, 23.0404, -151.467, -101.546, 87.7525
7.27946, 76, -2.12597, 6.2529, 23.0019, -151.439, -101.699, 87.1048
7.28862, 77, -2.03533, 6.31693, 22.9684, -151.415, -101.84, 86.4531
7.29579, 77, -1.94374, 6.36783, 22.9403, -151.396, -101.968, 85.8015
7.30445, 77, -1.85125, 6.4049, 22.918, -151.38, -102.082, 85.1521
7.31438, 77, -1.75795, 6.42789, 22.9014, -151.368, -102.182, 84.5055
7.32003, 77, -1.66381, 6.43672, 22.8907, -151.36, -102.267, 83.863
7.32774, 78, -1.56888, 6.4308, 22.8857, -151.356, -102.336, 83.2256
7.33646, 78, -1.47326, 6.40956, 22.886, -151.354, -102.39, 82.5915
7.34385, 78, -1.37719, 6.37304, 22.8923, -151.355, -102.428, 81.9611
7.35193, 78, -1.2807, 6.32056, 22.9046, -151.359, -102.45, 81.3356
7.36, 78, -1.18401, 6.252, 22.9233, -151.368, -102.458, 80.7158
7.36851, 79, -1.08721, 6.16725, 22.9487, -151.379, -102.448, 80.1015
7.37602, 79, -0.990157, 6.06635, 22.9814, -151.393, -102.419, 79.4947
7.38403, 79, -0.893104, 5.94935, 23.0215, -151.411, -102.374, 78.8975
7.39218, 79, -0.796148, 5.816, 23.069, -151.431, -102.311, 78.3093
7.40008, 79, -0.747656, 5.66599, 23.1242, -151.454, -102.23, 77.731
7.40741, 80, -0.650582, 5.58484, 23.1546, -151.467, -102.183, 77.4457
7.4179, 80, -0.504887, 5.31652, 23.2571, -151.507, -102.013, 76.6065
7.42427, 80, -0.456349, 5.21884, 23.2953, -151.521, -101.877, 76.0595
7.43258, 80, -0.310962, 4.90036, 23.422, -151.565, -101.723, 75.522
7.43945, 80, -0.262557, 4.78519, 23.4684, -151.581, -101.638, 75.2567
7.44931, 81, -0.117549, 4.41286, 23.6205, -151.63, -101.356, 74.4758
7.45546, 81, -0.0692369, 4.28034, 23.6756, -151.647, -101.252, 74.2202
7.46346, 81, 0.0271026, 4.00249, 23.7926, -151.682, -101.031, 73.7156
7.47147, 81, 0.123268, 3.70784, 23.9191, -151.717, -100.79, 73.2206
7.47945, 81, 0.219303, 3.39641, 24.0553, -151.755, -100.529, 72.7347
7.48901, 82, 0.362757, 2.89652, 24.2782, -151.81, -100.103, 72.0245
7.49742, 82, 0.458144, 2.54231, 24.4386, -151.848, -99.7947, 71.5626
7.50562, 82, 0.553279, 2.1722, 24.6083, -151.885, -99.4675, 71.1104
7.51152, 82, 0.600779, 1.98122, 24.6967, -151.904, -99.2972, 70.8879
7.51964, 82, 0.695585, 1.5868, 24.8809, -151.941, -98.9433, 70.4502
7.52937, 83, 0.837648, 0.964743, 25.1743, -151.995, -98.3801, 69.8137
7.53545, 83, 0.884995, 0.749976, 25.2768, -152.013, -98.1843, 69.6064
7.54929, 83, 1.02703, 0.0838309, 25.6, -152.065, -97.5727, 68.8038
7.55159, 83, 1.07446, -0.145374, 25.7124, -152.081, -97.3612, 68.8038
7.55997, 83, 1.16938, -0.61487, 25.9434, -152.113, -96.9264, 68.4174
7.56744, 83, 1.26435, -1.09858, 26.1842, -152.144, -96.4767, 68.0412
7.57545, 84, 1.35948, -1.59599, 26.4348, -152.173, -96.0114, 67.6741
7.58352, 84, 1.4549, -2.10681, 26.6953, -152.202, -95.5314, 67.315
7.59144, 84, 1.55051, -2.63081, 26.9665, -152.228, -95.0358, 66.9637
7.60037, 84, 1.64654, -3.16857, 27.2475, -152.253, -94.5244, 66.6192
7.61244, 84, 1.79133, -4.00049, 27.6893, -152.287, -93.7296, 66.1152
7.6154, 85, 1.83975, -4.2843, 27.8414, -152.298, -93.4571, 65.9509
7.62358, 85, 1.93671, -4.86076, 28.1536, -152.318, -92.9008, 65.6283
7.63145, 85, 2.03409, -5.44771, 28.4752, -152.336, -92.3307, 65.3134
7.63948, 85, 2.13185, -6.04458, 28.806, -152.351, -91.7501, 65.0064
7.65202, 85, 2.27951, -6.95548, 29.3185, -152.369, -90.8593, 64.5631
7.6566, 86, 2.32904, -7.26287, 29.4935, -152.374, -90.5575, 64.4202
7.66398, 86, 2.42873, -7.88273, 29.8488, -152.381, -89.9467, 64.1418
7.67145, 86, 2.52954, -8.50857, 30.2113, -152.385, -89.3273, 63.874
7.68001, 86, 2.63121, -9.14027, 30.5792, -152.387, -88.7017, 63.6175
7.68933, 86, 2.73362, -9.77653, 30.9525, -152.386, -88.0724, 63.3725
7.69641, 87, 2.83745, -10.4171, 31.3312, -152.382, -87.4375, 63.1393
7.70528, 87, 2.9419, -11.0606, 31.715, -152.374, -86.7975, 62.9179
7.71243, 87, 3.04719, -11.7065, 32.1031, -152.362, -86.1525, 62.7086
7.71959, 87, 3.15348, -12.3545, 32.4955, -152.346, -85.5026, 62.5121
7.72746, 87, 3.26034, -13.004, 32.8928, -152.326, -84.8503, 62.3286
7.7355, 87, 3.36796, -13.6553, 33.2945, -152.303, -84.1943, 62.158
7.74378, 88, 3.47628, -14.3086, 33.7005, -152.276, -83.5335, 62.0011
7.75156, 88, 3.58527, -14.964, 34.1107, -152.245, -82.8694, 61.8577
7.76024, 88, 3.695, -15.62, 34.5248, -152.209, -82.2015, 61.7287
7.7678, 88, 3.80527, -16.2769, 34.9432, -152.169, -81.5308, 61.6146
7.77555, 88, 3.9159, -16.9339, 35.3657, -152.124, -80.858, 61.5157
7.78409, 89, 4.02684, -17.5898, 35.7915, -152.075, -80.1827, 61.4341
7.79249, 89, 4.13791, -18.2437, 36.2203, -152.019, -79.504, 61.3697
7.8001, 89, 4.24897, -18.895, 36.6513, -151.959, -78.8216, 61.3233
7.81223, 89, 4.41572, -19.8655, 37.3, -151.858, -77.7981, 61.2898
7.81581, 89, 4.47127, -20.1868, 37.5163, -151.822, -77.4582, 61.2882
7.82468, 90, 4.58275, -20.8261, 37.9481, -151.745, -76.7793, 61.3029
7.83179, 90, 4.69479, -21.4609, 38.3792, -151.663, -76.1024, 61.3416
7.84057, 90, 4.80691, -22.0912, 38.8086, -151.575, -75.429, 61.4039
7.8478, 90, 4.91921, -22.717, 39.2361, -151.481, -74.7606, 61.4915
7.85602, 90, 5.03136, -23.3384, 39.6622, -151.381, -74.0972, 61.6057
7.86478, 91, 5.14338, -23.9552, 40.0872, -151.275, -73.4353, 61.7469
7.87238, 91, 5.25498, -24.5663, 40.5115, -151.162, -72.7738, 61.9166
7.88001, 91, 5.36589, -25.1713, 40.9356, -151.043, -72.1125, 62.1152
7.89075, 91, 5.47594, -25.7696, 41.3586, -150.917, -71.4504, 62.3439
7.89671, 91, 5.5307, -26.0659, 41.7805, -150.785, -70.7896, 62.6032
7.9041, 92, 5.63988, -26.6529, 41.991, -150.716, -70.4598, 62.7448
7.91206, 92, 5.74919, -27.2322, 42.4101, -150.575, -69.8018, 63.2164
7.91943, 92, 5.85903, -27.8033, 42.8254, -150.428, -69.1466, 63.389
7.92743, 92, 5.96943, -28.3654, 43.2353, -150.276, -68.4949, 63.758
7.9355, 92, 6.08069, -28.9175, 43.6397, -150.12, -67.8475, 64.1584
7.94631, 93, 6.25009, -29.7252, 44.2343, -149.881, -66.889, 64.8178
7.95148, 93, 6.30738, -29.9892, 44.4291, -149.8, -66.5721, 65.0538
7.95944, 93, 6.42353, -30.5092, 44.8143, -149.637, -65.941, 65.5491
7.96885, 93, 6.60183, -31.2731, 45.3817, -149.39, -65.0002, 66.3549
7.97545, 93, 6.66238, -31.5248, 45.5685, -149.307, -64.687, 66.6415
7.98346, 93, 6.78517, -32.0237, 45.939, -149.142, -64.0613, 67.245
7.99295, 94, 6.97354, -32.763, 46.4895, -148.892, -63.116, 68.2347
7.99943, 94, 7.0374, -33.0069, 46.6722, -148.808, -62.7976, 68.5901
8.00744, 94, 7.16662, -33.489, 47.0362, -148.641, -62.1563, 69.3411
8.01915, 94, 7.36553, -34.1983, 47.577, -148.396, -61.1824, 70.5649
8.02358, 94, 7.43369, -34.4309, 47.7545, -148.317, -60.8559, 70.9999
8.03153, 95, 7.57348, -34.8884, 48.1037, -148.164, -60.2047, 71.9082
8.04043, 95, 7.71888, -35.3356, 48.4432, -148.022, -59.5572, 72.8582
8.04848, 95, 7.87042, -35.7707, 48.7711, -147.893, -58.916, 73.8493
8.05546, 95, 8.02861, -36.1902, 49.085, -147.78, -58.2831, 74.8756
8.0635, 95, 8.19378, -36.5901, 49.3833, -147.684, -57.6592, 75.9364
8.07144, 96, 8.36572, -36.9698, 49.6655, -147.607, -57.0486, 77.0278
8.0795, 96, 8.5441, -37.3271, 49.9305, -147.55, -56.452, 78.1493
8.08756, 96, 8.72793, -37.6606, 50.1789, -147.515, -55.8695, 79.2956
8.09543, 96, 8.91675, -37.9682, 50.4087, -147.498, -55.3037, 80.462
8.10349, 96, 9.10969, -38.2508, 50.6189, -147.503, -54.7567, 81.6408
8.11167, 97, 9.30499, -38.5082, 50.81, -147.529, -54.2313, 82.8309
8.11943, 97, 9.50119, -38.7401, 50.981, -147.577, -53.7297, 84.0278
8.12749, 97, 9.69719, -38.947, 51.1312, -147.646, -53.2539, 85.2248
8.13541, 97, 9.89203, -39.1295, 51.2617, -147.733, -52.8062, 86.4109
8.14345, 97, 10.085, -39.2865, 51.3726, -147.837, -52.3877, 87.5811
8.15152, 97, 10.2747, -39.4178, 51.4639, -147.954, -51.9999, 88.7273
8.15945, 97, 10.4606, -39.5239, 51.5367, -148.083, -51.6429, 89.843
8.16749, 98, 10.6434, -39.6051, 51.5914, -148.221, -51.3163, 90.923
8.17543, 98, 10.8242, -39.6631, 51.6284, -148.37, -51.0191, 91.9747
8.18342, 98, 11.0035, -39.6983, 51.648, -148.529, -50.7481, 93.0074
8.19153, 98, 11.181, -39.7101, 51.6506, -148.699, -50.4993, 94.0377
8.19951, 98, 11.3564, -39.6987, 51.6366, -148.882, -50.2704, 95.0757
8.20745, 98, 11.5317, -39.6635, 51.6048, -149.079, -50.06, 96.1338
8.21542, 98, 11.7072, -39.6046, 51.5554, -149.289, -49.8691, 97.2125
8.22343, 99, 11.8818, -39.5229, 51.4878, -149.512, -49.7, 98.312
8.23154, 99, 12.0542, -39.4185, 51.4017, -149.745, -49.5556, 99.4216
8.23949, 99, 12.2233, -39.2917, 51.2973, -149.985, -49.4392, 100.532
8.24759, 99, 12.388, -39.1425, 51.1751, -150.228, -49.3535, 101.632
8.25603, 99, 12.5464, -38.9713, 51.0362, -150.472, -49.2983, 102.71
8.26437, 99, 12.6967, -38.7771, 50.8818, -150.714, -49.2745, 103.759
8.27154, 100, 12.8382, -38.5584, 50.7113, -150.951, -49.2822, 104.78
8.27949, 100, 12.9709, -38.3162, 50.5237, -151.183, -49.3222, 105.771
8.28762, 100, 13.0946, -38.0517, 50.3194, -151.409, -49.3927, 106.736
8.29545, 100, 13.2101, -37.7659, 50.0984, -151.629, -49.4951, 107.677
8.30346, 100, 13.3174, -37.4587, 49.8589, -151.843, -49.6282, 108.595
8.31325, 101, 13.4166, -37.1273, 49.6021, -152.05, -49.7918, 109.493
8.31953, 101, 13.5076, -36.7714, 49.3285, -152.249, -49.9852, 110.367
8.32768, 101, 13.5908, -36.3886, 49.0375, -152.439, -50.2086, 111.219
8.33572, 101, 13.666, -35.9797, 48.7289, -152.619, -50.4619, 112.048
8.34381, 101, 13.7329, -35.5462, 48.4016, -152.791, -50.7466, 112.854
8.35178, 101, 13.7917, -35.0888, 48.056, -152.952, -51.0636, 113.642
8.35997, 101, 13.8418, -34.6081, 47.6921, -153.102, -51.4142, 114.407
8.37283, 102, 13.8999, -33.8418, 47.1126, -153.304, -52.0038, 115.513
8.37597, 102, 13.9147, -33.5741, 46.9108, -153.365, -52.217, 115.871
8.38402, 102, 13.9374, -33.021, 46.4949, -153.478, -52.6683, 116.567
8.39204, 102, 13.9514, -32.4457, 46.065, -153.576, -53.1512, 117.236
8.40001, 102, 13.9552, -32.1495, 45.621, -153.66, -53.6626, 117.88
8.40808, 103, 13.9572, -31.541, 45.3937, -153.697, -54.2003, 118.496
8.41605, 103, 13.9518, -30.9129, 44.9302, -153.76, -54.4781, 118.793
8.42342, 103, 13.9396, -30.2679, 44.4558, -153.81, -55.0503, 119.367
8.43142, 103, 13.9213, -29.6084, 43.9717, -153.846, -55.6416, 119.916
8.43945, 103, 13.8973, -28.935, 43.4801, -153.87, -56.2509, 120.437
8.44764, 104, 13.8683, -28.2496, 42.9823, -153.882, -56.8754, 120.932
8.45544, 104, 13.835, -27.5544, 42.4799, -153.885, -57.512, 121.4
8.46356, 104, 13.7976, -26.8512, 41.9744, -153.876, -58.1613, 121.845
8.47142, 104, 13.7565, -26.1412, 41.4662, -153.858, -58.8243, 122.268
8.47946, 104, 13.7126, -25.4261, 40.9566, -153.832, -59.4986, 122.672
8.48743, 104, 13.6667, -24.7083, 40.4465, -153.798, -60.1824, 123.06
8.49542, 104, 13.6191, -23.9884, 39.9361, -153.756, -60.8723, 123.434
8.50505, 104, 13.5448, -22.9052, 39.1719, -153.683, -61.9178, 123.978
8.51142, 104, 13.5195, -22.5439, 38.9176, -153.657, -62.2683, 124.156
8.521, 104, 13.4427, -21.459, 38.1574, -153.567, -63.3227, 124.685
8.52744, 104, 13.4168, -21.0973, 37.9046, -153.536, -63.6749, 124.86
8.5355, 104, 13.3647, -20.3742, 37.3998, -153.469, -64.3794, 125.21
8.54441, 104, 13.3125, -19.6509, 36.8971, -153.399, -65.0846, 125.557
8.55142, 104, 13.2601, -18.9273, 36.3964, -153.324, -65.7916, 125.903
8.56042, 104, 13.2076, -18.2041, 35.8977, -153.246, -66.4991, 126.249
8.56749, 104, 13.1555, -17.4803, 35.4015, -153.163, -67.208, 126.594
8.57542, 104, 13.1035, -16.7558, 34.9074, -153.077, -67.9163, 126.939
8.58341, 104, 13.0519, -16.0316, 34.4152, -152.986, -68.6244, 127.283
8.59153, 104, 13.0008, -15.3069, 33.9252, -152.892, -69.3351, 127.627
8.59941, 104, 12.9498, -14.5821, 33.4374, -152.794, -70.0465, 127.97
8.60743, 104, 12.8992, -13.8568, 32.9522, -152.692, -70.7579, 128.314
8.61548, 104, 12.849, -13.1313, 32.4697, -152.586, -71.4681, 128.658
8.62341, 104, 12.7991, -12.4056, 31.9898, -152.476, -72.1799, 129.002
8.63143, 104, 12.7494, -11.6803, 31.5127, -152.363, -72.8931, 129.347
8.63948, 104, 12.7002, -10.9553, 31.0378, -152.245, -73.6062, 129.692
8.64744, 104, 12.6514, -10.23, 30.5655, -152.124, -74.3195, 130.038
8.65541, 104, 12.6028, -9.50443, 30.0966, -151.999, -75.0327, 130.384
8.66348, 104, 12.5547, -8.77869, 29.6307, -151.869, -75.7467, 130.732
8.67142, 104, 12.5071, -8.05232, 29.1678, -151.735, -76.4616, 131.08
8.67942, 104, 12.46, -7.32667, 28.7084, -151.598, -77.1771, 131.43
8.68756, 104, 12.4136, -6.60128, 28.2522, -151.456, -77.8933, 131.781
8.69541, 104, 12.3677, -5.87637, 27.7992, -151.31, -78.6076, 132.133
8.70349, 104, 12.3222, -5.15207, 27.35, -151.16, -79.3222, 132.486
8.71148, 104, 12.2776, -4.42887, 26.9049, -151.006, -80.0382, 132.84
8.71941, 104, 12.234, -3.7075, 26.4643, -150.847, -80.754, 133.196
8.72785, 104, 12.1914, -2.99032, 26.0287, -150.685, -81.4667, 133.552
8.73545, 104, 12.15, -2.27901, 25.5988, -150.519, -82.1753, 133.909
8.74349, 104, 12.11, -1.57459, 25.1755, -150.35, -82.8807, 134.266
8.75158, 104, 12.0708, -0.877997, 24.7606, -150.178, -83.5803, 134.62
8.75984, 104, 12.0327, -0.191151, 24.3548, -150.003, -84.2702, 134.972
8.76753, 104, 11.9956, 0.485079, 23.9597, -149.828, -84.9479, 135.32
8.77561, 104, 11.9595, 1.14945, 23.5767, -149.652, -85.6117, 135.664
8.78347, 104, 11.9247, 1.80087, 23.206, -149.476, -86.2614, 136.001
8.79191, 104, 11.891, 2.43795, 22.8481, -149.3, -86.8963, 136.333
8.79951, 104, 11.8583, 3.05885, 22.5022, -149.125, -87.5146, 136.658
8.80745, 104, 11.8269, 3.66345, 22.17, -148.951, -88.1169, 136.976
8.81547, 104, 11.7969, 4.25119, 21.8505, -148.778, -88.7019, 137.288
8.82386, 104, 11.768, 4.82244, 21.5434, -148.606, -89.2694, 137.593
8.83161, 104, 11.7405, 5.37681, 21.2478, -148.436, -89.8208, 137.891
8.8397, 104, 11.7142, 5.91363, 20.9641, -148.268, -90.3565, 138.181
8.84784, 104, 11.6889, 6.43368, 20.6925, -148.102, -90.8757, 138.465
8.8558, 104, 11.6649, 6.9369, 20.4322, -147.938, -91.3788, 138.741
8.86385, 104, 11.642, 7.42304, 20.1838, -147.777, -91.8643, 139.01
8.87288, 104, 11.6203, 7.8928, 19.9464, -147.619, -92.3329, 139.271
8.87996, 104, 11.5997, 8.34584, 19.7196, -147.464, -92.7851, 139.524
8.88864, 104, 11.5802, 8.78198, 19.5041, -147.313, -93.2206, 139.77
8.89598, 104, 11.5619, 9.20024, 19.2988, -147.164, -93.6394, 140.007
8.90409, 104, 11.5532, 9.40314, 19.1036, -147.021, -94.0411, 140.236
8.91203, 104, 11.5365, 9.79548, 19.0102, -146.881, -94.4256, 140.456
8.9194, 104, 11.5209, 10.1698, 18.8315, -146.813, -94.611, 140.563
8.92742, 104, 11.5064, 10.5248, 18.6631, -146.68, -94.9682, 140.769
8.93545, 104, 11.4929, 10.8609, 18.5049, -146.554, -95.3065, 140.965
8.9434, 104, 11.4805, 11.1773, 18.3577, -146.433, -95.6249, 141.151
8.9514, 104, 11.469, 11.4731, 18.2213, -146.318, -95.9228, 141.325
8.95945, 104, 11.4587, 11.7484, 18.0953, -146.211, -96.2, 141.488
8.96753, 104, 11.4493, 12.0024, 17.9799, -146.111, -96.4556, 141.639
8.9754, 104, 11.4406, 12.2351, 17.8752, -146.019, -96.6894, 141.777
8.98349, 104, 11.4326, 12.447, 17.7809, -145.935, -96.9013, 141.903
8.9914, 104, 11.4254, 12.6378, 17.6969, -145.859, -97.0912, 142.016
8.9994, 104, 11.419, 12.8073, 17.6233, -145.792, -97.2589, 142.116
9.00746, 104, 11.4133, 12.9563, 17.5595, -145.733, -97.4048, 142.204
9.01717, 104, 11.4056, 13.1435, 17.4817, -145.66, -97.5833, 142.31
9.0234, 104, 11.4033, 13.1966, 17.4604, -145.641, -97.6324, 142.34
9.03305, 104, 11.399, 13.3294, 17.4084, -145.592, -97.7513, 142.411
9.03948, 104, 11.395, 13.3656, 17.3949, -145.58, -97.782, 142.429
9.04741, 104, 11.3914, 13.4277, 17.3732, -145.559, -97.8311, 142.459
9.0555, 104, 11.3882, 13.4772, 17.3574, -145.544, -97.8669, 142.481
9.06448, 104, 11.3856, 13.5153, 17.3464, -145.533, -97.8919, 142.496
9.0714, 104, 11.3834, 13.5437, 17.3393, -145.526, -97.9087, 142.505
9.07947, 104, 11.3818, 13.5648, 17.3348, -145.522, -97.9189, 142.51
9.08741, 104, 11.3804, 13.5796, 17.3322, -145.52, -97.9245, 142.513
9.09541, 104, 11.3794, 13.5897, 17.3309, -145.519, -97.9274, 142.515
9.10344, 105, 11.3786, 13.5966, 17.3302, -145.518, -97.9287, 142.516
9.11139, 105, 11.3781, 13.6011, 17.3298, -145.518, -97.9294, 142.516
9.1194, 105, 11.3777, 13.6041, 17.3297, -145.518, -97.9297, 142.516
9.12747, 105, 11.3774, 13.6064, 17.3296, -145.518, -97.9298, 142.516
9.1354, 105, 11.3771, 13.6083, 17.3296, -145.518, -97.9298, 142.516
9.14339, 105, 11.377, 13.61, 17.3296, -145.518, -97.9298, 142.516
9.15148, 105, 11.3768, 13.6114, 17.3296, -145.518, -97.9298, 142.516
9.1594, 105, 11.3767, 13.6127, 17.3296, -145.518, -97.9298, 142.516
9.16741, 105, 11.3766, 13.6138, 17.3296, -145.518, -97.9297, 142.516
9.17546, 105, 11.3765, 13.6147, 17.3296, -145.518, -97.9296, 142.516
9.18339, 105, 11.3764, 13.6155, 17.3296, -145.518, -97.9295, 142.516
9.1914, 105, 11.3764, 13.616, 17.3296, -145.518, -97.9293, 142.516
9.19946, 105, 11.3764, 13.6164, 17.3297, -145.518, -97.9292, 142.516
9.20748, 105, 11.3764, 13.6166, 17.3297, -145.518, -97.9291, 142.517
9.2154, 105, 11.3764, 13.6167, 17.3297, -145.518, -97.9289, 142.517
