hehonglu123/Motion-Primitive-Planning/ILC/recorded_data/realrobot/wood/iteration_22/run_1.csv
timestamp, cmd_num, J1, J2, J3, J4, J5, J6
0.000388, -1, 11.3762, 13.6155, 17.3341, -145.52, -97.9262, 142.516
0.004434, -1, 11.3762, 13.6155, 17.3341, -145.52, -97.9262, 142.516
0.007888, -1, 11.3762, 13.6154, 17.3341, -145.52, -97.9262, 142.516
0.029393, -1, 11.3762, 13.6154, 17.3342, -145.52, -97.9263, 142.516
0.030723, -1, 11.3762, 13.6154, 17.3342, -145.52, -97.9263, 142.516
0.034425, -1, 11.3762, 13.6154, 17.3342, -145.52, -97.9263, 142.516
0.039822, -1, 11.3762, 13.6154, 17.3341, -145.52, -97.9263, 142.516
0.048506, -1, 11.376, 13.6154, 17.3342, -145.52, -97.9263, 142.516
0.055977, -1, 11.3746, 13.6153, 17.3341, -145.52, -97.9262, 142.516
0.064623, -1, 11.3701, 13.6149, 17.334, -145.52, -97.9263, 142.516
0.072024, -1, 11.3614, 13.6137, 17.3337, -145.52, -97.9262, 142.516
0.080045, -1, 11.3474, 13.6113, 17.333, -145.521, -97.9262, 142.513
0.088822, -1, 11.3255, 13.6067, 17.3322, -145.524, -97.9257, 142.5
0.096091, -1, 11.293, 13.5993, 17.3315, -145.529, -97.9245, 142.47
0.10407, -1, 11.2723, 13.5943, 17.3312, -145.533, -97.9235, 142.419
0.112232, -1, 11.222, 13.5819, 17.3314, -145.544, -97.92, 142.339
0.119436, -1, 11.1603, 13.5665, 17.3331, -145.562, -97.9145, 142.287
0.127472, -1, 11.087, 13.5475, 17.3371, -145.585, -97.9067, 142.156
0.135528, -1, 11.0017, 13.5245, 17.3435, -145.614, -97.8966, 141.991
0.143418, -1, 10.9049, 13.4982, 17.3521, -145.647, -97.8844, 141.793
0.151436, -1, 10.7972, 13.4684, 17.3625, -145.686, -97.8706, 141.567
0.159486, -1, 10.6787, 13.4356, 17.3737, -145.729, -97.8558, 141.321
0.167417, -1, 10.5496, 13.3999, 17.3849, -145.773, -97.8404, 141.06
0.175502, -1, 10.4115, 13.362, 17.3956, -145.819, -97.8245, 140.791
0.183474, -1, 10.2667, 13.3225, 17.4059, -145.866, -97.8082, 140.516
0.191434, -1, 10.1172, 13.282, 17.4159, -145.914, -97.7916, 140.239
0.199457, -1, 9.96475, 13.2409, 17.426, -145.961, -97.7747, 139.96
0.207488, -1, 9.81008, 13.1995, 17.436, -146.009, -97.7574, 139.681
0.215475, -1, 9.65453, 13.1581, 17.446, -146.057, -97.7402, 139.402
0.223429, -1, 9.49925, 13.1169, 17.456, -146.105, -97.7232, 139.122
0.233191, -1, 9.34449, 13.0757, 17.4659, -146.153, -97.698, 138.703
0.239434, -1, 9.19005, 13.0345, 17.476, -146.201, -97.6896, 138.563
0.248478, -1, 9.03617, 12.9934, 17.486, -146.249, -97.6728, 138.283
0.255504, -1, 8.88248, 12.9523, 17.4962, -146.297, -97.6559, 138.003
0.264436, -1, 8.72889, 12.9113, 17.5063, -146.345, -97.6388, 137.723
0.272227, -1, 8.57583, 12.8702, 17.5164, -146.393, -97.6214, 137.443
0.280473, -1, 8.42307, 12.829, 17.5265, -146.441, -97.6039, 137.163
0.287416, -1, 8.27015, 12.7876, 17.5367, -146.489, -97.5865, 136.882
0.295565, -1, 8.11674, 12.746, 17.5469, -146.537, -97.5696, 136.602
0.303416, -1, 7.96285, 12.7044, 17.5572, -146.585, -97.5527, 136.322
0.311419, -1, 7.80832, 12.6627, 17.5673, -146.633, -97.5361, 136.041
0.320234, -1, 7.65341, 12.621, 17.5773, -146.68, -97.5194, 135.761
0.327414, -1, 7.49843, 12.5793, 17.5876, -146.729, -97.5026, 135.481
0.335475, -1, 7.34344, 12.5378, 17.5978, -146.777, -97.4855, 135.201
0.344235, -1, 7.18847, 12.4962, 17.608, -146.824, -97.4681, 134.92
0.351414, -1, 7.0334, 12.4547, 17.6184, -146.873, -97.4507, 134.64
0.359471, -1, 6.87824, 12.4134, 17.6286, -146.921, -97.4337, 134.36
0.368215, -1, 6.72335, 12.3721, 17.639, -146.969, -97.4168, 134.079
0.375492, -1, 6.56865, 12.3308, 17.6494, -147.017, -97.4001, 133.799
0.38342, -1, 6.41418, 12.2895, 17.6598, -147.065, -97.3834, 133.518
0.392217, -1, 6.25991, 12.2482, 17.6702, -147.113, -97.3665, 133.238
0.399437, -1, 6.10566, 12.2067, 17.6805, -147.162, -97.3493, 132.957
0.407424, -1, 5.95119, 12.1652, 17.6907, -147.21, -97.3319, 132.676
0.416925, -1, 5.79655, 12.1236, 17.701, -147.257, -97.3144, 132.396
0.424485, -1, 5.64172, 12.0819, 17.7113, -147.306, -97.2969, 132.115
0.431547, -1, 5.48664, 12.0402, 17.7215, -147.354, -97.2798, 131.834
0.439597, -1, 5.3314, 11.9985, 17.7318, -147.402, -97.2629, 131.553
0.447512, -1, 5.17585, 11.9568, 17.7421, -147.45, -97.2461, 131.272
0.455688, -1, 5.02012, 11.9151, 17.7526, -147.498, -97.2293, 130.991
0.46354, -1, 4.8644, 11.8735, 17.763, -147.546, -97.2124, 130.71
0.47152, -1, 4.70872, 11.8319, 17.7735, -147.595, -97.1951, 130.429
0.479637, -1, 4.55304, 11.7904, 17.7839, -147.643, -97.1776, 130.148
0.487445, -1, 4.3974, 11.7489, 17.7943, -147.691, -97.1602, 129.867
0.495491, -1, 4.24199, 11.7074, 17.8047, -147.74, -97.1431, 129.586
0.503556, -1, 4.08685, 11.666, 17.8152, -147.788, -97.1261, 129.305
0.637042, -1, 1.51955, 10.9779, 17.9867, -148.585, -96.8433, 124.658
0.638341, -1, 1.51955, 10.9779, 17.9867, -148.585, -96.8433, 124.658
0.639549, -1, 1.51955, 10.9779, 17.9867, -148.585, -96.8433, 124.658
0.641576, -1, 1.44155, 10.9571, 17.9919, -148.609, -96.8348, 124.517
0.642777, -1, 1.44155, 10.9571, 17.9919, -148.609, -96.8348, 124.517
0.644711, -1, 1.36361, 10.9363, 17.9971, -148.633, -96.8264, 124.376
0.646049, -1, 1.36361, 10.9363, 17.9971, -148.633, -96.8264, 124.376
0.648725, -1, 1.28573, 10.9154, 18.0023, -148.657, -96.8179, 124.235
0.650217, -1, 1.28573, 10.9154, 18.0023, -148.657, -96.8179, 124.235
0.651402, -1, 1.28573, 10.9154, 18.0023, -148.657, -96.8179, 124.235
0.653484, -1, 1.20791, 10.8946, 18.0075, -148.681, -96.8095, 124.093
0.654713, -1, 1.20791, 10.8946, 18.0075, -148.681, -96.8095, 124.093
0.657506, -1, 1.13017, 10.8737, 18.0127, -148.706, -96.8011, 123.952
0.659684, -1, 1.13017, 10.8737, 18.0127, -148.706, -96.8011, 123.952
0.661776, -1, 1.05254, 10.8528, 18.0178, -148.73, -96.7926, 123.811
0.663098, -1, 1.05254, 10.8528, 18.0178, -148.73, -96.7926, 123.811
0.6651, -1, 0.97497, 10.8319, 18.023, -148.755, -96.7841, 123.67
0.666498, -1, 0.97497, 10.8319, 18.023, -148.755, -96.7841, 123.67
0.667824, -1, 0.97497, 10.8319, 18.023, -148.755, -96.7841, 123.67
0.669852, -1, 0.897447, 10.811, 18.0282, -148.779, -96.7756, 123.529
0.672981, -1, 0.820007, 10.7902, 18.0334, -148.803, -96.7669, 123.388
0.679469, -1, 0.742596, 10.7693, 18.0386, -148.827, -96.7582, 123.246
0.687409, -1, 0.587921, 10.7274, 18.049, -148.876, -96.7406, 122.964
0.69548, -1, 0.433123, 10.6857, 18.0594, -148.924, -96.723, 122.681
0.703474, -1, 0.277944, 10.6438, 18.0698, -148.972, -96.7057, 122.398
0.711403, -1, 0.12246, 10.6019, 18.0802, -149.021, -96.6887, 122.116
0.719418, -1, -0.033533, 10.56, 18.0908, -149.069, -96.6719, 121.833
0.729778, -1, -0.18993, 10.5182, 18.1013, -149.118, -96.6552, 121.409
0.735459, -1, -0.346516, 10.4763, 18.1118, -149.167, -96.6383, 121.267
0.744424, -1, -0.503465, 10.4344, 18.1222, -149.215, -96.6213, 120.985
0.751507, -1, -0.660691, 10.3926, 18.1326, -149.263, -96.6039, 120.702
0.760494, -1, -0.818083, 10.3507, 18.1431, -149.312, -96.5864, 120.419
0.767402, -1, -0.975408, 10.3089, 18.1535, -149.36, -96.5691, 120.136
0.775548, -1, -1.13261, 10.2671, 18.1638, -149.409, -96.5521, 119.853
0.783403, -1, -1.28966, 10.2252, 18.1742, -149.458, -96.5352, 119.57
0.925462, -1, -4.02971, 9.49146, 18.3567, -150.309, -96.2346, 114.605
0.927538, -1, -4.10865, 9.4705, 18.3619, -150.334, -96.2262, 114.463
0.928778, -1, -4.10865, 9.4705, 18.3619, -150.334, -96.2262, 114.463
0.930662, -1, -4.10865, 9.4705, 18.3619, -150.358, -96.2177, 114.321
0.932012, -1, -4.18754, 9.44954, 18.3671, -150.358, -96.2177, 114.321
0.9333, -1, -4.18754, 9.44954, 18.3671, -150.358, -96.2177, 114.321
0.935423, -1, -4.26642, 9.42855, 18.3723, -150.382, -96.2091, 114.178
0.939273, -1, -4.34529, 9.40753, 18.3775, -150.406, -96.2005, 114.036
0.940548, -1, -4.34529, 9.40753, 18.3775, -150.406, -96.2005, 114.036
0.941842, -1, -4.34529, 9.40753, 18.3775, -150.406, -96.2005, 114.036
0.943824, -1, -4.42409, 9.38651, 18.3826, -150.431, -96.1919, 113.894
0.945125, -1, -4.42409, 9.38651, 18.3826, -150.431, -96.1919, 113.894
0.948532, -1, -4.50275, 9.36549, 18.3878, -150.455, -96.1831, 113.751
0.949837, -1, -4.50275, 9.36549, 18.3878, -150.455, -96.1831, 113.751
0.951901, -1, -4.58129, 9.34448, 18.393, -150.48, -96.1743, 113.609
0.954881, -1, -4.58129, 9.32345, 18.3982, -150.504, -96.1654, 113.467
0.956334, -1, -4.65972, 9.32345, 18.3982, -150.504, -96.1654, 113.467
0.957603, -1, -4.65972, 9.32345, 18.3982, -150.504, -96.1654, 113.467
0.959643, -1, -4.73805, 9.30242, 18.4034, -150.529, -96.1565, 113.325
0.960943, -1, -4.73805, 9.30242, 18.4034, -150.529, -96.1565, 113.325
0.962201, -1, -4.73805, 9.30242, 18.4034, -150.529, -96.1565, 113.325
0.964433, -1, -4.81632, 9.28141, 18.4086, -150.553, -96.1477, 113.182
0.971621, -1, -4.89453, 9.26036, 18.4139, -150.602, -96.1302, 112.897
0.975634, -1, -5.05071, 9.21829, 18.4244, -150.626, -96.1215, 112.755
0.983424, -1, -5.20659, 9.17625, 18.435, -150.675, -96.1044, 112.47
0.991438, -1, -5.36249, 9.13412, 18.4455, -150.724, -96.0875, 112.185
0.99952, -1, -5.51854, 9.09198, 18.456, -150.773, -96.0706, 111.901
1.00747, -1, -5.67486, 9.04992, 18.4664, -150.821, -96.0536, 111.616
1.01563, -1, -5.83161, 9.00777, 18.4769, -150.87, -96.0363, 111.331
1.02361, -1, -5.98877, 8.96557, 18.4873, -150.919, -96.0187, 111.046
1.03168, -1, -6.14644, 8.92344, 18.4977, -150.968, -96.001, 110.761
1.03983, -1, -6.3046, 8.88128, 18.5081, -151.017, -95.9836, 110.476
1.0485, -1, -6.46293, 8.83916, 18.5184, -151.066, -95.9666, 110.191
1.05585, -1, -6.62139, 8.79706, 18.5288, -151.115, -95.9495, 109.905
1.06449, -1, -6.78003, 8.75487, 18.5394, -151.164, -95.9325, 109.62
1.07195, -1, -6.93867, 8.71272, 18.5499, -151.213, -95.9154, 109.334
1.07998, -1, -7.09719, 8.67061, 18.5604, -151.262, -95.8981, 109.049
1.08853, -1, -7.25565, 8.62843, 18.5708, -151.311, -95.8806, 108.763
1.09601, -1, -7.33479, 8.58622, 18.5812, -151.36, -95.8627, 108.478
1.104, -1, -7.49279, 8.56508, 18.5865, -151.384, -95.8539, 108.192
1.11208, -1, -7.65044, 8.52277, 18.597, -151.434, -95.8364, 107.906
1.1194, -1, -7.80775, 8.48052, 18.6075, -151.483, -95.8192, 107.763
1.12739, -1, -7.9647, 8.43826, 18.6179, -151.532, -95.8022, 107.478
1.13547, -1, -8.12139, 8.3959, 18.6283, -151.58, -95.7852, 107.192
1.1434, -1, -8.27796, 8.35356, 18.6387, -151.63, -95.7682, 106.906
1.15145, -1, -8.43464, 8.31121, 18.6493, -151.678, -95.7509, 106.62
1.15941, -1, -8.59157, 8.26883, 18.6599, -151.728, -95.7335, 106.333
1.1674, -1, -8.7489, 8.22655, 18.6704, -151.777, -95.7158, 106.047
1.17682, -1, -8.98557, 8.163, 18.6859, -151.85, -95.6895, 105.617
1.18495, -1, -9.14388, 8.12072, 18.6964, -151.9, -95.6723, 105.331
1.19296, -1, -9.30261, 8.07841, 18.7069, -151.949, -95.6552, 105.044
1.19948, -1, -9.38209, 8.05721, 18.7121, -151.973, -95.6466, 104.901
1.20739, -1, -9.54121, 8.01486, 18.7226, -152.022, -95.6295, 104.614
1.21701, -1, -9.77997, 7.95152, 18.7383, -152.096, -95.6035, 104.184
1.22356, -1, -9.85964, 7.93037, 18.7435, -152.121, -95.5947, 104.04
1.23141, -1, -10.0191, 7.88798, 18.7542, -152.17, -95.5768, 103.753
1.24041, -1, -10.1783, 7.84555, 18.7648, -152.22, -95.559, 103.466
1.24745, -1, -10.3374, 7.80305, 18.7754, -152.269, -95.5414, 103.18
1.25648, -1, -10.4963, 7.76053, 18.786, -152.318, -95.5242, 102.893
1.2634, -1, -10.6549, 7.71806, 18.7964, -152.368, -95.5072, 102.606
1.27147, -1, -10.8129, 7.67555, 18.8069, -152.416, -95.4902, 102.319
1.2794, -1, -10.9707, 7.63299, 18.8174, -152.466, -95.473, 102.032
1.28745, -1, -11.1283, 7.59046, 18.8278, -152.515, -95.4557, 101.744
1.29539, -1, -11.2857, 7.54796, 18.8383, -152.564, -95.4379, 101.456
1.30339, -1, -11.4432, 7.50547, 18.8488, -152.614, -95.4201, 101.169
1.31147, -1, -11.6007, 7.46296, 18.8593, -152.663, -95.4025, 100.882
1.3194, -1, -11.7586, 7.42055, 18.8699, -152.712, -95.385, 100.594
1.32743, -1, -11.917, 7.37812, 18.8805, -152.762, -95.3678, 100.306
1.33546, -1, -12.0757, 7.33574, 18.8911, -152.811, -95.3506, 100.019
1.34344, -1, -12.2349, 7.29333, 18.9016, -152.86, -95.3334, 99.7307
1.3514, -1, -12.3944, 7.25089, 18.9121, -152.91, -95.316, 99.4425
1.35976, -1, -12.5543, 7.20846, 18.9227, -152.96, -95.2982, 99.1546
1.36743, -1, -12.7143, 7.16601, 18.9332, -153.009, -95.2802, 98.8669
1.37538, -1, -12.8744, 7.12354, 18.9437, -153.059, -95.2625, 98.579
1.38424, -1, -13.0345, 7.08098, 18.9543, -153.108, -95.2448, 98.2907
1.39138, -1, -13.1944, 7.03836, 18.9648, -153.157, -95.2275, 98.0026
1.39938, -1, -13.3542, 6.99576, 18.9754, -153.207, -95.2103, 97.7146
1.40817, -1, -13.5138, 6.95302, 18.9861, -153.256, -95.1932, 97.4262
1.41539, -1, -13.673, 6.91022, 18.9966, -153.305, -95.1759, 97.1374
1.4234, -1, -13.832, 6.86751, 19.0072, -153.355, -95.1584, 96.8489
1.43239, -1, -13.9905, 6.82481, 19.0176, -153.404, -95.1406, 96.5604
1.43947, -1, -14.1487, 6.78212, 19.0282, -153.454, -95.1228, 96.2716
1.4475, -1, -14.3069, 6.73948, 19.0387, -153.503, -95.1051, 95.9825
1.45652, -1, -14.4652, 6.69676, 19.0492, -153.553, -95.0878, 95.6936
1.46348, -1, -14.6235, 6.65412, 19.0598, -153.602, -95.0706, 95.4046
1.47155, -1, -14.7824, 6.61159, 19.0703, -153.652, -95.0535, 95.1151
1.48002, -1, -14.9416, 6.56898, 19.0809, -153.701, -95.0362, 94.8258
1.48742, -1, -15.1011, 6.52633, 19.0917, -153.751, -95.0186, 94.5369
1.49558, -1, -15.2611, 6.48377, 19.1025, -153.801, -95.0007, 94.2478
1.50493, -1, -15.4214, 6.44115, 19.1131, -153.85, -94.9826, 93.9585
1.51143, -1, -15.582, 6.39841, 19.1238, -153.9, -94.9648, 93.6691
1.51955, -1, -15.7428, 6.35573, 19.1343, -153.95, -94.9474, 93.3798
1.52918, -1, -15.9034, 6.31291, 19.145, -153.999, -94.9301, 93.0905
1.53566, -1, -16.0643, 6.27001, 19.1556, -154.049, -94.9129, 92.8008
1.54402, -1, -16.225, 6.22717, 19.1661, -154.099, -94.8958, 92.5111
1.55339, -1, -16.3856, 6.18418, 19.1767, -154.148, -94.8784, 92.2216
1.55984, -1, -16.5461, 6.14122, 19.1872, -154.198, -94.8607, 91.9317
1.56792, -1, -16.7062, 6.0983, 19.1978, -154.248, -94.8428, 91.6416
1.57751, -1, -16.8659, 6.05529, 19.2085, -154.297, -94.8251, 91.3515
1.58398, -1, -17.0253, 6.01233, 19.2192, -154.347, -94.8075, 91.0614
1.59259, -1, -17.1844, 5.96937, 19.2298, -154.397, -94.79, 90.7712
1.60084, -1, -17.264, 5.9479, 19.2404, -154.446, -94.7727, 90.4806
1.60803, -1, -17.4231, 5.90506, 19.2511, -154.496, -94.7554, 90.1904
1.61539, -1, -17.5824, 5.86225, 19.2564, -154.521, -94.7466, 90.0454
1.62337, -1, -17.7418, 5.81939, 19.2671, -154.571, -94.7291, 89.755
1.63142, -1, -17.9013, 5.77659, 19.2778, -154.621, -94.7111, 89.4646
1.63937, -1, -18.0613, 5.73375, 19.2885, -154.671, -94.693, 89.174
1.64739, -1, -18.2218, 5.69094, 19.299, -154.72, -94.6751, 88.8837
1.65546, -1, -18.3827, 5.64813, 19.3098, -154.771, -94.6575, 88.5929
1.66342, -1, -18.5441, 5.60519, 19.3205, -154.821, -94.6401, 88.3018
1.67138, -1, -18.7057, 5.56221, 19.3312, -154.87, -94.6229, 88.0111
1.67942, -1, -18.8673, 5.51924, 19.3419, -154.921, -94.6055, 87.7202
1.68912, -1, -19.1098, 5.45458, 19.3577, -154.995, -94.5791, 87.2836
1.69539, -1, -19.1906, 5.43299, 19.3631, -155.02, -94.5701, 87.1378
1.70342, -1, -19.3521, 5.38983, 19.3737, -155.07, -94.5521, 86.8465
1.71137, -1, -19.5134, 5.34665, 19.3843, -155.12, -94.534, 86.555
1.71944, -1, -19.6742, 5.30343, 19.3949, -155.17, -94.5163, 86.2632
1.72738, -1, -19.835, 5.26025, 19.4056, -155.22, -94.4988, 85.9713
1.73637, -1, -19.9955, 5.21709, 19.4163, -155.27, -94.4814, 85.6799
1.74339, -1, -20.1555, 5.17395, 19.4271, -155.32, -94.464, 85.3883
1.75239, -1, -20.3152, 5.131, 19.438, -155.37, -94.4464, 85.0965
1.75946, -1, -20.4751, 5.08799, 19.4488, -155.42, -94.4286, 84.8045
1.76737, -1, -20.6352, 5.04492, 19.4595, -155.47, -94.4105, 84.5129
1.77538, -1, -20.7955, 5.00202, 19.4702, -155.521, -94.3924, 84.221
1.78347, -1, -20.9562, 4.95904, 19.4809, -155.571, -94.3746, 83.9287
1.79137, -1, -21.1172, 4.91596, 19.4915, -155.621, -94.3573, 83.6365
1.79938, -1, -21.2787, 4.8729, 19.5022, -155.671, -94.3399, 83.3447
1.80743, -1, -21.4407, 4.8297, 19.5128, -155.721, -94.3228, 83.0525
1.81537, -1, -21.6028, 4.78645, 19.5236, -155.772, -94.3054, 82.7599
1.8234, -1, -21.7651, 4.74324, 19.5343, -155.822, -94.2877, 82.4672
1.83145, -1, -21.9275, 4.69991, 19.5451, -155.872, -94.2697, 82.1747
1.83937, -1, -22.09, 4.65651, 19.5559, -155.922, -94.2517, 81.882
1.84738, -1, -22.2525, 4.61316, 19.5665, -155.972, -94.2339, 81.589
1.85551, -1, -22.4149, 4.56973, 19.5772, -156.022, -94.2163, 81.2964
1.86339, -1, -22.577, 4.52632, 19.588, -156.073, -94.1988, 81.0037
1.87141, -1, -22.7387, 4.48287, 19.5986, -156.123, -94.1814, 80.7107
1.87943, -1, -22.9, 4.43947, 19.6093, -156.173, -94.1638, 80.4177
1.88737, -1, -23.0612, 4.39617, 19.62, -156.224, -94.1459, 80.1247
1.89545, -1, -23.2222, 4.35286, 19.6306, -156.274, -94.1278, 79.8318
1.90338, -1, -23.3831, 4.30953, 19.6415, -156.324, -94.1095, 79.5382
1.91137, -1, -23.5439, 4.26628, 19.6524, -156.375, -94.0914, 79.2448
1.9197, -1, -23.705, 4.22302, 19.6632, -156.425, -94.0737, 78.9517
1.9274, -1, -23.8661, 4.17978, 19.674, -156.475, -94.0561, 78.6582
1.9354, -1, -24.0276, 4.13648, 19.6846, -156.526, -94.0387, 78.3644
1.94373, -1, -24.1895, 4.09308, 19.6954, -156.576, -94.0212, 78.0705
1.95149, -1, -24.352, 4.04965, 19.7061, -156.627, -94.0035, 77.7766
1.95953, -1, -24.5148, 4.0062, 19.7167, -156.677, -93.9855, 77.4826
1.96792, -1, -24.6779, 3.96263, 19.7274, -156.727, -93.9673, 77.1881
1.97547, -1, -24.8412, 3.91904, 19.7381, -156.778, -93.9494, 76.8941
1.98344, -1, -25.0047, 3.87546, 19.7489, -156.828, -93.9317, 76.6
1.99203, -1, -25.168, 3.83188, 19.7598, -156.878, -93.9141, 76.3057
2.00036, -1, -25.3312, 3.78828, 19.7707, -156.929, -93.8966, 76.0111
2.00746, -1, -25.4942, 3.74465, 19.7816, -156.979, -93.8791, 75.7169
2.0163, -1, -25.6569, 3.70095, 19.7923, -157.03, -93.8613, 75.4225
2.02353, -1, -25.8195, 3.6574, 19.803, -157.08, -93.8432, 75.1278
2.03163, -1, -25.9819, 3.61392, 19.8138, -157.131, -93.8247, 74.833
2.0406, -1, -26.1438, 3.57035, 19.8246, -157.181, -93.8065, 74.5386
2.04778, -1, -26.3055, 3.52697, 19.8354, -157.232, -93.7885, 74.244
2.05581, -1, -26.467, 3.48355, 19.8461, -157.282, -93.7708, 73.9488
2.06466, -1, -26.6288, 3.44001, 19.8569, -157.333, -93.7532, 73.6537
2.0719, -1, -26.7908, 3.39655, 19.8678, -157.384, -93.7356, 73.3586
2.08052, -1, -26.9533, 3.353, 19.8786, -157.434, -93.7178, 73.0633
2.08913, -1, -27.116, 3.30937, 19.8895, -157.485, -93.6997, 72.7677
2.09656, -1, -27.279, 3.26579, 19.9003, -157.536, -93.6814, 72.4723
2.10401, -1, -27.4424, 3.22203, 19.911, -157.586, -93.6632, 72.1771
2.11281, -1, -27.5243, 3.20011, 19.9164, -157.611, -93.6542, 72.0293
2.11937, -1, -27.6882, 3.15634, 19.9272, -157.662, -93.6362, 71.7336
2.12741, -1, -27.8523, 3.11267, 19.938, -157.713, -93.6185, 71.438
2.13536, -1, -28.0165, 3.0689, 19.9488, -157.763, -93.6009, 71.1424
2.14336, -1, -28.1807, 3.02512, 19.9596, -157.815, -93.5831, 70.8466
2.15147, -1, -28.345, 2.98138, 19.9704, -157.865, -93.5651, 70.5505
2.15937, -1, -28.5091, 2.93759, 19.9813, -157.916, -93.5467, 70.2546
2.1688, -1, -28.7546, 2.87208, 19.9976, -157.992, -93.5191, 69.8109
2.17535, -1, -28.8363, 2.8502, 20.003, -158.017, -93.51, 69.6627
2.18336, -1, -28.9993, 2.80645, 20.0138, -158.068, -93.4921, 69.366
2.19141, -1, -29.1621, 2.76278, 20.0245, -158.119, -93.4744, 69.0696
2.20095, -1, -29.4062, 2.69724, 20.0408, -158.195, -93.448, 68.6246
2.20735, -1, -29.4876, 2.67539, 20.0462, -158.221, -93.439, 68.4761
2.21543, -1, -29.6503, 2.63163, 20.057, -158.272, -93.421, 68.1792
2.22499, -1, -29.8949, 2.56591, 20.0733, -158.348, -93.3935, 67.7343
2.23388, -1, -29.9764, 2.54403, 20.0843, -158.4, -93.3751, 67.4375
2.23942, -1, -30.1397, 2.50012, 20.0898, -158.425, -93.366, 67.2889
2.24898, -1, -30.3035, 2.45612, 20.1007, -158.475, -93.348, 66.9918
2.25536, -1, -30.4678, 2.41218, 20.1117, -158.527, -93.3302, 66.6949
2.26344, -1, -30.6326, 2.36814, 20.1225, -158.577, -93.3125, 66.3977
2.2714, -1, -30.7976, 2.32416, 20.1333, -158.628, -93.2946, 66.1002
2.27935, -1, -30.9627, 2.2802, 20.1442, -158.68, -93.2766, 65.803
2.28738, -1, -31.1278, 2.23611, 20.1551, -158.73, -93.2582, 65.5058
2.29538, -1, -31.2929, 2.19216, 20.1659, -158.782, -93.2397, 65.2083
2.30342, -1, -31.4578, 2.14831, 20.1767, -158.833, -93.2213, 64.9105
2.31136, -1, -31.6224, 2.10425, 20.1875, -158.884, -93.2034, 64.6128
2.31935, -1, -31.787, 2.0603, 20.1985, -158.935, -93.1856, 64.315
2.32745, -1, -31.9512, 2.01638, 20.2095, -158.986, -93.168, 64.0168
2.33536, -1, -32.1152, 1.97237, 20.2205, -159.037, -93.1504, 63.7187
2.34335, -1, -32.2788, 1.92836, 20.2314, -159.089, -93.1325, 63.4209
2.35142, -1, -32.4422, 1.88434, 20.2423, -159.14, -93.1143, 63.1229
2.35937, -1, -32.6059, 1.8402, 20.2533, -159.191, -93.0958, 62.8247
2.36738, -1, -32.7697, 1.79609, 20.2642, -159.243, -93.0776, 62.5263
2.37542, -1, -32.9337, 1.75196, 20.2751, -159.293, -93.0596, 62.2281
2.38335, -1, -33.0981, 1.70768, 20.286, -159.344, -93.0418, 61.9297
2.39136, -1, -33.2628, 1.66346, 20.2969, -159.396, -93.024, 61.631
2.39942, -1, -33.4278, 1.61923, 20.3078, -159.447, -93.0061, 61.3324
2.40736, -1, -33.5932, 1.57494, 20.3189, -159.498, -92.988, 61.0339
2.41561, -1, -33.7589, 1.53068, 20.3298, -159.55, -92.9696, 60.7351
2.42335, -1, -33.9248, 1.48645, 20.3407, -159.601, -92.9509, 60.4358
2.4314, -1, -34.0908, 1.44226, 20.3516, -159.652, -92.9324, 60.1367
2.43952, -1, -34.2568, 1.3981, 20.3625, -159.704, -92.9142, 59.8373
2.44745, -1, -34.4229, 1.35389, 20.3735, -159.755, -92.8962, 59.5376
2.45547, -1, -34.5888, 1.30968, 20.3844, -159.807, -92.8785, 59.2379
2.46351, -1, -34.7543, 1.26554, 20.3953, -159.858, -92.8606, 58.9387
2.47146, -1, -34.9194, 1.22131, 20.4062, -159.909, -92.8426, 58.6393
2.47946, -1, -35.0843, 1.17706, 20.4173, -159.961, -92.8242, 58.3395
2.48755, -1, -35.2489, 1.13279, 20.4284, -160.012, -92.8056, 58.0397
2.49537, -1, -35.4133, 1.08853, 20.4395, -160.063, -92.7872, 57.74
2.5034, -1, -35.5765, 1.04453, 20.4507, -160.115, -92.769, 57.4401
2.51168, -1, -35.7375, 1.00094, 20.462, -160.166, -92.751, 57.1406
2.51945, -1, -35.8952, 0.958189, 20.4737, -160.217, -92.7332, 56.8434
2.52752, -1, -36.0484, 0.916845, 20.4857, -160.267, -92.7155, 56.5508
2.53593, -1, -36.1952, 0.877401, 20.4976, -160.315, -92.6982, 56.2661
2.54446, -1, -36.3334, 0.840577, 20.5094, -160.362, -92.6813, 55.9943
2.55177, -1, -36.4611, 0.806817, 20.5206, -160.405, -92.6654, 55.7426
2.56032, -1, -36.5769, 0.77622, 20.5306, -160.443, -92.6512, 55.5161
2.56785, -1, -36.6789, 0.74929, 20.539, -160.476, -92.639, 55.3206
2.57645, -1, -36.7663, 0.726145, 20.5452, -160.503, -92.6291, 55.1598
2.58396, -1, -36.8393, 0.706834, 20.5491, -160.525, -92.6215, 55.0339
2.59252, -1, -36.899, 0.691161, 20.5511, -160.541, -92.6161, 54.9423
2.59996, -1, -36.9458, 0.678767, 20.5519, -160.552, -92.6125, 54.8785
2.60848, -1, -36.9804, 0.669464, 20.552, -160.559, -92.6103, 54.8378
2.61587, -1, -36.994, 0.665955, 20.5518, -160.561, -92.6096, 54.8242
2.62336, -1, -37.0144, 0.660895, 20.5514, -160.565, -92.6086, 54.8064
2.63273, -1, -37.0306, 0.656925, 20.5509, -160.567, -92.6081, 54.7947
2.63931, 2, -37.0333, 0.65626, 20.5509, -160.567, -92.608, 54.793
2.64846, 2, -37.0356, 0.655347, 20.5508, -160.568, -92.6078, 54.7905
2.65541, 2, -37.0353, 0.655228, 20.5508, -160.568, -92.6077, 54.7902
2.66335, 2, -37.0347, 0.655093, 20.5508, -160.568, -92.6078, 54.7897
2.67136, 2, -37.0344, 0.655043, 20.5507, -160.568, -92.6078, 54.7896
2.68109, 2, -37.0353, 0.654956, 20.5507, -160.568, -92.6078, 54.7895
2.68883, 2, -37.0364, 0.65489, 20.5506, -160.568, -92.6078, 54.7895
2.69534, 2, -37.037, 0.65483, 20.5505, -160.568, -92.6078, 54.7896
2.70536, 2, -37.0392, 0.654512, 20.5502, -160.568, -92.6079, 54.7896
2.71134, 2, -37.0399, 0.65437, 20.5501, -160.568, -92.6079, 54.7897
2.72088, 2, -37.0416, 0.653977, 20.5499, -160.568, -92.608, 54.7898
2.72917, 2, -37.0423, 0.653814, 20.5497, -160.568, -92.608, 54.7899
2.73533, 2, -37.0425, 0.65377, 20.5496, -160.568, -92.608, 54.79
2.74434, 2, -37.0425, 0.653719, 20.5494, -160.568, -92.6081, 54.7901
2.75141, 2, -37.042, 0.653714, 20.5493, -160.568, -92.6081, 54.7902
2.76039, 2, -37.0412, 0.653748, 20.5492, -160.568, -92.6082, 54.7903
2.76835, 2, -37.0402, 0.653819, 20.5491, -160.568, -92.6082, 54.7905
2.77544, 2, -37.0386, 0.65389, 20.5491, -160.568, -92.6083, 54.7907
2.78334, 2, -37.0371, 0.653969, 20.549, -160.568, -92.6083, 54.7909
2.79135, 2, -37.036, 0.654013, 20.5489, -160.568, -92.6083, 54.791
2.79941, 2, -37.0355, 0.654004, 20.5489, -160.568, -92.6083, 54.791
2.80735, 2, -37.0352, 0.653972, 20.5489, -160.568, -92.6084, 54.791
2.81534, 2, -37.0353, 0.653942, 20.5488, -160.568, -92.6083, 54.7911
2.82341, 2, -37.0355, 0.653854, 20.5488, -160.568, -92.6083, 54.7911
2.83135, 2, -37.0358, 0.653801, 20.5488, -160.568, -92.6083, 54.7912
2.83935, 2, -37.0363, 0.653769, 20.5488, -160.568, -92.6084, 54.7912
2.84742, 2, -37.0371, 0.653757, 20.5488, -160.568, -92.6083, 54.7912
2.85534, 2, -37.0378, 0.653756, 20.5488, -160.568, -92.6083, 54.7913
2.86333, 2, -37.0384, 0.653756, 20.5488, -160.568, -92.6084, 54.7914
2.87141, 2, -37.0388, 0.653767, 20.5488, -160.568, -92.6084, 54.7914
2.87934, 2, -37.0389, 0.653798, 20.5487, -160.568, -92.6084, 54.7914
2.88735, 2, -37.039, 0.653831, 20.5487, -160.568, -92.6084, 54.7915
2.89541, 2, -37.0389, 0.653852, 20.5487, -160.568, -92.6084, 54.7915
2.90334, 2, -37.0385, 0.653861, 20.5487, -160.568, -92.6084, 54.7916
2.91134, 2, -37.0381, 0.653846, 20.5487, -160.568, -92.6085, 54.7916
2.91941, 2, -37.0379, 0.653834, 20.5487, -160.568, -92.6085, 54.7916
2.92735, 2, -37.0377, 0.653817, 20.5487, -160.568, -92.6084, 54.7917
2.93538, 2, -37.0376, 0.653784, 20.5487, -160.568, -92.6084, 54.7917
2.94351, 2, -37.0375, 0.653769, 20.5487, -160.568, -92.6084, 54.7917
2.95142, 2, -37.0375, 0.653762, 20.5487, -160.568, -92.6084, 54.7918
2.9595, 2, -37.0376, 0.653758, 20.5486, -160.568, -92.6084, 54.7918
2.96752, 2, -37.0377, 0.653775, 20.5486, -160.568, -92.6084, 54.7919
2.97544, 2, -37.0378, 0.653794, 20.5486, -160.568, -92.6084, 54.792
2.98344, 2, -37.0379, 0.65381, 20.5486, -160.568, -92.6085, 54.792
2.9916, 2, -37.0381, 0.653817, 20.5486, -160.568, -92.6085, 54.7921
2.99938, 2, -37.0383, 0.653833, 20.5486, -160.568, -92.6085, 54.7921
3.0074, 2, -37.0383, 0.653835, 20.5486, -160.568, -92.6085, 54.7921
3.0158, 2, -37.0383, 0.653846, 20.5486, -160.568, -92.6085, 54.7921
3.02341, 2, -37.0383, 0.653834, 20.5486, -160.568, -92.6085, 54.7922
3.03152, 2, -37.0383, 0.653828, 20.5486, -160.568, -92.6085, 54.7922
3.03997, 2, -37.0383, 0.653826, 20.5486, -160.568, -92.6086, 54.7923
3.04844, 2, -37.0382, 0.653825, 20.5485, -160.568, -92.6085, 54.7924
3.05574, 2, -37.0383, 0.653824, 20.5485, -160.568, -92.6085, 54.7924
3.06417, 2, -37.0382, 0.653805, 20.5485, -160.568, -92.6086, 54.7925
3.0718, 2, -37.0382, 0.653815, 20.5485, -160.568, -92.6085, 54.7925
3.08043, 2, -37.0382, 0.65379, 20.5485, -160.568, -92.6086, 54.7926
3.08832, 2, -37.0382, 0.653808, 20.5485, -160.568, -92.6086, 54.7927
3.09592, 2, -37.0382, 0.653822, 20.5485, -160.568, -92.6086, 54.7927
3.10393, 2, -37.0382, 0.65383, 20.5485, -160.568, -92.6086, 54.7928
3.11248, 2, -37.0382, 0.653844, 20.5485, -160.567, -92.6086, 54.7928
3.11934, 2, -37.0382, 0.653845, 20.5485, -160.567, -92.6086, 54.7928
3.12836, 2, -37.0382, 0.653854, 20.5485, -160.567, -92.6087, 54.7929
3.13626, 2, -37.0382, 0.653838, 20.5485, -160.567, -92.6087, 54.793
3.14333, 2, -37.0382, 0.653833, 20.5485, -160.567, -92.6086, 54.793
3.15247, 2, -37.0382, 0.653827, 20.5484, -160.567, -92.6087, 54.7931
3.15937, 2, -37.0382, 0.653826, 20.5484, -160.567, -92.6087, 54.7931
3.16735, 2, -37.0382, 0.653832, 20.5484, -160.567, -92.6087, 54.7931
3.17534, 2, -37.0382, 0.653832, 20.5484, -160.567, -92.6087, 54.7931
3.18512, 2, -37.0381, 0.653826, 20.5484, -160.567, -92.6087, 54.7932
3.19283, 2, -37.0381, 0.653832, 20.5484, -160.567, -92.6086, 54.7932
3.19933, 2, -37.0381, 0.653837, 20.5484, -160.567, -92.6086, 54.7933
3.20926, 2, -37.0381, 0.653848, 20.5483, -160.567, -92.6087, 54.7933
3.21533, 2, -37.0381, 0.65384, 20.5483, -160.567, -92.6086, 54.7933
3.2249, 2, -37.0381, 0.653857, 20.5483, -160.567, -92.6086, 54.7933
3.23316, 2, -37.0381, 0.653863, 20.5483, -160.567, -92.6087, 54.7934
3.23932, 2, -37.0381, 0.653858, 20.5483, -160.567, -92.6087, 54.7934
3.24836, 2, -37.0381, 0.653852, 20.5483, -160.567, -92.6087, 54.7934
3.25539, 2, -37.0381, 0.653836, 20.5483, -160.567, -92.6087, 54.7935
3.26438, 2, -37.038, 0.65383, 20.5483, -160.567, -92.6087, 54.7935
3.27235, 2, -37.038, 0.653826, 20.5483, -160.567, -92.6087, 54.7935
3.27942, 2, -37.038, 0.653825, 20.5483, -160.567, -92.6087, 54.7936
3.28733, 2, -37.038, 0.653824, 20.5482, -160.567, -92.6087, 54.7936
3.29534, 2, -37.038, 0.653836, 20.5482, -160.567, -92.6087, 54.7936
3.30339, 2, -37.038, 0.653842, 20.5482, -160.567, -92.6087, 54.7936
3.31132, 2, -37.0379, 0.653839, 20.5482, -160.567, -92.6087, 54.7937
3.31932, 2, -37.0379, 0.653848, 20.5482, -160.567, -92.6087, 54.7937
3.3274, 2, -37.0379, 0.653854, 20.5482, -160.567, -92.6087, 54.7937
3.33534, 2, -37.0379, 0.653862, 20.5482, -160.567, -92.6087, 54.7937
3.34333, 2, -37.0379, 0.653846, 20.5482, -160.567, -92.6087, 54.7938
3.35139, 2, -37.0379, 0.653846, 20.5482, -160.567, -92.6087, 54.7938
3.35932, 2, -37.0378, 0.653841, 20.5482, -160.567, -92.6087, 54.7939
3.36733, 2, -37.0379, 0.653818, 20.5482, -160.567, -92.6087, 54.7939
3.37539, 2, -37.0379, 0.653833, 20.5482, -160.567, -92.6087, 54.7939
3.38332, 2, -37.0378, 0.653828, 20.5482, -160.567, -92.6087, 54.7939
3.39132, 2, -37.0378, 0.653826, 20.5481, -160.567, -92.6088, 54.7939
3.39939, 2, -37.0378, 0.653832, 20.5481, -160.567, -92.6088, 54.7939
3.40734, 2, -37.0378, 0.65384, 20.5481, -160.567, -92.6088, 54.7939
3.41532, 2, -37.0378, 0.653843, 20.5481, -160.567, -92.6088, 54.794
3.42339, 2, -37.0377, 0.653857, 20.5481, -160.567, -92.6088, 54.794
3.43132, 2, -37.0377, 0.653863, 20.5481, -160.567, -92.6087, 54.794
3.43938, 2, -37.0377, 0.653866, 20.5481, -160.567, -92.6087, 54.794
3.4475, 2, -37.0377, 0.653868, 20.5481, -160.567, -92.6088, 54.794
3.45542, 2, -37.0377, 0.653879, 20.5481, -160.567, -92.6088, 54.794
3.46343, 2, -37.0377, 0.653881, 20.5481, -160.567, -92.6088, 54.7941
3.47149, 2, -37.0377, 0.653874, 20.5481, -160.567, -92.6088, 54.7941
3.47943, 2, -37.0376, 0.653859, 20.5481, -160.567, -92.6088, 54.7941
3.48738, 2, -37.0376, 0.653845, 20.5481, -160.567, -92.6088, 54.7941
3.49552, 2, -37.0376, 0.653853, 20.548, -160.567, -92.6088, 54.7941
3.50337, 2, -37.0376, 0.653862, 20.548, -160.567, -92.6088, 54.7941
3.51137, 2, -37.0376, 0.653846, 20.548, -160.567, -92.6088, 54.7942
3.51942, 2, -37.0376, 0.653872, 20.548, -160.567, -92.6088, 54.7942
3.52761, 2, -37.0376, 0.65387, 20.548, -160.567, -92.6088, 54.7942
3.53548, 2, -37.0376, 0.65387, 20.548, -160.567, -92.6088, 54.7942
3.5436, 2, -37.0376, 0.653869, 20.548, -160.567, -92.6088, 54.7942
3.55169, 2, -37.0375, 0.653868, 20.548, -160.567, -92.6088, 54.7942
3.55973, 2, -37.0375, 0.653876, 20.548, -160.567, -92.6088, 54.7942
3.5678, 2, -37.0375, 0.653872, 20.548, -160.567, -92.6088, 54.7942
3.57648, 2, -37.0375, 0.65387, 20.548, -160.567, -92.6088, 54.7943
3.58383, 2, -37.0375, 0.653881, 20.5479, -160.567, -92.6088, 54.7942
3.59243, 2, -37.0375, 0.653869, 20.5479, -160.567, -92.6088, 54.7943
3.59995, 2, -37.0375, 0.653869, 20.5479, -160.567, -92.6088, 54.7943
3.60791, 2, -37.0375, 0.653862, 20.5479, -160.567, -92.6089, 54.7943
3.6164, 2, -37.0375, 0.653879, 20.5479, -160.567, -92.6088, 54.7943
3.62438, 2, -37.0375, 0.653874, 20.5479, -160.567, -92.6089, 54.7943
3.63133, 2, -37.0375, 0.653872, 20.5479, -160.567, -92.6089, 54.7943
3.64068, 2, -37.0375, 0.653899, 20.5479, -160.567, -92.6088, 54.7943
3.64733, 2, -37.0375, 0.653911, 20.5479, -160.567, -92.6088, 54.7943
3.65534, 2, -37.0375, 0.653914, 20.5479, -160.567, -92.6089, 54.7944
3.66331, 2, -37.0374, 0.653919, 20.5479, -160.567, -92.6088, 54.7944
3.67308, 2, -37.0374, 0.653889, 20.5479, -160.567, -92.6088, 54.7943
3.68075, 2, -37.0374, 0.653871, 20.5479, -160.567, -92.6088, 54.7943
3.68731, 2, -37.0374, 0.653856, 20.5478, -160.567, -92.6089, 54.7943
3.69676, 2, -37.0374, 0.653861, 20.5478, -160.567, -92.6089, 54.7943
3.70328, 4, -37.0374, 0.653864, 20.5478, -160.567, -92.6089, 54.7943
3.71285, 4, -37.0374, 0.653867, 20.5478, -160.567, -92.6089, 54.7943
3.7214, 4, -37.0374, 0.653868, 20.5478, -160.567, -92.6089, 54.7944
3.72732, 4, -37.0374, 0.653879, 20.5478, -160.567, -92.6089, 54.7944
3.7369, 4, -37.0374, 0.653881, 20.5478, -160.567, -92.6089, 54.7944
3.74518, 4, -37.0373, 0.653885, 20.5478, -160.567, -92.6088, 54.7944
3.75132, 4, -37.0373, 0.653891, 20.5478, -160.567, -92.6089, 54.7944
3.76032, 4, -37.0373, 0.653905, 20.5478, -160.567, -92.6088, 54.7944
3.76743, 4, -37.0373, 0.653915, 20.5478, -160.567, -92.6089, 54.7944
3.77637, 4, -37.0373, 0.653897, 20.5478, -160.566, -92.6089, 54.7944
3.78432, 4, -37.0373, 0.653882, 20.5478, -160.567, -92.6089, 54.7944
3.79137, 4, -37.0373, 0.653875, 20.5477, -160.567, -92.6089, 54.7943
3.79932, 4, -37.0373, 0.65389, 20.5477, -160.567, -92.6089, 54.7943
3.82626, 4, -37.0373, 0.653879, 20.5477, -160.566, -92.6089, 54.7944
3.82816, 4, -37.0373, 0.653918, 20.5477, -160.566, -92.6089, 54.7944
3.83069, 4, -37.0372, 0.653913, 20.5477, -160.566, -92.6089, 54.7944
3.83264, 4, -37.0372, 0.653913, 20.5477, -160.566, -92.6089, 54.7944
3.83989, 4, -37.0372, 0.6539, 20.5477, -160.566, -92.6089, 54.7943
3.84998, 4, -37.0369, 0.653878, 20.5477, -160.566, -92.6089, 54.7944
3.85545, 4, -37.0364, 0.653765, 20.5477, -160.567, -92.6089, 54.7944
3.86339, 4, -37.0339, 0.652874, 20.5478, -160.566, -92.6089, 54.7944
3.87132, 4, -37.0281, 0.650027, 20.5487, -160.566, -92.6089, 54.7944
3.88119, 4, -37.0185, 0.644116, 20.5512, -160.566, -92.609, 54.7944
3.88834, 4, -37.0051, 0.634574, 20.5566, -160.565, -92.609, 54.7944
3.89654, 4, -36.9869, 0.620865, 20.5663, -160.564, -92.6091, 54.7944
3.9033, 5, -36.963, 0.602561, 20.5818, -160.561, -92.609, 54.7944
3.91132, 5, -36.9337, 0.579901, 20.6038, -160.556, -92.6087, 54.7943
3.91937, 5, -36.8997, 0.552594, 20.6325, -160.55, -92.6083, 54.7943
3.92752, 5, -36.8609, 0.520976, 20.6681, -160.542, -92.6076, 54.7943
3.93637, 5, -36.8171, 0.484491, 20.7095, -160.533, -92.6064, 54.7942
3.94336, 5, -36.7681, 0.443502, 20.756, -160.523, -92.605, 54.7942
3.95169, 5, -36.7141, 0.398517, 20.8062, -160.511, -92.6033, 54.7943
3.96035, 5, -36.6558, 0.350264, 20.859, -160.499, -92.6014, 54.7942
3.96741, 5, -36.5935, 0.299614, 20.9135, -160.487, -92.5996, 54.7942
3.97547, 5, -36.5278, 0.247159, 20.9687, -160.475, -92.5978, 54.7941
3.98346, 5, -36.4605, 0.193762, 21.0242, -160.463, -92.5959, 54.7941
3.99137, 5, -36.3923, 0.139986, 21.0799, -160.451, -92.594, 54.7942
3.99967, 5, -36.3236, 0.086026, 21.1354, -160.439, -92.592, 54.7942
4.00828, 5, -36.2548, 0.0321143, 21.1909, -160.427, -92.5901, 54.7942
4.01543, 5, -36.1859, -0.0216458, 21.2465, -160.415, -92.5881, 54.7943
4.02537, 5, -36.1172, -0.0751596, 21.302, -160.403, -92.5861, 54.7944
4.0318, 5, -36.0487, -0.128453, 21.3573, -160.39, -92.584, 54.7944
4.04031, 5, -35.98, -0.181574, 21.4126, -160.377, -92.5819, 54.7945
4.04754, 5, -35.9115, -0.23452, 21.4679, -160.364, -92.5798, 54.7947
4.05564, 5, -35.8429, -0.287272, 21.5229, -160.352, -92.5777, 54.7951
4.06385, 5, -35.774, -0.339958, 21.5781, -160.339, -92.5757, 54.7957
4.07451, 5, -35.7049, -0.39267, 21.633, -160.326, -92.5736, 54.7965
4.08026, 5, -35.6355, -0.445363, 21.6877, -160.314, -92.5716, 54.7974
4.08786, 5, -35.5659, -0.498164, 21.7423, -160.301, -92.5695, 54.7986
4.09641, 5, -35.4959, -0.55097, 21.7967, -160.289, -92.5673, 54.7999
4.10463, 5, -35.4257, -0.603772, 21.8508, -160.276, -92.5652, 54.8013
4.11271, 5, -35.3554, -0.656538, 21.9049, -160.263, -92.5631, 54.8029
4.12039, 5, -35.2849, -0.709296, 21.959, -160.25, -92.561, 54.8046
4.12816, 5, -35.2496, -0.735623, 22.0128, -160.237, -92.5588, 54.8065
4.13527, 5, -35.1791, -0.788009, 22.0397, -160.23, -92.5577, 54.8075
4.14329, 5, -35.1085, -0.840274, 22.0935, -160.217, -92.5555, 54.8094
4.15148, 5, -35.0379, -0.892422, 22.1471, -160.204, -92.5533, 54.8117
4.16084, 5, -34.9674, -0.970047, 22.2272, -160.184, -92.55, 54.8152
4.1673, 5, -34.897, -0.99586, 22.2539, -160.178, -92.5489, 54.8164
4.17693, 5, -34.7912, -1.07301, 22.3338, -160.158, -92.5455, 54.8203
4.18346, 5, -34.7559, -1.09873, 22.3603, -160.152, -92.5444, 54.8216
4.19274, 5, -34.6498, -1.1758, 22.4396, -160.133, -92.5409, 54.8259
4.20082, 5, -34.5789, -1.22715, 22.4922, -160.12, -92.5386, 54.8288
4.20891, 5, -34.5078, -1.27855, 22.5447, -160.106, -92.5363, 54.8319
4.21685, 5, -34.4365, -1.32991, 22.597, -160.093, -92.5339, 54.835
4.22627, 5, -34.365, -1.38127, 22.6493, -160.079, -92.5316, 54.8382
4.23153, 5, -34.3292, -1.40695, 22.6753, -160.072, -92.5304, 54.8399
4.23927, 5, -34.2576, -1.4582, 22.7273, -160.058, -92.5281, 54.8434
4.24889, 5, -34.1857, -1.50927, 22.7792, -160.045, -92.5257, 54.847
4.25538, 5, -34.1137, -1.56011, 22.831, -160.031, -92.5234, 54.8507
4.26435, 5, -34.0417, -1.61077, 22.8826, -160.018, -92.521, 54.8544
4.2713, 5, -33.9695, -1.66122, 22.9343, -160.004, -92.5187, 54.8583
4.27944, 5, -33.8973, -1.71141, 22.9857, -159.991, -92.5162, 54.8623
4.28731, 5, -33.8252, -1.76149, 23.0369, -159.977, -92.5139, 54.8664
4.29529, 5, -33.753, -1.81152, 23.088, -159.963, -92.5116, 54.8706
4.30349, 5, -33.6807, -1.86143, 23.1389, -159.949, -92.5092, 54.8747
4.3137, 5, -33.6083, -1.93627, 23.2149, -159.928, -92.5058, 54.8812
4.32035, 5, -33.5357, -1.96136, 23.2403, -159.921, -92.5046, 54.8833
4.32829, 5, -33.4629, -2.01175, 23.2908, -159.906, -92.5024, 54.8873
4.33629, 5, -33.3901, -2.06237, 23.3411, -159.892, -92.5, 54.8904
4.34434, 6, -33.3175, -2.11339, 23.3915, -159.878, -92.4977, 54.8921
4.35262, 6, -33.245, -2.16495, 23.442, -159.864, -92.4952, 54.8923
4.35946, 6, -33.1729, -2.21736, 23.4926, -159.849, -92.4924, 54.8905
4.36829, 6, -33.1012, -2.27065, 23.5439, -159.834, -92.489, 54.8856
4.37707, 7, -33.03, -2.32489, 23.5959, -159.817, -92.4846, 54.8752
4.38331, 7, -32.9593, -2.38027, 23.6491, -159.799, -92.4788, 54.861
4.39136, 7, -32.8891, -2.43686, 23.7035, -159.779, -92.4713, 54.8443
4.3993, 7, -32.8194, -2.49499, 23.7593, -159.759, -92.4619, 54.8266
4.40744, 7, -32.7503, -2.55462, 23.8166, -159.737, -92.4504, 54.8091
4.41533, 8, -32.6819, -2.61593, 23.8754, -159.714, -92.4369, 54.7921
4.4233, 8, -32.6142, -2.67889, 23.9355, -159.69, -92.4214, 54.7753
4.43153, 8, -32.5472, -2.74365, 23.9969, -159.664, -92.4039, 54.7582
4.44034, 8, -32.4809, -2.81004, 24.0592, -159.637, -92.3846, 54.7402
4.44736, 8, -32.4154, -2.87799, 24.1227, -159.61, -92.3638, 54.7208
4.45571, 9, -32.3504, -2.94739, 24.187, -159.582, -92.3418, 54.6998
4.46362, 9, -32.2861, -3.01807, 24.2524, -159.553, -92.3188, 54.6771
4.47139, 9, -32.2223, -3.0901, 24.3189, -159.522, -92.2946, 54.6525
4.47956, 9, -32.1591, -3.16341, 24.3862, -159.49, -92.2688, 54.6265
4.48826, 9, -32.0965, -3.23797, 24.4546, -159.458, -92.2411, 54.5994
4.49547, 9, -32.0344, -3.31387, 24.5239, -159.425, -92.212, 54.5708
4.5033, 10, -31.9729, -3.39103, 24.5943, -159.39, -92.1818, 54.5405
4.51133, 10, -31.912, -3.46965, 24.6658, -159.354, -92.1506, 54.5081
4.5194, 10, -31.8517, -3.5497, 24.7383, -159.318, -92.1176, 54.4739
4.52877, 10, -31.7919, -3.63114, 24.8118, -159.282, -92.0827, 54.4383
4.53721, 10, -31.7328, -3.71404, 24.8863, -159.244, -92.0467, 54.4018
4.54375, 11, -31.6741, -3.7984, 24.9618, -159.204, -92.0099, 54.3636
4.55159, 11, -31.6159, -3.88431, 25.0382, -159.165, -91.9716, 54.3236
4.56005, 11, -31.5582, -3.97161, 25.1155, -159.124, -91.9312, 54.2817
4.56772, 11, -31.5011, -4.06042, 25.1938, -159.082, -91.8899, 54.2385
4.57633, 11, -31.4446, -4.15065, 25.2732, -159.039, -91.8476, 54.1943
4.58399, 12, -31.3886, -4.24239, 25.3537, -158.996, -91.8031, 54.1482
4.59214, 12, -31.333, -4.33554, 25.4353, -158.951, -91.7573, 54.1
4.59985, 12, -31.278, -4.43004, 25.5179, -158.905, -91.7109, 54.0508
4.61214, 12, -31.1963, -4.57423, 25.6437, -158.836, -91.6377, 53.9743
4.61588, 12, -31.1963, -4.57423, 25.6437, -158.836, -91.6127, 53.9477
4.62438, 13, -31.1159, -4.72173, 25.7716, -158.763, -91.5622, 53.8933
4.63129, 13, -31.0893, -4.77159, 25.8147, -158.738, -91.5362, 53.8659
4.6404, 13, -31.0104, -4.92335, 25.9456, -158.664, -91.4557, 53.7812
4.64738, 13, -30.9843, -4.97474, 25.9898, -158.638, -91.4287, 53.752
4.65545, 13, -30.9327, -5.07857, 26.0789, -158.587, -91.3729, 53.6927
4.66325, 14, -30.8815, -5.18374, 26.1692, -158.535, -91.3157, 53.6326
4.67262, 14, -30.806, -5.34438, 26.3066, -158.454, -91.2279, 53.5386
4.67949, 14, -30.7811, -5.39865, 26.3529, -158.427, -91.1975, 53.5068
4.68962, 14, -30.7315, -5.50826, 26.4929, -158.343, -91.1062, 53.4096
4.69528, 14, -30.6826, -5.61949, 26.5401, -158.315, -91.0745, 53.376
4.70478, 15, -30.61, -5.78904, 26.6833, -158.23, -90.9786, 53.2742
4.71356, 15, -30.5622, -5.90371, 26.7803, -158.171, -90.9122, 53.2044
4.71928, 15, -30.5385, -5.9615, 26.8292, -158.142, -90.8789, 53.1687
4.72989, 15, -30.4683, -6.13711, 26.9774, -158.052, -90.777, 53.0608
4.73544, 15, -30.4451, -6.19639, 27.0273, -158.022, -90.742, 53.0236
4.74345, 16, -30.3991, -6.3159, 27.1277, -157.96, -90.6718, 52.9482
4.75205, 16, -30.3536, -6.43704, 27.2289, -157.897, -90.5995, 52.8721
4.75928, 16, -30.3087, -6.55965, 27.3314, -157.834, -90.5268, 52.7933
4.76827, 16, -30.2642, -6.6836, 27.435, -157.77, -90.4521, 52.7142
4.77871, 16, -30.1984, -6.87246, 27.5926, -157.672, -90.338, 52.592
4.78454, 16, -30.1768, -6.93617, 27.6456, -157.639, -90.2992, 52.5509
4.79129, 17, -30.1338, -7.06482, 27.7521, -157.572, -90.221, 52.4676
4.7993, 17, -30.0913, -7.19505, 27.8595, -157.504, -90.1412, 52.3827
4.80744, 17, -30.0493, -7.32667, 27.9679, -157.435, -90.0599, 52.297
4.81769, 17, -29.9873, -7.52648, 28.1329, -157.33, -89.936, 52.165
4.82327, 17, -29.9669, -7.59383, 28.1885, -157.295, -89.8938, 52.1205
4.83134, 18, -29.9264, -7.72955, 28.3004, -157.224, -89.8089, 52.0302
4.83928, 18, -29.8864, -7.8667, 28.4132, -157.151, -89.7223, 51.939
4.84728, 18, -29.847, -8.00528, 28.5268, -157.078, -89.6351, 51.8458
4.85546, 18, -29.8078, -8.14493, 28.6414, -157.004, -89.5463, 51.7518
4.86331, 18, -29.7692, -8.28603, 28.7572, -156.929, -89.456, 51.656
4.87129, 19, -29.7311, -8.4285, 28.8742, -156.853, -89.3651, 51.5597
4.8806, 19, -29.6935, -8.57258, 28.9923, -156.776, -89.2726, 51.4616
4.88742, 19, -29.6562, -8.71821, 29.1111, -156.698, -89.1786, 51.3628
4.89726, 19, -29.6195, -8.86512, 29.2308, -156.62, -89.084, 51.2626
4.90513, 19, -29.5833, -9.01325, 29.3513, -156.54, -88.988, 51.1616
4.91127, 20, -29.5476, -9.1629, 29.473, -156.46, -88.8907, 51.059
4.91934, 20, -29.5122, -9.31408, 29.596, -156.379, -88.7927, 50.9553
4.92727, 20, -29.4773, -9.46672, 29.7198, -156.296, -88.6936, 50.8506
4.93557, 20, -29.443, -9.62035, 29.8445, -156.213, -88.5932, 50.7443
4.94427, 20, -29.409, -9.77522, 29.97, -156.13, -88.4919, 50.6372
4.95142, 21, -29.3757, -9.93146, 30.0966, -156.045, -88.3894, 50.5287
4.95967, 21, -29.3425, -10.0893, 30.2242, -155.959, -88.2856, 50.4194
4.96737, 21, -29.3099, -10.2486, 30.353, -155.872, -88.181, 50.309
4.97567, 21, -29.2777, -10.4087, 30.4825, -155.785, -88.0754, 50.1979
4.98355, 21, -29.2459, -10.5699, 30.613, -155.697, -87.9686, 50.086
4.99267, 22, -29.2146, -10.7325, 30.7443, -155.608, -87.861, 49.973
5, 22, -29.1835, -10.8966, 30.8765, -155.518, -87.7522, 49.8592
5.00837, 22, -29.1529, -11.0617, 31.0098, -155.427, -87.6426, 49.7447
5.02377, 22, -29.1077, -11.3111, 31.279, -155.243, -87.42, 49.5125
5.0252, 22, -29.0929, -11.3949, 31.279, -155.243, -87.42, 49.5125
5.03242, 23, -29.0634, -11.5638, 31.415, -155.149, -87.3076, 49.3951
5.04029, 23, -29.0343, -11.7341, 31.5517, -155.055, -87.194, 49.2771
5.0475, 23, -29.0055, -11.9052, 31.6892, -154.96, -87.0796, 49.1584
5.05961, 23, -28.9632, -12.1638, 31.8971, -154.815, -86.9064, 48.9795
5.06407, 23, -28.9493, -12.2508, 31.9669, -154.767, -86.8481, 48.9194
5.07177, 23, -28.9218, -12.4258, 32.1071, -154.669, -86.731, 48.7991
5.08066, 24, -28.8945, -12.6015, 32.2483, -154.57, -86.6128, 48.6785
5.08832, 24, -28.8675, -12.7777, 32.3899, -154.471, -86.494, 48.5569
5.09674, 24, -28.841, -12.955, 32.5323, -154.371, -86.3743, 48.4347
5.10381, 24, -28.8148, -13.134, 32.6758, -154.269, -86.2536, 48.3119
5.11238, 24, -28.7889, -13.3139, 32.8201, -154.168, -86.1325, 48.1888
5.12077, 25, -28.7761, -13.4041, 32.8925, -154.065, -86.0103, 48.0654
5.12785, 25, -28.7507, -13.585, 33.0378, -154.013, -85.949, 47.942
5.13663, 25, -28.7127, -13.8587, 33.2567, -153.857, -85.7644, 47.8184
5.14478, 25, -28.6878, -14.0426, 33.4038, -153.752, -85.6401, 47.6945
5.15239, 25, -28.6632, -14.227, 33.5517, -153.646, -85.5157, 47.5707
5.15927, 26, -28.651, -14.3193, 33.6258, -153.593, -85.453, 47.5088
5.16727, 26, -28.6269, -14.505, 33.7744, -153.486, -85.3273, 47.3843
5.17532, 26, -28.6031, -14.6923, 33.9236, -153.378, -85.2013, 47.26
5.1849, 26, -28.5676, -14.9741, 34.1492, -153.215, -85.0108, 47.0735
5.19276, 26, -28.5558, -15.0681, 34.3001, -153.106, -84.8833, 46.9495
5.20071, 27, -28.5209, -15.3517, 34.4514, -152.995, -84.7551, 46.8259
5.21013, 27, -28.498, -15.5418, 34.6034, -152.884, -84.6267, 46.7024
5.21547, 27, -28.4865, -15.6369, 34.6797, -152.828, -84.562, 46.6407
5.22626, 27, -28.4526, -15.923, 34.9096, -152.66, -84.368, 46.4562
5.23126, 27, -28.4415, -16.019, 34.9864, -152.604, -84.3031, 46.3949
5.24089, 28, -28.4191, -16.2121, 35.2169, -152.433, -84.1078, 46.2113
5.24726, 28, -28.3968, -16.4057, 35.2941, -152.376, -84.0425, 46.1502
5.25527, 28, -28.3746, -16.5998, 35.4491, -152.261, -83.9115, 46.0286
5.26341, 28, -28.3525, -16.7947, 35.6045, -152.146, -83.7806, 45.9078
5.27125, 28, -28.3305, -16.9906, 35.7599, -152.03, -83.6489, 45.7878
5.27934, 29, -28.3084, -17.1864, 35.9158, -151.913, -83.5174, 45.6688
5.2883, 29, -28.2865, -17.3823, 36.0723, -151.796, -83.3854, 45.5505
5.29535, 29, -28.2648, -17.579, 36.2293, -151.678, -83.2531, 45.4331
5.30328, 29, -28.243, -17.7765, 36.3863, -151.559, -83.1204, 45.317
5.31148, 29, -28.2213, -17.9738, 36.5433, -151.44, -82.9875, 45.2013
5.32034, 30, -28.2, -18.1715, 36.7012, -151.32, -82.8544, 45.087
5.32826, 30, -28.1786, -18.3702, 36.8596, -151.199, -82.7211, 44.9737
5.33645, 30, -28.1572, -18.5693, 37.0181, -151.078, -82.5879, 44.8614
5.34718, 30, -28.1253, -18.8682, 37.2559, -150.895, -82.3872, 44.6956
5.35128, 30, -28.1147, -18.9683, 37.3353, -150.834, -82.3203, 44.6409
5.35951, 31, -28.0933, -19.1693, 37.4948, -150.711, -82.186, 44.5331
5.36734, 31, -28.0719, -19.3705, 37.6544, -150.587, -82.052, 44.4264
5.37527, 31, -28.0506, -19.5714, 37.8137, -150.463, -81.9175, 44.3214
5.38435, 31, -28.0294, -19.7728, 37.9735, -150.338, -81.7833, 44.2183
5.39228, 31, -28.0079, -19.9744, 38.1339, -150.212, -81.6489, 44.1166
5.40026, 32, -27.9865, -20.1755, 38.2942, -150.086, -81.5145, 44.0168
5.40726, 32, -27.9649, -20.3764, 38.454, -149.96, -81.3802, 43.9187
5.4154, 32, -27.9429, -20.578, 38.6137, -149.833, -81.246, 43.8232
5.42428, 32, -27.9206, -20.7796, 38.7738, -149.706, -81.1121, 43.7297
5.43126, 32, -27.8981, -20.9807, 38.9338, -149.579, -80.9781, 43.6391
5.44043, 32, -27.8754, -21.1815, 39.093, -149.451, -80.8448, 43.5511
5.44738, 33, -27.8523, -21.3825, 39.2518, -149.324, -80.7118, 43.4663
5.45534, 33, -27.8289, -21.5829, 39.4108, -149.196, -80.5792, 43.3844
5.46362, 33, -27.8051, -21.7822, 39.5695, -149.068, -80.4469, 43.3056
5.47313, 33, -27.7807, -21.9814, 39.7272, -148.941, -80.3154, 43.2302
5.47942, 33, -27.7558, -22.1804, 39.8843, -148.813, -80.184, 43.1577
5.48742, 34, -27.7305, -22.3784, 40.041, -148.686, -80.0532, 43.0893
5.49536, 34, -27.7047, -22.5755, 40.1976, -148.558, -79.9224, 43.0235
5.50338, 34, -27.6784, -22.7725, 40.3536, -148.43, -79.7917, 42.9608
5.51173, 34, -27.6517, -22.9692, 40.5086, -148.303, -79.6611, 42.9021
5.52031, 34, -27.6245, -23.165, 40.6638, -148.175, -79.5304, 42.846
5.52738, 35, -27.5969, -23.3604, 40.8191, -148.046, -79.3998, 42.7929
5.53764, 35, -27.5693, -23.5564, 40.9739, -147.918, -79.2691, 42.7438
5.54382, 35, -27.5413, -23.7521, 41.128, -147.789, -79.1389, 42.6982
5.5515, 35, -27.513, -23.9471, 41.2821, -147.659, -79.0085, 42.6557
5.55969, 35, -27.4845, -24.1417, 41.4363, -147.529, -78.8786, 42.6163
5.56769, 36, -27.4555, -24.3366, 41.5902, -147.399, -78.7487, 42.5809
5.57636, 36, -27.4262, -24.5308, 41.7435, -147.268, -78.6192, 42.5498
5.58374, 36, -27.3965, -24.724, 41.8962, -147.137, -78.4903, 42.5229
5.59281, 36, -27.3664, -24.9171, 42.0487, -147.006, -78.3615, 42.5004
5.60058, 36, -27.3356, -25.1101, 42.2006, -146.876, -78.2335, 42.4821
5.60808, 37, -27.3039, -25.302, 42.3512, -146.745, -78.1056, 42.4684
5.61669, 37, -27.2877, -25.4927, 42.5009, -146.615, -77.9784, 42.4595
5.62387, 37, -27.2549, -25.5877, 42.5754, -146.485, -77.8515, 42.455
5.63285, 37, -27.2041, -25.872, 42.7978, -146.356, -77.7251, 42.4536
5.64479, 37, -27.1691, -26.0598, 43.0175, -146.163, -77.5363, 42.4599
5.64721, 37, -27.1513, -26.153, 43.0175, -146.163, -77.5363, 42.4599
5.65532, 38, -27.115, -26.3386, 43.1625, -146.036, -77.4113, 42.4721
5.66473, 38, -27.0593, -26.6157, 43.3785, -145.844, -77.2245, 42.5004
5.67145, 38, -27.0403, -26.7074, 43.4501, -145.781, -77.1626, 42.5126
5.68056, 38, -26.9821, -26.9805, 43.6636, -145.591, -76.9771, 42.5572
5.68728, 38, -26.9623, -27.0712, 43.7343, -145.527, -76.9155, 42.5751
5.69533, 39, -26.9222, -27.2524, 43.8749, -145.401, -76.7927, 42.6155
5.70325, 39, -26.8813, -27.4326, 44.0148, -145.275, -76.6699, 42.6619
5.7137, 39, -26.8182, -27.7004, 44.2228, -145.086, -76.4864, 42.7418
5.71951, 39, -26.7968, -27.7893, 44.2916, -145.023, -76.4252, 42.7716
5.72941, 39, -26.7314, -28.0556, 44.4963, -144.835, -76.2419, 42.8706
5.73607, 40, -26.709, -28.1437, 44.5639, -144.773, -76.1808, 42.9063
5.74326, 40, -26.6635, -28.3185, 44.6985, -144.648, -76.0588, 42.9835
5.75383, 40, -26.6171, -28.4921, 44.8318, -144.525, -75.9376, 43.0668
5.76264, 40, -26.5457, -28.7505, 45.0294, -144.341, -75.7558, 43.2038
5.77008, 40, -26.5213, -28.836, 45.1595, -144.219, -75.6356, 43.3032
5.77524, 41, -26.4718, -29.0054, 45.2241, -144.159, -75.5755, 43.3556
5.78333, 41, -26.4213, -29.1732, 45.3523, -144.038, -75.4555, 43.4654
5.79226, 41, -26.3696, -29.3399, 45.4792, -143.918, -75.3363, 43.5819
5.80026, 41, -26.3166, -29.5053, 45.6047, -143.8, -75.2171, 43.7056
5.80724, 41, -26.2624, -29.6686, 45.7284, -143.682, -75.0988, 43.8364
5.81538, 42, -26.2067, -29.83, 45.8504, -143.566, -74.9808, 43.9747
5.82423, 42, -26.1495, -29.9897, 45.9705, -143.451, -74.8632, 44.1203
5.83229, 42, -26.0906, -30.1476, 46.0884, -143.338, -74.7465, 44.2727
5.84024, 42, -26.0301, -30.3032, 46.2041, -143.227, -74.63, 44.4325
5.84854, 42, -25.968, -30.4563, 46.3178, -143.118, -74.5142, 44.5993
5.85524, 43, -25.904, -30.6071, 46.4291, -143.011, -74.3989, 44.7733
5.86352, 43, -25.8383, -30.7557, 46.5382, -142.906, -74.284, 44.955
5.87227, 43, -25.7711, -30.9022, 46.6452, -142.802, -74.1696, 45.1445
5.88024, 43, -25.7021, -31.0463, 46.7503, -142.7, -74.0553, 45.3417
5.88855, 43, -25.6318, -31.1881, 46.8535, -142.601, -73.9418, 45.5465
5.8954, 44, -25.5598, -31.3278, 46.9548, -142.503, -73.8288, 45.7591
5.90428, 44, -25.4862, -31.4655, 47.0539, -142.407, -73.7162, 45.9796
5.91338, 44, -25.4106, -31.6011, 47.1506, -142.313, -73.6045, 46.2082
5.91955, 44, -25.3334, -31.7344, 47.2449, -142.222, -73.4932, 46.4448
5.92837, 44, -25.2544, -31.8649, 47.3368, -142.133, -73.3826, 46.6897
5.93546, 45, -25.1736, -31.9928, 47.4263, -142.047, -73.2728, 46.9426
5.94348, 45, -25.091, -32.118, 47.5134, -141.964, -73.1633, 47.2044
5.95128, 45, -25.0061, -32.2403, 47.5979, -141.883, -73.0546, 47.4743
5.95933, 45, -24.9191, -32.3597, 47.6794, -141.805, -72.9462, 47.7524
5.96849, 45, -24.8299, -32.476, 47.758, -141.731, -72.838, 48.0388
5.97534, 45, -24.7382, -32.589, 47.8335, -141.659, -72.7308, 48.3339
5.98336, 46, -24.6443, -32.6986, 47.906, -141.591, -72.6239, 48.6373
5.99142, 46, -24.548, -32.8047, 47.9756, -141.525, -72.518, 48.9489
5.9993, 46, -24.4492, -32.9075, 48.0421, -141.465, -72.4129, 49.2689
6.00725, 46, -24.3482, -33.0064, 48.1054, -141.408, -72.3085, 49.5975
6.01562, 46, -24.2449, -33.1016, 48.1652, -141.354, -72.2057, 49.9341
6.02429, 47, -24.1393, -33.1931, 48.2216, -141.305, -72.1036, 50.2786
6.03133, 47, -24.0312, -33.2804, 48.2743, -141.259, -72.0026, 50.6316
6.03943, 47, -23.9204, -33.3638, 48.3233, -141.218, -71.9031, 50.993
6.04751, 47, -23.807, -33.4431, 48.3685, -141.182, -71.8045, 51.3629
6.05552, 47, -23.6908, -33.5183, 48.4098, -141.15, -71.7071, 51.7418
6.06398, 48, -23.5719, -33.5891, 48.4472, -141.123, -71.6114, 52.1292
6.07263, 48, -23.4504, -33.6554, 48.4803, -141.1, -71.5171, 52.5256
6.07969, 48, -23.3263, -33.7169, 48.5094, -141.082, -71.4242, 52.9319
6.0888, 48, -23.1998, -33.7735, 48.5343, -141.069, -71.3335, 53.347
6.09805, 48, -23.0703, -33.825, 48.5546, -141.062, -71.2446, 53.7715
6.10382, 49, -22.938, -33.8713, 48.5707, -141.059, -71.1576, 54.2043
6.11441, 49, -22.8028, -33.9122, 48.5821, -141.06, -71.0725, 54.6444
6.12042, 49, -22.6645, -33.9475, 48.5888, -141.068, -70.9897, 55.0927
6.12785, 49, -22.5944, -33.963, 48.5904, -141.074, -70.9491, 55.548
6.136, 49, -22.4519, -33.9898, 48.5904, -141.092, -70.8307, 56.011
6.14464, 50, -22.2329, -34.0186, 48.581, -141.129, -70.7554, 56.4811
6.15331, 50, -22.0837, -34.0301, 48.5684, -141.161, -70.6826, 56.9583
6.15929, 50, -22.0081, -34.0335, 48.5601, -141.18, -70.6474, 57.2
6.16885, 50, -21.7768, -34.0347, 48.5274, -141.244, -70.5465, 57.9365
6.17521, 50, -21.6981, -34.032, 48.5137, -141.269, -70.5145, 58.1858
6.18331, 51, -21.5384, -34.0215, 48.4822, -141.323, -70.4538, 58.6893
6.19299, 51, -21.2937, -33.993, 48.425, -141.416, -70.3684, 59.4559
6.20206, 51, -21.1272, -33.9652, 48.3798, -141.486, -70.3167, 59.9747
6.2088, 51, -20.9582, -33.9304, 48.329, -141.562, -70.2682, 60.4997
6.21805, 51, -20.7867, -33.8883, 48.2725, -141.644, -70.2236, 61.0301
6.22343, 52, -20.7, -33.8644, 48.2421, -141.688, -70.2031, 61.2973
6.23121, 52, -20.5244, -33.8106, 48.1767, -141.78, -70.1659, 61.8371
6.2409, 52, -20.256, -33.7151, 48.0675, -141.929, -70.118, 62.6592
6.24736, 52, -20.165, -33.6792, 48.028, -141.982, -70.1044, 62.9364
6.25549, 52, -19.9811, -33.6012, 47.9443, -142.093, -70.0811, 63.495
6.26343, 53, -19.7948, -33.5149, 47.8543, -142.211, -70.0631, 64.0599
6.27123, 53, -19.6064, -33.4199, 47.7582, -142.334, -70.0506, 64.6304
6.2793, 53, -19.4161, -33.3168, 47.656, -142.464, -70.0436, 65.206
6.28723, 53, -19.2238, -33.2056, 47.5479, -142.599, -70.0415, 65.7848
6.29542, 53, -19.0297, -33.0861, 47.434, -142.74, -70.0445, 66.3673
6.30582, 54, -18.7353, -32.8913, 47.2521, -142.96, -70.0606, 67.2459
6.31123, 54, -18.6363, -32.8222, 47.1885, -143.036, -70.069, 67.5393
6.32017, 54, -18.4368, -32.6778, 47.0572, -143.191, -70.0911, 68.1265
6.32828, 54, -18.2354, -32.5253, 46.9204, -143.351, -70.1199, 68.7157
6.33524, 54, -18.0325, -32.3645, 46.7778, -143.515, -70.1548, 69.3061
6.34422, 54, -17.8285, -32.1948, 46.6294, -143.683, -70.196, 69.8982
6.35136, 55, -17.6236, -32.0157, 46.4746, -143.856, -70.2455, 70.4928
6.35924, 55, -17.4175, -31.8274, 46.3135, -144.034, -70.3026, 71.092
6.36912, 55, -17.2097, -31.6298, 46.1457, -144.217, -70.3675, 71.6956
6.37524, 55, -17.0003, -31.422, 45.9704, -144.405, -70.4418, 72.3032
6.38332, 55, -16.7891, -31.2032, 45.7874, -144.598, -70.5244, 72.9163
6.39123, 56, -16.5763, -30.9742, 45.5978, -144.796, -70.6166, 73.5341
6.40119, 56, -16.362, -30.7346, 45.4011, -144.999, -70.7176, 74.1559
6.40827, 56, -16.1468, -30.4836, 45.1962, -145.205, -70.8282, 74.7804
6.41524, 56, -15.9317, -30.2223, 44.9849, -145.415, -70.9481, 75.408
6.42337, 56, -15.7169, -29.9504, 44.7677, -145.629, -71.0773, 76.0381
6.4313, 57, -15.5009, -29.6676, 44.5431, -145.846, -71.2162, 76.669
6.43924, 57, -15.2836, -29.3747, 44.312, -146.065, -71.3645, 77.3009
6.4473, 57, -15.0655, -29.0715, 44.0751, -146.286, -71.5229, 77.9339
6.45538, 57, -14.8473, -28.7594, 43.8316, -146.509, -71.6905, 78.5663
6.46333, 57, -14.6295, -28.4389, 43.5834, -146.734, -71.8676, 79.1964
6.47152, 58, -14.4123, -28.1105, 43.3307, -146.958, -72.053, 79.8244
6.48077, 58, -14.1964, -27.7747, 43.0738, -147.181, -72.246, 80.4478
6.48824, 58, -13.9821, -27.4312, 42.8145, -147.403, -72.4464, 81.0644
6.49573, 58, -13.7692, -27.081, 42.5517, -147.623, -72.6537, 81.6744
6.50329, 58, -13.5576, -26.7241, 42.2863, -147.841, -72.8677, 82.2779
6.51128, 59, -13.3473, -26.3608, 42.018, -148.056, -73.0885, 82.8754
6.52003, 59, -13.1387, -25.99, 41.7456, -148.27, -73.3167, 83.4667
6.52822, 59, -12.932, -25.6127, 41.4701, -148.482, -73.5529, 84.0539
6.53616, 59, -12.7266, -25.2285, 41.1901, -148.692, -73.7974, 84.6378
6.54405, 59, -12.5221, -24.8372, 40.9065, -148.901, -74.0508, 85.2185
6.55256, 59, -12.3186, -24.4378, 40.6183, -149.109, -74.3132, 85.7954
6.56027, 60, -12.1163, -24.0307, 40.3257, -149.314, -74.5848, 86.3696
6.57048, 60, -11.9155, -23.6171, 40.0298, -149.518, -74.8652, 86.9409
6.57617, 60, -11.716, -23.1967, 39.7305, -149.72, -75.1542, 87.508
6.5837, 60, -11.5185, -22.7709, 39.4295, -149.918, -75.4511, 88.0698
6.59232, 60, -11.3233, -22.3402, 39.1263, -150.113, -75.7547, 88.6261
6.59981, 61, -11.1305, -21.906, 38.8226, -150.304, -76.0641, 89.175
6.60839, 61, -10.9401, -21.468, 38.518, -150.49, -76.378, 89.715
6.61579, 61, -10.7518, -21.0266, 38.2139, -150.671, -76.6961, 90.2448
6.6301, 61, -10.474, -20.3583, 37.7577, -150.932, -77.1804, 91.0221
6.63212, 61, -10.3826, -20.1338, 37.606, -151.017, -77.3438, 91.2765
6.63926, 62, -10.2919, -19.9085, 37.4543, -151.1, -77.5083, 91.5288
6.64831, 62, -10.0242, -19.2289, 36.9984, -151.342, -78.0087, 92.2728
6.65526, 62, -9.93614, -19.0011, 36.8462, -151.421, -78.178, 92.5171
6.66437, 62, -9.67622, -18.3142, 36.388, -151.65, -78.694, 93.2391
6.67135, 62, -9.59079, -18.0843, 36.2352, -151.724, -78.8686, 93.476
6.67927, 63, -9.42149, -17.6234, 35.9295, -151.869, -79.2213, 93.944
6.68722, 63, -9.25428, -17.1606, 35.6243, -152.009, -79.5784, 94.4028
6.69673, 63, -9.00796, -16.4633, 35.1687, -152.209, -80.1199, 95.073
6.70474, 63, -8.84696, -15.9963, 34.8667, -152.336, -80.4845, 95.507
6.71269, 63, -8.68852, -15.5272, 34.566, -152.457, -80.8514, 95.9307
6.72123, 64, -8.53266, -15.0566, 34.2675, -152.572, -81.2208, 96.3439
6.72737, 64, -8.45568, -14.821, 34.1189, -152.628, -81.4064, 96.5463
6.73681, 64, -8.22839, -14.1132, 33.674, -152.788, -81.9675, 97.1381
6.74601, 64, -8.07994, -13.6416, 33.379, -152.889, -82.3455, 97.5199
6.75494, 64, -8.00657, -13.171, 33.085, -152.983, -82.726, 97.89
6.76095, 65, -7.86172, -12.9359, 32.939, -153.029, -83.1083, 98.2486
6.76822, 65, -7.71956, -12.4675, 32.6487, -153.115, -83.2997, 98.4233
6.7762, 65, -7.58014, -12.0004, 32.3615, -153.196, -83.6833, 98.7625
6.78421, 65, -7.44396, -11.5347, 32.0784, -153.271, -84.0666, 99.0875
6.79227, 65, -7.31059, -11.0697, 31.7987, -153.34, -84.4496, 99.3989
6.80037, 66, -7.18027, -10.6061, 31.5232, -153.403, -84.8321, 99.6958
6.80741, 66, -7.05227, -10.1453, 31.2508, -153.461, -85.2138, 99.978
6.81528, 66, -6.92626, -9.68769, 30.9819, -153.513, -85.5956, 100.245
6.82322, 66, -6.80233, -9.23485, 30.7169, -153.559, -85.9773, 100.497
6.83123, 66, -6.6805, -8.78795, 30.4549, -153.6, -86.3576, 100.733
6.83934, 67, -6.56096, -8.34664, 30.1976, -153.636, -86.736, 100.952
6.84741, 67, -6.44412, -7.9117, 29.9453, -153.666, -87.1109, 101.154
6.85605, 67, -6.33018, -7.48261, 29.6992, -153.689, -87.4813, 101.338
6.86421, 67, -6.21914, -7.05945, 29.4608, -153.707, -87.8459, 101.504
6.87377, 67, -6.11072, -6.64182, 29.2288, -153.72, -88.2047, 101.721
6.87935, 67, -6.00478, -6.23066, 29.0034, -153.727, -88.5578, 101.784
6.88729, 68, -5.90093, -5.82609, 28.7844, -153.73, -88.9063, 101.897
6.89522, 68, -5.79892, -5.42745, 28.5699, -153.729, -89.2512, 101.993
6.90435, 68, -5.69859, -5.03482, 28.3594, -153.723, -89.5939, 102.072
6.91225, 68, -5.59995, -4.64743, 28.1526, -153.712, -89.9355, 102.132
6.91928, 68, -5.50292, -4.26529, 27.9487, -153.697, -90.276, 102.175
6.92735, 69, -5.40765, -3.88698, 27.7479, -153.678, -90.6159, 102.198
6.93525, 69, -5.31413, -3.5124, 27.5514, -153.654, -90.9555, 102.206
6.94324, 69, -5.22227, -3.14114, 27.3588, -153.625, -91.2943, 102.192
6.95145, 69, -5.13228, -2.77389, 27.1692, -153.592, -91.6324, 102.158
6.96019, 69, -5.04394, -2.40978, 26.9836, -153.556, -91.9693, 102.102
6.96751, 70, -4.95703, -2.04931, 26.8022, -153.516, -92.3048, 102.024
6.97581, 70, -4.87138, -1.69305, 26.624, -153.472, -92.6388, 101.924
6.98428, 70, -4.78697, -1.34225, 26.4494, -153.424, -92.9711, 101.801
6.99167, 70, -4.70351, -0.996632, 26.2795, -153.374, -93.3012, 101.657
7.00036, 70, -4.62118, -0.656811, 26.1138, -153.319, -93.6289, 101.491
7.00751, 71, -4.5399, -0.323561, 25.9517, -153.262, -93.9533, 101.303
7.01584, 71, -4.45957, 0.0032206, 25.7942, -153.203, -94.2748, 101.094
7.02524, 71, -4.38025, 0.322957, 25.6424, -153.14, -94.5922, 100.865
7.03224, 71, -4.30175, 0.636835, 25.4957, -153.076, -94.9057, 100.615
7.03931, 71, -4.22405, 0.943816, 25.3538, -153.009, -95.2154, 100.346
7.04743, 72, -4.14719, 1.24413, 25.2164, -152.941, -95.5212, 100.057
7.05713, 72, -4.07068, 1.53753, 25.0833, -152.871, -95.8236, 99.7471
7.06349, 72, -3.99441, 1.82408, 24.9537, -152.8, -96.1232, 99.4171
7.07565, 72, -3.88033, 2.24288, 24.7656, -152.692, -96.5678, 98.8839
7.08008, 72, -3.84232, 2.37922, 24.7044, -152.655, -96.7147, 98.6955
7.08827, 72, -3.76642, 2.64743, 24.5843, -152.582, -97.0068, 98.3021
7.09661, 73, -3.69053, 2.90995, 24.4674, -152.508, -97.2964, 97.887
7.10385, 73, -3.61436, 3.16575, 24.3541, -152.434, -97.5834, 97.4493
7.11272, 73, -3.53788, 3.41511, 24.2444, -152.361, -97.8675, 96.9899
7.1198, 73, -3.46099, 3.65816, 24.1387, -152.289, -98.1481, 96.5098
7.12847, 73, -3.3837, 3.89336, 24.037, -152.218, -98.4249, 96.0094
7.13695, 74, -3.30565, 4.12023, 23.9392, -152.147, -98.6971, 95.491
7.14424, 74, -3.22699, 4.33896, 23.8454, -152.079, -98.9637, 94.9565
7.15121, 74, -3.18739, 4.445, 23.8, -152.045, -99.0948, 94.6842
7.15923, 74, -3.10774, 4.64973, 23.7125, -151.979, -99.3522, 94.1303
7.16835, 74, -2.98688, 4.93913, 23.5892, -151.884, -99.7246, 93.2779
7.17535, 75, -2.94616, 5.03091, 23.5503, -151.854, -99.8446, 92.9887
7.1846, 75, -2.86394, 5.29051, 23.4393, -151.769, -100.192, 92.1094
7.19121, 75, -2.78067, 5.37161, 23.4042, -151.741, -100.304, 91.8122
7.2015, 75, -2.65413, 5.59907, 23.3046, -151.665, -100.624, 90.9091
7.2111, 75, -2.56863, 5.73707, 23.2432, -151.618, -100.826, 90.2976
7.21771, 76, -2.48215, 5.86376, 23.1861, -151.574, -101.019, 89.6784
7.22325, 76, -2.43853, 5.92281, 23.1592, -151.554, -101.112, 89.3652
7.2312, 76, -2.35064, 6.03207, 23.1087, -151.517, -101.292, 88.7323
7.24081, 76, -2.21752, 6.17285, 23.0412, -151.467, -101.542, 87.7693
7.24897, 76, -2.12774, 6.25079, 23.0023, -151.439, -101.696, 87.1195
7.25707, 77, -2.03705, 6.3156, 22.9686, -151.416, -101.837, 86.4665
7.26325, 77, -1.99137, 6.34304, 22.9538, -151.405, -101.903, 86.1399
7.27225, 77, -1.89929, 6.38769, 22.9285, -151.388, -102.025, 85.4885
7.28101, 77, -1.80636, 6.41812, 22.9089, -151.374, -102.132, 84.8399
7.29028, 77, -1.66538, 6.43721, 22.8905, -151.36, -102.265, 83.8739
7.29516, 78, -1.61798, 6.4363, 22.8873, -151.358, -102.302, 83.5546
7.30425, 78, -1.52265, 6.42301, 22.8848, -151.354, -102.364, 82.9188
7.31224, 78, -1.42675, 6.39439, 22.888, -151.354, -102.41, 82.2863
7.3202, 78, -1.33048, 6.3502, 22.8972, -151.356, -102.441, 81.6581
7.32838, 78, -1.23391, 6.2899, 22.9125, -151.363, -102.456, 81.0354
7.33826, 79, -1.0887, 6.1692, 22.9481, -151.379, -102.448, 80.1115
7.34325, 79, -1.04022, 6.12091, 22.9634, -151.385, -102.436, 79.807
7.35378, 79, -0.894675, 5.9518, 23.0206, -151.41, -102.375, 78.907
7.36019, 79, -0.84619, 5.88733, 23.0434, -151.42, -102.346, 78.6117
7.36821, 79, -0.749232, 5.7459, 23.0946, -151.442, -102.274, 78.0284
7.37624, 80, -0.652217, 5.58795, 23.1535, -151.466, -102.185, 77.455
7.3842, 80, -0.555173, 5.41346, 23.2197, -151.492, -102.077, 76.8926
7.39222, 80, -0.458031, 5.22246, 23.294, -151.52, -101.95, 76.3409
7.40425, 80, -0.312655, 4.90436, 23.4205, -151.564, -101.725, 75.5308
7.40737, 80, -0.264232, 4.78933, 23.4667, -151.58, -101.641, 75.2654
7.41545, 80, -0.167563, 4.54558, 23.5658, -151.613, -101.458, 74.7421
7.42429, 81, -0.0710256, 4.28489, 23.6736, -151.647, -101.256, 74.2288
7.43144, 81, 0.0253263, 4.00738, 23.7904, -151.681, -101.034, 73.7239
7.44024, 81, 0.121471, 3.71296, 23.9168, -151.717, -100.794, 73.2286
7.4472, 81, 0.21746, 3.40184, 24.0527, -151.754, -100.534, 72.7426
7.45556, 81, 0.313165, 3.07297, 24.1987, -151.791, -100.255, 72.2666
7.46485, 82, 0.408703, 2.72756, 24.3544, -151.828, -99.9564, 71.8
7.47222, 82, 0.50399, 2.36561, 24.5191, -151.866, -99.6389, 71.3427
7.47934, 82, 0.599067, 1.98809, 24.6934, -151.904, -99.3029, 70.8952
7.4873, 82, 0.693905, 1.59398, 24.8774, -151.94, -98.9494, 70.4573
7.49537, 82, 0.788706, 1.18361, 25.0706, -151.976, -98.5784, 70.0303
7.50401, 83, 0.883438, 0.757973, 25.2729, -152.012, -98.1909, 69.6131
7.51326, 83, 0.978157, 0.31776, 25.4857, -152.047, -97.7873, 69.2063
7.52019, 83, 1.07293, -0.136805, 25.7083, -152.081, -97.3683, 68.8102
7.53352, 83, 1.21526, -0.845771, 26.058, -152.128, -96.711, 68.2342
7.53652, 83, 1.26272, -1.08928, 26.1796, -152.143, -96.4843, 68.0471
7.54449, 84, 1.35789, -1.58655, 26.4301, -152.173, -96.0193, 67.68
7.5522, 84, 1.45323, -2.0973, 26.6905, -152.201, -95.5394, 67.3208
7.5594, 84, 1.54879, -2.62121, 26.9615, -152.228, -95.0441, 66.9691
7.56755, 84, 1.64472, -3.1585, 27.2422, -152.252, -94.5331, 66.6246
7.57555, 84, 1.74109, -3.70926, 27.5339, -152.276, -94.0073, 66.2869
7.58515, 85, 1.8379, -4.27338, 27.8356, -152.297, -93.4663, 65.9562
7.59342, 85, 1.93493, -4.84948, 28.1475, -152.317, -92.9101, 65.6334
7.59982, 85, 2.0324, -5.43637, 28.469, -152.335, -92.3402, 65.3184
7.61279, 85, 2.17917, -6.33487, 28.9687, -152.358, -91.4654, 64.8611
7.616, 85, 2.22839, -6.63831, 29.1394, -152.364, -91.1687, 64.7132
7.62407, 86, 2.32744, -7.25112, 29.4874, -152.374, -90.5675, 64.4247
7.63182, 86, 2.37717, -7.56022, 29.6641, -152.378, -89.9569, 64.1462
7.64022, 86, 2.52805, -8.49652, 30.2045, -152.385, -89.3378, 63.8783
7.64719, 86, 2.57881, -8.81167, 30.3876, -152.386, -89.0254, 63.7486
7.6552, 86, 2.68075, -9.44585, 30.7581, -152.387, -88.398, 63.4977
7.66462, 87, 2.8359, -10.4051, 31.3241, -152.382, -87.4482, 63.1432
7.67342, 87, 2.9403, -11.0489, 31.708, -152.374, -86.808, 62.9216
7.67922, 87, 2.99282, -11.3719, 31.9015, -152.368, -86.4861, 62.8154
7.6905, 87, 3.15213, -12.3449, 32.4889, -152.346, -85.5129, 62.5155
7.69518, 87, 3.20558, -12.6706, 32.6873, -152.337, -85.1865, 62.4219
7.70457, 87, 3.36707, -13.6521, 33.2902, -152.303, -84.2009, 62.1601
7.71127, 88, 3.42129, -13.9808, 33.4939, -152.29, -83.8694, 62.0793
7.71936, 88, 3.5301, -14.6404, 33.9047, -152.261, -83.2022, 61.9276
7.72717, 88, 3.63946, -15.3019, 34.3212, -152.228, -82.5292, 61.7891
7.73524, 88, 3.74926, -15.9646, 34.7431, -152.189, -81.8509, 61.6651
7.74498, 88, 3.91459, -16.9582, 35.3842, -152.123, -80.8281, 61.5076
7.75374, 89, 3.96984, -17.2888, 35.8156, -152.072, -80.1433, 61.4242
7.75926, 89, 4.08041, -17.9482, 36.0322, -152.045, -79.8003, 61.3891
7.77445, 89, 4.30244, -19.2568, 36.8997, -151.923, -78.4271, 61.2964
7.77711, 89, 4.30244, -19.581, 37.1161, -151.889, -78.0858, 61.2857
7.78335, 89, 4.41354, -19.9035, 37.3322, -151.854, -77.7459, 61.2797
7.79125, 90, 4.5248, -20.544, 37.7626, -151.78, -77.0695, 61.2836
7.79919, 90, 4.63677, -21.1786, 38.1909, -151.7, -76.3968, 61.312
7.80729, 90, 4.74915, -21.8072, 38.6169, -151.615, -75.7283, 61.3641
7.81518, 90, 4.86163, -22.4302, 39.0405, -151.525, -75.065, 61.4398
7.82525, 90, 4.97403, -23.0476, 39.4625, -151.429, -74.4076, 61.5417
7.83232, 91, 5.08628, -23.6608, 39.8833, -151.327, -73.7524, 61.6694
7.83919, 91, 5.19824, -24.2696, 40.3038, -151.219, -73.0972, 61.8249
7.84718, 91, 5.30959, -24.8726, 40.7246, -151.104, -72.4418, 62.0087
7.85526, 91, 5.42002, -25.4703, 41.1453, -150.982, -71.7843, 62.2219
7.86318, 91, 5.52957, -26.0615, 41.566, -150.853, -71.1256, 62.465
7.8713, 92, 5.63863, -26.6458, 41.9858, -150.718, -70.4681, 62.7396
7.87929, 92, 5.74783, -27.2234, 42.4039, -150.577, -69.8111, 63.0457
7.88718, 92, 5.8576, -27.7934, 42.8186, -150.43, -69.1564, 63.3827
7.89519, 92, 5.96791, -28.3549, 43.2283, -150.279, -68.5051, 63.7509
7.90325, 92, 6.07909, -28.9069, 43.6327, -150.123, -67.8579, 64.1511
7.91138, 93, 6.19157, -29.4482, 44.0309, -149.964, -67.2174, 64.5822
7.91919, 93, 6.30557, -29.9791, 44.4223, -149.803, -66.5825, 65.0455
7.93423, 93, 6.48051, -30.7563, 44.998, -149.557, -65.6372, 65.8
7.93569, 93, 6.53996, -31.011, 45.1871, -149.475, -65.3235, 66.0683
7.94337, 93, 6.66041, -31.5159, 45.562, -149.31, -64.6973, 66.6317
7.95118, 93, 6.7832, -32.015, 45.9325, -149.145, -64.0716, 67.2346
7.95925, 94, 6.90823, -32.5092, 46.3002, -148.978, -63.4431, 67.8812
7.96732, 94, 7.03544, -32.9983, 46.6657, -148.811, -62.8082, 68.578
7.97573, 94, 7.16463, -33.4804, 47.0298, -148.644, -62.1669, 69.3283
7.98422, 94, 7.29632, -33.9552, 47.3915, -148.479, -61.5191, 70.1301
7.99135, 94, 7.43153, -34.4225, 47.7483, -148.319, -60.8666, 70.9854
7.99929, 95, 7.57114, -34.88, 48.0978, -148.166, -60.2154, 71.8928
8.00729, 95, 7.71644, -35.3273, 48.4374, -148.024, -59.5679, 72.8419
8.01542, 95, 7.86794, -35.7626, 48.7656, -147.895, -58.9265, 73.8327
8.02321, 95, 8.02604, -36.1826, 49.0798, -147.782, -58.2934, 74.8584
8.03122, 95, 8.19105, -36.583, 49.3783, -147.686, -57.6694, 75.9183
8.03932, 96, 8.36287, -36.9631, 49.6608, -147.608, -57.0583, 77.0094
8.04735, 96, 8.54115, -37.3208, 49.9261, -147.551, -56.4617, 78.1303
8.056, 96, 8.72486, -37.6547, 50.1748, -147.515, -55.8792, 79.2762
8.0642, 96, 8.91365, -37.9629, 50.405, -147.498, -55.3128, 80.4425
8.07148, 96, 9.10644, -38.2458, 50.6155, -147.502, -54.7656, 81.6206
8.0804, 96, 9.30176, -38.5037, 50.8069, -147.529, -54.2396, 82.8108
8.08832, 97, 9.49803, -38.736, 50.9783, -147.576, -53.7378, 84.008
8.09577, 97, 9.69403, -38.9434, 51.1288, -147.645, -53.2616, 85.2049
8.10504, 97, 9.88896, -39.1264, 51.2596, -147.732, -52.8134, 86.3912
8.11232, 97, 10.0819, -39.2838, 51.3708, -147.835, -52.3946, 87.5619
8.1198, 97, 10.2717, -39.4156, 51.4625, -147.952, -52.0061, 88.7081
8.12991, 97, 10.4576, -39.5221, 51.5356, -148.08, -51.6485, 89.8245
8.13681, 98, 10.6405, -39.6038, 51.5906, -148.219, -51.3214, 90.9056
8.14437, 98, 10.8213, -39.6622, 51.6279, -148.367, -51.0238, 91.9577
8.15119, 98, 10.9111, -39.683, 51.64, -148.445, -50.885, 92.4753
8.1612, 98, 11.1781, -39.7101, 51.6508, -148.696, -50.5032, 94.0206
8.16717, 98, 11.266, -39.7075, 51.646, -148.786, -50.3862, 94.5377
8.17871, 98, 11.5289, -39.6643, 51.6055, -149.075, -50.0632, 96.116
8.18313, 98, 11.6166, -39.638, 51.5831, -149.179, -49.9651, 96.6526
8.19247, 99, 11.879, -39.5245, 51.4891, -149.508, -49.7026, 98.2936
8.19922, 99, 11.9655, -39.4754, 51.4486, -149.623, -49.6268, 98.8478
8.20865, 99, 12.2205, -39.2942, 51.2993, -149.981, -49.4409, 100.514
8.2152, 99, 12.3037, -39.2225, 51.2405, -150.102, -49.3938, 101.066
8.22323, 99, 12.4656, -39.0628, 51.1102, -150.346, -49.323, 102.156
8.23118, 99, 12.6202, -38.8808, 50.9637, -150.589, -49.2829, 103.222
8.24082, 100, 12.8361, -38.5626, 50.7145, -150.947, -49.2816, 104.763
8.24878, 100, 12.9688, -38.321, 50.5273, -151.179, -49.321, 105.754
8.25677, 100, 13.0317, -38.1918, 50.4274, -151.405, -49.391, 106.72
8.26498, 100, 13.2082, -37.7716, 50.1026, -151.626, -49.4928, 107.662
8.27218, 100, 13.263, -37.6211, 49.9854, -151.734, -49.5553, 108.124
8.28017, 100, 13.3664, -37.3024, 49.7372, -151.944, -49.7032, 109.032
8.28718, 101, 13.4617, -36.9599, 49.4725, -152.147, -49.8813, 109.919
8.29519, 101, 13.549, -36.5924, 49.1906, -152.342, -50.0891, 110.781
8.30324, 101, 13.6286, -36.1993, 48.8919, -152.527, -50.3267, 111.622
8.31119, 101, 13.7, -35.781, 48.5753, -152.703, -50.5942, 112.439
8.31919, 101, 13.7631, -35.3393, 48.2411, -152.869, -50.8926, 113.233
8.33618, 102, 13.8632, -34.3891, 47.5209, -153.168, -51.586, 114.754
8.33841, 102, 13.8825, -34.1372, 47.3301, -153.235, -51.7798, 115.12
8.34317, 102, 13.8994, -33.8791, 47.1352, -153.299, -51.9817, 115.48
8.35118, 102, 13.926, -33.3452, 46.7336, -153.417, -52.4097, 116.182
8.35929, 102, 13.9437, -32.7888, 46.3176, -153.522, -52.8697, 116.856
8.36718, 102, 13.953, -32.2112, 45.8877, -153.613, -53.3593, 117.506
8.37517, 103, 13.9548, -31.6127, 45.4442, -153.69, -53.876, 118.129
8.38332, 103, 13.9497, -30.9949, 44.988, -153.754, -54.4178, 118.726
8.39117, 103, 13.9381, -30.3599, 44.5205, -153.804, -54.9816, 119.297
8.39917, 103, 13.9208, -29.7095, 44.0428, -153.842, -55.5646, 119.843
8.40734, 103, 13.8981, -29.0447, 43.5567, -153.868, -56.1653, 120.363
8.41517, 103, 13.8705, -28.367, 43.0637, -153.882, -56.7818, 120.857
8.42317, 104, 13.8386, -27.6787, 42.5653, -153.887, -57.4112, 121.327
8.43124, 104, 13.8028, -26.9814, 42.063, -153.881, -58.0536, 121.773
8.43917, 104, 13.7632, -26.2763, 41.5574, -153.865, -58.711, 122.199
8.44719, 104, 13.7205, -25.5652, 41.0496, -153.841, -59.3808, 122.605
8.4553, 104, 13.6758, -24.8508, 40.5404, -153.808, -60.0615, 122.995
8.46322, 104, 13.6293, -24.1335, 40.0305, -153.768, -60.7494, 123.371
8.4713, 104, 13.5809, -23.4135, 39.521, -153.721, -61.4431, 123.737
8.47935, 104, 13.5311, -22.692, 39.0124, -153.67, -62.1421, 124.095
8.48733, 104, 13.4804, -21.9692, 38.5049, -153.612, -62.8441, 124.449
8.49527, 104, 13.4291, -21.2459, 37.9991, -153.551, -63.5477, 124.8
8.50333, 104, 13.3771, -20.5228, 37.4945, -153.485, -64.2517, 125.15
8.51134, 104, 13.3248, -19.7997, 36.9916, -153.415, -64.9563, 125.497
8.51917, 104, 13.2723, -19.0761, 36.4907, -153.341, -65.6629, 125.843
8.52727, 104, 13.2198, -18.3524, 35.9916, -153.263, -66.3701, 126.189
8.53528, 104, 13.1675, -17.6287, 35.4952, -153.182, -67.0785, 126.534
8.54324, 104, 13.1155, -16.9042, 35.0011, -153.096, -67.7866, 126.878
8.55141, 104, 13.0638, -16.1798, 34.5086, -153.006, -68.4942, 127.222
8.55961, 104, 13.0125, -15.4553, 34.0183, -152.912, -69.2041, 127.566
8.5674, 104, 12.9614, -14.7304, 33.5304, -152.815, -69.9153, 127.909
8.57629, 104, 12.9106, -14.0052, 33.045, -152.713, -70.6263, 128.252
8.58358, 104, 12.8603, -13.28, 32.5622, -152.608, -71.3364, 128.596
8.59157, 104, 12.8102, -12.5543, 32.082, -152.499, -72.0477, 128.94
8.60058, 104, 12.7604, -11.8291, 31.6045, -152.386, -72.7605, 129.284
8.60791, 104, 12.7111, -11.104, 31.1292, -152.27, -73.4732, 129.629
8.61633, 104, 12.6623, -10.3788, 30.6566, -152.149, -74.1863, 129.975
8.62441, 104, 12.6135, -9.65326, 30.1874, -152.024, -74.8992, 130.321
8.63179, 104, 12.5653, -8.92773, 29.7211, -151.895, -75.6125, 130.668
8.64034, 104, 12.5176, -8.20144, 29.2578, -151.762, -76.3272, 131.016
8.64719, 104, 12.4939, -7.83829, 29.0276, -151.695, -76.6846, 131.191
8.65637, 104, 12.4236, -6.74989, 28.3414, -151.484, -77.7581, 131.716
8.66316, 104, 12.4005, -6.38725, 28.1142, -151.412, -78.1156, 131.892
8.67236, 104, 12.3319, -5.30018, 27.4381, -151.19, -79.1866, 132.42
8.67921, 104, 12.3094, -4.93824, 27.2146, -151.114, -79.5443, 132.597
8.68841, 104, 12.2432, -3.85496, 26.551, -150.879, -80.6176, 133.129
8.69517, 104, 12.2217, -3.49522, 26.3323, -150.798, -80.9749, 133.307
8.70463, 104, 12.1587, -2.42399, 25.6837, -150.552, -82.0403, 133.842
8.71117, 104, 12.1384, -2.06999, 25.4705, -150.468, -82.3935, 134.021
8.72065, 104, 12.079, -1.01967, 24.8428, -150.212, -83.4468, 134.553
8.72948, 104, 12.0408, -0.330836, 24.4352, -150.038, -84.1386, 134.906
8.73515, 104, 12.022, 0.00969378, 24.2353, -149.95, -84.4804, 135.081
8.74472, 104, 11.9671, 1.01459, 23.6526, -149.687, -85.4853, 135.599
8.75294, 104, 11.932, 1.66858, 23.2795, -149.51, -86.1373, 135.938
8.7608, 104, 11.915, 2.30867, 22.9193, -149.334, -86.775, 136.27
8.76867, 104, 11.8817, 2.62276, 22.7437, -149.247, -87.0878, 136.434
8.77615, 104, 11.8492, 3.23878, 22.402, -149.072, -87.7012, 136.757
8.78421, 104, 11.8182, 3.83848, 22.0738, -148.898, -88.2983, 137.073
8.79216, 104, 11.7884, 4.42117, 21.7582, -148.725, -88.8777, 137.383
8.79923, 104, 11.7598, 4.98741, 21.4549, -148.554, -89.4397, 137.685
8.80717, 104, 11.7327, 5.53645, 21.1628, -148.384, -89.9864, 137.981
8.81517, 104, 11.7067, 6.06814, 20.8831, -148.217, -90.517, 138.269
8.82322, 104, 11.6818, 6.5834, 20.6149, -148.052, -91.0314, 138.55
8.83115, 104, 11.658, 7.08149, 20.3583, -147.889, -91.529, 138.824
8.83916, 104, 11.6355, 7.56269, 20.1134, -147.729, -92.0094, 139.09
8.84724, 104, 11.6141, 8.02753, 19.879, -147.572, -92.4725, 139.349
8.85515, 104, 11.5938, 8.47559, 19.6557, -147.418, -92.9195, 139.6
8.86316, 104, 11.5747, 8.90632, 19.4436, -147.267, -93.3499, 139.843
8.87121, 104, 11.5567, 9.31972, 19.2414, -147.12, -93.7633, 140.078
8.87917, 104, 11.5399, 9.71571, 19.0496, -146.978, -94.1597, 140.304
8.8872, 104, 11.524, 10.0936, 18.8688, -146.839, -94.5387, 140.521
8.89522, 104, 11.5093, 10.4526, 18.6984, -146.706, -94.8993, 140.729
8.90315, 104, 11.4955, 10.7924, 18.5381, -146.578, -95.2413, 140.928
8.91122, 104, 11.4828, 11.1129, 18.3888, -146.456, -95.5637, 141.115
8.91915, 104, 11.4711, 11.4128, 18.2503, -146.34, -95.8657, 141.292
8.92717, 104, 11.4605, 11.6923, 18.1222, -146.232, -96.1469, 141.457
8.93522, 104, 11.4509, 11.9506, 18.0048, -146.13, -96.4067, 141.61
8.94315, 104, 11.442, 12.1875, 17.898, -146.037, -96.6447, 141.751
8.95117, 104, 11.4339, 12.4036, 17.8016, -145.951, -96.861, 141.879
8.95922, 104, 11.4266, 12.5987, 17.7156, -145.873, -97.0551, 141.995
8.96722, 104, 11.4201, 12.7724, 17.6399, -145.804, -97.2271, 142.097
8.97524, 104, 11.4142, 12.9254, 17.5742, -145.744, -97.3773, 142.187
8.98332, 104, 11.4089, 13.0589, 17.5181, -145.692, -97.5056, 142.264
8.99125, 104, 11.404, 13.1734, 17.4713, -145.649, -97.6132, 142.328
8.99925, 104, 11.3996, 13.2697, 17.4332, -145.613, -97.7005, 142.38
9.00734, 104, 11.3956, 13.3492, 17.4028, -145.585, -97.7699, 142.422
9.01525, 104, 11.3919, 13.4141, 17.3798, -145.563, -97.8221, 142.454
9.02316, 104, 11.3886, 13.4661, 17.3629, -145.546, -97.8603, 142.477
9.03125, 104, 11.3858, 13.5064, 17.351, -145.535, -97.8874, 142.493
9.03919, 104, 11.3836, 13.5366, 17.3432, -145.528, -97.9055, 142.503
9.04734, 104, 11.3818, 13.5591, 17.3383, -145.523, -97.9169, 142.509
9.05541, 104, 11.3804, 13.5752, 17.3354, -145.52, -97.9233, 142.513
9.06339, 104, 11.3793, 13.5861, 17.3338, -145.519, -97.9266, 142.515
9.07158, 104, 11.3785, 13.5935, 17.333, -145.518, -97.9282, 142.515
9.07953, 105, 11.3779, 13.5984, 17.3327, -145.518, -97.9289, 142.516
9.08756, 105, 11.3775, 13.6016, 17.3325, -145.518, -97.9292, 142.516
9.0962, 105, 11.3772, 13.6039, 17.3324, -145.518, -97.9294, 142.516
9.10373, 105, 11.377, 13.6059, 17.3323, -145.518, -97.9295, 142.516
9.11232, 105, 11.3768, 13.6076, 17.3323, -145.518, -97.9295, 142.516
9.12011, 105, 11.3767, 13.6091, 17.3323, -145.518, -97.9295, 142.516
9.12776, 105, 11.3765, 13.6104, 17.3323, -145.518, -97.9295, 142.516
9.13632, 105, 11.3764, 13.6116, 17.3324, -145.518, -97.9293, 142.516
9.14401, 105, 11.3764, 13.6125, 17.3324, -145.518, -97.9292, 142.516
9.15177, 105, 11.3763, 13.6129, 17.3324, -145.518, -97.9291, 142.516
9.16028, 105, 11.3763, 13.6138, 17.3324, -145.518, -97.9289, 142.516
9.16716, 105, 11.3763, 13.614, 17.3324, -145.518, -97.9288, 142.516
9.1766, 105, 11.3763, 13.6144, 17.3325, -145.518, -97.9287, 142.516
9.18314, 105, 11.3763, 13.6145, 17.3325, -145.518, -97.9286, 142.516
9.19236, 105, 11.3763, 13.6146, 17.3326, -145.518, -97.9283, 142.516
9.19919, 105, 11.3763, 13.6146, 17.3326, -145.518, -97.9283, 142.516
