hehonglu123/Motion-Primitive-Planning/ILC/recorded_data/realrobot/wood/iteration_22/run_2.csv
timestamp, cmd_num, J1, J2, J3, J4, J5, J6
0.000438, -1, 11.3762, 13.6154, 17.3342, -145.52, -97.9263, 142.516
0.003659, -1, 11.3762, 13.6154, 17.3342, -145.52, -97.9263, 142.516
0.008087, -1, 11.3762, 13.6154, 17.3342, -145.52, -97.9263, 142.516
0.029114, -1, 11.3762, 13.6154, 17.3342, -145.52, -97.9262, 142.516
0.030309, -1, 11.3762, 13.6154, 17.3342, -145.52, -97.9262, 142.516
0.034555, -1, 11.3762, 13.6154, 17.3342, -145.52, -97.9262, 142.516
0.040034, -1, 11.3762, 13.6154, 17.3342, -145.52, -97.9262, 142.517
0.046673, -1, 11.3761, 13.6154, 17.3342, -145.52, -97.9262, 142.516
0.056214, -1, 11.3746, 13.6153, 17.3342, -145.52, -97.9262, 142.516
0.064858, -1, 11.3702, 13.6149, 17.3341, -145.52, -97.9262, 142.516
0.072182, -1, 11.3614, 13.6138, 17.3337, -145.52, -97.9262, 142.516
0.080238, -1, 11.3474, 13.6113, 17.3331, -145.521, -97.9261, 142.513
0.089137, -1, 11.3256, 13.6068, 17.3323, -145.524, -97.9257, 142.5
0.094705, -1, 11.3108, 13.6035, 17.3319, -145.526, -97.9253, 142.488
0.104263, -1, 11.2724, 13.5943, 17.3313, -145.533, -97.9221, 142.419
0.112374, -1, 11.2222, 13.582, 17.3315, -145.552, -97.9177, 142.34
0.119638, -1, 11.1605, 13.5665, 17.3331, -145.562, -97.9147, 142.288
0.127664, -1, 11.0872, 13.5475, 17.3371, -145.585, -97.9068, 142.157
0.135747, -1, 11.002, 13.5245, 17.3435, -145.614, -97.8967, 141.992
0.143632, -1, 10.9051, 13.4981, 17.3521, -145.648, -97.8845, 141.794
0.151681, -1, 10.7975, 13.4685, 17.3626, -145.686, -97.8707, 141.568
0.159688, -1, 10.6789, 13.4356, 17.3739, -145.729, -97.856, 141.322
0.167643, -1, 10.5499, 13.3999, 17.3851, -145.773, -97.8405, 141.061
0.175697, -1, 10.4117, 13.362, 17.3958, -145.819, -97.8246, 140.791
0.18371, -1, 10.2669, 13.3224, 17.406, -145.867, -97.8083, 140.517
0.191646, -1, 10.1174, 13.2819, 17.416, -145.914, -97.7917, 140.239
0.199647, -1, 9.96495, 13.2408, 17.426, -145.961, -97.7747, 139.961
0.20774, -1, 9.81024, 13.1995, 17.4361, -146.01, -97.7575, 139.682
0.215692, -1, 9.65474, 13.158, 17.4462, -146.058, -97.7403, 139.402
0.223721, -1, 9.49957, 13.1167, 17.4562, -146.105, -97.7233, 139.123
0.231734, -1, 9.34482, 13.0755, 17.4661, -146.154, -97.7064, 138.843
0.239735, -1, 9.19038, 13.0344, 17.476, -146.201, -97.6896, 138.563
0.247902, -1, 9.03647, 12.9933, 17.4861, -146.249, -97.6729, 138.283
0.255742, -1, 8.88275, 12.9522, 17.4963, -146.298, -97.6561, 138.003
0.26463, -1, 8.72919, 12.9112, 17.5065, -146.345, -97.6389, 137.724
0.272419, -1, 8.57614, 12.8701, 17.5166, -146.393, -97.6215, 137.443
0.27864, -1, 8.42338, 12.8288, 17.5267, -146.441, -97.6039, 137.163
0.287639, -1, 8.27042, 12.7875, 17.5369, -146.489, -97.5866, 136.883
0.29577, -1, 8.11698, 12.7459, 17.547, -146.537, -97.5696, 136.603
0.303646, -1, 7.96309, 12.7042, 17.5573, -146.585, -97.5528, 136.322
0.311644, -1, 7.8085, 12.6625, 17.5674, -146.633, -97.5361, 136.042
0.320434, -1, 7.65359, 12.6208, 17.5775, -146.681, -97.5195, 135.762
0.327638, -1, 7.49862, 12.5791, 17.5878, -146.729, -97.5026, 135.481
0.335691, -1, 7.34363, 12.5376, 17.5979, -146.777, -97.4855, 135.201
0.344426, -1, 7.1887, 12.496, 17.6081, -146.825, -97.4681, 134.92
0.351665, -1, 7.03361, 12.4545, 17.6185, -146.873, -97.4508, 134.64
0.359746, -1, 6.87845, 12.4132, 17.6287, -146.921, -97.4337, 134.36
0.368447, -1, 6.72353, 12.372, 17.6391, -146.969, -97.4168, 134.079
0.505111, -1, 4.0869, 11.6659, 17.8153, -147.788, -97.126, 129.305
0.506442, -1, 4.0869, 11.6659, 17.8153, -147.788, -97.126, 129.305
0.508495, -1, 4.00955, 11.6451, 17.8204, -147.812, -97.1176, 129.164
0.509769, -1, 4.00955, 11.6451, 17.8204, -147.812, -97.1176, 129.164
0.511589, -1, 3.93228, 11.6244, 17.8256, -147.836, -97.1092, 129.024
0.513814, -1, 3.93228, 11.6244, 17.8256, -147.836, -97.1092, 129.024
0.515731, -1, 3.85508, 11.6037, 17.8307, -147.86, -97.1007, 128.883
0.518742, -1, 3.85508, 11.6037, 17.8307, -147.86, -97.1007, 128.883
0.52077, -1, 3.77791, 11.5829, 17.8359, -147.885, -97.0923, 128.742
0.522049, -1, 3.77791, 11.5829, 17.8359, -147.885, -97.0923, 128.742
0.524759, -1, 3.70072, 11.5621, 17.841, -147.909, -97.0839, 128.602
0.526032, -1, 3.70072, 11.5621, 17.841, -147.909, -97.0839, 128.602
0.527999, -1, 3.62348, 11.5413, 17.8462, -147.933, -97.0754, 128.461
0.52943, -1, 3.62348, 11.5413, 17.8462, -147.933, -97.0754, 128.461
0.530691, -1, 3.62348, 11.5413, 17.8462, -147.933, -97.0754, 128.461
0.532798, -1, 3.54622, 11.5204, 17.8514, -147.957, -97.0668, 128.32
0.534093, -1, 3.54622, 11.5204, 17.8514, -147.957, -97.0668, 128.32
0.535944, -1, 3.46895, 11.4996, 17.8566, -147.981, -97.0582, 128.179
0.538411, -1, 3.46895, 11.4996, 17.8566, -147.981, -97.0582, 128.179
0.540506, -1, 3.3916, 11.4787, 17.8618, -148.005, -97.0495, 128.039
0.541735, -1, 3.3916, 11.4787, 17.8618, -148.005, -97.0495, 128.039
0.543995, -1, 3.31414, 11.4579, 17.867, -148.03, -97.0407, 127.898
0.552644, -1, 3.159, 11.4161, 17.8775, -148.078, -97.0231, 127.617
0.560095, -1, 3.00379, 11.3743, 17.8879, -148.126, -97.0057, 127.335
0.568145, -1, 2.84837, 11.3325, 17.8982, -148.174, -96.9886, 127.053
0.576329, -1, 2.69268, 11.2908, 17.9085, -148.222, -96.9717, 126.771
0.584205, -1, 2.53667, 11.249, 17.9189, -148.27, -96.955, 126.49
0.592239, -1, 2.38039, 11.2073, 17.9294, -148.319, -96.9382, 126.208
0.600419, -1, 2.22385, 11.1656, 17.9398, -148.367, -96.9212, 125.926
0.608173, -1, 2.14551, 11.1447, 17.945, -148.391, -96.9126, 125.644
0.616376, -1, 1.98876, 11.103, 17.9554, -148.44, -96.8953, 125.363
0.623696, -1, 1.83224, 11.0613, 17.9658, -148.488, -96.8777, 125.222
0.631623, -1, 1.67582, 11.0196, 17.9762, -148.536, -96.8604, 124.94
0.63959, -1, 1.5196, 10.9778, 17.9868, -148.585, -96.8433, 124.658
0.64763, -1, 1.3637, 10.9362, 17.9972, -148.634, -96.8264, 124.376
0.655879, -1, 1.20794, 10.8945, 18.0076, -148.682, -96.8095, 124.093
0.663642, -1, 1.05255, 10.8527, 18.0179, -148.73, -96.7927, 123.811
0.801007, -1, -1.60318, 10.1415, 18.1951, -149.555, -96.5016, 119.003
0.804511, -1, -1.68129, 10.1206, 18.2004, -149.579, -96.4931, 118.862
0.806755, -1, -1.7593, 10.0997, 18.2056, -149.604, -96.4846, 118.72
0.80798, -1, -1.7593, 10.0997, 18.2056, -149.604, -96.4846, 118.72
0.809162, -1, -1.7593, 10.0997, 18.2056, -149.604, -96.4846, 118.72
0.811185, -1, -1.8372, 10.0787, 18.2108, -149.628, -96.4759, 118.578
0.81248, -1, -1.8372, 10.0787, 18.2108, -149.628, -96.4759, 118.578
0.816747, -1, -1.91503, 10.0577, 18.2161, -149.652, -96.4672, 118.437
0.818856, -1, -1.99278, 10.0368, 18.2213, -149.676, -96.4584, 118.295
0.820111, -1, -1.99278, 10.0368, 18.2213, -149.676, -96.4584, 118.295
0.821863, -1, -1.99278, 10.0368, 18.2213, -149.676, -96.4584, 118.295
0.8234, -1, -2.07041, 10.0159, 18.2266, -149.701, -96.4495, 118.153
0.824677, -1, -2.07041, 10.0159, 18.2266, -149.701, -96.4495, 118.153
0.828103, -1, -2.14795, 9.99491, 18.2317, -149.725, -96.4407, 118.011
0.83002, -1, -2.14795, 9.99491, 18.2317, -149.725, -96.432, 117.87
0.832387, -1, -2.22549, 9.97397, 18.2369, -149.75, -96.432, 117.87
0.834275, -1, -2.30307, 9.95303, 18.2421, -149.774, -96.4233, 117.728
0.835748, -1, -2.30307, 9.95303, 18.2421, -149.774, -96.4233, 117.728
0.83704, -1, -2.30307, 9.95303, 18.2421, -149.774, -96.4233, 117.728
0.839047, -1, -2.3807, 9.93208, 18.2473, -149.798, -96.4147, 117.586
0.840396, -1, -2.3807, 9.93208, 18.2473, -149.798, -96.4147, 117.586
0.842275, -1, -2.45842, 9.9111, 18.2525, -149.822, -96.4061, 117.444
0.85096, -1, -2.53625, 9.86913, 18.263, -149.871, -96.3892, 117.16
0.855697, -1, -2.6921, 9.84817, 18.2681, -149.895, -96.3808, 117.018
0.863691, -1, -2.84835, 9.80624, 18.2786, -149.944, -96.3639, 116.735
0.871604, -1, -3.00494, 9.76428, 18.289, -149.992, -96.347, 116.451
0.87963, -1, -3.16191, 9.72237, 18.2993, -150.041, -96.3299, 116.167
0.887721, -1, -3.31929, 9.68041, 18.3098, -150.09, -96.3124, 115.883
0.89568, -1, -3.47709, 9.63838, 18.3203, -150.138, -96.2948, 115.6
0.903646, -1, -3.63489, 9.59649, 18.3308, -150.187, -96.2773, 115.316
0.911694, -1, -3.79282, 9.55462, 18.3412, -150.236, -96.2601, 115.031
0.919645, -1, -3.95081, 9.51256, 18.3516, -150.284, -96.2431, 114.747
0.927649, -1, -4.10871, 9.47064, 18.362, -150.334, -96.2261, 114.463
0.935775, -1, -4.26649, 9.42869, 18.3724, -150.382, -96.2091, 114.178
0.943701, -1, -4.42416, 9.38666, 18.3827, -150.431, -96.1918, 113.894
0.951778, -1, -4.58138, 9.34465, 18.3931, -150.48, -96.1743, 113.609
0.959732, -1, -4.73813, 9.30258, 18.4035, -150.529, -96.1565, 113.324
0.967723, -1, -4.89455, 9.26053, 18.4139, -150.577, -96.1389, 113.04
0.975844, -1, -5.05072, 9.21847, 18.4245, -150.627, -96.1215, 112.755
0.983737, -1, -5.20663, 9.17642, 18.4351, -150.675, -96.1044, 112.47
0.99166, -1, -5.36252, 9.13429, 18.4456, -150.724, -96.0875, 112.185
0.999723, -1, -5.5186, 9.09215, 18.4561, -150.773, -96.0706, 111.901
1.00766, -1, -5.67489, 9.05008, 18.4665, -150.821, -96.0536, 111.616
1.01577, -1, -5.83162, 9.00793, 18.477, -150.87, -96.0363, 111.331
1.02382, -1, -5.98883, 8.96576, 18.4874, -150.92, -96.0188, 111.046
1.03182, -1, -6.14651, 8.92365, 18.4977, -150.968, -96.001, 110.761
1.03997, -1, -6.30466, 8.8815, 18.5081, -151.017, -95.9837, 110.475
1.04796, -1, -6.46299, 8.83936, 18.5184, -151.066, -95.9666, 110.19
1.05468, -1, -6.54222, 8.81831, 18.5236, -151.09, -95.958, 110.048
1.06418, -1, -6.78016, 8.75507, 18.5394, -151.164, -95.9325, 109.62
1.07217, -1, -6.93878, 8.71292, 18.55, -151.213, -95.9154, 109.334
1.0802, -1, -7.0973, 8.67082, 18.5605, -151.262, -95.8981, 109.049
1.08825, -1, -7.25576, 8.62865, 18.5709, -151.311, -95.8805, 108.763
1.09624, -1, -7.41394, 8.58641, 18.5813, -151.36, -95.8628, 108.477
1.10423, -1, -7.49286, 8.56525, 18.5918, -151.409, -95.8451, 108.192
1.11227, -1, -7.65051, 8.52293, 18.597, -151.458, -95.8277, 107.906
1.11961, -1, -7.80784, 8.48063, 18.6075, -151.483, -95.8191, 107.763
1.12762, -1, -7.96482, 8.43838, 18.6179, -151.532, -95.8022, 107.478
1.13567, -1, -8.12148, 8.39604, 18.6283, -151.581, -95.7852, 107.192
1.14363, -1, -8.278, 8.35371, 18.6388, -151.63, -95.7683, 106.906
1.15166, -1, -8.43467, 8.31132, 18.6494, -151.679, -95.751, 106.62
1.15964, -1, -8.59162, 8.26897, 18.6599, -151.728, -95.7335, 106.334
1.16762, -1, -8.74895, 8.2267, 18.6704, -151.777, -95.7158, 106.047
1.17566, -1, -8.90659, 8.18431, 18.6808, -151.826, -95.6983, 105.761
1.18362, -1, -9.06474, 8.14195, 18.6912, -151.875, -95.6809, 105.474
1.19165, -1, -9.2233, 8.09968, 18.7017, -151.924, -95.6638, 105.188
1.19965, -1, -9.38217, 8.05735, 18.7121, -151.973, -95.6467, 104.901
1.20762, -1, -9.54131, 8.01496, 18.7226, -152.023, -95.6295, 104.614
1.21563, -1, -9.70044, 7.9727, 18.7331, -152.072, -95.6122, 104.327
1.22376, -1, -9.85972, 7.93043, 18.7436, -152.121, -95.5947, 104.04
1.23162, -1, -10.0191, 7.88804, 18.7542, -152.17, -95.5768, 103.753
1.23964, -1, -10.1784, 7.8456, 18.7648, -152.22, -95.5589, 103.466
1.24861, -1, -10.3375, 7.80309, 18.7754, -152.269, -95.5414, 103.18
1.25564, -1, -10.4964, 7.76056, 18.786, -152.318, -95.5242, 102.893
1.26464, -1, -10.6549, 7.71811, 18.7964, -152.368, -95.5071, 102.605
1.27168, -1, -10.813, 7.6756, 18.807, -152.417, -95.4901, 102.318
1.27968, -1, -10.9708, 7.633, 18.8175, -152.466, -95.473, 102.031
1.28769, -1, -11.1284, 7.59049, 18.8278, -152.515, -95.4557, 101.744
1.29561, -1, -11.2858, 7.54802, 18.8384, -152.564, -95.4379, 101.456
1.30362, -1, -11.4432, 7.50555, 18.8489, -152.614, -95.4201, 101.169
1.31169, -1, -11.6008, 7.46305, 18.8594, -152.663, -95.4025, 100.882
1.31961, -1, -11.7587, 7.42063, 18.87, -152.712, -95.3851, 100.594
1.32765, -1, -11.917, 7.3782, 18.8806, -152.762, -95.3678, 100.306
1.33569, -1, -12.0758, 7.33581, 18.8912, -152.811, -95.3507, 100.018
1.34362, -1, -12.2349, 7.29343, 18.9017, -152.861, -95.3334, 99.7306
1.35161, -1, -12.3945, 7.251, 18.9122, -152.91, -95.316, 99.4424
1.35994, -1, -12.5544, 7.20858, 18.9227, -152.96, -95.2983, 99.1545
1.36761, -1, -12.7143, 7.16617, 18.9333, -153.009, -95.2803, 98.8667
1.37561, -1, -12.8744, 7.1237, 18.9439, -153.059, -95.2624, 98.5787
1.3844, -1, -13.0345, 7.0811, 18.9544, -153.108, -95.2448, 98.2905
1.39171, -1, -13.1944, 7.03848, 18.965, -153.157, -95.2275, 98.0025
1.3996, -1, -13.3542, 6.99587, 18.9756, -153.207, -95.2103, 97.7144
1.40843, -1, -13.5137, 6.95313, 18.9862, -153.256, -95.1932, 97.4259
1.41561, -1, -13.673, 6.91036, 18.9967, -153.305, -95.1759, 97.1371
1.42364, -1, -13.832, 6.86765, 19.0073, -153.355, -95.1584, 96.8486
1.43255, -1, -13.9906, 6.82493, 19.0178, -153.404, -95.1406, 96.5603
1.43964, -1, -14.1489, 6.78223, 19.0283, -153.454, -95.1227, 96.2715
1.4477, -1, -14.3071, 6.7396, 19.0389, -153.504, -95.1051, 95.9824
1.45684, -1, -14.4654, 6.69687, 19.0493, -153.553, -95.0878, 95.6935
1.46372, -1, -14.6238, 6.65422, 19.0599, -153.602, -95.0706, 95.4044
1.47177, -1, -14.7826, 6.61173, 19.0705, -153.652, -95.0534, 95.1151
1.48011, -1, -14.9418, 6.56916, 19.0811, -153.701, -95.0361, 94.8258
1.48767, -1, -15.1012, 6.52649, 19.0919, -153.751, -95.0186, 94.5368
1.49582, -1, -15.2611, 6.48391, 19.1026, -153.801, -95.0007, 94.2477
1.5051, -1, -15.4214, 6.44126, 19.1133, -153.85, -94.9827, 93.9584
1.51064, -1, -15.5017, 6.41989, 19.1186, -153.875, -94.9738, 93.8136
1.52012, -1, -15.7428, 6.35583, 19.1345, -153.95, -94.9474, 93.3798
1.52662, -1, -15.8231, 6.33444, 19.1398, -153.975, -94.9387, 93.2351
1.53579, -1, -16.0643, 6.27009, 19.1558, -154.049, -94.9129, 92.8005
1.54392, -1, -16.2251, 6.22725, 19.1663, -154.099, -94.8958, 92.511
1.55348, -1, -16.3857, 6.18423, 19.1769, -154.148, -94.8783, 92.2215
1.56001, -1, -16.5462, 6.14123, 19.1873, -154.198, -94.8607, 91.9316
1.56836, -1, -16.7064, 6.09831, 19.1979, -154.248, -94.8428, 91.6414
1.57773, -1, -16.866, 6.05531, 19.2086, -154.297, -94.825, 91.3513
1.58422, -1, -17.0254, 6.01237, 19.2193, -154.347, -94.8074, 91.0612
1.59217, -1, -17.1846, 5.96939, 19.2299, -154.397, -94.79, 90.771
1.60099, -1, -17.3436, 5.92651, 19.2405, -154.446, -94.7727, 90.4805
1.60822, -1, -17.5028, 5.8837, 19.2512, -154.497, -94.7554, 90.1902
1.61642, -1, -17.5825, 5.86229, 19.2565, -154.521, -94.7467, 90.0452
1.62361, -1, -17.7419, 5.81946, 19.2672, -154.571, -94.729, 89.7549
1.63164, -1, -17.9015, 5.77671, 19.2779, -154.621, -94.7111, 89.4644
1.6396, -1, -18.0615, 5.7339, 19.2885, -154.671, -94.6931, 89.1739
1.6476, -1, -18.222, 5.69111, 19.2991, -154.721, -94.6751, 88.8834
1.65564, -1, -18.3829, 5.6483, 19.3099, -154.771, -94.6574, 88.5926
1.66364, -1, -18.5442, 5.60534, 19.3206, -154.821, -94.6402, 88.3015
1.6716, -1, -18.7058, 5.56235, 19.3313, -154.871, -94.6228, 88.0107
1.67965, -1, -18.8674, 5.51936, 19.3419, -154.921, -94.6056, 87.7199
1.6876, -1, -19.0291, 5.47629, 19.3525, -154.971, -94.5881, 87.4288
1.69561, -1, -19.1906, 5.43313, 19.3631, -155.02, -94.5702, 87.1374
1.70361, -1, -19.3521, 5.38998, 19.3738, -155.071, -94.5521, 86.846
1.7116, -1, -19.5135, 5.34678, 19.3843, -155.12, -94.5341, 86.5545
1.71966, -1, -19.6744, 5.30353, 19.395, -155.17, -94.5164, 86.2629
1.7276, -1, -19.835, 5.26036, 19.4056, -155.22, -94.4988, 85.9711
1.73566, -1, -19.9955, 5.21719, 19.4163, -155.27, -94.4814, 85.6796
1.74363, -1, -20.1555, 5.17402, 19.4271, -155.32, -94.4639, 85.3882
1.75259, -1, -20.3153, 5.13104, 19.438, -155.37, -94.4464, 85.0964
1.75968, -1, -20.4752, 5.08801, 19.4488, -155.42, -94.4286, 84.8046
1.76868, -1, -20.6353, 5.04491, 19.4595, -155.47, -94.4105, 84.5129
1.77561, -1, -20.7955, 5.00196, 19.4702, -155.521, -94.3924, 84.221
1.78367, -1, -20.9562, 4.95896, 19.4809, -155.571, -94.3747, 83.9288
1.79159, -1, -21.1173, 4.91583, 19.4916, -155.621, -94.3572, 83.6367
1.7996, -1, -21.2787, 4.87273, 19.5022, -155.671, -94.34, 83.3448
1.80766, -1, -21.4408, 4.82952, 19.5128, -155.721, -94.3228, 83.0525
1.81559, -1, -21.6029, 4.78623, 19.5236, -155.772, -94.3054, 82.7598
1.82362, -1, -21.7652, 4.74301, 19.5344, -155.822, -94.2877, 82.4673
1.83169, -1, -21.9276, 4.69961, 19.5451, -155.872, -94.2698, 82.1747
1.83959, -1, -22.0901, 4.65621, 19.5559, -155.922, -94.2517, 81.8819
1.8476, -1, -22.2526, 4.61286, 19.5666, -155.972, -94.2339, 81.5889
1.85565, -1, -22.415, 4.56941, 19.5772, -156.022, -94.2164, 81.2962
1.86363, -1, -22.577, 4.52603, 19.588, -156.073, -94.1988, 81.0036
1.87161, -1, -22.7388, 4.48257, 19.5986, -156.123, -94.1813, 80.7109
1.87966, -1, -22.9001, 4.43915, 19.6093, -156.173, -94.1638, 80.4177
1.88759, -1, -23.0613, 4.39583, 19.62, -156.224, -94.146, 80.1248
1.89578, -1, -23.2223, 4.35253, 19.6307, -156.274, -94.1278, 79.8318
1.90361, -1, -23.3831, 4.30923, 19.6416, -156.324, -94.1095, 79.5384
1.91161, -1, -23.544, 4.26598, 19.6525, -156.375, -94.0914, 79.2449
1.91978, -1, -23.7051, 4.22269, 19.6632, -156.425, -94.0737, 78.9518
1.92761, -1, -23.8663, 4.17943, 19.674, -156.475, -94.0561, 78.6583
1.93564, -1, -24.0277, 4.13609, 19.6846, -156.526, -94.0387, 78.3644
1.94389, -1, -24.1897, 4.0927, 19.6954, -156.576, -94.0212, 78.0705
1.95168, -1, -24.3521, 4.04931, 19.7061, -156.627, -94.0035, 77.7767
1.95978, -1, -24.5149, 4.00587, 19.7167, -156.677, -93.9855, 77.4824
1.96806, -1, -24.678, 3.96228, 19.7274, -156.727, -93.9674, 77.188
1.9757, -1, -24.8413, 3.91873, 19.7381, -156.778, -93.9494, 76.8939
1.98369, -1, -25.0047, 3.87519, 19.7489, -156.828, -93.9317, 76.5999
1.99218, -1, -25.1681, 3.83163, 19.7598, -156.878, -93.9141, 76.3056
1.99975, -1, -25.3312, 3.78806, 19.7707, -156.929, -93.8967, 76.0111
2.00769, -1, -25.4942, 3.74446, 19.7815, -156.979, -93.8791, 75.7168
2.0165, -1, -25.6569, 3.70079, 19.7922, -157.03, -93.8613, 75.4224
2.02376, -1, -25.8196, 3.65727, 19.8029, -157.081, -93.8432, 75.1276
2.03185, -1, -25.9819, 3.61377, 19.8137, -157.131, -93.8248, 74.8329
2.04073, -1, -26.1439, 3.57021, 19.8245, -157.181, -93.8065, 74.5383
2.04788, -1, -26.3055, 3.5268, 19.8352, -157.232, -93.7885, 74.2437
2.05597, -1, -26.4671, 3.48341, 19.846, -157.283, -93.7708, 73.9486
2.06487, -1, -26.6289, 3.43987, 19.8567, -157.333, -93.7532, 73.6534
2.07207, -1, -26.791, 3.39637, 19.8676, -157.384, -93.7356, 73.3583
2.07856, -1, -26.8722, 3.37461, 19.8731, -157.409, -93.7267, 73.2106
2.0894, -1, -27.1162, 3.30917, 19.8894, -157.485, -93.6997, 72.7673
2.09622, -1, -27.2792, 3.26562, 19.9001, -157.536, -93.6814, 72.4722
2.10424, -1, -27.4426, 3.22188, 19.9108, -157.586, -93.6631, 72.177
2.11302, -1, -27.5244, 3.19996, 19.9162, -157.611, -93.6452, 71.8815
2.12013, -1, -27.6883, 3.15625, 19.9271, -157.662, -93.6362, 71.7336
2.12764, -1, -27.8523, 3.11264, 19.9378, -157.713, -93.6185, 71.438
2.13559, -1, -28.0165, 3.06893, 19.9486, -157.764, -93.6008, 71.1423
2.14266, -1, -28.1808, 3.02519, 19.9594, -157.815, -93.5831, 70.8465
2.15165, -1, -28.3451, 2.98146, 19.9702, -157.865, -93.565, 70.5504
2.15958, -1, -28.5091, 2.93769, 19.9811, -157.916, -93.5467, 70.2545
2.16766, -1, -28.6728, 2.894, 19.992, -157.967, -93.5282, 69.9588
2.17558, -1, -28.8363, 2.85031, 20.0028, -158.017, -93.5099, 69.6625
2.18357, -1, -28.9994, 2.80656, 20.0136, -158.068, -93.492, 69.3659
2.19057, -1, -29.1622, 2.76288, 20.0244, -158.119, -93.4743, 69.0696
2.1996, -1, -29.3249, 2.71919, 20.0352, -158.17, -93.4567, 68.7729
2.20758, -1, -29.4876, 2.67547, 20.046, -158.221, -93.4389, 68.476
2.21467, -1, -29.6504, 2.63169, 20.0568, -158.272, -93.421, 68.179
2.22358, -1, -29.8134, 2.58789, 20.0677, -158.323, -93.4027, 67.8825
2.23159, -1, -29.9765, 2.5441, 20.0786, -158.374, -93.3842, 67.5858
2.23965, -1, -30.1398, 2.50023, 20.0896, -158.425, -93.3659, 67.2887
2.24916, -1, -30.3037, 2.45623, 20.1006, -158.475, -93.3479, 66.9915
2.2556, -1, -30.468, 2.4123, 20.1115, -158.527, -93.3301, 66.6947
2.26457, -1, -30.6327, 2.36826, 20.1223, -158.577, -93.3124, 66.3975
2.27161, -1, -30.7977, 2.32428, 20.1331, -158.628, -93.2946, 66.1
2.27958, -1, -30.9628, 2.28034, 20.1441, -158.68, -93.2766, 65.8027
2.28759, -1, -31.1278, 2.23625, 20.1549, -158.73, -93.2582, 65.5055
2.29558, -1, -31.2929, 2.1923, 20.1658, -158.782, -93.2397, 65.2081
2.30364, -1, -31.4578, 2.14844, 20.1766, -158.833, -93.2213, 64.9103
2.31157, -1, -31.6224, 2.10437, 20.1874, -158.884, -93.2033, 64.6125
2.31958, -1, -31.787, 2.06038, 20.1984, -158.935, -93.1855, 64.3146
2.32766, -1, -31.9513, 2.01643, 20.2094, -158.986, -93.168, 64.0165
2.3356, -1, -32.1152, 1.97241, 20.2204, -159.037, -93.1503, 63.7184
2.34358, -1, -32.2789, 1.9284, 20.2313, -159.089, -93.1324, 63.4205
2.35165, -1, -32.4423, 1.88439, 20.2421, -159.14, -93.1143, 63.1228
2.35958, -1, -32.606, 1.84025, 20.2532, -159.191, -93.0958, 62.8244
2.36762, -1, -32.7699, 1.79615, 20.2641, -159.243, -93.0777, 62.5262
2.37564, -1, -32.9338, 1.75204, 20.275, -159.293, -93.0596, 62.2281
2.38357, -1, -33.0982, 1.70779, 20.2859, -159.344, -93.0418, 61.9295
2.39165, -1, -33.2629, 1.6636, 20.2968, -159.396, -93.024, 61.6308
2.39964, -1, -33.4278, 1.61943, 20.3077, -159.447, -93.0061, 61.3322
2.40759, -1, -33.5933, 1.57516, 20.3188, -159.498, -92.988, 61.0336
2.41566, -1, -33.759, 1.53093, 20.3297, -159.55, -92.9695, 60.7346
2.42359, -1, -33.9248, 1.48669, 20.3406, -159.601, -92.9509, 60.4354
2.43159, -1, -34.0908, 1.44251, 20.3515, -159.652, -92.9324, 60.1362
2.43975, -1, -34.2568, 1.39836, 20.3624, -159.704, -92.9142, 59.837
2.44763, -1, -34.423, 1.3541, 20.3734, -159.755, -92.8962, 59.5373
2.45566, -1, -34.5888, 1.30991, 20.3843, -159.807, -92.8784, 59.2378
2.46373, -1, -34.7544, 1.26571, 20.3952, -159.858, -92.8606, 58.9385
2.47168, -1, -34.9196, 1.22149, 20.4062, -159.909, -92.8426, 58.6391
2.47968, -1, -35.0844, 1.17725, 20.4172, -159.961, -92.8242, 58.3393
2.48777, -1, -35.2491, 1.13295, 20.4283, -160.012, -92.8056, 58.0395
2.49558, -1, -35.4134, 1.0887, 20.4394, -160.063, -92.7872, 57.7398
2.50362, -1, -35.5767, 1.04473, 20.4506, -160.115, -92.769, 57.4399
2.51167, -1, -35.7377, 1.00113, 20.4619, -160.166, -92.751, 57.1404
2.51964, -1, -35.8954, 0.95841, 20.4737, -160.217, -92.7331, 56.8433
2.52782, -1, -36.0485, 0.917068, 20.4856, -160.267, -92.7155, 56.5507
2.53635, -1, -36.1954, 0.877623, 20.4975, -160.315, -92.6981, 56.2659
2.54381, -1, -36.3335, 0.840768, 20.5094, -160.362, -92.6812, 55.9943
2.55187, -1, -36.4612, 0.806961, 20.5205, -160.405, -92.6653, 55.7424
2.56033, -1, -36.577, 0.776311, 20.5305, -160.443, -92.6511, 55.5159
2.56803, -1, -36.679, 0.749336, 20.5389, -160.476, -92.6389, 55.3205
2.57606, -1, -36.7663, 0.726166, 20.5451, -160.503, -92.6291, 55.1597
2.58257, -1, -36.8046, 0.716042, 20.5474, -160.515, -92.625, 55.0924
2.59217, -1, -36.8991, 0.691167, 20.5511, -160.541, -92.6161, 54.9423
2.60021, -1, -36.9458, 0.678775, 20.5519, -160.552, -92.6125, 54.8787
2.60822, -1, -36.9805, 0.669509, 20.552, -160.559, -92.6102, 54.8379
2.61607, -1, -36.994, 0.665989, 20.5518, -160.561, -92.6095, 54.8244
2.62411, -1, -37.0144, 0.660895, 20.5514, -160.565, -92.6086, 54.8064
2.63159, -1, -37.0268, 0.657879, 20.5511, -160.566, -92.6082, 54.7974
2.63953, 2, -37.0334, 0.656272, 20.5509, -160.567, -92.6079, 54.7932
2.6476, 2, -37.0356, 0.655564, 20.5508, -160.568, -92.6078, 54.7913
2.65562, 2, -37.0354, 0.655266, 20.5508, -160.568, -92.6078, 54.7904
2.66357, 2, -37.0347, 0.655135, 20.5508, -160.568, -92.6078, 54.79
2.67162, 2, -37.0345, 0.655074, 20.5508, -160.568, -92.6078, 54.7899
2.67959, 2, -37.0349, 0.655009, 20.5508, -160.568, -92.6078, 54.7898
2.68758, 2, -37.0359, 0.654963, 20.5507, -160.568, -92.6078, 54.7897
2.69559, 2, -37.037, 0.654856, 20.5505, -160.568, -92.6079, 54.7898
2.70361, 2, -37.0386, 0.654621, 20.5503, -160.568, -92.6079, 54.7899
2.71156, 2, -37.04, 0.654339, 20.5501, -160.568, -92.6079, 54.7898
2.71961, 2, -37.0411, 0.654108, 20.55, -160.568, -92.608, 54.7899
2.72762, 2, -37.0421, 0.653894, 20.5498, -160.568, -92.6081, 54.7899
2.73556, 2, -37.0425, 0.653776, 20.5496, -160.568, -92.6081, 54.79
2.74359, 2, -37.0425, 0.653733, 20.5494, -160.568, -92.6081, 54.7901
2.75162, 2, -37.0421, 0.653741, 20.5493, -160.568, -92.6081, 54.7902
2.75956, 2, -37.0412, 0.653785, 20.5492, -160.568, -92.6082, 54.7904
2.76762, 2, -37.0402, 0.653842, 20.5492, -160.568, -92.6082, 54.7905
2.77562, 2, -37.0386, 0.653911, 20.5491, -160.568, -92.6083, 54.7906
2.78356, 2, -37.0372, 0.653986, 20.549, -160.568, -92.6084, 54.7908
2.79159, 2, -37.0361, 0.654021, 20.5489, -160.568, -92.6084, 54.7909
2.7996, 2, -37.0354, 0.654026, 20.5489, -160.568, -92.6083, 54.791
2.80758, 2, -37.0352, 0.653995, 20.5489, -160.568, -92.6084, 54.791
2.81559, 2, -37.0353, 0.653963, 20.5489, -160.568, -92.6084, 54.791
2.8236, 2, -37.0355, 0.653871, 20.5489, -160.568, -92.6084, 54.7911
2.83156, 2, -37.0358, 0.653809, 20.5488, -160.568, -92.6084, 54.7911
2.83961, 2, -37.0364, 0.653798, 20.5488, -160.568, -92.6084, 54.7911
2.84772, 2, -37.0371, 0.653775, 20.5488, -160.568, -92.6083, 54.7912
2.85557, 2, -37.0378, 0.653765, 20.5488, -160.568, -92.6084, 54.7912
2.86359, 2, -37.0385, 0.653789, 20.5488, -160.568, -92.6084, 54.7912
2.87163, 2, -37.0388, 0.653808, 20.5488, -160.568, -92.6084, 54.7913
2.87955, 2, -37.039, 0.653824, 20.5488, -160.568, -92.6084, 54.7913
2.8876, 2, -37.039, 0.653866, 20.5488, -160.568, -92.6084, 54.7913
2.89561, 2, -37.039, 0.653868, 20.5488, -160.568, -92.6084, 54.7914
2.90356, 2, -37.0385, 0.653887, 20.5488, -160.568, -92.6084, 54.7915
2.9116, 2, -37.0381, 0.653895, 20.5487, -160.568, -92.6084, 54.7916
2.91964, 2, -37.0379, 0.653874, 20.5487, -160.568, -92.6084, 54.7916
2.92758, 2, -37.0377, 0.653859, 20.5487, -160.568, -92.6085, 54.7916
2.93561, 2, -37.0376, 0.65384, 20.5487, -160.568, -92.6085, 54.7917
2.94366, 2, -37.0375, 0.653831, 20.5487, -160.568, -92.6085, 54.7917
2.95164, 2, -37.0376, 0.653827, 20.5487, -160.568, -92.6085, 54.7917
2.95967, 2, -37.0376, 0.653825, 20.5487, -160.568, -92.6084, 54.7917
2.9677, 2, -37.0377, 0.653837, 20.5487, -160.568, -92.6084, 54.7917
2.97567, 2, -37.0378, 0.65383, 20.5487, -160.568, -92.6085, 54.7918
2.9837, 2, -37.038, 0.653826, 20.5486, -160.568, -92.6085, 54.7919
2.99172, 2, -37.0382, 0.653844, 20.5486, -160.568, -92.6085, 54.792
2.99957, 2, -37.0383, 0.653876, 20.5486, -160.568, -92.6085, 54.792
3.00772, 2, -37.0383, 0.653872, 20.5486, -160.568, -92.6085, 54.7921
3.01564, 2, -37.0383, 0.653851, 20.5486, -160.568, -92.6084, 54.7921
3.0236, 2, -37.0383, 0.653867, 20.5486, -160.568, -92.6085, 54.7921
3.03171, 2, -37.0383, 0.653856, 20.5486, -160.568, -92.6085, 54.7922
3.04016, 2, -37.0382, 0.653838, 20.5486, -160.568, -92.6085, 54.7922
3.04779, 2, -37.0382, 0.65383, 20.5486, -160.568, -92.6085, 54.7923
3.05587, 2, -37.0382, 0.653827, 20.5485, -160.568, -92.6085, 54.7924
3.06437, 2, -37.0381, 0.653825, 20.5485, -160.568, -92.6085, 54.7924
3.07199, 2, -37.0381, 0.653832, 20.5485, -160.568, -92.6085, 54.7924
3.08006, 2, -37.0382, 0.653832, 20.5485, -160.568, -92.6085, 54.7925
3.08855, 2, -37.0381, 0.653828, 20.5485, -160.568, -92.6085, 54.7925
3.09609, 2, -37.0382, 0.653833, 20.5485, -160.568, -92.6085, 54.7926
3.10419, 2, -37.0381, 0.653863, 20.5485, -160.568, -92.6085, 54.7927
3.11249, 2, -37.0381, 0.653892, 20.5485, -160.568, -92.6085, 54.7927
3.12009, 2, -37.0381, 0.653885, 20.5485, -160.568, -92.6085, 54.7927
3.12813, 2, -37.0382, 0.653869, 20.5485, -160.568, -92.6085, 54.7928
3.13648, 2, -37.0382, 0.653857, 20.5485, -160.567, -92.6085, 54.7928
3.14355, 2, -37.0381, 0.653854, 20.5485, -160.567, -92.6085, 54.7928
3.15157, 2, -37.0381, 0.653837, 20.5485, -160.567, -92.6085, 54.7928
3.15981, 2, -37.0381, 0.65383, 20.5485, -160.567, -92.6085, 54.7929
3.16756, 2, -37.0381, 0.653827, 20.5485, -160.567, -92.6085, 54.7929
3.1756, 2, -37.0381, 0.653832, 20.5485, -160.567, -92.6085, 54.7929
3.18358, 2, -37.0381, 0.653833, 20.5484, -160.567, -92.6085, 54.793
3.19155, 2, -37.0381, 0.653828, 20.5484, -160.567, -92.6086, 54.7931
3.19963, 2, -37.0381, 0.653845, 20.5484, -160.567, -92.6086, 54.7931
3.20761, 2, -37.0381, 0.653858, 20.5484, -160.567, -92.6086, 54.7931
3.21555, 2, -37.0381, 0.653864, 20.5484, -160.567, -92.6086, 54.7932
3.22358, 2, -37.0381, 0.653867, 20.5484, -160.567, -92.6086, 54.7932
3.23155, 2, -37.0381, 0.653868, 20.5484, -160.567, -92.6087, 54.7933
3.23955, 2, -37.0381, 0.653887, 20.5484, -160.567, -92.6086, 54.7933
3.24905, 2, -37.038, 0.653858, 20.5484, -160.567, -92.6087, 54.7933
3.25562, 2, -37.038, 0.653859, 20.5484, -160.567, -92.6087, 54.7933
3.26355, 2, -37.038, 0.653864, 20.5483, -160.567, -92.6087, 54.7933
3.27159, 2, -37.038, 0.653847, 20.5483, -160.567, -92.6087, 54.7934
3.2796, 2, -37.038, 0.653854, 20.5483, -160.567, -92.6087, 54.7934
3.28756, 2, -37.038, 0.653855, 20.5483, -160.567, -92.6087, 54.7935
3.29558, 2, -37.0379, 0.653845, 20.5483, -160.567, -92.6087, 54.7935
3.30358, 2, -37.0379, 0.653858, 20.5483, -160.567, -92.6087, 54.7935
3.31154, 2, -37.0379, 0.653875, 20.5483, -160.567, -92.6087, 54.7935
3.31957, 2, -37.0379, 0.65389, 20.5483, -160.567, -92.6087, 54.7936
3.3276, 2, -37.0379, 0.653897, 20.5483, -160.567, -92.6087, 54.7936
3.33555, 2, -37.0379, 0.653889, 20.5483, -160.567, -92.6088, 54.7937
3.3436, 2, -37.0378, 0.653889, 20.5483, -160.567, -92.6087, 54.7937
3.35159, 2, -37.0378, 0.653897, 20.5482, -160.567, -92.6087, 54.7938
3.35955, 2, -37.0378, 0.653889, 20.5482, -160.567, -92.6088, 54.7937
3.36758, 2, -37.0378, 0.653871, 20.5482, -160.567, -92.6088, 54.7937
3.37561, 2, -37.0378, 0.653853, 20.5482, -160.567, -92.6087, 54.7938
3.38354, 2, -37.0378, 0.653861, 20.5482, -160.567, -92.6087, 54.7938
3.39158, 2, -37.0378, 0.653865, 20.5482, -160.567, -92.6088, 54.7938
3.39959, 2, -37.0378, 0.653867, 20.5482, -160.567, -92.6088, 54.7939
3.40756, 2, -37.0377, 0.653868, 20.5482, -160.567, -92.6088, 54.7939
3.41557, 2, -37.0377, 0.653869, 20.5482, -160.567, -92.6088, 54.7938
3.42361, 2, -37.0377, 0.653869, 20.5482, -160.567, -92.6088, 54.7939
3.43155, 2, -37.0377, 0.653898, 20.5481, -160.567, -92.6088, 54.7939
3.43959, 2, -37.0377, 0.653901, 20.5481, -160.567, -92.6088, 54.7939
3.44765, 2, -37.0377, 0.65392, 20.5481, -160.567, -92.6088, 54.794
3.45563, 2, -37.0376, 0.653929, 20.5481, -160.567, -92.6088, 54.794
3.46366, 2, -37.0376, 0.653904, 20.5481, -160.567, -92.6088, 54.794
3.47168, 2, -37.0376, 0.653903, 20.5481, -160.567, -92.6088, 54.794
3.47965, 2, -37.0376, 0.653877, 20.5481, -160.567, -92.6088, 54.794
3.4877, 2, -37.0376, 0.653868, 20.5481, -160.567, -92.6088, 54.794
3.49569, 2, -37.0376, 0.653898, 20.5481, -160.567, -92.6088, 54.794
3.50368, 2, -37.0376, 0.653901, 20.5481, -160.567, -92.6088, 54.794
3.51164, 2, -37.0376, 0.653902, 20.548, -160.567, -92.6088, 54.794
3.51962, 2, -37.0375, 0.653921, 20.548, -160.567, -92.6088, 54.794
3.52768, 2, -37.0375, 0.653929, 20.548, -160.567, -92.6088, 54.7941
3.5357, 2, -37.0375, 0.653904, 20.548, -160.567, -92.6088, 54.7941
3.54377, 2, -37.0375, 0.653914, 20.548, -160.567, -92.6089, 54.7942
3.55205, 2, -37.0375, 0.653926, 20.548, -160.567, -92.6088, 54.7941
3.55986, 2, -37.0375, 0.653921, 20.548, -160.567, -92.6088, 54.7942
3.56792, 2, -37.0375, 0.653911, 20.548, -160.567, -92.6088, 54.7942
3.57605, 2, -37.0375, 0.653888, 20.548, -160.567, -92.6088, 54.7942
3.58405, 2, -37.0375, 0.653889, 20.5479, -160.567, -92.6089, 54.7942
3.59209, 2, -37.0375, 0.653896, 20.5479, -160.567, -92.6089, 54.7942
3.60041, 2, -37.0375, 0.6539, 20.5479, -160.567, -92.6089, 54.7942
3.60825, 2, -37.0375, 0.65389, 20.5479, -160.567, -92.6089, 54.7942
3.61617, 2, -37.0375, 0.653897, 20.5479, -160.567, -92.6089, 54.7943
3.62416, 2, -37.0374, 0.653888, 20.5479, -160.567, -92.6089, 54.7943
3.63156, 2, -37.0374, 0.653907, 20.5479, -160.567, -92.6089, 54.7943
3.64036, 2, -37.0374, 0.653905, 20.5479, -160.567, -92.6089, 54.7943
3.64754, 2, -37.0374, 0.653922, 20.5479, -160.567, -92.6089, 54.7943
3.65559, 2, -37.0374, 0.65393, 20.5479, -160.567, -92.6089, 54.7943
3.66354, 2, -37.0374, 0.653934, 20.5479, -160.567, -92.6089, 54.7943
3.67157, 2, -37.0374, 0.653935, 20.5478, -160.567, -92.6089, 54.7943
3.67962, 2, -37.0374, 0.653907, 20.5478, -160.567, -92.6089, 54.7943
3.68755, 2, -37.0374, 0.653916, 20.5478, -160.567, -92.6089, 54.7944
3.69553, 2, -37.0373, 0.653927, 20.5478, -160.567, -92.6089, 54.7944
3.70356, 2, -37.0373, 0.653932, 20.5478, -160.567, -92.6089, 54.7944
3.71154, 2, -37.0373, 0.653905, 20.5478, -160.567, -92.6089, 54.7943
3.71953, 2, -37.0374, 0.653915, 20.5478, -160.567, -92.6089, 54.7944
3.72759, 4, -37.0373, 0.653927, 20.5478, -160.567, -92.6089, 54.7944
3.73555, 4, -37.0373, 0.653914, 20.5478, -160.567, -92.6089, 54.7944
3.74354, 4, -37.0373, 0.653908, 20.5478, -160.567, -92.6089, 54.7944
3.7516, 4, -37.0373, 0.653924, 20.5478, -160.566, -92.6089, 54.7943
3.76057, 4, -37.0373, 0.65392, 20.5478, -160.566, -92.6089, 54.7943
3.76754, 4, -37.0373, 0.653922, 20.5478, -160.567, -92.6089, 54.7943
3.77563, 4, -37.0372, 0.65393, 20.5477, -160.567, -92.6089, 54.7943
3.78356, 4, -37.0373, 0.653934, 20.5477, -160.566, -92.6089, 54.7944
3.79154, 4, -37.0373, 0.653924, 20.5477, -160.566, -92.6089, 54.7944
3.7997, 4, -37.0372, 0.653924, 20.5477, -160.566, -92.6089, 54.7944
3.80756, 4, -37.0372, 0.653931, 20.5477, -160.566, -92.6089, 54.7944
3.81554, 4, -37.0372, 0.653934, 20.5477, -160.566, -92.6089, 54.7944
3.8236, 4, -37.0372, 0.653935, 20.5477, -160.566, -92.6089, 54.7943
3.85013, 4, -37.0372, 0.653937, 20.5477, -160.566, -92.6089, 54.7944
3.8521, 4, -37.0371, 0.653937, 20.5477, -160.566, -92.6089, 54.7944
3.85469, 4, -37.0371, 0.653937, 20.5477, -160.566, -92.6089, 54.7945
3.8566, 4, -37.0371, 0.653937, 20.5477, -160.566, -92.6089, 54.7945
3.86689, 4, -37.0371, 0.653937, 20.5476, -160.566, -92.6089, 54.7944
3.87156, 4, -37.0371, 0.653918, 20.5476, -160.566, -92.6089, 54.7944
3.87959, 4, -37.0363, 0.653765, 20.5477, -160.566, -92.609, 54.7944
3.88754, 4, -37.0338, 0.652814, 20.5478, -160.566, -92.6089, 54.7944
3.8957, 4, -37.0281, 0.649918, 20.5486, -160.566, -92.609, 54.7944
3.90557, 4, -37.0185, 0.643949, 20.5511, -160.566, -92.609, 54.7944
3.91159, 4, -37.0052, 0.63437, 20.5565, -160.565, -92.609, 54.7944
3.91979, 4, -36.9871, 0.620656, 20.5662, -160.564, -92.609, 54.7943
3.92771, 5, -36.9632, 0.602384, 20.5817, -160.561, -92.6089, 54.7944
3.93554, 5, -36.934, 0.579815, 20.6037, -160.556, -92.6087, 54.7943
3.94366, 5, -36.8999, 0.55261, 20.6325, -160.55, -92.6083, 54.7943
3.95254, 5, -36.8611, 0.521094, 20.6681, -160.542, -92.6075, 54.7943
3.95962, 5, -36.8171, 0.484689, 20.7095, -160.533, -92.6063, 54.7943
3.96813, 5, -36.768, 0.443774, 20.7559, -160.523, -92.6049, 54.7942
3.97577, 5, -36.7139, 0.398823, 20.8061, -160.511, -92.6032, 54.7942
3.98365, 5, -36.6555, 0.350532, 20.8589, -160.499, -92.6014, 54.7941
3.99172, 5, -36.5932, 0.299861, 20.9134, -160.487, -92.5995, 54.7941
3.99959, 5, -36.5275, 0.247338, 20.9687, -160.475, -92.5977, 54.7941
4.00765, 5, -36.4603, 0.193885, 21.0241, -160.463, -92.5959, 54.7941
4.01779, 5, -36.3921, 0.140051, 21.0797, -160.451, -92.5939, 54.7942
4.02743, 5, -36.3235, 0.0860351, 21.1352, -160.439, -92.592, 54.7942
4.03164, 5, -36.2547, 0.0320963, 21.1908, -160.427, -92.59, 54.7942
4.03976, 5, -36.1858, -0.0216881, 21.2463, -160.415, -92.588, 54.7942
4.04871, 5, -36.1172, -0.0752122, 21.3018, -160.403, -92.586, 54.7943
4.05652, 5, -36.0485, -0.128482, 21.3572, -160.39, -92.5839, 54.7944
4.06389, 5, -35.98, -0.181489, 21.4125, -160.377, -92.5819, 54.7944
4.07193, 5, -35.9114, -0.234366, 21.4678, -160.364, -92.5798, 54.7946
4.08008, 5, -35.8428, -0.2871, 21.5229, -160.352, -92.5777, 54.7951
4.08815, 5, -35.7739, -0.339776, 21.5781, -160.339, -92.5757, 54.7956
4.09649, 5, -35.7048, -0.392485, 21.633, -160.326, -92.5736, 54.7964
4.10411, 5, -35.6354, -0.445174, 21.6877, -160.314, -92.5716, 54.7973
4.11221, 5, -35.5657, -0.498003, 21.7422, -160.301, -92.5695, 54.7985
4.12097, 5, -35.4959, -0.550848, 21.7966, -160.289, -92.5673, 54.7999
4.12897, 5, -35.4608, -0.603722, 21.8508, -160.276, -92.5652, 54.8014
4.13613, 5, -35.3906, -0.630139, 21.8778, -160.27, -92.5642, 54.8021
4.14352, 5, -35.3201, -0.682936, 21.9319, -160.257, -92.562, 54.8037
4.15524, 5, -35.2144, -0.761948, 22.0127, -160.237, -92.5588, 54.8064
4.15954, 5, -35.1791, -0.788109, 22.0395, -160.23, -92.5577, 54.8074
4.16752, 5, -35.1084, -0.840371, 22.0933, -160.217, -92.5555, 54.8094
4.17567, 5, -35.0379, -0.892515, 22.1469, -160.204, -92.5533, 54.8116
4.18356, 5, -34.9674, -0.94429, 22.2003, -160.191, -92.5511, 54.814
4.19156, 5, -34.897, -0.995928, 22.2537, -160.178, -92.5488, 54.8164
4.19966, 5, -34.8265, -1.04736, 22.307, -160.165, -92.5466, 54.819
4.2075, 5, -34.7559, -1.09879, 22.36, -160.152, -92.5443, 54.8216
4.21558, 5, -34.6852, -1.15024, 22.4129, -160.139, -92.542, 54.8244
4.22352, 5, -34.6143, -1.20152, 22.4657, -160.126, -92.5398, 54.8273
4.2315, 5, -34.5434, -1.25293, 22.5181, -160.113, -92.5375, 54.8303
4.23958, 5, -34.4722, -1.30432, 22.5706, -160.1, -92.5351, 54.8334
4.24782, 5, -34.4007, -1.35571, 22.6228, -160.086, -92.5328, 54.8367
4.25637, 5, -34.3291, -1.40708, 22.6749, -160.072, -92.5305, 54.8401
4.26354, 5, -34.2575, -1.45835, 22.7269, -160.058, -92.5281, 54.8436
4.2716, 5, -34.1856, -1.50946, 22.7788, -160.045, -92.5258, 54.8472
4.28052, 5, -34.1137, -1.56029, 22.8305, -160.031, -92.5234, 54.8509
4.28769, 5, -34.0416, -1.61097, 22.8822, -160.018, -92.521, 54.8547
4.29673, 5, -33.9695, -1.66141, 22.9338, -160.005, -92.5186, 54.8585
4.30365, 5, -33.8973, -1.71161, 22.9853, -159.991, -92.5163, 54.8625
4.31153, 5, -33.8252, -1.76167, 23.0365, -159.977, -92.5139, 54.8666
4.32309, 5, -33.7169, -1.83655, 23.1131, -159.956, -92.5104, 54.8729
4.3277, 5, -33.6808, -1.8615, 23.1385, -159.949, -92.5092, 54.875
4.3365, 5, -33.6083, -1.91133, 23.1893, -159.935, -92.5068, 54.8794
4.34358, 5, -33.5357, -1.96138, 23.2399, -159.921, -92.5046, 54.8836
4.35158, 5, -33.4628, -2.01173, 23.2904, -159.906, -92.5022, 54.8876
4.35953, 5, -33.39, -2.06235, 23.3408, -159.892, -92.4999, 54.8906
4.36758, 5, -33.3174, -2.11339, 23.3912, -159.878, -92.4976, 54.8923
4.3757, 6, -33.2449, -2.16494, 23.4417, -159.864, -92.4951, 54.8926
4.38375, 6, -33.1729, -2.21734, 23.4924, -159.849, -92.4923, 54.8907
4.39153, 6, -33.1012, -2.2706, 23.5437, -159.834, -92.489, 54.8858
4.39953, 7, -33.03, -2.32481, 23.5957, -159.817, -92.4847, 54.8754
4.40756, 7, -32.9593, -2.38019, 23.6489, -159.799, -92.4789, 54.8611
4.41551, 7, -32.8891, -2.43677, 23.7032, -159.779, -92.4714, 54.8444
4.42387, 7, -32.8194, -2.49486, 23.7591, -159.759, -92.4619, 54.8267
4.43167, 7, -32.7503, -2.5545, 23.8165, -159.737, -92.4504, 54.8092
4.43953, 8, -32.6819, -2.61577, 23.8753, -159.714, -92.4368, 54.7922
4.44776, 8, -32.6143, -2.67864, 23.9354, -159.69, -92.4213, 54.7755
4.45557, 8, -32.5473, -2.74339, 23.9967, -159.664, -92.4039, 54.7584
4.46386, 8, -32.481, -2.80979, 24.0591, -159.637, -92.3846, 54.7404
4.47211, 8, -32.4154, -2.87773, 24.1226, -159.61, -92.3638, 54.721
4.47988, 9, -32.3504, -2.94708, 24.1869, -159.582, -92.3418, 54.7
4.48799, 9, -32.2861, -3.0178, 24.2523, -159.552, -92.3188, 54.6772
4.49773, 9, -32.2223, -3.08986, 24.3188, -159.522, -92.2946, 54.6526
4.50379, 9, -32.1591, -3.16315, 24.3862, -159.49, -92.2688, 54.6265
4.51352, 9, -32.0965, -3.23771, 24.4546, -159.458, -92.2411, 54.5994
4.52147, 9, -32.0343, -3.31364, 24.5239, -159.425, -92.212, 54.5708
4.52758, 10, -31.9729, -3.39081, 24.5943, -159.39, -92.1818, 54.5405
4.53568, 10, -31.912, -3.46946, 24.6657, -159.354, -92.1505, 54.5082
4.54382, 10, -31.8516, -3.54953, 24.7383, -159.318, -92.1176, 54.4739
4.5521, 10, -31.7918, -3.631, 24.8118, -159.282, -92.0826, 54.4383
4.55981, 10, -31.7326, -3.71394, 24.8863, -159.244, -92.0466, 54.4017
4.56797, 11, -31.6739, -3.79833, 24.9618, -159.204, -92.0099, 54.3636
4.57601, 11, -31.6158, -3.88423, 25.0382, -159.165, -91.9716, 54.3235
4.584, 11, -31.5582, -3.97158, 25.1156, -159.124, -91.9311, 54.2814
4.5921, 11, -31.501, -4.06039, 25.1939, -159.082, -91.8899, 54.2383
4.60415, 11, -31.4445, -4.15069, 25.3135, -159.018, -91.8257, 54.1713
4.60803, 12, -31.3884, -4.24244, 25.3538, -158.996, -91.8031, 54.1479
4.6163, 12, -31.3329, -4.33559, 25.4354, -158.951, -91.7573, 54.0996
4.62434, 12, -31.2779, -4.43011, 25.518, -158.905, -91.7109, 54.0502
4.63467, 12, -31.2234, -4.52592, 25.6017, -158.859, -91.6626, 53.9995
4.63945, 12, -31.1963, -4.57437, 25.6438, -158.836, -91.6377, 53.9736
4.64752, 13, -31.1426, -4.67234, 25.7289, -158.787, -91.5877, 53.9199
4.65556, 13, -31.0893, -4.77172, 25.8149, -158.738, -91.5362, 53.8654
4.66354, 13, -31.0366, -4.87252, 25.9018, -158.689, -91.4826, 53.8096
4.67391, 13, -30.9585, -5.02663, 26.0344, -158.612, -91.4012, 53.7223
4.68134, 13, -30.9327, -5.07869, 26.0792, -158.587, -91.3729, 53.6926
4.68754, 14, -30.8815, -5.18389, 26.1695, -158.535, -91.3157, 53.6326
4.69551, 14, -30.831, -5.2906, 26.2609, -158.481, -91.2579, 53.5704
4.70988, 14, -30.7315, -5.50845, 26.4463, -158.372, -91.1372, 53.4429
4.71145, 14, -30.7315, -5.50845, 26.4463, -158.372, -91.1372, 53.4429
4.71955, 14, -30.6825, -5.61966, 26.5404, -158.315, -91.0745, 53.3762
4.72747, 15, -30.634, -5.73234, 26.6356, -158.259, -91.0107, 53.3084
4.7355, 15, -30.586, -5.8464, 26.7319, -158.201, -90.9457, 53.2397
4.74359, 15, -30.5386, -5.96167, 26.8295, -158.142, -90.8788, 53.1688
4.75167, 15, -30.4916, -6.07837, 26.928, -158.082, -90.8116, 53.0973
4.75955, 15, -30.4451, -6.19655, 27.0275, -158.022, -90.742, 53.0237
4.76855, 16, -30.3992, -6.31606, 27.1278, -157.96, -90.6718, 52.9483
4.77551, 16, -30.3538, -6.43722, 27.2291, -157.897, -90.5995, 52.8722
4.78362, 16, -30.3089, -6.55982, 27.3316, -157.834, -90.5268, 52.7933
4.7915, 16, -30.2644, -6.68379, 27.4352, -157.77, -90.4521, 52.7143
4.79966, 16, -30.2204, -6.80932, 27.5399, -157.705, -90.3765, 52.6333
4.80869, 17, -30.1769, -6.93639, 27.6457, -157.639, -90.2992, 52.551
4.81556, 17, -30.1338, -7.06504, 27.7522, -157.572, -90.2209, 52.4676
4.82471, 17, -30.0913, -7.19524, 27.8596, -157.504, -90.1411, 52.3827
4.83645, 17, -30.0285, -7.39318, 28.0227, -157.401, -90.0188, 52.253
4.83946, 17, -30.0079, -7.45977, 28.0777, -157.366, -89.9777, 52.209
4.84827, 17, -29.9669, -7.59404, 28.1886, -157.295, -89.8938, 52.1205
4.85555, 18, -29.9264, -7.72978, 28.3005, -157.224, -89.8089, 52.0301
4.8635, 18, -29.8865, -7.86688, 28.4133, -157.151, -89.7224, 51.9389
4.875, 18, -29.8274, -8.07512, 28.584, -157.041, -89.5908, 51.7989
4.87966, 18, -29.8079, -8.14511, 28.6414, -157.004, -89.5463, 51.7517
4.88756, 18, -29.7693, -8.28619, 28.7572, -156.929, -89.456, 51.6558
4.8955, 19, -29.7312, -8.42866, 28.8742, -156.853, -89.3651, 51.5593
4.9035, 19, -29.6936, -8.57274, 28.9923, -156.776, -89.2725, 51.4611
4.91157, 19, -29.6564, -8.71834, 29.1111, -156.698, -89.1786, 51.3624
4.91951, 19, -29.6196, -8.86523, 29.2307, -156.62, -89.0839, 51.2623
4.92864, 19, -29.5834, -9.01333, 29.3512, -156.54, -88.988, 51.1613
4.93557, 20, -29.5477, -9.16301, 29.473, -156.46, -88.8907, 51.0587
4.94351, 20, -29.5124, -9.31415, 29.596, -156.379, -88.7928, 50.9552
4.95179, 20, -29.4775, -9.46679, 29.7198, -156.296, -88.6936, 50.8506
4.96065, 20, -29.4431, -9.62049, 29.8445, -156.213, -88.5931, 50.7444
4.96762, 20, -29.4092, -9.77539, 29.9701, -156.13, -88.4919, 50.6374
4.97566, 21, -29.3758, -9.93166, 30.0966, -156.045, -88.3894, 50.5289
4.98389, 21, -29.3427, -10.0895, 30.2243, -155.959, -88.2856, 50.4196
4.99161, 21, -29.31, -10.2488, 30.353, -155.872, -88.1811, 50.3092
5.00008, 21, -29.2778, -10.4089, 30.4825, -155.785, -88.0754, 50.198
5.00751, 21, -29.246, -10.5701, 30.6129, -155.697, -87.9687, 50.0861
5.01558, 22, -29.2147, -10.7327, 30.7442, -155.608, -87.861, 49.9731
5.02464, 22, -29.1836, -10.8967, 30.8765, -155.518, -87.7522, 49.8592
5.03461, 22, -29.153, -11.0618, 31.0098, -155.427, -87.6426, 49.7446
5.04043, 22, -29.1228, -11.2278, 31.1439, -155.335, -87.5319, 49.6287
5.04894, 22, -29.0929, -11.395, 31.279, -155.243, -87.4201, 49.5123
5.05763, 23, -29.0635, -11.5639, 31.415, -155.149, -87.3076, 49.3951
5.06466, 23, -29.0343, -11.7344, 31.5517, -155.055, -87.194, 49.277
5.07187, 23, -29.0055, -11.9055, 31.6893, -154.96, -87.0796, 49.1585
5.08089, 23, -28.9773, -12.0776, 31.8276, -154.864, -86.9644, 49.0393
5.08802, 23, -28.9493, -12.2511, 31.967, -154.767, -86.8481, 48.9195
5.0964, 23, -28.9217, -12.4261, 32.1072, -154.669, -86.7309, 48.7992
5.10491, 24, -28.8945, -12.6017, 32.2483, -154.57, -86.6128, 48.6785
5.11205, 24, -28.8675, -12.778, 32.39, -154.471, -86.4941, 48.5569
5.12097, 24, -28.8409, -12.9553, 32.5324, -154.371, -86.3743, 48.4347
5.12842, 24, -28.8148, -13.1344, 32.6759, -154.27, -86.2535, 48.3119
5.13548, 24, -28.8018, -13.2244, 32.748, -154.219, -86.1931, 48.2504
5.14349, 25, -28.776, -13.4045, 32.8926, -154.116, -86.0715, 48.127
5.1522, 25, -28.7506, -13.5853, 33.0379, -154.013, -85.949, 48.0035
5.16238, 25, -28.7127, -13.8592, 33.2569, -153.857, -85.7644, 47.8182
5.16751, 25, -28.7002, -13.9511, 33.3303, -153.805, -85.7022, 47.7563
5.17552, 25, -28.6755, -14.1353, 33.4778, -153.699, -85.578, 47.6323
5.18354, 26, -28.651, -14.3198, 33.6259, -153.593, -85.4529, 47.5085
5.19154, 26, -28.6268, -14.5056, 33.7745, -153.486, -85.3272, 47.3841
5.20091, 26, -28.5912, -14.7869, 33.9987, -153.324, -85.1379, 47.1976
5.20749, 26, -28.5793, -14.8808, 34.0739, -153.27, -85.0743, 47.1354
5.21553, 26, -28.5557, -15.0688, 34.2247, -153.161, -84.9472, 47.0112
5.22511, 27, -28.5208, -15.3523, 34.4516, -152.995, -84.7551, 46.8256
5.23163, 27, -28.5094, -15.4473, 34.5275, -152.94, -84.6909, 46.764
5.23952, 27, -28.4865, -15.6374, 34.6798, -152.828, -84.562, 46.6406
5.25089, 27, -28.4526, -15.9234, 34.9097, -152.66, -84.3679, 46.4561
5.25564, 27, -28.4414, -16.0193, 34.9865, -152.604, -84.303, 46.3948
5.26347, 28, -28.4191, -16.2124, 35.14, -152.49, -84.173, 46.2723
5.27156, 28, -28.3967, -16.406, 35.2942, -152.376, -84.0425, 46.1502
5.28064, 28, -28.3745, -16.5999, 35.4492, -152.261, -83.9115, 46.0287
5.28836, 28, -28.3524, -16.7948, 35.6047, -152.146, -83.7806, 45.9079
5.29549, 28, -28.3304, -16.9907, 35.7602, -152.03, -83.649, 45.7879
5.30345, 29, -28.3083, -17.1864, 35.916, -151.913, -83.5174, 45.6688
5.31156, 29, -28.2865, -17.3822, 36.0725, -151.796, -83.3853, 45.5505
5.31949, 29, -28.2647, -17.579, 36.2296, -151.678, -83.253, 45.4333
5.32771, 29, -28.2429, -17.7764, 36.3866, -151.559, -83.1203, 45.3171
5.33663, 29, -28.2212, -17.9738, 36.5436, -151.44, -82.9875, 45.2015
5.34369, 30, -28.1999, -18.1715, 36.7015, -151.32, -82.8544, 45.0872
5.35154, 30, -28.1785, -18.3701, 36.86, -151.2, -82.7211, 44.9738
5.35956, 30, -28.1571, -18.5692, 37.0184, -151.078, -82.5878, 44.8616
5.36749, 30, -28.1358, -18.7683, 37.1768, -150.956, -82.454, 44.7509
5.37586, 30, -28.1146, -18.9682, 37.3356, -150.834, -82.3203, 44.6412
5.38367, 31, -28.0932, -19.1692, 37.4952, -150.711, -82.1859, 44.5334
5.39251, 31, -28.0718, -19.3703, 37.6548, -150.587, -82.0519, 44.4268
5.40151, 31, -28.0506, -19.5713, 37.8141, -150.463, -81.9175, 44.3218
5.40748, 31, -28.0293, -19.7726, 37.9738, -150.338, -81.7833, 44.2187
5.41555, 31, -28.0079, -19.9742, 38.1342, -150.212, -81.6489, 44.1169
5.42348, 31, -27.9864, -20.1753, 38.2945, -150.086, -81.5144, 44.0171
5.43165, 32, -27.9648, -20.3762, 38.4543, -149.96, -81.3802, 43.919
5.43956, 32, -27.9428, -20.5778, 38.614, -149.833, -81.246, 43.8234
5.44749, 32, -27.9205, -20.7795, 38.7741, -149.706, -81.1121, 43.7299
5.45566, 32, -27.8981, -20.9805, 38.9341, -149.579, -80.9781, 43.6393
5.46454, 32, -27.8753, -21.1814, 39.0933, -149.451, -80.8448, 43.5513
5.47159, 33, -27.8523, -21.3824, 39.252, -149.324, -80.7117, 43.4665
5.47957, 33, -27.8289, -21.5828, 39.411, -149.196, -80.5793, 43.3846
5.48765, 33, -27.8051, -21.7821, 39.5696, -149.068, -80.447, 43.3058
5.49559, 33, -27.7806, -21.9813, 39.7273, -148.941, -80.3155, 43.2303
5.50385, 33, -27.7558, -22.1803, 39.8843, -148.813, -80.184, 43.1578
5.5115, 34, -27.7304, -22.3784, 40.0411, -148.686, -80.0531, 43.0893
5.51955, 34, -27.7046, -22.5755, 40.1978, -148.558, -79.9225, 43.0235
5.52792, 34, -27.6784, -22.7724, 40.3537, -148.43, -79.7918, 42.9607
5.53672, 34, -27.6517, -22.9691, 40.5089, -148.303, -79.6612, 42.9019
5.54377, 34, -27.6245, -23.1649, 40.6641, -148.175, -79.5305, 42.8458
5.55168, 35, -27.5969, -23.3604, 40.8193, -148.046, -79.3999, 42.7927
5.55982, 35, -27.5693, -23.5563, 40.9741, -147.918, -79.2691, 42.7437
5.56776, 35, -27.5413, -23.752, 41.1282, -147.789, -79.1389, 42.6981
5.57688, 35, -27.513, -23.947, 41.2823, -147.659, -79.0085, 42.6555
5.58494, 35, -27.4845, -24.1417, 41.4365, -147.529, -78.8787, 42.6161
5.59206, 36, -27.4554, -24.3365, 41.5905, -147.399, -78.7487, 42.5808
5.60013, 36, -27.4261, -24.5308, 41.7437, -147.268, -78.6192, 42.5498
5.60835, 36, -27.3965, -24.724, 41.8963, -147.137, -78.4903, 42.523
5.62065, 36, -27.3511, -25.0136, 42.1249, -146.941, -78.2974, 42.4907
5.6242, 36, -27.3356, -25.1101, 42.2007, -146.876, -78.2335, 42.4821
5.63213, 37, -27.3199, -25.2063, 42.2762, -146.81, -78.1695, 42.4747
5.63948, 37, -27.2878, -25.3976, 42.4263, -146.68, -78.042, 42.4633
5.64753, 37, -27.2549, -25.5878, 42.5755, -146.55, -77.915, 42.4568
5.65704, 37, -27.2213, -25.7776, 42.724, -146.42, -77.7252, 42.4535
5.66346, 37, -27.1868, -25.9663, 42.8714, -146.291, -77.6622, 42.454
5.67151, 37, -27.1513, -26.1531, 43.0175, -146.163, -77.5364, 42.4598
5.67948, 38, -27.1151, -26.3387, 43.1624, -146.036, -77.4114, 42.472
5.68758, 38, -27.0781, -26.5238, 43.3065, -145.908, -77.2866, 42.4894
5.69551, 38, -27.0403, -26.7076, 43.45, -145.781, -77.1625, 42.5123
5.70376, 38, -27.0017, -26.8899, 43.5926, -145.654, -77.0388, 42.5407
5.71161, 38, -26.9623, -27.0713, 43.7341, -145.527, -76.9155, 42.5749
5.72187, 39, -26.9018, -27.3427, 43.9448, -145.338, -76.7312, 42.6379
5.72948, 39, -26.8605, -27.5223, 44.0842, -145.212, -76.6086, 42.687
5.73798, 39, -26.8182, -27.7005, 44.2226, -145.086, -76.4864, 42.7416
5.74347, 39, -26.7968, -27.7894, 44.2914, -145.023, -76.4251, 42.7714
5.75227, 39, -26.7534, -27.9671, 44.4281, -144.897, -76.3029, 42.8362
5.75948, 40, -26.709, -28.1437, 44.5637, -144.773, -76.1808, 42.9063
5.76749, 40, -26.6635, -28.3186, 44.6982, -144.648, -76.0589, 42.9833
5.77979, 40, -26.5935, -28.5784, 44.8977, -144.463, -75.8768, 43.1104
5.78361, 40, -26.5697, -28.6646, 44.9636, -144.402, -75.8161, 43.1561
5.79152, 40, -26.5213, -28.8359, 45.0943, -144.28, -75.6957, 43.2528
5.79948, 41, -26.4718, -29.0053, 45.2237, -144.159, -75.5755, 43.3555
5.80756, 41, -26.4213, -29.1731, 45.3518, -144.038, -75.4556, 43.4655
5.81554, 41, -26.3696, -29.3398, 45.4787, -143.918, -75.3362, 43.582
5.82348, 41, -26.3165, -29.5053, 45.6041, -143.8, -75.2171, 43.7055
5.8317, 41, -26.2623, -29.6687, 45.728, -143.682, -75.0988, 43.8364
5.84052, 42, -26.2067, -29.83, 45.8499, -143.566, -74.9808, 43.9745
5.84749, 42, -26.1495, -29.9897, 45.97, -143.451, -74.8632, 44.12
5.85558, 42, -26.0906, -30.1475, 46.0879, -143.338, -74.7465, 44.2725
5.86352, 42, -26.03, -30.3031, 46.2037, -143.227, -74.63, 44.4323
5.87147, 42, -25.9679, -30.4562, 46.3173, -143.118, -74.5142, 44.5991
5.87971, 43, -25.904, -30.607, 46.4286, -143.011, -74.399, 44.7732
5.88852, 43, -25.8384, -30.7556, 46.5378, -142.906, -74.284, 44.9551
5.89646, 43, -25.771, -30.902, 46.6449, -142.802, -74.1696, 45.1445
5.90462, 43, -25.7022, -31.0461, 46.75, -142.701, -74.0553, 45.3416
5.9123, 43, -25.6317, -31.1879, 46.8533, -142.601, -73.9418, 45.5464
5.91949, 43, -25.5597, -31.3277, 46.9547, -142.503, -73.8287, 45.7591
5.92964, 44, -25.4861, -31.4653, 47.0538, -142.407, -73.7162, 45.9796
5.93561, 44, -25.4106, -31.6009, 47.1505, -142.313, -73.6045, 46.2083
5.94848, 44, -25.2941, -31.7998, 47.2911, -142.177, -73.4377, 46.5663
5.95147, 44, -25.2544, -31.8647, 47.3367, -142.133, -73.3826, 46.6897
5.95951, 44, -25.1736, -31.9925, 47.4262, -142.047, -73.2728, 46.9427
5.96781, 45, -25.0908, -32.1177, 47.5133, -141.964, -73.1633, 47.2045
5.97556, 45, -25.0059, -32.24, 47.5979, -141.883, -73.0545, 47.4746
5.98385, 45, -24.919, -32.3595, 47.6795, -141.805, -72.9461, 47.7527
5.99157, 45, -24.8298, -32.4757, 47.758, -141.731, -72.8381, 48.0389
5.99958, 45, -24.7382, -32.5887, 47.8335, -141.659, -72.7308, 48.3339
6.00765, 46, -24.6443, -32.6983, 47.906, -141.591, -72.6239, 48.6375
6.01548, 46, -24.5479, -32.8045, 47.9756, -141.525, -72.518, 48.9491
6.0237, 46, -24.4491, -32.9073, 48.0421, -141.465, -72.4129, 49.2689
6.03192, 46, -24.3482, -33.0062, 48.1054, -141.407, -72.3085, 49.5975
6.04008, 46, -24.2449, -33.1015, 48.1651, -141.354, -72.2057, 49.9341
6.04758, 47, -24.1392, -33.193, 48.2214, -141.305, -72.1036, 50.2786
6.05572, 47, -24.0311, -33.2804, 48.2741, -141.259, -72.0026, 50.6317
6.06384, 47, -23.9204, -33.3639, 48.3231, -141.218, -71.9031, 50.9931
6.07185, 47, -23.807, -33.4432, 48.3683, -141.182, -71.8045, 51.3629
6.08028, 47, -23.6908, -33.5184, 48.4096, -141.15, -71.707, 51.7417
6.08829, 48, -23.5719, -33.5891, 48.4469, -141.123, -71.6114, 52.1291
6.0961, 48, -23.4504, -33.6554, 48.48, -141.1, -71.517, 52.5255
6.10409, 48, -23.3264, -33.7169, 48.5091, -141.082, -71.4242, 52.9317
6.1121, 48, -23.1998, -33.7735, 48.534, -141.069, -71.3335, 53.3469
6.12004, 48, -23.0704, -33.825, 48.5543, -141.062, -71.2446, 53.7713
6.12829, 49, -22.9381, -33.8713, 48.5703, -141.059, -71.1575, 54.2042
6.13866, 49, -22.8029, -33.9122, 48.5818, -141.06, -71.0725, 54.6444
6.14349, 49, -22.7341, -33.9305, 48.5857, -141.063, -71.031, 54.8675
6.15386, 49, -22.5236, -33.9771, 48.5906, -141.082, -70.9092, 55.5479
6.16032, 49, -22.4519, -33.9897, 48.5901, -141.092, -70.8697, 56.011
6.16863, 50, -22.2329, -34.0186, 48.5807, -141.129, -70.7555, 56.4812
6.17548, 50, -22.1586, -34.0251, 48.5751, -141.145, -70.7189, 56.7186
6.18353, 50, -22.0081, -34.0334, 48.56, -141.18, -70.6475, 57.2
6.19149, 50, -21.8546, -34.0357, 48.5396, -141.221, -70.5797, 57.6892
6.19956, 50, -21.698, -34.032, 48.5137, -141.269, -70.5145, 58.1858
6.2076, 51, -21.5384, -34.0215, 48.4822, -141.323, -70.4539, 58.6892
6.21545, 51, -21.376, -34.0042, 48.4454, -141.384, -70.3959, 59.1987
6.22497, 51, -21.1272, -33.9653, 48.3798, -141.486, -70.3168, 59.9748
6.23926, 51, -20.8728, -33.9104, 48.3016, -141.602, -70.2454, 60.7643
6.24234, 51, -20.7867, -33.8884, 48.2727, -141.644, -70.2237, 61.0301
6.24743, 52, -20.6999, -33.8645, 48.2423, -141.688, -70.2031, 61.2973
6.25896, 52, -20.4356, -33.7809, 48.142, -141.828, -70.1489, 62.1093
6.26524, 52, -20.2559, -33.7153, 48.0677, -141.929, -70.1181, 62.6591
6.27144, 52, -20.165, -33.6794, 48.0282, -141.982, -70.1045, 62.9364
6.27952, 52, -19.9811, -33.6014, 47.9445, -142.093, -70.0811, 63.4949
6.28849, 53, -19.7948, -33.5151, 47.8545, -142.211, -70.0631, 64.06
6.29546, 53, -19.6063, -33.4201, 47.7584, -142.334, -70.0507, 64.6306
6.30358, 53, -19.416, -33.317, 47.6563, -142.464, -70.0437, 65.2061
6.31161, 53, -19.2237, -33.2057, 47.5483, -142.599, -70.0416, 65.7848
6.31944, 53, -19.0295, -33.0862, 47.4343, -142.74, -70.0445, 66.3674
6.32751, 53, -18.8338, -32.9584, 47.3145, -142.886, -70.0536, 66.9526
6.33568, 54, -18.6362, -32.8224, 47.1888, -143.036, -70.069, 67.5393
6.34598, 54, -18.3363, -32.6026, 46.9897, -143.27, -70.1047, 68.421
6.35146, 54, -18.2354, -32.5253, 46.9206, -143.351, -70.1199, 68.7157
6.36001, 54, -18.0325, -32.3645, 46.7781, -143.515, -70.1548, 69.3062
6.37015, 54, -17.7262, -32.1065, 46.553, -143.769, -70.2197, 70.195
6.37645, 55, -17.6236, -32.0158, 46.4748, -143.856, -70.2455, 70.4928
6.38595, 55, -17.4175, -31.8275, 46.3136, -144.034, -70.3026, 71.0919
6.39146, 55, -17.2098, -31.6299, 46.1459, -144.217, -70.3674, 71.6955
6.39953, 55, -17.0004, -31.4222, 45.9705, -144.405, -70.4417, 72.3031
6.40755, 55, -16.7892, -31.2035, 45.7875, -144.598, -70.5243, 72.9161
6.41919, 56, -16.5763, -30.9745, 45.5979, -144.796, -70.6659, 73.8447
6.42445, 56, -16.362, -30.7348, 45.4011, -144.999, -70.7176, 74.1559
6.43146, 56, -16.1469, -30.4838, 45.1963, -145.205, -70.8281, 74.7803
6.4396, 56, -15.9318, -30.2225, 44.985, -145.415, -70.9481, 75.4081
6.44753, 56, -15.7168, -29.9505, 44.7677, -145.629, -71.0773, 76.0383
6.45547, 57, -15.5008, -29.6676, 44.5431, -145.846, -71.2161, 76.6689
6.46355, 57, -15.2837, -29.3749, 44.3121, -146.065, -71.3645, 77.3008
6.4716, 57, -15.0657, -29.0716, 44.0752, -146.286, -71.5229, 77.934
6.47973, 57, -14.8474, -28.7594, 43.8316, -146.51, -71.6905, 78.5664
6.48775, 57, -14.6295, -28.4388, 43.5833, -146.734, -71.8676, 79.1966
6.49657, 58, -14.4124, -28.1104, 43.3307, -146.958, -72.053, 79.8244
6.50428, 58, -14.1964, -27.7746, 43.0738, -147.181, -72.246, 80.4479
6.51154, 58, -13.982, -27.431, 42.8144, -147.403, -72.4463, 81.0643
6.52005, 58, -13.7692, -27.0808, 42.5516, -147.623, -72.6537, 81.6744
6.52845, 58, -13.5577, -26.7238, 42.2863, -147.841, -72.8677, 82.2778
6.53554, 59, -13.3473, -26.3604, 42.0179, -148.056, -73.0885, 82.8753
6.54435, 59, -13.1388, -25.9895, 41.7455, -148.27, -73.3167, 83.4665
6.55191, 59, -12.932, -25.6121, 41.47, -148.482, -73.5529, 84.0538
6.56076, 59, -12.7266, -25.2278, 41.1901, -148.692, -73.7974, 84.6379
6.56862, 59, -12.5221, -24.8363, 40.9064, -148.901, -74.0508, 85.2184
6.57584, 59, -12.3187, -24.4368, 40.6182, -149.109, -74.3132, 85.7952
6.58475, 60, -12.1164, -24.03, 40.3257, -149.314, -74.5848, 86.3696
6.59189, 60, -11.9155, -23.6163, 40.0296, -149.518, -74.8652, 86.9408
6.60032, 60, -11.716, -23.196, 39.7304, -149.72, -75.1542, 87.508
6.60941, 60, -11.5185, -22.7702, 39.4294, -149.918, -75.4511, 88.0698
6.6186, 60, -11.3234, -22.3395, 39.1262, -150.113, -75.7546, 88.6261
6.62405, 61, -11.1305, -21.9053, 38.8224, -150.304, -76.064, 89.175
6.63205, 61, -11.035, -21.6867, 38.6702, -150.49, -76.3781, 89.7151
6.64035, 61, -10.8456, -21.247, 38.2137, -150.671, -76.6961, 90.2449
6.6485, 61, -10.566, -20.5814, 37.9097, -150.846, -77.0181, 90.7654
6.65551, 61, -10.474, -20.3578, 37.7577, -150.932, -77.1804, 91.0221
6.6634, 62, -10.2919, -19.9084, 37.4544, -151.1, -77.5083, 91.5287
6.67145, 62, -10.1126, -19.4558, 37.1503, -151.263, -77.8407, 92.0269
6.67954, 62, -9.93614, -19.0009, 36.8461, -151.421, -78.178, 92.5168
6.6876, 62, -9.7623, -18.5435, 36.5407, -151.575, -78.5207, 93.0002
6.69548, 62, -9.59079, -18.0841, 36.2351, -151.725, -78.8686, 93.4759
6.70352, 63, -9.42144, -17.6233, 35.9291, -151.869, -79.2213, 93.9439
6.71145, 63, -9.25429, -17.1607, 35.6242, -152.009, -79.5783, 94.4026
6.71945, 63, -9.08939, -16.6962, 35.3203, -152.144, -79.9387, 94.8519
6.72902, 63, -8.84696, -15.9961, 34.8667, -152.336, -80.4844, 95.5069
6.74094, 63, -8.68852, -15.5268, 34.5659, -152.457, -81.0358, 96.1387
6.74364, 64, -8.61032, -15.2917, 34.4163, -152.515, -81.0358, 96.1387
6.75152, 64, -8.45569, -14.8207, 34.1187, -152.628, -81.4064, 96.5464
6.76106, 64, -8.30356, -14.3489, 33.8218, -152.788, -81.9676, 97.1381
6.76746, 64, -8.15382, -13.8773, 33.5264, -152.839, -82.1562, 97.3304
6.77645, 64, -8.00647, -13.406, 33.2317, -152.937, -82.5354, 97.7064
6.78379, 65, -7.86163, -12.9359, 32.939, -153.029, -82.917, 98.0708
6.79159, 65, -7.71948, -12.4675, 32.6487, -153.115, -83.2999, 98.4233
6.79945, 65, -7.58013, -12.0004, 32.3614, -153.196, -83.6834, 98.7625
6.81152, 65, -7.377, -11.3021, 31.938, -153.306, -84.2582, 99.245
6.81664, 65, -7.31067, -11.0699, 31.7986, -153.34, -84.4496, 99.399
6.82647, 66, -7.11598, -10.3754, 31.3866, -153.432, -85.023, 99.8388
6.83151, 66, -7.05226, -10.1452, 31.2507, -153.461, -85.2138, 99.978
6.83951, 66, -6.92628, -9.68745, 30.9818, -153.513, -85.5956, 100.245
6.84746, 66, -6.80227, -9.2346, 30.7168, -153.559, -85.9773, 100.497
6.85545, 66, -6.68048, -8.78765, 30.4548, -153.6, -86.3576, 100.733
6.8637, 67, -6.56093, -8.34635, 30.1975, -153.636, -86.736, 100.952
6.87248, 67, -6.44403, -7.91147, 29.9454, -153.665, -87.1109, 101.154
6.87944, 67, -6.33007, -7.48255, 29.6994, -153.689, -87.4812, 101.338
6.88745, 67, -6.21903, -7.05957, 29.4608, -153.707, -87.8459, 101.504
6.89552, 67, -6.11058, -6.64199, 29.2287, -153.72, -88.2048, 101.653
6.90343, 67, -6.00467, -6.23091, 29.0033, -153.727, -88.5578, 101.784
6.91163, 68, -5.90086, -5.82654, 28.7844, -153.73, -88.9063, 101.897
6.92028, 68, -5.79885, -5.42796, 28.5699, -153.729, -89.2512, 101.993
6.92744, 68, -5.69853, -5.03522, 28.3593, -153.723, -89.5939, 102.072
6.93761, 68, -5.59993, -4.64789, 28.1525, -153.712, -89.9354, 102.133
6.94361, 68, -5.50291, -4.2659, 27.9486, -153.697, -90.2759, 102.175
6.95566, 69, -5.36072, -3.69959, 27.6491, -153.666, -90.7857, 102.204
6.95945, 69, -5.31419, -3.51271, 27.5515, -153.654, -90.9555, 102.206
6.96847, 69, -5.22239, -3.14144, 27.3589, -153.625, -91.2943, 102.193
6.97553, 69, -5.13231, -2.77423, 27.1693, -153.592, -91.6324, 102.158
6.9836, 69, -5.04396, -2.40996, 26.9837, -153.556, -91.9693, 102.102
6.9917, 70, -4.95709, -2.04938, 26.8022, -153.516, -92.3048, 102.024
7.00302, 70, -4.82904, -1.51714, 26.5363, -153.448, -92.8052, 101.866
7.00764, 70, -4.78697, -1.34249, 26.4495, -153.424, -92.9711, 101.801
7.01602, 70, -4.70353, -0.996766, 26.2796, -153.374, -93.3012, 101.657
7.02351, 70, -4.62121, -0.656796, 26.1138, -153.319, -93.6288, 101.49
7.03152, 71, -4.53986, -0.323507, 25.9517, -153.262, -93.9532, 101.303
7.04049, 71, -4.45958, 0.00312197, 25.7942, -153.203, -94.2747, 101.094
7.0476, 71, -4.38023, 0.322806, 25.6424, -153.14, -94.5922, 100.865
7.05643, 71, -4.30176, 0.636815, 25.4957, -153.076, -94.9057, 100.615
7.06398, 71, -4.22414, 0.943851, 25.3538, -153.009, -95.2153, 100.346
7.07229, 72, -4.14727, 1.24412, 25.2164, -152.941, -95.5213, 100.056
7.08066, 72, -4.07069, 1.53761, 25.0832, -152.871, -95.8237, 99.7469
7.08792, 72, -3.99444, 1.82421, 24.9537, -152.8, -96.1233, 99.4171
7.09672, 72, -3.91839, 2.10499, 24.8275, -152.728, -96.4203, 99.0666
7.10399, 72, -3.84234, 2.3794, 24.7044, -152.655, -96.7147, 98.6953
7.11271, 72, -3.76646, 2.64766, 24.5844, -152.582, -97.0069, 98.3021
7.12122, 73, -3.69059, 2.91008, 24.4675, -152.508, -97.2964, 97.8868
7.12854, 73, -3.61443, 3.16579, 24.3541, -152.434, -97.5834, 97.4492
7.13851, 73, -3.53797, 3.4151, 24.2445, -152.361, -97.8674, 96.9898
7.14434, 73, -3.46109, 3.65821, 24.1387, -152.289, -98.1481, 96.5097
7.15365, 74, -3.38375, 3.89341, 24.037, -152.218, -98.4248, 96.0094
7.15943, 74, -3.34478, 4.0078, 23.9876, -152.182, -98.5615, 95.7524
7.16739, 74, -3.26642, 4.23053, 23.8918, -152.112, -98.831, 95.2256
7.17543, 74, -3.18741, 4.44483, 23.8001, -152.045, -99.0948, 94.6842
7.18351, 74, -3.10772, 4.64959, 23.7125, -151.979, -99.3521, 94.1303
7.1916, 74, -3.02741, 4.84481, 23.6293, -151.915, -99.6023, 93.5644
7.19945, 75, -2.94615, 5.03073, 23.5503, -151.854, -99.8446, 92.9886
7.20753, 75, -2.8639, 5.20651, 23.4754, -151.797, -100.078, 92.4044
7.21559, 75, -2.78067, 5.37135, 23.4042, -151.741, -100.304, 91.8122
7.22639, 75, -2.65405, 5.5988, 23.3047, -151.665, -100.624, 90.909
7.23143, 75, -2.61141, 5.6692, 23.2735, -151.641, -100.726, 90.6042
7.2419, 76, -2.4821, 5.86338, 23.1862, -151.574, -101.019, 89.6785
7.24747, 76, -2.43851, 5.92241, 23.1592, -151.554, -101.112, 89.3654
7.25702, 76, -2.30662, 6.08172, 23.0851, -151.499, -101.378, 88.4129
7.26608, 76, -2.21764, 6.17249, 23.0412, -151.467, -101.542, 87.7692
7.27165, 76, -2.17281, 6.2131, 23.0212, -151.453, -101.62, 87.4451
7.28047, 77, -2.0825, 6.28448, 22.9849, -151.427, -101.768, 86.7932
7.28744, 77, -1.99136, 6.34264, 22.9539, -151.405, -101.903, 86.1399
7.29544, 77, -1.89926, 6.38731, 22.9286, -151.388, -102.025, 85.4885
7.30345, 77, -1.80631, 6.4177, 22.9089, -151.374, -102.132, 84.8399
7.31146, 77, -1.71252, 6.43397, 22.8952, -151.364, -102.224, 84.1948
7.31957, 78, -1.61791, 6.43584, 22.8874, -151.358, -102.302, 83.5546
7.32842, 78, -1.52256, 6.42262, 22.8849, -151.354, -102.364, 82.9187
7.33545, 78, -1.42665, 6.39406, 22.8881, -151.354, -102.41, 82.2861
7.34343, 78, -1.33039, 6.34987, 22.8973, -151.356, -102.441, 81.658
7.35151, 78, -1.2338, 6.28959, 22.9125, -151.363, -102.456, 81.0352
7.35969, 79, -1.13703, 6.2132, 22.9345, -151.373, -102.455, 80.4178
7.36764, 79, -1.04018, 6.12061, 22.9634, -151.385, -102.436, 79.8069
7.37554, 79, -0.943192, 6.01195, 22.9996, -151.401, -102.4, 79.2044
7.38343, 79, -0.846242, 5.88711, 23.0433, -151.42, -102.346, 78.6118
7.39149, 79, -0.749281, 5.74571, 23.0945, -151.442, -102.274, 78.0283
7.39962, 80, -0.652225, 5.58781, 23.1534, -151.466, -102.185, 77.4549
7.40745, 80, -0.555172, 5.41337, 23.2197, -151.492, -102.077, 76.8926
7.41586, 80, -0.458058, 5.22252, 23.2939, -151.52, -101.95, 76.3408
7.42662, 80, -0.312611, 4.90455, 23.4204, -151.564, -101.725, 75.5307
7.43142, 80, -0.264225, 4.78955, 23.4666, -151.58, -101.641, 75.2654
7.44046, 80, -0.167551, 4.54587, 23.5657, -151.613, -101.458, 74.742
7.44863, 81, -0.0709952, 4.28531, 23.6735, -151.647, -101.256, 74.2287
7.45644, 81, 0.0253837, 4.00783, 23.7904, -151.681, -101.035, 73.7238
7.46692, 81, 0.169549, 3.56, 23.9835, -151.735, -100.666, 72.9844
7.47171, 81, 0.217514, 3.40227, 24.0526, -151.754, -100.534, 72.7425
7.48053, 81, 0.313261, 3.07347, 24.1987, -151.791, -100.255, 72.2665
7.48784, 82, 0.408814, 2.728, 24.3544, -151.828, -99.9564, 71.7999
7.49553, 82, 0.504069, 2.366, 24.5191, -151.866, -99.6389, 71.3426
7.5036, 82, 0.59911, 1.98855, 24.6933, -151.904, -99.3029, 70.8951
7.51153, 82, 0.693964, 1.59456, 24.8773, -151.941, -98.9494, 70.4574
7.51982, 82, 0.788687, 1.18417, 25.0706, -151.977, -98.5783, 70.0303
7.52848, 83, 0.883422, 0.758493, 25.273, -152.012, -98.1909, 69.6132
7.53549, 83, 0.978101, 0.318257, 25.4858, -152.047, -97.7872, 69.2063
7.548, 83, 1.07287, -0.136267, 25.7084, -152.081, -97.3683, 68.8102
7.55189, 83, 1.16774, -0.605441, 25.9392, -152.113, -96.9337, 68.4237
7.55962, 83, 1.26262, -1.08894, 26.1798, -152.143, -96.4842, 68.0472
7.56801, 84, 1.35775, -1.58616, 26.4301, -152.173, -96.0193, 67.6801
7.57644, 84, 1.45309, -2.09694, 26.6903, -152.201, -95.5393, 67.3207
7.58377, 84, 1.54871, -2.62084, 26.9613, -152.228, -95.0442, 66.9691
7.59189, 84, 1.64475, -3.15835, 27.2421, -152.253, -94.533, 66.6246
7.60026, 84, 1.74118, -3.70929, 27.5339, -152.276, -94.0073, 66.2869
7.60834, 85, 1.838, -4.27349, 27.8356, -152.297, -93.4663, 65.9561
7.6162, 85, 1.93494, -4.84968, 28.1477, -152.317, -92.9101, 65.6334
7.62403, 85, 2.03236, -5.4363, 28.4691, -152.335, -92.3404, 65.3184
7.63202, 85, 2.13016, -6.03317, 28.7999, -152.351, -91.7597, 65.0114
7.63995, 85, 2.17921, -6.33496, 28.9686, -152.358, -91.1685, 64.7132
7.6501, 86, 2.32749, -7.25126, 29.4872, -152.374, -90.5676, 64.4249
7.65673, 86, 2.42719, -7.87089, 29.8423, -152.381, -89.9569, 64.1462
7.66338, 86, 2.47746, -8.18289, 30.0226, -152.383, -89.6483, 64.0109
7.67142, 86, 2.57873, -8.81162, 30.3877, -152.386, -89.0254, 63.7486
7.67962, 86, 2.68069, -9.44575, 30.7582, -152.387, -88.398, 63.4977
7.68751, 86, 2.7838, -10.0843, 31.134, -152.385, -87.7661, 63.2585
7.69542, 87, 2.88792, -10.7266, 31.5155, -152.378, -87.1288, 63.0309
7.70347, 87, 2.99273, -11.3718, 31.9015, -152.368, -86.4861, 62.8154
7.71151, 87, 3.09873, -12.02, 32.2921, -152.355, -85.8384, 62.6121
7.72088, 87, 3.2592, -12.9969, 32.887, -152.327, -84.8594, 62.3314
7.7274, 87, 3.31305, -13.3241, 33.0879, -152.315, -84.5309, 62.2441
7.73774, 88, 3.47567, -14.3103, 33.6987, -152.276, -83.5363, 62.0017
7.74342, 88, 3.53015, -14.6406, 33.9049, -152.261, -83.202, 61.9273
7.75467, 88, 3.6943, -15.6333, 34.5317, -152.209, -82.1906, 61.7251
7.76425, 88, 3.80423, -16.296, 34.9559, -152.168, -81.5108, 61.6086
7.76736, 88, 3.85935, -16.6274, 35.1696, -152.146, -81.1696, 61.5559
7.77641, 89, 3.96983, -17.2892, 35.6, -152.098, -80.4857, 61.4635
7.78777, 89, 4.13576, -18.277, 36.249, -152.016, -79.4572, 61.3583
7.79257, 89, 4.19124, -18.6047, 36.4659, -151.986, -79.1134, 61.3326
7.79938, 89, 4.30238, -19.2571, 36.8999, -151.923, -78.4268, 61.2962
7.80741, 89, 4.41354, -19.9038, 37.3325, -151.853, -77.7459, 61.2796
7.81548, 90, 4.52474, -20.5441, 37.7627, -151.78, -77.0697, 61.2835
7.82342, 90, 4.63673, -21.1786, 38.191, -151.7, -76.3967, 61.3119
7.83145, 90, 4.74914, -21.8072, 38.617, -151.615, -75.7283, 61.3639
7.83958, 90, 4.86158, -22.4301, 39.0407, -151.525, -75.0651, 61.4397
7.84845, 90, 4.97404, -23.0477, 39.4628, -151.429, -74.4075, 61.5416
7.85547, 91, 5.08633, -23.6611, 39.8836, -151.327, -73.7523, 61.6693
7.8634, 91, 5.19828, -24.2699, 40.3041, -151.219, -73.0972, 61.8248
7.87145, 91, 5.30953, -24.8728, 40.7247, -151.104, -72.4419, 62.0086
7.87955, 91, 5.41995, -25.4704, 41.1453, -150.982, -71.7844, 62.2219
7.89081, 91, 5.58411, -26.3547, 41.7758, -150.786, -70.7967, 62.5983
7.89548, 92, 5.63865, -26.6461, 41.9858, -150.718, -70.4678, 62.7397
7.9034, 92, 5.74782, -27.2239, 42.4041, -150.577, -69.811, 63.0457
7.91143, 92, 5.85759, -27.7936, 42.8189, -150.43, -69.1566, 63.3828
7.9195, 92, 5.96789, -28.355, 43.2286, -150.279, -68.5052, 63.7511
7.92741, 92, 6.0791, -28.9072, 43.6331, -150.123, -67.8576, 64.1513
7.93543, 92, 6.19156, -29.4487, 44.0311, -149.964, -67.2172, 64.5823
7.94509, 93, 6.3055, -29.9795, 44.4223, -149.802, -66.5825, 65.0458
7.9514, 93, 6.4215, -30.4998, 44.8076, -149.639, -65.9513, 65.5406
7.95949, 93, 6.53987, -31.0113, 45.1873, -149.475, -65.3234, 66.0684
7.96749, 93, 6.66029, -31.5161, 45.562, -149.31, -64.6974, 66.6317
7.97644, 93, 6.7831, -32.0151, 45.9324, -149.145, -64.0717, 67.2346
7.98351, 94, 6.90816, -32.5092, 46.3002, -148.978, -63.4429, 67.8813
7.99151, 94, 7.03545, -32.9985, 46.6659, -148.811, -62.808, 68.5779
8.00003, 94, 7.16466, -33.4807, 47.03, -148.644, -62.1669, 69.3282
8.00853, 94, 7.29633, -33.9553, 47.3916, -148.48, -61.5192, 70.13
8.01553, 94, 7.43149, -34.4225, 47.7484, -148.319, -60.8667, 70.9855
8.02343, 95, 7.57117, -34.8803, 48.0979, -148.166, -60.2153, 71.8929
8.0315, 95, 7.71643, -35.3277, 48.4374, -148.024, -59.5678, 72.842
8.03954, 95, 7.86783, -35.7629, 48.7655, -147.895, -58.9266, 73.8327
8.04755, 95, 8.02594, -36.1827, 49.0797, -147.782, -58.2936, 74.8584
8.05553, 95, 8.19105, -36.5831, 49.3784, -147.686, -57.6694, 75.9185
8.06366, 96, 8.36291, -36.9632, 49.6609, -147.608, -57.0585, 77.0094
8.0717, 96, 8.54123, -37.321, 49.9261, -147.551, -56.4618, 78.1303
8.08029, 96, 8.72493, -37.6548, 50.1748, -147.515, -55.879, 79.2761
8.08784, 96, 8.91366, -37.9629, 50.4051, -147.499, -55.3129, 80.4422
8.09651, 96, 9.10647, -38.2459, 50.6156, -147.503, -54.7655, 81.6207
8.10401, 96, 9.3018, -38.5038, 50.807, -147.529, -54.2397, 82.8109
8.11279, 97, 9.49809, -38.7361, 50.9784, -147.576, -53.7378, 84.0078
8.11998, 97, 9.69406, -38.9434, 51.1289, -147.645, -53.2616, 85.2048
8.12857, 97, 9.88889, -39.1264, 51.2597, -147.732, -52.8134, 86.391
8.1366, 97, 9.98572, -39.2839, 51.3709, -147.835, -52.3945, 87.5617
8.14401, 97, 10.1772, -39.3529, 51.4191, -147.892, -52.1965, 88.7082
8.15286, 97, 10.3652, -39.4721, 51.5014, -148.015, -51.8233, 89.8246
8.15936, 98, 10.5493, -39.5661, 51.5653, -148.149, -51.4811, 90.369
8.16742, 98, 10.7311, -39.6359, 51.6114, -148.292, -51.169, 91.4345
8.17547, 98, 10.9111, -39.683, 51.64, -148.445, -50.885, 92.475
8.18339, 98, 11.0896, -39.7069, 51.6513, -148.609, -50.6251, 93.5049
8.19149, 98, 11.266, -39.7075, 51.646, -148.786, -50.3863, 94.5376
8.19939, 98, 11.4412, -39.6846, 51.6234, -148.976, -50.1661, 95.584
8.20748, 98, 11.6167, -39.6379, 51.5831, -149.179, -49.9651, 96.6525
8.21558, 99, 11.7918, -39.5679, 51.5251, -149.395, -49.7844, 97.7416
8.22339, 99, 11.9655, -39.4753, 51.4486, -149.623, -49.6268, 98.8476
8.23302, 99, 12.2206, -39.2941, 51.2993, -149.981, -49.4408, 100.514
8.23938, 99, 12.3036, -39.2225, 51.2406, -150.102, -49.3938, 101.066
8.24991, 99, 12.5439, -38.9746, 51.0388, -150.468, -49.2989, 102.692
8.25703, 99, 12.6944, -38.7808, 50.8847, -150.71, -49.2745, 103.742
8.26422, 100, 12.7663, -38.6748, 50.8017, -150.829, -49.2741, 104.256
8.27304, 100, 12.9036, -38.4446, 50.6231, -151.064, -49.3212, 105.755
8.27938, 100, 13.0318, -38.1916, 50.4273, -151.293, -49.3523, 106.24
8.28747, 100, 13.1514, -37.9167, 50.2151, -151.516, -49.4382, 107.194
8.29642, 100, 13.263, -37.6209, 49.9853, -151.734, -49.5555, 108.124
8.30346, 100, 13.3664, -37.3022, 49.7371, -151.944, -49.7034, 109.032
8.31347, 101, 13.4617, -36.9597, 49.3338, -152.245, -49.9816, 110.353
8.31938, 101, 13.549, -36.5921, 49.1906, -152.342, -50.0893, 110.781
8.32746, 101, 13.6286, -36.1989, 48.8919, -152.527, -50.3267, 111.622
8.33541, 101, 13.7, -35.7807, 48.5753, -152.703, -50.5941, 112.438
8.34796, 101, 13.7915, -35.1098, 48.0674, -152.948, -51.0537, 113.622
8.35139, 101, 13.8176, -34.875, 47.8894, -153.024, -51.2229, 114.006
8.35949, 102, 13.8632, -34.3886, 47.5208, -153.168, -51.5861, 114.754
8.36739, 102, 13.8993, -33.8787, 47.1351, -153.299, -51.9817, 115.48
8.37545, 102, 13.926, -33.3448, 46.7336, -153.417, -52.4098, 116.182
8.38352, 102, 13.9437, -32.7886, 46.3177, -153.522, -52.8697, 116.857
8.39138, 102, 13.953, -32.2109, 45.8878, -153.613, -53.3595, 117.506
8.39938, 103, 13.9548, -31.6123, 45.4442, -153.69, -53.8762, 118.129
8.40747, 103, 13.9496, -30.9945, 44.988, -153.754, -54.4179, 118.726
8.41539, 103, 13.9381, -30.3596, 44.5204, -153.804, -54.9817, 119.297
8.42338, 103, 13.9208, -29.7093, 44.0427, -153.842, -55.5646, 119.843
8.43146, 103, 13.8981, -29.0444, 43.5567, -153.868, -56.1653, 120.363
8.43939, 103, 13.8705, -28.3667, 43.0637, -153.882, -56.7818, 120.857
8.44743, 104, 13.8386, -27.6784, 42.5653, -153.887, -57.4111, 121.327
8.45545, 104, 13.8028, -26.981, 42.0629, -153.881, -58.0537, 121.773
8.46339, 104, 13.7632, -26.2758, 41.5573, -153.865, -58.7109, 122.199
8.4715, 104, 13.7205, -25.5648, 41.0495, -153.841, -59.3806, 122.605
8.47948, 104, 13.6757, -24.8504, 40.5404, -153.808, -60.0614, 122.995
8.4875, 104, 13.6292, -24.1331, 40.0305, -153.768, -60.7494, 123.371
8.49556, 104, 13.5809, -23.4131, 39.521, -153.721, -61.443, 123.737
8.5035, 104, 13.5311, -22.6914, 39.0123, -153.67, -62.1421, 124.095
8.5115, 104, 13.4804, -21.9687, 38.5048, -153.612, -62.8439, 124.449
8.51956, 104, 13.429, -21.2454, 37.999, -153.551, -63.5475, 124.8
8.52743, 104, 13.377, -20.5224, 37.4944, -153.485, -64.2516, 125.15
8.53547, 104, 13.3247, -19.7993, 36.9916, -153.415, -64.9562, 125.497
8.54353, 104, 13.2723, -19.0759, 36.4908, -153.341, -65.6628, 125.843
8.55161, 104, 13.2197, -18.3522, 35.9917, -153.263, -66.37, 126.189
8.5595, 104, 13.1675, -17.6284, 35.4953, -153.182, -67.0785, 126.534
8.56764, 104, 13.1154, -16.9039, 35.001, -153.096, -67.7865, 126.878
8.5757, 104, 13.0637, -16.1798, 34.5086, -153.006, -68.4939, 127.222
8.58383, 104, 13.0125, -15.4554, 34.0185, -152.912, -69.2039, 127.566
8.59182, 104, 12.9614, -14.7304, 33.5304, -152.815, -69.9154, 127.909
8.60067, 104, 12.9106, -14.0049, 33.045, -152.713, -70.6263, 128.252
8.60789, 104, 12.8602, -13.2795, 32.5622, -152.608, -71.3362, 128.596
8.6165, 104, 12.8101, -12.5538, 32.0819, -152.499, -72.0475, 128.94
8.6248, 104, 12.7603, -11.8286, 31.6044, -152.386, -72.7604, 129.284
8.63213, 104, 12.711, -11.1036, 31.1294, -152.27, -73.473, 129.629
8.64002, 104, 12.6621, -10.3783, 30.6568, -152.149, -74.1862, 129.975
8.64867, 104, 12.6378, -10.0155, 30.4219, -152.087, -74.5427, 130.148
8.656, 104, 12.5893, -9.28987, 29.954, -151.96, -75.2557, 130.668
8.66343, 104, 12.5413, -8.56404, 29.4892, -151.829, -75.9698, 130.842
8.67138, 104, 12.4939, -7.838, 29.0277, -151.695, -76.6844, 131.191
8.67938, 104, 12.4468, -7.11251, 28.5694, -151.556, -77.4002, 131.54
8.68744, 104, 12.4005, -6.38721, 28.1142, -151.412, -78.1156, 131.892
8.69541, 104, 12.3547, -5.66248, 27.6627, -151.265, -78.8292, 132.244
8.70337, 104, 12.3094, -4.93852, 27.2147, -151.114, -79.5441, 132.597
8.71271, 104, 12.2432, -3.85508, 26.5508, -150.879, -80.6177, 133.129
8.71941, 104, 12.2217, -3.49533, 26.3321, -150.799, -80.9749, 133.307
8.72897, 104, 12.1586, -2.42417, 25.6836, -150.552, -82.0401, 133.842
8.73718, 104, 12.1183, -1.71807, 25.259, -150.383, -82.746, 134.199
8.74337, 104, 12.0985, -1.36781, 25.0498, -150.298, -83.0973, 134.376
8.75379, 104, 12.0407, -0.330753, 24.4351, -150.038, -84.1385, 134.906
8.75937, 104, 12.0219, 0.009823, 24.2352, -149.95, -84.4804, 135.081
8.76738, 104, 11.985, 0.682626, 23.8436, -149.775, -85.1539, 135.427
8.77544, 104, 11.9493, 1.34296, 23.4646, -149.599, -85.8129, 135.769
8.78443, 104, 11.9149, 1.99047, 23.0978, -149.422, -86.4583, 136.105
8.79238, 104, 11.8816, 2.62279, 22.7436, -149.247, -87.0879, 136.434
8.79945, 104, 11.8491, 3.23879, 22.4019, -149.072, -87.7011, 136.757
8.80843, 104, 11.8182, 3.8384, 22.0736, -148.898, -88.2983, 137.073
8.81537, 104, 11.7885, 4.42112, 21.7579, -148.725, -88.8777, 137.383
8.82345, 104, 11.7599, 4.98744, 21.4546, -148.554, -89.4397, 137.685
8.83138, 104, 11.7328, 5.5365, 21.1627, -148.384, -89.9864, 137.981
8.8394, 104, 11.7067, 6.06835, 20.883, -148.217, -90.5171, 138.269
8.84741, 104, 11.6818, 6.58355, 20.6148, -148.052, -91.0313, 138.55
8.85537, 104, 11.658, 7.08174, 20.3582, -147.889, -91.5289, 138.824
8.86347, 104, 11.6355, 7.56299, 20.1133, -147.729, -92.0092, 139.09
8.87144, 104, 11.6141, 8.0279, 19.8789, -147.572, -92.4725, 139.349
8.87941, 104, 11.5938, 8.47596, 19.6557, -147.418, -92.9195, 139.6
8.88746, 104, 11.5747, 8.9066, 19.4435, -147.267, -93.3498, 139.843
8.89541, 104, 11.5567, 9.31986, 19.2414, -147.12, -93.7633, 140.078
8.90337, 104, 11.5398, 9.71582, 19.0496, -146.978, -94.1597, 140.304
8.91141, 104, 11.524, 10.0937, 18.8687, -146.839, -94.5387, 140.521
8.91941, 104, 11.5093, 10.4526, 18.6983, -146.706, -94.8994, 140.729
8.92738, 104, 11.4956, 10.7923, 18.538, -146.578, -95.2414, 140.928
8.93545, 104, 11.4829, 11.1127, 18.3887, -146.456, -95.5637, 141.115
8.94337, 104, 11.4712, 11.4126, 18.2502, -146.34, -95.8657, 141.292
8.95138, 104, 11.4606, 11.692, 18.1222, -146.232, -96.1469, 141.457
8.95945, 104, 11.451, 11.9503, 18.0047, -146.13, -96.4067, 141.61
8.96738, 104, 11.4421, 12.1872, 17.8979, -146.037, -96.6448, 141.751
8.9754, 104, 11.4339, 12.4033, 17.8016, -145.951, -96.861, 141.879
8.98353, 104, 11.4266, 12.5985, 17.7156, -145.873, -97.0551, 141.995
8.99151, 104, 11.42, 12.7722, 17.6399, -145.804, -97.2271, 142.097
8.99948, 104, 11.4142, 12.9253, 17.5742, -145.744, -97.3773, 142.187
9.00755, 104, 11.4089, 13.0587, 17.5181, -145.692, -97.5056, 142.264
9.01548, 104, 11.404, 13.1733, 17.4713, -145.648, -97.6132, 142.328
9.02338, 104, 11.3996, 13.2695, 17.4332, -145.613, -97.7005, 142.38
9.03158, 104, 11.3957, 13.3491, 17.4028, -145.585, -97.7699, 142.422
9.0394, 104, 11.392, 13.414, 17.3798, -145.563, -97.8221, 142.455
9.04745, 104, 11.3887, 13.466, 17.3629, -145.546, -97.8604, 142.478
9.05568, 104, 11.3859, 13.5063, 17.351, -145.535, -97.8874, 142.494
9.06358, 104, 11.3837, 13.5365, 17.3432, -145.528, -97.9057, 142.504
9.07197, 104, 11.3819, 13.559, 17.3383, -145.523, -97.9169, 142.51
9.07972, 104, 11.3805, 13.5751, 17.3354, -145.521, -97.9233, 142.513
9.08773, 104, 11.3794, 13.5861, 17.3338, -145.519, -97.9266, 142.515
9.0961, 104, 11.3786, 13.5935, 17.3331, -145.518, -97.9282, 142.516
9.10443, 105, 11.378, 13.5984, 17.3327, -145.518, -97.9289, 142.516
9.11192, 105, 11.3776, 13.6016, 17.3325, -145.518, -97.9292, 142.516
9.12048, 105, 11.3772, 13.6039, 17.3324, -145.518, -97.9294, 142.516
9.12798, 105, 11.377, 13.6059, 17.3324, -145.518, -97.9294, 142.516
9.13657, 105, 11.3768, 13.6076, 17.3324, -145.518, -97.9295, 142.516
9.14419, 105, 11.3767, 13.6091, 17.3324, -145.518, -97.9295, 142.516
9.15201, 105, 11.3766, 13.6098, 17.3324, -145.518, -97.9294, 142.516
9.15936, 105, 11.3765, 13.611, 17.3324, -145.518, -97.9294, 142.516
9.16736, 105, 11.3764, 13.612, 17.3324, -145.518, -97.9293, 142.516
9.1754, 105, 11.3764, 13.6129, 17.3324, -145.518, -97.9292, 142.516
9.18348, 105, 11.3763, 13.6135, 17.3324, -145.518, -97.929, 142.516
9.19137, 105, 11.3763, 13.614, 17.3325, -145.518, -97.9289, 142.516
9.20044, 105, 11.3763, 13.6144, 17.3325, -145.518, -97.9287, 142.516
9.20737, 105, 11.3763, 13.6145, 17.3325, -145.518, -97.9285, 142.516
9.21539, 105, 11.3763, 13.6146, 17.3326, -145.518, -97.9284, 142.516
9.22539, 105, 11.3763, 13.6147, 17.3326, -145.518, -97.9282, 142.517
