hehonglu123/Motion-Primitive-Planning/ILC/recorded_data/realrobot/from_NX/iteration_0/run_2.csv
timestamp, cmd_num, J1, J2, J3, J4, J5, J6
0.00036, -1, 39.632, 32.4461, 11.8315, 12.5469, 113.714, -48.8709
0.003647, -1, 39.632, 32.4461, 11.8315, 12.5469, 113.714, -48.8709
0.027433, -1, 39.632, 32.4461, 11.8315, 12.5469, 113.714, -48.8708
0.02884, -1, 39.632, 32.4461, 11.8315, 12.5469, 113.714, -48.8708
0.030101, -1, 39.632, 32.4461, 11.8315, 12.5469, 113.714, -48.8708
0.032439, -1, 39.632, 32.4461, 11.8315, 12.547, 113.714, -48.8708
0.03949, -1, 39.6319, 32.4461, 11.8315, 12.5469, 113.714, -48.8708
0.047558, -1, 39.6318, 32.4461, 11.8315, 12.5469, 113.714, -48.8708
0.055603, -1, 39.6306, 32.4459, 11.8315, 12.5469, 113.714, -48.8709
0.064622, -1, 39.6269, 32.445, 11.8314, 12.5469, 113.714, -48.8709
0.200709, -1, 38.1657, 31.6968, 12.1239, 12.5597, 112.942, -50.8406
0.202145, -1, 38.1657, 31.6968, 12.1239, 12.5597, 112.942, -50.8406
0.203408, -1, 38.1657, 31.6968, 12.1239, 12.5597, 112.942, -50.8406
0.205405, -1, 38.0759, 31.6499, 12.1434, 12.561, 112.891, -50.9677
0.20669, -1, 38.0759, 31.6499, 12.1434, 12.561, 112.891, -50.9677
0.209475, -1, 38.0759, 31.6499, 12.1434, 12.561, 112.891, -51.0956
0.210795, -1, 37.9847, 31.6025, 12.1629, 12.5622, 112.841, -51.0956
0.213321, -1, 37.8924, 31.5546, 12.1823, 12.5634, 112.79, -51.2242
0.214551, -1, 37.8924, 31.5546, 12.1823, 12.5634, 112.79, -51.2242
0.215866, -1, 37.8924, 31.5546, 12.1823, 12.5634, 112.79, -51.2242
0.219099, -1, 37.799, 31.5063, 12.2017, 12.5645, 112.739, -51.3533
0.221235, -1, 37.7048, 31.4577, 12.2211, 12.5657, 112.688, -51.4827
0.222553, -1, 37.7048, 31.4577, 12.2211, 12.5657, 112.688, -51.4827
0.223746, -1, 37.7048, 31.4577, 12.2211, 12.5657, 112.688, -51.4827
0.225812, -1, 37.61, 31.4089, 12.2405, 12.567, 112.637, -51.6123
0.227957, -1, 37.61, 31.4089, 12.2405, 12.567, 112.637, -51.6123
0.229991, -1, 37.5146, 31.36, 12.2599, 12.5682, 112.586, -51.742
0.2313, -1, 37.5146, 31.36, 12.2599, 12.5682, 112.586, -51.742
0.233993, -1, 37.419, 31.3111, 12.2792, 12.5695, 112.534, -51.8717
0.235243, -1, 37.419, 31.3111, 12.2792, 12.5695, 112.534, -51.8717
0.237417, -1, 37.3231, 31.2621, 12.2986, 12.5707, 112.483, -52.0016
0.239105, -1, 37.3231, 31.2621, 12.2986, 12.5707, 112.483, -52.0016
0.251137, -1, 37.0349, 31.1154, 12.3569, 12.5744, 112.329, -52.3911
0.256094, -1, 36.9388, 31.0665, 12.3762, 12.5758, 112.277, -52.5212
0.26321, -1, 36.747, 30.9688, 12.415, 12.5783, 112.174, -52.7815
0.271139, -1, 36.5553, 30.8711, 12.4538, 12.5809, 112.071, -53.0417
0.279206, -1, 36.3637, 30.7734, 12.4927, 12.5835, 111.969, -53.302
0.28714, -1, 36.1722, 30.6756, 12.5315, 12.5862, 111.866, -53.5625
0.295146, -1, 35.9808, 30.5777, 12.5704, 12.5887, 111.763, -53.8231
0.303202, -1, 35.7893, 30.4797, 12.6094, 12.5913, 111.66, -54.0837
0.311148, -1, 35.5975, 30.3817, 12.6483, 12.5938, 111.557, -54.3438
0.319137, -1, 35.4055, 30.2835, 12.6871, 12.5965, 111.454, -54.6041
0.327152, -1, 35.2131, 30.1852, 12.7258, 12.5992, 111.351, -54.8647
0.335133, -1, 35.0207, 30.0869, 12.7647, 12.6017, 111.248, -55.1255
0.343205, -1, 34.8284, 29.9885, 12.8036, 12.6044, 111.144, -55.386
0.351136, -1, 34.636, 29.8899, 12.8425, 12.6069, 111.041, -55.6467
0.359133, -1, 34.4437, 29.7915, 12.8814, 12.6094, 110.939, -55.9074
0.367264, -1, 34.2517, 29.6932, 12.9203, 12.612, 110.835, -56.1685
0.375156, -1, 34.0597, 29.5948, 12.9592, 12.6146, 110.732, -56.4293
0.38314, -1, 33.868, 29.4965, 12.9982, 12.6173, 110.629, -56.6899
0.391201, -1, 33.6763, 29.3982, 13.037, 12.62, 110.526, -56.9508
0.399174, -1, 33.4844, 29.2998, 13.0759, 12.6226, 110.423, -57.2118
0.407152, -1, 33.292, 29.2014, 13.1149, 12.6252, 110.32, -57.473
0.415202, -1, 33.0993, 29.1027, 13.1537, 12.6279, 110.217, -57.7339
0.423141, -1, 32.9064, 29.0042, 13.1926, 12.6305, 110.114, -57.9951
0.431237, -1, 32.7133, 28.9057, 13.2315, 12.6332, 110.011, -58.2562
0.439233, -1, 32.5198, 28.807, 13.2704, 12.6359, 109.908, -58.5175
0.447235, -1, 32.326, 28.7083, 13.3093, 12.6386, 109.805, -58.7785
0.455288, -1, 32.1319, 28.6096, 13.3482, 12.6413, 109.702, -59.0394
0.463296, -1, 31.938, 28.5108, 13.3871, 12.6441, 109.599, -59.3007
0.471244, -1, 31.7442, 28.412, 13.426, 12.6467, 109.496, -59.5621
0.479311, -1, 31.5506, 28.3133, 13.4651, 12.6496, 109.392, -59.8233
0.487144, -1, 31.3573, 28.2147, 13.504, 12.6523, 109.289, -60.0847
0.495167, -1, 31.1646, 28.1162, 13.543, 12.6552, 109.186, -60.346
0.503298, -1, 30.9722, 28.0176, 13.5821, 12.658, 109.083, -60.6075
0.51122, -1, 30.7801, 27.9191, 13.621, 12.6608, 108.98, -60.8689
0.650342, -1, 27.496, 26.2397, 14.2836, 12.7045, 107.224, -65.3166
0.652282, -1, 27.4, 26.1902, 14.3031, 12.7057, 107.173, -65.4474
0.65363, -1, 27.4, 26.1902, 14.3031, 12.7057, 107.173, -65.4474
0.656499, -1, 27.304, 26.1407, 14.3227, 12.7068, 107.121, -65.5781
0.657937, -1, 27.304, 26.1407, 14.3227, 12.7068, 107.121, -65.5781
0.659136, -1, 27.304, 26.1407, 14.3227, 12.7068, 107.121, -65.5781
0.66123, -1, 27.2079, 26.0912, 14.3422, 12.708, 107.069, -65.709
0.664552, -1, 27.1117, 26.0417, 14.3616, 12.7091, 107.017, -65.8399
0.665995, -1, 27.1117, 26.0417, 14.3616, 12.7091, 107.017, -65.8399
0.667201, -1, 27.1117, 26.0417, 14.3616, 12.7091, 107.017, -65.8399
0.669278, -1, 27.0154, 25.9923, 14.381, 12.7103, 106.966, -65.9707
0.670484, -1, 27.0154, 25.9923, 14.381, 12.7103, 106.966, -65.9707
0.67322, -1, 27.0154, 25.9923, 14.381, 12.7114, 106.914, -66.1016
0.674529, -1, 26.9191, 25.9429, 14.4005, 12.7114, 106.914, -66.1016
0.676416, -1, 26.9191, 25.9429, 14.42, 12.7126, 106.862, -66.2326
0.680629, -1, 26.7263, 25.844, 14.4395, 12.7137, 106.811, -66.3634
0.682131, -1, 26.7263, 25.844, 14.4395, 12.7137, 106.811, -66.3634
0.683393, -1, 26.7263, 25.844, 14.4395, 12.7137, 106.811, -66.3634
0.685479, -1, 26.6296, 25.7946, 14.459, 12.7149, 106.759, -66.4942
0.686668, -1, 26.6296, 25.7946, 14.459, 12.7149, 106.759, -66.4942
0.688566, -1, 26.5329, 25.7452, 14.4784, 12.716, 106.707, -66.6251
0.689988, -1, 26.5329, 25.7452, 14.4784, 12.716, 106.707, -66.6251
0.698126, -1, 26.3392, 25.6464, 14.5172, 12.7183, 106.604, -66.8869
0.703298, -1, 26.2422, 25.5969, 14.5367, 12.7194, 106.553, -67.0179
0.712743, -1, 25.9509, 25.4486, 14.5952, 12.7228, 106.398, -67.4107
0.721639, -1, 25.7565, 25.3497, 14.6342, 12.7251, 106.295, -67.6722
0.727212, -1, 25.6595, 25.3004, 14.6537, 12.7262, 106.243, -67.8029
0.736853, -1, 25.4655, 25.2016, 14.7121, 12.7296, 106.088, -68.1954
0.744156, -1, 25.2718, 25.1029, 14.7316, 12.7308, 106.037, -68.3264
0.751205, -1, 25.0784, 25.0041, 14.7707, 12.7331, 105.934, -68.5883
0.760163, -1, 24.8851, 24.9053, 14.8097, 12.7355, 105.83, -68.8498
0.768111, -1, 24.6923, 24.8065, 14.8486, 12.7379, 105.727, -69.1113
0.775206, -1, 24.4999, 24.7076, 14.8876, 12.7403, 105.624, -69.373
0.783174, -1, 24.3075, 24.6087, 14.9266, 12.7427, 105.52, -69.6349
0.791123, -1, 24.115, 24.5098, 14.9656, 12.7451, 105.417, -69.8964
0.799147, -1, 23.9223, 24.411, 15.0046, 12.7474, 105.314, -70.1578
0.807159, -1, 23.7294, 24.3121, 15.0435, 12.7499, 105.21, -70.4194
0.815176, -1, 23.5363, 24.2133, 15.0824, 12.7522, 105.107, -70.6814
0.823183, -1, 23.3428, 24.1145, 15.1214, 12.7546, 105.004, -70.943
0.831119, -1, 23.1489, 24.0156, 15.1602, 12.757, 104.9, -71.2048
0.839195, -1, 22.9549, 23.9167, 15.1991, 12.7596, 104.797, -71.4665
0.847189, -1, 22.7609, 23.8179, 15.2381, 12.762, 104.694, -71.7284
0.855118, -1, 22.567, 23.7191, 15.2771, 12.7645, 104.59, -71.99
0.864135, -1, 22.3733, 23.6205, 15.3161, 12.7669, 104.487, -72.2514
0.872177, -1, 22.18, 23.5218, 15.355, 12.7695, 104.383, -72.5127
0.880093, -1, 21.9869, 23.4231, 15.3939, 12.7721, 104.28, -72.7744
0.887178, -1, 21.7941, 23.3244, 15.433, 12.7748, 104.177, -73.0359
0.895129, -1, 21.602, 23.2256, 15.4719, 12.7774, 104.074, -73.2971
0.9033, -1, 21.4098, 23.1268, 15.5108, 12.7801, 103.971, -73.5587
0.911187, -1, 21.2175, 23.0282, 15.5498, 12.7827, 103.868, -73.8202
0.919677, -1, 21.025, 22.9295, 15.5887, 12.7854, 103.764, -74.0817
0.928106, -1, 20.8326, 22.8309, 15.6276, 12.7881, 103.661, -74.3428
0.935218, -1, 20.6401, 22.7323, 15.6666, 12.7909, 103.558, -74.6039
0.943966, -1, 20.4472, 22.6337, 15.7054, 12.7936, 103.455, -74.8652
0.952119, -1, 20.2538, 22.535, 15.7443, 12.7963, 103.352, -75.1268
0.960176, -1, 20.06, 22.4363, 15.7833, 12.799, 103.249, -75.3878
0.967937, -1, 19.8664, 22.3376, 15.8221, 12.8018, 103.146, -75.649
0.976203, -1, 19.6728, 22.239, 15.8609, 12.8044, 103.043, -75.9101
0.983259, -1, 19.4792, 22.1404, 15.8998, 12.8072, 102.94, -76.1714
0.991941, -1, 19.286, 22.0418, 15.9387, 12.8099, 102.837, -76.4325
1.00011, -1, 19.0931, 21.9431, 15.9776, 12.8127, 102.734, -76.6933
1.00821, -1, 18.9004, 21.8445, 16.0165, 12.8154, 102.631, -76.9542
1.01595, -1, 18.7082, 21.7457, 16.0552, 12.818, 102.528, -77.2153
1.02414, -1, 18.5163, 21.647, 16.0941, 12.8207, 102.425, -77.4762
1.03143, -1, 18.3245, 21.5485, 16.133, 12.8234, 102.322, -77.7367
1.04023, -1, 18.1326, 21.45, 16.1717, 12.8259, 102.219, -77.9974
1.04838, -1, 17.9408, 21.3515, 16.2106, 12.8285, 102.117, -78.2583
1.05547, -1, 17.7489, 21.2532, 16.2496, 12.831, 102.013, -78.5191
1.06366, -1, 17.5567, 21.1549, 16.2884, 12.8335, 101.911, -78.7794
1.07243, -1, 17.364, 21.0566, 16.3272, 12.8359, 101.808, -79.0398
1.07982, -1, 17.1709, 20.9583, 16.366, 12.8383, 101.704, -79.3004
1.08896, -1, 16.9779, 20.8601, 16.4048, 12.8407, 101.602, -79.5612
1.09661, -1, 16.7848, 20.7619, 16.4436, 12.843, 101.499, -79.8216
1.10373, -1, 16.5917, 20.6637, 16.4824, 12.8453, 101.396, -80.0821
1.11298, -1, 16.3987, 20.5654, 16.5211, 12.8477, 101.294, -80.3426
1.1208, -1, 16.2061, 20.4671, 16.5598, 12.8499, 101.191, -80.6033
1.12819, -1, 16.014, 20.3687, 16.5985, 12.8523, 101.088, -80.8636
1.13516, -1, 15.9181, 20.3195, 16.6179, 12.8534, 101.037, -80.9937
1.14314, -1, 15.7264, 20.2209, 16.6566, 12.8557, 100.934, -81.2538
1.15111, -1, 15.5351, 20.1225, 16.6952, 12.8581, 100.832, -81.5139
1.16113, -1, 15.2484, 19.9751, 16.7533, 12.8616, 100.678, -81.904
1.16723, -1, 15.1529, 19.926, 16.7727, 12.8627, 100.626, -82.0339
1.17661, -1, 14.8661, 19.7787, 16.8307, 12.8661, 100.473, -82.4235
1.18458, -1, 14.6747, 19.6806, 16.8694, 12.8684, 100.37, -82.6835
1.19111, -1, 14.5789, 19.6316, 16.8887, 12.8695, 100.319, -82.8136
1.19915, -1, 14.387, 19.5334, 16.9274, 12.8719, 100.216, -83.0734
1.20868, -1, 14.0986, 19.3864, 16.9855, 12.8752, 100.062, -83.4626
1.21513, -1, 14.0025, 19.3374, 17.0049, 12.8763, 100.011, -83.5924
1.22323, -1, 13.81, 19.2396, 17.0434, 12.8787, 99.9086, -83.8521
1.23273, -1, 13.6174, 19.0928, 17.1015, 12.8821, 99.7548, -84.2413
1.23914, -1, 13.425, 19.0439, 17.1208, 12.8833, 99.7035, -84.371
1.24811, -1, 13.233, 18.946, 17.1593, 12.8856, 99.6014, -84.6302
1.25615, -1, 13.0414, 18.8481, 17.1979, 12.888, 99.499, -84.8895
1.26316, -1, 12.8502, 18.7501, 17.2365, 12.8903, 99.3964, -85.1489
1.27117, -1, 12.6592, 18.6521, 17.275, 12.8927, 99.2944, -85.4079
1.2791, -1, 12.4686, 18.5543, 17.3136, 12.8952, 99.192, -85.6668
1.28711, -1, 12.2785, 18.4565, 17.3521, 12.8975, 99.0896, -85.9258
1.2951, -1, 12.0884, 18.3587, 17.3906, 12.9, 98.9877, -86.1847
1.30317, -1, 11.8981, 18.2611, 17.4293, 12.9023, 98.8856, -86.4435
1.31117, -1, 11.7076, 18.1635, 17.4679, 12.9048, 98.7837, -86.7019
1.3191, -1, 11.5168, 18.0659, 17.5063, 12.9072, 98.6819, -86.9604
1.32712, -1, 11.3258, 17.9683, 17.5449, 12.9096, 98.5799, -87.2192
1.33517, -1, 11.1344, 17.8707, 17.5835, 12.9121, 98.478, -87.4777
1.34315, -1, 10.943, 17.7733, 17.622, 12.9145, 98.3762, -87.7358
1.35111, -1, 10.7512, 17.6759, 17.6605, 12.9171, 98.2741, -87.9941
1.35917, -1, 10.5596, 17.5783, 17.6989, 12.9196, 98.1723, -88.2525
1.36712, -1, 10.3683, 17.4808, 17.7373, 12.9221, 98.0705, -88.5109
1.37516, -1, 10.1773, 17.3833, 17.7758, 12.9246, 97.9686, -88.7688
1.38324, -1, 9.98662, 17.2857, 17.8141, 12.9273, 97.8668, -89.0269
1.3911, -1, 9.79632, 17.1882, 17.8524, 12.9299, 97.7648, -89.2851
1.39911, -1, 9.60645, 17.0907, 17.8908, 12.9327, 97.6628, -89.5433
1.40811, -1, 9.41717, 16.9934, 17.9291, 12.9354, 97.5611, -89.801
1.41616, -1, 9.22791, 16.896, 17.9675, 12.9381, 97.4591, -90.0587
1.42329, -1, 9.03856, 16.7988, 18.0059, 12.9407, 97.3573, -90.3161
1.43111, -1, 8.84911, 16.7016, 18.0442, 12.9434, 97.2556, -90.5737
1.43914, -1, 8.65955, 16.6044, 18.0826, 12.946, 97.1538, -90.8311
1.44744, -1, 8.46989, 16.5073, 18.121, 12.9486, 97.0522, -91.0882
1.4552, -1, 8.27988, 16.4102, 18.1593, 12.9513, 96.9509, -91.3453
1.46326, -1, 8.08941, 16.3133, 18.1976, 12.9539, 96.8491, -91.6026
1.47157, -1, 7.89892, 16.2165, 18.2359, 12.9566, 96.7476, -91.8597
1.47921, -1, 7.70831, 16.1195, 18.2742, 12.9592, 96.6462, -92.1166
1.48716, -1, 7.51774, 16.0226, 18.3125, 12.9617, 96.5447, -92.3732
1.49583, -1, 7.32743, 15.9257, 18.3507, 12.9644, 96.4433, -92.63
1.50417, -1, 7.1374, 15.8287, 18.3888, 12.9669, 96.3422, -92.887
1.51114, -1, 6.94777, 15.7317, 18.4271, 12.9695, 96.2407, -93.1434
1.52, -1, 6.75864, 15.6348, 18.4653, 12.9721, 96.1398, -93.3997
1.52817, -1, 6.56993, 15.538, 18.5033, 12.9746, 96.039, -93.6561
1.53532, -1, 6.38162, 15.4412, 18.5415, 12.9771, 95.9379, -93.9125
1.54427, -1, 6.19357, 15.3445, 18.5796, 12.9796, 95.8369, -94.1687
1.55153, -1, 6.00545, 15.2478, 18.6177, 12.9819, 95.7361, -94.4246
1.5602, -1, 5.81708, 15.1511, 18.656, 12.9842, 95.6351, -94.6804
1.56831, -1, 5.62871, 15.0545, 18.694, 12.9866, 95.5342, -94.9365
1.57573, -1, 5.44015, 14.9579, 18.732, 12.9889, 95.4336, -95.1922
1.58432, -1, 5.25118, 14.8614, 18.7702, 12.9912, 95.3327, -95.4477
1.59241, -1, 5.06181, 14.7651, 18.8083, 12.9934, 95.2322, -95.7032
1.59972, -1, 4.87235, 14.6687, 18.8463, 12.9957, 95.1314, -95.9586
1.60827, -1, 4.68291, 14.5723, 18.8844, 12.9979, 95.0306, -96.2141
1.61639, -1, 4.58817, 14.5241, 18.9034, 12.999, 94.9802, -96.4691
1.62313, -1, 4.39893, 14.4278, 18.9414, 13.0012, 94.8796, -96.5965
1.63214, -1, 4.11554, 14.2832, 18.9984, 13.0045, 94.7282, -96.979
1.63915, -1, 4.02129, 14.235, 19.0174, 13.0057, 94.6779, -97.1065
1.64709, -1, 3.83329, 14.1388, 19.0553, 13.008, 94.5771, -97.3616
1.6563, -1, 3.55208, 13.9945, 19.1122, 13.0113, 94.4259, -97.7436
1.66309, -1, 3.45856, 13.9465, 19.1312, 13.0125, 94.3757, -97.8709
1.6724, -1, 3.17817, 13.8025, 19.1879, 13.016, 94.2247, -98.253
1.67915, -1, 3.08467, 13.7545, 19.2068, 13.0171, 94.1743, -98.3805
1.68862, -1, 2.80427, 13.6104, 19.2638, 13.0205, 94.0235, -98.7619
1.6966, -1, 2.61717, 13.5144, 19.3017, 13.0226, 93.9229, -99.0159
1.70463, -1, 2.42978, 13.4184, 19.3395, 13.025, 93.8224, -99.2701
1.71274, -1, 2.24211, 13.3226, 19.3773, 13.0273, 93.7222, -99.5243
1.72069, -1, 2.05411, 13.2269, 19.4151, 13.0295, 93.6218, -99.778
1.72869, -1, 1.96008, 13.131, 19.453, 13.0317, 93.5218, -100.032
1.73674, -1, 1.77189, 13.0831, 19.4907, 13.034, 93.4219, -100.285
1.74409, -1, 1.58357, 12.9872, 19.5095, 13.0351, 93.3718, -100.412
1.75208, -1, 1.39546, 12.8914, 19.5474, 13.0373, 93.2717, -100.666
1.76015, -1, 1.20765, 12.7955, 19.5851, 13.0397, 93.1719, -100.919
1.76809, -1, 1.02028, 12.6998, 19.6228, 13.0421, 93.0717, -101.172
1.77608, -1, 0.833518, 12.6043, 19.6606, 13.0445, 92.9717, -101.425
1.78413, -1, 0.647148, 12.5087, 19.6982, 13.0469, 92.8721, -101.678
1.79209, -1, 0.461196, 12.4132, 19.7358, 13.0493, 92.7722, -101.931
1.80009, -1, 0.275544, 12.3179, 19.7735, 13.0518, 92.6726, -102.184
1.80808, -1, 0.090164, 12.2225, 19.8111, 13.0543, 92.5733, -102.436
1.81617, -1, -0.0952063, 12.1273, 19.8487, 13.0567, 92.4736, -102.689
1.82415, -1, -0.280858, 12.032, 19.8864, 13.0592, 92.374, -102.941
1.83209, -1, -0.466786, 11.9368, 19.9239, 13.0617, 92.2748, -103.194
1.84009, -1, -0.653047, 11.8418, 19.9614, 13.0642, 92.1753, -103.446
1.84818, -1, -0.839414, 11.7468, 19.999, 13.0666, 92.0758, -103.698
1.8561, -1, -1.02609, 11.6518, 20.0364, 13.0692, 91.9766, -103.95
1.86409, -1, -1.21299, 11.5567, 20.0739, 13.0717, 91.8771, -104.201
1.87214, -1, -1.39995, 11.4616, 20.1115, 13.0742, 91.7779, -104.453
1.88013, -1, -1.58672, 11.3665, 20.1489, 13.0767, 91.6788, -104.704
1.88808, -1, -1.77311, 11.2713, 20.1862, 13.0793, 91.5795, -104.956
1.89619, -1, -1.95917, 11.1763, 20.2237, 13.0819, 91.4803, -105.207
1.90316, -1, -2.14456, 11.0815, 20.2611, 13.0846, 91.3812, -105.458
1.91114, -1, -2.32944, 10.9866, 20.2985, 13.0872, 91.282, -105.709
1.91913, -1, -2.51412, 10.8918, 20.3359, 13.0899, 91.1829, -105.96
1.92734, -1, -2.69822, 10.7971, 20.3731, 13.0925, 91.0838, -106.211
1.93526, -1, -2.8821, 10.7024, 20.4104, 13.0951, 90.9847, -106.462
1.94315, -1, -3.06607, 10.6076, 20.4479, 13.0977, 90.8858, -106.713
1.95157, -1, -3.25024, 10.513, 20.4851, 13.1003, 90.787, -106.963
1.95998, -1, -3.43475, 10.4185, 20.5223, 13.1029, 90.688, -107.214
1.96808, -1, -3.61949, 10.3241, 20.5596, 13.1055, 90.5892, -107.464
1.97556, -1, -3.80436, 10.2298, 20.5969, 13.1079, 90.4904, -107.714
1.98457, -1, -3.98958, 10.1354, 20.6341, 13.1103, 90.3916, -107.964
1.99109, -1, -4.17503, 10.041, 20.6713, 13.1128, 90.293, -108.214
1.99991, -1, -4.36069, 9.94675, 20.7085, 13.1151, 90.1944, -108.464
2.00927, -1, -4.54612, 9.85239, 20.7457, 13.1175, 90.0957, -108.714
2.01612, -1, -4.73124, 9.75814, 20.783, 13.1198, 89.9973, -108.963
2.02401, -1, -4.916, 9.66395, 20.82, 13.1222, 89.8989, -109.212
2.0321, -1, -5.10015, 9.56994, 20.8571, 13.1245, 89.8003, -109.462
2.04008, -1, -5.28359, 9.4759, 20.8943, 13.1268, 89.7021, -109.711
2.04843, -1, -5.46672, 9.38198, 20.9314, 13.1292, 89.6037, -109.96
2.05542, -1, -5.64939, 9.28808, 20.9684, 13.1315, 89.5053, -110.209
2.06354, -1, -5.83183, 9.19416, 21.0055, 13.1338, 89.4073, -110.458
2.07235, -1, -6.0142, 9.10029, 21.0425, 13.136, 89.3091, -110.707
2.07974, -1, -6.19679, 9.00646, 21.0795, 13.1382, 89.211, -110.955
2.08824, -1, -6.37964, 8.91274, 21.1166, 13.1405, 89.1133, -111.203
2.0966, -1, -6.56265, 8.81907, 21.1534, 13.1426, 89.0153, -111.451
2.10366, -1, -6.74601, 8.72538, 21.1903, 13.1447, 88.9173, -111.7
2.11218, -1, -6.92984, 8.63176, 21.2272, 13.1468, 88.8195, -111.948
2.12043, -1, -7.02182, 8.58494, 21.2457, 13.1479, 88.7706, -112.072
2.12708, -1, -7.20601, 8.49141, 21.2825, 13.1501, 88.6727, -112.319
2.13611, -1, -7.48215, 8.3509, 21.3379, 13.1532, 88.5261, -112.691
2.14308, -1, -7.57402, 8.30413, 21.3563, 13.1543, 88.4774, -112.814
2.15219, -1, -7.84918, 8.16401, 21.4115, 13.1576, 88.331, -113.186
2.15909, -1, -7.94067, 8.11732, 21.4299, 13.1587, 88.2823, -113.309
2.16921, -1, -8.21406, 7.97738, 21.4851, 13.1621, 88.1363, -113.68
2.17513, -1, -8.30486, 7.93075, 21.5034, 13.1632, 88.0876, -113.803
2.18453, -1, -8.57671, 7.79092, 21.5587, 13.1665, 87.9416, -114.174
2.19107, -1, -8.66719, 7.74434, 21.5771, 13.1677, 87.8929, -114.297
2.20054, -1, -8.93831, 7.60459, 21.6322, 13.1711, 87.7466, -114.666
2.20868, -1, -9.11928, 7.51149, 21.669, 13.1733, 87.6495, -114.913
2.21747, -1, -9.30046, 7.41857, 21.7056, 13.1756, 87.5523, -115.16
2.22316, -1, -9.39114, 7.37215, 21.724, 13.1767, 87.5037, -115.283
2.23271, -1, -9.66378, 7.23285, 21.779, 13.18, 87.3581, -115.652
2.24161, -1, -9.7548, 7.18647, 21.7973, 13.1811, 87.3095, -115.898
2.24717, -1, -9.93719, 7.09375, 21.8338, 13.1833, 87.2123, -116.021
2.2571, -1, -10.211, 6.95461, 21.8887, 13.1867, 87.0666, -116.39
2.26307, -1, -10.3024, 6.90822, 21.907, 13.1878, 87.018, -116.512
2.27204, -1, -10.4849, 6.81545, 21.9436, 13.1899, 86.9207, -116.758
2.27913, -1, -10.6671, 6.72273, 21.9802, 13.1922, 86.8237, -117.003
2.28807, -1, -10.8489, 6.63016, 22.0167, 13.1947, 86.7269, -117.249
2.29611, -1, -11.0301, 6.53756, 22.053, 13.1971, 86.63, -117.494
2.30307, -1, -11.2106, 6.44504, 22.0896, 13.1994, 86.5333, -117.739
2.31207, -1, -11.3904, 6.35254, 22.1261, 13.2019, 86.4368, -117.984
2.31907, -1, -11.5699, 6.26011, 22.1625, 13.2043, 86.34, -118.228
2.32707, -1, -11.7493, 6.16764, 22.199, 13.2068, 86.2433, -118.473
2.33607, -1, -11.9286, 6.07531, 22.2354, 13.2092, 86.1467, -118.718
2.34307, -1, -12.1079, 5.98307, 22.2718, 13.2117, 86.0501, -118.962
2.35107, -1, -12.2874, 5.89102, 22.3082, 13.2142, 85.9537, -119.206
2.36008, -1, -12.4673, 5.79896, 22.3446, 13.2167, 85.8574, -119.45
2.36958, -1, -12.6476, 5.70693, 22.3807, 13.2191, 85.761, -119.694
2.37606, -1, -12.8283, 5.615, 22.4171, 13.2216, 85.6649, -119.938
2.38411, -1, -13.0092, 5.52311, 22.4534, 13.2241, 85.5691, -120.181
2.39213, -1, -13.1905, 5.43108, 22.4896, 13.2265, 85.4731, -120.425
2.39908, -1, -13.3718, 5.33912, 22.5259, 13.2289, 85.3772, -120.669
2.40807, -1, -13.5526, 5.24722, 22.5621, 13.2314, 85.2816, -120.912
2.41616, -1, -13.733, 5.15538, 22.5983, 13.234, 85.1857, -121.155
2.4232, -1, -13.9129, 5.06353, 22.6344, 13.2365, 85.0898, -121.398
2.43107, -1, -14.0919, 4.97179, 22.6707, 13.2391, 84.9945, -121.641
2.43911, -1, -14.2703, 4.88012, 22.7067, 13.2416, 84.8987, -121.884
2.44742, -1, -14.4486, 4.78844, 22.7428, 13.2441, 84.8031, -122.127
2.45613, -1, -14.6263, 4.6968, 22.7791, 13.2467, 84.7077, -122.369
2.46407, -1, -14.8039, 4.60524, 22.8152, 13.2493, 84.6118, -122.611
2.47152, -1, -14.9816, 4.51376, 22.8513, 13.2517, 84.5161, -122.854
2.47921, -1, -15.1594, 4.42241, 22.8875, 13.2541, 84.4206, -123.096
2.48717, -1, -15.3375, 4.33115, 22.9236, 13.2565, 84.3249, -123.338
2.49582, -1, -15.5162, 4.23983, 22.9596, 13.2588, 84.2292, -123.58
2.50413, -1, -15.6953, 4.1486, 22.9957, 13.2612, 84.1339, -123.821
2.51111, -1, -15.8746, 4.0574, 23.0316, 13.2634, 84.0383, -124.063
2.51998, -1, -16.0539, 3.96618, 23.0676, 13.2657, 83.9428, -124.305
2.52822, -1, -16.2338, 3.87489, 23.1036, 13.2677, 83.8476, -124.546
2.53528, -1, -16.4134, 3.78368, 23.1395, 13.2699, 83.7519, -124.787
2.54413, -1, -16.5926, 3.69254, 23.1753, 13.2721, 83.6565, -125.029
2.55137, -1, -16.7712, 3.60143, 23.2112, 13.2743, 83.5613, -125.27
2.55948, -1, -16.9492, 3.51042, 23.247, 13.2766, 83.4658, -125.511
2.56832, -1, -17.1264, 3.41942, 23.2828, 13.2788, 83.3705, -125.751
2.5756, -1, -17.3031, 3.32847, 23.3188, 13.2811, 83.2754, -125.992
2.58417, -1, -17.4795, 3.23763, 23.3545, 13.2831, 83.1802, -126.233
2.59245, -1, -17.6557, 3.14685, 23.3903, 13.2852, 83.0852, -126.473
2.59963, -1, -17.8317, 3.05625, 23.4262, 13.2874, 82.9906, -126.713
2.60817, -1, -18.0077, 2.96565, 23.462, 13.2895, 82.8956, -126.953
2.61656, -1, -18.0959, 2.87527, 23.4977, 13.2916, 82.8009, -127.194
2.62306, -1, -18.2724, 2.83008, 23.5156, 13.2927, 82.7535, -127.314
2.63211, -1, -18.5381, 2.69448, 23.5692, 13.2958, 82.6115, -127.674
2.63907, -1, -18.6269, 2.64932, 23.587, 13.2968, 82.5642, -127.793
2.6471, -1, -18.8045, 2.55905, 23.6227, 13.2988, 82.4696, -128.033
2.65617, -1, -19.0717, 2.42334, 23.6763, 13.3018, 82.328, -128.392
2.66306, -1, -19.1608, 2.37812, 23.694, 13.3028, 82.2808, -128.512
2.67235, -1, -19.4279, 2.24257, 23.7475, 13.3058, 82.1396, -128.87
2.67906, -1, -19.5167, 2.19738, 23.7653, 13.307, 82.0927, -128.99
2.68933, -1, -19.7821, 2.06186, 23.8184, 13.3102, 81.9513, -129.348
2.69512, -1, -19.8703, 2.01671, 23.8361, 13.3113, 81.9042, -129.468
2.70461, -1, -20.1337, 1.88135, 23.8896, 13.3145, 81.7632, -129.826
2.71341, -1, -20.3088, 1.79117, 23.925, 13.3168, 81.6691, -130.065
2.71912, -1, -20.3962, 1.74611, 23.9427, 13.3179, 81.6221, -130.184
2.7287, -1, -20.6579, 1.61107, 23.9961, 13.3212, 81.4813, -130.541
2.73743, -1, -20.7451, 1.5661, 24.0315, 13.3233, 81.3873, -130.779
2.74312, -1, -20.9198, 1.4762, 24.0492, 13.3244, 81.3404, -130.898
2.75274, -1, -21.0948, 1.38649, 24.0848, 13.3266, 81.2, -131.255
2.76007, -1, -21.2701, 1.29677, 24.1203, 13.3288, 81.153, -131.374
2.76713, -1, -21.4458, 1.20707, 24.1556, 13.331, 81.0591, -131.612
2.77506, -1, -21.6219, 1.11745, 24.191, 13.3332, 80.9653, -131.85
2.78378, -1, -21.7981, 1.02782, 24.2264, 13.3354, 80.8715, -132.087
2.79105, -1, -21.9745, 0.938175, 24.2618, 13.3375, 80.7777, -132.324
2.79905, -1, -22.1511, 0.848596, 24.2972, 13.3396, 80.6841, -132.561
2.80808, -1, -22.3276, 0.759044, 24.3325, 13.3418, 80.5905, -132.799
2.81612, -1, -22.5036, 0.66955, 24.3677, 13.344, 80.4969, -133.036
2.82405, -1, -22.6792, 0.580012, 24.4029, 13.3464, 80.4033, -133.272
2.83209, -1, -22.8542, 0.490568, 24.4382, 13.3488, 80.3097, -133.509
2.84011, -1, -23.0282, 0.401153, 24.4733, 13.3512, 80.2161, -133.746
2.84805, -1, -23.2018, 0.311807, 24.5084, 13.3537, 80.1226, -133.983
2.85607, -1, -23.3751, 0.222463, 24.5436, 13.356, 80.0292, -134.219
2.86412, -1, -23.5482, 0.133252, 24.5788, 13.3585, 79.9357, -134.455
2.87205, -1, -23.7215, 0.0441338, 24.6139, 13.3609, 79.8425, -134.691
2.88107, -1, -23.8949, -0.0449227, 24.6492, 13.3634, 79.7495, -134.928
2.88816, -1, -24.0684, -0.133829, 24.6842, 13.3658, 79.6562, -135.164
2.89608, -1, -24.2422, -0.222836, 24.7193, 13.3683, 79.5631, -135.399
2.90384, -1, -24.4164, -0.311801, 24.7544, 13.3707, 79.4702, -135.635
2.91212, -1, -24.5908, -0.400629, 24.7895, 13.3731, 79.377, -135.871
2.91906, -1, -24.7655, -0.489532, 24.8245, 13.3755, 79.2839, -136.106
2.92807, -1, -24.9406, -0.57845, 24.8596, 13.3779, 79.1911, -136.342
2.93612, -1, -25.1157, -0.667272, 24.8947, 13.3803, 79.098, -136.577
2.94309, -1, -25.2904, -0.756013, 24.9296, 13.3826, 79.0051, -136.812
2.9522, -1, -25.4647, -0.844856, 24.9646, 13.385, 78.9126, -137.047
2.95915, -1, -25.6386, -0.93363, 24.9996, 13.3876, 78.8197, -137.282
2.96722, -1, -25.8119, -1.02231, 25.0344, 13.39, 78.7271, -137.517
2.97545, -1, -25.9845, -1.11102, 25.0693, 13.3924, 78.6348, -137.751
2.98319, -1, -26.1567, -1.19972, 25.1043, 13.3948, 78.5423, -137.986
2.99127, -1, -26.3285, -1.2883, 25.1391, 13.3972, 78.4497, -138.22
2.99962, -1, -26.5003, -1.37673, 25.1739, 13.3995, 78.3572, -138.455
3.00713, -1, -26.6723, -1.46512, 25.2089, 13.4018, 78.2647, -138.689
3.01529, -1, -26.8444, -1.55339, 25.2438, 13.404, 78.1723, -138.923
3.02465, -1, -27.0169, -1.64155, 25.2786, 13.4062, 78.0798, -139.157
3.03207, -1, -27.1893, -1.72976, 25.3135, 13.4084, 77.9879, -139.391
3.0393, -1, -27.3619, -1.81793, 25.3483, 13.4106, 77.8957, -139.625
3.04882, -1, -27.535, -1.90596, 25.383, 13.4127, 77.8036, -139.858
3.05609, -1, -27.7082, -1.99417, 25.4179, 13.4148, 77.7118, -140.091
3.06374, -1, -27.8815, -2.08229, 25.4527, 13.4169, 77.6196, -140.325
3.07321, -1, -28.0549, -2.17029, 25.4874, 13.4189, 77.5275, -140.558
3.07962, -1, -28.2281, -2.25834, 25.5221, 13.4209, 77.4357, -140.791
3.08824, -1, -28.4011, -2.3464, 25.557, 13.423, 77.3435, -141.025
3.09636, -1, -28.5736, -2.43437, 25.5917, 13.4251, 77.2514, -141.257
3.10365, -1, -28.7456, -2.52228, 25.6263, 13.4273, 77.1596, -141.49
3.11227, -1, -28.917, -2.61031, 25.6611, 13.4294, 77.0674, -141.723
3.1205, -1, -29.0025, -2.65426, 25.6784, 13.4317, 76.9756, -141.956
3.12764, -1, -29.1731, -2.7421, 25.7129, 13.4327, 76.9296, -142.188
3.13615, -1, -29.429, -2.87378, 25.765, 13.4357, 76.7919, -142.42
3.14306, -1, -29.5144, -2.91759, 25.7823, 13.4368, 76.746, -142.537
3.15113, -1, -29.6853, -3.00517, 25.8168, 13.4387, 76.6541, -142.769
3.1605, -1, -29.9418, -3.13646, 25.8687, 13.4419, 76.5165, -143.118
3.16703, -1, -30.0273, -3.18018, 25.886, 13.4429, 76.4705, -143.234
3.17638, -1, -30.2838, -3.31142, 25.9378, 13.4461, 76.333, -143.582
3.18306, -1, -30.3694, -3.35512, 25.9551, 13.4471, 76.2874, -143.698
3.19251, -1, -30.6268, -3.48634, 26.0069, 13.4501, 76.1499, -144.045
3.19903, -1, -30.7127, -3.53009, 26.0241, 13.4511, 76.1042, -144.161
3.20869, -1, -30.9706, -3.66116, 26.0759, 13.4541, 75.9673, -144.508
3.21657, -1, -31.1423, -3.74851, 26.1104, 13.4562, 75.8758, -144.739
3.22469, -1, -31.3139, -3.83582, 26.1448, 13.4583, 75.7844, -144.971
3.23261, -1, -31.4849, -3.92317, 26.1792, 13.4604, 75.6934, -145.202
3.24062, -1, -31.5703, -3.96678, 26.1964, 13.4625, 75.6019, -145.433
3.24872, -1, -31.7407, -4.054, 26.2309, 13.4647, 75.5108, -145.664
3.25604, -1, -31.9107, -4.14124, 26.2652, 13.4658, 75.4652, -145.779
3.26404, -1, -32.0803, -4.22843, 26.2996, 13.468, 75.3743, -146.01
3.2732, -1, -32.3344, -4.35906, 26.3511, 13.4713, 75.2375, -146.357
3.27903, -1, -32.4191, -4.40257, 26.3682, 13.4724, 75.192, -146.472
3.28805, -1, -32.5888, -4.48953, 26.4025, 13.4745, 75.1015, -146.702
3.29602, -1, -32.7585, -4.57642, 26.437, 13.4766, 75.0105, -146.933
3.30405, -1, -32.9282, -4.66336, 26.4712, 13.4788, 74.9196, -147.163
3.31208, -1, -33.0979, -4.75028, 26.5054, 13.481, 74.8293, -147.393
3.32007, -1, -33.2677, -4.83711, 26.5397, 13.4832, 74.7384, -147.623
3.32804, -1, -33.4378, -4.92402, 26.574, 13.4854, 74.6479, -147.853
3.33611, -1, -33.6082, -5.01095, 26.6082, 13.4876, 74.5573, -148.083
3.34406, -1, -33.7785, -5.09772, 26.6424, 13.4899, 74.4667, -148.313
3.35204, -1, -33.9487, -5.18447, 26.6766, 13.492, 74.3762, -148.543
3.3601, -1, -34.1189, -5.27116, 26.7107, 13.4943, 74.2857, -148.772
3.36968, -1, -34.2889, -5.35787, 26.7621, 13.4978, 74.1499, -149.116
3.37604, -1, -34.4589, -5.4445, 26.7792, 13.4989, 74.1046, -149.23
3.38411, -1, -34.6284, -5.53117, 26.8132, 13.5012, 74.014, -149.46
3.39209, -1, -34.7973, -5.61776, 26.8473, 13.5037, 73.9236, -149.689
3.40004, -1, -34.9659, -5.70435, 26.8815, 13.5061, 73.833, -149.918
3.4081, -1, -35.1342, -5.79085, 26.9156, 13.5085, 73.7425, -150.147
3.41604, -1, -35.3025, -5.87727, 26.9496, 13.511, 73.6524, -150.376
3.42411, -1, -35.4709, -5.96352, 26.9838, 13.5134, 73.5619, -150.605
3.43103, -1, -35.6395, -6.04976, 27.0178, 13.5157, 73.4715, -150.834
3.44004, -1, -35.808, -6.13599, 27.0517, 13.5181, 73.3814, -151.062
3.4481, -1, -35.9766, -6.22215, 27.0858, 13.5205, 73.2909, -151.291
3.45604, -1, -36.1451, -6.30827, 27.1198, 13.5229, 73.2006, -151.52
3.46406, -1, -36.3137, -6.39447, 27.1537, 13.5253, 73.1102, -151.748
3.47211, -1, -36.4826, -6.48072, 27.1876, 13.5277, 73.0198, -151.977
3.47915, -1, -36.6514, -6.56689, 27.2216, 13.53, 72.9296, -152.205
3.48761, -1, -36.8203, -6.65308, 27.2555, 13.5322, 72.8392, -152.433
3.4961, -1, -36.9892, -6.73919, 27.2894, 13.5345, 72.7493, -152.661
3.50303, -1, -37.1581, -6.82538, 27.3234, 13.5367, 72.6591, -152.889
3.51178, -1, -37.3266, -6.91145, 27.3572, 13.539, 72.5692, -153.117
3.52006, -1, -37.495, -6.99749, 27.3911, 13.5413, 72.4795, -153.344
3.52807, -1, -37.6629, -7.08352, 27.4252, 13.5436, 72.3895, -153.572
3.53582, -1, -37.8306, -7.16958, 27.4591, 13.5458, 72.2996, -153.799
3.54407, -1, -37.9982, -7.25552, 27.4929, 13.548, 72.21, -154.027
3.55208, -1, -38.1656, -7.34144, 27.5269, 13.5502, 72.1202, -154.254
3.5602, -1, -38.333, -7.42726, 27.5608, 13.5524, 72.0304, -154.481
3.56749, -1, -38.5003, -7.51299, 27.5946, 13.5545, 71.941, -154.709
3.57554, -1, -38.6676, -7.59876, 27.6285, 13.5565, 71.8513, -154.936
3.58414, -1, -38.8349, -7.68445, 27.6624, 13.5586, 71.7617, -155.163
3.5916, -1, -39.0023, -7.77012, 27.6961, 13.5607, 71.6724, -155.39
3.60019, -1, -39.1697, -7.85575, 27.7299, 13.5627, 71.5832, -155.617
3.6076, -1, -39.3372, -7.94147, 27.7638, 13.5647, 71.4937, -155.843
3.61615, -1, -39.5047, -8.0271, 27.7975, 13.5666, 71.4043, -156.07
3.6238, -1, -39.5885, -8.06985, 27.8311, 13.5686, 71.3153, -156.297
3.63208, -1, -39.84, -8.19807, 27.8649, 13.5705, 71.2256, -156.523
3.63905, -1, -39.9238, -8.24082, 27.8818, 13.5715, 71.181, -156.636
3.64813, -1, -40.1751, -8.36894, 27.9323, 13.5744, 71.0471, -156.976
3.65503, -1, -40.2588, -8.41161, 27.9491, 13.5754, 71.0025, -157.089
3.66423, -1, -40.5095, -8.53969, 27.9998, 13.5784, 70.8686, -157.428
3.67105, -1, -40.593, -8.58238, 28.0165, 13.5793, 70.8239, -157.541
3.68037, -1, -40.8432, -8.71045, 28.0669, 13.5823, 70.6904, -157.88
3.68705, -1, -40.9265, -8.75313, 28.0838, 13.5833, 70.6457, -157.993
3.69653, -1, -41.1761, -8.88111, 28.1342, 13.5864, 70.5121, -158.332
3.70452, -1, -41.3422, -8.96629, 28.1677, 13.5884, 70.4231, -158.558
3.71256, -1, -41.5085, -9.05146, 28.2014, 13.5904, 70.3338, -158.783
3.72067, -1, -41.6748, -9.13655, 28.2351, 13.5924, 70.2445, -159.009
3.72862, -1, -41.8411, -9.22162, 28.2686, 13.5943, 70.1557, -159.234
3.73663, -1, -42.0076, -9.30664, 28.3022, 13.5963, 70.0665, -159.46
3.74474, -1, -42.0907, -9.39169, 28.3359, 13.5984, 69.9775, -159.685
3.75202, -1, -42.257, -9.43423, 28.3526, 13.5995, 69.933, -159.798
3.76004, -1, -42.4232, -9.51926, 28.3861, 13.6014, 69.8443, -160.023
3.76807, -1, -42.5896, -9.60423, 28.4197, 13.6035, 69.7552, -160.248
3.77608, -1, -42.7559, -9.68919, 28.4532, 13.6055, 69.6662, -160.473
3.78402, -1, -42.9223, -9.77415, 28.4866, 13.6076, 69.5777, -160.698
3.79208, -1, -43.0887, -9.85905, 28.5201, 13.6096, 69.4887, -160.923
3.80004, -1, -43.2548, -9.94398, 28.5537, 13.6116, 69.4, -161.148
3.80802, -1, -43.421, -10.0289, 28.5872, 13.6137, 69.3115, -161.373
3.81608, -1, -43.587, -10.1138, 28.6208, 13.6158, 69.2228, -161.597
3.82406, -1, -43.7529, -10.1988, 28.6543, 13.6179, 69.1342, -161.822
3.83203, -1, -43.9188, -10.2836, 28.6877, 13.6201, 69.0458, -162.047
3.8401, -1, -44.0844, -10.3684, 28.7211, 13.6222, 68.9573, -162.271
3.84803, -1, -44.2497, -10.4531, 28.7547, 13.6244, 68.8686, -162.495
3.85602, -1, -44.4149, -10.5376, 28.7881, 13.6266, 68.78, -162.72
3.86408, -1, -44.5801, -10.6222, 28.8215, 13.6287, 68.6915, -162.944
3.87203, -1, -44.7453, -10.7067, 28.855, 13.6309, 68.6028, -163.168
3.88003, -1, -44.9106, -10.7911, 28.8885, 13.6331, 68.5143, -163.392
3.88901, -1, -45.0759, -10.8756, 28.9219, 13.6353, 68.426, -163.616
3.8961, -1, -45.2412, -10.9602, 28.9553, 13.6376, 68.3375, -163.84
3.90405, -1, -45.4065, -11.0446, 28.9888, 13.6398, 68.2491, -164.064
3.91208, -1, -45.5717, -11.129, 29.022, 13.6421, 68.1609, -164.288
3.92003, -1, -45.7371, -11.2135, 29.0552, 13.6443, 68.0726, -164.512
3.92803, -1, -45.902, -11.2978, 29.0886, 13.6466, 67.9843, -164.735
3.93609, -1, -46.0651, -11.381, 29.122, 13.6489, 67.8959, -164.959
3.94402, -1, -46.2246, -11.4622, 29.1555, 13.6512, 67.8083, -165.181
3.95113, -1, -46.3786, -11.5395, 29.1892, 13.6536, 67.7215, -165.4
3.95915, -1, -46.5248, -11.6121, 29.2222, 13.656, 67.6378, -165.612
3.96713, -1, -46.6607, -11.679, 29.2535, 13.6582, 67.5595, -165.81
3.9752, -1, -46.7836, -11.7388, 29.2818, 13.6603, 67.4882, -165.99
3.98312, -1, -46.8908, -11.7915, 29.3062, 13.6623, 67.4265, -166.147
3.99113, -1, -46.9816, -11.8375, 29.3258, 13.6637, 67.376, -166.275
3.9992, -1, -47.0565, -11.8776, 29.3396, 13.6647, 67.3367, -166.374
4.00702, -1, -47.1165, -11.9109, 29.3488, 13.6653, 67.3083, -166.446
4.01505, -1, -47.162, -11.9367, 29.3543, 13.6656, 67.2892, -166.493
4.02316, -1, -47.1952, -11.9555, 29.357, 13.6658, 67.2775, -166.523
4.03124, -1, -47.218, -11.9682, 29.3583, 13.6659, 67.271, -166.54
4.03914, -1, -47.2324, -11.9761, 29.3588, 13.6659, 67.2676, -166.548
4.04732, -1, -47.2405, -11.9804, 29.3591, 13.666, 67.2659, -166.552
4.05609, 2, -47.2443, -11.9824, 29.3593, 13.666, 67.2651, -166.554
4.06407, 2, -47.2452, -11.9833, 29.3594, 13.6661, 67.2648, -166.555
4.07181, 2, -47.245, -11.9836, 29.3595, 13.6661, 67.2646, -166.556
4.08015, 2, -47.2449, -11.9837, 29.3595, 13.6661, 67.2645, -166.556
4.08753, 2, -47.245, -11.9838, 29.3595, 13.6661, 67.2645, -166.556
4.09613, 2, -47.2457, -11.984, 29.3595, 13.6661, 67.2644, -166.556
4.10358, 2, -47.2468, -11.9843, 29.3596, 13.666, 67.2644, -166.556
4.11212, 2, -47.2484, -11.985, 29.3595, 13.6661, 67.2645, -166.556
4.11992, 2, -47.2501, -11.9858, 29.3595, 13.6661, 67.2644, -166.556
4.1282, 2, -47.2516, -11.9867, 29.3596, 13.6661, 67.2644, -166.556
4.13502, 2, -47.2522, -11.9871, 29.3596, 13.6661, 67.2644, -166.556
4.14405, 2, -47.2535, -11.988, 29.3596, 13.6661, 67.2644, -166.556
4.151, 2, -47.2537, -11.9882, 29.3596, 13.6661, 67.2644, -166.556
4.16017, 2, -47.2539, -11.9885, 29.3595, 13.6661, 67.2645, -166.556
4.16708, 2, -47.2539, -11.9885, 29.3596, 13.6661, 67.2645, -166.556
4.17651, 2, -47.2534, -11.9885, 29.3596, 13.666, 67.2645, -166.556
4.183, 2, -47.2532, -11.9885, 29.3596, 13.666, 67.2645, -166.556
4.19236, 2, -47.2526, -11.9884, 29.3596, 13.666, 67.2645, -166.556
4.199, 2, -47.2524, -11.9884, 29.3596, 13.666, 67.2644, -166.556
4.20889, 2, -47.2522, -11.9885, 29.3596, 13.6661, 67.2645, -166.556
4.21651, 2, -47.2523, -11.9886, 29.3596, 13.6661, 67.2645, -166.556
4.2248, 2, -47.2524, -11.9888, 29.3596, 13.6661, 67.2644, -166.556
4.23295, 2, -47.2528, -11.9892, 29.3596, 13.666, 67.2645, -166.556
4.24056, 2, -47.2531, -11.9895, 29.3596, 13.6661, 67.2645, -166.556
4.24867, 2, -47.2536, -11.9897, 29.3596, 13.666, 67.2645, -166.556
4.25688, 2, -47.254, -11.9899, 29.3596, 13.666, 67.2645, -166.556
4.26401, 2, -47.2541, -11.9899, 29.3596, 13.6661, 67.2645, -166.556
4.27213, 2, -47.2541, -11.9899, 29.3596, 13.6661, 67.2645, -166.556
4.28098, 2, -47.254, -11.9899, 29.3596, 13.6661, 67.2645, -166.556
4.28801, 2, -47.2538, -11.9899, 29.3596, 13.6661, 67.2645, -166.556
4.29607, 2, -47.2534, -11.9898, 29.3596, 13.6661, 67.2645, -166.556
4.30411, 2, -47.2531, -11.9898, 29.3596, 13.666, 67.2645, -166.556
4.31107, 2, -47.2528, -11.9898, 29.3596, 13.666, 67.2645, -166.556
4.32007, 2, -47.2526, -11.9898, 29.3596, 13.666, 67.2645, -166.556
4.32804, 2, -47.2525, -11.9898, 29.3596, 13.6661, 67.2645, -166.556
4.33602, 2, -47.2525, -11.9899, 29.3596, 13.6661, 67.2645, -166.556
4.34408, 2, -47.2524, -11.9899, 29.3596, 13.666, 67.2645, -166.556
4.35201, 2, -47.2524, -11.99, 29.3596, 13.666, 67.2645, -166.556
4.36002, 2, -47.2524, -11.99, 29.3596, 13.666, 67.2645, -166.556
4.36807, 2, -47.2524, -11.99, 29.3596, 13.666, 67.2645, -166.555
4.37601, 2, -47.2524, -11.99, 29.3596, 13.666, 67.2645, -166.555
4.38401, 2, -47.2524, -11.9899, 29.3596, 13.666, 67.2646, -166.555
4.39207, 2, -47.2523, -11.9899, 29.3596, 13.666, 67.2646, -166.555
4.40007, 2, -47.2522, -11.9898, 29.3596, 13.666, 67.2645, -166.555
4.408, 2, -47.2521, -11.9898, 29.3596, 13.6661, 67.2645, -166.555
4.41608, 2, -47.252, -11.9897, 29.3596, 13.666, 67.2645, -166.555
4.42401, 2, -47.2519, -11.9897, 29.3596, 13.666, 67.2645, -166.555
4.43202, 2, -47.2518, -11.9897, 29.3596, 13.666, 67.2645, -166.555
4.44008, 2, -47.2518, -11.9897, 29.3596, 13.666, 67.2645, -166.556
4.44801, 2, -47.2517, -11.9897, 29.3596, 13.666, 67.2645, -166.555
4.45602, 2, -47.2516, -11.9898, 29.3596, 13.666, 67.2646, -166.555
4.46407, 2, -47.2516, -11.9898, 29.3596, 13.666, 67.2645, -166.555
4.47201, 2, -47.2515, -11.9898, 29.3596, 13.666, 67.2645, -166.555
4.48001, 2, -47.2514, -11.9898, 29.3596, 13.666, 67.2645, -166.555
4.48807, 2, -47.2513, -11.9897, 29.3596, 13.666, 67.2646, -166.555
4.49604, 2, -47.2513, -11.9897, 29.3596, 13.666, 67.2646, -166.555
4.50399, 2, -47.2512, -11.9896, 29.3596, 13.666, 67.2646, -166.555
4.511, 2, -47.251, -11.9895, 29.3596, 13.666, 67.2646, -166.555
4.51903, 2, -47.2509, -11.9894, 29.3596, 13.666, 67.2646, -166.555
4.52715, 2, -47.2508, -11.9894, 29.3596, 13.666, 67.2647, -166.555
4.53512, 2, -47.2508, -11.9894, 29.3596, 13.666, 67.2646, -166.555
4.54313, 2, -47.2507, -11.9894, 29.3596, 13.666, 67.2646, -166.555
4.55137, 2, -47.2505, -11.9895, 29.3596, 13.666, 67.2646, -166.555
4.55932, 2, -47.2505, -11.9894, 29.3596, 13.6659, 67.2645, -166.555
4.56733, 2, -47.2504, -11.9894, 29.3596, 13.666, 67.2646, -166.555
4.57556, 2, -47.2503, -11.9894, 29.3596, 13.666, 67.2646, -166.555
4.58422, 2, -47.2501, -11.9894, 29.3596, 13.6659, 67.2646, -166.555
4.59154, 2, -47.2501, -11.9894, 29.3596, 13.6659, 67.2646, -166.555
4.60011, 2, -47.2499, -11.9893, 29.3596, 13.6659, 67.2646, -166.555
4.60758, 2, -47.2498, -11.9892, 29.3596, 13.6659, 67.2646, -166.555
4.61612, 2, -47.2498, -11.9891, 29.3596, 13.6659, 67.2646, -166.555
4.62369, 2, -47.2497, -11.9891, 29.3596, 13.6659, 67.2646, -166.555
4.63218, 2, -47.2496, -11.989, 29.3596, 13.6659, 67.2646, -166.555
4.63898, 2, -47.2496, -11.989, 29.3596, 13.6659, 67.2646, -166.555
4.64804, 2, -47.2495, -11.989, 29.3596, 13.6659, 67.2646, -166.555
4.655, 2, -47.2495, -11.989, 29.3596, 13.6659, 67.2647, -166.555
4.66413, 2, -47.2494, -11.989, 29.3596, 13.6659, 67.2647, -166.555
4.67104, 2, -47.2494, -11.989, 29.3596, 13.6659, 67.2647, -166.555
4.68036, 2, -47.2493, -11.989, 29.3596, 13.6659, 67.2647, -166.555
4.68699, 2, -47.2493, -11.989, 29.3596, 13.6659, 67.2647, -166.555
4.69642, 2, -47.2492, -11.989, 29.3596, 13.6658, 67.2647, -166.555
4.70299, 2, -47.2492, -11.9889, 29.3596, 13.6658, 67.2647, -166.555
4.7125, 2, -47.2491, -11.9888, 29.3596, 13.6658, 67.2647, -166.555
4.72062, 2, -47.249, -11.9887, 29.3596, 13.6658, 67.2647, -166.555
4.7286, 2, -47.2489, -11.9886, 29.3596, 13.6659, 67.2647, -166.555
4.73659, 2, -47.2488, -11.9886, 29.3596, 13.6658, 67.2647, -166.555
4.74463, 2, -47.2487, -11.9886, 29.3596, 13.6658, 67.2647, -166.555
4.7527, 2, -47.2487, -11.9886, 29.3596, 13.6658, 67.2647, -166.555
4.76, 2, -47.2486, -11.9886, 29.3596, 13.6658, 67.2647, -166.555
4.76799, 2, -47.2486, -11.9886, 29.3596, 13.6658, 67.2647, -166.555
4.77605, 2, -47.2486, -11.9886, 29.3596, 13.6658, 67.2647, -166.555
4.784, 2, -47.2486, -11.9886, 29.3596, 13.6657, 67.2647, -166.555
4.792, 2, -47.2486, -11.9886, 29.3596, 13.6657, 67.2647, -166.555
4.80006, 2, -47.2485, -11.9885, 29.3596, 13.6657, 67.2647, -166.555
4.80799, 2, -47.2485, -11.9885, 29.3596, 13.6657, 67.2647, -166.555
4.816, 2, -47.2484, -11.9884, 29.3596, 13.6657, 67.2647, -166.555
4.82404, 2, -47.2483, -11.9883, 29.3596, 13.6657, 67.2648, -166.555
4.83203, 2, -47.2482, -11.9882, 29.3596, 13.6656, 67.2648, -166.554
4.84001, 2, -47.2481, -11.9882, 29.3596, 13.6656, 67.2648, -166.554
4.84808, 2, -47.2481, -11.9882, 29.3596, 13.6656, 67.2648, -166.554
4.856, 2, -47.248, -11.9882, 29.3596, 13.6657, 67.2647, -166.554
4.864, 2, -47.248, -11.9881, 29.3596, 13.6656, 67.2648, -166.554
4.87206, 2, -47.2479, -11.9881, 29.3596, 13.6656, 67.2648, -166.554
4.88, 2, -47.2479, -11.9881, 29.3596, 13.6656, 67.2648, -166.554
4.88899, 2, -47.2479, -11.9881, 29.3596, 13.6656, 67.2649, -166.554
4.8961, 2, -47.2479, -11.9881, 29.3596, 13.6656, 67.2649, -166.554
4.90505, 2, -47.2478, -11.9881, 29.3596, 13.6656, 67.2649, -166.554
4.91199, 2, -47.2478, -11.988, 29.3596, 13.6656, 67.2649, -166.554
4.92014, 2, -47.2477, -11.9879, 29.3596, 13.6656, 67.2649, -166.554
4.92698, 2, -47.2476, -11.9879, 29.3596, 13.6656, 67.2649, -166.554
4.936, 2, -47.2475, -11.9878, 29.3596, 13.6655, 67.265, -166.554
4.94406, 2, -47.2474, -11.9878, 29.3596, 13.6656, 67.2649, -166.554
4.952, 2, -47.2474, -11.9877, 29.3596, 13.6655, 67.2649, -166.554
4.96, 2, -47.2473, -11.9877, 29.3596, 13.6655, 67.2649, -166.554
4.96805, 2, -47.2473, -11.9877, 29.3596, 13.6655, 67.265, -166.554
4.97509, 2, -47.2473, -11.9877, 29.3596, 13.6655, 67.265, -166.554
4.98316, 2, -47.2473, -11.9877, 29.3596, 13.6655, 67.265, -166.554
4.9911, 2, -47.2472, -11.9876, 29.3596, 13.6655, 67.265, -166.554
4.9991, 2, -47.2472, -11.9876, 29.3596, 13.6655, 67.265, -166.554
5.00718, 2, -47.2471, -11.9876, 29.3596, 13.6655, 67.2651, -166.554
5.01499, 2, -47.2471, -11.9876, 29.3596, 13.6655, 67.265, -166.554
5.02302, 2, -47.247, -11.9875, 29.3596, 13.6654, 67.265, -166.554
5.03114, 2, -47.2469, -11.9874, 29.3596, 13.6655, 67.265, -166.554
5.03905, 2, -47.2468, -11.9874, 29.3596, 13.6655, 67.265, -166.554
5.04728, 2, -47.2468, -11.9873, 29.3596, 13.6655, 67.265, -166.554
5.05587, 2, -47.2467, -11.9873, 29.3596, 13.6654, 67.2651, -166.554
5.06409, 2, -47.2466, -11.9873, 29.3596, 13.6654, 67.2651, -166.554
5.07208, 2, -47.2466, -11.9873, 29.3596, 13.6654, 67.2651, -166.554
5.07947, 2, -47.2466, -11.9873, 29.3596, 13.6654, 67.2651, -166.554
5.08814, 2, -47.2465, -11.9873, 29.3596, 13.6654, 67.2651, -166.554
5.09592, 2, -47.2465, -11.9873, 29.3596, 13.6654, 67.2651, -166.554
5.10408, 2, -47.2465, -11.9872, 29.3596, 13.6653, 67.2651, -166.554
5.11191, 2, -47.2465, -11.9872, 29.3596, 13.6653, 67.2651, -166.554
5.12009, 2, -47.2464, -11.9872, 29.3596, 13.6653, 67.2651, -166.554
5.1276, 2, -47.2464, -11.9871, 29.3596, 13.6653, 67.2651, -166.554
5.13638, 2, -47.2463, -11.987, 29.3596, 13.6653, 67.2652, -166.554
5.14295, 4, -47.2463, -11.987, 29.3596, 13.6653, 67.2651, -166.554
5.15203, 4, -47.2461, -11.987, 29.3596, 13.6652, 67.2652, -166.554
5.16003, 4, -47.2461, -11.987, 29.3596, 13.6652, 67.2651, -166.554
5.16698, 4, -47.2461, -11.9869, 29.3596, 13.6652, 67.2652, -166.554
5.17618, 4, -47.246, -11.9869, 29.3596, 13.6652, 67.2652, -166.554
5.18297, 4, -47.246, -11.9869, 29.3596, 13.6652, 67.2652, -166.554
5.19244, 4, -47.2459, -11.9869, 29.3596, 13.6652, 67.2652, -166.554
5.20035, 4, -47.2459, -11.9869, 29.3596, 13.6652, 67.2652, -166.554
5.20698, 4, -47.2459, -11.9868, 29.3596, 13.6652, 67.2652, -166.553
5.2165, 4, -47.2458, -11.9868, 29.3596, 13.6652, 67.2652, -166.553
5.22448, 4, -47.2458, -11.9868, 29.3596, 13.6651, 67.2652, -166.554
5.23269, 4, -47.2458, -11.9868, 29.3596, 13.6651, 67.2652, -166.553
5.24111, 4, -47.2457, -11.9867, 29.3596, 13.6651, 67.2652, -166.553
5.24915, 4, -47.2457, -11.9867, 29.3596, 13.6651, 67.2653, -166.553
5.25871, 4, -47.2456, -11.9867, 29.3596, 13.6651, 67.2653, -166.553
5.26531, 4, -47.2456, -11.9866, 29.3596, 13.6651, 67.2653, -166.553
5.27404, 4, -47.2455, -11.9866, 29.3596, 13.6651, 67.2653, -166.553
5.27921, 4, -47.2455, -11.9866, 29.3596, 13.6651, 67.2653, -166.553
5.28813, 4, -47.2455, -11.9866, 29.3596, 13.6651, 67.2653, -166.553
5.30131, 4, -47.2454, -11.9865, 29.3595, 13.665, 67.2652, -166.553
5.30688, 4, -47.2454, -11.9865, 29.3595, 13.665, 67.2652, -166.553
5.31112, 4, -47.2454, -11.9865, 29.3595, 13.6651, 67.2653, -166.553
5.32017, 4, -47.2453, -11.9865, 29.3595, 13.665, 67.2653, -166.553
5.33087, 4, -47.2453, -11.9865, 29.3595, 13.665, 67.2653, -166.553
5.33616, 4, -47.2452, -11.9864, 29.3595, 13.665, 67.2653, -166.553
5.34551, 4, -47.2452, -11.9864, 29.3595, 13.6649, 67.2653, -166.553
5.35217, 4, -47.2452, -11.9864, 29.3596, 13.6649, 67.2653, -166.553
5.36179, 4, -47.2451, -11.9863, 29.3595, 13.6649, 67.2653, -166.553
5.37074, 4, -47.245, -11.9863, 29.3595, 13.6649, 67.2653, -166.553
5.37918, 4, -47.245, -11.9863, 29.3595, 13.6649, 67.2653, -166.553
5.386, 4, -47.245, -11.9863, 29.3596, 13.6649, 67.2653, -166.553
5.39121, 4, -47.2449, -11.9863, 29.3596, 13.6649, 67.2653, -166.553
5.40014, 4, -47.2451, -11.9864, 29.3596, 13.6649, 67.2653, -166.553
5.4112, 4, -47.2469, -11.9874, 29.3605, 13.6654, 67.2655, -166.553
5.41616, 4, -47.2482, -11.9886, 29.3618, 13.6667, 67.2659, -166.553
5.42375, 4, -47.2525, -11.9931, 29.3672, 13.6763, 67.2682, -166.552
5.43218, 5, -47.2595, -12.0021, 29.3798, 13.7012, 67.2747, -166.547
5.44116, 5, -47.2711, -12.0174, 29.4044, 13.7501, 67.2882, -166.536
5.44827, 5, -47.2891, -12.0417, 29.447, 13.8378, 67.3127, -166.517
5.45528, 5, -47.3158, -12.0772, 29.5138, 13.9776, 67.3522, -166.485
5.46418, 5, -47.3531, -12.1256, 29.6112, 14.1846, 67.4092, -166.437
5.47132, 5, -47.4027, -12.1883, 29.7435, 14.4696, 67.488, -166.372
5.4815, 5, -47.465, -12.2661, 29.9131, 14.8386, 67.5878, -166.287
5.48811, 5, -47.5398, -12.3591, 30.1215, 15.2906, 67.7094, -166.183
5.49616, 5, -47.6266, -12.4666, 30.3667, 15.8182, 67.8494, -166.063
5.50323, 5, -47.7243, -12.5874, 30.6442, 16.4079, 68.0044, -165.93
5.51214, 5, -47.8308, -12.7196, 30.9494, 17.045, 68.169, -165.788
5.52281, 5, -47.9444, -12.8611, 31.2753, 17.7151, 68.3393, -165.64
5.52743, 5, -48.0628, -13.0096, 31.6164, 18.4026, 68.5108, -165.491
5.539, 5, -48.1835, -13.2389, 32.1429, 19.4451, 68.7651, -165.269
5.54344, 5, -48.3035, -13.3153, 32.3202, 19.7902, 68.8481, -165.195
5.55257, 5, -48.4196, -13.4661, 32.6745, 20.4693, 69.0111, -165.046
5.56047, 5, -48.5275, -13.6118, 33.0241, 21.1254, 69.1709, -164.886
5.56806, 6, -48.6229, -13.7488, 33.3628, 21.7457, 69.3292, -164.704
5.5759, 6, -48.7014, -13.8754, 33.6858, 22.3221, 69.4885, -164.486
5.58383, 7, -48.7597, -13.9927, 33.9894, 22.8494, 69.6511, -164.219
5.59436, 7, -48.7959, -14.1016, 34.2729, 23.327, 69.8199, -163.889
5.6011, 8, -48.811, -14.2013, 34.5357, 23.7614, 69.9977, -163.491
5.61397, 8, -48.7971, -14.332, 34.8989, 24.3529, 70.2858, -162.764
5.61678, 9, -48.7839, -14.3716, 35.0136, 24.5393, 70.3882, -162.49
5.62384, 9, -48.7473, -14.4467, 35.2363, 24.9047, 70.6025, -161.905
5.63193, 9, -48.7247, -14.5166, 35.4547, 25.2666, 70.8282, -161.28
5.64151, 10, -48.6435, -14.5818, 35.672, 25.6311, 71.0641, -160.628
5.64835, 11, -48.5793, -14.6442, 35.8897, 26.0009, 71.3078, -159.959
5.65643, 11, -48.5085, -14.7062, 36.1092, 26.3769, 71.5564, -159.285
5.66439, 12, -48.4329, -14.7686, 36.3295, 26.7592, 71.8072, -158.612
5.67519, 12, -48.3547, -14.831, 36.5478, 27.1473, 72.0586, -157.94
5.68246, 13, -48.2749, -14.893, 36.764, 27.5403, 72.3099, -157.271
5.68927, 13, -48.1931, -14.9548, 36.9781, 27.9369, 72.5601, -156.607
5.69868, 14, -48.109, -15.0162, 37.1887, 28.3357, 72.809, -155.947
5.70518, 14, -48.0224, -15.0773, 37.3963, 28.7358, 73.0561, -155.289
5.7111, 14, -47.9781, -15.1077, 37.4993, 28.936, 73.179, -154.961
5.71913, 15, -47.8867, -15.1685, 37.7032, 29.3368, 73.4234, -154.31
5.72712, 15, -47.7907, -15.229, 37.9037, 29.7369, 73.6656, -153.661
5.73795, 16, -47.6366, -15.3198, 38.2005, 30.3346, 74.0246, -152.694
5.74312, 16, -47.5823, -15.3502, 38.2982, 30.5333, 74.1429, -152.374
5.75117, 17, -47.4698, -15.4116, 38.4907, 30.9293, 74.3774, -151.738
5.76292, 18, -47.2919, -15.5052, 38.7742, 31.5199, 74.7222, -150.79
5.76951, 18, -47.23, -15.5368, 38.8677, 31.7159, 74.9474, -150.166
5.77692, 19, -47.1026, -15.6011, 39.144, 32.301, 75.1681, -149.549
5.78312, 19, -46.9707, -15.6672, 39.2348, 32.4951, 75.2768, -149.243
5.79434, 20, -46.7638, -15.7701, 39.506, 33.0752, 75.595, -148.334
5.80019, 20, -46.6923, -15.8054, 39.5957, 33.2673, 75.6983, -148.035
5.8082, 21, -46.5455, -15.8778, 39.7729, 33.6501, 75.9011, -147.444
5.81518, 21, -46.394, -15.953, 39.9478, 34.0305, 76.0982, -146.86
5.82558, 22, -46.1576, -16.0708, 40.2074, 34.5959, 76.3829, -145.998
5.83528, 22, -45.9932, -16.1523, 40.3776, 34.9687, 76.5652, -145.433
5.84393, 23, -45.823, -16.2359, 40.5446, 35.3376, 76.7423, -144.874
5.84811, 23, -45.7355, -16.2785, 40.6273, 35.5205, 76.8285, -144.597
5.85825, 24, -45.463, -16.4093, 40.8711, 36.0623, 77.0791, -143.774
5.86412, 24, -45.3687, -16.4537, 40.9503, 36.2404, 77.1599, -143.502
5.87213, 25, -45.1751, -16.5434, 41.1054, 36.5923, 77.3178, -142.963
5.87911, 25, -44.9748, -16.6342, 41.2563, 36.9377, 77.4708, -142.426
5.88713, 26, -44.7679, -16.7257, 41.4027, 37.2766, 77.6192, -141.893
5.89854, 26, -44.5544, -16.8178, 41.5442, 37.6083, 77.8336, -141.098
5.90413, 27, -44.3339, -16.9101, 41.6801, 37.9327, 77.9031, -140.835
5.91266, 27, -44.1067, -17.0019, 41.8102, 38.2494, 78.0387, -140.308
5.92019, 28, -43.8731, -17.0929, 41.9343, 38.5577, 78.1704, -139.783
5.92912, 28, -43.6328, -17.183, 42.052, 38.858, 78.2985, -139.259
5.93834, 29, -43.2595, -17.3158, 42.2159, 39.2926, 78.4844, -138.475
5.94422, 29, -43.1317, -17.3593, 42.2671, 39.4332, 78.5448, -138.214
5.95215, 30, -42.871, -17.445, 42.3641, 39.7081, 78.6628, -137.691
5.95996, 30, -42.6024, -17.5289, 42.4539, 39.9746, 78.7782, -137.169
5.96723, 30, -42.3249, -17.6105, 42.5364, 40.2325, 78.8905, -136.648
5.97624, 31, -42.0391, -17.6895, 42.6118, 40.4819, 78.9999, -136.128
5.98641, 32, -41.7456, -17.7662, 42.6802, 40.7228, 79.107, -135.608
5.99128, 32, -41.4454, -17.8406, 42.7419, 40.9552, 79.2111, -135.089
6.00024, 33, -41.1387, -17.9123, 42.7967, 41.1794, 79.3128, -134.571
6.00816, 33, -40.8255, -17.9809, 42.8443, 41.3957, 79.4122, -134.054
6.01792, 34, -40.5058, -18.0462, 42.8847, 41.6036, 79.5086, -133.537
6.02412, 34, -40.1811, -18.109, 42.9177, 41.8034, 79.6025, -133.022
6.03186, 34, -39.8519, -18.169, 42.9435, 41.9953, 79.6941, -132.507
6.04019, 35, -39.5169, -18.2257, 42.9622, 42.1796, 79.7828, -131.994
6.04742, 35, -39.1753, -18.279, 42.9739, 42.3564, 79.8695, -131.482
6.05814, 36, -38.8262, -18.329, 42.9786, 42.5254, 79.9538, -130.971
6.06617, 37, -38.47, -18.3756, 42.9768, 42.6869, 80.0363, -130.462
6.07801, 37, -38.1079, -18.4189, 42.968, 42.8407, 80.156, -129.701
6.08076, 38, -37.74, -18.4583, 42.9523, 42.9871, 80.1948, -129.448
6.08781, 38, -37.3673, -18.4944, 42.9301, 43.1263, 80.2708, -128.943
6.09627, 39, -36.9902, -18.5271, 42.9012, 43.2577, 80.3449, -128.44
6.10582, 39, -36.6085, -18.5563, 42.8655, 43.3819, 80.4165, -127.939
6.1122, 40, -36.2221, -18.5817, 42.8232, 43.4988, 80.4867, -127.44
6.12032, 40, -35.8297, -18.6034, 42.7743, 43.6085, 80.5547, -126.943
6.13235, 41, -35.2301, -18.6283, 42.6887, 43.7595, 80.6533, -126.2
6.13816, 41, -35.0275, -18.6348, 42.6569, 43.806, 80.685, -125.953
6.14634, 42, -34.6189, -18.6451, 42.5886, 43.8944, 80.7478, -125.463
6.15297, 42, -34.207, -18.6522, 42.5138, 43.9753, 80.8076, -124.974
6.15911, 42, -33.9999, -18.6545, 42.4741, 44.0132, 80.837, -124.73
6.16712, 43, -33.5829, -18.6568, 42.3901, 44.0834, 80.8953, -124.244
6.17647, 44, -32.9481, -18.6536, 42.2531, 44.1758, 80.9779, -123.52
6.18523, 44, -32.5173, -18.6467, 42.1546, 44.2279, 81.032, -123.041
6.19434, 45, -32.08, -18.636, 42.0502, 44.2731, 81.0835, -122.564
6.19911, 45, -31.8593, -18.6293, 41.9958, 44.2931, 81.1086, -122.326
6.20984, 46, -31.1917, -18.6041, 41.8235, 44.3416, 81.1826, -121.616
6.21739, 46, -30.7441, -18.5829, 41.7012, 44.3639, 81.2288, -121.146
6.22712, 47, -30.2939, -18.5579, 41.5732, 44.3788, 81.2738, -120.679
6.23106, 47, -30.0671, -18.5438, 41.5069, 44.3834, 81.2963, -120.445
6.2416, 48, -29.3778, -18.4947, 41.2994, 44.3873, 81.3614, -119.749
6.24949, 48, -28.9101, -18.4566, 41.1533, 44.3795, 81.4031, -119.286
6.25701, 49, -28.4369, -18.4141, 41.0012, 44.363, 81.445, -118.826
6.26308, 49, -28.1988, -18.3912, 40.923, 44.3515, 81.4658, -118.597
6.27279, 50, -27.7214, -18.3421, 40.6792, 44.3022, 81.5269, -117.91
6.28171, 50, -27.2411, -18.2883, 40.5946, 44.281, 81.5679, -117.453
6.28869, 51, -26.7562, -18.229, 40.4204, 44.2323, 81.5891, -117.225
6.30008, 51, -26.0152, -18.1296, 40.1474, 44.1404, 81.6527, -116.543
6.3031, 52, -25.7644, -18.0937, 40.0528, 44.1051, 81.6739, -116.316
6.31473, 52, -25.0051, -17.9776, 39.7577, 43.9833, 81.7398, -115.635
6.32015, 53, -24.7508, -17.9363, 39.6562, 43.9375, 81.7623, -115.409
6.32714, 53, -24.2406, -17.8493, 39.4484, 43.8382, 81.8072, -114.956
6.33512, 54, -23.726, -17.7564, 39.2327, 43.7286, 81.8534, -114.504
6.34413, 54, -23.2047, -17.6574, 39.0097, 43.6082, 81.9022, -114.052
6.35258, 55, -22.6748, -17.5524, 38.7801, 43.477, 81.9523, -113.6
6.36009, 55, -22.1383, -17.4411, 38.5428, 43.3345, 82.0044, -113.149
6.37085, 56, -21.5987, -17.263, 38.1748, 43.0992, 82.0869, -112.471
6.37514, 56, -21.057, -17.2008, 38.0489, 43.0152, 82.1147, -112.245
6.38481, 57, -20.5106, -17.0722, 37.7916, 42.8387, 82.1722, -111.795
6.39211, 57, -19.9555, -16.9384, 37.5283, 42.651, 82.2314, -111.344
6.40483, 58, -19.107, -16.7272, 37.1206, 42.3467, 82.3229, -110.669
6.412, 58, -18.5351, -16.5793, 36.8412, 42.1283, 82.3864, -110.219
6.41608, 59, -18.2483, -16.5033, 36.6991, 42.0146, 82.4185, -109.995
6.42505, 59, -17.6727, -16.3474, 36.4101, 41.7781, 82.4855, -109.546
6.4321, 60, -17.0907, -16.1868, 36.1153, 41.529, 82.5538, -109.097
6.44013, 60, -16.4985, -16.021, 35.8142, 41.2671, 82.6249, -108.648
6.44822, 61, -15.8975, -15.8496, 35.5078, 40.9918, 82.6977, -108.199
6.45957, 61, -14.9885, -15.5834, 35.0365, 40.5531, 82.8114, -107.527
6.46411, 62, -14.684, -15.4925, 34.8765, 40.4004, 82.8505, -107.303
6.47357, 62, -14.0696, -15.3071, 34.5516, 40.0844, 82.9313, -106.854
6.47921, 63, -13.4447, -15.1154, 34.2217, 39.7547, 83.0146, -106.405
6.48868, 63, -12.8102, -14.9166, 33.8864, 39.41, 83.1012, -105.955
6.49609, 64, -12.1698, -14.7124, 33.5461, 39.0504, 83.1913, -105.505
6.50325, 64, -11.5259, -14.5031, 33.1996, 38.6763, 83.285, -105.053
6.51536, 65, -10.5459, -14.1757, 32.6685, 38.0874, 83.4338, -104.373
6.52384, 65, -9.87945, -13.949, 32.3076, 37.6755, 83.539, -103.918
6.52732, 66, -9.54283, -13.8335, 32.1255, 37.4633, 83.5935, -103.689
6.53678, 66, -8.86452, -13.5981, 31.7578, 37.0278, 83.7067, -103.231
6.54609, 67, -8.18172, -13.3557, 31.385, 36.5767, 83.825, -102.771
6.55552, 67, -7.14169, -12.9782, 30.8148, 35.8716, 84.0135, -102.077
6.5601, 68, -6.79007, -12.8484, 30.6224, 35.6285, 84.0794, -101.845
6.56833, 68, -6.08064, -12.5839, 30.2352, 35.131, 84.2162, -101.378
6.57752, 69, -5.36466, -12.3133, 29.8435, 34.6186, 84.3603, -100.909
6.58437, 69, -4.64257, -12.035, 29.4474, 34.0905, 84.5109, -100.437
6.59311, 70, -3.91197, -11.7493, 29.0479, 33.5485, 84.6687, -99.9636
6.60384, 70, -2.8004, -11.3072, 28.4455, 32.7074, 84.9181, -99.2479
6.6124, 71, -2.0506, -11.0036, 28.0414, 32.129, 85.0928, -98.7687
6.61656, 71, -1.67308, -10.8494, 27.8386, 31.8351, 85.1829, -98.5283
6.6264, 72, -0.912385, -10.5351, 27.4324, 31.2375, 85.3688, -98.0453
6.63279, 72, -0.144993, -10.2142, 27.0254, 30.6251, 85.5622, -97.56
6.64053, 73, 0.628378, -9.88612, 26.6182, 30.0013, 85.7633, -97.0718
6.64895, 73, 1.40777, -9.55029, 26.2114, 29.3663, 85.9717, -96.582
6.65582, 74, 1.79954, -9.37989, 25.8047, 28.7209, 86.1882, -96.0895
6.6687, 74, 3.37789, -8.68237, 25.1977, 27.7348, 86.5277, -95.3464
6.67239, 75, 3.77507, -8.50388, 24.9967, 27.4013, 86.6448, -95.0975
6.68207, 75, 4.57267, -8.14116, 24.5964, 26.7292, 86.8848, -94.5984
6.68901, 76, 5.37307, -7.77171, 24.199, 26.0521, 87.1334, -94.0974
6.6973, 76, 6.17526, -7.39525, 23.8048, 25.3682, 87.3904, -93.5938
6.70474, 77, 6.97813, -7.01151, 23.4152, 24.6814, 87.6563, -93.0879
6.7218, 78, 8.58907, -6.21802, 22.6463, 23.3, 88.2164, -92.0682
6.72348, 78, 8.58907, -6.21802, 22.6463, 23.3, 88.2164, -92.0682
6.73706, 79, 10.1988, -5.39176, 21.8967, 21.9147, 88.8151, -91.0351
6.73837, 79, 10.1988, -5.39176, 21.8967, 21.9147, 88.8151, -91.0351
6.74296, 79, 10.6008, -5.17929, 21.7125, 21.5692, 88.9708, -90.7744
6.75093, 79, 11.4033, -4.74715, 21.3472, 20.8807, 89.29, -90.2502
6.76056, 80, 12.2021, -4.30579, 20.9871, 19.8511, 89.7881, -89.4561
6.76882, 81, 13.392, -3.62542, 20.457, 19.172, 90.1336, -88.9207
6.77593, 81, 13.7864, -3.39386, 20.2831, 18.8354, 90.3102, -88.6515
6.78484, 82, 14.5699, -2.92478, 19.9389, 18.1687, 90.8552, -87.8372
6.79198, 82, 15.3441, -2.44718, 19.6016, 17.5111, 91.0417, -87.564
6.7999, 83, 16.1079, -1.96161, 19.2716, 16.8648, 91.422, -87.0139
6.80706, 83, 16.8609, -1.46845, 18.9493, 16.2333, 91.8106, -86.4608
6.81495, 83, 17.6007, -0.968964, 18.6348, 15.6192, 92.207, -85.9055
6.82294, 84, 18.3231, -0.465418, 18.3289, 15.0229, 92.6097, -85.3502
6.83216, 85, 19.0274, 0.0423858, 18.0324, 14.4494, 93.0185, -84.7945
6.84, 85, 19.7156, 0.556801, 17.7446, 13.8995, 93.4321, -84.2403
6.84797, 85, 20.3876, 1.07718, 17.466, 13.3741, 93.8503, -83.6881
6.85502, 86, 21.0432, 1.6014, 17.195, 12.8733, 94.2713, -83.1385
6.86393, 86, 21.6834, 2.12996, 16.932, 12.3958, 94.6962, -82.589
6.87098, 87, 22.3101, 2.6653, 16.6762, 11.9413, 95.1258, -82.0386
6.87998, 87, 22.9252, 3.20969, 16.4257, 11.5074, 95.5614, -81.4849
6.88691, 88, 23.5292, 3.76265, 16.1799, 11.0929, 96.003, -80.9273
6.89597, 88, 24.1214, 4.32261, 15.9376, 10.6949, 96.4509, -80.3614
6.90491, 89, 24.7015, 4.89147, 15.7002, 10.313, 96.9049, -79.7866
6.91193, 89, 25.2695, 5.47092, 15.4689, 9.94615, 97.3659, -79.2013
6.92017, 90, 25.8276, 6.06018, 15.241, 9.59549, 97.833, -78.6052
6.928, 90, 26.3793, 6.65849, 15.0163, 9.25927, 98.3065, -77.996
6.93617, 91, 26.9219, 7.26501, 14.7964, 8.93971, 98.7864, -77.3739
6.94395, 91, 27.4517, 7.88061, 14.5816, 8.63819, 99.2725, -76.7403
6.95215, 92, 27.9688, 8.50649, 14.3714, 8.35625, 99.7639, -76.0957
6.959, 92, 28.4764, 9.143, 14.1658, 8.09612, 100.259, -75.4403
6.96813, 93, 28.9764, 9.78889, 13.9652, 7.85867, 100.758, -74.7773
6.97509, 93, 29.4657, 10.4417, 13.771, 7.64429, 101.257, -74.1074
6.98303, 93, 29.9417, 11.0998, 13.5849, 7.45364, 101.757, -73.4304
6.9911, 94, 30.4029, 11.7613, 13.4067, 7.28664, 102.254, -72.7475
7.0002, 95, 30.8493, 12.4252, 13.2353, 7.14329, 102.749, -72.0604
7.00702, 95, 31.2818, 13.0907, 13.0715, 7.02398, 103.24, -71.3675
7.01593, 96, 31.7008, 13.758, 12.9157, 6.9281, 103.728, -70.6689
7.02398, 96, 32.1056, 14.4263, 12.7666, 6.85592, 104.212, -69.9656
7.03217, 97, 32.4947, 15.0951, 12.6239, 6.80809, 104.692, -69.2566
7.03901, 97, 32.8674, 15.7636, 12.4882, 6.78128, 105.167, -68.5413
7.04822, 98, 33.2237, 16.4305, 12.3604, 6.77596, 105.637, -67.8231
7.05508, 98, 33.5651, 17.095, 12.2412, 6.79295, 106.098, -67.1015
7.06405, 98, 33.8927, 17.7551, 12.1309, 6.8302, 106.551, -66.3766
7.07121, 99, 34.2069, 18.4095, 12.0299, 6.88746, 106.993, -65.6525
7.07994, 99, 34.5094, 19.0562, 11.938, 6.96374, 107.424, -64.9297
7.08735, 100, 34.8007, 19.6949, 11.8548, 7.05727, 107.842, -64.2081
7.09602, 100, 35.0802, 20.324, 11.7801, 7.16791, 108.246, -63.4919
7.10402, 101, 35.3477, 20.9421, 11.7135, 7.29373, 108.636, -62.7819
7.11209, 101, 35.604, 21.5493, 11.6554, 7.43371, 109.011, -62.0782
7.12004, 102, 35.8485, 22.1439, 11.6059, 7.58602, 109.369, -61.3849
7.1277, 102, 36.0805, 22.7254, 11.5649, 7.74905, 109.709, -60.7031
7.1361, 103, 36.3024, 23.2919, 11.5327, 7.9215, 110.032, -60.032
7.14393, 103, 36.5169, 23.8427, 11.5094, 8.10283, 110.337, -59.3734
7.15188, 104, 36.7241, 24.3776, 11.4952, 8.29312, 110.622, -58.7288
7.16004, 104, 36.9235, 24.8961, 11.4891, 8.49272, 110.887, -58.096
7.16691, 104, 37.0208, 25.149, 11.4887, 8.59578, 111.012, -57.7841
7.17498, 104, 37.2108, 25.643, 11.4929, 8.80778, 111.246, -57.1702
7.18418, 104, 37.481, 26.3529, 11.5097, 9.13737, 111.561, -56.2763
7.19091, 104, 37.5663, 26.5812, 11.5171, 9.24932, 111.658, -55.9858
7.20098, 104, 37.8106, 27.2423, 11.5435, 9.58707, 111.924, -55.141
7.20832, 104, 37.9665, 27.6631, 11.5641, 9.81046, 112.085, -54.6038
7.21498, 104, 38.0427, 27.8675, 11.5746, 9.92088, 112.162, -54.3439
7.22296, 104, 38.191, 28.2635, 11.5957, 10.1384, 112.31, -53.8404
7.23251, 104, 38.4014, 28.8267, 11.626, 10.4538, 112.516, -53.13
7.24048, 104, 38.5327, 29.1797, 11.6446, 10.6555, 112.644, -52.6863
7.24847, 104, 38.6561, 29.5147, 11.6622, 10.8491, 112.764, -52.268
7.25655, 104, 38.7714, 29.8305, 11.6787, 11.0341, 112.876, -51.8748
7.26457, 104, 38.8258, 29.9813, 11.6864, 11.1232, 112.98, -51.5061
7.27268, 104, 38.9285, 30.2693, 11.7011, 11.294, 113.03, -51.3313
7.28, 104, 39.0236, 30.5379, 11.7149, 11.4548, 113.123, -51.0012
7.28796, 104, 39.111, 30.7866, 11.7273, 11.605, 113.209, -50.6961
7.29595, 104, 39.1905, 31.0159, 11.7384, 11.7442, 113.287, -50.4161
7.30494, 104, 39.262, 31.2253, 11.7487, 11.9318, 113.392, -50.0436
7.31199, 104, 39.3259, 31.4147, 11.7582, 11.9884, 113.423, -49.9322
7.31997, 104, 39.3821, 31.585, 11.7666, 12.0931, 113.48, -49.7279
7.32797, 104, 39.4314, 31.7356, 11.7741, 12.1851, 113.53, -49.5486
7.33591, 104, 39.4744, 31.8675, 11.7808, 12.2654, 113.572, -49.394
7.34392, 104, 39.5118, 31.9817, 11.787, 12.3334, 113.608, -49.2633
7.35204, 104, 39.5431, 32.0791, 11.7924, 12.3904, 113.638, -49.1559
7.35991, 104, 39.5689, 32.1605, 11.7973, 12.4351, 113.662, -49.0692
7.36792, 104, 39.5897, 32.2277, 11.8016, 12.4701, 113.68, -49.0025
7.37598, 104, 39.6061, 32.2822, 11.8056, 12.4965, 113.693, -48.9531
7.38392, 104, 39.6186, 32.3256, 11.8091, 12.5156, 113.702, -48.9181
7.39193, 104, 39.6282, 32.3587, 11.8123, 12.5289, 113.708, -48.8946
7.40188, 104, 39.6378, 32.3934, 11.8165, 12.5404, 113.712, -48.8749
7.40791, 104, 39.64, 32.402, 11.8177, 12.5426, 113.713, -48.8714
7.41592, 104, 39.6429, 32.4152, 11.8197, 12.5455, 113.714, -48.8671
7.42395, 105, 39.6445, 32.4237, 11.8212, 12.5469, 113.715, -48.8652
7.43195, 105, 39.645, 32.429, 11.8223, 12.5476, 113.715, -48.8644
7.43992, 105, 39.6445, 32.4325, 11.8233, 12.548, 113.715, -48.8643
7.44798, 105, 39.6435, 32.4349, 11.8241, 12.5481, 113.715, -48.8644
7.45591, 105, 39.6424, 32.4367, 11.8248, 12.5483, 113.715, -48.8647
7.46391, 105, 39.6414, 32.4382, 11.8255, 12.5483, 113.715, -48.865
7.47199, 105, 39.6403, 32.4394, 11.8261, 12.5483, 113.715, -48.8654
7.47991, 105, 39.6394, 32.4406, 11.8266, 12.5483, 113.715, -48.8657
7.48797, 105, 39.6389, 32.4417, 11.8272, 12.5483, 113.715, -48.866
7.49598, 105, 39.6385, 32.4428, 11.8278, 12.5483, 113.715, -48.8664
7.50391, 105, 39.6382, 32.4438, 11.8283, 12.5483, 113.715, -48.8667
7.51193, 105, 39.638, 32.4447, 11.8288, 12.5483, 113.715, -48.867
7.51996, 105, 39.6376, 32.4454, 11.8292, 12.5483, 113.715, -48.8673
7.52791, 105, 39.6373, 32.4459, 11.8295, 12.5483, 113.715, -48.8676
7.53599, 105, 39.637, 32.4461, 11.8297, 12.5483, 113.715, -48.8679
7.54393, 105, 39.6367, 32.4462, 11.83, 12.5483, 113.715, -48.8681
