hehonglu123/Motion-Primitive-Planning/ILC/recorded_data/realrobot/from_NX/iteration_0/run_4.csv
timestamp, cmd_num, J1, J2, J3, J4, J5, J6
0.000382, -1, 39.6321, 32.4461, 11.8315, 12.547, 113.714, -48.8708
0.006083, -1, 39.632, 32.4461, 11.8315, 12.5469, 113.714, -48.8708
0.008093, -1, 39.632, 32.4461, 11.8315, 12.5469, 113.714, -48.8708
0.031424, -1, 39.632, 32.4461, 11.8315, 12.5469, 113.714, -48.8708
0.032676, -1, 39.632, 32.4461, 11.8315, 12.5469, 113.714, -48.8708
0.036412, -1, 39.632, 32.4461, 11.8315, 12.5469, 113.714, -48.8708
0.040414, -1, 39.632, 32.4461, 11.8315, 12.5469, 113.714, -48.8708
0.047476, -1, 39.632, 32.4461, 11.8315, 12.5469, 113.714, -48.8708
0.055534, -1, 39.6315, 32.446, 11.8315, 12.5469, 113.714, -48.8708
0.063449, -1, 39.6292, 32.4456, 11.8315, 12.547, 113.714, -48.8708
0.071518, -1, 39.624, 32.4442, 11.8314, 12.547, 113.714, -48.871
0.079583, -1, 39.6153, 32.4412, 11.8314, 12.547, 113.713, -48.8723
0.209239, -1, 38.0759, 31.6498, 12.1432, 12.5613, 112.892, -50.9676
0.211916, -1, 38.0759, 31.6498, 12.1432, 12.5625, 112.841, -51.0955
0.213232, -1, 37.9847, 31.6024, 12.1627, 12.5625, 112.841, -51.0955
0.215287, -1, 37.9847, 31.5545, 12.1821, 12.5637, 112.79, -51.2241
0.216673, -1, 37.8923, 31.5545, 12.1821, 12.5637, 112.79, -51.2241
0.217937, -1, 37.8923, 31.5545, 12.1821, 12.5637, 112.79, -51.2241
0.219925, -1, 37.799, 31.5062, 12.2015, 12.5648, 112.739, -51.3532
0.224612, -1, 37.7049, 31.4577, 12.2209, 12.566, 112.688, -51.4826
0.225878, -1, 37.7049, 31.4577, 12.2209, 12.566, 112.688, -51.4826
0.228008, -1, 37.61, 31.4089, 12.2403, 12.5673, 112.637, -51.6123
0.229236, -1, 37.61, 31.4089, 12.2403, 12.5673, 112.637, -51.6123
0.230501, -1, 37.61, 31.4089, 12.2403, 12.5673, 112.637, -51.6123
0.232508, -1, 37.5147, 31.36, 12.2597, 12.5685, 112.586, -51.742
0.233785, -1, 37.5147, 31.36, 12.2597, 12.5685, 112.586, -51.742
0.236563, -1, 37.419, 31.3111, 12.2791, 12.5698, 112.535, -51.8717
0.23826, -1, 37.419, 31.3111, 12.2791, 12.5698, 112.535, -51.8717
0.240336, -1, 37.3231, 31.2621, 12.2984, 12.571, 112.483, -52.0015
0.241618, -1, 37.3231, 31.2621, 12.2984, 12.571, 112.483, -52.0015
0.243534, -1, 37.2271, 31.2131, 12.3179, 12.5722, 112.432, -52.1313
0.244884, -1, 37.2271, 31.2131, 12.3179, 12.5722, 112.432, -52.1313
0.249252, -1, 37.131, 31.1642, 12.3373, 12.5734, 112.38, -52.261
0.25558, -1, 36.9388, 31.0665, 12.3759, 12.5761, 112.277, -52.5209
0.263989, -1, 36.7469, 30.9688, 12.4147, 12.5786, 112.174, -52.7812
0.271731, -1, 36.5552, 30.8711, 12.4536, 12.5812, 112.072, -53.0415
0.279772, -1, 36.3636, 30.7734, 12.4925, 12.5838, 111.969, -53.3018
0.287925, -1, 36.1722, 30.6756, 12.5313, 12.5863, 111.866, -53.5622
0.295877, -1, 35.9807, 30.5777, 12.5701, 12.5889, 111.763, -53.8228
0.30394, -1, 35.7892, 30.4797, 12.6091, 12.5915, 111.66, -54.0834
0.312554, -1, 35.5974, 30.3817, 12.648, 12.594, 111.557, -54.3436
0.319985, -1, 35.4054, 30.2835, 12.6868, 12.5967, 111.454, -54.6039
0.328557, -1, 35.2132, 30.1852, 12.7256, 12.5993, 111.351, -54.8645
0.33608, -1, 35.0207, 30.0869, 12.7645, 12.6018, 111.248, -55.1253
0.343991, -1, 34.9245, 30.0377, 12.784, 12.6031, 111.196, -55.3858
0.351466, -1, 34.7323, 29.9392, 12.8227, 12.6058, 111.093, -55.5161
0.359489, -1, 34.54, 29.8407, 12.8616, 12.6083, 110.99, -55.7769
0.367449, -1, 34.3478, 29.7423, 12.9006, 12.6109, 110.887, -56.0378
0.375445, -1, 34.1557, 29.644, 12.9395, 12.6135, 110.784, -56.2988
0.383509, -1, 33.9639, 29.5457, 12.9785, 12.6162, 110.681, -56.5595
0.391454, -1, 33.7722, 29.4474, 13.0174, 12.6189, 110.578, -56.8202
0.399446, -1, 33.5804, 29.349, 13.0562, 12.6215, 110.475, -57.0812
0.407447, -1, 33.3882, 29.2506, 13.0952, 12.6242, 110.372, -57.3425
0.415539, -1, 33.1956, 29.1521, 13.1341, 12.6268, 110.269, -57.6033
0.423463, -1, 33.0029, 29.0535, 13.1729, 12.6294, 110.165, -57.8644
0.431447, -1, 32.8099, 28.9549, 13.2119, 12.6321, 110.063, -58.1254
0.440995, -1, 32.5198, 28.807, 13.2702, 12.6361, 109.908, -58.5174
0.449104, -1, 32.3261, 28.7083, 13.3091, 12.6388, 109.805, -58.7783
0.455441, -1, 32.2291, 28.659, 13.3286, 12.6402, 109.753, -58.9088
0.463506, -1, 32.035, 28.5602, 13.3674, 12.6429, 109.65, -59.17
0.47317, -1, 31.8411, 28.4614, 13.4063, 12.6469, 109.496, -59.5621
0.479439, -1, 31.6475, 28.3627, 13.4454, 12.6483, 109.444, -59.6927
0.487515, -1, 31.454, 28.264, 13.4844, 12.6512, 109.341, -59.954
0.496502, -1, 31.261, 28.1654, 13.5233, 12.6539, 109.238, -60.2153
0.503436, -1, 31.0684, 28.067, 13.5624, 12.6567, 109.135, -60.4767
0.511543, -1, 30.8762, 27.9685, 13.6014, 12.6596, 109.032, -60.7383
0.519437, -1, 30.6842, 27.8699, 13.6404, 12.6624, 108.929, -60.9995
0.527506, -1, 30.4923, 27.7713, 13.6794, 12.6652, 108.825, -61.2608
0.535437, -1, 30.3002, 27.6725, 13.7184, 12.668, 108.722, -61.5223
0.543465, -1, 30.108, 27.5737, 13.7574, 12.6706, 108.619, -61.7841
0.55152, -1, 29.9155, 27.475, 13.7964, 12.6734, 108.516, -62.0456
0.559435, -1, 29.7224, 27.3763, 13.8352, 12.676, 108.412, -62.3073
0.56744, -1, 29.5287, 27.2775, 13.8741, 12.6787, 108.309, -62.5689
0.5755, -1, 29.3347, 27.1787, 13.9131, 12.6812, 108.206, -62.8308
0.583491, -1, 29.1405, 27.0798, 13.9521, 12.6838, 108.103, -63.0924
0.591467, -1, 28.946, 26.9809, 13.9911, 12.6863, 107.999, -63.3538
0.599505, -1, 28.7518, 26.882, 14.03, 12.6888, 107.896, -63.6154
0.607438, -1, 28.5576, 26.7831, 14.069, 12.6912, 107.792, -63.8771
0.615521, -1, 28.3637, 26.6844, 14.1081, 12.6938, 107.689, -64.1389
0.623443, -1, 28.1704, 26.5857, 14.1471, 12.6961, 107.586, -64.4003
0.631435, -1, 27.9774, 26.4869, 14.1861, 12.6985, 107.483, -64.6621
0.639507, -1, 27.7846, 26.388, 14.2251, 12.701, 107.379, -64.924
0.647438, -1, 27.5921, 26.2892, 14.264, 12.7034, 107.276, -65.1858
0.655441, -1, 27.4, 26.1902, 14.303, 12.7059, 107.173, -65.4473
0.663518, -1, 27.2079, 26.0912, 14.3421, 12.7082, 107.069, -65.7088
0.797967, -1, 24.0187, 24.4604, 14.9851, 12.7463, 105.366, -70.0269
0.799903, -1, 23.9223, 24.411, 15.0046, 12.7475, 105.314, -70.1577
0.801306, -1, 23.9223, 24.411, 15.0046, 12.7475, 105.314, -70.1577
0.802638, -1, 23.9223, 24.411, 15.0046, 12.7475, 105.314, -70.1577
0.805443, -1, 23.8259, 24.3616, 15.024, 12.7488, 105.262, -70.2886
0.806672, -1, 23.8259, 24.3616, 15.024, 12.7488, 105.262, -70.2886
0.80872, -1, 23.7294, 24.3122, 15.0434, 12.75, 105.21, -70.4194
0.81214, -1, 23.6329, 24.2627, 15.0629, 12.7512, 105.159, -70.5503
0.813504, -1, 23.6329, 24.2627, 15.0629, 12.7512, 105.159, -70.5503
0.814845, -1, 23.6329, 24.2627, 15.0629, 12.7512, 105.159, -70.5503
0.81688, -1, 23.5363, 24.2133, 15.0824, 12.7523, 105.107, -70.6813
0.818203, -1, 23.5363, 24.2133, 15.0824, 12.7523, 105.107, -70.6813
0.820919, -1, 23.4397, 24.1639, 15.1018, 12.7536, 105.055, -70.8121
0.822339, -1, 23.4397, 24.1639, 15.1018, 12.7536, 105.055, -70.8121
0.824405, -1, 23.3429, 24.1145, 15.1213, 12.7548, 105.004, -70.9429
0.82632, -1, 23.3429, 24.1145, 15.1213, 12.7548, 105.004, -70.9429
0.828989, -1, 23.2459, 24.0651, 15.1408, 12.756, 104.952, -71.0737
0.830352, -1, 23.2459, 24.0651, 15.1408, 12.756, 104.952, -71.0737
0.832415, -1, 23.149, 24.0156, 15.1602, 12.7573, 104.9, -71.2046
0.833751, -1, 23.149, 24.0156, 15.1602, 12.7573, 104.9, -71.2046
0.834948, -1, 23.149, 24.0156, 15.1602, 12.7573, 104.9, -71.2046
0.840065, -1, 23.052, 23.9661, 15.1991, 12.7597, 104.797, -71.4663
0.848071, -1, 22.8579, 23.8673, 15.2186, 12.7609, 104.694, -71.7283
0.855431, -1, 22.6639, 23.7685, 15.2576, 12.7634, 104.642, -71.8592
0.863436, -1, 22.4701, 23.6698, 15.2965, 12.7658, 104.539, -72.1206
0.871513, -1, 22.2767, 23.5712, 15.3355, 12.7684, 104.435, -72.3819
0.879488, -1, 22.0835, 23.4725, 15.3744, 12.771, 104.332, -72.6434
0.887465, -1, 21.8905, 23.3738, 15.4134, 12.7736, 104.229, -72.9051
0.895409, -1, 21.698, 23.275, 15.4524, 12.7763, 104.125, -73.1663
0.903445, -1, 21.5059, 23.1762, 15.4913, 12.7789, 104.022, -73.4277
0.911497, -1, 21.3136, 23.0774, 15.5303, 12.7816, 103.919, -73.6892
0.919468, -1, 21.1213, 22.9788, 15.5693, 12.7843, 103.816, -73.9508
0.927477, -1, 20.9289, 22.8801, 15.6082, 12.787, 103.713, -74.2121
0.935473, -1, 20.7364, 22.7816, 15.6471, 12.7897, 103.61, -74.4732
0.943451, -1, 20.5438, 22.683, 15.686, 12.7924, 103.506, -74.7345
0.95145, -1, 20.3506, 22.5844, 15.7249, 12.7951, 103.404, -74.9959
0.959483, -1, 20.1569, 22.4856, 15.7639, 12.7978, 103.301, -75.2571
0.96908, -1, 19.9632, 22.3376, 15.8221, 12.8019, 103.146, -75.6488
0.975427, -1, 19.7696, 22.2883, 15.8414, 12.8033, 103.095, -75.7794
0.984427, -1, 19.576, 22.1897, 15.8803, 12.8059, 102.992, -76.0407
0.991412, -1, 19.3826, 22.091, 15.9193, 12.8087, 102.888, -76.302
0.999432, -1, 19.1895, 21.9923, 15.9581, 12.8114, 102.786, -76.5629
1.00749, -1, 18.9967, 21.8937, 15.9971, 12.8141, 102.682, -76.8236
1.01542, -1, 18.8043, 21.795, 16.0358, 12.8168, 102.579, -77.0845
1.02345, -1, 18.6122, 21.6962, 16.0746, 12.8195, 102.477, -77.3457
1.03152, -1, 18.4204, 21.5977, 16.1135, 12.8222, 102.374, -77.6063
1.03942, -1, 18.2286, 21.4992, 16.1523, 12.8248, 102.271, -77.867
1.04749, -1, 18.0367, 21.4007, 16.1911, 12.8273, 102.168, -78.1278
1.05544, -1, 17.8449, 21.3024, 16.2301, 12.8299, 102.065, -78.3887
1.06343, -1, 17.6529, 21.204, 16.2689, 12.8323, 101.962, -78.6493
1.0715, -1, 17.4604, 21.1057, 16.3077, 12.8349, 101.859, -78.9096
1.07942, -1, 17.2676, 21.0074, 16.3465, 12.8373, 101.756, -79.1701
1.08747, -1, 17.0744, 20.9092, 16.3853, 12.8397, 101.653, -79.4309
1.09551, -1, 16.8814, 20.8109, 16.4241, 12.842, 101.55, -79.6914
1.10344, -1, 16.6883, 20.7128, 16.4629, 12.8443, 101.448, -79.9518
1.11142, -1, 16.4952, 20.6146, 16.5016, 12.8467, 101.345, -80.2122
1.11951, -1, 16.3024, 20.5163, 16.5403, 12.8489, 101.242, -80.4729
1.12742, -1, 16.1101, 20.4179, 16.5791, 12.8512, 101.14, -80.7335
1.13541, -1, 15.9182, 20.3195, 16.6178, 12.8536, 101.037, -80.9936
1.14357, -1, 15.7265, 20.2209, 16.6565, 12.8559, 100.934, -81.2536
1.15142, -1, 15.5352, 20.1225, 16.6951, 12.8582, 100.832, -81.5138
1.15959, -1, 15.3441, 20.0242, 16.7337, 12.8605, 100.729, -81.774
1.16826, -1, 15.1529, 19.926, 16.7726, 12.8628, 100.627, -82.0338
1.17545, -1, 14.9618, 19.8278, 16.8112, 12.8651, 100.524, -82.2936
1.18359, -1, 14.7705, 19.7297, 16.8499, 12.8674, 100.422, -82.5534
1.19236, -1, 14.579, 19.6315, 16.8886, 12.8696, 100.319, -82.8136
1.19951, -1, 14.3871, 19.5334, 16.9273, 12.8719, 100.216, -83.0733
1.20761, -1, 14.1949, 19.4354, 16.966, 12.8742, 100.114, -83.3327
1.21632, -1, 14.0025, 19.3374, 17.0047, 12.8764, 100.011, -83.5924
1.22352, -1, 13.8101, 19.2396, 17.0433, 12.8787, 99.9087, -83.852
1.23156, -1, 13.6175, 19.1418, 17.0819, 12.8811, 99.8062, -84.1116
1.24035, -1, 13.4251, 19.0439, 17.1207, 12.8834, 99.7037, -84.3708
1.24746, -1, 13.2332, 18.946, 17.1591, 12.8857, 99.6015, -84.6301
1.2556, -1, 13.0417, 18.8481, 17.1977, 12.8881, 99.4991, -84.8894
1.26455, -1, 12.8504, 18.7501, 17.2364, 12.8904, 99.3966, -85.1489
1.27167, -1, 12.6595, 18.6521, 17.2749, 12.8928, 99.2945, -85.4079
1.28001, -1, 12.4688, 18.5543, 17.3135, 12.8953, 99.1921, -85.6667
1.28912, -1, 12.2787, 18.4565, 17.352, 12.8977, 99.0898, -85.9256
1.29646, -1, 12.0885, 18.3588, 17.3905, 12.9001, 98.9879, -86.1847
1.30467, -1, 11.8981, 18.2612, 17.4292, 12.9025, 98.8857, -86.4434
1.31192, -1, 11.7077, 18.1636, 17.4678, 12.9049, 98.7838, -86.7018
1.32002, -1, 11.5168, 18.0659, 17.5062, 12.9074, 98.682, -86.9604
1.32896, -1, 11.3258, 17.9684, 17.5448, 12.9098, 98.58, -87.2192
1.33598, -1, 11.2302, 17.8708, 17.5834, 12.9122, 98.478, -87.4777
1.34457, -1, 10.943, 17.7734, 17.6218, 12.9147, 98.3762, -87.7359
1.35141, -1, 10.8471, 17.7247, 17.6411, 12.916, 98.3252, -87.865
1.35942, -1, 10.6554, 17.6272, 17.6795, 12.9185, 98.2232, -88.1233
1.36746, -1, 10.4639, 17.5297, 17.7179, 12.9211, 98.1215, -88.3817
1.3754, -1, 10.2728, 17.4322, 17.7563, 12.9235, 98.0196, -88.6397
1.38341, -1, 10.082, 17.3346, 17.7947, 12.9261, 97.9177, -88.8977
1.39261, -1, 9.79645, 17.1882, 17.8522, 12.9301, 97.7649, -89.285
1.39942, -1, 9.70141, 17.1394, 17.8713, 12.9314, 97.7139, -89.4141
1.40749, -1, 9.51187, 17.042, 17.9097, 12.9342, 97.612, -89.6721
1.41541, -1, 9.32265, 16.9447, 17.948, 12.937, 97.5102, -89.9296
1.42345, -1, 9.13329, 16.8473, 17.9864, 12.9396, 97.4083, -90.1871
1.43287, -1, 8.84921, 16.7016, 18.0439, 12.9436, 97.2557, -90.5737
1.43941, -1, 8.75446, 16.653, 18.0631, 12.9449, 97.2048, -90.7024
1.4474, -1, 8.56492, 16.5559, 18.1015, 12.9475, 97.1031, -90.9595
1.4555, -1, 8.37513, 16.4588, 18.1398, 12.9503, 97.0016, -91.2166
1.46341, -1, 8.18476, 16.3618, 18.1781, 12.9529, 96.9001, -91.4738
1.47396, -1, 7.99424, 16.265, 18.2165, 12.9555, 96.7984, -91.8596
1.47947, -1, 7.80368, 16.1681, 18.2547, 12.9582, 96.697, -91.988
1.48849, -1, 7.61304, 16.0711, 18.293, 12.9608, 96.5955, -92.2447
1.49542, -1, 7.42262, 15.9742, 18.3314, 12.9633, 96.494, -92.5015
1.50347, -1, 7.23244, 15.8772, 18.3695, 12.9659, 96.3929, -92.7583
1.5114, -1, 7.04265, 15.7802, 18.4076, 12.9684, 96.2915, -93.0149
1.5194, -1, 6.85323, 15.6833, 18.446, 12.971, 96.1902, -93.2714
1.5274, -1, 6.66431, 15.5864, 18.484, 12.9734, 96.0897, -93.5277
1.53542, -1, 6.47589, 15.4896, 18.5221, 12.9759, 95.9884, -93.7841
1.54348, -1, 6.28769, 15.3929, 18.5603, 12.9784, 95.8874, -94.0406
1.55142, -1, 6.09958, 15.2962, 18.5984, 12.9809, 95.7867, -94.2964
1.55942, -1, 5.91133, 15.1996, 18.6366, 12.9832, 95.6856, -94.5523
1.56747, -1, 5.72298, 15.1029, 18.6748, 12.9855, 95.5846, -94.8083
1.5754, -1, 5.5345, 15.0063, 18.7128, 12.9879, 95.4841, -95.0644
1.58339, -1, 5.34576, 14.9098, 18.7509, 12.9901, 95.3832, -95.32
1.59153, -1, 5.15655, 14.8134, 18.7891, 12.9924, 95.2824, -95.5753
1.59942, -1, 4.96709, 14.7171, 18.8271, 12.9947, 95.182, -95.8307
1.60741, -1, 4.77766, 14.6207, 18.8652, 12.9969, 95.0811, -96.0863
1.61548, -1, 4.58815, 14.5244, 18.9033, 12.9991, 94.9803, -96.3416
1.62342, -1, 4.39892, 14.428, 18.9413, 13.0013, 94.8797, -96.5965
1.63141, -1, 4.20999, 14.3317, 18.9793, 13.0034, 94.7788, -96.8513
1.63948, -1, 4.02135, 14.2353, 19.0173, 13.0057, 94.6779, -97.1063
1.64741, -1, 3.83332, 14.1391, 19.0552, 13.008, 94.5771, -97.3614
1.65547, -1, 3.64584, 14.0429, 19.0931, 13.0102, 94.4763, -97.6161
1.66362, -1, 3.45868, 13.9468, 19.1311, 13.0126, 94.3758, -97.871
1.67144, -1, 3.2718, 13.8508, 19.1689, 13.0149, 94.2751, -98.1257
1.67953, -1, 3.08484, 13.7548, 19.2068, 13.0172, 94.1744, -98.3805
1.68785, -1, 2.89786, 13.6587, 19.2447, 13.0194, 94.0738, -98.6348
1.6955, -1, 2.71081, 13.5627, 19.2826, 13.0217, 93.9731, -98.889
1.70361, -1, 2.52353, 13.4667, 19.3205, 13.0239, 93.8727, -99.1431
1.71187, -1, 2.3361, 13.3709, 19.3583, 13.0262, 93.7724, -99.3973
1.7195, -1, 2.1482, 13.2751, 19.3961, 13.0284, 93.672, -99.6513
1.72761, -1, 1.96005, 13.1793, 19.434, 13.0306, 93.5719, -99.9048
1.73606, -1, 1.77189, 13.0834, 19.4717, 13.0329, 93.472, -100.158
1.74349, -1, 1.58358, 12.9876, 19.5094, 13.0352, 93.3718, -100.412
1.75153, -1, 1.39543, 12.8918, 19.5473, 13.0375, 93.2717, -100.666
1.7604, -1, 1.20759, 12.7959, 19.585, 13.0398, 93.1719, -100.919
1.76762, -1, 1.02016, 12.7002, 19.6227, 13.0421, 93.0718, -101.172
1.77569, -1, 0.833484, 12.6046, 19.6605, 13.0445, 92.9718, -101.425
1.78462, -1, 0.647227, 12.509, 19.6981, 13.0469, 92.8721, -101.678
1.79177, -1, 0.461273, 12.4135, 19.7357, 13.0494, 92.7723, -101.931
1.79987, -1, 0.275659, 12.3182, 19.7734, 13.0518, 92.6726, -102.184
1.80873, -1, 0.0902165, 12.2228, 19.811, 13.0543, 92.5734, -102.436
1.81592, -1, -0.0951109, 12.1275, 19.8486, 13.0567, 92.4737, -102.689
1.82464, -1, -0.280771, 12.0322, 19.8863, 13.0592, 92.3742, -102.941
1.83282, -1, -0.466722, 11.937, 19.9239, 13.0617, 92.2749, -103.194
1.83996, -1, -0.559815, 11.8419, 19.9614, 13.0641, 92.1753, -103.445
1.84853, -1, -0.839412, 11.747, 19.999, 13.0666, 92.0759, -103.697
1.85539, -1, -0.93273, 11.6994, 20.0177, 13.0679, 92.0263, -103.824
1.8634, -1, -1.1195, 11.6044, 20.0551, 13.0704, 91.9269, -104.076
1.87144, -1, -1.30657, 11.5093, 20.0927, 13.0728, 91.8275, -104.327
1.87939, -1, -1.49341, 11.4141, 20.1302, 13.0755, 91.7285, -104.579
1.88741, -1, -1.68001, 11.319, 20.1676, 13.078, 91.6292, -104.83
1.89541, -1, -1.86621, 11.2239, 20.205, 13.0806, 91.53, -105.082
1.9034, -1, -2.05192, 11.129, 20.2425, 13.0833, 91.431, -105.333
1.91144, -1, -2.23699, 11.0341, 20.2799, 13.0859, 91.3317, -105.584
1.91939, -1, -2.42175, 10.9392, 20.3173, 13.0885, 91.2324, -105.835
1.92744, -1, -2.60613, 10.8445, 20.3546, 13.0912, 91.1336, -106.086
1.93546, -1, -2.79003, 10.7497, 20.3918, 13.0939, 91.0344, -106.337
1.94506, -1, -3.06597, 10.6076, 20.448, 13.0978, 90.8859, -106.713
1.9514, -1, -3.15804, 10.5603, 20.4666, 13.0991, 90.8366, -106.838
1.95949, -1, -3.34233, 10.4657, 20.5038, 13.1017, 90.7376, -107.088
1.96904, -1, -3.61939, 10.324, 20.5597, 13.1055, 90.5893, -107.464
1.97538, -1, -3.71177, 10.2769, 20.5783, 13.1067, 90.54, -107.589
1.98441, -1, -3.89688, 10.1825, 20.6155, 13.1091, 90.441, -107.839
1.9914, -1, -4.08224, 10.0881, 20.6528, 13.1116, 90.3423, -108.089
1.99946, -1, -4.26784, 9.99387, 20.6899, 13.1141, 90.2438, -108.339
2.00845, -1, -4.45345, 9.8995, 20.7271, 13.1163, 90.1451, -108.589
2.01562, -1, -4.63871, 9.80514, 20.7644, 13.1187, 90.0465, -108.838
2.02446, -1, -4.82366, 9.71094, 20.8015, 13.121, 89.9483, -109.088
2.03138, -1, -5.00816, 9.61689, 20.8386, 13.1234, 89.8496, -109.337
2.04024, -1, -5.19186, 9.52285, 20.8757, 13.1257, 89.7512, -109.587
2.04739, -1, -5.37513, 9.42883, 20.9128, 13.1281, 89.653, -109.836
2.0554, -1, -5.55802, 9.33495, 20.9499, 13.1303, 89.5545, -110.084
2.06424, -1, -5.74045, 9.24105, 20.987, 13.1327, 89.4563, -110.333
2.07139, -1, -5.92281, 9.14712, 21.024, 13.1349, 89.3583, -110.582
2.07939, -1, -6.10526, 9.05325, 21.0609, 13.1371, 89.2601, -110.831
2.08819, -1, -6.28801, 8.95943, 21.098, 13.1394, 89.1621, -111.079
2.09545, -1, -6.47092, 8.86578, 21.135, 13.1416, 89.0645, -111.327
2.1034, -1, -6.65402, 8.77215, 21.1717, 13.1437, 88.9664, -111.575
2.11219, -1, -6.83776, 8.67852, 21.2087, 13.1458, 88.8684, -111.824
2.11938, -1, -7.02168, 8.58494, 21.2456, 13.1479, 88.7707, -112.071
2.1274, -1, -7.20591, 8.49137, 21.2824, 13.1501, 88.6727, -112.319
2.13621, -1, -7.39012, 8.39773, 21.3194, 13.1522, 88.5749, -112.567
2.14339, -1, -7.57394, 8.30412, 21.3562, 13.1543, 88.4774, -112.814
2.15139, -1, -7.75745, 8.21068, 21.3929, 13.1565, 88.3797, -113.062
2.16021, -1, -7.94051, 8.11728, 21.4298, 13.1588, 88.2824, -113.309
2.16744, -1, -8.12302, 8.02393, 21.4666, 13.161, 88.1852, -113.556
2.17542, -1, -8.30483, 7.93068, 21.5033, 13.1632, 88.0877, -113.803
2.18425, -1, -8.48621, 7.83745, 21.5402, 13.1654, 87.9903, -114.05
2.19149, -1, -8.66716, 7.74424, 21.577, 13.1677, 87.893, -114.297
2.19949, -1, -8.84793, 7.65105, 21.6137, 13.17, 87.7955, -114.543
2.20835, -1, -9.0287, 7.55795, 21.6505, 13.1723, 87.6981, -114.79
2.21548, -1, -9.20974, 7.46495, 21.6872, 13.1745, 87.6011, -115.036
2.22345, -1, -9.39099, 7.37213, 21.7238, 13.1767, 87.5039, -115.283
2.23233, -1, -9.57268, 7.27925, 21.7605, 13.1789, 87.4067, -115.529
2.2394, -1, -9.75469, 7.18646, 21.7972, 13.1811, 87.3097, -115.775
2.24771, -1, -9.93705, 7.09375, 21.8336, 13.1834, 87.2124, -116.021
2.25633, -1, -10.1196, 7.00103, 21.8703, 13.1856, 87.1152, -116.267
2.26353, -1, -10.3023, 6.90823, 21.9069, 13.1878, 87.0181, -116.512
2.27169, -1, -10.4849, 6.81548, 21.9434, 13.19, 86.9209, -116.758
2.2805, -1, -10.6671, 6.72279, 21.98, 13.1923, 86.8238, -117.003
2.28775, -1, -10.8488, 6.6302, 22.0165, 13.1947, 86.7271, -117.249
2.2964, -1, -11.0301, 6.5376, 22.0529, 13.1971, 86.6301, -117.494
2.30377, -1, -11.2105, 6.44507, 22.0895, 13.1995, 86.5334, -117.739
2.31186, -1, -11.3904, 6.35262, 22.126, 13.202, 86.4368, -117.984
2.32, -1, -11.57, 6.2602, 22.1624, 13.2043, 86.34, -118.228
2.32796, -1, -11.7493, 6.16776, 22.1989, 13.2068, 86.2433, -118.473
2.33594, -1, -11.9285, 6.07547, 22.2354, 13.2093, 86.1468, -118.718
2.3445, -1, -12.1078, 5.98324, 22.2718, 13.2117, 86.0501, -118.962
2.352, -1, -12.1975, 5.93719, 22.29, 13.2142, 85.9537, -119.206
2.36039, -1, -12.4672, 5.79917, 22.3446, 13.2167, 85.8575, -119.45
2.3682, -1, -12.5573, 5.75314, 22.3627, 13.2179, 85.8093, -119.694
2.37537, -1, -12.7377, 5.66117, 22.399, 13.2204, 85.713, -119.816
2.38338, -1, -12.9186, 5.56924, 22.4354, 13.2229, 85.6171, -120.06
2.39278, -1, -13.1904, 5.43127, 22.4897, 13.2266, 85.4731, -120.425
2.39939, -1, -13.281, 5.38525, 22.5078, 13.2278, 85.4251, -120.547
2.40743, -1, -13.462, 5.29331, 22.5442, 13.2301, 85.3294, -120.791
2.41538, -1, -13.6427, 5.20141, 22.5804, 13.2327, 85.2336, -121.034
2.42552, -1, -13.9129, 5.06362, 22.6346, 13.2366, 85.0899, -121.398
2.43142, -1, -14.0025, 5.01774, 22.6527, 13.2379, 85.0422, -121.52
2.43939, -1, -14.1811, 4.92603, 22.6889, 13.2404, 84.9466, -121.763
2.44748, -1, -14.3594, 4.83432, 22.7249, 13.243, 84.851, -122.005
2.45538, -1, -14.5373, 4.74267, 22.7612, 13.2456, 84.7555, -122.248
2.46494, -1, -14.8037, 4.60534, 22.8155, 13.2493, 84.6119, -122.611
2.47144, -1, -14.8925, 4.55958, 22.8335, 13.2505, 84.5641, -122.733
2.47938, -1, -15.0703, 4.46815, 22.8696, 13.2529, 84.4685, -122.975
2.48839, -1, -15.2483, 4.37686, 22.9058, 13.2554, 84.3728, -123.217
2.4955, -1, -15.4267, 4.28558, 22.9418, 13.2578, 84.2771, -123.459
2.50446, -1, -15.6057, 4.19434, 22.9779, 13.2601, 84.1816, -123.7
2.51138, -1, -15.7849, 4.10311, 23.0139, 13.2624, 84.0861, -123.942
2.51944, -1, -15.964, 4.01186, 23.0498, 13.2645, 83.9906, -124.184
2.52743, -1, -16.1436, 3.92058, 23.0858, 13.2667, 83.8952, -124.425
2.53537, -1, -16.3235, 3.82932, 23.1218, 13.2689, 83.7998, -124.666
2.54344, -1, -16.5029, 3.73811, 23.1576, 13.2711, 83.7044, -124.908
2.55137, -1, -16.6819, 3.64697, 23.1935, 13.2733, 83.6089, -125.149
2.55943, -1, -16.8603, 3.55585, 23.2294, 13.2756, 83.5136, -125.39
2.56744, -1, -17.0378, 3.46482, 23.2652, 13.2777, 83.4183, -125.631
2.57537, -1, -17.2147, 3.37387, 23.3011, 13.2799, 83.3229, -125.872
2.58344, -1, -17.3912, 3.28303, 23.3369, 13.2821, 83.2279, -126.112
2.59137, -1, -17.5675, 3.19218, 23.3726, 13.2842, 83.1327, -126.353
2.59942, -1, -17.7436, 3.10155, 23.4085, 13.2864, 83.0379, -126.593
2.60751, -1, -17.9196, 3.01098, 23.4445, 13.2885, 82.9433, -126.833
2.61538, -1, -18.0958, 2.92049, 23.4802, 13.2905, 82.8483, -127.074
2.62337, -1, -18.2724, 2.83014, 23.5159, 13.2927, 82.7535, -127.314
2.63144, -1, -18.4494, 2.73974, 23.5517, 13.2948, 82.659, -127.554
2.63937, -1, -18.6268, 2.64936, 23.5873, 13.2968, 82.5642, -127.793
2.64743, -1, -18.8044, 2.559, 23.623, 13.2988, 82.4696, -128.033
2.65544, -1, -18.9825, 2.46854, 23.6588, 13.3008, 82.3754, -128.272
2.66337, -1, -19.1608, 2.37803, 23.6943, 13.3029, 82.2808, -128.512
2.67137, -1, -19.339, 2.28769, 23.7299, 13.3049, 82.1866, -128.751
2.67947, -1, -19.5166, 2.19729, 23.7656, 13.307, 82.0927, -128.99
2.68751, -1, -19.6937, 2.10688, 23.801, 13.3092, 81.9984, -129.229
2.69553, -1, -19.8702, 2.01661, 23.8364, 13.3114, 81.9042, -129.468
2.70347, -1, -20.046, 1.92638, 23.872, 13.3135, 81.8103, -129.707
2.71147, -1, -20.2211, 1.8362, 23.9075, 13.3157, 81.7161, -129.945
2.71955, -1, -20.396, 1.74608, 23.9429, 13.3179, 81.6221, -130.183
2.72753, -1, -20.5706, 1.65605, 23.9786, 13.3202, 81.5284, -130.422
2.7354, -1, -20.745, 1.56614, 24.014, 13.3223, 81.4343, -130.66
2.74347, -1, -20.9197, 1.47627, 24.0494, 13.3244, 81.3406, -130.898
2.75141, -1, -21.0947, 1.38656, 24.0849, 13.3267, 81.2469, -131.136
2.7594, -1, -21.2701, 1.29681, 24.1204, 13.3288, 81.1531, -131.374
2.76782, -1, -21.4458, 1.20712, 24.1557, 13.331, 81.0591, -131.612
2.7756, -1, -21.6218, 1.11748, 24.191, 13.3332, 80.9654, -131.849
2.78438, -1, -21.798, 1.02779, 24.2265, 13.3353, 80.8716, -132.087
2.79175, -1, -21.9745, 0.93816, 24.2618, 13.3375, 80.7778, -132.324
2.80043, -1, -22.1511, 0.848572, 24.2971, 13.3397, 80.6843, -132.561
2.80873, -1, -22.3276, 0.759021, 24.3325, 13.3418, 80.5906, -132.798
2.81589, -1, -22.5036, 0.669508, 24.3676, 13.3441, 80.497, -133.035
2.82447, -1, -22.6792, 0.580022, 24.4028, 13.3465, 80.4034, -133.272
2.83276, -1, -22.8541, 0.490641, 24.4381, 13.3488, 80.3098, -133.509
2.83995, -1, -23.028, 0.401244, 24.4732, 13.3513, 80.2162, -133.746
2.84854, -1, -23.2017, 0.311899, 24.5083, 13.3538, 80.1227, -133.983
2.85675, -1, -23.2884, 0.267234, 24.5259, 13.355, 80.0761, -134.101
2.86338, -1, -23.4615, 0.177967, 24.5611, 13.3574, 79.9824, -134.337
2.87246, -1, -23.7214, 0.0442461, 24.6138, 13.3609, 79.8425, -134.691
2.87937, -1, -23.8081, -0.000313876, 24.6314, 13.3621, 79.7961, -134.809
2.88737, -1, -23.9816, -0.0892919, 24.6665, 13.3646, 79.7028, -135.046
2.89541, -1, -24.1553, -0.178291, 24.7015, 13.3671, 79.6097, -135.281
2.90338, -1, -24.3292, -0.267273, 24.7365, 13.3695, 79.5167, -135.517
2.91143, -1, -24.5034, -0.356195, 24.7717, 13.3719, 79.4236, -135.753
2.91936, -1, -24.6781, -0.445117, 24.8067, 13.3744, 79.3306, -135.988
2.92736, -1, -24.853, -0.534037, 24.8417, 13.3768, 79.2375, -136.224
2.93547, -1, -25.0281, -0.622881, 24.8768, 13.3791, 79.1446, -136.459
2.94339, -1, -25.2031, -0.711674, 24.9118, 13.3815, 79.0516, -136.694
2.95376, -1, -25.4647, -0.844808, 24.9643, 13.3852, 78.9127, -137.047
2.95944, -1, -25.5517, -0.889188, 24.9818, 13.3863, 78.8663, -137.164
2.96903, -1, -25.8117, -1.02222, 25.034, 13.39, 78.7272, -137.517
2.97536, -1, -25.898, -1.06657, 25.0515, 13.3912, 78.681, -137.634
2.98493, -1, -26.0704, -1.15527, 25.0865, 13.3937, 78.5888, -137.868
2.99242, -1, -26.2425, -1.24395, 25.1214, 13.3961, 78.496, -138.103
2.99937, -1, -26.4142, -1.33245, 25.1562, 13.3985, 78.4035, -138.337
3.00838, -1, -26.5861, -1.4209, 25.1911, 13.4006, 78.3112, -138.572
3.01536, -1, -26.7582, -1.50927, 25.226, 13.4029, 78.2185, -138.806
3.02336, -1, -26.9304, -1.59748, 25.2609, 13.4052, 78.1261, -139.04
3.03144, -1, -27.1029, -1.68567, 25.2957, 13.4073, 78.034, -139.274
3.03938, -1, -27.2755, -1.7739, 25.3306, 13.4095, 77.9418, -139.507
3.04736, -1, -27.4484, -1.862, 25.3654, 13.4117, 77.8497, -139.741
3.05538, -1, -27.6216, -1.95013, 25.4002, 13.4137, 77.7578, -139.974
3.0634, -1, -27.7949, -2.03833, 25.4351, 13.4159, 77.6657, -140.208
3.07143, -1, -27.9682, -2.12633, 25.4699, 13.4179, 77.5737, -140.441
3.07937, -1, -28.1415, -2.21436, 25.5046, 13.4199, 77.4817, -140.675
3.08737, -1, -28.3146, -2.30235, 25.5395, 13.422, 77.3897, -140.908
3.09542, -1, -28.4873, -2.39041, 25.5743, 13.4241, 77.2976, -141.141
3.10342, -1, -28.6597, -2.47836, 25.6089, 13.4263, 77.2055, -141.374
3.11138, -1, -28.8313, -2.56634, 25.6437, 13.4284, 77.1135, -141.606
3.11943, -1, -29.0023, -2.65428, 25.6784, 13.4306, 77.0216, -141.839
3.12737, -1, -29.173, -2.74216, 25.713, 13.4327, 76.9297, -142.072
3.13536, -1, -29.3436, -2.82998, 25.7477, 13.4348, 76.8381, -142.304
3.14342, -1, -29.5143, -2.9177, 25.7824, 13.4368, 76.7461, -142.537
3.15146, -1, -29.6851, -3.00527, 25.8169, 13.4388, 76.6543, -142.769
3.15936, -1, -29.8562, -3.09283, 25.8515, 13.4409, 76.5625, -143.002
3.16742, -1, -30.0272, -3.18033, 25.8862, 13.443, 76.4706, -143.234
3.17631, -1, -30.1981, -3.26781, 25.9207, 13.445, 76.3789, -143.466
3.18339, -1, -30.3693, -3.35523, 25.9552, 13.4471, 76.2874, -143.698
3.1915, -1, -30.5409, -3.44268, 25.9898, 13.4491, 76.1957, -143.93
3.20088, -1, -30.7127, -3.53019, 26.0243, 13.4512, 76.1043, -144.161
3.20746, -1, -30.8846, -3.61753, 26.0588, 13.4532, 76.013, -144.392
3.21553, -1, -31.0564, -3.70492, 26.0934, 13.4552, 75.9216, -144.624
3.22383, -1, -31.228, -3.79225, 26.1278, 13.4573, 75.8302, -144.855
3.23142, -1, -31.3993, -3.87956, 26.1622, 13.4594, 75.7389, -145.087
3.23951, -1, -31.57, -3.96685, 26.1967, 13.4615, 75.6477, -145.318
3.24882, -1, -31.7405, -4.0541, 26.2311, 13.4637, 75.5564, -145.549
3.2554, -1, -31.9105, -4.14136, 26.2654, 13.4658, 75.4652, -145.779
3.26368, -1, -32.0801, -4.22857, 26.2998, 13.468, 75.3743, -146.01
3.27311, -1, -32.2495, -4.31571, 26.3343, 13.4703, 75.283, -146.241
3.28039, -1, -32.419, -4.40276, 26.3685, 13.4725, 75.1921, -146.472
3.28767, -1, -32.5887, -4.48973, 26.4028, 13.4746, 75.1015, -146.702
3.29723, -1, -32.7584, -4.57665, 26.4373, 13.4767, 75.0105, -146.932
3.30379, -1, -32.9281, -4.66357, 26.4715, 13.4788, 74.9198, -147.163
3.31214, -1, -33.0978, -4.75051, 26.5056, 13.481, 74.8293, -147.393
3.32141, -1, -33.2676, -4.83735, 26.54, 13.4833, 74.7385, -147.623
3.32805, -1, -33.4377, -4.92423, 26.5743, 13.4854, 74.6479, -147.853
3.33593, -1, -33.608, -5.01115, 26.6085, 13.4877, 74.5574, -148.083
3.34612, -1, -33.7783, -5.09791, 26.6427, 13.4899, 74.4668, -148.313
3.35197, -1, -33.9485, -5.18466, 26.6769, 13.4921, 74.3763, -148.543
3.36054, -1, -34.1188, -5.27136, 26.711, 13.4944, 74.2858, -148.772
3.36737, -1, -34.2038, -5.31471, 26.7281, 13.4955, 74.2407, -148.886
3.37539, -1, -34.3737, -5.40135, 26.7624, 13.4977, 74.15, -149.116
3.38334, -1, -34.5435, -5.48799, 26.7966, 13.5001, 74.0593, -149.345
3.39136, -1, -34.7127, -5.57464, 26.8306, 13.5025, 73.9689, -149.575
3.3994, -1, -34.8814, -5.66125, 26.8648, 13.5049, 73.8783, -149.804
3.40736, -1, -35.0499, -5.74781, 26.8989, 13.5074, 73.7878, -150.033
3.41534, -1, -35.2182, -5.83431, 26.933, 13.5098, 73.6975, -150.261
3.42475, -1, -35.4709, -5.96377, 26.9842, 13.5134, 73.5619, -150.605
3.43134, -1, -35.5552, -6.00687, 27.0012, 13.5145, 73.5168, -150.719
3.44159, -1, -35.8079, -6.13621, 27.0521, 13.5181, 73.3815, -151.062
3.44737, -1, -35.8922, -6.17928, 27.0692, 13.5193, 73.3363, -151.177
3.45722, -1, -36.145, -6.30845, 27.1202, 13.5229, 73.2007, -151.519
3.46341, -1, -36.2293, -6.35151, 27.1372, 13.5241, 73.1554, -151.634
3.47134, -1, -36.398, -6.43774, 27.1711, 13.5265, 73.0652, -151.862
3.48089, -1, -36.5669, -6.52394, 27.2051, 13.5288, 72.9296, -152.205
3.48742, -1, -36.7358, -6.61009, 27.239, 13.531, 72.8844, -152.319
3.4964, -1, -36.9047, -6.69626, 27.2729, 13.5334, 72.7944, -152.547
3.50335, -1, -37.0737, -6.78241, 27.3068, 13.5357, 72.7042, -152.775
3.51141, -1, -37.2424, -6.86853, 27.3407, 13.5379, 72.6142, -153.003
3.51934, -1, -37.4109, -6.95456, 27.3746, 13.5402, 72.5244, -153.23
3.52736, -1, -37.579, -7.04062, 27.4085, 13.5424, 72.4345, -153.458
3.53543, -1, -37.7468, -7.12666, 27.4425, 13.5447, 72.3446, -153.685
3.54335, -1, -37.9144, -7.21262, 27.4763, 13.5469, 72.2548, -153.913
3.55134, -1, -38.0818, -7.29852, 27.5101, 13.5491, 72.1652, -154.14
3.5594, -1, -38.2493, -7.38439, 27.5441, 13.5512, 72.0753, -154.368
3.56735, -1, -38.4167, -7.47013, 27.5779, 13.5534, 71.9857, -154.595
3.57537, -1, -38.5839, -7.55585, 27.6117, 13.5554, 71.8962, -154.822
3.58341, -1, -38.7513, -7.64155, 27.6456, 13.5575, 71.8065, -155.049
3.59134, -1, -38.9186, -7.72722, 27.6793, 13.5596, 71.7171, -155.276
3.59935, -1, -39.0859, -7.81283, 27.713, 13.5617, 71.628, -155.503
3.60747, -1, -39.2535, -7.89852, 27.7469, 13.5637, 71.5384, -155.73
3.61536, -1, -39.4209, -7.98419, 27.7807, 13.5657, 71.4491, -155.957
3.62335, -1, -39.5885, -8.06972, 27.8143, 13.5677, 71.3598, -156.183
3.63141, -1, -39.7563, -8.15526, 27.8479, 13.5696, 71.2705, -156.41
3.63934, -1, -39.9239, -8.24072, 27.8817, 13.5715, 71.1811, -156.636
3.64736, -1, -40.0914, -8.32616, 27.9153, 13.5735, 71.0917, -156.862
3.65541, -1, -40.2588, -8.41152, 27.949, 13.5754, 71.0026, -157.089
3.66334, -1, -40.4259, -8.49691, 27.9827, 13.5774, 70.9131, -157.315
3.67163, -1, -40.5929, -8.58229, 28.0163, 13.5794, 70.824, -157.541
3.67935, -1, -40.7598, -8.66769, 28.0499, 13.5813, 70.735, -157.767
3.6874, -1, -40.9264, -8.75305, 28.0836, 13.5834, 70.6458, -157.993
3.6957, -1, -41.0929, -8.83837, 28.1173, 13.5854, 70.5566, -158.219
3.70345, -1, -41.2592, -8.92363, 28.1509, 13.5874, 70.4677, -158.445
3.71149, -1, -41.4253, -9.00878, 28.1844, 13.5894, 70.3784, -158.67
3.71992, -1, -41.5916, -9.09393, 28.2181, 13.5914, 70.2892, -158.896
3.72841, -1, -41.7579, -9.17902, 28.2517, 13.5934, 70.2001, -159.121
3.7354, -1, -41.9243, -9.26404, 28.2852, 13.5954, 70.1111, -159.347
3.74423, -1, -42.0907, -9.34906, 28.3189, 13.5974, 70.022, -159.572
3.75142, -1, -42.257, -9.43415, 28.3525, 13.5994, 69.933, -159.797
3.75937, -1, -42.4232, -9.51918, 28.3859, 13.6014, 69.8443, -160.023
3.7683, -1, -42.5895, -9.60415, 28.4195, 13.6035, 69.7552, -160.248
3.77557, -1, -42.7559, -9.68913, 28.4531, 13.6055, 69.6663, -160.473
3.78358, -1, -42.9223, -9.7741, 28.4865, 13.6075, 69.5777, -160.698
3.79175, -1, -43.0887, -9.859, 28.52, 13.6095, 69.4888, -160.923
3.80052, -1, -43.2548, -9.94393, 28.5535, 13.6116, 69.4001, -161.148
3.80775, -1, -43.4209, -10.0289, 28.587, 13.6137, 69.3115, -161.373
3.81642, -1, -43.587, -10.1138, 28.6205, 13.6158, 69.2228, -161.597
3.82467, -1, -43.7529, -10.1987, 28.654, 13.6179, 69.1343, -161.822
3.83191, -1, -43.9188, -10.2835, 28.6874, 13.6201, 69.0459, -162.047
3.84045, -1, -44.0843, -10.3683, 28.7208, 13.6222, 68.9574, -162.271
3.84858, -1, -44.2497, -10.453, 28.7544, 13.6243, 68.8687, -162.495
3.85592, -1, -44.3323, -10.4953, 28.7711, 13.6266, 68.7801, -162.72
3.86435, -1, -44.5801, -10.6221, 28.8212, 13.6288, 68.6916, -162.944
3.87257, -1, -44.6626, -10.6644, 28.8379, 13.6299, 68.6472, -163.056
3.87933, -1, -44.8279, -10.7488, 28.8714, 13.632, 68.5586, -163.28
3.8874, -1, -44.9933, -10.8332, 28.9049, 13.6342, 68.4701, -163.504
3.89534, -1, -45.1586, -10.9178, 28.9382, 13.6364, 68.3818, -163.728
3.90333, -1, -45.3238, -11.0023, 28.9717, 13.6386, 68.2933, -163.952
3.91266, -1, -45.5717, -11.1289, 29.0217, 13.6421, 68.161, -164.288
3.91933, -1, -45.6543, -11.1711, 29.0382, 13.6432, 68.117, -164.4
3.92735, -1, -45.8195, -11.2555, 29.0716, 13.6455, 68.0285, -164.623
3.93538, -1, -45.9838, -11.3394, 29.1051, 13.6478, 67.9401, -164.847
3.9449, -1, -46.2245, -11.4619, 29.1553, 13.6513, 67.8083, -165.181
3.95293, -1, -46.3786, -11.5393, 29.1889, 13.6537, 67.7216, -165.4
3.95938, -1, -46.4528, -11.5762, 29.2056, 13.6548, 67.6794, -165.507
3.96734, -1, -46.5942, -11.6462, 29.2379, 13.6571, 67.5978, -165.713
3.97725, -1, -46.7836, -11.7386, 29.2815, 13.6604, 67.4882, -165.99
3.98339, -1, -46.8392, -11.7659, 29.2943, 13.6613, 67.4559, -166.072
3.99305, -1, -46.9382, -11.8151, 29.3165, 13.6637, 67.376, -166.275
3.99933, -1, -47.0209, -11.8582, 29.3332, 13.6643, 67.3549, -166.328
4.0074, -1, -47.0884, -11.895, 29.3445, 13.665, 67.3212, -166.413
4.01643, -1, -47.141, -11.9246, 29.3518, 13.6655, 67.2977, -166.472
4.02342, -1, -47.1801, -11.9468, 29.3558, 13.6657, 67.2826, -166.51
4.03143, -1, -47.2079, -11.9624, 29.3576, 13.6658, 67.2737, -166.533
4.03934, -1, -47.2263, -11.9726, 29.3584, 13.6659, 67.2689, -166.545
4.04734, -1, -47.2372, -11.9785, 29.3588, 13.666, 67.2666, -166.551
4.05536, 2, -47.2429, -11.9815, 29.3591, 13.666, 67.2654, -166.554
4.06333, 2, -47.245, -11.9829, 29.3592, 13.666, 67.2649, -166.555
4.07138, 2, -47.2451, -11.9834, 29.3593, 13.666, 67.2647, -166.555
4.07941, 2, -47.2449, -11.9836, 29.3593, 13.6661, 67.2646, -166.556
4.08734, 2, -47.245, -11.9837, 29.3594, 13.6661, 67.2645, -166.556
4.09533, 2, -47.2453, -11.9838, 29.3594, 13.6661, 67.2645, -166.556
4.10339, 2, -47.2463, -11.984, 29.3594, 13.6661, 67.2644, -166.556
4.11149, 2, -47.2475, -11.9845, 29.3594, 13.6661, 67.2645, -166.556
4.11935, 2, -47.2493, -11.9853, 29.3594, 13.6662, 67.2645, -166.556
4.1274, 2, -47.2509, -11.9862, 29.3594, 13.6661, 67.2645, -166.556
4.13533, 2, -47.2523, -11.987, 29.3595, 13.6662, 67.2645, -166.556
4.14333, 2, -47.2531, -11.9877, 29.3594, 13.6662, 67.2645, -166.556
4.15146, 2, -47.2536, -11.9881, 29.3595, 13.6661, 67.2645, -166.556
4.15932, 2, -47.2538, -11.9883, 29.3595, 13.6662, 67.2644, -166.556
4.16734, 2, -47.2539, -11.9884, 29.3595, 13.6662, 67.2644, -166.556
4.1754, 2, -47.2536, -11.9884, 29.3595, 13.6662, 67.2644, -166.556
4.18334, 2, -47.2531, -11.9884, 29.3595, 13.6662, 67.2644, -166.556
4.19144, 2, -47.2526, -11.9883, 29.3595, 13.6662, 67.2645, -166.556
4.19948, 2, -47.2523, -11.9883, 29.3595, 13.6662, 67.2645, -166.556
4.20745, 2, -47.2522, -11.9883, 29.3595, 13.6662, 67.2645, -166.556
4.21542, 2, -47.2522, -11.9884, 29.3595, 13.6662, 67.2645, -166.556
4.22349, 2, -47.2523, -11.9885, 29.3595, 13.6661, 67.2645, -166.556
4.23149, 2, -47.2525, -11.9888, 29.3595, 13.6661, 67.2645, -166.556
4.23933, 2, -47.2531, -11.9892, 29.3595, 13.6661, 67.2645, -166.556
4.2475, 2, -47.2536, -11.9895, 29.3595, 13.6661, 67.2645, -166.556
4.25536, 2, -47.2539, -11.9897, 29.3595, 13.6661, 67.2645, -166.556
4.26341, 2, -47.254, -11.9898, 29.3595, 13.6661, 67.2645, -166.556
4.27167, 2, -47.254, -11.9898, 29.3595, 13.6661, 67.2645, -166.556
4.27966, 2, -47.2539, -11.9898, 29.3595, 13.6661, 67.2645, -166.556
4.28764, 2, -47.2537, -11.9897, 29.3595, 13.6661, 67.2645, -166.556
4.29566, 2, -47.2533, -11.9897, 29.3595, 13.6661, 67.2645, -166.556
4.30368, 2, -47.2529, -11.9896, 29.3595, 13.6661, 67.2645, -166.556
4.31184, 2, -47.2527, -11.9896, 29.3595, 13.6661, 67.2645, -166.556
4.32041, 2, -47.2525, -11.9896, 29.3595, 13.6661, 67.2645, -166.556
4.32796, 2, -47.2524, -11.9897, 29.3595, 13.6661, 67.2645, -166.556
4.33604, 2, -47.2524, -11.9897, 29.3595, 13.666, 67.2645, -166.556
4.34391, 2, -47.2524, -11.9898, 29.3595, 13.666, 67.2645, -166.556
4.35253, 2, -47.2524, -11.9898, 29.3595, 13.6661, 67.2645, -166.556
4.35994, 2, -47.2523, -11.9899, 29.3595, 13.6661, 67.2645, -166.556
4.36834, 2, -47.2524, -11.9899, 29.3595, 13.6661, 67.2645, -166.556
4.37534, 2, -47.2524, -11.9899, 29.3595, 13.666, 67.2645, -166.556
4.38332, 2, -47.2524, -11.9898, 29.3595, 13.666, 67.2645, -166.556
4.39143, 2, -47.2523, -11.9898, 29.3595, 13.666, 67.2645, -166.556
4.39932, 2, -47.2522, -11.9897, 29.3595, 13.666, 67.2645, -166.555
4.40862, 2, -47.2521, -11.9896, 29.3595, 13.666, 67.2645, -166.556
4.41538, 2, -47.252, -11.9896, 29.3595, 13.666, 67.2645, -166.556
4.4249, 2, -47.2518, -11.9896, 29.3595, 13.666, 67.2645, -166.556
4.43276, 2, -47.2517, -11.9896, 29.3595, 13.666, 67.2645, -166.556
4.44074, 2, -47.2517, -11.9896, 29.3595, 13.666, 67.2645, -166.555
4.44737, 2, -47.2516, -11.9896, 29.3595, 13.666, 67.2645, -166.555
4.4569, 2, -47.2515, -11.9897, 29.3595, 13.666, 67.2645, -166.555
4.46338, 2, -47.2515, -11.9897, 29.3595, 13.666, 67.2646, -166.555
4.47307, 2, -47.2514, -11.9896, 29.3595, 13.666, 67.2645, -166.555
4.47932, 2, -47.2514, -11.9896, 29.3595, 13.666, 67.2646, -166.556
4.48885, 2, -47.2513, -11.9896, 29.3595, 13.6661, 67.2646, -166.555
4.49687, 2, -47.2512, -11.9896, 29.3595, 13.6661, 67.2646, -166.556
4.50432, 2, -47.2511, -11.9895, 29.3595, 13.666, 67.2646, -166.555
4.51144, 2, -47.251, -11.9894, 29.3595, 13.666, 67.2646, -166.555
4.52042, 2, -47.2509, -11.9893, 29.3595, 13.666, 67.2646, -166.555
4.52733, 2, -47.2508, -11.9893, 29.3595, 13.666, 67.2646, -166.555
4.53539, 2, -47.2507, -11.9893, 29.3595, 13.666, 67.2646, -166.555
4.54333, 2, -47.2506, -11.9893, 29.3595, 13.666, 67.2646, -166.555
4.55138, 2, -47.2505, -11.9893, 29.3595, 13.666, 67.2646, -166.555
4.55938, 2, -47.2504, -11.9893, 29.3595, 13.666, 67.2646, -166.555
4.56732, 2, -47.2503, -11.9893, 29.3595, 13.666, 67.2646, -166.555
4.57533, 2, -47.2502, -11.9893, 29.3595, 13.666, 67.2646, -166.555
4.5834, 2, -47.2501, -11.9893, 29.3595, 13.666, 67.2646, -166.555
4.59137, 2, -47.25, -11.9893, 29.3595, 13.666, 67.2646, -166.555
4.59932, 2, -47.2499, -11.9893, 29.3595, 13.666, 67.2646, -166.555
4.60739, 2, -47.2498, -11.9892, 29.3595, 13.666, 67.2646, -166.555
4.61536, 2, -47.2497, -11.9891, 29.3595, 13.666, 67.2646, -166.555
4.62333, 2, -47.2496, -11.989, 29.3595, 13.666, 67.2646, -166.555
4.63144, 2, -47.2495, -11.989, 29.3595, 13.666, 67.2646, -166.555
4.63931, 2, -47.2495, -11.9889, 29.3595, 13.666, 67.2646, -166.555
4.64733, 2, -47.2494, -11.9889, 29.3595, 13.666, 67.2646, -166.555
4.65539, 2, -47.2494, -11.9889, 29.3595, 13.6659, 67.2647, -166.555
4.66332, 2, -47.2493, -11.9889, 29.3595, 13.6659, 67.2647, -166.555
4.67138, 2, -47.2493, -11.9889, 29.3595, 13.6659, 67.2647, -166.555
4.67938, 2, -47.2492, -11.9889, 29.3595, 13.6659, 67.2647, -166.555
4.68737, 2, -47.2492, -11.9889, 29.3595, 13.6659, 67.2647, -166.555
4.6954, 2, -47.2492, -11.9889, 29.3595, 13.6659, 67.2647, -166.555
4.70347, 2, -47.2491, -11.9889, 29.3595, 13.6659, 67.2647, -166.555
4.71148, 2, -47.2491, -11.9888, 29.3595, 13.6659, 67.2647, -166.555
4.71942, 2, -47.249, -11.9887, 29.3595, 13.6659, 67.2647, -166.555
4.7275, 2, -47.2489, -11.9886, 29.3595, 13.6659, 67.2647, -166.555
4.73543, 2, -47.2488, -11.9886, 29.3595, 13.6658, 67.2647, -166.555
4.74333, 2, -47.2487, -11.9886, 29.3595, 13.6658, 67.2647, -166.555
4.75158, 2, -47.2487, -11.9885, 29.3595, 13.6658, 67.2647, -166.555
4.75935, 2, -47.2486, -11.9885, 29.3595, 13.6658, 67.2647, -166.555
4.76741, 2, -47.2486, -11.9885, 29.3595, 13.6658, 67.2647, -166.555
4.77549, 2, -47.2486, -11.9886, 29.3595, 13.6658, 67.2647, -166.555
4.78359, 2, -47.2486, -11.9886, 29.3595, 13.6658, 67.2647, -166.555
4.79193, 2, -47.2486, -11.9885, 29.3595, 13.6658, 67.2647, -166.555
4.80031, 2, -47.2485, -11.9885, 29.3595, 13.6658, 67.2647, -166.555
4.80772, 2, -47.2485, -11.9885, 29.3595, 13.6658, 67.2647, -166.554
4.81608, 2, -47.2484, -11.9884, 29.3595, 13.6657, 67.2648, -166.554
4.8244, 2, -47.2483, -11.9883, 29.3595, 13.6657, 67.2648, -166.554
4.83189, 2, -47.2482, -11.9883, 29.3595, 13.6657, 67.2648, -166.554
4.84008, 2, -47.2481, -11.9882, 29.3595, 13.6658, 67.2648, -166.554
4.84795, 2, -47.248, -11.9882, 29.3595, 13.6658, 67.2648, -166.554
4.8565, 2, -47.248, -11.9882, 29.3595, 13.6657, 67.2648, -166.554
4.8641, 2, -47.2479, -11.9881, 29.3595, 13.6657, 67.2648, -166.554
4.87193, 2, -47.2479, -11.9881, 29.3595, 13.6657, 67.2648, -166.554
4.88041, 2, -47.2479, -11.9881, 29.3595, 13.6656, 67.2648, -166.554
4.88823, 2, -47.2479, -11.9881, 29.3595, 13.6656, 67.2648, -166.554
4.89536, 2, -47.2479, -11.9881, 29.3595, 13.6656, 67.2648, -166.554
4.9033, 2, -47.2479, -11.9881, 29.3595, 13.6656, 67.2648, -166.554
4.91137, 2, -47.2478, -11.9881, 29.3595, 13.6656, 67.2648, -166.554
4.91943, 2, -47.2478, -11.988, 29.3595, 13.6656, 67.2648, -166.554
4.92732, 2, -47.2477, -11.9879, 29.3595, 13.6656, 67.2648, -166.554
4.93531, 2, -47.2476, -11.9879, 29.3595, 13.6656, 67.2649, -166.554
4.94336, 2, -47.2475, -11.9878, 29.3595, 13.6656, 67.2649, -166.554
4.95291, 2, -47.2473, -11.9878, 29.3595, 13.6655, 67.2649, -166.554
4.96126, 2, -47.2473, -11.9878, 29.3595, 13.6655, 67.2649, -166.554
4.96738, 2, -47.2473, -11.9877, 29.3595, 13.6655, 67.2649, -166.554
4.97694, 2, -47.2472, -11.9877, 29.3595, 13.6655, 67.265, -166.554
4.98524, 2, -47.2472, -11.9877, 29.3595, 13.6654, 67.265, -166.554
4.99142, 2, -47.2472, -11.9877, 29.3595, 13.6654, 67.265, -166.554
5.00035, 2, -47.2472, -11.9877, 29.3595, 13.6654, 67.265, -166.554
5.00921, 2, -47.2472, -11.9877, 29.3595, 13.6654, 67.265, -166.554
5.01537, 2, -47.2472, -11.9876, 29.3595, 13.6654, 67.265, -166.554
5.0233, 2, -47.2471, -11.9876, 29.3595, 13.6654, 67.265, -166.554
5.03136, 2, -47.247, -11.9875, 29.3595, 13.6654, 67.265, -166.554
5.03937, 2, -47.2469, -11.9875, 29.3595, 13.6654, 67.265, -166.554
5.04743, 2, -47.2468, -11.9874, 29.3595, 13.6654, 67.2651, -166.554
5.05546, 2, -47.2467, -11.9874, 29.3595, 13.6654, 67.265, -166.554
5.06431, 2, -47.2467, -11.9874, 29.3595, 13.6654, 67.2651, -166.554
5.07232, 2, -47.2466, -11.9874, 29.3595, 13.6654, 67.265, -166.554
5.08036, 2, -47.2466, -11.9874, 29.3595, 13.6653, 67.2651, -166.554
5.08831, 2, -47.2465, -11.9873, 29.3595, 13.6653, 67.2651, -166.554
5.09538, 2, -47.2465, -11.9873, 29.3595, 13.6653, 67.2651, -166.554
5.1033, 2, -47.2465, -11.9873, 29.3595, 13.6653, 67.2651, -166.554
5.11138, 2, -47.2465, -11.9873, 29.3595, 13.6652, 67.2651, -166.554
5.11942, 2, -47.2465, -11.9873, 29.3595, 13.6652, 67.2651, -166.554
5.12733, 2, -47.2464, -11.9872, 29.3595, 13.6652, 67.2651, -166.554
5.13531, 2, -47.2463, -11.9872, 29.3595, 13.6652, 67.2651, -166.554
5.14337, 4, -47.2463, -11.9871, 29.3595, 13.6652, 67.2651, -166.554
5.15136, 4, -47.2462, -11.9871, 29.3595, 13.6651, 67.2652, -166.554
5.15931, 4, -47.2461, -11.987, 29.3595, 13.6652, 67.2652, -166.554
5.16738, 4, -47.246, -11.987, 29.3595, 13.6651, 67.2652, -166.554
5.17531, 4, -47.246, -11.987, 29.3595, 13.6651, 67.2652, -166.554
5.18331, 4, -47.246, -11.987, 29.3595, 13.6651, 67.2652, -166.554
5.19146, 4, -47.2459, -11.987, 29.3595, 13.6651, 67.2652, -166.554
5.19937, 4, -47.2459, -11.987, 29.3595, 13.6651, 67.2652, -166.554
5.20741, 4, -47.2459, -11.987, 29.3595, 13.665, 67.2653, -166.554
5.21548, 4, -47.2458, -11.9869, 29.3595, 13.665, 67.2652, -166.554
5.2234, 4, -47.2459, -11.9869, 29.3595, 13.665, 67.2652, -166.554
5.23146, 4, -47.2458, -11.9869, 29.3595, 13.665, 67.2652, -166.553
5.23967, 4, -47.2457, -11.9868, 29.3595, 13.665, 67.2652, -166.553
5.25512, 4, -47.2457, -11.9868, 29.3595, 13.665, 67.2652, -166.553
5.25716, 4, -47.2456, -11.9868, 29.3595, 13.665, 67.2652, -166.553
5.26459, 4, -47.2455, -11.9867, 29.3595, 13.665, 67.2652, -166.553
5.27308, 4, -47.2455, -11.9867, 29.3595, 13.665, 67.2652, -166.553
5.27978, 4, -47.2454, -11.9867, 29.3595, 13.665, 67.2652, -166.553
5.28786, 4, -47.2454, -11.9867, 29.3595, 13.665, 67.2653, -166.553
5.30032, 4, -47.2453, -11.9867, 29.3595, 13.665, 67.2652, -166.553
5.30546, 4, -47.2453, -11.9867, 29.3595, 13.665, 67.2652, -166.553
5.3135, 4, -47.2453, -11.9866, 29.3595, 13.6649, 67.2653, -166.553
5.32069, 4, -47.2453, -11.9866, 29.3595, 13.665, 67.2653, -166.553
5.33256, 4, -47.2453, -11.9866, 29.3595, 13.665, 67.2653, -166.553
5.33662, 4, -47.2453, -11.9866, 29.3595, 13.665, 67.2653, -166.553
5.34515, 4, -47.2452, -11.9865, 29.3595, 13.665, 67.2653, -166.553
5.35225, 4, -47.2452, -11.9865, 29.3595, 13.6649, 67.2653, -166.553
5.36057, 4, -47.2451, -11.9865, 29.3595, 13.6649, 67.2653, -166.553
5.37074, 4, -47.245, -11.9864, 29.3595, 13.6649, 67.2653, -166.553
5.37664, 4, -47.245, -11.9864, 29.3595, 13.6648, 67.2653, -166.553
5.38461, 4, -47.2449, -11.9864, 29.3595, 13.6648, 67.2653, -166.553
5.39507, 4, -47.2449, -11.9864, 29.3594, 13.6648, 67.2653, -166.553
5.39944, 4, -47.2449, -11.9864, 29.3595, 13.6648, 67.2653, -166.553
5.40743, 4, -47.2453, -11.9866, 29.3596, 13.6649, 67.2653, -166.553
5.41552, 4, -47.2469, -11.9875, 29.3604, 13.6654, 67.2655, -166.553
5.42349, 4, -47.25, -11.9905, 29.3638, 13.67, 67.2668, -166.553
5.4383, 5, -47.2645, -12.0088, 29.3902, 13.7218, 67.2804, -166.543
5.44114, 5, -47.271, -12.0174, 29.4044, 13.7501, 67.2882, -166.536
5.44751, 5, -47.279, -12.0282, 29.4231, 13.7882, 67.2989, -166.528
5.4555, 5, -47.3012, -12.058, 29.477, 13.9002, 67.3305, -166.503
5.46635, 5, -47.353, -12.1256, 29.6113, 14.1845, 67.4093, -166.437
5.47149, 5, -47.3762, -12.1551, 29.6729, 14.3167, 67.4458, -166.406
5.47956, 5, -47.4321, -12.2253, 29.8237, 14.6434, 67.5353, -166.332
5.48752, 5, -47.5007, -12.3107, 30.0127, 15.0544, 67.6461, -166.237
5.49578, 5, -47.5817, -12.4111, 30.2403, 15.5457, 67.7775, -166.125
5.50344, 5, -47.6742, -12.5254, 30.5021, 16.1059, 67.9253, -165.998
5.51149, 5, -47.7765, -12.6521, 30.7942, 16.7212, 68.0859, -165.86
5.5219, 5, -47.9444, -12.8611, 31.2759, 17.715, 68.3393, -165.641
5.52751, 5, -48.0031, -12.9346, 31.445, 18.0571, 68.4251, -165.566
5.53756, 5, -48.123, -13.0855, 31.9666, 19.0976, 68.6811, -165.343
5.54447, 5, -48.2437, -13.2388, 32.1435, 19.445, 68.765, -165.269
5.55156, 5, -48.3623, -13.3912, 32.4982, 20.1318, 68.9301, -165.121
5.56369, 5, -48.5275, -13.6119, 33.0249, 21.1252, 69.1709, -164.886
5.56743, 6, -48.577, -13.6816, 33.1958, 21.4406, 69.2501, -164.799
5.57939, 6, -48.7014, -13.8754, 33.6864, 22.3221, 69.4885, -164.486
5.58601, 7, -48.7596, -13.9928, 33.99, 22.8495, 69.6512, -164.219
5.59482, 7, -48.7959, -14.1017, 34.2734, 23.327, 69.82, -163.889
5.60225, 7, -48.811, -14.2013, 34.5361, 23.7613, 69.9977, -163.491
5.61055, 8, -48.8063, -14.2907, 34.7816, 24.162, 70.1868, -163.023
5.6165, 8, -48.7971, -14.3321, 34.8993, 24.3528, 70.2859, -162.764
5.62621, 9, -48.7473, -14.4467, 35.2366, 24.9047, 70.6026, -161.905
5.63337, 9, -48.7247, -14.4824, 35.3461, 25.0857, 70.714, -161.596
5.64046, 10, -48.6727, -14.5498, 35.5638, 25.4482, 70.9451, -160.957
5.64846, 10, -48.6123, -14.6133, 35.7812, 25.8152, 71.1853, -160.295
5.65639, 11, -48.5447, -14.6752, 35.9995, 26.1881, 71.4318, -159.623
5.66346, 11, -48.4711, -14.7375, 36.2197, 26.5673, 71.6817, -158.948
5.6735, 12, -48.394, -14.8, 36.4392, 26.9526, 71.933, -158.276
5.67965, 12, -48.315, -14.8622, 36.6565, 27.3433, 72.1844, -157.605
5.6885, 13, -48.2343, -14.9241, 36.8719, 27.7382, 72.4351, -156.939
5.69972, 14, -48.109, -15.0164, 37.1891, 28.3357, 72.809, -155.946
5.70444, 14, -48.066, -15.047, 37.2931, 28.5356, 72.9327, -155.617
5.71346, 14, -47.978, -15.1079, 37.4997, 28.936, 73.179, -154.961
5.72151, 15, -47.8866, -15.1687, 37.7037, 29.3368, 73.4234, -154.31
5.72952, 15, -47.7906, -15.2292, 37.9042, 29.7368, 73.6656, -153.661
5.73647, 16, -47.6893, -15.2897, 38.1027, 30.1358, 73.9056, -153.015
5.74458, 16, -47.5821, -15.3505, 38.2989, 30.5332, 74.143, -152.374
5.7535, 17, -47.4697, -15.4119, 38.4914, 30.9292, 74.3774, -151.738
5.7633, 17, -47.3523, -15.4741, 38.6808, 31.3235, 74.7222, -150.79
5.76756, 18, -47.23, -15.5371, 38.8683, 31.7159, 74.8353, -150.477
5.77654, 18, -47.1026, -15.6014, 39.0533, 32.1064, 75.0583, -149.857
5.78448, 19, -46.9706, -15.6674, 39.2355, 32.4951, 75.2767, -149.243
5.79202, 19, -46.8339, -15.7356, 39.4165, 32.8823, 75.4902, -148.635
5.80053, 20, -46.6922, -15.8057, 39.5962, 33.2673, 75.6984, -148.035
5.80853, 20, -46.5455, -15.8781, 39.7734, 33.65, 75.9012, -147.444
5.81651, 21, -46.394, -15.9533, 39.9483, 34.0304, 76.0983, -146.86
5.8242, 21, -46.2377, -16.0312, 40.1217, 34.4082, 76.2895, -146.283
5.83227, 22, -46.0761, -16.1116, 40.2934, 34.7828, 76.4748, -145.714
5.84056, 22, -45.9088, -16.1941, 40.4619, 35.1537, 76.6545, -145.153
5.84861, 23, -45.7355, -16.2787, 40.6278, 35.5205, 76.8285, -144.597
5.85662, 23, -45.5556, -16.3655, 40.7911, 35.8829, 76.9969, -144.047
5.8664, 24, -45.3688, -16.4539, 40.9507, 36.2405, 77.1599, -143.502
5.87321, 24, -45.1751, -16.5436, 41.1058, 36.5924, 77.3178, -142.963
5.88267, 25, -44.9747, -16.6344, 41.2566, 36.9377, 77.4708, -142.426
5.88809, 25, -44.8721, -16.68, 41.3304, 37.108, 77.6193, -141.893
5.89677, 26, -44.5543, -16.818, 41.5445, 37.6083, 77.7632, -141.362
5.90544, 26, -44.3339, -16.9103, 41.6804, 37.9327, 77.9031, -140.835
5.91145, 27, -44.2212, -16.9562, 41.7461, 38.092, 77.9714, -140.571
5.92337, 28, -43.8733, -17.0931, 41.9345, 38.5578, 78.1703, -139.783
5.92747, 28, -43.754, -17.1383, 41.9941, 38.7089, 78.235, -139.521
5.93782, 28, -43.3857, -17.2721, 42.1631, 39.1497, 78.423, -138.736
5.9435, 29, -43.2595, -17.3159, 42.216, 39.2924, 78.4843, -138.475
5.95404, 29, -42.871, -17.4451, 42.3642, 39.7082, 78.6629, -137.691
5.95964, 30, -42.7377, -17.4873, 42.41, 39.8425, 78.7208, -137.43
5.9689, 30, -42.3249, -17.6106, 42.5364, 40.2325, 78.8905, -136.649
5.97542, 31, -42.183, -17.6504, 42.575, 40.3583, 78.9455, -136.388
5.98566, 32, -41.7456, -17.7663, 42.6802, 40.7228, 79.107, -135.608
5.99619, 32, -41.4454, -17.8407, 42.7419, 40.9552, 79.2111, -135.089
6.00127, 32, -41.2928, -17.9124, 42.7966, 41.1794, 79.3128, -134.571
6.01059, 33, -40.8255, -17.981, 42.8442, 41.3957, 79.4122, -134.054
6.01835, 33, -40.5058, -18.0464, 42.8846, 41.6036, 79.5086, -133.537
6.0254, 34, -40.181, -18.1092, 42.9176, 41.8034, 79.6025, -133.022
6.03456, 35, -39.8518, -18.1692, 42.9433, 41.9952, 79.6941, -132.507
6.04198, 35, -39.5168, -18.2259, 42.962, 42.1796, 79.7827, -131.994
6.04749, 35, -39.3469, -18.2529, 42.9687, 42.269, 79.8263, -131.738
6.05541, 36, -39.0016, -18.3045, 42.9769, 42.4419, 79.9119, -131.227
6.06416, 36, -38.6488, -18.3528, 42.9784, 42.607, 79.9954, -130.716
6.07148, 37, -38.2895, -18.3978, 42.9732, 42.7646, 80.0765, -130.208
6.08255, 38, -37.7399, -18.4584, 42.9524, 42.9871, 80.1948, -129.448
6.09056, 38, -37.3671, -18.4944, 42.9302, 43.1262, 80.2708, -128.943
6.09666, 38, -37.1791, -18.5112, 42.9166, 43.1928, 80.3083, -128.692
6.10615, 39, -36.6084, -18.5564, 42.8657, 43.3819, 80.4164, -127.939
6.11404, 40, -36.4159, -18.5818, 42.8233, 43.4988, 80.4867, -127.44
6.11941, 40, -36.0266, -18.5931, 42.7997, 43.5545, 80.5208, -127.191
6.12745, 40, -35.6313, -18.6127, 42.7476, 43.6606, 80.5884, -126.695
6.13953, 41, -35.0275, -18.6348, 42.6572, 43.806, 80.685, -125.953
6.14447, 41, -34.8237, -18.6404, 42.6238, 43.8511, 80.7167, -125.708
6.15346, 42, -34.4133, -18.649, 42.5522, 43.9357, 80.7781, -125.218
6.15948, 42, -33.9998, -18.6545, 42.4743, 44.0133, 80.837, -124.73
6.16743, 43, -33.5828, -18.6568, 42.3903, 44.0834, 80.8953, -124.245
6.17547, 43, -33.1612, -18.6556, 42.3004, 44.1468, 80.9507, -123.761
6.19145, 44, -32.2993, -18.6418, 42.1034, 44.2513, 81.0581, -122.802
6.19342, 45, -32.2993, -18.6418, 42.1034, 44.2513, 81.0581, -122.802
6.20002, 45, -31.859, -18.6293, 41.996, 44.2931, 81.1086, -122.326
6.20751, 45, -31.4146, -18.6133, 41.8827, 44.3273, 81.1585, -121.852
6.21644, 46, -30.9677, -18.5939, 41.7633, 44.3537, 81.206, -121.381
6.22684, 47, -30.5192, -18.5579, 41.5734, 44.3788, 81.2739, -120.679
6.23254, 47, -30.0671, -18.5438, 41.5072, 44.3834, 81.2964, -120.445
6.24299, 48, -29.6093, -18.5121, 41.3703, 44.3873, 81.3614, -119.749
6.24759, 48, -29.1445, -18.4761, 41.2272, 44.3846, 81.3822, -119.517
6.25917, 49, -28.6738, -18.4358, 41.0782, 44.3722, 81.4449, -118.827
6.26551, 49, -28.1987, -18.3911, 40.9233, 44.3515, 81.4658, -118.597
6.27349, 50, -27.7213, -18.342, 40.7623, 44.3211, 81.5067, -118.139
6.2797, 50, -27.2409, -18.2882, 40.5948, 44.2809, 81.5472, -117.682
6.2884, 50, -26.7561, -18.2289, 40.4207, 44.2323, 81.5891, -117.225
6.29585, 51, -26.2641, -18.1641, 40.2403, 44.1737, 81.6315, -116.77
6.30386, 51, -25.7643, -18.0936, 40.053, 44.1051, 81.6739, -116.316
6.31626, 52, -25.2588, -18.0175, 39.858, 44.0268, 81.7398, -115.635
6.32057, 52, -24.7507, -17.9362, 39.6565, 43.9375, 81.7623, -115.409
6.33271, 53, -24.2404, -17.8492, 39.4487, 43.7848, 81.8299, -114.73
6.33622, 53, -23.7258, -17.7563, 39.233, 43.7286, 81.8533, -114.504
6.34421, 54, -23.2042, -17.6572, 39.0098, 43.6082, 81.9023, -114.052
6.35325, 54, -22.6742, -17.5522, 38.7802, 43.4771, 81.9523, -113.6
6.36183, 55, -22.1378, -17.4409, 38.543, 43.3346, 82.0044, -113.148
6.3705, 56, -21.5982, -17.3236, 38.299, 43.1805, 82.0593, -112.696
6.37812, 56, -21.0564, -17.2006, 38.049, 43.0152, 82.1147, -112.245
6.38454, 56, -20.5102, -17.0721, 37.7917, 42.8387, 82.1722, -111.794
6.39279, 57, -19.9553, -16.9382, 37.5283, 42.651, 82.2313, -111.344
6.39942, 57, -19.6743, -16.8691, 37.3942, 42.5527, 82.261, -111.119
6.40739, 58, -19.1067, -16.7269, 37.1206, 42.3467, 82.3229, -110.669
6.41916, 59, -18.248, -16.503, 36.6992, 42.0146, 82.4185, -109.995
6.42631, 59, -17.6725, -16.347, 36.4101, 41.7781, 82.4855, -109.546
6.43506, 60, -17.0903, -16.1862, 36.1152, 41.529, 82.5538, -109.097
6.43941, 60, -16.7955, -16.104, 35.9654, 41.3997, 82.589, -108.873
6.45126, 61, -15.8972, -15.8489, 35.5079, 40.9918, 82.6976, -108.2
6.4554, 61, -15.5951, -15.7613, 35.3524, 40.8488, 82.7348, -107.975
6.46575, 62, -14.6837, -15.4918, 34.8765, 40.4004, 82.8505, -107.303
6.47307, 62, -14.0692, -15.3063, 34.5516, 40.0845, 82.9313, -106.854
6.47968, 62, -13.7582, -15.2114, 34.3873, 39.9214, 82.9726, -106.63
6.49174, 63, -12.8101, -14.9161, 33.8866, 39.41, 83.1012, -105.955
6.49542, 63, -12.4904, -14.8146, 33.717, 39.2321, 83.1457, -105.73
6.50359, 64, -11.8481, -14.608, 33.3737, 38.8651, 83.2378, -105.279
6.51335, 64, -10.875, -14.2861, 32.8472, 38.2875, 83.3831, -104.6
6.52422, 65, -10.2137, -14.0626, 32.4887, 37.8835, 83.4858, -104.146
6.53046, 66, -9.54274, -13.8332, 32.1256, 37.4632, 83.5935, -103.689
6.53548, 66, -9.20433, -13.7163, 31.9422, 37.2473, 83.6495, -103.46
6.54647, 67, -8.18175, -13.3554, 31.3851, 36.5767, 83.825, -102.771
6.55519, 67, -7.491, -13.1058, 31.0062, 36.1103, 83.949, -102.309
6.55943, 67, -7.14165, -12.978, 30.8149, 35.8714, 84.0135, -102.077
6.56802, 68, -6.43599, -12.7166, 30.4292, 35.3816, 84.147, -101.611
6.57661, 69, -5.72277, -12.4492, 30.0399, 34.8767, 84.2874, -101.144
6.58469, 69, -5.00381, -12.1749, 29.6461, 34.3564, 84.4348, -100.674
6.59142, 69, -4.27749, -11.8927, 29.2478, 33.8211, 84.589, -100.201
6.603, 70, -3.17164, -11.4561, 28.6467, 32.9915, 84.8332, -99.4871
6.60749, 70, -2.79926, -11.3068, 28.4456, 32.7073, 84.9181, -99.248
6.61648, 71, -2.04977, -11.0034, 28.0417, 32.1291, 85.0928, -98.769
6.62427, 71, -1.29288, -10.693, 27.636, 31.5378, 85.275, -98.2872
6.63146, 72, -0.52887, -10.3752, 27.229, 30.933, 85.4647, -97.803
6.64326, 73, 0.629061, -9.8859, 26.6184, 30.0012, 85.7633, -97.0719
6.6474, 73, 1.01791, -9.71887, 26.415, 29.6853, 85.8666, -96.8272
6.65539, 73, 1.80009, -9.37985, 26.008, 29.0448, 86.079, -96.3363
6.6636, 74, 2.58715, -9.03403, 25.602, 28.3946, 86.2994, -95.8427
6.67564, 75, 3.77582, -8.50399, 24.9969, 27.4014, 86.6447, -95.0976
6.68352, 75, 4.57338, -8.14132, 24.5965, 26.7292, 86.8847, -94.5985
6.69078, 76, 5.37379, -7.7718, 24.199, 26.052, 87.1334, -94.0975
6.69546, 76, 5.77463, -7.58437, 24.0014, 25.7109, 87.2609, -93.8459
6.71088, 77, 7.38102, -6.81633, 23.2216, 24.337, 87.7927, -92.8338
6.71287, 77, 7.38102, -6.81633, 23.2216, 24.337, 87.7927, -92.8338
6.72555, 78, 8.5896, -6.21821, 22.6465, 23.2999, 88.2164, -92.068
6.72774, 78, 8.9924, -6.01484, 22.4571, 22.9535, 88.3624, -91.8112
6.73536, 78, 9.79705, -5.60217, 22.0825, 22.2608, 88.6618, -91.2946
6.74336, 79, 10.601, -5.17952, 21.7126, 21.569, 88.9708, -90.7742
6.75146, 79, 11.4035, -4.74736, 21.3471, 20.8805, 89.29, -90.25
6.75926, 80, 12.2026, -4.30598, 20.987, 20.1932, 89.6193, -89.7219
6.76809, 80, 12.9967, -3.85488, 20.6324, 19.5107, 89.9595, -89.1889
6.77536, 81, 13.7865, -3.39429, 20.2831, 18.8355, 90.3102, -88.6514
6.78417, 81, 14.5699, -2.92513, 19.9389, 18.1685, 90.6712, -88.1093
6.79144, 82, 15.3441, -2.44738, 19.6016, 17.5109, 91.0416, -87.5639
6.79959, 82, 16.1079, -1.96181, 19.2716, 16.8648, 91.422, -87.0139
6.80759, 83, 16.8608, -1.46872, 18.9493, 16.2333, 91.8106, -86.4608
6.81563, 83, 17.6007, -0.969228, 18.6347, 15.6192, 92.207, -85.9055
6.82376, 84, 18.3233, -0.465559, 18.3287, 15.0229, 92.6097, -85.3503
6.83247, 84, 19.0277, 0.0423041, 18.0324, 14.4493, 93.0186, -84.7945
6.83987, 85, 19.7157, 0.556672, 17.7447, 13.8994, 93.4322, -84.2403
6.84841, 85, 20.3876, 1.07704, 17.4661, 13.3741, 93.8503, -83.6881
6.85578, 86, 21.0432, 1.60128, 17.1949, 12.8734, 94.2713, -83.1385
6.86436, 86, 21.6833, 2.12968, 16.932, 12.3957, 94.6962, -82.5891
6.87177, 87, 21.9982, 2.39628, 16.8034, 12.1656, 94.9103, -82.0385
6.88024, 87, 22.9252, 3.20943, 16.4258, 11.5075, 95.5613, -81.4849
6.8873, 87, 23.2286, 3.48504, 16.3024, 11.2978, 95.7814, -81.2067
6.89526, 88, 23.8266, 4.0415, 16.0584, 10.8918, 96.2262, -80.6454
6.90441, 88, 24.7012, 4.89111, 15.7002, 10.3129, 96.9049, -79.7867
6.9113, 89, 24.9866, 5.17942, 15.584, 10.1277, 97.1346, -79.4953
6.91924, 89, 25.549, 5.76386, 15.3547, 9.76888, 97.5987, -78.9046
6.92851, 90, 26.3791, 6.65816, 15.0164, 9.25923, 98.3064, -77.996
6.93524, 90, 26.6519, 6.96042, 14.9058, 9.09726, 98.5455, -77.6865
6.94324, 91, 27.1883, 7.57111, 14.6885, 8.78664, 99.0287, -77.0584
6.95277, 91, 27.9689, 8.50608, 14.3714, 8.35633, 99.7639, -76.0956
6.96081, 92, 28.4766, 9.14256, 14.1658, 8.09613, 100.259, -75.4404
6.96882, 92, 28.9765, 9.78839, 13.9653, 7.85858, 100.758, -74.7771
6.97682, 93, 29.4659, 10.4415, 13.7711, 7.64424, 101.258, -74.1075
6.98487, 93, 29.942, 11.0996, 13.5849, 7.4537, 101.757, -73.4305
6.99125, 94, 30.1745, 11.43, 13.4949, 7.36726, 102.006, -73.0896
7.00081, 94, 30.6282, 12.0929, 13.3202, 7.21204, 102.502, -72.0605
7.00731, 95, 31.0676, 12.7576, 13.1525, 7.08066, 102.995, -71.7149
7.0163, 95, 31.4932, 13.424, 12.9927, 6.97327, 103.484, -71.0189
7.02324, 96, 31.9051, 14.092, 12.8405, 6.88892, 103.97, -70.318
7.03131, 96, 32.3021, 14.7604, 12.6945, 6.82928, 104.453, -69.6119
7.03924, 97, 32.683, 15.4293, 12.5552, 6.79215, 104.93, -68.8996
7.04724, 97, 33.0474, 16.097, 12.4233, 6.7758, 105.403, -68.1824
7.05524, 98, 33.3959, 16.763, 12.2997, 6.78172, 105.868, -67.4628
7.06326, 98, 33.7304, 17.4256, 12.1848, 6.80918, 106.326, -66.7393
7.07125, 99, 34.0511, 18.0829, 12.0792, 6.85619, 106.773, -66.0143
7.07934, 99, 34.3592, 18.7336, 11.9829, 6.92353, 107.21, -65.2911
7.08733, 100, 34.6562, 19.3765, 11.8954, 7.00812, 107.634, -64.5687
7.09524, 100, 34.9416, 20.0107, 11.8165, 7.11056, 108.046, -63.8492
7.10324, 101, 35.2151, 20.6342, 11.7458, 7.22889, 108.443, -63.1364
7.11132, 101, 35.4768, 21.2471, 11.6834, 7.36211, 108.826, -62.429
7.11924, 102, 35.7274, 21.8482, 11.6296, 7.50842, 109.192, -61.73
7.12724, 102, 35.9655, 22.4364, 11.5844, 7.66626, 109.541, -61.0427
7.13534, 103, 36.1921, 23.0109, 11.5478, 7.83416, 109.873, -60.366
7.14328, 103, 36.41, 23.5696, 11.52, 8.01103, 110.187, -59.7012
7.15125, 103, 36.6209, 24.1124, 11.5013, 8.19683, 110.482, -59.0494
7.15932, 104, 36.8242, 24.639, 11.4914, 8.39177, 110.757, -58.411
7.16726, 104, 37.0203, 25.1493, 11.4888, 8.59577, 111.012, -57.7841
7.17524, 104, 37.2103, 25.6434, 11.493, 8.80774, 111.246, -57.1703
7.1833, 104, 37.3927, 26.1207, 11.5031, 9.02629, 111.461, -56.5707
7.19125, 104, 37.5658, 26.5814, 11.5172, 9.24934, 111.658, -55.9857
7.19927, 104, 37.7304, 27.0259, 11.5341, 9.47453, 111.838, -55.4178
7.20739, 104, 37.8888, 27.455, 11.5537, 9.69918, 112.006, -54.8695
7.21533, 104, 38.0424, 27.8679, 11.5747, 9.92094, 112.162, -54.3437
7.22334, 104, 38.1908, 28.264, 11.5957, 10.1384, 112.31, -53.8404
7.23144, 104, 38.3327, 28.6433, 11.6162, 10.3504, 112.449, -53.3606
7.23954, 104, 38.4678, 29.0056, 11.6354, 10.5555, 112.581, -52.9051
7.24734, 104, 38.5953, 29.3499, 11.6535, 10.7534, 112.705, -52.474
7.2561, 104, 38.7147, 29.6755, 11.6706, 10.9426, 112.821, -52.0684
7.26431, 104, 38.8257, 29.9817, 11.6864, 11.1232, 112.929, -51.6872
7.27132, 104, 38.9285, 30.2697, 11.7011, 11.294, 113.03, -51.3314
7.2796, 104, 39.0236, 30.5382, 11.7148, 11.4547, 113.123, -51.0012
7.28738, 104, 39.111, 30.787, 11.7272, 11.6051, 113.209, -50.6962
7.29554, 104, 39.1905, 31.0164, 11.7384, 11.7442, 113.287, -50.4162
7.30418, 104, 39.2621, 31.2258, 11.7486, 11.8721, 113.359, -50.1616
7.31156, 104, 39.326, 31.4152, 11.7581, 11.9884, 113.423, -49.9322
7.31962, 104, 39.3822, 31.5855, 11.7666, 12.093, 113.48, -49.7279
7.32822, 104, 39.4315, 31.7361, 11.774, 12.1851, 113.53, -49.5486
7.33575, 104, 39.4746, 31.868, 11.7808, 12.2653, 113.572, -49.394
7.34433, 104, 39.512, 31.9821, 11.7869, 12.3334, 113.608, -49.2633
7.35182, 104, 39.5433, 32.0795, 11.7924, 12.3904, 113.638, -49.1559
7.36041, 104, 39.5691, 32.1609, 11.7972, 12.4352, 113.662, -49.0692
7.36784, 104, 39.59, 32.228, 11.8016, 12.4702, 113.68, -49.0024
7.3763, 104, 39.6062, 32.2825, 11.8055, 12.4965, 113.693, -48.953
7.38377, 104, 39.6129, 32.3055, 11.8074, 12.5069, 113.698, -48.9339
7.39227, 104, 39.6283, 32.3589, 11.8123, 12.5289, 113.708, -48.8945
7.39932, 104, 39.6321, 32.3721, 11.8138, 12.5337, 113.71, -48.8862
7.40848, 104, 39.6401, 32.4022, 11.8176, 12.5427, 113.713, -48.8711
7.41523, 104, 39.6417, 32.4094, 11.8187, 12.5443, 113.714, -48.8686
7.42492, 104, 39.6446, 32.4238, 11.8211, 12.547, 113.715, -48.865
7.43258, 105, 39.6451, 32.4291, 11.8223, 12.5478, 113.715, -48.8643
7.43922, 105, 39.6449, 32.431, 11.8228, 12.548, 113.715, -48.8642
7.44897, 105, 39.6434, 32.435, 11.824, 12.5482, 113.715, -48.8644
7.45674, 105, 39.6424, 32.4368, 11.8247, 12.5483, 113.715, -48.8647
7.46474, 105, 39.6413, 32.4382, 11.8254, 12.5483, 113.715, -48.865
7.47332, 105, 39.6402, 32.4395, 11.826, 12.5483, 113.715, -48.8653
7.47924, 105, 39.6397, 32.4401, 11.8262, 12.5483, 113.715, -48.8655
7.48882, 105, 39.6388, 32.4417, 11.8271, 12.5483, 113.715, -48.8659
7.49704, 105, 39.6384, 32.4428, 11.8277, 12.5484, 113.715, -48.8662
7.50326, 105, 39.6382, 32.4433, 11.8279, 12.5484, 113.715, -48.8664
7.51222, 105, 39.638, 32.4442, 11.8285, 12.5484, 113.715, -48.8667
7.51929, 105, 39.6377, 32.445, 11.8289, 12.5484, 113.715, -48.8671
7.5293, 105, 39.6374, 32.4456, 11.8294, 12.5483, 113.715, -48.8675
7.53523, 105, 39.6371, 32.4459, 11.8296, 12.5483, 113.715, -48.8676
7.54331, 105, 39.6368, 32.4461, 11.8298, 12.5483, 113.715, -48.8679
7.55124, 105, 39.6365, 32.4462, 11.83, 12.5483, 113.715, -48.8682
