hehonglu123/Motion-Primitive-Planning/ILC/recorded_data/realrobot/from_NX/iteration_0/run_3.csv
timestamp, cmd_num, J1, J2, J3, J4, J5, J6
0.001486, -1, 39.6321, 32.4461, 11.8315, 12.5469, 113.714, -48.8709
0.006116, -1, 39.6321, 32.4461, 11.8315, 12.5469, 113.714, -48.8709
0.00801, -1, 39.6321, 32.4461, 11.8315, 12.5469, 113.714, -48.8709
0.03145, -1, 39.6321, 32.4461, 11.8315, 12.5469, 113.714, -48.8709
0.032687, -1, 39.6321, 32.4461, 11.8315, 12.5469, 113.714, -48.8709
0.036356, -1, 39.6322, 32.4461, 11.8315, 12.5469, 113.714, -48.8709
0.040361, -1, 39.6322, 32.4461, 11.8315, 12.5469, 113.714, -48.8709
0.047386, -1, 39.6321, 32.4461, 11.8315, 12.5469, 113.714, -48.8709
0.055416, -1, 39.6316, 32.446, 11.8315, 12.5469, 113.714, -48.8709
0.063472, -1, 39.6293, 32.4456, 11.8315, 12.5469, 113.714, -48.8709
0.204163, -1, 38.1657, 31.6968, 12.1237, 12.5597, 112.942, -50.8402
0.205438, -1, 38.1657, 31.6968, 12.1237, 12.5597, 112.942, -50.8402
0.20758, -1, 38.0758, 31.6499, 12.1432, 12.561, 112.892, -50.9673
0.20887, -1, 38.0758, 31.6499, 12.1432, 12.561, 112.892, -50.9673
0.210172, -1, 38.0758, 31.6499, 12.1432, 12.561, 112.892, -50.9673
0.212888, -1, 37.9846, 31.6024, 12.1627, 12.5622, 112.841, -51.0953
0.214888, -1, 37.9846, 31.6024, 12.1627, 12.5622, 112.841, -51.2239
0.217537, -1, 37.8923, 31.5545, 12.1821, 12.5634, 112.79, -51.2239
0.219538, -1, 37.7989, 31.5063, 12.2015, 12.5646, 112.739, -51.353
0.220897, -1, 37.7989, 31.5063, 12.2015, 12.5646, 112.739, -51.353
0.222105, -1, 37.7989, 31.5063, 12.2015, 12.5646, 112.739, -51.353
0.225464, -1, 37.7048, 31.4577, 12.221, 12.5658, 112.688, -51.4823
0.227428, -1, 37.61, 31.4089, 12.2403, 12.567, 112.637, -51.6119
0.228714, -1, 37.61, 31.4089, 12.2403, 12.567, 112.637, -51.6119
0.229977, -1, 37.61, 31.4089, 12.2403, 12.567, 112.637, -51.6119
0.234221, -1, 37.5146, 31.36, 12.2597, 12.5682, 112.586, -51.7417
0.237113, -1, 37.4189, 31.3111, 12.2791, 12.5695, 112.535, -51.8714
0.238392, -1, 37.4189, 31.3111, 12.2791, 12.5695, 112.535, -51.8714
0.240758, -1, 37.323, 31.2621, 12.2984, 12.5707, 112.483, -52.0012
0.242169, -1, 37.323, 31.2621, 12.2984, 12.5707, 112.483, -52.0012
0.244344, -1, 37.227, 31.2131, 12.3179, 12.5719, 112.432, -52.1309
0.245712, -1, 37.227, 31.2131, 12.3179, 12.5719, 112.432, -52.1309
0.249476, -1, 37.1309, 31.1642, 12.3373, 12.5732, 112.38, -52.2608
0.256389, -1, 36.9388, 31.0665, 12.376, 12.5758, 112.277, -52.5208
0.263782, -1, 36.7468, 30.9688, 12.4147, 12.5783, 112.174, -52.7812
0.271582, -1, 36.5552, 30.8711, 12.4536, 12.5808, 112.072, -53.0416
0.279627, -1, 36.3637, 30.7734, 12.4925, 12.5835, 111.969, -53.3018
0.287792, -1, 36.1722, 30.6756, 12.5313, 12.5861, 111.866, -53.5622
0.295723, -1, 35.9807, 30.5777, 12.5701, 12.5886, 111.763, -53.8228
0.303817, -1, 35.7893, 30.4797, 12.6091, 12.5913, 111.66, -54.0834
0.312022, -1, 35.5976, 30.3817, 12.648, 12.5938, 111.557, -54.3436
0.319935, -1, 35.4056, 30.2835, 12.6868, 12.5965, 111.454, -54.604
0.328006, -1, 35.2132, 30.1853, 12.7256, 12.5991, 111.351, -54.8645
0.336178, -1, 35.0208, 30.087, 12.7645, 12.6016, 111.248, -55.1253
0.343964, -1, 34.8286, 29.9885, 12.8034, 12.6042, 111.145, -55.3859
0.352492, -1, 34.6362, 29.89, 12.8422, 12.6067, 111.042, -55.6466
0.359948, -1, 34.54, 29.8407, 12.8616, 12.608, 110.99, -55.777
0.367955, -1, 34.3478, 29.7423, 12.9006, 12.6107, 110.887, -56.0378
0.376421, -1, 34.0598, 29.5949, 12.959, 12.6146, 110.732, -56.4291
0.383382, -1, 33.9639, 29.5457, 12.9785, 12.6159, 110.681, -56.5595
0.391385, -1, 33.7722, 29.4474, 13.0174, 12.6186, 110.578, -56.8201
0.399442, -1, 33.5804, 29.349, 13.0562, 12.6213, 110.475, -57.0812
0.40738, -1, 33.3882, 29.2506, 13.0952, 12.6239, 110.372, -57.3424
0.415453, -1, 33.1957, 29.1521, 13.1341, 12.6265, 110.269, -57.6033
0.423397, -1, 33.003, 29.0535, 13.1729, 12.6292, 110.165, -57.8644
0.43138, -1, 32.81, 28.9549, 13.2119, 12.6319, 110.063, -58.1254
0.440946, -1, 32.5199, 28.807, 13.2702, 12.6359, 109.908, -58.5174
0.447404, -1, 32.4231, 28.7576, 13.2896, 12.6373, 109.856, -58.6479
0.455388, -1, 32.2292, 28.659, 13.3286, 12.64, 109.753, -58.9089
0.464949, -1, 31.9381, 28.5109, 13.3869, 12.644, 109.599, -59.3006
0.473126, -1, 31.7444, 28.4121, 13.4259, 12.6467, 109.496, -59.562
0.479404, -1, 31.6476, 28.3627, 13.4454, 12.6481, 109.444, -59.6927
0.488372, -1, 31.4542, 28.264, 13.4844, 12.651, 109.341, -59.9538
0.495393, -1, 31.2612, 28.1654, 13.5233, 12.6537, 109.238, -60.2151
0.504378, -1, 31.0685, 28.067, 13.5624, 12.6566, 109.135, -60.4766
0.511459, -1, 30.8763, 27.9684, 13.6014, 12.6594, 109.032, -60.7382
0.519386, -1, 30.6843, 27.8698, 13.6404, 12.6622, 108.929, -60.9994
0.655797, -1, 27.4001, 26.1901, 14.303, 12.7056, 107.173, -65.4473
0.657004, -1, 27.4001, 26.1901, 14.303, 12.7056, 107.173, -65.4473
0.659081, -1, 27.3041, 26.1406, 14.3225, 12.7068, 107.121, -65.578
0.661165, -1, 27.3041, 26.1406, 14.3225, 12.7068, 107.121, -65.578
0.663247, -1, 27.2081, 26.0912, 14.342, 12.708, 107.069, -65.7089
0.664457, -1, 27.2081, 26.0912, 14.342, 12.708, 107.069, -65.7089
0.665655, -1, 27.2081, 26.0912, 14.342, 12.708, 107.069, -65.7089
0.66951, -1, 27.1119, 26.0417, 14.3615, 12.7091, 107.017, -65.8398
0.6716, -1, 27.0156, 25.9922, 14.3809, 12.7103, 106.966, -65.9706
0.672904, -1, 27.0156, 25.9922, 14.3809, 12.7103, 106.966, -65.9706
0.675601, -1, 26.9193, 25.9428, 14.4003, 12.7114, 106.914, -66.1016
0.676871, -1, 26.9193, 25.9428, 14.4003, 12.7114, 106.914, -66.1016
0.678922, -1, 26.8229, 25.8934, 14.4199, 12.7126, 106.863, -66.2326
0.680292, -1, 26.8229, 25.8934, 14.4199, 12.7126, 106.863, -66.2326
0.681575, -1, 26.8229, 25.8934, 14.4199, 12.7126, 106.863, -66.2326
0.686782, -1, 26.6299, 25.7945, 14.4589, 12.7149, 106.759, -66.4942
0.688232, -1, 26.6299, 25.7945, 14.4589, 12.7149, 106.759, -66.4942
0.689419, -1, 26.6299, 25.7945, 14.4589, 12.7149, 106.759, -66.4942
0.691478, -1, 26.5331, 25.7451, 14.4783, 12.716, 106.707, -66.6251
0.692761, -1, 26.5331, 25.7451, 14.4783, 12.716, 106.707, -66.6251
0.694024, -1, 26.5331, 25.7451, 14.4783, 12.716, 106.707, -66.6251
0.696186, -1, 26.4363, 25.6958, 14.4977, 12.7172, 106.656, -66.756
0.70749, -1, 26.1453, 25.5475, 14.5562, 12.7205, 106.501, -67.1488
0.711559, -1, 26.0482, 25.498, 14.5757, 12.7217, 106.45, -67.2798
0.719491, -1, 25.8539, 25.3992, 14.6146, 12.724, 106.347, -67.5414
0.727499, -1, 25.6596, 25.3004, 14.6536, 12.7263, 106.244, -67.8029
0.735564, -1, 25.4656, 25.2016, 14.6926, 12.7285, 106.14, -68.0644
0.74338, -1, 25.2719, 25.1029, 14.7315, 12.7308, 106.037, -68.3263
0.75142, -1, 25.0785, 25.0041, 14.7707, 12.7331, 105.934, -68.5882
0.759498, -1, 24.8853, 24.9053, 14.8097, 12.7354, 105.83, -68.8497
0.767492, -1, 24.6924, 24.8065, 14.8485, 12.7379, 105.727, -69.1114
0.775867, -1, 24.5, 24.7076, 14.8876, 12.7403, 105.624, -69.373
0.78377, -1, 24.3077, 24.6087, 14.9266, 12.7427, 105.52, -69.6348
0.791663, -1, 24.1152, 24.5098, 14.9656, 12.745, 105.417, -69.8962
0.799833, -1, 23.9224, 24.411, 15.0046, 12.7473, 105.314, -70.1577
0.807793, -1, 23.7295, 24.3121, 15.0435, 12.7499, 105.21, -70.4194
0.815853, -1, 23.5365, 24.2133, 15.0824, 12.7523, 105.107, -70.6813
0.824252, -1, 23.3429, 24.1144, 15.1214, 12.7546, 105.004, -70.9428
0.831945, -1, 23.1491, 24.0155, 15.1602, 12.7571, 104.9, -71.2046
0.840092, -1, 22.9551, 23.9167, 15.1991, 12.7595, 104.797, -71.4664
0.848015, -1, 22.761, 23.8178, 15.2381, 12.762, 104.694, -71.7284
0.855988, -1, 22.6641, 23.7685, 15.2576, 12.7644, 104.59, -71.99
0.863365, -1, 22.4703, 23.6698, 15.2966, 12.7657, 104.539, -72.1206
0.872466, -1, 22.1803, 23.5218, 15.355, 12.7695, 104.383, -72.5128
0.879371, -1, 22.0837, 23.4724, 15.3745, 12.7709, 104.332, -72.6436
0.887363, -1, 21.8906, 23.3737, 15.4134, 12.7734, 104.229, -72.9053
0.895354, -1, 21.6982, 23.275, 15.4524, 12.7761, 104.125, -73.1666
0.903375, -1, 21.5061, 23.1762, 15.4913, 12.7788, 104.022, -73.428
0.912593, -1, 21.2176, 23.0281, 15.5498, 12.7828, 103.868, -73.8201
0.919365, -1, 21.1215, 22.9788, 15.5693, 12.7841, 103.816, -73.9509
0.927367, -1, 20.929, 22.8802, 15.6082, 12.7868, 103.713, -74.2122
0.936817, -1, 20.6403, 22.7323, 15.6666, 12.7909, 103.558, -74.6039
0.943372, -1, 20.5439, 22.683, 15.686, 12.7923, 103.506, -74.7346
0.951398, -1, 20.3508, 22.5843, 15.7249, 12.7951, 103.404, -74.996
0.959413, -1, 20.1571, 22.4856, 15.7639, 12.7977, 103.301, -75.2573
0.969141, -1, 19.8665, 22.3375, 15.8221, 12.8018, 103.146, -75.6489
0.97537, -1, 19.7697, 22.2882, 15.8414, 12.8032, 103.095, -75.7794
0.983431, -1, 19.5761, 22.1896, 15.8803, 12.8059, 102.992, -76.0407
0.992936, -1, 19.3826, 22.091, 15.9192, 12.8086, 102.889, -76.302
0.999365, -1, 19.1896, 21.9923, 15.9581, 12.8113, 102.786, -76.5628
1.00749, -1, 18.9969, 21.8937, 15.9971, 12.8141, 102.682, -76.8236
1.01642, -1, 18.8045, 21.795, 16.0358, 12.8168, 102.579, -77.0846
1.02338, -1, 18.6124, 21.6962, 16.0746, 12.8195, 102.477, -77.3457
1.03137, -1, 18.4206, 21.5976, 16.1135, 12.8221, 102.374, -77.6064
1.0394, -1, 18.2288, 21.4991, 16.1524, 12.8247, 102.271, -77.8671
1.04743, -1, 18.0369, 21.4007, 16.1912, 12.8273, 102.168, -78.1277
1.05536, -1, 17.8451, 21.3023, 16.2301, 12.8298, 102.065, -78.3886
1.06337, -1, 17.653, 21.204, 16.269, 12.8322, 101.962, -78.6492
1.07147, -1, 17.4606, 21.1057, 16.3077, 12.8348, 101.859, -78.9095
1.07936, -1, 17.2677, 21.0074, 16.3466, 12.8372, 101.756, -79.1701
1.08736, -1, 17.0746, 20.9091, 16.3854, 12.8395, 101.653, -79.4308
1.09544, -1, 16.8816, 20.8109, 16.4242, 12.8419, 101.55, -79.6913
1.10336, -1, 16.6884, 20.7127, 16.463, 12.8442, 101.448, -79.9519
1.11137, -1, 16.4954, 20.6145, 16.5017, 12.8465, 101.345, -80.2124
1.11947, -1, 16.3025, 20.5162, 16.5404, 12.8488, 101.242, -80.473
1.12736, -1, 16.1102, 20.4179, 16.5792, 12.8511, 101.14, -80.7336
1.13536, -1, 15.9183, 20.3194, 16.6179, 12.8534, 101.037, -80.9936
1.14344, -1, 15.7266, 20.2209, 16.6566, 12.8557, 100.934, -81.2537
1.15138, -1, 15.5353, 20.1225, 16.6952, 12.8581, 100.832, -81.5139
1.15936, -1, 15.3442, 20.0242, 16.7338, 12.8604, 100.729, -81.7741
1.1676, -1, 15.1531, 19.9259, 16.7726, 12.8627, 100.627, -82.0339
1.17541, -1, 14.962, 19.8277, 16.8113, 12.8649, 100.524, -82.2936
1.18345, -1, 14.7706, 19.7296, 16.8499, 12.8672, 100.422, -82.5535
1.19223, -1, 14.5791, 19.6315, 16.8887, 12.8695, 100.319, -82.8137
1.19945, -1, 14.3873, 19.5334, 16.9273, 12.8718, 100.216, -83.0734
1.20756, -1, 14.1951, 19.4354, 16.966, 12.8741, 100.114, -83.3328
1.21627, -1, 14.0027, 19.3374, 17.0048, 12.8763, 100.011, -83.5924
1.22348, -1, 13.8102, 19.2395, 17.0433, 12.8787, 99.9087, -83.8521
1.23154, -1, 13.6177, 19.1417, 17.0819, 12.881, 99.8062, -84.1116
1.24025, -1, 13.4253, 19.0439, 17.1206, 12.8833, 99.7037, -84.3708
1.24737, -1, 13.2333, 18.946, 17.1591, 12.8856, 99.6015, -84.6301
1.25546, -1, 13.0417, 18.848, 17.1977, 12.8879, 99.4991, -84.8895
1.26425, -1, 12.8504, 18.75, 17.2364, 12.8902, 99.3966, -85.1489
1.27153, -1, 12.6594, 18.6521, 17.2748, 12.8927, 99.2945, -85.4079
1.27965, -1, 12.4689, 18.5543, 17.3134, 12.8951, 99.1921, -85.6668
1.28889, -1, 12.2787, 18.4565, 17.3519, 12.8975, 99.0898, -85.9257
1.29636, -1, 12.0886, 18.3588, 17.3904, 12.8999, 98.9879, -86.1846
1.30457, -1, 11.8984, 18.2612, 17.429, 12.9023, 98.8857, -86.4434
1.31178, -1, 11.7078, 18.1635, 17.4676, 12.9047, 98.7838, -86.7018
1.32002, -1, 11.517, 18.0659, 17.506, 12.9072, 98.6821, -86.9604
1.32875, -1, 11.3259, 17.9683, 17.5446, 12.9096, 98.58, -87.2192
1.33602, -1, 11.1346, 17.8708, 17.5832, 12.912, 98.4781, -87.4776
1.34445, -1, 10.9432, 17.7734, 17.6217, 12.9145, 98.3763, -87.7358
1.3528, -1, 10.8474, 17.676, 17.6602, 12.917, 98.2742, -87.994
1.3599, -1, 10.6556, 17.6272, 17.6794, 12.9183, 98.2232, -88.2524
1.36837, -1, 10.3686, 17.4809, 17.737, 12.9222, 98.0706, -88.5108
1.37536, -1, 10.273, 17.4322, 17.7562, 12.9234, 98.0196, -88.6397
1.38337, -1, 10.0821, 17.3346, 17.7947, 12.926, 97.9177, -88.8977
1.39336, -1, 9.79655, 17.1882, 17.8521, 12.93, 97.7649, -89.2849
1.39935, -1, 9.70158, 17.1395, 17.8713, 12.9313, 97.7139, -89.414
1.4074, -1, 9.51196, 17.0421, 17.9097, 12.9341, 97.6119, -89.6721
1.4154, -1, 9.3227, 16.9447, 17.948, 12.9368, 97.5101, -89.9297
1.42334, -1, 9.13345, 16.8474, 17.9864, 12.9395, 97.4082, -90.1871
1.4314, -1, 8.94405, 16.7502, 18.0248, 12.942, 97.3064, -90.4447
1.44088, -1, 8.65976, 16.6045, 18.0824, 12.946, 97.1539, -90.831
1.44977, -1, 8.47017, 16.5074, 18.1208, 12.9487, 97.0523, -91.088
1.45542, -1, 8.37525, 16.4588, 18.14, 12.9501, 97.0016, -91.2166
1.46495, -1, 8.08969, 16.3134, 18.1974, 12.954, 96.8492, -91.6024
1.47379, -1, 7.89913, 16.2165, 18.2358, 12.9567, 96.7477, -91.8596
1.47945, -1, 7.80382, 16.1681, 18.2549, 12.958, 96.697, -91.988
1.48937, -1, 7.51796, 16.0227, 18.3123, 12.9619, 96.5448, -92.3729
1.49535, -1, 7.42278, 15.9742, 18.3315, 12.9632, 96.4941, -92.5014
1.50436, -1, 7.23258, 15.8773, 18.3696, 12.9657, 96.3929, -92.7584
1.5124, -1, 7.04269, 15.7803, 18.4078, 12.9683, 96.2915, -93.015
1.51935, -1, 6.85329, 15.6834, 18.4461, 12.9708, 96.1903, -93.2713
1.52748, -1, 6.66439, 15.5865, 18.4841, 12.9733, 96.0897, -93.5278
1.53535, -1, 6.47596, 15.4897, 18.5222, 12.9759, 95.9885, -93.7841
1.54335, -1, 6.28778, 15.3929, 18.5604, 12.9783, 95.8874, -94.0406
1.55134, -1, 6.09969, 15.2963, 18.5985, 12.9808, 95.7868, -94.2964
1.55935, -1, 5.91143, 15.1996, 18.6367, 12.9831, 95.6856, -94.5523
1.56741, -1, 5.72307, 15.1029, 18.6749, 12.9854, 95.5847, -94.8083
1.57536, -1, 5.53461, 15.0063, 18.7129, 12.9878, 95.4841, -95.0643
1.58334, -1, 5.34581, 14.9098, 18.751, 12.9901, 95.3832, -95.3199
1.59141, -1, 5.15662, 14.8134, 18.7892, 12.9923, 95.2825, -95.5752
1.59935, -1, 4.96717, 14.717, 18.8272, 12.9945, 95.182, -95.8306
1.60738, -1, 4.7778, 14.6207, 18.8653, 12.9968, 95.0812, -96.0862
1.61542, -1, 4.58836, 14.5243, 18.9034, 12.9989, 94.9803, -96.3414
1.62337, -1, 4.39911, 14.428, 18.9414, 13.0011, 94.8797, -96.5962
1.63134, -1, 4.21014, 14.3316, 18.9794, 13.0034, 94.7788, -96.8511
1.63941, -1, 4.02143, 14.2352, 19.0174, 13.0057, 94.678, -97.1063
1.64735, -1, 3.83343, 14.139, 19.0553, 13.0079, 94.5772, -97.3614
1.65536, -1, 3.64595, 14.0429, 19.0933, 13.0101, 94.4764, -97.616
1.66352, -1, 3.45876, 13.9467, 19.1312, 13.0125, 94.3758, -97.8708
1.67135, -1, 3.2719, 13.8506, 19.1689, 13.0148, 94.2751, -98.1255
1.67939, -1, 3.08492, 13.7546, 19.2069, 13.017, 94.1744, -98.3803
1.68763, -1, 2.89799, 13.6586, 19.2448, 13.0193, 94.0739, -98.6347
1.69542, -1, 2.71097, 13.5626, 19.2827, 13.0215, 93.9732, -98.8889
1.70343, -1, 2.52363, 13.4666, 19.3206, 13.0238, 93.8727, -99.143
1.71175, -1, 2.3362, 13.3707, 19.3584, 13.0261, 93.7725, -99.3972
1.71945, -1, 2.14831, 13.275, 19.3962, 13.0283, 93.6721, -99.6511
1.72752, -1, 1.96016, 13.1791, 19.4341, 13.0305, 93.5719, -99.9047
1.73596, -1, 1.77199, 13.0833, 19.4719, 13.0328, 93.472, -100.158
1.7444, -1, 1.58371, 12.9875, 19.5096, 13.0351, 93.3719, -100.412
1.75137, -1, 1.39556, 12.8916, 19.5475, 13.0373, 93.2717, -100.666
1.76014, -1, 1.20779, 12.7958, 19.5852, 13.0396, 93.1719, -100.919
1.76744, -1, 1.02043, 12.7001, 19.6229, 13.042, 93.0718, -101.172
1.77554, -1, 0.833682, 12.6045, 19.6607, 13.0444, 92.9718, -101.425
1.78439, -1, 0.647333, 12.5089, 19.6983, 13.0468, 92.8722, -101.678
1.79174, -1, 0.461427, 12.4134, 19.7358, 13.0493, 92.7724, -101.931
1.79966, -1, 0.275814, 12.3181, 19.7736, 13.0518, 92.6727, -102.184
1.80859, -1, 0.0903932, 12.2226, 19.8111, 13.0542, 92.5734, -102.436
1.81576, -1, -0.0950343, 12.1273, 19.8487, 13.0567, 92.4737, -102.689
1.82394, -1, -0.280653, 12.0321, 19.8864, 13.0591, 92.3741, -102.941
1.83271, -1, -0.466556, 11.9369, 19.924, 13.0616, 92.2749, -103.194
1.84006, -1, -0.652834, 11.8418, 19.9615, 13.0641, 92.1753, -103.446
1.84799, -1, -0.839294, 11.7468, 19.9991, 13.0666, 92.0759, -103.697
1.85674, -1, -0.932581, 11.6518, 20.0365, 13.0691, 91.9767, -103.95
1.86405, -1, -1.11935, 11.6042, 20.0552, 13.0704, 91.9269, -104.201
1.87195, -1, -1.30632, 11.5092, 20.0927, 13.0729, 91.8275, -104.453
1.88114, -1, -1.58655, 11.3665, 20.1489, 13.0767, 91.6789, -104.704
1.88733, -1, -1.67978, 11.319, 20.1676, 13.078, 91.6292, -104.83
1.8954, -1, -1.86597, 11.224, 20.2051, 13.0806, 91.53, -105.082
1.90333, -1, -2.05167, 11.129, 20.2425, 13.0833, 91.431, -105.333
1.91135, -1, -2.23675, 11.0341, 20.2799, 13.086, 91.3316, -105.584
1.92069, -1, -2.51385, 10.8918, 20.3359, 13.0899, 91.183, -105.96
1.92735, -1, -2.60598, 10.8445, 20.3546, 13.0912, 91.1336, -106.086
1.93541, -1, -2.78989, 10.7497, 20.3918, 13.0939, 91.0343, -106.337
1.94337, -1, -2.97381, 10.655, 20.4292, 13.0965, 90.9353, -106.587
1.95371, -1, -3.25006, 10.513, 20.4851, 13.1004, 90.7871, -106.963
1.9594, -1, -3.34225, 10.4658, 20.5037, 13.1017, 90.7376, -107.088
1.96895, -1, -3.61926, 10.3241, 20.5596, 13.1055, 90.5893, -107.464
1.97534, -1, -3.71166, 10.2769, 20.5783, 13.1067, 90.54, -107.589
1.9834, -1, -3.8968, 10.1826, 20.6155, 13.1092, 90.441, -107.839
1.99133, -1, -4.08222, 10.0882, 20.6528, 13.1116, 90.3423, -108.089
1.9994, -1, -4.26772, 9.99393, 20.6899, 13.114, 90.2439, -108.339
2.0084, -1, -4.45331, 9.89958, 20.7271, 13.1163, 90.1451, -108.589
2.0156, -1, -4.63855, 9.80523, 20.7644, 13.1186, 90.0466, -108.838
2.02438, -1, -4.82346, 9.71104, 20.8015, 13.121, 89.9483, -109.088
2.03133, -1, -5.00798, 9.61698, 20.8385, 13.1234, 89.8497, -109.337
2.04015, -1, -5.19171, 9.52293, 20.8757, 13.1257, 89.7512, -109.587
2.04733, -1, -5.37497, 9.42887, 20.9128, 13.128, 89.653, -109.836
2.05534, -1, -5.55788, 9.335, 20.9498, 13.1303, 89.5546, -110.084
2.06415, -1, -5.74035, 9.24107, 20.987, 13.1326, 89.4564, -110.333
2.07238, -1, -5.92272, 9.14717, 21.024, 13.1349, 89.3584, -110.582
2.07933, -1, -6.10518, 9.05333, 21.0609, 13.1371, 89.2601, -110.831
2.08812, -1, -6.28792, 8.95952, 21.0981, 13.1394, 89.1621, -111.079
2.09639, -1, -6.47084, 8.86589, 21.135, 13.1415, 89.0645, -111.327
2.10332, -1, -6.65404, 8.77222, 21.1717, 13.1436, 88.9664, -111.576
2.11216, -1, -6.83769, 8.67861, 21.2087, 13.1458, 88.8684, -111.824
2.11933, -1, -7.02163, 8.58499, 21.2456, 13.1479, 88.7706, -112.072
2.12745, -1, -7.20586, 8.49142, 21.2825, 13.1501, 88.6728, -112.319
2.13614, -1, -7.39008, 8.39777, 21.3194, 13.1521, 88.5749, -112.567
2.14333, -1, -7.57391, 8.30412, 21.3563, 13.1543, 88.4775, -112.814
2.15133, -1, -7.75738, 8.21072, 21.393, 13.1565, 88.3798, -113.062
2.16016, -1, -7.94043, 8.11731, 21.4299, 13.1587, 88.2825, -113.309
2.16733, -1, -8.12296, 8.02391, 21.4667, 13.161, 88.1852, -113.556
2.17533, -1, -8.3047, 7.93066, 21.5034, 13.1632, 88.0876, -113.803
2.18418, -1, -8.48601, 7.83745, 21.5403, 13.1655, 87.9903, -114.05
2.19143, -1, -8.66703, 7.74428, 21.5771, 13.1677, 87.893, -114.297
2.19941, -1, -8.84781, 7.6511, 21.6138, 13.1699, 87.7955, -114.543
2.20821, -1, -9.02862, 7.55801, 21.6506, 13.1722, 87.6981, -114.79
2.21542, -1, -9.20969, 7.46502, 21.6873, 13.1745, 87.601, -115.036
2.22344, -1, -9.39092, 7.3722, 21.7239, 13.1767, 87.5038, -115.283
2.23232, -1, -9.57252, 7.27936, 21.7607, 13.1789, 87.4067, -115.529
2.23939, -1, -9.75453, 7.18651, 21.7974, 13.1811, 87.3096, -115.775
2.24733, -1, -9.93693, 7.09378, 21.8338, 13.1833, 87.2124, -116.021
2.25627, -1, -10.1195, 7.00103, 21.8704, 13.1856, 87.1152, -116.267
2.26336, -1, -10.3022, 6.90824, 21.907, 13.1878, 87.0181, -116.512
2.2717, -1, -10.4848, 6.81545, 21.9436, 13.1899, 86.9208, -116.758
2.28037, -1, -10.667, 6.72275, 21.9802, 13.1922, 86.8238, -117.003
2.28753, -1, -10.8488, 6.63017, 22.0167, 13.1947, 86.7271, -117.249
2.29573, -1, -11.03, 6.53757, 22.0531, 13.1971, 86.63, -117.494
2.30451, -1, -11.2104, 6.44505, 22.0896, 13.1994, 86.5334, -117.739
2.31171, -1, -11.3902, 6.35261, 22.1262, 13.2019, 86.4368, -117.984
2.3199, -1, -11.5698, 6.26018, 22.1625, 13.2043, 86.34, -118.228
2.32921, -1, -11.7491, 6.16774, 22.199, 13.2068, 86.2434, -118.473
2.33593, -1, -11.9284, 6.07541, 22.2355, 13.2093, 86.1468, -118.717
2.34442, -1, -12.1077, 5.98319, 22.2719, 13.2117, 86.0502, -118.962
2.35193, -1, -12.2871, 5.89115, 22.3084, 13.2142, 85.9538, -119.206
2.36043, -1, -12.4671, 5.79911, 22.3447, 13.2167, 85.8575, -119.45
2.36806, -1, -12.5572, 5.75309, 22.3628, 13.2192, 85.7611, -119.694
2.37532, -1, -12.7376, 5.66112, 22.399, 13.2204, 85.713, -119.816
2.38332, -1, -12.9185, 5.5692, 22.4355, 13.2228, 85.6172, -120.06
2.39248, -1, -13.1903, 5.43123, 22.4898, 13.2265, 85.4731, -120.425
2.39932, -1, -13.2809, 5.3852, 22.5079, 13.2276, 85.4251, -120.547
2.40857, -1, -13.5524, 5.24736, 22.5623, 13.2314, 85.2817, -120.912
2.41531, -1, -13.6426, 5.20141, 22.5804, 13.2327, 85.2336, -121.034
2.42537, -1, -13.9128, 5.06363, 22.6346, 13.2365, 85.0899, -121.398
2.43131, -1, -14.0024, 5.01774, 22.6527, 13.2379, 85.0422, -121.519
2.43932, -1, -14.181, 4.92608, 22.6888, 13.2404, 84.9466, -121.762
2.44956, -1, -14.4484, 4.78855, 22.743, 13.2442, 84.8032, -122.127
2.45532, -1, -14.5373, 4.74276, 22.7611, 13.2454, 84.7556, -122.248
2.46489, -1, -14.8037, 4.60547, 22.8153, 13.2492, 84.6119, -122.611
2.47368, -1, -14.9813, 4.514, 22.8514, 13.2517, 84.5162, -122.854
2.47933, -1, -15.0701, 4.46834, 22.8695, 13.2529, 84.4685, -122.975
2.48895, -1, -15.2481, 4.37708, 22.9056, 13.2553, 84.325, -123.338
2.49537, -1, -15.4266, 4.28576, 22.9416, 13.2578, 84.2771, -123.458
2.50437, -1, -15.6055, 4.19448, 22.9777, 13.2601, 84.1816, -123.7
2.51238, -1, -15.7847, 4.10323, 23.0137, 13.2623, 84.0861, -123.942
2.51955, -1, -15.964, 4.01198, 23.0495, 13.2645, 83.9906, -124.184
2.52837, -1, -16.1437, 3.92067, 23.0856, 13.2666, 83.8952, -124.425
2.53631, -1, -16.3235, 3.82943, 23.1216, 13.2687, 83.7998, -124.666
2.54337, -1, -16.5028, 3.73824, 23.1573, 13.2709, 83.7044, -124.908
2.55132, -1, -16.6818, 3.64708, 23.1932, 13.2731, 83.609, -125.149
2.55938, -1, -16.8602, 3.55598, 23.2291, 13.2755, 83.5136, -125.39
2.56732, -1, -17.0377, 3.46498, 23.2649, 13.2777, 83.4182, -125.631
2.57532, -1, -17.2146, 3.37404, 23.3007, 13.2799, 83.3229, -125.872
2.58338, -1, -17.3911, 3.28316, 23.3366, 13.282, 83.2279, -126.112
2.59136, -1, -17.5674, 3.19228, 23.3723, 13.2842, 83.1328, -126.353
2.59931, -1, -17.7434, 3.10167, 23.4081, 13.2864, 83.0379, -126.593
2.60739, -1, -17.9193, 3.01107, 23.444, 13.2884, 82.9433, -126.833
2.61534, -1, -18.0956, 2.9206, 23.4797, 13.2905, 82.8483, -127.073
2.62332, -1, -18.2722, 2.83023, 23.5154, 13.2927, 82.7536, -127.314
2.63139, -1, -18.4492, 2.73978, 23.5512, 13.2947, 82.659, -127.554
2.63931, -1, -18.6267, 2.64938, 23.5868, 13.2968, 82.5642, -127.793
2.64733, -1, -18.8043, 2.55906, 23.6225, 13.2988, 82.4697, -128.033
2.65538, -1, -18.9824, 2.46856, 23.6583, 13.3008, 82.3754, -128.272
2.66331, -1, -19.1607, 2.3781, 23.6938, 13.3028, 82.2809, -128.512
2.67132, -1, -19.3388, 2.28775, 23.7293, 13.3048, 82.1865, -128.751
2.67938, -1, -19.5165, 2.19735, 23.765, 13.307, 82.0928, -128.99
2.68734, -1, -19.6936, 2.10701, 23.8005, 13.3091, 81.9984, -129.229
2.69535, -1, -19.87, 2.01678, 23.8358, 13.3112, 81.9042, -129.468
2.70346, -1, -20.0458, 1.92652, 23.8715, 13.3134, 81.8103, -129.707
2.71141, -1, -20.221, 1.83631, 23.907, 13.3157, 81.7161, -129.945
2.71948, -1, -20.3959, 1.74621, 23.9424, 13.3179, 81.6222, -130.183
2.72742, -1, -20.5704, 1.65615, 23.978, 13.3201, 81.5284, -130.422
2.73542, -1, -20.7449, 1.56621, 24.0135, 13.3222, 81.4343, -130.66
2.74349, -1, -20.9196, 1.47633, 24.0489, 13.3244, 81.3406, -130.898
2.75135, -1, -21.0946, 1.38661, 24.0844, 13.3266, 81.247, -131.136
2.75939, -1, -21.27, 1.29685, 24.1199, 13.3288, 81.1531, -131.374
2.76744, -1, -21.4457, 1.20715, 24.1553, 13.331, 81.0592, -131.612
2.77539, -1, -21.6218, 1.11752, 24.1907, 13.3331, 80.9654, -131.849
2.78423, -1, -21.7979, 1.02785, 24.2261, 13.3353, 80.8716, -132.087
2.79159, -1, -21.9743, 0.938214, 24.2615, 13.3375, 80.7778, -132.324
2.80031, -1, -22.1509, 0.848653, 24.2969, 13.3396, 80.6843, -132.561
2.80859, -1, -22.3274, 0.759124, 24.3323, 13.3418, 80.5906, -132.798
2.81571, -1, -22.5034, 0.669656, 24.3674, 13.3441, 80.497, -133.035
2.82383, -1, -22.679, 0.580153, 24.4027, 13.3464, 80.4034, -133.272
2.83274, -1, -22.854, 0.490753, 24.438, 13.3488, 80.3098, -133.509
2.83986, -1, -23.0279, 0.401335, 24.4732, 13.3512, 80.2163, -133.746
2.84841, -1, -23.2015, 0.311966, 24.5083, 13.3537, 80.1227, -133.982
2.85693, -1, -23.3748, 0.222609, 24.5435, 13.356, 80.0293, -134.219
2.86441, -1, -23.5479, 0.133369, 24.5788, 13.3585, 79.9359, -134.455
2.87195, -1, -23.6346, 0.0887997, 24.5963, 13.3597, 79.8426, -134.691
2.87932, -1, -23.8079, -0.000309833, 24.6315, 13.362, 79.7962, -134.809
2.88731, -1, -23.9814, -0.0892973, 24.6667, 13.3645, 79.7029, -135.046
2.89537, -1, -24.1551, -0.178286, 24.7018, 13.367, 79.6098, -135.282
2.90332, -1, -24.3291, -0.267281, 24.7368, 13.3694, 79.5167, -135.517
2.91256, -1, -24.5906, -0.400602, 24.7896, 13.3731, 79.3771, -135.87
2.91933, -1, -24.678, -0.445067, 24.8071, 13.3743, 79.3306, -135.988
2.9273, -1, -24.8529, -0.533973, 24.8421, 13.3767, 79.2375, -136.224
2.93545, -1, -25.0281, -0.622832, 24.8772, 13.3791, 79.1446, -136.459
2.9433, -1, -25.203, -0.711604, 24.9123, 13.3815, 79.0516, -136.694
2.95383, -1, -25.4645, -0.844758, 24.9648, 13.3851, 78.9127, -137.047
2.95938, -1, -25.5515, -0.889132, 24.9823, 13.3863, 78.8664, -137.164
2.96889, -1, -25.8116, -1.02219, 25.0345, 13.3899, 78.7272, -137.516
2.9777, -1, -25.9842, -1.11091, 25.0695, 13.3923, 78.635, -137.751
2.98337, -1, -26.0704, -1.15526, 25.087, 13.3936, 78.5888, -137.868
2.99318, -1, -26.2425, -1.24394, 25.1393, 13.3972, 78.4498, -138.22
2.99931, -1, -26.4142, -1.33245, 25.1567, 13.3984, 78.4035, -138.337
3.00831, -1, -26.5861, -1.42088, 25.1917, 13.4006, 78.3112, -138.572
3.01636, -1, -26.7582, -1.50927, 25.2266, 13.4028, 78.2186, -138.806
3.02433, -1, -26.9305, -1.59744, 25.2615, 13.4051, 78.1262, -139.04
3.03139, -1, -27.1029, -1.68561, 25.2963, 13.4073, 78.034, -139.273
3.03931, -1, -27.2754, -1.77386, 25.3312, 13.4095, 77.9418, -139.507
3.0473, -1, -27.4483, -1.86196, 25.3659, 13.4117, 77.8497, -139.741
3.05533, -1, -27.6215, -1.9501, 25.4007, 13.4137, 77.7578, -139.974
3.06336, -1, -27.7948, -2.03826, 25.4356, 13.4158, 77.6658, -140.208
3.0713, -1, -27.9681, -2.12627, 25.4704, 13.4179, 77.5737, -140.441
3.07931, -1, -28.1414, -2.21431, 25.5051, 13.4199, 77.4817, -140.675
3.08739, -1, -28.3145, -2.30233, 25.5399, 13.422, 77.3897, -140.908
3.0953, -1, -28.4873, -2.39039, 25.5747, 13.424, 77.2976, -141.141
3.10331, -1, -28.6596, -2.4783, 25.6093, 13.4262, 77.2055, -141.374
3.11136, -1, -28.8313, -2.56631, 25.644, 13.4283, 77.1136, -141.607
3.11935, -1, -29.0023, -2.65431, 25.6787, 13.4306, 77.0216, -141.839
3.12731, -1, -29.1729, -2.7422, 25.7132, 13.4327, 76.9296, -142.072
3.13537, -1, -29.3435, -2.83004, 25.7479, 13.4347, 76.8381, -142.304
3.14335, -1, -29.5142, -2.91774, 25.7826, 13.4368, 76.746, -142.537
3.15133, -1, -29.6851, -3.00533, 25.817, 13.4388, 76.6543, -142.769
3.15934, -1, -29.8562, -3.09288, 25.8516, 13.4408, 76.5627, -143.002
3.1673, -1, -30.0271, -3.18035, 25.8862, 13.4429, 76.4706, -143.234
3.17617, -1, -30.1981, -3.26787, 25.9208, 13.445, 76.3789, -143.466
3.1833, -1, -30.3693, -3.35528, 25.9553, 13.4471, 76.2875, -143.697
3.19132, -1, -30.5409, -3.44272, 25.9899, 13.4491, 76.1958, -143.929
3.20073, -1, -30.7127, -3.53023, 26.0243, 13.4511, 76.1043, -144.161
3.20738, -1, -30.8846, -3.61756, 26.0588, 13.4531, 76.013, -144.392
3.21553, -1, -31.0563, -3.70498, 26.0934, 13.4551, 75.9216, -144.623
3.22369, -1, -31.228, -3.79227, 26.1278, 13.4573, 75.8302, -144.855
3.2314, -1, -31.3993, -3.87958, 26.1622, 13.4593, 75.7389, -145.086
3.23947, -1, -31.5701, -3.96689, 26.1967, 13.4615, 75.6477, -145.318
3.24788, -1, -31.7405, -4.05414, 26.2311, 13.4637, 75.5564, -145.548
3.25546, -1, -31.9105, -4.1414, 26.2654, 13.4658, 75.4653, -145.779
3.2634, -1, -32.0801, -4.22863, 26.2999, 13.468, 75.3743, -146.01
3.27288, -1, -32.2495, -4.31577, 26.3343, 13.4702, 75.2832, -146.241
3.2803, -1, -32.419, -4.4028, 26.3685, 13.4724, 75.1921, -146.472
3.28758, -1, -32.5887, -4.48977, 26.4028, 13.4745, 75.1016, -146.702
3.29721, -1, -32.7584, -4.57667, 26.4373, 13.4766, 75.0106, -146.932
3.3036, -1, -32.9281, -4.66356, 26.4715, 13.4788, 74.9198, -147.163
3.31173, -1, -33.0978, -4.75048, 26.5057, 13.481, 74.8294, -147.393
3.32136, -1, -33.2677, -4.83731, 26.54, 13.4832, 74.7386, -147.623
3.32786, -1, -33.4377, -4.92415, 26.5743, 13.4854, 74.648, -147.853
3.33651, -1, -33.6081, -5.0111, 26.6085, 13.4876, 74.5575, -148.083
3.34611, -1, -33.7784, -5.09789, 26.6427, 13.4899, 74.4669, -148.313
3.3519, -1, -33.9485, -5.18464, 26.6769, 13.4921, 74.3763, -148.542
3.36049, -1, -34.1187, -5.27138, 26.711, 13.4943, 74.2859, -148.772
3.36864, -1, -34.2038, -5.31475, 26.728, 13.4966, 74.1954, -149.001
3.37595, -1, -34.3737, -5.40141, 26.7623, 13.4977, 74.15, -149.23
3.38329, -1, -34.5435, -5.48806, 26.7965, 13.5, 74.0594, -149.345
3.3913, -1, -34.7127, -5.57471, 26.8305, 13.5024, 73.9689, -149.575
3.39935, -1, -34.8814, -5.66133, 26.8647, 13.5049, 73.8783, -149.804
3.40728, -1, -35.0499, -5.74786, 26.8988, 13.5073, 73.7879, -150.033
3.41529, -1, -35.2182, -5.83434, 26.9329, 13.5098, 73.6975, -150.261
3.42459, -1, -35.4709, -5.96379, 26.984, 13.5133, 73.5619, -150.605
3.43125, -1, -35.5552, -6.00688, 27.001, 13.5145, 73.5168, -150.719
3.44141, -1, -35.8079, -6.1362, 27.052, 13.5179, 73.3815, -151.062
3.4473, -1, -35.8922, -6.17928, 27.069, 13.5192, 73.3363, -151.177
3.45692, -1, -36.145, -6.30846, 27.1201, 13.5229, 73.2007, -151.519
3.46334, -1, -36.2293, -6.35154, 27.137, 13.524, 73.1554, -151.634
3.47129, -1, -36.398, -6.43776, 27.1709, 13.5265, 73.0652, -151.862
3.48089, -1, -36.6513, -6.56699, 27.2219, 13.5299, 72.9296, -152.205
3.48964, -1, -36.7357, -6.61009, 27.2558, 13.5322, 72.8393, -152.432
3.4953, -1, -36.9046, -6.69625, 27.2727, 13.5333, 72.7944, -152.547
3.50328, -1, -37.0736, -6.78242, 27.3067, 13.5356, 72.7043, -152.775
3.51229, -1, -37.2423, -6.86853, 27.3405, 13.5379, 72.6143, -153.003
3.51938, -1, -37.4108, -6.9545, 27.3743, 13.5402, 72.5245, -153.23
3.52836, -1, -37.5788, -7.04055, 27.4083, 13.5424, 72.4346, -153.458
3.53531, -1, -37.7466, -7.12657, 27.4422, 13.5447, 72.3447, -153.685
3.54335, -1, -37.9143, -7.21254, 27.476, 13.5469, 72.2549, -153.913
3.55128, -1, -38.0817, -7.29845, 27.5098, 13.5491, 72.1652, -154.14
3.55929, -1, -38.2492, -7.38433, 27.5438, 13.5513, 72.0754, -154.368
3.5673, -1, -38.4166, -7.47008, 27.5776, 13.5535, 71.9857, -154.595
3.57529, -1, -38.5838, -7.55576, 27.6114, 13.5555, 71.8963, -154.822
3.58335, -1, -38.7511, -7.6415, 27.6453, 13.5576, 71.8065, -155.049
3.59131, -1, -38.9184, -7.72717, 27.679, 13.5596, 71.7171, -155.276
3.59928, -1, -39.0858, -7.81278, 27.7126, 13.5616, 71.628, -155.503
3.60736, -1, -39.2533, -7.89842, 27.7465, 13.5637, 71.5385, -155.73
3.61528, -1, -39.4208, -7.98411, 27.7803, 13.5656, 71.4492, -155.957
3.62333, -1, -39.5883, -8.06966, 27.8139, 13.5676, 71.3599, -156.183
3.63135, -1, -39.756, -8.15515, 27.8476, 13.5696, 71.2705, -156.41
3.63928, -1, -39.9236, -8.24064, 27.8814, 13.5716, 71.1812, -156.636
3.64731, -1, -40.0912, -8.3261, 27.9151, 13.5735, 71.0917, -156.862
3.65534, -1, -40.2586, -8.41146, 27.9487, 13.5754, 71.0027, -157.089
3.66328, -1, -40.4258, -8.49684, 27.9825, 13.5774, 70.9132, -157.315
3.67129, -1, -40.5928, -8.58222, 28.0161, 13.5793, 70.824, -157.541
3.67935, -1, -40.7597, -8.66764, 28.0496, 13.5813, 70.7351, -157.767
3.68729, -1, -40.9263, -8.753, 28.0834, 13.5834, 70.6458, -157.993
3.69549, -1, -41.0927, -8.83832, 28.1171, 13.5854, 70.5567, -158.219
3.70337, -1, -41.259, -8.92356, 28.1506, 13.5874, 70.4677, -158.445
3.71137, -1, -41.4252, -9.00874, 28.1842, 13.5894, 70.3784, -158.67
3.7197, -1, -41.5915, -9.09389, 28.2179, 13.5914, 70.2892, -158.896
3.72739, -1, -41.7577, -9.17896, 28.2515, 13.5934, 70.2002, -159.121
3.73538, -1, -41.9241, -9.26401, 28.285, 13.5954, 70.1111, -159.347
3.744, -1, -42.0905, -9.34903, 28.3188, 13.5974, 70.0221, -159.572
3.75236, -1, -42.2568, -9.4341, 28.3523, 13.5995, 69.9331, -159.797
3.75933, -1, -42.423, -9.51912, 28.3858, 13.6015, 69.8444, -160.023
3.7681, -1, -42.5894, -9.60409, 28.4194, 13.6035, 69.7552, -160.248
3.77635, -1, -42.7557, -9.68903, 28.4529, 13.6055, 69.6663, -160.473
3.78341, -1, -42.9221, -9.774, 28.4863, 13.6076, 69.5777, -160.698
3.79154, -1, -43.0886, -9.85892, 28.5199, 13.6096, 69.4887, -160.923
3.80035, -1, -43.2547, -9.94385, 28.5534, 13.6116, 69.4002, -161.148
3.80758, -1, -43.4208, -10.0288, 28.5869, 13.6138, 69.3115, -161.372
3.81569, -1, -43.5869, -10.1137, 28.6204, 13.6158, 69.2228, -161.597
3.82465, -1, -43.7528, -10.1987, 28.6539, 13.6179, 69.1343, -161.822
3.83175, -1, -43.9186, -10.2835, 28.6873, 13.6201, 69.0458, -162.046
3.83989, -1, -44.0842, -10.3682, 28.7207, 13.6222, 68.9574, -162.271
3.84855, -1, -44.2495, -10.4529, 28.7543, 13.6243, 68.8687, -162.495
3.85584, -1, -44.4147, -10.5375, 28.7877, 13.6265, 68.7801, -162.719
3.86442, -1, -44.5799, -10.622, 28.821, 13.6288, 68.6916, -162.944
3.87268, -1, -44.6625, -10.6643, 28.8377, 13.6309, 68.6029, -163.168
3.87927, -1, -44.8278, -10.7487, 28.8713, 13.632, 68.5587, -163.28
3.88831, -1, -45.0758, -10.8754, 28.9214, 13.6353, 68.4262, -163.616
3.89527, -1, -45.1584, -10.9177, 28.9381, 13.6364, 68.3819, -163.728
3.90327, -1, -45.3237, -11.0022, 28.9716, 13.6386, 68.2934, -163.952
3.91244, -1, -45.5716, -11.1288, 29.0215, 13.6421, 68.161, -164.288
3.91927, -1, -45.6543, -11.171, 29.0381, 13.6432, 68.1171, -164.4
3.92731, -1, -45.8195, -11.2555, 29.0715, 13.6455, 68.0285, -164.623
3.93532, -1, -45.9837, -11.3394, 29.1049, 13.6478, 67.9402, -164.847
3.94327, -1, -46.1452, -11.4217, 29.1384, 13.6501, 67.8521, -165.07
3.95279, -1, -46.3784, -11.5393, 29.1888, 13.6536, 67.7217, -165.4
3.96082, -1, -46.5246, -11.6119, 29.2219, 13.656, 67.6379, -165.611
3.96927, -1, -46.6606, -11.6788, 29.2532, 13.6582, 67.5596, -165.81
3.97527, -1, -46.7239, -11.7096, 29.2678, 13.6592, 67.5231, -165.903
3.98333, -1, -46.8391, -11.7658, 29.2942, 13.6613, 67.4559, -166.072
3.99292, -1, -46.9815, -11.8373, 29.3255, 13.6637, 67.3761, -166.275
4.00126, -1, -47.0565, -11.8774, 29.3394, 13.6648, 67.3368, -166.374
4.00743, -1, -47.0883, -11.895, 29.3445, 13.6651, 67.3212, -166.413
4.01527, -1, -47.1409, -11.9246, 29.3518, 13.6655, 67.2978, -166.472
4.02522, -1, -47.18, -11.9468, 29.3558, 13.6657, 67.2775, -166.523
4.03132, -1, -47.2079, -11.9624, 29.3576, 13.6659, 67.2737, -166.533
4.03929, -1, -47.2262, -11.9725, 29.3585, 13.6659, 67.269, -166.545
4.04736, -1, -47.2372, -11.9785, 29.3589, 13.666, 67.2665, -166.551
4.0553, 2, -47.2429, -11.9815, 29.3591, 13.666, 67.2654, -166.554
4.06327, 2, -47.2451, -11.9829, 29.3592, 13.6661, 67.2649, -166.555
4.07127, 2, -47.2451, -11.9834, 29.3593, 13.6661, 67.2647, -166.556
4.07934, 2, -47.2449, -11.9836, 29.3594, 13.6661, 67.2646, -166.556
4.08728, 2, -47.2449, -11.9837, 29.3594, 13.6661, 67.2645, -166.556
4.09529, 2, -47.2453, -11.9837, 29.3594, 13.6661, 67.2644, -166.556
4.10332, 2, -47.2462, -11.984, 29.3594, 13.6662, 67.2644, -166.556
4.11127, 2, -47.2475, -11.9845, 29.3595, 13.6662, 67.2644, -166.556
4.11927, 2, -47.2493, -11.9853, 29.3594, 13.6661, 67.2644, -166.556
4.12737, 2, -47.2509, -11.9862, 29.3595, 13.6661, 67.2645, -166.556
4.13527, 2, -47.2522, -11.987, 29.3595, 13.6661, 67.2644, -166.556
4.14327, 2, -47.2532, -11.9877, 29.3594, 13.6662, 67.2644, -166.556
4.15133, 2, -47.2537, -11.9881, 29.3594, 13.6661, 67.2644, -166.556
4.15927, 2, -47.2539, -11.9883, 29.3594, 13.6661, 67.2644, -166.556
4.16728, 2, -47.254, -11.9884, 29.3594, 13.6661, 67.2644, -166.556
4.17534, 2, -47.2537, -11.9884, 29.3595, 13.6661, 67.2644, -166.556
4.18327, 2, -47.2532, -11.9884, 29.3595, 13.6662, 67.2644, -166.556
4.19127, 2, -47.2528, -11.9884, 29.3595, 13.6662, 67.2644, -166.556
4.19938, 2, -47.2524, -11.9884, 29.3595, 13.6661, 67.2645, -166.556
4.20738, 2, -47.2523, -11.9884, 29.3595, 13.6661, 67.2645, -166.556
4.21536, 2, -47.2523, -11.9884, 29.3595, 13.6661, 67.2645, -166.556
4.22343, 2, -47.2524, -11.9886, 29.3595, 13.666, 67.2645, -166.556
4.2314, 2, -47.2525, -11.9889, 29.3595, 13.6661, 67.2645, -166.556
4.23937, 2, -47.2531, -11.9892, 29.3595, 13.6661, 67.2645, -166.556
4.24745, 2, -47.2537, -11.9895, 29.3595, 13.6662, 67.2645, -166.556
4.25527, 2, -47.2539, -11.9897, 29.3595, 13.6661, 67.2644, -166.556
4.26332, 2, -47.2541, -11.9898, 29.3595, 13.6661, 67.2644, -166.556
4.27137, 2, -47.2542, -11.9898, 29.3595, 13.6661, 67.2645, -166.556
4.27933, 2, -47.254, -11.9898, 29.3595, 13.6661, 67.2645, -166.556
4.28743, 2, -47.2539, -11.9898, 29.3595, 13.6661, 67.2645, -166.556
4.29559, 2, -47.2534, -11.9897, 29.3595, 13.6661, 67.2645, -166.556
4.30358, 2, -47.2531, -11.9897, 29.3595, 13.6661, 67.2645, -166.556
4.31164, 2, -47.2529, -11.9897, 29.3595, 13.6661, 67.2645, -166.556
4.31969, 2, -47.2526, -11.9897, 29.3595, 13.6661, 67.2645, -166.556
4.32771, 2, -47.2525, -11.9897, 29.3595, 13.6661, 67.2645, -166.556
4.33635, 2, -47.2524, -11.9897, 29.3595, 13.6661, 67.2645, -166.556
4.34386, 2, -47.2525, -11.9898, 29.3595, 13.6661, 67.2645, -166.556
4.35243, 2, -47.2524, -11.9899, 29.3595, 13.6661, 67.2645, -166.556
4.3599, 2, -47.2524, -11.9899, 29.3595, 13.6661, 67.2645, -166.556
4.36843, 2, -47.2525, -11.9899, 29.3595, 13.6661, 67.2645, -166.556
4.3759, 2, -47.2525, -11.9899, 29.3595, 13.6661, 67.2645, -166.556
4.38327, 2, -47.2524, -11.9899, 29.3595, 13.666, 67.2645, -166.556
4.39232, 2, -47.2524, -11.9898, 29.3595, 13.666, 67.2645, -166.556
4.39925, 2, -47.2523, -11.9898, 29.3595, 13.666, 67.2645, -166.556
4.40728, 2, -47.2522, -11.9897, 29.3595, 13.666, 67.2645, -166.556
4.41529, 2, -47.2521, -11.9897, 29.3595, 13.666, 67.2645, -166.556
4.42325, 2, -47.252, -11.9897, 29.3595, 13.666, 67.2645, -166.556
4.43138, 2, -47.2518, -11.9897, 29.3595, 13.666, 67.2645, -166.556
4.4393, 2, -47.2517, -11.9897, 29.3595, 13.666, 67.2645, -166.556
4.44871, 2, -47.2517, -11.9897, 29.3595, 13.666, 67.2645, -166.556
4.45526, 2, -47.2516, -11.9897, 29.3595, 13.666, 67.2645, -166.556
4.46481, 2, -47.2515, -11.9897, 29.3595, 13.666, 67.2645, -166.556
4.47289, 2, -47.2514, -11.9897, 29.3595, 13.666, 67.2645, -166.556
4.48088, 2, -47.2514, -11.9897, 29.3595, 13.666, 67.2645, -166.556
4.48884, 2, -47.2513, -11.9897, 29.3595, 13.666, 67.2645, -166.556
4.49705, 2, -47.2513, -11.9896, 29.3595, 13.666, 67.2646, -166.556
4.50327, 2, -47.2512, -11.9896, 29.3595, 13.666, 67.2646, -166.555
4.51227, 2, -47.2511, -11.9895, 29.3595, 13.666, 67.2646, -166.555
4.52029, 2, -47.251, -11.9894, 29.3595, 13.666, 67.2646, -166.555
4.52826, 2, -47.2509, -11.9894, 29.3595, 13.666, 67.2646, -166.555
4.53532, 2, -47.2508, -11.9894, 29.3595, 13.666, 67.2646, -166.555
4.54327, 2, -47.2507, -11.9894, 29.3595, 13.666, 67.2646, -166.555
4.55127, 2, -47.2506, -11.9894, 29.3595, 13.666, 67.2646, -166.555
4.55931, 2, -47.2505, -11.9894, 29.3595, 13.666, 67.2646, -166.555
4.56726, 2, -47.2504, -11.9894, 29.3595, 13.666, 67.2646, -166.555
4.57527, 2, -47.2503, -11.9894, 29.3595, 13.666, 67.2646, -166.555
4.5833, 2, -47.2502, -11.9894, 29.3595, 13.666, 67.2646, -166.555
4.59125, 2, -47.2501, -11.9894, 29.3595, 13.666, 67.2646, -166.555
4.5993, 2, -47.25, -11.9894, 29.3595, 13.666, 67.2646, -166.555
4.60732, 2, -47.2499, -11.9893, 29.3595, 13.666, 67.2646, -166.555
4.61525, 2, -47.2498, -11.9891, 29.3595, 13.6659, 67.2647, -166.555
4.62327, 2, -47.2497, -11.9891, 29.3595, 13.6659, 67.2647, -166.555
4.63134, 2, -47.2496, -11.9891, 29.3595, 13.6659, 67.2647, -166.555
4.63925, 2, -47.2495, -11.9891, 29.3595, 13.6659, 67.2646, -166.555
4.64728, 2, -47.2494, -11.9891, 29.3595, 13.6659, 67.2647, -166.555
4.6553, 2, -47.2493, -11.989, 29.3595, 13.6659, 67.2647, -166.555
4.66325, 2, -47.2493, -11.989, 29.3595, 13.6659, 67.2646, -166.555
4.67128, 2, -47.2492, -11.989, 29.3595, 13.6659, 67.2647, -166.555
4.6793, 2, -47.2492, -11.989, 29.3595, 13.6659, 67.2647, -166.555
4.68727, 2, -47.2491, -11.989, 29.3595, 13.6658, 67.2647, -166.555
4.69527, 2, -47.2491, -11.989, 29.3595, 13.6658, 67.2647, -166.555
4.70336, 2, -47.249, -11.989, 29.3595, 13.6659, 67.2647, -166.555
4.71134, 2, -47.249, -11.9889, 29.3595, 13.6658, 67.2647, -166.555
4.71936, 2, -47.2488, -11.9888, 29.3595, 13.6658, 67.2647, -166.555
4.7274, 2, -47.2488, -11.9887, 29.3595, 13.6658, 67.2647, -166.555
4.73535, 2, -47.2487, -11.9886, 29.3595, 13.6658, 67.2647, -166.555
4.74347, 2, -47.2486, -11.9886, 29.3595, 13.6658, 67.2647, -166.555
4.75141, 2, -47.2486, -11.9886, 29.3595, 13.6658, 67.2647, -166.555
4.75937, 2, -47.2485, -11.9886, 29.3595, 13.6658, 67.2647, -166.555
4.76735, 2, -47.2485, -11.9886, 29.3595, 13.6658, 67.2647, -166.555
4.77533, 2, -47.2485, -11.9886, 29.3595, 13.6658, 67.2647, -166.555
4.78329, 2, -47.2485, -11.9886, 29.3595, 13.6658, 67.2647, -166.555
4.79162, 2, -47.2485, -11.9886, 29.3595, 13.6658, 67.2647, -166.555
4.79953, 2, -47.2485, -11.9886, 29.3595, 13.6657, 67.2648, -166.555
4.80757, 2, -47.2484, -11.9885, 29.3595, 13.6656, 67.2648, -166.555
4.8159, 2, -47.2483, -11.9884, 29.3595, 13.6656, 67.2648, -166.555
4.82427, 2, -47.2483, -11.9883, 29.3595, 13.6657, 67.2648, -166.555
4.83167, 2, -47.2482, -11.9883, 29.3595, 13.6657, 67.2648, -166.554
4.84024, 2, -47.2481, -11.9882, 29.3595, 13.6656, 67.2648, -166.554
4.84783, 2, -47.248, -11.9882, 29.3595, 13.6656, 67.2648, -166.554
4.85639, 2, -47.2479, -11.9882, 29.3595, 13.6656, 67.2648, -166.554
4.86406, 2, -47.2479, -11.9882, 29.3595, 13.6656, 67.2648, -166.554
4.87202, 2, -47.2479, -11.9882, 29.3595, 13.6655, 67.2648, -166.554
4.87981, 2, -47.2478, -11.9882, 29.3595, 13.6656, 67.2648, -166.554
4.88831, 2, -47.2478, -11.9881, 29.3595, 13.6656, 67.2648, -166.554
4.89528, 2, -47.2478, -11.9881, 29.3595, 13.6656, 67.2648, -166.554
4.90436, 2, -47.2478, -11.9881, 29.3595, 13.6656, 67.2648, -166.554
4.91148, 2, -47.2478, -11.9881, 29.3595, 13.6656, 67.2648, -166.554
4.91928, 2, -47.2477, -11.9881, 29.3595, 13.6656, 67.2648, -166.554
4.92851, 2, -47.2476, -11.9879, 29.3595, 13.6656, 67.2648, -166.554
4.93528, 2, -47.2475, -11.9879, 29.3595, 13.6656, 67.2648, -166.554
4.94328, 2, -47.2474, -11.9878, 29.3595, 13.6656, 67.2649, -166.554
4.9527, 2, -47.2473, -11.9878, 29.3595, 13.6655, 67.2649, -166.554
4.95925, 2, -47.2473, -11.9878, 29.3595, 13.6655, 67.2649, -166.554
4.96732, 2, -47.2472, -11.9878, 29.3595, 13.6655, 67.265, -166.554
4.97681, 2, -47.2472, -11.9878, 29.3595, 13.6654, 67.265, -166.554
4.98532, 2, -47.2472, -11.9877, 29.3595, 13.6654, 67.265, -166.554
4.99128, 2, -47.2472, -11.9877, 29.3595, 13.6654, 67.265, -166.554
5.00086, 2, -47.2472, -11.9877, 29.3595, 13.6654, 67.265, -166.554
5.00925, 2, -47.2471, -11.9877, 29.3595, 13.6654, 67.265, -166.554
5.01529, 2, -47.2471, -11.9877, 29.3595, 13.6654, 67.265, -166.554
5.02427, 2, -47.2471, -11.9876, 29.3595, 13.6654, 67.265, -166.554
5.03324, 2, -47.247, -11.9875, 29.3595, 13.6654, 67.2651, -166.554
5.0393, 2, -47.2469, -11.9875, 29.3595, 13.6654, 67.2651, -166.554
5.04727, 2, -47.2468, -11.9874, 29.3595, 13.6654, 67.265, -166.554
5.0554, 2, -47.2467, -11.9874, 29.3595, 13.6654, 67.2651, -166.554
5.06422, 2, -47.2466, -11.9874, 29.3595, 13.6653, 67.2651, -166.554
5.0724, 2, -47.2466, -11.9874, 29.3595, 13.6653, 67.265, -166.554
5.07924, 2, -47.2465, -11.9873, 29.3595, 13.6653, 67.2651, -166.554
5.08727, 2, -47.2465, -11.9873, 29.3595, 13.6653, 67.2651, -166.554
5.09529, 2, -47.2465, -11.9873, 29.3595, 13.6653, 67.2651, -166.554
5.10324, 2, -47.2465, -11.9873, 29.3595, 13.6653, 67.2651, -166.554
5.11124, 2, -47.2465, -11.9873, 29.3595, 13.6653, 67.2651, -166.554
5.11926, 2, -47.2465, -11.9872, 29.3595, 13.6653, 67.2651, -166.554
5.12725, 2, -47.2464, -11.9872, 29.3595, 13.6652, 67.2651, -166.554
5.13533, 2, -47.2463, -11.9871, 29.3595, 13.6652, 67.2651, -166.554
5.14326, 4, -47.2462, -11.9871, 29.3595, 13.6652, 67.2651, -166.554
5.15124, 4, -47.2461, -11.987, 29.3595, 13.6652, 67.2651, -166.554
5.15924, 4, -47.2461, -11.987, 29.3595, 13.6652, 67.2652, -166.554
5.16734, 4, -47.2461, -11.987, 29.3595, 13.6652, 67.2652, -166.554
5.17524, 4, -47.246, -11.987, 29.3595, 13.6652, 67.2652, -166.554
5.18325, 4, -47.246, -11.9869, 29.3595, 13.6652, 67.2653, -166.554
5.1913, 4, -47.246, -11.9869, 29.3595, 13.6652, 67.2652, -166.554
5.19925, 4, -47.2459, -11.9869, 29.3595, 13.6651, 67.2653, -166.553
5.20732, 4, -47.2459, -11.9869, 29.3595, 13.6651, 67.2653, -166.553
5.2154, 4, -47.2458, -11.9869, 29.3595, 13.6651, 67.2653, -166.553
5.22334, 4, -47.2458, -11.9869, 29.3595, 13.6651, 67.2653, -166.553
5.23135, 4, -47.2458, -11.9868, 29.3595, 13.6651, 67.2653, -166.553
5.23939, 4, -47.2458, -11.9868, 29.3595, 13.6651, 67.2653, -166.553
5.2475, 4, -47.2457, -11.9867, 29.3595, 13.6651, 67.2652, -166.553
5.25957, 4, -47.2456, -11.9867, 29.3595, 13.6651, 67.2653, -166.553
5.26448, 4, -47.2456, -11.9867, 29.3595, 13.6651, 67.2653, -166.553
5.27809, 4, -47.2455, -11.9867, 29.3595, 13.665, 67.2653, -166.553
5.28076, 4, -47.2454, -11.9866, 29.3595, 13.665, 67.2653, -166.553
5.28839, 4, -47.2454, -11.9866, 29.3595, 13.665, 67.2653, -166.553
5.29579, 4, -47.2454, -11.9866, 29.3594, 13.665, 67.2653, -166.553
5.30788, 4, -47.2454, -11.9866, 29.3595, 13.665, 67.2653, -166.553
5.3133, 4, -47.2454, -11.9866, 29.3595, 13.665, 67.2653, -166.553
5.32124, 4, -47.2453, -11.9866, 29.3595, 13.665, 67.2653, -166.553
5.32803, 4, -47.2453, -11.9865, 29.3594, 13.6649, 67.2653, -166.553
5.33685, 4, -47.2453, -11.9865, 29.3594, 13.6649, 67.2653, -166.553
5.34447, 4, -47.2452, -11.9865, 29.3594, 13.6649, 67.2653, -166.553
5.35485, 4, -47.2452, -11.9864, 29.3594, 13.6649, 67.2653, -166.553
5.36055, 4, -47.2451, -11.9864, 29.3595, 13.6649, 67.2653, -166.553
5.37038, 4, -47.2451, -11.9864, 29.3595, 13.6649, 67.2653, -166.553
5.37654, 4, -47.2451, -11.9863, 29.3595, 13.6648, 67.2653, -166.553
5.38502, 4, -47.245, -11.9864, 29.3594, 13.6648, 67.2653, -166.553
5.39204, 4, -47.245, -11.9864, 29.3594, 13.6648, 67.2654, -166.553
5.4001, 4, -47.245, -11.9863, 29.3595, 13.6648, 67.2654, -166.553
5.40738, 4, -47.2449, -11.9863, 29.3595, 13.6648, 67.2653, -166.553
5.41945, 4, -47.2454, -11.9865, 29.3596, 13.6649, 67.2653, -166.553
5.42337, 4, -47.2459, -11.9868, 29.3598, 13.665, 67.2654, -166.553
5.43343, 4, -47.2501, -11.9904, 29.3638, 13.67, 67.2668, -166.552
5.4427, 4, -47.2555, -11.9969, 29.3723, 13.6864, 67.2708, -166.55
5.44738, 4, -47.2594, -12.0021, 29.3798, 13.7011, 67.2747, -166.547
5.45815, 4, -47.279, -12.0282, 29.4231, 13.7882, 67.2989, -166.528
5.46344, 5, -47.289, -12.0417, 29.447, 13.8377, 67.3128, -166.516
5.4741, 5, -47.3329, -12.0997, 29.5584, 14.0718, 67.3784, -166.463
5.47952, 5, -47.353, -12.1256, 29.6113, 14.1845, 67.4093, -166.437
5.4877, 5, -47.4025, -12.1884, 29.7437, 14.4696, 67.488, -166.371
5.49763, 5, -47.5007, -12.3107, 30.0127, 15.0545, 67.646, -166.237
5.50594, 5, -47.5817, -12.4112, 30.2402, 15.5458, 67.7773, -166.125
5.51355, 5, -47.6741, -12.5255, 30.502, 16.106, 67.9252, -165.998
5.52103, 5, -47.7242, -12.5874, 30.6445, 16.4077, 68.0858, -165.859
5.5322, 5, -47.8869, -12.7894, 31.1106, 17.3771, 68.2536, -165.714
5.53537, 5, -47.9444, -12.8612, 31.2759, 17.7151, 68.3393, -165.64
5.54631, 5, -48.123, -13.0856, 31.7909, 18.7496, 68.5962, -165.416
5.55141, 5, -48.1834, -13.1621, 31.9666, 19.0976, 68.681, -165.342
5.56036, 5, -48.3035, -13.3153, 32.3208, 19.7902, 68.848, -165.195
5.56742, 5, -48.4195, -13.4661, 32.6751, 20.4692, 69.0111, -165.046
5.57536, 5, -48.5274, -13.6119, 33.0248, 21.1254, 69.1709, -164.886
5.58443, 6, -48.6228, -13.7489, 33.3635, 21.7457, 69.3293, -164.704
5.59236, 6, -48.7014, -13.8755, 33.6865, 22.3221, 69.4885, -164.486
5.60241, 7, -48.7806, -14.0483, 34.1344, 23.0941, 69.7346, -164.062
5.60839, 7, -48.796, -14.1017, 34.2735, 23.327, 69.8199, -163.889
5.61842, 8, -48.8111, -14.2472, 34.6608, 23.9653, 70.0908, -163.265
5.62439, 8, -48.8063, -14.2907, 34.7817, 24.1621, 70.1868, -163.022
5.63169, 9, -48.784, -14.3717, 35.0142, 24.5394, 70.3882, -162.49
5.6438, 9, -48.7247, -14.4824, 35.3464, 25.0856, 70.714, -161.596
5.6474, 10, -48.6998, -14.5167, 35.4553, 25.2666, 70.8282, -161.279
5.6594, 10, -48.6124, -14.6133, 35.7812, 25.8151, 71.1852, -160.295
5.66445, 11, -48.5794, -14.6442, 35.8902, 26.0008, 71.3078, -159.959
5.6724, 11, -48.5085, -14.7062, 36.1096, 26.3768, 71.5565, -159.285
5.67937, 12, -48.4328, -14.7687, 36.3299, 26.7591, 71.8072, -158.611
5.68903, 12, -48.3547, -14.8311, 36.5483, 27.1472, 72.0587, -157.94
5.69637, 13, -48.2748, -14.8931, 36.7646, 27.5403, 72.3099, -157.271
5.70444, 13, -48.1931, -14.9548, 36.9788, 27.9368, 72.5602, -156.607
5.71569, 14, -48.0661, -15.0469, 37.2933, 28.5356, 72.9327, -155.617
5.72039, 14, -48.0224, -15.0773, 37.3968, 28.7357, 73.056, -155.288
5.72973, 15, -47.9329, -15.1382, 37.6023, 29.1364, 73.3014, -154.635
5.73979, 15, -47.7907, -15.2291, 37.9043, 29.7368, 73.6656, -153.661
5.74348, 16, -47.7408, -15.2593, 38.0038, 29.9364, 73.7859, -153.338
5.75235, 16, -47.6365, -15.3199, 38.2012, 30.3347, 74.0247, -152.694
5.7611, 17, -47.5265, -15.3809, 38.3956, 30.7315, 74.2606, -152.056
5.7681, 17, -47.4116, -15.4427, 38.5864, 31.1266, 74.4931, -151.421
5.77683, 18, -47.2918, -15.5053, 38.7749, 31.5199, 74.7222, -150.79
5.78623, 18, -47.1669, -15.5689, 38.9613, 31.9113, 74.9474, -150.166
5.79231, 19, -47.0372, -15.634, 39.1446, 32.3009, 75.1681, -149.549
5.80054, 19, -46.9029, -15.7011, 39.3261, 32.6889, 75.3842, -148.938
5.80835, 20, -46.7637, -15.7702, 39.5066, 33.0751, 75.595, -148.334
5.81655, 20, -46.6195, -15.8414, 39.6853, 33.4589, 75.8005, -147.739
5.82619, 21, -46.4703, -15.9152, 39.8612, 33.8405, 76.0004, -147.151
5.83298, 21, -46.3166, -15.9918, 40.0353, 34.2197, 76.1947, -146.571
5.84237, 22, -46.1577, -16.071, 40.2081, 34.5959, 76.3829, -145.998
5.85212, 22, -45.9089, -16.1939, 40.4621, 35.1537, 76.6545, -145.153
5.85638, 23, -45.8231, -16.236, 40.5453, 35.3376, 76.7423, -144.874
5.8655, 23, -45.6464, -16.3218, 40.71, 35.7022, 76.9133, -144.322
5.87259, 24, -45.4632, -16.4094, 40.8717, 36.0623, 77.0791, -143.774
5.88111, 24, -45.2729, -16.4985, 41.0291, 36.4172, 77.2394, -143.232
5.88822, 24, -45.0758, -16.5887, 41.182, 36.7658, 77.3949, -142.694
5.89672, 25, -44.9748, -16.6342, 41.2569, 37.108, 77.5456, -142.159
5.90425, 25, -44.7679, -16.7258, 41.4034, 37.2766, 77.6193, -141.627
5.91542, 26, -44.445, -16.8641, 41.6135, 37.7714, 77.8336, -141.098
5.92185, 27, -44.2211, -16.9561, 41.7465, 38.092, 77.9714, -140.571
5.92741, 27, -44.1067, -17.0019, 41.8108, 38.2493, 78.0386, -140.308
5.93732, 28, -43.7537, -17.1382, 41.9945, 38.709, 78.235, -139.52
5.94337, 28, -43.6328, -17.1831, 42.0525, 38.858, 78.2985, -139.259
5.95138, 29, -43.3856, -17.272, 42.1634, 39.1498, 78.4231, -138.736
5.9617, 29, -43.0022, -17.4024, 42.3169, 39.5717, 78.6043, -137.952
5.96912, 30, -42.7377, -17.4872, 42.4103, 39.8424, 78.7208, -137.43
5.97539, 30, -42.6023, -17.5289, 42.4542, 39.9746, 78.7782, -137.169
5.98343, 31, -42.3248, -17.6105, 42.5368, 40.2326, 78.8906, -136.648
5.99503, 31, -41.8932, -17.7281, 42.6472, 40.6034, 79.0537, -135.868
6.00129, 32, -41.5964, -17.8037, 42.7123, 40.8401, 79.1594, -135.348
6.00993, 32, -41.2928, -17.8768, 42.7706, 41.0684, 79.2622, -134.829
6.01542, 33, -41.1387, -17.9123, 42.797, 41.1794, 79.3128, -134.57
6.02582, 33, -40.8255, -17.9809, 42.8446, 41.5007, 79.4608, -133.795
6.03453, 34, -40.3439, -18.078, 42.9024, 41.7046, 79.556, -133.279
6.0443, 34, -40.0171, -18.1394, 42.9318, 41.9003, 79.6485, -132.764
6.04734, 35, -39.8518, -18.1691, 42.9438, 41.9953, 79.6941, -132.507
6.05831, 35, -39.3468, -18.2529, 42.9692, 42.269, 79.8263, -131.738
6.06702, 36, -39.0016, -18.3045, 42.9773, 42.4419, 79.9119, -131.227
6.07451, 36, -38.6489, -18.3528, 42.9787, 42.6071, 79.9953, -130.716
6.08329, 37, -38.2898, -18.3977, 42.9734, 42.7647, 80.0765, -130.208
6.08742, 37, -38.108, -18.4189, 42.9682, 42.8406, 80.1164, -129.954
6.09883, 38, -37.5542, -18.4768, 42.9422, 43.0576, 80.233, -129.195
6.10334, 38, -37.3673, -18.4944, 42.9303, 43.1262, 80.2709, -128.943
6.11404, 39, -36.7999, -18.5422, 42.8843, 43.3206, 80.3808, -128.189
6.12049, 39, -36.6085, -18.5563, 42.8657, 43.3818, 80.4164, -127.939
6.12883, 40, -36.2222, -18.5817, 42.8232, 43.4987, 80.4867, -127.44
6.13637, 40, -35.8298, -18.6034, 42.7744, 43.6085, 80.5547, -126.943
6.14361, 41, -35.4316, -18.6209, 42.719, 43.7111, 80.6213, -126.447
6.15242, 41, -35.0277, -18.6348, 42.657, 43.806, 80.6851, -125.953
6.16239, 42, -34.4135, -18.649, 42.5521, 43.9357, 80.7781, -125.218
6.16836, 42, -34.2072, -18.6522, 42.5139, 43.9753, 80.8076, -124.974
6.17732, 43, -33.792, -18.656, 42.4329, 44.0493, 80.8664, -124.487
6.18517, 43, -33.3729, -18.6567, 42.3459, 44.1158, 80.9233, -124.002
6.19229, 44, -32.9481, -18.6535, 42.2531, 44.1758, 80.9779, -123.52
6.20335, 44, -32.2994, -18.6419, 42.1032, 44.2514, 81.0581, -122.802
6.20738, 45, -32.08, -18.6361, 42.0503, 44.2731, 81.0835, -122.564
6.2195, 45, -31.4148, -18.6133, 41.8825, 44.3274, 81.1584, -121.852
6.22717, 46, -31.1916, -18.6041, 41.8235, 44.3415, 81.2061, -121.381
6.23181, 46, -30.7439, -18.5829, 41.7012, 44.3639, 81.2289, -121.146
6.24156, 47, -30.2937, -18.558, 41.5732, 44.3787, 81.2738, -120.679
6.25003, 47, -29.8391, -18.5286, 41.4392, 44.3864, 81.3186, -120.213
6.25665, 48, -29.378, -18.4947, 41.2993, 44.3873, 81.3614, -119.749
6.2644, 48, -28.9103, -18.4566, 41.1532, 44.3795, 81.4031, -119.286
6.27246, 49, -28.4369, -18.4141, 41.0012, 44.363, 81.4449, -118.826
6.28046, 49, -27.9605, -18.3672, 40.8433, 44.3376, 81.4864, -118.368
6.28856, 50, -27.4816, -18.3159, 40.6791, 44.3022, 81.5268, -117.91
6.30123, 50, -26.7563, -18.229, 40.4204, 44.2323, 81.5891, -117.225
6.30469, 51, -26.5112, -18.1973, 40.331, 44.2044, 81.6104, -116.997
6.31579, 51, -25.7645, -18.0937, 40.0528, 44.1051, 81.6739, -116.316
6.3199, 52, -25.5123, -18.0563, 39.9562, 44.0674, 81.6954, -116.089
6.32942, 52, -25.0052, -17.9776, 39.7576, 43.9834, 81.7397, -115.635
6.33645, 53, -24.496, -17.8935, 39.5531, 43.8891, 81.7848, -115.182
6.34529, 53, -23.984, -17.8036, 39.3415, 43.7848, 81.83, -114.73
6.35214, 54, -23.4663, -17.7076, 39.122, 43.6697, 81.8775, -114.278
6.36104, 54, -22.9405, -17.6056, 38.8957, 43.544, 81.9272, -113.826
6.36794, 55, -22.4069, -17.4974, 38.6624, 43.4072, 81.9779, -113.374
6.3769, 55, -21.8687, -17.3831, 38.4215, 43.2589, 82.0317, -112.922
6.38675, 56, -21.3281, -17.2628, 38.1746, 43.0992, 82.0869, -112.471
6.39311, 56, -20.7845, -17.1371, 37.921, 42.9284, 82.1431, -112.02
6.40074, 57, -20.2343, -17.0059, 37.6606, 42.7463, 82.2017, -111.569
6.40927, 57, -19.6746, -16.8692, 37.3941, 42.5527, 82.2611, -111.119
6.41534, 58, -19.3915, -16.7988, 37.2581, 42.4512, 82.2916, -110.894
6.4248, 58, -18.8211, -16.6538, 36.9815, 42.2391, 82.3547, -110.444
6.43258, 59, -17.9608, -16.4258, 36.5553, 41.8979, 82.4516, -109.77
6.44528, 59, -17.3827, -16.1864, 36.1152, 41.5291, 82.5538, -109.097
6.4492, 60, -16.7958, -16.1042, 35.9653, 41.3998, 82.589, -108.873
6.45924, 60, -16.1986, -15.9355, 35.6616, 41.1313, 82.6612, -108.424
6.46331, 61, -15.8975, -15.8492, 35.5078, 40.9918, 82.6977, -108.2
6.47464, 61, -14.9886, -15.583, 35.0366, 40.5531, 82.8114, -107.527
6.48148, 62, -14.3779, -15.4001, 34.7148, 40.2441, 82.8906, -107.078
6.48983, 62, -13.7586, -15.2118, 34.3872, 39.9214, 82.9726, -106.63
6.49541, 63, -13.4449, -15.1151, 34.2217, 39.7547, 83.0146, -106.405
6.50334, 63, -12.8105, -14.9164, 33.8864, 39.41, 83.1012, -105.955
6.5157, 64, -11.8485, -14.6082, 33.3736, 38.8651, 83.2377, -105.279
6.52188, 64, -11.5261, -14.5028, 33.1995, 38.4837, 83.3335, -104.827
6.5307, 65, -10.5461, -14.1754, 32.6685, 38.0874, 83.4337, -104.373
6.53765, 65, -10.2141, -14.0628, 32.4885, 37.8835, 83.4858, -104.146
6.5453, 66, -9.54297, -13.8333, 31.9421, 37.2474, 83.6494, -103.46
6.5544, 66, -8.52406, -13.4776, 31.5723, 36.8042, 83.7652, -103.001
6.55976, 67, -8.18188, -13.3555, 31.385, 36.5766, 83.825, -102.771
6.57131, 67, -7.14167, -12.978, 30.8148, 35.8715, 84.0134, -102.077
6.57942, 68, -6.43623, -12.7167, 30.4292, 35.3816, 84.1469, -101.611
6.5874, 68, -5.72312, -12.4493, 30.0399, 34.8768, 84.2874, -101.144
6.5924, 69, -5.36432, -12.3131, 29.8435, 34.6186, 84.3603, -100.909
6.60252, 69, -4.27763, -11.8927, 29.2477, 33.8213, 84.589, -100.201
6.60739, 70, -3.91122, -11.7491, 29.0478, 33.5486, 84.6687, -99.9637
6.61634, 70, -3.17191, -11.4563, 28.6466, 32.9914, 84.8332, -99.4873
6.62585, 71, -2.42562, -11.1561, 28.244, 32.1291, 85.0928, -98.7689
6.63205, 71, -1.67258, -10.8493, 27.8388, 31.835, 85.1829, -98.5285
6.64328, 72, -0.529182, -10.3754, 27.229, 30.9331, 85.4649, -97.803
6.64738, 72, -0.144669, -10.2141, 27.0255, 30.6251, 85.5624, -97.5601
6.65908, 73, 1.01765, -9.71893, 26.4148, 29.6854, 85.8666, -96.8272
6.66511, 73, 1.40808, -9.55026, 26.2114, 29.3665, 85.9718, -96.5822
6.67516, 74, 2.58719, -9.03402, 25.6019, 28.3945, 86.2994, -95.8426
6.67961, 74, 2.98244, -8.85895, 25.3994, 28.0658, 86.4125, -95.595
6.6891, 75, 3.77581, -8.50392, 24.9967, 27.4014, 86.6448, -95.0976
6.69551, 75, 4.5734, -8.14116, 24.5963, 26.7291, 86.8847, -94.5985
6.70532, 76, 5.37372, -7.77171, 24.1989, 26.0521, 87.1333, -94.0976
6.71188, 76, 6.17567, -7.39529, 23.8048, 25.3683, 87.3904, -93.5939
6.72931, 77, 7.78388, -6.6187, 23.0288, 23.9919, 87.9316, -92.5791
6.74177, 78, 8.99245, -6.01458, 22.4569, 22.9537, 88.3624, -91.8114
6.74468, 78, 9.39483, -5.80948, 22.2691, 22.6072, 88.5108, -91.5534
6.74589, 78, 9.39483, -5.80948, 22.2691, 22.6072, 88.5108, -91.5534
6.75223, 79, 10.199, -5.39184, 21.8968, 21.9147, 88.8151, -91.0348
6.75984, 79, 11.0026, -4.96448, 21.5293, 21.2244, 89.129, -90.5124
6.76827, 80, 11.8035, -4.52756, 21.1663, 20.5367, 89.4533, -89.9866
6.77527, 80, 12.6001, -4.08144, 20.8092, 19.8509, 89.7881, -89.4559
6.78329, 81, 13.3922, -3.62555, 20.4569, 19.1721, 90.1336, -88.9207
6.79126, 81, 14.1797, -3.1603, 20.1101, 18.5009, 90.4895, -88.3808
6.79936, 82, 14.9588, -2.68719, 19.7691, 17.8386, 90.8551, -87.8371
6.80744, 82, 15.728, -2.20545, 19.4357, 17.1863, 91.2307, -87.2892
6.81631, 83, 16.4864, -1.71582, 19.1094, 16.5468, 91.6152, -86.7377
6.82367, 83, 17.2333, -1.21938, 18.7911, 15.9243, 92.008, -86.1833
6.83259, 84, 17.9649, -0.717635, 18.4806, 15.3184, 92.4075, -85.628
6.83973, 84, 18.6781, -0.211949, 18.1795, 14.7333, 92.8135, -85.0724
6.84875, 85, 19.3743, 0.298923, 17.8873, 14.1712, 93.2247, -84.5172
6.85571, 85, 20.0543, 0.816492, 17.6042, 13.6338, 93.6409, -83.9639
6.86457, 85, 20.718, 1.33895, 17.3295, 13.1207, 94.0604, -83.4132
6.87196, 86, 21.3653, 1.86499, 17.0625, 12.6317, 94.4832, -82.8639
6.88067, 86, 21.9983, 2.39655, 16.8034, 12.1656, 94.9103, -82.3141
6.88826, 87, 22.6192, 2.93627, 16.5503, 11.722, 95.3427, -81.7623
6.89517, 87, 22.9253, 3.2097, 16.4256, 11.5076, 95.5612, -81.485
6.90315, 88, 23.5291, 3.76249, 16.1799, 11.0928, 96.003, -80.9274
6.91296, 88, 24.4129, 4.60549, 15.8181, 10.5019, 96.6769, -80.0752
6.91919, 89, 24.7012, 4.89122, 15.7002, 10.313, 96.9049, -79.7867
6.92718, 89, 25.2691, 5.47057, 15.4689, 9.94618, 97.3658, -79.2013
6.9352, 90, 25.8273, 6.05998, 15.2409, 9.5954, 97.833, -78.6052
6.94528, 90, 26.652, 6.96073, 14.9056, 9.09727, 98.5456, -77.6866
6.9512, 91, 26.9219, 7.26501, 14.7963, 8.93968, 98.7864, -77.3739
6.96139, 91, 27.7117, 8.19217, 14.476, 8.49463, 99.5176, -76.4196
6.96744, 92, 27.969, 8.5065, 14.3714, 8.35622, 99.764, -76.0957
6.97518, 92, 28.4767, 9.143, 14.1659, 8.09624, 100.259, -75.4404
6.98474, 93, 29.2232, 10.1148, 13.8672, 7.74846, 101.008, -74.4432
6.99356, 93, 29.7061, 10.7705, 13.677, 7.54605, 101.507, -73.7699
6.99942, 94, 29.9422, 11.1, 13.585, 7.45366, 101.757, -73.4305
7.00724, 94, 30.4032, 11.7612, 13.4069, 7.28668, 102.254, -72.7475
7.01542, 95, 30.8496, 12.4252, 13.2355, 7.14343, 102.749, -72.0605
7.02318, 95, 31.282, 13.0907, 13.0717, 7.02403, 103.24, -71.3675
7.03214, 96, 31.7008, 13.758, 12.9158, 6.92815, 103.728, -70.6688
7.04034, 96, 32.1055, 14.4262, 12.7667, 6.85607, 104.212, -69.9656
7.04716, 97, 32.4945, 15.0948, 12.624, 6.80805, 104.692, -69.2565
7.05524, 97, 32.8673, 15.7634, 12.4883, 6.78129, 105.167, -68.5413
7.06315, 98, 33.2236, 16.4303, 12.3604, 6.77584, 105.636, -67.823
7.07124, 98, 33.5649, 17.0948, 12.2412, 6.79289, 106.098, -67.1015
7.07919, 99, 33.8924, 17.7548, 12.1309, 6.83018, 106.551, -66.3766
7.08724, 99, 34.2067, 18.4094, 12.0299, 6.88745, 106.993, -65.6524
7.09514, 100, 34.5092, 19.0563, 11.938, 6.9637, 107.423, -64.9297
7.10318, 100, 34.8006, 19.695, 11.8548, 7.05719, 107.842, -64.2082
7.11146, 101, 35.08, 20.3241, 11.7802, 7.16796, 108.246, -63.4919
7.11922, 101, 35.3475, 20.9423, 11.7135, 7.29374, 108.636, -62.7819
7.12721, 101, 35.6038, 21.5494, 11.6554, 7.43377, 109.011, -62.0783
7.13524, 102, 35.8482, 22.144, 11.6059, 7.58605, 109.369, -61.3849
7.14318, 102, 36.0802, 22.7256, 11.5649, 7.74907, 109.709, -60.703
7.15119, 103, 36.3022, 23.2922, 11.5327, 7.92152, 110.032, -60.032
7.15928, 103, 36.5166, 23.8429, 11.5094, 8.10278, 110.336, -59.3734
7.16717, 104, 36.7238, 24.3777, 11.4952, 8.29318, 110.622, -58.7288
7.17517, 104, 36.9232, 24.8962, 11.4891, 8.49273, 110.887, -58.096
7.18331, 104, 37.1163, 25.3981, 11.49, 8.70084, 111.131, -57.4755
7.19117, 104, 37.3028, 25.884, 11.4973, 8.91632, 111.356, -56.8685
7.19922, 104, 37.4807, 26.3531, 11.5097, 9.1374, 111.561, -56.2762
7.20724, 104, 37.6492, 26.8056, 11.5252, 9.36178, 111.75, -55.6994
7.21531, 104, 37.8104, 27.2425, 11.5436, 9.58707, 111.924, -55.141
7.22326, 104, 37.9664, 27.6633, 11.5641, 9.81056, 112.085, -54.6036
7.23147, 104, 38.1175, 28.0681, 11.5852, 10.0303, 112.237, -54.0892
7.23931, 104, 38.2627, 28.4556, 11.6061, 10.2451, 112.381, -53.5973
7.24728, 104, 38.4012, 28.8268, 11.626, 10.4538, 112.516, -53.1299
7.25534, 104, 38.5326, 29.1798, 11.6446, 10.6554, 112.644, -52.6864
7.26325, 104, 38.6561, 29.5149, 11.6623, 10.849, 112.764, -52.2681
7.27118, 104, 38.7713, 29.8306, 11.6787, 11.0341, 112.876, -51.8748
7.27938, 104, 38.8781, 30.1276, 11.6939, 11.2098, 112.98, -51.5061
7.28733, 104, 38.9769, 30.4062, 11.7081, 11.3757, 113.077, -51.163
7.29529, 104, 39.0681, 30.6647, 11.7212, 11.5312, 113.167, -50.8456
7.30342, 104, 39.1516, 30.9039, 11.733, 11.6759, 113.249, -50.553
7.31139, 104, 39.2271, 31.1235, 11.7436, 11.8095, 113.324, -50.2857
7.31956, 104, 39.2948, 31.3228, 11.7535, 11.9318, 113.392, -50.0437
7.32763, 104, 39.3549, 31.5027, 11.7626, 12.0422, 113.452, -49.8268
7.33557, 104, 39.4076, 31.6631, 11.7705, 12.1406, 113.506, -49.635
7.3437, 104, 39.4536, 31.8043, 11.7775, 12.2269, 113.552, -49.4681
7.35225, 104, 39.4938, 31.9271, 11.784, 12.3008, 113.591, -49.3258
7.35974, 104, 39.5282, 32.0329, 11.7898, 12.3635, 113.624, -49.2067
7.36828, 104, 39.5567, 32.1221, 11.7949, 12.4142, 113.651, -49.11
7.37582, 104, 39.5799, 32.196, 11.7995, 12.4538, 113.671, -49.0333
7.38434, 104, 39.5985, 32.2566, 11.8036, 12.4843, 113.687, -48.9758
7.39206, 104, 39.6129, 32.3054, 11.8074, 12.507, 113.698, -48.9339
7.39993, 104, 39.6187, 32.3257, 11.8091, 12.523, 113.705, -48.9052
7.40828, 104, 39.632, 32.372, 11.8138, 12.5337, 113.71, -48.8863
7.41614, 104, 39.6352, 32.3835, 11.8152, 12.5404, 113.712, -48.8749
7.42322, 104, 39.64, 32.402, 11.8177, 12.5426, 113.713, -48.8713
7.43237, 104, 39.6438, 32.42, 11.8205, 12.5464, 113.714, -48.8658
7.43922, 104, 39.6445, 32.4238, 11.8212, 12.5469, 113.715, -48.865
7.44721, 105, 39.645, 32.4291, 11.8223, 12.5477, 113.715, -48.8644
7.45661, 105, 39.6439, 32.4339, 11.8238, 12.5481, 113.715, -48.8642
7.46319, 105, 39.6434, 32.435, 11.8242, 12.5482, 113.715, -48.8643
7.47266, 105, 39.6418, 32.4375, 11.8252, 12.5483, 113.715, -48.8647
7.48071, 105, 39.6408, 32.4388, 11.8258, 12.5483, 113.715, -48.8651
7.48883, 105, 39.6397, 32.4401, 11.8263, 12.5483, 113.715, -48.8654
7.49522, 105, 39.6393, 32.4406, 11.8266, 12.5483, 113.715, -48.8656
7.50477, 105, 39.6386, 32.4423, 11.8275, 12.5483, 113.715, -48.8662
7.51275, 105, 39.6384, 32.4428, 11.8278, 12.5483, 113.715, -48.8665
7.52016, 105, 39.6381, 32.4438, 11.8283, 12.5483, 113.715, -48.8666
7.52908, 105, 39.6378, 32.445, 11.829, 12.5483, 113.715, -48.8671
7.53516, 105, 39.6376, 32.4453, 11.8292, 12.5483, 113.715, -48.8673
7.54321, 105, 39.6373, 32.4458, 11.8295, 12.5483, 113.715, -48.8675
7.55117, 105, 39.637, 32.446, 11.8297, 12.5483, 113.715, -48.8678
7.56016, 105, 39.6366, 32.4462, 11.83, 12.5483, 113.715, -48.8681
