hehonglu123/Motion-Primitive-Planning/ILC/recorded_data/realrobot/from_NX/iteration_0/run_1.csv
timestamp, cmd_num, J1, J2, J3, J4, J5, J6
0.000425, -1, 39.6321, 32.4461, 11.8315, 12.5469, 113.714, -48.8708
0.004305, -1, 39.6321, 32.4461, 11.8315, 12.5469, 113.714, -48.8708
0.007697, -1, 39.6321, 32.4461, 11.8315, 12.5469, 113.714, -48.8708
0.028595, -1, 39.6321, 32.4461, 11.8315, 12.5469, 113.714, -48.8708
0.031382, -1, 39.6321, 32.4461, 11.8315, 12.5469, 113.714, -48.8708
0.034409, -1, 39.6321, 32.4461, 11.8315, 12.5469, 113.714, -48.8708
0.039652, -1, 39.6321, 32.4461, 11.8315, 12.5469, 113.714, -48.8708
0.047568, -1, 39.632, 32.4461, 11.8315, 12.5469, 113.714, -48.8708
0.05563, -1, 39.6315, 32.446, 11.8315, 12.5469, 113.714, -48.8708
0.063571, -1, 39.6292, 32.4455, 11.8314, 12.5469, 113.714, -48.8708
0.204382, -1, 38.1656, 31.6966, 12.1239, 12.5597, 112.942, -50.8407
0.20565, -1, 38.1656, 31.6966, 12.1239, 12.5597, 112.942, -50.8407
0.207651, -1, 38.0757, 31.6497, 12.1434, 12.5609, 112.892, -50.9678
0.208982, -1, 38.0757, 31.6497, 12.1434, 12.5609, 112.892, -50.9678
0.211598, -1, 38.0757, 31.6497, 12.1434, 12.5609, 112.892, -51.0957
0.212894, -1, 37.9845, 31.6023, 12.1628, 12.5621, 112.841, -51.0957
0.214096, -1, 37.9845, 31.6023, 12.1628, 12.5621, 112.841, -51.0957
0.217759, -1, 37.8922, 31.5543, 12.1822, 12.5633, 112.79, -51.2243
0.219771, -1, 37.7988, 31.506, 12.2016, 12.5645, 112.739, -51.3534
0.22296, -1, 37.7988, 31.506, 12.2211, 12.5657, 112.688, -51.4828
0.224427, -1, 37.7047, 31.4574, 12.2211, 12.5657, 112.688, -51.4828
0.225631, -1, 37.7047, 31.4574, 12.2211, 12.5657, 112.688, -51.4828
0.227702, -1, 37.6099, 31.4087, 12.2404, 12.5669, 112.637, -51.6125
0.228973, -1, 37.6099, 31.4087, 12.2404, 12.5669, 112.637, -51.6125
0.230185, -1, 37.6099, 31.4087, 12.2404, 12.5669, 112.637, -51.6125
0.232396, -1, 37.5145, 31.3598, 12.2598, 12.5681, 112.586, -51.7423
0.233685, -1, 37.5145, 31.3598, 12.2598, 12.5681, 112.586, -51.7423
0.23642, -1, 37.4189, 31.3108, 12.2792, 12.5694, 112.535, -51.872
0.237752, -1, 37.4189, 31.3108, 12.2792, 12.5694, 112.535, -51.872
0.239873, -1, 37.323, 31.2619, 12.2986, 12.5706, 112.483, -52.0018
0.24111, -1, 37.323, 31.2619, 12.2986, 12.5706, 112.483, -52.0018
0.242375, -1, 37.323, 31.2619, 12.2986, 12.5706, 112.483, -52.0018
0.249564, -1, 37.131, 31.164, 12.3374, 12.573, 112.381, -52.2614
0.255659, -1, 36.9387, 31.0663, 12.3761, 12.5756, 112.278, -52.5212
0.263744, -1, 36.7468, 30.9686, 12.4149, 12.5781, 112.174, -52.7815
0.271596, -1, 36.5552, 30.8709, 12.4538, 12.5807, 112.072, -53.0418
0.279624, -1, 36.3637, 30.7732, 12.4926, 12.5834, 111.969, -53.3021
0.287721, -1, 36.1722, 30.6755, 12.5314, 12.586, 111.866, -53.5625
0.295713, -1, 35.9807, 30.5776, 12.5703, 12.5886, 111.763, -53.8232
0.303735, -1, 35.7893, 30.4796, 12.6093, 12.5912, 111.66, -54.0837
0.311947, -1, 35.5975, 30.3816, 12.6481, 12.5937, 111.557, -54.3439
0.319896, -1, 35.4054, 30.2834, 12.6869, 12.5963, 111.454, -54.6043
0.328013, -1, 35.213, 30.1851, 12.7257, 12.599, 111.351, -54.8648
0.334573, -1, 35.1169, 30.136, 12.7452, 12.6003, 111.299, -54.9953
0.344115, -1, 34.8285, 29.9883, 12.8035, 12.6042, 111.145, -55.3862
0.352208, -1, 34.6362, 29.8898, 12.8423, 12.6067, 111.041, -55.6468
0.360124, -1, 34.4439, 29.7913, 12.8813, 12.6092, 110.939, -55.9075
0.368173, -1, 34.2518, 29.6929, 12.9202, 12.6119, 110.835, -56.1685
0.376313, -1, 34.0597, 29.5946, 12.9591, 12.6145, 110.732, -56.4294
0.384108, -1, 33.9639, 29.5455, 12.9786, 12.6158, 110.681, -56.69
0.391555, -1, 33.7722, 29.4472, 13.0175, 12.6185, 110.578, -56.8204
0.399609, -1, 33.5804, 29.3489, 13.0563, 12.6212, 110.475, -57.0814
0.407545, -1, 33.3882, 29.2505, 13.0953, 12.6238, 110.372, -57.3427
0.415549, -1, 33.1957, 29.152, 13.1342, 12.6264, 110.269, -57.6035
0.423597, -1, 33.003, 29.0534, 13.173, 12.629, 110.165, -57.8646
0.431538, -1, 32.81, 28.9548, 13.2119, 12.6317, 110.063, -58.1257
0.439579, -1, 32.6167, 28.8562, 13.2509, 12.6344, 109.959, -58.387
0.447585, -1, 32.4231, 28.7575, 13.2897, 12.6372, 109.856, -58.6481
0.455541, -1, 32.2292, 28.6588, 13.3286, 12.6398, 109.753, -58.9091
0.463612, -1, 32.0351, 28.5601, 13.3675, 12.6425, 109.65, -59.1701
0.471542, -1, 31.8412, 28.4613, 13.4064, 12.6453, 109.547, -59.4315
0.479568, -1, 31.6475, 28.3625, 13.4454, 12.648, 109.444, -59.6929
0.487619, -1, 31.454, 28.2638, 13.4844, 12.6508, 109.341, -59.954
0.495556, -1, 31.2611, 28.1653, 13.5233, 12.6536, 109.238, -60.2153
0.503542, -1, 31.0685, 28.0668, 13.5624, 12.6564, 109.135, -60.4768
0.51317, -1, 30.8763, 27.9682, 13.6014, 12.6593, 109.032, -60.7383
0.519568, -1, 30.6842, 27.8697, 13.6403, 12.6621, 108.929, -60.9996
0.528534, -1, 30.4923, 27.7711, 13.6794, 12.6649, 108.825, -61.2608
0.664659, -1, 27.208, 26.0912, 14.3421, 12.7079, 107.069, -65.7089
0.666554, -1, 27.1118, 26.0417, 14.3615, 12.709, 107.017, -65.8399
0.667898, -1, 27.1118, 26.0417, 14.3615, 12.709, 107.017, -65.8399
0.669202, -1, 27.1118, 26.0417, 14.3615, 12.709, 107.017, -65.8399
0.671288, -1, 27.0155, 25.9923, 14.3809, 12.7102, 106.966, -65.9707
0.672497, -1, 27.0155, 25.9923, 14.3809, 12.7102, 106.966, -65.9707
0.673678, -1, 27.0155, 25.9923, 14.3809, 12.7102, 106.966, -65.9707
0.677711, -1, 26.9192, 25.9429, 14.4004, 12.7113, 106.914, -66.1017
0.679805, -1, 26.8228, 25.8935, 14.4199, 12.7125, 106.862, -66.2327
0.682562, -1, 26.8228, 25.8935, 14.4199, 12.7125, 106.811, -66.3635
0.683998, -1, 26.7263, 25.8441, 14.4394, 12.7136, 106.811, -66.3635
0.685258, -1, 26.7263, 25.8441, 14.4394, 12.7136, 106.811, -66.3635
0.687539, -1, 26.6297, 25.7946, 14.4589, 12.7147, 106.759, -66.4943
0.688806, -1, 26.6297, 25.7946, 14.4589, 12.7147, 106.759, -66.4943
0.690755, -1, 26.533, 25.7452, 14.4783, 12.7159, 106.707, -66.6251
0.693412, -1, 26.533, 25.7452, 14.4783, 12.7159, 106.707, -66.6251
0.695491, -1, 26.4362, 25.6958, 14.4977, 12.717, 106.656, -66.756
0.696723, -1, 26.4362, 25.6958, 14.4977, 12.717, 106.656, -66.756
0.697992, -1, 26.4362, 25.6958, 14.4977, 12.717, 106.656, -66.756
0.701077, -1, 26.3393, 25.6464, 14.5172, 12.7182, 106.604, -66.8869
0.703062, -1, 26.2423, 25.597, 14.5367, 12.7193, 106.553, -67.0178
0.705158, -1, 26.2423, 25.597, 14.5367, 12.7193, 106.553, -67.0178
0.716535, -1, 25.951, 25.4486, 14.5952, 12.7227, 106.398, -67.4107
0.719611, -1, 25.8538, 25.3992, 14.6146, 12.7239, 106.347, -67.5414
0.727637, -1, 25.6596, 25.3004, 14.6536, 12.7262, 106.244, -67.803
0.735712, -1, 25.4656, 25.2016, 14.6926, 12.7284, 106.14, -68.0646
0.743642, -1, 25.272, 25.1029, 14.7315, 12.7307, 106.037, -68.3264
0.751647, -1, 25.0785, 25.0041, 14.7706, 12.7331, 105.934, -68.5883
0.759718, -1, 24.8853, 24.9053, 14.8096, 12.7354, 105.83, -68.8497
0.767545, -1, 24.6924, 24.8065, 14.8485, 12.7378, 105.727, -69.1114
0.775601, -1, 24.5, 24.7076, 14.8875, 12.7402, 105.624, -69.3732
0.783973, -1, 24.3077, 24.6087, 14.9266, 12.7426, 105.521, -69.6349
0.791584, -1, 24.1152, 24.5098, 14.9656, 12.745, 105.417, -69.8964
0.799685, -1, 23.9224, 24.4111, 15.0046, 12.7473, 105.314, -70.1578
0.807774, -1, 23.7296, 24.3122, 15.0434, 12.7497, 105.21, -70.4195
0.815834, -1, 23.5365, 24.2134, 15.0824, 12.7521, 105.107, -70.6814
0.823978, -1, 23.3429, 24.1144, 15.1213, 12.7545, 105.004, -70.943
0.832046, -1, 23.149, 24.0155, 15.1602, 12.7569, 104.9, -71.2048
0.839952, -1, 22.9551, 23.9166, 15.1991, 12.7594, 104.797, -71.4664
0.848167, -1, 22.761, 23.8178, 15.2381, 12.7618, 104.694, -71.7284
0.856432, -1, 22.5671, 23.7191, 15.2771, 12.7643, 104.59, -71.9901
0.864105, -1, 22.3734, 23.6205, 15.3161, 12.7668, 104.487, -72.2515
0.872175, -1, 22.1802, 23.5217, 15.355, 12.7694, 104.383, -72.5129
0.880392, -1, 22.0835, 23.423, 15.3939, 12.772, 104.28, -72.7745
0.888076, -1, 21.8905, 23.3737, 15.4134, 12.7733, 104.229, -73.0361
0.897014, -1, 21.6981, 23.2749, 15.4524, 12.776, 104.125, -73.2972
0.903586, -1, 21.5059, 23.1761, 15.4913, 12.7786, 104.022, -73.4279
0.911525, -1, 21.3137, 23.0774, 15.5303, 12.7813, 103.919, -73.6894
0.91958, -1, 21.1214, 22.9787, 15.5693, 12.784, 103.816, -73.951
0.927528, -1, 20.929, 22.8801, 15.6082, 12.7867, 103.713, -74.2123
0.935541, -1, 20.7365, 22.7815, 15.6472, 12.7894, 103.61, -74.4734
0.943544, -1, 20.5438, 22.6829, 15.6861, 12.7922, 103.506, -74.7346
0.951578, -1, 20.3507, 22.5843, 15.7249, 12.795, 103.404, -74.996
0.959585, -1, 20.157, 22.4855, 15.7639, 12.7976, 103.301, -75.2572
0.967523, -1, 19.9633, 22.3868, 15.8027, 12.8004, 103.197, -75.5183
0.975525, -1, 19.7697, 22.2881, 15.8414, 12.8031, 103.095, -75.7794
0.983597, -1, 19.5761, 22.1895, 15.8804, 12.8058, 102.992, -76.0407
0.991529, -1, 19.3826, 22.091, 15.9193, 12.8085, 102.888, -76.302
0.999522, -1, 19.1896, 21.9923, 15.9581, 12.8112, 102.786, -76.5629
1.0076, -1, 18.9968, 21.8937, 15.9971, 12.814, 102.682, -76.8237
1.01554, -1, 18.8043, 21.795, 16.0358, 12.8167, 102.579, -77.0847
1.02644, -1, 18.5164, 21.6469, 16.094, 12.8207, 102.425, -77.4762
1.0316, -1, 18.4205, 21.5977, 16.1135, 12.822, 102.374, -77.6065
1.04057, -1, 18.2287, 21.4991, 16.1524, 12.8247, 102.271, -77.8672
1.04755, -1, 18.0368, 21.4006, 16.1911, 12.8271, 102.168, -78.1279
1.0556, -1, 17.845, 21.3023, 16.2301, 12.8298, 102.065, -78.3887
1.06352, -1, 17.6529, 21.2039, 16.269, 12.8322, 101.962, -78.6493
1.07153, -1, 17.4605, 21.1056, 16.3078, 12.8347, 101.859, -78.9096
1.07952, -1, 17.2676, 21.0073, 16.3466, 12.8371, 101.756, -79.1701
1.08753, -1, 17.0745, 20.9091, 16.3854, 12.8395, 101.653, -79.4309
1.09559, -1, 16.8814, 20.8108, 16.4242, 12.8419, 101.55, -79.6915
1.10353, -1, 16.6883, 20.7126, 16.463, 12.8441, 101.448, -79.9519
1.11154, -1, 16.4952, 20.6144, 16.5017, 12.8464, 101.345, -80.2124
1.11972, -1, 16.3023, 20.5161, 16.5404, 12.8487, 101.242, -80.473
1.12753, -1, 16.11, 20.4178, 16.5792, 12.8511, 101.14, -80.7336
1.13552, -1, 15.9181, 20.3194, 16.6179, 12.8534, 101.037, -80.9937
1.1436, -1, 15.7265, 20.2208, 16.6566, 12.8557, 100.934, -81.2537
1.15155, -1, 15.5352, 20.1224, 16.6952, 12.858, 100.832, -81.5139
1.15952, -1, 15.3441, 20.0241, 16.7338, 12.8603, 100.729, -81.774
1.16759, -1, 15.153, 19.9259, 16.7727, 12.8627, 100.626, -82.0339
1.17552, -1, 14.9618, 19.8277, 16.8113, 12.8649, 100.524, -82.2936
1.18356, -1, 14.7705, 19.7296, 16.85, 12.8672, 100.421, -82.5535
1.19158, -1, 14.579, 19.6315, 16.8887, 12.8695, 100.319, -82.8136
1.19953, -1, 14.3871, 19.5333, 16.9274, 12.8718, 100.216, -83.0733
1.20758, -1, 14.1949, 19.4353, 16.9661, 12.874, 100.114, -83.3327
1.21556, -1, 14.0025, 19.3373, 17.0048, 12.8763, 100.011, -83.5923
1.22361, -1, 13.81, 19.2395, 17.0433, 12.8786, 99.9086, -83.852
1.23168, -1, 13.6174, 19.1417, 17.082, 12.8809, 99.8062, -84.1117
1.23968, -1, 13.4251, 19.0438, 17.1207, 12.8832, 99.7036, -84.3709
1.24764, -1, 13.2331, 18.9459, 17.1591, 12.8855, 99.6015, -84.6301
1.25568, -1, 13.0416, 18.848, 17.1977, 12.8879, 99.499, -84.8895
1.26358, -1, 12.8504, 18.75, 17.2364, 12.8902, 99.3966, -85.1489
1.27155, -1, 12.6594, 18.6521, 17.2749, 12.8926, 99.2945, -85.408
1.27981, -1, 12.4687, 18.5543, 17.3134, 12.8951, 99.1921, -85.6668
1.28763, -1, 12.2786, 18.4565, 17.352, 12.8974, 99.0898, -85.9256
1.29563, -1, 12.0885, 18.3588, 17.3904, 12.8999, 98.9879, -86.1847
1.30457, -1, 11.8982, 18.2612, 17.429, 12.9023, 98.8857, -86.4434
1.31177, -1, 11.7077, 18.1635, 17.4676, 12.9047, 98.7838, -86.7019
1.31994, -1, 11.5169, 18.0659, 17.506, 12.9072, 98.682, -86.9604
1.32877, -1, 11.3259, 17.9683, 17.5446, 12.9096, 98.58, -87.219
1.33595, -1, 11.1345, 17.8708, 17.5832, 12.912, 98.4781, -87.4776
1.34402, -1, 10.943, 17.7733, 17.6216, 12.9145, 98.3762, -87.7358
1.35289, -1, 10.7514, 17.6759, 17.6601, 12.917, 98.2742, -87.994
1.36018, -1, 10.5597, 17.5784, 17.6985, 12.9196, 98.1724, -88.2525
1.36811, -1, 10.3684, 17.4809, 17.7369, 12.9221, 98.0706, -88.5108
1.37693, -1, 10.1774, 17.3834, 17.7753, 12.9246, 97.9686, -88.7687
1.38415, -1, 10.082, 17.3346, 17.8137, 12.9274, 97.8669, -89.0268
1.39214, -1, 9.89153, 17.2369, 17.8329, 12.9286, 97.7648, -89.285
1.40099, -1, 9.70139, 17.1394, 17.8712, 12.9312, 97.7138, -89.4141
1.40752, -1, 9.51181, 17.042, 17.9095, 12.934, 97.6119, -89.6721
1.41557, -1, 9.32264, 16.9447, 17.9478, 12.9367, 97.5102, -89.9297
1.42351, -1, 9.13335, 16.8473, 17.9863, 12.9394, 97.4082, -90.1872
1.43152, -1, 8.94396, 16.7502, 18.0246, 12.942, 97.3064, -90.4447
1.43963, -1, 8.75448, 16.653, 18.0629, 12.9447, 97.2048, -90.7023
1.44754, -1, 8.56493, 16.5558, 18.1014, 12.9472, 97.1031, -90.9595
1.45561, -1, 8.37516, 16.4588, 18.1397, 12.95, 97.0016, -91.2167
1.46351, -1, 8.18484, 16.3618, 18.178, 12.9527, 96.9001, -91.4738
1.4715, -1, 7.99429, 16.2649, 18.2163, 12.9553, 96.7984, -91.731
1.47966, -1, 7.80379, 16.168, 18.2546, 12.958, 96.697, -91.988
1.48753, -1, 7.61318, 16.071, 18.2928, 12.9605, 96.5955, -92.2447
1.49551, -1, 7.42276, 15.9741, 18.3312, 12.9631, 96.494, -92.5014
1.50359, -1, 7.23254, 15.8772, 18.3692, 12.9656, 96.3929, -92.7583
1.51151, -1, 7.04268, 15.7801, 18.4074, 12.9682, 96.2916, -93.015
1.5221, -1, 6.8533, 15.6832, 18.4648, 12.972, 96.1399, -93.3997
1.52758, -1, 6.66436, 15.5863, 18.4838, 12.9732, 96.0897, -93.5278
1.53656, -1, 6.47588, 15.4895, 18.5219, 12.9758, 95.9885, -93.7842
1.54351, -1, 6.28765, 15.3928, 18.5601, 12.9783, 95.8874, -94.0406
1.55158, -1, 6.09967, 15.2961, 18.5982, 12.9807, 95.7868, -94.2965
1.55957, -1, 5.91141, 15.1994, 18.6364, 12.983, 95.6856, -94.5524
1.56751, -1, 5.72301, 15.1027, 18.6746, 12.9854, 95.5846, -94.8083
1.57552, -1, 5.53454, 15.0061, 18.7127, 12.9877, 95.4841, -95.0644
1.58357, -1, 5.34575, 14.9095, 18.7508, 12.9901, 95.3832, -95.32
1.59153, -1, 5.15658, 14.8131, 18.7891, 12.9923, 95.2825, -95.5752
1.59958, -1, 4.96722, 14.7169, 18.8271, 12.9945, 95.1819, -95.8307
1.60757, -1, 4.77779, 14.6205, 18.8652, 12.9967, 95.0811, -96.0862
1.61555, -1, 4.58825, 14.5241, 18.9033, 12.9989, 94.9803, -96.3414
1.62384, -1, 4.39905, 14.4278, 18.9413, 13.0011, 94.8797, -96.5964
1.63151, -1, 4.21012, 14.3314, 18.9793, 13.0033, 94.7788, -96.8512
1.63956, -1, 4.02141, 14.235, 19.0173, 13.0056, 94.6779, -97.1064
1.6483, -1, 3.83335, 14.1388, 19.0553, 13.0079, 94.5771, -97.3615
1.65553, -1, 3.64581, 14.0427, 19.0933, 13.0101, 94.4763, -97.6161
1.66352, -1, 3.4586, 13.9465, 19.1312, 13.0125, 94.3758, -97.8708
1.6723, -1, 3.27166, 13.8505, 19.169, 13.0148, 94.2751, -98.1255
1.67956, -1, 3.08475, 13.7545, 19.2069, 13.0171, 94.1744, -98.3804
1.68757, -1, 2.89781, 13.6585, 19.2449, 13.0193, 94.0739, -98.6348
1.69632, -1, 2.7108, 13.5625, 19.2828, 13.0215, 93.9732, -98.8889
1.70351, -1, 2.5235, 13.4665, 19.3207, 13.0238, 93.8727, -99.143
1.71176, -1, 2.33611, 13.3706, 19.3585, 13.0261, 93.7724, -99.3972
1.72044, -1, 2.14819, 13.2749, 19.3962, 13.0284, 93.672, -99.6513
1.72759, -1, 1.96005, 13.1791, 19.4342, 13.0306, 93.5718, -99.9047
1.73588, -1, 1.77197, 13.0832, 19.4719, 13.0329, 93.472, -100.158
1.74442, -1, 1.58366, 12.9874, 19.5096, 13.0351, 93.3718, -100.412
1.75162, -1, 1.39553, 12.8916, 19.5475, 13.0374, 93.2717, -100.666
1.76014, -1, 1.20776, 12.7957, 19.5852, 13.0397, 93.1719, -100.919
1.7684, -1, 1.02038, 12.7, 19.6229, 13.042, 93.0717, -101.172
1.77551, -1, 0.833687, 12.6044, 19.6607, 13.0444, 92.9718, -101.425
1.78432, -1, 0.647329, 12.5088, 19.6983, 13.0468, 92.8722, -101.678
1.79159, -1, 0.461368, 12.4133, 19.7358, 13.0493, 92.7723, -101.931
1.7999, -1, 0.275734, 12.318, 19.7735, 13.0517, 92.6726, -102.184
1.80846, -1, 0.0902651, 12.2226, 19.8111, 13.0542, 92.5734, -102.436
1.81661, -1, -0.0951492, 12.1273, 19.8486, 13.0566, 92.4737, -102.689
1.8238, -1, -0.280776, 12.032, 19.8863, 13.0591, 92.3741, -102.941
1.83265, -1, -0.466699, 11.9369, 19.9239, 13.0616, 92.2749, -103.194
1.83993, -1, -0.652951, 11.8418, 19.9614, 13.064, 92.1753, -103.446
1.8483, -1, -0.839309, 11.7468, 19.9989, 13.0665, 92.0758, -103.698
1.85683, -1, -1.02598, 11.6518, 20.0364, 13.069, 91.9766, -103.95
1.86409, -1, -1.21286, 11.5567, 20.0738, 13.0716, 91.8771, -104.201
1.87261, -1, -1.3998, 11.4617, 20.1114, 13.0741, 91.778, -104.453
1.88094, -1, -1.58653, 11.3666, 20.1488, 13.0766, 91.6789, -104.704
1.88809, -1, -1.67982, 11.319, 20.1675, 13.0791, 91.5796, -104.956
1.89654, -1, -1.95899, 11.1764, 20.2237, 13.0818, 91.4804, -105.207
1.90349, -1, -2.05175, 11.129, 20.2425, 13.0832, 91.4309, -105.333
1.91149, -1, -2.23682, 11.0341, 20.2798, 13.0858, 91.3317, -105.584
1.92054, -1, -2.51398, 10.8918, 20.3359, 13.0898, 91.1829, -105.96
1.92751, -1, -2.60614, 10.8445, 20.3545, 13.0911, 91.1335, -106.086
1.93549, -1, -2.78998, 10.7497, 20.3917, 13.0938, 91.0343, -106.337
1.94354, -1, -2.97396, 10.655, 20.4292, 13.0963, 90.9353, -106.587
1.95152, -1, -3.15806, 10.5603, 20.4665, 13.099, 90.8366, -106.838
1.95964, -1, -3.34238, 10.4657, 20.5037, 13.1015, 90.7376, -107.089
1.96898, -1, -3.6194, 10.3241, 20.5597, 13.1053, 90.5893, -107.464
1.9755, -1, -3.71179, 10.2769, 20.5783, 13.1066, 90.54, -107.589
1.98355, -1, -3.89686, 10.1825, 20.6155, 13.109, 90.441, -107.839
1.99152, -1, -4.0822, 10.0882, 20.6528, 13.1115, 90.3423, -108.089
1.99955, -1, -4.26773, 9.99391, 20.6899, 13.1139, 90.2438, -108.339
2.00756, -1, -4.45325, 9.8996, 20.7271, 13.1161, 90.145, -108.589
2.0155, -1, -4.63856, 9.80527, 20.7644, 13.1185, 90.0466, -108.838
2.02358, -1, -4.82344, 9.71106, 20.8015, 13.1209, 89.9483, -109.088
2.03254, -1, -5.00797, 9.61696, 20.8385, 13.1233, 89.8497, -109.337
2.03955, -1, -5.1917, 9.52292, 20.8757, 13.1256, 89.7512, -109.587
2.04756, -1, -5.37506, 9.42887, 20.9128, 13.128, 89.653, -109.836
2.05549, -1, -5.55799, 9.33499, 20.9498, 13.1303, 89.5545, -110.084
2.06351, -1, -5.74048, 9.24107, 20.9869, 13.1326, 89.4563, -110.333
2.07156, -1, -5.92286, 9.14716, 21.0239, 13.1349, 89.3584, -110.582
2.07956, -1, -6.10529, 9.05332, 21.0608, 13.137, 89.2602, -110.831
2.08749, -1, -6.28806, 8.95954, 21.0979, 13.1393, 89.1621, -111.079
2.09556, -1, -6.47105, 8.86589, 21.1349, 13.1415, 89.0645, -111.327
2.10349, -1, -6.65419, 8.77223, 21.1716, 13.1436, 88.9664, -111.575
2.11149, -1, -6.83785, 8.6786, 21.2085, 13.1458, 88.8683, -111.824
2.11965, -1, -7.02178, 8.58498, 21.2455, 13.1479, 88.7707, -112.071
2.12754, -1, -7.2059, 8.49142, 21.2823, 13.15, 88.6728, -112.319
2.13549, -1, -7.39006, 8.39777, 21.3192, 13.1521, 88.575, -112.567
2.14355, -1, -7.57389, 8.30413, 21.356, 13.1542, 88.4775, -112.814
2.15149, -1, -7.75741, 8.21068, 21.3928, 13.1564, 88.3798, -113.062
2.15957, -1, -7.94047, 8.11732, 21.4296, 13.1587, 88.2824, -113.309
2.16756, -1, -8.12298, 8.02393, 21.4665, 13.1609, 88.1851, -113.556
2.17549, -1, -8.30478, 7.93067, 21.5032, 13.1631, 88.0877, -113.803
2.18349, -1, -8.48615, 7.83744, 21.54, 13.1654, 87.9902, -114.05
2.19158, -1, -8.66711, 7.74426, 21.5769, 13.1676, 87.893, -114.297
2.19955, -1, -8.8479, 7.65107, 21.6136, 13.1699, 87.7955, -114.543
2.20757, -1, -9.02869, 7.55799, 21.6504, 13.1721, 87.6981, -114.79
2.21552, -1, -9.20977, 7.46503, 21.6871, 13.1744, 87.601, -115.036
2.22354, -1, -9.39106, 7.37219, 21.7237, 13.1766, 87.5038, -115.283
2.23164, -1, -9.57271, 7.27937, 21.7605, 13.1788, 87.4067, -115.529
2.23963, -1, -9.75468, 7.18654, 21.7971, 13.1811, 87.3096, -115.775
2.24763, -1, -9.93705, 7.0938, 21.8337, 13.1832, 87.2124, -116.021
2.25566, -1, -10.1196, 7.00105, 21.8703, 13.1855, 87.1151, -116.267
2.26359, -1, -10.3023, 6.90821, 21.9069, 13.1877, 87.018, -116.512
2.2715, -1, -10.4848, 6.81546, 21.9435, 13.1899, 86.9208, -116.758
2.27973, -1, -10.6671, 6.72276, 21.9801, 13.1922, 86.8238, -117.003
2.28757, -1, -10.8488, 6.63017, 22.0166, 13.1946, 86.727, -117.249
2.2956, -1, -11.03, 6.53761, 22.053, 13.197, 86.63, -117.494
2.30369, -1, -11.2104, 6.4451, 22.0896, 13.1994, 86.5333, -117.739
2.31166, -1, -11.3903, 6.35262, 22.1262, 13.2019, 86.4368, -117.984
2.31984, -1, -11.5699, 6.26019, 22.1625, 13.2042, 86.34, -118.228
2.32791, -1, -11.7492, 6.16778, 22.199, 13.2067, 86.2433, -118.473
2.33582, -1, -11.9285, 6.07548, 22.2356, 13.2092, 86.1468, -118.718
2.344, -1, -12.1078, 5.98323, 22.2719, 13.2116, 86.0501, -118.962
2.352, -1, -12.2873, 5.89119, 22.3084, 13.2141, 85.9537, -119.206
2.36, -1, -12.4672, 5.79919, 22.3448, 13.2166, 85.8575, -119.45
2.36813, -1, -12.6475, 5.70715, 22.381, 13.219, 85.7611, -119.694
2.37609, -1, -12.8282, 5.6152, 22.4173, 13.2215, 85.6649, -119.938
2.38404, -1, -12.9186, 5.52324, 22.4537, 13.224, 85.5692, -120.181
2.39223, -1, -13.0998, 5.47723, 22.4899, 13.2264, 85.4731, -120.425
2.39948, -1, -13.281, 5.38522, 22.508, 13.2276, 85.4252, -120.547
2.40749, -1, -13.4621, 5.29326, 22.5443, 13.2301, 85.3295, -120.791
2.41553, -1, -13.6427, 5.20134, 22.5805, 13.2326, 85.2336, -121.034
2.42349, -1, -13.823, 5.10951, 22.6166, 13.2352, 85.1379, -121.277
2.4315, -1, -14.0025, 5.01768, 22.6529, 13.2378, 85.0422, -121.52
2.43953, -1, -14.1812, 4.926, 22.689, 13.2403, 84.9466, -121.763
2.4475, -1, -14.3595, 4.83432, 22.725, 13.2429, 84.8509, -122.005
2.45556, -1, -14.5374, 4.74272, 22.7613, 13.2454, 84.7555, -122.248
2.4635, -1, -14.715, 4.65113, 22.7975, 13.248, 84.6598, -122.49
2.47149, -1, -14.8926, 4.55964, 22.8335, 13.2504, 84.564, -122.733
2.47953, -1, -15.0703, 4.46823, 22.8697, 13.2529, 84.4684, -122.975
2.48747, -1, -15.2483, 4.37698, 22.9058, 13.2553, 84.3728, -123.217
2.49551, -1, -15.4267, 4.28566, 22.9418, 13.2577, 84.2771, -123.459
2.50356, -1, -15.6056, 4.19439, 22.9779, 13.26, 84.1816, -123.7
2.51147, -1, -15.7849, 4.10314, 23.0139, 13.2623, 84.086, -123.942
2.52199, -1, -15.9641, 4.0119, 23.0678, 13.2656, 83.9429, -124.305
2.52756, -1, -16.1437, 3.9206, 23.0858, 13.2667, 83.8953, -124.425
2.53652, -1, -16.3235, 3.82936, 23.1218, 13.2688, 83.7998, -124.667
2.54349, -1, -16.5029, 3.73817, 23.1576, 13.2709, 83.7044, -124.908
2.55154, -1, -16.6819, 3.64707, 23.1934, 13.2731, 83.609, -125.149
2.55947, -1, -16.8603, 3.55598, 23.2293, 13.2754, 83.5136, -125.39
2.56749, -1, -17.0378, 3.46497, 23.2651, 13.2776, 83.4182, -125.631
2.57558, -1, -17.2147, 3.37402, 23.3009, 13.2799, 83.3229, -125.872
2.58348, -1, -17.3912, 3.28318, 23.3368, 13.282, 83.228, -126.113
2.59159, -1, -17.5674, 3.19234, 23.3725, 13.2841, 83.1328, -126.353
2.59949, -1, -17.7436, 3.10169, 23.4084, 13.2863, 83.0379, -126.593
2.60748, -1, -17.9196, 3.0111, 23.4443, 13.2884, 82.9432, -126.833
2.61555, -1, -18.0959, 2.92062, 23.48, 13.2905, 82.8483, -127.074
2.62351, -1, -18.2723, 2.83021, 23.5157, 13.2927, 82.7535, -127.314
2.63151, -1, -18.4493, 2.73976, 23.5515, 13.2947, 82.659, -127.554
2.63956, -1, -18.6267, 2.64936, 23.5871, 13.2968, 82.5642, -127.793
2.64751, -1, -18.8044, 2.55903, 23.6228, 13.2988, 82.4696, -128.033
2.65547, -1, -18.9825, 2.46856, 23.6585, 13.3008, 82.3753, -128.272
2.66357, -1, -19.1608, 2.37804, 23.6941, 13.3027, 82.2808, -128.512
2.67148, -1, -19.339, 2.2877, 23.7297, 13.3047, 82.1865, -128.751
2.67949, -1, -19.5166, 2.19732, 23.7653, 13.3069, 82.0927, -128.99
2.68755, -1, -19.6937, 2.10696, 23.8008, 13.3091, 81.9984, -129.229
2.69548, -1, -19.8702, 2.01669, 23.8362, 13.3112, 81.9042, -129.468
2.70355, -1, -20.0459, 1.92645, 23.8718, 13.3134, 81.8103, -129.707
2.71175, -1, -20.2211, 1.83624, 23.9073, 13.3156, 81.7161, -129.945
2.71951, -1, -20.396, 1.74611, 23.9428, 13.3178, 81.6221, -130.183
2.7276, -1, -20.5707, 1.65602, 23.9784, 13.32, 81.5284, -130.422
2.73642, -1, -20.745, 1.56607, 24.0139, 13.3221, 81.4343, -130.66
2.74357, -1, -20.9197, 1.47618, 24.0492, 13.3244, 81.3406, -130.898
2.75164, -1, -21.0946, 1.38647, 24.0848, 13.3266, 81.2469, -131.136
2.75961, -1, -21.27, 1.29667, 24.1203, 13.3287, 81.1531, -131.374
2.76758, -1, -21.4457, 1.20698, 24.1556, 13.3309, 81.0591, -131.612
2.77566, -1, -21.6217, 1.11736, 24.191, 13.3331, 80.9653, -131.849
2.78594, -1, -21.7979, 1.02766, 24.2264, 13.3352, 80.8716, -132.087
2.79161, -1, -21.9744, 0.938053, 24.2618, 13.3374, 80.7778, -132.324
2.79954, -1, -22.151, 0.848481, 24.2972, 13.3396, 80.6842, -132.561
2.80833, -1, -22.3275, 0.758931, 24.3325, 13.3417, 80.5906, -132.798
2.81591, -1, -22.5036, 0.669456, 24.3677, 13.344, 80.497, -133.035
2.8237, -1, -22.6792, 0.579968, 24.4029, 13.3464, 80.4034, -133.272
2.83256, -1, -22.8541, 0.490569, 24.4382, 13.3488, 80.3098, -133.509
2.83986, -1, -23.0281, 0.401159, 24.4734, 13.3512, 80.2162, -133.746
2.84788, -1, -23.2018, 0.311821, 24.5084, 13.3537, 80.1227, -133.983
2.85698, -1, -23.3751, 0.222458, 24.5436, 13.3561, 80.0293, -134.219
2.86436, -1, -23.5481, 0.133221, 24.5788, 13.3585, 79.9358, -134.455
2.87203, -1, -23.7214, 0.0440854, 24.614, 13.3608, 79.8425, -134.691
2.88086, -1, -23.8948, -0.0449804, 24.6491, 13.3633, 79.7495, -134.928
2.88809, -1, -24.0683, -0.133935, 24.6842, 13.3657, 79.6562, -135.164
2.896, -1, -24.1552, -0.178432, 24.7017, 13.367, 79.6096, -135.399
2.90346, -1, -24.3291, -0.267396, 24.7367, 13.3694, 79.5167, -135.517
2.91229, -1, -24.5034, -0.356295, 24.7719, 13.3719, 79.4236, -135.753
2.91946, -1, -24.6781, -0.44517, 24.8069, 13.3743, 79.3305, -135.988
2.92748, -1, -24.853, -0.534069, 24.842, 13.3767, 79.2375, -136.224
2.93551, -1, -25.0281, -0.622901, 24.8771, 13.3791, 79.1446, -136.459
2.94346, -1, -25.2029, -0.711676, 24.9121, 13.3814, 79.0516, -136.694
2.95147, -1, -25.3775, -0.800413, 24.9471, 13.3838, 78.9589, -136.929
2.95954, -1, -25.5517, -0.889227, 24.9822, 13.3862, 78.8663, -137.164
2.9675, -1, -25.7252, -0.97795, 25.017, 13.3887, 78.7735, -137.399
2.97546, -1, -25.8981, -1.06663, 25.0519, 13.3911, 78.681, -137.634
2.98351, -1, -26.0705, -1.15536, 25.087, 13.3936, 78.5887, -137.868
2.99146, -1, -26.2426, -1.24403, 25.1218, 13.396, 78.496, -138.103
2.99948, -1, -26.4143, -1.33255, 25.1566, 13.3983, 78.4034, -138.337
3.00748, -1, -26.5862, -1.42097, 25.1915, 13.4006, 78.3112, -138.572
3.01546, -1, -26.7582, -1.50935, 25.2265, 13.4028, 78.2185, -138.806
3.02353, -1, -26.9305, -1.59753, 25.2613, 13.4052, 78.1262, -139.04
3.03146, -1, -27.1029, -1.68566, 25.2961, 13.4073, 78.0341, -139.274
3.04051, -1, -27.2755, -1.7739, 25.331, 13.4095, 77.9418, -139.508
3.04754, -1, -27.4484, -1.86195, 25.3658, 13.4116, 77.8497, -139.741
3.05546, -1, -27.6216, -1.95005, 25.4005, 13.4136, 77.7578, -139.975
3.06346, -1, -27.7948, -2.03828, 25.4354, 13.4158, 77.6657, -140.208
3.07153, -1, -27.9681, -2.1263, 25.4701, 13.4178, 77.5737, -140.441
3.07946, -1, -28.1414, -2.21435, 25.5048, 13.4199, 77.4817, -140.675
3.08748, -1, -28.3145, -2.30237, 25.5396, 13.4219, 77.3897, -140.908
3.09554, -1, -28.4872, -2.39044, 25.5744, 13.4241, 77.2976, -141.141
3.10347, -1, -28.6596, -2.47839, 25.609, 13.4262, 77.2055, -141.374
3.1115, -1, -28.8313, -2.5664, 25.6437, 13.4283, 77.1135, -141.607
3.11952, -1, -29.0023, -2.65439, 25.6784, 13.4305, 77.0216, -141.84
3.1275, -1, -29.173, -2.74225, 25.7129, 13.4327, 76.9296, -142.072
3.13556, -1, -29.3435, -2.83006, 25.7476, 13.4347, 76.838, -142.304
3.14347, -1, -29.5143, -2.91778, 25.7823, 13.4368, 76.746, -142.537
3.15146, -1, -29.6852, -3.00536, 25.8168, 13.4388, 76.6541, -142.769
3.15952, -1, -29.8562, -3.09287, 25.8514, 13.4409, 76.5626, -143.002
3.16747, -1, -30.0272, -3.18036, 25.886, 13.443, 76.4705, -143.234
3.17555, -1, -30.1981, -3.26783, 25.9205, 13.445, 76.3789, -143.466
3.18354, -1, -30.3694, -3.35525, 25.9551, 13.4471, 76.2874, -143.698
3.19146, -1, -30.541, -3.44271, 25.9897, 13.4491, 76.1957, -143.93
3.19964, -1, -30.7127, -3.53022, 26.0241, 13.4511, 76.1043, -144.161
3.20746, -1, -30.8846, -3.61755, 26.0586, 13.4532, 76.013, -144.392
3.21546, -1, -31.0564, -3.70494, 26.0932, 13.4551, 75.9216, -144.624
3.22375, -1, -31.228, -3.79228, 26.1276, 13.4572, 75.8302, -144.855
3.23154, -1, -31.3994, -3.8796, 26.162, 13.4594, 75.7389, -145.087
3.23955, -1, -31.5701, -3.96687, 26.1965, 13.4615, 75.6476, -145.318
3.24793, -1, -31.7406, -4.05411, 26.2309, 13.4636, 75.5564, -145.549
3.25556, -1, -31.9106, -4.14136, 26.2652, 13.4658, 75.4652, -145.779
3.26358, -1, -32.0803, -4.22858, 26.2997, 13.4679, 75.3743, -146.01
3.27218, -1, -32.2496, -4.31567, 26.3341, 13.4702, 75.2831, -146.241
3.27947, -1, -32.4191, -4.4027, 26.3683, 13.4724, 75.1921, -146.472
3.28749, -1, -32.5888, -4.48963, 26.4026, 13.4745, 75.1015, -146.702
3.29637, -1, -32.7584, -4.57651, 26.4371, 13.4766, 75.0105, -146.932
3.30351, -1, -32.9281, -4.66341, 26.4713, 13.4787, 74.9197, -147.163
3.31156, -1, -33.0978, -4.75029, 26.5055, 13.4809, 74.8293, -147.393
3.32061, -1, -33.2677, -4.83709, 26.5399, 13.4832, 74.7386, -147.623
3.32775, -1, -33.4378, -4.924, 26.5741, 13.4854, 74.648, -147.853
3.33587, -1, -33.6081, -5.01094, 26.6083, 13.4876, 74.5574, -148.083
3.3447, -1, -33.7783, -5.0977, 26.6426, 13.4899, 74.4668, -148.313
3.35188, -1, -33.9486, -5.18448, 26.6768, 13.4921, 74.3763, -148.543
3.36001, -1, -34.1188, -5.27123, 26.7109, 13.4943, 74.2858, -148.772
3.3689, -1, -34.289, -5.35795, 26.7451, 13.4966, 74.1953, -149.001
3.37605, -1, -34.4589, -5.44458, 26.7794, 13.4989, 74.1047, -149.231
3.38407, -1, -34.6283, -5.53123, 26.8135, 13.5012, 74.014, -149.46
3.39292, -1, -34.7128, -5.57458, 26.8475, 13.5036, 73.9237, -149.689
3.39998, -1, -34.8815, -5.66119, 26.8646, 13.5049, 73.8783, -149.804
3.40802, -1, -35.05, -5.7477, 26.8988, 13.5073, 73.7878, -150.033
3.41546, -1, -35.2183, -5.83418, 26.9328, 13.5097, 73.6975, -150.262
3.42345, -1, -35.3867, -5.92057, 26.967, 13.5122, 73.6071, -150.491
3.43152, -1, -35.5553, -6.00677, 27.0011, 13.5144, 73.5168, -150.72
3.43951, -1, -35.7238, -6.09302, 27.0351, 13.5168, 73.4265, -150.948
3.44867, -1, -35.9766, -6.22228, 27.0862, 13.5204, 73.2909, -151.291
3.45545, -1, -36.0608, -6.26534, 27.1033, 13.5217, 73.2458, -151.405
3.46349, -1, -36.2293, -6.35145, 27.1372, 13.5241, 73.1554, -151.634
3.47151, -1, -36.398, -6.43769, 27.1711, 13.5265, 73.0652, -151.862
3.47945, -1, -36.5669, -6.52392, 27.2052, 13.5288, 72.9746, -152.091
3.48746, -1, -36.7357, -6.61012, 27.2391, 13.531, 72.8843, -152.319
3.4955, -1, -36.9047, -6.69628, 27.2731, 13.5334, 72.7944, -152.547
3.50347, -1, -37.0736, -6.78241, 27.3071, 13.5356, 72.7042, -152.775
3.5144, -1, -37.3266, -6.91158, 27.3579, 13.539, 72.5693, -153.117
3.51952, -1, -37.4108, -6.95458, 27.3748, 13.5401, 72.5244, -153.23
3.52909, -1, -37.5789, -7.04062, 27.4088, 13.5424, 72.3895, -153.572
3.53548, -1, -37.7467, -7.12661, 27.4428, 13.5446, 72.3447, -153.685
3.54445, -1, -37.9144, -7.21259, 27.4766, 13.5469, 72.2548, -153.913
3.55146, -1, -38.0819, -7.29852, 27.5105, 13.5491, 72.1651, -154.141
3.55955, -1, -38.2494, -7.3844, 27.5445, 13.5513, 72.0753, -154.368
3.56745, -1, -38.4167, -7.47013, 27.5783, 13.5534, 71.9857, -154.595
3.57545, -1, -38.5839, -7.5559, 27.6121, 13.5555, 71.8962, -154.822
3.58351, -1, -38.7512, -7.64166, 27.646, 13.5576, 71.8065, -155.049
3.59146, -1, -38.9185, -7.72734, 27.6797, 13.5596, 71.717, -155.276
3.59946, -1, -39.0858, -7.81295, 27.7134, 13.5617, 71.6279, -155.503
3.60751, -1, -39.2533, -7.89863, 27.7472, 13.5637, 71.5384, -155.73
3.61544, -1, -39.4209, -7.98431, 27.7811, 13.5657, 71.4491, -155.957
3.62348, -1, -39.5885, -8.06984, 27.8147, 13.5677, 71.3598, -156.183
3.63155, -1, -39.7561, -8.15536, 27.8483, 13.5695, 71.2705, -156.41
3.63944, -1, -39.9238, -8.24084, 27.8821, 13.5715, 71.1811, -156.636
3.64745, -1, -40.0914, -8.32628, 27.9158, 13.5735, 71.0917, -156.863
3.65551, -1, -40.2588, -8.41163, 27.9494, 13.5755, 71.0026, -157.089
3.66346, -1, -40.4259, -8.497, 27.9832, 13.5774, 70.9131, -157.315
3.67148, -1, -40.5929, -8.58239, 28.0168, 13.5794, 70.824, -157.541
3.67951, -1, -40.7598, -8.6678, 28.0504, 13.5814, 70.735, -157.767
3.68744, -1, -40.9264, -8.75314, 28.0841, 13.5834, 70.6458, -157.993
3.69546, -1, -41.0929, -8.83846, 28.1177, 13.5854, 70.5566, -158.219
3.70355, -1, -41.2592, -8.92373, 28.1512, 13.5874, 70.4676, -158.445
3.71145, -1, -41.4253, -9.00888, 28.1848, 13.5894, 70.3784, -158.67
3.71966, -1, -41.5915, -9.09404, 28.2185, 13.5914, 70.2892, -158.896
3.72748, -1, -41.7578, -9.17913, 28.252, 13.5934, 70.2001, -159.121
3.73553, -1, -41.9242, -9.26415, 28.2856, 13.5953, 70.111, -159.347
3.74393, -1, -42.0907, -9.34917, 28.3193, 13.5974, 70.0221, -159.573
3.75154, -1, -42.2569, -9.43423, 28.3528, 13.5995, 69.9331, -159.798
3.75965, -1, -42.4232, -9.51921, 28.3863, 13.6015, 69.8443, -160.023
3.76802, -1, -42.5895, -9.60416, 28.4199, 13.6035, 69.7552, -160.248
3.77545, -1, -42.7559, -9.68912, 28.4534, 13.6055, 69.6663, -160.473
3.78346, -1, -42.9223, -9.77408, 28.4867, 13.6076, 69.5778, -160.698
3.79154, -1, -43.0886, -9.85899, 28.5202, 13.6097, 69.4887, -160.923
3.80034, -1, -43.2547, -9.94392, 28.5537, 13.6117, 69.4001, -161.148
3.8075, -1, -43.4209, -10.0288, 28.5872, 13.6138, 69.3115, -161.373
3.81562, -1, -43.5869, -10.1138, 28.6206, 13.6158, 69.2228, -161.597
3.82447, -1, -43.7528, -10.1987, 28.6542, 13.6179, 69.1342, -161.822
3.83183, -1, -43.9187, -10.2835, 28.6875, 13.6201, 69.0458, -162.046
3.8399, -1, -44.0844, -10.3683, 28.7209, 13.6222, 68.9574, -162.271
3.84846, -1, -44.2497, -10.453, 28.7544, 13.6244, 68.8687, -162.495
3.85588, -1, -44.4149, -10.5376, 28.7878, 13.6266, 68.78, -162.72
3.86401, -1, -44.5801, -10.6221, 28.8211, 13.6288, 68.6916, -162.944
3.87264, -1, -44.7453, -10.7066, 28.8545, 13.6309, 68.6028, -163.168
3.88018, -1, -44.9106, -10.791, 28.888, 13.6332, 68.5143, -163.392
3.88806, -1, -45.0759, -10.8755, 28.9214, 13.6353, 68.4261, -163.616
3.89606, -1, -45.1586, -10.9178, 28.9381, 13.6375, 68.3375, -163.84
3.90402, -1, -45.3238, -11.0022, 28.9715, 13.6387, 68.2492, -164.064
3.91207, -1, -45.489, -11.0867, 29.0048, 13.6409, 68.205, -164.288
3.91948, -1, -45.6543, -11.1711, 29.038, 13.6432, 68.117, -164.4
3.92855, -1, -45.9019, -11.2976, 29.088, 13.6466, 67.9843, -164.735
3.9355, -1, -45.9838, -11.3395, 29.1047, 13.6478, 67.9401, -164.847
3.94344, -1, -46.1453, -11.4218, 29.1381, 13.65, 67.8521, -165.07
3.95144, -1, -46.3024, -11.5013, 29.1717, 13.6524, 67.7645, -165.291
3.95949, -1, -46.4529, -11.5764, 29.2052, 13.6548, 67.6794, -165.507
3.96746, -1, -46.5942, -11.6463, 29.2375, 13.6571, 67.5978, -165.713
3.97544, -1, -46.724, -11.7098, 29.2674, 13.6593, 67.523, -165.903
3.98349, -1, -46.8392, -11.766, 29.2939, 13.6613, 67.4559, -166.072
3.99143, -1, -46.9383, -11.8152, 29.3161, 13.663, 67.3999, -166.214
3.99944, -1, -47.021, -11.8583, 29.3328, 13.6643, 67.3549, -166.328
4.00752, -1, -47.0884, -11.8951, 29.3441, 13.665, 67.3212, -166.413
4.01543, -1, -47.141, -11.9247, 29.3514, 13.6655, 67.2978, -166.472
4.02344, -1, -47.1801, -11.947, 29.3554, 13.6657, 67.2826, -166.51
4.03147, -1, -47.2079, -11.9625, 29.3573, 13.6658, 67.2737, -166.533
4.0405, -1, -47.2262, -11.9727, 29.3581, 13.6659, 67.2689, -166.545
4.04743, -1, -47.2372, -11.9786, 29.3585, 13.6659, 67.2666, -166.551
4.05547, 2, -47.243, -11.9816, 29.3587, 13.666, 67.2654, -166.553
4.06344, 2, -47.2451, -11.983, 29.3589, 13.666, 67.2649, -166.554
4.07142, 2, -47.2452, -11.9835, 29.359, 13.666, 67.2646, -166.555
4.07951, 2, -47.2449, -11.9837, 29.3591, 13.666, 67.2645, -166.555
4.08743, 2, -47.2449, -11.9838, 29.3591, 13.6661, 67.2645, -166.555
4.09543, 2, -47.2453, -11.9839, 29.3592, 13.666, 67.2645, -166.556
4.10352, 2, -47.2462, -11.9841, 29.3592, 13.6661, 67.2645, -166.556
4.11143, 2, -47.2475, -11.9846, 29.3592, 13.6661, 67.2645, -166.555
4.11944, 2, -47.2493, -11.9854, 29.3592, 13.6661, 67.2644, -166.556
4.12744, 2, -47.2509, -11.9863, 29.3592, 13.6661, 67.2644, -166.556
4.13552, 2, -47.2522, -11.9871, 29.3592, 13.6661, 67.2644, -166.556
4.14349, 2, -47.2532, -11.9878, 29.3592, 13.6661, 67.2644, -166.555
4.15144, 2, -47.2537, -11.9882, 29.3592, 13.6661, 67.2644, -166.556
4.15944, 2, -47.2539, -11.9884, 29.3592, 13.6661, 67.2644, -166.556
4.16748, 2, -47.2539, -11.9885, 29.3592, 13.6661, 67.2644, -166.556
4.17546, 2, -47.2537, -11.9885, 29.3592, 13.6661, 67.2644, -166.555
4.18343, 2, -47.2532, -11.9884, 29.3593, 13.6661, 67.2644, -166.555
4.19149, 2, -47.2528, -11.9884, 29.3593, 13.6661, 67.2644, -166.555
4.19945, 2, -47.2524, -11.9884, 29.3593, 13.6661, 67.2644, -166.555
4.20747, 2, -47.2522, -11.9884, 29.3593, 13.6661, 67.2644, -166.555
4.21549, 2, -47.2522, -11.9885, 29.3593, 13.6661, 67.2645, -166.555
4.22356, 2, -47.2523, -11.9886, 29.3593, 13.6661, 67.2645, -166.555
4.23147, 2, -47.2525, -11.9889, 29.3593, 13.666, 67.2645, -166.555
4.23958, 2, -47.2531, -11.9893, 29.3593, 13.6661, 67.2645, -166.555
4.24753, 2, -47.2536, -11.9896, 29.3593, 13.6661, 67.2645, -166.555
4.25553, 2, -47.2539, -11.9898, 29.3592, 13.6661, 67.2645, -166.555
4.2636, 2, -47.2541, -11.9898, 29.3593, 13.666, 67.2645, -166.555
4.27156, 2, -47.2541, -11.9898, 29.3593, 13.666, 67.2645, -166.555
4.27949, 2, -47.254, -11.9898, 29.3593, 13.666, 67.2645, -166.555
4.2875, 2, -47.2538, -11.9898, 29.3593, 13.666, 67.2645, -166.555
4.29547, 2, -47.2534, -11.9897, 29.3593, 13.666, 67.2645, -166.555
4.3035, 2, -47.253, -11.9897, 29.3593, 13.666, 67.2645, -166.555
4.31164, 2, -47.2528, -11.9897, 29.3593, 13.666, 67.2645, -166.555
4.31959, 2, -47.2526, -11.9897, 29.3593, 13.666, 67.2645, -166.555
4.32763, 2, -47.2525, -11.9897, 29.3593, 13.666, 67.2645, -166.555
4.33585, 2, -47.2524, -11.9898, 29.3593, 13.6661, 67.2645, -166.555
4.34379, 2, -47.2524, -11.9898, 29.3593, 13.666, 67.2645, -166.555
4.35185, 2, -47.2524, -11.9899, 29.3593, 13.666, 67.2645, -166.555
4.36005, 2, -47.2524, -11.9899, 29.3593, 13.666, 67.2645, -166.555
4.36794, 2, -47.2524, -11.9899, 29.3593, 13.666, 67.2645, -166.555
4.37598, 2, -47.2524, -11.9899, 29.3593, 13.666, 67.2645, -166.555
4.38415, 2, -47.2524, -11.9899, 29.3593, 13.666, 67.2645, -166.555
4.39198, 2, -47.2523, -11.9898, 29.3593, 13.666, 67.2646, -166.555
4.40001, 2, -47.2523, -11.9898, 29.3593, 13.666, 67.2646, -166.555
4.40818, 2, -47.2522, -11.9897, 29.3593, 13.666, 67.2646, -166.555
4.41542, 2, -47.2521, -11.9897, 29.3593, 13.666, 67.2645, -166.555
4.42342, 2, -47.252, -11.9896, 29.3593, 13.6661, 67.2645, -166.555
4.43146, 2, -47.2518, -11.9896, 29.3593, 13.666, 67.2645, -166.555
4.43945, 2, -47.2517, -11.9897, 29.3593, 13.666, 67.2645, -166.555
4.44742, 2, -47.2517, -11.9897, 29.3593, 13.666, 67.2646, -166.555
4.45546, 2, -47.2516, -11.9897, 29.3593, 13.666, 67.2646, -166.555
4.46343, 2, -47.2516, -11.9897, 29.3593, 13.666, 67.2646, -166.555
4.47144, 2, -47.2515, -11.9897, 29.3593, 13.666, 67.2646, -166.555
4.48097, 2, -47.2514, -11.9897, 29.3593, 13.666, 67.2646, -166.555
4.48742, 2, -47.2514, -11.9897, 29.3593, 13.666, 67.2646, -166.555
4.49542, 2, -47.2514, -11.9896, 29.3593, 13.666, 67.2646, -166.555
4.50512, 2, -47.2512, -11.9895, 29.3593, 13.666, 67.2646, -166.555
4.51144, 2, -47.2512, -11.9895, 29.3593, 13.666, 67.2646, -166.555
4.52101, 2, -47.2511, -11.9894, 29.3593, 13.666, 67.2645, -166.555
4.52746, 2, -47.2509, -11.9894, 29.3593, 13.666, 67.2645, -166.555
4.53698, 2, -47.2508, -11.9893, 29.3593, 13.6659, 67.2646, -166.555
4.54445, 2, -47.2508, -11.9893, 29.3593, 13.666, 67.2646, -166.555
4.55157, 2, -47.2507, -11.9893, 29.3593, 13.6659, 67.2646, -166.555
4.56046, 2, -47.2506, -11.9893, 29.3593, 13.6659, 67.2646, -166.555
4.56741, 2, -47.2504, -11.9893, 29.3593, 13.6659, 67.2647, -166.555
4.57547, 2, -47.2503, -11.9893, 29.3593, 13.6659, 67.2647, -166.555
4.58343, 2, -47.2503, -11.9893, 29.3592, 13.6659, 67.2647, -166.555
4.59144, 2, -47.2501, -11.9893, 29.3593, 13.666, 67.2646, -166.555
4.59948, 2, -47.25, -11.9893, 29.3593, 13.6659, 67.2646, -166.555
4.60744, 2, -47.2499, -11.9892, 29.3593, 13.6659, 67.2646, -166.555
4.61542, 2, -47.2499, -11.9891, 29.3593, 13.666, 67.2647, -166.555
4.62347, 2, -47.2497, -11.989, 29.3593, 13.6659, 67.2647, -166.555
4.63142, 2, -47.2496, -11.9889, 29.3593, 13.6659, 67.2646, -166.555
4.63946, 2, -47.2496, -11.9889, 29.3593, 13.6659, 67.2646, -166.555
4.64747, 2, -47.2495, -11.989, 29.3593, 13.6659, 67.2646, -166.555
4.65543, 2, -47.2494, -11.9889, 29.3593, 13.6659, 67.2646, -166.555
4.66342, 2, -47.2494, -11.9889, 29.3593, 13.6659, 67.2646, -166.555
4.67147, 2, -47.2493, -11.9889, 29.3593, 13.6659, 67.2647, -166.555
4.67945, 2, -47.2492, -11.9889, 29.3593, 13.6659, 67.2647, -166.555
4.68741, 2, -47.2492, -11.9889, 29.3593, 13.6659, 67.2647, -166.555
4.69547, 2, -47.2491, -11.9889, 29.3593, 13.6659, 67.2647, -166.555
4.70343, 2, -47.2491, -11.9888, 29.3593, 13.6659, 67.2647, -166.555
4.71145, 2, -47.249, -11.9887, 29.3593, 13.6659, 67.2647, -166.555
4.71949, 2, -47.249, -11.9887, 29.3593, 13.6659, 67.2647, -166.555
4.72746, 2, -47.2489, -11.9886, 29.3593, 13.6659, 67.2648, -166.555
4.73545, 2, -47.2488, -11.9886, 29.3592, 13.6659, 67.2647, -166.555
4.74357, 2, -47.2487, -11.9885, 29.3592, 13.6658, 67.2647, -166.555
4.75151, 2, -47.2486, -11.9885, 29.3593, 13.6658, 67.2647, -166.555
4.75952, 2, -47.2486, -11.9885, 29.3593, 13.6658, 67.2647, -166.555
4.76757, 2, -47.2486, -11.9885, 29.3593, 13.6658, 67.2647, -166.555
4.77555, 2, -47.2486, -11.9885, 29.3593, 13.6658, 67.2648, -166.555
4.78342, 2, -47.2486, -11.9885, 29.3593, 13.6658, 67.2647, -166.555
4.79149, 2, -47.2485, -11.9885, 29.3593, 13.6658, 67.2647, -166.555
4.79974, 2, -47.2485, -11.9884, 29.3593, 13.6658, 67.2648, -166.555
4.80748, 2, -47.2485, -11.9884, 29.3593, 13.6657, 67.2647, -166.555
4.81558, 2, -47.2484, -11.9883, 29.3593, 13.6657, 67.2647, -166.555
4.82356, 2, -47.2483, -11.9882, 29.3593, 13.6657, 67.2648, -166.554
4.83162, 2, -47.2482, -11.9881, 29.3593, 13.6657, 67.2648, -166.554
4.84007, 2, -47.2481, -11.9881, 29.3593, 13.6656, 67.2648, -166.554
4.84848, 2, -47.248, -11.9881, 29.3593, 13.6656, 67.2648, -166.554
4.85579, 2, -47.248, -11.9881, 29.3593, 13.6656, 67.2648, -166.554
4.86431, 2, -47.2479, -11.988, 29.3593, 13.6656, 67.2648, -166.554
4.87191, 2, -47.2479, -11.988, 29.3593, 13.6656, 67.2648, -166.554
4.88054, 2, -47.2479, -11.988, 29.3593, 13.6656, 67.2648, -166.554
4.88826, 2, -47.2479, -11.988, 29.3593, 13.6656, 67.2648, -166.554
4.89619, 2, -47.2479, -11.988, 29.3593, 13.6656, 67.2648, -166.554
4.90394, 2, -47.2479, -11.988, 29.3593, 13.6656, 67.2649, -166.554
4.91229, 2, -47.2478, -11.9879, 29.3592, 13.6656, 67.2649, -166.554
4.91942, 2, -47.2478, -11.9879, 29.3593, 13.6656, 67.2649, -166.554
4.92741, 2, -47.2477, -11.9878, 29.3593, 13.6656, 67.2649, -166.554
4.93627, 2, -47.2476, -11.9877, 29.3593, 13.6656, 67.2649, -166.554
4.94349, 2, -47.2475, -11.9877, 29.3593, 13.6655, 67.2649, -166.554
4.9514, 2, -47.2474, -11.9876, 29.3593, 13.6655, 67.265, -166.554
4.95946, 2, -47.2473, -11.9876, 29.3593, 13.6655, 67.2649, -166.554
4.96741, 2, -47.2473, -11.9876, 29.3593, 13.6655, 67.265, -166.554
4.97543, 2, -47.2472, -11.9876, 29.3593, 13.6655, 67.2649, -166.554
4.98534, 2, -47.2472, -11.9876, 29.3593, 13.6655, 67.265, -166.554
4.99141, 2, -47.2472, -11.9876, 29.3593, 13.6655, 67.265, -166.554
4.99941, 2, -47.2472, -11.9876, 29.3593, 13.6654, 67.265, -166.554
5.0092, 2, -47.2471, -11.9875, 29.3592, 13.6655, 67.2651, -166.554
5.01543, 2, -47.2471, -11.9875, 29.3592, 13.6655, 67.265, -166.554
5.025, 2, -47.247, -11.9874, 29.3593, 13.6654, 67.265, -166.554
5.03146, 2, -47.247, -11.9874, 29.3592, 13.6654, 67.265, -166.554
5.03942, 2, -47.2469, -11.9873, 29.3593, 13.6654, 67.265, -166.554
5.04845, 2, -47.2468, -11.9873, 29.3593, 13.6654, 67.265, -166.554
5.05559, 2, -47.2467, -11.9873, 29.3593, 13.6655, 67.265, -166.554
5.0644, 2, -47.2467, -11.9872, 29.3593, 13.6654, 67.265, -166.554
5.07147, 2, -47.2466, -11.9872, 29.3593, 13.6654, 67.265, -166.554
5.07941, 2, -47.2466, -11.9872, 29.3593, 13.6654, 67.265, -166.554
5.08741, 2, -47.2466, -11.9871, 29.3593, 13.6653, 67.265, -166.554
5.09547, 2, -47.2465, -11.9871, 29.3593, 13.6654, 67.2651, -166.554
5.1034, 2, -47.2465, -11.9871, 29.3593, 13.6653, 67.2651, -166.554
5.11142, 2, -47.2465, -11.9871, 29.3593, 13.6653, 67.2651, -166.554
5.11948, 2, -47.2464, -11.9871, 29.3593, 13.6653, 67.2651, -166.554
5.1274, 2, -47.2464, -11.9871, 29.3593, 13.6653, 67.2651, -166.554
5.1354, 2, -47.2463, -11.987, 29.3593, 13.6652, 67.2651, -166.554
5.1435, 4, -47.2462, -11.987, 29.3592, 13.6652, 67.2652, -166.554
5.15139, 4, -47.2461, -11.9869, 29.3592, 13.6652, 67.2652, -166.554
5.15941, 4, -47.2461, -11.9869, 29.3593, 13.6652, 67.2651, -166.554
5.16746, 4, -47.246, -11.9868, 29.3593, 13.6653, 67.2651, -166.554
5.1754, 4, -47.2459, -11.9868, 29.3592, 13.6652, 67.2651, -166.554
5.18342, 4, -47.2459, -11.9868, 29.3592, 13.6652, 67.2652, -166.554
5.19146, 4, -47.2459, -11.9868, 29.3593, 13.6652, 67.2652, -166.554
5.19941, 4, -47.2459, -11.9868, 29.3593, 13.6652, 67.2652, -166.554
5.2074, 4, -47.2459, -11.9868, 29.3593, 13.6652, 67.2652, -166.554
5.2155, 4, -47.2458, -11.9868, 29.3593, 13.6652, 67.2652, -166.554
5.2234, 4, -47.2458, -11.9868, 29.3593, 13.6652, 67.2652, -166.554
5.23143, 4, -47.2458, -11.9867, 29.3593, 13.6651, 67.2652, -166.554
5.2397, 4, -47.2457, -11.9867, 29.3593, 13.6651, 67.2652, -166.554
5.25332, 4, -47.2456, -11.9866, 29.3593, 13.6651, 67.2653, -166.554
5.25619, 4, -47.2456, -11.9866, 29.3593, 13.6651, 67.2653, -166.554
5.26367, 4, -47.2455, -11.9866, 29.3593, 13.6651, 67.2652, -166.554
5.27948, 4, -47.2454, -11.9865, 29.3592, 13.6651, 67.2653, -166.554
5.28131, 4, -47.2454, -11.9865, 29.3592, 13.6651, 67.2653, -166.554
5.28862, 4, -47.2454, -11.9865, 29.3592, 13.665, 67.2653, -166.554
5.29567, 4, -47.2454, -11.9865, 29.3592, 13.665, 67.2653, -166.554
5.3074, 4, -47.2453, -11.9865, 29.3592, 13.665, 67.2653, -166.554
5.31181, 4, -47.2453, -11.9865, 29.3592, 13.665, 67.2653, -166.554
5.32415, 4, -47.2453, -11.9865, 29.3592, 13.665, 67.2653, -166.553
5.33156, 4, -47.2453, -11.9864, 29.3592, 13.665, 67.2653, -166.553
5.33601, 4, -47.2452, -11.9864, 29.3592, 13.665, 67.2653, -166.553
5.34449, 4, -47.2452, -11.9863, 29.3593, 13.665, 67.2653, -166.553
5.35221, 4, -47.2451, -11.9863, 29.3592, 13.6649, 67.2653, -166.554
5.36271, 4, -47.245, -11.9863, 29.3593, 13.6649, 67.2653, -166.553
5.3708, 4, -47.245, -11.9863, 29.3593, 13.6649, 67.2653, -166.553
5.38036, 4, -47.2449, -11.9862, 29.3593, 13.6649, 67.2653, -166.553
5.38661, 4, -47.2449, -11.9862, 29.3593, 13.6649, 67.2653, -166.553
5.39297, 4, -47.2449, -11.9862, 29.3593, 13.6648, 67.2653, -166.553
5.40077, 4, -47.245, -11.9863, 29.3593, 13.6649, 67.2653, -166.553
5.40923, 4, -47.2459, -11.9868, 29.3597, 13.665, 67.2654, -166.553
5.41642, 4, -47.2482, -11.9886, 29.3615, 13.6667, 67.266, -166.553
5.42424, 4, -47.25, -11.9904, 29.3637, 13.67, 67.2668, -166.552
5.43154, 4, -47.2555, -11.997, 29.3722, 13.6865, 67.2708, -166.55
5.44078, 5, -47.2711, -12.0174, 29.4044, 13.7502, 67.2882, -166.537
5.45051, 5, -47.2891, -12.0418, 29.447, 13.8378, 67.3127, -166.518
5.45763, 5, -47.3158, -12.0773, 29.514, 13.9776, 67.3523, -166.486
5.46499, 5, -47.3531, -12.1257, 29.6115, 14.1845, 67.4092, -166.438
5.47155, 5, -47.3762, -12.1552, 29.6732, 14.3168, 67.4458, -166.407
5.47957, 5, -47.4322, -12.2255, 29.824, 14.6434, 67.5352, -166.333
5.48888, 5, -47.5397, -12.3593, 30.1223, 15.2906, 67.7094, -166.184
5.49553, 5, -47.5817, -12.4113, 30.2408, 15.5457, 67.7773, -166.126
5.50354, 5, -47.6742, -12.5257, 30.5028, 16.1062, 67.9252, -165.999
5.51315, 5, -47.8308, -12.7199, 30.9508, 17.0451, 68.169, -165.789
5.52136, 5, -47.9444, -12.8615, 31.2768, 17.7149, 68.3393, -165.642
5.52924, 5, -48.0628, -13.01, 31.6179, 18.4024, 68.5108, -165.492
5.53554, 5, -48.123, -13.0859, 31.7919, 18.7496, 68.5962, -165.418
5.54729, 5, -48.3035, -13.3157, 32.3219, 19.7901, 68.8481, -165.196
5.55326, 5, -48.3623, -13.3915, 32.4993, 20.1318, 69.0111, -165.047
5.56251, 5, -48.5275, -13.6122, 33.0261, 21.1253, 69.1709, -164.887
5.56955, 6, -48.6229, -13.7492, 33.3649, 21.7456, 69.3292, -164.705
5.5784, 6, -48.7014, -13.8757, 33.6878, 22.3221, 69.4884, -164.487
5.58364, 7, -48.7333, -13.9354, 33.842, 22.5921, 69.5692, -164.36
5.59156, 7, -48.7805, -14.0485, 34.1356, 23.0942, 69.7346, -164.063
5.59961, 7, -48.806, -14.1529, 34.4086, 23.549, 69.9074, -163.7
5.61065, 8, -48.8062, -14.2908, 34.7833, 24.1622, 70.1867, -163.024
5.61656, 8, -48.7971, -14.3322, 34.9009, 24.353, 70.2858, -162.764
5.62458, 9, -48.7672, -14.41, 35.1278, 24.7229, 70.4938, -162.204
5.63153, 9, -48.7247, -14.4825, 35.3477, 25.0857, 70.714, -161.597
5.63961, 10, -48.6727, -14.55, 35.5653, 25.4482, 70.945, -160.957
5.64926, 10, -48.6124, -14.6135, 35.7826, 25.8152, 71.1852, -160.296
5.65553, 11, -48.5448, -14.6754, 36.0011, 26.1881, 71.4318, -159.623
5.66357, 11, -48.4712, -14.7377, 36.2214, 26.5672, 71.6816, -158.949
5.67253, 12, -48.3941, -14.8001, 36.4409, 26.9526, 71.9329, -158.276
5.68045, 12, -48.3151, -14.8623, 36.6581, 27.3432, 72.1843, -157.606
5.69221, 13, -48.2343, -14.9242, 36.8735, 27.9368, 72.5601, -156.608
5.69561, 13, -48.1514, -14.9858, 37.0859, 28.136, 72.6848, -156.277
5.70736, 14, -48.0224, -15.0775, 37.3982, 28.7358, 73.056, -155.289
5.71162, 14, -47.978, -15.1079, 37.5013, 28.936, 73.179, -154.962
5.72135, 15, -47.8867, -15.1687, 37.7051, 29.3368, 73.4233, -154.31
5.72789, 16, -47.7907, -15.2292, 37.9056, 29.7368, 73.6656, -153.662
5.74109, 16, -47.6365, -15.3201, 38.2025, 30.3346, 74.0246, -152.695
5.7445, 16, -47.5822, -15.3505, 38.3001, 30.5332, 74.1429, -152.375
5.75342, 18, -47.4697, -15.4119, 38.4926, 30.9292, 74.3774, -151.738
5.7779, 18, -47.1027, -15.6013, 39.0545, 32.1064, 75.0583, -149.857
5.78057, 19, -47.0373, -15.6341, 39.1458, 32.301, 75.1681, -149.549
5.78303, 19, -47.0373, -15.6341, 39.1458, 32.301, 75.2767, -149.243
5.7878, 20, -46.9707, -15.6674, 39.2367, 32.4951, 75.2767, -148.938
5.79971, 20, -46.6923, -15.8056, 39.5975, 33.2673, 75.6984, -148.036
5.80581, 20, -46.6195, -15.8415, 39.6864, 33.4589, 75.8004, -147.739
5.80851, 20, -46.5455, -15.878, 39.7747, 33.65, 75.9011, -147.444
5.81602, 21, -46.394, -15.9532, 39.9496, 34.0305, 76.0983, -146.86
5.82417, 21, -46.2377, -16.0311, 40.1231, 34.4082, 76.2896, -146.283
5.8374, 22, -45.9932, -16.1524, 40.3793, 34.9687, 76.5653, -145.433
5.8413, 22, -45.9089, -16.1939, 40.4632, 35.1537, 76.6545, -145.153
5.85264, 23, -45.7355, -16.2786, 40.629, 35.7022, 76.9133, -144.322
5.85619, 23, -45.5556, -16.3654, 40.7923, 35.8829, 76.9969, -144.047
5.86628, 24, -45.3688, -16.4538, 40.952, 36.2406, 77.1599, -143.502
5.87229, 24, -45.1751, -16.5435, 41.107, 36.5923, 77.3178, -142.963
5.88118, 25, -44.9747, -16.6342, 41.2578, 36.9378, 77.4709, -142.426
5.88962, 26, -44.7678, -16.7257, 41.4042, 37.2766, 77.6193, -141.893
5.89756, 26, -44.5544, -16.8178, 41.5456, 37.6083, 77.7632, -141.362
5.90422, 26, -44.3339, -16.9101, 41.6815, 37.9328, 77.9031, -140.835
5.91254, 27, -44.1067, -17.0019, 41.8115, 38.2493, 78.0386, -140.308
5.92077, 27, -43.8732, -17.0929, 41.9356, 38.5577, 78.1704, -139.783
5.93058, 28, -43.6329, -17.1831, 42.0532, 38.8581, 78.2986, -139.259
5.93549, 28, -43.5102, -17.2277, 42.1095, 39.005, 78.3612, -138.997
5.94521, 29, -43.1319, -17.3593, 42.2682, 39.4331, 78.5449, -138.214
5.95483, 30, -42.8712, -17.445, 42.3652, 39.7081, 78.6629, -137.691
5.95958, 30, -42.738, -17.4872, 42.4109, 39.8424, 78.7209, -137.43
5.96867, 30, -42.3252, -17.6105, 42.5374, 40.2326, 78.8906, -136.648
5.97556, 31, -42.1833, -17.6503, 42.5759, 40.3584, 78.9456, -136.388
5.98578, 32, -41.7459, -17.7662, 42.6811, 40.7229, 79.107, -135.608
5.9916, 32, -41.5967, -17.8037, 42.7128, 40.8401, 79.1594, -135.348
6.0014, 32, -41.139, -17.9123, 42.7975, 41.1794, 79.3128, -134.571
6.00965, 33, -40.8257, -17.9809, 42.845, 41.3957, 79.4122, -134.054
6.01744, 33, -40.506, -18.0462, 42.8854, 41.6036, 79.5086, -133.537
6.02366, 34, -40.3442, -18.0779, 42.9028, 41.7045, 79.556, -133.279
6.03523, 34, -39.8521, -18.1691, 42.9441, 41.9953, 79.6941, -132.507
6.04281, 35, -39.5171, -18.2258, 42.9628, 42.1797, 79.7828, -131.994
6.05151, 36, -39.1755, -18.2791, 42.9744, 42.3565, 79.8695, -131.482
6.05554, 36, -39.0019, -18.3045, 42.9776, 42.4419, 79.912, -131.227
6.06575, 36, -38.4702, -18.3757, 42.9773, 42.6868, 80.0363, -130.462
6.07854, 37, -37.9248, -18.4392, 42.9616, 42.9147, 80.156, -129.701
6.08046, 37, -37.9248, -18.4392, 42.9616, 42.9147, 80.156, -129.701
6.08762, 38, -37.5544, -18.4769, 42.9426, 43.0577, 80.233, -129.195
6.09652, 38, -37.1795, -18.5112, 42.9171, 43.1929, 80.3083, -128.692
6.10675, 39, -36.6086, -18.5563, 42.8661, 43.3819, 80.4164, -127.939
6.11419, 39, -36.2222, -18.5817, 42.8236, 43.4988, 80.4867, -127.44
6.1218, 40, -36.0268, -18.6034, 42.7748, 43.6085, 80.5547, -126.943
6.12854, 40, -35.6314, -18.6127, 42.7479, 43.6607, 80.5884, -126.695
6.13781, 41, -35.2302, -18.6283, 42.6892, 43.7594, 80.6534, -125.953
6.14357, 41, -34.8237, -18.6404, 42.6241, 43.851, 80.7166, -125.708
6.15286, 42, -34.4136, -18.649, 42.5525, 43.9357, 80.7781, -125.218
6.16259, 42, -33.7923, -18.6561, 42.4333, 44.0492, 80.8664, -124.487
6.16791, 43, -33.5834, -18.6568, 42.3905, 44.0833, 80.8953, -124.244
6.17557, 43, -33.1616, -18.6556, 42.3006, 44.1468, 80.9507, -123.761
6.18454, 44, -32.7338, -18.6506, 42.2049, 44.2028, 81.0053, -123.28
6.19355, 45, -32.2996, -18.6419, 42.1035, 44.2513, 81.0581, -122.802
6.20545, 45, -31.6377, -18.6217, 41.9403, 44.3112, 81.1336, -122.089
6.20882, 45, -31.4151, -18.6133, 41.8829, 44.3274, 81.1585, -121.852
6.21674, 46, -30.9682, -18.5939, 41.7635, 44.3537, 81.2061, -121.381
6.22357, 46, -30.5196, -18.5709, 41.6383, 44.3723, 81.2514, -120.912
6.23253, 47, -30.0674, -18.5438, 41.5073, 44.3834, 81.2964, -120.445
6.24484, 48, -29.378, -18.4946, 41.2996, 44.3873, 81.3614, -119.749
6.24773, 48, -29.1448, -18.4761, 41.2273, 44.3846, 81.3823, -119.517
6.25665, 48, -28.6741, -18.4358, 41.0782, 44.3723, 81.4239, -119.056
6.2646, 49, -28.1988, -18.3911, 40.9233, 44.3516, 81.4658, -118.597
6.27162, 49, -27.7214, -18.342, 40.7624, 44.3212, 81.5066, -118.139
6.28153, 50, -27.2412, -18.2883, 40.5949, 44.281, 81.5472, -117.682
6.28765, 50, -26.7565, -18.229, 40.4207, 44.2322, 81.5891, -117.225
6.30038, 51, -26.0156, -18.1296, 40.1477, 44.1405, 81.6527, -116.543
6.30951, 52, -25.5127, -18.0563, 39.9565, 44.0674, 81.6954, -116.089
6.31231, 52, -25.2595, -18.0176, 39.8581, 44.0268, 81.7174, -115.862
6.32118, 52, -24.7511, -17.9362, 39.6565, 43.9375, 81.7623, -115.409
6.32782, 53, -24.2408, -17.8492, 39.4487, 43.8382, 81.8072, -114.956
6.33667, 53, -23.7262, -17.7563, 39.233, 43.7286, 81.8534, -114.504
6.34454, 54, -23.2048, -17.6573, 39.0099, 43.6082, 81.9023, -114.052
6.35625, 54, -22.6749, -17.5522, 38.7803, 43.4072, 81.978, -113.374
6.36015, 55, -22.1384, -17.441, 38.5431, 43.3345, 82.0045, -113.148
6.36859, 56, -21.5986, -17.3235, 38.2991, 43.1805, 82.0593, -112.696
6.38078, 56, -20.7845, -17.137, 37.9213, 42.9283, 82.1431, -112.02
6.38473, 57, -20.5105, -17.0721, 37.7918, 42.8387, 82.1722, -111.795
6.3947, 57, -19.9555, -16.9382, 37.5284, 42.651, 82.2313, -111.344
6.40024, 57, -19.3916, -16.7988, 37.2584, 42.4512, 82.2916, -110.894
6.40948, 58, -18.8214, -16.6538, 36.9819, 42.239, 82.3546, -110.444
6.41629, 58, -18.5352, -16.5033, 36.6995, 42.0146, 82.4185, -109.995
6.42426, 59, -17.9613, -16.4259, 36.4104, 41.778, 82.4855, -109.546
6.43278, 59, -17.0911, -16.1868, 36.1155, 41.5291, 82.5538, -109.097
6.44147, 60, -16.4986, -16.021, 35.8143, 41.2672, 82.6249, -108.648
6.44748, 60, -16.1988, -15.936, 35.6618, 41.1313, 82.6612, -108.424
6.45823, 61, -15.2923, -15.6733, 35.1953, 40.7026, 82.7729, -107.751
6.46478, 61, -14.9887, -15.4926, 34.8767, 40.4004, 82.8505, -107.303
6.47453, 62, -14.0697, -15.3071, 34.5518, 40.0844, 82.9313, -106.854
6.48151, 63, -13.445, -15.1154, 34.222, 39.7547, 83.0147, -106.405
6.48788, 63, -13.1288, -15.0169, 34.0551, 39.5842, 83.0576, -106.18
6.49734, 64, -12.1701, -14.7124, 33.5462, 39.0504, 83.1913, -105.505
6.50599, 64, -11.5259, -14.503, 33.1996, 38.6763, 83.285, -105.053
6.51362, 65, -10.8751, -14.2866, 32.8472, 38.2875, 83.383, -104.6
6.52116, 65, -10.2137, -14.063, 32.4887, 37.8837, 83.4858, -104.146
6.52759, 65, -9.87932, -13.949, 32.3078, 37.6756, 83.539, -103.918
6.53548, 66, -9.20463, -13.7167, 31.9424, 37.2474, 83.6494, -103.46
6.5436, 66, -8.52428, -13.4779, 31.5725, 36.8042, 83.7652, -103.002
6.55149, 67, -7.83797, -13.2318, 31.1963, 36.3454, 83.8862, -102.54
6.5624, 68, -6.79036, -12.8484, 30.6226, 35.6285, 84.0794, -101.845
6.57057, 68, -6.08069, -12.5838, 30.2354, 35.131, 84.2163, -101.378
6.57794, 69, -5.36452, -12.3133, 29.8437, 34.6186, 84.3603, -100.909
6.58356, 69, -5.00421, -12.1751, 29.6463, 34.3563, 84.4347, -100.674
6.59183, 69, -4.27785, -11.8928, 29.2481, 33.8212, 84.5889, -100.202
6.60591, 70, -2.79961, -11.3071, 28.4457, 32.7073, 84.9181, -99.2482
6.60866, 70, -2.79961, -11.3071, 28.4457, 32.7073, 84.9181, -99.2482
6.61548, 71, -2.04995, -11.0035, 28.0417, 32.129, 85.0928, -98.7689
6.62361, 71, -1.29294, -10.693, 27.636, 31.5379, 85.275, -98.2872
6.63468, 72, -0.529121, -10.2141, 27.0257, 30.625, 85.5623, -97.5597
6.64235, 73, 0.628733, -9.88598, 26.6185, 30.0012, 85.7633, -97.0718
6.64891, 73, 1.0175, -9.71894, 26.415, 29.6853, 85.8666, -96.8271
6.65554, 73, 1.79944, -9.37997, 26.0082, 29.0449, 86.079, -96.3362
6.66353, 74, 2.58653, -9.03406, 25.6022, 28.3944, 86.2995, -95.8427
6.6756, 75, 3.77523, -8.50394, 24.9969, 27.4013, 86.6447, -95.0976
6.68296, 75, 4.17349, -8.32343, 24.7964, 27.0659, 86.8846, -94.5985
6.69147, 76, 5.3731, -7.77179, 24.199, 26.0521, 87.1333, -94.0975
6.69552, 76, 5.77397, -7.58432, 24.0013, 25.7108, 87.2608, -93.8459
6.70669, 77, 6.97803, -7.0115, 23.4152, 24.6814, 87.6563, -93.0879
6.71562, 77, 7.78294, -6.61884, 23.0289, 23.9918, 87.9315, -92.579
6.7285, 78, 8.99152, -6.01466, 22.457, 22.9536, 88.3624, -91.8112
6.73178, 78, 9.39396, -5.80954, 22.2692, 22.6072, 88.5108, -91.5533
6.74394, 79, 10.6003, -5.17923, 21.7125, 21.569, 88.9709, -90.7742
6.74793, 79, 11.0021, -4.9643, 21.5293, 21.2243, 89.1292, -90.5125
6.75146, 79, 11.4031, -4.7469, 21.3471, 20.8805, 89.2901, -90.25
6.75948, 80, 12.2022, -4.30547, 20.987, 20.1932, 89.6193, -89.7219
6.7678, 80, 12.9964, -3.85444, 20.6324, 19.5108, 89.9596, -89.1888
6.77636, 81, 13.7862, -3.39388, 20.2831, 18.8355, 90.3102, -88.6515
6.78444, 81, 14.5696, -2.92478, 19.939, 18.1687, 90.6712, -88.1093
6.79145, 82, 15.3437, -2.44711, 19.6018, 17.5111, 91.0417, -87.5638
6.79939, 82, 16.1075, -1.96145, 19.2717, 16.8647, 91.422, -87.0139
6.80743, 83, 16.8604, -1.46846, 18.9492, 16.2334, 91.8105, -86.4608
6.81538, 83, 17.6004, -0.969055, 18.6346, 15.6192, 92.207, -85.9055
6.82354, 84, 18.3231, -0.465383, 18.3286, 15.0228, 92.6097, -85.3503
6.83168, 84, 19.0276, 0.0424988, 18.0322, 14.4494, 93.0185, -84.7946
6.83957, 85, 19.7155, 0.556847, 17.7446, 13.8994, 93.4322, -84.2403
6.84775, 85, 20.3874, 1.07714, 17.466, 13.3742, 93.8503, -83.6881
6.85576, 86, 21.0431, 1.60144, 17.1949, 12.8733, 94.2714, -83.1384
6.86378, 86, 21.6835, 2.13013, 16.9318, 12.3957, 94.6962, -82.5891
6.87243, 87, 22.3106, 2.66555, 16.6761, 11.9413, 95.1257, -82.0386
6.88001, 87, 22.9257, 3.20979, 16.4257, 11.5076, 95.5612, -81.4851
6.88794, 87, 23.5296, 3.76275, 16.1799, 11.0927, 96.003, -80.9272
6.89592, 88, 24.1218, 4.32271, 15.9377, 10.6948, 96.4508, -80.3615
6.90395, 88, 24.7017, 4.89146, 15.7004, 10.3129, 96.9049, -79.7867
6.91198, 89, 24.987, 5.47084, 15.469, 9.9461, 97.3659, -79.2013
6.92053, 89, 25.8276, 6.06015, 15.241, 9.59546, 97.833, -78.6052
6.92734, 90, 26.1043, 6.35828, 15.1281, 9.4255, 98.069, -78.3022
6.93538, 90, 26.6521, 6.96056, 14.9057, 9.09734, 98.5456, -77.6866
6.94452, 91, 27.4518, 7.88043, 14.5816, 8.63818, 99.2725, -76.7403
6.95134, 91, 27.7118, 8.19198, 14.4759, 8.49461, 99.5176, -76.4195
6.96055, 92, 28.4765, 9.14275, 14.1658, 8.0962, 100.259, -75.4403
6.96734, 92, 28.7275, 9.46468, 14.0648, 7.97465, 100.508, -75.1096
6.97534, 93, 29.2227, 10.1143, 13.8672, 7.7485, 101.008, -74.4433
6.98335, 93, 29.7057, 10.7702, 13.6768, 7.54603, 101.507, -73.7698
6.99137, 94, 30.1745, 11.4302, 13.4948, 7.36722, 102.006, -73.0896
7.00093, 94, 30.8498, 12.4253, 13.2353, 7.14335, 102.749, -72.0604
7.0089, 95, 31.2824, 13.0909, 13.0715, 7.02394, 103.24, -71.3676
7.01694, 95, 31.7011, 13.7581, 12.9157, 6.92818, 103.728, -70.669
7.02337, 96, 31.9053, 14.0921, 12.8405, 6.889, 103.97, -70.3179
7.03141, 96, 32.3022, 14.7605, 12.6946, 6.82926, 104.453, -69.612
7.04099, 97, 32.6832, 15.4294, 12.4883, 6.78129, 105.167, -68.5414
7.04837, 97, 33.0476, 16.0971, 12.4233, 6.77576, 105.403, -68.1825
7.05635, 98, 33.3963, 16.763, 12.2997, 6.78171, 105.868, -67.4628
7.06449, 98, 33.7308, 17.4256, 12.1849, 6.80915, 106.326, -66.7393
7.07144, 99, 34.0515, 18.0829, 12.0792, 6.85619, 106.773, -66.0143
7.08035, 99, 34.3596, 18.7338, 11.9829, 6.9235, 107.21, -65.291
7.08836, 100, 34.6564, 19.3764, 11.8954, 7.00811, 107.634, -64.5687
7.09539, 100, 34.9418, 20.0105, 11.8164, 7.11058, 108.046, -63.8492
7.10335, 101, 35.2153, 20.6342, 11.7457, 7.22892, 108.443, -63.1363
7.11135, 101, 35.4769, 21.247, 11.6833, 7.36203, 108.826, -62.4291
7.11939, 102, 35.7276, 21.848, 11.6296, 7.50839, 109.192, -61.7299
7.12734, 102, 35.9658, 22.4363, 11.5843, 7.66626, 109.541, -61.0426
7.13531, 103, 36.1922, 23.0106, 11.5478, 7.8341, 109.873, -60.366
7.14342, 103, 36.4102, 23.5694, 11.5199, 8.011, 110.187, -59.701
7.15135, 103, 36.6211, 24.1121, 11.5012, 8.19674, 110.482, -59.0495
7.15938, 104, 36.8244, 24.6388, 11.4913, 8.39177, 110.757, -58.4108
7.1674, 104, 37.0205, 25.1491, 11.4887, 8.59576, 111.012, -57.7841
7.17534, 104, 37.2104, 25.6431, 11.4929, 8.80782, 111.246, -57.1702
7.18335, 104, 37.393, 26.1206, 11.5031, 9.02637, 111.461, -56.5706
7.19144, 104, 37.5661, 26.5814, 11.5171, 9.24928, 111.658, -55.9858
7.19935, 104, 37.7306, 27.0258, 11.534, 9.47452, 111.838, -55.4178
7.20734, 104, 37.889, 27.4549, 11.5537, 9.6991, 112.006, -54.8695
7.2154, 104, 38.0426, 27.8679, 11.5746, 9.92095, 112.163, -54.3437
7.22334, 104, 38.191, 28.264, 11.5957, 10.1384, 112.31, -53.8403
7.2314, 104, 38.3329, 28.6436, 11.6162, 10.3504, 112.449, -53.3605
7.23937, 104, 38.468, 29.006, 11.6354, 10.5556, 112.581, -52.9051
7.2474, 104, 38.5954, 29.3502, 11.6535, 10.7533, 112.705, -52.4741
7.25592, 104, 38.7148, 29.6758, 11.6706, 10.9427, 112.821, -52.0683
7.26343, 104, 38.8258, 29.9821, 11.6863, 11.1232, 112.929, -51.6872
7.27144, 104, 38.9286, 30.2702, 11.7011, 11.294, 113.03, -51.3313
7.2795, 104, 39.0236, 30.5387, 11.7148, 11.4548, 113.123, -51.001
7.28744, 104, 39.111, 30.7874, 11.7272, 11.6049, 113.209, -50.696
7.29535, 104, 39.1905, 31.0167, 11.7384, 11.7442, 113.287, -50.416
7.3034, 104, 39.2621, 31.2261, 11.7486, 11.8721, 113.359, -50.1615
7.31137, 104, 39.3259, 31.4155, 11.7581, 11.9883, 113.423, -49.9322
7.31943, 104, 39.3822, 31.5856, 11.7666, 12.0929, 113.48, -49.7279
7.32752, 104, 39.4315, 31.7363, 11.774, 12.1851, 113.53, -49.5485
7.33554, 104, 39.4746, 31.868, 11.7808, 12.2653, 113.572, -49.3939
7.34362, 104, 39.512, 31.9821, 11.7869, 12.3334, 113.608, -49.263
7.35208, 104, 39.5433, 32.0795, 11.7924, 12.3903, 113.638, -49.1557
7.36038, 104, 39.5691, 32.1608, 11.7972, 12.4351, 113.662, -49.0691
7.36791, 104, 39.5899, 32.2279, 11.8016, 12.4701, 113.68, -49.0024
7.37648, 104, 39.6063, 32.2824, 11.8055, 12.4966, 113.693, -48.9531
7.38389, 104, 39.6188, 32.3258, 11.8091, 12.5156, 113.702, -48.9182
7.39191, 104, 39.6284, 32.3589, 11.8123, 12.5288, 113.708, -48.8946
7.4005, 104, 39.6353, 32.3836, 11.8151, 12.5374, 113.711, -48.8798
7.4081, 104, 39.638, 32.4021, 11.8176, 12.5426, 113.713, -48.8713
7.41595, 104, 39.6417, 32.4094, 11.8196, 12.5455, 113.714, -48.8669
7.42446, 104, 39.6446, 32.4238, 11.8211, 12.547, 113.715, -48.865
7.43129, 105, 39.645, 32.4268, 11.8218, 12.5474, 113.715, -48.8645
7.43936, 105, 39.6449, 32.431, 11.8228, 12.5479, 113.715, -48.8641
7.44856, 105, 39.6435, 32.435, 11.8241, 12.5482, 113.715, -48.8642
7.45534, 105, 39.6429, 32.436, 11.8245, 12.5482, 113.715, -48.8644
7.46336, 105, 39.6419, 32.4376, 11.8251, 12.5483, 113.715, -48.8647
7.47134, 105, 39.6408, 32.4389, 11.8257, 12.5483, 113.715, -48.8651
7.47932, 105, 39.6398, 32.4401, 11.8263, 12.5484, 113.715, -48.8654
7.48872, 105, 39.6388, 32.4418, 11.8272, 12.5483, 113.715, -48.8659
7.49538, 105, 39.6387, 32.4423, 11.8275, 12.5483, 113.715, -48.866
7.50332, 105, 39.6383, 32.4434, 11.828, 12.5483, 113.715, -48.8664
7.51286, 105, 39.6379, 32.4447, 11.8288, 12.5484, 113.715, -48.8669
7.52098, 105, 39.6376, 32.4453, 11.8291, 12.5484, 113.715, -48.8674
7.52955, 105, 39.6373, 32.4458, 11.8294, 12.5483, 113.715, -48.8676
7.5354, 105, 39.6371, 32.446, 11.8296, 12.5483, 113.715, -48.8677
7.54495, 105, 39.6368, 32.4462, 11.8298, 12.5483, 113.715, -48.8681
7.55235, 105, 39.6365, 32.4462, 11.83, 12.5483, 113.715, -48.8683
