hehonglu123/Motion-Primitive-Planning/simulation/robotstudio_sim/scripts/execution_data/greedy/curve_exe_z1.csv
timestamp, cmd_num, J1, J2, J3, J4, J5, J6
0, 1, -0.805201, 64.4292, 8.48325, 44.5936, -96.4064, 169.862
0.002, 1, -0.805201, 64.4292, 8.48325, 44.5936, -96.4064, 169.862
0.005, 1, -0.805201, 64.4292, 8.48325, 44.5936, -96.4064, 169.862
0.008, 1, -0.805201, 64.4292, 8.48325, 44.5936, -96.4064, 169.862
0.011, 1, -0.805201, 64.4292, 8.48325, 44.5936, -96.4064, 169.862
0.016, 1, -0.805201, 64.4292, 8.48325, 44.5936, -96.4064, 169.862
0.02, 1, -0.805201, 64.4292, 8.48325, 44.5936, -96.4064, 169.862
0.024, 1, -0.805201, 64.4292, 8.48325, 44.5936, -96.4064, 169.862
0.028, 1, -0.805201, 64.4292, 8.48325, 44.5936, -96.4064, 169.862
0.032, 1, -0.805192, 64.4292, 8.48325, 44.5936, -96.4064, 169.862
0.036, 1, -0.805127, 64.4292, 8.48325, 44.5936, -96.4064, 169.862
0.04, 1, -0.804904, 64.4291, 8.48326, 44.5936, -96.4064, 169.862
0.044, 1, -0.804376, 64.429, 8.48328, 44.5936, -96.4064, 169.862
0.048, 1, -0.803401, 64.4287, 8.48331, 44.5937, -96.4064, 169.862
0.052, 1, -0.801869, 64.4282, 8.48334, 44.5938, -96.4063, 169.861
0.056, 1, -0.799706, 64.4274, 8.48336, 44.594, -96.4061, 169.861
0.06, 1, -0.796862, 64.4264, 8.48332, 44.5945, -96.4057, 169.86
0.064, 1, -0.793303, 64.4249, 8.48319, 44.5953, -96.4051, 169.858
0.068, 1, -0.788981, 64.4231, 8.48288, 44.5966, -96.404, 169.855
0.072, 1, -0.783799, 64.4207, 8.48233, 44.5986, -96.4024, 169.85
0.076, 1, -0.777601, 64.4178, 8.48144, 44.6015, -96.3999, 169.843
0.08, 1, -0.770186, 64.4142, 8.48009, 44.6056, -96.3965, 169.833
0.084, 1, -0.761354, 64.4099, 8.47815, 44.6112, -96.3919, 169.82
0.088, 1, -0.750947, 64.4048, 8.47546, 44.6186, -96.3857, 169.803
0.092, 1, -0.73886, 64.3989, 8.47187, 44.6282, -96.3777, 169.78
0.096, 1, -0.725009, 64.3921, 8.46719, 44.6403, -96.3675, 169.752
0.1, 1, -0.709295, 64.3844, 8.46123, 44.6554, -96.3549, 169.717
0.104, 1, -0.691587, 64.3757, 8.45383, 44.6739, -96.3394, 169.673
0.108, 1, -0.671756, 64.3661, 8.44484, 44.696, -96.3209, 169.622
0.112, 1, -0.649718, 64.3554, 8.4341, 44.722, -96.299, 169.561
0.116, 1, -0.625454, 64.3438, 8.42147, 44.7524, -96.2736, 169.49
0.12, 1, -0.598989, 64.3314, 8.40683, 44.7873, -96.2444, 169.409
0.124, 1, -0.570368, 64.3184, 8.39011, 44.8268, -96.2112, 169.317
0.128, 1, -0.53964, 64.3048, 8.37125, 44.8711, -96.174, 169.214
0.131, 1, -0.506841, 64.2906, 8.35023, 44.9202, -96.1328, 169.099
0.136, 1, -0.471976, 64.2759, 8.32711, 44.974, -96.0877, 168.974
0.139, 1, -0.435008, 64.2605, 8.30194, 45.0323, -96.0387, 168.838
0.144, 1, -0.395899, 64.2441, 8.27486, 45.0949, -95.9861, 168.692
0.148, 1, -0.354664, 64.2269, 8.246, 45.1615, -95.9301, 168.537
0.152, 1, -0.311396, 64.2087, 8.21551, 45.2319, -95.8711, 168.374
0.156, 1, -0.266227, 64.1896, 8.18357, 45.3055, -95.8092, 168.202
0.16, 1, -0.219273, 64.1696, 8.15035, 45.3821, -95.7449, 168.024
0.164, 1, -0.170613, 64.1488, 8.11606, 45.4612, -95.6785, 167.84
0.168, 1, -0.120314, 64.1272, 8.08088, 45.5424, -95.6103, 167.651
0.172, 1, -0.0684713, 64.1047, 8.04499, 45.6254, -95.5406, 167.457
0.176, 1, -0.0152166, 64.0815, 8.00857, 45.7097, -95.4698, 167.261
0.18, 1, 0.0393074, 64.0576, 7.97174, 45.7951, -95.3981, 167.062
0.184, 1, 0.0949551, 64.0331, 7.93462, 45.8814, -95.3257, 166.861
0.188, 1, 0.151572, 64.008, 7.8973, 45.9682, -95.2528, 166.659
0.192, 1, 0.209004, 63.9825, 7.85984, 46.0555, -95.1795, 166.456
0.196, 1, 0.26712, 63.9567, 7.82229, 46.1431, -95.106, 166.252
0.2, 1, 0.325833, 63.9307, 7.78468, 46.2309, -95.0323, 166.047
0.204, 1, 0.385066, 63.9044, 7.74705, 46.3188, -94.9585, 165.842
0.208, 1, 0.444726, 63.878, 7.70941, 46.4068, -94.8846, 165.637
0.212, 1, 0.504702, 63.8515, 7.67177, 46.4948, -94.8107, 165.432
0.216, 1, 0.564892, 63.8249, 7.63413, 46.5828, -94.7368, 165.227
0.22, 1, 0.625216, 63.7983, 7.59651, 46.6709, -94.6629, 165.022
0.224, 1, 0.68562, 63.7716, 7.55891, 46.7589, -94.5891, 164.817
0.228, 1, 0.746068, 63.745, 7.52132, 46.8468, -94.5153, 164.612
0.232, 1, 0.806534, 63.7183, 7.48375, 46.9347, -94.4415, 164.407
0.236, 1, 0.867001, 63.6917, 7.4462, 47.0226, -94.3677, 164.203
0.24, 1, 0.927458, 63.665, 7.40867, 47.1105, -94.294, 163.998
0.244, 1, 0.987897, 63.6384, 7.37115, 47.1983, -94.2203, 163.793
0.248, 1, 1.04831, 63.6117, 7.33367, 47.286, -94.1466, 163.589
0.252, 1, 1.1087, 63.5851, 7.2962, 47.3737, -94.073, 163.385
0.256, 1, 1.16906, 63.5585, 7.25875, 47.4613, -93.9994, 163.18
0.26, 1, 1.22939, 63.532, 7.22132, 47.5489, -93.9259, 162.976
0.264, 1, 1.28968, 63.5054, 7.18392, 47.6365, -93.8524, 162.772
0.268, 1, 1.34994, 63.4788, 7.14654, 47.724, -93.779, 162.568
0.272, 1, 1.41017, 63.4523, 7.10918, 47.8114, -93.7056, 162.365
0.276, 1, 1.47036, 63.4258, 7.07184, 47.8988, -93.6322, 162.161
0.28, 1, 1.53051, 63.3993, 7.03452, 47.9861, -93.5589, 161.958
0.284, 1, 1.59063, 63.3728, 6.99723, 48.0734, -93.4857, 161.754
0.288, 1, 1.65072, 63.3463, 6.95996, 48.1607, -93.4124, 161.551
0.292, 1, 1.71077, 63.3198, 6.92271, 48.2479, -93.3393, 161.348
0.296, 1, 1.77078, 63.2934, 6.88548, 48.335, -93.2661, 161.145
0.3, 1, 1.83076, 63.267, 6.84828, 48.4221, -93.193, 160.942
0.304, 1, 1.8907, 63.2405, 6.8111, 48.5091, -93.12, 160.739
0.308, 1, 1.9506, 63.2141, 6.77394, 48.5961, -93.047, 160.537
0.312, 1, 2.01047, 63.1878, 6.7368, 48.683, -92.974, 160.334
0.316, 1, 2.0703, 63.1614, 6.69969, 48.7699, -92.9011, 160.132
0.32, 1, 2.1301, 63.135, 6.6626, 48.8567, -92.8282, 159.929
0.324, 1, 2.18986, 63.1087, 6.62553, 48.9434, -92.7554, 159.727
0.328, 1, 2.24958, 63.0824, 6.58848, 49.0301, -92.6826, 159.525
0.332, 1, 2.30926, 63.0561, 6.55146, 49.1168, -92.6099, 159.323
0.336, 1, 2.3689, 63.0298, 6.51446, 49.2034, -92.5372, 159.122
0.34, 1, 2.42851, 63.0036, 6.47749, 49.2899, -92.4646, 158.92
0.344, 1, 2.48808, 62.9773, 6.44054, 49.3764, -92.392, 158.718
0.348, 1, 2.54761, 62.9511, 6.40361, 49.4628, -92.3194, 158.517
0.352, 1, 2.60711, 62.9249, 6.3667, 49.5492, -92.2469, 158.316
0.356, 1, 2.66656, 62.8987, 6.32982, 49.6355, -92.1745, 158.115
0.36, 1, 2.72598, 62.8725, 6.29296, 49.7218, -92.1021, 157.914
0.364, 1, 2.78536, 62.8463, 6.25613, 49.808, -92.0297, 157.713
0.368, 1, 2.8447, 62.8202, 6.21932, 49.8942, -91.9574, 157.512
0.372, 1, 2.904, 62.794, 6.18253, 49.9803, -91.8851, 157.312
0.376, 1, 2.96327, 62.7679, 6.14577, 50.0663, -91.8129, 157.111
0.38, 1, 3.02249, 62.7418, 6.10903, 50.1523, -91.7407, 156.911
0.384, 1, 3.08168, 62.7157, 6.07232, 50.2382, -91.6686, 156.711
0.388, 1, 3.14083, 62.6897, 6.03563, 50.3241, -91.5965, 156.51
0.392, 1, 3.19993, 62.6636, 5.99896, 50.4099, -91.5245, 156.311
0.396, 1, 3.259, 62.6376, 5.96232, 50.4957, -91.4525, 156.111
0.4, 1, 3.31803, 62.6116, 5.92571, 50.5814, -91.3805, 155.911
0.404, 1, 3.37702, 62.5856, 5.88911, 50.6671, -91.3087, 155.711
0.408, 1, 3.43597, 62.5596, 5.85255, 50.7526, -91.2368, 155.512
0.412, 1, 3.49488, 62.5336, 5.816, 50.8382, -91.165, 155.313
0.416, 1, 3.55375, 62.5077, 5.77948, 50.9236, -91.0933, 155.114
0.42, 1, 3.61258, 62.4818, 5.74299, 51.0091, -91.0216, 154.915
0.424, 1, 3.67138, 62.4559, 5.70652, 51.0944, -90.9499, 154.716
0.428, 1, 3.73013, 62.43, 5.67008, 51.1797, -90.8783, 154.517
0.432, 1, 3.78884, 62.4041, 5.63366, 51.2649, -90.8068, 154.318
0.436, 1, 3.8475, 62.3783, 5.59727, 51.3501, -90.7353, 154.12
0.44, 1, 3.90613, 62.3524, 5.5609, 51.4353, -90.6639, 153.922
0.444, 1, 3.96472, 62.3266, 5.52456, 51.5203, -90.5925, 153.723
0.448, 1, 4.02327, 62.3008, 5.48824, 51.6053, -90.5211, 153.525
0.452, 1, 4.08177, 62.275, 5.45195, 51.6903, -90.4498, 153.328
0.456, 1, 4.14024, 62.2493, 5.41568, 51.7751, -90.3786, 153.13
0.46, 1, 4.19866, 62.2235, 5.37944, 51.86, -90.3074, 152.932
0.464, 1, 4.25705, 62.1978, 5.34323, 51.9447, -90.2362, 152.735
0.468, 1, 4.31539, 62.1721, 5.30704, 52.0294, -90.1651, 152.537
0.472, 1, 4.37369, 62.1464, 5.27087, 52.1141, -90.0941, 152.34
0.476, 1, 4.43195, 62.1207, 5.23474, 52.1987, -90.0231, 152.143
0.48, 1, 4.49016, 62.0951, 5.19862, 52.2832, -89.9521, 151.946
0.484, 1, 4.54834, 62.0694, 5.16254, 52.3676, -89.8812, 151.749
0.488, 1, 4.60647, 62.0438, 5.12648, 52.452, -89.8104, 151.553
0.492, 1, 4.66456, 62.0182, 5.09044, 52.5364, -89.7396, 151.356
0.496, 1, 4.72261, 61.9926, 5.05444, 52.6207, -89.6689, 151.16
0.5, 1, 4.78061, 61.9671, 5.01846, 52.7049, -89.5982, 150.964
0.504, 1, 4.83858, 61.9416, 4.9825, 52.789, -89.5275, 150.768
0.508, 1, 4.8965, 61.916, 4.94657, 52.8731, -89.4569, 150.572
0.512, 1, 4.95438, 61.8905, 4.91067, 52.9572, -89.3864, 150.376
0.516, 1, 5.01222, 61.865, 4.87479, 53.0411, -89.3159, 150.18
0.52, 1, 5.07001, 61.8396, 4.83894, 53.125, -89.2455, 149.985
0.524, 1, 5.12776, 61.8141, 4.80312, 53.2089, -89.1751, 149.789
0.528, 1, 5.18547, 61.7887, 4.76733, 53.2927, -89.1048, 149.594
0.532, 1, 5.24313, 61.7633, 4.73156, 53.3764, -89.0345, 149.399
0.536, 1, 5.30076, 61.7379, 4.69582, 53.46, -88.9643, 149.204
0.54, 1, 5.35834, 61.7125, 4.6601, 53.5436, -88.8941, 149.009
0.544, 1, 5.41587, 61.6872, 4.62441, 53.6272, -88.824, 148.815
0.548, 1, 5.47336, 61.6618, 4.58875, 53.7106, -88.754, 148.62
0.552, 1, 5.53081, 61.6365, 4.55311, 53.794, -88.684, 148.426
0.556, 1, 5.58822, 61.6112, 4.51751, 53.8774, -88.614, 148.232
0.56, 1, 5.64558, 61.5859, 4.48192, 53.9607, -88.5441, 148.038
0.564, 1, 5.7029, 61.5607, 4.44637, 54.0439, -88.4743, 147.844
0.568, 1, 5.76017, 61.5355, 4.41084, 54.127, -88.4045, 147.65
0.572, 1, 5.8174, 61.5102, 4.37534, 54.2101, -88.3347, 147.457
0.576, 1, 5.87458, 61.485, 4.33987, 54.2931, -88.265, 147.263
0.58, 1, 5.93173, 61.4599, 4.30443, 54.3761, -88.1954, 147.07
0.584, 1, 5.98882, 61.4347, 4.26901, 54.459, -88.1258, 146.877
0.588, 1, 6.04588, 61.4096, 4.23362, 54.5418, -88.0563, 146.684
0.592, 1, 6.10289, 61.3844, 4.19826, 54.6246, -87.9868, 146.491
0.596, 1, 6.15985, 61.3593, 4.16292, 54.7073, -87.9174, 146.298
0.6, 1, 6.21677, 61.3343, 4.12762, 54.7899, -87.848, 146.106
0.604, 1, 6.27364, 61.3092, 4.09234, 54.8725, -87.7787, 145.913
0.608, 1, 6.33047, 61.2842, 4.05709, 54.955, -87.7095, 145.721
0.612, 1, 6.38726, 61.2591, 4.02186, 55.0375, -87.6403, 145.529
0.616, 1, 6.444, 61.2341, 3.98667, 55.1198, -87.5711, 145.337
0.62, 1, 6.5007, 61.2091, 3.9515, 55.2021, -87.502, 145.145
0.624, 1, 6.55735, 61.1842, 3.91636, 55.2844, -87.433, 144.954
0.628, 1, 6.61395, 61.1592, 3.88124, 55.3666, -87.364, 144.762
0.632, 1, 6.67052, 61.1343, 3.84616, 55.4487, -87.2951, 144.571
0.636, 1, 6.72703, 61.1094, 3.8111, 55.5307, -87.2262, 144.38
0.64, 1, 6.7835, 61.0845, 3.77608, 55.6127, -87.1574, 144.189
0.644, 1, 6.83993, 61.0597, 3.74108, 55.6946, -87.0887, 143.998
0.648, 1, 6.89631, 61.0348, 3.7061, 55.7765, -87.02, 143.807
0.652, 1, 6.95264, 61.01, 3.67116, 55.8583, -86.9513, 143.617
0.656, 1, 7.00893, 60.9852, 3.63625, 55.94, -86.8827, 143.426
0.66, 1, 7.06517, 60.9604, 3.60136, 56.0217, -86.8142, 143.236
0.664, 1, 7.12137, 60.9357, 3.5665, 56.1032, -86.7457, 143.046
0.668, 1, 7.17752, 60.9109, 3.53167, 56.1848, -86.6773, 142.856
0.672, 1, 7.23362, 60.8862, 3.49687, 56.2662, -86.6089, 142.666
0.676, 1, 7.28968, 60.8615, 3.4621, 56.3476, -86.5406, 142.477
0.68, 1, 7.34569, 60.8368, 3.42736, 56.4289, -86.4723, 142.287
0.684, 1, 7.40166, 60.8121, 3.39264, 56.5102, -86.4041, 142.098
0.688, 1, 7.45758, 60.7875, 3.35795, 56.5914, -86.336, 141.909
0.692, 1, 7.51346, 60.7629, 3.3233, 56.6725, -86.2679, 141.72
0.696, 1, 7.56928, 60.7383, 3.28867, 56.7535, -86.1999, 141.531
0.7, 1, 7.62506, 60.7137, 3.25407, 56.8345, -86.1319, 141.342
0.704, 1, 7.6808, 60.6891, 3.2195, 56.9154, -86.064, 141.154
0.708, 1, 7.73649, 60.6646, 3.18495, 56.9963, -85.9961, 140.965
0.712, 1, 7.79213, 60.6401, 3.15044, 57.0771, -85.9283, 140.777
0.716, 1, 7.84773, 60.6156, 3.11596, 57.1578, -85.8605, 140.589
0.72, 1, 7.90327, 60.5911, 3.0815, 57.2384, -85.7929, 140.401
0.724, 1, 7.95878, 60.5667, 3.04707, 57.319, -85.7252, 140.213
0.728, 1, 8.01423, 60.5422, 3.01268, 57.3995, -85.6577, 140.026
0.732, 1, 8.06964, 60.5178, 2.97831, 57.4799, -85.5901, 139.838
0.736, 1, 8.125, 60.4934, 2.94397, 57.5603, -85.5227, 139.651
0.74, 1, 8.18032, 60.469, 2.90966, 57.6406, -85.4553, 139.464
0.744, 1, 8.23558, 60.4447, 2.87538, 57.7209, -85.3879, 139.277
0.748, 1, 8.2908, 60.4204, 2.84113, 57.801, -85.3206, 139.09
0.752, 1, 8.34598, 60.396, 2.8069, 57.8811, -85.2534, 138.904
0.756, 1, 8.4011, 60.3718, 2.77271, 57.9612, -85.1862, 138.717
0.76, 1, 8.45618, 60.3475, 2.73855, 58.0411, -85.1191, 138.531
0.764, 1, 8.51121, 60.3232, 2.70441, 58.121, -85.052, 138.345
0.768, 1, 8.5662, 60.299, 2.67031, 58.2008, -84.985, 138.159
0.772, 1, 8.62114, 60.2748, 2.63623, 58.2806, -84.9181, 137.973
0.776, 1, 8.67603, 60.2506, 2.60219, 58.3603, -84.8512, 137.787
0.78, 1, 8.73087, 60.2265, 2.56817, 58.4399, -84.7844, 137.602
0.784, 1, 8.78566, 60.2023, 2.53418, 58.5194, -84.7176, 137.416
0.788, 1, 8.84041, 60.1782, 2.50022, 58.5989, -84.6509, 137.231
0.792, 1, 8.89511, 60.1541, 2.4663, 58.6783, -84.5842, 137.046
0.796, 1, 8.94976, 60.13, 2.4324, 58.7577, -84.5176, 136.861
0.8, 1, 9.00437, 60.1059, 2.39853, 58.8369, -84.4511, 136.677
0.804, 1, 9.05893, 60.0819, 2.36469, 58.9161, -84.3846, 136.492
0.808, 1, 9.11344, 60.0579, 2.33088, 58.9953, -84.3182, 136.308
0.812, 1, 9.1679, 60.0339, 2.2971, 59.0743, -84.2518, 136.124
0.816, 1, 9.22231, 60.0099, 2.26335, 59.1533, -84.1855, 135.939
0.82, 1, 9.27668, 59.986, 2.22963, 59.2323, -84.1193, 135.756
0.824, 1, 9.331, 59.962, 2.19594, 59.3111, -84.0531, 135.572
0.828, 1, 9.38527, 59.9381, 2.16227, 59.3899, -83.987, 135.388
0.832, 1, 9.43949, 59.9142, 2.12864, 59.4686, -83.9209, 135.205
0.836, 1, 9.49367, 59.8903, 2.09504, 59.5473, -83.8549, 135.022
0.84, 1, 9.5478, 59.8665, 2.06147, 59.6259, -83.7889, 134.839
0.844, 1, 9.60188, 59.8427, 2.02792, 59.7044, -83.723, 134.656
0.848, 1, 9.65591, 59.8189, 1.99441, 59.7828, -83.6572, 134.473
0.852, 1, 9.70989, 59.7951, 1.96093, 59.8612, -83.5914, 134.29
0.856, 1, 9.76382, 59.7713, 1.92747, 59.9395, -83.5257, 134.108
0.86, 1, 9.81771, 59.7476, 1.89405, 60.0177, -83.46, 133.926
0.864, 1, 9.87155, 59.7238, 1.86066, 60.0959, -83.3944, 133.744
0.868, 1, 9.92534, 59.7001, 1.82729, 60.174, -83.3289, 133.562
0.872, 1, 9.97909, 59.6765, 1.79396, 60.252, -83.2634, 133.38
0.876, 1, 10.0328, 59.6528, 1.76065, 60.3299, -83.1979, 133.198
0.88, 1, 10.0864, 59.6292, 1.72738, 60.4078, -83.1326, 133.017
0.884, 1, 10.14, 59.6055, 1.69413, 60.4856, -83.0673, 132.835
0.888, 1, 10.1936, 59.582, 1.66092, 60.5634, -83.002, 132.654
0.892, 1, 10.2471, 59.5584, 1.62773, 60.641, -82.9368, 132.473
0.896, 1, 10.3005, 59.5348, 1.59458, 60.7186, -82.8717, 132.293
0.9, 1, 10.3539, 59.5113, 1.56145, 60.7962, -82.8066, 132.112
0.904, 1, 10.4073, 59.4878, 1.52836, 60.8736, -82.7416, 131.931
0.908, 1, 10.4606, 59.4643, 1.49529, 60.951, -82.6766, 131.751
0.912, 1, 10.5139, 59.4408, 1.46226, 61.0283, -82.6117, 131.571
0.916, 1, 10.5671, 59.4174, 1.42925, 61.1056, -82.5469, 131.391
0.92, 1, 10.6203, 59.394, 1.39628, 61.1828, -82.4821, 131.211
0.924, 1, 10.6734, 59.3705, 1.36333, 61.2599, -82.4174, 131.032
0.928, 1, 10.7264, 59.3472, 1.33042, 61.3369, -82.3527, 130.852
0.932, 1, 10.7795, 59.3238, 1.29753, 61.4139, -82.2881, 130.673
0.936, 1, 10.8324, 59.3005, 1.26467, 61.4908, -82.2235, 130.494
0.94, 1, 10.8854, 59.2771, 1.23185, 61.5676, -82.1591, 130.315
0.944, 1, 10.9382, 59.2538, 1.19905, 61.6444, -82.0946, 130.136
0.948, 1, 10.9911, 59.2306, 1.16629, 61.7211, -82.0303, 129.957
0.952, 1, 11.0438, 59.2073, 1.13355, 61.7977, -81.966, 129.778
0.956, 1, 11.0966, 59.1841, 1.10084, 61.8742, -81.9017, 129.6
0.96, 1, 11.1493, 59.1609, 1.06817, 61.9507, -81.8375, 129.422
0.964, 1, 11.2019, 59.1377, 1.03552, 62.0271, -81.7734, 129.244
0.968, 1, 11.2545, 59.1145, 1.00291, 62.1035, -81.7093, 129.066
0.972, 1, 11.307, 59.0914, 0.970322, 62.1797, -81.6453, 128.888
0.976, 1, 11.3595, 59.0682, 0.937766, 62.2559, -81.5813, 128.711
0.98, 1, 11.4119, 59.0451, 0.90524, 62.3321, -81.5174, 128.533
0.984, 1, 11.4643, 59.022, 0.872745, 62.4081, -81.4536, 128.356
0.988, 1, 11.5167, 58.999, 0.840279, 62.4841, -81.3898, 128.179
0.992, 1, 11.569, 58.9759, 0.807843, 62.56, -81.3261, 128.002
0.996, 1, 11.6212, 58.9529, 0.775437, 62.6359, -81.2624, 127.826
1, 1, 11.6734, 58.9299, 0.743061, 62.7117, -81.1988, 127.649
1.004, 1, 11.7256, 58.9069, 0.710716, 62.7874, -81.1352, 127.473
1.008, 1, 11.7777, 58.884, 0.6784, 62.863, -81.0718, 127.296
1.012, 1, 11.8297, 58.861, 0.646114, 62.9386, -81.0083, 127.12
1.016, 1, 11.8817, 58.8381, 0.613859, 63.0141, -80.945, 126.945
1.02, 1, 11.9337, 58.8152, 0.581633, 63.0895, -80.8817, 126.769
1.024, 1, 11.9856, 58.7924, 0.549437, 63.1648, -80.8184, 126.593
1.027, 1, 12.0375, 58.7695, 0.517271, 63.2401, -80.7552, 126.418
1.032, 1, 12.0893, 58.7467, 0.485136, 63.3153, -80.6921, 126.243
1.036, 1, 12.141, 58.7239, 0.45303, 63.3905, -80.629, 126.067
1.04, 1, 12.1928, 58.7011, 0.420954, 63.4656, -80.566, 125.893
1.044, 1, 12.2444, 58.6783, 0.388908, 63.5406, -80.503, 125.718
1.048, 1, 12.2961, 58.6556, 0.356892, 63.6155, -80.4401, 125.543
1.052, 1, 12.3476, 58.6328, 0.324906, 63.6904, -80.3773, 125.369
1.055, 1, 12.3991, 58.6101, 0.29295, 63.7652, -80.3145, 125.195
1.06, 1, 12.4506, 58.5875, 0.261024, 63.8399, -80.2518, 125.02
1.064, 1, 12.5021, 58.5648, 0.229128, 63.9145, -80.1891, 124.846
1.068, 1, 12.5534, 58.5422, 0.197262, 63.9891, -80.1265, 124.673
1.072, 1, 12.6048, 58.5196, 0.165426, 64.0636, -80.064, 124.499
1.076, 1, 12.656, 58.497, 0.13362, 64.1381, -80.0015, 124.326
1.08, 1, 12.7073, 58.4744, 0.101843, 64.2125, -79.9391, 124.152
1.084, 1, 12.7585, 58.4518, 0.0700965, 64.2868, -79.8767, 123.979
1.088, 1, 12.8096, 58.4293, 0.0383798, 64.361, -79.8144, 123.806
1.091, 1, 12.8607, 58.4068, 0.00669298, 64.4352, -79.7521, 123.633
1.096, 1, 12.9117, 58.3843, -0.024964, 64.5093, -79.6899, 123.461
1.1, 1, 12.9627, 58.3618, -0.0565913, 64.5833, -79.6278, 123.288
1.104, 1, 13.0137, 58.3394, -0.0881887, 64.6572, -79.5657, 123.116
1.108, 1, 13.0646, 58.317, -0.119756, 64.7311, -79.5037, 122.944
1.112, 1, 13.1154, 58.2945, -0.151294, 64.8049, -79.4417, 122.772
1.116, 1, 13.1662, 58.2722, -0.182803, 64.8787, -79.3798, 122.6
1.119, 1, 13.217, 58.2498, -0.214281, 64.9524, -79.318, 122.428
1.124, 1, 13.2677, 58.2275, -0.24573, 65.026, -79.2562, 122.257
1.128, 1, 13.3184, 58.2051, -0.277149, 65.0995, -79.1945, 122.086
1.132, 1, 13.369, 58.1828, -0.308539, 65.173, -79.1328, 121.914
1.136, 1, 13.4195, 58.1606, -0.339899, 65.2464, -79.0712, 121.743
1.14, 1, 13.4701, 58.1383, -0.371229, 65.3197, -79.0097, 121.573
1.144, 1, 13.5205, 58.1161, -0.40253, 65.393, -78.9482, 121.402
1.147, 1, 13.571, 58.0939, -0.433801, 65.4662, -78.8867, 121.231
1.152, 1, 13.6213, 58.0717, -0.465043, 65.5393, -78.8254, 121.061
1.156, 1, 13.6717, 58.0495, -0.496255, 65.6124, -78.764, 120.891
1.16, 1, 13.7219, 58.0273, -0.527438, 65.6853, -78.7028, 120.721
1.164, 1, 13.7722, 58.0052, -0.558592, 65.7582, -78.6416, 120.551
1.168, 1, 13.8224, 57.9831, -0.589716, 65.8311, -78.5804, 120.381
1.172, 1, 13.8725, 57.961, -0.62081, 65.9039, -78.5193, 120.212
1.175, 1, 13.9226, 57.9389, -0.651875, 65.9766, -78.4583, 120.042
1.18, 1, 13.9726, 57.9169, -0.682911, 66.0492, -78.3973, 119.873
1.184, 1, 14.0226, 57.8949, -0.713918, 66.1218, -78.3364, 119.704
1.188, 1, 14.0726, 57.8728, -0.744895, 66.1943, -78.2756, 119.535
1.192, 1, 14.1225, 57.8509, -0.775843, 66.2667, -78.2148, 119.366
1.196, 1, 14.1723, 57.8289, -0.806761, 66.3391, -78.154, 119.198
1.2, 1, 14.2221, 57.8069, -0.837651, 66.4114, -78.0933, 119.029
1.204, 1, 14.2719, 57.785, -0.868511, 66.4836, -78.0327, 118.861
1.208, 1, 14.3216, 57.7631, -0.899342, 66.5558, -77.9721, 118.693
1.212, 1, 14.3713, 57.7412, -0.930144, 66.6279, -77.9116, 118.525
1.216, 1, 14.4209, 57.7194, -0.960917, 66.6999, -77.8512, 118.357
1.22, 1, 14.4705, 57.6975, -0.99166, 66.7719, -77.7908, 118.189
1.224, 1, 14.52, 57.6757, -1.02237, 66.8438, -77.7304, 118.022
1.228, 1, 14.5695, 57.6539, -1.05306, 66.9156, -77.6701, 117.854
1.232, 1, 14.6189, 57.6321, -1.08372, 66.9873, -77.6099, 117.687
1.236, 1, 14.6683, 57.6104, -1.11434, 67.059, -77.5497, 117.52
1.24, 1, 14.7176, 57.5886, -1.14494, 67.1306, -77.4896, 117.353
1.244, 1, 14.7669, 57.5669, -1.17551, 67.2022, -77.4296, 117.187
1.248, 1, 14.8161, 57.5452, -1.20605, 67.2737, -77.3696, 117.02
1.252, 1, 14.8653, 57.5236, -1.23656, 67.3451, -77.3096, 116.854
1.256, 1, 14.9145, 57.5019, -1.26705, 67.4164, -77.2497, 116.688
1.26, 1, 14.9636, 57.4803, -1.2975, 67.4877, -77.1899, 116.521
1.264, 1, 15.0127, 57.4586, -1.32793, 67.5589, -77.1301, 116.356
1.267, 1, 15.0617, 57.4371, -1.35832, 67.6301, -77.0704, 116.19
1.272, 1, 15.1106, 57.4155, -1.38869, 67.7011, -77.0108, 116.024
1.276, 1, 15.1596, 57.3939, -1.41903, 67.7722, -76.9512, 115.859
1.28, 1, 15.2084, 57.3724, -1.44934, 67.8431, -76.8916, 115.693
1.284, 1, 15.2573, 57.3509, -1.47962, 67.914, -76.8321, 115.528
1.288, 1, 15.306, 57.3294, -1.50987, 67.9848, -76.7727, 115.363
1.292, 1, 15.3548, 57.3079, -1.5401, 68.0555, -76.7133, 115.198
1.295, 1, 15.4035, 57.2865, -1.57029, 68.1262, -76.654, 115.034
1.3, 1, 15.4521, 57.265, -1.60046, 68.1968, -76.5947, 114.869
1.304, 1, 15.5007, 57.2436, -1.6306, 68.2674, -76.5355, 114.705
1.308, 1, 15.5492, 57.2222, -1.66071, 68.3378, -76.4764, 114.541
1.312, 1, 15.5978, 57.2009, -1.69079, 68.4082, -76.4173, 114.377
1.316, 1, 15.6462, 57.1795, -1.72085, 68.4786, -76.3582, 114.213
1.32, 1, 15.6946, 57.1582, -1.75087, 68.5489, -76.2992, 114.049
1.324, 1, 15.743, 57.1369, -1.78087, 68.6191, -76.2403, 113.886
1.328, 1, 15.7913, 57.1156, -1.81084, 68.6892, -76.1814, 113.722
1.332, 1, 15.8396, 57.0943, -1.84078, 68.7593, -76.1226, 113.559
1.336, 1, 15.8878, 57.0731, -1.87069, 68.8293, -76.0638, 113.396
1.34, 1, 15.936, 57.0518, -1.90057, 68.8992, -76.0051, 113.233
1.344, 1, 15.9841, 57.0306, -1.93043, 68.9691, -75.9465, 113.07
1.348, 1, 16.0322, 57.0094, -1.96025, 69.0389, -75.8879, 112.907
1.352, 1, 16.0803, 56.9883, -1.99005, 69.1087, -75.8293, 112.745
1.356, 1, 16.1283, 56.9671, -2.01982, 69.1783, -75.7709, 112.582
1.36, 1, 16.1762, 56.946, -2.04956, 69.248, -75.7124, 112.42
1.364, 1, 16.2242, 56.9249, -2.07928, 69.3175, -75.654, 112.258
1.368, 1, 16.272, 56.9038, -2.10896, 69.387, -75.5957, 112.096
1.372, 1, 16.3198, 56.8827, -2.13862, 69.4564, -75.5375, 111.935
1.376, 1, 16.3676, 56.8617, -2.16825, 69.5257, -75.4793, 111.773
1.38, 1, 16.4154, 56.8406, -2.19785, 69.595, -75.4211, 111.612
1.384, 1, 16.463, 56.8196, -2.22742, 69.6643, -75.363, 111.45
1.388, 1, 16.5107, 56.7986, -2.25697, 69.7334, -75.3049, 111.289
1.392, 1, 16.5583, 56.7777, -2.28649, 69.8025, -75.247, 111.128
1.396, 1, 16.6058, 56.7567, -2.31598, 69.8715, -75.189, 110.967
1.4, 1, 16.6533, 56.7358, -2.34544, 69.9405, -75.1311, 110.807
1.404, 1, 16.7008, 56.7149, -2.37487, 70.0094, -75.0733, 110.646
1.408, 1, 16.7482, 56.694, -2.40428, 70.0782, -75.0155, 110.486
1.412, 1, 16.7956, 56.6731, -2.43366, 70.147, -74.9578, 110.326
1.416, 1, 16.8429, 56.6523, -2.46301, 70.2157, -74.9002, 110.166
1.42, 1, 16.8902, 56.6314, -2.49233, 70.2843, -74.8425, 110.006
1.424, 1, 16.9375, 56.6106, -2.52163, 70.3529, -74.785, 109.846
1.428, 1, 16.9846, 56.5898, -2.5509, 70.4214, -74.7275, 109.686
1.432, 1, 17.0318, 56.569, -2.58014, 70.4898, -74.67, 109.527
1.436, 1, 17.0789, 56.5483, -2.60936, 70.5582, -74.6126, 109.368
1.44, 1, 17.126, 56.5275, -2.63854, 70.6265, -74.5553, 109.208
1.444, 1, 17.173, 56.5068, -2.6677, 70.6948, -74.498, 109.049
1.448, 1, 17.22, 56.4861, -2.69683, 70.763, -74.4408, 108.891
1.452, 1, 17.2669, 56.4655, -2.72594, 70.8311, -74.3836, 108.732
1.456, 1, 17.3138, 56.4448, -2.75502, 70.8991, -74.3265, 108.573
1.46, 1, 17.3606, 56.4242, -2.78407, 70.9671, -74.2694, 108.415
1.464, 1, 17.4074, 56.4035, -2.81309, 71.0351, -74.2124, 108.257
1.468, 1, 17.4542, 56.3829, -2.84209, 71.1029, -74.1554, 108.098
1.472, 1, 17.5009, 56.3624, -2.87106, 71.1707, -74.0985, 107.94
1.476, 1, 17.5476, 56.3418, -2.9, 71.2385, -74.0416, 107.783
1.48, 1, 17.5942, 56.3213, -2.92891, 71.3062, -73.9848, 107.625
1.484, 1, 17.6408, 56.3007, -2.9578, 71.3738, -73.9281, 107.467
1.488, 1, 17.6873, 56.2802, -2.98666, 71.4413, -73.8714, 107.31
1.492, 1, 17.7338, 56.2597, -3.0155, 71.5088, -73.8147, 107.153
1.496, 1, 17.7803, 56.2393, -3.04431, 71.5762, -73.7581, 106.996
1.5, 1, 17.8267, 56.2188, -3.07309, 71.6436, -73.7016, 106.839
1.504, 1, 17.8731, 56.1984, -3.10184, 71.7109, -73.6451, 106.682
1.508, 1, 17.9194, 56.178, -3.13057, 71.7782, -73.5887, 106.525
1.512, 1, 17.9657, 56.1576, -3.15927, 71.8453, -73.5323, 106.369
1.516, 1, 18.0119, 56.1372, -3.18795, 71.9125, -73.4759, 106.212
1.52, 1, 18.0581, 56.1169, -3.2166, 71.9795, -73.4196, 106.056
1.524, 1, 18.1043, 56.0965, -3.24522, 72.0465, -73.3634, 105.9
1.528, 1, 18.1504, 56.0762, -3.27381, 72.1134, -73.3072, 105.744
1.532, 1, 18.1964, 56.0559, -3.30238, 72.1803, -73.2511, 105.588
1.536, 1, 18.2425, 56.0356, -3.33093, 72.2471, -73.195, 105.433
1.54, 1, 18.2884, 56.0154, -3.35944, 72.3139, -73.139, 105.277
1.544, 1, 18.3344, 55.9951, -3.38793, 72.3805, -73.083, 105.122
1.548, 1, 18.3803, 55.9749, -3.4164, 72.4472, -73.0271, 104.967
1.552, 1, 18.4261, 55.9547, -3.44484, 72.5137, -72.9712, 104.811
1.556, 1, 18.472, 55.9345, -3.47325, 72.5802, -72.9154, 104.657
1.56, 1, 18.5177, 55.9144, -3.50163, 72.6467, -72.8597, 104.502
1.564, 1, 18.5635, 55.8942, -3.52999, 72.713, -72.8039, 104.347
1.568, 1, 18.6091, 55.8741, -3.55833, 72.7794, -72.7483, 104.193
1.572, 1, 18.6548, 55.854, -3.58663, 72.8456, -72.6927, 104.038
1.576, 1, 18.7004, 55.8339, -3.61492, 72.9118, -72.6371, 103.884
1.58, 1, 18.746, 55.8138, -3.64317, 72.9779, -72.5816, 103.73
1.584, 1, 18.7915, 55.7938, -3.6714, 73.044, -72.5261, 103.576
1.588, 1, 18.837, 55.7737, -3.69961, 73.11, -72.4707, 103.422
1.592, 1, 18.8824, 55.7537, -3.72778, 73.176, -72.4154, 103.268
1.596, 1, 18.9278, 55.7337, -3.75594, 73.2419, -72.36, 103.115
1.6, 1, 18.9732, 55.7137, -3.78406, 73.3077, -72.3048, 102.962
1.604, 1, 19.0185, 55.6937, -3.81217, 73.3735, -72.2496, 102.808
1.608, 1, 19.0637, 55.6738, -3.84024, 73.4392, -72.1944, 102.655
1.612, 1, 19.109, 55.6539, -3.86829, 73.5049, -72.1393, 102.502
1.616, 1, 19.1542, 55.634, -3.89632, 73.5704, -72.0843, 102.349
1.62, 1, 19.1993, 55.6141, -3.92431, 73.636, -72.0292, 102.197
1.624, 1, 19.2444, 55.5942, -3.95229, 73.7015, -71.9743, 102.044
1.628, 1, 19.2895, 55.5743, -3.98024, 73.7669, -71.9194, 101.892
1.632, 1, 19.3345, 55.5545, -4.00816, 73.8322, -71.8645, 101.74
1.636, 1, 19.3795, 55.5347, -4.03606, 73.8975, -71.8097, 101.587
1.64, 1, 19.4244, 55.5149, -4.06393, 73.9628, -71.755, 101.435
1.644, 1, 19.4693, 55.4951, -4.09178, 74.028, -71.7002, 101.284
1.648, 1, 19.5142, 55.4753, -4.1196, 74.0931, -71.6456, 101.132
1.652, 1, 19.559, 55.4556, -4.1474, 74.1581, -71.591, 100.98
1.656, 1, 19.6038, 55.4359, -4.17517, 74.2231, -71.5364, 100.829
1.66, 1, 19.6486, 55.4161, -4.20292, 74.2881, -71.4819, 100.677
1.664, 1, 19.6933, 55.3964, -4.23064, 74.353, -71.4274, 100.526
1.668, 1, 19.7379, 55.3768, -4.25833, 74.4178, -71.373, 100.375
1.672, 1, 19.7825, 55.3571, -4.28601, 74.4826, -71.3187, 100.224
1.676, 1, 19.8271, 55.3375, -4.31365, 74.5473, -71.2643, 100.074
1.68, 1, 19.8717, 55.3179, -4.34128, 74.6119, -71.2101, 99.9229
1.684, 1, 19.9162, 55.2982, -4.36887, 74.6765, -71.1559, 99.7724
1.688, 1, 19.9606, 55.2787, -4.39645, 74.7411, -71.1017, 99.6221
1.692, 1, 20.0051, 55.2591, -4.424, 74.8055, -71.0476, 99.4718
1.696, 1, 20.0494, 55.2395, -4.45152, 74.8699, -70.9935, 99.3218
1.7, 1, 20.0938, 55.22, -4.47902, 74.9343, -70.9395, 99.1718
1.704, 1, 20.1381, 55.2005, -4.50649, 74.9986, -70.8855, 99.022
1.708, 1, 20.1823, 55.181, -4.53394, 75.0629, -70.8316, 98.8723
1.712, 1, 20.2266, 55.1615, -4.56137, 75.1271, -70.7777, 98.7227
1.716, 1, 20.2707, 55.142, -4.58877, 75.1912, -70.7239, 98.5733
1.72, 1, 20.3149, 55.1226, -4.61614, 75.2553, -70.6701, 98.424
1.724, 1, 20.359, 55.1031, -4.64349, 75.3193, -70.6163, 98.2749
1.728, 1, 20.4031, 55.0837, -4.67082, 75.3832, -70.5627, 98.1259
1.732, 1, 20.4471, 55.0643, -4.69812, 75.4471, -70.509, 97.977
1.736, 1, 20.4911, 55.045, -4.7254, 75.511, -70.4554, 97.8282
1.74, 1, 20.535, 55.0256, -4.75265, 75.5748, -70.4019, 97.6796
1.744, 1, 20.5789, 55.0062, -4.77988, 75.6385, -70.3484, 97.5311
1.748, 1, 20.6228, 54.9869, -4.80709, 75.7022, -70.2949, 97.3827
1.752, 1, 20.6666, 54.9676, -4.83427, 75.7658, -70.2415, 97.2345
1.756, 1, 20.7104, 54.9483, -4.86143, 75.8294, -70.1882, 97.0864
1.76, 1, 20.7542, 54.929, -4.88856, 75.8929, -70.1349, 96.9384
1.764, 1, 20.7979, 54.9098, -4.91567, 75.9563, -70.0816, 96.7906
1.768, 1, 20.8416, 54.8905, -4.94276, 76.0197, -70.0284, 96.6429
1.772, 1, 20.8852, 54.8713, -4.96982, 76.0831, -69.9752, 96.4953
1.776, 1, 20.9288, 54.8521, -4.99686, 76.1464, -69.9221, 96.3479
1.78, 1, 20.9724, 54.8329, -5.02387, 76.2096, -69.869, 96.2006
1.784, 1, 21.0159, 54.8137, -5.05086, 76.2728, -69.816, 96.0534
1.788, 1, 21.0594, 54.7946, -5.07783, 76.3359, -69.763, 95.9063
1.792, 1, 21.1028, 54.7754, -5.10477, 76.3989, -69.7101, 95.7594
1.796, 1, 21.1463, 54.7563, -5.13169, 76.462, -69.6572, 95.6126
1.8, 1, 21.1896, 54.7372, -5.15859, 76.5249, -69.6044, 95.4659
1.804, 1, 21.233, 54.7181, -5.18546, 76.5878, -69.5516, 95.3194
1.808, 1, 21.2763, 54.699, -5.21231, 76.6507, -69.4988, 95.1729
1.812, 1, 21.3195, 54.68, -5.23914, 76.7134, -69.4461, 95.0266
1.816, 1, 21.3627, 54.6609, -5.26594, 76.7762, -69.3935, 94.8805
1.82, 1, 21.4059, 54.6419, -5.29272, 76.8389, -69.3409, 94.7344
1.824, 1, 21.4491, 54.6229, -5.31948, 76.9015, -69.2883, 94.5885
1.828, 1, 21.4922, 54.6039, -5.34621, 76.9641, -69.2358, 94.4427
1.832, 1, 21.5353, 54.5849, -5.37292, 77.0266, -69.1833, 94.2971
1.836, 1, 21.5783, 54.566, -5.39961, 77.089, -69.1309, 94.1516
1.84, 1, 21.6213, 54.547, -5.42627, 77.1515, -69.0785, 94.0061
1.844, 1, 21.6642, 54.5281, -5.45292, 77.2138, -69.0261, 93.8609
1.848, 1, 21.7072, 54.5092, -5.47953, 77.2761, -68.9738, 93.7157
1.852, 1, 21.7501, 54.4903, -5.50613, 77.3384, -68.9216, 93.5707
1.856, 1, 21.7929, 54.4714, -5.5327, 77.4006, -68.8694, 93.4258
1.86, 1, 21.8357, 54.4525, -5.55925, 77.4627, -68.8172, 93.281
1.864, 1, 21.8785, 54.4337, -5.58578, 77.5248, -68.7651, 93.1363
1.868, 1, 21.9212, 54.4149, -5.61228, 77.5868, -68.713, 92.9918
1.872, 1, 21.9639, 54.3961, -5.63877, 77.6488, -68.661, 92.8474
1.876, 1, 22.0066, 54.3773, -5.66523, 77.7107, -68.609, 92.7031
1.88, 1, 22.0492, 54.3585, -5.69166, 77.7726, -68.5571, 92.5589
1.884, 1, 22.0918, 54.3397, -5.71808, 77.8344, -68.5052, 92.4149
1.888, 1, 22.1344, 54.321, -5.74447, 77.8962, -68.4533, 92.2709
1.892, 1, 22.1769, 54.3022, -5.77084, 77.9579, -68.4015, 92.1271
1.896, 1, 22.2194, 54.2835, -5.79718, 78.0196, -68.3498, 91.9835
1.9, 1, 22.2619, 54.2648, -5.82351, 78.0812, -68.2981, 91.8399
1.904, 1, 22.3043, 54.2461, -5.84981, 78.1428, -68.2464, 91.6965
1.908, 1, 22.3466, 54.2274, -5.87609, 78.2043, -68.1948, 91.5532
1.912, 1, 22.389, 54.2088, -5.90235, 78.2657, -68.1432, 91.41
1.916, 1, 22.4313, 54.1902, -5.92858, 78.3272, -68.0916, 91.2669
1.92, 1, 22.4736, 54.1715, -5.9548, 78.3885, -68.0401, 91.124
1.924, 1, 22.5158, 54.1529, -5.98099, 78.4498, -67.9887, 90.9811
1.928, 1, 22.558, 54.1343, -6.00716, 78.5111, -67.9373, 90.8384
1.932, 1, 22.6002, 54.1158, -6.03331, 78.5723, -67.8859, 90.6958
1.936, 1, 22.6423, 54.0972, -6.05943, 78.6334, -67.8346, 90.5534
1.94, 1, 22.6844, 54.0786, -6.08553, 78.6945, -67.7833, 90.411
1.944, 1, 22.7264, 54.0601, -6.11162, 78.7556, -67.732, 90.2688
1.948, 1, 22.7685, 54.0416, -6.13768, 78.8166, -67.6808, 90.1267
1.952, 1, 22.8105, 54.0231, -6.16371, 78.8775, -67.6297, 89.9847
1.956, 1, 22.8524, 54.0046, -6.18973, 78.9384, -67.5786, 89.8428
1.96, 1, 22.8943, 53.9862, -6.21572, 78.9992, -67.5275, 89.701
1.964, 1, 22.9362, 53.9677, -6.2417, 79.06, -67.4765, 89.5594
1.968, 1, 22.9781, 53.9493, -6.26765, 79.1208, -67.4255, 89.4179
1.972, 1, 23.0199, 53.9308, -6.29358, 79.1815, -67.3745, 89.2765
1.976, 1, 23.0616, 53.9124, -6.31949, 79.2421, -67.3237, 89.1352
1.98, 1, 23.1034, 53.894, -6.34537, 79.3027, -67.2728, 88.994
1.984, 1, 23.1451, 53.8757, -6.37124, 79.3632, -67.222, 88.853
1.988, 1, 23.1868, 53.8573, -6.39708, 79.4237, -67.1712, 88.712
1.992, 1, 23.2284, 53.839, -6.42291, 79.4842, -67.1205, 88.5712
1.996, 1, 23.27, 53.8206, -6.44871, 79.5446, -67.0698, 88.4305
1.999, 1, 23.3116, 53.8023, -6.47449, 79.6049, -67.0191, 88.2899
2.004, 1, 23.3531, 53.784, -6.50025, 79.6652, -66.9685, 88.1495
2.008, 1, 23.3946, 53.7657, -6.52598, 79.7254, -66.918, 88.0091
2.012, 1, 23.4361, 53.7475, -6.5517, 79.7856, -66.8674, 87.8689
2.015, 1, 23.4775, 53.7292, -6.57739, 79.8458, -66.817, 87.7287
2.019, 1, 23.5189, 53.711, -6.60307, 79.9059, -66.7665, 87.5887
2.024, 1, 23.5603, 53.6927, -6.62872, 79.9659, -66.7161, 87.4488
2.028, 1, 23.6016, 53.6745, -6.65435, 80.0259, -66.6658, 87.309
2.031, 1, 23.6429, 53.6563, -6.67997, 80.0858, -66.6154, 87.1694
2.036, 1, 23.6842, 53.6381, -6.70556, 80.1457, -66.5652, 87.0298
2.04, 1, 23.7254, 53.62, -6.73112, 80.2056, -66.5149, 86.8904
2.044, 1, 23.7666, 53.6018, -6.75667, 80.2654, -66.4647, 86.7511
2.048, 1, 23.8078, 53.5837, -6.7822, 80.3251, -66.4146, 86.6119
2.051, 1, 23.8489, 53.5656, -6.80771, 80.3848, -66.3645, 86.4728
2.055, 1, 23.89, 53.5475, -6.83319, 80.4445, -66.3144, 86.3338
2.06, 1, 23.9311, 53.5294, -6.85866, 80.5041, -66.2644, 86.1949
2.064, 1, 23.9721, 53.5113, -6.8841, 80.5637, -66.2144, 86.0561
2.068, 1, 24.0131, 53.4932, -6.90953, 80.6232, -66.1644, 85.9175
2.071, 1, 24.0541, 53.4752, -6.93493, 80.6826, -66.1145, 85.779
2.076, 1, 24.095, 53.4572, -6.96032, 80.742, -66.0647, 85.6405
2.08, 1, 24.1359, 53.4391, -6.98568, 80.8014, -66.0148, 85.5022
2.084, 1, 24.1768, 53.4211, -7.01102, 80.8607, -65.965, 85.364
2.087, 1, 24.2176, 53.4031, -7.03634, 80.92, -65.9153, 85.2259
2.092, 1, 24.2584, 53.3852, -7.06165, 80.9792, -65.8656, 85.088
2.096, 1, 24.2992, 53.3672, -7.08693, 81.0384, -65.8159, 84.9501
2.1, 1, 24.3399, 53.3493, -7.11219, 81.0975, -65.7663, 84.8123
2.104, 1, 24.3806, 53.3313, -7.13743, 81.1566, -65.7167, 84.6747
2.107, 1, 24.4213, 53.3134, -7.16265, 81.2156, -65.6671, 84.5371
2.111, 1, 24.4619, 53.2955, -7.18785, 81.2746, -65.6176, 84.3997
2.116, 1, 24.5026, 53.2776, -7.21303, 81.3335, -65.5682, 84.2624
2.12, 1, 24.5431, 53.2597, -7.23819, 81.3924, -65.5187, 84.1252
2.124, 1, 24.5837, 53.2419, -7.26333, 81.4513, -65.4693, 83.9881
2.127, 1, 24.6242, 53.224, -7.28845, 81.5101, -65.42, 83.8511
2.132, 1, 24.6647, 53.2062, -7.31356, 81.5688, -65.3707, 83.7142
2.136, 1, 24.7051, 53.1884, -7.33864, 81.6275, -65.3214, 83.5774
2.14, 1, 24.7455, 53.1706, -7.3637, 81.6862, -65.2722, 83.4408
2.143, 1, 24.7859, 53.1528, -7.38874, 81.7448, -65.223, 83.3042
2.148, 1, 24.8262, 53.135, -7.41376, 81.8034, -65.1738, 83.1678
2.152, 1, 24.8666, 53.1172, -7.43876, 81.8619, -65.1247, 83.0314
2.156, 1, 24.9069, 53.0995, -7.46375, 81.9204, -65.0756, 82.8952
2.16, 1, 24.9471, 53.0818, -7.48871, 81.9788, -65.0266, 82.759
2.163, 1, 24.9873, 53.064, -7.51365, 82.0372, -64.9776, 82.623
2.168, 1, 25.0275, 53.0463, -7.53858, 82.0955, -64.9286, 82.4871
2.172, 1, 25.0677, 53.0286, -7.56348, 82.1538, -64.8797, 82.3513
2.176, 1, 25.1078, 53.0109, -7.58837, 82.2121, -64.8308, 82.2156
2.179, 1, 25.1479, 52.9933, -7.61323, 82.2703, -64.7819, 82.08
2.184, 1, 25.188, 52.9756, -7.63808, 82.3284, -64.7331, 81.9445
2.188, 1, 25.228, 52.958, -7.66291, 82.3865, -64.6843, 81.8091
2.192, 1, 25.268, 52.9404, -7.68772, 82.4446, -64.6356, 81.6738
2.196, 1, 25.308, 52.9228, -7.71251, 82.5026, -64.5869, 81.5386
2.199, 1, 25.3479, 52.9052, -7.73728, 82.5606, -64.5382, 81.4035
2.204, 1, 25.3879, 52.8876, -7.76203, 82.6185, -64.4896, 81.2685
2.208, 1, 25.4277, 52.87, -7.78676, 82.6764, -64.441, 81.1337
2.212, 1, 25.4676, 52.8524, -7.81147, 82.7343, -64.3924, 80.9989
2.216, 1, 25.5074, 52.8349, -7.83617, 82.7921, -64.3439, 80.8642
2.219, 1, 25.5472, 52.8174, -7.86084, 82.8498, -64.2955, 80.7297
2.224, 1, 25.587, 52.7999, -7.8855, 82.9075, -64.247, 80.5952
2.228, 1, 25.6267, 52.7823, -7.91014, 82.9652, -64.1986, 80.4609
2.232, 1, 25.6664, 52.7649, -7.93475, 83.0228, -64.1502, 80.3266
2.235, 1, 25.7061, 52.7474, -7.95935, 83.0804, -64.1019, 80.1925
2.24, 1, 25.7457, 52.7299, -7.98393, 83.1379, -64.0536, 80.0584
2.244, 1, 25.7853, 52.7125, -8.0085, 83.1954, -64.0054, 79.9245
2.248, 1, 25.8249, 52.695, -8.03304, 83.2529, -63.9571, 79.7906
2.252, 1, 25.8644, 52.6776, -8.05757, 83.3103, -63.909, 79.6569
2.255, 1, 25.904, 52.6602, -8.08207, 83.3676, -63.8608, 79.5232
2.259, 1, 25.9434, 52.6428, -8.10656, 83.4249, -63.8127, 79.3897
2.264, 1, 25.9829, 52.6254, -8.13103, 83.4822, -63.7646, 79.2562
2.268, 1, 26.0223, 52.608, -8.15548, 83.5395, -63.7166, 79.1229
2.272, 1, 26.0617, 52.5907, -8.17992, 83.5966, -63.6686, 78.9897
2.275, 1, 26.1011, 52.5733, -8.20433, 83.6538, -63.6206, 78.8565
2.28, 1, 26.1404, 52.556, -8.22873, 83.7109, -63.5727, 78.7235
2.284, 1, 26.1798, 52.5387, -8.25311, 83.7679, -63.5248, 78.5905
2.288, 1, 26.219, 52.5214, -8.27747, 83.825, -63.4769, 78.4577
2.291, 1, 26.2583, 52.5041, -8.30181, 83.8819, -63.4291, 78.325
2.296, 1, 26.2975, 52.4868, -8.32613, 83.9389, -63.3813, 78.1923
2.3, 1, 26.3367, 52.4695, -8.35044, 83.9958, -63.3336, 78.0598
2.304, 1, 26.3759, 52.4523, -8.37472, 84.0526, -63.2859, 77.9273
2.308, 1, 26.415, 52.435, -8.39899, 84.1094, -63.2382, 77.795
2.311, 1, 26.4541, 52.4178, -8.42324, 84.1662, -63.1905, 77.6627
2.316, 1, 26.4932, 52.4006, -8.44748, 84.2229, -63.1429, 77.5306
2.32, 1, 26.5322, 52.3834, -8.47169, 84.2796, -63.0954, 77.3985
2.324, 1, 26.5713, 52.3662, -8.49589, 84.3362, -63.0478, 77.2666
2.328, 1, 26.6103, 52.349, -8.52007, 84.3928, -63.0003, 77.1347
2.331, 1, 26.6492, 52.3318, -8.54423, 84.4494, -62.9528, 77.0029
2.336, 1, 26.6882, 52.3147, -8.56838, 84.5059, -62.9054, 76.8713
2.34, 1, 26.7271, 52.2976, -8.5925, 84.5623, -62.858, 76.7397
2.344, 1, 26.7659, 52.2804, -8.61661, 84.6188, -62.8106, 76.6082
2.347, 1, 26.8048, 52.2633, -8.6407, 84.6752, -62.7633, 76.4768
2.352, 1, 26.8436, 52.2462, -8.66477, 84.7315, -62.716, 76.3456
2.356, 1, 26.8824, 52.2291, -8.68883, 84.7878, -62.6688, 76.2144
2.36, 1, 26.9212, 52.212, -8.71287, 84.8441, -62.6215, 76.0833
2.364, 1, 26.9599, 52.195, -8.73689, 84.9003, -62.5743, 75.9523
2.367, 1, 26.9986, 52.1779, -8.76089, 84.9565, -62.5272, 75.8214
2.372, 1, 27.0373, 52.1609, -8.78488, 85.0126, -62.4801, 75.6906
2.376, 1, 27.0759, 52.1438, -8.80885, 85.0687, -62.433, 75.5599
2.38, 1, 27.1146, 52.1268, -8.8328, 85.1248, -62.3859, 75.4293
2.383, 1, 27.1532, 52.1098, -8.85673, 85.1808, -62.3389, 75.2988
2.388, 1, 27.1917, 52.0928, -8.88065, 85.2368, -62.2919, 75.1683
2.392, 1, 27.2303, 52.0759, -8.90455, 85.2927, -62.245, 75.038
2.396, 1, 27.2688, 52.0589, -8.92843, 85.3486, -62.198, 74.9078
2.4, 1, 27.3072, 52.0419, -8.95229, 85.4045, -62.1511, 74.7776
2.403, 1, 27.3457, 52.025, -8.97614, 85.4603, -62.1043, 74.6476
2.408, 1, 27.3841, 52.0081, -8.99997, 85.5161, -62.0575, 74.5176
2.412, 1, 27.4225, 51.9911, -9.02378, 85.5718, -62.0107, 74.3878
2.416, 1, 27.4609, 51.9742, -9.04758, 85.6275, -61.9639, 74.258
2.42, 1, 27.4993, 51.9573, -9.07136, 85.6832, -61.9172, 74.1283
2.423, 1, 27.5376, 51.9405, -9.09512, 85.7388, -61.8705, 73.9987
2.428, 1, 27.5759, 51.9236, -9.11887, 85.7944, -61.8239, 73.8692
2.432, 1, 27.6141, 51.9067, -9.1426, 85.8499, -61.7773, 73.7398
2.436, 1, 27.6524, 51.8899, -9.16631, 85.9054, -61.7307, 73.6105
2.439, 1, 27.6906, 51.8731, -9.19, 85.9609, -61.6841, 73.4813
2.444, 1, 27.7288, 51.8562, -9.21368, 86.0163, -61.6376, 73.3522
2.448, 1, 27.7669, 51.8394, -9.23734, 86.0717, -61.5911, 73.2232
2.452, 1, 27.805, 51.8226, -9.26099, 86.127, -61.5447, 73.0942
2.456, 1, 27.8431, 51.8058, -9.28461, 86.1823, -61.4983, 72.9654
2.459, 1, 27.8812, 51.7891, -9.30822, 86.2376, -61.4519, 72.8366
2.464, 1, 27.9193, 51.7723, -9.33182, 86.2928, -61.4055, 72.7079
2.468, 1, 27.9573, 51.7555, -9.3554, 86.348, -61.3592, 72.5794
2.472, 1, 27.9953, 51.7388, -9.37896, 86.4031, -61.3129, 72.4509
2.476, 1, 28.0332, 51.7221, -9.4025, 86.4582, -61.2667, 72.3225
2.479, 1, 28.0712, 51.7054, -9.42603, 86.5133, -61.2204, 72.1942
2.484, 1, 28.1091, 51.6887, -9.44954, 86.5683, -61.1742, 72.066
2.488, 1, 28.147, 51.672, -9.47304, 86.6233, -61.1281, 71.9378
2.492, 1, 28.1849, 51.6553, -9.49652, 86.6783, -61.0819, 71.8098
2.495, 1, 28.2227, 51.6386, -9.51998, 86.7332, -61.0358, 71.6818
2.5, 1, 28.2605, 51.622, -9.54343, 86.7881, -60.9898, 71.554
2.504, 1, 28.2983, 51.6053, -9.56686, 86.8429, -60.9438, 71.4262
2.508, 1, 28.336, 51.5887, -9.59027, 86.8977, -60.8978, 71.2985
2.512, 1, 28.3738, 51.572, -9.61367, 86.9525, -60.8518, 71.1709
2.515, 1, 28.4115, 51.5554, -9.63705, 87.0072, -60.8058, 71.0434
2.52, 1, 28.4492, 51.5388, -9.66042, 87.0619, -60.7599, 70.916
2.524, 1, 28.4868, 51.5222, -9.68376, 87.1166, -60.7141, 70.7887
2.528, 1, 28.5244, 51.5057, -9.7071, 87.1712, -60.6682, 70.6614
2.531, 1, 28.562, 51.4891, -9.73042, 87.2258, -60.6224, 70.5343
2.536, 1, 28.5996, 51.4725, -9.75372, 87.2803, -60.5766, 70.4072
2.54, 1, 28.6372, 51.456, -9.777, 87.3348, -60.5309, 70.2802
2.544, 1, 28.6747, 51.4395, -9.80027, 87.3893, -60.4852, 70.1533
2.548, 1, 28.7122, 51.423, -9.82353, 87.4437, -60.4395, 70.0265
2.551, 1, 28.7497, 51.4064, -9.84677, 87.4981, -60.3938, 69.8997
2.556, 1, 28.7871, 51.3899, -9.86999, 87.5525, -60.3482, 69.7731
2.56, 1, 28.8245, 51.3735, -9.8932, 87.6068, -60.3026, 69.6466
2.564, 1, 28.8619, 51.357, -9.91639, 87.661, -60.257, 69.5201
2.568, 1, 28.8993, 51.3405, -9.93956, 87.7153, -60.2115, 69.3937
2.571, 1, 28.9367, 51.3241, -9.96272, 87.7695, -60.166, 69.2674
2.576, 1, 28.974, 51.3076, -9.98587, 87.8237, -60.1205, 69.1412
2.58, 1, 29.0113, 51.2912, -10.009, 87.8778, -60.0751, 69.0151
2.584, 1, 29.0485, 51.2748, -10.0321, 87.9319, -60.0297, 68.889
2.587, 1, 29.0858, 51.2584, -10.0552, 87.986, -59.9843, 68.7631
2.592, 1, 29.123, 51.242, -10.0783, 88.04, -59.939, 68.6372
2.596, 1, 29.1602, 51.2256, -10.1014, 88.094, -59.8936, 68.5114
2.6, 1, 29.1974, 51.2092, -10.1244, 88.1479, -59.8484, 68.3857
2.604, 1, 29.2345, 51.1928, -10.1474, 88.2019, -59.8031, 68.26
2.607, 1, 29.2717, 51.1765, -10.1705, 88.2558, -59.7579, 68.1345
2.612, 1, 29.3088, 51.1601, -10.1935, 88.3096, -59.7127, 68.009
2.616, 1, 29.3458, 51.1438, -10.2165, 88.3634, -59.6675, 67.8837
2.62, 1, 29.3829, 51.1275, -10.2394, 88.4172, -59.6224, 67.7584
2.624, 1, 29.4199, 51.1111, -10.2624, 88.4709, -59.5773, 67.6332
2.627, 1, 29.4569, 51.0948, -10.2853, 88.5246, -59.5322, 67.508
2.632, 1, 29.4939, 51.0786, -10.3083, 88.5783, -59.4871, 67.383
2.636, 1, 29.5308, 51.0623, -10.3312, 88.6319, -59.4421, 67.258
2.64, 1, 29.5678, 51.046, -10.3541, 88.6855, -59.3971, 67.1331
2.643, 1, 29.6047, 51.0297, -10.377, 88.7391, -59.3521, 67.0083
2.648, 1, 29.6415, 51.0135, -10.3998, 88.7926, -59.3072, 66.8836
2.652, 1, 29.6784, 50.9973, -10.4227, 88.8461, -59.2623, 66.759
2.656, 1, 29.7152, 50.981, -10.4455, 88.8996, -59.2174, 66.6344
2.66, 1, 29.752, 50.9648, -10.4684, 88.953, -59.1726, 66.5099
2.663, 1, 29.7888, 50.9486, -10.4912, 89.0064, -59.1278, 66.3855
2.668, 1, 29.8256, 50.9324, -10.514, 89.0598, -59.083, 66.2612
2.672, 1, 29.8623, 50.9162, -10.5368, 89.1131, -59.0382, 66.137
2.676, 1, 29.899, 50.9001, -10.5595, 89.1664, -58.9935, 66.0128
2.679, 1, 29.9357, 50.8839, -10.5823, 89.2196, -58.9488, 65.8888
2.684, 1, 29.9724, 50.8677, -10.605, 89.2729, -58.9041, 65.7648
2.688, 1, 30.009, 50.8516, -10.6277, 89.326, -58.8595, 65.6409
2.692, 1, 30.0457, 50.8355, -10.6504, 89.3792, -58.8149, 65.517
2.696, 1, 30.0822, 50.8193, -10.6731, 89.4323, -58.7703, 65.3933
2.699, 1, 30.1188, 50.8032, -10.6958, 89.4854, -58.7257, 65.2696
2.704, 1, 30.1554, 50.7871, -10.7185, 89.5384, -58.6812, 65.146
2.708, 1, 30.1919, 50.771, -10.7411, 89.5915, -58.6367, 65.0225
2.712, 1, 30.2284, 50.7549, -10.7638, 89.6444, -58.5923, 64.899
2.716, 1, 30.2649, 50.7389, -10.7864, 89.6974, -58.5478, 64.7757
2.719, 1, 30.3013, 50.7228, -10.809, 89.7503, -58.5034, 64.6524
2.724, 1, 30.3378, 50.7068, -10.8316, 89.8032, -58.459, 64.5292
2.728, 1, 30.3742, 50.6907, -10.8542, 89.856, -58.4146, 64.4061
2.732, 1, 30.4106, 50.6747, -10.8767, 89.9089, -58.3703, 64.283
2.735, 1, 30.4469, 50.6587, -10.8993, 89.9616, -58.326, 64.16
2.74, 1, 30.4833, 50.6427, -10.9218, 90.0144, -58.2817, 64.0371
2.744, 1, 30.5196, 50.6267, -10.9443, 90.0671, -58.2375, 63.9143
2.748, 1, 30.5559, 50.6107, -10.9668, 90.1198, -58.1933, 63.7916
2.752, 1, 30.5921, 50.5947, -10.9893, 90.1724, -58.1491, 63.6689
2.755, 1, 30.6284, 50.5787, -11.0118, 90.225, -58.1049, 63.5463
2.76, 1, 30.6646, 50.5628, -11.0343, 90.2776, -58.0608, 63.4238
2.764, 1, 30.7008, 50.5468, -11.0567, 90.3302, -58.0167, 63.3014
2.768, 1, 30.737, 50.5309, -11.0792, 90.3827, -57.9726, 63.1791
2.772, 1, 30.7732, 50.5149, -11.1016, 90.4352, -57.9285, 63.0568
2.775, 1, 30.8093, 50.499, -11.124, 90.4876, -57.8845, 62.9346
2.78, 1, 30.8454, 50.4831, -11.1464, 90.54, -57.8405, 62.8124
2.784, 1, 30.8815, 50.4672, -11.1688, 90.5924, -57.7966, 62.6904
2.788, 1, 30.9176, 50.4513, -11.1911, 90.6448, -57.7526, 62.5684
2.791, 1, 30.9536, 50.4354, -11.2135, 90.6971, -57.7087, 62.4465
2.796, 1, 30.9896, 50.4196, -11.2358, 90.7494, -57.6648, 62.3247
2.8, 1, 31.0256, 50.4037, -11.2582, 90.8016, -57.6209, 62.2029
2.804, 1, 31.0616, 50.3878, -11.2805, 90.8539, -57.5771, 62.0813
2.808, 1, 31.0976, 50.372, -11.3028, 90.9061, -57.5333, 61.9597
2.811, 1, 31.1335, 50.3562, -11.3251, 90.9582, -57.4895, 61.8381
2.816, 1, 31.1694, 50.3404, -11.3473, 91.0103, -57.4458, 61.7167
2.82, 1, 31.2053, 50.3245, -11.3696, 91.0624, -57.402, 61.5953
2.824, 1, 31.2412, 50.3087, -11.3918, 91.1145, -57.3583, 61.474
2.828, 1, 31.277, 50.2929, -11.4141, 91.1665, -57.3147, 61.3528
2.831, 1, 31.3129, 50.2772, -11.4363, 91.2185, -57.271, 61.2316
2.836, 1, 31.3487, 50.2614, -11.4585, 91.2705, -57.2274, 61.1105
2.84, 1, 31.3844, 50.2456, -11.4807, 91.3224, -57.1838, 60.9895
2.844, 1, 31.4202, 50.2299, -11.5028, 91.3743, -57.1402, 60.8686
2.847, 1, 31.4559, 50.2141, -11.525, 91.4262, -57.0967, 60.7477
2.852, 1, 31.4917, 50.1984, -11.5472, 91.4781, -57.0532, 60.6269
2.856, 1, 31.5274, 50.1827, -11.5693, 91.5299, -57.0097, 60.5062
2.86, 1, 31.563, 50.1669, -11.5914, 91.5816, -56.9662, 60.3856
2.864, 1, 31.5987, 50.1512, -11.6135, 91.6334, -56.9228, 60.265
2.867, 1, 31.6343, 50.1355, -11.6356, 91.6851, -56.8794, 60.1445
2.872, 1, 31.6699, 50.1198, -11.6577, 91.7368, -56.836, 60.0241
2.876, 1, 31.7055, 50.1042, -11.6798, 91.7885, -56.7926, 59.9037
2.88, 1, 31.7411, 50.0885, -11.7018, 91.8401, -56.7493, 59.7835
2.883, 1, 31.7766, 50.0728, -11.7239, 91.8917, -56.706, 59.6632
2.888, 1, 31.8121, 50.0572, -11.7459, 91.9432, -56.6627, 59.5431
2.892, 1, 31.8477, 50.0415, -11.7679, 91.9948, -56.6194, 59.423
2.896, 1, 31.8831, 50.0259, -11.7899, 92.0463, -56.5762, 59.303
2.9, 1, 31.9186, 50.0103, -11.8119, 92.0978, -56.533, 59.1831
2.903, 1, 31.954, 49.9947, -11.8339, 92.1492, -56.4898, 59.0633
2.908, 1, 31.9895, 49.979, -11.8559, 92.2006, -56.4467, 58.9435
2.912, 1, 32.0249, 49.9635, -11.8778, 92.252, -56.4036, 58.8238
2.916, 1, 32.0602, 49.9479, -11.8997, 92.3033, -56.3605, 58.7041
2.92, 1, 32.0956, 49.9323, -11.9217, 92.3547, -56.3174, 58.5846
2.923, 1, 32.1309, 49.9167, -11.9436, 92.406, -56.2743, 58.4651
2.928, 1, 32.1662, 49.9012, -11.9655, 92.4572, -56.2313, 58.3456
2.932, 1, 32.2015, 49.8856, -11.9874, 92.5084, -56.1883, 58.2263
2.936, 1, 32.2368, 49.8701, -12.0092, 92.5596, -56.1453, 58.107
2.939, 1, 32.2721, 49.8545, -12.0311, 92.6108, -56.1024, 57.9878
2.944, 1, 32.3073, 49.839, -12.053, 92.662, -56.0594, 57.8686
2.948, 1, 32.3425, 49.8235, -12.0748, 92.7131, -56.0165, 57.7495
2.952, 1, 32.3777, 49.808, -12.0966, 92.7642, -55.9737, 57.6305
2.956, 1, 32.4129, 49.7925, -12.1184, 92.8152, -55.9308, 57.5116
2.959, 1, 32.448, 49.777, -12.1402, 92.8662, -55.888, 57.3927
2.964, 1, 32.4832, 49.7615, -12.162, 92.9172, -55.8452, 57.2739
2.968, 1, 32.5183, 49.7461, -12.1838, 92.9682, -55.8024, 57.1551
2.972, 1, 32.5534, 49.7306, -12.2056, 93.0191, -55.7596, 57.0364
2.976, 1, 32.5884, 49.7151, -12.2273, 93.07, -55.7169, 56.9178
2.98, 1, 32.6235, 49.6997, -12.249, 93.1209, -55.6742, 56.7993
2.984, 1, 32.6585, 49.6843, -12.2708, 93.1718, -55.6315, 56.6808
2.988, 1, 32.6935, 49.6688, -12.2925, 93.2226, -55.5889, 56.5624
2.992, 1, 32.7285, 49.6534, -12.3142, 93.2734, -55.5462, 56.4441
2.995, 1, 32.7635, 49.638, -12.3359, 93.3241, -55.5036, 56.3258
3, 1, 32.7985, 49.6226, -12.3575, 93.3749, -55.4611, 56.2076
3.004, 1, 32.8334, 49.6072, -12.3792, 93.4256, -55.4185, 56.0895
3.008, 1, 32.8683, 49.5919, -12.4009, 93.4762, -55.376, 55.9714
3.012, 1, 32.9032, 49.5765, -12.4225, 93.5269, -55.3334, 55.8534
3.015, 1, 32.9381, 49.5611, -12.4441, 93.5775, -55.291, 55.7355
3.02, 1, 32.9729, 49.5458, -12.4657, 93.6281, -55.2485, 55.6176
3.024, 1, 33.0078, 49.5304, -12.4873, 93.6787, -55.2061, 55.4998
3.028, 1, 33.0426, 49.5151, -12.5089, 93.7292, -55.1636, 55.3821
3.031, 1, 33.0774, 49.4997, -12.5305, 93.7797, -55.1212, 55.2644
3.036, 1, 33.1121, 49.4844, -12.5521, 93.8302, -55.0789, 55.1468
3.04, 1, 33.1469, 49.4691, -12.5736, 93.8806, -55.0365, 55.0293
3.044, 1, 33.1816, 49.4538, -12.5952, 93.931, -54.9942, 54.9118
3.048, 1, 33.2164, 49.4385, -12.6167, 93.9814, -54.9519, 54.7944
3.051, 1, 33.2511, 49.4232, -12.6382, 94.0318, -54.9096, 54.677
3.056, 1, 33.2857, 49.4079, -12.6597, 94.0821, -54.8674, 54.5598
3.06, 1, 33.3204, 49.3927, -12.6812, 94.1325, -54.8252, 54.4425
3.064, 1, 33.355, 49.3774, -12.7027, 94.1827, -54.783, 54.3254
3.068, 1, 33.3897, 49.3621, -12.7242, 94.233, -54.7408, 54.2083
3.071, 1, 33.4243, 49.3469, -12.7456, 94.2832, -54.6986, 54.0913
3.076, 1, 33.4588, 49.3317, -12.7671, 94.3334, -54.6565, 53.9743
3.08, 1, 33.4934, 49.3164, -12.7885, 94.3836, -54.6144, 53.8574
3.084, 1, 33.528, 49.3012, -12.8099, 94.4337, -54.5723, 53.7406
3.087, 1, 33.5625, 49.286, -12.8313, 94.4838, -54.5302, 53.6238
3.092, 1, 33.597, 49.2708, -12.8527, 94.5339, -54.4882, 53.5071
3.096, 1, 33.6315, 49.2556, -12.8741, 94.584, -54.4461, 53.3905
3.1, 1, 33.6659, 49.2404, -12.8955, 94.634, -54.4042, 53.2739
3.104, 1, 33.7004, 49.2252, -12.9169, 94.684, -54.3622, 53.1574
3.107, 1, 33.7348, 49.2101, -12.9382, 94.734, -54.3202, 53.041
3.112, 1, 33.7692, 49.1949, -12.9596, 94.784, -54.2783, 52.9246
3.116, 1, 33.8036, 49.1798, -12.9809, 94.8339, -54.2364, 52.8083
3.12, 1, 33.838, 49.1646, -13.0022, 94.8838, -54.1945, 52.692
3.124, 1, 33.8724, 49.1495, -13.0235, 94.9337, -54.1526, 52.5758
3.128, 1, 33.9067, 49.1343, -13.0448, 94.9835, -54.1108, 52.4597
3.132, 1, 33.941, 49.1192, -13.0661, 95.0333, -54.069, 52.3436
3.136, 1, 33.9753, 49.1041, -13.0874, 95.0831, -54.0272, 52.2276
3.14, 1, 34.0096, 49.089, -13.1086, 95.1329, -53.9854, 52.1117
3.143, 1, 34.0439, 49.0739, -13.1299, 95.1826, -53.9437, 51.9958
3.148, 1, 34.0781, 49.0588, -13.1511, 95.2323, -53.902, 51.88
3.152, 1, 34.1124, 49.0437, -13.1723, 95.282, -53.8602, 51.7642
3.156, 1, 34.1466, 49.0287, -13.1936, 95.3317, -53.8186, 51.6485
3.16, 1, 34.1808, 49.0136, -13.2148, 95.3813, -53.7769, 51.5329
3.163, 1, 34.215, 48.9985, -13.236, 95.4309, -53.7353, 51.4173
3.168, 1, 34.2491, 48.9835, -13.2571, 95.4805, -53.6937, 51.3018
3.172, 1, 34.2832, 48.9684, -13.2783, 95.53, -53.6521, 51.1863
3.176, 1, 34.3174, 48.9534, -13.2995, 95.5796, -53.6105, 51.0709
3.179, 1, 34.3515, 48.9384, -13.3206, 95.6291, -53.5689, 50.9556
3.184, 1, 34.3856, 48.9234, -13.3418, 95.6786, -53.5274, 50.8403
3.188, 1, 34.4196, 48.9084, -13.3629, 95.728, -53.4859, 50.7251
3.192, 1, 34.4537, 48.8934, -13.384, 95.7774, -53.4444, 50.61
3.196, 1, 34.4877, 48.8784, -13.4051, 95.8268, -53.403, 50.4949
3.199, 1, 34.5217, 48.8634, -13.4262, 95.8762, -53.3615, 50.3799
3.204, 1, 34.5557, 48.8484, -13.4473, 95.9255, -53.3201, 50.2649
3.208, 1, 34.5897, 48.8334, -13.4683, 95.9749, -53.2787, 50.15
3.212, 1, 34.6237, 48.8185, -13.4894, 96.0241, -53.2373, 50.0351
3.216, 1, 34.6576, 48.8035, -13.5105, 96.0734, -53.196, 49.9203
3.22, 1, 34.6915, 48.7886, -13.5315, 96.1227, -53.1546, 49.8056
3.224, 1, 34.7254, 48.7736, -13.5525, 96.1719, -53.1133, 49.6909
3.228, 1, 34.7593, 48.7587, -13.5735, 96.2211, -53.072, 49.5763
3.232, 1, 34.7932, 48.7438, -13.5945, 96.2702, -53.0308, 49.4618
3.235, 1, 34.8271, 48.7289, -13.6155, 96.3194, -52.9895, 49.3473
3.24, 1, 34.8609, 48.7139, -13.6365, 96.3685, -52.9483, 49.2328
3.244, 1, 34.8947, 48.699, -13.6575, 96.4176, -52.9071, 49.1185
3.248, 1, 34.9285, 48.6841, -13.6785, 96.4666, -52.8659, 49.0042
3.252, 1, 34.9623, 48.6693, -13.6994, 96.5157, -52.8247, 48.8899
3.255, 1, 34.9961, 48.6544, -13.7204, 96.5647, -52.7836, 48.7757
3.26, 1, 35.0298, 48.6395, -13.7413, 96.6137, -52.7425, 48.6616
3.264, 1, 35.0636, 48.6246, -13.7622, 96.6627, -52.7014, 48.5475
3.268, 1, 35.0973, 48.6098, -13.7831, 96.7116, -52.6603, 48.4334
3.272, 1, 35.131, 48.5949, -13.804, 96.7605, -52.6192, 48.3195
3.276, 1, 35.1647, 48.5801, -13.8249, 96.8094, -52.5782, 48.2056
3.28, 1, 35.1983, 48.5653, -13.8458, 96.8583, -52.5372, 48.0917
3.284, 1, 35.232, 48.5504, -13.8666, 96.9071, -52.4962, 47.9779
3.288, 1, 35.2656, 48.5356, -13.8875, 96.9559, -52.4552, 47.8642
3.291, 1, 35.2992, 48.5208, -13.9083, 97.0047, -52.4143, 47.7505
3.296, 1, 35.3327, 48.506, -13.9292, 97.0535, -52.3733, 47.6369
3.3, 1, 35.366, 48.4914, -13.95, 97.1022, -52.3324, 47.5233
3.304, 1, 35.3989, 48.4768, -13.9709, 97.1509, -52.2915, 47.4098
3.308, 1, 35.4312, 48.4626, -13.9918, 97.1996, -52.2507, 47.2965
3.312, 1, 35.4628, 48.4487, -14.0127, 97.2481, -52.21, 47.1834
3.316, 1, 35.4934, 48.4353, -14.0337, 97.2964, -52.1695, 47.0708
3.32, 1, 35.5229, 48.4224, -14.0547, 97.3444, -52.1293, 46.9588
3.324, 1, 35.5513, 48.4102, -14.0756, 97.392, -52.0894, 46.8479
3.328, 1, 35.5787, 48.3986, -14.0963, 97.4389, -52.0501, 46.7385
3.332, 1, 35.605, 48.3875, -14.1168, 97.4849, -52.0116, 46.6312
3.336, 1, 35.6303, 48.377, -14.1368, 97.5297, -51.9741, 46.5266
3.34, 1, 35.6546, 48.3669, -14.1562, 97.5731, -51.9378, 46.4254
3.344, 1, 35.678, 48.3573, -14.1748, 97.6147, -51.903, 46.3283
3.347, 1, 35.7002, 48.3482, -14.1925, 97.6543, -51.8698, 46.236
3.352, 1, 35.7214, 48.3394, -14.2092, 97.6915, -51.8387, 46.1491
3.356, 1, 35.7416, 48.331, -14.2246, 97.7262, -51.8096, 46.0682
3.36, 1, 35.7607, 48.323, -14.2387, 97.7581, -51.7829, 45.9938
3.364, 1, 35.7789, 48.3152, -14.2514, 97.787, -51.7586, 45.9263
3.368, 1, 35.7964, 48.3076, -14.2626, 97.813, -51.7369, 45.8658
3.372, 1, 35.8131, 48.3001, -14.2722, 97.8359, -51.7176, 45.8124
3.376, 1, 35.829, 48.2928, -14.2804, 97.8558, -51.7008, 45.7661
3.38, 1, 35.8441, 48.2857, -14.2871, 97.8729, -51.6865, 45.7265
3.383, 1, 35.8581, 48.279, -14.2926, 97.8872, -51.6743, 45.6931
3.388, 1, 35.8708, 48.2728, -14.2969, 97.8991, -51.6642, 45.6655
3.392, 2, 35.8823, 48.2671, -14.3003, 97.9088, -51.656, 45.6431
3.396, 2, 35.8925, 48.262, -14.3028, 97.9166, -51.6494, 45.6251
3.4, 2, 35.9015, 48.2575, -14.3047, 97.9227, -51.6442, 45.611
3.403, 2, 35.9095, 48.2535, -14.306, 97.9274, -51.6402, 45.6002
3.408, 2, 35.9166, 48.25, -14.3068, 97.9309, -51.6371, 45.5921
3.412, 2, 35.9229, 48.247, -14.3073, 97.9335, -51.6349, 45.5861
3.416, 2, 35.9282, 48.2444, -14.3076, 97.9354, -51.6332, 45.5819
3.42, 2, 35.9326, 48.2424, -14.3077, 97.9367, -51.6321, 45.5789
3.424, 2, 35.9361, 48.2408, -14.3078, 97.9376, -51.6313, 45.5768
3.428, 2, 35.9387, 48.2397, -14.3078, 97.9383, -51.6307, 45.5754
3.432, 2, 35.9406, 48.239, -14.3078, 97.9387, -51.6304, 45.5744
3.436, 2, 35.9418, 48.2389, -14.3078, 97.939, -51.6301, 45.5738
3.439, 2, 35.9426, 48.2392, -14.3078, 97.9391, -51.6301, 45.5733
3.444, 3, 35.9432, 48.2402, -14.3079, 97.9392, -51.6303, 45.5729
3.448, 3, 35.9434, 48.2419, -14.308, 97.9393, -51.6309, 45.5725
3.452, 3, 35.9435, 48.2443, -14.3081, 97.9392, -51.6321, 45.5719
3.456, 3, 35.9435, 48.2477, -14.3084, 97.939, -51.6343, 45.5712
3.46, 3, 35.9434, 48.252, -14.3088, 97.9386, -51.6379, 45.57
3.464, 3, 35.9431, 48.2576, -14.3094, 97.938, -51.6434, 45.5682
3.468, 3, 35.9428, 48.2645, -14.3103, 97.9371, -51.6514, 45.5657
3.472, 3, 35.9424, 48.2731, -14.3116, 97.9359, -51.6627, 45.5621
3.476, 3, 35.9418, 48.2835, -14.3133, 97.9342, -51.678, 45.5574
3.48, 3, 35.9412, 48.2959, -14.3155, 97.9319, -51.6983, 45.551
3.484, 3, 35.9405, 48.3104, -14.3184, 97.9288, -51.7245, 45.5429
3.488, 3, 35.9398, 48.3268, -14.3221, 97.925, -51.7577, 45.5326
3.492, 3, 35.939, 48.3453, -14.3266, 97.9202, -51.7987, 45.5199
3.495, 3, 35.9381, 48.3659, -14.332, 97.9144, -51.8485, 45.5045
3.5, 3, 35.9373, 48.3887, -14.3384, 97.9073, -51.9077, 45.4863
3.504, 3, 35.9364, 48.4138, -14.3458, 97.899, -51.977, 45.4649
3.508, 3, 35.9356, 48.4411, -14.3543, 97.8894, -52.0567, 45.4404
3.512, 3, 35.9347, 48.4708, -14.3639, 97.8783, -52.1472, 45.4126
3.516, 3, 35.934, 48.5027, -14.3745, 97.8658, -52.2485, 45.3815
3.52, 3, 35.9333, 48.5368, -14.3862, 97.8518, -52.3603, 45.3473
3.524, 3, 35.9327, 48.5729, -14.3988, 97.8363, -52.4825, 45.31
3.528, 3, 35.9322, 48.6112, -14.4122, 97.8194, -52.6143, 45.2698
3.531, 3, 35.9317, 48.6515, -14.4264, 97.8011, -52.755, 45.2271
3.536, 3, 35.9313, 48.694, -14.4413, 97.7815, -52.9038, 45.1819
3.54, 3, 35.9308, 48.7386, -14.4567, 97.7606, -53.0598, 45.1347
3.544, 3, 35.9303, 48.7852, -14.4725, 97.7386, -53.222, 45.0858
3.548, 3, 35.9296, 48.8337, -14.4886, 97.7156, -53.3894, 45.0354
3.552, 3, 35.9289, 48.8839, -14.5049, 97.6916, -53.5612, 44.9838
3.556, 3, 35.928, 48.9355, -14.5212, 97.6668, -53.7365, 44.9313
3.56, 3, 35.927, 48.9884, -14.5376, 97.6412, -53.9145, 44.8781
3.564, 3, 35.9258, 49.0426, -14.5538, 97.6148, -54.0946, 44.8245
3.568, 3, 35.9244, 49.0977, -14.5699, 97.5879, -54.2762, 44.7706
3.572, 3, 35.9229, 49.1537, -14.5858, 97.5603, -54.4589, 44.7165
3.576, 3, 35.9211, 49.2105, -14.6015, 97.5322, -54.6422, 44.6624
3.58, 3, 35.9192, 49.2677, -14.6169, 97.5036, -54.8259, 44.6083
3.584, 3, 35.917, 49.3254, -14.6319, 97.4745, -55.0099, 44.5543
3.587, 3, 35.9147, 49.3832, -14.6467, 97.445, -55.1939, 44.5005
3.592, 3, 35.9123, 49.4411, -14.6611, 97.415, -55.3779, 44.4468
3.596, 3, 35.9097, 49.499, -14.6751, 97.3846, -55.5619, 44.3933
3.6, 3, 35.907, 49.5569, -14.6889, 97.3537, -55.7458, 44.3399
3.604, 3, 35.9041, 49.6146, -14.7023, 97.3224, -55.9295, 44.2868
3.608, 3, 35.9011, 49.6722, -14.7153, 97.2907, -56.1131, 44.2338
3.612, 3, 35.8979, 49.7298, -14.728, 97.2586, -56.2966, 44.181
3.616, 3, 35.8946, 49.7871, -14.7403, 97.2261, -56.4798, 44.1284
3.62, 3, 35.8911, 49.8443, -14.7522, 97.1932, -56.6629, 44.076
3.624, 3, 35.8875, 49.9014, -14.7638, 97.1598, -56.8459, 44.0238
3.628, 3, 35.8838, 49.9582, -14.7751, 97.1261, -57.0286, 43.9717
3.632, 3, 35.8799, 50.0149, -14.7859, 97.092, -57.2112, 43.9199
3.636, 3, 35.8759, 50.0715, -14.7964, 97.0574, -57.3936, 43.8682
3.64, 3, 35.8718, 50.1279, -14.8066, 97.0225, -57.5758, 43.8167
3.644, 3, 35.8675, 50.184, -14.8164, 96.9872, -57.7578, 43.7654
3.648, 3, 35.8631, 50.2401, -14.8258, 96.9515, -57.9396, 43.7142
3.652, 3, 35.8585, 50.2959, -14.8348, 96.9154, -58.1213, 43.6632
3.656, 3, 35.8539, 50.3515, -14.8435, 96.8789, -58.3028, 43.6124
3.66, 3, 35.849, 50.407, -14.8518, 96.8421, -58.4841, 43.5618
3.664, 3, 35.8441, 50.4623, -14.8598, 96.8048, -58.6652, 43.5113
3.668, 3, 35.839, 50.5174, -14.8673, 96.7672, -58.8461, 43.4609
3.672, 3, 35.8337, 50.5723, -14.8745, 96.7292, -59.0269, 43.4108
3.676, 3, 35.8283, 50.6271, -14.8813, 96.6909, -59.2075, 43.3607
3.679, 3, 35.8228, 50.6816, -14.8878, 96.6522, -59.3879, 43.3109
3.684, 3, 35.8172, 50.7359, -14.8938, 96.6131, -59.5681, 43.2612
3.688, 3, 35.8114, 50.7901, -14.8995, 96.5737, -59.7481, 43.2116
3.692, 3, 35.8055, 50.8441, -14.9048, 96.5339, -59.928, 43.1622
3.696, 3, 35.7994, 50.8979, -14.9097, 96.4937, -60.1076, 43.1129
3.7, 3, 35.7932, 50.9514, -14.9143, 96.4532, -60.2871, 43.0637
3.704, 3, 35.7869, 51.0048, -14.9184, 96.4123, -60.4664, 43.0147
3.708, 3, 35.7804, 51.058, -14.9222, 96.3711, -60.6455, 42.9659
3.712, 3, 35.7738, 51.111, -14.9256, 96.3295, -60.8245, 42.9171
3.716, 3, 35.7671, 51.1638, -14.9286, 96.2876, -61.0033, 42.8685
3.72, 3, 35.7602, 51.2164, -14.9313, 96.2453, -61.1818, 42.8201
3.724, 3, 35.7532, 51.2688, -14.9335, 96.2027, -61.3603, 42.7717
3.728, 3, 35.746, 51.321, -14.9353, 96.1598, -61.5385, 42.7235
3.732, 3, 35.7388, 51.373, -14.9368, 96.1165, -61.7165, 42.6754
3.735, 3, 35.7313, 51.4248, -14.9379, 96.0728, -61.8944, 42.6274
3.74, 3, 35.7238, 51.4764, -14.9385, 96.0289, -62.0721, 42.5796
3.744, 3, 35.7161, 51.5277, -14.9388, 95.9846, -62.2496, 42.5318
3.748, 3, 35.7083, 51.5789, -14.9387, 95.94, -62.4269, 42.4842
3.752, 3, 35.7003, 51.6299, -14.9382, 95.895, -62.6041, 42.4367
3.756, 3, 35.6923, 51.6806, -14.9373, 95.8497, -62.7811, 42.3893
3.76, 3, 35.684, 51.7311, -14.936, 95.8041, -62.9578, 42.342
3.764, 3, 35.6757, 51.7815, -14.9343, 95.7582, -63.1345, 42.2948
3.768, 3, 35.6672, 51.8316, -14.9322, 95.712, -63.3109, 42.2477
3.772, 3, 35.6586, 51.8815, -14.9297, 95.6654, -63.4872, 42.2007
3.776, 3, 35.6498, 51.9311, -14.9268, 95.6185, -63.6632, 42.1538
3.78, 3, 35.6409, 51.9806, -14.9235, 95.5713, -63.8391, 42.107
3.784, 3, 35.6319, 52.0298, -14.9198, 95.5238, -64.0148, 42.0603
3.788, 3, 35.6227, 52.0789, -14.9157, 95.476, -64.1904, 42.0137
3.792, 3, 35.6134, 52.1277, -14.9112, 95.4279, -64.3658, 41.9671
3.796, 3, 35.604, 52.1762, -14.9062, 95.3795, -64.5409, 41.9207
3.8, 3, 35.5944, 52.2246, -14.9009, 95.3307, -64.7159, 41.8744
3.804, 3, 35.5847, 52.2727, -14.8951, 95.2817, -64.8908, 41.8281
3.808, 3, 35.5749, 52.3206, -14.889, 95.2323, -65.0654, 41.7819
3.812, 3, 35.565, 52.3683, -14.8824, 95.1827, -65.2399, 41.7358
3.816, 3, 35.5549, 52.4158, -14.8754, 95.1327, -65.4142, 41.6898
3.82, 3, 35.5446, 52.463, -14.868, 95.0825, -65.5883, 41.6439
3.824, 3, 35.5343, 52.51, -14.8602, 95.0319, -65.7623, 41.598
3.828, 3, 35.5238, 52.5568, -14.852, 94.9811, -65.9361, 41.5522
3.832, 3, 35.5131, 52.6033, -14.8433, 94.93, -66.1097, 41.5065
3.836, 3, 35.5024, 52.6496, -14.8343, 94.8786, -66.2831, 41.4608
3.84, 3, 35.4915, 52.6957, -14.8248, 94.8268, -66.4564, 41.4152
3.844, 3, 35.4805, 52.7415, -14.8149, 94.7748, -66.6295, 41.3697
3.848, 3, 35.4693, 52.7871, -14.8045, 94.7225, -66.8024, 41.3243
3.852, 3, 35.458, 52.8325, -14.7938, 94.67, -66.9751, 41.2789
3.856, 3, 35.4466, 52.8776, -14.7826, 94.6171, -67.1477, 41.2336
3.86, 3, 35.4351, 52.9225, -14.7711, 94.564, -67.3201, 41.1883
3.864, 3, 35.4234, 52.9671, -14.7591, 94.5105, -67.4924, 41.1431
3.868, 3, 35.4116, 53.0116, -14.7467, 94.4568, -67.6644, 41.0979
3.872, 3, 35.3996, 53.0557, -14.7338, 94.4028, -67.8363, 41.0528
3.876, 3, 35.3876, 53.0997, -14.7206, 94.3486, -68.0081, 41.0078
3.88, 3, 35.3753, 53.1434, -14.7069, 94.294, -68.1797, 40.9628
3.884, 3, 35.363, 53.1868, -14.6928, 94.2392, -68.3511, 40.9179
3.888, 3, 35.3505, 53.2301, -14.6783, 94.1841, -68.5223, 40.873
3.892, 3, 35.338, 53.273, -14.6634, 94.1287, -68.6934, 40.8281
3.896, 3, 35.3252, 53.3158, -14.648, 94.0731, -68.8643, 40.7833
3.9, 3, 35.3124, 53.3582, -14.6322, 94.0172, -69.0351, 40.7386
3.904, 3, 35.2994, 53.4005, -14.616, 93.961, -69.2057, 40.6939
3.908, 3, 35.2863, 53.4425, -14.5994, 93.9046, -69.3761, 40.6492
3.912, 3, 35.273, 53.4842, -14.5824, 93.8478, -69.5463, 40.6046
3.916, 3, 35.2597, 53.5257, -14.5649, 93.7909, -69.7164, 40.56
3.92, 3, 35.2462, 53.567, -14.5471, 93.7336, -69.8864, 40.5154
3.924, 3, 35.2325, 53.608, -14.5288, 93.6761, -70.0562, 40.4709
3.928, 3, 35.2188, 53.6487, -14.51, 93.6184, -70.2258, 40.4264
3.932, 3, 35.2049, 53.6893, -14.4909, 93.5603, -70.3952, 40.3819
3.936, 3, 35.1909, 53.7295, -14.4713, 93.5021, -70.5645, 40.3375
3.94, 3, 35.1767, 53.7695, -14.4513, 93.4435, -70.7337, 40.2931
3.944, 3, 35.1625, 53.8093, -14.4309, 93.3847, -70.9026, 40.2487
3.948, 3, 35.1481, 53.8488, -14.4101, 93.3257, -71.0715, 40.2043
3.952, 3, 35.1336, 53.888, -14.3888, 93.2664, -71.2401, 40.16
3.956, 3, 35.1189, 53.927, -14.3672, 93.2068, -71.4086, 40.1157
3.96, 3, 35.1041, 53.9657, -14.3451, 93.147, -71.577, 40.0714
3.964, 3, 35.0892, 54.0042, -14.3225, 93.0869, -71.7451, 40.0271
3.968, 3, 35.0742, 54.0424, -14.2996, 93.0266, -71.9132, 39.9829
3.972, 3, 35.059, 54.0804, -14.2762, 92.9661, -72.081, 39.9386
3.976, 3, 35.0438, 54.1181, -14.2524, 92.9053, -72.2487, 39.8944
3.98, 3, 35.0283, 54.1555, -14.2281, 92.8442, -72.4163, 39.8502
3.984, 3, 35.0128, 54.1927, -14.2035, 92.7829, -72.5837, 39.806
3.988, 3, 34.9972, 54.2295, -14.1784, 92.7214, -72.7509, 39.7618
3.992, 3, 34.9817, 54.2659, -14.1528, 92.6596, -72.918, 39.7176
3.996, 4, 34.9663, 54.3018, -14.1269, 92.5976, -73.0848, 39.6735
3.999, 4, 34.9512, 54.3369, -14.1006, 92.5354, -73.2514, 39.6294
4.004, 4, 34.9366, 54.371, -14.0739, 92.4731, -73.4174, 39.5853
4.008, 4, 34.9226, 54.4038, -14.0468, 92.4108, -73.5828, 39.5415
4.012, 4, 34.9093, 54.435, -14.0195, 92.3486, -73.747, 39.4978
4.016, 4, 34.8967, 54.4647, -13.9921, 92.2868, -73.9096, 39.4546
4.02, 4, 34.8846, 54.4929, -13.9647, 92.2256, -74.0699, 39.412
4.024, 4, 34.873, 54.5195, -13.9374, 92.1654, -74.227, 39.3702
4.028, 4, 34.8616, 54.5449, -13.9104, 92.1065, -74.38, 39.3295
4.032, 4, 34.8501, 54.569, -13.8838, 92.0493, -74.5278, 39.2902
4.036, 4, 34.8382, 54.592, -13.8577, 91.9942, -74.6695, 39.2527
4.04, 4, 34.8257, 54.614, -13.832, 91.9414, -74.804, 39.2174
4.044, 4, 34.8122, 54.635, -13.8066, 91.8911, -74.9305, 39.1849
4.048, 4, 34.7975, 54.655, -13.7813, 91.8433, -75.0484, 39.1555
4.052, 4, 34.7813, 54.674, -13.7557, 91.7978, -75.1575, 39.1297
4.056, 4, 34.7639, 54.692, -13.7291, 91.7543, -75.2576, 39.1081
4.06, 4, 34.7454, 54.7087, -13.7009, 91.7123, -75.3492, 39.091
4.064, 4, 34.726, 54.7239, -13.6705, 91.6711, -75.4328, 39.0787
4.068, 4, 34.7062, 54.7375, -13.6369, 91.6299, -75.5095, 39.0714
4.072, 4, 34.6864, 54.7491, -13.5996, 91.588, -75.5803, 39.0693
4.076, 4, 34.6667, 54.7584, -13.5576, 91.5446, -75.6466, 39.0724
4.08, 4, 34.6473, 54.765, -13.5106, 91.4989, -75.7096, 39.0806
4.084, 4, 34.6282, 54.7687, -13.458, 91.4503, -75.7707, 39.0938
4.088, 4, 34.6094, 54.7693, -13.3996, 91.3984, -75.8309, 39.1115
4.092, 4, 34.5908, 54.7667, -13.3353, 91.3428, -75.8915, 39.1334
4.096, 4, 34.5724, 54.7608, -13.2653, 91.2834, -75.953, 39.1591
4.1, 4, 34.5541, 54.752, -13.1899, 91.2204, -76.0161, 39.1881
4.104, 4, 34.5357, 54.7406, -13.1095, 91.1538, -76.0812, 39.2199
4.108, 4, 34.5172, 54.7269, -13.0248, 91.084, -76.1482, 39.254
4.112, 4, 34.4982, 54.7116, -12.9363, 91.0116, -76.2171, 39.2899
4.116, 4, 34.4785, 54.6951, -12.8447, 90.9369, -76.2878, 39.3272
4.12, 4, 34.458, 54.6778, -12.7506, 90.8604, -76.3599, 39.3656
4.124, 4, 34.4365, 54.66, -12.6546, 90.7827, -76.4331, 39.4046
4.128, 4, 34.4139, 54.6419, -12.5572, 90.704, -76.5071, 39.4442
4.132, 4, 34.3903, 54.6236, -12.4588, 90.6246, -76.5818, 39.4841
4.136, 4, 34.3659, 54.6053, -12.3596, 90.5448, -76.657, 39.5241
4.14, 4, 34.3409, 54.5869, -12.2599, 90.4648, -76.7324, 39.5641
4.144, 4, 34.3154, 54.5684, -12.1599, 90.3846, -76.8081, 39.6042
4.148, 4, 34.2896, 54.5499, -12.0597, 90.3042, -76.884, 39.6441
4.152, 4, 34.2636, 54.5313, -11.9592, 90.2239, -76.9601, 39.684
4.156, 4, 34.2374, 54.5126, -11.8587, 90.1435, -77.0362, 39.7238
4.16, 4, 34.211, 54.4939, -11.7581, 90.0631, -77.1125, 39.7635
4.164, 4, 34.1845, 54.4751, -11.6574, 89.9827, -77.1888, 39.8031
4.168, 4, 34.1579, 54.4563, -11.5567, 89.9024, -77.2653, 39.8425
4.172, 4, 34.1312, 54.4374, -11.4559, 89.8221, -77.3418, 39.8817
4.176, 4, 34.1044, 54.4184, -11.3551, 89.7418, -77.4183, 39.9208
4.18, 4, 34.0776, 54.3994, -11.2543, 89.6616, -77.495, 39.9598
4.184, 4, 34.0507, 54.3803, -11.1534, 89.5814, -77.5717, 39.9986
4.188, 4, 34.0237, 54.3612, -11.0526, 89.5013, -77.6484, 40.0373
4.192, 4, 33.9966, 54.3419, -10.9517, 89.4212, -77.7252, 40.0758
4.196, 4, 33.9695, 54.3227, -10.8508, 89.3412, -77.8021, 40.1142
4.2, 4, 33.9423, 54.3033, -10.7499, 89.2612, -77.8791, 40.1524
4.204, 4, 33.9151, 54.284, -10.649, 89.1813, -77.9561, 40.1904
4.208, 4, 33.8878, 54.2645, -10.548, 89.1014, -78.0331, 40.2283
4.212, 5, 33.8604, 54.245, -10.4471, 89.0215, -78.1102, 40.2661
4.216, 5, 33.833, 54.2254, -10.3461, 88.9417, -78.1874, 40.3037
4.22, 5, 33.8055, 54.2058, -10.2451, 88.862, -78.2646, 40.3411
4.224, 5, 33.7779, 54.1861, -10.1441, 88.7822, -78.3419, 40.3784
4.228, 5, 33.7502, 54.1663, -10.0431, 88.7026, -78.4193, 40.4156
4.232, 5, 33.7225, 54.1465, -9.94205, 88.6229, -78.4967, 40.4526
4.236, 5, 33.6948, 54.1266, -9.841, 88.5434, -78.5742, 40.4894
4.24, 5, 33.667, 54.1066, -9.73994, 88.4638, -78.6517, 40.5261
4.244, 5, 33.6391, 54.0866, -9.63887, 88.3843, -78.7293, 40.5626
4.248, 5, 33.6111, 54.0666, -9.53779, 88.3048, -78.8069, 40.599
4.252, 5, 33.5831, 54.0464, -9.43669, 88.2254, -78.8846, 40.6352
4.256, 5, 33.555, 54.0262, -9.33558, 88.146, -78.9624, 40.6712
4.26, 5, 33.5268, 54.0059, -9.23445, 88.0667, -79.0402, 40.7071
4.264, 5, 33.4986, 53.9856, -9.13332, 87.9874, -79.118, 40.7429
4.268, 5, 33.4703, 53.9652, -9.03216, 87.9082, -79.196, 40.7785
4.272, 5, 33.442, 53.9448, -8.931, 87.8289, -79.2739, 40.8139
4.276, 5, 33.4136, 53.9242, -8.82982, 87.7498, -79.352, 40.8492
4.28, 5, 33.3851, 53.9036, -8.72863, 87.6706, -79.4301, 40.8843
4.284, 5, 33.3566, 53.883, -8.62743, 87.5915, -79.5082, 40.9193
4.288, 5, 33.3279, 53.8622, -8.52622, 87.5125, -79.5864, 40.9541
4.292, 5, 33.2993, 53.8415, -8.42499, 87.4334, -79.6647, 40.9887
4.296, 5, 33.2705, 53.8206, -8.32375, 87.3545, -79.743, 41.0232
4.3, 5, 33.2417, 53.7997, -8.2225, 87.2755, -79.8213, 41.0576
4.304, 5, 33.2129, 53.7787, -8.12124, 87.1966, -79.8998, 41.0917
4.308, 5, 33.1839, 53.7576, -8.01996, 87.1177, -79.9782, 41.1258
4.312, 5, 33.1549, 53.7365, -7.91867, 87.0389, -80.0568, 41.1596
4.316, 5, 33.1259, 53.7153, -7.81737, 86.9601, -80.1353, 41.1933
4.32, 5, 33.0967, 53.6941, -7.71606, 86.8813, -80.214, 41.2269
4.324, 5, 33.0675, 53.6728, -7.61474, 86.8026, -80.2927, 41.2603
4.328, 5, 33.0383, 53.6514, -7.5134, 86.7238, -80.3714, 41.2935
4.332, 5, 33.009, 53.6299, -7.41205, 86.6452, -80.4502, 41.3266
4.336, 5, 32.9796, 53.6084, -7.31069, 86.5665, -80.5291, 41.3595
4.34, 5, 32.9501, 53.5868, -7.20932, 86.4879, -80.608, 41.3922
4.344, 5, 32.9206, 53.5651, -7.10794, 86.4093, -80.6869, 41.4248
4.348, 5, 32.891, 53.5434, -7.00654, 86.3308, -80.7659, 41.4573
4.352, 5, 32.8613, 53.5216, -6.90514, 86.2523, -80.845, 41.4895
4.356, 5, 32.8316, 53.4997, -6.80372, 86.1738, -80.9241, 41.5217
4.36, 5, 32.8018, 53.4778, -6.70229, 86.0953, -81.0033, 41.5536
4.364, 5, 32.772, 53.4558, -6.60085, 86.0169, -81.0825, 41.5854
4.368, 5, 32.7421, 53.4337, -6.4994, 85.9385, -81.1617, 41.617
4.372, 5, 32.7121, 53.4116, -6.39794, 85.8601, -81.2411, 41.6485
4.376, 5, 32.682, 53.3894, -6.29646, 85.7817, -81.3204, 41.6798
4.38, 5, 32.6519, 53.3671, -6.19498, 85.7034, -81.3998, 41.711
4.384, 5, 32.6217, 53.3447, -6.09349, 85.6251, -81.4793, 41.742
4.388, 5, 32.5915, 53.3223, -5.99198, 85.5468, -81.5588, 41.7728
4.392, 5, 32.5611, 53.2998, -5.89047, 85.4686, -81.6384, 41.8035
4.396, 5, 32.5308, 53.2772, -5.78894, 85.3903, -81.718, 41.834
4.4, 5, 32.5003, 53.2546, -5.6874, 85.3121, -81.7977, 41.8643
4.404, 5, 32.4698, 53.2318, -5.58586, 85.234, -81.8774, 41.8945
4.408, 5, 32.4392, 53.2091, -5.4843, 85.1558, -81.9572, 41.9245
4.412, 5, 32.4086, 53.1862, -5.38274, 85.0777, -82.037, 41.9543
4.416, 5, 32.3778, 53.1633, -5.28116, 84.9996, -82.1169, 41.984
4.42, 5, 32.3471, 53.1403, -5.17958, 84.9215, -82.1968, 42.0135
4.424, 5, 32.3162, 53.1172, -5.07798, 84.8434, -82.2767, 42.0429
4.428, 5, 32.2853, 53.094, -4.97638, 84.7654, -82.3567, 42.0721
4.432, 5, 32.2543, 53.0708, -4.87477, 84.6873, -82.4368, 42.1011
4.436, 5, 32.2233, 53.0475, -4.77315, 84.6093, -82.5169, 42.1299
4.44, 5, 32.1922, 53.0241, -4.67151, 84.5313, -82.597, 42.1586
4.444, 5, 32.161, 53.0007, -4.56987, 84.4534, -82.6772, 42.1872
4.448, 5, 32.1297, 52.9772, -4.46823, 84.3754, -82.7575, 42.2155
4.452, 5, 32.0984, 52.9536, -4.36657, 84.2975, -82.8378, 42.2437
4.456, 5, 32.067, 52.9299, -4.2649, 84.2195, -82.9181, 42.2718
4.46, 5, 32.0356, 52.9062, -4.16323, 84.1416, -82.9985, 42.2996
4.464, 5, 32.004, 52.8823, -4.06155, 84.0638, -83.0789, 42.3273
4.468, 5, 31.9725, 52.8584, -3.95986, 83.9859, -83.1594, 42.3548
4.472, 5, 31.9408, 52.8345, -3.85816, 83.908, -83.2399, 42.3822
4.476, 5, 31.9091, 52.8104, -3.75645, 83.8302, -83.3204, 42.4094
4.48, 5, 31.8773, 52.7863, -3.65474, 83.7524, -83.401, 42.4364
4.484, 5, 31.8454, 52.7621, -3.55302, 83.6745, -83.4817, 42.4632
4.488, 5, 31.8135, 52.7378, -3.45129, 83.5967, -83.5624, 42.4899
4.492, 5, 31.7816, 52.7134, -3.34956, 83.5189, -83.6431, 42.5164
4.496, 5, 31.7497, 52.689, -3.24783, 83.4412, -83.7239, 42.5428
4.5, 5, 31.7182, 52.6645, -3.14614, 83.3634, -83.8047, 42.569
4.504, 5, 31.687, 52.6399, -3.04454, 83.2857, -83.8854, 42.5949
4.508, 5, 31.6564, 52.6153, -2.94311, 83.2081, -83.9662, 42.6207
4.512, 5, 31.6264, 52.5906, -2.84198, 83.1308, -84.0467, 42.6463
4.516, 5, 31.597, 52.5659, -2.74134, 83.0537, -84.1269, 42.6716
4.52, 5, 31.5682, 52.5413, -2.64139, 82.9771, -84.2067, 42.6965
4.524, 6, 31.54, 52.5166, -2.5424, 82.9013, -84.2856, 42.7212
4.528, 6, 31.5123, 52.4919, -2.44464, 82.8265, -84.3635, 42.7455
4.532, 6, 31.4848, 52.467, -2.34837, 82.7528, -84.4399, 42.7697
4.536, 6, 31.4575, 52.4421, -2.25382, 82.6806, -84.5143, 42.7939
4.54, 6, 31.4299, 52.417, -2.1611, 82.61, -84.5862, 42.8187
4.544, 6, 31.4019, 52.3918, -2.07024, 82.541, -84.6552, 42.8447
4.548, 6, 31.3729, 52.3664, -1.98107, 82.4735, -84.7208, 42.8726
4.552, 6, 31.3427, 52.3409, -1.89327, 82.4072, -84.7826, 42.9033
4.556, 6, 31.3114, 52.3151, -1.80631, 82.3418, -84.8405, 42.9378
4.56, 6, 31.2793, 52.2889, -1.71954, 82.2766, -84.8945, 42.9771
4.564, 6, 31.2466, 52.2622, -1.63219, 82.211, -84.9447, 43.0222
4.568, 6, 31.2136, 52.2348, -1.54341, 82.1443, -84.9913, 43.0739
4.572, 6, 31.1807, 52.2066, -1.45236, 82.0757, -85.0346, 43.1331
4.576, 6, 31.1479, 52.1775, -1.35826, 82.0047, -85.0751, 43.2003
4.58, 6, 31.1153, 52.1473, -1.26042, 81.9305, -85.1132, 43.2759
4.584, 6, 31.0829, 52.1159, -1.15828, 81.8528, -85.1496, 43.36
4.588, 6, 31.0505, 52.083, -1.05147, 81.7712, -85.1848, 43.4524
4.592, 6, 31.0183, 52.0486, -0.939798, 81.6856, -85.2193, 43.5527
4.596, 6, 30.9863, 52.0125, -0.823291, 81.5959, -85.2536, 43.6601
4.6, 6, 30.9545, 51.9745, -0.702169, 81.5024, -85.2882, 43.774
4.604, 6, 30.9226, 51.9348, -0.576819, 81.4054, -85.3233, 43.8935
4.608, 6, 30.8905, 51.8935, -0.447756, 81.3053, -85.3591, 44.0175
4.612, 6, 30.8578, 51.8508, -0.315577, 81.2026, -85.3956, 44.1452
4.616, 6, 30.8242, 51.8069, -0.180905, 81.0979, -85.4328, 44.2758
4.62, 6, 30.7896, 51.7623, -0.0443403, 80.9917, -85.4707, 44.4085
4.624, 6, 30.754, 51.717, 0.0935825, 80.8843, -85.5092, 44.5426
4.628, 6, 30.7173, 51.6712, 0.23241, 80.7762, -85.5481, 44.6778
4.632, 6, 30.6798, 51.6252, 0.37178, 80.6676, -85.5876, 44.8137
4.636, 6, 30.6416, 51.5792, 0.511414, 80.5586, -85.6275, 44.9499
4.64, 6, 30.6029, 51.5331, 0.651115, 80.4494, -85.6677, 45.0864
4.644, 6, 30.5638, 51.4871, 0.790743, 80.34, -85.7084, 45.2229
4.648, 6, 30.5244, 51.4412, 0.930203, 80.2306, -85.7494, 45.3595
4.652, 6, 30.4847, 51.3956, 1.06943, 80.1212, -85.7907, 45.496
4.656, 6, 30.4448, 51.3501, 1.20838, 80.0118, -85.8323, 45.6325
4.66, 6, 30.4047, 51.3048, 1.34702, 79.9024, -85.8743, 45.7688
4.664, 6, 30.3644, 51.2597, 1.48533, 79.7931, -85.9166, 45.905
4.668, 6, 30.3241, 51.2149, 1.6233, 79.6838, -85.9592, 46.0411
4.672, 6, 30.2835, 51.1703, 1.76091, 79.5746, -86.0022, 46.177
4.676, 6, 30.2429, 51.126, 1.89817, 79.4654, -86.0454, 46.3127
4.68, 6, 30.2021, 51.0819, 2.03507, 79.3564, -86.089, 46.4483
4.684, 6, 30.1612, 51.038, 2.17161, 79.2473, -86.1328, 46.5837
4.688, 6, 30.1202, 50.9944, 2.30778, 79.1384, -86.177, 46.7189
4.692, 6, 30.079, 50.951, 2.44359, 79.0295, -86.2215, 46.854
4.696, 6, 30.0378, 50.9079, 2.57904, 78.9207, -86.2663, 46.9889
4.7, 6, 29.9964, 50.865, 2.71413, 78.812, -86.3114, 47.1236
4.704, 6, 29.9549, 50.8223, 2.84885, 78.7033, -86.3568, 47.2581
4.708, 6, 29.9133, 50.7799, 2.98321, 78.5948, -86.4025, 47.3925
4.712, 6, 29.8716, 50.7378, 3.11721, 78.4863, -86.4485, 47.5267
4.716, 6, 29.8298, 50.6958, 3.25084, 78.3778, -86.4948, 47.6608
4.72, 6, 29.788, 50.6541, 3.38411, 78.2695, -86.5414, 47.7946
4.724, 6, 29.7464, 50.6127, 3.51698, 78.1613, -86.5883, 47.9283
4.728, 6, 29.7051, 50.5716, 3.64939, 78.0531, -86.6355, 48.0618
4.732, 6, 29.6645, 50.5308, 3.78125, 77.9451, -86.6829, 48.195
4.736, 6, 29.6245, 50.4903, 3.91242, 77.8375, -86.7305, 48.3277
4.74, 6, 29.5852, 50.4503, 4.04268, 77.7302, -86.7782, 48.4598
4.744, 6, 29.5467, 50.4108, 4.17176, 77.6237, -86.8259, 48.591
4.748, 6, 29.509, 50.3719, 4.29931, 77.5181, -86.8735, 48.7209
4.752, 6, 29.4718, 50.3337, 4.42492, 77.4139, -86.9207, 48.8491
4.756, 6, 29.4351, 50.2961, 4.54815, 77.3115, -86.9674, 48.975
4.76, 6, 29.3989, 50.2592, 4.66856, 77.2113, -87.0133, 49.0982
4.764, 6, 29.3631, 50.2229, 4.78575, 77.1137, -87.0583, 49.218
4.768, 6, 29.3275, 50.1871, 4.8994, 77.0191, -87.102, 49.3339
4.772, 6, 29.2919, 50.1517, 5.00931, 76.9279, -87.1442, 49.4455
4.776, 6, 29.2561, 50.1167, 5.11543, 76.8401, -87.1848, 49.5524
4.78, 6, 29.2197, 50.0819, 5.21793, 76.756, -87.2236, 49.6544
4.784, 6, 29.1825, 50.0475, 5.31712, 76.6751, -87.2604, 49.7517
4.788, 6, 29.1446, 50.0132, 5.41354, 76.5974, -87.2954, 49.8444
4.792, 6, 29.1062, 49.9791, 5.50786, 76.5222, -87.3286, 49.9331
4.796, 6, 29.0674, 49.945, 5.60089, 76.4488, -87.3601, 50.0184
4.8, 6, 29.0286, 49.9107, 5.6935, 76.3767, -87.3902, 50.101
4.804, 6, 28.99, 49.8759, 5.78657, 76.305, -87.4191, 50.1817
4.808, 6, 28.9519, 49.8407, 5.88093, 76.233, -87.4472, 50.2614
4.812, 6, 28.9142, 49.8048, 5.97733, 76.1601, -87.4747, 50.3409
4.816, 6, 28.8768, 49.7682, 6.07636, 76.0856, -87.5019, 50.4208
4.82, 6, 28.8397, 49.7308, 6.17846, 76.0092, -87.529, 50.5017
4.824, 6, 28.8027, 49.6923, 6.28387, 75.9306, -87.5563, 50.5842
4.828, 6, 28.7658, 49.6526, 6.39263, 75.8496, -87.584, 50.6684
4.832, 6, 28.7288, 49.6116, 6.50463, 75.7662, -87.6122, 50.7545
4.836, 6, 28.6917, 49.5692, 6.61961, 75.6805, -87.641, 50.8425
4.84, 6, 28.654, 49.5253, 6.73721, 75.5928, -87.6705, 50.9322
4.844, 6, 28.6157, 49.4801, 6.85701, 75.5034, -87.7005, 51.0233
4.848, 6, 28.5766, 49.4337, 6.97855, 75.4127, -87.731, 51.1156
4.852, 6, 28.5365, 49.3863, 7.10142, 75.321, -87.7621, 51.2088
4.856, 6, 28.4954, 49.3382, 7.22522, 75.2284, -87.7935, 51.3027
4.86, 6, 28.4533, 49.2896, 7.34964, 75.1354, -87.8253, 51.3969
4.864, 6, 28.4104, 49.2406, 7.47442, 75.0419, -87.8574, 51.4913
4.868, 6, 28.3669, 49.1913, 7.59937, 74.9482, -87.8897, 51.5858
4.872, 6, 28.3229, 49.142, 7.72434, 74.8543, -87.9223, 51.6804
4.876, 6, 28.2786, 49.0927, 7.84924, 74.7603, -87.9551, 51.775
4.88, 6, 28.2339, 49.0434, 7.97402, 74.6662, -87.9881, 51.8696
4.884, 6, 28.1891, 48.9942, 8.09862, 74.572, -88.0214, 51.964
4.888, 6, 28.1441, 48.9451, 8.22301, 74.4778, -88.0548, 52.0584
4.892, 6, 28.0989, 48.8961, 8.34718, 74.3836, -88.0884, 52.1527
4.896, 6, 28.0535, 48.8473, 8.47112, 74.2893, -88.1222, 52.2468
4.9, 6, 28.0081, 48.7986, 8.59481, 74.195, -88.1562, 52.3409
4.904, 6, 27.9625, 48.7501, 8.71825, 74.1007, -88.1903, 52.4348
4.908, 6, 27.9168, 48.7017, 8.84144, 74.0064, -88.2247, 52.5286
4.912, 6, 27.871, 48.6535, 8.96437, 73.9121, -88.2592, 52.6223
4.916, 6, 27.8251, 48.6055, 9.08705, 73.8178, -88.294, 52.7159
4.92, 6, 27.7791, 48.5576, 9.20946, 73.7234, -88.3289, 52.8093
4.924, 6, 27.7329, 48.5098, 9.33162, 73.629, -88.364, 52.9026
4.928, 6, 27.6867, 48.4622, 9.45352, 73.5347, -88.3992, 52.9958
4.932, 6, 27.6403, 48.4148, 9.57516, 73.4403, -88.4347, 53.0888
4.936, 6, 27.5939, 48.3675, 9.69655, 73.3459, -88.4703, 53.1818
4.94, 6, 27.5473, 48.3204, 9.81767, 73.2515, -88.5061, 53.2746
4.944, 6, 27.5006, 48.2735, 9.93854, 73.1571, -88.5421, 53.3673
4.948, 6, 27.4538, 48.2267, 10.0592, 73.0627, -88.5783, 53.4599
4.952, 6, 27.4069, 48.1801, 10.1795, 72.9682, -88.6146, 53.5523
4.956, 6, 27.3599, 48.1336, 10.2996, 72.8738, -88.6512, 53.6446
4.96, 6, 27.3128, 48.0873, 10.4194, 72.7794, -88.6879, 53.7368
4.964, 6, 27.2656, 48.0411, 10.539, 72.6849, -88.7248, 53.8289
4.968, 6, 27.2183, 47.9951, 10.6584, 72.5905, -88.7618, 53.9208
4.972, 6, 27.1708, 47.9493, 10.7775, 72.496, -88.7991, 54.0126
4.976, 6, 27.1233, 47.9036, 10.8963, 72.4015, -88.8365, 54.1043
4.98, 6, 27.0756, 47.858, 11.0149, 72.307, -88.8741, 54.1959
4.984, 6, 27.0279, 47.8127, 11.1332, 72.2125, -88.9119, 54.2873
4.988, 6, 26.98, 47.7675, 11.2512, 72.118, -88.9498, 54.3786
4.992, 6, 26.932, 47.7224, 11.3691, 72.0235, -88.988, 54.4698
4.996, 6, 26.8839, 47.6775, 11.4866, 71.9289, -89.0263, 54.5609
5, 6, 26.8357, 47.6327, 11.604, 71.8344, -89.0648, 54.6519
5.004, 6, 26.7874, 47.5881, 11.721, 71.7399, -89.1034, 54.7427
5.008, 6, 26.739, 47.5437, 11.8378, 71.6453, -89.1423, 54.8334
5.012, 6, 26.6905, 47.4994, 11.9544, 71.5507, -89.1813, 54.9239
5.016, 6, 26.6418, 47.4553, 12.0707, 71.4562, -89.2204, 55.0144
5.02, 6, 26.5931, 47.4113, 12.1868, 71.3616, -89.2598, 55.1047
5.024, 6, 26.5442, 47.3675, 12.3026, 71.267, -89.2993, 55.1949
5.028, 6, 26.4952, 47.3238, 12.4182, 71.1724, -89.339, 55.285
5.032, 6, 26.4462, 47.2803, 12.5335, 71.0777, -89.3789, 55.3749
5.036, 6, 26.397, 47.2369, 12.6486, 70.9831, -89.419, 55.4647
5.04, 6, 26.3476, 47.1937, 12.7634, 70.8885, -89.4592, 55.5544
5.044, 6, 26.2982, 47.1507, 12.878, 70.7938, -89.4996, 55.644
5.048, 6, 26.2487, 47.1078, 12.9924, 70.6992, -89.5401, 55.7335
5.052, 6, 26.199, 47.065, 13.1065, 70.6045, -89.5809, 55.8228
5.056, 6, 26.1493, 47.0224, 13.2203, 70.5098, -89.6218, 55.912
5.06, 6, 26.0994, 46.98, 13.3339, 70.4151, -89.6628, 56.0011
5.064, 6, 26.0494, 46.9377, 13.4473, 70.3204, -89.7041, 56.09
5.068, 6, 25.9993, 46.8955, 13.5604, 70.2257, -89.7455, 56.1788
5.072, 6, 25.9492, 46.8535, 13.6733, 70.131, -89.7871, 56.2675
5.076, 6, 25.8991, 46.8117, 13.7859, 70.0362, -89.8289, 56.3561
5.08, 6, 25.8494, 46.7701, 13.8982, 69.9415, -89.8708, 56.4445
5.084, 6, 25.8001, 46.7288, 14.0101, 69.8468, -89.9128, 56.5328
5.088, 6, 25.7515, 46.6879, 14.1216, 69.7523, -89.9549, 56.6208
5.092, 6, 25.7036, 46.6473, 14.2324, 69.658, -89.9971, 56.7084
5.096, 6, 25.6567, 46.6072, 14.3424, 69.5641, -90.0392, 56.7955
5.1, 6, 25.6106, 46.5676, 14.4513, 69.4709, -90.0812, 56.8819
5.104, 6, 25.5653, 46.5285, 14.5587, 69.3787, -90.1227, 56.9673
5.108, 6, 25.5208, 46.4897, 14.6644, 69.2878, -90.1638, 57.0514
5.112, 6, 25.477, 46.4512, 14.768, 69.1987, -90.2039, 57.134
5.116, 6, 25.4336, 46.4128, 14.8691, 69.1116, -90.2428, 57.2151
5.12, 6, 25.3906, 46.3745, 14.9676, 69.0269, -90.28, 57.2946
5.124, 6, 25.3476, 46.3362, 15.0633, 68.9448, -90.3152, 57.3728
5.128, 6, 25.3044, 46.2977, 15.1562, 68.8654, -90.3478, 57.4501
5.132, 6, 25.2607, 46.2591, 15.2467, 68.7884, -90.3776, 57.527
5.136, 6, 25.2163, 46.2204, 15.335, 68.7136, -90.4041, 57.6043
5.14, 6, 25.1713, 46.1814, 15.4217, 68.6405, -90.4272, 57.6829
5.144, 6, 25.1258, 46.1422, 15.5074, 68.5686, -90.4467, 57.7636
5.148, 7, 25.0801, 46.1024, 15.5929, 68.4972, -90.4626, 57.8475
5.152, 7, 25.0341, 46.062, 15.679, 68.4255, -90.475, 57.9356
5.156, 7, 24.9879, 46.0207, 15.7664, 68.3528, -90.484, 58.0288
5.16, 7, 24.9418, 45.9785, 15.856, 68.2782, -90.4899, 58.1278
5.164, 7, 24.8957, 45.9351, 15.9485, 68.2012, -90.4928, 58.2333
5.168, 7, 24.8497, 45.8902, 16.0442, 68.1212, -90.4934, 58.3456
5.172, 7, 24.8035, 45.844, 16.1437, 68.0378, -90.4919, 58.4648
5.176, 7, 24.7572, 45.7962, 16.2471, 67.9506, -90.4888, 58.5908
5.18, 7, 24.7107, 45.7469, 16.3544, 67.8598, -90.4844, 58.7233
5.184, 7, 24.6636, 45.6961, 16.4654, 67.7653, -90.4793, 58.8619
5.188, 7, 24.6158, 45.6437, 16.58, 67.6675, -90.4735, 59.0057
5.192, 7, 24.5669, 45.5899, 16.6976, 67.5666, -90.4673, 59.1542
5.196, 7, 24.5168, 45.5346, 16.8179, 67.4632, -90.461, 59.3067
5.2, 7, 24.4654, 45.478, 16.9403, 67.3574, -90.4545, 59.4624
5.204, 7, 24.4127, 45.4201, 17.0645, 67.2499, -90.4481, 59.6207
5.208, 7, 24.3589, 45.3613, 17.1899, 67.1408, -90.4418, 59.7811
5.212, 7, 24.3041, 45.3016, 17.3163, 67.0305, -90.4355, 59.943
5.216, 7, 24.2484, 45.2415, 17.4432, 66.9193, -90.4295, 60.1062
5.22, 7, 24.1918, 45.1809, 17.5705, 66.8073, -90.4236, 60.2703
5.224, 7, 24.1345, 45.1201, 17.6979, 66.6947, -90.418, 60.435
5.228, 7, 24.0766, 45.0593, 17.8253, 66.5816, -90.4126, 60.6002
5.232, 7, 24.0181, 44.9985, 17.9525, 66.4682, -90.4074, 60.7656
5.236, 7, 23.959, 44.9377, 18.0795, 66.3545, -90.4025, 60.9313
5.24, 7, 23.8996, 44.8772, 18.2061, 66.2405, -90.3978, 61.097
5.244, 7, 23.8398, 44.817, 18.3323, 66.1264, -90.3934, 61.2628
5.248, 7, 23.7798, 44.757, 18.4582, 66.012, -90.3892, 61.4286
5.252, 7, 23.7194, 44.6973, 18.5836, 65.8975, -90.3853, 61.5944
5.256, 7, 23.6589, 44.6379, 18.7085, 65.7828, -90.3817, 61.7601
5.26, 7, 23.5981, 44.5789, 18.833, 65.668, -90.3783, 61.9259
5.264, 7, 23.5371, 44.5202, 18.957, 65.553, -90.3751, 62.0916
5.268, 7, 23.4759, 44.4618, 19.0805, 65.4379, -90.3722, 62.2572
5.272, 7, 23.4146, 44.4038, 19.2035, 65.3226, -90.3696, 62.4228
5.276, 7, 23.353, 44.3461, 19.3261, 65.2072, -90.3672, 62.5884
5.28, 7, 23.2912, 44.2888, 19.4482, 65.0917, -90.3651, 62.7539
5.284, 7, 23.2293, 44.2319, 19.5698, 64.976, -90.3632, 62.9193
5.288, 7, 23.1671, 44.1753, 19.691, 64.8602, -90.3616, 63.0847
5.292, 7, 23.1048, 44.1191, 19.8116, 64.7443, -90.3602, 63.2501
5.296, 7, 23.0423, 44.0632, 19.9318, 64.6283, -90.3591, 63.4154
5.3, 7, 22.9796, 44.0077, 20.0515, 64.5121, -90.3583, 63.5806
5.304, 7, 22.9167, 43.9525, 20.1707, 64.3958, -90.3576, 63.7458
5.308, 7, 22.8537, 43.8977, 20.2894, 64.2794, -90.3573, 63.9109
5.312, 7, 22.7904, 43.8433, 20.4076, 64.1628, -90.3572, 64.076
5.316, 7, 22.727, 43.7892, 20.5254, 64.0462, -90.3574, 64.241
5.32, 7, 22.6633, 43.7355, 20.6427, 63.9294, -90.3578, 64.4059
5.324, 7, 22.5995, 43.6821, 20.7595, 63.8125, -90.3585, 64.5708
5.328, 7, 22.5355, 43.6291, 20.8758, 63.6955, -90.3594, 64.7357
5.332, 7, 22.4714, 43.5764, 20.9917, 63.5783, -90.3605, 64.9004
5.336, 7, 22.407, 43.5241, 21.107, 63.4611, -90.362, 65.0652
5.34, 7, 22.3425, 43.4722, 21.2219, 63.3437, -90.3637, 65.2298
5.344, 7, 22.2778, 43.4206, 21.3363, 63.2262, -90.3656, 65.3944
5.348, 7, 22.2128, 43.3694, 21.4502, 63.1086, -90.3678, 65.559
5.352, 7, 22.1478, 43.3185, 21.5637, 62.9909, -90.3702, 65.7234
5.356, 7, 22.0825, 43.268, 21.6767, 62.8731, -90.3729, 65.8879
5.36, 7, 22.017, 43.2178, 21.7892, 62.7551, -90.3758, 66.0523
5.364, 7, 21.9514, 43.1681, 21.9012, 62.6371, -90.379, 66.2166
5.368, 7, 21.8856, 43.1186, 22.0127, 62.5189, -90.3824, 66.3808
5.372, 7, 21.8195, 43.0696, 22.1238, 62.4007, -90.3861, 66.545
5.376, 7, 21.7534, 43.0209, 22.2344, 62.2823, -90.3901, 66.7092
5.38, 7, 21.687, 42.9725, 22.3445, 62.1638, -90.3943, 66.8732
5.384, 7, 21.6204, 42.9245, 22.4541, 62.0452, -90.3987, 67.0372
5.388, 7, 21.5537, 42.8769, 22.5633, 61.9265, -90.4034, 67.2012
5.392, 7, 21.4868, 42.8296, 22.672, 61.8078, -90.4083, 67.3651
5.396, 7, 21.4197, 42.7827, 22.7802, 61.6889, -90.4135, 67.5289
5.4, 7, 21.3524, 42.7362, 22.8879, 61.5699, -90.419, 67.6927
5.404, 7, 21.285, 42.69, 22.9951, 61.4508, -90.4247, 67.8564
5.408, 7, 21.2173, 42.6441, 23.1019, 61.3316, -90.4306, 68.0201
5.412, 7, 21.1495, 42.5987, 23.2082, 61.2123, -90.4368, 68.1837
5.416, 7, 21.0815, 42.5536, 23.314, 61.0929, -90.4432, 68.3472
5.42, 7, 21.0134, 42.5088, 23.4194, 60.9734, -90.4499, 68.5107
5.424, 7, 20.945, 42.4644, 23.5243, 60.8538, -90.4568, 68.6741
5.428, 7, 20.8765, 42.4204, 23.6287, 60.7341, -90.464, 68.8374
5.432, 7, 20.8078, 42.3767, 23.7326, 60.6143, -90.4714, 69.0007
5.436, 7, 20.7389, 42.3334, 23.836, 60.4944, -90.4791, 69.1639
5.44, 7, 20.6698, 42.2905, 23.939, 60.3745, -90.487, 69.3271
5.444, 7, 20.6006, 42.2479, 24.0415, 60.2544, -90.4952, 69.4902
5.448, 7, 20.5312, 42.2057, 24.1435, 60.1343, -90.5036, 69.6532
5.452, 7, 20.4616, 42.1638, 24.2451, 60.0141, -90.5122, 69.8162
5.456, 7, 20.3919, 42.1223, 24.3462, 59.8938, -90.5211, 69.9791
5.46, 7, 20.3219, 42.0812, 24.4468, 59.7734, -90.5303, 70.1419
5.464, 7, 20.2518, 42.0404, 24.5469, 59.6529, -90.5396, 70.3047
5.468, 7, 20.1815, 42, 24.6465, 59.5323, -90.5493, 70.4674
5.472, 7, 20.1111, 41.9599, 24.7457, 59.4117, -90.5591, 70.63
5.476, 7, 20.0404, 41.9202, 24.8444, 59.291, -90.5692, 70.7925
5.48, 7, 19.9696, 41.8809, 24.9426, 59.1702, -90.5796, 70.955
5.484, 7, 19.8986, 41.842, 25.0404, 59.0493, -90.5901, 71.1174
5.488, 7, 19.8275, 41.8034, 25.1376, 58.9283, -90.601, 71.2798
5.492, 7, 19.7562, 41.7651, 25.2344, 58.8073, -90.612, 71.4421
5.496, 7, 19.6847, 41.7273, 25.3308, 58.6862, -90.6233, 71.6043
5.5, 7, 19.613, 41.6897, 25.4266, 58.565, -90.6348, 71.7664
5.504, 7, 19.5412, 41.6526, 25.522, 58.4438, -90.6466, 71.9285
5.508, 7, 19.4692, 41.6158, 25.6169, 58.3225, -90.6586, 72.0905
5.512, 7, 19.397, 41.5794, 25.7113, 58.2011, -90.6709, 72.2524
5.516, 7, 19.3247, 41.5433, 25.8052, 58.0796, -90.6834, 72.4142
5.52, 7, 19.2522, 41.5076, 25.8987, 57.9581, -90.6961, 72.576
5.524, 7, 19.1795, 41.4723, 25.9917, 57.8365, -90.709, 72.7377
5.528, 7, 19.1067, 41.4373, 26.0842, 57.7149, -90.7222, 72.8993
5.532, 7, 19.0337, 41.4027, 26.1762, 57.5932, -90.7356, 73.0609
5.536, 7, 18.9605, 41.3685, 26.2678, 57.4714, -90.7493, 73.2224
5.54, 7, 18.8872, 41.3346, 26.3589, 57.3495, -90.7632, 73.3838
5.544, 7, 18.8137, 41.3011, 26.4495, 57.2276, -90.7773, 73.5451
5.548, 7, 18.7401, 41.268, 26.5396, 57.1057, -90.7917, 73.7063
5.552, 7, 18.6662, 41.2352, 26.6293, 56.9837, -90.8063, 73.8675
5.556, 7, 18.5922, 41.2028, 26.7185, 56.8616, -90.8211, 74.0286
5.56, 7, 18.5181, 41.1707, 26.8072, 56.7394, -90.8361, 74.1896
5.564, 7, 18.4438, 41.139, 26.8954, 56.6173, -90.8514, 74.3506
5.568, 7, 18.3693, 41.1077, 26.9832, 56.495, -90.8669, 74.5114
5.572, 7, 18.2947, 41.0768, 27.0705, 56.3727, -90.8826, 74.6722
5.576, 7, 18.2199, 41.0462, 27.1573, 56.2504, -90.8986, 74.8329
5.58, 7, 18.145, 41.0159, 27.2436, 56.128, -90.9148, 74.9935
5.584, 7, 18.0698, 40.9861, 27.3295, 56.0055, -90.9312, 75.1541
5.588, 7, 17.9946, 40.9566, 27.4149, 55.883, -90.9479, 75.3145
5.592, 7, 17.9192, 40.9274, 27.4998, 55.7605, -90.9648, 75.4749
5.596, 7, 17.8436, 40.8986, 27.5842, 55.6379, -90.9818, 75.6352
5.6, 7, 17.7679, 40.8702, 27.6682, 55.5153, -90.9992, 75.7954
5.604, 7, 17.692, 40.8422, 27.7516, 55.3926, -91.0167, 75.9555
5.608, 7, 17.6159, 40.8145, 27.8346, 55.2699, -91.0345, 76.1156
5.612, 7, 17.5397, 40.7872, 27.9172, 55.1471, -91.0525, 76.2755
5.616, 7, 17.4634, 40.7603, 27.9992, 55.0244, -91.0707, 76.4354
5.62, 7, 17.3869, 40.7337, 28.0808, 54.9015, -91.0891, 76.5952
5.624, 7, 17.3102, 40.7075, 28.1619, 54.7787, -91.1078, 76.7549
5.628, 7, 17.2334, 40.6816, 28.2425, 54.6558, -91.1266, 76.9145
5.632, 7, 17.1564, 40.6561, 28.3226, 54.5328, -91.1457, 77.074
5.636, 7, 17.0793, 40.631, 28.4023, 54.4098, -91.165, 77.2335
5.64, 7, 17.0021, 40.6062, 28.4815, 54.2868, -91.1846, 77.3928
5.644, 7, 16.9247, 40.5818, 28.5602, 54.1638, -91.2043, 77.5521
5.648, 7, 16.8473, 40.5578, 28.6384, 54.0408, -91.2243, 77.7113
5.652, 7, 16.7701, 40.5342, 28.7161, 53.9177, -91.2444, 77.8703
5.656, 7, 16.6932, 40.5109, 28.7934, 53.7946, -91.2648, 78.0293
5.66, 7, 16.6167, 40.488, 28.8701, 53.6716, -91.2854, 78.188
5.664, 7, 16.5409, 40.4656, 28.9462, 53.5487, -91.3061, 78.3464
5.668, 7, 16.4658, 40.4436, 29.0217, 53.4261, -91.327, 78.5044
5.672, 7, 16.3915, 40.422, 29.0964, 53.304, -91.348, 78.6616
5.676, 8, 16.3181, 40.4009, 29.1702, 53.1825, -91.3691, 78.8178
5.68, 8, 16.2458, 40.3804, 29.243, 53.0621, -91.3902, 78.9726
5.684, 8, 16.1746, 40.3604, 29.3144, 52.9431, -91.4112, 79.1255
5.688, 8, 16.1048, 40.3409, 29.3844, 52.8259, -91.4321, 79.2759
5.692, 8, 16.0366, 40.3221, 29.4526, 52.7111, -91.4527, 79.4233
5.696, 8, 15.9698, 40.3036, 29.5188, 52.5991, -91.4729, 79.5669
5.7, 8, 15.9043, 40.2854, 29.5828, 52.4903, -91.4926, 79.7065
5.704, 8, 15.84, 40.2673, 29.6444, 52.3852, -91.5115, 79.8416
5.708, 8, 15.7766, 40.2493, 29.7036, 52.284, -91.5293, 79.9724
5.712, 8, 15.7138, 40.2314, 29.7604, 52.1865, -91.5459, 80.0992
5.716, 8, 15.6514, 40.2135, 29.8149, 52.0927, -91.5609, 80.2228
5.72, 8, 15.589, 40.1957, 29.8675, 52.002, -91.5739, 80.3442
5.724, 8, 15.5265, 40.1781, 29.9184, 51.9138, -91.5848, 80.4648
5.728, 8, 15.4639, 40.1606, 29.9681, 51.8272, -91.5934, 80.5861
5.732, 8, 15.401, 40.143, 30.0172, 51.7413, -91.5994, 80.71
5.736, 8, 15.3379, 40.1251, 30.0663, 51.6549, -91.6027, 80.8382
5.74, 8, 15.2743, 40.1068, 30.116, 51.567, -91.6034, 80.9726
5.744, 8, 15.2105, 40.0879, 30.1668, 51.4764, -91.6014, 81.1148
5.748, 8, 15.1463, 40.0684, 30.2194, 51.382, -91.5967, 81.2664
5.752, 8, 15.0816, 40.0482, 30.2742, 51.2829, -91.5896, 81.4288
5.756, 8, 15.0163, 40.0273, 30.3315, 51.1783, -91.5801, 81.603
5.76, 8, 14.9501, 40.0055, 30.3917, 51.0677, -91.5685, 81.7895
5.764, 8, 14.8829, 39.983, 30.4548, 50.9508, -91.5552, 81.9884
5.768, 8, 14.8144, 39.9596, 30.5209, 50.8274, -91.5403, 82.1994
5.772, 8, 14.7442, 39.9354, 30.5899, 50.6978, -91.5243, 82.4221
5.776, 8, 14.6721, 39.9103, 30.6614, 50.5622, -91.5073, 82.6556
5.78, 8, 14.5979, 39.8843, 30.7354, 50.4212, -91.4897, 82.8988
5.784, 8, 14.5214, 39.8577, 30.8113, 50.2752, -91.4715, 83.1509
5.788, 8, 14.4427, 39.8305, 30.8889, 50.1248, -91.453, 83.4106
5.792, 8, 14.3619, 39.8028, 30.9677, 49.9706, -91.4344, 83.6769
5.796, 8, 14.2792, 39.7749, 31.0475, 49.8133, -91.4157, 83.9488
5.8, 8, 14.1949, 39.7468, 31.1279, 49.6533, -91.3971, 84.2253
5.804, 8, 14.1091, 39.7188, 31.2086, 49.4911, -91.3787, 84.5055
5.808, 8, 14.0218, 39.691, 31.2894, 49.3272, -91.3605, 84.7886
5.812, 8, 13.9332, 39.6635, 31.3701, 49.162, -91.3426, 85.0739
5.816, 8, 13.8434, 39.6363, 31.4503, 48.9959, -91.3251, 85.3608
5.82, 8, 13.7525, 39.6097, 31.5301, 48.8291, -91.308, 85.6489
5.824, 8, 13.6606, 39.5836, 31.6092, 48.6618, -91.2913, 85.9377
5.828, 8, 13.568, 39.5581, 31.6876, 48.4942, -91.2751, 86.2271
5.832, 8, 13.4747, 39.5334, 31.7653, 48.3264, -91.2593, 86.5168
5.836, 8, 13.381, 39.5093, 31.8421, 48.1584, -91.244, 86.8068
5.84, 8, 13.287, 39.486, 31.9181, 47.9903, -91.2292, 87.097
5.844, 8, 13.1927, 39.4635, 31.9932, 47.8221, -91.2149, 87.3872
5.848, 8, 13.0981, 39.4417, 32.0675, 47.6539, -91.2011, 87.6776
5.852, 8, 13.0033, 39.4207, 32.1409, 47.4857, -91.1877, 87.9679
5.856, 8, 12.9084, 39.4005, 32.2134, 47.3175, -91.1748, 88.2583
5.86, 8, 12.8133, 39.3811, 32.285, 47.1492, -91.1624, 88.5487
5.864, 8, 12.718, 39.3625, 32.3557, 46.981, -91.1504, 88.8391
5.868, 8, 12.6226, 39.3447, 32.4256, 46.8129, -91.139, 89.1294
5.872, 8, 12.5271, 39.3276, 32.4945, 46.6447, -91.128, 89.4198
5.876, 8, 12.4315, 39.3114, 32.5625, 46.4766, -91.1175, 89.7101
5.88, 8, 12.3358, 39.2959, 32.6297, 46.3086, -91.1074, 90.0004
5.884, 8, 12.2399, 39.2813, 32.6959, 46.1406, -91.0978, 90.2906
5.888, 8, 12.1439, 39.2674, 32.7613, 45.9726, -91.0887, 90.5808
5.892, 8, 12.0479, 39.2543, 32.8258, 45.8048, -91.08, 90.871
5.896, 8, 11.9517, 39.242, 32.8894, 45.6369, -91.0718, 91.1612
5.9, 8, 11.8554, 39.2304, 32.952, 45.4692, -91.0641, 91.4513
5.904, 8, 11.7591, 39.2197, 33.0138, 45.3016, -91.0568, 91.7413
5.908, 8, 11.6626, 39.2097, 33.0747, 45.134, -91.0499, 92.0313
5.912, 8, 11.5661, 39.2006, 33.1348, 44.9665, -91.0435, 92.3213
5.916, 8, 11.4695, 39.1922, 33.1939, 44.7992, -91.0376, 92.6112
5.92, 8, 11.3728, 39.1845, 33.2521, 44.6319, -91.0321, 92.901
5.924, 8, 11.2761, 39.1777, 33.3095, 44.4648, -91.027, 93.1908
5.928, 8, 11.1793, 39.1716, 33.3659, 44.2977, -91.0224, 93.4805
5.932, 8, 11.0824, 39.1663, 33.4215, 44.1308, -91.0182, 93.7702
5.936, 8, 10.9854, 39.1618, 33.4762, 43.964, -91.0145, 94.0598
5.94, 8, 10.8884, 39.158, 33.53, 43.7973, -91.0112, 94.3493
5.944, 8, 10.7914, 39.155, 33.5829, 43.6308, -91.0083, 94.6387
5.948, 8, 10.6943, 39.1528, 33.635, 43.4644, -91.0058, 94.9281
5.952, 8, 10.5971, 39.1514, 33.6861, 43.2981, -91.0038, 95.2174
5.956, 8, 10.4999, 39.1507, 33.7364, 43.132, -91.0022, 95.5067
5.96, 8, 10.4027, 39.1508, 33.7858, 42.9661, -91.0009, 95.7958
5.964, 8, 10.3054, 39.1516, 33.8344, 42.8003, -91.0001, 96.0849
5.968, 8, 10.2081, 39.1532, 33.882, 42.6347, -90.9997, 96.3738
5.972, 8, 10.1108, 39.1555, 33.9288, 42.4692, -90.9997, 96.6627
5.976, 8, 10.0134, 39.1586, 33.9747, 42.304, -91.0001, 96.9515
5.98, 8, 9.91607, 39.1625, 34.0197, 42.1389, -91.0009, 97.2403
5.984, 8, 9.81868, 39.1671, 34.0639, 41.974, -91.0021, 97.5289
5.988, 8, 9.72127, 39.1724, 34.1072, 41.8093, -91.0036, 97.8174
5.992, 8, 9.62385, 39.1785, 34.1496, 41.6448, -91.0055, 98.1058
5.996, 8, 9.52643, 39.1853, 34.1911, 41.4805, -91.0079, 98.3942
6, 8, 9.42901, 39.1929, 34.2318, 41.3164, -91.0105, 98.6824
6.004, 8, 9.33159, 39.2012, 34.2716, 41.1525, -91.0136, 98.9705
6.008, 8, 9.23417, 39.2102, 34.3106, 40.9888, -91.017, 99.2585
6.012, 8, 9.13676, 39.22, 34.3487, 40.8254, -91.0207, 99.5464
6.016, 8, 9.03937, 39.2305, 34.3859, 40.6622, -91.0248, 99.8342
6.02, 8, 8.94199, 39.2417, 34.4223, 40.4992, -91.0293, 100.122
6.024, 8, 8.84464, 39.2537, 34.4578, 40.3365, -91.0341, 100.409
6.028, 8, 8.7473, 39.2663, 34.4925, 40.174, -91.0393, 100.697
6.032, 8, 8.65, 39.2797, 34.5263, 40.0117, -91.0447, 100.984
6.036, 8, 8.55273, 39.2938, 34.5592, 39.8498, -91.0506, 101.271
6.04, 8, 8.45549, 39.3086, 34.5913, 39.688, -91.0567, 101.558
6.044, 8, 8.3583, 39.3242, 34.6226, 39.5265, -91.0632, 101.845
6.048, 8, 8.26114, 39.3404, 34.653, 39.3653, -91.07, 102.132
6.052, 8, 8.16404, 39.3573, 34.6825, 39.2044, -91.0771, 102.419
6.056, 8, 8.06698, 39.375, 34.7112, 39.0438, -91.0845, 102.705
6.06, 8, 7.96997, 39.3933, 34.7391, 38.8834, -91.0922, 102.992
6.064, 8, 7.87302, 39.4123, 34.7661, 38.7233, -91.1003, 103.278
