hehonglu123/Motion-Primitive-Planning/ILC/recorded_data/realrobot/from_NX/iteration_19/run_3.csv
timestamp, cmd_num, J1, J2, J3, J4, J5, J6
0.000381, -1, 39.63, 32.4471, 11.8319, 12.5453, 113.713, -48.8724
0.006048, -1, 39.63, 32.4471, 11.8319, 12.5453, 113.713, -48.8724
0.008029, -1, 39.63, 32.4471, 11.8319, 12.5453, 113.713, -48.8724
0.031365, -1, 39.63, 32.4471, 11.8319, 12.5453, 113.713, -48.8724
0.032599, -1, 39.63, 32.4471, 11.8319, 12.5453, 113.713, -48.8724
0.034961, -1, 39.63, 32.4471, 11.8319, 12.5453, 113.713, -48.8724
0.039485, -1, 39.63, 32.4471, 11.8319, 12.5453, 113.713, -48.8724
0.047421, -1, 39.63, 32.4471, 11.8319, 12.5453, 113.713, -48.8724
0.055505, -1, 39.6294, 32.447, 11.8319, 12.5453, 113.713, -48.8724
0.063414, -1, 39.6271, 32.4466, 11.8318, 12.5453, 113.713, -48.8725
0.071422, -1, 39.6218, 32.4452, 11.8318, 12.5453, 113.713, -48.8727
0.079516, -1, 39.6131, 32.4423, 11.8317, 12.5453, 113.712, -48.8739
0.087415, -1, 39.5999, 32.437, 11.8317, 12.5453, 113.711, -48.8785
0.095419, -1, 39.5802, 32.4285, 11.8318, 12.5453, 113.707, -48.8898
0.103498, -1, 39.5516, 32.4159, 11.8322, 12.5452, 113.7, -48.9104
0.111428, -1, 39.5132, 32.3983, 11.8343, 12.5452, 113.688, -48.9438
0.119419, -1, 39.4639, 32.3746, 11.8392, 12.5452, 113.669, -48.9942
0.127496, -1, 39.4018, 32.3442, 11.8475, 12.5452, 113.641, -49.0659
0.135448, -1, 39.3265, 32.3064, 11.8603, 12.5453, 113.604, -49.1604
0.143421, -1, 39.2374, 32.2608, 11.8781, 12.5456, 113.557, -49.2805
0.151589, -1, 39.1343, 32.2073, 11.9006, 12.5462, 113.501, -49.4258
0.159422, -1, 39.0172, 32.1459, 11.9273, 12.547, 113.433, -49.5958
0.167452, -1, 38.8867, 32.0771, 11.9579, 12.5485, 113.357, -49.7882
0.176348, -1, 38.7439, 32.0018, 11.992, 12.5504, 113.273, -49.9999
0.183512, -1, 38.5895, 31.9205, 12.0282, 12.5525, 113.183, -50.2276
0.19153, -1, 38.4252, 31.8343, 12.066, 12.5548, 113.089, -50.4673
0.200296, -1, 38.2529, 31.7441, 12.1048, 12.5572, 112.991, -50.7154
0.207524, -1, 38.0744, 31.6509, 12.1439, 12.5596, 112.89, -50.9687
0.215521, -1, 37.8909, 31.5556, 12.1828, 12.5621, 112.789, -51.2254
0.224798, -1, 37.7034, 31.4587, 12.2216, 12.5645, 112.687, -51.4838
0.231464, -1, 37.5131, 31.361, 12.2604, 12.5669, 112.585, -51.7432
0.239522, -1, 37.3216, 31.2631, 12.2991, 12.5694, 112.482, -52.0027
0.247495, -1, 37.1295, 31.1652, 12.338, 12.5718, 112.379, -52.2624
0.255579, -1, 36.9372, 31.0675, 12.3767, 12.5744, 112.276, -52.5224
0.26369, -1, 36.7452, 30.9697, 12.4155, 12.577, 112.173, -52.7828
0.271701, -1, 36.5535, 30.872, 12.4544, 12.5796, 112.07, -53.0432
0.279749, -1, 36.3619, 30.7743, 12.4933, 12.5822, 111.968, -53.3034
0.28788, -1, 36.1703, 30.6765, 12.5321, 12.5847, 111.865, -53.5638
0.295866, -1, 35.9787, 30.5786, 12.571, 12.5873, 111.762, -53.8244
0.303928, -1, 35.7871, 30.4806, 12.6099, 12.5899, 111.659, -54.085
0.312508, -1, 35.5953, 30.3826, 12.6488, 12.5924, 111.556, -54.3452
0.319952, -1, 35.4032, 30.2844, 12.6876, 12.5951, 111.453, -54.6055
0.328588, -1, 35.2109, 30.1861, 12.7264, 12.5977, 111.35, -54.8661
0.336051, -1, 35.0184, 30.0878, 12.7653, 12.6002, 111.247, -55.127
0.343962, -1, 34.9222, 30.0385, 12.7848, 12.6015, 111.195, -55.3876
0.351428, -1, 34.7299, 29.94, 12.8236, 12.6041, 111.092, -55.5179
0.359462, -1, 34.5377, 29.8416, 12.8624, 12.6066, 110.989, -55.7788
0.367407, -1, 34.3455, 29.7431, 12.9015, 12.6092, 110.886, -56.0397
0.502183, -1, 31.0661, 28.0677, 13.5631, 12.6549, 109.134, -60.4784
0.5034, -1, 31.0661, 28.0677, 13.5631, 12.6549, 109.134, -60.4784
0.504583, -1, 31.0661, 28.0677, 13.5631, 12.6549, 109.134, -60.4784
0.506627, -1, 30.97, 28.0184, 13.5826, 12.6563, 109.082, -60.6093
0.507832, -1, 30.97, 28.0184, 13.5826, 12.6563, 109.082, -60.6093
0.509796, -1, 30.8738, 27.9691, 13.6021, 12.6577, 109.03, -60.7399
0.511157, -1, 30.8738, 27.9691, 13.6021, 12.6577, 109.03, -60.7399
0.514713, -1, 30.7778, 27.9198, 13.6216, 12.6591, 108.979, -60.8705
0.515956, -1, 30.7778, 27.9198, 13.6216, 12.6591, 108.979, -60.8705
0.518738, -1, 30.6818, 27.8705, 13.641, 12.6605, 108.927, -61.0012
0.519971, -1, 30.6818, 27.8705, 13.641, 12.6605, 108.927, -61.0012
0.522142, -1, 30.5859, 27.8212, 13.6606, 12.6619, 108.876, -61.1318
0.523392, -1, 30.5859, 27.8212, 13.6606, 12.6619, 108.876, -61.1318
0.524672, -1, 30.5859, 27.8212, 13.6606, 12.6619, 108.876, -61.1318
0.526636, -1, 30.49, 27.7719, 13.6801, 12.6634, 108.824, -61.2625
0.53072, -1, 30.394, 27.7226, 13.6995, 12.6648, 108.772, -61.3933
0.53192, -1, 30.394, 27.7226, 13.6995, 12.6648, 108.772, -61.3933
0.533801, -1, 30.298, 27.6732, 13.719, 12.6661, 108.721, -61.5241
0.535162, -1, 30.298, 27.6732, 13.719, 12.6661, 108.721, -61.5241
0.536434, -1, 30.298, 27.6732, 13.719, 12.6661, 108.721, -61.5241
0.539366, -1, 30.2019, 27.6238, 13.7385, 12.6675, 108.669, -61.655
0.543421, -1, 30.1058, 27.5744, 13.758, 12.6689, 108.618, -61.7859
0.551469, -1, 29.9132, 27.4757, 13.797, 12.6716, 108.515, -62.0473
0.559404, -1, 29.7202, 27.3769, 13.8359, 12.6743, 108.411, -62.309
0.567407, -1, 29.5265, 27.2781, 13.8748, 12.6769, 108.308, -62.5707
0.57547, -1, 29.3325, 27.1793, 13.9137, 12.6795, 108.205, -62.8326
0.583434, -1, 29.1383, 27.0805, 13.9527, 12.6821, 108.101, -63.0942
0.591513, -1, 28.9439, 26.9816, 13.9917, 12.6846, 107.998, -63.3556
0.599468, -1, 28.7496, 26.8827, 14.0307, 12.6872, 107.894, -63.6171
0.607403, -1, 28.5554, 26.7838, 14.0696, 12.6896, 107.791, -63.8789
0.615468, -1, 28.3615, 26.6851, 14.1087, 12.6922, 107.688, -64.1407
0.623485, -1, 28.1682, 26.5864, 14.1477, 12.6946, 107.584, -64.4021
0.631405, -1, 27.9752, 26.4876, 14.1867, 12.6971, 107.481, -64.6639
0.639473, -1, 27.7824, 26.3887, 14.2258, 12.6996, 107.378, -64.9258
0.647406, -1, 27.5899, 26.2898, 14.2647, 12.7019, 107.275, -65.1876
0.655411, -1, 27.3977, 26.1908, 14.3036, 12.7044, 107.171, -65.4492
0.793472, -1, 24.1128, 24.5105, 14.9662, 12.7438, 105.416, -69.8983
0.794675, -1, 24.1128, 24.5105, 14.9662, 12.7438, 105.416, -69.8983
0.797363, -1, 24.0164, 24.4611, 14.9857, 12.7449, 105.364, -70.029
0.798571, -1, 24.0164, 24.4611, 14.9857, 12.7449, 105.364, -70.029
0.800625, -1, 23.92, 24.4117, 15.0051, 12.7461, 105.313, -70.1597
0.801821, -1, 23.92, 24.4117, 15.0051, 12.7461, 105.313, -70.1597
0.803792, -1, 23.8236, 24.3623, 15.0246, 12.7473, 105.261, -70.2906
0.808002, -1, 23.7271, 24.3128, 15.044, 12.7485, 105.209, -70.4213
0.809453, -1, 23.7271, 24.3128, 15.044, 12.7485, 105.209, -70.4213
0.810639, -1, 23.7271, 24.3128, 15.044, 12.7485, 105.209, -70.4213
0.812791, -1, 23.6305, 24.2634, 15.0635, 12.7497, 105.158, -70.5523
0.813997, -1, 23.6305, 24.2634, 15.0635, 12.7497, 105.158, -70.5523
0.815892, -1, 23.5339, 24.214, 15.083, 12.7509, 105.106, -70.6833
0.817322, -1, 23.5339, 24.214, 15.083, 12.7509, 105.106, -70.6833
0.818536, -1, 23.5339, 24.214, 15.083, 12.7509, 105.106, -70.6833
0.821561, -1, 23.4373, 24.1645, 15.1024, 12.7521, 105.054, -70.8141
0.822842, -1, 23.4373, 24.1645, 15.1024, 12.7521, 105.054, -70.8141
0.824909, -1, 23.3405, 24.1151, 15.1219, 12.7533, 105.002, -70.9449
0.826198, -1, 23.3405, 24.1151, 15.1219, 12.7533, 105.002, -70.9449
0.827984, -1, 23.2437, 24.0656, 15.1414, 12.7545, 104.951, -71.0758
0.830403, -1, 23.2437, 24.0656, 15.1414, 12.7545, 104.951, -71.0758
0.83249, -1, 23.1468, 24.0161, 15.1608, 12.7557, 104.899, -71.2067
0.841458, -1, 22.9528, 23.9172, 15.1997, 12.7582, 104.796, -71.4686
0.848088, -1, 22.8558, 23.8678, 15.2387, 12.7606, 104.692, -71.7305
0.855391, -1, 22.6618, 23.769, 15.2582, 12.7618, 104.641, -71.8613
0.863396, -1, 22.4681, 23.6703, 15.2971, 12.7643, 104.537, -72.1227
0.872497, -1, 22.178, 23.5223, 15.3556, 12.7681, 104.382, -72.5148
0.879375, -1, 22.0815, 23.473, 15.375, 12.7695, 104.331, -72.6456
0.88742, -1, 21.8884, 23.3743, 15.414, 12.772, 104.227, -72.9073
0.895394, -1, 21.6959, 23.2756, 15.453, 12.7747, 104.124, -73.1685
0.903404, -1, 21.5038, 23.1768, 15.4919, 12.7773, 104.021, -73.4299
0.912742, -1, 21.2153, 23.0287, 15.5504, 12.7812, 103.866, -73.8222
0.919402, -1, 21.1191, 22.9794, 15.5698, 12.7826, 103.815, -73.9531
0.928896, -1, 20.8305, 22.8315, 15.6282, 12.7867, 103.66, -74.345
0.937024, -1, 20.638, 22.7329, 15.6671, 12.7894, 103.557, -74.6061
0.943403, -1, 20.5416, 22.6836, 15.6866, 12.7908, 103.505, -74.7368
0.95382, -1, 20.2517, 22.5356, 15.7448, 12.7949, 103.351, -75.1289
0.959533, -1, 20.1548, 22.4862, 15.7643, 12.7962, 103.299, -75.2594
0.967387, -1, 19.9612, 22.3874, 15.8032, 12.799, 103.196, -75.5204
0.976386, -1, 19.7675, 22.2888, 15.8419, 12.8017, 103.093, -75.7817
0.983465, -1, 19.5739, 22.1901, 15.8808, 12.8044, 102.99, -76.0429
0.992439, -1, 19.3805, 22.0915, 15.9197, 12.8072, 102.887, -76.3042
0.999401, -1, 19.1874, 21.9928, 15.9585, 12.8099, 102.784, -76.565
1.00748, -1, 18.9946, 21.8942, 15.9975, 12.8126, 102.681, -76.8257
1.01538, -1, 18.8021, 21.7955, 16.0363, 12.8153, 102.578, -77.0866
1.02341, -1, 18.61, 21.6968, 16.075, 12.818, 102.475, -77.3477
1.03139, -1, 18.4182, 21.5982, 16.114, 12.8207, 102.372, -77.6084
1.03939, -1, 18.2263, 21.4997, 16.1528, 12.8234, 102.27, -77.8691
1.04747, -1, 18.0344, 21.4012, 16.1916, 12.826, 102.167, -78.1299
1.05538, -1, 17.8426, 21.3028, 16.2305, 12.8285, 102.064, -78.3907
1.0634, -1, 17.6506, 21.2045, 16.2694, 12.831, 101.961, -78.6513
1.07147, -1, 17.4582, 21.1061, 16.3082, 12.8335, 101.858, -78.9116
1.07939, -1, 17.2654, 21.0078, 16.347, 12.8359, 101.755, -79.1721
1.08741, -1, 17.0723, 20.9095, 16.3858, 12.8383, 101.652, -79.4329
1.09549, -1, 16.8793, 20.8112, 16.4246, 12.8407, 101.549, -79.6935
1.1034, -1, 16.6862, 20.713, 16.4634, 12.843, 101.446, -79.9539
1.11139, -1, 16.4932, 20.6148, 16.5021, 12.8454, 101.344, -80.2144
1.11946, -1, 16.3004, 20.5165, 16.5408, 12.8477, 101.241, -80.475
1.12758, -1, 16.1081, 20.4181, 16.5795, 12.85, 101.138, -80.7355
1.13539, -1, 15.9161, 20.3197, 16.6183, 12.8524, 101.036, -80.9957
1.14354, -1, 15.7244, 20.2211, 16.657, 12.8546, 100.933, -81.2557
1.15139, -1, 15.533, 20.1227, 16.6956, 12.857, 100.83, -81.5159
1.15945, -1, 15.3419, 20.0245, 16.7342, 12.8593, 100.728, -81.7761
1.16821, -1, 15.1508, 19.9262, 16.7731, 12.8616, 100.625, -82.0358
1.17544, -1, 14.9596, 19.828, 16.8118, 12.8638, 100.523, -82.2956
1.18355, -1, 14.7683, 19.7299, 16.8504, 12.8662, 100.42, -82.5556
1.19229, -1, 14.5767, 19.6318, 16.8891, 12.8684, 100.318, -82.8158
1.19949, -1, 14.3849, 19.5336, 16.9278, 12.8707, 100.215, -83.0755
1.20754, -1, 14.1927, 19.4356, 16.9665, 12.8729, 100.113, -83.3349
1.2163, -1, 14.0003, 19.3376, 17.0052, 12.8752, 100.01, -83.5944
1.22347, -1, 13.8079, 19.2397, 17.0437, 12.8776, 99.9075, -83.8541
1.23151, -1, 13.6154, 19.1419, 17.0824, 12.8798, 99.8049, -84.1138
1.24032, -1, 13.4231, 19.044, 17.1211, 12.8821, 99.7023, -84.373
1.24746, -1, 13.2311, 18.9461, 17.1596, 12.8844, 99.6002, -84.6323
1.25554, -1, 13.0395, 18.8482, 17.1982, 12.8868, 99.4977, -84.8916
1.26446, -1, 12.8483, 18.7502, 17.2369, 12.8892, 99.3952, -85.151
1.27165, -1, 12.6573, 18.6522, 17.2754, 12.8915, 99.2932, -85.41
1.27991, -1, 12.4666, 18.5545, 17.314, 12.894, 99.1908, -85.669
1.28908, -1, 12.2764, 18.4567, 17.3525, 12.8963, 99.0884, -85.928
1.29641, -1, 12.0862, 18.3589, 17.391, 12.8988, 98.9865, -86.187
1.30466, -1, 11.8959, 18.2613, 17.4296, 12.9012, 98.8843, -86.4457
1.31192, -1, 11.7054, 18.1637, 17.4682, 12.9036, 98.7824, -86.7042
1.32, -1, 11.5146, 18.066, 17.5067, 12.9061, 98.6807, -86.9628
1.32884, -1, 11.3236, 17.9685, 17.5452, 12.9085, 98.5787, -87.2216
1.33595, -1, 11.1323, 17.8709, 17.5838, 12.911, 98.4768, -87.4801
1.3445, -1, 10.9408, 17.7734, 17.6222, 12.9134, 98.3749, -87.7383
1.35276, -1, 10.845, 17.7247, 17.6415, 12.9147, 98.3239, -87.8674
1.35938, -1, 10.6533, 17.6273, 17.6799, 12.9171, 98.2219, -88.1256
1.36742, -1, 10.4619, 17.5297, 17.7183, 12.9198, 98.1202, -88.384
1.37537, -1, 10.2708, 17.4322, 17.7567, 12.9222, 98.0183, -88.6421
1.38338, -1, 10.08, 17.3347, 17.7951, 12.9248, 97.9163, -88.9001
1.39142, -1, 9.88955, 17.2371, 17.8334, 12.9275, 97.8147, -89.1582
1.39938, -1, 9.69938, 17.1396, 17.8718, 12.9301, 97.7125, -89.4163
1.40743, -1, 9.50972, 17.0422, 17.9101, 12.9329, 97.6107, -89.6744
1.41683, -1, 9.22577, 16.8962, 17.9675, 12.937, 97.4579, -90.0607
1.42339, -1, 9.13106, 16.8475, 17.9867, 12.9383, 97.4069, -90.1894
1.43143, -1, 8.94164, 16.7504, 18.025, 12.941, 97.3051, -90.447
1.44099, -1, 8.6573, 16.6046, 18.0826, 12.9449, 97.1526, -90.8332
1.44972, -1, 8.46769, 16.5074, 18.121, 12.9476, 97.0511, -91.0903
1.45545, -1, 8.37277, 16.4589, 18.1401, 12.949, 97.0004, -91.2189
1.46527, -1, 8.08722, 16.3134, 18.1975, 12.9529, 96.848, -91.6048
1.47137, -1, 7.99196, 16.265, 18.2167, 12.9542, 96.7973, -91.7334
1.47944, -1, 7.80148, 16.1682, 18.2549, 12.957, 96.6958, -91.9903
1.48842, -1, 7.61092, 16.0712, 18.2932, 12.9595, 96.5943, -92.2469
1.49538, -1, 7.4206, 15.9743, 18.3316, 12.9621, 96.4928, -92.5037
1.50344, -1, 7.23048, 15.8774, 18.3697, 12.9646, 96.3916, -92.7606
1.51137, -1, 7.04065, 15.7804, 18.4079, 12.9672, 96.2903, -93.0172
1.51936, -1, 6.8512, 15.6835, 18.4463, 12.9698, 96.1889, -93.2736
1.52748, -1, 6.66225, 15.5867, 18.4844, 12.9722, 96.0884, -93.5299
1.53549, -1, 6.47382, 15.4899, 18.5224, 12.9748, 95.9872, -93.7863
1.5434, -1, 6.2856, 15.3932, 18.5607, 12.9773, 95.8861, -94.0428
1.55138, -1, 6.09744, 15.2965, 18.5988, 12.9798, 95.7854, -94.2988
1.55937, -1, 5.90915, 15.1998, 18.637, 12.9821, 95.6843, -94.5547
1.56749, -1, 5.72072, 15.1031, 18.6752, 12.9844, 95.5833, -94.8106
1.57537, -1, 5.53218, 15.0065, 18.7132, 12.9867, 95.4828, -95.0665
1.58337, -1, 5.34347, 14.91, 18.7514, 12.9891, 95.3819, -95.3221
1.59146, -1, 5.15428, 14.8135, 18.7896, 12.9914, 95.2812, -95.5775
1.59939, -1, 4.96481, 14.7172, 18.8276, 12.9936, 95.1806, -95.833
1.60737, -1, 4.77545, 14.6208, 18.8656, 12.9959, 95.0797, -96.0886
1.61543, -1, 4.58601, 14.5244, 18.9038, 12.9981, 94.979, -96.3439
1.62337, -1, 4.3968, 14.428, 18.9418, 13.0002, 94.8783, -96.5988
1.63138, -1, 4.20788, 14.3316, 18.9798, 13.0024, 94.7774, -96.8536
1.63943, -1, 4.01922, 14.2352, 19.0178, 13.0047, 94.6766, -97.1088
1.64737, -1, 3.8312, 14.139, 19.0557, 13.007, 94.5759, -97.3639
1.65544, -1, 3.64372, 14.0429, 19.0937, 13.0092, 94.4751, -97.6186
1.66365, -1, 3.45649, 13.9467, 19.1317, 13.0116, 94.3745, -97.8734
1.67142, -1, 3.26957, 13.8507, 19.1694, 13.0139, 94.2738, -98.128
1.6795, -1, 3.08256, 13.7546, 19.2073, 13.0161, 94.173, -98.3827
1.68767, -1, 2.8956, 13.6586, 19.2453, 13.0184, 94.0726, -98.6371
1.69553, -1, 2.7085, 13.5625, 19.2832, 13.0206, 93.9718, -98.8912
1.70358, -1, 2.52123, 13.4666, 19.3211, 13.0229, 93.8715, -99.1452
1.71194, -1, 2.33378, 13.3706, 19.3588, 13.0252, 93.7712, -99.3994
1.72036, -1, 2.14593, 13.2749, 19.3966, 13.0275, 93.6709, -99.6534
1.72756, -1, 1.95779, 13.179, 19.4345, 13.0297, 93.5706, -99.907
1.73598, -1, 1.7696, 13.0831, 19.4723, 13.032, 93.4708, -100.161
1.74436, -1, 1.58137, 12.9873, 19.51, 13.0342, 93.3706, -100.414
1.75147, -1, 1.39326, 12.8915, 19.5479, 13.0364, 93.2705, -100.668
1.76043, -1, 1.2055, 12.7957, 19.5856, 13.0388, 93.1707, -100.921
1.76755, -1, 1.01809, 12.7, 19.6233, 13.0412, 93.0705, -101.174
1.77565, -1, 0.831394, 12.6044, 19.6611, 13.0436, 92.9705, -101.427
1.78453, -1, 0.645079, 12.5088, 19.6987, 13.0459, 92.8709, -101.68
1.79173, -1, 0.459146, 12.4133, 19.7363, 13.0484, 92.771, -101.933
1.79981, -1, 0.273451, 12.318, 19.774, 13.0508, 92.6714, -102.186
1.80881, -1, 0.0880149, 12.2225, 19.8116, 13.0533, 92.5721, -102.439
1.81586, -1, -0.0973837, 12.1272, 19.8492, 13.0557, 92.4724, -102.691
1.82451, -1, -0.283043, 12.0319, 19.8869, 13.0581, 92.3728, -102.944
1.83274, -1, -0.468896, 11.9368, 19.9244, 13.0607, 92.2735, -103.196
1.83993, -1, -0.56201, 11.8417, 19.9619, 13.0632, 92.1739, -103.448
1.84849, -1, -0.841632, 11.7467, 19.9995, 13.0656, 92.0744, -103.7
1.85536, -1, -0.934929, 11.6991, 20.0182, 13.0669, 92.0249, -103.826
1.86397, -1, -1.12168, 11.6041, 20.0556, 13.0694, 91.9255, -104.078
1.87138, -1, -1.3087, 11.509, 20.0932, 13.0718, 91.8262, -104.33
1.87935, -1, -1.49552, 11.414, 20.1307, 13.0744, 91.7272, -104.581
1.88736, -1, -1.68209, 11.3188, 20.1681, 13.077, 91.6279, -104.833
1.89661, -1, -1.96132, 11.1763, 20.2243, 13.0809, 91.4791, -105.21
1.90336, -1, -2.05412, 11.1288, 20.243, 13.0823, 91.4296, -105.335
1.91276, -1, -2.33164, 10.9865, 20.299, 13.0862, 91.2808, -105.712
1.91935, -1, -2.42399, 10.9391, 20.3177, 13.0876, 91.2311, -105.837
1.92964, -1, -2.70037, 10.7969, 20.3736, 13.0915, 91.0826, -106.214
1.93541, -1, -2.79227, 10.7495, 20.3923, 13.0928, 91.0331, -106.339
1.94497, -1, -3.0681, 10.6074, 20.4484, 13.0967, 90.8846, -106.715
1.95135, -1, -3.16017, 10.5601, 20.467, 13.098, 90.8353, -106.84
1.95944, -1, -3.34449, 10.4655, 20.5042, 13.1007, 90.7363, -107.091
1.96916, -1, -3.62152, 10.3238, 20.5601, 13.1044, 90.588, -107.467
1.97541, -1, -3.71398, 10.2767, 20.5788, 13.1057, 90.5387, -107.592
1.98494, -1, -3.8991, 10.1823, 20.616, 13.1082, 90.4398, -107.842
1.99136, -1, -4.08438, 10.088, 20.6532, 13.1106, 90.3411, -108.092
1.99943, -1, -4.27002, 9.99371, 20.6904, 13.1131, 90.2426, -108.342
2.00736, -1, -4.45564, 9.89936, 20.7276, 13.1154, 90.1439, -108.591
2.01556, -1, -4.6409, 9.80504, 20.7649, 13.1178, 90.0454, -108.841
2.02334, -1, -4.82583, 9.71085, 20.802, 13.1201, 89.9471, -109.09
2.03143, -1, -5.01035, 9.61673, 20.839, 13.1226, 89.8484, -109.34
2.04018, -1, -5.1941, 9.52267, 20.8762, 13.1249, 89.75, -109.589
2.04734, -1, -5.37745, 9.42863, 20.9133, 13.1272, 89.6518, -109.838
2.05537, -1, -5.5604, 9.33471, 20.9503, 13.1295, 89.5533, -110.087
2.06415, -1, -5.74292, 9.24076, 20.9875, 13.1318, 89.4551, -110.336
2.07134, -1, -5.92524, 9.14685, 21.0245, 13.1341, 89.3572, -110.584
2.07936, -1, -6.1076, 9.053, 21.0614, 13.1364, 89.2589, -110.833
2.08815, -1, -6.2903, 8.9592, 21.0985, 13.1386, 89.1608, -111.081
2.09538, -1, -6.47325, 8.86555, 21.1354, 13.1408, 89.0632, -111.33
2.10334, -1, -6.65636, 8.77189, 21.1722, 13.1429, 88.9651, -111.578
2.11215, -1, -6.83996, 8.67828, 21.2092, 13.1451, 88.8671, -111.826
2.11934, -1, -7.02387, 8.5847, 21.2461, 13.1472, 88.7694, -112.074
2.12734, -1, -7.20806, 8.49116, 21.2829, 13.1493, 88.6714, -112.322
2.13624, -1, -7.39229, 8.39754, 21.3199, 13.1514, 88.5735, -112.569
2.14334, -1, -7.57609, 8.30394, 21.3567, 13.1536, 88.4761, -112.817
2.15136, -1, -7.75961, 8.21049, 21.3934, 13.1558, 88.3784, -113.064
2.16019, -1, -7.94271, 8.11708, 21.4303, 13.1581, 88.281, -113.311
2.16741, -1, -8.12528, 8.02367, 21.4671, 13.1603, 88.1838, -113.559
2.17538, -1, -8.30709, 7.93038, 21.5038, 13.1625, 88.0863, -113.806
2.18422, -1, -8.48847, 7.83713, 21.5406, 13.1647, 87.9889, -114.053
2.19146, -1, -8.6695, 7.74391, 21.5774, 13.167, 87.8916, -114.299
2.19952, -1, -8.8502, 7.65071, 21.6141, 13.1693, 87.7942, -114.545
2.20829, -1, -9.03092, 7.55764, 21.6509, 13.1714, 87.6967, -114.792
2.21554, -1, -9.21201, 7.46464, 21.6876, 13.1737, 87.5996, -115.038
2.22345, -1, -9.39327, 7.37184, 21.7242, 13.176, 87.5024, -115.285
2.23226, -1, -9.57499, 7.27899, 21.761, 13.1782, 87.4052, -115.531
2.23937, -1, -9.75692, 7.18617, 21.7976, 13.1804, 87.3082, -115.777
2.24744, -1, -9.93922, 7.09349, 21.8341, 13.1826, 87.211, -116.023
2.25629, -1, -10.1218, 7.00073, 21.8708, 13.1848, 87.1138, -116.269
2.2635, -1, -10.3045, 6.90798, 21.9074, 13.1871, 87.0167, -116.515
2.27163, -1, -10.487, 6.81524, 21.944, 13.1893, 86.9195, -116.76
2.28051, -1, -10.6693, 6.72253, 21.9806, 13.1916, 86.8225, -117.006
2.28773, -1, -10.8511, 6.62995, 22.017, 13.1939, 86.7256, -117.251
2.2958, -1, -11.0324, 6.53733, 22.0534, 13.1964, 86.6287, -117.497
2.30375, -1, -11.2128, 6.44482, 22.09, 13.1987, 86.5321, -117.741
2.31187, -1, -11.3927, 6.3523, 22.1265, 13.2011, 86.4355, -117.986
2.32044, -1, -11.5723, 6.25985, 22.1629, 13.2036, 86.3387, -118.231
2.32794, -1, -11.7517, 6.16739, 22.1994, 13.206, 86.242, -118.476
2.33594, -1, -11.9309, 6.07511, 22.2359, 13.2085, 86.1456, -118.72
2.34449, -1, -12.1102, 5.98287, 22.2723, 13.211, 86.0489, -118.964
2.35191, -1, -12.1999, 5.9368, 22.2905, 13.2123, 86.0006, -119.209
2.35933, -1, -12.3795, 5.84485, 22.327, 13.2147, 85.9045, -119.331
2.3684, -1, -12.6497, 5.70683, 22.3813, 13.2184, 85.7599, -119.697
2.3754, -1, -12.74, 5.66086, 22.3995, 13.2196, 85.7118, -119.819
2.38333, -1, -12.9209, 5.56895, 22.4359, 13.2221, 85.616, -120.062
2.39262, -1, -13.1925, 5.43096, 22.4902, 13.2258, 85.4719, -120.428
2.39933, -1, -13.2831, 5.38495, 22.5083, 13.227, 85.4239, -120.55
2.40742, -1, -13.4642, 5.293, 22.5447, 13.2294, 85.3282, -120.793
2.41533, -1, -13.6449, 5.20108, 22.5809, 13.232, 85.2324, -121.036
2.42548, -1, -13.915, 5.06324, 22.635, 13.2359, 85.0887, -121.401
2.43143, -1, -14.0047, 5.01734, 22.6532, 13.2371, 85.041, -121.522
2.43933, -1, -14.1834, 4.92561, 22.6893, 13.2397, 84.9453, -121.765
2.44963, -1, -14.4508, 4.78805, 22.7435, 13.2435, 84.8018, -122.129
2.45533, -1, -14.5397, 4.74223, 22.7616, 13.2448, 84.7542, -122.25
2.46489, -1, -14.8061, 4.6049, 22.8159, 13.2486, 84.6106, -122.614
2.47383, -1, -14.8949, 4.55916, 22.8519, 13.251, 84.5149, -122.857
2.47933, -1, -15.0726, 4.46772, 22.8701, 13.2522, 84.4672, -122.978
2.48833, -1, -15.2506, 4.37645, 22.9062, 13.2547, 84.3715, -123.22
2.49634, -1, -15.429, 4.28515, 22.9422, 13.2571, 84.2758, -123.461
2.50332, -1, -15.6079, 4.19386, 22.9782, 13.2594, 84.1803, -123.703
2.51133, -1, -15.7871, 4.10264, 23.0143, 13.2617, 84.0848, -123.945
2.5194, -1, -15.9663, 4.01143, 23.0501, 13.2639, 83.9893, -124.186
2.52742, -1, -16.1459, 3.92013, 23.0862, 13.2661, 83.8939, -124.428
2.53533, -1, -16.3257, 3.82888, 23.1222, 13.2682, 83.7984, -124.669
2.54341, -1, -16.5051, 3.73768, 23.158, 13.2704, 83.703, -124.911
2.55133, -1, -16.6841, 3.64656, 23.1938, 13.2726, 83.6076, -125.152
2.55941, -1, -16.8625, 3.55545, 23.2297, 13.2749, 83.5122, -125.393
2.5674, -1, -17.0401, 3.46443, 23.2655, 13.2772, 83.4169, -125.634
2.57533, -1, -17.2169, 3.37348, 23.3014, 13.2793, 83.3216, -125.874
2.58341, -1, -17.3935, 3.28263, 23.3372, 13.2815, 83.2266, -126.115
2.59133, -1, -17.5698, 3.19179, 23.3729, 13.2836, 83.1315, -126.356
2.59943, -1, -17.7459, 3.10116, 23.4088, 13.2858, 83.0366, -126.596
2.60747, -1, -17.9219, 3.01056, 23.4448, 13.2879, 82.942, -126.836
2.61533, -1, -18.0981, 2.9201, 23.4804, 13.2901, 82.847, -127.076
2.62333, -1, -18.2746, 2.82975, 23.5162, 13.2922, 82.7523, -127.316
2.63141, -1, -18.4516, 2.73932, 23.552, 13.2943, 82.6577, -127.556
2.63933, -1, -18.629, 2.64894, 23.5876, 13.2963, 82.5629, -127.796
2.64741, -1, -18.8067, 2.55861, 23.6233, 13.2983, 82.4684, -128.035
2.65541, -1, -18.9847, 2.46815, 23.659, 13.3003, 82.3741, -128.275
2.66333, -1, -19.1629, 2.37769, 23.6946, 13.3024, 82.2796, -128.514
2.67133, -1, -19.3411, 2.28731, 23.7301, 13.3043, 82.1853, -128.753
2.67944, -1, -19.5188, 2.19691, 23.7658, 13.3064, 82.0915, -128.993
2.68748, -1, -19.6958, 2.10652, 23.8012, 13.3086, 81.9971, -129.232
2.69549, -1, -19.8724, 2.01621, 23.8366, 13.3108, 81.9029, -129.471
2.70345, -1, -20.0482, 1.92594, 23.8722, 13.313, 81.8091, -129.71
2.71144, -1, -20.2234, 1.83572, 23.9077, 13.3152, 81.7148, -129.948
2.7196, -1, -20.3983, 1.74558, 23.9432, 13.3174, 81.6207, -130.186
2.72751, -1, -20.5729, 1.65552, 23.9788, 13.3196, 81.527, -130.425
2.73533, -1, -20.7474, 1.56555, 24.0142, 13.3217, 81.4329, -130.663
2.74344, -1, -20.922, 1.47568, 24.0496, 13.324, 81.3392, -130.901
2.75137, -1, -21.097, 1.38595, 24.0851, 13.3261, 81.2456, -131.139
2.75937, -1, -21.2724, 1.29619, 24.1206, 13.3283, 81.1517, -131.377
2.76782, -1, -21.448, 1.20648, 24.1559, 13.3305, 81.0578, -131.615
2.77565, -1, -21.6241, 1.11684, 24.1913, 13.3326, 80.9641, -131.852
2.7844, -1, -21.8003, 1.02717, 24.2268, 13.3348, 80.8703, -132.09
2.79168, -1, -21.9767, 0.937535, 24.2622, 13.337, 80.7765, -132.327
2.79968, -1, -22.1533, 0.847947, 24.2975, 13.3391, 80.6829, -132.564
2.80864, -1, -22.3298, 0.758425, 24.3329, 13.3413, 80.5893, -132.801
2.81586, -1, -22.5058, 0.66893, 24.3681, 13.3436, 80.4956, -133.038
2.82442, -1, -22.6814, 0.579394, 24.4033, 13.3459, 80.402, -133.275
2.83269, -1, -22.8563, 0.489976, 24.4385, 13.3483, 80.3085, -133.512
2.83991, -1, -23.0303, 0.400561, 24.4737, 13.3508, 80.2149, -133.749
2.84851, -1, -23.204, 0.311192, 24.5088, 13.3532, 80.1214, -133.986
2.85673, -1, -23.2907, 0.266518, 24.5264, 13.3544, 80.0748, -134.104
2.86333, -1, -23.4639, 0.177247, 24.5616, 13.3569, 79.9811, -134.34
2.87263, -1, -23.7237, 0.0435144, 24.6143, 13.3604, 79.8412, -134.694
2.87931, -1, -23.8104, -0.00103221, 24.6319, 13.3616, 79.7947, -134.812
2.88731, -1, -23.9837, -0.0899791, 24.6671, 13.3641, 79.7015, -135.048
2.89649, -1, -24.2444, -0.223472, 24.7196, 13.3677, 79.5619, -135.402
2.90332, -1, -24.3314, -0.26795, 24.7372, 13.369, 79.5155, -135.52
2.91145, -1, -24.5057, -0.356845, 24.7724, 13.3714, 79.4224, -135.755
2.91934, -1, -24.6803, -0.445727, 24.8074, 13.3739, 79.3293, -135.991
2.92731, -1, -24.8552, -0.534618, 24.8424, 13.3762, 79.2363, -136.227
2.93548, -1, -25.0304, -0.623461, 24.8775, 13.3786, 79.1434, -136.462
2.94332, -1, -25.2053, -0.712282, 24.9125, 13.381, 79.0504, -136.697
2.9537, -1, -25.4669, -0.845456, 24.965, 13.3845, 78.9115, -137.049
2.95941, -1, -25.5539, -0.88985, 24.9825, 13.3858, 78.8651, -137.167
2.96916, -1, -25.814, -1.0229, 25.0348, 13.3895, 78.7259, -137.519
2.97532, -1, -25.9004, -1.06727, 25.0522, 13.3907, 78.6796, -137.637
2.98488, -1, -26.0728, -1.15599, 25.0873, 13.3932, 78.5874, -137.871
2.99237, -1, -26.2449, -1.24463, 25.1222, 13.3956, 78.4946, -138.106
3.00032, -1, -26.4167, -1.33312, 25.1569, 13.3979, 78.4021, -138.34
3.0074, -1, -26.5885, -1.42155, 25.1919, 13.4002, 78.3099, -138.575
3.01531, -1, -26.7605, -1.50985, 25.2268, 13.4025, 78.2173, -138.809
3.02331, -1, -26.9328, -1.59806, 25.2617, 13.4048, 78.1248, -139.042
3.03137, -1, -27.1052, -1.68622, 25.2965, 13.407, 78.0328, -139.276
3.03934, -1, -27.2778, -1.77448, 25.3314, 13.4091, 77.9404, -139.51
3.04731, -1, -27.4507, -1.86258, 25.3662, 13.4114, 77.8484, -139.744
3.05534, -1, -27.6238, -1.95067, 25.4009, 13.4134, 77.7565, -139.977
3.06333, -1, -27.7971, -2.03888, 25.4358, 13.4155, 77.6644, -140.211
3.07137, -1, -27.9704, -2.1269, 25.4705, 13.4176, 77.5724, -140.444
3.07932, -1, -28.1437, -2.21492, 25.5052, 13.4196, 77.4804, -140.678
3.08732, -1, -28.3168, -2.30297, 25.54, 13.4216, 77.3884, -140.911
3.09539, -1, -28.4896, -2.39101, 25.5748, 13.4238, 77.2963, -141.144
3.10342, -1, -28.6619, -2.47893, 25.6094, 13.4259, 77.2042, -141.376
3.11133, -1, -28.8337, -2.56692, 25.6441, 13.428, 77.1122, -141.609
3.11937, -1, -29.0047, -2.65487, 25.6788, 13.4302, 77.0203, -141.842
3.12732, -1, -29.1753, -2.74274, 25.7133, 13.4324, 76.9284, -142.075
3.13534, -1, -29.3458, -2.83055, 25.748, 13.4345, 76.8367, -142.307
3.14338, -1, -29.5166, -2.91826, 25.7827, 13.4365, 76.7447, -142.54
3.15144, -1, -29.6875, -3.00586, 25.8172, 13.4385, 76.6529, -142.772
3.15931, -1, -29.8585, -3.09336, 25.8518, 13.4406, 76.5613, -143.004
3.16737, -1, -30.0295, -3.18082, 25.8864, 13.4427, 76.4693, -143.236
3.17622, -1, -30.2005, -3.26834, 25.9209, 13.4447, 76.3776, -143.468
3.18342, -1, -30.3716, -3.35577, 25.9554, 13.4469, 76.2862, -143.7
3.19145, -1, -30.5431, -3.44321, 25.99, 13.4489, 76.1945, -143.932
3.20083, -1, -30.715, -3.53075, 26.0245, 13.4509, 76.1031, -144.164
3.20742, -1, -30.8868, -3.61811, 26.059, 13.4529, 76.0118, -144.395
3.2155, -1, -31.0585, -3.70549, 26.0936, 13.4549, 75.9204, -144.626
3.22389, -1, -31.2301, -3.79284, 26.128, 13.457, 75.829, -144.858
3.23137, -1, -31.4014, -3.88018, 26.1624, 13.459, 75.7378, -145.089
3.23945, -1, -31.5723, -3.96745, 26.1969, 13.4612, 75.6465, -145.321
3.2488, -1, -31.7428, -4.05468, 26.2313, 13.4633, 75.5552, -145.551
3.25536, -1, -31.9129, -4.14196, 26.2657, 13.4655, 75.4641, -145.782
3.26344, -1, -32.0826, -4.22918, 26.3001, 13.4677, 75.3731, -146.013
3.27309, -1, -32.252, -4.3163, 26.3345, 13.4699, 75.2819, -146.244
3.28033, -1, -32.4214, -4.40333, 26.3688, 13.4721, 75.1909, -146.475
3.28769, -1, -32.5911, -4.4903, 26.4031, 13.4742, 75.1003, -146.705
3.29721, -1, -32.7608, -4.57723, 26.4376, 13.4763, 75.0093, -146.935
3.3037, -1, -32.9305, -4.66416, 26.4719, 13.4785, 74.9184, -147.166
3.31183, -1, -33.1001, -4.7511, 26.5061, 13.4807, 74.828, -147.396
3.32139, -1, -33.2699, -4.83794, 26.5405, 13.4829, 74.7372, -147.626
3.32791, -1, -33.4399, -4.92485, 26.5747, 13.4852, 74.6466, -147.856
3.33649, -1, -33.6102, -5.01181, 26.6089, 13.4873, 74.5561, -148.086
3.34604, -1, -33.7805, -5.09859, 26.6432, 13.4896, 74.4655, -148.316
3.35243, -1, -33.9507, -5.18535, 26.6774, 13.4919, 74.375, -148.546
3.35982, -1, -34.0358, -5.22873, 26.6945, 13.493, 74.3297, -148.66
3.36977, -1, -34.291, -5.35882, 26.7458, 13.4963, 74.1941, -149.004
3.37535, -1, -34.3761, -5.40214, 26.7629, 13.4975, 74.1487, -149.119
3.3833, -1, -34.5459, -5.4888, 26.7971, 13.4998, 74.0581, -149.348
3.3933, -1, -34.7995, -5.6188, 26.8482, 13.5034, 73.9224, -149.692
3.39935, -1, -34.8838, -5.66211, 26.8653, 13.5046, 73.877, -149.807
3.4073, -1, -35.0523, -5.74866, 26.8995, 13.5071, 73.7865, -150.036
3.41859, -1, -35.3047, -5.87839, 26.9506, 13.5107, 73.6512, -150.379
3.4233, -1, -35.3889, -5.92153, 26.9677, 13.5119, 73.6058, -150.494
3.4313, -1, -35.5575, -6.00774, 27.0018, 13.5143, 73.5155, -150.723
3.44158, -1, -35.8103, -6.1371, 27.0528, 13.5178, 73.3801, -151.066
3.44731, -1, -35.8945, -6.18016, 27.0698, 13.519, 73.335, -151.18
3.45685, -1, -36.1473, -6.30938, 27.1209, 13.5226, 73.1993, -151.523
3.46564, -1, -36.3158, -6.39553, 27.1548, 13.5251, 73.109, -151.751
3.4713, -1, -36.4002, -6.43864, 27.1717, 13.5263, 73.0639, -151.865
3.4809, -1, -36.5691, -6.52487, 27.2058, 13.5286, 72.9283, -152.208
3.48739, -1, -36.7379, -6.61102, 27.2397, 13.5308, 72.8832, -152.322
3.49693, -1, -36.9069, -6.69719, 27.2735, 13.5332, 72.7932, -152.55
3.5033, -1, -37.0759, -6.78337, 27.3075, 13.5355, 72.703, -152.778
3.51136, -1, -37.2448, -6.86949, 27.3414, 13.5377, 72.613, -153.006
3.5193, -1, -37.4132, -6.95549, 27.3752, 13.54, 72.5232, -153.233
3.52731, -1, -37.5813, -7.0416, 27.4092, 13.5422, 72.4333, -153.461
3.53536, -1, -37.7491, -7.12764, 27.4431, 13.5445, 72.3435, -153.688
3.5433, -1, -37.9167, -7.21363, 27.4769, 13.5467, 72.2537, -153.916
3.5513, -1, -38.0842, -7.29957, 27.5108, 13.5489, 72.164, -154.143
3.55936, -1, -38.2516, -7.38545, 27.5448, 13.5511, 72.0742, -154.371
3.56731, -1, -38.4189, -7.47121, 27.5786, 13.5533, 71.9845, -154.598
3.5753, -1, -38.5862, -7.5569, 27.6124, 13.5554, 71.8951, -154.825
3.58337, -1, -38.7535, -7.64261, 27.6463, 13.5575, 71.8053, -155.052
3.5913, -1, -38.9208, -7.72827, 27.6801, 13.5595, 71.7158, -155.279
3.5993, -1, -39.0881, -7.81388, 27.7138, 13.5616, 71.6267, -155.506
3.60747, -1, -39.2556, -7.89956, 27.7477, 13.5636, 71.5372, -155.733
3.6153, -1, -39.4231, -7.98526, 27.7815, 13.5656, 71.4479, -155.96
3.62331, -1, -39.5907, -8.0708, 27.8151, 13.5675, 71.3585, -156.186
3.63136, -1, -39.7584, -8.15635, 27.8488, 13.5695, 71.2692, -156.413
3.6393, -1, -39.926, -8.24184, 27.8825, 13.5714, 71.1799, -156.639
3.64739, -1, -40.0936, -8.32728, 27.9162, 13.5734, 71.0905, -156.865
3.65529, -1, -40.2611, -8.41265, 27.9498, 13.5753, 71.0014, -157.092
3.6633, -1, -40.4283, -8.49803, 27.9836, 13.5773, 70.9119, -157.318
3.6716, -1, -40.5953, -8.58341, 28.0172, 13.5793, 70.8227, -157.544
3.67931, -1, -40.7621, -8.66882, 28.0508, 13.5813, 70.7338, -157.77
3.68752, -1, -40.9287, -8.75415, 28.0846, 13.5833, 70.6446, -157.996
3.69576, -1, -41.0951, -8.83948, 28.1182, 13.5853, 70.5554, -158.222
3.70341, -1, -41.2614, -8.92471, 28.1518, 13.5873, 70.4664, -158.448
3.71145, -1, -41.4276, -9.00985, 28.1853, 13.5893, 70.3771, -158.673
3.71979, -1, -41.5938, -9.09501, 28.219, 13.5913, 70.2879, -158.899
3.72743, -1, -41.7601, -9.18011, 28.2526, 13.5933, 70.1989, -159.124
3.7353, -1, -41.9265, -9.26515, 28.2861, 13.5953, 70.1098, -159.35
3.74438, -1, -42.0929, -9.35013, 28.3198, 13.5974, 70.0208, -159.575
3.75139, -1, -42.2591, -9.43522, 28.3534, 13.5994, 69.9318, -159.8
3.7594, -1, -42.4254, -9.52023, 28.3869, 13.6014, 69.843, -160.026
3.76822, -1, -42.5918, -9.60522, 28.4204, 13.6034, 69.754, -160.251
3.77552, -1, -42.7582, -9.69017, 28.4539, 13.6055, 69.665, -160.476
3.78358, -1, -42.9247, -9.77516, 28.4873, 13.6075, 69.5765, -160.701
3.79181, -1, -43.091, -9.86009, 28.5208, 13.6096, 69.4875, -160.926
3.80039, -1, -43.2572, -9.94502, 28.5543, 13.6117, 69.3988, -161.151
3.80802, -1, -43.4233, -10.0299, 28.5878, 13.6138, 69.3103, -161.376
3.81644, -1, -43.5893, -10.1149, 28.6213, 13.6158, 69.2216, -161.6
3.82458, -1, -43.7553, -10.1998, 28.6548, 13.6179, 69.1331, -161.825
3.83192, -1, -43.9211, -10.2846, 28.6881, 13.62, 69.0446, -162.05
3.84047, -1, -44.0866, -10.3693, 28.7215, 13.6221, 68.9562, -162.274
3.84846, -1, -44.2519, -10.454, 28.755, 13.6243, 68.8675, -162.498
3.85592, -1, -44.3345, -10.5386, 28.7885, 13.6266, 68.7788, -162.723
3.86448, -1, -44.5822, -10.6231, 28.8218, 13.6288, 68.6904, -162.947
3.87254, -1, -44.6648, -10.6654, 28.8385, 13.6299, 68.646, -163.059
3.87996, -1, -44.8301, -10.7499, 28.872, 13.6321, 68.5574, -163.283
3.8873, -1, -44.9955, -10.8343, 28.9054, 13.6342, 68.4689, -163.507
3.89529, -1, -45.1608, -10.9189, 28.9388, 13.6364, 68.3807, -163.731
3.90334, -1, -45.3261, -11.0034, 28.9722, 13.6386, 68.2921, -163.955
3.91134, -1, -45.4914, -11.0878, 29.0056, 13.6409, 68.2038, -164.179
3.91928, -1, -45.6567, -11.1723, 29.0387, 13.6432, 68.1158, -164.403
3.92872, -1, -45.9043, -11.2988, 29.0888, 13.6466, 67.9831, -164.738
3.93529, -1, -45.9862, -11.3406, 29.1055, 13.6477, 67.9389, -164.85
3.94338, -1, -46.1475, -11.4229, 29.1389, 13.6501, 67.8509, -165.073
3.95287, -1, -46.3808, -11.5404, 29.1894, 13.6536, 67.7204, -165.403
3.95928, -1, -46.455, -11.5773, 29.206, 13.6548, 67.6782, -165.51
3.96887, -1, -46.6626, -11.6798, 29.2536, 13.6582, 67.5585, -165.813
3.9771, -1, -46.7852, -11.7395, 29.2818, 13.6603, 67.4872, -165.993
3.98328, -1, -46.8407, -11.7666, 29.2945, 13.6613, 67.455, -166.074
3.99141, -1, -46.9395, -11.8158, 29.3167, 13.663, 67.3992, -166.216
4.00117, -1, -47.0575, -11.878, 29.3395, 13.6647, 67.3363, -166.375
4.00729, -1, -47.0893, -11.8956, 29.3445, 13.665, 67.3209, -166.414
4.01632, -1, -47.1417, -11.925, 29.3517, 13.6655, 67.2975, -166.473
4.02453, -1, -47.1806, -11.9471, 29.3556, 13.6657, 67.2824, -166.511
4.03131, -1, -47.2082, -11.9626, 29.3575, 13.6659, 67.2737, -166.533
4.03928, -1, -47.2263, -11.9726, 29.3583, 13.666, 67.2689, -166.545
4.04736, -1, -47.2371, -11.9785, 29.3587, 13.666, 67.2666, -166.551
4.05525, 2, -47.2428, -11.9815, 29.3589, 13.6661, 67.2654, -166.553
4.06334, 2, -47.2449, -11.9828, 29.359, 13.6661, 67.2649, -166.554
4.07142, 2, -47.245, -11.9833, 29.3591, 13.6661, 67.2646, -166.555
4.07928, 2, -47.2447, -11.9835, 29.3591, 13.6662, 67.2645, -166.555
4.08729, 2, -47.2447, -11.9836, 29.3592, 13.6662, 67.2645, -166.555
4.09535, 2, -47.245, -11.9837, 29.3592, 13.6661, 67.2645, -166.556
4.10328, 2, -47.2459, -11.9839, 29.3592, 13.6661, 67.2644, -166.556
4.11144, 2, -47.2472, -11.9844, 29.3592, 13.6661, 67.2644, -166.556
4.11935, 2, -47.2489, -11.9852, 29.3592, 13.6661, 67.2644, -166.556
4.1274, 2, -47.2505, -11.9861, 29.3592, 13.6661, 67.2645, -166.556
4.13528, 2, -47.2519, -11.9869, 29.3592, 13.6661, 67.2644, -166.556
4.14335, 2, -47.2528, -11.9876, 29.3592, 13.6661, 67.2644, -166.556
4.15134, 2, -47.2533, -11.988, 29.3593, 13.6661, 67.2644, -166.556
4.15928, 2, -47.2535, -11.9882, 29.3593, 13.6661, 67.2644, -166.556
4.16736, 2, -47.2536, -11.9882, 29.3593, 13.6661, 67.2644, -166.556
4.17528, 2, -47.2532, -11.9882, 29.3593, 13.6661, 67.2644, -166.556
4.18331, 2, -47.2527, -11.9882, 29.3593, 13.6662, 67.2644, -166.556
4.19147, 2, -47.2524, -11.9882, 29.3593, 13.6662, 67.2644, -166.555
4.19937, 2, -47.252, -11.9882, 29.3593, 13.6662, 67.2644, -166.556
4.2074, 2, -47.2519, -11.9882, 29.3593, 13.6661, 67.2644, -166.556
4.21545, 2, -47.2518, -11.9883, 29.3593, 13.6661, 67.2645, -166.555
4.2234, 2, -47.2519, -11.9884, 29.3593, 13.6661, 67.2645, -166.555
4.23145, 2, -47.2521, -11.9887, 29.3593, 13.6661, 67.2644, -166.555
4.23946, 2, -47.2527, -11.9891, 29.3593, 13.6661, 67.2644, -166.555
4.2473, 2, -47.2532, -11.9894, 29.3593, 13.6661, 67.2644, -166.555
4.25531, 2, -47.2536, -11.9895, 29.3593, 13.666, 67.2644, -166.555
4.26343, 2, -47.2537, -11.9896, 29.3593, 13.666, 67.2644, -166.555
4.27146, 2, -47.2538, -11.9896, 29.3593, 13.666, 67.2644, -166.555
4.27952, 2, -47.2536, -11.9896, 29.3593, 13.6661, 67.2645, -166.555
4.28765, 2, -47.2535, -11.9896, 29.3593, 13.6661, 67.2645, -166.555
4.29559, 2, -47.253, -11.9895, 29.3593, 13.6661, 67.2645, -166.555
4.30363, 2, -47.2527, -11.9895, 29.3593, 13.6661, 67.2645, -166.555
4.31194, 2, -47.2524, -11.9895, 29.3593, 13.6661, 67.2645, -166.555
4.32044, 2, -47.2522, -11.9895, 29.3593, 13.6661, 67.2644, -166.555
4.32782, 2, -47.2522, -11.9895, 29.3593, 13.666, 67.2644, -166.555
4.33638, 2, -47.2521, -11.9896, 29.3593, 13.6661, 67.2645, -166.555
4.34386, 2, -47.2521, -11.9896, 29.3593, 13.6661, 67.2645, -166.555
4.3524, 2, -47.2521, -11.9897, 29.3593, 13.666, 67.2645, -166.555
4.35998, 2, -47.2521, -11.9897, 29.3593, 13.666, 67.2645, -166.555
4.36846, 2, -47.2521, -11.9898, 29.3593, 13.666, 67.2645, -166.555
4.3753, 2, -47.2521, -11.9898, 29.3593, 13.666, 67.2646, -166.555
4.38332, 2, -47.252, -11.9897, 29.3593, 13.666, 67.2646, -166.555
4.39133, 2, -47.252, -11.9897, 29.3593, 13.666, 67.2645, -166.555
4.39927, 2, -47.2519, -11.9896, 29.3593, 13.666, 67.2645, -166.555
4.40856, 2, -47.2518, -11.9895, 29.3593, 13.666, 67.2645, -166.555
4.41526, 2, -47.2518, -11.9895, 29.3593, 13.666, 67.2645, -166.555
4.42458, 2, -47.2516, -11.9895, 29.3593, 13.666, 67.2645, -166.555
4.4314, 2, -47.2515, -11.9895, 29.3593, 13.666, 67.2644, -166.555
4.43927, 2, -47.2515, -11.9895, 29.3593, 13.666, 67.2645, -166.555
4.44738, 2, -47.2514, -11.9895, 29.3593, 13.6659, 67.2646, -166.555
4.45688, 2, -47.2514, -11.9895, 29.3593, 13.666, 67.2645, -166.555
4.46488, 2, -47.2513, -11.9895, 29.3593, 13.666, 67.2646, -166.555
4.47282, 2, -47.2512, -11.9895, 29.3593, 13.666, 67.2646, -166.555
4.48091, 2, -47.2512, -11.9895, 29.3593, 13.666, 67.2646, -166.555
4.48905, 2, -47.2512, -11.9895, 29.3593, 13.666, 67.2646, -166.555
4.49526, 2, -47.2511, -11.9895, 29.3593, 13.666, 67.2646, -166.555
4.50504, 2, -47.2511, -11.9894, 29.3593, 13.666, 67.2645, -166.555
4.51132, 2, -47.251, -11.9893, 29.3593, 13.666, 67.2646, -166.555
4.52028, 2, -47.2508, -11.9893, 29.3593, 13.666, 67.2646, -166.555
4.52828, 2, -47.2508, -11.9892, 29.3593, 13.666, 67.2646, -166.555
4.53527, 2, -47.2507, -11.9892, 29.3593, 13.666, 67.2646, -166.555
4.54327, 2, -47.2506, -11.9892, 29.3593, 13.666, 67.2646, -166.555
4.55141, 2, -47.2505, -11.9892, 29.3593, 13.666, 67.2646, -166.555
4.55926, 2, -47.2504, -11.9892, 29.3593, 13.666, 67.2646, -166.555
4.56728, 2, -47.2503, -11.9892, 29.3593, 13.6659, 67.2646, -166.555
4.57535, 2, -47.2501, -11.9892, 29.3593, 13.666, 67.2646, -166.555
4.58326, 2, -47.25, -11.9892, 29.3593, 13.666, 67.2646, -166.555
4.59132, 2, -47.2499, -11.9892, 29.3593, 13.666, 67.2646, -166.555
4.59934, 2, -47.2498, -11.9892, 29.3593, 13.666, 67.2646, -166.555
4.60727, 2, -47.2497, -11.9891, 29.3593, 13.6659, 67.2646, -166.555
4.61535, 2, -47.2496, -11.989, 29.3593, 13.6659, 67.2646, -166.555
4.62333, 2, -47.2495, -11.989, 29.3593, 13.6659, 67.2646, -166.555
4.63133, 2, -47.2494, -11.9889, 29.3593, 13.6659, 67.2646, -166.555
4.63926, 2, -47.2493, -11.9889, 29.3593, 13.6658, 67.2647, -166.555
4.64734, 2, -47.2492, -11.9889, 29.3593, 13.6658, 67.2647, -166.555
4.65526, 2, -47.2492, -11.9889, 29.3593, 13.6658, 67.2647, -166.555
4.66327, 2, -47.2491, -11.9889, 29.3593, 13.6658, 67.2647, -166.555
4.67142, 2, -47.249, -11.9889, 29.3593, 13.6659, 67.2647, -166.555
4.67927, 2, -47.249, -11.9889, 29.3593, 13.6659, 67.2647, -166.555
4.6873, 2, -47.2489, -11.9889, 29.3593, 13.6658, 67.2647, -166.555
4.69542, 2, -47.2489, -11.9889, 29.3593, 13.6659, 67.2647, -166.555
4.70335, 2, -47.2488, -11.9888, 29.3593, 13.6658, 67.2647, -166.555
4.71143, 2, -47.2488, -11.9888, 29.3593, 13.6658, 67.2647, -166.555
4.71945, 2, -47.2487, -11.9887, 29.3593, 13.6658, 67.2647, -166.555
4.72738, 2, -47.2486, -11.9886, 29.3593, 13.6658, 67.2647, -166.555
4.73537, 2, -47.2485, -11.9886, 29.3593, 13.6658, 67.2647, -166.555
4.74344, 2, -47.2485, -11.9886, 29.3593, 13.6658, 67.2647, -166.555
4.75134, 2, -47.2484, -11.9886, 29.3593, 13.6657, 67.2647, -166.555
4.75938, 2, -47.2484, -11.9886, 29.3593, 13.6658, 67.2648, -166.555
4.7674, 2, -47.2483, -11.9886, 29.3593, 13.6658, 67.2647, -166.555
4.77535, 2, -47.2483, -11.9886, 29.3593, 13.6658, 67.2647, -166.555
4.78351, 2, -47.2483, -11.9886, 29.3593, 13.6658, 67.2648, -166.555
4.79198, 2, -47.2483, -11.9885, 29.3593, 13.6657, 67.2648, -166.555
4.80034, 2, -47.2482, -11.9885, 29.3593, 13.6658, 67.2648, -166.555
4.80777, 2, -47.2482, -11.9885, 29.3593, 13.6657, 67.2648, -166.555
4.81604, 2, -47.2481, -11.9884, 29.3593, 13.6656, 67.2648, -166.555
4.82376, 2, -47.2481, -11.9883, 29.3593, 13.6657, 67.2648, -166.555
4.83238, 2, -47.248, -11.9883, 29.3593, 13.6656, 67.2649, -166.554
4.84016, 2, -47.2479, -11.9882, 29.3593, 13.6656, 67.2648, -166.554
4.84783, 2, -47.2479, -11.9882, 29.3593, 13.6656, 67.2648, -166.554
4.85638, 2, -47.2478, -11.9882, 29.3593, 13.6656, 67.2648, -166.554
4.8641, 2, -47.2478, -11.9882, 29.3593, 13.6656, 67.2648, -166.554
4.87191, 2, -47.2477, -11.9882, 29.3593, 13.6656, 67.2648, -166.554
4.87933, 2, -47.2477, -11.9882, 29.3593, 13.6656, 67.2648, -166.554
4.8884, 2, -47.2477, -11.9882, 29.3593, 13.6656, 67.2649, -166.554
4.89526, 2, -47.2477, -11.9882, 29.3593, 13.6656, 67.2649, -166.554
4.90455, 2, -47.2477, -11.9881, 29.3593, 13.6656, 67.2649, -166.554
4.91137, 2, -47.2477, -11.9881, 29.3593, 13.6656, 67.2649, -166.554
4.91926, 2, -47.2476, -11.988, 29.3593, 13.6656, 67.265, -166.554
4.92857, 2, -47.2475, -11.9879, 29.3593, 13.6655, 67.265, -166.554
4.9353, 2, -47.2474, -11.9879, 29.3593, 13.6655, 67.265, -166.554
4.94325, 2, -47.2474, -11.9879, 29.3593, 13.6655, 67.265, -166.554
4.95318, 2, -47.2472, -11.9878, 29.3593, 13.6655, 67.265, -166.554
4.9593, 2, -47.2472, -11.9878, 29.3593, 13.6654, 67.265, -166.554
4.96726, 2, -47.2472, -11.9878, 29.3593, 13.6654, 67.265, -166.554
4.97682, 2, -47.2471, -11.9878, 29.3593, 13.6654, 67.265, -166.554
4.98503, 2, -47.2471, -11.9878, 29.3593, 13.6655, 67.265, -166.554
4.99131, 2, -47.2471, -11.9878, 29.3593, 13.6655, 67.265, -166.554
5.00026, 2, -47.2471, -11.9878, 29.3593, 13.6654, 67.265, -166.554
5.00733, 2, -47.2471, -11.9877, 29.3593, 13.6654, 67.265, -166.554
5.01525, 2, -47.247, -11.9877, 29.3593, 13.6653, 67.265, -166.554
5.02325, 2, -47.247, -11.9876, 29.3593, 13.6654, 67.265, -166.554
5.03137, 2, -47.2469, -11.9876, 29.3593, 13.6653, 67.265, -166.554
5.03925, 2, -47.2468, -11.9875, 29.3593, 13.6653, 67.265, -166.554
5.04726, 2, -47.2467, -11.9875, 29.3593, 13.6653, 67.265, -166.554
5.05547, 2, -47.2466, -11.9875, 29.3593, 13.6653, 67.265, -166.554
5.06426, 2, -47.2466, -11.9875, 29.3593, 13.6652, 67.2651, -166.554
5.07227, 2, -47.2466, -11.9875, 29.3593, 13.6652, 67.2651, -166.554
5.08033, 2, -47.2465, -11.9874, 29.3593, 13.6652, 67.2651, -166.554
5.08826, 2, -47.2465, -11.9874, 29.3593, 13.6652, 67.265, -166.554
5.09626, 2, -47.2465, -11.9874, 29.3593, 13.6652, 67.2651, -166.554
5.10433, 2, -47.2465, -11.9874, 29.3593, 13.6652, 67.265, -166.554
5.11227, 2, -47.2465, -11.9874, 29.3593, 13.6652, 67.2651, -166.554
5.11942, 2, -47.2465, -11.9873, 29.3593, 13.6652, 67.2651, -166.554
5.12726, 2, -47.2464, -11.9873, 29.3593, 13.6652, 67.2651, -166.554
5.13549, 2, -47.2463, -11.9872, 29.3593, 13.6651, 67.2651, -166.554
5.14332, 4, -47.2463, -11.9872, 29.3593, 13.6651, 67.2651, -166.554
5.15131, 4, -47.2461, -11.9872, 29.3593, 13.6651, 67.2652, -166.554
5.15926, 4, -47.2461, -11.9872, 29.3593, 13.6651, 67.2652, -166.554
5.16733, 4, -47.246, -11.9871, 29.3593, 13.6651, 67.2652, -166.554
5.17525, 4, -47.246, -11.9871, 29.3593, 13.6651, 67.2652, -166.554
5.18326, 4, -47.246, -11.9871, 29.3593, 13.6651, 67.2652, -166.554
5.19142, 4, -47.246, -11.9871, 29.3593, 13.665, 67.2652, -166.554
5.19932, 4, -47.2459, -11.9871, 29.3593, 13.665, 67.2652, -166.554
5.20736, 4, -47.2459, -11.987, 29.3593, 13.665, 67.2653, -166.554
5.21541, 4, -47.2458, -11.987, 29.3593, 13.665, 67.2653, -166.554
5.22335, 4, -47.2458, -11.987, 29.3593, 13.665, 67.2653, -166.553
5.23142, 4, -47.2458, -11.9869, 29.3593, 13.665, 67.2653, -166.553
5.23961, 4, -47.2458, -11.9869, 29.3593, 13.665, 67.2653, -166.553
5.25521, 4, -47.2456, -11.9868, 29.3593, 13.665, 67.2654, -166.553
5.25721, 4, -47.2456, -11.9868, 29.3593, 13.665, 67.2654, -166.553
5.27013, 4, -47.2455, -11.9868, 29.3593, 13.6649, 67.2654, -166.553
5.27278, 4, -47.2455, -11.9868, 29.3593, 13.6649, 67.2653, -166.553
5.28044, 4, -47.2454, -11.9868, 29.3593, 13.665, 67.2653, -166.553
5.28823, 4, -47.2454, -11.9868, 29.3593, 13.665, 67.2654, -166.553
5.29583, 4, -47.2454, -11.9867, 29.3593, 13.6649, 67.2654, -166.553
5.30391, 4, -47.2454, -11.9867, 29.3593, 13.6649, 67.2653, -166.553
5.31211, 4, -47.2454, -11.9867, 29.3593, 13.6649, 67.2653, -166.553
5.32007, 4, -47.2453, -11.9867, 29.3593, 13.6649, 67.2653, -166.553
5.32994, 4, -47.2453, -11.9866, 29.3593, 13.6649, 67.2654, -166.553
5.33624, 4, -47.2453, -11.9866, 29.3593, 13.6649, 67.2653, -166.553
5.34519, 4, -47.2452, -11.9866, 29.3593, 13.6649, 67.2653, -166.553
5.35439, 4, -47.2452, -11.9865, 29.3593, 13.6649, 67.2654, -166.553
5.36072, 4, -47.2451, -11.9865, 29.3593, 13.6649, 67.2653, -166.553
5.36807, 4, -47.2451, -11.9865, 29.3593, 13.6649, 67.2654, -166.553
5.37815, 4, -47.245, -11.9865, 29.3593, 13.6649, 67.2653, -166.553
5.38465, 4, -47.245, -11.9865, 29.3593, 13.6649, 67.2654, -166.553
5.39601, 4, -47.245, -11.9865, 29.3593, 13.6648, 67.2654, -166.553
5.40261, 4, -47.2449, -11.9865, 29.3593, 13.6648, 67.2654, -166.553
5.40742, 4, -47.245, -11.9865, 29.3593, 13.6648, 67.2654, -166.553
5.41729, 4, -47.2459, -11.987, 29.3597, 13.6649, 67.2654, -166.553
5.42338, 4, -47.2469, -11.9876, 29.3603, 13.6653, 67.2656, -166.553
5.43441, 4, -47.2524, -11.9932, 29.3671, 13.6764, 67.2684, -166.552
5.44146, 4, -47.2594, -12.0022, 29.3798, 13.7013, 67.2747, -166.547
5.44943, 4, -47.271, -12.0174, 29.4045, 13.7502, 67.2883, -166.537
5.45715, 5, -47.279, -12.0282, 29.4231, 13.7884, 67.2989, -166.528
5.46357, 5, -47.3011, -12.0579, 29.4771, 13.9003, 67.3305, -166.503
5.47517, 5, -47.353, -12.1255, 29.6114, 14.1846, 67.4093, -166.437
5.48109, 5, -47.4026, -12.1883, 29.7438, 14.4697, 67.488, -166.372
5.48963, 5, -47.465, -12.266, 29.9136, 14.8386, 67.5879, -166.287
5.49715, 5, -47.5009, -12.3106, 30.1223, 15.2907, 67.7094, -166.183
5.50887, 5, -47.6268, -12.4665, 30.3676, 15.8182, 67.8494, -166.063
5.51143, 5, -47.6744, -12.5254, 30.5026, 16.1062, 67.9252, -165.998
5.52226, 5, -47.8312, -12.7195, 30.9507, 17.0452, 68.169, -165.788
5.52742, 5, -47.8873, -12.7893, 31.1115, 17.3771, 68.2536, -165.715
5.53566, 5, -48.0035, -12.9346, 31.4459, 18.0573, 68.4251, -165.566
5.54338, 5, -48.1234, -13.0853, 31.7917, 18.7495, 68.5961, -165.417
5.55241, 5, -48.2444, -13.2383, 32.1441, 19.4445, 68.7648, -165.269
5.56048, 5, -48.3639, -13.3897, 32.4983, 20.1305, 68.9296, -165.122
5.56847, 5, -48.478, -13.5369, 32.8504, 20.799, 69.0908, -164.97
5.57821, 6, -48.6294, -13.7424, 33.3607, 21.7438, 69.3301, -164.707
5.58348, 6, -48.6724, -13.8056, 33.5237, 22.0384, 69.4102, -164.604
5.59155, 7, -48.7439, -13.9252, 33.8354, 22.5929, 69.5735, -164.363
5.6029, 7, -48.8107, -14.0896, 34.2656, 23.3328, 69.8299, -163.891
5.60745, 7, -48.8221, -14.1403, 34.3988, 23.5567, 69.9196, -163.699
5.6181, 8, -48.8262, -14.2776, 34.7723, 24.1744, 70.2042, -163.021
5.62357, 8, -48.8186, -14.3186, 34.89, 24.3662, 70.3042, -162.762
5.63238, 9, -48.7923, -14.3951, 35.1169, 24.7359, 70.5123, -162.204
5.64338, 10, -48.7305, -14.5001, 35.4452, 25.2724, 70.8413, -161.293
5.65041, 10, -48.6769, -14.5659, 35.6613, 25.6268, 71.07, -160.659
5.6564, 10, -48.6466, -14.5979, 35.7689, 25.8043, 71.1863, -160.338
5.6634, 11, -48.5804, -14.6607, 35.9836, 26.1609, 71.4213, -159.693
5.67155, 11, -48.508, -14.7227, 36.1983, 26.5211, 71.658, -159.05
5.68045, 12, -48.4311, -14.7851, 36.4115, 26.8865, 71.8955, -158.409
5.69119, 12, -48.3519, -14.8479, 36.6221, 27.2581, 72.134, -157.445
5.6959, 13, -48.2719, -14.9096, 36.8312, 27.6368, 72.3738, -157.123
5.70684, 13, -48.15, -14.9981, 37.1407, 28.2182, 72.7368, -156.152
5.71154, 14, -48.1085, -15.0273, 37.2428, 28.4153, 72.8588, -155.825
5.72444, 15, -47.9791, -15.1163, 37.5482, 29.014, 73.2279, -154.845
5.7275, 15, -47.9342, -15.1461, 37.6493, 29.2155, 73.3514, -154.518
5.73989, 15, -47.7932, -15.2343, 37.9492, 29.822, 73.7216, -153.54
5.74349, 16, -47.7434, -15.2634, 38.0482, 30.0241, 73.8443, -153.215
5.75271, 16, -47.6385, -15.3226, 38.2449, 30.4272, 74.0876, -152.569
5.75954, 17, -47.5271, -15.3836, 38.4386, 30.8272, 74.3266, -151.929
5.7684, 17, -47.4105, -15.4463, 38.629, 31.2232, 74.5601, -151.294
5.77575, 18, -47.2893, -15.5097, 38.8173, 31.6144, 74.7869, -150.666
5.78436, 18, -47.1632, -15.5739, 39.0034, 32.001, 75.0073, -150.047
5.79238, 19, -47.0318, -15.6402, 39.1869, 32.3841, 75.2214, -149.436
5.80051, 19, -46.8949, -15.7095, 39.3687, 32.7654, 75.4302, -148.832
5.80973, 20, -46.7529, -15.7811, 39.5496, 33.1454, 75.6344, -148.234
5.81665, 20, -46.6057, -15.8545, 39.728, 33.5246, 75.8348, -147.644
5.82578, 21, -46.4537, -15.9299, 39.9036, 33.9037, 76.0315, -147.059
5.83349, 21, -46.2971, -16.0077, 40.0772, 34.2819, 76.2243, -146.48
5.84236, 22, -46.1361, -16.0876, 40.2488, 34.6591, 76.4128, -145.907
5.84889, 22, -45.9705, -16.1689, 40.4172, 35.0336, 76.5966, -145.342
5.86013, 23, -45.7119, -16.2934, 40.664, 35.5889, 76.8627, -144.503
5.86479, 23, -45.7119, -16.3359, 40.7451, 35.7718, 76.9486, -144.227
5.87381, 24, -45.4377, -16.4225, 40.9047, 36.1335, 77.116, -143.678
5.88111, 24, -45.2461, -16.5109, 41.0599, 36.4888, 77.2771, -143.135
5.88851, 25, -45.0477, -16.6005, 41.2111, 36.8366, 77.4323, -142.596
5.9004, 25, -44.7379, -16.7364, 41.4301, 37.3438, 77.654, -141.797
5.90468, 26, -44.6311, -16.7823, 41.5007, 37.5089, 77.7251, -141.532
5.91437, 26, -44.4123, -16.8747, 41.638, 37.8335, 77.8643, -141.005
5.92153, 27, -44.1864, -16.9674, 41.7697, 38.1506, 77.9993, -140.479
5.93287, 27, -43.9541, -17.0596, 41.8956, 38.6119, 78.1951, -139.692
5.93544, 28, -43.8355, -17.1054, 41.9562, 38.6119, 78.1951, -139.692
5.94658, 28, -43.469, -17.2414, 42.1283, 39.0554, 78.3835, -138.908
5.95317, 29, -43.2159, -17.33, 42.2345, 39.3409, 78.5056, -138.386
5.95967, 29, -43.087, -17.3737, 42.285, 39.4807, 78.5655, -138.125
5.96736, 30, -42.8242, -17.4595, 42.3807, 39.7542, 78.6828, -137.603
5.97852, 30, -42.4152, -17.5842, 42.5106, 40.1483, 78.8539, -136.821
5.98728, 31, -42.1322, -17.6641, 42.5884, 40.4006, 78.964, -136.3
5.99183, 31, -41.9878, -17.703, 42.6246, 40.5235, 79.0182, -136.04
6.00279, 32, -41.5438, -17.8165, 42.723, 40.8794, 79.177, -135.26
6.00973, 32, -41.3924, -17.8531, 42.78, 41.1063, 79.2794, -134.741
6.01803, 33, -40.9285, -17.9587, 42.8299, 41.3251, 79.3796, -134.224
6.02628, 33, -40.6108, -18.025, 42.8727, 41.5357, 79.4769, -133.707
6.03226, 34, -40.4496, -18.0571, 42.8913, 41.638, 79.5246, -133.449
6.03936, 34, -40.1238, -18.1195, 42.923, 41.8365, 79.6181, -132.934
6.04737, 35, -39.7932, -18.1791, 42.9475, 42.027, 79.7093, -132.42
6.05538, 35, -39.4568, -18.2353, 42.965, 42.2103, 79.7976, -131.907
6.06447, 36, -39.1137, -18.288, 42.9753, 42.3858, 79.884, -131.395
6.07573, 36, -38.5854, -18.3609, 42.9782, 42.6344, 80.0095, -130.63
6.08038, 37, -38.4061, -18.3835, 42.9759, 42.7135, 80.0501, -130.375
6.09075, 37, -37.8595, -18.446, 42.9584, 42.9395, 80.1694, -129.615
6.09537, 38, -37.6746, -18.465, 42.9491, 43.0112, 80.2079, -129.362
6.10627, 38, -37.1132, -18.5168, 42.9116, 43.2151, 80.3209, -128.606
6.11138, 39, -36.9237, -18.5324, 42.8957, 43.2792, 80.3572, -128.355
6.1204, 39, -36.5414, -18.5609, 42.8589, 43.4023, 80.4285, -127.854
6.12838, 40, -36.154, -18.5857, 42.8153, 43.5179, 80.4983, -127.355
6.13647, 40, -35.7603, -18.6066, 42.7654, 43.6264, 80.5662, -126.858
6.14524, 41, -35.3609, -18.6235, 42.7088, 43.7277, 80.6323, -126.363
6.15148, 41, -34.9558, -18.6367, 42.6457, 43.8215, 80.6958, -125.87
6.16039, 42, -34.5464, -18.6465, 42.5763, 43.9086, 80.7582, -125.379
6.16748, 42, -34.1339, -18.653, 42.5004, 43.9884, 80.8176, -124.891
6.17642, 43, -33.7182, -18.6564, 42.4183, 44.0611, 80.8763, -124.405
6.18364, 43, -33.2985, -18.6564, 42.3303, 44.1265, 80.9326, -123.92
6.19251, 44, -32.873, -18.6527, 42.2365, 44.1851, 80.9872, -123.439
6.20287, 44, -32.4413, -18.6451, 42.1371, 44.2588, 81.0668, -122.721
6.20934, 45, -32.0031, -18.6338, 42.0317, 44.2801, 81.092, -122.483
6.21948, 45, -31.3368, -18.6102, 41.8623, 44.3323, 81.1667, -121.772
6.22536, 46, -31.1134, -18.6006, 41.8029, 44.3459, 81.1907, -121.536
6.23543, 46, -30.4404, -18.5665, 41.6158, 44.3747, 81.2589, -120.833
6.23948, 47, -30.2145, -18.5531, 41.5505, 44.3805, 81.2815, -120.599
6.24925, 47, -29.7586, -18.5229, 41.4155, 44.387, 81.3259, -120.134
6.25729, 48, -29.296, -18.4884, 41.2746, 44.3866, 81.3685, -119.67
6.2647, 48, -28.8273, -18.4495, 41.1274, 44.3772, 81.4101, -119.208
6.27254, 49, -28.3534, -18.4063, 40.9744, 44.3592, 81.4521, -118.748
6.28046, 49, -27.8767, -18.3587, 40.8155, 44.3322, 81.4933, -118.29
6.29185, 50, -27.1566, -18.2785, 40.5649, 44.2731, 81.5542, -117.604
6.29944, 50, -26.9146, -18.249, 40.3896, 44.223, 81.5962, -117.148
6.30424, 51, -26.4252, -18.186, 40.2997, 44.1941, 81.6175, -116.92
6.31572, 51, -25.6768, -18.081, 40.0195, 44.0925, 81.6812, -116.239
6.32002, 52, -25.4243, -18.0432, 39.9222, 44.0538, 81.7028, -116.012
6.32941, 52, -24.9168, -17.9639, 39.7228, 43.9681, 81.7473, -115.558
6.33646, 53, -24.4074, -17.8793, 39.5174, 43.8723, 81.792, -115.106
6.3448, 53, -23.8948, -17.7887, 39.3047, 43.7667, 81.8371, -114.653
6.35456, 54, -23.3762, -17.6919, 39.0842, 43.6505, 81.8846, -114.202
6.36236, 54, -22.8493, -17.589, 38.8572, 43.5237, 81.9339, -113.75
6.37072, 55, -22.3148, -17.4798, 38.6229, 43.3855, 81.9845, -113.298
6.37615, 55, -22.0456, -17.3645, 38.3811, 43.2356, 82.0385, -112.846
6.38892, 56, -21.2349, -17.2434, 38.1333, 42.9888, 82.1218, -112.169
6.39211, 56, -20.9633, -17.1806, 38.0067, 42.9888, 82.1506, -111.944
6.40218, 57, -20.1383, -16.9841, 37.6161, 42.7162, 82.21, -111.493
6.40938, 57, -19.5765, -16.8461, 37.3477, 42.5197, 82.2701, -111.043
6.41547, 58, -19.2927, -16.7748, 37.2108, 42.4169, 82.3012, -110.818
6.42336, 58, -18.7213, -16.6273, 36.9324, 42.2016, 82.3652, -110.368
6.43134, 59, -18.147, -16.4734, 36.6474, 41.9736, 82.4305, -109.918
6.44098, 59, -17.2781, -16.233, 36.2064, 41.6071, 82.5346, -109.244
6.44924, 60, -16.9843, -16.1508, 35.904, 41.3456, 82.6075, -108.794
6.45543, 60, -16.3886, -15.9825, 35.7505, 41.2098, 82.6451, -108.569
6.46573, 61, -15.4816, -15.7197, 35.2819, 40.7822, 82.7597, -107.895
6.47323, 61, -14.8732, -15.5387, 34.9622, 40.4815, 82.8386, -107.446
6.48107, 62, -14.2609, -15.3542, 34.6377, 40.1685, 82.9196, -106.997
6.49121, 62, -13.952, -15.1652, 34.3091, 39.8433, 83.0019, -106.547
6.49535, 63, -13.3266, -15.0683, 34.1435, 39.6761, 83.0439, -106.323
6.50509, 63, -12.6928, -14.8697, 33.809, 39.1557, 83.1723, -105.648
6.51314, 64, -12.0535, -14.5627, 33.2994, 38.7928, 83.2611, -105.198
6.52212, 64, -11.0868, -14.3509, 32.953, 38.4159, 83.3537, -104.746
6.52963, 65, -10.4305, -14.1314, 32.6001, 38.0235, 83.4511, -104.293
6.53633, 65, -10.0981, -14.0189, 32.4214, 37.8208, 83.502, -104.066
6.54853, 66, -9.08649, -13.6711, 31.8768, 37.1847, 83.6642, -103.38
6.55213, 66, -8.74556, -13.5517, 31.6921, 36.9635, 83.7218, -103.151
6.56179, 67, -7.71346, -13.1823, 31.1255, 36.2707, 83.9057, -102.458
6.5682, 67, -7.36477, -13.0553, 30.9329, 36.0309, 83.9709, -102.226
6.57533, 68, -6.65996, -12.795, 30.5429, 35.5381, 84.1069, -101.759
6.58435, 68, -5.94754, -12.5275, 30.1491, 35.0306, 84.2496, -101.29
6.59249, 69, -5.22962, -12.2534, 29.7511, 34.5101, 84.3986, -100.819
6.59972, 69, -4.50548, -11.9713, 29.3498, 33.9774, 84.5527, -100.346
6.60734, 70, -3.77297, -11.6817, 28.9474, 33.4336, 84.7123, -99.8715
6.61536, 70, -3.03126, -11.3835, 28.5443, 32.8758, 84.878, -99.3942
6.62605, 71, -2.28146, -11.0773, 28.1396, 32.0109, 85.1398, -98.6751
6.6323, 71, -1.52349, -10.765, 27.7317, 31.7146, 85.2315, -98.4339
6.63935, 72, -0.757728, -10.446, 27.3209, 31.1097, 85.4219, -97.949
6.65135, 73, 0.401277, -9.95632, 26.7014, 30.1717, 85.7238, -97.2165
6.65711, 73, 0.789652, -9.78915, 26.4944, 29.8531, 85.8286, -96.9712
6.66341, 73, 1.56968, -9.44971, 26.0807, 29.208, 86.0437, -96.48
6.67247, 74, 2.35299, -9.10423, 25.6687, 28.5548, 86.2665, -95.9874
6.67943, 74, 3.13876, -8.75411, 25.2603, 27.8947, 86.496, -95.4936
6.69295, 75, 3.92596, -8.39875, 24.8572, 27.2289, 86.8517, -94.7519
6.69661, 75, 4.71422, -8.03839, 24.459, 26.5607, 86.973, -94.5046
6.70745, 76, 5.89556, -7.48901, 23.8722, 25.5585, 87.3449, -93.7617
6.71244, 76, 6.28868, -7.30336, 23.6802, 25.2246, 87.4715, -93.5137
6.72894, 77, 7.85964, -6.54225, 22.9263, 23.8955, 87.9943, -92.5219
6.74294, 78, 9.03859, -5.94979, 22.3735, 22.897, 88.41, -91.5267
6.74444, 78, 9.43172, -5.74826, 22.1917, 22.5621, 88.5542, -91.5267
6.74762, 78, 9.43172, -5.74826, 22.1917, 22.5621, 88.5542, -91.5267
6.75226, 79, 10.22, -5.33808, 21.8304, 21.8882, 88.8522, -91.0238
6.75928, 79, 11.011, -4.91888, 21.4718, 21.2093, 89.1631, -90.5151
6.76724, 80, 11.8008, -4.49024, 21.1151, 20.5262, 89.4867, -90.0001
6.77524, 80, 12.5862, -4.05181, 20.7617, 19.8404, 89.8224, -89.4772
6.78339, 81, 13.3658, -3.604, 20.4114, 19.1591, 90.1692, -88.9465
6.79153, 81, 14.1406, -3.148, 20.0661, 18.4868, 90.5253, -88.4097
6.80032, 82, 14.9072, -2.68516, 19.7281, 17.8274, 90.8883, -87.869
6.80758, 82, 15.6642, -2.21455, 19.3998, 17.1837, 91.2568, -87.3255
6.81659, 83, 16.4102, -1.73655, 19.0814, 16.5587, 91.6287, -86.7804
6.82367, 83, 17.1445, -1.25181, 18.774, 15.9554, 92.004, -86.2349
6.83173, 83, 17.866, -0.76133, 18.4767, 15.3723, 92.3828, -85.6908
6.84037, 84, 18.572, -0.267494, 18.1895, 14.8102, 92.7668, -85.1489
6.84775, 84, 19.2612, 0.229462, 17.9101, 14.2682, 93.1574, -84.6082
6.8563, 85, 19.9318, 0.731238, 17.6373, 13.7462, 93.556, -84.07
6.86396, 85, 20.5843, 1.23725, 17.371, 13.2438, 93.9616, -83.534
6.87236, 86, 21.2198, 1.74685, 17.1102, 12.7615, 94.373, -82.9999
6.87981, 86, 21.532, 2.00375, 16.9825, 12.5277, 94.5808, -82.4646
6.88851, 87, 22.4487, 2.78708, 16.6083, 11.8563, 95.2134, -81.9269
6.89519, 87, 22.7481, 3.05319, 16.4859, 11.642, 95.4275, -81.6563
6.90459, 88, 23.6315, 3.86462, 16.1247, 11.025, 96.0806, -80.8369
6.9112, 88, 23.9211, 4.1386, 16.0058, 10.8271, 96.3016, -80.5598
6.91915, 88, 24.4924, 4.69298, 15.7706, 10.4434, 96.7487, -79.9984
6.92849, 89, 25.3309, 5.54643, 15.4278, 9.89605, 97.4316, -79.1364
6.93519, 89, 25.6071, 5.83683, 15.3154, 9.72158, 97.6622, -78.8433
6.9432, 90, 26.1574, 6.42556, 15.0928, 9.38383, 98.1274, -78.2469
6.95273, 90, 26.9696, 7.32642, 14.7679, 8.90681, 98.8363, -77.3252
6.96071, 91, 27.4952, 7.93893, 14.5574, 8.61058, 99.3169, -76.6946
6.96915, 91, 28.0089, 8.5625, 14.3506, 8.33358, 99.8036, -76.0514
6.9752, 92, 28.2624, 8.87817, 14.2487, 8.20291, 100.049, -75.7254
6.98502, 92, 29.012, 9.83944, 13.95, 7.84277, 100.792, -74.7343
6.99119, 93, 29.2573, 10.164, 13.853, 7.73389, 101.041, -74.4004
7.00075, 93, 29.7386, 10.818, 13.6642, 7.53362, 101.539, -73.3873
7.00726, 94, 30.2059, 11.477, 13.483, 7.35649, 102.037, -73.0463
7.01625, 94, 30.6584, 12.1391, 13.3087, 7.20305, 102.533, -72.3612
7.02419, 95, 31.097, 12.8032, 13.1415, 7.07324, 103.026, -71.6712
7.03219, 95, 31.5221, 13.4693, 12.9824, 6.96726, 103.515, -70.9747
7.03919, 96, 31.933, 14.1367, 12.8306, 6.88446, 104.001, -70.2736
7.04719, 96, 32.3282, 14.8048, 12.6851, 6.82632, 104.483, -69.5672
7.05526, 97, 32.707, 15.4732, 12.5463, 6.79043, 104.96, -68.8545
7.06319, 97, 33.0701, 16.1406, 12.4149, 6.7755, 105.432, -68.137
7.07219, 98, 33.4176, 16.8057, 12.2918, 6.78292, 105.897, -67.4175
7.07926, 98, 33.7506, 17.4665, 12.1776, 6.81167, 106.354, -66.6943
7.0872, 99, 34.0699, 18.1218, 12.0727, 6.85977, 106.8, -65.9702
7.09519, 99, 34.3771, 18.77, 11.9774, 6.92805, 107.234, -65.2491
7.10327, 100, 34.6733, 19.4096, 11.8914, 7.01356, 107.655, -64.5297
7.11119, 100, 34.9579, 20.04, 11.8145, 7.11689, 108.062, -63.8146
7.11919, 101, 35.2303, 20.6595, 11.746, 7.2362, 108.452, -63.1074
7.12727, 101, 35.4905, 21.2682, 11.6857, 7.37027, 108.827, -62.4066
7.13516, 102, 35.738, 21.8647, 11.634, 7.51687, 109.184, -61.7151
7.14319, 102, 35.9719, 22.4477, 11.5903, 7.67418, 109.525, -61.0356
7.15122, 103, 36.194, 23.0171, 11.5549, 7.84021, 109.851, -60.3671
7.1592, 103, 36.4082, 23.5712, 11.5278, 8.01363, 110.16, -59.7107
7.1672, 103, 36.6164, 24.1099, 11.5095, 8.19501, 110.453, -59.0673
7.17526, 104, 36.8181, 24.633, 11.4998, 8.38457, 110.729, -58.4366
7.18319, 104, 37.0135, 25.1404, 11.4969, 8.58339, 110.985, -57.8163
7.19126, 104, 37.2028, 25.6323, 11.5004, 8.79092, 111.221, -57.2076
7.19933, 104, 37.3835, 26.1079, 11.5098, 9.00601, 111.437, -56.6116
7.20726, 104, 37.5537, 26.5672, 11.523, 9.22701, 111.635, -56.0283
7.21534, 104, 37.7149, 27.0107, 11.539, 9.45137, 111.817, -55.4605
7.22357, 104, 37.8709, 27.4395, 11.5578, 9.6759, 111.986, -54.9113
7.23129, 104, 38.0235, 27.8524, 11.5781, 9.89829, 112.144, -54.3838
7.23936, 104, 38.1719, 28.2487, 11.5988, 10.1165, 112.293, -53.8787
7.2473, 104, 38.3147, 28.6286, 11.6189, 10.3293, 112.433, -53.397
7.25558, 104, 38.451, 28.9916, 11.6378, 10.5355, 112.566, -52.9396
7.2635, 104, 38.5797, 29.3364, 11.6557, 10.7344, 112.691, -52.5066
7.27227, 104, 38.7001, 29.6626, 11.6725, 10.9248, 112.808, -52.0992
7.27923, 104, 38.812, 29.9694, 11.688, 11.1064, 112.917, -51.7162
7.2874, 104, 38.9158, 30.2579, 11.7026, 11.2782, 113.019, -51.3582
7.2954, 104, 39.012, 30.5272, 11.7162, 11.4402, 113.113, -51.0261
7.30346, 104, 39.1005, 30.7767, 11.7284, 11.5916, 113.2, -50.719
7.31162, 104, 39.181, 31.0069, 11.7394, 11.7321, 113.279, -50.437
7.32007, 104, 39.2536, 31.2172, 11.7496, 11.861, 113.352, -50.1805
7.32823, 104, 39.3181, 31.4074, 11.759, 11.9785, 113.416, -49.9492
7.33576, 104, 39.3748, 31.5785, 11.7674, 12.0841, 113.474, -49.743
7.34435, 104, 39.4248, 31.7301, 11.7748, 12.1773, 113.525, -49.562
7.35182, 104, 39.4685, 31.8628, 11.7814, 12.2587, 113.568, -49.4055
7.3603, 104, 39.5066, 31.9779, 11.7876, 12.3276, 113.605, -49.2731
7.36781, 104, 39.5385, 32.0761, 11.793, 12.3855, 113.635, -49.164
7.37633, 104, 39.5646, 32.1583, 11.7978, 12.4311, 113.659, -49.0762
7.38318, 104, 39.5758, 32.1938, 11.8, 12.45, 113.669, -49.0397
7.3926, 104, 39.6024, 32.2811, 11.806, 12.4936, 113.691, -48.9578
7.39922, 104, 39.6092, 32.3043, 11.8079, 12.5042, 113.696, -48.9383
7.40834, 104, 39.6252, 32.3585, 11.8128, 12.5267, 113.706, -48.8981
7.41518, 104, 39.6292, 32.3719, 11.8143, 12.5316, 113.708, -48.8895
7.42321, 104, 39.6354, 32.3936, 11.817, 12.5386, 113.711, -48.8779
7.43253, 104, 39.6405, 32.4156, 11.8202, 12.5438, 113.713, -48.8698
7.43917, 104, 39.6415, 32.4204, 11.821, 12.5447, 113.713, -48.8686
7.44728, 105, 39.6427, 32.4273, 11.8222, 12.5458, 113.714, -48.8674
7.45673, 105, 39.6423, 32.4332, 11.8237, 12.5464, 113.714, -48.8667
7.46514, 105, 39.6415, 32.4356, 11.8245, 12.5466, 113.714, -48.8667
7.47122, 105, 39.641, 32.4366, 11.8249, 12.5466, 113.714, -48.8668
7.48077, 105, 39.6395, 32.4388, 11.8259, 12.5468, 113.714, -48.8671
7.48908, 105, 39.6383, 32.4402, 11.8264, 12.5468, 113.714, -48.8674
7.49522, 105, 39.6377, 32.4408, 11.8267, 12.5468, 113.714, -48.8675
7.50477, 105, 39.637, 32.4419, 11.8273, 12.5468, 113.714, -48.8679
7.51321, 105, 39.6365, 32.4436, 11.8282, 12.5468, 113.714, -48.8683
7.51923, 105, 39.6363, 32.4441, 11.8284, 12.5468, 113.714, -48.8684
7.5272, 105, 39.6362, 32.4451, 11.8289, 12.5468, 113.714, -48.8687
7.53517, 105, 39.6359, 32.4459, 11.8293, 12.5468, 113.714, -48.869
7.54322, 105, 39.6357, 32.4464, 11.8297, 12.5468, 113.714, -48.8692
7.55224, 105, 39.6354, 32.4468, 11.83, 12.5468, 113.714, -48.8694
7.56019, 105, 39.6351, 32.447, 11.8302, 12.5468, 113.714, -48.8696
7.56817, 105, 39.6348, 32.4471, 11.8304, 12.5467, 113.714, -48.8698
