hehonglu123/Motion-Primitive-Planning/ILC/recorded_data/realrobot/from_NX/iteration_19/run_1.csv
timestamp, cmd_num, J1, J2, J3, J4, J5, J6
0.000386, -1, 39.6302, 32.4471, 11.8319, 12.5453, 113.713, -48.8724
0.002948, -1, 39.6302, 32.4471, 11.8319, 12.5453, 113.713, -48.8723
0.00785, -1, 39.6302, 32.4471, 11.8319, 12.5453, 113.713, -48.8723
0.029198, -1, 39.6302, 32.4471, 11.8319, 12.5453, 113.713, -48.8723
0.031911, -1, 39.6302, 32.4471, 11.8319, 12.5453, 113.713, -48.8724
0.034523, -1, 39.6302, 32.4471, 11.8319, 12.5453, 113.713, -48.8723
0.039512, -1, 39.6302, 32.4471, 11.8319, 12.5453, 113.713, -48.8723
0.047485, -1, 39.6302, 32.4471, 11.8319, 12.5453, 113.713, -48.8723
0.055522, -1, 39.6297, 32.447, 11.8319, 12.5453, 113.713, -48.8723
0.06349, -1, 39.6273, 32.4466, 11.8318, 12.5453, 113.713, -48.8723
0.071554, -1, 39.622, 32.4453, 11.8318, 12.5453, 113.713, -48.8725
0.079509, -1, 39.6132, 32.4423, 11.8317, 12.5453, 113.712, -48.8737
0.087529, -1, 39.6, 32.437, 11.8317, 12.5453, 113.711, -48.8786
0.095648, -1, 39.5804, 32.4285, 11.8317, 12.5452, 113.707, -48.8898
0.103593, -1, 39.5518, 32.4159, 11.8322, 12.5452, 113.7, -48.9104
0.111595, -1, 39.5134, 32.3983, 11.8343, 12.5452, 113.688, -48.9439
0.119683, -1, 39.464, 32.3746, 11.8391, 12.5453, 113.669, -48.9943
0.127601, -1, 39.402, 32.3442, 11.8475, 12.5453, 113.641, -49.0659
0.135486, -1, 39.3267, 32.3064, 11.8603, 12.5454, 113.604, -49.1603
0.143643, -1, 39.2377, 32.2608, 11.8781, 12.5456, 113.557, -49.2804
0.151591, -1, 39.1346, 32.2073, 11.9006, 12.5461, 113.501, -49.4259
0.159523, -1, 39.0175, 32.1459, 11.9273, 12.547, 113.433, -49.5957
0.167711, -1, 38.887, 32.0772, 11.9579, 12.5486, 113.357, -49.788
0.175657, -1, 38.7441, 32.0018, 11.9918, 12.5504, 113.274, -49.9998
0.183942, -1, 38.5897, 31.9206, 12.0281, 12.5525, 113.184, -50.2273
0.191873, -1, 38.4254, 31.8344, 12.0659, 12.5548, 113.089, -50.4671
0.199976, -1, 38.2532, 31.7441, 12.1047, 12.5572, 112.991, -50.7153
0.207944, -1, 38.0748, 31.6509, 12.1438, 12.5596, 112.89, -50.9686
0.216035, -1, 37.8912, 31.5556, 12.1826, 12.5621, 112.789, -51.2252
0.224091, -1, 37.7036, 31.4587, 12.2214, 12.5645, 112.687, -51.4836
0.23221, -1, 37.5133, 31.361, 12.2602, 12.5669, 112.585, -51.7431
0.240291, -1, 37.3217, 31.2631, 12.299, 12.5694, 112.482, -52.0025
0.248127, -1, 37.1296, 31.1653, 12.3379, 12.5718, 112.379, -52.2623
0.256115, -1, 37.0334, 31.1164, 12.3766, 12.5745, 112.276, -52.5222
0.263478, -1, 36.8412, 31.0187, 12.3959, 12.5758, 112.225, -52.6523
0.27148, -1, 36.6495, 30.9209, 12.4348, 12.5783, 112.122, -52.9129
0.279531, -1, 36.4577, 30.8232, 12.4737, 12.5809, 112.019, -53.173
0.287468, -1, 36.2661, 30.7255, 12.5125, 12.5835, 111.916, -53.4335
0.295487, -1, 36.0745, 30.6276, 12.5514, 12.586, 111.813, -53.6939
0.303564, -1, 35.883, 30.5296, 12.5903, 12.5886, 111.71, -53.9547
0.311472, -1, 35.6913, 30.4316, 12.6292, 12.5912, 111.607, -54.215
0.319505, -1, 35.4993, 30.3335, 12.668, 12.5938, 111.504, -54.4753
0.327476, -1, 35.3072, 30.2352, 12.7068, 12.5964, 111.401, -54.7357
0.335483, -1, 35.1148, 30.1369, 12.7457, 12.5989, 111.298, -54.9964
0.343549, -1, 34.9224, 30.0384, 12.7847, 12.6016, 111.195, -55.2572
0.351503, -1, 34.7302, 29.9399, 12.8235, 12.6042, 111.092, -55.5177
0.359476, -1, 34.5379, 29.8415, 12.8623, 12.6067, 110.989, -55.7786
0.369201, -1, 34.2498, 29.6939, 12.9208, 12.6106, 110.834, -56.1701
0.375503, -1, 34.1538, 29.6447, 12.9402, 12.6119, 110.783, -56.3005
0.383477, -1, 33.9618, 29.5465, 12.9792, 12.6145, 110.68, -56.5612
0.391615, -1, 33.7701, 29.4482, 13.0181, 12.6172, 110.577, -56.822
0.399482, -1, 33.5782, 29.3498, 13.0569, 12.6198, 110.473, -57.083
0.408477, -1, 33.3861, 29.2515, 13.0959, 12.6224, 110.371, -57.3442
0.415557, -1, 33.1935, 29.1529, 13.1348, 12.625, 110.267, -57.6051
0.423476, -1, 33.0008, 29.0543, 13.1736, 12.6276, 110.164, -57.8662
0.431597, -1, 32.8078, 28.9557, 13.2126, 12.6303, 110.061, -58.1273
0.439557, -1, 32.6145, 28.8571, 13.2515, 12.633, 109.958, -58.3887
0.447475, -1, 32.4209, 28.7584, 13.2903, 12.6357, 109.855, -58.6498
0.455535, -1, 32.227, 28.6597, 13.3293, 12.6384, 109.752, -58.9107
0.463489, -1, 32.0328, 28.561, 13.3681, 12.6411, 109.649, -59.1718
0.471491, -1, 31.8389, 28.4622, 13.407, 12.6438, 109.546, -59.4332
0.479536, -1, 31.6453, 28.3634, 13.446, 12.6465, 109.443, -59.6946
0.487472, -1, 31.4518, 28.2647, 13.485, 12.6494, 109.34, -59.9557
0.625247, -1, 28.1683, 26.5864, 14.1476, 12.6946, 107.585, -64.4021
0.627898, -1, 28.1683, 26.5864, 14.1671, 12.6958, 107.533, -64.533
0.629182, -1, 28.0718, 26.537, 14.1671, 12.6958, 107.533, -64.533
0.631084, -1, 28.0718, 26.537, 14.1671, 12.6958, 107.481, -64.6639
0.632492, -1, 27.9753, 26.4876, 14.1866, 12.697, 107.481, -64.6639
0.635253, -1, 27.8789, 26.4382, 14.2061, 12.6983, 107.43, -64.7948
0.636703, -1, 27.8789, 26.4382, 14.2061, 12.6983, 107.43, -64.7948
0.639736, -1, 27.7826, 26.3887, 14.2257, 12.6995, 107.378, -64.9258
0.640971, -1, 27.7826, 26.3887, 14.2257, 12.6995, 107.378, -64.9258
0.642264, -1, 27.7826, 26.3887, 14.2257, 12.6995, 107.378, -64.9258
0.644292, -1, 27.6863, 26.3393, 14.2451, 12.7007, 107.326, -65.0568
0.645612, -1, 27.6863, 26.3393, 14.2451, 12.7007, 107.326, -65.0568
0.647504, -1, 27.5901, 26.2899, 14.2646, 12.7019, 107.275, -65.1876
0.64896, -1, 27.5901, 26.2899, 14.2646, 12.7019, 107.275, -65.1876
0.650157, -1, 27.5901, 26.2899, 14.2646, 12.7019, 107.275, -65.1876
0.653105, -1, 27.494, 26.2404, 14.284, 12.7031, 107.223, -65.3183
0.654474, -1, 27.494, 26.2404, 14.284, 12.7031, 107.223, -65.3183
0.656567, -1, 27.3979, 26.1909, 14.3035, 12.7044, 107.171, -65.4492
0.659222, -1, 27.3979, 26.1909, 14.3035, 12.7044, 107.171, -65.5798
0.660701, -1, 27.3019, 26.1414, 14.3231, 12.7056, 107.12, -65.5798
0.661932, -1, 27.3019, 26.1414, 14.3231, 12.7056, 107.12, -65.5798
0.66407, -1, 27.2059, 26.0919, 14.3426, 12.7067, 107.068, -65.7106
0.672536, -1, 27.0134, 25.993, 14.3814, 12.7089, 106.964, -65.9723
0.6797, -1, 26.8208, 25.8942, 14.4204, 12.7113, 106.861, -66.2343
0.687859, -1, 26.6277, 25.7953, 14.4594, 12.7136, 106.758, -66.4959
0.695759, -1, 26.4342, 25.6964, 14.4982, 12.7159, 106.655, -66.7577
0.70418, -1, 26.2403, 25.5976, 14.5372, 12.7181, 106.552, -67.0194
0.71197, -1, 26.0462, 25.4987, 14.5762, 12.7204, 106.448, -67.2814
0.719983, -1, 25.8519, 25.3998, 14.6151, 12.7227, 106.345, -67.5431
0.728573, -1, 25.6577, 25.3011, 14.6541, 12.725, 106.242, -67.8047
0.736045, -1, 25.4636, 25.2023, 14.6931, 12.7272, 106.139, -68.0662
0.744057, -1, 25.2698, 25.1036, 14.732, 12.7296, 106.036, -68.328
0.752184, -1, 25.0764, 25.0049, 14.7711, 12.7319, 105.932, -68.5898
0.760652, -1, 24.8832, 24.906, 14.8101, 12.7342, 105.829, -68.8513
0.767458, -1, 24.7867, 24.8567, 14.8296, 12.7354, 105.777, -68.9822
0.775512, -1, 24.594, 24.7579, 14.8685, 12.7378, 105.674, -69.2439
0.783467, -1, 24.4016, 24.6589, 14.9075, 12.7402, 105.571, -69.5058
0.919736, -1, 21.1193, 22.9796, 15.5696, 12.7827, 103.815, -73.9531
0.922909, -1, 21.0231, 22.9302, 15.5891, 12.7841, 103.763, -74.0838
0.924247, -1, 21.0231, 22.9302, 15.5891, 12.7841, 103.763, -74.0838
0.926293, -1, 20.9268, 22.8809, 15.6085, 12.7854, 103.712, -74.2143
0.927503, -1, 20.9268, 22.8809, 15.6085, 12.7854, 103.712, -74.2143
0.928707, -1, 20.9268, 22.8809, 15.6085, 12.7854, 103.712, -74.2143
0.930743, -1, 20.8306, 22.8316, 15.628, 12.7867, 103.66, -74.3449
0.93647, -1, 20.7344, 22.7823, 15.6475, 12.7881, 103.608, -74.4754
0.939044, -1, 20.6381, 22.733, 15.6669, 12.7895, 103.557, -74.6061
0.940291, -1, 20.6381, 22.733, 15.6669, 12.7895, 103.557, -74.6061
0.943013, -1, 20.5417, 22.6837, 15.6863, 12.7909, 103.505, -74.7367
0.944232, -1, 20.5417, 22.6837, 15.6863, 12.7909, 103.505, -74.7367
0.947021, -1, 20.4453, 22.6343, 15.7057, 12.7922, 103.454, -74.8673
0.94854, -1, 20.4453, 22.6343, 15.7057, 12.7922, 103.454, -74.8673
0.950513, -1, 20.3486, 22.585, 15.7252, 12.7936, 103.402, -74.998
0.954895, -1, 20.2518, 22.5356, 15.7446, 12.795, 103.351, -75.1288
0.956198, -1, 20.2518, 22.5356, 15.7446, 12.795, 103.351, -75.1288
0.958364, -1, 20.1549, 22.4863, 15.7642, 12.7963, 103.299, -75.2593
0.959663, -1, 20.1549, 22.4863, 15.7642, 12.7963, 103.299, -75.2593
0.960978, -1, 20.1549, 22.4863, 15.7642, 12.7963, 103.299, -75.2593
0.962952, -1, 20.0581, 22.4369, 15.7836, 12.7976, 103.248, -75.3897
0.964276, -1, 20.0581, 22.4369, 15.7836, 12.7976, 103.248, -75.3897
0.967448, -1, 19.9612, 22.3875, 15.803, 12.799, 103.196, -75.5204
0.975521, -1, 19.7677, 22.2888, 15.8417, 12.8017, 103.094, -75.7815
0.983451, -1, 19.5741, 22.1902, 15.8806, 12.8044, 102.99, -76.0428
0.991448, -1, 19.3807, 22.0916, 15.9195, 12.8072, 102.887, -76.304
0.99952, -1, 19.1877, 21.9929, 15.9583, 12.8099, 102.784, -76.5648
1.00746, -1, 18.9949, 21.8943, 15.9973, 12.8127, 102.681, -76.8256
1.01544, -1, 18.8024, 21.7956, 16.0361, 12.8153, 102.578, -77.0866
1.02356, -1, 18.6103, 21.6969, 16.0749, 12.8181, 102.475, -77.3476
1.03145, -1, 18.4185, 21.5983, 16.1138, 12.8207, 102.372, -77.6084
1.03945, -1, 18.2266, 21.4997, 16.1527, 12.8234, 102.27, -77.8691
1.04755, -1, 18.0347, 21.4013, 16.1915, 12.8259, 102.167, -78.1298
1.05545, -1, 17.8429, 21.3029, 16.2304, 12.8285, 102.064, -78.3907
1.0635, -1, 17.6508, 21.2045, 16.2693, 12.831, 101.961, -78.6512
1.07151, -1, 17.4584, 21.1062, 16.3081, 12.8335, 101.858, -78.9115
1.07945, -1, 17.2657, 21.0078, 16.3469, 12.8359, 101.755, -79.1721
1.08756, -1, 17.0726, 20.9095, 16.3857, 12.8383, 101.652, -79.4329
1.09558, -1, 16.8796, 20.8112, 16.4245, 12.8407, 101.549, -79.6934
1.10355, -1, 16.6864, 20.7131, 16.4633, 12.843, 101.446, -79.9538
1.11162, -1, 16.4934, 20.6148, 16.502, 12.8454, 101.344, -80.2143
1.11956, -1, 16.3006, 20.5165, 16.5407, 12.8477, 101.241, -80.4749
1.12757, -1, 16.1083, 20.4181, 16.5795, 12.85, 101.138, -80.7356
1.13568, -1, 15.9162, 20.3197, 16.6182, 12.8523, 101.036, -80.9957
1.14345, -1, 15.7246, 20.2212, 16.657, 12.8546, 100.933, -81.2557
1.15154, -1, 15.5333, 20.1228, 16.6956, 12.857, 100.83, -81.5159
1.15955, -1, 15.342, 20.0245, 16.7342, 12.8593, 100.728, -81.7761
1.16753, -1, 15.1509, 19.9262, 16.773, 12.8615, 100.625, -82.0359
1.17573, -1, 14.9597, 19.828, 16.8117, 12.8638, 100.523, -82.2957
1.18371, -1, 14.7684, 19.7299, 16.8504, 12.8661, 100.42, -82.5556
1.1918, -1, 14.577, 19.6318, 16.8892, 12.8684, 100.318, -82.8157
1.19994, -1, 14.3851, 19.5336, 16.9278, 12.8707, 100.215, -83.0754
1.20849, -1, 14.1929, 19.4356, 16.9665, 12.873, 100.113, -83.3348
1.21599, -1, 14.0006, 19.3376, 17.0053, 12.8752, 100.01, -83.5945
1.22401, -1, 13.8081, 19.2398, 17.0438, 12.8775, 99.9075, -83.8541
1.23202, -1, 13.6156, 19.142, 17.0825, 12.8798, 99.805, -84.1137
1.24005, -1, 13.4233, 19.0441, 17.1212, 12.8822, 99.7024, -84.3729
1.2485, -1, 13.2313, 18.9462, 17.1596, 12.8844, 99.6003, -84.6321
1.25604, -1, 13.1354, 18.8973, 17.1982, 12.8868, 99.4978, -84.8915
1.26409, -1, 12.944, 18.7993, 17.2176, 12.8892, 99.3953, -85.1509
1.27145, -1, 12.7529, 18.7013, 17.2562, 12.8903, 99.3441, -85.2804
1.27942, -1, 12.562, 18.6034, 17.2947, 12.8928, 99.242, -85.5393
1.28746, -1, 12.3716, 18.5056, 17.3333, 12.8952, 99.1396, -85.7982
1.29545, -1, 12.1814, 18.4078, 17.3717, 12.8976, 99.0375, -86.0573
1.30347, -1, 11.9912, 18.3102, 17.4102, 12.9, 98.9355, -86.3163
1.31144, -1, 11.8008, 18.2126, 17.4489, 12.9023, 98.8334, -86.5748
1.31949, -1, 11.6102, 18.1149, 17.4874, 12.9048, 98.7316, -86.8334
1.3276, -1, 11.4193, 18.0173, 17.5259, 12.9073, 98.6297, -87.092
1.33551, -1, 11.2282, 17.9198, 17.5645, 12.9097, 98.5277, -87.3507
1.34344, -1, 11.0368, 17.8223, 17.603, 12.9122, 98.426, -87.609
1.35143, -1, 10.8453, 17.7249, 17.6414, 12.9147, 98.3239, -87.8671
1.35956, -1, 10.6536, 17.6274, 17.6799, 12.9172, 98.2218, -88.1255
1.36743, -1, 10.4622, 17.5298, 17.7183, 12.9198, 98.1203, -88.3838
1.37793, -1, 10.1756, 17.3836, 17.776, 12.9235, 97.9674, -88.7708
1.38354, -1, 10.0802, 17.3348, 17.7952, 12.9249, 97.9164, -88.8999
1.39144, -1, 9.88976, 17.2371, 17.8335, 12.9276, 97.8147, -89.158
1.40044, -1, 9.6996, 17.1396, 17.8718, 12.9301, 97.7126, -89.4161
1.40752, -1, 9.50991, 17.0421, 17.9102, 12.9329, 97.6106, -89.6742
1.41655, -1, 9.32062, 16.9448, 17.9485, 12.9356, 97.5089, -89.9317
1.42345, -1, 9.13128, 16.8474, 17.9869, 12.9382, 97.407, -90.1892
1.43152, -1, 8.94182, 16.7503, 18.0252, 12.9409, 97.3052, -90.4469
1.43945, -1, 8.7523, 16.6531, 18.0636, 12.9436, 97.2036, -90.7044
1.44743, -1, 8.56271, 16.556, 18.1021, 12.9462, 97.1018, -90.9616
1.45545, -1, 8.37291, 16.459, 18.1404, 12.949, 97.0004, -91.2189
1.46344, -1, 8.18264, 16.362, 18.1787, 12.9516, 96.8988, -91.476
1.47149, -1, 7.99219, 16.2652, 18.2171, 12.9543, 96.7972, -91.7333
1.47944, -1, 7.80174, 16.1683, 18.2553, 12.9569, 96.6958, -91.9903
1.48744, -1, 7.6112, 16.0713, 18.2936, 12.9595, 96.5943, -92.2469
1.49551, -1, 7.42086, 15.9744, 18.3319, 12.9621, 96.4928, -92.5036
1.50345, -1, 7.23073, 15.8774, 18.3701, 12.9647, 96.3917, -92.7605
1.51143, -1, 7.04087, 15.7804, 18.4083, 12.9672, 96.2903, -93.0171
1.5195, -1, 6.85142, 15.6835, 18.4466, 12.9698, 96.189, -93.2735
1.52748, -1, 6.66249, 15.5866, 18.4846, 12.9723, 96.0883, -93.5298
1.53544, -1, 6.47398, 15.4898, 18.5227, 12.9748, 95.9873, -93.7863
1.54349, -1, 6.28576, 15.3931, 18.5609, 12.9773, 95.8861, -94.0428
1.55148, -1, 6.09767, 15.2964, 18.5991, 12.9798, 95.7854, -94.2987
1.55943, -1, 5.90932, 15.1997, 18.6372, 12.9821, 95.6843, -94.5546
1.56755, -1, 5.72088, 15.103, 18.6754, 12.9845, 95.5834, -94.8105
1.57567, -1, 5.53239, 15.0064, 18.7134, 12.9868, 95.4828, -95.0666
1.58344, -1, 5.34358, 14.9099, 18.7516, 12.9891, 95.3819, -95.3222
1.59149, -1, 5.15446, 14.8135, 18.7897, 12.9914, 95.2812, -95.5776
1.60026, -1, 4.96509, 14.7171, 18.8277, 12.9937, 95.1807, -95.8331
1.60752, -1, 4.77569, 14.6207, 18.8658, 12.9959, 95.0798, -96.0886
1.61553, -1, 4.58624, 14.5243, 18.9039, 12.9981, 94.9791, -96.3438
1.62476, -1, 4.39708, 14.428, 18.9419, 13.0004, 94.8784, -96.5988
1.63155, -1, 4.20811, 14.3316, 18.9799, 13.0025, 94.7775, -96.8537
1.63961, -1, 4.0194, 14.2351, 19.0178, 13.0048, 94.6767, -97.1087
1.64744, -1, 3.83143, 14.139, 19.0557, 13.0071, 94.5759, -97.3638
1.65547, -1, 3.64399, 14.0428, 19.0937, 13.0093, 94.4751, -97.6184
1.66426, -1, 3.45681, 13.9466, 19.1316, 13.0117, 94.3745, -97.8731
1.6715, -1, 3.26986, 13.8506, 19.1694, 13.014, 94.2739, -98.1278
1.67962, -1, 3.08284, 13.7545, 19.2073, 13.0162, 94.1731, -98.3827
1.68851, -1, 2.89581, 13.6585, 19.2452, 13.0184, 94.0726, -98.637
1.69577, -1, 2.70878, 13.5625, 19.2831, 13.0206, 93.9719, -98.8911
1.70384, -1, 2.52143, 13.4665, 19.321, 13.0229, 93.8715, -99.1451
1.71264, -1, 2.334, 13.3706, 19.3587, 13.0252, 93.7712, -99.3995
1.71992, -1, 2.14615, 13.2749, 19.3965, 13.0275, 93.6709, -99.6535
1.72803, -1, 1.95798, 13.179, 19.4344, 13.0296, 93.5707, -99.9071
1.7369, -1, 1.7698, 13.0831, 19.4721, 13.032, 93.4708, -100.161
1.744, -1, 1.58152, 12.9873, 19.5098, 13.0342, 93.3707, -100.414
1.75219, -1, 1.39347, 12.8915, 19.5477, 13.0365, 93.2706, -100.668
1.76086, -1, 1.29954, 12.8435, 19.5666, 13.0388, 93.1707, -100.921
1.76808, -1, 1.11191, 12.7477, 19.6042, 13.0412, 93.0706, -101.174
1.77651, -1, 0.831535, 12.6043, 19.6609, 13.0435, 92.9706, -101.427
1.78342, -1, 0.738352, 12.5565, 19.6797, 13.0447, 92.9208, -101.554
1.79142, -1, 0.552319, 12.461, 19.7172, 13.0471, 92.821, -101.807
1.79947, -1, 0.366499, 12.3656, 19.7549, 13.0496, 92.7212, -102.06
1.80743, -1, 0.180923, 12.2702, 19.7926, 13.0521, 92.6219, -102.312
1.81543, -1, -0.00441648, 12.1748, 19.8301, 13.0544, 92.5223, -102.565
1.82476, -1, -0.282828, 12.0319, 19.8866, 13.0581, 92.3729, -102.944
1.83142, -1, -0.375712, 11.9843, 19.9054, 13.0594, 92.3233, -103.07
1.83947, -1, -0.561778, 11.8892, 19.9429, 13.0618, 92.2237, -103.322
1.84742, -1, -0.748103, 11.7942, 19.9805, 13.0643, 92.1243, -103.574
1.85542, -1, -0.934642, 11.6992, 20.018, 13.0669, 92.0249, -103.826
1.86352, -1, -1.12139, 11.6041, 20.0554, 13.0693, 91.9256, -104.078
1.87141, -1, -1.30843, 11.5091, 20.093, 13.0719, 91.8263, -104.329
1.88187, -1, -1.49529, 11.3664, 20.1492, 13.0756, 91.6776, -104.707
1.88751, -1, -1.68187, 11.3188, 20.1679, 13.0769, 91.6279, -104.833
1.89704, -1, -1.8681, 11.2238, 20.2054, 13.0795, 91.5287, -105.21
1.90348, -1, -2.05385, 11.1288, 20.2428, 13.0822, 91.4297, -105.335
1.91243, -1, -2.23893, 11.0339, 20.2801, 13.0848, 91.3304, -105.586
1.91942, -1, -2.42376, 10.939, 20.3175, 13.0875, 91.2312, -105.837
1.92742, -1, -2.60822, 10.8442, 20.3548, 13.0902, 91.1323, -106.088
1.93549, -1, -2.79211, 10.7495, 20.3921, 13.0928, 91.0331, -106.339
1.94343, -1, -2.97596, 10.6547, 20.4295, 13.0954, 90.934, -106.59
1.95142, -1, -3.16001, 10.56, 20.4668, 13.098, 90.8353, -106.84
1.95943, -1, -3.34426, 10.4655, 20.504, 13.1007, 90.7363, -107.091
1.96742, -1, -3.52891, 10.371, 20.5413, 13.1032, 90.6373, -107.342
1.97548, -1, -3.71372, 10.2767, 20.5785, 13.1058, 90.5388, -107.592
1.98343, -1, -3.89885, 10.1824, 20.6157, 13.1082, 90.4398, -107.842
1.99142, -1, -4.08419, 10.088, 20.653, 13.1106, 90.3412, -108.091
1.99949, -1, -4.26975, 9.99375, 20.6902, 13.1131, 90.2428, -108.341
2.00742, -1, -4.45536, 9.8994, 20.7273, 13.1154, 90.144, -108.591
2.01548, -1, -4.64064, 9.80507, 20.7647, 13.1177, 90.0454, -108.841
2.02342, -1, -4.82554, 9.71089, 20.8018, 13.1201, 89.9471, -109.09
2.03145, -1, -5.01007, 9.6168, 20.8388, 13.1225, 89.8485, -109.339
2.0395, -1, -5.19387, 9.52273, 20.876, 13.1248, 89.7501, -109.589
2.04742, -1, -5.37724, 9.42868, 20.9131, 13.1272, 89.6519, -109.838
2.05544, -1, -5.56015, 9.33478, 20.9501, 13.1295, 89.5534, -110.087
2.0636, -1, -5.74263, 9.24086, 20.9872, 13.1318, 89.4552, -110.335
2.07146, -1, -5.92493, 9.14693, 21.0243, 13.1342, 89.3571, -110.584
2.07942, -1, -6.1073, 9.05308, 21.0612, 13.1363, 89.2589, -110.833
2.08751, -1, -6.28999, 8.95933, 21.0983, 13.1386, 89.1609, -111.081
2.09547, -1, -6.47291, 8.86568, 21.1353, 13.1408, 89.0632, -111.33
2.1035, -1, -6.65612, 8.77203, 21.1721, 13.1429, 88.9651, -111.578
2.11158, -1, -6.83971, 8.6784, 21.209, 13.1451, 88.8671, -111.826
2.11958, -1, -7.02359, 8.58479, 21.246, 13.1472, 88.7694, -112.074
2.12754, -1, -7.20781, 8.49126, 21.2828, 13.1493, 88.6715, -112.322
2.1356, -1, -7.39207, 8.39761, 21.3198, 13.1514, 88.5737, -112.569
2.14349, -1, -7.5759, 8.30396, 21.3566, 13.1536, 88.4762, -112.817
2.15142, -1, -7.7594, 8.21055, 21.3933, 13.1557, 88.3785, -113.064
2.15957, -1, -7.94249, 8.11716, 21.4302, 13.158, 88.2811, -113.311
2.16756, -1, -8.12511, 8.02377, 21.4671, 13.1603, 88.1839, -113.558
2.17555, -1, -8.30693, 7.9305, 21.5038, 13.1625, 88.0863, -113.806
2.18367, -1, -8.48833, 7.83722, 21.5406, 13.1647, 87.9889, -114.053
2.19166, -1, -8.66927, 7.74401, 21.5774, 13.167, 87.8917, -114.299
2.19987, -1, -8.84992, 7.65082, 21.6141, 13.1693, 87.7942, -114.545
2.20777, -1, -9.03067, 7.55774, 21.6509, 13.1715, 87.6968, -114.792
2.21594, -1, -9.21167, 7.46474, 21.6876, 13.1738, 87.5996, -115.038
2.22449, -1, -9.39294, 7.37192, 21.7242, 13.176, 87.5025, -115.285
2.23197, -1, -9.57465, 7.27908, 21.7609, 13.1781, 87.4053, -115.531
2.23998, -1, -9.75667, 7.18622, 21.7975, 13.1804, 87.3083, -115.777
2.24807, -1, -9.939, 7.09353, 21.834, 13.1826, 87.2111, -116.023
2.256, -1, -10.1215, 7.00079, 21.8706, 13.1848, 87.1139, -116.269
2.26416, -1, -10.2129, 6.95438, 21.8889, 13.186, 87.0168, -116.515
2.27216, -1, -10.3955, 6.86159, 21.9255, 13.1881, 86.9196, -116.76
2.27941, -1, -10.578, 6.76886, 21.962, 13.1904, 86.8711, -116.883
2.28741, -1, -10.76, 6.67623, 21.9986, 13.1927, 86.7742, -117.128
2.29546, -1, -10.9416, 6.58362, 22.035, 13.1952, 86.6772, -117.374
2.30342, -1, -11.1225, 6.49105, 22.0714, 13.1975, 86.5805, -117.619
2.31142, -1, -11.3025, 6.39859, 22.108, 13.2, 86.484, -117.864
2.31941, -1, -11.4823, 6.30609, 22.1445, 13.2024, 86.3872, -118.108
2.32742, -1, -11.6617, 6.21366, 22.1808, 13.2048, 86.2905, -118.353
2.33545, -1, -11.8409, 6.12129, 22.2174, 13.2073, 86.1939, -118.598
2.345, -1, -12.1098, 5.98292, 22.272, 13.211, 86.049, -118.964
2.35293, -1, -12.2892, 5.89087, 22.3084, 13.2134, 85.9526, -119.208
2.36107, -1, -12.4691, 5.79885, 22.3448, 13.2159, 85.8564, -119.453
2.36745, -1, -12.5593, 5.75284, 22.3629, 13.2171, 85.8081, -119.575
2.3754, -1, -12.7397, 5.66085, 22.3991, 13.2196, 85.7118, -119.818
2.38348, -1, -12.9206, 5.56893, 22.4356, 13.2221, 85.616, -120.062
2.39307, -1, -13.1018, 5.47699, 22.4899, 13.2258, 85.472, -120.428
2.39941, -1, -13.2831, 5.38496, 22.508, 13.227, 85.424, -120.55
2.40842, -1, -13.4641, 5.29302, 22.5443, 13.2294, 85.3282, -120.793
2.41541, -1, -13.6447, 5.20111, 22.5805, 13.232, 85.2325, -121.036
2.42341, -1, -13.825, 5.10924, 22.6166, 13.2346, 85.1366, -121.279
2.43147, -1, -14.0046, 5.01745, 22.6529, 13.2371, 85.041, -121.522
2.4394, -1, -14.1832, 4.9257, 22.689, 13.2397, 84.9454, -121.765
2.44743, -1, -14.3615, 4.83402, 22.7251, 13.2423, 84.8498, -122.008
2.4554, -1, -14.5395, 4.74237, 22.7614, 13.2448, 84.7543, -122.25
2.46341, -1, -14.7171, 4.65077, 22.7976, 13.2474, 84.6586, -122.493
2.47153, -1, -14.8946, 4.55929, 22.8336, 13.2498, 84.5628, -122.735
2.4794, -1, -15.0723, 4.46788, 22.8698, 13.2523, 84.4672, -122.978
2.4874, -1, -15.2504, 4.37663, 22.906, 13.2548, 84.3715, -123.219
2.49548, -1, -15.4288, 4.2853, 22.942, 13.2571, 84.2758, -123.461
2.50343, -1, -15.6077, 4.19403, 22.978, 13.2594, 84.1804, -123.703
2.5114, -1, -15.7869, 4.1028, 23.0141, 13.2617, 84.0848, -123.945
2.51948, -1, -15.9661, 4.01154, 23.05, 13.2639, 83.9893, -124.186
2.52741, -1, -16.1458, 3.92024, 23.086, 13.2661, 83.894, -124.428
2.53543, -1, -16.3256, 3.829, 23.1221, 13.2682, 83.7985, -124.669
2.54349, -1, -16.505, 3.73777, 23.1579, 13.2704, 83.7031, -124.911
2.55144, -1, -16.684, 3.64663, 23.1938, 13.2726, 83.6077, -125.152
2.55942, -1, -16.8624, 3.55553, 23.2297, 13.2749, 83.5123, -125.393
2.56829, -1, -17.04, 3.46454, 23.2655, 13.2771, 83.417, -125.634
2.57546, -1, -17.2168, 3.37357, 23.3014, 13.2794, 83.3217, -125.874
2.58345, -1, -17.3934, 3.28269, 23.3373, 13.2816, 83.2267, -126.115
2.59225, -1, -17.5697, 3.19184, 23.373, 13.2837, 83.1315, -126.356
2.59946, -1, -17.7457, 3.10123, 23.4089, 13.2859, 83.0368, -126.596
2.60757, -1, -17.9217, 3.01063, 23.4448, 13.2879, 82.942, -126.836
2.6163, -1, -18.0979, 2.92012, 23.4806, 13.2901, 82.8471, -127.076
2.62352, -1, -18.2745, 2.82975, 23.5163, 13.2922, 82.7524, -127.316
2.63158, -1, -18.4514, 2.73933, 23.5521, 13.2943, 82.6578, -127.556
2.64039, -1, -18.6289, 2.64892, 23.5878, 13.2963, 82.563, -127.796
2.64742, -1, -18.8065, 2.5586, 23.6234, 13.2983, 82.4684, -128.035
2.65547, -1, -18.9846, 2.46814, 23.6592, 13.3003, 82.3742, -128.275
2.66436, -1, -19.1628, 2.37763, 23.6947, 13.3023, 82.2797, -128.514
2.67149, -1, -19.341, 2.2873, 23.7303, 13.3043, 82.1853, -128.753
2.67955, -1, -19.5187, 2.19689, 23.766, 13.3065, 82.0915, -128.992
2.68849, -1, -19.6957, 2.10649, 23.8014, 13.3087, 81.9972, -129.231
2.69577, -1, -19.8723, 2.0162, 23.8368, 13.3108, 81.903, -129.471
2.70373, -1, -20.0481, 1.92597, 23.8724, 13.3129, 81.8091, -129.709
2.71175, -1, -20.2233, 1.83573, 23.908, 13.3152, 81.7149, -129.948
2.71997, -1, -20.3981, 1.74561, 23.9434, 13.3174, 81.621, -130.186
2.72854, -1, -20.5727, 1.65553, 23.979, 13.3196, 81.5271, -130.424
2.73591, -1, -20.7472, 1.56555, 24.0145, 13.3217, 81.4331, -130.663
2.74405, -1, -20.9218, 1.47568, 24.0498, 13.3239, 81.3393, -130.901
2.75196, -1, -21.0968, 1.38596, 24.0854, 13.3262, 81.2458, -131.139
2.76, -1, -21.1844, 1.29617, 24.1209, 13.3284, 81.1519, -131.376
2.76814, -1, -21.36, 1.20647, 24.1562, 13.3305, 81.058, -131.614
2.77539, -1, -21.5359, 1.16166, 24.1738, 13.3316, 81.0111, -131.733
2.7834, -1, -21.712, 1.07204, 24.2093, 13.3337, 80.9174, -131.971
2.79136, -1, -21.8882, 0.982382, 24.2447, 13.3359, 80.8235, -132.208
2.79939, -1, -22.0647, 0.892775, 24.2801, 13.338, 80.7297, -132.445
2.8075, -1, -22.2414, 0.803222, 24.3155, 13.3402, 80.6362, -132.683
2.81539, -1, -22.4178, 0.713714, 24.3508, 13.3424, 80.5425, -132.92
2.8234, -1, -22.5935, 0.624224, 24.386, 13.3448, 80.4488, -133.157
2.83144, -1, -22.7689, 0.534805, 24.4213, 13.3471, 80.3555, -133.393
2.83939, -1, -22.9433, 0.445389, 24.4565, 13.3495, 80.2617, -133.63
2.84739, -1, -23.117, 0.355988, 24.4916, 13.3519, 80.1682, -133.867
2.85766, -1, -23.3771, 0.221976, 24.5444, 13.3556, 80.0281, -134.222
2.86342, -1, -23.4637, 0.177363, 24.562, 13.3569, 79.9812, -134.34
2.87142, -1, -23.6368, 0.0881977, 24.5972, 13.3593, 79.888, -134.576
2.88189, -1, -23.8968, -0.0454367, 24.65, 13.3629, 79.7483, -134.93
2.88739, -1, -23.9835, -0.0899052, 24.6675, 13.3641, 79.7016, -135.048
2.89541, -1, -24.1572, -0.17885, 24.7026, 13.3666, 79.6086, -135.284
2.90347, -1, -24.3312, -0.267864, 24.7377, 13.369, 79.5156, -135.52
2.91249, -1, -24.5056, -0.356747, 24.7728, 13.3714, 79.4225, -135.755
2.91939, -1, -24.6801, -0.44563, 24.8078, 13.3738, 79.3294, -135.991
2.92745, -1, -24.855, -0.534513, 24.8428, 13.3763, 79.2364, -136.227
2.93539, -1, -25.0302, -0.623377, 24.878, 13.3787, 79.1434, -136.462
2.94341, -1, -25.205, -0.712177, 24.913, 13.381, 79.0504, -136.697
2.95146, -1, -25.3795, -0.800881, 24.948, 13.3834, 78.9577, -136.932
2.9594, -1, -25.5537, -0.889711, 24.983, 13.3859, 78.8652, -137.167
2.96739, -1, -25.7273, -0.97842, 25.0179, 13.3883, 78.7724, -137.402
2.9755, -1, -25.9002, -1.06707, 25.0527, 13.3907, 78.6798, -137.636
2.98339, -1, -26.0726, -1.15576, 25.0877, 13.3932, 78.5875, -137.871
2.9914, -1, -26.2447, -1.24442, 25.1226, 13.3956, 78.4948, -138.105
2.99945, -1, -26.4164, -1.33295, 25.1574, 13.3979, 78.4022, -138.34
3.00744, -1, -26.5882, -1.42137, 25.1923, 13.4002, 78.31, -138.574
3.01546, -1, -26.7602, -1.50969, 25.2273, 13.4024, 78.2173, -138.808
3.0234, -1, -26.9326, -1.5979, 25.2621, 13.4047, 78.1249, -139.042
3.03139, -1, -27.1051, -1.68606, 25.2969, 13.407, 78.0328, -139.276
3.03949, -1, -27.2776, -1.77427, 25.3318, 13.4091, 77.9406, -139.51
3.04739, -1, -27.4505, -1.86236, 25.3665, 13.4114, 77.8486, -139.744
3.05538, -1, -27.6237, -1.95046, 25.4013, 13.4134, 77.7566, -139.977
3.06347, -1, -27.7969, -2.03868, 25.4362, 13.4156, 77.6645, -140.211
3.07139, -1, -27.9702, -2.1267, 25.4709, 13.4176, 77.5725, -140.444
3.07939, -1, -28.1435, -2.21476, 25.5056, 13.4196, 77.4805, -140.678
3.08746, -1, -28.3166, -2.30283, 25.5404, 13.4216, 77.3885, -140.911
3.09543, -1, -28.4894, -2.3909, 25.5752, 13.4237, 77.2964, -141.143
3.10347, -1, -28.6618, -2.47886, 25.6098, 13.4259, 77.2043, -141.376
3.11153, -1, -28.8335, -2.56688, 25.6445, 13.428, 77.1124, -141.609
3.11949, -1, -29.0045, -2.65484, 25.6792, 13.4302, 77.0204, -141.842
3.12755, -1, -29.1751, -2.74271, 25.7137, 13.4324, 76.9285, -142.075
3.13551, -1, -29.3457, -2.83053, 25.7484, 13.4344, 76.8369, -142.307
3.14354, -1, -29.5164, -2.91827, 25.7831, 13.4365, 76.7448, -142.539
3.15152, -1, -29.6873, -3.00587, 25.8176, 13.4385, 76.653, -142.772
3.15941, -1, -29.8583, -3.09341, 25.8521, 13.4405, 76.5615, -143.004
3.16742, -1, -30.0293, -3.1809, 25.8867, 13.4427, 76.4694, -143.236
3.17627, -1, -30.2002, -3.26843, 25.9213, 13.4447, 76.3777, -143.468
3.18362, -1, -30.3714, -3.35584, 25.9558, 13.4468, 76.2863, -143.7
3.19157, -1, -30.543, -3.44333, 25.9904, 13.4488, 76.1945, -143.932
3.20049, -1, -30.7148, -3.53087, 26.0248, 13.4509, 76.1031, -144.164
3.20771, -1, -30.8866, -3.61823, 26.0593, 13.4529, 76.0119, -144.395
3.21581, -1, -31.0584, -3.70564, 26.0939, 13.4549, 75.9205, -144.626
3.22464, -1, -31.2301, -3.79298, 26.1283, 13.457, 75.8291, -144.858
3.23205, -1, -31.4014, -3.88032, 26.1627, 13.4591, 75.7378, -145.089
3.23995, -1, -31.5723, -3.96761, 26.1972, 13.4612, 75.6466, -145.32
3.24892, -1, -31.7427, -4.05483, 26.2316, 13.4634, 75.5553, -145.551
3.25595, -1, -31.9127, -4.14209, 26.266, 13.4656, 75.4642, -145.782
3.2645, -1, -32.0824, -4.2293, 26.3004, 13.4677, 75.3732, -146.013
3.27282, -1, -32.1671, -4.27286, 26.3177, 13.4688, 75.3276, -146.244
3.27937, -1, -32.3365, -4.35993, 26.3519, 13.471, 75.2365, -146.359
3.28742, -1, -32.506, -4.44694, 26.3862, 13.4732, 75.1457, -146.59
3.2954, -1, -32.6758, -4.53386, 26.4207, 13.4753, 75.0548, -146.82
3.30338, -1, -32.8454, -4.6208, 26.455, 13.4775, 74.964, -147.05
3.31255, -1, -33.1, -4.7512, 26.5063, 13.4807, 74.8281, -147.396
3.31938, -1, -33.1848, -4.79464, 26.5235, 13.4819, 74.7827, -147.511
3.32744, -1, -33.3547, -4.88146, 26.5578, 13.4841, 74.692, -147.741
3.33539, -1, -33.5249, -4.96839, 26.592, 13.4863, 74.6013, -147.971
3.34339, -1, -33.6952, -5.05528, 26.6262, 13.4885, 74.511, -148.201
3.35142, -1, -33.8654, -5.14204, 26.6605, 13.4907, 74.4203, -148.43
3.36095, -1, -34.1207, -5.2721, 26.7117, 13.4941, 74.2846, -148.775
3.36739, -1, -34.2058, -5.31549, 26.7288, 13.4952, 74.2394, -148.889
3.37548, -1, -34.3759, -5.40216, 26.7631, 13.4975, 74.1487, -149.119
3.38342, -1, -34.5457, -5.48879, 26.7972, 13.4998, 74.0581, -149.348
3.39382, -1, -34.715, -5.57547, 26.8313, 13.5034, 73.9224, -149.692
3.39946, -1, -34.8838, -5.66211, 26.8654, 13.5046, 73.8771, -149.807
3.40893, -1, -35.0522, -5.74865, 26.8996, 13.5071, 73.7866, -150.036
3.41644, -1, -35.2204, -5.83513, 26.9336, 13.5095, 73.6963, -150.264
3.42345, -1, -35.3887, -5.92147, 26.9677, 13.512, 73.606, -150.493
3.43137, -1, -35.5573, -6.00767, 27.0019, 13.5143, 73.5156, -150.722
3.43959, -1, -35.7258, -6.09394, 27.0358, 13.5166, 73.4253, -150.951
3.44737, -1, -35.8944, -6.18008, 27.0698, 13.519, 73.3351, -151.179
3.45538, -1, -36.0628, -6.2662, 27.104, 13.5214, 73.2446, -151.408
3.46418, -1, -36.2314, -6.35235, 27.1379, 13.5238, 73.1541, -151.637
3.47138, -1, -36.4001, -6.43854, 27.1718, 13.5262, 73.064, -151.865
3.47942, -1, -36.5689, -6.52474, 27.2059, 13.5286, 72.9734, -152.093
3.48817, -1, -36.7377, -6.61088, 27.2398, 13.5309, 72.8832, -152.321
3.49646, -1, -36.9067, -6.69707, 27.2737, 13.5331, 72.7932, -152.549
3.50441, -1, -37.0757, -6.78324, 27.3077, 13.5354, 72.7031, -152.777
3.51532, -1, -37.3288, -6.91239, 27.3585, 13.5388, 72.5681, -153.119
3.51947, -1, -37.413, -6.9554, 27.3754, 13.5399, 72.5233, -153.233
3.52737, -1, -37.5812, -7.0415, 27.4094, 13.5422, 72.4334, -153.461
3.53544, -1, -37.7489, -7.12753, 27.4433, 13.5445, 72.3435, -153.688
3.5434, -1, -37.9165, -7.2135, 27.4771, 13.5467, 72.2538, -153.916
3.5514, -1, -38.0839, -7.29943, 27.511, 13.5489, 72.1641, -154.143
3.55944, -1, -38.2514, -7.3853, 27.545, 13.5511, 72.0742, -154.37
3.56739, -1, -38.4187, -7.47105, 27.5788, 13.5533, 71.9845, -154.597
3.57553, -1, -38.586, -7.55675, 27.6126, 13.5554, 71.8951, -154.825
3.58338, -1, -38.7533, -7.64244, 27.6465, 13.5574, 71.8053, -155.052
3.5914, -1, -38.9206, -7.72813, 27.6803, 13.5595, 71.7158, -155.279
3.59958, -1, -39.088, -7.81375, 27.714, 13.5616, 71.6269, -155.506
3.60745, -1, -39.2554, -7.8994, 27.7478, 13.5636, 71.5373, -155.732
3.61546, -1, -39.4228, -7.98509, 27.7816, 13.5656, 71.448, -155.959
3.6238, -1, -39.5905, -8.07066, 27.8153, 13.5676, 71.3587, -156.186
3.63148, -1, -39.7582, -8.15619, 27.8489, 13.5695, 71.2694, -156.413
3.63947, -1, -39.9258, -8.24166, 27.8827, 13.5715, 71.18, -156.639
3.64803, -1, -40.0934, -8.32712, 27.9164, 13.5734, 71.0906, -156.865
3.65646, -1, -40.2609, -8.41248, 27.95, 13.5753, 71.0015, -157.092
3.66341, -1, -40.4281, -8.49788, 27.9837, 13.5774, 70.912, -157.318
3.67223, -1, -40.5951, -8.58325, 28.0173, 13.5793, 70.8228, -157.544
3.67942, -1, -40.762, -8.66866, 28.0509, 13.5813, 70.7338, -157.77
3.68751, -1, -40.9285, -8.754, 28.0846, 13.5833, 70.6446, -157.996
3.69644, -1, -41.095, -8.83931, 28.1183, 13.5854, 70.5555, -158.221
3.70366, -1, -41.2612, -8.92458, 28.1518, 13.5873, 70.4665, -158.448
3.7118, -1, -41.4274, -9.00976, 28.1854, 13.5893, 70.3772, -158.673
3.72057, -1, -41.5937, -9.09492, 28.219, 13.5913, 70.288, -158.899
3.72781, -1, -41.76, -9.17999, 28.2526, 13.5933, 70.1989, -159.124
3.736, -1, -41.9263, -9.26506, 28.2861, 13.5953, 70.1099, -159.35
3.74485, -1, -42.0927, -9.35007, 28.3198, 13.5974, 70.0209, -159.575
3.75194, -1, -42.259, -9.43516, 28.3534, 13.5994, 69.9318, -159.8
3.76048, -1, -42.4252, -9.52016, 28.3868, 13.6014, 69.8431, -160.026
3.76878, -1, -42.5084, -9.56263, 28.4204, 13.6034, 69.7541, -160.251
3.77593, -1, -42.6748, -9.6476, 28.4372, 13.6045, 69.7097, -160.363
3.78437, -1, -42.9245, -9.77505, 28.4873, 13.6075, 69.5766, -160.701
3.79137, -1, -43.0077, -9.81751, 28.504, 13.6085, 69.5321, -160.814
3.79936, -1, -43.1739, -9.90242, 28.5376, 13.6105, 69.4433, -161.038
3.80741, -1, -43.3401, -9.98738, 28.5711, 13.6127, 69.3546, -161.263
3.81541, -1, -43.5061, -10.0722, 28.6045, 13.6147, 69.2662, -161.488
3.82337, -1, -43.672, -10.1572, 28.638, 13.6168, 69.1774, -161.713
3.83142, -1, -43.838, -10.2421, 28.6714, 13.6189, 69.0889, -161.937
3.83936, -1, -44.0037, -10.3269, 28.7048, 13.6211, 69.0006, -162.162
3.84736, -1, -44.1692, -10.4116, 28.7382, 13.6233, 68.9119, -162.386
3.85541, -1, -44.3344, -10.4962, 28.7718, 13.6255, 68.8233, -162.61
3.86494, -1, -44.5821, -10.6231, 28.8218, 13.6288, 68.6905, -162.947
3.87355, -1, -44.7473, -10.7076, 28.8552, 13.6309, 68.6017, -163.171
3.87945, -1, -44.8299, -10.7498, 28.872, 13.632, 68.5575, -163.283
3.88915, -1, -45.078, -10.8765, 28.922, 13.6353, 68.425, -163.619
3.89536, -1, -45.1606, -10.9188, 28.9387, 13.6364, 68.3808, -163.731
3.90497, -1, -45.3259, -11.0033, 28.9722, 13.6387, 68.2922, -164.067
3.913, -1, -45.4912, -11.0877, 29.0055, 13.6409, 68.2039, -164.291
3.91935, -1, -45.6564, -11.1721, 29.0386, 13.6431, 68.1159, -164.403
3.92936, -1, -45.8217, -11.2986, 29.0887, 13.6466, 67.9832, -164.738
3.93535, -1, -45.9859, -11.3404, 29.1054, 13.6478, 67.939, -164.85
3.94336, -1, -46.1474, -11.4228, 29.1388, 13.6501, 67.851, -165.073
3.95145, -1, -46.3044, -11.5022, 29.1724, 13.6525, 67.7635, -165.294
3.95936, -1, -46.4547, -11.5772, 29.2059, 13.6548, 67.6783, -165.51
3.96736, -1, -46.596, -11.6471, 29.2381, 13.6571, 67.5968, -165.715
3.97543, -1, -46.7256, -11.7105, 29.268, 13.6593, 67.5221, -165.905
3.98341, -1, -46.8406, -11.7666, 29.2944, 13.6613, 67.4551, -166.074
3.99136, -1, -46.9394, -11.8158, 29.3165, 13.663, 67.3993, -166.216
3.99942, -1, -47.022, -11.8587, 29.3331, 13.6643, 67.3544, -166.329
4.00735, -1, -47.0892, -11.8955, 29.3444, 13.6651, 67.3209, -166.414
4.01536, -1, -47.1417, -11.925, 29.3516, 13.6655, 67.2975, -166.473
4.02343, -1, -47.1806, -11.9471, 29.3555, 13.6657, 67.2824, -166.51
4.03136, -1, -47.2082, -11.9626, 29.3573, 13.6658, 67.2737, -166.533
4.03935, -1, -47.2264, -11.9727, 29.3581, 13.6659, 67.2689, -166.545
4.04746, -1, -47.2372, -11.9785, 29.3585, 13.6659, 67.2665, -166.551
4.05536, 2, -47.2428, -11.9814, 29.3587, 13.666, 67.2654, -166.553
4.06336, 2, -47.2448, -11.9827, 29.3589, 13.666, 67.2649, -166.555
4.07146, 2, -47.2449, -11.9833, 29.359, 13.6661, 67.2647, -166.555
4.07935, 2, -47.2447, -11.9835, 29.3591, 13.6661, 67.2645, -166.555
4.08736, 2, -47.2447, -11.9836, 29.3591, 13.6661, 67.2645, -166.556
4.09543, 2, -47.245, -11.9837, 29.3591, 13.6661, 67.2645, -166.556
4.1034, 2, -47.246, -11.9839, 29.3592, 13.6661, 67.2644, -166.556
4.11144, 2, -47.2472, -11.9844, 29.3592, 13.6661, 67.2644, -166.556
4.11953, 2, -47.249, -11.9852, 29.3592, 13.6661, 67.2644, -166.556
4.12746, 2, -47.2506, -11.9861, 29.3592, 13.6661, 67.2644, -166.555
4.13546, 2, -47.252, -11.9869, 29.3592, 13.6661, 67.2644, -166.556
4.14354, 2, -47.2529, -11.9875, 29.3592, 13.6661, 67.2644, -166.556
4.15152, 2, -47.2534, -11.9879, 29.3592, 13.6661, 67.2644, -166.556
4.15936, 2, -47.2536, -11.9881, 29.3592, 13.6661, 67.2644, -166.556
4.16745, 2, -47.2536, -11.9882, 29.3592, 13.6661, 67.2644, -166.556
4.17539, 2, -47.2533, -11.9882, 29.3592, 13.6661, 67.2644, -166.556
4.18339, 2, -47.2528, -11.9881, 29.3592, 13.6661, 67.2644, -166.556
4.19167, 2, -47.2523, -11.9881, 29.3593, 13.6661, 67.2645, -166.556
4.19971, 2, -47.252, -11.9881, 29.3593, 13.666, 67.2644, -166.555
4.20773, 2, -47.2519, -11.9881, 29.3593, 13.6661, 67.2644, -166.556
4.21594, 2, -47.2518, -11.9882, 29.3593, 13.6661, 67.2644, -166.556
4.22446, 2, -47.2519, -11.9884, 29.3593, 13.6661, 67.2644, -166.556
4.2318, 2, -47.2521, -11.9887, 29.3593, 13.6661, 67.2645, -166.555
4.24001, 2, -47.2528, -11.989, 29.3592, 13.6661, 67.2644, -166.555
4.24852, 2, -47.2533, -11.9893, 29.3592, 13.6661, 67.2644, -166.555
4.25589, 2, -47.2536, -11.9895, 29.3593, 13.666, 67.2645, -166.555
4.26447, 2, -47.2538, -11.9896, 29.3593, 13.6661, 67.2644, -166.555
4.27196, 2, -47.2538, -11.9896, 29.3593, 13.6661, 67.2644, -166.555
4.27989, 2, -47.2538, -11.9896, 29.3593, 13.6661, 67.2644, -166.555
4.28836, 2, -47.2535, -11.9895, 29.3593, 13.666, 67.2644, -166.555
4.29534, 2, -47.2533, -11.9895, 29.3593, 13.666, 67.2644, -166.555
4.30335, 2, -47.2529, -11.9894, 29.3593, 13.6661, 67.2645, -166.555
4.31249, 2, -47.2525, -11.9894, 29.3593, 13.6661, 67.2645, -166.555
4.31939, 2, -47.2524, -11.9894, 29.3593, 13.666, 67.2645, -166.555
4.32734, 2, -47.2522, -11.9894, 29.3593, 13.666, 67.2645, -166.555
4.33673, 2, -47.2521, -11.9895, 29.3593, 13.666, 67.2645, -166.555
4.34335, 2, -47.2521, -11.9895, 29.3593, 13.666, 67.2645, -166.555
4.35136, 2, -47.2521, -11.9896, 29.3593, 13.666, 67.2645, -166.555
4.36091, 2, -47.2521, -11.9897, 29.3593, 13.666, 67.2645, -166.555
4.36734, 2, -47.2522, -11.9897, 29.3593, 13.666, 67.2645, -166.555
4.37689, 2, -47.2522, -11.9897, 29.3593, 13.666, 67.2645, -166.555
4.38497, 2, -47.2522, -11.9896, 29.3593, 13.666, 67.2645, -166.555
4.39317, 2, -47.2521, -11.9895, 29.3593, 13.666, 67.2645, -166.555
4.39935, 2, -47.252, -11.9895, 29.3593, 13.666, 67.2645, -166.555
4.40834, 2, -47.2519, -11.9894, 29.3593, 13.6659, 67.2645, -166.555
4.41641, 2, -47.2518, -11.9894, 29.3592, 13.666, 67.2645, -166.555
4.42439, 2, -47.2517, -11.9894, 29.3593, 13.666, 67.2645, -166.555
4.43142, 2, -47.2516, -11.9894, 29.3592, 13.666, 67.2646, -166.555
4.43934, 2, -47.2515, -11.9894, 29.3592, 13.6659, 67.2646, -166.555
4.44734, 2, -47.2515, -11.9894, 29.3592, 13.666, 67.2646, -166.555
4.45541, 2, -47.2514, -11.9894, 29.3592, 13.666, 67.2645, -166.555
4.46335, 2, -47.2514, -11.9894, 29.3592, 13.666, 67.2645, -166.555
4.47135, 2, -47.2513, -11.9894, 29.3593, 13.666, 67.2645, -166.555
4.47941, 2, -47.2513, -11.9894, 29.3593, 13.666, 67.2646, -166.555
4.48739, 2, -47.2512, -11.9894, 29.3593, 13.666, 67.2646, -166.555
4.49539, 2, -47.2511, -11.9894, 29.3592, 13.666, 67.2646, -166.555
4.50341, 2, -47.2511, -11.9893, 29.3593, 13.666, 67.2646, -166.555
4.51135, 2, -47.251, -11.9892, 29.3592, 13.666, 67.2646, -166.555
4.51934, 2, -47.2509, -11.9892, 29.3592, 13.666, 67.2646, -166.555
4.52741, 2, -47.2508, -11.9891, 29.3592, 13.666, 67.2646, -166.555
4.53534, 2, -47.2507, -11.9891, 29.3592, 13.666, 67.2647, -166.555
4.54335, 2, -47.2506, -11.9891, 29.3592, 13.6659, 67.2647, -166.555
4.55147, 2, -47.2505, -11.9891, 29.3593, 13.666, 67.2647, -166.555
4.55934, 2, -47.2504, -11.9891, 29.3593, 13.666, 67.2647, -166.555
4.56734, 2, -47.2503, -11.9891, 29.3593, 13.666, 67.2647, -166.555
4.57543, 2, -47.2502, -11.9891, 29.3593, 13.666, 67.2647, -166.555
4.58334, 2, -47.2501, -11.9891, 29.3592, 13.666, 67.2646, -166.555
4.59135, 2, -47.2499, -11.9891, 29.3593, 13.666, 67.2646, -166.555
4.59943, 2, -47.2498, -11.9891, 29.3593, 13.6659, 67.2646, -166.555
4.60739, 2, -47.2497, -11.989, 29.3593, 13.6659, 67.2646, -166.555
4.61543, 2, -47.2496, -11.9889, 29.3593, 13.666, 67.2647, -166.555
4.62351, 2, -47.2495, -11.9888, 29.3593, 13.6659, 67.2647, -166.555
4.63145, 2, -47.2494, -11.9888, 29.3593, 13.6659, 67.2647, -166.555
4.63944, 2, -47.2493, -11.9888, 29.3592, 13.666, 67.2647, -166.555
4.64751, 2, -47.2492, -11.9888, 29.3592, 13.6659, 67.2647, -166.555
4.65549, 2, -47.2491, -11.9888, 29.3592, 13.6659, 67.2647, -166.555
4.66334, 2, -47.2491, -11.9888, 29.3592, 13.6659, 67.2647, -166.555
4.67145, 2, -47.249, -11.9888, 29.3592, 13.6659, 67.2647, -166.555
4.67937, 2, -47.249, -11.9888, 29.3592, 13.6659, 67.2647, -166.555
4.68741, 2, -47.249, -11.9888, 29.3592, 13.6659, 67.2647, -166.555
4.69586, 2, -47.2489, -11.9888, 29.3592, 13.6659, 67.2647, -166.555
4.70442, 2, -47.2488, -11.9887, 29.3592, 13.6658, 67.2647, -166.555
4.71175, 2, -47.2487, -11.9886, 29.3593, 13.6658, 67.2647, -166.555
4.72011, 2, -47.2487, -11.9886, 29.3592, 13.6658, 67.2647, -166.555
4.72845, 2, -47.2486, -11.9885, 29.3593, 13.6658, 67.2647, -166.555
4.73579, 2, -47.2485, -11.9885, 29.3593, 13.6658, 67.2647, -166.555
4.74429, 2, -47.2484, -11.9884, 29.3593, 13.6658, 67.2647, -166.555
4.75191, 2, -47.2484, -11.9884, 29.3593, 13.6658, 67.2647, -166.555
4.76049, 2, -47.2484, -11.9884, 29.3593, 13.6658, 67.2647, -166.555
4.76815, 2, -47.2483, -11.9884, 29.3593, 13.6658, 67.2647, -166.555
4.77597, 2, -47.2483, -11.9884, 29.3593, 13.6658, 67.2647, -166.555
4.78389, 2, -47.2483, -11.9884, 29.3592, 13.6658, 67.2647, -166.555
4.79237, 2, -47.2483, -11.9884, 29.3592, 13.6658, 67.2647, -166.555
4.79933, 2, -47.2483, -11.9884, 29.3592, 13.6658, 67.2647, -166.555
4.80733, 2, -47.2482, -11.9884, 29.3593, 13.6657, 67.2648, -166.555
4.8165, 2, -47.2482, -11.9883, 29.3593, 13.6657, 67.2648, -166.555
4.82338, 2, -47.2481, -11.9882, 29.3593, 13.6657, 67.2648, -166.554
4.83134, 2, -47.248, -11.9882, 29.3593, 13.6657, 67.2648, -166.554
4.84099, 2, -47.2479, -11.9881, 29.3593, 13.6657, 67.2647, -166.554
4.8488, 2, -47.2478, -11.9881, 29.3593, 13.6657, 67.2648, -166.554
4.85533, 2, -47.2478, -11.9881, 29.3593, 13.6657, 67.2648, -166.554
4.86522, 2, -47.2477, -11.9881, 29.3593, 13.6656, 67.2648, -166.554
4.87134, 2, -47.2477, -11.9881, 29.3593, 13.6656, 67.2649, -166.554
4.88087, 2, -47.2477, -11.9881, 29.3593, 13.6656, 67.2649, -166.554
4.88742, 2, -47.2477, -11.9881, 29.3593, 13.6656, 67.2649, -166.554
4.89533, 2, -47.2476, -11.988, 29.3592, 13.6656, 67.2649, -166.554
4.90496, 2, -47.2476, -11.988, 29.3593, 13.6655, 67.2649, -166.554
4.91143, 2, -47.2476, -11.988, 29.3593, 13.6655, 67.265, -166.554
4.91932, 2, -47.2475, -11.9879, 29.3593, 13.6656, 67.265, -166.554
4.92838, 2, -47.2475, -11.9879, 29.3592, 13.6655, 67.265, -166.554
4.93539, 2, -47.2474, -11.9878, 29.3592, 13.6655, 67.265, -166.554
4.94333, 2, -47.2473, -11.9878, 29.3593, 13.6655, 67.265, -166.554
4.95134, 2, -47.2472, -11.9877, 29.3593, 13.6655, 67.265, -166.554
4.95939, 2, -47.2472, -11.9877, 29.3592, 13.6655, 67.265, -166.554
4.96735, 2, -47.2471, -11.9877, 29.3592, 13.6655, 67.265, -166.554
4.97532, 2, -47.2471, -11.9877, 29.3592, 13.6655, 67.265, -166.554
4.98339, 2, -47.2471, -11.9877, 29.3592, 13.6655, 67.265, -166.554
4.99138, 2, -47.2471, -11.9877, 29.3592, 13.6654, 67.265, -166.554
4.99938, 2, -47.247, -11.9877, 29.3592, 13.6654, 67.265, -166.554
5.00739, 2, -47.247, -11.9876, 29.3592, 13.6654, 67.265, -166.554
5.01532, 2, -47.247, -11.9876, 29.3592, 13.6654, 67.265, -166.554
5.02333, 2, -47.247, -11.9876, 29.3593, 13.6654, 67.2651, -166.554
5.03141, 2, -47.2469, -11.9875, 29.3593, 13.6653, 67.2651, -166.554
5.03932, 2, -47.2467, -11.9875, 29.3593, 13.6654, 67.2651, -166.554
5.04732, 2, -47.2466, -11.9874, 29.3592, 13.6654, 67.2651, -166.554
5.05557, 2, -47.2466, -11.9874, 29.3592, 13.6653, 67.2651, -166.554
5.06333, 2, -47.2465, -11.9874, 29.3592, 13.6653, 67.2651, -166.554
5.07134, 2, -47.2465, -11.9874, 29.3592, 13.6652, 67.2651, -166.554
5.07941, 2, -47.2465, -11.9874, 29.3592, 13.6652, 67.2651, -166.554
5.08733, 2, -47.2465, -11.9874, 29.3592, 13.6653, 67.2651, -166.554
5.09533, 2, -47.2464, -11.9873, 29.3592, 13.6652, 67.2651, -166.554
5.10343, 2, -47.2464, -11.9873, 29.3592, 13.6653, 67.2651, -166.554
5.1114, 2, -47.2464, -11.9873, 29.3592, 13.6652, 67.2651, -166.554
5.11942, 2, -47.2464, -11.9873, 29.3592, 13.6652, 67.2651, -166.554
5.12748, 2, -47.2463, -11.9872, 29.3592, 13.6652, 67.2651, -166.554
5.13564, 2, -47.2463, -11.9872, 29.3592, 13.6652, 67.2651, -166.554
5.14343, 4, -47.2462, -11.9871, 29.3592, 13.6651, 67.2651, -166.554
5.1515, 4, -47.2461, -11.9871, 29.3592, 13.6651, 67.2652, -166.554
5.15943, 4, -47.2461, -11.9871, 29.3592, 13.6651, 67.2652, -166.554
5.16735, 4, -47.246, -11.9871, 29.3592, 13.6651, 67.2652, -166.554
5.17542, 4, -47.2459, -11.9871, 29.3592, 13.6651, 67.2652, -166.554
5.1834, 4, -47.2459, -11.987, 29.3592, 13.6651, 67.2652, -166.554
5.1914, 4, -47.2458, -11.987, 29.3592, 13.6651, 67.2652, -166.554
5.19952, 4, -47.2458, -11.987, 29.3592, 13.665, 67.2653, -166.554
5.20762, 4, -47.2458, -11.987, 29.3592, 13.665, 67.2652, -166.554
5.21574, 4, -47.2458, -11.987, 29.3592, 13.6649, 67.2653, -166.554
5.22378, 4, -47.2458, -11.987, 29.3592, 13.665, 67.2653, -166.554
5.2318, 4, -47.2458, -11.9869, 29.3592, 13.665, 67.2653, -166.554
5.24057, 4, -47.2457, -11.9869, 29.3592, 13.665, 67.2653, -166.554
5.2558, 4, -47.2456, -11.9868, 29.3592, 13.665, 67.2653, -166.553
5.25782, 4, -47.2456, -11.9868, 29.3592, 13.665, 67.2653, -166.553
5.2647, 4, -47.2455, -11.9868, 29.3592, 13.665, 67.2653, -166.553
5.27311, 4, -47.2455, -11.9868, 29.3592, 13.665, 67.2653, -166.554
5.28014, 4, -47.2454, -11.9868, 29.3593, 13.665, 67.2653, -166.553
5.28828, 4, -47.2454, -11.9868, 29.3592, 13.665, 67.2653, -166.553
5.29621, 4, -47.2454, -11.9867, 29.3592, 13.665, 67.2653, -166.553
5.30617, 4, -47.2453, -11.9867, 29.3592, 13.6649, 67.2653, -166.553
5.31284, 4, -47.2453, -11.9867, 29.3592, 13.6649, 67.2654, -166.553
5.32095, 4, -47.2453, -11.9867, 29.3592, 13.6649, 67.2653, -166.553
5.32891, 4, -47.2453, -11.9867, 29.3592, 13.6649, 67.2653, -166.553
5.33691, 4, -47.2453, -11.9866, 29.3592, 13.6649, 67.2653, -166.553
5.34348, 4, -47.2453, -11.9866, 29.3592, 13.6649, 67.2653, -166.553
5.35148, 4, -47.2452, -11.9866, 29.3592, 13.6649, 67.2653, -166.553
5.36214, 4, -47.2451, -11.9865, 29.3592, 13.6648, 67.2653, -166.553
5.37055, 4, -47.245, -11.9865, 29.3592, 13.6648, 67.2653, -166.553
5.3795, 4, -47.245, -11.9865, 29.3592, 13.6648, 67.2653, -166.553
5.38343, 4, -47.245, -11.9865, 29.3592, 13.6648, 67.2653, -166.553
5.39295, 4, -47.2449, -11.9865, 29.3592, 13.6648, 67.2653, -166.553
5.39944, 4, -47.2449, -11.9865, 29.3592, 13.6648, 67.2653, -166.553
5.40746, 4, -47.2449, -11.9865, 29.3592, 13.6648, 67.2653, -166.553
5.41818, 4, -47.246, -11.987, 29.3597, 13.6649, 67.2655, -166.553
5.42346, 4, -47.2469, -11.9876, 29.3603, 13.6653, 67.2656, -166.553
5.43437, 4, -47.2525, -11.9932, 29.3672, 13.6763, 67.2684, -166.552
5.43955, 4, -47.2555, -11.997, 29.3723, 13.6865, 67.2709, -166.55
5.44982, 4, -47.271, -12.0174, 29.4045, 13.7502, 67.2883, -166.536
5.45796, 5, -47.289, -12.0417, 29.4472, 13.8379, 67.3127, -166.517
5.46419, 5, -47.3012, -12.0579, 29.4771, 13.9003, 67.3304, -166.503
5.47147, 5, -47.333, -12.0996, 29.5586, 14.0719, 67.3783, -166.463
5.48235, 5, -47.4026, -12.1883, 29.7439, 14.4697, 67.488, -166.371
5.48751, 5, -47.4322, -12.2253, 29.824, 14.6435, 67.5353, -166.332
5.49657, 5, -47.5009, -12.3107, 30.0131, 15.0545, 67.646, -166.237
5.50352, 5, -47.5819, -12.4111, 30.2406, 15.5459, 67.7774, -166.125
5.51152, 5, -47.6744, -12.5254, 30.5025, 16.1062, 67.9252, -165.998
5.52282, 5, -47.8311, -12.7196, 30.9505, 17.0451, 68.1689, -165.788
5.52745, 5, -47.8872, -12.7893, 31.1112, 17.377, 68.2535, -165.715
5.53652, 5, -48.0035, -12.9347, 31.4456, 18.0573, 68.425, -165.566
5.54535, 5, -48.1235, -13.0855, 31.7915, 18.7497, 68.596, -165.417
5.55174, 5, -48.2444, -13.2384, 32.1437, 19.4445, 68.7647, -165.27
5.55947, 5, -48.3638, -13.3898, 32.4977, 20.1306, 68.9296, -165.122
5.56847, 5, -48.478, -13.537, 32.8498, 20.799, 69.0908, -164.97
5.5786, 6, -48.5823, -13.7425, 33.3602, 21.7438, 69.33, -164.707
5.58453, 6, -48.6723, -13.8057, 33.5232, 22.0384, 69.4102, -164.604
5.59158, 6, -48.7439, -13.9253, 33.8349, 22.5927, 69.5735, -164.363
5.60058, 7, -48.7938, -14.0369, 34.1269, 23.0979, 69.7426, -164.065
5.6116, 8, -48.8282, -14.1888, 34.5268, 23.7708, 70.0118, -163.49
5.61647, 8, -48.8294, -14.2345, 34.6511, 23.9764, 70.1067, -163.264
5.62472, 8, -48.8185, -14.3188, 34.8895, 24.366, 70.3042, -162.762
5.63352, 9, -48.7921, -14.3953, 35.1166, 24.7359, 70.5122, -162.204
5.64091, 9, -48.7536, -14.4663, 35.3363, 25.0947, 70.7294, -161.604
5.64847, 10, -48.7048, -14.5335, 35.5531, 25.4496, 70.9549, -160.978
5.65648, 10, -48.6466, -14.5981, 35.7685, 25.8042, 71.1862, -160.338
5.66368, 11, -48.5803, -14.6608, 35.9833, 26.161, 71.4213, -159.693
5.67226, 11, -48.508, -14.7229, 36.198, 26.5212, 71.6579, -159.05
5.68129, 12, -48.4311, -14.7853, 36.4113, 26.8865, 71.8955, -158.409
5.68835, 12, -48.3519, -14.8481, 36.622, 27.2581, 72.1339, -157.767
5.69743, 13, -48.2719, -14.9098, 36.831, 27.6369, 72.3737, -157.123
5.70449, 13, -48.1911, -14.9691, 37.0379, 28.0227, 72.6153, -156.477
5.71272, 14, -48.1085, -15.0275, 37.2426, 28.4153, 72.8588, -155.826
5.72059, 14, -48.0231, -15.0867, 37.4463, 28.8134, 73.1045, -155.172
5.72848, 15, -47.9342, -15.1463, 37.6491, 29.2156, 73.3515, -154.518
5.73988, 15, -47.7932, -15.2345, 37.9489, 29.8221, 73.7217, -153.54
5.7442, 16, -47.7434, -15.2636, 38.048, 30.0242, 73.8443, -153.216
5.75293, 16, -47.6385, -15.3228, 38.2447, 30.4272, 74.0876, -152.569
5.76459, 17, -47.4694, -15.415, 38.5339, 31.0259, 74.4441, -151.611
5.76909, 17, -47.4105, -15.4465, 38.6287, 31.2232, 74.5601, -151.294
5.7783, 18, -47.2894, -15.5098, 38.8171, 31.6144, 74.787, -150.666
5.78624, 18, -47.1632, -15.574, 39.0032, 32.001, 75.0073, -150.047
5.79323, 19, -47.0319, -15.6403, 39.1866, 32.384, 75.2213, -149.436
5.80083, 19, -46.9641, -15.6746, 39.2776, 32.5748, 75.4302, -148.832
5.80859, 20, -46.7529, -15.7812, 39.5493, 33.1454, 75.6345, -148.234
5.8205, 20, -46.5304, -15.892, 39.816, 33.7143, 75.9336, -147.351
5.82477, 21, -46.4539, -15.93, 39.9035, 33.9036, 76.0315, -147.059
5.83479, 21, -46.2973, -16.0078, 40.0771, 34.2819, 76.2243, -146.48
5.84096, 23, -46.1362, -16.0877, 40.2486, 34.659, 76.4128, -145.907
5.86635, 23, -45.6223, -16.336, 40.7449, 35.7718, 76.9486, -144.227
5.86879, 23, -45.6223, -16.3791, 40.8252, 35.9533, 77.033, -143.951
5.8742, 24, -45.4378, -16.4226, 40.9045, 36.1334, 77.1159, -143.678
5.87749, 24, -45.3429, -16.4666, 40.9827, 36.312, 77.1973, -143.406
5.8819, 24, -45.2462, -16.5111, 41.0598, 36.4888, 77.2771, -143.135
5.89045, 25, -45.0478, -16.6006, 41.211, 36.8365, 77.4322, -142.596
5.90308, 26, -44.738, -16.7365, 41.4299, 37.3438, 77.6539, -141.797
5.90562, 26, -44.6313, -16.7824, 41.5005, 37.5089, 77.7251, -141.532
5.91719, 26, -44.4124, -16.8748, 41.6379, 37.8335, 77.8643, -141.005
5.91946, 27, -44.3003, -16.9212, 41.7045, 37.993, 77.9324, -140.742
5.9315, 27, -43.9542, -17.0597, 41.8956, 38.46, 78.1305, -139.954
5.93841, 28, -43.7152, -17.1512, 42.0153, 38.7618, 78.2587, -139.431
5.94732, 28, -43.4691, -17.2415, 42.1283, 39.0554, 78.3834, -138.908
5.95325, 29, -43.3434, -17.286, 42.1823, 39.1991, 78.4448, -138.647
5.96246, 29, -42.9566, -17.4169, 42.3338, 39.6186, 78.6245, -137.863
5.96745, 30, -42.8243, -17.4596, 42.3808, 39.7542, 78.6828, -137.603
5.97645, 30, -42.5539, -17.5433, 42.4692, 40.0191, 78.7977, -137.081
5.98349, 31, -42.2749, -17.6245, 42.5505, 40.2756, 78.9094, -136.56
5.99258, 31, -41.9879, -17.7031, 42.6247, 40.5234, 79.0182, -136.04
5.99948, 32, -41.6936, -17.7793, 42.692, 40.7629, 79.1249, -135.52
6.00845, 32, -41.3925, -17.8532, 42.7525, 40.9938, 79.2285, -135.001
6.0168, 33, -41.0849, -17.9244, 42.8059, 41.2166, 79.3297, -134.483
6.02346, 33, -40.7708, -17.9923, 42.8523, 41.4315, 79.4287, -133.966
6.03169, 34, -40.4499, -18.0572, 42.8914, 41.638, 79.5246, -133.449
6.03945, 34, -40.124, -18.1196, 42.9232, 41.8366, 79.6181, -132.934
6.04844, 35, -39.7933, -18.1791, 42.9476, 42.027, 79.7093, -132.42
6.05563, 35, -39.4569, -18.2353, 42.9651, 42.2103, 79.7976, -131.907
6.06348, 36, -39.1139, -18.2881, 42.9755, 42.3858, 79.884, -131.395
6.07153, 36, -38.7634, -18.3375, 42.979, 42.5534, 79.968, -130.885
6.0795, 37, -38.4064, -18.3836, 42.976, 42.7135, 80.05, -130.375
6.0913, 37, -37.8598, -18.4461, 42.9584, 42.9395, 80.1693, -129.615
6.09551, 38, -37.675, -18.465, 42.9492, 43.0112, 80.2078, -129.362
6.10481, 38, -37.3018, -18.5004, 42.9258, 43.149, 80.2836, -128.858
6.11149, 39, -36.924, -18.5324, 42.8957, 43.2793, 80.3572, -128.355
6.12144, 39, -36.5417, -18.5609, 42.8588, 43.4023, 80.4286, -127.854
6.12755, 40, -36.1542, -18.5857, 42.8153, 43.5179, 80.4983, -127.356
6.13658, 40, -35.7605, -18.6066, 42.7654, 43.6264, 80.5662, -126.858
6.14469, 41, -35.3611, -18.6234, 42.7088, 43.7277, 80.6323, -126.363
6.15238, 41, -34.9561, -18.6367, 42.6457, 43.8215, 80.6958, -125.87
6.15961, 42, -34.5466, -18.6465, 42.5762, 43.9086, 80.7582, -125.379
6.16849, 42, -34.1341, -18.653, 42.5003, 43.9883, 80.8176, -124.891
6.17643, 43, -33.7185, -18.6564, 42.4183, 44.061, 80.8763, -124.405
6.18452, 43, -33.2988, -18.6564, 42.3302, 44.1265, 80.9326, -123.92
6.19527, 44, -32.8732, -18.6527, 42.2364, 44.1852, 81.0144, -123.199
6.20116, 44, -32.4414, -18.6452, 42.137, 44.2361, 81.041, -122.96
6.20773, 45, -32.0032, -18.6339, 42.0316, 44.2802, 81.092, -122.483
6.21662, 45, -31.56, -18.6189, 41.9202, 44.3169, 81.142, -122.009
6.22581, 46, -31.1135, -18.6006, 41.8028, 44.3459, 81.1906, -121.536
6.23289, 46, -30.6654, -18.5788, 41.6796, 44.367, 81.2365, -121.067
6.24029, 47, -30.2146, -18.5531, 41.5505, 44.3805, 81.2814, -120.599
6.24886, 47, -29.7587, -18.5229, 41.4155, 44.387, 81.3259, -120.134
6.25626, 48, -29.296, -18.4883, 41.2745, 44.3865, 81.3684, -119.67
6.2659, 48, -28.8272, -18.4495, 41.1273, 44.3771, 81.4101, -119.208
6.27226, 49, -28.3533, -18.4063, 40.9743, 44.3592, 81.4521, -118.748
6.28098, 49, -27.8767, -18.3586, 40.8154, 44.3322, 81.4933, -118.29
6.2881, 50, -27.3976, -18.3065, 40.6501, 44.2951, 81.5337, -117.832
6.29804, 50, -26.9149, -18.249, 40.4781, 44.2492, 81.5751, -117.376
6.30465, 51, -26.4256, -18.186, 40.2998, 44.1941, 81.6176, -116.92
6.31343, 51, -25.9283, -18.1174, 40.1148, 44.1286, 81.66, -116.466
6.32066, 52, -25.4245, -18.0433, 39.9223, 44.0538, 81.7028, -116.012
6.32913, 52, -25.171, -18.0043, 39.8233, 44.0122, 81.7249, -115.785
6.33789, 53, -24.4076, -17.8794, 39.5175, 43.8723, 81.792, -115.106
6.34856, 53, -23.8949, -17.7889, 39.3048, 43.71, 81.8605, -114.428
6.35301, 54, -23.3763, -17.6921, 39.0844, 43.6506, 81.8846, -114.202
6.36226, 54, -22.8495, -17.5892, 38.8574, 43.5237, 81.9339, -113.75
6.36747, 55, -22.5831, -17.5354, 38.7413, 43.4561, 81.9589, -113.524
6.37743, 55, -21.7763, -17.3647, 38.3812, 43.2356, 82.0385, -112.846
6.38761, 56, -21.2352, -17.2436, 38.1333, 43.0739, 82.0938, -112.394
6.39142, 56, -20.9635, -17.1809, 38.0067, 42.9888, 82.1218, -112.169
6.40338, 57, -20.1385, -16.9844, 37.6163, 42.7162, 82.21, -111.493
6.41039, 57, -19.577, -16.8464, 37.3479, 42.5198, 82.2701, -111.043
6.41543, 58, -19.2931, -16.7751, 37.2109, 42.4168, 82.3012, -110.818
6.42743, 58, -18.4347, -16.5514, 36.791, 42.0892, 82.3975, -110.143
6.43141, 59, -18.1473, -16.4737, 36.6475, 41.9736, 82.4305, -109.918
6.44047, 59, -17.5698, -16.3144, 36.3551, 41.7327, 82.4994, -109.469
6.44995, 60, -16.688, -16.0676, 35.904, 41.3457, 82.6075, -108.794
6.45547, 60, -16.3888, -15.9828, 35.7506, 41.2098, 82.645, -108.569
6.46442, 61, -15.7852, -15.8089, 35.4397, 40.9281, 82.7209, -108.119
6.47405, 61, -14.8733, -15.539, 34.9623, 40.4815, 82.8386, -107.446
6.48258, 62, -14.2611, -15.3544, 34.6377, 40.1685, 82.9196, -106.996
6.4905, 62, -13.6409, -15.1653, 34.3092, 39.8433, 83.0019, -106.547
6.4984, 63, -13.0111, -14.9699, 33.9767, 39.5058, 83.0862, -106.098
6.50355, 63, -12.6933, -14.8698, 33.8089, 39.3323, 83.1288, -105.873
6.51263, 64, -12.0541, -14.6662, 33.4706, 38.9758, 83.2164, -105.423
6.52042, 64, -11.4112, -14.4577, 33.1268, 38.6062, 83.3068, -104.972
6.52742, 65, -10.7607, -14.2422, 32.7774, 38.2217, 83.4017, -104.52
6.53553, 65, -10.0988, -14.0189, 32.4213, 37.8209, 83.502, -104.065
6.54441, 66, -9.42646, -13.7886, 32.0597, 37.4013, 83.6083, -103.609
6.55461, 66, -8.40376, -13.4302, 31.5053, 36.7373, 83.7812, -102.92
6.5605, 67, -8.0599, -13.307, 31.3163, 36.5063, 83.8424, -102.689
6.56801, 67, -7.36511, -13.0551, 30.9328, 36.0309, 83.9709, -102.226
6.57542, 68, -6.66038, -12.7949, 30.5429, 35.5381, 84.1069, -101.759
6.58539, 68, -5.94783, -12.5273, 30.1491, 35.0307, 84.2496, -101.29
6.59145, 69, -5.2299, -12.2532, 29.7512, 34.5102, 84.3986, -100.819
6.60043, 69, -4.50589, -11.9712, 29.3498, 33.9774, 84.5527, -100.346
6.60747, 70, -3.77348, -11.6816, 28.9474, 33.4337, 84.7124, -99.8714
6.61783, 70, -3.0317, -11.3834, 28.5443, 32.8757, 84.878, -99.3942
6.62364, 71, -2.28183, -11.0772, 28.1396, 32.3031, 85.0504, -98.9153
6.63244, 71, -1.52382, -10.7649, 27.7317, 31.7145, 85.2315, -98.4338
6.63952, 72, -0.758234, -10.446, 27.3209, 31.1097, 85.4218, -97.9491
6.648, 72, 0.0131797, -10.1215, 26.9084, 30.4875, 85.621, -97.4614
6.66041, 73, 1.17852, -9.62026, 26.2875, 29.5317, 85.9352, -96.7257
6.66425, 73, 1.5691, -9.44976, 26.0807, 29.2079, 86.0437, -96.48
6.67158, 74, 2.35252, -9.10426, 25.6687, 28.5547, 86.2665, -95.9874
6.68027, 74, 3.13827, -8.7542, 25.2603, 27.8947, 86.496, -95.4936
6.69046, 75, 3.9255, -8.39887, 24.8572, 27.2289, 86.7318, -94.9992
6.69637, 75, 4.71385, -8.03845, 24.4589, 26.5605, 86.973, -94.5046
6.70426, 76, 5.5016, -7.67354, 24.0663, 25.8928, 87.2198, -94.0096
6.71259, 76, 6.28813, -7.30346, 23.6803, 25.2244, 87.4715, -93.5136
6.72514, 77, 7.4659, -6.73564, 23.1129, 24.2274, 87.8606, -92.7699
6.73224, 77, 8.25183, -6.34706, 22.741, 23.5633, 88.1303, -92.2739
6.74511, 78, 9.43099, -5.74834, 22.1917, 22.5619, 88.5542, -91.5267
6.74637, 78, 9.43099, -5.74834, 22.1917, 22.5619, 88.5542, -91.5267
6.7518, 79, 10.2195, -5.338, 21.8303, 21.8881, 88.8522, -91.0237
6.76039, 79, 11.0108, -4.9189, 21.4717, 21.2093, 89.1631, -90.5151
6.76801, 80, 11.8007, -4.49033, 21.115, 20.5262, 89.4867, -90.0001
6.77587, 80, 12.5862, -4.05192, 20.7617, 19.8404, 89.8224, -89.4772
6.78396, 81, 13.3658, -3.60405, 20.4114, 19.1591, 90.1692, -88.9466
6.79201, 81, 13.754, -3.14801, 20.0662, 18.4869, 90.5252, -88.4099
6.79929, 82, 14.5249, -2.91759, 19.896, 18.1555, 90.706, -88.1398
6.80831, 82, 15.6642, -2.21454, 19.3998, 17.1837, 91.2568, -87.3256
6.81706, 83, 16.0387, -1.73657, 19.0814, 16.5588, 91.6288, -86.7804
6.82443, 83, 17.1447, -1.25181, 18.774, 15.9553, 92.004, -86.2348
6.83127, 83, 17.5072, -1.00706, 18.6241, 15.6613, 92.1929, -85.9625
6.83943, 84, 18.2211, -0.514909, 18.3321, 15.0884, 92.574, -85.4198
6.84727, 84, 18.9187, -0.0197064, 18.0491, 14.5365, 92.9613, -84.8782
6.85672, 85, 19.9317, 0.731166, 17.6373, 13.7463, 93.556, -84.07
6.86346, 85, 20.2602, 0.983633, 17.5035, 13.4925, 93.7581, -83.8017
6.87284, 86, 21.2197, 1.74668, 17.1102, 12.7615, 94.373, -82.9997
6.88085, 86, 21.8407, 2.2623, 16.8564, 12.2991, 94.79, -82.4645
6.88757, 87, 22.1463, 2.52345, 16.7318, 12.0753, 95.001, -82.1961
6.89527, 87, 22.7482, 3.05317, 16.4859, 11.642, 95.4275, -81.6563
6.90492, 87, 23.6317, 3.86452, 16.1248, 11.025, 96.0805, -80.8369
6.9113, 88, 23.9213, 4.13847, 16.0059, 10.8271, 96.3016, -80.5598
6.92028, 88, 24.4928, 4.69289, 15.7706, 10.4433, 96.7486, -79.9984
6.92739, 89, 25.0541, 5.25892, 15.5409, 10.0745, 97.2025, -79.4266
6.93629, 89, 25.6078, 5.837, 15.3153, 9.72138, 97.6621, -78.8433
6.94435, 90, 26.1581, 6.4257, 15.0928, 9.38378, 98.1274, -78.2469
6.95129, 90, 26.7024, 7.02408, 14.8748, 9.06146, 98.5985, -77.636
6.95936, 91, 27.2348, 7.63148, 14.6622, 8.7564, 99.0758, -77.0115
6.96728, 91, 27.7538, 8.24934, 14.4537, 8.46951, 99.5594, -76.3747
6.97533, 92, 28.2627, 8.878, 14.2489, 8.20291, 100.049, -75.7254
6.9834, 92, 28.7645, 9.51679, 14.0485, 7.95747, 100.543, -75.0665
6.99135, 93, 29.2579, 10.164, 13.8529, 7.73407, 101.041, -74.4005
6.99927, 93, 29.7393, 10.818, 13.664, 7.53364, 101.539, -73.7268
7.00743, 94, 30.2065, 11.4768, 13.4828, 7.35644, 102.037, -73.0465
7.01526, 94, 30.6589, 12.1389, 13.3086, 7.20303, 102.533, -72.3612
7.02333, 95, 31.0974, 12.8031, 13.1415, 7.07326, 103.026, -71.6712
7.03141, 95, 31.5225, 13.4691, 12.9824, 6.96736, 103.515, -70.9748
7.03927, 96, 31.9334, 14.1366, 12.8306, 6.88455, 104.001, -70.2735
7.04726, 96, 32.3286, 14.8047, 12.6851, 6.82639, 104.483, -69.5673
7.05538, 97, 32.7076, 15.4733, 12.5463, 6.79042, 104.96, -68.8545
7.06332, 97, 33.0707, 16.1407, 12.4148, 6.77548, 105.432, -68.1371
7.07128, 98, 33.4181, 16.8057, 12.2918, 6.78292, 105.897, -67.4176
7.07939, 98, 33.7511, 17.4665, 12.1776, 6.81163, 106.354, -66.6942
7.08826, 99, 34.0704, 18.1218, 12.0726, 6.85975, 106.8, -65.9703
7.09533, 99, 34.3774, 18.7698, 11.9774, 6.92805, 107.234, -65.2492
7.10383, 100, 34.6735, 19.4094, 11.8914, 7.01354, 107.656, -64.5296
7.11232, 100, 34.9581, 20.0398, 11.8144, 7.1169, 108.062, -63.8147
7.11938, 101, 35.2305, 20.6593, 11.7459, 7.23622, 108.452, -63.1074
7.12745, 101, 35.4905, 21.268, 11.6857, 7.37026, 108.827, -62.4066
7.13534, 102, 35.738, 21.8644, 11.6339, 7.51687, 109.184, -61.7151
7.14348, 102, 35.9716, 22.4474, 11.5903, 7.67414, 109.525, -61.0357
7.15158, 103, 36.1937, 23.0167, 11.5549, 7.8401, 109.851, -60.3671
7.15975, 103, 36.4079, 23.5709, 11.5277, 8.01356, 110.16, -59.7106
7.16743, 103, 36.6161, 24.1096, 11.5095, 8.19498, 110.453, -59.0673
7.17532, 104, 36.8179, 24.6327, 11.4997, 8.38458, 110.729, -58.4365
7.18336, 104, 37.0133, 25.1401, 11.4968, 8.58332, 110.985, -57.8162
7.19135, 104, 37.2025, 25.6319, 11.5004, 8.79091, 111.221, -57.2075
7.20015, 104, 37.3832, 26.1076, 11.5098, 9.00599, 111.437, -56.6114
7.2074, 104, 37.5534, 26.5669, 11.5229, 9.22697, 111.635, -56.0284
7.21551, 104, 37.7146, 27.0105, 11.539, 9.45132, 111.817, -55.4605
7.22439, 104, 37.8706, 27.4393, 11.5578, 9.67589, 111.986, -54.9112
7.23158, 104, 38.0232, 27.8523, 11.5781, 9.89825, 112.144, -54.3836
7.24001, 104, 38.1716, 28.2486, 11.5988, 10.1164, 112.293, -53.8786
7.2484, 104, 38.3144, 28.6284, 11.6189, 10.3294, 112.433, -53.3968
7.25634, 104, 38.4507, 28.9914, 11.6378, 10.5356, 112.566, -52.9395
7.26388, 104, 38.5794, 29.3362, 11.6557, 10.7344, 112.691, -52.5066
7.27291, 104, 38.6998, 29.6624, 11.6726, 10.9248, 112.808, -52.0991
7.28041, 104, 38.8118, 29.9691, 11.6881, 11.1064, 112.917, -51.7162
7.2879, 104, 38.9156, 30.2576, 11.7027, 11.2782, 113.019, -51.3582
7.29643, 104, 39.0118, 30.527, 11.7163, 11.4402, 113.113, -51.0259
7.30331, 104, 39.057, 30.6542, 11.7226, 11.5172, 113.158, -50.8694
7.31134, 104, 39.1416, 30.894, 11.7342, 11.6632, 113.241, -50.5748
7.3193, 104, 39.2182, 31.1144, 11.7447, 11.798, 113.316, -50.3057
7.32839, 104, 39.318, 31.4072, 11.7592, 11.9784, 113.416, -49.9493
7.3353, 104, 39.3473, 31.4952, 11.7635, 12.0327, 113.446, -49.843
7.34517, 104, 39.4247, 31.7299, 11.7749, 12.1773, 113.525, -49.5619
7.35125, 104, 39.4473, 31.7986, 11.7783, 12.2195, 113.547, -49.4806
7.36063, 104, 39.5065, 31.9778, 11.7877, 12.3276, 113.605, -49.2731
7.36725, 104, 39.5232, 32.029, 11.7905, 12.3581, 113.621, -49.2158
7.37525, 104, 39.5521, 32.119, 11.7956, 12.4098, 113.648, -49.1177
7.38486, 104, 39.5858, 32.226, 11.8022, 12.4666, 113.677, -49.0082
7.39303, 104, 39.6024, 32.281, 11.8061, 12.4936, 113.691, -48.9579
7.39926, 104, 39.6092, 32.3043, 11.808, 12.5042, 113.696, -48.9384
7.40886, 104, 39.6252, 32.3585, 11.8129, 12.5266, 113.706, -48.898
7.41691, 104, 39.6292, 32.3836, 11.8158, 12.5357, 113.71, -48.8827
7.42501, 104, 39.6354, 32.3937, 11.8171, 12.5387, 113.711, -48.8741
7.43132, 104, 39.6393, 32.4096, 11.8193, 12.5427, 113.713, -48.8715
7.44147, 105, 39.6416, 32.4243, 11.8217, 12.5453, 113.714, -48.8678
7.44725, 105, 39.6428, 32.4273, 11.8223, 12.5458, 113.714, -48.8673
7.45531, 105, 39.6428, 32.4316, 11.8233, 12.5462, 113.714, -48.8668
7.46325, 105, 39.642, 32.4345, 11.8242, 12.5465, 113.714, -48.8666
7.47126, 105, 39.6412, 32.4366, 11.8249, 12.5467, 113.714, -48.8668
7.47932, 105, 39.6402, 32.4382, 11.8256, 12.5467, 113.714, -48.8669
7.48725, 105, 39.639, 32.4396, 11.8262, 12.5467, 113.714, -48.8672
7.49527, 105, 39.6378, 32.4408, 11.8267, 12.5468, 113.714, -48.8674
7.50332, 105, 39.6371, 32.4419, 11.8273, 12.5468, 113.714, -48.8678
7.5113, 105, 39.6366, 32.4431, 11.8279, 12.5469, 113.714, -48.8681
7.51926, 105, 39.6363, 32.4441, 11.8284, 12.5469, 113.714, -48.8684
7.52731, 105, 39.6361, 32.4451, 11.829, 12.5469, 113.714, -48.8687
7.53525, 105, 39.6359, 32.4459, 11.8294, 12.5469, 113.714, -48.8689
7.54322, 105, 39.6357, 32.4465, 11.8297, 12.5468, 113.714, -48.8691
7.55134, 105, 39.6354, 32.4469, 11.83, 12.5468, 113.714, -48.8693
7.55926, 105, 39.6351, 32.4471, 11.8302, 12.5468, 113.714, -48.8696
