hehonglu123/Motion-Primitive-Planning/ILC/recorded_data/realrobot/from_NX/iteration_19/run_2.csv
timestamp, cmd_num, J1, J2, J3, J4, J5, J6
0.001449, -1, 39.6301, 32.4471, 11.8319, 12.5454, 113.713, -48.8724
0.007803, -1, 39.6301, 32.4471, 11.8319, 12.5454, 113.713, -48.8724
0.010482, -1, 39.6301, 32.4471, 11.8319, 12.5454, 113.713, -48.8724
0.033539, -1, 39.6301, 32.4471, 11.8319, 12.5454, 113.713, -48.8724
0.034914, -1, 39.6301, 32.4471, 11.8319, 12.5454, 113.713, -48.8724
0.037709, -1, 39.6301, 32.4471, 11.8318, 12.5454, 113.713, -48.8724
0.039433, -1, 39.6301, 32.4471, 11.8318, 12.5454, 113.713, -48.8724
0.047585, -1, 39.6301, 32.4471, 11.8318, 12.5454, 113.713, -48.8724
0.055487, -1, 39.6299, 32.447, 11.8319, 12.5454, 113.713, -48.8724
0.063491, -1, 39.6286, 32.4469, 11.8318, 12.5454, 113.713, -48.8724
0.071606, -1, 39.6249, 32.4461, 11.8318, 12.5454, 113.713, -48.8725
0.079488, -1, 39.6179, 32.444, 11.8317, 12.5454, 113.712, -48.8732
0.087548, -1, 39.6071, 32.44, 11.8317, 12.5454, 113.711, -48.8757
0.095568, -1, 39.591, 32.4332, 11.8317, 12.5453, 113.709, -48.8832
0.103546, -1, 39.5671, 32.4227, 11.8319, 12.5453, 113.704, -48.8986
0.111497, -1, 39.5336, 32.4078, 11.833, 12.5453, 113.695, -48.9251
0.119567, -1, 39.49, 32.3873, 11.8363, 12.5453, 113.679, -48.9665
0.127482, -1, 39.4344, 32.3603, 11.8429, 12.5453, 113.656, -49.0271
0.13549, -1, 39.3658, 32.3263, 11.8533, 12.5454, 113.624, -49.1099
0.14357, -1, 39.2836, 32.2846, 11.8686, 12.5455, 113.582, -49.2167
0.151501, -1, 39.1875, 32.2349, 11.8888, 12.546, 113.53, -49.3496
0.159488, -1, 39.0774, 32.1775, 11.9134, 12.5467, 113.468, -49.5073
0.16758, -1, 38.9535, 32.1123, 11.9421, 12.5479, 113.396, -49.6889
0.175491, -1, 38.8167, 32.0401, 11.9745, 12.5496, 113.316, -49.8913
0.183504, -1, 38.668, 31.9618, 12.0098, 12.5515, 113.229, -50.1116
0.191738, -1, 38.5084, 31.8779, 12.0469, 12.5538, 113.136, -50.3459
0.19968, -1, 38.3399, 31.7896, 12.0853, 12.5562, 113.04, -50.5904
0.207583, -1, 38.1643, 31.6978, 12.1243, 12.5586, 112.941, -50.8416
0.215983, -1, 37.9832, 31.6034, 12.1633, 12.561, 112.84, -51.0967
0.223633, -1, 37.7975, 31.5072, 12.2021, 12.5634, 112.738, -51.3544
0.231672, -1, 37.6084, 31.4098, 12.2409, 12.5658, 112.636, -51.6135
0.240068, -1, 37.4173, 31.312, 12.2797, 12.5683, 112.533, -51.873
0.24751, -1, 37.2254, 31.214, 12.3185, 12.5707, 112.43, -52.1326
0.255682, -1, 37.0332, 31.1162, 12.3573, 12.5733, 112.328, -52.3925
0.264473, -1, 36.8411, 31.0185, 12.396, 12.5759, 112.225, -52.6526
0.271569, -1, 36.6493, 30.9207, 12.4348, 12.5785, 112.122, -52.9131
0.279708, -1, 36.4576, 30.823, 12.4738, 12.5811, 112.019, -53.1732
0.28839, -1, 36.266, 30.7253, 12.5126, 12.5837, 111.916, -53.4337
0.295884, -1, 36.0745, 30.6274, 12.5514, 12.5862, 111.813, -53.6941
0.30389, -1, 35.8829, 30.5295, 12.5904, 12.5888, 111.71, -53.9549
0.312718, -1, 35.6912, 30.4314, 12.6293, 12.5914, 111.607, -54.2152
0.319932, -1, 35.4993, 30.3334, 12.6681, 12.5939, 111.504, -54.4754
0.328882, -1, 35.3071, 30.235, 12.7069, 12.5965, 111.401, -54.7359
0.336019, -1, 35.1146, 30.1368, 12.7458, 12.5991, 111.298, -54.9968
0.344296, -1, 34.9223, 30.0384, 12.7847, 12.6017, 111.195, -55.2576
0.352888, -1, 34.7301, 29.9399, 12.8235, 12.6043, 111.092, -55.5181
0.360069, -1, 34.634, 29.8906, 12.843, 12.6068, 110.989, -55.7789
0.368184, -1, 34.4417, 29.7922, 12.8819, 12.6081, 110.886, -56.0397
0.375477, -1, 34.2496, 29.6938, 12.9208, 12.6107, 110.834, -56.1703
0.510952, -1, 30.97, 28.0183, 13.5825, 12.6565, 109.082, -60.6095
0.51214, -1, 30.97, 28.0183, 13.5825, 12.6565, 109.082, -60.6095
0.51494, -1, 30.8739, 27.969, 13.602, 12.6579, 109.03, -60.7402
0.516237, -1, 30.8739, 27.969, 13.602, 12.6579, 109.03, -60.7402
0.518278, -1, 30.7779, 27.9197, 13.6215, 12.6593, 108.979, -60.8708
0.519519, -1, 30.7779, 27.9197, 13.6215, 12.6593, 108.979, -60.8708
0.522276, -1, 30.7779, 27.9197, 13.6215, 12.6593, 108.979, -60.8708
0.526546, -1, 30.586, 27.8211, 13.6605, 12.6622, 108.876, -61.132
0.527774, -1, 30.586, 27.8211, 13.6605, 12.6622, 108.876, -61.132
0.529753, -1, 30.49, 27.7718, 13.68, 12.6636, 108.824, -61.2627
0.531234, -1, 30.49, 27.7718, 13.68, 12.6636, 108.824, -61.2627
0.532441, -1, 30.49, 27.7718, 13.68, 12.6636, 108.824, -61.2627
0.534563, -1, 30.394, 27.7225, 13.6995, 12.665, 108.772, -61.3935
0.535768, -1, 30.394, 27.7225, 13.6995, 12.665, 108.772, -61.3935
0.538578, -1, 30.2979, 27.6731, 13.7189, 12.6663, 108.721, -61.5242
0.541886, -1, 30.2019, 27.6237, 13.7384, 12.6676, 108.669, -61.6551
0.543258, -1, 30.2019, 27.6237, 13.7384, 12.6676, 108.669, -61.6551
0.544527, -1, 30.2019, 27.6237, 13.7384, 12.6676, 108.669, -61.6551
0.547276, -1, 30.1058, 27.5743, 13.7579, 12.669, 108.618, -61.786
0.548483, -1, 30.1058, 27.5743, 13.7579, 12.669, 108.618, -61.786
0.550623, -1, 30.0095, 27.5249, 13.7774, 12.6704, 108.566, -61.9168
0.551959, -1, 30.0095, 27.5249, 13.7774, 12.6704, 108.566, -61.9168
0.561887, -1, 29.7202, 27.3768, 13.8358, 12.6744, 108.411, -62.3091
0.567482, -1, 29.6234, 27.3274, 13.8553, 12.6757, 108.36, -62.4399
0.575495, -1, 29.4296, 27.2287, 13.8942, 12.6784, 108.256, -62.7018
0.583542, -1, 29.2356, 27.1299, 13.9332, 12.6809, 108.153, -62.9636
0.591526, -1, 29.0412, 27.031, 13.9722, 12.6835, 108.05, -63.225
0.599556, -1, 28.8468, 26.9321, 14.0112, 12.686, 107.946, -63.4863
0.607477, -1, 28.6526, 26.8332, 14.0501, 12.6885, 107.843, -63.748
0.615561, -1, 28.4586, 26.7344, 14.0891, 12.6911, 107.739, -64.0099
0.623471, -1, 28.2648, 26.6357, 14.1282, 12.6935, 107.636, -64.2715
0.631484, -1, 28.0717, 26.5369, 14.1671, 12.696, 107.533, -64.533
0.639552, -1, 27.8789, 26.4381, 14.2062, 12.6984, 107.43, -64.7949
0.647492, -1, 27.6861, 26.3391, 14.2451, 12.7008, 107.326, -65.0569
0.655527, -1, 27.4938, 26.2402, 14.284, 12.7033, 107.223, -65.3185
0.663476, -1, 27.3018, 26.1412, 14.3231, 12.7056, 107.12, -65.58
0.671473, -1, 27.1095, 26.0423, 14.362, 12.7079, 107.016, -65.8416
0.806833, -1, 23.92, 24.4116, 15.005, 12.7462, 105.313, -70.1597
0.808824, -1, 23.8236, 24.3622, 15.0245, 12.7474, 105.261, -70.2906
0.810094, -1, 23.8236, 24.3622, 15.0245, 12.7474, 105.261, -70.2906
0.811983, -1, 23.7271, 24.3128, 15.0439, 12.7486, 105.209, -70.4214
0.813419, -1, 23.7271, 24.3128, 15.0439, 12.7486, 105.209, -70.4214
0.814605, -1, 23.7271, 24.3128, 15.0439, 12.7486, 105.209, -70.4214
0.81664, -1, 23.6306, 24.2633, 15.0634, 12.7498, 105.157, -70.5524
0.819992, -1, 23.534, 24.2139, 15.0829, 12.751, 105.106, -70.6834
0.82151, -1, 23.534, 24.2139, 15.0829, 12.751, 105.106, -70.6834
0.822786, -1, 23.534, 24.2139, 15.0829, 12.751, 105.106, -70.6834
0.82556, -1, 23.4373, 24.1644, 15.1024, 12.7522, 105.054, -70.8142
0.826746, -1, 23.4373, 24.1644, 15.1024, 12.7522, 105.054, -70.8142
0.829747, -1, 23.3405, 24.115, 15.1218, 12.7534, 105.002, -70.945
0.831048, -1, 23.3405, 24.115, 15.1218, 12.7534, 105.002, -70.945
0.833011, -1, 23.2437, 24.0656, 15.1413, 12.7546, 104.951, -71.0759
0.835927, -1, 23.1468, 24.0161, 15.1607, 12.7559, 104.899, -71.2068
0.837382, -1, 23.1468, 24.0161, 15.1607, 12.7559, 104.899, -71.2068
0.83857, -1, 23.1468, 24.0161, 15.1607, 12.7559, 104.899, -71.2068
0.840597, -1, 23.0499, 23.9666, 15.1801, 12.7571, 104.847, -71.3376
0.841876, -1, 23.0499, 23.9666, 15.1801, 12.7571, 104.847, -71.3376
0.843225, -1, 23.0499, 23.9666, 15.1801, 12.7571, 104.847, -71.3376
0.848974, -1, 22.8559, 23.8678, 15.2191, 12.7595, 104.744, -71.5995
0.85753, -1, 22.6619, 23.769, 15.258, 12.7619, 104.64, -71.8614
0.864106, -1, 22.565, 23.6703, 15.297, 12.7644, 104.537, -72.1227
0.871445, -1, 22.3714, 23.621, 15.3165, 12.7657, 104.486, -72.2535
0.87946, -1, 22.1782, 23.5223, 15.3554, 12.7682, 104.382, -72.5149
0.887546, -1, 21.985, 23.4236, 15.3943, 12.7709, 104.279, -72.7765
0.895471, -1, 21.7921, 23.3249, 15.4334, 12.7735, 104.176, -73.0381
0.903451, -1, 21.5998, 23.2261, 15.4723, 12.7762, 104.072, -73.2992
0.911579, -1, 21.4076, 23.1274, 15.5112, 12.7788, 103.97, -73.5608
0.919455, -1, 21.2154, 23.0287, 15.5502, 12.7815, 103.866, -73.8225
0.927509, -1, 21.023, 22.9301, 15.5891, 12.7841, 103.763, -74.0839
0.935522, -1, 20.8305, 22.8314, 15.628, 12.7868, 103.66, -74.345
0.943458, -1, 20.638, 22.7328, 15.667, 12.7896, 103.557, -74.6061
0.951526, -1, 20.4451, 22.6342, 15.7058, 12.7923, 103.454, -74.8675
0.959465, -1, 20.2517, 22.5355, 15.7447, 12.795, 103.351, -75.129
0.967469, -1, 20.058, 22.4367, 15.7837, 12.7977, 103.248, -75.3899
0.977074, -1, 19.7675, 22.2886, 15.8418, 12.8018, 103.093, -75.7816
0.983458, -1, 19.6707, 22.2393, 15.8612, 12.8031, 103.042, -75.9123
0.991456, -1, 19.4772, 22.1407, 15.9002, 12.8059, 102.939, -76.1736
1.00047, -1, 19.284, 22.042, 15.939, 12.8086, 102.836, -76.4345
1.00746, -1, 19.0911, 21.9433, 15.9779, 12.8114, 102.733, -76.6954
1.01647, -1, 18.8984, 21.8447, 16.0168, 12.8141, 102.629, -76.9562
1.02353, -1, 18.7062, 21.746, 16.0556, 12.8169, 102.527, -77.2173
1.03146, -1, 18.5143, 21.6473, 16.0944, 12.8195, 102.424, -77.4782
1.03949, -1, 18.3225, 21.5488, 16.1333, 12.8222, 102.321, -77.7387
1.04754, -1, 18.1306, 21.4503, 16.1721, 12.8248, 102.218, -77.9996
1.05551, -1, 17.9386, 21.3519, 16.211, 12.8273, 102.115, -78.2604
1.06352, -1, 17.7468, 21.2536, 16.2499, 12.8298, 102.012, -78.5211
1.07146, -1, 17.5546, 21.1552, 16.2887, 12.8323, 101.909, -78.7816
1.07948, -1, 17.362, 21.0569, 16.3276, 12.8348, 101.806, -79.042
1.08752, -1, 17.1689, 20.9586, 16.3664, 12.8372, 101.703, -79.3027
1.09549, -1, 16.9759, 20.8603, 16.4051, 12.8396, 101.601, -79.5633
1.1035, -1, 16.7829, 20.7621, 16.4439, 12.842, 101.498, -79.8237
1.11152, -1, 16.5897, 20.6639, 16.4827, 12.8443, 101.395, -80.0842
1.11946, -1, 16.3968, 20.5656, 16.5214, 12.8467, 101.293, -80.3447
1.12747, -1, 16.2042, 20.4673, 16.5601, 12.8489, 101.19, -80.6054
1.13554, -1, 16.0122, 20.369, 16.5988, 12.8513, 101.087, -80.8657
1.14346, -1, 15.8203, 20.2705, 16.6376, 12.8536, 100.984, -81.1259
1.15147, -1, 15.6287, 20.1719, 16.6762, 12.8559, 100.882, -81.3859
1.15957, -1, 15.4375, 20.0736, 16.7148, 12.8582, 100.779, -81.646
1.16767, -1, 15.2464, 19.9754, 16.7536, 12.8605, 100.677, -81.9061
1.17557, -1, 15.0552, 19.8771, 16.7923, 12.8628, 100.574, -82.1659
1.18349, -1, 14.864, 19.7789, 16.831, 12.8651, 100.472, -82.4257
1.19232, -1, 14.6726, 19.6808, 16.8697, 12.8674, 100.369, -82.6858
1.19973, -1, 14.4809, 19.5827, 16.9084, 12.8696, 100.266, -82.9457
1.20755, -1, 14.2889, 19.4846, 16.9471, 12.8719, 100.164, -83.2052
1.21629, -1, 14.0965, 19.3866, 16.9858, 12.8742, 100.061, -83.4647
1.22393, -1, 13.9042, 19.2887, 17.0244, 12.8765, 99.9585, -83.7244
1.23156, -1, 13.7117, 19.1909, 17.063, 12.8788, 99.8562, -83.9842
1.24029, -1, 13.5193, 19.093, 17.1018, 12.8811, 99.7536, -84.2434
1.24812, -1, 13.3271, 18.9951, 17.1403, 12.8834, 99.6512, -84.5027
1.25549, -1, 13.1353, 18.8973, 17.1788, 12.8858, 99.549, -84.7619
1.26438, -1, 12.9439, 18.7993, 17.2175, 12.8881, 99.4464, -85.0214
1.27218, -1, 12.7528, 18.7013, 17.2561, 12.8904, 99.344, -85.2807
1.27955, -1, 12.5619, 18.6034, 17.2945, 12.8929, 99.2419, -85.5396
1.28887, -1, 12.3715, 18.5057, 17.3331, 12.8953, 99.1396, -85.7984
1.29654, -1, 12.1813, 18.4078, 17.3716, 12.8977, 99.0374, -86.0575
1.30372, -1, 11.9911, 18.3102, 17.4101, 12.9001, 98.9354, -86.3164
1.31352, -1, 11.8008, 18.2126, 17.4488, 12.9025, 98.8334, -86.5748
1.31985, -1, 11.6101, 18.1149, 17.4873, 12.905, 98.7316, -86.8335
1.32799, -1, 11.4192, 18.0173, 17.5258, 12.9074, 98.6296, -87.0923
1.33608, -1, 11.228, 17.9198, 17.5644, 12.9098, 98.5276, -87.3509
1.34461, -1, 11.0366, 17.8223, 17.6029, 12.9123, 98.4259, -87.6092
1.35203, -1, 10.8451, 17.725, 17.6414, 12.9148, 98.3238, -87.8673
1.36027, -1, 10.6534, 17.6275, 17.6798, 12.9173, 98.2218, -88.1256
1.36799, -1, 10.5577, 17.5787, 17.699, 12.9186, 98.1201, -88.3839
1.37544, -1, 10.3664, 17.4812, 17.7374, 12.9212, 98.0692, -88.513
1.3835, -1, 10.1754, 17.3837, 17.7758, 12.9236, 97.9673, -88.771
1.39147, -1, 9.98477, 17.286, 17.8142, 12.9263, 97.8655, -89.029
1.39944, -1, 9.79447, 17.1884, 17.8525, 12.9289, 97.7635, -89.2872
1.40751, -1, 9.6045, 17.0909, 17.8908, 12.9316, 97.6615, -89.5454
1.41546, -1, 9.4151, 16.9936, 17.9291, 12.9344, 97.5598, -89.803
1.42345, -1, 9.22582, 16.8962, 17.9675, 12.9371, 97.4578, -90.0606
1.43145, -1, 9.03643, 16.799, 18.0059, 12.9397, 97.3559, -90.3181
1.43944, -1, 8.84699, 16.7018, 18.0441, 12.9424, 97.2543, -90.5756
1.44892, -1, 8.56258, 16.5561, 18.1018, 12.9463, 97.1017, -90.9618
1.45545, -1, 8.46776, 16.5075, 18.121, 12.9477, 97.051, -91.0904
1.46345, -1, 8.27782, 16.4106, 18.1592, 12.9504, 96.9497, -91.3475
1.47302, -1, 7.99208, 16.2652, 18.2168, 12.9544, 96.7972, -91.7333
1.47953, -1, 7.89685, 16.2168, 18.2359, 12.9557, 96.7464, -91.8618
1.48744, -1, 7.70632, 16.1198, 18.2741, 12.9583, 96.645, -92.1186
1.49701, -1, 7.51579, 16.0228, 18.3125, 12.9609, 96.4928, -92.5036
1.50346, -1, 7.32558, 15.9259, 18.3507, 12.9635, 96.4422, -92.632
1.51356, -1, 7.04068, 15.7804, 18.4079, 12.9673, 96.2902, -93.0171
1.51951, -1, 6.94591, 15.7318, 18.4271, 12.9686, 96.2396, -93.1453
1.52748, -1, 6.7567, 15.635, 18.4654, 12.9711, 96.1387, -93.4017
1.53544, -1, 6.56802, 15.5381, 18.5033, 12.9736, 96.0378, -93.6581
1.54352, -1, 6.37973, 15.4414, 18.5415, 12.9761, 95.9366, -93.9147
1.55145, -1, 6.19157, 15.3447, 18.5798, 12.9786, 95.8357, -94.1709
1.55947, -1, 6.00338, 15.248, 18.6179, 12.981, 95.7348, -94.4268
1.56744, -1, 5.81493, 15.1513, 18.6561, 12.9833, 95.6338, -94.6826
1.57551, -1, 5.6265, 15.0546, 18.6942, 12.9857, 95.5329, -94.9386
1.58346, -1, 5.43787, 14.9581, 18.7322, 12.988, 95.4322, -95.1945
1.59144, -1, 5.24892, 14.8616, 18.7705, 12.9903, 95.3314, -95.4499
1.59953, -1, 5.05962, 14.7653, 18.8086, 12.9925, 95.2309, -95.7054
1.60745, -1, 4.87024, 14.6689, 18.8465, 12.9948, 95.1301, -95.9609
1.61548, -1, 4.68087, 14.5725, 18.8847, 12.9971, 95.0293, -96.2164
1.62352, -1, 4.49149, 14.4761, 18.9227, 12.9992, 94.9287, -96.4714
1.63144, -1, 4.3025, 14.3798, 18.9607, 13.0015, 94.8279, -96.7262
1.63951, -1, 4.11365, 14.2834, 18.9988, 13.0036, 94.7269, -96.9813
1.64745, -1, 3.92524, 14.187, 19.0367, 13.006, 94.6263, -97.2364
1.65544, -1, 3.73758, 14.0909, 19.0747, 13.0082, 94.5254, -97.4912
1.66356, -1, 3.55023, 13.9947, 19.1127, 13.0106, 94.4246, -97.7459
1.67145, -1, 3.36324, 13.8986, 19.1505, 13.0128, 94.3242, -98.0006
1.67949, -1, 3.17622, 13.8026, 19.1883, 13.0151, 94.2234, -98.2554
1.68749, -1, 2.98916, 13.7065, 19.2263, 13.0174, 94.1227, -98.51
1.69547, -1, 2.80216, 13.6104, 19.2642, 13.0197, 94.0222, -98.7642
1.70358, -1, 2.61493, 13.5145, 19.3021, 13.0219, 93.9217, -99.0182
1.71153, -1, 2.42758, 13.4186, 19.34, 13.0242, 93.8212, -99.2724
1.7196, -1, 2.23996, 13.3228, 19.3777, 13.0264, 93.721, -99.5265
1.72764, -1, 2.05194, 13.227, 19.4156, 13.0286, 93.6206, -99.7803
1.73555, -1, 1.86383, 13.1312, 19.4534, 13.031, 93.5206, -100.034
1.74354, -1, 1.67556, 13.0353, 19.4912, 13.0332, 93.4207, -100.287
1.75163, -1, 1.4874, 12.9395, 19.529, 13.0354, 93.3205, -100.541
1.75947, -1, 1.29946, 12.8436, 19.5668, 13.0378, 93.2206, -100.795
1.7675, -1, 1.11182, 12.7478, 19.6045, 13.0401, 93.1206, -101.048
1.77559, -1, 0.924794, 12.6522, 19.6422, 13.0425, 93.0205, -101.301
1.78355, -1, 0.738306, 12.5566, 19.6799, 13.0449, 92.9208, -101.554
1.79169, -1, 0.552193, 12.461, 19.7174, 13.0473, 92.821, -101.807
1.79978, -1, 0.366415, 12.3656, 19.7551, 13.0497, 92.7212, -102.06
1.80773, -1, 0.180841, 12.2702, 19.7928, 13.0522, 92.6218, -102.312
1.81595, -1, -0.004479, 12.1749, 19.8303, 13.0546, 92.5223, -102.565
1.82454, -1, -0.189994, 12.0796, 19.868, 13.057, 92.4226, -102.818
1.83196, -1, -0.375816, 11.9843, 19.9056, 13.0595, 92.3232, -103.07
1.84053, -1, -0.561942, 11.8892, 19.9431, 13.062, 92.2237, -103.322
1.84801, -1, -0.748287, 11.7942, 19.9807, 13.0644, 92.1243, -103.574
1.85603, -1, -0.934825, 11.6992, 20.0182, 13.0669, 92.025, -103.826
1.86417, -1, -1.12158, 11.6041, 20.0556, 13.0695, 91.9255, -104.078
1.87198, -1, -1.21508, 11.5566, 20.0744, 13.0708, 91.8758, -104.33
1.87944, -1, -1.40206, 11.4615, 20.112, 13.0733, 91.7765, -104.455
1.88749, -1, -1.58873, 11.3664, 20.1494, 13.0758, 91.6776, -104.707
1.89546, -1, -1.77514, 11.2713, 20.1868, 13.0783, 91.5782, -104.959
1.90343, -1, -1.96123, 11.1762, 20.2243, 13.081, 91.4791, -105.21
1.91148, -1, -2.14664, 11.0814, 20.2617, 13.0837, 91.38, -105.461
1.91946, -1, -2.33152, 10.9864, 20.299, 13.0863, 91.2807, -105.712
1.92745, -1, -2.51621, 10.8916, 20.3364, 13.089, 91.1816, -105.963
1.93543, -1, -2.70035, 10.7968, 20.3736, 13.0916, 91.0826, -106.214
1.94343, -1, -2.88418, 10.7021, 20.411, 13.0943, 90.9835, -106.465
1.95289, -1, -3.16013, 10.56, 20.4671, 13.0982, 90.8353, -106.84
1.95944, -1, -3.25224, 10.5127, 20.4857, 13.0995, 90.7858, -106.966
1.96744, -1, -3.43669, 10.4182, 20.5229, 13.102, 90.6869, -107.216
1.97702, -1, -3.71384, 10.2766, 20.5788, 13.1058, 90.5387, -107.592
1.98343, -1, -3.80637, 10.2294, 20.5974, 13.1071, 90.4891, -107.717
1.99143, -1, -3.99162, 10.135, 20.6346, 13.1095, 90.3904, -107.967
1.99955, -1, -4.17703, 10.0407, 20.6718, 13.112, 90.2918, -108.217
2.00745, -1, -4.36273, 9.94642, 20.709, 13.1143, 90.1932, -108.467
2.01644, -1, -4.5482, 9.85208, 20.7462, 13.1167, 90.0946, -108.716
2.02343, -1, -4.73334, 9.75782, 20.7835, 13.1189, 89.9962, -108.966
2.03143, -1, -4.91808, 9.66362, 20.8205, 13.1215, 89.8977, -109.215
2.04023, -1, -5.10224, 9.56961, 20.8576, 13.1238, 89.7992, -109.464
2.04857, -1, -5.28576, 9.47552, 20.8948, 13.1262, 89.7009, -109.713
2.05543, -1, -5.46892, 9.38158, 20.9319, 13.1284, 89.6025, -109.962
2.06427, -1, -5.65159, 9.28767, 20.969, 13.1307, 89.5041, -110.211
2.07142, -1, -5.83394, 9.19377, 21.006, 13.133, 89.4061, -110.46
2.07955, -1, -6.01626, 9.09988, 21.043, 13.1353, 89.3079, -110.709
2.08826, -1, -6.19876, 9.00604, 21.08, 13.1375, 89.2098, -110.957
2.09542, -1, -6.38163, 8.91233, 21.1171, 13.1397, 89.1121, -111.205
2.10343, -1, -6.5647, 8.81871, 21.1539, 13.1418, 89.0141, -111.454
2.11235, -1, -6.74797, 8.7251, 21.1908, 13.1441, 88.916, -111.702
2.11944, -1, -6.93179, 8.63149, 21.2278, 13.1462, 88.8183, -111.95
2.12743, -1, -7.1158, 8.53788, 21.2646, 13.1483, 88.7203, -112.198
2.13621, -1, -7.30017, 8.44431, 21.3015, 13.1504, 88.6225, -112.445
2.14343, -1, -7.48415, 8.35062, 21.3385, 13.1525, 88.5249, -112.693
2.15143, -1, -7.66784, 8.25713, 21.3752, 13.1547, 88.4272, -112.941
2.16022, -1, -7.85111, 8.16373, 21.412, 13.1569, 88.3297, -113.188
2.16748, -1, -8.03397, 8.0703, 21.4489, 13.1592, 88.2325, -113.435
2.17557, -1, -8.21618, 7.977, 21.4856, 13.1614, 88.1351, -113.682
2.18423, -1, -8.39778, 7.88375, 21.5224, 13.1637, 88.0376, -113.929
2.19143, -1, -8.57898, 7.7905, 21.5592, 13.1659, 87.9404, -114.176
2.19968, -1, -8.75979, 7.69733, 21.596, 13.1683, 87.8429, -114.422
2.2083, -1, -8.94042, 7.6042, 21.6327, 13.1704, 87.7453, -114.669
2.21552, -1, -9.12129, 7.51113, 21.6695, 13.1727, 87.6483, -114.915
2.22383, -1, -9.30245, 7.41823, 21.7061, 13.1749, 87.551, -115.162
2.23235, -1, -9.48387, 7.32544, 21.7427, 13.1771, 87.4538, -115.408
2.23954, -1, -9.66571, 7.23259, 21.7795, 13.1793, 87.3568, -115.654
2.24804, -1, -9.84788, 7.13985, 21.816, 13.1816, 87.2595, -115.9
2.2565, -1, -10.0303, 7.04714, 21.8526, 13.1837, 87.1624, -116.146
2.26345, -1, -10.213, 6.95439, 21.8892, 13.186, 87.0654, -116.392
2.2723, -1, -10.3957, 6.86162, 21.9258, 13.1882, 86.9681, -116.638
2.28055, -1, -10.5782, 6.76887, 21.9623, 13.1904, 86.871, -116.883
2.28754, -1, -10.7601, 6.67619, 21.9989, 13.1928, 86.7741, -117.129
2.29643, -1, -10.9417, 6.58356, 22.0353, 13.1953, 86.6772, -117.374
2.30369, -1, -11.1226, 6.49099, 22.0717, 13.1976, 86.5804, -117.619
2.31176, -1, -11.3027, 6.39851, 22.1083, 13.2, 86.4839, -117.864
2.32064, -1, -11.4824, 6.30602, 22.1448, 13.2024, 86.3871, -118.109
2.328, -1, -11.6619, 6.21358, 22.1811, 13.2048, 86.2904, -118.354
2.33602, -1, -11.8411, 6.12122, 22.2177, 13.2073, 86.1939, -118.598
2.34476, -1, -12.0203, 6.02895, 22.2541, 13.2098, 86.0971, -118.842
2.35197, -1, -12.1996, 5.93678, 22.2905, 13.2123, 86.0007, -119.086
2.36005, -1, -12.3793, 5.84477, 22.327, 13.2148, 85.9045, -119.331
2.36863, -1, -12.4694, 5.79876, 22.3451, 13.2172, 85.8081, -119.575
2.37616, -1, -12.6496, 5.70674, 22.3813, 13.2185, 85.7599, -119.819
2.38398, -1, -12.8303, 5.61481, 22.4177, 13.2209, 85.6637, -119.941
2.39141, -1, -13.0112, 5.52291, 22.4541, 13.2234, 85.568, -120.184
2.39945, -1, -13.1924, 5.43089, 22.4902, 13.2258, 85.4719, -120.428
2.40853, -1, -13.4641, 5.29291, 22.5447, 13.2295, 85.3282, -120.793
2.41542, -1, -13.5545, 5.24694, 22.5628, 13.2307, 85.2804, -120.915
2.42343, -1, -13.7349, 5.15509, 22.5988, 13.2333, 85.1845, -121.158
2.43142, -1, -13.9149, 5.06322, 22.635, 13.2359, 85.0886, -121.401
2.43941, -1, -14.0941, 4.97146, 22.6712, 13.2385, 84.9933, -121.644
2.44746, -1, -14.2725, 4.87976, 22.7073, 13.241, 84.8974, -121.887
2.457, -1, -14.5395, 4.74232, 22.7615, 13.2449, 84.7542, -122.25
2.46494, -1, -14.7172, 4.65071, 22.7978, 13.2474, 84.6585, -122.493
2.47147, -1, -14.806, 4.60497, 22.8158, 13.2487, 84.6106, -122.614
2.48108, -1, -15.0724, 4.4678, 22.8699, 13.2523, 84.4672, -122.978
2.48742, -1, -15.1614, 4.42215, 22.888, 13.2535, 84.4194, -123.099
2.497, -1, -15.3396, 4.33083, 22.9241, 13.256, 84.2758, -123.461
2.50346, -1, -15.5183, 4.2395, 22.9601, 13.2584, 84.2279, -123.582
2.51141, -1, -15.6974, 4.14826, 22.9962, 13.2607, 84.1326, -123.824
2.51948, -1, -15.8765, 4.05706, 23.0321, 13.2629, 84.037, -124.066
2.52951, -1, -16.1458, 3.92014, 23.0861, 13.2662, 83.8939, -124.428
2.53542, -1, -16.2358, 3.87451, 23.1041, 13.2672, 83.8463, -124.548
2.54348, -1, -16.4154, 3.78333, 23.14, 13.2694, 83.7507, -124.79
2.55153, -1, -16.5946, 3.69215, 23.1758, 13.2716, 83.6553, -125.031
2.55948, -1, -16.7733, 3.60104, 23.2117, 13.2739, 83.5601, -125.273
2.56744, -1, -16.9513, 3.51, 23.2476, 13.2761, 83.4645, -125.513
2.57543, -1, -17.1285, 3.41902, 23.2834, 13.2783, 83.3692, -125.754
2.58348, -1, -17.3052, 3.32809, 23.3193, 13.2805, 83.2742, -125.995
2.59141, -1, -17.4816, 3.23726, 23.3551, 13.2826, 83.179, -126.235
2.59942, -1, -17.6578, 3.14651, 23.3909, 13.2848, 83.084, -126.476
2.60748, -1, -17.8338, 3.05591, 23.4268, 13.287, 82.9894, -126.716
2.61545, -1, -18.0099, 2.96534, 23.4627, 13.289, 82.8945, -126.956
2.62342, -1, -18.1863, 2.87498, 23.4984, 13.2912, 82.7997, -127.197
2.63148, -1, -18.3629, 2.78455, 23.5342, 13.2933, 82.7051, -127.436
2.63941, -1, -18.5402, 2.69415, 23.5699, 13.2953, 82.6103, -127.676
2.64743, -1, -18.7177, 2.6038, 23.6055, 13.2974, 82.5157, -127.916
2.65551, -1, -18.8956, 2.51342, 23.6413, 13.2994, 82.4213, -128.155
2.66341, -1, -19.0738, 2.42289, 23.677, 13.3014, 82.3269, -128.395
2.6715, -1, -19.252, 2.33249, 23.7125, 13.3034, 82.2325, -128.634
2.67944, -1, -19.4301, 2.24209, 23.7481, 13.3054, 82.1384, -128.873
2.68741, -1, -19.6074, 2.15169, 23.7837, 13.3077, 82.0443, -129.112
2.69562, -1, -19.7842, 2.06138, 23.8191, 13.3098, 81.9501, -129.351
2.70344, -1, -19.9604, 1.97112, 23.8546, 13.3119, 81.8559, -129.59
2.7115, -1, -20.1358, 1.88086, 23.8902, 13.3141, 81.7619, -129.829
2.7198, -1, -20.3109, 1.7907, 23.9257, 13.3164, 81.6679, -130.067
2.72751, -1, -20.4856, 1.7006, 23.9612, 13.3185, 81.5739, -130.305
2.73555, -1, -20.66, 1.61064, 23.9968, 13.3208, 81.4801, -130.544
2.74396, -1, -20.8346, 1.52069, 24.0322, 13.3229, 81.3862, -130.782
2.75142, -1, -21.0094, 1.43092, 24.0676, 13.3251, 81.2925, -131.02
2.75941, -1, -21.1846, 1.3412, 24.1032, 13.3273, 81.1988, -131.258
2.76817, -1, -21.3601, 1.25142, 24.1386, 13.3295, 81.1049, -131.495
2.77545, -1, -21.536, 1.16179, 24.1739, 13.3317, 81.011, -131.733
2.78353, -1, -21.7121, 1.07217, 24.2094, 13.3338, 80.9173, -131.971
2.79158, -1, -21.8883, 0.982512, 24.2448, 13.336, 80.8234, -132.208
2.79962, -1, -22.0649, 0.892893, 24.2801, 13.3381, 80.7296, -132.445
2.8078, -1, -22.2414, 0.803316, 24.3156, 13.3402, 80.6361, -132.683
2.81578, -1, -22.4178, 0.713812, 24.3508, 13.3424, 80.5424, -132.92
2.82382, -1, -22.5936, 0.624291, 24.386, 13.3448, 80.4488, -133.156
2.83194, -1, -22.769, 0.534859, 24.4212, 13.3472, 80.3554, -133.393
2.84059, -1, -22.9434, 0.445455, 24.4565, 13.3496, 80.2616, -133.63
2.84794, -1, -23.1172, 0.356054, 24.4916, 13.3521, 80.1681, -133.867
2.85651, -1, -23.2907, 0.266707, 24.5268, 13.3545, 80.0748, -134.104
2.86402, -1, -23.4638, 0.177454, 24.562, 13.3569, 79.9811, -134.34
2.87202, -1, -23.5503, 0.132877, 24.5972, 13.3593, 79.8879, -134.576
2.88005, -1, -23.7236, 0.0437156, 24.6147, 13.3604, 79.7948, -134.812
2.8874, -1, -23.897, -0.0453559, 24.6499, 13.3629, 79.7483, -134.93
2.8954, -1, -24.0705, -0.134292, 24.685, 13.3654, 79.655, -135.166
2.90348, -1, -24.2443, -0.223295, 24.72, 13.3678, 79.5619, -135.402
2.91142, -1, -24.4184, -0.312237, 24.7552, 13.3702, 79.4691, -135.637
2.9194, -1, -24.5929, -0.401102, 24.7903, 13.3727, 79.3758, -135.873
2.92745, -1, -24.7677, -0.490003, 24.8253, 13.3751, 79.2827, -136.109
2.93541, -1, -24.9427, -0.578871, 24.8603, 13.3775, 79.1899, -136.344
2.9434, -1, -25.1178, -0.667724, 24.8954, 13.3799, 79.0968, -136.579
2.95145, -1, -25.2925, -0.756486, 24.9304, 13.3821, 79.0039, -136.814
2.96093, -1, -25.5538, -0.88966, 24.983, 13.3859, 78.8651, -137.167
2.96747, -1, -25.6407, -0.934044, 25.0004, 13.3872, 78.8186, -137.285
2.97701, -1, -25.9003, -1.06709, 25.0527, 13.3907, 78.6797, -137.636
2.98342, -1, -25.9865, -1.11145, 25.0702, 13.392, 78.6337, -137.754
2.99304, -1, -26.1588, -1.24442, 25.1226, 13.3957, 78.4947, -138.105
2.9994, -1, -26.3307, -1.2887, 25.14, 13.3968, 78.4484, -138.223
3.00898, -1, -26.5025, -1.37718, 25.1748, 13.3992, 78.356, -138.457
3.01546, -1, -26.6745, -1.46553, 25.2098, 13.4013, 78.2635, -138.691
3.02444, -1, -26.8465, -1.55381, 25.2447, 13.4037, 78.1711, -138.925
3.03141, -1, -27.0189, -1.64199, 25.2795, 13.4059, 78.0787, -139.159
3.03946, -1, -27.1914, -1.73021, 25.3144, 13.408, 77.9868, -139.393
3.04742, -1, -27.364, -1.8184, 25.3492, 13.4103, 77.8945, -139.627
3.05551, -1, -27.5371, -1.90646, 25.3839, 13.4124, 77.8025, -139.861
3.06346, -1, -27.7104, -1.99466, 25.4188, 13.4145, 77.7106, -140.094
3.07142, -1, -27.8837, -2.08277, 25.4536, 13.4167, 77.6184, -140.327
3.07941, -1, -28.057, -2.17075, 25.4884, 13.4186, 77.5264, -140.561
3.08746, -1, -28.2302, -2.25876, 25.5231, 13.4206, 77.4346, -140.794
3.09539, -1, -28.4031, -2.34688, 25.5579, 13.4227, 77.3424, -141.027
3.10367, -1, -28.5757, -2.43488, 25.5926, 13.4248, 77.2502, -141.26
3.11139, -1, -28.7478, -2.52281, 25.6272, 13.427, 77.1584, -141.493
3.1194, -1, -28.9191, -2.61087, 25.6619, 13.4291, 77.0663, -141.726
3.12821, -1, -29.0899, -2.69878, 25.6965, 13.4314, 76.9744, -141.959
3.13539, -1, -29.2605, -2.78662, 25.731, 13.4334, 76.8827, -142.191
3.1434, -1, -29.4311, -2.87442, 25.7657, 13.4355, 76.7907, -142.423
3.15218, -1, -29.6019, -2.96206, 25.8003, 13.4376, 76.699, -142.656
3.15941, -1, -29.7728, -3.04961, 25.8347, 13.4395, 76.6071, -142.888
3.16739, -1, -29.9439, -3.13712, 25.8694, 13.4417, 76.5153, -143.12
3.17552, -1, -30.1148, -3.22461, 25.9039, 13.4438, 76.4236, -143.352
3.1835, -1, -30.2858, -3.31212, 25.9384, 13.4458, 76.3318, -143.584
3.19146, -1, -30.4572, -3.3995, 25.973, 13.4479, 76.2404, -143.816
3.20018, -1, -30.6289, -3.48703, 26.0075, 13.4499, 76.1488, -144.048
3.20745, -1, -30.8008, -3.57446, 26.0419, 13.452, 76.0575, -144.279
3.21554, -1, -30.9726, -3.66182, 26.0764, 13.4539, 75.9662, -144.511
3.22469, -1, -31.1443, -3.74919, 26.111, 13.456, 75.8747, -144.742
3.23149, -1, -31.3158, -3.83651, 26.1453, 13.458, 75.7834, -144.974
3.2396, -1, -31.4869, -3.92385, 26.1797, 13.4602, 75.6922, -145.205
3.24751, -1, -31.6576, -4.01111, 26.2142, 13.4624, 75.6008, -145.436
3.25546, -1, -31.8277, -4.09838, 26.2485, 13.4645, 75.5096, -145.667
3.26346, -1, -31.9975, -4.18565, 26.2829, 13.4668, 75.4187, -145.898
3.27142, -1, -32.1671, -4.27281, 26.3173, 13.4689, 75.3275, -146.129
3.27948, -1, -32.3364, -4.35992, 26.3516, 13.4711, 75.2364, -146.359
3.28762, -1, -32.506, -4.44694, 26.3858, 13.4732, 75.1457, -146.59
3.29566, -1, -32.6758, -4.53385, 26.4203, 13.4753, 75.0548, -146.82
3.30369, -1, -32.8454, -4.62079, 26.4546, 13.4776, 74.964, -147.05
3.31184, -1, -33.015, -4.70769, 26.4888, 13.4797, 74.8732, -147.281
3.32127, -1, -33.1849, -4.79464, 26.5231, 13.4819, 74.7827, -147.511
3.32793, -1, -33.3547, -4.88149, 26.5574, 13.4842, 74.692, -147.741
3.33652, -1, -33.5249, -4.96845, 26.5916, 13.4863, 74.6013, -147.971
3.34499, -1, -33.6953, -5.05536, 26.6258, 13.4885, 74.511, -148.201
3.35248, -1, -33.8656, -5.14214, 26.6601, 13.4908, 74.4202, -148.431
3.35995, -1, -34.0357, -5.22884, 26.6942, 13.493, 74.3297, -148.66
3.36799, -1, -34.2059, -5.31561, 26.7283, 13.4953, 74.2394, -148.889
3.37608, -1, -34.376, -5.40225, 26.7626, 13.4975, 74.1487, -149.119
3.38339, -1, -34.4609, -5.44556, 26.7798, 13.4987, 74.1034, -149.233
3.39138, -1, -34.6305, -5.53223, 26.8138, 13.501, 74.0128, -149.463
3.40042, -1, -34.8837, -5.66218, 26.865, 13.5046, 73.877, -149.807
3.40741, -1, -34.9679, -5.70547, 26.8821, 13.5059, 73.8318, -149.921
3.41538, -1, -35.1363, -5.79194, 26.9162, 13.5083, 73.7413, -150.15
3.42461, -1, -35.3887, -5.92153, 26.9674, 13.5119, 73.606, -150.493
3.43138, -1, -35.473, -5.96464, 26.9845, 13.5131, 73.5607, -150.608
3.4394, -1, -35.6416, -6.05085, 27.0185, 13.5155, 73.4703, -150.837
3.4474, -1, -35.8101, -6.13712, 27.0524, 13.5178, 73.3802, -151.065
3.4554, -1, -35.9787, -6.22324, 27.0865, 13.5202, 73.2897, -151.294
3.46488, -1, -36.2314, -6.35244, 27.1375, 13.5239, 73.1541, -151.637
3.47301, -1, -36.4001, -6.43866, 27.1714, 13.5263, 73.064, -151.865
3.48092, -1, -36.569, -6.52487, 27.2054, 13.5286, 72.9734, -152.093
3.48745, -1, -36.6534, -6.56793, 27.2224, 13.5297, 72.9284, -152.207
3.49542, -1, -36.8223, -6.6541, 27.2563, 13.532, 72.8381, -152.435
3.50338, -1, -36.9913, -6.74024, 27.2902, 13.5343, 72.7482, -152.663
3.51149, -1, -37.1602, -6.82638, 27.3242, 13.5366, 72.658, -152.892
3.52042, -1, -37.3289, -6.91244, 27.358, 13.5388, 72.5681, -153.12
3.52739, -1, -37.4972, -6.99847, 27.3919, 13.541, 72.4784, -153.347
3.53541, -1, -37.6651, -7.08454, 27.4259, 13.5433, 72.3884, -153.574
3.54342, -1, -37.8328, -7.17056, 27.4598, 13.5456, 72.2986, -153.802
3.55137, -1, -38.0003, -7.25646, 27.4936, 13.5478, 72.209, -154.03
3.55941, -1, -38.1678, -7.34238, 27.5275, 13.55, 72.1191, -154.257
3.56743, -1, -38.3352, -7.42823, 27.5614, 13.5522, 72.0294, -154.484
3.57543, -1, -38.5024, -7.51392, 27.5952, 13.5543, 71.9398, -154.711
3.58338, -1, -38.6697, -7.5996, 27.6291, 13.5564, 71.8502, -154.938
3.59143, -1, -38.837, -7.68531, 27.663, 13.5584, 71.7606, -155.166
3.59941, -1, -39.0043, -7.77099, 27.6967, 13.5605, 71.6713, -155.393
3.6074, -1, -39.1717, -7.8566, 27.7304, 13.5626, 71.5821, -155.619
3.61544, -1, -39.3392, -7.9423, 27.7643, 13.5646, 71.4926, -155.846
3.62341, -1, -39.5067, -8.02795, 27.7981, 13.5666, 71.4032, -156.073
3.63138, -1, -39.6744, -8.11349, 27.8317, 13.5686, 71.3141, -156.3
3.63942, -1, -39.842, -8.19897, 27.8654, 13.5705, 71.2245, -156.526
3.64742, -1, -40.0096, -8.28446, 27.8992, 13.5724, 71.1352, -156.752
3.65538, -1, -40.1771, -8.36981, 27.9328, 13.5744, 71.0461, -156.978
3.66344, -1, -40.3445, -8.45522, 27.9665, 13.5763, 70.9566, -157.205
3.67141, -1, -40.5116, -8.54062, 28.0002, 13.5783, 70.8674, -157.431
3.67943, -1, -40.6786, -8.62602, 28.0338, 13.5803, 70.7783, -157.657
3.68744, -1, -40.8454, -8.71138, 28.0674, 13.5823, 70.6892, -157.883
3.69541, -1, -41.0118, -8.79671, 28.1012, 13.5844, 70.6, -158.109
3.70341, -1, -41.1782, -8.88201, 28.1348, 13.5864, 70.5109, -158.335
3.7115, -1, -41.3444, -8.96716, 28.1683, 13.5884, 70.4219, -158.56
3.71947, -1, -41.5106, -9.05228, 28.202, 13.5903, 70.3326, -158.786
3.72748, -1, -41.6769, -9.13743, 28.2356, 13.5923, 70.2434, -159.011
3.73554, -1, -41.8432, -9.22248, 28.2691, 13.5943, 70.1545, -159.237
3.74354, -1, -42.0096, -9.30748, 28.3028, 13.5964, 70.0653, -159.462
3.75148, -1, -42.1759, -9.39252, 28.3364, 13.5984, 69.9763, -159.688
3.75955, -1, -42.3421, -9.47761, 28.3699, 13.6004, 69.8876, -159.913
3.7674, -1, -42.5084, -9.56255, 28.4034, 13.6024, 69.7984, -160.138
3.77542, -1, -42.6748, -9.64752, 28.437, 13.6044, 69.7096, -160.363
3.78351, -1, -42.8412, -9.7325, 28.4704, 13.6065, 69.6208, -160.589
3.7915, -1, -43.0077, -9.81742, 28.5039, 13.6086, 69.5321, -160.814
3.79959, -1, -43.174, -9.90234, 28.5374, 13.6106, 69.4433, -161.038
3.80769, -1, -43.3402, -9.98725, 28.5709, 13.6126, 69.3545, -161.263
3.8157, -1, -43.5062, -10.0722, 28.6044, 13.6147, 69.2661, -161.488
3.82375, -1, -43.6722, -10.1572, 28.6379, 13.6168, 69.1774, -161.713
3.83193, -1, -43.838, -10.242, 28.6713, 13.6189, 69.089, -161.937
3.84058, -1, -44.0038, -10.3268, 28.7047, 13.6211, 69.0006, -162.162
3.84797, -1, -44.1692, -10.4116, 28.7382, 13.6232, 68.9118, -162.386
3.85597, -1, -44.3345, -10.4962, 28.7718, 13.6254, 68.8233, -162.61
3.86454, -1, -44.4996, -10.5807, 28.8051, 13.6277, 68.7347, -162.835
3.87201, -1, -44.5821, -10.6652, 28.8385, 13.6298, 68.646, -163.059
3.88004, -1, -44.83, -10.7497, 28.8721, 13.632, 68.5575, -163.283
3.88737, -1, -44.9127, -10.7919, 28.8888, 13.6331, 68.5132, -163.395
3.89537, -1, -45.078, -10.8764, 28.9222, 13.6353, 68.425, -163.619
3.90344, -1, -45.2433, -10.9609, 28.9556, 13.6375, 68.3364, -163.843
3.91139, -1, -45.4086, -11.0454, 28.9891, 13.6398, 68.248, -164.067
3.91937, -1, -45.5739, -11.1299, 29.0223, 13.642, 68.1598, -164.291
3.92743, -1, -45.7392, -11.2143, 29.0555, 13.6443, 68.0716, -164.514
3.93537, -1, -45.9042, -11.2985, 29.089, 13.6466, 67.9832, -164.738
3.94339, -1, -46.0672, -11.3818, 29.1224, 13.6489, 67.8948, -164.962
3.95141, -1, -46.2267, -11.4629, 29.1559, 13.6512, 67.8072, -165.184
3.95937, -1, -46.3807, -11.5402, 29.1896, 13.6536, 67.7205, -165.403
3.96894, -1, -46.5961, -11.647, 29.2385, 13.6571, 67.5968, -165.715
3.97542, -1, -46.6625, -11.6796, 29.2538, 13.6582, 67.5586, -165.813
3.98503, -1, -46.8407, -11.7665, 29.2947, 13.6613, 67.455, -166.074
3.99136, -1, -46.8921, -11.7919, 29.3064, 13.6623, 67.4257, -166.148
4.00114, -1, -46.9827, -11.8586, 29.3335, 13.6643, 67.3543, -166.329
4.00738, -1, -47.0575, -11.8779, 29.3397, 13.6647, 67.3362, -166.375
4.01698, -1, -47.1173, -11.9112, 29.3488, 13.6654, 67.3079, -166.446
4.02345, -1, -47.1627, -11.9369, 29.3542, 13.6657, 67.289, -166.494
4.03242, -1, -47.1958, -11.9556, 29.3569, 13.6658, 67.2774, -166.523
4.03937, -1, -47.2184, -11.9682, 29.3581, 13.6658, 67.2709, -166.54
4.04743, -1, -47.2326, -11.976, 29.3587, 13.666, 67.2675, -166.548
4.05538, -1, -47.2406, -11.9803, 29.3589, 13.666, 67.2659, -166.552
4.06339, 2, -47.2442, -11.9823, 29.3591, 13.666, 67.2651, -166.554
4.07143, 2, -47.2451, -11.9831, 29.3592, 13.6661, 67.2647, -166.555
4.0794, 2, -47.2449, -11.9834, 29.3593, 13.6661, 67.2646, -166.555
4.08737, 2, -47.2448, -11.9835, 29.3593, 13.6661, 67.2645, -166.555
4.09543, 2, -47.2449, -11.9836, 29.3594, 13.6661, 67.2645, -166.555
4.10339, 2, -47.2455, -11.9837, 29.3594, 13.6661, 67.2644, -166.555
4.11137, 2, -47.2465, -11.9841, 29.3594, 13.6661, 67.2644, -166.555
4.11944, 2, -47.2481, -11.9848, 29.3594, 13.6661, 67.2645, -166.555
4.12737, 2, -47.2499, -11.9857, 29.3594, 13.6661, 67.2645, -166.555
4.13537, 2, -47.2513, -11.9865, 29.3594, 13.6661, 67.2644, -166.555
4.14351, 2, -47.2525, -11.9873, 29.3594, 13.6662, 67.2644, -166.555
4.15136, 2, -47.2532, -11.9878, 29.3594, 13.6661, 67.2644, -166.555
4.15937, 2, -47.2535, -11.9881, 29.3594, 13.6661, 67.2644, -166.555
4.16746, 2, -47.2536, -11.9882, 29.3594, 13.6661, 67.2644, -166.555
4.17536, 2, -47.2535, -11.9882, 29.3594, 13.6661, 67.2644, -166.555
4.18344, 2, -47.2531, -11.9882, 29.3594, 13.6661, 67.2644, -166.555
4.19144, 2, -47.2526, -11.9882, 29.3595, 13.6661, 67.2644, -166.555
4.19937, 2, -47.2522, -11.9882, 29.3595, 13.6661, 67.2644, -166.555
4.20739, 2, -47.2519, -11.9882, 29.3595, 13.6661, 67.2644, -166.555
4.21553, 2, -47.2518, -11.9882, 29.3595, 13.6661, 67.2644, -166.555
4.22348, 2, -47.2519, -11.9883, 29.3595, 13.6661, 67.2644, -166.555
4.23146, 2, -47.252, -11.9886, 29.3595, 13.6661, 67.2644, -166.555
4.23954, 2, -47.2524, -11.9889, 29.3595, 13.6661, 67.2644, -166.555
4.24751, 2, -47.253, -11.9892, 29.3595, 13.6661, 67.2644, -166.555
4.25547, 2, -47.2535, -11.9895, 29.3595, 13.6661, 67.2644, -166.555
4.26356, 2, -47.2537, -11.9896, 29.3595, 13.6661, 67.2645, -166.555
4.27139, 2, -47.2538, -11.9896, 29.3595, 13.6661, 67.2645, -166.555
4.2794, 2, -47.2537, -11.9896, 29.3595, 13.6661, 67.2645, -166.555
4.28749, 2, -47.2536, -11.9896, 29.3595, 13.6661, 67.2645, -166.555
4.29548, 2, -47.2532, -11.9895, 29.3595, 13.6661, 67.2644, -166.555
4.30354, 2, -47.2528, -11.9895, 29.3595, 13.6661, 67.2645, -166.555
4.31216, 2, -47.2525, -11.9895, 29.3595, 13.6661, 67.2645, -166.555
4.31969, 2, -47.2523, -11.9895, 29.3594, 13.6661, 67.2646, -166.555
4.32771, 2, -47.2521, -11.9895, 29.3595, 13.666, 67.2645, -166.555
4.3362, 2, -47.2521, -11.9895, 29.3595, 13.6661, 67.2645, -166.555
4.34385, 2, -47.2521, -11.9896, 29.3594, 13.6661, 67.2645, -166.555
4.35248, 2, -47.2521, -11.9897, 29.3595, 13.666, 67.2645, -166.555
4.36044, 2, -47.2521, -11.9897, 29.3595, 13.666, 67.2645, -166.555
4.36791, 2, -47.2521, -11.9897, 29.3595, 13.666, 67.2645, -166.555
4.37594, 2, -47.2521, -11.9897, 29.3595, 13.666, 67.2645, -166.555
4.38443, 2, -47.2521, -11.9897, 29.3595, 13.666, 67.2645, -166.555
4.39135, 2, -47.252, -11.9897, 29.3595, 13.666, 67.2645, -166.555
4.39936, 2, -47.252, -11.9896, 29.3595, 13.666, 67.2645, -166.555
4.40851, 2, -47.2519, -11.9895, 29.3595, 13.666, 67.2645, -166.555
4.41538, 2, -47.2518, -11.9895, 29.3595, 13.666, 67.2645, -166.555
4.42337, 2, -47.2517, -11.9894, 29.3595, 13.666, 67.2645, -166.555
4.43282, 2, -47.2515, -11.9894, 29.3595, 13.666, 67.2646, -166.555
4.43936, 2, -47.2514, -11.9895, 29.3594, 13.666, 67.2646, -166.555
4.44736, 2, -47.2514, -11.9895, 29.3594, 13.666, 67.2646, -166.555
4.45731, 2, -47.2513, -11.9895, 29.3594, 13.666, 67.2646, -166.555
4.46338, 2, -47.2513, -11.9895, 29.3595, 13.666, 67.2646, -166.555
4.47287, 2, -47.2513, -11.9895, 29.3595, 13.666, 67.2646, -166.555
4.48129, 2, -47.2512, -11.9895, 29.3595, 13.666, 67.2646, -166.555
4.48736, 2, -47.2512, -11.9895, 29.3595, 13.666, 67.2646, -166.555
4.49696, 2, -47.2511, -11.9894, 29.3595, 13.666, 67.2646, -166.555
4.50346, 2, -47.2511, -11.9894, 29.3595, 13.666, 67.2646, -166.555
4.51135, 2, -47.251, -11.9893, 29.3595, 13.666, 67.2646, -166.555
4.52038, 2, -47.2509, -11.9893, 29.3595, 13.666, 67.2646, -166.555
4.52742, 2, -47.2508, -11.9892, 29.3595, 13.666, 67.2646, -166.555
4.53535, 2, -47.2507, -11.9892, 29.3595, 13.666, 67.2646, -166.555
4.54337, 2, -47.2506, -11.9892, 29.3595, 13.666, 67.2646, -166.555
4.55141, 2, -47.2505, -11.9892, 29.3595, 13.666, 67.2646, -166.555
4.55936, 2, -47.2504, -11.9892, 29.3595, 13.666, 67.2646, -166.555
4.56741, 2, -47.2503, -11.9892, 29.3594, 13.666, 67.2646, -166.555
4.57542, 2, -47.2501, -11.9892, 29.3595, 13.6659, 67.2646, -166.555
4.5834, 2, -47.25, -11.9892, 29.3595, 13.6659, 67.2646, -166.555
4.59135, 2, -47.25, -11.9892, 29.3595, 13.6659, 67.2646, -166.555
4.59942, 2, -47.2499, -11.9892, 29.3595, 13.6659, 67.2646, -166.555
4.60735, 2, -47.2497, -11.9891, 29.3595, 13.6659, 67.2647, -166.555
4.6154, 2, -47.2496, -11.989, 29.3595, 13.6659, 67.2647, -166.555
4.62343, 2, -47.2495, -11.989, 29.3595, 13.6659, 67.2647, -166.555
4.63141, 2, -47.2494, -11.9889, 29.3595, 13.6659, 67.2647, -166.555
4.63935, 2, -47.2494, -11.9889, 29.3595, 13.6659, 67.2647, -166.555
4.64742, 2, -47.2493, -11.9889, 29.3594, 13.6659, 67.2647, -166.555
4.65535, 2, -47.2492, -11.9889, 29.3594, 13.6659, 67.2647, -166.555
4.66336, 2, -47.2491, -11.9889, 29.3595, 13.6659, 67.2647, -166.555
4.67144, 2, -47.2491, -11.9889, 29.3595, 13.6659, 67.2647, -166.555
4.67936, 2, -47.249, -11.9889, 29.3595, 13.6659, 67.2647, -166.555
4.6874, 2, -47.249, -11.9889, 29.3595, 13.6659, 67.2647, -166.555
4.69542, 2, -47.2489, -11.9889, 29.3594, 13.6659, 67.2647, -166.555
4.70336, 2, -47.2489, -11.9888, 29.3595, 13.6658, 67.2647, -166.555
4.71139, 2, -47.2488, -11.9888, 29.3595, 13.6659, 67.2647, -166.555
4.7195, 2, -47.2487, -11.9887, 29.3595, 13.6659, 67.2647, -166.555
4.72745, 2, -47.2486, -11.9886, 29.3595, 13.6659, 67.2647, -166.555
4.73544, 2, -47.2486, -11.9886, 29.3595, 13.6659, 67.2647, -166.555
4.74353, 2, -47.2485, -11.9885, 29.3595, 13.6658, 67.2647, -166.555
4.75149, 2, -47.2485, -11.9885, 29.3595, 13.6658, 67.2647, -166.555
4.75948, 2, -47.2484, -11.9885, 29.3595, 13.6658, 67.2647, -166.555
4.76746, 2, -47.2484, -11.9885, 29.3594, 13.6658, 67.2647, -166.555
4.77537, 2, -47.2483, -11.9885, 29.3594, 13.6658, 67.2647, -166.555
4.78341, 2, -47.2483, -11.9885, 29.3594, 13.6658, 67.2647, -166.555
4.79148, 2, -47.2483, -11.9885, 29.3595, 13.6657, 67.2648, -166.555
4.79954, 2, -47.2483, -11.9885, 29.3595, 13.6657, 67.2648, -166.555
4.80754, 2, -47.2482, -11.9884, 29.3595, 13.6657, 67.2648, -166.555
4.81568, 2, -47.2482, -11.9884, 29.3594, 13.6657, 67.2648, -166.554
4.82374, 2, -47.2481, -11.9883, 29.3594, 13.6657, 67.2648, -166.554
4.83174, 2, -47.248, -11.9882, 29.3594, 13.6657, 67.2648, -166.554
4.83989, 2, -47.2479, -11.9882, 29.3595, 13.6657, 67.2648, -166.554
4.84849, 2, -47.2478, -11.9881, 29.3594, 13.6656, 67.2648, -166.554
4.85592, 2, -47.2478, -11.9881, 29.3594, 13.6657, 67.2648, -166.554
4.86446, 2, -47.2477, -11.9881, 29.3594, 13.6656, 67.2648, -166.554
4.87197, 2, -47.2477, -11.9881, 29.3594, 13.6656, 67.2649, -166.554
4.87996, 2, -47.2477, -11.9881, 29.3594, 13.6656, 67.2649, -166.554
4.88844, 2, -47.2476, -11.9881, 29.3595, 13.6656, 67.2649, -166.554
4.89533, 2, -47.2476, -11.9881, 29.3595, 13.6656, 67.2649, -166.554
4.90337, 2, -47.2476, -11.9881, 29.3594, 13.6656, 67.2649, -166.554
4.9124, 2, -47.2475, -11.988, 29.3595, 13.6655, 67.2649, -166.554
4.91937, 2, -47.2475, -11.988, 29.3594, 13.6655, 67.2649, -166.554
4.92735, 2, -47.2474, -11.988, 29.3594, 13.6655, 67.265, -166.554
4.93659, 2, -47.2473, -11.9878, 29.3594, 13.6655, 67.265, -166.554
4.94335, 2, -47.2473, -11.9878, 29.3594, 13.6655, 67.265, -166.554
4.95142, 2, -47.2472, -11.9878, 29.3594, 13.6655, 67.2649, -166.554
4.95938, 2, -47.2472, -11.9878, 29.3594, 13.6655, 67.265, -166.554
4.96735, 2, -47.2471, -11.9878, 29.3594, 13.6655, 67.265, -166.554
4.97687, 2, -47.247, -11.9877, 29.3594, 13.6655, 67.265, -166.554
4.98492, 2, -47.247, -11.9877, 29.3594, 13.6654, 67.265, -166.554
4.99297, 2, -47.2469, -11.9877, 29.3594, 13.6654, 67.265, -166.554
5.00094, 2, -47.2469, -11.9877, 29.3594, 13.6654, 67.265, -166.554
5.00744, 2, -47.2469, -11.9877, 29.3594, 13.6654, 67.265, -166.554
5.01708, 2, -47.2469, -11.9877, 29.3594, 13.6654, 67.2651, -166.554
5.02341, 2, -47.2468, -11.9876, 29.3594, 13.6654, 67.2651, -166.554
5.03235, 2, -47.2468, -11.9876, 29.3594, 13.6654, 67.265, -166.554
5.04038, 2, -47.2467, -11.9875, 29.3594, 13.6654, 67.265, -166.554
5.04736, 2, -47.2467, -11.9875, 29.3594, 13.6654, 67.2651, -166.554
5.05538, 2, -47.2466, -11.9875, 29.3594, 13.6653, 67.2651, -166.554
5.06375, 2, -47.2465, -11.9874, 29.3594, 13.6653, 67.2651, -166.554
5.07372, 2, -47.2465, -11.9874, 29.3594, 13.6653, 67.2651, -166.554
5.07939, 2, -47.2464, -11.9874, 29.3595, 13.6653, 67.2651, -166.554
5.08742, 2, -47.2464, -11.9874, 29.3595, 13.6653, 67.2651, -166.554
5.09533, 2, -47.2463, -11.9874, 29.3594, 13.6653, 67.2651, -166.554
5.10339, 2, -47.2463, -11.9873, 29.3595, 13.6652, 67.2651, -166.554
5.11136, 2, -47.2463, -11.9873, 29.3594, 13.6652, 67.2651, -166.554
5.11934, 2, -47.2462, -11.9873, 29.3594, 13.6652, 67.2651, -166.554
5.12739, 2, -47.2462, -11.9872, 29.3594, 13.6652, 67.2651, -166.554
5.13535, 2, -47.2462, -11.9872, 29.3594, 13.6652, 67.2652, -166.554
5.14335, 2, -47.2462, -11.9872, 29.3594, 13.6652, 67.2652, -166.554
5.15138, 4, -47.2461, -11.9871, 29.3594, 13.6652, 67.2652, -166.554
5.15936, 4, -47.246, -11.9871, 29.3594, 13.6652, 67.2652, -166.554
5.16733, 4, -47.246, -11.9871, 29.3594, 13.6651, 67.2652, -166.554
5.1754, 4, -47.2459, -11.9871, 29.3594, 13.6651, 67.2652, -166.554
5.18338, 4, -47.2459, -11.9871, 29.3594, 13.6651, 67.2652, -166.554
5.19134, 4, -47.2459, -11.987, 29.3594, 13.6651, 67.2652, -166.554
5.19939, 4, -47.2459, -11.987, 29.3594, 13.6651, 67.2652, -166.554
5.20737, 4, -47.2459, -11.987, 29.3594, 13.6651, 67.2653, -166.554
5.21536, 4, -47.2458, -11.987, 29.3594, 13.6651, 67.2653, -166.554
5.22347, 4, -47.2458, -11.987, 29.3594, 13.665, 67.2653, -166.553
5.23145, 4, -47.2458, -11.9869, 29.3594, 13.665, 67.2653, -166.553
5.23944, 4, -47.2457, -11.9869, 29.3594, 13.665, 67.2653, -166.554
5.24768, 4, -47.2456, -11.9869, 29.3594, 13.665, 67.2652, -166.554
5.26315, 4, -47.2456, -11.9868, 29.3594, 13.665, 67.2653, -166.553
5.26514, 4, -47.2455, -11.9868, 29.3594, 13.665, 67.2653, -166.553
5.27263, 4, -47.2455, -11.9868, 29.3594, 13.665, 67.2653, -166.553
5.28156, 4, -47.2455, -11.9867, 29.3594, 13.665, 67.2653, -166.553
5.28768, 4, -47.2454, -11.9867, 29.3594, 13.665, 67.2653, -166.553
5.29652, 4, -47.2454, -11.9867, 29.3594, 13.665, 67.2653, -166.553
5.30549, 4, -47.2454, -11.9867, 29.3594, 13.665, 67.2653, -166.553
5.31277, 4, -47.2453, -11.9867, 29.3594, 13.6649, 67.2653, -166.553
5.32379, 4, -47.2453, -11.9867, 29.3594, 13.6649, 67.2653, -166.553
5.32836, 4, -47.2453, -11.9867, 29.3594, 13.6649, 67.2653, -166.553
5.33779, 4, -47.2453, -11.9866, 29.3594, 13.6649, 67.2653, -166.553
5.34454, 4, -47.2452, -11.9866, 29.3594, 13.6648, 67.2653, -166.553
5.35428, 4, -47.2452, -11.9866, 29.3594, 13.6648, 67.2653, -166.553
5.36033, 4, -47.2452, -11.9865, 29.3594, 13.6648, 67.2653, -166.553
5.36812, 4, -47.2451, -11.9865, 29.3594, 13.6648, 67.2654, -166.553
5.37661, 4, -47.245, -11.9865, 29.3594, 13.6648, 67.2653, -166.553
5.38474, 4, -47.245, -11.9865, 29.3594, 13.6648, 67.2653, -166.553
5.39478, 4, -47.2449, -11.9865, 29.3594, 13.6647, 67.2653, -166.553
5.40075, 4, -47.2449, -11.9865, 29.3594, 13.6647, 67.2653, -166.553
5.40912, 4, -47.245, -11.9865, 29.3594, 13.6647, 67.2653, -166.553
5.41546, 4, -47.2451, -11.9865, 29.3594, 13.6648, 67.2653, -166.553
5.42834, 4, -47.246, -11.987, 29.3598, 13.6653, 67.2656, -166.553
5.43153, 4, -47.2483, -11.9887, 29.3617, 13.6666, 67.266, -166.553
5.44153, 4, -47.2556, -11.997, 29.3723, 13.6865, 67.2709, -166.55
5.45333, 4, -47.2711, -12.0174, 29.4044, 13.7502, 67.2883, -166.537
5.45546, 4, -47.2711, -12.0174, 29.4044, 13.7502, 67.2883, -166.537
5.46354, 5, -47.2892, -12.0417, 29.447, 13.8379, 67.3127, -166.517
5.4715, 5, -47.3158, -12.0772, 29.5138, 13.9777, 67.3523, -166.486
5.48347, 5, -47.3763, -12.1551, 29.6728, 14.3169, 67.4458, -166.407
5.48982, 5, -47.4323, -12.2253, 29.8236, 14.6435, 67.5353, -166.332
5.49791, 5, -47.5009, -12.3106, 30.0126, 15.0545, 67.646, -166.238
5.50359, 5, -47.5399, -12.359, 30.1216, 15.2906, 67.7094, -166.184
5.51381, 5, -47.6745, -12.5254, 30.5019, 16.1062, 67.9252, -165.999
5.51954, 5, -47.7245, -12.5873, 30.6445, 16.4078, 68.0043, -165.931
5.5275, 5, -47.8311, -12.7196, 30.9497, 17.0451, 68.1689, -165.789
5.5388, 5, -48.0035, -12.9347, 31.4449, 18.0573, 68.425, -165.567
5.54453, 5, -48.0631, -13.0096, 31.6168, 18.4025, 68.5107, -165.492
5.55406, 5, -48.2444, -13.2383, 32.1429, 19.4444, 68.7647, -165.27
5.56439, 5, -48.3639, -13.3897, 32.4969, 20.1305, 68.9296, -165.122
5.57093, 5, -48.4219, -13.464, 32.6736, 20.7989, 69.0908, -164.97
5.57643, 5, -48.5317, -13.6079, 33.0222, 21.1231, 69.1706, -164.889
5.58633, 6, -48.6723, -13.8057, 33.5223, 22.0383, 69.4102, -164.604
5.59163, 6, -48.7106, -13.8665, 33.6806, 22.3215, 69.4912, -164.49
5.60227, 7, -48.7939, -14.0368, 34.126, 23.098, 69.7425, -164.065
5.6075, 7, -48.8107, -14.0897, 34.2643, 23.3328, 69.8299, -163.891
5.61546, 8, -48.8283, -14.1887, 34.5259, 23.7709, 70.0118, -163.49
5.63022, 8, -48.8071, -14.3577, 35.0033, 24.5529, 70.4069, -162.489
5.6355, 9, -48.7922, -14.3952, 35.1156, 24.7359, 70.5122, -162.204
5.63947, 9, -48.7743, -14.4313, 35.2261, 24.9162, 70.6198, -161.908
5.65015, 10, -48.7305, -14.5002, 35.4439, 25.2724, 70.9548, -160.978
5.65548, 10, -48.6769, -14.5659, 35.6599, 25.6268, 71.07, -160.659
5.66352, 10, -48.6143, -14.6295, 35.8748, 25.9823, 71.3035, -160.015
5.67552, 11, -48.508, -14.7228, 36.197, 26.5212, 71.658, -159.05
5.67957, 11, -48.47, -14.7539, 36.304, 26.7031, 71.7766, -158.729
5.68882, 12, -48.3917, -14.8167, 36.5159, 27.0715, 72.0145, -158.088
5.69547, 12, -48.312, -14.8791, 36.7256, 27.4466, 72.2536, -157.446
5.70742, 13, -48.2317, -14.969, 37.0369, 28.0226, 72.6152, -156.477
5.7119, 13, -48.1501, -14.9982, 37.1395, 28.2182, 72.7367, -156.152
5.72165, 14, -48.0662, -15.0569, 37.3435, 28.6138, 72.9813, -155.499
5.73086, 15, -47.9342, -15.1462, 37.6481, 29.2155, 73.3515, -154.518
5.73764, 15, -47.8884, -15.1758, 37.7487, 29.4175, 73.475, -154.192
5.74365, 15, -47.7933, -15.2344, 37.9479, 29.822, 73.7216, -153.541
5.75253, 16, -47.6919, -15.293, 38.1455, 30.226, 73.9664, -152.892
5.75977, 17, -47.5836, -15.353, 38.3409, 30.6276, 74.2077, -152.249
5.76956, 17, -47.4694, -15.415, 38.5329, 31.0259, 74.4442, -151.611
5.77565, 17, -47.3506, -15.478, 38.7221, 31.4194, 74.6743, -150.979
5.78455, 18, -47.227, -15.5418, 38.9094, 31.8082, 74.898, -150.356
5.79595, 18, -47.0982, -15.6068, 39.0941, 32.3841, 75.2214, -149.436
5.79978, 19, -46.9641, -15.6746, 39.2766, 32.5748, 75.3264, -149.133
5.8099, 20, -46.8246, -15.7452, 39.4582, 32.9555, 75.5328, -148.532
5.81585, 20, -46.68, -15.8177, 39.6381, 33.3351, 75.7351, -147.938
5.82448, 20, -46.5304, -15.8921, 39.8151, 33.7143, 75.9336, -147.351
5.83212, 21, -46.3761, -15.9686, 39.9896, 34.0929, 76.1284, -146.769
5.84167, 22, -46.2173, -16.0475, 40.1623, 34.4708, 76.3191, -146.193
5.84825, 22, -46.054, -16.1282, 40.3324, 34.8467, 76.5052, -145.624
5.85638, 22, -45.8858, -16.2101, 40.499, 35.2198, 76.6867, -145.061
5.86435, 23, -45.7118, -16.2936, 40.6631, 35.589, 76.8626, -144.503
5.8723, 23, -45.531, -16.379, 40.8244, 35.9533, 77.033, -143.952
5.88022, 24, -45.3428, -16.4666, 40.982, 36.3121, 77.1973, -143.406
5.88819, 24, -45.1478, -16.5557, 41.1352, 36.6637, 77.3554, -142.865
5.89851, 25, -44.9461, -16.6457, 41.2844, 37.0076, 77.5075, -142.329
5.9043, 25, -44.8429, -16.6909, 41.3574, 37.3438, 77.6539, -141.797
5.9135, 26, -44.5226, -16.8284, 41.5693, 37.6721, 77.7952, -141.268
5.92009, 26, -44.4122, -16.8748, 41.6374, 37.8335, 77.8643, -141.004
5.93091, 27, -44.1863, -16.9675, 41.7691, 38.1507, 77.9993, -140.217
5.93543, 27, -43.954, -17.0597, 41.895, 38.46, 78.1305, -139.954
5.94549, 28, -43.593, -17.1965, 42.0721, 38.9097, 78.3215, -139.169
5.95144, 28, -43.469, -17.2414, 42.1278, 39.0554, 78.3834, -138.908
5.95947, 29, -43.216, -17.3301, 42.2341, 39.3409, 78.5056, -138.386
5.96745, 29, -42.9564, -17.4169, 42.3334, 39.6186, 78.6245, -137.864
5.97547, 30, -42.6899, -17.5017, 42.4254, 39.8877, 78.7405, -137.342
5.98627, 31, -42.2746, -17.6245, 42.5501, 40.2755, 78.9094, -136.56
5.99356, 31, -41.9876, -17.7031, 42.6243, 40.5234, 79.0182, -136.04
6.00517, 32, -41.6934, -17.8166, 42.7227, 40.8794, 79.177, -135.26
6.00747, 32, -41.5437, -17.8166, 42.7227, 40.8794, 79.177, -135.26
6.01833, 33, -41.0849, -17.9243, 42.8056, 41.2167, 79.3297, -134.483
6.02537, 33, -40.7707, -17.9923, 42.852, 41.4315, 79.4287, -133.966
6.03325, 33, -40.611, -18.0251, 42.891, 41.6379, 79.5247, -133.449
6.03946, 34, -40.2874, -18.0887, 42.9078, 41.7382, 79.5718, -133.192
6.04748, 34, -39.9592, -18.1497, 42.936, 41.9328, 79.664, -132.677
6.05645, 35, -39.6257, -18.2077, 42.9569, 42.1196, 79.7538, -132.163
6.06342, 35, -39.2861, -18.2621, 42.9708, 42.299, 79.8411, -131.651
6.07482, 36, -38.7632, -18.3375, 42.9787, 42.5534, 79.968, -130.885
6.07945, 36, -38.5854, -18.361, 42.978, 42.6344, 80.0095, -130.63
6.0914, 37, -38.0431, -18.4262, 42.9656, 42.866, 80.1299, -129.868
6.09552, 37, -37.8595, -18.446, 42.9581, 42.9394, 80.1694, -129.615
6.10683, 38, -37.3014, -18.5004, 42.9255, 43.149, 80.2837, -128.858
6.11397, 39, -36.9235, -18.5324, 42.8954, 43.2793, 80.3572, -128.355
6.12097, 39, -36.7328, -18.5472, 42.8778, 43.3417, 80.3929, -128.104
6.1285, 40, -36.3481, -18.5738, 42.8376, 43.4611, 80.4638, -127.605
6.13541, 40, -35.9578, -18.5966, 42.7909, 43.5731, 80.5323, -127.107
6.14354, 40, -35.5613, -18.6156, 42.7376, 43.678, 80.5997, -126.61
6.15253, 41, -35.159, -18.6305, 42.6777, 43.7754, 80.6642, -126.116
6.16046, 42, -34.7517, -18.6421, 42.6115, 43.866, 80.7274, -125.624
6.16846, 42, -34.3405, -18.6502, 42.5387, 43.9493, 80.7882, -125.135
6.17859, 43, -33.7183, -18.6564, 42.418, 44.061, 80.8763, -124.405
6.18745, 43, -33.2985, -18.6564, 42.33, 44.1265, 80.9326, -123.92
6.19351, 44, -33.0865, -18.655, 42.2838, 44.1569, 80.9599, -123.679
6.19956, 44, -32.6579, -18.6494, 42.1872, 44.2115, 81.0144, -123.199
6.20853, 44, -32.2228, -18.64, 42.0848, 44.2589, 81.0668, -122.721
6.22159, 45, -31.5598, -18.6189, 41.92, 44.3169, 81.1421, -122.009
6.22575, 45, -31.3369, -18.6102, 41.862, 44.3324, 81.1667, -121.772
6.23735, 46, -30.6654, -18.5788, 41.6793, 44.367, 81.2365, -121.067
6.24012, 46, -30.4404, -18.5665, 41.6155, 44.3747, 81.259, -120.833
6.24763, 47, -29.9871, -18.5386, 41.4835, 44.3846, 81.3039, -120.366
6.25658, 48, -29.5282, -18.5062, 41.3456, 44.3879, 81.3474, -119.902
6.27121, 48, -28.8274, -18.4285, 41.0513, 44.3693, 81.4311, -118.978
6.27319, 49, -28.5909, -18.4285, 41.0513, 44.3693, 81.4311, -118.978
6.27958, 49, -28.1154, -18.383, 40.8954, 44.347, 81.4729, -118.519
6.28949, 50, -27.6375, -18.3332, 40.7333, 44.3149, 81.5135, -118.061
6.29827, 50, -27.1568, -18.2785, 40.5646, 44.2731, 81.5542, -117.604
6.30377, 50, -26.671, -18.2182, 40.3894, 44.223, 81.5963, -117.148
6.31447, 51, -26.1777, -18.1523, 40.2079, 44.1625, 81.6388, -116.693
6.31987, 51, -25.6768, -18.081, 40.0193, 44.0925, 81.6812, -116.239
6.32899, 52, -25.1707, -18.0042, 39.823, 44.0122, 81.7249, -115.785
6.33979, 53, -24.4074, -17.8792, 39.5171, 43.8723, 81.792, -115.106
6.34615, 53, -24.1517, -17.8347, 39.4117, 43.8208, 81.8143, -114.879
6.35252, 54, -23.6362, -17.7411, 39.195, 43.71, 81.8605, -114.428
6.36062, 54, -23.1136, -17.6412, 38.9713, 43.5884, 81.9092, -113.976
6.36866, 55, -22.5824, -17.5351, 38.7409, 43.4561, 81.9589, -113.524
6.37708, 55, -22.0454, -17.4229, 38.5026, 43.3121, 82.0111, -113.072
6.38839, 56, -21.5056, -17.3046, 38.133, 43.074, 82.0938, -112.394
6.39308, 56, -20.9633, -17.1806, 38.0064, 42.9889, 82.1218, -112.169
6.40028, 57, -20.4156, -17.051, 37.7477, 42.81, 82.1801, -111.718
6.4088, 57, -20.1385, -16.9842, 37.616, 42.7163, 82.2399, -111.268
6.41621, 57, -19.5769, -16.8461, 37.3477, 42.5198, 82.3012, -110.818
6.42347, 58, -19.0076, -16.7018, 37.072, 42.3109, 82.3331, -110.593
6.4349, 59, -18.1469, -16.4734, 36.647, 41.9736, 82.4306, -109.918
6.44165, 59, -17.5694, -16.3142, 36.3548, 41.7328, 82.4995, -109.469
6.45052, 60, -16.9844, -16.1508, 36.056, 41.4781, 82.5706, -109.019
6.45547, 60, -16.6878, -16.0674, 35.9039, 41.3456, 82.6075, -108.794
6.46743, 61, -15.785, -15.8085, 35.4395, 40.9281, 82.7208, -108.12
6.47141, 61, -15.4816, -15.7196, 35.2817, 40.7823, 82.7596, -107.895
6.47953, 62, -14.8733, -15.5386, 34.9621, 40.4816, 82.8386, -107.446
6.48745, 62, -14.2609, -15.3541, 34.6374, 40.1686, 82.9196, -106.997
6.49547, 63, -13.6403, -15.165, 34.3089, 39.8434, 83.002, -106.547
6.50583, 63, -12.6926, -14.8697, 33.8089, 39.3324, 83.1289, -105.873
6.5143, 64, -12.0537, -14.6663, 33.4706, 38.9759, 83.2164, -105.423
6.51952, 64, -11.7329, -14.5628, 33.2994, 38.7928, 83.2611, -105.198
6.52909, 65, -11.087, -14.351, 32.7774, 38.2218, 83.4017, -104.52
6.53548, 65, -10.4309, -14.1316, 32.6001, 38.0235, 83.4511, -104.293
6.5475, 66, -9.4264, -13.7888, 32.0598, 37.4013, 83.6083, -103.609
6.55142, 66, -9.08691, -13.6711, 31.8766, 37.1847, 83.6642, -103.38
6.56217, 67, -8.05974, -13.3072, 31.3163, 36.5063, 83.8424, -102.69
6.57044, 67, -7.36488, -13.0553, 30.9327, 36.0309, 83.9709, -102.226
6.57764, 68, -6.66021, -12.7951, 30.5429, 35.5381, 84.1069, -101.759
6.58347, 68, -6.30487, -12.662, 30.3465, 35.286, 84.1774, -101.525
6.59415, 69, -5.22981, -12.2533, 29.751, 34.5102, 84.3985, -100.819
6.60358, 69, -4.50566, -11.9712, 29.3496, 33.9774, 84.5528, -100.346
6.60871, 70, -4.14045, -11.8273, 29.1484, 33.7071, 84.632, -100.109
6.61552, 70, -3.40314, -11.5336, 28.7457, 33.1565, 84.7944, -99.6331
6.62604, 71, -2.28131, -11.0773, 28.1395, 32.3031, 85.0504, -98.9153
6.63546, 71, -1.52351, -10.765, 27.7317, 31.7146, 85.2315, -98.4339
6.63944, 72, -1.14167, -10.6063, 27.5267, 31.4144, 85.3254, -98.1919
6.64825, 72, -0.373183, -10.2847, 27.1149, 30.8006, 85.5203, -97.7057
6.65652, 73, 0.400655, -9.95638, 26.7013, 30.1716, 85.7238, -97.2165
6.66354, 73, 1.17865, -9.62013, 26.2873, 29.5317, 85.9352, -96.7257
6.67319, 74, 1.96059, -9.27766, 25.874, 28.8824, 86.1542, -96.2339
6.67946, 74, 2.7454, -8.92971, 25.4637, 28.2255, 86.3804, -95.7405
6.6944, 75, 3.53205, -8.57731, 25.058, 27.5625, 86.7318, -94.9992
6.69644, 75, 4.3197, -8.21916, 24.6574, 26.8948, 86.8517, -94.7518
6.70851, 76, 5.5017, -7.67347, 24.0662, 25.8927, 87.2199, -94.0095
6.71245, 76, 5.89512, -7.48908, 23.8722, 25.5585, 87.345, -93.7617
6.72318, 77, 7.07353, -6.92687, 23.3005, 24.5592, 87.7292, -93.0178
6.72917, 77, 7.46629, -6.73557, 23.1127, 24.2273, 87.8607, -92.7699
6.74449, 78, 9.03832, -5.94977, 22.3734, 22.8969, 88.4099, -91.7766
6.74695, 78, 9.43143, -5.74828, 22.1916, 22.5621, 88.5542, -91.5266
6.76359, 79, 11.0106, -4.91898, 21.4717, 21.2094, 89.1631, -90.5151
6.7648, 79, 11.0106, -4.91898, 21.4717, 21.2094, 89.1631, -90.5151
6.76809, 79, 11.4059, -4.70585, 21.293, 20.8686, 89.3235, -90.2585
6.77529, 80, 12.194, -4.27237, 20.938, 20.183, 89.6531, -89.7397
6.78439, 81, 12.9763, -3.82898, 20.5859, 19.4989, 89.9946, -89.2128
6.79131, 81, 13.7535, -3.377, 20.2381, 18.8217, 90.3461, -88.679
6.79938, 81, 14.5244, -2.91779, 19.896, 18.1556, 90.7061, -88.1397
6.80755, 82, 15.2864, -2.45083, 19.5628, 17.5033, 91.072, -87.5977
6.81548, 82, 16.0382, -1.97655, 19.2392, 16.8687, 91.4424, -87.0531
6.82371, 83, 16.7784, -1.49506, 18.9263, 16.2544, 91.8159, -86.5076
6.83167, 83, 17.5067, -1.00716, 18.624, 15.6613, 92.193, -85.9624
6.84043, 84, 18.2208, -0.514868, 18.3319, 15.0886, 92.5741, -85.4196
6.84778, 84, 18.9184, -0.0198204, 18.049, 14.5367, 92.9612, -84.8782
6.85673, 85, 19.5984, 0.479605, 17.7728, 14.0047, 93.3558, -84.3387
6.86385, 85, 20.26, 0.98365, 17.5034, 13.4924, 93.7581, -83.8016
6.87301, 86, 20.9038, 1.49137, 17.2397, 13.0004, 94.1666, -83.2669
6.88051, 86, 21.5317, 2.00357, 16.9825, 12.5277, 94.5808, -82.7324
6.88868, 86, 21.8405, 2.52324, 16.7318, 12.0754, 95.0011, -82.1962
6.89598, 87, 22.4485, 2.78691, 16.6083, 11.642, 95.4275, -81.6563
6.90477, 87, 23.045, 3.32183, 16.3645, 11.4323, 95.6435, -81.1117
6.91125, 88, 23.6316, 3.86469, 16.1246, 11.025, 96.0806, -80.8369
6.92108, 88, 24.4924, 4.69286, 15.7706, 10.4434, 96.7487, -79.9985
6.92849, 89, 25.0534, 5.25869, 15.5409, 10.0746, 97.2025, -79.4266
6.93535, 89, 25.3309, 5.54634, 15.4277, 9.89608, 97.4316, -79.1365
6.94337, 90, 25.8826, 6.12983, 15.2035, 9.55083, 97.8941, -78.5469
6.95128, 90, 26.4307, 6.7236, 14.983, 9.22054, 98.3623, -77.9432
6.95929, 91, 26.9697, 7.32655, 14.7677, 8.90672, 98.8364, -77.3253
6.96954, 91, 27.7531, 8.24935, 14.4535, 8.46943, 99.5595, -76.3746
6.9753, 92, 28.0086, 8.56242, 14.3507, 8.33349, 99.8036, -76.0514
6.98562, 92, 28.7639, 9.51681, 14.0485, 7.95744, 100.543, -75.0664
6.99154, 93, 29.012, 9.83966, 13.9501, 7.84286, 100.792, -74.7342
6.99928, 93, 29.4995, 10.4904, 13.7576, 7.63092, 101.29, -74.0647
7.00749, 94, 29.9739, 11.147, 13.5727, 7.44209, 101.789, -73.3874
7.01535, 94, 30.4337, 11.8076, 13.3949, 7.27675, 102.285, -72.7043
7.02356, 95, 30.8792, 12.4707, 13.2241, 7.13522, 102.78, -72.0172
7.03127, 95, 31.3111, 13.1358, 13.0609, 7.01733, 103.271, -71.3237
7.03935, 95, 31.7293, 13.8027, 12.9057, 6.92296, 103.758, -70.6246
7.04728, 96, 32.1325, 14.4705, 12.757, 6.85243, 104.242, -69.9212
7.05548, 97, 32.5195, 15.139, 12.6147, 6.80578, 104.722, -69.2117
7.06429, 97, 32.8905, 15.8071, 12.4795, 6.78028, 105.197, -68.4961
7.07232, 98, 33.2457, 16.4734, 12.3522, 6.77639, 105.666, -67.7778
7.07935, 98, 33.5859, 17.1367, 12.2336, 6.79486, 106.127, -67.0563
7.08747, 99, 33.9119, 17.7948, 12.124, 6.83319, 106.578, -66.3319
7.09534, 99, 34.2249, 18.4467, 12.0239, 6.89153, 107.019, -65.6096
7.1036, 100, 34.5265, 19.0905, 11.9333, 6.96865, 107.447, -64.8892
7.11131, 100, 34.8171, 19.7259, 11.8518, 7.06313, 107.861, -64.1713
7.11935, 100, 35.0958, 20.3512, 11.7793, 7.17469, 108.259, -63.4601
7.12728, 101, 35.3619, 20.965, 11.7148, 7.30152, 108.642, -62.7563
7.13527, 101, 35.6158, 21.5675, 11.6589, 7.44209, 109.008, -62.0597
7.14339, 102, 35.8565, 22.1572, 11.6112, 7.59434, 109.357, -61.3738
7.15128, 102, 36.084, 22.7338, 11.5716, 7.75619, 109.69, -60.6999
7.15927, 103, 36.3017, 23.2956, 11.5403, 7.92595, 110.008, -60.0374
7.16734, 103, 36.5129, 23.8417, 11.5175, 8.10318, 110.309, -59.3872
7.17527, 104, 36.7181, 24.3728, 11.5037, 8.28861, 110.593, -58.7506
7.18335, 104, 36.9165, 24.8881, 11.4976, 8.48275, 110.859, -58.125
7.19137, 104, 37.109, 25.3875, 11.4979, 8.68608, 111.105, -57.5104
7.19928, 104, 37.2943, 25.8714, 11.5045, 8.89765, 111.331, -56.9079
7.20728, 104, 37.4699, 26.339, 11.516, 9.11586, 111.538, -56.3182
7.21533, 104, 37.6351, 26.7903, 11.5306, 9.33895, 111.728, -55.7423
7.22336, 104, 37.7933, 27.2268, 11.5481, 9.56378, 111.903, -55.1834
7.23135, 104, 37.9475, 27.6475, 11.5679, 9.78747, 112.066, -54.6446
7.23952, 104, 38.0983, 28.0525, 11.5885, 10.008, 112.22, -54.1283
7.24737, 104, 38.244, 28.4406, 11.609, 10.2237, 112.364, -53.6347
7.25537, 104, 38.3836, 28.8123, 11.6285, 10.4334, 112.501, -53.1654
7.26349, 104, 38.5163, 29.166, 11.6469, 10.636, 112.629, -52.7199
7.27145, 104, 38.6409, 29.5017, 11.6643, 10.8307, 112.75, -52.2996
7.27928, 104, 38.757, 29.8181, 11.6804, 11.0168, 112.864, -51.9046
7.28738, 104, 38.8648, 30.1156, 11.6954, 11.1935, 112.969, -51.534
7.2953, 104, 38.9648, 30.3947, 11.7095, 11.3606, 113.067, -51.1887
7.30339, 104, 39.0572, 30.654, 11.7224, 11.5173, 113.158, -50.8694
7.31172, 104, 39.1417, 30.8938, 11.734, 11.6633, 113.241, -50.5749
7.31945, 104, 39.2183, 31.1142, 11.7445, 11.798, 113.316, -50.3058
7.32768, 104, 39.2868, 31.3143, 11.7543, 11.9213, 113.385, -50.0618
7.33567, 104, 39.3473, 31.495, 11.7633, 12.0327, 113.446, -49.843
7.3437, 104, 39.4006, 31.6564, 11.7711, 12.1322, 113.501, -49.6493
7.35234, 104, 39.4473, 31.7984, 11.7781, 12.2196, 113.547, -49.4807
7.36016, 104, 39.4882, 31.9222, 11.7845, 12.2946, 113.587, -49.3364
7.36781, 104, 39.5233, 32.0288, 11.7903, 12.358, 113.621, -49.2156
7.37644, 104, 39.5522, 32.1189, 11.7954, 12.4098, 113.648, -49.1175
7.3839, 104, 39.5758, 32.1936, 11.8, 12.45, 113.669, -49.0395
7.39247, 104, 39.5947, 32.2549, 11.8041, 12.4811, 113.685, -48.9809
7.40017, 104, 39.6093, 32.3042, 11.8079, 12.5042, 113.696, -48.9382
7.40806, 104, 39.6153, 32.3248, 11.8096, 12.5131, 113.703, -48.9086
7.41529, 104, 39.6252, 32.3584, 11.8128, 12.5267, 113.706, -48.8979
7.42441, 104, 39.6354, 32.3936, 11.817, 12.5386, 113.711, -48.8777
7.43131, 104, 39.6376, 32.4022, 11.8182, 12.5409, 113.712, -48.874
7.4405, 104, 39.6416, 32.4204, 11.8209, 12.5447, 113.713, -48.8684
7.44728, 104, 39.6423, 32.4242, 11.8216, 12.5453, 113.714, -48.8676
7.45536, 105, 39.6429, 32.4296, 11.8228, 12.5461, 113.714, -48.8667
7.46332, 105, 39.6424, 32.4331, 11.8237, 12.5464, 113.714, -48.8665
7.47126, 105, 39.6415, 32.4356, 11.8245, 12.5466, 113.714, -48.8666
7.48076, 105, 39.6401, 32.4381, 11.8255, 12.5467, 113.714, -48.8669
7.48883, 105, 39.6389, 32.4395, 11.8261, 12.5468, 113.714, -48.8671
7.49687, 105, 39.6378, 32.4408, 11.8267, 12.5468, 113.714, -48.8674
7.50496, 105, 39.6371, 32.4419, 11.8273, 12.5468, 113.714, -48.8678
7.51125, 105, 39.6368, 32.4425, 11.8276, 12.5468, 113.714, -48.8679
7.52089, 105, 39.6365, 32.4436, 11.8282, 12.5468, 113.714, -48.8683
7.52877, 105, 39.6362, 32.4446, 11.8287, 12.5468, 113.714, -48.8684
7.53715, 105, 39.6359, 32.4459, 11.8293, 12.5468, 113.714, -48.8688
7.54331, 105, 39.6358, 32.4462, 11.8295, 12.5468, 113.714, -48.869
7.55226, 105, 39.6355, 32.4467, 11.8298, 12.5468, 113.714, -48.8692
7.55925, 105, 39.6352, 32.447, 11.8301, 12.5468, 113.714, -48.8694
7.56727, 105, 39.635, 32.4471, 11.8303, 12.5467, 113.714, -48.8695
