hehonglu123/Motion-Primitive-Planning/ILC/recorded_data/realrobot/from_NX/iteration_19/run_0.csv
timestamp, cmd_num, J1, J2, J3, J4, J5, J6
0.000371, -1, 39.6297, 32.4456, 11.8321, 12.5455, 113.713, -48.8722
0.004563, -1, 39.6297, 32.4456, 11.8321, 12.5455, 113.713, -48.8722
0.007977, -1, 39.6297, 32.4456, 11.8321, 12.5455, 113.713, -48.8722
0.028692, -1, 39.6297, 32.4456, 11.8321, 12.5455, 113.713, -48.8721
0.031466, -1, 39.6297, 32.4456, 11.8321, 12.5455, 113.713, -48.8721
0.034607, -1, 39.6297, 32.4456, 11.8321, 12.5455, 113.713, -48.8722
0.039822, -1, 39.6297, 32.4456, 11.832, 12.5455, 113.713, -48.8722
0.047832, -1, 39.6297, 32.4456, 11.832, 12.5455, 113.713, -48.8721
0.055839, -1, 39.6292, 32.4455, 11.832, 12.5455, 113.713, -48.8721
0.063771, -1, 39.6271, 32.4452, 11.832, 12.5455, 113.713, -48.8722
0.071788, -1, 39.6218, 32.4439, 11.8319, 12.5455, 113.713, -48.8723
0.07983, -1, 39.6131, 32.441, 11.8317, 12.5455, 113.712, -48.8732
0.087765, -1, 39.6, 32.4358, 11.8315, 12.5455, 113.711, -48.8775
0.095763, -1, 39.5804, 32.4274, 11.8314, 12.5455, 113.708, -48.8887
0.103842, -1, 39.5518, 32.4148, 11.8318, 12.5454, 113.701, -48.9091
0.111825, -1, 39.5135, 32.3974, 11.8335, 12.5455, 113.689, -48.9425
0.119761, -1, 39.4641, 32.3737, 11.8381, 12.5455, 113.67, -48.9927
0.127916, -1, 39.4022, 32.3433, 11.8461, 12.5455, 113.642, -49.0641
0.135758, -1, 39.3268, 32.3055, 11.8585, 12.5458, 113.605, -49.1582
0.143775, -1, 39.2378, 32.2598, 11.876, 12.5462, 113.559, -49.278
0.151829, -1, 39.1348, 32.2062, 11.8982, 12.5471, 113.502, -49.4233
0.159758, -1, 39.0177, 32.1447, 11.9247, 12.5484, 113.435, -49.5934
0.16777, -1, 38.8872, 32.0757, 11.9552, 12.5502, 113.359, -49.7859
0.175931, -1, 38.7443, 32.0002, 11.9889, 12.5522, 113.275, -49.998
0.183768, -1, 38.59, 31.9188, 12.025, 12.5544, 113.185, -50.2257
0.191766, -1, 38.4257, 31.8325, 12.0626, 12.5567, 113.09, -50.4657
0.199833, -1, 38.2534, 31.7421, 12.1013, 12.5591, 112.992, -50.714
0.207805, -1, 38.0749, 31.6488, 12.1402, 12.5616, 112.891, -50.9673
0.215894, -1, 37.8914, 31.5533, 12.179, 12.564, 112.79, -51.2242
0.223866, -1, 37.7038, 31.4563, 12.2178, 12.5664, 112.688, -51.4828
0.231863, -1, 37.5135, 31.3585, 12.2565, 12.5689, 112.585, -51.7423
0.239923, -1, 37.3219, 31.2605, 12.2952, 12.5714, 112.483, -52.0018
0.247873, -1, 37.1298, 31.1625, 12.3341, 12.5737, 112.38, -52.2616
0.255764, -1, 36.9376, 31.0647, 12.3728, 12.5763, 112.277, -52.5217
0.263948, -1, 36.7456, 30.9669, 12.4116, 12.5789, 112.174, -52.7821
0.271794, -1, 36.5539, 30.8691, 12.4505, 12.5814, 112.071, -53.0426
0.279795, -1, 36.3622, 30.7714, 12.4894, 12.5839, 111.968, -53.3029
0.287975, -1, 36.1707, 30.6735, 12.5282, 12.5865, 111.865, -53.5633
0.296036, -1, 35.9792, 30.5755, 12.5671, 12.589, 111.762, -53.824
0.302816, -1, 35.8834, 30.5265, 12.5866, 12.5903, 111.71, -53.9544
0.31216, -1, 35.5958, 30.3794, 12.645, 12.594, 111.556, -54.3449
0.318779, -1, 35.4998, 30.3303, 12.6645, 12.5953, 111.505, -54.4752
0.328264, -1, 35.2114, 30.1828, 12.7227, 12.5991, 111.35, -54.866
0.33626, -1, 35.019, 30.0844, 12.7617, 12.6016, 111.247, -55.1268
0.344305, -1, 34.8267, 29.986, 12.8007, 12.6042, 111.143, -55.3874
0.352464, -1, 34.6344, 29.8875, 12.8395, 12.6066, 111.04, -55.6483
0.360366, -1, 34.4421, 29.789, 12.8786, 12.6091, 110.938, -55.909
0.498173, -1, 31.1625, 28.1139, 13.5414, 12.6541, 109.185, -60.3479
0.499374, -1, 31.1625, 28.1139, 13.5414, 12.6541, 109.185, -60.3479
0.501219, -1, 31.1625, 28.1139, 13.5414, 12.6541, 109.185, -60.3479
0.502711, -1, 31.0663, 28.0647, 13.561, 12.6555, 109.134, -60.4786
0.5039, -1, 31.0663, 28.0647, 13.561, 12.6555, 109.134, -60.4786
0.506013, -1, 30.9701, 28.0155, 13.5805, 12.6569, 109.082, -60.6094
0.50725, -1, 30.9701, 28.0155, 13.5805, 12.6569, 109.082, -60.6094
0.510715, -1, 30.874, 27.9662, 13.6, 12.6583, 109.03, -60.7401
0.512022, -1, 30.874, 27.9662, 13.6, 12.6583, 109.03, -60.7401
0.513998, -1, 30.778, 27.9169, 13.6195, 12.6597, 108.979, -60.8708
0.515304, -1, 30.778, 27.9169, 13.6195, 12.6597, 108.979, -60.8708
0.516538, -1, 30.778, 27.9169, 13.6195, 12.6597, 108.979, -60.8708
0.519295, -1, 30.682, 27.8676, 13.639, 12.6611, 108.927, -61.0014
0.520602, -1, 30.682, 27.8676, 13.639, 12.6611, 108.927, -61.0014
0.522634, -1, 30.5861, 27.8184, 13.6586, 12.6625, 108.876, -61.1319
0.524527, -1, 30.5861, 27.8184, 13.6586, 12.6625, 108.876, -61.1319
0.526657, -1, 30.4901, 27.7691, 13.6781, 12.6639, 108.824, -61.2626
0.527885, -1, 30.4901, 27.7691, 13.6781, 12.6639, 108.824, -61.2626
0.529795, -1, 30.3941, 27.7197, 13.6976, 12.6652, 108.772, -61.3934
0.53119, -1, 30.3941, 27.7197, 13.6976, 12.6652, 108.772, -61.3934
0.532391, -1, 30.3941, 27.7197, 13.6976, 12.6652, 108.772, -61.3934
0.535797, -1, 30.298, 27.6703, 13.7171, 12.6666, 108.721, -61.5241
0.543752, -1, 30.1058, 27.5716, 13.7561, 12.6693, 108.618, -61.7859
0.551786, -1, 29.9133, 27.4728, 13.7952, 12.672, 108.514, -62.0474
0.559832, -1, 29.7202, 27.3741, 13.8341, 12.6747, 108.411, -62.309
0.567748, -1, 29.5266, 27.2754, 13.8731, 12.6773, 108.308, -62.5708
0.575759, -1, 29.3326, 27.1766, 13.9121, 12.6798, 108.205, -62.8326
0.583976, -1, 29.1383, 27.0778, 13.9511, 12.6824, 108.101, -63.0942
0.591756, -1, 28.9438, 26.9789, 13.9901, 12.6849, 107.998, -63.3556
0.599816, -1, 28.7496, 26.88, 14.0291, 12.6875, 107.894, -63.6171
0.609149, -1, 28.5555, 26.7812, 14.0681, 12.6899, 107.791, -63.8788
0.615763, -1, 28.3616, 26.6825, 14.1073, 12.6925, 107.688, -64.1406
0.623813, -1, 28.1682, 26.5838, 14.1463, 12.6949, 107.584, -64.4022
0.631818, -1, 27.9753, 26.485, 14.1853, 12.6973, 107.481, -64.6639
0.639743, -1, 27.7825, 26.3862, 14.2244, 12.6998, 107.378, -64.9258
0.647811, -1, 27.5899, 26.2874, 14.2633, 12.7021, 107.275, -65.1876
0.787528, -1, 24.3051, 24.6073, 14.9263, 12.7416, 105.519, -69.6365
0.788927, -1, 24.2089, 24.5578, 14.9459, 12.7428, 105.468, -69.7673
0.790194, -1, 24.2089, 24.5578, 14.9459, 12.7428, 105.468, -69.7673
0.792149, -1, 24.1126, 24.5084, 14.9654, 12.744, 105.416, -69.8981
0.793477, -1, 24.1126, 24.5084, 14.9654, 12.744, 105.416, -69.8981
0.794664, -1, 24.1126, 24.5084, 14.9654, 12.744, 105.416, -69.8981
0.797395, -1, 24.0163, 24.459, 14.9849, 12.7451, 105.364, -70.0288
0.800307, -1, 23.9199, 24.4097, 15.0044, 12.7462, 105.313, -70.1595
0.802607, -1, 23.9199, 24.4097, 15.0044, 12.7462, 105.313, -70.1595
0.804598, -1, 23.8234, 24.3602, 15.0239, 12.7475, 105.261, -70.2904
0.805896, -1, 23.8234, 24.3602, 15.0239, 12.7475, 105.261, -70.2904
0.807866, -1, 23.8234, 24.3108, 15.0433, 12.7487, 105.209, -70.4213
0.809297, -1, 23.727, 24.3108, 15.0433, 12.7487, 105.209, -70.4213
0.810533, -1, 23.727, 24.3108, 15.0433, 12.7487, 105.209, -70.4213
0.812552, -1, 23.6305, 24.2614, 15.0628, 12.7499, 105.158, -70.5523
0.818572, -1, 23.5339, 24.212, 15.0822, 12.7511, 105.106, -70.6832
0.821375, -1, 23.4372, 24.1625, 15.1017, 12.7523, 105.054, -70.8139
0.822595, -1, 23.4372, 24.1625, 15.1017, 12.7523, 105.054, -70.8139
0.825556, -1, 23.3404, 24.1131, 15.1212, 12.7535, 105.002, -70.9447
0.826863, -1, 23.3404, 24.1131, 15.1212, 12.7535, 105.002, -70.9447
0.828839, -1, 23.2435, 24.0637, 15.1406, 12.7547, 104.951, -71.0757
0.83012, -1, 23.2435, 24.0637, 15.1406, 12.7547, 104.951, -71.0757
0.833703, -1, 23.1466, 24.0142, 15.1601, 12.7559, 104.899, -71.2066
0.840183, -1, 22.9526, 23.9153, 15.199, 12.7584, 104.796, -71.4685
0.846732, -1, 22.8556, 23.866, 15.2184, 12.7596, 104.744, -71.5995
0.856298, -1, 22.5647, 23.7178, 15.2769, 12.7633, 104.589, -71.9921
0.864308, -1, 22.3711, 23.6193, 15.3159, 12.7657, 104.486, -72.2534
0.87336, -1, 22.1779, 23.5206, 15.3549, 12.7683, 104.382, -72.5149
0.880506, -1, 22.0812, 23.4712, 15.3743, 12.7696, 104.279, -72.7765
0.888292, -1, 21.8882, 23.3725, 15.4133, 12.7722, 104.227, -72.9073
0.897319, -1, 21.6957, 23.2738, 15.4718, 12.7762, 104.072, -73.2994
0.903732, -1, 21.5034, 23.175, 15.4912, 12.7776, 104.021, -73.4301
0.911734, -1, 21.3112, 23.0762, 15.5302, 12.7802, 103.918, -73.6915
0.919824, -1, 21.1189, 22.9777, 15.5692, 12.7829, 103.815, -73.9532
0.927743, -1, 20.9264, 22.879, 15.6081, 12.7855, 103.712, -74.2145
0.935743, -1, 20.734, 22.7804, 15.647, 12.7882, 103.608, -74.4756
0.943844, -1, 20.5413, 22.6818, 15.6859, 12.791, 103.505, -74.7369
0.951749, -1, 20.3481, 22.5831, 15.7248, 12.7938, 103.402, -74.9982
0.958725, -1, 20.1544, 22.4844, 15.7637, 12.7964, 103.299, -75.2595
0.967897, -1, 19.9608, 22.3857, 15.8026, 12.7992, 103.196, -75.5205
0.975733, -1, 19.7672, 22.287, 15.8413, 12.8019, 103.093, -75.7816
0.982719, -1, 19.5735, 22.1884, 15.8802, 12.8046, 102.99, -76.0429
0.991746, -1, 19.3801, 22.0898, 15.9191, 12.8074, 102.887, -76.3041
0.999731, -1, 19.1871, 21.9911, 15.9579, 12.8101, 102.784, -76.565
1.00928, -1, 18.9943, 21.8925, 15.9969, 12.8128, 102.681, -76.9562
1.01572, -1, 18.8018, 21.7938, 16.0357, 12.8155, 102.578, -77.0867
1.02651, -1, 18.5138, 21.6458, 16.094, 12.8196, 102.424, -77.4783
1.03181, -1, 18.4179, 21.5965, 16.1135, 12.8209, 102.372, -77.6085
1.03972, -1, 18.2261, 21.498, 16.1523, 12.8235, 102.269, -77.8692
1.04773, -1, 18.0342, 21.3996, 16.1911, 12.826, 102.167, -78.13
1.05582, -1, 17.8423, 21.3012, 16.2301, 12.8286, 102.064, -78.3909
1.06373, -1, 17.6503, 21.2029, 16.269, 12.8311, 101.961, -78.6515
1.07185, -1, 17.4579, 21.1047, 16.3078, 12.8336, 101.858, -78.9119
1.07973, -1, 17.2651, 21.0063, 16.3467, 12.8361, 101.755, -79.1724
1.08773, -1, 17.072, 20.9081, 16.3854, 12.8385, 101.652, -79.433
1.09579, -1, 16.879, 20.8098, 16.4243, 12.8408, 101.549, -79.6936
1.10373, -1, 16.6858, 20.7116, 16.4631, 12.8431, 101.446, -79.9541
1.11175, -1, 16.4928, 20.6134, 16.5018, 12.8455, 101.344, -80.2146
1.11991, -1, 16.3, 20.5152, 16.5406, 12.8478, 101.241, -80.4752
1.12774, -1, 16.1077, 20.4168, 16.5793, 12.8501, 101.138, -80.7358
1.13583, -1, 15.9156, 20.3184, 16.6181, 12.8525, 101.036, -80.9958
1.1438, -1, 15.7239, 20.2199, 16.6568, 12.8548, 100.933, -81.2559
1.15175, -1, 15.5326, 20.1215, 16.6954, 12.8571, 100.83, -81.5162
1.15973, -1, 15.3414, 20.0232, 16.7341, 12.8594, 100.728, -81.7763
1.16779, -1, 15.1503, 19.925, 16.7729, 12.8617, 100.625, -82.0361
1.17573, -1, 14.9591, 19.8268, 16.8116, 12.864, 100.523, -82.2959
1.18373, -1, 14.7678, 19.7287, 16.8503, 12.8663, 100.42, -82.5558
1.19182, -1, 14.5764, 19.6306, 16.889, 12.8686, 100.317, -82.8158
1.19974, -1, 14.3845, 19.5324, 16.9277, 12.8709, 100.215, -83.0756
1.20783, -1, 14.1923, 19.4344, 16.9664, 12.8732, 100.112, -83.3351
1.2158, -1, 13.9999, 19.3364, 17.0052, 12.8754, 100.01, -83.5946
1.22384, -1, 13.8075, 19.2386, 17.0437, 12.8777, 99.9074, -83.8544
1.23191, -1, 13.615, 19.1408, 17.0824, 12.88, 99.8049, -84.114
1.23988, -1, 13.4226, 19.0429, 17.1211, 12.8824, 99.7024, -84.3731
1.24784, -1, 13.2306, 18.945, 17.1596, 12.8846, 99.6002, -84.6325
1.2559, -1, 13.0389, 18.8471, 17.1982, 12.8871, 99.4977, -84.8918
1.26374, -1, 12.8478, 18.7491, 17.2369, 12.8893, 99.3952, -85.1512
1.27176, -1, 12.6568, 18.6511, 17.2754, 12.8917, 99.2931, -85.4102
1.28006, -1, 12.4661, 18.5534, 17.314, 12.8942, 99.1907, -85.6691
1.28784, -1, 12.2759, 18.4556, 17.3525, 12.8966, 99.0884, -85.9279
1.29589, -1, 12.0858, 18.3579, 17.391, 12.899, 98.9865, -86.1871
1.30482, -1, 11.8955, 18.2602, 17.4296, 12.9013, 98.8843, -86.4458
1.31199, -1, 11.705, 18.1626, 17.4682, 12.9038, 98.7823, -86.7043
1.32016, -1, 11.5142, 18.0649, 17.5067, 12.9062, 98.6806, -86.9631
1.32899, -1, 11.3231, 17.9674, 17.5453, 12.9087, 98.5786, -87.2217
1.33615, -1, 11.1318, 17.8698, 17.5839, 12.9111, 98.4767, -87.4803
1.34271, -1, 11.0361, 17.8211, 17.6032, 12.9124, 98.4258, -87.6093
1.35311, -1, 10.7487, 17.675, 17.6609, 12.9161, 98.2728, -87.9965
1.36035, -1, 10.5571, 17.5775, 17.6993, 12.9187, 98.1709, -88.2549
1.36841, -1, 10.3658, 17.48, 17.7377, 12.9212, 98.0691, -88.5132
1.37717, -1, 10.2703, 17.3825, 17.7762, 12.9237, 97.9672, -88.7711
1.38281, -1, 10.0795, 17.3337, 17.7954, 12.9251, 97.9162, -88.9002
1.39238, -1, 9.88903, 17.236, 17.8337, 12.9277, 97.7634, -89.2873
1.39977, -1, 9.69892, 17.1385, 17.8721, 12.9303, 97.7124, -89.4164
1.4068, -1, 9.50924, 17.0411, 17.9105, 12.9331, 97.6105, -89.6744
1.41678, -1, 9.22528, 16.895, 17.968, 12.9372, 97.4577, -90.0608
1.42372, -1, 9.13062, 16.8464, 17.9872, 12.9384, 97.4068, -90.1895
1.43081, -1, 8.94127, 16.7492, 18.0255, 12.9411, 97.305, -90.4472
1.43981, -1, 8.75169, 16.652, 18.0638, 12.9438, 97.2034, -90.7048
1.44773, -1, 8.56208, 16.5549, 18.1023, 12.9464, 97.1017, -90.9618
1.45474, -1, 8.3723, 16.4578, 18.1407, 12.9491, 97.0003, -91.2189
1.46372, -1, 8.18206, 16.3608, 18.179, 12.9517, 96.8988, -91.4761
1.47176, -1, 7.99156, 16.264, 18.2174, 12.9543, 96.7971, -91.7333
1.47984, -1, 7.80103, 16.1671, 18.2556, 12.957, 96.6957, -91.9903
1.48771, -1, 7.61046, 16.0702, 18.2938, 12.9597, 96.5941, -92.247
1.49571, -1, 7.42009, 15.9732, 18.3322, 12.9622, 96.4927, -92.5037
1.50272, -1, 7.22995, 15.8763, 18.3703, 12.9647, 96.3915, -92.7606
1.51173, -1, 7.04015, 15.7793, 18.4085, 12.9673, 96.2901, -93.0172
1.51977, -1, 6.85071, 15.6824, 18.4468, 12.9699, 96.1888, -93.2737
1.52873, -1, 6.6618, 15.5855, 18.4849, 12.9724, 96.0882, -93.53
1.53574, -1, 6.47332, 15.4887, 18.523, 12.975, 95.9871, -93.7864
1.54374, -1, 6.28511, 15.392, 18.5611, 12.9775, 95.8859, -94.0428
1.55179, -1, 6.09702, 15.2953, 18.5992, 12.9799, 95.7853, -94.2988
1.55979, -1, 5.90867, 15.1985, 18.6374, 12.9822, 95.6841, -94.5547
1.56771, -1, 5.72024, 15.1019, 18.6756, 12.9846, 95.5832, -94.8106
1.57572, -1, 5.5317, 15.0052, 18.7136, 12.9869, 95.4827, -95.0667
1.58373, -1, 5.34291, 14.9087, 18.7517, 12.9892, 95.3818, -95.3223
1.59178, -1, 5.15375, 14.8123, 18.7898, 12.9915, 95.281, -95.5777
1.5998, -1, 4.96438, 14.716, 18.8278, 12.9938, 95.1805, -95.8332
1.60771, -1, 4.77503, 14.6196, 18.8659, 12.996, 95.0797, -96.0887
1.61578, -1, 4.58554, 14.5232, 18.904, 12.9981, 94.9789, -96.3441
1.62395, -1, 4.39633, 14.4268, 18.942, 13.0004, 94.8782, -96.599
1.63171, -1, 4.20739, 14.3304, 18.98, 13.0026, 94.7773, -96.8539
1.63989, -1, 4.0188, 14.234, 19.0179, 13.0049, 94.6765, -97.109
1.64851, -1, 3.83076, 14.1378, 19.0558, 13.0072, 94.5758, -97.3641
1.65571, -1, 3.64325, 14.0416, 19.0938, 13.0094, 94.475, -97.6187
1.6638, -1, 3.4561, 13.9455, 19.1317, 13.0117, 94.3744, -97.8735
1.67251, -1, 3.26916, 13.8495, 19.1695, 13.014, 94.2737, -98.1282
1.67978, -1, 3.08214, 13.7534, 19.2074, 13.0162, 94.173, -98.383
1.68779, -1, 2.89515, 13.6574, 19.2453, 13.0184, 94.0724, -98.6375
1.6965, -1, 2.70806, 13.5614, 19.2832, 13.0207, 93.9717, -98.8916
1.70375, -1, 2.52075, 13.4654, 19.3211, 13.023, 93.8712, -99.1456
1.71192, -1, 2.3333, 13.3694, 19.3589, 13.0253, 93.771, -99.3999
1.72065, -1, 2.14537, 13.2737, 19.3967, 13.0275, 93.6706, -99.6538
1.72783, -1, 1.95725, 13.1778, 19.4346, 13.0297, 93.5705, -99.9074
1.7361, -1, 1.76902, 13.082, 19.4723, 13.0321, 93.4707, -100.161
1.74468, -1, 1.58083, 12.9862, 19.5101, 13.0342, 93.3705, -100.415
1.75182, -1, 1.39273, 12.8904, 19.5479, 13.0365, 93.2704, -100.668
1.76037, -1, 1.20497, 12.7945, 19.5856, 13.0388, 93.1706, -100.922
1.76862, -1, 1.01758, 12.6988, 19.6233, 13.0412, 93.0704, -101.175
1.77574, -1, 0.830844, 12.6033, 19.6611, 13.0436, 92.9705, -101.428
1.78456, -1, 0.644563, 12.5077, 19.6987, 13.046, 92.8709, -101.681
1.7919, -1, 0.458733, 12.4123, 19.7362, 13.0484, 92.771, -101.934
1.79875, -1, 0.365879, 12.3646, 19.7551, 13.0496, 92.7211, -102.06
1.80877, -1, 0.0876301, 12.2215, 19.8115, 13.0533, 92.572, -102.439
1.81675, -1, -0.0977873, 12.1263, 19.8491, 13.0557, 92.4723, -102.691
1.82406, -1, -0.283402, 12.031, 19.8868, 13.0582, 92.3727, -102.944
1.83291, -1, -0.469291, 11.9358, 19.9243, 13.0607, 92.2734, -103.196
1.84116, -1, -0.65556, 11.8407, 19.9618, 13.0632, 92.1738, -103.448
1.8467, -1, -0.748777, 11.7933, 19.9806, 13.0644, 92.1241, -103.574
1.85706, -1, -1.02876, 11.6507, 20.0368, 13.0681, 91.9752, -103.952
1.86428, -1, -1.21565, 11.5556, 20.0743, 13.0707, 91.8757, -104.204
1.87074, -1, -1.30918, 11.5081, 20.0931, 13.0719, 91.8261, -104.33
1.88114, -1, -1.58938, 11.3655, 20.1493, 13.0757, 91.6774, -104.707
1.88676, -1, -1.68264, 11.3179, 20.1679, 13.077, 91.6277, -104.833
1.89631, -1, -1.8689, 11.2228, 20.2054, 13.0797, 91.5285, -105.21
1.9037, -1, -2.05469, 11.1279, 20.2428, 13.0824, 91.4295, -105.336
1.91077, -1, -2.23979, 11.033, 20.2801, 13.0849, 91.3302, -105.587
1.91982, -1, -2.42451, 10.9381, 20.3175, 13.0876, 91.231, -105.837
1.9277, -1, -2.60888, 10.8434, 20.3549, 13.0903, 91.1321, -106.089
1.93479, -1, -2.79279, 10.7486, 20.3921, 13.093, 91.0329, -106.339
1.94374, -1, -2.97666, 10.6538, 20.4295, 13.0955, 90.9338, -106.59
1.95171, -1, -3.16067, 10.5592, 20.4668, 13.0981, 90.8351, -106.841
1.95872, -1, -3.34495, 10.4646, 20.504, 13.1007, 90.7361, -107.091
1.9677, -1, -3.52965, 10.3702, 20.5413, 13.1034, 90.6372, -107.342
1.97575, -1, -3.71445, 10.2759, 20.5785, 13.1059, 90.5386, -107.592
1.98269, -1, -3.89963, 10.1815, 20.6157, 13.1083, 90.4396, -107.842
1.9917, -1, -4.08494, 10.0871, 20.653, 13.1107, 90.341, -108.092
1.99977, -1, -4.27051, 9.99291, 20.6902, 13.1132, 90.2425, -108.342
2.00669, -1, -4.45611, 9.89858, 20.7273, 13.1154, 90.1437, -108.592
2.01571, -1, -4.64144, 9.80421, 20.7647, 13.1179, 90.0452, -108.841
2.02376, -1, -4.82635, 9.71002, 20.8018, 13.1202, 89.9469, -109.091
2.03274, -1, -5.01086, 9.61596, 20.8388, 13.1226, 89.8484, -109.34
2.0398, -1, -5.19468, 9.52188, 20.876, 13.1249, 89.7499, -109.589
2.04777, -1, -5.37803, 9.42782, 20.9131, 13.1272, 89.6517, -109.838
2.05573, -1, -5.56087, 9.33395, 20.9502, 13.1296, 89.5532, -110.087
2.06372, -1, -5.74341, 9.23998, 20.9873, 13.1319, 89.455, -110.336
2.07177, -1, -5.92571, 9.14606, 21.0243, 13.1343, 89.357, -110.585
2.07976, -1, -6.10806, 9.05221, 21.0613, 13.1364, 89.2587, -110.833
2.0877, -1, -6.29077, 8.95841, 21.0985, 13.1386, 89.1607, -111.082
2.09581, -1, -6.47375, 8.8648, 21.1354, 13.1409, 89.063, -111.33
2.1037, -1, -6.65691, 8.77119, 21.1722, 13.1431, 88.9649, -111.578
2.11171, -1, -6.84051, 8.67758, 21.2092, 13.1453, 88.8669, -111.827
2.11983, -1, -7.02443, 8.58397, 21.2461, 13.1473, 88.7692, -112.074
2.1277, -1, -7.20867, 8.49043, 21.283, 13.1494, 88.6713, -112.322
2.1357, -1, -7.39286, 8.39682, 21.32, 13.1515, 88.5734, -112.57
2.14381, -1, -7.57671, 8.30319, 21.3568, 13.1537, 88.4759, -112.817
2.1517, -1, -7.76022, 8.20973, 21.3935, 13.1558, 88.3783, -113.065
2.15977, -1, -7.94327, 8.11633, 21.4304, 13.1581, 88.2809, -113.312
2.16777, -1, -8.12579, 8.02294, 21.4672, 13.1604, 88.1837, -113.559
2.1757, -1, -8.30764, 7.92966, 21.504, 13.1626, 88.0862, -113.806
2.1837, -1, -8.48901, 7.83636, 21.5408, 13.1648, 87.9888, -114.053
2.19177, -1, -8.66997, 7.74318, 21.5776, 13.1671, 87.8915, -114.3
2.19976, -1, -8.85065, 7.65002, 21.6144, 13.1693, 87.794, -114.546
2.2078, -1, -9.03141, 7.55692, 21.6512, 13.1715, 87.6966, -114.792
2.21574, -1, -9.21253, 7.46392, 21.6879, 13.1738, 87.5995, -115.039
2.22378, -1, -9.39379, 7.3711, 21.7245, 13.176, 87.5023, -115.285
2.23187, -1, -9.5754, 7.2783, 21.7612, 13.1782, 87.4051, -115.531
2.23985, -1, -9.75742, 7.18547, 21.7979, 13.1805, 87.3081, -115.777
2.2478, -1, -9.93975, 7.09278, 21.8344, 13.1826, 87.2109, -116.023
2.25587, -1, -10.1223, 7.00005, 21.871, 13.1849, 87.1137, -116.27
2.26388, -1, -10.3051, 6.90725, 21.9076, 13.1871, 87.0166, -116.515
2.27171, -1, -10.4876, 6.81451, 21.9441, 13.1893, 86.9194, -116.761
2.27994, -1, -10.6699, 6.72177, 21.9807, 13.1916, 86.8223, -117.006
2.28774, -1, -10.8516, 6.62918, 22.0172, 13.194, 86.7255, -117.252
2.29585, -1, -11.0328, 6.53657, 22.0535, 13.1965, 86.6285, -117.497
2.30389, -1, -11.2133, 6.44401, 22.0901, 13.1988, 86.5319, -117.742
2.31192, -1, -11.3931, 6.35151, 22.1267, 13.2013, 86.4354, -117.986
2.31869, -1, -11.483, 6.30528, 22.1448, 13.2025, 86.387, -118.109
2.3281, -1, -11.752, 6.16664, 22.1995, 13.2062, 86.2419, -118.476
2.3361, -1, -11.9313, 6.07432, 22.236, 13.2086, 86.1454, -118.72
2.34269, -1, -12.0209, 6.02818, 22.2542, 13.2098, 86.097, -118.843
2.35219, -1, -12.29, 5.89, 22.3089, 13.2135, 85.9524, -119.209
2.36022, -1, -12.4698, 5.79799, 22.3452, 13.216, 85.8562, -119.453
2.36838, -1, -12.6501, 5.70597, 22.3814, 13.2185, 85.7598, -119.697
2.37629, -1, -12.8308, 5.61403, 22.4178, 13.2209, 85.6636, -119.941
2.38428, -1, -12.9212, 5.56809, 22.4542, 13.2234, 85.5678, -120.185
2.39254, -1, -13.1931, 5.43011, 22.4903, 13.2259, 85.4717, -120.428
2.39969, -1, -13.2837, 5.38411, 22.5085, 13.227, 85.4238, -120.55
2.40683, -1, -13.4648, 5.29218, 22.5448, 13.2295, 85.328, -120.794
2.4168, -1, -13.7356, 5.15435, 22.599, 13.2334, 85.1842, -121.158
2.42369, -1, -13.8257, 5.10841, 22.617, 13.2347, 85.1364, -121.28
2.43075, -1, -14.0053, 5.01658, 22.6533, 13.2373, 85.0408, -121.523
2.43974, -1, -14.1839, 4.92487, 22.6894, 13.2398, 84.9451, -121.766
2.4477, -1, -14.3622, 4.83319, 22.7254, 13.2424, 84.8495, -122.008
2.45469, -1, -14.5402, 4.74153, 22.7617, 13.2449, 84.754, -122.251
2.46371, -1, -14.7178, 4.64992, 22.7979, 13.2474, 84.6584, -122.493
2.47169, -1, -14.8954, 4.55843, 22.8339, 13.25, 84.5625, -122.736
2.47869, -1, -15.0731, 4.46703, 22.8701, 13.2524, 84.467, -122.978
2.48769, -1, -15.2511, 4.37576, 22.9062, 13.2548, 84.3713, -123.22
2.49569, -1, -15.4295, 4.28444, 22.9423, 13.2572, 84.2756, -123.462
2.50268, -1, -15.6084, 4.19316, 22.9783, 13.2595, 84.1801, -123.703
2.51169, -1, -15.7876, 4.10193, 23.0143, 13.2619, 84.0845, -123.945
2.5198, -1, -15.9669, 4.01072, 23.0502, 13.264, 83.9891, -124.187
2.52775, -1, -16.1465, 3.91942, 23.0862, 13.2662, 83.8936, -124.428
2.53673, -1, -16.3263, 3.82817, 23.1222, 13.2683, 83.7982, -124.67
2.54373, -1, -16.5057, 3.73697, 23.158, 13.2705, 83.7028, -124.911
2.55175, -1, -16.6847, 3.64589, 23.1939, 13.2727, 83.6073, -125.153
2.55968, -1, -16.8632, 3.5548, 23.2297, 13.2749, 83.512, -125.393
2.56769, -1, -17.0407, 3.46379, 23.2656, 13.2772, 83.4167, -125.634
2.57569, -1, -17.2176, 3.37285, 23.3014, 13.2794, 83.3214, -125.875
2.5837, -1, -17.3941, 3.28197, 23.3372, 13.2816, 83.2264, -126.116
2.59176, -1, -17.5704, 3.19113, 23.373, 13.2837, 83.1312, -126.356
2.5997, -1, -17.7464, 3.10048, 23.4088, 13.2859, 83.0365, -126.596
2.60768, -1, -17.9224, 3.00988, 23.4447, 13.288, 82.9418, -126.837
2.61577, -1, -18.0987, 2.9194, 23.4805, 13.2901, 82.8468, -127.077
2.62368, -1, -18.2752, 2.82904, 23.5162, 13.2923, 82.7522, -127.317
2.6317, -1, -18.4522, 2.73859, 23.552, 13.2943, 82.6576, -127.557
2.63978, -1, -18.6296, 2.6482, 23.5876, 13.2963, 82.5628, -127.796
2.64773, -1, -18.8072, 2.55784, 23.6232, 13.2984, 82.4683, -128.036
2.65568, -1, -18.9853, 2.46742, 23.659, 13.3004, 82.3739, -128.275
2.66376, -1, -19.1636, 2.37692, 23.6945, 13.3024, 82.2794, -128.515
2.67168, -1, -19.3418, 2.28654, 23.7301, 13.3043, 82.1851, -128.754
2.67969, -1, -19.5195, 2.19615, 23.7658, 13.3065, 82.0913, -128.993
2.68776, -1, -19.6965, 2.10579, 23.8012, 13.3087, 81.997, -129.232
2.69569, -1, -19.873, 2.01548, 23.8366, 13.3109, 81.9027, -129.471
2.70375, -1, -20.0488, 1.92522, 23.8722, 13.313, 81.8088, -129.71
2.7121, -1, -20.224, 1.83499, 23.9077, 13.3152, 81.7147, -129.948
2.71921, -1, -20.3989, 1.74488, 23.9431, 13.3174, 81.6206, -130.187
2.72783, -1, -20.5735, 1.65479, 23.9787, 13.3196, 81.5269, -130.425
2.73661, -1, -20.748, 1.56481, 24.0142, 13.3218, 81.4328, -130.663
2.74379, -1, -20.9226, 1.47495, 24.0495, 13.324, 81.3391, -130.901
2.75184, -1, -21.0976, 1.38525, 24.0851, 13.3262, 81.2455, -131.139
2.7598, -1, -21.2729, 1.2955, 24.1206, 13.3284, 81.1516, -131.377
2.76789, -1, -21.4486, 1.20583, 24.1559, 13.3305, 81.0577, -131.615
2.7759, -1, -21.6247, 1.11621, 24.1913, 13.3326, 80.9639, -131.853
2.78618, -1, -21.8009, 1.02658, 24.2268, 13.3348, 80.8701, -132.09
2.7918, -1, -21.9772, 0.936941, 24.2621, 13.337, 80.7763, -132.327
2.79976, -1, -22.1538, 0.847327, 24.2975, 13.3391, 80.6827, -132.564
2.8087, -1, -22.3303, 0.757771, 24.3329, 13.3413, 80.5891, -132.802
2.81599, -1, -22.5064, 0.668269, 24.3681, 13.3436, 80.4954, -133.039
2.82392, -1, -22.682, 0.57876, 24.4034, 13.346, 80.4018, -133.276
2.83284, -1, -22.857, 0.489357, 24.4387, 13.3484, 80.3082, -133.512
2.84015, -1, -23.031, 0.399938, 24.4739, 13.3507, 80.2147, -133.749
2.84811, -1, -23.2046, 0.310554, 24.509, 13.3533, 80.1211, -133.986
2.85709, -1, -23.3779, 0.221258, 24.5442, 13.3557, 80.0277, -134.222
2.86424, -1, -23.5509, 0.132046, 24.5795, 13.3581, 79.9342, -134.459
2.87225, -1, -23.7242, 0.0429289, 24.6146, 13.3605, 79.841, -134.695
2.88108, -1, -23.8976, -0.0461318, 24.6499, 13.3629, 79.748, -134.931
2.88832, -1, -23.9843, -0.135067, 24.6849, 13.3654, 79.6547, -135.167
2.89624, -1, -24.1579, -0.17956, 24.7025, 13.3666, 79.6082, -135.402
2.90519, -1, -24.3319, -0.268549, 24.7376, 13.369, 79.5152, -135.52
2.91174, -1, -24.5062, -0.357455, 24.7728, 13.3715, 79.4222, -135.756
2.91967, -1, -24.6808, -0.446324, 24.8078, 13.3739, 79.3291, -135.991
2.92767, -1, -24.8557, -0.535187, 24.8428, 13.3763, 79.2361, -136.227
2.93572, -1, -25.0309, -0.624055, 24.878, 13.3787, 79.1431, -136.462
2.9437, -1, -25.2057, -0.712855, 24.9131, 13.3811, 79.0501, -136.697
2.95168, -1, -25.3802, -0.801584, 24.948, 13.3834, 78.9574, -136.932
2.95975, -1, -25.5544, -0.890426, 24.9832, 13.3859, 78.8649, -137.167
2.96768, -1, -25.728, -0.979139, 25.018, 13.3884, 78.772, -137.402
2.97567, -1, -25.9009, -1.0678, 25.0529, 13.3908, 78.6794, -137.637
2.98372, -1, -26.0734, -1.1565, 25.0879, 13.3933, 78.5872, -137.871
2.99168, -1, -26.2454, -1.24513, 25.1229, 13.3957, 78.4945, -138.106
2.99974, -1, -26.4171, -1.33365, 25.1577, 13.398, 78.4019, -138.34
3.0067, -1, -26.589, -1.42203, 25.1927, 13.4002, 78.3097, -138.575
3.01567, -1, -26.761, -1.51038, 25.2276, 13.4025, 78.2169, -138.809
3.02375, -1, -26.9333, -1.59857, 25.2625, 13.4047, 78.1246, -139.043
3.03273, -1, -27.1058, -1.68672, 25.2974, 13.407, 78.0325, -139.277
3.03967, -1, -27.2783, -1.77495, 25.3323, 13.4091, 77.9402, -139.511
3.04775, -1, -27.4512, -1.86301, 25.367, 13.4114, 77.8482, -139.745
3.05567, -1, -27.6243, -1.95112, 25.4018, 13.4134, 77.7563, -139.978
3.06367, -1, -27.7976, -2.03935, 25.4367, 13.4155, 77.6642, -140.211
3.07173, -1, -27.9709, -2.12737, 25.4715, 13.4176, 77.5722, -140.445
3.07967, -1, -28.1442, -2.21543, 25.5062, 13.4197, 77.4802, -140.678
3.08769, -1, -28.3173, -2.30346, 25.541, 13.4217, 77.3882, -140.911
3.09574, -1, -28.4901, -2.39152, 25.5758, 13.4237, 77.2961, -141.144
3.10368, -1, -28.6625, -2.47948, 25.6104, 13.4259, 77.204, -141.377
3.11176, -1, -28.8342, -2.56751, 25.6451, 13.4281, 77.1121, -141.61
3.11967, -1, -29.0052, -2.65549, 25.6798, 13.4303, 77.0201, -141.843
3.12767, -1, -29.1758, -2.74335, 25.7143, 13.4324, 76.9281, -142.075
3.13575, -1, -29.3464, -2.83119, 25.7489, 13.4345, 76.8365, -142.308
3.14368, -1, -29.5171, -2.91889, 25.7836, 13.4366, 76.7445, -142.54
3.15171, -1, -29.6879, -3.00645, 25.8181, 13.4385, 76.6526, -142.773
3.15974, -1, -29.859, -3.094, 25.8527, 13.4406, 76.5611, -143.005
3.16767, -1, -30.03, -3.18147, 25.8873, 13.4427, 76.4691, -143.237
3.17568, -1, -30.201, -3.26898, 25.9218, 13.4448, 76.3774, -143.469
3.18375, -1, -30.3722, -3.35641, 25.9563, 13.4469, 76.286, -143.701
3.19167, -1, -30.5437, -3.44387, 25.9909, 13.4489, 76.1944, -143.933
3.1998, -1, -30.7155, -3.53141, 26.0253, 13.4509, 76.1029, -144.165
3.20767, -1, -30.8873, -3.61875, 26.0598, 13.4529, 76.0116, -144.396
3.21573, -1, -31.0591, -3.70614, 26.0944, 13.4549, 75.9202, -144.627
3.22393, -1, -31.2308, -3.79348, 26.1288, 13.457, 75.8288, -144.859
3.23176, -1, -31.4021, -3.88083, 26.1632, 13.4591, 75.7375, -145.09
3.23977, -1, -31.573, -3.96811, 26.1977, 13.4612, 75.6463, -145.321
3.24812, -1, -31.7434, -4.05535, 26.232, 13.4634, 75.555, -145.552
3.25525, -1, -31.9134, -4.14264, 26.2664, 13.4656, 75.4638, -145.783
3.26377, -1, -32.0831, -4.22986, 26.3008, 13.4678, 75.3729, -146.014
3.27245, -1, -32.2525, -4.31696, 26.3351, 13.47, 75.2817, -146.245
3.27972, -1, -32.4219, -4.40402, 26.3694, 13.4721, 75.1907, -146.475
3.2877, -1, -32.5916, -4.491, 26.4037, 13.4743, 75.1002, -146.706
3.29658, -1, -32.7613, -4.57786, 26.4382, 13.4764, 75.009, -146.936
3.30375, -1, -32.9309, -4.66477, 26.4724, 13.4786, 74.9182, -147.166
3.31185, -1, -33.1006, -4.75169, 26.5065, 13.4808, 74.8278, -147.397
3.32085, -1, -33.2704, -4.83854, 26.5409, 13.483, 74.7369, -147.627
3.32794, -1, -33.4404, -4.92539, 26.5752, 13.4852, 74.6463, -147.857
3.33627, -1, -33.6108, -5.01236, 26.6093, 13.4874, 74.5558, -148.086
3.3449, -1, -33.7811, -5.09914, 26.6436, 13.4897, 74.4653, -148.316
3.35212, -1, -33.9513, -5.18587, 26.6778, 13.4919, 74.3748, -148.546
3.35865, -1, -34.0365, -5.22923, 26.6948, 13.493, 74.3295, -148.661
3.36906, -1, -34.2917, -5.35933, 26.7461, 13.4964, 74.1938, -149.005
3.37626, -1, -34.4616, -5.44596, 26.7803, 13.4987, 74.1032, -149.234
3.38441, -1, -34.6311, -5.53265, 26.8144, 13.501, 74.0126, -149.464
3.39306, -1, -34.7157, -5.57601, 26.8315, 13.5022, 73.9221, -149.693
3.40023, -1, -34.8843, -5.6626, 26.8656, 13.5046, 73.8767, -149.807
3.4077, -1, -35.0528, -5.74913, 26.8998, 13.5071, 73.7863, -150.036
3.41567, -1, -35.2211, -5.83565, 26.9338, 13.5095, 73.696, -150.265
3.42271, -1, -35.3894, -5.92199, 26.9679, 13.5119, 73.6056, -150.494
3.43171, -1, -35.558, -6.00817, 27.002, 13.5143, 73.5153, -150.723
3.43967, -1, -35.7265, -6.09442, 27.036, 13.5166, 73.4249, -150.952
3.44671, -1, -35.895, -6.1806, 27.07, 13.519, 73.3347, -151.18
3.45565, -1, -36.0635, -6.26672, 27.1041, 13.5214, 73.2442, -151.409
3.46366, -1, -36.232, -6.35283, 27.138, 13.5238, 73.1539, -151.637
3.47065, -1, -36.4007, -6.43903, 27.1719, 13.5263, 73.0637, -151.866
3.47965, -1, -36.5696, -6.52526, 27.2059, 13.5286, 72.9731, -152.094
3.48767, -1, -36.7385, -6.61144, 27.2398, 13.5309, 72.8829, -152.322
3.49465, -1, -36.9074, -6.69762, 27.2736, 13.5331, 72.7929, -152.55
3.50365, -1, -37.0763, -6.78378, 27.3076, 13.5354, 72.7028, -152.778
3.51448, -1, -37.3294, -6.91297, 27.3583, 13.5388, 72.5678, -153.12
3.51972, -1, -37.4137, -6.95598, 27.3753, 13.5399, 72.523, -153.234
3.52766, -1, -37.5818, -7.04204, 27.4092, 13.5422, 72.4331, -153.461
3.53665, -1, -37.7496, -7.12805, 27.4432, 13.5445, 72.3433, -153.689
3.54374, -1, -37.9172, -7.21402, 27.477, 13.5468, 72.2534, -153.917
3.55172, -1, -38.0847, -7.29992, 27.5108, 13.549, 72.1637, -154.144
3.56069, -1, -38.2521, -7.38576, 27.5448, 13.5511, 72.0739, -154.371
3.56666, -1, -38.4194, -7.47148, 27.5785, 13.5533, 71.9843, -154.598
3.57566, -1, -38.5867, -7.55717, 27.6124, 13.5554, 71.8948, -154.826
3.58372, -1, -38.754, -7.64289, 27.6463, 13.5575, 71.8051, -155.053
3.59167, -1, -38.9212, -7.72858, 27.68, 13.5595, 71.7156, -155.28
3.59966, -1, -39.0886, -7.81416, 27.7137, 13.5616, 71.6266, -155.507
3.60772, -1, -39.2561, -7.89982, 27.7476, 13.5635, 71.5369, -155.733
3.61565, -1, -39.4236, -7.98551, 27.7814, 13.5656, 71.4477, -155.96
3.62366, -1, -39.5912, -8.07104, 27.815, 13.5676, 71.3584, -156.187
3.63173, -1, -39.7589, -8.15656, 27.8487, 13.5695, 71.269, -156.413
3.63966, -1, -39.9265, -8.24204, 27.8825, 13.5715, 71.1796, -156.64
3.64767, -1, -40.0941, -8.32748, 27.9161, 13.5734, 71.0902, -156.866
3.65572, -1, -40.2615, -8.41288, 27.9497, 13.5754, 71.0011, -157.092
3.66365, -1, -40.4287, -8.49829, 27.9835, 13.5773, 70.9117, -157.319
3.67168, -1, -40.5957, -8.58368, 28.0171, 13.5793, 70.8225, -157.545
3.67975, -1, -40.7626, -8.66909, 28.0507, 13.5813, 70.7336, -157.771
3.68764, -1, -40.9291, -8.75442, 28.0844, 13.5834, 70.6443, -157.996
3.69568, -1, -41.0956, -8.83974, 28.1181, 13.5854, 70.5551, -158.222
3.70373, -1, -41.2618, -8.92494, 28.1516, 13.5875, 70.4662, -158.448
3.71172, -1, -41.428, -9.01006, 28.1852, 13.5894, 70.3769, -158.674
3.71991, -1, -41.5943, -9.09522, 28.2189, 13.5914, 70.2877, -158.899
3.72772, -1, -41.7605, -9.18031, 28.2525, 13.5934, 70.1987, -159.125
3.73574, -1, -41.9269, -9.26536, 28.286, 13.5953, 70.1096, -159.35
3.74416, -1, -42.0934, -9.35038, 28.3197, 13.5974, 70.0206, -159.576
3.75118, -1, -42.2596, -9.43545, 28.3532, 13.5994, 69.9316, -159.801
3.75976, -1, -42.4259, -9.52047, 28.3867, 13.6014, 69.8428, -160.026
3.76824, -1, -42.5923, -9.60546, 28.4203, 13.6034, 69.7537, -160.252
3.77533, -1, -42.6755, -9.64794, 28.4371, 13.6045, 69.7093, -160.364
3.78367, -1, -42.9252, -9.77538, 28.4872, 13.6075, 69.5762, -160.702
3.79196, -1, -43.0915, -9.86029, 28.5207, 13.6096, 69.4872, -160.927
3.8006, -1, -43.2576, -9.9452, 28.5543, 13.6117, 69.3986, -161.152
3.80773, -1, -43.4238, -10.0301, 28.5878, 13.6137, 69.31, -161.376
3.81587, -1, -43.5898, -10.1151, 28.6212, 13.6158, 69.2214, -161.601
3.82488, -1, -43.7557, -10.2, 28.6548, 13.6178, 69.1329, -161.826
3.83194, -1, -43.9216, -10.2848, 28.6882, 13.6201, 69.0444, -162.05
3.84007, -1, -44.0872, -10.3696, 28.7216, 13.6222, 68.956, -162.275
3.84665, -1, -44.1699, -10.4119, 28.7384, 13.6232, 68.9116, -162.387
3.85616, -1, -44.4177, -10.5388, 28.7886, 13.6266, 68.7786, -162.723
3.86421, -1, -44.5829, -10.6234, 28.8219, 13.6288, 68.6901, -162.948
3.873, -1, -44.7481, -10.7079, 28.8554, 13.6309, 68.6014, -163.172
3.88022, -1, -44.9134, -10.7923, 28.8889, 13.6331, 68.5129, -163.396
3.88834, -1, -45.0787, -10.8768, 28.9222, 13.6353, 68.4247, -163.62
3.89629, -1, -45.1614, -10.9191, 28.9389, 13.6364, 68.3362, -163.844
3.90418, -1, -45.3266, -11.0036, 28.9723, 13.6386, 68.292, -163.956
3.9123, -1, -45.4919, -11.0881, 29.0057, 13.6409, 68.2035, -164.18
3.91971, -1, -45.6571, -11.1726, 29.0388, 13.6432, 68.1155, -164.404
3.92863, -1, -45.8224, -11.2991, 29.0889, 13.6466, 67.9828, -164.739
3.93569, -1, -45.9866, -11.3409, 29.1056, 13.6477, 67.9386, -164.851
3.94364, -1, -46.148, -11.4232, 29.1391, 13.6501, 67.8506, -165.074
3.95165, -1, -46.305, -11.5026, 29.1727, 13.6524, 67.7631, -165.295
3.95969, -1, -46.4553, -11.5776, 29.2062, 13.6548, 67.678, -165.51
3.96764, -1, -46.5965, -11.6475, 29.2385, 13.6571, 67.5964, -165.716
3.97565, -1, -46.7261, -11.7108, 29.2683, 13.6593, 67.5218, -165.906
3.98372, -1, -46.8411, -11.7669, 29.2947, 13.6613, 67.4548, -166.074
3.99165, -1, -46.9398, -11.8161, 29.3168, 13.663, 67.399, -166.217
3.99964, -1, -47.0223, -11.859, 29.3334, 13.6643, 67.3543, -166.33
4.0077, -1, -47.0895, -11.8957, 29.3447, 13.6651, 67.3207, -166.414
4.01567, -1, -47.1418, -11.9252, 29.3519, 13.6655, 67.2974, -166.473
4.02364, -1, -47.1807, -11.9473, 29.3558, 13.6657, 67.2824, -166.511
4.03172, -1, -47.2083, -11.9627, 29.3576, 13.6659, 67.2736, -166.533
4.03966, -1, -47.2264, -11.9727, 29.3584, 13.6659, 67.2689, -166.545
4.04864, -1, -47.2372, -11.9786, 29.3588, 13.666, 67.2666, -166.551
4.05576, -1, -47.2429, -11.9815, 29.359, 13.666, 67.2655, -166.553
4.06364, 2, -47.2449, -11.9828, 29.3592, 13.6661, 67.2649, -166.555
4.07165, 2, -47.245, -11.9833, 29.3593, 13.6661, 67.2647, -166.555
4.07971, 2, -47.2448, -11.9835, 29.3593, 13.6661, 67.2646, -166.555
4.08763, 2, -47.2447, -11.9835, 29.3593, 13.6661, 67.2645, -166.556
4.09564, 2, -47.2451, -11.9837, 29.3594, 13.6661, 67.2645, -166.556
4.10371, 2, -47.246, -11.9839, 29.3594, 13.6661, 67.2645, -166.556
4.11165, 2, -47.2473, -11.9845, 29.3594, 13.6662, 67.2645, -166.556
4.11964, 2, -47.2491, -11.9853, 29.3594, 13.6661, 67.2645, -166.556
4.12771, 2, -47.2507, -11.9861, 29.3594, 13.6662, 67.2645, -166.556
4.13563, 2, -47.252, -11.987, 29.3594, 13.6662, 67.2645, -166.556
4.14364, 2, -47.253, -11.9876, 29.3594, 13.6661, 67.2645, -166.556
4.15172, 2, -47.2534, -11.988, 29.3594, 13.6662, 67.2645, -166.556
4.15964, 2, -47.2536, -11.9882, 29.3594, 13.6662, 67.2645, -166.556
4.16764, 2, -47.2537, -11.9883, 29.3594, 13.6662, 67.2644, -166.556
4.17571, 2, -47.2534, -11.9883, 29.3594, 13.6662, 67.2645, -166.556
4.18367, 2, -47.2529, -11.9883, 29.3594, 13.6661, 67.2644, -166.556
4.19166, 2, -47.2525, -11.9882, 29.3595, 13.6661, 67.2645, -166.556
4.19971, 2, -47.2521, -11.9882, 29.3595, 13.6661, 67.2645, -166.556
4.20769, 2, -47.2519, -11.9882, 29.3595, 13.6661, 67.2644, -166.555
4.21568, 2, -47.252, -11.9883, 29.3595, 13.6661, 67.2645, -166.556
4.2238, 2, -47.2521, -11.9885, 29.3595, 13.6661, 67.2645, -166.556
4.23172, 2, -47.2523, -11.9888, 29.3595, 13.6662, 67.2645, -166.556
4.23974, 2, -47.2529, -11.9892, 29.3595, 13.6661, 67.2645, -166.556
4.2478, 2, -47.2534, -11.9895, 29.3595, 13.6661, 67.2645, -166.556
4.25574, 2, -47.2537, -11.9897, 29.3595, 13.6661, 67.2645, -166.556
4.26374, 2, -47.2539, -11.9897, 29.3595, 13.666, 67.2645, -166.556
4.27182, 2, -47.2539, -11.9897, 29.3595, 13.666, 67.2645, -166.555
4.27964, 2, -47.2538, -11.9897, 29.3595, 13.6661, 67.2645, -166.555
4.28766, 2, -47.2537, -11.9896, 29.3595, 13.6661, 67.2645, -166.555
4.29577, 2, -47.2532, -11.9896, 29.3595, 13.6661, 67.2645, -166.556
4.30372, 2, -47.2529, -11.9895, 29.3595, 13.6661, 67.2645, -166.555
4.3118, 2, -47.2526, -11.9895, 29.3595, 13.6661, 67.2645, -166.555
4.31988, 2, -47.2524, -11.9895, 29.3595, 13.6661, 67.2645, -166.555
4.32789, 2, -47.2523, -11.9896, 29.3595, 13.666, 67.2646, -166.555
4.33468, 2, -47.2523, -11.9896, 29.3595, 13.666, 67.2645, -166.555
4.34407, 2, -47.2523, -11.9897, 29.3595, 13.666, 67.2645, -166.555
4.35062, 2, -47.2523, -11.9897, 29.3595, 13.666, 67.2645, -166.555
4.36021, 2, -47.2523, -11.9898, 29.3595, 13.666, 67.2645, -166.555
4.36821, 2, -47.2523, -11.9898, 29.3594, 13.666, 67.2646, -166.555
4.37621, 2, -47.2523, -11.9898, 29.3595, 13.666, 67.2646, -166.555
4.38426, 2, -47.2522, -11.9897, 29.3595, 13.666, 67.2645, -166.555
4.39229, 2, -47.2522, -11.9896, 29.3595, 13.666, 67.2646, -166.555
4.40019, 2, -47.2522, -11.9896, 29.3595, 13.666, 67.2646, -166.555
4.40763, 2, -47.252, -11.9895, 29.3595, 13.666, 67.2645, -166.555
4.41565, 2, -47.252, -11.9895, 29.3595, 13.666, 67.2646, -166.555
4.42363, 2, -47.2518, -11.9895, 29.3595, 13.666, 67.2646, -166.555
4.43164, 2, -47.2517, -11.9895, 29.3595, 13.666, 67.2646, -166.555
4.43968, 2, -47.2516, -11.9895, 29.3594, 13.666, 67.2646, -166.555
4.44763, 2, -47.2515, -11.9895, 29.3595, 13.666, 67.2646, -166.555
4.45563, 2, -47.2515, -11.9895, 29.3595, 13.666, 67.2646, -166.555
4.46367, 2, -47.2514, -11.9896, 29.3595, 13.666, 67.2646, -166.555
4.47164, 2, -47.2514, -11.9896, 29.3595, 13.666, 67.2646, -166.555
4.47963, 2, -47.2514, -11.9896, 29.3595, 13.666, 67.2646, -166.555
4.4877, 2, -47.2513, -11.9895, 29.3595, 13.666, 67.2647, -166.555
4.49563, 2, -47.2513, -11.9895, 29.3595, 13.6659, 67.2646, -166.555
4.50363, 2, -47.2511, -11.9894, 29.3595, 13.666, 67.2646, -166.555
4.5117, 2, -47.251, -11.9893, 29.3595, 13.666, 67.2646, -166.555
4.51971, 2, -47.2509, -11.9893, 29.3595, 13.666, 67.2646, -166.555
4.52763, 2, -47.2508, -11.9893, 29.3595, 13.666, 67.2646, -166.555
4.53662, 2, -47.2508, -11.9892, 29.3595, 13.6659, 67.2646, -166.555
4.54364, 2, -47.2507, -11.9892, 29.3595, 13.666, 67.2646, -166.555
4.55262, 2, -47.2506, -11.9892, 29.3595, 13.6659, 67.2646, -166.555
4.55974, 2, -47.2505, -11.9893, 29.3595, 13.6659, 67.2646, -166.555
4.56763, 2, -47.2503, -11.9892, 29.3595, 13.6659, 67.2646, -166.555
4.57563, 2, -47.2502, -11.9892, 29.3594, 13.6659, 67.2646, -166.555
4.58369, 2, -47.2501, -11.9892, 29.3595, 13.666, 67.2647, -166.555
4.59163, 2, -47.25, -11.9892, 29.3595, 13.666, 67.2647, -166.555
4.59963, 2, -47.2499, -11.9892, 29.3595, 13.6659, 67.2647, -166.555
4.60769, 2, -47.2498, -11.9891, 29.3595, 13.6659, 67.2647, -166.555
4.61563, 2, -47.2497, -11.989, 29.3595, 13.6659, 67.2647, -166.555
4.62363, 2, -47.2496, -11.9889, 29.3595, 13.6659, 67.2647, -166.555
4.6317, 2, -47.2495, -11.9889, 29.3595, 13.6659, 67.2647, -166.555
4.63963, 2, -47.2494, -11.9889, 29.3595, 13.6659, 67.2647, -166.555
4.64762, 2, -47.2494, -11.9889, 29.3595, 13.6659, 67.2647, -166.555
4.65569, 2, -47.2493, -11.9889, 29.3595, 13.6659, 67.2647, -166.555
4.66362, 2, -47.2492, -11.9889, 29.3595, 13.6659, 67.2647, -166.555
4.67164, 2, -47.2492, -11.9889, 29.3595, 13.6658, 67.2647, -166.555
4.67969, 2, -47.2491, -11.9889, 29.3595, 13.6658, 67.2647, -166.555
4.68766, 2, -47.2491, -11.9889, 29.3595, 13.6658, 67.2647, -166.555
4.69563, 2, -47.249, -11.9889, 29.3595, 13.6659, 67.2647, -166.555
4.7037, 2, -47.249, -11.9888, 29.3595, 13.6658, 67.2647, -166.555
4.71166, 2, -47.2489, -11.9887, 29.3595, 13.6658, 67.2647, -166.555
4.71964, 2, -47.2488, -11.9886, 29.3595, 13.6658, 67.2647, -166.555
4.72777, 2, -47.2488, -11.9886, 29.3595, 13.6658, 67.2648, -166.555
4.73572, 2, -47.2487, -11.9886, 29.3595, 13.6658, 67.2648, -166.555
4.74373, 2, -47.2486, -11.9885, 29.3595, 13.6658, 67.2648, -166.555
4.75179, 2, -47.2485, -11.9885, 29.3595, 13.6658, 67.2648, -166.555
4.75972, 2, -47.2485, -11.9885, 29.3595, 13.6658, 67.2648, -166.555
4.76773, 2, -47.2484, -11.9885, 29.3595, 13.6658, 67.2648, -166.554
4.7758, 2, -47.2484, -11.9885, 29.3594, 13.6658, 67.2648, -166.554
4.78363, 2, -47.2484, -11.9885, 29.3594, 13.6658, 67.2648, -166.554
4.7917, 2, -47.2483, -11.9885, 29.3594, 13.6658, 67.2648, -166.554
4.79981, 2, -47.2483, -11.9885, 29.3594, 13.6657, 67.2648, -166.555
4.80768, 2, -47.2483, -11.9884, 29.3595, 13.6657, 67.2648, -166.554
4.81577, 2, -47.2482, -11.9883, 29.3594, 13.6657, 67.2648, -166.554
4.82386, 2, -47.2481, -11.9883, 29.3594, 13.6656, 67.2648, -166.554
4.83186, 2, -47.248, -11.9882, 29.3594, 13.6657, 67.2648, -166.554
4.84046, 2, -47.2479, -11.9882, 29.3594, 13.6656, 67.2648, -166.554
4.84806, 2, -47.2479, -11.9882, 29.3594, 13.6656, 67.2648, -166.554
4.85461, 2, -47.2478, -11.9881, 29.3594, 13.6656, 67.2648, -166.554
4.86447, 2, -47.2478, -11.9881, 29.3594, 13.6656, 67.2648, -166.554
4.8722, 2, -47.2477, -11.9881, 29.3594, 13.6656, 67.2648, -166.554
4.88016, 2, -47.2477, -11.9881, 29.3595, 13.6656, 67.2648, -166.554
4.88865, 2, -47.2477, -11.9881, 29.3595, 13.6655, 67.2648, -166.554
4.89627, 2, -47.2477, -11.9881, 29.3595, 13.6655, 67.2649, -166.554
4.90413, 2, -47.2476, -11.9881, 29.3595, 13.6655, 67.2649, -166.554
4.91244, 2, -47.2476, -11.988, 29.3595, 13.6655, 67.2649, -166.554
4.91966, 2, -47.2475, -11.988, 29.3595, 13.6655, 67.2649, -166.554
4.92762, 2, -47.2475, -11.9879, 29.3594, 13.6656, 67.2649, -166.554
4.93583, 2, -47.2474, -11.9879, 29.3594, 13.6656, 67.2649, -166.554
4.94366, 2, -47.2473, -11.9878, 29.3594, 13.6655, 67.2649, -166.554
4.95162, 2, -47.2472, -11.9878, 29.3594, 13.6655, 67.2649, -166.554
4.95961, 2, -47.2472, -11.9878, 29.3594, 13.6655, 67.265, -166.554
4.96766, 2, -47.2471, -11.9878, 29.3594, 13.6655, 67.2649, -166.554
4.97561, 2, -47.2471, -11.9878, 29.3594, 13.6655, 67.265, -166.554
4.98361, 2, -47.247, -11.9877, 29.3594, 13.6655, 67.265, -166.554
4.99166, 2, -47.247, -11.9877, 29.3594, 13.6654, 67.265, -166.554
4.99961, 2, -47.247, -11.9877, 29.3594, 13.6654, 67.265, -166.554
5.00761, 2, -47.2469, -11.9877, 29.3594, 13.6654, 67.265, -166.554
5.01568, 2, -47.2469, -11.9877, 29.3594, 13.6655, 67.265, -166.554
5.02364, 2, -47.2469, -11.9876, 29.3594, 13.6655, 67.265, -166.554
5.03162, 2, -47.2468, -11.9875, 29.3594, 13.6654, 67.265, -166.554
5.03968, 2, -47.2467, -11.9875, 29.3594, 13.6654, 67.265, -166.554
5.04865, 2, -47.2466, -11.9874, 29.3594, 13.6654, 67.265, -166.554
5.05561, 2, -47.2466, -11.9874, 29.3594, 13.6654, 67.265, -166.554
5.06468, 2, -47.2465, -11.9874, 29.3594, 13.6654, 67.265, -166.554
5.07166, 2, -47.2465, -11.9874, 29.3594, 13.6653, 67.265, -166.554
5.07969, 2, -47.2464, -11.9874, 29.3594, 13.6653, 67.2651, -166.554
5.08794, 2, -47.2464, -11.9874, 29.3594, 13.6653, 67.2651, -166.554
5.09663, 2, -47.2464, -11.9874, 29.3594, 13.6653, 67.2651, -166.554
5.10365, 2, -47.2464, -11.9874, 29.3594, 13.6653, 67.2651, -166.554
5.11168, 2, -47.2463, -11.9873, 29.3594, 13.6653, 67.2651, -166.554
5.11961, 2, -47.2463, -11.9873, 29.3594, 13.6652, 67.2651, -166.554
5.12766, 2, -47.2463, -11.9872, 29.3594, 13.6652, 67.2651, -166.554
5.13564, 2, -47.2462, -11.9872, 29.3594, 13.6652, 67.2651, -166.554
5.14361, 4, -47.2461, -11.9872, 29.3594, 13.6652, 67.2651, -166.554
5.15167, 4, -47.246, -11.9871, 29.3594, 13.6652, 67.2651, -166.554
5.15963, 4, -47.246, -11.9871, 29.3594, 13.6652, 67.2651, -166.554
5.16761, 4, -47.2459, -11.9871, 29.3594, 13.6652, 67.2652, -166.554
5.17568, 4, -47.2459, -11.9871, 29.3594, 13.6652, 67.2651, -166.554
5.18363, 4, -47.2459, -11.9871, 29.3594, 13.6651, 67.2651, -166.554
5.19164, 4, -47.2458, -11.9871, 29.3594, 13.6651, 67.2652, -166.554
5.19966, 4, -47.2458, -11.9871, 29.3594, 13.6651, 67.2652, -166.554
5.20763, 4, -47.2458, -11.987, 29.3594, 13.6651, 67.2652, -166.553
5.21566, 4, -47.2458, -11.987, 29.3594, 13.6651, 67.2652, -166.553
5.22368, 4, -47.2458, -11.987, 29.3594, 13.6651, 67.2653, -166.553
5.23173, 4, -47.2457, -11.9869, 29.3594, 13.6651, 67.2652, -166.553
5.23986, 4, -47.2456, -11.9869, 29.3594, 13.6651, 67.2652, -166.553
5.25549, 4, -47.2455, -11.9868, 29.3594, 13.665, 67.2652, -166.553
5.25745, 4, -47.2455, -11.9868, 29.3594, 13.665, 67.2652, -166.553
5.26397, 4, -47.2454, -11.9868, 29.3594, 13.665, 67.2653, -166.553
5.27239, 4, -47.2454, -11.9868, 29.3594, 13.665, 67.2653, -166.553
5.27987, 4, -47.2453, -11.9868, 29.3594, 13.665, 67.2653, -166.553
5.28794, 4, -47.2453, -11.9868, 29.3594, 13.665, 67.2653, -166.553
5.29992, 4, -47.2453, -11.9868, 29.3594, 13.665, 67.2652, -166.553
5.30563, 4, -47.2453, -11.9868, 29.3594, 13.665, 67.2653, -166.553
5.31366, 4, -47.2453, -11.9867, 29.3594, 13.6649, 67.2653, -166.553
5.32082, 4, -47.2453, -11.9867, 29.3594, 13.6649, 67.2653, -166.553
5.3298, 4, -47.2452, -11.9867, 29.3594, 13.6649, 67.2653, -166.553
5.33612, 4, -47.2452, -11.9866, 29.3594, 13.6649, 67.2653, -166.553
5.34438, 4, -47.2452, -11.9866, 29.3594, 13.6649, 67.2654, -166.553
5.3525, 4, -47.2451, -11.9866, 29.3594, 13.6649, 67.2654, -166.553
5.36055, 4, -47.245, -11.9866, 29.3594, 13.6649, 67.2653, -166.553
5.37235, 4, -47.2449, -11.9866, 29.3594, 13.6648, 67.2653, -166.553
5.37653, 4, -47.2449, -11.9865, 29.3594, 13.6648, 67.2654, -166.553
5.38639, 4, -47.2449, -11.9865, 29.3594, 13.6648, 67.2653, -166.553
5.39329, 4, -47.2449, -11.9865, 29.3594, 13.6648, 67.2653, -166.553
5.40101, 4, -47.245, -11.9866, 29.3595, 13.6648, 67.2653, -166.553
5.4091, 4, -47.2453, -11.9867, 29.3598, 13.665, 67.2654, -166.553
5.41651, 4, -47.2469, -11.9888, 29.3617, 13.6666, 67.266, -166.553
5.4255, 4, -47.2524, -11.9933, 29.3672, 13.6764, 67.2683, -166.552
5.43175, 5, -47.2555, -11.9971, 29.3724, 13.6865, 67.2708, -166.55
5.44184, 5, -47.2711, -12.0174, 29.4044, 13.7503, 67.2883, -166.536
5.4495, 5, -47.2791, -12.0282, 29.4231, 13.7884, 67.3128, -166.517
5.45579, 5, -47.3013, -12.0579, 29.477, 13.9003, 67.3305, -166.503
5.46383, 5, -47.3331, -12.0996, 29.5584, 14.0718, 67.3784, -166.463
5.47186, 5, -47.3763, -12.155, 29.6729, 14.3168, 67.4458, -166.406
5.47976, 5, -47.4323, -12.2252, 29.8237, 14.6435, 67.5353, -166.332
5.48775, 5, -47.5009, -12.3106, 30.0126, 15.0545, 67.646, -166.237
5.49598, 5, -47.5818, -12.411, 30.24, 15.5458, 67.7773, -166.125
5.50908, 5, -47.7244, -12.5873, 30.6445, 16.7213, 68.0857, -165.86
5.51439, 5, -47.831, -12.7195, 30.9497, 17.045, 68.1689, -165.788
5.51991, 5, -47.8871, -12.7893, 31.1103, 17.377, 68.2535, -165.715
5.52937, 5, -48.0034, -12.9347, 31.6166, 18.4025, 68.5107, -165.491
5.53774, 5, -48.1838, -13.1619, 31.966, 19.0973, 68.6808, -165.343
5.54774, 5, -48.3045, -13.3144, 32.3198, 19.7892, 68.8477, -165.196
5.55438, 5, -48.4218, -13.464, 32.6734, 20.4676, 69.0106, -165.047
5.55982, 5, -48.4779, -13.5369, 32.8488, 20.799, 69.0908, -164.97
5.56841, 6, -48.5822, -13.6765, 33.1922, 21.4385, 69.2503, -164.801
5.57573, 6, -48.6723, -13.8056, 33.522, 22.0384, 69.4102, -164.604
5.58384, 7, -48.7438, -13.9251, 33.8336, 22.5928, 69.5735, -164.363
5.5928, 7, -48.7938, -14.0368, 34.1256, 23.0981, 69.7426, -164.065
5.59974, 7, -48.822, -14.1404, 34.3972, 23.5568, 69.9196, -163.699
5.61162, 8, -48.826, -14.2776, 34.7706, 24.1744, 70.2041, -163.021
5.61574, 8, -48.8184, -14.3186, 34.8882, 24.3661, 70.3041, -162.762
5.62664, 9, -48.7742, -14.4312, 35.2258, 24.9162, 70.6198, -161.908
5.63176, 9, -48.7536, -14.4662, 35.335, 25.0948, 70.7294, -161.604
5.64015, 10, -48.7048, -14.5333, 35.5517, 25.4496, 70.9548, -160.978
5.64879, 10, -48.6466, -14.5979, 35.7671, 25.8043, 71.1863, -160.338
5.65961, 11, -48.5803, -14.6607, 36.0894, 26.3406, 71.5395, -159.371
5.66376, 11, -48.508, -14.7227, 36.1968, 26.5212, 71.6579, -159.05
5.67443, 12, -48.4311, -14.7851, 36.41, 26.8865, 71.8954, -158.409
5.67976, 12, -48.352, -14.848, 36.6206, 27.2582, 72.1339, -157.767
5.68783, 13, -48.2719, -14.9096, 36.8296, 27.6369, 72.3737, -157.123
5.69582, 13, -48.1911, -14.9689, 37.0366, 28.0227, 72.6153, -156.477
5.70375, 14, -48.1085, -15.0273, 37.2414, 28.4153, 72.8587, -155.826
5.71329, 14, -48.0231, -15.0865, 37.4452, 28.8134, 73.1044, -155.172
5.71982, 15, -47.9342, -15.1461, 37.648, 29.2156, 73.3514, -154.518
5.72793, 15, -47.8415, -15.2052, 37.8483, 29.6198, 73.5985, -153.866
5.73592, 16, -47.7435, -15.2636, 38.0467, 30.0242, 73.8443, -153.216
5.74477, 16, -47.6386, -15.3227, 38.2435, 30.4272, 74.0875, -152.57
5.75184, 17, -47.5272, -15.3838, 38.4372, 30.8274, 74.3267, -151.929
5.76046, 17, -47.4107, -15.4464, 38.6277, 31.2233, 74.5601, -151.294
5.77115, 18, -47.2895, -15.5097, 38.816, 31.6144, 74.7869, -150.356
5.7764, 18, -47.1634, -15.574, 39.002, 32.001, 75.0072, -150.047
5.78511, 19, -47.032, -15.6402, 39.1854, 32.3841, 75.2213, -149.436
5.79241, 19, -46.8952, -15.7095, 39.3673, 32.7653, 75.4301, -148.832
5.79992, 20, -46.7531, -15.7811, 39.5482, 33.1453, 75.6344, -148.234
5.80981, 20, -46.606, -15.8545, 39.7268, 33.5247, 75.8348, -147.644
5.81856, 21, -46.454, -15.93, 39.9025, 33.9036, 76.0314, -147.059
5.82482, 21, -46.2974, -16.0077, 40.0761, 34.2819, 76.2243, -146.48
5.83575, 22, -46.1363, -16.0876, 40.2476, 34.659, 76.4127, -145.624
5.84093, 22, -45.9707, -16.1689, 40.4159, 35.0337, 76.5965, -145.342
5.84874, 23, -45.7998, -16.2515, 40.5811, 35.4049, 76.7754, -144.781
5.8572, 23, -45.6225, -16.3359, 40.744, 35.7718, 76.9485, -144.227
5.86447, 24, -45.438, -16.4225, 40.9036, 36.1335, 77.1159, -143.678
5.87319, 24, -45.2464, -16.5109, 41.0589, 36.4888, 77.2771, -143.135
5.88047, 25, -45.048, -16.6005, 41.2101, 36.8366, 77.4323, -142.596
5.89231, 25, -44.7382, -16.7363, 41.429, 37.3438, 77.6539, -141.797
5.89644, 26, -44.6315, -16.7821, 41.4997, 37.509, 77.7251, -141.532
5.90592, 26, -44.4126, -16.8746, 41.6371, 37.8336, 77.8643, -141.004
5.91241, 27, -44.3005, -16.9673, 41.7688, 38.1507, 77.9993, -140.479
5.9211, 27, -44.0714, -17.0135, 41.8325, 38.3062, 78.0653, -139.955
5.92858, 28, -43.8359, -17.1054, 41.9554, 38.7619, 78.2587, -139.431
5.93733, 28, -43.5934, -17.1963, 42.0719, 38.9097, 78.3214, -139.169
5.94378, 29, -43.3438, -17.2859, 42.1815, 39.1992, 78.4448, -138.647
5.95173, 29, -43.0875, -17.3736, 42.2844, 39.4808, 78.5655, -138.125
5.96299, 30, -42.8246, -17.4594, 42.3801, 39.7542, 78.6828, -137.603
5.96772, 30, -42.5541, -17.5431, 42.4685, 40.0191, 78.7977, -137.081
5.97773, 31, -42.1326, -17.664, 42.5878, 40.4006, 78.9641, -136.3
5.98373, 31, -41.9882, -17.7029, 42.6241, 40.5234, 79.0182, -136.04
5.99379, 32, -41.5443, -17.8164, 42.7224, 40.8794, 79.177, -135.26
6.00185, 32, -41.393, -17.853, 42.7519, 40.9938, 79.2285, -134.741
6.00782, 33, -41.0854, -17.9242, 42.8054, 41.2167, 79.3298, -134.483
6.01582, 33, -40.771, -17.9921, 42.8518, 41.4315, 79.4287, -133.966
6.02376, 34, -40.4502, -18.057, 42.8909, 41.638, 79.5247, -133.449
6.03184, 34, -40.1245, -18.1194, 42.9227, 41.8366, 79.6181, -132.934
6.04138, 35, -39.7938, -18.179, 42.9472, 42.0271, 79.7094, -132.42
6.0506, 35, -39.2868, -18.2619, 42.9708, 42.299, 79.8411, -131.651
6.05582, 36, -39.1144, -18.2879, 42.9751, 42.3858, 79.8841, -131.395
6.06744, 36, -38.5861, -18.3608, 42.978, 42.6344, 80.0094, -130.63
6.07271, 37, -38.4069, -18.3834, 42.9756, 42.7135, 80.0501, -130.375
6.08214, 37, -37.8602, -18.4459, 42.9581, 42.9395, 80.1693, -129.615
6.09054, 38, -37.4893, -18.4829, 42.938, 43.0811, 80.2458, -129.11
6.09794, 38, -37.3022, -18.5002, 42.9255, 43.149, 80.3209, -128.606
6.10379, 39, -36.9244, -18.5323, 42.8954, 43.2793, 80.3572, -128.355
6.11272, 39, -36.542, -18.5608, 42.8586, 43.4023, 80.4285, -127.854
6.11979, 40, -36.1546, -18.5855, 42.8151, 43.518, 80.4984, -127.356
6.13017, 40, -35.5619, -18.6154, 42.7377, 43.678, 80.5997, -126.611
6.13585, 41, -35.3615, -18.6233, 42.7085, 43.7277, 80.6323, -126.363
6.14781, 42, -34.7524, -18.6419, 42.6116, 43.866, 80.7273, -125.624
6.15439, 42, -34.5473, -18.6464, 42.576, 43.9086, 80.7582, -125.379
6.16111, 42, -34.1348, -18.6528, 42.5001, 43.9883, 80.8176, -124.891
6.16772, 43, -33.7191, -18.6562, 42.4181, 44.0611, 80.8763, -124.404
6.17678, 43, -33.2993, -18.6562, 42.3301, 44.1265, 80.9326, -123.92
6.18678, 44, -32.6588, -18.6492, 42.1873, 44.2116, 81.0144, -123.199
6.19218, 44, -32.4421, -18.645, 42.1369, 44.236, 81.0409, -122.96
6.2007, 45, -32.0038, -18.6338, 42.0315, 44.2801, 81.092, -122.483
6.20783, 45, -31.5605, -18.6188, 41.9201, 44.3169, 81.1421, -122.009
6.2179, 46, -31.1141, -18.6005, 41.8027, 44.3459, 81.1906, -121.536
6.22473, 46, -30.6661, -18.5788, 41.6795, 44.367, 81.2365, -121.067
6.23539, 47, -29.9879, -18.5386, 41.4836, 44.3846, 81.3039, -120.366
6.24018, 47, -29.7592, -18.5229, 41.4154, 44.387, 81.3259, -120.134
6.25152, 48, -29.063, -18.4695, 41.2016, 44.383, 81.3893, -119.439
6.25772, 48, -28.8279, -18.4496, 41.1273, 44.3772, 81.4102, -119.208
6.26391, 49, -28.354, -18.4064, 40.9742, 44.3593, 81.4521, -118.749
6.27237, 49, -27.8773, -18.3587, 40.8154, 44.3322, 81.4933, -118.29
6.27985, 50, -27.3982, -18.3066, 40.6501, 44.2951, 81.5337, -117.833
6.28878, 50, -26.9154, -18.2491, 40.478, 44.2492, 81.5751, -117.376
6.30013, 51, -26.1785, -18.1524, 40.2081, 44.1625, 81.6388, -116.693
6.30456, 51, -25.9291, -18.1174, 40.1148, 44.1286, 81.6599, -116.466
6.31203, 52, -25.4251, -18.0433, 39.9222, 44.0538, 81.7028, -116.012
6.32081, 52, -24.9175, -17.964, 39.7227, 43.9681, 81.7473, -115.558
6.32977, 53, -24.4081, -17.8793, 39.5174, 43.8724, 81.792, -115.106
6.33683, 53, -23.8956, -17.7888, 39.3048, 43.7667, 81.8371, -114.653
6.34465, 54, -23.3769, -17.6919, 39.0843, 43.6505, 81.8846, -114.202
6.35298, 54, -22.8499, -17.5889, 38.8573, 43.5237, 81.9339, -113.75
6.36054, 55, -22.3155, -17.4798, 38.623, 43.3855, 81.9845, -113.298
6.37388, 56, -21.5064, -17.3046, 38.258, 43.1561, 82.0662, -112.62
6.37712, 56, -21.2355, -17.2433, 38.1332, 43.0739, 82.0938, -112.395
6.38887, 57, -20.4161, -17.051, 37.7479, 42.8099, 82.1802, -111.718
6.39252, 57, -20.139, -16.9842, 37.6163, 42.7162, 82.21, -111.493
6.40215, 57, -19.5776, -16.8461, 37.3479, 42.5198, 82.2702, -111.043
6.4089, 58, -19.0084, -16.7019, 37.0723, 42.3108, 82.3331, -110.593
6.41679, 58, -18.4352, -16.5511, 36.7908, 42.0892, 82.3975, -110.143
6.42669, 59, -17.8596, -16.3944, 36.5021, 41.8549, 82.4647, -109.693
6.43168, 59, -17.5702, -16.3143, 36.3551, 41.7328, 82.4995, -109.469
6.43971, 60, -16.985, -16.1509, 36.0562, 41.478, 82.5706, -109.019
6.45174, 61, -16.0881, -15.8963, 35.5959, 41.0706, 82.6827, -108.344
6.45667, 61, -15.7857, -15.8087, 35.4398, 40.9281, 82.7209, -107.895
6.46515, 61, -14.8739, -15.5388, 34.9624, 40.4816, 82.8386, -107.446
6.47181, 62, -14.5686, -15.447, 34.8007, 40.3267, 82.8788, -107.221
6.4835, 63, -13.6412, -15.1651, 34.3091, 39.8433, 83.002, -106.547
6.48772, 63, -13.3273, -15.0683, 34.1435, 39.6761, 83.044, -106.322
6.49784, 63, -12.3741, -14.7684, 33.6403, 39.1557, 83.1723, -105.648
6.50387, 64, -12.054, -14.6661, 33.4705, 38.9758, 83.2164, -105.423
6.51357, 64, -11.0871, -14.3508, 32.9528, 38.4159, 83.3538, -104.746
6.52382, 65, -10.4311, -14.1314, 32.6001, 38.0236, 83.4511, -104.293
6.52841, 65, -10.0989, -14.0189, 32.4214, 37.8209, 83.502, -104.065
6.53918, 66, -9.42677, -13.7887, 31.8767, 37.1847, 83.6642, -103.38
6.54539, 66, -8.74645, -13.4302, 31.5053, 36.7372, 83.7813, -102.92
6.55394, 67, -7.71419, -13.1821, 31.1254, 36.2707, 83.9057, -102.458
6.56266, 67, -7.01427, -12.9262, 30.7384, 35.7866, 84.0381, -101.993
6.56956, 68, -6.66082, -12.795, 30.5429, 35.286, 84.1774, -101.525
6.57876, 69, -5.58992, -12.3913, 29.9505, 34.7719, 84.3235, -101.055
6.58701, 69, -4.8693, -12.1134, 29.5509, 34.2452, 84.4749, -100.583
6.59172, 69, -4.50642, -11.9714, 29.3499, 33.9775, 84.5527, -100.346
6.60075, 70, -3.77387, -11.6817, 28.9474, 33.4336, 84.7124, -99.8715
6.60772, 70, -3.03202, -11.3836, 28.5441, 32.8757, 84.878, -99.3943
6.61579, 71, -2.28208, -11.0775, 28.1395, 32.3032, 85.0503, -98.9154
6.62721, 72, -1.1423, -10.6065, 27.5268, 31.4143, 85.3255, -98.1919
6.63172, 72, -0.75861, -10.4463, 27.321, 31.1096, 85.4218, -97.9491
6.64263, 73, 0.400568, -9.95652, 26.7015, 30.1718, 85.7237, -97.2164
6.64879, 73, 0.788968, -9.78935, 26.4945, 29.8532, 85.8286, -96.9711
6.65839, 73, 1.56898, -9.45, 25.8744, 28.8824, 86.1542, -96.2338
6.66373, 74, 2.35239, -9.10455, 25.6688, 28.5549, 86.2665, -95.9873
6.67267, 74, 3.13837, -8.75439, 25.2603, 27.8947, 86.4961, -95.4935
6.68512, 75, 4.31956, -8.21938, 24.6575, 26.8948, 86.8517, -94.7518
6.69096, 75, 5.10782, -7.85693, 24.262, 26.2267, 87.0959, -94.2571
6.6957, 76, 5.50143, -7.67375, 24.0663, 25.8928, 87.2198, -94.0094
6.71083, 77, 7.07312, -6.92701, 23.3007, 24.5592, 87.7291, -93.0177
6.71274, 77, 7.07312, -6.92701, 23.3007, 24.5592, 87.7291, -93.0177
6.72716, 78, 8.64515, -6.14947, 22.5564, 23.2306, 88.2687, -92.0255
6.72859, 78, 8.64515, -6.14947, 22.5564, 23.2306, 88.2687, -92.0255
6.7356, 78, 9.43135, -5.74837, 22.1916, 22.562, 88.5542, -91.5266
6.74374, 79, 10.2197, -5.33816, 21.8304, 21.8883, 88.8521, -91.0239
6.75172, 79, 11.0106, -4.91911, 21.4718, 21.2095, 89.1631, -90.5151
6.75967, 80, 11.8005, -4.49039, 21.1152, 20.5262, 89.4867, -90.0002
6.76772, 80, 12.586, -4.05182, 20.7617, 19.8404, 89.8224, -89.4772
6.77567, 81, 13.3657, -3.60404, 20.4113, 19.1592, 90.1692, -88.9466
6.7837, 81, 14.1402, -3.14825, 20.0661, 18.4871, 90.5252, -88.4097
6.7923, 82, 14.9069, -2.68547, 19.7281, 17.8275, 90.8883, -87.8689
6.79962, 82, 15.6639, -2.2149, 19.3999, 17.1837, 91.2568, -87.3256
6.80841, 83, 16.4098, -1.73689, 19.0815, 16.5587, 91.6288, -86.7802
6.81565, 83, 17.1441, -1.25214, 18.7741, 15.9555, 92.004, -86.2348
6.8242, 84, 17.8655, -0.761781, 18.4767, 15.3724, 92.3828, -85.6908
6.83179, 84, 18.5714, -0.268066, 18.1896, 14.8101, 92.7669, -85.1488
6.83981, 84, 19.2606, 0.228929, 17.9101, 14.2681, 93.1575, -84.6081
6.84791, 85, 19.9313, 0.730795, 17.6373, 13.7462, 93.5561, -84.0699
6.85602, 85, 20.5837, 1.23679, 17.371, 13.2439, 93.9616, -83.534
6.86466, 86, 21.2192, 1.74642, 17.1102, 12.7615, 94.373, -82.9998
6.87241, 86, 21.8401, 2.26207, 16.8563, 12.2991, 94.79, -82.4646
6.88015, 87, 22.4482, 2.78695, 16.6082, 11.8563, 95.2134, -81.9268
6.88811, 87, 23.0445, 3.3217, 16.3645, 11.4323, 95.6434, -81.3848
6.89615, 87, 23.631, 3.86439, 16.1247, 11.0251, 96.0806, -80.837
6.90418, 88, 24.2078, 4.41426, 15.8876, 10.6334, 96.5244, -80.2802
6.91219, 88, 24.4921, 4.69282, 15.6551, 10.2572, 96.9747, -79.714
6.91957, 89, 25.0534, 5.25879, 15.5409, 10.0747, 97.2025, -79.4266
6.92761, 89, 25.6072, 5.83688, 15.3153, 9.72157, 97.6621, -78.8433
6.93555, 90, 26.1575, 6.42554, 15.0927, 9.38378, 98.1273, -78.2469
6.94361, 90, 26.7016, 7.02379, 14.8747, 9.06149, 98.5985, -77.6361
6.95161, 91, 27.2341, 7.63122, 14.6621, 8.75638, 99.0758, -77.0115
6.95954, 91, 27.7532, 8.24924, 14.4536, 8.46951, 99.5595, -76.3748
6.96755, 92, 28.2621, 8.87799, 14.2489, 8.20287, 100.049, -75.7254
6.97553, 92, 28.764, 9.51667, 14.0485, 7.95747, 100.543, -75.0666
6.98365, 93, 29.2575, 10.1639, 13.853, 7.73389, 101.041, -74.4005
6.99156, 93, 29.7389, 10.8179, 13.6641, 7.53351, 101.539, -73.727
6.99954, 94, 30.2062, 11.4768, 13.4829, 7.35638, 102.037, -73.0465
7.00753, 94, 30.6587, 12.1388, 13.3086, 7.20295, 102.533, -72.3613
7.01555, 95, 31.0974, 12.8031, 13.1415, 7.07317, 103.026, -71.6712
7.02362, 95, 31.5225, 13.469, 12.9824, 6.9673, 103.515, -70.9748
7.03156, 96, 31.9334, 14.1363, 12.8307, 6.88442, 104.001, -70.2735
7.03958, 96, 32.3286, 14.8044, 12.6851, 6.82632, 104.483, -69.5673
7.04855, 97, 32.7075, 15.473, 12.5462, 6.79039, 104.96, -68.8545
7.05558, 97, 33.0706, 16.1404, 12.4148, 6.77552, 105.432, -68.1371
7.06454, 98, 33.4183, 16.8055, 12.2918, 6.78294, 105.897, -67.4176
7.07163, 98, 33.7513, 17.4663, 12.1776, 6.81167, 106.354, -66.6944
7.0796, 99, 34.0705, 18.1214, 12.0727, 6.85976, 106.8, -65.9703
7.08759, 99, 34.3776, 18.7694, 11.9774, 6.92803, 107.234, -65.2491
7.09563, 100, 34.6737, 19.4091, 11.8914, 7.0136, 107.655, -64.5297
7.10353, 100, 34.9584, 20.0396, 11.8144, 7.11691, 108.062, -63.8147
7.11156, 101, 35.2309, 20.6591, 11.7459, 7.23618, 108.452, -63.1074
7.11962, 101, 35.491, 21.2678, 11.6856, 7.37026, 108.827, -62.4066
7.12755, 102, 35.7385, 21.8641, 11.6339, 7.51687, 109.184, -61.7151
7.13555, 102, 35.9722, 22.4473, 11.5903, 7.6742, 109.525, -61.0355
7.14359, 103, 36.1943, 23.0167, 11.5549, 7.8402, 109.851, -60.3672
7.15157, 103, 36.4086, 23.5707, 11.5277, 8.01363, 110.16, -59.7106
7.15953, 103, 36.6168, 24.1093, 11.5094, 8.19501, 110.453, -59.0673
7.16761, 104, 36.8186, 24.6325, 11.4997, 8.38459, 110.729, -58.4364
7.17554, 104, 37.014, 25.1399, 11.4968, 8.58339, 110.985, -57.8162
7.18354, 104, 37.2032, 25.6317, 11.5003, 8.79096, 111.221, -57.2076
7.19164, 104, 37.3839, 26.1073, 11.5097, 9.00602, 111.437, -56.6115
7.19953, 104, 37.5541, 26.5669, 11.5229, 9.22701, 111.635, -56.0283
7.20758, 104, 37.7153, 27.0105, 11.5389, 9.4514, 111.817, -55.4605
7.21566, 104, 37.8712, 27.4394, 11.5577, 9.67591, 111.986, -54.9112
7.22356, 104, 38.0238, 27.8524, 11.5781, 9.89829, 112.144, -54.3836
7.23156, 104, 38.1723, 28.2489, 11.5987, 10.1165, 112.293, -53.8786
7.23965, 104, 38.315, 28.6288, 11.6189, 10.3294, 112.433, -53.3968
7.24772, 104, 38.4513, 28.9918, 11.6378, 10.5356, 112.566, -52.9394
7.25565, 104, 38.58, 29.3366, 11.6557, 10.7344, 112.691, -52.5065
7.26416, 104, 38.7003, 29.6629, 11.6725, 10.9248, 112.808, -52.0991
7.27165, 104, 38.8123, 29.9697, 11.6881, 11.1064, 112.918, -51.7161
7.27965, 104, 38.9161, 30.2582, 11.7027, 11.2783, 113.019, -51.3581
7.28773, 104, 39.0122, 30.5276, 11.7162, 11.4403, 113.113, -51.0259
7.29565, 104, 39.1007, 30.7771, 11.7285, 11.5917, 113.2, -50.7191
7.30357, 104, 39.1812, 31.0073, 11.7395, 11.7321, 113.279, -50.4371
7.31165, 104, 39.2538, 31.2175, 11.7496, 11.861, 113.352, -50.1806
7.31963, 104, 39.3183, 31.4077, 11.7591, 11.9785, 113.416, -49.9492
7.32775, 104, 39.375, 31.5788, 11.7675, 12.084, 113.474, -49.743
7.33612, 104, 39.4249, 31.7305, 11.7748, 12.1772, 113.525, -49.5619
7.34382, 104, 39.4687, 31.8632, 11.7815, 12.2587, 113.568, -49.4056
7.35191, 104, 39.5068, 31.9783, 11.7877, 12.3276, 113.605, -49.2731
7.36031, 104, 39.5387, 32.0765, 11.7931, 12.3855, 113.635, -49.164
7.36807, 104, 39.5648, 32.1586, 11.7979, 12.4311, 113.659, -49.0761
7.37613, 104, 39.586, 32.2264, 11.8022, 12.4667, 113.677, -49.008
7.38412, 104, 39.6027, 32.2814, 11.8061, 12.4936, 113.691, -48.9578
7.39215, 104, 39.6156, 32.3253, 11.8097, 12.5131, 113.7, -48.922
7.40017, 104, 39.6255, 32.3588, 11.8129, 12.5267, 113.706, -48.898
7.40822, 104, 39.6329, 32.3838, 11.8158, 12.5355, 113.71, -48.8827
7.41617, 104, 39.6357, 32.3939, 11.8171, 12.5409, 113.712, -48.8739
7.42354, 104, 39.6396, 32.4097, 11.8193, 12.5426, 113.713, -48.8713
7.43259, 105, 39.6426, 32.4244, 11.8217, 12.5453, 113.714, -48.8676
7.43953, 105, 39.643, 32.4273, 11.8223, 12.5458, 113.714, -48.8671
7.44754, 105, 39.643, 32.4316, 11.8233, 12.5462, 113.714, -48.8666
7.45559, 105, 39.6422, 32.4346, 11.8242, 12.5466, 113.714, -48.8665
7.46352, 105, 39.6413, 32.4367, 11.825, 12.5467, 113.714, -48.8666
7.47153, 105, 39.6402, 32.4382, 11.8256, 12.5468, 113.714, -48.8669
7.47959, 105, 39.639, 32.4396, 11.8262, 12.5468, 113.714, -48.8672
7.48765, 105, 39.6378, 32.4408, 11.8267, 12.5468, 113.714, -48.8675
7.49553, 105, 39.637, 32.442, 11.8273, 12.5468, 113.714, -48.8677
7.50358, 105, 39.6366, 32.4431, 11.8279, 12.5468, 113.714, -48.8681
7.51153, 105, 39.6364, 32.4442, 11.8285, 12.5468, 113.714, -48.8683
7.51952, 105, 39.6362, 32.4452, 11.829, 12.5468, 113.714, -48.8686
7.52761, 105, 39.636, 32.4459, 11.8294, 12.5467, 113.714, -48.8689
7.5355, 105, 39.6357, 32.4465, 11.8297, 12.5467, 113.714, -48.8692
7.54453, 105, 39.6354, 32.4468, 11.83, 12.5468, 113.714, -48.8694
7.55171, 105, 39.6352, 32.447, 11.8302, 12.5468, 113.714, -48.8695
