hehonglu123/Motion-Primitive-Planning/simulation/roboguide/ilc_fanuc/data/wood/curve_js_iter0_exe.csv
timestamp,J1,J2,J3,J4,J5,J6
 0, -39.4170,   8.8166,  -3.1249, -18.5530, -102.5424, 125.5720
 8, -39.4170,   8.8166,  -3.1249, -18.5530, -102.5424, 125.5720
 16, -39.4170,   8.8166,  -3.1249, -18.5530, -102.5424, 125.5720
 32, -39.4156,   8.8152,  -3.1265, -18.5533, -102.5422, 125.5719
 40, -39.4156,   8.8152,  -3.1265, -18.5533, -102.5422, 125.5719
 48, -39.4143,   8.8139,  -3.1281, -18.5535, -102.5420, 125.5719
 56, -39.4123,   8.8119,  -3.1304, -18.5539, -102.5416, 125.5718
 64, -39.4095,   8.8091,  -3.1336, -18.5544, -102.5412, 125.5717
 72, -39.4058,   8.8054,  -3.1380, -18.5551, -102.5406, 125.5715
 80, -39.4010,   8.8006,  -3.1435, -18.5560, -102.5398, 125.5713
 88, -39.3951,   8.7947,  -3.1504, -18.5571, -102.5388, 125.5711
 96, -39.3878,   8.7874,  -3.1588, -18.5584, -102.5376, 125.5708
 104, -39.3791,   8.7787,  -3.1689, -18.5600, -102.5362, 125.5705
 112, -39.3687,   8.7684,  -3.1808, -18.5619, -102.5345, 125.5701
 120, -39.3567,   8.7564,  -3.1947, -18.5641, -102.5325, 125.5696
 128, -39.3428,   8.7426,  -3.2107, -18.5666, -102.5302, 125.5690
 136, -39.3270,   8.7268,  -3.2290, -18.5696, -102.5276, 125.5683
 144, -39.3090,   8.7089,  -3.2497, -18.5729, -102.5246, 125.5676
 160, -39.2410,   8.6414,  -3.3279, -18.5854, -102.5135, 125.5646
 168, -39.2410,   8.6414,  -3.3279, -18.5854, -102.5135, 125.5646
 176, -39.2131,   8.6138,  -3.3597, -18.5906, -102.5089, 125.5634
 184, -39.1825,   8.5836,  -3.3947, -18.5963, -102.5039, 125.5620
 192, -39.1492,   8.5506,  -3.4328, -18.6025, -102.4985, 125.5605
 200, -39.1131,   8.5151,  -3.4739, -18.6092, -102.4927, 125.5588
 208, -39.0745,   8.4771,  -3.5177, -18.6163, -102.4864, 125.5570
 216, -39.0334,   8.4368,  -3.5642, -18.6240, -102.4798, 125.5550
 224, -38.9901,   8.3943,  -3.6132, -18.6321, -102.4728, 125.5528
 232, -38.9445,   8.3498,  -3.6645, -18.6406, -102.4655, 125.5505
 240, -38.8969,   8.3035,  -3.7180, -18.6495, -102.4578, 125.5480
 248, -38.8474,   8.2553,  -3.7734, -18.6588, -102.4499, 125.5454
 256, -38.7961,   8.2055,  -3.8307, -18.6684, -102.4418, 125.5426
 264, -38.7431,   8.1543,  -3.8897, -18.6784, -102.4334, 125.5396
 272, -38.6886,   8.1017,  -3.9501, -18.6887, -102.4248, 125.5365
 288, -38.5171,   7.9372,  -4.1390, -18.7212, -102.3978, 125.5262
 296, -38.5171,   7.9372,  -4.1390, -18.7212, -102.3978, 125.5262
 304, -38.4577,   7.8806,  -4.2039, -18.7325, -102.3886, 125.5225
 312, -38.3974,   7.8233,  -4.2696, -18.7440, -102.3792, 125.5186
 320, -38.3363,   7.7654,  -4.3358, -18.7556, -102.3698, 125.5145
 328, -38.2746,   7.7071,  -4.4025, -18.7674, -102.3603, 125.5103
 336, -38.2124,   7.6486,  -4.4695, -18.7793, -102.3507, 125.5061
 344, -38.1498,   7.5898,  -4.5366, -18.7914, -102.3412, 125.5016
 352, -38.0869,   7.5310,  -4.6037, -18.8035, -102.3316, 125.4971
 360, -38.0239,   7.4723,  -4.6707, -18.8156, -102.3220, 125.4925
 368, -37.9608,   7.4136,  -4.7377, -18.8278, -102.3125, 125.4878
 376, -37.8977,   7.3550,  -4.8045, -18.8402, -102.3028, 125.4830
 384, -37.8344,   7.2963,  -4.8712, -18.8525, -102.2932, 125.4782
 392, -37.7710,   7.2377,  -4.9379, -18.8650, -102.2835, 125.4734
 400, -37.7075,   7.1790,  -5.0046, -18.8776, -102.2737, 125.4686
 416, -37.5167,   7.0025,  -5.2046, -18.9162, -102.2437, 125.4544
 424, -37.5167,   7.0025,  -5.2046, -18.9162, -102.2437, 125.4544
 432, -37.4529,   6.9434,  -5.2714, -18.9294, -102.2334, 125.4499
 440, -37.3892,   6.8841,  -5.3383, -18.9428, -102.2228, 125.4455
 448, -37.3254,   6.8246,  -5.4054, -18.9564, -102.2120, 125.4413
 456, -37.2616,   6.7649,  -5.4726, -18.9703, -102.2009, 125.4374
 464, -37.1978,   6.7048,  -5.5401, -18.9845, -102.1895, 125.4337
 472, -37.1341,   6.6444,  -5.6079, -18.9989, -102.1777, 125.4304
 480, -37.0704,   6.5835,  -5.6760, -19.0137, -102.1655, 125.4275
 488, -37.0068,   6.5222,  -5.7445, -19.0288, -102.1528, 125.4249
 496, -36.9433,   6.4605,  -5.8134, -19.0444, -102.1397, 125.4229
 504, -36.8799,   6.3981,  -5.8827, -19.0603, -102.1260, 125.4214
 512, -36.8167,   6.3352,  -5.9525, -19.0767, -102.1116, 125.4205
 520, -36.7538,   6.2716,  -6.0229, -19.0936, -102.0967, 125.4203
 528, -36.6910,   6.2073,  -6.0938, -19.1109, -102.0810, 125.4208
 544, -36.5043,   6.0100,  -6.3104, -19.1663, -102.0295, 125.4271
 552, -36.5043,   6.0100,  -6.3104, -19.1663, -102.0295, 125.4271
 560, -36.4426,   5.9426,  -6.3840, -19.1859, -102.0107, 125.4308
 568, -36.3813,   5.8743,  -6.4584, -19.2060, -101.9910, 125.4356
 576, -36.3204,   5.8051,  -6.5334, -19.2269, -101.9704, 125.4412
 584, -36.2598,   5.7349,  -6.6093, -19.2483, -101.9489, 125.4479
 592, -36.1996,   5.6638,  -6.6860, -19.2704, -101.9264, 125.4555
 600, -36.1397,   5.5918,  -6.7634, -19.2931, -101.9030, 125.4642
 608, -36.0803,   5.5187,  -6.8418, -19.3165, -101.8786, 125.4739
 616, -36.0214,   5.4446,  -6.9209, -19.3406, -101.8532, 125.4847
 624, -35.9628,   5.3695,  -7.0010, -19.3654, -101.8267, 125.4967
 632, -35.9047,   5.2934,  -7.0819, -19.3909, -101.7992, 125.5097
 640, -35.8471,   5.2162,  -7.1637, -19.4170, -101.7707, 125.5238
 648, -35.7899,   5.1379,  -7.2463, -19.4438, -101.7412, 125.5391
 656, -35.7331,   5.0586,  -7.3299, -19.4713, -101.7106, 125.5554
 672, -35.5657,   4.8141,  -7.5859, -19.5580, -101.6123, 125.6114
 680, -35.5657,   4.8141,  -7.5859, -19.5580, -101.6123, 125.6114
 688, -35.5108,   4.7304,  -7.6730, -19.5882, -101.5775, 125.6323
 696, -35.4564,   4.6457,  -7.7609, -19.6191, -101.5416, 125.6543
 704, -35.4024,   4.5599,  -7.8498, -19.6507, -101.5046, 125.6775
 712, -35.3489,   4.4730,  -7.9396, -19.6830, -101.4666, 125.7017
 720, -35.2958,   4.3850,  -8.0302, -19.7160, -101.4275, 125.7272
 728, -35.2432,   4.2959,  -8.1218, -19.7496, -101.3874, 125.7537
 736, -35.1910,   4.2057,  -8.2142, -19.7839, -101.3462, 125.7814
 744, -35.1393,   4.1145,  -8.3075, -19.8188, -101.3039, 125.8101
 752, -35.0881,   4.0221,  -8.4017, -19.8544, -101.2607, 125.8400
 760, -35.0373,   3.9287,  -8.4968, -19.8907, -101.2163, 125.8710
 768, -34.9869,   3.8341,  -8.5928, -19.9276, -101.1709, 125.9031
 776, -34.9370,   3.7384,  -8.6896, -19.9652, -101.1245, 125.9364
 784, -34.8876,   3.6417,  -8.7874, -20.0035, -101.0770, 125.9707
 800, -34.7420,   3.3448,  -9.0859, -20.1221, -100.9284, 126.0804
 808, -34.7420,   3.3448,  -9.0859, -20.1221, -100.9284, 126.0804
 816, -34.6943,   3.2436,  -9.1873, -20.1629, -100.8767, 126.1192
 824, -34.6471,   3.1413,  -9.2895, -20.2044, -100.8240, 126.1591
 832, -34.6004,   3.0379,  -9.3925, -20.2466, -100.7703, 126.2001
 840, -34.5541,   2.9334,  -9.4965, -20.2894, -100.7155, 126.2422
 848, -34.5082,   2.8278,  -9.6013, -20.3328, -100.6598, 126.2854
 856, -34.4628,   2.7211,  -9.7070, -20.3769, -100.6030, 126.3297
 864, -34.4179,   2.6133,  -9.8137, -20.4216, -100.5451, 126.3751
 872, -34.3734,   2.5043,  -9.9212, -20.4670, -100.4862, 126.4216
 880, -34.3293,   2.3942, -10.0296, -20.5130, -100.4263, 126.4691
 888, -34.2857,   2.2831, -10.1389, -20.5596, -100.3654, 126.5178
 896, -34.2425,   2.1708, -10.2490, -20.6069, -100.3035, 126.5676
 904, -34.1998,   2.0574, -10.3601, -20.6548, -100.2406, 126.6184
 912, -34.1575,   1.9429, -10.4720, -20.7034, -100.1766, 126.6703
 928, -34.0333,   1.5926, -10.8131, -20.8529, -99.9787, 126.8325
 936, -34.0333,   1.5926, -10.8131, -20.8529, -99.9787, 126.8325
 944, -33.9928,   1.4736, -10.9286, -20.9040, -99.9107, 126.8886
 952, -33.9527,   1.3535, -11.0450, -20.9557, -99.8417, 126.9459
 960, -33.9131,   1.2323, -11.1622, -21.0081, -99.7717, 127.0042
 968, -33.8739,   1.1100, -11.2804, -21.0611, -99.7007, 127.0636
 976, -33.8351,    .9865, -11.3994, -21.1147, -99.6288, 127.1240
 984, -33.7968,    .8619, -11.5193, -21.1690, -99.5559, 127.1854
 992, -33.7590,    .7363, -11.6400, -21.2238, -99.4819, 127.2478
 1000, -33.7215,    .6095, -11.7617, -21.2794, -99.4071, 127.3114
 1008, -33.6845,    .4816, -11.8842, -21.3355, -99.3312, 127.3759
 1016, -33.6480,    .3526, -12.0076, -21.3923, -99.2543, 127.4415
 1024, -33.6119,    .2225, -12.1319, -21.4497, -99.1766, 127.5081
 1032, -33.5761,    .0913, -12.2571, -21.5077, -99.0978, 127.5756
 1040, -33.5409,   -.0409, -12.3831, -21.5664, -99.0181, 127.6442
 1056, -33.4377,   -.4444, -12.7664, -21.7461, -98.7734, 127.8559
 1064, -33.4377,   -.4444, -12.7664, -21.7461, -98.7734, 127.8559
 1072, -33.4042,   -.5811, -12.8959, -21.8073, -98.6899, 127.9284
 1080, -33.3710,   -.7189, -13.0262, -21.8691, -98.6056, 128.0019
 1088, -33.3383,   -.8577, -13.1574, -21.9315, -98.5203, 128.0763
 1096, -33.3061,   -.9977, -13.2895, -21.9945, -98.4341, 128.1517
 1104, -33.2742,  -1.1387, -13.4224, -22.0582, -98.3470, 128.2280
 1112, -33.2428,  -1.2808, -13.5562, -22.1225, -98.2590, 128.3052
 1120, -33.2118,  -1.4240, -13.6908, -22.1874, -98.1701, 128.3834
 1128, -33.1812,  -1.5682, -13.8262, -22.2529, -98.0804, 128.4625
 1136, -33.1511,  -1.7135, -13.9625, -22.3190, -97.9897, 128.5424
 1144, -33.1213,  -1.8599, -14.0996, -22.3857, -97.8982, 128.6233
 1152, -33.0920,  -2.0073, -14.2376, -22.4531, -97.8058, 128.7050
 1160, -33.0630,  -2.1558, -14.3764, -22.5211, -97.7126, 128.7876
 1168, -33.0345,  -2.3053, -14.5160, -22.5897, -97.6185, 128.8710
 1184, -32.9513,  -2.7600, -14.9398, -22.7992, -97.3314, 129.1263
 1192, -32.9513,  -2.7600, -14.9398, -22.7992, -97.3314, 129.1263
 1200, -32.9244,  -2.9137, -15.0827, -22.8703, -97.2340, 129.2130
 1208, -32.8979,  -3.0683, -15.2263, -22.9419, -97.1358, 129.3005
 1216, -32.8718,  -3.2239, -15.3708, -23.0142, -97.0369, 129.3887
 1224, -32.8460,  -3.3806, -15.5160, -23.0871, -96.9372, 129.4778
 1232, -32.8207,  -3.5382, -15.6621, -23.1606, -96.8367, 129.5675
 1240, -32.7957,  -3.6968, -15.8089, -23.2347, -96.7355, 129.6580
 1248, -32.7711,  -3.8564, -15.9564, -23.3094, -96.6334, 129.7492
 1256, -32.7469,  -4.0169, -16.1048, -23.3847, -96.5307, 129.8410
 1264, -32.7231,  -4.1785, -16.2539, -23.4606, -96.4272, 129.9336
 1272, -32.6996,  -4.3409, -16.4037, -23.5371, -96.3231, 130.0268
 1280, -32.6765,  -4.5043, -16.5543, -23.6142, -96.2182, 130.1206
 1288, -32.6537,  -4.6686, -16.7056, -23.6919, -96.1126, 130.2151
 1296, -32.6314,  -4.8339, -16.8577, -23.7702, -96.0063, 130.3101
 1312, -32.5663,  -5.3350, -17.3181, -24.0086, -95.6836, 130.5986
 1320, -32.5663,  -5.3350, -17.3181, -24.0086, -95.6836, 130.5986
 1328, -32.5453,  -5.5039, -17.4730, -24.0893, -95.5747, 130.6959
 1336, -32.5247,  -5.6736, -17.6285, -24.1705, -95.4652, 130.7936
 1344, -32.5044,  -5.8441, -17.7848, -24.2524, -95.3551, 130.8918
 1352, -32.4844,  -6.0155, -17.9417, -24.3348, -95.2444, 130.9904
 1360, -32.4647,  -6.1878, -18.0992, -24.4177, -95.1332, 131.0895
 1368, -32.4454,  -6.3608, -18.2574, -24.5013, -95.0213, 131.1890
 1376, -32.4264,  -6.5347, -18.4163, -24.5854, -94.9089, 131.2888
 1384, -32.4076,  -6.7094, -18.5757, -24.6701, -94.7960, 131.3890
 1392, -32.3892,  -6.8848, -18.7358, -24.7554, -94.6825, 131.4895
 1400, -32.3711,  -7.0611, -18.8965, -24.8412, -94.5685, 131.5903
 1408, -32.3533,  -7.2381, -19.0578, -24.9276, -94.4541, 131.6914
 1416, -32.3357,  -7.4158, -19.2196, -25.0145, -94.3391, 131.7927
 1424, -32.3185,  -7.5943, -19.3820, -25.1020, -94.2237, 131.8942
 1440, -32.2683,  -8.1339, -19.8726, -25.3678, -93.8747, 132.1996
 1448, -32.2683,  -8.1339, -19.8726, -25.3678, -93.8747, 132.1996
 1456, -32.2521,  -8.3152, -20.0372, -25.4575, -93.7575, 132.3017
 1464, -32.2361,  -8.4971, -20.2022, -25.5477, -93.6399, 132.4037
 1472, -32.2204,  -8.6797, -20.3678, -25.6384, -93.5219, 132.5058
 1480, -32.2049,  -8.8629, -20.5339, -25.7296, -93.4036, 132.6079
 1488, -32.1896,  -9.0467, -20.7004, -25.8214, -93.2849, 132.7099
 1496, -32.1745,  -9.2311, -20.8674, -25.9137, -93.1659, 132.8119
 1504, -32.1597,  -9.4161, -21.0348, -26.0065, -93.0465, 132.9137
 1512, -32.1450,  -9.6016, -21.2027, -26.0998, -92.9268, 133.0153
 1520, -32.1305,  -9.7877, -21.3709, -26.1936, -92.8069, 133.1168
 1528, -32.1162,  -9.9744, -21.5396, -26.2879, -92.6866, 133.2180
 1536, -32.1021, -10.1615, -21.7086, -26.3827, -92.5661, 133.3190
 1544, -32.0882, -10.3492, -21.8780, -26.4780, -92.4453, 133.4196
 1552, -32.0744, -10.5373, -22.0477, -26.5738, -92.3243, 133.5199
 1568, -32.0339, -11.1044, -22.5589, -26.8638, -91.9601, 133.8182
 1576, -32.0339, -11.1044, -22.5589, -26.8638, -91.9601, 133.8182
 1584, -32.0207, -11.2943, -22.7299, -26.9614, -91.8383, 133.9166
 1592, -32.0075, -11.4845, -22.9011, -27.0595, -91.7164, 134.0145
 1600, -31.9945, -11.6752, -23.0726, -27.1580, -91.5943, 134.1118
 1608, -31.9815, -11.8662, -23.2444, -27.2569, -91.4720, 134.2084
 1616, -31.9687, -12.0575, -23.4163, -27.3562, -91.3497, 134.3043
 1624, -31.9559, -12.2492, -23.5885, -27.4560, -91.2273, 134.3995
 1632, -31.9432, -12.4412, -23.7609, -27.5562, -91.1047, 134.4939
 1640, -31.9305, -12.6334, -23.9334, -27.6568, -90.9821, 134.5874
 1648, -31.9178, -12.8259, -24.1060, -27.7578, -90.8595, 134.6801
 1656, -31.9053, -13.0186, -24.2789, -27.8592, -90.7368, 134.7719
 1664, -31.8927, -13.2116, -24.4518, -27.9610, -90.6141, 134.8627
 1672, -31.8801, -13.4048, -24.6248, -28.0631, -90.4913, 134.9524
 1680, -31.8676, -13.5981, -24.7979, -28.1657, -90.3686, 135.0411
 1696, -31.8297, -14.1791, -25.3175, -28.4754, -90.0004, 135.3001
 1704, -31.8297, -14.1791, -25.3175, -28.4754, -90.0004, 135.3001
 1712, -31.8171, -14.3730, -25.4908, -28.5793, -89.8778, 135.3839
 1720, -31.8043, -14.5670, -25.6640, -28.6836, -89.7552, 135.4664
 1728, -31.7915, -14.7611, -25.8372, -28.7882, -89.6327, 135.5475
 1736, -31.7786, -14.9552, -26.0104, -28.8931, -89.5103, 135.6272
 1744, -31.7657, -15.1493, -26.1834, -28.9983, -89.3880, 135.7053
 1752, -31.7526, -15.3434, -26.3564, -29.1038, -89.2659, 135.7819
 1760, -31.7394, -15.5376, -26.5293, -29.2096, -89.1438, 135.8569
 1768, -31.7260, -15.7316, -26.7021, -29.3156, -89.0219, 135.9302
 1776, -31.7126, -15.9257, -26.8747, -29.4220, -88.9001, 136.0018
 1784, -31.6989, -16.1196, -27.0471, -29.5285, -88.7785, 136.0715
 1792, -31.6851, -16.3135, -27.2194, -29.6354, -88.6571, 136.1395
 1800, -31.6712, -16.5072, -27.3915, -29.7424, -88.5358, 136.2056
 1808, -31.6570, -16.7008, -27.5633, -29.8497, -88.4147, 136.2697
 1824, -31.6131, -17.2806, -28.0773, -30.1728, -88.0527, 136.4494
 1832, -31.6131, -17.2806, -28.0773, -30.1728, -88.0527, 136.4494
 1840, -31.5980, -17.4734, -28.2480, -30.2809, -87.9325, 136.5051
 1848, -31.5827, -17.6660, -28.4185, -30.3891, -87.8125, 136.5584
 1856, -31.5670, -17.8584, -28.5885, -30.4975, -87.6928, 136.6094
 1864, -31.5511, -18.0504, -28.7582, -30.6061, -87.5733, 136.6580
 1872, -31.5349, -18.2422, -28.9276, -30.7148, -87.4541, 136.7041
 1880, -31.5183, -18.4336, -29.0965, -30.8236, -87.3351, 136.7478
 1888, -31.5014, -18.6247, -29.2650, -30.9325, -87.2164, 136.7888
 1896, -31.4842, -18.8155, -29.4330, -31.0415, -87.0980, 136.8273
 1904, -31.4665, -19.0058, -29.6006, -31.1506, -86.9798, 136.8630
 1912, -31.4486, -19.1958, -29.7677, -31.2598, -86.8620, 136.8959
 1920, -31.4302, -19.3853, -29.9343, -31.3691, -86.7445, 136.9260
 1928, -31.4114, -19.5744, -30.1004, -31.4784, -86.6272, 136.9531
 1936, -31.3921, -19.7630, -30.2659, -31.5877, -86.5103, 136.9774
 1952, -31.3317, -20.3258, -30.7590, -31.9157, -86.1613, 137.0316
 1960, -31.3317, -20.3258, -30.7590, -31.9157, -86.1613, 137.0316
 1968, -31.3106, -20.5123, -30.9221, -32.0250, -86.0456, 137.0432
 1976, -31.2890, -20.6983, -31.0846, -32.1342, -85.9303, 137.0515
 1984, -31.2669, -20.8837, -31.2463, -32.2434, -85.8153, 137.0566
 1992, -31.2442, -21.0684, -31.4074, -32.3526, -85.7006, 137.0582
 2000, -31.2209, -21.2525, -31.5678, -32.4616, -85.5862, 137.0563
 2008, -31.1971, -21.4360, -31.7274, -32.5705, -85.4722, 137.0508
 2016, -31.1727, -21.6188, -31.8863, -32.6792, -85.3585, 137.0417
 2024, -31.1476, -21.8008, -32.0443, -32.7878, -85.2451, 137.0289
 2032, -31.1219, -21.9822, -32.2016, -32.8963, -85.1321, 137.0123
 2040, -31.0956, -22.1628, -32.3580, -33.0045, -85.0194, 136.9920
 2048, -31.0686, -22.3426, -32.5136, -33.1126, -84.9070, 136.9677
 2056, -31.0408, -22.5217, -32.6683, -33.2204, -84.7950, 136.9395
 2064, -31.0124, -22.6999, -32.8220, -33.3279, -84.6833, 136.9072
 2080, -30.9225, -23.2294, -33.2776, -33.6487, -84.3503, 136.7857
 2088, -30.9225, -23.2294, -33.2776, -33.6487, -84.3503, 136.7857
 2096, -30.8910, -23.4042, -33.4275, -33.7549, -84.2399, 136.7367
 2104, -30.8586, -23.5779, -33.5764, -33.8608, -84.1299, 136.6834
 2112, -30.8254, -23.7508, -33.7242, -33.9662, -84.0202, 136.6256
 2120, -30.7913, -23.9226, -33.8709, -34.0713, -83.9109, 136.5633
 2128, -30.7563, -24.0934, -34.0165, -34.1758, -83.8018, 136.4966
 2136, -30.7204, -24.2632, -34.1609, -34.2798, -83.6931, 136.4252
 2144, -30.6835, -24.4319, -34.3042, -34.3833, -83.5847, 136.3492
 2152, -30.6457, -24.5995, -34.4463, -34.4863, -83.4767, 136.2685
 2160, -30.6069, -24.7660, -34.5871, -34.5886, -83.3689, 136.1829
 2168, -30.5670, -24.9314, -34.7267, -34.6903, -83.2615, 136.0924
 2176, -30.5261, -25.0955, -34.8650, -34.7913, -83.1544, 135.9971
 2184, -30.4841, -25.2585, -35.0020, -34.8916, -83.0476, 135.8969
 2192, -30.4410, -25.4202, -35.1376, -34.9912, -82.9411, 135.7917
 2208, -30.3047, -25.8974, -35.5359, -35.2850, -82.6235, 135.4449
 2216, -30.3047, -25.8974, -35.5359, -35.2850, -82.6235, 135.4449
 2224, -30.2569, -26.0538, -35.6657, -35.3811, -82.5182, 135.3189
 2232, -30.2078, -26.2088, -35.7940, -35.4763, -82.4132, 135.1877
 2240, -30.1574, -26.3623, -35.9208, -35.5705, -82.3085, 135.0510
 2248, -30.1057, -26.5144, -36.0459, -35.6636, -82.2042, 134.9089
 2256, -30.0526, -26.6648, -36.1693, -35.7556, -82.1001, 134.7613
 2264, -29.9981, -26.8137, -36.2911, -35.8465, -81.9964, 134.6082
 2272, -29.9423, -26.9611, -36.4112, -35.9362, -81.8930, 134.4495
 2280, -29.8849, -27.1068, -36.5295, -36.0246, -81.7898, 134.2853
 2288, -29.8261, -27.2507, -36.6460, -36.1116, -81.6870, 134.1154
 2296, -29.7658, -27.3930, -36.7606, -36.1973, -81.5844, 133.9398
 2304, -29.7039, -27.5334, -36.8733, -36.2816, -81.4823, 133.7584
 2312, -29.6404, -27.6720, -36.9840, -36.3643, -81.3804, 133.5712
 2320, -29.5753, -27.8087, -37.0928, -36.4455, -81.2788, 133.3782
 2336, -29.3698, -28.2072, -37.4068, -36.6793, -80.9762, 132.7639
 2344, -29.3698, -28.2072, -37.4068, -36.6793, -80.9762, 132.7639
 2352, -29.2978, -28.3359, -37.5071, -36.7537, -80.8760, 132.5472
 2360, -29.2240, -28.4625, -37.6052, -36.8261, -80.7762, 132.3245
 2368, -29.1483, -28.5869, -37.7010, -36.8967, -80.6767, 132.0957
 2376, -29.0708, -28.7090, -37.7945, -36.9653, -80.5777, 131.8610
 2384, -28.9914, -28.8288, -37.8855, -37.0317, -80.4790, 131.6202
 2392, -28.9099, -28.9463, -37.9741, -37.0960, -80.3808, 131.3732
 2400, -28.8264, -29.0612, -38.0602, -37.1581, -80.2830, 131.1201
 2408, -28.7409, -29.1737, -38.1437, -37.2178, -80.1857, 130.8607
 2416, -28.6534, -29.2836, -38.2246, -37.2752, -80.0888, 130.5953
 2424, -28.5637, -29.3909, -38.3028, -37.3301, -79.9924, 130.3238
 2432, -28.4719, -29.4954, -38.3783, -37.3825, -79.8966, 130.0460
 2440, -28.3779, -29.5972, -38.4509, -37.4323, -79.8013, 129.7620
 2448, -28.2816, -29.6960, -38.5206, -37.4794, -79.7066, 129.4718
 2464, -27.9792, -29.9747, -38.7119, -37.6037, -79.4263, 128.5639
 2472, -27.9792, -29.9747, -38.7119, -37.6037, -79.4263, 128.5639
 2480, -27.8737, -30.0614, -38.7696, -37.6393, -79.3343, 128.2489
 2488, -27.7658, -30.1448, -38.8239, -37.6717, -79.2430, 127.9277
 2496, -27.6554, -30.2247, -38.8750, -37.7010, -79.1526, 127.6003
 2504, -27.5426, -30.3013, -38.9227, -37.7270, -79.0630, 127.2666
 2512, -27.4274, -30.3743, -38.9670, -37.7497, -78.9743, 126.9269
 2520, -27.3097, -30.4437, -39.0079, -37.7691, -78.8865, 126.5812
 2528, -27.1894, -30.5095, -39.0452, -37.7850, -78.7998, 126.2293
 2536, -27.0665, -30.5713, -39.0788, -37.7974, -78.7142, 125.8713
 2544, -26.9410, -30.6292, -39.1087, -37.8060, -78.6297, 125.5072
 2552, -26.8130, -30.6831, -39.1348, -37.8111, -78.5465, 125.1371
 2560, -26.6823, -30.7330, -39.1572, -37.8124, -78.4644, 124.7611
 2568, -26.5490, -30.7787, -39.1756, -37.8099, -78.3838, 124.3792
 2576, -26.4130, -30.8200, -39.1900, -37.8035, -78.3045, 123.9914
 2592, -25.9891, -30.9169, -39.2085, -37.7602, -78.0762, 122.7930
 2600, -25.9891, -30.9169, -39.2085, -37.7602, -78.0762, 122.7930
 2608, -25.8424, -30.9400, -39.2062, -37.7377, -78.0034, 122.3821
 2616, -25.6931, -30.9582, -39.1996, -37.7110, -77.9325, 121.9657
 2624, -25.5410, -30.9715, -39.1886, -37.6801, -77.8636, 121.5438
 2632, -25.3863, -30.9797, -39.1730, -37.6450, -77.7967, 121.1163
 2640, -25.2288, -30.9827, -39.1529, -37.6055, -77.7320, 120.6834
 2648, -25.0687, -30.9804, -39.1281, -37.5616, -77.6695, 120.2452
 2656, -24.9060, -30.9728, -39.0987, -37.5135, -77.6094, 119.8018
 2664, -24.7406, -30.9598, -39.0645, -37.4610, -77.5518, 119.3533
 2672, -24.5726, -30.9412, -39.0256, -37.4042, -77.4967, 118.8997
 2680, -24.4020, -30.9168, -38.9817, -37.3428, -77.4443, 118.4411
 2688, -24.2288, -30.8866, -38.9328, -37.2771, -77.3948, 117.9776
 2696, -24.0530, -30.8505, -38.8789, -37.2069, -77.3483, 117.5093
 2704, -23.8748, -30.8085, -38.8200, -37.1323, -77.3048, 117.0364
 2720, -23.3253, -30.6454, -38.6126, -36.8823, -77.1939, 115.5908
 2728, -23.3253, -30.6454, -38.6126, -36.8823, -77.1939, 115.5908
 2736, -23.1374, -30.5783, -38.5329, -36.7902, -77.1641, 115.1003
 2744, -22.9471, -30.5047, -38.4479, -36.6938, -77.1379, 114.6057
 2752, -22.7546, -30.4246, -38.3576, -36.5932, -77.1156, 114.1071
 2760, -22.5600, -30.3379, -38.2619, -36.4884, -77.0973, 113.6048
 2768, -22.3632, -30.2444, -38.1609, -36.3794, -77.0832, 113.0988
 2776, -22.1643, -30.1440, -38.0543, -36.2663, -77.0733, 112.5892
 2784, -21.9634, -30.0367, -37.9421, -36.1492, -77.0679, 112.0761
 2792, -21.7606, -29.9223, -37.8244, -36.0281, -77.0671, 111.5597
 2800, -21.5559, -29.8010, -37.7013, -35.9032, -77.0709, 111.0403
 2808, -21.3495, -29.6726, -37.5726, -35.7745, -77.0796, 110.5179
 2816, -21.1413, -29.5371, -37.4384, -35.6422, -77.0932, 109.9927
 2824, -20.9316, -29.3942, -37.2985, -35.5063, -77.1119, 109.4648
 2832, -20.7202, -29.2439, -37.1529, -35.3668, -77.1360, 108.9343
 2848, -20.0778, -28.7492, -36.6828, -34.9291, -77.2407, 107.3299
 2856, -20.0778, -28.7492, -36.6828, -34.9291, -77.2407, 107.3299
 2864, -19.8612, -28.5695, -36.5149, -34.7772, -77.2868, 106.7912
 2872, -19.6435, -28.3822, -36.3414, -34.6224, -77.3389, 106.2509
 2880, -19.4248, -28.1874, -36.1623, -34.4649, -77.3970, 105.7091
 2888, -19.2053, -27.9850, -35.9777, -34.3049, -77.4612, 105.1660
 2896, -18.9849, -27.7753, -35.7876, -34.1425, -77.5315, 104.6218
 2904, -18.7639, -27.5580, -35.5920, -33.9781, -77.6081, 104.0768
 2912, -18.5423, -27.3333, -35.3911, -33.8116, -77.6910, 103.5311
 2920, -18.3202, -27.1011, -35.1847, -33.6432, -77.7803, 102.9848
 2928, -18.0977, -26.8613, -34.9730, -33.4732, -77.8763, 102.4381
 2936, -17.8749, -26.6140, -34.7559, -33.3016, -77.9789, 101.8913
 2944, -17.6520, -26.3595, -34.5337, -33.1288, -78.0880, 101.3446
 2952, -17.4290, -26.0976, -34.3063, -32.9549, -78.2039, 100.7982
 2960, -17.2061, -25.8285, -34.0740, -32.7801, -78.3265, 100.2522
 2976, -16.5386, -24.9777, -33.3469, -32.2517, -78.7353,  98.6189
 2984, -16.5386, -24.9777, -33.3469, -32.2517, -78.7353,  98.6189
 2992, -16.3169, -24.6800, -33.0950, -32.0751, -78.8853,  98.0767
 3000, -16.0958, -24.3754, -32.8385, -31.8985, -79.0421,  97.5360
 3008, -15.8754, -24.0641, -32.5775, -31.7221, -79.2057,  96.9970
 3016, -15.6557, -23.7461, -32.3121, -31.5461, -79.3762,  96.4599
 3024, -15.4369, -23.4214, -32.0423, -31.3707, -79.5535,  95.9248
 3032, -15.2190, -23.0902, -31.7684, -31.1961, -79.7376,  95.3920
 3040, -15.0022, -22.7528, -31.4905, -31.0225, -79.9284,  94.8616
 3048, -14.7865, -22.4092, -31.2087, -30.8501, -80.1258,  94.3340
 3056, -14.5721, -22.0597, -30.9233, -30.6790, -80.3297,  93.8092
 3064, -14.3590, -21.7043, -30.6342, -30.5095, -80.5402,  93.2875
 3072, -14.1474, -21.3431, -30.3416, -30.3416, -80.7572,  92.7691
 3080, -13.9372, -20.9763, -30.0457, -30.1756, -80.9805,  92.2542
 3088, -13.7285, -20.6043, -29.7467, -30.0117, -81.2100,  91.7428
 3104, -13.1128, -19.4580, -28.8328, -29.5339, -81.9345,  90.2329
 3112, -13.1128, -19.4580, -28.8328, -29.5339, -81.9345,  90.2329
 3120, -12.9112, -19.0664, -28.5230, -29.3797, -82.1876,  89.7383
 3128, -12.7114, -18.6705, -28.2110, -29.2283, -82.4463,  89.2482
 3136, -12.5137, -18.2704, -27.8969, -29.0798, -82.7103,  88.7630
 3144, -12.3180, -17.8665, -27.5809, -28.9345, -82.9795,  88.2827
 3152, -12.1243, -17.4588, -27.2633, -28.7923, -83.2538,  87.8076
 3160, -11.9328, -17.0476, -26.9441, -28.6534, -83.5329,  87.3379
 3168, -11.7435, -16.6332, -26.6236, -28.5179, -83.8167,  86.8738
 3176, -11.5563, -16.2156, -26.3019, -28.3859, -84.1051,  86.4155
 3184, -11.3714, -15.7953, -25.9793, -28.2575, -84.3977,  85.9629
 3192, -11.1888, -15.3725, -25.6560, -28.1328, -84.6943,  85.5165
 3200, -11.0085, -14.9474, -25.3322, -28.0118, -84.9949,  85.0763
 3208, -10.8306, -14.5201, -25.0080, -27.8948, -85.2991,  84.6426
 3216, -10.6550, -14.0910, -24.6837, -27.7816, -85.6069,  84.2156
 3232, -10.1425, -12.7949, -23.7115, -27.4662, -86.5488,  82.9758
 3240, -10.1425, -12.7949, -23.7115, -27.4662, -86.5488,  82.9758
 3248,  -9.9765, -12.3608, -23.3884, -27.3693, -86.8682,  82.5769
 3256,  -9.8129, -11.9260, -23.0661, -27.2765, -87.1901,  82.1856
 3264,  -9.6518, -11.4908, -22.7447, -27.1879, -87.5141,  81.8019
 3272,  -9.4931, -11.0553, -22.4245, -27.1036, -87.8402,  81.4261
 3280,  -9.3368, -10.6198, -22.1055, -27.0236, -88.1680,  81.0582
 3288,  -9.1830, -10.1846, -21.7880, -26.9477, -88.4973,  80.6985
 3296,  -9.0316,  -9.7498, -21.4722, -26.8762, -88.8280,  80.3471
 3304,  -8.8826,  -9.3157, -21.1581, -26.8090, -89.1599,  80.0044
 3312,  -8.7360,  -8.8825, -20.8460, -26.7461, -89.4927,  79.6704
 3320,  -8.5918,  -8.4503, -20.5360, -26.6874, -89.8263,  79.3453
 3328,  -8.4499,  -8.0194, -20.2282, -26.6330, -90.1605,  79.0291
 3336,  -8.3104,  -7.5899, -19.9228, -26.5829, -90.4950,  78.7221
 3344,  -8.1733,  -7.1621, -19.6199, -26.5371, -90.8298,  78.4246
 3360,  -7.7757,  -5.8903, -18.7274, -26.4251, -91.8338,  77.5907
 3368,  -7.7757,  -5.8903, -18.7274, -26.4251, -91.8338,  77.5907
 3376,  -7.6476,  -5.4708, -18.4356, -26.3961, -92.1678,  77.3327
 3384,  -7.5218,  -5.0538, -18.1470, -26.3713, -92.5013,  77.0849
 3392,  -7.3982,  -4.6394, -17.8615, -26.3506, -92.8340,  76.8477
 3400,  -7.2768,  -4.2277, -17.5793, -26.3341, -93.1659,  76.6212
 3408,  -7.1574,  -3.8190, -17.3005, -26.3215, -93.4968,  76.4057
 3416,  -7.0402,  -3.4133, -17.0251, -26.3130, -93.8267,  76.2013
 3424,  -6.9250,  -3.0107, -16.7531, -26.3085, -94.1553,  76.0079
 3432,  -6.8119,  -2.6114, -16.4847, -26.3079, -94.4827,  75.8259
 3440,  -6.7007,  -2.2154, -16.2199, -26.3112, -94.8088,  75.6555
 3448,  -6.5916,  -1.8230, -15.9589, -26.3183, -95.1333,  75.4971
 3456,  -6.4843,  -1.4341, -15.7015, -26.3293, -95.4562,  75.3507
 3464,  -6.3789,  -1.0488, -15.4479, -26.3439, -95.7776,  75.2164
 3472,  -6.2754,   -.6672, -15.1981, -26.3623, -96.0972,  75.0943
 3488,  -5.9753,    .4542, -14.4718, -26.4389, -97.0454,  74.8037
 3496,  -5.9753,    .4542, -14.4718, -26.4389, -97.0454,  74.8037
 3504,  -5.8787,    .8200, -14.2375, -26.4714, -97.3577,  74.7328
 3512,  -5.7837,   1.1818, -14.0071, -26.5074, -97.6680,  74.6751
 3520,  -5.6903,   1.5394, -13.7807, -26.5466, -97.9763,  74.6306
 3528,  -5.5984,   1.8929, -13.5581, -26.5890, -98.2827,  74.5995
 3536,  -5.5080,   2.2422, -13.3395, -26.6346, -98.5869,  74.5820
 3544,  -5.4191,   2.5871, -13.1249, -26.6834, -98.8891,  74.5784
 3552,  -5.3315,   2.9276, -12.9142, -26.7351, -99.1891,  74.5889
 3560,  -5.2452,   3.2638, -12.7075, -26.7897, -99.4871,  74.6134
 3568,  -5.1602,   3.5957, -12.5047, -26.8472, -99.7828,  74.6519
 3576,  -5.0764,   3.9231, -12.3057, -26.9074, -100.0765,  74.7045
 3584,  -4.9938,   4.2460, -12.1107, -26.9702, -100.3679,  74.7715
 3592,  -4.9123,   4.5643, -11.9196, -27.0355, -100.6571,  74.8531
 3600,  -4.8318,   4.8780, -11.7323, -27.1033, -100.9441,  74.9494
 3616,  -4.5959,   5.7913, -11.1937, -27.3199, -101.7913,  75.3252
 3624,  -4.5959,   5.7913, -11.1937, -27.3199, -101.7913,  75.3252
 3632,  -4.5189,   6.0863, -11.0218, -27.3962, -102.0691,  75.4796
 3640,  -4.4427,   6.3765, -10.8537, -27.4743, -102.3444,  75.6489
 3648,  -4.3671,   6.6617, -10.6894, -27.5540, -102.6173,  75.8329
 3656,  -4.2921,   6.9419, -10.5289, -27.6352, -102.8877,  76.0315
 3664,  -4.2177,   7.2172, -10.3721, -27.7178, -103.1555,  76.2445
 3672,  -4.1436,   7.4875, -10.2190, -27.8016, -103.4208,  76.4718
 3680,  -4.0700,   7.7525, -10.0696, -27.8865, -103.6834,  76.7135
 3688,  -3.9966,   8.0123,  -9.9240, -27.9722, -103.9432,  76.9695
 3696,  -3.9235,   8.2667,  -9.7821, -28.0586, -104.2000,  77.2397
 3704,  -3.8506,   8.5156,  -9.6439, -28.1456, -104.4539,  77.5238
 3712,  -3.7778,   8.7591,  -9.5093, -28.2329, -104.7048,  77.8216
 3720,  -3.7050,   8.9970,  -9.3784, -28.3204, -104.9526,  78.1327
 3728,  -3.6322,   9.2291,  -9.2512, -28.4078, -105.1970,  78.4570
 3744,  -3.4128,   9.8891,  -8.8920, -28.6681, -105.9084,  79.5073
 3752,  -3.4128,   9.8891,  -8.8920, -28.6681, -105.9084,  79.5073
 3760,  -3.3392,  10.0968,  -8.7796, -28.7535, -106.1379,  79.8820
 3768,  -3.2653,  10.2980,  -8.6710, -28.8379, -106.3632,  80.2681
 3776,  -3.1909,  10.4926,  -8.5661, -28.9212, -106.5842,  80.6655
 3784,  -3.1161,  10.6803,  -8.4652, -29.0030, -106.8005,  81.0739
 3792,  -3.0408,  10.8610,  -8.3680, -29.0833, -107.0119,  81.4929
 3800,  -2.9649,  11.0345,  -8.2748, -29.1618, -107.2184,  81.9220
 3808,  -2.8885,  11.2007,  -8.1854, -29.2384, -107.4196,  82.3605
 3816,  -2.8114,  11.3595,  -8.0999, -29.3129, -107.6153,  82.8080
 3824,  -2.7337,  11.5106,  -8.0185, -29.3850, -107.8051,  83.2640
 3832,  -2.6553,  11.6536,  -7.9411, -29.4547, -107.9888,  83.7282
 3840,  -2.5762,  11.7883,  -7.8680, -29.5218, -108.1661,  84.2000
 3848,  -2.4963,  11.9148,  -7.7990, -29.5861, -108.3367,  84.6788
 3856,  -2.4157,  12.0327,  -7.7343, -29.6475, -108.5005,  85.1640
 3872,  -2.1695,  12.3332,  -7.5664, -29.8129, -108.9472,  86.6525
 3880,  -2.1695,  12.3332,  -7.5664, -29.8129, -108.9472,  86.6525
 3888,  -2.0859,  12.4147,  -7.5196, -29.8614, -109.0800,  87.1579
 3896,  -2.0016,  12.4865,  -7.4776, -29.9064, -109.2043,  87.6670
 3904,  -1.9165,  12.5485,  -7.4403, -29.9478, -109.3200,  88.1792
 3912,  -1.8308,  12.6006,  -7.4078, -29.9857, -109.4267,  88.6939
 3920,  -1.7443,  12.6425,  -7.3804, -30.0199, -109.5239,  89.2105
 3928,  -1.6573,  12.6737,  -7.3582, -30.0503, -109.6113,  89.7286
 3936,  -1.5695,  12.6941,  -7.3413, -30.0770, -109.6886,  90.2476
 3944,  -1.4812,  12.7037,  -7.3298, -30.0999, -109.7557,  90.7671
 3952,  -1.3923,  12.7024,  -7.3237, -30.1190, -109.8122,  91.2865
 3960,  -1.3029,  12.6900,  -7.3232, -30.1344, -109.8581,  91.8053
 3968,  -1.2130,  12.6661,  -7.3285, -30.1460, -109.8928,  92.3230
 3976,  -1.1226,  12.6305,  -7.3397, -30.1539, -109.9159,  92.8392
 3984,  -1.0318,  12.5831,  -7.3570, -30.1580, -109.9274,  93.3535
 4000,   -.7571,  12.3692,  -7.4463, -30.1489, -109.8899,  94.8810
 4008,   -.7571,  12.3692,  -7.4463, -30.1489, -109.8899,  94.8810
 4016,   -.6649,  12.2736,  -7.4890, -30.1389, -109.8528,  95.3836
 4024,   -.5725,  12.1654,  -7.5385, -30.1255, -109.8028,  95.8825
 4032,   -.4799,  12.0446,  -7.5949, -30.1088, -109.7398,  96.3773
 4040,   -.3871,  11.9112,  -7.6584, -30.0889, -109.6638,  96.8678
 4048,   -.2941,  11.7652,  -7.7289, -30.0659, -109.5746,  97.3537
 4056,   -.2010,  11.6065,  -7.8066, -30.0399, -109.4723,  97.8348
 4064,   -.1078,  11.4349,  -7.8918, -30.0111, -109.3565,  98.3108
 4072,   -.0145,  11.2503,  -7.9845, -29.9796, -109.2270,  98.7815
 4080,    .0787,  11.0526,  -8.0851, -29.9454, -109.0837,  99.2467
 4088,    .1721,  10.8419,  -8.1935, -29.9087, -108.9267,  99.7063
 4096,    .2656,  10.6183,  -8.3098, -29.8696, -108.7560, 100.1603
 4104,    .3591,  10.3818,  -8.4340, -29.8283, -108.5716, 100.6084
 4112,    .4527,  10.1323,  -8.5664, -29.7848, -108.3734, 101.0506
 4128,    .7335,   9.3050,  -9.0143, -29.6432, -107.6947, 102.3402
 4136,    .7335,   9.3050,  -9.0143, -29.6432, -107.6947, 102.3402
 4144,    .8272,   9.0034,  -9.1807, -29.5926, -107.4409, 102.7576
 4152,    .9210,   8.6891,  -9.3556, -29.5407, -107.1734, 103.1687
 4160,   1.0150,   8.3621,  -9.5393, -29.4874, -106.8922, 103.5735
 4168,   1.1089,   8.0223,  -9.7318, -29.4330, -106.5973, 103.9718
 4176,   1.2030,   7.6698,  -9.9333, -29.3776, -106.2888, 104.3636
 4184,   1.2973,   7.3049, -10.1438, -29.3214, -105.9668, 104.7489
 4192,   1.3917,   6.9278, -10.3631, -29.2644, -105.6317, 105.1278
 4200,   1.4863,   6.5387, -10.5913, -29.2068, -105.2836, 105.5001
 4208,   1.5811,   6.1376, -10.8285, -29.1488, -104.9225, 105.8658
 4216,   1.6762,   5.7247, -11.0748, -29.0904, -104.5486, 106.2248
 4224,   1.7716,   5.3001, -11.3301, -29.0319, -104.1620, 106.5771
 4232,   1.8674,   4.8641, -11.5943, -28.9733, -103.7630, 106.9226
 4240,   1.9635,   4.4171, -11.8673, -28.9149, -103.3520, 107.2614
 4256,   2.2544,   3.0125, -12.7388, -28.7414, -102.0493, 108.2364
 4264,   2.2544,   3.0125, -12.7388, -28.7414, -102.0493, 108.2364
 4272,   2.3523,   2.5238, -13.0467, -28.6846, -101.5925, 108.5472
 4280,   2.4508,   2.0254, -13.3629, -28.6286, -101.1249, 108.8508
 4288,   2.5499,   1.5177, -13.6873, -28.5734, -100.6470, 109.1471
 4296,   2.6497,   1.0012, -14.0198, -28.5191, -100.1592, 109.4361
 4304,   2.7500,    .4760, -14.3602, -28.4660, -99.6617, 109.7173
 4312,   2.8511,   -.0573, -14.7084, -28.4141, -99.1548, 109.9908
 4320,   2.9529,   -.5986, -15.0642, -28.3635, -98.6389, 110.2562
 4328,   3.0555,  -1.1475, -15.4272, -28.3144, -98.1143, 110.5135
 4336,   3.1589,  -1.7032, -15.7974, -28.2668, -97.5816, 110.7627
 4344,   3.2631,  -2.2656, -16.1743, -28.2208, -97.0411, 111.0033
 4352,   3.3681,  -2.8340, -16.5577, -28.1765, -96.4933, 111.2352
 4360,   3.4740,  -3.4082, -16.9475, -28.1341, -95.9385, 111.4580
 4368,   3.5807,  -3.9878, -17.3433, -28.0936, -95.3770, 111.6715
 4384,   3.9064,  -5.7538, -18.5639, -27.9846, -93.6569, 112.2542
 4392,   3.9064,  -5.7538, -18.5639, -27.9846, -93.6569, 112.2542
 4400,   4.0167,  -6.3500, -18.9806, -27.9527, -93.0732, 112.4282
 4408,   4.1280,  -6.9492, -19.4019, -27.9231, -92.4849, 112.5913
 4416,   4.2401,  -7.5511, -19.8274, -27.8961, -91.8924, 112.7433
 4424,   4.3532,  -8.1551, -20.2568, -27.8716, -91.2961, 112.8840
 4432,   4.4671,  -8.7609, -20.6897, -27.8496, -90.6964, 113.0131
 4440,   4.5820,  -9.3680, -21.1257, -27.8303, -90.0937, 113.1303
 4448,   4.6976,  -9.9758, -21.5646, -27.8138, -89.4883, 113.2349
 4456,   4.8141, -10.5842, -22.0060, -27.8001, -88.8807, 113.3265
 4464,   4.9313, -11.1926, -22.4497, -27.7894, -88.2710, 113.4048
 4472,   5.0493, -11.8007, -22.8953, -27.7817, -87.6595, 113.4694
 4480,   5.1681, -12.4082, -23.3426, -27.7769, -87.0467, 113.5202
 4488,   5.2876, -13.0146, -23.7913, -27.7753, -86.4328, 113.5566
 4496,   5.4077, -13.6196, -24.2410, -27.7768, -85.8181, 113.5781
 4512,   5.7715, -15.4229, -25.5936, -27.8013, -83.9712, 113.5476
 4520,   5.7715, -15.4229, -25.5936, -27.8013, -83.9712, 113.5476
 4528,   5.8938, -16.0193, -26.0449, -27.8162, -83.3553, 113.5048
 4536,   6.0167, -16.6127, -26.4959, -27.8345, -82.7397, 113.4449
 4544,   6.1399, -17.2031, -26.9465, -27.8564, -82.1244, 113.3673
 4552,   6.2635, -17.7900, -27.3964, -27.8818, -81.5096, 113.2712
 4560,   6.3874, -18.3733, -27.8454, -27.9109, -80.8955, 113.1563
 4568,   6.5117, -18.9528, -28.2933, -27.9435, -80.2820, 113.0223
 4576,   6.6364, -19.5285, -28.7399, -27.9796, -79.6692, 112.8689
 4584,   6.7614, -20.0999, -29.1851, -28.0193, -79.0573, 112.6954
 4592,   6.8867, -20.6671, -29.6286, -28.0626, -78.4463, 112.5011
 4600,   7.0124, -21.2296, -30.0702, -28.1093, -77.8362, 112.2854
 4608,   7.1383, -21.7875, -30.5097, -28.1596, -77.2271, 112.0478
 4616,   7.2647, -22.3405, -30.9471, -28.2131, -76.6190, 111.7879
 4624,   7.3915, -22.8886, -31.3821, -28.2698, -76.0118, 111.5055
 4640,   7.7754, -24.5016, -32.6709, -28.4572, -74.1961, 110.5169
 4648,   7.7754, -24.5016, -32.6709, -28.4572, -74.1961, 110.5169
 4656,   7.9048, -25.0280, -33.0942, -28.5248, -73.5929, 110.1380
 4664,   8.0351, -25.5486, -33.5142, -28.5945, -72.9907, 109.7339
 4672,   8.1666, -26.0634, -33.9306, -28.6657, -72.3895, 109.3042
 4680,   8.2993, -26.5719, -34.3431, -28.7383, -71.7893, 108.8485
 4688,   8.4335, -27.0738, -34.7514, -28.8116, -71.1902, 108.3661
 4696,   8.5693, -27.5689, -35.1551, -28.8854, -70.5924, 107.8566
 4704,   8.7070, -28.0569, -35.5539, -28.9589, -69.9959, 107.3193
 4712,   8.8468, -28.5375, -35.9475, -29.0317, -69.4008, 106.7543
 4720,   8.9890, -29.0104, -36.3356, -29.1029, -68.8071, 106.1613
 4728,   9.1338, -29.4754, -36.7178, -29.1719, -68.2151, 105.5402
 4736,   9.2816, -29.9317, -37.0935, -29.2379, -67.6252, 104.8905
 4744,   9.4324, -30.3790, -37.4623, -29.3003, -67.0377, 104.2119
 4752,   9.5866, -30.8166, -37.8235, -29.3581, -66.4528, 103.5042
 4768,  10.0724, -32.0673, -38.8578, -29.4952, -64.7174, 101.2083
 4776,  10.0724, -32.0673, -38.8578, -29.4952, -64.7174, 101.2083
 4784,  10.2427, -32.4614, -39.1840, -29.5258, -64.1471, 100.3859
 4792,  10.4175, -32.8427, -39.4998, -29.5473, -63.5821,  99.5352
 4800,  10.5969, -33.2106, -39.8044, -29.5589, -63.0230,  98.6565
 4808,  10.7811, -33.5645, -40.0974, -29.5597, -62.4704,  97.7504
 4816,  10.9700, -33.9039, -40.3782, -29.5488, -61.9251,  96.8177
 4824,  11.1637, -34.2277, -40.6460, -29.5255, -61.3879,  95.8594
 4832,  11.3621, -34.5350, -40.9000, -29.4892, -60.8602,  94.8762
 4840,  11.5650, -34.8249, -41.1394, -29.4392, -60.3429,  93.8690
 4848,  11.7722, -35.0967, -41.3635, -29.3752, -59.8372,  92.8390
 4856,  11.9835, -35.3495, -41.5718, -29.2966, -59.3441,  91.7874
 4864,  12.1985, -35.5830, -41.7638, -29.2033, -58.8644,  90.7158
 4872,  12.4169, -35.7962, -41.9387, -29.0951, -58.3996,  89.6261
 4880,  12.6382, -35.9881, -42.0959, -28.9722, -57.9512,  88.5198
 4896,  13.3130, -36.4286, -42.4544, -28.5183, -56.7171,  85.1210
 4904,  13.3130, -36.4286, -42.4544, -28.5183, -56.7171,  85.1210
 4912,  13.5396, -36.5288, -42.5350, -28.3403, -56.3466,  83.9682
 4920,  13.7658, -36.6048, -42.5956, -28.1504, -55.9985,  82.8095
 4928,  13.9908, -36.6560, -42.6355, -27.9495, -55.6743,  81.6473
 4936,  14.2138, -36.6818, -42.6544, -27.7390, -55.3753,  80.4841
 4944,  14.4339, -36.6818, -42.6519, -27.5200, -55.1027,  79.3224
 4952,  14.6505, -36.6561, -42.6282, -27.2940, -54.8570,  78.1644
 4960,  14.8627, -36.6046, -42.5832, -27.0624, -54.6390,  77.0126
 4968,  15.0697, -36.5274, -42.5168, -26.8267, -54.4496,  75.8697
 4976,  15.2708, -36.4239, -42.4289, -26.5887, -54.2897,  74.7381
 4984,  15.4652, -36.2942, -42.3193, -26.3501, -54.1603,  73.6203
 4992,  15.6520, -36.1382, -42.1881, -26.1124, -54.0617,  72.5185
 5000,  15.8309, -35.9564, -42.0355, -25.8773, -53.9943,  71.4346
 5008,  16.0012, -35.7492, -41.8620, -25.6462, -53.9579,  70.3704
 5024,  16.4561, -34.9771, -41.2176, -24.9916, -54.0376,  67.3146
 5032,  16.4561, -34.9771, -41.2176, -24.9916, -54.0376,  67.3146
 5040,  16.5876, -34.6703, -40.9621, -24.7911, -54.1276,  66.3469
 5048,  16.7084, -34.3396, -40.6869, -24.6011, -54.2489,  65.4064
 5056,  16.8188, -33.9858, -40.3927, -24.4226, -54.4008,  64.4937
 5064,  16.9184, -33.6093, -40.0799, -24.2562, -54.5830,  63.6096
 5072,  17.0072, -33.2106, -39.7489, -24.1030, -54.7952,  62.7548
 5080,  17.0850, -32.7899, -39.3999, -23.9634, -55.0370,  61.9299
 5088,  17.1521, -32.3479, -39.0335, -23.8380, -55.3081,  61.1350
 5096,  17.2085, -31.8853, -38.6504, -23.7268, -55.6073,  60.3698
 5104,  17.2546, -31.4030, -38.2513, -23.6300, -55.9337,  59.6340
 5112,  17.2906, -30.9017, -37.8369, -23.5475, -56.2864,  58.9271
 5120,  17.3168, -30.3821, -37.4078, -23.4792, -56.6647,  58.2486
 5128,  17.3334, -29.8448, -36.9645, -23.4253, -57.0678,  57.5984
 5136,  17.3409, -29.2905, -36.5077, -23.3853, -57.4947,  56.9755
 5152,  17.3130, -27.5355, -35.0650, -23.3444, -58.9059,  55.2601
 5160,  17.3130, -27.5355, -35.0650, -23.3444, -58.9059,  55.2601
 5168,  17.2886, -26.9227, -34.5627, -23.3554, -59.4159,  54.7358
 5176,  17.2573, -26.2972, -34.0507, -23.3781, -59.9441,  54.2336
 5184,  17.2196, -25.6599, -33.5298, -23.4118, -60.4894,  53.7524
 5192,  17.1761, -25.0117, -33.0010, -23.4560, -61.0504,  53.2909
 5200,  17.1273, -24.3537, -32.4650, -23.5097, -61.6259,  52.8476
 5208,  17.0738, -23.6867, -31.9228, -23.5725, -62.2144,  52.4211
 5216,  17.0161, -23.0117, -31.3749, -23.6438, -62.8151,  52.0104
 5224,  16.9544, -22.3292, -30.8222, -23.7231, -63.4269,  51.6145
 5232,  16.8893, -21.6401, -30.2652, -23.8099, -64.0487,  51.2322
 5240,  16.8212, -20.9454, -29.7049, -23.9035, -64.6794,  50.8621
 5248,  16.7507, -20.2460, -29.1419, -24.0033, -65.3176,  50.5028
 5256,  16.6782, -19.5427, -28.5770, -24.1088, -65.9621,  50.1530
 5264,  16.6040, -18.8364, -28.0108, -24.2194, -66.6122,  49.8117
 5280,  16.3745, -16.7049, -26.3101, -24.5787, -68.5868,  48.8296
 5288,  16.3745, -16.7049, -26.3101, -24.5787, -68.5868,  48.8296
 5296,  16.2967, -15.9923, -25.7441, -24.7064, -69.2505,  48.5130
 5304,  16.2187, -15.2794, -25.1792, -24.8375, -69.9158,  48.2003
 5312,  16.1406, -14.5667, -24.6158, -24.9717, -70.5822,  47.8908
 5320,  16.0626, -13.8544, -24.0542, -25.1089, -71.2493,  47.5840
 5328,  15.9849, -13.1430, -23.4946, -25.2490, -71.9165,  47.2794
 5336,  15.9076, -12.4326, -22.9373, -25.3918, -72.5836,  46.9763
 5344,  15.8309, -11.7237, -22.3825, -25.5370, -73.2500,  46.6743
 5352,  15.7548, -11.0166, -21.8307, -25.6846, -73.9152,  46.3729
 5360,  15.6794, -10.3117, -21.2821, -25.8343, -74.5789,  46.0720
 5368,  15.6049,  -9.6094, -20.7370, -25.9863, -75.2407,  45.7714
 5376,  15.5313,  -8.9100, -20.1957, -26.1402, -75.9002,  45.4710
 5384,  15.4586,  -8.2137, -19.6584, -26.2962, -76.5570,  45.1707
 5392,  15.3869,  -7.5209, -19.1253, -26.4539, -77.2109,  44.8703
 5408,  15.1790,  -5.4712, -17.5581, -26.9366, -79.1469,  43.9715
 5416,  15.1790,  -5.4712, -17.5581, -26.9366, -79.1469,  43.9715
 5424,  15.1124,  -4.8021, -17.0498, -27.0996, -79.7795,  43.6754
 5432,  15.0473,  -4.1422, -16.5502, -27.2631, -80.4036,  43.3822
 5440,  14.9840,  -3.4931, -16.0605, -27.4266, -81.0178,  43.0927
 5448,  14.9224,  -2.8560, -15.5816, -27.5898, -81.6208,  42.8078
 5456,  14.8626,  -2.2325, -15.1145, -27.7522, -82.2113,  42.5281
 5464,  14.8049,  -1.6240, -14.6602, -27.9134, -82.7878,  42.2543
 5472,  14.7492,  -1.0318, -14.2198, -28.0728, -83.3490,  41.9871
 5480,  14.6957,   -.4573, -13.7941, -28.2298, -83.8936,  41.7272
 5488,  14.6445,    .0980, -13.3840, -28.3840, -84.4202,  41.4753
 5496,  14.5955,    .6330, -12.9904, -28.5347, -84.9276,  41.2321
 5504,  14.5490,   1.1462, -12.6142, -28.6814, -85.4144,  40.9981
 5512,  14.5050,   1.6363, -12.2562, -28.8234, -85.8794,  40.7740
 5520,  14.4635,   2.1023, -11.9170, -28.9603, -86.3216,  40.5604
 5536,  14.3543,   3.3463, -11.0172, -29.3346, -87.5025,  39.9870
 5544,  14.3543,   3.3463, -11.0172, -29.3346, -87.5025,  39.9870
 5552,  14.3232,   3.7069, -10.7580, -29.4455, -87.8449,  39.8199
 5560,  14.2947,   4.0390, -10.5199, -29.5487, -88.1602,  39.6656
 5568,  14.2688,   4.3420, -10.3032, -29.6437, -88.4479,  39.5245
 5576,  14.2456,   4.6163, -10.1076, -29.7304, -88.7083,  39.3965
 5584,  14.2247,   4.8631,  -9.9319, -29.8090, -88.9427,  39.2811
 5592,  14.2062,   5.0841,  -9.7750, -29.8799, -89.1525,  39.1773
 5600,  14.1897,   5.2808,  -9.6356, -29.9433, -89.3392,  39.0847
 5608,  14.1753,   5.4546,  -9.5126, -29.9996, -89.5042,  39.0025
 5616,  14.1626,   5.6070,  -9.4048, -30.0492, -89.6489,  38.9301
 5624,  14.1516,   5.7396,  -9.3112, -30.0925, -89.7747,  38.8668
 5632,  14.1422,   5.8537,  -9.2308, -30.1298, -89.8830,  38.8120
 5640,  14.1342,   5.9509,  -9.1623, -30.1617, -89.9752,  38.7652
 5648,  14.1276,   6.0325,  -9.1048, -30.1886, -90.0527,  38.7255
 5664,  14.1140,   6.1986,  -8.9880, -30.2433, -90.2102,  38.6441
 5672,  14.1140,   6.1986,  -8.9880, -30.2433, -90.2102,  38.6441
 5680,  14.1112,   6.2324,  -8.9642, -30.2544, -90.2422,  38.6273
 5688,  14.1092,   6.2578,  -8.9464, -30.2628, -90.2663,  38.6146
 5696,  14.1077,   6.2760,  -8.9336, -30.2688, -90.2835,  38.6055
 5704,  14.1067,   6.2882,  -8.9251, -30.2728, -90.2950,  38.5993
 5712,  14.1062,   6.2956,  -8.9199, -30.2752, -90.3020,  38.5955
 5720,  14.1059,   6.2994,  -8.9172, -30.2764, -90.3056,  38.5936
 5728,  14.1057,   6.3008,  -8.9162, -30.2769, -90.3069,  38.5929
