hehonglu123/Motion-Primitive-Planning/ILC/recorded_data/realrobot/wood/iteration_32/run_0.csv
timestamp, cmd_num, J1, J2, J3, J4, J5, J6
0.000386, -1, 11.3766, 13.6164, 17.3324, -145.52, -97.9269, 142.517
0.003113, -1, 11.3766, 13.6164, 17.3324, -145.52, -97.9269, 142.517
0.0078, -1, 11.3766, 13.6164, 17.3324, -145.52, -97.927, 142.517
0.029082, -1, 11.3766, 13.6164, 17.3324, -145.52, -97.9269, 142.517
0.031743, -1, 11.3766, 13.6164, 17.3324, -145.52, -97.9269, 142.517
0.032954, -1, 11.3766, 13.6164, 17.3324, -145.52, -97.9269, 142.517
0.039674, -1, 11.3766, 13.6164, 17.3324, -145.52, -97.9269, 142.517
0.047709, -1, 11.3766, 13.6164, 17.3324, -145.52, -97.9269, 142.517
0.05568, -1, 11.376, 13.6163, 17.3324, -145.52, -97.9269, 142.517
0.063726, -1, 11.3734, 13.6161, 17.3322, -145.52, -97.9269, 142.517
0.071711, -1, 11.367, 13.6153, 17.3318, -145.52, -97.9269, 142.516
0.079676, -1, 11.3559, 13.6136, 17.3311, -145.52, -97.9269, 142.515
0.087705, -1, 11.3385, 13.6102, 17.3301, -145.521, -97.9268, 142.508
0.095716, -1, 11.3117, 13.6043, 17.3291, -145.524, -97.9262, 142.487
0.105073, -1, 11.2733, 13.5951, 17.3283, -145.531, -97.9246, 142.448
0.11267, -1, 11.2232, 13.5826, 17.3283, -145.542, -97.9213, 142.382
0.119748, -1, 11.1616, 13.5671, 17.3298, -145.559, -97.916, 142.287
0.127859, -1, 11.0884, 13.548, 17.3336, -145.583, -97.9082, 142.156
0.135711, -1, 11.0032, 13.5249, 17.3399, -145.611, -97.8981, 141.991
0.143827, -1, 10.9064, 13.4984, 17.3484, -145.645, -97.886, 141.793
0.151961, -1, 10.7989, 13.4686, 17.3586, -145.684, -97.8722, 141.567
0.159803, -1, 10.6804, 13.4357, 17.3697, -145.727, -97.8574, 141.32
0.167843, -1, 10.5515, 13.3999, 17.3808, -145.771, -97.8419, 141.06
0.176194, -1, 10.4133, 13.3618, 17.3914, -145.817, -97.8259, 140.79
0.18379, -1, 10.2685, 13.3221, 17.4016, -145.864, -97.8097, 140.515
0.191967, -1, 10.119, 13.2816, 17.4114, -145.912, -97.7931, 140.238
0.201208, -1, 9.96662, 13.2404, 17.4215, -145.959, -97.7761, 139.96
0.206721, -1, 9.88947, 13.2196, 17.4265, -145.983, -97.7675, 139.821
0.215839, -1, 9.65633, 13.1573, 17.4416, -146.055, -97.7416, 139.401
0.225368, -1, 9.50113, 13.1159, 17.4516, -146.103, -97.7245, 139.122
0.231861, -1, 9.34638, 13.0746, 17.4615, -146.152, -97.7076, 138.842
0.240013, -1, 9.19192, 13.0333, 17.4714, -146.2, -97.6908, 138.563
0.246675, -1, 9.11487, 13.0128, 17.4764, -146.224, -97.6824, 138.423
0.256159, -1, 8.88425, 12.951, 17.4916, -146.296, -97.6572, 138.003
0.262669, -1, 8.80742, 12.9305, 17.4967, -146.32, -97.6486, 137.863
0.272921, -1, 8.57765, 12.8687, 17.5119, -146.392, -97.6226, 137.443
0.280274, -1, 8.42487, 12.8274, 17.522, -146.44, -97.605, 137.163
0.288254, -1, 8.27201, 12.786, 17.5322, -146.488, -97.5877, 136.882
0.296919, -1, 8.11853, 12.7444, 17.5425, -146.536, -97.5706, 136.602
0.304313, -1, 7.96459, 12.7027, 17.5527, -146.584, -97.5538, 136.322
0.312433, -1, 7.88738, 12.6818, 17.5578, -146.632, -97.5371, 136.042
0.319676, -1, 7.73263, 12.6401, 17.568, -146.656, -97.5287, 135.901
0.327715, -1, 7.57769, 12.5983, 17.5781, -146.704, -97.512, 135.621
0.335669, -1, 7.42265, 12.5567, 17.5884, -146.752, -97.4951, 135.341
0.343673, -1, 7.2676, 12.5152, 17.5986, -146.8, -97.4778, 135.06
0.351715, -1, 7.11254, 12.4736, 17.6089, -146.848, -97.4604, 134.78
0.48823, -1, 4.47643, 11.7682, 17.7857, -147.666, -97.1697, 130.008
0.490168, -1, 4.3986, 11.7475, 17.7909, -147.69, -97.161, 129.867
0.492355, -1, 4.3986, 11.7475, 17.7909, -147.69, -97.161, 129.867
0.494393, -1, 4.32082, 11.7268, 17.7961, -147.715, -97.1524, 129.727
0.495609, -1, 4.32082, 11.7268, 17.7961, -147.715, -97.1524, 129.727
0.496885, -1, 4.32082, 11.7268, 17.7961, -147.715, -97.1524, 129.727
0.498967, -1, 4.24314, 11.7061, 17.8013, -147.739, -97.1438, 129.586
0.502926, -1, 4.16556, 11.6854, 17.8066, -147.763, -97.1353, 129.446
0.504189, -1, 4.16556, 11.6854, 17.8066, -147.763, -97.1353, 129.446
0.506174, -1, 4.08805, 11.6647, 17.8118, -147.787, -97.1268, 129.305
0.507589, -1, 4.08805, 11.6647, 17.8118, -147.787, -97.1268, 129.305
0.508876, -1, 4.08805, 11.6647, 17.8118, -147.787, -97.1268, 129.305
0.511152, -1, 4.01066, 11.644, 17.817, -147.811, -97.1184, 129.165
0.512451, -1, 4.01066, 11.644, 17.817, -147.811, -97.1184, 129.165
0.515182, -1, 3.93339, 11.6233, 17.8222, -147.835, -97.1099, 129.024
0.519494, -1, 3.85619, 11.6026, 17.8274, -147.86, -97.1015, 128.884
0.520769, -1, 3.85619, 11.6026, 17.8274, -147.86, -97.1015, 128.884
0.522756, -1, 3.779, 11.5818, 17.8326, -147.884, -97.0931, 128.743
0.524073, -1, 3.779, 11.5818, 17.8326, -147.884, -97.0931, 128.743
0.525256, -1, 3.779, 11.5818, 17.8326, -147.884, -97.0931, 128.743
0.528146, -1, 3.70178, 11.561, 17.8378, -147.908, -97.0846, 128.602
0.530075, -1, 3.70178, 11.561, 17.8378, -147.908, -97.0846, 128.462
0.53666, -1, 3.54722, 11.5194, 17.8482, -147.956, -97.0676, 128.321
0.544727, -1, 3.39257, 11.4778, 17.8585, -148.005, -97.0503, 128.039
0.551692, -1, 3.23764, 11.4361, 17.8691, -148.053, -97.0327, 127.758
0.559734, -1, 3.08246, 11.3944, 17.8795, -148.101, -97.0152, 127.476
0.567661, -1, 2.92718, 11.3526, 17.89, -148.15, -96.9979, 127.195
0.57571, -1, 2.77161, 11.3109, 17.9004, -148.198, -96.9809, 126.913
0.583742, -1, 2.6157, 11.2691, 17.9107, -148.246, -96.9642, 126.631
0.591669, -1, 2.45953, 11.2274, 17.9212, -148.294, -96.9474, 126.349
0.599673, -1, 2.30312, 11.1857, 17.9317, -148.343, -96.9305, 126.067
0.607735, -1, 2.14654, 11.144, 17.9421, -148.391, -96.9134, 125.785
0.615657, -1, 1.98975, 11.1023, 17.9526, -148.439, -96.896, 125.504
0.623794, -1, 1.83318, 11.0606, 17.963, -148.488, -96.8785, 125.222
0.631714, -1, 1.67681, 11.019, 17.9735, -148.536, -96.8612, 124.94
0.639705, -1, 1.52055, 10.9772, 17.984, -148.585, -96.844, 124.658
0.647748, -1, 1.36458, 10.9356, 17.9945, -148.633, -96.8271, 124.376
0.784855, -1, -1.289, 10.2249, 18.1721, -149.458, -96.5359, 119.571
0.786075, -1, -1.289, 10.2249, 18.1721, -149.458, -96.5359, 119.571
0.787347, -1, -1.289, 10.2249, 18.1721, -149.458, -96.5359, 119.571
0.789306, -1, -1.36745, 10.204, 18.1773, -149.482, -96.5275, 119.429
0.790626, -1, -1.36745, 10.204, 18.1773, -149.482, -96.5275, 119.429
0.792844, -1, -1.44586, 10.1831, 18.1825, -149.506, -96.5191, 119.287
0.794059, -1, -1.44586, 10.1831, 18.1825, -149.506, -96.5191, 119.287
0.798853, -1, -1.5242, 10.1622, 18.1877, -149.53, -96.5107, 119.146
0.801117, -1, -1.60243, 10.1413, 18.193, -149.554, -96.5022, 119.004
0.802424, -1, -1.60243, 10.1413, 18.193, -149.554, -96.5022, 119.004
0.805065, -1, -1.60243, 10.1413, 18.1983, -149.579, -96.4937, 118.862
0.807102, -1, -1.68054, 10.1203, 18.1983, -149.579, -96.4937, 118.862
0.809206, -1, -1.75855, 10.0994, 18.2036, -149.603, -96.4852, 118.721
0.810513, -1, -1.75855, 10.0994, 18.2036, -149.603, -96.4852, 118.721
0.812308, -1, -1.75855, 10.0785, 18.2088, -149.628, -96.4765, 118.579
0.815405, -1, -1.83643, 10.0785, 18.2088, -149.628, -96.4765, 118.579
0.817451, -1, -1.91423, 10.0575, 18.214, -149.652, -96.4678, 118.437
0.818705, -1, -1.91423, 10.0575, 18.214, -149.652, -96.4678, 118.437
0.820849, -1, -1.99195, 10.0366, 18.2192, -149.676, -96.4591, 118.295
0.822129, -1, -1.99195, 10.0366, 18.2192, -149.676, -96.4591, 118.295
0.823412, -1, -1.99195, 10.0366, 18.2192, -149.676, -96.4591, 118.295
0.825482, -1, -2.06958, 10.0157, 18.2245, -149.7, -96.4502, 118.154
0.836688, -1, -2.30227, 9.95285, 18.2401, -149.774, -96.4239, 117.729
0.839595, -1, -2.30227, 9.95285, 18.2401, -149.774, -96.4239, 117.729
0.847648, -1, -2.45765, 9.91093, 18.2506, -149.822, -96.4068, 117.445
0.855735, -1, -2.61333, 9.86899, 18.2611, -149.871, -96.3898, 117.161
0.863661, -1, -2.76928, 9.82709, 18.2715, -149.919, -96.3729, 116.877
0.871642, -1, -2.9257, 9.78513, 18.2819, -149.967, -96.3562, 116.594
0.879665, -1, -3.08254, 9.74321, 18.2923, -150.016, -96.3391, 116.31
0.887658, -1, -3.23974, 9.70128, 18.3027, -150.065, -96.3218, 116.026
0.895711, -1, -3.39742, 9.65931, 18.3132, -150.113, -96.3042, 115.742
0.903663, -1, -3.55526, 9.61733, 18.3237, -150.162, -96.2867, 115.459
0.911666, -1, -3.71309, 9.57551, 18.3342, -150.211, -96.2693, 115.174
0.919715, -1, -3.87106, 9.53354, 18.3446, -150.259, -96.2522, 114.89
0.927665, -1, -4.02903, 9.49154, 18.355, -150.309, -96.2352, 114.606
0.935644, -1, -4.18688, 9.44963, 18.3654, -150.358, -96.2182, 114.321
0.944645, -1, -4.34465, 9.40763, 18.3758, -150.406, -96.2011, 114.037
0.951677, -1, -4.50215, 9.36562, 18.3861, -150.455, -96.1838, 113.752
0.959649, -1, -4.65915, 9.32361, 18.3965, -150.504, -96.1661, 113.467
0.967759, -1, -4.81574, 9.28155, 18.4069, -150.553, -96.1483, 113.183
0.976705, -1, -4.97204, 9.23947, 18.4174, -150.602, -96.1308, 112.898
0.983643, -1, -5.12798, 9.19748, 18.428, -150.65, -96.1136, 112.613
0.991733, -1, -5.28374, 9.15541, 18.4386, -150.699, -96.0965, 112.328
0.999647, -1, -5.43973, 9.11326, 18.4491, -150.748, -96.0796, 112.044
1.00771, -1, -5.5959, 9.07119, 18.4596, -150.797, -96.0627, 111.759
1.01569, -1, -5.75242, 9.02911, 18.47, -150.845, -96.0456, 111.474
1.02394, -1, -5.90933, 8.98693, 18.4805, -150.895, -96.0282, 111.189
1.03174, -1, -6.06679, 8.94481, 18.4909, -150.943, -96.0105, 110.904
1.03965, -1, -6.22476, 8.90269, 18.5013, -150.992, -95.993, 110.619
1.04843, -1, -6.38304, 8.86058, 18.5117, -151.041, -95.9757, 110.334
1.05566, -1, -6.54146, 8.81852, 18.522, -151.09, -95.9586, 110.049
1.06366, -1, -6.70004, 8.77638, 18.5326, -151.139, -95.9416, 109.763
1.07249, -1, -6.85873, 8.73428, 18.5431, -151.188, -95.9246, 109.478
1.07967, -1, -7.01732, 8.6922, 18.5537, -151.237, -95.9075, 109.192
1.08765, -1, -7.17581, 8.65008, 18.5642, -151.286, -95.89, 108.907
1.09646, -1, -7.33416, 8.60789, 18.5745, -151.335, -95.8723, 108.621
1.10364, -1, -7.49217, 8.5656, 18.585, -151.384, -95.8546, 108.335
1.1117, -1, -7.64977, 8.5233, 18.5955, -151.433, -95.837, 108.049
1.12045, -1, -7.80707, 8.48105, 18.606, -151.483, -95.8198, 107.764
1.12764, -1, -7.96398, 8.43881, 18.6164, -151.531, -95.8028, 107.478
1.13592, -1, -8.12063, 8.39647, 18.6268, -151.58, -95.7858, 107.192
1.1452, -1, -8.27716, 8.35416, 18.6373, -151.63, -95.7688, 106.906
1.15174, -1, -8.43386, 8.31181, 18.6479, -151.678, -95.7516, 106.621
1.16008, -1, -8.59089, 8.26944, 18.6584, -151.727, -95.7341, 106.334
1.16719, -1, -8.74822, 8.2272, 18.669, -151.777, -95.7164, 106.048
1.17575, -1, -8.90591, 8.18488, 18.6793, -151.826, -95.6988, 105.761
1.18427, -1, -9.06404, 8.14253, 18.6898, -151.875, -95.6815, 105.475
1.19173, -1, -9.2226, 8.10031, 18.7003, -151.924, -95.6643, 105.189
1.19972, -1, -9.38145, 8.05799, 18.7107, -151.973, -95.6472, 104.902
1.2085, -1, -9.54059, 8.01562, 18.7212, -152.022, -95.63, 104.615
1.21568, -1, -9.69973, 7.97336, 18.7317, -152.072, -95.6127, 104.328
1.22376, -1, -9.85903, 7.93112, 18.7422, -152.121, -95.5952, 104.041
1.23264, -1, -10.0184, 7.88873, 18.7528, -152.17, -95.5774, 103.754
1.23988, -1, -10.1777, 7.84629, 18.7635, -152.219, -95.5596, 103.467
1.24793, -1, -10.3368, 7.80382, 18.7741, -152.268, -95.542, 103.181
1.25684, -1, -10.4956, 7.7613, 18.7847, -152.318, -95.5248, 102.894
1.26409, -1, -10.6541, 7.71886, 18.7951, -152.367, -95.5077, 102.607
1.27229, -1, -10.8122, 7.67631, 18.8056, -152.416, -95.4907, 102.32
1.28106, -1, -10.9701, 7.63373, 18.8162, -152.466, -95.4735, 102.033
1.28818, -1, -11.1277, 7.59126, 18.8266, -152.515, -95.4562, 101.745
1.29463, -1, -11.2064, 7.57004, 18.8318, -152.539, -95.4474, 101.601
1.30516, -1, -11.4425, 7.50635, 18.8476, -152.614, -95.4207, 101.171
1.3107, -1, -11.5213, 7.4851, 18.8528, -152.638, -95.4118, 101.027
1.32028, -1, -11.679, 7.44268, 18.8634, -152.687, -95.3857, 100.595
1.32763, -1, -11.8371, 7.4003, 18.874, -152.737, -95.377, 100.451
1.33485, -1, -11.9957, 7.35791, 18.8846, -152.786, -95.3598, 100.163
1.34568, -1, -12.2343, 7.29437, 18.9005, -152.86, -95.334, 99.7317
1.35165, -1, -12.3141, 7.27317, 18.9057, -152.885, -95.3253, 99.5877
1.35871, -1, -12.4737, 7.23075, 18.9162, -152.935, -95.3077, 99.2995
1.36772, -1, -12.6337, 7.18837, 18.9268, -152.984, -95.2898, 99.0116
1.37565, -1, -12.7937, 7.14593, 18.9374, -153.034, -95.2718, 98.724
1.38363, -1, -12.9539, 7.1034, 18.9479, -153.083, -95.2541, 98.4359
1.39172, -1, -13.1138, 7.06082, 18.9585, -153.132, -95.2366, 98.1478
1.39963, -1, -13.2737, 7.01823, 18.969, -153.182, -95.2194, 97.8596
1.40763, -1, -13.4334, 6.9756, 18.9796, -153.231, -95.2023, 97.5714
1.41563, -1, -13.5927, 6.9328, 18.9902, -153.28, -95.1851, 97.2827
1.42363, -1, -13.7518, 6.89006, 19.0009, -153.33, -95.1677, 96.9941
1.43172, -1, -13.9107, 6.84736, 19.0114, -153.38, -95.1501, 96.7056
1.43963, -1, -14.069, 6.80464, 19.0218, -153.429, -95.1323, 96.417
1.44763, -1, -14.2271, 6.76199, 19.0324, -153.479, -95.1145, 96.128
1.45569, -1, -14.3853, 6.71931, 19.043, -153.528, -95.097, 95.8389
1.46469, -1, -14.5436, 6.67659, 19.0535, -153.577, -95.0798, 95.55
1.47169, -1, -14.7023, 6.634, 19.0641, -153.627, -95.0625, 95.2608
1.47972, -1, -14.8613, 6.59142, 19.0746, -153.676, -95.0453, 94.9714
1.48763, -1, -15.0206, 6.54873, 19.0854, -153.726, -95.0279, 94.6823
1.49563, -1, -15.1803, 6.5061, 19.0961, -153.776, -95.0102, 94.3932
1.5037, -1, -15.3405, 6.46349, 19.1068, -153.825, -94.9922, 94.1041
1.51165, -1, -15.501, 6.42072, 19.1175, -153.875, -94.9743, 93.8146
1.51963, -1, -15.6617, 6.37801, 19.1281, -153.925, -94.9566, 93.5255
1.52769, -1, -15.8224, 6.33522, 19.1387, -153.974, -94.9392, 93.2364
1.53566, -1, -15.9832, 6.29233, 19.1494, -154.024, -94.9221, 92.9467
1.54369, -1, -16.144, 6.24945, 19.1599, -154.074, -94.9049, 92.6569
1.55165, -1, -16.3048, 6.20653, 19.1705, -154.123, -94.8877, 92.3675
1.55965, -1, -16.4653, 6.1635, 19.181, -154.173, -94.8702, 92.0779
1.5677, -1, -16.6256, 6.12052, 19.1915, -154.223, -94.8523, 91.7877
1.57562, -1, -16.7855, 6.07755, 19.2022, -154.272, -94.8344, 91.4976
1.58363, -1, -16.945, 6.03456, 19.2129, -154.322, -94.8167, 91.2075
1.59172, -1, -17.1043, 5.99158, 19.2235, -154.372, -94.7992, 90.9173
1.59967, -1, -17.2633, 5.94864, 19.2341, -154.421, -94.7818, 90.6268
1.60763, -1, -17.4224, 5.9058, 19.2447, -154.471, -94.7646, 90.3364
1.61569, -1, -17.5817, 5.86297, 19.2554, -154.521, -94.7472, 90.0463
1.62363, -1, -17.741, 5.82015, 19.2661, -154.571, -94.7296, 89.7561
1.63164, -1, -17.9006, 5.77737, 19.2768, -154.621, -94.7116, 89.4656
1.63976, -1, -18.0607, 5.73457, 19.2875, -154.671, -94.6935, 89.175
1.64769, -1, -18.2212, 5.69179, 19.298, -154.72, -94.6756, 88.8846
1.65578, -1, -18.3821, 5.64901, 19.3088, -154.771, -94.658, 88.5938
1.66372, -1, -18.5435, 5.60605, 19.3195, -154.821, -94.6406, 88.3026
1.67172, -1, -18.7051, 5.56306, 19.3302, -154.87, -94.6233, 88.0118
1.6798, -1, -18.8667, 5.52007, 19.3409, -154.921, -94.606, 87.721
1.68774, -1, -19.0283, 5.47703, 19.3514, -154.97, -94.5885, 87.4298
1.69563, -1, -19.1899, 5.43381, 19.3621, -155.02, -94.5707, 87.1384
1.70385, -1, -19.3514, 5.39066, 19.3727, -155.07, -94.5525, 86.8471
1.71166, -1, -19.5127, 5.34748, 19.3833, -155.12, -94.5345, 86.5557
1.71981, -1, -19.6736, 5.30422, 19.3939, -155.17, -94.5168, 86.264
1.72779, -1, -19.8343, 5.26108, 19.4045, -155.22, -94.4993, 85.9722
1.73576, -1, -19.9947, 5.21792, 19.4152, -155.27, -94.4818, 85.6807
1.74389, -1, -20.1547, 5.17477, 19.4261, -155.32, -94.4644, 85.3893
1.75276, -1, -20.3145, 5.13178, 19.4369, -155.37, -94.4469, 85.0975
1.75996, -1, -20.4744, 5.08875, 19.4477, -155.42, -94.4291, 84.8056
1.76664, -1, -20.5545, 5.06718, 19.4531, -155.445, -94.4201, 84.6598
1.77705, -1, -20.7949, 5.00268, 19.4692, -155.521, -94.3929, 84.2221
1.78418, -1, -20.9555, 4.95968, 19.4799, -155.57, -94.3751, 83.93
1.79219, -1, -21.1166, 4.91654, 19.4906, -155.621, -94.3576, 83.6379
1.80107, -1, -21.278, 4.87344, 19.5012, -155.671, -94.3404, 83.346
1.80827, -1, -21.44, 4.83021, 19.5118, -155.721, -94.3231, 83.0538
1.81639, -1, -21.521, 4.80854, 19.5226, -155.771, -94.3057, 82.7611
1.82362, -1, -21.6832, 4.76529, 19.528, -155.797, -94.297, 82.6149
1.83162, -1, -21.8456, 4.722, 19.5387, -155.847, -94.2792, 82.3224
1.83973, -1, -22.008, 4.67855, 19.5495, -155.896, -94.2612, 82.0297
1.84764, -1, -22.1705, 4.63516, 19.5603, -155.947, -94.2432, 81.7368
1.85469, -1, -22.333, 4.59175, 19.5709, -155.997, -94.2255, 81.444
1.86367, -1, -22.4952, 4.54832, 19.5817, -156.047, -94.208, 81.1515
1.87165, -1, -22.6571, 4.50487, 19.5924, -156.098, -94.1905, 80.8587
1.87863, -1, -22.8187, 4.46137, 19.603, -156.148, -94.1731, 80.5657
1.88761, -1, -22.9798, 4.41798, 19.6138, -156.198, -94.1554, 80.2726
1.89565, -1, -23.1409, 4.37468, 19.6245, -156.249, -94.1374, 79.9797
1.90372, -1, -23.3019, 4.3313, 19.6352, -156.299, -94.1191, 79.6864
1.91162, -1, -23.4627, 4.28801, 19.6462, -156.349, -94.1009, 79.3928
1.91963, -1, -23.6237, 4.2447, 19.657, -156.4, -94.0829, 79.0995
1.92661, -1, -23.7848, 4.20141, 19.6678, -156.45, -94.0652, 78.8061
1.93562, -1, -23.9461, 4.15814, 19.6785, -156.501, -94.0478, 78.5124
1.94364, -1, -24.1078, 4.11473, 19.6892, -156.551, -94.0304, 78.2185
1.95264, -1, -24.27, 4.07133, 19.7, -156.601, -94.0128, 77.9246
1.95961, -1, -24.4327, 4.02791, 19.7107, -156.652, -93.995, 77.6306
1.96865, -1, -24.5957, 3.98437, 19.7213, -156.702, -93.9769, 77.3363
1.97462, -1, -24.7589, 3.94078, 19.732, -156.752, -93.9588, 77.0421
1.98362, -1, -24.9223, 3.89722, 19.7428, -156.803, -93.9409, 76.7482
1.9918, -1, -25.0857, 3.85366, 19.7537, -156.853, -93.9232, 76.454
1.99961, -1, -25.2489, 3.81007, 19.7646, -156.903, -93.9058, 76.1597
2.00762, -1, -25.412, 3.76643, 19.7755, -156.954, -93.8883, 75.8652
2.01641, -1, -25.5748, 3.72273, 19.7863, -157.004, -93.8706, 75.5711
2.02362, -1, -25.7374, 3.6791, 19.7969, -157.055, -93.8527, 75.2765
2.03163, -1, -25.9, 3.63561, 19.8077, -157.105, -93.8344, 74.9816
2.0405, -1, -26.0622, 3.59204, 19.8185, -157.155, -93.816, 74.6869
2.04761, -1, -26.224, 3.54856, 19.8293, -157.206, -93.7979, 74.3924
2.05561, -1, -26.3855, 3.50519, 19.8401, -157.257, -93.78, 74.0977
2.06446, -1, -26.5472, 3.46173, 19.8508, -157.307, -93.7624, 73.8025
2.07161, -1, -26.7091, 3.4182, 19.8616, -157.358, -93.7447, 73.5073
2.07961, -1, -26.8714, 3.37469, 19.8726, -157.409, -93.7271, 73.2121
2.09128, -1, -27.1153, 3.30925, 19.8888, -157.485, -93.7001, 72.7689
2.09569, -1, -27.1968, 3.28746, 19.8943, -157.51, -93.691, 72.6212
2.10363, -1, -27.36, 3.24384, 19.905, -157.561, -93.6726, 72.3261
2.11161, -1, -27.5237, 3.20004, 19.9158, -157.611, -93.6545, 72.0308
2.11969, -1, -27.6876, 3.15632, 19.9266, -157.662, -93.6366, 71.7352
2.12761, -1, -27.8516, 3.11264, 19.9374, -157.713, -93.6188, 71.4394
2.13561, -1, -28.0158, 3.06888, 19.9482, -157.763, -93.6012, 71.144
2.14382, -1, -28.18, 3.02513, 19.959, -157.814, -93.5835, 70.8484
2.1517, -1, -28.3443, 2.98137, 19.9698, -157.865, -93.5654, 70.5522
2.15972, -1, -28.5083, 2.93761, 19.9807, -157.915, -93.547, 70.2562
2.16778, -1, -28.6721, 2.89392, 19.9916, -157.967, -93.5285, 69.9602
2.17571, -1, -28.8356, 2.8502, 20.0024, -158.017, -93.5103, 69.664
2.18372, -1, -28.9987, 2.80647, 20.0131, -158.068, -93.4924, 69.3674
2.1918, -1, -29.1614, 2.7628, 20.0239, -158.119, -93.4747, 69.071
2.19962, -1, -29.324, 2.71913, 20.0348, -158.17, -93.457, 68.7744
2.20767, -1, -29.4868, 2.67544, 20.0456, -158.221, -93.4393, 68.4775
2.21571, -1, -29.6495, 2.63169, 20.0564, -158.272, -93.4213, 68.1805
2.22372, -1, -29.8126, 2.58787, 20.0673, -158.323, -93.403, 67.8839
2.23175, -1, -29.9757, 2.54411, 20.0782, -158.374, -93.3845, 67.5873
2.2399, -1, -30.139, 2.50022, 20.0892, -158.425, -93.3662, 67.2902
2.24787, -1, -30.3028, 2.45625, 20.1002, -158.475, -93.3483, 66.9932
2.25467, -1, -30.3849, 2.43428, 20.1057, -158.501, -93.3394, 66.8448
2.26409, -1, -30.6319, 2.36828, 20.1219, -158.577, -93.3128, 66.3991
2.27064, -1, -30.7144, 2.34627, 20.1273, -158.602, -93.3039, 66.2504
2.28008, -1, -30.9619, 2.28037, 20.1437, -158.68, -93.2769, 65.8044
2.28826, -1, -31.127, 2.23628, 20.1545, -158.73, -93.2586, 65.5073
2.29619, -1, -31.2921, 2.19233, 20.1654, -158.781, -93.24, 65.2099
2.30418, -1, -31.457, 2.14845, 20.1762, -158.833, -93.2217, 64.9121
2.31239, -1, -31.6216, 2.1044, 20.187, -158.883, -93.2037, 64.6143
2.32021, -1, -31.7039, 2.08241, 20.1924, -158.909, -93.1948, 64.3164
2.3276, -1, -31.8684, 2.03849, 20.2034, -158.961, -93.1771, 64.1674
2.33566, -1, -32.0325, 1.99453, 20.2144, -159.011, -93.1595, 63.8691
2.3436, -1, -32.1963, 1.95052, 20.2254, -159.063, -93.1418, 63.5712
2.3516, -1, -32.3599, 1.90654, 20.2363, -159.114, -93.1237, 63.2733
2.35965, -1, -32.5234, 1.86249, 20.2472, -159.165, -93.1054, 62.9752
2.3676, -1, -32.6872, 1.81836, 20.2582, -159.217, -93.087, 62.6768
2.37571, -1, -32.851, 1.77432, 20.2691, -159.268, -93.0689, 62.3785
2.3836, -1, -33.0151, 1.73012, 20.28, -159.319, -93.0509, 62.0803
2.39161, -1, -33.1796, 1.6859, 20.2909, -159.37, -93.0331, 61.7816
2.39861, -1, -33.3444, 1.64174, 20.3018, -159.421, -93.0154, 61.4829
2.4076, -1, -33.5097, 1.59751, 20.3128, -159.472, -92.9974, 61.1845
2.41561, -1, -33.6754, 1.55325, 20.3238, -159.524, -92.9791, 60.8858
2.42365, -1, -33.8412, 1.50905, 20.3347, -159.575, -92.9605, 60.5867
2.4316, -1, -34.007, 1.46483, 20.3456, -159.626, -92.9418, 60.2876
2.43961, -1, -34.173, 1.42066, 20.3565, -159.678, -92.9234, 59.9885
2.44767, -1, -34.3391, 1.37648, 20.3675, -159.729, -92.9054, 59.689
2.45665, -1, -34.5051, 1.33227, 20.3784, -159.78, -92.8875, 59.3892
2.4636, -1, -34.6709, 1.28808, 20.3894, -159.832, -92.8698, 59.0898
2.47166, -1, -34.8361, 1.24389, 20.4003, -159.883, -92.8519, 58.7904
2.48074, -1, -35.0012, 1.19966, 20.4113, -159.935, -92.8337, 58.4908
2.4876, -1, -35.1659, 1.15539, 20.4224, -159.986, -92.8152, 58.1909
2.49568, -1, -35.3304, 1.11109, 20.4335, -160.037, -92.7966, 57.8912
2.5036, -1, -35.4944, 1.06696, 20.4446, -160.089, -92.7783, 57.5914
2.5116, -1, -35.6567, 1.02314, 20.4559, -160.14, -92.7602, 57.2916
2.51967, -1, -35.8162, 0.97993, 20.4674, -160.191, -92.7423, 56.9931
2.52759, -1, -35.9717, 0.937848, 20.4793, -160.242, -92.7246, 56.6979
2.53561, -1, -36.1221, 0.897374, 20.4912, -160.291, -92.7071, 56.4086
2.5437, -1, -36.265, 0.859094, 20.5032, -160.338, -92.69, 56.1296
2.5516, -1, -36.3981, 0.823792, 20.5147, -160.384, -92.6735, 55.8669
2.5596, -1, -36.5201, 0.791496, 20.5254, -160.424, -92.6583, 55.627
2.56768, -1, -36.6293, 0.76263, 20.5347, -160.46, -92.6451, 55.4152
2.57561, -1, -36.7241, 0.737566, 20.542, -160.49, -92.634, 55.2367
2.58359, -1, -36.8042, 0.71632, 20.5471, -160.514, -92.6253, 55.0933
2.59167, -1, -36.8706, 0.698859, 20.55, -160.533, -92.6188, 54.9847
2.59962, -1, -36.9239, 0.68485, 20.5513, -160.547, -92.6143, 54.9079
2.6076, -1, -36.9645, 0.673989, 20.5516, -160.556, -92.6114, 54.856
2.61579, -1, -36.9941, 0.666205, 20.5514, -160.561, -92.6097, 54.8245
2.6236, -1, -37.0144, 0.661144, 20.5509, -160.565, -92.6088, 54.8066
2.6316, -1, -37.0268, 0.658116, 20.5506, -160.566, -92.6084, 54.7975
2.63964, 2, -37.0334, 0.656511, 20.5504, -160.567, -92.6081, 54.7932
2.64768, 2, -37.0356, 0.655796, 20.5503, -160.568, -92.6079, 54.7912
2.65568, 2, -37.0354, 0.655495, 20.5503, -160.568, -92.6079, 54.7903
2.66379, 2, -37.0348, 0.65535, 20.5503, -160.568, -92.6078, 54.7899
2.67169, 2, -37.0345, 0.655295, 20.5502, -160.568, -92.6079, 54.7897
2.6797, 2, -37.0349, 0.655251, 20.5502, -160.568, -92.6079, 54.7897
2.68777, 2, -37.0359, 0.655196, 20.5501, -160.568, -92.6079, 54.7897
2.69571, 2, -37.0371, 0.655089, 20.55, -160.568, -92.608, 54.7897
2.7038, 2, -37.0386, 0.65486, 20.5498, -160.568, -92.6081, 54.7898
2.71183, 2, -37.04, 0.654592, 20.5496, -160.568, -92.6081, 54.7898
2.71963, 2, -37.0412, 0.654326, 20.5495, -160.568, -92.6081, 54.7898
2.72768, 2, -37.0422, 0.654109, 20.5493, -160.568, -92.6082, 54.7899
2.73604, 2, -37.0426, 0.654009, 20.5491, -160.568, -92.6082, 54.79
2.74376, 2, -37.0426, 0.65397, 20.5489, -160.568, -92.6082, 54.7901
2.75214, 2, -37.0421, 0.653952, 20.5488, -160.568, -92.6083, 54.7902
2.75995, 2, -37.0413, 0.653974, 20.5487, -160.568, -92.6083, 54.7904
2.76659, 2, -37.0409, 0.653999, 20.5487, -160.568, -92.6083, 54.7905
2.77638, 2, -37.0387, 0.654083, 20.5486, -160.568, -92.6084, 54.7907
2.7843, 2, -37.0373, 0.654156, 20.5485, -160.568, -92.6084, 54.7908
2.79212, 2, -37.0361, 0.654178, 20.5484, -160.568, -92.6084, 54.791
2.80054, 2, -37.0355, 0.654177, 20.5484, -160.568, -92.6084, 54.791
2.80823, 2, -37.0352, 0.654162, 20.5484, -160.568, -92.6084, 54.7911
2.81623, 2, -37.0352, 0.654127, 20.5483, -160.568, -92.6084, 54.7912
2.8244, 2, -37.0355, 0.654056, 20.5483, -160.568, -92.6085, 54.7912
2.83234, 2, -37.0356, 0.654032, 20.5483, -160.568, -92.6085, 54.7912
2.83959, 2, -37.0359, 0.653993, 20.5483, -160.568, -92.6085, 54.7912
2.84843, 2, -37.0366, 0.653975, 20.5483, -160.568, -92.6085, 54.7913
2.85563, 2, -37.0373, 0.653979, 20.5483, -160.568, -92.6085, 54.7913
2.8636, 2, -37.0381, 0.653973, 20.5483, -160.568, -92.6085, 54.7913
2.87159, 2, -37.0386, 0.653991, 20.5483, -160.568, -92.6085, 54.7914
2.87967, 2, -37.0389, 0.654005, 20.5483, -160.568, -92.6086, 54.7914
2.88758, 2, -37.039, 0.654022, 20.5482, -160.568, -92.6086, 54.7915
2.89559, 2, -37.039, 0.654055, 20.5482, -160.568, -92.6086, 54.7915
2.90367, 2, -37.0388, 0.654052, 20.5482, -160.568, -92.6086, 54.7916
2.91159, 2, -37.0384, 0.654051, 20.5482, -160.568, -92.6086, 54.7916
2.91958, 2, -37.0381, 0.65405, 20.5482, -160.568, -92.6086, 54.7917
2.92765, 2, -37.0378, 0.654032, 20.5482, -160.568, -92.6086, 54.7917
2.93559, 2, -37.0377, 0.654, 20.5482, -160.568, -92.6087, 54.7917
2.94359, 2, -37.0376, 0.65399, 20.5482, -160.568, -92.6087, 54.7918
2.95171, 2, -37.0376, 0.653986, 20.5482, -160.568, -92.6086, 54.7918
2.95958, 2, -37.0376, 0.653984, 20.5481, -160.568, -92.6086, 54.7919
2.96947, 2, -37.0377, 0.653983, 20.5481, -160.568, -92.6086, 54.7919
2.97565, 2, -37.0378, 0.654001, 20.5481, -160.568, -92.6087, 54.7919
2.98364, 2, -37.0378, 0.653991, 20.5481, -160.568, -92.6087, 54.792
2.99159, 2, -37.0381, 0.654015, 20.5481, -160.568, -92.6087, 54.7921
2.99966, 2, -37.0382, 0.654023, 20.5481, -160.568, -92.6087, 54.7921
3.00758, 2, -37.0384, 0.654012, 20.5481, -160.568, -92.6087, 54.7921
3.01558, 2, -37.0384, 0.654032, 20.5481, -160.568, -92.6087, 54.7921
3.02366, 2, -37.0384, 0.654024, 20.5481, -160.568, -92.6087, 54.7922
3.03158, 2, -37.0383, 0.65402, 20.5481, -160.568, -92.6087, 54.7923
3.03958, 2, -37.0383, 0.654013, 20.5481, -160.568, -92.6087, 54.7924
3.04768, 2, -37.0383, 0.653996, 20.5481, -160.568, -92.6087, 54.7924
3.05558, 2, -37.0383, 0.653988, 20.548, -160.568, -92.6087, 54.7925
3.0636, 2, -37.0383, 0.653973, 20.548, -160.568, -92.6087, 54.7925
3.07167, 2, -37.0382, 0.653996, 20.548, -160.568, -92.6087, 54.7925
3.07958, 2, -37.0382, 0.653988, 20.548, -160.568, -92.6087, 54.7926
3.08758, 2, -37.0382, 0.654003, 20.548, -160.568, -92.6087, 54.7927
3.09564, 2, -37.0382, 0.654021, 20.548, -160.568, -92.6087, 54.7927
3.10359, 2, -37.0382, 0.654037, 20.548, -160.568, -92.6087, 54.7927
3.11158, 2, -37.0382, 0.654025, 20.548, -160.568, -92.6088, 54.7928
3.11965, 2, -37.0382, 0.654039, 20.548, -160.568, -92.6088, 54.7928
3.12759, 2, -37.0382, 0.654026, 20.5479, -160.568, -92.6087, 54.7929
3.13558, 2, -37.0382, 0.654039, 20.5479, -160.568, -92.6087, 54.7929
3.14367, 2, -37.0382, 0.654034, 20.5479, -160.568, -92.6087, 54.793
3.15166, 2, -37.0382, 0.654024, 20.5479, -160.567, -92.6088, 54.793
3.15967, 2, -37.0382, 0.65402, 20.5479, -160.567, -92.6088, 54.7931
3.16774, 2, -37.0382, 0.65401, 20.5479, -160.568, -92.6088, 54.7931
3.17568, 2, -37.0382, 0.654013, 20.5479, -160.567, -92.6088, 54.7932
3.18369, 2, -37.0381, 0.654004, 20.5479, -160.567, -92.6088, 54.7932
3.19176, 2, -37.0381, 0.654014, 20.5479, -160.567, -92.6088, 54.7932
3.19964, 2, -37.0381, 0.654011, 20.5479, -160.567, -92.6088, 54.7932
3.20759, 2, -37.0381, 0.654025, 20.5479, -160.567, -92.6088, 54.7933
3.21577, 2, -37.0381, 0.654038, 20.5479, -160.567, -92.6088, 54.7933
3.22362, 2, -37.0381, 0.654034, 20.5479, -160.567, -92.6088, 54.7933
3.23163, 2, -37.0381, 0.654053, 20.5479, -160.567, -92.6088, 54.7933
3.23988, 2, -37.038, 0.654052, 20.5478, -160.567, -92.6088, 54.7933
3.24774, 2, -37.0381, 0.654032, 20.5478, -160.567, -92.6088, 54.7934
3.25583, 2, -37.0381, 0.654023, 20.5478, -160.567, -92.6089, 54.7934
3.26406, 2, -37.0381, 0.654027, 20.5478, -160.567, -92.6089, 54.7934
3.27057, 2, -37.0381, 0.654023, 20.5478, -160.567, -92.6089, 54.7935
3.28005, 2, -37.038, 0.654, 20.5478, -160.567, -92.6088, 54.7935
3.28828, 2, -37.038, 0.654009, 20.5478, -160.567, -92.6088, 54.7935
3.29611, 2, -37.038, 0.653994, 20.5478, -160.567, -92.6089, 54.7936
3.30415, 2, -37.038, 0.654017, 20.5478, -160.567, -92.6089, 54.7936
3.31231, 2, -37.038, 0.654046, 20.5478, -160.567, -92.6089, 54.7936
3.32023, 2, -37.038, 0.654037, 20.5478, -160.567, -92.6089, 54.7937
3.3281, 2, -37.038, 0.654041, 20.5478, -160.567, -92.6089, 54.7937
3.33621, 2, -37.0379, 0.654057, 20.5478, -160.567, -92.6089, 54.7937
3.34358, 2, -37.0379, 0.654061, 20.5477, -160.567, -92.6089, 54.7937
3.35157, 2, -37.0379, 0.654066, 20.5477, -160.567, -92.6089, 54.7937
3.35963, 2, -37.0379, 0.654065, 20.5477, -160.567, -92.6089, 54.7937
3.36757, 2, -37.0379, 0.654057, 20.5477, -160.567, -92.6089, 54.7937
3.3757, 2, -37.0378, 0.654035, 20.5477, -160.567, -92.6089, 54.7938
3.38366, 2, -37.0379, 0.654043, 20.5477, -160.567, -92.6089, 54.7938
3.39157, 2, -37.0378, 0.654036, 20.5477, -160.567, -92.6089, 54.7939
3.39957, 2, -37.0378, 0.654036, 20.5477, -160.567, -92.6089, 54.7939
3.40765, 2, -37.0378, 0.654036, 20.5477, -160.567, -92.6089, 54.7939
3.41557, 2, -37.0378, 0.654051, 20.5477, -160.567, -92.609, 54.7939
3.42358, 2, -37.0377, 0.654061, 20.5477, -160.567, -92.6089, 54.7939
3.43162, 2, -37.0378, 0.654092, 20.5477, -160.567, -92.609, 54.794
3.43957, 2, -37.0377, 0.654088, 20.5477, -160.567, -92.609, 54.794
3.44757, 2, -37.0377, 0.654075, 20.5477, -160.567, -92.6089, 54.794
3.45731, 2, -37.0377, 0.654072, 20.5477, -160.567, -92.6089, 54.794
3.46358, 2, -37.0377, 0.654068, 20.5476, -160.567, -92.6089, 54.794
3.47257, 2, -37.0377, 0.654069, 20.5476, -160.567, -92.6089, 54.794
3.47963, 2, -37.0377, 0.654059, 20.5476, -160.567, -92.6089, 54.794
3.48762, 2, -37.0377, 0.654032, 20.5476, -160.567, -92.6089, 54.7941
3.49557, 2, -37.0377, 0.654034, 20.5476, -160.567, -92.6089, 54.7941
3.50365, 2, -37.0377, 0.654061, 20.5476, -160.567, -92.609, 54.7942
3.51156, 2, -37.0376, 0.654044, 20.5476, -160.567, -92.609, 54.7942
3.51957, 2, -37.0376, 0.654058, 20.5476, -160.567, -92.609, 54.7942
3.52764, 2, -37.0376, 0.654083, 20.5476, -160.567, -92.609, 54.7942
3.53557, 2, -37.0376, 0.654083, 20.5476, -160.567, -92.609, 54.7942
3.54358, 2, -37.0376, 0.654073, 20.5476, -160.567, -92.609, 54.7942
3.55167, 2, -37.0376, 0.654071, 20.5476, -160.567, -92.609, 54.7942
3.55956, 2, -37.0376, 0.654078, 20.5475, -160.567, -92.609, 54.7942
3.56757, 2, -37.0375, 0.654081, 20.5475, -160.567, -92.609, 54.7942
3.57566, 2, -37.0375, 0.654083, 20.5475, -160.567, -92.609, 54.7943
3.58357, 2, -37.0375, 0.654083, 20.5475, -160.567, -92.609, 54.7943
3.59157, 2, -37.0376, 0.654073, 20.5475, -160.567, -92.609, 54.7943
3.59963, 2, -37.0375, 0.654071, 20.5475, -160.567, -92.609, 54.7943
3.60757, 2, -37.0375, 0.654078, 20.5475, -160.567, -92.609, 54.7943
3.61557, 2, -37.0375, 0.65407, 20.5475, -160.567, -92.6091, 54.7943
3.62365, 2, -37.0375, 0.654078, 20.5475, -160.567, -92.609, 54.7943
3.63157, 2, -37.0375, 0.654092, 20.5475, -160.567, -92.609, 54.7943
3.63976, 2, -37.0375, 0.654106, 20.5475, -160.567, -92.609, 54.7943
3.64764, 2, -37.0374, 0.654112, 20.5475, -160.567, -92.609, 54.7943
3.65569, 2, -37.0374, 0.654104, 20.5475, -160.567, -92.609, 54.7944
3.66376, 2, -37.0374, 0.654086, 20.5474, -160.567, -92.609, 54.7944
3.67169, 2, -37.0374, 0.654092, 20.5474, -160.567, -92.6091, 54.7944
3.67967, 2, -37.0374, 0.654088, 20.5474, -160.567, -92.6091, 54.7944
3.68773, 2, -37.0374, 0.654097, 20.5474, -160.567, -92.6091, 54.7944
3.69567, 2, -37.0374, 0.654108, 20.5474, -160.567, -92.609, 54.7944
3.70402, 2, -37.0374, 0.654084, 20.5474, -160.567, -92.609, 54.7943
3.71159, 2, -37.0373, 0.654066, 20.5474, -160.567, -92.609, 54.7943
3.71963, 2, -37.0373, 0.654057, 20.5474, -160.567, -92.609, 54.7944
3.72792, 4, -37.0373, 0.654083, 20.5474, -160.567, -92.609, 54.7943
3.73564, 4, -37.0373, 0.654083, 20.5473, -160.567, -92.6091, 54.7944
3.74375, 4, -37.0373, 0.654073, 20.5473, -160.566, -92.609, 54.7944
3.75217, 4, -37.0373, 0.65406, 20.5473, -160.567, -92.609, 54.7944
3.7599, 4, -37.0373, 0.654073, 20.5473, -160.566, -92.609, 54.7944
3.76787, 4, -37.0373, 0.65409, 20.5473, -160.567, -92.609, 54.7944
3.77606, 4, -37.0372, 0.654105, 20.5473, -160.566, -92.609, 54.7944
3.78405, 4, -37.0372, 0.654112, 20.5473, -160.566, -92.6091, 54.7944
3.79206, 4, -37.0372, 0.654097, 20.5473, -160.566, -92.6091, 54.7944
3.8005, 4, -37.0372, 0.654108, 20.5473, -160.566, -92.6091, 54.7944
3.80812, 4, -37.0372, 0.654102, 20.5473, -160.567, -92.6091, 54.7944
3.81622, 4, -37.0371, 0.654103, 20.5473, -160.567, -92.6091, 54.7944
3.82432, 4, -37.0371, 0.654093, 20.5473, -160.567, -92.6091, 54.7944
3.83239, 4, -37.0371, 0.654101, 20.5473, -160.566, -92.6091, 54.7944
3.85447, 4, -37.0371, 0.654098, 20.5473, -160.566, -92.609, 54.7944
3.85705, 4, -37.0371, 0.654104, 20.5473, -160.566, -92.609, 54.7944
3.85883, 4, -37.0371, 0.654104, 20.5473, -160.566, -92.609, 54.7944
3.86373, 4, -37.0371, 0.654109, 20.5472, -160.566, -92.6091, 54.7944
3.87359, 4, -37.0371, 0.654093, 20.5472, -160.566, -92.6091, 54.7944
3.87974, 4, -37.0368, 0.65405, 20.5473, -160.566, -92.6091, 54.7944
3.88767, 4, -37.0354, 0.653638, 20.5473, -160.566, -92.6091, 54.7944
3.89556, 4, -37.0314, 0.651867, 20.5477, -160.566, -92.6091, 54.7944
3.90379, 4, -37.0237, 0.647548, 20.5492, -160.566, -92.6091, 54.7944
3.91153, 4, -37.0123, 0.639846, 20.5531, -160.566, -92.6091, 54.7944
3.91958, 4, -36.9967, 0.628373, 20.5605, -160.565, -92.6091, 54.7944
3.92755, 5, -36.9757, 0.612409, 20.573, -160.562, -92.6091, 54.7944
3.93562, 5, -36.9492, 0.592049, 20.5917, -160.559, -92.609, 54.7944
3.94356, 5, -36.9175, 0.567183, 20.6171, -160.553, -92.6087, 54.7943
3.9517, 5, -36.881, 0.537846, 20.6495, -160.546, -92.6082, 54.7943
3.95963, 5, -36.8397, 0.503961, 20.6881, -160.538, -92.6072, 54.7943
3.9686, 5, -36.7932, 0.465243, 20.7322, -160.528, -92.6059, 54.7943
3.97573, 5, -36.7416, 0.422234, 20.7808, -160.517, -92.6043, 54.7943
3.98361, 5, -36.6853, 0.375465, 20.8324, -160.505, -92.6026, 54.7943
3.99161, 5, -36.625, 0.325891, 20.8862, -160.493, -92.6008, 54.7942
3.99956, 5, -36.5609, 0.274175, 20.9411, -160.481, -92.599, 54.7942
4.00762, 5, -36.4943, 0.22107, 20.9966, -160.469, -92.5971, 54.7942
4.01556, 5, -36.4265, 0.167353, 21.0521, -160.457, -92.5952, 54.7942
4.02371, 5, -36.3579, 0.113394, 21.1078, -160.445, -92.5932, 54.7942
4.03253, 5, -36.2892, 0.0593677, 21.1634, -160.433, -92.5912, 54.7942
4.03963, 5, -36.2203, 0.00547802, 21.2189, -160.421, -92.5892, 54.7942
4.0501, 5, -36.1172, -0.0749064, 21.3022, -160.403, -92.5862, 54.7943
4.05569, 5, -36.083, -0.101571, 21.33, -160.397, -92.5852, 54.7943
4.06363, 5, -36.0144, -0.154766, 21.3853, -160.384, -92.5832, 54.7944
4.07155, 5, -35.9458, -0.207761, 21.4407, -160.371, -92.5811, 54.7945
4.07957, 5, -35.8773, -0.260577, 21.4959, -160.358, -92.579, 54.7948
4.08763, 5, -35.8085, -0.313265, 21.5511, -160.345, -92.5769, 54.7952
4.09555, 5, -35.7396, -0.365978, 21.6061, -160.333, -92.5748, 54.7958
4.1037, 5, -35.6704, -0.418683, 21.661, -160.32, -92.5728, 54.7965
4.11661, 5, -35.566, -0.497876, 21.7429, -160.301, -92.5696, 54.7981
4.11966, 5, -35.5312, -0.524301, 21.7701, -160.295, -92.5685, 54.7987
4.12776, 5, -35.4611, -0.577142, 21.8244, -160.283, -92.5665, 54.8
4.13578, 5, -35.3909, -0.629991, 21.8786, -160.27, -92.5643, 54.8015
4.14357, 5, -35.3205, -0.682796, 21.9327, -160.257, -92.5621, 54.803
4.15181, 5, -35.2499, -0.735544, 21.9866, -160.244, -92.56, 54.8048
4.16068, 5, -35.1793, -0.787974, 22.0404, -160.231, -92.5578, 54.8068
4.16763, 5, -35.1087, -0.840215, 22.0942, -160.217, -92.5556, 54.8088
4.17587, 5, -35.0381, -0.892407, 22.1478, -160.204, -92.5534, 54.8109
4.18713, 5, -34.9676, -0.94423, 22.2013, -160.191, -92.5512, 54.8132
4.19171, 5, -34.8971, -0.995892, 22.2547, -160.178, -92.5489, 54.8156
4.20103, 5, -34.8266, -1.04736, 22.308, -160.165, -92.5466, 54.8181
4.21039, 5, -34.7561, -1.09876, 22.3611, -160.152, -92.5443, 54.8207
4.21564, 5, -34.6854, -1.15019, 22.414, -160.14, -92.542, 54.8234
4.22358, 5, -34.6145, -1.20148, 22.4668, -160.127, -92.5397, 54.8264
4.23236, 5, -34.5436, -1.25288, 22.5192, -160.113, -92.5374, 54.8294
4.23968, 5, -34.4724, -1.30428, 22.5717, -160.1, -92.5352, 54.8325
4.24775, 5, -34.401, -1.35565, 22.624, -160.086, -92.5328, 54.8357
4.25695, 5, -34.3294, -1.40701, 22.6762, -160.072, -92.5304, 54.8391
4.26384, 5, -34.2577, -1.45827, 22.7282, -160.059, -92.528, 54.8425
4.27196, 5, -34.1859, -1.50934, 22.7801, -160.045, -92.5257, 54.846
4.28102, 5, -34.114, -1.56022, 22.8319, -160.032, -92.5234, 54.8497
4.28807, 5, -34.0418, -1.61092, 22.8835, -160.018, -92.521, 54.8535
4.29612, 5, -33.9697, -1.66137, 22.9351, -160.005, -92.5186, 54.8574
4.3057, 5, -33.8975, -1.71159, 22.9866, -159.991, -92.5162, 54.8613
4.31249, 5, -33.8254, -1.76166, 23.0378, -159.978, -92.5138, 54.8654
4.32016, 5, -33.7533, -1.81166, 23.0889, -159.964, -92.5114, 54.8696
4.32851, 5, -33.681, -1.86158, 23.1398, -159.95, -92.5091, 54.8738
4.33552, 5, -33.6448, -1.88648, 23.1652, -159.942, -92.508, 54.876
4.34359, 5, -33.5723, -1.93639, 23.2159, -159.928, -92.5056, 54.8803
4.35155, 5, -33.4996, -1.98659, 23.2665, -159.914, -92.5034, 54.8844
4.35954, 5, -33.4267, -2.03704, 23.3169, -159.9, -92.5011, 54.888
4.36759, 5, -33.3539, -2.08783, 23.3673, -159.886, -92.4988, 54.8903
4.37575, 6, -33.2814, -2.13904, 23.4176, -159.871, -92.4964, 54.8914
4.38567, 6, -33.2092, -2.19095, 23.4935, -159.849, -92.4922, 54.8897
4.39155, 6, -33.1373, -2.24378, 23.519, -159.842, -92.4907, 54.8878
4.39956, 6, -33.0658, -2.29745, 23.5705, -159.826, -92.4869, 54.8805
4.40758, 7, -32.9948, -2.35226, 23.6229, -159.808, -92.4819, 54.868
4.41553, 7, -32.9243, -2.4082, 23.6766, -159.789, -92.4753, 54.8527
4.426, 7, -32.8196, -2.49475, 23.7596, -159.759, -92.462, 54.8266
4.4317, 7, -32.7849, -2.52435, 23.7881, -159.748, -92.4565, 54.8179
4.4395, 7, -32.7162, -2.58477, 23.846, -159.726, -92.4439, 54.8008
4.44831, 8, -32.6481, -2.64683, 23.9054, -159.702, -92.4294, 54.784
4.45556, 8, -32.5807, -2.71064, 23.9661, -159.677, -92.413, 54.7672
4.46354, 8, -32.5141, -2.77621, 24.0279, -159.651, -92.3946, 54.7497
4.47509, 8, -32.4156, -2.87751, 24.1227, -159.61, -92.3639, 54.7211
4.47971, 8, -32.383, -2.91201, 24.1547, -159.596, -92.353, 54.7109
4.48752, 9, -32.3183, -2.98205, 24.2196, -159.567, -92.3306, 54.689
4.49565, 9, -32.2543, -3.05338, 24.2854, -159.537, -92.3069, 54.6653
4.50469, 9, -32.1908, -3.12608, 24.3523, -159.506, -92.282, 54.6399
4.51447, 9, -32.0966, -3.23752, 24.4544, -159.458, -92.2412, 54.5995
4.51953, 9, -32.0655, -3.27532, 24.4889, -159.441, -92.2268, 54.5854
4.52754, 10, -32.0037, -3.35187, 24.5587, -159.408, -92.1971, 54.556
4.53561, 10, -31.9425, -3.4298, 24.6296, -159.373, -92.1664, 54.5247
4.54353, 10, -31.8819, -3.5092, 24.7015, -159.336, -92.1344, 54.4914
4.55178, 10, -31.8218, -3.58997, 24.7746, -159.3, -92.1004, 54.4563
4.56066, 10, -31.7623, -3.67219, 24.8486, -159.263, -92.0648, 54.4202
4.56759, 11, -31.7034, -3.75583, 24.9236, -159.224, -92.0285, 54.3829
4.57562, 11, -31.645, -3.84099, 24.9996, -159.185, -91.9911, 54.3437
4.58354, 11, -31.5872, -3.92764, 25.0764, -159.145, -91.9517, 54.3026
4.59155, 11, -31.5298, -4.01572, 25.1542, -159.104, -91.9107, 54.2599
4.59993, 11, -31.473, -4.10525, 25.2331, -159.061, -91.8691, 54.2162
4.60767, 12, -31.4168, -4.19635, 25.313, -159.018, -91.8258, 54.1711
4.61555, 12, -31.3609, -4.28881, 25.394, -158.974, -91.7803, 54.1239
4.62566, 12, -31.3056, -4.38264, 25.4761, -158.928, -91.7343, 54.075
4.63178, 12, -31.2509, -4.4778, 25.5592, -158.882, -91.6872, 54.0253
4.64065, 12, -31.1965, -4.57435, 25.6434, -158.836, -91.6378, 53.974
4.64752, 13, -31.1428, -4.67234, 25.7284, -158.787, -91.5879, 53.9204
4.65576, 13, -31.0895, -4.77172, 25.8144, -158.739, -91.5363, 53.8657
4.66366, 13, -31.0367, -4.87253, 25.9014, -158.689, -91.4828, 53.81
4.67215, 13, -30.9845, -4.97488, 25.9894, -158.638, -91.4289, 53.7523
4.67979, 13, -30.9328, -5.07869, 26.0786, -158.587, -91.373, 53.6931
4.68791, 14, -30.8816, -5.18387, 26.1689, -158.535, -91.3158, 53.6331
4.69598, 14, -30.831, -5.29056, 26.2603, -158.481, -91.258, 53.5709
4.70377, 14, -30.7811, -5.39873, 26.3526, -158.427, -91.1977, 53.5075
4.71243, 14, -30.7315, -5.50836, 26.4457, -158.372, -91.1373, 53.4435
4.71976, 14, -30.6826, -5.61957, 26.5398, -158.315, -91.0747, 53.3769
4.72758, 14, -30.6341, -5.73223, 26.635, -158.259, -91.0109, 53.3091
4.73557, 15, -30.586, -5.84631, 26.7313, -158.201, -90.9459, 53.2404
4.74374, 15, -30.5385, -5.9616, 26.8289, -158.143, -90.8791, 53.1693
4.75209, 15, -30.4915, -6.07828, 26.9274, -158.083, -90.8118, 53.0977
4.76078, 15, -30.445, -6.19648, 27.0269, -158.022, -90.7421, 53.0241
4.76797, 15, -30.3991, -6.31598, 27.1272, -157.961, -90.672, 52.9486
4.7759, 16, -30.3537, -6.43708, 27.2285, -157.898, -90.5997, 52.8725
4.78429, 16, -30.3087, -6.5597, 27.3309, -157.835, -90.527, 52.7937
4.79209, 16, -30.2642, -6.68364, 27.4346, -157.77, -90.4523, 52.7145
4.80101, 16, -30.2203, -6.80916, 27.5393, -157.705, -90.3768, 52.6335
4.80896, 16, -30.1768, -6.93616, 27.6451, -157.639, -90.2994, 52.5512
4.81632, 17, -30.1337, -7.06476, 27.7517, -157.572, -90.2212, 52.4678
4.82413, 17, -30.1124, -7.12969, 27.8591, -157.504, -90.1414, 52.3829
4.8328, 17, -30.0492, -7.32666, 27.9675, -157.435, -90.0601, 52.2971
4.84073, 17, -30.0078, -7.45953, 28.0771, -157.366, -89.9778, 52.2093
4.84755, 17, -29.9872, -7.52646, 28.1324, -157.33, -89.9362, 52.1652
4.85557, 18, -29.9465, -7.66149, 28.2439, -157.26, -89.8517, 52.0757
4.86353, 18, -29.9063, -7.79792, 28.3563, -157.188, -89.7659, 51.985
4.87156, 18, -29.8666, -7.93583, 28.4695, -157.115, -89.6793, 51.8927
4.88172, 18, -29.8077, -8.14496, 28.6409, -157.004, -89.5466, 51.7521
4.88749, 18, -29.7884, -8.21531, 28.6987, -156.967, -89.5017, 51.7043
4.89554, 19, -29.75, -8.357, 28.8151, -156.891, -89.411, 51.6084
4.90353, 19, -29.7122, -8.50028, 28.9327, -156.815, -89.3193, 51.5109
4.91154, 19, -29.6748, -8.64513, 29.0512, -156.737, -89.2261, 51.4127
4.91957, 19, -29.6378, -8.79141, 29.1705, -156.659, -89.1316, 51.313
4.92767, 19, -29.6014, -8.93883, 29.2905, -156.58, -89.0364, 51.2129
4.93548, 20, -29.5654, -9.08772, 29.4117, -156.5, -88.9398, 51.1108
4.94359, 20, -29.5299, -9.23808, 29.534, -156.42, -88.842, 51.0081
4.9517, 20, -29.4947, -9.39002, 29.6575, -156.338, -88.7436, 50.9038
4.96036, 20, -29.4602, -9.54321, 29.7818, -156.255, -88.6437, 50.7984
4.96752, 20, -29.426, -9.6975, 29.9069, -156.172, -88.543, 50.6917
4.97663, 21, -29.3924, -9.85308, 30.033, -156.087, -88.4411, 50.5838
4.98361, 21, -29.3591, -10.0101, 30.1601, -156.002, -88.3378, 50.475
4.99154, 21, -29.3262, -10.1688, 30.2883, -155.916, -88.2338, 50.365
5.00069, 21, -29.2938, -10.3285, 30.4175, -155.829, -88.1287, 50.2543
5.00766, 21, -29.2618, -10.4891, 30.5475, -155.742, -88.0223, 50.1426
5.01674, 22, -29.2303, -10.651, 30.6784, -155.653, -87.9152, 50.0299
5.02428, 22, -29.1991, -10.8143, 30.8102, -155.563, -87.8071, 49.9167
5.03153, 22, -29.1682, -10.9789, 30.943, -155.473, -87.6978, 49.8024
5.03953, 22, -29.1379, -11.1444, 31.0767, -155.381, -87.5877, 49.6871
5.05094, 22, -29.093, -11.3948, 31.2789, -155.243, -87.4203, 49.5128
5.05564, 22, -29.0782, -11.479, 31.3469, -155.196, -87.3642, 49.4541
5.06352, 23, -29.0489, -11.6488, 31.4832, -155.102, -87.2513, 49.3365
5.07159, 23, -29.02, -11.8195, 31.6203, -155.007, -87.1371, 49.2181
5.0797, 23, -28.9914, -11.991, 31.7583, -154.912, -87.0225, 49.0991
5.08757, 23, -28.9633, -12.1637, 31.8971, -154.816, -86.9067, 48.9797
5.09551, 23, -28.9356, -12.338, 32.0369, -154.718, -86.79, 48.8593
5.10355, 24, -28.9082, -12.5134, 32.1776, -154.62, -86.6724, 48.7388
5.11158, 24, -28.8811, -12.6893, 32.3191, -154.521, -86.5538, 48.6177
5.11952, 24, -28.8543, -12.866, 32.461, -154.421, -86.4346, 48.4956
5.12771, 24, -28.828, -13.0442, 32.6038, -154.321, -86.3143, 48.3732
5.13649, 24, -28.8019, -13.2238, 32.7478, -154.219, -86.1935, 48.2503
5.14359, 25, -28.7761, -13.4041, 32.8924, -154.117, -86.0719, 48.1269
5.1524, 25, -28.7507, -13.5849, 33.0377, -154.014, -85.9494, 48.0034
5.16038, 25, -28.7254, -13.7671, 33.1834, -153.91, -85.8267, 47.8801
5.16781, 25, -28.7003, -13.9506, 33.33, -153.805, -85.7026, 47.7562
5.17639, 25, -28.6756, -14.1349, 33.4775, -153.7, -85.5783, 47.6324
5.18362, 26, -28.6511, -14.3196, 33.6256, -153.593, -85.4533, 47.5085
5.19206, 26, -28.6269, -14.5053, 33.7741, -153.486, -85.3277, 47.3842
5.2015, 26, -28.6031, -14.6926, 33.9233, -153.378, -85.2017, 47.2599
5.20806, 26, -28.5795, -14.8805, 34.0735, -153.27, -85.0747, 47.1356
5.21569, 26, -28.5558, -15.0685, 34.2243, -153.161, -84.9475, 47.0114
5.22354, 27, -28.5325, -15.2572, 34.3755, -153.051, -84.8196, 46.8876
5.23313, 27, -28.5095, -15.4469, 34.5271, -152.94, -84.6914, 46.7645
5.23963, 27, -28.4866, -15.637, 34.6795, -152.829, -84.5624, 46.641
5.25202, 27, -28.4526, -15.923, 34.9093, -152.66, -84.3684, 46.4566
5.25606, 27, -28.4415, -16.019, 34.9861, -152.604, -84.3034, 46.3953
5.26411, 28, -28.4192, -16.212, 35.1397, -152.49, -84.1734, 46.2727
5.27275, 28, -28.3968, -16.4057, 35.2938, -152.376, -84.0429, 46.1506
5.28028, 28, -28.3746, -16.5997, 35.4488, -152.262, -83.9119, 46.029
5.28878, 28, -28.3527, -16.7948, 35.6043, -152.146, -83.781, 45.9083
5.29607, 28, -28.3308, -16.9909, 35.7599, -152.03, -83.6494, 45.7882
5.30413, 28, -28.309, -17.1871, 35.9158, -151.913, -83.5178, 45.6689
5.31295, 29, -28.2874, -17.3834, 36.0725, -151.796, -83.3857, 45.5501
5.32014, 29, -28.2659, -17.5808, 36.23, -151.677, -83.2532, 45.4323
5.32894, 29, -28.2552, -17.6798, 36.3874, -151.558, -83.1203, 45.3153
5.33617, 29, -28.2336, -17.8777, 36.4661, -151.439, -82.9872, 45.1988
5.34413, 29, -28.2123, -18.0756, 36.624, -151.379, -82.9206, 45.1411
5.35307, 30, -28.1912, -18.2741, 36.7827, -151.258, -82.787, 44.9696
5.35963, 30, -28.1699, -18.4733, 36.9416, -151.137, -82.6537, 44.9131
5.36755, 30, -28.1486, -18.6726, 37.1002, -151.015, -82.52, 44.8011
5.37704, 30, -28.1168, -18.972, 37.3381, -150.832, -82.3196, 44.6367
5.38668, 31, -28.0953, -19.1728, 37.4973, -150.709, -82.1853, 44.5294
5.39148, 31, -28.0845, -19.2733, 37.5769, -150.647, -82.1184, 44.4762
5.40211, 31, -28.0522, -19.5743, 37.8153, -150.461, -81.9174, 44.3192
5.40755, 31, -28.0415, -19.6746, 37.8947, -150.399, -81.8503, 44.2677
5.4155, 31, -28.02, -19.8757, 38.0544, -150.275, -81.7164, 44.1661
5.42351, 31, -27.9982, -20.0765, 38.2145, -150.149, -81.582, 44.0656
5.43171, 32, -27.9765, -20.2769, 38.3743, -150.023, -81.4478, 43.9672
5.43951, 32, -27.9545, -20.4776, 38.5338, -149.897, -81.3134, 43.8705
5.44751, 32, -27.9322, -20.679, 38.6935, -149.77, -81.1795, 43.7763
5.45565, 32, -27.9097, -20.8801, 38.8535, -149.643, -81.0454, 43.684
5.4636, 32, -27.887, -21.0808, 39.0131, -149.515, -80.9119, 43.5949
5.47255, 33, -27.864, -21.2817, 39.1719, -149.388, -80.7787, 43.5084
5.47951, 33, -27.8408, -21.4824, 39.3308, -149.26, -80.6459, 43.4251
5.48759, 33, -27.8171, -21.6822, 39.4897, -149.133, -80.5136, 43.3445
5.4955, 33, -27.793, -21.8813, 39.6479, -149.005, -80.3816, 43.2677
5.50371, 33, -27.7684, -22.0805, 39.8051, -148.878, -80.2502, 43.1936
5.51155, 34, -27.7432, -22.2791, 39.9619, -148.75, -80.119, 43.123
5.51951, 34, -27.7177, -22.4766, 40.1187, -148.622, -79.9883, 43.056
5.52872, 34, -27.6916, -22.6736, 40.275, -148.495, -79.8575, 42.9913
5.54028, 34, -27.6519, -22.9687, 40.508, -148.303, -79.6616, 42.9017
5.54355, 34, -27.6383, -23.0668, 40.5855, -148.239, -79.5962, 42.8734
5.55246, 35, -27.6109, -23.2625, 40.7408, -148.111, -79.4656, 42.8186
5.55952, 35, -27.5835, -23.4582, 40.8959, -147.982, -79.3349, 42.7676
5.56757, 35, -27.5559, -23.6544, 41.0504, -147.854, -79.2046, 42.7203
5.57904, 35, -27.5137, -23.9476, 41.2817, -147.66, -79.0093, 42.6553
5.58364, 35, -27.4996, -24.0451, 41.3589, -147.595, -78.9444, 42.6352
5.59248, 36, -27.4711, -24.2405, 41.5132, -147.464, -78.8149, 42.5976
5.60051, 36, -27.4422, -24.4356, 41.6671, -147.334, -78.6852, 42.5642
5.60774, 36, -27.4131, -24.6298, 41.8203, -147.203, -78.5564, 42.5351
5.6155, 36, -27.3835, -24.8233, 41.9732, -147.072, -78.4277, 42.5102
5.6235, 36, -27.3533, -25.0168, 42.1258, -146.941, -78.2996, 42.4895
5.63161, 36, -27.3222, -25.2096, 42.2773, -146.81, -78.1719, 42.4734
5.63952, 37, -27.2902, -25.4009, 42.4275, -146.679, -78.0447, 42.462
5.64751, 37, -27.2573, -25.591, 42.5766, -146.55, -77.9182, 42.4556
5.65571, 37, -27.2235, -25.7805, 42.7247, -146.421, -77.7918, 42.4528
5.66448, 37, -27.1887, -25.9687, 42.8716, -146.293, -77.6663, 42.4534
5.67174, 37, -27.1528, -26.155, 43.017, -146.165, -77.5409, 42.4603
5.67961, 38, -27.1162, -26.3399, 43.1611, -146.039, -77.4163, 42.4731
5.68767, 38, -27.0789, -26.5243, 43.3046, -145.912, -77.2919, 42.491
5.69559, 38, -27.0408, -26.7075, 43.4474, -145.785, -77.1679, 42.5143
5.705, 38, -27.0019, -26.8894, 43.5896, -145.659, -77.0442, 42.5429
5.71177, 38, -26.9624, -27.0706, 43.731, -145.532, -76.9207, 42.5772
5.71965, 39, -26.9224, -27.2518, 43.8718, -145.405, -76.7976, 42.6175
5.72754, 39, -26.8816, -27.4322, 44.012, -145.278, -76.6741, 42.6636
5.73603, 39, -26.84, -27.6113, 44.1515, -145.151, -76.5509, 42.7149
5.74366, 39, -26.7976, -27.7898, 44.2903, -145.024, -76.4276, 42.7724
5.75166, 39, -26.7546, -27.9681, 44.4278, -144.898, -76.3045, 42.8368
5.75981, 40, -26.7104, -28.1452, 44.5642, -144.772, -76.1814, 42.9065
5.76779, 40, -26.6652, -28.3205, 44.6995, -144.646, -76.0587, 42.9833
5.7758, 40, -26.619, -28.4943, 44.8333, -144.522, -75.9368, 43.0665
5.7845, 40, -26.5717, -28.667, 44.9655, -144.399, -75.8152, 43.1558
5.79199, 40, -26.5231, -28.8383, 45.0961, -144.277, -75.6947, 43.2526
5.80059, 41, -26.4735, -29.0076, 45.2253, -144.157, -75.5747, 43.3555
5.80807, 41, -26.4228, -29.1751, 45.3531, -144.037, -75.4549, 43.4655
5.81614, 41, -26.3709, -29.3414, 45.4796, -143.917, -75.336, 43.5821
5.82494, 41, -26.3176, -29.5063, 45.6047, -143.799, -75.217, 43.7057
5.83241, 41, -26.2631, -29.6693, 45.7283, -143.682, -75.099, 43.8365
5.84037, 42, -26.2073, -29.8303, 45.85, -143.566, -74.9811, 43.9746
5.84749, 42, -26.1788, -29.9102, 45.9102, -143.509, -74.9221, 44.0464
5.85708, 42, -26.0911, -30.1473, 46.0878, -143.339, -74.7469, 44.2723
5.86349, 42, -26.061, -30.2254, 46.146, -143.283, -74.6886, 44.3512
5.87155, 42, -25.9996, -30.3797, 46.2607, -143.173, -74.5724, 44.5145
5.87949, 42, -25.9366, -30.5316, 46.3732, -143.065, -74.457, 44.6847
5.89151, 43, -25.8387, -30.7553, 46.5377, -142.906, -74.2844, 44.9546
5.89545, 43, -25.8053, -30.8288, 46.5915, -142.854, -74.2272, 45.0483
5.90349, 43, -25.7372, -30.9741, 46.6976, -142.752, -74.1129, 45.2416
5.91165, 43, -25.6675, -31.117, 46.8018, -142.651, -73.9989, 45.4425
5.91953, 43, -25.5963, -31.2577, 46.9041, -142.552, -73.8856, 45.6511
5.92749, 44, -25.5235, -31.3965, 47.0044, -142.455, -73.7727, 45.8676
5.93565, 44, -25.4489, -31.5331, 47.1023, -142.36, -73.6608, 46.0922
5.94347, 44, -25.3725, -31.6676, 47.1978, -142.267, -73.5492, 46.3248
5.95155, 44, -25.2945, -31.7995, 47.2909, -142.177, -73.4381, 46.5656
5.95949, 44, -25.2146, -31.9287, 47.3816, -142.09, -73.3281, 46.8144
5.96752, 45, -25.1329, -32.0553, 47.4699, -142.005, -73.2184, 47.0717
5.97649, 45, -25.0491, -32.179, 47.5558, -141.923, -73.1093, 47.3376
5.98384, 45, -24.9632, -32.3, 47.6389, -141.844, -73.0008, 47.6115
5.99232, 45, -24.8751, -32.4178, 47.7189, -141.768, -72.8924, 47.8937
5.99949, 45, -24.7847, -32.5325, 47.7959, -141.695, -72.7849, 48.1842
6.0083, 46, -24.6919, -32.6438, 47.8698, -141.624, -72.6778, 48.4834
6.01551, 46, -24.5968, -32.7517, 47.9409, -141.558, -72.5712, 48.7911
6.02356, 46, -24.4992, -32.8562, 48.0089, -141.495, -72.4657, 49.1067
6.03492, 46, -24.3486, -33.0061, 48.1051, -141.408, -72.3089, 49.5964
6.03964, 46, -24.2973, -33.0542, 48.1354, -141.38, -72.2573, 49.7637
6.04846, 47, -24.1928, -33.1476, 48.1935, -141.329, -72.1549, 50.104
6.05557, 47, -24.086, -33.237, 48.2479, -141.282, -72.0535, 50.4528
6.06349, 47, -23.9765, -33.3225, 48.2988, -141.238, -71.9531, 50.81
6.07156, 47, -23.8645, -33.4038, 48.3459, -141.2, -71.8541, 51.1754
6.07949, 47, -23.7498, -33.481, 48.3892, -141.166, -71.7561, 51.5497
6.08763, 48, -23.6322, -33.554, 48.4286, -141.136, -71.6593, 51.9328
6.09635, 48, -23.512, -33.6225, 48.4638, -141.111, -71.5643, 52.3246
6.10349, 48, -23.3891, -33.6864, 48.4949, -141.09, -71.4707, 52.7258
6.11156, 48, -23.2639, -33.7455, 48.5219, -141.075, -71.3788, 53.1366
6.11949, 48, -23.136, -33.7995, 48.5446, -141.065, -71.2892, 53.5564
6.12745, 49, -23.0051, -33.8484, 48.5628, -141.06, -71.2012, 53.9852
6.13582, 49, -22.8715, -33.892, 48.5766, -141.059, -71.115, 54.4217
6.14371, 49, -22.7347, -33.9301, 48.5857, -141.063, -71.0313, 54.8659
6.15159, 49, -22.595, -33.9625, 48.59, -141.074, -70.9494, 55.3178
6.15998, 49, -22.4525, -33.9893, 48.59, -141.092, -70.87, 55.7766
6.1696, 50, -22.3072, -34.0101, 48.5851, -141.115, -70.793, 56.2435
6.17589, 50, -22.1593, -34.0246, 48.5751, -141.145, -70.719, 56.7168
6.18562, 50, -22.0087, -34.033, 48.5599, -141.18, -70.6477, 57.1981
6.192, 50, -21.8552, -34.0353, 48.5395, -141.221, -70.5799, 57.6872
6.19959, 50, -21.6988, -34.0316, 48.5136, -141.269, -70.5148, 58.1838
6.20781, 51, -21.5391, -34.0211, 48.4821, -141.323, -70.4541, 58.6873
6.21643, 51, -21.3767, -34.0039, 48.4454, -141.383, -70.3961, 59.1968
6.22349, 51, -21.2115, -33.9798, 48.4031, -141.45, -70.3422, 59.7128
6.23738, 51, -21.0437, -33.9302, 48.3291, -141.562, -70.2685, 60.4979
6.24065, 51, -20.8734, -33.9102, 48.3017, -141.602, -70.2456, 60.7625
6.24774, 51, -20.7006, -33.8643, 48.2423, -141.688, -70.2034, 61.2955
6.25643, 52, -20.5251, -33.8106, 48.177, -141.779, -70.1661, 61.8352
6.2642, 52, -20.3469, -33.749, 48.1057, -141.877, -70.1332, 62.3815
6.27185, 52, -20.1657, -33.6793, 48.0283, -141.982, -70.1046, 62.9346
6.27989, 52, -19.9819, -33.6014, 47.9446, -142.093, -70.0813, 63.493
6.28826, 52, -19.7956, -33.515, 47.8546, -142.21, -70.0632, 64.058
6.29758, 53, -19.6072, -33.4201, 47.7585, -142.334, -70.0507, 64.6286
6.30409, 53, -19.4168, -33.317, 47.6564, -142.463, -70.0437, 65.2042
6.31208, 53, -19.2244, -33.2057, 47.5484, -142.599, -70.0415, 65.7828
6.32009, 53, -19.0304, -33.0863, 47.4345, -142.739, -70.0444, 66.3653
6.32808, 53, -18.8346, -32.9585, 47.3147, -142.885, -70.0536, 66.9506
6.33689, 54, -18.637, -32.8225, 47.189, -143.036, -70.0689, 67.5372
6.34571, 54, -18.4376, -32.6781, 47.0576, -143.191, -70.091, 68.1246
6.35152, 54, -18.3371, -32.6029, 46.9899, -143.27, -70.1046, 68.4189
6.35948, 54, -18.135, -32.4464, 46.8503, -143.432, -70.1366, 69.0084
6.369, 54, -17.8293, -32.1952, 46.6299, -143.683, -70.1959, 69.896
6.37545, 55, -17.7269, -32.1068, 46.5533, -143.769, -70.2196, 70.1927
6.38353, 55, -17.5215, -31.9232, 46.3955, -143.944, -70.2731, 70.7895
6.3915, 55, -17.3146, -31.7303, 46.2312, -144.124, -70.3336, 71.3908
6.39948, 55, -17.1061, -31.5276, 46.0597, -144.31, -70.4035, 71.9965
6.40754, 55, -16.8958, -31.3143, 45.8803, -144.501, -70.4815, 72.6066
6.41574, 56, -16.6837, -31.0903, 45.694, -144.696, -70.5691, 73.2221
6.42582, 56, -16.3628, -30.7348, 45.4016, -144.998, -70.7171, 74.1534
6.43154, 56, -16.2553, -30.6107, 45.3002, -145.1, -70.7711, 74.4651
6.44119, 56, -15.9328, -30.2228, 44.9855, -145.414, -70.9473, 75.4049
6.44891, 56, -15.8254, -30.0883, 44.8777, -145.521, -71.0105, 75.7195
6.45567, 57, -15.6102, -29.8111, 44.6571, -145.735, -71.1442, 76.3494
6.46361, 57, -15.3939, -29.5238, 44.4293, -145.953, -71.2871, 76.9794
6.47152, 57, -15.1766, -29.2263, 44.1957, -146.173, -71.4396, 77.6104
6.48047, 57, -14.9586, -28.9188, 43.9559, -146.394, -71.6014, 78.2415
6.49042, 57, -14.632, -28.4418, 43.5858, -146.729, -71.8618, 79.1845
6.49572, 58, -14.5234, -28.2787, 43.4604, -146.84, -71.9529, 79.4979
6.50654, 58, -14.1992, -27.7783, 43.0773, -147.175, -72.2383, 80.4328
6.51152, 58, -14.0918, -27.6074, 42.948, -147.286, -72.3374, 80.7418
6.51948, 58, -13.8782, -27.2606, 42.6872, -147.507, -72.5411, 81.3548
6.52748, 58, -13.6659, -26.9067, 42.4226, -147.726, -72.7521, 81.9626
6.53554, 58, -13.4548, -26.5465, 42.1557, -147.943, -72.9701, 82.5645
6.54349, 59, -13.2452, -26.1791, 41.8848, -148.159, -73.1956, 83.1608
6.55147, 59, -13.0373, -25.8049, 41.6103, -148.373, -73.4289, 83.7519
6.55955, 59, -12.8311, -25.4239, 41.3322, -148.585, -73.6703, 84.3393
6.5677, 59, -12.6261, -25.0364, 41.0501, -148.795, -73.9197, 84.9229
6.57655, 59, -12.4221, -24.6415, 40.7646, -149.003, -74.1779, 85.5021
6.58348, 60, -12.2193, -24.2396, 40.4746, -149.209, -74.4443, 86.0771
6.59198, 60, -12.018, -23.831, 40.1817, -149.413, -74.719, 86.6484
6.60031, 60, -11.8182, -23.4164, 39.8854, -149.615, -75.0017, 87.2155
6.60748, 60, -11.6201, -22.9954, 39.5874, -149.814, -75.292, 87.7764
6.61633, 61, -11.4243, -22.5695, 39.2877, -150.009, -75.5891, 88.3319
6.62937, 61, -11.135, -21.9229, 38.8357, -150.295, -76.0463, 89.1529
6.63217, 61, -11.0396, -21.7053, 38.6845, -150.388, -76.2013, 89.4226
6.64166, 61, -10.8506, -21.2676, 38.3816, -150.57, -76.5148, 89.9552
6.65062, 61, -10.6637, -20.8263, 38.0788, -150.748, -76.8333, 90.738
6.65548, 61, -10.4791, -20.381, 37.775, -150.92, -77.1564, 90.9947
6.66349, 62, -10.2969, -19.9316, 37.4713, -151.089, -77.4843, 91.5022
6.67177, 62, -10.1175, -19.4787, 37.1665, -151.252, -77.8175, 92.0019
6.6796, 62, -9.94066, -19.0232, 36.8612, -151.412, -78.1564, 92.4939
6.6879, 62, -9.76643, -18.565, 36.5544, -151.566, -78.5007, 92.9795
6.69573, 62, -9.59476, -18.1054, 36.2476, -151.717, -78.8503, 93.4572
6.70443, 63, -9.42526, -17.6451, 35.9411, -151.862, -79.2039, 93.9269
6.712, 63, -9.25799, -17.1837, 35.636, -152.003, -79.5608, 94.3861
6.72047, 63, -9.09323, -16.7208, 35.3331, -152.137, -79.9196, 94.8347
6.72828, 63, -8.93118, -16.2561, 35.0318, -152.266, -80.2801, 95.2726
6.7355, 63, -8.77174, -15.789, 34.7328, -152.389, -80.6418, 95.6986
6.7439, 63, -8.6148, -15.32, 34.4353, -152.506, -81.0056, 96.1147
6.75278, 64, -8.46022, -14.8492, 34.1399, -152.618, -81.3727, 96.5202
6.75962, 64, -8.30802, -14.3766, 33.844, -152.726, -81.744, 96.9163
6.76862, 64, -8.15807, -13.9033, 33.5482, -152.829, -82.1207, 97.3042
6.77573, 64, -8.01034, -13.4299, 33.2516, -152.928, -82.5028, 97.6827
6.78387, 64, -7.8649, -12.9565, 32.9555, -153.021, -82.8893, 98.0511
6.79327, 65, -7.72211, -12.484, 32.6608, -153.11, -83.2788, 98.4084
6.80047, 65, -7.58214, -12.0121, 32.3686, -153.193, -83.6698, 98.7525
6.80905, 65, -7.44522, -11.5408, 32.0805, -153.269, -84.0606, 99.0823
6.81844, 65, -7.31132, -11.0699, 31.7962, -153.34, -84.4501, 99.3973
6.82431, 65, -7.18044, -10.6007, 31.5169, -153.404, -84.838, 99.697
6.83288, 66, -7.11592, -10.3673, 31.2416, -153.463, -85.224, 99.9811
6.84, 66, -6.9886, -9.90306, 31.1055, -153.49, -85.609, 100.249
6.84956, 66, -6.80173, -9.21687, 30.7044, -153.562, -85.9923, 100.501
6.85551, 66, -6.74055, -8.99138, 30.5725, -153.583, -86.1833, 100.621
6.86348, 66, -6.61981, -8.54581, 30.3124, -153.621, -86.5633, 100.848
6.87241, 67, -6.50157, -8.10702, 30.0579, -153.668, -87.1263, 101.157
6.87965, 67, -6.38627, -7.67521, 29.8093, -153.681, -87.3116, 101.251
6.88746, 67, -6.27391, -7.25006, 29.5682, -153.701, -87.678, 101.425
6.89703, 67, -6.11052, -6.62401, 29.2199, -153.722, -88.2162, 101.654
6.9049, 67, -6.05735, -6.21514, 28.9961, -153.729, -88.5678, 101.784
6.91146, 68, -5.95269, -6.01318, 28.8867, -153.73, -88.7419, 101.843
6.922, 68, -5.7993, -5.41664, 28.5656, -153.73, -89.2583, 101.992
6.92751, 68, -5.74902, -5.22068, 28.4605, -153.727, -89.4292, 102.034
6.93547, 68, -5.6497, -4.83286, 28.253, -153.719, -89.7698, 102.104
6.94348, 68, -5.55191, -4.45, 28.0487, -153.706, -90.1095, 102.155
6.95332, 69, -5.40842, -3.88318, 27.7473, -153.678, -90.6177, 102.197
6.95946, 69, -5.36146, -3.69602, 27.6488, -153.667, -90.787, 102.203
6.96912, 69, -5.26882, -3.32419, 27.3592, -153.625, -91.2941, 102.192
6.97549, 69, -5.17797, -2.95583, 27.2641, -153.609, -91.463, 102.177
6.98446, 69, -5.08884, -2.59108, 27.0765, -153.575, -91.7999, 102.132
6.99149, 70, -5.00119, -2.22917, 26.8931, -153.537, -92.1357, 102.065
6.99963, 70, -4.91487, -1.87131, 26.7134, -153.495, -92.4703, 101.977
7.00745, 70, -4.82975, -1.5181, 26.537, -153.448, -92.8034, 101.866
7.01556, 70, -4.74567, -1.17024, 26.3646, -153.399, -93.1345, 101.732
7.0237, 70, -4.66272, -0.827374, 26.1969, -153.347, -93.4634, 101.577
7.03248, 71, -4.58085, -0.491057, 26.033, -153.291, -93.7895, 101.4
7.04046, 71, -4.49999, -0.160947, 25.873, -153.233, -94.1125, 101.202
7.04854, 71, -4.42026, 0.162113, 25.7184, -153.172, -94.4321, 100.983
7.05553, 71, -4.3414, 0.478851, 25.5693, -153.109, -94.7475, 100.744
7.06347, 71, -4.26329, 0.789552, 25.4249, -153.043, -95.0592, 100.484
7.07161, 71, -4.18611, 1.0931, 25.2853, -152.976, -95.3669, 100.205
7.07972, 72, -4.10946, 1.3901, 25.1501, -152.907, -95.6711, 99.9059
7.08746, 72, -4.03309, 1.68003, 25.0188, -152.836, -95.972, 99.5864
7.09648, 72, -3.95704, 1.96373, 24.8909, -152.765, -96.2703, 99.2462
7.10451, 72, -3.88102, 2.24158, 24.7662, -152.692, -96.566, 98.8854
7.11246, 72, -3.805, 2.51301, 24.6445, -152.619, -96.8595, 98.5031
7.12052, 73, -3.72913, 2.77881, 24.5259, -152.545, -97.1505, 98.0986
7.1276, 73, -3.65308, 3.03839, 24.4105, -152.472, -97.439, 97.6719
7.13644, 73, -3.57671, 3.29145, 24.2988, -152.398, -97.725, 97.2222
7.14682, 73, -3.46145, 3.65958, 24.1382, -152.289, -98.1482, 96.5079
7.15168, 73, -3.42284, 3.77863, 24.0867, -152.253, -98.2875, 96.2592
7.15947, 74, -3.34509, 4.0104, 23.9865, -152.182, -98.5629, 95.7475
7.16751, 74, -3.26666, 4.23404, 23.8902, -152.113, -98.8332, 95.2183
7.17553, 74, -3.18768, 4.44915, 23.7981, -152.045, -99.0979, 94.6741
7.18366, 74, -3.10798, 4.65458, 23.7101, -151.979, -99.3562, 94.1176
7.19155, 74, -3.02763, 4.85015, 23.6266, -151.916, -99.6071, 93.5494
7.19973, 75, -2.94636, 5.03615, 23.5474, -151.854, -99.8499, 92.9716
7.20852, 75, -2.86414, 5.2119, 23.4725, -151.797, -100.084, 92.3863
7.21552, 75, -2.78097, 5.37655, 23.4016, -151.741, -100.309, 91.7943
7.22402, 75, -2.69692, 5.53046, 23.3346, -151.69, -100.524, 91.1952
7.23243, 75, -2.61193, 5.67357, 23.2717, -151.641, -100.73, 90.5898
7.2395, 76, -2.526, 5.80532, 23.2129, -151.596, -100.927, 89.9777
7.25027, 76, -2.43901, 5.92562, 23.1586, -151.554, -101.114, 89.3572
7.25568, 76, -2.3512, 6.03416, 23.1085, -151.517, -101.292, 88.7276
7.26442, 76, -2.26261, 6.13041, 23.0627, -151.483, -101.461, 88.0898
7.27173, 76, -2.17321, 6.21417, 23.0216, -151.453, -101.62, 87.4456
7.28017, 77, -2.08298, 6.28502, 22.9854, -151.427, -101.767, 86.7953
7.28875, 77, -1.99189, 6.34283, 22.9545, -151.405, -101.902, 86.1433
7.29594, 77, -1.89986, 6.38724, 22.9292, -151.388, -102.024, 85.4928
7.30476, 77, -1.80692, 6.41756, 22.9095, -151.374, -102.131, 84.8446
7.31204, 77, -1.71318, 6.43386, 22.8957, -151.364, -102.224, 84.1999
7.32005, 77, -1.61859, 6.43578, 22.8878, -151.358, -102.301, 83.5599
7.32917, 78, -1.52329, 6.42265, 22.8853, -151.354, -102.363, 82.9242
7.33601, 78, -1.47539, 6.41033, 22.8883, -151.354, -102.41, 82.2915
7.34483, 78, -1.37934, 6.3742, 22.8974, -151.356, -102.441, 81.6634
7.35238, 78, -1.28297, 6.32215, 22.9126, -151.363, -102.456, 81.0406
7.35944, 78, -1.18632, 6.25394, 22.9227, -151.367, -102.458, 80.7311
7.3675, 79, -1.08953, 6.16956, 22.948, -151.379, -102.448, 80.1167
7.37548, 79, -0.99258, 6.06916, 22.9805, -151.393, -102.42, 79.5098
7.38351, 79, -0.895544, 5.95253, 23.0204, -151.41, -102.375, 78.9123
7.39145, 79, -0.798533, 5.81955, 23.0677, -151.431, -102.313, 78.3239
7.39946, 79, -0.701552, 5.66998, 23.1227, -151.454, -102.232, 77.7454
7.40749, 80, -0.604481, 5.50395, 23.1852, -151.479, -102.134, 77.1774
7.41544, 80, -0.507349, 5.32135, 23.2554, -151.506, -102.017, 76.6203
7.42717, 80, -0.361829, 5.01627, 23.3757, -151.549, -101.806, 75.8031
7.43158, 80, -0.313405, 4.90592, 23.4199, -151.564, -101.727, 75.5354
7.43942, 80, -0.216609, 4.67139, 23.5145, -151.596, -101.554, 75.007
7.44752, 81, -0.119955, 4.41917, 23.6179, -151.63, -101.361, 74.4887
7.4556, 81, -0.0234609, 4.15036, 23.7301, -151.664, -101.149, 73.9796
7.46349, 81, 0.0728005, 3.86437, 23.8516, -151.699, -100.919, 73.4793
7.47315, 81, 0.168847, 3.56197, 23.9826, -151.735, -100.536, 72.7468
7.47963, 81, 0.264712, 3.24211, 24.1235, -151.772, -100.399, 72.5074
7.48749, 82, 0.360299, 2.90504, 24.2743, -151.809, -100.11, 72.0361
7.49546, 82, 0.455711, 2.55135, 24.4345, -151.847, -99.8028, 71.574
7.50347, 82, 0.550869, 2.18186, 24.6038, -151.884, -99.476, 71.1218
7.51146, 82, 0.645819, 1.79633, 24.7829, -151.922, -99.1313, 70.6789
7.51956, 82, 0.740635, 1.39415, 24.9715, -151.958, -98.7691, 70.2464
7.52805, 83, 0.835355, 0.975866, 25.1692, -151.994, -98.3899, 69.8243
7.5366, 83, 0.930054, 0.543206, 25.3766, -152.03, -97.9945, 69.412
7.54351, 83, 1.02476, 0.0958217, 25.5945, -152.064, -97.5832, 69.0104
7.55808, 83, 1.21449, -0.841995, 26.0564, -152.128, -96.7147, 68.2376
7.56022, 83, 1.21449, -0.841995, 26.0564, -152.128, -96.7147, 68.2376
7.56831, 84, 1.30949, -1.33232, 26.3019, -152.158, -96.2578, 67.866
7.57645, 84, 1.40478, -1.83648, 26.5571, -152.187, -95.7853, 67.5027
7.58351, 84, 1.50029, -2.35363, 26.8229, -152.215, -95.2981, 67.1472
7.59145, 84, 1.59612, -2.88432, 27.0987, -152.24, -94.7948, 66.7992
7.59944, 84, 1.69223, -3.42839, 27.3847, -152.264, -94.2765, 66.4581
7.60938, 85, 1.78884, -3.98598, 27.6816, -152.287, -93.7432, 66.1236
7.6156, 85, 1.88572, -4.5564, 27.9881, -152.307, -93.1948, 65.7967
7.6245, 85, 1.98293, -5.13796, 28.3051, -152.326, -92.6316, 65.4779
7.63145, 85, 2.08048, -5.72995, 28.631, -152.343, -92.0563, 65.1666
7.6406, 85, 2.17841, -6.331, 28.9663, -152.358, -91.4707, 64.8639
7.6485, 85, 2.27706, -6.93994, 29.3099, -152.369, -90.8744, 64.5704
7.6556, 86, 2.37634, -7.55637, 29.6615, -152.378, -90.2685, 64.2868
7.66433, 86, 2.47653, -8.17891, 30.02, -152.383, -89.6538, 64.0135
7.67556, 86, 2.57778, -8.80748, 30.385, -152.387, -88.7173, 63.6238
7.67951, 86, 2.67968, -9.44175, 30.7557, -152.387, -88.4032, 63.4998
7.68765, 86, 2.78278, -10.0802, 31.1316, -152.385, -87.7716, 63.2604
7.69556, 87, 2.88699, -10.7223, 31.513, -152.378, -87.1343, 63.0326
7.70355, 87, 2.99171, -11.3669, 31.8987, -152.368, -86.4918, 62.8171
7.71353, 87, 3.09757, -12.0138, 32.2889, -152.355, -85.8444, 62.6139
7.71962, 87, 3.20419, -12.6625, 32.6834, -152.337, -85.1932, 62.4237
7.72744, 87, 3.3114, -13.313, 33.0828, -152.316, -84.5392, 62.2465
7.73547, 88, 3.41943, -13.9657, 33.4869, -152.29, -83.8808, 62.0824
7.74354, 88, 3.52811, -14.6203, 33.8947, -152.261, -83.2184, 61.9319
7.75149, 88, 3.6375, -15.2767, 34.3071, -152.229, -82.552, 61.7953
7.75958, 88, 3.74761, -15.9342, 34.7238, -152.191, -81.8817, 61.673
7.76809, 88, 3.85818, -16.5929, 35.1446, -152.148, -81.2093, 61.566
7.77574, 89, 3.96913, -17.2514, 35.5699, -152.101, -80.5335, 61.4748
7.78385, 89, 4.08022, -17.9087, 35.9987, -152.049, -79.8545, 61.4012
7.79647, 89, 4.19118, -18.5636, 36.4303, -151.991, -78.8281, 61.3239
7.80035, 89, 4.30214, -19.2158, 36.8644, -151.928, -78.4845, 61.3076
7.80831, 89, 4.41305, -19.8636, 37.299, -151.858, -77.7994, 61.2893
7.81635, 90, 4.52399, -20.5063, 37.7327, -151.785, -77.1169, 61.2907
7.82402, 90, 4.63562, -21.1443, 38.1656, -151.704, -76.4364, 61.3169
7.832, 90, 4.74762, -21.7771, 38.5963, -151.619, -75.7601, 61.3669
7.84007, 90, 4.85988, -22.4049, 39.0245, -151.528, -75.0895, 61.4412
7.8483, 90, 4.91608, -23.0278, 39.4505, -151.432, -74.426, 61.542
7.85634, 91, 5.0846, -23.6461, 39.8743, -151.329, -73.7665, 61.6691
7.86348, 91, 5.1407, -23.9533, 40.0858, -151.276, -73.4373, 61.743
7.87155, 91, 5.25249, -24.5625, 40.5079, -151.164, -72.7797, 61.9124
7.87944, 91, 5.36353, -25.1653, 40.93, -151.045, -72.1217, 62.1103
7.88748, 91, 5.47363, -25.7617, 41.3515, -150.919, -71.4617, 62.3382
7.89796, 92, 5.63749, -26.6423, 41.982, -150.719, -70.474, 62.7376
7.90348, 92, 5.69203, -26.9324, 42.1916, -150.649, -70.1452, 62.8866
7.91144, 92, 5.80145, -27.5064, 42.6085, -150.505, -69.489, 63.2079
7.91943, 92, 5.91154, -28.0723, 43.0211, -150.356, -68.8358, 63.5604
7.92955, 92, 6.07799, -28.904, 43.63, -150.124, -67.8631, 64.1482
7.93545, 92, 6.13408, -29.176, 43.8298, -150.045, -67.542, 64.3596
7.94343, 93, 6.24735, -29.7119, 44.2247, -149.885, -66.9046, 64.8065
7.95944, 93, 6.47953, -30.753, 44.9953, -149.559, -65.6424, 65.796
7.96167, 93, 6.53898, -31.0076, 45.1844, -149.476, -65.3288, 66.0642
7.9675, 93, 6.59891, -31.2607, 45.3724, -149.394, -65.0155, 66.3411
7.97746, 93, 6.78207, -32.0116, 45.9296, -149.146, -64.0768, 67.2297
7.98371, 94, 6.84426, -32.2594, 46.1139, -149.063, -63.7632, 67.5471
7.99145, 94, 6.97031, -32.7512, 46.4804, -148.896, -63.1316, 68.2176
7.99947, 94, 7.09852, -33.2373, 46.8454, -148.729, -62.4935, 68.9406
8.00846, 94, 7.2289, -33.7158, 47.2083, -148.563, -61.8491, 69.7165
8.01544, 94, 7.36222, -34.1869, 47.5681, -148.4, -61.1984, 70.5441
8.02348, 95, 7.49954, -34.6498, 47.9214, -148.243, -60.5461, 71.4261
8.03144, 95, 7.64185, -35.1023, 48.2664, -148.095, -59.8964, 72.3549
8.03943, 95, 7.79012, -35.5441, 48.6005, -147.959, -59.2516, 73.3245
8.0475, 95, 7.94475, -35.9724, 48.9222, -147.837, -58.6142, 74.3333
8.05543, 95, 8.10623, -36.3828, 49.2286, -147.732, -57.9854, 75.3754
8.06371, 96, 8.27455, -36.7731, 49.5195, -147.645, -57.3671, 76.4516
8.07143, 96, 8.44978, -37.1425, 49.7936, -147.578, -56.7631, 77.5574
8.07943, 96, 8.63083, -37.4886, 50.0507, -147.531, -56.1733, 78.6914
8.08751, 96, 8.81707, -37.8099, 50.2905, -147.505, -55.5985, 79.8478
8.09543, 96, 9.00801, -38.1056, 50.5111, -147.498, -55.0412, 81.0214
8.10349, 96, 9.20229, -38.3764, 50.7122, -147.513, -54.5042, 82.2054
8.11149, 97, 9.39823, -38.6217, 50.8939, -147.549, -53.9897, 83.3993
8.11942, 97, 9.59449, -38.8416, 51.055, -147.608, -53.5004, 84.5979
8.12745, 97, 9.79, -39.0369, 51.1957, -147.685, -53.0374, 85.7904
8.13549, 97, 9.98413, -39.2075, 51.3169, -147.781, -52.6036, 86.97
8.14343, 97, 10.1757, -39.3522, 51.4184, -147.891, -52.1996, 88.1292
8.15153, 97, 10.3635, -39.4715, 51.5008, -148.014, -51.8264, 89.2619
8.15963, 98, 10.5478, -39.5656, 51.565, -148.147, -51.4838, 90.3608
8.1675, 98, 10.7296, -39.6356, 51.6112, -148.291, -51.1716, 91.4266
8.17546, 98, 10.9097, -39.6829, 51.6399, -148.444, -50.8873, 92.467
8.18353, 98, 11.0882, -39.707, 51.6513, -148.608, -50.6272, 93.4967
8.19173, 98, 11.2645, -39.7077, 51.6461, -148.784, -50.3882, 94.5297
8.19953, 98, 11.4397, -39.6851, 51.6236, -148.974, -50.168, 95.576
8.20753, 98, 11.6151, -39.6385, 51.5835, -149.177, -49.9667, 96.6437
8.2156, 99, 11.7903, -39.5686, 51.5256, -149.394, -49.7859, 97.7326
8.22351, 99, 11.964, -39.4762, 51.4492, -149.621, -49.6281, 98.8387
8.23195, 99, 12.135, -39.3611, 51.3543, -149.858, -49.4968, 99.9502
8.23954, 99, 12.3022, -39.2236, 51.2414, -150.1, -49.3947, 101.057
8.24748, 99, 12.4642, -39.064, 51.1111, -150.344, -49.3236, 102.147
8.25558, 99, 12.6189, -38.8821, 50.9647, -150.587, -49.2832, 103.213
8.26425, 100, 12.765, -38.6762, 50.8028, -150.827, -49.2742, 104.248
8.27167, 100, 12.9024, -38.4461, 50.6242, -151.062, -49.2972, 105.255
8.27977, 100, 13.0306, -38.1934, 50.4286, -151.291, -49.3517, 106.232
8.28775, 100, 13.1504, -37.9185, 50.2165, -151.515, -49.4373, 107.186
8.29678, 100, 13.2621, -37.6228, 49.9868, -151.732, -49.5543, 108.116
8.30472, 100, 13.3655, -37.3042, 49.7388, -151.943, -49.7019, 109.025
8.31226, 101, 13.4609, -36.9615, 49.4742, -152.146, -49.8798, 109.912
8.32012, 101, 13.5482, -36.5928, 49.192, -152.34, -50.0875, 110.774
8.32796, 101, 13.6276, -36.1976, 48.8929, -152.526, -50.325, 111.616
8.33677, 101, 13.6988, -35.7766, 48.5754, -152.702, -50.5931, 112.434
8.3542, 101, 13.8166, -34.863, 47.8849, -153.024, -51.2261, 114.009
8.35595, 101, 13.8166, -34.863, 47.8849, -153.024, -51.2261, 114.009
8.36008, 102, 13.8407, -34.6198, 47.7009, -153.098, -51.4053, 114.763
8.36742, 102, 13.882, -34.1156, 47.3193, -153.237, -51.7894, 115.132
8.37543, 102, 13.914, -33.5867, 46.9201, -153.363, -52.2069, 115.855
8.38347, 102, 13.937, -33.0341, 46.5045, -153.475, -52.6577, 116.551
8.39141, 102, 13.9514, -32.4592, 46.0747, -153.574, -53.1402, 117.222
8.39964, 103, 13.9575, -31.8618, 45.6308, -153.659, -53.6514, 117.866
8.40749, 103, 13.956, -31.2437, 45.1734, -153.729, -54.1886, 118.483
8.41541, 103, 13.9475, -30.6074, 44.7042, -153.786, -54.7498, 119.072
8.42342, 103, 13.9325, -29.9552, 44.2248, -153.829, -55.332, 119.635
8.43372, 103, 13.8991, -28.9508, 43.49, -153.87, -56.2388, 120.428
8.43944, 103, 13.8853, -28.6096, 43.2418, -153.878, -56.5493, 120.68
8.44738, 104, 13.8544, -27.9195, 42.7415, -153.886, -57.18, 121.162
8.45548, 104, 13.8193, -27.2203, 42.2375, -153.883, -57.8225, 121.619
8.46341, 104, 13.7803, -26.5139, 41.7308, -153.87, -58.4786, 122.054
8.47142, 104, 13.7378, -25.8013, 41.2217, -153.848, -59.1473, 122.468
8.47949, 104, 13.693, -25.0848, 40.7118, -153.818, -59.8268, 122.864
8.48847, 104, 13.6464, -24.3659, 40.2015, -153.78, -60.5138, 123.244
8.49542, 104, 13.5981, -23.6451, 39.6914, -153.735, -61.2063, 123.613
8.50349, 104, 13.5482, -22.9228, 39.1822, -153.685, -61.9045, 123.974
8.51141, 104, 13.4975, -22.2002, 38.674, -153.63, -62.6059, 124.329
8.51941, 104, 13.4461, -21.4768, 38.1676, -153.57, -63.3094, 124.681
8.52753, 104, 13.3942, -20.7537, 37.6626, -153.506, -64.0135, 125.031
8.53541, 104, 13.3419, -20.0307, 37.1587, -153.437, -64.718, 125.38
8.54342, 104, 13.2895, -19.3073, 36.6568, -153.364, -65.4243, 125.726
8.55149, 104, 13.237, -18.5837, 36.157, -153.288, -66.1316, 126.072
8.5595, 104, 13.1846, -17.8602, 35.6595, -153.208, -66.8397, 126.417
8.56741, 104, 13.1325, -17.136, 35.1644, -153.123, -67.5484, 126.762
8.57552, 104, 13.0807, -16.4114, 34.6711, -153.034, -68.2562, 127.106
8.58342, 104, 13.0293, -15.6872, 34.1802, -152.942, -68.9652, 127.45
8.59141, 104, 12.9783, -14.9625, 33.6913, -152.846, -69.6763, 127.793
8.59948, 104, 12.9274, -14.237, 33.2047, -152.746, -70.3881, 128.137
8.60741, 104, 12.8769, -13.5117, 32.7208, -152.642, -71.0986, 128.48
8.61542, 104, 12.8268, -12.786, 32.2397, -152.534, -71.8091, 128.824
8.62348, 104, 12.7769, -12.0604, 31.7613, -152.423, -72.5219, 129.169
8.63141, 104, 12.7274, -11.3354, 31.2852, -152.307, -73.2349, 129.514
8.63941, 104, 12.6783, -10.6101, 30.8116, -152.188, -73.9482, 129.859
8.64748, 104, 12.6295, -9.88477, 30.3411, -152.065, -74.6612, 130.205
8.65545, 104, 12.581, -9.15931, 29.8737, -151.937, -75.3745, 130.552
8.66348, 104, 12.5332, -8.43342, 29.4092, -151.806, -76.0891, 130.9
8.67143, 104, 12.4857, -7.70731, 28.948, -151.67, -76.8041, 131.249
8.67946, 104, 12.4388, -6.98171, 28.4901, -151.531, -77.5201, 131.599
8.68756, 104, 12.3927, -6.2566, 28.0354, -151.387, -78.2353, 131.95
8.6959, 104, 12.3469, -5.53184, 27.5843, -151.239, -78.9493, 132.303
8.70352, 104, 12.3018, -4.80784, 27.1369, -151.087, -79.6646, 132.656
8.71159, 104, 12.2576, -4.08548, 26.6939, -150.93, -80.3803, 133.011
8.71951, 104, 12.2144, -3.36581, 26.2559, -150.77, -81.0953, 133.368
8.72742, 104, 12.1723, -2.65118, 25.8228, -150.606, -81.8062, 133.724
8.73555, 104, 12.1316, -1.94286, 25.3959, -150.438, -82.5132, 134.081
8.74347, 104, 12.092, -1.24204, 24.9767, -150.268, -83.2163, 134.436
8.75147, 104, 12.0533, -0.550008, 24.5658, -150.094, -83.9116, 134.79
8.75958, 104, 12.0156, 0.1319, 24.1649, -149.92, -84.5963, 135.14
8.76754, 104, 11.9789, 0.80289, 23.7752, -149.744, -85.2676, 135.486
8.77561, 104, 11.9433, 1.46115, 23.3981, -149.568, -85.9243, 135.827
8.78403, 104, 11.909, 2.10596, 23.0336, -149.392, -86.5671, 136.162
8.79249, 104, 11.8758, 2.73544, 22.6814, -149.216, -87.1941, 136.49
8.79979, 104, 11.8436, 3.34878, 22.342, -149.041, -87.8049, 136.812
8.80792, 104, 11.8128, 3.94546, 22.0159, -148.868, -88.3992, 137.127
8.81666, 104, 11.7832, 4.52523, 21.7024, -148.695, -88.9757, 137.435
8.82398, 104, 11.7549, 5.08859, 21.401, -148.524, -89.5351, 137.737
8.83287, 104, 11.7281, 5.63447, 21.111, -148.355, -90.0791, 138.031
8.83997, 104, 11.715, 6.1631, 20.8333, -148.188, -90.607, 138.318
8.84861, 104, 11.6898, 6.4214, 20.6988, -148.105, -91.1186, 138.598
8.85599, 104, 11.6657, 6.92522, 20.4382, -147.942, -91.6134, 138.871
8.86345, 104, 11.6428, 7.41177, 20.1896, -147.781, -91.8542, 139.004
8.87142, 104, 11.621, 7.88192, 19.9518, -147.622, -92.323, 139.265
8.87945, 104, 11.6004, 8.33529, 19.7247, -147.467, -92.7754, 139.519
8.8874, 104, 11.5809, 8.77188, 19.509, -147.316, -93.2113, 139.765
8.8954, 104, 11.5626, 9.19074, 19.3036, -147.168, -93.6304, 140.002
8.90345, 104, 11.5454, 9.59254, 19.1083, -147.024, -94.0324, 140.231
8.91149, 104, 11.5292, 9.97626, 18.9239, -146.884, -94.4173, 140.451
8.9194, 104, 11.5141, 10.3416, 18.7502, -146.749, -94.7839, 140.663
8.92901, 104, 11.4934, 10.8535, 18.5086, -146.556, -95.2991, 140.961
8.93715, 104, 11.4808, 11.1704, 18.3612, -146.435, -95.6179, 141.147
8.9434, 104, 11.4749, 11.321, 18.2916, -146.377, -95.7697, 141.236
8.95298, 104, 11.4589, 11.7425, 18.0982, -146.214, -96.1941, 141.484
8.9594, 104, 11.4541, 11.8723, 18.0391, -146.162, -96.3249, 141.561
8.96904, 104, 11.4407, 12.2298, 17.8777, -146.021, -96.6846, 141.774
8.97546, 104, 11.4366, 12.3386, 17.8291, -145.978, -96.7936, 141.839
8.9834, 104, 11.429, 12.5405, 17.7397, -145.898, -96.9949, 141.959
8.99243, 104, 11.4222, 12.7211, 17.6607, -145.826, -97.1742, 142.066
8.99946, 104, 11.4161, 12.8806, 17.5918, -145.763, -97.3315, 142.159
9.0074, 104, 11.4106, 13.0202, 17.5326, -145.708, -97.4669, 142.241
9.0154, 104, 11.4056, 13.1407, 17.4829, -145.662, -97.5811, 142.309
9.02348, 104, 11.4011, 13.2427, 17.4421, -145.624, -97.6746, 142.365
9.03146, 104, 11.397, 13.3273, 17.4092, -145.593, -97.7499, 142.41
9.0394, 104, 11.3932, 13.3967, 17.3839, -145.569, -97.8074, 142.445
9.04747, 104, 11.3897, 13.4526, 17.3652, -145.551, -97.8498, 142.471
9.0554, 104, 11.3868, 13.4966, 17.3518, -145.538, -97.8801, 142.489
9.06341, 104, 11.3844, 13.5297, 17.3428, -145.53, -97.901, 142.501
9.07148, 104, 11.3824, 13.5544, 17.3371, -145.524, -97.9143, 142.508
9.07942, 104, 11.3809, 13.5724, 17.3335, -145.521, -97.9221, 142.512
9.08739, 104, 11.3797, 13.5847, 17.3316, -145.519, -97.9262, 142.515
9.09546, 104, 11.3788, 13.5932, 17.3306, -145.519, -97.9282, 142.516
9.10339, 105, 11.3782, 13.5989, 17.3301, -145.518, -97.9291, 142.516
9.11141, 105, 11.3777, 13.6025, 17.3299, -145.518, -97.9296, 142.516
9.11946, 105, 11.3774, 13.6051, 17.3298, -145.518, -97.9298, 142.516
9.12747, 105, 11.3771, 13.6072, 17.3297, -145.518, -97.9298, 142.517
9.1354, 105, 11.3769, 13.609, 17.3297, -145.518, -97.9299, 142.517
9.14347, 105, 11.3767, 13.6106, 17.3297, -145.518, -97.9299, 142.517
9.15141, 105, 11.3766, 13.612, 17.3297, -145.518, -97.9299, 142.517
9.15943, 105, 11.3765, 13.6131, 17.3297, -145.518, -97.9298, 142.517
9.16747, 105, 11.3764, 13.6141, 17.3297, -145.518, -97.9297, 142.517
9.17543, 105, 11.3764, 13.615, 17.3297, -145.518, -97.9296, 142.517
9.18345, 105, 11.3764, 13.6156, 17.3298, -145.518, -97.9294, 142.517
9.19155, 105, 11.3764, 13.6161, 17.3298, -145.518, -97.9293, 142.517
9.19967, 105, 11.3764, 13.6164, 17.3299, -145.518, -97.9291, 142.517
9.2075, 105, 11.3764, 13.6165, 17.3299, -145.518, -97.929, 142.517
9.21557, 105, 11.3764, 13.6166, 17.3299, -145.518, -97.9289, 142.517
9.22383, 105, 11.3764, 13.6166, 17.3299, -145.518, -97.9289, 142.517
