hehonglu123/Motion-Primitive-Planning/simulation/robotstudio_sim/scripts/debug/curve_exe_v500_z10.csv
timestamp, cmd_num, J1, J2, J3, J4, J5, J6
0, -1, 30.5261, 47.7821, -0.921832, 89.9704, -77.4104, 37.6251
0.002, -1, 30.5261, 47.7821, -0.921832, 89.9704, -77.4104, 37.6251
0.006, -1, 30.5261, 47.7821, -0.921832, 89.9704, -77.4104, 37.6251
0.008, -1, 30.5261, 47.7821, -0.921832, 89.9704, -77.4104, 37.6251
0.011, -1, 30.5261, 47.7821, -0.921832, 89.9704, -77.4104, 37.6251
0.016, -1, 30.5261, 47.7821, -0.921832, 89.9704, -77.4104, 37.6251
0.02, -1, 30.5261, 47.7821, -0.921832, 89.9704, -77.4104, 37.6251
0.024, -1, 30.5261, 47.7821, -0.921832, 89.9704, -77.4104, 37.6251
0.028, -1, 30.5261, 47.7821, -0.921832, 89.9704, -77.4104, 37.6251
0.032, -1, 30.5261, 47.7821, -0.921832, 89.9704, -77.4104, 37.6251
0.036, -1, 30.5262, 47.7821, -0.921837, 89.9704, -77.4104, 37.6251
0.04, -1, 30.5264, 47.782, -0.921858, 89.9705, -77.4104, 37.6251
0.044, -1, 30.527, 47.782, -0.921924, 89.9705, -77.4103, 37.6251
0.048, -1, 30.528, 47.7819, -0.922085, 89.9705, -77.4102, 37.6251
0.052, -1, 30.5295, 47.7817, -0.922423, 89.9706, -77.4099, 37.6251
0.056, -1, 30.5318, 47.7815, -0.923062, 89.9709, -77.4092, 37.6251
0.06, -1, 30.5347, 47.7812, -0.924175, 89.9714, -77.408, 37.6252
0.064, -1, 30.5382, 47.7809, -0.925981, 89.9723, -77.4059, 37.6254
0.068, -1, 30.5424, 47.7807, -0.928755, 89.9738, -77.4026, 37.6256
0.072, -1, 30.5472, 47.7806, -0.932815, 89.9759, -77.3976, 37.6259
0.076, -1, 30.5528, 47.7808, -0.938524, 89.979, -77.3904, 37.6263
0.08, -1, 30.5591, 47.7812, -0.94628, 89.9833, -77.3806, 37.627
0.084, -1, 30.5664, 47.7819, -0.956503, 89.989, -77.3675, 37.6278
0.088, -1, 30.5745, 47.7832, -0.969615, 89.9964, -77.3506, 37.6289
0.092, -1, 30.5835, 47.7852, -0.986018, 90.0058, -77.3292, 37.6303
0.096, -1, 30.5933, 47.788, -1.00608, 90.0174, -77.303, 37.632
0.1, -1, 30.6037, 47.7918, -1.03009, 90.0313, -77.2713, 37.634
0.104, -1, 30.6148, 47.7966, -1.05827, 90.0478, -77.234, 37.6364
0.108, -1, 30.6265, 47.8025, -1.09072, 90.0669, -77.1909, 37.6392
0.112, -1, 30.639, 47.8095, -1.12745, 90.0885, -77.142, 37.6424
0.116, -1, 30.6521, 47.8175, -1.16835, 90.1126, -77.0874, 37.6459
0.12, -1, 30.6662, 47.8263, -1.21323, 90.1392, -77.0275, 37.6498
0.124, -1, 30.681, 47.836, -1.26181, 90.1679, -76.9626, 37.654
0.128, -1, 30.6967, 47.8464, -1.31374, 90.1986, -76.8932, 37.6584
0.131, -1, 30.713, 47.8574, -1.36863, 90.2311, -76.8198, 37.6632
0.136, -1, 30.7299, 47.8689, -1.42609, 90.2651, -76.7431, 37.6682
0.139, -1, 30.7475, 47.8807, -1.48568, 90.3003, -76.6635, 37.6733
0.144, -1, 30.7658, 47.8927, -1.547, 90.3365, -76.5816, 37.6786
0.148, -1, 30.7849, 47.9049, -1.60968, 90.3735, -76.4981, 37.684
0.152, -1, 30.8048, 47.9171, -1.67337, 90.411, -76.4132, 37.6895
0.156, -1, 30.8256, 47.9293, -1.7378, 90.4489, -76.3275, 37.695
0.16, -1, 30.8473, 47.9415, -1.80274, 90.4871, -76.2411, 37.7006
0.164, -1, 30.8696, 47.9536, -1.86802, 90.5255, -76.1543, 37.7062
0.168, -1, 30.8923, 47.9657, -1.93351, 90.5639, -76.0673, 37.7118
0.172, -1, 30.9154, 47.9778, -1.99913, 90.6024, -75.9801, 37.7175
0.176, -1, 30.9387, 47.9898, -2.06481, 90.641, -75.8929, 37.7231
0.18, -1, 30.9622, 48.0018, -2.13051, 90.6796, -75.8057, 37.7287
0.184, -1, 30.9857, 48.0138, -2.19621, 90.7181, -75.7184, 37.7344
0.188, -1, 31.0093, 48.0258, -2.26189, 90.7566, -75.6312, 37.74
0.192, -1, 31.0329, 48.0378, -2.32753, 90.7951, -75.5441, 37.7456
0.196, -1, 31.0565, 48.0497, -2.39313, 90.8336, -75.457, 37.7513
0.2, -1, 31.0801, 48.0617, -2.45869, 90.8721, -75.37, 37.7569
0.204, -1, 31.1037, 48.0736, -2.52418, 90.9105, -75.283, 37.7625
0.208, -1, 31.1273, 48.0855, -2.58963, 90.9489, -75.1962, 37.7681
0.212, -1, 31.1509, 48.0974, -2.65502, 90.9872, -75.1094, 37.7737
0.216, -1, 31.1744, 48.1093, -2.72035, 91.0255, -75.0226, 37.7793
0.22, -1, 31.198, 48.1212, -2.78562, 91.0638, -74.936, 37.7849
0.224, -1, 31.2215, 48.1331, -2.85083, 91.1021, -74.8494, 37.7905
0.228, -1, 31.245, 48.1449, -2.91598, 91.1403, -74.7629, 37.7961
0.232, -1, 31.2685, 48.1568, -2.98108, 91.1785, -74.6765, 37.8017
0.236, -1, 31.2919, 48.1686, -3.04611, 91.2166, -74.5902, 37.8073
0.24, -1, 31.3154, 48.1805, -3.11109, 91.2547, -74.5039, 37.8128
0.244, -1, 31.3388, 48.1923, -3.17601, 91.2928, -74.4178, 37.8184
0.248, -1, 31.3622, 48.2041, -3.24087, 91.3309, -74.3317, 37.824
0.252, -1, 31.3856, 48.2159, -3.30567, 91.3689, -74.2456, 37.8295
0.256, -1, 31.4089, 48.2277, -3.37042, 91.4069, -74.1597, 37.8351
0.26, -1, 31.4323, 48.2395, -3.4351, 91.4448, -74.0738, 37.8406
0.264, -1, 31.4556, 48.2512, -3.49973, 91.4827, -73.988, 37.8462
0.268, -1, 31.4789, 48.263, -3.5643, 91.5206, -73.9023, 37.8517
0.272, -1, 31.5022, 48.2747, -3.62882, 91.5584, -73.8167, 37.8572
0.276, -1, 31.5254, 48.2865, -3.69327, 91.5962, -73.7311, 37.8628
0.28, -1, 31.5487, 48.2982, -3.75767, 91.634, -73.6456, 37.8683
0.284, -1, 31.5719, 48.3099, -3.82201, 91.6717, -73.5602, 37.8738
0.288, -1, 31.5951, 48.3216, -3.8863, 91.7094, -73.4749, 37.8793
0.292, -1, 31.6182, 48.3333, -3.95053, 91.7471, -73.3896, 37.8848
0.296, -1, 31.6414, 48.345, -4.0147, 91.7848, -73.3044, 37.8903
0.3, -1, 31.6645, 48.3567, -4.07881, 91.8224, -73.2193, 37.8958
0.304, -1, 31.6876, 48.3683, -4.14287, 91.8599, -73.1343, 37.9013
0.308, -1, 31.7107, 48.38, -4.20688, 91.8975, -73.0493, 37.9068
0.312, -1, 31.7338, 48.3917, -4.27083, 91.935, -72.9644, 37.9123
0.316, -1, 31.7569, 48.4033, -4.33472, 91.9725, -72.8796, 37.9178
0.32, -1, 31.7799, 48.4149, -4.39855, 92.0099, -72.7949, 37.9232
0.324, -1, 31.8029, 48.4265, -4.46234, 92.0473, -72.7102, 37.9287
0.328, -1, 31.8259, 48.4381, -4.52606, 92.0847, -72.6256, 37.9342
0.332, -1, 31.8489, 48.4497, -4.58973, 92.122, -72.5411, 37.9396
0.336, -1, 31.8718, 48.4613, -4.65335, 92.1594, -72.4566, 37.9451
0.34, -1, 31.8947, 48.4729, -4.71691, 92.1966, -72.3723, 37.9506
0.344, -1, 31.9177, 48.4844, -4.78042, 92.2339, -72.288, 37.956
0.348, -1, 31.9405, 48.496, -4.84387, 92.2711, -72.2037, 37.9614
0.352, -1, 31.9634, 48.5075, -4.90727, 92.3083, -72.1196, 37.9669
0.356, -1, 31.9863, 48.5191, -4.97061, 92.3455, -72.0355, 37.9723
0.36, -1, 32.0091, 48.5306, -5.0339, 92.3826, -71.9515, 37.9777
0.364, -1, 32.0319, 48.5421, -5.09714, 92.4197, -71.8675, 37.9832
0.368, -1, 32.0547, 48.5536, -5.16032, 92.4567, -71.7836, 37.9886
0.372, -1, 32.0775, 48.5651, -5.22345, 92.4938, -71.6998, 37.994
0.376, -1, 32.1003, 48.5766, -5.28653, 92.5308, -71.6161, 37.9994
0.38, -1, 32.123, 48.5881, -5.34955, 92.5677, -71.5324, 38.0048
0.384, -1, 32.1457, 48.5995, -5.41252, 92.6047, -71.4489, 38.0102
0.388, -1, 32.1684, 48.611, -5.47544, 92.6416, -71.3653, 38.0156
0.392, -1, 32.1911, 48.6224, -5.5383, 92.6784, -71.2819, 38.021
0.396, -1, 32.2137, 48.6339, -5.60112, 92.7153, -71.1985, 38.0264
0.4, -1, 32.2364, 48.6453, -5.66387, 92.7521, -71.1152, 38.0318
0.404, -1, 32.259, 48.6567, -5.72658, 92.7889, -71.032, 38.0371
0.408, -1, 32.2816, 48.6681, -5.78924, 92.8256, -70.9488, 38.0425
0.412, -1, 32.3042, 48.6795, -5.85184, 92.8624, -70.8657, 38.0479
0.416, -1, 32.3268, 48.6909, -5.91439, 92.899, -70.7826, 38.0532
0.42, -1, 32.3493, 48.7023, -5.97689, 92.9357, -70.6997, 38.0586
0.424, -1, 32.3719, 48.7137, -6.03934, 92.9723, -70.6168, 38.064
0.428, -1, 32.3944, 48.725, -6.10174, 93.0089, -70.5339, 38.0693
0.432, -1, 32.4169, 48.7364, -6.16408, 93.0455, -70.4512, 38.0747
0.436, -1, 32.4393, 48.7477, -6.22638, 93.082, -70.3685, 38.08
0.44, -1, 32.4618, 48.7591, -6.28862, 93.1185, -70.2859, 38.0853
0.444, -1, 32.4842, 48.7704, -6.35081, 93.155, -70.2033, 38.0907
0.448, -1, 32.5066, 48.7817, -6.41295, 93.1915, -70.1208, 38.096
0.452, -1, 32.529, 48.793, -6.47504, 93.2279, -70.0384, 38.1013
0.456, -1, 32.5514, 48.8043, -6.53708, 93.2643, -69.956, 38.1066
0.46, -1, 32.5738, 48.8156, -6.59907, 93.3007, -69.8737, 38.112
0.464, -1, 32.5961, 48.8269, -6.66101, 93.337, -69.7915, 38.1173
0.468, -1, 32.6185, 48.8381, -6.72291, 93.3733, -69.7094, 38.1226
0.472, -1, 32.6408, 48.8494, -6.78475, 93.4096, -69.6273, 38.1279
0.476, -1, 32.6631, 48.8607, -6.84654, 93.4458, -69.5452, 38.1332
0.48, -1, 32.6854, 48.8719, -6.90828, 93.482, -69.4633, 38.1385
0.484, -1, 32.7076, 48.8831, -6.96997, 93.5182, -69.3814, 38.1438
0.488, -1, 32.7298, 48.8944, -7.03161, 93.5544, -69.2996, 38.149
0.492, -1, 32.7521, 48.9056, -7.0932, 93.5905, -69.2178, 38.1543
0.496, -1, 32.7743, 48.9168, -7.15475, 93.6266, -69.1361, 38.1596
0.5, -1, 32.7965, 48.928, -7.21624, 93.6627, -69.0545, 38.1649
0.504, -1, 32.8186, 48.9392, -7.27769, 93.6987, -68.9729, 38.1702
0.508, -1, 32.8408, 48.9503, -7.33909, 93.7347, -68.8914, 38.1754
0.512, -1, 32.8629, 48.9615, -7.40043, 93.7707, -68.81, 38.1807
0.516, -1, 32.885, 48.9727, -7.46173, 93.8066, -68.7286, 38.1859
0.52, -1, 32.9071, 48.9838, -7.52299, 93.8426, -68.6473, 38.1912
0.524, -1, 32.9292, 48.995, -7.58419, 93.8785, -68.566, 38.1964
0.528, -1, 32.9513, 49.0061, -7.64535, 93.9144, -68.4848, 38.2017
0.532, -1, 32.9733, 49.0172, -7.70645, 93.9502, -68.4037, 38.2069
0.536, -1, 32.9954, 49.0284, -7.76752, 93.986, -68.3227, 38.2122
0.54, -1, 33.0174, 49.0395, -7.82853, 94.0218, -68.2417, 38.2174
0.544, -1, 33.0394, 49.0506, -7.88949, 94.0576, -68.1607, 38.2226
0.548, -1, 33.0613, 49.0617, -7.95041, 94.0933, -68.0799, 38.2278
0.552, -1, 33.0833, 49.0727, -8.01129, 94.129, -67.9991, 38.2331
0.556, -1, 33.1053, 49.0838, -8.07211, 94.1647, -67.9183, 38.2383
0.56, -1, 33.1272, 49.0949, -8.13289, 94.2003, -67.8376, 38.2435
0.564, -1, 33.1491, 49.1059, -8.19362, 94.2359, -67.757, 38.2487
0.568, -1, 33.171, 49.117, -8.25431, 94.2715, -67.6765, 38.2539
0.572, -1, 33.1929, 49.128, -8.31494, 94.3071, -67.596, 38.2591
0.576, -1, 33.2147, 49.1391, -8.37554, 94.3427, -67.5155, 38.2643
0.58, -1, 33.2366, 49.1501, -8.43608, 94.3782, -67.4352, 38.2695
0.584, -1, 33.2584, 49.1611, -8.49658, 94.4137, -67.3549, 38.2747
0.588, -1, 33.2802, 49.1721, -8.55704, 94.4491, -67.2746, 38.2799
0.592, -1, 33.302, 49.1831, -8.61745, 94.4846, -67.1944, 38.285
0.596, -1, 33.3238, 49.1941, -8.67781, 94.52, -67.1143, 38.2902
0.6, -1, 33.3455, 49.2051, -8.73813, 94.5553, -67.0342, 38.2954
0.604, -1, 33.3673, 49.2161, -8.79841, 94.5907, -66.9542, 38.3006
0.608, -1, 33.389, 49.227, -8.85863, 94.626, -66.8742, 38.3057
0.612, -1, 33.4107, 49.238, -8.91882, 94.6613, -66.7943, 38.3109
0.616, -1, 33.4324, 49.2489, -8.97896, 94.6966, -66.7145, 38.316
0.62, -1, 33.4541, 49.2599, -9.03905, 94.7318, -66.6347, 38.3212
0.624, -1, 33.4758, 49.2708, -9.0991, 94.7671, -66.555, 38.3264
0.628, -1, 33.4974, 49.2817, -9.1591, 94.8023, -66.4754, 38.3315
0.632, -1, 33.5191, 49.2927, -9.21906, 94.8374, -66.3958, 38.3366
0.636, -1, 33.5407, 49.3036, -9.27898, 94.8726, -66.3162, 38.3418
0.64, -1, 33.5623, 49.3145, -9.33885, 94.9077, -66.2368, 38.3469
0.644, -1, 33.5839, 49.3254, -9.39868, 94.9428, -66.1573, 38.352
0.648, -1, 33.6054, 49.3363, -9.45846, 94.9779, -66.078, 38.3572
0.652, -1, 33.627, 49.3471, -9.5182, 95.0129, -65.9987, 38.3623
0.656, -1, 33.6485, 49.358, -9.5779, 95.0479, -65.9194, 38.3674
0.66, -1, 33.67, 49.3689, -9.63755, 95.0829, -65.8402, 38.3725
0.664, -1, 33.6915, 49.3797, -9.69716, 95.1179, -65.7611, 38.3776
0.668, -1, 33.713, 49.3906, -9.75673, 95.1528, -65.682, 38.3827
0.672, -1, 33.7345, 49.4014, -9.81625, 95.1877, -65.603, 38.3879
0.676, -1, 33.756, 49.4122, -9.87573, 95.2226, -65.5241, 38.393
0.68, -1, 33.7774, 49.4231, -9.93517, 95.2575, -65.4452, 38.398
0.684, -1, 33.7988, 49.4339, -9.99456, 95.2923, -65.3663, 38.4031
0.688, -1, 33.8203, 49.4447, -10.0539, 95.3271, -65.2875, 38.4082
0.692, -1, 33.8417, 49.4555, -10.1132, 95.3619, -65.2088, 38.4133
0.696, -1, 33.863, 49.4663, -10.1725, 95.3967, -65.1301, 38.4184
0.7, -1, 33.8844, 49.4771, -10.2317, 95.4314, -65.0515, 38.4235
0.704, -1, 33.9058, 49.4878, -10.2909, 95.4661, -64.9729, 38.4286
0.708, -1, 33.9271, 49.4986, -10.35, 95.5008, -64.8944, 38.4336
0.712, -1, 33.9484, 49.5094, -10.4091, 95.5355, -64.816, 38.4387
0.716, -1, 33.9697, 49.5201, -10.4682, 95.5701, -64.7376, 38.4438
0.72, -1, 33.991, 49.5309, -10.5272, 95.6047, -64.6593, 38.4488
0.724, -1, 34.0123, 49.5416, -10.5862, 95.6393, -64.581, 38.4539
0.728, -1, 34.0335, 49.5523, -10.6451, 95.6739, -64.5027, 38.4589
0.732, -1, 34.0548, 49.563, -10.704, 95.7084, -64.4246, 38.464
0.736, -1, 34.076, 49.5738, -10.7628, 95.743, -64.3465, 38.469
0.74, -1, 34.0972, 49.5845, -10.8216, 95.7774, -64.2684, 38.4741
0.744, -1, 34.1184, 49.5952, -10.8804, 95.8119, -64.1904, 38.4791
0.748, -1, 34.1396, 49.6059, -10.9391, 95.8464, -64.1124, 38.4841
0.752, -1, 34.1608, 49.6166, -10.9978, 95.8808, -64.0345, 38.4892
0.756, -1, 34.182, 49.6272, -11.0565, 95.9152, -63.9567, 38.4942
0.76, -1, 34.2031, 49.6379, -11.1151, 95.9496, -63.8789, 38.4992
0.764, -1, 34.2242, 49.6486, -11.1736, 95.9839, -63.8012, 38.5043
0.768, -1, 34.2453, 49.6592, -11.2321, 96.0182, -63.7235, 38.5093
0.772, -1, 34.2664, 49.6699, -11.2906, 96.0525, -63.6458, 38.5143
0.776, -1, 34.2875, 49.6805, -11.3491, 96.0868, -63.5683, 38.5193
0.78, -1, 34.3086, 49.6911, -11.4075, 96.1211, -63.4907, 38.5243
0.784, -1, 34.3296, 49.7018, -11.4658, 96.1553, -63.4133, 38.5293
0.788, -1, 34.3507, 49.7124, -11.5241, 96.1895, -63.3358, 38.5343
0.792, -1, 34.3717, 49.723, -11.5824, 96.2237, -63.2585, 38.5393
0.796, -1, 34.3927, 49.7336, -11.6407, 96.2579, -63.1812, 38.5443
0.8, -1, 34.4137, 49.7442, -11.6989, 96.292, -63.1039, 38.5493
0.804, -1, 34.4347, 49.7548, -11.757, 96.3261, -63.0267, 38.5543
0.808, -1, 34.4557, 49.7654, -11.8151, 96.3602, -62.9496, 38.5593
0.812, -1, 34.4766, 49.7759, -11.8732, 96.3943, -62.8725, 38.5643
0.816, -1, 34.4976, 49.7865, -11.9313, 96.4283, -62.7954, 38.5692
0.82, -1, 34.5185, 49.7971, -11.9893, 96.4623, -62.7184, 38.5742
0.824, -1, 34.5394, 49.8076, -12.0472, 96.4963, -62.6415, 38.5792
0.828, -1, 34.5603, 49.8182, -12.1052, 96.5303, -62.5646, 38.5841
0.832, -1, 34.5812, 49.8287, -12.163, 96.5643, -62.4877, 38.5891
0.836, -1, 34.6021, 49.8393, -12.2209, 96.5982, -62.4109, 38.5941
0.84, -1, 34.6229, 49.8498, -12.2787, 96.6321, -62.3342, 38.599
0.844, -1, 34.6438, 49.8603, -12.3365, 96.666, -62.2575, 38.604
0.848, -1, 34.6646, 49.8708, -12.3942, 96.6999, -62.1809, 38.6089
0.852, -1, 34.6854, 49.8813, -12.4519, 96.7337, -62.1043, 38.6139
0.856, -1, 34.7062, 49.8918, -12.5095, 96.7675, -62.0277, 38.6188
0.86, -1, 34.727, 49.9023, -12.5672, 96.8013, -61.9513, 38.6238
0.864, -1, 34.7478, 49.9128, -12.6247, 96.8351, -61.8748, 38.6287
0.868, -1, 34.7685, 49.9233, -12.6823, 96.8688, -61.7984, 38.6336
0.872, -1, 34.7893, 49.9337, -12.7398, 96.9026, -61.7221, 38.6386
0.876, -1, 34.81, 49.9442, -12.7972, 96.9363, -61.6458, 38.6435
0.88, -1, 34.8307, 49.9547, -12.8547, 96.9699, -61.5696, 38.6484
0.884, -1, 34.8514, 49.9651, -12.9121, 97.0036, -61.4934, 38.6533
0.888, -1, 34.8721, 49.9756, -12.9694, 97.0372, -61.4173, 38.6583
0.892, -1, 34.8928, 49.986, -13.0267, 97.0709, -61.3412, 38.6632
0.896, -1, 34.9135, 49.9964, -13.084, 97.1045, -61.2652, 38.6681
0.9, -1, 34.9341, 50.0068, -13.1412, 97.138, -61.1892, 38.673
0.904, -1, 34.9548, 50.0173, -13.1985, 97.1716, -61.1132, 38.6779
0.908, -1, 34.9754, 50.0277, -13.2556, 97.2051, -61.0374, 38.6828
0.912, -1, 34.996, 50.0381, -13.3127, 97.2386, -60.9615, 38.6877
0.916, -1, 35.0166, 50.0485, -13.3698, 97.2721, -60.8857, 38.6926
0.92, -1, 35.0372, 50.0589, -13.4269, 97.3056, -60.81, 38.6975
0.924, -1, 35.0577, 50.0692, -13.4839, 97.339, -60.7343, 38.7024
0.928, -1, 35.0783, 50.0796, -13.5409, 97.3725, -60.6586, 38.7073
0.932, -1, 35.0988, 50.09, -13.5979, 97.4059, -60.5831, 38.7122
0.936, -1, 35.1194, 50.1003, -13.6548, 97.4392, -60.5075, 38.717
0.94, -1, 35.1399, 50.1107, -13.7116, 97.4726, -60.432, 38.7219
0.944, -1, 35.1604, 50.1211, -13.7685, 97.506, -60.3565, 38.7268
0.948, -1, 35.1809, 50.1314, -13.8253, 97.5393, -60.2811, 38.7317
0.952, -1, 35.2014, 50.1417, -13.8821, 97.5726, -60.2058, 38.7365
0.956, -1, 35.2219, 50.1521, -13.9388, 97.6059, -60.1305, 38.7414
0.96, -1, 35.2423, 50.1624, -13.9955, 97.6391, -60.0552, 38.7462
0.964, -1, 35.2626, 50.1727, -14.0521, 97.6723, -59.98, 38.7511
0.968, -1, 35.2826, 50.1831, -14.1087, 97.7055, -59.9049, 38.756
0.972, -1, 35.3019, 50.1936, -14.1652, 97.7387, -59.8299, 38.7608
0.976, -1, 35.3205, 50.2042, -14.2216, 97.7717, -59.7551, 38.7656
0.98, -1, 35.3382, 50.2149, -14.2776, 97.8046, -59.6807, 38.7705
0.984, -1, 35.355, 50.2258, -14.3331, 97.8372, -59.6071, 38.7752
0.988, -1, 35.3708, 50.2366, -14.3879, 97.8694, -59.5345, 38.7799
0.992, -1, 35.3858, 50.2474, -14.4415, 97.9008, -59.4633, 38.7845
0.996, -1, 35.4002, 50.258, -14.4936, 97.9315, -59.3941, 38.789
1, -1, 35.414, 50.2683, -14.5439, 97.961, -59.3275, 38.7933
1.004, -1, 35.4272, 50.2781, -14.5918, 97.9891, -59.2639, 38.7974
1.008, -1, 35.4398, 50.2874, -14.637, 98.0157, -59.2039, 38.8013
1.012, -1, 35.4518, 50.2959, -14.6791, 98.0404, -59.1481, 38.8049
1.016, -1, 35.4632, 50.3037, -14.7178, 98.0631, -59.0968, 38.8083
1.02, -1, 35.4741, 50.3105, -14.7528, 98.0836, -59.0505, 38.8113
1.024, -1, 35.4847, 50.3164, -14.7838, 98.1018, -59.0092, 38.8139
1.027, -1, 35.4949, 50.3212, -14.811, 98.1178, -58.9732, 38.8163
1.032, -1, 35.5048, 50.325, -14.8343, 98.1314, -58.9423, 38.8182
1.036, -1, 35.5142, 50.3279, -14.8538, 98.1428, -58.9164, 38.8199
1.04, -1, 35.5231, 50.33, -14.8699, 98.1522, -58.895, 38.8213
1.044, -1, 35.5314, 50.3313, -14.8828, 98.1598, -58.8777, 38.8224
1.048, -1, 35.539, 50.3321, -14.8931, 98.1657, -58.8641, 38.8233
1.052, -1, 35.5459, 50.3325, -14.9009, 98.1703, -58.8537, 38.8239
1.055, -1, 35.5521, 50.3326, -14.9068, 98.1737, -58.8458, 38.8244
1.06, -1, 35.5576, 50.3325, -14.9112, 98.1762, -58.84, 38.8248
1.064, 2, 35.5623, 50.3322, -14.9143, 98.178, -58.8358, 38.825
1.068, 2, 35.5662, 50.332, -14.9165, 98.1793, -58.8328, 38.8252
1.072, 2, 35.5693, 50.3317, -14.918, 98.1802, -58.8308, 38.8254
1.076, 2, 35.5716, 50.3315, -14.919, 98.1808, -58.8294, 38.8254
1.08, 2, 35.5732, 50.3314, -14.9197, 98.1812, -58.8285, 38.8255
1.084, 2, 35.5743, 50.3313, -14.9202, 98.1814, -58.8278, 38.8255
1.088, 2, 35.575, 50.3312, -14.9205, 98.1816, -58.8274, 38.8256
1.091, 2, 35.5756, 50.3312, -14.9208, 98.1818, -58.8271, 38.8256
1.096, 2, 35.5759, 50.3312, -14.9209, 98.1818, -58.8269, 38.8256
1.1, 2, 35.5761, 50.3311, -14.921, 98.1819, -58.8268, 38.8256
1.104, 2, 35.5763, 50.3311, -14.9211, 98.1819, -58.8267, 38.8256
1.108, 2, 35.5764, 50.3311, -14.9211, 98.182, -58.8266, 38.8256
1.112, 2, 35.5765, 50.3311, -14.9212, 98.182, -58.8266, 38.8256
1.116, 2, 35.5765, 50.3311, -14.9212, 98.182, -58.8265, 38.8256
1.119, 2, 35.5765, 50.3311, -14.9212, 98.182, -58.8265, 38.8256
1.124, 2, 35.5766, 50.3311, -14.9212, 98.182, -58.8265, 38.8256
1.128, 2, 35.5766, 50.3311, -14.9212, 98.182, -58.8265, 38.8256
1.132, 2, 35.5766, 50.3311, -14.9212, 98.182, -58.8265, 38.8256
1.136, 2, 35.5766, 50.3311, -14.9212, 98.182, -58.8265, 38.8256
1.14, 2, 35.5766, 50.3311, -14.9212, 98.182, -58.8265, 38.8256
1.144, 2, 35.5766, 50.3311, -14.9212, 98.182, -58.8265, 38.8256
1.147, 2, 35.5766, 50.3311, -14.9212, 98.182, -58.8265, 38.8256
1.152, 2, 35.5766, 50.3311, -14.9212, 98.182, -58.8265, 38.8256
1.156, 2, 35.5766, 50.3311, -14.9212, 98.182, -58.8265, 38.8256
1.16, 2, 35.5766, 50.3311, -14.9212, 98.182, -58.8265, 38.8256
1.164, 2, 35.5766, 50.3311, -14.9212, 98.182, -58.8265, 38.8256
1.168, 2, 35.5766, 50.3311, -14.9212, 98.182, -58.8265, 38.8256
1.172, 2, 35.5766, 50.3311, -14.9212, 98.182, -58.8265, 38.8256
1.175, 2, 35.5766, 50.3311, -14.9212, 98.182, -58.8265, 38.8256
1.18, 2, 35.5766, 50.3311, -14.9212, 98.182, -58.8265, 38.8256
1.184, 2, 35.5766, 50.3311, -14.9212, 98.182, -58.8265, 38.8256
1.188, 2, 35.5766, 50.3311, -14.9212, 98.182, -58.8265, 38.8256
1.192, 2, 35.5766, 50.3311, -14.9212, 98.182, -58.8265, 38.8256
1.196, 2, 35.5766, 50.3311, -14.9212, 98.182, -58.8265, 38.8256
1.2, 2, 35.5766, 50.3311, -14.9212, 98.182, -58.8265, 38.8256
1.204, 2, 35.5766, 50.3311, -14.9212, 98.182, -58.8265, 38.8256
1.208, 2, 35.5766, 50.3311, -14.9212, 98.182, -58.8265, 38.8256
1.212, 2, 35.5766, 50.3311, -14.9212, 98.182, -58.8265, 38.8256
1.216, 2, 35.5766, 50.3311, -14.9212, 98.182, -58.8265, 38.8256
1.22, 2, 35.5766, 50.3311, -14.9212, 98.182, -58.8265, 38.8256
1.224, 2, 35.5766, 50.3311, -14.9212, 98.182, -58.8265, 38.8256
1.228, 2, 35.5766, 50.3311, -14.9212, 98.182, -58.8265, 38.8256
1.232, 2, 35.5766, 50.3311, -14.9212, 98.182, -58.8265, 38.8256
1.236, 2, 35.5766, 50.3311, -14.9212, 98.182, -58.8265, 38.8256
1.24, 2, 35.5766, 50.3311, -14.9212, 98.182, -58.8265, 38.8256
1.244, 2, 35.5766, 50.3311, -14.9212, 98.182, -58.8265, 38.8256
1.248, 2, 35.5766, 50.3311, -14.9212, 98.182, -58.8265, 38.8256
1.252, 2, 35.5766, 50.3311, -14.9212, 98.182, -58.8265, 38.8256
1.256, 2, 35.5766, 50.3311, -14.9212, 98.182, -58.8265, 38.8256
1.26, 2, 35.5766, 50.3311, -14.9212, 98.182, -58.8265, 38.8256
1.264, 2, 35.5766, 50.3311, -14.9212, 98.182, -58.8265, 38.8256
1.267, 2, 35.5766, 50.3311, -14.9212, 98.182, -58.8265, 38.8256
1.272, 2, 35.5766, 50.3311, -14.9212, 98.182, -58.8265, 38.8256
1.276, 2, 35.5766, 50.3311, -14.9212, 98.182, -58.8265, 38.8256
1.28, 2, 35.5766, 50.3311, -14.9212, 98.182, -58.8265, 38.8256
1.284, 2, 35.5766, 50.3311, -14.9212, 98.182, -58.8265, 38.8256
1.288, 2, 35.5766, 50.3311, -14.9212, 98.182, -58.8265, 38.8256
1.292, 2, 35.5766, 50.3311, -14.9212, 98.182, -58.8265, 38.8256
1.295, 2, 35.5766, 50.3311, -14.9212, 98.182, -58.8265, 38.8256
1.3, 2, 35.5766, 50.3311, -14.9212, 98.182, -58.8265, 38.8256
1.304, 2, 35.5766, 50.3311, -14.9212, 98.182, -58.8265, 38.8256
1.308, 2, 35.5766, 50.3311, -14.9212, 98.182, -58.8265, 38.8256
1.312, 2, 35.5766, 50.3311, -14.9212, 98.182, -58.8265, 38.8256
1.316, 2, 35.5766, 50.3311, -14.9212, 98.182, -58.8265, 38.8256
1.32, 2, 35.5766, 50.3311, -14.9212, 98.182, -58.8265, 38.8256
1.324, 2, 35.5766, 50.3311, -14.9212, 98.182, -58.8265, 38.8256
1.328, 2, 35.5766, 50.3311, -14.9212, 98.182, -58.8265, 38.8256
1.332, 2, 35.5766, 50.3311, -14.9212, 98.182, -58.8265, 38.8256
1.336, 2, 35.5766, 50.3311, -14.9212, 98.182, -58.8265, 38.8256
1.34, 2, 35.5766, 50.3311, -14.9212, 98.182, -58.8265, 38.8256
1.344, 2, 35.5766, 50.3311, -14.9212, 98.182, -58.8265, 38.8256
1.348, 2, 35.5766, 50.3311, -14.9212, 98.182, -58.8265, 38.8256
1.352, 2, 35.5766, 50.3311, -14.9212, 98.182, -58.8265, 38.8256
1.356, 2, 35.5766, 50.3311, -14.9212, 98.182, -58.8265, 38.8256
1.36, 2, 35.5766, 50.3311, -14.9212, 98.182, -58.8265, 38.8256
1.364, 2, 35.5766, 50.3311, -14.9212, 98.182, -58.8265, 38.8256
1.368, 2, 35.5766, 50.3311, -14.9212, 98.182, -58.8265, 38.8256
1.372, 2, 35.5766, 50.3311, -14.9212, 98.182, -58.8265, 38.8256
1.376, 2, 35.5766, 50.3311, -14.9212, 98.182, -58.8265, 38.8256
1.38, 2, 35.5766, 50.3311, -14.9212, 98.182, -58.8265, 38.8256
1.384, 2, 35.5766, 50.3311, -14.9212, 98.182, -58.8265, 38.8256
1.388, 2, 35.5766, 50.3311, -14.9212, 98.182, -58.8265, 38.8256
1.392, 2, 35.5766, 50.3311, -14.9212, 98.182, -58.8265, 38.8256
1.396, 2, 35.5766, 50.3311, -14.9212, 98.182, -58.8265, 38.8256
1.4, 2, 35.5766, 50.3311, -14.9212, 98.182, -58.8265, 38.8256
1.404, 2, 35.5766, 50.3311, -14.9212, 98.182, -58.8265, 38.8256
1.408, 2, 35.5766, 50.3311, -14.9212, 98.182, -58.8265, 38.8256
1.412, 2, 35.5766, 50.3311, -14.9212, 98.182, -58.8265, 38.8256
1.416, 2, 35.5766, 50.3311, -14.9212, 98.182, -58.8265, 38.8256
1.42, 2, 35.5766, 50.3311, -14.9212, 98.182, -58.8265, 38.8256
1.424, 2, 35.5766, 50.3311, -14.9212, 98.182, -58.8265, 38.8256
1.428, 2, 35.5766, 50.3311, -14.9212, 98.182, -58.8265, 38.8256
1.432, 2, 35.5766, 50.3311, -14.9212, 98.182, -58.8265, 38.8256
1.436, 2, 35.5766, 50.3311, -14.9212, 98.182, -58.8265, 38.8256
1.44, 2, 35.5766, 50.3311, -14.9212, 98.182, -58.8265, 38.8256
1.444, 2, 35.5766, 50.3311, -14.9212, 98.182, -58.8265, 38.8256
1.448, 2, 35.5766, 50.3311, -14.9212, 98.182, -58.8265, 38.8256
1.452, 2, 35.5766, 50.3311, -14.9212, 98.182, -58.8265, 38.8256
1.456, 2, 35.5766, 50.3311, -14.9212, 98.182, -58.8265, 38.8256
1.46, 2, 35.5766, 50.3311, -14.9212, 98.182, -58.8265, 38.8256
1.464, 2, 35.5766, 50.3311, -14.9212, 98.182, -58.8265, 38.8256
1.468, 2, 35.5766, 50.3311, -14.9212, 98.182, -58.8265, 38.8256
1.472, 2, 35.5766, 50.3311, -14.9212, 98.182, -58.8265, 38.8256
1.476, 2, 35.5766, 50.3311, -14.9212, 98.182, -58.8265, 38.8256
1.48, 2, 35.5766, 50.3311, -14.9212, 98.182, -58.8265, 38.8256
1.484, 2, 35.5766, 50.3311, -14.9212, 98.182, -58.8265, 38.8256
1.488, 2, 35.5766, 50.3311, -14.9212, 98.182, -58.8265, 38.8256
1.492, 2, 35.5766, 50.3311, -14.9212, 98.182, -58.8265, 38.8256
1.496, 2, 35.5766, 50.3311, -14.9212, 98.182, -58.8265, 38.8256
1.5, 2, 35.5766, 50.3311, -14.9212, 98.182, -58.8265, 38.8256
1.504, 2, 35.5766, 50.3311, -14.9212, 98.182, -58.8265, 38.8256
1.508, 2, 35.5766, 50.3311, -14.9212, 98.182, -58.8265, 38.8256
1.512, 2, 35.5766, 50.3311, -14.9212, 98.182, -58.8265, 38.8256
1.516, 2, 35.5766, 50.3311, -14.9212, 98.182, -58.8265, 38.8256
1.52, 2, 35.5766, 50.3311, -14.9212, 98.182, -58.8265, 38.8256
1.524, 2, 35.5766, 50.3311, -14.9212, 98.182, -58.8265, 38.8256
1.528, 2, 35.5766, 50.3311, -14.9212, 98.182, -58.8265, 38.8256
1.532, 2, 35.5766, 50.3311, -14.9212, 98.182, -58.8265, 38.8256
1.536, 2, 35.5766, 50.3311, -14.9212, 98.182, -58.8265, 38.8256
1.54, 2, 35.5766, 50.3311, -14.9212, 98.182, -58.8265, 38.8256
1.544, 2, 35.5766, 50.3311, -14.9212, 98.182, -58.8265, 38.8256
1.548, 2, 35.5766, 50.3311, -14.9212, 98.182, -58.8265, 38.8256
1.552, 2, 35.5766, 50.3311, -14.9212, 98.182, -58.8265, 38.8256
1.556, 2, 35.5766, 50.3311, -14.9212, 98.182, -58.8265, 38.8256
1.56, 2, 35.5766, 50.3311, -14.9212, 98.182, -58.8265, 38.8256
1.564, 2, 35.5766, 50.3311, -14.9212, 98.182, -58.8265, 38.8256
1.568, 2, 35.5766, 50.3311, -14.9212, 98.182, -58.8265, 38.8256
1.572, 2, 35.5766, 50.3311, -14.9212, 98.182, -58.8265, 38.8256
1.576, 2, 35.5766, 50.3311, -14.9212, 98.182, -58.8265, 38.8256
1.58, 2, 35.5766, 50.3311, -14.9212, 98.182, -58.8265, 38.8256
1.584, 2, 35.5766, 50.3311, -14.9212, 98.182, -58.8265, 38.8256
1.588, 2, 35.5766, 50.3311, -14.9212, 98.182, -58.8265, 38.8256
1.592, 2, 35.5766, 50.3311, -14.9212, 98.182, -58.8265, 38.8256
1.596, 2, 35.5766, 50.3311, -14.9212, 98.182, -58.8265, 38.8256
1.6, 2, 35.5766, 50.3311, -14.9212, 98.182, -58.8265, 38.8256
1.604, 2, 35.5766, 50.3311, -14.9212, 98.182, -58.8265, 38.8256
1.608, 2, 35.5766, 50.3311, -14.9212, 98.182, -58.8265, 38.8256
1.612, 2, 35.5766, 50.3311, -14.9212, 98.182, -58.8265, 38.8256
1.616, 2, 35.5766, 50.3311, -14.9212, 98.182, -58.8265, 38.8256
1.62, 2, 35.5766, 50.3311, -14.9212, 98.182, -58.8265, 38.8256
1.624, 2, 35.5766, 50.3311, -14.9212, 98.182, -58.8265, 38.8256
1.628, 2, 35.5766, 50.3311, -14.9212, 98.182, -58.8265, 38.8256
1.632, 2, 35.5766, 50.3311, -14.9212, 98.182, -58.8265, 38.8256
1.636, 2, 35.5766, 50.3311, -14.9212, 98.182, -58.8265, 38.8256
1.64, 2, 35.5766, 50.3311, -14.9212, 98.182, -58.8265, 38.8256
1.644, 2, 35.5766, 50.3311, -14.9212, 98.182, -58.8265, 38.8256
1.648, 2, 35.5766, 50.3311, -14.9212, 98.182, -58.8265, 38.8256
1.652, 2, 35.5766, 50.3311, -14.9212, 98.182, -58.8265, 38.8256
1.656, 2, 35.5766, 50.3311, -14.9212, 98.182, -58.8265, 38.8256
1.66, 2, 35.5766, 50.3311, -14.9212, 98.182, -58.8265, 38.8256
1.664, 2, 35.5766, 50.3311, -14.9212, 98.182, -58.8265, 38.8256
1.668, 2, 35.5766, 50.3311, -14.9212, 98.182, -58.8265, 38.8256
1.672, 2, 35.5766, 50.3311, -14.9212, 98.182, -58.8265, 38.8256
1.676, 2, 35.5766, 50.3311, -14.9212, 98.182, -58.8265, 38.8256
1.68, 2, 35.5766, 50.3311, -14.9212, 98.182, -58.8265, 38.8256
1.684, 2, 35.5766, 50.3311, -14.9212, 98.182, -58.8265, 38.8256
1.688, 2, 35.5766, 50.3311, -14.9212, 98.182, -58.8265, 38.8256
1.692, 2, 35.5766, 50.3311, -14.9212, 98.182, -58.8265, 38.8256
1.696, 2, 35.5766, 50.3311, -14.9212, 98.182, -58.8265, 38.8256
1.7, 2, 35.5766, 50.3311, -14.9212, 98.182, -58.8265, 38.8256
1.704, 2, 35.5766, 50.3311, -14.9212, 98.182, -58.8265, 38.8256
1.708, 2, 35.5766, 50.3311, -14.9212, 98.182, -58.8265, 38.8256
1.712, 2, 35.5766, 50.3311, -14.9212, 98.182, -58.8265, 38.8256
1.716, 2, 35.5766, 50.3311, -14.9212, 98.182, -58.8265, 38.8256
1.72, 2, 35.5766, 50.3311, -14.9212, 98.182, -58.8265, 38.8256
1.724, 2, 35.5766, 50.3311, -14.9212, 98.182, -58.8265, 38.8256
1.728, 2, 35.5766, 50.3311, -14.9212, 98.182, -58.8265, 38.8256
1.732, 2, 35.5766, 50.3311, -14.9212, 98.182, -58.8265, 38.8256
1.736, 2, 35.5766, 50.3311, -14.9212, 98.182, -58.8265, 38.8256
1.74, 2, 35.5766, 50.3311, -14.9212, 98.182, -58.8265, 38.8256
1.744, 2, 35.5766, 50.3311, -14.9212, 98.182, -58.8265, 38.8256
1.748, 2, 35.5766, 50.3311, -14.9212, 98.182, -58.8265, 38.8256
1.752, 2, 35.5766, 50.3311, -14.9212, 98.182, -58.8265, 38.8256
1.756, 2, 35.5766, 50.3311, -14.9212, 98.182, -58.8265, 38.8256
1.76, 2, 35.5766, 50.3311, -14.9212, 98.182, -58.8265, 38.8256
1.764, 2, 35.5766, 50.3311, -14.9212, 98.182, -58.8265, 38.8256
1.768, 2, 35.5766, 50.3311, -14.9212, 98.182, -58.8265, 38.8256
1.772, 2, 35.5766, 50.3311, -14.9212, 98.182, -58.8265, 38.8256
1.776, 2, 35.5766, 50.3311, -14.9212, 98.182, -58.8265, 38.8256
1.78, 2, 35.5766, 50.3311, -14.9212, 98.182, -58.8265, 38.8256
1.784, 2, 35.5766, 50.3311, -14.9212, 98.182, -58.8265, 38.8256
1.788, 2, 35.5766, 50.3311, -14.9212, 98.182, -58.8265, 38.8256
1.792, 2, 35.5766, 50.3311, -14.9212, 98.182, -58.8265, 38.8256
1.796, 2, 35.5766, 50.3311, -14.9212, 98.182, -58.8265, 38.8256
1.8, 2, 35.5766, 50.3311, -14.9212, 98.182, -58.8265, 38.8256
1.804, 2, 35.5766, 50.3311, -14.9212, 98.182, -58.8265, 38.8256
1.808, 2, 35.5766, 50.3311, -14.9212, 98.182, -58.8265, 38.8256
1.812, 2, 35.5766, 50.3311, -14.9212, 98.182, -58.8265, 38.8256
1.816, 2, 35.5766, 50.3311, -14.9212, 98.182, -58.8265, 38.8256
1.82, 2, 35.5766, 50.3311, -14.9212, 98.182, -58.8265, 38.8256
1.824, 2, 35.5766, 50.3311, -14.9212, 98.182, -58.8265, 38.8256
1.828, 2, 35.5766, 50.3311, -14.9212, 98.182, -58.8265, 38.8256
1.832, 2, 35.5766, 50.3311, -14.9212, 98.182, -58.8265, 38.8256
1.836, 2, 35.5766, 50.3311, -14.9212, 98.182, -58.8265, 38.8256
1.84, 2, 35.5766, 50.3311, -14.9212, 98.182, -58.8265, 38.8256
1.844, 2, 35.5766, 50.3311, -14.9212, 98.182, -58.8265, 38.8256
1.848, 2, 35.5766, 50.3311, -14.9212, 98.182, -58.8265, 38.8256
1.852, 2, 35.5766, 50.3311, -14.9212, 98.182, -58.8265, 38.8256
1.856, 2, 35.5766, 50.3311, -14.9212, 98.182, -58.8265, 38.8256
1.86, 2, 35.5766, 50.3311, -14.9212, 98.182, -58.8265, 38.8256
1.864, 2, 35.5766, 50.3311, -14.9212, 98.182, -58.8265, 38.8256
1.868, 2, 35.5766, 50.3311, -14.9212, 98.182, -58.8265, 38.8256
1.872, 2, 35.5766, 50.3311, -14.9212, 98.182, -58.8265, 38.8256
1.876, 2, 35.5766, 50.3311, -14.9212, 98.182, -58.8265, 38.8256
1.88, 2, 35.5766, 50.3311, -14.9212, 98.182, -58.8265, 38.8256
1.884, 2, 35.5766, 50.3311, -14.9212, 98.182, -58.8265, 38.8256
1.888, 2, 35.5766, 50.3311, -14.9212, 98.182, -58.8265, 38.8256
1.892, 2, 35.5766, 50.3311, -14.9212, 98.182, -58.8265, 38.8256
1.896, 2, 35.5766, 50.3311, -14.9212, 98.182, -58.8265, 38.8256
1.9, 2, 35.5766, 50.3311, -14.9212, 98.182, -58.8265, 38.8256
1.904, 2, 35.5766, 50.3311, -14.9212, 98.182, -58.8265, 38.8256
1.908, 2, 35.5766, 50.3311, -14.9212, 98.182, -58.8265, 38.8256
1.912, 2, 35.5766, 50.3311, -14.9212, 98.182, -58.8265, 38.8256
1.916, 2, 35.5766, 50.3311, -14.9212, 98.182, -58.8265, 38.8256
1.92, 2, 35.5766, 50.3311, -14.9212, 98.182, -58.8265, 38.8256
1.924, 2, 35.5766, 50.3311, -14.9212, 98.182, -58.8265, 38.8256
1.928, 2, 35.5766, 50.3311, -14.9212, 98.182, -58.8265, 38.8256
1.932, 2, 35.5766, 50.3311, -14.9212, 98.182, -58.8265, 38.8256
1.936, 2, 35.5766, 50.3311, -14.9212, 98.182, -58.8265, 38.8256
1.94, 2, 35.5766, 50.3311, -14.9212, 98.182, -58.8265, 38.8256
1.944, 2, 35.5766, 50.3311, -14.9212, 98.182, -58.8265, 38.8256
1.948, 2, 35.5766, 50.3311, -14.9212, 98.182, -58.8265, 38.8256
1.952, 2, 35.5766, 50.3311, -14.9212, 98.182, -58.8265, 38.8256
1.956, 2, 35.5766, 50.3311, -14.9212, 98.182, -58.8265, 38.8256
1.96, 2, 35.5766, 50.3311, -14.9212, 98.182, -58.8265, 38.8256
1.964, 2, 35.5766, 50.3311, -14.9212, 98.182, -58.8265, 38.8256
1.968, 2, 35.5766, 50.3311, -14.9212, 98.182, -58.8265, 38.8256
1.972, 2, 35.5766, 50.3311, -14.9212, 98.182, -58.8265, 38.8256
1.976, 2, 35.5766, 50.3311, -14.9212, 98.182, -58.8265, 38.8256
1.98, 2, 35.5766, 50.3311, -14.9212, 98.182, -58.8265, 38.8256
1.984, 2, 35.5766, 50.3311, -14.9212, 98.182, -58.8265, 38.8256
1.988, 2, 35.5766, 50.3311, -14.9212, 98.182, -58.8265, 38.8256
1.992, 2, 35.5766, 50.3311, -14.9212, 98.182, -58.8265, 38.8256
1.996, 2, 35.5766, 50.3311, -14.9212, 98.182, -58.8265, 38.8256
1.999, 2, 35.5766, 50.3311, -14.9212, 98.182, -58.8265, 38.8256
2.004, 2, 35.5766, 50.3311, -14.9212, 98.182, -58.8265, 38.8256
2.008, 2, 35.5766, 50.3311, -14.9212, 98.182, -58.8265, 38.8256
2.012, 2, 35.5766, 50.3311, -14.9212, 98.182, -58.8265, 38.8256
2.015, 2, 35.5766, 50.3311, -14.9212, 98.182, -58.8265, 38.8256
2.019, 2, 35.5766, 50.3311, -14.9212, 98.182, -58.8265, 38.8256
2.024, 2, 35.5766, 50.3311, -14.9212, 98.182, -58.8265, 38.8256
2.028, 2, 35.5766, 50.3311, -14.9212, 98.182, -58.8265, 38.8256
2.031, 2, 35.5766, 50.3311, -14.9212, 98.182, -58.8265, 38.8256
2.036, 2, 35.5766, 50.3311, -14.9212, 98.182, -58.8265, 38.8256
2.04, 2, 35.5766, 50.3311, -14.9212, 98.182, -58.8265, 38.8256
2.044, 2, 35.5766, 50.3311, -14.9212, 98.182, -58.8265, 38.8256
2.048, 2, 35.5766, 50.3311, -14.9212, 98.182, -58.8265, 38.8256
2.051, 2, 35.5766, 50.3311, -14.9212, 98.182, -58.8265, 38.8256
2.055, 2, 35.5766, 50.3311, -14.9212, 98.182, -58.8265, 38.8256
2.06, 2, 35.5766, 50.3311, -14.9212, 98.182, -58.8265, 38.8256
2.064, 2, 35.5766, 50.3311, -14.9212, 98.182, -58.8265, 38.8256
2.068, 2, 35.5766, 50.3311, -14.9212, 98.182, -58.8265, 38.8256
2.071, 2, 35.5766, 50.3311, -14.9212, 98.182, -58.8265, 38.8256
2.076, 2, 35.5766, 50.3311, -14.9212, 98.182, -58.8265, 38.8256
2.08, 2, 35.5766, 50.3311, -14.9212, 98.182, -58.8265, 38.8256
2.084, 2, 35.5766, 50.3311, -14.9212, 98.182, -58.8265, 38.8256
2.087, 2, 35.5766, 50.3311, -14.9212, 98.182, -58.8265, 38.8256
2.092, 2, 35.5766, 50.3311, -14.9212, 98.182, -58.8265, 38.8256
2.096, 2, 35.5766, 50.3311, -14.9212, 98.182, -58.8265, 38.8256
2.1, 2, 35.5766, 50.3311, -14.9212, 98.182, -58.8265, 38.8256
2.104, 2, 35.5766, 50.3311, -14.9212, 98.182, -58.8265, 38.8256
2.107, 2, 35.5766, 50.3311, -14.9212, 98.182, -58.8265, 38.8256
2.111, 2, 35.5766, 50.3311, -14.9212, 98.182, -58.8265, 38.8256
2.116, 2, 35.5766, 50.3311, -14.9212, 98.182, -58.8265, 38.8256
2.12, 4, 35.5766, 50.3311, -14.9212, 98.182, -58.8265, 38.8256
2.124, 4, 35.5766, 50.3311, -14.9212, 98.182, -58.8265, 38.8256
2.127, 4, 35.5766, 50.3311, -14.9212, 98.182, -58.8265, 38.8256
2.132, 4, 35.5766, 50.3311, -14.9212, 98.182, -58.8265, 38.8256
2.136, 4, 35.5766, 50.3311, -14.9212, 98.182, -58.8265, 38.8256
2.14, 4, 35.5766, 50.3311, -14.9212, 98.182, -58.8265, 38.8256
2.143, 4, 35.5766, 50.3311, -14.9212, 98.182, -58.8265, 38.8256
2.148, 4, 35.5766, 50.3311, -14.9212, 98.182, -58.8265, 38.8256
2.152, 4, 35.5766, 50.3311, -14.9212, 98.182, -58.8265, 38.8256
2.156, 4, 35.5766, 50.3311, -14.9212, 98.182, -58.8265, 38.8256
2.16, 4, 35.5766, 50.3311, -14.9212, 98.182, -58.8265, 38.8256
2.163, 4, 35.5766, 50.3311, -14.9212, 98.182, -58.8265, 38.8256
2.168, 4, 35.5766, 50.3311, -14.9212, 98.182, -58.8265, 38.8256
2.172, 4, 35.5766, 50.3311, -14.9212, 98.182, -58.8265, 38.8256
2.176, 4, 35.5766, 50.3311, -14.9212, 98.182, -58.8265, 38.8256
2.179, 4, 35.5766, 50.3311, -14.9212, 98.182, -58.8265, 38.8256
2.184, 4, 35.5766, 50.3311, -14.9212, 98.182, -58.8265, 38.8256
2.188, 4, 35.5766, 50.3311, -14.9212, 98.182, -58.8265, 38.8256
2.192, 4, 35.5766, 50.3311, -14.9212, 98.182, -58.8265, 38.8256
2.196, 4, 35.5766, 50.3311, -14.9212, 98.182, -58.8265, 38.8256
2.199, 4, 35.5766, 50.3311, -14.9212, 98.182, -58.8265, 38.8256
2.204, 4, 35.5766, 50.3311, -14.9212, 98.182, -58.8265, 38.8256
2.208, 4, 35.5766, 50.3311, -14.9212, 98.182, -58.8265, 38.8256
2.212, 4, 35.5766, 50.3311, -14.9212, 98.182, -58.8265, 38.8256
2.216, 4, 35.5766, 50.3311, -14.9212, 98.182, -58.8265, 38.8256
2.219, 4, 35.5766, 50.3311, -14.9212, 98.182, -58.8265, 38.8256
2.226, 4, 35.5766, 50.3311, -14.9212, 98.182, -58.8265, 38.8256
2.23, 4, 35.5766, 50.3311, -14.9212, 98.182, -58.8265, 38.8256
2.232, 4, 35.5766, 50.3311, -14.9212, 98.182, -58.8265, 38.8256
2.237, 4, 35.5766, 50.3311, -14.9212, 98.182, -58.8265, 38.8256
2.24, 4, 35.5766, 50.3311, -14.9212, 98.182, -58.8265, 38.8256
2.244, 4, 35.5766, 50.3311, -14.9212, 98.182, -58.8265, 38.8256
2.248, 4, 35.5766, 50.3311, -14.9212, 98.182, -58.8265, 38.8256
2.252, 4, 35.5766, 50.3311, -14.9212, 98.182, -58.8265, 38.8256
2.255, 4, 35.5766, 50.3311, -14.9212, 98.182, -58.8265, 38.8256
2.259, 4, 35.5766, 50.3311, -14.9212, 98.182, -58.8265, 38.8256
2.264, 4, 35.5766, 50.3311, -14.9212, 98.182, -58.8265, 38.8256
2.268, 4, 35.5766, 50.3311, -14.9212, 98.182, -58.8265, 38.8256
2.272, 4, 35.5766, 50.3311, -14.9212, 98.182, -58.8265, 38.8256
2.275, 4, 35.5766, 50.3311, -14.9212, 98.182, -58.8265, 38.8256
2.28, 4, 35.5767, 50.3309, -14.9212, 98.182, -58.8265, 38.8256
2.284, 4, 35.5769, 50.3304, -14.9212, 98.182, -58.8264, 38.8257
2.288, 4, 35.5773, 50.3295, -14.9211, 98.182, -58.8263, 38.8258
2.291, 4, 35.578, 50.3279, -14.9209, 98.1818, -58.8259, 38.8262
2.296, 4, 35.5789, 50.3254, -14.9206, 98.1816, -58.8251, 38.8269
2.3, 4, 35.5802, 50.3219, -14.9201, 98.1812, -58.8236, 38.8282
2.304, 4, 35.5817, 50.3173, -14.9194, 98.1805, -58.8211, 38.8305
2.308, 4, 35.5835, 50.3117, -14.9183, 98.1794, -58.8169, 38.8342
2.311, 4, 35.5856, 50.3049, -14.9167, 98.1777, -58.8107, 38.8399
2.316, 4, 35.588, 50.2967, -14.9145, 98.1752, -58.8015, 38.8482
2.32, 4, 35.5907, 50.2869, -14.9115, 98.1717, -58.7887, 38.8597
2.324, 4, 35.5937, 50.2755, -14.9076, 98.167, -58.7713, 38.8755
2.328, 4, 35.597, 50.2621, -14.9026, 98.1608, -58.7483, 38.8963
2.331, 4, 35.6006, 50.247, -14.8963, 98.1528, -58.7186, 38.9231
2.336, 4, 35.6042, 50.2301, -14.8886, 98.1427, -58.6812, 38.9569
2.34, 4, 35.6078, 50.2116, -14.8793, 98.1304, -58.6353, 38.9984
2.344, 4, 35.6115, 50.1915, -14.8684, 98.1155, -58.58, 39.0484
2.347, 4, 35.615, 50.1697, -14.8557, 98.0981, -58.5149, 39.1072
2.352, 4, 35.6185, 50.1463, -14.8411, 98.078, -58.4397, 39.1751
2.356, 4, 35.622, 50.121, -14.8248, 98.0552, -58.3545, 39.2521
2.36, 4, 35.6256, 50.0938, -14.8067, 98.0297, -58.2595, 39.3379
2.364, 4, 35.6291, 50.0648, -14.7869, 98.0018, -58.1552, 39.4322
2.367, 4, 35.6327, 50.0341, -14.7655, 97.9716, -58.0423, 39.5342
2.372, 4, 35.6361, 50.0021, -14.7427, 97.9394, -57.9216, 39.6433
2.376, 4, 35.6394, 49.9692, -14.7186, 97.9053, -57.7941, 39.7585
2.38, 4, 35.6424, 49.9355, -14.6936, 97.8697, -57.661, 39.8788
2.383, 4, 35.6453, 49.9013, -14.6677, 97.8329, -57.5236, 40.003
2.388, 4, 35.648, 49.8666, -14.6414, 97.7954, -57.3833, 40.1298
2.392, 4, 35.6507, 49.8317, -14.6148, 97.7575, -57.2416, 40.2579
2.396, 4, 35.6535, 49.7967, -14.5882, 97.7196, -57.1, 40.3859
2.4, 4, 35.6564, 49.7618, -14.5618, 97.682, -56.96, 40.5125
2.403, 4, 35.6595, 49.7272, -14.5361, 97.6453, -56.8232, 40.6363
2.408, 4, 35.6628, 49.6934, -14.5112, 97.6096, -56.691, 40.756
2.412, 4, 35.6662, 49.6606, -14.4873, 97.5753, -56.5648, 40.8704
2.416, 4, 35.6697, 49.6292, -14.4647, 97.5428, -56.4457, 40.9786
2.42, 4, 35.6732, 49.5994, -14.4435, 97.5123, -56.3349, 41.0794
2.423, 4, 35.6768, 49.5715, -14.4239, 97.4838, -56.2333, 41.1722
2.428, 4, 35.6804, 49.5459, -14.4061, 97.4577, -56.1417, 41.2562
2.432, 4, 35.6839, 49.5227, -14.3902, 97.4339, -56.0606, 41.3311
2.436, 6, 35.6871, 49.5024, -14.3762, 97.4125, -55.9906, 41.3965
2.439, 6, 35.6901, 49.4851, -14.3643, 97.3934, -55.932, 41.4521
2.444, 6, 35.6928, 49.4709, -14.3544, 97.3765, -55.8852, 41.4978
2.448, 6, 35.6951, 49.4601, -14.3466, 97.3618, -55.8502, 41.5336
2.452, 6, 35.697, 49.4529, -14.341, 97.3493, -55.8273, 41.5593
2.456, 6, 35.6985, 49.4493, -14.3375, 97.3387, -55.8165, 41.575
2.459, 6, 35.6995, 49.4496, -14.3361, 97.3299, -55.818, 41.5808
2.464, 6, 35.7, 49.4538, -14.3368, 97.323, -55.8318, 41.5766
2.468, 6, 35.6999, 49.4619, -14.3397, 97.3177, -55.8581, 41.5625
2.472, 6, 35.6994, 49.4738, -14.3448, 97.3139, -55.8969, 41.5385
2.476, 6, 35.6985, 49.4891, -14.3521, 97.3116, -55.9484, 41.5045
2.479, 6, 35.6973, 49.5077, -14.3615, 97.3107, -56.0125, 41.4606
2.484, 6, 35.6959, 49.5293, -14.3729, 97.3112, -56.0891, 41.4071
2.488, 6, 35.6944, 49.5536, -14.3863, 97.3128, -56.1779, 41.3441
2.492, 6, 35.6928, 49.5804, -14.4017, 97.3155, -56.2783, 41.2723
2.495, 6, 35.6911, 49.6098, -14.4189, 97.3191, -56.3897, 41.192
2.5, 6, 35.6892, 49.6417, -14.4377, 97.3235, -56.5111, 41.1043
2.504, 6, 35.687, 49.676, -14.4581, 97.3284, -56.6415, 41.0099
2.508, 6, 35.6845, 49.7127, -14.4798, 97.3337, -56.7798, 40.9097
2.512, 6, 35.6816, 49.7516, -14.5026, 97.3391, -56.925, 40.8049
2.515, 6, 35.6783, 49.7925, -14.5263, 97.3445, -57.0758, 40.6963
2.52, 6, 35.6746, 49.8353, -14.5506, 97.3497, -57.2314, 40.5849
2.525, 6, 35.6705, 49.8795, -14.5753, 97.3546, -57.3905, 40.4717
2.53, 6, 35.6612, 49.9711, -14.6251, 97.3626, -57.7163, 40.2429
2.532, 7, 35.6612, 49.9711, -14.6251, 97.3626, -57.7163, 40.2429
2.535, 7, 35.6561, 50.0178, -14.6496, 97.3656, -57.8814, 40.1289
2.54, 7, 35.6506, 50.065, -14.6736, 97.3677, -58.0471, 40.0161
2.544, 7, 35.6447, 50.1125, -14.6969, 97.3689, -58.2129, 39.9049
2.548, 7, 35.6386, 50.1601, -14.7192, 97.3692, -58.3785, 39.796
2.551, 7, 35.6323, 50.2078, -14.7405, 97.3684, -58.5434, 39.6896
2.556, 7, 35.6257, 50.2555, -14.7605, 97.3664, -58.7075, 39.5861
2.56, 7, 35.6189, 50.3031, -14.7793, 97.3634, -58.8706, 39.4856
2.564, 7, 35.612, 50.3506, -14.7966, 97.3593, -59.0327, 39.3881
2.568, 7, 35.6049, 50.3978, -14.8126, 97.3541, -59.1936, 39.2937
2.571, 7, 35.5976, 50.4447, -14.8273, 97.3478, -59.3535, 39.2023
2.576, 7, 35.5902, 50.4911, -14.8405, 97.3406, -59.5123, 39.1137
2.58, 7, 35.5826, 50.5371, -14.8526, 97.3323, -59.6701, 39.0276
2.584, 7, 35.5748, 50.5826, -14.8634, 97.3233, -59.827, 38.9439
2.587, 7, 35.5669, 50.6275, -14.8732, 97.3134, -59.9831, 38.8623
2.592, 7, 35.5589, 50.6719, -14.882, 97.3027, -60.1385, 38.7825
2.596, 7, 35.5507, 50.7156, -14.8899, 97.2914, -60.2934, 38.7043
2.6, 7, 35.5423, 50.7588, -14.897, 97.2795, -60.4477, 38.6273
2.604, 7, 35.5338, 50.8014, -14.9036, 97.2671, -60.6016, 38.5513
2.607, 7, 35.5252, 50.8435, -14.9095, 97.2541, -60.7552, 38.4762
2.612, 7, 35.5163, 50.8851, -14.9149, 97.2407, -60.9086, 38.4018
2.616, 7, 35.5074, 50.9263, -14.9199, 97.2269, -61.0617, 38.3278
2.62, 7, 35.4983, 50.9672, -14.9246, 97.2126, -61.2147, 38.2543
2.624, 7, 35.4891, 51.0078, -14.9288, 97.198, -61.3676, 38.1812
2.627, 7, 35.4798, 51.0481, -14.9327, 97.183, -61.5203, 38.1084
2.632, 7, 35.4704, 51.0883, -14.9364, 97.1677, -61.6729, 38.0358
2.636, 7, 35.4609, 51.1282, -14.9397, 97.152, -61.8254, 37.9635
2.64, 7, 35.4513, 51.168, -14.9427, 97.136, -61.9778, 37.8915
2.643, 7, 35.4417, 51.2076, -14.9454, 97.1197, -62.1301, 37.8197
2.648, 7, 35.4319, 51.247, -14.9478, 97.103, -62.2823, 37.7481
2.652, 7, 35.422, 51.2862, -14.95, 97.0859, -62.4344, 37.6767
2.656, 7, 35.4121, 51.3253, -14.9519, 97.0686, -62.5865, 37.6055
2.66, 7, 35.4021, 51.3643, -14.9535, 97.0509, -62.7384, 37.5345
2.663, 7, 35.392, 51.403, -14.9548, 97.0329, -62.8903, 37.4638
2.668, 7, 35.3818, 51.4417, -14.9558, 97.0145, -63.0421, 37.3932
2.672, 7, 35.3715, 51.4801, -14.9565, 96.9959, -63.1938, 37.3228
2.676, 7, 35.3612, 51.5184, -14.957, 96.9769, -63.3454, 37.2526
2.679, 7, 35.3507, 51.5565, -14.9572, 96.9576, -63.4969, 37.1826
2.684, 7, 35.3402, 51.5945, -14.9571, 96.9381, -63.6483, 37.1128
2.688, 7, 35.3296, 51.6324, -14.9567, 96.9181, -63.7997, 37.0432
2.692, 7, 35.3189, 51.67, -14.956, 96.8979, -63.951, 36.9737
2.696, 7, 35.3082, 51.7075, -14.9551, 96.8774, -64.1021, 36.9045
2.699, 7, 35.2973, 51.7449, -14.9539, 96.8566, -64.2532, 36.8354
2.704, 7, 35.2864, 51.782, -14.9524, 96.8354, -64.4042, 36.7665
2.708, 7, 35.2754, 51.8191, -14.9506, 96.814, -64.5552, 36.6977
2.712, 7, 35.2643, 51.8559, -14.9485, 96.7922, -64.706, 36.6292
2.716, 7, 35.2531, 51.8926, -14.9461, 96.7702, -64.8567, 36.5608
2.719, 7, 35.2419, 51.9291, -14.9435, 96.7478, -65.0074, 36.4926
2.724, 7, 35.2306, 51.9655, -14.9406, 96.7252, -65.158, 36.4245
2.728, 7, 35.2191, 52.0017, -14.9374, 96.7023, -65.3085, 36.3566
2.732, 7, 35.2077, 52.0378, -14.9339, 96.6791, -65.4589, 36.2889
2.735, 7, 35.1961, 52.0736, -14.9301, 96.6556, -65.6092, 36.2214
2.74, 7, 35.1844, 52.1094, -14.926, 96.6318, -65.7594, 36.154
2.744, 7, 35.1727, 52.1449, -14.9217, 96.6077, -65.9096, 36.0867
2.748, 7, 35.1609, 52.1803, -14.917, 96.5833, -66.0596, 36.0196
2.752, 7, 35.149, 52.2155, -14.9121, 96.5586, -66.2096, 35.9527
2.755, 7, 35.137, 52.2505, -14.9069, 96.5337, -66.3595, 35.8859
2.76, 7, 35.125, 52.2854, -14.9014, 96.5085, -66.5093, 35.8193
2.764, 7, 35.1128, 52.3201, -14.8957, 96.483, -66.659, 35.7528
2.768, 7, 35.1006, 52.3546, -14.8896, 96.4572, -66.8086, 35.6865
2.772, 7, 35.0883, 52.389, -14.8832, 96.4311, -66.9582, 35.6203
2.775, 7, 35.0759, 52.4232, -14.8766, 96.4048, -67.1076, 35.5543
2.78, 7, 35.0635, 52.4572, -14.8697, 96.3782, -67.257, 35.4884
2.784, 7, 35.0509, 52.4911, -14.8624, 96.3513, -67.4063, 35.4226
2.788, 7, 35.0383, 52.5248, -14.8549, 96.3242, -67.5555, 35.357
2.791, 7, 35.0256, 52.5583, -14.8471, 96.2968, -67.7046, 35.2915
2.796, 7, 35.0129, 52.5916, -14.839, 96.2691, -67.8536, 35.2262
2.8, 7, 35, 52.6248, -14.8307, 96.2411, -68.0025, 35.161
2.804, 7, 34.9871, 52.6578, -14.822, 96.2129, -68.1514, 35.0959
2.808, 7, 34.9741, 52.6906, -14.813, 96.1845, -68.3001, 35.0309
2.811, 7, 34.961, 52.7232, -14.8038, 96.1557, -68.4488, 34.9661
2.816, 7, 34.9478, 52.7557, -14.7942, 96.1267, -68.5974, 34.9014
2.82, 7, 34.9346, 52.788, -14.7844, 96.0975, -68.7459, 34.8369
2.824, 7, 34.9212, 52.8201, -14.7743, 96.068, -68.8943, 34.7724
2.828, 7, 34.9078, 52.852, -14.7638, 96.0382, -69.0426, 34.7081
2.831, 7, 34.8944, 52.8837, -14.7531, 96.0082, -69.1908, 34.6439
2.836, 7, 34.8808, 52.9153, -14.7421, 95.9779, -69.339, 34.5798
2.84, 7, 34.8672, 52.9467, -14.7308, 95.9474, -69.4871, 34.5159
2.844, 7, 34.8534, 52.9779, -14.7192, 95.9166, -69.635, 34.452
2.847, 7, 34.8396, 53.009, -14.7073, 95.8856, -69.7829, 34.3883
2.852, 7, 34.8258, 53.0398, -14.6951, 95.8543, -69.9307, 34.3247
2.856, 7, 34.8118, 53.0705, -14.6826, 95.8228, -70.0784, 34.2612
2.86, 7, 34.7977, 53.1009, -14.6697, 95.791, -70.226, 34.1978
2.864, 7, 34.7834, 53.1311, -14.6565, 95.759, -70.3736, 34.1345
2.867, 7, 34.7688, 53.1608, -14.6429, 95.7266, -70.521, 34.0715
2.872, 7, 34.754, 53.19, -14.6287, 95.6939, -70.6682, 34.0087
2.876, 7, 34.7388, 53.2185, -14.6137, 95.6606, -70.8153, 33.9465
2.88, 7, 34.7234, 53.2461, -14.5977, 95.6267, -70.962, 33.885
2.883, 7, 34.7077, 53.2725, -14.5805, 95.5918, -71.1081, 33.8248
2.888, 7, 34.6918, 53.2977, -14.5616, 95.5556, -71.2534, 33.7662
2.892, 7, 34.6758, 53.3215, -14.5407, 95.5179, -71.3977, 33.7099
2.896, 7, 34.6597, 53.3438, -14.5175, 95.4784, -71.5404, 33.6564
2.9, 7, 34.6434, 53.3646, -14.4913, 95.4365, -71.6812, 33.6065
2.903, 7, 34.6269, 53.384, -14.4619, 95.3921, -71.8197, 33.5608
2.908, 7, 34.6102, 53.4018, -14.4289, 95.3448, -71.9554, 33.5201
2.912, 7, 34.5933, 53.4181, -14.3919, 95.2943, -72.088, 33.4848
2.916, 7, 34.5761, 53.4329, -14.3506, 95.2403, -72.217, 33.4555
2.92, 7, 34.5588, 53.4461, -14.3049, 95.1828, -72.3422, 33.4326
2.923, 7, 34.5413, 53.4579, -14.2548, 95.1216, -72.4635, 33.4162
2.928, 7, 34.5235, 53.4681, -14.2001, 95.0568, -72.5808, 33.4064
2.932, 7, 34.5055, 53.4769, -14.1411, 94.9885, -72.6943, 33.4031
2.936, 7, 34.4872, 53.4843, -14.078, 94.9168, -72.804, 33.4057
2.939, 7, 34.4686, 53.4902, -14.011, 94.8421, -72.9104, 33.414
2.944, 7, 34.4498, 53.4948, -13.9405, 94.7647, -73.0138, 33.4273
2.948, 7, 34.4306, 53.4979, -13.8669, 94.6848, -73.1147, 33.4449
2.952, 7, 34.4113, 53.4996, -13.7906, 94.6028, -73.2133, 33.4664
2.956, 7, 34.3917, 53.4999, -13.7119, 94.519, -73.3103, 33.4909
2.959, 7, 34.372, 53.4988, -13.6313, 94.4337, -73.4061, 33.5178
2.964, 7, 34.3521, 53.4965, -13.5492, 94.3473, -73.501, 33.5466
2.968, 7, 34.3321, 53.493, -13.4658, 94.2601, -73.5953, 33.5767
2.972, 7, 34.3118, 53.4885, -13.3815, 94.1722, -73.6893, 33.6076
2.976, 7, 34.2914, 53.4832, -13.2966, 94.0842, -73.7831, 33.6388
2.98, 7, 34.2707, 53.4773, -13.2113, 93.9961, -73.8769, 33.6699
2.984, 7, 34.2498, 53.4709, -13.1258, 93.9082, -73.9706, 33.7006
2.988, 7, 34.2287, 53.464, -13.0403, 93.8209, -74.0644, 33.7305
2.992, 7, 34.2074, 53.4569, -12.9551, 93.7344, -74.1582, 33.7594
2.995, 7, 34.186, 53.4496, -12.8703, 93.6489, -74.2521, 33.7868
3, 7, 34.1644, 53.4421, -12.786, 93.5647, -74.3459, 33.8125
3.004, 7, 34.1427, 53.4345, -12.7024, 93.4819, -74.4397, 33.8362
3.008, 7, 34.1209, 53.4269, -12.6197, 93.4009, -74.5336, 33.8577
3.012, 7, 34.0991, 53.4195, -12.5378, 93.3218, -74.6273, 33.8766
3.015, 7, 34.0772, 53.4121, -12.4569, 93.2447, -74.7211, 33.8929
3.02, 7, 34.0554, 53.405, -12.3771, 93.1697, -74.8148, 33.9065
3.024, 7, 34.0336, 53.3981, -12.2983, 93.0968, -74.9084, 33.9173
3.028, 7, 34.0117, 53.3914, -12.2205, 93.0261, -75.0019, 33.9253
3.031, 7, 33.9899, 53.3847, -12.1438, 92.9574, -75.0953, 33.9307
3.036, 7, 33.968, 53.3782, -12.0681, 92.8907, -75.1887, 33.9336
3.04, 7, 33.9461, 53.3716, -11.9932, 92.8257, -75.282, 33.9341
3.044, 7, 33.9241, 53.3648, -11.9192, 92.7624, -75.3752, 33.9326
3.048, 7, 33.9018, 53.3579, -11.8458, 92.7005, -75.4684, 33.9293
3.051, 7, 33.8793, 53.3505, -11.7729, 92.6398, -75.5615, 33.9244
3.056, 7, 33.8566, 53.3425, -11.7004, 92.5801, -75.6544, 33.9184
3.06, 7, 33.8335, 53.3338, -11.628, 92.5212, -75.7471, 33.9115
3.064, 7, 33.8101, 53.3243, -11.5556, 92.4629, -75.8395, 33.9041
3.068, 7, 33.7865, 53.3138, -11.4829, 92.405, -75.9315, 33.8966
3.071, 7, 33.7628, 53.3022, -11.4097, 92.3473, -76.0228, 33.8895
3.076, 10, 33.739, 53.2897, -11.3358, 92.2897, -76.1132, 33.8831
3.08, 10, 33.715, 53.276, -11.261, 92.2321, -76.2024, 33.8778
3.084, 10, 33.691, 53.2614, -11.185, 92.1744, -76.2903, 33.8739
3.087, 10, 33.6669, 53.2459, -11.1076, 92.1166, -76.3765, 33.8719
3.092, 10, 33.6427, 53.2295, -11.0286, 92.0584, -76.4608, 33.872
3.096, 10, 33.6183, 53.2123, -10.948, 92.0001, -76.543, 33.8745
3.1, 10, 33.5939, 53.1943, -10.8655, 91.9414, -76.6228, 33.8795
3.104, 10, 33.5694, 53.1757, -10.7812, 91.8825, -76.7002, 33.8872
3.107, 10, 33.5447, 53.1563, -10.6951, 91.8232, -76.7751, 33.8977
3.112, 10, 33.52, 53.1363, -10.6071, 91.7637, -76.8476, 33.9107
3.116, 10, 33.4951, 53.1155, -10.5174, 91.7039, -76.9177, 33.9263
3.12, 10, 33.4701, 53.0939, -10.4261, 91.6439, -76.9857, 33.9443
3.124, 10, 33.445, 53.0714, -10.3333, 91.5837, -77.0517, 33.9644
3.128, 10, 33.4197, 53.0481, -10.2393, 91.5234, -77.116, 33.9863
3.132, 10, 33.3944, 53.0238, -10.1442, 91.4629, -77.1788, 34.0098
3.136, 10, 33.3689, 52.9986, -10.0481, 91.4023, -77.2404, 34.0345
3.14, 10, 33.3433, 52.9725, -9.95138, 91.3416, -77.301, 34.0602
3.143, 10, 33.3175, 52.9455, -9.85406, 91.2808, -77.3609, 34.0867
3.148, 10, 33.2915, 52.9177, -9.75632, 91.2201, -77.4202, 34.1138
3.152, 10, 33.2654, 52.8892, -9.65829, 91.1593, -77.4792, 34.1411
3.156, 10, 33.2391, 52.8602, -9.56005, 91.0985, -77.538, 34.1687
3.16, 10, 33.2126, 52.8308, -9.46169, 91.0377, -77.5966, 34.1964
3.163, 10, 33.186, 52.8011, -9.36327, 90.977, -77.6551, 34.2242
3.168, 10, 33.1593, 52.7711, -9.26481, 90.9162, -77.7136, 34.2519
3.172, 10, 33.1325, 52.7411, -9.16636, 90.8555, -77.772, 34.2796
3.176, 10, 33.1057, 52.7109, -9.06792, 90.7948, -77.8305, 34.3072
3.179, 10, 33.0788, 52.6806, -8.96951, 90.7341, -77.889, 34.3348
3.184, 10, 33.0518, 52.6503, -8.87113, 90.6734, -77.9475, 34.3623
3.188, 10, 33.0248, 52.62, -8.7728, 90.6128, -78.0061, 34.3897
3.192, 10, 32.9977, 52.5896, -8.67452, 90.5522, -78.0647, 34.417
3.196, 10, 32.9706, 52.5592, -8.57629, 90.4916, -78.1234, 34.4442
3.199, 10, 32.9434, 52.5288, -8.47811, 90.431, -78.182, 34.4713
3.204, 10, 32.9162, 52.4983, -8.37997, 90.3705, -78.2408, 34.4983
3.208, 10, 32.8889, 52.4679, -8.2819, 90.3099, -78.2996, 34.5251
3.212, 10, 32.8616, 52.4374, -8.18387, 90.2494, -78.3584, 34.5519
3.216, 10, 32.8342, 52.4069, -8.0859, 90.1889, -78.4172, 34.5786
3.22, 10, 32.8068, 52.3764, -7.98798, 90.1285, -78.4762, 34.6052
3.224, 10, 32.7793, 52.3458, -7.89012, 90.068, -78.5351, 34.6316
3.228, 10, 32.7518, 52.3153, -7.79231, 90.0076, -78.5941, 34.658
3.232, 10, 32.7242, 52.2847, -7.69455, 89.9472, -78.6532, 34.6842
3.235, 10, 32.6966, 52.2541, -7.59684, 89.8868, -78.7123, 34.7104
3.24, 10, 32.669, 52.2235, -7.49919, 89.8265, -78.7715, 34.7364
3.244, 10, 32.6413, 52.1929, -7.4016, 89.7661, -78.8307, 34.7623
3.248, 10, 32.6135, 52.1622, -7.30405, 89.7058, -78.8899, 34.7882
3.252, 10, 32.5857, 52.1316, -7.20656, 89.6455, -78.9492, 34.8139
3.255, 10, 32.5579, 52.1009, -7.10912, 89.5852, -79.0085, 34.8395
3.26, 10, 32.53, 52.0702, -7.01174, 89.5249, -79.0679, 34.865
3.264, 10, 32.502, 52.0395, -6.9144, 89.4647, -79.1273, 34.8904
3.268, 10, 32.474, 52.0087, -6.81713, 89.4044, -79.1868, 34.9157
3.272, 10, 32.446, 51.978, -6.7199, 89.3442, -79.2463, 34.9408
3.276, 10, 32.4179, 51.9472, -6.62272, 89.284, -79.3059, 34.9659
3.28, 10, 32.3898, 51.9164, -6.5256, 89.2239, -79.3655, 34.9909
3.284, 10, 32.3616, 51.8856, -6.42853, 89.1637, -79.4252, 35.0157
3.288, 10, 32.3334, 51.8547, -6.33151, 89.1036, -79.4849, 35.0405
3.291, 10, 32.3051, 51.8239, -6.23455, 89.0434, -79.5446, 35.0651
3.296, 10, 32.2767, 51.793, -6.13763, 88.9833, -79.6044, 35.0897
3.3, 10, 32.2484, 51.7621, -6.04077, 88.9232, -79.6642, 35.1141
3.304, 10, 32.2199, 51.7312, -5.94396, 88.8631, -79.7241, 35.1384
3.308, 10, 32.1915, 51.7003, -5.8472, 88.8031, -79.784, 35.1626
3.312, 10, 32.1629, 51.6693, -5.7505, 88.743, -79.844, 35.1867
3.316, 10, 32.1344, 51.6383, -5.65384, 88.683, -79.904, 35.2107
3.32, 10, 32.1057, 51.6073, -5.55724, 88.6229, -79.9641, 35.2346
3.324, 10, 32.0771, 51.5763, -5.46069, 88.5629, -80.0242, 35.2584
3.328, 10, 32.0484, 51.5452, -5.36418, 88.5029, -80.0843, 35.282
3.332, 10, 32.0196, 51.5142, -5.26773, 88.4429, -80.1445, 35.3056
3.336, 10, 31.9908, 51.4831, -5.17133, 88.383, -80.2047, 35.3291
3.34, 10, 31.9619, 51.452, -5.07499, 88.323, -80.265, 35.3524
3.344, 10, 31.933, 51.4208, -4.97869, 88.263, -80.3253, 35.3756
3.347, 10, 31.9041, 51.3897, -4.88245, 88.2031, -80.3856, 35.3988
3.352, 10, 31.8752, 51.3585, -4.78626, 88.1432, -80.446, 35.4218
3.356, 10, 31.8464, 51.3273, -4.69015, 88.0833, -80.5064, 35.4447
3.36, 10, 31.8176, 51.2961, -4.59411, 88.0234, -80.5669, 35.4675
3.364, 10, 31.789, 51.2649, -4.49817, 87.9636, -80.6274, 35.4902
3.368, 10, 31.7605, 51.2337, -4.40235, 87.9038, -80.6878, 35.5127
3.372, 10, 31.7321, 51.2025, -4.30669, 87.8441, -80.7483, 35.5351
3.376, 10, 31.704, 51.1714, -4.21126, 87.7845, -80.8086, 35.5574
3.38, 10, 31.6762, 51.1404, -4.11615, 87.725, -80.8689, 35.5795
3.383, 10, 31.6491, 51.1096, -4.02152, 87.6657, -80.929, 35.6015
3.388, 10, 31.6228, 51.0791, -3.92757, 87.6069, -80.9887, 35.6232
3.392, 10, 31.5973, 51.0489, -3.8346, 87.5485, -81.0479, 35.6446
3.396, 10, 31.5726, 51.0189, -3.74297, 87.4909, -81.1063, 35.6656
3.4, 10, 31.5486, 50.9891, -3.65311, 87.4344, -81.1637, 35.6862
3.403, 10, 31.5251, 50.9594, -3.56545, 87.3794, -81.2196, 35.7063
3.408, 10, 31.5021, 50.9295, -3.48044, 87.3263, -81.2736, 35.7257
3.412, 10, 31.4793, 50.8996, -3.39848, 87.2754, -81.3251, 35.7446
3.416, 10, 31.4571, 50.8695, -3.31995, 87.2273, -81.3738, 35.7628
3.42, 10, 31.4354, 50.8396, -3.24512, 87.1825, -81.4189, 35.7804
3.424, 10, 31.4144, 50.8097, -3.17419, 87.1413, -81.4601, 35.7974
3.428, 10, 31.394, 50.7799, -3.10727, 87.1041, -81.4967, 35.8141
3.432, 10, 31.3741, 50.7501, -3.04438, 87.0715, -81.5281, 35.8305
3.436, 10, 31.3544, 50.7201, -2.98539, 87.0437, -81.554, 35.8467
3.439, 10, 31.3347, 50.6895, -2.93011, 87.021, -81.5739, 35.8631
3.444, 10, 31.3149, 50.6579, -2.87818, 87.0037, -81.5873, 35.8798
3.448, 10, 31.2951, 50.6253, -2.82919, 86.9921, -81.5939, 35.8972
3.452, 10, 31.2756, 50.5914, -2.78263, 86.9863, -81.5932, 35.9154
3.456, 11, 31.2565, 50.556, -2.738, 86.9865, -81.585, 35.9349
3.46, 11, 31.238, 50.5188, -2.69478, 86.9927, -81.569, 35.956
3.464, 11, 31.2202, 50.4792, -2.65247, 87.0051, -81.545, 35.9788
3.468, 11, 31.2031, 50.4369, -2.61064, 87.0237, -81.5126, 36.0035
3.472, 11, 31.1864, 50.3915, -2.56892, 87.0488, -81.4718, 36.0305
3.476, 11, 31.1699, 50.3427, -2.52696, 87.0803, -81.4222, 36.0598
3.48, 11, 31.1536, 50.2901, -2.48449, 87.1184, -81.3637, 36.0916
3.484, 11, 31.1372, 50.2338, -2.44127, 87.1632, -81.296, 36.1259
3.488, 11, 31.1206, 50.1736, -2.39709, 87.2148, -81.219, 36.163
3.492, 11, 31.1039, 50.1098, -2.3518, 87.2733, -81.1325, 36.2028
3.495, 11, 31.0868, 50.0424, -2.30528, 87.3386, -81.0364, 36.2455
3.5, 11, 31.0693, 49.9718, -2.25745, 87.4107, -80.9308, 36.2908
3.504, 11, 31.0515, 49.8982, -2.2083, 87.4894, -80.8159, 36.3388
3.508, 11, 31.0333, 49.8221, -2.15784, 87.5745, -80.692, 36.3894
3.512, 11, 31.0149, 49.7438, -2.10618, 87.6654, -80.5598, 36.4422
3.516, 11, 30.9963, 49.6638, -2.05344, 87.7616, -80.42, 36.4971
3.52, 11, 30.9777, 49.5823, -1.9998, 87.8625, -80.2736, 36.5536
3.524, 11, 30.959, 49.4997, -1.94551, 87.9672, -80.1217, 36.6114
3.528, 11, 30.9404, 49.4162, -1.89079, 88.0748, -79.9657, 36.6701
3.531, 11, 30.9219, 49.3322, -1.83595, 88.1845, -79.8069, 36.7292
3.536, 11, 30.9034, 49.248, -1.78128, 88.2952, -79.6468, 36.7883
3.54, 11, 30.8849, 49.164, -1.72708, 88.4058, -79.4869, 36.8468
3.544, 11, 30.8664, 49.0804, -1.67367, 88.5155, -79.3288, 36.9043
3.548, 11, 30.8479, 48.9976, -1.62136, 88.6233, -79.1738, 36.9604
3.552, 11, 30.8295, 48.9157, -1.57043, 88.7283, -79.0235, 37.0147
3.556, 11, 30.8111, 48.8354, -1.52114, 88.8297, -78.8789, 37.0668
3.56, 11, 30.7929, 48.7569, -1.47371, 88.9269, -78.741, 37.1164
3.564, 11, 30.775, 48.6806, -1.42832, 89.0195, -78.6107, 37.1634
3.568, 11, 30.7575, 48.607, -1.3851, 89.107, -78.4886, 37.2075
3.572, 11, 30.7405, 48.5366, -1.34412, 89.1892, -78.3749, 37.2488
3.576, 11, 30.724, 48.4697, -1.30542, 89.2662, -78.2699, 37.2872
3.58, 11, 30.708, 48.4066, -1.26902, 89.3377, -78.1737, 37.3226
3.584, 11, 30.6926, 48.3474, -1.23488, 89.4039, -78.0862, 37.3553
3.587, 11, 30.6777, 48.2922, -1.20295, 89.4649, -78.0073, 37.3851
3.592, 11, 30.6633, 48.2411, -1.17314, 89.5208, -77.9369, 37.4123
3.596, 11, 30.6494, 48.194, -1.14535, 89.5718, -77.8746, 37.4369
3.6, 11, 30.636, 48.1509, -1.11946, 89.6182, -77.8203, 37.4591
3.604, 11, 30.6231, 48.1118, -1.09534, 89.6602, -77.7737, 37.479
3.608, 11, 30.6105, 48.0769, -1.07284, 89.698, -77.7345, 37.4967
3.612, 11, 30.5984, 48.0461, -1.05183, 89.7318, -77.7027, 37.5124
3.616, 11, 30.5866, 48.0194, -1.03219, 89.7618, -77.6781, 37.526
3.62, 11, 30.5748, 47.9969, -1.01379, 89.7882, -77.6607, 37.5378
3.624, 11, 30.5626, 47.9784, -0.996541, 89.8109, -77.6506, 37.5476
3.628, 11, 30.55, 47.9639, -0.980321, 89.8302, -77.6483, 37.5557
3.632, 11, 30.5369, 47.9531, -0.965002, 89.8459, -77.6541, 37.5618
3.636, 11, 30.5234, 47.946, -0.95044, 89.8581, -77.6684, 37.566
3.64, 11, 30.5097, 47.9421, -0.936477, 89.8667, -77.6921, 37.5683
3.644, 11, 30.496, 47.9412, -0.922948, 89.8718, -77.7257, 37.5687
3.648, 11, 30.4825, 47.9432, -0.909686, 89.8735, -77.7696, 37.5671
3.652, 11, 30.4693, 47.9477, -0.896534, 89.8716, -77.8244, 37.5635
3.656, 11, 30.4563, 47.9545, -0.883346, 89.8663, -77.8904, 37.558
3.66, 11, 30.4433, 47.9636, -0.869991, 89.8578, -77.9675, 37.5505
3.664, 11, 30.4302, 47.9749, -0.856347, 89.8462, -78.0556, 37.5413
3.668, 11, 30.417, 47.9882, -0.8423, 89.8317, -78.1545, 37.5303
3.672, 11, 30.4036, 48.0035, -0.827755, 89.8147, -78.2635, 37.5178
3.676, 11, 30.3903, 48.0205, -0.812642, 89.7953, -78.382, 37.5038
3.679, 11, 30.3771, 48.0394, -0.796928, 89.7739, -78.5092, 37.4886
3.684, 11, 30.3637, 48.0599, -0.780619, 89.7509, -78.644, 37.4723
3.688, 11, 30.3501, 48.0821, -0.763753, 89.7264, -78.7854, 37.4551
3.692, 11, 30.3361, 48.106, -0.746394, 89.7008, -78.9323, 37.4372
3.696, 11, 30.3216, 48.1315, -0.728619, 89.6743, -79.0836, 37.4186
3.7, 11, 30.3064, 48.1586, -0.710507, 89.647, -79.2385, 37.3996
3.704, 11, 30.2905, 48.187, -0.692127, 89.6193, -79.3962, 37.3802
3.708, 11, 30.274, 48.2165, -0.673537, 89.5911, -79.556, 37.3605
3.712, 11, 30.257, 48.2469, -0.654782, 89.5626, -79.7174, 37.3406
3.716, 11, 30.2395, 48.278, -0.635896, 89.5339, -79.8802, 37.3206
3.72, 11, 30.2217, 48.3097, -0.616904, 89.5049, -80.044, 37.3004
3.724, 11, 30.2036, 48.3417, -0.597828, 89.4759, -80.2086, 37.2801
3.728, 11, 30.1853, 48.3741, -0.57868, 89.4467, -80.3739, 37.2598
3.732, 11, 30.1667, 48.4068, -0.559471, 89.4173, -80.5397, 37.2393
3.735, 11, 30.148, 48.4396, -0.540207, 89.3879, -80.7061, 37.2188
3.74, 11, 30.1291, 48.4727, -0.520894, 89.3585, -80.8729, 37.1983
3.744, 11, 30.1102, 48.5058, -0.501534, 89.3289, -81.0401, 37.1777
3.748, 11, 30.0912, 48.5391, -0.48213, 89.2993, -81.2077, 37.157
3.752, 11, 30.0721, 48.5725, -0.462681, 89.2696, -81.3757, 37.1363
3.756, 11, 30.0529, 48.606, -0.44319, 89.2398, -81.544, 37.1155
3.76, 11, 30.0337, 48.6395, -0.423657, 89.21, -81.7128, 37.0947
3.764, 11, 30.0145, 48.6731, -0.404081, 89.1801, -81.8819, 37.0739
3.768, 11, 29.9952, 48.7068, -0.384464, 89.1502, -82.0513, 37.053
3.772, 11, 29.9759, 48.7406, -0.364805, 89.1202, -82.2211, 37.0321
3.776, 11, 29.9565, 48.7745, -0.345103, 89.0901, -82.3913, 37.0111
3.78, 11, 29.9372, 48.8083, -0.32536, 89.06, -82.5619, 36.9901
3.784, 11, 29.9181, 48.8421, -0.305576, 89.0297, -82.7327, 36.969
3.788, 11, 29.8993, 48.8756, -0.285758, 88.9995, -82.9039, 36.9479
3.792, 11, 29.8808, 48.9087, -0.265915, 88.9692, -83.0752, 36.9268
3.796, 11, 29.8629, 48.9411, -0.246067, 88.9389, -83.2466, 36.9057
3.8, 11, 29.8455, 48.9727, -0.226247, 88.9087, -83.4176, 36.8846
3.804, 11, 29.8288, 49.0031, -0.206503, 88.8786, -83.5879, 36.8636
3.808, 11, 29.8127, 49.0324, -0.186902, 88.8487, -83.7569, 36.8428
3.812, 11, 29.7972, 49.0605, -0.167535, 88.8192, -83.9239, 36.8222
3.816, 11, 29.7822, 49.0876, -0.148506, 88.7902, -84.0878, 36.802
3.82, 11, 29.7678, 49.1137, -0.129937, 88.7619, -84.2478, 36.7823
3.824, 11, 29.7539, 49.1389, -0.111956, 88.7345, -84.4027, 36.7632
3.828, 11, 29.7405, 49.1632, -0.0946961, 88.7082, -84.5514, 36.7448
3.832, 11, 29.7276, 49.1865, -0.0782854, 88.6832, -84.6928, 36.7274
3.836, 11, 29.7152, 49.2088, -0.0628444, 88.6596, -84.8259, 36.711
3.84, 11, 29.7035, 49.2299, -0.0484815, 88.6377, -84.9497, 36.6958
3.844, 11, 29.6923, 49.2498, -0.0352894, 88.6176, -85.0635, 36.6817
3.848, 11, 29.6817, 49.2687, -0.0233393, 88.5994, -85.1667, 36.669
3.852, 11, 29.6715, 49.2866, -0.0126746, 88.5831, -85.2589, 36.6576
3.856, 11, 29.6616, 49.3036, -0.00330536, 88.5687, -85.34, 36.6476
3.86, 11, 29.6523, 49.3196, 0.00479319, 88.5563, -85.4102, 36.639
3.864, 11, 29.6434, 49.3346, 0.0116783, 88.5458, -85.4701, 36.6316
3.868, 11, 29.6351, 49.3484, 0.0174341, 88.5369, -85.5203, 36.6254
3.872, 11, 29.6276, 49.3609, 0.0221638, 88.5296, -85.5616, 36.6203
3.876, 11, 29.6207, 49.3722, 0.0259811, 88.5237, -85.5951, 36.6162
3.88, 11, 29.6146, 49.3824, 0.0290026, 88.519, -85.6217, 36.6129
3.884, 11, 29.609, 49.3915, 0.0313437, 88.5154, -85.6424, 36.6103
3.888, 11, 29.6041, 49.3996, 0.0331156, 88.5126, -85.6581, 36.6084
3.892, 11, 29.5996, 49.4066, 0.0344242, 88.5106, -85.6698, 36.607
3.896, 11, 29.5958, 49.4126, 0.035367, 88.5091, -85.6783, 36.6059
3.9, 13, 29.5925, 49.4176, 0.0360309, 88.508, -85.6843, 36.6052
3.904, 13, 29.5898, 49.4214, 0.0364896, 88.5073, -85.6885, 36.6046
3.908, 13, 29.5877, 49.4243, 0.0368025, 88.5068, -85.6914, 36.6043
3.912, 13, 29.5862, 49.4264, 0.0370147, 88.5065, -85.6933, 36.604
3.916, 13, 29.5851, 49.4278, 0.0371585, 88.5062, -85.6947, 36.6039
3.92, 13, 29.5844, 49.4287, 0.0372558, 88.5061, -85.6956, 36.6038
3.924, 13, 29.5839, 49.4294, 0.0373218, 88.506, -85.6962, 36.6037
3.928, 13, 29.5835, 49.4298, 0.0373664, 88.5059, -85.6966, 36.6036
3.932, 13, 29.5833, 49.4301, 0.0373967, 88.5058, -85.6969, 36.6036
3.936, 13, 29.5832, 49.4303, 0.0374172, 88.5058, -85.6971, 36.6036
3.94, 13, 29.5831, 49.4304, 0.0374311, 88.5058, -85.6972, 36.6036
3.944, 13, 29.583, 49.4305, 0.0374405, 88.5058, -85.6973, 36.6036
3.948, 13, 29.583, 49.4306, 0.0374469, 88.5058, -85.6973, 36.6035
3.952, 13, 29.5829, 49.4306, 0.0374512, 88.5058, -85.6974, 36.6035
3.956, 13, 29.5829, 49.4307, 0.0374541, 88.5057, -85.6974, 36.6035
3.96, 13, 29.5829, 49.4307, 0.0374561, 88.5057, -85.6974, 36.6035
3.964, 13, 29.5829, 49.4307, 0.0374574, 88.5057, -85.6974, 36.6035
3.968, 13, 29.5829, 49.4307, 0.0374583, 88.5057, -85.6975, 36.6035
3.972, 13, 29.5829, 49.4307, 0.0374589, 88.5057, -85.6975, 36.6035
3.976, 13, 29.5829, 49.4307, 0.0374594, 88.5057, -85.6975, 36.6035
3.98, 13, 29.5829, 49.4307, 0.0374596, 88.5057, -85.6975, 36.6035
3.984, 13, 29.5829, 49.4307, 0.0374598, 88.5057, -85.6975, 36.6035
3.988, 13, 29.5829, 49.4307, 0.03746, 88.5057, -85.6975, 36.6035
3.992, 13, 29.5829, 49.4307, 0.0374601, 88.5057, -85.6975, 36.6035
3.996, 13, 29.5829, 49.4307, 0.0374601, 88.5057, -85.6975, 36.6035
3.999, 13, 29.5829, 49.4307, 0.0374602, 88.5057, -85.6975, 36.6035
4.004, 13, 29.5829, 49.4307, 0.0374602, 88.5057, -85.6975, 36.6035
4.008, 13, 29.5829, 49.4307, 0.0374602, 88.5057, -85.6975, 36.6035
4.012, 13, 29.5829, 49.4307, 0.0374602, 88.5057, -85.6975, 36.6035
4.016, 13, 29.5829, 49.4307, 0.0374602, 88.5057, -85.6975, 36.6035
