hehonglu123/Motion-Primitive-Planning/simulation/robotstudio_sim/scripts/debug/curve_exe_v500_z10.csv
timestamp, cmd_num, J1, J2, J3, J4, J5, J6
0, -1, -18.8636, 34.2747, 31.1093, -27.285, -54.1585, 137.323
0.003, -1, -18.8636, 34.2747, 31.1093, -27.285, -54.1585, 137.323
0.006, -1, -18.8636, 34.2747, 31.1093, -27.285, -54.1585, 137.323
0.008, -1, -18.8636, 34.2747, 31.1093, -27.285, -54.1585, 137.323
0.011, -1, -18.8636, 34.2747, 31.1093, -27.285, -54.1585, 137.323
0.016, -1, -18.8636, 34.2747, 31.1093, -27.285, -54.1585, 137.323
0.02, -1, -18.8636, 34.2747, 31.1093, -27.285, -54.1585, 137.323
0.024, -1, -18.8636, 34.2747, 31.1093, -27.285, -54.1585, 137.323
0.028, -1, -18.8636, 34.2747, 31.1093, -27.285, -54.1585, 137.323
0.032, -1, -18.8636, 34.2747, 31.1093, -27.285, -54.1585, 137.323
0.036, -1, -18.8635, 34.2747, 31.1092, -27.285, -54.1585, 137.323
0.04, -1, -18.8633, 34.2747, 31.1092, -27.285, -54.1585, 137.323
0.044, -1, -18.8627, 34.2747, 31.1092, -27.285, -54.1585, 137.322
0.048, -1, -18.8617, 34.2749, 31.1092, -27.2849, -54.1586, 137.322
0.052, -1, -18.86, 34.275, 31.109, -27.2846, -54.1586, 137.322
0.056, -1, -18.8577, 34.2754, 31.1088, -27.284, -54.1586, 137.322
0.06, -1, -18.8546, 34.2758, 31.1083, -27.2829, -54.1587, 137.321
0.064, -1, -18.8506, 34.2765, 31.1075, -27.2809, -54.1589, 137.319
0.068, -1, -18.8456, 34.2775, 31.1063, -27.2777, -54.1591, 137.317
0.072, -1, -18.8396, 34.2788, 31.1044, -27.2728, -54.1593, 137.313
0.076, -1, -18.8322, 34.2805, 31.1017, -27.2657, -54.1596, 137.307
0.08, -1, -18.8231, 34.2828, 31.098, -27.2558, -54.16, 137.3
0.084, -1, -18.8121, 34.2856, 31.0929, -27.2422, -54.1606, 137.289
0.088, -1, -18.799, 34.2891, 31.0862, -27.2242, -54.1612, 137.275
0.092, -1, -18.7837, 34.2932, 31.0776, -27.2009, -54.162, 137.257
0.096, -1, -18.766, 34.298, 31.0668, -27.1715, -54.163, 137.235
0.1, -1, -18.746, 34.3035, 31.0536, -27.1351, -54.1641, 137.207
0.104, -1, -18.7235, 34.3097, 31.0375, -27.0911, -54.1654, 137.173
0.108, -1, -18.6983, 34.3168, 31.0186, -27.0389, -54.1669, 137.132
0.112, -1, -18.6705, 34.3246, 30.9965, -26.9779, -54.1686, 137.085
0.116, -1, -18.6398, 34.3333, 30.9712, -26.908, -54.1705, 137.032
0.12, -1, -18.6063, 34.3429, 30.9427, -26.829, -54.1726, 136.971
0.124, -1, -18.57, 34.3534, 30.9109, -26.7409, -54.175, 136.903
0.128, -1, -18.531, 34.3647, 30.876, -26.6441, -54.1775, 136.828
0.131, -1, -18.4893, 34.3768, 30.838, -26.539, -54.1802, 136.748
0.136, -1, -18.4451, 34.3896, 30.7973, -26.426, -54.1831, 136.661
0.139, -1, -18.3984, 34.4032, 30.754, -26.3058, -54.1862, 136.568
0.144, -1, -18.3492, 34.4176, 30.7084, -26.1793, -54.1894, 136.471
0.148, -1, -18.2977, 34.4327, 30.6608, -26.0472, -54.1928, 136.369
0.152, -1, -18.2439, 34.4485, 30.6114, -25.9104, -54.1964, 136.264
0.156, -1, -18.1881, 34.4649, 30.5605, -25.7696, -54.2, 136.155
0.16, -1, -18.1306, 34.4818, 30.5085, -25.6255, -54.2038, 136.044
0.164, -1, -18.0716, 34.4992, 30.4555, -25.4787, -54.2076, 135.932
0.168, -1, -18.0113, 34.517, 30.4016, -25.3298, -54.2115, 135.817
0.172, -1, -17.9497, 34.5351, 30.3472, -25.1792, -54.2155, 135.701
0.176, -1, -17.8872, 34.5535, 30.2923, -25.0274, -54.2195, 135.584
0.18, -1, -17.8237, 34.5721, 30.237, -24.8747, -54.2236, 135.467
0.184, -1, -17.7595, 34.5908, 30.1815, -24.7212, -54.2277, 135.348
0.188, -1, -17.6946, 34.6097, 30.1258, -24.5672, -54.2318, 135.23
0.192, -1, -17.6293, 34.6287, 30.0699, -24.4129, -54.236, 135.111
0.196, -1, -17.5636, 34.6477, 30.0139, -24.2582, -54.2401, 134.992
0.2, -1, -17.4976, 34.6668, 29.9578, -24.1032, -54.2443, 134.873
0.204, -1, -17.4314, 34.6859, 29.9016, -23.948, -54.2485, 134.753
0.208, -1, -17.3651, 34.7051, 29.8453, -23.7927, -54.2527, 134.633
0.212, -1, -17.2987, 34.7243, 29.789, -23.6371, -54.2569, 134.514
0.216, -1, -17.2322, 34.7435, 29.7326, -23.4814, -54.261, 134.394
0.22, -1, -17.1655, 34.7628, 29.6762, -23.3256, -54.2652, 134.274
0.224, -1, -17.0988, 34.782, 29.6197, -23.1696, -54.2694, 134.154
0.228, -1, -17.0321, 34.8013, 29.5632, -23.0134, -54.2737, 134.033
0.232, -1, -16.9652, 34.8206, 29.5066, -22.8571, -54.2779, 133.913
0.236, -1, -16.8983, 34.8399, 29.4499, -22.7007, -54.2821, 133.793
0.24, -1, -16.8314, 34.8592, 29.3932, -22.5441, -54.2863, 133.672
0.244, -1, -16.7643, 34.8786, 29.3365, -22.3874, -54.2905, 133.551
0.248, -1, -16.6972, 34.898, 29.2797, -22.2305, -54.2948, 133.431
0.252, -1, -16.6301, 34.9174, 29.2228, -22.0735, -54.299, 133.31
0.256, -1, -16.5629, 34.9368, 29.1659, -21.9163, -54.3032, 133.189
0.26, -1, -16.4956, 34.9562, 29.109, -21.759, -54.3075, 133.068
0.264, -1, -16.4282, 34.9756, 29.0519, -21.6016, -54.3117, 132.946
0.268, -1, -16.3608, 34.9951, 28.9949, -21.444, -54.3159, 132.825
0.272, -1, -16.2934, 35.0146, 28.9378, -21.2863, -54.3202, 132.704
0.276, -1, -16.2259, 35.0341, 28.8806, -21.1284, -54.3245, 132.582
0.28, -1, -16.1583, 35.0536, 28.8234, -20.9704, -54.3287, 132.46
0.284, -1, -16.0906, 35.0731, 28.7661, -20.8123, -54.333, 132.339
0.288, -1, -16.0229, 35.0926, 28.7088, -20.654, -54.3372, 132.217
0.292, -1, -15.9552, 35.1122, 28.6514, -20.4955, -54.3415, 132.095
0.296, -1, -15.8873, 35.1318, 28.594, -20.3369, -54.3458, 131.973
0.3, -1, -15.8194, 35.1514, 28.5365, -20.1782, -54.3501, 131.85
0.304, -1, -15.7515, 35.171, 28.479, -20.0193, -54.3543, 131.728
0.308, -1, -15.6835, 35.1907, 28.4214, -19.8603, -54.3586, 131.606
0.312, -1, -15.6154, 35.2103, 28.3638, -19.7011, -54.3629, 131.483
0.316, -1, -15.5472, 35.23, 28.3061, -19.5418, -54.3672, 131.36
0.32, -1, -15.479, 35.2497, 28.2484, -19.3823, -54.3715, 131.238
0.324, -1, -15.4108, 35.2694, 28.1906, -19.2227, -54.3758, 131.115
0.328, -1, -15.3424, 35.2891, 28.1327, -19.063, -54.3801, 130.992
0.332, -1, -15.274, 35.3089, 28.0748, -18.903, -54.3844, 130.868
0.336, -1, -15.2056, 35.3286, 28.0168, -18.743, -54.3887, 130.745
0.34, -1, -15.137, 35.3484, 27.9588, -18.5828, -54.393, 130.622
0.344, -1, -15.0684, 35.3682, 27.9008, -18.4224, -54.3974, 130.498
0.348, -1, -14.9998, 35.388, 27.8426, -18.2619, -54.4017, 130.375
0.352, -1, -14.9311, 35.4079, 27.7845, -18.1012, -54.406, 130.251
0.356, -1, -14.8623, 35.4277, 27.7262, -17.9404, -54.4104, 130.127
0.36, -1, -14.7934, 35.4476, 27.6679, -17.7794, -54.4147, 130.003
0.364, -1, -14.7245, 35.4675, 27.6096, -17.6183, -54.419, 129.879
0.368, -1, -14.6555, 35.4874, 27.5512, -17.457, -54.4234, 129.755
0.372, -1, -14.5865, 35.5073, 27.4927, -17.2956, -54.4277, 129.631
0.376, -1, -14.5174, 35.5273, 27.4342, -17.134, -54.4321, 129.506
0.38, -1, -14.4482, 35.5473, 27.3757, -16.9723, -54.4364, 129.382
0.384, -1, -14.379, 35.5673, 27.317, -16.8104, -54.4408, 129.257
0.388, -1, -14.3097, 35.5873, 27.2584, -16.6483, -54.4452, 129.132
0.392, -1, -14.2403, 35.6073, 27.1996, -16.4861, -54.4495, 129.007
0.396, -1, -14.1708, 35.6274, 27.1408, -16.3238, -54.4539, 128.882
0.4, -1, -14.1013, 35.6474, 27.082, -16.1612, -54.4583, 128.757
0.404, -1, -14.0318, 35.6675, 27.0231, -15.9986, -54.4627, 128.632
0.408, -1, -13.9621, 35.6876, 26.9641, -15.8357, -54.4671, 128.507
0.412, -1, -13.8924, 35.7077, 26.9051, -15.6728, -54.4715, 128.381
0.416, -1, -13.8226, 35.7279, 26.846, -15.5096, -54.4759, 128.256
0.42, -1, -13.7528, 35.748, 26.7869, -15.3463, -54.4803, 128.13
0.424, -1, -13.6829, 35.7682, 26.7277, -15.1829, -54.4847, 128.004
0.428, -1, -13.6129, 35.7884, 26.6685, -15.0192, -54.4891, 127.878
0.432, -1, -13.5428, 35.8087, 26.6092, -14.8555, -54.4935, 127.752
0.436, -1, -13.4727, 35.8289, 26.5498, -14.6915, -54.4979, 127.626
0.44, -1, -13.4025, 35.8492, 26.4904, -14.5274, -54.5023, 127.499
0.444, -1, -13.3323, 35.8694, 26.4309, -14.3632, -54.5067, 127.373
0.448, -1, -13.262, 35.8897, 26.3714, -14.1988, -54.5112, 127.246
0.452, -1, -13.1916, 35.9101, 26.3118, -14.0342, -54.5156, 127.119
0.456, -1, -13.1211, 35.9304, 26.2522, -13.8695, -54.5201, 126.993
0.46, -1, -13.0506, 35.9508, 26.1925, -13.7046, -54.5245, 126.866
0.464, -1, -12.98, 35.9711, 26.1327, -13.5396, -54.5289, 126.739
0.468, -1, -12.9094, 35.9915, 26.0729, -13.3743, -54.5334, 126.611
0.472, -1, -12.8386, 36.012, 26.013, -13.209, -54.5379, 126.484
0.476, -1, -12.7678, 36.0324, 25.953, -13.0434, -54.5423, 126.357
0.48, -1, -12.697, 36.0529, 25.8931, -12.8777, -54.5468, 126.229
0.484, -1, -12.626, 36.0733, 25.833, -12.7119, -54.5512, 126.101
0.488, -1, -12.555, 36.0938, 25.7729, -12.5459, -54.5557, 125.973
0.492, -1, -12.4839, 36.1144, 25.7127, -12.3797, -54.5602, 125.846
0.496, -1, -12.4128, 36.1349, 25.6525, -12.2133, -54.5647, 125.717
0.5, -1, -12.3416, 36.1555, 25.5922, -12.0468, -54.5692, 125.589
0.504, -1, -12.2703, 36.176, 25.5318, -11.8802, -54.5737, 125.461
0.508, -1, -12.1989, 36.1966, 25.4714, -11.7133, -54.5782, 125.332
0.512, -1, -12.1275, 36.2173, 25.411, -11.5463, -54.5827, 125.204
0.516, -1, -12.056, 36.2379, 25.3504, -11.3792, -54.5872, 125.075
0.52, -1, -11.9844, 36.2586, 25.2898, -11.2118, -54.5917, 124.946
0.524, -1, -11.9128, 36.2792, 25.2292, -11.0444, -54.5962, 124.817
0.528, -1, -11.8411, 36.2999, 25.1685, -10.8767, -54.6007, 124.688
0.532, -1, -11.7693, 36.3207, 25.1077, -10.7089, -54.6052, 124.559
0.536, -1, -11.6975, 36.3414, 25.0469, -10.5409, -54.6097, 124.43
0.54, -1, -11.6255, 36.3622, 24.986, -10.3727, -54.6143, 124.3
0.544, -1, -11.5536, 36.383, 24.925, -10.2044, -54.6188, 124.171
0.548, -1, -11.4815, 36.4038, 24.864, -10.0359, -54.6234, 124.041
0.552, -1, -11.4094, 36.4246, 24.803, -9.86726, -54.6279, 123.911
0.556, -1, -11.3371, 36.4454, 24.7418, -9.69843, -54.6324, 123.781
0.56, -1, -11.2649, 36.4663, 24.6806, -9.52944, -54.637, 123.651
0.564, -1, -11.1925, 36.4872, 24.6194, -9.36028, -54.6416, 123.521
0.568, -1, -11.1201, 36.5081, 24.5581, -9.19095, -54.6461, 123.39
0.572, -1, -11.0476, 36.529, 24.4967, -9.02145, -54.6507, 123.26
0.576, -1, -10.975, 36.55, 24.4353, -8.85178, -54.6553, 123.129
0.58, -1, -10.9024, 36.5709, 24.3738, -8.68194, -54.6598, 122.998
0.584, -1, -10.8297, 36.5919, 24.3122, -8.51193, -54.6644, 122.867
0.588, -1, -10.7569, 36.613, 24.2506, -8.34175, -54.669, 122.736
0.592, -1, -10.684, 36.634, 24.1889, -8.1714, -54.6736, 122.605
0.596, -1, -10.6111, 36.655, 24.1271, -8.00087, -54.6782, 122.474
0.6, -1, -10.5381, 36.6761, 24.0653, -7.83018, -54.6828, 122.342
0.604, -1, -10.465, 36.6972, 24.0035, -7.65932, -54.6874, 122.211
0.608, -1, -10.3919, 36.7183, 23.9415, -7.48828, -54.692, 122.079
0.612, -1, -10.3186, 36.7395, 23.8795, -7.31708, -54.6966, 121.947
0.616, -1, -10.2454, 36.7606, 23.8175, -7.1457, -54.7012, 121.815
0.62, -1, -10.172, 36.7818, 23.7554, -6.97416, -54.7059, 121.683
0.624, -1, -10.0985, 36.803, 23.6932, -6.80244, -54.7105, 121.551
0.628, -1, -10.025, 36.8242, 23.631, -6.63055, -54.7151, 121.419
0.632, -1, -9.95145, 36.8455, 23.5687, -6.4585, -54.7197, 121.286
0.636, -1, -9.87779, 36.8668, 23.5063, -6.28627, -54.7244, 121.154
0.64, -1, -9.80406, 36.888, 23.4439, -6.11387, -54.729, 121.021
0.644, -1, -9.73026, 36.9093, 23.3814, -5.9413, -54.7337, 120.888
0.648, -1, -9.65638, 36.9307, 23.3188, -5.76856, -54.7383, 120.755
0.652, -1, -9.58243, 36.952, 23.2562, -5.59566, -54.743, 120.622
0.656, -1, -9.50841, 36.9734, 23.1936, -5.42258, -54.7477, 120.489
0.66, -1, -9.43431, 36.9948, 23.1308, -5.24933, -54.7523, 120.355
0.664, -1, -9.36014, 37.0162, 23.068, -5.07591, -54.757, 120.222
0.668, -1, -9.2859, 37.0376, 23.0052, -4.90232, -54.7617, 120.088
0.672, -1, -9.21159, 37.0591, 22.9423, -4.72857, -54.7664, 119.954
0.676, -1, -9.13721, 37.0806, 22.8793, -4.55464, -54.771, 119.82
0.68, -1, -9.06275, 37.1021, 22.8162, -4.38054, -54.7757, 119.686
0.684, -1, -8.98822, 37.1236, 22.7531, -4.20628, -54.7804, 119.552
0.688, -1, -8.91362, 37.1451, 22.69, -4.03184, -54.7851, 119.418
0.692, -1, -8.83894, 37.1667, 22.6268, -3.85724, -54.7898, 119.283
0.696, -1, -8.76419, 37.1883, 22.5635, -3.68247, -54.7946, 119.149
0.7, -1, -8.68937, 37.2099, 22.5001, -3.50752, -54.7993, 119.014
0.704, -1, -8.61448, 37.2315, 22.4367, -3.33241, -54.804, 118.879
0.708, -1, -8.53952, 37.2531, 22.3732, -3.15714, -54.8087, 118.744
0.712, -1, -8.46449, 37.2748, 22.3097, -2.98169, -54.8134, 118.609
0.716, -1, -8.38938, 37.2965, 22.2461, -2.80607, -54.8182, 118.474
0.72, -1, -8.3142, 37.3182, 22.1825, -2.63029, -54.8229, 118.339
0.724, -1, -8.23895, 37.3399, 22.1188, -2.45434, -54.8277, 118.203
0.728, -1, -8.16363, 37.3616, 22.055, -2.27822, -54.8324, 118.067
0.732, -1, -8.08823, 37.3834, 21.9912, -2.10193, -54.8371, 117.932
0.736, -1, -8.01277, 37.4052, 21.9273, -1.92547, -54.8419, 117.796
0.74, -1, -7.93723, 37.427, 21.8633, -1.74885, -54.8467, 117.66
0.744, -1, -7.86162, 37.4488, 21.7993, -1.57206, -54.8514, 117.524
0.748, -1, -7.78594, 37.4707, 21.7352, -1.3951, -54.8562, 117.387
0.752, -1, -7.71019, 37.4925, 21.6711, -1.21798, -54.861, 117.251
0.756, -1, -7.63436, 37.5144, 21.6069, -1.04068, -54.8657, 117.115
0.76, -1, -7.55847, 37.5364, 21.5426, -0.863226, -54.8705, 116.978
0.764, -1, -7.4825, 37.5583, 21.4783, -0.685602, -54.8753, 116.841
0.768, -1, -7.40647, 37.5802, 21.4139, -0.507812, -54.8801, 116.704
0.772, -1, -7.33036, 37.6022, 21.3495, -0.329855, -54.8849, 116.567
0.776, -1, -7.25418, 37.6242, 21.285, -0.151733, -54.8897, 116.43
0.78, -1, -7.17793, 37.6462, 21.2204, 0.0265549, -54.8945, 116.293
0.784, -1, -7.10161, 37.6682, 21.1558, 0.205008, -54.8993, 116.155
0.788, -1, -7.02522, 37.6903, 21.0911, 0.383627, -54.9041, 116.018
0.792, -1, -6.94876, 37.7124, 21.0264, 0.562411, -54.9089, 115.88
0.796, -1, -6.87223, 37.7345, 20.9616, 0.741359, -54.9138, 115.742
0.8, -1, -6.79562, 37.7566, 20.8968, 0.920473, -54.9186, 115.605
0.804, -1, -6.71895, 37.7787, 20.8318, 1.09975, -54.9234, 115.466
0.808, -1, -6.64221, 37.8009, 20.7669, 1.27919, -54.9283, 115.328
0.812, -1, -6.56539, 37.8231, 20.7018, 1.4588, -54.9331, 115.19
0.816, -1, -6.48851, 37.8452, 20.6367, 1.63857, -54.9379, 115.052
0.82, -1, -6.41156, 37.8675, 20.5716, 1.81851, -54.9428, 114.913
0.824, -1, -6.33454, 37.8897, 20.5064, 1.99861, -54.9476, 114.774
0.828, -1, -6.25745, 37.912, 20.4411, 2.17887, -54.9525, 114.636
0.832, -1, -6.18029, 37.9342, 20.3758, 2.35929, -54.9574, 114.497
0.836, -1, -6.10306, 37.9565, 20.3104, 2.53988, -54.9622, 114.358
0.84, -1, -6.02576, 37.9788, 20.2449, 2.72063, -54.9671, 114.218
0.844, -1, -5.9484, 38.0012, 20.1794, 2.90154, -54.972, 114.079
0.848, -1, -5.87097, 38.0235, 20.1138, 3.08261, -54.9768, 113.94
0.852, -1, -5.79347, 38.0459, 20.0482, 3.26384, -54.9817, 113.8
0.856, -1, -5.7159, 38.0683, 19.9825, 3.44523, -54.9866, 113.66
0.86, -1, -5.63827, 38.0907, 19.9168, 3.62678, -54.9915, 113.521
0.864, -1, -5.56057, 38.1132, 19.851, 3.80848, -54.9964, 113.381
0.868, -1, -5.4828, 38.1356, 19.7852, 3.99034, -55.0013, 113.241
0.872, -1, -5.40496, 38.1581, 19.7192, 4.17236, -55.0062, 113.101
0.876, -1, -5.32706, 38.1806, 19.6533, 4.35453, -55.0111, 112.96
0.88, -1, -5.2491, 38.2031, 19.5873, 4.53685, -55.016, 112.82
0.884, -1, -5.17107, 38.2256, 19.5212, 4.71933, -55.021, 112.679
0.888, -1, -5.09298, 38.2482, 19.4551, 4.90196, -55.0259, 112.539
0.892, -1, -5.01482, 38.2707, 19.3889, 5.08473, -55.0308, 112.398
0.896, -1, -4.93659, 38.2933, 19.3226, 5.26766, -55.0357, 112.257
0.9, -1, -4.85831, 38.3159, 19.2563, 5.45074, -55.0407, 112.116
0.904, -1, -4.77996, 38.3386, 19.19, 5.63396, -55.0456, 111.975
0.908, -1, -4.70155, 38.3612, 19.1236, 5.81733, -55.0505, 111.834
0.912, -1, -4.62308, 38.3838, 19.0572, 6.00085, -55.0555, 111.693
0.916, -1, -4.54454, 38.4065, 18.9907, 6.18451, -55.0604, 111.551
0.92, -1, -4.46595, 38.4292, 18.9241, 6.36831, -55.0654, 111.41
0.924, -1, -4.38729, 38.4519, 18.8575, 6.55226, -55.0703, 111.268
0.928, -1, -4.30857, 38.4747, 18.7908, 6.73634, -55.0753, 111.126
0.932, -1, -4.2298, 38.4974, 18.7241, 6.92057, -55.0803, 110.984
0.936, -1, -4.15096, 38.5202, 18.6574, 7.10493, -55.0852, 110.843
0.94, -1, -4.07207, 38.5429, 18.5906, 7.28944, -55.0902, 110.7
0.944, -1, -3.99312, 38.5657, 18.5237, 7.47408, -55.0952, 110.558
0.948, -1, -3.91411, 38.5886, 18.4568, 7.65885, -55.1002, 110.416
0.952, -1, -3.83504, 38.6114, 18.3898, 7.84376, -55.1051, 110.274
0.956, -1, -3.75592, 38.6342, 18.3228, 8.0288, -55.1101, 110.131
0.96, -1, -3.67674, 38.6571, 18.2558, 8.21398, -55.1151, 109.989
0.964, -1, -3.5975, 38.68, 18.1887, 8.39928, -55.1201, 109.846
0.968, -1, -3.51821, 38.7029, 18.1215, 8.58472, -55.1251, 109.703
0.972, -1, -3.43886, 38.7258, 18.0543, 8.77028, -55.1301, 109.56
0.976, -1, -3.35947, 38.7487, 17.9871, 8.95597, -55.1351, 109.417
0.98, -1, -3.28001, 38.7716, 17.9198, 9.14178, -55.1401, 109.274
0.984, -1, -3.20051, 38.7946, 17.8525, 9.32773, -55.1451, 109.131
0.988, -1, -3.12095, 38.8176, 17.7851, 9.51379, -55.1501, 108.988
0.992, -1, -3.04133, 38.8406, 17.7177, 9.69998, -55.1552, 108.844
0.996, -1, -2.96167, 38.8636, 17.6502, 9.88628, -55.1602, 108.701
1, -1, -2.88196, 38.8866, 17.5827, 10.0727, -55.1652, 108.557
1.004, -1, -2.80219, 38.9096, 17.5152, 10.2593, -55.1702, 108.414
1.008, -1, -2.72238, 38.9327, 17.4476, 10.4459, -55.1753, 108.27
1.012, -1, -2.64251, 38.9557, 17.38, 10.6327, -55.1803, 108.126
1.016, -1, -2.5626, 38.9788, 17.3123, 10.8196, -55.1853, 107.982
1.02, -1, -2.48264, 39.0019, 17.2446, 11.0066, -55.1904, 107.838
1.024, -1, -2.40263, 39.025, 17.1768, 11.1937, -55.1954, 107.694
1.027, -1, -2.32258, 39.0481, 17.109, 11.3809, -55.2005, 107.55
1.032, -1, -2.24247, 39.0712, 17.0412, 11.5683, -55.2055, 107.406
1.036, -1, -2.16232, 39.0944, 16.9733, 11.7557, -55.2106, 107.261
1.04, -1, -2.08213, 39.1175, 16.9054, 11.9433, -55.2156, 107.117
1.044, -1, -2.00189, 39.1407, 16.8374, 12.1309, -55.2207, 106.973
1.048, -1, -1.9216, 39.1639, 16.7694, 12.3187, -55.2257, 106.828
1.052, -1, -1.84128, 39.1871, 16.7014, 12.5066, -55.2308, 106.683
1.055, -1, -1.76091, 39.2103, 16.6333, 12.6945, -55.2359, 106.539
1.06, -1, -1.68049, 39.2335, 16.5652, 12.8826, -55.2409, 106.394
1.064, -1, -1.60004, 39.2568, 16.4971, 13.0708, -55.246, 106.249
1.068, -1, -1.51955, 39.28, 16.4289, 13.259, -55.2511, 106.104
1.072, -1, -1.43901, 39.3033, 16.3607, 13.4474, -55.2561, 105.959
1.076, -1, -1.35844, 39.3265, 16.2925, 13.6359, -55.2612, 105.814
1.08, -1, -1.27783, 39.3498, 16.2242, 13.8244, -55.2663, 105.669
1.084, -1, -1.19719, 39.3731, 16.1559, 14.013, -55.2714, 105.523
1.088, -1, -1.1165, 39.3964, 16.0876, 14.2018, -55.2765, 105.378
1.091, -1, -1.03579, 39.4197, 16.0192, 14.3906, -55.2816, 105.233
1.096, -1, -0.955036, 39.443, 15.9508, 14.5795, -55.2866, 105.087
1.1, -1, -0.874253, 39.4664, 15.8824, 14.7685, -55.2917, 104.942
1.104, -1, -0.793436, 39.4897, 15.8139, 14.9575, -55.2968, 104.796
1.108, -1, -0.712588, 39.5131, 15.7454, 15.1466, -55.3019, 104.65
1.112, -1, -0.631708, 39.5364, 15.6769, 15.3359, -55.307, 104.505
1.116, -1, -0.550797, 39.5598, 15.6084, 15.5251, -55.3121, 104.359
1.119, -1, -0.469857, 39.5832, 15.5398, 15.7145, -55.3172, 104.213
1.124, -1, -0.388887, 39.6065, 15.4712, 15.9039, -55.3223, 104.067
1.128, -1, -0.30789, 39.6299, 15.4026, 16.0934, -55.3274, 103.921
1.132, -1, -0.226865, 39.6533, 15.334, 16.283, -55.3326, 103.776
1.136, -1, -0.145814, 39.6767, 15.2653, 16.4726, -55.3377, 103.63
1.14, -1, -0.0647375, 39.7002, 15.1966, 16.6623, -55.3428, 103.483
1.144, -1, 0.0163631, 39.7236, 15.1279, 16.852, -55.3479, 103.337
1.147, -1, 0.097487, 39.747, 15.0592, 17.0418, -55.353, 103.191
1.152, -1, 0.178633, 39.7704, 14.9904, 17.2316, -55.3581, 103.045
1.156, -1, 0.259801, 39.7939, 14.9217, 17.4215, -55.3632, 102.899
1.16, -1, 0.340988, 39.8173, 14.8529, 17.6115, -55.3684, 102.753
1.164, -1, 0.422194, 39.8408, 14.7841, 17.8015, -55.3735, 102.606
1.168, -1, 0.503418, 39.8643, 14.7153, 17.9915, -55.3786, 102.46
1.172, -1, 0.584659, 39.8877, 14.6464, 18.1816, -55.3837, 102.314
1.175, -1, 0.665915, 39.9112, 14.5776, 18.3717, -55.3888, 102.167
1.18, -1, 0.747186, 39.9347, 14.5087, 18.5618, -55.394, 102.021
1.184, -1, 0.828471, 39.9581, 14.4399, 18.752, -55.3991, 101.874
1.188, -1, 0.909769, 39.9816, 14.371, 18.9422, -55.4042, 101.728
1.192, -1, 0.991079, 40.0051, 14.3021, 19.1325, -55.4093, 101.581
1.196, -1, 1.0724, 40.0286, 14.2332, 19.3228, -55.4145, 101.435
1.2, -1, 1.15373, 40.0521, 14.1643, 19.513, -55.4196, 101.288
1.204, -1, 1.23507, 40.0756, 14.0954, 19.7034, -55.4247, 101.142
1.208, -1, 1.31642, 40.0991, 14.0265, 19.8937, -55.4299, 100.995
1.212, -1, 1.39778, 40.1226, 13.9575, 20.0841, -55.435, 100.849
1.216, -1, 1.47914, 40.1461, 13.8886, 20.2744, -55.4401, 100.702
1.22, -1, 1.56051, 40.1696, 13.8196, 20.4648, -55.4452, 100.556
1.224, -1, 1.64188, 40.1931, 13.7507, 20.6552, -55.4504, 100.409
1.228, -1, 1.72325, 40.2166, 13.6818, 20.8456, -55.4555, 100.262
1.232, -1, 1.80463, 40.2401, 13.6128, 21.036, -55.4606, 100.116
1.236, -1, 1.88601, 40.2636, 13.5439, 21.2264, -55.4658, 99.9691
1.24, -1, 1.96739, 40.2871, 13.4749, 21.4169, -55.4709, 99.8225
1.244, -1, 2.04877, 40.3106, 13.4059, 21.6073, -55.476, 99.6758
1.248, -1, 2.13015, 40.3341, 13.337, 21.7977, -55.4812, 99.5292
1.252, -1, 2.21152, 40.3576, 13.2681, 21.9881, -55.4863, 99.3826
1.256, -1, 2.29289, 40.3811, 13.1991, 22.1785, -55.4914, 99.236
1.26, -1, 2.37425, 40.4046, 13.1302, 22.3688, -55.4966, 99.0894
1.264, -1, 2.45561, 40.4281, 13.0612, 22.5592, -55.5017, 98.9429
1.267, -1, 2.53697, 40.4516, 12.9923, 22.7496, -55.5068, 98.7963
1.272, -1, 2.61831, 40.4751, 12.9234, 22.9399, -55.5119, 98.6497
1.276, -1, 2.69965, 40.4986, 12.8545, 23.1302, -55.5171, 98.5032
1.28, -1, 2.78098, 40.5221, 12.7856, 23.3205, -55.5222, 98.3567
1.284, -1, 2.86229, 40.5456, 12.7167, 23.5108, -55.5273, 98.2102
1.288, -1, 2.94359, 40.5691, 12.6478, 23.701, -55.5325, 98.0637
1.292, -1, 3.02488, 40.5926, 12.5789, 23.8912, -55.5376, 97.9172
1.295, -1, 3.10616, 40.6161, 12.51, 24.0814, -55.5427, 97.7708
1.3, -1, 3.18742, 40.6395, 12.4412, 24.2715, -55.5478, 97.6244
1.304, -1, 3.26866, 40.663, 12.3723, 24.4617, -55.5529, 97.478
1.308, -1, 3.34989, 40.6865, 12.3035, 24.6517, -55.5581, 97.3316
1.312, -1, 3.4311, 40.7099, 12.2347, 24.8417, -55.5632, 97.1853
1.316, -1, 3.51228, 40.7334, 12.1659, 25.0317, -55.5683, 97.039
1.32, -1, 3.59345, 40.7568, 12.0971, 25.2217, -55.5734, 96.8928
1.324, -1, 3.67459, 40.7803, 12.0283, 25.4115, -55.5785, 96.7466
1.328, -1, 3.75571, 40.8037, 11.9596, 25.6014, -55.5837, 96.6004
1.332, -1, 3.83681, 40.8271, 11.8909, 25.7912, -55.5888, 96.4543
1.336, -1, 3.91788, 40.8506, 11.8222, 25.9809, -55.5939, 96.3082
1.34, -1, 3.99893, 40.874, 11.7535, 26.1705, -55.599, 96.1622
1.344, -1, 4.07995, 40.8974, 11.6848, 26.3601, -55.6041, 96.0162
1.348, -1, 4.16094, 40.9208, 11.6162, 26.5497, -55.6092, 95.8702
1.352, -1, 4.2419, 40.9442, 11.5476, 26.7391, -55.6143, 95.7244
1.356, -1, 4.32283, 40.9676, 11.479, 26.9285, -55.6194, 95.5785
1.36, -1, 4.40373, 40.991, 11.4105, 27.1178, -55.6245, 95.4328
1.364, -1, 4.48459, 41.0143, 11.3419, 27.3071, -55.6296, 95.287
1.368, -1, 4.56542, 41.0377, 11.2734, 27.4962, -55.6347, 95.1414
1.372, -1, 4.64622, 41.061, 11.205, 27.6853, -55.6398, 94.9958
1.376, -1, 4.72698, 41.0844, 11.1365, 27.8743, -55.6449, 94.8503
1.38, -1, 4.80771, 41.1077, 11.0681, 28.0632, -55.65, 94.7048
1.384, -1, 4.8884, 41.131, 10.9997, 28.2521, -55.6551, 94.5594
1.388, -1, 4.96904, 41.1543, 10.9314, 28.4408, -55.6602, 94.4141
1.392, -1, 5.04965, 41.1776, 10.8631, 28.6294, -55.6653, 94.2688
1.396, -1, 5.13022, 41.2009, 10.7948, 28.818, -55.6703, 94.1237
1.4, -1, 5.21074, 41.2242, 10.7266, 29.0064, -55.6754, 93.9786
1.404, -1, 5.29122, 41.2474, 10.6584, 29.1947, -55.6805, 93.8336
1.408, -1, 5.37165, 41.2707, 10.5902, 29.383, -55.6856, 93.6886
1.412, -1, 5.45204, 41.2939, 10.5221, 29.5711, -55.6906, 93.5438
1.416, -1, 5.53238, 41.3171, 10.454, 29.7591, -55.6957, 93.399
1.42, -1, 5.61268, 41.3403, 10.3859, 29.947, -55.7008, 93.2543
1.424, -1, 5.69292, 41.3635, 10.3179, 30.1348, -55.7058, 93.1097
1.428, -1, 5.77312, 41.3867, 10.25, 30.3225, -55.7109, 92.9652
1.432, -1, 5.85326, 41.4099, 10.1821, 30.51, -55.716, 92.8208
1.436, -1, 5.93335, 41.433, 10.1142, 30.6974, -55.721, 92.6765
1.44, -1, 6.01339, 41.4562, 10.0464, 30.8847, -55.7261, 92.5323
1.444, -1, 6.09337, 41.4793, 9.97858, 31.0719, -55.7311, 92.3882
1.448, -1, 6.1733, 41.5024, 9.91085, 31.2589, -55.7361, 92.2441
1.452, -1, 6.25318, 41.5254, 9.84316, 31.4459, -55.7412, 92.1002
1.456, -1, 6.33299, 41.5485, 9.77552, 31.6326, -55.7462, 91.9564
1.46, -1, 6.41275, 41.5716, 9.70794, 31.8193, -55.7512, 91.8127
1.464, -1, 6.49245, 41.5946, 9.6404, 32.0058, -55.7563, 91.6691
1.468, -1, 6.57209, 41.6176, 9.57291, 32.1921, -55.7613, 91.5256
1.472, -1, 6.65166, 41.6406, 9.50548, 32.3784, -55.7663, 91.3822
1.476, -1, 6.73118, 41.6636, 9.43809, 32.5644, -55.7713, 91.2389
1.48, -1, 6.81063, 41.6866, 9.37077, 32.7504, -55.7763, 91.0958
1.484, -1, 6.89002, 41.7095, 9.30349, 32.9361, -55.7813, 90.9527
1.488, -1, 6.96934, 41.7324, 9.23627, 33.1217, -55.7863, 90.8098
1.492, -1, 7.0486, 41.7553, 9.16911, 33.3072, -55.7913, 90.667
1.496, -1, 7.12779, 41.7782, 9.102, 33.4925, -55.7963, 90.5243
1.5, -1, 7.20691, 41.8011, 9.03495, 33.6777, -55.8013, 90.3817
1.504, -1, 7.28597, 41.8239, 8.96796, 33.8627, -55.8063, 90.2393
1.508, -1, 7.36496, 41.8468, 8.90103, 34.0475, -55.8113, 90.097
1.512, -1, 7.44387, 41.8696, 8.83416, 34.2322, -55.8163, 89.9548
1.516, -1, 7.52272, 41.8923, 8.76735, 34.4166, -55.8212, 89.8127
1.52, -1, 7.6015, 41.9151, 8.7006, 34.601, -55.8262, 89.6708
1.524, -1, 7.6802, 41.9379, 8.63391, 34.7851, -55.8312, 89.529
1.528, -1, 7.75883, 41.9606, 8.56728, 34.9691, -55.8361, 89.3873
1.532, -1, 7.83739, 41.9833, 8.50072, 35.1529, -55.8411, 89.2458
1.536, -1, 7.91587, 42.006, 8.43422, 35.3366, -55.846, 89.1044
1.54, -1, 7.99427, 42.0286, 8.36779, 35.52, -55.851, 88.9632
1.544, -1, 8.0726, 42.0513, 8.30142, 35.7033, -55.8559, 88.822
1.548, -1, 8.15085, 42.0739, 8.23511, 35.8864, -55.8608, 88.681
1.552, -1, 8.22903, 42.0965, 8.16887, 36.0693, -55.8658, 88.5402
1.556, -1, 8.30712, 42.119, 8.1027, 36.252, -55.8707, 88.3995
1.56, -1, 8.38513, 42.1416, 8.0366, 36.4345, -55.8756, 88.259
1.564, -1, 8.46307, 42.1641, 7.97057, 36.6169, -55.8805, 88.1186
1.568, -1, 8.54092, 42.1866, 7.9046, 36.7991, -55.8854, 87.9783
1.572, -1, 8.61869, 42.2091, 7.8387, 36.981, -55.8904, 87.8382
1.576, -1, 8.69638, 42.2315, 7.77287, 37.1628, -55.8952, 87.6982
1.58, -1, 8.77399, 42.2539, 7.70712, 37.3444, -55.9001, 87.5584
1.584, -1, 8.85151, 42.2764, 7.64143, 37.5258, -55.905, 87.4187
1.588, -1, 8.92895, 42.2987, 7.57582, 37.707, -55.9099, 87.2792
1.592, -1, 9.0063, 42.3211, 7.51028, 37.888, -55.9148, 87.1398
1.596, -1, 9.08357, 42.3434, 7.44481, 38.0687, -55.9197, 87.0006
1.6, -1, 9.16075, 42.3657, 7.37941, 38.2493, -55.9245, 86.8616
1.604, -1, 9.23784, 42.388, 7.31409, 38.4297, -55.9294, 86.7227
1.608, -1, 9.31485, 42.4103, 7.24884, 38.6099, -55.9343, 86.584
1.612, -1, 9.39176, 42.4325, 7.18367, 38.7898, -55.9391, 86.4454
1.616, -1, 9.46859, 42.4547, 7.11857, 38.9696, -55.944, 86.307
1.62, -1, 9.54533, 42.4769, 7.05355, 39.1491, -55.9488, 86.1687
1.624, -1, 9.62198, 42.499, 6.98861, 39.3285, -55.9536, 86.0306
1.628, -1, 9.69854, 42.5211, 6.92374, 39.5076, -55.9584, 85.8927
1.632, -1, 9.77501, 42.5432, 6.85895, 39.6865, -55.9633, 85.755
1.636, -1, 9.85138, 42.5653, 6.79424, 39.8652, -55.9681, 85.6174
1.64, -1, 9.92767, 42.5874, 6.72961, 40.0437, -55.9729, 85.4799
1.644, -1, 10.0039, 42.6094, 6.66506, 40.2219, -55.9777, 85.3427
1.648, -1, 10.08, 42.6314, 6.60058, 40.4, -55.9825, 85.2056
1.652, -1, 10.156, 42.6533, 6.53619, 40.5778, -55.9873, 85.0687
1.656, -1, 10.2319, 42.6753, 6.47188, 40.7554, -55.9921, 84.9319
1.66, -1, 10.3077, 42.6972, 6.40765, 40.9328, -55.9969, 84.7954
1.664, -1, 10.3834, 42.719, 6.3435, 41.1099, -56.0016, 84.659
1.668, -1, 10.459, 42.7409, 6.27943, 41.2868, -56.0064, 84.5227
1.672, -1, 10.5345, 42.7627, 6.21544, 41.4635, -56.0112, 84.3867
1.676, -1, 10.61, 42.7845, 6.15154, 41.64, -56.0159, 84.2508
1.68, -1, 10.6853, 42.8063, 6.08772, 41.8162, -56.0207, 84.1151
1.684, -1, 10.7605, 42.828, 6.02398, 41.9922, -56.0254, 83.9796
1.688, -1, 10.8357, 42.8497, 5.96033, 42.168, -56.0301, 83.8442
1.692, -1, 10.9107, 42.8714, 5.89676, 42.3435, -56.0349, 83.7091
1.696, -1, 10.9856, 42.8931, 5.83327, 42.5188, -56.0396, 83.5741
1.7, -1, 11.0605, 42.9147, 5.76987, 42.6939, -56.0443, 83.4393
1.704, -1, 11.1352, 42.9363, 5.70656, 42.8687, -56.049, 83.3047
1.708, -1, 11.2098, 42.9579, 5.64333, 43.0433, -56.0537, 83.1702
1.712, -1, 11.2843, 42.9794, 5.58019, 43.2177, -56.0584, 83.036
1.716, -1, 11.3588, 43.0009, 5.51713, 43.3918, -56.0631, 82.9019
1.72, -1, 11.4331, 43.0224, 5.45417, 43.5657, -56.0678, 82.768
1.724, -1, 11.5073, 43.0438, 5.39128, 43.7393, -56.0725, 82.6343
1.728, -1, 11.5814, 43.0653, 5.32849, 43.9127, -56.0772, 82.5008
1.732, -1, 11.6555, 43.0866, 5.26579, 44.0859, -56.0818, 82.3675
1.736, -1, 11.7294, 43.108, 5.20317, 44.2588, -56.0865, 82.2343
1.74, -1, 11.8032, 43.1293, 5.14064, 44.4315, -56.0911, 82.1014
1.744, -1, 11.8769, 43.1506, 5.0782, 44.6039, -56.0958, 81.9686
1.748, -1, 11.9505, 43.1719, 5.01585, 44.7761, -56.1004, 81.836
1.752, -1, 12.024, 43.1931, 4.95358, 44.948, -56.1051, 81.7036
1.756, -1, 12.0974, 43.2143, 4.89141, 45.1197, -56.1097, 81.5714
1.76, -1, 12.1707, 43.2355, 4.82933, 45.2911, -56.1143, 81.4394
1.764, -1, 12.2439, 43.2567, 4.76733, 45.4623, -56.1189, 81.3076
1.768, -1, 12.3169, 43.2778, 4.70543, 45.6333, -56.1235, 81.176
1.772, -1, 12.3899, 43.2989, 4.64362, 45.804, -56.1281, 81.0446
1.776, -1, 12.4628, 43.3199, 4.5819, 45.9744, -56.1327, 80.9133
1.78, -1, 12.5355, 43.3409, 4.52027, 46.1446, -56.1373, 80.7823
1.784, -1, 12.6082, 43.3619, 4.45873, 46.3145, -56.1419, 80.6514
1.788, -1, 12.6807, 43.3829, 4.39728, 46.4842, -56.1465, 80.5208
1.792, -1, 12.7532, 43.4038, 4.33592, 46.6536, -56.151, 80.3903
1.796, -1, 12.8255, 43.4247, 4.27465, 46.8228, -56.1556, 80.2601
1.8, -1, 12.8978, 43.4456, 4.21348, 46.9917, -56.1602, 80.13
1.804, -1, 12.9699, 43.4664, 4.1524, 47.1604, -56.1647, 80.0001
1.808, -1, 13.0419, 43.4872, 4.0914, 47.3289, -56.1692, 79.8704
1.812, -1, 13.1138, 43.508, 4.0305, 47.497, -56.1738, 79.7409
1.816, -1, 13.1856, 43.5288, 3.96969, 47.6649, -56.1783, 79.6116
1.82, -1, 13.2573, 43.5495, 3.90898, 47.8326, -56.1828, 79.4825
1.824, -1, 13.3289, 43.5701, 3.84835, 48, -56.1873, 79.3536
1.828, -1, 13.4003, 43.5908, 3.78782, 48.1672, -56.1918, 79.2249
1.832, -1, 13.4717, 43.6114, 3.72738, 48.3341, -56.1963, 79.0964
1.836, -1, 13.5429, 43.632, 3.66703, 48.5007, -56.2008, 78.9681
1.84, -1, 13.6141, 43.6525, 3.60677, 48.6671, -56.2053, 78.84
1.844, -1, 13.6851, 43.6731, 3.5466, 48.8333, -56.2098, 78.712
1.848, -1, 13.7561, 43.6936, 3.48653, 48.9992, -56.2143, 78.5843
1.852, -1, 13.8269, 43.714, 3.42655, 49.1648, -56.2187, 78.4567
1.856, -1, 13.8976, 43.7345, 3.36666, 49.3302, -56.2232, 78.3294
1.86, -1, 13.9682, 43.7549, 3.30686, 49.4953, -56.2276, 78.2023
1.864, -1, 14.0387, 43.7752, 3.24716, 49.6602, -56.2321, 78.0753
1.868, -1, 14.1091, 43.7956, 3.18754, 49.8248, -56.2365, 77.9486
1.872, -1, 14.1793, 43.8159, 3.12802, 49.9891, -56.2409, 77.822
1.876, -1, 14.2495, 43.8361, 3.0686, 50.1533, -56.2454, 77.6956
1.88, -1, 14.3196, 43.8564, 3.00926, 50.3171, -56.2498, 77.5695
1.884, -1, 14.3895, 43.8766, 2.95002, 50.4807, -56.2542, 77.4435
1.888, -1, 14.4594, 43.8968, 2.89087, 50.644, -56.2586, 77.3177
1.892, -1, 14.5291, 43.9169, 2.83181, 50.8071, -56.263, 77.1922
1.896, -1, 14.5987, 43.937, 2.77284, 50.97, -56.2674, 77.0668
1.9, -1, 14.6682, 43.9571, 2.71397, 51.1325, -56.2717, 76.9416
1.904, -1, 14.7376, 43.9771, 2.65519, 51.2948, -56.2761, 76.8166
1.908, -1, 14.8069, 43.9972, 2.5965, 51.4569, -56.2805, 76.6918
1.912, -1, 14.8761, 44.0172, 2.5379, 51.6187, -56.2849, 76.5672
1.916, -1, 14.9452, 44.0371, 2.4794, 51.7803, -56.2892, 76.4428
1.92, -1, 15.0142, 44.057, 2.42099, 51.9416, -56.2936, 76.3186
1.924, -1, 15.083, 44.0769, 2.36267, 52.1026, -56.2979, 76.1946
1.928, -1, 15.1518, 44.0968, 2.30444, 52.2634, -56.3022, 76.0708
1.932, -1, 15.2204, 44.1166, 2.24631, 52.4239, -56.3066, 75.9472
1.936, -1, 15.289, 44.1364, 2.18827, 52.5842, -56.3109, 75.8238
1.94, -1, 15.3574, 44.1562, 2.13032, 52.7442, -56.3152, 75.7006
1.944, -1, 15.4257, 44.1759, 2.07246, 52.904, -56.3195, 75.5776
1.948, -1, 15.4939, 44.1956, 2.01469, 53.0635, -56.3238, 75.4547
1.952, -1, 15.562, 44.2153, 1.95702, 53.2228, -56.3281, 75.3321
1.956, -1, 15.63, 44.235, 1.89944, 53.3818, -56.3324, 75.2097
1.96, -1, 15.6979, 44.2546, 1.84195, 53.5406, -56.3366, 75.0874
1.964, -1, 15.7657, 44.2741, 1.78455, 53.6991, -56.3409, 74.9654
1.968, -1, 15.8334, 44.2937, 1.72724, 53.8573, -56.3452, 74.8435
1.972, -1, 15.9009, 44.3132, 1.67003, 54.0153, -56.3494, 74.7219
1.976, -1, 15.9684, 44.3327, 1.61291, 54.173, -56.3537, 74.6004
1.98, -1, 16.0357, 44.3522, 1.55587, 54.3305, -56.3579, 74.4792
1.984, -1, 16.1029, 44.3716, 1.49894, 54.4878, -56.3622, 74.3581
1.988, -1, 16.1701, 44.391, 1.44209, 54.6447, -56.3664, 74.2372
1.992, -1, 16.2371, 44.4103, 1.38533, 54.8015, -56.3706, 74.1165
1.996, -1, 16.304, 44.4297, 1.32867, 54.9579, -56.3748, 73.9961
1.999, -1, 16.3708, 44.449, 1.27209, 55.1142, -56.3791, 73.8758
2.004, -1, 16.4375, 44.4683, 1.21561, 55.2701, -56.3833, 73.7557
2.008, -1, 16.5041, 44.4875, 1.15922, 55.4259, -56.3875, 73.6358
2.012, -1, 16.5706, 44.5067, 1.10292, 55.5813, -56.3916, 73.5161
2.015, -1, 16.6369, 44.5259, 1.04672, 55.7365, -56.3958, 73.3965
2.019, -1, 16.7032, 44.545, 0.990598, 55.8915, -56.4, 73.2772
2.024, -1, 16.7694, 44.5641, 0.934571, 56.0462, -56.4042, 73.1581
2.028, -1, 16.8354, 44.5832, 0.878636, 56.2007, -56.4083, 73.0392
2.031, -1, 16.9014, 44.6023, 0.822791, 56.3549, -56.4125, 72.9204
2.036, -1, 16.9672, 44.6213, 0.767037, 56.5089, -56.4166, 72.8019
2.04, -1, 17.0329, 44.6403, 0.711373, 56.6626, -56.4208, 72.6835
2.044, -1, 17.0986, 44.6593, 0.6558, 56.816, -56.4249, 72.5653
2.048, -1, 17.1641, 44.6782, 0.600317, 56.9692, -56.4291, 72.4474
2.051, -1, 17.2295, 44.6971, 0.544924, 57.1222, -56.4332, 72.3296
2.055, -1, 17.2948, 44.716, 0.489622, 57.2749, -56.4373, 72.212
2.06, -1, 17.36, 44.7348, 0.434408, 57.4274, -56.4414, 72.0946
2.064, -1, 17.4251, 44.7536, 0.379285, 57.5796, -56.4455, 71.9774
2.068, -1, 17.4901, 44.7724, 0.32425, 57.7316, -56.4496, 71.8604
2.071, -1, 17.555, 44.7912, 0.269305, 57.8833, -56.4537, 71.7435
2.076, -1, 17.6198, 44.8099, 0.214449, 58.0348, -56.4578, 71.6269
2.08, -1, 17.6845, 44.8286, 0.159681, 58.186, -56.4618, 71.5104
2.084, -1, 17.749, 44.8472, 0.105002, 58.337, -56.4659, 71.3942
2.087, -1, 17.8135, 44.8658, 0.0504114, 58.4878, -56.47, 71.2781
2.092, -1, 17.8779, 44.8844, -0.00409122, 58.6383, -56.474, 71.1622
2.096, -1, 17.9422, 44.903, -0.058506, 58.7886, -56.4781, 71.0465
2.1, -1, 18.0063, 44.9216, -0.112833, 58.9386, -56.4821, 70.931
2.104, -1, 18.0704, 44.9401, -0.167073, 59.0884, -56.4862, 70.8157
2.107, -1, 18.1343, 44.9585, -0.221225, 59.2379, -56.4902, 70.7005
2.111, -1, 18.1982, 44.977, -0.27529, 59.3872, -56.4942, 70.5856
2.116, -1, 18.2619, 44.9954, -0.329268, 59.5363, -56.4982, 70.4708
2.12, -1, 18.3256, 45.0138, -0.38316, 59.6851, -56.5022, 70.3562
2.124, -1, 18.3891, 45.0322, -0.436965, 59.8337, -56.5062, 70.2418
2.127, -1, 18.4526, 45.0505, -0.490684, 59.982, -56.5102, 70.1276
2.132, -1, 18.5159, 45.0688, -0.544317, 60.1301, -56.5142, 70.0135
2.136, -1, 18.5791, 45.0871, -0.597865, 60.278, -56.5182, 69.8997
2.14, -1, 18.6423, 45.1053, -0.651326, 60.4256, -56.5222, 69.786
2.143, -1, 18.7053, 45.1235, -0.704702, 60.573, -56.5262, 69.6725
2.148, -1, 18.7683, 45.1417, -0.757993, 60.7202, -56.5301, 69.5592
2.152, -1, 18.8311, 45.1599, -0.811199, 60.8671, -56.5341, 69.446
2.156, -1, 18.8938, 45.178, -0.86432, 61.0138, -56.538, 69.3331
2.16, -1, 18.9565, 45.1961, -0.917357, 61.1603, -56.542, 69.2203
2.163, -1, 19.019, 45.2141, -0.970309, 61.3065, -56.5459, 69.1077
2.168, -1, 19.0815, 45.2322, -1.02318, 61.4525, -56.5499, 68.9953
2.172, -1, 19.1438, 45.2502, -1.07596, 61.5982, -56.5538, 68.8831
2.176, -1, 19.206, 45.2682, -1.12866, 61.7438, -56.5577, 68.771
2.179, -1, 19.2682, 45.2861, -1.18128, 61.8891, -56.5616, 68.6591
2.184, -1, 19.3302, 45.304, -1.23381, 62.0341, -56.5655, 68.5474
2.188, -1, 19.3922, 45.3219, -1.28626, 62.179, -56.5695, 68.4359
2.192, -1, 19.454, 45.3398, -1.33863, 62.3236, -56.5733, 68.3246
2.196, -1, 19.5158, 45.3576, -1.39091, 62.468, -56.5772, 68.2134
2.199, -1, 19.5774, 45.3755, -1.44311, 62.6121, -56.5811, 68.1024
2.204, -1, 19.639, 45.3932, -1.49523, 62.756, -56.585, 67.9916
2.208, -1, 19.7004, 45.411, -1.54727, 62.8997, -56.5889, 67.8809
2.212, -1, 19.7618, 45.4287, -1.59923, 63.0432, -56.5927, 67.7705
2.216, -1, 19.8231, 45.4464, -1.6511, 63.1865, -56.5966, 67.6601
2.219, -1, 19.8842, 45.4641, -1.70289, 63.3295, -56.6005, 67.55
2.224, -1, 19.9453, 45.4817, -1.7546, 63.4723, -56.6043, 67.4401
2.228, -1, 20.0063, 45.4993, -1.80623, 63.6149, -56.6081, 67.3303
2.232, -1, 20.0672, 45.5169, -1.85778, 63.7572, -56.612, 67.2207
2.235, -1, 20.1279, 45.5345, -1.90925, 63.8993, -56.6158, 67.1112
2.24, -1, 20.1886, 45.552, -1.96064, 64.0412, -56.6196, 67.002
2.244, -1, 20.2492, 45.5695, -2.01194, 64.1829, -56.6235, 66.8929
2.248, -1, 20.3097, 45.587, -2.06317, 64.3244, -56.6273, 66.784
2.252, -1, 20.3701, 45.6044, -2.11432, 64.4656, -56.6311, 66.6752
2.255, -1, 20.4305, 45.6218, -2.16539, 64.6067, -56.6349, 66.5666
2.259, -1, 20.4907, 45.6392, -2.21638, 64.7475, -56.6387, 66.4582
2.264, -1, 20.5508, 45.6566, -2.26728, 64.888, -56.6425, 66.3499
2.268, -1, 20.6108, 45.6739, -2.31811, 65.0284, -56.6462, 66.2419
2.272, -1, 20.6708, 45.6913, -2.36886, 65.1686, -56.65, 66.1339
2.275, -1, 20.7306, 45.7085, -2.41954, 65.3085, -56.6538, 66.0262
2.28, -1, 20.7904, 45.7258, -2.47013, 65.4482, -56.6576, 65.9186
2.284, -1, 20.85, 45.743, -2.52065, 65.5877, -56.6613, 65.8112
2.288, -1, 20.9096, 45.7602, -2.57108, 65.727, -56.6651, 65.704
2.291, -1, 20.9691, 45.7774, -2.62144, 65.866, -56.6688, 65.5969
2.296, -1, 21.0285, 45.7946, -2.67172, 66.0049, -56.6726, 65.49
2.3, -1, 21.0878, 45.8117, -2.72193, 66.1435, -56.6763, 65.3832
2.304, -1, 21.147, 45.8288, -2.77206, 66.282, -56.68, 65.2766
2.308, -1, 21.2061, 45.8459, -2.82211, 66.4202, -56.6837, 65.1702
2.311, -1, 21.2651, 45.8629, -2.87208, 66.5582, -56.6875, 65.0639
2.316, -1, 21.324, 45.8799, -2.92198, 66.696, -56.6912, 64.9579
2.32, -1, 21.3829, 45.8969, -2.9718, 66.8335, -56.6949, 64.8519
2.324, -1, 21.4416, 45.9139, -3.02154, 66.9709, -56.6986, 64.7462
2.328, -1, 21.5003, 45.9309, -3.07121, 67.1081, -56.7023, 64.6405
2.331, -1, 21.5589, 45.9478, -3.1208, 67.245, -56.706, 64.5351
2.336, -1, 21.6173, 45.9647, -3.17031, 67.3817, -56.7097, 64.4298
2.34, -1, 21.6757, 45.9815, -3.21975, 67.5183, -56.7133, 64.3247
2.344, -1, 21.734, 45.9984, -3.26912, 67.6546, -56.717, 64.2197
2.347, -1, 21.7923, 46.0152, -3.31841, 67.7907, -56.7207, 64.1149
2.352, -1, 21.8504, 46.032, -3.36762, 67.9266, -56.7243, 64.0103
2.356, -1, 21.9084, 46.0487, -3.41677, 68.0623, -56.728, 63.9058
2.36, -1, 21.9664, 46.0655, -3.46583, 68.1978, -56.7316, 63.8014
2.364, -1, 22.0242, 46.0822, -3.51482, 68.3331, -56.7353, 63.6973
2.367, -1, 22.082, 46.0989, -3.56374, 68.4682, -56.7389, 63.5933
2.372, -1, 22.1397, 46.1155, -3.61258, 68.6031, -56.7426, 63.4894
2.376, -1, 22.1973, 46.1322, -3.66135, 68.7378, -56.7462, 63.3857
2.38, -1, 22.2548, 46.1488, -3.71005, 68.8722, -56.7498, 63.2821
2.383, -1, 22.3123, 46.1654, -3.75868, 69.0065, -56.7534, 63.1788
2.388, -1, 22.3696, 46.1819, -3.80723, 69.1406, -56.7571, 63.0755
2.392, -1, 22.4269, 46.1985, -3.85571, 69.2745, -56.7607, 62.9724
2.396, -1, 22.4841, 46.215, -3.90411, 69.4081, -56.7643, 62.8695
2.4, -1, 22.5411, 46.2315, -3.95245, 69.5416, -56.7679, 62.7667
2.403, -1, 22.5981, 46.2479, -4.00071, 69.6749, -56.7715, 62.6641
2.408, -1, 22.6551, 46.2644, -4.0489, 69.808, -56.775, 62.5616
2.412, -1, 22.7119, 46.2808, -4.09702, 69.9408, -56.7786, 62.4593
2.416, -1, 22.7687, 46.2972, -4.14507, 70.0735, -56.7822, 62.3572
2.42, -1, 22.8253, 46.3136, -4.19305, 70.206, -56.7858, 62.2551
2.423, -1, 22.8819, 46.3299, -4.24095, 70.3383, -56.7893, 62.1533
2.428, -1, 22.9384, 46.3462, -4.28879, 70.4704, -56.7929, 62.0516
2.432, -1, 22.9948, 46.3625, -4.33656, 70.6023, -56.7964, 61.95
2.436, -1, 23.0512, 46.3788, -4.38425, 70.734, -56.8, 61.8486
2.439, -1, 23.1074, 46.395, -4.43188, 70.8656, -56.8035, 61.7473
2.444, -1, 23.1636, 46.4112, -4.47944, 70.9969, -56.8071, 61.6462
2.448, -1, 23.2197, 46.4274, -4.52693, 71.128, -56.8106, 61.5452
2.452, -1, 23.2757, 46.4436, -4.57434, 71.259, -56.8141, 61.4444
2.456, -1, 23.3316, 46.4598, -4.6217, 71.3897, -56.8177, 61.3437
2.459, -1, 23.3875, 46.4759, -4.66898, 71.5203, -56.8212, 61.2431
2.464, -1, 23.4432, 46.492, -4.71619, 71.6507, -56.8247, 61.1427
2.468, -1, 23.4989, 46.5081, -4.76334, 71.7809, -56.8282, 61.0425
2.472, -1, 23.5545, 46.5242, -4.81041, 71.9109, -56.8317, 60.9424
2.476, -1, 23.6101, 46.5402, -4.85742, 72.0407, -56.8352, 60.8424
2.479, -1, 23.6655, 46.5562, -4.90437, 72.1703, -56.8387, 60.7426
2.484, -1, 23.7209, 46.5722, -4.95124, 72.2998, -56.8422, 60.6429
2.488, -1, 23.7762, 46.5882, -4.99805, 72.4291, -56.8457, 60.5434
2.492, -1, 23.8314, 46.6041, -5.04479, 72.5581, -56.8492, 60.444
2.495, -1, 23.8865, 46.62, -5.09147, 72.687, -56.8526, 60.3448
2.5, -1, 23.9416, 46.6359, -5.13808, 72.8157, -56.8561, 60.2457
2.504, -1, 23.9965, 46.6518, -5.18462, 72.9443, -56.8596, 60.1467
2.508, -1, 24.0514, 46.6677, -5.2311, 73.0726, -56.863, 60.0479
2.512, -1, 24.1063, 46.6835, -5.27751, 73.2008, -56.8665, 59.9492
2.515, -1, 24.161, 46.6993, -5.32385, 73.3288, -56.8699, 59.8506
2.52, -1, 24.2157, 46.7151, -5.37013, 73.4566, -56.8734, 59.7522
2.524, -1, 24.2703, 46.7309, -5.41635, 73.5842, -56.8768, 59.654
2.528, -1, 24.3248, 46.7466, -5.4625, 73.7116, -56.8802, 59.5558
2.531, -1, 24.3792, 46.7623, -5.50858, 73.8389, -56.8837, 59.4578
2.536, -1, 24.4336, 46.778, -5.5546, 73.966, -56.8871, 59.36
2.54, -1, 24.4878, 46.7937, -5.60056, 74.0929, -56.8905, 59.2623
2.544, -1, 24.542, 46.8093, -5.64645, 74.2196, -56.8939, 59.1647
2.548, -1, 24.5962, 46.825, -5.69228, 74.3462, -56.8973, 59.0672
2.551, -1, 24.6502, 46.8406, -5.73805, 74.4726, -56.9007, 58.9699
2.556, -1, 24.7042, 46.8562, -5.78375, 74.5988, -56.9041, 58.8727
2.56, -1, 24.7581, 46.8717, -5.82939, 74.7248, -56.9075, 58.7757
2.564, -1, 24.812, 46.8873, -5.87496, 74.8507, -56.9109, 58.6788
2.568, -1, 24.8657, 46.9028, -5.92048, 74.9764, -56.9143, 58.582
2.571, -1, 24.9194, 46.9183, -5.96593, 75.1019, -56.9177, 58.4854
2.576, -1, 24.973, 46.9338, -6.01132, 75.2272, -56.9211, 58.3889
2.58, -1, 25.0265, 46.9493, -6.05664, 75.3524, -56.9244, 58.2925
2.584, -1, 25.08, 46.9647, -6.1019, 75.4774, -56.9278, 58.1962
2.587, -1, 25.1334, 46.9801, -6.14711, 75.6022, -56.9312, 58.1001
2.592, -1, 25.1867, 46.9955, -6.19225, 75.7269, -56.9345, 58.0041
2.596, -1, 25.24, 47.0109, -6.23732, 75.8513, -56.9379, 57.9083
2.6, -1, 25.2931, 47.0263, -6.28234, 75.9757, -56.9412, 57.8126
2.604, -1, 25.3462, 47.0416, -6.3273, 76.0998, -56.9446, 57.717
2.607, -1, 25.3993, 47.0569, -6.37219, 76.2238, -56.9479, 57.6215
2.612, -1, 25.4522, 47.0722, -6.41703, 76.3476, -56.9513, 57.5262
2.616, -1, 25.5051, 47.0875, -6.4618, 76.4712, -56.9546, 57.431
2.62, -1, 25.5579, 47.1027, -6.50651, 76.5947, -56.9579, 57.3359
2.624, -1, 25.6107, 47.118, -6.55117, 76.718, -56.9613, 57.2409
2.627, -1, 25.6633, 47.1332, -6.59576, 76.8412, -56.9646, 57.1461
2.632, -1, 25.7159, 47.1484, -6.64029, 76.9641, -56.9679, 57.0514
2.636, -1, 25.7685, 47.1635, -6.68477, 77.087, -56.9712, 56.9569
2.64, -1, 25.8209, 47.1787, -6.72918, 77.2096, -56.9745, 56.8624
2.643, -1, 25.8733, 47.1938, -6.77354, 77.3321, -56.9778, 56.7681
2.648, -1, 25.9256, 47.2089, -6.81783, 77.4544, -56.9811, 56.6739
2.652, -1, 25.9779, 47.224, -6.86207, 77.5766, -56.9844, 56.5799
2.656, -1, 26.0301, 47.2391, -6.90625, 77.6986, -56.9877, 56.4859
2.66, -1, 26.0822, 47.2541, -6.95037, 77.8204, -56.991, 56.3921
2.663, -1, 26.1342, 47.2692, -6.99443, 77.9421, -56.9942, 56.2984
2.668, -1, 26.1862, 47.2842, -7.03843, 78.0636, -56.9975, 56.2048
2.672, -1, 26.2381, 47.2992, -7.08238, 78.185, -57.0008, 56.1114
2.676, -1, 26.2899, 47.3141, -7.12627, 78.3062, -57.0041, 56.0181
2.679, -1, 26.3417, 47.3291, -7.1701, 78.4272, -57.0073, 55.9249
2.684, -1, 26.3934, 47.344, -7.21387, 78.5481, -57.0106, 55.8318
2.688, -1, 26.445, 47.3589, -7.25758, 78.6688, -57.0138, 55.7389
2.692, -1, 26.4966, 47.3738, -7.30124, 78.7894, -57.0171, 55.646
2.696, -1, 26.5481, 47.3887, -7.34484, 78.9098, -57.0203, 55.5533
2.699, -1, 26.5995, 47.4035, -7.38839, 79.03, -57.0236, 55.4607
2.704, -1, 26.6509, 47.4184, -7.43187, 79.1501, -57.0268, 55.3682
2.708, -1, 26.7022, 47.4332, -7.4753, 79.2701, -57.03, 55.2759
2.712, -1, 26.7534, 47.448, -7.51868, 79.3898, -57.0333, 55.1837
2.716, -1, 26.8046, 47.4628, -7.562, 79.5095, -57.0365, 55.0916
2.719, -1, 26.8557, 47.4775, -7.60526, 79.6289, -57.0397, 54.9996
2.724, -1, 26.9068, 47.4923, -7.64847, 79.7483, -57.0429, 54.9077
2.728, -1, 26.9577, 47.507, -7.69162, 79.8674, -57.0461, 54.8159
2.732, -1, 27.0086, 47.5217, -7.73472, 79.9864, -57.0493, 54.7243
2.735, -1, 27.0595, 47.5364, -7.77776, 80.1053, -57.0525, 54.6328
2.74, -1, 27.1102, 47.551, -7.82074, 80.224, -57.0557, 54.5414
2.744, -1, 27.161, 47.5657, -7.86367, 80.3426, -57.0589, 54.4501
2.748, -1, 27.2116, 47.5803, -7.90655, 80.461, -57.0621, 54.3589
2.752, -1, 27.2622, 47.5949, -7.94937, 80.5792, -57.0653, 54.2679
2.755, -1, 27.3127, 47.6095, -7.99214, 80.6973, -57.0685, 54.1769
2.76, -1, 27.3632, 47.624, -8.03486, 80.8153, -57.0717, 54.0861
2.764, -1, 27.4135, 47.6386, -8.07752, 80.9331, -57.0748, 53.9954
2.768, -1, 27.4639, 47.6531, -8.12012, 81.0508, -57.078, 53.9048
2.772, -1, 27.5141, 47.6676, -8.16268, 81.1683, -57.0812, 53.8143
2.775, -1, 27.5643, 47.6821, -8.20518, 81.2856, -57.0843, 53.7239
2.78, -1, 27.6145, 47.6966, -8.24763, 81.4029, -57.0875, 53.6337
2.784, -1, 27.6646, 47.7111, -8.29002, 81.5199, -57.0907, 53.5435
2.788, -1, 27.7146, 47.7255, -8.33236, 81.6369, -57.0938, 53.4535
2.791, -1, 27.7645, 47.7399, -8.37465, 81.7536, -57.097, 53.3636
2.796, -1, 27.8144, 47.7544, -8.41689, 81.8703, -57.1001, 53.2737
2.8, -1, 27.8642, 47.7687, -8.45907, 81.9868, -57.1032, 53.184
2.804, -1, 27.914, 47.7831, -8.50121, 82.1031, -57.1064, 53.0945
2.808, -1, 27.9637, 47.7975, -8.54329, 82.2193, -57.1095, 53.005
2.811, -1, 28.0134, 47.8118, -8.58532, 82.3354, -57.1126, 52.9156
2.816, -1, 28.0629, 47.8261, -8.6273, 82.4513, -57.1158, 52.8263
2.82, -1, 28.1125, 47.8404, -8.66922, 82.5671, -57.1189, 52.7372
2.824, -1, 28.1619, 47.8547, -8.7111, 82.6827, -57.122, 52.6482
2.828, -1, 28.2113, 47.869, -8.75292, 82.7982, -57.1251, 52.5592
2.831, -1, 28.2607, 47.8832, -8.7947, 82.9136, -57.1282, 52.4704
2.836, -1, 28.31, 47.8975, -8.83642, 83.0288, -57.1313, 52.3817
2.84, -1, 28.3592, 47.9117, -8.87809, 83.1439, -57.1344, 52.2931
2.844, -1, 28.4083, 47.9259, -8.91971, 83.2589, -57.1375, 52.2046
2.847, -1, 28.4574, 47.94, -8.96129, 83.3737, -57.1406, 52.1162
2.852, -1, 28.5065, 47.9542, -9.00281, 83.4883, -57.1437, 52.0279
2.856, -1, 28.5555, 47.9684, -9.04428, 83.6028, -57.1468, 51.9397
2.86, -1, 28.6044, 47.9825, -9.0857, 83.7172, -57.1499, 51.8516
2.864, -1, 28.6533, 47.9966, -9.12708, 83.8315, -57.1529, 51.7636
2.867, -1, 28.7021, 48.0107, -9.1684, 83.9456, -57.156, 51.6758
2.872, -1, 28.7508, 48.0248, -9.20968, 84.0596, -57.1591, 51.588
2.876, -1, 28.7995, 48.0388, -9.2509, 84.1734, -57.1622, 51.5003
2.88, -1, 28.8482, 48.0529, -9.29208, 84.2872, -57.1652, 51.4128
2.883, -1, 28.8968, 48.0669, -9.33321, 84.4007, -57.1683, 51.3253
2.888, -1, 28.9453, 48.0809, -9.37429, 84.5142, -57.1713, 51.238
2.892, -1, 28.9937, 48.0949, -9.41532, 84.6275, -57.1744, 51.1507
2.896, -1, 29.0422, 48.1089, -9.4563, 84.7407, -57.1774, 51.0636
2.9, -1, 29.0905, 48.1229, -9.49724, 84.8537, -57.1805, 50.9765
2.903, -1, 29.1388, 48.1368, -9.53813, 84.9666, -57.1835, 50.8896
2.908, -1, 29.187, 48.1507, -9.57896, 85.0794, -57.1866, 50.8027
2.912, -1, 29.2352, 48.1646, -9.61976, 85.192, -57.1896, 50.716
2.916, -1, 29.2833, 48.1785, -9.6605, 85.3046, -57.1926, 50.6294
2.92, -1, 29.3314, 48.1924, -9.7012, 85.4169, -57.1957, 50.5428
2.923, -1, 29.3794, 48.2063, -9.74185, 85.5292, -57.1987, 50.4564
2.928, -1, 29.4274, 48.2201, -9.78245, 85.6413, -57.2017, 50.3701
2.932, -1, 29.4753, 48.234, -9.82301, 85.7533, -57.2047, 50.2838
2.936, -1, 29.5231, 48.2478, -9.86352, 85.8652, -57.2078, 50.1977
2.939, -1, 29.5709, 48.2616, -9.90398, 85.9769, -57.2108, 50.1116
2.944, -1, 29.6187, 48.2754, -9.9444, 86.0886, -57.2138, 50.0257
2.948, -1, 29.6664, 48.2891, -9.98477, 86.2, -57.2168, 49.9399
2.952, -1, 29.714, 48.3029, -10.0251, 86.3114, -57.2198, 49.8541
2.956, -1, 29.7616, 48.3166, -10.0654, 86.4226, -57.2228, 49.7685
2.959, -1, 29.8091, 48.3304, -10.1056, 86.5337, -57.2258, 49.6829
2.964, -1, 29.8566, 48.3441, -10.1458, 86.6447, -57.2288, 49.5975
2.968, -1, 29.904, 48.3578, -10.1859, 86.7556, -57.2317, 49.5121
2.972, -1, 29.9513, 48.3714, -10.226, 86.8663, -57.2347, 49.4269
2.976, -1, 29.9986, 48.3851, -10.2661, 86.9769, -57.2377, 49.3417
2.98, -1, 30.0459, 48.3987, -10.3061, 87.0874, -57.2407, 49.2566
2.984, -1, 30.0931, 48.4124, -10.346, 87.1977, -57.2437, 49.1717
2.988, -1, 30.1402, 48.426, -10.386, 87.3079, -57.2466, 49.0868
2.992, -1, 30.1873, 48.4396, -10.4258, 87.418, -57.2496, 49.002
2.995, -1, 30.2344, 48.4532, -10.4657, 87.528, -57.2526, 48.9173
3, -1, 30.2814, 48.4667, -10.5054, 87.6379, -57.2555, 48.8327
3.004, -1, 30.3283, 48.4803, -10.5452, 87.7476, -57.2585, 48.7482
3.008, -1, 30.3752, 48.4938, -10.5849, 87.8572, -57.2614, 48.6638
3.012, -1, 30.422, 48.5074, -10.6245, 87.9667, -57.2644, 48.5795
3.015, -1, 30.4688, 48.5209, -10.6641, 88.0761, -57.2673, 48.4953
3.02, -1, 30.5155, 48.5344, -10.7037, 88.1854, -57.2703, 48.4112
3.024, -1, 30.5622, 48.5478, -10.7432, 88.2945, -57.2732, 48.3272
3.028, -1, 30.6088, 48.5613, -10.7827, 88.4035, -57.2762, 48.2432
3.031, -1, 30.6554, 48.5748, -10.8221, 88.5124, -57.2791, 48.1594
3.036, -1, 30.7019, 48.5882, -10.8615, 88.6212, -57.282, 48.0756
3.04, -1, 30.7484, 48.6016, -10.9008, 88.7298, -57.2849, 47.992
3.044, -1, 30.7948, 48.615, -10.9401, 88.8383, -57.2879, 47.9084
3.048, -1, 30.8412, 48.6284, -10.9794, 88.9468, -57.2908, 47.8249
3.051, -1, 30.8875, 48.6418, -11.0186, 89.0551, -57.2937, 47.7415
3.056, -1, 30.9338, 48.6551, -11.0578, 89.1632, -57.2966, 47.6582
3.06, -1, 30.98, 48.6685, -11.0969, 89.2713, -57.2995, 47.575
3.064, -1, 31.0262, 48.6818, -11.136, 89.3792, -57.3024, 47.4919
3.068, -1, 31.0723, 48.6951, -11.175, 89.4871, -57.3054, 47.4089
3.071, -1, 31.1183, 48.7084, -11.2141, 89.5948, -57.3083, 47.3259
3.076, -1, 31.1644, 48.7217, -11.253, 89.7024, -57.3111, 47.2431
3.08, -1, 31.2103, 48.735, -11.2919, 89.8099, -57.3141, 47.1603
3.084, -1, 31.2562, 48.7483, -11.3308, 89.9172, -57.3169, 47.0777
3.087, -1, 31.3021, 48.7615, -11.3697, 90.0245, -57.3198, 46.9951
3.092, -1, 31.3479, 48.7747, -11.4084, 90.1316, -57.3227, 46.9126
3.096, -1, 31.3937, 48.788, -11.4472, 90.2386, -57.3256, 46.8302
3.1, -1, 31.4394, 48.8012, -11.4859, 90.3455, -57.3285, 46.7479
3.104, -1, 31.4851, 48.8144, -11.5246, 90.4523, -57.3314, 46.6656
3.107, -1, 31.5308, 48.8275, -11.5632, 90.559, -57.3342, 46.5835
3.112, -1, 31.5763, 48.8407, -11.6018, 90.6656, -57.3371, 46.5014
3.116, -1, 31.6219, 48.8538, -11.6404, 90.772, -57.34, 46.4195
3.12, -1, 31.6674, 48.867, -11.6789, 90.8784, -57.3428, 46.3376
3.124, -1, 31.7128, 48.8801, -11.7173, 90.9846, -57.3457, 46.2558
3.128, -1, 31.7582, 48.8932, -11.7558, 91.0907, -57.3486, 46.1741
3.132, -1, 31.8035, 48.9063, -11.7941, 91.1967, -57.3514, 46.0925
3.136, -1, 31.8488, 48.9194, -11.8325, 91.3026, -57.3543, 46.0109
3.14, -1, 31.8941, 48.9324, -11.8708, 91.4084, -57.3571, 45.9295
3.143, -1, 31.9393, 48.9455, -11.9091, 91.5141, -57.36, 45.8481
3.148, -1, 31.9844, 48.9585, -11.9473, 91.6196, -57.3628, 45.7668
3.152, -1, 32.0295, 48.9716, -11.9855, 91.7251, -57.3657, 45.6856
3.156, -1, 32.0746, 48.9846, -12.0236, 91.8305, -57.3685, 45.6045
3.16, -1, 32.1196, 48.9976, -12.0617, 91.9357, -57.3713, 45.5234
3.163, -1, 32.1646, 49.0106, -12.0998, 92.0408, -57.3742, 45.4425
3.168, -1, 32.2095, 49.0235, -12.1378, 92.1459, -57.377, 45.3616
3.172, -1, 32.2544, 49.0365, -12.1758, 92.2508, -57.3798, 45.2808
3.176, -1, 32.2992, 49.0494, -12.2138, 92.3556, -57.3827, 45.2001
3.179, -1, 32.344, 49.0624, -12.2517, 92.4603, -57.3855, 45.1195
3.184, -1, 32.3887, 49.0753, -12.2896, 92.5649, -57.3883, 45.039
3.188, -1, 32.4334, 49.0882, -12.3274, 92.6694, -57.3911, 44.9585
3.192, -1, 32.4781, 49.1011, -12.3652, 92.7738, -57.3939, 44.8781
3.196, -1, 32.5227, 49.114, -12.403, 92.878, -57.3967, 44.7978
3.199, -1, 32.5672, 49.1268, -12.4407, 92.9822, -57.3995, 44.7176
3.204, -1, 32.6117, 49.1397, -12.4784, 93.0863, -57.4023, 44.6375
3.208, -1, 32.6562, 49.1525, -12.516, 93.1902, -57.4051, 44.5575
3.212, -1, 32.7006, 49.1653, -12.5536, 93.2941, -57.4079, 44.4775
3.216, -1, 32.745, 49.1782, -12.5912, 93.3979, -57.4107, 44.3976
3.22, -1, 32.7893, 49.191, -12.6287, 93.5015, -57.4135, 44.3178
3.224, -1, 32.8336, 49.2038, -12.6662, 93.6051, -57.4163, 44.238
3.228, -1, 32.8779, 49.2165, -12.7037, 93.7085, -57.4191, 44.1584
3.232, -1, 32.9221, 49.2293, -12.7411, 93.8119, -57.4219, 44.0788
3.235, -1, 32.9662, 49.242, -12.7785, 93.9151, -57.4247, 43.9993
3.24, -1, 33.0103, 49.2548, -12.8159, 94.0182, -57.4275, 43.9199
3.244, -1, 33.0544, 49.2675, -12.8532, 94.1213, -57.4302, 43.8406
3.248, -1, 33.0984, 49.2802, -12.8904, 94.2242, -57.433, 43.7613
3.252, -1, 33.1424, 49.2929, -12.9277, 94.327, -57.4358, 43.6821
3.255, -1, 33.1864, 49.3056, -12.9649, 94.4298, -57.4385, 43.603
3.26, -1, 33.2303, 49.3183, -13.002, 94.5324, -57.4413, 43.524
3.264, -1, 33.2741, 49.331, -13.0392, 94.6349, -57.4441, 43.445
3.268, -1, 33.3179, 49.3436, -13.0763, 94.7374, -57.4468, 43.3662
3.272, -1, 33.3617, 49.3562, -13.1133, 94.8397, -57.4496, 43.2874
3.276, -1, 33.4054, 49.3689, -13.1503, 94.942, -57.4523, 43.2086
3.28, -1, 33.4491, 49.3815, -13.1873, 95.0441, -57.4551, 43.13
3.284, -1, 33.4927, 49.3941, -13.2243, 95.1461, -57.4578, 43.0514
3.288, -1, 33.5363, 49.4067, -13.2612, 95.2481, -57.4606, 42.9729
3.291, -1, 33.5799, 49.4193, -13.2981, 95.3499, -57.4633, 42.8945
3.296, -1, 33.6234, 49.4318, -13.3349, 95.4516, -57.4661, 42.8162
3.3, -1, 33.6669, 49.4444, -13.3717, 95.5533, -57.4688, 42.7379
3.304, -1, 33.7103, 49.4569, -13.4085, 95.6548, -57.4716, 42.6597
3.308, -1, 33.7537, 49.4695, -13.4452, 95.7563, -57.4743, 42.5816
3.312, -1, 33.7971, 49.482, -13.4819, 95.8576, -57.477, 42.5036
3.316, -1, 33.8404, 49.4945, -13.5186, 95.9589, -57.4797, 42.4256
3.32, -1, 33.8836, 49.507, -13.5552, 96.0601, -57.4825, 42.3477
3.324, -1, 33.9269, 49.5195, -13.5918, 96.1611, -57.4852, 42.2699
3.328, -1, 33.97, 49.5319, -13.6284, 96.2621, -57.4879, 42.1922
3.332, -1, 34.0132, 49.5444, -13.6649, 96.363, -57.4906, 42.1145
3.336, -1, 34.0563, 49.5568, -13.7014, 96.4637, -57.4934, 42.0369
3.34, -1, 34.0994, 49.5693, -13.7379, 96.5644, -57.4961, 41.9594
3.344, -1, 34.1424, 49.5817, -13.7743, 96.665, -57.4988, 41.8819
3.347, -1, 34.1854, 49.5941, -13.8107, 96.7655, -57.5015, 41.8045
3.352, -1, 34.2283, 49.6065, -13.847, 96.8659, -57.5042, 41.7272
3.356, -1, 34.2712, 49.6189, -13.8834, 96.9662, -57.5069, 41.65
3.36, -1, 34.3141, 49.6313, -13.9196, 97.0664, -57.5096, 41.5728
3.364, -1, 34.3569, 49.6436, -13.9559, 97.1665, -57.5123, 41.4957
3.368, -1, 34.3997, 49.656, -13.9921, 97.2666, -57.515, 41.4187
3.372, -1, 34.4424, 49.6683, -14.0283, 97.3665, -57.5177, 41.3418
3.376, -1, 34.4851, 49.6807, -14.0645, 97.4663, -57.5204, 41.2649
3.38, -1, 34.5277, 49.693, -14.1006, 97.5661, -57.5231, 41.1881
3.383, -1, 34.5702, 49.7053, -14.1367, 97.6657, -57.5258, 41.1114
3.388, -1, 34.6124, 49.7176, -14.1728, 97.7653, -57.5284, 41.0347
3.392, -1, 34.6541, 49.7299, -14.2089, 97.8647, -57.5311, 40.9581
3.396, -1, 34.6951, 49.7422, -14.245, 97.9639, -57.5338, 40.8817
3.4, -1, 34.7354, 49.7545, -14.281, 98.0629, -57.5366, 40.8055
3.403, -1, 34.7747, 49.7667, -14.3171, 98.1614, -57.5393, 40.7296
3.408, -1, 34.8131, 49.7789, -14.3531, 98.2593, -57.542, 40.6542
3.412, -1, 34.8503, 49.791, -14.3888, 98.3563, -57.5448, 40.5794
3.416, -1, 34.8865, 49.803, -14.4243, 98.4521, -57.5475, 40.5056
3.42, -1, 34.9214, 49.8148, -14.4593, 98.5463, -57.5502, 40.433
3.424, -1, 34.955, 49.8264, -14.4937, 98.6384, -57.5529, 40.362
3.428, -1, 34.9873, 49.8376, -14.5272, 98.7278, -57.5555, 40.293
3.432, -1, 35.0183, 49.8485, -14.5595, 98.8142, -57.558, 40.2264
3.436, -1, 35.048, 49.8588, -14.5905, 98.8968, -57.5604, 40.1627
3.439, -1, 35.0765, 49.8687, -14.6198, 98.9753, -57.5627, 40.1022
3.444, -1, 35.1038, 49.878, -14.6474, 99.049, -57.5649, 40.0453
3.448, -1, 35.1298, 49.8866, -14.6729, 99.1178, -57.5668, 39.9923
3.452, -1, 35.1545, 49.8945, -14.6963, 99.1811, -57.5686, 39.9435
3.456, -1, 35.1778, 49.9017, -14.7174, 99.2388, -57.5702, 39.8991
3.46, -1, 35.1999, 49.9081, -14.7363, 99.2908, -57.5716, 39.8591
3.464, -1, 35.2207, 49.9138, -14.7529, 99.337, -57.5728, 39.8235
3.468, -1, 35.2403, 49.9188, -14.7672, 99.3776, -57.5738, 39.7922
3.472, -1, 35.2586, 49.9231, -14.7793, 99.4128, -57.5747, 39.7652
3.476, -1, 35.2755, 49.9267, -14.7894, 99.4428, -57.5753, 39.7421
3.48, -1, 35.291, 49.9298, -14.7977, 99.4682, -57.5759, 39.7227
3.484, -1, 35.305, 49.9322, -14.8044, 99.4892, -57.5762, 39.7066
3.488, -1, 35.3173, 49.9342, -14.8097, 99.5064, -57.5765, 39.6935
3.492, -1, 35.3281, 49.9358, -14.8139, 99.5202, -57.5767, 39.6829
3.495, -1, 35.3376, 49.937, -14.817, 99.5312, -57.5769, 39.6745
3.5, -1, 35.3459, 49.9379, -14.8193, 99.5397, -57.5769, 39.6681
3.504, -1, 35.3532, 49.9386, -14.8209, 99.5462, -57.577, 39.6632
3.508, 2, 35.3596, 49.939, -14.8219, 99.5509, -57.577, 39.6595
3.512, 2, 35.3652, 49.9394, -14.8226, 99.5544, -57.577, 39.6569
3.516, 2, 35.3699, 49.9396, -14.823, 99.5569, -57.5769, 39.655
3.52, 2, 35.3737, 49.9397, -14.8233, 99.5587, -57.5769, 39.6537
3.524, 2, 35.3766, 49.9398, -14.8234, 99.5599, -57.5769, 39.6528
3.528, 2, 35.3788, 49.9399, -14.8235, 99.5607, -57.5769, 39.6522
3.531, 2, 35.3802, 49.9399, -14.8235, 99.5612, -57.5768, 39.6518
3.536, 2, 35.3813, 49.9399, -14.8235, 99.5616, -57.5768, 39.6515
3.54, 2, 35.3819, 49.9399, -14.8236, 99.5619, -57.5768, 39.6514
3.544, 2, 35.3824, 49.94, -14.8236, 99.562, -57.5768, 39.6512
3.548, 2, 35.3827, 49.94, -14.8236, 99.5621, -57.5768, 39.6511
3.552, 2, 35.3829, 49.94, -14.8236, 99.5622, -57.5768, 39.6511
3.556, 2, 35.3831, 49.94, -14.8236, 99.5623, -57.5768, 39.651
3.56, 2, 35.3832, 49.94, -14.8236, 99.5623, -57.5768, 39.651
3.564, 2, 35.3832, 49.94, -14.8236, 99.5623, -57.5768, 39.651
3.568, 2, 35.3833, 49.94, -14.8236, 99.5623, -57.5768, 39.651
3.572, 2, 35.3833, 49.94, -14.8236, 99.5624, -57.5768, 39.651
3.576, 2, 35.3833, 49.94, -14.8236, 99.5624, -57.5768, 39.651
3.58, 2, 35.3834, 49.94, -14.8236, 99.5624, -57.5768, 39.651
3.584, 2, 35.3834, 49.94, -14.8236, 99.5624, -57.5768, 39.651
3.587, 2, 35.3834, 49.94, -14.8236, 99.5624, -57.5768, 39.651
3.592, 2, 35.3834, 49.94, -14.8236, 99.5624, -57.5768, 39.651
3.596, 2, 35.3834, 49.94, -14.8236, 99.5624, -57.5768, 39.651
3.6, 2, 35.3834, 49.94, -14.8236, 99.5624, -57.5768, 39.651
3.604, 2, 35.3834, 49.94, -14.8236, 99.5624, -57.5768, 39.651
3.608, 2, 35.3834, 49.94, -14.8236, 99.5624, -57.5768, 39.651
3.612, 2, 35.3834, 49.94, -14.8236, 99.5624, -57.5768, 39.651
3.616, 2, 35.3834, 49.94, -14.8236, 99.5624, -57.5768, 39.651
3.62, 2, 35.3834, 49.94, -14.8236, 99.5624, -57.5768, 39.651
3.624, 2, 35.3834, 49.94, -14.8236, 99.5624, -57.5768, 39.651
3.628, 2, 35.3834, 49.94, -14.8236, 99.5624, -57.5768, 39.651
3.632, 2, 35.3834, 49.94, -14.8236, 99.5624, -57.5768, 39.651
3.636, 2, 35.3834, 49.94, -14.8236, 99.5624, -57.5768, 39.651
3.64, 2, 35.3834, 49.94, -14.8236, 99.5624, -57.5768, 39.651
3.644, 2, 35.3834, 49.94, -14.8236, 99.5624, -57.5768, 39.651
3.648, 2, 35.3834, 49.94, -14.8236, 99.5624, -57.5768, 39.651
3.652, 2, 35.3834, 49.94, -14.8236, 99.5624, -57.5768, 39.651
3.656, 2, 35.3834, 49.94, -14.8236, 99.5624, -57.5768, 39.651
3.66, 2, 35.3834, 49.94, -14.8236, 99.5624, -57.5768, 39.651
3.664, 2, 35.3834, 49.94, -14.8236, 99.5624, -57.5768, 39.651
3.668, 2, 35.3834, 49.94, -14.8236, 99.5624, -57.5768, 39.651
3.672, 2, 35.3834, 49.94, -14.8236, 99.5624, -57.5768, 39.651
3.676, 2, 35.3834, 49.94, -14.8236, 99.5624, -57.5768, 39.651
3.679, 2, 35.3834, 49.94, -14.8236, 99.5624, -57.5768, 39.651
3.684, 2, 35.3834, 49.94, -14.8236, 99.5624, -57.5768, 39.651
3.688, 2, 35.3834, 49.94, -14.8236, 99.5624, -57.5768, 39.651
3.692, 2, 35.3834, 49.94, -14.8236, 99.5624, -57.5768, 39.651
3.696, 2, 35.3834, 49.94, -14.8236, 99.5624, -57.5768, 39.651
3.7, 2, 35.3834, 49.94, -14.8236, 99.5624, -57.5768, 39.651
3.704, 2, 35.3834, 49.94, -14.8236, 99.5624, -57.5768, 39.651
3.708, 2, 35.3834, 49.94, -14.8236, 99.5624, -57.5768, 39.651
3.712, 2, 35.3834, 49.94, -14.8236, 99.5624, -57.5768, 39.651
3.716, 2, 35.3834, 49.94, -14.8236, 99.5624, -57.5768, 39.651
3.72, 2, 35.3834, 49.94, -14.8236, 99.5624, -57.5768, 39.651
3.724, 2, 35.3834, 49.94, -14.8236, 99.5624, -57.5768, 39.651
3.728, 2, 35.3834, 49.94, -14.8236, 99.5624, -57.5768, 39.651
3.732, 2, 35.3834, 49.94, -14.8236, 99.5624, -57.5768, 39.651
3.735, 2, 35.3834, 49.94, -14.8236, 99.5624, -57.5768, 39.651
3.74, 2, 35.3834, 49.94, -14.8236, 99.5624, -57.5768, 39.651
3.744, 2, 35.3834, 49.94, -14.8236, 99.5624, -57.5768, 39.651
3.748, 2, 35.3834, 49.94, -14.8236, 99.5624, -57.5768, 39.651
3.752, 2, 35.3834, 49.94, -14.8236, 99.5624, -57.5768, 39.651
3.756, 2, 35.3834, 49.94, -14.8236, 99.5624, -57.5768, 39.651
3.76, 2, 35.3834, 49.94, -14.8236, 99.5624, -57.5768, 39.651
3.764, 2, 35.3834, 49.94, -14.8236, 99.5624, -57.5768, 39.651
3.768, 2, 35.3834, 49.94, -14.8236, 99.5624, -57.5768, 39.651
3.772, 2, 35.3834, 49.94, -14.8236, 99.5624, -57.5768, 39.651
3.776, 2, 35.3834, 49.94, -14.8236, 99.5624, -57.5768, 39.651
3.78, 2, 35.3834, 49.94, -14.8236, 99.5624, -57.5768, 39.651
3.784, 2, 35.3834, 49.94, -14.8236, 99.5624, -57.5768, 39.651
3.788, 2, 35.3834, 49.94, -14.8236, 99.5624, -57.5768, 39.651
3.792, 2, 35.3834, 49.94, -14.8236, 99.5624, -57.5768, 39.651
3.796, 2, 35.3834, 49.94, -14.8236, 99.5624, -57.5768, 39.651
3.8, 2, 35.3834, 49.94, -14.8236, 99.5624, -57.5768, 39.651
3.804, 2, 35.3834, 49.94, -14.8236, 99.5624, -57.5768, 39.651
3.808, 2, 35.3834, 49.94, -14.8236, 99.5624, -57.5768, 39.651
3.812, 2, 35.3834, 49.94, -14.8236, 99.5624, -57.5768, 39.651
3.816, 2, 35.3834, 49.94, -14.8236, 99.5624, -57.5768, 39.651
3.82, 2, 35.3834, 49.94, -14.8236, 99.5624, -57.5768, 39.651
3.824, 2, 35.3834, 49.94, -14.8236, 99.5624, -57.5768, 39.651
3.828, 2, 35.3834, 49.94, -14.8236, 99.5624, -57.5768, 39.651
3.832, 2, 35.3834, 49.94, -14.8236, 99.5624, -57.5768, 39.651
3.836, 2, 35.3834, 49.94, -14.8236, 99.5624, -57.5768, 39.651
3.84, 2, 35.3834, 49.94, -14.8236, 99.5624, -57.5768, 39.651
3.844, 2, 35.3834, 49.94, -14.8236, 99.5624, -57.5768, 39.651
3.848, 2, 35.3834, 49.94, -14.8236, 99.5624, -57.5768, 39.651
3.852, 2, 35.3834, 49.94, -14.8236, 99.5624, -57.5768, 39.651
3.856, 2, 35.3834, 49.94, -14.8236, 99.5624, -57.5768, 39.651
3.86, 2, 35.3834, 49.94, -14.8236, 99.5624, -57.5768, 39.651
3.864, 2, 35.3834, 49.94, -14.8236, 99.5624, -57.5768, 39.651
3.868, 2, 35.3834, 49.94, -14.8236, 99.5624, -57.5768, 39.651
3.872, 2, 35.3834, 49.94, -14.8236, 99.5624, -57.5768, 39.651
3.876, 2, 35.3834, 49.94, -14.8236, 99.5624, -57.5768, 39.651
3.88, 2, 35.3834, 49.94, -14.8236, 99.5624, -57.5768, 39.651
3.884, 2, 35.3834, 49.94, -14.8236, 99.5624, -57.5768, 39.651
3.888, 2, 35.3834, 49.94, -14.8236, 99.5624, -57.5768, 39.651
3.892, 2, 35.3834, 49.94, -14.8236, 99.5624, -57.5768, 39.651
3.896, 2, 35.3834, 49.94, -14.8236, 99.5624, -57.5768, 39.651
3.9, 2, 35.3834, 49.94, -14.8236, 99.5624, -57.5768, 39.651
3.904, 2, 35.3834, 49.94, -14.8236, 99.5624, -57.5768, 39.651
3.908, 2, 35.3834, 49.94, -14.8236, 99.5624, -57.5768, 39.651
3.912, 2, 35.3834, 49.94, -14.8236, 99.5624, -57.5768, 39.651
3.916, 2, 35.3834, 49.94, -14.8236, 99.5624, -57.5768, 39.651
3.92, 2, 35.3834, 49.94, -14.8236, 99.5624, -57.5768, 39.651
3.924, 2, 35.3834, 49.94, -14.8236, 99.5624, -57.5768, 39.651
3.928, 2, 35.3834, 49.94, -14.8236, 99.5624, -57.5768, 39.651
3.932, 2, 35.3834, 49.94, -14.8236, 99.5624, -57.5768, 39.651
3.936, 2, 35.3834, 49.94, -14.8236, 99.5624, -57.5768, 39.651
3.94, 2, 35.3834, 49.94, -14.8236, 99.5624, -57.5768, 39.651
3.944, 2, 35.3834, 49.94, -14.8236, 99.5624, -57.5768, 39.651
3.948, 2, 35.3834, 49.94, -14.8236, 99.5624, -57.5768, 39.651
3.952, 2, 35.3834, 49.94, -14.8236, 99.5624, -57.5768, 39.651
3.956, 2, 35.3834, 49.94, -14.8236, 99.5624, -57.5768, 39.651
3.96, 2, 35.3834, 49.94, -14.8236, 99.5624, -57.5768, 39.651
3.964, 2, 35.3834, 49.94, -14.8236, 99.5624, -57.5768, 39.651
3.968, 2, 35.3834, 49.94, -14.8236, 99.5624, -57.5768, 39.651
3.972, 2, 35.3834, 49.94, -14.8236, 99.5624, -57.5768, 39.651
3.976, 2, 35.3834, 49.94, -14.8236, 99.5624, -57.5768, 39.651
3.98, 2, 35.3834, 49.94, -14.8236, 99.5624, -57.5768, 39.651
3.984, 2, 35.3834, 49.94, -14.8236, 99.5624, -57.5768, 39.651
3.988, 2, 35.3834, 49.94, -14.8236, 99.5624, -57.5768, 39.651
3.992, 2, 35.3834, 49.94, -14.8236, 99.5624, -57.5768, 39.651
3.996, 2, 35.3834, 49.94, -14.8236, 99.5624, -57.5768, 39.651
3.999, 2, 35.3834, 49.94, -14.8236, 99.5624, -57.5768, 39.651
4.004, 2, 35.3834, 49.94, -14.8236, 99.5624, -57.5768, 39.651
4.008, 2, 35.3834, 49.94, -14.8236, 99.5624, -57.5768, 39.651
4.012, 2, 35.3834, 49.94, -14.8236, 99.5624, -57.5768, 39.651
4.016, 2, 35.3834, 49.94, -14.8236, 99.5624, -57.5768, 39.651
4.02, 2, 35.3834, 49.94, -14.8236, 99.5624, -57.5768, 39.651
4.024, 2, 35.3834, 49.94, -14.8236, 99.5624, -57.5768, 39.651
4.028, 2, 35.3834, 49.94, -14.8236, 99.5624, -57.5768, 39.651
4.032, 2, 35.3834, 49.94, -14.8236, 99.5624, -57.5768, 39.651
4.036, 2, 35.3834, 49.94, -14.8236, 99.5624, -57.5768, 39.651
4.04, 2, 35.3834, 49.94, -14.8236, 99.5624, -57.5768, 39.651
4.044, 2, 35.3834, 49.94, -14.8236, 99.5624, -57.5768, 39.651
4.048, 2, 35.3834, 49.94, -14.8236, 99.5624, -57.5768, 39.651
4.052, 2, 35.3834, 49.94, -14.8236, 99.5624, -57.5768, 39.651
4.056, 2, 35.3834, 49.94, -14.8236, 99.5624, -57.5768, 39.651
4.06, 2, 35.3834, 49.94, -14.8236, 99.5624, -57.5768, 39.651
4.064, 2, 35.3834, 49.94, -14.8236, 99.5624, -57.5768, 39.651
4.068, 2, 35.3834, 49.94, -14.8236, 99.5624, -57.5768, 39.651
4.072, 2, 35.3834, 49.94, -14.8236, 99.5624, -57.5768, 39.651
4.076, 2, 35.3834, 49.94, -14.8236, 99.5624, -57.5768, 39.651
4.08, 2, 35.3834, 49.94, -14.8236, 99.5624, -57.5768, 39.651
4.084, 2, 35.3834, 49.94, -14.8236, 99.5624, -57.5768, 39.651
4.088, 2, 35.3834, 49.94, -14.8236, 99.5624, -57.5768, 39.651
4.092, 2, 35.3834, 49.94, -14.8236, 99.5624, -57.5768, 39.651
4.096, 2, 35.3834, 49.94, -14.8236, 99.5624, -57.5768, 39.651
4.1, 2, 35.3834, 49.94, -14.8236, 99.5624, -57.5768, 39.651
4.104, 2, 35.3834, 49.94, -14.8236, 99.5624, -57.5768, 39.651
4.108, 2, 35.3834, 49.94, -14.8236, 99.5624, -57.5768, 39.651
4.112, 2, 35.3834, 49.94, -14.8236, 99.5624, -57.5768, 39.651
4.116, 2, 35.3834, 49.94, -14.8236, 99.5624, -57.5768, 39.651
4.12, 2, 35.3834, 49.94, -14.8236, 99.5624, -57.5768, 39.651
4.124, 2, 35.3834, 49.94, -14.8236, 99.5624, -57.5768, 39.651
4.128, 2, 35.3834, 49.94, -14.8236, 99.5624, -57.5768, 39.651
4.132, 2, 35.3834, 49.94, -14.8236, 99.5624, -57.5768, 39.651
4.136, 2, 35.3834, 49.94, -14.8236, 99.5624, -57.5768, 39.651
4.14, 2, 35.3834, 49.94, -14.8236, 99.5624, -57.5768, 39.651
4.144, 2, 35.3834, 49.94, -14.8236, 99.5624, -57.5768, 39.651
4.148, 2, 35.3834, 49.94, -14.8236, 99.5624, -57.5768, 39.651
4.152, 2, 35.3834, 49.94, -14.8236, 99.5624, -57.5768, 39.651
4.156, 2, 35.3834, 49.94, -14.8236, 99.5624, -57.5768, 39.651
4.16, 2, 35.3834, 49.94, -14.8236, 99.5624, -57.5768, 39.651
4.164, 2, 35.3834, 49.94, -14.8236, 99.5624, -57.5768, 39.651
4.168, 2, 35.3834, 49.94, -14.8236, 99.5624, -57.5768, 39.651
4.172, 2, 35.3834, 49.94, -14.8236, 99.5624, -57.5768, 39.651
4.176, 2, 35.3834, 49.94, -14.8236, 99.5624, -57.5768, 39.651
4.18, 2, 35.3834, 49.94, -14.8236, 99.5624, -57.5768, 39.651
4.184, 2, 35.3834, 49.94, -14.8236, 99.5624, -57.5768, 39.651
4.188, 2, 35.3834, 49.94, -14.8236, 99.5624, -57.5768, 39.651
4.192, 2, 35.3834, 49.94, -14.8236, 99.5624, -57.5768, 39.651
4.196, 2, 35.3834, 49.94, -14.8236, 99.5624, -57.5768, 39.651
4.2, 2, 35.3834, 49.94, -14.8236, 99.5624, -57.5768, 39.651
4.204, 2, 35.3834, 49.94, -14.8236, 99.5624, -57.5768, 39.651
4.208, 2, 35.3834, 49.94, -14.8236, 99.5624, -57.5768, 39.651
4.212, 2, 35.3834, 49.94, -14.8236, 99.5624, -57.5768, 39.651
4.216, 2, 35.3834, 49.94, -14.8236, 99.5624, -57.5768, 39.651
4.22, 2, 35.3834, 49.94, -14.8236, 99.5624, -57.5768, 39.651
4.224, 2, 35.3834, 49.94, -14.8236, 99.5624, -57.5768, 39.651
4.228, 2, 35.3834, 49.94, -14.8236, 99.5624, -57.5768, 39.651
4.232, 2, 35.3834, 49.94, -14.8236, 99.5624, -57.5768, 39.651
4.236, 2, 35.3834, 49.94, -14.8236, 99.5624, -57.5768, 39.651
4.24, 2, 35.3834, 49.94, -14.8236, 99.5624, -57.5768, 39.651
4.244, 2, 35.3834, 49.94, -14.8236, 99.5624, -57.5768, 39.651
4.248, 2, 35.3834, 49.94, -14.8236, 99.5624, -57.5768, 39.651
4.252, 2, 35.3834, 49.94, -14.8236, 99.5624, -57.5768, 39.651
4.256, 2, 35.3834, 49.94, -14.8236, 99.5624, -57.5768, 39.651
4.26, 2, 35.3834, 49.94, -14.8236, 99.5624, -57.5768, 39.651
4.264, 2, 35.3834, 49.94, -14.8236, 99.5624, -57.5768, 39.651
4.268, 2, 35.3834, 49.94, -14.8236, 99.5624, -57.5768, 39.651
4.272, 2, 35.3834, 49.94, -14.8236, 99.5624, -57.5768, 39.651
4.276, 2, 35.3834, 49.94, -14.8236, 99.5624, -57.5768, 39.651
4.28, 2, 35.3834, 49.94, -14.8236, 99.5624, -57.5768, 39.651
4.284, 2, 35.3834, 49.94, -14.8236, 99.5624, -57.5768, 39.651
4.288, 2, 35.3834, 49.94, -14.8236, 99.5624, -57.5768, 39.651
4.292, 2, 35.3834, 49.94, -14.8236, 99.5624, -57.5768, 39.651
4.296, 2, 35.3834, 49.94, -14.8236, 99.5624, -57.5768, 39.651
4.3, 2, 35.3834, 49.94, -14.8236, 99.5624, -57.5768, 39.651
4.304, 2, 35.3834, 49.94, -14.8236, 99.5624, -57.5768, 39.651
4.308, 2, 35.3834, 49.94, -14.8236, 99.5624, -57.5768, 39.651
4.312, 2, 35.3834, 49.94, -14.8236, 99.5624, -57.5768, 39.651
4.316, 2, 35.3834, 49.94, -14.8236, 99.5624, -57.5768, 39.651
4.32, 2, 35.3834, 49.94, -14.8236, 99.5624, -57.5768, 39.651
4.324, 2, 35.3834, 49.94, -14.8236, 99.5624, -57.5768, 39.651
4.328, 2, 35.3834, 49.94, -14.8236, 99.5624, -57.5768, 39.651
4.332, 2, 35.3834, 49.94, -14.8236, 99.5624, -57.5768, 39.651
4.336, 2, 35.3834, 49.94, -14.8236, 99.5624, -57.5768, 39.651
4.34, 2, 35.3834, 49.94, -14.8236, 99.5624, -57.5768, 39.651
4.344, 2, 35.3834, 49.94, -14.8236, 99.5624, -57.5768, 39.651
4.348, 2, 35.3834, 49.94, -14.8236, 99.5624, -57.5768, 39.651
4.352, 2, 35.3834, 49.94, -14.8236, 99.5624, -57.5768, 39.651
4.356, 2, 35.3834, 49.94, -14.8236, 99.5624, -57.5768, 39.651
4.36, 2, 35.3834, 49.94, -14.8236, 99.5624, -57.5768, 39.651
4.364, 2, 35.3834, 49.94, -14.8236, 99.5624, -57.5768, 39.651
4.368, 2, 35.3834, 49.94, -14.8236, 99.5624, -57.5768, 39.651
4.372, 2, 35.3834, 49.94, -14.8236, 99.5624, -57.5768, 39.651
4.376, 2, 35.3834, 49.94, -14.8236, 99.5624, -57.5768, 39.651
4.38, 2, 35.3834, 49.94, -14.8236, 99.5624, -57.5768, 39.651
4.384, 2, 35.3834, 49.94, -14.8236, 99.5624, -57.5768, 39.651
4.388, 2, 35.3834, 49.94, -14.8236, 99.5624, -57.5768, 39.651
4.392, 2, 35.3834, 49.94, -14.8236, 99.5624, -57.5768, 39.651
4.396, 2, 35.3834, 49.94, -14.8236, 99.5624, -57.5768, 39.651
4.4, 2, 35.3834, 49.94, -14.8236, 99.5624, -57.5768, 39.651
4.404, 2, 35.3834, 49.94, -14.8236, 99.5624, -57.5768, 39.651
4.408, 2, 35.3834, 49.94, -14.8236, 99.5624, -57.5768, 39.651
4.412, 2, 35.3834, 49.94, -14.8236, 99.5624, -57.5768, 39.651
4.416, 2, 35.3834, 49.94, -14.8236, 99.5624, -57.5768, 39.651
4.42, 2, 35.3834, 49.94, -14.8236, 99.5624, -57.5768, 39.651
4.424, 2, 35.3834, 49.94, -14.8236, 99.5624, -57.5768, 39.651
4.428, 2, 35.3834, 49.94, -14.8236, 99.5624, -57.5768, 39.651
4.432, 2, 35.3834, 49.94, -14.8236, 99.5624, -57.5768, 39.651
4.436, 2, 35.3834, 49.94, -14.8236, 99.5624, -57.5768, 39.651
4.44, 2, 35.3834, 49.94, -14.8236, 99.5624, -57.5768, 39.651
4.444, 2, 35.3834, 49.94, -14.8236, 99.5624, -57.5768, 39.651
4.448, 2, 35.3834, 49.94, -14.8236, 99.5624, -57.5768, 39.651
4.452, 2, 35.3834, 49.94, -14.8236, 99.5624, -57.5768, 39.651
4.456, 2, 35.3834, 49.94, -14.8236, 99.5624, -57.5768, 39.651
4.46, 2, 35.3834, 49.94, -14.8236, 99.5624, -57.5768, 39.651
4.464, 2, 35.3834, 49.94, -14.8236, 99.5624, -57.5768, 39.651
4.468, 2, 35.3834, 49.94, -14.8236, 99.5624, -57.5768, 39.651
4.472, 2, 35.3834, 49.94, -14.8236, 99.5624, -57.5768, 39.651
4.476, 2, 35.3834, 49.94, -14.8236, 99.5624, -57.5768, 39.651
4.48, 2, 35.3834, 49.94, -14.8236, 99.5624, -57.5768, 39.651
4.484, 2, 35.3834, 49.94, -14.8236, 99.5624, -57.5768, 39.651
4.488, 2, 35.3834, 49.94, -14.8236, 99.5624, -57.5768, 39.651
4.492, 2, 35.3834, 49.94, -14.8236, 99.5624, -57.5768, 39.651
4.496, 2, 35.3834, 49.94, -14.8236, 99.5624, -57.5768, 39.651
4.5, 2, 35.3834, 49.94, -14.8236, 99.5624, -57.5768, 39.651
4.504, 2, 35.3834, 49.94, -14.8236, 99.5624, -57.5768, 39.651
4.508, 2, 35.3834, 49.94, -14.8236, 99.5624, -57.5768, 39.651
4.512, 2, 35.3834, 49.94, -14.8236, 99.5624, -57.5768, 39.651
4.516, 2, 35.3834, 49.94, -14.8236, 99.5624, -57.5768, 39.651
4.52, 2, 35.3834, 49.94, -14.8236, 99.5624, -57.5768, 39.651
4.524, 2, 35.3834, 49.94, -14.8236, 99.5624, -57.5768, 39.651
4.528, 2, 35.3834, 49.94, -14.8236, 99.5624, -57.5768, 39.651
4.532, 2, 35.3834, 49.94, -14.8236, 99.5624, -57.5768, 39.651
4.536, 2, 35.3834, 49.94, -14.8236, 99.5624, -57.5768, 39.651
4.54, 2, 35.3834, 49.94, -14.8236, 99.5624, -57.5768, 39.651
4.544, 2, 35.3834, 49.94, -14.8236, 99.5624, -57.5768, 39.651
4.548, 2, 35.3834, 49.94, -14.8236, 99.5624, -57.5768, 39.651
4.552, 2, 35.3834, 49.94, -14.8236, 99.5624, -57.5768, 39.651
4.556, 2, 35.3834, 49.94, -14.8236, 99.5624, -57.5768, 39.651
4.56, 2, 35.3834, 49.94, -14.8236, 99.5624, -57.5768, 39.651
4.564, 2, 35.3834, 49.94, -14.8236, 99.5624, -57.5768, 39.651
4.568, 2, 35.3834, 49.94, -14.8236, 99.5624, -57.5768, 39.651
4.572, 4, 35.3834, 49.94, -14.8236, 99.5624, -57.5768, 39.651
4.576, 4, 35.3834, 49.94, -14.8236, 99.5624, -57.5768, 39.651
4.58, 4, 35.3834, 49.94, -14.8236, 99.5624, -57.5768, 39.651
4.584, 4, 35.3834, 49.94, -14.8236, 99.5624, -57.5768, 39.651
4.588, 4, 35.3834, 49.94, -14.8236, 99.5624, -57.5768, 39.651
4.592, 4, 35.3834, 49.94, -14.8236, 99.5624, -57.5768, 39.651
4.596, 4, 35.3834, 49.94, -14.8236, 99.5624, -57.5768, 39.651
4.6, 4, 35.3834, 49.94, -14.8236, 99.5624, -57.5768, 39.651
4.604, 4, 35.3834, 49.94, -14.8236, 99.5624, -57.5768, 39.651
4.608, 4, 35.3834, 49.94, -14.8236, 99.5624, -57.5768, 39.651
4.612, 4, 35.3834, 49.94, -14.8236, 99.5624, -57.5768, 39.651
4.616, 4, 35.3834, 49.94, -14.8236, 99.5624, -57.5768, 39.651
4.62, 4, 35.3834, 49.94, -14.8236, 99.5624, -57.5768, 39.651
4.624, 4, 35.3834, 49.94, -14.8236, 99.5624, -57.5768, 39.651
4.628, 4, 35.3834, 49.94, -14.8236, 99.5624, -57.5768, 39.651
4.632, 4, 35.3834, 49.94, -14.8236, 99.5624, -57.5768, 39.651
4.636, 4, 35.3834, 49.94, -14.8236, 99.5624, -57.5768, 39.651
4.64, 4, 35.3834, 49.94, -14.8236, 99.5624, -57.5768, 39.651
4.644, 4, 35.3834, 49.94, -14.8236, 99.5624, -57.5768, 39.651
4.648, 4, 35.3834, 49.94, -14.8236, 99.5624, -57.5768, 39.651
4.652, 4, 35.3834, 49.94, -14.8236, 99.5624, -57.5768, 39.651
4.656, 4, 35.3834, 49.94, -14.8236, 99.5624, -57.5768, 39.651
4.66, 4, 35.3834, 49.94, -14.8236, 99.5624, -57.5768, 39.651
4.664, 4, 35.3834, 49.94, -14.8236, 99.5624, -57.5768, 39.651
4.668, 4, 35.3834, 49.94, -14.8236, 99.5624, -57.5768, 39.651
4.672, 4, 35.3834, 49.94, -14.8236, 99.5624, -57.5768, 39.651
4.678, 4, 35.3834, 49.94, -14.8236, 99.5624, -57.5768, 39.651
4.682, 4, 35.3834, 49.94, -14.8236, 99.5624, -57.5768, 39.651
4.685, 4, 35.3834, 49.94, -14.8236, 99.5624, -57.5768, 39.651
4.69, 4, 35.3834, 49.94, -14.8236, 99.5624, -57.5768, 39.651
4.694, 4, 35.3834, 49.94, -14.8236, 99.5624, -57.5768, 39.651
4.697, 4, 35.3834, 49.94, -14.8236, 99.5624, -57.5768, 39.651
4.702, 4, 35.3834, 49.94, -14.8236, 99.5624, -57.5768, 39.651
4.705, 4, 35.3834, 49.94, -14.8236, 99.5624, -57.5768, 39.651
4.708, 4, 35.3834, 49.94, -14.8236, 99.5624, -57.5768, 39.651
4.712, 4, 35.3834, 49.94, -14.8236, 99.5624, -57.5768, 39.651
4.716, 4, 35.3834, 49.94, -14.8236, 99.5624, -57.5768, 39.651
4.72, 4, 35.3834, 49.94, -14.8236, 99.5624, -57.5768, 39.651
4.724, 4, 35.3834, 49.94, -14.8236, 99.5624, -57.5768, 39.651
4.728, 4, 35.3834, 49.9399, -14.8236, 99.5624, -57.5768, 39.651
4.732, 4, 35.3836, 49.9398, -14.8236, 99.5624, -57.5768, 39.651
4.736, 4, 35.3839, 49.9393, -14.8235, 99.5623, -57.5767, 39.651
4.74, 4, 35.3846, 49.9383, -14.8234, 99.5622, -57.5766, 39.6512
4.744, 4, 35.3856, 49.9366, -14.8231, 99.562, -57.5762, 39.6515
4.748, 4, 35.3871, 49.934, -14.8227, 99.5615, -57.5754, 39.6523
4.752, 4, 35.3891, 49.9305, -14.8221, 99.5606, -57.5738, 39.6538
4.756, 4, 35.3914, 49.9259, -14.8211, 99.5591, -57.5712, 39.6563
4.76, 4, 35.3942, 49.9203, -14.8197, 99.5566, -57.567, 39.6603
4.764, 4, 35.3973, 49.9137, -14.8177, 99.5528, -57.5606, 39.6665
4.768, 4, 35.4008, 49.906, -14.8151, 99.5475, -57.5514, 39.6753
4.772, 4, 35.4047, 49.8971, -14.8117, 99.54, -57.5386, 39.6875
4.776, 4, 35.409, 49.8868, -14.8072, 99.5301, -57.5215, 39.7039
4.78, 4, 35.4137, 49.875, -14.8017, 99.5172, -57.4993, 39.7252
4.784, 4, 35.4188, 49.8618, -14.7949, 99.5008, -57.4711, 39.7523
4.788, 4, 35.424, 49.8473, -14.7867, 99.4805, -57.4362, 39.7858
4.792, 4, 35.4294, 49.8314, -14.7771, 99.456, -57.3939, 39.8264
4.796, 4, 35.4349, 49.8143, -14.766, 99.427, -57.3439, 39.8744
4.8, 4, 35.4404, 49.7959, -14.7533, 99.3934, -57.2858, 39.9302
4.804, 4, 35.446, 49.7761, -14.739, 99.355, -57.2197, 39.9938
4.808, 4, 35.4518, 49.7549, -14.7231, 99.3121, -57.1456, 40.065
4.812, 4, 35.4579, 49.7321, -14.7057, 99.2648, -57.064, 40.1434
4.816, 4, 35.4642, 49.7079, -14.6869, 99.2135, -56.9754, 40.2286
4.82, 4, 35.4707, 49.6823, -14.6667, 99.1584, -56.8803, 40.3199
4.824, 4, 35.4774, 49.6556, -14.6454, 99.1, -56.7796, 40.4168
4.828, 4, 35.4843, 49.6277, -14.623, 99.0388, -56.6739, 40.5183
4.832, 4, 35.4915, 49.5987, -14.5997, 98.9752, -56.5642, 40.6238
4.836, 4, 35.4991, 49.5685, -14.5756, 98.9097, -56.4511, 40.7325
4.84, 4, 35.5072, 49.5369, -14.5509, 98.8427, -56.3355, 40.8436
4.844, 4, 35.5158, 49.504, -14.5257, 98.7746, -56.2179, 40.9566
4.848, 4, 35.5251, 49.4698, -14.5001, 98.7057, -56.099, 41.0709
4.852, 4, 35.5349, 49.4345, -14.4741, 98.6362, -55.9791, 41.1861
4.856, 4, 35.5451, 49.3983, -14.448, 98.5663, -55.8585, 41.3019
4.86, 4, 35.5558, 49.3614, -14.4217, 98.4962, -55.7375, 41.4182
4.864, 4, 35.5666, 49.3241, -14.3953, 98.4259, -55.6162, 41.5347
4.868, 4, 35.5776, 49.2865, -14.3688, 98.3555, -55.4947, 41.6515
4.872, 4, 35.5888, 49.2487, -14.3423, 98.285, -55.3731, 41.7683
4.876, 4, 35.6, 49.2108, -14.3157, 98.2144, -55.2514, 41.8853
4.88, 4, 35.6112, 49.1728, -14.2892, 98.1438, -55.1297, 42.0023
4.884, 4, 35.6225, 49.1347, -14.2626, 98.0732, -55.0079, 42.1193
4.888, 4, 35.6337, 49.0967, -14.236, 98.0026, -54.8861, 42.2363
4.892, 4, 35.6449, 49.0588, -14.2095, 97.9321, -54.7643, 42.3533
4.896, 4, 35.6558, 49.0211, -14.1829, 97.8615, -54.6426, 42.4703
4.9, 4, 35.6663, 48.9839, -14.1565, 97.791, -54.521, 42.5871
4.904, 4, 35.6764, 48.9474, -14.1302, 97.7207, -54.3998, 42.7036
4.908, 4, 35.686, 48.9119, -14.1042, 97.6508, -54.2791, 42.8196
4.912, 4, 35.6949, 48.8775, -14.0785, 97.5813, -54.1594, 42.9346
4.916, 4, 35.7033, 48.8445, -14.0532, 97.5127, -54.0412, 43.0482
4.92, 4, 35.7112, 48.8129, -14.0285, 97.4453, -53.9254, 43.1596
4.924, 4, 35.7187, 48.7828, -14.0045, 97.3796, -53.8126, 43.268
4.928, 4, 35.7259, 48.7542, -13.9814, 97.3159, -53.7039, 43.3726
4.932, 4, 35.7328, 48.7271, -13.9593, 97.2548, -53.6003, 43.4723
4.936, 4, 35.7395, 48.7017, -13.9385, 97.1966, -53.5028, 43.5662
4.94, 4, 35.7459, 48.6784, -13.919, 97.1419, -53.4123, 43.6534
4.944, 4, 35.752, 48.6573, -13.901, 97.091, -53.3299, 43.7331
4.948, 4, 35.7575, 48.6387, -13.8848, 97.0442, -53.2563, 43.8043
4.952, 6, 35.7626, 48.623, -13.8705, 97.0018, -53.1925, 43.8663
4.956, 6, 35.7671, 48.6102, -13.8583, 96.964, -53.1393, 43.9183
4.96, 6, 35.7711, 48.6003, -13.8482, 96.931, -53.0974, 43.9597
4.964, 6, 35.7746, 48.5934, -13.8403, 96.9029, -53.0676, 43.9898
4.968, 6, 35.7778, 48.5896, -13.8347, 96.8796, -53.0501, 44.0083
4.972, 6, 35.7805, 48.5889, -13.8314, 96.8613, -53.0455, 44.0148
4.976, 6, 35.7827, 48.5916, -13.8306, 96.8476, -53.054, 44.0093
4.98, 6, 35.7843, 48.5978, -13.8322, 96.8385, -53.0755, 43.9917
4.984, 6, 35.7854, 48.6075, -13.8362, 96.8337, -53.1101, 43.9622
4.988, 6, 35.786, 48.6207, -13.8426, 96.8331, -53.1577, 43.9209
4.992, 6, 35.7861, 48.6373, -13.8514, 96.8362, -53.2181, 43.8681
4.996, 6, 35.7859, 48.6571, -13.8625, 96.843, -53.2909, 43.8043
5, 7, 35.7857, 48.6797, -13.8757, 96.853, -53.3756, 43.7299
5.004, 7, 35.7854, 48.7051, -13.8911, 96.866, -53.4718, 43.6456
5.008, 7, 35.7852, 48.7331, -13.9084, 96.8816, -53.5787, 43.5521
5.012, 7, 35.785, 48.7638, -13.9277, 96.8993, -53.6955, 43.4505
5.016, 7, 35.7846, 48.797, -13.9487, 96.9188, -53.8212, 43.3416
5.02, 7, 35.7839, 48.8327, -13.9713, 96.9396, -53.9548, 43.2263
5.024, 7, 35.7826, 48.871, -13.9955, 96.9614, -54.0955, 43.1058
5.028, 7, 35.7806, 48.9116, -14.021, 96.9838, -54.2422, 42.9809
5.032, 7, 35.7779, 48.9544, -14.0477, 97.0065, -54.3941, 42.8524
5.036, 7, 35.7746, 48.9991, -14.0754, 97.0294, -54.5504, 42.7211
5.04, 7, 35.7706, 49.0455, -14.1041, 97.0521, -54.7104, 42.5876
5.044, 7, 35.7662, 49.0934, -14.1336, 97.0746, -54.8734, 42.4524
5.048, 7, 35.7613, 49.1425, -14.1637, 97.0967, -55.0389, 42.3161
5.052, 7, 35.7561, 49.1928, -14.1945, 97.1183, -55.2064, 42.1791
5.056, 7, 35.7507, 49.2439, -14.2256, 97.1394, -55.3753, 42.0415
5.06, 7, 35.7452, 49.2954, -14.2572, 97.1599, -55.5454, 41.9038
5.064, 7, 35.7399, 49.347, -14.289, 97.1798, -55.7163, 41.7662
5.068, 7, 35.735, 49.3981, -14.321, 97.1991, -55.8875, 41.629
5.072, 7, 35.7306, 49.4484, -14.3531, 97.2177, -56.0587, 41.4924
5.076, 7, 35.7269, 49.4977, -14.385, 97.2355, -56.2291, 41.357
5.08, 7, 35.7236, 49.5459, -14.4168, 97.2527, -56.3982, 41.2232
5.084, 7, 35.7208, 49.593, -14.4482, 97.269, -56.5651, 41.0915
5.088, 7, 35.7182, 49.6391, -14.4791, 97.2846, -56.729, 40.9627
5.092, 7, 35.7154, 49.6844, -14.5094, 97.2992, -56.8891, 40.8373
5.096, 7, 35.7121, 49.7289, -14.5388, 97.313, -57.0443, 40.716
5.1, 7, 35.7079, 49.7725, -14.5671, 97.326, -57.1941, 40.5996
5.104, 7, 35.7028, 49.815, -14.5943, 97.3381, -57.3377, 40.4884
5.108, 7, 35.6965, 49.8564, -14.62, 97.3494, -57.4746, 40.3831
5.112, 7, 35.6894, 49.8966, -14.644, 97.3601, -57.6048, 40.2839
5.116, 7, 35.6817, 49.936, -14.6661, 97.3701, -57.728, 40.1911
5.12, 7, 35.6739, 49.9748, -14.686, 97.3797, -57.8447, 40.1048
5.124, 7, 35.6662, 50.0132, -14.7036, 97.3889, -57.9554, 40.0249
5.128, 7, 35.6588, 50.0513, -14.7189, 97.3976, -58.0609, 39.9509
5.132, 9, 35.6517, 50.0892, -14.7318, 97.406, -58.1622, 39.8824
5.136, 9, 35.6447, 50.1264, -14.7426, 97.4137, -58.2605, 39.8186
5.14, 9, 35.6378, 50.1626, -14.7514, 97.4208, -58.3573, 39.7586
5.144, 9, 35.6309, 50.1976, -14.7585, 97.427, -58.4539, 39.7016
5.148, 9, 35.6241, 50.2314, -14.7642, 97.4321, -58.5514, 39.6465
5.152, 9, 35.6177, 50.2642, -14.7687, 97.436, -58.6511, 39.5926
5.156, 9, 35.6118, 50.2963, -14.7723, 97.4385, -58.7539, 39.5391
5.16, 9, 35.6064, 50.3279, -14.7753, 97.4394, -58.8606, 39.4853
5.164, 9, 35.6012, 50.3593, -14.778, 97.4387, -58.9716, 39.4307
5.168, 9, 35.5956, 50.3907, -14.7807, 97.4361, -59.0873, 39.3746
5.172, 9, 35.5892, 50.4222, -14.7836, 97.4316, -59.2079, 39.3168
5.176, 9, 35.5818, 50.4539, -14.7869, 97.4253, -59.3333, 39.2571
5.18, 9, 35.5734, 50.486, -14.7906, 97.4171, -59.4633, 39.1955
5.184, 9, 35.5643, 50.5188, -14.7947, 97.4074, -59.5975, 39.1318
5.188, 9, 35.5548, 50.5525, -14.7991, 97.3962, -59.7356, 39.0664
5.192, 9, 35.5455, 50.5871, -14.8037, 97.3837, -59.877, 38.9994
5.196, 9, 35.5365, 50.6227, -14.8084, 97.3702, -60.0214, 38.9311
5.2, 9, 35.5279, 50.6592, -14.8131, 97.3559, -60.1682, 38.8617
5.204, 9, 35.5196, 50.6966, -14.8178, 97.3408, -60.3169, 38.7915
5.208, 9, 35.5114, 50.7347, -14.8223, 97.3251, -60.4672, 38.7207
5.212, 9, 35.5032, 50.7734, -14.8266, 97.3088, -60.6186, 38.6495
5.216, 9, 35.4949, 50.8127, -14.8308, 97.292, -60.7709, 38.578
5.22, 9, 35.4865, 50.8523, -14.8347, 97.2748, -60.9237, 38.5064
5.224, 9, 35.4778, 50.8924, -14.8384, 97.2572, -61.0769, 38.4347
5.228, 9, 35.4691, 50.9326, -14.8418, 97.2392, -61.2304, 38.3632
5.232, 9, 35.4601, 50.9729, -14.845, 97.2208, -61.3839, 38.2917
5.236, 9, 35.4511, 51.0133, -14.8479, 97.2021, -61.5375, 38.2203
5.24, 9, 35.4419, 51.0536, -14.8505, 97.183, -61.6911, 38.1491
5.244, 9, 35.4327, 51.0938, -14.8528, 97.1635, -61.8447, 38.0781
5.248, 9, 35.4233, 51.134, -14.8549, 97.1438, -61.9983, 38.0072
5.252, 9, 35.4139, 51.174, -14.8566, 97.1237, -62.1517, 37.9366
5.256, 9, 35.4043, 51.2138, -14.8581, 97.1032, -62.3051, 37.8661
5.26, 9, 35.3947, 51.2536, -14.8593, 97.0825, -62.4584, 37.7958
5.264, 9, 35.385, 51.2931, -14.8601, 97.0614, -62.6116, 37.7256
5.268, 9, 35.3752, 51.3325, -14.8607, 97.04, -62.7648, 37.6557
5.272, 9, 35.3653, 51.3718, -14.861, 97.0183, -62.9178, 37.5859
5.276, 9, 35.3553, 51.4108, -14.861, 96.9963, -63.0708, 37.5163
5.28, 9, 35.3452, 51.4498, -14.8607, 96.9739, -63.2236, 37.4469
5.284, 9, 35.3351, 51.4885, -14.8601, 96.9512, -63.3764, 37.3777
5.288, 9, 35.3248, 51.5271, -14.8592, 96.9283, -63.5291, 37.3087
5.292, 9, 35.3145, 51.5655, -14.858, 96.905, -63.6816, 37.2398
5.296, 9, 35.3041, 51.6037, -14.8566, 96.8814, -63.8341, 37.1711
5.3, 9, 35.2936, 51.6418, -14.8548, 96.8575, -63.9865, 37.1026
5.304, 9, 35.283, 51.6797, -14.8527, 96.8333, -64.1388, 37.0342
5.308, 9, 35.2723, 51.7174, -14.8503, 96.8088, -64.291, 36.966
5.312, 9, 35.2616, 51.755, -14.8476, 96.784, -64.443, 36.898
5.316, 9, 35.2508, 51.7923, -14.8447, 96.7589, -64.595, 36.8301
5.32, 9, 35.2398, 51.8295, -14.8414, 96.7335, -64.7469, 36.7624
5.324, 9, 35.2288, 51.8666, -14.8378, 96.7078, -64.8987, 36.6948
5.328, 9, 35.2177, 51.9034, -14.8339, 96.6819, -65.0504, 36.6274
5.332, 9, 35.2066, 51.9401, -14.8297, 96.6556, -65.202, 36.5602
5.336, 9, 35.1953, 51.9766, -14.8253, 96.629, -65.3535, 36.4931
5.34, 9, 35.184, 52.0129, -14.8205, 96.6022, -65.5049, 36.4262
5.344, 9, 35.1725, 52.049, -14.8154, 96.5751, -65.6562, 36.3594
5.348, 9, 35.161, 52.085, -14.81, 96.5477, -65.8074, 36.2928
5.352, 9, 35.1494, 52.1208, -14.8043, 96.52, -65.9586, 36.2263
5.356, 9, 35.1377, 52.1564, -14.7983, 96.492, -66.1096, 36.1599
5.36, 9, 35.126, 52.1918, -14.792, 96.4637, -66.2605, 36.0937
5.364, 9, 35.1141, 52.2271, -14.7854, 96.4352, -66.4113, 36.0276
5.368, 9, 35.1022, 52.2621, -14.7784, 96.4064, -66.562, 35.9617
5.372, 9, 35.0902, 52.297, -14.7712, 96.3773, -66.7127, 35.8959
5.376, 9, 35.0781, 52.3317, -14.7637, 96.348, -66.8632, 35.8302
5.38, 9, 35.0659, 52.3662, -14.7559, 96.3183, -67.0137, 35.7647
5.384, 9, 35.0536, 52.4006, -14.7477, 96.2884, -67.164, 35.6993
5.388, 9, 35.0413, 52.4347, -14.7393, 96.2583, -67.3143, 35.634
5.392, 9, 35.0289, 52.4687, -14.7305, 96.2278, -67.4644, 35.5689
5.396, 9, 35.0164, 52.5025, -14.7215, 96.1971, -67.6145, 35.5039
5.4, 9, 35.0038, 52.5361, -14.7121, 96.1662, -67.7645, 35.439
5.404, 9, 34.9911, 52.5695, -14.7024, 96.1349, -67.9143, 35.3742
5.408, 9, 34.9783, 52.6027, -14.6924, 96.1035, -68.0641, 35.3095
5.412, 9, 34.9655, 52.6357, -14.6822, 96.0717, -68.2138, 35.245
5.416, 9, 34.9525, 52.6686, -14.6716, 96.0397, -68.3634, 35.1806
5.42, 9, 34.9395, 52.7013, -14.6607, 96.0074, -68.5129, 35.1163
5.424, 9, 34.9265, 52.7337, -14.6495, 95.9749, -68.6623, 35.0521
5.428, 9, 34.9133, 52.766, -14.638, 95.9422, -68.8116, 34.988
5.432, 9, 34.9, 52.7982, -14.6261, 95.9091, -68.9608, 34.9241
5.436, 9, 34.8867, 52.8301, -14.614, 95.8758, -69.11, 34.8602
5.44, 9, 34.8733, 52.8618, -14.6016, 95.8423, -69.259, 34.7964
5.444, 9, 34.8598, 52.8933, -14.5889, 95.8085, -69.4079, 34.7328
5.448, 9, 34.8462, 52.9247, -14.5758, 95.7745, -69.5568, 34.6693
5.452, 9, 34.8326, 52.9559, -14.5625, 95.7402, -69.7055, 34.6058
5.456, 9, 34.8188, 52.9868, -14.5488, 95.7057, -69.8542, 34.5425
5.46, 9, 34.805, 53.0176, -14.5349, 95.671, -70.0028, 34.4792
5.464, 9, 34.7911, 53.0482, -14.5206, 95.636, -70.1512, 34.4161
5.468, 9, 34.7771, 53.0786, -14.506, 95.6007, -70.2996, 34.3531
5.472, 9, 34.763, 53.1088, -14.4911, 95.5652, -70.4479, 34.2901
5.476, 9, 34.7489, 53.1388, -14.4759, 95.5295, -70.5961, 34.2273
5.48, 9, 34.7347, 53.1686, -14.4604, 95.4936, -70.7442, 34.1645
5.484, 9, 34.7204, 53.1982, -14.4446, 95.4573, -70.8922, 34.1018
5.488, 9, 34.706, 53.2277, -14.4285, 95.4209, -71.0401, 34.0392
5.492, 9, 34.6916, 53.2569, -14.4121, 95.3842, -71.188, 33.9767
5.496, 9, 34.6771, 53.2858, -14.3953, 95.3473, -71.3357, 33.9143
5.5, 9, 34.6628, 53.3144, -14.3783, 95.3102, -71.4833, 33.852
5.504, 9, 34.6488, 53.3425, -14.3609, 95.2729, -71.6307, 33.7898
5.508, 9, 34.6349, 53.37, -14.3432, 95.2354, -71.7779, 33.7278
5.512, 9, 34.6211, 53.3968, -14.3252, 95.1977, -71.9246, 33.666
5.516, 9, 34.6071, 53.4228, -14.3067, 95.1598, -72.0708, 33.6047
5.52, 9, 34.5926, 53.4478, -14.2877, 95.1218, -72.216, 33.5439
5.524, 9, 34.5775, 53.4715, -14.2679, 95.0834, -72.36, 33.4842
5.528, 9, 34.5617, 53.494, -14.247, 95.0446, -72.5025, 33.426
5.532, 9, 34.5453, 53.5148, -14.2246, 95.0051, -72.6428, 33.37
5.536, 9, 34.5286, 53.534, -14.2002, 94.9645, -72.7804, 33.317
5.54, 9, 34.512, 53.5511, -14.1733, 94.9225, -72.9147, 33.268
5.544, 9, 34.4957, 53.5662, -14.1434, 94.8787, -73.045, 33.2241
5.548, 9, 34.4798, 53.5792, -14.1099, 94.8326, -73.1703, 33.1863
5.552, 9, 34.4644, 53.59, -14.0724, 94.7841, -73.2899, 33.1556
5.556, 9, 34.4494, 53.5985, -14.0307, 94.7329, -73.403, 33.1328
5.56, 9, 34.4349, 53.6048, -13.9845, 94.679, -73.5089, 33.1185
5.564, 9, 34.4207, 53.6088, -13.9338, 94.6225, -73.607, 33.1131
5.568, 9, 34.4069, 53.6105, -13.8787, 94.5634, -73.6971, 33.1167
5.572, 9, 34.3934, 53.6102, -13.8196, 94.5021, -73.7788, 33.1291
5.576, 9, 34.3801, 53.6082, -13.7569, 94.4389, -73.8522, 33.15
5.58, 9, 34.3669, 53.6047, -13.6912, 94.3743, -73.9177, 33.1786
5.584, 9, 34.3535, 53.6004, -13.6233, 94.3089, -73.9757, 33.2139
5.588, 9, 34.3398, 53.5955, -13.5539, 94.2432, -74.0269, 33.2549
5.592, 9, 34.3257, 53.5902, -13.484, 94.1779, -74.0723, 33.3002
5.596, 9, 34.3113, 53.5849, -13.4143, 94.1135, -74.1132, 33.3485
5.6, 9, 34.2967, 53.5795, -13.3458, 94.0505, -74.1507, 33.3983
5.604, 9, 34.2821, 53.5742, -13.2792, 93.9894, -74.1863, 33.4483
5.608, 9, 34.2678, 53.569, -13.2152, 93.9305, -74.2215, 33.4973
5.612, 9, 34.254, 53.5644, -13.1546, 93.8742, -74.2574, 33.5442
5.616, 11, 34.2408, 53.5608, -13.0978, 93.8207, -74.2954, 33.588
5.62, 11, 34.2283, 53.5588, -13.0455, 93.7703, -74.3365, 33.6278
5.624, 11, 34.2166, 53.5589, -12.9981, 93.7231, -74.3817, 33.663
5.628, 11, 34.2055, 53.5617, -12.9563, 93.6794, -74.4317, 33.6928
5.632, 11, 34.1951, 53.5676, -12.9204, 93.6394, -74.4875, 33.7167
5.636, 11, 34.1852, 53.577, -12.8909, 93.6034, -74.5496, 33.734
5.64, 11, 34.1759, 53.5902, -12.8681, 93.5715, -74.6187, 33.7443
5.644, 11, 34.1669, 53.6074, -12.8526, 93.544, -74.6954, 33.7471
5.648, 11, 34.1583, 53.6291, -12.8444, 93.5208, -74.7803, 33.7421
5.652, 11, 34.1498, 53.6554, -12.844, 93.5022, -74.8739, 33.7289
5.656, 11, 34.1414, 53.6869, -12.8514, 93.4881, -74.9766, 33.7074
5.66, 11, 34.1331, 53.7236, -12.8667, 93.4783, -75.0891, 33.6774
5.664, 11, 34.1252, 53.7657, -12.8901, 93.4728, -75.2117, 33.639
5.668, 11, 34.1179, 53.8132, -12.9213, 93.4713, -75.3451, 33.5922
5.672, 11, 34.1114, 53.8659, -12.9604, 93.4735, -75.4896, 33.5371
5.676, 11, 34.1058, 53.9239, -13.0073, 93.4791, -75.6457, 33.4741
5.68, 11, 34.1013, 53.9871, -13.062, 93.4879, -75.8135, 33.4035
5.684, 11, 34.0976, 54.0557, -13.1245, 93.4995, -75.9931, 33.3256
5.688, 11, 34.0948, 54.1297, -13.1946, 93.5137, -76.1844, 33.2411
5.692, 11, 34.0926, 54.2094, -13.2726, 93.5302, -76.3873, 33.1505
5.696, 11, 34.091, 54.2949, -13.3583, 93.5487, -76.6015, 33.0544
5.7, 12, 34.09, 54.3863, -13.4519, 93.5689, -76.8267, 32.9533
5.704, 12, 34.0897, 54.4835, -13.5534, 93.5908, -77.0625, 32.8479
5.708, 12, 34.0899, 54.5866, -13.663, 93.6141, -77.3086, 32.7385
5.712, 12, 34.0905, 54.6955, -13.7807, 93.6387, -77.5645, 32.6257
5.716, 12, 34.0914, 54.8102, -13.9066, 93.6645, -77.8299, 32.5098
5.72, 12, 34.0924, 54.9305, -14.0407, 93.6913, -78.1043, 32.3912
5.724, 12, 34.0934, 55.0563, -14.183, 93.7191, -78.3873, 32.2702
5.728, 12, 34.0944, 55.1872, -14.3334, 93.7477, -78.6784, 32.1471
5.732, 12, 34.0952, 55.3229, -14.4915, 93.7769, -78.9771, 32.0219
5.736, 12, 34.096, 55.4631, -14.6571, 93.8067, -79.283, 31.8949
5.74, 12, 34.0966, 55.6072, -14.8295, 93.8368, -79.5953, 31.7663
5.744, 12, 34.0972, 55.7547, -15.0081, 93.8671, -79.9133, 31.6364
5.748, 12, 34.0979, 55.905, -15.1921, 93.8972, -80.2362, 31.5052
5.752, 12, 34.0986, 56.0573, -15.3807, 93.927, -80.5629, 31.3733
5.756, 12, 34.0995, 56.211, -15.5729, 93.9563, -80.8924, 31.2409
5.76, 12, 34.1006, 56.3655, -15.7676, 93.9847, -81.2235, 31.1086
5.764, 12, 34.102, 56.5205, -15.9636, 94.0119, -81.5548, 30.9768
5.768, 12, 34.1035, 56.6755, -16.1597, 94.0377, -81.885, 30.8461
5.772, 12, 34.1051, 56.8303, -16.3547, 94.0617, -82.2131, 30.7172
5.776, 12, 34.1065, 56.9843, -16.5474, 94.0837, -82.5378, 30.5906
5.78, 12, 34.1077, 57.1372, -16.7365, 94.1033, -82.8581, 30.4668
5.784, 13, 34.1083, 57.2884, -16.9208, 94.1202, -83.1734, 30.3466
5.788, 13, 34.1083, 57.4373, -17.0993, 94.1341, -83.4829, 30.2303
5.792, 13, 34.1076, 57.5834, -17.2709, 94.1446, -83.7863, 30.1186
5.796, 13, 34.106, 57.7264, -17.4347, 94.1514, -84.0834, 30.0119
5.8, 13, 34.1036, 57.8659, -17.59, 94.1542, -84.3744, 29.9105
5.804, 13, 34.1004, 58.0017, -17.7363, 94.1527, -84.6593, 29.8148
5.808, 13, 34.0964, 58.1336, -17.8732, 94.1468, -84.9388, 29.7247
5.812, 13, 34.0916, 58.2612, -18.0004, 94.1362, -85.2133, 29.6405
5.816, 13, 34.0862, 58.3846, -18.118, 94.1211, -85.4836, 29.5618
5.82, 13, 34.08, 58.5037, -18.2263, 94.1013, -85.7501, 29.4886
5.824, 13, 34.0731, 58.6188, -18.3255, 94.077, -86.0137, 29.4204
5.828, 13, 34.0656, 58.73, -18.4163, 94.0486, -86.2749, 29.3569
5.832, 13, 34.0575, 58.8374, -18.4993, 94.0161, -86.5343, 29.2975
5.836, 13, 34.0487, 58.9413, -18.5753, 93.9799, -86.7923, 29.2419
5.84, 13, 34.0395, 59.042, -18.645, 93.9404, -87.0493, 29.1895
5.844, 13, 34.0297, 59.1395, -18.7093, 93.898, -87.3056, 29.1398
5.848, 13, 34.0193, 59.2343, -18.7691, 93.8531, -87.5614, 29.0922
5.852, 13, 34.0084, 59.3266, -18.8249, 93.806, -87.8168, 29.0463
5.856, 13, 33.9968, 59.4169, -18.8777, 93.7572, -88.072, 29.0017
5.86, 13, 33.9846, 59.5054, -18.9279, 93.7069, -88.3268, 28.958
5.864, 13, 33.9718, 59.5926, -18.9761, 93.6554, -88.5813, 28.9149
5.868, 13, 33.9584, 59.6787, -19.0228, 93.6029, -88.8356, 28.8723
5.872, 13, 33.9445, 59.764, -19.0681, 93.5495, -89.0896, 28.8299
5.876, 13, 33.9301, 59.8486, -19.1125, 93.4953, -89.3432, 28.7877
5.88, 13, 33.9154, 59.9327, -19.1559, 93.4405, -89.5966, 28.7455
5.884, 13, 33.9004, 60.0163, -19.1985, 93.3849, -89.8496, 28.7034
5.888, 13, 33.885, 60.0995, -19.2404, 93.3287, -90.1024, 28.6613
5.892, 13, 33.8694, 60.1823, -19.2817, 93.2719, -90.3548, 28.6192
5.896, 13, 33.8534, 60.2648, -19.3223, 93.2145, -90.6069, 28.577
5.9, 13, 33.8372, 60.347, -19.3623, 93.1565, -90.8587, 28.5348
5.904, 13, 33.8207, 60.4288, -19.4016, 93.0979, -91.1102, 28.4925
5.908, 13, 33.8039, 60.5103, -19.4404, 93.0387, -91.3613, 28.4502
5.912, 13, 33.7868, 60.5916, -19.4785, 92.979, -91.6122, 28.4078
5.916, 13, 33.7695, 60.6725, -19.516, 92.9187, -91.8627, 28.3654
5.92, 13, 33.7519, 60.7531, -19.5529, 92.8578, -92.1129, 28.3228
5.924, 13, 33.734, 60.8334, -19.5893, 92.7963, -92.3628, 28.2802
5.928, 13, 33.7159, 60.9133, -19.6249, 92.7343, -92.6124, 28.2375
5.932, 13, 33.6975, 60.9929, -19.66, 92.6717, -92.8616, 28.1947
5.936, 13, 33.679, 61.072, -19.6944, 92.6085, -93.1105, 28.1519
5.94, 13, 33.6605, 61.1503, -19.7282, 92.5448, -93.3591, 28.1089
5.944, 13, 33.6422, 61.2276, -19.7612, 92.4806, -93.6071, 28.066
5.948, 13, 33.6244, 61.3035, -19.7934, 92.416, -93.8545, 28.023
5.952, 13, 33.6072, 61.3777, -19.8249, 92.3509, -94.1008, 27.98
5.956, 13, 33.5906, 61.4499, -19.8555, 92.2857, -94.3456, 27.9372
5.96, 13, 33.5746, 61.5201, -19.8851, 92.2205, -94.5883, 27.8947
5.964, 13, 33.5592, 61.5883, -19.9138, 92.1556, -94.8279, 27.8525
5.968, 13, 33.5442, 61.6545, -19.9414, 92.0911, -95.0637, 27.8109
5.972, 13, 33.5294, 61.7187, -19.9679, 92.0275, -95.2945, 27.7701
5.976, 13, 33.5149, 61.7807, -19.9931, 91.9651, -95.5193, 27.7302
5.98, 13, 33.5007, 61.8405, -20.0171, 91.9042, -95.7369, 27.6915
5.984, 13, 33.4868, 61.8977, -20.0397, 91.8452, -95.9461, 27.6541
5.988, 13, 33.4732, 61.9524, -20.0608, 91.7886, -96.1458, 27.6184
5.992, 13, 33.4598, 62.0046, -20.0805, 91.7347, -96.3348, 27.5846
5.996, 13, 33.4466, 62.0541, -20.0987, 91.6837, -96.5123, 27.5527
6, 13, 33.4334, 62.101, -20.1152, 91.6359, -96.6775, 27.5231
6.004, 13, 33.4203, 62.145, -20.1299, 91.5915, -96.8299, 27.4958
6.008, 13, 33.4074, 62.1858, -20.1425, 91.5505, -96.9692, 27.471
6.012, 13, 33.3947, 62.2229, -20.1528, 91.5129, -97.0956, 27.4489
6.016, 13, 33.3824, 62.2561, -20.1605, 91.4785, -97.2091, 27.4294
6.02, 13, 33.3706, 62.2849, -20.1652, 91.4471, -97.3102, 27.4129
