hehonglu123/Motion-Primitive-Planning/ILC/recorded_data/realrobot/wood/iteration_15/run_3.csv
timestamp, cmd_num, J1, J2, J3, J4, J5, J6
0.000375, -1, 11.3757, 13.6149, 17.3358, -145.52, -97.9256, 142.516
0.004449, -1, 11.3757, 13.6149, 17.3358, -145.52, -97.9257, 142.516
0.007832, -1, 11.3757, 13.6149, 17.3358, -145.52, -97.9257, 142.516
0.028429, -1, 11.3757, 13.6149, 17.3358, -145.521, -97.9257, 142.516
0.031183, -1, 11.3757, 13.6149, 17.3358, -145.521, -97.9257, 142.516
0.034461, -1, 11.3757, 13.6149, 17.3358, -145.52, -97.9256, 142.516
0.039669, -1, 11.3757, 13.6149, 17.3358, -145.52, -97.9256, 142.516
0.047635, -1, 11.3756, 13.6149, 17.3358, -145.52, -97.9257, 142.516
0.055669, -1, 11.3751, 13.6149, 17.3358, -145.521, -97.9256, 142.516
0.063586, -1, 11.3724, 13.6146, 17.3357, -145.521, -97.9257, 142.516
0.071633, -1, 11.3659, 13.6139, 17.3355, -145.521, -97.9257, 142.515
0.079648, -1, 11.3547, 13.6121, 17.335, -145.521, -97.9257, 142.514
0.087613, -1, 11.3371, 13.6087, 17.3343, -145.523, -97.9255, 142.506
0.095611, -1, 11.3101, 13.6027, 17.3335, -145.526, -97.9247, 142.485
0.103664, -1, 11.2717, 13.5935, 17.3329, -145.533, -97.923, 142.446
0.111697, -1, 11.2214, 13.5811, 17.333, -145.545, -97.9196, 142.381
0.119602, -1, 11.1597, 13.5657, 17.3347, -145.562, -97.9142, 142.285
0.128021, -1, 11.0863, 13.5466, 17.3387, -145.585, -97.9063, 142.154
0.135588, -1, 11.001, 13.5235, 17.3451, -145.614, -97.8962, 141.989
0.143586, -1, 10.9041, 13.4972, 17.3537, -145.648, -97.884, 141.791
0.15244, -1, 10.7964, 13.4675, 17.3641, -145.686, -97.8702, 141.565
0.159587, -1, 10.6779, 13.4347, 17.3754, -145.729, -97.8555, 141.318
0.167617, -1, 10.5489, 13.399, 17.3866, -145.773, -97.84, 141.058
0.176375, -1, 10.4108, 13.361, 17.3973, -145.819, -97.8241, 140.788
0.183586, -1, 10.2659, 13.3215, 17.4075, -145.867, -97.8079, 140.514
0.191587, -1, 10.1165, 13.281, 17.4175, -145.914, -97.7914, 140.236
0.200506, -1, 9.96406, 13.2399, 17.4276, -145.961, -97.7744, 139.958
0.207621, -1, 9.80935, 13.1986, 17.4376, -146.01, -97.7571, 139.679
0.215622, -1, 9.65377, 13.1571, 17.4478, -146.057, -97.7399, 139.4
0.224611, -1, 9.49857, 13.1159, 17.4577, -146.105, -97.7228, 139.12
0.231681, -1, 9.3438, 13.0747, 17.4676, -146.154, -97.706, 138.84
0.239683, -1, 9.18936, 13.0335, 17.4775, -146.201, -97.6893, 138.561
0.249294, -1, 9.03542, 12.9925, 17.4876, -146.249, -97.6725, 138.281
0.255694, -1, 8.88171, 12.9514, 17.4977, -146.298, -97.6557, 138.001
0.263804, -1, 8.7281, 12.9105, 17.5079, -146.345, -97.6386, 137.721
0.272205, -1, 8.5751, 12.8693, 17.518, -146.393, -97.6211, 137.441
0.279614, -1, 8.42233, 12.8281, 17.5281, -146.441, -97.6035, 137.161
0.287712, -1, 8.2693, 12.7867, 17.5382, -146.489, -97.5863, 136.881
0.296238, -1, 8.11583, 12.7451, 17.5484, -146.537, -97.5692, 136.601
0.30379, -1, 7.96194, 12.7036, 17.5587, -146.585, -97.5524, 136.32
0.311892, -1, 7.80739, 12.6619, 17.5688, -146.633, -97.5358, 136.04
0.321565, -1, 7.65252, 12.6201, 17.5788, -146.681, -97.5191, 135.76
0.32794, -1, 7.49758, 12.5785, 17.5891, -146.729, -97.5023, 135.48
0.336138, -1, 7.34254, 12.537, 17.5992, -146.777, -97.4851, 135.199
0.344069, -1, 7.18757, 12.4954, 17.6094, -146.825, -97.4677, 134.919
0.352092, -1, 7.03251, 12.454, 17.6197, -146.873, -97.4504, 134.639
0.36027, -1, 6.87739, 12.4127, 17.63, -146.921, -97.4334, 134.358
0.368173, -1, 6.7225, 12.3714, 17.6404, -146.969, -97.4165, 134.078
0.376172, -1, 6.5678, 12.3301, 17.6508, -147.018, -97.3998, 133.797
0.38435, -1, 6.41332, 12.2888, 17.6612, -147.066, -97.3831, 133.517
0.392117, -1, 6.33618, 12.2682, 17.6663, -147.09, -97.3747, 133.377
0.39867, -1, 6.18194, 12.2267, 17.6767, -147.138, -97.3577, 133.096
0.408653, -1, 5.95025, 12.1645, 17.692, -147.21, -97.3316, 132.675
0.415574, -1, 5.87293, 12.1438, 17.6972, -147.234, -97.3228, 132.535
0.423637, -1, 5.7182, 12.1021, 17.7075, -147.282, -97.3053, 132.254
0.431597, -1, 5.56329, 12.0604, 17.7177, -147.33, -97.288, 131.973
0.439576, -1, 5.40821, 12.0188, 17.728, -147.378, -97.271, 131.692
0.447626, -1, 5.25285, 11.9771, 17.7383, -147.426, -97.2542, 131.411
0.455591, -1, 5.0972, 11.9354, 17.7487, -147.475, -97.2374, 131.131
0.463586, -1, 4.94141, 11.8938, 17.7591, -147.522, -97.2206, 130.849
0.471622, -1, 4.78571, 11.8522, 17.7695, -147.571, -97.2035, 130.568
0.479571, -1, 4.63001, 11.8106, 17.78, -147.619, -97.1861, 130.287
0.487604, -1, 4.47431, 11.7692, 17.7904, -147.667, -97.1686, 130.007
0.497178, -1, 4.24115, 11.707, 17.806, -147.74, -97.1427, 129.585
0.636868, -1, 1.67505, 11.0194, 17.9827, -148.561, -96.8515, 124.798
0.638967, -1, 1.51881, 10.9776, 17.988, -148.585, -96.8431, 124.657
0.640284, -1, 1.51881, 10.9776, 17.988, -148.585, -96.8431, 124.657
0.641493, -1, 1.51881, 10.9776, 17.988, -148.585, -96.8431, 124.657
0.643581, -1, 1.44083, 10.9568, 17.9932, -148.61, -96.8346, 124.516
0.64482, -1, 1.44083, 10.9568, 17.9932, -148.61, -96.8346, 124.516
0.646845, -1, 1.3629, 10.936, 17.9984, -148.634, -96.8261, 124.375
0.650202, -1, 1.3629, 10.936, 17.9984, -148.634, -96.8261, 124.375
0.651695, -1, 1.28501, 10.9152, 18.0036, -148.658, -96.8176, 124.234
0.652898, -1, 1.28501, 10.9152, 18.0036, -148.658, -96.8176, 124.234
0.654902, -1, 1.20719, 10.8943, 18.0088, -148.682, -96.8092, 124.092
0.656137, -1, 1.20719, 10.8943, 18.0088, -148.682, -96.8092, 124.092
0.657485, -1, 1.20719, 10.8943, 18.0088, -148.682, -96.8092, 124.092
0.660222, -1, 1.12945, 10.8734, 18.0139, -148.706, -96.8008, 123.951
0.663353, -1, 1.05185, 10.8525, 18.0191, -148.731, -96.7923, 123.81
0.667166, -1, 0.974336, 10.8316, 18.0242, -148.755, -96.7838, 123.669
0.668411, -1, 0.974336, 10.8316, 18.0242, -148.755, -96.7838, 123.669
0.669688, -1, 0.974336, 10.8316, 18.0242, -148.755, -96.7838, 123.669
0.67166, -1, 0.896828, 10.8108, 18.0294, -148.779, -96.7753, 123.528
0.672948, -1, 0.896828, 10.8108, 18.0294, -148.779, -96.7753, 123.528
0.674816, -1, 0.81938, 10.7899, 18.0346, -148.803, -96.7666, 123.386
0.676258, -1, 0.81938, 10.7899, 18.0346, -148.803, -96.7666, 123.386
0.680589, -1, 0.742004, 10.769, 18.0399, -148.827, -96.7579, 123.245
0.687642, -1, 0.587297, 10.7271, 18.0503, -148.876, -96.7402, 122.963
0.695569, -1, 0.432532, 10.6854, 18.0607, -148.925, -96.7226, 122.68
0.70357, -1, 0.277413, 10.6435, 18.0711, -148.973, -96.7054, 122.397
0.711668, -1, 0.121842, 10.6016, 18.0815, -149.021, -96.6884, 122.115
0.719692, -1, -0.034163, 10.5597, 18.0921, -149.07, -96.6716, 121.832
0.727693, -1, -0.190533, 10.5179, 18.1026, -149.118, -96.6549, 121.549
0.735732, -1, -0.347125, 10.476, 18.1131, -149.167, -96.638, 121.266
0.743673, -1, -0.504135, 10.4342, 18.1234, -149.215, -96.6209, 120.984
0.751675, -1, -0.661353, 10.3924, 18.1338, -149.263, -96.6036, 120.701
0.759766, -1, -0.818691, 10.3505, 18.1444, -149.312, -96.5861, 120.418
0.767657, -1, -0.976066, 10.3087, 18.1547, -149.361, -96.5689, 120.136
0.775592, -1, -1.13323, 10.2669, 18.1651, -149.409, -96.5518, 119.853
0.783606, -1, -1.29037, 10.225, 18.1755, -149.458, -96.5349, 119.569
0.791626, -1, -1.44724, 10.1832, 18.1858, -149.507, -96.5182, 119.286
0.927558, -1, -4.0304, 9.49135, 18.3579, -150.309, -96.2343, 114.604
0.929703, -1, -4.10932, 9.4704, 18.3631, -150.334, -96.2259, 114.462
0.930914, -1, -4.10932, 9.4704, 18.3631, -150.334, -96.2259, 114.462
0.932817, -1, -4.18823, 9.44944, 18.3683, -150.358, -96.2174, 114.32
0.934159, -1, -4.18823, 9.44944, 18.3683, -150.358, -96.2174, 114.32
0.935482, -1, -4.18823, 9.44944, 18.3683, -150.358, -96.2174, 114.32
0.937519, -1, -4.26714, 9.42846, 18.3734, -150.382, -96.2088, 114.178
0.941035, -1, -4.34604, 9.40745, 18.3786, -150.407, -96.2003, 114.035
0.942331, -1, -4.34604, 9.40745, 18.3786, -150.407, -96.2003, 114.035
0.943583, -1, -4.34604, 9.40745, 18.3786, -150.407, -96.2003, 114.035
0.945708, -1, -4.42486, 9.38643, 18.3837, -150.431, -96.1916, 113.893
0.947002, -1, -4.42486, 9.38643, 18.3837, -150.431, -96.1916, 113.893
0.950359, -1, -4.50353, 9.36545, 18.3889, -150.456, -96.1828, 113.751
0.951596, -1, -4.50353, 9.36545, 18.3889, -150.456, -96.1828, 113.751
0.953639, -1, -4.58205, 9.34446, 18.3941, -150.48, -96.174, 113.608
0.957856, -1, -4.66048, 9.32344, 18.3993, -150.505, -96.1652, 113.466
0.959296, -1, -4.66048, 9.32344, 18.3993, -150.505, -96.1652, 113.466
0.961089, -1, -4.73884, 9.30242, 18.4045, -150.529, -96.1563, 113.324
0.962537, -1, -4.73884, 9.30242, 18.4045, -150.529, -96.1563, 113.324
0.963716, -1, -4.73884, 9.30242, 18.4045, -150.529, -96.1563, 113.324
0.965781, -1, -4.81711, 9.28139, 18.4098, -150.553, -96.1474, 113.181
0.967587, -1, -4.81711, 9.28139, 18.4098, -150.553, -96.1474, 113.181
0.975559, -1, -4.97338, 9.2393, 18.4203, -150.602, -96.1299, 112.896
0.983555, -1, -5.12942, 9.19727, 18.4308, -150.651, -96.1127, 112.611
0.99162, -1, -5.28528, 9.15517, 18.4414, -150.699, -96.0957, 112.327
0.999576, -1, -5.44125, 9.11301, 18.4519, -150.749, -96.0788, 112.042
1.00755, -1, -5.59739, 9.07091, 18.4623, -150.797, -96.0618, 111.757
1.01562, -1, -5.75387, 9.02881, 18.4727, -150.846, -96.0447, 111.472
1.02459, -1, -5.91082, 8.98663, 18.4832, -150.895, -96.0272, 111.188
1.03162, -1, -6.06819, 8.9445, 18.4935, -150.944, -96.0096, 110.903
1.0407, -1, -6.22611, 8.90238, 18.5039, -150.992, -95.9921, 110.617
1.04758, -1, -6.38437, 8.86024, 18.5142, -151.042, -95.9748, 110.332
1.05567, -1, -6.54278, 8.81814, 18.5246, -151.091, -95.9578, 110.047
1.06358, -1, -6.70132, 8.776, 18.5352, -151.14, -95.9407, 109.762
1.07164, -1, -6.86003, 8.73385, 18.5457, -151.189, -95.9237, 109.476
1.07958, -1, -7.01863, 8.69174, 18.5562, -151.238, -95.9066, 109.191
1.08756, -1, -7.17716, 8.64963, 18.5667, -151.287, -95.8891, 108.905
1.09564, -1, -7.33556, 8.60745, 18.577, -151.336, -95.8714, 108.62
1.10357, -1, -7.49357, 8.56515, 18.5875, -151.385, -95.8536, 108.334
1.11156, -1, -7.65116, 8.52284, 18.598, -151.434, -95.8362, 108.048
1.11965, -1, -7.80843, 8.48057, 18.6084, -151.483, -95.819, 107.762
1.12758, -1, -7.96541, 8.43832, 18.6189, -151.532, -95.8019, 107.476
1.13556, -1, -8.12215, 8.39595, 18.6293, -151.581, -95.785, 107.19
1.14404, -1, -8.27872, 8.35364, 18.6398, -151.63, -95.768, 106.905
1.15156, -1, -8.43538, 8.31128, 18.6503, -151.679, -95.7507, 106.619
1.15958, -1, -8.59236, 8.26887, 18.6608, -151.728, -95.7332, 106.332
1.16839, -1, -8.74969, 8.22661, 18.6714, -151.777, -95.7155, 106.046
1.17555, -1, -8.90734, 8.18427, 18.6817, -151.826, -95.6979, 105.76
1.18357, -1, -9.06542, 8.14195, 18.6921, -151.875, -95.6806, 105.473
1.19235, -1, -9.22401, 8.09969, 18.7026, -151.925, -95.6634, 105.187
1.19957, -1, -9.38283, 8.05734, 18.7131, -151.973, -95.6464, 104.9
1.20775, -1, -9.54188, 8.015, 18.7236, -152.023, -95.6293, 104.613
1.21639, -1, -9.70101, 7.97278, 18.734, -152.072, -95.6119, 104.326
1.22367, -1, -9.86027, 7.93053, 18.7445, -152.121, -95.5944, 104.04
1.23194, -1, -10.0197, 7.88814, 18.7552, -152.171, -95.5765, 103.752
1.24045, -1, -10.179, 7.84569, 18.7658, -152.22, -95.5587, 103.466
1.24765, -1, -10.3381, 7.8032, 18.7764, -152.269, -95.5411, 103.179
1.25611, -1, -10.497, 7.76067, 18.7869, -152.319, -95.5239, 102.892
1.26313, -1, -10.5763, 7.73943, 18.7922, -152.368, -95.5069, 102.605
1.27119, -1, -10.7346, 7.69694, 18.8026, -152.417, -95.4899, 102.318
1.28034, -1, -10.9716, 7.63308, 18.8184, -152.466, -95.4727, 102.031
1.28849, -1, -11.1291, 7.59057, 18.8287, -152.516, -95.4554, 101.743
1.29561, -1, -11.2865, 7.54811, 18.8393, -152.565, -95.4377, 101.456
1.30454, -1, -11.4439, 7.50564, 18.8498, -152.614, -95.4199, 101.169
1.31262, -1, -11.6015, 7.46313, 18.8603, -152.664, -95.4022, 100.881
1.31981, -1, -11.7593, 7.42073, 18.8709, -152.712, -95.3848, 100.593
1.32889, -1, -11.9177, 7.3783, 18.8815, -152.762, -95.3676, 100.306
1.33668, -1, -12.0764, 7.33589, 18.892, -152.812, -95.3504, 100.018
1.34413, -1, -12.2355, 7.29352, 18.9025, -152.861, -95.3332, 99.7301
1.35289, -1, -12.3951, 7.25109, 18.913, -152.911, -95.3158, 99.4419
1.36008, -1, -12.555, 7.20868, 18.9236, -152.96, -95.298, 99.1539
1.36815, -1, -12.7149, 7.16622, 18.9341, -153.009, -95.28, 98.8663
1.37614, -1, -12.8751, 7.12376, 18.9447, -153.059, -95.2621, 98.5784
1.38491, -1, -12.9552, 7.08115, 18.9552, -153.108, -95.2445, 98.2902
1.39224, -1, -13.1951, 7.03855, 18.9657, -153.158, -95.2272, 98.0021
1.40036, -1, -13.275, 7.01725, 18.971, -153.183, -95.2186, 97.8581
1.40754, -1, -13.4347, 6.97461, 18.9816, -153.232, -95.2015, 97.5697
1.41559, -1, -13.5941, 6.93183, 18.9922, -153.281, -95.1843, 97.281
1.42354, -1, -13.7532, 6.88911, 19.0028, -153.331, -95.1669, 96.9923
1.43155, -1, -13.9121, 6.84644, 19.0133, -153.38, -95.1492, 96.7039
1.43963, -1, -14.0704, 6.80373, 19.0237, -153.429, -95.1314, 96.4152
1.44755, -1, -14.2285, 6.76112, 19.0343, -153.479, -95.1136, 96.1263
1.45554, -1, -14.3867, 6.71848, 19.0448, -153.528, -95.0962, 95.8373
1.46363, -1, -14.545, 6.67581, 19.0553, -153.578, -95.0789, 95.5484
1.47154, -1, -14.7036, 6.63327, 19.0659, -153.628, -95.0618, 95.2592
1.47956, -1, -14.8626, 6.59075, 19.0765, -153.677, -95.0446, 94.9697
1.48754, -1, -15.022, 6.54807, 19.0872, -153.726, -95.0271, 94.6806
1.49554, -1, -15.1817, 6.50548, 19.098, -153.776, -95.0094, 94.3916
1.50361, -1, -15.3418, 6.46293, 19.1086, -153.826, -94.9914, 94.1025
1.51154, -1, -15.5023, 6.4202, 19.1193, -153.875, -94.9734, 93.8131
1.51955, -1, -15.6631, 6.37752, 19.1298, -153.925, -94.9557, 93.5238
1.52766, -1, -15.8238, 6.33474, 19.1405, -153.975, -94.9384, 93.2345
1.5366, -1, -15.9846, 6.29185, 19.1511, -154.025, -94.9212, 92.945
1.54354, -1, -16.1455, 6.24897, 19.1617, -154.075, -94.904, 92.6551
1.5516, -1, -16.3063, 6.20605, 19.1722, -154.124, -94.8868, 92.3657
1.55961, -1, -16.4667, 6.16306, 19.1827, -154.173, -94.8693, 92.076
1.56756, -1, -16.627, 6.12008, 19.1933, -154.223, -94.8515, 91.7859
1.57561, -1, -16.7868, 6.07712, 19.2039, -154.273, -94.8336, 91.4957
1.58354, -1, -16.9463, 6.03412, 19.2146, -154.323, -94.8159, 91.2056
1.59155, -1, -17.1056, 5.99114, 19.2253, -154.372, -94.7984, 90.9155
1.59962, -1, -17.2647, 5.94816, 19.2358, -154.422, -94.7811, 90.6251
1.60757, -1, -17.4237, 5.90533, 19.2464, -154.472, -94.7639, 90.3347
1.6156, -1, -17.583, 5.8625, 19.2572, -154.522, -94.7465, 90.0446
1.62354, -1, -17.7423, 5.81969, 19.2678, -154.571, -94.7288, 89.7545
1.63155, -1, -17.9019, 5.7769, 19.2785, -154.621, -94.7109, 89.464
1.63962, -1, -18.062, 5.7341, 19.2891, -154.671, -94.6927, 89.1735
1.64753, -1, -18.2226, 5.69131, 19.2997, -154.721, -94.6749, 88.8831
1.65557, -1, -18.3835, 5.64851, 19.3105, -154.771, -94.6572, 88.5923
1.6636, -1, -18.5449, 5.60555, 19.3212, -154.821, -94.6399, 88.3012
1.67154, -1, -18.7065, 5.5626, 19.3319, -154.871, -94.6226, 88.0103
1.67956, -1, -18.8681, 5.51964, 19.3425, -154.921, -94.6054, 87.7195
1.68762, -1, -19.0298, 5.47657, 19.3531, -154.971, -94.5878, 87.4283
1.69554, -1, -19.1913, 5.43341, 19.3637, -155.021, -94.5699, 87.1368
1.70354, -1, -19.3528, 5.39023, 19.3743, -155.071, -94.5519, 86.8455
1.7116, -1, -19.5141, 5.34704, 19.3849, -155.12, -94.5338, 86.554
1.71964, -1, -19.675, 5.30379, 19.3955, -155.17, -94.5161, 86.2623
1.72773, -1, -19.8356, 5.26063, 19.4062, -155.221, -94.4986, 85.9705
1.73564, -1, -19.9961, 5.21744, 19.4169, -155.27, -94.4811, 85.679
1.74363, -1, -20.1561, 5.17427, 19.4277, -155.32, -94.4637, 85.3875
1.75207, -1, -20.3158, 5.13129, 19.4386, -155.371, -94.4461, 85.0957
1.75971, -1, -20.4758, 5.08826, 19.4494, -155.42, -94.4283, 84.8038
1.76766, -1, -20.6359, 5.04517, 19.4601, -155.471, -94.4102, 84.5121
1.77626, -1, -20.7961, 5.00225, 19.4708, -155.521, -94.3922, 84.2202
1.78357, -1, -20.9569, 4.95923, 19.4815, -155.571, -94.3745, 83.9281
1.79167, -1, -21.1179, 4.91616, 19.4922, -155.621, -94.357, 83.6359
1.80053, -1, -21.2794, 4.87311, 19.5028, -155.672, -94.3397, 83.344
1.80763, -1, -21.4414, 4.82988, 19.5134, -155.721, -94.3225, 83.0518
1.81571, -1, -21.6035, 4.78659, 19.5242, -155.772, -94.3051, 82.7592
1.82465, -1, -21.7658, 4.74338, 19.5349, -155.822, -94.2875, 82.4666
1.83186, -1, -21.9282, 4.70001, 19.5456, -155.872, -94.2695, 82.1741
1.84031, -1, -22.0907, 4.65661, 19.5565, -155.923, -94.2515, 81.8814
1.84889, -1, -22.2533, 4.61329, 19.5671, -155.973, -94.2337, 81.5885
1.85603, -1, -22.4157, 4.56985, 19.5778, -156.023, -94.2161, 81.2957
1.86255, -1, -22.4967, 4.54814, 19.5832, -156.048, -94.2074, 81.1495
1.87295, -1, -22.7394, 4.48296, 19.5992, -156.123, -94.1812, 80.7103
1.88016, -1, -22.9007, 4.43954, 19.6099, -156.173, -94.1636, 80.4171
1.8883, -1, -23.0619, 4.39623, 19.6206, -156.224, -94.1457, 80.1242
1.89701, -1, -23.1424, 4.37459, 19.6259, -156.274, -94.1276, 79.8312
1.90354, -1, -23.3033, 4.33126, 19.6367, -156.299, -94.1184, 79.6845
1.91158, -1, -23.4642, 4.288, 19.6476, -156.35, -94.1002, 79.3909
1.91961, -1, -23.6252, 4.24472, 19.6584, -156.4, -94.0823, 79.0977
1.92754, -1, -23.7863, 4.20142, 19.6692, -156.45, -94.0646, 78.8044
1.93557, -1, -23.9476, 4.15815, 19.6799, -156.501, -94.0472, 78.5107
1.94355, -1, -24.1093, 4.11475, 19.6906, -156.551, -94.0298, 78.2168
1.95158, -1, -24.2715, 4.07138, 19.7013, -156.602, -94.0122, 77.9228
1.9596, -1, -24.4341, 4.02798, 19.712, -156.652, -93.9944, 77.6288
1.96755, -1, -24.597, 3.98446, 19.7226, -156.702, -93.9762, 77.3345
1.97558, -1, -24.7602, 3.94091, 19.7333, -156.753, -93.9581, 77.0403
1.98353, -1, -24.9236, 3.89736, 19.744, -156.804, -93.9403, 76.7464
1.99153, -1, -25.0871, 3.85381, 19.7549, -156.854, -93.9226, 76.4522
1.99965, -1, -25.2503, 3.81023, 19.7658, -156.904, -93.9052, 76.1578
2.00753, -1, -25.4134, 3.76665, 19.7767, -156.955, -93.8877, 75.8635
2.01554, -1, -25.5762, 3.72298, 19.7874, -157.005, -93.87, 75.5693
2.02505, -1, -25.7389, 3.67936, 19.7981, -157.055, -93.8521, 75.2747
2.03152, -1, -25.9014, 3.63587, 19.8089, -157.106, -93.8338, 74.9799
2.03963, -1, -26.0636, 3.59228, 19.8197, -157.156, -93.8154, 74.6853
2.04855, -1, -26.2254, 3.54879, 19.8305, -157.207, -93.7973, 74.3908
2.05552, -1, -26.3869, 3.50542, 19.8413, -157.258, -93.7794, 74.096
2.06358, -1, -26.5485, 3.46194, 19.8519, -157.308, -93.7617, 73.8008
2.0716, -1, -26.7105, 3.41843, 19.8628, -157.359, -93.7441, 73.5057
2.07959, -1, -26.8727, 3.37496, 19.8736, -157.41, -93.7265, 73.2105
2.08887, -1, -27.0353, 3.33135, 19.8845, -157.46, -93.7085, 72.915
2.09563, -1, -27.1981, 3.28774, 19.8953, -157.511, -93.6903, 72.6195
2.10359, -1, -27.3614, 3.24411, 19.906, -157.561, -93.672, 72.3243
2.11155, -1, -27.525, 3.20032, 19.9168, -157.612, -93.654, 72.0289
2.11958, -1, -27.689, 3.15659, 19.9276, -157.663, -93.6361, 71.7333
2.12759, -1, -27.8529, 3.11297, 19.9384, -157.713, -93.6183, 71.4375
2.13554, -1, -28.0172, 3.06923, 19.9492, -157.764, -93.6007, 71.142
2.14352, -1, -28.1814, 3.0255, 19.9599, -157.815, -93.5829, 70.8462
2.15165, -1, -28.3457, 2.98178, 19.9707, -157.865, -93.5648, 70.55
2.1596, -1, -28.5098, 2.93803, 19.9817, -157.916, -93.5465, 70.254
2.16754, -1, -28.6735, 2.89438, 19.9926, -157.967, -93.528, 69.9582
2.1756, -1, -28.837, 2.85069, 20.0034, -158.018, -93.5098, 69.6619
2.18353, -1, -29.0001, 2.80697, 20.0141, -158.069, -93.4919, 69.3654
2.19152, -1, -29.1628, 2.7633, 20.0248, -158.12, -93.4741, 69.069
2.19965, -1, -29.3255, 2.71959, 20.0357, -158.17, -93.4565, 68.7724
2.20752, -1, -29.4882, 2.67587, 20.0465, -158.221, -93.4388, 68.4755
2.21553, -1, -29.6509, 2.63213, 20.0573, -158.272, -93.4207, 68.1786
2.22362, -1, -29.814, 2.58834, 20.0681, -158.323, -93.4025, 67.8821
2.23167, -1, -29.9771, 2.5446, 20.079, -158.374, -93.384, 67.5855
2.23968, -1, -30.1404, 2.50074, 20.0901, -158.425, -93.3658, 67.2884
2.24769, -1, -30.3043, 2.45677, 20.101, -158.476, -93.3478, 66.9914
2.25563, -1, -30.4685, 2.41285, 20.112, -158.527, -93.33, 66.6945
2.26362, -1, -30.6332, 2.36881, 20.1227, -158.578, -93.3123, 66.3973
2.27171, -1, -30.7982, 2.32485, 20.1335, -158.629, -93.2945, 66.0998
2.27965, -1, -30.9633, 2.28093, 20.1445, -158.68, -93.2764, 65.8026
2.28756, -1, -31.1284, 2.23683, 20.1553, -158.731, -93.258, 65.5055
2.29566, -1, -31.2934, 2.19292, 20.1662, -158.782, -93.2395, 65.208
2.30359, -1, -31.4584, 2.14909, 20.177, -158.833, -93.2212, 64.9102
2.31172, -1, -31.6231, 2.10505, 20.1878, -158.884, -93.2032, 64.6125
2.31986, -1, -31.7876, 2.06106, 20.1987, -158.936, -93.1854, 64.3147
2.32779, -1, -31.9519, 2.01716, 20.2097, -158.987, -93.1678, 64.0166
2.3359, -1, -32.1159, 1.97314, 20.2207, -159.037, -93.1502, 63.7183
2.34399, -1, -32.2795, 1.92916, 20.2316, -159.089, -93.1323, 63.4206
2.35051, -1, -32.3613, 1.90717, 20.237, -159.115, -93.1232, 63.2716
2.36021, -1, -32.6067, 1.84103, 20.2534, -159.191, -93.0957, 62.8243
2.36892, -1, -32.7705, 1.79694, 20.2643, -159.243, -93.0774, 62.5259
2.37609, -1, -32.9344, 1.75284, 20.2752, -159.294, -93.0594, 62.2277
2.38416, -1, -33.0987, 1.70862, 20.2861, -159.345, -93.0415, 61.9291
2.39295, -1, -33.1811, 1.68652, 20.297, -159.396, -93.0237, 61.6304
2.40021, -1, -33.3458, 1.62028, 20.3079, -159.447, -93.0059, 61.3318
2.40812, -1, -33.5111, 1.59815, 20.3135, -159.473, -92.9969, 61.1827
2.41551, -1, -33.6768, 1.55389, 20.3245, -159.524, -92.9786, 60.884
2.42352, -1, -33.8425, 1.50969, 20.3354, -159.575, -92.96, 60.5849
2.43157, -1, -34.0084, 1.46546, 20.3462, -159.627, -92.9414, 60.2857
2.43956, -1, -34.1744, 1.42129, 20.3572, -159.678, -92.923, 59.9867
2.44753, -1, -34.3405, 1.37715, 20.3682, -159.73, -92.9049, 59.6873
2.45556, -1, -34.5065, 1.33293, 20.3791, -159.781, -92.8871, 59.3874
2.46351, -1, -34.6722, 1.28876, 20.39, -159.833, -92.8693, 59.0882
2.47155, -1, -34.8375, 1.24455, 20.4009, -159.884, -92.8514, 58.7888
2.47962, -1, -35.0025, 1.20031, 20.4119, -159.935, -92.8332, 58.4892
2.48752, -1, -35.1672, 1.15603, 20.423, -159.987, -92.8147, 58.1894
2.4955, -1, -35.3318, 1.11171, 20.434, -160.038, -92.7961, 57.8898
2.50357, -1, -35.4958, 1.06755, 20.4452, -160.09, -92.7778, 57.59
2.51152, -1, -35.658, 1.02376, 20.4564, -160.141, -92.7598, 57.29
2.51956, -1, -35.8176, 0.98052, 20.4679, -160.192, -92.7418, 56.9914
2.5291, -1, -35.9731, 0.93841, 20.4798, -160.242, -92.7242, 56.5507
2.53551, -1, -36.1235, 0.89793, 20.4917, -160.292, -92.7066, 56.407
2.54453, -1, -36.2663, 0.85967, 20.5036, -160.339, -92.6895, 56.1279
2.55159, -1, -36.3995, 0.824335, 20.5152, -160.384, -92.6731, 55.8653
2.5606, -1, -36.5214, 0.792062, 20.5258, -160.425, -92.6578, 55.6253
2.56758, -1, -36.6305, 0.763207, 20.5351, -160.46, -92.6446, 55.4136
2.57559, -1, -36.7253, 0.738133, 20.5424, -160.49, -92.6335, 55.2351
2.58351, -1, -36.8054, 0.716879, 20.5474, -160.515, -92.6248, 55.0916
2.59151, -1, -36.8717, 0.699378, 20.5504, -160.534, -92.6183, 54.983
2.59962, -1, -36.925, 0.685374, 20.5517, -160.547, -92.6138, 54.9063
2.60756, -1, -36.9655, 0.674496, 20.5521, -160.556, -92.611, 54.8544
2.6155, -1, -36.995, 0.666709, 20.5518, -160.562, -92.6093, 54.8229
2.62357, -1, -37.0154, 0.661611, 20.5513, -160.565, -92.6084, 54.8049
2.63151, -1, -37.0278, 0.658586, 20.551, -160.567, -92.6079, 54.7959
2.63955, 2, -37.0344, 0.65697, 20.5508, -160.568, -92.6077, 54.7916
2.64759, 2, -37.0366, 0.656217, 20.5507, -160.568, -92.6076, 54.7897
2.6555, 2, -37.0365, 0.655909, 20.5507, -160.568, -92.6076, 54.7888
2.6635, 2, -37.0359, 0.655771, 20.5507, -160.568, -92.6076, 54.7885
2.67158, 2, -37.0357, 0.655735, 20.5506, -160.568, -92.6076, 54.7882
2.67966, 2, -37.0361, 0.65568, 20.5506, -160.568, -92.6076, 54.7882
2.68752, 2, -37.0371, 0.655637, 20.5505, -160.568, -92.6076, 54.7882
2.69557, 2, -37.0382, 0.655508, 20.5504, -160.568, -92.6076, 54.7882
2.70351, 2, -37.0397, 0.655294, 20.5502, -160.568, -92.6076, 54.7883
2.71151, 2, -37.0411, 0.655045, 20.55, -160.568, -92.6077, 54.7884
2.71963, 2, -37.0423, 0.654771, 20.5498, -160.568, -92.6077, 54.7885
2.72758, 2, -37.0433, 0.654557, 20.5497, -160.568, -92.6077, 54.7886
2.73564, 2, -37.0437, 0.654442, 20.5495, -160.568, -92.6078, 54.7887
2.74371, 2, -37.0437, 0.654401, 20.5493, -160.568, -92.6079, 54.7887
2.75162, 2, -37.0432, 0.654378, 20.5491, -160.568, -92.6079, 54.7889
2.75967, 2, -37.0423, 0.654421, 20.5491, -160.568, -92.6079, 54.7891
2.76769, 2, -37.0413, 0.654465, 20.549, -160.568, -92.6079, 54.7893
2.77557, 2, -37.0397, 0.654533, 20.549, -160.568, -92.608, 54.7894
2.78353, 2, -37.0383, 0.654614, 20.5489, -160.568, -92.608, 54.7896
2.7916, 2, -37.0373, 0.654652, 20.5488, -160.568, -92.6081, 54.7897
2.7996, 2, -37.0367, 0.65464, 20.5488, -160.568, -92.6081, 54.7898
2.80785, 2, -37.0365, 0.654619, 20.5487, -160.568, -92.6081, 54.7899
2.81569, 2, -37.0365, 0.654594, 20.5487, -160.568, -92.6081, 54.7899
2.82398, 2, -37.0368, 0.654526, 20.5487, -160.568, -92.6081, 54.79
2.83178, 2, -37.037, 0.654482, 20.5487, -160.568, -92.6081, 54.79
2.83996, 2, -37.0376, 0.654439, 20.5486, -160.568, -92.6081, 54.79
2.84815, 2, -37.0383, 0.654412, 20.5486, -160.568, -92.6081, 54.79
2.85608, 2, -37.0391, 0.654411, 20.5486, -160.568, -92.6081, 54.7901
2.86407, 2, -37.0397, 0.654436, 20.5486, -160.568, -92.6081, 54.7901
2.87249, 2, -37.0401, 0.654455, 20.5486, -160.568, -92.6081, 54.7902
2.88011, 2, -37.0402, 0.654481, 20.5486, -160.568, -92.6081, 54.7903
2.88812, 2, -37.0402, 0.654492, 20.5486, -160.568, -92.6081, 54.7903
2.89637, 2, -37.0402, 0.654498, 20.5486, -160.568, -92.6081, 54.7904
2.90427, 2, -37.04, 0.654499, 20.5486, -160.568, -92.6081, 54.7904
2.91208, 2, -37.0395, 0.654501, 20.5486, -160.568, -92.6081, 54.7905
2.92043, 2, -37.0391, 0.654502, 20.5486, -160.568, -92.6081, 54.7905
2.92751, 2, -37.039, 0.654495, 20.5486, -160.568, -92.6081, 54.7905
2.93557, 2, -37.0389, 0.654487, 20.5486, -160.568, -92.6082, 54.7906
2.9435, 2, -37.0388, 0.65446, 20.5485, -160.568, -92.6082, 54.7906
2.95152, 2, -37.0388, 0.654433, 20.5485, -160.568, -92.6081, 54.7906
2.95966, 2, -37.0388, 0.654446, 20.5485, -160.568, -92.6081, 54.7906
2.96752, 2, -37.0389, 0.654434, 20.5485, -160.568, -92.6082, 54.7907
2.97551, 2, -37.039, 0.654428, 20.5485, -160.568, -92.6082, 54.7907
2.98354, 2, -37.0391, 0.654444, 20.5485, -160.568, -92.6082, 54.7908
2.99149, 2, -37.0393, 0.654471, 20.5485, -160.568, -92.6082, 54.7909
2.99956, 2, -37.0394, 0.654476, 20.5485, -160.568, -92.6082, 54.791
3.00757, 2, -37.0395, 0.65449, 20.5484, -160.568, -92.6082, 54.791
3.01549, 2, -37.0395, 0.654497, 20.5484, -160.568, -92.6083, 54.7911
3.02351, 2, -37.0395, 0.654488, 20.5484, -160.568, -92.6082, 54.7911
3.03154, 2, -37.0395, 0.654483, 20.5484, -160.568, -92.6083, 54.7912
3.04141, 2, -37.0395, 0.654476, 20.5484, -160.568, -92.6083, 54.7912
3.04752, 2, -37.0395, 0.654466, 20.5484, -160.568, -92.6083, 54.7913
3.05554, 2, -37.0394, 0.654466, 20.5484, -160.568, -92.6083, 54.7913
3.06453, 2, -37.0394, 0.654469, 20.5484, -160.568, -92.6083, 54.7914
3.07158, 2, -37.0394, 0.654475, 20.5484, -160.568, -92.6083, 54.7914
3.07961, 2, -37.0394, 0.654477, 20.5484, -160.568, -92.6083, 54.7915
3.08751, 2, -37.0394, 0.654491, 20.5483, -160.568, -92.6083, 54.7915
3.09551, 2, -37.0394, 0.654497, 20.5483, -160.568, -92.6083, 54.7915
3.10354, 2, -37.0394, 0.6545, 20.5483, -160.568, -92.6083, 54.7916
3.1115, 2, -37.0394, 0.654501, 20.5483, -160.568, -92.6084, 54.7916
3.11957, 2, -37.0394, 0.654502, 20.5483, -160.568, -92.6083, 54.7917
3.12757, 2, -37.0394, 0.654513, 20.5483, -160.568, -92.6084, 54.7917
3.13549, 2, -37.0394, 0.654515, 20.5483, -160.568, -92.6084, 54.7917
3.14352, 2, -37.0393, 0.654496, 20.5483, -160.568, -92.6084, 54.7918
3.15155, 2, -37.0394, 0.654499, 20.5483, -160.568, -92.6084, 54.7918
3.15955, 2, -37.0394, 0.654489, 20.5483, -160.568, -92.6084, 54.7919
3.16752, 2, -37.0393, 0.654484, 20.5483, -160.568, -92.6083, 54.7919
3.17554, 2, -37.0393, 0.654482, 20.5483, -160.568, -92.6084, 54.792
3.18358, 2, -37.0393, 0.654481, 20.5483, -160.568, -92.6084, 54.792
3.19151, 2, -37.0393, 0.65448, 20.5483, -160.568, -92.6084, 54.792
3.1996, 2, -37.0393, 0.654492, 20.5482, -160.568, -92.6084, 54.7921
3.20751, 2, -37.0393, 0.654498, 20.5482, -160.568, -92.6083, 54.792
3.21551, 2, -37.0392, 0.6545, 20.5482, -160.568, -92.6084, 54.7921
3.22356, 2, -37.0392, 0.654501, 20.5482, -160.568, -92.6084, 54.7921
3.23155, 2, -37.0392, 0.654502, 20.5482, -160.568, -92.6084, 54.7922
3.23969, 2, -37.0392, 0.654502, 20.5482, -160.568, -92.6084, 54.7922
3.24766, 2, -37.0392, 0.654483, 20.5482, -160.568, -92.6084, 54.7923
3.25559, 2, -37.0392, 0.654489, 20.5482, -160.568, -92.6084, 54.7923
3.26361, 2, -37.0392, 0.654496, 20.5482, -160.568, -92.6084, 54.7924
3.27165, 2, -37.0392, 0.6545, 20.5481, -160.568, -92.6084, 54.7924
3.27965, 2, -37.0391, 0.654501, 20.5481, -160.568, -92.6084, 54.7924
3.28756, 2, -37.0391, 0.654502, 20.5481, -160.568, -92.6084, 54.7925
3.29558, 2, -37.0391, 0.65449, 20.5481, -160.568, -92.6084, 54.7925
3.30353, 2, -37.0391, 0.654497, 20.5481, -160.568, -92.6084, 54.7925
3.31173, 2, -37.0391, 0.6545, 20.5481, -160.568, -92.6084, 54.7925
3.31975, 2, -37.0391, 0.654501, 20.5481, -160.568, -92.6085, 54.7925
3.32771, 2, -37.0391, 0.65452, 20.5481, -160.568, -92.6085, 54.7925
3.3359, 2, -37.0391, 0.654511, 20.5481, -160.568, -92.6085, 54.7925
3.3439, 2, -37.039, 0.654499, 20.548, -160.568, -92.6084, 54.7926
3.3519, 2, -37.039, 0.654496, 20.548, -160.568, -92.6084, 54.7926
3.36058, 2, -37.039, 0.654499, 20.548, -160.568, -92.6085, 54.7926
3.36808, 2, -37.039, 0.654501, 20.548, -160.568, -92.6085, 54.7926
3.37605, 2, -37.039, 0.65449, 20.548, -160.568, -92.6085, 54.7927
3.38418, 2, -37.039, 0.654497, 20.548, -160.567, -92.6085, 54.7927
3.39208, 2, -37.039, 0.6545, 20.548, -160.568, -92.6085, 54.7928
3.40012, 2, -37.039, 0.654501, 20.548, -160.568, -92.6085, 54.7928
3.40824, 2, -37.0389, 0.654502, 20.548, -160.567, -92.6085, 54.7928
3.41553, 2, -37.0389, 0.654502, 20.5479, -160.567, -92.6085, 54.7928
3.42348, 2, -37.0389, 0.654502, 20.5479, -160.567, -92.6085, 54.7928
3.4315, 2, -37.0389, 0.654502, 20.548, -160.567, -92.6085, 54.7929
3.43961, 2, -37.0388, 0.654521, 20.548, -160.567, -92.6086, 54.7929
3.44749, 2, -37.0388, 0.654511, 20.548, -160.567, -92.6086, 54.7928
3.45552, 2, -37.0388, 0.654525, 20.5479, -160.567, -92.6085, 54.7929
3.46352, 2, -37.0388, 0.654513, 20.5479, -160.567, -92.6085, 54.7929
3.47148, 2, -37.0388, 0.654507, 20.5479, -160.567, -92.6085, 54.7929
3.47957, 2, -37.0388, 0.654505, 20.5479, -160.567, -92.6085, 54.7929
3.48753, 2, -37.0388, 0.654504, 20.5479, -160.567, -92.6086, 54.793
3.49548, 2, -37.0388, 0.654503, 20.5479, -160.567, -92.6086, 54.7929
3.5035, 2, -37.0388, 0.654503, 20.5479, -160.567, -92.6086, 54.7929
3.51153, 2, -37.0388, 0.654503, 20.5479, -160.567, -92.6086, 54.793
3.51953, 2, -37.0388, 0.654503, 20.5479, -160.567, -92.6086, 54.793
3.52751, 2, -37.0387, 0.654503, 20.5479, -160.567, -92.6086, 54.793
3.53649, 2, -37.0387, 0.654503, 20.5478, -160.567, -92.6085, 54.793
3.54347, 2, -37.0387, 0.654503, 20.5479, -160.567, -92.6086, 54.793
3.5515, 2, -37.0387, 0.654503, 20.5478, -160.567, -92.6086, 54.7931
3.55958, 2, -37.0388, 0.654513, 20.5478, -160.567, -92.6086, 54.7931
3.56852, 2, -37.0388, 0.654515, 20.5478, -160.567, -92.6086, 54.7931
3.57554, 2, -37.0387, 0.654508, 20.5478, -160.567, -92.6086, 54.7931
3.58354, 2, -37.0388, 0.654505, 20.5478, -160.567, -92.6086, 54.7931
3.59148, 2, -37.0387, 0.654504, 20.5478, -160.567, -92.6087, 54.7931
3.59956, 2, -37.0387, 0.654503, 20.5478, -160.567, -92.6086, 54.7931
3.60754, 2, -37.0387, 0.654503, 20.5478, -160.567, -92.6086, 54.7931
3.61547, 2, -37.0386, 0.654503, 20.5478, -160.567, -92.6086, 54.7931
3.62352, 2, -37.0386, 0.654503, 20.5478, -160.567, -92.6087, 54.7931
3.63154, 2, -37.0386, 0.654503, 20.5478, -160.567, -92.6087, 54.7931
3.63969, 2, -37.0386, 0.654503, 20.5478, -160.567, -92.6086, 54.7932
3.6485, 2, -37.0386, 0.654503, 20.5478, -160.567, -92.6087, 54.7931
3.65554, 2, -37.0386, 0.654521, 20.5478, -160.567, -92.6087, 54.7931
3.66347, 2, -37.0386, 0.65454, 20.5478, -160.567, -92.6087, 54.7932
3.67148, 2, -37.0386, 0.654527, 20.5478, -160.567, -92.6086, 54.7932
3.67971, 2, -37.0385, 0.654514, 20.5477, -160.567, -92.6086, 54.7931
3.68749, 2, -37.0386, 0.654526, 20.5477, -160.567, -92.6086, 54.7932
3.69548, 2, -37.0386, 0.654513, 20.5477, -160.567, -92.6086, 54.7932
3.70351, 4, -37.0386, 0.654507, 20.5477, -160.567, -92.6087, 54.7932
3.71148, 4, -37.0386, 0.654505, 20.5477, -160.567, -92.6087, 54.7932
3.71953, 4, -37.0385, 0.654504, 20.5477, -160.567, -92.6087, 54.7932
3.72758, 4, -37.0385, 0.654514, 20.5477, -160.567, -92.6087, 54.7932
3.73554, 4, -37.0385, 0.654515, 20.5477, -160.567, -92.6087, 54.7932
3.74361, 4, -37.0385, 0.654538, 20.5477, -160.567, -92.6087, 54.7932
3.75169, 4, -37.0385, 0.654555, 20.5477, -160.567, -92.6087, 54.7932
3.75963, 4, -37.0385, 0.654553, 20.5477, -160.567, -92.6087, 54.7932
3.76766, 4, -37.0385, 0.654536, 20.5477, -160.567, -92.6087, 54.7932
3.77565, 4, -37.0384, 0.654526, 20.5477, -160.567, -92.6087, 54.7932
3.78348, 4, -37.0384, 0.654542, 20.5477, -160.567, -92.6087, 54.7932
3.79153, 4, -37.0384, 0.654539, 20.5477, -160.567, -92.6087, 54.7932
3.79962, 4, -37.0384, 0.654538, 20.5477, -160.567, -92.6087, 54.7933
3.80784, 4, -37.0384, 0.654526, 20.5476, -160.567, -92.6087, 54.7932
3.83966, 4, -37.0384, 0.654537, 20.5476, -160.567, -92.6087, 54.7933
3.84587, 4, -37.0384, 0.654555, 20.5476, -160.567, -92.6087, 54.7933
3.8477, 4, -37.0384, 0.654555, 20.5476, -160.567, -92.6087, 54.7932
3.84923, 4, -37.0383, 0.654549, 20.5476, -160.567, -92.6087, 54.7932
3.85042, 4, -37.0383, 0.654549, 20.5476, -160.567, -92.6087, 54.7932
3.85653, 4, -37.0376, 0.654402, 20.5476, -160.567, -92.6087, 54.7932
3.86479, 4, -37.035, 0.653479, 20.5477, -160.567, -92.6087, 54.7932
3.8758, 4, -37.0291, 0.65064, 20.5486, -160.567, -92.6087, 54.7932
3.88005, 4, -37.0196, 0.644752, 20.5512, -160.567, -92.6088, 54.7932
3.89028, 4, -37.0061, 0.635227, 20.5567, -160.566, -92.6088, 54.7932
3.89678, 4, -36.9879, 0.621512, 20.5664, -160.564, -92.6087, 54.7931
3.90547, 5, -36.964, 0.603214, 20.5819, -160.561, -92.6087, 54.7932
3.91208, 5, -36.95, 0.592441, 20.5921, -160.559, -92.6086, 54.7931
3.92038, 5, -36.9184, 0.567472, 20.6174, -160.554, -92.6081, 54.7931
3.92747, 5, -36.8821, 0.538018, 20.6496, -160.547, -92.6078, 54.7931
3.93543, 5, -36.8408, 0.504051, 20.6881, -160.539, -92.6069, 54.7931
3.94563, 5, -36.7691, 0.444253, 20.7558, -160.523, -92.6049, 54.793
3.95268, 5, -36.715, 0.399273, 20.806, -160.512, -92.6032, 54.7929
3.9596, 5, -36.6863, 0.375498, 20.832, -160.506, -92.6024, 54.7929
3.96762, 5, -36.6259, 0.326016, 20.8856, -160.494, -92.6006, 54.7929
3.97691, 5, -36.5285, 0.248016, 20.9681, -160.476, -92.5979, 54.793
3.98491, 5, -36.4612, 0.194659, 21.0235, -160.463, -92.5961, 54.793
3.99147, 5, -36.4271, 0.167845, 21.0512, -160.457, -92.5952, 54.7929
3.99953, 5, -36.3585, 0.114039, 21.1067, -160.445, -92.5933, 54.7929
4.00754, 5, -36.2897, 0.0601239, 21.1621, -160.433, -92.5914, 54.793
4.01561, 5, -36.2208, 0.00635874, 21.2175, -160.421, -92.5895, 54.793
4.02506, 5, -36.1519, -0.0472309, 21.2729, -160.403, -92.5866, 54.7931
4.03146, 5, -36.0832, -0.100619, 21.3283, -160.397, -92.5856, 54.7931
4.04123, 5, -36.0146, -0.153725, 21.3835, -160.384, -92.5836, 54.7933
4.05126, 5, -35.9117, -0.233128, 21.4663, -160.365, -92.5806, 54.7935
4.05546, 5, -35.8774, -0.259507, 21.4938, -160.358, -92.5796, 54.7937
4.06647, 5, -35.7742, -0.338461, 21.5763, -160.339, -92.5766, 54.7945
4.07171, 5, -35.7396, -0.364802, 21.6037, -160.333, -92.5756, 54.7948
4.08168, 5, -35.6357, -0.443776, 21.6858, -160.314, -92.5726, 54.7963
4.08749, 5, -35.6008, -0.470144, 21.713, -160.308, -92.5716, 54.7969
4.09563, 5, -35.5311, -0.522894, 21.7674, -160.295, -92.5695, 54.798
4.10444, 5, -35.461, -0.575623, 21.8216, -160.283, -92.5675, 54.7994
4.11247, 5, -35.3907, -0.628374, 21.8756, -160.27, -92.5654, 54.801
4.11975, 5, -35.3203, -0.681041, 21.9295, -160.257, -92.5633, 54.8026
4.12853, 5, -35.2497, -0.733727, 21.9834, -160.244, -92.5613, 54.8044
4.13548, 5, -35.1791, -0.786067, 22.0371, -160.231, -92.5592, 54.8064
4.14367, 5, -35.1084, -0.838217, 22.0908, -160.217, -92.5571, 54.8084
4.15147, 5, -35.0378, -0.890319, 22.1443, -160.204, -92.5549, 54.8106
4.15953, 5, -34.9672, -0.94206, 22.1976, -160.191, -92.5528, 54.8129
4.16787, 5, -34.8967, -0.993595, 22.2509, -160.178, -92.5507, 54.8154
4.17628, 5, -34.8262, -1.045, 22.3041, -160.165, -92.5485, 54.8179
4.18347, 5, -34.7556, -1.09638, 22.3571, -160.152, -92.5463, 54.8206
4.19229, 5, -34.6849, -1.14773, 22.4099, -160.14, -92.544, 54.8233
4.19952, 5, -34.614, -1.19897, 22.4625, -160.127, -92.5418, 54.8263
4.20748, 5, -34.5429, -1.25029, 22.5149, -160.114, -92.5396, 54.8293
4.21758, 5, -34.4717, -1.3016, 22.5672, -160.1, -92.5374, 54.8324
4.22361, 5, -34.4003, -1.35289, 22.6194, -160.086, -92.5351, 54.8356
4.23192, 5, -34.3287, -1.40421, 22.6714, -160.072, -92.5328, 54.8389
4.23959, 5, -34.2571, -1.45542, 22.7233, -160.059, -92.5306, 54.8424
4.2476, 5, -34.1852, -1.50644, 22.7751, -160.045, -92.5283, 54.8459
4.25574, 5, -34.1131, -1.55721, 22.8267, -160.032, -92.526, 54.8497
4.26356, 5, -34.041, -1.60784, 22.8782, -160.018, -92.5236, 54.8534
4.27181, 5, -33.9689, -1.65824, 22.9297, -160.005, -92.5213, 54.8573
4.27962, 5, -33.8966, -1.7084, 22.981, -159.991, -92.519, 54.8614
4.28746, 5, -33.8245, -1.7584, 23.0321, -159.978, -92.5167, 54.8654
4.29583, 5, -33.7523, -1.80832, 23.0831, -159.964, -92.5143, 54.8696
4.30349, 5, -33.6799, -1.85818, 23.1339, -159.95, -92.5121, 54.8739
4.31233, 5, -33.6075, -1.90798, 23.1845, -159.935, -92.5098, 54.8782
4.31994, 5, -33.5349, -1.95799, 23.2349, -159.921, -92.5075, 54.8825
4.32768, 5, -33.4621, -2.00836, 23.2854, -159.907, -92.5053, 54.8864
4.33659, 5, -33.3894, -2.05905, 23.3357, -159.893, -92.503, 54.8894
4.3441, 5, -33.3169, -2.11019, 23.3861, -159.879, -92.5006, 54.891
4.35229, 6, -33.2445, -2.16191, 23.4368, -159.864, -92.498, 54.8912
4.36084, 6, -33.1727, -2.21449, 23.4878, -159.85, -92.4949, 54.8895
4.36798, 6, -33.1011, -2.26799, 23.5395, -159.834, -92.4912, 54.8846
4.37658, 6, -33.03, -2.32245, 23.5922, -159.817, -92.4865, 54.8743
4.38486, 7, -32.9594, -2.3781, 23.646, -159.799, -92.4803, 54.8603
4.39228, 7, -32.8892, -2.43495, 23.701, -159.78, -92.4724, 54.8438
4.40171, 7, -32.8196, -2.49329, 23.7574, -159.759, -92.4626, 54.8263
4.40801, 7, -32.7851, -2.52299, 23.7861, -159.748, -92.457, 54.8089
4.41605, 7, -32.7166, -2.58362, 23.8444, -159.726, -92.4442, 54.8004
4.42351, 8, -32.6486, -2.64583, 23.9041, -159.703, -92.4296, 54.7836
4.43146, 8, -32.5814, -2.70978, 23.9649, -159.678, -92.4131, 54.7669
4.44267, 8, -32.4818, -2.80879, 24.0581, -159.638, -92.3848, 54.7403
4.44765, 8, -32.4489, -2.84258, 24.0897, -159.624, -92.3746, 54.7309
4.45654, 8, -32.3837, -2.91125, 24.1536, -159.596, -92.3421, 54.7
4.46345, 9, -32.3191, -2.98131, 24.2185, -159.568, -92.3308, 54.6888
4.47159, 9, -32.2551, -3.0526, 24.2843, -159.538, -92.3071, 54.6651
4.47947, 9, -32.1916, -3.12526, 24.3512, -159.506, -92.2822, 54.6397
4.48747, 9, -32.1286, -3.19917, 24.419, -159.474, -92.2555, 54.6131
4.49545, 9, -32.0662, -3.27437, 24.4878, -159.442, -92.2271, 54.5854
4.5035, 10, -32.0044, -3.35088, 24.5576, -159.408, -92.1974, 54.556
4.51148, 10, -31.9433, -3.42875, 24.6284, -159.373, -92.1667, 54.5248
4.51958, 10, -31.8827, -3.50808, 24.7003, -159.337, -92.1347, 54.4915
4.52759, 10, -31.8225, -3.5888, 24.7734, -159.301, -92.1008, 54.4565
4.53545, 10, -31.763, -3.67097, 24.8473, -159.264, -92.0652, 54.4205
4.54445, 11, -31.7041, -3.75458, 24.9223, -159.225, -92.0289, 54.3832
4.55153, 11, -31.6456, -3.83974, 24.9982, -159.185, -91.9916, 54.3442
4.56055, 11, -31.5877, -3.92634, 25.075, -159.145, -91.9522, 54.3032
4.5676, 11, -31.5304, -4.01437, 25.1527, -159.104, -91.9112, 54.2607
4.57634, 11, -31.4736, -4.10389, 25.2316, -159.061, -91.8696, 54.2171
4.58447, 12, -31.4173, -4.19492, 25.3115, -159.018, -91.8263, 54.1721
4.59271, 12, -31.3615, -4.28732, 25.3924, -158.975, -91.7809, 54.1249
4.60003, 12, -31.3062, -4.38112, 25.4745, -158.929, -91.7349, 54.076
4.60747, 12, -31.2514, -4.47625, 25.5576, -158.883, -91.6878, 54.0263
4.61622, 12, -31.1971, -4.57277, 25.6417, -158.837, -91.6384, 53.9748
4.62341, 13, -31.1434, -4.67074, 25.7268, -158.788, -91.5885, 53.9213
4.63148, 13, -31.0901, -4.77008, 25.8128, -158.739, -91.5369, 53.8668
4.64229, 13, -31.0112, -4.92185, 25.9437, -158.665, -91.4565, 53.7824
4.64762, 13, -30.9851, -4.97323, 25.9879, -158.639, -91.4295, 53.7532
4.65576, 13, -30.9334, -5.07699, 26.0771, -158.588, -91.3737, 53.6939
4.66341, 14, -30.8822, -5.18217, 26.1675, -158.535, -91.3165, 53.6339
4.67147, 14, -30.8316, -5.28887, 26.2588, -158.481, -91.2588, 53.5716
4.67952, 14, -30.7816, -5.39702, 26.3511, -158.428, -91.1985, 53.5081
4.68744, 14, -30.732, -5.50665, 26.4442, -158.373, -91.1381, 53.4439
4.70031, 14, -30.6587, -5.67399, 26.5858, -158.288, -91.0435, 53.3435
4.70351, 14, -30.6345, -5.73049, 26.6336, -158.26, -91.0116, 53.3096
4.71146, 15, -30.5864, -5.84454, 26.7299, -158.201, -90.9466, 53.241
4.71961, 15, -30.539, -5.95979, 26.8275, -158.143, -90.8798, 53.17
4.72844, 15, -30.4921, -6.07642, 26.9261, -158.083, -90.8126, 53.0984
4.73553, 15, -30.4455, -6.1946, 27.0256, -158.023, -90.7431, 53.0249
4.74356, 15, -30.3996, -6.31406, 27.1259, -157.961, -90.6729, 52.9496
4.75159, 16, -30.3542, -6.43516, 27.2272, -157.898, -90.6006, 52.8735
4.75963, 16, -30.3093, -6.55775, 27.3297, -157.835, -90.5279, 52.7948
4.76772, 16, -30.2648, -6.68161, 27.4333, -157.771, -90.4533, 52.7157
4.77634, 16, -30.2209, -6.8071, 27.5381, -157.706, -90.3777, 52.6348
4.78362, 16, -30.1774, -6.93408, 27.6439, -157.64, -90.3004, 52.5525
4.79167, 17, -30.1343, -7.06267, 27.7504, -157.573, -90.2222, 52.4692
4.79948, 17, -30.0918, -7.19286, 27.8579, -157.505, -90.1424, 52.3844
4.80755, 17, -30.0498, -7.32449, 27.9663, -157.436, -90.0611, 52.2987
4.81692, 17, -30.0083, -7.45733, 28.0759, -157.367, -89.9789, 52.2108
4.82622, 17, -29.9673, -7.59156, 28.1867, -157.296, -89.8951, 52.1224
4.8317, 18, -29.9268, -7.7273, 28.2987, -157.225, -89.8102, 52.032
4.83989, 18, -29.8868, -7.86444, 28.4114, -157.152, -89.7237, 51.9408
4.8486, 18, -29.8473, -8.00294, 28.525, -157.079, -89.6365, 51.8475
4.8575, 18, -29.8082, -8.14264, 28.6396, -157.005, -89.5477, 51.7534
4.8639, 18, -29.7696, -8.28369, 28.7554, -156.93, -89.4575, 51.6576
4.87203, 19, -29.7316, -8.42607, 28.8724, -156.854, -89.3665, 51.5612
4.88001, 19, -29.6939, -8.57018, 28.9905, -156.777, -89.274, 51.4631
4.88816, 19, -29.6567, -8.71579, 29.1094, -156.7, -89.1801, 51.3643
4.89716, 19, -29.62, -8.86261, 29.229, -156.621, -89.0854, 51.2642
4.90471, 19, -29.5837, -9.01073, 29.3495, -156.541, -88.9894, 51.1632
4.912, 20, -29.5658, -9.08537, 29.4102, -156.501, -88.9409, 51.0607
4.91944, 20, -29.5304, -9.23574, 29.5326, -156.421, -88.8433, 51.0092
4.92748, 20, -29.4952, -9.38767, 29.656, -156.339, -88.7448, 50.9048
4.93548, 20, -29.4606, -9.54086, 29.7803, -156.256, -88.6451, 50.7995
4.94356, 20, -29.4264, -9.6951, 29.9054, -156.173, -88.5442, 50.6928
4.9516, 21, -29.3928, -9.85066, 30.0315, -156.089, -88.4424, 50.5849
4.95951, 21, -29.3595, -10.0077, 30.1585, -156.003, -88.3392, 50.4762
4.96762, 21, -29.3266, -10.1663, 30.2867, -155.917, -88.2352, 50.3661
4.97564, 21, -29.2942, -10.326, 30.4158, -155.83, -88.1301, 50.2554
4.98348, 21, -29.2621, -10.4866, 30.5458, -155.743, -88.0237, 50.1439
4.99148, 21, -29.2306, -10.6484, 30.6766, -155.654, -87.9166, 50.0313
4.99948, 22, -29.1994, -10.8117, 30.8084, -155.564, -87.8085, 49.918
5.00745, 22, -29.1685, -10.9764, 30.9411, -155.474, -87.6992, 49.8038
5.01767, 22, -29.1382, -11.1418, 31.0748, -155.337, -87.5336, 49.6305
5.02343, 22, -29.1082, -11.3083, 31.2093, -155.29, -87.4778, 49.5725
5.03143, 22, -29.0786, -11.4764, 31.3449, -155.197, -87.3657, 49.4555
5.04043, 23, -29.0493, -11.6462, 31.4812, -155.103, -87.2527, 49.338
5.04764, 23, -29.0203, -11.817, 31.6184, -155.009, -87.1386, 49.2195
5.05543, 23, -28.9918, -11.9885, 31.7563, -154.913, -87.0239, 49.1006
5.06685, 23, -28.9497, -12.2482, 31.9648, -154.768, -86.8499, 48.9212
5.07159, 23, -28.9359, -12.3355, 32.0348, -154.719, -86.7915, 48.861
5.07941, 24, -28.9085, -12.511, 32.1755, -154.621, -86.674, 48.7405
5.08744, 24, -28.8814, -12.6869, 32.3169, -154.522, -86.5553, 48.6195
5.09563, 24, -28.8546, -12.8635, 32.4589, -154.422, -86.4362, 48.4974
5.1044, 24, -28.8282, -13.0416, 32.6018, -154.322, -86.3158, 48.3749
5.11248, 24, -28.8021, -13.2213, 32.7458, -154.22, -86.195, 48.252
5.12044, 25, -28.7764, -13.4014, 32.8904, -154.118, -86.0735, 48.1287
5.1275, 25, -28.751, -13.5822, 33.0357, -154.015, -85.9509, 48.0052
5.13545, 25, -28.7257, -13.7644, 33.1815, -153.911, -85.8282, 47.8818
5.14349, 25, -28.7006, -13.9479, 33.328, -153.807, -85.7042, 47.7579
5.15149, 25, -28.6759, -14.1321, 33.4755, -153.701, -85.5798, 47.634
5.15945, 26, -28.6514, -14.3167, 33.6237, -153.595, -85.4549, 47.5101
5.16766, 26, -28.6273, -14.5024, 33.7723, -153.488, -85.3292, 47.3858
5.17646, 26, -28.6035, -14.6898, 33.9214, -153.38, -85.2033, 47.2614
5.18442, 26, -28.5798, -14.8776, 34.0716, -153.271, -85.0763, 47.1372
5.19182, 26, -28.5561, -15.0656, 34.2224, -153.162, -84.9491, 47.0131
5.19964, 27, -28.5328, -15.2543, 34.3735, -153.052, -84.8212, 46.889
5.20747, 27, -28.5097, -15.444, 34.5252, -152.942, -84.693, 46.7659
5.21753, 27, -28.4868, -15.6342, 34.6775, -152.83, -84.564, 46.6425
5.22391, 27, -28.4641, -15.8245, 34.8307, -152.718, -84.4347, 46.5193
5.23144, 27, -28.4417, -16.016, 34.9842, -152.605, -84.3051, 46.3967
5.23943, 28, -28.4194, -16.209, 35.1377, -152.492, -84.175, 46.2742
5.2478, 28, -28.3971, -16.4025, 35.2918, -152.378, -84.0445, 46.1521
5.25553, 28, -28.3749, -16.5965, 35.4468, -152.263, -83.9136, 46.0306
5.2639, 28, -28.3529, -16.7914, 35.6023, -152.148, -83.7826, 45.9097
5.27169, 28, -28.3308, -16.9872, 35.7578, -152.032, -83.651, 45.7897
5.28041, 29, -28.3088, -17.1831, 35.9136, -151.915, -83.5195, 45.6706
5.28804, 29, -28.2869, -17.3789, 36.0701, -151.797, -83.3874, 45.5524
5.29577, 29, -28.2652, -17.5756, 36.2271, -151.679, -83.2551, 45.4352
5.30489, 29, -28.2433, -17.7729, 36.384, -151.561, -83.1224, 45.319
5.31147, 29, -28.2215, -17.9701, 36.541, -151.442, -82.9896, 45.2035
5.31969, 29, -28.2, -18.1675, 36.6988, -151.322, -82.8565, 45.0894
5.32844, 30, -28.1784, -18.3657, 36.8571, -151.202, -82.7234, 44.9762
5.33562, 30, -28.1568, -18.5643, 37.0153, -151.081, -82.5903, 44.8645
5.3449, 30, -28.1353, -18.7628, 37.1734, -150.959, -82.4567, 44.7542
5.35266, 30, -28.1137, -18.9621, 37.3319, -150.837, -82.3233, 44.6455
5.3599, 30, -28.092, -19.1625, 37.4909, -150.715, -82.1892, 44.5385
5.36884, 31, -28.0703, -19.3629, 37.65, -150.592, -82.0556, 44.4327
5.37595, 31, -28.0487, -19.5632, 37.8088, -150.468, -81.9215, 44.3286
5.3846, 31, -28.0273, -19.7641, 37.9682, -150.344, -81.7876, 44.2262
5.39297, 31, -28.0057, -19.9653, 38.1281, -150.218, -81.6534, 44.1251
5.40098, 31, -27.984, -20.1662, 38.2883, -150.093, -81.5191, 44.0256
5.40854, 32, -27.9624, -20.3671, 38.4481, -149.966, -81.3848, 43.9276
5.416, 32, -27.9515, -20.4679, 38.5279, -149.903, -81.3176, 43.8793
5.42489, 32, -27.9184, -20.7708, 38.7682, -149.712, -81.1164, 43.7377
5.43252, 32, -27.8962, -20.9723, 38.9286, -149.584, -80.9822, 43.6462
5.43945, 32, -27.885, -21.0729, 39.0086, -149.52, -80.9153, 43.6014
5.44743, 33, -27.8624, -21.2745, 39.1679, -149.392, -80.7817, 43.5137
5.45542, 33, -27.8396, -21.4759, 39.3273, -149.264, -80.6486, 43.4296
5.46345, 33, -27.8162, -21.6764, 39.4868, -149.136, -80.5158, 43.3481
5.47156, 33, -27.7924, -21.8762, 39.6455, -149.007, -80.3836, 43.2705
5.47941, 33, -27.768, -22.076, 39.8031, -148.88, -80.252, 43.1958
5.48887, 34, -27.7305, -22.3742, 40.0386, -148.688, -80.0553, 43.091
5.49543, 34, -27.7178, -22.4729, 40.117, -148.624, -79.9899, 43.0578
5.50342, 34, -27.6919, -22.6701, 40.2734, -148.496, -79.8591, 42.993
5.51142, 34, -27.6656, -22.8673, 40.4289, -148.368, -79.7285, 42.9322
5.51959, 34, -27.6387, -23.0638, 40.584, -148.241, -79.5977, 42.8749
5.52739, 35, -27.6112, -23.2593, 40.7393, -148.113, -79.4671, 42.8201
5.53549, 35, -27.5837, -23.4549, 40.8944, -147.984, -79.3364, 42.769
5.54378, 35, -27.5558, -23.6509, 41.0488, -147.855, -79.206, 42.7218
5.5552, 35, -27.5134, -23.9436, 41.2798, -147.661, -79.0106, 42.6567
5.55942, 35, -27.4993, -24.0409, 41.3569, -147.596, -78.9455, 42.6365
5.56841, 36, -27.4706, -24.2357, 41.5111, -147.466, -78.8157, 42.599
5.57542, 36, -27.4414, -24.4304, 41.6647, -147.336, -78.6858, 42.5657
5.58341, 36, -27.412, -24.6241, 41.8175, -147.205, -78.5568, 42.5367
5.59552, 36, -27.3671, -24.9137, 42.0464, -147.008, -78.3635, 42.501
5.60066, 36, -27.3517, -25.0103, 42.1224, -146.943, -78.2994, 42.4914
5.60994, 37, -27.3045, -25.2988, 42.349, -146.747, -78.1076, 42.469
5.61641, 37, -27.2883, -25.3943, 42.424, -146.682, -78.0439, 42.4638
5.62465, 37, -27.2555, -25.5845, 42.5732, -146.552, -77.9169, 42.4572
5.63195, 37, -27.2218, -25.7743, 42.7217, -146.422, -77.7902, 42.4542
5.64042, 37, -27.1871, -25.9628, 42.8691, -146.293, -77.6641, 42.4541
5.64748, 37, -27.1515, -26.1493, 43.0151, -146.165, -77.5383, 42.4596
5.65546, 38, -27.115, -26.3345, 43.1598, -146.038, -77.4133, 42.4717
5.66343, 38, -27.0778, -26.5191, 43.3037, -145.911, -77.2887, 42.489
5.67153, 38, -27.0397, -26.7024, 43.4467, -145.784, -77.1647, 42.512
5.67966, 38, -27.0008, -26.8841, 43.5888, -145.658, -77.0412, 42.5404
5.68847, 38, -26.9611, -27.065, 43.7299, -145.532, -76.918, 42.5746
5.69542, 39, -26.9208, -27.2458, 43.8701, -145.406, -76.7955, 42.6151
5.70348, 39, -26.8797, -27.4256, 44.0095, -145.28, -76.6727, 42.6615
5.71142, 39, -26.8376, -27.6042, 44.1482, -145.154, -76.5504, 42.7132
5.72156, 39, -26.795, -27.782, 44.2861, -145.028, -76.428, 42.7709
5.72757, 39, -26.7516, -27.9598, 44.423, -144.903, -76.3057, 42.8354
5.73741, 40, -26.7074, -28.1366, 44.5589, -144.778, -76.1834, 42.9052
5.74348, 40, -26.662, -28.3117, 44.6939, -144.653, -76.0614, 42.9821
5.75156, 40, -26.6158, -28.4856, 44.8276, -144.529, -75.9398, 43.0652
5.75951, 40, -26.5687, -28.6585, 44.9601, -144.406, -75.8182, 43.1542
5.76761, 40, -26.5204, -28.8301, 45.0911, -144.284, -75.6976, 43.2507
5.77566, 41, -26.471, -28.9996, 45.2207, -144.162, -75.5772, 43.3534
5.78447, 41, -26.4205, -29.1674, 45.3489, -144.041, -75.4572, 43.4631
5.79158, 41, -26.3687, -29.3341, 45.4756, -143.922, -75.338, 43.5794
5.80006, 41, -26.3156, -29.4993, 45.6008, -143.803, -75.2188, 43.7027
5.80841, 41, -26.2611, -29.6626, 45.7243, -143.686, -75.1005, 43.8334
5.81546, 42, -26.2053, -29.8238, 45.8459, -143.57, -74.9827, 43.9713
5.82467, 42, -26.1479, -29.9833, 45.9656, -143.456, -74.8651, 44.1166
5.83241, 42, -26.0891, -30.1412, 46.0834, -143.343, -74.7485, 44.2687
5.84044, 42, -26.0286, -30.297, 46.1993, -143.232, -74.6318, 44.4282
5.84803, 42, -25.9666, -30.4503, 46.3131, -143.122, -74.516, 44.5948
5.85623, 43, -25.903, -30.6014, 46.4249, -143.015, -74.4006, 44.7689
5.86475, 43, -25.8377, -30.7504, 46.5345, -142.909, -74.2856, 44.9508
5.87241, 43, -25.7708, -30.8973, 46.6419, -142.805, -74.1711, 45.1403
5.88381, 43, -25.7022, -31.0418, 46.7475, -142.703, -74.0566, 45.4392
5.88793, 43, -25.632, -31.1839, 46.8511, -142.603, -73.9429, 45.5425
5.89653, 43, -25.5601, -31.3238, 46.9528, -142.504, -73.8297, 45.7551
5.90504, 44, -25.5236, -31.4616, 47.0522, -142.408, -73.7167, 45.9757
5.91247, 44, -25.411, -31.5971, 47.1491, -142.314, -73.6043, 46.2044
5.92252, 44, -25.3337, -31.7302, 47.2435, -142.222, -73.4923, 46.441
5.92827, 44, -25.2944, -31.7957, 47.2898, -142.133, -73.3809, 46.6861
5.93762, 45, -25.1735, -31.9882, 47.4252, -142.047, -73.2701, 46.9392
5.9434, 45, -25.1323, -32.051, 47.4691, -142.004, -73.2149, 47.069
5.95165, 45, -25.0484, -32.1745, 47.555, -141.922, -73.105, 47.3349
5.96052, 45, -24.9185, -32.3546, 47.6786, -141.804, -72.9416, 47.7493
5.9674, 45, -24.8743, -32.4131, 47.7183, -141.766, -72.8874, 47.8915
5.97542, 45, -24.7839, -32.5279, 47.7953, -141.693, -72.7799, 48.1822
5.98479, 46, -24.6441, -32.6938, 47.9054, -141.59, -72.6198, 48.6347
5.99146, 46, -24.5964, -32.7475, 47.9406, -141.557, -72.5669, 48.7897
5.99955, 46, -24.499, -32.8524, 48.0088, -141.493, -72.4619, 49.1058
6.00752, 46, -24.3994, -32.9537, 48.0739, -141.435, -72.3575, 49.4309
6.01541, 46, -24.2975, -33.0513, 48.1356, -141.379, -72.2542, 49.7644
6.02498, 47, -24.1402, -33.1906, 48.2216, -141.304, -72.1012, 50.2797
6.03141, 47, -24.0865, -33.235, 48.2484, -141.28, -72.0507, 50.4558
6.04102, 47, -23.9772, -33.3208, 48.2993, -141.217, -71.9009, 50.9964
6.04757, 47, -23.8652, -33.4024, 48.3465, -141.198, -71.8515, 51.1808
6.05623, 47, -23.7505, -33.4799, 48.3898, -141.164, -71.7534, 51.5561
6.06336, 48, -23.6329, -33.553, 48.4291, -141.135, -71.6568, 51.9399
6.07234, 48, -23.5128, -33.6217, 48.4643, -141.11, -71.562, 52.3318
6.08048, 48, -23.39, -33.6857, 48.4953, -141.089, -71.4686, 52.7328
6.0874, 48, -23.2648, -33.7448, 48.5222, -141.074, -71.3771, 53.1426
6.09646, 48, -23.1368, -33.7989, 48.5448, -141.064, -71.2877, 53.5612
6.10601, 49, -22.9396, -33.8705, 48.5705, -141.058, -71.1571, 54.205
6.11141, 49, -22.8724, -33.8917, 48.5768, -141.058, -71.1144, 54.4232
6.12187, 49, -22.6664, -33.947, 48.5886, -141.068, -70.99, 55.0899
6.1274, 49, -22.5962, -33.9626, 48.5903, -141.074, -70.9495, 55.316
6.13547, 49, -22.4538, -33.9895, 48.5904, -141.091, -70.8703, 55.7738
6.1434, 50, -22.3086, -34.0105, 48.5856, -141.115, -70.7934, 56.2396
6.15157, 50, -22.1608, -34.0252, 48.5757, -141.144, -70.7195, 56.7123
6.15951, 50, -22.0102, -34.0337, 48.5607, -141.179, -70.6482, 57.193
6.16743, 50, -21.8568, -34.0361, 48.5405, -141.22, -70.5803, 57.6819
6.17656, 50, -21.7004, -34.0324, 48.5148, -141.269, -70.515, 58.1782
6.18345, 51, -21.5408, -34.022, 48.4836, -141.322, -70.4542, 58.6814
6.19149, 51, -21.3783, -34.0047, 48.4472, -141.383, -70.3959, 59.1904
6.19954, 51, -21.2133, -33.9807, 48.4053, -141.449, -70.3418, 59.7058
6.2093, 51, -21.0456, -33.9496, 48.3578, -141.521, -70.2914, 60.2268
6.21546, 51, -20.8754, -33.9115, 48.3049, -141.6, -70.2442, 60.7535
6.22426, 51, -20.7028, -33.8661, 48.2461, -141.685, -70.2016, 61.285
6.23155, 52, -20.5275, -33.8129, 48.1815, -141.777, -70.1638, 61.8227
6.23943, 52, -20.3495, -33.7519, 48.111, -141.874, -70.1303, 62.3666
6.25161, 52, -20.1687, -33.6829, 47.9938, -142.032, -70.0886, 63.194
6.25658, 52, -19.9853, -33.6056, 47.9516, -142.088, -70.0774, 63.4727
6.2654, 52, -19.7993, -33.5198, 47.8623, -142.205, -70.0589, 64.035
6.27154, 53, -19.6112, -33.4254, 47.7667, -142.327, -70.0462, 64.6034
6.27957, 53, -19.4211, -33.3226, 47.6647, -142.456, -70.039, 65.178
6.28757, 53, -19.2288, -33.2115, 47.5566, -142.592, -70.037, 65.7568
6.2954, 53, -19.0347, -33.0921, 47.4424, -142.732, -70.0403, 66.3406
6.30375, 53, -18.8388, -32.9642, 47.3219, -142.879, -70.0499, 66.9284
6.31246, 54, -18.6408, -32.8279, 47.1954, -143.03, -70.0658, 67.518
6.31948, 54, -18.4411, -32.6831, 47.0631, -143.186, -70.0883, 68.1084
6.3276, 54, -18.2394, -32.5302, 46.9255, -143.346, -70.1177, 68.7002
6.33568, 54, -18.0362, -32.3692, 46.7823, -143.511, -70.1531, 69.293
6.34368, 54, -17.8319, -32.1993, 46.6335, -143.68, -70.1945, 69.8868
6.35203, 55, -17.6268, -32.0203, 46.4787, -143.853, -70.244, 70.4822
6.36022, 55, -17.4207, -31.8322, 46.318, -144.031, -70.301, 71.0814
6.3685, 55, -17.2129, -31.635, 46.151, -144.214, -70.3654, 71.6847
6.37686, 55, -17.0036, -31.4277, 45.9766, -144.402, -70.4391, 72.2918
6.38485, 55, -16.7925, -31.2095, 45.7947, -144.594, -70.5208, 72.904
6.39199, 56, -16.5798, -30.9812, 45.6063, -144.792, -70.6122, 73.5208
6.40001, 56, -16.3657, -30.7425, 45.411, -144.994, -70.7123, 74.1415
6.4087, 56, -16.1506, -30.4923, 45.2074, -145.2, -70.822, 74.7651
6.41589, 56, -16.043, -30.3631, 45.1028, -145.304, -70.8805, 75.0783
6.4234, 56, -15.828, -30.0972, 44.8895, -145.516, -71.0043, 75.7067
6.4325, 57, -15.5047, -29.6773, 44.5562, -145.84, -71.2084, 76.6526
6.43943, 57, -15.3963, -29.5323, 44.4413, -145.949, -71.2813, 76.9685
6.44741, 57, -15.1786, -29.2343, 44.2071, -146.17, -71.4348, 77.6016
6.45542, 57, -14.9602, -28.9259, 43.9661, -146.392, -71.5981, 78.2356
6.46468, 57, -14.6329, -28.4474, 43.5936, -146.729, -71.8613, 79.1837
6.47135, 58, -14.5241, -28.2837, 43.4672, -146.841, -71.9534, 79.4988
6.48317, 58, -14.1993, -27.782, 43.0816, -147.177, -72.2413, 80.4376
6.4888, 58, -13.9847, -27.4379, 42.8211, -147.4, -72.4425, 81.0553
6.49544, 58, -13.8781, -27.2634, 42.6898, -147.51, -72.5455, 81.3615
6.50345, 58, -13.6659, -26.9093, 42.4248, -147.729, -72.7566, 81.969
6.5133, 59, -13.3499, -26.3661, 42.0225, -148.054, -73.0856, 82.8679
6.51939, 59, -13.2453, -26.1815, 41.8866, -148.161, -73.1987, 83.1641
6.53428, 59, -12.8317, -25.4266, 41.3349, -148.585, -73.671, 84.3387
6.53561, 59, -12.8317, -25.4266, 41.3349, -148.585, -73.671, 84.3387
6.54338, 59, -12.6268, -25.0392, 41.0531, -148.794, -73.9195, 84.9209
6.55239, 59, -12.4229, -24.6437, 40.7675, -149.002, -74.1774, 85.4996
6.55938, 60, -12.2199, -24.2409, 40.4769, -149.209, -74.4441, 86.0751
6.56839, 60, -12.0183, -23.8305, 40.1828, -149.414, -74.7201, 86.6479
6.57555, 60, -11.8181, -23.4136, 39.8849, -149.616, -75.0046, 87.2175
6.58344, 60, -11.6195, -22.9903, 39.5848, -149.816, -75.2977, 87.7819
6.59138, 60, -11.4232, -22.5622, 39.2826, -150.013, -75.5979, 88.3411
6.59939, 61, -11.2293, -22.1301, 38.9792, -150.206, -75.9045, 88.894
6.60751, 61, -11.0376, -21.6939, 38.675, -150.395, -76.2164, 89.439
6.61538, 61, -10.8481, -21.2541, 38.3704, -150.579, -76.5323, 89.9741
6.62596, 61, -10.5685, -20.5881, 37.9143, -150.844, -77.0139, 90.7588
6.63152, 61, -10.4764, -20.3644, 37.7622, -150.93, -77.1763, 91.0157
6.63942, 62, -10.2941, -19.9143, 37.4585, -151.098, -77.5045, 91.5228
6.64741, 62, -10.1147, -19.4608, 37.154, -151.261, -77.8373, 92.0215
6.65538, 62, -9.93801, -19.0049, 36.8494, -151.42, -78.1753, 92.5123
6.66344, 62, -9.76387, -18.5462, 36.5433, -151.574, -78.5192, 92.9969
6.67146, 62, -9.59214, -18.0852, 36.2366, -151.724, -78.8685, 93.474
6.67954, 63, -9.42249, -17.6222, 35.9294, -151.87, -79.2232, 93.944
6.6874, 63, -9.25503, -17.1572, 35.6228, -152.011, -79.5825, 94.4046
6.69545, 63, -9.08981, -16.6907, 35.3172, -152.146, -79.9454, 94.8559
6.70345, 63, -8.92717, -16.2225, 35.0126, -152.276, -80.3115, 95.2977
6.71138, 63, -8.76721, -15.7526, 34.7095, -152.401, -80.6799, 95.7282
6.7196, 64, -8.60989, -15.2817, 34.4083, -152.52, -81.0504, 96.1485
6.72804, 64, -8.45522, -14.8104, 34.1099, -152.633, -81.4224, 96.557
6.73722, 64, -8.3031, -14.3386, 33.8127, -152.741, -81.7963, 96.9543
6.74359, 64, -8.15349, -13.8672, 33.5176, -152.844, -82.172, 97.3406
6.75214, 64, -8.00637, -13.3968, 33.2241, -152.941, -82.5492, 97.715
6.76064, 65, -7.86179, -12.9279, 32.9332, -153.032, -82.9282, 98.0774
6.76946, 65, -7.71991, -12.4606, 32.6446, -153.118, -83.3082, 98.4279
6.77774, 65, -7.58075, -11.9946, 32.359, -153.198, -83.6892, 98.7651
6.784, 65, -7.44474, -11.5301, 32.0772, -153.272, -84.0708, 99.089
6.79245, 65, -7.31144, -11.0664, 31.798, -153.341, -84.4528, 99.3996
6.79938, 65, -7.18099, -10.604, 31.5226, -153.404, -84.8352, 99.6964
6.80847, 66, -7.05291, -10.1439, 31.2498, -153.461, -85.2177, 99.979
6.81591, 66, -6.92684, -9.68642, 30.9802, -153.514, -85.6009, 100.246
6.82369, 66, -6.80278, -9.23335, 30.7144, -153.56, -85.9839, 100.499
6.8319, 66, -6.68087, -8.78597, 30.4516, -153.601, -86.3658, 100.735
6.83997, 66, -6.5613, -8.34416, 30.1938, -153.637, -86.7454, 100.955
6.84772, 67, -6.44428, -7.90868, 29.9411, -153.667, -87.1211, 101.157
6.8558, 67, -6.3303, -7.47922, 29.6948, -153.691, -87.4921, 101.341
6.86375, 67, -6.21925, -7.05582, 29.4562, -153.709, -87.8569, 101.507
6.87215, 67, -6.11077, -6.63826, 29.2243, -153.721, -88.2153, 101.655
6.88032, 67, -6.00486, -6.22771, 28.9992, -153.728, -88.5676, 101.786
6.89048, 68, -5.90106, -5.82436, 28.7808, -153.731, -88.9148, 101.899
6.896, 68, -5.79906, -5.42725, 28.5671, -153.73, -89.2579, 101.995
6.90496, 68, -5.69876, -5.03633, 28.3576, -153.723, -89.5983, 102.073
6.91198, 68, -5.6493, -4.84302, 28.1522, -153.712, -89.9371, 102.134
6.92038, 68, -5.50336, -4.27133, 27.9498, -153.697, -90.2747, 102.176
6.92734, 69, -5.45559, -4.08297, 27.8497, -153.688, -90.4431, 102.19
6.9362, 69, -5.36136, -3.70885, 27.6526, -153.667, -90.7796, 102.206
6.94443, 69, -5.22318, -3.15451, 27.3648, -153.625, -91.2832, 102.197
6.95141, 69, -5.17806, -2.97159, 27.2703, -153.609, -91.4507, 102.183
6.95952, 69, -5.08907, -2.60832, 27.0838, -153.575, -91.7853, 102.14
6.96734, 70, -5.00153, -2.24744, 26.9013, -153.537, -92.1192, 102.074
6.97538, 70, -4.91532, -1.89049, 26.7224, -153.495, -92.4522, 101.987
6.98344, 70, -4.83023, -1.53756, 26.5462, -153.449, -92.7848, 101.878
6.99137, 70, -4.74609, -1.18985, 26.3737, -153.4, -93.1162, 101.746
6.99953, 70, -4.66303, -0.846937, 26.2057, -153.348, -93.4463, 101.591
7.00756, 71, -4.58106, -0.510337, 26.0413, -153.292, -93.7741, 101.414
7.01558, 71, -4.50005, -0.179678, 25.8806, -153.234, -94.0991, 101.216
7.02344, 71, -4.42011, 0.144382, 25.7252, -153.173, -94.4207, 100.997
7.0338, 71, -4.30196, 0.619454, 25.5023, -153.077, -94.8951, 100.63
7.03945, 71, -4.26303, 0.774759, 25.4304, -153.044, -95.0513, 100.497
7.04913, 72, -4.14736, 1.23077, 25.2216, -152.942, -95.5137, 100.07
7.05551, 72, -4.10909, 1.37958, 25.1542, -152.907, -95.6661, 99.9168
7.06419, 72, -4.03272, 1.67168, 25.0221, -152.836, -95.9687, 99.5954
7.07244, 72, -3.95653, 1.95725, 24.8933, -152.765, -96.269, 99.2528
7.08166, 72, -3.84241, 2.3738, 24.7058, -152.655, -96.7151, 98.699
7.08975, 73, -3.76646, 2.64332, 24.5846, -152.582, -97.0096, 98.3021
7.09544, 73, -3.7285, 2.77588, 24.5252, -152.545, -97.1558, 98.0955
7.10338, 73, -3.65243, 3.03599, 24.4093, -152.471, -97.4458, 97.6663
7.11243, 73, -3.57609, 3.28931, 24.2972, -152.397, -97.7324, 97.2156
7.11938, 73, -3.49951, 3.53643, 24.1891, -152.324, -98.015, 96.7452
7.12745, 73, -3.42259, 3.77639, 24.0855, -152.253, -98.2933, 96.2555
7.1355, 74, -3.34501, 4.00766, 23.9859, -152.182, -98.567, 95.7476
7.14334, 74, -3.26677, 4.23061, 23.8904, -152.112, -98.8351, 95.2233
7.15144, 74, -3.18782, 4.44486, 23.799, -152.045, -99.0975, 94.6844
7.15961, 74, -3.1081, 4.64929, 23.7117, -151.979, -99.3535, 94.1329
7.16848, 74, -3.02769, 4.8441, 23.6286, -151.916, -99.6028, 93.569
7.17636, 75, -2.9464, 5.02973, 23.5497, -151.854, -99.8444, 92.9947
7.18452, 75, -2.86415, 5.20529, 23.4748, -151.797, -100.078, 92.4112
7.19219, 75, -2.78091, 5.37006, 23.4036, -151.741, -100.303, 91.8192
7.19938, 75, -2.69676, 5.52436, 23.3363, -151.689, -100.518, 91.2189
7.2075, 75, -2.61179, 5.66806, 23.273, -151.641, -100.725, 90.6106
7.21536, 76, -2.5258, 5.80058, 23.2138, -151.595, -100.923, 89.9946
7.22338, 76, -2.43875, 5.92177, 23.1589, -151.554, -101.112, 89.37
7.23444, 76, -2.35098, 6.03122, 23.1085, -151.517, -101.291, 88.7364
7.23961, 76, -2.26239, 6.12844, 23.0624, -151.483, -101.461, 88.095
7.2474, 76, -2.17297, 6.21308, 23.0211, -151.453, -101.62, 87.4479
7.25545, 77, -2.08279, 6.28458, 22.9849, -151.427, -101.768, 86.7955
7.26398, 77, -1.99166, 6.34289, 22.9539, -151.405, -101.903, 86.1419
7.27182, 77, -1.89958, 6.38765, 22.9286, -151.388, -102.024, 85.4905
7.27983, 77, -1.80666, 6.4181, 22.909, -151.374, -102.132, 84.8418
7.28771, 77, -1.7129, 6.43443, 22.8952, -151.364, -102.224, 84.1968
7.29642, 78, -1.61828, 6.43627, 22.8872, -151.358, -102.302, 83.5566
7.30408, 78, -1.52299, 6.42289, 22.8846, -151.354, -102.364, 82.921
7.31243, 78, -1.42706, 6.39417, 22.8875, -151.354, -102.411, 82.2887
7.32013, 78, -1.33077, 6.3498, 22.8965, -151.356, -102.442, 81.6607
7.32841, 78, -1.23413, 6.28922, 22.9116, -151.363, -102.457, 81.0379
7.33593, 78, -1.13729, 6.21246, 22.9334, -151.373, -102.456, 80.42
7.34557, 79, -1.04037, 6.11946, 22.9621, -151.386, -102.438, 79.8078
7.35237, 79, -0.943229, 6.01027, 22.9984, -151.402, -102.401, 79.2034
7.36053, 79, -0.846206, 5.88493, 23.0422, -151.421, -102.347, 78.6077
7.36775, 79, -0.749221, 5.74308, 23.0936, -151.443, -102.275, 78.0207
7.37593, 79, -0.652261, 5.58481, 23.1527, -151.468, -102.185, 77.4439
7.38475, 80, -0.555236, 5.41011, 23.2193, -151.494, -102.076, 76.8785
7.3919, 80, -0.458104, 5.21905, 23.2939, -151.522, -101.949, 76.3248
7.40074, 80, -0.36112, 5.01146, 23.3764, -151.551, -101.803, 75.782
7.4105, 80, -0.264341, 4.78635, 23.467, -151.582, -101.639, 75.2502
7.41622, 80, -0.16762, 4.54307, 23.566, -151.615, -101.456, 74.7292
7.42538, 81, -0.0711028, 4.28302, 23.6737, -151.648, -101.254, 74.2188
7.43136, 81, -0.0229196, 4.14685, 23.7308, -151.665, -101.146, 73.9669
7.44316, 81, 0.121239, 3.71327, 23.916, -151.717, -100.794, 73.2253
7.44736, 81, 0.169231, 3.56068, 23.9825, -151.736, -100.667, 72.9826
7.45542, 81, 0.264959, 3.24234, 24.1229, -151.772, -100.398, 72.5045
7.46349, 82, 0.360474, 2.90702, 24.2731, -151.809, -100.111, 72.0359
7.47248, 82, 0.455833, 2.3733, 24.5155, -151.865, -99.6448, 71.3502
7.47935, 82, 0.551015, 2.18755, 24.601, -151.884, -99.48, 71.1265
7.48735, 82, 0.645985, 1.80358, 24.7792, -151.921, -99.137, 70.686
7.49541, 82, 0.740789, 1.40288, 24.9668, -151.957, -98.7765, 70.2554
7.50495, 83, 0.882921, 0.771684, 25.2654, -152.01, -98.2038, 69.6285
7.5172, 83, 1.02504, 0.1069, 25.5876, -152.062, -97.5938, 69.0231
7.51948, 83, 1.02504, 0.1069, 25.5876, -152.062, -97.5938, 69.0231
7.52751, 83, 1.11987, -0.355098, 25.8142, -152.095, -97.1673, 68.6315
7.53538, 83, 1.21469, -0.831439, 26.0499, -152.126, -96.7247, 68.2487
7.54487, 84, 1.3097, -1.32249, 26.2962, -152.156, -96.2664, 67.8754
7.5514, 84, 1.40501, -1.82757, 26.5524, -152.186, -95.7923, 67.5102
7.5604, 84, 1.50053, -2.3459, 26.8192, -152.214, -95.3029, 67.1523
7.56737, 84, 1.59641, -2.87812, 27.0964, -152.24, -94.7975, 66.8022
7.57543, 84, 1.69262, -3.42402, 27.3836, -152.264, -94.277, 66.4592
7.58337, 84, 1.78924, -3.98314, 27.6815, -152.286, -93.7419, 66.1233
7.59258, 85, 1.88615, -4.55503, 27.9891, -152.308, -93.1916, 65.7953
7.59952, 85, 1.98338, -5.13802, 28.3068, -152.327, -92.627, 65.4756
7.60838, 85, 2.08102, -5.73121, 28.6332, -152.343, -92.0508, 65.1638
7.61993, 85, 2.22842, -6.63732, 29.1396, -152.364, -91.1673, 64.7127
7.62451, 86, 2.27789, -6.94311, 29.3126, -152.369, -90.8678, 64.5672
7.63159, 86, 2.37728, -7.56, 29.6644, -152.378, -90.2617, 64.2836
7.63935, 86, 2.47759, -8.1828, 30.023, -152.383, -89.6467, 64.0103
7.64735, 86, 2.57892, -8.81186, 30.3881, -152.386, -89.0235, 63.7478
7.65542, 86, 2.68085, -9.44613, 30.7586, -152.387, -88.3961, 63.497
7.66335, 86, 2.78399, -10.0845, 31.1344, -152.385, -87.7643, 63.2577
7.67152, 87, 2.88823, -10.7269, 31.5161, -152.378, -87.1267, 63.0301
7.68325, 87, 3.04597, -11.6958, 32.097, -152.362, -86.1608, 62.7113
7.68736, 87, 3.09913, -12.0202, 32.2928, -152.355, -85.8363, 62.6113
7.69667, 87, 3.2059, -12.6705, 32.6879, -152.337, -85.1846, 62.421
7.70537, 87, 3.31336, -13.3234, 33.0883, -152.315, -84.5292, 62.2432
7.71235, 88, 3.42156, -13.9795, 33.4941, -152.29, -83.8678, 62.0782
7.71935, 88, 3.5303, -14.6382, 33.9047, -152.261, -83.2013, 61.9268
7.7285, 88, 3.63948, -15.2978, 34.3205, -152.228, -82.5297, 61.7887
7.73633, 88, 3.74912, -15.9576, 34.7411, -152.189, -81.8529, 61.6649
7.7434, 88, 3.85909, -16.6167, 35.1659, -152.146, -81.174, 61.5563
7.75146, 89, 3.96929, -17.2736, 35.5937, -152.099, -80.494, 61.4644
7.7595, 89, 4.07984, -17.9275, 36.0227, -152.046, -79.8137, 61.3902
7.76746, 89, 4.19077, -18.5782, 36.4522, -151.988, -79.1331, 61.3345
7.78014, 89, 4.35801, -19.5476, 37.0956, -151.892, -78.1162, 61.288
7.78365, 89, 4.41384, -19.8682, 37.3095, -151.857, -77.7799, 61.2821
7.79232, 90, 4.5258, -20.506, 37.736, -151.784, -77.1096, 61.2862
7.79948, 90, 4.63845, -21.1394, 38.1622, -151.705, -76.441, 61.3142
7.80736, 90, 4.75118, -21.7677, 38.5875, -151.62, -75.7738, 61.3655
7.81545, 90, 4.86354, -22.3917, 39.0126, -151.53, -75.108, 61.4402
7.82338, 90, 4.97547, -23.0117, 39.4382, -151.434, -74.4446, 61.5409
7.83192, 91, 5.08706, -23.6284, 39.8636, -151.331, -73.782, 61.6678
7.84008, 91, 5.19839, -24.2413, 40.2893, -151.222, -73.1186, 61.8229
7.84837, 91, 5.30918, -24.8495, 40.7149, -151.106, -72.4552, 62.0067
7.85653, 91, 5.41929, -25.4525, 41.1396, -150.983, -71.7916, 62.2202
7.86382, 91, 5.52879, -26.0485, 41.5632, -150.854, -71.1284, 62.4639
7.87258, 92, 5.63797, -26.6371, 41.985, -150.718, -70.4678, 62.7388
7.88158, 92, 5.74729, -27.2176, 42.404, -150.577, -69.8097, 63.0449
7.88821, 92, 5.85723, -27.7889, 42.8187, -150.43, -69.1549, 63.3817
7.89684, 92, 5.96781, -28.3508, 43.2279, -150.279, -68.5038, 63.7494
7.90458, 92, 6.07921, -28.902, 43.6316, -150.123, -67.8571, 64.1483
7.91377, 92, 6.19178, -29.4418, 44.0285, -149.964, -67.2178, 64.5778
7.92041, 93, 6.30591, -29.9704, 44.4185, -149.803, -66.5838, 65.0394
7.92804, 93, 6.36369, -30.2306, 44.8023, -149.641, -65.9543, 65.5319
7.93535, 93, 6.48094, -30.7434, 44.9918, -149.559, -65.6409, 65.7902
7.94501, 93, 6.66101, -31.4988, 45.5531, -149.313, -64.7042, 66.6173
7.95243, 93, 6.78386, -31.9955, 45.9216, -149.148, -64.0811, 67.2167
7.9593, 94, 6.84602, -32.2421, 46.1049, -149.066, -63.7689, 67.5324
7.96739, 94, 6.97185, -32.7315, 46.4695, -148.9, -63.1401, 68.1994
7.97534, 94, 7.0994, -33.2155, 46.8327, -148.733, -62.5051, 68.9181
7.98558, 94, 7.2944, -33.928, 47.3736, -148.486, -61.5417, 70.0935
7.99151, 94, 7.36088, -34.1621, 47.5522, -148.406, -61.2177, 70.5109
7.9993, 95, 7.49676, -34.6241, 47.9042, -148.249, -60.5694, 71.3863
8.00883, 95, 7.71005, -35.298, 48.416, -148.032, -59.6029, 72.7837
8.01534, 95, 7.78416, -35.5171, 48.5812, -147.965, -59.2833, 73.2701
8.02567, 95, 8.01651, -36.1531, 49.0575, -147.789, -58.3351, 74.7853
8.03147, 95, 8.09741, -36.3559, 49.2086, -147.738, -58.023, 75.3075
8.03932, 96, 8.26426, -36.7462, 49.4995, -147.65, -57.4062, 76.3777
8.04888, 96, 8.43803, -37.1155, 49.7737, -147.581, -56.8034, 78.0388
8.05541, 96, 8.61803, -37.4621, 50.0312, -147.533, -56.2146, 78.6063
8.06434, 96, 8.80352, -37.7844, 50.2717, -147.505, -55.64, 79.7576
8.07148, 96, 8.99385, -38.0812, 50.493, -147.497, -55.0823, 80.9269
8.08039, 96, 9.18788, -38.3535, 50.695, -147.51, -54.5443, 82.1081
8.08736, 97, 9.38399, -38.6005, 50.8779, -147.545, -54.0282, 83.3016
8.0954, 97, 9.58073, -38.8219, 51.0404, -147.602, -53.536, 84.5018
8.10334, 97, 9.77692, -39.0188, 51.1827, -147.679, -53.0698, 85.6992
8.11145, 97, 9.97179, -39.1911, 51.3055, -147.773, -52.6317, 86.8854
8.11946, 97, 10.1644, -39.3378, 51.4086, -147.883, -52.2237, 88.0528
8.12735, 97, 10.3534, -39.4592, 51.4927, -148.006, -51.8464, 89.194
8.13537, 98, 10.5386, -39.5555, 51.5583, -148.14, -51.5005, 90.3007
8.14335, 98, 10.7213, -39.6275, 51.6059, -148.284, -51.1854, 91.3735
8.15139, 98, 10.9022, -39.6766, 51.6359, -148.437, -50.8988, 92.4197
8.15941, 98, 11.0814, -39.7025, 51.6484, -148.601, -50.637, 93.453
8.16735, 98, 11.2583, -39.7048, 51.6443, -148.778, -50.3966, 94.4885
8.17539, 98, 11.4338, -39.6836, 51.6229, -148.967, -50.1753, 95.5368
8.18342, 98, 11.6095, -39.6383, 51.5837, -149.17, -49.973, 96.6058
8.19139, 99, 11.7849, -39.5697, 51.5267, -149.386, -49.7913, 97.6957
8.19933, 99, 11.9588, -39.4784, 51.4512, -149.614, -49.6326, 98.8024
8.20741, 99, 12.1298, -39.3644, 51.3572, -149.85, -49.5003, 99.9143
8.21534, 99, 12.2972, -39.228, 51.245, -150.093, -49.3972, 101.022
8.22335, 99, 12.4594, -39.0693, 51.1154, -150.337, -49.3251, 102.114
8.23139, 99, 12.6143, -38.8885, 50.9697, -150.58, -49.2838, 103.181
8.23951, 100, 12.7607, -38.6837, 50.8083, -150.82, -49.2738, 104.217
8.24738, 100, 12.8984, -38.4544, 50.6304, -151.055, -49.2958, 105.225
8.25539, 100, 13.027, -38.2024, 50.4353, -151.284, -49.3494, 106.203
8.26348, 100, 13.147, -37.9282, 50.2239, -151.508, -49.4341, 107.157
8.2719, 100, 13.259, -37.6333, 49.9949, -151.725, -49.5502, 108.088
8.28039, 100, 13.3626, -37.3155, 49.7475, -151.936, -49.6969, 108.997
8.28753, 101, 13.4582, -36.974, 49.4835, -152.14, -49.8739, 109.885
8.29544, 101, 13.5459, -36.6079, 49.2024, -152.334, -50.0806, 110.748
8.30334, 101, 13.6259, -36.2165, 48.9045, -152.52, -50.3168, 111.59
8.31159, 101, 13.6976, -35.8004, 48.589, -152.696, -50.5828, 112.407
8.31938, 101, 13.7612, -35.3611, 48.2561, -152.863, -50.8794, 113.201
8.33822, 102, 13.8618, -34.4159, 47.5395, -153.162, -51.5681, 114.721
8.3403, 102, 13.8812, -34.1654, 47.3499, -153.229, -51.7604, 115.086
8.34368, 102, 13.898, -33.9089, 47.1562, -153.293, -51.9606, 115.446
8.35243, 102, 13.9247, -33.3777, 46.7571, -153.411, -52.3851, 116.145
8.35962, 102, 13.9422, -32.8242, 46.3439, -153.516, -52.8413, 116.818
8.36783, 102, 13.9512, -32.2492, 45.9168, -153.607, -53.3274, 117.465
8.37667, 103, 13.9528, -31.6529, 45.4759, -153.684, -53.8408, 118.087
8.38381, 103, 13.9472, -31.0372, 45.0218, -153.749, -54.3796, 118.683
8.392, 103, 13.9353, -30.404, 44.5559, -153.8, -54.9412, 119.253
8.39986, 103, 13.9176, -29.7548, 44.0791, -153.838, -55.5231, 119.8
8.40792, 103, 13.8945, -29.0908, 43.5935, -153.864, -56.1232, 120.321
8.41646, 103, 13.8666, -28.4133, 43.1004, -153.879, -56.7399, 120.818
8.42382, 104, 13.8511, -28.0702, 42.8516, -153.883, -57.0533, 121.056
8.43239, 104, 13.7987, -27.0272, 42.0986, -153.879, -58.0124, 121.737
8.43939, 104, 13.7792, -26.6754, 41.8458, -153.872, -58.3395, 121.953
8.44733, 104, 13.7377, -25.9666, 41.3382, -153.853, -59.0035, 122.37
8.45536, 104, 13.6938, -25.2533, 40.8292, -153.825, -59.679, 122.769
8.46456, 104, 13.6247, -24.1779, 40.0642, -153.768, -60.7083, 123.34
8.47132, 104, 13.6007, -23.8182, 39.8093, -153.746, -61.0542, 123.524
8.47935, 104, 13.5516, -23.097, 39.3, -153.697, -61.7507, 123.886
8.4887, 104, 13.4761, -22.0131, 38.538, -153.614, -62.8025, 124.419
8.49532, 104, 13.4506, -21.6513, 38.2849, -153.584, -63.1541, 124.595
8.50486, 104, 13.3731, -20.5665, 37.5272, -153.488, -64.2101, 125.121
8.5129, 104, 13.3211, -19.8435, 37.0243, -153.418, -64.9144, 125.469
8.52091, 104, 13.2688, -19.12, 36.5233, -153.345, -65.6211, 125.815
8.52894, 104, 13.2164, -18.3964, 36.0241, -153.267, -66.3282, 126.161
8.53538, 104, 13.1903, -18.0347, 35.7756, -153.227, -66.6822, 126.334
8.54499, 104, 13.1123, -16.9486, 35.0333, -153.1, -67.7447, 126.851
8.5532, 104, 13.0865, -16.5864, 34.5405, -153.011, -68.4523, 127.195
8.55941, 104, 13.035, -15.8621, 34.295, -152.965, -68.8069, 127.367
8.56838, 104, 12.984, -15.1374, 33.8056, -152.869, -69.5175, 127.711
8.57632, 104, 12.9332, -14.4121, 33.3184, -152.77, -70.229, 128.054
8.5834, 104, 12.8828, -13.6868, 32.8342, -152.667, -70.9394, 128.398
8.59132, 104, 12.8329, -12.9614, 32.3526, -152.56, -71.6494, 128.742
8.59933, 104, 12.7832, -12.2355, 31.8736, -152.45, -72.3619, 129.086
8.60739, 104, 12.7338, -11.5103, 31.3971, -152.335, -73.0747, 129.431
8.61532, 104, 12.6849, -10.7852, 30.9232, -152.217, -73.7874, 129.777
8.62333, 104, 12.6362, -10.0597, 30.4519, -152.094, -74.5006, 130.122
8.6314, 104, 12.5877, -9.33395, 29.9836, -151.968, -75.2138, 130.469
8.63932, 104, 12.5399, -8.6081, 29.5185, -151.837, -75.9276, 130.817
8.64733, 104, 12.4925, -7.88185, 29.0568, -151.703, -76.6423, 131.166
8.65541, 104, 12.4456, -7.15628, 28.5982, -151.564, -77.358, 131.516
8.66333, 104, 12.3993, -6.43109, 28.1429, -151.421, -78.0734, 131.867
8.67133, 104, 12.3536, -5.70656, 27.6912, -151.275, -78.787, 132.219
8.67944, 104, 12.3084, -4.98266, 27.2431, -151.123, -79.5018, 132.572
8.68736, 104, 12.2641, -4.25993, 26.7992, -150.968, -80.2174, 132.927
8.69533, 104, 12.2209, -3.53942, 26.3602, -150.809, -80.9323, 133.283
8.70339, 104, 12.1786, -2.82382, 25.9262, -150.646, -81.6433, 133.639
8.71134, 104, 12.1377, -2.11412, 25.4981, -150.479, -82.3504, 133.996
8.71932, 104, 12.0982, -1.41166, 25.0773, -150.309, -83.0542, 134.351
8.72739, 104, 12.0594, -0.717624, 24.6648, -150.137, -83.751, 134.705
8.73532, 104, 12.0217, -0.0334339, 24.2619, -149.962, -84.4378, 135.056
8.74339, 104, 11.9849, 0.640033, 23.8696, -149.787, -85.1121, 135.403
8.75137, 104, 11.9492, 1.3011, 23.4897, -149.611, -85.772, 135.745
8.75938, 104, 11.9148, 1.94928, 23.1221, -149.434, -86.4179, 136.081
8.76758, 104, 11.8815, 2.5824, 22.7674, -149.259, -87.0483, 136.411
8.77542, 104, 11.849, 3.19927, 22.4248, -149.083, -87.6627, 136.735
8.78342, 104, 11.818, 3.79985, 22.0959, -148.91, -88.2608, 137.051
8.79149, 104, 11.7882, 4.38343, 21.7794, -148.737, -88.8412, 137.361
8.79942, 104, 11.7597, 4.95067, 21.4754, -148.565, -89.4044, 137.665
8.80736, 104, 11.7326, 5.50095, 21.1825, -148.396, -89.9521, 137.96
8.81547, 104, 11.7065, 6.03372, 20.9019, -148.228, -90.4838, 138.249
8.82335, 104, 11.6817, 6.54982, 20.633, -148.063, -90.9989, 138.531
8.83138, 104, 11.658, 7.04902, 20.3756, -147.9, -91.4976, 138.806
8.8395, 104, 11.6354, 7.53121, 20.1301, -147.74, -91.9789, 139.072
8.84833, 104, 11.6141, 7.99723, 19.8951, -147.582, -92.4434, 139.331
8.8557, 104, 11.5938, 8.44647, 19.671, -147.428, -92.8914, 139.583
8.86429, 104, 11.5747, 8.87824, 19.4582, -147.277, -93.3226, 139.826
8.87175, 104, 11.5568, 9.2927, 19.2554, -147.13, -93.7374, 140.062
8.88035, 104, 11.5399, 9.6901, 19.0629, -146.987, -94.1348, 140.289
8.88793, 104, 11.5241, 10.0693, 18.8814, -146.849, -94.515, 140.507
8.89647, 104, 11.5093, 10.4298, 18.7103, -146.715, -94.8768, 140.715
8.90406, 104, 11.4956, 10.7708, 18.5493, -146.587, -95.2199, 140.914
8.91209, 104, 11.4829, 11.0926, 18.3993, -146.464, -95.5434, 141.103
8.91998, 104, 11.4712, 11.3938, 18.2602, -146.348, -95.8467, 141.28
8.92797, 104, 11.4658, 11.5368, 18.1314, -146.239, -96.1292, 141.445
8.93604, 104, 11.4557, 11.8073, 18.071, -146.137, -96.3905, 141.599
8.94335, 104, 11.4465, 12.0562, 17.9583, -146.089, -96.513, 141.672
8.95136, 104, 11.438, 12.284, 17.8561, -145.999, -96.7415, 141.807
8.95935, 104, 11.4302, 12.4911, 17.7642, -145.917, -96.948, 141.93
8.96733, 104, 11.4232, 12.6769, 17.6827, -145.843, -97.1326, 142.04
8.97532, 104, 11.417, 12.8414, 17.6114, -145.778, -97.2949, 142.137
8.98335, 104, 11.4114, 12.9859, 17.55, -145.721, -97.4355, 142.222
8.99131, 104, 11.4063, 13.111, 17.498, -145.672, -97.5546, 142.293
8.99934, 104, 11.4017, 13.2175, 17.4551, -145.633, -97.6532, 142.352
9.00736, 104, 11.3975, 13.3061, 17.4204, -145.6, -97.7325, 142.399
9.01691, 104, 11.3918, 13.4102, 17.3825, -145.564, -97.8188, 142.452
9.02486, 104, 11.3885, 13.4629, 17.3652, -145.548, -97.8578, 142.476
9.033, 104, 11.3857, 13.504, 17.353, -145.536, -97.8854, 142.492
9.04092, 104, 11.3834, 13.5347, 17.345, -145.528, -97.9041, 142.503
9.04916, 104, 11.3825, 13.5576, 17.34, -145.524, -97.9158, 142.509
9.05535, 104, 11.3809, 13.5666, 17.3382, -145.522, -97.9196, 142.511
9.06436, 104, 11.3796, 13.5803, 17.336, -145.52, -97.9245, 142.513
9.07135, 104, 11.3786, 13.5894, 17.3349, -145.519, -97.9269, 142.515
9.07935, 105, 11.3779, 13.5957, 17.3343, -145.519, -97.928, 142.515
9.08732, 105, 11.3774, 13.5997, 17.3341, -145.519, -97.9286, 142.515
9.09533, 105, 11.377, 13.6024, 17.3339, -145.518, -97.9288, 142.516
9.10336, 105, 11.3767, 13.6046, 17.3339, -145.518, -97.9288, 142.516
9.11131, 105, 11.3765, 13.6064, 17.3339, -145.518, -97.9289, 142.516
9.11932, 105, 11.3763, 13.608, 17.3338, -145.518, -97.9289, 142.516
9.12737, 105, 11.3762, 13.6094, 17.3339, -145.518, -97.9288, 142.516
9.13531, 105, 11.3761, 13.6106, 17.3339, -145.518, -97.9288, 142.516
9.14333, 105, 11.376, 13.6116, 17.3339, -145.518, -97.9287, 142.516
9.15136, 105, 11.376, 13.6125, 17.3339, -145.518, -97.9286, 142.516
9.15931, 105, 11.3759, 13.6131, 17.3339, -145.518, -97.9284, 142.516
9.16734, 105, 11.3759, 13.6136, 17.334, -145.518, -97.9283, 142.516
9.17533, 105, 11.3759, 13.6139, 17.334, -145.518, -97.9281, 142.516
9.18335, 105, 11.3759, 13.614, 17.3341, -145.519, -97.928, 142.516
9.19136, 105, 11.3759, 13.6141, 17.3341, -145.519, -97.9279, 142.516
