hehonglu123/Motion-Primitive-Planning/ILC/recorded_data/realrobot/wood/iteration_15/run_2.csv
timestamp, cmd_num, J1, J2, J3, J4, J5, J6
0.000504, -1, 11.3757, 13.6149, 17.3358, -145.52, -97.9257, 142.516
0.003828, -1, 11.3757, 13.6149, 17.3358, -145.52, -97.9257, 142.516
0.008015, -1, 11.3757, 13.6149, 17.3358, -145.52, -97.9257, 142.516
0.028979, -1, 11.3757, 13.6149, 17.3358, -145.52, -97.9257, 142.516
0.030185, -1, 11.3757, 13.6149, 17.3358, -145.52, -97.9257, 142.516
0.032614, -1, 11.3757, 13.6149, 17.3358, -145.52, -97.9257, 142.516
0.040023, -1, 11.3757, 13.6149, 17.3358, -145.52, -97.9257, 142.516
0.046678, -1, 11.3756, 13.6149, 17.3358, -145.52, -97.9257, 142.516
0.056203, -1, 11.3741, 13.6148, 17.3358, -145.52, -97.9257, 142.516
0.064823, -1, 11.3696, 13.6143, 17.3357, -145.52, -97.9257, 142.516
0.072258, -1, 11.3609, 13.6132, 17.3354, -145.521, -97.9257, 142.515
0.080283, -1, 11.3469, 13.6107, 17.3347, -145.521, -97.9256, 142.511
0.089093, -1, 11.325, 13.6061, 17.3339, -145.524, -97.9252, 142.498
0.094787, -1, 11.3102, 13.6027, 17.3335, -145.526, -97.9247, 142.485
0.104274, -1, 11.2717, 13.5935, 17.3329, -145.538, -97.9214, 142.416
0.112388, -1, 11.2214, 13.5811, 17.3331, -145.553, -97.917, 142.337
0.119685, -1, 11.1597, 13.5657, 17.3347, -145.562, -97.914, 142.285
0.127698, -1, 11.0863, 13.5466, 17.3388, -145.585, -97.9062, 142.154
0.135783, -1, 11.0011, 13.5236, 17.3452, -145.614, -97.896, 141.988
0.143675, -1, 10.9041, 13.4973, 17.3538, -145.648, -97.8838, 141.79
0.151689, -1, 10.7965, 13.4675, 17.3642, -145.687, -97.8701, 141.565
0.159765, -1, 10.6779, 13.4347, 17.3755, -145.729, -97.8553, 141.318
0.167673, -1, 10.5488, 13.399, 17.3866, -145.773, -97.8398, 141.057
0.175752, -1, 10.4108, 13.361, 17.3973, -145.819, -97.8239, 140.788
0.183722, -1, 10.2659, 13.3214, 17.4076, -145.867, -97.8077, 140.513
0.191673, -1, 10.1165, 13.281, 17.4176, -145.914, -97.7911, 140.236
0.199719, -1, 9.96404, 13.2399, 17.4277, -145.961, -97.7741, 139.958
0.207735, -1, 9.80931, 13.1985, 17.4377, -146.01, -97.7569, 139.679
0.215726, -1, 9.65378, 13.1571, 17.4478, -146.058, -97.7397, 139.399
0.223686, -1, 9.49858, 13.1159, 17.4578, -146.105, -97.7226, 139.12
0.231773, -1, 9.34382, 13.0747, 17.4676, -146.154, -97.7059, 138.84
0.239682, -1, 9.1894, 13.0336, 17.4776, -146.202, -97.6891, 138.561
0.248685, -1, 9.03546, 12.9925, 17.4877, -146.249, -97.6724, 138.281
0.255749, -1, 8.88172, 12.9514, 17.4978, -146.298, -97.6555, 138.001
0.264709, -1, 8.7282, 12.9104, 17.508, -146.345, -97.6384, 137.721
0.272525, -1, 8.57517, 12.8692, 17.518, -146.393, -97.6209, 137.441
0.279682, -1, 8.42237, 12.828, 17.5281, -146.442, -97.6034, 137.161
0.287679, -1, 8.2694, 12.7867, 17.5383, -146.489, -97.5861, 136.881
0.295838, -1, 8.116, 12.7451, 17.5485, -146.537, -97.5691, 136.601
0.303674, -1, 7.96205, 12.7035, 17.5587, -146.585, -97.5523, 136.32
0.311671, -1, 7.80753, 12.6618, 17.5688, -146.633, -97.5355, 136.04
0.320468, -1, 7.65264, 12.6201, 17.5789, -146.681, -97.519, 135.76
0.327705, -1, 7.4977, 12.5785, 17.5891, -146.729, -97.5021, 135.48
0.33573, -1, 7.34263, 12.537, 17.5993, -146.777, -97.485, 135.199
0.344482, -1, 7.18767, 12.4954, 17.6095, -146.825, -97.4676, 134.919
0.351673, -1, 7.03267, 12.4539, 17.6198, -146.873, -97.4503, 134.638
0.492074, -1, 4.31892, 11.7276, 17.8009, -147.716, -97.1513, 129.725
0.493285, -1, 4.31892, 11.7276, 17.8009, -147.716, -97.1513, 129.725
0.494601, -1, 4.31892, 11.7276, 17.8009, -147.716, -97.1513, 129.725
0.496646, -1, 4.24123, 11.7069, 17.8061, -147.74, -97.1427, 129.585
0.497918, -1, 4.24123, 11.7069, 17.8061, -147.74, -97.1427, 129.585
0.500604, -1, 4.1636, 11.6862, 17.8113, -147.764, -97.1342, 129.444
0.501843, -1, 4.1636, 11.6862, 17.8113, -147.764, -97.1342, 129.444
0.5048, -1, 4.08608, 11.6654, 17.8166, -147.788, -97.1257, 129.304
0.506035, -1, 4.08608, 11.6654, 17.8166, -147.788, -97.1257, 129.304
0.508131, -1, 4.00869, 11.6447, 17.8217, -147.812, -97.1173, 129.163
0.509461, -1, 4.00869, 11.6447, 17.8217, -147.812, -97.1173, 129.163
0.510649, -1, 4.00869, 11.6447, 17.8217, -147.812, -97.1173, 129.163
0.513463, -1, 3.93142, 11.624, 17.8269, -147.836, -97.1088, 129.023
0.514741, -1, 3.93142, 11.624, 17.8269, -147.836, -97.1088, 129.023
0.517025, -1, 3.85423, 11.6033, 17.832, -147.86, -97.1004, 128.882
0.520243, -1, 3.77707, 11.5825, 17.8372, -147.885, -97.092, 128.741
0.521553, -1, 3.77707, 11.5825, 17.8372, -147.885, -97.092, 128.741
0.522745, -1, 3.77707, 11.5825, 17.8372, -147.885, -97.092, 128.741
0.52555, -1, 3.69987, 11.5617, 17.8424, -147.909, -97.0835, 128.601
0.526744, -1, 3.69987, 11.5617, 17.8424, -147.909, -97.0835, 128.601
0.528842, -1, 3.62264, 11.5409, 17.8476, -147.933, -97.075, 128.46
0.530061, -1, 3.62264, 11.5409, 17.8476, -147.933, -97.075, 128.46
0.538671, -1, 3.46809, 11.4992, 17.8578, -147.981, -97.0578, 128.178
0.543986, -1, 3.31333, 11.4575, 17.8683, -148.03, -97.0403, 127.897
0.552127, -1, 3.15824, 11.4158, 17.8787, -148.078, -97.0228, 127.616
0.558704, -1, 3.08065, 11.3949, 17.884, -148.102, -97.014, 127.475
0.568757, -1, 2.8476, 11.3322, 17.8996, -148.175, -96.9883, 127.052
0.576373, -1, 2.69189, 11.2905, 17.9098, -148.222, -96.9714, 126.771
0.585312, -1, 2.53589, 11.2488, 17.9202, -148.271, -96.9546, 126.489
0.592236, -1, 2.37967, 11.207, 17.9306, -148.319, -96.9378, 126.207
0.60032, -1, 2.22317, 11.1653, 17.941, -148.367, -96.9208, 125.925
0.6082, -1, 2.14484, 11.1445, 17.9463, -148.391, -96.9036, 125.643
0.616311, -1, 1.98805, 11.1027, 17.9567, -148.44, -96.8861, 125.362
0.62371, -1, 1.83147, 11.0611, 17.967, -148.489, -96.8773, 125.221
0.631659, -1, 1.6751, 11.0194, 17.9775, -148.537, -96.86, 124.939
0.639639, -1, 1.51885, 10.9776, 17.988, -148.585, -96.8429, 124.657
0.647661, -1, 1.36292, 10.936, 17.9984, -148.634, -96.826, 124.375
0.783189, -1, -1.29033, 10.225, 18.1754, -149.458, -96.5348, 119.569
0.784409, -1, -1.29033, 10.225, 18.1754, -149.458, -96.5348, 119.569
0.786461, -1, -1.36877, 10.2041, 18.1806, -149.482, -96.5264, 119.428
0.787693, -1, -1.36877, 10.2041, 18.1806, -149.482, -96.5264, 119.428
0.788955, -1, -1.36877, 10.2041, 18.1806, -149.482, -96.5264, 119.428
0.790976, -1, -1.44721, 10.1832, 18.1858, -149.507, -96.518, 119.286
0.792248, -1, -1.44721, 10.1832, 18.1858, -149.507, -96.518, 119.286
0.795781, -1, -1.52561, 10.1623, 18.191, -149.531, -96.5096, 119.144
0.797012, -1, -1.52561, 10.1623, 18.191, -149.531, -96.5096, 119.144
0.799055, -1, -1.60388, 10.1414, 18.1963, -149.555, -96.5012, 119.003
0.800563, -1, -1.60388, 10.1414, 18.1963, -149.555, -96.5012, 119.003
0.8032, -1, -1.68201, 10.1204, 18.2016, -149.58, -96.4927, 118.861
0.805929, -1, -1.76, 10.0995, 18.2068, -149.604, -96.4841, 118.72
0.807391, -1, -1.76, 10.0995, 18.2068, -149.604, -96.4841, 118.72
0.808618, -1, -1.76, 10.0995, 18.2068, -149.604, -96.4841, 118.72
0.814934, -1, -1.9157, 10.0576, 18.2172, -149.653, -96.4669, 118.436
0.816295, -1, -1.9157, 10.0576, 18.2172, -149.653, -96.4669, 118.436
0.818091, -1, -1.99345, 10.0367, 18.2224, -149.677, -96.458, 118.294
0.819569, -1, -1.99345, 10.0367, 18.2224, -149.677, -96.458, 118.294
0.820797, -1, -1.99345, 10.0367, 18.2224, -149.677, -96.458, 118.294
0.822876, -1, -2.07109, 10.0157, 18.2277, -149.701, -96.4491, 118.152
0.824163, -1, -2.07109, 10.0157, 18.2277, -149.701, -96.4491, 118.152
0.832658, -1, -2.22623, 9.97382, 18.238, -149.75, -96.4316, 117.869
0.839734, -1, -2.38145, 9.93194, 18.2485, -149.798, -96.4142, 117.585
0.847652, -1, -2.53696, 9.88996, 18.2589, -149.847, -96.3972, 117.301
0.855711, -1, -2.69278, 9.848, 18.2693, -149.896, -96.3804, 117.017
0.863718, -1, -2.84895, 9.80606, 18.2797, -149.944, -96.3636, 116.734
0.871675, -1, -3.00559, 9.76408, 18.29, -149.993, -96.3467, 116.45
0.879706, -1, -3.16254, 9.72216, 18.3004, -150.042, -96.3295, 116.166
0.887722, -1, -3.31996, 9.6802, 18.3109, -150.09, -96.312, 115.882
0.895701, -1, -3.47774, 9.63819, 18.3214, -150.138, -96.2944, 115.599
0.903653, -1, -3.63549, 9.5963, 18.3318, -150.188, -96.2769, 115.315
0.911721, -1, -3.79339, 9.55439, 18.3422, -150.236, -96.2598, 115.03
0.919671, -1, -3.9514, 9.51234, 18.3526, -150.285, -96.2427, 114.746
0.927678, -1, -4.10932, 9.4704, 18.363, -150.334, -96.2258, 114.462
0.935808, -1, -4.2671, 9.42846, 18.3733, -150.382, -96.2087, 114.177
0.943722, -1, -4.42476, 9.38644, 18.3836, -150.431, -96.1915, 113.893
0.951789, -1, -4.582, 9.34443, 18.394, -150.48, -96.174, 113.608
0.959787, -1, -4.73881, 9.30237, 18.4044, -150.529, -96.1562, 113.324
0.967786, -1, -4.89522, 9.26029, 18.4149, -150.578, -96.1386, 113.039
0.975861, -1, -5.05138, 9.2182, 18.4254, -150.627, -96.1212, 112.754
0.98378, -1, -5.20729, 9.17612, 18.436, -150.675, -96.1041, 112.469
0.991653, -1, -5.3632, 9.134, 18.4465, -150.724, -96.0872, 112.185
0.999837, -1, -5.51928, 9.09184, 18.457, -150.773, -96.0703, 111.9
1.00773, -1, -5.67554, 9.0498, 18.4674, -150.822, -96.0533, 111.615
1.0158, -1, -5.8323, 9.00762, 18.4779, -150.871, -96.0359, 111.33
1.02384, -1, -5.98942, 8.9654, 18.4883, -150.92, -96.0184, 111.045
1.03182, -1, -6.14704, 8.92328, 18.4986, -150.968, -96.0008, 110.76
1.04004, -1, -6.30522, 8.88112, 18.509, -151.017, -95.9833, 110.475
1.04666, -1, -6.38439, 8.86006, 18.5142, -151.042, -95.9747, 110.332
1.05605, -1, -6.62207, 8.79693, 18.5298, -151.115, -95.9491, 109.904
1.06268, -1, -6.7014, 8.77584, 18.5351, -151.14, -95.9406, 109.762
1.07225, -1, -6.93938, 8.71261, 18.5509, -151.213, -95.9151, 109.333
1.08022, -1, -7.09794, 8.67049, 18.5614, -151.262, -95.8978, 109.048
1.08831, -1, -7.25638, 8.62833, 18.5718, -151.311, -95.8802, 108.762
1.09626, -1, -7.41462, 8.5861, 18.5822, -151.361, -95.8624, 108.476
1.10422, -1, -7.49356, 8.56494, 18.5928, -151.409, -95.8448, 108.19
1.11237, -1, -7.65122, 8.52263, 18.6032, -151.459, -95.8274, 107.905
1.11965, -1, -7.80852, 8.48035, 18.6084, -151.483, -95.8188, 107.762
1.12764, -1, -7.96548, 8.43809, 18.6189, -151.532, -95.8018, 107.476
1.13646, -1, -8.12214, 8.39571, 18.6293, -151.581, -95.7849, 107.19
1.14365, -1, -8.27867, 8.35337, 18.6397, -151.63, -95.7679, 106.904
1.15164, -1, -8.4353, 8.31101, 18.6503, -151.679, -95.7507, 106.619
1.15967, -1, -8.59229, 8.26863, 18.6608, -151.728, -95.7332, 106.332
1.16768, -1, -8.74968, 8.22638, 18.6714, -151.777, -95.7154, 106.046
1.17572, -1, -8.90735, 8.18403, 18.6817, -151.826, -95.6979, 105.76
1.18365, -1, -9.06547, 8.1417, 18.6922, -151.875, -95.6806, 105.473
1.19166, -1, -9.22402, 8.09945, 18.7027, -151.925, -95.6634, 105.187
1.19971, -1, -9.3829, 8.05712, 18.7131, -151.973, -95.6463, 104.9
1.20766, -1, -9.54198, 8.01477, 18.7236, -152.023, -95.6292, 104.613
1.2157, -1, -9.70115, 7.97256, 18.7341, -152.072, -95.6119, 104.327
1.2237, -1, -9.86039, 7.93032, 18.7446, -152.121, -95.5943, 104.04
1.23166, -1, -10.0198, 7.88794, 18.7552, -152.171, -95.5764, 103.752
1.23965, -1, -10.179, 7.84552, 18.7659, -152.22, -95.5586, 103.466
1.24865, -1, -10.338, 7.80301, 18.7764, -152.269, -95.5411, 103.179
1.25572, -1, -10.497, 7.76049, 18.787, -152.319, -95.5239, 102.892
1.26465, -1, -10.6555, 7.71805, 18.7974, -152.368, -95.5068, 102.605
1.27172, -1, -10.8136, 7.67551, 18.8079, -152.417, -95.4898, 102.318
1.27964, -1, -10.9715, 7.63292, 18.8184, -152.466, -95.4727, 102.031
1.28764, -1, -11.1291, 7.59043, 18.8288, -152.516, -95.4553, 101.743
1.29578, -1, -11.2865, 7.54794, 18.8393, -152.565, -95.4376, 101.456
1.30368, -1, -11.444, 7.50545, 18.8498, -152.614, -95.4198, 101.169
1.31171, -1, -11.6016, 7.46292, 18.8603, -152.664, -95.4021, 100.881
1.31964, -1, -11.7594, 7.42049, 18.871, -152.712, -95.3847, 100.593
1.32766, -1, -11.9178, 7.37808, 18.8815, -152.762, -95.3675, 100.305
1.3358, -1, -12.0765, 7.33567, 18.8921, -152.812, -95.3503, 100.018
1.34364, -1, -12.2356, 7.29329, 18.9026, -152.861, -95.3331, 99.73
1.35164, -1, -12.3952, 7.25087, 18.9131, -152.911, -95.3157, 99.4418
1.35995, -1, -12.555, 7.20843, 18.9237, -152.96, -95.2979, 99.1538
1.36765, -1, -12.715, 7.16601, 18.9342, -153.009, -95.2799, 98.866
1.3757, -1, -12.8751, 7.12356, 18.9447, -153.059, -95.2621, 98.5781
1.38448, -1, -13.0352, 7.081, 18.9553, -153.108, -95.2445, 98.2899
1.39164, -1, -13.1952, 7.0384, 18.9658, -153.158, -95.2271, 98.0019
1.39964, -1, -13.355, 6.99581, 18.9764, -153.208, -95.21, 97.7139
1.40851, -1, -13.5145, 6.95309, 18.987, -153.256, -95.1929, 97.4253
1.41568, -1, -13.6737, 6.91031, 18.9976, -153.306, -95.1756, 97.1364
1.42364, -1, -13.8327, 6.86764, 19.0081, -153.356, -95.1581, 96.848
1.43258, -1, -13.9913, 6.82495, 19.0185, -153.405, -95.1403, 96.5596
1.43967, -1, -14.1495, 6.78226, 19.0291, -153.454, -95.1225, 96.2707
1.44782, -1, -14.3077, 6.73965, 19.0396, -153.504, -95.1048, 95.9817
1.45691, -1, -14.4659, 6.69694, 19.0501, -153.553, -95.0876, 95.6927
1.46374, -1, -14.6243, 6.65431, 19.0607, -153.603, -95.0703, 95.4037
1.47183, -1, -14.7831, 6.6118, 19.0712, -153.652, -95.0531, 95.1144
1.4801, -1, -14.9423, 6.56921, 19.0818, -153.702, -95.0358, 94.825
1.48775, -1, -15.1018, 6.52653, 19.0926, -153.751, -95.0182, 94.536
1.49585, -1, -15.2618, 6.48398, 19.1033, -153.801, -95.0004, 94.2469
1.50528, -1, -15.4221, 6.44134, 19.114, -153.85, -94.9823, 93.9576
1.51167, -1, -15.5827, 6.39863, 19.1246, -153.9, -94.9645, 93.6683
1.51975, -1, -15.7434, 6.35594, 19.1351, -153.95, -94.9471, 93.3791
1.52933, -1, -15.9041, 6.3131, 19.1458, -154, -94.9298, 93.0897
1.53585, -1, -16.065, 6.27022, 19.1564, -154.05, -94.9127, 92.8
1.54395, -1, -16.2258, 6.22738, 19.167, -154.099, -94.8955, 92.5103
1.55362, -1, -16.3865, 6.18439, 19.1775, -154.148, -94.8781, 92.2209
1.55999, -1, -16.5469, 6.14139, 19.188, -154.198, -94.8604, 91.9311
1.56813, -1, -16.707, 6.09845, 19.1986, -154.248, -94.8425, 91.6409
1.57464, -1, -16.7869, 6.07696, 19.2039, -154.273, -94.8335, 91.4958
1.58424, -1, -17.026, 6.01247, 19.2199, -154.348, -94.8072, 91.0606
1.59219, -1, -17.1853, 5.96952, 19.2305, -154.397, -94.7897, 90.7703
1.6011, -1, -17.3442, 5.92663, 19.241, -154.447, -94.7725, 90.4798
1.60824, -1, -17.5034, 5.88384, 19.2518, -154.497, -94.7551, 90.1895
1.61616, -1, -17.5831, 5.86244, 19.2571, -154.522, -94.7464, 89.8994
1.62362, -1, -17.7425, 5.81959, 19.2678, -154.571, -94.7288, 89.7543
1.63168, -1, -17.902, 5.77681, 19.2785, -154.621, -94.7108, 89.4639
1.63966, -1, -18.0621, 5.73397, 19.2891, -154.671, -94.6927, 89.1734
1.64763, -1, -18.2226, 5.69121, 19.2997, -154.721, -94.6748, 88.8831
1.6557, -1, -18.3835, 5.64843, 19.3104, -154.771, -94.6572, 88.5923
1.66362, -1, -18.5449, 5.6055, 19.3211, -154.821, -94.6399, 88.3013
1.67166, -1, -18.7064, 5.56255, 19.3318, -154.871, -94.6226, 88.0106
1.67967, -1, -18.868, 5.51958, 19.3425, -154.921, -94.6053, 87.7197
1.68763, -1, -19.0298, 5.47653, 19.353, -154.971, -94.5877, 87.4285
1.69563, -1, -19.1913, 5.43336, 19.3636, -155.021, -94.5699, 87.1371
1.70364, -1, -19.3528, 5.39021, 19.3743, -155.071, -94.5518, 86.8457
1.71164, -1, -19.5141, 5.34705, 19.3848, -155.12, -94.5338, 86.5541
1.71969, -1, -19.675, 5.30379, 19.3955, -155.17, -94.516, 86.2624
1.72763, -1, -19.8356, 5.26063, 19.4061, -155.221, -94.4985, 85.9706
1.73569, -1, -19.9961, 5.21747, 19.4168, -155.27, -94.4811, 85.679
1.74364, -1, -20.1561, 5.17429, 19.4276, -155.32, -94.4637, 85.3876
1.75163, -1, -20.3159, 5.13133, 19.4384, -155.371, -94.4461, 85.0957
1.75969, -1, -20.4758, 5.08829, 19.4493, -155.42, -94.4283, 84.8038
1.76764, -1, -20.6359, 5.04518, 19.46, -155.471, -94.4102, 84.512
1.77563, -1, -20.7963, 5.00226, 19.4707, -155.521, -94.3922, 84.22
1.78371, -1, -20.957, 4.95927, 19.4814, -155.571, -94.3744, 83.9279
1.79162, -1, -21.118, 4.91616, 19.4921, -155.621, -94.3569, 83.6357
1.79963, -1, -21.2795, 4.87308, 19.5027, -155.672, -94.3396, 83.3439
1.80773, -1, -21.4414, 4.82986, 19.5133, -155.722, -94.3224, 83.0517
1.81562, -1, -21.6036, 4.78659, 19.524, -155.772, -94.305, 82.759
1.82364, -1, -21.7659, 4.74339, 19.5348, -155.822, -94.2874, 82.4665
1.83169, -1, -21.9283, 4.70004, 19.5455, -155.872, -94.2695, 82.1739
1.83962, -1, -22.0908, 4.65663, 19.5564, -155.923, -94.2514, 81.8812
1.84763, -1, -22.2533, 4.6133, 19.567, -155.973, -94.2337, 81.5882
1.85569, -1, -22.4157, 4.56985, 19.5777, -156.023, -94.2161, 81.2956
1.86364, -1, -22.5777, 4.52644, 19.5885, -156.073, -94.1986, 81.003
1.87163, -1, -22.7395, 4.483, 19.5991, -156.123, -94.1811, 80.7101
1.8797, -1, -22.9007, 4.43959, 19.6098, -156.173, -94.1636, 80.417
1.88762, -1, -23.0619, 4.39628, 19.6205, -156.224, -94.1457, 80.124
1.8957, -1, -23.223, 4.35295, 19.6311, -156.274, -94.1275, 79.831
1.90377, -1, -23.3838, 4.30961, 19.642, -156.324, -94.1092, 79.5375
1.91162, -1, -23.5447, 4.26634, 19.6529, -156.375, -94.0912, 79.2441
1.91977, -1, -23.7057, 4.22307, 19.6637, -156.425, -94.0734, 78.9509
1.92762, -1, -23.8669, 4.17982, 19.6744, -156.476, -94.0558, 78.6574
1.93564, -1, -24.0284, 4.13653, 19.6851, -156.526, -94.0385, 78.3635
1.94391, -1, -24.1904, 4.09316, 19.6958, -156.576, -94.021, 78.0696
1.9517, -1, -24.3528, 4.04978, 19.7066, -156.627, -94.0033, 77.7758
1.95977, -1, -24.5156, 4.00635, 19.7172, -156.678, -93.9853, 77.4817
1.96816, -1, -24.6787, 3.96279, 19.7279, -156.727, -93.9671, 77.1873
1.97576, -1, -24.842, 3.91925, 19.7386, -156.778, -93.9492, 76.8933
1.98373, -1, -25.0054, 3.87571, 19.7494, -156.829, -93.9314, 76.5994
1.99218, -1, -25.1688, 3.83215, 19.7603, -156.879, -93.9138, 76.305
1.99975, -1, -25.3319, 3.78859, 19.7712, -156.93, -93.8964, 76.0105
2.00772, -1, -25.4949, 3.74496, 19.782, -156.98, -93.8788, 75.7162
2.0165, -1, -25.6576, 3.70128, 19.7927, -157.03, -93.8611, 75.4219
2.02369, -1, -25.8203, 3.65775, 19.8034, -157.081, -93.8429, 75.1272
2.03188, -1, -25.9826, 3.61427, 19.8143, -157.131, -93.8245, 74.8324
2.04075, -1, -26.1446, 3.57072, 19.825, -157.181, -93.8063, 74.5379
2.04789, -1, -26.3062, 3.52734, 19.8358, -157.233, -93.7883, 74.2432
2.05605, -1, -26.4677, 3.48395, 19.8465, -157.283, -93.7705, 73.9481
2.06263, -1, -26.5486, 3.46219, 19.8519, -157.308, -93.7617, 73.8005
2.0721, -1, -26.7916, 3.39697, 19.8682, -157.384, -93.7354, 73.3578
2.07862, -1, -26.8728, 3.37523, 19.8736, -157.41, -93.7265, 73.2103
2.08928, -1, -27.1168, 3.30983, 19.8899, -157.485, -93.6995, 72.7669
2.09632, -1, -27.2798, 3.26626, 19.9007, -157.536, -93.6811, 72.4717
2.10427, -1, -27.4433, 3.22255, 19.9113, -157.586, -93.6629, 72.1765
2.11308, -1, -27.5251, 3.20065, 19.9168, -157.637, -93.645, 71.881
2.11869, -1, -27.689, 3.15694, 19.9276, -157.663, -93.636, 71.7331
2.12863, -1, -27.9352, 3.0914, 19.9437, -157.738, -93.6095, 71.2897
2.13562, -1, -28.0173, 3.06953, 19.9491, -157.764, -93.6006, 71.1419
2.14269, -1, -28.1815, 3.02577, 19.9599, -157.815, -93.5829, 70.846
2.15276, -1, -28.4278, 2.96017, 19.9762, -157.89, -93.5557, 70.4019
2.15963, -1, -28.5098, 2.93832, 19.9817, -157.916, -93.5464, 70.254
2.16767, -1, -28.6734, 2.89466, 19.9926, -157.967, -93.528, 69.9581
2.17561, -1, -28.8369, 2.85095, 20.0034, -158.018, -93.5098, 69.6619
2.18361, -1, -29, 2.80725, 20.0141, -158.069, -93.4918, 69.3654
2.19062, -1, -29.1627, 2.76359, 20.0249, -158.12, -93.4741, 69.0691
2.19961, -1, -29.3254, 2.71992, 20.0357, -158.17, -93.4565, 68.7725
2.2076, -1, -29.4881, 2.67623, 20.0465, -158.222, -93.4388, 68.4756
2.21462, -1, -29.651, 2.63245, 20.0573, -158.272, -93.4207, 68.1786
2.22361, -1, -29.814, 2.58864, 20.0682, -158.323, -93.4025, 67.8821
2.23162, -1, -29.9771, 2.54488, 20.0791, -158.375, -93.384, 67.5854
2.23971, -1, -30.1404, 2.50097, 20.09, -158.425, -93.3657, 67.2884
2.24761, -1, -30.3043, 2.45697, 20.101, -158.476, -93.3477, 66.9913
2.25662, -1, -30.4686, 2.41305, 20.1119, -158.527, -93.33, 66.6945
2.26367, -1, -30.6333, 2.36904, 20.1227, -158.578, -93.3123, 66.3973
2.27163, -1, -30.7983, 2.32506, 20.1335, -158.629, -93.2945, 66.0997
2.2796, -1, -30.9634, 2.28113, 20.1444, -158.68, -93.2764, 65.8025
2.28761, -1, -31.1285, 2.23704, 20.1553, -158.731, -93.258, 65.5054
2.29565, -1, -31.2936, 2.19309, 20.1661, -158.782, -93.2395, 65.208
2.30368, -1, -31.4585, 2.14924, 20.1769, -158.833, -93.2211, 64.9102
2.31166, -1, -31.623, 2.10521, 20.1877, -158.884, -93.2031, 64.6125
2.31961, -1, -31.7876, 2.06124, 20.1987, -158.936, -93.1854, 64.3147
2.32767, -1, -31.9519, 2.01736, 20.2097, -158.987, -93.1678, 64.0167
2.33561, -1, -32.1158, 1.97338, 20.2206, -159.037, -93.1502, 63.7184
2.34361, -1, -32.2795, 1.92938, 20.2315, -159.089, -93.1323, 63.4207
2.35168, -1, -32.4429, 1.88539, 20.2424, -159.14, -93.1141, 63.1227
2.35961, -1, -32.6066, 1.84126, 20.2534, -159.191, -93.0957, 62.8243
2.36761, -1, -32.7705, 1.79719, 20.2643, -159.243, -93.0774, 62.526
2.37567, -1, -32.9345, 1.75306, 20.2752, -159.294, -93.0594, 62.2278
2.38363, -1, -33.0988, 1.70879, 20.2861, -159.345, -93.0416, 61.9292
2.39163, -1, -33.2634, 1.6646, 20.2969, -159.396, -93.0238, 61.6304
2.39968, -1, -33.4284, 1.62039, 20.3079, -159.447, -93.0059, 61.3318
2.40763, -1, -33.594, 1.57612, 20.3189, -159.499, -92.9878, 61.0334
2.41572, -1, -33.7597, 1.53184, 20.3298, -159.55, -92.9693, 60.7344
2.42361, -1, -33.9255, 1.48763, 20.3407, -159.601, -92.9507, 60.4352
2.43162, -1, -34.0915, 1.44345, 20.3516, -159.652, -92.9321, 60.1361
2.43971, -1, -34.2575, 1.39928, 20.3625, -159.704, -92.9139, 59.8367
2.44764, -1, -34.4236, 1.35503, 20.3735, -159.755, -92.896, 59.5371
2.45569, -1, -34.5894, 1.31082, 20.3844, -159.807, -92.8782, 59.2375
2.46376, -1, -34.755, 1.26665, 20.3953, -159.858, -92.8604, 58.9382
2.47176, -1, -34.9201, 1.2224, 20.4063, -159.909, -92.8423, 58.6388
2.47976, -1, -35.0851, 1.17813, 20.4173, -159.961, -92.8239, 58.339
2.48776, -1, -35.2496, 1.13383, 20.4284, -160.012, -92.8054, 58.0393
2.49561, -1, -35.4139, 1.08953, 20.4395, -160.064, -92.7869, 57.7397
2.50364, -1, -35.5772, 1.04555, 20.4507, -160.115, -92.7687, 57.4396
2.51169, -1, -35.7383, 1.00195, 20.462, -160.166, -92.7507, 57.1402
2.5198, -1, -35.8959, 0.959209, 20.4737, -160.217, -92.733, 56.843
2.52772, -1, -36.0492, 0.917849, 20.4857, -160.267, -92.7154, 56.5503
2.53615, -1, -36.1961, 0.878381, 20.4976, -160.316, -92.698, 56.2655
2.54383, -1, -36.3342, 0.841536, 20.5094, -160.362, -92.6811, 55.9939
2.55193, -1, -36.462, 0.807731, 20.5205, -160.405, -92.6652, 55.7418
2.56043, -1, -36.5777, 0.777065, 20.5306, -160.443, -92.6509, 55.5154
2.56814, -1, -36.6798, 0.750073, 20.5389, -160.476, -92.6388, 55.3199
2.57613, -1, -36.7672, 0.726886, 20.5451, -160.503, -92.6289, 55.1589
2.58457, -1, -36.8403, 0.707559, 20.5491, -160.525, -92.6213, 55.033
2.59214, -1, -36.9001, 0.691848, 20.5511, -160.541, -92.6159, 54.9412
2.60039, -1, -36.9468, 0.67945, 20.5519, -160.552, -92.6122, 54.8775
2.6082, -1, -36.9815, 0.670125, 20.552, -160.559, -92.61, 54.8366
2.61656, -1, -36.9951, 0.666596, 20.5518, -160.564, -92.6087, 54.8126
2.62413, -1, -37.0154, 0.661506, 20.5513, -160.565, -92.6083, 54.8051
2.63164, -1, -37.0278, 0.658502, 20.551, -160.567, -92.6079, 54.796
2.63961, -1, -37.0345, 0.656896, 20.5508, -160.568, -92.6077, 54.7916
2.64765, 2, -37.0367, 0.656164, 20.5507, -160.568, -92.6075, 54.7897
2.65563, 2, -37.0366, 0.655839, 20.5506, -160.568, -92.6075, 54.7889
2.66371, 2, -37.036, 0.655716, 20.5506, -160.568, -92.6075, 54.7884
2.67163, 2, -37.0357, 0.655659, 20.5506, -160.568, -92.6075, 54.7883
2.67962, 2, -37.0361, 0.655622, 20.5506, -160.568, -92.6076, 54.7882
2.6876, 2, -37.0371, 0.655572, 20.5505, -160.568, -92.6076, 54.7882
2.69561, 2, -37.0382, 0.655474, 20.5504, -160.568, -92.6076, 54.7883
2.70363, 2, -37.0397, 0.655267, 20.5502, -160.568, -92.6076, 54.7883
2.71161, 2, -37.0411, 0.655007, 20.55, -160.568, -92.6076, 54.7883
2.71963, 2, -37.0423, 0.654754, 20.5499, -160.568, -92.6077, 54.7884
2.72766, 2, -37.0433, 0.654549, 20.5497, -160.568, -92.6077, 54.7885
2.73559, 2, -37.0437, 0.654438, 20.5495, -160.568, -92.6077, 54.7886
2.74365, 2, -37.0437, 0.654387, 20.5493, -160.568, -92.6078, 54.7887
2.7532, 2, -37.0433, 0.654383, 20.5492, -160.568, -92.6078, 54.789
2.7596, 2, -37.0424, 0.654436, 20.5491, -160.568, -92.6079, 54.7891
2.7686, 2, -37.0414, 0.654483, 20.549, -160.568, -92.608, 54.7893
2.77565, 2, -37.0398, 0.654561, 20.549, -160.568, -92.608, 54.7894
2.78359, 2, -37.0384, 0.654639, 20.5489, -160.568, -92.608, 54.7896
2.79174, 2, -37.0373, 0.654671, 20.5488, -160.568, -92.608, 54.7897
2.79964, 2, -37.0367, 0.654683, 20.5488, -160.568, -92.608, 54.7898
2.80759, 2, -37.0364, 0.654665, 20.5487, -160.568, -92.6081, 54.7898
2.81565, 2, -37.0365, 0.654615, 20.5487, -160.568, -92.6081, 54.7899
2.82364, 2, -37.0368, 0.654542, 20.5487, -160.568, -92.6081, 54.79
2.8316, 2, -37.037, 0.654501, 20.5487, -160.568, -92.6081, 54.79
2.83961, 2, -37.0375, 0.654459, 20.5487, -160.568, -92.6081, 54.7901
2.84763, 2, -37.0382, 0.654447, 20.5487, -160.568, -92.6081, 54.7901
2.85567, 2, -37.039, 0.654445, 20.5487, -160.568, -92.6081, 54.7902
2.86361, 2, -37.0396, 0.654452, 20.5486, -160.568, -92.6081, 54.7902
2.87165, 2, -37.04, 0.654474, 20.5486, -160.568, -92.6081, 54.7902
2.87959, 2, -37.0401, 0.65449, 20.5486, -160.568, -92.6081, 54.7902
2.88763, 2, -37.0401, 0.654497, 20.5486, -160.568, -92.6081, 54.7903
2.89564, 2, -37.0401, 0.654529, 20.5486, -160.568, -92.6081, 54.7904
2.90359, 2, -37.0397, 0.65454, 20.5486, -160.568, -92.6081, 54.7904
2.91166, 2, -37.0393, 0.65452, 20.5486, -160.568, -92.6081, 54.7904
2.91965, 2, -37.039, 0.65451, 20.5486, -160.568, -92.6081, 54.7905
2.92759, 2, -37.0388, 0.654506, 20.5486, -160.568, -92.6081, 54.7905
2.93561, 2, -37.0387, 0.654504, 20.5486, -160.568, -92.6082, 54.7906
2.94369, 2, -37.0387, 0.654473, 20.5486, -160.568, -92.6082, 54.7907
2.95165, 2, -37.0387, 0.654457, 20.5485, -160.568, -92.6082, 54.7907
2.95969, 2, -37.0388, 0.654439, 20.5485, -160.568, -92.6082, 54.7908
2.96774, 2, -37.0389, 0.654461, 20.5485, -160.568, -92.6083, 54.7908
2.97569, 2, -37.0389, 0.654466, 20.5485, -160.568, -92.6082, 54.7908
2.98376, 2, -37.0391, 0.654474, 20.5485, -160.568, -92.6083, 54.7909
2.99176, 2, -37.0393, 0.654489, 20.5485, -160.568, -92.6083, 54.7909
2.99976, 2, -37.0394, 0.654496, 20.5485, -160.568, -92.6083, 54.791
3.00762, 2, -37.0394, 0.6545, 20.5485, -160.568, -92.6082, 54.7911
3.01567, 2, -37.0395, 0.654501, 20.5485, -160.568, -92.6082, 54.7911
3.02366, 2, -37.0395, 0.654502, 20.5485, -160.568, -92.6082, 54.7911
3.0317, 2, -37.0394, 0.654502, 20.5484, -160.568, -92.6083, 54.7912
3.04011, 2, -37.0394, 0.654502, 20.5484, -160.568, -92.6082, 54.7913
3.04786, 2, -37.0394, 0.654495, 20.5484, -160.568, -92.6083, 54.7913
3.05591, 2, -37.0394, 0.654464, 20.5484, -160.568, -92.6083, 54.7914
3.06434, 2, -37.0394, 0.654477, 20.5484, -160.568, -92.6083, 54.7914
3.07203, 2, -37.0394, 0.654486, 20.5484, -160.568, -92.6084, 54.7915
3.08009, 2, -37.0394, 0.654483, 20.5484, -160.568, -92.6083, 54.7916
3.08855, 2, -37.0394, 0.654493, 20.5484, -160.568, -92.6083, 54.7916
3.09615, 2, -37.0394, 0.654498, 20.5484, -160.568, -92.6083, 54.7916
3.10417, 2, -37.0393, 0.654501, 20.5484, -160.568, -92.6084, 54.7916
3.1125, 2, -37.0393, 0.654502, 20.5483, -160.568, -92.6084, 54.7917
3.12018, 2, -37.0393, 0.654502, 20.5483, -160.568, -92.6084, 54.7918
3.12809, 2, -37.0393, 0.654502, 20.5483, -160.568, -92.6084, 54.7917
3.13648, 2, -37.0393, 0.654502, 20.5483, -160.568, -92.6084, 54.7918
3.14358, 2, -37.0393, 0.654502, 20.5483, -160.568, -92.6084, 54.7918
3.15164, 2, -37.0393, 0.654503, 20.5483, -160.568, -92.6084, 54.7918
3.15984, 2, -37.0393, 0.654503, 20.5483, -160.568, -92.6084, 54.7919
3.16758, 2, -37.0393, 0.65449, 20.5483, -160.568, -92.6084, 54.7919
3.1756, 2, -37.0393, 0.654497, 20.5483, -160.568, -92.6084, 54.7919
3.18361, 2, -37.0393, 0.6545, 20.5483, -160.568, -92.6084, 54.792
3.19159, 2, -37.0392, 0.654501, 20.5482, -160.568, -92.6084, 54.792
3.1996, 2, -37.0392, 0.654513, 20.5482, -160.568, -92.6084, 54.7921
3.20761, 2, -37.0392, 0.654515, 20.5482, -160.568, -92.6084, 54.7921
3.21558, 2, -37.0392, 0.654508, 20.5482, -160.568, -92.6084, 54.7922
3.22362, 2, -37.0392, 0.654505, 20.5482, -160.568, -92.6084, 54.7922
3.23172, 2, -37.0392, 0.654522, 20.5482, -160.568, -92.6085, 54.7922
3.23958, 2, -37.0392, 0.654512, 20.5482, -160.568, -92.6084, 54.7922
3.24763, 2, -37.0391, 0.654507, 20.5482, -160.568, -92.6084, 54.7923
3.25746, 2, -37.0391, 0.654504, 20.5482, -160.568, -92.6084, 54.7923
3.26357, 2, -37.0391, 0.654503, 20.5482, -160.568, -92.6084, 54.7924
3.27161, 2, -37.0391, 0.654503, 20.5481, -160.568, -92.6084, 54.7924
3.27963, 2, -37.0391, 0.654503, 20.5481, -160.568, -92.6084, 54.7924
3.28758, 2, -37.0391, 0.654503, 20.5481, -160.568, -92.6084, 54.7925
3.29565, 2, -37.0391, 0.654503, 20.5481, -160.568, -92.6084, 54.7926
3.30362, 2, -37.0391, 0.654503, 20.5481, -160.568, -92.6085, 54.7926
3.31159, 2, -37.0391, 0.654503, 20.5481, -160.568, -92.6085, 54.7925
3.31963, 2, -37.0391, 0.654503, 20.5481, -160.568, -92.6084, 54.7926
3.32762, 2, -37.039, 0.654503, 20.5481, -160.568, -92.6084, 54.7926
3.33557, 2, -37.039, 0.654503, 20.5481, -160.568, -92.6085, 54.7926
3.3436, 2, -37.039, 0.654503, 20.5481, -160.568, -92.6085, 54.7927
3.35163, 2, -37.039, 0.654503, 20.5481, -160.568, -92.6085, 54.7926
3.35958, 2, -37.039, 0.654503, 20.5481, -160.568, -92.6085, 54.7927
3.3676, 2, -37.039, 0.654503, 20.5481, -160.568, -92.6085, 54.7927
3.37562, 2, -37.0389, 0.654503, 20.548, -160.568, -92.6085, 54.7928
3.38357, 2, -37.0389, 0.654503, 20.548, -160.568, -92.6085, 54.7928
3.39163, 2, -37.0389, 0.654503, 20.548, -160.567, -92.6085, 54.7928
3.39962, 2, -37.0389, 0.654503, 20.548, -160.567, -92.6085, 54.7928
3.40757, 2, -37.0389, 0.654513, 20.548, -160.567, -92.6085, 54.7928
3.41563, 2, -37.0389, 0.654515, 20.548, -160.567, -92.6085, 54.7928
3.42363, 2, -37.0389, 0.654508, 20.548, -160.567, -92.6085, 54.7928
3.43159, 2, -37.0388, 0.654505, 20.548, -160.567, -92.6085, 54.7929
3.4396, 2, -37.0388, 0.654533, 20.548, -160.567, -92.6085, 54.7929
3.44767, 2, -37.0388, 0.654535, 20.548, -160.567, -92.6085, 54.7928
3.45564, 2, -37.0388, 0.654525, 20.548, -160.567, -92.6085, 54.7929
3.46368, 2, -37.0388, 0.654531, 20.548, -160.567, -92.6085, 54.7929
3.47172, 2, -37.0388, 0.654516, 20.548, -160.567, -92.6085, 54.793
3.47968, 2, -37.0388, 0.654509, 20.548, -160.567, -92.6085, 54.793
3.48775, 2, -37.0388, 0.654505, 20.5479, -160.567, -92.6086, 54.793
3.49572, 2, -37.0387, 0.654504, 20.5479, -160.567, -92.6085, 54.7931
3.50358, 2, -37.0387, 0.654521, 20.5479, -160.567, -92.6085, 54.7931
3.51163, 2, -37.0387, 0.654511, 20.5479, -160.567, -92.6085, 54.793
3.51965, 2, -37.0387, 0.654517, 20.5479, -160.567, -92.6086, 54.793
3.52768, 2, -37.0387, 0.654546, 20.5479, -160.567, -92.6086, 54.793
3.5358, 2, -37.0387, 0.65453, 20.5479, -160.567, -92.6086, 54.793
3.54378, 2, -37.0387, 0.654544, 20.5479, -160.567, -92.6086, 54.7931
3.55189, 2, -37.0387, 0.65456, 20.5479, -160.567, -92.6086, 54.793
3.55989, 2, -37.0387, 0.654547, 20.5479, -160.567, -92.6086, 54.7931
3.56797, 2, -37.0386, 0.654552, 20.5479, -160.567, -92.6086, 54.7931
3.57605, 2, -37.0387, 0.654562, 20.5479, -160.567, -92.6086, 54.7931
3.58422, 2, -37.0387, 0.654548, 20.5479, -160.567, -92.6087, 54.7931
3.5921, 2, -37.0386, 0.65456, 20.5478, -160.567, -92.6086, 54.7932
3.60017, 2, -37.0386, 0.654566, 20.5478, -160.567, -92.6086, 54.7931
3.60817, 2, -37.0386, 0.654557, 20.5478, -160.567, -92.6086, 54.7931
3.61617, 2, -37.0386, 0.654569, 20.5478, -160.567, -92.6086, 54.7931
3.62419, 2, -37.0386, 0.654577, 20.5478, -160.567, -92.6086, 54.7932
3.63227, 2, -37.0386, 0.654578, 20.5478, -160.567, -92.6087, 54.7932
3.6396, 2, -37.0386, 0.654563, 20.5478, -160.567, -92.6086, 54.7931
3.64945, 2, -37.0386, 0.654548, 20.5478, -160.567, -92.6086, 54.7931
3.65559, 2, -37.0386, 0.654533, 20.5478, -160.567, -92.6086, 54.7931
3.66359, 2, -37.0386, 0.654546, 20.5478, -160.567, -92.6087, 54.7932
3.67165, 2, -37.0386, 0.65453, 20.5478, -160.567, -92.6086, 54.7932
3.67959, 2, -37.0386, 0.654544, 20.5478, -160.567, -92.6087, 54.7932
3.6876, 2, -37.0386, 0.65454, 20.5478, -160.567, -92.6087, 54.7932
3.69557, 2, -37.0385, 0.654557, 20.5478, -160.567, -92.6087, 54.7932
3.70355, 2, -37.0385, 0.654564, 20.5477, -160.567, -92.6086, 54.7932
3.71161, 2, -37.0385, 0.654549, 20.5477, -160.567, -92.6086, 54.7931
3.71956, 2, -37.0385, 0.65455, 20.5477, -160.567, -92.6087, 54.7932
3.72758, 4, -37.0385, 0.654535, 20.5477, -160.567, -92.6087, 54.7932
3.73564, 4, -37.0385, 0.654555, 20.5477, -160.567, -92.6087, 54.7932
3.74357, 4, -37.0385, 0.654527, 20.5477, -160.567, -92.6087, 54.7932
3.75163, 4, -37.0385, 0.654543, 20.5477, -160.567, -92.6087, 54.7932
3.76121, 4, -37.0385, 0.654558, 20.5477, -160.567, -92.6087, 54.7932
3.76756, 4, -37.0385, 0.654577, 20.5477, -160.567, -92.6087, 54.7932
3.77558, 4, -37.0384, 0.654573, 20.5477, -160.567, -92.6087, 54.7932
3.78362, 4, -37.0384, 0.654572, 20.5477, -160.567, -92.6087, 54.7932
3.79157, 4, -37.0384, 0.654553, 20.5477, -160.567, -92.6088, 54.7932
3.7996, 4, -37.0384, 0.654551, 20.5477, -160.567, -92.6087, 54.7932
3.80766, 4, -37.0384, 0.654536, 20.5477, -160.567, -92.6087, 54.7932
3.81558, 4, -37.0384, 0.654556, 20.5476, -160.567, -92.6087, 54.7932
3.82362, 4, -37.0384, 0.654556, 20.5476, -160.567, -92.6087, 54.7932
3.85007, 4, -37.0384, 0.654576, 20.5476, -160.567, -92.6086, 54.7932
3.85209, 4, -37.0383, 0.654592, 20.5476, -160.567, -92.6086, 54.7932
3.85469, 4, -37.0383, 0.654585, 20.5476, -160.567, -92.6087, 54.7932
3.85663, 4, -37.0383, 0.654585, 20.5476, -160.567, -92.6087, 54.7932
3.86944, 4, -37.0383, 0.654583, 20.5476, -160.567, -92.6087, 54.7932
3.87222, 4, -37.0382, 0.654568, 20.5476, -160.567, -92.6087, 54.7932
3.88241, 4, -37.0366, 0.654126, 20.5476, -160.567, -92.6087, 54.7932
3.88806, 4, -37.035, 0.65347, 20.5478, -160.567, -92.6087, 54.7932
3.89576, 4, -37.0292, 0.650574, 20.5486, -160.567, -92.6088, 54.7932
3.90361, 4, -37.0197, 0.644613, 20.5511, -160.567, -92.6087, 54.7932
3.91157, 4, -37.0064, 0.635033, 20.5566, -160.566, -92.6087, 54.7931
3.91981, 4, -36.9883, 0.621312, 20.5663, -160.564, -92.6088, 54.7931
3.92762, 5, -36.9645, 0.603069, 20.5818, -160.561, -92.6087, 54.7931
3.93556, 5, -36.9352, 0.58044, 20.6038, -160.557, -92.6085, 54.7932
3.94513, 5, -36.9011, 0.553247, 20.6326, -160.551, -92.608, 54.7931
3.95177, 5, -36.8622, 0.521727, 20.6681, -160.543, -92.6074, 54.7931
3.9597, 5, -36.8181, 0.485331, 20.7094, -160.534, -92.6063, 54.7931
3.96765, 5, -36.769, 0.444457, 20.7558, -160.523, -92.6049, 54.7931
3.97591, 5, -36.7148, 0.399538, 20.8059, -160.512, -92.6033, 54.793
3.98367, 5, -36.6564, 0.35133, 20.8585, -160.5, -92.6016, 54.7929
3.9917, 5, -36.594, 0.300744, 20.9129, -160.488, -92.5999, 54.7929
3.99974, 5, -36.5283, 0.248321, 20.968, -160.476, -92.5981, 54.793
4.00757, 5, -36.461, 0.194953, 21.0234, -160.464, -92.5962, 54.7929
4.01559, 5, -36.3927, 0.141209, 21.0788, -160.451, -92.5943, 54.793
4.02394, 5, -36.3241, 0.0873198, 21.1343, -160.439, -92.5924, 54.793
4.0365, 5, -36.2208, 0.00663807, 21.2175, -160.422, -92.5896, 54.793
4.03974, 5, -36.1864, -0.0201754, 21.2452, -160.415, -92.5887, 54.793
4.04811, 5, -36.1177, -0.0736388, 21.3006, -160.403, -92.5867, 54.793
4.05582, 5, -36.049, -0.126837, 21.3559, -160.391, -92.5847, 54.7931
4.064, 5, -35.9804, -0.179824, 21.4111, -160.378, -92.5827, 54.7932
4.07195, 5, -35.9118, -0.232629, 21.4663, -160.365, -92.5807, 54.7935
4.07861, 5, -35.8775, -0.258971, 21.4938, -160.358, -92.5797, 54.7937
4.08844, 5, -35.7741, -0.337884, 21.5764, -160.339, -92.5767, 54.7944
4.09655, 5, -35.705, -0.390547, 21.6312, -160.327, -92.5746, 54.7953
4.10493, 5, -35.6355, -0.443186, 21.6859, -160.314, -92.5727, 54.7963
4.11229, 5, -35.5659, -0.495915, 21.7403, -160.302, -92.5706, 54.7974
4.12098, 5, -35.4959, -0.548669, 21.7946, -160.289, -92.5685, 54.7987
4.12896, 5, -35.4609, -0.601431, 21.8487, -160.277, -92.5665, 54.8002
4.13626, 5, -35.3906, -0.627795, 21.8757, -160.27, -92.5655, 54.801
4.14355, 5, -35.3202, -0.68049, 21.9297, -160.257, -92.5634, 54.8026
4.15528, 5, -35.2143, -0.759386, 22.0104, -160.238, -92.5603, 54.8054
4.1596, 5, -35.1791, -0.785502, 22.0372, -160.231, -92.5592, 54.8064
4.16755, 5, -35.1084, -0.837674, 22.0908, -160.217, -92.5571, 54.8085
4.17569, 5, -35.0378, -0.889753, 22.1443, -160.204, -92.555, 54.8107
4.18353, 5, -34.9673, -0.941523, 22.1977, -160.191, -92.5529, 54.813
4.19161, 5, -34.8968, -0.99312, 22.251, -160.178, -92.5507, 54.8154
4.19969, 5, -34.8263, -1.04452, 22.3041, -160.165, -92.5485, 54.818
4.20753, 5, -34.7557, -1.0959, 22.3571, -160.152, -92.5463, 54.8207
4.21563, 5, -34.6849, -1.1473, 22.4098, -160.14, -92.5441, 54.8235
4.22359, 5, -34.6139, -1.19855, 22.4625, -160.127, -92.5419, 54.8263
4.23159, 5, -34.5429, -1.24992, 22.5148, -160.114, -92.5396, 54.8293
4.23961, 5, -34.4717, -1.30125, 22.5672, -160.1, -92.5373, 54.8323
4.24781, 5, -34.4003, -1.35258, 22.6193, -160.086, -92.5351, 54.8356
4.25641, 5, -34.3287, -1.40389, 22.6713, -160.072, -92.5328, 54.8389
4.26354, 5, -34.257, -1.45512, 22.7231, -160.059, -92.5306, 54.8424
4.27163, 5, -34.1851, -1.50617, 22.7749, -160.045, -92.5283, 54.846
4.28062, 5, -34.1131, -1.55696, 22.8265, -160.032, -92.5259, 54.8498
4.28756, 5, -34.041, -1.60759, 22.878, -160.018, -92.5236, 54.8537
4.29675, 5, -33.9688, -1.65798, 22.9294, -160.005, -92.5213, 54.8576
4.30371, 5, -33.8966, -1.70815, 22.9807, -159.991, -92.519, 54.8616
4.31262, 5, -33.8245, -1.75816, 23.0318, -159.978, -92.5167, 54.8657
4.32301, 5, -33.7161, -1.83307, 23.1082, -159.957, -92.5133, 54.872
4.32768, 5, -33.6799, -1.85799, 23.1336, -159.95, -92.5121, 54.8741
4.33659, 5, -33.6075, -1.9078, 23.1841, -159.935, -92.5098, 54.8784
4.34361, 5, -33.5348, -1.95783, 23.2346, -159.921, -92.5076, 54.8828
4.35156, 5, -33.462, -2.00819, 23.285, -159.907, -92.5053, 54.8867
4.35955, 5, -33.3893, -2.05886, 23.3353, -159.893, -92.503, 54.8898
4.36781, 6, -33.3168, -2.11001, 23.3857, -159.879, -92.5006, 54.8914
4.37576, 6, -33.2446, -2.16173, 23.4365, -159.864, -92.4979, 54.8916
4.38376, 6, -33.1727, -2.21431, 23.4875, -159.85, -92.4949, 54.8898
4.39158, 6, -33.1011, -2.2678, 23.5392, -159.834, -92.4912, 54.8847
4.3996, 7, -33.03, -2.32224, 23.5919, -159.817, -92.4864, 54.8743
4.40759, 7, -32.9594, -2.37785, 23.6457, -159.799, -92.4802, 54.8602
4.41554, 7, -32.8892, -2.43469, 23.7007, -159.78, -92.4724, 54.8436
4.42381, 7, -32.8196, -2.49302, 23.7571, -159.759, -92.4626, 54.8261
4.43262, 7, -32.7507, -2.55284, 23.8148, -159.737, -92.4509, 54.8088
4.43951, 8, -32.6824, -2.61427, 23.8739, -159.715, -92.4372, 54.7918
4.44777, 8, -32.6148, -2.6773, 23.9341, -159.69, -92.4216, 54.7752
4.4556, 8, -32.548, -2.74209, 23.9955, -159.665, -92.4042, 54.758
4.46387, 8, -32.4817, -2.80849, 24.0579, -159.638, -92.3849, 54.74
4.47216, 8, -32.4162, -2.87643, 24.1213, -159.61, -92.364, 54.7208
4.48561, 9, -32.3191, -2.98098, 24.2183, -159.568, -92.3308, 54.6887
4.48914, 9, -32.287, -3.01647, 24.2511, -159.553, -92.3191, 54.677
4.49782, 9, -32.2232, -3.08847, 24.3174, -159.522, -92.2949, 54.6524
4.5039, 9, -32.16, -3.16176, 24.3848, -159.49, -92.2692, 54.6265
4.51156, 9, -32.0974, -3.23628, 24.4531, -159.458, -92.2415, 54.5993
4.51956, 9, -32.0353, -3.31216, 24.5224, -159.425, -92.2124, 54.5707
4.52763, 10, -31.9738, -3.38931, 24.5928, -159.391, -92.1823, 54.5404
4.53568, 10, -31.9129, -3.4679, 24.6642, -159.355, -92.151, 54.5081
4.54368, 10, -31.8525, -3.54797, 24.7368, -159.319, -92.1181, 54.4739
4.55227, 10, -31.7927, -3.6294, 24.8103, -159.282, -92.0831, 54.4384
4.5608, 10, -31.7335, -3.71235, 24.8848, -159.244, -92.0472, 54.4018
4.56787, 11, -31.6748, -3.79676, 24.9603, -159.205, -92.0105, 54.3637
4.57605, 11, -31.6167, -3.88265, 25.0367, -159.165, -91.9722, 54.3236
4.58399, 11, -31.559, -3.96996, 25.114, -159.125, -91.9318, 54.2816
4.59214, 11, -31.5018, -4.05877, 25.1923, -159.083, -91.8905, 54.2386
4.60413, 11, -31.4453, -4.14905, 25.3119, -159.018, -91.8263, 54.1716
4.60806, 12, -31.3892, -4.24079, 25.3522, -158.997, -91.8038, 54.1482
4.6162, 12, -31.3336, -4.33387, 25.4338, -158.952, -91.758, 54.1
4.62431, 12, -31.2786, -4.42835, 25.5164, -158.906, -91.7117, 54.0507
4.63676, 12, -31.197, -4.57259, 25.6422, -158.836, -91.6385, 53.9743
4.63948, 12, -31.197, -4.57259, 25.6422, -158.836, -91.6385, 53.9743
4.64754, 13, -31.1433, -4.67056, 25.7273, -158.788, -91.5885, 53.9207
4.65559, 13, -31.09, -4.76992, 25.8132, -158.739, -91.537, 53.8662
4.66355, 13, -31.0373, -4.87073, 25.9001, -158.69, -91.4834, 53.8104
4.67398, 13, -30.9592, -5.02489, 26.0327, -158.613, -91.402, 53.7231
4.67974, 13, -30.9334, -5.07696, 26.0774, -158.588, -91.3737, 53.6935
4.68891, 14, -30.8569, -5.23531, 26.2132, -158.508, -91.2878, 53.6028
4.69554, 14, -30.8317, -5.28889, 26.259, -158.481, -91.2588, 53.5714
4.70368, 14, -30.7817, -5.39708, 26.3513, -158.428, -91.1985, 53.508
4.71384, 14, -30.7076, -5.5622, 26.4913, -158.344, -91.1073, 53.411
4.71958, 14, -30.6832, -5.61796, 26.5385, -158.316, -91.0756, 53.3774
4.72753, 15, -30.6347, -5.73063, 26.6337, -158.26, -91.0116, 53.3096
4.73555, 15, -30.5867, -5.84468, 26.73, -158.201, -90.9467, 53.2409
4.74361, 15, -30.5392, -5.9599, 26.8275, -158.143, -90.8798, 53.17
4.75169, 15, -30.4922, -6.07655, 26.9261, -158.083, -90.8126, 53.0984
4.7604, 15, -30.4457, -6.19469, 27.0256, -158.023, -90.743, 53.0249
4.76774, 16, -30.3997, -6.31418, 27.1259, -157.961, -90.6729, 52.9495
4.77553, 16, -30.3543, -6.43528, 27.2271, -157.898, -90.6006, 52.8735
4.78361, 16, -30.3093, -6.55788, 27.3296, -157.835, -90.5279, 52.7948
4.79154, 16, -30.2648, -6.68185, 27.4333, -157.771, -90.4533, 52.7158
4.79969, 16, -30.2208, -6.80736, 27.538, -157.706, -90.3777, 52.6348
4.80855, 16, -30.1773, -6.9344, 27.6438, -157.64, -90.3003, 52.5526
4.81554, 17, -30.1342, -7.06301, 27.7504, -157.573, -90.2222, 52.4694
4.82471, 17, -30.0917, -7.19324, 27.8578, -157.505, -90.1423, 52.3845
4.83237, 17, -30.0497, -7.32491, 27.9662, -157.436, -90.0611, 52.2988
4.83954, 17, -30.0083, -7.45781, 28.0758, -157.367, -89.9789, 52.2109
4.84829, 17, -29.9673, -7.59203, 28.1867, -157.296, -89.8951, 52.1224
4.85552, 18, -29.9268, -7.72775, 28.2987, -157.225, -89.8101, 52.0319
4.86353, 18, -29.8869, -7.86488, 28.4115, -157.152, -89.7236, 51.9409
4.87508, 18, -29.8474, -8.07308, 28.5821, -157.042, -89.5921, 51.8009
4.8797, 18, -29.8083, -8.14309, 28.6396, -157.005, -89.5477, 51.7537
4.88785, 18, -29.7697, -8.28415, 28.7554, -156.93, -89.4575, 51.6579
4.89556, 19, -29.7316, -8.42661, 28.8724, -156.854, -89.3665, 51.5614
4.90355, 19, -29.6939, -8.57068, 28.9906, -156.777, -89.274, 51.4633
4.91159, 19, -29.6567, -8.7163, 29.1094, -156.7, -89.1801, 51.3646
4.91962, 19, -29.62, -8.86316, 29.229, -156.621, -89.0854, 51.2645
4.93346, 20, -29.5659, -9.08589, 29.4103, -156.501, -88.941, 51.1121
4.93564, 20, -29.5481, -9.1609, 29.4713, -156.461, -88.8922, 51.0609
4.94365, 20, -29.5127, -9.31203, 29.5943, -156.38, -88.7943, 50.9572
4.95178, 20, -29.4778, -9.46464, 29.7182, -156.298, -88.6952, 50.8526
4.9606, 20, -29.4434, -9.61834, 29.8428, -156.215, -88.5947, 50.7463
4.96761, 20, -29.4095, -9.77318, 29.9683, -156.131, -88.4935, 50.6393
4.97568, 21, -29.3761, -9.92944, 30.0949, -156.046, -88.391, 50.5308
4.98395, 21, -29.343, -10.0873, 30.2225, -155.96, -88.2872, 50.4215
4.99163, 21, -29.3104, -10.2465, 30.3512, -155.874, -88.1827, 50.3112
5.00033, 21, -29.2782, -10.4067, 30.4808, -155.787, -88.0771, 50.1999
5.01114, 21, -29.2464, -10.5678, 30.6113, -155.699, -87.9703, 50.088
5.0156, 22, -29.2151, -10.7303, 30.7425, -155.609, -87.8626, 49.975
5.02436, 22, -29.184, -10.8944, 30.8748, -155.519, -87.7538, 49.8611
5.03156, 22, -29.1534, -11.0594, 31.008, -155.428, -87.6443, 49.7465
5.04044, 22, -29.1232, -11.2254, 31.1421, -155.337, -87.5337, 49.6307
5.04889, 22, -29.0934, -11.3926, 31.2772, -155.244, -87.4218, 49.5143
5.05768, 23, -29.0639, -11.5615, 31.4132, -155.15, -87.3094, 49.3969
5.06471, 23, -29.0348, -11.732, 31.55, -155.056, -87.1958, 49.2788
5.07193, 23, -29.006, -11.9031, 31.6875, -154.961, -87.0814, 49.1603
5.08107, 23, -28.9777, -12.0751, 31.8258, -154.865, -86.9663, 49.0412
5.088, 23, -28.9497, -12.2486, 31.9651, -154.768, -86.8499, 48.9214
5.09613, 23, -28.9222, -12.4236, 32.1053, -154.671, -86.7328, 48.801
5.10493, 24, -28.8949, -12.5993, 32.2464, -154.572, -86.6147, 48.6802
5.11208, 24, -28.8679, -12.7754, 32.388, -154.472, -86.4959, 48.5586
5.12015, 24, -28.8414, -12.9527, 32.5303, -154.372, -86.3761, 48.4365
5.13134, 24, -28.8152, -13.1317, 32.6738, -154.271, -86.2554, 48.3138
5.13552, 24, -28.8022, -13.2216, 32.7459, -154.22, -86.195, 48.2522
5.14355, 25, -28.7764, -13.4019, 32.8905, -154.118, -86.0734, 48.1288
5.15152, 25, -28.751, -13.5827, 33.0357, -154.015, -85.9509, 48.0054
5.15954, 25, -28.7257, -13.7648, 33.1814, -153.911, -85.8282, 47.882
5.16754, 25, -28.7006, -13.9483, 33.3279, -153.807, -85.7041, 47.7582
5.17566, 25, -28.6758, -14.1326, 33.4754, -153.701, -85.5799, 47.6342
5.1835, 26, -28.6514, -14.3172, 33.6236, -153.594, -85.4549, 47.5103
5.19152, 26, -28.6272, -14.5029, 33.7722, -153.488, -85.3293, 47.3859
5.19954, 26, -28.6034, -14.6901, 33.9213, -153.38, -85.2033, 47.2615
5.20752, 26, -28.5797, -14.878, 34.0715, -153.271, -85.0763, 47.1373
5.21553, 26, -28.5561, -15.0659, 34.2223, -153.162, -84.9492, 47.013
5.22373, 27, -28.5327, -15.2546, 34.3735, -153.052, -84.8211, 46.8891
5.23298, 27, -28.5097, -15.4444, 34.5251, -152.942, -84.6929, 46.7041
5.23954, 27, -28.4868, -15.6345, 34.6774, -152.83, -84.5641, 46.6424
5.24995, 27, -28.4529, -15.9203, 34.9073, -152.662, -84.37, 46.4579
5.25575, 27, -28.4418, -16.0163, 34.9841, -152.605, -84.3051, 46.3966
5.26512, 28, -28.4195, -16.2094, 35.1376, -152.492, -84.175, 46.2131
5.27152, 28, -28.3971, -16.4029, 35.2916, -152.378, -84.0445, 46.152
5.2867, 28, -28.3639, -16.7917, 35.6021, -152.148, -83.7826, 45.9095
5.28811, 28, -28.3529, -16.7917, 35.6021, -152.148, -83.7826, 45.9095
5.29561, 28, -28.3308, -16.9875, 35.7576, -152.032, -83.651, 45.7894
5.30348, 29, -28.3088, -17.1832, 35.9134, -151.915, -83.5195, 45.6704
5.31159, 29, -28.2869, -17.379, 36.0699, -151.797, -83.3874, 45.552
5.31951, 29, -28.2652, -17.5756, 36.227, -151.679, -83.255, 45.4347
5.32783, 29, -28.2433, -17.7729, 36.3839, -151.561, -83.1224, 45.3186
5.33566, 29, -28.2215, -17.9701, 36.5409, -151.442, -82.9896, 45.203
5.34371, 30, -28.2, -18.1675, 36.6987, -151.322, -82.8565, 45.089
5.35447, 30, -28.1676, -18.4651, 36.9362, -151.141, -82.6568, 44.9201
5.35973, 30, -28.1568, -18.5644, 37.0153, -151.081, -82.5902, 44.8643
5.36766, 30, -28.1353, -18.7629, 37.1734, -150.959, -82.4567, 44.7542
5.37551, 30, -28.1138, -18.9621, 37.3317, -150.837, -82.3233, 44.6453
5.3836, 30, -28.0921, -19.1625, 37.4908, -150.715, -82.1892, 44.5383
5.39153, 31, -28.0703, -19.363, 37.65, -150.592, -82.0556, 44.4325
5.39951, 31, -28.0488, -19.5634, 37.8088, -150.468, -81.9214, 44.3285
5.40767, 31, -28.0272, -19.7642, 37.9681, -150.344, -81.7875, 44.2261
5.41551, 31, -28.0056, -19.9654, 38.1282, -150.218, -81.6534, 44.125
5.42358, 31, -27.984, -20.1663, 38.2884, -150.093, -81.5191, 44.0255
5.43157, 32, -27.9624, -20.3672, 38.4481, -149.966, -81.3848, 43.9275
5.43956, 32, -27.9405, -20.5689, 38.6079, -149.84, -81.2505, 43.8316
5.44755, 32, -27.9184, -20.771, 38.7683, -149.712, -81.1164, 43.7376
5.45569, 32, -27.8962, -20.9726, 38.9287, -149.584, -80.9821, 43.6461
5.4645, 32, -27.8737, -21.174, 39.0884, -149.456, -80.8484, 43.5571
5.47168, 33, -27.851, -21.3757, 39.2478, -149.328, -80.715, 43.4712
5.48029, 33, -27.8279, -21.5768, 39.4073, -149.2, -80.5821, 43.3884
5.48847, 33, -27.8044, -21.7768, 39.5664, -149.071, -80.4495, 43.3086
5.49564, 33, -27.7803, -21.9766, 39.7245, -148.943, -80.3178, 43.2327
5.50437, 33, -27.7557, -22.1762, 39.8817, -148.816, -80.1861, 43.1597
5.51153, 34, -27.7306, -22.3747, 40.0386, -148.688, -80.0552, 43.0908
5.51957, 34, -27.7049, -22.5721, 40.1953, -148.56, -79.9245, 43.0249
5.52978, 34, -27.6787, -22.7692, 40.3513, -148.432, -79.7937, 42.962
5.53588, 34, -27.6522, -22.966, 40.5064, -148.305, -79.6631, 42.903
5.54366, 34, -27.625, -23.1619, 40.6616, -148.177, -79.5324, 42.8469
5.55168, 35, -27.5974, -23.3573, 40.8168, -148.048, -79.4019, 42.7938
5.55985, 35, -27.5697, -23.5531, 40.9716, -147.92, -79.2711, 42.7446
5.56793, 35, -27.5418, -23.7488, 41.1258, -147.791, -79.1409, 42.6989
5.57593, 35, -27.5135, -23.9438, 41.2799, -147.661, -79.0105, 42.6563
5.58435, 35, -27.485, -24.1385, 41.434, -147.531, -78.8807, 42.6168
5.592, 36, -27.456, -24.3334, 41.588, -147.401, -78.7508, 42.5813
5.60016, 36, -27.4267, -24.5277, 41.7412, -147.27, -78.6213, 42.5501
5.60847, 36, -27.3971, -24.721, 41.8939, -147.14, -78.4924, 42.5233
5.617, 36, -27.367, -24.9141, 42.0464, -147.009, -78.3635, 42.5006
5.62424, 36, -27.3362, -25.1071, 42.1983, -146.878, -78.2355, 42.4824
5.63216, 37, -27.3045, -25.2991, 42.349, -146.747, -78.1076, 42.4685
5.63951, 37, -27.2883, -25.3945, 42.424, -146.682, -78.0439, 42.4634
5.64752, 37, -27.2555, -25.5848, 42.5732, -146.552, -77.9169, 42.4568
5.65695, 37, -27.2218, -25.7745, 42.7217, -146.422, -77.7902, 42.4538
5.66515, 37, -27.1871, -26.0564, 42.9423, -146.229, -77.6012, 42.4559
5.67151, 37, -27.1515, -26.1495, 43.0151, -146.165, -77.5383, 42.4597
5.67953, 38, -27.1151, -26.3347, 43.1599, -146.038, -77.4133, 42.4719
5.68759, 38, -27.0779, -26.5192, 43.3037, -145.911, -77.2888, 42.4892
5.69551, 38, -27.0398, -26.7025, 43.4468, -145.784, -77.1647, 42.5121
5.70597, 38, -26.9811, -26.9748, 43.6595, -145.595, -76.9795, 42.5571
5.71171, 38, -26.9612, -27.0652, 43.7298, -145.532, -76.918, 42.575
5.72194, 39, -26.9003, -27.3361, 43.9399, -145.343, -76.7341, 42.6381
5.72763, 39, -26.8797, -27.4259, 44.0095, -145.28, -76.6727, 42.6619
5.74028, 39, -26.8165, -27.6933, 44.2173, -145.091, -76.4893, 42.7415
5.74349, 39, -26.7951, -27.7822, 44.2861, -145.028, -76.4281, 42.7711
5.75157, 39, -26.7517, -27.9598, 44.423, -144.903, -76.3057, 42.8357
5.7595, 40, -26.7074, -28.1367, 44.5589, -144.778, -76.1835, 42.9054
5.76957, 40, -26.6391, -28.3988, 44.7609, -144.591, -76.0006, 43.0233
5.77555, 40, -26.6159, -28.4856, 44.8276, -144.529, -75.9398, 43.0654
5.78537, 40, -26.5688, -28.6585, 44.9601, -144.406, -75.8182, 43.2021
5.79149, 40, -26.5204, -28.8302, 45.0911, -144.284, -75.6976, 43.251
5.79959, 41, -26.471, -28.9997, 45.2207, -144.162, -75.5772, 43.3535
5.80782, 41, -26.4205, -29.1674, 45.3488, -144.041, -75.4572, 43.4633
5.81656, 41, -26.3687, -29.334, 45.4756, -143.922, -75.3379, 43.5796
5.82351, 41, -26.3155, -29.4993, 45.6008, -143.803, -75.2189, 43.703
5.83251, 41, -26.2611, -29.6625, 45.7243, -143.686, -75.1006, 43.8334
5.83963, 42, -26.2052, -29.8237, 45.8459, -143.57, -74.9827, 43.9713
5.84752, 42, -26.1479, -29.9832, 45.9657, -143.456, -74.8651, 44.1165
5.85809, 42, -26.059, -30.2193, 46.1417, -143.287, -74.6901, 44.3475
5.86351, 42, -26.0285, -30.2968, 46.1993, -143.232, -74.6319, 44.4282
5.87157, 42, -25.9666, -30.4501, 46.3133, -143.122, -74.516, 44.5949
5.87948, 43, -25.903, -30.6012, 46.425, -143.015, -74.4006, 44.7689
5.88931, 43, -25.8377, -30.7502, 46.5346, -142.909, -74.2855, 44.9509
5.89557, 43, -25.7707, -30.8971, 46.6421, -142.805, -74.1711, 45.1405
5.9035, 43, -25.7021, -31.0415, 46.7476, -142.703, -74.0566, 45.3378
5.91268, 43, -25.632, -31.1836, 46.8512, -142.603, -73.9429, 45.5427
5.91977, 44, -25.5601, -31.3236, 46.9529, -142.504, -73.8296, 45.7554
5.92753, 44, -25.4865, -31.4613, 47.0523, -142.408, -73.7167, 45.9759
5.93577, 44, -25.411, -31.5968, 47.1491, -142.314, -73.6043, 46.2045
5.94533, 44, -25.3337, -31.7299, 47.2436, -142.222, -73.4922, 46.4412
5.95251, 44, -25.2545, -31.8602, 47.3356, -142.133, -73.3809, 46.6862
5.95983, 45, -25.1735, -31.9878, 47.4251, -142.047, -73.2702, 46.9392
5.96779, 45, -25.0906, -32.1127, 47.5123, -141.963, -73.1598, 47.2011
5.97559, 45, -25.0055, -32.2348, 47.5969, -141.882, -73.0504, 47.4712
5.98391, 45, -24.9185, -32.3541, 47.6785, -141.804, -72.9416, 47.7495
5.99238, 45, -24.8293, -32.4704, 47.7571, -141.73, -72.8335, 48.0358
5.99977, 45, -24.7378, -32.5835, 47.8327, -141.658, -72.7264, 48.3309
6.00761, 46, -24.6441, -32.6933, 47.9054, -141.59, -72.6198, 48.6347
6.01551, 46, -24.5479, -32.7999, 47.9751, -141.524, -72.5143, 48.9467
6.02376, 46, -24.4494, -32.9031, 48.0417, -141.464, -72.4096, 49.2671
6.03298, 46, -24.3488, -33.0026, 48.1052, -141.406, -72.3056, 49.5965
6.04228, 46, -24.2456, -33.0984, 48.1651, -141.352, -72.2031, 49.9341
6.04852, 47, -24.1402, -33.1903, 48.2216, -141.304, -72.1012, 50.2797
6.05571, 47, -24.0322, -33.2781, 48.2744, -141.258, -72.0003, 50.6339
6.06451, 47, -23.9216, -33.3619, 48.3235, -141.216, -71.9009, 50.9963
6.07184, 47, -23.8083, -33.4414, 48.3687, -141.18, -71.8023, 51.3672
6.07987, 47, -23.6921, -33.5168, 48.4101, -141.149, -71.7049, 51.7469
6.08833, 48, -23.5732, -33.5877, 48.4474, -141.122, -71.6093, 52.1347
6.09604, 48, -23.4517, -33.654, 48.4805, -141.099, -71.5152, 52.5311
6.10409, 48, -23.3277, -33.7157, 48.5095, -141.081, -71.4225, 52.9368
6.11267, 48, -23.2012, -33.7724, 48.5343, -141.068, -71.3323, 53.351
6.12012, 48, -23.0719, -33.8239, 48.5546, -141.061, -71.2437, 53.7738
6.12819, 49, -22.9396, -33.8703, 48.5706, -141.058, -71.1571, 54.2051
6.13642, 49, -22.8724, -33.9114, 48.5821, -141.06, -71.0725, 54.6434
6.14418, 49, -22.7357, -33.9298, 48.5861, -141.063, -71.0311, 55.09
6.15154, 49, -22.5962, -33.9624, 48.5905, -141.074, -70.9495, 55.316
6.16025, 49, -22.4538, -33.9893, 48.5905, -141.091, -70.8703, 55.7736
6.16747, 50, -22.3086, -34.0103, 48.5857, -141.115, -70.7934, 56.2396
6.17554, 50, -22.1607, -34.025, 48.5757, -141.144, -70.7195, 56.7123
6.18359, 50, -22.0102, -34.0335, 48.5607, -141.179, -70.6482, 57.1931
6.19156, 50, -21.8568, -34.0359, 48.5405, -141.22, -70.5803, 57.6821
6.19955, 50, -21.7003, -34.0323, 48.5148, -141.269, -70.515, 58.1783
6.20768, 51, -21.5408, -34.0219, 48.4836, -141.322, -70.4541, 58.6815
6.21692, 51, -21.3784, -34.0047, 48.4269, -141.415, -70.3683, 59.4475
6.22355, 51, -21.2132, -33.9807, 48.4053, -141.449, -70.3418, 59.706
6.23695, 51, -20.9607, -33.9315, 48.332, -141.56, -70.2443, 60.7536
6.23963, 51, -20.8754, -33.9116, 48.3048, -141.6, -70.2443, 60.7536
6.24777, 52, -20.7027, -33.8662, 48.2461, -141.685, -70.2015, 61.2852
6.25551, 52, -20.5274, -33.813, 48.1815, -141.777, -70.1638, 61.8229
6.26371, 52, -20.3495, -33.7521, 48.111, -141.874, -70.1302, 62.367
6.27178, 52, -20.1687, -33.683, 48.0344, -141.978, -70.1011, 62.9173
6.2795, 52, -19.9852, -33.6058, 47.9515, -142.088, -70.0773, 63.4729
6.28944, 53, -19.7993, -33.52, 47.8622, -142.205, -70.059, 64.3186
6.2956, 53, -19.6112, -33.4256, 47.7666, -142.327, -70.0462, 64.6036
6.30354, 53, -19.4211, -33.3228, 47.6646, -142.456, -70.0391, 65.1781
6.31163, 53, -19.2289, -33.2118, 47.5565, -142.592, -70.0371, 65.7568
6.32191, 53, -18.937, -33.0294, 47.3828, -142.805, -70.0443, 66.6341
6.32749, 53, -18.8388, -32.9644, 47.3218, -142.879, -70.0499, 66.9283
6.33874, 54, -18.5413, -32.7568, 47.1299, -143.108, -70.0763, 67.813
6.34368, 54, -18.4412, -32.6834, 47.063, -143.186, -70.0884, 68.1085
6.35252, 54, -18.2394, -32.5305, 46.9254, -143.346, -70.1177, 68.7003
6.3595, 54, -18.0362, -32.3694, 46.7822, -143.511, -70.153, 69.2931
6.3681, 54, -17.8319, -32.1996, 46.6334, -143.68, -70.1945, 69.8866
6.37652, 55, -17.6269, -32.0206, 46.4787, -143.853, -70.244, 70.4821
6.38354, 55, -17.4207, -31.8325, 46.3179, -144.031, -70.3009, 71.0814
6.39156, 55, -17.213, -31.6352, 46.1509, -144.214, -70.3654, 71.6847
6.3995, 55, -17.0037, -31.4279, 45.9766, -144.402, -70.439, 72.2918
6.40749, 55, -16.7925, -31.2098, 45.7947, -144.594, -70.5208, 72.9039
6.41574, 56, -16.5799, -30.9815, 45.6064, -144.792, -70.6122, 73.5206
6.42455, 56, -16.3656, -30.7427, 45.411, -144.994, -70.7122, 74.1415
6.43149, 56, -16.1506, -30.4925, 45.2074, -145.2, -70.8219, 74.765
6.43964, 56, -15.9355, -30.2318, 44.9969, -145.41, -70.9412, 75.392
6.44848, 56, -15.7206, -29.9603, 44.7804, -145.623, -71.0698, 76.0218
6.45547, 57, -15.5047, -29.6776, 44.5562, -145.84, -71.2084, 76.6525
6.46385, 57, -15.2876, -29.3848, 44.3249, -146.059, -71.3566, 77.2847
6.47157, 57, -15.0695, -29.0813, 44.0874, -146.281, -71.5153, 77.9186
6.48009, 57, -14.851, -28.7687, 43.843, -146.504, -71.6833, 78.552
6.48971, 57, -14.6329, -28.4475, 43.5936, -146.729, -71.8613, 79.1836
6.49576, 58, -14.4155, -28.1185, 43.3398, -146.954, -72.0474, 79.8128
6.50549, 58, -14.1994, -27.7822, 43.0817, -147.177, -72.2413, 80.4376
6.51155, 58, -13.9848, -27.438, 42.8211, -147.4, -72.4425, 81.0554
6.52009, 58, -13.7718, -27.0872, 42.5574, -147.62, -72.6503, 81.6662
6.52758, 58, -13.5603, -26.7298, 42.2914, -147.838, -72.8646, 82.2703
6.53573, 58, -13.35, -26.3662, 42.0227, -148.054, -73.0855, 82.868
6.54441, 59, -13.1414, -25.9953, 41.75, -148.267, -73.3138, 83.4594
6.55166, 59, -12.9346, -25.6179, 41.4744, -148.479, -73.5498, 84.0466
6.56259, 59, -12.7292, -25.2338, 41.1946, -148.69, -73.7942, 84.6303
6.56811, 59, -12.5248, -24.8426, 40.911, -148.899, -74.0473, 85.2109
6.5758, 59, -12.3213, -24.4432, 40.6228, -149.106, -74.3096, 85.7877
6.58484, 60, -12.1189, -24.0363, 40.3303, -149.311, -74.5809, 86.3619
6.59246, 60, -11.9181, -23.6227, 40.0344, -149.515, -74.8612, 86.9331
6.60043, 60, -11.7187, -23.2025, 39.7351, -149.717, -75.1501, 87.5004
6.60808, 60, -11.5211, -22.7768, 39.434, -149.915, -75.4468, 88.062
6.61604, 60, -11.3259, -22.3462, 39.1309, -150.11, -75.7504, 88.6185
6.62403, 61, -11.1332, -21.9123, 38.8274, -150.301, -76.0597, 89.1676
6.63227, 61, -10.9426, -21.4744, 38.5228, -150.487, -76.3737, 89.7078
6.64032, 61, -10.7543, -21.0329, 38.2186, -150.668, -76.6918, 90.2377
6.64896, 61, -10.6611, -20.5881, 37.9143, -150.844, -77.0139, 90.7586
6.65552, 61, -10.4763, -20.3643, 37.7622, -150.93, -77.1763, 91.0154
6.66349, 62, -10.2941, -19.9142, 37.4585, -151.098, -77.5044, 91.5225
6.67155, 62, -10.1147, -19.461, 37.154, -151.261, -77.8372, 92.0213
6.67949, 62, -9.93797, -19.0052, 36.8493, -151.42, -78.1753, 92.5121
6.68991, 62, -9.67774, -18.3162, 36.3898, -151.65, -78.6931, 93.2363
6.69568, 62, -9.59213, -18.0853, 36.2366, -151.724, -78.8685, 93.4739
6.70349, 63, -9.42251, -17.6224, 35.9294, -151.87, -79.2231, 93.9437
6.71148, 63, -9.25501, -17.1574, 35.6229, -152.011, -79.5824, 94.4044
6.72156, 63, -9.00817, -16.4568, 35.1646, -152.212, -80.1281, 95.0781
6.72748, 63, -8.92717, -16.2226, 35.0126, -152.276, -80.3115, 95.2975
6.73554, 63, -8.76712, -15.7526, 34.7095, -152.401, -80.6799, 95.7281
6.74363, 64, -8.60978, -15.2817, 34.4083, -152.52, -81.0503, 96.1484
6.75148, 64, -8.45512, -14.8104, 34.11, -152.633, -81.4225, 96.557
6.76101, 64, -8.30304, -14.3387, 33.8128, -152.793, -81.9839, 97.1486
6.769, 64, -8.15345, -13.8675, 33.5178, -152.844, -82.172, 97.3405
6.77557, 64, -8.00635, -13.3971, 33.2243, -152.94, -82.5493, 97.715
6.78455, 65, -7.86179, -12.928, 32.9333, -153.032, -82.9282, 98.0774
6.79169, 65, -7.71991, -12.4609, 32.6448, -153.118, -83.3082, 98.4278
6.79959, 65, -7.58077, -11.995, 32.3592, -153.198, -83.6893, 98.7651
6.80853, 65, -7.44474, -11.5305, 32.0772, -153.272, -84.0708, 99.0889
6.81653, 65, -7.31141, -11.0668, 31.7981, -153.341, -84.4528, 99.3996
6.82366, 66, -7.18098, -10.6042, 31.5226, -153.404, -84.8353, 99.6964
6.83148, 66, -7.05296, -10.144, 31.2499, -153.461, -85.2177, 99.9788
6.84245, 66, -6.86454, -9.45951, 30.8471, -153.537, -85.7925, 100.374
6.84756, 66, -6.80277, -9.23358, 30.7146, -153.56, -85.9839, 100.499
6.85549, 66, -6.68085, -8.78618, 30.4518, -153.601, -86.3659, 100.735
6.86344, 67, -6.56129, -8.34419, 30.1939, -153.637, -86.7454, 100.954
6.87168, 67, -6.44433, -7.90861, 29.9412, -153.667, -87.1212, 101.157
6.87947, 67, -6.3303, -7.47925, 29.6949, -153.691, -87.4921, 101.341
6.88754, 67, -6.2192, -7.05592, 29.4563, -153.709, -87.8569, 101.507
6.89564, 67, -6.11072, -6.63848, 29.2244, -153.721, -88.2153, 101.655
6.90446, 67, -6.00479, -6.22786, 28.9993, -153.728, -88.5676, 101.786
6.91154, 68, -5.90101, -5.8244, 28.781, -153.731, -88.9148, 101.899
6.92023, 68, -5.79908, -5.42726, 28.5673, -153.73, -89.258, 101.995
6.92748, 68, -5.69879, -5.03637, 28.3577, -153.723, -89.5984, 102.073
6.93549, 68, -5.60028, -4.65107, 28.1522, -153.712, -89.9371, 102.134
6.94452, 68, -5.5034, -4.27136, 27.9499, -153.697, -90.2747, 102.176
6.95272, 69, -5.40827, -3.89538, 27.7507, -153.678, -90.6114, 102.201
6.95948, 69, -5.31487, -3.52318, 27.556, -153.654, -90.9477, 102.209
6.96943, 69, -5.22315, -3.15434, 27.3649, -153.625, -91.2832, 102.197
6.97556, 69, -5.13337, -2.78947, 27.1767, -153.593, -91.6181, 102.164
6.98364, 69, -5.04505, -2.42723, 26.9921, -153.556, -91.9524, 102.11
6.99158, 70, -4.95819, -2.06818, 26.8115, -153.517, -92.2858, 102.033
6.99971, 70, -4.87256, -1.71307, 26.6341, -153.472, -92.6186, 101.936
7.00766, 70, -4.78797, -1.36288, 26.4597, -153.425, -92.9507, 101.814
7.01604, 70, -4.70438, -1.01755, 26.2894, -153.374, -93.2814, 101.671
7.02374, 70, -4.62192, -0.677557, 26.1232, -153.32, -93.6106, 101.505
7.03247, 71, -4.5404, -0.343955, 25.9605, -153.263, -93.9369, 101.318
7.04043, 71, -4.45994, -0.0165923, 25.8022, -153.204, -94.2604, 101.109
7.04757, 71, -4.38051, 0.304161, 25.6497, -153.141, -94.5799, 100.88
7.0564, 71, -4.30194, 0.619493, 25.5024, -153.077, -94.8951, 100.63
7.06373, 71, -4.22422, 0.928306, 25.3598, -153.01, -95.2063, 100.36
7.07209, 72, -4.14736, 1.23071, 25.2217, -152.942, -95.5137, 100.069
7.08063, 72, -4.07088, 1.52646, 25.0878, -152.872, -95.8177, 99.7586
7.08792, 72, -3.99463, 1.8151, 24.9573, -152.801, -96.1191, 99.4266
7.09687, 72, -3.91854, 2.09762, 24.8301, -152.728, -96.4184, 99.0734
7.104, 72, -3.84249, 2.37359, 24.7058, -152.655, -96.7152, 98.6986
7.11209, 72, -3.7665, 2.64315, 24.5847, -152.582, -97.0097, 98.3018
7.12106, 73, -3.69054, 2.90668, 24.4669, -152.508, -97.3012, 97.8834
7.12823, 73, -3.6143, 3.1633, 24.3528, -152.434, -97.5896, 97.4434
7.1369, 73, -3.53788, 3.41345, 24.2427, -152.361, -97.8743, 96.9827
7.145, 73, -3.46111, 3.65726, 24.1369, -152.288, -98.1547, 96.5028
7.15289, 73, -3.42258, 3.89299, 24.0353, -152.217, -98.4308, 96.0035
7.15951, 74, -3.34502, 4.00759, 23.9861, -152.182, -98.5669, 95.7476
7.17049, 74, -3.22736, 4.33879, 23.8443, -152.078, -98.967, 94.9554
7.17551, 74, -3.18777, 4.44474, 23.7991, -152.044, -99.0975, 94.6844
7.18347, 74, -3.10806, 4.64919, 23.7118, -151.979, -99.3536, 94.133
7.1915, 74, -3.02763, 4.84404, 23.6287, -151.916, -99.6029, 93.5691
7.19965, 75, -2.94633, 5.02964, 23.5499, -151.854, -99.8443, 92.9948
7.20753, 75, -2.86407, 5.20524, 23.4749, -151.797, -100.078, 92.4113
7.21546, 75, -2.78085, 5.36999, 23.4038, -151.741, -100.303, 91.8193
7.22539, 75, -2.65429, 5.59754, 23.3043, -151.665, -100.623, 90.9157
7.23165, 75, -2.61167, 5.66806, 23.2732, -151.641, -100.725, 90.6106
7.23948, 76, -2.52568, 5.80061, 23.214, -151.595, -100.923, 89.9947
7.2477, 76, -2.43874, 5.92178, 23.1591, -151.554, -101.112, 89.3701
7.25548, 76, -2.35094, 6.03123, 23.1087, -151.517, -101.291, 88.7363
7.26346, 76, -2.26237, 6.12844, 23.0627, -151.483, -101.461, 88.0951
7.27247, 76, -2.17297, 6.21306, 23.0214, -151.453, -101.62, 87.448
7.27962, 77, -2.08273, 6.28461, 22.9851, -151.427, -101.768, 86.7956
7.28748, 77, -1.99158, 6.3429, 22.9542, -151.405, -101.903, 86.1421
7.2981, 77, -1.85315, 6.40461, 22.9183, -151.38, -102.08, 85.166
7.30354, 77, -1.80657, 6.41807, 22.9092, -151.374, -102.132, 84.8419
7.31146, 77, -1.71272, 6.43435, 22.8954, -151.364, -102.224, 84.1967
7.31942, 78, -1.61813, 6.43616, 22.8875, -151.358, -102.302, 83.5568
7.32763, 78, -1.52286, 6.42284, 22.8849, -151.354, -102.364, 82.9212
7.33646, 78, -1.42691, 6.39412, 22.8878, -151.354, -102.411, 82.2887
7.34451, 78, -1.33063, 6.34975, 22.8967, -151.356, -102.442, 81.6608
7.35626, 78, -1.18562, 6.25288, 22.9218, -151.367, -102.459, 80.7284
7.35967, 79, -1.13715, 6.21244, 22.9335, -151.373, -102.456, 80.42
7.36748, 79, -1.04023, 6.11943, 22.9623, -151.386, -102.438, 79.808
7.37551, 79, -0.943127, 6.01029, 22.9985, -151.402, -102.401, 79.2035
7.38353, 79, -0.846081, 5.88497, 23.0423, -151.421, -102.347, 78.6078
7.39146, 79, -0.749039, 5.74313, 23.0937, -151.443, -102.275, 78.0208
7.39942, 80, -0.652092, 5.58491, 23.1528, -151.468, -102.185, 77.4439
7.40755, 80, -0.555083, 5.4102, 23.2194, -151.494, -102.076, 76.8785
7.41546, 80, -0.458041, 5.21919, 23.2939, -151.522, -101.949, 76.3249
7.4276, 80, -0.31266, 4.9014, 23.4207, -151.566, -101.723, 75.5149
7.4316, 80, -0.264267, 4.78654, 23.467, -151.582, -101.639, 75.2503
7.44069, 80, -0.16757, 4.5432, 23.566, -151.615, -101.456, 74.7292
7.44765, 81, -0.07108, 4.28313, 23.6737, -151.648, -101.254, 74.2189
7.45568, 81, 0.0252083, 4.00651, 23.7902, -151.682, -101.033, 73.7174
7.46365, 81, 0.121307, 3.71339, 23.916, -151.717, -100.794, 73.2253
7.47151, 81, 0.217217, 3.40386, 24.0514, -151.754, -100.535, 72.7424
7.47977, 81, 0.312813, 3.07687, 24.1967, -151.791, -100.257, 72.2692
7.48805, 82, 0.408289, 2.73347, 24.3515, -151.828, -99.9606, 71.805
7.49646, 82, 0.503494, 2.37354, 24.5154, -151.865, -99.6449, 71.3502
7.50358, 82, 0.598483, 1.99799, 24.6886, -151.902, -99.3108, 70.905
7.51159, 82, 0.693317, 1.60567, 24.8716, -151.939, -98.9591, 70.4692
7.51963, 82, 0.788087, 1.19671, 25.0638, -151.974, -98.5897, 70.044
7.52824, 83, 0.882838, 0.772062, 25.2654, -152.01, -98.2038, 69.6284
7.53811, 83, 0.977519, 0.332659, 25.4774, -152.045, -97.8012, 69.2223
7.54355, 83, 1.07228, -0.121637, 25.6996, -152.078, -97.3826, 68.8261
7.55793, 83, 1.21463, -0.831037, 26.0497, -152.126, -96.7247, 68.2489
7.56075, 83, 1.26213, -1.07487, 26.1716, -152.141, -96.4976, 68.0611
7.56866, 84, 1.35731, -1.57312, 26.4229, -152.171, -96.0313, 67.6919
7.57582, 84, 1.45276, -2.08515, 26.6843, -152.2, -95.5496, 67.3304
7.58377, 84, 1.54846, -2.61057, 26.9565, -152.227, -95.0523, 66.9764
7.59194, 84, 1.64452, -3.14958, 27.2385, -152.252, -94.5392, 66.6299
7.60008, 84, 1.74096, -3.70207, 27.5312, -152.275, -94.0114, 66.2903
7.61009, 85, 1.83779, -4.26806, 27.8339, -152.297, -93.4685, 65.9582
7.6164, 85, 1.93485, -4.8458, 28.1466, -152.317, -92.911, 65.6346
7.62405, 85, 2.0323, -5.43386, 28.4686, -152.335, -92.3402, 65.3188
7.63206, 85, 2.1301, -6.0316, 28.7997, -152.351, -91.759, 65.0113
7.64673, 86, 2.278, -6.94344, 29.3124, -152.369, -90.8678, 64.5672
7.64988, 86, 2.32764, -7.25111, 29.4875, -152.374, -90.5658, 64.4241
7.6555, 86, 2.3774, -7.56047, 29.6642, -152.378, -90.2616, 64.2835
7.66346, 86, 2.47763, -8.18319, 30.0228, -152.383, -89.6467, 64.0104
7.67145, 86, 2.5789, -8.81197, 30.388, -152.386, -89.0237, 63.7478
7.67952, 86, 2.68079, -9.44617, 30.7586, -152.387, -88.3961, 63.497
7.68947, 86, 2.83599, -10.4056, 31.3245, -152.382, -87.4462, 63.1423
7.69771, 87, 2.94051, -11.0493, 31.7083, -152.374, -86.806, 62.9207
7.70351, 87, 2.99307, -11.3722, 31.9019, -152.368, -86.484, 62.8145
7.71154, 87, 3.0991, -12.0202, 32.2925, -152.355, -85.8364, 62.6112
7.71945, 87, 3.2059, -12.6705, 32.6877, -152.337, -85.1846, 62.4208
7.72745, 87, 3.31334, -13.3236, 33.0882, -152.315, -84.5291, 62.2432
7.7355, 88, 3.42159, -13.9796, 33.494, -152.29, -83.868, 62.0784
7.7436, 88, 3.53031, -14.6381, 33.9045, -152.261, -83.2014, 61.9267
7.75213, 88, 3.63948, -15.2978, 34.3203, -152.228, -82.5297, 61.7887
7.75951, 88, 3.74911, -15.9575, 34.741, -152.189, -81.8531, 61.6648
7.76744, 88, 3.85909, -16.6165, 35.1657, -152.146, -81.1742, 61.5561
7.77553, 89, 3.96933, -17.2733, 35.5934, -152.099, -80.4942, 61.464
7.78446, 89, 4.07983, -17.9274, 36.0226, -152.046, -79.8137, 61.3899
7.79874, 89, 4.30224, -19.2254, 36.8815, -151.926, -78.454, 61.2981
7.80065, 89, 4.30224, -19.2254, 36.8815, -151.926, -78.454, 61.2981
7.80767, 89, 4.41393, -19.8681, 37.3095, -151.857, -77.7799, 61.2818
7.81541, 90, 4.52586, -20.5059, 37.7359, -151.784, -77.1097, 61.2861
7.82348, 90, 4.63849, -21.1393, 38.1618, -151.705, -76.4412, 61.3141
7.83151, 90, 4.75115, -21.7677, 38.5872, -151.62, -75.7738, 61.3655
7.83946, 90, 4.86352, -22.3916, 39.0124, -151.53, -75.108, 61.4401
7.84986, 90, 4.97551, -23.0116, 39.438, -151.383, -74.1133, 61.601
7.85557, 91, 5.08708, -23.6282, 39.8635, -151.331, -73.782, 61.6678
7.86451, 91, 5.19839, -24.241, 40.2892, -151.222, -73.1187, 61.823
7.87144, 91, 5.30914, -24.849, 40.7148, -151.106, -72.4553, 62.0069
7.87958, 91, 5.41925, -25.4519, 41.1395, -150.983, -71.7916, 62.2204
7.88744, 91, 5.52877, -26.048, 41.563, -150.854, -71.1284, 62.4639
7.89543, 92, 5.63796, -26.6366, 41.9847, -150.718, -70.4678, 62.7387
7.90351, 92, 5.7473, -27.217, 42.4037, -150.577, -69.8098, 63.0449
7.91145, 92, 5.85728, -27.7884, 42.8186, -150.43, -69.1548, 63.3818
7.91946, 92, 5.96787, -28.3503, 43.2278, -150.279, -68.5037, 63.7495
7.92752, 92, 6.07918, -28.9015, 43.6313, -150.123, -67.8573, 64.1483
7.93546, 92, 6.19176, -29.4412, 44.0283, -149.964, -67.2178, 64.5779
7.94345, 93, 6.30581, -29.9698, 44.4182, -149.803, -66.5839, 65.0393
7.95766, 93, 6.48094, -30.7429, 44.9916, -149.559, -65.6408, 65.7903
7.95978, 93, 6.54042, -30.9963, 45.1799, -149.477, -65.3281, 66.0571
7.9676, 93, 6.661, -31.4986, 45.553, -149.313, -64.7041, 66.6175
7.97552, 93, 6.78383, -31.9951, 45.9216, -149.148, -64.0812, 67.2167
7.98354, 94, 6.90865, -32.4869, 46.2874, -148.983, -63.4554, 67.8597
7.99162, 94, 7.03541, -32.9739, 46.651, -148.816, -62.8234, 68.5522
8.00002, 94, 7.16374, -33.4542, 47.0133, -148.65, -62.1855, 69.2973
8.00756, 94, 7.29432, -33.9275, 47.3732, -148.486, -61.5417, 70.0934
8.01564, 94, 7.42823, -34.3938, 47.7288, -148.327, -60.8932, 70.9421
8.02345, 95, 7.56634, -34.8507, 48.0772, -148.174, -60.2461, 71.842
8.03146, 95, 7.71001, -35.2975, 48.416, -148.032, -59.6028, 72.7836
8.03954, 95, 7.85981, -35.7324, 48.7435, -147.903, -58.9653, 73.7665
8.04837, 95, 8.01641, -36.1525, 49.0574, -147.789, -58.335, 74.7854
8.05558, 95, 8.17987, -36.5529, 49.3559, -147.692, -57.7131, 75.8386
8.0637, 96, 8.35017, -36.9331, 49.6387, -147.613, -57.1028, 76.9239
8.07166, 96, 8.52722, -37.2913, 49.9044, -147.554, -56.5071, 78.0389
8.08052, 96, 8.70997, -37.626, 50.1536, -147.517, -55.9254, 79.1792
8.08787, 96, 8.89802, -37.9356, 50.3847, -147.498, -55.3589, 80.3409
8.09656, 96, 9.09048, -38.2202, 50.5963, -147.501, -54.8107, 81.5162
8.1046, 96, 9.28575, -38.48, 50.7888, -147.525, -54.2834, 82.7039
8.11195, 97, 9.48234, -38.7141, 50.9617, -147.571, -53.779, 83.9013
8.12057, 97, 9.67893, -38.9232, 51.1139, -147.638, -53.2994, 85.1022
8.12805, 97, 9.87453, -39.108, 51.2464, -147.724, -52.8471, 86.2941
8.13601, 97, 10.0684, -39.2675, 51.3595, -147.827, -52.4239, 87.4722
8.1441, 97, 10.1643, -39.4015, 51.453, -147.943, -52.0311, 88.6271
8.15143, 97, 10.3533, -39.4591, 51.4927, -148.006, -51.8464, 89.1942
8.15946, 98, 10.5386, -39.5554, 51.5583, -148.14, -51.5005, 90.3009
8.16744, 98, 10.7213, -39.6274, 51.6058, -148.284, -51.1853, 91.3736
8.1755, 98, 10.9021, -39.6765, 51.6358, -148.437, -50.8988, 92.4198
8.18345, 98, 11.0813, -39.7025, 51.6484, -148.601, -50.637, 93.4531
8.19144, 98, 11.2583, -39.7048, 51.6442, -148.778, -50.3967, 94.4888
8.19948, 98, 11.4338, -39.6835, 51.6228, -148.967, -50.1753, 95.5367
8.20744, 98, 11.6095, -39.6383, 51.5837, -149.17, -49.9731, 96.6059
8.21553, 99, 11.7849, -39.5697, 51.5267, -149.386, -49.7913, 97.6959
8.22349, 99, 11.9587, -39.4785, 51.4512, -149.614, -49.6326, 98.8024
8.23143, 99, 12.1298, -39.3645, 51.3572, -149.85, -49.5003, 99.9142
8.23943, 99, 12.2972, -39.228, 51.245, -150.093, -49.3971, 101.023
8.24998, 99, 12.5378, -38.9818, 51.0445, -150.459, -49.3005, 102.651
8.25539, 99, 12.6143, -38.8885, 50.9697, -150.58, -49.2837, 103.18
8.2635, 100, 12.7608, -38.6838, 50.8084, -150.82, -49.2738, 104.217
8.27143, 100, 12.8984, -38.4545, 50.6304, -151.055, -49.2958, 105.225
8.28119, 100, 13.027, -38.2025, 50.4354, -151.397, -49.3877, 106.683
8.28751, 100, 13.147, -37.9284, 50.2239, -151.508, -49.4342, 107.158
8.29649, 100, 13.2589, -37.6335, 49.9949, -151.725, -49.5502, 108.088
8.3035, 100, 13.3626, -37.3158, 49.7475, -151.936, -49.6969, 108.997
8.31143, 101, 13.4582, -36.9743, 49.4835, -152.14, -49.8739, 109.885
8.31943, 101, 13.5458, -36.6082, 49.2023, -152.334, -50.0806, 110.748
8.32752, 101, 13.6258, -36.2169, 48.9045, -152.52, -50.3168, 111.59
8.33545, 101, 13.6976, -35.8007, 48.589, -152.696, -50.5827, 112.407
8.34347, 101, 13.7611, -35.3615, 48.2561, -152.863, -50.8794, 113.201
8.36043, 102, 13.8617, -34.4161, 47.5394, -153.162, -51.5681, 114.721
8.36259, 102, 13.8811, -34.1656, 47.3498, -153.229, -51.7604, 115.086
8.36743, 102, 13.8979, -33.9091, 47.1561, -153.293, -51.9606, 115.446
8.37545, 102, 13.9246, -33.3781, 46.7572, -153.411, -52.3851, 116.145
8.3836, 102, 13.9421, -32.8246, 46.3441, -153.516, -52.8414, 116.818
8.39143, 102, 13.9512, -32.2496, 45.917, -153.607, -53.3274, 117.465
8.39942, 103, 13.9527, -31.6535, 45.4761, -153.684, -53.8407, 118.087
8.40756, 103, 13.9472, -31.0379, 45.0219, -153.749, -54.3796, 118.683
8.41543, 103, 13.9353, -30.4046, 44.5559, -153.8, -54.9413, 119.253
8.42343, 103, 13.9176, -29.7555, 44.0791, -153.838, -55.5229, 119.8
8.43155, 103, 13.8945, -29.0914, 43.5934, -153.864, -56.1232, 120.321
8.43944, 103, 13.8667, -28.4139, 43.1004, -153.879, -56.7398, 120.818
8.44743, 104, 13.8346, -27.7253, 42.6015, -153.884, -57.3696, 121.288
8.45559, 104, 13.7986, -27.0277, 42.0986, -153.879, -58.0124, 121.737
8.46344, 104, 13.7589, -26.3224, 41.5923, -153.863, -58.67, 122.164
8.47146, 104, 13.7161, -25.6109, 41.0838, -153.84, -59.3399, 122.571
8.47962, 104, 13.6713, -24.8959, 40.5743, -153.808, -60.0205, 122.963
8.48752, 104, 13.6247, -24.1783, 40.0642, -153.768, -60.7082, 123.34
8.49561, 104, 13.5764, -23.4582, 39.5545, -153.722, -61.4017, 123.706
8.5036, 104, 13.5267, -22.7364, 39.0456, -153.671, -62.1006, 124.065
8.51154, 104, 13.4761, -22.0137, 38.538, -153.614, -62.8023, 124.42
8.51963, 104, 13.4249, -21.2903, 38.0321, -153.553, -63.506, 124.771
8.52755, 104, 13.3731, -20.5672, 37.5273, -153.488, -64.21, 125.121
8.53548, 104, 13.321, -19.8439, 37.0243, -153.418, -64.9145, 125.469
8.54352, 104, 13.2688, -19.1204, 36.5232, -153.345, -65.621, 125.815
8.5516, 104, 13.2164, -18.3968, 36.024, -153.267, -66.3281, 126.161
8.55954, 104, 13.1643, -17.6733, 35.5276, -153.186, -67.0364, 126.506
8.56794, 104, 13.1123, -16.9489, 35.0332, -153.1, -67.7448, 126.851
8.57576, 104, 13.0607, -16.2244, 34.5404, -153.011, -68.4523, 127.195
8.58372, 104, 13.0095, -15.4998, 34.05, -152.917, -69.162, 127.539
8.59183, 104, 12.9586, -14.775, 33.5618, -152.82, -69.873, 127.882
8.60056, 104, 12.908, -14.0497, 33.0761, -152.719, -70.5843, 128.226
8.60801, 104, 12.8579, -13.3243, 32.593, -152.614, -71.2945, 128.57
8.61606, 104, 12.8081, -12.5983, 32.1126, -152.506, -72.0056, 128.914
8.624, 104, 12.7585, -11.8728, 31.635, -152.393, -72.7183, 129.258
8.63205, 104, 12.7094, -11.1478, 31.1597, -152.277, -73.4309, 129.604
8.64, 104, 12.685, -10.4226, 30.6869, -152.156, -74.1441, 129.949
8.6481, 104, 12.6363, -9.697, 30.2174, -152.032, -74.8571, 130.295
8.65625, 104, 12.5878, -9.33413, 29.9837, -151.968, -75.2136, 130.643
8.66344, 104, 12.5399, -8.60817, 29.5187, -151.837, -75.9277, 130.817
8.67147, 104, 12.4926, -7.88188, 29.0569, -151.703, -76.6425, 131.166
8.67948, 104, 12.4457, -7.15641, 28.5983, -151.564, -77.3579, 131.516
8.68746, 104, 12.3995, -6.43157, 28.143, -151.421, -78.0733, 131.867
8.69553, 104, 12.3538, -5.70695, 27.6912, -151.275, -78.7872, 132.219
8.70347, 104, 12.3086, -4.98286, 27.243, -151.123, -79.5019, 132.572
8.71142, 104, 12.2643, -4.26006, 26.7992, -150.968, -80.2172, 132.927
8.71952, 104, 12.2211, -3.53963, 26.3603, -150.809, -80.9323, 133.283
8.72747, 104, 12.1788, -2.82395, 25.9261, -150.646, -81.6434, 133.639
8.73699, 104, 12.118, -1.76181, 25.2865, -150.394, -82.703, 134.174
8.74495, 104, 12.0788, -1.06345, 24.8701, -150.223, -83.4036, 134.528
8.75149, 104, 12.0596, -0.717578, 24.6649, -150.136, -83.7509, 134.705
8.75943, 104, 12.0219, -0.0334578, 24.2621, -149.962, -84.4378, 135.056
8.76742, 104, 11.9851, 0.640098, 23.8698, -149.787, -85.1122, 135.403
8.77695, 104, 11.9494, 1.30118, 23.4899, -149.611, -85.7721, 135.914
8.78503, 104, 11.9149, 1.94918, 23.1224, -149.434, -86.4178, 136.081
8.79145, 104, 11.8816, 2.58226, 22.7675, -149.259, -87.0484, 136.411
8.79949, 104, 11.8491, 3.19917, 22.4248, -149.083, -87.6628, 136.735
8.80742, 104, 11.8181, 3.79979, 22.0959, -148.91, -88.2608, 137.051
8.81541, 104, 11.7884, 4.38333, 21.7795, -148.737, -88.8412, 137.361
8.82348, 104, 11.7598, 4.95063, 21.4755, -148.565, -89.4044, 137.664
8.83145, 104, 11.7327, 5.50095, 21.1826, -148.396, -89.9522, 137.96
8.83942, 104, 11.7066, 6.0337, 20.902, -148.228, -90.4837, 138.249
8.84749, 104, 11.6817, 6.54988, 20.6331, -148.063, -90.999, 138.531
8.85543, 104, 11.6579, 7.04918, 20.3757, -147.9, -91.4978, 138.806
8.86342, 104, 11.6354, 7.53142, 20.1301, -147.74, -91.979, 139.072
8.87149, 104, 11.614, 7.99737, 19.8952, -147.582, -92.4434, 139.331
8.87941, 104, 11.5938, 8.44654, 19.6711, -147.428, -92.8914, 139.583
8.88747, 104, 11.5747, 8.87844, 19.4583, -147.277, -93.3227, 139.827
8.89548, 104, 11.5567, 9.29295, 19.2556, -147.13, -93.7373, 140.062
8.90341, 104, 11.5398, 9.69029, 19.063, -146.987, -94.1348, 140.289
8.91144, 104, 11.524, 10.0695, 18.8815, -146.849, -94.5149, 140.507
8.91948, 104, 11.5092, 10.4299, 18.7104, -146.715, -94.8768, 140.715
8.9284, 104, 11.4955, 10.771, 18.5494, -146.587, -95.2199, 140.914
8.93548, 104, 11.4828, 11.0928, 18.3994, -146.464, -95.5435, 141.103
8.94341, 104, 11.4711, 11.3942, 18.2602, -146.348, -95.8468, 141.28
8.95143, 104, 11.4605, 11.675, 18.1315, -146.239, -96.1292, 141.446
8.95951, 104, 11.451, 11.9348, 18.0134, -146.137, -96.3905, 141.6
8.96741, 104, 11.442, 12.1731, 17.9059, -146.043, -96.6299, 141.741
8.97546, 104, 11.4339, 12.3905, 17.8089, -145.957, -96.8476, 141.871
8.98355, 104, 11.4265, 12.587, 17.7222, -145.879, -97.0431, 141.987
8.99151, 104, 11.42, 12.762, 17.6459, -145.809, -97.2165, 142.091
8.99953, 104, 11.4141, 12.9164, 17.5796, -145.748, -97.3681, 142.181
9.00758, 104, 11.4088, 13.051, 17.5229, -145.695, -97.4977, 142.259
9.01552, 104, 11.4039, 13.1667, 17.4755, -145.651, -97.6066, 142.324
9.02353, 104, 11.3994, 13.2641, 17.4368, -145.616, -97.6951, 142.377
9.03159, 104, 11.3954, 13.3446, 17.406, -145.587, -97.7656, 142.419
9.03944, 104, 11.3917, 13.4104, 17.3825, -145.564, -97.8189, 142.452
9.04745, 104, 11.3884, 13.463, 17.3652, -145.548, -97.8579, 142.476
9.0556, 104, 11.3856, 13.5041, 17.353, -145.536, -97.8855, 142.492
9.06356, 104, 11.3833, 13.5349, 17.345, -145.528, -97.9041, 142.502
9.072, 104, 11.3815, 13.5578, 17.34, -145.524, -97.9158, 142.509
9.0797, 104, 11.3801, 13.5742, 17.337, -145.521, -97.9224, 142.512
9.08771, 104, 11.379, 13.5854, 17.3354, -145.52, -97.9258, 142.514
9.09614, 104, 11.3781, 13.593, 17.3346, -145.519, -97.9275, 142.515
9.10393, 105, 11.3775, 13.598, 17.3342, -145.519, -97.9283, 142.515
9.11256, 105, 11.3771, 13.6013, 17.334, -145.518, -97.9286, 142.516
9.1203, 105, 11.3768, 13.6036, 17.3339, -145.518, -97.9288, 142.516
9.12798, 105, 11.3766, 13.6056, 17.3339, -145.518, -97.9288, 142.516
9.13659, 105, 11.3764, 13.6073, 17.3339, -145.518, -97.9289, 142.516
9.14423, 105, 11.3763, 13.6088, 17.3339, -145.518, -97.9289, 142.516
9.15206, 105, 11.3762, 13.6094, 17.3339, -145.518, -97.9288, 142.516
9.15941, 105, 11.3761, 13.6106, 17.3339, -145.518, -97.9288, 142.516
9.16815, 105, 11.3761, 13.6116, 17.3339, -145.518, -97.9287, 142.516
9.17546, 105, 11.376, 13.6125, 17.3339, -145.518, -97.9286, 142.516
9.1834, 105, 11.376, 13.6132, 17.3339, -145.518, -97.9284, 142.516
9.19143, 105, 11.3759, 13.6136, 17.334, -145.518, -97.9283, 142.516
9.2004, 105, 11.3759, 13.6139, 17.3341, -145.518, -97.9281, 142.516
9.20741, 105, 11.3759, 13.614, 17.3341, -145.518, -97.928, 142.516
9.21541, 105, 11.3759, 13.6141, 17.3341, -145.519, -97.9278, 142.516
9.22351, 105, 11.3759, 13.6141, 17.3341, -145.519, -97.9278, 142.516
