hehonglu123/Motion-Primitive-Planning/ILC/recorded_data/realrobot/wood/iteration_15/run_1.csv
timestamp, cmd_num, J1, J2, J3, J4, J5, J6
0.008511, -1, 11.3757, 13.6149, 17.3358, -145.521, -97.9257, 142.516
0.010446, -1, 11.3757, 13.6149, 17.3358, -145.521, -97.9257, 142.516
0.015826, -1, 11.3757, 13.6149, 17.3358, -145.521, -97.9257, 142.516
0.038145, -1, 11.3757, 13.6149, 17.3358, -145.521, -97.9257, 142.516
0.039389, -1, 11.3757, 13.6149, 17.3358, -145.521, -97.9257, 142.516
0.041572, -1, 11.3757, 13.6148, 17.3358, -145.521, -97.9257, 142.516
0.047114, -1, 11.3757, 13.6148, 17.3358, -145.521, -97.9257, 142.516
0.056599, -1, 11.3755, 13.6149, 17.3358, -145.52, -97.9257, 142.516
0.065065, -1, 11.3741, 13.6147, 17.3357, -145.52, -97.9257, 142.516
0.07327, -1, 11.3697, 13.6143, 17.3356, -145.521, -97.9257, 142.516
0.079075, -1, 11.3659, 13.6138, 17.3355, -145.521, -97.9257, 142.515
0.088661, -1, 11.3469, 13.6106, 17.3347, -145.521, -97.9256, 142.511
0.097428, -1, 11.3251, 13.606, 17.3339, -145.524, -97.9251, 142.497
0.10311, -1, 11.3102, 13.6027, 17.3335, -145.526, -97.9246, 142.485
0.112714, -1, 11.2718, 13.5935, 17.3329, -145.533, -97.9228, 142.416
0.120662, -1, 11.2215, 13.5811, 17.333, -145.545, -97.9193, 142.38
0.128874, -1, 11.1598, 13.5657, 17.3347, -145.562, -97.9138, 142.284
0.136134, -1, 11.0865, 13.5466, 17.3387, -145.585, -97.9059, 142.153
0.144201, -1, 11.0012, 13.5236, 17.3452, -145.614, -97.8958, 141.988
0.152086, -1, 10.9043, 13.4973, 17.3537, -145.648, -97.8836, 141.79
0.160102, -1, 10.7967, 13.4676, 17.3642, -145.686, -97.8699, 141.564
0.168148, -1, 10.6782, 13.4347, 17.3754, -145.729, -97.8551, 141.318
0.176107, -1, 10.5491, 13.399, 17.3866, -145.773, -97.8397, 141.057
0.184164, -1, 10.411, 13.3611, 17.3973, -145.819, -97.8237, 140.787
0.192159, -1, 10.2661, 13.3215, 17.4076, -145.867, -97.8074, 140.513
0.200078, -1, 10.1166, 13.2811, 17.4177, -145.914, -97.7909, 140.236
0.208133, -1, 9.9642, 13.24, 17.4277, -145.961, -97.7739, 139.958
0.216153, -1, 9.8095, 13.1986, 17.4378, -146.01, -97.7567, 139.679
0.224145, -1, 9.65401, 13.1572, 17.4478, -146.057, -97.7395, 139.399
0.232097, -1, 9.49877, 13.116, 17.4578, -146.105, -97.7224, 139.12
0.241645, -1, 9.34401, 13.0748, 17.4677, -146.154, -97.7057, 138.84
0.248095, -1, 9.18963, 13.0337, 17.4777, -146.201, -97.6889, 138.56
0.256332, -1, 9.03573, 12.9926, 17.4877, -146.249, -97.6722, 138.28
0.26414, -1, 8.88196, 12.9516, 17.4979, -146.298, -97.6553, 138.001
0.27211, -1, 8.72836, 12.9105, 17.508, -146.345, -97.6381, 137.721
0.279131, -1, 8.57536, 12.8694, 17.518, -146.393, -97.6207, 137.441
0.288092, -1, 8.42257, 12.8282, 17.5282, -146.441, -97.6032, 137.161
0.295146, -1, 8.26959, 12.7868, 17.5384, -146.489, -97.5859, 136.88
0.303082, -1, 8.11617, 12.7453, 17.5486, -146.537, -97.5689, 136.6
0.311106, -1, 7.9623, 12.7036, 17.5588, -146.585, -97.552, 136.32
0.320086, -1, 7.80777, 12.6619, 17.5689, -146.633, -97.5354, 136.04
0.328866, -1, 7.65286, 12.6203, 17.5789, -146.681, -97.5188, 135.76
0.336081, -1, 7.4979, 12.5786, 17.5892, -146.729, -97.502, 135.48
0.343235, -1, 7.34294, 12.5371, 17.5993, -146.777, -97.4848, 135.199
0.35118, -1, 7.188, 12.4956, 17.6096, -146.825, -97.4674, 134.919
0.36008, -1, 7.0329, 12.4541, 17.6199, -146.874, -97.4502, 134.639
0.367336, -1, 6.87777, 12.4128, 17.6301, -146.921, -97.4331, 134.359
0.375143, -1, 6.72288, 12.3715, 17.6405, -146.969, -97.4163, 134.078
0.514123, -1, 4.08635, 11.6656, 17.8166, -147.788, -97.1256, 129.304
0.516061, -1, 4.00897, 11.6449, 17.8218, -147.812, -97.1171, 129.163
0.517432, -1, 4.00897, 11.6449, 17.8218, -147.812, -97.1171, 129.163
0.518705, -1, 4.00897, 11.6449, 17.8218, -147.812, -97.1171, 129.163
0.521808, -1, 3.93168, 11.6242, 17.827, -147.836, -97.1087, 129.023
0.52308, -1, 3.93168, 11.6242, 17.827, -147.836, -97.1087, 129.023
0.525219, -1, 3.85445, 11.6034, 17.8321, -147.861, -97.1003, 128.882
0.527288, -1, 3.85445, 11.6034, 17.8321, -147.861, -97.1003, 128.882
0.529273, -1, 3.77728, 11.5826, 17.8373, -147.885, -97.0919, 128.741
0.53055, -1, 3.77728, 11.5826, 17.8373, -147.885, -97.0919, 128.741
0.533234, -1, 3.7001, 11.5618, 17.8424, -147.909, -97.0835, 128.601
0.534499, -1, 3.7001, 11.5618, 17.8424, -147.909, -97.0835, 128.601
0.536576, -1, 3.62292, 11.541, 17.8476, -147.933, -97.075, 128.46
0.537842, -1, 3.62292, 11.541, 17.8476, -147.933, -97.075, 128.46
0.539105, -1, 3.62292, 11.541, 17.8476, -147.933, -97.075, 128.46
0.541272, -1, 3.5457, 11.5202, 17.8527, -147.957, -97.0664, 128.319
0.542541, -1, 3.5457, 11.5202, 17.8527, -147.957, -97.0664, 128.319
0.544428, -1, 3.46841, 11.4993, 17.8579, -147.981, -97.0578, 128.178
0.546804, -1, 3.46841, 11.4993, 17.8579, -147.981, -97.0578, 128.178
0.548876, -1, 3.39106, 11.4785, 17.8631, -148.006, -97.0491, 128.038
0.550094, -1, 3.39106, 11.4785, 17.8631, -148.006, -97.0491, 128.038
0.55144, -1, 3.39106, 11.4785, 17.8631, -148.006, -97.0491, 128.038
0.560576, -1, 3.15844, 11.4159, 17.8788, -148.078, -97.0227, 127.616
0.568668, -1, 3.00316, 11.3741, 17.8892, -148.126, -97.0053, 127.334
0.576636, -1, 2.84774, 11.3323, 17.8996, -148.175, -96.9882, 127.052
0.584779, -1, 2.69206, 11.2906, 17.9099, -148.222, -96.9713, 126.771
0.592634, -1, 2.53607, 11.2488, 17.9203, -148.271, -96.9545, 126.489
0.599133, -1, 2.45799, 11.228, 17.9255, -148.295, -96.9462, 126.348
0.608777, -1, 2.22328, 11.1654, 17.9411, -148.367, -96.9208, 125.925
0.616893, -1, 2.1449, 11.1445, 17.9463, -148.391, -96.9122, 125.784
0.624667, -1, 1.98812, 11.1028, 17.9567, -148.44, -96.8948, 125.503
0.632123, -1, 1.83161, 11.0611, 17.9671, -148.489, -96.8773, 125.221
0.640099, -1, 1.67518, 11.0194, 17.9775, -148.537, -96.8599, 124.939
0.648041, -1, 1.51893, 10.9776, 17.988, -148.585, -96.8429, 124.657
0.656066, -1, 1.36304, 10.936, 17.9984, -148.634, -96.826, 124.375
0.664185, -1, 1.20738, 10.8943, 18.0088, -148.682, -96.8091, 124.092
0.672069, -1, 1.05202, 10.8525, 18.0191, -148.731, -96.7922, 123.81
0.806453, -1, -1.6037, 10.1413, 18.1963, -149.555, -96.5011, 119.003
0.807887, -1, -1.6037, 10.1413, 18.1963, -149.555, -96.5011, 119.003
0.80915, -1, -1.6037, 10.1413, 18.1963, -149.555, -96.5011, 119.003
0.812725, -1, -1.68179, 10.1204, 18.2016, -149.58, -96.4927, 118.861
0.814589, -1, -1.75978, 10.0994, 18.2068, -149.604, -96.4841, 118.72
0.816055, -1, -1.75978, 10.0994, 18.2068, -149.604, -96.4841, 118.72
0.817267, -1, -1.75978, 10.0994, 18.2068, -149.604, -96.4841, 118.72
0.821198, -1, -1.83768, 10.0785, 18.212, -149.628, -96.4754, 118.578
0.825316, -1, -1.9155, 10.0575, 18.2173, -149.652, -96.4667, 118.436
0.82737, -1, -1.99324, 10.0366, 18.2225, -149.677, -96.4579, 118.294
0.828577, -1, -1.99324, 10.0366, 18.2225, -149.677, -96.4579, 118.294
0.830497, -1, -1.99324, 10.0366, 18.2225, -149.701, -96.4491, 118.152
0.831896, -1, -2.07089, 10.0156, 18.2277, -149.701, -96.4491, 118.152
0.833162, -1, -2.07089, 10.0156, 18.2277, -149.701, -96.4491, 118.152
0.836613, -1, -2.14849, 9.99467, 18.2329, -149.726, -96.4402, 118.01
0.839365, -1, -2.22606, 9.97376, 18.2381, -149.75, -96.4315, 117.869
0.840598, -1, -2.22606, 9.97376, 18.2381, -149.75, -96.4315, 117.869
0.842422, -1, -2.22606, 9.97376, 18.2381, -149.75, -96.4315, 117.727
0.843896, -1, -2.30363, 9.95285, 18.2433, -149.774, -96.4228, 117.727
0.845169, -1, -2.30363, 9.95285, 18.2433, -149.774, -96.4228, 117.727
0.847168, -1, -2.38125, 9.9319, 18.2485, -149.798, -96.4142, 117.585
0.848501, -1, -2.38125, 9.9319, 18.2485, -149.798, -96.4142, 117.585
0.855162, -1, -2.53682, 9.88987, 18.259, -149.847, -96.3971, 117.301
0.863232, -1, -2.69264, 9.8479, 18.2694, -149.896, -96.3803, 117.017
0.871099, -1, -2.84877, 9.80594, 18.2798, -149.944, -96.3635, 116.734
0.879085, -1, -3.0054, 9.76395, 18.2901, -149.993, -96.3466, 116.45
0.887236, -1, -3.16242, 9.72203, 18.3005, -150.042, -96.3295, 116.166
0.895118, -1, -3.31987, 9.68006, 18.311, -150.09, -96.3119, 115.883
0.903198, -1, -3.4777, 9.63801, 18.3215, -150.138, -96.2943, 115.599
0.911381, -1, -3.63544, 9.59611, 18.3319, -150.188, -96.277, 115.315
0.919332, -1, -3.79332, 9.55423, 18.3423, -150.236, -96.2598, 115.03
0.927389, -1, -3.95135, 9.51219, 18.3527, -150.285, -96.2427, 114.746
0.935541, -1, -4.10926, 9.47024, 18.3631, -150.334, -96.2257, 114.462
0.943522, -1, -4.26708, 9.4283, 18.3734, -150.382, -96.2087, 114.178
0.952162, -1, -4.42471, 9.38628, 18.3838, -150.431, -96.1914, 113.893
0.959639, -1, -4.58191, 9.34431, 18.3941, -150.48, -96.174, 113.608
0.968171, -1, -4.73869, 9.30224, 18.4045, -150.529, -96.1562, 113.324
0.975695, -1, -4.89511, 9.26017, 18.415, -150.578, -96.1385, 113.039
0.984277, -1, -5.05125, 9.21808, 18.4255, -150.627, -96.1211, 112.754
0.991599, -1, -5.12924, 9.19707, 18.4308, -150.651, -96.1125, 112.611
1.00007, -1, -5.3631, 9.13388, 18.4466, -150.724, -96.0871, 112.185
1.00709, -1, -5.44113, 9.1128, 18.4519, -150.749, -96.0787, 112.042
1.01615, -1, -5.67556, 9.04968, 18.4675, -150.822, -96.0531, 111.615
1.0231, -1, -5.75388, 9.0286, 18.4728, -150.846, -96.0445, 111.473
1.03225, -1, -5.98939, 8.96531, 18.4884, -150.92, -96.0183, 111.045
1.03912, -1, -6.0681, 8.94426, 18.4935, -150.944, -96.0095, 110.903
1.04849, -1, -6.30518, 8.88106, 18.5091, -151.017, -95.9832, 110.475
1.05506, -1, -6.38434, 8.86, 18.5143, -151.042, -95.9746, 110.332
1.06448, -1, -6.62194, 8.7969, 18.5299, -151.115, -95.9491, 109.905
1.07268, -1, -6.78064, 8.75474, 18.5405, -151.164, -95.9321, 109.619
1.08062, -1, -6.93931, 8.71264, 18.551, -151.213, -95.9151, 109.333
1.0886, -1, -7.09783, 8.67053, 18.5615, -151.262, -95.8978, 109.048
1.09675, -1, -7.25623, 8.62839, 18.5718, -151.311, -95.8801, 108.763
1.10464, -1, -7.33537, 8.58617, 18.5823, -151.361, -95.8624, 108.477
1.11266, -1, -7.49337, 8.56503, 18.5928, -151.409, -95.8447, 108.191
1.1208, -1, -7.65107, 8.52271, 18.598, -151.434, -95.8273, 107.905
1.12805, -1, -7.80837, 8.48046, 18.6085, -151.483, -95.8188, 107.762
1.13605, -1, -7.96535, 8.4382, 18.6189, -151.532, -95.8018, 107.477
1.14413, -1, -8.12203, 8.39582, 18.6293, -151.581, -95.7849, 107.191
1.15221, -1, -8.27854, 8.35349, 18.6398, -151.63, -95.7678, 106.905
1.1601, -1, -8.43521, 8.31114, 18.6503, -151.679, -95.7506, 106.619
1.16805, -1, -8.59218, 8.26875, 18.6609, -151.728, -95.7331, 106.333
1.17606, -1, -8.74958, 8.22647, 18.6714, -151.777, -95.7154, 106.046
1.18412, -1, -8.90726, 8.18414, 18.6817, -151.826, -95.6978, 105.76
1.19207, -1, -9.06538, 8.14182, 18.6922, -151.875, -95.6805, 105.474
1.20007, -1, -9.22393, 8.09955, 18.7027, -151.925, -95.6633, 105.187
1.20813, -1, -9.38284, 8.0572, 18.7131, -151.973, -95.6463, 104.9
1.21608, -1, -9.542, 8.01485, 18.7236, -152.023, -95.6292, 104.614
1.22406, -1, -9.70109, 7.97263, 18.7341, -152.072, -95.6119, 104.327
1.23104, -1, -9.8603, 7.93039, 18.7446, -152.121, -95.5943, 104.04
1.23905, -1, -10.0197, 7.88801, 18.7553, -152.171, -95.5764, 103.753
1.24806, -1, -10.1789, 7.84558, 18.7658, -152.22, -95.5586, 103.466
1.25705, -1, -10.338, 7.80309, 18.7764, -152.269, -95.5411, 103.179
1.26406, -1, -10.497, 7.76058, 18.787, -152.319, -95.5238, 102.892
1.27187, -1, -10.6555, 7.71811, 18.7974, -152.368, -95.5068, 102.605
1.28015, -1, -10.8136, 7.67557, 18.8079, -152.417, -95.4897, 102.318
1.28711, -1, -10.9714, 7.63298, 18.8184, -152.466, -95.4726, 102.031
1.29585, -1, -11.129, 7.59049, 18.8288, -152.516, -95.4552, 101.743
1.30406, -1, -11.2864, 7.54798, 18.8393, -152.565, -95.4375, 101.456
1.31124, -1, -11.4439, 7.50549, 18.8498, -152.614, -95.4198, 101.169
1.31988, -1, -11.6014, 7.46298, 18.8603, -152.664, -95.4021, 100.881
1.32805, -1, -11.7593, 7.42053, 18.8709, -152.712, -95.3847, 100.593
1.33606, -1, -11.9177, 7.37809, 18.8814, -152.762, -95.3675, 100.306
1.34413, -1, -12.0764, 7.33571, 18.892, -152.812, -95.3503, 100.018
1.35115, -1, -12.2356, 7.29331, 18.9026, -152.861, -95.333, 99.73
1.3596, -1, -12.3952, 7.25086, 18.913, -152.911, -95.3156, 99.442
1.36835, -1, -12.555, 7.20841, 18.9236, -152.96, -95.2979, 99.154
1.37506, -1, -12.715, 7.16597, 18.9341, -153.009, -95.2798, 98.8663
1.38316, -1, -12.8751, 7.12351, 18.9447, -153.059, -95.262, 98.5785
1.39284, -1, -13.0352, 7.08094, 18.9552, -153.108, -95.2443, 98.2902
1.40005, -1, -13.1951, 7.03833, 18.9658, -153.158, -95.2271, 98.0021
1.40724, -1, -13.3549, 6.99572, 18.9764, -153.207, -95.2099, 97.714
1.41683, -1, -13.5143, 6.953, 18.987, -153.256, -95.1928, 97.4256
1.42405, -1, -13.6735, 6.9102, 18.9975, -153.306, -95.1755, 97.1368
1.43142, -1, -13.8326, 6.86749, 19.008, -153.356, -95.158, 96.8483
1.44109, -1, -13.9911, 6.82478, 19.0185, -153.405, -95.1402, 96.5598
1.44813, -1, -14.1493, 6.78209, 19.0291, -153.454, -95.1224, 96.271
1.45562, -1, -14.3076, 6.73946, 19.0396, -153.504, -95.1048, 95.982
1.46514, -1, -14.4658, 6.69674, 19.0501, -153.553, -95.0875, 95.693
1.47163, -1, -14.6243, 6.65411, 19.0607, -153.603, -95.0702, 95.4039
1.48023, -1, -14.7831, 6.6116, 19.0712, -153.652, -95.0531, 95.1146
1.48853, -1, -14.8626, 6.59031, 19.0764, -153.702, -95.0358, 94.8253
1.49563, -1, -15.0219, 6.54763, 19.0872, -153.726, -95.0182, 94.5363
1.50413, -1, -15.2617, 6.48377, 19.1033, -153.801, -95.0003, 94.2472
1.51106, -1, -15.3418, 6.46249, 19.1086, -153.826, -94.9913, 94.1025
1.5191, -1, -15.5022, 6.41979, 19.1192, -153.875, -94.9734, 93.8131
1.52819, -1, -15.7433, 6.35572, 19.1351, -153.95, -94.947, 93.3792
1.53503, -1, -15.8236, 6.33433, 19.1404, -153.975, -94.9384, 93.2345
1.5431, -1, -15.9844, 6.29149, 19.1511, -154.025, -94.9211, 92.945
1.55242, -1, -16.2257, 6.2272, 19.1669, -154.099, -94.8954, 92.5103
1.55903, -1, -16.3061, 6.20573, 19.1722, -154.124, -94.8867, 92.3656
1.5671, -1, -16.4666, 6.16274, 19.1827, -154.173, -94.8692, 92.0761
1.57658, -1, -16.7069, 6.09831, 19.1985, -154.248, -94.8425, 91.6408
1.58634, -1, -16.8665, 6.05532, 19.2092, -154.297, -94.8247, 91.3507
1.59103, -1, -16.9462, 6.03383, 19.2145, -154.323, -94.8159, 91.2057
1.60059, -1, -17.1851, 5.96941, 19.2304, -154.397, -94.7896, 90.7705
1.60938, -1, -17.2646, 5.92652, 19.241, -154.447, -94.7724, 90.48
1.61505, -1, -17.4237, 5.90513, 19.2463, -154.472, -94.7637, 90.3348
1.62402, -1, -17.583, 5.86236, 19.257, -154.522, -94.7463, 90.0447
1.63205, -1, -17.7423, 5.81954, 19.2677, -154.571, -94.7287, 89.7544
1.63903, -1, -17.9019, 5.77676, 19.2784, -154.621, -94.7108, 89.464
1.64919, -1, -18.1422, 5.71258, 19.2943, -154.696, -94.6837, 89.0283
1.65509, -1, -18.2225, 5.69119, 19.2996, -154.721, -94.6749, 88.8831
1.66409, -1, -18.3834, 5.64843, 19.3104, -154.771, -94.6572, 88.5923
1.67205, -1, -18.5448, 5.60551, 19.3211, -154.821, -94.6399, 88.3013
1.68002, -1, -18.7064, 5.56254, 19.3318, -154.871, -94.6225, 88.0105
1.68704, -1, -18.8679, 5.51957, 19.3424, -154.921, -94.6053, 87.7198
1.69603, -1, -19.0296, 5.47648, 19.353, -154.971, -94.5877, 87.4286
1.70411, -1, -19.1911, 5.43329, 19.3636, -155.02, -94.5699, 87.1371
1.71105, -1, -19.3527, 5.39015, 19.3742, -155.071, -94.5518, 86.8457
1.72005, -1, -19.514, 5.34699, 19.3848, -155.12, -94.5338, 86.5541
1.7281, -1, -19.6749, 5.30375, 19.3954, -155.17, -94.5161, 86.2625
1.73602, -1, -19.8355, 5.26058, 19.4061, -155.221, -94.4985, 85.9706
1.7441, -1, -19.996, 5.21741, 19.4168, -155.27, -94.4811, 85.6791
1.75361, -1, -20.156, 5.17424, 19.4276, -155.32, -94.4637, 85.3876
1.76003, -1, -20.3157, 5.13128, 19.4384, -155.371, -94.4461, 85.0958
1.76813, -1, -20.4757, 5.08826, 19.4493, -155.42, -94.4283, 84.8039
1.77602, -1, -20.6358, 5.04517, 19.46, -155.471, -94.4102, 84.5123
1.78406, -1, -20.7961, 5.00225, 19.4707, -155.521, -94.3921, 84.2203
1.79212, -1, -20.9568, 4.95926, 19.4814, -155.571, -94.3744, 83.9281
1.79903, -1, -21.1178, 4.91618, 19.4921, -155.621, -94.3569, 83.636
1.80804, -1, -21.2793, 4.87309, 19.5027, -155.672, -94.3396, 83.3441
1.81611, -1, -21.4414, 4.82987, 19.5133, -155.721, -94.3224, 83.0519
1.82308, -1, -21.6035, 4.78661, 19.524, -155.772, -94.305, 82.7593
1.83206, -1, -21.7658, 4.74343, 19.5348, -155.822, -94.2874, 82.4667
1.8401, -1, -21.9282, 4.70007, 19.5455, -155.872, -94.2694, 82.1742
1.84802, -1, -22.0908, 4.65667, 19.5564, -155.923, -94.2514, 81.8814
1.85606, -1, -22.2532, 4.61335, 19.567, -155.973, -94.2336, 81.5885
1.86412, -1, -22.4156, 4.56989, 19.5777, -156.023, -94.216, 81.2958
1.87205, -1, -22.5777, 4.52649, 19.5884, -156.073, -94.1985, 81.0032
1.87981, -1, -22.7394, 4.48308, 19.5991, -156.123, -94.1811, 80.7104
1.88813, -1, -22.9007, 4.43969, 19.6098, -156.173, -94.1636, 80.4173
1.89511, -1, -23.0619, 4.39638, 19.6205, -156.224, -94.1457, 80.1244
1.90397, -1, -23.2229, 4.35308, 19.6311, -156.274, -94.1275, 79.8313
1.91204, -1, -23.3837, 4.30978, 19.642, -156.324, -94.1092, 79.5378
1.92002, -1, -23.5446, 4.26654, 19.6529, -156.375, -94.0911, 79.2444
1.92822, -1, -23.7057, 4.22325, 19.6636, -156.425, -94.0733, 78.9512
1.93537, -1, -23.8669, 4.18001, 19.6744, -156.476, -94.0558, 78.6576
1.94354, -1, -24.0283, 4.13668, 19.6851, -156.526, -94.0384, 78.3638
1.95239, -1, -24.1903, 4.09333, 19.6958, -156.576, -94.021, 78.0699
1.95958, -1, -24.3527, 4.04993, 19.7065, -156.627, -94.0033, 77.776
1.96819, -1, -24.5155, 4.00648, 19.7172, -156.677, -93.9853, 77.4819
1.97644, -1, -24.6786, 3.96293, 19.7278, -156.727, -93.9671, 77.1875
1.9836, -1, -24.7602, 3.91937, 19.7385, -156.778, -93.9492, 76.8935
1.99214, -1, -25.0053, 3.87584, 19.7493, -156.829, -93.9314, 76.5995
1.99902, -1, -25.087, 3.85407, 19.7548, -156.854, -93.9226, 76.4524
2.00707, -1, -25.2503, 3.81051, 19.7657, -156.904, -93.9051, 76.158
2.01614, -1, -25.4948, 3.74507, 19.782, -156.98, -93.8788, 75.7165
2.02304, -1, -25.5762, 3.72322, 19.7873, -157.005, -93.87, 75.5694
2.03107, -1, -25.7388, 3.67963, 19.798, -157.055, -93.8521, 75.2748
2.04028, -1, -25.9825, 3.6144, 19.8143, -157.131, -93.8245, 74.8327
2.04705, -1, -26.0635, 3.59261, 19.8196, -157.156, -93.8154, 74.6855
2.05635, -1, -26.3061, 3.52746, 19.8358, -157.233, -93.7883, 74.2436
2.06301, -1, -26.3868, 3.50578, 19.8412, -157.258, -93.7794, 74.0961
2.07331, -1, -26.6294, 3.44056, 19.8573, -157.333, -93.753, 73.6532
2.07908, -1, -26.7104, 3.41882, 19.8627, -157.359, -93.7442, 73.5057
2.0889, -1, -26.9539, 3.35352, 19.879, -157.435, -93.7175, 73.0628
2.09766, -1, -27.1166, 3.30991, 19.8899, -157.485, -93.6994, 72.7672
2.10461, -1, -27.2796, 3.26638, 19.9006, -157.536, -93.6811, 72.4719
2.11266, -1, -27.4432, 3.22264, 19.9114, -157.586, -93.6629, 72.1767
2.12151, -1, -27.5251, 3.20073, 19.9168, -157.612, -93.6449, 71.8812
2.12707, -1, -27.6889, 3.157, 19.9276, -157.663, -93.636, 71.7334
2.13705, -1, -27.9351, 3.09148, 19.9437, -157.738, -93.6094, 71.2898
2.14302, -1, -28.0172, 3.06961, 19.9491, -157.764, -93.6006, 71.142
2.15205, -1, -28.1814, 3.02588, 19.9599, -157.815, -93.5828, 70.8461
2.16007, -1, -28.3457, 2.98217, 19.9707, -157.865, -93.5648, 70.55
2.16801, -1, -28.5097, 2.93841, 19.9816, -157.916, -93.5464, 70.2541
2.17504, -1, -28.6734, 2.89473, 19.9925, -157.967, -93.5279, 69.9582
2.18304, -1, -28.8369, 2.85103, 20.0033, -158.017, -93.5097, 69.662
2.19203, -1, -29, 2.80731, 20.014, -158.069, -93.4918, 69.3654
2.19901, -1, -29.1627, 2.76366, 20.0248, -158.12, -93.4741, 69.0691
2.20802, -1, -29.3255, 2.71999, 20.0356, -158.17, -93.4565, 68.7726
2.21607, -1, -29.4881, 2.67632, 20.0465, -158.221, -93.4388, 68.4757
2.22412, -1, -29.6509, 2.63257, 20.0573, -158.272, -93.4207, 68.1788
2.23201, -1, -29.8139, 2.58878, 20.0681, -158.323, -93.4024, 67.8822
2.24001, -1, -29.977, 2.54501, 20.079, -158.374, -93.384, 67.5856
2.24955, -1, -30.1404, 2.50112, 20.09, -158.425, -93.3658, 67.2886
2.256, -1, -30.3042, 2.45714, 20.1009, -158.476, -93.3478, 66.9915
2.26502, -1, -30.4685, 2.4132, 20.1119, -158.527, -93.33, 66.6947
2.27101, -1, -30.6332, 2.36916, 20.1227, -158.578, -93.3123, 66.3976
2.28004, -1, -30.7982, 2.3252, 20.1335, -158.629, -93.2945, 66.1001
2.2871, -1, -30.9632, 2.28127, 20.1444, -158.68, -93.2764, 65.8029
2.29501, -1, -31.1283, 2.23718, 20.1553, -158.731, -93.258, 65.5058
2.30402, -1, -31.2934, 2.19326, 20.1661, -158.782, -93.2394, 65.2083
2.31208, -1, -31.4583, 2.14941, 20.1769, -158.833, -93.2211, 64.9105
2.32002, -1, -31.623, 2.10538, 20.1877, -158.884, -93.203, 64.6128
2.32801, -1, -31.7876, 2.06141, 20.1987, -158.935, -93.1853, 64.3149
2.3361, -1, -31.9519, 2.0175, 20.2097, -158.987, -93.1678, 64.0167
2.34401, -1, -32.1158, 1.97349, 20.2206, -159.037, -93.1501, 63.7185
2.35201, -1, -32.2795, 1.92951, 20.2316, -159.089, -93.1322, 63.4208
2.3601, -1, -32.4429, 1.88549, 20.2424, -159.14, -93.1141, 63.1228
2.36801, -1, -32.6066, 1.84137, 20.2534, -159.191, -93.0956, 62.8244
2.37603, -1, -32.7704, 1.79732, 20.2643, -159.243, -93.0774, 62.526
2.38408, -1, -32.9344, 1.75321, 20.2752, -159.294, -93.0594, 62.2277
2.3911, -1, -33.0988, 1.70896, 20.2861, -159.345, -93.0415, 61.9291
2.39985, -1, -33.2634, 1.66478, 20.297, -159.396, -93.0238, 61.6304
2.40809, -1, -33.4284, 1.62057, 20.3079, -159.447, -93.0059, 61.3318
2.41602, -1, -33.5938, 1.57632, 20.3189, -159.499, -92.9878, 61.0332
2.42414, -1, -33.7595, 1.53207, 20.3299, -159.55, -92.9693, 60.7343
2.43138, -1, -33.9253, 1.48786, 20.3407, -159.601, -92.9506, 60.4351
2.43942, -1, -34.0913, 1.44367, 20.3516, -159.652, -92.9321, 60.1361
2.44809, -1, -34.2574, 1.39952, 20.3626, -159.704, -92.914, 59.8368
2.45614, -1, -34.4235, 1.35528, 20.3735, -159.755, -92.896, 59.5371
2.46357, -1, -34.5894, 1.31109, 20.3844, -159.807, -92.8782, 59.2374
2.47218, -1, -34.7549, 1.26692, 20.3953, -159.858, -92.8604, 58.9382
2.47959, -1, -34.92, 1.22271, 20.4062, -159.909, -92.8424, 58.6388
2.48814, -1, -35.0849, 1.17847, 20.4173, -159.961, -92.824, 58.3391
2.49562, -1, -35.1672, 1.15631, 20.4228, -160.012, -92.8054, 58.0393
2.50406, -1, -35.4138, 1.08989, 20.4395, -160.064, -92.7869, 57.7397
2.51175, -1, -35.4957, 1.06785, 20.445, -160.115, -92.7687, 57.4398
2.52011, -1, -35.7382, 1.00231, 20.462, -160.166, -92.7507, 57.1403
2.527, -1, -35.8175, 0.980806, 20.4678, -160.192, -92.7418, 56.9914
2.53616, -1, -36.049, 0.918223, 20.4856, -160.267, -92.7153, 56.5505
2.543, -1, -36.1234, 0.898223, 20.4916, -160.292, -92.7066, 56.4068
2.55244, -1, -36.3341, 0.841923, 20.5093, -160.362, -92.6812, 55.9941
2.56035, -1, -36.4618, 0.808115, 20.5205, -160.405, -92.6652, 55.7421
2.567, -1, -36.5213, 0.79235, 20.5257, -160.425, -92.6578, 55.6253
2.57648, -1, -36.6798, 0.750455, 20.5389, -160.476, -92.6388, 55.3199
2.58453, -1, -36.7672, 0.72728, 20.545, -160.503, -92.6288, 55.159
2.59274, -1, -36.8403, 0.707898, 20.549, -160.525, -92.6213, 55.0329
2.60092, -1, -36.9, 0.692156, 20.551, -160.541, -92.6159, 54.9412
2.60861, -1, -36.9468, 0.679736, 20.5519, -160.552, -92.6122, 54.8775
2.61669, -1, -36.9815, 0.6704, 20.5519, -160.559, -92.61, 54.8366
2.62452, -1, -36.9951, 0.666859, 20.5517, -160.562, -92.6092, 54.8229
2.632, -1, -37.0155, 0.661741, 20.5513, -160.565, -92.6083, 54.8049
2.64004, -1, -37.0279, 0.658696, 20.5509, -160.567, -92.6079, 54.796
2.64797, 2, -37.0345, 0.657093, 20.5507, -160.568, -92.6077, 54.7917
2.65602, 2, -37.0367, 0.65636, 20.5507, -160.568, -92.6076, 54.7897
2.66405, 2, -37.0366, 0.65604, 20.5506, -160.568, -92.6076, 54.7889
2.67107, 2, -37.0359, 0.655894, 20.5506, -160.568, -92.6076, 54.7885
2.67999, 2, -37.0357, 0.655827, 20.5506, -160.568, -92.6076, 54.7883
2.68806, 2, -37.0361, 0.655789, 20.5506, -160.568, -92.6076, 54.7883
2.69601, 2, -37.0371, 0.655755, 20.5505, -160.568, -92.6076, 54.7883
2.70399, 2, -37.0382, 0.655664, 20.5504, -160.568, -92.6076, 54.7882
2.71204, 2, -37.0397, 0.65546, 20.5502, -160.568, -92.6076, 54.7883
2.71999, 2, -37.0411, 0.655193, 20.55, -160.568, -92.6077, 54.7884
2.72803, 2, -37.0423, 0.654919, 20.5499, -160.568, -92.6077, 54.7884
2.73608, 2, -37.0433, 0.65467, 20.5497, -160.568, -92.6077, 54.7885
2.74399, 2, -37.0437, 0.654529, 20.5495, -160.568, -92.6078, 54.7886
2.752, 2, -37.0437, 0.654472, 20.5493, -160.568, -92.6078, 54.7888
2.76009, 2, -37.0432, 0.654464, 20.5492, -160.568, -92.6079, 54.7889
2.76804, 2, -37.0424, 0.654491, 20.5491, -160.568, -92.6079, 54.7891
2.77601, 2, -37.0413, 0.654534, 20.5491, -160.568, -92.6079, 54.7893
2.78409, 2, -37.0397, 0.654603, 20.549, -160.568, -92.608, 54.7895
2.79206, 2, -37.0384, 0.654646, 20.5489, -160.568, -92.608, 54.7897
2.79907, 2, -37.0373, 0.654674, 20.5488, -160.568, -92.608, 54.7898
2.80808, 2, -37.0367, 0.654684, 20.5488, -160.568, -92.608, 54.7899
2.816, 2, -37.0364, 0.654673, 20.5488, -160.568, -92.608, 54.7899
2.82401, 2, -37.0365, 0.654622, 20.5488, -160.568, -92.608, 54.7899
2.83208, 2, -37.0367, 0.654565, 20.5488, -160.568, -92.608, 54.79
2.83999, 2, -37.037, 0.654519, 20.5487, -160.568, -92.6081, 54.7901
2.84799, 2, -37.0376, 0.654503, 20.5487, -160.568, -92.6081, 54.7901
2.85608, 2, -37.0382, 0.65446, 20.5487, -160.568, -92.6081, 54.7901
2.86401, 2, -37.039, 0.654471, 20.5487, -160.568, -92.6081, 54.7901
2.87123, 2, -37.0397, 0.654483, 20.5487, -160.568, -92.6081, 54.7902
2.879, 2, -37.04, 0.654494, 20.5487, -160.568, -92.6081, 54.7902
2.88704, 2, -37.0402, 0.654517, 20.5487, -160.568, -92.6081, 54.7902
2.8951, 2, -37.0402, 0.65454, 20.5487, -160.568, -92.6081, 54.7903
2.90307, 2, -37.0401, 0.654538, 20.5487, -160.568, -92.6081, 54.7904
2.91119, 2, -37.0397, 0.654519, 20.5487, -160.568, -92.6081, 54.7905
2.91925, 2, -37.0393, 0.654521, 20.5487, -160.568, -92.6081, 54.7905
2.92755, 2, -37.0391, 0.654518, 20.5486, -160.568, -92.6081, 54.7905
2.936, 2, -37.0389, 0.65451, 20.5486, -160.568, -92.6082, 54.7905
2.94401, 2, -37.0388, 0.654506, 20.5486, -160.568, -92.6082, 54.7906
2.95214, 2, -37.0388, 0.654484, 20.5486, -160.568, -92.6083, 54.7906
2.95953, 2, -37.0388, 0.654489, 20.5486, -160.568, -92.6082, 54.7906
2.96809, 2, -37.0388, 0.654484, 20.5486, -160.568, -92.6082, 54.7907
2.97618, 2, -37.0389, 0.654482, 20.5486, -160.568, -92.6083, 54.7907
2.98359, 2, -37.0389, 0.654493, 20.5486, -160.568, -92.6083, 54.7908
2.99213, 2, -37.0392, 0.654498, 20.5486, -160.568, -92.6083, 54.7908
2.99988, 2, -37.0393, 0.6545, 20.5486, -160.568, -92.6083, 54.7909
3.00801, 2, -37.0395, 0.654502, 20.5486, -160.568, -92.6083, 54.791
3.01505, 2, -37.0395, 0.654502, 20.5486, -160.568, -92.6083, 54.791
3.02412, 2, -37.0395, 0.654502, 20.5486, -160.568, -92.6083, 54.7911
3.03106, 2, -37.0395, 0.654502, 20.5486, -160.568, -92.6083, 54.7911
3.04012, 2, -37.0395, 0.65449, 20.5485, -160.568, -92.6083, 54.7913
3.04698, 2, -37.0395, 0.654494, 20.5485, -160.568, -92.6083, 54.7913
3.05632, 2, -37.0394, 0.6545, 20.5485, -160.568, -92.6083, 54.7914
3.06303, 2, -37.0394, 0.654501, 20.5485, -160.568, -92.6083, 54.7913
3.07279, 2, -37.0394, 0.65449, 20.5485, -160.568, -92.6083, 54.7914
3.08047, 2, -37.0394, 0.654497, 20.5484, -160.568, -92.6084, 54.7914
3.08851, 2, -37.0394, 0.6545, 20.5484, -160.568, -92.6084, 54.7915
3.09698, 2, -37.0394, 0.654501, 20.5484, -160.568, -92.6084, 54.7916
3.10477, 2, -37.0394, 0.654502, 20.5484, -160.568, -92.6084, 54.7916
3.11256, 2, -37.0393, 0.654513, 20.5484, -160.568, -92.6084, 54.7916
3.12085, 2, -37.0393, 0.654544, 20.5484, -160.568, -92.6084, 54.7917
3.12862, 2, -37.0393, 0.654542, 20.5484, -160.568, -92.6084, 54.7917
3.13599, 2, -37.0394, 0.654521, 20.5484, -160.568, -92.6084, 54.7917
3.14487, 2, -37.0394, 0.654508, 20.5484, -160.568, -92.6083, 54.7918
3.15199, 2, -37.0393, 0.654506, 20.5484, -160.568, -92.6084, 54.7918
3.15999, 2, -37.0393, 0.654504, 20.5484, -160.568, -92.6084, 54.7918
3.16809, 2, -37.0393, 0.654503, 20.5484, -160.568, -92.6084, 54.7919
3.17599, 2, -37.0393, 0.654503, 20.5484, -160.568, -92.6084, 54.7919
3.18398, 2, -37.0392, 0.654503, 20.5483, -160.568, -92.6084, 54.7919
3.19204, 2, -37.0393, 0.654503, 20.5483, -160.568, -92.6084, 54.7919
3.19998, 2, -37.0392, 0.654514, 20.5483, -160.568, -92.6084, 54.792
3.20799, 2, -37.0392, 0.654515, 20.5483, -160.568, -92.6084, 54.7921
3.21604, 2, -37.0392, 0.654527, 20.5483, -160.568, -92.6084, 54.7921
3.22398, 2, -37.0392, 0.654514, 20.5483, -160.568, -92.6084, 54.7921
3.2321, 2, -37.0392, 0.654519, 20.5483, -160.568, -92.6084, 54.7922
3.24004, 2, -37.0392, 0.654536, 20.5483, -160.568, -92.6084, 54.7922
3.24798, 2, -37.0391, 0.654536, 20.5483, -160.568, -92.6084, 54.7923
3.25698, 2, -37.0391, 0.654529, 20.5483, -160.568, -92.6084, 54.7923
3.26408, 2, -37.0391, 0.65454, 20.5483, -160.568, -92.6084, 54.7924
3.27198, 2, -37.0391, 0.65452, 20.5483, -160.568, -92.6084, 54.7924
3.27998, 2, -37.0391, 0.65451, 20.5483, -160.568, -92.6084, 54.7924
3.28807, 2, -37.0391, 0.654506, 20.5482, -160.568, -92.6084, 54.7924
3.29613, 2, -37.0391, 0.654504, 20.5482, -160.568, -92.6084, 54.7924
3.30305, 2, -37.0391, 0.654503, 20.5482, -160.568, -92.6085, 54.7925
3.31205, 2, -37.0391, 0.654503, 20.5482, -160.568, -92.6084, 54.7925
3.31998, 2, -37.0391, 0.654503, 20.5482, -160.568, -92.6084, 54.7925
3.32799, 2, -37.039, 0.654503, 20.5482, -160.568, -92.6084, 54.7925
3.33605, 2, -37.0391, 0.654503, 20.5482, -160.568, -92.6084, 54.7925
3.34398, 2, -37.039, 0.654513, 20.5482, -160.568, -92.6085, 54.7925
3.35198, 2, -37.039, 0.654533, 20.5482, -160.568, -92.6085, 54.7925
3.36005, 2, -37.039, 0.654517, 20.5481, -160.567, -92.6084, 54.7926
3.36797, 2, -37.039, 0.654527, 20.5481, -160.567, -92.6084, 54.7926
3.37599, 2, -37.0389, 0.654514, 20.5481, -160.567, -92.6084, 54.7927
3.38404, 2, -37.039, 0.654508, 20.5481, -160.567, -92.6084, 54.7927
3.39198, 2, -37.0389, 0.654523, 20.5481, -160.567, -92.6085, 54.7927
3.39999, 2, -37.0389, 0.654512, 20.5481, -160.567, -92.6085, 54.7927
3.40805, 2, -37.0389, 0.654536, 20.5481, -160.567, -92.6085, 54.7928
3.41599, 2, -37.0389, 0.654544, 20.5481, -160.567, -92.6085, 54.7928
3.42398, 2, -37.0389, 0.654521, 20.5481, -160.567, -92.6085, 54.7928
3.43208, 2, -37.0389, 0.65453, 20.5481, -160.567, -92.6085, 54.7928
3.43998, 2, -37.0389, 0.654544, 20.5481, -160.567, -92.6085, 54.7928
3.44799, 2, -37.0388, 0.654547, 20.548, -160.567, -92.6085, 54.7929
3.45614, 2, -37.0389, 0.654552, 20.548, -160.567, -92.6085, 54.7929
3.46357, 2, -37.0388, 0.654562, 20.548, -160.567, -92.6086, 54.7929
3.47208, 2, -37.0388, 0.654537, 20.548, -160.567, -92.6086, 54.7929
3.48014, 2, -37.0388, 0.654537, 20.548, -160.567, -92.6085, 54.793
3.48761, 2, -37.0388, 0.654537, 20.548, -160.567, -92.6086, 54.793
3.49612, 2, -37.0387, 0.654518, 20.548, -160.567, -92.6086, 54.793
3.50415, 2, -37.0387, 0.654528, 20.548, -160.567, -92.6086, 54.793
3.51161, 2, -37.0387, 0.65452, 20.548, -160.567, -92.6086, 54.793
3.52009, 2, -37.0387, 0.654508, 20.548, -160.567, -92.6086, 54.793
3.52699, 2, -37.0387, 0.654517, 20.548, -160.567, -92.6086, 54.793
3.53612, 2, -37.0387, 0.654541, 20.548, -160.567, -92.6086, 54.793
3.54302, 2, -37.0387, 0.654551, 20.5479, -160.567, -92.6085, 54.793
3.55225, 2, -37.0387, 0.654553, 20.5479, -160.567, -92.6085, 54.7931
3.55899, 2, -37.0387, 0.654548, 20.5479, -160.567, -92.6085, 54.7931
3.56844, 2, -37.0387, 0.654563, 20.5479, -160.567, -92.6086, 54.7931
3.57649, 2, -37.0387, 0.654549, 20.5479, -160.567, -92.6085, 54.7931
3.5845, 2, -37.0387, 0.65456, 20.5479, -160.567, -92.6085, 54.7931
3.59248, 2, -37.0387, 0.654566, 20.5479, -160.567, -92.6085, 54.7931
3.60057, 2, -37.0387, 0.654557, 20.5479, -160.567, -92.6086, 54.7931
3.60862, 2, -37.0387, 0.654539, 20.5479, -160.567, -92.6086, 54.7931
3.6167, 2, -37.0386, 0.654545, 20.5479, -160.567, -92.6086, 54.7931
3.62459, 2, -37.0386, 0.65454, 20.5478, -160.567, -92.6087, 54.7931
3.63256, 2, -37.0386, 0.654557, 20.5478, -160.567, -92.6087, 54.7931
3.63997, 2, -37.0386, 0.654564, 20.5478, -160.567, -92.6087, 54.7931
3.64877, 2, -37.0385, 0.654568, 20.5478, -160.567, -92.6086, 54.7932
3.65496, 2, -37.0386, 0.654569, 20.5478, -160.567, -92.6086, 54.7932
3.66402, 2, -37.0386, 0.654552, 20.5478, -160.567, -92.6087, 54.7931
3.6721, 2, -37.0386, 0.654551, 20.5478, -160.567, -92.6087, 54.7931
3.67997, 2, -37.0386, 0.654561, 20.5478, -160.567, -92.6087, 54.7931
3.68801, 2, -37.0386, 0.654553, 20.5478, -160.567, -92.6086, 54.7932
3.69599, 2, -37.0386, 0.654544, 20.5478, -160.567, -92.6086, 54.7932
3.70396, 2, -37.0385, 0.654529, 20.5478, -160.567, -92.6086, 54.7932
3.71197, 2, -37.0385, 0.654544, 20.5478, -160.567, -92.6086, 54.7932
3.71998, 2, -37.0385, 0.654558, 20.5478, -160.567, -92.6086, 54.7932
3.72796, 2, -37.0385, 0.654546, 20.5478, -160.567, -92.6086, 54.7932
3.73612, 4, -37.0385, 0.654559, 20.5477, -160.567, -92.6087, 54.7932
3.74398, 4, -37.0385, 0.654565, 20.5477, -160.567, -92.6087, 54.7931
3.75197, 4, -37.0385, 0.654575, 20.5477, -160.567, -92.6087, 54.7932
3.76, 4, -37.0385, 0.654578, 20.5477, -160.567, -92.6087, 54.7932
3.76901, 4, -37.0385, 0.654593, 20.5477, -160.567, -92.6087, 54.7931
3.77597, 4, -37.0385, 0.654593, 20.5477, -160.567, -92.6086, 54.7931
3.784, 4, -37.0384, 0.654593, 20.5477, -160.567, -92.6086, 54.7932
3.792, 4, -37.0384, 0.654586, 20.5477, -160.567, -92.6086, 54.7932
3.80015, 4, -37.0385, 0.654577, 20.5477, -160.567, -92.6087, 54.7931
3.80699, 4, -37.0384, 0.654563, 20.5477, -160.567, -92.6087, 54.7932
3.81599, 4, -37.0384, 0.654572, 20.5477, -160.567, -92.6087, 54.7932
3.82396, 4, -37.0384, 0.654578, 20.5477, -160.567, -92.6087, 54.7932
3.83202, 4, -37.0384, 0.654591, 20.5477, -160.567, -92.6087, 54.7932
3.85765, 4, -37.0383, 0.654581, 20.5476, -160.567, -92.6086, 54.7932
3.86133, 4, -37.0383, 0.654585, 20.5476, -160.567, -92.6087, 54.7932
3.86405, 4, -37.0383, 0.654587, 20.5476, -160.567, -92.6087, 54.7932
3.86643, 4, -37.0383, 0.654587, 20.5476, -160.567, -92.6087, 54.7932
3.87219, 4, -37.0384, 0.654585, 20.5476, -160.567, -92.6087, 54.7932
3.88031, 4, -37.0383, 0.654553, 20.5476, -160.567, -92.6087, 54.7932
3.88817, 4, -37.0375, 0.654404, 20.5476, -160.567, -92.6087, 54.7932
3.89599, 4, -37.035, 0.65348, 20.5478, -160.567, -92.6087, 54.7932
3.90529, 4, -37.0292, 0.650581, 20.5486, -160.567, -92.6087, 54.7932
3.91384, 4, -37.0198, 0.644607, 20.5511, -160.567, -92.6087, 54.7932
3.91912, 4, -37.0063, 0.635038, 20.5565, -160.566, -92.6088, 54.7932
3.92726, 4, -36.9883, 0.621332, 20.5662, -160.564, -92.6088, 54.7932
3.93599, 5, -36.9644, 0.60306, 20.5817, -160.561, -92.6087, 54.7932
3.94402, 5, -36.9352, 0.580436, 20.6036, -160.557, -92.6085, 54.7931
3.95199, 5, -36.901, 0.553245, 20.6324, -160.551, -92.6081, 54.7931
3.96029, 5, -36.8621, 0.521703, 20.6679, -160.543, -92.6074, 54.793
3.96808, 5, -36.8181, 0.485277, 20.7093, -160.534, -92.6063, 54.793
3.9756, 5, -36.7689, 0.444387, 20.7556, -160.523, -92.6049, 54.7929
3.98461, 5, -36.7147, 0.399451, 20.8057, -160.512, -92.6032, 54.7929
3.99213, 5, -36.6563, 0.351213, 20.8584, -160.5, -92.6015, 54.7929
3.99973, 5, -36.6256, 0.300574, 20.9127, -160.488, -92.5998, 54.7929
4.00814, 5, -36.5282, 0.248109, 20.9679, -160.476, -92.598, 54.7929
4.01495, 5, -36.4946, 0.221464, 20.9956, -160.47, -92.5971, 54.7929
4.02401, 5, -36.3926, 0.140942, 21.0787, -160.451, -92.5943, 54.7929
4.03237, 5, -36.324, 0.0870135, 21.1342, -160.439, -92.5924, 54.7929
4.04016, 5, -36.2552, 0.0331232, 21.1896, -160.428, -92.5905, 54.793
4.04697, 5, -36.2207, 0.00625967, 21.2173, -160.422, -92.5895, 54.793
4.05647, 5, -36.1177, -0.074033, 21.3004, -160.403, -92.5866, 54.793
4.06528, 5, -36.049, -0.127282, 21.3557, -160.391, -92.5846, 54.7931
4.07096, 5, -36.0147, -0.153808, 21.3833, -160.384, -92.5836, 54.7932
4.08036, 5, -35.9118, -0.233127, 21.466, -160.365, -92.5806, 54.7935
4.08696, 5, -35.8775, -0.25948, 21.4936, -160.358, -92.5796, 54.7937
4.09654, 5, -35.7741, -0.338425, 21.5762, -160.339, -92.5766, 54.7944
4.10592, 5, -35.705, -0.391093, 21.631, -160.327, -92.5745, 54.7953
4.11117, 5, -35.6703, -0.417399, 21.6584, -160.32, -92.5736, 54.7958
4.12506, 5, -35.531, -0.522831, 21.7672, -160.295, -92.5695, 54.7981
4.1269, 5, -35.531, -0.522831, 21.7672, -160.295, -92.5695, 54.7981
4.13683, 5, -35.4609, -0.575607, 21.8485, -160.277, -92.5665, 54.8002
4.14499, 5, -35.3554, -0.654701, 21.9025, -160.264, -92.5644, 54.8018
4.15095, 5, -35.3201, -0.681061, 21.9295, -160.257, -92.5634, 54.8027
4.16012, 5, -35.2496, -0.733753, 21.9834, -160.244, -92.5613, 54.8045
4.167, 5, -35.179, -0.786097, 22.0371, -160.231, -92.5592, 54.8065
4.176, 5, -35.1084, -0.838293, 22.0907, -160.217, -92.5571, 54.8084
4.18418, 5, -35.0378, -0.890379, 22.1442, -160.204, -92.5549, 54.8107
4.19346, 5, -34.9321, -0.967922, 22.2243, -160.184, -92.5517, 54.8141
4.19995, 5, -34.8968, -0.993694, 22.2509, -160.178, -92.5506, 54.8153
4.20824, 5, -34.8263, -1.04506, 22.3041, -160.165, -92.5484, 54.8179
4.2151, 5, -34.7557, -1.09639, 22.357, -160.152, -92.5462, 54.8205
4.22396, 5, -34.6849, -1.14779, 22.4098, -160.14, -92.544, 54.8233
4.23202, 5, -34.614, -1.19905, 22.4625, -160.127, -92.5418, 54.8261
4.23997, 5, -34.543, -1.25038, 22.5148, -160.114, -92.5396, 54.8291
4.24797, 5, -34.4718, -1.3017, 22.5671, -160.1, -92.5374, 54.8322
4.25771, 5, -34.4003, -1.353, 22.6193, -160.079, -92.534, 54.8371
4.26312, 5, -34.3287, -1.40428, 22.6713, -160.072, -92.5328, 54.8388
4.27101, 5, -34.2569, -1.45549, 22.7231, -160.059, -92.5306, 54.8422
4.28072, 5, -34.185, -1.50653, 22.7749, -160.045, -92.5282, 54.8458
4.28695, 5, -34.113, -1.55735, 22.8265, -160.032, -92.5259, 54.8495
4.29596, 5, -34.041, -1.608, 22.878, -160.018, -92.5237, 54.8532
4.30681, 5, -33.9328, -1.68347, 22.9551, -159.998, -92.5202, 54.8592
4.31124, 5, -33.8967, -1.70854, 22.9807, -159.991, -92.519, 54.8612
4.32028, 5, -33.8245, -1.75855, 23.0318, -159.978, -92.5167, 54.8654
4.32704, 5, -33.7523, -1.80847, 23.0828, -159.964, -92.5144, 54.8696
4.33622, 5, -33.68, -1.85835, 23.1336, -159.95, -92.5121, 54.8738
4.34429, 5, -33.6075, -1.90815, 23.1841, -159.935, -92.5098, 54.8781
4.35104, 5, -33.5349, -1.95819, 23.2346, -159.921, -92.5076, 54.8823
4.35907, 5, -33.4621, -2.00851, 23.285, -159.907, -92.5053, 54.8862
4.36794, 5, -33.3894, -2.05921, 23.3354, -159.893, -92.5031, 54.8893
4.3763, 6, -33.3169, -2.11041, 23.3858, -159.879, -92.5005, 54.891
4.38382, 6, -33.2446, -2.16212, 23.4365, -159.864, -92.498, 54.8912
4.39254, 6, -33.1726, -2.21472, 23.4876, -159.85, -92.4949, 54.8895
4.39995, 6, -33.1011, -2.26821, 23.5393, -159.834, -92.4912, 54.8846
4.40811, 7, -33.03, -2.32268, 23.5919, -159.817, -92.4864, 54.8741
4.41593, 7, -32.9594, -2.3783, 23.6458, -159.799, -92.4802, 54.8601
4.42394, 7, -32.8892, -2.43517, 23.7007, -159.78, -92.4724, 54.8436
4.43528, 7, -32.7851, -2.52321, 23.7859, -159.748, -92.4571, 54.8174
4.4402, 7, -32.7507, -2.55332, 23.8149, -159.737, -92.4509, 54.8088
4.44811, 8, -32.6825, -2.61477, 23.8739, -159.715, -92.4372, 54.7919
4.45625, 8, -32.6149, -2.67781, 23.9342, -159.69, -92.4216, 54.7752
4.46386, 8, -32.5481, -2.7426, 23.9956, -159.665, -92.4041, 54.7581
4.47241, 8, -32.4819, -2.80899, 24.0579, -159.638, -92.3849, 54.7402
4.47949, 8, -32.4163, -2.87694, 24.1214, -159.61, -92.3641, 54.7209
4.48806, 8, -32.3514, -2.94628, 24.1857, -159.582, -92.3421, 54.6999
4.4964, 9, -32.3191, -3.01695, 24.2511, -159.553, -92.3191, 54.6771
4.50354, 9, -32.2551, -3.0528, 24.2842, -159.538, -92.2949, 54.6526
4.51229, 9, -32.16, -3.16227, 24.3849, -159.49, -92.2691, 54.6266
4.52087, 9, -32.0974, -3.23679, 24.4533, -159.458, -92.2415, 54.5995
4.52798, 9, -32.0353, -3.31265, 24.5226, -159.425, -92.2123, 54.571
4.53638, 10, -31.9738, -3.38981, 24.593, -159.391, -92.1822, 54.5407
4.54294, 10, -31.9433, -3.42895, 24.6286, -159.373, -92.1668, 54.5249
4.55212, 10, -31.8525, -3.54851, 24.737, -159.319, -92.1181, 54.4742
4.56035, 10, -31.7927, -3.6299, 24.8106, -159.282, -92.0831, 54.4386
4.57301, 11, -31.7041, -3.75479, 24.9226, -159.225, -92.0289, 54.3833
4.57635, 11, -31.6748, -3.79719, 24.9605, -159.205, -92.0104, 54.364
4.58595, 11, -31.6167, -3.88308, 25.0369, -159.165, -91.9722, 54.3239
4.59112, 11, -31.5879, -3.92654, 25.0754, -159.145, -91.9522, 54.3031
4.60054, 11, -31.502, -4.05917, 25.1926, -159.083, -91.8905, 54.2389
4.60852, 11, -31.4454, -4.14944, 25.2719, -159.04, -91.8482, 54.1947
4.61498, 12, -31.4173, -4.19514, 25.312, -159.018, -91.8263, 54.1719
4.62459, 12, -31.3337, -4.3343, 25.4339, -158.952, -91.758, 54.1004
4.6348, 12, -31.3061, -4.38139, 25.4751, -158.929, -91.7116, 54.0512
4.64081, 12, -31.2514, -4.52457, 25.6001, -158.86, -91.6633, 54.0006
4.64741, 12, -31.197, -4.57302, 25.6423, -158.836, -91.6385, 53.9747
4.65592, 13, -31.1433, -4.67099, 25.7274, -158.788, -91.5886, 53.921
4.66397, 13, -31.09, -4.77033, 25.8133, -158.739, -91.537, 53.8664
4.67198, 13, -31.0372, -4.87108, 25.9002, -158.69, -91.4834, 53.8107
4.67993, 13, -30.985, -4.97344, 25.9883, -158.639, -91.4295, 53.7528
4.68721, 13, -30.9333, -5.07724, 26.0775, -158.588, -91.3737, 53.6935
4.69522, 14, -30.8822, -5.18243, 26.1678, -158.535, -91.3165, 53.6334
4.70298, 14, -30.8316, -5.28905, 26.2591, -158.481, -91.2588, 53.5712
4.71211, 14, -30.7817, -5.3972, 26.3514, -158.428, -91.1985, 53.5077
4.71899, 14, -30.7321, -5.50681, 26.4445, -158.373, -91.1381, 53.4435
4.728, 14, -30.6831, -5.61799, 26.5385, -158.316, -91.0755, 53.377
4.7359, 15, -30.6346, -5.73062, 26.6337, -158.26, -91.0117, 53.3091
4.74395, 15, -30.5866, -5.84468, 26.73, -158.201, -90.9467, 53.2405
4.75093, 15, -30.5391, -5.95995, 26.8276, -158.143, -90.8799, 53.1696
4.76026, 15, -30.4921, -6.07657, 26.9261, -158.084, -90.8126, 53.098
4.76888, 15, -30.4456, -6.1947, 27.0256, -158.023, -90.743, 53.0246
4.77595, 15, -30.3996, -6.3142, 27.1259, -157.961, -90.6729, 52.9491
4.78471, 16, -30.3541, -6.43534, 27.2272, -157.898, -90.6005, 52.8731
4.79093, 16, -30.3092, -6.5579, 27.3297, -157.835, -90.5279, 52.7945
4.79995, 16, -30.2648, -6.68185, 27.4333, -157.771, -90.4532, 52.7154
4.81135, 16, -30.199, -6.87061, 27.5907, -157.673, -90.3391, 52.5933
4.81607, 16, -30.1773, -6.93431, 27.6437, -157.64, -90.3004, 52.5522
4.82392, 17, -30.1343, -7.06287, 27.7503, -157.573, -90.2222, 52.4689
4.83194, 17, -30.0917, -7.19305, 27.8576, -157.505, -90.1424, 52.384
4.84019, 17, -30.0497, -7.32467, 27.9661, -157.436, -90.0611, 52.2984
4.84899, 17, -30.0083, -7.45754, 28.0757, -157.367, -89.9788, 52.2104
4.85593, 17, -29.9673, -7.59178, 28.1866, -157.296, -89.8951, 52.122
4.86401, 18, -29.9269, -7.72749, 28.2985, -157.225, -89.8102, 52.0316
4.87193, 18, -29.8869, -7.86465, 28.4113, -157.152, -89.7237, 51.9405
4.87992, 18, -29.8474, -8.0032, 28.5248, -157.079, -89.6365, 51.8474
4.8881, 18, -29.8083, -8.14286, 28.6394, -157.005, -89.5476, 51.7533
4.89613, 18, -29.7697, -8.28393, 28.7552, -156.93, -89.4574, 51.6576
4.90301, 19, -29.7316, -8.42635, 28.8723, -156.854, -89.3665, 51.5613
4.91335, 19, -29.694, -8.5704, 28.9904, -156.777, -89.274, 51.4632
4.91945, 19, -29.6567, -8.71599, 29.1092, -156.7, -89.1801, 51.3644
4.92802, 19, -29.62, -8.86283, 29.2288, -156.621, -89.0854, 51.2644
4.93593, 19, -29.5837, -9.01092, 29.3493, -156.541, -88.9895, 51.1634
4.94394, 20, -29.548, -9.16054, 29.4711, -156.461, -88.8922, 51.0609
4.95213, 20, -29.5126, -9.31165, 29.5941, -156.38, -88.7943, 50.9573
4.95942, 20, -29.4777, -9.46432, 29.718, -156.298, -88.6952, 50.8526
4.96849, 20, -29.4433, -9.618, 29.8426, -156.215, -88.5947, 50.7465
4.97615, 20, -29.4094, -9.77285, 29.9682, -156.131, -88.4935, 50.6395
4.98352, 21, -29.376, -9.92913, 30.0948, -156.046, -88.391, 50.531
4.9925, 21, -29.3429, -10.0869, 30.2224, -155.96, -88.2872, 50.4217
4.99952, 21, -29.3265, -10.2462, 30.3511, -155.874, -88.1827, 50.3113
5.00848, 21, -29.2781, -10.4063, 30.4807, -155.787, -88.0771, 50.2001
5.01639, 21, -29.2463, -10.5675, 30.6111, -155.699, -87.9703, 50.0882
5.02423, 22, -29.215, -10.73, 30.7424, -155.609, -87.8627, 49.9751
5.03274, 22, -29.184, -10.8941, 30.8747, -155.519, -87.7539, 49.8613
5.04006, 22, -29.1534, -11.0592, 31.008, -155.428, -87.6443, 49.7467
5.04703, 22, -29.1383, -11.142, 31.0749, -155.383, -87.5891, 49.6888
5.05613, 22, -29.0934, -11.3924, 31.2772, -155.244, -87.4218, 49.5144
5.06306, 22, -29.0786, -11.4766, 31.3451, -155.197, -87.3657, 49.4557
5.07111, 23, -29.0494, -11.6463, 31.4814, -155.103, -87.2527, 49.3382
5.07899, 23, -29.0204, -11.8171, 31.6185, -155.009, -87.1386, 49.2197
5.08951, 23, -28.9777, -12.0748, 31.8257, -154.865, -86.9663, 49.0414
5.09734, 23, -28.9498, -12.2483, 31.9651, -154.768, -86.8499, 48.9215
5.10293, 23, -28.9359, -12.3357, 32.035, -154.72, -86.7915, 48.8613
5.11347, 24, -28.8949, -12.599, 32.2463, -154.572, -86.6147, 48.6804
5.119, 24, -28.8814, -12.687, 32.3171, -154.522, -86.5553, 48.6198
5.12856, 24, -28.8546, -12.9525, 32.5303, -154.372, -86.3762, 48.4366
5.13843, 24, -28.8152, -13.1315, 32.6738, -154.271, -86.2554, 48.3138
5.14479, 24, -28.7893, -13.3115, 32.8181, -154.169, -86.1343, 48.1907
5.1519, 25, -28.7765, -13.4016, 32.8905, -154.118, -86.0734, 48.129
5.15992, 25, -28.7511, -13.5824, 33.0357, -154.015, -85.9509, 48.0055
5.16993, 25, -28.7132, -13.8562, 33.2546, -153.859, -85.7663, 47.8201
5.17595, 25, -28.7007, -13.9481, 33.328, -153.807, -85.7042, 47.7582
5.18398, 25, -28.6759, -14.1324, 33.4755, -153.701, -85.5799, 47.6342
5.19213, 26, -28.6515, -14.3169, 33.6236, -153.595, -85.4549, 47.5104
5.19901, 26, -28.6273, -14.5026, 33.7722, -153.488, -85.3293, 47.3859
5.20796, 26, -28.6035, -14.6898, 33.9213, -153.38, -85.2033, 47.2616
5.21592, 26, -28.5799, -14.8776, 34.0714, -153.271, -85.0763, 47.1373
5.22398, 26, -28.5562, -15.0656, 34.2222, -153.162, -84.9491, 47.0131
5.23192, 27, -28.5328, -15.2542, 34.3734, -153.052, -84.8212, 46.8891
5.24008, 27, -28.5098, -15.4439, 34.5249, -152.942, -84.693, 46.7659
5.2469, 27, -28.4868, -15.634, 34.6773, -152.83, -84.5641, 46.6424
5.25591, 27, -28.4642, -15.8243, 34.8305, -152.718, -84.4347, 46.5193
5.26408, 27, -28.4418, -16.0157, 34.984, -152.605, -84.3051, 46.3966
5.27107, 28, -28.4195, -16.2088, 35.1375, -152.492, -84.175, 46.274
5.27991, 28, -28.3971, -16.4024, 35.2917, -152.378, -84.0446, 46.152
5.2891, 28, -28.375, -16.5963, 35.4467, -152.263, -83.9136, 46.0305
5.29509, 28, -28.353, -16.7911, 35.6022, -152.148, -83.7826, 45.9097
5.30378, 28, -28.3309, -16.9869, 35.7577, -152.032, -83.651, 45.7896
5.3127, 29, -28.3089, -17.1827, 35.9135, -151.915, -83.5195, 45.6706
5.31912, 29, -28.287, -17.3785, 36.07, -151.797, -83.3874, 45.5523
5.3269, 29, -28.2652, -17.5752, 36.2271, -151.679, -83.2551, 45.435
5.33935, 29, -28.2324, -17.8711, 36.4625, -151.501, -83.056, 45.2609
5.34411, 29, -28.2215, -17.9696, 36.541, -151.442, -82.9896, 45.2032
5.35211, 30, -28.2, -18.167, 36.6988, -151.322, -82.8566, 45.0892
5.35949, 30, -28.1784, -18.3653, 36.8571, -151.202, -82.7234, 44.9761
5.36808, 30, -28.1568, -18.5639, 37.0153, -151.081, -82.5903, 44.8643
5.37647, 30, -28.1353, -18.7625, 37.1734, -150.959, -82.4567, 44.7542
5.38304, 30, -28.1138, -18.9618, 37.3319, -150.837, -82.3233, 44.6454
5.39195, 30, -28.0921, -19.1622, 37.491, -150.715, -82.1892, 44.5385
5.39975, 31, -28.0704, -19.3627, 37.65, -150.592, -82.0556, 44.4325
5.40791, 31, -28.0488, -19.5631, 37.8088, -150.468, -81.9215, 44.3285
5.41616, 31, -28.0273, -19.7639, 37.9681, -150.344, -81.7876, 44.2261
5.42394, 31, -28.0057, -19.9652, 38.1282, -150.218, -81.6535, 44.125
5.43191, 31, -27.984, -20.1661, 38.2883, -150.093, -81.5192, 44.0255
5.43999, 32, -27.9624, -20.3669, 38.4481, -149.966, -81.3849, 43.9276
5.44792, 32, -27.9406, -20.5687, 38.6079, -149.84, -81.2506, 43.8317
5.45599, 32, -27.9184, -20.7708, 38.7683, -149.712, -81.1164, 43.7377
5.46432, 32, -27.8962, -20.9724, 38.9287, -149.584, -80.9822, 43.6463
5.47287, 32, -27.8738, -21.1738, 39.0885, -149.456, -80.8485, 43.5573
5.4801, 33, -27.8511, -21.3755, 39.2478, -149.328, -80.715, 43.4713
5.49018, 33, -27.828, -21.5766, 39.4073, -149.2, -80.5822, 43.3885
5.49592, 33, -27.8044, -21.7766, 39.5664, -149.071, -80.4495, 43.3088
5.50402, 33, -27.7803, -21.9764, 39.7245, -148.943, -80.3178, 43.2329
5.51154, 33, -27.768, -22.0764, 39.8031, -148.88, -80.1862, 43.16
5.52013, 34, -27.7306, -22.3747, 40.0386, -148.688, -80.0553, 43.0912
5.52691, 34, -27.7178, -22.4734, 40.117, -148.624, -79.9899, 43.058
5.53594, 34, -27.6788, -22.7692, 40.3513, -148.432, -79.7937, 42.9624
5.54507, 34, -27.6522, -22.966, 40.5064, -148.305, -79.6631, 42.9035
5.55223, 34, -27.625, -23.1619, 40.6616, -148.177, -79.5324, 42.8474
5.559, 35, -27.6113, -23.2596, 40.7392, -148.112, -79.4671, 42.8204
5.5683, 35, -27.5698, -23.5532, 40.9716, -147.92, -79.2711, 42.7451
5.57494, 35, -27.5558, -23.6511, 41.0488, -147.855, -79.206, 42.7219
5.58441, 35, -27.5134, -23.9439, 41.2799, -147.661, -79.0106, 42.6568
5.59278, 35, -27.4849, -24.1385, 41.4341, -147.531, -78.8807, 42.6173
5.60082, 36, -27.456, -24.3334, 41.588, -147.401, -78.7508, 42.5819
5.60849, 36, -27.4267, -24.5277, 41.7412, -147.27, -78.6213, 42.5507
5.61691, 36, -27.3971, -24.7209, 41.8938, -147.14, -78.4923, 42.5238
5.62674, 36, -27.367, -24.9139, 42.0464, -147.009, -78.3635, 42.5011
5.63251, 36, -27.3517, -25.0105, 42.1225, -146.878, -78.2355, 42.4827
5.63988, 37, -27.3204, -25.2032, 42.2739, -146.812, -78.1715, 42.4753
5.64791, 37, -27.2882, -25.3945, 42.424, -146.682, -78.0439, 42.4638
5.65595, 37, -27.2554, -25.5847, 42.5732, -146.552, -77.9169, 42.4571
5.66406, 37, -27.2217, -25.7744, 42.7217, -146.422, -77.7902, 42.4541
5.6734, 37, -27.1871, -25.9628, 42.9423, -146.229, -77.6012, 42.4558
5.6789, 37, -27.1515, -26.1494, 43.0152, -146.165, -77.5383, 42.4595
5.68792, 38, -27.115, -26.3345, 43.1599, -146.038, -77.4133, 42.4716
5.6949, 38, -27.0778, -26.519, 43.3037, -145.911, -77.2887, 42.4888
5.70391, 38, -27.0397, -26.7024, 43.4468, -145.784, -77.1647, 42.5117
5.71442, 38, -26.9809, -26.9746, 43.6595, -145.595, -76.9795, 42.5565
5.72012, 38, -26.961, -27.065, 43.7299, -145.532, -76.918, 42.5744
5.7303, 39, -26.9002, -27.3359, 43.9399, -145.343, -76.7341, 42.6374
5.7349, 39, -26.8796, -27.4257, 44.0096, -145.28, -76.6727, 42.6613
5.74405, 39, -26.8376, -27.6042, 44.1483, -145.154, -76.5504, 42.7129
5.75481, 39, -26.7734, -27.8709, 44.3547, -144.966, -76.3668, 42.8022
5.75996, 39, -26.7516, -27.9598, 44.423, -144.903, -76.3057, 42.8352
5.7679, 40, -26.7073, -28.1366, 44.5588, -144.778, -76.1835, 42.9051
5.7769, 40, -26.6619, -28.3117, 44.6938, -144.653, -76.0613, 42.9819
5.78397, 40, -26.6157, -28.4855, 44.8276, -144.529, -75.9398, 43.0651
5.79304, 40, -26.5686, -28.6584, 44.96, -144.406, -75.8183, 43.1542
5.79909, 40, -26.5203, -28.83, 45.0911, -144.284, -75.6976, 43.2507
5.80791, 41, -26.4709, -28.9996, 45.2207, -144.162, -75.5772, 43.3534
5.81594, 41, -26.4204, -29.1674, 45.3488, -144.041, -75.4571, 43.4632
5.82397, 41, -26.3686, -29.334, 45.4756, -143.922, -75.3379, 43.5795
5.8319, 41, -26.3155, -29.4993, 45.6008, -143.803, -75.2188, 43.7029
5.84012, 41, -26.2611, -29.6625, 45.7243, -143.686, -75.1006, 43.8334
5.84811, 42, -26.2052, -29.8238, 45.8459, -143.57, -74.9827, 43.9713
5.85591, 42, -26.1479, -29.9833, 45.9657, -143.456, -74.8651, 44.1165
5.86489, 42, -26.089, -30.1412, 46.0835, -143.343, -74.7484, 44.2687
5.8719, 42, -26.0285, -30.2969, 46.1993, -143.232, -74.6319, 44.4282
5.87993, 42, -25.9666, -30.4502, 46.3131, -143.122, -74.516, 44.595
5.88889, 43, -25.903, -30.6013, 46.4248, -143.015, -74.4006, 44.7689
5.89584, 43, -25.8377, -30.7503, 46.5344, -142.909, -74.2856, 44.9509
5.9039, 43, -25.7708, -30.8972, 46.6419, -142.805, -74.171, 45.1405
5.91527, 43, -25.6673, -31.113, 46.7994, -142.652, -73.9998, 45.4393
5.92012, 43, -25.632, -31.1838, 46.851, -142.603, -73.943, 45.5426
5.92811, 44, -25.5601, -31.3237, 46.9526, -142.504, -73.8297, 45.7554
5.93598, 44, -25.4866, -31.4614, 47.0519, -142.408, -73.7167, 45.9759
5.94359, 44, -25.411, -31.597, 47.1488, -142.314, -73.6043, 46.2047
5.95212, 44, -25.3337, -31.7301, 47.2432, -142.222, -73.4923, 46.4414
5.95934, 44, -25.2545, -31.8604, 47.3352, -142.133, -73.3808, 46.6864
5.96744, 44, -25.1735, -31.988, 47.4248, -142.047, -73.2701, 46.9394
5.97628, 45, -25.0906, -32.1129, 47.512, -141.963, -73.1597, 47.2013
5.98346, 45, -25.0055, -32.2351, 47.5966, -141.882, -73.0504, 47.4714
5.99228, 45, -24.9185, -32.3545, 47.6782, -141.804, -72.9416, 47.7495
6.00043, 45, -24.8294, -32.4707, 47.7568, -141.73, -72.8335, 48.0358
6.00799, 45, -24.7378, -32.5839, 47.8324, -141.657, -72.7263, 48.3309
6.01612, 46, -24.6441, -32.6937, 47.9051, -141.59, -72.6198, 48.6346
6.0229, 46, -24.5964, -32.7474, 47.9403, -141.557, -72.5668, 48.7896
6.03194, 46, -24.4494, -32.9035, 48.0415, -141.464, -72.4096, 49.267
6.04034, 46, -24.3487, -33.0029, 48.1049, -141.406, -72.3056, 49.5965
6.04905, 46, -24.2456, -33.0987, 48.1649, -141.352, -72.203, 49.934
6.05609, 47, -24.1402, -33.1907, 48.2213, -141.304, -72.1012, 50.2796
6.06544, 47, -24.0323, -33.2784, 48.2741, -141.258, -72.0003, 50.6338
6.07094, 47, -23.9773, -33.3208, 48.2991, -141.237, -71.9504, 50.814
6.08056, 47, -23.8083, -33.4418, 48.3685, -141.181, -71.8023, 51.3672
6.08832, 47, -23.6921, -33.5171, 48.4098, -141.149, -71.7049, 51.7468
6.09671, 48, -23.5732, -33.588, 48.4471, -141.122, -71.6093, 52.1347
6.10454, 48, -23.4517, -33.6544, 48.4801, -141.099, -71.5152, 52.531
6.11244, 48, -23.3277, -33.716, 48.509, -141.081, -71.4225, 52.9367
6.12054, 48, -23.2012, -33.7727, 48.5339, -141.068, -71.3322, 53.3508
6.12852, 48, -23.1369, -33.8243, 48.5542, -141.061, -71.2437, 53.7737
6.13642, 49, -23.0061, -33.8482, 48.5627, -141.059, -71.2002, 54.2049
6.14477, 49, -22.8725, -33.9118, 48.5816, -141.06, -71.0724, 54.6433
6.15149, 49, -22.7358, -33.9302, 48.5856, -141.063, -71.031, 54.8656
6.15896, 49, -22.5962, -33.9628, 48.59, -141.074, -70.9495, 55.3158
6.16808, 49, -22.4538, -33.9897, 48.5902, -141.091, -70.8703, 55.7735
6.17485, 50, -22.3086, -34.0106, 48.5854, -141.115, -70.7933, 56.2395
6.18393, 50, -22.1608, -34.0254, 48.5756, -141.144, -70.7195, 56.7122
6.19191, 50, -22.0103, -34.0338, 48.5606, -141.179, -70.6481, 57.193
6.19989, 50, -21.8569, -34.0362, 48.5405, -141.22, -70.5802, 57.682
6.20799, 50, -21.7004, -34.0325, 48.5149, -141.269, -70.515, 58.1782
6.21607, 51, -21.5408, -34.022, 48.4837, -141.322, -70.4542, 58.6814
6.22312, 51, -21.3783, -34.0048, 48.4473, -141.382, -70.396, 59.1904
6.23194, 51, -21.2133, -33.9808, 48.4054, -141.449, -70.3419, 59.7059
6.24214, 51, -21.0456, -33.9497, 48.3579, -141.521, -70.2915, 60.4896
6.24973, 51, -20.8755, -33.9116, 48.305, -141.6, -70.2442, 61.0187
6.25608, 52, -20.7029, -33.8661, 48.2462, -141.685, -70.2015, 61.2852
6.27055, 52, -20.3496, -33.7519, 48.1111, -141.874, -70.1302, 62.3668
6.27249, 52, -20.3496, -33.7519, 48.1111, -141.874, -70.1302, 62.3668
6.28294, 52, -20.0773, -33.6452, 47.9938, -142.032, -70.0885, 63.1942
6.28687, 52, -19.9853, -33.6055, 47.9516, -142.088, -70.0773, 63.4728
6.29588, 52, -19.7994, -33.5198, 47.8623, -142.204, -70.0589, 64.0351
6.30388, 53, -19.6113, -33.4254, 47.7667, -142.327, -70.0462, 64.6036
6.31195, 53, -19.4212, -33.3225, 47.6648, -142.456, -70.0391, 65.178
6.32006, 53, -19.229, -33.2115, 47.5567, -142.592, -70.037, 65.7568
6.3303, 53, -19.0348, -33.0292, 47.3829, -142.805, -70.0442, 66.6341
6.33496, 53, -18.8389, -32.9641, 47.3219, -142.879, -70.0499, 66.9282
6.34721, 54, -18.5413, -32.7565, 47.13, -143.108, -70.0762, 67.8129
6.35208, 54, -18.4412, -32.6831, 47.0632, -143.186, -70.0883, 68.1083
6.36014, 54, -18.2394, -32.5302, 46.9256, -143.346, -70.1177, 68.7003
6.3679, 54, -18.0361, -32.3691, 46.7825, -143.511, -70.153, 69.2931
6.37523, 54, -17.8319, -32.1993, 46.6337, -143.68, -70.1945, 69.8866
6.38398, 55, -17.6269, -32.0203, 46.4789, -143.853, -70.244, 70.4822
6.39189, 55, -17.4207, -31.8322, 46.3181, -144.031, -70.3009, 71.0814
6.39995, 55, -17.213, -31.635, 46.1511, -144.214, -70.3653, 71.6848
6.40789, 55, -17.0036, -31.4276, 45.9767, -144.402, -70.439, 72.2918
6.41588, 55, -16.7926, -31.2096, 45.7949, -144.594, -70.5207, 72.9038
6.42423, 56, -16.5799, -30.9813, 45.6065, -144.792, -70.6122, 73.5207
6.43318, 56, -16.3656, -30.7425, 45.4112, -144.994, -70.7123, 74.1415
6.43989, 56, -16.1507, -30.4924, 45.2077, -145.2, -70.8219, 74.7649
6.44797, 56, -15.9356, -30.2316, 44.9971, -145.41, -70.9412, 75.3921
6.4562, 56, -15.7207, -29.9601, 44.7805, -145.623, -71.0698, 76.0217
6.46329, 57, -15.5048, -29.6775, 44.5563, -145.84, -71.2084, 76.6525
6.47238, 57, -15.2877, -29.3848, 44.3251, -146.059, -71.3567, 77.2847
6.47939, 57, -15.0695, -29.0813, 44.0876, -146.281, -71.5153, 77.9186
6.48822, 57, -14.851, -28.7686, 43.8432, -146.504, -71.6834, 78.552
6.49546, 57, -14.6329, -28.4475, 43.5938, -146.729, -71.8612, 79.1835
6.5042, 58, -14.4155, -28.1185, 43.34, -146.954, -72.0474, 79.8129
6.513, 58, -14.1993, -27.7821, 43.0818, -147.177, -72.2413, 80.4376
6.51998, 58, -13.9847, -27.4379, 42.8212, -147.4, -72.4425, 81.0554
6.5285, 58, -13.7718, -27.0872, 42.5576, -147.62, -72.6502, 81.6661
6.53597, 58, -13.5603, -26.73, 42.2916, -147.838, -72.8645, 82.2701
6.54433, 59, -13.35, -26.3664, 42.0229, -148.054, -73.0855, 82.868
6.55095, 59, -13.2455, -26.1817, 41.887, -148.161, -73.1987, 83.1642
6.55885, 59, -13.0379, -25.8076, 41.6129, -148.373, -73.4307, 83.7533
6.57121, 59, -12.7293, -25.2338, 41.1947, -148.69, -73.7941, 84.6302
6.57502, 59, -12.6269, -25.0393, 41.0533, -148.794, -73.9195, 84.9209
6.58295, 59, -12.4229, -24.6439, 40.7676, -149.002, -74.1774, 85.4996
6.59312, 60, -12.1189, -24.0365, 40.3304, -149.311, -74.581, 86.3618
6.59904, 60, -12.0184, -23.8305, 40.183, -149.414, -74.72, 86.6478
6.60828, 60, -11.8182, -23.2027, 39.7352, -149.717, -75.1501, 87.5004
6.61491, 60, -11.6197, -22.9905, 39.5849, -149.817, -75.2976, 87.7818
6.62453, 60, -11.3261, -22.3466, 39.1311, -150.11, -75.7504, 88.6185
6.63248, 61, -11.2294, -21.9127, 38.8275, -150.301, -76.0598, 89.1676
6.64054, 61, -11.0377, -21.694, 38.5227, -150.488, -76.3738, 89.7079
6.64873, 61, -10.8482, -21.2543, 38.2185, -150.668, -76.6918, 90.2378
6.65501, 61, -10.6611, -20.8111, 38.0665, -150.757, -76.8524, 90.4994
6.66288, 61, -10.4763, -20.3645, 37.7623, -150.93, -77.1762, 91.0155
6.67187, 62, -10.2941, -19.9145, 37.4586, -151.098, -77.5043, 91.5226
6.67993, 62, -10.1148, -19.4611, 37.1542, -151.261, -77.8372, 92.0214
6.68791, 62, -9.93799, -19.0052, 36.8495, -151.42, -78.1754, 92.5123
6.69833, 62, -9.67779, -18.3162, 36.39, -151.65, -78.6932, 93.2363
6.70418, 62, -9.59217, -18.0854, 36.2367, -151.724, -78.8685, 93.474
6.71353, 63, -9.33848, -17.3902, 35.7759, -151.941, -79.4022, 94.1755
6.7199, 63, -9.25499, -17.1576, 35.6229, -152.011, -79.5824, 94.4046
6.72999, 63, -9.0081, -16.4571, 35.1648, -152.212, -80.1281, 95.0781
6.73586, 63, -8.92711, -16.2228, 35.0127, -152.276, -80.3115, 95.2976
6.744, 63, -8.76711, -15.7528, 34.7097, -152.401, -80.6799, 95.7282
6.75201, 64, -8.60976, -15.2819, 34.4085, -152.52, -81.0503, 96.1485
6.75897, 64, -8.45509, -14.8106, 34.1101, -152.633, -81.4224, 96.557
6.76794, 64, -8.30302, -14.3388, 33.8129, -152.741, -81.7962, 96.9541
6.77687, 64, -8.15343, -13.8675, 33.5179, -152.844, -82.1719, 97.3406
6.78401, 64, -8.00634, -13.3972, 33.2245, -152.941, -82.5491, 97.7149
6.79292, 65, -7.8618, -12.9281, 32.9336, -153.032, -82.9281, 98.0773
6.80009, 65, -7.71991, -12.4609, 32.645, -153.118, -83.3082, 98.4278
6.80804, 65, -7.58081, -11.9949, 32.3593, -153.198, -83.6892, 98.7652
6.81587, 65, -7.44482, -11.5305, 32.0774, -153.272, -84.0707, 99.0889
6.82501, 65, -7.31147, -11.0669, 31.7983, -153.341, -84.4527, 99.3996
6.83101, 65, -7.18109, -10.6045, 31.5229, -153.404, -84.8352, 99.6965
6.83987, 66, -7.05295, -10.1442, 31.25, -153.461, -85.2177, 99.979
6.85073, 66, -6.86457, -9.45985, 30.8473, -153.537, -85.7924, 100.375
6.85597, 66, -6.80279, -9.23394, 30.7148, -153.56, -85.9838, 100.499
6.86394, 66, -6.68084, -8.78646, 30.4519, -153.601, -86.3658, 100.735
6.87183, 67, -6.56128, -8.34449, 30.194, -153.637, -86.7454, 100.955
6.88004, 67, -6.44427, -7.90893, 29.9413, -153.667, -87.1212, 101.157
6.89093, 67, -6.27434, -7.26699, 29.5747, -153.7, -87.6753, 101.426
6.89596, 67, -6.21914, -7.05586, 29.4563, -153.709, -87.8569, 101.507
6.90408, 67, -6.11068, -6.63835, 29.2245, -153.721, -88.2152, 101.656
6.91188, 67, -6.00477, -6.22783, 28.9995, -153.728, -88.5675, 101.786
6.91993, 68, -5.901, -5.82428, 28.7811, -153.731, -88.9147, 101.899
6.92852, 68, -5.79905, -5.42709, 28.5674, -153.73, -89.2579, 101.995
6.93586, 68, -5.69879, -5.03622, 28.3578, -153.723, -89.5984, 102.073
6.94403, 68, -5.60027, -4.65097, 28.1524, -153.712, -89.9372, 102.134
6.95286, 68, -5.50339, -4.27129, 27.95, -153.697, -90.2747, 102.176
6.96194, 69, -5.40827, -3.89529, 27.7507, -153.678, -90.6115, 102.2
6.96741, 69, -5.3149, -3.52319, 27.556, -153.654, -90.9477, 102.209
6.97781, 69, -5.2231, -3.15442, 27.365, -153.625, -91.2832, 102.197
6.98346, 69, -5.13333, -2.78961, 27.1768, -153.593, -91.6181, 102.164
6.99203, 69, -5.04504, -2.42736, 26.9923, -153.556, -91.9524, 102.11
6.99997, 70, -4.95819, -2.06838, 26.8117, -153.517, -92.2858, 102.033
7.00812, 70, -4.87253, -1.71316, 26.6342, -153.472, -92.6187, 101.935
7.01615, 70, -4.78801, -1.36289, 26.4596, -153.425, -92.9507, 101.814
7.02286, 70, -4.74609, -1.18968, 26.374, -153.4, -93.1163, 101.745
7.03216, 70, -4.62191, -0.677665, 26.1233, -153.32, -93.6106, 101.505
7.03997, 71, -4.54042, -0.344006, 25.9605, -153.263, -93.937, 101.318
7.04883, 71, -4.45999, -0.0165777, 25.8023, -153.204, -94.2604, 101.109
7.05603, 71, -4.38057, 0.304124, 25.6498, -153.141, -94.5799, 100.88
7.0629, 71, -4.34118, 0.462482, 25.5755, -153.109, -94.738, 100.757
7.07086, 71, -4.26305, 0.774899, 25.4305, -153.044, -95.0513, 100.497
7.08051, 72, -4.1474, 1.23088, 25.2217, -152.942, -95.5138, 100.069
7.0901, 72, -4.07084, 1.52664, 25.0877, -152.872, -95.8178, 99.7586
7.0964, 72, -3.99464, 1.8152, 24.9574, -152.801, -96.1191, 99.4266
7.10517, 72, -3.91855, 2.0977, 24.8301, -152.728, -96.4183, 99.0735
7.11093, 72, -3.8805, 2.23655, 24.7676, -152.692, -96.567, 98.8889
7.12043, 72, -3.76653, 2.6433, 24.5847, -152.582, -97.0097, 98.302
7.12945, 73, -3.69061, 2.90679, 24.4668, -152.508, -97.3012, 97.8835
7.13793, 73, -3.61436, 3.16345, 24.3527, -152.434, -97.5896, 97.4436
7.14574, 73, -3.53792, 3.41363, 24.2427, -152.361, -97.8743, 96.9828
7.1543, 73, -3.46116, 3.6574, 24.1368, -152.288, -98.1547, 96.5028
7.16077, 73, -3.42264, 3.77632, 24.0352, -152.217, -98.4308, 96.0036
7.16785, 74, -3.34501, 4.00762, 23.986, -152.182, -98.5669, 95.7476
7.17493, 74, -3.26673, 4.23055, 23.8905, -152.112, -98.8351, 95.2232
7.18386, 74, -3.18779, 4.44473, 23.799, -152.045, -99.0975, 94.6844
7.19086, 74, -3.10804, 4.64914, 23.7117, -151.979, -99.3536, 94.133
7.19986, 74, -3.02765, 4.84387, 23.6286, -151.915, -99.6028, 93.5692
7.2081, 75, -2.94634, 5.02938, 23.5497, -151.854, -99.8444, 92.9948
7.21734, 75, -2.82253, 5.28865, 23.4387, -151.769, -100.191, 92.1163
7.22288, 75, -2.78081, 5.36966, 23.4036, -151.741, -100.303, 91.8192
7.23201, 75, -2.6967, 5.52394, 23.3363, -151.689, -100.519, 91.2187
7.23969, 75, -2.61173, 5.66767, 23.2729, -151.641, -100.725, 90.6104
7.24792, 76, -2.52574, 5.8002, 23.2137, -151.595, -100.923, 89.9946
7.2565, 76, -2.43877, 5.92136, 23.1589, -151.554, -101.112, 89.3701
7.26285, 76, -2.35093, 6.03082, 23.1084, -151.517, -101.291, 88.7363
7.27185, 76, -2.26235, 6.12806, 23.0623, -151.483, -101.461, 88.0951
7.28086, 76, -2.173, 6.21266, 23.0209, -151.453, -101.62, 87.4481
7.28799, 77, -2.08271, 6.28426, 22.9847, -151.427, -101.768, 86.7956
7.29586, 77, -1.99158, 6.34261, 22.9537, -151.405, -101.903, 86.1421
7.30646, 77, -1.8531, 6.40435, 22.9178, -151.38, -102.08, 85.166
7.31191, 77, -1.80651, 6.41784, 22.9087, -151.374, -102.132, 84.8419
7.31985, 77, -1.7127, 6.43421, 22.8949, -151.364, -102.224, 84.1967
7.32784, 78, -1.61807, 6.43607, 22.8869, -151.358, -102.302, 83.5567
7.33601, 78, -1.52276, 6.4227, 22.8844, -151.354, -102.364, 82.921
7.34391, 78, -1.42689, 6.39398, 22.8874, -151.354, -102.411, 82.2887
7.35186, 78, -1.3306, 6.34963, 22.8965, -151.356, -102.442, 81.6607
7.36013, 78, -1.23396, 6.28912, 22.9116, -151.363, -102.457, 81.038
7.36782, 79, -1.13709, 6.21236, 22.9334, -151.373, -102.456, 80.42
7.37587, 79, -1.04014, 6.11938, 22.9622, -151.386, -102.438, 79.8079
7.38388, 79, -0.943014, 6.01024, 22.9984, -151.402, -102.401, 79.2035
7.39195, 79, -0.846021, 5.88493, 23.0422, -151.421, -102.347, 78.6077
7.39986, 79, -0.749011, 5.74314, 23.0937, -151.443, -102.275, 78.0208
7.40782, 80, -0.652041, 5.58495, 23.1528, -151.468, -102.185, 77.444
7.41594, 80, -0.555056, 5.41031, 23.2194, -151.494, -102.076, 76.8786
7.42385, 80, -0.457985, 5.21933, 23.2939, -151.522, -101.949, 76.3249
7.43584, 80, -0.312673, 4.90158, 23.4207, -151.566, -101.723, 75.5148
7.43948, 80, -0.264244, 4.78667, 23.467, -151.582, -101.639, 75.2501
7.44785, 80, -0.167547, 4.5433, 23.5661, -151.615, -101.456, 74.7292
7.45602, 81, -0.0710338, 4.28335, 23.6737, -151.648, -101.254, 74.2189
7.4641, 81, 0.0252513, 4.00682, 23.7903, -151.682, -101.033, 73.7173
7.47297, 81, 0.121324, 3.71367, 23.9161, -151.717, -100.794, 73.2253
7.47993, 81, 0.217251, 3.4041, 24.0514, -151.754, -100.535, 72.7423
7.48836, 81, 0.312904, 3.07714, 24.1967, -151.791, -100.257, 72.2691
7.49647, 82, 0.40835, 2.73379, 24.3516, -151.828, -99.9606, 71.805
7.50485, 82, 0.503558, 2.37389, 24.5154, -151.865, -99.6448, 71.3502
7.51197, 82, 0.598544, 1.99821, 24.6887, -151.902, -99.3107, 70.9049
7.51985, 82, 0.693392, 1.60589, 24.8717, -151.939, -98.9591, 70.4693
7.52806, 82, 0.788205, 1.19698, 25.0639, -151.974, -98.5897, 70.044
7.53666, 83, 0.88299, 0.772272, 25.2654, -152.01, -98.2037, 69.6283
7.54663, 83, 0.977628, 0.332627, 25.4775, -152.045, -97.8011, 69.2223
7.55086, 83, 1.02497, 0.107319, 25.5875, -152.062, -97.5939, 69.0231
7.56637, 83, 1.21466, -0.830988, 26.0499, -152.126, -96.7247, 68.2487
7.56905, 83, 1.26215, -1.07482, 26.1717, -152.141, -96.4977, 68.061
7.57642, 84, 1.35738, -1.57306, 26.4229, -152.171, -96.0313, 67.6918
7.58285, 84, 1.40507, -1.8275, 26.5523, -152.186, -95.7922, 67.5101
7.59227, 84, 1.54852, -2.61049, 26.9566, -152.227, -95.0523, 66.9764
7.60038, 84, 1.64455, -3.14943, 27.2385, -152.252, -94.5391, 66.63
7.60838, 84, 1.74092, -3.70189, 27.5313, -152.275, -94.0114, 66.2904
7.61849, 85, 1.83776, -4.26779, 27.834, -152.297, -93.4685, 65.9581
7.623, 85, 1.88618, -4.55519, 27.989, -152.307, -93.1917, 65.7952
7.63094, 85, 1.98342, -5.13804, 28.3065, -152.327, -92.6271, 65.4755
7.64044, 85, 2.08109, -5.73119, 28.633, -152.351, -91.7588, 65.0111
7.65512, 86, 2.27795, -6.94313, 29.3126, -152.369, -90.8677, 64.5671
7.65799, 86, 2.32759, -7.2507, 29.4877, -152.374, -90.5658, 64.4241
7.66391, 86, 2.37738, -7.55996, 29.6644, -152.378, -90.2616, 64.2835
7.67185, 86, 2.47762, -8.18279, 30.0231, -152.383, -89.6466, 64.0102
7.67984, 86, 2.57892, -8.81169, 30.3882, -152.386, -89.0236, 63.7478
7.68688, 86, 2.6809, -9.44594, 30.7586, -152.387, -88.3961, 63.497
7.69777, 87, 2.83607, -10.4053, 31.3247, -152.382, -87.4461, 63.1424
7.70618, 87, 2.94054, -11.0489, 31.7085, -152.374, -86.806, 62.9208
7.7119, 87, 2.99311, -11.3718, 31.9021, -152.368, -86.4841, 62.8145
7.71986, 87, 3.09908, -12.0197, 32.2926, -152.355, -85.8365, 62.6113
7.72784, 87, 3.20592, -12.67, 32.6879, -152.337, -85.1845, 62.4209
7.73584, 87, 3.31335, -13.3231, 33.0884, -152.315, -84.5291, 62.2432
7.74389, 88, 3.42157, -13.9791, 33.4942, -152.29, -83.8679, 62.0783
7.75099, 88, 3.53029, -14.6375, 33.9047, -152.261, -83.2014, 61.9267
7.75966, 88, 3.63943, -15.2972, 34.3206, -152.228, -82.5296, 61.7887
7.76791, 88, 3.74907, -15.9571, 34.7413, -152.189, -81.8529, 61.6649
7.77584, 88, 3.85904, -16.6161, 35.1658, -152.146, -81.1742, 61.5562
7.78484, 89, 3.96924, -17.273, 35.5936, -152.099, -80.494, 61.4643
7.79083, 89, 4.07983, -17.9272, 36.0228, -152.046, -79.8135, 61.3902
7.80707, 89, 4.30218, -19.2251, 36.8816, -151.926, -78.454, 61.2984
7.80893, 89, 4.30218, -19.2251, 36.8816, -151.926, -78.454, 61.2984
7.81603, 89, 4.41388, -19.8678, 37.3096, -151.857, -77.7798, 61.282
7.82386, 90, 4.52585, -20.5057, 37.7361, -151.784, -77.1096, 61.2861
7.83187, 90, 4.63845, -21.139, 38.162, -151.705, -76.4412, 61.3141
7.83986, 90, 4.75109, -21.7674, 38.5874, -151.62, -75.7738, 61.3654
7.84785, 90, 4.8634, -22.3914, 39.0126, -151.53, -75.1079, 61.4401
7.85816, 90, 4.97541, -23.0114, 39.4382, -151.434, -74.4446, 61.6011
7.86402, 91, 5.08692, -23.628, 39.8637, -151.331, -73.782, 61.6679
7.87187, 91, 5.19824, -24.2408, 40.2893, -151.222, -73.1187, 61.823
7.87984, 91, 5.30906, -24.8488, 40.7149, -151.106, -72.4554, 62.0068
7.88791, 91, 5.41919, -25.4517, 41.1396, -150.983, -71.7916, 62.2203
7.8959, 91, 5.52878, -26.048, 41.5632, -150.854, -71.1283, 62.464
7.90387, 92, 5.63793, -26.6366, 41.9849, -150.718, -70.4679, 62.7388
7.91087, 92, 5.74725, -27.217, 42.4039, -150.577, -69.8098, 63.0451
7.91983, 92, 5.85721, -27.7884, 42.8187, -150.43, -69.1548, 63.3817
7.92792, 92, 5.96782, -28.3502, 43.2279, -150.278, -68.5038, 63.7493
7.93584, 92, 6.0792, -28.9014, 43.6313, -150.123, -67.8573, 64.1483
7.94385, 92, 6.19174, -29.4413, 44.0283, -149.964, -67.2177, 64.5778
7.95191, 93, 6.30585, -29.97, 44.4183, -149.803, -66.5838, 65.0393
7.96586, 93, 6.48092, -30.7431, 44.9918, -149.559, -65.6409, 65.7901
7.96809, 93, 6.54041, -30.9965, 45.18, -149.477, -65.3282, 66.057
7.976, 93, 6.66097, -31.4987, 45.5531, -149.313, -64.7042, 66.6172
7.98394, 93, 6.78382, -31.9952, 45.9216, -149.148, -64.0812, 67.2166
7.99197, 94, 6.90868, -32.4871, 46.2874, -148.983, -63.4553, 67.8596
8, 94, 7.03539, -32.9743, 46.6511, -148.817, -62.8233, 68.552
8.00847, 94, 7.16369, -33.4544, 47.0133, -148.65, -62.1856, 69.2971
8.01598, 94, 7.29431, -33.9277, 47.3733, -148.486, -61.5417, 70.0934
8.024, 94, 7.42825, -34.394, 47.7289, -148.327, -60.8932, 70.942
8.03187, 95, 7.56637, -34.851, 48.0772, -148.174, -60.2462, 71.8421
8.0399, 95, 7.71001, -35.2977, 48.416, -148.032, -59.6029, 72.7838
8.04791, 95, 7.85987, -35.7327, 48.7434, -147.903, -58.9654, 73.7668
8.05674, 95, 8.01645, -36.1528, 49.0575, -147.789, -58.335, 74.7857
8.06407, 95, 8.1799, -36.5533, 49.3559, -147.692, -57.7131, 75.839
8.07079, 96, 8.26415, -36.746, 49.4994, -147.65, -57.4062, 76.3779
8.0801, 96, 8.52724, -37.2914, 49.9044, -147.554, -56.5072, 78.0391
8.08694, 96, 8.61795, -37.4618, 50.0311, -147.533, -56.2145, 78.6068
8.09486, 96, 8.80339, -37.7842, 50.2716, -147.505, -55.64, 79.7579
8.1043, 96, 9.09044, -38.2203, 50.5963, -147.501, -54.8108, 81.5162
8.11249, 96, 9.28571, -38.4801, 50.7889, -147.525, -54.2834, 82.704
8.12038, 97, 9.48236, -38.7142, 50.9617, -147.571, -53.779, 83.9015
8.12843, 97, 9.67896, -38.9232, 51.1139, -147.638, -53.2994, 85.1022
8.13661, 97, 9.87457, -39.1079, 51.2465, -147.724, -52.8471, 86.2941
8.14441, 97, 9.9718, -39.1909, 51.3055, -147.827, -52.4239, 87.4724
8.15239, 97, 10.1643, -39.3376, 51.4087, -147.884, -52.2237, 88.0532
8.16146, 97, 10.4464, -39.5104, 51.5278, -148.072, -51.6696, 89.7525
8.16781, 98, 10.5386, -39.5554, 51.5584, -148.14, -51.5005, 90.3011
8.1749, 98, 10.7212, -39.6274, 51.6059, -148.284, -51.1853, 91.3738
8.18538, 98, 10.9919, -39.6924, 51.6443, -148.518, -50.765, 92.9369
8.19093, 98, 11.0813, -39.7024, 51.6484, -148.601, -50.6371, 93.4534
8.19991, 98, 11.2583, -39.7048, 51.6443, -148.778, -50.3967, 94.4889
8.20782, 98, 11.4338, -39.6835, 51.6229, -148.967, -50.1753, 95.5368
8.21483, 98, 11.6095, -39.6383, 51.5837, -149.17, -49.973, 96.6059
8.22385, 99, 11.7849, -39.5697, 51.5267, -149.386, -49.7912, 97.6958
8.23188, 99, 11.9587, -39.4785, 51.4512, -149.614, -49.6325, 98.8025
8.24144, 99, 12.214, -39.2991, 51.3034, -149.971, -49.4448, 100.47
8.24782, 99, 12.2972, -39.228, 51.245, -150.093, -49.3971, 101.022
8.2559, 99, 12.4593, -39.0694, 51.1154, -150.337, -49.325, 102.114
8.26292, 99, 12.6143, -38.8885, 50.9697, -150.58, -49.2837, 103.181
8.27189, 100, 12.7608, -38.6836, 50.8084, -150.82, -49.2738, 104.217
8.27982, 100, 12.8984, -38.4544, 50.6305, -151.055, -49.2958, 105.224
8.28883, 100, 13.027, -38.2024, 50.4354, -151.284, -49.3495, 106.203
8.29592, 100, 13.147, -37.9283, 50.2239, -151.508, -49.4342, 107.158
8.30491, 100, 13.2589, -37.6334, 49.9949, -151.725, -49.5503, 108.089
8.3119, 100, 13.3626, -37.3157, 49.7475, -151.936, -49.697, 108.998
8.31982, 101, 13.4582, -36.9742, 49.4836, -152.14, -49.874, 109.885
8.32782, 101, 13.5459, -36.6081, 49.2024, -152.334, -50.0807, 110.749
8.33591, 101, 13.6258, -36.2168, 48.9045, -152.52, -50.3168, 111.59
8.34383, 101, 13.6975, -35.8007, 48.589, -152.696, -50.5828, 112.407
8.35183, 101, 13.761, -35.3614, 48.2562, -152.863, -50.8795, 113.201
8.36893, 102, 13.8617, -34.4162, 47.5396, -153.162, -51.5682, 114.721
8.37104, 102, 13.881, -34.1658, 47.3499, -153.229, -51.7604, 115.086
8.37582, 102, 13.898, -33.9092, 47.1562, -153.293, -51.9606, 115.445
8.38394, 102, 13.9246, -33.3782, 46.7572, -153.411, -52.3851, 116.145
8.39196, 102, 13.9421, -32.8246, 46.344, -153.516, -52.8413, 116.818
8.39982, 102, 13.9512, -32.2496, 45.9169, -153.607, -53.3273, 117.465
8.40783, 103, 13.9526, -31.6535, 45.476, -153.684, -53.8406, 118.087
8.41595, 103, 13.9471, -31.0379, 45.0219, -153.749, -54.3796, 118.683
8.42389, 103, 13.9351, -30.4045, 44.5559, -153.8, -54.9412, 119.254
8.43182, 103, 13.9175, -29.7554, 44.0792, -153.838, -55.5228, 119.8
8.43995, 103, 13.8945, -29.0913, 43.5935, -153.864, -56.1231, 120.321
8.44783, 103, 13.8667, -28.4138, 43.1004, -153.879, -56.7398, 120.818
8.45589, 104, 13.8346, -27.7252, 42.6016, -153.884, -57.3696, 121.288
8.46387, 104, 13.7987, -27.0276, 42.0987, -153.879, -58.0124, 121.737
8.47185, 104, 13.7589, -26.3224, 41.5925, -153.863, -58.6698, 122.164
8.47995, 104, 13.7161, -25.611, 41.084, -153.84, -59.3397, 122.571
8.48802, 104, 13.6713, -24.896, 40.5745, -153.808, -60.0205, 122.963
8.49545, 104, 13.6247, -24.1783, 40.0643, -153.768, -60.7082, 123.34
8.50401, 104, 13.5764, -23.4582, 39.5546, -153.722, -61.4016, 123.706
8.512, 104, 13.5267, -22.7363, 39.0457, -153.671, -62.1006, 124.065
8.51992, 104, 13.4762, -22.0135, 38.538, -153.614, -62.8024, 124.42
8.52805, 104, 13.425, -21.29, 38.032, -153.553, -63.5059, 124.771
8.53598, 104, 13.3732, -20.567, 37.5275, -153.488, -64.2098, 125.121
8.54386, 104, 13.3211, -19.8438, 37.0245, -153.418, -64.9144, 125.469
8.55211, 104, 13.2689, -19.1203, 36.5234, -153.345, -65.6208, 125.815
8.55883, 104, 13.2426, -18.7585, 36.2736, -153.306, -65.9743, 125.988
8.56802, 104, 13.1643, -17.673, 35.5275, -153.186, -67.0365, 126.506
8.5748, 104, 13.1383, -17.3108, 35.28, -153.143, -67.3908, 126.678
8.58422, 104, 13.0607, -16.2244, 34.5404, -153.011, -68.4521, 127.195
8.59086, 104, 13.0351, -15.8622, 34.295, -152.965, -68.8068, 127.367
8.60077, 104, 12.9587, -14.7751, 33.5618, -152.82, -69.873, 127.882
8.60837, 104, 12.908, -14.0495, 33.0762, -152.719, -70.5843, 128.226
8.61643, 104, 12.8579, -13.3243, 32.5932, -152.614, -71.2942, 128.57
8.62436, 104, 12.8081, -12.5985, 32.1127, -152.506, -72.0054, 128.914
8.63255, 104, 12.7585, -11.8733, 31.6352, -152.393, -72.7181, 129.258
8.64055, 104, 12.7093, -11.1483, 31.1599, -152.277, -73.4309, 129.604
8.64868, 104, 12.6849, -10.4229, 30.687, -152.156, -74.1441, 129.949
8.65647, 104, 12.6363, -10.0601, 30.4519, -152.094, -74.8571, 130.296
8.66387, 104, 12.5878, -9.33437, 29.9837, -151.968, -75.2135, 130.469
8.67183, 104, 12.54, -8.60859, 29.5187, -151.837, -75.9276, 130.817
8.67987, 104, 12.4926, -7.88241, 29.0569, -151.703, -76.6423, 131.166
8.68793, 104, 12.4456, -7.15684, 28.5983, -151.564, -77.3579, 131.516
8.69582, 104, 12.3994, -6.43167, 28.1431, -151.421, -78.0733, 131.867
8.70395, 104, 12.3538, -5.70691, 27.6913, -151.275, -78.7871, 132.219
8.71186, 104, 12.3085, -4.98289, 27.2431, -151.123, -79.5019, 132.572
8.71981, 104, 12.2642, -4.2603, 26.7992, -150.968, -80.2171, 132.927
8.72789, 104, 12.221, -3.53995, 26.3603, -150.809, -80.9322, 133.283
8.73586, 104, 12.1787, -2.82431, 25.9263, -150.646, -81.6433, 133.639
8.74381, 104, 12.1378, -2.11445, 25.4983, -150.479, -82.3505, 133.996
8.7519, 104, 12.0982, -1.41179, 25.0773, -150.309, -83.0544, 134.351
8.75998, 104, 12.0594, -0.717897, 24.6648, -150.136, -83.7509, 134.705
8.76787, 104, 12.0218, -0.0338446, 24.262, -149.962, -84.4377, 135.056
8.7758, 104, 11.9851, 0.639652, 23.8696, -149.787, -85.1122, 135.403
8.78387, 104, 11.9493, 1.30075, 23.4898, -149.611, -85.772, 135.745
8.79286, 104, 11.9149, 1.94879, 23.1224, -149.434, -86.4178, 136.081
8.79985, 104, 11.8816, 2.58191, 22.7676, -149.259, -87.0483, 136.411
8.80793, 104, 11.8491, 3.19881, 22.425, -149.083, -87.6627, 136.735
8.81685, 104, 11.8181, 3.79942, 22.096, -148.91, -88.2608, 137.051
8.82388, 104, 11.7885, 4.38302, 21.7795, -148.737, -88.8412, 137.361
8.83188, 104, 11.7599, 4.95028, 21.4755, -148.565, -89.4044, 137.664
8.83984, 104, 11.7329, 5.50055, 21.1826, -148.396, -89.9521, 137.96
8.84787, 104, 11.7067, 6.03327, 20.9021, -148.228, -90.4837, 138.249
8.85587, 104, 11.6819, 6.54943, 20.6332, -148.063, -90.999, 138.531
8.86382, 104, 11.6581, 7.04872, 20.3758, -147.9, -91.4978, 138.806
8.87184, 104, 11.6356, 7.53089, 20.1302, -147.74, -91.9789, 139.072
8.8799, 104, 11.6142, 7.99672, 19.8952, -147.582, -92.4433, 139.331
8.88786, 104, 11.5939, 8.44582, 19.6711, -147.428, -92.8914, 139.583
8.89586, 104, 11.5749, 8.87772, 19.4583, -147.277, -93.3227, 139.826
8.90387, 104, 11.5569, 9.29215, 19.2556, -147.13, -93.7373, 140.062
8.91181, 104, 11.54, 9.68944, 19.063, -146.987, -94.1348, 140.289
8.91982, 104, 11.5242, 10.0686, 18.8815, -146.849, -94.515, 140.506
8.92793, 104, 11.5094, 10.4289, 18.7104, -146.715, -94.8768, 140.715
8.93581, 104, 11.4956, 10.77, 18.5494, -146.587, -95.22, 140.914
8.94388, 104, 11.4829, 11.0919, 18.3994, -146.464, -95.5435, 141.103
8.95182, 104, 11.4712, 11.3932, 18.2603, -146.348, -95.8467, 141.28
8.95982, 104, 11.4605, 11.674, 18.1316, -146.239, -96.1293, 141.445
8.96796, 104, 11.451, 11.9337, 18.0134, -146.137, -96.3906, 141.599
8.97584, 104, 11.4421, 12.172, 17.9059, -146.043, -96.63, 141.741
8.9839, 104, 11.4339, 12.3895, 17.8089, -145.957, -96.8476, 141.87
8.99196, 104, 11.4265, 12.586, 17.7222, -145.879, -97.043, 141.987
8.99994, 104, 11.42, 12.7611, 17.6458, -145.809, -97.2165, 142.09
9.00797, 104, 11.4141, 12.9155, 17.5795, -145.748, -97.3681, 142.181
9.01598, 104, 11.4088, 13.0502, 17.5228, -145.695, -97.4977, 142.259
9.02391, 104, 11.4039, 13.166, 17.4755, -145.651, -97.6065, 142.324
9.03181, 104, 11.3994, 13.2634, 17.4368, -145.616, -97.695, 142.377
9.04007, 104, 11.3954, 13.344, 17.4059, -145.587, -97.7655, 142.419
9.04791, 104, 11.3917, 13.4099, 17.3825, -145.564, -97.8188, 142.452
9.0562, 104, 11.3884, 13.4626, 17.3653, -145.548, -97.8579, 142.476
9.06285, 104, 11.3869, 13.4846, 17.3586, -145.541, -97.873, 142.485
9.07201, 104, 11.3833, 13.5345, 17.345, -145.528, -97.9041, 142.503
9.07885, 104, 11.3823, 13.5469, 17.3422, -145.526, -97.9107, 142.506
9.08823, 104, 11.3801, 13.574, 17.337, -145.521, -97.9224, 142.512
9.09481, 104, 11.3794, 13.5802, 17.336, -145.52, -97.9244, 142.513
9.10459, 104, 11.3781, 13.5928, 17.3346, -145.519, -97.9276, 142.515
9.11236, 105, 11.3775, 13.5978, 17.3342, -145.519, -97.9283, 142.515
9.12033, 105, 11.3771, 13.6011, 17.334, -145.518, -97.9287, 142.516
9.12879, 105, 11.3768, 13.6035, 17.3339, -145.518, -97.9289, 142.516
9.13643, 105, 11.3765, 13.6054, 17.3339, -145.518, -97.9289, 142.516
9.14441, 105, 11.3764, 13.6063, 17.3339, -145.518, -97.9289, 142.516
9.15277, 105, 11.3762, 13.6087, 17.3339, -145.518, -97.9289, 142.516
9.1605, 105, 11.3762, 13.6093, 17.3339, -145.518, -97.9288, 142.516
9.16785, 105, 11.3761, 13.6106, 17.3339, -145.518, -97.9288, 142.516
9.17581, 105, 11.376, 13.6116, 17.3339, -145.518, -97.9287, 142.516
9.18385, 105, 11.3759, 13.6125, 17.3339, -145.518, -97.9285, 142.516
9.1918, 105, 11.3759, 13.6131, 17.3339, -145.518, -97.9284, 142.516
9.1998, 105, 11.3759, 13.6136, 17.334, -145.518, -97.9283, 142.516
9.20896, 105, 11.3759, 13.6139, 17.334, -145.518, -97.9281, 142.516
9.2148, 105, 11.3759, 13.6141, 17.3341, -145.519, -97.9281, 142.516
9.22379, 105, 11.3759, 13.6141, 17.3341, -145.519, -97.9279, 142.516
9.23194, 105, 11.3759, 13.6142, 17.3342, -145.519, -97.9278, 142.516
