hehonglu123/Motion-Primitive-Planning/ILC/recorded_data/realrobot/wood/iteration_15/run_0.csv
timestamp, cmd_num, J1, J2, J3, J4, J5, J6
0.000358, -1, 11.3761, 13.613, 17.3375, -145.52, -97.9258, 142.515
0.004389, -1, 11.3761, 13.6129, 17.3375, -145.52, -97.9259, 142.515
0.008087, -1, 11.3761, 13.6129, 17.3375, -145.52, -97.9258, 142.515
0.029734, -1, 11.3761, 13.6129, 17.3374, -145.52, -97.9258, 142.515
0.032787, -1, 11.3761, 13.613, 17.3375, -145.52, -97.9258, 142.515
0.03402, -1, 11.3761, 13.613, 17.3375, -145.52, -97.9258, 142.515
0.039867, -1, 11.3761, 13.6129, 17.3375, -145.52, -97.9258, 142.515
0.048075, -1, 11.376, 13.6129, 17.3375, -145.52, -97.9259, 142.515
0.056029, -1, 11.3755, 13.6129, 17.3374, -145.52, -97.9259, 142.515
0.063972, -1, 11.3729, 13.6127, 17.3373, -145.52, -97.9259, 142.515
0.072028, -1, 11.3665, 13.6119, 17.3369, -145.52, -97.9258, 142.515
0.079972, -1, 11.3554, 13.6101, 17.3362, -145.52, -97.9258, 142.513
0.088028, -1, 11.338, 13.6067, 17.3353, -145.521, -97.9257, 142.505
0.096043, -1, 11.3111, 13.6007, 17.3342, -145.525, -97.9252, 142.483
0.104713, -1, 11.2728, 13.5915, 17.3334, -145.531, -97.9235, 142.443
0.111889, -1, 11.2227, 13.5791, 17.3334, -145.543, -97.9201, 142.377
0.119971, -1, 11.1611, 13.5636, 17.3349, -145.56, -97.9148, 142.281
0.128806, -1, 11.0878, 13.5444, 17.3387, -145.583, -97.907, 142.15
0.135967, -1, 11.0026, 13.5213, 17.3449, -145.612, -97.8968, 141.985
0.144103, -1, 10.9058, 13.4949, 17.3533, -145.646, -97.8847, 141.787
0.150913, -1, 10.8534, 13.4804, 17.3582, -145.664, -97.878, 141.677
0.160153, -1, 10.6797, 13.4322, 17.3746, -145.727, -97.8562, 141.314
0.166864, -1, 10.6165, 13.4146, 17.3802, -145.749, -97.8485, 141.186
0.177099, -1, 10.4126, 13.3583, 17.3963, -145.817, -97.8247, 140.785
0.184392, -1, 10.2677, 13.3186, 17.4064, -145.865, -97.8085, 140.51
0.192492, -1, 10.1183, 13.2781, 17.4163, -145.912, -97.7919, 140.233
0.201445, -1, 9.96584, 13.2369, 17.4263, -145.96, -97.7749, 139.955
0.206932, -1, 9.88871, 13.2162, 17.4313, -145.984, -97.7663, 139.816
0.216486, -1, 9.65561, 13.1539, 17.4464, -146.056, -97.7405, 139.396
0.225409, -1, 9.57796, 13.1332, 17.4563, -146.104, -97.7233, 139.117
0.230931, -1, 9.42299, 13.0919, 17.4612, -146.128, -97.7149, 138.977
0.240904, -1, 9.19123, 13.03, 17.4761, -146.2, -97.6897, 138.558
0.247864, -1, 9.11422, 13.0094, 17.4811, -146.224, -97.6813, 138.418
0.255904, -1, 8.96044, 12.9683, 17.4912, -146.272, -97.6645, 138.139
0.263906, -1, 8.80673, 12.9272, 17.5014, -146.32, -97.6475, 137.859
0.271865, -1, 8.65341, 12.886, 17.5115, -146.368, -97.6302, 137.579
0.278878, -1, 8.5006, 12.8447, 17.5215, -146.416, -97.6126, 137.299
0.287857, -1, 8.34777, 12.8034, 17.5317, -146.465, -97.5951, 137.019
0.295869, -1, 8.19452, 12.7619, 17.5419, -146.512, -97.578, 136.739
0.302864, -1, 8.04078, 12.7203, 17.5521, -146.56, -97.561, 136.459
0.311859, -1, 7.88654, 12.6786, 17.5623, -146.609, -97.5444, 136.178
0.319854, -1, 7.73183, 12.6369, 17.5724, -146.656, -97.5276, 135.898
0.326863, -1, 7.57691, 12.5952, 17.5826, -146.704, -97.5109, 135.618
0.33586, -1, 7.42188, 12.5536, 17.5929, -146.753, -97.4939, 135.338
0.344273, -1, 7.26684, 12.5121, 17.603, -146.8, -97.4766, 135.058
0.350862, -1, 7.11185, 12.4705, 17.6134, -146.849, -97.4592, 134.777
0.359881, -1, 6.95669, 12.4292, 17.6237, -146.897, -97.4421, 134.497
0.501418, -1, 4.24236, 11.7033, 17.8056, -147.74, -97.1428, 129.585
0.504209, -1, 4.16472, 11.6826, 17.8108, -147.764, -97.1342, 129.444
0.50541, -1, 4.16472, 11.6826, 17.8108, -147.764, -97.1342, 129.444
0.507476, -1, 4.0872, 11.6619, 17.8161, -147.788, -97.1257, 129.303
0.508765, -1, 4.0872, 11.6619, 17.8161, -147.788, -97.1257, 129.303
0.510025, -1, 4.0872, 11.6619, 17.8161, -147.788, -97.1257, 129.303
0.512014, -1, 4.00983, 11.6412, 17.8212, -147.812, -97.1173, 129.163
0.516005, -1, 3.93254, 11.6205, 17.8264, -147.836, -97.1089, 129.022
0.51724, -1, 3.93254, 11.6205, 17.8264, -147.836, -97.1089, 129.022
0.519189, -1, 3.85531, 11.5998, 17.8316, -147.86, -97.1005, 128.882
0.520553, -1, 3.85531, 11.5998, 17.8316, -147.86, -97.1005, 128.882
0.521819, -1, 3.85531, 11.5998, 17.8316, -147.86, -97.1005, 128.882
0.523811, -1, 3.77811, 11.579, 17.8368, -147.885, -97.0921, 128.741
0.52511, -1, 3.77811, 11.579, 17.8368, -147.885, -97.0921, 128.741
0.527779, -1, 3.77811, 11.579, 17.8368, -147.909, -97.0836, 128.6
0.529644, -1, 3.70091, 11.5583, 17.842, -147.909, -97.0836, 128.6
0.53171, -1, 3.6237, 11.5375, 17.8472, -147.933, -97.0751, 128.46
0.53291, -1, 3.6237, 11.5375, 17.8472, -147.933, -97.0751, 128.46
0.534192, -1, 3.6237, 11.5375, 17.8472, -147.933, -97.0751, 128.46
0.536273, -1, 3.54643, 11.5167, 17.8523, -147.957, -97.0665, 128.319
0.539189, -1, 3.54643, 11.5167, 17.8523, -147.957, -97.0579, 128.178
0.540665, -1, 3.46912, 11.4958, 17.8575, -147.981, -97.0579, 128.178
0.545865, -1, 3.39178, 11.475, 17.8628, -148.005, -97.0492, 128.037
0.552127, -1, 3.23681, 11.4334, 17.8733, -148.054, -97.0317, 127.756
0.559394, -1, 3.08161, 11.3916, 17.8837, -148.102, -97.0141, 127.474
0.567952, -1, 2.92627, 11.3498, 17.8942, -148.15, -96.9969, 127.193
0.576274, -1, 2.77074, 11.3081, 17.9045, -148.198, -96.9799, 126.911
0.583463, -1, 2.61487, 11.2664, 17.9149, -148.246, -96.9631, 126.629
0.591992, -1, 2.45872, 11.2246, 17.9254, -148.295, -96.9463, 126.348
0.600298, -1, 2.30231, 11.1829, 17.9358, -148.343, -96.9295, 126.065
0.606852, -1, 2.22402, 11.1621, 17.941, -148.367, -96.921, 125.925
0.615883, -1, 1.98889, 11.0995, 17.9566, -148.44, -96.895, 125.502
0.624775, -1, 1.83229, 11.0579, 17.967, -148.488, -96.8775, 125.221
0.631975, -1, 1.67585, 11.0162, 17.9775, -148.536, -96.8601, 124.938
0.640064, -1, 1.51963, 10.9744, 17.9881, -148.585, -96.843, 124.656
0.646849, -1, 1.44165, 10.9536, 17.9933, -148.61, -96.8346, 124.515
0.656168, -1, 1.20795, 10.8912, 18.0089, -148.682, -96.8092, 124.092
0.66428, -1, 1.05256, 10.8495, 18.0192, -148.731, -96.7923, 123.809
0.798582, -1, -1.52506, 10.1596, 18.1915, -149.531, -96.5097, 119.144
0.799856, -1, -1.52506, 10.1596, 18.1915, -149.531, -96.5097, 119.144
0.803346, -1, -1.6033, 10.1387, 18.1968, -149.555, -96.5013, 119.002
0.806067, -1, -1.68142, 10.1178, 18.2021, -149.58, -96.4928, 118.861
0.807337, -1, -1.68142, 10.1178, 18.2021, -149.58, -96.4928, 118.861
0.809209, -1, -1.68142, 10.1178, 18.2021, -149.58, -96.4842, 118.719
0.810654, -1, -1.75944, 10.0969, 18.2073, -149.604, -96.4842, 118.719
0.81512, -1, -1.83736, 10.0759, 18.2126, -149.628, -96.4756, 118.577
0.816368, -1, -1.83736, 10.0759, 18.2126, -149.628, -96.4756, 118.577
0.818417, -1, -1.91519, 10.055, 18.2178, -149.652, -96.4669, 118.435
0.819648, -1, -1.91519, 10.055, 18.2178, -149.652, -96.4669, 118.435
0.821566, -1, -1.99294, 10.0341, 18.223, -149.677, -96.458, 118.294
0.822903, -1, -1.99294, 10.0341, 18.223, -149.677, -96.458, 118.294
0.82421, -1, -1.99294, 10.0341, 18.223, -149.677, -96.458, 118.294
0.826196, -1, -2.07058, 10.0132, 18.2282, -149.701, -96.4492, 118.152
0.830179, -1, -2.07058, 10.0132, 18.2282, -149.701, -96.4492, 118.01
0.831476, -1, -2.14817, 9.99222, 18.2334, -149.726, -96.4404, 118.01
0.8334, -1, -2.22574, 9.97131, 18.2386, -149.75, -96.4316, 117.868
0.834845, -1, -2.22574, 9.97131, 18.2386, -149.75, -96.4316, 117.868
0.836147, -1, -2.22574, 9.97131, 18.2386, -149.75, -96.4316, 117.868
0.838128, -1, -2.30334, 9.95041, 18.2438, -149.774, -96.423, 117.727
0.839533, -1, -2.30334, 9.95041, 18.2438, -149.774, -96.423, 117.727
0.849456, -1, -2.45877, 9.90847, 18.2543, -149.847, -96.3973, 117.301
0.855851, -1, -2.61438, 9.86651, 18.2647, -149.871, -96.3889, 117.159
0.864842, -1, -2.7704, 9.82461, 18.2751, -149.92, -96.3721, 116.875
0.871899, -1, -2.92685, 9.78263, 18.2855, -149.968, -96.3552, 116.592
0.879842, -1, -3.08368, 9.74073, 18.2959, -150.017, -96.3382, 116.308
0.887907, -1, -3.24088, 9.6988, 18.3063, -150.066, -96.3209, 116.024
0.89589, -1, -3.39849, 9.65683, 18.3168, -150.114, -96.3033, 115.74
0.903838, -1, -3.55628, 9.61489, 18.3273, -150.163, -96.2857, 115.456
0.911905, -1, -3.71405, 9.57306, 18.3378, -150.212, -96.2684, 115.172
0.919836, -1, -3.87207, 9.53113, 18.3481, -150.26, -96.2513, 114.888
0.927845, -1, -4.03003, 9.48916, 18.3585, -150.309, -96.2343, 114.603
0.935904, -1, -4.18785, 9.4473, 18.3689, -150.358, -96.2173, 114.319
0.943837, -1, -4.34565, 9.40532, 18.3792, -150.407, -96.2002, 114.035
0.951854, -1, -4.50318, 9.36335, 18.3896, -150.456, -96.1828, 113.75
0.959898, -1, -4.66017, 9.32139, 18.4, -150.505, -96.1652, 113.466
0.967836, -1, -4.81669, 9.27938, 18.4104, -150.553, -96.1474, 113.181
0.975844, -1, -4.97301, 9.23731, 18.421, -150.602, -96.1299, 112.896
0.983902, -1, -5.12903, 9.19531, 18.4315, -150.651, -96.1127, 112.611
0.991879, -1, -5.28495, 9.15325, 18.4421, -150.699, -96.0957, 112.326
0.999847, -1, -5.44095, 9.11112, 18.4526, -150.749, -96.0788, 112.042
1.00796, -1, -5.59714, 9.06905, 18.463, -150.797, -96.0619, 111.757
1.01585, -1, -5.75359, 9.02696, 18.4735, -150.846, -96.0447, 111.472
1.02384, -1, -5.91051, 8.98481, 18.4839, -150.895, -96.0273, 111.188
1.03193, -1, -6.06788, 8.94268, 18.4943, -150.944, -96.0096, 110.903
1.03992, -1, -6.22584, 8.90056, 18.5047, -150.993, -95.9921, 110.617
1.04785, -1, -6.38406, 8.85845, 18.515, -151.042, -95.9748, 110.332
1.05594, -1, -6.5425, 8.81641, 18.5254, -151.091, -95.9578, 110.047
1.06413, -1, -6.70112, 8.77427, 18.536, -151.139, -95.9407, 109.762
1.07172, -1, -6.85987, 8.73213, 18.5465, -151.189, -95.9237, 109.476
1.08, -1, -7.01842, 8.69009, 18.557, -151.238, -95.9066, 109.19
1.08827, -1, -7.17691, 8.64796, 18.5675, -151.286, -95.8891, 108.905
1.09555, -1, -7.33525, 8.60581, 18.5778, -151.336, -95.8714, 108.619
1.104, -1, -7.49329, 8.56358, 18.5883, -151.385, -95.8536, 108.333
1.11247, -1, -7.65101, 8.52133, 18.5988, -151.434, -95.8361, 108.047
1.11996, -1, -7.80832, 8.47907, 18.6093, -151.483, -95.8189, 107.762
1.12793, -1, -7.96526, 8.43682, 18.6197, -151.532, -95.8019, 107.476
1.13684, -1, -8.12191, 8.39451, 18.63, -151.581, -95.785, 107.19
1.14407, -1, -8.27844, 8.35219, 18.6406, -151.63, -95.768, 106.904
1.15084, -1, -8.35674, 8.33102, 18.6458, -151.655, -95.7593, 106.761
1.16087, -1, -8.59211, 8.26746, 18.6617, -151.728, -95.7332, 106.332
1.16843, -1, -8.74938, 8.22521, 18.6722, -151.777, -95.7155, 106.045
1.17628, -1, -8.90714, 8.18287, 18.6825, -151.826, -95.6979, 105.759
1.18502, -1, -9.06526, 8.14053, 18.693, -151.875, -95.6806, 105.473
1.19243, -1, -9.22382, 8.09831, 18.7035, -151.925, -95.6634, 105.186
1.2004, -1, -9.38275, 8.05599, 18.7139, -151.973, -95.6464, 104.9
1.20914, -1, -9.54186, 8.01365, 18.7244, -152.023, -95.6293, 104.613
1.2149, -1, -9.62143, 7.99255, 18.7296, -152.048, -95.6207, 104.47
1.22444, -1, -9.7806, 7.95036, 18.7453, -152.121, -95.5944, 104.039
1.2332, -1, -9.93999, 7.90802, 18.7507, -152.146, -95.5765, 103.752
1.23884, -1, -10.0993, 7.86565, 18.7613, -152.196, -95.5676, 103.609
1.24894, -1, -10.3379, 7.80198, 18.7772, -152.269, -95.5411, 103.179
1.25583, -1, -10.4174, 7.78071, 18.7825, -152.294, -95.5325, 103.035
1.26286, -1, -10.5761, 7.73825, 18.7929, -152.344, -95.5154, 102.748
1.27184, -1, -10.7344, 7.69578, 18.8034, -152.392, -95.4984, 102.461
1.27987, -1, -10.8923, 7.65318, 18.814, -152.441, -95.4814, 102.174
1.28689, -1, -11.05, 7.61062, 18.8243, -152.491, -95.4641, 101.887
1.29581, -1, -11.2075, 7.56815, 18.8348, -152.54, -95.4465, 101.599
1.30387, -1, -11.3649, 7.52566, 18.8453, -152.589, -95.4288, 101.312
1.31091, -1, -11.5225, 7.48312, 18.8558, -152.639, -95.411, 101.025
1.31986, -1, -11.6802, 7.44067, 18.8664, -152.688, -95.3935, 100.737
1.32788, -1, -11.8383, 7.39825, 18.877, -152.737, -95.3762, 100.449
1.3349, -1, -11.9969, 7.35583, 18.8876, -152.787, -95.3589, 100.161
1.34382, -1, -12.1558, 7.31348, 18.8981, -152.836, -95.3417, 99.8738
1.35083, -1, -12.3152, 7.27107, 18.9085, -152.886, -95.3244, 99.5858
1.35983, -1, -12.4749, 7.22864, 18.9191, -152.935, -95.3068, 99.2976
1.36883, -1, -12.6349, 7.18626, 18.9296, -152.984, -95.2889, 99.0098
1.37582, -1, -12.7949, 7.14383, 18.9402, -153.034, -95.2709, 98.722
1.38391, -1, -12.9551, 7.10131, 18.9508, -153.084, -95.2532, 98.4341
1.39194, -1, -13.1151, 7.05874, 18.9613, -153.133, -95.2358, 98.1459
1.39987, -1, -13.275, 7.01613, 18.9718, -153.183, -95.2186, 97.8578
1.40783, -1, -13.4346, 6.97348, 18.9824, -153.232, -95.2015, 97.5695
1.41582, -1, -13.5939, 6.93069, 18.993, -153.281, -95.1843, 97.2809
1.42382, -1, -13.7531, 6.88796, 19.0036, -153.331, -95.1669, 96.9922
1.43193, -1, -13.9119, 6.84525, 19.014, -153.38, -95.1492, 96.7038
1.43982, -1, -14.0702, 6.80252, 19.0245, -153.429, -95.1314, 96.4152
1.44782, -1, -14.2284, 6.75989, 19.0351, -153.479, -95.1137, 96.1262
1.4559, -1, -14.3867, 6.71721, 19.0456, -153.529, -95.0962, 95.8371
1.46383, -1, -14.5449, 6.67452, 19.0561, -153.578, -95.0789, 95.5482
1.47184, -1, -14.7035, 6.63197, 19.0667, -153.628, -95.0618, 95.2589
1.4799, -1, -14.8626, 6.58943, 19.0772, -153.677, -95.0446, 94.9694
1.48782, -1, -15.0219, 6.54672, 19.088, -153.726, -95.0271, 94.6803
1.49582, -1, -15.1817, 6.5041, 19.0987, -153.776, -95.0094, 94.3913
1.5039, -1, -15.3419, 6.46152, 19.1093, -153.826, -94.9914, 94.1021
1.51184, -1, -15.5023, 6.41879, 19.12, -153.875, -94.9735, 93.8127
1.51983, -1, -15.663, 6.37612, 19.1305, -153.925, -94.9558, 93.5234
1.52794, -1, -15.8237, 6.33336, 19.1411, -153.975, -94.9385, 93.2341
1.53582, -1, -15.9845, 6.29045, 19.1518, -154.025, -94.9212, 92.9445
1.54385, -1, -16.1454, 6.24759, 19.1624, -154.074, -94.9041, 92.6547
1.55266, -1, -16.3061, 6.20468, 19.1729, -154.124, -94.8868, 92.3653
1.55993, -1, -16.4666, 6.16167, 19.1834, -154.173, -94.8693, 92.0756
1.56802, -1, -16.6269, 6.1187, 19.1939, -154.223, -94.8515, 91.7855
1.57681, -1, -16.7868, 6.07575, 19.2046, -154.273, -94.8335, 91.4953
1.58392, -1, -16.9463, 6.03276, 19.2152, -154.323, -94.8159, 91.2053
1.592, -1, -17.1056, 5.98982, 19.2259, -154.372, -94.7984, 90.9152
1.60075, -1, -17.2647, 5.94688, 19.2364, -154.422, -94.7812, 90.6247
1.60783, -1, -17.4237, 5.90406, 19.247, -154.472, -94.7639, 90.3343
1.61604, -1, -17.583, 5.86126, 19.2577, -154.522, -94.7465, 90.0443
1.62475, -1, -17.7423, 5.81847, 19.2684, -154.571, -94.7288, 89.7541
1.63188, -1, -17.9019, 5.7757, 19.2791, -154.621, -94.7108, 89.4637
1.64022, -1, -18.062, 5.73295, 19.2897, -154.671, -94.6927, 89.1731
1.64683, -1, -18.1422, 5.71159, 19.2949, -154.696, -94.6837, 89.0279
1.65482, -1, -18.303, 5.66882, 19.3056, -154.746, -94.666, 88.7373
1.66412, -1, -18.5448, 5.6045, 19.3217, -154.821, -94.6399, 88.301
1.67087, -1, -18.6256, 5.58303, 19.327, -154.846, -94.6312, 88.1555
1.67882, -1, -18.7872, 5.54007, 19.3377, -154.896, -94.6139, 87.8648
1.68829, -1, -19.0298, 5.47556, 19.3535, -154.971, -94.5877, 87.4282
1.69639, -1, -19.1913, 5.43241, 19.3641, -155.02, -94.5699, 87.1367
1.70448, -1, -19.3528, 5.38927, 19.3747, -155.071, -94.5518, 86.8453
1.71239, -1, -19.5141, 5.34611, 19.3853, -155.12, -94.5338, 86.5538
1.72041, -1, -19.5946, 5.30287, 19.3959, -155.17, -94.5161, 86.262
1.72682, -1, -19.7553, 5.28131, 19.4012, -155.196, -94.5073, 86.116
1.73581, -1, -19.9159, 5.2382, 19.4119, -155.246, -94.4898, 85.8244
1.74381, -1, -20.076, 5.195, 19.4227, -155.295, -94.4724, 85.533
1.75186, -1, -20.2359, 5.15197, 19.4335, -155.346, -94.455, 85.2413
1.75882, -1, -20.3957, 5.10904, 19.4443, -155.396, -94.4373, 84.9495
1.76785, -1, -20.5558, 5.06593, 19.455, -155.445, -94.4193, 84.6577
1.77586, -1, -20.716, 5.02301, 19.4657, -155.496, -94.4012, 84.3659
1.78284, -1, -20.8766, 4.98007, 19.4765, -155.546, -94.3833, 84.0739
1.79181, -1, -21.0374, 4.93702, 19.4871, -155.596, -94.3657, 83.7817
1.79991, -1, -21.1986, 4.894, 19.4978, -155.646, -94.3484, 83.4897
1.80682, -1, -21.3604, 4.85088, 19.5084, -155.696, -94.3311, 83.1977
1.81587, -1, -21.5225, 4.8076, 19.5191, -155.747, -94.3138, 82.9052
1.82612, -1, -21.7659, 4.74278, 19.5352, -155.822, -94.2875, 82.4664
1.83084, -1, -21.8471, 4.72112, 19.5406, -155.847, -94.2785, 82.3201
1.83981, -1, -22.0095, 4.67771, 19.5513, -155.897, -94.2604, 82.0275
1.84789, -1, -22.172, 4.63435, 19.5621, -155.948, -94.2425, 81.7346
1.85482, -1, -22.3345, 4.59096, 19.5727, -155.998, -94.2248, 81.4418
1.86381, -1, -22.4967, 4.54753, 19.5834, -156.048, -94.2073, 81.1492
1.87285, -1, -22.6586, 4.50413, 19.5941, -156.098, -94.1899, 80.8565
1.87882, -1, -22.8201, 4.46067, 19.6048, -156.148, -94.1724, 80.5634
1.88781, -1, -22.9813, 4.41734, 19.6155, -156.199, -94.1547, 80.2705
1.89584, -1, -23.1425, 4.37406, 19.6262, -156.249, -94.1366, 79.9776
1.90381, -1, -23.3034, 4.33074, 19.637, -156.299, -94.1184, 79.6843
1.91187, -1, -23.4642, 4.28748, 19.6478, -156.35, -94.1002, 79.3909
1.91981, -1, -23.6252, 4.24422, 19.6586, -156.4, -94.0823, 79.0976
1.92782, -1, -23.7863, 4.20098, 19.6694, -156.45, -94.0646, 78.8042
1.93589, -1, -23.9476, 4.15772, 19.6801, -156.501, -94.0472, 78.5105
1.9438, -1, -24.1092, 4.1144, 19.6908, -156.551, -94.0298, 78.2167
1.95181, -1, -24.2715, 4.07103, 19.7016, -156.602, -94.0122, 77.9227
1.95987, -1, -24.4341, 4.02762, 19.7123, -156.652, -93.9943, 77.6286
1.96786, -1, -24.5971, 3.98413, 19.7229, -156.702, -93.9762, 77.3343
1.97581, -1, -24.7602, 3.94057, 19.7336, -156.753, -93.9582, 77.04
1.98387, -1, -24.9236, 3.897, 19.7443, -156.804, -93.9403, 76.7461
1.9918, -1, -25.087, 3.85346, 19.7552, -156.854, -93.9227, 76.4519
1.99987, -1, -25.2503, 3.80989, 19.7661, -156.904, -93.9051, 76.1575
2.00781, -1, -25.4134, 3.76627, 19.777, -156.955, -93.8876, 75.8631
2.0158, -1, -25.5762, 3.72259, 19.7877, -157.005, -93.87, 75.5689
2.02388, -1, -25.7389, 3.67896, 19.7984, -157.055, -93.852, 75.2742
2.0318, -1, -25.9014, 3.6355, 19.8093, -157.106, -93.8337, 74.9795
2.03981, -1, -26.0635, 3.59193, 19.82, -157.156, -93.8154, 74.6849
2.04788, -1, -26.2253, 3.54845, 19.8308, -157.207, -93.7973, 74.3904
2.05583, -1, -26.3869, 3.50508, 19.8416, -157.258, -93.7795, 74.0955
2.06393, -1, -26.5485, 3.46161, 19.8523, -157.308, -93.7618, 73.8003
2.07196, -1, -26.7104, 3.4181, 19.8631, -157.359, -93.7442, 73.5052
2.07991, -1, -26.8727, 3.37458, 19.874, -157.41, -93.7265, 73.2099
2.0879, -1, -27.0353, 3.33097, 19.8848, -157.46, -93.7086, 72.9145
2.09592, -1, -27.1982, 3.28737, 19.8957, -157.511, -93.6903, 72.619
2.10401, -1, -27.3613, 3.24375, 19.9064, -157.561, -93.672, 72.3239
2.11181, -1, -27.525, 3.19994, 19.9171, -157.612, -93.6539, 72.0285
2.11982, -1, -27.689, 3.15619, 19.9279, -157.663, -93.6361, 71.7329
2.1279, -1, -27.853, 3.11256, 19.9387, -157.713, -93.6183, 71.4373
2.13603, -1, -28.0172, 3.06881, 19.9495, -157.764, -93.6006, 71.1417
2.14286, -1, -28.0993, 3.04693, 19.9549, -157.789, -93.5918, 70.9939
2.15203, -1, -28.3457, 2.98132, 19.9711, -157.865, -93.5648, 70.5499
2.15881, -1, -28.4277, 2.95943, 19.9765, -157.891, -93.5557, 70.4018
2.16822, -1, -28.6734, 2.8939, 19.9928, -157.967, -93.528, 69.958
2.17481, -1, -28.7552, 2.87206, 19.9982, -157.992, -93.5188, 69.81
2.18434, -1, -29, 2.80647, 20.0144, -158.069, -93.4918, 69.3652
2.19275, -1, -29.1628, 2.76285, 20.0251, -158.12, -93.4741, 69.0689
2.20031, -1, -29.3255, 2.71918, 20.036, -158.17, -93.4565, 68.7723
2.20845, -1, -29.4882, 2.67551, 20.0468, -158.221, -93.4388, 68.4754
2.21642, -1, -29.651, 2.63177, 20.0576, -158.272, -93.4208, 68.1786
2.22438, -1, -29.7325, 2.58798, 20.0684, -158.323, -93.4025, 67.882
2.23255, -1, -29.8955, 2.56612, 20.0738, -158.374, -93.384, 67.5854
2.24047, -1, -30.0587, 2.52235, 20.0848, -158.4, -93.3658, 67.2884
2.24779, -1, -30.2223, 2.47838, 20.0958, -158.45, -93.3567, 67.1398
2.2558, -1, -30.3863, 2.43446, 20.1067, -158.501, -93.3389, 66.8429
2.26385, -1, -30.5508, 2.39048, 20.1176, -158.553, -93.3211, 66.546
2.27183, -1, -30.7158, 2.34645, 20.1284, -158.603, -93.3034, 66.2486
2.27981, -1, -30.8809, 2.30255, 20.1393, -158.654, -93.2855, 65.9511
2.28779, -1, -31.0459, 2.25854, 20.1501, -158.705, -93.2673, 65.6541
2.2958, -1, -31.211, 2.21449, 20.161, -158.756, -93.2487, 65.3568
2.30389, -1, -31.376, 2.17064, 20.1718, -158.808, -93.2302, 65.0592
2.31179, -1, -31.5408, 2.12669, 20.1826, -158.859, -93.2121, 64.7614
2.3198, -1, -31.7054, 2.08263, 20.1935, -158.91, -93.1942, 64.4637
2.32784, -1, -31.8698, 2.03873, 20.2044, -158.961, -93.1766, 64.1656
2.3359, -1, -32.0339, 1.9948, 20.2154, -159.012, -93.159, 63.8674
2.34379, -1, -32.1977, 1.95078, 20.2264, -159.063, -93.1413, 63.5695
2.3508, -1, -32.3612, 1.9068, 20.2372, -159.115, -93.1232, 63.2716
2.35981, -1, -32.5247, 1.86275, 20.2481, -159.166, -93.1049, 62.9734
2.36779, -1, -32.6885, 1.81863, 20.2591, -159.217, -93.0865, 62.675
2.37687, -1, -32.8524, 1.77458, 20.27, -159.268, -93.0684, 62.3767
2.38379, -1, -33.0165, 1.73039, 20.2809, -159.319, -93.0505, 62.0784
2.39179, -1, -33.181, 1.68615, 20.2917, -159.371, -93.0327, 61.7797
2.39999, -1, -33.3458, 1.64197, 20.3026, -159.422, -93.0149, 61.4809
2.40779, -1, -33.5111, 1.59771, 20.3136, -159.473, -92.9969, 61.1825
2.41579, -1, -33.6768, 1.55343, 20.3246, -159.525, -92.9786, 60.8837
2.42379, -1, -33.8425, 1.50922, 20.3355, -159.575, -92.96, 60.5847
2.43179, -1, -34.0084, 1.465, 20.3463, -159.627, -92.9414, 60.2855
2.43989, -1, -34.1743, 1.42086, 20.3572, -159.678, -92.923, 59.9865
2.44779, -1, -34.3404, 1.37668, 20.3682, -159.73, -92.905, 59.687
2.45579, -1, -34.5065, 1.33248, 20.3791, -159.781, -92.8871, 59.3872
2.46387, -1, -34.6722, 1.2883, 20.39, -159.833, -92.8693, 59.0879
2.47185, -1, -34.8375, 1.24411, 20.401, -159.884, -92.8514, 58.7886
2.4798, -1, -35.0025, 1.19992, 20.4119, -159.935, -92.8332, 58.489
2.48785, -1, -35.1673, 1.15565, 20.423, -159.987, -92.8147, 58.1891
2.49579, -1, -35.3318, 1.11135, 20.4341, -160.038, -92.7961, 57.8895
2.50378, -1, -35.4957, 1.06723, 20.4452, -160.09, -92.7778, 57.5898
2.51186, -1, -35.658, 1.02341, 20.4564, -160.141, -92.7597, 57.2899
2.5198, -1, -35.8175, 0.980167, 20.4679, -160.192, -92.7419, 56.9914
2.52781, -1, -35.9732, 0.938078, 20.4798, -160.242, -92.7241, 56.6962
2.53586, -1, -36.1236, 0.897592, 20.4917, -160.292, -92.7066, 56.407
2.54379, -1, -36.2664, 0.859346, 20.5036, -160.339, -92.6894, 56.1279
2.55179, -1, -36.3995, 0.824046, 20.5152, -160.384, -92.673, 55.8653
2.55992, -1, -36.5214, 0.791733, 20.5258, -160.425, -92.6578, 55.6253
2.56789, -1, -36.6306, 0.762875, 20.5351, -160.46, -92.6445, 55.4137
2.57588, -1, -36.7254, 0.737799, 20.5424, -160.49, -92.6335, 55.2351
2.58395, -1, -36.8055, 0.716585, 20.5474, -160.515, -92.6247, 55.0917
2.5919, -1, -36.8717, 0.69911, 20.5504, -160.534, -92.6183, 54.9831
2.59991, -1, -36.925, 0.685118, 20.5517, -160.547, -92.6138, 54.9063
2.60798, -1, -36.9655, 0.674278, 20.5521, -160.556, -92.611, 54.8544
2.61609, -1, -36.9951, 0.66652, 20.5518, -160.562, -92.6093, 54.8228
2.62387, -1, -37.0154, 0.661437, 20.5513, -160.565, -92.6084, 54.805
2.63189, -1, -37.0279, 0.658391, 20.551, -160.567, -92.6079, 54.796
2.64022, 2, -37.0345, 0.656801, 20.5508, -160.568, -92.6077, 54.7917
2.64684, 2, -37.0361, 0.65637, 20.5507, -160.568, -92.6077, 54.7905
2.65608, 2, -37.0366, 0.655789, 20.5507, -160.568, -92.6076, 54.7888
2.6628, 2, -37.0363, 0.65571, 20.5507, -160.568, -92.6075, 54.7886
2.6721, 2, -37.0358, 0.655637, 20.5506, -160.568, -92.6076, 54.7883
2.6788, 2, -37.0359, 0.655618, 20.5506, -160.568, -92.6076, 54.7883
2.6883, 2, -37.0371, 0.655548, 20.5505, -160.568, -92.6076, 54.7882
2.69626, 2, -37.0383, 0.65543, 20.5504, -160.568, -92.6076, 54.7882
2.70436, 2, -37.0398, 0.655211, 20.5502, -160.568, -92.6076, 54.7882
2.71243, 2, -37.0412, 0.65497, 20.55, -160.568, -92.6076, 54.7883
2.72036, 2, -37.0423, 0.654711, 20.5498, -160.568, -92.6077, 54.7884
2.7284, 2, -37.0433, 0.654507, 20.5497, -160.568, -92.6077, 54.7885
2.73642, 2, -37.0435, 0.654443, 20.5495, -160.568, -92.6077, 54.7886
2.74377, 2, -37.0437, 0.654348, 20.5493, -160.568, -92.6077, 54.7887
2.75269, 2, -37.0432, 0.65434, 20.5491, -160.568, -92.6079, 54.7889
2.75979, 2, -37.0428, 0.65436, 20.5491, -160.568, -92.6079, 54.789
2.76778, 2, -37.0419, 0.65442, 20.549, -160.568, -92.608, 54.7892
2.77681, 2, -37.0406, 0.654513, 20.549, -160.568, -92.608, 54.7894
2.78378, 2, -37.039, 0.654616, 20.5489, -160.568, -92.608, 54.7896
2.79178, 2, -37.0378, 0.654685, 20.5488, -160.568, -92.608, 54.7898
2.79984, 2, -37.037, 0.654709, 20.5487, -160.568, -92.6081, 54.7899
2.80782, 2, -37.0365, 0.654712, 20.5487, -160.568, -92.608, 54.79
2.81578, 2, -37.0365, 0.654667, 20.5487, -160.568, -92.608, 54.7901
2.82382, 2, -37.0366, 0.654621, 20.5487, -160.568, -92.608, 54.7901
2.83178, 2, -37.0369, 0.65455, 20.5487, -160.568, -92.6081, 54.7901
2.83982, 2, -37.0373, 0.654512, 20.5486, -160.568, -92.6081, 54.7902
2.84785, 2, -37.038, 0.654471, 20.5486, -160.568, -92.608, 54.7902
2.85578, 2, -37.0387, 0.654438, 20.5486, -160.568, -92.6081, 54.7902
2.86377, 2, -37.0394, 0.654461, 20.5486, -160.568, -92.6081, 54.7902
2.87361, 2, -37.04, 0.654474, 20.5486, -160.568, -92.6081, 54.7903
2.87979, 2, -37.0401, 0.654494, 20.5486, -160.568, -92.6081, 54.7904
2.88878, 2, -37.0401, 0.654535, 20.5486, -160.568, -92.6081, 54.7904
2.89584, 2, -37.0401, 0.654536, 20.5486, -160.568, -92.6081, 54.7904
2.90383, 2, -37.0399, 0.654555, 20.5486, -160.568, -92.6082, 54.7904
2.91178, 2, -37.0394, 0.654563, 20.5486, -160.568, -92.6082, 54.7905
2.91985, 2, -37.0391, 0.654549, 20.5486, -160.568, -92.6081, 54.7905
2.92778, 2, -37.0389, 0.654531, 20.5486, -160.568, -92.6082, 54.7906
2.93578, 2, -37.0387, 0.654516, 20.5486, -160.568, -92.6082, 54.7906
2.94386, 2, -37.0387, 0.654509, 20.5485, -160.568, -92.6082, 54.7907
2.95177, 2, -37.0387, 0.654505, 20.5485, -160.568, -92.6082, 54.7907
2.95978, 2, -37.0387, 0.654491, 20.5485, -160.568, -92.6082, 54.7908
2.96785, 2, -37.0388, 0.654485, 20.5485, -160.568, -92.6082, 54.7909
2.97583, 2, -37.0388, 0.654495, 20.5485, -160.568, -92.6082, 54.7909
2.98377, 2, -37.039, 0.654499, 20.5485, -160.568, -92.6082, 54.7909
2.99184, 2, -37.0392, 0.654501, 20.5485, -160.568, -92.6082, 54.791
2.99978, 2, -37.0394, 0.65452, 20.5484, -160.568, -92.6083, 54.791
3.00777, 2, -37.0394, 0.654522, 20.5484, -160.568, -92.6082, 54.7911
3.01584, 2, -37.0395, 0.65453, 20.5484, -160.568, -92.6083, 54.7912
3.02377, 2, -37.0394, 0.654522, 20.5484, -160.568, -92.6083, 54.7912
3.03178, 2, -37.0395, 0.65453, 20.5484, -160.568, -92.6083, 54.7913
3.03985, 2, -37.0394, 0.654515, 20.5484, -160.568, -92.6082, 54.7913
3.04778, 2, -37.0394, 0.654508, 20.5484, -160.568, -92.6083, 54.7914
3.05578, 2, -37.0393, 0.654498, 20.5484, -160.568, -92.6083, 54.7914
3.06387, 2, -37.0394, 0.654483, 20.5483, -160.568, -92.6083, 54.7914
3.07188, 2, -37.0394, 0.654494, 20.5483, -160.568, -92.6083, 54.7915
3.07987, 2, -37.0394, 0.654498, 20.5483, -160.568, -92.6083, 54.7916
3.08793, 2, -37.0394, 0.654512, 20.5483, -160.568, -92.6083, 54.7916
3.09588, 2, -37.0393, 0.654514, 20.5483, -160.568, -92.6083, 54.7916
3.10387, 2, -37.0393, 0.654519, 20.5483, -160.568, -92.6083, 54.7917
3.11197, 2, -37.0393, 0.654528, 20.5483, -160.568, -92.6083, 54.7917
3.11979, 2, -37.0393, 0.654522, 20.5483, -160.568, -92.6083, 54.7917
3.1278, 2, -37.0393, 0.654541, 20.5483, -160.568, -92.6084, 54.7918
3.13587, 2, -37.0393, 0.654527, 20.5483, -160.568, -92.6083, 54.7918
3.14389, 2, -37.0393, 0.654532, 20.5483, -160.568, -92.6083, 54.7918
3.15203, 2, -37.0393, 0.654516, 20.5483, -160.568, -92.6084, 54.7918
3.15879, 2, -37.0393, 0.654512, 20.5483, -160.568, -92.6084, 54.7919
3.16809, 2, -37.0393, 0.654524, 20.5483, -160.568, -92.6084, 54.7919
3.17485, 2, -37.0393, 0.654517, 20.5483, -160.568, -92.6084, 54.792
3.18419, 2, -37.0393, 0.654507, 20.5482, -160.568, -92.6084, 54.7921
3.19078, 2, -37.0392, 0.654506, 20.5482, -160.568, -92.6084, 54.7921
3.20039, 2, -37.0392, 0.654522, 20.5482, -160.568, -92.6084, 54.7921
3.20833, 2, -37.0392, 0.654541, 20.5482, -160.568, -92.6084, 54.7922
3.21675, 2, -37.0392, 0.654546, 20.5482, -160.568, -92.6084, 54.7922
3.22438, 2, -37.0392, 0.654541, 20.5482, -160.568, -92.6084, 54.7922
3.23238, 2, -37.0392, 0.654531, 20.5482, -160.568, -92.6084, 54.7923
3.24043, 2, -37.0392, 0.654544, 20.5482, -160.568, -92.6084, 54.7922
3.24776, 2, -37.0392, 0.65454, 20.5482, -160.568, -92.6084, 54.7923
3.25582, 2, -37.0391, 0.654527, 20.5482, -160.568, -92.6084, 54.7924
3.26376, 2, -37.0391, 0.654514, 20.5482, -160.568, -92.6084, 54.7924
3.27176, 2, -37.0391, 0.654508, 20.5482, -160.568, -92.6084, 54.7924
3.27989, 2, -37.0391, 0.654505, 20.5481, -160.568, -92.6084, 54.7924
3.28777, 2, -37.0391, 0.654522, 20.5481, -160.568, -92.6084, 54.7925
3.29577, 2, -37.0391, 0.654541, 20.5481, -160.568, -92.6084, 54.7925
3.30381, 2, -37.0391, 0.654527, 20.5481, -160.568, -92.6085, 54.7925
3.31181, 2, -37.0391, 0.654525, 20.5481, -160.568, -92.6085, 54.7925
3.31978, 2, -37.0391, 0.654531, 20.5481, -160.568, -92.6085, 54.7925
3.32781, 2, -37.039, 0.654552, 20.5481, -160.568, -92.6085, 54.7925
3.33577, 2, -37.039, 0.654551, 20.5481, -160.568, -92.6085, 54.7926
3.34378, 2, -37.039, 0.654554, 20.548, -160.568, -92.6085, 54.7926
3.35183, 2, -37.039, 0.654552, 20.5481, -160.568, -92.6085, 54.7927
3.35977, 2, -37.039, 0.654536, 20.548, -160.568, -92.6084, 54.7927
3.36776, 2, -37.0389, 0.654555, 20.548, -160.568, -92.6085, 54.7927
3.37583, 2, -37.0389, 0.654552, 20.548, -160.568, -92.6085, 54.7928
3.38485, 2, -37.0389, 0.654525, 20.548, -160.567, -92.6085, 54.7928
3.39176, 2, -37.0389, 0.654524, 20.548, -160.567, -92.6085, 54.7928
3.39983, 2, -37.0389, 0.654538, 20.548, -160.567, -92.6085, 54.7928
3.40781, 2, -37.0389, 0.654537, 20.548, -160.567, -92.6085, 54.7928
3.41577, 2, -37.0389, 0.654529, 20.548, -160.567, -92.6086, 54.7929
3.42383, 2, -37.0389, 0.654541, 20.548, -160.567, -92.6086, 54.7929
3.43182, 2, -37.0389, 0.654551, 20.548, -160.567, -92.6086, 54.7929
3.43977, 2, -37.0389, 0.654554, 20.548, -160.567, -92.6086, 54.7929
3.44785, 2, -37.0389, 0.654563, 20.5479, -160.567, -92.6085, 54.7929
3.45577, 2, -37.0389, 0.654567, 20.5479, -160.567, -92.6086, 54.793
3.46376, 2, -37.0388, 0.654569, 20.5479, -160.567, -92.6085, 54.793
3.47183, 2, -37.0388, 0.65457, 20.5479, -160.567, -92.6085, 54.793
3.47982, 2, -37.0388, 0.65457, 20.5479, -160.567, -92.6085, 54.793
3.48776, 2, -37.0388, 0.654552, 20.5479, -160.567, -92.6085, 54.793
3.49583, 2, -37.0388, 0.654562, 20.5479, -160.567, -92.6085, 54.7929
3.50375, 2, -37.0388, 0.654567, 20.5479, -160.567, -92.6085, 54.7929
3.51176, 2, -37.0388, 0.65455, 20.5479, -160.567, -92.6085, 54.793
3.51983, 2, -37.0388, 0.654568, 20.5479, -160.567, -92.6086, 54.793
3.52777, 2, -37.0388, 0.654574, 20.5479, -160.567, -92.6086, 54.793
3.53577, 2, -37.0387, 0.654584, 20.5479, -160.567, -92.6085, 54.793
3.54382, 2, -37.0387, 0.654589, 20.5479, -160.567, -92.6086, 54.793
3.55177, 2, -37.0387, 0.654591, 20.5478, -160.567, -92.6086, 54.7931
3.5598, 2, -37.0387, 0.654592, 20.5478, -160.567, -92.6086, 54.7931
3.56786, 2, -37.0387, 0.65458, 20.5478, -160.567, -92.6086, 54.7931
3.57589, 2, -37.0387, 0.654582, 20.5478, -160.567, -92.6086, 54.7931
3.58385, 2, -37.0387, 0.654588, 20.5478, -160.567, -92.6086, 54.7931
3.59192, 2, -37.0387, 0.654583, 20.5478, -160.567, -92.6087, 54.7931
3.59987, 2, -37.0387, 0.654576, 20.5478, -160.567, -92.6086, 54.7931
3.60786, 2, -37.0387, 0.654555, 20.5478, -160.567, -92.6087, 54.7932
3.61596, 2, -37.0386, 0.654552, 20.5478, -160.567, -92.6087, 54.7931
3.62376, 2, -37.0386, 0.654555, 20.5478, -160.567, -92.6087, 54.7931
3.63179, 2, -37.0386, 0.654552, 20.5478, -160.567, -92.6087, 54.7931
3.64016, 2, -37.0386, 0.654567, 20.5478, -160.567, -92.6087, 54.7931
3.64791, 2, -37.0386, 0.654569, 20.5477, -160.567, -92.6086, 54.7931
3.65604, 2, -37.0386, 0.65457, 20.5478, -160.567, -92.6086, 54.7932
3.66276, 2, -37.0386, 0.65457, 20.5477, -160.567, -92.6086, 54.7932
3.67203, 2, -37.0386, 0.654579, 20.5477, -160.567, -92.6087, 54.7932
3.6788, 2, -37.0386, 0.654583, 20.5477, -160.567, -92.6087, 54.7932
3.68817, 2, -37.0386, 0.654575, 20.5477, -160.567, -92.6087, 54.7932
3.69623, 2, -37.0386, 0.654565, 20.5477, -160.567, -92.6087, 54.7932
3.70481, 2, -37.0386, 0.65455, 20.5477, -160.567, -92.6087, 54.7932
3.71228, 2, -37.0385, 0.654561, 20.5477, -160.567, -92.6087, 54.7932
3.72034, 2, -37.0385, 0.654573, 20.5477, -160.567, -92.6086, 54.7932
3.72861, 4, -37.0386, 0.654584, 20.5477, -160.567, -92.6087, 54.7932
3.73632, 4, -37.0385, 0.654587, 20.5477, -160.567, -92.6087, 54.7932
3.74432, 4, -37.0385, 0.654585, 20.5477, -160.567, -92.6087, 54.7932
3.7518, 4, -37.0385, 0.654589, 20.5477, -160.567, -92.6086, 54.7932
3.75976, 4, -37.0385, 0.654596, 20.5476, -160.567, -92.6086, 54.7932
3.76854, 4, -37.0385, 0.654602, 20.5476, -160.567, -92.6086, 54.7932
3.7758, 4, -37.0385, 0.654597, 20.5476, -160.567, -92.6087, 54.7932
3.78377, 4, -37.0385, 0.6546, 20.5476, -160.567, -92.6086, 54.7932
3.79175, 4, -37.0385, 0.654596, 20.5476, -160.567, -92.6087, 54.7932
3.7998, 4, -37.0385, 0.654582, 20.5476, -160.567, -92.6087, 54.7932
3.80775, 4, -37.0384, 0.654583, 20.5476, -160.567, -92.6087, 54.7932
3.81587, 4, -37.0384, 0.654589, 20.5476, -160.567, -92.6087, 54.7932
3.8238, 4, -37.0384, 0.654596, 20.5476, -160.567, -92.6087, 54.7932
3.83191, 4, -37.0384, 0.654594, 20.5476, -160.567, -92.6087, 54.7932
3.8558, 4, -37.0384, 0.654605, 20.5475, -160.567, -92.6087, 54.7932
3.85855, 4, -37.0384, 0.654601, 20.5475, -160.567, -92.6087, 54.7932
3.8603, 4, -37.0384, 0.654601, 20.5475, -160.567, -92.6087, 54.7932
3.86697, 4, -37.0384, 0.654602, 20.5475, -160.567, -92.6087, 54.7932
3.87603, 4, -37.0383, 0.654586, 20.5475, -160.567, -92.6087, 54.7932
3.87988, 4, -37.0381, 0.654552, 20.5475, -160.567, -92.6087, 54.7932
3.88779, 4, -37.0366, 0.654131, 20.5476, -160.567, -92.6087, 54.7933
3.89576, 4, -37.0326, 0.652331, 20.548, -160.567, -92.6087, 54.7932
3.90492, 4, -37.025, 0.647989, 20.5495, -160.567, -92.6087, 54.7932
3.91184, 4, -37.0136, 0.640217, 20.5534, -160.566, -92.6088, 54.7932
3.91975, 4, -36.998, 0.628682, 20.5608, -160.565, -92.6087, 54.7932
3.9278, 5, -36.9771, 0.612645, 20.5733, -160.563, -92.6088, 54.7932
3.9358, 5, -36.9505, 0.592194, 20.592, -160.559, -92.6087, 54.7932
3.94375, 5, -36.9188, 0.567291, 20.6173, -160.554, -92.6083, 54.7931
3.952, 5, -36.8824, 0.537907, 20.6496, -160.547, -92.6079, 54.7931
3.95972, 5, -36.8409, 0.503999, 20.6881, -160.538, -92.6069, 54.7931
3.96776, 5, -36.7943, 0.465257, 20.7321, -160.529, -92.6056, 54.793
3.97597, 5, -36.7426, 0.422298, 20.7805, -160.518, -92.604, 54.7931
3.98402, 5, -36.6862, 0.375615, 20.8321, -160.506, -92.6024, 54.793
3.99179, 5, -36.6258, 0.326147, 20.8857, -160.494, -92.6007, 54.793
3.99981, 5, -36.5616, 0.274547, 20.9406, -160.482, -92.5989, 54.793
4.00775, 5, -36.4949, 0.221507, 20.9959, -160.47, -92.5971, 54.793
4.01576, 5, -36.4271, 0.167946, 21.0513, -160.457, -92.5953, 54.7929
4.02388, 5, -36.3585, 0.114112, 21.1068, -160.445, -92.5934, 54.793
4.03184, 5, -36.2898, 0.0601892, 21.1622, -160.434, -92.5916, 54.7929
4.03975, 5, -36.2208, 0.00641685, 21.2177, -160.422, -92.5895, 54.793
4.05104, 5, -36.1178, -0.0738282, 21.3008, -160.403, -92.5866, 54.7931
4.05595, 5, -36.0834, -0.100479, 21.3284, -160.397, -92.5857, 54.7931
4.0647, 5, -36.0147, -0.153593, 21.3837, -160.384, -92.5836, 54.7932
4.07178, 5, -35.9461, -0.206465, 21.4389, -160.371, -92.5816, 54.7933
4.07993, 5, -35.8775, -0.25919, 21.494, -160.358, -92.5796, 54.7937
4.08807, 5, -35.8086, -0.311792, 21.549, -160.346, -92.5777, 54.7942
4.09532, 5, -35.7396, -0.364411, 21.604, -160.333, -92.5756, 54.7949
4.10399, 5, -35.6704, -0.417012, 21.6587, -160.32, -92.5737, 54.7958
4.11234, 5, -35.6008, -0.469714, 21.7132, -160.308, -92.5716, 54.7968
4.11982, 5, -35.531, -0.522479, 21.7676, -160.295, -92.5695, 54.798
4.12801, 5, -35.4609, -0.575242, 21.8218, -160.283, -92.5675, 54.7994
4.13697, 5, -35.3906, -0.628023, 21.8758, -160.27, -92.5655, 54.8008
4.14385, 5, -35.3202, -0.680738, 21.9298, -160.257, -92.5634, 54.8025
4.15222, 5, -35.2496, -0.733443, 21.9836, -160.244, -92.5613, 54.8043
4.16092, 5, -35.179, -0.785844, 22.0373, -160.231, -92.5592, 54.8062
4.16821, 5, -35.1084, -0.838041, 22.0909, -160.217, -92.5571, 54.8082
4.17665, 5, -35.0378, -0.89013, 22.1444, -160.204, -92.555, 54.8104
4.18819, 5, -34.932, -0.967687, 22.2245, -160.184, -92.5518, 54.814
4.19076, 5, -34.932, -0.967687, 22.2245, -160.184, -92.5518, 54.814
4.20299, 5, -34.8263, -1.04484, 22.3043, -160.165, -92.5485, 54.8177
4.20688, 5, -34.791, -1.0705, 22.3308, -160.159, -92.5474, 54.8191
4.21649, 5, -34.6849, -1.14755, 22.41, -160.14, -92.5441, 54.8231
4.22437, 5, -34.614, -1.19877, 22.4626, -160.127, -92.5419, 54.8261
4.23308, 5, -34.5786, -1.25011, 22.515, -160.113, -92.5397, 54.8291
4.24038, 5, -34.5075, -1.30146, 22.5673, -160.1, -92.5374, 54.8322
4.24844, 5, -34.4361, -1.32712, 22.6194, -160.086, -92.5351, 54.8354
4.25751, 5, -34.3646, -1.37843, 22.6454, -160.079, -92.5328, 54.8387
4.26371, 5, -34.2929, -1.42968, 22.6973, -160.066, -92.5316, 54.8404
4.27178, 5, -34.2211, -1.4808, 22.7491, -160.052, -92.5294, 54.8439
4.27974, 5, -34.1492, -1.53172, 22.8009, -160.038, -92.5271, 54.8475
4.28775, 5, -34.0771, -1.58243, 22.8524, -160.025, -92.5248, 54.8512
4.29578, 5, -34.005, -1.63295, 22.9039, -160.011, -92.5225, 54.855
4.30393, 5, -33.9329, -1.6832, 22.9553, -159.998, -92.5201, 54.8591
4.31388, 5, -33.8246, -1.75826, 23.032, -159.978, -92.5167, 54.8652
4.31979, 5, -33.7885, -1.78323, 23.0575, -159.971, -92.5155, 54.8673
4.32808, 5, -33.7162, -1.8331, 23.1084, -159.957, -92.5132, 54.8715
4.33814, 5, -33.6076, -1.9078, 23.1843, -159.935, -92.5098, 54.8779
4.34376, 5, -33.5712, -1.93278, 23.2096, -159.928, -92.5087, 54.88
4.35253, 5, -33.4985, -1.98297, 23.26, -159.914, -92.5064, 54.8842
4.35879, 5, -33.4257, -2.0335, 23.3104, -159.9, -92.5041, 54.8879
4.36777, 5, -33.3531, -2.08441, 23.3608, -159.886, -92.5018, 54.8902
4.37862, 6, -33.2445, -2.16178, 23.4367, -159.864, -92.4979, 54.8911
4.38393, 6, -33.2085, -2.18798, 23.4622, -159.857, -92.4965, 54.8905
4.39172, 6, -33.1368, -2.24104, 23.5135, -159.842, -92.4931, 54.8875
4.39973, 6, -33.0654, -2.29495, 23.5657, -159.826, -92.4889, 54.88
4.4078, 7, -32.9946, -2.35004, 23.6189, -159.808, -92.4835, 54.8675
4.41577, 7, -32.9242, -2.40625, 23.6733, -159.79, -92.4765, 54.8521
4.42373, 7, -32.8544, -2.46383, 23.729, -159.77, -92.4677, 54.8348
4.43193, 7, -32.7851, -2.5229, 23.7861, -159.748, -92.457, 54.8174
4.44058, 7, -32.7165, -2.58355, 23.8445, -159.726, -92.4442, 54.8003
4.44773, 8, -32.6486, -2.64575, 23.9042, -159.703, -92.4297, 54.7835
4.45592, 8, -32.5814, -2.70965, 23.965, -159.678, -92.4132, 54.7667
4.46366, 8, -32.5148, -2.77528, 24.0269, -159.651, -92.3948, 54.7492
4.47173, 8, -32.449, -2.84246, 24.0898, -159.624, -92.3746, 54.7307
4.47974, 8, -32.3838, -2.91112, 24.1537, -159.596, -92.3532, 54.7105
4.48784, 9, -32.3192, -2.98113, 24.2186, -159.568, -92.3308, 54.6886
4.49578, 9, -32.2551, -3.05247, 24.2845, -159.538, -92.3071, 54.6649
4.50499, 9, -32.1915, -3.12514, 24.3514, -159.506, -92.2823, 54.6395
4.51186, 9, -32.1286, -3.19904, 24.4192, -159.474, -92.2556, 54.6129
4.52172, 9, -32.0662, -3.27428, 24.4881, -159.442, -92.2271, 54.585
4.52849, 10, -32.0044, -3.35076, 24.5579, -159.408, -92.1974, 54.5557
4.53575, 10, -31.9433, -3.42864, 24.6288, -159.373, -92.1668, 54.5244
4.5438, 10, -31.8826, -3.50796, 24.7007, -159.337, -92.1348, 54.4911
4.55529, 10, -31.7927, -3.62957, 24.8106, -159.282, -92.0831, 54.4383
4.55999, 10, -31.763, -3.67084, 24.8477, -159.264, -92.0652, 54.4202
4.56894, 11, -31.7041, -3.75444, 24.9227, -159.225, -92.0289, 54.3829
4.57607, 11, -31.6456, -3.83959, 24.9986, -159.185, -91.9915, 54.3438
4.58399, 11, -31.5877, -3.92617, 25.0754, -159.145, -91.9522, 54.3028
4.59214, 11, -31.5304, -4.01419, 25.1532, -159.104, -91.9112, 54.2602
4.5993, 11, -31.4735, -4.1037, 25.232, -159.061, -91.8696, 54.2167
4.6078, 12, -31.4173, -4.19475, 25.3119, -159.018, -91.8263, 54.1717
4.61638, 12, -31.3614, -4.28718, 25.3928, -158.975, -91.7809, 54.1244
4.62375, 12, -31.3061, -4.38099, 25.4749, -158.929, -91.7349, 54.0756
4.63269, 12, -31.2514, -4.4761, 25.558, -158.883, -91.6878, 54.0259
4.64411, 12, -31.1701, -4.62144, 25.6845, -158.812, -91.6135, 53.948
4.64815, 13, -31.1433, -4.6706, 25.7272, -158.788, -91.5884, 53.921
4.65474, 13, -31.1166, -4.72009, 25.77, -158.763, -91.563, 53.8938
4.66273, 13, -31.0636, -4.82011, 25.8564, -158.715, -91.5103, 53.8388
4.67278, 13, -30.9851, -4.97305, 25.9882, -158.639, -91.4295, 53.753
4.68034, 13, -30.9334, -5.07684, 26.0773, -158.588, -91.3737, 53.6938
4.68912, 13, -30.8822, -5.18202, 26.1676, -158.535, -91.3166, 53.6338
4.697, 14, -30.8317, -5.2887, 26.259, -158.481, -91.2587, 53.5716
4.70559, 14, -30.7817, -5.39681, 26.3512, -158.428, -91.1985, 53.5081
4.71449, 14, -30.7321, -5.50644, 26.4443, -158.373, -91.1381, 53.4439
4.72083, 14, -30.6831, -5.61763, 26.5384, -158.316, -91.0756, 53.3773
4.72828, 14, -30.6347, -5.73029, 26.6335, -158.26, -91.0117, 53.3096
4.73478, 15, -30.6106, -5.78714, 26.6815, -158.231, -90.9796, 53.2755
4.7445, 15, -30.5628, -5.90184, 26.8274, -158.143, -90.8799, 53.1699
4.75227, 15, -30.5156, -6.01775, 26.8766, -158.114, -90.8466, 53.1341
4.76111, 15, -30.4456, -6.19445, 27.0254, -158.023, -90.7431, 53.0247
4.76975, 15, -30.3996, -6.31396, 27.1258, -157.961, -90.6729, 52.9494
4.77571, 16, -30.3769, -6.37431, 27.1762, -157.93, -90.6369, 52.9116
4.78375, 16, -30.3317, -6.49621, 27.2781, -157.867, -90.5644, 52.8342
4.79174, 16, -30.287, -6.61948, 27.3812, -157.803, -90.4907, 52.7552
4.79972, 16, -30.2428, -6.74419, 27.4854, -157.738, -90.4156, 52.6755
4.8115, 16, -30.1773, -6.93411, 27.6437, -157.64, -90.3003, 52.5524
4.81573, 17, -30.1558, -6.9982, 27.6969, -157.606, -90.2614, 52.5111
4.82374, 17, -30.113, -7.12761, 27.8038, -157.539, -90.1823, 52.4267
4.83188, 17, -30.0707, -7.25854, 27.9117, -157.471, -90.102, 52.3417
4.84109, 17, -30.029, -7.39082, 28.0207, -157.402, -90.02, 52.2107
4.84779, 17, -29.9878, -7.5243, 28.131, -157.331, -89.9373, 52.1666
4.8557, 18, -29.9471, -7.6593, 28.2424, -157.261, -89.8528, 52.0771
4.86372, 18, -29.9069, -7.79569, 28.3548, -157.189, -89.767, 51.9864
4.87327, 18, -29.8672, -7.93362, 28.468, -157.116, -89.6803, 51.8476
4.8818, 18, -29.8083, -8.14271, 28.6394, -157.005, -89.5477, 51.7536
4.88982, 18, -29.7697, -8.28375, 28.7552, -156.93, -89.4575, 51.6577
4.89574, 19, -29.7506, -8.35476, 28.8136, -156.892, -89.4122, 51.6097
4.90372, 19, -29.7128, -8.49799, 28.9312, -156.816, -89.3204, 51.5123
4.91186, 19, -29.6753, -8.64287, 29.0497, -156.738, -89.2273, 51.414
4.92278, 19, -29.6201, -8.86272, 29.2289, -156.621, -89.0854, 51.2643
4.92773, 19, -29.6018, -8.93659, 29.289, -156.581, -89.0376, 51.2142
4.93591, 20, -29.5659, -9.08545, 29.4101, -156.501, -88.941, 51.1122
4.94376, 20, -29.5304, -9.2358, 29.5324, -156.421, -88.8433, 51.0095
4.95172, 20, -29.4952, -9.38778, 29.6559, -156.339, -88.7449, 50.905
4.95988, 20, -29.4606, -9.54096, 29.7802, -156.256, -88.6451, 50.7998
4.96722, 20, -29.4264, -9.69523, 29.9053, -156.173, -88.5443, 50.6932
4.97489, 20, -29.3928, -9.8507, 30.0313, -156.089, -88.4424, 50.5853
4.98378, 21, -29.3596, -10.0077, 30.1584, -156.003, -88.3392, 50.4766
4.99173, 21, -29.3267, -10.1664, 30.2866, -155.917, -88.2351, 50.3666
4.99971, 21, -29.2943, -10.3261, 30.4158, -155.831, -88.13, 50.2558
5.00786, 21, -29.2623, -10.4866, 30.5458, -155.743, -88.0237, 50.1442
5.01511, 21, -29.2307, -10.6485, 30.6766, -155.654, -87.9166, 50.0316
5.02376, 22, -29.1995, -10.8118, 30.8084, -155.564, -87.8085, 49.9185
5.03233, 22, -29.1686, -10.9765, 30.9411, -155.474, -87.6992, 49.8042
5.03971, 22, -29.1382, -11.142, 31.0748, -155.383, -87.5891, 49.689
5.04777, 22, -29.1082, -11.3085, 31.2094, -155.29, -87.4778, 49.5729
5.05672, 22, -29.0785, -11.4765, 31.3449, -155.197, -87.3658, 49.4559
5.06498, 23, -29.0493, -11.6463, 31.4813, -155.103, -87.2527, 49.3383
5.07122, 23, -29.0203, -11.8172, 31.6184, -155.009, -87.1386, 49.2198
5.08191, 23, -28.9917, -11.9887, 31.7563, -154.913, -87.0239, 49.1009
5.088, 23, -28.9636, -12.1615, 31.8951, -154.817, -86.9082, 48.9816
5.09588, 23, -28.9358, -12.3358, 32.0349, -154.72, -86.7914, 48.8612
5.10383, 24, -28.9085, -12.5113, 32.1755, -154.621, -86.6739, 48.7407
5.11183, 24, -28.8813, -12.6872, 32.3169, -154.522, -86.5553, 48.6196
5.1199, 24, -28.8546, -12.8639, 32.459, -154.422, -86.4361, 48.4976
5.12826, 24, -28.8283, -13.0421, 32.6018, -154.322, -86.3158, 48.3752
5.13612, 24, -28.8022, -13.2217, 32.7457, -154.22, -86.195, 48.2522
5.14383, 25, -28.7764, -13.4018, 32.8904, -154.118, -86.0734, 48.1289
5.15266, 25, -28.751, -13.5827, 33.0356, -154.015, -85.9509, 48.0054
5.15986, 25, -28.7257, -13.7647, 33.1813, -153.911, -85.8282, 47.882
5.16863, 25, -28.7006, -13.9483, 33.328, -153.807, -85.7041, 47.7581
5.17606, 25, -28.6759, -14.1325, 33.4755, -153.701, -85.5798, 47.6341
5.18292, 26, -28.6636, -14.2247, 33.5495, -153.648, -85.5175, 47.5722
5.19296, 26, -28.6273, -14.5027, 33.7722, -153.488, -85.3292, 47.3859
5.20019, 26, -28.6034, -14.69, 33.9214, -153.38, -85.2032, 47.2615
5.20891, 26, -28.5797, -14.8779, 34.0715, -153.271, -85.0763, 47.1374
5.21628, 26, -28.5561, -15.0658, 34.2223, -153.162, -84.9491, 47.0133
5.2243, 27, -28.5328, -15.2545, 34.3735, -153.052, -84.8212, 46.8894
5.23352, 27, -28.5097, -15.4442, 34.525, -152.942, -84.693, 46.7661
5.24355, 27, -28.4868, -15.6343, 34.6774, -152.83, -84.5641, 46.6427
5.24765, 27, -28.4754, -15.7295, 34.7539, -152.774, -84.4994, 46.5812
5.25817, 27, -28.4418, -16.0162, 34.9841, -152.605, -84.3051, 46.3969
5.26463, 28, -28.4307, -16.2091, 35.1376, -152.492, -84.175, 46.2744
5.27169, 28, -28.4083, -16.3058, 35.2145, -152.435, -84.1099, 46.2134
5.2788, 28, -28.386, -16.4995, 35.3691, -152.321, -83.9791, 46.0915
5.28787, 28, -28.3639, -16.6938, 35.5243, -152.205, -83.8482, 45.9702
5.29571, 28, -28.3418, -16.8893, 35.6798, -152.09, -83.7169, 45.8498
5.3038, 28, -28.3198, -17.0852, 35.8354, -151.973, -83.5853, 45.7301
5.31171, 29, -28.2978, -17.2809, 35.9916, -151.856, -83.4535, 45.6115
5.31877, 29, -28.2761, -17.477, 36.1484, -151.738, -83.3213, 45.4938
5.32772, 29, -28.2542, -17.6741, 36.3055, -151.62, -83.1888, 45.3769
5.33583, 29, -28.2324, -17.8713, 36.4624, -151.501, -83.056, 45.2611
5.34378, 29, -28.2108, -18.0684, 36.6196, -151.382, -82.9231, 45.1462
5.35178, 30, -28.1893, -18.2662, 36.7778, -151.262, -82.7898, 45.0325
5.36002, 30, -28.1677, -18.4647, 36.9362, -151.141, -82.6569, 44.9202
5.37149, 30, -28.146, -18.6633, 37.0943, -151.02, -82.5235, 44.7541
5.37475, 30, -28.1245, -18.862, 37.2525, -150.898, -82.39, 44.6995
5.38448, 30, -28.1029, -19.0619, 37.4113, -150.776, -82.2563, 44.5916
5.39073, 31, -28.0812, -19.2624, 37.5704, -150.653, -82.1224, 44.4853
5.39972, 31, -28.0595, -19.4628, 37.7294, -150.53, -81.9887, 44.3803
5.41051, 31, -28.0273, -19.7637, 37.9681, -150.344, -81.7876, 44.226
5.41593, 31, -28.0165, -19.8643, 38.048, -150.281, -81.7206, 44.1754
5.42372, 31, -27.9948, -20.0654, 38.2083, -150.156, -81.5862, 44.0747
5.4317, 32, -27.9732, -20.2661, 38.3683, -150.03, -81.452, 43.9762
5.43972, 32, -27.9515, -20.4673, 38.5279, -149.903, -81.3177, 43.879
5.44777, 32, -27.9295, -20.6693, 38.688, -149.776, -81.1837, 43.7842
5.4557, 32, -27.9073, -20.8711, 38.8485, -149.648, -81.0492, 43.691
5.46395, 32, -27.885, -21.0724, 39.0086, -149.52, -80.9153, 43.601
5.47168, 33, -27.8624, -21.274, 39.168, -149.392, -80.7817, 43.5132
5.47972, 33, -27.8396, -21.4754, 39.3275, -149.264, -80.6485, 43.429
5.48781, 33, -27.8163, -21.6758, 39.4869, -149.136, -80.5158, 43.3475
5.49921, 33, -27.7924, -21.9755, 39.7245, -148.943, -80.3178, 43.2322
5.50273, 33, -27.768, -22.0754, 39.8031, -148.88, -80.252, 43.1952
5.51171, 34, -27.7432, -22.2745, 39.9601, -148.752, -80.1207, 43.1243
5.51979, 34, -27.7178, -22.4724, 40.117, -148.624, -79.99, 43.0572
5.5277, 34, -27.6918, -22.6696, 40.2734, -148.496, -79.8591, 42.9924
5.53898, 34, -27.6521, -22.965, 40.5064, -148.305, -79.6631, 42.9026
5.54392, 34, -27.6386, -23.0631, 40.584, -148.241, -79.5977, 42.8743
5.55094, 34, -27.6111, -23.2586, 40.7393, -148.113, -79.4671, 42.8195
5.56, 35, -27.5836, -23.4542, 40.8944, -147.984, -79.3364, 42.7683
5.56787, 35, -27.5557, -23.6502, 41.0487, -147.855, -79.206, 42.721
5.576, 35, -27.5275, -23.8456, 41.2028, -147.726, -79.0758, 42.6769
5.58378, 35, -27.4992, -24.0404, 41.3569, -147.596, -78.9456, 42.6359
5.59183, 35, -27.4705, -24.2351, 41.511, -147.466, -78.8158, 42.5983
5.6002, 36, -27.4413, -24.4298, 41.6646, -147.336, -78.6859, 42.565
5.60726, 36, -27.4119, -24.6236, 41.8175, -147.205, -78.5569, 42.536
5.61605, 36, -27.3821, -24.8167, 41.9701, -147.074, -78.4278, 42.5113
5.62653, 36, -27.3516, -25.0098, 42.1225, -146.943, -78.2994, 42.4907
5.63183, 36, -27.3203, -25.2024, 42.2738, -146.812, -78.1715, 42.4746
5.63982, 37, -27.2882, -25.3937, 42.4239, -146.682, -78.0439, 42.4632
5.64775, 37, -27.2554, -25.5839, 42.5732, -146.552, -77.9169, 42.4566
5.65582, 37, -27.2217, -25.7736, 42.7216, -146.422, -77.7901, 42.4537
5.6642, 37, -27.1871, -25.9621, 42.869, -146.294, -77.6641, 42.4539
5.67286, 37, -27.1515, -26.1487, 43.0151, -146.165, -77.5383, 42.46
5.68002, 38, -27.115, -26.3339, 43.1599, -146.038, -77.4133, 42.4723
5.6896, 38, -27.0778, -26.5185, 43.3037, -145.911, -77.2887, 42.4898
5.69645, 38, -27.0397, -26.7018, 43.4468, -145.784, -77.1647, 42.5129
5.70454, 38, -27.0007, -26.8836, 43.5889, -145.658, -77.0412, 42.5413
5.71071, 38, -26.981, -26.9742, 43.6595, -145.595, -76.9795, 42.5577
5.72022, 39, -26.9207, -27.2453, 43.8701, -145.406, -76.7955, 42.6162
5.72836, 39, -26.8796, -27.4252, 44.0095, -145.28, -76.6727, 42.6626
5.73632, 39, -26.8377, -27.6038, 44.1483, -145.154, -76.5504, 42.7142
5.74284, 39, -26.8164, -27.6927, 44.2173, -145.091, -76.4893, 42.7422
5.75221, 39, -26.7734, -27.8706, 44.3547, -144.966, -76.3668, 42.8033
5.76028, 40, -26.7297, -28.048, 44.4911, -144.84, -76.2446, 42.8706
5.76671, 40, -26.6848, -28.224, 44.6265, -144.715, -76.1223, 42.9434
5.7757, 40, -26.639, -28.3985, 44.7609, -144.591, -76.0006, 43.0238
5.78371, 40, -26.5924, -28.5718, 44.894, -144.467, -75.879, 43.1094
5.79183, 40, -26.5447, -28.7442, 45.0257, -144.345, -75.7578, 43.2025
5.79974, 41, -26.4958, -28.9148, 45.156, -144.223, -75.6374, 43.3017
5.80769, 41, -26.4459, -29.0835, 45.2849, -144.102, -75.5171, 43.4081
5.81571, 41, -26.3948, -29.2506, 45.4124, -143.982, -75.3975, 43.5208
5.82369, 41, -26.3423, -29.4166, 45.5384, -143.862, -75.2784, 43.6405
5.83072, 41, -26.2885, -29.581, 45.6628, -143.745, -75.1595, 43.7674
5.83985, 42, -26.2334, -29.743, 45.7853, -143.628, -75.0416, 43.9017
5.84774, 42, -26.1768, -29.9035, 45.906, -143.513, -74.9237, 44.0432
5.85469, 42, -26.1187, -30.0621, 46.0249, -143.399, -74.8067, 44.1918
5.86374, 42, -26.059, -30.2191, 46.1417, -143.287, -74.6901, 44.3475
5.87071, 42, -25.9978, -30.3735, 46.2566, -143.177, -74.5738, 44.5106
5.8797, 42, -25.935, -30.5257, 46.3694, -143.068, -74.4583, 44.6808
5.88792, 43, -25.8705, -30.6757, 46.4801, -142.962, -74.3429, 44.8587
5.89953, 43, -25.7707, -30.8969, 46.6421, -142.805, -74.1711, 45.1404
5.90369, 43, -25.7366, -30.9695, 46.6952, -142.754, -74.1139, 45.2381
5.91396, 43, -25.632, -31.1836, 46.8513, -142.603, -73.943, 45.5427
5.91985, 43, -25.5963, -31.2538, 46.9024, -142.553, -73.8863, 45.648
5.92778, 44, -25.5236, -31.3927, 47.003, -142.456, -73.7731, 45.8646
5.9357, 44, -25.4491, -31.5293, 47.1011, -142.361, -73.6605, 46.0891
5.94385, 44, -25.3726, -31.6637, 47.1967, -142.268, -73.5483, 46.3219
5.9517, 44, -25.2944, -31.7954, 47.2899, -142.177, -73.4364, 46.5628
5.95975, 44, -25.2144, -31.9243, 47.3808, -142.089, -73.3254, 46.8118
5.96771, 45, -25.1324, -32.0507, 47.4692, -142.004, -73.2149, 47.0693
5.97569, 45, -25.0485, -32.1742, 47.5551, -141.922, -73.105, 47.3353
5.98375, 45, -24.9624, -32.295, 47.6382, -141.843, -72.996, 47.6093
5.99189, 45, -24.8744, -32.4128, 47.7183, -141.766, -72.8874, 47.8916
5.99917, 45, -24.784, -32.5276, 47.7954, -141.693, -72.7799, 48.1822
6.00681, 46, -24.6914, -32.6391, 47.8695, -141.623, -72.6731, 48.4817
6.01574, 46, -24.5965, -32.7473, 47.9407, -141.557, -72.5669, 48.7895
6.02372, 46, -24.4991, -32.8522, 48.0089, -141.493, -72.4619, 49.1057
6.0317, 46, -24.3995, -32.9536, 48.074, -141.435, -72.3575, 49.4307
6.03986, 46, -24.2976, -33.0512, 48.1357, -141.379, -72.2541, 49.7643
6.04831, 47, -24.1933, -33.1451, 48.1939, -141.328, -72.152, 50.1058
6.05588, 47, -24.0867, -33.235, 48.2486, -141.28, -72.0506, 50.4557
6.0643, 47, -23.9774, -33.3208, 48.2995, -141.236, -71.9504, 50.814
6.07178, 47, -23.8654, -33.4024, 48.3467, -141.198, -71.8514, 51.1807
6.07972, 47, -23.7507, -33.4799, 48.39, -141.164, -71.7535, 51.556
6.08877, 48, -23.6332, -33.5531, 48.4293, -141.135, -71.6568, 51.9399
6.09835, 48, -23.5129, -33.6217, 48.4645, -141.11, -71.562, 52.3318
6.10343, 48, -23.3901, -33.6857, 48.4955, -141.089, -71.4686, 52.7327
6.11542, 48, -23.2013, -33.7726, 48.5343, -141.068, -71.3322, 53.3508
6.12001, 48, -23.1369, -33.799, 48.545, -141.064, -71.2878, 53.5612
6.12767, 49, -23.0062, -33.848, 48.5632, -141.059, -71.2002, 53.9885
6.13633, 49, -22.8725, -33.8918, 48.5769, -141.058, -71.1144, 54.4231
6.14577, 49, -22.7359, -33.93, 48.586, -141.063, -71.0311, 54.8656
6.15269, 49, -22.5963, -33.9625, 48.5904, -141.074, -70.9494, 55.316
6.15979, 49, -22.4538, -33.9894, 48.5905, -141.091, -70.8703, 55.7737
6.16824, 49, -22.3086, -34.0103, 48.5856, -141.115, -70.7934, 56.2396
6.17677, 50, -22.1608, -34.0251, 48.5757, -141.144, -70.7196, 56.7123
6.18392, 50, -22.0102, -34.0335, 48.5607, -141.179, -70.6482, 57.193
6.19289, 50, -21.8569, -34.0359, 48.5404, -141.22, -70.5803, 57.6818
6.20023, 50, -21.7004, -34.0323, 48.5147, -141.269, -70.5151, 58.1782
6.20828, 50, -21.5408, -34.0219, 48.4835, -141.322, -70.4542, 58.6814
6.21727, 51, -21.3783, -34.0048, 48.4471, -141.382, -70.3959, 59.1903
6.22511, 51, -21.2133, -33.9808, 48.4052, -141.449, -70.3417, 59.7058
6.2307, 51, -21.1297, -33.9662, 48.3821, -141.484, -70.3162, 59.9656
6.24294, 51, -20.8755, -33.9118, 48.3047, -141.6, -70.2442, 60.7536
6.24681, 51, -20.7895, -33.89, 48.276, -141.642, -70.2222, 61.0187
6.25564, 52, -20.6155, -33.8407, 48.2144, -141.73, -70.182, 61.5532
6.26371, 52, -20.4388, -33.7837, 48.1468, -141.824, -70.1464, 62.094
6.27551, 52, -20.1687, -33.6832, 48.0343, -141.978, -70.1011, 62.917
6.27981, 52, -20.0772, -33.6456, 47.9936, -142.032, -70.0885, 63.1941
6.28768, 52, -19.8925, -33.5641, 47.9076, -142.145, -70.0674, 63.753
6.29566, 53, -19.7055, -33.474, 47.8151, -142.265, -70.0519, 64.3185
6.3037, 53, -19.5164, -33.3753, 47.7164, -142.391, -70.0419, 64.89
6.31167, 53, -19.3253, -33.2684, 47.6113, -142.523, -70.0375, 65.4667
6.31983, 53, -19.132, -33.1532, 47.5002, -142.661, -70.0379, 66.048
6.32766, 53, -18.937, -33.0295, 47.3828, -142.805, -70.0443, 66.634
6.33578, 54, -18.74, -32.8973, 47.2593, -142.954, -70.0571, 67.2229
6.34651, 54, -18.441, -32.6834, 47.063, -143.186, -70.0883, 68.1083
6.3539, 54, -18.2392, -32.5305, 46.9254, -143.346, -70.1177, 68.7002
6.35966, 54, -18.1378, -32.4511, 46.8545, -143.428, -70.1347, 68.9964
6.36768, 54, -17.9341, -32.2857, 46.7086, -143.595, -70.1729, 69.5897
6.37587, 55, -17.7294, -32.1114, 46.5569, -143.766, -70.2181, 70.1838
6.38367, 55, -17.5239, -31.9278, 46.3991, -143.942, -70.2717, 70.7813
6.39269, 55, -17.317, -31.7352, 46.2353, -144.122, -70.3319, 71.3824
6.39971, 55, -17.1085, -31.5331, 46.0647, -144.307, -70.4013, 71.9877
6.40775, 55, -16.8982, -31.3203, 45.8864, -144.497, -70.4786, 72.5972
6.41569, 55, -16.6863, -31.0971, 45.7013, -144.692, -70.5654, 73.2116
6.42482, 56, -16.4729, -30.8637, 45.5097, -144.892, -70.661, 73.8307
6.43394, 56, -16.1507, -30.4927, 45.2075, -145.2, -70.8219, 74.765
6.43888, 56, -16.0431, -30.3636, 45.103, -145.304, -70.8804, 75.0781
6.44791, 56, -15.8282, -30.0977, 44.8896, -145.516, -71.0043, 75.7066
6.45567, 56, -15.6129, -29.8205, 44.6694, -145.731, -71.1379, 76.3371
6.46369, 57, -15.3963, -29.5327, 44.4413, -145.949, -71.2813, 76.9683
6.47176, 57, -15.1786, -29.2347, 44.2071, -146.17, -71.4347, 77.6014
6.47967, 57, -14.9601, -28.9263, 43.9662, -146.392, -71.598, 78.2356
6.48767, 57, -14.7418, -28.6094, 43.719, -146.616, -71.7711, 78.868
6.49591, 58, -14.524, -28.2841, 43.4675, -146.841, -71.9533, 79.4986
6.50354, 58, -14.3072, -27.9517, 43.2113, -147.066, -72.1434, 80.1258
6.51167, 58, -14.0918, -27.6112, 42.9518, -147.289, -72.341, 80.7475
6.51974, 58, -13.8781, -27.2638, 42.6899, -147.51, -72.5455, 81.3614
6.52769, 58, -13.6659, -26.9096, 42.4248, -147.729, -72.7566, 81.969
6.53568, 58, -13.4549, -26.5492, 42.1576, -147.946, -72.9741, 82.5697
6.54375, 59, -13.2455, -26.182, 41.8869, -148.161, -73.1986, 83.164
6.55168, 59, -13.0378, -25.8079, 41.6127, -148.373, -73.4307, 83.7531
6.55975, 59, -12.8318, -25.4269, 41.3352, -148.585, -73.6709, 84.3386
6.56783, 59, -12.6269, -25.0394, 41.0533, -148.794, -73.9196, 84.9209
6.57603, 59, -12.4229, -24.6441, 40.7677, -149.002, -74.1773, 85.4995
6.5838, 60, -12.22, -24.2412, 40.4771, -149.209, -74.4441, 86.0751
6.59402, 60, -12.0184, -23.8307, 40.1829, -149.414, -74.7199, 86.6478
6.60001, 60, -11.8182, -23.4139, 39.885, -149.616, -75.0046, 87.2175
6.60801, 60, -11.6196, -22.9907, 39.5849, -149.817, -75.2976, 87.7818
6.61529, 60, -11.4233, -22.5625, 39.2828, -150.013, -75.5978, 88.3411
6.62393, 61, -11.2293, -22.1304, 38.9794, -150.206, -75.9044, 88.894
6.63229, 61, -11.0376, -21.6942, 38.6752, -150.395, -76.2162, 89.4389
6.63969, 61, -10.8481, -21.2545, 38.3705, -150.579, -76.5322, 89.974
6.64872, 61, -10.661, -20.8115, 38.0666, -150.757, -76.8523, 90.4993
6.65625, 61, -10.4763, -20.3648, 37.7624, -150.93, -77.1763, 91.0156
6.66271, 61, -10.3848, -20.1402, 37.6105, -151.014, -77.3397, 91.2702
6.67268, 62, -10.1148, -19.4613, 37.1543, -151.261, -77.8371, 92.0214
6.67996, 62, -9.93805, -19.0056, 36.8497, -151.42, -78.1752, 92.5123
6.68877, 62, -9.76388, -18.5469, 36.5435, -151.574, -78.519, 92.9968
6.69643, 62, -9.59215, -18.0858, 36.2368, -151.724, -78.8685, 93.4741
6.70459, 63, -9.42256, -17.6228, 35.9296, -151.87, -79.2231, 93.944
6.71299, 63, -9.25504, -17.1578, 35.6229, -152.011, -79.5824, 94.4047
6.72022, 63, -9.0898, -16.6914, 35.3173, -152.146, -79.9453, 94.856
6.72902, 63, -8.92717, -16.2231, 35.0126, -152.276, -80.3116, 95.2977
6.73624, 63, -8.76713, -15.7531, 34.7096, -152.401, -80.6799, 95.7282
6.74456, 63, -8.60983, -15.2822, 34.4085, -152.52, -81.0503, 96.1486
6.75344, 64, -8.45517, -14.8109, 34.1102, -152.633, -81.4224, 96.5571
6.75966, 64, -8.37878, -14.5751, 33.9614, -152.688, -81.6091, 96.7571
6.77102, 64, -8.15343, -13.8679, 33.518, -152.844, -82.1719, 97.3406
6.77653, 64, -8.07954, -13.6325, 33.371, -152.893, -82.3604, 97.5294
6.78458, 64, -7.93369, -13.1628, 33.0785, -152.987, -82.9282, 98.0775
6.79171, 65, -7.7905, -12.6945, 32.7888, -153.076, -83.1182, 98.2543
6.79871, 65, -7.64994, -12.228, 32.5015, -153.159, -83.4986, 98.5982
6.80768, 65, -7.5124, -11.7631, 32.2179, -153.236, -83.88, 98.9288
6.81467, 65, -7.37777, -11.2989, 31.9374, -153.307, -84.2616, 99.246
6.82387, 65, -7.24588, -10.8358, 31.6601, -153.373, -84.6439, 99.5499
6.83177, 66, -7.11672, -10.3745, 31.3863, -153.433, -85.0264, 99.8396
6.83867, 66, -6.98962, -9.91537, 31.1147, -153.488, -85.4092, 100.115
6.84794, 66, -6.8645, -9.46001, 30.847, -153.537, -85.7925, 100.375
6.85567, 66, -6.74145, -9.00957, 30.5826, -153.581, -86.175, 100.619
6.86372, 66, -6.62062, -8.56521, 30.3222, -153.62, -86.556, 100.847
6.87332, 67, -6.50231, -8.12637, 30.067, -153.667, -87.1212, 101.157
6.87984, 67, -6.38677, -7.69366, 29.8171, -153.679, -87.3073, 101.251
6.88766, 67, -6.27429, -7.26723, 29.5747, -153.7, -87.6753, 101.426
6.89903, 67, -6.1107, -6.63864, 29.2244, -153.721, -88.2152, 101.656
6.9039, 67, -6.05744, -6.43261, 29.1109, -153.725, -88.3921, 101.723
6.91164, 68, -5.95261, -6.02543, 28.8894, -153.73, -88.7417, 101.845
6.91974, 68, -5.84974, -5.62532, 28.6737, -153.731, -89.0867, 101.949
6.92776, 68, -5.74862, -5.23121, 28.4621, -153.727, -89.4284, 102.036
6.93576, 68, -5.64929, -4.84327, 28.2546, -153.718, -89.7679, 102.106
6.94371, 68, -5.5516, -4.46079, 28.0507, -153.705, -90.1061, 102.158
6.95181, 69, -5.45562, -4.08322, 27.8497, -153.688, -90.4431, 102.191
6.96063, 69, -5.36138, -3.70916, 27.6526, -153.667, -90.7796, 102.207
6.96771, 69, -5.26879, -3.33871, 27.4599, -153.64, -91.1156, 102.206
6.97575, 69, -5.17795, -2.97176, 27.2704, -153.609, -91.4507, 102.183
6.98371, 69, -5.08894, -2.60848, 27.0839, -153.575, -91.7854, 102.14
6.99188, 70, -5.00142, -2.24763, 26.9014, -153.537, -92.1192, 102.074
6.99989, 70, -4.91522, -1.8906, 26.7225, -153.495, -92.4523, 101.987
7.0095, 70, -4.83017, -1.5376, 26.5463, -153.449, -92.7848, 101.878
7.0148, 70, -4.74606, -1.18987, 26.3738, -153.4, -93.1162, 101.745
7.02424, 70, -4.66303, -0.84697, 26.2058, -153.348, -93.4463, 101.591
7.03184, 71, -4.58101, -0.510384, 26.0413, -153.292, -93.7741, 101.414
7.03966, 71, -4.49998, -0.179729, 25.8806, -153.234, -94.0991, 101.216
7.04957, 71, -4.42008, 0.144235, 25.7252, -153.173, -94.4207, 100.997
7.05566, 71, -4.34111, 0.462291, 25.5754, -153.109, -94.738, 100.757
7.06379, 71, -4.26298, 0.774666, 25.4304, -153.044, -95.0513, 100.497
7.07169, 71, -4.18579, 1.08019, 25.2901, -152.976, -95.3604, 100.217
7.08409, 72, -4.07086, 1.5264, 25.0877, -152.872, -95.8178, 99.7585
7.08779, 72, -4.03268, 1.67158, 25.022, -152.836, -95.9688, 99.5952
7.09574, 72, -3.95652, 1.9572, 24.8932, -152.765, -96.269, 99.2525
7.1039, 72, -3.88046, 2.23659, 24.7675, -152.692, -96.567, 98.8887
7.11176, 72, -3.8044, 2.50923, 24.6448, -152.619, -96.8627, 98.503
7.11977, 73, -3.72853, 2.77587, 24.5253, -152.545, -97.1557, 98.0953
7.12823, 73, -3.65248, 3.03609, 24.4092, -152.471, -97.4458, 97.6661
7.13566, 73, -3.57615, 3.28947, 24.2972, -152.397, -97.7324, 97.2154
7.14382, 73, -3.49954, 3.53657, 24.1891, -152.325, -98.015, 96.7451
7.15205, 73, -3.42259, 3.77645, 24.0854, -152.253, -98.2933, 96.2554
7.15971, 74, -3.34495, 4.00777, 23.9859, -152.182, -98.567, 95.7475
7.168, 74, -3.26666, 4.23069, 23.8904, -152.112, -98.835, 95.2233
7.17586, 74, -3.18776, 4.44488, 23.799, -152.044, -99.0975, 94.6844
7.184, 74, -3.10807, 4.64927, 23.7116, -151.979, -99.3536, 94.133
7.19065, 74, -3.06798, 4.74784, 23.6696, -151.947, -99.4791, 93.8525
7.20037, 75, -2.94639, 5.02971, 23.5496, -151.854, -99.8444, 92.9948
7.2105, 75, -2.86412, 5.20532, 23.4747, -151.797, -100.078, 92.4112
7.21462, 75, -2.8226, 5.28904, 23.4387, -151.769, -100.191, 92.1163
7.22571, 75, -2.69669, 5.52439, 23.3362, -151.689, -100.519, 91.2187
7.23368, 75, -2.6117, 5.66812, 23.2729, -151.641, -100.725, 90.6105
7.24025, 76, -2.52573, 5.80065, 23.2137, -151.595, -100.923, 89.9947
7.24827, 76, -2.48237, 5.92183, 23.1588, -151.554, -101.112, 89.3701
7.25613, 76, -2.39491, 5.97806, 23.133, -151.535, -101.203, 89.0543
7.26365, 76, -2.30675, 6.08144, 23.0847, -151.499, -101.377, 88.4165
7.27228, 76, -2.21775, 6.17238, 23.041, -151.467, -101.542, 87.7725
7.28047, 77, -2.1279, 6.25052, 23.0021, -151.439, -101.695, 87.1223
7.28763, 77, -2.03717, 6.31548, 22.9685, -151.416, -101.837, 86.4689
7.29465, 77, -1.94559, 6.36711, 22.9403, -151.396, -101.965, 85.8162
7.3037, 77, -1.85312, 6.40474, 22.9178, -151.38, -102.08, 85.166
7.31066, 77, -1.75974, 6.42817, 22.9011, -151.368, -102.18, 84.5189
7.31964, 77, -1.66555, 6.4373, 22.8902, -151.36, -102.265, 83.8761
7.3278, 78, -1.57059, 6.43162, 22.885, -151.356, -102.335, 83.2387
7.33925, 78, -1.4269, 6.3943, 22.8873, -151.354, -102.411, 82.2887
7.34364, 78, -1.37882, 6.37413, 22.8911, -151.354, -102.428, 81.9742
7.35308, 78, -1.28233, 6.3217, 22.9031, -151.363, -102.457, 81.038
7.36121, 78, -1.18557, 6.25309, 22.9215, -151.367, -102.459, 80.4201
7.36764, 79, -1.08873, 6.16817, 22.9468, -151.379, -102.449, 80.1132
7.37828, 79, -0.943125, 6.01046, 22.9984, -151.402, -102.401, 79.2035
7.38371, 79, -0.894601, 5.94982, 23.0193, -151.411, -102.376, 78.9047
7.3932, 79, -0.797553, 5.81625, 23.0669, -151.432, -102.313, 78.3131
7.39964, 79, -0.700529, 5.66613, 23.1222, -151.455, -102.232, 77.7311
7.40777, 80, -0.603611, 5.49977, 23.185, -151.481, -102.133, 77.1599
7.41672, 80, -0.5066, 5.31698, 23.2555, -151.508, -102.015, 76.6004
7.42365, 80, -0.409518, 5.11774, 23.3341, -151.536, -101.878, 76.0521
7.4318, 80, -0.312606, 4.9016, 23.4206, -151.566, -101.723, 75.515
7.43966, 80, -0.215886, 4.66736, 23.5153, -151.598, -101.55, 74.9883
7.44771, 81, -0.119301, 4.41563, 23.6187, -151.631, -101.357, 74.473
7.4563, 81, -0.0228709, 4.14755, 23.7308, -151.665, -101.146, 73.9671
7.46446, 81, 0.073292, 3.86256, 23.8519, -151.7, -100.916, 73.4702
7.47177, 81, 0.169284, 3.56142, 23.9825, -151.736, -100.667, 72.9828
7.48067, 81, 0.265022, 3.24312, 24.1228, -151.772, -100.398, 72.5045
7.48779, 82, 0.360509, 2.90785, 24.2729, -151.809, -100.111, 72.036
7.49564, 82, 0.45589, 2.55608, 24.4323, -151.846, -99.8051, 71.5764
7.50543, 82, 0.550962, 2.18836, 24.6007, -151.883, -99.48, 71.1264
7.51167, 82, 0.645931, 1.80443, 24.7789, -151.921, -99.1371, 70.6858
7.5197, 82, 0.74074, 1.40368, 24.9666, -151.957, -98.7766, 70.2553
7.52761, 83, 0.835508, 0.986462, 25.1634, -151.992, -98.3989, 69.8351
7.5358, 83, 0.93027, 0.554595, 25.37, -152.027, -98.0046, 69.424
7.54387, 83, 1.02495, 0.107651, 25.5874, -152.062, -97.5939, 69.0229
7.55173, 83, 1.11983, -0.354398, 25.814, -152.094, -97.1673, 68.6315
7.56128, 83, 1.21471, -0.830916, 26.0497, -152.126, -96.7249, 68.2488
7.56778, 83, 1.30974, -1.32199, 26.296, -152.156, -96.2666, 67.8754
7.57575, 84, 1.40513, -1.82714, 26.5522, -152.186, -95.7923, 67.51
7.58367, 84, 1.50068, -2.34556, 26.8191, -152.214, -95.303, 67.1524
7.59198, 84, 1.5965, -2.87783, 27.0961, -152.239, -94.7976, 66.8022
7.59984, 84, 1.69272, -3.4236, 27.3833, -152.264, -94.277, 66.4592
7.60777, 84, 1.78936, -3.98287, 27.6812, -152.286, -93.7419, 66.1232
7.61597, 85, 1.88623, -4.55456, 27.9886, -152.307, -93.1919, 65.7953
7.62447, 85, 1.98347, -5.13731, 28.3063, -152.327, -92.6272, 65.4755
7.63226, 85, 2.08113, -5.73057, 28.6328, -152.343, -92.0507, 65.1639
7.64114, 85, 2.17922, -6.33274, 28.9685, -152.358, -91.4645, 64.8608
7.64978, 85, 2.27799, -6.94234, 29.3123, -152.369, -90.868, 64.5672
7.65649, 86, 2.37738, -7.55913, 29.6641, -152.378, -90.2617, 64.2836
7.66369, 86, 2.47767, -8.18194, 30.0227, -152.383, -89.6467, 64.0102
7.67181, 86, 2.57894, -8.81084, 30.3877, -152.386, -89.0237, 63.7478
7.67991, 86, 2.68086, -9.44516, 30.7583, -152.387, -88.3961, 63.4969
7.68787, 86, 2.78406, -10.0838, 31.1342, -152.385, -87.7642, 63.2575
7.69628, 87, 2.88829, -10.7263, 31.5159, -152.378, -87.1266, 63.03
7.70443, 87, 2.99317, -11.3714, 31.9019, -152.368, -86.484, 62.8144
7.71211, 87, 3.09921, -12.0194, 32.2925, -152.355, -85.8363, 62.6112
7.72018, 87, 3.20592, -12.6697, 32.6876, -152.337, -85.1847, 62.4208
7.72817, 87, 3.31342, -13.3229, 33.088, -152.315, -84.5291, 62.243
7.73622, 88, 3.42161, -13.9789, 33.4937, -152.29, -83.8679, 62.0783
7.74514, 88, 3.53033, -14.6374, 33.9042, -152.261, -83.2014, 61.9268
7.75425, 88, 3.6395, -15.2971, 34.3201, -152.228, -82.5296, 61.7888
7.76027, 88, 3.69428, -15.627, 34.5299, -152.189, -81.853, 61.665
7.76763, 88, 3.80404, -16.2864, 34.9527, -152.168, -81.5138, 61.6089
7.77572, 89, 3.91419, -16.9445, 35.3792, -152.123, -80.8341, 61.508
7.78368, 89, 4.02455, -17.6002, 35.8078, -152.073, -80.1538, 61.4251
7.79164, 89, 4.13527, -18.2526, 36.2372, -152.018, -79.4734, 61.3598
7.80316, 89, 4.30222, -19.2248, 36.8813, -151.926, -78.4539, 61.2984
7.80785, 89, 4.35808, -19.547, 37.0955, -151.892, -78.1161, 61.2878
7.81462, 89, 4.46982, -20.1872, 37.5228, -151.821, -77.4445, 61.2812
7.82363, 90, 4.58213, -20.8227, 37.9487, -151.745, -76.7754, 61.2973
7.8317, 90, 4.69487, -21.4536, 38.3744, -151.663, -76.1073, 61.3369
7.83965, 90, 4.80733, -22.0798, 38.7998, -151.576, -75.4405, 61.3999
7.84766, 90, 4.91951, -22.7018, 39.225, -151.483, -74.7759, 61.4873
7.86196, 91, 5.14269, -23.935, 40.0764, -151.278, -73.4503, 61.7418
7.86423, 91, 5.14269, -23.935, 40.0764, -151.278, -73.4503, 61.7418
7.87163, 91, 5.25371, -24.5452, 40.5018, -151.165, -72.7871, 61.9112
7.87963, 91, 5.36417, -25.1508, 40.9272, -151.045, -72.1236, 62.1097
7.88918, 91, 5.47399, -25.7506, 41.3514, -150.919, -71.4595, 62.3383
7.89562, 91, 5.58336, -26.3432, 41.7739, -150.787, -70.7977, 62.5974
7.90394, 92, 5.69251, -26.9279, 42.1947, -150.648, -70.1385, 62.8881
7.91166, 92, 5.80213, -27.5037, 42.6118, -150.504, -69.482, 63.2096
7.92064, 92, 5.91245, -28.0702, 43.0238, -150.355, -68.829, 63.5616
7.92772, 92, 6.02332, -28.627, 43.4304, -150.201, -68.1798, 63.9451
7.93563, 92, 6.13526, -29.1725, 43.8305, -150.044, -67.5365, 64.3592
7.9437, 93, 6.24853, -29.7066, 44.2241, -149.884, -66.9003, 64.8046
7.96066, 93, 6.48088, -30.7427, 44.9917, -149.559, -65.6408, 65.7901
7.96288, 93, 6.54037, -30.9961, 45.18, -149.477, -65.3282, 66.057
7.96763, 93, 6.60038, -31.2478, 45.3671, -149.395, -65.0161, 66.3327
7.97563, 93, 6.72211, -31.7474, 45.7378, -149.231, -64.3926, 66.9117
7.98461, 94, 6.84597, -32.2418, 46.1049, -149.066, -63.7688, 67.5324
7.99168, 94, 6.97174, -32.7312, 46.4693, -148.9, -63.1402, 68.1993
7.99963, 94, 7.0993, -33.2151, 46.8324, -148.733, -62.5052, 68.9181
8.0084, 94, 7.22867, -33.6919, 47.1936, -148.568, -61.8643, 69.6892
8.0157, 94, 7.36082, -34.1618, 47.5519, -148.406, -61.2177, 70.5109
8.0236, 95, 7.49669, -34.6238, 47.9039, -148.249, -60.5694, 71.3862
8.03233, 95, 7.63741, -35.0755, 48.248, -148.102, -59.924, 72.3079
8.03968, 95, 7.78412, -35.5167, 48.5812, -147.965, -59.2833, 73.2701
8.04762, 95, 7.93725, -35.9448, 48.9025, -147.844, -58.6494, 74.2719
8.05681, 95, 8.09735, -36.3554, 49.2086, -147.738, -58.0231, 75.3076
8.06484, 96, 8.2642, -36.7458, 49.4994, -147.65, -57.4063, 76.3778
8.07163, 96, 8.43803, -37.1151, 49.7737, -147.581, -56.8034, 77.4775
8.07966, 96, 8.618, -37.4618, 50.0312, -147.533, -56.2147, 78.6063
8.08773, 96, 8.80341, -37.7842, 50.2717, -147.505, -55.6401, 79.7575
8.09571, 96, 8.99376, -38.0811, 50.493, -147.497, -55.0824, 80.927
8.104, 96, 9.18782, -38.3536, 50.6951, -147.51, -54.5444, 82.1084
8.11118, 97, 9.38395, -38.6005, 50.8779, -147.545, -54.0282, 83.3016
8.11995, 97, 9.58069, -38.8219, 51.0404, -147.602, -53.5361, 84.5016
8.12779, 97, 9.7769, -39.0188, 51.1827, -147.679, -53.0697, 85.6993
8.13575, 97, 9.97183, -39.1912, 51.3056, -147.773, -52.6316, 86.8856
8.14402, 97, 10.1644, -39.3379, 51.4088, -147.883, -52.2237, 88.0527
8.15173, 97, 10.3533, -39.4593, 51.4928, -148.006, -51.8463, 89.1941
8.15998, 98, 10.5386, -39.5555, 51.5584, -148.14, -51.5005, 90.3009
8.16769, 98, 10.7213, -39.6275, 51.6059, -148.284, -51.1854, 91.3736
8.17582, 98, 10.9021, -39.6766, 51.6359, -148.437, -50.8988, 92.4198
8.18407, 98, 11.0814, -39.7026, 51.6485, -148.601, -50.637, 93.4533
8.19062, 98, 11.1702, -39.7067, 51.6485, -148.688, -50.5143, 93.9704
8.19992, 98, 11.4338, -39.6837, 51.6229, -148.967, -50.1753, 95.5367
8.20668, 98, 11.5216, -39.664, 51.6055, -149.067, -50.0717, 96.0689
8.2161, 99, 11.7849, -39.5699, 51.5268, -149.386, -49.7913, 97.6957
8.22416, 99, 11.9587, -39.4786, 51.4513, -149.614, -49.6326, 98.8025
8.23307, 99, 12.1297, -39.3647, 51.3573, -149.85, -49.5002, 99.9144
8.24018, 99, 12.2972, -39.2282, 51.2451, -150.093, -49.3971, 101.022
8.24823, 99, 12.4594, -39.0696, 51.1155, -150.337, -49.3251, 102.114
8.25623, 99, 12.5379, -38.982, 50.9698, -150.58, -49.2837, 103.181
8.26491, 100, 12.6886, -38.7894, 50.8912, -150.7, -49.2738, 104.217
8.27162, 100, 12.8307, -38.5722, 50.7218, -150.938, -49.2808, 104.724
8.27965, 100, 12.9638, -38.3314, 50.5352, -151.17, -49.3189, 105.717
8.28767, 100, 13.088, -38.0683, 50.3319, -151.397, -49.3878, 106.683
8.29562, 100, 13.204, -37.7837, 50.112, -151.617, -49.4884, 107.626
8.3046, 100, 13.3118, -37.4778, 49.8736, -151.936, -49.697, 108.998
8.31158, 101, 13.4114, -37.1482, 49.6178, -152.039, -49.7817, 109.445
8.31964, 101, 13.503, -36.7947, 49.3454, -152.238, -49.9735, 110.32
8.32768, 101, 13.5868, -36.4158, 49.0557, -152.428, -50.195, 111.172
8.33561, 101, 13.6627, -36.0121, 48.7493, -152.609, -50.4459, 112.002
8.34363, 101, 13.7303, -35.5843, 48.4249, -152.781, -50.7271, 112.806
8.36369, 102, 13.8617, -34.4166, 47.5398, -153.162, -51.568, 114.721
8.36578, 102, 13.881, -34.1661, 47.3502, -153.229, -51.7603, 115.086
8.36759, 102, 13.881, -34.1661, 47.3502, -153.229, -51.7603, 115.086
8.37562, 102, 13.9124, -33.6471, 46.959, -153.354, -52.1687, 115.799
8.38264, 102, 13.9344, -33.1046, 46.5525, -153.465, -52.6093, 116.485
8.39162, 102, 13.9476, -32.5403, 46.1324, -153.563, -53.0808, 117.145
8.40151, 103, 13.9528, -31.6539, 45.4762, -153.684, -53.8406, 118.087
8.40768, 103, 13.9507, -31.3484, 45.2506, -153.718, -54.1071, 118.389
8.41565, 103, 13.9419, -30.7238, 44.7905, -153.776, -54.6575, 118.971
8.42362, 103, 13.9271, -30.0824, 44.3191, -153.82, -55.2296, 119.53
8.43168, 103, 13.9067, -29.4258, 43.8376, -153.852, -55.8207, 120.064
8.43964, 103, 13.8812, -28.7546, 43.3481, -153.873, -56.4297, 120.573
8.44791, 104, 13.8512, -28.0714, 42.8519, -153.883, -57.0531, 121.056
8.45562, 104, 13.8172, -27.378, 42.3508, -153.883, -57.6891, 121.515
8.46363, 104, 13.7793, -26.6765, 41.8461, -153.872, -58.3393, 121.953
8.47168, 104, 13.7378, -25.9677, 41.3384, -153.853, -59.0032, 122.37
8.47961, 104, 13.694, -25.2543, 40.8294, -153.825, -59.6789, 122.769
8.48764, 104, 13.6482, -24.5378, 40.3196, -153.789, -60.3636, 123.153
8.49568, 104, 13.6008, -23.8191, 39.8096, -153.746, -61.054, 123.524
8.50368, 104, 13.5517, -23.098, 39.3002, -153.697, -61.7506, 123.886
8.51161, 104, 13.5016, -22.3755, 38.7918, -153.643, -62.4513, 124.243
8.5197, 104, 13.4507, -21.6523, 38.2851, -153.584, -63.154, 124.595
8.52764, 104, 13.3991, -20.9291, 37.7798, -153.521, -63.8579, 124.946
8.53561, 104, 13.3472, -20.2061, 37.2757, -153.453, -64.5619, 125.295
8.54369, 104, 13.2951, -19.4829, 36.7738, -153.382, -65.2672, 125.642
8.55163, 104, 13.2427, -18.7593, 36.2737, -153.306, -65.9744, 125.988
8.55964, 104, 13.1904, -18.0356, 35.7757, -153.227, -66.6822, 126.334
8.56768, 104, 13.1384, -17.3114, 35.2802, -153.143, -67.3907, 126.678
8.57568, 104, 13.0865, -16.5869, 34.7865, -153.056, -68.0983, 127.023
8.58372, 104, 13.0351, -15.8625, 34.2949, -152.965, -68.8068, 127.367
8.59172, 104, 12.984, -15.138, 33.8056, -152.869, -69.5172, 127.711
8.5997, 104, 12.9332, -14.4127, 33.3186, -152.77, -70.2287, 128.054
8.60802, 104, 12.8828, -13.6872, 32.8344, -152.667, -70.9395, 128.398
8.61574, 104, 12.8329, -12.9616, 32.3528, -152.56, -71.6495, 128.742
8.62372, 104, 12.7832, -12.2359, 31.8737, -152.45, -72.3617, 129.086
8.63221, 104, 12.7339, -11.5109, 31.3972, -152.335, -73.0745, 129.431
8.63967, 104, 12.685, -10.7858, 30.9231, -152.217, -73.7875, 129.776
8.64767, 104, 12.6362, -10.0601, 30.4518, -152.094, -74.5006, 130.122
8.65626, 104, 12.5878, -9.33449, 29.9837, -151.968, -75.2135, 130.469
8.66366, 104, 12.5399, -8.60875, 29.5187, -151.837, -75.9277, 130.817
8.67169, 104, 12.4926, -7.88266, 29.057, -151.703, -76.6423, 131.165
8.68062, 104, 12.4457, -7.15707, 28.5984, -151.564, -77.3579, 131.515
8.68791, 104, 12.3995, -6.43182, 28.1431, -151.421, -78.0734, 131.867
8.69683, 104, 12.3538, -5.70702, 27.6914, -151.275, -78.7871, 132.219
8.70397, 104, 12.3085, -4.98297, 27.2432, -151.123, -79.5019, 132.572
8.71208, 104, 12.2642, -4.26029, 26.7993, -150.968, -80.2173, 132.927
8.72007, 104, 12.221, -3.53984, 26.3605, -150.809, -80.9322, 133.283
8.72838, 104, 12.1787, -2.82407, 25.9265, -150.646, -81.6433, 133.639
8.73617, 104, 12.1378, -2.11418, 25.4985, -150.479, -82.3505, 133.996
8.74415, 104, 12.0981, -1.41167, 25.0776, -150.309, -83.0542, 134.351
8.75237, 104, 12.0594, -0.717635, 24.6651, -150.136, -83.751, 134.705
8.76026, 104, 12.0405, -0.374248, 24.2622, -149.962, -84.4378, 135.056
8.76823, 104, 12.0033, 0.304575, 24.0646, -149.787, -85.1121, 135.403
8.77565, 104, 11.9671, 0.972078, 23.6785, -149.699, -85.4439, 135.575
8.78363, 104, 11.9319, 1.62663, 23.3048, -149.522, -86.0967, 135.914
8.7916, 104, 11.8981, 2.26748, 22.9438, -149.346, -86.7351, 136.247
8.79966, 104, 11.8652, 2.89234, 22.5949, -149.171, -87.3574, 136.574
8.80766, 104, 11.8334, 3.50127, 22.2591, -148.996, -87.9639, 136.894
8.81561, 104, 11.8031, 4.09352, 21.9363, -148.823, -88.5532, 137.207
8.82365, 104, 11.7739, 4.66884, 21.6262, -148.651, -89.1248, 137.514
8.8316, 104, 11.7462, 5.22774, 21.3278, -148.48, -89.6801, 137.813
8.83962, 104, 11.7196, 5.76934, 21.0409, -148.312, -90.22, 138.106
8.84768, 104, 11.694, 6.29367, 20.7665, -148.145, -90.7432, 138.391
8.85562, 104, 11.6697, 6.8013, 20.5032, -147.981, -91.2505, 138.669
8.8636, 104, 11.6466, 7.29224, 20.2518, -147.819, -91.7405, 138.94
8.87167, 104, 11.6246, 7.76631, 20.0116, -147.661, -92.2132, 139.203
8.87971, 104, 11.6038, 8.22382, 19.7819, -147.505, -92.6695, 139.458
8.88766, 104, 11.5841, 8.66453, 19.5636, -147.352, -93.1091, 139.706
8.89566, 104, 11.5656, 9.08754, 19.3559, -147.203, -93.5322, 139.945
8.90465, 104, 11.5481, 9.4938, 19.1581, -147.058, -93.9381, 140.176
8.9116, 104, 11.5318, 9.88199, 18.9711, -146.917, -94.3271, 140.399
8.9197, 104, 11.5165, 10.252, 18.7949, -146.781, -94.698, 140.612
8.92767, 104, 11.5022, 10.6025, 18.6289, -146.65, -95.0508, 140.816
8.93566, 104, 11.4891, 10.9342, 18.4732, -146.525, -95.3842, 141.01
8.94365, 104, 11.4769, 11.246, 18.3287, -146.405, -95.6977, 141.193
8.95163, 104, 11.4657, 11.5371, 18.1947, -146.293, -95.9906, 141.364
8.95968, 104, 11.4557, 11.8075, 18.0712, -146.187, -96.2626, 141.524
8.96765, 104, 11.4465, 12.0565, 17.9584, -146.089, -96.5131, 141.672
8.9756, 104, 11.4379, 12.2843, 17.8562, -145.999, -96.7416, 141.808
8.98367, 104, 11.4301, 12.4914, 17.7644, -145.917, -96.9482, 141.931
8.99162, 104, 11.4231, 12.6772, 17.6829, -145.843, -97.1327, 142.041
8.99961, 104, 11.417, 12.8417, 17.6116, -145.778, -97.2951, 142.137
9.00775, 104, 11.4114, 12.9862, 17.5501, -145.721, -97.4357, 142.222
9.0156, 104, 11.4063, 13.1113, 17.4981, -145.672, -97.5547, 142.293
9.02362, 104, 11.4016, 13.2177, 17.4552, -145.633, -97.6532, 142.352
9.03167, 104, 11.3974, 13.3064, 17.4205, -145.6, -97.7325, 142.399
9.03961, 104, 11.3935, 13.3793, 17.3934, -145.575, -97.7941, 142.437
9.04765, 104, 11.39, 13.4383, 17.3732, -145.555, -97.84, 142.465
9.05567, 104, 11.3869, 13.485, 17.3586, -145.541, -97.873, 142.485
9.0636, 104, 11.3844, 13.5206, 17.3485, -145.532, -97.8959, 142.498
9.07166, 104, 11.3824, 13.5472, 17.3422, -145.526, -97.9107, 142.506
9.07967, 104, 11.3807, 13.5667, 17.3382, -145.522, -97.9196, 142.511
9.0877, 104, 11.3795, 13.5804, 17.336, -145.52, -97.9245, 142.513
9.09564, 104, 11.3785, 13.5896, 17.3349, -145.519, -97.9269, 142.515
9.10373, 105, 11.3778, 13.5958, 17.3343, -145.519, -97.928, 142.515
9.11169, 105, 11.3773, 13.5998, 17.3341, -145.519, -97.9285, 142.515
9.11974, 105, 11.377, 13.6025, 17.3339, -145.518, -97.9287, 142.516
9.12781, 105, 11.3766, 13.6047, 17.3339, -145.518, -97.9288, 142.516
9.1357, 105, 11.3765, 13.6065, 17.3338, -145.518, -97.9289, 142.516
9.14366, 105, 11.3763, 13.6081, 17.3339, -145.518, -97.9288, 142.516
9.15173, 105, 11.3762, 13.6095, 17.3339, -145.518, -97.9288, 142.516
9.15966, 105, 11.376, 13.6107, 17.3339, -145.518, -97.9288, 142.516
9.16769, 105, 11.3759, 13.6117, 17.3339, -145.518, -97.9287, 142.516
9.17572, 105, 11.3759, 13.6125, 17.3339, -145.518, -97.9285, 142.516
9.18376, 105, 11.3759, 13.6131, 17.3339, -145.518, -97.9284, 142.516
9.19213, 105, 11.3759, 13.6136, 17.334, -145.518, -97.9283, 142.516
9.19858, 105, 11.3759, 13.6137, 17.334, -145.518, -97.9282, 142.516
9.20796, 105, 11.3759, 13.614, 17.3341, -145.519, -97.928, 142.516
9.21465, 105, 11.3759, 13.6141, 17.3341, -145.519, -97.9279, 142.516
9.22485, 105, 11.3758, 13.6141, 17.3342, -145.519, -97.9277, 142.516
