hehonglu123/Motion-Primitive-Planning/ILC/recorded_data/realrobot/from_NX/iteration_22/run_1.csv
timestamp, cmd_num, J1, J2, J3, J4, J5, J6
0.000482, -1, 39.6286, 32.4466, 11.8313, 12.5436, 113.714, -48.8734
0.003115, -1, 39.6286, 32.4466, 11.8313, 12.5436, 113.714, -48.8734
0.027996, -1, 39.6286, 32.4466, 11.8313, 12.5436, 113.714, -48.8734
0.029866, -1, 39.6286, 32.4466, 11.8313, 12.5436, 113.714, -48.8734
0.031322, -1, 39.6286, 32.4466, 11.8313, 12.5436, 113.714, -48.8734
0.032524, -1, 39.6286, 32.4466, 11.8313, 12.5436, 113.714, -48.8734
0.039649, -1, 39.6286, 32.4465, 11.8313, 12.5436, 113.714, -48.8735
0.047541, -1, 39.6284, 32.4465, 11.8313, 12.5436, 113.714, -48.8735
0.055534, -1, 39.6272, 32.4463, 11.8313, 12.5436, 113.714, -48.8735
0.063632, -1, 39.6235, 32.4455, 11.8313, 12.5436, 113.714, -48.8736
0.071519, -1, 39.6165, 32.4435, 11.8312, 12.5436, 113.714, -48.8742
0.079523, -1, 39.6057, 32.4395, 11.8312, 12.5436, 113.713, -48.8768
0.087614, -1, 39.5895, 32.4327, 11.8312, 12.5436, 113.71, -48.8844
0.095521, -1, 39.5656, 32.4222, 11.8313, 12.5436, 113.705, -48.8999
0.103521, -1, 39.5322, 32.4073, 11.8324, 12.5436, 113.696, -48.9264
0.111592, -1, 39.4886, 32.3868, 11.8358, 12.5436, 113.681, -48.9679
0.119519, -1, 39.433, 32.3597, 11.8423, 12.5436, 113.658, -49.0285
0.127543, -1, 39.3643, 32.3257, 11.8527, 12.5436, 113.625, -49.1114
0.135609, -1, 39.2821, 32.284, 11.868, 12.5438, 113.583, -49.2183
0.143517, -1, 39.1861, 32.2345, 11.8882, 12.5442, 113.532, -49.3511
0.151521, -1, 39.076, 32.177, 11.9128, 12.545, 113.469, -49.5089
0.159603, -1, 38.952, 32.1118, 11.9415, 12.5463, 113.398, -49.6905
0.167534, -1, 38.8151, 32.0396, 11.9739, 12.5481, 113.318, -49.8928
0.175526, -1, 38.6664, 31.9613, 12.0091, 12.55, 113.231, -50.1131
0.183919, -1, 38.5068, 31.8774, 12.0462, 12.5522, 113.138, -50.3473
0.191674, -1, 38.3383, 31.7891, 12.0846, 12.5547, 113.041, -50.5917
0.199607, -1, 38.1628, 31.6973, 12.1236, 12.557, 112.942, -50.8429
0.207979, -1, 37.9816, 31.6029, 12.1626, 12.5595, 112.841, -51.0979
0.215621, -1, 37.7959, 31.5067, 12.2014, 12.5619, 112.739, -51.3556
0.2237, -1, 37.6068, 31.4093, 12.2402, 12.5644, 112.637, -51.6146
0.232291, -1, 37.4157, 31.3114, 12.279, 12.5668, 112.535, -51.8741
0.239527, -1, 37.2238, 31.2135, 12.3178, 12.5693, 112.432, -52.1337
0.24761, -1, 37.0316, 31.1157, 12.3566, 12.5718, 112.329, -52.3935
0.256347, -1, 36.8394, 31.0179, 12.3953, 12.5745, 112.226, -52.6537
0.263574, -1, 36.6476, 30.9201, 12.4342, 12.577, 112.123, -52.9143
0.271707, -1, 36.4559, 30.8225, 12.4731, 12.5796, 112.02, -53.1744
0.280534, -1, 36.2643, 30.7247, 12.5119, 12.5822, 111.917, -53.4348
0.287737, -1, 36.0727, 30.6268, 12.5508, 12.5847, 111.815, -53.6952
0.295886, -1, 35.8811, 30.5289, 12.5897, 12.5874, 111.711, -53.956
0.30475, -1, 35.6894, 30.4308, 12.6286, 12.5899, 111.608, -54.2163
0.31201, -1, 35.4975, 30.3327, 12.6675, 12.5925, 111.506, -54.4765
0.320837, -1, 35.3053, 30.2345, 12.7063, 12.5951, 111.402, -54.737
0.328228, -1, 35.1129, 30.1361, 12.7451, 12.5976, 111.299, -54.9978
0.336109, -1, 34.9205, 30.0377, 12.7841, 12.6002, 111.196, -55.2585
0.473319, -1, 31.6435, 28.3626, 13.4455, 12.645, 109.444, -59.696
0.474749, -1, 31.6435, 28.3626, 13.4455, 12.645, 109.444, -59.696
0.475938, -1, 31.6435, 28.3626, 13.4455, 12.645, 109.444, -59.696
0.478071, -1, 31.5467, 28.3133, 13.465, 12.6465, 109.392, -59.8266
0.479297, -1, 31.5467, 28.3133, 13.465, 12.6465, 109.392, -59.8266
0.48124, -1, 31.45, 28.2639, 13.4845, 12.6479, 109.341, -59.9572
0.482581, -1, 31.45, 28.2639, 13.4845, 12.6479, 109.341, -59.9572
0.48652, -1, 31.3534, 28.2146, 13.504, 12.6493, 109.289, -60.0879
0.487767, -1, 31.3534, 28.2146, 13.504, 12.6493, 109.289, -60.0879
0.490483, -1, 31.257, 28.1654, 13.5234, 12.6506, 109.238, -60.2185
0.491694, -1, 31.257, 28.1654, 13.5234, 12.6506, 109.238, -60.2185
0.493777, -1, 31.1606, 28.1162, 13.543, 12.652, 109.186, -60.3492
0.494994, -1, 31.1606, 28.1162, 13.543, 12.652, 109.186, -60.3492
0.496297, -1, 31.1606, 28.1162, 13.543, 12.652, 109.186, -60.3492
0.498416, -1, 31.0644, 28.0669, 13.5626, 12.6534, 109.135, -60.48
0.500205, -1, 31.0644, 28.0669, 13.5626, 12.6534, 109.135, -60.48
0.502335, -1, 30.9683, 28.0177, 13.5821, 12.6549, 109.083, -60.6108
0.503542, -1, 30.9683, 28.0177, 13.5821, 12.6549, 109.083, -60.6108
0.505643, -1, 30.8721, 27.9684, 13.6016, 12.6563, 109.031, -60.7415
0.507, -1, 30.8721, 27.9684, 13.6016, 12.6563, 109.031, -60.7415
0.508296, -1, 30.8721, 27.9684, 13.6016, 12.6563, 109.031, -60.7415
0.511487, -1, 30.7761, 27.9191, 13.621, 12.6577, 108.98, -60.8721
0.524501, -1, 30.4883, 27.7712, 13.6796, 12.6619, 108.825, -61.264
0.527464, -1, 30.3923, 27.7219, 13.6991, 12.6633, 108.773, -61.3947
0.53551, -1, 30.2002, 27.6231, 13.738, 12.666, 108.67, -61.6564
0.543571, -1, 30.0078, 27.5244, 13.777, 12.6688, 108.567, -61.9181
0.551518, -1, 29.815, 27.4256, 13.816, 12.6715, 108.464, -62.1795
0.55958, -1, 29.6217, 27.3269, 13.8548, 12.6742, 108.361, -62.4412
0.567535, -1, 29.4279, 27.2281, 13.8938, 12.6768, 108.257, -62.703
0.575508, -1, 29.2338, 27.1292, 13.9328, 12.6794, 108.154, -62.9648
0.583978, -1, 29.0394, 27.0303, 13.9718, 12.682, 108.051, -63.2263
0.594075, -1, 28.748, 26.882, 14.0302, 12.6858, 107.896, -63.6183
0.599512, -1, 28.6509, 26.8325, 14.0497, 12.687, 107.844, -63.7493
0.6089, -1, 28.4568, 26.7337, 14.0887, 12.6896, 107.74, -64.0112
0.615501, -1, 28.2631, 26.635, 14.1278, 12.6921, 107.637, -64.2727
0.623581, -1, 28.07, 26.5362, 14.1667, 12.6945, 107.534, -64.5345
0.765458, -1, 24.6884, 24.8064, 14.8487, 12.7355, 105.727, -69.1145
0.766665, -1, 24.6884, 24.8064, 14.8487, 12.7355, 105.727, -69.1145
0.769371, -1, 24.5921, 24.757, 14.8682, 12.7367, 105.675, -69.2454
0.770626, -1, 24.5921, 24.757, 14.8682, 12.7367, 105.675, -69.2454
0.772628, -1, 24.496, 24.7075, 14.8877, 12.7378, 105.623, -69.3764
0.773903, -1, 24.496, 24.7075, 14.8877, 12.7378, 105.623, -69.3764
0.776085, -1, 24.3998, 24.658, 14.9072, 12.739, 105.572, -69.5074
0.782565, -1, 24.3036, 24.6086, 14.9267, 12.7402, 105.52, -69.6382
0.784606, -1, 24.2073, 24.5591, 14.9462, 12.7414, 105.468, -69.7689
0.785883, -1, 24.2073, 24.5591, 14.9462, 12.7414, 105.468, -69.7689
0.78772, -1, 24.111, 24.5097, 14.9657, 12.7426, 105.417, -69.8996
0.789186, -1, 24.111, 24.5097, 14.9657, 12.7426, 105.417, -69.8996
0.790373, -1, 24.111, 24.5097, 14.9657, 12.7426, 105.417, -69.8996
0.793049, -1, 24.0147, 24.4603, 14.9852, 12.7437, 105.365, -70.0303
0.794258, -1, 24.0147, 24.4603, 14.9852, 12.7437, 105.365, -70.0303
0.796723, -1, 23.9183, 24.4109, 15.0047, 12.7449, 105.313, -70.161
0.79793, -1, 23.9183, 24.4109, 15.0047, 12.7449, 105.313, -70.161
0.800155, -1, 23.8219, 24.3615, 15.0242, 12.7461, 105.262, -70.2919
0.802273, -1, 23.8219, 24.3615, 15.0242, 12.7461, 105.262, -70.2919
0.80432, -1, 23.7255, 24.3121, 15.0436, 12.7473, 105.21, -70.4227
0.805544, -1, 23.7255, 24.3121, 15.0436, 12.7473, 105.21, -70.4227
0.806729, -1, 23.7255, 24.3121, 15.0436, 12.7473, 105.21, -70.4227
0.810581, -1, 23.629, 24.2626, 15.063, 12.7485, 105.158, -70.5537
0.816823, -1, 23.4357, 24.1637, 15.102, 12.7509, 105.055, -70.8155
0.823973, -1, 23.242, 24.0649, 15.141, 12.7533, 104.951, -71.0772
0.8321, -1, 23.0482, 23.9659, 15.1798, 12.7558, 104.848, -71.3389
0.841098, -1, 22.8541, 23.8671, 15.2187, 12.7581, 104.745, -71.6009
0.849405, -1, 22.6602, 23.7683, 15.2577, 12.7606, 104.641, -71.8628
0.856133, -1, 22.4664, 23.6696, 15.2967, 12.763, 104.538, -72.1242
0.864895, -1, 22.3696, 23.6203, 15.3162, 12.7643, 104.486, -72.3855
0.871493, -1, 22.1763, 23.5216, 15.3551, 12.7669, 104.383, -72.5163
0.880229, -1, 21.9832, 23.4228, 15.3941, 12.7695, 104.28, -72.7778
0.8875, -1, 21.7903, 23.3241, 15.4331, 12.7721, 104.176, -73.0395
0.895488, -1, 21.598, 23.2253, 15.472, 12.7747, 104.073, -73.3007
0.903596, -1, 21.4058, 23.1265, 15.5109, 12.7774, 103.97, -73.5622
0.911493, -1, 21.2136, 23.0278, 15.55, 12.78, 103.867, -73.8238
0.919492, -1, 21.0212, 22.9292, 15.5889, 12.7827, 103.764, -74.0854
0.927558, -1, 20.8288, 22.8305, 15.6278, 12.7854, 103.661, -74.3466
0.935488, -1, 20.6363, 22.732, 15.6668, 12.7881, 103.558, -74.6077
0.943553, -1, 20.4434, 22.6333, 15.7056, 12.7908, 103.454, -74.869
0.951499, -1, 20.25, 22.5346, 15.7445, 12.7935, 103.352, -75.1304
0.959495, -1, 20.0562, 22.4359, 15.7835, 12.7963, 103.248, -75.3914
0.967602, -1, 19.8626, 22.3372, 15.8222, 12.799, 103.145, -75.6526
0.977221, -1, 19.5722, 22.1893, 15.8805, 12.8031, 102.991, -76.0446
0.983491, -1, 19.4754, 22.14, 15.9, 12.8045, 102.939, -76.1753
0.993051, -1, 19.2822, 22.0413, 15.9388, 12.8072, 102.836, -76.5667
0.999496, -1, 19.0893, 21.9427, 15.9777, 12.81, 102.733, -76.6971
1.00853, -1, 18.8966, 21.8441, 16.0166, 12.8127, 102.63, -76.9578
1.01555, -1, 18.7043, 21.7453, 16.0553, 12.8154, 102.527, -77.2189
1.02349, -1, 18.5124, 21.6467, 16.0942, 12.8182, 102.424, -77.4799
1.03151, -1, 18.3206, 21.5481, 16.1331, 12.8209, 102.322, -77.7405
1.03957, -1, 18.1287, 21.4496, 16.1719, 12.8235, 102.219, -78.0013
1.04762, -1, 17.9367, 21.3512, 16.2107, 12.8261, 102.116, -78.2621
1.05556, -1, 17.7448, 21.2528, 16.2497, 12.8286, 102.013, -78.5229
1.06349, -1, 17.5526, 21.1545, 16.2885, 12.8311, 101.91, -78.7833
1.07153, -1, 17.36, 21.0562, 16.3274, 12.8336, 101.807, -79.0437
1.07956, -1, 17.167, 20.9579, 16.3661, 12.836, 101.704, -79.3044
1.0875, -1, 16.974, 20.8596, 16.4049, 12.8384, 101.601, -79.5651
1.0955, -1, 16.781, 20.7614, 16.4437, 12.8408, 101.498, -79.8254
1.10356, -1, 16.5879, 20.6633, 16.4824, 12.8431, 101.396, -80.086
1.11149, -1, 16.395, 20.565, 16.5212, 12.8455, 101.293, -80.3465
1.11949, -1, 16.2024, 20.4667, 16.5599, 12.8478, 101.19, -80.6071
1.12757, -1, 16.0103, 20.3683, 16.5987, 12.8501, 101.088, -80.8675
1.13548, -1, 15.8185, 20.2698, 16.6374, 12.8524, 100.985, -81.1276
1.14349, -1, 15.627, 20.1714, 16.6761, 12.8548, 100.882, -81.3876
1.15156, -1, 15.4357, 20.073, 16.7147, 12.8571, 100.78, -81.6478
1.1595, -1, 15.2445, 19.9747, 16.7534, 12.8595, 100.677, -81.9078
1.16754, -1, 15.0533, 19.8764, 16.7922, 12.8617, 100.575, -82.1675
1.17551, -1, 14.862, 19.7782, 16.8308, 12.864, 100.472, -82.4275
1.18349, -1, 14.6707, 19.6801, 16.8695, 12.8663, 100.369, -82.6875
1.19176, -1, 14.4791, 19.582, 16.9082, 12.8686, 100.267, -82.9475
1.19957, -1, 14.287, 19.4839, 16.9469, 12.8709, 100.164, -83.2071
1.20758, -1, 14.0946, 19.3858, 16.9857, 12.8731, 100.062, -83.4666
1.21598, -1, 13.9022, 19.2879, 17.0243, 12.8755, 99.959, -83.7261
1.2236, -1, 13.7099, 19.1902, 17.0628, 12.8778, 99.8568, -83.9858
1.2316, -1, 13.5175, 19.0923, 17.1016, 12.88, 99.7541, -84.2451
1.24013, -1, 13.3253, 18.9944, 17.1402, 12.8824, 99.6518, -84.5044
1.24751, -1, 13.1335, 18.8966, 17.1786, 12.8847, 99.5497, -84.7636
1.25551, -1, 12.9421, 18.7987, 17.2173, 12.8871, 99.4471, -85.0231
1.26412, -1, 12.751, 18.7006, 17.2559, 12.8894, 99.3446, -85.2823
1.27156, -1, 12.5601, 18.6028, 17.2944, 12.8918, 99.2425, -85.5413
1.2796, -1, 12.3697, 18.505, 17.333, 12.8942, 99.14, -85.8001
1.28853, -1, 12.1796, 18.4072, 17.3715, 12.8967, 99.0379, -86.0592
1.29584, -1, 11.9893, 18.3095, 17.41, 12.8991, 98.9359, -86.3181
1.30388, -1, 11.7989, 18.2118, 17.4487, 12.9015, 98.8339, -86.5766
1.31191, -1, 11.6082, 18.1141, 17.4872, 12.9039, 98.7321, -86.8352
1.32053, -1, 11.4173, 18.0165, 17.5256, 12.9063, 98.6301, -87.0939
1.3281, -1, 11.2261, 17.919, 17.5642, 12.9087, 98.5281, -87.3525
1.33603, -1, 11.0347, 17.8214, 17.6028, 12.9112, 98.4263, -87.6108
1.34423, -1, 10.8432, 17.7241, 17.6412, 12.9136, 98.3243, -87.8689
1.35218, -1, 10.6515, 17.6266, 17.6797, 12.9161, 98.2223, -88.1272
1.36007, -1, 10.5557, 17.5778, 17.718, 12.9187, 98.1206, -88.3856
1.36802, -1, 10.3645, 17.4803, 17.7373, 12.92, 98.0696, -88.6438
1.37607, -1, 10.1735, 17.3828, 17.7757, 12.9224, 97.9677, -88.7728
1.38348, -1, 9.98286, 17.2852, 17.8141, 12.9251, 97.8659, -89.0309
1.39148, -1, 9.79259, 17.1877, 17.8524, 12.9277, 97.7639, -89.289
1.39953, -1, 9.60263, 17.0902, 17.8907, 12.9304, 97.6619, -89.5473
1.40753, -1, 9.41325, 16.9928, 17.929, 12.9332, 97.5601, -89.805
1.41548, -1, 9.22396, 16.8954, 17.9674, 12.9359, 97.4581, -90.0626
1.42347, -1, 9.03461, 16.7981, 18.0058, 12.9386, 97.3563, -90.3201
1.43149, -1, 8.84513, 16.701, 18.0441, 12.9412, 97.2547, -90.5777
1.43953, -1, 8.65559, 16.6038, 18.0825, 12.9438, 97.153, -90.8352
1.44755, -1, 8.46598, 16.5066, 18.1209, 12.9465, 97.0514, -91.0923
1.45548, -1, 8.27591, 16.4096, 18.1592, 12.9492, 96.95, -91.3496
1.46501, -1, 7.99021, 16.2643, 18.2168, 12.9532, 96.7975, -91.7356
1.47148, -1, 7.89498, 16.2159, 18.2359, 12.9545, 96.7468, -91.864
1.47948, -1, 7.70443, 16.119, 18.2741, 12.9572, 96.6454, -92.1207
1.48755, -1, 7.51385, 16.022, 18.3125, 12.9598, 96.5438, -92.3773
1.49547, -1, 7.32356, 15.9251, 18.3507, 12.9624, 96.4425, -92.6341
1.50448, -1, 7.13355, 15.8281, 18.3888, 12.9649, 96.3413, -92.891
1.51154, -1, 6.94392, 15.7311, 18.4272, 12.9676, 96.2399, -93.1473
1.52053, -1, 6.7547, 15.6342, 18.4654, 12.97, 96.1389, -93.4038
1.5275, -1, 6.56597, 15.5374, 18.5034, 12.9726, 96.0381, -93.6602
1.53554, -1, 6.37763, 15.4406, 18.5416, 12.9752, 95.937, -93.9166
1.54348, -1, 6.18949, 15.3439, 18.5797, 12.9776, 95.836, -94.1729
1.55155, -1, 6.00137, 15.2472, 18.6178, 12.9801, 95.7351, -94.4287
1.55947, -1, 5.81303, 15.1505, 18.6561, 12.9824, 95.6341, -94.6846
1.56749, -1, 5.62463, 15.0538, 18.6942, 12.9848, 95.5333, -94.9407
1.57558, -1, 5.43603, 14.9572, 18.7323, 12.9871, 95.4325, -95.1964
1.58347, -1, 5.24709, 14.8608, 18.7705, 12.9894, 95.3317, -95.4518
1.59149, -1, 5.05771, 14.7644, 18.8086, 12.9917, 95.2311, -95.7074
1.59955, -1, 4.86836, 14.6681, 18.8465, 12.994, 95.1304, -95.9628
1.60749, -1, 4.67892, 14.5717, 18.8847, 12.9962, 95.0296, -96.2183
1.61554, -1, 4.48956, 14.4754, 18.9227, 12.9984, 94.9289, -96.4732
1.62378, -1, 4.3005, 14.379, 18.9607, 13.0006, 94.8281, -96.7281
1.63147, -1, 4.11169, 14.2826, 18.9987, 13.0028, 94.7272, -96.9832
1.63949, -1, 3.92331, 14.1863, 19.0366, 13.0052, 94.6265, -97.2383
1.64827, -1, 3.73553, 14.0901, 19.0745, 13.0073, 94.5256, -97.4932
1.65547, -1, 3.54815, 13.9939, 19.1125, 13.0096, 94.4248, -97.7479
1.66347, -1, 3.36112, 13.8978, 19.1504, 13.012, 94.3244, -98.0026
1.67228, -1, 3.17415, 13.8017, 19.1882, 13.0143, 94.2236, -98.2573
1.67947, -1, 2.98717, 13.7057, 19.2261, 13.0165, 94.1229, -98.512
1.68749, -1, 2.80017, 13.6096, 19.264, 13.0187, 94.0224, -98.7662
1.69629, -1, 2.61301, 13.5136, 19.3019, 13.021, 93.9218, -99.0203
1.70357, -1, 2.42565, 13.4177, 19.3398, 13.0233, 93.8213, -99.2745
1.71157, -1, 2.23804, 13.3219, 19.3775, 13.0255, 93.7211, -99.5286
1.72043, -1, 2.04999, 13.2261, 19.4154, 13.0278, 93.6208, -99.7825
1.72759, -1, 1.86192, 13.1303, 19.4533, 13.03, 93.5208, -100.036
1.73558, -1, 1.67371, 13.0344, 19.491, 13.0323, 93.4208, -100.29
1.74442, -1, 1.48548, 12.9386, 19.5288, 13.0345, 93.3207, -100.543
1.75147, -1, 1.29757, 12.8428, 19.5666, 13.0369, 93.2207, -100.797
1.7595, -1, 1.10996, 12.747, 19.6043, 13.0392, 93.1207, -101.05
1.76841, -1, 0.922781, 12.6513, 19.642, 13.0416, 93.0206, -101.303
1.77558, -1, 0.736245, 12.5557, 19.6797, 13.0439, 92.9209, -101.556
1.78377, -1, 0.550157, 12.4601, 19.7173, 13.0464, 92.8211, -101.809
1.79169, -1, 0.364381, 12.3648, 19.755, 13.0488, 92.7213, -102.062
1.79986, -1, 0.178755, 12.2694, 19.7926, 13.0512, 92.6219, -102.315
1.8079, -1, -0.0066183, 12.174, 19.8301, 13.0537, 92.5224, -102.567
1.81676, -1, -0.192179, 12.0787, 19.8678, 13.0561, 92.4227, -102.82
1.82392, -1, -0.377908, 11.9835, 19.9055, 13.0585, 92.3233, -103.072
1.83208, -1, -0.564017, 11.8883, 19.943, 13.061, 92.2237, -103.324
1.84, -1, -0.750391, 11.7933, 19.9806, 13.0635, 92.1242, -103.576
1.84805, -1, -0.936899, 11.6983, 20.0181, 13.066, 92.0249, -103.828
1.85619, -1, -1.1236, 11.6032, 20.0555, 13.0685, 91.9255, -104.08
1.86406, -1, -1.21707, 11.5557, 20.0742, 13.071, 91.8262, -104.332
1.87201, -1, -1.404, 11.4606, 20.1118, 13.0723, 91.7766, -104.458
1.88005, -1, -1.5907, 11.3655, 20.1492, 13.0748, 91.6775, -104.709
1.88746, -1, -1.77707, 11.2704, 20.1866, 13.0774, 91.5783, -104.961
1.89654, -1, -2.05596, 11.1279, 20.2428, 13.0814, 91.4296, -105.338
1.90351, -1, -2.14855, 11.0804, 20.2615, 13.0827, 91.38, -105.463
1.9115, -1, -2.33347, 10.9855, 20.2988, 13.0853, 91.2807, -105.714
1.91952, -1, -2.51813, 10.8907, 20.3363, 13.088, 91.1816, -105.965
1.92746, -1, -2.70228, 10.7959, 20.3735, 13.0907, 91.0826, -106.216
1.93547, -1, -2.88622, 10.7011, 20.4108, 13.0933, 90.9835, -106.467
1.94351, -1, -3.07024, 10.6064, 20.4482, 13.0959, 90.8846, -106.717
1.95152, -1, -3.25438, 10.5117, 20.4855, 13.0985, 90.7857, -106.968
1.95946, -1, -3.43888, 10.4172, 20.5227, 13.101, 90.6867, -107.219
1.96903, -1, -3.71601, 10.2757, 20.5787, 13.1049, 90.5386, -107.594
1.97547, -1, -3.80849, 10.2285, 20.5973, 13.1062, 90.4891, -107.719
1.98346, -1, -3.99371, 10.1341, 20.6346, 13.1086, 90.3904, -107.969
1.99146, -1, -4.17911, 10.0398, 20.6718, 13.1111, 90.2918, -108.219
2.00102, -1, -4.36476, 9.94556, 20.7089, 13.1134, 90.1932, -108.469
2.00752, -1, -4.55019, 9.85118, 20.7462, 13.1158, 90.0945, -108.718
2.01547, -1, -4.73532, 9.75698, 20.7835, 13.1182, 89.9962, -108.968
2.02352, -1, -4.92007, 9.66282, 20.8205, 13.1206, 89.8977, -109.217
2.03146, -1, -5.10423, 9.56879, 20.8576, 13.123, 89.7991, -109.467
2.03947, -1, -5.2877, 9.47469, 20.8948, 13.1253, 89.7008, -109.716
2.04752, -1, -5.47084, 9.38075, 20.9318, 13.1277, 89.6024, -109.965
2.05547, -1, -5.65358, 9.28679, 20.9689, 13.13, 89.504, -110.214
2.06345, -1, -5.83601, 9.19284, 21.006, 13.1323, 89.4061, -110.462
2.07153, -1, -6.01832, 9.09896, 21.043, 13.1346, 89.3078, -110.711
2.07948, -1, -6.20089, 9.00511, 21.08, 13.1368, 89.2097, -110.959
2.08746, -1, -6.38379, 8.91139, 21.1171, 13.139, 89.112, -111.208
2.09555, -1, -6.56683, 8.81776, 21.1539, 13.1412, 89.014, -111.456
2.10346, -1, -6.75016, 8.72413, 21.1908, 13.1434, 88.916, -111.704
2.11147, -1, -6.93395, 8.63056, 21.2278, 13.1455, 88.8182, -111.952
2.1196, -1, -7.11799, 8.53696, 21.2646, 13.1476, 88.7202, -112.2
2.12745, -1, -7.3023, 8.44339, 21.3015, 13.1498, 88.6224, -112.448
2.13547, -1, -7.4862, 8.34978, 21.3385, 13.1518, 88.5248, -112.695
2.14353, -1, -7.66994, 8.25628, 21.3752, 13.1541, 88.4271, -112.943
2.15146, -1, -7.8532, 8.16286, 21.412, 13.1562, 88.3296, -113.19
2.15946, -1, -8.03608, 8.06946, 21.4489, 13.1585, 88.2323, -113.437
2.1676, -1, -8.2183, 7.97615, 21.4856, 13.1607, 88.1349, -113.684
2.17548, -1, -8.3999, 7.88288, 21.5224, 13.1629, 88.0374, -113.932
2.18346, -1, -8.58108, 7.78963, 21.5593, 13.1651, 87.9402, -114.178
2.19166, -1, -8.76198, 7.69645, 21.5961, 13.1675, 87.8426, -114.425
2.19951, -1, -8.9426, 7.60333, 21.6328, 13.1697, 87.7451, -114.671
2.20754, -1, -9.12347, 7.51028, 21.6696, 13.172, 87.648, -114.918
2.21596, -1, -9.30464, 7.41737, 21.7062, 13.1743, 87.5508, -115.164
2.22355, -1, -9.48604, 7.32458, 21.7429, 13.1764, 87.4536, -115.41
2.23158, -1, -9.66791, 7.23174, 21.7796, 13.1787, 87.3567, -115.656
2.24006, -1, -9.85004, 7.139, 21.8162, 13.1809, 87.2594, -115.903
2.24853, -1, -10.0325, 7.04627, 21.8527, 13.1831, 87.1622, -116.149
2.25547, -1, -10.2151, 6.95353, 21.8893, 13.1854, 87.0651, -116.395
2.26437, -1, -10.3977, 6.86074, 21.9259, 13.1875, 86.9678, -116.64
2.27151, -1, -10.5802, 6.76799, 21.9625, 13.1898, 86.8708, -116.885
2.27956, -1, -10.7622, 6.67535, 21.999, 13.1921, 86.7739, -117.131
2.28847, -1, -10.9438, 6.58273, 22.0354, 13.1945, 86.6769, -117.376
2.29565, -1, -11.1247, 6.49015, 22.0719, 13.1969, 86.5801, -117.621
2.3039, -1, -11.3049, 6.39765, 22.1085, 13.1994, 86.4836, -117.866
2.31278, -1, -11.4847, 6.30513, 22.1449, 13.2018, 86.3868, -118.111
2.31985, -1, -11.6641, 6.21269, 22.1813, 13.2042, 86.2901, -118.356
2.32801, -1, -11.8432, 6.12034, 22.2179, 13.2067, 86.1936, -118.601
2.33677, -1, -12.0225, 6.02805, 22.2543, 13.2092, 86.0969, -118.845
2.34398, -1, -12.2018, 5.93584, 22.2907, 13.2116, 86.0004, -119.089
2.35262, -1, -12.3815, 5.84384, 22.3271, 13.2141, 85.9042, -119.333
2.36089, -1, -12.5616, 5.75179, 22.3634, 13.2165, 85.8078, -119.577
2.36821, -1, -12.7421, 5.65978, 22.3996, 13.219, 85.7115, -119.821
2.37605, -1, -12.8325, 5.61381, 22.4178, 13.2202, 85.6157, -120.065
2.38345, -1, -13.0135, 5.52193, 22.4542, 13.2226, 85.5677, -120.187
2.39145, -1, -13.1946, 5.42992, 22.4904, 13.2251, 85.4716, -120.431
2.39947, -1, -13.3759, 5.33793, 22.5266, 13.2276, 85.3755, -120.674
2.40751, -1, -13.5567, 5.24602, 22.5629, 13.2301, 85.28, -120.918
2.41548, -1, -13.7371, 5.15417, 22.599, 13.2326, 85.1841, -121.16
2.42357, -1, -13.9171, 5.06232, 22.6351, 13.2352, 85.0882, -121.403
2.4315, -1, -14.0963, 4.97055, 22.6714, 13.2378, 84.9929, -121.646
2.43946, -1, -14.2746, 4.87882, 22.7075, 13.2404, 84.897, -121.889
2.44748, -1, -14.4528, 4.78716, 22.7436, 13.2429, 84.8015, -122.132
2.45556, -1, -14.6305, 4.69552, 22.7799, 13.2455, 84.7061, -122.374
2.46345, -1, -14.8082, 4.60396, 22.816, 13.248, 84.6102, -122.617
2.47306, -1, -15.0747, 4.4668, 22.8701, 13.2517, 84.4668, -122.98
2.47951, -1, -15.1637, 4.42117, 22.8882, 13.2529, 84.419, -123.101
2.48749, -1, -15.3419, 4.32988, 22.9243, 13.2553, 84.3232, -123.343
2.49547, -1, -15.5206, 4.23855, 22.9603, 13.2577, 84.2275, -123.585
2.50446, -1, -15.6997, 4.14726, 22.9964, 13.26, 84.1322, -123.827
2.51145, -1, -15.8788, 4.05605, 23.0323, 13.2623, 84.0366, -124.068
2.52049, -1, -16.0582, 3.96479, 23.0682, 13.2645, 83.9411, -124.31
2.52752, -1, -16.238, 3.8735, 23.1043, 13.2666, 83.8459, -124.551
2.53544, -1, -16.4175, 3.78229, 23.1402, 13.2688, 83.7503, -124.793
2.54387, -1, -16.5967, 3.69111, 23.176, 13.271, 83.6548, -125.034
2.55251, -1, -16.7755, 3.60004, 23.2119, 13.2733, 83.5596, -125.275
2.55945, -1, -16.9535, 3.509, 23.2477, 13.2756, 83.4641, -125.516
2.56823, -1, -17.1308, 3.41799, 23.2835, 13.2777, 83.3687, -125.757
2.57544, -1, -17.3074, 3.32709, 23.3194, 13.28, 83.2737, -125.997
2.58348, -1, -17.4838, 3.23622, 23.3552, 13.2821, 83.1784, -126.238
2.59224, -1, -17.66, 3.14544, 23.391, 13.2843, 83.0835, -126.479
2.59945, -1, -17.836, 3.05481, 23.4269, 13.2865, 82.9889, -126.719
2.60745, -1, -18.0121, 2.96427, 23.4627, 13.2886, 82.8939, -126.959
2.61623, -1, -18.1885, 2.8739, 23.4984, 13.2907, 82.7992, -127.199
2.62351, -1, -18.3652, 2.78347, 23.5342, 13.2929, 82.7046, -127.439
2.63145, -1, -18.5424, 2.69306, 23.5699, 13.2949, 82.6098, -127.679
2.64024, -1, -18.72, 2.6027, 23.6056, 13.2969, 82.5152, -127.918
2.64746, -1, -18.8978, 2.51233, 23.6413, 13.2989, 82.4209, -128.158
2.65545, -1, -19.076, 2.42184, 23.677, 13.3009, 82.3264, -128.397
2.66429, -1, -19.2543, 2.33143, 23.7125, 13.3029, 82.232, -128.636
2.67145, -1, -19.4322, 2.24103, 23.7482, 13.3049, 82.1379, -128.876
2.67944, -1, -19.6096, 2.15065, 23.7838, 13.3072, 82.0437, -129.115
2.68856, -1, -19.7864, 2.0603, 23.8191, 13.3093, 81.9496, -129.354
2.69547, -1, -19.9626, 1.97004, 23.8547, 13.3115, 81.8554, -129.593
2.70355, -1, -20.138, 1.87977, 23.8903, 13.3136, 81.7614, -129.831
2.71251, -1, -20.313, 1.78962, 23.9257, 13.3159, 81.6674, -130.07
2.71954, -1, -20.4878, 1.69952, 23.9613, 13.3181, 81.5734, -130.308
2.72762, -1, -20.6623, 1.60954, 23.9969, 13.3203, 81.4796, -130.546
2.73584, -1, -20.8369, 1.51961, 24.0323, 13.3224, 81.3856, -130.785
2.74355, -1, -21.0116, 1.42982, 24.0677, 13.3247, 81.2919, -131.022
2.75165, -1, -21.1868, 1.34011, 24.1033, 13.3268, 81.1982, -131.26
2.76086, -1, -21.3623, 1.25035, 24.1387, 13.329, 81.1043, -131.498
2.76749, -1, -21.5382, 1.1607, 24.174, 13.3312, 81.0103, -131.736
2.77554, -1, -21.7143, 1.07108, 24.2096, 13.3333, 80.9167, -131.974
2.7836, -1, -21.8906, 0.981427, 24.2449, 13.3355, 80.8228, -132.211
2.79174, -1, -22.0671, 0.891788, 24.2803, 13.3376, 80.7291, -132.448
2.79965, -1, -22.2437, 0.802202, 24.3157, 13.3398, 80.6356, -132.685
2.80784, -1, -22.42, 0.712711, 24.351, 13.342, 80.5418, -132.922
2.81582, -1, -22.5958, 0.623169, 24.3862, 13.3443, 80.4482, -133.159
2.8239, -1, -22.7713, 0.533735, 24.4215, 13.3467, 80.3548, -133.396
2.83202, -1, -22.9457, 0.444332, 24.4567, 13.3491, 80.261, -133.633
2.83999, -1, -23.1194, 0.354919, 24.4918, 13.3516, 80.1675, -133.87
2.84798, -1, -23.2929, 0.265562, 24.527, 13.354, 80.0742, -134.107
2.85658, -1, -23.4661, 0.176297, 24.5623, 13.3564, 79.9805, -134.343
2.86407, -1, -23.6392, 0.0871489, 24.5974, 13.3588, 79.8873, -134.579
2.87197, -1, -23.7259, 0.0425901, 24.615, 13.36, 79.7942, -134.815
2.88031, -1, -23.986, -0.0909464, 24.6678, 13.3637, 79.701, -135.051
2.88744, -1, -24.0728, -0.135426, 24.6853, 13.3649, 79.6544, -135.169
2.89544, -1, -24.2466, -0.2244, 24.7203, 13.3674, 79.5613, -135.405
2.90349, -1, -24.4207, -0.313357, 24.7555, 13.3698, 79.4684, -135.64
2.91143, -1, -24.5952, -0.402216, 24.7906, 13.3722, 79.3752, -135.876
2.91948, -1, -24.7699, -0.491136, 24.8256, 13.3746, 79.2821, -136.112
2.92744, -1, -24.9449, -0.580035, 24.8607, 13.377, 79.1892, -136.347
2.93545, -1, -25.12, -0.668862, 24.8958, 13.3794, 79.0961, -136.582
2.94349, -1, -25.2947, -0.75764, 24.9307, 13.3818, 79.0032, -136.817
2.95144, -1, -25.469, -0.846451, 24.9657, 13.3842, 78.9107, -137.052
2.9595, -1, -25.6429, -0.935227, 25.0007, 13.3867, 78.8179, -137.287
2.96749, -1, -25.8162, -1.02392, 25.0355, 13.3891, 78.7252, -137.522
2.97706, -1, -26.075, -1.15702, 25.088, 13.3928, 78.5867, -137.874
2.98343, -1, -26.1611, -1.20136, 25.1055, 13.3941, 78.5403, -137.991
2.99299, -1, -26.3329, -1.28991, 25.1577, 13.3976, 78.4013, -138.343
3.00201, -1, -26.5047, -1.37841, 25.1926, 13.3999, 78.3092, -138.577
3.00843, -1, -26.6767, -1.46676, 25.2101, 13.4011, 78.2628, -138.694
3.01551, -1, -26.8488, -1.55501, 25.2449, 13.4033, 78.1704, -138.928
3.02608, -1, -27.0212, -1.64318, 25.2798, 13.4056, 78.0779, -139.279
3.03244, -1, -27.1937, -1.73139, 25.3146, 13.4077, 77.986, -139.396
3.03951, -1, -27.3663, -1.81957, 25.3494, 13.4099, 77.8938, -139.63
3.04744, -1, -27.5394, -1.90762, 25.3841, 13.412, 77.8017, -139.864
3.05545, -1, -27.7126, -1.99583, 25.419, 13.4141, 77.7099, -140.097
3.06343, -1, -27.8859, -2.08398, 25.4538, 13.4162, 77.6177, -140.33
3.07151, -1, -28.0592, -2.17201, 25.4885, 13.4183, 77.5257, -140.564
3.07943, -1, -28.2324, -2.26006, 25.5232, 13.4204, 77.4338, -140.797
3.08746, -1, -28.4053, -2.34815, 25.558, 13.4224, 77.3416, -141.03
3.09552, -1, -28.578, -2.43617, 25.5927, 13.4246, 77.2494, -141.263
3.10343, -1, -28.7501, -2.52408, 25.6272, 13.4267, 77.1576, -141.496
3.11143, -1, -28.9214, -2.61213, 25.6619, 13.4288, 77.0655, -141.729
3.11951, -1, -29.0922, -2.70004, 25.6965, 13.4311, 76.9736, -141.961
3.1275, -1, -29.2629, -2.78787, 25.731, 13.4331, 76.8819, -142.194
3.13544, -1, -29.4334, -2.87563, 25.7657, 13.4353, 76.79, -142.426
3.14351, -1, -29.6042, -2.96326, 25.8003, 13.4373, 76.6981, -142.659
3.15143, -1, -29.7752, -3.05081, 25.8348, 13.4393, 76.6063, -142.891
3.15943, -1, -29.9462, -3.13829, 25.8694, 13.4414, 76.5145, -143.123
3.1675, -1, -30.1171, -3.22581, 25.9039, 13.4435, 76.4227, -143.355
3.17545, -1, -30.2881, -3.31331, 25.9384, 13.4456, 76.331, -143.587
3.1835, -1, -30.4595, -3.40072, 25.973, 13.4476, 76.2396, -143.819
3.19144, -1, -30.6312, -3.48825, 26.0075, 13.4496, 76.148, -144.051
3.19953, -1, -30.803, -3.57573, 26.0419, 13.4517, 76.0566, -144.282
3.20749, -1, -30.9749, -3.66312, 26.0765, 13.4536, 75.9654, -144.514
3.21553, -1, -31.1467, -3.75048, 26.111, 13.4557, 75.8739, -144.745
3.22359, -1, -31.3182, -3.83783, 26.1454, 13.4578, 75.7825, -144.977
3.23155, -1, -31.4893, -3.92515, 26.1798, 13.4598, 75.6914, -145.208
3.23959, -1, -31.66, -4.01236, 26.2143, 13.462, 75.6, -145.439
3.24761, -1, -31.8302, -4.09964, 26.2487, 13.4641, 75.5087, -145.67
3.25553, -1, -32, -4.1869, 26.2831, 13.4664, 75.4178, -145.9
3.26345, -1, -32.1695, -4.27402, 26.3175, 13.4686, 75.3266, -146.131
3.27154, -1, -32.3389, -4.36112, 26.3518, 13.4708, 75.2356, -146.362
3.27963, -1, -32.5084, -4.44812, 26.386, 13.473, 75.1448, -146.593
3.28754, -1, -32.6781, -4.53504, 26.4205, 13.4751, 75.0539, -146.823
3.29584, -1, -32.8477, -4.62198, 26.4549, 13.4773, 74.9631, -147.053
3.3037, -1, -33.0174, -4.70891, 26.489, 13.4794, 74.8723, -147.284
3.31171, -1, -33.1872, -4.79581, 26.5233, 13.4815, 74.7819, -147.514
3.31995, -1, -33.3571, -4.88263, 26.5577, 13.4838, 74.6911, -147.744
3.32854, -1, -33.5273, -4.96957, 26.5919, 13.4861, 74.6004, -147.974
3.33588, -1, -33.6977, -5.05645, 26.6261, 13.4883, 74.5101, -148.204
3.34399, -1, -33.8679, -5.14321, 26.6603, 13.4905, 74.4193, -148.433
3.35197, -1, -34.0382, -5.22995, 26.6945, 13.4928, 74.3289, -148.663
3.36065, -1, -34.2084, -5.3167, 26.7286, 13.495, 74.2385, -148.892
3.36805, -1, -34.2934, -5.4033, 26.7629, 13.4972, 74.1478, -149.122
3.37617, -1, -34.4635, -5.44661, 26.78, 13.4984, 74.0572, -149.351
3.38402, -1, -34.6329, -5.53329, 26.8141, 13.5008, 74.0119, -149.581
3.39144, -1, -34.8019, -5.61992, 26.8482, 13.5031, 73.9215, -149.695
3.39942, -1, -34.9704, -5.70648, 26.8824, 13.5056, 73.8308, -149.924
3.40746, -1, -35.1388, -5.79297, 26.9164, 13.5081, 73.7404, -150.153
3.41543, -1, -35.307, -5.8794, 26.9505, 13.5105, 73.6502, -150.382
3.4235, -1, -35.4754, -5.96563, 26.9847, 13.5129, 73.5598, -150.611
3.43145, -1, -35.644, -6.05186, 27.0187, 13.5153, 73.4694, -150.84
3.43944, -1, -35.8125, -6.13811, 27.0527, 13.5176, 73.3793, -151.068
3.44748, -1, -35.981, -6.22426, 27.0868, 13.5201, 73.2887, -151.297
3.45542, -1, -36.1495, -6.31039, 27.1208, 13.5224, 73.1984, -151.525
3.46496, -1, -36.4025, -6.43969, 27.1717, 13.5261, 73.063, -151.868
3.47153, -1, -36.487, -6.48282, 27.1887, 13.5273, 73.0176, -151.982
3.47942, -1, -36.6558, -6.56903, 27.2227, 13.5295, 72.9274, -152.21
3.48958, -1, -36.9092, -6.69829, 27.2736, 13.533, 72.7922, -152.553
3.49549, -1, -36.9937, -6.74137, 27.2905, 13.5341, 72.7472, -152.667
3.50519, -1, -37.1626, -6.87063, 27.3415, 13.5376, 72.6121, -153.009
3.51143, -1, -37.3313, -6.91364, 27.3584, 13.5387, 72.5671, -153.122
3.52042, -1, -37.4996, -6.99967, 27.3923, 13.5409, 72.4774, -153.35
3.52743, -1, -37.6675, -7.08571, 27.4263, 13.5433, 72.3874, -153.577
3.53643, -1, -37.8351, -7.17172, 27.4601, 13.5455, 72.2975, -153.805
3.54348, -1, -38.0027, -7.25763, 27.494, 13.5477, 72.2079, -154.033
3.55142, -1, -38.1701, -7.34353, 27.5279, 13.5499, 72.118, -154.26
3.55943, -1, -38.3375, -7.42934, 27.5618, 13.5521, 72.0283, -154.487
3.56749, -1, -38.5048, -7.51502, 27.5956, 13.5542, 71.9388, -154.714
3.57542, -1, -38.6721, -7.60077, 27.6295, 13.5563, 71.8491, -154.942
3.58343, -1, -38.8394, -7.6865, 27.6634, 13.5583, 71.7596, -155.169
3.59151, -1, -39.0067, -7.77216, 27.697, 13.5604, 71.6702, -155.396
3.59941, -1, -39.1741, -7.8578, 27.7308, 13.5625, 71.581, -155.622
3.60741, -1, -39.3417, -7.94354, 27.7647, 13.5645, 71.4915, -155.849
3.61548, -1, -39.5091, -8.02915, 27.7984, 13.5665, 71.4021, -156.076
3.62343, -1, -39.6768, -8.11471, 27.8321, 13.5684, 71.3131, -156.303
3.63148, -1, -39.8445, -8.20018, 27.8659, 13.5704, 71.2234, -156.529
3.63949, -1, -40.012, -8.28565, 27.8996, 13.5723, 71.1341, -156.755
3.64742, -1, -40.1796, -8.37103, 27.9333, 13.5742, 71.0449, -156.982
3.65542, -1, -40.3469, -8.45638, 27.967, 13.5762, 70.9556, -157.208
3.66349, -1, -40.514, -8.54178, 28.0008, 13.5782, 70.8663, -157.434
3.67142, -1, -40.681, -8.62715, 28.0343, 13.5802, 70.7772, -157.66
3.67948, -1, -40.8477, -8.71254, 28.068, 13.5822, 70.6881, -157.886
3.68742, -1, -41.0142, -8.79788, 28.1018, 13.5843, 70.5989, -158.112
3.69542, -1, -41.1805, -8.88315, 28.1353, 13.5863, 70.5098, -158.338
3.70353, -1, -41.3467, -8.96835, 28.1689, 13.5883, 70.4207, -158.564
3.71159, -1, -41.513, -9.05354, 28.2026, 13.5902, 70.3314, -158.789
3.71951, -1, -41.6793, -9.13866, 28.2362, 13.5923, 70.2422, -159.014
3.72757, -1, -41.8456, -9.22376, 28.2697, 13.5943, 70.1534, -159.24
3.73551, -1, -42.012, -9.30875, 28.3034, 13.5963, 70.0642, -159.465
3.74353, -1, -42.1783, -9.3938, 28.337, 13.5983, 69.9751, -159.691
3.7516, -1, -42.3446, -9.47889, 28.3705, 13.6004, 69.8865, -159.916
3.75945, -1, -42.5109, -9.56388, 28.4041, 13.6023, 69.7973, -160.141
3.76745, -1, -42.6773, -9.64886, 28.4376, 13.6044, 69.7085, -160.366
3.77551, -1, -42.8437, -9.73382, 28.4711, 13.6064, 69.6197, -160.592
3.78364, -1, -43.0101, -9.81876, 28.5045, 13.6085, 69.5309, -160.817
3.79156, -1, -43.1764, -9.90369, 28.5381, 13.6105, 69.4421, -161.042
3.79975, -1, -43.3425, -9.9886, 28.5716, 13.6126, 69.3534, -161.266
3.80767, -1, -43.5086, -10.0735, 28.6051, 13.6147, 69.265, -161.491
3.81572, -1, -43.6746, -10.1585, 28.6386, 13.6168, 69.1762, -161.716
3.8239, -1, -43.8404, -10.2434, 28.6721, 13.6189, 69.0877, -161.941
3.8319, -1, -44.0062, -10.3281, 28.7054, 13.6211, 68.9994, -162.165
3.84051, -1, -44.1716, -10.4129, 28.7389, 13.6232, 68.9106, -162.389
3.84806, -1, -44.3368, -10.4975, 28.7725, 13.6254, 68.8221, -162.614
3.85598, -1, -44.5021, -10.5821, 28.8058, 13.6276, 68.7335, -162.838
3.86396, -1, -44.6672, -10.6666, 28.8392, 13.6298, 68.6449, -163.062
3.8721, -1, -44.8324, -10.7511, 28.8728, 13.6319, 68.5563, -163.286
3.88096, -1, -44.9151, -10.7933, 28.8895, 13.633, 68.512, -163.51
3.88842, -1, -45.1631, -10.9201, 28.9396, 13.6364, 68.3796, -163.734
3.89548, -1, -45.2458, -10.9624, 28.9563, 13.6375, 68.3352, -163.846
3.90343, -1, -45.4109, -11.0468, 28.9897, 13.6398, 68.2469, -164.07
3.91145, -1, -45.5762, -11.1313, 29.023, 13.642, 68.1587, -164.294
3.9195, -1, -45.7416, -11.2158, 29.0562, 13.6444, 68.0704, -164.518
3.92744, -1, -45.9066, -11.3, 29.0896, 13.6466, 67.9819, -164.741
3.9354, -1, -46.0695, -11.3833, 29.1231, 13.6489, 67.8935, -164.965
3.94346, -1, -46.229, -11.4643, 29.1566, 13.6512, 67.8059, -165.187
3.95141, -1, -46.3829, -11.5416, 29.1902, 13.6537, 67.7193, -165.406
3.95942, -1, -46.5287, -11.6141, 29.2233, 13.656, 67.6357, -165.617
3.96933, -1, -46.7274, -11.7115, 29.2689, 13.6593, 67.5211, -165.908
3.9754, -1, -46.7868, -11.7404, 29.2826, 13.6603, 67.4864, -165.995
3.98341, -1, -46.8935, -11.7929, 29.3069, 13.6623, 67.4249, -166.151
3.99301, -1, -47.0231, -11.8594, 29.3338, 13.6643, 67.3538, -166.331
3.99952, -1, -47.0584, -11.8786, 29.3399, 13.6648, 67.3357, -166.376
4.0074, -1, -47.118, -11.9117, 29.349, 13.6653, 67.3076, -166.447
4.01644, -1, -47.1632, -11.9373, 29.3544, 13.6657, 67.2888, -166.494
4.02337, -1, -47.196, -11.9559, 29.357, 13.6658, 67.2772, -166.523
4.03141, -1, -47.2185, -11.9683, 29.3582, 13.6658, 67.2708, -166.54
4.03948, -1, -47.2326, -11.9761, 29.3588, 13.6659, 67.2675, -166.548
4.04737, 2, -47.2406, -11.9803, 29.359, 13.666, 67.2659, -166.552
4.0554, 2, -47.2442, -11.9822, 29.3592, 13.666, 67.2651, -166.554
4.06347, 2, -47.245, -11.9831, 29.3593, 13.666, 67.2648, -166.555
4.07141, 2, -47.2448, -11.9834, 29.3594, 13.6661, 67.2646, -166.555
4.07941, 2, -47.2447, -11.9835, 29.3594, 13.6661, 67.2645, -166.555
4.08747, 2, -47.2448, -11.9836, 29.3594, 13.6661, 67.2645, -166.555
4.09543, 2, -47.2455, -11.9837, 29.3594, 13.6661, 67.2645, -166.555
4.1034, 2, -47.2465, -11.9841, 29.3594, 13.6661, 67.2645, -166.555
4.11147, 2, -47.248, -11.9847, 29.3594, 13.6661, 67.2645, -166.555
4.11941, 2, -47.2497, -11.9856, 29.3594, 13.6661, 67.2644, -166.555
4.12741, 2, -47.2512, -11.9865, 29.3594, 13.6661, 67.2644, -166.555
4.13552, 2, -47.2524, -11.9872, 29.3594, 13.6661, 67.2644, -166.555
4.1434, 2, -47.2531, -11.9878, 29.3594, 13.6661, 67.2644, -166.556
4.1514, 2, -47.2534, -11.988, 29.3595, 13.6661, 67.2644, -166.555
4.15948, 2, -47.2536, -11.9881, 29.3595, 13.6661, 67.2644, -166.555
4.1674, 2, -47.2535, -11.9882, 29.3595, 13.6661, 67.2644, -166.555
4.1754, 2, -47.2531, -11.9881, 29.3595, 13.6662, 67.2644, -166.555
4.18348, 2, -47.2526, -11.9881, 29.3595, 13.6661, 67.2644, -166.555
4.1914, 2, -47.2522, -11.9881, 29.3595, 13.6661, 67.2644, -166.555
4.19942, 2, -47.2519, -11.9881, 29.3595, 13.6662, 67.2645, -166.555
4.20751, 2, -47.2518, -11.9882, 29.3595, 13.6662, 67.2645, -166.555
4.21549, 2, -47.2519, -11.9883, 29.3595, 13.6662, 67.2645, -166.555
4.2235, 2, -47.252, -11.9885, 29.3595, 13.6662, 67.2645, -166.555
4.23158, 2, -47.2524, -11.9889, 29.3595, 13.6661, 67.2645, -166.555
4.23951, 2, -47.2531, -11.9892, 29.3595, 13.6661, 67.2645, -166.555
4.24751, 2, -47.2535, -11.9894, 29.3595, 13.6661, 67.2645, -166.555
4.25558, 2, -47.2537, -11.9896, 29.3595, 13.6661, 67.2645, -166.555
4.26344, 2, -47.2538, -11.9896, 29.3595, 13.6661, 67.2645, -166.555
4.27144, 2, -47.2537, -11.9896, 29.3595, 13.6661, 67.2645, -166.555
4.27964, 2, -47.2536, -11.9895, 29.3595, 13.6661, 67.2645, -166.555
4.28745, 2, -47.2533, -11.9895, 29.3595, 13.6661, 67.2645, -166.555
4.29567, 2, -47.2529, -11.9894, 29.3595, 13.6661, 67.2645, -166.555
4.30402, 2, -47.2526, -11.9894, 29.3595, 13.666, 67.2645, -166.555
4.31247, 2, -47.2524, -11.9894, 29.3595, 13.666, 67.2645, -166.555
4.3197, 2, -47.2522, -11.9895, 29.3595, 13.6661, 67.2646, -166.555
4.32818, 2, -47.2522, -11.9895, 29.3595, 13.666, 67.2645, -166.555
4.33584, 2, -47.2522, -11.9896, 29.3595, 13.666, 67.2645, -166.555
4.3445, 2, -47.2522, -11.9896, 29.3595, 13.666, 67.2645, -166.555
4.35231, 2, -47.2521, -11.9897, 29.3595, 13.6661, 67.2645, -166.555
4.35994, 2, -47.2521, -11.9897, 29.3595, 13.666, 67.2646, -166.555
4.36796, 2, -47.2522, -11.9897, 29.3595, 13.666, 67.2646, -166.555
4.37624, 2, -47.2522, -11.9897, 29.3595, 13.666, 67.2646, -166.555
4.38397, 2, -47.2521, -11.9896, 29.3595, 13.666, 67.2646, -166.555
4.3914, 2, -47.2521, -11.9896, 29.3595, 13.666, 67.2646, -166.555
4.40027, 2, -47.252, -11.9895, 29.3595, 13.666, 67.2646, -166.555
4.40739, 2, -47.2519, -11.9895, 29.3595, 13.666, 67.2646, -166.555
4.41539, 2, -47.2518, -11.9894, 29.3595, 13.666, 67.2646, -166.555
4.42344, 2, -47.2517, -11.9894, 29.3595, 13.666, 67.2646, -166.555
4.43142, 2, -47.2516, -11.9894, 29.3595, 13.666, 67.2646, -166.555
4.4394, 2, -47.2515, -11.9895, 29.3595, 13.6661, 67.2646, -166.555
4.44747, 2, -47.2514, -11.9895, 29.3595, 13.6661, 67.2646, -166.555
4.4554, 2, -47.2514, -11.9895, 29.3595, 13.6661, 67.2646, -166.555
4.46489, 2, -47.2513, -11.9895, 29.3595, 13.666, 67.2645, -166.555
4.47329, 2, -47.2512, -11.9895, 29.3595, 13.666, 67.2645, -166.555
4.4794, 2, -47.2512, -11.9895, 29.3595, 13.666, 67.2646, -166.555
4.48919, 2, -47.2511, -11.9894, 29.3595, 13.666, 67.2646, -166.555
4.49545, 2, -47.2511, -11.9894, 29.3595, 13.666, 67.2646, -166.555
4.50339, 2, -47.251, -11.9893, 29.3595, 13.666, 67.2646, -166.555
4.513, 2, -47.2509, -11.9893, 29.3595, 13.6661, 67.2646, -166.555
4.51946, 2, -47.2508, -11.9892, 29.3595, 13.666, 67.2646, -166.555
4.52739, 2, -47.2507, -11.9892, 29.3595, 13.666, 67.2646, -166.555
4.53539, 2, -47.2506, -11.9892, 29.3595, 13.666, 67.2646, -166.555
4.54345, 2, -47.2505, -11.9892, 29.3595, 13.666, 67.2646, -166.555
4.55244, 2, -47.2504, -11.9892, 29.3595, 13.666, 67.2646, -166.555
4.5594, 2, -47.2503, -11.9892, 29.3595, 13.666, 67.2646, -166.555
4.56745, 2, -47.2502, -11.9892, 29.3595, 13.666, 67.2647, -166.555
4.57539, 2, -47.25, -11.9892, 29.3595, 13.6659, 67.2647, -166.555
4.58339, 2, -47.25, -11.9892, 29.3595, 13.6659, 67.2647, -166.555
4.59145, 2, -47.2499, -11.9892, 29.3595, 13.6659, 67.2647, -166.555
4.59943, 2, -47.2498, -11.9891, 29.3595, 13.6659, 67.2647, -166.555
4.60739, 2, -47.2497, -11.9891, 29.3595, 13.6659, 67.2647, -166.555
4.61545, 2, -47.2496, -11.989, 29.3595, 13.6659, 67.2647, -166.555
4.62339, 2, -47.2495, -11.9889, 29.3595, 13.6659, 67.2647, -166.555
4.63139, 2, -47.2494, -11.9889, 29.3595, 13.6659, 67.2647, -166.555
4.63952, 2, -47.2493, -11.9889, 29.3595, 13.6659, 67.2647, -166.555
4.64739, 2, -47.2492, -11.9889, 29.3595, 13.6659, 67.2646, -166.555
4.65539, 2, -47.2491, -11.9889, 29.3595, 13.6659, 67.2647, -166.555
4.66345, 2, -47.2491, -11.9889, 29.3595, 13.6658, 67.2647, -166.555
4.67139, 2, -47.2491, -11.9889, 29.3595, 13.6658, 67.2647, -166.555
4.6794, 2, -47.249, -11.9889, 29.3595, 13.6659, 67.2647, -166.555
4.68745, 2, -47.249, -11.9889, 29.3595, 13.6658, 67.2647, -166.555
4.69539, 2, -47.2489, -11.9889, 29.3595, 13.6658, 67.2647, -166.555
4.7034, 2, -47.2488, -11.9888, 29.3595, 13.6658, 67.2647, -166.555
4.71149, 2, -47.2488, -11.9887, 29.3595, 13.6658, 67.2647, -166.555
4.71948, 2, -47.2487, -11.9886, 29.3595, 13.6658, 67.2647, -166.555
4.72748, 2, -47.2486, -11.9886, 29.3595, 13.6658, 67.2647, -166.555
4.73555, 2, -47.2485, -11.9886, 29.3595, 13.6658, 67.2647, -166.555
4.74349, 2, -47.2485, -11.9886, 29.3595, 13.6658, 67.2647, -166.555
4.7515, 2, -47.2484, -11.9886, 29.3595, 13.6658, 67.2647, -166.555
4.75956, 2, -47.2484, -11.9886, 29.3595, 13.6658, 67.2647, -166.555
4.76742, 2, -47.2483, -11.9886, 29.3595, 13.6658, 67.2647, -166.555
4.77542, 2, -47.2483, -11.9886, 29.3595, 13.6657, 67.2647, -166.555
4.78349, 2, -47.2483, -11.9886, 29.3595, 13.6658, 67.2647, -166.555
4.7915, 2, -47.2483, -11.9885, 29.3595, 13.6658, 67.2647, -166.555
4.79956, 2, -47.2482, -11.9885, 29.3595, 13.6657, 67.2647, -166.555
4.80769, 2, -47.2482, -11.9884, 29.3595, 13.6657, 67.2648, -166.555
4.81572, 2, -47.2481, -11.9883, 29.3595, 13.6658, 67.2648, -166.554
4.82373, 2, -47.248, -11.9883, 29.3595, 13.6657, 67.2647, -166.554
4.83184, 2, -47.2479, -11.9882, 29.3595, 13.6657, 67.2648, -166.554
4.83994, 2, -47.2479, -11.9882, 29.3595, 13.6657, 67.2648, -166.554
4.84794, 2, -47.2478, -11.9882, 29.3595, 13.6657, 67.2648, -166.554
4.85648, 2, -47.2478, -11.9882, 29.3595, 13.6656, 67.2648, -166.554
4.86399, 2, -47.2477, -11.9882, 29.3595, 13.6657, 67.2648, -166.554
4.87198, 2, -47.2477, -11.9881, 29.3595, 13.6657, 67.2648, -166.554
4.88002, 2, -47.2477, -11.9881, 29.3595, 13.6656, 67.2648, -166.554
4.88796, 2, -47.2476, -11.9881, 29.3595, 13.6656, 67.2648, -166.554
4.89537, 2, -47.2476, -11.9881, 29.3595, 13.6656, 67.2649, -166.554
4.90443, 2, -47.2476, -11.9881, 29.3595, 13.6655, 67.2649, -166.554
4.91138, 2, -47.2476, -11.988, 29.3595, 13.6655, 67.265, -166.554
4.91938, 2, -47.2475, -11.988, 29.3595, 13.6655, 67.265, -166.554
4.92743, 2, -47.2474, -11.9879, 29.3595, 13.6655, 67.2649, -166.554
4.93541, 2, -47.2473, -11.9878, 29.3595, 13.6655, 67.265, -166.554
4.94338, 2, -47.2472, -11.9878, 29.3595, 13.6655, 67.265, -166.554
4.95143, 2, -47.2472, -11.9878, 29.3595, 13.6655, 67.2649, -166.554
4.96095, 2, -47.2471, -11.9878, 29.3595, 13.6654, 67.2649, -166.554
4.96746, 2, -47.2471, -11.9878, 29.3595, 13.6654, 67.265, -166.554
4.97549, 2, -47.247, -11.9878, 29.3595, 13.6655, 67.265, -166.554
4.98503, 2, -47.247, -11.9878, 29.3595, 13.6655, 67.265, -166.554
4.99137, 2, -47.247, -11.9878, 29.3595, 13.6654, 67.2651, -166.554
4.99945, 2, -47.247, -11.9877, 29.3595, 13.6654, 67.265, -166.554
5.00909, 2, -47.247, -11.9877, 29.3595, 13.6654, 67.265, -166.554
5.01537, 2, -47.2469, -11.9877, 29.3595, 13.6654, 67.265, -166.554
5.02344, 2, -47.2469, -11.9876, 29.3595, 13.6654, 67.2651, -166.554
5.03245, 2, -47.2468, -11.9875, 29.3595, 13.6653, 67.2651, -166.554
5.03938, 2, -47.2467, -11.9875, 29.3595, 13.6653, 67.2651, -166.554
5.04757, 2, -47.2466, -11.9875, 29.3595, 13.6653, 67.2651, -166.554
5.05536, 2, -47.2466, -11.9874, 29.3595, 13.6653, 67.2651, -166.554
5.06338, 2, -47.2465, -11.9874, 29.3595, 13.6653, 67.2651, -166.554
5.07144, 2, -47.2465, -11.9874, 29.3595, 13.6653, 67.265, -166.554
5.07938, 2, -47.2464, -11.9874, 29.3595, 13.6652, 67.2651, -166.554
5.08739, 2, -47.2464, -11.9874, 29.3595, 13.6652, 67.265, -166.554
5.09544, 2, -47.2464, -11.9874, 29.3595, 13.6652, 67.2651, -166.554
5.1034, 2, -47.2464, -11.9873, 29.3595, 13.6652, 67.2651, -166.554
5.11135, 4, -47.2464, -11.9873, 29.3595, 13.6652, 67.2652, -166.554
5.11944, 4, -47.2463, -11.9873, 29.3595, 13.6652, 67.2651, -166.554
5.12737, 4, -47.2463, -11.9872, 29.3595, 13.6651, 67.2652, -166.554
5.13537, 4, -47.2462, -11.9872, 29.3595, 13.6651, 67.2651, -166.554
5.1435, 4, -47.2462, -11.9871, 29.3595, 13.6651, 67.2652, -166.554
5.15138, 4, -47.2461, -11.9871, 29.3594, 13.6651, 67.2652, -166.554
5.15938, 4, -47.2461, -11.9871, 29.3594, 13.6651, 67.2652, -166.554
5.16744, 4, -47.246, -11.9871, 29.3595, 13.6651, 67.2652, -166.554
5.17538, 4, -47.2459, -11.9871, 29.3594, 13.6651, 67.2652, -166.554
5.18337, 4, -47.2459, -11.987, 29.3594, 13.6651, 67.2653, -166.554
5.19144, 4, -47.2459, -11.987, 29.3594, 13.6651, 67.2653, -166.554
5.19939, 4, -47.2459, -11.987, 29.3594, 13.6651, 67.2653, -166.554
5.20741, 4, -47.2458, -11.987, 29.3594, 13.6651, 67.2653, -166.554
5.22296, 4, -47.2458, -11.987, 29.3594, 13.6651, 67.2653, -166.554
5.22848, 4, -47.2458, -11.9869, 29.3594, 13.665, 67.2653, -166.554
5.23161, 4, -47.2457, -11.9869, 29.3594, 13.665, 67.2653, -166.554
5.2431, 4, -47.2456, -11.9868, 29.3594, 13.665, 67.2652, -166.554
5.24768, 4, -47.2456, -11.9868, 29.3594, 13.665, 67.2652, -166.554
5.25757, 4, -47.2455, -11.9868, 29.3595, 13.665, 67.2653, -166.554
5.2637, 4, -47.2455, -11.9868, 29.3594, 13.665, 67.2652, -166.553
5.27281, 4, -47.2454, -11.9868, 29.3595, 13.665, 67.2653, -166.553
5.28051, 4, -47.2454, -11.9868, 29.3595, 13.665, 67.2652, -166.554
5.28853, 4, -47.2453, -11.9867, 29.3595, 13.6649, 67.2653, -166.554
5.2963, 4, -47.2453, -11.9867, 29.3595, 13.6649, 67.2653, -166.554
5.30533, 4, -47.2453, -11.9867, 29.3594, 13.6649, 67.2653, -166.553
5.31218, 4, -47.2453, -11.9867, 29.3595, 13.6649, 67.2653, -166.553
5.32023, 4, -47.2452, -11.9867, 29.3594, 13.6649, 67.2653, -166.553
5.3281, 4, -47.2452, -11.9866, 29.3594, 13.6649, 67.2653, -166.553
5.33616, 4, -47.2452, -11.9866, 29.3594, 13.6649, 67.2653, -166.553
5.34561, 4, -47.2451, -11.9865, 29.3594, 13.6649, 67.2653, -166.553
5.35454, 4, -47.2451, -11.9865, 29.3594, 13.6649, 67.2653, -166.553
5.36169, 4, -47.245, -11.9865, 29.3595, 13.6649, 67.2653, -166.553
5.3687, 4, -47.245, -11.9865, 29.3594, 13.6648, 67.2654, -166.553
5.37699, 4, -47.245, -11.9865, 29.3594, 13.6648, 67.2654, -166.553
5.38414, 4, -47.2454, -11.9867, 29.3596, 13.6648, 67.2654, -166.553
5.3922, 4, -47.246, -11.9877, 29.3605, 13.6653, 67.2656, -166.553
5.40089, 4, -47.2501, -11.9906, 29.3639, 13.67, 67.2669, -166.553
5.40881, 4, -47.2556, -11.9972, 29.3724, 13.6865, 67.2709, -166.55
5.4175, 4, -47.2647, -12.009, 29.3904, 13.722, 67.2804, -166.543
5.42491, 4, -47.2793, -12.0284, 29.4232, 13.7884, 67.2989, -166.528
5.4315, 5, -47.2893, -12.0419, 29.4471, 13.8379, 67.3127, -166.517
5.43961, 5, -47.316, -12.0773, 29.5139, 13.9777, 67.3522, -166.485
5.44749, 5, -47.3533, -12.1257, 29.6113, 14.1846, 67.4092, -166.438
5.45973, 5, -47.4029, -12.1885, 29.8237, 14.6436, 67.5352, -166.332
5.46554, 5, -47.5011, -12.3108, 30.0127, 15.0546, 67.6459, -166.238
5.47359, 5, -47.582, -12.4112, 30.2401, 15.5458, 67.7773, -166.126
5.4814, 5, -47.6745, -12.5256, 30.502, 16.1063, 67.9252, -165.998
5.48967, 5, -47.7768, -12.6523, 30.7941, 16.7215, 68.0857, -165.86
5.49958, 5, -47.8872, -12.7896, 31.1102, 17.3771, 68.2536, -165.715
5.50661, 5, -48.0034, -12.9349, 31.4446, 18.0574, 68.425, -165.566
5.51389, 5, -48.063, -13.0854, 31.7901, 18.7492, 68.5959, -165.418
5.5195, 5, -48.1837, -13.1617, 31.9654, 19.0966, 68.6806, -165.344
5.53002, 5, -48.3638, -13.3887, 32.4948, 20.128, 68.9289, -165.123
5.53736, 5, -48.422, -13.5347, 32.8452, 20.7942, 69.0895, -164.972
5.5454, 5, -48.5326, -13.6049, 33.0173, 21.1173, 69.2481, -164.806
5.5515, 6, -48.6316, -13.7375, 33.3518, 21.7351, 69.3273, -164.713
5.55962, 6, -48.7148, -13.8591, 33.6694, 22.3097, 69.4876, -164.501
5.5685, 7, -48.7786, -13.972, 33.9664, 22.836, 69.6522, -164.24
5.57654, 7, -48.821, -14.0774, 34.2419, 23.312, 69.8226, -163.921
5.58979, 8, -48.8445, -14.2185, 34.7316, 24.1328, 70.1839, -163.098
5.5919, 8, -48.8426, -14.2605, 34.7316, 24.1328, 70.1839, -163.098
5.60296, 9, -48.8127, -14.3744, 35.0613, 24.6683, 70.4734, -162.335
5.60751, 9, -48.796, -14.4092, 35.1666, 24.8384, 70.5737, -162.059
5.61834, 9, -48.7302, -14.5068, 35.4778, 25.3401, 70.8857, -161.186
5.6235, 10, -48.7035, -14.5381, 35.5816, 25.5075, 70.9935, -160.884
5.6325, 10, -48.6436, -14.6002, 35.7898, 25.8457, 71.2147, -160.267
5.63958, 11, -48.5765, -14.6624, 35.9992, 26.1908, 71.4418, -159.642
5.64856, 11, -48.5039, -14.7245, 36.2105, 26.544, 71.6733, -159.01
5.65716, 12, -48.4274, -14.7874, 36.4217, 26.9058, 71.9081, -158.376
5.6655, 12, -48.3488, -14.8504, 36.6312, 27.2757, 72.1452, -157.737
5.67157, 13, -48.2697, -14.9117, 36.8396, 27.654, 72.3846, -157.095
5.67955, 13, -48.19, -14.9703, 37.0463, 28.0401, 72.6263, -156.448
5.68937, 14, -48.1084, -15.028, 37.2508, 28.4337, 72.8705, -155.797
5.70019, 14, -48.0235, -15.0865, 37.4542, 28.8333, 73.1176, -154.814
5.7035, 15, -47.9347, -15.1457, 37.6565, 29.2372, 73.3662, -154.487
5.71309, 15, -47.8421, -15.2043, 37.8565, 29.6432, 73.6149, -153.833
5.72149, 16, -47.7438, -15.2623, 38.0548, 30.0489, 73.8621, -153.182
5.72794, 16, -47.6384, -15.3213, 38.2513, 30.4524, 74.1058, -152.536
5.73697, 17, -47.5266, -15.3824, 38.4448, 30.8522, 74.3447, -151.896
5.744, 17, -47.4096, -15.4449, 38.635, 31.2469, 74.5768, -151.262
5.75163, 18, -47.2879, -15.5083, 38.8232, 31.6363, 74.8019, -150.635
5.76382, 18, -47.0959, -15.606, 39.1013, 32.2119, 75.127, -149.713
5.76765, 19, -47.0291, -15.6399, 39.1927, 32.4023, 75.2326, -149.409
5.77749, 19, -46.8914, -15.7102, 39.3748, 32.7825, 75.4401, -148.806
5.78462, 20, -46.7485, -15.7828, 39.5558, 33.1617, 75.6435, -148.209
5.7924, 20, -46.6006, -15.8569, 39.7342, 33.5405, 75.8433, -147.62
5.80138, 21, -46.448, -15.9329, 39.9098, 33.9193, 76.0396, -147.035
5.80852, 21, -46.291, -16.011, 40.0832, 34.2975, 76.2322, -146.457
5.81656, 22, -46.1296, -16.091, 40.2546, 34.6744, 76.4203, -145.884
5.82799, 22, -45.8791, -16.2131, 40.5057, 35.235, 76.6941, -145.038
5.83205, 23, -45.793, -16.2544, 40.588, 35.4201, 76.7827, -144.759
5.84193, 23, -45.6158, -16.3385, 40.7508, 35.7871, 76.9559, -144.204
5.85055, 24, -45.4312, -16.4252, 40.9104, 36.1492, 77.1235, -143.655
5.85823, 24, -45.2394, -16.5139, 41.0658, 36.5048, 77.2851, -143.112
5.86425, 25, -45.041, -16.6036, 41.2171, 36.8528, 77.4406, -142.574
5.87294, 25, -44.8362, -16.6938, 41.3644, 37.193, 77.5899, -142.04
5.8801, 26, -44.6244, -16.7853, 41.5071, 37.5252, 77.7335, -141.509
5.88907, 26, -44.4053, -16.878, 41.6446, 37.8493, 77.8725, -140.982
5.90051, 27, -44.0637, -17.0168, 41.8399, 38.3211, 78.0728, -140.195
5.90527, 27, -43.9467, -17.0627, 41.9019, 38.4745, 78.1377, -139.933
5.91231, 28, -43.8279, -17.1085, 41.9624, 38.7756, 78.2655, -139.409
5.91953, 28, -43.5848, -17.1995, 42.0782, 38.9231, 78.328, -139.148
5.931, 29, -43.2065, -17.3335, 42.2392, 39.3535, 78.5117, -138.364
5.93767, 29, -42.9463, -17.4203, 42.3378, 39.6305, 78.6303, -137.842
5.94577, 30, -42.6792, -17.5049, 42.4293, 39.8991, 78.746, -137.32
5.95357, 30, -42.4038, -17.5873, 42.5137, 40.1592, 78.8589, -136.799
5.96148, 31, -42.1203, -17.667, 42.591, 40.4108, 78.9688, -136.279
5.97149, 31, -41.8292, -17.7443, 42.6613, 40.6541, 79.0764, -135.759
5.97745, 32, -41.5311, -17.8194, 42.725, 40.8889, 79.1813, -135.239
5.98555, 32, -41.2265, -17.8919, 42.7818, 41.1154, 79.2836, -134.72
5.99794, 33, -40.7573, -17.9949, 42.8535, 41.4401, 79.4327, -133.945
6.00332, 33, -40.5974, -18.0276, 42.8739, 41.5442, 79.4809, -133.687
6.0075, 34, -40.4361, -18.0597, 42.8923, 41.6462, 79.5285, -133.428
6.01766, 34, -39.9453, -18.1521, 42.9368, 41.9405, 79.6677, -132.656
6.02518, 35, -39.7792, -18.1814, 42.948, 42.127, 79.7574, -132.143
6.03159, 35, -39.4425, -18.2375, 42.9652, 42.2176, 79.8011, -131.886
6.03955, 36, -39.099, -18.2901, 42.9753, 42.3927, 79.8875, -131.375
6.05149, 36, -38.5703, -18.3627, 42.9777, 42.6409, 80.0127, -130.609
6.05556, 37, -38.3908, -18.3853, 42.9752, 42.7199, 80.0533, -130.355
6.06612, 37, -37.844, -18.4474, 42.9573, 42.9454, 80.1725, -129.594
6.07381, 38, -37.473, -18.4843, 42.937, 43.0867, 80.2489, -129.089
6.08045, 38, -37.2858, -18.5015, 42.9243, 43.1545, 80.2867, -128.837
6.0875, 39, -36.9079, -18.5335, 42.894, 43.2844, 80.3601, -128.334
6.09833, 39, -36.5255, -18.5618, 42.8358, 43.4657, 80.4667, -127.585
6.10679, 40, -35.9415, -18.5973, 42.7887, 43.5774, 80.5352, -127.087
6.11252, 40, -35.7437, -18.6071, 42.7628, 43.6307, 80.569, -126.838
6.12026, 41, -35.3441, -18.6239, 42.7059, 43.7317, 80.6349, -126.343
6.12777, 41, -34.9389, -18.637, 42.6426, 43.8251, 80.6984, -125.85
6.1391, 42, -34.3235, -18.6502, 42.5356, 43.9525, 80.7905, -125.115
6.14352, 42, -34.1169, -18.653, 42.4968, 43.9915, 80.8199, -124.871
6.1526, 43, -33.7011, -18.6562, 42.4145, 44.0638, 80.8786, -124.385
6.15957, 43, -33.2812, -18.6561, 42.3262, 44.1291, 80.9348, -123.901
6.16854, 44, -32.8555, -18.6522, 42.2322, 44.1875, 80.9894, -123.419
6.17556, 44, -32.4236, -18.6446, 42.1325, 44.238, 81.0431, -122.941
6.18515, 45, -31.9852, -18.6331, 42.0269, 44.2818, 81.0941, -122.464
6.19156, 45, -31.5417, -18.6181, 41.9153, 44.3183, 81.1441, -121.989
6.2035, 46, -30.8715, -18.5892, 41.7366, 44.3583, 81.2157, -121.282
6.20764, 46, -30.6472, -18.5778, 41.6742, 44.3678, 81.2383, -121.047
6.21563, 47, -30.1959, -18.5519, 41.5448, 44.381, 81.2833, -120.58
6.22553, 47, -29.7398, -18.5216, 41.4096, 44.3872, 81.3276, -120.115
6.23338, 48, -29.277, -18.4869, 41.2684, 44.3864, 81.3701, -119.651
6.24109, 48, -28.8079, -18.4479, 41.121, 44.3766, 81.4118, -119.189
6.24848, 49, -28.3338, -18.4045, 40.9677, 44.3584, 81.4537, -118.73
6.2564, 49, -27.8568, -18.3567, 40.8085, 44.3309, 81.4949, -118.271
6.26795, 50, -27.1368, -18.2762, 40.5575, 44.2712, 81.5559, -117.585
6.2736, 50, -26.8947, -18.2467, 40.4706, 44.2471, 81.5768, -117.357
6.2798, 51, -26.405, -18.1834, 40.292, 44.1916, 81.6193, -116.901
6.29248, 52, -25.6562, -18.0781, 40.0114, 44.0894, 81.6829, -116.22
6.29946, 52, -25.4036, -18.0403, 39.914, 44.0087, 81.7267, -115.766
6.30449, 52, -24.896, -17.9608, 39.7142, 43.9643, 81.7491, -115.54
6.31436, 53, -24.3865, -17.8758, 39.5085, 43.8682, 81.7939, -115.087
6.32073, 53, -23.8737, -17.785, 39.2955, 43.7622, 81.839, -114.635
6.32853, 54, -23.3547, -17.6877, 39.0746, 43.6455, 81.8867, -114.184
6.33614, 54, -22.8273, -17.5839, 38.8471, 43.518, 81.9361, -113.732
6.34434, 55, -22.2921, -17.4739, 38.612, 43.3789, 81.9873, -113.28
6.35461, 55, -21.7527, -17.3577, 38.3691, 43.2277, 82.0421, -112.828
6.36089, 56, -21.2112, -17.236, 38.12, 43.0645, 82.0982, -112.376
6.37193, 56, -20.666, -17.1087, 37.8635, 42.8898, 82.1862, -111.699
6.37629, 57, -20.1135, -16.9759, 37.6007, 42.7037, 82.2164, -111.474
6.38573, 57, -19.5514, -16.8372, 37.3314, 42.5063, 82.2771, -111.023
6.39265, 58, -18.9818, -16.6922, 37.0554, 42.2966, 82.3403, -110.573
6.40076, 58, -18.4086, -16.5412, 36.7738, 42.0746, 82.4044, -110.123
6.40863, 59, -17.8331, -16.3848, 36.4848, 41.84, 82.4715, -109.674
6.41668, 59, -17.2524, -16.224, 36.1894, 41.5923, 82.541, -109.224
6.42443, 60, -16.9584, -16.142, 36.0393, 41.4635, 82.6133, -108.774
6.43739, 61, -15.7591, -15.8005, 35.424, 40.9148, 82.7254, -108.1
6.43952, 61, -15.7591, -15.8005, 35.424, 40.9148, 82.7254, -108.1
6.44751, 61, -15.1522, -15.6222, 35.1078, 40.6209, 82.8028, -107.651
6.45955, 62, -14.2359, -15.3472, 34.6239, 40.157, 82.9224, -106.977
6.46718, 63, -13.6149, -15.1575, 34.2956, 39.8319, 83.0043, -106.529
6.47336, 63, -13.3007, -14.9612, 33.9631, 39.4936, 83.0886, -106.079
6.48159, 63, -12.3469, -14.7593, 33.6257, 39.1415, 83.1756, -105.629
6.48912, 64, -11.7052, -14.5529, 33.2829, 38.7757, 83.266, -105.179
6.49546, 64, -11.3827, -14.4475, 33.1094, 38.5875, 83.3127, -104.953
6.50613, 65, -10.401, -14.1199, 32.5798, 38.0001, 83.4597, -104.273
6.51386, 65, -9.7332, -13.8923, 32.2198, 37.5877, 83.5641, -103.817
6.52136, 66, -9.05628, -13.658, 31.8543, 37.1577, 83.6747, -103.36
6.52753, 66, -8.71551, -13.5381, 31.6697, 36.9362, 83.7325, -103.131
6.53547, 67, -8.02958, -13.2925, 31.2942, 36.4791, 83.8529, -102.67
6.54543, 67, -7.33423, -12.9094, 30.7167, 35.76, 84.0482, -101.974
6.55252, 68, -6.629, -12.7778, 30.5213, 35.5114, 84.117, -101.74
6.55952, 68, -5.91608, -12.5104, 30.1273, 35.0032, 84.2602, -101.271
6.56781, 69, -5.19757, -12.2368, 29.7286, 34.4814, 84.4099, -100.8
6.57646, 69, -4.47313, -11.9551, 29.3267, 33.9475, 84.5648, -100.327
6.58639, 70, -3.3716, -11.5188, 28.7229, 33.126, 84.8066, -99.6132
6.59146, 70, -3.0003, -11.3692, 28.5218, 32.8456, 84.8899, -99.3743
6.60048, 71, -2.25227, -11.0642, 28.1188, 32.2753, 85.061, -98.896
6.60746, 71, -1.49636, -10.7527, 27.7137, 31.6907, 85.2398, -98.4154
6.61548, 72, -0.732397, -10.4344, 27.3063, 31.0905, 85.4274, -97.9315
6.62618, 72, 0.425603, -9.94554, 26.6911, 30.1587, 85.726, -97.2003
6.63147, 73, 0.814261, -9.77851, 26.485, 29.8414, 85.8301, -96.9553
6.63983, 73, 1.59578, -9.4389, 26.0723, 29.1973, 86.0447, -96.4642
6.64855, 74, 2.38151, -9.09261, 25.66, 28.5427, 86.2681, -95.9707
6.65702, 74, 3.16993, -8.74176, 25.2499, 27.879, 86.4995, -95.4755
6.66352, 75, 3.95989, -8.38552, 24.8443, 27.2081, 86.7378, -94.9788
6.67482, 76, 5.1454, -7.84164, 24.2448, 26.1979, 87.1058, -94.2335
6.68054, 76, 5.53958, -7.6577, 24.0479, 25.8616, 87.231, -93.9847
6.69676, 77, 7.11355, -6.90656, 23.2788, 24.5219, 87.7437, -92.9895
6.69948, 77, 7.50718, -6.71391, 23.0906, 24.1892, 87.8759, -92.7411
6.7108, 78, 8.68962, -6.12234, 22.5336, 23.19, 88.2862, -91.9959
6.71232, 78, 8.68962, -6.12234, 22.5336, 23.19, 88.2862, -91.9959
6.71938, 78, 9.47828, -5.71774, 22.1677, 22.5188, 88.574, -91.4963
6.72741, 79, 10.2689, -5.30585, 21.8044, 21.8415, 88.8754, -90.9928
6.73548, 79, 11.0613, -4.88701, 21.4434, 21.1587, 89.1901, -90.4831
6.74348, 80, 11.8516, -4.45884, 21.0848, 20.4723, 89.517, -89.9677
6.75145, 80, 12.6356, -4.01988, 20.7303, 19.7853, 89.8547, -89.4446
6.75947, 81, 13.412, -3.572, 20.3802, 19.105, 90.2019, -88.9147
6.76739, 81, 14.1824, -3.11691, 20.0366, 18.4364, 90.5566, -88.379
6.77607, 82, 14.9457, -2.655, 19.702, 17.7824, 90.9168, -87.8401
6.78438, 82, 15.7009, -2.18487, 19.3778, 17.1448, 91.2815, -87.2985
6.79215, 83, 16.4456, -1.70759, 19.0632, 16.5258, 91.65, -86.7549
6.79942, 83, 17.1785, -1.22469, 18.7586, 15.927, 92.0228, -86.2106
6.80785, 84, 17.8985, -0.736578, 18.4633, 15.3467, 92.4003, -85.6673
6.81558, 84, 18.6033, -0.244726, 18.1774, 14.7863, 92.7839, -85.1257
6.82365, 84, 19.2912, 0.251129, 17.8982, 14.2454, 93.1744, -84.5853
6.83174, 85, 19.9602, 0.752621, 17.6256, 13.7244, 93.5732, -84.0473
6.8397, 85, 20.6108, 1.25859, 17.3593, 13.223, 93.9789, -83.5115
6.84834, 86, 21.2447, 1.76827, 17.0989, 12.7417, 94.3905, -82.9773
6.85589, 86, 21.8649, 2.28409, 16.8457, 12.28, 94.8078, -82.442
6.86392, 87, 22.4729, 2.80933, 16.5978, 11.8382, 95.2314, -81.9041
6.87189, 87, 23.0695, 3.34475, 16.3542, 11.4148, 95.6616, -81.3617
6.88064, 88, 23.6563, 3.88809, 16.1145, 11.0083, 96.0991, -80.8138
6.88801, 88, 24.233, 4.43848, 15.8775, 10.6173, 96.5431, -80.2567
6.8959, 88, 24.5172, 4.71728, 15.7607, 10.4277, 96.7676, -79.69
6.90331, 89, 25.078, 5.28368, 15.5314, 10.0595, 97.2217, -79.4024
6.91137, 89, 25.6314, 5.86219, 15.306, 9.70712, 97.6817, -78.8185
6.92044, 90, 26.4544, 6.74964, 14.974, 9.20707, 98.382, -77.9175
6.92732, 90, 26.7249, 7.05011, 14.8657, 9.04833, 98.6184, -77.61
6.93538, 91, 27.2565, 7.65783, 14.6532, 8.74398, 99.0961, -76.9849
6.94331, 91, 27.7751, 8.27621, 14.4448, 8.45777, 99.58, -76.3476
6.95131, 92, 28.2836, 8.90518, 14.2403, 8.19216, 100.07, -75.6978
6.95932, 92, 28.7851, 9.54423, 14.0401, 7.94752, 100.564, -75.0386
6.96732, 93, 29.2779, 10.1916, 13.8448, 7.72514, 101.062, -74.3722
6.97694, 93, 29.9937, 11.1749, 13.565, 7.43459, 101.81, -73.3587
6.98332, 94, 30.2251, 11.5049, 13.4755, 7.34948, 102.058, -73.0175
6.99297, 94, 30.8979, 12.499, 13.2171, 7.12979, 102.801, -71.9879
6.99932, 95, 31.1152, 12.8314, 13.1347, 7.06835, 103.046, -71.6419
7.00891, 95, 31.7469, 13.8312, 12.8994, 6.91952, 103.779, -70.595
7.0154, 96, 31.9502, 14.1651, 12.8245, 6.88157, 104.021, -70.2439
7.02531, 97, 32.5357, 15.1673, 12.609, 6.8043, 104.742, -69.1817
7.03132, 97, 32.7227, 15.5013, 12.5405, 6.78938, 104.98, -68.8244
7.03936, 97, 33.0847, 16.1673, 12.4093, 6.77536, 105.452, -68.1073
7.04835, 98, 33.4306, 16.8299, 12.2865, 6.78359, 105.916, -67.3882
7.05538, 98, 33.7615, 17.4868, 12.1725, 6.81283, 106.371, -66.6665
7.06346, 99, 34.0781, 18.1366, 12.0681, 6.86115, 106.816, -65.9459
7.07133, 99, 34.3821, 18.7783, 11.9734, 6.92915, 107.247, -65.2299
7.07932, 100, 34.6745, 19.4103, 11.8881, 7.01368, 107.663, -64.5183
7.08738, 100, 34.955, 20.032, 11.8122, 7.11534, 108.064, -63.8137
7.09532, 101, 35.2233, 20.6422, 11.7449, 7.23211, 108.448, -63.1192
7.10331, 101, 35.4793, 21.2404, 11.6858, 7.36281, 108.814, -62.4334
7.11129, 102, 35.7222, 21.825, 11.6349, 7.50533, 109.164, -61.7582
7.11931, 102, 35.9503, 22.3951, 11.5916, 7.65763, 109.497, -61.0956
7.12758, 103, 36.1657, 22.9505, 11.5559, 7.81774, 109.816, -60.4453
7.13532, 103, 36.373, 23.4906, 11.5278, 7.98413, 110.119, -59.8073
7.14331, 103, 36.5746, 24.0155, 11.5081, 8.15715, 110.407, -59.1829
7.15139, 104, 36.771, 24.5265, 11.4968, 8.33732, 110.678, -58.5717
7.15933, 104, 36.9623, 25.0236, 11.4924, 8.52592, 110.932, -57.9706
7.16731, 104, 37.1489, 25.5064, 11.4943, 8.72378, 111.167, -57.3792
7.17539, 104, 37.3284, 25.9755, 11.5021, 8.92988, 111.383, -56.7976
7.18335, 104, 37.497, 26.4297, 11.5142, 9.14381, 111.581, -56.2252
7.19132, 104, 37.6554, 26.8694, 11.5293, 9.36309, 111.764, -55.6636
7.19938, 104, 37.8083, 27.2959, 11.5473, 9.58479, 111.934, -55.1158
7.20732, 104, 37.959, 27.7081, 11.5672, 9.80658, 112.093, -54.5853
7.2154, 104, 38.1074, 28.1056, 11.5877, 10.0257, 112.243, -54.0752
7.22338, 104, 38.2517, 28.488, 11.6082, 10.2405, 112.386, -53.5858
7.2314, 104, 38.3904, 28.8555, 11.6277, 10.4495, 112.521, -53.1199
7.23947, 104, 38.5224, 29.2062, 11.6462, 10.6516, 112.648, -52.6774
7.24741, 104, 38.6463, 29.5394, 11.6638, 10.8455, 112.768, -52.2599
7.25542, 104, 38.762, 29.8534, 11.6801, 11.0311, 112.88, -51.8675
7.26348, 104, 38.8697, 30.1489, 11.6952, 11.2072, 112.984, -51.4993
7.27138, 104, 38.9697, 30.426, 11.7094, 11.3735, 113.08, -51.1569
7.27932, 104, 39.062, 30.6831, 11.7224, 11.5294, 113.17, -50.8399
7.2875, 104, 39.1464, 30.9207, 11.7341, 11.6747, 113.252, -50.5477
7.29544, 104, 39.2226, 31.1388, 11.7446, 11.8084, 113.327, -50.281
7.30352, 104, 39.2904, 31.3367, 11.7545, 11.9309, 113.394, -50.0395
7.31156, 104, 39.3503, 31.5152, 11.7634, 12.0413, 113.454, -49.8231
7.31954, 104, 39.403, 31.6744, 11.7712, 12.1396, 113.508, -49.632
7.32765, 104, 39.4494, 31.8143, 11.7782, 12.226, 113.554, -49.4657
7.33571, 104, 39.4898, 31.936, 11.7846, 12.2999, 113.593, -49.3239
7.34386, 104, 39.5242, 32.0407, 11.7904, 12.3624, 113.626, -49.2054
7.35186, 104, 39.5523, 32.1288, 11.7954, 12.413, 113.652, -49.1094
7.36039, 104, 39.5753, 32.2018, 11.7999, 12.4522, 113.672, -49.0335
7.36785, 104, 39.5938, 32.2616, 11.804, 12.4824, 113.687, -48.9766
7.37641, 104, 39.6083, 32.3095, 11.8077, 12.5047, 113.698, -48.9355
7.38393, 104, 39.6196, 32.347, 11.8111, 12.5204, 113.705, -48.9072
7.39218, 104, 39.6282, 32.375, 11.8141, 12.5309, 113.71, -48.8889
7.40021, 104, 39.6342, 32.3959, 11.8168, 12.5376, 113.713, -48.8781
7.40735, 104, 39.6363, 32.4042, 11.8179, 12.5397, 113.713, -48.8747
7.4164, 104, 39.6401, 32.4213, 11.8206, 12.5432, 113.715, -48.8695
7.42327, 105, 39.6408, 32.4249, 11.8212, 12.5437, 113.715, -48.8688
7.43253, 105, 39.6412, 32.4317, 11.8228, 12.5446, 113.715, -48.8679
7.4393, 105, 39.6409, 32.4332, 11.8233, 12.5448, 113.715, -48.8678
7.4473, 105, 39.64, 32.4355, 11.8241, 12.5449, 113.715, -48.8678
7.45663, 105, 39.6384, 32.438, 11.8251, 12.5451, 113.715, -48.8681
7.4633, 105, 39.6377, 32.4386, 11.8254, 12.5451, 113.715, -48.8682
7.47131, 105, 39.6363, 32.4398, 11.8259, 12.5451, 113.715, -48.8685
7.4808, 105, 39.6352, 32.4416, 11.8267, 12.5451, 113.715, -48.8689
7.48935, 105, 39.6348, 32.4427, 11.8274, 12.5451, 113.715, -48.8693
7.49533, 105, 39.6346, 32.4433, 11.8277, 12.5451, 113.715, -48.8694
7.5049, 105, 39.6343, 32.4447, 11.8284, 12.5452, 113.715, -48.8698
7.51313, 105, 39.6341, 32.4454, 11.8288, 12.5451, 113.715, -48.87
7.51933, 105, 39.6339, 32.4457, 11.829, 12.5451, 113.715, -48.8702
7.52736, 105, 39.6337, 32.4462, 11.8293, 12.5451, 113.715, -48.8704
7.53635, 105, 39.6334, 32.4464, 11.8295, 12.5451, 113.715, -48.8706
7.5433, 105, 39.6332, 32.4466, 11.8298, 12.5451, 113.715, -48.8708
