hehonglu123/Motion-Primitive-Planning/ILC/recorded_data/realrobot/from_NX/iteration_22/run_3.csv
timestamp, cmd_num, J1, J2, J3, J4, J5, J6
0.000432, -1, 39.6286, 32.4466, 11.8313, 12.5436, 113.714, -48.8735
0.002246, -1, 39.6286, 32.4466, 11.8313, 12.5436, 113.714, -48.8735
0.008007, -1, 39.6286, 32.4466, 11.8313, 12.5437, 113.714, -48.8734
0.029812, -1, 39.6286, 32.4466, 11.8313, 12.5437, 113.714, -48.8735
0.031921, -1, 39.6286, 32.4466, 11.8313, 12.5437, 113.714, -48.8735
0.034511, -1, 39.6286, 32.4466, 11.8313, 12.5437, 113.714, -48.8735
0.039731, -1, 39.6286, 32.4466, 11.8313, 12.5436, 113.714, -48.8734
0.047782, -1, 39.6284, 32.4466, 11.8313, 12.5436, 113.714, -48.8734
0.056147, -1, 39.6272, 32.4464, 11.8313, 12.5436, 113.714, -48.8734
0.062705, -1, 39.6257, 32.4461, 11.8313, 12.5436, 113.714, -48.8734
0.072024, -1, 39.6164, 32.4435, 11.8312, 12.5436, 113.714, -48.8742
0.078697, -1, 39.6115, 32.4418, 11.8312, 12.5436, 113.713, -48.875
0.088841, -1, 39.5894, 32.4328, 11.8312, 12.5436, 113.71, -48.8841
0.096223, -1, 39.5655, 32.4223, 11.8313, 12.5436, 113.705, -48.8995
0.104227, -1, 39.5321, 32.4074, 11.8324, 12.5436, 113.696, -48.926
0.113168, -1, 39.4884, 32.3868, 11.8358, 12.5436, 113.681, -48.9673
0.118721, -1, 39.4622, 32.3741, 11.8386, 12.5436, 113.67, -48.9949
0.128284, -1, 39.3642, 32.3258, 11.8527, 12.5437, 113.625, -49.1106
0.137199, -1, 39.2821, 32.2841, 11.868, 12.5438, 113.583, -49.2175
0.142727, -1, 39.2358, 32.2603, 11.8776, 12.544, 113.559, -49.2807
0.152236, -1, 39.1328, 32.2067, 11.9, 12.5445, 113.502, -49.4261
0.159691, -1, 39.0157, 32.1453, 11.9268, 12.5455, 113.435, -49.596
0.167702, -1, 38.8852, 32.0765, 11.9574, 12.547, 113.359, -49.7884
0.175806, -1, 38.7423, 32.0012, 11.9914, 12.5489, 113.275, -50.0002
0.183684, -1, 38.5879, 31.92, 12.0277, 12.551, 113.185, -50.228
0.191712, -1, 38.4236, 31.8338, 12.0655, 12.5534, 113.09, -50.468
0.199751, -1, 38.2513, 31.7436, 12.1043, 12.5558, 112.992, -50.7162
0.207682, -1, 38.0728, 31.6504, 12.1434, 12.5582, 112.892, -50.9696
0.214684, -1, 37.8892, 31.555, 12.1822, 12.5607, 112.79, -51.2264
0.22369, -1, 37.7017, 31.4581, 12.2211, 12.5631, 112.689, -51.4848
0.231727, -1, 37.5114, 31.3604, 12.2599, 12.5655, 112.586, -51.7443
0.238686, -1, 37.3198, 31.2625, 12.2987, 12.568, 112.483, -52.0039
0.247694, -1, 37.1277, 31.1645, 12.3375, 12.5704, 112.381, -52.2636
0.255826, -1, 36.9355, 31.0668, 12.3762, 12.5731, 112.278, -52.5237
0.263789, -1, 36.7434, 30.969, 12.415, 12.5757, 112.174, -52.7841
0.271696, -1, 36.5517, 30.8713, 12.4539, 12.5783, 112.072, -53.0444
0.280689, -1, 36.3601, 30.7735, 12.4928, 12.5808, 111.969, -53.3046
0.287683, -1, 36.1685, 30.6758, 12.5316, 12.5834, 111.866, -53.5651
0.296685, -1, 35.977, 30.5778, 12.5705, 12.586, 111.763, -53.8257
0.30375, -1, 35.7855, 30.4799, 12.6095, 12.5886, 111.66, -54.0864
0.311694, -1, 35.5937, 30.3818, 12.6484, 12.5911, 111.557, -54.3466
0.3197, -1, 35.4016, 30.2836, 12.6872, 12.5937, 111.454, -54.6068
0.327693, -1, 35.2092, 30.1853, 12.726, 12.5963, 111.351, -54.8675
0.335746, -1, 35.0167, 30.0869, 12.765, 12.5989, 111.248, -55.1283
0.343763, -1, 34.8244, 29.9885, 12.8038, 12.6015, 111.144, -55.3888
0.351678, -1, 34.6322, 29.89, 12.8426, 12.604, 111.041, -55.6496
0.359686, -1, 34.4399, 29.7915, 12.8816, 12.6066, 110.939, -55.9104
0.367835, -1, 34.2478, 29.6931, 12.9205, 12.6092, 110.835, -56.1715
0.375735, -1, 34.0559, 29.5949, 12.9594, 12.6118, 110.732, -56.4322
0.383678, -1, 33.8642, 29.4966, 12.9984, 12.6144, 110.629, -56.6929
0.39176, -1, 33.6724, 29.3982, 13.0372, 12.6171, 110.526, -56.9538
0.399685, -1, 33.4804, 29.2998, 13.0761, 12.6197, 110.423, -57.2149
0.407723, -1, 33.288, 29.2014, 13.1151, 12.6223, 110.32, -57.4759
0.41583, -1, 33.0954, 29.1028, 13.154, 12.6249, 110.217, -57.7368
0.423677, -1, 32.9026, 29.0042, 13.1928, 12.6276, 110.114, -57.9979
0.431678, -1, 32.7094, 28.9056, 13.2318, 12.6302, 110.011, -58.2592
0.439875, -1, 32.5159, 28.8069, 13.2706, 12.6329, 109.908, -58.5205
0.447682, -1, 32.3222, 28.7082, 13.3095, 12.6356, 109.805, -58.7815
0.455804, -1, 32.1281, 28.6095, 13.3484, 12.6382, 109.702, -59.0424
0.464505, -1, 31.9341, 28.5107, 13.3873, 12.641, 109.598, -59.3037
0.471716, -1, 31.7404, 28.4119, 13.4262, 12.6436, 109.495, -59.5653
0.479807, -1, 31.5467, 28.3132, 13.4653, 12.6465, 109.392, -59.8265
0.488591, -1, 31.3535, 28.2146, 13.5042, 12.6492, 109.289, -60.0878
0.622886, -1, 28.1665, 26.5856, 14.1473, 12.6933, 107.585, -64.4035
0.625617, -1, 28.07, 26.5362, 14.1668, 12.6945, 107.534, -64.5343
0.626808, -1, 28.07, 26.5362, 14.1668, 12.6945, 107.534, -64.5343
0.628878, -1, 27.9735, 26.4868, 14.1863, 12.6958, 107.482, -64.6651
0.630084, -1, 27.9735, 26.4868, 14.1863, 12.6958, 107.482, -64.6651
0.63138, -1, 27.9735, 26.4868, 14.1863, 12.6958, 107.482, -64.6651
0.633338, -1, 27.8771, 26.4373, 14.2059, 12.697, 107.431, -64.7961
0.636924, -1, 27.7808, 26.3879, 14.2254, 12.6983, 107.379, -64.9271
0.63816, -1, 27.7808, 26.3879, 14.2254, 12.6983, 107.379, -64.9271
0.639501, -1, 27.7808, 26.3879, 14.2254, 12.6983, 107.379, -64.9271
0.641584, -1, 27.6844, 26.3385, 14.2448, 12.6995, 107.327, -65.0581
0.642849, -1, 27.6844, 26.3385, 14.2448, 12.6995, 107.327, -65.0581
0.645, -1, 27.5883, 26.2891, 14.2642, 12.7007, 107.276, -65.1889
0.646299, -1, 27.5883, 26.2891, 14.2642, 12.7007, 107.276, -65.1889
0.647504, -1, 27.5883, 26.2891, 14.2642, 12.7007, 107.276, -65.1889
0.653311, -1, 27.3961, 26.1901, 14.3032, 12.7031, 107.172, -65.4506
0.654618, -1, 27.3961, 26.1901, 14.3032, 12.7031, 107.172, -65.4506
0.656554, -1, 27.3001, 26.1406, 14.3228, 12.7043, 107.121, -65.5814
0.658815, -1, 27.3001, 26.1406, 14.3228, 12.7043, 107.121, -65.5814
0.660777, -1, 27.204, 26.0911, 14.3423, 12.7054, 107.069, -65.7122
0.662198, -1, 27.204, 26.0911, 14.3423, 12.7054, 107.069, -65.7122
0.663568, -1, 27.204, 26.0911, 14.3423, 12.7054, 107.069, -65.7122
0.673531, -1, 26.9153, 25.9428, 14.4006, 12.7089, 106.914, -66.1047
0.679664, -1, 26.819, 25.8934, 14.4201, 12.7101, 106.862, -66.2357
0.688848, -1, 26.5292, 25.745, 14.4785, 12.7135, 106.707, -66.6282
0.695725, -1, 26.4323, 25.6956, 14.4979, 12.7147, 106.655, -66.7591
0.703788, -1, 26.2384, 25.5968, 14.5369, 12.7169, 106.553, -67.0209
0.711669, -1, 26.0443, 25.4979, 14.5759, 12.7192, 106.449, -67.283
0.719667, -1, 25.85, 25.399, 14.6148, 12.7215, 106.346, -67.5446
0.726669, -1, 25.6558, 25.3002, 14.6538, 12.7238, 106.243, -67.8061
0.735734, -1, 25.4618, 25.2015, 14.6928, 12.726, 106.14, -68.0677
0.743711, -1, 25.268, 25.1028, 14.7317, 12.7284, 106.036, -68.3296
0.751737, -1, 25.0746, 25.004, 14.7708, 12.7307, 105.933, -68.5914
0.759668, -1, 24.8814, 24.9052, 14.8098, 12.7331, 105.83, -68.8528
0.767764, -1, 24.6884, 24.8064, 14.8487, 12.7355, 105.727, -69.1146
0.775791, -1, 24.4959, 24.7075, 14.8877, 12.7379, 105.623, -69.3765
0.916492, -1, 21.1174, 22.9787, 15.5694, 12.7814, 103.816, -73.9546
0.91775, -1, 21.1174, 22.9787, 15.5694, 12.7814, 103.816, -73.9546
0.919736, -1, 21.0212, 22.9294, 15.5889, 12.7827, 103.764, -74.0853
0.921012, -1, 21.0212, 22.9294, 15.5889, 12.7827, 103.764, -74.0853
0.924144, -1, 20.925, 22.88, 15.6083, 12.7841, 103.712, -74.2159
0.925411, -1, 20.925, 22.88, 15.6083, 12.7841, 103.712, -74.2159
0.92746, -1, 20.8288, 22.8307, 15.6278, 12.7854, 103.661, -74.3465
0.929775, -1, 20.8288, 22.8307, 15.6278, 12.7854, 103.661, -74.3465
0.931786, -1, 20.7325, 22.7814, 15.6473, 12.7868, 103.609, -74.477
0.933115, -1, 20.7325, 22.7814, 15.6473, 12.7868, 103.609, -74.477
0.935254, -1, 20.6362, 22.7321, 15.6668, 12.7882, 103.558, -74.6075
0.936648, -1, 20.6362, 22.7321, 15.6668, 12.7882, 103.558, -74.6075
0.937832, -1, 20.6362, 22.7321, 15.6668, 12.7882, 103.558, -74.6075
0.940539, -1, 20.5398, 22.6828, 15.6862, 12.7895, 103.506, -74.7382
0.941924, -1, 20.5398, 22.6828, 15.6862, 12.7895, 103.506, -74.7382
0.945596, -1, 20.4433, 22.6335, 15.7056, 12.7909, 103.454, -74.8688
0.948424, -1, 20.3467, 22.5842, 15.725, 12.7922, 103.403, -74.9996
0.949848, -1, 20.3467, 22.5842, 15.725, 12.7922, 103.403, -74.9996
0.95253, -1, 20.25, 22.5348, 15.7445, 12.7935, 103.352, -75.1303
0.953871, -1, 20.25, 22.5348, 15.7445, 12.7935, 103.352, -75.1303
0.9563, -1, 20.1531, 22.4854, 15.764, 12.7949, 103.3, -75.2608
0.957759, -1, 20.1531, 22.4854, 15.764, 12.7949, 103.3, -75.2608
0.963087, -1, 19.9595, 22.3867, 15.8028, 12.7976, 103.197, -75.5219
0.967666, -1, 19.8627, 22.3374, 15.8222, 12.799, 103.145, -75.6526
0.97604, -1, 19.669, 22.2387, 15.861, 12.8017, 103.043, -75.9137
0.983275, -1, 19.4755, 22.1402, 15.8999, 12.8045, 102.939, -76.175
0.991752, -1, 19.2823, 22.0415, 15.9388, 12.8072, 102.836, -76.4361
1.0002, -1, 19.0894, 21.9428, 15.9777, 12.81, 102.733, -76.6968
1.00724, -1, 18.8967, 21.8442, 16.0166, 12.8127, 102.63, -76.9577
1.01584, -1, 18.7044, 21.7455, 16.0553, 12.8155, 102.527, -77.2187
1.02436, -1, 18.5125, 21.6468, 16.0942, 12.8182, 102.425, -77.4797
1.03169, -1, 18.3207, 21.5482, 16.1331, 12.8209, 102.322, -77.7403
1.03975, -1, 18.1288, 21.4497, 16.1719, 12.8234, 102.219, -78.0009
1.04852, -1, 17.9369, 21.3513, 16.2107, 12.826, 102.116, -78.2618
1.05578, -1, 17.745, 21.2529, 16.2497, 12.8285, 102.013, -78.5227
1.06379, -1, 17.5528, 21.1546, 16.2885, 12.8311, 101.91, -78.7831
1.07269, -1, 17.3602, 21.0563, 16.3273, 12.8336, 101.807, -79.0435
1.08006, -1, 17.1671, 20.9579, 16.3661, 12.836, 101.704, -79.3041
1.08667, -1, 17.0706, 20.9088, 16.3855, 12.8372, 101.652, -79.4345
1.09693, -1, 16.781, 20.7615, 16.4437, 12.8408, 101.498, -79.8252
1.10421, -1, 16.5879, 20.6633, 16.4824, 12.8431, 101.396, -80.0858
1.11222, -1, 16.395, 20.565, 16.5211, 12.8455, 101.293, -80.3463
1.12104, -1, 16.2024, 20.4666, 16.5599, 12.8478, 101.19, -80.607
1.12672, -1, 16.1063, 20.4175, 16.5793, 12.849, 101.139, -80.7372
1.13624, -1, 15.8185, 20.2698, 16.6373, 12.8524, 100.985, -81.1273
1.14516, -1, 15.7226, 20.2205, 16.676, 12.8548, 100.882, -81.3874
1.15072, -1, 15.5313, 20.1221, 16.6953, 12.856, 100.831, -81.5175
1.16068, -1, 15.2445, 19.9747, 16.7534, 12.8595, 100.677, -81.9077
1.16764, -1, 15.1489, 19.9255, 16.7728, 12.8606, 100.626, -82.0376
1.17472, -1, 14.9577, 19.8273, 16.8114, 12.8629, 100.523, -82.2973
1.18371, -1, 14.7665, 19.7292, 16.8501, 12.8652, 100.421, -82.5573
1.19167, -1, 14.575, 19.6311, 16.8889, 12.8675, 100.318, -82.8174
1.19969, -1, 14.3831, 19.5329, 16.9275, 12.8698, 100.216, -83.0771
1.20773, -1, 14.1909, 19.4349, 16.9662, 12.872, 100.113, -83.3366
1.21578, -1, 13.9986, 19.337, 17.005, 12.8743, 100.01, -83.5962
1.22371, -1, 13.8062, 19.2391, 17.0435, 12.8766, 99.908, -83.8559
1.23176, -1, 13.6137, 19.1413, 17.0822, 12.8789, 99.8055, -84.1154
1.23966, -1, 13.4213, 19.0434, 17.1209, 12.8812, 99.7029, -84.3747
1.24775, -1, 13.2293, 18.9455, 17.1594, 12.8835, 99.6008, -84.634
1.25565, -1, 13.0377, 18.8476, 17.198, 12.8859, 99.4982, -84.8934
1.26366, -1, 12.8465, 18.7496, 17.2366, 12.8883, 99.3957, -85.1528
1.27171, -1, 12.6555, 18.6516, 17.2751, 12.8906, 99.2936, -85.4117
1.27966, -1, 12.4648, 18.5538, 17.3137, 12.893, 99.1912, -85.6706
1.29026, -1, 12.2746, 18.4561, 17.3522, 12.8954, 99.0888, -86.059
1.29572, -1, 12.0844, 18.3583, 17.3907, 12.8979, 98.987, -86.1885
1.30366, -1, 11.8941, 18.2607, 17.4294, 12.9002, 98.8848, -86.4472
1.31274, -1, 11.7036, 18.163, 17.468, 12.9026, 98.7829, -86.7056
1.31965, -1, 11.5128, 18.0654, 17.5064, 12.9052, 98.6812, -86.9643
1.32766, -1, 11.3218, 17.9678, 17.545, 12.9076, 98.5791, -87.223
1.33643, -1, 11.1305, 17.8703, 17.5836, 12.91, 98.4772, -87.4815
1.34365, -1, 10.939, 17.7728, 17.6221, 12.9125, 98.3753, -87.7396
1.35165, -1, 10.7474, 17.6754, 17.6606, 12.9149, 98.2733, -87.9978
1.36044, -1, 10.5558, 17.5779, 17.699, 12.9174, 98.1714, -88.2562
1.36766, -1, 10.3646, 17.4803, 17.7375, 12.92, 98.0697, -88.5146
1.37573, -1, 10.1736, 17.3828, 17.7759, 12.9225, 97.9677, -88.7726
1.38444, -1, 9.98302, 17.2852, 17.8143, 12.9252, 97.8659, -89.0307
1.39165, -1, 9.7927, 17.1876, 17.8526, 12.9277, 97.7639, -89.2889
1.39965, -1, 9.60271, 17.0901, 17.891, 12.9304, 97.6619, -89.5471
1.40845, -1, 9.41335, 16.9928, 17.9293, 12.9333, 97.5602, -89.8048
1.41569, -1, 9.22401, 16.8954, 17.9677, 12.9359, 97.4581, -90.0625
1.42366, -1, 9.0346, 16.7981, 18.0061, 12.9386, 97.3563, -90.32
1.43245, -1, 8.84519, 16.701, 18.0443, 12.9412, 97.2548, -90.5777
1.43965, -1, 8.65558, 16.6038, 18.0827, 12.9438, 97.1529, -90.8352
1.44767, -1, 8.46593, 16.5066, 18.1212, 12.9466, 97.0514, -91.0923
1.45645, -1, 8.27587, 16.4096, 18.1594, 12.9492, 96.9501, -91.3496
1.46365, -1, 8.08542, 16.3127, 18.1978, 12.9518, 96.8483, -91.6067
1.4719, -1, 7.89497, 16.2158, 18.2361, 12.9545, 96.7468, -91.8639
1.48055, -1, 7.70443, 16.1189, 18.2743, 12.9572, 96.6454, -92.1207
1.48774, -1, 7.5139, 16.0219, 18.3127, 12.9598, 96.5438, -92.3772
1.496, -1, 7.32364, 15.925, 18.3509, 12.9624, 96.4425, -92.634
1.50455, -1, 7.13361, 15.828, 18.389, 12.9649, 96.3413, -92.891
1.51175, -1, 6.94403, 15.731, 18.4273, 12.9676, 96.2399, -93.1474
1.5202, -1, 6.75483, 15.6341, 18.4655, 12.9701, 96.1389, -93.4039
1.52856, -1, 6.56613, 15.5372, 18.5035, 12.9726, 96.0381, -93.6602
1.53565, -1, 6.37784, 15.4405, 18.5417, 12.9751, 95.937, -93.9167
1.54447, -1, 6.1897, 15.3438, 18.5798, 12.9776, 95.836, -94.1729
1.55259, -1, 6.00152, 15.2471, 18.6179, 12.9801, 95.7351, -94.4287
1.55974, -1, 5.81316, 15.1504, 18.6561, 12.9824, 95.634, -94.6845
1.56861, -1, 5.62475, 15.0537, 18.6942, 12.9847, 95.5332, -94.9406
1.57673, -1, 5.4361, 14.9571, 18.7322, 12.9871, 95.4325, -95.1964
1.58397, -1, 5.24714, 14.8606, 18.7704, 12.9894, 95.3317, -95.4518
1.59286, -1, 5.05782, 14.7644, 18.8084, 12.9916, 95.2311, -95.7072
1.60005, -1, 4.86837, 14.668, 18.8464, 12.9939, 95.1304, -95.9628
1.60825, -1, 4.67891, 14.5716, 18.8845, 12.9961, 95.0296, -96.2183
1.61694, -1, 4.48953, 14.4753, 18.9225, 12.9983, 94.929, -96.4733
1.62418, -1, 4.30047, 14.3789, 18.9605, 13.0006, 94.8281, -96.7282
1.63227, -1, 4.11161, 14.2825, 18.9985, 13.0028, 94.7272, -96.9832
1.64103, -1, 3.92325, 14.1862, 19.0364, 13.0052, 94.6265, -97.2384
1.64824, -1, 3.82934, 14.1382, 19.0553, 13.0073, 94.5256, -97.4932
1.65464, -1, 3.64186, 14.042, 19.0933, 13.0084, 94.4753, -97.6206
1.66473, -1, 3.3612, 13.8978, 19.1501, 13.012, 94.3245, -98.0026
1.67164, -1, 3.26769, 13.8498, 19.169, 13.0131, 94.274, -98.13
1.67969, -1, 3.08068, 13.7538, 19.2068, 13.0154, 94.1732, -98.3848
1.68765, -1, 2.89377, 13.6577, 19.2447, 13.0175, 94.0727, -98.6392
1.69564, -1, 2.70673, 13.5617, 19.2826, 13.0198, 93.9721, -98.8933
1.70488, -1, 2.42573, 13.4178, 19.3394, 13.0232, 93.8214, -99.2745
1.7117, -1, 2.33196, 13.3698, 19.3583, 13.0243, 93.7713, -99.4016
1.71963, -1, 2.14407, 13.2741, 19.3961, 13.0266, 93.671, -99.6557
1.72914, -1, 1.86191, 13.1303, 19.453, 13.03, 93.5207, -100.036
1.73465, -1, 1.76777, 13.0823, 19.4718, 13.0311, 93.4709, -100.163
1.74365, -1, 1.5795, 12.9865, 19.5095, 13.0333, 93.3707, -100.416
1.75172, -1, 1.39146, 12.8907, 19.5474, 13.0356, 93.2706, -100.67
1.75964, -1, 1.20368, 12.7948, 19.5851, 13.038, 93.1708, -100.923
1.76763, -1, 1.01623, 12.6991, 19.6228, 13.0404, 93.0706, -101.176
1.7747, -1, 0.829439, 12.6035, 19.6607, 13.0427, 92.9707, -101.429
1.78365, -1, 0.643089, 12.5079, 19.6983, 13.045, 92.8711, -101.683
1.79264, -1, 0.457212, 12.4124, 19.7359, 13.0475, 92.7712, -101.936
1.7997, -1, 0.271535, 12.317, 19.7736, 13.0499, 92.6715, -102.188
1.80763, -1, 0.086089, 12.2216, 19.8112, 13.0524, 92.5723, -102.441
1.81563, -1, -0.0992697, 12.1263, 19.8488, 13.0548, 92.4725, -102.693
1.82365, -1, -0.284921, 12.0311, 19.8865, 13.0573, 92.3729, -102.946
1.83164, -1, -0.47083, 11.9359, 19.9241, 13.0598, 92.2736, -103.198
1.8397, -1, -0.657094, 11.8409, 19.9616, 13.0622, 92.174, -103.45
1.84763, -1, -0.84354, 11.7459, 19.9992, 13.0647, 92.0745, -103.702
1.85564, -1, -1.03021, 11.6508, 20.0366, 13.0672, 91.9753, -103.954
1.8637, -1, -1.21704, 11.5557, 20.0741, 13.0697, 91.8759, -104.206
1.87163, -1, -1.40403, 11.4607, 20.1117, 13.0722, 91.7766, -104.457
1.87971, -1, -1.59075, 11.3655, 20.1491, 13.0748, 91.6776, -104.709
1.8877, -1, -1.77713, 11.2704, 20.1865, 13.0773, 91.5783, -104.961
1.89563, -1, -1.96325, 11.1754, 20.224, 13.08, 91.4791, -105.212
1.90364, -1, -2.14869, 11.0805, 20.2614, 13.0827, 91.38, -105.463
1.91175, -1, -2.33353, 10.9856, 20.2987, 13.0852, 91.2808, -105.714
1.91968, -1, -2.51819, 10.8908, 20.3361, 13.088, 91.1817, -105.965
1.92764, -1, -2.70231, 10.796, 20.3734, 13.0906, 91.0826, -106.216
1.9357, -1, -2.8862, 10.7013, 20.4107, 13.0933, 90.9836, -106.467
1.94367, -1, -3.07016, 10.6065, 20.4481, 13.0959, 90.8846, -106.717
1.95176, -1, -3.25433, 10.5119, 20.4854, 13.0985, 90.7857, -106.968
1.95964, -1, -3.43881, 10.4174, 20.5226, 13.1011, 90.6868, -107.218
1.96764, -1, -3.6236, 10.323, 20.5599, 13.1036, 90.588, -107.469
1.97587, -1, -3.80852, 10.2287, 20.5972, 13.1061, 90.4891, -107.719
1.98367, -1, -3.99373, 10.1343, 20.6344, 13.1086, 90.3904, -107.969
1.99178, -1, -4.17914, 10.0401, 20.6716, 13.1111, 90.2918, -108.219
2.00007, -1, -4.36491, 9.94572, 20.7087, 13.1134, 90.1932, -108.469
2.00721, -1, -4.55036, 9.85133, 20.746, 13.1158, 90.0945, -108.718
2.01576, -1, -4.73544, 9.7571, 20.7832, 13.1182, 89.9962, -108.968
2.02412, -1, -4.92022, 9.66288, 20.8203, 13.1206, 89.8976, -109.217
2.03119, -1, -5.01242, 9.61586, 20.8388, 13.1218, 89.8483, -109.467
2.03963, -1, -5.28782, 9.47474, 20.8945, 13.1254, 89.7009, -109.716
2.04853, -1, -5.47097, 9.38079, 20.9316, 13.1277, 89.6024, -109.965
2.05578, -1, -5.65365, 9.28689, 20.9687, 13.13, 89.5041, -110.214
2.06372, -1, -5.83602, 9.19297, 21.0058, 13.1323, 89.4061, -110.462
2.07254, -1, -6.01832, 9.09911, 21.0427, 13.1346, 89.3079, -110.711
2.07992, -1, -6.20085, 9.00526, 21.0798, 13.1368, 89.2097, -110.96
2.08796, -1, -6.38369, 8.91156, 21.1168, 13.1391, 89.112, -111.208
2.09468, -1, -6.4752, 8.86476, 21.1353, 13.1401, 89.063, -111.332
2.10407, -1, -6.75015, 8.72429, 21.1905, 13.1433, 88.9159, -111.705
2.1107, -1, -6.84199, 8.67752, 21.209, 13.1444, 88.8669, -111.829
2.12097, -1, -7.11791, 8.53712, 21.2644, 13.1476, 88.7202, -112.2
2.12823, -1, -7.30221, 8.44355, 21.3013, 13.1497, 88.6224, -112.448
2.13621, -1, -7.48619, 8.3499, 21.3382, 13.1518, 88.5247, -112.695
2.14508, -1, -7.57804, 8.25637, 21.3749, 13.154, 88.4271, -112.943
2.15066, -1, -7.76154, 8.20963, 21.3933, 13.1551, 88.3783, -113.067
2.15962, -1, -7.94463, 8.11619, 21.4302, 13.1574, 88.2809, -113.314
2.16762, -1, -8.12725, 8.02281, 21.467, 13.1596, 88.1836, -113.561
2.17568, -1, -8.30911, 7.92952, 21.5037, 13.1618, 88.0861, -113.808
2.18363, -1, -8.49049, 7.83623, 21.5406, 13.1641, 87.9887, -114.055
2.19162, -1, -8.67149, 7.74306, 21.5774, 13.1664, 87.8915, -114.302
2.19967, -1, -8.85213, 7.64993, 21.6141, 13.1687, 87.794, -114.548
2.20763, -1, -9.03288, 7.55688, 21.6509, 13.1709, 87.6965, -114.794
2.21568, -1, -9.21394, 7.46388, 21.6877, 13.1732, 87.5994, -115.041
2.22366, -1, -9.39521, 7.37108, 21.7243, 13.1753, 87.5022, -115.287
2.23173, -1, -9.57686, 7.27829, 21.761, 13.1775, 87.4051, -115.533
2.23962, -1, -9.75887, 7.18547, 21.7977, 13.1798, 87.308, -115.78
2.24663, -1, -9.94121, 7.09276, 21.8342, 13.182, 87.2107, -116.026
2.25564, -1, -10.1238, 7, 21.8708, 13.1842, 87.1135, -116.272
2.26361, -1, -10.3065, 6.90724, 21.9074, 13.1864, 87.0165, -116.517
2.27168, -1, -10.489, 6.81448, 21.944, 13.1886, 86.9193, -116.763
2.27962, -1, -10.6714, 6.72174, 21.9806, 13.1909, 86.8222, -117.008
2.28862, -1, -10.8531, 6.62913, 22.0171, 13.1933, 86.7255, -117.254
2.29463, -1, -11.0344, 6.53652, 22.0534, 13.1958, 86.6285, -117.499
2.30362, -1, -11.2148, 6.44399, 22.09, 13.1981, 86.5318, -117.744
2.31162, -1, -11.3947, 6.3515, 22.1266, 13.2005, 86.4353, -117.989
2.31972, -1, -11.5743, 6.25904, 22.1629, 13.2029, 86.3385, -118.233
2.32764, -1, -11.7536, 6.16662, 22.1994, 13.2054, 86.2418, -118.478
2.33567, -1, -11.9328, 6.07432, 22.2359, 13.2079, 86.1453, -118.723
2.34363, -1, -12.112, 5.98207, 22.2723, 13.2103, 86.0486, -118.967
2.35162, -1, -12.2915, 5.89, 22.3088, 13.2128, 85.9522, -119.211
2.35968, -1, -12.4715, 5.79797, 22.3451, 13.2153, 85.856, -119.455
2.36762, -1, -12.6517, 5.70596, 22.3813, 13.2177, 85.7596, -119.699
2.37561, -1, -12.8324, 5.61399, 22.4177, 13.2202, 85.6634, -119.943
2.38375, -1, -13.0134, 5.5221, 22.4541, 13.2226, 85.5677, -120.187
2.39161, -1, -13.1947, 5.43011, 22.4902, 13.2251, 85.4716, -120.43
2.40102, -1, -13.3759, 5.33812, 22.5265, 13.2276, 85.3756, -120.674
2.40761, -1, -13.5568, 5.24621, 22.5628, 13.2301, 85.2801, -120.917
2.41569, -1, -13.7372, 5.15436, 22.5989, 13.2327, 85.1841, -121.16
2.42364, -1, -13.9172, 5.06249, 22.6351, 13.2352, 85.0882, -121.403
2.43161, -1, -14.0962, 4.97069, 22.6714, 13.2378, 84.9929, -121.646
2.43968, -1, -14.2747, 4.879, 22.7074, 13.2403, 84.8971, -121.889
2.44762, -1, -14.4529, 4.7873, 22.7436, 13.2429, 84.8016, -122.132
2.45562, -1, -14.6306, 4.69565, 22.7799, 13.2454, 84.7061, -122.374
2.46369, -1, -14.8082, 4.60412, 22.816, 13.2479, 84.6103, -122.617
2.47173, -1, -14.9858, 4.51262, 22.8521, 13.2504, 84.5145, -122.859
2.47965, -1, -15.1637, 4.42128, 22.8883, 13.2529, 84.419, -123.101
2.48779, -1, -15.3419, 4.32999, 22.9244, 13.2553, 84.3232, -123.343
2.49591, -1, -15.5205, 4.23866, 22.9604, 13.2577, 84.2275, -123.585
2.50372, -1, -15.6996, 4.14735, 22.9965, 13.26, 84.1322, -123.826
2.51178, -1, -15.8788, 4.05614, 23.0324, 13.2623, 84.0366, -124.068
2.52012, -1, -16.0581, 3.9649, 23.0684, 13.2645, 83.9411, -124.31
2.52772, -1, -16.2379, 3.87359, 23.1045, 13.2667, 83.8459, -124.551
2.53579, -1, -16.4176, 3.78236, 23.1404, 13.2688, 83.7503, -124.793
2.54426, -1, -16.5968, 3.69122, 23.1761, 13.271, 83.6548, -125.034
2.55262, -1, -16.7755, 3.6001, 23.212, 13.2733, 83.5596, -125.275
2.55965, -1, -16.9536, 3.509, 23.2479, 13.2755, 83.4639, -125.516
2.56849, -1, -17.1308, 3.41799, 23.2837, 13.2777, 83.3687, -125.757
2.57588, -1, -17.3074, 3.32708, 23.3196, 13.28, 83.2737, -125.997
2.58388, -1, -17.4838, 3.2362, 23.3553, 13.2821, 83.1785, -126.238
2.59269, -1, -17.66, 3.14541, 23.3911, 13.2843, 83.0835, -126.478
2.60006, -1, -17.8359, 3.05478, 23.427, 13.2864, 82.9889, -126.718
2.60661, -1, -17.9239, 3.00947, 23.445, 13.2875, 82.9415, -126.839
2.61684, -1, -18.1884, 2.87377, 23.4985, 13.2907, 82.7992, -127.199
2.62422, -1, -18.3652, 2.78334, 23.5343, 13.2928, 82.7047, -127.439
2.63215, -1, -18.5424, 2.69295, 23.57, 13.2948, 82.6099, -127.679
2.64095, -1, -18.72, 2.60261, 23.6056, 13.2969, 82.5152, -127.918
2.64823, -1, -18.8978, 2.51225, 23.6413, 13.2989, 82.4209, -128.158
2.65623, -1, -18.9869, 2.46702, 23.677, 13.3008, 82.3264, -128.397
2.66361, -1, -19.1652, 2.37656, 23.6948, 13.3018, 82.2792, -128.517
2.67165, -1, -19.3433, 2.28622, 23.7303, 13.3039, 82.1849, -128.756
2.67961, -1, -19.521, 2.19587, 23.766, 13.306, 82.091, -128.995
2.6876, -1, -19.698, 2.10548, 23.8015, 13.3082, 81.9966, -129.234
2.69565, -1, -19.8745, 2.01519, 23.8369, 13.3104, 81.9024, -129.473
2.70362, -1, -20.0503, 1.92497, 23.8725, 13.3125, 81.8086, -129.712
2.7117, -1, -20.2255, 1.83474, 23.908, 13.3148, 81.7143, -129.951
2.71977, -1, -20.4004, 1.74459, 23.9434, 13.3169, 81.6203, -130.189
2.7276, -1, -20.575, 1.65452, 23.9791, 13.3192, 81.5265, -130.427
2.73561, -1, -20.7495, 1.56456, 24.0146, 13.3213, 81.4325, -130.666
2.74367, -1, -20.9241, 1.47467, 24.05, 13.3235, 81.3387, -130.904
2.7516, -1, -21.0991, 1.38494, 24.0855, 13.3257, 81.2451, -131.141
2.7596, -1, -21.2744, 1.29516, 24.121, 13.3279, 81.1512, -131.379
2.7676, -1, -21.4502, 1.20545, 24.1564, 13.33, 81.0573, -131.617
2.7756, -1, -21.6262, 1.11588, 24.1918, 13.3323, 80.9636, -131.855
2.78369, -1, -21.8024, 1.02621, 24.2273, 13.3344, 80.8697, -132.092
2.79261, -1, -21.9789, 0.936546, 24.2627, 13.3366, 80.7759, -132.329
2.79967, -1, -22.1555, 0.846981, 24.298, 13.3387, 80.6823, -132.566
2.80867, -1, -22.332, 0.757451, 24.3334, 13.3409, 80.5886, -132.804
2.81561, -1, -22.508, 0.667938, 24.3686, 13.3432, 80.495, -133.041
2.82372, -1, -22.6836, 0.578428, 24.4038, 13.3456, 80.4014, -133.278
2.83161, -1, -22.8586, 0.488993, 24.4391, 13.348, 80.3078, -133.514
2.8396, -1, -23.0325, 0.399528, 24.4743, 13.3504, 80.2143, -133.751
2.84767, -1, -23.2062, 0.310137, 24.5094, 13.3528, 80.1207, -133.988
2.85561, -1, -23.3794, 0.220772, 24.5446, 13.3552, 80.0273, -134.225
2.86367, -1, -23.5526, 0.131561, 24.5799, 13.3577, 79.9339, -134.461
2.8716, -1, -23.7258, 0.0424198, 24.615, 13.36, 79.8406, -134.697
2.8796, -1, -23.8992, -0.0466386, 24.6502, 13.3624, 79.7476, -134.933
2.88773, -1, -24.0726, -0.13558, 24.6853, 13.3649, 79.6543, -135.169
2.89561, -1, -24.2465, -0.224577, 24.7203, 13.3673, 79.5613, -135.405
2.90361, -1, -24.4206, -0.313547, 24.7555, 13.3698, 79.4684, -135.64
2.91167, -1, -24.5951, -0.402414, 24.7906, 13.3722, 79.3752, -135.876
2.91961, -1, -24.7699, -0.491318, 24.8256, 13.3746, 79.2821, -136.112
2.92761, -1, -24.945, -0.580193, 24.8607, 13.377, 79.1893, -136.347
2.93566, -1, -25.1199, -0.669032, 24.8958, 13.3795, 79.0962, -136.582
2.94362, -1, -25.2947, -0.757804, 24.9308, 13.3818, 79.0033, -136.817
2.95163, -1, -25.469, -0.846597, 24.9658, 13.3842, 78.9108, -137.052
2.95965, -1, -25.6429, -0.935365, 25.0007, 13.3866, 78.8179, -137.287
2.9676, -1, -25.8161, -1.02406, 25.0355, 13.3891, 78.7253, -137.522
2.97579, -1, -25.9888, -1.1128, 25.0704, 13.3915, 78.6329, -137.756
2.98363, -1, -26.1611, -1.20148, 25.1054, 13.394, 78.5403, -137.991
2.99171, -1, -26.3329, -1.29004, 25.1402, 13.3964, 78.4477, -138.225
3.00001, -1, -26.5047, -1.3785, 25.175, 13.3988, 78.3553, -138.46
3.0077, -1, -26.6766, -1.46689, 25.21, 13.4011, 78.2628, -138.694
3.01572, -1, -26.8487, -1.55515, 25.2449, 13.4033, 78.1704, -138.928
3.02415, -1, -27.0211, -1.64333, 25.2796, 13.4056, 78.078, -139.162
3.03121, -1, -27.1074, -1.68742, 25.3145, 13.4077, 77.986, -139.396
3.03971, -1, -27.3664, -1.81974, 25.3493, 13.4099, 77.8937, -139.63
3.04833, -1, -27.5394, -1.9078, 25.384, 13.412, 77.8017, -139.863
3.05572, -1, -27.7126, -1.99601, 25.4188, 13.4141, 77.7098, -140.097
3.06379, -1, -27.8859, -2.08413, 25.4536, 13.4162, 77.6177, -140.33
3.07254, -1, -28.0592, -2.17213, 25.4883, 13.4183, 77.5257, -140.564
3.07985, -1, -28.2324, -2.26015, 25.523, 13.4203, 77.4339, -140.797
3.08783, -1, -28.4053, -2.34824, 25.5578, 13.4224, 77.3416, -141.03
3.09681, -1, -28.5779, -2.43621, 25.5924, 13.4245, 77.2495, -141.263
3.104, -1, -28.75, -2.52413, 25.627, 13.4267, 77.1576, -141.496
3.11222, -1, -28.9215, -2.61215, 25.6618, 13.4288, 77.0655, -141.729
3.12101, -1, -29.0922, -2.70001, 25.6963, 13.4311, 76.9735, -141.961
3.12813, -1, -29.2628, -2.78786, 25.7309, 13.4331, 76.8819, -142.194
3.13617, -1, -29.4335, -2.87563, 25.7656, 13.4352, 76.7899, -142.426
3.14501, -1, -29.6042, -2.96322, 25.8002, 13.4372, 76.6982, -142.658
3.15231, -1, -29.6897, -3.05077, 25.8347, 13.4392, 76.6063, -142.891
3.16054, -1, -29.8607, -3.13825, 25.8694, 13.4414, 76.5145, -143.123
3.16759, -1, -30.0316, -3.182, 25.8867, 13.4424, 76.4685, -143.239
3.1756, -1, -30.2026, -3.26952, 25.9212, 13.4444, 76.3769, -143.471
3.18364, -1, -30.3738, -3.35693, 25.9557, 13.4465, 76.2855, -143.703
3.19159, -1, -30.5453, -3.44439, 25.9903, 13.4485, 76.1937, -143.935
3.1996, -1, -30.7171, -3.53195, 26.0247, 13.4506, 76.1024, -144.167
3.20764, -1, -30.8889, -3.6193, 26.0591, 13.4526, 76.0111, -144.398
3.2156, -1, -31.0608, -3.70671, 26.0937, 13.4546, 75.9196, -144.629
3.22366, -1, -31.2324, -3.79407, 26.1282, 13.4567, 75.8282, -144.861
3.23165, -1, -31.4037, -3.88138, 26.1626, 13.4588, 75.737, -145.092
3.23959, -1, -31.5746, -3.96867, 26.1971, 13.461, 75.6457, -145.323
3.2476, -1, -31.7451, -4.05591, 26.2315, 13.4631, 75.5544, -145.554
3.25564, -1, -31.9151, -4.14321, 26.2659, 13.4653, 75.4633, -145.785
3.26359, -1, -32.0848, -4.23044, 26.3003, 13.4675, 75.3723, -146.016
3.27162, -1, -32.2542, -4.31756, 26.3347, 13.4698, 75.2811, -146.247
3.27965, -1, -32.4235, -4.4046, 26.3689, 13.4719, 75.1901, -146.477
3.28759, -1, -32.5932, -4.49158, 26.4032, 13.474, 75.0995, -146.708
3.29661, -1, -32.7629, -4.5785, 26.4377, 13.4762, 75.0084, -146.938
3.30366, -1, -32.9326, -4.6654, 26.472, 13.4784, 74.9176, -147.169
3.31266, -1, -33.1023, -4.75232, 26.5061, 13.4805, 74.8271, -147.399
3.3196, -1, -33.2721, -4.83916, 26.5405, 13.4828, 74.7364, -147.629
3.32769, -1, -33.4422, -4.92602, 26.5748, 13.485, 74.6457, -147.859
3.33559, -1, -33.6125, -5.01296, 26.609, 13.4872, 74.5553, -148.089
3.34406, -1, -33.7828, -5.09975, 26.6433, 13.4894, 74.4647, -148.319
3.35265, -1, -33.953, -5.18651, 26.6775, 13.4916, 74.3742, -148.548
3.35958, -1, -34.1232, -5.27326, 26.7116, 13.4939, 74.2836, -148.778
3.36834, -1, -34.2934, -5.35999, 26.7458, 13.4962, 74.1931, -149.007
3.37568, -1, -34.4634, -5.44661, 26.7801, 13.4985, 74.1025, -149.236
3.38358, -1, -34.6329, -5.53329, 26.8142, 13.5008, 74.0119, -149.466
3.39176, -1, -34.8019, -5.61996, 26.8483, 13.5032, 73.9215, -149.695
3.39958, -1, -34.9705, -5.70655, 26.8825, 13.5057, 73.8308, -149.924
3.40759, -1, -35.1388, -5.79303, 26.9165, 13.5081, 73.7404, -150.153
3.41675, -1, -35.3069, -5.87947, 26.9506, 13.5105, 73.6503, -150.382
3.42358, -1, -35.4754, -5.96572, 26.9848, 13.513, 73.5598, -150.611
3.43168, -1, -35.644, -6.05196, 27.0188, 13.5152, 73.4694, -150.84
3.43959, -1, -35.8125, -6.1382, 27.0527, 13.5176, 73.3793, -151.068
3.44759, -1, -35.9811, -6.22433, 27.0869, 13.52, 73.2887, -151.297
3.45566, -1, -36.1495, -6.31044, 27.1209, 13.5225, 73.1984, -151.525
3.46362, -1, -36.3181, -6.3966, 27.1548, 13.5249, 73.108, -151.754
3.47159, -1, -36.4868, -6.48283, 27.1888, 13.5273, 73.0175, -151.982
3.47965, -1, -36.6556, -6.56902, 27.2227, 13.5296, 72.9273, -152.21
3.48779, -1, -36.8245, -6.65523, 27.2566, 13.5319, 72.8371, -152.438
3.4957, -1, -36.9936, -6.74136, 27.2905, 13.5341, 72.7472, -152.666
3.50384, -1, -37.1625, -6.82752, 27.3245, 13.5364, 72.6571, -152.895
3.51199, -1, -37.3313, -6.91359, 27.3583, 13.5386, 72.5671, -153.122
3.51968, -1, -37.4996, -6.9996, 27.3921, 13.5409, 72.4774, -153.35
3.52782, -1, -37.6675, -7.08563, 27.4262, 13.5432, 72.3874, -153.577
3.53596, -1, -37.8351, -7.17164, 27.46, 13.5455, 72.2976, -153.805
3.54371, -1, -38.0027, -7.25758, 27.4938, 13.5477, 72.208, -154.033
3.55168, -1, -38.1701, -7.34348, 27.5277, 13.5499, 72.1181, -154.26
3.56048, -1, -38.3375, -7.42929, 27.5616, 13.5522, 72.0283, -154.487
3.56774, -1, -38.5047, -7.51497, 27.5954, 13.5543, 71.9388, -154.714
3.57578, -1, -38.672, -7.60071, 27.6293, 13.5563, 71.8491, -154.942
3.58384, -1, -38.8394, -7.68641, 27.6632, 13.5584, 71.7596, -155.169
3.59185, -1, -39.0066, -7.77206, 27.6968, 13.5604, 71.6703, -155.396
3.59999, -1, -39.174, -7.85769, 27.7306, 13.5625, 71.5811, -155.622
3.60658, -1, -39.2578, -7.90055, 27.7475, 13.5635, 71.5362, -155.736
3.61605, -1, -39.5091, -8.02906, 27.7982, 13.5664, 71.4021, -156.076
3.62265, -1, -39.5929, -8.07183, 27.8149, 13.5674, 71.3576, -156.189
3.63211, -1, -39.8445, -8.20012, 27.8655, 13.5703, 71.2235, -156.529
3.64016, -1, -40.012, -8.28561, 27.8992, 13.5723, 71.1342, -156.755
3.64822, -1, -40.1795, -8.37097, 27.9328, 13.5743, 71.045, -156.982
3.65618, -1, -40.2633, -8.41362, 27.9497, 13.5762, 70.9556, -157.208
3.66437, -1, -40.4305, -8.54173, 28.0003, 13.5782, 70.8663, -157.434
3.67216, -1, -40.5975, -8.5844, 28.0171, 13.5792, 70.8217, -157.547
3.67957, -1, -40.7644, -8.66978, 28.0507, 13.5811, 70.7327, -157.773
3.68759, -1, -40.9309, -8.75514, 28.0844, 13.5832, 70.6434, -157.999
3.69561, -1, -41.0974, -8.84046, 28.1181, 13.5852, 70.5543, -158.225
3.70364, -1, -41.2636, -8.92571, 28.1516, 13.5873, 70.4653, -158.451
3.7116, -1, -41.4298, -9.01088, 28.1852, 13.5893, 70.3761, -158.676
3.71957, -1, -41.596, -9.09606, 28.2189, 13.5913, 70.2869, -158.902
3.72764, -1, -41.7623, -9.18118, 28.2525, 13.5933, 70.1978, -159.127
3.73562, -1, -41.9287, -9.26621, 28.286, 13.5953, 70.1087, -159.352
3.74365, -1, -42.0951, -9.35122, 28.3197, 13.5973, 70.0196, -159.578
3.75158, -1, -42.2614, -9.43633, 28.3533, 13.5994, 69.9307, -159.803
3.75962, -1, -42.4277, -9.52135, 28.3868, 13.6013, 69.8419, -160.029
3.76759, -1, -42.594, -9.60633, 28.4204, 13.6033, 69.7529, -160.254
3.77557, -1, -42.7604, -9.6913, 28.4539, 13.6054, 69.6639, -160.479
3.7837, -1, -42.9269, -9.77629, 28.4873, 13.6074, 69.5753, -160.704
3.79157, -1, -43.0932, -9.86119, 28.5208, 13.6095, 69.4864, -160.929
3.80058, -1, -43.2594, -9.94614, 28.5544, 13.6116, 69.3977, -161.154
3.80764, -1, -43.4256, -10.0311, 28.5879, 13.6137, 69.3092, -161.379
3.81663, -1, -43.5916, -10.116, 28.6214, 13.6157, 69.2206, -161.603
3.82365, -1, -43.7575, -10.201, 28.6549, 13.6178, 69.132, -161.828
3.83168, -1, -43.9233, -10.2858, 28.6883, 13.62, 69.0435, -162.053
3.83957, -1, -44.0889, -10.3706, 28.7217, 13.6221, 68.955, -162.277
3.84758, -1, -44.2542, -10.4552, 28.7553, 13.6243, 68.8664, -162.501
3.85565, -1, -44.4193, -10.5398, 28.7887, 13.6265, 68.7777, -162.726
3.86364, -1, -44.5845, -10.6244, 28.8221, 13.6287, 68.6893, -162.95
3.87158, -1, -44.7497, -10.7089, 28.8555, 13.6309, 68.6005, -163.174
3.87964, -1, -44.9151, -10.7933, 28.889, 13.6331, 68.512, -163.398
3.88757, -1, -45.0804, -10.8778, 28.9224, 13.6353, 68.4238, -163.622
3.89563, -1, -45.2457, -10.9624, 28.9558, 13.6375, 68.3353, -163.846
3.9037, -1, -45.411, -11.0469, 28.9893, 13.6398, 68.2469, -164.07
3.91157, -1, -45.5762, -11.1313, 29.0224, 13.6421, 68.1587, -164.294
3.91957, -1, -45.7415, -11.2158, 29.0557, 13.6443, 68.0703, -164.518
3.92764, -1, -45.9065, -11.3001, 29.0891, 13.6466, 67.9819, -164.741
3.93558, -1, -46.0694, -11.3833, 29.1225, 13.649, 67.8935, -164.965
3.94365, -1, -46.2288, -11.4644, 29.156, 13.6512, 67.8059, -165.187
3.95164, -1, -46.3827, -11.5416, 29.1897, 13.6536, 67.7193, -165.406
3.95957, -1, -46.5286, -11.6141, 29.2227, 13.6559, 67.6356, -165.617
3.96757, -1, -46.6643, -11.6808, 29.2539, 13.6583, 67.5575, -165.815
3.97564, -1, -46.7868, -11.7404, 29.2821, 13.6604, 67.4864, -165.995
3.98363, -1, -46.8935, -11.7929, 29.3064, 13.6623, 67.425, -166.151
3.99161, -1, -46.9839, -11.8387, 29.3258, 13.6638, 67.3747, -166.278
3.99975, -1, -47.0585, -11.8786, 29.3396, 13.6647, 67.3357, -166.376
4.00767, -1, -47.1181, -11.9117, 29.3486, 13.6653, 67.3076, -166.447
4.01568, -1, -47.1633, -11.9373, 29.354, 13.6655, 67.2888, -166.494
4.02381, -1, -47.1961, -11.9559, 29.3567, 13.6657, 67.2773, -166.524
4.03168, -1, -47.2186, -11.9683, 29.3579, 13.6658, 67.2708, -166.54
4.03963, -1, -47.2327, -11.9761, 29.3585, 13.6659, 67.2675, -166.548
4.04796, -1, -47.2406, -11.9803, 29.3588, 13.666, 67.2659, -166.552
4.0556, 2, -47.2442, -11.9822, 29.3589, 13.666, 67.2651, -166.554
4.06372, 2, -47.245, -11.9831, 29.3591, 13.6661, 67.2648, -166.555
4.07204, 2, -47.2448, -11.9834, 29.3591, 13.6661, 67.2646, -166.555
4.07983, 2, -47.2447, -11.9835, 29.3592, 13.666, 67.2645, -166.555
4.08781, 2, -47.2448, -11.9836, 29.3592, 13.6661, 67.2645, -166.555
4.09626, 2, -47.2455, -11.9838, 29.3592, 13.6661, 67.2644, -166.555
4.10393, 2, -47.2465, -11.9841, 29.3592, 13.6661, 67.2645, -166.556
4.11062, 2, -47.2472, -11.9844, 29.3592, 13.6661, 67.2644, -166.555
4.12041, 2, -47.2498, -11.9856, 29.3593, 13.6661, 67.2645, -166.555
4.12821, 2, -47.2513, -11.9865, 29.3593, 13.6661, 67.2644, -166.556
4.13608, 2, -47.2525, -11.9872, 29.3593, 13.6661, 67.2644, -166.556
4.14457, 2, -47.2531, -11.9878, 29.3593, 13.6661, 67.2644, -166.555
4.15214, 2, -47.2534, -11.988, 29.3593, 13.6661, 67.2644, -166.556
4.16014, 2, -47.2535, -11.9881, 29.3593, 13.6661, 67.2645, -166.556
4.16857, 2, -47.2535, -11.9882, 29.3593, 13.6661, 67.2645, -166.556
4.17556, 2, -47.2532, -11.9882, 29.3593, 13.6661, 67.2645, -166.556
4.18363, 2, -47.2528, -11.9881, 29.3593, 13.6661, 67.2644, -166.555
4.19162, 2, -47.2523, -11.9881, 29.3593, 13.666, 67.2644, -166.555
4.19956, 2, -47.252, -11.9881, 29.3593, 13.666, 67.2644, -166.555
4.20756, 2, -47.2518, -11.9881, 29.3593, 13.666, 67.2644, -166.555
4.21565, 2, -47.2518, -11.9882, 29.3593, 13.6661, 67.2644, -166.556
4.22363, 2, -47.252, -11.9884, 29.3593, 13.6661, 67.2645, -166.556
4.23162, 2, -47.2522, -11.9887, 29.3593, 13.6661, 67.2645, -166.556
4.2396, 2, -47.2528, -11.989, 29.3593, 13.666, 67.2645, -166.555
4.24756, 2, -47.2533, -11.9894, 29.3593, 13.666, 67.2645, -166.555
4.25557, 2, -47.2536, -11.9895, 29.3593, 13.6661, 67.2645, -166.555
4.26368, 2, -47.2537, -11.9896, 29.3593, 13.6661, 67.2645, -166.555
4.27156, 2, -47.2537, -11.9897, 29.3593, 13.666, 67.2645, -166.555
4.27956, 2, -47.2536, -11.9896, 29.3593, 13.6661, 67.2645, -166.555
4.28763, 2, -47.2534, -11.9896, 29.3593, 13.6661, 67.2645, -166.555
4.29555, 2, -47.253, -11.9895, 29.3593, 13.6661, 67.2645, -166.555
4.30544, 2, -47.2526, -11.9895, 29.3593, 13.666, 67.2645, -166.555
4.31162, 2, -47.2525, -11.9895, 29.3593, 13.666, 67.2645, -166.555
4.31955, 2, -47.2523, -11.9895, 29.3593, 13.6661, 67.2645, -166.555
4.32756, 2, -47.2522, -11.9895, 29.3593, 13.666, 67.2645, -166.555
4.33572, 2, -47.2521, -11.9896, 29.3593, 13.6661, 67.2645, -166.555
4.34362, 2, -47.2521, -11.9897, 29.3593, 13.666, 67.2645, -166.555
4.35155, 2, -47.2521, -11.9897, 29.3593, 13.666, 67.2646, -166.555
4.35971, 2, -47.2521, -11.9897, 29.3593, 13.666, 67.2645, -166.555
4.36756, 2, -47.2521, -11.9897, 29.3593, 13.6659, 67.2645, -166.555
4.37555, 2, -47.2521, -11.9897, 29.3593, 13.666, 67.2645, -166.555
4.38368, 2, -47.2521, -11.9897, 29.3593, 13.666, 67.2645, -166.555
4.39155, 2, -47.252, -11.9896, 29.3593, 13.666, 67.2645, -166.555
4.39961, 2, -47.2519, -11.9896, 29.3593, 13.6659, 67.2645, -166.555
4.40763, 2, -47.2518, -11.9895, 29.3593, 13.666, 67.2645, -166.555
4.41557, 2, -47.2517, -11.9895, 29.3593, 13.666, 67.2645, -166.555
4.42362, 2, -47.2516, -11.9895, 29.3593, 13.666, 67.2646, -166.555
4.43162, 2, -47.2515, -11.9895, 29.3593, 13.6659, 67.2645, -166.555
4.43955, 2, -47.2515, -11.9895, 29.3593, 13.666, 67.2645, -166.555
4.44756, 2, -47.2514, -11.9896, 29.3593, 13.666, 67.2646, -166.555
4.45562, 2, -47.2513, -11.9896, 29.3593, 13.666, 67.2645, -166.555
4.46362, 2, -47.2513, -11.9896, 29.3593, 13.666, 67.2645, -166.555
4.47155, 2, -47.2512, -11.9896, 29.3593, 13.666, 67.2646, -166.555
4.47962, 2, -47.2512, -11.9895, 29.3593, 13.666, 67.2646, -166.555
4.48759, 2, -47.2511, -11.9895, 29.3593, 13.6659, 67.2646, -166.555
4.49562, 2, -47.251, -11.9895, 29.3593, 13.666, 67.2646, -166.555
4.50379, 2, -47.2509, -11.9894, 29.3593, 13.6659, 67.2646, -166.555
4.51165, 2, -47.2509, -11.9893, 29.3593, 13.6659, 67.2646, -166.555
4.51965, 2, -47.2508, -11.9893, 29.3593, 13.6659, 67.2646, -166.555
4.52773, 2, -47.2506, -11.9893, 29.3593, 13.6659, 67.2645, -166.555
4.53566, 2, -47.2505, -11.9893, 29.3593, 13.666, 67.2646, -166.555
4.54373, 2, -47.2504, -11.9893, 29.3593, 13.666, 67.2646, -166.555
4.55162, 2, -47.2503, -11.9893, 29.3593, 13.6659, 67.2646, -166.555
4.55958, 2, -47.2502, -11.9893, 29.3593, 13.666, 67.2646, -166.555
4.56765, 2, -47.2501, -11.9893, 29.3593, 13.666, 67.2646, -166.555
4.57576, 2, -47.25, -11.9893, 29.3593, 13.666, 67.2646, -166.555
4.58378, 2, -47.2499, -11.9893, 29.3593, 13.666, 67.2646, -166.555
4.59176, 2, -47.2498, -11.9893, 29.3593, 13.666, 67.2646, -166.555
4.59995, 2, -47.2497, -11.9892, 29.3593, 13.6659, 67.2646, -166.555
4.60794, 2, -47.2496, -11.9891, 29.3593, 13.666, 67.2646, -166.555
4.61596, 2, -47.2495, -11.989, 29.3593, 13.666, 67.2647, -166.555
4.62421, 2, -47.2494, -11.989, 29.3593, 13.666, 67.2647, -166.555
4.63207, 2, -47.2493, -11.989, 29.3593, 13.6659, 67.2647, -166.555
4.64007, 2, -47.2492, -11.989, 29.3593, 13.6659, 67.2647, -166.555
4.6482, 2, -47.2491, -11.989, 29.3593, 13.6659, 67.2646, -166.555
4.65618, 2, -47.2491, -11.989, 29.3593, 13.6659, 67.2646, -166.555
4.66421, 2, -47.249, -11.989, 29.3593, 13.6659, 67.2647, -166.555
4.67236, 2, -47.249, -11.989, 29.3593, 13.6658, 67.2647, -166.555
4.67954, 2, -47.249, -11.989, 29.3593, 13.6658, 67.2647, -166.555
4.68755, 2, -47.249, -11.989, 29.3593, 13.6658, 67.2647, -166.555
4.69559, 2, -47.2489, -11.9889, 29.3593, 13.6658, 67.2647, -166.555
4.7036, 2, -47.2489, -11.9889, 29.3593, 13.6658, 67.2647, -166.555
4.71154, 2, -47.2488, -11.9888, 29.3593, 13.6659, 67.2647, -166.555
4.71962, 2, -47.2487, -11.9887, 29.3593, 13.6658, 67.2647, -166.555
4.72755, 2, -47.2486, -11.9887, 29.3593, 13.6658, 67.2647, -166.555
4.73561, 2, -47.2485, -11.9886, 29.3593, 13.6658, 67.2647, -166.555
4.74367, 2, -47.2485, -11.9886, 29.3593, 13.6658, 67.2647, -166.555
4.75154, 2, -47.2484, -11.9886, 29.3593, 13.6658, 67.2647, -166.555
4.75954, 2, -47.2484, -11.9886, 29.3593, 13.6658, 67.2647, -166.555
4.76656, 2, -47.2483, -11.9886, 29.3593, 13.6658, 67.2647, -166.555
4.77554, 2, -47.2483, -11.9886, 29.3593, 13.6657, 67.2648, -166.555
4.78362, 2, -47.2483, -11.9886, 29.3593, 13.6658, 67.2648, -166.555
4.79159, 2, -47.2483, -11.9886, 29.3593, 13.6658, 67.2648, -166.555
4.80118, 2, -47.2482, -11.9885, 29.3593, 13.6658, 67.2648, -166.555
4.80755, 2, -47.2482, -11.9885, 29.3593, 13.6658, 67.2648, -166.554
4.81562, 2, -47.2482, -11.9884, 29.3593, 13.6657, 67.2648, -166.554
4.82361, 2, -47.2481, -11.9883, 29.3593, 13.6657, 67.2647, -166.554
4.83153, 2, -47.248, -11.9883, 29.3593, 13.6657, 67.2647, -166.554
4.83972, 2, -47.248, -11.9882, 29.3593, 13.6657, 67.2647, -166.554
4.84861, 2, -47.2479, -11.9882, 29.3593, 13.6657, 67.2647, -166.554
4.85554, 2, -47.2478, -11.9882, 29.3593, 13.6657, 67.2647, -166.554
4.86369, 2, -47.2478, -11.9882, 29.3593, 13.6657, 67.2648, -166.554
4.87154, 2, -47.2477, -11.9882, 29.3593, 13.6657, 67.2648, -166.554
4.87954, 2, -47.2477, -11.9883, 29.3593, 13.6657, 67.2648, -166.554
4.88762, 2, -47.2477, -11.9882, 29.3593, 13.6656, 67.2648, -166.554
4.89554, 2, -47.2476, -11.9882, 29.3593, 13.6656, 67.2648, -166.554
4.90366, 2, -47.2476, -11.9882, 29.3593, 13.6656, 67.2649, -166.554
4.91161, 2, -47.2476, -11.9881, 29.3593, 13.6656, 67.2649, -166.554
4.91954, 2, -47.2476, -11.988, 29.3593, 13.6656, 67.2649, -166.554
4.92754, 2, -47.2475, -11.988, 29.3593, 13.6656, 67.2649, -166.554
4.93561, 2, -47.2474, -11.9879, 29.3593, 13.6656, 67.2649, -166.554
4.94363, 2, -47.2473, -11.9879, 29.3593, 13.6656, 67.2649, -166.554
4.95154, 2, -47.2472, -11.9878, 29.3593, 13.6655, 67.2649, -166.554
4.95961, 2, -47.2472, -11.9878, 29.3593, 13.6656, 67.2649, -166.554
4.96755, 2, -47.2471, -11.9878, 29.3593, 13.6655, 67.2649, -166.554
4.97555, 2, -47.2471, -11.9878, 29.3593, 13.6655, 67.2649, -166.554
4.98369, 2, -47.2471, -11.9878, 29.3593, 13.6655, 67.265, -166.554
4.99157, 2, -47.2471, -11.9878, 29.3593, 13.6654, 67.265, -166.554
4.9996, 2, -47.247, -11.9878, 29.3593, 13.6654, 67.265, -166.554
5.00774, 2, -47.247, -11.9878, 29.3593, 13.6654, 67.265, -166.554
5.01563, 2, -47.2469, -11.9877, 29.3593, 13.6654, 67.2651, -166.554
5.02378, 2, -47.2469, -11.9876, 29.3593, 13.6655, 67.2651, -166.554
5.0317, 2, -47.2469, -11.9876, 29.3593, 13.6654, 67.2651, -166.554
5.03964, 2, -47.2467, -11.9875, 29.3593, 13.6654, 67.2651, -166.554
5.04755, 2, -47.2467, -11.9875, 29.3593, 13.6653, 67.265, -166.554
5.0559, 2, -47.2466, -11.9875, 29.3593, 13.6653, 67.2651, -166.554
5.06654, 2, -47.2465, -11.9875, 29.3593, 13.6653, 67.2651, -166.554
5.0717, 2, -47.2465, -11.9875, 29.3593, 13.6653, 67.2651, -166.554
5.07982, 2, -47.2465, -11.9875, 29.3593, 13.6653, 67.2651, -166.554
5.08778, 2, -47.2464, -11.9875, 29.3593, 13.6653, 67.2651, -166.554
5.09595, 2, -47.2464, -11.9874, 29.3593, 13.6653, 67.2651, -166.554
5.10392, 2, -47.2464, -11.9874, 29.3593, 13.6653, 67.2651, -166.554
5.11241, 2, -47.2463, -11.9874, 29.3593, 13.6653, 67.2651, -166.554
5.11997, 2, -47.2463, -11.9873, 29.3593, 13.6653, 67.2651, -166.554
5.12804, 2, -47.2462, -11.9873, 29.3593, 13.6652, 67.2651, -166.554
5.13641, 4, -47.2462, -11.9872, 29.3593, 13.6652, 67.2651, -166.554
5.1444, 4, -47.2461, -11.9872, 29.3593, 13.6652, 67.2652, -166.554
5.15212, 4, -47.2461, -11.9872, 29.3593, 13.6652, 67.2652, -166.554
5.16016, 4, -47.246, -11.9872, 29.3593, 13.6652, 67.2651, -166.554
5.16809, 4, -47.246, -11.9872, 29.3593, 13.6652, 67.2651, -166.554
5.17612, 4, -47.2459, -11.9871, 29.3593, 13.6651, 67.2652, -166.554
5.1836, 4, -47.2459, -11.9871, 29.3593, 13.6651, 67.2652, -166.554
5.19154, 4, -47.2458, -11.9871, 29.3593, 13.6651, 67.2652, -166.554
5.20045, 4, -47.2459, -11.9871, 29.3593, 13.6651, 67.2652, -166.554
5.20753, 4, -47.2458, -11.9871, 29.3593, 13.6651, 67.2652, -166.554
5.21556, 4, -47.2458, -11.9871, 29.3593, 13.6651, 67.2652, -166.554
5.22363, 4, -47.2458, -11.987, 29.3593, 13.665, 67.2652, -166.554
5.23152, 4, -47.2457, -11.987, 29.3593, 13.665, 67.2653, -166.553
5.23976, 4, -47.2457, -11.9869, 29.3593, 13.665, 67.2653, -166.553
5.25289, 4, -47.2456, -11.9869, 29.3593, 13.665, 67.2652, -166.553
5.25567, 4, -47.2455, -11.9869, 29.3593, 13.6651, 67.2652, -166.553
5.2679, 4, -47.2454, -11.9869, 29.3593, 13.665, 67.2652, -166.553
5.27166, 4, -47.2454, -11.9869, 29.3593, 13.665, 67.2652, -166.553
5.28376, 4, -47.2454, -11.9868, 29.3593, 13.665, 67.2653, -166.553
5.28765, 4, -47.2454, -11.9868, 29.3593, 13.6649, 67.2653, -166.553
5.29883, 4, -47.2453, -11.9868, 29.3593, 13.665, 67.2653, -166.553
5.30536, 4, -47.2453, -11.9868, 29.3593, 13.6649, 67.2653, -166.553
5.31336, 4, -47.2453, -11.9868, 29.3593, 13.6649, 67.2653, -166.553
5.31974, 4, -47.2453, -11.9867, 29.3593, 13.6649, 67.2653, -166.553
5.32957, 4, -47.2453, -11.9867, 29.3593, 13.6649, 67.2653, -166.553
5.34249, 4, -47.2452, -11.9867, 29.3593, 13.6649, 67.2653, -166.553
5.34469, 4, -47.2452, -11.9867, 29.3593, 13.6649, 67.2653, -166.553
5.35166, 4, -47.2451, -11.9866, 29.3593, 13.6649, 67.2653, -166.553
5.35975, 4, -47.2451, -11.9866, 29.3593, 13.6649, 67.2653, -166.553
5.3721, 4, -47.245, -11.9866, 29.3593, 13.6648, 67.2653, -166.553
5.37854, 4, -47.2449, -11.9866, 29.3593, 13.6648, 67.2653, -166.553
5.38498, 4, -47.2449, -11.9865, 29.3593, 13.6648, 67.2653, -166.553
5.39167, 4, -47.2449, -11.9865, 29.3593, 13.6648, 67.2653, -166.553
5.3997, 4, -47.2449, -11.9865, 29.3593, 13.6648, 67.2653, -166.553
5.41109, 4, -47.2459, -11.987, 29.3597, 13.665, 67.2654, -166.553
5.41667, 4, -47.2469, -11.9876, 29.3604, 13.6653, 67.2656, -166.553
5.42541, 4, -47.2501, -11.9905, 29.3637, 13.67, 67.2668, -166.552
5.43177, 5, -47.2556, -11.997, 29.3723, 13.6865, 67.2708, -166.55
5.44073, 5, -47.2647, -12.0088, 29.3903, 13.7219, 67.2804, -166.543
5.44768, 5, -47.2792, -12.0282, 29.4232, 13.7884, 67.2989, -166.528
5.45967, 5, -47.3158, -12.077, 29.514, 13.9777, 67.3523, -166.485
5.46375, 5, -47.333, -12.0995, 29.5586, 14.0719, 67.3784, -166.463
5.47327, 5, -47.3762, -12.155, 29.6732, 14.3168, 67.4458, -166.407
5.47994, 5, -47.4322, -12.2252, 29.824, 14.6436, 67.5353, -166.332
5.48808, 5, -47.5009, -12.3106, 30.0132, 15.0546, 67.646, -166.237
5.4957, 5, -47.5818, -12.411, 30.2408, 15.5458, 67.7774, -166.125
5.50473, 5, -47.6743, -12.5253, 30.5028, 16.1062, 67.9252, -165.998
5.51278, 5, -47.7766, -12.6521, 30.7951, 16.7214, 68.0858, -165.86
5.52052, 5, -47.8871, -12.7893, 31.1116, 17.3772, 68.2536, -165.715
5.53112, 5, -48.0032, -12.9346, 31.446, 18.0572, 68.425, -165.566
5.53621, 5, -48.1231, -13.0851, 31.7916, 18.7491, 68.5959, -165.417
5.54524, 5, -48.244, -13.2376, 32.1433, 19.4433, 68.7645, -165.27
5.55267, 5, -48.3636, -13.3883, 32.4964, 20.128, 68.929, -165.123
5.56069, 5, -48.4783, -13.5344, 32.847, 20.7946, 69.0896, -164.972
5.57029, 6, -48.5836, -13.6723, 33.1881, 21.4313, 69.2482, -164.806
5.57871, 6, -48.6752, -13.7993, 33.5149, 22.028, 69.4072, -164.612
5.58404, 6, -48.7492, -13.9162, 33.8224, 22.5792, 69.5694, -164.377
5.59209, 7, -48.8024, -14.0253, 34.1088, 23.08, 69.7367, -164.088
5.6012, 7, -48.834, -14.1266, 34.3733, 23.5323, 69.9103, -163.738
5.60819, 8, -48.8444, -14.2182, 34.6174, 23.9416, 70.0911, -163.326
5.61763, 8, -48.8363, -14.3001, 34.8462, 24.3167, 70.2786, -162.855
5.62566, 9, -48.8126, -14.3742, 35.0633, 24.6683, 70.4735, -162.335
5.63276, 9, -48.7765, -14.4424, 35.2727, 25.0063, 70.6758, -161.774
5.64053, 9, -48.7301, -14.5066, 35.4798, 25.3402, 70.8857, -161.186
5.64858, 10, -48.6745, -14.569, 35.6875, 25.6759, 71.1032, -160.577
5.65631, 10, -48.6107, -14.6311, 35.8962, 26.0173, 71.3276, -159.955
5.66445, 11, -48.5407, -14.6933, 36.1066, 26.3664, 71.5572, -159.326
5.67356, 11, -48.4659, -14.7558, 36.3183, 26.7238, 71.7904, -158.694
5.68082, 12, -48.3881, -14.8189, 36.5285, 27.0897, 72.0264, -158.057
5.69236, 13, -48.3091, -14.8813, 36.7375, 27.654, 72.3845, -157.094
5.69761, 13, -48.2298, -14.9412, 36.9452, 27.8461, 72.5051, -156.772
5.70366, 13, -48.1898, -14.9703, 37.0482, 28.0401, 72.6263, -156.448
5.71249, 14, -48.1083, -15.028, 37.2527, 28.4336, 72.8705, -155.797
5.71968, 14, -48.0234, -15.0865, 37.4561, 28.8333, 73.1175, -155.142
5.73063, 15, -47.8889, -15.1751, 37.7588, 29.44, 73.4906, -154.16
5.73768, 16, -47.7937, -15.2332, 37.9576, 29.8461, 73.7388, -153.507
5.74572, 16, -47.6919, -15.2916, 38.1551, 30.2511, 73.9845, -152.858
5.75792, 17, -47.5265, -15.3823, 38.4465, 30.8522, 74.3447, -151.896
5.7641, 17, -47.4686, -15.4135, 38.542, 31.0503, 74.4616, -151.578
5.7696, 17, -47.3493, -15.4765, 38.7312, 31.4422, 74.6903, -150.947
5.77779, 18, -47.2252, -15.5403, 38.9185, 31.8291, 74.912, -150.326
5.78563, 18, -47.0959, -15.6059, 39.1031, 32.2119, 75.1271, -149.713
5.79341, 19, -46.9609, -15.6746, 39.2857, 32.5926, 75.337, -149.106
5.79971, 19, -46.8914, -15.7102, 39.3766, 32.7824, 75.4401, -148.806
5.80944, 20, -46.7485, -15.7827, 39.5574, 33.1616, 75.7439, -147.913
5.81913, 20, -46.5249, -15.8946, 39.8239, 33.7299, 75.9419, -147.327
5.82774, 21, -46.37, -15.9717, 39.9982, 34.1084, 76.1364, -146.745
5.83164, 21, -46.291, -16.011, 40.0848, 34.2975, 76.2322, -146.457
5.8407, 22, -46.1296, -16.091, 40.2562, 34.6745, 76.4204, -145.884
5.84768, 22, -45.9638, -16.1721, 40.4243, 35.0489, 76.604, -145.319
5.85568, 23, -45.793, -16.2544, 40.5894, 35.4201, 76.7828, -144.759
5.86771, 24, -45.5244, -16.3815, 40.8323, 35.9688, 77.0405, -143.929
5.87454, 24, -45.4311, -16.4693, 40.9898, 36.3278, 77.205, -143.383
5.88248, 25, -45.141, -16.5586, 41.143, 36.6798, 77.3636, -142.842
5.88772, 25, -45.041, -16.6035, 41.2183, 36.8528, 77.4406, -142.573
5.89565, 25, -44.8362, -16.6938, 41.3656, 37.193, 77.5899, -142.04
5.90373, 26, -44.6244, -16.7852, 41.5082, 37.525, 77.7335, -141.509
5.9143, 27, -44.2931, -16.9243, 41.7121, 38.0086, 77.9404, -140.719
5.91962, 27, -44.1792, -16.9706, 41.7772, 38.1658, 78.007, -140.457
5.93032, 28, -43.8279, -17.1084, 41.9632, 38.6259, 78.2021, -139.671
5.93897, 28, -43.5849, -17.1994, 42.079, 38.9231, 78.328, -139.147
5.94392, 28, -43.4605, -17.2445, 42.1343, 39.0685, 78.3898, -138.886
5.95505, 29, -43.0774, -17.3771, 42.2901, 39.493, 78.5715, -138.103
5.9607, 29, -42.9465, -17.4202, 42.3384, 39.6305, 78.6303, -137.842
5.96899, 30, -42.6792, -17.5048, 42.4298, 39.8992, 78.7459, -137.32
5.97666, 30, -42.4037, -17.5872, 42.5142, 40.1591, 78.8589, -136.799
5.98479, 31, -42.1202, -17.6669, 42.5914, 40.4108, 78.9688, -136.279
5.99188, 31, -41.8291, -17.7442, 42.6618, 40.6541, 79.0763, -135.758
6.00047, 32, -41.531, -17.8193, 42.7253, 40.8889, 79.1813, -135.239
6.00776, 32, -41.2265, -17.8918, 42.782, 41.1153, 79.2836, -134.72
6.0201, 33, -40.7572, -17.9948, 42.8537, 41.4401, 79.4327, -133.945
6.02579, 34, -40.5973, -18.0275, 42.874, 41.5443, 79.4809, -133.686
6.03187, 34, -40.2735, -18.0911, 42.909, 41.7463, 79.5756, -133.171
6.03997, 34, -39.9452, -18.152, 42.9368, 41.9405, 79.6677, -132.656
6.04776, 35, -39.6114, -18.2098, 42.9575, 42.1271, 79.7574, -132.143
6.05578, 35, -39.2715, -18.2642, 42.9711, 42.3061, 79.8446, -131.63
6.06428, 36, -38.9244, -18.3151, 42.9777, 42.4773, 79.9296, -131.119
6.07261, 36, -38.5701, -18.3627, 42.9779, 42.6409, 80.0128, -130.609
6.07992, 37, -38.2099, -18.407, 42.9712, 42.7969, 80.0933, -130.101
6.08802, 37, -37.8439, -18.4475, 42.9576, 42.9454, 80.1725, -129.595
6.09761, 38, -37.4729, -18.4844, 42.9373, 43.0867, 80.249, -129.089
6.10675, 39, -37.0973, -18.518, 42.9104, 43.2204, 80.3239, -128.586
6.11422, 39, -36.717, -18.5483, 42.8767, 43.3467, 80.3958, -128.084
6.12034, 39, -36.332, -18.5747, 42.8362, 43.4657, 80.4667, -127.584
6.12882, 40, -35.9413, -18.5974, 42.7893, 43.5774, 80.535, -127.086
6.1408, 41, -35.3439, -18.624, 42.7065, 43.7317, 80.6349, -126.343
6.14473, 41, -35.1419, -18.631, 42.6756, 43.7792, 80.6667, -126.096
6.15673, 42, -34.5291, -18.6468, 42.5734, 43.912, 80.7607, -125.36
6.16087, 42, -34.3232, -18.6504, 42.5361, 43.9525, 80.7906, -125.115
6.16985, 43, -33.9091, -18.6552, 42.4569, 44.0286, 80.8494, -124.628
6.1766, 43, -33.4915, -18.6568, 42.3716, 44.0972, 80.9072, -124.142
6.18444, 43, -33.2809, -18.6548, 42.2804, 44.1593, 80.9621, -123.659
6.1923, 44, -32.8551, -18.6524, 42.2327, 44.1874, 80.9894, -123.18
6.20024, 44, -32.4231, -18.6447, 42.133, 44.2379, 81.0431, -122.941
6.2096, 46, -31.7635, -18.6261, 41.9723, 44.3009, 81.1191, -122.226
6.26782, 49, -28.5708, -18.4265, 41.0454, 44.3685, 81.4328, -118.959
6.27054, 49, -28.3332, -18.4043, 40.968, 44.3583, 81.4537, -118.73
6.27297, 49, -28.3332, -18.4043, 40.968, 44.3458, 81.4745, -118.5
6.28111, 50, -27.6172, -18.3309, 40.7269, 44.3133, 81.5151, -118.042
6.30326, 51, -26.4047, -18.1831, 40.2924, 44.1916, 81.6193, -116.901
6.30599, 51, -26.1569, -18.1494, 40.2007, 44.1598, 81.6405, -116.674
6.3078, 51, -26.1569, -18.1494, 40.2007, 44.1598, 81.6405, -116.674
6.31248, 51, -25.9072, -18.1143, 40.1072, 44.1256, 81.6616, -116.447
6.31525, 52, -25.6559, -18.0778, 40.0118, 44.0893, 81.6829, -116.22
6.31779, 52, -25.4032, -18.04, 39.9144, 44.0504, 81.7046, -115.993
6.31957, 52, -25.4032, -18.04, 39.9144, 44.0504, 81.7046, -115.993
6.32996, 53, -24.6411, -17.9187, 39.6125, 43.9175, 81.7715, -115.314
6.33188, 53, -24.6411, -17.9187, 39.6125, 43.9175, 81.7715, -115.314
6.33454, 53, -24.386, -17.8755, 39.5089, 43.8682, 81.7938, -115.087
6.3364, 53, -24.386, -17.8755, 39.5089, 43.8682, 81.7938, -115.087
6.34235, 53, -24.1302, -17.8309, 39.4034, 43.8165, 81.839, -114.635
6.34431, 53, -23.8731, -17.7847, 39.2958, 43.7621, 81.839, -114.635
6.35171, 54, -23.3542, -17.6873, 39.075, 43.6455, 81.8867, -114.183
6.36294, 55, -22.5601, -17.5293, 38.731, 43.4499, 81.9614, -113.506
6.37086, 55, -22.0225, -17.4161, 38.4918, 43.3048, 82.0143, -113.054
6.37852, 55, -21.4821, -17.2972, 38.2458, 43.1476, 82.0701, -112.601
6.38374, 56, -21.2111, -17.2356, 38.1204, 43.0646, 82.0983, -112.376
6.3967, 57, -20.3906, -17.0426, 37.7331, 42.7982, 82.1862, -111.699
6.39964, 57, -20.1131, -16.9755, 37.6009, 42.7038, 82.2164, -111.474
6.40832, 57, -19.5509, -16.8368, 37.3318, 42.5063, 82.277, -111.023
6.41569, 58, -18.9815, -16.6918, 37.0559, 42.2967, 82.3403, -110.573
6.42466, 58, -18.4083, -16.5407, 36.7741, 42.0746, 82.4044, -110.123
6.43557, 59, -17.5434, -16.3043, 36.3384, 41.7179, 82.5061, -109.449
6.43969, 59, -17.252, -16.2233, 36.1899, 41.5923, 82.541, -109.224
6.45524, 60, -16.3622, -15.973, 35.7346, 41.1958, 82.6504, -108.549
6.46001, 61, -15.7589, -15.7994, 35.4244, 40.9149, 82.7254, -108.1
6.46373, 61, -15.4557, -15.7108, 35.267, 40.7694, 82.7639, -107.875
6.47269, 61, -14.8478, -15.5306, 34.9483, 40.4695, 82.842, -107.427
6.47966, 62, -14.2357, -15.3462, 34.6243, 40.157, 82.9223, -106.977
6.48869, 63, -13.6148, -15.1565, 34.296, 39.8319, 83.0043, -106.529
6.49755, 63, -12.9841, -14.9601, 33.9633, 39.4936, 83.0887, -106.079
6.50374, 63, -12.3465, -14.7582, 33.626, 39.1415, 83.1757, -105.629
6.51267, 64, -11.7049, -14.552, 33.2834, 38.7757, 83.266, -105.179
6.51979, 64, -11.058, -14.3395, 32.935, 38.3955, 83.3605, -104.727
6.52781, 65, -10.4005, -14.1191, 32.5802, 38.0001, 83.4597, -104.273
6.5433, 66, -9.39534, -13.7754, 32.0383, 37.1576, 83.6748, -103.36
6.5452, 66, -9.05601, -13.6575, 31.8549, 37.1576, 83.6748, -103.36
6.55276, 67, -8.373, -13.4157, 31.4833, 36.7099, 83.792, -102.901
6.56065, 67, -7.68264, -13.1662, 31.1036, 36.2438, 83.9161, -102.439
6.57189, 68, -6.62862, -12.7774, 30.5216, 35.5114, 84.1171, -101.74
6.57584, 68, -6.27302, -12.6444, 30.3252, 35.2591, 84.1877, -101.506
6.58399, 68, -5.55709, -12.3742, 29.9286, 34.744, 84.3343, -101.036
6.5921, 69, -4.83599, -12.0965, 29.5283, 34.2158, 84.4866, -100.563
6.60185, 70, -4.1077, -11.8112, 29.1256, 33.6766, 84.6442, -100.089
6.60891, 70, -3.37125, -11.5184, 28.7232, 33.1259, 84.8066, -99.6132
6.61613, 70, -2.62701, -11.2171, 28.3208, 32.5622, 84.9747, -99.1355
6.62425, 71, -1.87554, -10.9091, 27.9169, 31.9849, 85.1493, -98.6563
6.63356, 72, -1.11558, -10.594, 27.5107, 31.3928, 85.3325, -98.174
6.64038, 72, -0.348201, -10.2729, 27.102, 30.7836, 85.5247, -97.6885
6.64856, 72, 0.425276, -9.94518, 26.6912, 30.1585, 85.726, -97.2001
6.66104, 73, 1.59562, -9.43855, 26.0725, 29.1974, 86.0447, -96.4641
6.66858, 73, 1.9882, -9.26613, 25.66, 28.5426, 86.2682, -95.9706
6.67233, 74, 2.77587, -8.91727, 25.4545, 28.2117, 86.3829, -95.7231
6.6805, 74, 3.56542, -8.56398, 25.0466, 27.5444, 86.6179, -95.2272
6.69344, 75, 4.75118, -8.0237, 24.4433, 26.5342, 86.9817, -94.4819
6.69611, 75, 4.75118, -8.0237, 24.4433, 26.5342, 86.9817, -94.4819
6.71656, 77, 6.72085, -6.90625, 23.2791, 24.5219, 87.7438, -92.9894
6.71849, 77, 7.11411, -6.90625, 23.2791, 24.5219, 87.7438, -92.9894
6.7296, 77, 8.29605, -6.32157, 22.7183, 23.5236, 88.147, -92.2445
6.73115, 78, 8.29605, -6.32157, 22.7183, 23.5236, 88.147, -92.2445
6.7355, 78, 8.69021, -6.12206, 22.5337, 23.19, 88.2863, -91.996
6.74349, 78, 9.47877, -5.71754, 22.1678, 22.5188, 88.574, -91.4963
6.75164, 79, 10.2692, -5.30578, 21.8045, 21.8415, 88.8753, -90.9927
6.75954, 79, 11.0613, -4.88707, 21.4436, 21.1587, 89.1901, -90.4833
6.76754, 80, 11.8514, -4.45883, 21.085, 20.4721, 89.517, -89.9677
6.77555, 80, 12.6357, -4.01968, 20.7303, 19.785, 89.8547, -89.4446
6.78349, 81, 13.4122, -3.57177, 20.3802, 19.1051, 90.2018, -88.9148
6.79326, 81, 14.5655, -2.88687, 19.8679, 18.1075, 90.7361, -88.1098
6.79958, 82, 14.9462, -2.65487, 19.7019, 17.7824, 90.9167, -87.8402
6.80749, 82, 15.7017, -2.18464, 19.3778, 17.1448, 91.2815, -87.2984
6.81651, 83, 16.4465, -1.70733, 19.0633, 16.5258, 91.6499, -86.7549
6.82356, 83, 17.1793, -1.22447, 18.7587, 15.9268, 92.0227, -86.2106
6.83246, 84, 17.8994, -0.736286, 18.4632, 15.3466, 92.4002, -85.6672
6.83955, 84, 18.6044, -0.244456, 18.1772, 14.7863, 92.7838, -85.1258
6.84752, 85, 19.2923, 0.251351, 17.8982, 14.2455, 93.1744, -84.5854
6.85552, 85, 19.9611, 0.752759, 17.6257, 13.7245, 93.5731, -84.0473
6.86356, 85, 20.6115, 1.25881, 17.3594, 13.223, 93.9789, -83.5115
6.87254, 86, 21.2452, 1.76848, 17.099, 12.7417, 94.3904, -82.9774
6.87951, 86, 21.8652, 2.28428, 16.8457, 12.28, 94.8078, -82.4421
6.88749, 87, 22.4729, 2.80937, 16.5978, 11.8382, 95.2313, -81.9043
6.89555, 87, 23.0695, 3.34484, 16.3542, 11.4148, 95.6617, -81.3618
6.90346, 88, 23.6564, 3.88833, 16.1145, 11.0083, 96.0991, -80.8138
6.91149, 88, 24.2331, 4.4387, 15.8776, 10.6173, 96.543, -80.2568
6.91983, 89, 24.7988, 4.99912, 15.6454, 10.2417, 96.9938, -79.69
6.92751, 89, 25.3553, 5.57187, 15.4183, 9.88134, 97.4509, -79.1119
6.93571, 90, 25.9068, 6.15594, 15.1942, 9.5367, 97.9135, -78.5219
6.94358, 90, 26.4544, 6.75, 14.974, 9.20709, 98.382, -77.9175
6.9517, 91, 26.9924, 7.35298, 14.7589, 8.89403, 98.8564, -77.299
6.95948, 91, 27.5171, 7.96575, 14.5486, 8.5985, 99.3372, -76.6678
6.96785, 92, 28.0303, 8.5896, 14.3421, 8.3222, 99.8242, -76.0242
6.97549, 92, 28.5351, 9.22378, 14.1397, 8.0672, 100.316, -75.3692
6.98372, 93, 29.0327, 9.86712, 13.9419, 7.83348, 100.813, -74.7064
6.99163, 93, 29.5197, 10.5181, 13.7497, 7.62241, 101.311, -74.0362
6.99974, 94, 29.9935, 11.1752, 13.565, 7.43462, 101.81, -73.3587
7.0076, 94, 30.4526, 11.8358, 13.3877, 7.27031, 102.306, -72.6755
7.01584, 95, 30.8976, 12.4992, 13.2171, 7.1297, 102.801, -71.9879
7.02368, 95, 31.329, 13.1646, 13.0544, 7.01292, 103.291, -71.2944
7.03179, 96, 31.7467, 13.8316, 12.8995, 6.91944, 103.778, -70.5952
7.03966, 96, 32.1491, 14.4993, 12.7512, 6.84991, 104.263, -69.8915
7.04766, 97, 32.5353, 15.1676, 12.6091, 6.80427, 104.742, -69.1816
7.05555, 97, 32.9055, 15.8352, 12.474, 6.77969, 105.217, -68.466
7.06452, 98, 33.2594, 16.4996, 12.3469, 6.77668, 105.685, -67.7481
7.07151, 98, 33.5978, 17.1595, 12.2284, 6.79583, 106.145, -67.0276
7.07996, 99, 33.9215, 17.8129, 12.1191, 6.83456, 106.595, -66.3056
7.08795, 99, 34.2315, 18.4589, 12.0196, 6.89289, 107.033, -65.5875
7.09567, 99, 34.5295, 19.0955, 11.9297, 6.96941, 107.457, -64.8735
7.10379, 100, 34.8161, 19.7226, 11.849, 7.06245, 107.866, -64.1648
7.11177, 100, 35.0907, 20.3389, 11.7776, 7.17194, 108.258, -63.4652
7.1198, 101, 35.3528, 20.9431, 11.7143, 7.29581, 108.633, -62.7753
7.12899, 101, 35.6025, 21.5346, 11.6594, 7.43269, 108.991, -62.0944
7.136, 102, 35.8381, 22.112, 11.6124, 7.58036, 109.333, -61.4253
7.14457, 102, 36.0594, 22.6751, 11.5728, 7.73684, 109.658, -60.7688
7.152, 103, 36.2703, 23.2229, 11.5409, 7.90019, 109.969, -60.1247
7.16005, 103, 36.4745, 23.7551, 11.5169, 8.06973, 110.265, -59.4933
7.16808, 103, 36.6736, 24.273, 11.5015, 8.24628, 110.545, -58.8759
7.17709, 104, 36.7711, 24.5267, 11.4968, 8.43044, 110.807, -58.27
7.18449, 104, 37.0564, 25.2669, 11.4926, 8.62376, 111.052, -57.6738
7.19209, 104, 37.149, 25.5067, 11.4943, 8.72379, 111.167, -57.3792
7.19953, 104, 37.3285, 25.9756, 11.5021, 8.92992, 111.383, -56.7975
7.20748, 104, 37.4971, 26.4297, 11.5143, 9.14377, 111.581, -56.2252
7.21556, 104, 37.6555, 26.8694, 11.5293, 9.36303, 111.764, -55.6636
7.22348, 104, 37.8083, 27.2958, 11.5473, 9.58482, 111.934, -55.1158
7.23152, 104, 37.959, 27.7078, 11.5672, 9.80659, 112.093, -54.5854
7.23947, 104, 38.1074, 28.1053, 11.5878, 10.0257, 112.243, -54.0752
7.24747, 104, 38.2517, 28.4876, 11.6082, 10.2405, 112.386, -53.5858
7.25555, 104, 38.3904, 28.855, 11.6277, 10.4494, 112.521, -53.1198
7.26348, 104, 38.5223, 29.2056, 11.6462, 10.6516, 112.648, -52.6774
7.27147, 104, 38.6463, 29.5387, 11.6638, 10.8456, 112.768, -52.2598
7.27953, 104, 38.762, 29.8528, 11.6801, 11.0311, 112.88, -51.8674
7.28747, 104, 38.8697, 30.1483, 11.6953, 11.2071, 112.984, -51.4994
7.29548, 104, 38.9698, 30.4253, 11.7095, 11.3734, 113.081, -51.1569
7.30355, 104, 39.0621, 30.6825, 11.7224, 11.5295, 113.17, -50.84
7.31147, 104, 39.1465, 30.9202, 11.7341, 11.6746, 113.252, -50.5479
7.32054, 104, 39.2226, 31.1384, 11.7447, 11.8084, 113.327, -50.2811
7.32754, 104, 39.2904, 31.3362, 11.7545, 11.9309, 113.394, -50.0396
7.33652, 104, 39.3503, 31.5148, 11.7635, 12.0414, 113.454, -49.8232
7.34348, 104, 39.403, 31.6739, 11.7712, 12.1397, 113.508, -49.632
7.35153, 104, 39.4494, 31.8139, 11.7782, 12.2261, 113.554, -49.4657
7.3595, 104, 39.4898, 31.9357, 11.7846, 12.2999, 113.593, -49.3238
7.36747, 104, 39.5242, 32.0404, 11.7904, 12.3624, 113.626, -49.2053
7.37555, 104, 39.5524, 32.1286, 11.7954, 12.4129, 113.652, -49.1093
7.38351, 104, 39.5754, 32.2016, 11.7999, 12.4521, 113.672, -49.0333
7.39147, 104, 39.5939, 32.2614, 11.804, 12.4824, 113.688, -48.9764
7.39955, 104, 39.6084, 32.3094, 11.8077, 12.5047, 113.698, -48.9354
7.40747, 104, 39.6197, 32.3468, 11.811, 12.5204, 113.705, -48.9071
7.41546, 104, 39.6283, 32.3748, 11.814, 12.531, 113.71, -48.8889
7.42358, 104, 39.6342, 32.3958, 11.8167, 12.5377, 113.713, -48.878
7.43147, 104, 39.6379, 32.411, 11.8189, 12.5414, 113.714, -48.8722
7.43947, 104, 39.64, 32.4212, 11.8205, 12.5432, 113.715, -48.8694
7.4475, 105, 39.6411, 32.4276, 11.8218, 12.5441, 113.715, -48.8682
7.45548, 105, 39.6411, 32.4316, 11.8228, 12.5445, 113.715, -48.8678
7.46348, 105, 39.6403, 32.4344, 11.8237, 12.5448, 113.715, -48.8677
7.47161, 105, 39.6394, 32.4364, 11.8244, 12.5449, 113.715, -48.8678
7.47947, 105, 39.6383, 32.4379, 11.8251, 12.545, 113.715, -48.8681
7.48748, 105, 39.6369, 32.4392, 11.8256, 12.545, 113.715, -48.8683
7.49554, 105, 39.6358, 32.4404, 11.8262, 12.5451, 113.715, -48.8686
7.5035, 105, 39.6351, 32.4415, 11.8267, 12.5451, 113.715, -48.869
7.51154, 105, 39.6347, 32.4427, 11.8273, 12.5451, 113.715, -48.8692
7.51963, 105, 39.6345, 32.4437, 11.8279, 12.5451, 113.715, -48.8694
7.5276, 105, 39.6343, 32.4446, 11.8284, 12.5451, 113.715, -48.8697
7.53558, 105, 39.6341, 32.4454, 11.8287, 12.5451, 113.715, -48.87
7.54364, 105, 39.6338, 32.4459, 11.8291, 12.5451, 113.715, -48.8703
7.55161, 105, 39.6335, 32.4463, 11.8294, 12.545, 113.715, -48.8705
7.55947, 105, 39.6333, 32.4465, 11.8296, 12.545, 113.715, -48.8707
7.56793, 105, 39.633, 32.4466, 11.8298, 12.545, 113.715, -48.8708
