hehonglu123/Motion-Primitive-Planning/ILC/recorded_data/realrobot/from_NX/iteration_22/run_0.csv
timestamp, cmd_num, J1, J2, J3, J4, J5, J6
0.000371, -1, 39.6279, 32.4451, 11.8315, 12.5438, 113.714, -48.8732
0.006132, -1, 39.628, 32.4451, 11.8315, 12.5439, 113.714, -48.8733
0.008124, -1, 39.628, 32.4451, 11.8315, 12.5439, 113.714, -48.8733
0.031432, -1, 39.6279, 32.4451, 11.8315, 12.5438, 113.714, -48.8733
0.032776, -1, 39.6279, 32.4451, 11.8315, 12.5438, 113.714, -48.8733
0.036338, -1, 39.6279, 32.4451, 11.8315, 12.5438, 113.714, -48.8733
0.040376, -1, 39.6279, 32.4451, 11.8315, 12.5438, 113.714, -48.8733
0.048393, -1, 39.6279, 32.4451, 11.8315, 12.5438, 113.714, -48.8733
0.055507, -1, 39.6275, 32.4451, 11.8315, 12.5438, 113.714, -48.8733
0.063394, -1, 39.6253, 32.4447, 11.8314, 12.5438, 113.714, -48.8734
0.07141, -1, 39.6201, 32.4434, 11.8314, 12.5438, 113.714, -48.8735
0.079474, -1, 39.6114, 32.4406, 11.8312, 12.5438, 113.714, -48.8745
0.087389, -1, 39.5982, 32.4354, 11.8311, 12.5438, 113.712, -48.8786
0.095458, -1, 39.5786, 32.4269, 11.8311, 12.5438, 113.709, -48.8897
0.103476, -1, 39.55, 32.4144, 11.8315, 12.5438, 113.702, -48.9101
0.111402, -1, 39.5116, 32.3969, 11.8333, 12.5439, 113.69, -48.9433
0.119394, -1, 39.4622, 32.3733, 11.8379, 12.5439, 113.671, -48.9935
0.127475, -1, 39.4002, 32.3429, 11.8461, 12.5439, 113.644, -49.065
0.135391, -1, 39.3247, 32.3051, 11.8586, 12.5441, 113.606, -49.1592
0.143392, -1, 39.2357, 32.2594, 11.8762, 12.5445, 113.56, -49.2789
0.151556, -1, 39.1327, 32.2059, 11.8985, 12.5454, 113.503, -49.4244
0.159388, -1, 39.0156, 32.1444, 11.9251, 12.5467, 113.436, -49.5944
0.167423, -1, 38.885, 32.0754, 11.9556, 12.5485, 113.36, -49.787
0.176281, -1, 38.7422, 32, 11.9894, 12.5505, 113.276, -49.999
0.183489, -1, 38.5878, 31.9186, 12.0256, 12.5527, 113.186, -50.2269
0.191511, -1, 38.4235, 31.8322, 12.0633, 12.5551, 113.091, -50.4669
0.20043, -1, 38.2513, 31.7419, 12.102, 12.5575, 112.993, -50.7151
0.207501, -1, 38.0729, 31.6485, 12.141, 12.56, 112.893, -50.9686
0.215494, -1, 37.8893, 31.553, 12.1798, 12.5624, 112.791, -51.2254
0.224748, -1, 37.7017, 31.456, 12.2186, 12.5648, 112.689, -51.484
0.231431, -1, 37.5114, 31.3583, 12.2574, 12.5673, 112.586, -51.7435
0.239492, -1, 37.3199, 31.2603, 12.2961, 12.5698, 112.484, -52.0031
0.247439, -1, 37.1278, 31.1623, 12.335, 12.5722, 112.381, -52.2629
0.255687, -1, 36.9355, 31.0645, 12.3737, 12.5748, 112.278, -52.523
0.263735, -1, 36.7435, 30.9666, 12.4125, 12.5773, 112.175, -52.7835
0.271652, -1, 36.5517, 30.8688, 12.4514, 12.5799, 112.072, -53.0438
0.279682, -1, 36.3601, 30.771, 12.4903, 12.5824, 111.969, -53.3042
0.287854, -1, 36.1685, 30.6732, 12.5291, 12.5849, 111.866, -53.5647
0.295836, -1, 35.977, 30.5752, 12.5681, 12.5874, 111.763, -53.8253
0.304016, -1, 35.7854, 30.4771, 12.607, 12.59, 111.66, -54.086
0.312042, -1, 35.5936, 30.3791, 12.646, 12.5924, 111.557, -54.3463
0.320006, -1, 35.4015, 30.2808, 12.6848, 12.595, 111.454, -54.6065
0.328523, -1, 35.2092, 30.1825, 12.7237, 12.5976, 111.351, -54.8672
0.336046, -1, 35.0168, 30.0841, 12.7626, 12.6001, 111.248, -55.1281
0.343927, -1, 34.9206, 30.0348, 12.7821, 12.6013, 111.196, -55.3887
0.351404, -1, 34.7283, 29.9363, 12.821, 12.6038, 111.093, -55.519
0.359448, -1, 34.536, 29.8379, 12.8599, 12.6063, 110.99, -55.7799
0.36738, -1, 34.3438, 29.7394, 12.8989, 12.6089, 110.887, -56.0408
0.503453, -1, 31.0642, 28.0642, 13.5615, 12.6539, 109.135, -60.4801
0.505318, -1, 31.0642, 28.0642, 13.5615, 12.6539, 109.135, -60.6109
0.506698, -1, 30.968, 28.0149, 13.5811, 12.6553, 109.083, -60.6109
0.507905, -1, 30.968, 28.0149, 13.5811, 12.6553, 109.083, -60.6109
0.509944, -1, 30.8719, 27.9656, 13.6006, 12.6566, 109.031, -60.7415
0.511255, -1, 30.8719, 27.9656, 13.6006, 12.6566, 109.031, -60.7415
0.512465, -1, 30.8719, 27.9656, 13.6006, 12.6566, 109.031, -60.7415
0.516448, -1, 30.7758, 27.9164, 13.6201, 12.658, 108.98, -60.8721
0.519358, -1, 30.6799, 27.8671, 13.6396, 12.6595, 108.928, -61.0028
0.520561, -1, 30.6799, 27.8671, 13.6396, 12.6595, 108.928, -61.0028
0.522685, -1, 30.5839, 27.8178, 13.6591, 12.6609, 108.877, -61.1334
0.5239, -1, 30.5839, 27.8178, 13.6591, 12.6609, 108.877, -61.1334
0.525793, -1, 30.488, 27.7685, 13.6786, 12.6623, 108.825, -61.2641
0.527236, -1, 30.488, 27.7685, 13.6786, 12.6623, 108.825, -61.2641
0.528447, -1, 30.488, 27.7685, 13.6786, 12.6623, 108.825, -61.2641
0.534643, -1, 30.2959, 27.6698, 13.7176, 12.665, 108.722, -61.5255
0.535841, -1, 30.2959, 27.6698, 13.7176, 12.665, 108.722, -61.5255
0.538661, -1, 30.1998, 27.6204, 13.7371, 12.6664, 108.67, -61.6564
0.540043, -1, 30.1998, 27.6204, 13.7371, 12.6664, 108.67, -61.6564
0.542823, -1, 30.1037, 27.5711, 13.7566, 12.6677, 108.619, -61.7873
0.544095, -1, 30.1037, 27.5711, 13.7566, 12.6677, 108.619, -61.7873
0.546243, -1, 30.0074, 27.5217, 13.7762, 12.6691, 108.567, -61.918
0.553887, -1, 29.8147, 27.423, 13.8151, 12.6719, 108.464, -62.1796
0.560458, -1, 29.7181, 27.3736, 13.8346, 12.6732, 108.412, -62.3105
0.569998, -1, 29.4275, 27.2255, 13.893, 12.6772, 108.257, -62.7031
0.576375, -1, 29.3305, 27.1761, 13.9125, 12.6784, 108.206, -62.834
0.584446, -1, 29.1363, 27.0772, 13.9515, 12.681, 108.102, -63.0956
0.594214, -1, 28.9419, 26.9289, 14.0101, 12.6848, 107.947, -63.4876
0.599508, -1, 28.7476, 26.8795, 14.0295, 12.686, 107.895, -63.6184
0.607378, -1, 28.5535, 26.7807, 14.0685, 12.6886, 107.792, -63.8803
0.615441, -1, 28.3595, 26.682, 14.1076, 12.6911, 107.689, -64.1421
0.623421, -1, 28.1661, 26.5833, 14.1466, 12.6935, 107.585, -64.4035
0.631377, -1, 27.9731, 26.4845, 14.1856, 12.696, 107.482, -64.6653
0.639447, -1, 27.7803, 26.3856, 14.2247, 12.6984, 107.379, -64.9272
0.647377, -1, 27.5878, 26.2868, 14.2636, 12.7008, 107.275, -65.1891
0.65538, -1, 27.3956, 26.1878, 14.3026, 12.7033, 107.172, -65.4506
0.797525, -1, 24.0142, 24.4584, 14.9849, 12.7438, 105.365, -70.0304
0.798747, -1, 24.0142, 24.4584, 14.9849, 12.7438, 105.365, -70.0304
0.800825, -1, 23.9177, 24.409, 15.0044, 12.745, 105.313, -70.1613
0.802015, -1, 23.9177, 24.409, 15.0044, 12.745, 105.313, -70.1613
0.803998, -1, 23.8213, 24.3596, 15.0239, 12.7462, 105.262, -70.2922
0.806216, -1, 23.8213, 24.3596, 15.0239, 12.7462, 105.262, -70.2922
0.808261, -1, 23.7248, 24.3101, 15.0433, 12.7475, 105.21, -70.423
0.812199, -1, 23.6283, 24.2607, 15.0627, 12.7486, 105.158, -70.5539
0.813486, -1, 23.6283, 24.2607, 15.0627, 12.7486, 105.158, -70.5539
0.814763, -1, 23.6283, 24.2607, 15.0627, 12.7486, 105.158, -70.5539
0.8167, -1, 23.5316, 24.2113, 15.0822, 12.7497, 105.107, -70.6848
0.817986, -1, 23.5316, 24.2113, 15.0822, 12.7497, 105.107, -70.6848
0.820644, -1, 23.5316, 24.2113, 15.0822, 12.7509, 105.055, -70.8156
0.821908, -1, 23.435, 24.1619, 15.1017, 12.7509, 105.055, -70.8156
0.823904, -1, 23.3382, 24.1125, 15.1212, 12.7522, 105.003, -70.9463
0.826194, -1, 23.3382, 24.1125, 15.1212, 12.7522, 105.003, -70.9463
0.827996, -1, 23.2413, 24.063, 15.1407, 12.7534, 104.951, -71.0773
0.830283, -1, 23.2413, 24.063, 15.1407, 12.7534, 104.951, -71.0773
0.832479, -1, 23.1444, 24.0136, 15.1601, 12.7546, 104.9, -71.2082
0.83377, -1, 23.1444, 24.0136, 15.1601, 12.7546, 104.9, -71.2082
0.834966, -1, 23.1444, 24.0136, 15.1601, 12.7546, 104.9, -71.2082
0.837152, -1, 23.0474, 23.9641, 15.1795, 12.7558, 104.848, -71.3391
0.842402, -1, 22.9504, 23.9147, 15.199, 12.757, 104.797, -71.4701
0.848386, -1, 22.7564, 23.8159, 15.238, 12.7595, 104.693, -71.732
0.855367, -1, 22.6594, 23.7665, 15.2575, 12.7607, 104.641, -71.8629
0.863382, -1, 22.4656, 23.6679, 15.2965, 12.7632, 104.538, -72.1243
0.872508, -1, 22.1757, 23.5198, 15.3549, 12.767, 104.383, -72.5164
0.879369, -1, 22.0791, 23.4705, 15.3744, 12.7683, 104.331, -72.6472
0.887358, -1, 21.886, 23.3718, 15.4134, 12.7709, 104.228, -72.9089
0.896752, -1, 21.5974, 23.2237, 15.4718, 12.7749, 104.073, -73.3008
0.903453, -1, 21.5013, 23.1742, 15.4913, 12.7762, 104.022, -73.4315
0.911412, -1, 21.3091, 23.0756, 15.5302, 12.7788, 103.919, -73.6931
0.920907, -1, 21.0206, 22.9276, 15.5887, 12.7828, 103.764, -74.0854
0.928913, -1, 20.8281, 22.829, 15.6276, 12.7855, 103.661, -74.3467
0.936895, -1, 20.6356, 22.7304, 15.6666, 12.7883, 103.557, -74.6078
0.944973, -1, 20.4427, 22.6318, 15.7054, 12.791, 103.454, -74.869
0.953843, -1, 20.2493, 22.5331, 15.7443, 12.7937, 103.352, -75.1305
0.959464, -1, 20.1524, 22.4838, 15.7638, 12.795, 103.3, -75.2611
0.967364, -1, 19.9587, 22.3851, 15.8027, 12.7978, 103.197, -75.5222
0.976362, -1, 19.765, 22.2864, 15.8414, 12.8006, 103.094, -75.7833
0.983443, -1, 19.5714, 22.1878, 15.8804, 12.8032, 102.991, -76.0447
0.992407, -1, 19.3781, 22.0892, 15.9193, 12.806, 102.888, -76.3059
0.999375, -1, 19.185, 21.9905, 15.9581, 12.8087, 102.785, -76.5668
1.00743, -1, 18.9922, 21.8919, 15.9971, 12.8115, 102.682, -76.8275
1.01535, -1, 18.7997, 21.7932, 16.0359, 12.8142, 102.579, -77.0885
1.02339, -1, 18.6076, 21.6945, 16.0746, 12.817, 102.476, -77.3496
1.03136, -1, 18.4158, 21.5959, 16.1136, 12.8197, 102.373, -77.6103
1.03936, -1, 18.224, 21.4974, 16.1525, 12.8223, 102.27, -77.871
1.04744, -1, 18.0321, 21.399, 16.1913, 12.8249, 102.167, -78.1319
1.05536, -1, 17.8403, 21.3006, 16.2302, 12.8273, 102.064, -78.3928
1.06338, -1, 17.6482, 21.2023, 16.2691, 12.8299, 101.961, -78.6533
1.07144, -1, 17.4557, 21.104, 16.3079, 12.8325, 101.858, -78.9136
1.07936, -1, 17.263, 21.0057, 16.3468, 12.8349, 101.755, -79.1742
1.08736, -1, 17.0699, 20.9074, 16.3856, 12.8373, 101.652, -79.4349
1.09544, -1, 16.8768, 20.8092, 16.4244, 12.8397, 101.55, -79.6955
1.10344, -1, 16.6837, 20.711, 16.4632, 12.842, 101.447, -79.9559
1.11136, -1, 16.4907, 20.6129, 16.5019, 12.8444, 101.344, -80.2164
1.11944, -1, 16.2979, 20.5145, 16.5406, 12.8467, 101.242, -80.477
1.1274, -1, 16.1055, 20.4162, 16.5794, 12.8491, 101.139, -80.7376
1.13536, -1, 15.9135, 20.3178, 16.6181, 12.8514, 101.036, -80.9976
1.14366, -1, 15.7218, 20.2193, 16.6569, 12.8537, 100.933, -81.2577
1.15136, -1, 15.5305, 20.1209, 16.6955, 12.856, 100.831, -81.5179
1.15943, -1, 15.3393, 20.0226, 16.7341, 12.8584, 100.728, -81.7782
1.16818, -1, 15.1482, 19.9243, 16.773, 12.8606, 100.626, -82.0379
1.1754, -1, 14.957, 19.8261, 16.8116, 12.8629, 100.523, -82.2978
1.18352, -1, 14.7657, 19.728, 16.8503, 12.8652, 100.421, -82.5577
1.19225, -1, 14.5742, 19.6298, 16.8891, 12.8675, 100.318, -82.8178
1.19946, -1, 14.3824, 19.5317, 16.9277, 12.8698, 100.215, -83.0776
1.20753, -1, 14.1902, 19.4337, 16.9664, 12.8721, 100.113, -83.337
1.21625, -1, 13.9977, 19.3357, 17.0052, 12.8743, 100.01, -83.5965
1.22348, -1, 13.8053, 19.2379, 17.0437, 12.8766, 99.9078, -83.8562
1.23149, -1, 13.6128, 19.1401, 17.0823, 12.8789, 99.8053, -84.1158
1.2403, -1, 13.4205, 19.0422, 17.1211, 12.8813, 99.7027, -84.375
1.24741, -1, 13.2285, 18.9443, 17.1595, 12.8836, 99.6006, -84.6343
1.25548, -1, 13.037, 18.8464, 17.1981, 12.8859, 99.4981, -84.8936
1.26437, -1, 12.8457, 18.7484, 17.2368, 12.8882, 99.3955, -85.1531
1.2719, -1, 12.6548, 18.6504, 17.2753, 12.8906, 99.2935, -85.412
1.2797, -1, 12.4641, 18.5526, 17.3139, 12.8931, 99.1911, -85.671
1.289, -1, 12.2739, 18.4548, 17.3524, 12.8955, 99.0888, -85.9299
1.29639, -1, 12.0837, 18.3571, 17.3909, 12.8979, 98.9869, -86.189
1.30466, -1, 11.8934, 18.2595, 17.4295, 12.9003, 98.8846, -86.4477
1.31186, -1, 11.7028, 18.1618, 17.4681, 12.9027, 98.7827, -86.7062
1.32011, -1, 11.5121, 18.0642, 17.5066, 12.9052, 98.681, -86.9648
1.32873, -1, 11.321, 17.9666, 17.5452, 12.9076, 98.5789, -87.2235
1.33595, -1, 11.1297, 17.8691, 17.5837, 12.91, 98.477, -87.482
1.34447, -1, 10.9382, 17.7716, 17.6222, 12.9125, 98.3751, -87.7402
1.35135, -1, 10.8425, 17.7229, 17.6415, 12.9138, 98.3241, -87.8692
1.35936, -1, 10.6508, 17.6255, 17.6799, 12.9163, 98.2221, -88.1275
1.36845, -1, 10.3637, 17.4792, 17.7375, 12.9201, 98.0694, -88.5151
1.37534, -1, 10.2681, 17.4304, 17.7567, 12.9213, 98.0185, -88.6441
1.38341, -1, 10.0773, 17.3329, 17.7951, 12.9239, 97.9165, -88.9021
1.39259, -1, 9.79174, 17.1865, 17.8526, 12.9279, 97.7638, -89.2893
1.39936, -1, 9.69672, 17.1377, 17.8717, 12.9292, 97.7128, -89.4184
1.4074, -1, 9.50707, 17.0403, 17.9101, 12.932, 97.6108, -89.6765
1.41696, -1, 9.22312, 16.8943, 17.9675, 12.9361, 97.458, -90.0629
1.42562, -1, 9.03383, 16.797, 18.0059, 12.9387, 97.3562, -90.3203
1.4314, -1, 8.93912, 16.7484, 18.025, 12.9401, 97.3053, -90.4492
1.44095, -1, 8.65478, 16.6027, 18.0826, 12.944, 97.1527, -90.8354
1.44972, -1, 8.46509, 16.5055, 18.121, 12.9467, 97.0512, -91.0925
1.45543, -1, 8.37016, 16.457, 18.1402, 12.9481, 97.0005, -91.2212
1.46523, -1, 8.08466, 16.3116, 18.1977, 12.952, 96.8481, -91.6071
1.47134, -1, 7.98938, 16.2631, 18.2168, 12.9534, 96.7973, -91.7357
1.48036, -1, 7.79883, 16.1662, 18.2551, 12.956, 96.696, -91.9925
1.4884, -1, 7.60825, 16.0693, 18.2933, 12.9586, 96.5945, -92.2492
1.49634, -1, 7.41785, 15.9724, 18.3317, 12.9612, 96.4929, -92.506
1.50341, -1, 7.22769, 15.8754, 18.3698, 12.9638, 96.3917, -92.7629
1.51135, -1, 7.03779, 15.7784, 18.408, 12.9664, 96.2903, -93.0195
1.51935, -1, 6.84838, 15.6815, 18.4463, 12.969, 96.1891, -93.2759
1.52742, -1, 6.65943, 15.5846, 18.4843, 12.9714, 96.0884, -93.5322
1.53537, -1, 6.47093, 15.4878, 18.5224, 12.974, 95.9873, -93.7887
1.54336, -1, 6.28274, 15.391, 18.5606, 12.9765, 95.8862, -94.0451
1.55136, -1, 6.0947, 15.2943, 18.5987, 12.979, 95.7855, -94.3011
1.55935, -1, 5.90641, 15.1976, 18.6368, 12.9813, 95.6844, -94.5571
1.56741, -1, 5.718, 15.1009, 18.675, 12.9836, 95.5834, -94.813
1.57535, -1, 5.52946, 15.0043, 18.7131, 12.986, 95.4828, -95.069
1.58334, -1, 5.34074, 14.9078, 18.7512, 12.9884, 95.3819, -95.3246
1.59142, -1, 5.1516, 14.8114, 18.7894, 12.9906, 95.2812, -95.5801
1.59934, -1, 4.96216, 14.7151, 18.8274, 12.9929, 95.1806, -95.8356
1.60741, -1, 4.77279, 14.6187, 18.8655, 12.9951, 95.0798, -96.0911
1.6154, -1, 4.58336, 14.5223, 18.9035, 12.9973, 94.979, -96.3463
1.62334, -1, 4.39418, 14.4259, 18.9416, 12.9995, 94.8784, -96.6013
1.63136, -1, 4.20523, 14.3296, 18.9796, 13.0017, 94.7775, -96.8562
1.63941, -1, 4.01653, 14.2331, 19.0176, 13.004, 94.6766, -97.1113
1.64735, -1, 3.82848, 14.1369, 19.0554, 13.0063, 94.5759, -97.3663
1.65542, -1, 3.64092, 14.0408, 19.0934, 13.0084, 94.4751, -97.6209
1.66348, -1, 3.45374, 13.9446, 19.1314, 13.0108, 94.3744, -97.8757
1.67138, -1, 3.26678, 13.8485, 19.1692, 13.0132, 94.2738, -98.1305
1.67946, -1, 3.07982, 13.7525, 19.2071, 13.0154, 94.173, -98.3852
1.68767, -1, 2.89287, 13.6564, 19.2451, 13.0177, 94.0725, -98.6397
1.69546, -1, 2.70579, 13.5604, 19.283, 13.0199, 93.9718, -98.8937
1.70356, -1, 2.51854, 13.4645, 19.3209, 13.0222, 93.8713, -99.1478
1.71179, -1, 2.33106, 13.3686, 19.3587, 13.0245, 93.771, -99.402
1.72034, -1, 2.14317, 13.2728, 19.3965, 13.0267, 93.6707, -99.656
1.72754, -1, 1.95505, 13.177, 19.4344, 13.0289, 93.5705, -99.9096
1.73598, -1, 1.76688, 13.0812, 19.4722, 13.0313, 93.4707, -100.163
1.74436, -1, 1.57868, 12.9854, 19.5099, 13.0335, 93.3705, -100.417
1.75148, -1, 1.39062, 12.8896, 19.5478, 13.0358, 93.2704, -100.671
1.76025, -1, 1.20283, 12.7937, 19.5855, 13.0381, 93.1706, -100.924
1.76753, -1, 1.01544, 12.698, 19.6232, 13.0404, 93.0704, -101.177
1.77573, -1, 0.828664, 12.6024, 19.661, 13.0428, 92.9705, -101.43
1.78449, -1, 0.642322, 12.5069, 19.6986, 13.0452, 92.8708, -101.683
1.79168, -1, 0.456408, 12.4114, 19.7362, 13.0476, 92.771, -101.936
1.79983, -1, 0.270775, 12.3161, 19.7739, 13.0501, 92.6712, -102.189
1.80867, -1, 0.0853035, 12.2207, 19.8114, 13.0525, 92.572, -102.441
1.81587, -1, -0.10018, 12.1254, 19.849, 13.0549, 92.4722, -102.694
1.82449, -1, -0.285896, 12.0301, 19.8868, 13.0574, 92.3727, -102.947
1.83272, -1, -0.471797, 11.9349, 19.9243, 13.0599, 92.2734, -103.199
1.83993, -1, -0.564859, 11.8399, 19.9618, 13.0624, 92.1738, -103.451
1.84846, -1, -0.844412, 11.7449, 19.9994, 13.0649, 92.0743, -103.703
1.85533, -1, -0.93772, 11.6974, 20.0181, 13.0661, 92.0248, -103.829
1.86339, -1, -1.12446, 11.6023, 20.0556, 13.0686, 91.9254, -104.081
1.87138, -1, -1.31144, 11.5073, 20.0931, 13.0711, 91.826, -104.332
1.87934, -1, -1.49826, 11.4121, 20.1307, 13.0736, 91.727, -104.584
1.88733, -1, -1.68485, 11.317, 20.168, 13.0762, 91.6277, -104.835
1.89534, -1, -1.87112, 11.2219, 20.2055, 13.0788, 91.5284, -105.087
1.90334, -1, -2.05684, 11.127, 20.2429, 13.0815, 91.4294, -105.338
1.91138, -1, -2.24192, 11.0321, 20.2803, 13.0841, 91.3301, -105.589
1.92082, -1, -2.51904, 10.8898, 20.3364, 13.0881, 91.1814, -105.965
1.92733, -1, -2.61117, 10.8424, 20.355, 13.0894, 91.132, -106.091
1.93538, -1, -2.79506, 10.7477, 20.3923, 13.092, 91.0328, -106.342
1.94527, -1, -3.07106, 10.6056, 20.4484, 13.0959, 90.8843, -106.718
1.95133, -1, -3.16314, 10.5582, 20.4671, 13.0973, 90.835, -106.843
1.95942, -1, -3.34739, 10.4637, 20.5042, 13.0999, 90.736, -107.094
1.96909, -1, -3.62447, 10.3221, 20.5601, 13.1038, 90.5878, -107.47
1.97533, -1, -3.71692, 10.2749, 20.5788, 13.105, 90.5385, -107.594
1.98434, -1, -3.90197, 10.1806, 20.616, 13.1075, 90.4395, -107.844
1.99134, -1, -4.08726, 10.0862, 20.6533, 13.11, 90.3408, -108.094
1.9994, -1, -4.27279, 9.99198, 20.6904, 13.1124, 90.2423, -108.344
2.00733, -1, -4.45841, 9.89765, 20.7276, 13.1147, 90.1435, -108.594
2.01553, -1, -4.64367, 9.8033, 20.7649, 13.1171, 90.0451, -108.844
2.02333, -1, -4.82859, 9.70909, 20.8021, 13.1194, 89.9467, -109.093
2.03137, -1, -5.0131, 9.61501, 20.8391, 13.1219, 89.8481, -109.343
2.04015, -1, -5.19687, 9.52096, 20.8763, 13.1242, 89.7497, -109.592
2.04733, -1, -5.38018, 9.42692, 20.9134, 13.1266, 89.6515, -109.841
2.05534, -1, -5.56314, 9.333, 20.9504, 13.1289, 89.553, -110.09
2.06413, -1, -5.7457, 9.23907, 20.9876, 13.1312, 89.4547, -110.339
2.07139, -1, -5.92805, 9.14516, 21.0246, 13.1336, 89.3567, -110.587
2.07933, -1, -6.11045, 9.05129, 21.0615, 13.1357, 89.2585, -110.836
2.08812, -1, -6.29316, 8.95748, 21.0986, 13.1379, 89.1605, -111.084
2.09533, -1, -6.4761, 8.86385, 21.1356, 13.1402, 89.0628, -111.333
2.10333, -1, -6.65928, 8.77018, 21.1723, 13.1423, 88.9647, -111.581
2.11219, -1, -6.84294, 8.67654, 21.2093, 13.1445, 88.8667, -111.829
2.11933, -1, -7.02679, 8.58294, 21.2462, 13.1466, 88.769, -112.077
2.12733, -1, -7.21103, 8.48941, 21.283, 13.1488, 88.671, -112.324
2.13618, -1, -7.3952, 8.39576, 21.32, 13.1509, 88.5732, -112.572
2.14332, -1, -7.579, 8.30215, 21.3568, 13.153, 88.4758, -112.82
2.15133, -1, -7.7625, 8.20873, 21.3935, 13.1552, 88.378, -113.067
2.16015, -1, -7.94554, 8.11533, 21.4304, 13.1574, 88.2807, -113.314
2.16734, -1, -8.12809, 8.02196, 21.4672, 13.1596, 88.1834, -113.561
2.17535, -1, -8.30996, 7.92868, 21.5039, 13.1619, 88.0859, -113.809
2.18418, -1, -8.49136, 7.83543, 21.5408, 13.1641, 87.9885, -114.056
2.19147, -1, -8.67236, 7.74222, 21.5776, 13.1664, 87.8912, -114.302
2.19945, -1, -8.85306, 7.64904, 21.6144, 13.1687, 87.7936, -114.549
2.20824, -1, -9.03378, 7.55595, 21.6511, 13.1709, 87.6962, -114.795
2.21543, -1, -9.21478, 7.46294, 21.6879, 13.1732, 87.5991, -115.041
2.22343, -1, -9.39602, 7.37013, 21.7245, 13.1754, 87.502, -115.288
2.23224, -1, -9.57768, 7.27729, 21.7613, 13.1775, 87.4048, -115.534
2.23937, -1, -9.75965, 7.1845, 21.798, 13.1798, 87.3078, -115.78
2.24738, -1, -9.94202, 7.09172, 21.8344, 13.182, 87.2105, -116.026
2.25629, -1, -10.1246, 6.99897, 21.871, 13.1843, 87.1133, -116.272
2.26343, -1, -10.3074, 6.90617, 21.9077, 13.1865, 87.0162, -116.518
2.27154, -1, -10.49, 6.81341, 21.9443, 13.1887, 86.9191, -116.763
2.28047, -1, -10.6722, 6.72075, 21.9809, 13.1909, 86.822, -117.009
2.28776, -1, -10.8539, 6.62818, 22.0173, 13.1933, 86.7253, -117.254
2.29578, -1, -11.0352, 6.53558, 22.0537, 13.1958, 86.6283, -117.5
2.30373, -1, -11.2157, 6.44306, 22.0903, 13.1981, 86.5316, -117.744
2.31182, -1, -11.3956, 6.35056, 22.1269, 13.2006, 86.435, -117.989
2.32042, -1, -11.5752, 6.25809, 22.1633, 13.203, 86.3382, -118.234
2.32787, -1, -11.7545, 6.16562, 22.1998, 13.2055, 86.2415, -118.479
2.33603, -1, -11.9337, 6.07331, 22.2363, 13.208, 86.145, -118.723
2.34398, -1, -12.1129, 5.98105, 22.2727, 13.2104, 86.0484, -118.967
2.35323, -1, -12.2925, 5.88894, 22.3092, 13.2129, 85.952, -119.212
2.35932, -1, -12.3824, 5.84294, 22.3274, 13.2141, 85.9039, -119.334
2.36836, -1, -12.6527, 5.70486, 22.3817, 13.2178, 85.7593, -119.7
2.37532, -1, -12.743, 5.65886, 22.3999, 13.2191, 85.7111, -119.822
2.38332, -1, -12.9238, 5.56695, 22.4363, 13.2215, 85.6154, -120.065
2.39144, -1, -13.1049, 5.475, 22.4726, 13.224, 85.5192, -120.309
2.39931, -1, -13.2862, 5.383, 22.5088, 13.2264, 85.4232, -120.553
2.40734, -1, -13.4672, 5.29109, 22.5452, 13.2288, 85.3275, -120.796
2.41531, -1, -13.6479, 5.19919, 22.5814, 13.2314, 85.2317, -121.039
2.42544, -1, -13.918, 5.06145, 22.6355, 13.2352, 85.088, -121.404
2.43131, -1, -14.0077, 5.01557, 22.6537, 13.2365, 85.0403, -121.525
2.43932, -1, -14.1864, 4.92387, 22.6898, 13.2391, 84.9447, -121.769
2.44964, -1, -14.4537, 4.78629, 22.744, 13.243, 84.8012, -122.132
2.45532, -1, -14.5427, 4.74047, 22.7622, 13.2443, 84.7536, -122.254
2.46488, -1, -14.809, 4.60316, 22.8164, 13.248, 84.6099, -122.617
2.47373, -1, -14.9867, 4.51163, 22.8524, 13.2505, 84.5142, -122.86
2.47931, -1, -15.0756, 4.4659, 22.8706, 13.2517, 84.4665, -122.981
2.48831, -1, -15.2536, 4.37467, 22.9067, 13.2542, 84.3708, -123.223
2.49544, -1, -15.4319, 4.28335, 22.9427, 13.2566, 84.2751, -123.464
2.50436, -1, -15.6109, 4.19204, 22.9788, 13.2589, 84.1796, -123.706
2.51234, -1, -15.7901, 4.10081, 23.0148, 13.2612, 84.084, -123.948
2.51938, -1, -15.9693, 4.00961, 23.0507, 13.2635, 83.9886, -124.19
2.52733, -1, -16.149, 3.91835, 23.0867, 13.2656, 83.8933, -124.431
2.53535, -1, -16.3287, 3.82715, 23.1227, 13.2677, 83.7978, -124.672
2.54338, -1, -16.508, 3.73595, 23.1585, 13.2699, 83.7023, -124.914
2.55132, -1, -16.687, 3.64486, 23.1944, 13.2722, 83.6069, -125.155
2.55938, -1, -16.8655, 3.55379, 23.2302, 13.2745, 83.5115, -125.396
2.56734, -1, -17.0431, 3.46277, 23.2661, 13.2767, 83.4161, -125.637
2.57532, -1, -17.2199, 3.37183, 23.3019, 13.279, 83.3208, -125.878
2.58338, -1, -17.3964, 3.28094, 23.3378, 13.2811, 83.2258, -126.119
2.59131, -1, -17.5727, 3.1901, 23.3735, 13.2833, 83.1308, -126.359
2.59931, -1, -17.7487, 3.09945, 23.4094, 13.2854, 83.0359, -126.599
2.6074, -1, -17.9247, 3.00883, 23.4453, 13.2875, 82.9412, -126.839
2.61537, -1, -18.101, 2.91835, 23.481, 13.2897, 82.8463, -127.08
2.62331, -1, -18.2775, 2.82802, 23.5167, 13.2918, 82.7516, -127.32
2.63138, -1, -18.4545, 2.73757, 23.5526, 13.2939, 82.657, -127.56
2.63931, -1, -18.632, 2.64718, 23.5882, 13.2959, 82.5622, -127.799
2.64734, -1, -18.8097, 2.55686, 23.6239, 13.2979, 82.4677, -128.039
2.65538, -1, -18.9877, 2.46641, 23.6596, 13.2999, 82.3734, -128.278
2.66332, -1, -19.166, 2.37594, 23.6952, 13.3019, 82.2788, -128.518
2.67131, -1, -19.3441, 2.28555, 23.7308, 13.3039, 82.1845, -128.757
2.67941, -1, -19.5218, 2.19516, 23.7664, 13.3061, 82.0907, -128.996
2.68745, -1, -19.6988, 2.10476, 23.8019, 13.3083, 81.9964, -129.235
2.69546, -1, -19.8753, 2.01446, 23.8373, 13.3104, 81.9021, -129.474
2.70346, -1, -20.0512, 1.9242, 23.8729, 13.3125, 81.8082, -129.713
2.71141, -1, -20.2263, 1.83397, 23.9084, 13.3148, 81.714, -129.951
2.71948, -1, -20.4012, 1.74386, 23.9438, 13.317, 81.6199, -130.19
2.72747, -1, -20.5758, 1.65377, 23.9794, 13.3192, 81.5262, -130.428
2.73531, -1, -20.7503, 1.56378, 24.0149, 13.3214, 81.4322, -130.666
2.74341, -1, -20.9249, 1.4739, 24.0503, 13.3236, 81.3384, -130.904
2.75134, -1, -21.1, 1.38418, 24.0858, 13.3257, 81.2448, -131.142
2.75936, -1, -21.2754, 1.29439, 24.1213, 13.3279, 81.1509, -131.38
2.76774, -1, -21.4511, 1.20468, 24.1566, 13.3301, 81.057, -131.618
2.77551, -1, -21.6271, 1.11506, 24.192, 13.3322, 80.9633, -131.856
2.78436, -1, -21.8033, 1.02544, 24.2275, 13.3344, 80.8694, -132.093
2.79168, -1, -21.9796, 0.935821, 24.2628, 13.3367, 80.7756, -132.33
2.79966, -1, -22.1562, 0.846251, 24.2982, 13.3388, 80.682, -132.567
2.80869, -1, -22.3328, 0.75669, 24.3335, 13.3409, 80.5883, -132.805
2.81588, -1, -22.5088, 0.667228, 24.3687, 13.3432, 80.4947, -133.042
2.8244, -1, -22.6844, 0.577723, 24.4039, 13.3455, 80.4012, -133.278
2.83273, -1, -22.8594, 0.488285, 24.4392, 13.3479, 80.3076, -133.515
2.83992, -1, -23.0333, 0.398844, 24.4744, 13.3504, 80.214, -133.752
2.84848, -1, -23.2069, 0.309487, 24.5095, 13.3529, 80.1205, -133.989
2.85672, -1, -23.2936, 0.264812, 24.5271, 13.3541, 80.0739, -134.225
2.86333, -1, -23.4667, 0.17553, 24.5623, 13.3565, 79.9802, -134.344
2.87235, -1, -23.7266, 0.0418024, 24.615, 13.3601, 79.8402, -134.698
2.8793, -1, -23.8133, -0.00273576, 24.6327, 13.3612, 79.7938, -134.816
2.8873, -1, -23.9867, -0.0917074, 24.6678, 13.3638, 79.7006, -135.052
2.89535, -1, -24.1604, -0.180684, 24.7029, 13.3662, 79.6075, -135.288
2.90534, -1, -24.4215, -0.314118, 24.7556, 13.3698, 79.4681, -135.641
2.91137, -1, -24.5087, -0.358551, 24.7732, 13.3711, 79.4214, -135.759
2.9193, -1, -24.6833, -0.44741, 24.8082, 13.3735, 79.3283, -135.995
2.92965, -1, -24.9458, -0.58077, 24.8608, 13.377, 79.1889, -136.348
2.93537, -1, -25.0333, -0.625173, 24.8783, 13.3782, 79.1423, -136.465
2.9433, -1, -25.2082, -0.713952, 24.9133, 13.3806, 79.0493, -136.7
2.95383, -1, -25.4699, -0.847167, 24.9658, 13.3842, 78.9105, -137.053
2.95938, -1, -25.5569, -0.89156, 24.9834, 13.3855, 78.8641, -137.171
2.96892, -1, -25.8169, -1.0246, 25.0356, 13.3892, 78.7249, -137.523
2.9753, -1, -25.9033, -1.06895, 25.0531, 13.3904, 78.6786, -137.64
2.98338, -1, -26.0758, -1.15768, 25.0881, 13.3929, 78.5864, -137.875
2.99235, -1, -26.2478, -1.2463, 25.123, 13.3952, 78.4937, -138.109
3.00035, -1, -26.4196, -1.33481, 25.1578, 13.3977, 78.401, -138.344
3.00737, -1, -26.5915, -1.42325, 25.1927, 13.3999, 78.3089, -138.578
3.01536, -1, -26.7635, -1.51159, 25.2277, 13.4021, 78.2162, -138.812
3.0233, -1, -26.9358, -1.59977, 25.2625, 13.4044, 78.1238, -139.046
3.03135, -1, -27.1083, -1.68794, 25.2973, 13.4066, 78.0317, -139.28
3.03937, -1, -27.2808, -1.77617, 25.3323, 13.4088, 77.9395, -139.514
3.0473, -1, -27.4536, -1.8642, 25.367, 13.411, 77.8474, -139.748
3.05532, -1, -27.6268, -1.9523, 25.4018, 13.4131, 77.7555, -139.981
3.06333, -1, -27.8001, -2.04051, 25.4367, 13.4152, 77.6633, -140.214
3.07134, -1, -27.9734, -2.12852, 25.4714, 13.4173, 77.5713, -140.448
3.07934, -1, -28.1467, -2.21657, 25.5061, 13.4193, 77.4793, -140.681
3.0873, -1, -28.3198, -2.30463, 25.5409, 13.4214, 77.3873, -140.914
3.09535, -1, -28.4926, -2.39269, 25.5757, 13.4235, 77.2951, -141.147
3.10334, -1, -28.665, -2.48066, 25.6103, 13.4256, 77.2031, -141.38
3.11129, -1, -28.8367, -2.56867, 25.6449, 13.4278, 77.1112, -141.613
3.11933, -1, -29.0076, -2.65663, 25.6796, 13.43, 77.0192, -141.846
3.12733, -1, -29.1784, -2.74451, 25.7141, 13.4322, 76.9273, -142.078
3.13531, -1, -29.349, -2.83236, 25.7487, 13.4342, 76.8357, -142.311
3.14335, -1, -29.5197, -2.92007, 25.7834, 13.4363, 76.7437, -142.543
3.15142, -1, -29.6905, -3.00765, 25.8179, 13.4382, 76.6518, -142.776
3.1593, -1, -29.8615, -3.0952, 25.8524, 13.4403, 76.5602, -143.008
3.16734, -1, -30.0325, -3.18266, 25.887, 13.4424, 76.4682, -143.24
3.17618, -1, -30.2035, -3.27019, 25.9215, 13.4445, 76.3765, -143.472
3.1834, -1, -30.3747, -3.35763, 25.956, 13.4466, 76.285, -143.704
3.19142, -1, -30.5462, -3.44506, 25.9905, 13.4486, 76.1934, -143.936
3.2008, -1, -30.718, -3.53259, 26.0249, 13.4507, 76.102, -144.168
3.20746, -1, -30.8899, -3.61993, 26.0594, 13.4527, 76.0107, -144.399
3.21547, -1, -31.0617, -3.70734, 26.094, 13.4547, 75.9192, -144.63
3.22377, -1, -31.2333, -3.79469, 26.1284, 13.4568, 75.8279, -144.862
3.23136, -1, -31.4046, -3.88207, 26.1627, 13.4588, 75.7366, -145.093
3.23943, -1, -31.5754, -3.96937, 26.1971, 13.461, 75.6453, -145.324
3.24878, -1, -31.7459, -4.05664, 26.2315, 13.4632, 75.554, -145.555
3.25543, -1, -31.9159, -4.14391, 26.2658, 13.4654, 75.4629, -145.786
3.26342, -1, -32.0855, -4.23109, 26.3002, 13.4675, 75.3719, -146.017
3.27303, -1, -32.2549, -4.31818, 26.3346, 13.4697, 75.2807, -146.248
3.2803, -1, -32.4244, -4.40524, 26.3688, 13.4719, 75.1897, -146.478
3.2876, -1, -32.5941, -4.49216, 26.4031, 13.474, 75.0992, -146.709
3.29714, -1, -32.7637, -4.57905, 26.4376, 13.4761, 75.008, -146.939
3.30393, -1, -32.9333, -4.66593, 26.4718, 13.4783, 74.9173, -147.17
3.31237, -1, -33.1031, -4.75286, 26.5059, 13.4805, 74.8268, -147.4
3.32134, -1, -33.2729, -4.8397, 26.5403, 13.4827, 74.736, -147.63
3.32784, -1, -33.443, -4.92656, 26.5745, 13.485, 74.6454, -147.86
3.33649, -1, -33.6133, -5.0135, 26.6087, 13.4872, 74.5548, -148.09
3.34603, -1, -33.7836, -5.1003, 26.643, 13.4894, 74.4643, -148.32
3.3524, -1, -33.9539, -5.18707, 26.6772, 13.4916, 74.3738, -148.549
3.35982, -1, -34.039, -5.23042, 26.6942, 13.4928, 74.3285, -148.664
3.36893, -1, -34.2942, -5.36049, 26.7455, 13.4961, 74.1928, -149.008
3.37536, -1, -34.3792, -5.40382, 26.7627, 13.4972, 74.1474, -149.123
3.38438, -1, -34.6336, -5.53381, 26.8138, 13.5008, 74.0115, -149.467
3.3913, -1, -34.7182, -5.57715, 26.8308, 13.502, 73.9664, -149.581
3.4007, -1, -34.9711, -5.70703, 26.8821, 13.5057, 73.8304, -149.925
3.40728, -1, -35.0553, -5.75029, 26.8992, 13.5069, 73.7852, -150.039
3.41852, -1, -35.3077, -5.87996, 26.9503, 13.5105, 73.6499, -150.383
3.42329, -1, -35.3919, -5.92309, 26.9673, 13.5117, 73.6046, -150.497
3.43269, -1, -35.6447, -6.05241, 27.0185, 13.5153, 73.469, -150.841
3.43934, -1, -35.729, -6.09556, 27.0354, 13.5165, 73.4239, -150.955
3.4473, -1, -35.8975, -6.18171, 27.0695, 13.5189, 73.3337, -151.184
3.45528, -1, -36.066, -6.26783, 27.1036, 13.5213, 73.2431, -151.412
3.46563, -1, -36.3189, -6.39706, 27.1545, 13.5249, 73.1076, -151.755
3.47129, -1, -36.4033, -6.44019, 27.1715, 13.5261, 73.0625, -151.869
3.48092, -1, -36.5722, -6.52641, 27.2055, 13.5296, 72.9269, -152.211
3.48736, -1, -36.7411, -6.61258, 27.2394, 13.5307, 72.8818, -152.325
3.49632, -1, -36.9101, -6.69874, 27.2733, 13.533, 72.7917, -152.553
3.50329, -1, -37.0791, -6.78488, 27.3073, 13.5353, 72.7016, -152.782
3.51132, -1, -37.2477, -6.871, 27.3412, 13.5375, 72.6117, -153.01
3.51937, -1, -37.4162, -6.95705, 27.3751, 13.5398, 72.5219, -153.237
3.52729, -1, -37.5843, -7.04311, 27.4091, 13.5421, 72.432, -153.465
3.53532, -1, -37.7521, -7.12913, 27.4431, 13.5444, 72.3421, -153.692
3.54334, -1, -37.9197, -7.21512, 27.4769, 13.5466, 72.2523, -153.92
3.55128, -1, -38.0872, -7.30106, 27.5107, 13.5489, 72.1626, -154.147
3.55932, -1, -38.2547, -7.38695, 27.5447, 13.551, 72.0727, -154.375
3.5673, -1, -38.422, -7.47265, 27.5785, 13.5532, 71.9831, -154.602
3.57528, -1, -38.5892, -7.55834, 27.6123, 13.5553, 71.8937, -154.829
3.58335, -1, -38.7565, -7.64407, 27.6463, 13.5574, 71.8039, -155.056
3.59128, -1, -38.9238, -7.72976, 27.6801, 13.5594, 71.7145, -155.283
3.59929, -1, -39.0912, -7.81535, 27.7138, 13.5615, 71.6254, -155.51
3.60736, -1, -39.2587, -7.90103, 27.7477, 13.5635, 71.5358, -155.737
3.61528, -1, -39.4262, -7.98676, 27.7815, 13.5655, 71.4466, -155.964
3.6233, -1, -39.5938, -8.07232, 27.8151, 13.5675, 71.3572, -156.19
3.63135, -1, -39.7615, -8.15787, 27.8488, 13.5694, 71.2678, -156.417
3.63928, -1, -39.929, -8.24337, 27.8826, 13.5714, 71.1785, -156.643
3.64731, -1, -40.0966, -8.32881, 27.9163, 13.5733, 71.089, -156.869
3.65535, -1, -40.2641, -8.41417, 27.9499, 13.5753, 71, -157.096
3.66329, -1, -40.4313, -8.49955, 27.9838, 13.5773, 70.9105, -157.322
3.67148, -1, -40.5983, -8.58493, 28.0174, 13.5792, 70.8213, -157.548
3.6793, -1, -40.7652, -8.67033, 28.051, 13.5812, 70.7323, -157.774
3.68739, -1, -40.9317, -8.75568, 28.0848, 13.5832, 70.643, -158
3.6956, -1, -41.0982, -8.84099, 28.1185, 13.5852, 70.5539, -158.226
3.70338, -1, -41.2644, -8.92624, 28.152, 13.5873, 70.4649, -158.452
3.71146, -1, -41.4306, -9.01142, 28.1856, 13.5892, 70.3756, -158.677
3.71981, -1, -41.5969, -9.09658, 28.2194, 13.5913, 70.2864, -158.903
3.72739, -1, -41.7632, -9.18169, 28.253, 13.5933, 70.1973, -159.128
3.73529, -1, -41.9296, -9.26672, 28.2865, 13.5953, 70.1083, -159.354
3.74413, -1, -42.0961, -9.35173, 28.3203, 13.5973, 70.0193, -159.579
3.75136, -1, -42.2624, -9.43681, 28.3539, 13.5994, 69.9303, -159.804
3.75932, -1, -42.4286, -9.52183, 28.3874, 13.6014, 69.8416, -160.03
3.76818, -1, -42.595, -9.6068, 28.421, 13.6034, 69.7525, -160.255
3.77544, -1, -42.7613, -9.69177, 28.4546, 13.6055, 69.6635, -160.48
3.78354, -1, -42.9277, -9.77676, 28.488, 13.6075, 69.575, -160.705
3.79165, -1, -43.0941, -9.86172, 28.5215, 13.6096, 69.486, -160.93
3.80043, -1, -43.2603, -9.94666, 28.5551, 13.6116, 69.3974, -161.155
3.8077, -1, -43.4264, -10.0316, 28.5886, 13.6137, 69.3088, -161.38
3.81637, -1, -43.5924, -10.1165, 28.6221, 13.6158, 69.2202, -161.605
3.82465, -1, -43.7583, -10.2015, 28.6556, 13.6178, 69.1316, -161.829
3.83189, -1, -43.9242, -10.2863, 28.689, 13.62, 69.0432, -162.054
3.84037, -1, -44.0897, -10.371, 28.7224, 13.6221, 68.9547, -162.278
3.84852, -1, -44.255, -10.4557, 28.756, 13.6244, 68.866, -162.502
3.85594, -1, -44.3376, -10.5403, 28.7895, 13.6266, 68.7773, -162.727
3.86428, -1, -44.5854, -10.6248, 28.8228, 13.6288, 68.6889, -162.951
3.87133, -1, -44.6679, -10.6671, 28.8395, 13.6299, 68.6444, -163.063
3.8793, -1, -44.8332, -10.7516, 28.873, 13.6321, 68.5558, -163.287
3.88729, -1, -44.9987, -10.8361, 28.9064, 13.6343, 68.4674, -163.511
3.89647, -1, -45.2465, -10.9629, 28.9565, 13.6375, 68.3348, -163.847
3.90352, -1, -45.3292, -11.0051, 28.9732, 13.6387, 68.2906, -163.959
3.91134, -1, -45.4944, -11.0896, 29.0065, 13.6409, 68.2022, -164.183
3.91927, -1, -45.6597, -11.174, 29.0397, 13.6432, 68.1142, -164.407
3.92875, -1, -45.9073, -11.3005, 29.0898, 13.6466, 67.9815, -164.742
3.93527, -1, -45.9891, -11.3423, 29.1065, 13.6478, 67.9372, -164.854
3.94481, -1, -46.2297, -11.4648, 29.1567, 13.6512, 67.8055, -165.188
3.95288, -1, -46.3835, -11.542, 29.1903, 13.6536, 67.7188, -165.407
3.96096, -1, -46.5293, -11.6145, 29.2233, 13.6559, 67.6352, -165.618
3.96904, -1, -46.6649, -11.6811, 29.2545, 13.6582, 67.5572, -165.816
3.97534, -1, -46.7279, -11.7118, 29.269, 13.6593, 67.5207, -165.909
3.98327, -1, -46.8426, -11.7678, 29.2953, 13.6614, 67.4539, -166.077
3.9928, -1, -46.9411, -11.8168, 29.3173, 13.663, 67.3982, -166.219
4.00118, -1, -47.0587, -11.8788, 29.3399, 13.6648, 67.3356, -166.376
4.00727, -1, -47.0903, -11.8963, 29.3449, 13.6651, 67.3202, -166.415
4.01527, -1, -47.1424, -11.9256, 29.3521, 13.6655, 67.2971, -166.474
4.02341, -1, -47.1811, -11.9475, 29.3559, 13.6657, 67.2822, -166.511
4.03143, -1, -47.2085, -11.9628, 29.3577, 13.6658, 67.2736, -166.533
4.03927, -1, -47.2265, -11.9727, 29.3585, 13.6659, 67.2689, -166.545
4.04737, -1, -47.2373, -11.9785, 29.3589, 13.666, 67.2665, -166.551
4.05526, 2, -47.2429, -11.9814, 29.3591, 13.666, 67.2654, -166.553
4.06328, 2, -47.2448, -11.9827, 29.3592, 13.666, 67.2649, -166.555
4.0714, 2, -47.2449, -11.9832, 29.3593, 13.666, 67.2646, -166.555
4.07927, 2, -47.2448, -11.9834, 29.3593, 13.6661, 67.2645, -166.555
4.08727, 2, -47.2448, -11.9835, 29.3594, 13.6661, 67.2645, -166.555
4.09534, 2, -47.2451, -11.9836, 29.3594, 13.6661, 67.2644, -166.555
4.10328, 2, -47.2461, -11.9839, 29.3594, 13.6661, 67.2645, -166.555
4.11137, 2, -47.2474, -11.9844, 29.3594, 13.6661, 67.2645, -166.555
4.11933, 2, -47.2491, -11.9852, 29.3594, 13.6661, 67.2644, -166.556
4.12726, 2, -47.2507, -11.986, 29.3594, 13.6661, 67.2644, -166.556
4.13527, 2, -47.2521, -11.9868, 29.3594, 13.6661, 67.2644, -166.556
4.14334, 2, -47.2531, -11.9875, 29.3594, 13.6661, 67.2644, -166.556
4.15132, 2, -47.2535, -11.9879, 29.3594, 13.6661, 67.2645, -166.556
4.15927, 2, -47.2537, -11.9881, 29.3594, 13.6661, 67.2644, -166.555
4.16734, 2, -47.2538, -11.9882, 29.3594, 13.6661, 67.2645, -166.555
4.17527, 2, -47.2535, -11.9881, 29.3595, 13.6661, 67.2645, -166.555
4.1833, 2, -47.253, -11.9881, 29.3594, 13.6661, 67.2645, -166.555
4.1915, 2, -47.2526, -11.9881, 29.3595, 13.6661, 67.2645, -166.555
4.19936, 2, -47.2522, -11.9881, 29.3595, 13.6661, 67.2644, -166.555
4.20735, 2, -47.2521, -11.9881, 29.3595, 13.6661, 67.2645, -166.555
4.21546, 2, -47.252, -11.9882, 29.3595, 13.6661, 67.2644, -166.555
4.22338, 2, -47.2522, -11.9884, 29.3594, 13.6661, 67.2645, -166.555
4.23142, 2, -47.2523, -11.9887, 29.3595, 13.6661, 67.2645, -166.555
4.23944, 2, -47.2529, -11.989, 29.3594, 13.666, 67.2645, -166.555
4.24727, 2, -47.2535, -11.9893, 29.3594, 13.6661, 67.2645, -166.555
4.2553, 2, -47.2538, -11.9895, 29.3595, 13.6661, 67.2645, -166.555
4.26341, 2, -47.2539, -11.9896, 29.3595, 13.6661, 67.2645, -166.555
4.2716, 2, -47.254, -11.9896, 29.3595, 13.6661, 67.2645, -166.555
4.27941, 2, -47.2538, -11.9896, 29.3595, 13.666, 67.2645, -166.555
4.28762, 2, -47.2537, -11.9895, 29.3595, 13.6661, 67.2645, -166.555
4.29553, 2, -47.2533, -11.9895, 29.3595, 13.6661, 67.2645, -166.555
4.30427, 2, -47.2529, -11.9895, 29.3595, 13.6661, 67.2645, -166.555
4.31182, 2, -47.2526, -11.9894, 29.3595, 13.666, 67.2645, -166.555
4.32045, 2, -47.2524, -11.9895, 29.3595, 13.666, 67.2645, -166.555
4.32778, 2, -47.2523, -11.9895, 29.3595, 13.666, 67.2646, -166.555
4.33636, 2, -47.2523, -11.9896, 29.3595, 13.666, 67.2646, -166.555
4.34382, 2, -47.2523, -11.9896, 29.3595, 13.666, 67.2645, -166.555
4.35237, 2, -47.2523, -11.9897, 29.3595, 13.666, 67.2645, -166.555
4.3601, 2, -47.2523, -11.9897, 29.3595, 13.666, 67.2645, -166.555
4.36726, 2, -47.2523, -11.9897, 29.3594, 13.666, 67.2645, -166.555
4.37526, 2, -47.2523, -11.9897, 29.3595, 13.666, 67.2645, -166.555
4.3843, 2, -47.2523, -11.9896, 29.3595, 13.666, 67.2646, -166.555
4.39131, 2, -47.2523, -11.9896, 29.3595, 13.666, 67.2646, -166.555
4.39925, 2, -47.2522, -11.9896, 29.3595, 13.666, 67.2645, -166.555
4.40851, 2, -47.252, -11.9895, 29.3595, 13.666, 67.2645, -166.555
4.41534, 2, -47.252, -11.9895, 29.3595, 13.666, 67.2645, -166.555
4.42327, 2, -47.2519, -11.9895, 29.3595, 13.666, 67.2645, -166.555
4.43137, 2, -47.2518, -11.9895, 29.3595, 13.666, 67.2646, -166.555
4.43925, 2, -47.2517, -11.9895, 29.3595, 13.666, 67.2645, -166.555
4.44877, 2, -47.2516, -11.9895, 29.3595, 13.666, 67.2646, -166.555
4.45685, 2, -47.2516, -11.9895, 29.3595, 13.666, 67.2646, -166.555
4.46505, 2, -47.2515, -11.9895, 29.3595, 13.666, 67.2646, -166.555
4.47131, 2, -47.2515, -11.9895, 29.3595, 13.666, 67.2646, -166.555
4.48089, 2, -47.2514, -11.9895, 29.3595, 13.666, 67.2646, -166.555
4.48902, 2, -47.2513, -11.9894, 29.3594, 13.6659, 67.2646, -166.555
4.49526, 2, -47.2512, -11.9894, 29.3594, 13.6659, 67.2646, -166.555
4.50333, 2, -47.2512, -11.9894, 29.3595, 13.666, 67.2646, -166.555
4.5123, 2, -47.2511, -11.9893, 29.3594, 13.666, 67.2646, -166.555
4.51925, 2, -47.251, -11.9893, 29.3594, 13.666, 67.2646, -166.555
4.52739, 2, -47.2508, -11.9893, 29.3594, 13.6659, 67.2646, -166.555
4.53525, 2, -47.2508, -11.9893, 29.3594, 13.6659, 67.2646, -166.555
4.54326, 2, -47.2506, -11.9893, 29.3594, 13.666, 67.2646, -166.555
4.55142, 2, -47.2505, -11.9893, 29.3594, 13.666, 67.2646, -166.555
4.55925, 2, -47.2504, -11.9893, 29.3594, 13.666, 67.2646, -166.555
4.56725, 2, -47.2503, -11.9893, 29.3594, 13.6659, 67.2647, -166.555
4.57533, 2, -47.2502, -11.9893, 29.3594, 13.666, 67.2646, -166.555
4.58326, 2, -47.2501, -11.9893, 29.3595, 13.666, 67.2646, -166.555
4.59131, 2, -47.25, -11.9893, 29.3594, 13.6659, 67.2646, -166.555
4.59932, 2, -47.2499, -11.9892, 29.3595, 13.6659, 67.2647, -166.555
4.60725, 2, -47.2497, -11.9892, 29.3595, 13.666, 67.2647, -166.555
4.61525, 2, -47.2496, -11.9891, 29.3595, 13.6659, 67.2647, -166.555
4.62333, 2, -47.2496, -11.9891, 29.3594, 13.6659, 67.2647, -166.555
4.63131, 2, -47.2495, -11.989, 29.3595, 13.6659, 67.2647, -166.555
4.63924, 2, -47.2494, -11.989, 29.3595, 13.6659, 67.2647, -166.555
4.64732, 2, -47.2493, -11.989, 29.3595, 13.6659, 67.2647, -166.555
4.65525, 2, -47.2492, -11.989, 29.3595, 13.6659, 67.2647, -166.555
4.66327, 2, -47.2492, -11.989, 29.3595, 13.6659, 67.2647, -166.555
4.67139, 2, -47.2492, -11.989, 29.3594, 13.6659, 67.2647, -166.555
4.67925, 2, -47.2492, -11.989, 29.3594, 13.6658, 67.2647, -166.555
4.6873, 2, -47.2491, -11.989, 29.3594, 13.6658, 67.2647, -166.555
4.69545, 2, -47.249, -11.989, 29.3594, 13.6658, 67.2647, -166.555
4.70335, 2, -47.249, -11.9889, 29.3594, 13.6659, 67.2647, -166.555
4.71139, 2, -47.249, -11.9888, 29.3594, 13.6658, 67.2647, -166.555
4.71945, 2, -47.2489, -11.9888, 29.3595, 13.6658, 67.2647, -166.555
4.72736, 2, -47.2488, -11.9887, 29.3594, 13.6658, 67.2647, -166.555
4.73531, 2, -47.2486, -11.9887, 29.3594, 13.6658, 67.2647, -166.555
4.74344, 2, -47.2486, -11.9887, 29.3594, 13.6658, 67.2647, -166.555
4.75132, 2, -47.2485, -11.9887, 29.3594, 13.6658, 67.2647, -166.555
4.75928, 2, -47.2485, -11.9887, 29.3594, 13.6658, 67.2647, -166.555
4.76739, 2, -47.2485, -11.9887, 29.3594, 13.6658, 67.2647, -166.555
4.77538, 2, -47.2485, -11.9887, 29.3594, 13.6658, 67.2647, -166.555
4.7834, 2, -47.2485, -11.9887, 29.3594, 13.6658, 67.2647, -166.555
4.79197, 2, -47.2484, -11.9886, 29.3594, 13.6658, 67.2648, -166.554
4.80038, 2, -47.2484, -11.9886, 29.3595, 13.6658, 67.2648, -166.554
4.80761, 2, -47.2483, -11.9886, 29.3594, 13.6658, 67.2648, -166.554
4.81607, 2, -47.2483, -11.9885, 29.3595, 13.6657, 67.2648, -166.554
4.82443, 2, -47.2482, -11.9884, 29.3594, 13.6658, 67.2648, -166.554
4.83182, 2, -47.2481, -11.9883, 29.3594, 13.6658, 67.2648, -166.554
4.84035, 2, -47.248, -11.9883, 29.3594, 13.6657, 67.2648, -166.554
4.84783, 2, -47.2479, -11.9883, 29.3594, 13.6657, 67.2648, -166.554
4.85636, 2, -47.2479, -11.9883, 29.3594, 13.6657, 67.2648, -166.554
4.86417, 2, -47.2479, -11.9883, 29.3594, 13.6657, 67.2649, -166.554
4.87201, 2, -47.2479, -11.9883, 29.3595, 13.6656, 67.2649, -166.554
4.87924, 2, -47.2478, -11.9883, 29.3595, 13.6656, 67.2649, -166.554
4.88831, 2, -47.2478, -11.9882, 29.3594, 13.6656, 67.2649, -166.554
4.89523, 2, -47.2478, -11.9882, 29.3594, 13.6656, 67.2649, -166.554
4.90438, 2, -47.2478, -11.9882, 29.3594, 13.6656, 67.265, -166.554
4.91134, 2, -47.2477, -11.9882, 29.3594, 13.6656, 67.2649, -166.554
4.9193, 2, -47.2477, -11.9881, 29.3594, 13.6656, 67.265, -166.554
4.92724, 2, -47.2476, -11.9881, 29.3594, 13.6655, 67.265, -166.554
4.93691, 2, -47.2475, -11.988, 29.3594, 13.6655, 67.265, -166.554
4.9448, 2, -47.2474, -11.9879, 29.3594, 13.6655, 67.2649, -166.554
4.95288, 2, -47.2473, -11.9879, 29.3594, 13.6655, 67.2649, -166.554
4.96102, 2, -47.2472, -11.9879, 29.3594, 13.6655, 67.2649, -166.554
4.96724, 2, -47.2472, -11.9879, 29.3594, 13.6655, 67.265, -166.554
4.9768, 2, -47.2471, -11.9879, 29.3594, 13.6655, 67.265, -166.554
4.98504, 2, -47.2472, -11.9879, 29.3594, 13.6655, 67.2651, -166.554
4.99129, 2, -47.2471, -11.9879, 29.3594, 13.6654, 67.2651, -166.554
5.00023, 2, -47.2471, -11.9879, 29.3594, 13.6654, 67.265, -166.554
5.0091, 2, -47.2471, -11.9878, 29.3594, 13.6654, 67.2651, -166.554
5.01524, 2, -47.2471, -11.9878, 29.3594, 13.6654, 67.265, -166.554
5.02325, 2, -47.247, -11.9878, 29.3594, 13.6653, 67.265, -166.554
5.03142, 2, -47.247, -11.9877, 29.3594, 13.6653, 67.265, -166.554
5.03923, 2, -47.2469, -11.9877, 29.3594, 13.6654, 67.265, -166.554
5.04724, 2, -47.2468, -11.9876, 29.3594, 13.6654, 67.265, -166.554
5.05644, 2, -47.2467, -11.9876, 29.3594, 13.6653, 67.265, -166.554
5.06325, 2, -47.2466, -11.9876, 29.3594, 13.6653, 67.2651, -166.554
5.07136, 2, -47.2466, -11.9875, 29.3594, 13.6653, 67.265, -166.554
5.07924, 2, -47.2465, -11.9875, 29.3594, 13.6653, 67.265, -166.554
5.08724, 2, -47.2465, -11.9875, 29.3594, 13.6653, 67.265, -166.554
5.09528, 2, -47.2465, -11.9875, 29.3594, 13.6653, 67.265, -166.554
5.10324, 2, -47.2464, -11.9875, 29.3594, 13.6652, 67.265, -166.554
5.11129, 2, -47.2465, -11.9875, 29.3594, 13.6652, 67.2651, -166.554
5.11928, 4, -47.2464, -11.9875, 29.3594, 13.6653, 67.2651, -166.554
5.12723, 4, -47.2464, -11.9874, 29.3594, 13.6652, 67.2651, -166.554
5.13523, 4, -47.2463, -11.9873, 29.3594, 13.6652, 67.2651, -166.554
5.14332, 4, -47.2462, -11.9873, 29.3594, 13.6652, 67.2651, -166.554
5.15129, 4, -47.2461, -11.9873, 29.3594, 13.6652, 67.2651, -166.554
5.15924, 4, -47.2461, -11.9873, 29.3594, 13.6651, 67.2651, -166.554
5.1673, 4, -47.246, -11.9873, 29.3594, 13.6651, 67.2651, -166.554
5.17524, 4, -47.246, -11.9872, 29.3594, 13.6651, 67.2651, -166.554
5.18325, 4, -47.2459, -11.9872, 29.3594, 13.6651, 67.2652, -166.554
5.19139, 4, -47.2459, -11.9872, 29.3594, 13.6651, 67.2652, -166.554
5.19937, 4, -47.2459, -11.9872, 29.3594, 13.6651, 67.2652, -166.554
5.20734, 4, -47.2458, -11.9872, 29.3594, 13.6651, 67.2652, -166.554
5.2154, 4, -47.2458, -11.9872, 29.3594, 13.6651, 67.2652, -166.554
5.22355, 4, -47.2458, -11.9871, 29.3594, 13.665, 67.2652, -166.553
5.23541, 4, -47.2457, -11.987, 29.3594, 13.6651, 67.2653, -166.554
5.23948, 4, -47.2457, -11.987, 29.3594, 13.665, 67.2652, -166.553
5.2495, 4, -47.2456, -11.987, 29.3594, 13.665, 67.2652, -166.553
5.25563, 4, -47.2456, -11.987, 29.3594, 13.665, 67.2653, -166.553
5.26553, 4, -47.2455, -11.9869, 29.3594, 13.665, 67.2653, -166.553
5.27173, 4, -47.2454, -11.9869, 29.3594, 13.665, 67.2653, -166.553
5.28093, 4, -47.2454, -11.9869, 29.3594, 13.665, 67.2653, -166.553
5.28785, 4, -47.2453, -11.9869, 29.3594, 13.665, 67.2652, -166.553
5.2959, 4, -47.2453, -11.9869, 29.3594, 13.665, 67.2652, -166.553
5.30867, 4, -47.2453, -11.9869, 29.3594, 13.665, 67.2653, -166.553
5.31245, 4, -47.2453, -11.9869, 29.3594, 13.665, 67.2653, -166.553
5.32251, 4, -47.2452, -11.9868, 29.3594, 13.665, 67.2653, -166.553
5.32825, 4, -47.2452, -11.9868, 29.3594, 13.665, 67.2653, -166.553
5.33843, 4, -47.2452, -11.9868, 29.3594, 13.665, 67.2653, -166.553
5.34412, 4, -47.2451, -11.9867, 29.3594, 13.665, 67.2653, -166.553
5.35498, 4, -47.2451, -11.9867, 29.3594, 13.6649, 67.2653, -166.553
5.36006, 4, -47.245, -11.9867, 29.3594, 13.6649, 67.2653, -166.553
5.36843, 4, -47.245, -11.9867, 29.3594, 13.6648, 67.2653, -166.553
5.37717, 4, -47.245, -11.9867, 29.3594, 13.6648, 67.2653, -166.553
5.38416, 4, -47.245, -11.9867, 29.3594, 13.6648, 67.2653, -166.553
5.39448, 4, -47.246, -11.9871, 29.3598, 13.665, 67.2654, -166.553
5.40066, 4, -47.2483, -11.9889, 29.3617, 13.6667, 67.2659, -166.553
5.41133, 4, -47.2525, -11.9934, 29.3672, 13.6764, 67.2683, -166.552
5.4174, 4, -47.2596, -12.0023, 29.3798, 13.7013, 67.2747, -166.547
5.42705, 4, -47.2712, -12.0175, 29.4045, 13.7502, 67.2883, -166.537
5.43296, 5, -47.2793, -12.0283, 29.447, 13.8379, 67.3127, -166.517
5.44248, 5, -47.316, -12.0771, 29.5139, 13.9777, 67.3522, -166.485
5.45154, 5, -47.3533, -12.1254, 29.6113, 14.1846, 67.4092, -166.437
5.45535, 5, -47.3765, -12.1549, 29.673, 14.3168, 67.4458, -166.407
5.46555, 5, -47.4651, -12.2658, 29.9135, 14.8386, 67.5878, -166.287
5.47331, 5, -47.5399, -12.3587, 30.122, 15.2906, 67.7093, -166.184
5.47945, 5, -47.5819, -12.4108, 30.2404, 15.5457, 67.7773, -166.126
5.48742, 5, -47.6743, -12.5251, 30.5023, 16.1062, 67.9252, -165.998
5.49832, 5, -47.831, -12.7193, 30.9502, 17.0451, 68.1689, -165.788
5.50334, 5, -47.887, -12.7891, 31.1109, 17.3771, 68.2536, -165.715
5.51626, 5, -48.0628, -13.0092, 31.617, 18.4022, 68.5106, -165.492
5.52097, 5, -48.123, -13.0849, 31.7907, 18.749, 68.596, -165.417
5.53055, 5, -48.3041, -13.3133, 32.319, 19.7875, 68.8472, -165.197
5.53644, 5, -48.3636, -13.3882, 32.4955, 20.128, 68.9289, -165.123
5.54339, 5, -48.4782, -13.5343, 32.8459, 20.7941, 69.0895, -164.972
5.55236, 6, -48.5836, -13.6722, 33.187, 21.4313, 69.2482, -164.806
5.55941, 6, -48.6753, -13.7992, 33.5138, 22.0281, 69.4071, -164.612
5.57118, 7, -48.7784, -13.9716, 33.9672, 22.8359, 69.6523, -164.24
5.57843, 7, -48.8208, -14.077, 34.2427, 23.312, 69.8227, -163.921
5.58778, 8, -48.8416, -14.1736, 34.4967, 23.7419, 69.9998, -163.539
5.59143, 8, -48.8443, -14.2182, 34.6165, 23.9417, 70.091, -163.326
5.60268, 8, -48.8261, -14.338, 34.9551, 24.4949, 70.3751, -162.601
5.60836, 9, -48.8125, -14.3742, 35.0624, 24.6683, 70.4735, -162.335
5.61564, 9, -48.7763, -14.4424, 35.2716, 25.0064, 70.6757, -161.775
5.62442, 10, -48.73, -14.5066, 35.4787, 25.3402, 70.8857, -161.186
5.63536, 10, -48.6434, -14.6001, 35.7907, 25.8458, 71.2147, -160.267
5.64228, 11, -48.6106, -14.6622, 36.0003, 26.1909, 71.4419, -159.641
5.64744, 11, -48.5407, -14.6933, 36.1058, 26.3664, 71.5571, -159.326
5.65641, 11, -48.466, -14.7557, 36.3173, 26.7239, 71.7904, -158.694
5.66449, 12, -48.3881, -14.8188, 36.5275, 27.0898, 72.0264, -158.057
5.67143, 12, -48.3092, -14.8812, 36.7364, 27.4639, 72.2647, -157.416
5.6794, 13, -48.2299, -14.9411, 36.9441, 27.846, 72.5052, -156.772
5.68744, 13, -48.1495, -14.999, 37.1496, 28.236, 72.7482, -156.123
5.69968, 14, -48.0235, -15.0864, 37.4551, 28.8333, 73.1176, -155.142
5.70562, 15, -47.9795, -15.116, 37.5565, 29.0349, 73.2419, -154.814
5.71166, 15, -47.8889, -15.1751, 37.7577, 29.4401, 73.4907, -154.16
5.72033, 16, -47.7937, -15.2332, 37.9567, 29.8462, 73.7388, -153.507
5.72757, 16, -47.692, -15.2916, 38.1541, 30.251, 73.9845, -152.858
5.73672, 17, -47.5832, -15.3516, 38.3492, 30.6529, 74.226, -152.215
5.74435, 17, -47.4687, -15.4135, 38.541, 31.0504, 74.4616, -151.578
5.75512, 18, -47.2881, -15.5083, 38.824, 31.6363, 74.8019, -150.635
5.75954, 18, -47.2254, -15.5403, 38.9174, 31.8291, 74.9119, -150.326
5.76861, 18, -47.096, -15.606, 39.102, 32.2119, 75.1271, -149.713
5.77639, 19, -46.9611, -15.6746, 39.2847, 32.5925, 75.337, -149.107
5.78781, 20, -46.7486, -15.7827, 39.5565, 33.1616, 75.6435, -148.209
5.79428, 20, -46.6752, -15.8196, 39.6461, 33.3511, 75.7439, -147.913
5.8036, 21, -46.4481, -15.9329, 39.9105, 33.9192, 76.0397, -147.035
5.80782, 21, -46.3701, -15.9717, 39.9974, 34.1084, 76.1364, -146.745
5.81644, 22, -46.2109, -16.0509, 40.1699, 34.4861, 76.3269, -146.17
5.8287, 22, -45.9639, -16.1722, 40.4234, 35.0489, 76.604, -145.319
5.83259, 23, -45.8792, -16.2131, 40.5063, 35.235, 76.6941, -145.038
5.84263, 23, -45.7054, -16.2962, 40.6703, 35.6041, 76.8699, -144.481
5.84821, 23, -45.5246, -16.3815, 40.8316, 35.9687, 77.0405, -143.929
5.85771, 24, -45.3364, -16.4693, 40.9891, 36.3278, 77.205, -143.383
5.86806, 25, -45.1412, -16.5587, 41.2176, 36.8529, 77.4406, -142.573
5.87221, 25, -44.9396, -16.6486, 41.2918, 37.024, 77.5159, -142.306
5.88054, 26, -44.7314, -16.7393, 41.4369, 37.3601, 77.6623, -141.774
5.8892, 26, -44.516, -16.8315, 41.5771, 37.6882, 77.8035, -141.245
5.8974, 27, -44.2932, -16.9244, 41.7117, 38.0086, 77.9404, -140.72
5.90536, 27, -44.0639, -17.0168, 41.8404, 38.3211, 78.0728, -140.195
5.91134, 27, -43.9468, -17.0628, 41.9024, 38.4745, 78.1377, -139.933
5.92078, 28, -43.585, -17.1995, 42.0787, 38.9231, 78.328, -139.148
5.93037, 29, -43.3346, -17.2894, 42.1877, 39.212, 78.4511, -138.626
5.93932, 29, -43.0776, -17.3772, 42.2899, 39.4929, 78.5715, -138.103
5.94334, 29, -42.9467, -17.4203, 42.3383, 39.6305, 78.6303, -137.842
5.95135, 30, -42.6794, -17.5049, 42.4297, 39.8991, 78.7459, -137.32
5.96125, 31, -42.2634, -17.6274, 42.5536, 40.2861, 78.9142, -136.539
5.96947, 31, -41.9759, -17.7059, 42.6274, 40.5336, 79.0228, -136.019
5.97722, 32, -41.6814, -17.7821, 42.6943, 40.7725, 79.1292, -135.499
5.98912, 32, -41.227, -17.8919, 42.7821, 41.1153, 79.2836, -134.72
5.99135, 32, -41.227, -17.8919, 42.7821, 41.1153, 79.2836, -134.72
6.00271, 33, -40.7577, -17.9949, 42.8538, 41.4401, 79.4327, -133.945
6.01139, 34, -40.4365, -18.0596, 42.8926, 41.6463, 79.5285, -133.428
6.01915, 34, -40.1103, -18.1219, 42.924, 41.8444, 79.6219, -132.913
6.0251, 35, -39.9456, -18.1521, 42.937, 41.9405, 79.6677, -132.399
6.03239, 35, -39.6119, -18.2099, 42.9577, 42.1271, 79.7574, -132.143
6.03942, 35, -39.2719, -18.2642, 42.9714, 42.3061, 79.8446, -131.63
6.0504, 36, -38.7486, -18.3393, 42.9788, 42.5601, 79.9713, -130.864
6.05538, 36, -38.5707, -18.3627, 42.978, 42.641, 80.0127, -130.609
6.06659, 37, -38.028, -18.4277, 42.9653, 42.872, 80.1331, -129.848
6.07252, 37, -37.8444, -18.4474, 42.9576, 42.9454, 80.1725, -129.595
6.07944, 38, -37.4734, -18.4844, 42.9372, 43.0867, 80.249, -129.089
6.09128, 39, -36.9083, -18.5335, 42.8941, 43.2845, 80.3601, -128.334
6.09842, 39, -36.7176, -18.5481, 42.8764, 43.3468, 80.3958, -127.834
6.10657, 40, -36.1381, -18.5864, 42.8133, 43.5224, 80.5011, -127.335
6.11248, 40, -35.9419, -18.5972, 42.789, 43.5774, 80.5351, -127.087
6.11976, 40, -35.5452, -18.616, 42.7354, 43.6821, 80.6024, -126.59
6.12735, 41, -35.1427, -18.6308, 42.6753, 43.7792, 80.6668, -126.096
6.13636, 42, -34.7351, -18.6422, 42.6088, 43.8695, 80.7299, -125.604
6.14441, 42, -34.3239, -18.6502, 42.5358, 43.9525, 80.7906, -125.115
6.15142, 42, -33.9097, -18.655, 42.4565, 44.0287, 80.8494, -124.628
6.16405, 43, -33.2814, -18.6562, 42.3264, 44.1291, 80.9348, -123.901
6.16842, 44, -33.0693, -18.6547, 42.2801, 44.1593, 80.9621, -123.66
6.17984, 44, -32.4236, -18.6446, 42.1326, 44.238, 81.0431, -122.941
6.18404, 44, -32.2051, -18.6394, 42.0806, 44.2607, 81.0688, -122.702
6.19338, 45, -31.764, -18.6261, 41.972, 44.301, 81.1191, -122.226
6.20139, 46, -31.3189, -18.6094, 41.8574, 44.3336, 81.1687, -121.753
6.2116, 46, -30.6472, -18.5778, 41.6743, 44.3678, 81.2383, -121.048
6.21636, 47, -30.4221, -18.5654, 41.6104, 44.3753, 81.2608, -120.814
6.22539, 47, -29.9687, -18.5374, 41.4781, 44.3849, 81.3057, -120.347
6.23153, 48, -29.5094, -18.5048, 41.34, 44.3878, 81.3491, -119.883
6.23952, 48, -29.0435, -18.468, 41.1956, 44.3826, 81.391, -119.42
6.24835, 49, -28.5716, -18.4268, 41.0452, 44.3685, 81.4327, -118.959
6.25558, 49, -28.0958, -18.3812, 40.889, 44.3458, 81.4745, -118.5
6.26726, 50, -27.3777, -18.3043, 40.6429, 44.2934, 81.5353, -117.814
6.27162, 50, -27.1369, -18.2762, 40.5576, 44.2712, 81.5558, -117.586
6.28129, 51, -26.6509, -18.2157, 40.3822, 44.2207, 81.598, -117.129
6.28775, 51, -26.1575, -18.1497, 40.2004, 44.1597, 81.6404, -116.674
6.29642, 52, -25.6563, -18.0781, 40.0115, 44.0894, 81.6829, -116.22
6.30434, 52, -25.1501, -18.0012, 39.815, 44.0087, 81.7267, -115.766
6.3125, 53, -24.6414, -17.9189, 39.6122, 43.9175, 81.7715, -115.314
6.32059, 53, -24.1305, -17.8311, 39.4031, 43.8165, 81.8162, -114.861
6.32844, 54, -23.615, -17.7371, 39.1861, 43.7051, 81.8625, -114.409
6.33679, 54, -23.0922, -17.6365, 38.9619, 43.5831, 81.9114, -113.958
6.34427, 54, -22.5606, -17.5296, 38.7309, 43.4499, 81.9614, -113.506
6.35368, 55, -22.023, -17.4164, 38.4916, 43.3048, 82.0143, -113.054
6.36049, 56, -21.4827, -17.2974, 38.2456, 43.1475, 82.0701, -112.601
6.36943, 56, -20.9398, -17.1729, 37.9929, 42.9786, 82.1268, -112.15
6.37652, 57, -20.3914, -17.0428, 37.733, 42.7981, 82.1862, -111.699
6.38519, 57, -19.8337, -16.9071, 37.4671, 42.6064, 82.2465, -111.248
6.39213, 58, -19.5515, -16.837, 37.3316, 42.403, 82.3084, -110.798
6.39938, 58, -18.9819, -16.692, 37.0556, 42.2966, 82.3403, -110.573
6.41086, 59, -18.1212, -16.4632, 36.6303, 41.9589, 82.4374, -109.898
6.41746, 59, -17.5437, -16.3044, 36.3381, 41.7179, 82.5061, -109.449
6.42573, 60, -16.9584, -16.1414, 36.0395, 41.4635, 82.5767, -108.999
6.43366, 60, -16.3625, -15.9732, 35.7345, 41.1958, 82.6505, -108.549
6.44325, 61, -15.7593, -15.7997, 35.4243, 40.9148, 82.7254, -108.1
6.44739, 61, -15.4562, -15.7111, 35.2668, 40.7694, 82.7639, -107.875
6.45799, 62, -14.5431, -15.4391, 34.7867, 40.3149, 82.8819, -107.202
6.46885, 62, -13.6152, -15.1567, 34.2958, 39.832, 83.0042, -106.529
6.47135, 63, -13.6152, -15.1567, 34.2958, 39.832, 83.0042, -106.529
6.48346, 63, -12.6665, -14.8601, 33.795, 39.3193, 83.1316, -105.854
6.48955, 64, -12.0267, -14.6561, 33.4553, 38.9603, 83.2205, -105.404
6.49782, 64, -11.7055, -14.447, 33.1097, 38.5875, 83.3127, -104.953
6.50331, 64, -11.0586, -14.3398, 32.9348, 38.3955, 83.3605, -104.727
6.51474, 65, -10.0688, -14.0065, 32.4005, 37.7961, 83.5112, -104.046
6.51935, 66, -9.7336, -13.892, 32.2199, 37.5876, 83.5641, -103.817
6.52747, 66, -9.05674, -13.6579, 31.8546, 37.1576, 83.6747, -103.36
6.53542, 67, -8.37374, -13.4162, 31.4831, 36.7098, 83.7919, -102.901
6.54675, 67, -7.33435, -13.0391, 30.9111, 36.0041, 83.9811, -102.207
6.5524, 68, -6.9829, -12.9095, 30.7169, 35.7599, 84.0482, -101.974
6.55968, 68, -6.27365, -12.6449, 30.325, 35.259, 84.1876, -101.506
6.56738, 69, -5.55769, -12.3747, 29.9284, 34.7439, 84.3343, -101.036
6.57642, 69, -4.83658, -12.0971, 29.5281, 34.2158, 84.4866, -100.563
6.58334, 70, -4.10836, -11.8117, 29.1254, 33.6767, 84.6442, -100.089
6.59141, 70, -3.37195, -11.5189, 28.723, 33.1259, 84.8066, -99.6133
6.60039, 71, -2.62754, -11.2176, 28.3206, 32.562, 84.9746, -99.1354
6.60835, 71, -1.87576, -10.9094, 27.9166, 31.9848, 85.1492, -98.6563
6.61532, 72, -1.11576, -10.5945, 27.5105, 31.3928, 85.3323, -98.174
6.62435, 72, -0.348466, -10.2735, 27.102, 30.7836, 85.5246, -97.6886
6.63225, 73, 0.425055, -9.94581, 26.6912, 30.1586, 85.726, -97.2003
6.63936, 73, 1.20384, -9.6099, 26.279, 29.5209, 85.9363, -96.7099
6.64774, 74, 1.98785, -9.26685, 25.8661, 28.871, 86.1554, -96.2177
6.65533, 74, 2.77528, -8.91806, 25.4546, 28.2119, 86.3828, -95.7233
6.66728, 75, 3.9599, -8.38591, 24.8443, 27.2082, 86.7377, -94.9789
6.67134, 75, 4.35517, -8.20574, 24.6431, 26.8713, 86.8589, -94.7304
6.68113, 76, 5.14537, -7.84203, 24.2448, 26.1978, 87.1058, -94.2333
6.68892, 76, 5.9336, -7.47265, 23.8529, 25.5253, 87.3571, -93.7356
6.70467, 77, 7.50702, -6.7144, 23.0908, 24.1891, 87.876, -92.7411
6.70783, 77, 7.90112, -6.5196, 22.904, 23.8563, 88.0103, -92.4928
6.71779, 78, 8.68955, -6.12274, 22.5335, 23.19, 88.2863, -91.996
6.72298, 78, 9.08384, -5.92126, 22.3501, 22.8551, 88.574, -91.4964
6.72846, 79, 9.87326, -5.51296, 21.9858, 22.1811, 88.723, -91.2452
6.73533, 79, 10.6648, -5.09796, 21.6238, 21.5007, 89.031, -90.7388
6.74406, 80, 11.4563, -4.67484, 21.2638, 20.816, 89.3522, -90.2264
6.75226, 80, 12.244, -4.24131, 20.9072, 20.1281, 89.6844, -89.7072
6.75992, 80, 13.0241, -3.79728, 20.5546, 19.4438, 90.0273, -89.1804
6.76819, 81, 13.7975, -3.34581, 20.2076, 18.769, 90.3783, -88.6477
6.77523, 81, 14.5645, -2.88771, 19.8679, 18.1076, 90.7362, -88.1099
6.78334, 82, 15.3242, -2.42146, 19.5386, 17.4614, 91.0986, -87.5696
6.79144, 82, 16.0748, -1.94757, 19.2191, 16.8328, 91.4653, -87.0268
6.79944, 83, 16.8138, -1.46739, 18.9097, 16.2238, 91.8358, -86.4829
6.80753, 83, 17.5405, -0.981548, 18.6097, 15.6345, 92.2109, -85.9387
6.81643, 84, 18.2533, -0.491398, 18.3191, 15.064, 92.5912, -85.3965
6.82359, 84, 18.9497, 0.00207219, 18.037, 14.5136, 92.9781, -84.8554
6.83253, 85, 19.6283, 0.500938, 17.761, 13.9826, 93.3728, -84.3161
6.83978, 85, 20.288, 1.0049, 17.4918, 13.4713, 93.7753, -83.7791
6.84855, 85, 20.9299, 1.51265, 17.2283, 12.98, 94.184, -83.2444
6.856, 86, 21.5565, 2.02491, 16.9715, 12.5083, 94.5983, -82.7099
6.86452, 86, 21.8648, 2.54498, 16.7211, 12.0567, 95.0189, -82.1736
6.87179, 87, 22.4727, 2.80893, 16.5977, 11.6241, 95.4456, -81.6336
6.88087, 87, 23.3641, 3.61527, 16.234, 11.2097, 95.8795, -81.0888
6.88822, 88, 23.9459, 4.16194, 15.9957, 10.8108, 96.3203, -80.5366
6.89523, 88, 24.2328, 4.43792, 15.8776, 10.6173, 96.543, -80.2569
6.90317, 89, 24.7985, 4.99825, 15.6454, 10.2418, 96.9938, -79.69
6.91313, 89, 25.6314, 5.86185, 15.3058, 9.70718, 97.6816, -78.8185
6.91926, 90, 25.9069, 6.15528, 15.1941, 9.53666, 97.9136, -78.5219
6.92931, 90, 26.725, 7.04953, 14.8658, 9.04831, 98.6184, -77.6101
6.9352, 91, 26.9927, 7.35219, 14.7589, 8.89394, 98.8565, -77.2989
6.94542, 91, 27.7755, 8.27588, 14.4448, 8.4578, 99.5799, -76.3476
6.95144, 92, 28.0308, 8.58909, 14.3421, 8.32229, 99.824, -76.0241
6.95918, 92, 28.5355, 9.22309, 14.1397, 8.06716, 100.316, -75.3693
6.96746, 93, 29.0334, 9.86665, 13.9418, 7.83335, 100.813, -74.7061
6.97517, 93, 29.5206, 10.5179, 13.7497, 7.62248, 101.311, -74.0362
6.98348, 94, 29.9944, 11.1747, 13.5651, 7.43462, 101.809, -73.3589
6.99124, 94, 30.4534, 11.8351, 13.3878, 7.2703, 102.306, -72.6755
6.99937, 95, 30.8984, 12.4984, 13.2171, 7.12975, 102.801, -71.9879
7.00719, 95, 31.3297, 13.1637, 13.0544, 7.01291, 103.291, -71.2944
7.01616, 96, 31.7474, 13.8307, 12.8995, 6.91949, 103.779, -70.5951
7.02423, 96, 32.1499, 14.4985, 12.7511, 6.84992, 104.263, -69.8916
7.03216, 97, 32.5361, 15.1667, 12.609, 6.80424, 104.743, -69.1818
7.04023, 97, 32.9063, 15.8341, 12.474, 6.77966, 105.217, -68.4661
7.04816, 98, 33.2602, 16.4987, 12.3469, 6.77666, 105.685, -67.7481
7.0562, 98, 33.5985, 17.1587, 12.2284, 6.79583, 106.145, -67.0276
7.06316, 99, 33.9221, 17.812, 12.1191, 6.83456, 106.595, -66.3057
7.07121, 99, 34.2321, 18.4582, 12.0196, 6.89293, 107.033, -65.5873
7.07918, 100, 34.5302, 19.095, 11.9297, 6.96938, 107.457, -64.8737
7.08719, 100, 34.8167, 19.722, 11.8491, 7.0625, 107.866, -64.1649
7.0954, 101, 35.0913, 20.3382, 11.7776, 7.17191, 108.258, -63.4653
7.10324, 101, 35.3534, 20.9423, 11.7144, 7.29579, 108.633, -62.7755
7.11118, 101, 35.6031, 21.5339, 11.6595, 7.43271, 108.991, -62.0944
7.11917, 102, 35.8386, 22.1112, 11.6124, 7.58036, 109.333, -61.4254
7.12725, 102, 36.0598, 22.6742, 11.5728, 7.73684, 109.658, -60.7689
7.13517, 103, 36.2707, 23.222, 11.5409, 7.9002, 109.969, -60.1247
7.14317, 103, 36.4749, 23.7543, 11.5169, 8.06975, 110.265, -59.4934
7.15145, 104, 36.6739, 24.2722, 11.5016, 8.24626, 110.545, -58.8759
7.15919, 104, 36.8676, 24.7763, 11.4939, 8.43047, 110.807, -58.27
7.16718, 104, 37.0566, 25.2661, 11.4927, 8.62379, 111.052, -57.6738
7.17525, 104, 37.2402, 25.7424, 11.4976, 8.82586, 111.277, -57.087
7.18318, 104, 37.4145, 26.204, 11.5078, 9.036, 111.484, -56.5101
7.19118, 104, 37.5776, 26.651, 11.5214, 9.25295, 111.674, -55.9427
7.19927, 104, 37.7326, 27.0841, 11.538, 9.4738, 111.85, -55.3876
7.20735, 104, 37.8842, 27.5036, 11.5571, 9.6959, 112.015, -54.8482
7.21532, 104, 38.034, 27.9084, 11.5775, 9.91654, 112.169, -54.3278
7.22333, 104, 38.1806, 28.2983, 11.5981, 10.1337, 112.316, -53.8277
7.23127, 104, 38.3222, 28.6734, 11.6181, 10.3458, 112.454, -53.3499
7.23948, 104, 38.4576, 29.0326, 11.6371, 10.5514, 112.585, -52.8956
7.24736, 104, 38.5856, 29.3746, 11.6551, 10.7496, 112.709, -52.4654
7.25606, 104, 38.7054, 29.6984, 11.6721, 10.9394, 112.825, -52.0606
7.26321, 104, 38.8169, 30.003, 11.6878, 11.1203, 112.933, -51.6802
7.2715, 104, 38.9208, 30.2894, 11.7025, 11.2916, 113.033, -51.3247
7.27923, 104, 39.017, 30.5566, 11.7161, 11.4527, 113.126, -50.9952
7.28731, 104, 39.1053, 30.8039, 11.7284, 11.6033, 113.212, -50.6907
7.29544, 104, 39.1856, 31.032, 11.7395, 11.743, 113.29, -50.4112
7.30379, 104, 39.2576, 31.2401, 11.7497, 11.8712, 113.362, -50.1569
7.31219, 104, 39.3214, 31.4282, 11.7592, 11.9876, 113.425, -49.928
7.31981, 104, 39.3777, 31.5971, 11.7676, 12.0921, 113.482, -49.7242
7.32829, 104, 39.4271, 31.7466, 11.7749, 12.1843, 113.532, -49.5456
7.33566, 104, 39.4704, 31.8772, 11.7816, 12.2646, 113.574, -49.3917
7.3443, 104, 39.5079, 31.9903, 11.7877, 12.3325, 113.61, -49.2616
7.35172, 104, 39.5391, 32.0866, 11.7931, 12.3893, 113.64, -49.1548
7.36028, 104, 39.5646, 32.167, 11.7978, 12.4338, 113.663, -49.0689
7.36797, 104, 39.5853, 32.2332, 11.8021, 12.4684, 113.681, -49.0028
7.37637, 104, 39.6017, 32.2869, 11.806, 12.4944, 113.693, -48.9542
7.38379, 104, 39.6085, 32.3095, 11.8078, 12.5134, 113.702, -48.9199
7.39224, 104, 39.6244, 32.362, 11.8127, 12.5263, 113.708, -48.8968
7.3992, 104, 39.6284, 32.375, 11.8142, 12.531, 113.71, -48.8888
7.40822, 104, 39.6364, 32.4042, 11.818, 12.5397, 113.713, -48.8745
7.41522, 104, 39.638, 32.4111, 11.819, 12.5413, 113.714, -48.8721
7.42316, 104, 39.6402, 32.4214, 11.8206, 12.5432, 113.715, -48.8694
7.43113, 105, 39.6412, 32.4277, 11.8219, 12.5441, 113.715, -48.8682
7.44048, 105, 39.641, 32.4333, 11.8233, 12.5447, 113.715, -48.8678
7.44718, 105, 39.6405, 32.4345, 11.8237, 12.5448, 113.715, -48.8677
7.45517, 105, 39.6396, 32.4365, 11.8245, 12.545, 113.715, -48.8678
7.46479, 105, 39.6377, 32.4386, 11.8254, 12.5451, 113.715, -48.8682
7.47313, 105, 39.6364, 32.4399, 11.826, 12.5451, 113.715, -48.8685
7.47916, 105, 39.6359, 32.4405, 11.8262, 12.5451, 113.715, -48.8686
7.48724, 105, 39.6352, 32.4416, 11.8268, 12.5451, 113.715, -48.8689
7.49708, 105, 39.6346, 32.4433, 11.8277, 12.5451, 113.715, -48.8694
7.50316, 105, 39.6345, 32.4438, 11.828, 12.5451, 113.715, -48.8695
7.51123, 105, 39.6343, 32.4448, 11.8285, 12.5451, 113.715, -48.8698
7.52023, 105, 39.6341, 32.4455, 11.8288, 12.5452, 113.715, -48.87
7.52923, 105, 39.6338, 32.446, 11.8291, 12.5451, 113.715, -48.8703
7.53522, 105, 39.6336, 32.4464, 11.8294, 12.5451, 113.715, -48.8704
7.54316, 105, 39.6333, 32.4466, 11.8297, 12.5451, 113.715, -48.8706
7.55123, 105, 39.6331, 32.4467, 11.8299, 12.5451, 113.715, -48.8708
