hehonglu123/Motion-Primitive-Planning/realrobot/recorded_data/repeatibility/from_NX/v200_iteration0.csv
timestamp, cmd_num, J1, J2, J3, J4, J5, J6
0.000356, -1, 11.3784, 13.6124, 17.34, -145.519, -97.9231, 142.516
0.004406, -1, 11.3784, 13.6124, 17.34, -145.519, -97.9231, 142.516
0.008245, -1, 11.3784, 13.6124, 17.34, -145.519, -97.9231, 142.516
0.029631, -1, 11.3784, 13.6124, 17.34, -145.519, -97.9231, 142.516
0.031995, -1, 11.3784, 13.6124, 17.34, -145.519, -97.9231, 142.516
0.03383, -1, 11.3784, 13.6124, 17.34, -145.519, -97.9231, 142.516
0.039286, -1, 11.3784, 13.6124, 17.34, -145.519, -97.9231, 142.516
0.047315, -1, 11.3783, 13.6124, 17.34, -145.519, -97.9231, 142.516
0.055254, -1, 11.3776, 13.6124, 17.34, -145.519, -97.9231, 142.516
0.201221, -1, 10.3813, 13.1763, 17.5417, -142.776, -95.0886, 137.208
0.202404, -1, 10.3813, 13.1763, 17.5417, -142.776, -95.0886, 137.208
0.204473, -1, 10.3313, 13.1546, 17.5518, -142.642, -94.9497, 136.948
0.205704, -1, 10.3313, 13.1546, 17.5518, -142.642, -94.9497, 136.948
0.206964, -1, 10.3313, 13.1546, 17.5518, -142.642, -94.9497, 136.948
0.208963, -1, 10.2814, 13.133, 17.5618, -142.508, -94.8111, 136.689
0.210245, -1, 10.2814, 13.133, 17.5618, -142.508, -94.8111, 136.689
0.213303, -1, 10.2316, 13.1115, 17.5717, -142.375, -94.6729, 136.43
0.214539, -1, 10.2316, 13.1115, 17.5717, -142.375, -94.6729, 136.43
0.216673, -1, 10.1821, 13.09, 17.5816, -142.242, -94.5351, 136.172
0.217937, -1, 10.1821, 13.09, 17.5816, -142.242, -94.5351, 136.172
0.219288, -1, 10.1821, 13.09, 17.5816, -142.242, -94.5351, 136.172
0.222757, -1, 10.1328, 13.0687, 17.5915, -142.11, -94.3976, 135.915
0.225104, -1, 10.0838, 13.0474, 17.6014, -141.978, -94.2605, 135.658
0.226316, -1, 10.0838, 13.0474, 17.6014, -141.978, -94.2605, 135.658
0.229314, -1, 10.0352, 13.0262, 17.6113, -141.846, -94.1237, 135.401
0.230495, -1, 10.0352, 13.0262, 17.6113, -141.846, -94.1237, 135.401
0.232367, -1, 9.98676, 13.0051, 17.6212, -141.714, -93.9873, 135.146
0.233911, -1, 9.98676, 13.0051, 17.6212, -141.714, -93.9873, 135.146
0.235114, -1, 9.98676, 13.0051, 17.6212, -141.714, -93.9873, 135.146
0.237173, -1, 9.93847, 12.984, 17.6311, -141.583, -93.8511, 134.891
0.238382, -1, 9.93847, 12.984, 17.6311, -141.583, -93.8511, 134.891
0.241208, -1, 9.89035, 12.963, 17.641, -141.452, -93.7152, 134.637
0.247112, -1, 9.84243, 12.9421, 17.6509, -141.321, -93.5797, 134.383
0.256577, -1, 9.69976, 12.8797, 17.6805, -140.932, -93.1751, 133.626
0.264588, -1, 9.6056, 12.8383, 17.6998, -140.673, -92.907, 133.125
0.273012, -1, 9.51234, 12.7972, 17.7192, -140.417, -92.6399, 132.625
0.280636, -1, 9.41974, 12.756, 17.7385, -140.161, -92.3742, 132.129
0.288677, -1, 9.32734, 12.715, 17.7579, -139.906, -92.1099, 131.634
0.296743, -1, 9.23487, 12.6741, 17.7772, -139.653, -91.847, 131.142
0.304692, -1, 9.18858, 12.6333, 17.7962, -139.401, -91.5852, 130.652
0.312722, -1, 9.09596, 12.6129, 17.8151, -139.15, -91.325, 130.165
0.321075, -1, 9.00345, 12.5724, 17.8245, -139.025, -91.1956, 129.922
0.327159, -1, 8.91112, 12.5322, 17.8432, -138.775, -90.9373, 129.439
0.336151, -1, 8.81904, 12.4921, 17.862, -138.528, -90.6803, 128.957
0.3435, -1, 8.72738, 12.4523, 17.8809, -138.281, -90.4244, 128.477
0.35109, -1, 8.63604, 12.4128, 17.8995, -138.035, -90.1694, 128
0.359149, -1, 8.54485, 12.3736, 17.9181, -137.79, -89.9155, 127.525
0.36791, -1, 8.45418, 12.3345, 17.9367, -137.547, -89.6627, 127.052
0.376098, -1, 8.36409, 12.2957, 17.9551, -137.305, -89.4109, 126.581
0.3841, -1, 8.2746, 12.257, 17.9735, -137.063, -89.16, 126.112
0.391941, -1, 8.18569, 12.2184, 17.992, -136.823, -88.9103, 125.646
0.399151, -1, 8.09723, 12.1799, 18.0101, -136.584, -88.6619, 125.182
0.407156, -1, 8.00944, 12.1416, 18.0281, -136.346, -88.4147, 124.72
0.415759, -1, 7.92219, 12.1032, 18.0461, -136.109, -88.1687, 124.259
0.424097, -1, 7.83548, 12.065, 18.064, -135.873, -87.9238, 123.8
0.432096, -1, 7.74928, 12.0271, 18.0819, -135.637, -87.68, 123.344
0.441859, -1, 7.66361, 11.9892, 18.0999, -135.403, -87.4371, 122.889
0.448086, -1, 7.5783, 11.9516, 18.1178, -135.17, -87.1954, 122.436
0.456107, -1, 7.4934, 11.9141, 18.1354, -134.938, -86.9547, 121.985
0.46493, -1, 7.40863, 11.8769, 18.1531, -134.707, -86.7147, 121.536
0.472112, -1, 7.32401, 11.8399, 18.1706, -134.476, -86.4757, 121.089
0.479187, -1, 7.23956, 11.8031, 18.1878, -134.247, -86.2375, 120.644
0.487088, -1, 7.15524, 11.7665, 18.2052, -134.019, -86.0004, 120.2
0.496106, -1, 7.07107, 11.73, 18.2227, -133.791, -85.7641, 119.758
0.503145, -1, 6.98717, 11.6937, 18.2399, -133.565, -85.5287, 119.318
0.511123, -1, 6.90352, 11.6575, 18.2571, -133.339, -85.2944, 118.88
0.520201, -1, 6.82007, 11.6214, 18.2743, -133.114, -85.0609, 118.443
0.52719, -1, 6.73698, 11.5854, 18.2912, -132.89, -84.8284, 118.008
0.535216, -1, 6.65419, 11.5494, 18.3081, -132.667, -84.5967, 117.574
0.54327, -1, 6.57175, 11.5135, 18.3252, -132.444, -84.3659, 117.142
0.551228, -1, 6.48978, 11.4778, 18.3421, -132.223, -84.1361, 116.713
0.559258, -1, 6.40827, 11.4421, 18.3587, -132.002, -83.9071, 116.284
0.567282, -1, 6.32712, 11.4067, 18.3753, -131.782, -83.6791, 115.858
0.575112, -1, 6.2464, 11.3713, 18.3919, -131.563, -83.4518, 115.432
0.583234, -1, 6.16596, 11.3361, 18.4082, -131.345, -83.2252, 115.008
0.59128, -1, 6.08596, 11.301, 18.4248, -131.127, -82.9995, 114.586
0.59929, -1, 6.00616, 11.2662, 18.4415, -130.911, -82.7746, 114.165
0.607256, -1, 5.92671, 11.2313, 18.458, -130.695, -82.5506, 113.745
0.616094, -1, 5.84754, 11.1968, 18.4743, -130.48, -82.3272, 113.328
0.624161, -1, 5.76864, 11.1623, 18.4906, -130.265, -82.1045, 112.911
0.631438, -1, 5.6899, 11.1278, 18.5066, -130.052, -81.8826, 112.496
0.63957, -1, 5.61149, 11.0935, 18.5225, -129.839, -81.6615, 112.083
0.648257, -1, 5.5331, 11.0595, 18.5386, -129.627, -81.4412, 111.671
0.783742, -1, 4.27769, 10.5113, 18.7966, -126.224, -77.9092, 105.063
0.785789, -1, 4.24079, 10.495, 18.8042, -126.123, -77.805, 104.868
0.787054, -1, 4.24079, 10.495, 18.8042, -126.123, -77.805, 104.868
0.789457, -1, 4.20393, 10.4789, 18.8118, -126.023, -77.701, 104.673
0.790817, -1, 4.20393, 10.4789, 18.8118, -126.023, -77.701, 104.673
0.792652, -1, 4.16708, 10.4628, 18.8194, -125.923, -77.597, 104.479
0.794102, -1, 4.16708, 10.4628, 18.8194, -125.923, -77.597, 104.479
0.797295, -1, 4.13028, 10.4467, 18.827, -125.823, -77.4932, 104.285
0.79852, -1, 4.13028, 10.4467, 18.827, -125.823, -77.4932, 104.285
0.799794, -1, 4.13028, 10.4467, 18.827, -125.823, -77.4932, 104.285
0.801947, -1, 4.09354, 10.4306, 18.8345, -125.723, -77.3897, 104.09
0.803166, -1, 4.09354, 10.4306, 18.8345, -125.723, -77.3897, 104.09
0.805363, -1, 4.05684, 10.4145, 18.8419, -125.623, -77.2863, 103.897
0.806592, -1, 4.05684, 10.4145, 18.8419, -125.623, -77.2863, 103.897
0.807864, -1, 4.05684, 10.4145, 18.8419, -125.623, -77.2863, 103.897
0.811969, -1, 4.02015, 10.3985, 18.8493, -125.523, -77.1831, 103.703
0.814676, -1, 3.98349, 10.3825, 18.8568, -125.424, -77.0799, 103.51
0.815869, -1, 3.98349, 10.3825, 18.8568, -125.424, -77.0799, 103.51
0.817907, -1, 3.94687, 10.3665, 18.8644, -125.325, -76.977, 103.318
0.819091, -1, 3.94687, 10.3665, 18.8644, -125.325, -76.977, 103.318
0.821016, -1, 3.91029, 10.3505, 18.872, -125.226, -76.8744, 103.126
0.823164, -1, 3.91029, 10.3505, 18.872, -125.226, -76.8744, 103.126
0.836126, -1, 3.80049, 10.3028, 18.8945, -124.929, -76.5669, 102.55
0.840037, -1, 3.76401, 10.287, 18.9019, -124.831, -76.4647, 102.359
0.848151, -1, 3.69123, 10.2554, 18.9167, -124.634, -76.2605, 101.977
0.855067, -1, 3.61866, 10.2238, 18.9317, -124.438, -76.0569, 101.596
0.864116, -1, 3.5464, 10.1924, 18.9465, -124.242, -75.8538, 101.216
0.872161, -1, 3.47447, 10.1612, 18.9611, -124.047, -75.6513, 100.838
0.879137, -1, 3.40272, 10.1299, 18.9759, -123.853, -75.4494, 100.46
0.887092, -1, 3.3312, 10.0988, 18.9907, -123.659, -75.248, 100.083
0.895068, -1, 3.25997, 10.0677, 19.0053, -123.465, -75.0473, 99.7074
0.90413, -1, 3.18886, 10.0366, 19.0198, -123.273, -74.847, 99.3325
0.912082, -1, 3.11798, 10.0057, 19.0343, -123.08, -74.6474, 98.9592
0.920077, -1, 3.04733, 9.9748, 19.0488, -122.888, -74.4482, 98.5869
0.927105, -1, 2.97697, 9.94403, 19.0632, -122.697, -74.2497, 98.2155
0.935086, -1, 2.90667, 9.91329, 19.0775, -122.506, -74.0515, 97.8448
0.944073, -1, 2.83651, 9.88253, 19.092, -122.315, -73.8539, 97.4751
0.953082, -1, 2.76646, 9.85197, 19.1066, -122.125, -73.6568, 97.1062
0.960074, -1, 2.69649, 9.82148, 19.1209, -121.936, -73.46, 96.7386
0.968085, -1, 2.62668, 9.7911, 19.1351, -121.747, -73.2639, 96.3717
0.976147, -1, 2.55703, 9.76072, 19.1494, -121.558, -73.0683, 96.0055
0.983087, -1, 2.48766, 9.73051, 19.1636, -121.37, -72.8732, 95.6403
0.992095, -1, 2.41841, 9.70039, 19.1776, -121.183, -72.6787, 95.2757
1.00008, -1, 2.34943, 9.67028, 19.1917, -120.996, -72.4846, 94.912
1.00714, -1, 2.28051, 9.64022, 19.2059, -120.809, -72.2907, 94.5498
1.0151, -1, 2.2117, 9.61029, 19.22, -120.623, -72.0976, 94.1885
1.02313, -1, 2.1431, 9.58053, 19.2339, -120.437, -71.9047, 93.8278
1.03124, -1, 2.07469, 9.55082, 19.2478, -120.252, -71.7122, 93.4682
1.03918, -1, 2.00658, 9.52105, 19.2619, -120.067, -71.5203, 93.1094
1.04718, -1, 1.93868, 9.49136, 19.2759, -119.883, -71.3289, 92.751
1.0553, -1, 1.87101, 9.46182, 19.2897, -119.699, -71.1379, 92.3939
1.06317, -1, 1.80352, 9.43236, 19.3036, -119.515, -70.9473, 92.0376
1.07108, -1, 1.73613, 9.40296, 19.3175, -119.332, -70.7573, 91.6817
1.07917, -1, 1.66888, 9.37352, 19.3314, -119.149, -70.5676, 91.3269
1.0871, -1, 1.60181, 9.34429, 19.345, -118.967, -70.3784, 90.9729
1.0955, -1, 1.53494, 9.31505, 19.3587, -118.785, -70.1896, 90.6193
1.10329, -1, 1.46828, 9.28588, 19.3724, -118.603, -70.0012, 90.2669
1.11124, -1, 1.40185, 9.25669, 19.3861, -118.422, -69.8136, 89.9156
1.11941, -1, 1.33541, 9.22765, 19.3996, -118.241, -69.6263, 89.5648
1.12751, -1, 1.269, 9.19874, 19.4133, -118.061, -69.4394, 89.2144
1.13544, -1, 1.20262, 9.16982, 19.4271, -117.881, -69.2527, 88.8653
1.14377, -1, 1.13646, 9.14082, 19.4408, -117.702, -69.0663, 88.5166
1.15216, -1, 1.07044, 9.11197, 19.4543, -117.523, -68.8804, 88.1686
1.15958, -1, 1.00449, 9.0832, 19.4677, -117.344, -68.6949, 87.8217
1.16818, -1, 0.938789, 9.05455, 19.4812, -117.165, -68.5096, 87.4753
1.17575, -1, 0.873134, 9.02582, 19.4947, -116.987, -68.3246, 87.1294
1.18426, -1, 0.807507, 8.99719, 19.508, -116.81, -68.14, 86.7842
1.19186, -1, 0.774752, 8.98296, 19.5146, -116.721, -67.9558, 86.4397
1.20012, -1, 0.676702, 8.9402, 19.5348, -116.455, -67.7721, 86.0956
1.20705, -1, 0.644151, 8.92601, 19.5415, -116.367, -67.6803, 85.924
1.21614, -1, 0.54671, 8.88342, 19.5616, -116.103, -67.4057, 85.4109
1.22312, -1, 0.514351, 8.86931, 19.5681, -116.015, -67.3145, 85.2401
1.23245, -1, 0.417496, 8.82705, 19.588, -115.751, -67.0411, 84.7287
1.23908, -1, 0.385213, 8.81301, 19.5947, -115.663, -66.9502, 84.5586
1.24706, -1, 0.320734, 8.7849, 19.6079, -115.488, -66.7688, 84.2189
1.25641, -1, 0.224291, 8.74279, 19.6276, -115.226, -66.4971, 83.7101
1.26317, -1, 0.192219, 8.72883, 19.6342, -115.139, -66.4068, 83.5411
1.2726, -1, 0.0961471, 8.68695, 19.6541, -114.878, -66.1363, 83.0347
1.28057, -1, 0.0322297, 8.65909, 19.6672, -114.705, -65.9563, 82.6975
1.28881, -1, -0.0315144, 8.63118, 19.6802, -114.531, -65.7766, 82.3611
1.29672, -1, -0.0952547, 8.60345, 19.6932, -114.359, -65.5971, 82.0254
1.30464, -1, -0.158919, 8.57563, 19.7062, -114.186, -65.418, 81.6901
1.31269, -1, -0.190731, 8.56176, 19.7127, -114.014, -65.2393, 81.3557
1.32073, -1, -0.254208, 8.53407, 19.7256, -113.842, -65.0607, 81.0222
1.32808, -1, -0.317526, 8.50641, 19.7385, -113.756, -64.9716, 80.8555
1.33607, -1, -0.380798, 8.4789, 19.7515, -113.585, -64.7935, 80.5224
1.34306, -1, -0.44394, 8.45136, 19.7646, -113.414, -64.6159, 80.1904
1.35109, -1, -0.506892, 8.42387, 19.7776, -113.243, -64.4385, 79.8588
1.36011, -1, -0.569816, 8.39636, 19.7905, -113.072, -64.2616, 79.5275
1.3681, -1, -0.632672, 8.36897, 19.8033, -112.902, -64.0848, 79.1968
1.37609, -1, -0.69542, 8.34158, 19.8162, -112.732, -63.9083, 78.8671
1.38414, -1, -0.758032, 8.31426, 19.829, -112.562, -63.7323, 78.5376
1.39206, -1, -0.820531, 8.28692, 19.8417, -112.393, -63.5563, 78.2085
1.4001, -1, -0.882941, 8.25967, 19.8543, -112.223, -63.3809, 77.8799
1.40813, -1, -0.94509, 8.23261, 19.8671, -112.054, -63.2058, 77.5518
1.41607, -1, -1.00719, 8.20548, 19.8798, -111.886, -63.0308, 77.2241
1.42407, -1, -1.0691, 8.17843, 19.8926, -111.718, -62.8563, 76.8975
1.43214, -1, -1.13086, 8.15133, 19.9051, -111.55, -62.682, 76.5715
1.44006, -1, -1.19256, 8.12438, 19.9178, -111.382, -62.5081, 76.2458
1.44807, -1, -1.25407, 8.09747, 19.9306, -111.214, -62.3344, 75.9207
1.45615, -1, -1.3155, 8.07061, 19.9432, -111.047, -62.161, 75.5964
1.46406, -1, -1.37679, 8.04374, 19.9557, -110.881, -61.9879, 75.2723
1.47206, -1, -1.43796, 8.01689, 19.9682, -110.714, -61.8147, 74.9486
1.48013, -1, -1.49915, 7.99024, 19.9808, -110.548, -61.6421, 74.6258
1.48705, -1, -1.56032, 7.96356, 19.9934, -110.381, -61.4694, 74.3036
1.49516, -1, -1.62141, 7.93696, 20.0059, -110.216, -61.2973, 73.9815
1.50386, -1, -1.68243, 7.91029, 20.0183, -110.05, -61.1252, 73.6598
1.51206, -1, -1.74341, 7.88371, 20.0307, -109.885, -60.9534, 73.3387
1.52007, -1, -1.80431, 7.85723, 20.0431, -109.72, -60.7819, 73.0179
1.52795, -1, -1.86501, 7.83068, 20.0555, -109.555, -60.6106, 72.6978
1.53607, -1, -1.92563, 7.8042, 20.0679, -109.39, -60.4397, 72.3784
1.54347, -1, -1.98615, 7.77767, 20.0803, -109.226, -60.2691, 72.0595
1.5521, -1, -2.04651, 7.75127, 20.0928, -109.062, -60.0988, 71.741
1.56006, -1, -2.10691, 7.72498, 20.1053, -108.898, -59.9287, 71.4227
1.56766, -1, -2.16717, 7.69871, 20.1176, -108.734, -59.7589, 71.1052
1.57615, -1, -2.22725, 7.6724, 20.1299, -108.57, -59.5893, 70.7879
1.58309, -1, -2.28738, 7.64607, 20.1422, -108.407, -59.4204, 70.4709
1.59189, -1, -2.34736, 7.6199, 20.1545, -108.244, -59.2517, 70.1546
1.60017, -1, -2.40729, 7.5937, 20.1667, -108.082, -59.0831, 69.8387
1.60718, -1, -2.4672, 7.56762, 20.1788, -107.919, -58.9146, 69.5229
1.6161, -1, -2.52703, 7.54146, 20.191, -107.757, -58.7463, 69.2075
1.62417, -1, -2.58689, 7.5154, 20.2033, -107.595, -58.5781, 68.8927
1.63147, -1, -2.64659, 7.48943, 20.2156, -107.433, -58.4099, 68.578
1.64026, -1, -2.70625, 7.46339, 20.2278, -107.271, -58.2422, 68.2638
1.64756, -1, -2.76578, 7.43745, 20.2399, -107.11, -58.0743, 67.9504
1.65561, -1, -2.82509, 7.41147, 20.2521, -106.949, -57.9068, 67.6376
1.66448, -1, -2.88439, 7.38561, 20.2643, -106.788, -57.7393, 67.3249
1.67161, -1, -2.94364, 7.35982, 20.2764, -106.627, -57.5722, 67.0127
1.68016, -1, -3.00272, 7.33409, 20.2884, -106.467, -57.4052, 66.7011
1.68846, -1, -3.0323, 7.32127, 20.2944, -106.306, -57.2387, 66.3896
1.69556, -1, -3.09131, 7.29552, 20.3066, -106.226, -57.1553, 66.2339
1.70406, -1, -3.17967, 7.25697, 20.3249, -105.986, -56.9062, 65.7678
1.71105, -1, -3.20909, 7.24416, 20.3309, -105.906, -56.8232, 65.6129
1.71904, -1, -3.26793, 7.2185, 20.3429, -105.746, -56.6576, 65.3031
1.72904, -1, -3.35605, 7.18013, 20.3608, -105.507, -56.4096, 64.8384
1.73504, -1, -3.38541, 7.16729, 20.3669, -105.428, -56.3272, 64.6838
1.74307, -1, -3.44405, 7.14172, 20.3788, -105.268, -56.1623, 64.3748
1.75236, -1, -3.53196, 7.10347, 20.3968, -105.03, -55.9151, 63.9119
1.75904, -1, -3.56121, 7.09068, 20.4028, -104.951, -55.833, 63.7578
1.76709, -1, -3.6196, 7.06524, 20.4147, -104.792, -55.6686, 63.4504
1.77658, -1, -3.7072, 7.02699, 20.4329, -104.555, -55.4225, 62.9895
1.78539, -1, -3.76539, 7.00166, 20.4449, -104.396, -55.2586, 62.6826
1.79111, -1, -3.79451, 6.98897, 20.4509, -104.317, -55.1767, 62.5293
1.80064, -1, -3.88175, 6.95098, 20.4687, -104.081, -54.931, 62.0703
1.80946, -1, -3.91076, 6.92559, 20.4806, -103.924, -54.7674, 61.7643
1.8151, -1, -3.96879, 6.91289, 20.4866, -103.845, -54.6858, 61.6114
1.82505, -1, -4.0556, 6.87505, 20.5044, -103.609, -54.4408, 61.1539
1.83108, -1, -4.08447, 6.86242, 20.5102, -103.53, -54.3591, 61.0016
1.84005, -1, -4.14227, 6.83719, 20.522, -103.374, -54.1959, 60.6969
1.8481, -1, -4.19992, 6.81201, 20.5339, -103.217, -54.0332, 60.3924
1.85606, -1, -4.25752, 6.78676, 20.5458, -103.061, -53.8707, 60.0884
1.86311, -1, -4.31509, 6.76168, 20.5577, -102.904, -53.7084, 59.7844
1.87106, -1, -4.3725, 6.73655, 20.5694, -102.748, -53.5462, 59.4805
1.88006, -1, -4.43001, 6.71139, 20.5811, -102.592, -53.3842, 59.1773
1.88704, -1, -4.48743, 6.68633, 20.593, -102.436, -53.2225, 58.8747
1.89604, -1, -4.54474, 6.6612, 20.6048, -102.28, -53.0608, 58.5723
1.90407, -1, -4.60209, 6.63624, 20.6166, -102.124, -52.8994, 58.27
1.91103, -1, -4.65936, 6.61129, 20.6282, -101.969, -52.7382, 57.9683
1.91904, -1, -4.71641, 6.5864, 20.64, -101.813, -52.5769, 57.6669
1.92805, -1, -4.77348, 6.56146, 20.6519, -101.658, -52.4161, 57.3655
1.93504, -1, -4.83045, 6.53645, 20.6636, -101.503, -52.2554, 57.0644
1.94305, -1, -4.88739, 6.51159, 20.6753, -101.348, -52.0949, 56.7639
1.95206, -1, -4.94437, 6.48672, 20.6868, -101.194, -51.9344, 56.4637
1.96103, -1, -5.00123, 6.4619, 20.6985, -101.039, -51.7739, 56.1635
1.96708, -1, -5.05806, 6.43706, 20.7101, -100.885, -51.6136, 55.8635
1.97604, -1, -5.11492, 6.41214, 20.7218, -100.73, -51.4535, 55.5641
1.98411, -1, -5.17163, 6.38739, 20.7334, -100.576, -51.2935, 55.2646
1.99104, -1, -5.22834, 6.36263, 20.7449, -100.423, -51.1337, 54.9654
2.00005, -1, -5.28511, 6.33786, 20.7567, -100.269, -50.9739, 54.6668
2.00805, -1, -5.34173, 6.3131, 20.7684, -100.115, -50.8143, 54.3685
2.0151, -1, -5.39838, 6.28831, 20.7801, -99.9612, -50.6547, 54.0706
2.0241, -1, -5.45494, 6.26364, 20.7917, -99.8078, -50.4954, 53.7725
2.03204, -1, -5.5114, 6.23901, 20.8032, -99.6546, -50.3363, 53.4751
2.04004, -1, -5.56785, 6.21445, 20.8148, -99.5016, -50.1773, 53.1778
2.04808, -1, -5.62415, 6.18979, 20.8263, -99.3484, -50.0184, 52.8805
2.05525, -1, -5.68038, 6.16509, 20.8377, -99.1954, -49.8596, 52.5835
2.06324, -1, -5.73658, 6.14054, 20.8492, -99.0427, -49.7011, 52.2872
2.07104, -1, -5.7928, 6.11593, 20.8607, -98.89, -49.5425, 51.991
2.0791, -1, -5.84896, 6.0914, 20.8724, -98.7375, -49.3845, 51.6949
2.08708, -1, -5.90501, 6.06686, 20.8839, -98.5852, -49.2263, 51.3989
2.09507, -1, -5.96105, 6.04226, 20.8954, -98.4327, -49.0683, 51.1032
2.10324, -1, -6.01712, 6.01783, 20.9068, -98.2803, -48.9107, 50.8076
2.11149, -1, -6.0731, 5.99338, 20.9183, -98.1283, -48.7533, 50.5119
2.1193, -1, -6.12903, 5.96893, 20.9298, -97.9765, -48.5959, 50.2169
2.12736, -1, -6.18502, 5.94455, 20.9412, -97.8247, -48.4386, 49.9224
2.13545, -1, -6.24097, 5.92013, 20.9527, -97.673, -48.2812, 49.6279
2.14359, -1, -6.2969, 5.89583, 20.9641, -97.5213, -48.1239, 49.3336
2.15222, -1, -6.35286, 5.87149, 20.9755, -97.3699, -47.9668, 49.0395
2.15982, -1, -6.40864, 5.84722, 20.987, -97.2186, -47.8097, 48.7457
2.16816, -1, -6.46441, 5.82294, 20.9985, -97.0676, -47.6528, 48.4519
2.17559, -1, -6.5202, 5.79855, 21.0099, -96.9165, -47.4957, 48.1584
2.18422, -1, -6.57577, 5.77433, 21.0212, -96.7655, -47.3389, 47.8655
2.1917, -1, -6.60355, 5.75009, 21.0326, -96.6145, -47.1819, 47.5725
2.2002, -1, -6.6869, 5.72584, 21.0439, -96.4637, -47.0253, 47.2797
2.20702, -1, -6.71464, 5.71376, 21.0496, -96.3884, -46.9469, 47.1333
2.2161, -1, -6.79791, 5.67737, 21.0666, -96.1626, -46.7123, 46.6947
2.22302, -1, -6.82567, 5.66527, 21.0722, -96.0874, -46.6341, 46.5484
2.2322, -1, -6.90874, 5.6291, 21.0894, -95.8617, -46.3998, 46.11
2.23908, -1, -6.93643, 5.61696, 21.0951, -95.7865, -46.3218, 45.964
2.24836, -1, -7.01944, 5.5807, 21.1123, -95.5611, -46.088, 45.5268
2.25502, -1, -7.04704, 5.56862, 21.118, -95.486, -46.0102, 45.3811
2.26458, -1, -7.12977, 5.53234, 21.1349, -95.261, -45.7768, 44.9442
2.27245, -1, -7.18503, 5.50831, 21.1462, -95.1112, -45.6213, 44.6532
2.28057, -1, -7.24017, 5.4842, 21.1575, -94.9611, -45.4659, 44.3624
2.28864, -1, -7.29526, 5.46015, 21.1688, -94.8112, -45.3109, 44.0715
2.29657, -1, -7.35034, 5.436, 21.18, -94.6616, -45.1559, 43.7808
2.30503, -1, -7.40537, 5.41193, 21.1912, -94.5122, -45.001, 43.4907
2.31267, -1, -7.46043, 5.38794, 21.2026, -94.3627, -44.846, 43.2007
2.32057, -1, -7.48791, 5.3759, 21.2082, -94.288, -44.691, 42.9106
2.32803, -1, -7.54278, 5.35185, 21.2195, -94.1386, -44.6135, 42.7656
2.33609, -1, -7.59775, 5.32784, 21.2308, -93.9892, -44.4586, 42.4759
2.34402, -1, -7.65271, 5.30379, 21.242, -93.8401, -44.3036, 42.1863
2.35202, -1, -7.70762, 5.27988, 21.2533, -93.6912, -44.1489, 41.8966
2.36009, -1, -7.76247, 5.25595, 21.2646, -93.5424, -43.994, 41.607
2.36802, -1, -7.81728, 5.23198, 21.2758, -93.3935, -43.8392, 41.3178
2.37603, -1, -7.87203, 5.20807, 21.287, -93.2445, -43.6844, 41.0289
2.38405, -1, -7.92682, 5.18409, 21.2982, -93.0957, -43.5302, 40.7402
2.39202, -1, -7.98148, 5.16023, 21.3095, -92.9471, -43.376, 40.4514
2.40009, -1, -8.03614, 5.13639, 21.3209, -92.7986, -43.2218, 40.163
2.40807, -1, -8.09088, 5.11255, 21.3321, -92.6502, -43.0676, 39.8746
2.41604, -1, -8.1455, 5.08874, 21.3433, -92.5017, -42.9136, 39.5863
2.4241, -1, -8.20018, 5.06477, 21.3544, -92.3532, -42.7597, 39.298
2.43203, -1, -8.25483, 5.0409, 21.3656, -92.2048, -42.6057, 39.0102
2.44006, -1, -8.30938, 5.01709, 21.3767, -92.0566, -42.452, 38.7226
2.4481, -1, -8.36405, 4.99321, 21.3879, -91.9084, -42.2981, 38.4347
2.45706, -1, -8.41867, 4.96947, 21.399, -91.7605, -42.1444, 38.1471
2.46402, -1, -8.47324, 4.94563, 21.4101, -91.6123, -41.9908, 37.8598
2.47209, -1, -8.52783, 4.92174, 21.4215, -91.4641, -41.8374, 37.5723
2.4801, -1, -8.58234, 4.89803, 21.4328, -91.3161, -41.684, 37.2848
2.48708, -1, -8.63679, 4.87422, 21.4441, -91.1682, -41.5308, 36.9977
2.49612, -1, -8.69122, 4.85043, 21.4552, -91.0206, -41.3774, 36.7111
2.50404, -1, -8.74564, 4.82667, 21.4664, -90.8728, -41.2239, 36.4244
2.51209, -1, -8.8, 4.80284, 21.4776, -90.7252, -41.0707, 36.1378
2.52004, -1, -8.85435, 4.77913, 21.4887, -90.5775, -40.9175, 35.8511
2.52802, -1, -8.90863, 4.75545, 21.4998, -90.43, -40.7644, 35.5648
2.53609, -1, -8.96286, 4.73176, 21.5109, -90.2825, -40.6112, 35.2784
2.54403, -1, -9.01718, 4.708, 21.522, -90.1353, -40.4582, 34.9919
2.55147, -1, -9.07141, 4.68416, 21.5332, -89.988, -40.305, 34.7059
2.55914, -1, -9.12566, 4.66043, 21.5444, -89.8406, -40.1521, 34.42
2.56793, -1, -9.18001, 4.63666, 21.5556, -89.6932, -39.9992, 34.1342
2.57607, -1, -9.23434, 4.61293, 21.5666, -89.546, -39.8464, 33.8483
2.58408, -1, -9.28862, 4.58925, 21.5777, -89.3989, -39.6936, 33.5626
2.59204, -1, -9.34297, 4.56546, 21.5889, -89.2519, -39.541, 33.2769
2.60003, -1, -9.39719, 4.54181, 21.6, -89.1049, -39.3883, 32.9911
2.60812, -1, -9.45133, 4.51819, 21.6111, -88.9577, -39.2357, 32.7053
2.61598, -1, -9.50554, 4.49449, 21.6222, -88.8106, -39.0831, 32.42
2.62418, -1, -9.55968, 4.47089, 21.6333, -88.6638, -38.9307, 32.1348
2.6313, -1, -9.61385, 4.44722, 21.6444, -88.5169, -38.7783, 31.8496
2.64026, -1, -9.66796, 4.42355, 21.6556, -88.3701, -38.6259, 31.5644
2.6483, -1, -9.72197, 4.40005, 21.6667, -88.2233, -38.4734, 31.2796
2.65554, -1, -9.77603, 4.37641, 21.6778, -88.0763, -38.3213, 30.9948
2.66486, -1, -9.83002, 4.35284, 21.6888, -87.9294, -38.1692, 30.7099
2.67249, -1, -9.88395, 4.3292, 21.6999, -87.7826, -38.0173, 30.4249
2.6796, -1, -9.93789, 4.30553, 21.7109, -87.6361, -37.8653, 30.1404
2.6883, -1, -9.99186, 4.282, 21.722, -87.4895, -37.7133, 29.8559
2.69636, -1, -10.0189, 4.27019, 21.7275, -87.4162, -37.5614, 29.5711
2.70361, -1, -10.0729, 4.24654, 21.7385, -87.2695, -37.4092, 29.2864
2.71339, -1, -10.1539, 4.21128, 21.7552, -87.0496, -37.2572, 29.0021
2.71905, -1, -10.1808, 4.19944, 21.7608, -86.9764, -37.1813, 28.8599
2.72894, -1, -10.2618, 4.16415, 21.7776, -86.7569, -36.9531, 28.4329
2.73613, -1, -10.3158, 4.1406, 21.7886, -86.6107, -36.8009, 28.1485
2.74423, -1, -10.3697, 4.11696, 21.7996, -86.4642, -36.649, 27.8645
2.751, -1, -10.3966, 4.10522, 21.8052, -86.3909, -36.573, 27.7224
2.75908, -1, -10.4505, 4.08172, 21.8162, -86.2445, -36.4209, 27.4384
2.767, -1, -10.5044, 4.05811, 21.8272, -86.0983, -36.2692, 27.1542
2.7773, -1, -10.585, 4.02294, 21.8438, -85.879, -36.0413, 26.7284
2.78308, -1, -10.6119, 4.01116, 21.8492, -85.806, -35.9654, 26.5864
2.79258, -1, -10.6925, 3.97589, 21.8658, -85.5868, -35.7377, 26.1606
2.80137, -1, -10.7463, 3.95226, 21.8769, -85.4405, -35.586, 25.8768
2.8071, -1, -10.7731, 3.94046, 21.8825, -85.3674, -35.5102, 25.7351
2.81674, -1, -10.8536, 3.90522, 21.899, -85.1482, -35.2829, 25.3098
2.82543, -1, -10.8805, 3.89344, 21.9044, -85.0752, -35.2071, 25.0259
2.83107, -1, -10.9343, 3.86991, 21.9154, -84.9291, -35.0554, 24.884
2.84201, -1, -11.015, 3.83462, 21.932, -84.71, -34.8284, 24.4587
2.84809, -1, -11.0419, 3.82283, 21.9375, -84.6368, -34.7526, 24.3168
2.85506, -1, -11.0958, 3.79942, 21.9486, -84.4905, -34.6013, 24.033
2.86406, -1, -11.1497, 3.77598, 21.9595, -84.3444, -34.4499, 23.7492
2.87199, -1, -11.2035, 3.75244, 21.9705, -84.1984, -34.2984, 23.4658
2.87901, -1, -11.2573, 3.72896, 21.9816, -84.0524, -34.1468, 23.1824
2.887, -1, -11.3111, 3.70537, 21.9927, -83.9064, -33.9953, 22.8989
2.89507, -1, -11.3649, 3.6819, 22.0038, -83.7603, -33.8435, 22.6152
2.90406, -1, -11.4186, 3.65852, 22.0147, -83.6143, -33.6922, 22.332
2.91204, -1, -11.4724, 3.63506, 22.0256, -83.4683, -33.5405, 22.0487
2.92001, -1, -11.5261, 3.6117, 22.0366, -83.3225, -33.3889, 21.7651
2.927, -1, -11.5797, 3.58818, 22.0476, -83.1768, -33.237, 21.4816
2.935, -1, -11.6334, 3.56464, 22.0585, -83.0308, -33.0856, 21.1984
2.94405, -1, -11.6871, 3.54129, 22.0695, -82.8847, -32.9341, 20.9152
2.95102, -1, -11.7407, 3.51782, 22.0806, -82.7387, -32.7829, 20.6317
2.96007, -1, -11.7944, 3.49437, 22.0918, -82.5928, -32.6314, 20.3482
2.96808, -1, -11.8482, 3.47094, 22.1029, -82.447, -32.4801, 20.0649
2.97608, -1, -11.902, 3.44737, 22.1139, -82.3012, -32.3288, 19.7813
2.98399, -1, -11.9559, 3.42397, 22.1249, -82.1553, -32.1773, 19.4976
2.992, -1, -12.0097, 3.40055, 22.1359, -82.0093, -32.0259, 19.2142
3.00005, -1, -12.0635, 3.37704, 22.1469, -81.8633, -31.8746, 18.9311
3.0081, -1, -12.1173, 3.35363, 22.1579, -81.7174, -31.7233, 18.6476
3.01505, -1, -12.1712, 3.33015, 22.1688, -81.5715, -31.5717, 18.3642
3.02401, -1, -12.225, 3.30671, 22.1797, -81.4256, -31.4205, 18.0809
3.032, -1, -12.2788, 3.28331, 22.1906, -81.2795, -31.269, 17.7977
3.04007, -1, -12.3327, 3.25989, 22.2017, -81.1333, -31.1177, 17.5144
3.04807, -1, -12.3864, 3.23645, 22.2128, -80.9873, -30.9661, 17.2308
3.05519, -1, -12.4402, 3.21287, 22.2239, -80.8413, -30.8146, 16.9475
3.06311, -1, -12.494, 3.18932, 22.2348, -80.6954, -30.6629, 16.6644
3.07112, -1, -12.5476, 3.16586, 22.2457, -80.5494, -30.5116, 16.3811
3.07989, -1, -12.6013, 3.14233, 22.2567, -80.4033, -30.3599, 16.0975
3.08813, -1, -12.6551, 3.11891, 22.2677, -80.2571, -30.2087, 15.814
3.09503, -1, -12.7087, 3.09543, 22.2787, -80.1112, -30.0569, 15.5307
3.10394, -1, -12.7624, 3.07192, 22.2896, -79.9651, -29.9053, 15.2472
3.1121, -1, -12.8163, 3.0486, 22.3007, -79.8193, -29.7535, 14.9632
3.11999, -1, -12.8701, 3.0251, 22.3117, -79.6734, -29.602, 14.6797
3.12828, -1, -12.9239, 3.00165, 22.3228, -79.5273, -29.4503, 14.3964
3.13532, -1, -12.9778, 2.97826, 22.3339, -79.3811, -29.2988, 14.1128
3.14343, -1, -13.0317, 2.95471, 22.3448, -79.235, -29.1469, 13.829
3.15232, -1, -13.0857, 2.93132, 22.3558, -79.0889, -28.9953, 13.5454
3.15948, -1, -13.1396, 2.90787, 22.3668, -78.943, -28.8436, 13.2618
3.16757, -1, -13.1934, 2.88439, 22.3777, -78.797, -28.6919, 12.9779
3.17664, -1, -13.2473, 2.86097, 22.3887, -78.6508, -28.5401, 12.6939
3.18412, -1, -13.3011, 2.83738, 22.3997, -78.5045, -28.3887, 12.4104
3.19162, -1, -13.3549, 2.81386, 22.4107, -78.3583, -28.2371, 12.1266
3.20068, -1, -13.4087, 2.79038, 22.4219, -78.2122, -28.0853, 11.8426
3.20812, -1, -13.4624, 2.7668, 22.4331, -78.0659, -27.9337, 11.5584
3.21503, -1, -13.4892, 2.75507, 22.4386, -77.9928, -27.8579, 11.4164
3.22504, -1, -13.57, 2.7198, 22.4552, -77.7731, -27.6307, 10.9902
3.23208, -1, -13.6237, 2.69628, 22.4662, -77.6264, -27.4791, 10.7059
3.23902, -1, -13.6507, 2.68461, 22.4718, -77.5532, -27.4033, 10.5635
3.24919, -1, -13.7316, 2.64933, 22.4884, -77.3335, -27.1756, 10.1371
3.25503, -1, -13.7585, 2.63756, 22.4939, -77.2604, -27.0996, 9.99502
3.26438, -1, -13.8395, 2.60229, 22.5104, -77.0406, -26.8714, 9.56847
3.27098, -1, -13.8665, 2.59047, 22.5158, -76.9673, -26.7955, 9.42617
3.28046, -1, -13.9476, 2.55515, 22.5325, -76.7473, -26.567, 8.99945
3.287, -1, -13.9746, 2.54338, 22.538, -76.6741, -26.491, 8.85721
3.29741, -1, -14.0557, 2.50801, 22.5548, -76.4541, -26.2621, 8.43009
3.30305, -1, -14.0826, 2.49622, 22.5603, -76.381, -26.186, 8.28767
3.31264, -1, -14.1636, 2.46067, 22.5767, -76.1611, -25.9572, 7.86088
3.32159, -1, -14.1906, 2.44887, 22.5823, -76.0143, -25.8049, 7.57619
3.32852, -1, -14.2445, 2.42532, 22.5934, -75.9409, -25.7286, 7.43375
3.33654, -1, -14.2985, 2.40161, 22.6044, -75.7941, -25.5761, 7.14857
3.34402, -1, -14.3525, 2.37805, 22.6155, -75.6472, -25.4235, 6.86354
3.35105, -1, -14.4065, 2.35438, 22.6265, -75.5006, -25.2712, 6.57838
3.36004, -1, -14.4606, 2.33067, 22.6376, -75.3538, -25.1187, 6.29293
3.36799, -1, -14.5148, 2.30714, 22.6488, -75.2068, -24.9663, 6.00731
3.37604, -1, -14.569, 2.28347, 22.66, -75.0596, -24.8138, 5.72186
3.38398, -1, -14.6231, 2.25982, 22.6711, -74.9126, -24.6613, 5.43663
3.39202, -1, -14.6774, 2.23618, 22.6821, -74.7656, -24.5089, 5.15119
3.39898, -1, -14.7317, 2.21247, 22.6932, -74.6185, -24.3566, 4.86533
3.40798, -1, -14.786, 2.1889, 22.7043, -74.4713, -24.204, 4.57968
3.41598, -1, -14.8403, 2.16529, 22.7154, -74.3239, -24.0515, 4.29393
3.42405, -1, -14.8946, 2.14166, 22.7264, -74.1763, -23.8987, 4.00779
3.43098, -1, -14.9488, 2.118, 22.7375, -74.0289, -23.7458, 3.7216
3.44001, -1, -15.0031, 2.09417, 22.7487, -73.8815, -23.5928, 3.43565
3.4481, -1, -15.0573, 2.07046, 22.7601, -73.7341, -23.4395, 3.14946
3.45501, -1, -15.1116, 2.04677, 22.7713, -73.5866, -23.2865, 2.86288
3.46398, -1, -15.1659, 2.023, 22.7825, -73.4389, -23.1331, 2.57632
3.47298, -1, -15.2201, 1.99933, 22.7936, -73.2912, -22.9797, 2.28977
3.47898, -1, -15.2746, 1.97553, 22.8048, -73.1436, -22.8261, 2.00276
3.48799, -1, -15.329, 1.95178, 22.816, -72.9959, -22.6726, 1.71548
3.49605, -1, -15.3834, 1.92811, 22.827, -72.8484, -22.519, 1.42836
3.50398, -1, -15.438, 1.90429, 22.8382, -72.7007, -22.3657, 1.14149
3.51201, -1, -15.4925, 1.88052, 22.8492, -72.5526, -22.212, 0.854379
3.52007, -1, -15.547, 1.85669, 22.8604, -72.4046, -22.0586, 0.567031
3.52798, -1, -15.6016, 1.83281, 22.8717, -72.2566, -21.905, 0.279616
3.53598, -1, -15.6562, 1.80903, 22.883, -72.1086, -21.7515, -0.00787362
3.54405, -1, -15.7109, 1.78516, 22.8942, -71.9606, -21.5977, -0.29551
3.55198, -1, -15.7656, 1.76135, 22.9053, -71.8124, -21.4441, -0.5835
3.56003, -1, -15.8202, 1.73742, 22.9165, -71.664, -21.2904, -0.871341
3.56805, -1, -15.8749, 1.71342, 22.9278, -71.5156, -21.1365, -1.15909
3.57597, -1, -15.9297, 1.68955, 22.939, -71.3672, -20.9825, -1.44716
3.58398, -1, -15.9843, 1.66561, 22.9502, -71.2187, -20.8286, -1.73569
3.59206, -1, -16.0389, 1.64171, 22.9614, -71.0702, -20.6744, -2.02398
3.59999, -1, -16.0936, 1.61779, 22.9727, -70.9215, -20.5204, -2.3127
3.60799, -1, -16.1483, 1.59376, 22.984, -70.7724, -20.366, -2.60169
3.61609, -1, -16.2031, 1.5699, 22.9953, -70.6235, -20.2115, -2.89091
3.62398, -1, -16.258, 1.54593, 23.0065, -70.4745, -20.057, -3.17987
3.63211, -1, -16.3128, 1.52192, 23.0177, -70.3257, -19.9021, -3.46883
3.63932, -1, -16.3676, 1.498, 23.029, -70.1766, -19.7476, -3.75812
3.64746, -1, -16.4226, 1.47395, 23.0402, -70.0275, -19.5926, -4.04778
3.65681, -1, -16.4774, 1.44999, 23.0514, -69.8781, -19.4376, -4.33739
3.66407, -1, -16.5323, 1.42602, 23.0626, -69.729, -19.2823, -4.62725
3.67159, -1, -16.5874, 1.40202, 23.0739, -69.5796, -19.1272, -4.9174
3.6809, -1, -16.6424, 1.37804, 23.0854, -69.4305, -18.972, -5.20767
3.68809, -1, -16.6975, 1.35391, 23.0968, -69.2809, -18.8169, -5.4978
3.69567, -1, -16.7526, 1.32986, 23.1082, -69.1312, -18.6616, -5.7882
3.70485, -1, -16.8077, 1.30581, 23.1195, -68.9815, -18.5063, -6.07887
3.71199, -1, -16.8628, 1.28171, 23.1308, -68.8317, -18.3509, -6.36981
3.71902, -1, -16.8904, 1.2697, 23.1364, -68.7568, -18.2732, -6.51515
3.72934, -1, -16.973, 1.23353, 23.1535, -68.5321, -18.0397, -6.95217
3.73503, -1, -17.0006, 1.22145, 23.1591, -68.4572, -17.9619, -7.09805
3.74423, -1, -17.0834, 1.18535, 23.176, -68.2318, -17.7284, -7.53554
3.75097, -1, -17.111, 1.17322, 23.1816, -68.1566, -17.6505, -7.68134
3.76025, -1, -17.1941, 1.13695, 23.1987, -67.9312, -17.4167, -8.11898
3.76698, -1, -17.2218, 1.12487, 23.2045, -67.856, -17.3387, -8.26503
3.77638, -1, -17.3049, 1.08851, 23.2216, -67.6303, -17.1049, -8.70338
3.78302, -1, -17.3327, 1.07644, 23.2273, -67.555, -17.0269, -8.84953
3.7926, -1, -17.4159, 1.04011, 23.2443, -67.3286, -16.7926, -9.28849
3.80051, -1, -17.4715, 1.01591, 23.2557, -67.1776, -16.6362, -9.58148
3.80704, -1, -17.4993, 1.00374, 23.2614, -67.1021, -16.558, -9.72782
3.81668, -1, -17.5829, 0.96724, 23.2785, -66.8757, -16.3228, -10.1672
3.82454, -1, -17.6108, 0.955094, 23.2842, -66.8001, -16.1659, -10.4605
3.8325, -1, -17.6665, 0.930767, 23.2955, -66.649, -16.0874, -10.6074
3.84057, -1, -17.7222, 0.906447, 23.307, -66.4976, -15.9303, -10.9011
3.84798, -1, -17.7781, 0.882107, 23.3185, -66.3462, -15.7728, -11.1949
3.85596, -1, -17.8338, 0.857651, 23.33, -66.1947, -15.6155, -11.4893
3.86403, -1, -17.8896, 0.833376, 23.3414, -66.0433, -15.458, -11.7839
3.87197, -1, -17.9454, 0.808988, 23.3527, -65.8918, -15.3004, -12.0784
3.879, -1, -18.0013, 0.784591, 23.3641, -65.74, -15.1426, -12.3728
3.88797, -1, -18.0572, 0.760204, 23.3756, -65.5879, -14.9849, -12.6678
3.89599, -1, -18.1132, 0.735694, 23.387, -65.4359, -14.8271, -12.963
3.90406, -1, -18.1693, 0.711323, 23.3985, -65.2837, -14.669, -13.2584
3.91197, -1, -18.2254, 0.686885, 23.4099, -65.1316, -14.511, -13.5541
3.91996, -1, -18.2816, 0.662434, 23.4216, -64.9794, -14.353, -13.8502
3.92804, -1, -18.3378, 0.637989, 23.4333, -64.8268, -14.1948, -14.1463
3.93598, -1, -18.394, 0.613324, 23.4449, -64.674, -14.0366, -14.4423
3.94396, -1, -18.4504, 0.588819, 23.4564, -64.5213, -13.8783, -14.7388
3.95208, -1, -18.5067, 0.56431, 23.4679, -64.3685, -13.7199, -15.0357
3.95996, -1, -18.5632, 0.539679, 23.4795, -64.2155, -13.5615, -15.3327
3.96896, -1, -18.6196, 0.515176, 23.491, -64.0624, -13.4026, -15.63
3.97604, -1, -18.676, 0.490452, 23.5025, -63.9089, -13.2436, -15.9279
3.984, -1, -18.7325, 0.465816, 23.514, -63.7553, -13.0844, -16.2261
3.99197, -1, -18.789, 0.441236, 23.5256, -63.6017, -12.925, -16.5241
4, -1, -18.8455, 0.416461, 23.5373, -63.4482, -12.7658, -16.8224
4.00797, -1, -18.9021, 0.391772, 23.549, -63.2944, -12.6059, -17.1209
4.01604, -1, -18.9587, 0.366953, 23.5606, -63.1405, -12.4462, -17.4197
4.02396, -1, -19.0155, 0.342199, 23.5721, -62.9864, -12.286, -17.7186
4.03197, -1, -19.0722, 0.317477, 23.5838, -62.8323, -12.126, -18.0179
4.04003, -1, -19.1291, 0.292713, 23.5955, -62.6781, -11.9656, -18.3176
4.04796, -1, -19.1861, 0.26788, 23.6071, -62.524, -11.8056, -18.6174
4.05596, -1, -19.243, 0.242886, 23.6188, -62.3695, -11.6453, -18.9173
4.06406, -1, -19.3, 0.218013, 23.6304, -62.2147, -11.4849, -19.2173
4.07203, -1, -19.357, 0.193104, 23.6422, -62.0598, -11.3243, -19.5181
4.07995, -1, -19.4141, 0.168178, 23.6539, -61.9049, -11.1635, -19.8188
4.08803, -1, -19.4712, 0.143302, 23.6657, -61.7498, -11.0026, -20.1201
4.09598, -1, -19.5284, 0.118214, 23.6773, -61.5948, -10.8417, -20.4216
4.10396, -1, -19.5855, 0.0932669, 23.6889, -61.4393, -10.6804, -20.7235
4.11203, -1, -19.6428, 0.0682848, 23.7007, -61.2837, -10.519, -21.0253
4.12001, -1, -19.7002, 0.0432049, 23.7124, -61.1279, -10.3577, -21.3275
4.1272, -1, -19.7574, 0.0181921, 23.7242, -60.9721, -10.1961, -21.6301
4.13521, -1, -19.8149, -0.00695912, 23.7358, -60.8161, -10.0345, -21.933
4.1443, -1, -19.8723, -0.0319966, 23.7477, -60.66, -9.87251, -22.2359
4.15141, -1, -19.9298, -0.057079, 23.7597, -60.5035, -9.71021, -22.5395
4.15951, -1, -19.9875, -0.0821745, 23.7716, -60.3468, -9.54788, -22.8435
4.16835, -1, -20.0451, -0.107265, 23.7835, -60.1901, -9.38511, -23.1475
4.17549, -1, -20.1028, -0.132562, 23.7953, -60.0334, -9.22258, -23.4516
4.18408, -1, -20.1606, -0.157726, 23.8072, -59.8766, -9.05947, -23.7563
4.19269, -1, -20.2183, -0.183011, 23.8191, -59.7195, -8.89635, -24.0613
4.20007, -1, -20.2761, -0.208276, 23.8309, -59.5621, -8.73301, -24.3664
4.20757, -1, -20.3051, -0.220869, 23.8368, -59.4835, -8.56961, -24.672
4.21681, -1, -20.3921, -0.258946, 23.8545, -59.2473, -8.40618, -24.9783
4.22399, -1, -20.4502, -0.284218, 23.8665, -59.0899, -8.2424, -25.2848
4.23106, -1, -20.4793, -0.296893, 23.8725, -59.011, -8.16044, -25.438
4.24109, -1, -20.5666, -0.3351, 23.8905, -58.7739, -7.91449, -25.8982
4.24813, -1, -20.625, -0.360542, 23.9023, -58.6156, -7.75027, -26.2056
4.25494, -1, -20.6542, -0.373335, 23.9083, -58.5364, -7.66802, -26.3593
4.26512, -1, -20.7418, -0.411557, 23.9264, -58.2987, -7.42136, -26.8209
4.27106, -1, -20.7711, -0.424337, 23.9324, -58.2195, -7.33903, -26.9751
4.28048, -1, -20.8589, -0.462619, 23.9504, -57.9812, -7.09175, -27.4379
4.2895, -1, -20.9175, -0.488311, 23.9623, -57.822, -6.92693, -27.7464
4.29502, -1, -20.9468, -0.501152, 23.9683, -57.7423, -6.84437, -27.9008
4.30452, -1, -21.0348, -0.539566, 23.9865, -57.5032, -6.59655, -28.3651
4.31338, -1, -21.0935, -0.565281, 23.9986, -57.3436, -6.43111, -28.6749
4.31902, -1, -21.1229, -0.578098, 24.0046, -57.2638, -6.34824, -28.83
4.32857, -1, -21.1818, -0.603832, 24.0226, -57.0236, -6.09945, -29.296
4.33755, -1, -21.2408, -0.629677, 24.0287, -56.9434, -6.01629, -29.4517
4.34395, -1, -21.2998, -0.655375, 24.0407, -56.783, -5.84992, -29.7629
4.35203, -1, -21.3589, -0.681274, 24.0528, -56.6225, -5.68336, -30.0743
4.35995, -1, -21.4183, -0.707139, 24.0648, -56.4619, -5.51651, -30.3861
4.36701, -1, -21.4776, -0.733063, 24.077, -56.3011, -5.34928, -30.6984
4.37601, -1, -21.537, -0.75899, 24.0893, -56.1399, -5.18213, -31.011
4.38394, -1, -21.5965, -0.784801, 24.1017, -55.9787, -5.01454, -31.3241
4.39201, -1, -21.656, -0.810758, 24.1139, -55.8173, -4.84705, -31.6379
4.39996, -1, -21.7156, -0.836604, 24.126, -55.6559, -4.67909, -31.9516
4.40795, -1, -21.7752, -0.862716, 24.1383, -55.4943, -4.51106, -32.2656
4.41496, -1, -21.8349, -0.88882, 24.1506, -55.3321, -4.34289, -32.5803
4.42394, -1, -21.8946, -0.914858, 24.1628, -55.1698, -4.17432, -32.8954
4.43195, -1, -21.9544, -0.941029, 24.1749, -55.0075, -4.0058, -33.2106
4.44, -1, -22.0143, -0.967113, 24.1871, -54.8448, -3.83713, -33.5264
4.44794, -1, -22.0742, -0.993422, 24.1995, -54.6822, -3.66813, -33.843
4.456, -1, -22.1341, -1.01962, 24.2118, -54.5191, -3.499, -34.1597
4.46494, -1, -22.1942, -1.04582, 24.2241, -54.3557, -3.32961, -34.4768
4.47206, -1, -22.2545, -1.07213, 24.2364, -54.1922, -3.16021, -34.7942
4.47995, -1, -22.3147, -1.09846, 24.2487, -54.0285, -2.99056, -35.1121
4.48806, -1, -22.3752, -1.1249, 24.2612, -53.8646, -2.82071, -35.4303
4.49595, -1, -22.4357, -1.15124, 24.2735, -53.7005, -2.65059, -35.7491
4.50403, -1, -22.4962, -1.1777, 24.2859, -53.5358, -2.47995, -36.0684
4.51195, -1, -22.5568, -1.2041, 24.2982, -53.3711, -2.30923, -36.3877
4.51996, -1, -22.6174, -1.23067, 24.3108, -53.2063, -2.13801, -36.7073
4.52813, -1, -22.6782, -1.2573, 24.3233, -53.0415, -1.96673, -37.0276
4.53499, -1, -22.739, -1.28382, 24.3357, -52.8762, -1.79501, -37.3484
4.54394, -1, -22.8, -1.31047, 24.3481, -52.7106, -1.62329, -37.6695
4.55204, -1, -22.861, -1.33707, 24.3605, -52.5449, -1.45117, -37.9912
4.55994, -1, -22.9219, -1.36384, 24.373, -52.379, -1.27908, -38.3137
4.56796, -1, -22.983, -1.3905, 24.3855, -52.213, -1.10673, -38.6363
4.57603, -1, -23.0441, -1.41726, 24.3979, -52.0468, -0.934262, -38.9591
4.58394, -1, -23.1055, -1.44406, 24.4105, -51.88, -0.76155, -39.2827
4.59196, -1, -23.1669, -1.47084, 24.4233, -51.713, -0.58832, -39.6068
4.59984, -1, -23.2285, -1.49775, 24.436, -51.546, -0.415111, -39.931
4.60794, -1, -23.2903, -1.52456, 24.4487, -51.3785, -0.241456, -40.2561
4.61594, -1, -23.3519, -1.55144, 24.4613, -51.2112, -0.0675641, -40.5818
4.62446, -1, -23.4138, -1.57829, 24.474, -51.0431, 0.106523, -40.9076
4.63133, -1, -23.4758, -1.60532, 24.4867, -50.8749, 0.280871, -41.2337
4.63919, -1, -23.5377, -1.63233, 24.4993, -50.7065, 0.455394, -41.5607
4.64728, -1, -23.5999, -1.65935, 24.512, -50.5379, 0.630477, -41.8881
4.65547, -1, -23.6621, -1.68645, 24.5247, -50.369, 0.805897, -42.216
4.66409, -1, -23.7244, -1.71352, 24.5375, -50.1998, 0.981558, -42.5446
4.67292, -1, -23.7867, -1.74078, 24.5503, -50.0302, 1.15734, -42.8736
4.68005, -1, -23.8491, -1.76794, 24.5631, -49.8604, 1.3335, -43.2029
4.68814, -1, -23.9116, -1.79526, 24.5759, -49.6906, 1.50991, -43.5328
4.69551, -1, -23.9742, -1.82263, 24.5888, -49.5204, 1.68673, -43.8633
4.70406, -1, -24.0369, -1.85005, 24.6017, -49.35, 1.8636, -44.1944
4.71267, -1, -24.0998, -1.87751, 24.6145, -49.1792, 2.04076, -44.5258
4.72148, -1, -24.1628, -1.90493, 24.6274, -49.0082, 2.21814, -44.858
4.727, -1, -24.1944, -1.91868, 24.6339, -48.9227, 2.30698, -45.0242
4.73682, -1, -24.2893, -1.95997, 24.6534, -48.6658, 2.57377, -45.5234
4.74407, -1, -24.3526, -1.98765, 24.6664, -48.494, 2.75195, -45.8568
4.75216, -1, -24.4161, -2.01529, 24.6793, -48.3217, 2.93062, -46.1911
4.75893, -1, -24.4479, -2.02914, 24.6857, -48.2355, 3.01996, -46.3582
4.76698, -1, -24.5114, -2.05687, 24.6987, -48.0631, 3.19883, -46.6929
4.77694, -1, -24.607, -2.09859, 24.7183, -47.804, 3.46787, -47.1968
4.78524, -1, -24.6708, -2.12641, 24.7312, -47.6308, 3.64744, -47.533
4.79098, -1, -24.7027, -2.14031, 24.7378, -47.544, 3.73746, -47.7012
4.80051, -1, -24.7986, -2.18224, 24.7576, -47.2834, 4.00768, -48.2071
4.80932, -1, -24.8627, -2.21027, 24.7709, -47.1093, 4.18815, -48.5453
4.815, -1, -24.8948, -2.22435, 24.7775, -47.0221, 4.27848, -48.7144
4.82463, -1, -24.9911, -2.26639, 24.7972, -46.7601, 4.55028, -49.2231
4.83341, -1, -25.0234, -2.28044, 24.8105, -46.5848, 4.73173, -49.5631
4.839, -1, -25.0878, -2.30855, 24.8171, -46.4971, 4.82274, -49.7331
4.84898, -1, -25.185, -2.35092, 24.8369, -46.2338, 5.09642, -50.2441
4.85594, -1, -25.2174, -2.3651, 24.8435, -46.1459, 5.18779, -50.415
4.863, -1, -25.2825, -2.39332, 24.8568, -45.9698, 5.37066, -50.757
4.87199, -1, -25.3476, -2.42166, 24.8702, -45.7933, 5.55401, -51.0994
4.88005, -1, -25.4127, -2.45, 24.8836, -45.6164, 5.73763, -51.4427
4.88799, -1, -25.4779, -2.47859, 24.8969, -45.4395, 5.9215, -51.7867
4.89593, -1, -25.5432, -2.5071, 24.9102, -45.2623, 6.10569, -52.1308
4.90395, -1, -25.6086, -2.53567, 24.9237, -45.0846, 6.29019, -52.4758
4.91093, -1, -25.6741, -2.56435, 24.9372, -44.9064, 6.47488, -52.8217
4.91993, -1, -25.7397, -2.59313, 24.9506, -44.728, 6.65975, -53.1679
4.92794, -1, -25.8054, -2.62197, 24.9641, -44.5494, 6.84509, -53.5148
4.93492, -1, -25.8713, -2.65074, 24.9777, -44.3705, 7.03066, -53.8628
4.94393, -1, -25.9373, -2.67957, 24.9914, -44.1912, 7.21647, -54.211
4.95198, -1, -26.0034, -2.70856, 25.0049, -44.0112, 7.40266, -54.5597
4.95893, -1, -26.0696, -2.73762, 25.0184, -43.8312, 7.58933, -54.9093
4.96793, -1, -26.136, -2.76664, 25.032, -43.6508, 7.77652, -55.2597
4.97693, -1, -26.2025, -2.79574, 25.0456, -43.4701, 7.96412, -55.6105
4.98293, -1, -26.2693, -2.82484, 25.0592, -43.2888, 8.15213, -55.9623
4.99203, -1, -26.3362, -2.85414, 25.0729, -43.1071, 8.34069, -56.3147
4.99993, -1, -26.4031, -2.88336, 25.0868, -42.9253, 8.52954, -56.6674
5.008, -1, -26.4702, -2.91272, 25.1007, -42.7431, 8.71897, -57.021
5.01593, -1, -26.5375, -2.94211, 25.1145, -42.5606, 8.90864, -57.3755
5.02395, -1, -26.6048, -2.97164, 25.1283, -42.3776, 9.09856, -57.7304
5.0321, -1, -26.6722, -3.00109, 25.1421, -42.1942, 9.2889, -58.0865
5.03993, -1, -26.7399, -3.03057, 25.156, -42.0107, 9.4793, -58.4432
5.04793, -1, -26.8077, -3.0601, 25.1699, -41.8269, 9.67009, -58.8002
5.05593, -1, -26.8757, -3.08975, 25.1837, -41.6424, 9.86131, -59.158
5.064, -1, -26.9438, -3.11941, 25.1977, -41.4575, 10.0528, -59.5169
5.072, -1, -27.0121, -3.14916, 25.2118, -41.2724, 10.2448, -59.8764
5.07992, -1, -27.0804, -3.17889, 25.2258, -41.0868, 10.4371, -60.2367
5.08799, -1, -27.1488, -3.20876, 25.2397, -40.9011, 10.6298, -60.5978
5.09593, -1, -27.2175, -3.23867, 25.2538, -40.7146, 10.823, -60.9594
5.10393, -1, -27.2863, -3.26864, 25.268, -40.5278, 11.0168, -61.3218
5.11207, -1, -27.3552, -3.29876, 25.2821, -40.3408, 11.2111, -61.6851
5.11993, -1, -27.4243, -3.32892, 25.2961, -40.1533, 11.4058, -62.0492
5.12796, -1, -27.4936, -3.35918, 25.3105, -39.9653, 11.6011, -62.4143
5.136, -1, -27.563, -3.38943, 25.3249, -39.7768, 11.7966, -62.7802
5.14393, -1, -27.6324, -3.41977, 25.3391, -39.5878, 11.9929, -63.1468
5.15205, -1, -27.7021, -3.45024, 25.3532, -39.3987, 12.1896, -63.5138
5.15997, -1, -27.7719, -3.48074, 25.3675, -39.2091, 12.3865, -63.8821
5.16799, -1, -27.8419, -3.51128, 25.3819, -39.0191, 12.5837, -64.2511
5.17615, -1, -27.9122, -3.54192, 25.3962, -38.8285, 12.7814, -64.6207
5.18355, -1, -27.9826, -3.57263, 25.4106, -38.6376, 12.9795, -64.9915
5.19211, -1, -28.0532, -3.60343, 25.4252, -38.4464, 13.1778, -65.3628
5.20011, -1, -28.1238, -3.63423, 25.4398, -38.2548, 13.3767, -65.7349
5.20805, -1, -28.1946, -3.66517, 25.4543, -38.0625, 13.5759, -66.1081
5.21558, -1, -28.23, -3.68067, 25.4615, -37.9661, 13.7758, -66.4822
5.22418, -1, -28.3366, -3.72728, 25.4834, -37.6766, 13.976, -66.8571
5.23092, -1, -28.3723, -3.74277, 25.4907, -37.5799, 14.0763, -67.0451
5.24004, -1, -28.4794, -3.78942, 25.5125, -37.2893, 14.3779, -67.6097
5.24691, -1, -28.5152, -3.80501, 25.5198, -37.192, 14.4787, -67.7982
5.25714, -1, -28.6227, -3.85198, 25.5421, -36.8999, 14.7815, -68.3657
5.26296, -1, -28.6586, -3.86763, 25.5495, -36.8023, 14.8829, -68.5553
5.27233, -1, -28.7666, -3.91473, 25.5715, -36.5087, 15.1874, -69.1254
5.27892, -1, -28.8028, -3.93046, 25.5789, -36.4105, 15.2893, -69.316
5.287, -1, -28.8752, -3.96213, 25.5938, -36.2137, 15.4935, -69.6976
5.2965, -1, -28.9841, -4.00959, 25.6161, -35.918, 15.8008, -70.2714
5.3055, -1, -29.0569, -4.04139, 25.631, -35.7201, 16.0063, -70.6555
5.31097, -1, -29.0934, -4.05733, 25.6386, -35.6211, 16.1092, -70.8478
5.32052, -1, -29.2029, -4.10536, 25.6613, -35.323, 16.4185, -71.4266
5.32944, -1, -29.2396, -4.12135, 25.6762, -35.1238, 16.6254, -71.8137
5.33498, -1, -29.313, -4.15337, 25.6836, -35.0241, 16.729, -72.0074
5.34494, -1, -29.4235, -4.20175, 25.7062, -34.7239, 17.0405, -72.5901
5.35197, -1, -29.4604, -4.21792, 25.7138, -34.6235, 17.1444, -72.785
5.35994, -1, -29.5344, -4.25029, 25.7288, -34.4224, 17.353, -73.1753
5.36795, -1, -29.6086, -4.28266, 25.744, -34.2209, 17.5618, -73.5666
5.37593, -1, -29.683, -4.31517, 25.7595, -34.0189, 17.7713, -73.9592
5.38291, -1, -29.7576, -4.34785, 25.775, -33.8163, 17.9812, -74.3522
5.392, -1, -29.8324, -4.38055, 25.7902, -33.6131, 18.192, -74.7463
5.39992, -1, -29.9075, -4.41334, 25.8056, -33.4096, 18.4034, -75.1418
5.40798, -1, -29.9827, -4.44627, 25.821, -33.2053, 18.6153, -75.5383
5.41591, -1, -30.0582, -4.47923, 25.8363, -33.0005, 18.8279, -75.9361
5.42391, -1, -30.1338, -4.51222, 25.8516, -32.795, 19.0412, -76.3349
5.43203, -1, -30.2096, -4.54525, 25.8673, -32.5891, 19.2551, -76.7343
5.4399, -1, -30.2857, -4.57849, 25.8831, -32.3827, 19.4696, -77.1352
5.44791, -1, -30.362, -4.61173, 25.8986, -32.1757, 19.6845, -77.5371
5.45598, -1, -30.4384, -4.64507, 25.9142, -31.9679, 19.9, -77.9401
5.46394, -1, -30.5151, -4.67845, 25.9301, -31.7597, 20.1157, -78.3445
5.47198, -1, -30.592, -4.71197, 25.9458, -31.5511, 20.3322, -78.7496
5.48091, -1, -30.6691, -4.74556, 25.9614, -31.3419, 20.5492, -79.1557
5.48802, -1, -30.7465, -4.77935, 25.9774, -31.1318, 20.7668, -79.5633
5.49591, -1, -30.8241, -4.81324, 25.9936, -30.9213, 20.985, -79.972
5.50391, -1, -30.9018, -4.84724, 26.0094, -30.7103, 21.2039, -80.3822
5.51197, -1, -30.9799, -4.8813, 26.0252, -30.4987, 21.4235, -80.7932
5.51998, -1, -31.0581, -4.9155, 26.0413, -30.2864, 21.6439, -81.2051
5.52793, -1, -31.1364, -4.94987, 26.0573, -30.0735, 21.8649, -81.6185
5.53591, -1, -31.215, -4.98425, 26.0732, -29.8601, 22.0865, -82.0332
5.54397, -1, -31.2941, -5.01874, 26.0896, -29.6461, 22.309, -82.449
5.552, -1, -31.3732, -5.05339, 26.1061, -29.4311, 22.532, -82.8662
5.55994, -1, -31.4526, -5.0881, 26.1223, -29.2155, 22.7556, -83.2841
5.56822, -1, -31.5321, -5.12288, 26.1386, -28.9995, 22.9799, -83.7033
5.57502, -1, -31.6118, -5.15776, 26.155, -28.7829, 23.2047, -84.124
5.5839, -1, -31.6919, -5.19279, 26.1712, -28.5654, 23.4301, -84.5459
5.59278, -1, -31.7722, -5.22785, 26.1875, -28.3474, 23.6563, -84.9694
5.59991, -1, -31.8526, -5.26297, 26.2041, -28.1289, 23.8832, -85.3937
5.60792, -1, -31.9335, -5.29824, 26.2209, -27.9096, 24.1104, -85.8193
5.61674, -1, -32.0144, -5.33374, 26.2374, -27.6895, 24.3388, -86.2466
5.62391, -1, -32.0956, -5.36918, 26.254, -27.4688, 24.5676, -86.675
5.632, -1, -32.177, -5.40472, 26.2709, -27.2474, 24.797, -87.1051
5.6407, -1, -32.2586, -5.44049, 26.2875, -27.0256, 25.0272, -87.536
5.64791, -1, -32.3405, -5.47628, 26.3042, -26.8028, 25.2581, -87.9681
5.65598, -1, -32.4228, -5.51225, 26.3213, -26.5793, 25.49, -88.402
5.6648, -1, -32.5053, -5.54842, 26.3383, -26.3553, 25.7225, -88.8373
5.67205, -1, -32.5882, -5.58472, 26.3551, -26.1304, 25.956, -89.2743
5.68007, -1, -32.6713, -5.62107, 26.3722, -25.9046, 26.1903, -89.7125
5.68946, -1, -32.7546, -5.65746, 26.3892, -25.6781, 26.4253, -90.1516
5.69562, -1, -32.8383, -5.69411, 26.4061, -25.4511, 26.661, -90.5925
5.7041, -1, -32.9222, -5.73089, 26.4234, -25.2233, 26.8975, -91.0348
5.71208, -1, -33.0064, -5.76766, 26.4409, -24.9947, 27.1346, -91.4787
5.72053, -1, -33.0909, -5.80461, 26.4581, -24.7654, 27.3727, -91.9239
5.7281, -1, -33.1758, -5.8417, 26.4756, -24.5354, 27.6114, -92.37
5.7349, -1, -33.2183, -5.86027, 26.4843, -24.4202, 27.731, -92.5938
5.74491, -1, -33.3461, -5.91604, 26.5103, -24.0729, 28.0908, -93.2677
5.75211, -1, -33.4316, -5.95339, 26.5278, -23.8408, 28.3316, -93.7188
5.759, -1, -33.4744, -5.97211, 26.5366, -23.7244, 28.4524, -93.945
5.76897, -1, -33.6035, -6.02831, 26.5631, -23.3738, 28.816, -94.6253
5.77622, -1, -33.6899, -6.06603, 26.5808, -23.1392, 29.0595, -95.081
5.7829, -1, -33.7332, -6.08492, 26.5898, -23.0217, 29.1816, -95.3094
5.79325, -1, -33.8637, -6.14176, 26.6165, -22.6675, 29.5495, -95.9972
5.79896, -1, -33.9073, -6.16075, 26.6254, -22.549, 29.6724, -96.2271
5.80847, -1, -34.0388, -6.21802, 26.6524, -22.1922, 30.0426, -96.9187
5.81728, -1, -34.1268, -6.25641, 26.6704, -21.9536, 30.2903, -97.3823
5.82296, -1, -34.1709, -6.27564, 26.6794, -21.8339, 30.4145, -97.6147
5.83254, -1, -34.2593, -6.33361, 26.7065, -21.4735, 30.788, -98.3147
5.84128, -1, -34.3481, -6.35296, 26.7155, -21.3531, 30.9129, -98.5486
5.84696, -1, -34.4372, -6.39181, 26.7337, -21.1116, 31.1636, -99.0172
5.85693, -1, -34.5715, -6.4505, 26.7614, -20.7474, 31.5411, -99.7245
5.86392, -1, -34.6163, -6.47011, 26.7706, -20.6256, 31.6674, -99.9609
5.87192, -1, -34.7061, -6.50941, 26.789, -20.3815, 31.9207, -100.435
5.87991, -1, -34.7963, -6.54888, 26.8076, -20.1365, 32.175, -100.911
5.8879, -1, -34.8867, -6.58844, 26.8262, -19.8904, 32.4305, -101.388
5.8949, -1, -34.9775, -6.62813, 26.8446, -19.6436, 32.6868, -101.868
5.90389, -1, -35.0686, -6.66801, 26.8633, -19.396, 32.944, -102.349
5.91191, -1, -35.16, -6.70797, 26.8822, -19.1473, 33.2022, -102.832
5.91995, -1, -35.2518, -6.7479, 26.9009, -18.8974, 33.4613, -103.316
5.92789, -1, -35.344, -6.78816, 26.9199, -18.6469, 33.7212, -103.802
5.9359, -1, -35.4365, -6.82855, 26.939, -18.3956, 33.9818, -104.29
5.94399, -1, -35.5294, -6.86897, 26.958, -18.1432, 34.2434, -104.78
5.9519, -1, -35.6226, -6.90956, 26.9772, -17.8902, 34.506, -105.271
5.9599, -1, -35.7161, -6.95042, 26.9964, -17.6361, 34.7697, -105.764
5.96798, -1, -35.81, -6.99141, 27.0155, -17.3809, 35.0342, -106.26
5.97694, -1, -35.9043, -7.03258, 27.0348, -17.1249, 35.2996, -106.757
5.98296, -1, -35.999, -7.07401, 27.0542, -16.8681, 35.5663, -107.256
5.99196, -1, -36.094, -7.11548, 27.0736, -16.6103, 35.8337, -107.756
5.9999, -1, -36.1894, -7.15717, 27.0932, -16.3515, 36.1021, -108.259
6.00789, -1, -36.2852, -7.19912, 27.1129, -16.0917, 36.3717, -108.764
6.01597, -1, -36.3813, -7.24113, 27.1325, -15.831, 36.6423, -109.27
6.02389, -1, -36.4777, -7.28326, 27.1523, -15.5689, 36.914, -109.778
6.03196, -1, -36.5744, -7.32558, 27.1721, -15.3061, 37.1867, -110.288
6.03989, -1, -36.6715, -7.36806, 27.192, -15.0424, 37.4603, -110.799
6.04789, -1, -36.769, -7.41065, 27.2119, -14.7777, 37.7348, -111.313
6.05596, -1, -36.8668, -7.45336, 27.2319, -14.5119, 38.0105, -111.829
6.06389, -1, -36.965, -7.49615, 27.2521, -14.2455, 38.2871, -112.347
6.07194, -1, -37.0636, -7.53918, 27.2724, -13.9778, 38.5646, -112.867
6.07998, -1, -37.1626, -7.58235, 27.2927, -13.709, 38.8432, -113.388
6.08788, -1, -37.262, -7.6256, 27.3132, -13.4395, 39.123, -113.912
6.09587, -1, -37.3618, -7.66905, 27.3336, -13.1689, 39.4037, -114.437
6.10396, -1, -37.4619, -7.71264, 27.3539, -12.8972, 39.6857, -114.964
6.11191, -1, -37.5625, -7.75653, 27.3745, -12.6247, 39.9687, -115.494
6.11989, -1, -37.6632, -7.80056, 27.3952, -12.351, 40.253, -116.026
6.12799, -1, -37.7643, -7.84472, 27.416, -12.076, 40.5382, -116.559
6.13593, -1, -37.8658, -7.88915, 27.4369, -11.8003, 40.8243, -117.094
6.14389, -1, -37.9677, -7.93377, 27.4577, -11.5236, 41.1114, -117.632
6.15197, -1, -38.07, -7.97847, 27.4786, -11.2458, 41.3992, -118.171
6.16001, -1, -38.1725, -8.02336, 27.4996, -10.9671, 41.6881, -118.712
6.16793, -1, -38.2754, -8.06833, 27.5207, -10.6875, 41.9781, -119.255
6.17605, -1, -38.3786, -8.11344, 27.542, -10.4067, 42.2691, -119.8
6.1842, -1, -38.4821, -8.15875, 27.5631, -10.1249, 42.5615, -120.347
6.19148, -1, -38.586, -8.20408, 27.5845, -9.84225, 42.855, -120.896
6.20011, -1, -38.6904, -8.24961, 27.606, -9.55838, 43.1496, -121.446
6.2084, -1, -38.7952, -8.29537, 27.6275, -9.2737, 43.4453, -121.999
6.21554, -1, -38.8478, -8.31826, 27.6383, -8.98799, 43.7422, -122.554
6.22413, -1, -39.006, -8.38711, 27.6707, -8.70093, 44.04, -123.111
6.23283, -1, -39.1121, -8.4333, 27.6923, -8.41289, 44.3386, -123.669
6.23992, -1, -39.2186, -8.47962, 27.7141, -8.12424, 44.6383, -124.23
6.24814, -1, -39.3254, -8.52625, 27.736, -7.83439, 44.9388, -124.793
6.25488, -1, -39.379, -8.54963, 27.747, -7.68914, 45.0894, -125.075
6.26297, -1, -39.4863, -8.5964, 27.7691, -7.39817, 45.3913, -125.64
6.27254, -1, -39.6479, -8.66705, 27.8021, -6.95928, 45.8463, -126.492
6.2802, -1, -39.756, -8.71431, 27.8243, -6.66568, 46.151, -127.063
6.28689, -1, -39.8102, -8.73796, 27.8354, -6.51859, 46.3037, -127.349
6.29646, -1, -39.9732, -8.80928, 27.8689, -6.07539, 46.7633, -128.208
6.30449, -1, -40.0824, -8.85698, 27.8913, -5.77903, 47.0712, -128.784
6.31253, -1, -40.192, -8.9048, 27.9136, -5.48159, 47.3801, -129.362
6.3209, -1, -40.3019, -8.95271, 27.9362, -5.18298, 47.6898, -129.94
6.32851, -1, -40.4121, -9.00074, 27.9588, -4.88371, 48.0003, -130.521
6.33652, -1, -40.4673, -9.02483, 27.9702, -4.58368, 48.3118, -131.104
6.34388, -1, -40.578, -9.07308, 27.9929, -4.43331, 48.4677, -131.396
6.35192, -1, -40.689, -9.12139, 28.0155, -4.13193, 48.7804, -131.981
6.35988, -1, -40.8003, -9.16983, 28.0383, -3.82992, 49.0937, -132.567
6.36789, -1, -40.9119, -9.21849, 28.0611, -3.52672, 49.408, -133.156
6.37594, -1, -41.0238, -9.2673, 28.0842, -3.22286, 49.7233, -133.746
6.38388, -1, -41.136, -9.31618, 28.1073, -2.9184, 50.0394, -134.337
6.39188, -1, -41.2482, -9.3653, 28.1303, -2.61281, 50.3566, -134.93
6.39992, -1, -41.3607, -9.4146, 28.1535, -2.30662, 50.6747, -135.525
6.40788, -1, -41.4735, -9.46402, 28.1765, -1.99957, 50.9935, -136.122
6.41591, -1, -41.5865, -9.51355, 28.1998, -1.69154, 51.3128, -136.719
6.42392, -1, -41.6998, -9.56315, 28.2231, -1.38314, 51.6328, -137.317
6.43188, -1, -41.8135, -9.61297, 28.2464, -1.07408, 51.9532, -137.918
6.43987, -1, -41.9276, -9.66288, 28.2699, -0.764206, 52.2744, -138.519
6.44806, -1, -42.042, -9.71274, 28.2933, -0.454047, 52.5962, -139.122
6.45589, -1, -42.1567, -9.76282, 28.3169, -0.142903, 52.9188, -139.726
6.46391, -1, -42.2716, -9.81283, 28.3404, 0.168776, 53.2421, -140.331
6.47357, -1, -42.3866, -9.8629, 28.3639, 0.480812, 53.7287, -141.24
6.47987, -1, -42.5019, -9.91312, 28.3876, 0.793665, 53.8912, -141.544
6.48787, -1, -42.6174, -9.96338, 28.4113, 1.10679, 54.2166, -142.152
6.49601, -1, -42.7329, -10.0138, 28.4351, 1.42058, 54.5424, -142.762
6.50386, -1, -42.8485, -10.0642, 28.4588, 1.73508, 54.8683, -143.371
6.51187, -1, -42.9643, -10.1148, 28.4826, 2.04969, 55.1948, -143.982
6.51998, -1, -43.0803, -10.1656, 28.5063, 2.36458, 55.5215, -144.594
6.52787, -1, -43.1963, -10.2164, 28.5302, 2.67993, 55.8485, -145.207
6.5359, -1, -43.3124, -10.2672, 28.554, 2.9954, 56.1759, -145.819
6.54395, -1, -43.4288, -10.3182, 28.5778, 3.3115, 56.5039, -146.433
6.55187, -1, -43.5452, -10.3692, 28.6017, 3.62779, 56.8322, -147.047
6.55987, -1, -43.6618, -10.4202, 28.6256, 3.94425, 57.1606, -147.661
6.56795, -1, -43.7785, -10.471, 28.6496, 4.26102, 57.4893, -148.276
6.57588, -1, -43.8954, -10.522, 28.6735, 4.57787, 57.8184, -148.892
6.58389, -1, -44.0124, -10.5728, 28.6974, 4.89502, 58.1473, -149.508
6.59195, -1, -44.1292, -10.6236, 28.7214, 5.21257, 58.4765, -150.123
6.59987, -1, -44.2461, -10.6744, 28.7454, 5.52986, 58.8058, -150.739
6.60788, -1, -44.3628, -10.7253, 28.7696, 5.84722, 59.1351, -151.356
6.61595, -1, -44.4793, -10.7761, 28.7935, 6.16467, 59.4645, -151.972
6.62387, -1, -44.5959, -10.827, 28.8175, 6.48192, 59.7936, -152.589
6.63191, -1, -44.7123, -10.878, 28.8414, 6.79943, 60.1229, -153.205
6.63997, -1, -44.8289, -10.9291, 28.8654, 7.11678, 60.4522, -153.822
6.64786, -1, -44.9456, -10.9802, 28.8894, 7.4338, 60.7815, -154.437
6.6559, -1, -45.0623, -11.0313, 28.9133, 7.75092, 61.1108, -155.053
6.66394, -1, -45.179, -11.0823, 28.9372, 8.06768, 61.44, -155.668
6.67192, -1, -45.2957, -11.1334, 28.9611, 8.3845, 61.7686, -156.283
6.68046, -1, -45.4123, -11.1842, 28.9851, 8.70117, 62.0971, -156.897
6.68796, -1, -45.529, -11.2351, 29.0088, 9.01734, 62.425, -157.511
6.69598, -1, -45.6455, -11.2858, 29.0326, 9.3331, 62.7525, -158.125
6.70407, -1, -45.762, -11.3363, 29.0564, 9.64859, 63.0796, -158.738
6.71198, -1, -45.8783, -11.3868, 29.0803, 9.96363, 63.4065, -159.349
6.71956, -1, -45.9364, -11.412, 29.1042, 10.2786, 63.7333, -159.961
6.72794, -1, -46.1102, -11.4877, 29.1279, 10.593, 64.0598, -160.572
6.73591, -1, -46.2255, -11.538, 29.1516, 10.9069, 64.386, -161.181
6.74291, -1, -46.2828, -11.563, 29.1635, 11.0637, 64.5489, -161.486
6.75203, -1, -46.4526, -11.6375, 29.1989, 11.5322, 65.0354, -162.396
6.75886, -1, -46.508, -11.6618, 29.2108, 11.6873, 65.1963, -162.697
6.76812, -1, -46.6684, -11.7314, 29.2457, 12.1438, 65.6702, -163.584
6.77488, -1, -46.7196, -11.7532, 29.2571, 12.291, 65.823, -163.871
6.78449, -1, -46.8618, -11.8133, 29.2897, 12.7058, 66.2547, -164.679
6.79229, -1, -46.9452, -11.8483, 29.3092, 12.9496, 66.509, -165.156
6.79892, -1, -46.9829, -11.8641, 29.3179, 13.0586, 66.6229, -165.369
6.80885, -1, -47.0786, -11.9053, 29.3385, 13.3262, 66.9038, -165.894
6.81642, -1, -47.1279, -11.9275, 29.3478, 13.453, 67.0374, -166.143
6.82452, -1, -47.1663, -11.9455, 29.354, 13.542, 67.1317, -166.319
6.83246, -1, -47.1955, -11.9592, 29.3575, 13.5982, 67.193, -166.432
6.84067, -1, -47.2072, -11.9647, 29.3585, 13.6174, 67.2288, -166.498
6.84686, -1, -47.225, -11.973, 29.3596, 13.6424, 67.2401, -166.519
6.85704, -1, -47.2405, -11.9797, 29.3603, 13.6588, 67.2576, -166.551
6.86387, -1, -47.2431, -11.9809, 29.3605, 13.6615, 67.2603, -166.555
6.87192, 2, -47.2463, -11.9822, 29.3607, 13.6645, 67.2634, -166.561
6.87986, 2, -47.2473, -11.9828, 29.3608, 13.6661, 67.2649, -166.563
6.88789, 2, -47.2469, -11.9831, 29.3609, 13.6669, 67.2656, -166.564
6.89591, 2, -47.2464, -11.9833, 29.3609, 13.6673, 67.2659, -166.565
6.90385, 2, -47.2462, -11.9833, 29.3609, 13.6675, 67.266, -166.565
6.91186, 2, -47.2464, -11.9835, 29.3609, 13.6676, 67.2661, -166.565
6.91992, 2, -47.247, -11.9837, 29.361, 13.6677, 67.2661, -166.564
6.92785, 2, -47.248, -11.984, 29.361, 13.6677, 67.2661, -166.564
6.93587, 2, -47.2493, -11.9843, 29.361, 13.6677, 67.266, -166.564
6.94391, 2, -47.2501, -11.9846, 29.361, 13.6676, 67.266, -166.563
6.95185, 2, -47.2504, -11.9849, 29.361, 13.6676, 67.2659, -166.563
6.95986, 2, -47.2505, -11.985, 29.361, 13.6676, 67.2658, -166.562
6.96938, 2, -47.2502, -11.985, 29.361, 13.6676, 67.2658, -166.562
6.9759, 2, -47.2497, -11.985, 29.361, 13.6676, 67.2657, -166.561
6.98485, 2, -47.2492, -11.985, 29.361, 13.6676, 67.2655, -166.561
6.99192, 2, -47.2488, -11.985, 29.361, 13.6675, 67.2654, -166.56
7.0019, 2, -47.2481, -11.985, 29.361, 13.6674, 67.2652, -166.56
7.00785, 2, -47.2475, -11.985, 29.361, 13.6674, 67.2652, -166.559
7.01593, 2, -47.247, -11.985, 29.361, 13.6673, 67.2651, -166.559
7.02386, 2, -47.2466, -11.985, 29.361, 13.6674, 67.265, -166.559
7.03185, 2, -47.2465, -11.985, 29.361, 13.6674, 67.2649, -166.559
7.03993, 2, -47.2465, -11.985, 29.361, 13.6673, 67.2649, -166.558
7.04785, 2, -47.2466, -11.9851, 29.361, 13.6672, 67.2648, -166.558
7.05586, 2, -47.2468, -11.9851, 29.361, 13.6672, 67.2648, -166.558
7.06392, 2, -47.2473, -11.9851, 29.361, 13.6672, 67.2647, -166.558
7.07185, 2, -47.2475, -11.9851, 29.361, 13.6672, 67.2647, -166.558
7.07987, 2, -47.2477, -11.9851, 29.361, 13.6672, 67.2647, -166.558
7.08794, 2, -47.2478, -11.9851, 29.361, 13.6671, 67.2647, -166.558
7.09586, 2, -47.2478, -11.9851, 29.361, 13.6671, 67.2647, -166.558
7.10386, 2, -47.2477, -11.9851, 29.361, 13.6671, 67.2647, -166.558
7.1119, 2, -47.2476, -11.9851, 29.361, 13.6671, 67.2647, -166.558
7.11985, 2, -47.2475, -11.9851, 29.361, 13.6671, 67.2646, -166.558
7.12786, 2, -47.2474, -11.9851, 29.361, 13.6671, 67.2645, -166.558
7.13595, 2, -47.2473, -11.9851, 29.3609, 13.667, 67.2645, -166.558
7.1439, 2, -47.2472, -11.9851, 29.361, 13.6669, 67.2645, -166.558
7.15187, 2, -47.2472, -11.9852, 29.361, 13.6669, 67.2645, -166.558
7.15991, 2, -47.2472, -11.9852, 29.361, 13.6669, 67.2645, -166.558
7.16788, 2, -47.2472, -11.9851, 29.361, 13.6669, 67.2644, -166.558
7.17594, 2, -47.2472, -11.9851, 29.361, 13.6669, 67.2643, -166.558
7.18399, 2, -47.2473, -11.9851, 29.361, 13.6668, 67.2644, -166.558
7.19197, 2, -47.2472, -11.9851, 29.361, 13.6668, 67.2643, -166.558
7.19945, 2, -47.2473, -11.9851, 29.361, 13.6667, 67.2642, -166.557
7.20803, 2, -47.2472, -11.9851, 29.361, 13.6666, 67.2642, -166.557
7.21597, 2, -47.2473, -11.9851, 29.361, 13.6666, 67.2642, -166.557
7.22388, 2, -47.2472, -11.9851, 29.361, 13.6665, 67.2642, -166.557
7.23192, 2, -47.2472, -11.9851, 29.361, 13.6665, 67.2641, -166.557
7.23988, 2, -47.2471, -11.9851, 29.361, 13.6664, 67.2641, -166.557
7.24688, 2, -47.2471, -11.9851, 29.361, 13.6664, 67.2641, -166.557
7.25602, 2, -47.2472, -11.9851, 29.361, 13.6664, 67.2641, -166.557
7.26288, 2, -47.2471, -11.9851, 29.361, 13.6663, 67.2641, -166.557
7.27211, 2, -47.2472, -11.9852, 29.361, 13.6663, 67.264, -166.557
7.27884, 2, -47.2472, -11.9852, 29.361, 13.6663, 67.264, -166.557
7.28877, 2, -47.2472, -11.9851, 29.361, 13.6663, 67.264, -166.557
7.29629, 2, -47.2472, -11.9851, 29.361, 13.6662, 67.264, -166.557
7.30284, 2, -47.2471, -11.9851, 29.361, 13.6662, 67.264, -166.557
7.31292, 2, -47.2471, -11.9851, 29.361, 13.6661, 67.2639, -166.557
7.3204, 2, -47.2471, -11.9851, 29.361, 13.6661, 67.2639, -166.557
7.32859, 2, -47.2471, -11.9851, 29.361, 13.6661, 67.2638, -166.557
7.33695, 2, -47.2471, -11.9851, 29.361, 13.6661, 67.2638, -166.557
7.34445, 2, -47.2471, -11.9851, 29.361, 13.666, 67.2638, -166.557
7.35187, 2, -47.2471, -11.9851, 29.361, 13.666, 67.2637, -166.557
7.36081, 2, -47.2471, -11.9852, 29.361, 13.6659, 67.2637, -166.557
7.36786, 2, -47.2471, -11.9852, 29.361, 13.6659, 67.2637, -166.557
7.3759, 2, -47.2471, -11.9852, 29.361, 13.6659, 67.2637, -166.557
7.38384, 2, -47.2471, -11.9851, 29.361, 13.6658, 67.2637, -166.557
7.39186, 2, -47.247, -11.9851, 29.361, 13.6658, 67.2636, -166.556
7.39988, 2, -47.247, -11.9851, 29.361, 13.6658, 67.2636, -166.556
7.40783, 2, -47.247, -11.9851, 29.361, 13.6657, 67.2636, -166.556
7.41586, 2, -47.2469, -11.9851, 29.361, 13.6657, 67.2636, -166.556
7.42389, 2, -47.2469, -11.9851, 29.361, 13.6656, 67.2636, -166.556
7.43184, 2, -47.2469, -11.9851, 29.361, 13.6656, 67.2636, -166.556
7.43989, 2, -47.247, -11.9851, 29.361, 13.6656, 67.2635, -166.556
7.44784, 2, -47.247, -11.9851, 29.361, 13.6656, 67.2635, -166.556
7.45585, 2, -47.2469, -11.9851, 29.3609, 13.6655, 67.2635, -166.556
7.4639, 2, -47.2469, -11.9851, 29.361, 13.6655, 67.2635, -166.556
7.47187, 2, -47.2469, -11.9851, 29.361, 13.6655, 67.2635, -166.556
7.47987, 2, -47.2469, -11.9851, 29.361, 13.6655, 67.2635, -166.556
7.48686, 2, -47.2469, -11.9851, 29.3609, 13.6655, 67.2635, -166.556
7.49585, 2, -47.2469, -11.9851, 29.361, 13.6654, 67.2635, -166.556
7.50384, 2, -47.2469, -11.9851, 29.361, 13.6654, 67.2635, -166.556
7.5129, 2, -47.2469, -11.9851, 29.361, 13.6654, 67.2634, -166.556
7.51984, 2, -47.2468, -11.9851, 29.361, 13.6654, 67.2635, -166.556
7.52784, 2, -47.2468, -11.9851, 29.361, 13.6653, 67.2634, -166.556
7.53591, 2, -47.2468, -11.9851, 29.361, 13.6653, 67.2634, -166.556
7.54385, 2, -47.2468, -11.9851, 29.361, 13.6653, 67.2634, -166.556
7.55183, 2, -47.2468, -11.9851, 29.361, 13.6653, 67.2634, -166.556
7.5599, 2, -47.2468, -11.9851, 29.361, 13.6653, 67.2634, -166.556
7.56783, 2, -47.2467, -11.9851, 29.361, 13.6653, 67.2633, -166.556
7.57585, 2, -47.2467, -11.9851, 29.361, 13.6652, 67.2633, -166.556
7.58386, 2, -47.2467, -11.9851, 29.361, 13.6652, 67.2633, -166.556
7.59186, 2, -47.2467, -11.9851, 29.361, 13.6652, 67.2633, -166.556
7.59988, 2, -47.2467, -11.9851, 29.361, 13.6652, 67.2633, -166.556
7.60785, 2, -47.2467, -11.9851, 29.361, 13.6652, 67.2633, -166.556
7.61585, 2, -47.2466, -11.9851, 29.361, 13.6652, 67.2633, -166.556
7.62388, 2, -47.2466, -11.9851, 29.361, 13.6651, 67.2633, -166.556
7.63186, 2, -47.2466, -11.9851, 29.361, 13.6651, 67.2632, -166.556
7.63988, 2, -47.2466, -11.9851, 29.361, 13.6651, 67.2633, -166.556
7.64792, 2, -47.2466, -11.9851, 29.361, 13.665, 67.2632, -166.556
7.65588, 2, -47.2466, -11.9851, 29.361, 13.665, 67.2632, -166.555
7.66384, 2, -47.2465, -11.9851, 29.361, 13.665, 67.2632, -166.555
7.67192, 2, -47.2465, -11.9851, 29.361, 13.665, 67.2633, -166.555
7.67992, 2, -47.2465, -11.9851, 29.361, 13.665, 67.2632, -166.555
7.68792, 2, -47.2465, -11.9851, 29.361, 13.665, 67.2632, -166.555
7.69599, 2, -47.2465, -11.9851, 29.361, 13.665, 67.2632, -166.555
7.70396, 2, -47.2464, -11.9851, 29.361, 13.665, 67.2632, -166.555
7.71196, 2, -47.2464, -11.9851, 29.361, 13.665, 67.2632, -166.555
7.72, 2, -47.2464, -11.9851, 29.361, 13.665, 67.2632, -166.555
7.72786, 2, -47.2464, -11.9851, 29.361, 13.665, 67.2631, -166.555
7.73587, 2, -47.2463, -11.9851, 29.361, 13.665, 67.2632, -166.555
7.74391, 2, -47.2463, -11.9851, 29.361, 13.665, 67.2632, -166.555
7.75195, 2, -47.2463, -11.9851, 29.361, 13.665, 67.2632, -166.555
7.75886, 2, -47.2463, -11.9851, 29.361, 13.665, 67.2632, -166.555
7.76812, 2, -47.2462, -11.9851, 29.361, 13.6649, 67.2632, -166.555
7.77485, 2, -47.2462, -11.9851, 29.361, 13.6649, 67.2632, -166.555
7.78413, 2, -47.2462, -11.9851, 29.361, 13.665, 67.2632, -166.555
7.79086, 2, -47.2462, -11.9851, 29.361, 13.665, 67.2632, -166.555
7.80035, 2, -47.2462, -11.9851, 29.361, 13.665, 67.2632, -166.555
7.80835, 2, -47.2462, -11.9851, 29.361, 13.6649, 67.2632, -166.555
7.81643, 2, -47.2462, -11.9851, 29.361, 13.6649, 67.2632, -166.555
7.82445, 2, -47.2462, -11.9851, 29.361, 13.6649, 67.2632, -166.555
7.8324, 2, -47.2461, -11.9851, 29.361, 13.6649, 67.2631, -166.555
7.84043, 2, -47.2461, -11.9851, 29.361, 13.6649, 67.2631, -166.555
7.84849, 2, -47.2461, -11.9851, 29.361, 13.6649, 67.2631, -166.555
7.85583, 2, -47.2461, -11.9851, 29.361, 13.6649, 67.2631, -166.555
7.86386, 2, -47.2461, -11.9851, 29.361, 13.6649, 67.2632, -166.555
7.87384, 2, -47.246, -11.9851, 29.361, 13.665, 67.2632, -166.555
7.87984, 2, -47.246, -11.9851, 29.361, 13.665, 67.2632, -166.555
7.88782, 2, -47.2461, -11.9851, 29.361, 13.6649, 67.2632, -166.555
7.89585, 2, -47.246, -11.9851, 29.361, 13.6649, 67.2632, -166.555
7.90386, 2, -47.246, -11.9851, 29.361, 13.6649, 67.2631, -166.555
7.91182, 2, -47.246, -11.9851, 29.361, 13.6649, 67.2632, -166.555
7.91984, 2, -47.2459, -11.9851, 29.361, 13.6648, 67.2631, -166.555
7.92785, 2, -47.2459, -11.9851, 29.361, 13.6649, 67.2631, -166.555
7.93583, 2, -47.2459, -11.9851, 29.361, 13.6649, 67.2632, -166.555
7.94383, 2, -47.2459, -11.9851, 29.361, 13.6648, 67.2631, -166.555
7.95186, 4, -47.2459, -11.9851, 29.361, 13.6648, 67.2631, -166.555
7.95982, 4, -47.2459, -11.9851, 29.361, 13.6648, 67.2631, -166.555
7.96783, 4, -47.2459, -11.9851, 29.361, 13.6648, 67.2631, -166.555
7.97591, 4, -47.2458, -11.9851, 29.361, 13.6649, 67.2631, -166.555
7.98487, 4, -47.2458, -11.9851, 29.361, 13.6648, 67.2631, -166.555
7.99184, 4, -47.2458, -11.9851, 29.361, 13.6648, 67.2631, -166.555
8.00085, 4, -47.2458, -11.9851, 29.361, 13.6648, 67.2631, -166.555
8.00781, 4, -47.2458, -11.9851, 29.361, 13.6648, 67.2631, -166.555
8.01585, 4, -47.2457, -11.9851, 29.361, 13.6648, 67.2631, -166.555
8.02386, 4, -47.2457, -11.9851, 29.361, 13.6648, 67.2631, -166.555
8.03182, 4, -47.2456, -11.9851, 29.361, 13.6648, 67.2631, -166.555
8.03984, 4, -47.2456, -11.9851, 29.361, 13.6648, 67.2631, -166.555
8.04788, 4, -47.2456, -11.9851, 29.361, 13.6648, 67.2631, -166.555
8.07509, 4, -47.2456, -11.9851, 29.361, 13.6648, 67.2631, -166.555
8.0769, 4, -47.2455, -11.9851, 29.361, 13.6648, 67.2631, -166.555
8.07966, 4, -47.2455, -11.9851, 29.361, 13.6648, 67.2631, -166.555
8.08153, 4, -47.2455, -11.9851, 29.361, 13.6648, 67.2631, -166.555
8.08947, 4, -47.2455, -11.9851, 29.361, 13.6648, 67.2631, -166.555
8.09591, 4, -47.2455, -11.9851, 29.361, 13.6648, 67.2631, -166.555
8.10382, 4, -47.2455, -11.9851, 29.361, 13.6648, 67.2631, -166.555
8.11188, 4, -47.2461, -11.9853, 29.3611, 13.6649, 67.2632, -166.555
8.11989, 4, -47.2475, -11.9864, 29.3621, 13.6654, 67.2633, -166.555
8.12781, 4, -47.2503, -11.9891, 29.3653, 13.67, 67.264, -166.554
8.13582, 4, -47.2546, -11.994, 29.3726, 13.6852, 67.267, -166.551
8.14392, 4, -47.2605, -12.0011, 29.3857, 13.7139, 67.2742, -166.545
8.15203, 4, -47.2684, -12.0107, 29.4063, 13.7599, 67.2865, -166.534
8.15989, 5, -47.2788, -12.0234, 29.4355, 13.8263, 67.3045, -166.519
8.16782, 5, -47.2913, -12.0392, 29.4726, 13.9108, 67.3283, -166.499
8.17593, 5, -47.3054, -12.0576, 29.5166, 14.0125, 67.357, -166.475
8.1839, 5, -47.3213, -12.0782, 29.5663, 14.1261, 67.3884, -166.448
8.19191, 5, -47.3389, -12.1011, 29.6197, 14.2471, 67.4219, -166.418
8.19998, 5, -47.3578, -12.1258, 29.6754, 14.3722, 67.457, -166.389
8.20792, 5, -47.3779, -12.1514, 29.7324, 14.4992, 67.493, -166.359
8.21598, 5, -47.3989, -12.1778, 29.7901, 14.6274, 67.5286, -166.329
8.22382, 5, -47.4205, -12.2044, 29.8482, 14.756, 67.5636, -166.298
8.23185, 5, -47.4422, -12.2313, 29.9067, 14.8845, 67.599, -166.267
8.23991, 5, -47.464, -12.2583, 29.9654, 15.0132, 67.6348, -166.236
8.24815, 5, -47.486, -12.2852, 30.0245, 15.1421, 67.67, -166.206
8.25652, 5, -47.508, -12.3123, 30.0839, 15.2709, 67.7047, -166.176
8.26401, 5, -47.5298, -12.3394, 30.1436, 15.4001, 67.7396, -166.146
8.27208, 5, -47.5517, -12.3665, 30.2035, 15.5293, 67.775, -166.116
8.2789, 5, -47.5625, -12.3801, 30.2336, 15.5939, 67.7925, -166.101
8.28819, 5, -47.595, -12.4209, 30.3241, 15.7877, 67.8439, -166.055
8.29494, 5, -47.6058, -12.4345, 30.3543, 15.8522, 67.8609, -166.04
8.30436, 5, -47.6273, -12.4755, 30.4454, 16.0457, 67.9127, -165.996
8.31244, 5, -47.6602, -12.503, 30.5064, 16.1748, 67.9471, -165.966
8.3204, 5, -47.6822, -12.5305, 30.5677, 16.304, 67.9808, -165.937
8.32844, 5, -47.7045, -12.5583, 30.6291, 16.4331, 68.0144, -165.907
8.33637, 5, -47.7271, -12.5861, 30.6908, 16.5622, 68.0485, -165.877
8.34494, 5, -47.7496, -12.6141, 30.7528, 16.6913, 68.0825, -165.848
8.35266, 5, -47.7608, -12.628, 30.784, 16.7558, 68.0993, -165.833
8.35983, 5, -47.7832, -12.6559, 30.8463, 16.8846, 68.1323, -165.805
8.36951, 5, -47.8171, -12.6979, 30.9404, 17.0783, 68.1817, -165.762
8.37728, 5, -47.8284, -12.726, 31.0033, 17.2076, 68.215, -165.733
8.3828, 5, -47.851, -12.7401, 31.0348, 17.2722, 68.2315, -165.718
8.39192, 5, -47.8738, -12.7681, 31.0981, 17.4013, 68.2641, -165.689
8.39981, 5, -47.8966, -12.7963, 31.1614, 17.5304, 68.2963, -165.661
8.4078, 5, -47.9192, -12.8244, 31.2251, 17.6596, 68.3289, -165.632
8.41582, 5, -47.9417, -12.8528, 31.289, 17.7885, 68.3618, -165.604
8.42381, 5, -47.9642, -12.8812, 31.3531, 17.9177, 68.3941, -165.576
8.43187, 5, -47.9866, -12.9096, 31.4176, 18.0471, 68.4258, -165.548
8.43981, 5, -48.0093, -12.9383, 31.4822, 18.1764, 68.4575, -165.519
8.4478, 5, -48.0322, -12.967, 31.547, 18.3057, 68.4895, -165.491
8.45589, 5, -48.0553, -12.9958, 31.6121, 18.4349, 68.5214, -165.463
8.4638, 5, -48.0783, -13.0244, 31.6773, 18.564, 68.5527, -165.435
8.47256, 5, -48.1014, -13.0532, 31.7427, 18.6933, 68.5838, -165.408
8.47988, 5, -48.1247, -13.082, 31.8083, 18.8225, 68.615, -165.38
8.48945, 5, -48.1478, -13.111, 31.8741, 18.9519, 68.6467, -165.353
8.49581, 5, -48.1709, -13.14, 31.9401, 19.0814, 68.6779, -165.325
8.50387, 5, -48.1943, -13.169, 32.0064, 19.2108, 68.7086, -165.297
8.5118, 5, -48.2175, -13.198, 32.073, 19.34, 68.739, -165.27
8.51987, 5, -48.2406, -13.2273, 32.1398, 19.4692, 68.7696, -165.244
8.52787, 5, -48.2638, -13.2565, 32.2069, 19.5986, 68.8006, -165.217
8.53581, 5, -48.287, -13.2858, 32.2741, 19.7279, 68.831, -165.19
8.54387, 5, -48.3102, -13.3151, 32.3415, 19.8574, 68.8611, -165.163
8.55185, 5, -48.3336, -13.3445, 32.4091, 19.9867, 68.8909, -165.135
8.55981, 5, -48.357, -13.3739, 32.4769, 20.1161, 68.9211, -165.108
8.56802, 5, -48.3805, -13.4033, 32.5448, 20.2453, 68.9515, -165.082
8.57525, 5, -48.4038, -13.4328, 32.6131, 20.3745, 68.9813, -165.056
8.58295, 5, -48.4275, -13.4624, 32.6815, 20.5038, 69.0106, -165.029
8.59181, 5, -48.4512, -13.4921, 32.7503, 20.6333, 69.0397, -165.003
8.59982, 5, -48.4748, -13.5218, 32.8194, 20.7629, 69.0694, -164.977
8.60787, 5, -48.4986, -13.5516, 32.8886, 20.8923, 69.099, -164.95
8.61581, 5, -48.5223, -13.5813, 32.958, 21.0217, 69.1281, -164.923
8.6238, 5, -48.5459, -13.6113, 33.0276, 21.151, 69.1569, -164.897
8.63187, 5, -48.5694, -13.6412, 33.0974, 21.2803, 69.1855, -164.872
8.63996, 5, -48.5931, -13.6712, 33.1674, 21.4098, 69.2146, -164.846
8.6496, 5, -48.6167, -13.7013, 33.2376, 21.5395, 69.2438, -164.82
8.65588, 5, -48.6403, -13.7315, 33.3081, 21.669, 69.2724, -164.794
8.66379, 5, -48.664, -13.7616, 33.3787, 21.7985, 69.3005, -164.768
8.6718, 5, -48.6874, -13.7917, 33.4497, 21.9278, 69.3284, -164.742
8.6799, 5, -48.7101, -13.8217, 33.5207, 22.0569, 69.3569, -164.716
8.68969, 5, -48.7321, -13.8516, 33.5916, 22.1853, 69.3857, -164.689
8.6959, 5, -48.7534, -13.881, 33.6622, 22.3127, 69.4143, -164.661
8.70396, 5, -48.7738, -13.91, 33.7321, 22.4384, 69.4431, -164.629
8.71236, 5, -48.793, -13.9385, 33.8011, 22.5617, 69.4725, -164.594
8.7202, 5, -48.8112, -13.9665, 33.8689, 22.682, 69.503, -164.554
8.7278, 6, -48.828, -13.9937, 33.9354, 22.7987, 69.5348, -164.509
8.73631, 6, -48.8432, -14.0201, 34.0006, 22.9117, 69.5669, -164.459
8.74279, 6, -48.8501, -14.033, 34.0327, 22.967, 69.5831, -164.432
8.75183, 6, -48.8677, -14.0704, 34.1266, 23.1269, 69.6332, -164.342
8.76065, 6, -48.8771, -14.0944, 34.1871, 23.2289, 69.6685, -164.275
8.76681, 6, -48.8811, -14.106, 34.2168, 23.2786, 69.6864, -164.239
8.77687, 6, -48.8905, -14.1393, 34.3037, 23.422, 69.7406, -164.124
8.78407, 6, -48.8947, -14.1606, 34.3598, 23.5135, 69.7777, -164.04
8.7908, 6, -48.8962, -14.1709, 34.3874, 23.5582, 69.7969, -163.997
8.80109, 6, -48.8987, -14.2009, 34.4683, 23.688, 69.8551, -163.861
8.80825, 6, -48.899, -14.2203, 34.5209, 23.7719, 69.8938, -163.766
8.81498, 7, -48.8987, -14.2296, 34.5469, 23.8129, 69.9134, -163.718
8.82489, 7, -48.8975, -14.2479, 34.5981, 23.8942, 69.9741, -163.567
8.83239, 7, -48.8937, -14.2745, 34.6734, 24.0125, 70.0145, -163.464
8.84037, 7, -48.8919, -14.2917, 34.7225, 24.0894, 70.0554, -163.358
8.84915, 7, -48.8877, -14.3, 34.7468, 24.1273, 70.0976, -163.249
8.85479, 7, -48.8825, -14.3163, 34.7948, 24.2023, 70.1189, -163.194
8.86546, 7, -48.8733, -14.3402, 34.8652, 24.3116, 70.182, -163.025
8.87184, 7, -48.8699, -14.348, 34.8884, 24.3475, 70.2032, -162.968
8.87979, 7, -48.8625, -14.363, 34.9342, 24.4182, 70.2467, -162.852
8.88785, 7, -48.8546, -14.3775, 34.9795, 24.4885, 70.29, -162.734
8.89584, 7, -48.8462, -14.392, 35.0242, 24.5572, 70.3332, -162.615
8.90379, 8, -48.837, -14.4063, 35.0684, 24.6261, 70.3774, -162.495
8.91374, 8, -48.8273, -14.4266, 35.1341, 24.7278, 70.4441, -162.312
8.91893, 8, -48.8172, -14.4333, 35.1557, 24.7618, 70.466, -162.251
8.9292, 8, -48.8009, -14.4533, 35.2202, 24.8623, 70.5335, -162.066
8.93586, 8, -48.7952, -14.46, 35.2415, 24.896, 70.5563, -162.005
8.9428, 8, -48.7836, -14.4731, 35.2839, 24.9625, 70.6012, -161.88
8.95178, 8, -48.772, -14.4857, 35.326, 25.0292, 70.6465, -161.755
8.95879, 8, -48.76, -14.4982, 35.3677, 25.0953, 70.6928, -161.629
8.96679, 8, -48.7478, -14.5107, 35.4093, 25.1615, 70.7383, -161.502
8.97578, 8, -48.7355, -14.5231, 35.4506, 25.2275, 70.7836, -161.375
8.98559, 9, -48.7229, -14.5411, 35.5121, 25.3265, 70.8532, -161.185
8.99099, 9, -48.7101, -14.5469, 35.5326, 25.3595, 70.8761, -161.121
8.99879, 9, -48.6972, -14.5586, 35.5734, 25.425, 70.9218, -160.995
9.0078, 9, -48.6842, -14.5703, 35.614, 25.4917, 70.9684, -160.868
9.01578, 9, -48.6711, -14.5821, 35.6546, 25.5574, 71.0147, -160.741
9.02386, 9, -48.6579, -14.5938, 35.6949, 25.6243, 71.0602, -160.614
9.03178, 9, -48.6445, -14.6052, 35.7352, 25.6903, 71.1068, -160.487
9.0398, 9, -48.6311, -14.6165, 35.7754, 25.7575, 71.1533, -160.36
9.04792, 9, -48.6176, -14.6278, 35.8153, 25.8243, 71.1991, -160.233
9.05583, 9, -48.6041, -14.6392, 35.8552, 25.8919, 71.2457, -160.107
9.06472, 9, -48.5905, -14.6507, 35.8951, 25.9593, 71.2928, -159.98
9.0727, 9, -48.5769, -14.6619, 35.9349, 26.0271, 71.3387, -159.854
9.07978, 10, -48.5632, -14.6728, 35.9747, 26.095, 71.3852, -159.728
9.08786, 10, -48.5496, -14.684, 36.0144, 26.1632, 71.4322, -159.602
9.09578, 10, -48.536, -14.6951, 36.054, 26.2317, 71.4783, -159.476
9.10381, 10, -48.5224, -14.7063, 36.0937, 26.2998, 71.5247, -159.351
9.11374, 10, -48.5087, -14.7175, 36.1333, 26.369, 71.5719, -159.225
9.11978, 10, -48.495, -14.7285, 36.1729, 26.4378, 71.618, -159.1
9.12786, 10, -48.4812, -14.7393, 36.2125, 26.5075, 71.6641, -158.975
9.13578, 10, -48.4673, -14.7503, 36.252, 26.5768, 71.711, -158.851
9.14379, 10, -48.4535, -14.7614, 36.2914, 26.6471, 71.757, -158.727
9.15196, 10, -48.4398, -14.7727, 36.3309, 26.717, 71.8029, -158.603
9.1598, 10, -48.4259, -14.7839, 36.3702, 26.7879, 71.8497, -158.48
9.16801, 11, -48.4122, -14.7948, 36.4095, 26.8582, 71.8958, -158.356
9.17601, 11, -48.3983, -14.8059, 36.4489, 26.9293, 71.9414, -158.233
9.18384, 11, -48.3844, -14.817, 36.488, 27.0001, 71.9879, -158.11
9.19193, 11, -48.3706, -14.8282, 36.5272, 27.0715, 72.034, -157.987
9.20018, 11, -48.3567, -14.8395, 36.5664, 27.1425, 72.0796, -157.864
9.20736, 11, -48.3427, -14.8505, 36.6055, 27.2142, 72.1259, -157.742
9.2163, 11, -48.3286, -14.8614, 36.6447, 27.2855, 72.1722, -157.62
9.22379, 11, -48.3144, -14.8723, 36.6838, 27.3578, 72.2176, -157.498
9.23178, 11, -48.3002, -14.8833, 36.7228, 27.4295, 72.2635, -157.377
9.24057, 11, -48.2859, -14.8945, 36.7619, 27.5022, 72.3097, -157.256
9.24788, 11, -48.2716, -14.9055, 36.8008, 27.5745, 72.355, -157.134
9.25478, 12, -48.2644, -14.9109, 36.8202, 27.611, 72.3777, -157.073
9.26507, 12, -48.2428, -14.9272, 36.8785, 27.7198, 72.4469, -156.892
9.27289, 12, -48.2283, -14.9382, 36.9173, 27.7929, 72.4922, -156.771
9.28005, 12, -48.2138, -14.9493, 36.956, 27.8656, 72.5373, -156.65
9.28682, 12, -48.2065, -14.9549, 36.9753, 27.9022, 72.5603, -156.59
9.29482, 12, -48.1918, -14.966, 37.0138, 27.9751, 72.6061, -156.47
9.30503, 12, -48.1694, -14.9824, 37.0715, 28.0848, 72.6737, -156.291
9.31229, 12, -48.1543, -14.9934, 37.11, 28.1576, 72.7195, -156.171
9.32072, 12, -48.1392, -15.0043, 37.1482, 28.2309, 72.7648, -156.051
9.32928, 12, -48.1239, -15.0155, 37.1863, 28.3038, 72.8095, -155.931
9.33729, 13, -48.1086, -15.0266, 37.2245, 28.3776, 72.8548, -155.812
9.34688, 13, -48.093, -15.0374, 37.2624, 28.4509, 72.9001, -155.693
9.35297, 13, -48.0852, -15.0428, 37.2814, 28.5246, 72.9445, -155.573
9.35978, 13, -48.0696, -15.0537, 37.3194, 28.5612, 72.9668, -155.514
9.36777, 13, -48.0538, -15.0646, 37.3571, 28.6349, 73.0122, -155.395
9.37582, 13, -48.0379, -15.0756, 37.3948, 28.7081, 73.0571, -155.276
9.38277, 13, -48.0218, -15.0866, 37.4325, 28.7817, 73.1012, -155.157
9.39182, 13, -48.0055, -15.0974, 37.47, 28.8548, 73.1463, -155.038
9.39978, 13, -47.989, -15.1081, 37.5073, 28.9285, 73.1914, -154.919
9.40781, 13, -47.9724, -15.1189, 37.5448, 29.0015, 73.2357, -154.8
9.41577, 13, -47.9558, -15.1297, 37.582, 29.0752, 73.2804, -154.682
9.424, 14, -47.939, -15.1407, 37.619, 29.1482, 73.3256, -154.563
9.43182, 14, -47.922, -15.1516, 37.6561, 29.2219, 73.3696, -154.445
9.44276, 14, -47.8965, -15.1676, 37.7112, 29.3319, 73.436, -154.268
9.44774, 14, -47.8879, -15.173, 37.7296, 29.3688, 73.4584, -154.209
9.45478, 14, -47.8706, -15.1838, 37.7663, 29.4417, 73.5025, -154.091
9.46376, 14, -47.853, -15.1946, 37.8028, 29.5153, 73.5463, -153.973
9.47177, 14, -47.8351, -15.2056, 37.8392, 29.5882, 73.591, -153.855
9.47985, 14, -47.8172, -15.2164, 37.8755, 29.6617, 73.6354, -153.737
9.48777, 14, -47.7991, -15.227, 37.9117, 29.7341, 73.6789, -153.62
9.49673, 14, -47.7808, -15.2376, 37.9478, 29.8072, 73.723, -153.502
9.50383, 14, -47.7624, -15.2483, 37.9839, 29.8798, 73.7674, -153.384
9.51194, 15, -47.7439, -15.2591, 38.0197, 29.9528, 73.8107, -153.267
9.51897, 15, -47.7253, -15.27, 38.0555, 30.0252, 73.8545, -153.149
9.52777, 15, -47.7066, -15.2806, 38.0914, 30.0983, 73.8988, -153.032
9.53576, 15, -47.6874, -15.2911, 38.1269, 30.1707, 73.9424, -152.915
9.54383, 15, -47.6682, -15.3017, 38.1624, 30.2436, 73.9855, -152.798
9.5518, 15, -47.6488, -15.3124, 38.1979, 30.3159, 74.0296, -152.68
9.56077, 15, -47.6292, -15.3233, 38.2331, 30.3886, 74.0731, -152.563
9.56777, 15, -47.6094, -15.3341, 38.2682, 30.4607, 74.1161, -152.446
9.57583, 15, -47.5896, -15.3448, 38.3034, 30.5332, 74.1596, -152.329
9.58457, 15, -47.5696, -15.3554, 38.3383, 30.6049, 74.2032, -152.212
9.59178, 15, -47.5494, -15.3661, 38.373, 30.6771, 74.2458, -152.096
9.5998, 16, -47.529, -15.3769, 38.4078, 30.7488, 74.2886, -151.98
9.6094, 16, -47.5083, -15.3879, 38.4425, 30.821, 74.332, -151.864
9.61592, 16, -47.4877, -15.3987, 38.477, 30.8926, 74.3746, -151.748
9.62476, 16, -47.4669, -15.4094, 38.5114, 30.9649, 74.4167, -151.633
9.63177, 16, -47.4458, -15.4201, 38.5459, 31.0365, 74.4598, -151.517
9.63977, 16, -47.4247, -15.4309, 38.5801, 31.1087, 74.5025, -151.401
9.64783, 16, -47.4035, -15.4418, 38.6142, 31.1799, 74.5441, -151.286
9.65578, 16, -47.382, -15.4529, 38.6485, 31.252, 74.5861, -151.171
9.6631, 16, -47.3602, -15.4638, 38.6824, 31.3232, 74.6286, -151.056
9.67114, 16, -47.3385, -15.4746, 38.7163, 31.395, 74.6701, -150.941
9.68, 16, -47.3167, -15.4855, 38.7503, 31.4659, 74.7114, -150.827
9.6881, 16, -47.2945, -15.4964, 38.7842, 31.5375, 74.7536, -150.712
9.69584, 17, -47.2722, -15.5076, 38.8178, 31.6083, 74.7954, -150.598
9.70399, 17, -47.2498, -15.5189, 38.8515, 31.6797, 74.8363, -150.484
9.71194, 17, -47.2271, -15.53, 38.8852, 31.7505, 74.8774, -150.37
9.7199, 17, -47.2041, -15.541, 38.9187, 31.8221, 74.9191, -150.256
9.72835, 17, -47.1811, -15.5523, 38.9521, 31.893, 74.96, -150.143
9.73577, 17, -47.1581, -15.5637, 38.9856, 31.9644, 75.0004, -150.03
9.74457, 17, -47.1348, -15.5753, 39.0187, 32.0352, 75.0416, -149.917
9.7518, 17, -47.1113, -15.5869, 39.0519, 32.1065, 75.0825, -149.804
9.76023, 17, -47.0877, -15.5982, 39.0852, 32.177, 75.1224, -149.692
9.76677, 17, -47.0758, -15.6039, 39.1018, 32.2126, 75.1423, -149.636
9.77482, 17, -47.0517, -15.6155, 39.1347, 32.2833, 75.1826, -149.524
9.78571, 18, -47.0156, -15.6332, 39.1842, 32.3894, 75.2425, -149.356
9.79598, 18, -46.9914, -15.6451, 39.2171, 32.4597, 75.3014, -149.189
9.80021, 18, -46.9671, -15.6568, 39.2499, 32.5305, 75.3213, -149.133
9.80677, 18, -46.9548, -15.6626, 39.2663, 32.5656, 75.3412, -149.078
9.81701, 18, -46.918, -15.6806, 39.3155, 32.6715, 75.3999, -148.912
9.82436, 18, -46.8931, -15.6928, 39.3481, 32.7416, 75.4383, -148.801
9.83234, 18, -46.868, -15.7051, 39.3807, 32.8125, 75.4773, -148.691
9.84029, 18, -46.8555, -15.7173, 39.4134, 32.8827, 75.5161, -148.581
9.84832, 18, -46.8302, -15.7233, 39.446, 32.9534, 75.5541, -148.471
9.85648, 18, -46.8048, -15.7418, 39.4784, 33.0234, 75.5921, -148.362
9.86454, 19, -46.7793, -15.7481, 39.5108, 33.0939, 75.6305, -148.253
9.87179, 19, -46.7535, -15.7608, 39.5271, 33.129, 75.6497, -148.198
9.87975, 19, -46.7276, -15.7734, 39.5594, 33.1985, 75.6873, -148.089
9.88779, 19, -46.7016, -15.7859, 39.5917, 33.2687, 75.7243, -147.981
9.8958, 19, -46.6754, -15.7986, 39.624, 33.3383, 75.7617, -147.872
9.90376, 19, -46.649, -15.8116, 39.6563, 33.4084, 75.7993, -147.764
9.91177, 19, -46.6224, -15.8247, 39.6883, 33.4778, 75.8361, -147.657
9.91975, 19, -46.5955, -15.8378, 39.7204, 33.5479, 75.8724, -147.55
9.92781, 19, -46.5684, -15.8507, 39.7526, 33.6173, 75.9093, -147.443
9.93576, 19, -46.5413, -15.8639, 39.7845, 33.6873, 75.9462, -147.336
9.94377, 19, -46.5142, -15.8774, 39.8164, 33.7565, 75.9822, -147.23
9.95178, 20, -46.4868, -15.891, 39.8483, 33.8264, 76.0177, -147.124
9.96002, 20, -46.4593, -15.9044, 39.8802, 33.8955, 76.0536, -147.017
9.96848, 20, -46.4315, -15.918, 39.9119, 33.965, 76.0896, -146.912
9.97575, 20, -46.4035, -15.9318, 39.9436, 34.0338, 76.1248, -146.806
9.98375, 20, -46.3756, -15.9458, 39.9754, 34.103, 76.1595, -146.701
9.99183, 20, -46.3473, -15.9598, 40.007, 34.1716, 76.1945, -146.596
10.0008, 20, -46.319, -15.9736, 40.0385, 34.2407, 76.23, -146.492
10.0098, 20, -46.2761, -15.9948, 40.0859, 34.3436, 76.2815, -146.336
10.0158, 20, -46.2617, -16.002, 40.1017, 34.3782, 76.2984, -146.284
10.0238, 20, -46.2329, -16.0165, 40.1331, 34.4469, 76.3324, -146.18
10.0318, 20, -46.2039, -16.0307, 40.1644, 34.5156, 76.3668, -146.076
10.039, 21, -46.1746, -16.0451, 40.1958, 34.5842, 76.4005, -145.973
10.0468, 21, -46.1452, -16.0598, 40.227, 34.6525, 76.4337, -145.869
10.0558, 21, -46.1154, -16.0747, 40.2581, 34.721, 76.4667, -145.766
10.0637, 21, -46.0854, -16.0894, 40.2892, 34.789, 76.5003, -145.664
10.0717, 21, -46.0554, -16.1041, 40.3202, 34.8572, 76.5335, -145.561
10.0798, 21, -46.0253, -16.1191, 40.3511, 34.9247, 76.566, -145.459
10.0878, 21, -45.9949, -16.1344, 40.3818, 34.9928, 76.5981, -145.358
10.0958, 21, -45.9643, -16.1495, 40.4127, 35.06, 76.6304, -145.256
10.1037, 21, -45.9336, -16.1645, 40.4434, 35.1278, 76.6632, -145.155
10.1118, 21, -45.9027, -16.1799, 40.4739, 35.1947, 76.6953, -145.054
10.1197, 21, -45.8716, -16.1955, 40.5043, 35.2625, 76.7269, -144.953
10.1278, 22, -45.8403, -16.2109, 40.5348, 35.3295, 76.7583, -144.853
10.1359, 22, -45.8087, -16.2263, 40.5651, 35.397, 76.7902, -144.752
10.1445, 22, -45.777, -16.2419, 40.5953, 35.4637, 76.822, -144.652
10.1518, 22, -45.745, -16.2578, 40.6255, 35.5306, 76.8529, -144.551
10.1597, 22, -45.7129, -16.2735, 40.6556, 35.5972, 76.8833, -144.451
10.168, 22, -45.6806, -16.2892, 40.6855, 35.6636, 76.9137, -144.352
10.1757, 22, -45.648, -16.3053, 40.7153, 35.73, 76.9446, -144.252
10.185, 22, -45.6153, -16.3215, 40.7452, 35.7958, 76.9751, -144.153
10.1918, 22, -45.5823, -16.3376, 40.7749, 35.862, 77.005, -144.054
10.1999, 22, -45.5492, -16.3536, 40.8044, 35.9273, 77.0346, -143.955
10.2078, 22, -45.5159, -16.3699, 40.8338, 35.9934, 77.0644, -143.856
10.2161, 23, -45.4822, -16.3863, 40.8632, 36.0583, 77.0946, -143.757
10.2239, 23, -45.4484, -16.4025, 40.8923, 36.1241, 77.1242, -143.658
10.2318, 23, -45.4146, -16.4188, 40.9214, 36.1888, 77.1532, -143.56
10.2399, 23, -45.3805, -16.4354, 40.9504, 36.2544, 77.1817, -143.461
10.2478, 23, -45.346, -16.452, 40.9793, 36.3189, 77.2105, -143.363
10.2558, 23, -45.3112, -16.4684, 41.0079, 36.3838, 77.2396, -143.265
10.2639, 23, -45.2764, -16.4849, 41.0364, 36.4481, 77.2683, -143.167
10.272, 23, -45.2414, -16.5018, 41.0649, 36.5123, 77.2963, -143.07
10.28, 23, -45.206, -16.5185, 41.0934, 36.5765, 77.3241, -142.973
10.2868, 23, -45.1882, -16.5268, 41.1074, 36.6079, 77.3381, -142.924
10.2961, 23, -45.1346, -16.5518, 41.1494, 36.7035, 77.3806, -142.778
10.3028, 24, -45.1166, -16.5604, 41.1633, 36.7349, 77.3948, -142.729
10.3126, 24, -45.0625, -16.5857, 41.205, 36.8297, 77.4362, -142.584
10.3212, 24, -45.0261, -16.6024, 41.2326, 36.8922, 77.4632, -142.487
10.3267, 24, -45.0077, -16.6109, 41.2463, 36.9233, 77.4767, -142.438
10.3365, 24, -44.9526, -16.6365, 41.2872, 37.0174, 77.5177, -142.293
10.3444, 24, -44.9156, -16.6533, 41.3144, 37.0794, 77.5451, -142.197
10.3525, 24, -44.8969, -16.6617, 41.3278, 37.1419, 77.5719, -142.1
10.3611, 24, -44.8406, -16.6875, 41.3679, 37.2032, 77.5983, -142.004
10.3677, 24, -44.8217, -16.696, 41.3812, 37.2342, 77.6114, -141.956
10.3758, 24, -44.7838, -16.713, 41.4078, 37.2958, 77.6377, -141.86
10.3837, 24, -44.7457, -16.7299, 41.4342, 37.3566, 77.6645, -141.764
10.3925, 25, -44.7073, -16.7471, 41.4603, 37.418, 77.691, -141.668
10.3987, 25, -44.6686, -16.7642, 41.4864, 37.478, 77.717, -141.571
10.4077, 25, -44.6296, -16.7812, 41.5122, 37.5386, 77.7425, -141.475
10.4158, 25, -44.5905, -16.7983, 41.5379, 37.5986, 77.7678, -141.379
10.4237, 25, -44.551, -16.8156, 41.5632, 37.658, 77.7934, -141.283
10.4317, 25, -44.5114, -16.8326, 41.5885, 37.7181, 77.8193, -141.187
10.4397, 25, -44.4716, -16.8496, 41.6136, 37.7767, 77.8448, -141.092
10.4478, 25, -44.4317, -16.8668, 41.6385, 37.8365, 77.8698, -140.996
10.4557, 25, -44.3912, -16.8839, 41.6632, 37.8951, 77.8946, -140.901
10.4638, 25, -44.3505, -16.9008, 41.6875, 37.9539, 77.9192, -140.805
10.4717, 25, -44.3098, -16.9178, 41.7118, 38.0126, 77.9442, -140.71
10.4798, 26, -44.2688, -16.935, 41.7359, 38.0702, 77.9694, -140.615
10.4879, 26, -44.2274, -16.952, 41.7599, 38.1286, 77.9941, -140.52
10.4957, 26, -44.1858, -16.9688, 41.7835, 38.1858, 78.0183, -140.424
10.5047, 26, -44.1441, -16.9858, 41.807, 38.2432, 78.042, -140.329
10.5118, 26, -44.1021, -17.003, 41.8302, 38.3004, 78.0658, -140.234
10.5197, 26, -44.0596, -17.0198, 41.8533, 38.3564, 78.0899, -140.138
10.5277, 26, -44.0171, -17.0366, 41.8762, 38.4134, 78.1141, -140.043
10.5358, 26, -43.9744, -17.0537, 41.8987, 38.4692, 78.1379, -139.947
10.5438, 26, -43.9313, -17.0707, 41.9212, 38.5249, 78.1612, -139.853
10.5517, 26, -43.8879, -17.0873, 41.9434, 38.5808, 78.1843, -139.757
10.5607, 26, -43.8444, -17.104, 41.9655, 38.6354, 78.2073, -139.663
10.5709, 27, -43.7787, -17.1293, 41.9981, 38.7186, 78.2425, -139.52
10.5757, 27, -43.7566, -17.1376, 42.0088, 38.7458, 78.2543, -139.473
10.5838, 27, -43.7123, -17.154, 42.0301, 38.8, 78.2775, -139.377
10.5917, 27, -43.6678, -17.1707, 42.0512, 38.855, 78.3004, -139.282
10.5997, 27, -43.623, -17.1875, 42.0722, 38.9087, 78.3229, -139.187
10.6096, 27, -43.5779, -17.204, 42.093, 38.9625, 78.3451, -139.092
10.6158, 27, -43.5326, -17.2203, 42.1134, 39.0163, 78.3675, -138.997
10.6238, 27, -43.4871, -17.2368, 42.1336, 39.0688, 78.3903, -138.902
10.6318, 27, -43.4413, -17.2533, 42.1535, 39.122, 78.413, -138.807
10.6397, 27, -43.3952, -17.2695, 42.1732, 39.1745, 78.4353, -138.712
10.6478, 27, -43.3489, -17.2856, 42.1929, 39.2261, 78.4573, -138.617
10.6558, 28, -43.3024, -17.302, 42.2123, 39.2786, 78.479, -138.523
10.6655, 28, -43.2555, -17.3182, 42.2313, 39.3298, 78.5008, -138.428
10.6717, 28, -43.2086, -17.3341, 42.2501, 39.3809, 78.5227, -138.333
10.6797, 28, -43.1614, -17.35, 42.2687, 39.4327, 78.545, -138.238
10.6878, 28, -43.114, -17.3661, 42.2871, 39.4828, 78.567, -138.144
10.6958, 28, -43.0662, -17.3821, 42.3054, 39.5333, 78.5885, -138.049
10.7039, 28, -43.0183, -17.3978, 42.3234, 39.5841, 78.6098, -137.954
10.7119, 28, -42.9701, -17.4135, 42.341, 39.6336, 78.6307, -137.859
10.7198, 28, -42.9216, -17.4295, 42.3585, 39.6836, 78.6517, -137.765
10.7279, 28, -42.8728, -17.4452, 42.3757, 39.7335, 78.673, -137.67
10.736, 28, -42.8238, -17.4606, 42.3925, 39.7823, 78.6944, -137.575
10.7441, 29, -42.7746, -17.476, 42.4093, 39.8314, 78.7156, -137.481
10.7518, 29, -42.7253, -17.4917, 42.426, 39.8802, 78.7362, -137.386
10.7598, 29, -42.6755, -17.507, 42.4423, 39.928, 78.7568, -137.291
10.7678, 29, -42.6255, -17.5221, 42.4583, 39.9762, 78.7771, -137.196
10.7759, 29, -42.5754, -17.5374, 42.4742, 40.0241, 78.7975, -137.101
10.7843, 29, -42.525, -17.5527, 42.4896, 40.0707, 78.8181, -137.006
10.7907, 29, -42.4997, -17.5603, 42.4971, 40.0942, 78.8285, -136.959
10.8002, 29, -42.4234, -17.5827, 42.5196, 40.1649, 78.8596, -136.817
10.8067, 29, -42.3979, -17.5901, 42.5272, 40.1879, 78.8697, -136.769
10.8148, 29, -42.3467, -17.6051, 42.542, 40.2338, 78.8898, -136.675
10.8243, 29, -42.2693, -17.6274, 42.5634, 40.3034, 78.9194, -136.533
10.8323, 30, -42.2175, -17.6418, 42.5776, 40.3483, 78.939, -136.439
10.8389, 30, -42.1915, -17.6491, 42.5846, 40.3708, 78.9489, -136.392
10.8483, 30, -42.1393, -17.6711, 42.6049, 40.4395, 78.9789, -136.25
10.8563, 30, -42.0869, -17.6784, 42.6116, 40.4839, 78.9988, -136.156
10.8644, 30, -42.0342, -17.6927, 42.6249, 40.5059, 79.0184, -136.061
10.8717, 30, -41.9814, -17.7068, 42.638, 40.5507, 79.0281, -136.014
10.8797, 30, -41.9283, -17.7209, 42.6508, 40.5952, 79.0473, -135.92
10.8897, 30, -41.8482, -17.7423, 42.6693, 40.6602, 79.0759, -135.778
10.8958, 30, -41.8214, -17.7493, 42.6754, 40.6821, 79.0854, -135.731
10.9038, 30, -41.7676, -17.763, 42.6874, 40.7258, 79.1048, -135.636
10.9117, 30, -41.7136, -17.7768, 42.6991, 40.7685, 79.1243, -135.542
10.9197, 31, -41.6594, -17.7907, 42.7106, 40.8109, 79.1438, -135.447
10.9278, 31, -41.6049, -17.8046, 42.7218, 40.8539, 79.1628, -135.353
10.9359, 31, -41.5502, -17.8181, 42.733, 40.8961, 79.1815, -135.259
10.9438, 31, -41.4952, -17.8315, 42.744, 40.9373, 79.1999, -135.165
10.9517, 31, -41.4401, -17.8449, 42.7547, 40.9789, 79.2182, -135.071
10.9597, 31, -41.3847, -17.8583, 42.7651, 41.0206, 79.2365, -134.976
10.9678, 31, -41.3291, -17.8716, 42.7752, 41.061, 79.255, -134.882
10.9748, 31, -41.2733, -17.8845, 42.785, 41.1013, 79.2738, -134.787
10.9837, 31, -41.2173, -17.8974, 42.7947, 41.1424, 79.2924, -134.693
10.9918, 31, -41.1612, -17.9104, 42.8041, 41.1826, 79.3106, -134.598
11.0013, 31, -41.1048, -17.9234, 42.8131, 41.2219, 79.3286, -134.504
11.0083, 32, -41.0482, -17.9362, 42.822, 41.2617, 79.3465, -134.41
11.0165, 32, -40.9914, -17.9487, 42.8307, 41.3018, 79.3641, -134.316
11.0237, 32, -40.9343, -17.9612, 42.8391, 41.3407, 79.382, -134.222
11.0318, 32, -40.877, -17.9737, 42.8474, 41.3793, 79.3999, -134.128
11.0397, 32, -40.8196, -17.9862, 42.8555, 41.4186, 79.418, -134.034
11.0477, 32, -40.7617, -17.9985, 42.8632, 41.4574, 79.4361, -133.94
11.059, 32, -40.6748, -18.0165, 42.8746, 41.5138, 79.4626, -133.799
11.0638, 32, -40.6457, -18.0225, 42.8782, 41.5326, 79.4713, -133.752
11.0717, 32, -40.5874, -18.0346, 42.8852, 41.5707, 79.4885, -133.658
11.0798, 32, -40.5288, -18.0467, 42.8918, 41.6082, 79.5054, -133.565
11.0877, 32, -40.47, -18.0584, 42.8984, 41.6448, 79.5224, -133.471
11.0957, 33, -40.4109, -18.0698, 42.9047, 41.6815, 79.5394, -133.377
11.1038, 33, -40.3518, -18.0813, 42.9108, 41.7187, 79.5566, -133.283
11.1118, 33, -40.2923, -18.0928, 42.9167, 41.7549, 79.5739, -133.19
11.1207, 33, -40.2328, -18.1043, 42.9224, 41.7903, 79.5911, -133.096
11.1287, 33, -40.1731, -18.1157, 42.9278, 41.8257, 79.6078, -133.003
11.1358, 33, -40.1131, -18.1268, 42.9329, 41.8615, 79.6243, -132.909
11.1437, 33, -40.053, -18.1377, 42.9377, 41.8968, 79.6407, -132.816
11.1517, 33, -39.9926, -18.1487, 42.9422, 41.9312, 79.6569, -132.722
11.1598, 33, -39.932, -18.1597, 42.9465, 41.9657, 79.6733, -132.628
11.1677, 33, -39.8711, -18.1708, 42.9507, 42.0004, 79.6898, -132.534
11.1757, 33, -39.8099, -18.1815, 42.9547, 42.0348, 79.7066, -132.441
11.1839, 34, -39.7487, -18.1919, 42.9585, 42.0682, 79.7233, -132.347
11.1921, 34, -39.6873, -18.2022, 42.9621, 42.1014, 79.7398, -132.254
11.1993, 34, -39.6257, -18.2126, 42.9655, 42.1352, 79.7559, -132.161
11.2078, 34, -39.5638, -18.2229, 42.9686, 42.1689, 79.7716, -132.068
11.2159, 34, -39.5018, -18.2332, 42.9714, 42.2017, 79.7873, -131.975
11.2239, 34, -39.4395, -18.2432, 42.974, 42.2342, 79.8027, -131.882
11.2324, 34, -39.377, -18.2529, 42.9764, 42.2667, 79.8183, -131.789
11.2397, 34, -39.3144, -18.2625, 42.9785, 42.2996, 79.8339, -131.696
11.2477, 34, -39.2517, -18.2722, 42.9804, 42.3316, 79.8498, -131.602
11.2568, 34, -39.1888, -18.2818, 42.9821, 42.3629, 79.8658, -131.51
11.2638, 34, -39.1256, -18.2915, 42.9836, 42.394, 79.8815, -131.416
11.2719, 35, -39.0622, -18.301, 42.9848, 42.4256, 79.897, -131.324
11.2799, 35, -38.9986, -18.3102, 42.9858, 42.4568, 79.9122, -131.23
11.2883, 35, -38.9348, -18.3193, 42.9866, 42.4872, 79.9274, -131.138
11.2961, 35, -38.8708, -18.3282, 42.9871, 42.5173, 79.9422, -131.045
11.3028, 35, -38.8387, -18.3327, 42.9873, 42.5322, 79.9497, -130.998
11.3122, 35, -38.7422, -18.346, 42.9875, 42.5777, 79.9723, -130.859
11.3202, 35, -38.6777, -18.3549, 42.9876, 42.6075, 79.9875, -130.767
11.3284, 35, -38.6129, -18.3636, 42.9876, 42.6365, 80.0029, -130.675
11.3387, 35, -38.548, -18.372, 42.9876, 42.6651, 80.0182, -130.582
11.3443, 35, -38.483, -18.3802, 42.9875, 42.6938, 80.0333, -130.49
11.3525, 35, -38.4177, -18.3883, 42.9874, 42.7228, 80.048, -130.397
11.3605, 36, -38.3523, -18.3964, 42.9871, 42.7513, 80.0624, -130.304
11.3714, 36, -38.2867, -18.4045, 42.9866, 42.7791, 80.0767, -130.212
11.3764, 36, -38.2538, -18.4085, 42.9862, 42.7929, 80.0838, -130.166
11.3837, 36, -38.1879, -18.4165, 42.9853, 42.8202, 80.098, -130.073
11.3917, 36, -38.1218, -18.4244, 42.9841, 42.8479, 80.1122, -129.981
11.3998, 36, -38.0556, -18.432, 42.9826, 42.8757, 80.1265, -129.889
11.4077, 36, -37.9892, -18.4392, 42.9808, 42.9028, 80.1411, -129.797
11.4147, 36, -37.9226, -18.4464, 42.9787, 42.9292, 80.1557, -129.705
11.4237, 36, -37.8557, -18.4536, 42.9762, 42.9553, 80.1702, -129.613
11.4317, 36, -37.7887, -18.4607, 42.9735, 42.9815, 80.1845, -129.522
11.4387, 36, -37.7216, -18.4677, 42.9706, 43.008, 80.1984, -129.43
11.4477, 37, -37.6543, -18.4748, 42.9673, 43.0341, 80.2122, -129.338
11.4577, 37, -37.5868, -18.4818, 42.9637, 43.0597, 80.2258, -129.246
11.4655, 37, -37.4852, -18.4918, 42.9578, 43.0971, 80.246, -129.108
11.4733, 37, -37.4173, -18.4981, 42.9534, 43.1221, 80.2595, -129.017
11.4798, 37, -37.3832, -18.5012, 42.9511, 43.1347, 80.2663, -128.971
11.4867, 37, -37.3149, -18.5074, 42.9463, 43.1599, 80.2801, -128.88
11.4958, 37, -37.2466, -18.5135, 42.9412, 43.1846, 80.2939, -128.788
11.507, 37, -37.1437, -18.5225, 42.9334, 43.2205, 80.3147, -128.651
11.5117, 37, -37.1094, -18.5254, 42.9306, 43.2321, 80.3214, -128.605
11.5197, 37, -37.0405, -18.5313, 42.925, 43.2554, 80.3348, -128.514
11.5277, 37, -36.9714, -18.5372, 42.919, 43.279, 80.3479, -128.423
11.5359, 38, -36.9021, -18.5429, 42.9129, 43.3025, 80.3608, -128.331
11.5437, 38, -36.8325, -18.5485, 42.9065, 43.3256, 80.3735, -128.24
11.5517, 38, -36.763, -18.5539, 42.8997, 43.3481, 80.3861, -128.149
11.5597, 38, -36.6931, -18.559, 42.8927, 43.3701, 80.3988, -128.057
11.5678, 38, -36.6232, -18.5639, 42.8855, 43.3919, 80.4115, -127.966
11.5758, 38, -36.553, -18.5688, 42.8783, 43.4137, 80.4244, -127.875
11.5838, 38, -36.4827, -18.5736, 42.8708, 43.4358, 80.4375, -127.785
11.5917, 38, -36.4122, -18.5783, 42.863, 43.4575, 80.4506, -127.694
11.5997, 38, -36.3416, -18.5828, 42.8549, 43.4787, 80.4636, -127.603
11.6078, 38, -36.2708, -18.5872, 42.8466, 43.4992, 80.4762, -127.513
11.6158, 38, -36.1998, -18.5914, 42.8379, 43.5194, 80.4887, -127.422
11.6237, 39, -36.1287, -18.5956, 42.829, 43.5392, 80.501, -127.332
11.6318, 39, -36.0574, -18.5998, 42.8201, 43.5593, 80.5132, -127.242
11.6397, 39, -35.9858, -18.6039, 42.8109, 43.5795, 80.5253, -127.151
11.6478, 39, -35.9142, -18.6079, 42.8015, 43.5995, 80.5375, -127.061
11.6558, 39, -35.8423, -18.6117, 42.7919, 43.6191, 80.5498, -126.97
11.6637, 39, -35.7703, -18.6154, 42.782, 43.6381, 80.5621, -126.88
11.6718, 39, -35.6982, -18.6189, 42.772, 43.6568, 80.5746, -126.79
11.6809, 39, -35.6259, -18.6222, 42.7618, 43.6752, 80.5871, -126.7
11.6878, 39, -35.5534, -18.6253, 42.7514, 43.6936, 80.5996, -126.609
