hehonglu123/Motion-Primitive-Planning/realrobot/recorded_data/repeatibility/from_NX/v600_iteration3.csv
timestamp, cmd_num, J1, J2, J3, J4, J5, J6
0.000358, -1, 39.6327, 32.4437, 11.8321, 12.5483, 113.715, -48.8695
0.00314, -1, 39.6327, 32.4437, 11.8321, 12.5483, 113.715, -48.8694
0.007935, -1, 39.6327, 32.4437, 11.8321, 12.5483, 113.715, -48.8694
0.034828, -1, 39.6327, 32.4437, 11.8321, 12.5483, 113.716, -48.8695
0.036216, -1, 39.6327, 32.4437, 11.8321, 12.5483, 113.716, -48.8695
0.037391, -1, 39.6327, 32.4437, 11.8321, 12.5483, 113.716, -48.8695
0.039596, -1, 39.6327, 32.4437, 11.8321, 12.5484, 113.715, -48.8695
0.047747, -1, 39.6325, 32.4436, 11.8321, 12.5484, 113.715, -48.8695
0.055813, -1, 39.6311, 32.4435, 11.8321, 12.5483, 113.715, -48.8695
0.206242, -1, 38.0782, 31.6482, 12.1444, 12.562, 112.894, -50.9652
0.208851, -1, 37.987, 31.6008, 12.1639, 12.5633, 112.843, -51.0933
0.210125, -1, 37.987, 31.6008, 12.1639, 12.5633, 112.843, -51.0933
0.211302, -1, 37.987, 31.6008, 12.1639, 12.5633, 112.843, -51.0933
0.213379, -1, 37.8946, 31.5529, 12.1833, 12.5644, 112.793, -51.222
0.214706, -1, 37.8946, 31.5529, 12.1833, 12.5644, 112.793, -51.222
0.216668, -1, 37.8013, 31.5046, 12.2027, 12.5656, 112.742, -51.3511
0.221861, -1, 37.7071, 31.4561, 12.2221, 12.5667, 112.691, -51.4805
0.223114, -1, 37.7071, 31.4561, 12.2221, 12.5667, 112.691, -51.4805
0.225224, -1, 37.6123, 31.4073, 12.2415, 12.568, 112.639, -51.6101
0.226494, -1, 37.6123, 31.4073, 12.2415, 12.568, 112.639, -51.6101
0.228369, -1, 37.5169, 31.3584, 12.2609, 12.5692, 112.588, -51.7398
0.229762, -1, 37.5169, 31.3584, 12.2609, 12.5692, 112.588, -51.7398
0.23102, -1, 37.5169, 31.3584, 12.2609, 12.5692, 112.588, -51.7398
0.233779, -1, 37.4212, 31.3095, 12.2802, 12.5704, 112.537, -51.8696
0.235451, -1, 37.4212, 31.3095, 12.2802, 12.5704, 112.537, -51.8696
0.237512, -1, 37.3253, 31.2605, 12.2996, 12.5716, 112.485, -51.9993
0.238761, -1, 37.3253, 31.2605, 12.2996, 12.5716, 112.485, -51.9993
0.240875, -1, 37.2293, 31.2116, 12.319, 12.5728, 112.434, -52.1292
0.242086, -1, 37.2293, 31.2116, 12.319, 12.5728, 112.434, -52.1292
0.243356, -1, 37.2293, 31.2116, 12.319, 12.5728, 112.434, -52.1292
0.246422, -1, 37.1332, 31.1627, 12.3385, 12.5741, 112.383, -52.2591
0.25236, -1, 36.9409, 31.065, 12.3772, 12.5767, 112.28, -52.5193
0.25374, -1, 36.9409, 31.065, 12.3772, 12.5767, 112.28, -52.5193
0.256981, -1, 36.9409, 31.065, 12.3772, 12.5767, 112.28, -52.5193
0.26439, -1, 36.749, 30.9673, 12.4159, 12.5793, 112.125, -52.9098
0.271735, -1, 36.5575, 30.8696, 12.4548, 12.5819, 112.074, -53.0398
0.279757, -1, 36.3659, 30.772, 12.4937, 12.5845, 111.971, -53.3001
0.28672, -1, 36.1744, 30.6742, 12.5325, 12.5871, 111.868, -53.5606
0.295738, -1, 35.9829, 30.5763, 12.5714, 12.5897, 111.765, -53.8212
0.303729, -1, 35.7915, 30.4784, 12.6104, 12.5923, 111.662, -54.0819
0.310716, -1, 35.5998, 30.3803, 12.6492, 12.5949, 111.559, -54.3421
0.319753, -1, 35.4077, 30.2821, 12.688, 12.5975, 111.456, -54.6024
0.327844, -1, 35.2153, 30.1837, 12.7268, 12.6001, 111.353, -54.8631
0.335726, -1, 35.0229, 30.0854, 12.7657, 12.6027, 111.25, -55.1239
0.343738, -1, 34.8305, 29.9869, 12.8045, 12.6054, 111.146, -55.3845
0.350766, -1, 34.6382, 29.8884, 12.8433, 12.6079, 111.043, -55.6452
0.35979, -1, 34.4459, 29.7899, 12.8823, 12.6105, 110.94, -55.906
0.367732, -1, 34.2537, 29.6916, 12.9212, 12.6132, 110.837, -56.167
0.374719, -1, 34.0617, 29.5933, 12.9601, 12.6157, 110.734, -56.4278
0.383719, -1, 33.8699, 29.495, 12.9991, 12.6184, 110.631, -56.6886
0.394158, -1, 33.6781, 29.3967, 13.0379, 12.6211, 110.528, -56.9495
0.398767, -1, 33.486, 29.2984, 13.0768, 12.6238, 110.425, -57.2106
0.407747, -1, 33.2936, 29.2, 13.1158, 12.6265, 110.322, -57.4716
0.415744, -1, 33.101, 29.1014, 13.1547, 12.6291, 110.219, -57.7326
0.423797, -1, 32.9082, 29.0029, 13.1935, 12.6317, 110.116, -57.9938
0.431729, -1, 32.7151, 28.9043, 13.2325, 12.6344, 110.013, -58.255
0.439755, -1, 32.5216, 28.8056, 13.2713, 12.6371, 109.909, -58.5163
0.447724, -1, 32.3279, 28.7069, 13.3102, 12.6398, 109.807, -58.7772
0.455775, -1, 32.1339, 28.6081, 13.3491, 12.6426, 109.703, -59.0383
0.463806, -1, 31.9399, 28.5094, 13.3879, 12.6453, 109.6, -59.2996
0.471729, -1, 31.746, 28.4105, 13.4269, 12.648, 109.497, -59.5611
0.47974, -1, 31.5524, 28.3117, 13.466, 12.6509, 109.394, -59.8223
0.487809, -1, 31.3591, 28.213, 13.5048, 12.6537, 109.291, -60.0835
0.495731, -1, 31.1662, 28.1145, 13.5439, 12.6565, 109.188, -60.3448
0.503726, -1, 30.9737, 28.016, 13.583, 12.6593, 109.085, -60.6064
0.511837, -1, 30.7816, 27.9175, 13.6219, 12.6622, 108.981, -60.8677
0.519735, -1, 30.5896, 27.8189, 13.6609, 12.665, 108.878, -61.129
0.527776, -1, 30.3976, 27.7203, 13.6999, 12.6678, 108.775, -61.3904
0.535808, -1, 30.2054, 27.6215, 13.7389, 12.6705, 108.672, -61.652
0.543727, -1, 30.0131, 27.5229, 13.7779, 12.6732, 108.569, -61.9137
0.55185, -1, 29.8203, 27.4242, 13.8169, 12.6759, 108.465, -62.1754
0.559964, -1, 29.6269, 27.3254, 13.8557, 12.6785, 108.362, -62.437
0.567728, -1, 29.4331, 27.2266, 13.8947, 12.6811, 108.259, -62.6988
0.575796, -1, 29.2391, 27.1277, 13.9336, 12.6836, 108.156, -62.9607
0.585043, -1, 29.0448, 27.0288, 13.9726, 12.6861, 108.052, -63.222
0.59177, -1, 28.8504, 26.9298, 14.0116, 12.6886, 107.949, -63.4835
0.600198, -1, 28.6562, 26.8309, 14.0505, 12.6911, 107.845, -63.7452
0.607546, -1, 28.462, 26.732, 14.0895, 12.6935, 107.742, -64.0072
0.61589, -1, 28.2684, 26.6333, 14.1286, 12.6961, 107.639, -64.2685
0.624208, -1, 28.0753, 26.5345, 14.1675, 12.6984, 107.535, -64.5301
0.631468, -1, 27.8824, 26.4358, 14.2066, 12.7009, 107.432, -64.7918
0.639964, -1, 27.6896, 26.3369, 14.2456, 12.7033, 107.329, -65.0538
0.648564, -1, 27.4972, 26.238, 14.2845, 12.7057, 107.225, -65.3153
0.656008, -1, 27.3051, 26.1391, 14.3236, 12.708, 107.122, -65.5769
0.797952, -1, 23.9232, 24.4095, 15.0056, 12.7486, 105.315, -70.1567
0.799218, -1, 23.9232, 24.4095, 15.0056, 12.7486, 105.315, -70.1567
0.802227, -1, 23.8268, 24.3601, 15.025, 12.7499, 105.263, -70.2876
0.803534, -1, 23.8268, 24.3601, 15.025, 12.7499, 105.263, -70.2876
0.805538, -1, 23.7303, 24.3106, 15.0445, 12.7511, 105.212, -70.4184
0.806754, -1, 23.7303, 24.3106, 15.0445, 12.7511, 105.212, -70.4184
0.808024, -1, 23.7303, 24.3106, 15.0445, 12.7511, 105.212, -70.4184
0.811782, -1, 23.6338, 24.2612, 15.0639, 12.7522, 105.16, -70.5494
0.813935, -1, 23.5373, 24.2118, 15.0834, 12.7534, 105.108, -70.6804
0.815126, -1, 23.5373, 24.2118, 15.0834, 12.7534, 105.108, -70.6804
0.817763, -1, 23.4406, 24.1624, 15.1029, 12.7546, 105.057, -70.8112
0.819, -1, 23.4406, 24.1624, 15.1029, 12.7546, 105.057, -70.8112
0.820927, -1, 23.4406, 24.1624, 15.1029, 12.7546, 105.005, -70.942
0.822281, -1, 23.3438, 24.1129, 15.1224, 12.7558, 105.005, -70.942
0.82362, -1, 23.3438, 24.1129, 15.1224, 12.7558, 105.005, -70.942
0.826841, -1, 23.2469, 24.0634, 15.1418, 12.7571, 104.953, -71.0729
0.828081, -1, 23.2469, 24.0634, 15.1418, 12.7571, 104.953, -71.0729
0.830131, -1, 23.1499, 24.0139, 15.1613, 12.7583, 104.901, -71.2039
0.831318, -1, 23.1499, 24.0139, 15.1613, 12.7583, 104.901, -71.2039
0.833226, -1, 23.0529, 23.9645, 15.1807, 12.7595, 104.85, -71.3348
0.83461, -1, 23.0529, 23.9645, 15.1807, 12.7595, 104.85, -71.3348
0.836042, -1, 23.0529, 23.9645, 15.1807, 12.7595, 104.85, -71.3348
0.843725, -1, 22.8588, 23.8656, 15.2196, 12.762, 104.746, -71.5965
0.847732, -1, 22.7618, 23.8162, 15.2391, 12.7632, 104.695, -71.7275
0.855709, -1, 22.5679, 23.7174, 15.278, 12.7657, 104.591, -71.9892
0.863709, -1, 22.3742, 23.6188, 15.317, 12.7682, 104.488, -72.2505
0.870701, -1, 22.181, 23.5201, 15.356, 12.7708, 104.385, -72.5119
0.879711, -1, 21.9878, 23.4214, 15.3949, 12.7734, 104.281, -72.7736
0.887716, -1, 21.795, 23.3227, 15.434, 12.776, 104.178, -73.035
0.896734, -1, 21.6028, 23.224, 15.4729, 12.7787, 104.075, -73.2962
0.903706, -1, 21.4106, 23.1252, 15.5118, 12.7815, 103.972, -73.5577
0.911736, -1, 21.2184, 23.0266, 15.5508, 12.784, 103.868, -73.8192
0.919768, -1, 21.026, 22.9279, 15.5897, 12.7868, 103.765, -74.0807
0.92777, -1, 20.8336, 22.8293, 15.6286, 12.7895, 103.662, -74.3419
0.935707, -1, 20.6411, 22.7308, 15.6676, 12.7922, 103.559, -74.603
0.943708, -1, 20.4483, 22.6321, 15.7064, 12.795, 103.456, -74.8643
0.951719, -1, 20.2548, 22.5334, 15.7453, 12.7977, 103.353, -75.1258
0.959809, -1, 20.0609, 22.4346, 15.7843, 12.8004, 103.25, -75.387
0.967722, -1, 19.8672, 22.336, 15.8231, 12.8032, 103.147, -75.6481
0.975707, -1, 19.6737, 22.2373, 15.8619, 12.8058, 103.044, -75.9093
0.983775, -1, 19.48, 22.1387, 15.9008, 12.8086, 102.941, -76.1706
0.991703, -1, 19.2867, 22.0401, 15.9396, 12.8113, 102.838, -76.4316
0.999715, -1, 19.0938, 21.9415, 15.9785, 12.814, 102.735, -76.6925
1.00778, -1, 18.9011, 21.8428, 16.0174, 12.8167, 102.632, -76.9534
1.0157, -1, 18.7089, 21.7441, 16.0561, 12.8194, 102.529, -77.2144
1.02372, -1, 18.517, 21.6455, 16.095, 12.8221, 102.426, -77.4754
1.03177, -1, 18.3252, 21.547, 16.1339, 12.8247, 102.323, -77.7359
1.03971, -1, 18.1334, 21.4485, 16.1727, 12.8272, 102.22, -77.9966
1.04772, -1, 17.9416, 21.3501, 16.2116, 12.8297, 102.117, -78.2573
1.05577, -1, 17.7497, 21.2518, 16.2505, 12.8322, 102.014, -78.5182
1.06371, -1, 17.5574, 21.1534, 16.2893, 12.8348, 101.912, -78.7787
1.07184, -1, 17.3647, 21.0551, 16.3282, 12.8372, 101.808, -79.0391
1.07973, -1, 17.1717, 20.9568, 16.3669, 12.8395, 101.705, -79.2997
1.08785, -1, 16.9787, 20.8585, 16.4057, 12.8419, 101.603, -79.5604
1.09605, -1, 16.7855, 20.7603, 16.4446, 12.8442, 101.5, -79.8209
1.1038, -1, 16.5923, 20.6621, 16.4833, 12.8464, 101.397, -80.0814
1.1118, -1, 16.3993, 20.5639, 16.522, 12.8488, 101.295, -80.342
1.12016, -1, 16.2067, 20.4656, 16.5607, 12.8511, 101.192, -80.6026
1.12727, -1, 16.0146, 20.3672, 16.5995, 12.8534, 101.089, -80.8629
1.13587, -1, 15.8229, 20.2687, 16.6382, 12.8557, 100.987, -81.1229
1.14439, -1, 15.6314, 20.1703, 16.6769, 12.858, 100.884, -81.3831
1.15174, -1, 15.4402, 20.072, 16.7155, 12.8604, 100.781, -81.6433
1.15974, -1, 15.249, 19.9738, 16.7543, 12.8627, 100.679, -81.9034
1.16859, -1, 15.058, 19.8755, 16.793, 12.8649, 100.576, -82.1631
1.17579, -1, 14.8667, 19.7774, 16.8317, 12.8672, 100.473, -82.4228
1.18387, -1, 14.6754, 19.6793, 16.8704, 12.8695, 100.371, -82.6827
1.19279, -1, 14.4837, 19.5812, 16.9091, 12.8718, 100.268, -82.9426
1.19998, -1, 14.2917, 19.483, 16.9478, 12.8741, 100.166, -83.2022
1.20668, -1, 14.1955, 19.434, 16.9671, 12.8752, 100.114, -83.3319
1.21698, -1, 13.9069, 19.2871, 17.0251, 12.8786, 99.9606, -83.7214
1.2242, -1, 13.7143, 19.1893, 17.0637, 12.8809, 99.8583, -83.9812
1.23069, -1, 13.618, 19.1404, 17.0831, 12.882, 99.8069, -84.1109
1.24109, -1, 13.3295, 18.9936, 17.1411, 12.8856, 99.6531, -84.4998
1.24675, -1, 13.2336, 18.9446, 17.1603, 12.8867, 99.6021, -84.6294
1.2563, -1, 12.9464, 18.7978, 17.2182, 12.8903, 99.4485, -85.0185
1.26499, -1, 12.8508, 18.7488, 17.2568, 12.8926, 99.3462, -85.2777
1.2717, -1, 12.6597, 18.6509, 17.276, 12.8939, 99.2952, -85.4072
1.27977, -1, 12.4691, 18.5531, 17.3146, 12.8963, 99.1928, -85.6661
1.28771, -1, 12.279, 18.4553, 17.3532, 12.8987, 99.0905, -85.925
1.29475, -1, 12.0889, 18.3576, 17.3917, 12.9012, 98.9885, -86.184
1.30375, -1, 11.8986, 18.26, 17.4303, 12.9036, 98.8863, -86.4427
1.3117, -1, 11.7081, 18.1624, 17.4689, 12.906, 98.7843, -86.7012
1.31974, -1, 11.5173, 18.0647, 17.5073, 12.9085, 98.6825, -86.9598
1.32771, -1, 11.3263, 17.9671, 17.5459, 12.9109, 98.5805, -87.2185
1.33571, -1, 11.135, 17.8695, 17.5845, 12.9134, 98.4786, -87.4769
1.34377, -1, 10.9434, 17.772, 17.6229, 12.9159, 98.3768, -87.7352
1.3517, -1, 10.7517, 17.6746, 17.6614, 12.9183, 98.2748, -87.9935
1.3597, -1, 10.5599, 17.5771, 17.6998, 12.9209, 98.173, -88.2518
1.36777, -1, 10.3687, 17.4796, 17.7382, 12.9234, 98.0712, -88.5103
1.37569, -1, 10.1777, 17.3821, 17.7767, 12.9259, 97.9692, -88.7682
1.38371, -1, 9.98707, 17.2845, 17.815, 12.9286, 97.8674, -89.0264
1.39176, -1, 9.7967, 17.187, 17.8534, 12.9312, 97.7654, -89.2845
1.40145, -1, 9.60677, 17.0896, 17.8917, 12.9339, 97.6634, -89.6716
1.40772, -1, 9.41744, 16.9922, 17.93, 12.9367, 97.5617, -89.8004
1.41577, -1, 9.22824, 16.8948, 17.9684, 12.9393, 97.4598, -90.058
1.4237, -1, 9.03894, 16.7976, 18.0067, 12.9419, 97.3579, -90.3155
1.43175, -1, 8.84949, 16.7004, 18.045, 12.9446, 97.2563, -90.5731
1.43976, -1, 8.65996, 16.6032, 18.0835, 12.9472, 97.1544, -90.8305
1.4477, -1, 8.47036, 16.5061, 18.1219, 12.9499, 97.0527, -91.0875
1.45577, -1, 8.28036, 16.409, 18.1601, 12.9527, 96.9514, -91.3447
1.46373, -1, 8.08987, 16.3121, 18.1985, 12.9552, 96.8496, -91.602
1.4717, -1, 7.89929, 16.2153, 18.2368, 12.9578, 96.7482, -91.859
1.47977, -1, 7.7087, 16.1184, 18.275, 12.9606, 96.6468, -92.1159
1.4877, -1, 7.51813, 16.0215, 18.3134, 12.963, 96.5453, -92.3726
1.49569, -1, 7.32781, 15.9246, 18.3516, 12.9656, 96.444, -92.6294
1.50377, -1, 7.13776, 15.8277, 18.3897, 12.9681, 96.3428, -92.8863
1.51168, -1, 6.94809, 15.7307, 18.428, 12.9707, 96.2413, -93.1428
1.5197, -1, 6.7589, 15.6338, 18.4663, 12.9731, 96.1403, -93.3991
1.52778, -1, 6.57027, 15.537, 18.5043, 12.9757, 96.0394, -93.6555
1.53569, -1, 6.38202, 15.4402, 18.5424, 12.9782, 95.9384, -93.9119
1.54371, -1, 6.19391, 15.3434, 18.5806, 12.9807, 95.8375, -94.1682
1.55177, -1, 6.00577, 15.2467, 18.6187, 12.9831, 95.7367, -94.4241
1.55969, -1, 5.81744, 15.15, 18.6569, 12.9853, 95.6357, -94.6799
1.56774, -1, 5.62901, 15.0533, 18.6951, 12.9876, 95.5349, -94.9358
1.576, -1, 5.44037, 14.9567, 18.7331, 12.9899, 95.4341, -95.1916
1.58372, -1, 5.2514, 14.8602, 18.7714, 12.9922, 95.3332, -95.4471
1.5919, -1, 5.06204, 14.7639, 18.8094, 12.9944, 95.2327, -95.7026
1.60061, -1, 4.87261, 14.6676, 18.8474, 12.9966, 95.1319, -95.958
1.60779, -1, 4.68322, 14.5713, 18.8856, 12.9988, 95.031, -96.2136
1.61605, -1, 4.49378, 14.475, 18.9236, 13.001, 94.9304, -96.4685
1.62498, -1, 4.30464, 14.3786, 18.9616, 13.0032, 94.8296, -96.7235
1.63182, -1, 4.11581, 14.2822, 18.9996, 13.0054, 94.7287, -96.9785
1.64028, -1, 3.92747, 14.1859, 19.0375, 13.0078, 94.628, -97.2337
1.6477, -1, 3.73976, 14.0898, 19.0755, 13.01, 94.5271, -97.4885
1.65571, -1, 3.55237, 13.9935, 19.1135, 13.0123, 94.4263, -97.7433
1.66379, -1, 3.36538, 13.8974, 19.1513, 13.0147, 94.3259, -97.998
1.67193, -1, 3.17843, 13.8014, 19.1891, 13.0169, 94.225, -98.2527
1.67982, -1, 2.99145, 13.7053, 19.227, 13.0191, 94.1243, -98.5074
1.68798, -1, 2.80456, 13.6093, 19.2649, 13.0214, 94.024, -98.7615
1.69598, -1, 2.61739, 13.5134, 19.3028, 13.0236, 93.9232, -99.0156
1.70396, -1, 2.42995, 13.4174, 19.3407, 13.0259, 93.8228, -99.2698
1.71067, -1, 2.33622, 13.3695, 19.3595, 13.0271, 93.7728, -99.3969
1.72028, -1, 2.05431, 13.2259, 19.4163, 13.0304, 93.6222, -99.7777
1.72819, -1, 1.86617, 13.13, 19.4542, 13.0326, 93.5221, -100.031
1.73631, -1, 1.67797, 13.0342, 19.4919, 13.0349, 93.4222, -100.285
1.74429, -1, 1.48964, 12.9385, 19.5296, 13.0371, 93.3219, -100.538
1.75073, -1, 1.39558, 12.8906, 19.5486, 13.0383, 93.2719, -100.665
1.76032, -1, 1.11398, 12.7468, 19.6051, 13.0418, 93.122, -101.045
1.76939, -1, 1.02038, 12.699, 19.624, 13.0442, 93.022, -101.298
1.77566, -1, 0.833742, 12.6034, 19.6618, 13.0454, 92.9721, -101.424
1.78374, -1, 0.647345, 12.5078, 19.6994, 13.0478, 92.8725, -101.678
1.79167, -1, 0.461439, 12.4123, 19.737, 13.0503, 92.7725, -101.93
1.7997, -1, 0.27574, 12.317, 19.7747, 13.0528, 92.6727, -102.183
1.80773, -1, 0.0903081, 12.2216, 19.8123, 13.0552, 92.5735, -102.436
1.81566, -1, -0.0950642, 12.1263, 19.8498, 13.0576, 92.4738, -102.688
1.82374, -1, -0.2807, 12.0311, 19.8876, 13.0601, 92.3743, -102.941
1.83167, -1, -0.466636, 11.9359, 19.9251, 13.0626, 92.2751, -103.193
1.83968, -1, -0.65281, 11.8408, 19.9626, 13.0651, 92.1755, -103.445
1.84921, -1, -0.9325, 11.6984, 20.019, 13.0689, 92.0264, -103.823
1.85567, -1, -1.02585, 11.6508, 20.0377, 13.0701, 91.9767, -103.949
1.86366, -1, -1.21275, 11.5558, 20.0751, 13.0726, 91.8772, -104.201
1.87174, -1, -1.39977, 11.4608, 20.1128, 13.0751, 91.7779, -104.453
1.87969, -1, -1.58651, 11.3657, 20.1502, 13.0776, 91.6789, -104.704
1.88766, -1, -1.77294, 11.2706, 20.1876, 13.0802, 91.5796, -104.956
1.89574, -1, -1.95892, 11.1756, 20.2251, 13.0828, 91.4804, -105.207
1.90533, -1, -2.1443, 11.0807, 20.2624, 13.0855, 91.3814, -105.584
1.91167, -1, -2.32933, 10.9858, 20.2998, 13.0881, 91.2822, -105.709
1.9197, -1, -2.51399, 10.891, 20.3372, 13.0908, 91.1831, -105.96
1.92767, -1, -2.6981, 10.7963, 20.3744, 13.0935, 91.084, -106.211
1.93579, -1, -2.88192, 10.7015, 20.4118, 13.0962, 90.9849, -106.462
1.94374, -1, -3.06587, 10.6068, 20.4492, 13.0987, 90.886, -106.712
1.95167, -1, -3.25006, 10.5122, 20.4865, 13.1013, 90.7871, -106.963
1.95974, -1, -3.43457, 10.4177, 20.5237, 13.1038, 90.6881, -107.214
1.96771, -1, -3.61923, 10.3233, 20.561, 13.1063, 90.5893, -107.464
1.97572, -1, -3.8041, 10.2289, 20.5982, 13.1088, 90.4905, -107.714
1.98374, -1, -3.98939, 10.1346, 20.6355, 13.1112, 90.3918, -107.964
1.99166, -1, -4.1748, 10.0403, 20.6727, 13.1137, 90.2931, -108.214
1.99975, -1, -4.36046, 9.94607, 20.7099, 13.116, 90.1945, -108.464
2.00766, -1, -4.54594, 9.85174, 20.7471, 13.1183, 90.0958, -108.713
2.01575, -1, -4.73107, 9.7575, 20.7844, 13.1206, 89.9974, -108.963
2.02367, -1, -4.91588, 9.66332, 20.8215, 13.123, 89.8988, -109.212
2.03165, -1, -5.10005, 9.56927, 20.8586, 13.1254, 89.8003, -109.462
2.03984, -1, -5.28356, 9.47519, 20.8957, 13.1277, 89.7021, -109.711
2.04767, -1, -5.4667, 9.38125, 20.9328, 13.1299, 89.6037, -109.96
2.05567, -1, -5.64936, 9.28733, 20.9699, 13.1322, 89.5054, -110.209
2.06374, -1, -5.83173, 9.19339, 21.007, 13.1346, 89.4074, -110.457
2.07167, -1, -6.0141, 9.09951, 21.0439, 13.1368, 89.3092, -110.706
2.07966, -1, -6.1967, 9.00568, 21.081, 13.1389, 89.211, -110.955
2.08776, -1, -6.37957, 8.91197, 21.1181, 13.1412, 89.1133, -111.203
2.09584, -1, -6.56254, 8.81834, 21.1549, 13.1433, 89.0153, -111.451
2.10379, -1, -6.7459, 8.72467, 21.1918, 13.1455, 88.9173, -111.699
2.11183, -1, -6.92965, 8.63114, 21.2287, 13.1476, 88.8196, -111.947
2.12003, -1, -7.11367, 8.53754, 21.2656, 13.1497, 88.7216, -112.195
2.12726, -1, -7.29794, 8.444, 21.3025, 13.1519, 88.6238, -112.443
2.13589, -1, -7.48188, 8.35038, 21.3394, 13.154, 88.5262, -112.69
2.14421, -1, -7.66562, 8.25688, 21.3761, 13.1561, 88.4285, -112.938
2.15181, -1, -7.84891, 8.16347, 21.4129, 13.1583, 88.3309, -113.185
2.15977, -1, -8.03174, 8.07008, 21.4498, 13.1606, 88.2336, -113.432
2.16853, -1, -8.21399, 7.97678, 21.4865, 13.1628, 88.1362, -113.679
2.17573, -1, -8.39562, 7.88352, 21.5233, 13.165, 88.0387, -113.926
2.18387, -1, -8.57678, 7.79028, 21.5601, 13.1673, 87.9415, -114.173
2.1927, -1, -8.7576, 7.69712, 21.5969, 13.1696, 87.8441, -114.42
2.19993, -1, -8.93837, 7.60395, 21.6336, 13.1718, 87.7466, -114.666
2.20665, -1, -9.02878, 7.5574, 21.652, 13.1729, 87.698, -114.789
2.21686, -1, -9.30038, 7.41801, 21.707, 13.1763, 87.5522, -115.159
2.22416, -1, -9.48176, 7.32521, 21.7437, 13.1785, 87.455, -115.405
2.23066, -1, -9.57258, 7.27878, 21.762, 13.1796, 87.4065, -115.529
2.24108, -1, -9.84567, 7.13961, 21.8169, 13.183, 87.2607, -115.898
2.24678, -1, -9.93694, 7.09325, 21.8352, 13.184, 87.2122, -116.021
2.2563, -1, -10.2108, 6.95412, 21.8901, 13.1874, 87.0665, -116.39
2.26507, -1, -10.3021, 6.90772, 21.9084, 13.1896, 86.9692, -116.635
2.2723, -1, -10.4847, 6.81496, 21.9449, 13.1918, 86.8722, -116.88
2.28025, -1, -10.667, 6.72224, 21.9815, 13.193, 86.8237, -117.003
2.28765, -1, -10.8488, 6.62964, 22.0179, 13.1953, 86.7269, -117.248
2.29472, -1, -11.0301, 6.53705, 22.0543, 13.1978, 86.6298, -117.494
2.30369, -1, -11.2105, 6.44457, 22.0909, 13.2002, 86.5331, -117.739
2.31166, -1, -11.3904, 6.35208, 22.1274, 13.2026, 86.4365, -117.983
2.31867, -1, -11.57, 6.25965, 22.1638, 13.2051, 86.3397, -118.228
2.32765, -1, -11.7494, 6.16721, 22.2003, 13.2076, 86.2431, -118.473
2.33565, -1, -11.9286, 6.07491, 22.2367, 13.21, 86.1466, -118.717
2.34265, -1, -12.1079, 5.98269, 22.2731, 13.2125, 86.05, -118.962
2.35176, -1, -12.2874, 5.8906, 22.3095, 13.2149, 85.9535, -119.206
2.35965, -1, -12.4672, 5.79861, 22.3459, 13.2174, 85.8573, -119.45
2.36773, -1, -12.6474, 5.7066, 22.3821, 13.2199, 85.7607, -119.694
2.37564, -1, -12.8281, 5.61464, 22.4185, 13.2224, 85.6646, -119.938
2.38364, -1, -13.0091, 5.52275, 22.4548, 13.2248, 85.5688, -120.181
2.39324, -1, -13.1903, 5.43075, 22.491, 13.2272, 85.4248, -120.547
2.40031, -1, -13.3715, 5.33875, 22.5273, 13.2296, 85.3769, -120.669
2.40665, -1, -13.5524, 5.24685, 22.5635, 13.2321, 85.2814, -120.912
2.41566, -1, -13.7329, 5.15502, 22.5996, 13.2347, 85.1855, -121.155
2.42445, -1, -13.9129, 5.06316, 22.6358, 13.2373, 85.0897, -121.398
2.43065, -1, -14.092, 4.97141, 22.672, 13.2398, 84.9943, -121.641
2.43971, -1, -14.2704, 4.87971, 22.7081, 13.2423, 84.8984, -121.884
2.44851, -1, -14.4486, 4.78807, 22.7442, 13.2449, 84.8028, -122.126
2.45564, -1, -14.6263, 4.6964, 22.7805, 13.2475, 84.7073, -122.369
2.46364, -1, -14.804, 4.60485, 22.8166, 13.2501, 84.6115, -122.611
2.47249, -1, -14.9816, 4.51337, 22.8526, 13.2525, 84.5158, -122.854
2.47964, -1, -15.1594, 4.42205, 22.8888, 13.2549, 84.4203, -123.096
2.48766, -1, -15.3376, 4.33078, 22.9249, 13.2573, 84.3246, -123.338
2.49643, -1, -15.5162, 4.2395, 22.9609, 13.2595, 84.229, -123.58
2.50364, -1, -15.6952, 4.14832, 22.9969, 13.2618, 84.1336, -123.821
2.51164, -1, -15.8744, 4.05714, 23.0328, 13.2641, 84.038, -124.063
2.52044, -1, -16.0537, 3.96588, 23.0688, 13.2663, 83.9424, -124.305
2.52765, -1, -16.2335, 3.8746, 23.1049, 13.2684, 83.8472, -124.546
2.53564, -1, -16.4132, 3.78342, 23.1408, 13.2705, 83.7515, -124.787
2.54526, -1, -16.5925, 3.69225, 23.1766, 13.2727, 83.6561, -125.029
2.55165, -1, -16.7713, 3.60116, 23.2125, 13.2749, 83.561, -125.27
2.55971, -1, -16.9494, 3.51014, 23.2483, 13.2771, 83.4654, -125.511
2.56767, -1, -17.1266, 3.41916, 23.2841, 13.2793, 83.3701, -125.752
2.57564, -1, -17.3033, 3.32827, 23.32, 13.2816, 83.2751, -125.992
2.58372, -1, -17.4797, 3.23742, 23.3558, 13.2838, 83.1798, -126.233
2.59198, -1, -17.6559, 3.14666, 23.3916, 13.2858, 83.0848, -126.473
2.59973, -1, -17.8318, 3.05605, 23.4275, 13.288, 82.9901, -126.713
2.60786, -1, -18.0079, 2.9655, 23.4633, 13.2901, 82.8951, -126.953
2.61603, -1, -18.1843, 2.87511, 23.499, 13.2922, 82.8003, -127.194
2.62375, -1, -18.3609, 2.78469, 23.5348, 13.2943, 82.7058, -127.434
2.63182, -1, -18.5381, 2.69432, 23.5706, 13.2963, 82.611, -127.673
2.64119, -1, -18.7156, 2.60394, 23.6062, 13.2984, 82.5165, -127.913
2.64772, -1, -18.8934, 2.51356, 23.6419, 13.3004, 82.4221, -128.153
2.65578, -1, -19.0717, 2.4231, 23.6776, 13.3023, 82.3276, -128.392
2.66523, -1, -19.2499, 2.3327, 23.7131, 13.3043, 82.2331, -128.631
2.67148, -1, -19.339, 2.28752, 23.731, 13.3054, 82.1391, -128.87
2.67978, -1, -19.6054, 2.15192, 23.7844, 13.3086, 82.0449, -129.109
2.68948, -1, -19.7823, 2.06159, 23.8198, 13.3107, 81.9508, -129.348
2.69584, -1, -19.9585, 1.97135, 23.8553, 13.3129, 81.8567, -129.587
2.70399, -1, -20.134, 1.88113, 23.8909, 13.315, 81.7628, -129.826
2.7136, -1, -20.309, 1.79097, 23.9263, 13.3173, 81.6687, -130.064
2.72004, -1, -20.4837, 1.70085, 23.9618, 13.3195, 81.5747, -130.303
2.72663, -1, -20.5709, 1.65584, 23.9796, 13.3206, 81.5279, -130.422
2.73715, -1, -20.8326, 1.52093, 24.0327, 13.3239, 81.3867, -130.779
2.74269, -1, -20.92, 1.47598, 24.0504, 13.325, 81.3399, -130.898
2.75226, -1, -21.1825, 1.34136, 24.1037, 13.3283, 81.1993, -131.255
2.76183, -1, -21.358, 1.25163, 24.1391, 13.3305, 81.1054, -131.493
2.76826, -1, -21.4458, 1.16198, 24.1744, 13.3326, 81.0115, -131.731
2.77623, -1, -21.6218, 1.1172, 24.1921, 13.3337, 80.9179, -131.968
2.78364, -1, -21.798, 1.02756, 24.2276, 13.3359, 80.8709, -132.087
2.79163, -1, -21.9744, 0.937951, 24.2629, 13.338, 80.7772, -132.324
2.79963, -1, -22.151, 0.848415, 24.2983, 13.3402, 80.6836, -132.561
2.80773, -1, -22.3276, 0.7589, 24.3337, 13.3424, 80.5899, -132.798
2.81563, -1, -22.5037, 0.669414, 24.3689, 13.3447, 80.4963, -133.036
2.82364, -1, -22.6794, 0.579916, 24.4041, 13.347, 80.4027, -133.272
2.83163, -1, -22.8544, 0.490543, 24.4394, 13.3494, 80.3091, -133.509
2.83964, -1, -23.0284, 0.401159, 24.4745, 13.3519, 80.2155, -133.746
2.84768, -1, -23.2021, 0.311771, 24.5096, 13.3544, 80.1221, -133.983
2.85563, -1, -23.3754, 0.22243, 24.5448, 13.3568, 80.0287, -134.219
2.86364, -1, -23.5484, 0.133216, 24.58, 13.3592, 79.9353, -134.456
2.87174, -1, -23.7217, 0.0441, 24.6151, 13.3615, 79.8419, -134.692
2.87964, -1, -23.8951, -0.0449627, 24.6503, 13.364, 79.749, -134.928
2.88762, -1, -24.0685, -0.133882, 24.6854, 13.3664, 79.6556, -135.164
2.8957, -1, -24.2422, -0.222848, 24.7204, 13.3689, 79.5624, -135.399
2.90538, -1, -24.4163, -0.31177, 24.7556, 13.3714, 79.4695, -135.753
2.91163, -1, -24.5907, -0.400597, 24.7908, 13.3737, 79.3763, -135.871
2.91972, -1, -24.7654, -0.489498, 24.8257, 13.3762, 79.2832, -136.106
2.92766, -1, -24.9405, -0.578361, 24.8608, 13.3785, 79.1904, -136.342
2.93663, -1, -25.1156, -0.667221, 24.8959, 13.3809, 79.0973, -136.577
2.94375, -1, -25.2904, -0.755987, 24.9309, 13.3833, 79.0045, -136.812
2.95163, -1, -25.4648, -0.844821, 24.966, 13.3856, 78.912, -137.047
2.95971, -1, -25.6388, -0.933584, 25.0009, 13.3882, 78.8191, -137.282
2.96763, -1, -25.812, -1.02224, 25.0357, 13.3905, 78.7264, -137.517
2.97563, -1, -25.9847, -1.11099, 25.0706, 13.3929, 78.634, -137.751
2.9837, -1, -26.1569, -1.19963, 25.1056, 13.3955, 78.5414, -137.986
2.99163, -1, -26.3288, -1.28819, 25.1404, 13.3978, 78.4489, -138.22
2.99964, -1, -26.5006, -1.37672, 25.1752, 13.4001, 78.3565, -138.455
3.0077, -1, -26.6724, -1.46508, 25.2102, 13.4023, 78.2641, -138.689
3.01563, -1, -26.8445, -1.55338, 25.2451, 13.4045, 78.1717, -138.923
3.02363, -1, -27.0168, -1.64155, 25.2799, 13.4068, 78.0793, -139.157
3.0317, -1, -27.1892, -1.72971, 25.3148, 13.409, 77.9873, -139.391
3.03967, -1, -27.3618, -1.81788, 25.3496, 13.4111, 77.895, -139.625
3.04763, -1, -27.5349, -1.90591, 25.3843, 13.4133, 77.8029, -139.858
3.05576, -1, -27.7081, -1.99408, 25.4192, 13.4153, 77.7109, -140.091
3.06362, -1, -27.8815, -2.08223, 25.4541, 13.4174, 77.6188, -140.325
3.07165, -1, -28.0548, -2.17024, 25.4888, 13.4194, 77.5267, -140.558
3.07967, -1, -28.2281, -2.25829, 25.5236, 13.4214, 77.4349, -140.792
3.08766, -1, -28.4012, -2.34638, 25.5585, 13.4235, 77.3428, -141.025
3.09584, -1, -28.5738, -2.43438, 25.5931, 13.4256, 77.2506, -141.258
3.10368, -1, -28.746, -2.52235, 25.6278, 13.4277, 77.1588, -141.491
3.11189, -1, -28.9174, -2.61035, 25.6626, 13.4298, 77.0666, -141.724
3.12008, -1, -29.0881, -2.69826, 25.6972, 13.4321, 76.9747, -141.956
3.12724, -1, -29.2587, -2.78609, 25.7318, 13.4342, 76.883, -142.189
3.13579, -1, -29.4292, -2.87385, 25.7665, 13.4363, 76.791, -142.421
3.14418, -1, -29.5999, -2.96148, 25.8012, 13.4383, 76.6992, -142.653
3.15163, -1, -29.7709, -3.04902, 25.8357, 13.4403, 76.6074, -142.886
3.15966, -1, -29.9418, -3.13652, 25.8703, 13.4424, 76.5156, -143.118
3.16771, -1, -30.1127, -3.22397, 25.9049, 13.4445, 76.4239, -143.35
3.17577, -1, -30.2837, -3.31145, 25.9395, 13.4466, 76.3322, -143.582
3.18372, -1, -30.4551, -3.39884, 25.9741, 13.4487, 76.2408, -143.814
3.19181, -1, -30.6269, -3.48636, 26.0086, 13.4507, 76.149, -144.046
3.19989, -1, -30.7987, -3.5738, 26.0431, 13.4527, 76.0576, -144.277
3.20796, -1, -30.9705, -3.66114, 26.0776, 13.4547, 75.9664, -144.508
3.21602, -1, -31.1423, -3.7485, 26.1122, 13.4567, 75.8748, -144.74
3.22264, -1, -31.2282, -3.79217, 26.1294, 13.4577, 75.8292, -144.855
3.2321, -1, -31.4852, -3.92312, 26.181, 13.4608, 75.6924, -145.202
3.23878, -1, -31.5706, -3.96673, 26.1983, 13.4619, 75.6467, -145.318
3.24823, -1, -31.8261, -4.09755, 26.2499, 13.4652, 75.5099, -145.664
3.25618, -1, -31.9958, -4.18473, 26.2843, 13.4674, 75.419, -145.895
3.26426, -1, -32.1653, -4.27184, 26.3188, 13.4697, 75.3276, -146.126
3.27224, -1, -32.2499, -4.31537, 26.336, 13.4719, 75.2365, -146.357
3.27961, -1, -32.4193, -4.4024, 26.3702, 13.4729, 75.191, -146.472
3.28766, -1, -32.589, -4.48935, 26.4046, 13.475, 75.1004, -146.702
3.29563, -1, -32.7587, -4.57624, 26.439, 13.4771, 75.0093, -146.933
3.30362, -1, -32.9283, -4.66314, 26.4733, 13.4793, 74.9186, -147.163
3.31167, -1, -33.098, -4.75001, 26.5075, 13.4815, 74.8283, -147.393
3.31962, -1, -33.2678, -4.83683, 26.5418, 13.4837, 74.7375, -147.623
3.32763, -1, -33.4379, -4.92365, 26.5761, 13.486, 74.6469, -147.853
3.33566, -1, -33.6082, -5.01055, 26.6103, 13.4882, 74.5564, -148.083
3.34367, -1, -33.7785, -5.09733, 26.6446, 13.4905, 74.4658, -148.313
3.35166, -1, -33.9487, -5.18407, 26.6788, 13.4927, 74.3751, -148.543
3.35961, -1, -34.119, -5.27079, 26.7129, 13.4949, 74.2846, -148.772
3.36765, -1, -34.2893, -5.35751, 26.7472, 13.4971, 74.1941, -149.002
3.37572, -1, -34.4593, -5.44415, 26.7814, 13.4995, 74.1035, -149.231
3.38361, -1, -34.6287, -5.53079, 26.8155, 13.5018, 74.013, -149.46
3.39161, -1, -34.7976, -5.61743, 26.8496, 13.5042, 73.9225, -149.69
3.40114, -1, -34.9662, -5.70403, 26.8839, 13.5066, 73.8319, -149.919
3.40762, -1, -35.1345, -5.79055, 26.9179, 13.5091, 73.7415, -150.148
3.41661, -1, -35.3027, -5.877, 26.952, 13.5116, 73.6513, -150.377
3.42361, -1, -35.4712, -5.96327, 26.9862, 13.514, 73.5608, -150.606
3.43163, -1, -35.6397, -6.0495, 27.0202, 13.5163, 73.4704, -150.834
3.44041, -1, -35.8082, -6.13571, 27.0542, 13.5187, 73.3803, -151.063
3.44661, -1, -35.9767, -6.22182, 27.0884, 13.5211, 73.2897, -151.291
3.45561, -1, -36.1452, -6.30793, 27.1225, 13.5234, 73.1994, -151.52
3.4644, -1, -36.3138, -6.39405, 27.1564, 13.5258, 73.1091, -151.748
3.47161, -1, -36.4826, -6.48024, 27.1904, 13.5282, 73.0188, -151.977
3.47961, -1, -36.6516, -6.56639, 27.2244, 13.5305, 72.9285, -152.205
3.49081, -1, -36.9049, -6.6956, 27.2753, 13.5339, 72.7933, -152.547
3.49562, -1, -36.9895, -6.73867, 27.2923, 13.535, 72.7482, -152.661
3.50361, -1, -37.1584, -6.82484, 27.3264, 13.5372, 72.658, -152.889
3.51175, -1, -37.3271, -6.9109, 27.3602, 13.5395, 72.568, -153.117
3.51961, -1, -37.4954, -6.99692, 27.3941, 13.5418, 72.4783, -153.344
3.52762, -1, -37.6632, -7.08301, 27.4282, 13.544, 72.3882, -153.572
3.53569, -1, -37.8309, -7.16902, 27.462, 13.5462, 72.2984, -153.799
3.54364, -1, -37.9984, -7.25499, 27.4959, 13.5485, 72.2089, -154.027
3.55162, -1, -38.166, -7.34089, 27.5299, 13.5506, 72.119, -154.254
3.55968, -1, -38.3333, -7.4267, 27.5638, 13.5528, 72.0294, -154.482
3.56762, -1, -38.5006, -7.51241, 27.5975, 13.5549, 71.9399, -154.709
3.57561, -1, -38.6678, -7.59814, 27.6314, 13.557, 71.8502, -154.936
3.58368, -1, -38.8351, -7.68384, 27.6653, 13.559, 71.7606, -155.163
3.59162, -1, -39.0024, -7.76946, 27.699, 13.5611, 71.6712, -155.39
3.59969, -1, -39.1698, -7.8551, 27.7328, 13.5631, 71.582, -155.617
3.60776, -1, -39.3374, -7.9408, 27.7667, 13.5651, 71.4925, -155.843
3.6157, -1, -39.5049, -8.0264, 27.8004, 13.5671, 71.4032, -156.07
3.62371, -1, -39.6726, -8.11195, 27.834, 13.569, 71.3141, -156.297
3.63179, -1, -39.8403, -8.19743, 27.8678, 13.571, 71.2246, -156.523
3.63972, -1, -40.0079, -8.28291, 27.9015, 13.5729, 71.1353, -156.75
3.64773, -1, -40.1754, -8.36827, 27.9351, 13.5749, 71.0461, -156.976
3.65581, -1, -40.3427, -8.45362, 27.9688, 13.5768, 70.9566, -157.202
3.66363, -1, -40.5098, -8.53904, 28.0025, 13.5788, 70.8673, -157.429
3.67165, -1, -40.6768, -8.62439, 28.0361, 13.5808, 70.7782, -157.655
3.6798, -1, -40.8435, -8.70973, 28.0697, 13.5828, 70.689, -157.88
3.68771, -1, -41.01, -8.79506, 28.1034, 13.5848, 70.5999, -158.106
3.69602, -1, -41.1763, -8.88035, 28.137, 13.5868, 70.5108, -158.332
3.70401, -1, -41.3425, -8.96551, 28.1705, 13.5888, 70.4218, -158.558
3.71195, -1, -41.5086, -9.05066, 28.2042, 13.5908, 70.3325, -158.784
3.72006, -1, -41.6749, -9.13577, 28.2377, 13.5928, 70.2434, -159.009
3.7266, -1, -41.758, -9.17829, 28.2545, 13.5939, 70.1989, -159.122
3.73608, -1, -42.0077, -9.30583, 28.3049, 13.5969, 70.0653, -159.46
3.74273, -1, -42.0909, -9.34835, 28.3217, 13.5979, 70.0208, -159.573
3.75256, -1, -42.3404, -9.47597, 28.3719, 13.6009, 69.8874, -159.911
3.76017, -1, -42.5067, -9.56088, 28.4054, 13.6029, 69.7983, -160.136
3.7683, -1, -42.6731, -9.64583, 28.439, 13.6049, 69.7095, -160.361
3.77622, -1, -42.7563, -9.68829, 28.4557, 13.6059, 69.665, -160.586
3.7836, -1, -42.9226, -9.77326, 28.4891, 13.608, 69.5764, -160.699
3.79164, -1, -43.089, -9.85817, 28.5226, 13.6101, 69.4874, -160.924
3.7996, -1, -43.2551, -9.94312, 28.5561, 13.6121, 69.3988, -161.148
3.80761, -1, -43.4212, -10.028, 28.5896, 13.6142, 69.3102, -161.373
3.81564, -1, -43.5872, -10.113, 28.623, 13.6163, 69.2215, -161.598
3.8236, -1, -43.7532, -10.1979, 28.6565, 13.6184, 69.1329, -161.823
3.8316, -1, -43.9191, -10.2827, 28.6899, 13.6206, 69.0444, -162.047
3.83964, -1, -44.0847, -10.3675, 28.7233, 13.6227, 68.9559, -162.271
3.84765, -1, -44.2499, -10.4522, 28.7569, 13.6249, 68.8672, -162.496
3.85559, -1, -44.4151, -10.5367, 28.7903, 13.6271, 68.7785, -162.72
3.86372, -1, -44.5803, -10.6213, 28.8236, 13.6293, 68.6902, -162.944
3.8716, -1, -44.7455, -10.7058, 28.857, 13.6315, 68.6015, -163.169
3.87963, -1, -44.9109, -10.7902, 28.8906, 13.6336, 68.513, -163.393
3.88767, -1, -45.0762, -10.8747, 28.9239, 13.6358, 68.4249, -163.617
3.89559, -1, -45.2415, -10.9593, 28.9573, 13.638, 68.3362, -163.841
3.90359, -1, -45.4067, -11.0437, 28.9907, 13.6403, 68.2478, -164.065
3.91264, -1, -45.572, -11.1282, 29.0239, 13.6426, 68.1595, -164.288
3.91959, -1, -45.7373, -11.2126, 29.0572, 13.6448, 68.0712, -164.512
3.92859, -1, -45.9023, -11.2969, 29.0906, 13.6471, 67.9828, -164.736
3.93578, -1, -46.0654, -11.3802, 29.124, 13.6494, 67.8944, -164.959
3.94359, -1, -46.225, -11.4613, 29.1575, 13.6518, 67.8069, -165.182
3.95159, -1, -46.3791, -11.5387, 29.1912, 13.6541, 67.7201, -165.4
3.95966, -1, -46.5254, -11.6114, 29.2242, 13.6564, 67.6365, -165.612
3.9676, -1, -46.6614, -11.6784, 29.2555, 13.6586, 67.5582, -165.811
3.97559, -1, -46.7844, -11.7382, 29.2838, 13.6607, 67.4866, -165.991
3.98366, -1, -46.8917, -11.7909, 29.3083, 13.6626, 67.4248, -166.148
3.99159, -1, -46.9827, -11.837, 29.3279, 13.6641, 67.3742, -166.276
3.99959, -1, -47.0578, -11.8771, 29.3417, 13.6652, 67.3348, -166.375
4.00767, -1, -47.1179, -11.9105, 29.351, 13.6657, 67.3063, -166.448
4.01563, -1, -47.1635, -11.9364, 29.3566, 13.666, 67.2872, -166.496
4.02359, -1, -47.1969, -11.9552, 29.3593, 13.6661, 67.2754, -166.525
4.03163, -1, -47.2198, -11.9679, 29.3605, 13.6662, 67.2688, -166.542
4.03959, -1, -47.2343, -11.9758, 29.3611, 13.6663, 67.2654, -166.551
4.04764, -1, -47.2424, -11.9801, 29.3614, 13.6664, 67.2637, -166.555
4.05562, 2, -47.2462, -11.9821, 29.3616, 13.6665, 67.2629, -166.557
4.06359, 2, -47.2469, -11.983, 29.3617, 13.6665, 67.2625, -166.558
4.07159, 2, -47.2466, -11.9833, 29.3618, 13.6665, 67.2623, -166.558
4.07966, 2, -47.2464, -11.9834, 29.3618, 13.6666, 67.2623, -166.558
4.0876, 2, -47.2464, -11.9834, 29.3619, 13.6666, 67.2622, -166.558
4.09558, 2, -47.2471, -11.9836, 29.3619, 13.6666, 67.2622, -166.558
4.10371, 2, -47.2482, -11.984, 29.3619, 13.6666, 67.2622, -166.558
4.11166, 2, -47.2499, -11.9846, 29.3619, 13.6666, 67.2622, -166.558
4.11968, 2, -47.2517, -11.9855, 29.3619, 13.6666, 67.2622, -166.558
4.12777, 2, -47.2532, -11.9864, 29.3619, 13.6666, 67.2622, -166.558
4.13569, 2, -47.2545, -11.9871, 29.3619, 13.6666, 67.2622, -166.558
4.14369, 2, -47.2552, -11.9877, 29.3619, 13.6666, 67.2622, -166.558
4.15177, 2, -47.2556, -11.9879, 29.3619, 13.6666, 67.2622, -166.558
4.15959, 2, -47.2557, -11.988, 29.3619, 13.6666, 67.2623, -166.558
4.16763, 2, -47.2557, -11.9881, 29.3619, 13.6666, 67.2622, -166.558
4.17569, 2, -47.2553, -11.9881, 29.3619, 13.6666, 67.2622, -166.558
4.18368, 2, -47.2547, -11.988, 29.3619, 13.6666, 67.2622, -166.558
4.19172, 2, -47.2542, -11.988, 29.362, 13.6666, 67.2622, -166.558
4.19984, 2, -47.2538, -11.988, 29.362, 13.6666, 67.2622, -166.558
4.20815, 2, -47.2537, -11.9881, 29.3619, 13.6666, 67.2623, -166.558
4.21598, 2, -47.2537, -11.9881, 29.362, 13.6667, 67.2623, -166.558
4.22401, 2, -47.2538, -11.9883, 29.3619, 13.6667, 67.2623, -166.558
4.23242, 2, -47.2542, -11.9887, 29.3619, 13.6666, 67.2622, -166.558
4.24009, 2, -47.2549, -11.989, 29.3619, 13.6667, 67.2622, -166.558
4.24663, 2, -47.2552, -11.9891, 29.3619, 13.6666, 67.2622, -166.558
4.25666, 2, -47.2557, -11.9893, 29.3619, 13.6666, 67.2622, -166.558
4.26415, 2, -47.2558, -11.9894, 29.3619, 13.6666, 67.2622, -166.558
4.27221, 2, -47.2558, -11.9894, 29.3619, 13.6666, 67.2622, -166.558
4.28045, 2, -47.2557, -11.9894, 29.3619, 13.6666, 67.2623, -166.558
4.28759, 2, -47.2556, -11.9893, 29.3619, 13.6666, 67.2623, -166.558
4.29562, 2, -47.2552, -11.9893, 29.3619, 13.6666, 67.2623, -166.558
4.30358, 2, -47.2548, -11.9893, 29.3619, 13.6666, 67.2623, -166.558
4.31158, 2, -47.2545, -11.9893, 29.3619, 13.6666, 67.2622, -166.558
4.31963, 2, -47.2543, -11.9893, 29.3619, 13.6666, 67.2623, -166.558
4.32759, 2, -47.2541, -11.9893, 29.3619, 13.6666, 67.2623, -166.558
4.33558, 2, -47.254, -11.9893, 29.3619, 13.6666, 67.2623, -166.558
4.34362, 2, -47.254, -11.9894, 29.3619, 13.6666, 67.2623, -166.558
4.35162, 2, -47.2539, -11.9894, 29.3619, 13.6666, 67.2623, -166.558
4.35958, 2, -47.2539, -11.9895, 29.3619, 13.6665, 67.2623, -166.558
4.36763, 2, -47.254, -11.9895, 29.3619, 13.6665, 67.2623, -166.558
4.37568, 2, -47.254, -11.9894, 29.3619, 13.6665, 67.2623, -166.558
4.38362, 2, -47.254, -11.9894, 29.3619, 13.6665, 67.2623, -166.558
4.39164, 2, -47.2539, -11.9894, 29.3619, 13.6665, 67.2623, -166.558
4.39957, 2, -47.2539, -11.9893, 29.3619, 13.6665, 67.2623, -166.558
4.40759, 2, -47.2538, -11.9893, 29.3619, 13.6665, 67.2623, -166.558
4.41564, 2, -47.2537, -11.9892, 29.3619, 13.6665, 67.2623, -166.558
4.42549, 2, -47.2535, -11.9892, 29.3619, 13.6665, 67.2623, -166.558
4.43158, 2, -47.2534, -11.9892, 29.3619, 13.6665, 67.2623, -166.558
4.43967, 2, -47.2534, -11.9892, 29.3619, 13.6665, 67.2623, -166.558
4.44759, 2, -47.2533, -11.9893, 29.3619, 13.6665, 67.2624, -166.558
4.45557, 2, -47.2532, -11.9893, 29.3619, 13.6665, 67.2623, -166.558
4.46364, 2, -47.2531, -11.9893, 29.3619, 13.6665, 67.2623, -166.558
4.47157, 2, -47.2531, -11.9893, 29.3619, 13.6665, 67.2623, -166.558
4.47957, 2, -47.253, -11.9893, 29.3619, 13.6665, 67.2623, -166.558
4.48765, 2, -47.2529, -11.9893, 29.3619, 13.6665, 67.2623, -166.558
4.49556, 2, -47.2529, -11.9892, 29.3619, 13.6665, 67.2624, -166.558
4.50358, 2, -47.2528, -11.9892, 29.3619, 13.6665, 67.2624, -166.558
4.51164, 2, -47.2527, -11.9891, 29.362, 13.6664, 67.2623, -166.558
4.51962, 2, -47.2526, -11.9891, 29.3619, 13.6665, 67.2623, -166.558
4.52758, 2, -47.2525, -11.9891, 29.3619, 13.6665, 67.2623, -166.558
4.53564, 2, -47.2524, -11.9891, 29.3619, 13.6665, 67.2623, -166.558
4.54357, 2, -47.2523, -11.9891, 29.3619, 13.6665, 67.2623, -166.558
4.55161, 2, -47.2522, -11.9891, 29.3619, 13.6665, 67.2623, -166.557
4.55964, 2, -47.2521, -11.9891, 29.3619, 13.6665, 67.2624, -166.557
4.56759, 2, -47.252, -11.9891, 29.3619, 13.6665, 67.2624, -166.557
4.57558, 2, -47.2519, -11.9891, 29.3619, 13.6665, 67.2624, -166.557
4.58364, 2, -47.2518, -11.9891, 29.3619, 13.6664, 67.2624, -166.557
4.59157, 2, -47.2517, -11.9891, 29.3619, 13.6664, 67.2624, -166.557
4.59961, 2, -47.2516, -11.989, 29.3619, 13.6664, 67.2624, -166.557
4.60771, 2, -47.2515, -11.989, 29.3619, 13.6665, 67.2624, -166.557
4.61564, 2, -47.2514, -11.9889, 29.3619, 13.6665, 67.2624, -166.557
4.62367, 2, -47.2513, -11.9888, 29.3619, 13.6664, 67.2624, -166.557
4.63175, 2, -47.2511, -11.9888, 29.3619, 13.6664, 67.2624, -166.557
4.63968, 2, -47.2511, -11.9888, 29.3619, 13.6664, 67.2624, -166.557
4.64769, 2, -47.2509, -11.9888, 29.3619, 13.6664, 67.2624, -166.557
4.65575, 2, -47.2508, -11.9888, 29.3619, 13.6664, 67.2624, -166.557
4.66357, 2, -47.2508, -11.9888, 29.3619, 13.6664, 67.2625, -166.557
4.6719, 2, -47.2507, -11.9888, 29.3619, 13.6664, 67.2625, -166.557
4.67967, 2, -47.2506, -11.9888, 29.3619, 13.6664, 67.2625, -166.557
4.68768, 2, -47.2506, -11.9888, 29.3619, 13.6664, 67.2625, -166.557
4.69584, 2, -47.2505, -11.9888, 29.3619, 13.6664, 67.2625, -166.557
4.70382, 2, -47.2504, -11.9887, 29.3619, 13.6664, 67.2625, -166.557
4.71182, 2, -47.2504, -11.9887, 29.3619, 13.6664, 67.2625, -166.557
4.72034, 2, -47.2503, -11.9886, 29.3619, 13.6663, 67.2625, -166.557
4.72801, 2, -47.2502, -11.9885, 29.3619, 13.6663, 67.2625, -166.557
4.73456, 2, -47.2502, -11.9885, 29.3619, 13.6663, 67.2625, -166.557
4.74417, 2, -47.25, -11.9885, 29.3619, 13.6663, 67.2625, -166.557
4.75214, 2, -47.25, -11.9885, 29.3619, 13.6663, 67.2625, -166.557
4.76015, 2, -47.25, -11.9885, 29.3619, 13.6663, 67.2625, -166.557
4.7684, 2, -47.2499, -11.9885, 29.3619, 13.6663, 67.2625, -166.557
4.7762, 2, -47.2499, -11.9885, 29.3619, 13.6663, 67.2625, -166.557
4.78408, 2, -47.2499, -11.9885, 29.3619, 13.6663, 67.2626, -166.557
4.79156, 2, -47.2499, -11.9885, 29.3619, 13.6663, 67.2626, -166.557
4.79961, 2, -47.2498, -11.9884, 29.3619, 13.6663, 67.2626, -166.557
4.80757, 2, -47.2498, -11.9884, 29.3619, 13.6663, 67.2626, -166.557
4.81556, 2, -47.2498, -11.9883, 29.3619, 13.6663, 67.2626, -166.557
4.82361, 2, -47.2498, -11.9882, 29.3619, 13.6662, 67.2626, -166.557
4.83156, 2, -47.2497, -11.9882, 29.3619, 13.6662, 67.2626, -166.557
4.83956, 2, -47.2496, -11.9881, 29.3619, 13.6662, 67.2627, -166.557
4.84762, 2, -47.2495, -11.9881, 29.3619, 13.6662, 67.2627, -166.557
4.85561, 2, -47.2495, -11.9881, 29.3619, 13.6662, 67.2627, -166.557
4.86356, 2, -47.2494, -11.9881, 29.3619, 13.6662, 67.2627, -166.557
4.87161, 2, -47.2493, -11.9881, 29.3619, 13.6662, 67.2627, -166.557
4.87966, 2, -47.2493, -11.9881, 29.3619, 13.6662, 67.2628, -166.556
4.88761, 2, -47.2492, -11.9881, 29.3619, 13.6662, 67.2628, -166.557
4.89562, 2, -47.2492, -11.988, 29.3619, 13.6661, 67.2628, -166.556
4.90356, 2, -47.2491, -11.988, 29.3619, 13.6661, 67.2627, -166.556
4.91156, 2, -47.2491, -11.988, 29.3619, 13.666, 67.2628, -166.556
4.92055, 2, -47.2491, -11.9879, 29.3619, 13.666, 67.2628, -166.556
4.92757, 2, -47.249, -11.9878, 29.3619, 13.666, 67.2628, -166.556
4.93556, 2, -47.249, -11.9877, 29.3619, 13.666, 67.2628, -166.556
4.94365, 2, -47.2489, -11.9877, 29.3619, 13.666, 67.2628, -166.556
4.95156, 2, -47.2489, -11.9877, 29.3619, 13.666, 67.2628, -166.556
4.95956, 2, -47.2488, -11.9877, 29.3619, 13.666, 67.2628, -166.556
4.96763, 2, -47.2487, -11.9876, 29.3619, 13.666, 67.2628, -166.556
4.97556, 2, -47.2486, -11.9876, 29.3619, 13.6659, 67.2628, -166.556
4.98356, 2, -47.2486, -11.9876, 29.3619, 13.6659, 67.2628, -166.556
4.99162, 2, -47.2486, -11.9876, 29.3619, 13.6659, 67.2628, -166.556
4.99955, 2, -47.2486, -11.9876, 29.3619, 13.6659, 67.2628, -166.556
5.00765, 2, -47.2485, -11.9876, 29.3619, 13.6658, 67.2628, -166.556
5.01563, 2, -47.2485, -11.9876, 29.3619, 13.6658, 67.2629, -166.556
5.0236, 2, -47.2485, -11.9875, 29.3619, 13.6658, 67.2629, -166.556
5.03156, 2, -47.2485, -11.9874, 29.3619, 13.6658, 67.2629, -166.556
5.03962, 2, -47.2484, -11.9874, 29.3619, 13.6658, 67.263, -166.556
5.04756, 2, -47.2483, -11.9873, 29.3619, 13.6658, 67.263, -166.556
5.05575, 2, -47.2482, -11.9873, 29.3619, 13.6658, 67.2629, -166.556
5.06369, 2, -47.2481, -11.9873, 29.3619, 13.6657, 67.2629, -166.556
5.07155, 2, -47.2481, -11.9872, 29.3619, 13.6657, 67.263, -166.556
5.07956, 2, -47.248, -11.9872, 29.3619, 13.6656, 67.263, -166.556
5.08764, 2, -47.248, -11.9872, 29.3619, 13.6657, 67.263, -166.556
5.09555, 2, -47.2479, -11.9872, 29.3619, 13.6657, 67.263, -166.556
5.10356, 2, -47.2479, -11.9872, 29.3619, 13.6656, 67.263, -166.556
5.11179, 2, -47.2479, -11.9872, 29.3619, 13.6656, 67.2631, -166.556
5.11964, 2, -47.2479, -11.9871, 29.3619, 13.6656, 67.263, -166.556
5.12766, 2, -47.2479, -11.9871, 29.3619, 13.6656, 67.263, -166.556
5.13568, 4, -47.2478, -11.987, 29.3619, 13.6655, 67.263, -166.556
5.14366, 4, -47.2478, -11.987, 29.3619, 13.6655, 67.263, -166.556
5.15166, 4, -47.2477, -11.9869, 29.3619, 13.6655, 67.263, -166.556
5.15974, 4, -47.2477, -11.9869, 29.3619, 13.6655, 67.2631, -166.556
5.16757, 4, -47.2476, -11.9869, 29.3619, 13.6655, 67.263, -166.556
5.17592, 4, -47.2475, -11.9868, 29.3619, 13.6655, 67.2631, -166.556
5.18366, 4, -47.2475, -11.9868, 29.3619, 13.6655, 67.2631, -166.556
5.19166, 4, -47.2474, -11.9868, 29.3619, 13.6655, 67.2631, -166.556
5.20004, 4, -47.2474, -11.9868, 29.3619, 13.6654, 67.2631, -166.556
5.20783, 4, -47.2474, -11.9868, 29.3619, 13.6654, 67.2631, -166.556
5.21582, 4, -47.2473, -11.9868, 29.3619, 13.6654, 67.2631, -166.556
5.22427, 4, -47.2473, -11.9867, 29.3619, 13.6655, 67.2631, -166.556
5.232, 4, -47.2473, -11.9867, 29.3619, 13.6655, 67.2631, -166.556
5.24914, 4, -47.2472, -11.9866, 29.3619, 13.6654, 67.2632, -166.555
5.25256, 4, -47.2472, -11.9866, 29.3619, 13.6654, 67.2632, -166.555
5.25629, 4, -47.2472, -11.9866, 29.3619, 13.6654, 67.2632, -166.555
5.26702, 4, -47.2471, -11.9865, 29.3619, 13.6654, 67.2632, -166.555
5.27288, 4, -47.2471, -11.9865, 29.3619, 13.6654, 67.2632, -166.555
5.28032, 4, -47.247, -11.9865, 29.3619, 13.6654, 67.2632, -166.555
5.29379, 4, -47.2469, -11.9865, 29.3619, 13.6654, 67.2632, -166.555
5.29693, 4, -47.2469, -11.9865, 29.3619, 13.6654, 67.2632, -166.555
5.30434, 4, -47.2469, -11.9865, 29.3619, 13.6654, 67.2632, -166.555
5.31348, 4, -47.2469, -11.9865, 29.3619, 13.6653, 67.2632, -166.555
5.32291, 4, -47.247, -11.9865, 29.3619, 13.6653, 67.2632, -166.555
5.33071, 4, -47.2478, -11.9869, 29.3622, 13.6655, 67.2633, -166.555
5.33928, 4, -47.2501, -11.9885, 29.3641, 13.6671, 67.2639, -166.555
5.34368, 4, -47.2518, -11.9903, 29.3661, 13.6704, 67.2647, -166.555
5.3535, 4, -47.2607, -12.0011, 29.3817, 13.7016, 67.2724, -166.549
5.35979, 5, -47.2653, -12.0071, 29.3916, 13.7216, 67.2778, -166.544
5.3677, 5, -47.278, -12.0237, 29.4216, 13.7844, 67.2948, -166.53
5.37879, 5, -47.3079, -12.0627, 29.4995, 13.9535, 67.342, -166.491
5.38558, 5, -47.3364, -12.0986, 29.5775, 14.1263, 67.3893, -166.45
5.3938, 5, -47.372, -12.1425, 29.6775, 14.3496, 67.4505, -166.398
5.40142, 5, -47.4146, -12.1949, 29.7983, 14.6203, 67.5247, -166.335
5.40993, 5, -47.463, -12.2549, 29.9375, 14.9307, 67.6085, -166.261
5.41782, 5, -47.516, -12.3215, 30.092, 15.2719, 67.7004, -166.182
5.42568, 5, -47.5732, -12.3936, 30.2582, 15.6342, 67.7973, -166.097
5.438, 5, -47.6032, -12.4315, 30.3444, 15.8203, 67.8965, -166.01
5.43994, 5, -47.6655, -12.5099, 30.521, 16.1985, 67.9466, -165.967
5.44773, 5, -47.7304, -12.5909, 30.7019, 16.5812, 68.0468, -165.879
5.45561, 5, -47.7968, -12.6734, 30.8863, 16.9661, 68.146, -165.792
5.46373, 5, -47.8643, -12.7571, 31.0728, 17.3524, 68.2443, -165.706
5.47236, 5, -47.9324, -12.8414, 31.2611, 17.7391, 68.342, -165.62
5.47959, 5, -48.0008, -12.9262, 31.4525, 18.1262, 68.4381, -165.534
5.48779, 5, -48.0693, -13.0115, 31.6467, 18.5136, 68.5332, -165.45
5.49662, 5, -48.1374, -13.0974, 31.8422, 18.9017, 68.6274, -165.367
5.50355, 5, -48.2056, -13.1837, 32.0395, 19.2896, 68.7203, -165.284
5.51173, 5, -48.274, -13.2705, 32.2397, 19.6776, 68.8121, -165.203
5.51958, 5, -48.3427, -13.3578, 32.4419, 20.0658, 68.9029, -165.121
5.52759, 5, -48.4117, -13.4456, 32.6457, 20.4541, 68.9925, -165.042
5.53684, 5, -48.4796, -13.5336, 32.8519, 20.8423, 69.0812, -164.961
5.54837, 5, -48.5767, -13.6644, 33.1634, 21.4216, 69.2136, -164.837
5.55153, 5, -48.6074, -13.7073, 33.2669, 21.6128, 69.258, -164.791
5.56167, 6, -48.6653, -13.7917, 33.4731, 21.9892, 69.3477, -164.691
5.56767, 6, -48.7169, -13.8735, 33.676, 22.3538, 69.4406, -164.572
5.5756, 6, -48.7607, -13.9519, 33.8724, 22.7018, 69.5376, -164.426
5.58375, 6, -48.7953, -14.0262, 34.0613, 23.0295, 69.6394, -164.249
5.59167, 7, -48.8203, -14.0959, 34.2416, 23.3347, 69.7471, -164.036
5.59957, 7, -48.8354, -14.1608, 34.4118, 23.6167, 69.8601, -163.789
5.60764, 7, -48.8408, -14.2211, 34.5726, 23.8776, 69.978, -163.511
5.61606, 7, -48.8369, -14.2765, 34.7256, 24.1208, 70.1007, -163.207
5.62369, 8, -48.8245, -14.3274, 34.8714, 24.3497, 70.2267, -162.88
5.63169, 8, -48.8051, -14.3745, 35.0109, 24.568, 70.356, -162.537
5.63987, 8, -48.78, -14.4185, 35.1455, 24.7787, 70.4879, -162.181
5.64838, 9, -48.7507, -14.4599, 35.2763, 24.9848, 70.6221, -161.816
5.65564, 9, -48.7182, -14.4993, 35.4041, 25.1877, 70.7577, -161.445
5.66394, 9, -48.6835, -14.5371, 35.5296, 25.389, 70.8946, -161.07
5.67269, 9, -48.6474, -14.5739, 35.6533, 25.5902, 71.0323, -160.692
5.68054, 10, -48.6103, -14.6097, 35.7756, 25.7921, 71.1706, -160.314
5.68865, 10, -48.5725, -14.6449, 35.8966, 25.9954, 71.3094, -159.936
5.70084, 10, -48.5341, -14.6966, 36.0768, 26.3031, 71.518, -159.371
5.70385, 10, -48.4949, -14.7138, 36.1366, 26.4066, 71.5876, -159.184
5.71399, 11, -48.455, -14.7478, 36.2559, 26.6153, 71.7262, -158.811
5.72023, 11, -48.4142, -14.7817, 36.3748, 26.826, 71.8651, -158.439
5.72795, 11, -48.3728, -14.8153, 36.4931, 27.0384, 72.0033, -158.07
5.73473, 12, -48.3519, -14.8321, 36.552, 27.1452, 72.0724, -157.886
5.74447, 12, -48.2878, -14.8821, 36.7282, 27.468, 72.279, -157.336
5.75207, 12, -48.2445, -14.9152, 36.8451, 27.6851, 72.4162, -156.972
5.76113, 12, -48.2006, -14.9484, 36.9617, 27.9028, 72.5529, -156.61
5.76667, 13, -48.1783, -14.9649, 37.0196, 28.012, 72.6211, -156.429
5.77614, 13, -48.1101, -15.0145, 37.1925, 28.3407, 72.8252, -155.889
5.7844, 13, -48.0869, -15.0473, 37.3065, 28.5603, 72.9602, -155.531
5.79229, 13, -48.0398, -15.0638, 37.4196, 28.7799, 73.0948, -155.173
5.80038, 14, -47.9917, -15.0966, 37.476, 28.9997, 73.2291, -154.816
5.80752, 14, -47.9424, -15.1294, 37.5882, 29.1096, 73.296, -154.638
5.81552, 14, -47.892, -15.1621, 37.6994, 29.3294, 73.4291, -154.283
5.82364, 15, -47.84, -15.1947, 37.8096, 29.5487, 73.5621, -153.929
5.83152, 15, -47.7864, -15.2273, 37.9187, 29.7675, 73.6942, -153.575
5.84132, 15, -47.7031, -15.2759, 38.0805, 30.095, 73.8913, -153.046
5.85555, 16, -47.6161, -15.3247, 38.2405, 30.4212, 74.0868, -152.519
5.8585, 16, -47.5864, -15.3409, 38.2935, 30.5295, 74.1517, -152.344
5.86363, 16, -47.5562, -15.3572, 38.3463, 30.6377, 74.2162, -152.17
5.87167, 16, -47.495, -15.3899, 38.4509, 30.8538, 74.3447, -151.822
5.87952, 16, -47.4323, -15.4227, 38.5545, 31.0696, 74.4723, -151.474
5.88758, 17, -47.3682, -15.4558, 38.6571, 31.2844, 74.5984, -151.129
5.8957, 17, -47.3028, -15.489, 38.7591, 31.4987, 74.7238, -150.785
5.90363, 17, -47.236, -15.5228, 38.8607, 31.7125, 74.848, -150.443
5.91148, 18, -47.1678, -15.5571, 38.9618, 31.926, 74.9711, -150.102
5.91967, 18, -47.0981, -15.5917, 39.0621, 32.1387, 75.0929, -149.764
5.93002, 18, -46.9905, -15.6446, 39.2108, 32.4569, 75.2725, -149.261
5.93559, 18, -46.9538, -15.6625, 39.2601, 32.5628, 75.3317, -149.094
5.94381, 19, -46.8793, -15.699, 39.3583, 32.7743, 75.4486, -148.762
5.95235, 19, -46.8033, -15.7361, 39.4563, 32.9852, 75.5641, -148.433
5.95856, 19, -46.7258, -15.7738, 39.5541, 33.1954, 75.6782, -148.105
5.96889, 20, -46.647, -15.8123, 39.6513, 33.4051, 75.7902, -147.781
5.97827, 20, -46.526, -15.8716, 39.7956, 33.7186, 75.9554, -147.299
5.98364, 20, -46.485, -15.8918, 39.8433, 33.8227, 76.0094, -147.139
5.9916, 20, -46.4017, -15.9327, 39.9384, 34.0303, 76.1162, -146.822
5.9995, 21, -46.317, -15.9746, 40.0332, 34.2371, 76.2215, -146.507
6.00759, 21, -46.2308, -16.0172, 40.1278, 34.4434, 76.3246, -146.194
6.01827, 21, -46.0985, -16.0829, 40.2686, 34.7509, 76.4761, -145.729
6.02377, 21, -46.0536, -16.1052, 40.3151, 34.8528, 76.5256, -145.576
6.03162, 22, -45.9625, -16.1504, 40.4074, 35.056, 76.6234, -145.27
6.03953, 22, -45.8695, -16.1962, 40.4988, 35.2581, 76.7196, -144.966
6.04765, 22, -45.7746, -16.2428, 40.5894, 35.4591, 76.8142, -144.664
6.05555, 22, -45.6779, -16.29, 40.6795, 35.6586, 76.9066, -144.364
6.06367, 23, -45.5794, -16.3379, 40.7689, 35.8566, 76.9977, -144.065
6.07169, 23, -45.4791, -16.3862, 40.8572, 36.0533, 77.0873, -143.768
6.07957, 23, -45.3768, -16.4351, 40.9444, 36.2486, 77.1748, -143.472
6.08752, 24, -45.2726, -16.4844, 41.0302, 36.442, 77.261, -143.178
6.09574, 24, -45.1665, -16.5341, 41.1147, 36.6335, 77.3457, -142.886
6.10356, 24, -45.0584, -16.5842, 41.1981, 36.8232, 77.429, -142.594
6.112, 24, -44.9484, -16.6346, 41.2802, 37.011, 77.5108, -142.303
6.11982, 25, -44.8364, -16.6853, 41.3609, 37.1967, 77.5913, -142.014
6.12831, 25, -44.7222, -16.7362, 41.4402, 37.3803, 77.6707, -141.724
6.13568, 25, -44.6057, -16.7872, 41.5179, 37.5615, 77.7482, -141.436
6.14439, 26, -44.4873, -16.8383, 41.5939, 37.7406, 77.8251, -141.149
6.15232, 26, -44.3664, -16.8894, 41.6682, 37.9177, 77.9004, -140.862
6.16052, 26, -44.2431, -16.9403, 41.7407, 38.0924, 77.9751, -140.575
6.1677, 26, -44.1177, -16.991, 41.8114, 38.2645, 78.0476, -140.289
6.17554, 27, -43.9903, -17.0415, 41.8802, 38.434, 78.1198, -140.003
6.18362, 27, -43.8608, -17.0917, 41.9473, 38.6012, 78.19, -139.718
6.19392, 27, -43.7293, -17.1415, 42.0123, 38.7659, 78.2603, -139.432
6.20089, 27, -43.5957, -17.1911, 42.0755, 38.9282, 78.3285, -139.147
6.20803, 28, -43.4598, -17.2402, 42.1367, 39.0877, 78.3964, -138.862
6.21582, 28, -43.3217, -17.2888, 42.1959, 39.2448, 78.4631, -138.578
6.22418, 28, -43.1814, -17.337, 42.2529, 39.3993, 78.5289, -138.293
6.23202, 28, -43.0387, -17.3846, 42.3078, 39.5513, 78.5941, -138.009
6.23993, 29, -42.8938, -17.4317, 42.3605, 39.7011, 78.6577, -137.724
6.24839, 29, -42.7467, -17.4782, 42.4112, 39.848, 78.7212, -137.44
6.2571, 29, -42.5973, -17.5241, 42.4598, 39.9923, 78.783, -137.156
6.26423, 30, -42.4456, -17.5695, 42.5062, 40.1339, 78.845, -136.872
6.27246, 30, -42.2917, -17.6141, 42.5504, 40.273, 78.9052, -136.588
6.28233, 30, -42.1358, -17.6579, 42.5924, 40.4096, 78.9649, -136.305
6.28917, 30, -42.0571, -17.6795, 42.6126, 40.5439, 79.0241, -136.021
6.29734, 31, -41.8178, -17.7433, 42.6701, 40.6754, 79.0817, -135.738
6.30498, 31, -41.7372, -17.785, 42.7056, 40.8044, 79.1397, -135.455
6.31157, 31, -41.5743, -17.8054, 42.7227, 40.868, 79.168, -135.313
6.31952, 31, -41.4095, -17.8457, 42.7552, 40.993, 79.2236, -135.03
6.32765, 32, -41.2426, -17.8851, 42.7854, 41.1158, 79.2795, -134.747
6.33548, 32, -41.0739, -17.9237, 42.8134, 41.2362, 79.3338, -134.465
6.34361, 32, -40.903, -17.9614, 42.8393, 41.3542, 79.3877, -134.183
6.35366, 33, -40.6431, -18.0164, 42.8743, 41.5267, 79.4675, -133.76
6.35948, 33, -40.5555, -18.0343, 42.8849, 41.583, 79.4932, -133.619
6.36752, 33, -40.3789, -18.0695, 42.9044, 41.6938, 79.5449, -133.338
6.37606, 33, -40.2008, -18.1038, 42.922, 41.8021, 79.5961, -133.057
6.38371, 34, -40.0209, -18.1373, 42.9372, 41.908, 79.6456, -132.776
6.3915, 34, -39.8389, -18.1699, 42.9502, 42.0117, 79.6954, -132.495
6.39961, 34, -39.6551, -18.2015, 42.9613, 42.113, 79.7445, -132.216
6.40752, 34, -39.4693, -18.2321, 42.9704, 42.2123, 79.7918, -131.936
6.41551, 35, -39.2818, -18.2617, 42.9773, 42.3093, 79.8392, -131.657
6.42645, 35, -38.9972, -18.3044, 42.9839, 42.4503, 79.9091, -131.239
6.43184, 35, -38.9015, -18.318, 42.9851, 42.4962, 79.9317, -131.1
6.44054, 36, -38.7088, -18.3445, 42.9861, 42.5862, 79.9772, -130.822
6.4475, 36, -38.5143, -18.3701, 42.9852, 42.6738, 80.0225, -130.544
6.45566, 36, -38.3182, -18.3946, 42.9823, 42.7593, 80.0662, -130.266
6.46363, 36, -38.1202, -18.4182, 42.9773, 42.8426, 80.1094, -129.989
6.4715, 37, -37.9204, -18.4406, 42.9703, 42.9236, 80.1529, -129.713
6.47965, 37, -37.7191, -18.462, 42.9612, 43.0025, 80.1952, -129.437
6.4918, 37, -37.4152, -18.4922, 42.9434, 43.1167, 80.257, -129.024
6.49571, 38, -37.3134, -18.5017, 42.9365, 43.1539, 80.2776, -128.887
6.50432, 38, -37.1086, -18.5199, 42.9212, 43.226, 80.3185, -128.613
6.5123, 38, -36.9022, -18.5371, 42.9038, 43.2964, 80.3579, -128.339
6.51952, 38, -36.6938, -18.5533, 42.8845, 43.3641, 80.3966, -128.065
6.53022, 39, -36.4836, -18.575, 42.8517, 43.4623, 80.4548, -127.656
6.53566, 39, -36.2715, -18.5816, 42.8397, 43.4937, 80.4737, -127.52
6.5461, 39, -36.0577, -18.5943, 42.8143, 43.5546, 80.5109, -127.113
6.55151, 39, -35.8424, -18.6061, 42.7869, 43.6142, 80.5476, -126.978
6.55965, 40, -35.6258, -18.6166, 42.7577, 43.6707, 80.5847, -126.707
6.56954, 40, -35.408, -18.6258, 42.7263, 43.726, 80.6208, -126.437
6.57558, 40, -35.1887, -18.634, 42.6931, 43.7786, 80.6556, -126.168
6.58374, 41, -34.9676, -18.6412, 42.6581, 43.8289, 80.69, -125.899
6.59247, 41, -34.7449, -18.6472, 42.6211, 43.8781, 80.7246, -125.631
6.5996, 41, -34.5216, -18.6522, 42.5821, 43.9245, 80.7585, -125.363
6.60798, 41, -34.2977, -18.6563, 42.5414, 43.9684, 80.7912, -125.097
6.61555, 42, -34.0729, -18.6594, 42.4988, 44.011, 80.8233, -124.83
6.6237, 42, -33.8469, -18.6615, 42.4544, 44.0512, 80.8555, -124.565
6.63179, 42, -33.6195, -18.6625, 42.4083, 44.0889, 80.8876, -124.3
6.64086, 42, -33.3901, -18.6629, 42.3603, 44.1246, 80.9186, -124.036
6.64767, 43, -33.1584, -18.6625, 42.3107, 44.1589, 80.9486, -123.773
6.65645, 43, -32.9244, -18.6611, 42.2592, 44.1908, 80.9782, -123.51
6.6646, 43, -32.6893, -18.6584, 42.2061, 44.22, 81.0078, -123.249
6.67357, 44, -32.4533, -18.6547, 42.1511, 44.247, 81.037, -122.988
6.68177, 44, -32.216, -18.65, 42.0944, 44.2721, 81.0652, -122.728
6.68787, 44, -31.9769, -18.6441, 42.0359, 44.2955, 81.0927, -122.468
6.69667, 44, -31.7364, -18.6372, 41.9757, 44.3168, 81.1196, -122.209
6.70398, 45, -31.4952, -18.6292, 41.9137, 44.3357, 81.1465, -121.951
6.71209, 45, -31.2534, -18.6201, 41.85, 44.352, 81.1733, -121.693
6.72151, 45, -31.0113, -18.6099, 41.7845, 44.3659, 81.1992, -121.436
6.72792, 45, -30.769, -18.5984, 41.7174, 44.3774, 81.2242, -121.18
6.73627, 46, -30.5254, -18.5854, 41.6485, 44.3868, 81.2488, -120.924
6.74402, 46, -30.2796, -18.5713, 41.578, 44.3939, 81.273, -120.67
6.75239, 46, -30.0314, -18.5562, 41.5058, 44.3986, 81.2973, -120.415
6.76045, 47, -29.7813, -18.5399, 41.4318, 44.4012, 81.3215, -120.162
6.76804, 47, -29.5296, -18.5221, 41.3559, 44.4023, 81.345, -119.909
6.77612, 47, -29.2763, -18.503, 41.2782, 44.4018, 81.368, -119.657
6.78531, 47, -29.0211, -18.4828, 41.1986, 44.3987, 81.3905, -119.405
6.7923, 48, -28.7646, -18.4611, 41.1173, 44.3927, 81.4129, -119.153
6.80036, 48, -28.6357, -18.4498, 41.0759, 44.3889, 81.4241, -118.903
6.80826, 48, -28.3769, -18.4262, 40.9918, 44.3792, 81.4468, -118.652
6.81703, 48, -28.1177, -18.4013, 40.8624, 44.3592, 81.4806, -118.403
6.82348, 49, -27.8588, -18.375, 40.8183, 44.3512, 81.4917, -118.278
6.83333, 49, -27.4691, -18.3326, 40.6829, 44.3226, 81.5243, -117.904
6.84185, 49, -27.3382, -18.3025, 40.5901, 44.2994, 81.5458, -117.656
6.84751, 50, -27.0748, -18.2868, 40.543, 44.2868, 81.5566, -117.531
6.8555, 50, -26.8093, -18.2542, 40.4473, 44.2596, 81.5787, -117.283
6.86365, 50, -26.5419, -18.2201, 40.3496, 44.2299, 81.6012, -117.035
6.87147, 50, -26.2728, -18.1844, 40.2502, 44.1973, 81.6237, -116.787
6.87954, 51, -26.002, -18.147, 40.1487, 44.1612, 81.6462, -116.539
6.88764, 51, -25.729, -18.1079, 40.0451, 44.1222, 81.6687, -116.292
6.89554, 51, -25.4539, -18.0671, 39.9393, 44.081, 81.6915, -116.045
6.90349, 51, -25.1777, -18.0247, 39.8313, 44.0363, 81.7147, -115.798
6.91164, 52, -24.9017, -17.9806, 39.7214, 43.9876, 81.7389, -115.551
6.91966, 52, -24.6252, -17.9349, 39.6094, 43.937, 81.7634, -115.304
6.92756, 52, -24.3475, -17.8872, 39.4956, 43.8827, 81.788, -115.057
6.93782, 53, -23.9276, -17.8123, 39.3208, 43.7957, 81.8251, -114.687
6.94598, 53, -23.6448, -17.7602, 39.2014, 43.7335, 81.8503, -114.441
6.9515, 53, -23.5027, -17.7335, 39.1409, 43.701, 81.8633, -114.318
6.96233, 53, -23.0746, -17.6505, 38.9564, 43.5999, 81.9035, -113.949
6.96774, 54, -22.931, -17.622, 38.8939, 43.5643, 81.917, -113.825
6.97549, 54, -22.6419, -17.5636, 38.7675, 43.4916, 81.9443, -113.579
6.98348, 54, -22.3504, -17.5034, 38.6391, 43.4149, 81.9719, -113.333
6.99157, 54, -22.0575, -17.4415, 38.5083, 43.3354, 82.0001, -113.087
6.99948, 55, -21.7637, -17.3779, 38.3755, 43.2523, 82.0295, -112.84
7.00748, 55, -21.4693, -17.3126, 38.2408, 43.1659, 82.0595, -112.594
7.01563, 55, -21.1739, -17.2453, 38.1041, 43.0762, 82.0896, -112.348
7.02355, 56, -20.8764, -17.1764, 37.9654, 42.9827, 82.1199, -112.102
7.03149, 56, -20.5766, -17.1056, 37.8248, 42.8861, 82.1509, -111.856
7.03971, 56, -20.2754, -17.0333, 37.6823, 42.7858, 82.183, -111.61
7.04835, 56, -19.9726, -16.9593, 37.5378, 42.6823, 82.2154, -111.365
7.05553, 57, -19.6678, -16.8836, 37.3913, 42.5754, 82.2478, -111.119
7.06372, 57, -19.3611, -16.8063, 37.243, 42.4648, 82.2809, -110.874
7.0725, 57, -19.0524, -16.7276, 37.093, 42.3507, 82.315, -110.629
7.07948, 57, -18.7422, -16.6473, 36.9415, 42.2328, 82.3498, -110.383
7.08886, 58, -18.4308, -16.5655, 36.788, 42.1112, 82.3845, -110.138
7.09737, 58, -18.1177, -16.4821, 36.6324, 41.9861, 82.4195, -109.893
7.10454, 58, -17.802, -16.3972, 36.4747, 41.8573, 82.4556, -109.649
7.11149, 59, -17.4842, -16.3108, 36.3158, 41.725, 82.4926, -109.404
7.11966, 59, -17.165, -16.2229, 36.1554, 41.5888, 82.5295, -109.16
7.12758, 59, -16.844, -16.1336, 35.993, 41.4487, 82.5668, -108.915
7.13607, 59, -16.5217, -16.0427, 35.8286, 41.3048, 82.6054, -108.671
7.14383, 60, -16.1974, -15.9501, 35.6629, 41.1568, 82.6449, -108.426
7.1516, 60, -15.8716, -15.8562, 35.4961, 41.005, 82.684, -108.182
7.15959, 60, -15.545, -15.7606, 35.3271, 40.8492, 82.7237, -107.938
7.16783, 61, -15.2164, -15.6635, 35.1558, 40.6896, 82.7649, -107.694
7.17581, 61, -14.8846, -15.5647, 34.9833, 40.5259, 82.8067, -107.45
7.18453, 61, -14.5493, -15.4646, 34.8095, 40.3579, 82.8485, -107.205
7.19254, 61, -14.211, -15.363, 34.6337, 40.186, 82.8917, -106.961
7.19958, 62, -13.8709, -15.2596, 34.4557, 40.0098, 82.9362, -106.717
7.20767, 62, -13.5296, -15.1545, 34.2767, 39.8296, 82.9806, -106.472
7.21634, 62, -13.1869, -15.0477, 34.0965, 39.645, 83.026, -106.228
7.22557, 62, -12.843, -14.9394, 33.9138, 39.4557, 83.0732, -105.982
7.23186, 63, -12.4978, -14.8294, 33.7291, 39.2622, 83.1205, -105.737
7.24212, 63, -12.1506, -14.7176, 33.5436, 39.0646, 83.1692, -105.492
7.25086, 63, -11.8009, -14.6041, 33.3564, 38.8624, 83.2198, -105.246
7.2561, 63, -11.4472, -14.4885, 33.1666, 38.6556, 83.2706, -105
7.26405, 64, -11.09, -14.3711, 32.9756, 38.4443, 83.3229, -104.753
7.27231, 64, -10.7304, -14.2519, 32.7836, 38.2287, 83.3772, -104.506
7.28155, 64, -10.3684, -14.1307, 32.5891, 38.0083, 83.4316, -104.259
7.2881, 65, -10.1868, -14.0077, 32.3927, 37.783, 83.4885, -104.011
7.29632, 65, -9.64103, -13.8829, 32.1956, 37.553, 83.5465, -103.762
7.30348, 65, -9.45853, -13.8198, 32.0965, 37.4363, 83.5757, -103.637
7.31146, 65, -9.09234, -13.6916, 31.8963, 37.1996, 83.6365, -103.388
7.32086, 66, -8.53689, -13.4952, 31.5932, 36.8357, 83.7303, -103.012
7.32908, 66, -8.3498, -13.3617, 31.3898, 36.5875, 83.7957, -102.761
7.33547, 66, -7.97275, -13.2942, 31.2872, 36.4615, 83.8288, -102.635
7.34376, 66, -7.59265, -13.1579, 31.0807, 36.206, 83.8957, -102.383
7.35309, 67, -7.01976, -12.9489, 30.7697, 35.814, 84.0007, -102.004
7.35948, 67, -6.82821, -12.8782, 30.6652, 35.681, 84.0365, -101.877
7.36752, 67, -6.44459, -12.735, 30.4544, 35.4113, 84.1101, -101.623
7.37545, 68, -6.05955, -12.5898, 30.2429, 35.1371, 84.1849, -101.367
7.38346, 68, -5.67115, -12.4426, 30.0305, 34.8585, 84.2622, -101.112
7.39321, 68, -5.08102, -12.2177, 29.7085, 34.4317, 84.382, -100.727
7.39976, 68, -4.88243, -12.1416, 29.601, 34.287, 84.4229, -100.599
7.40745, 69, -4.48322, -11.9877, 29.3852, 33.9945, 84.5062, -100.34
7.41826, 69, -3.88135, -11.7533, 29.0584, 33.547, 84.6354, -99.9523
7.42377, 69, -3.68047, -11.6743, 28.9494, 33.3956, 84.6794, -99.8225
7.43147, 69, -3.27837, -11.5145, 28.7313, 33.0898, 84.7691, -99.5622
7.44047, 70, -2.87463, -11.352, 28.5116, 32.7797, 84.8611, -99.3011
7.4486, 70, -2.46806, -11.1874, 28.2913, 32.4653, 84.9554, -99.0395
7.45551, 70, -2.05713, -11.0211, 28.0707, 32.1469, 85.0514, -98.7772
7.46345, 71, -1.64197, -10.8529, 27.8488, 31.8242, 85.1498, -98.5145
7.47165, 71, -1.22429, -10.6823, 27.6271, 31.4977, 85.2507, -98.2507
7.47951, 71, -0.805932, -10.5092, 27.4058, 31.167, 85.3533, -97.9862
7.48747, 71, -0.387984, -10.3345, 27.1835, 30.8322, 85.4585, -97.7213
7.49567, 72, 0.0307441, -10.1584, 26.9611, 30.4937, 85.5661, -97.4558
7.50461, 72, 0.451628, -9.97987, 26.739, 30.1517, 85.6754, -97.1891
7.51148, 72, 0.876354, -9.79845, 26.516, 29.8064, 85.7874, -96.9217
7.51969, 72, 1.30432, -9.61504, 26.2937, 29.4576, 85.9014, -96.6539
7.52845, 73, 1.73503, -9.43065, 26.0721, 29.1055, 86.0175, -96.3856
7.53548, 73, 2.1669, -9.24456, 25.8498, 28.7502, 86.1362, -96.1165
7.54348, 73, 2.59843, -9.05584, 25.628, 28.3915, 86.2569, -95.8466
7.55154, 74, 3.02947, -8.86487, 25.4072, 28.0303, 86.3804, -95.5758
7.55947, 74, 3.46161, -8.67224, 25.1863, 27.6665, 86.506, -95.3044
7.56875, 74, 3.89691, -8.47724, 24.9662, 27.2998, 86.6342, -95.032
7.57593, 74, 4.3357, -8.27917, 24.7473, 26.9308, 86.7649, -94.7587
7.58458, 75, 4.77732, -8.07872, 24.5283, 26.5595, 86.8981, -94.4849
7.59356, 75, 5.21925, -7.87672, 24.3103, 26.1863, 87.0338, -94.2104
7.59974, 75, 5.65953, -7.67254, 24.0938, 25.811, 87.1723, -93.935
7.60954, 76, 6.09831, -7.46551, 23.8777, 25.434, 87.3135, -93.6585
7.61555, 76, 6.53793, -7.25623, 23.6625, 25.0559, 87.457, -93.3815
7.62368, 76, 6.9796, -7.04467, 23.4491, 24.6765, 87.6036, -93.1038
7.63347, 76, 7.42393, -6.83, 23.2363, 24.2961, 87.7529, -92.8248
7.63957, 77, 7.86986, -6.61274, 23.0245, 23.9144, 87.9053, -92.5448
7.64771, 77, 8.31551, -6.39405, 22.8146, 23.5319, 88.0605, -92.2641
7.65646, 77, 8.75862, -6.17297, 22.6056, 23.1491, 88.2185, -91.9825
7.66437, 77, 9.19947, -5.94902, 22.3978, 22.7663, 88.3796, -91.6999
7.67206, 78, 9.6403, -5.72262, 22.1922, 22.3835, 88.5435, -91.4162
7.67973, 78, 10.0833, -5.4929, 21.988, 22.0009, 88.7106, -91.1314
7.68749, 78, 10.5281, -5.25959, 21.7847, 21.619, 88.8805, -90.8457
7.6959, 79, 10.9732, -5.02403, 21.5834, 21.2378, 89.0535, -90.5586
7.70439, 79, 11.4167, -4.78648, 21.3838, 20.8575, 89.2294, -90.2703
7.71164, 79, 11.8568, -4.54602, 21.1851, 20.4779, 89.4083, -89.9811
7.72092, 79, 12.294, -4.30342, 20.9885, 20.0999, 89.5904, -89.6909
7.72775, 80, 12.7301, -4.05804, 20.7943, 19.7239, 89.7757, -89.3992
7.73591, 80, 13.1671, -3.80878, 20.6013, 19.3498, 89.9639, -89.1063
7.74455, 80, 13.6045, -3.55682, 20.4095, 18.9777, 90.1554, -88.8123
7.75353, 80, 14.0411, -3.30236, 20.2201, 18.6081, 90.35, -88.5168
7.76, 81, 14.4748, -3.04462, 20.0324, 18.2409, 90.5476, -88.2196
7.77034, 81, 14.9042, -2.78438, 19.8459, 17.8765, 90.7486, -87.9212
7.77628, 81, 15.3295, -2.52059, 19.6616, 17.5156, 90.9526, -87.6216
7.78451, 82, 15.7533, -2.25279, 19.4797, 17.1575, 91.16, -87.3205
7.79208, 82, 15.9652, -2.11791, 19.3892, 16.9797, 91.3709, -87.0173
7.80219, 82, 16.6002, -1.70848, 19.1193, 16.4522, 91.5851, -86.7126
7.80945, 82, 17.0214, -1.43124, 18.9421, 16.1054, 91.8025, -86.4064
7.81547, 83, 17.2307, -1.29153, 18.8543, 15.9337, 91.9125, -86.2525
7.82435, 83, 17.6459, -1.00901, 18.6798, 15.5933, 92.1349, -85.9432
7.83143, 83, 18.0559, -0.722576, 18.5064, 15.2569, 92.3608, -85.6323
7.83945, 83, 18.4615, -0.433373, 18.335, 14.926, 92.5902, -85.3197
7.8476, 84, 18.8654, -0.140286, 18.166, 14.5997, 92.8229, -85.0049
7.85685, 84, 19.2675, 0.304735, 17.9143, 14.1202, 93.1783, -84.5291
7.86348, 84, 19.6675, 0.455066, 17.831, 13.9629, 93.2984, -84.3696
7.8733, 85, 20.2601, 0.910799, 17.5845, 13.4989, 93.6633, -83.8878
7.8797, 85, 20.4553, 1.06402, 17.5032, 13.3472, 93.7867, -83.7261
7.8875, 85, 20.8417, 1.37329, 17.3416, 13.048, 94.0353, -83.4013
7.89546, 85, 21.2231, 1.68538, 17.1814, 12.7548, 94.2868, -83.0747
7.90351, 86, 21.6009, 2.0012, 17.0234, 12.468, 94.5412, -82.7458
7.91151, 86, 21.9757, 2.32017, 16.8673, 12.1876, 94.7985, -82.4148
7.92229, 86, 22.5329, 2.80406, 16.6357, 11.7789, 95.1898, -81.9144
7.92767, 86, 22.7167, 2.96679, 16.5594, 11.646, 95.3215, -81.7464
7.93543, 87, 23.0807, 3.29442, 16.4083, 11.3851, 95.5867, -81.4089
7.94346, 87, 23.44, 3.62578, 16.2595, 11.1308, 95.854, -81.07
7.95145, 87, 23.7935, 3.95922, 16.1125, 10.8835, 96.1234, -80.7292
7.95942, 88, 24.1416, 4.29509, 15.9675, 10.6433, 96.3944, -80.3863
7.96746, 88, 24.4855, 4.63291, 15.8246, 10.41, 96.6666, -80.0418
7.97554, 88, 24.8255, 4.97346, 15.6839, 10.1836, 96.9401, -79.6957
7.98345, 88, 25.1618, 5.31592, 15.5455, 9.96432, 97.2146, -79.3478
7.99151, 89, 25.4933, 5.65975, 15.4092, 9.75215, 97.4897, -78.9985
7.99946, 89, 25.8193, 6.00448, 15.2751, 9.54717, 97.7653, -78.648
8.00745, 89, 26.1408, 6.35053, 15.1435, 9.34922, 98.0413, -78.296
8.01551, 89, 26.4583, 6.69844, 15.0143, 9.15847, 98.3176, -77.9423
8.02342, 90, 26.771, 7.04729, 14.8876, 8.97508, 98.5942, -77.5874
8.03147, 90, 27.079, 7.39745, 14.7634, 8.79899, 98.8707, -77.2311
8.03953, 90, 27.3823, 7.74864, 14.6416, 8.62996, 99.1472, -76.8735
8.04742, 91, 27.6805, 8.102, 14.5222, 8.46798, 99.4231, -76.5152
8.05544, 91, 27.9742, 8.45629, 14.4052, 8.3132, 99.6986, -76.1553
8.06352, 91, 28.2631, 8.81165, 14.2906, 8.16561, 99.9738, -75.7941
8.07151, 91, 28.5469, 9.16728, 14.1785, 8.02535, 100.248, -75.4316
8.07945, 92, 28.8257, 9.52455, 14.0688, 7.8923, 100.523, -75.0678
8.08752, 92, 29.1005, 9.88255, 13.9613, 7.7662, 100.797, -74.7025
8.09545, 92, 29.3711, 10.2418, 13.8558, 7.64715, 101.07, -74.3362
8.10345, 92, 29.6374, 10.6012, 13.7524, 7.53532, 101.343, -73.9682
8.11151, 93, 29.8993, 10.9619, 13.6511, 7.43066, 101.616, -73.5984
8.11949, 93, 30.1567, 11.323, 13.552, 7.33334, 101.888, -73.227
8.12761, 93, 30.4086, 11.685, 13.4551, 7.24362, 102.16, -72.8536
8.1356, 94, 30.6551, 12.0474, 13.3601, 7.16055, 102.432, -72.4784
8.14824, 94, 31.016, 12.594, 13.221, 7.04997, 102.839, -71.9131
8.15155, 94, 31.1339, 12.7764, 13.1756, 7.01656, 102.974, -71.7235
8.1603, 94, 31.3661, 13.1421, 13.0864, 6.95599, 103.244, -71.343
8.16755, 95, 31.5938, 13.5079, 12.9994, 6.90151, 103.513, -70.961
8.17545, 95, 31.8176, 13.875, 12.9147, 6.85488, 103.782, -70.5772
8.18351, 95, 32.0375, 14.2425, 12.8321, 6.81568, 104.049, -70.1917
8.19157, 95, 32.253, 14.6103, 12.7515, 6.78296, 104.315, -69.8049
8.19952, 96, 32.464, 14.9775, 12.6728, 6.75675, 104.579, -69.4162
8.20771, 96, 32.6706, 15.345, 12.5965, 6.73748, 104.842, -69.026
8.21661, 96, 32.8726, 15.712, 12.5226, 6.72501, 105.103, -68.6345
8.22368, 97, 33.07, 16.0786, 12.4511, 6.71897, 105.362, -68.2413
8.23179, 97, 33.2631, 16.4445, 12.3821, 6.71805, 105.619, -67.8475
8.23983, 97, 33.4521, 16.8104, 12.3155, 6.7243, 105.874, -67.4529
8.24879, 97, 33.6368, 17.1762, 12.2512, 6.73768, 106.126, -67.0566
8.25602, 98, 33.8174, 17.5414, 12.1893, 6.75786, 106.376, -66.6592
8.26397, 98, 33.9941, 17.9055, 12.1299, 6.78485, 106.624, -66.2608
8.27198, 98, 34.167, 18.2691, 12.0729, 6.81753, 106.87, -65.8613
8.28055, 98, 34.3364, 18.6322, 12.0183, 6.85607, 107.113, -65.4613
8.28805, 99, 34.4199, 18.9945, 11.9659, 6.90161, 107.354, -65.0598
8.29597, 99, 34.5845, 19.1753, 11.9406, 6.92668, 107.592, -64.6572
8.30541, 99, 34.8257, 19.7152, 11.8683, 7.0088, 107.827, -64.254
8.31142, 100, 34.9045, 19.8947, 11.8454, 7.03957, 107.943, -64.0518
8.31945, 100, 35.0596, 20.2517, 11.8015, 7.10482, 108.174, -63.6471
8.32749, 100, 35.2117, 20.6065, 11.7604, 7.17513, 108.401, -63.2429
8.33543, 100, 35.3609, 20.9582, 11.7218, 7.25077, 108.624, -62.8385
8.34344, 101, 35.5071, 21.3079, 11.6863, 7.33083, 108.843, -62.4346
8.35149, 101, 35.6505, 21.6552, 11.6538, 7.41553, 109.058, -62.032
8.35945, 101, 35.7909, 21.9999, 11.6241, 7.50429, 109.266, -61.6308
8.36767, 102, 35.9282, 22.3415, 11.5978, 7.59707, 109.47, -61.2315
8.37551, 102, 36.0623, 22.6807, 11.5746, 7.6937, 109.667, -60.8347
8.38344, 102, 36.1933, 23.0184, 11.5543, 7.79397, 109.859, -60.4393
8.39144, 102, 36.3213, 23.354, 11.5366, 7.89775, 110.046, -60.0454
8.401, 103, 36.5087, 23.8522, 11.5143, 8.06091, 110.32, -59.4549
8.40907, 103, 36.6313, 24.1785, 11.5023, 8.17498, 110.499, -59.061
8.41545, 103, 36.692, 24.3397, 11.4971, 8.23366, 110.587, -58.8643
8.42493, 103, 36.8121, 24.6567, 11.4886, 8.35449, 110.76, -58.4715
8.43143, 104, 36.9305, 24.9678, 11.483, 8.47945, 110.927, -58.0806
8.44044, 104, 37.0472, 25.2735, 11.4806, 8.60826, 111.086, -57.6943
8.4475, 104, 37.162, 25.5747, 11.4817, 8.74014, 111.234, -57.314
8.45544, 104, 37.2748, 25.8733, 11.4866, 8.87426, 111.371, -56.9409
8.46344, 104, 37.386, 26.1681, 11.4951, 9.01032, 111.497, -56.576
8.4715, 104, 37.4958, 26.4596, 11.5066, 9.14826, 111.614, -56.2173
8.47946, 104, 37.6046, 26.7467, 11.5201, 9.28799, 111.724, -55.8633
8.48744, 104, 37.7122, 27.0286, 11.535, 9.42956, 111.83, -55.5129
8.49551, 104, 37.8188, 27.3069, 11.5508, 9.57296, 111.933, -55.1645
8.50343, 104, 37.9243, 27.5823, 11.5665, 9.71816, 112.034, -54.8171
8.51144, 104, 38.029, 27.8564, 11.5818, 9.86519, 112.135, -54.4712
8.5195, 104, 38.1328, 28.1306, 11.5972, 10.014, 112.234, -54.1263
8.52743, 104, 38.2357, 28.4042, 11.6127, 10.165, 112.334, -53.7819
8.53548, 104, 38.3378, 28.6781, 11.6279, 10.3178, 112.432, -53.4384
8.54349, 104, 38.4386, 28.9522, 11.6429, 10.4726, 112.53, -53.0958
8.55144, 104, 38.5376, 29.2241, 11.6578, 10.6288, 112.628, -52.7539
8.55945, 104, 38.6341, 29.4934, 11.672, 10.7864, 112.725, -52.4136
8.56755, 104, 38.7279, 29.7584, 11.6853, 10.9446, 112.821, -52.0768
8.57549, 104, 38.8188, 30.0176, 11.698, 11.1025, 112.916, -51.7446
8.58345, 104, 38.9066, 30.2702, 11.7103, 11.2585, 113.007, -51.4202
8.59148, 104, 38.9908, 30.5135, 11.7218, 11.4106, 113.096, -51.107
8.59946, 104, 39.0712, 30.7459, 11.7327, 11.557, 113.18, -50.8083
8.60746, 104, 39.1475, 30.9673, 11.743, 11.696, 113.259, -50.5273
8.61549, 104, 39.2193, 31.1757, 11.7528, 11.8261, 113.332, -50.2665
8.62346, 104, 39.2858, 31.3682, 11.7622, 11.9464, 113.398, -50.0281
8.63152, 104, 39.3468, 31.5439, 11.7709, 12.0559, 113.458, -49.8132
8.63956, 104, 39.4017, 31.7015, 11.7787, 12.1538, 113.511, -49.6221
8.64758, 104, 39.45, 31.8401, 11.7856, 12.24, 113.557, -49.4553
8.65557, 104, 39.4919, 31.9602, 11.7917, 12.3137, 113.596, -49.3128
8.66358, 104, 39.5268, 32.0628, 11.7968, 12.3758, 113.629, -49.1939
8.67154, 104, 39.5551, 32.1488, 11.8013, 12.4255, 113.656, -49.0975
8.67946, 104, 39.5777, 32.2196, 11.8054, 12.4642, 113.676, -49.0222
8.68766, 104, 39.5952, 32.277, 11.8092, 12.4937, 113.691, -48.9662
8.69548, 104, 39.6082, 32.323, 11.8128, 12.5149, 113.701, -48.9265
8.70355, 104, 39.6175, 32.3583, 11.816, 12.5293, 113.708, -48.8997
8.71179, 104, 39.624, 32.3845, 11.8186, 12.5386, 113.712, -48.8828
8.71967, 104, 39.6288, 32.4037, 11.8209, 12.5441, 113.714, -48.873
8.72768, 104, 39.6325, 32.4171, 11.8227, 12.547, 113.715, -48.868
8.73606, 104, 39.6345, 32.4256, 11.8241, 12.5485, 113.716, -48.8656
8.74444, 105, 39.6353, 32.4308, 11.8252, 12.5492, 113.716, -48.8646
8.75189, 105, 39.6355, 32.4341, 11.8259, 12.5496, 113.716, -48.8642
8.75999, 105, 39.6355, 32.4362, 11.8265, 12.5497, 113.716, -48.8642
8.768, 105, 39.6355, 32.4374, 11.827, 12.5498, 113.716, -48.8643
8.77602, 105, 39.6356, 32.4383, 11.8274, 12.5498, 113.716, -48.8646
8.78425, 105, 39.6356, 32.4391, 11.8279, 12.5499, 113.717, -48.8648
8.79208, 105, 39.6357, 32.4394, 11.8284, 12.5499, 113.717, -48.8651
8.79998, 105, 39.6358, 32.44, 11.8286, 12.5499, 113.717, -48.8654
8.80802, 105, 39.6361, 32.4406, 11.8289, 12.5499, 113.717, -48.8655
8.81545, 105, 39.6362, 32.4411, 11.8293, 12.5499, 113.716, -48.8658
8.82343, 105, 39.6364, 32.4417, 11.8296, 12.5499, 113.716, -48.866
8.8325, 105, 39.6366, 32.4423, 11.8299, 12.5499, 113.716, -48.8664
8.83942, 105, 39.6367, 32.4428, 11.8303, 12.5499, 113.716, -48.8665
8.84743, 105, 39.6367, 32.4432, 11.8306, 12.5498, 113.716, -48.8667
8.85546, 105, 39.6367, 32.4435, 11.8309, 12.5499, 113.716, -48.867
8.86341, 105, 39.6367, 32.4436, 11.831, 12.5498, 113.716, -48.8672
