hehonglu123/Motion-Primitive-Planning/realrobot/recorded_data/repeatibility/from_NX/v600_iteration2.csv
timestamp, cmd_num, J1, J2, J3, J4, J5, J6
0.000357, -1, 39.6327, 32.4436, 11.8322, 12.5483, 113.716, -48.8695
0.00428, -1, 39.6327, 32.4436, 11.8322, 12.5483, 113.716, -48.8696
0.008197, -1, 39.6327, 32.4436, 11.8322, 12.5483, 113.716, -48.8696
0.029252, -1, 39.6327, 32.4436, 11.8322, 12.5483, 113.716, -48.8695
0.031285, -1, 39.6327, 32.4436, 11.8322, 12.5483, 113.716, -48.8695
0.03277, -1, 39.6327, 32.4436, 11.8322, 12.5483, 113.716, -48.8695
0.040062, -1, 39.6327, 32.4436, 11.8322, 12.5483, 113.716, -48.8695
0.047203, -1, 39.6324, 32.4437, 11.8322, 12.5483, 113.716, -48.8695
0.05512, -1, 39.6309, 32.4435, 11.8322, 12.5483, 113.716, -48.8695
0.201637, -1, 38.1681, 31.6948, 12.1249, 12.5607, 112.945, -50.838
0.202926, -1, 38.1681, 31.6948, 12.1249, 12.5607, 112.945, -50.838
0.204984, -1, 38.0782, 31.6479, 12.1444, 12.5619, 112.894, -50.9652
0.206224, -1, 38.0782, 31.6479, 12.1444, 12.5619, 112.894, -50.9652
0.208865, -1, 37.987, 31.6005, 12.1639, 12.5631, 112.844, -51.0932
0.210102, -1, 37.987, 31.6005, 12.1639, 12.5631, 112.844, -51.0932
0.212024, -1, 37.987, 31.6005, 12.1639, 12.5631, 112.793, -51.222
0.215127, -1, 37.8946, 31.5526, 12.1833, 12.5643, 112.793, -51.222
0.217147, -1, 37.8012, 31.5043, 12.2028, 12.5654, 112.742, -51.3511
0.21841, -1, 37.8012, 31.5043, 12.2028, 12.5654, 112.742, -51.3511
0.221666, -1, 37.7071, 31.4557, 12.2222, 12.5666, 112.691, -51.4804
0.222925, -1, 37.7071, 31.4557, 12.2222, 12.5666, 112.691, -51.4804
0.224978, -1, 37.6122, 31.4069, 12.2415, 12.5678, 112.64, -51.6101
0.226201, -1, 37.6122, 31.4069, 12.2415, 12.5678, 112.64, -51.6101
0.228254, -1, 37.6122, 31.4069, 12.2415, 12.569, 112.588, -51.7399
0.233225, -1, 37.4212, 31.3091, 12.2802, 12.5702, 112.537, -51.8696
0.234471, -1, 37.4212, 31.3091, 12.2802, 12.5702, 112.537, -51.8696
0.23635, -1, 37.3253, 31.2602, 12.2996, 12.5715, 112.486, -51.9994
0.237726, -1, 37.3253, 31.2602, 12.2996, 12.5715, 112.486, -51.9994
0.239249, -1, 37.3253, 31.2602, 12.2996, 12.5715, 112.486, -51.9994
0.241325, -1, 37.2293, 31.2112, 12.3191, 12.5727, 112.434, -52.1292
0.242672, -1, 37.2293, 31.2112, 12.3191, 12.5727, 112.434, -52.1292
0.249024, -1, 37.0371, 31.1135, 12.3578, 12.5752, 112.331, -52.3891
0.250265, -1, 37.0371, 31.1135, 12.3578, 12.5752, 112.331, -52.3891
0.255023, -1, 36.941, 31.0646, 12.3772, 12.5765, 112.28, -52.5193
0.263128, -1, 36.7491, 30.967, 12.416, 12.5791, 112.177, -52.7796
0.27265, -1, 36.4617, 30.8205, 12.4743, 12.583, 112.022, -53.1701
0.281322, -1, 36.2702, 30.7228, 12.5131, 12.5856, 111.919, -53.4305
0.287089, -1, 36.1744, 30.6739, 12.5325, 12.5869, 111.868, -53.5608
0.296737, -1, 35.8873, 30.5271, 12.5909, 12.5909, 111.714, -53.9518
0.305502, -1, 35.7915, 30.4781, 12.6104, 12.5922, 111.611, -54.2121
0.312608, -1, 35.5998, 30.3801, 12.6492, 12.5947, 111.559, -54.3423
0.320044, -1, 35.4077, 30.2818, 12.688, 12.5974, 111.456, -54.6027
0.327025, -1, 35.2153, 30.1835, 12.7268, 12.6, 111.353, -54.8633
0.336026, -1, 35.0228, 30.0851, 12.7657, 12.6026, 111.25, -55.1242
0.344074, -1, 34.8306, 29.9867, 12.8046, 12.6053, 111.147, -55.3847
0.35105, -1, 34.6382, 29.8881, 12.8434, 12.6078, 111.043, -55.6455
0.360053, -1, 34.4459, 29.7896, 12.8824, 12.6104, 110.941, -55.9061
0.368193, -1, 34.2537, 29.6913, 12.9213, 12.613, 110.837, -56.1672
0.376175, -1, 34.0617, 29.593, 12.9602, 12.6156, 110.734, -56.4279
0.384027, -1, 33.8699, 29.4948, 12.9992, 12.6183, 110.631, -56.6887
0.392028, -1, 33.6781, 29.3965, 13.038, 12.621, 110.528, -56.9496
0.399077, -1, 33.4861, 29.2982, 13.0769, 12.6237, 110.425, -57.2106
0.407022, -1, 33.2937, 29.1998, 13.1159, 12.6264, 110.322, -57.4718
0.41603, -1, 33.1011, 29.1012, 13.1548, 12.629, 110.219, -57.7327
0.423018, -1, 32.9083, 29.0027, 13.1936, 12.6317, 110.116, -57.9938
0.432024, -1, 32.7151, 28.9041, 13.2326, 12.6343, 110.013, -58.2551
0.44101, -1, 32.5216, 28.8055, 13.2714, 12.6371, 109.91, -58.5163
0.447018, -1, 32.3278, 28.7068, 13.3103, 12.6397, 109.807, -58.7773
0.456143, -1, 32.1337, 28.608, 13.3492, 12.6424, 109.704, -59.0384
0.464057, -1, 31.9397, 28.5092, 13.388, 12.6452, 109.6, -59.2997
0.472092, -1, 31.7458, 28.4103, 13.427, 12.6479, 109.497, -59.5613
0.479071, -1, 31.5522, 28.3115, 13.466, 12.6508, 109.394, -59.8224
0.48803, -1, 31.359, 28.2129, 13.5049, 12.6536, 109.291, -60.0836
0.496028, -1, 31.1662, 28.1144, 13.5439, 12.6564, 109.188, -60.3449
0.504024, -1, 30.9737, 28.0159, 13.583, 12.6592, 109.085, -60.6065
0.512109, -1, 30.7816, 27.9174, 13.622, 12.6621, 108.982, -60.8678
0.520039, -1, 30.5896, 27.8188, 13.661, 12.6649, 108.878, -61.1291
0.52721, -1, 30.3976, 27.7202, 13.7, 12.6677, 108.775, -61.3906
0.535985, -1, 30.2055, 27.6214, 13.7389, 12.6704, 108.672, -61.6523
0.544084, -1, 30.0132, 27.5228, 13.778, 12.6731, 108.569, -61.9139
0.55123, -1, 29.8203, 27.424, 13.8169, 12.6758, 108.466, -62.1756
0.559946, -1, 29.627, 27.3252, 13.8558, 12.6784, 108.362, -62.4372
0.568024, -1, 29.4332, 27.2264, 13.8947, 12.681, 108.259, -62.699
0.575115, -1, 29.2391, 27.1276, 13.9337, 12.6836, 108.156, -62.9608
0.58444, -1, 29.0448, 27.0287, 13.9726, 12.686, 108.052, -63.2222
0.591209, -1, 28.8503, 26.9297, 14.0116, 12.6885, 107.949, -63.4838
0.600234, -1, 28.6561, 26.8307, 14.0505, 12.691, 107.845, -63.7454
0.607248, -1, 28.462, 26.7319, 14.0896, 12.6934, 107.742, -64.0073
0.616037, -1, 28.2684, 26.6332, 14.1286, 12.6959, 107.639, -64.2688
0.624227, -1, 28.0752, 26.5344, 14.1676, 12.6983, 107.535, -64.5303
0.631444, -1, 27.8822, 26.4356, 14.2066, 12.7008, 107.432, -64.7921
0.639649, -1, 27.6895, 26.3369, 14.2456, 12.7032, 107.329, -65.054
0.648404, -1, 27.4972, 26.238, 14.2845, 12.7056, 107.225, -65.3155
0.655679, -1, 27.305, 26.139, 14.3236, 12.708, 107.122, -65.577
0.789943, -1, 24.1159, 24.5083, 14.9666, 12.7462, 105.419, -69.8955
0.791134, -1, 24.1159, 24.5083, 14.9666, 12.7462, 105.419, -69.8955
0.793849, -1, 24.0196, 24.4589, 14.9861, 12.7474, 105.367, -70.0262
0.795031, -1, 24.0196, 24.4589, 14.9861, 12.7474, 105.367, -70.0262
0.797007, -1, 23.9232, 24.4095, 15.0056, 12.7486, 105.315, -70.1571
0.798268, -1, 23.9232, 24.4095, 15.0056, 12.7486, 105.315, -70.1571
0.79952, -1, 23.9232, 24.4095, 15.0056, 12.7486, 105.315, -70.1571
0.804775, -1, 23.8267, 24.3106, 15.0445, 12.7511, 105.212, -70.4187
0.806159, -1, 23.7302, 24.3106, 15.0445, 12.7511, 105.212, -70.4187
0.807352, -1, 23.7302, 24.3106, 15.0445, 12.7511, 105.212, -70.4187
0.80959, -1, 23.6337, 24.2612, 15.0639, 12.7522, 105.16, -70.5497
0.810911, -1, 23.6337, 24.2612, 15.0639, 12.7522, 105.16, -70.5497
0.812716, -1, 23.6337, 24.2612, 15.0834, 12.7534, 105.108, -70.6807
0.814153, -1, 23.5372, 24.2118, 15.0834, 12.7534, 105.108, -70.6807
0.815342, -1, 23.5372, 24.2118, 15.0834, 12.7534, 105.108, -70.6807
0.818287, -1, 23.4405, 24.1623, 15.1029, 12.7546, 105.057, -70.8115
0.819465, -1, 23.4405, 24.1623, 15.1029, 12.7546, 105.057, -70.8115
0.821602, -1, 23.3437, 24.1129, 15.1224, 12.7558, 105.005, -70.9423
0.8229, -1, 23.3437, 24.1129, 15.1224, 12.7558, 105.005, -70.9423
0.824081, -1, 23.3437, 24.1129, 15.1224, 12.7558, 105.005, -70.9423
0.826885, -1, 23.2468, 24.0634, 15.1418, 12.757, 104.953, -71.0731
0.832069, -1, 23.1499, 24.014, 15.1612, 12.7583, 104.902, -71.204
0.840066, -1, 22.9558, 23.915, 15.2001, 12.7607, 104.798, -71.4659
0.847136, -1, 22.7617, 23.8162, 15.2391, 12.7632, 104.695, -71.7277
0.855005, -1, 22.5679, 23.7174, 15.278, 12.7657, 104.591, -71.9892
0.864011, -1, 22.3742, 23.6188, 15.317, 12.7682, 104.488, -72.2507
0.871008, -1, 22.1809, 23.52, 15.356, 12.7707, 104.385, -72.5121
0.879001, -1, 21.9877, 23.4213, 15.3949, 12.7733, 104.281, -72.7738
0.888008, -1, 21.7949, 23.3227, 15.4339, 12.776, 104.178, -73.0352
0.895, -1, 21.6027, 23.2239, 15.4728, 12.7787, 104.075, -73.2965
0.903005, -1, 21.4105, 23.1252, 15.5117, 12.7814, 103.972, -73.558
0.91202, -1, 21.2183, 23.0265, 15.5508, 12.784, 103.868, -73.8195
0.919015, -1, 21.0259, 22.928, 15.5897, 12.7867, 103.765, -74.0809
0.927014, -1, 20.8334, 22.8293, 15.6286, 12.7894, 103.662, -74.3421
0.93602, -1, 20.641, 22.7308, 15.6676, 12.7921, 103.559, -74.6032
0.945001, -1, 20.4481, 22.6322, 15.7064, 12.7949, 103.456, -74.8645
0.952025, -1, 20.2546, 22.5334, 15.7453, 12.7976, 103.353, -75.1261
0.961036, -1, 20.0607, 22.4346, 15.7843, 12.8002, 103.25, -75.3872
0.968105, -1, 19.8671, 22.3359, 15.823, 12.803, 103.147, -75.6483
0.976008, -1, 19.6735, 22.2373, 15.8618, 12.8057, 103.044, -75.9094
0.983079, -1, 19.4799, 22.1386, 15.9007, 12.8084, 102.941, -76.1708
0.992081, -1, 19.2866, 22.04, 15.9395, 12.8112, 102.838, -76.4318
1.00007, -1, 19.0937, 21.9414, 15.9784, 12.8139, 102.735, -76.6926
1.00807, -1, 18.901, 21.8428, 16.0173, 12.8166, 102.632, -76.9536
1.016, -1, 18.7088, 21.7441, 16.056, 12.8193, 102.529, -77.2147
1.02405, -1, 18.5169, 21.6454, 16.0949, 12.8219, 102.426, -77.4756
1.03207, -1, 18.3251, 21.5469, 16.1339, 12.8245, 102.323, -77.7362
1.04009, -1, 18.1332, 21.4485, 16.1726, 12.8271, 102.22, -77.9969
1.04756, -1, 17.9414, 21.3501, 16.2115, 12.8296, 102.117, -78.2577
1.05511, -1, 17.7495, 21.2518, 16.2504, 12.8322, 102.014, -78.5185
1.06301, -1, 17.5572, 21.1534, 16.2892, 12.8346, 101.912, -78.7789
1.07201, -1, 17.3645, 21.0551, 16.3281, 12.837, 101.808, -79.0393
1.08012, -1, 17.1715, 20.9568, 16.3669, 12.8394, 101.705, -79.3
1.08711, -1, 16.9784, 20.8585, 16.4056, 12.8418, 101.603, -79.5607
1.09595, -1, 16.7853, 20.7603, 16.4445, 12.8441, 101.5, -79.8212
1.10409, -1, 16.5923, 20.6621, 16.4832, 12.8464, 101.397, -80.0816
1.112, -1, 16.3992, 20.5638, 16.5218, 12.8487, 101.295, -80.3422
1.12017, -1, 16.2066, 20.4655, 16.5606, 12.851, 101.192, -80.6028
1.12737, -1, 16.0145, 20.3671, 16.5994, 12.8533, 101.089, -80.8631
1.13547, -1, 15.8227, 20.2687, 16.6381, 12.8556, 100.986, -81.1232
1.14433, -1, 15.6312, 20.1702, 16.6768, 12.858, 100.884, -81.3832
1.15152, -1, 15.4401, 20.0719, 16.7153, 12.8603, 100.781, -81.6435
1.16015, -1, 15.249, 19.9737, 16.7541, 12.8626, 100.679, -81.9034
1.16843, -1, 15.058, 19.8755, 16.7929, 12.8648, 100.576, -82.1631
1.17556, -1, 14.9624, 19.8264, 16.8316, 12.8671, 100.474, -82.4229
1.18407, -1, 14.6752, 19.6792, 16.8703, 12.8694, 100.371, -82.6829
1.19275, -1, 14.4836, 19.5811, 16.909, 12.8717, 100.268, -82.9427
1.20008, -1, 14.2915, 19.483, 16.9476, 12.874, 100.166, -83.2024
1.20704, -1, 14.1953, 19.434, 16.967, 12.8751, 100.114, -83.3321
1.2169, -1, 13.9066, 19.287, 17.025, 12.8785, 99.9606, -83.7216
1.22414, -1, 13.714, 19.1892, 17.0635, 12.8809, 99.8583, -83.9813
1.23104, -1, 13.6177, 19.1403, 17.0829, 12.882, 99.807, -84.111
1.2412, -1, 13.3292, 18.9935, 17.1409, 12.8855, 99.6531, -84.4999
1.24703, -1, 13.2333, 18.9446, 17.1601, 12.8866, 99.6021, -84.6295
1.25644, -1, 12.9462, 18.7977, 17.2181, 12.8902, 99.4485, -85.0186
1.26299, -1, 12.8506, 18.7487, 17.2374, 12.8913, 99.3972, -85.1483
1.27108, -1, 12.6596, 18.6508, 17.2759, 12.8937, 99.2952, -85.4072
1.28057, -1, 12.3739, 18.5042, 17.3337, 12.8974, 99.1417, -85.7956
1.28941, -1, 12.1839, 18.4064, 17.3722, 12.8998, 99.0396, -86.0545
1.29506, -1, 12.0889, 18.3576, 17.3915, 12.901, 98.9887, -86.184
1.30464, -1, 11.8033, 18.2111, 17.4494, 12.9046, 98.8353, -86.5721
1.31254, -1, 11.7081, 18.1623, 17.4687, 12.9058, 98.7843, -86.7014
1.32078, -1, 11.5173, 18.0646, 17.5071, 12.9095, 98.6315, -87.0892
1.32799, -1, 11.3262, 17.967, 17.5457, 12.9108, 98.5805, -87.2186
1.33601, -1, 11.1349, 17.8695, 17.5843, 12.9132, 98.4787, -87.4771
1.34404, -1, 10.9434, 17.772, 17.6228, 12.9157, 98.3769, -87.7354
1.35205, -1, 10.7516, 17.6746, 17.6612, 12.9182, 98.2748, -87.9936
1.36003, -1, 10.5599, 17.5771, 17.6996, 12.9207, 98.173, -88.252
1.36804, -1, 10.3685, 17.4796, 17.738, 12.9233, 98.0711, -88.5104
1.37602, -1, 10.1775, 17.3821, 17.7765, 12.9258, 97.9692, -88.7683
1.384, -1, 9.98688, 17.2845, 17.8149, 12.9285, 97.8674, -89.0265
1.3921, -1, 9.79649, 17.187, 17.8532, 12.9311, 97.7654, -89.2847
1.4, -1, 9.6066, 17.0895, 17.8915, 12.9338, 97.6635, -89.5429
1.40801, -1, 9.41725, 16.9921, 17.9298, 12.9365, 97.5617, -89.8006
1.41605, -1, 9.22807, 16.8947, 17.9682, 12.9392, 97.4598, -90.0581
1.42399, -1, 9.03887, 16.7975, 18.0065, 12.9418, 97.3579, -90.3156
1.43201, -1, 8.84941, 16.7003, 18.0448, 12.9445, 97.2562, -90.5732
1.44008, -1, 8.65989, 16.6032, 18.0832, 12.9471, 97.1544, -90.8306
1.44799, -1, 8.47035, 16.5061, 18.1216, 12.9498, 97.0527, -91.0878
1.45699, -1, 8.28036, 16.4091, 18.1599, 12.9525, 96.9514, -91.3449
1.46405, -1, 8.08987, 16.3122, 18.1982, 12.9551, 96.8496, -91.6022
1.47202, -1, 7.89924, 16.2153, 18.2366, 12.9578, 96.7481, -91.8593
1.48001, -1, 7.70866, 16.1184, 18.2748, 12.9604, 96.6468, -92.1162
1.48699, -1, 7.51807, 16.0215, 18.3131, 12.9629, 96.5453, -92.3729
1.49599, -1, 7.32773, 15.9246, 18.3514, 12.9655, 96.444, -92.6297
1.50406, -1, 7.13767, 15.8277, 18.3895, 12.968, 96.3427, -92.8865
1.51198, -1, 6.94801, 15.7306, 18.4279, 12.9705, 96.2413, -93.1429
1.52001, -1, 6.75883, 15.6338, 18.4661, 12.973, 96.1402, -93.3993
1.52811, -1, 6.57009, 15.5369, 18.5041, 12.9755, 96.0395, -93.6557
1.53599, -1, 6.3818, 15.4401, 18.5423, 12.9781, 95.9384, -93.9122
1.54403, -1, 6.19371, 15.3434, 18.5805, 12.9806, 95.8376, -94.1683
1.55206, -1, 6.00563, 15.2467, 18.6186, 12.983, 95.7367, -94.4242
1.56, -1, 5.81726, 15.15, 18.6568, 12.9852, 95.6357, -94.6801
1.56765, -1, 5.62885, 15.0534, 18.6949, 12.9875, 95.5348, -94.9362
1.57606, -1, 5.44025, 14.9568, 18.733, 12.9898, 95.4341, -95.1919
1.58409, -1, 5.25133, 14.8603, 18.7712, 12.992, 95.3332, -95.4473
1.59189, -1, 5.06202, 14.764, 18.8093, 12.9943, 95.2326, -95.7028
1.60007, -1, 4.87262, 14.6677, 18.8473, 12.9965, 95.1319, -95.9582
1.60723, -1, 4.68325, 14.5713, 18.8855, 12.9987, 95.031, -96.2137
1.616, -1, 4.49378, 14.475, 18.9235, 13.0008, 94.9305, -96.4688
1.62457, -1, 4.30459, 14.3786, 18.9615, 13.0031, 94.8296, -96.7237
1.632, -1, 4.11576, 14.2822, 18.9996, 13.0053, 94.7287, -96.9788
1.6403, -1, 3.92742, 14.1859, 19.0375, 13.0076, 94.628, -97.2338
1.64749, -1, 3.73966, 14.0897, 19.0755, 13.0098, 94.5271, -97.4888
1.65568, -1, 3.55224, 13.9935, 19.1135, 13.0122, 94.4263, -97.7435
1.66415, -1, 3.36523, 13.8974, 19.1513, 13.0145, 94.3259, -97.9982
1.67158, -1, 3.17826, 13.8014, 19.1891, 13.0168, 94.2251, -98.253
1.67982, -1, 2.99128, 13.7053, 19.2271, 13.0189, 94.1244, -98.5076
1.68816, -1, 2.8043, 13.6092, 19.265, 13.0212, 94.024, -98.7617
1.69498, -1, 2.71078, 13.5612, 19.284, 13.0224, 93.9736, -98.8888
1.70306, -1, 2.52352, 13.4653, 19.3219, 13.0246, 93.873, -99.1429
1.71216, -1, 2.24223, 13.3216, 19.3785, 13.0281, 93.7227, -99.5241
1.71896, -1, 2.14821, 13.2737, 19.3975, 13.0293, 93.6724, -99.651
1.72702, -1, 1.9601, 13.1779, 19.4354, 13.0314, 93.5721, -99.9046
1.7363, -1, 1.67783, 13.0342, 19.492, 13.0349, 93.4222, -100.285
1.74297, -1, 1.58365, 12.9863, 19.5108, 13.036, 93.372, -100.412
1.75102, -1, 1.39547, 12.8905, 19.5487, 13.0382, 93.2719, -100.665
1.76049, -1, 1.11386, 12.7468, 19.6053, 13.0417, 93.1221, -101.045
1.76843, -1, 0.926869, 12.6511, 19.643, 13.0442, 93.0221, -101.298
1.77508, -1, 0.833562, 12.6033, 19.6619, 13.0454, 92.9721, -101.425
1.78459, -1, 0.554058, 12.46, 19.7183, 13.049, 92.8225, -101.804
1.79257, -1, 0.368305, 12.3646, 19.756, 13.0514, 92.7225, -102.057
1.8006, -1, 0.182799, 12.2693, 19.7936, 13.0539, 92.6231, -102.31
1.80868, -1, -0.00254294, 12.1739, 19.8312, 13.0564, 92.5236, -102.563
1.81597, -1, -0.0952484, 12.1262, 19.85, 13.0576, 92.4738, -102.689
1.82397, -1, -0.28087, 12.031, 19.8877, 13.06, 92.3743, -102.941
1.83202, -1, -0.466798, 11.9358, 19.9252, 13.0625, 92.2751, -103.193
1.83999, -1, -0.652994, 11.8408, 19.9627, 13.065, 92.1755, -103.445
1.84697, -1, -0.839384, 11.7458, 20.0003, 13.0674, 92.076, -103.698
1.85599, -1, -1.026, 11.6508, 20.0377, 13.0699, 91.9768, -103.95
1.86399, -1, -1.21281, 11.5558, 20.0752, 13.0725, 91.8773, -104.201
1.87101, -1, -1.39981, 11.4607, 20.1128, 13.075, 91.7779, -104.453
1.88003, -1, -1.58657, 11.3656, 20.1502, 13.0776, 91.6788, -104.704
1.88797, -1, -1.77303, 11.2705, 20.1875, 13.0801, 91.5796, -104.956
1.89605, -1, -1.95906, 11.1755, 20.225, 13.0828, 91.4804, -105.207
1.90397, -1, -2.14442, 11.0806, 20.2624, 13.0854, 91.3814, -105.458
1.91198, -1, -2.32947, 10.9857, 20.2998, 13.088, 91.2822, -105.709
1.92005, -1, -2.51417, 10.8909, 20.3372, 13.0908, 91.1831, -105.96
1.92797, -1, -2.69826, 10.7962, 20.3744, 13.0934, 91.0841, -106.211
1.93597, -1, -2.88213, 10.7014, 20.4117, 13.0961, 90.9849, -106.462
1.94405, -1, -3.06612, 10.6066, 20.4491, 13.0986, 90.886, -106.713
1.95301, -1, -3.25032, 10.512, 20.4864, 13.1013, 90.7871, -106.963
1.96, -1, -3.43481, 10.4175, 20.5236, 13.1038, 90.6881, -107.214
1.97022, -1, -3.71184, 10.2759, 20.5795, 13.1076, 90.5401, -107.589
1.97498, -1, -3.80436, 10.2287, 20.5982, 13.1089, 90.4905, -107.714
1.98397, -1, -3.9896, 10.1344, 20.6354, 13.1112, 90.3918, -107.964
1.99198, -1, -4.17496, 10.0401, 20.6726, 13.1137, 90.2931, -108.214
1.99999, -1, -4.36057, 9.94587, 20.7098, 13.116, 90.1944, -108.464
2.00803, -1, -4.54605, 9.85153, 20.7471, 13.1183, 90.0958, -108.714
2.01597, -1, -4.73124, 9.75729, 20.7843, 13.1206, 89.9973, -108.963
2.02404, -1, -4.91596, 9.66313, 20.8214, 13.123, 89.8988, -109.213
2.03199, -1, -5.10016, 9.56909, 20.8585, 13.1254, 89.8003, -109.462
2.03998, -1, -5.2837, 9.475, 20.8957, 13.1277, 89.7021, -109.711
2.04808, -1, -5.46679, 9.38108, 20.9328, 13.13, 89.6037, -109.96
2.05597, -1, -5.64943, 9.28717, 20.9699, 13.1322, 89.5054, -110.209
2.06397, -1, -5.83187, 9.19319, 21.007, 13.1345, 89.4074, -110.457
2.07205, -1, -6.01428, 9.0993, 21.044, 13.1368, 89.3092, -110.706
2.07998, -1, -6.19687, 9.00546, 21.081, 13.139, 89.211, -110.955
2.08797, -1, -6.37972, 8.91179, 21.1181, 13.1413, 89.1133, -111.203
2.09605, -1, -6.56272, 8.81817, 21.155, 13.1434, 89.0153, -111.451
2.10396, -1, -6.7461, 8.72451, 21.1918, 13.1456, 88.9172, -111.7
2.11199, -1, -6.92982, 8.63098, 21.2288, 13.1477, 88.8196, -111.948
2.12006, -1, -7.11381, 8.53738, 21.2656, 13.1498, 88.7216, -112.195
2.12797, -1, -7.29807, 8.44381, 21.3025, 13.1519, 88.6238, -112.443
2.136, -1, -7.482, 8.35016, 21.3395, 13.154, 88.5262, -112.691
2.14431, -1, -7.6658, 8.25663, 21.3762, 13.1562, 88.4285, -112.938
2.1515, -1, -7.84913, 8.16323, 21.413, 13.1583, 88.3309, -113.185
2.16008, -1, -8.03194, 8.06983, 21.4499, 13.1606, 88.2336, -113.433
2.16834, -1, -8.21418, 7.97651, 21.4867, 13.1628, 88.1362, -113.68
2.17555, -1, -8.39575, 7.88326, 21.5234, 13.1651, 88.0388, -113.927
2.18414, -1, -8.57687, 7.79002, 21.5603, 13.1674, 87.9415, -114.174
2.19232, -1, -8.66731, 7.74344, 21.5786, 13.1685, 87.8928, -114.297
2.19896, -1, -8.84811, 7.65027, 21.6154, 13.1708, 87.7954, -114.543
2.208, -1, -9.11943, 7.51068, 21.6705, 13.1741, 87.6495, -114.913
2.21692, -1, -9.30056, 7.41781, 21.7071, 13.1764, 87.5522, -115.16
2.22411, -1, -9.48199, 7.32501, 21.7438, 13.1785, 87.455, -115.406
2.23096, -1, -9.57283, 7.2786, 21.7622, 13.1796, 87.4065, -115.529
2.24102, -1, -9.8459, 7.13952, 21.8171, 13.1831, 87.2607, -115.898
2.24824, -1, -10.0284, 7.04676, 21.8537, 13.1852, 87.1635, -116.144
2.25496, -1, -10.1197, 7.00038, 21.872, 13.1863, 87.115, -116.267
2.26528, -1, -10.3936, 6.8612, 21.9269, 13.1896, 86.9692, -116.635
2.27101, -1, -10.4848, 6.81482, 21.9451, 13.1907, 86.9207, -116.758
2.28059, -1, -10.7581, 6.67582, 22, 13.1942, 86.7753, -117.126
2.28931, -1, -10.9398, 6.58318, 22.0364, 13.1966, 86.6782, -117.371
2.29502, -1, -11.0303, 6.5369, 22.0546, 13.1978, 86.6298, -117.494
2.30459, -1, -11.3007, 6.39818, 22.1095, 13.2014, 86.4848, -117.861
2.31339, -1, -11.3906, 6.35194, 22.146, 13.2039, 86.388, -118.106
2.31902, -1, -11.5702, 6.25951, 22.1642, 13.205, 86.3396, -118.228
2.32899, -1, -11.8392, 6.12094, 22.219, 13.2088, 86.1948, -118.595
2.33597, -1, -11.9288, 6.07482, 22.2372, 13.21, 86.1465, -118.718
2.34396, -1, -12.1081, 5.98261, 22.2736, 13.2125, 86.0499, -118.962
2.35201, -1, -12.2876, 5.89056, 22.3101, 13.2149, 85.9535, -119.206
2.35995, -1, -12.4675, 5.79857, 22.3464, 13.2175, 85.8572, -119.45
2.36701, -1, -12.6477, 5.70657, 22.3826, 13.2199, 85.7607, -119.694
2.37601, -1, -12.8283, 5.61463, 22.419, 13.2223, 85.6646, -119.938
2.38399, -1, -13.0092, 5.52271, 22.4554, 13.2248, 85.5688, -120.182
2.39096, -1, -13.1904, 5.43069, 22.4916, 13.2272, 85.4727, -120.425
2.40009, -1, -13.3717, 5.33868, 22.5279, 13.2296, 85.3768, -120.669
2.40796, -1, -13.5525, 5.24679, 22.5641, 13.2321, 85.2813, -120.912
2.41597, -1, -13.7331, 5.15489, 22.6002, 13.2347, 85.1853, -121.155
2.42474, -1, -13.913, 5.06305, 22.6364, 13.2372, 85.0896, -121.398
2.43195, -1, -14.0921, 4.97134, 22.6726, 13.2398, 84.9942, -121.641
2.43995, -1, -14.2705, 4.87961, 22.7087, 13.2424, 84.8984, -121.884
2.44875, -1, -14.4487, 4.78798, 22.7448, 13.2449, 84.8028, -122.127
2.45495, -1, -14.6265, 4.69637, 22.7811, 13.2474, 84.7073, -122.369
2.46401, -1, -14.8041, 4.60487, 22.8172, 13.25, 84.6114, -122.612
2.47298, -1, -14.9817, 4.51336, 22.8533, 13.2524, 84.5157, -122.854
2.47998, -1, -15.1595, 4.42204, 22.8895, 13.2548, 84.4202, -123.096
2.48796, -1, -15.3377, 4.3308, 22.9256, 13.2572, 84.3245, -123.338
2.49675, -1, -15.5163, 4.23951, 22.9615, 13.2596, 84.2289, -123.58
2.50295, -1, -15.6953, 4.14826, 22.9976, 13.2618, 84.1335, -123.822
2.51195, -1, -15.8745, 4.05707, 23.0335, 13.2641, 84.0379, -124.064
2.52081, -1, -16.0538, 3.96583, 23.0695, 13.2662, 83.9423, -124.305
2.52703, -1, -16.2337, 3.87454, 23.1055, 13.2684, 83.8471, -124.546
2.5351, -1, -16.4135, 3.78332, 23.1414, 13.2705, 83.7515, -124.788
2.54335, -1, -16.5927, 3.69214, 23.1772, 13.2726, 83.6561, -125.029
2.55113, -1, -16.7715, 3.60102, 23.213, 13.2749, 83.561, -125.27
2.55906, -1, -16.9496, 3.51002, 23.2489, 13.2771, 83.4653, -125.511
2.56751, -1, -17.1267, 3.41904, 23.2847, 13.2793, 83.37, -125.752
2.57501, -1, -17.3034, 3.32814, 23.3206, 13.2815, 83.2751, -125.993
2.58297, -1, -17.4799, 3.23733, 23.3564, 13.2837, 83.1798, -126.233
2.59179, -1, -17.656, 3.14658, 23.3921, 13.2858, 83.0847, -126.474
2.59998, -1, -17.832, 3.05598, 23.4281, 13.2879, 82.99, -126.714
2.60802, -1, -18.0081, 2.96544, 23.4639, 13.29, 82.895, -126.954
2.61599, -1, -18.1843, 2.87507, 23.4996, 13.2922, 82.8002, -127.194
2.62396, -1, -18.361, 2.78468, 23.5354, 13.2943, 82.7057, -127.434
2.63201, -1, -18.5382, 2.69429, 23.5711, 13.2964, 82.611, -127.674
2.64014, -1, -18.7157, 2.60393, 23.6067, 13.2984, 82.5164, -127.913
2.64806, -1, -18.8935, 2.51356, 23.6424, 13.3003, 82.4221, -128.153
2.65612, -1, -19.0717, 2.42306, 23.678, 13.3023, 82.3275, -128.392
2.66426, -1, -19.25, 2.33267, 23.7135, 13.3043, 82.233, -128.632
2.67158, -1, -19.428, 2.24232, 23.7492, 13.3064, 82.139, -128.871
2.68012, -1, -19.6054, 2.15191, 23.7848, 13.3085, 82.0449, -129.11
2.68828, -1, -19.694, 2.10671, 23.8025, 13.3096, 81.9508, -129.349
2.69578, -1, -19.8706, 2.01644, 23.8378, 13.3118, 81.9036, -129.588
2.70403, -1, -20.1342, 1.88107, 23.8913, 13.315, 81.7627, -129.826
2.71098, -1, -20.2217, 1.83599, 23.909, 13.3162, 81.7156, -129.945
2.71901, -1, -20.3966, 1.74588, 23.9444, 13.3183, 81.6216, -130.184
2.72812, -1, -20.6583, 1.61083, 23.9978, 13.3217, 81.4808, -130.541
2.73493, -1, -20.7455, 1.56586, 24.0155, 13.3228, 81.4337, -130.66
2.74299, -1, -20.92, 1.47598, 24.0509, 13.3249, 81.3398, -130.898
2.7523, -1, -21.1826, 1.34135, 24.1043, 13.3282, 81.1993, -131.255
2.75893, -1, -21.2703, 1.29647, 24.122, 13.3294, 81.1523, -131.374
2.76844, -1, -21.5339, 1.16199, 24.1749, 13.3326, 81.0115, -131.731
2.77502, -1, -21.6219, 1.11718, 24.1927, 13.3337, 80.9646, -131.85
2.7845, -1, -21.8863, 0.982705, 24.2459, 13.3369, 80.824, -132.206
2.79271, -1, -22.0628, 0.893106, 24.2812, 13.3391, 80.7302, -132.443
2.80054, -1, -22.2394, 0.803588, 24.3167, 13.3412, 80.6368, -132.68
2.80856, -1, -22.3277, 0.714092, 24.3519, 13.3434, 80.5431, -132.917
2.81673, -1, -22.5917, 0.624574, 24.3871, 13.3457, 80.4494, -133.154
2.82394, -1, -22.6795, 0.579837, 24.4048, 13.3469, 80.4026, -133.273
2.83194, -1, -22.8546, 0.490473, 24.4401, 13.3494, 80.3091, -133.509
2.84001, -1, -23.0286, 0.401073, 24.4752, 13.3517, 80.2155, -133.746
2.84794, -1, -23.2023, 0.311708, 24.5103, 13.3542, 80.122, -133.983
2.85596, -1, -23.3756, 0.222378, 24.5456, 13.3567, 80.0286, -134.22
2.86519, -1, -23.6351, 0.088587, 24.5983, 13.3604, 79.8886, -134.574
2.87094, -1, -23.7217, 0.0440351, 24.6159, 13.3615, 79.8419, -134.692
2.87994, -1, -23.8951, -0.0450034, 24.6511, 13.364, 79.7489, -134.928
2.88951, -1, -24.1554, -0.178412, 24.7037, 13.3676, 79.609, -135.282
2.89595, -1, -24.2424, -0.222891, 24.7212, 13.3689, 79.5624, -135.4
2.90395, -1, -24.4164, -0.311824, 24.7564, 13.3713, 79.4695, -135.635
2.91351, -1, -24.6782, -0.445128, 24.809, 13.3749, 79.3297, -135.989
2.91994, -1, -24.7656, -0.489563, 24.8265, 13.3761, 79.2832, -136.107
2.92794, -1, -24.9406, -0.578392, 24.8615, 13.3786, 79.1904, -136.342
2.93493, -1, -25.1157, -0.667222, 24.8966, 13.3808, 79.0973, -136.577
2.94394, -1, -25.2905, -0.755975, 24.9316, 13.3832, 79.0045, -136.812
2.95293, -1, -25.4649, -0.844788, 24.9666, 13.3855, 78.912, -137.047
2.95893, -1, -25.6389, -0.933548, 25.0016, 13.388, 78.819, -137.282
2.96794, -1, -25.8123, -1.0222, 25.0364, 13.3905, 78.7263, -137.517
2.97694, -1, -25.9849, -1.11095, 25.0714, 13.3929, 78.634, -137.751
2.98293, -1, -26.1572, -1.19959, 25.1064, 13.3954, 78.5414, -137.986
2.99195, -1, -26.329, -1.28817, 25.1411, 13.3978, 78.4489, -138.221
2.99998, -1, -26.5007, -1.37665, 25.176, 13.4001, 78.3565, -138.455
3.00794, -1, -26.6725, -1.465, 25.2109, 13.4023, 78.264, -138.689
3.01594, -1, -26.8447, -1.5533, 25.2458, 13.4045, 78.1716, -138.923
3.02401, -1, -27.017, -1.64145, 25.2805, 13.4068, 78.0792, -139.157
3.03193, -1, -27.1895, -1.72963, 25.3154, 13.4089, 77.9872, -139.391
3.03994, -1, -27.3621, -1.81781, 25.3502, 13.4111, 77.8948, -139.625
3.04802, -1, -27.5352, -1.90583, 25.3849, 13.4133, 77.8027, -139.858
3.05598, -1, -27.7084, -1.99402, 25.4198, 13.4153, 77.7109, -140.092
3.06394, -1, -27.8817, -2.08214, 25.4546, 13.4174, 77.6187, -140.325
3.07201, -1, -28.055, -2.17012, 25.4893, 13.4194, 77.5266, -140.558
3.07993, -1, -28.2283, -2.25817, 25.5241, 13.4213, 77.4348, -140.792
3.08794, -1, -28.4013, -2.34626, 25.5589, 13.4234, 77.3426, -141.025
3.09602, -1, -28.574, -2.43427, 25.5935, 13.4255, 77.2506, -141.258
3.10395, -1, -28.7461, -2.52222, 25.6282, 13.4277, 77.1587, -141.491
3.11193, -1, -28.9175, -2.61022, 25.6629, 13.4299, 77.0666, -141.724
3.12009, -1, -29.0883, -2.69813, 25.6975, 13.4321, 76.9746, -141.956
3.12795, -1, -29.2588, -2.78594, 25.732, 13.4341, 76.8829, -142.189
3.13601, -1, -29.4293, -2.87372, 25.7668, 13.4363, 76.7909, -142.421
3.14413, -1, -29.6001, -2.96133, 25.8014, 13.4383, 76.6991, -142.654
3.15148, -1, -29.7711, -3.04888, 25.8359, 13.4403, 76.6074, -142.886
3.16008, -1, -29.9421, -3.13643, 25.8705, 13.4424, 76.5155, -143.118
3.16803, -1, -30.113, -3.22387, 25.9051, 13.4445, 76.4238, -143.35
3.17611, -1, -30.284, -3.31134, 25.9395, 13.4466, 76.3321, -143.582
3.18406, -1, -30.4553, -3.39873, 25.9741, 13.4487, 76.2407, -143.814
3.19154, -1, -30.5411, -3.44248, 26.0087, 13.4506, 76.1489, -144.046
3.19994, -1, -30.7989, -3.57365, 26.0431, 13.4527, 76.0575, -144.277
3.20697, -1, -30.8849, -3.6173, 26.0603, 13.4537, 76.0119, -144.393
3.21608, -1, -31.1426, -3.74839, 26.1122, 13.4567, 75.8747, -144.74
3.22293, -1, -31.2285, -3.79205, 26.1294, 13.4577, 75.8291, -144.856
3.23204, -1, -31.4854, -3.92299, 26.181, 13.4608, 75.6924, -145.203
3.23893, -1, -31.5708, -3.96662, 26.1982, 13.4619, 75.6467, -145.318
3.24822, -1, -31.8262, -4.09748, 26.2498, 13.4652, 75.5099, -145.665
3.25497, -1, -31.9111, -4.14109, 26.267, 13.4663, 75.4643, -145.78
3.26438, -1, -32.1654, -4.27179, 26.3186, 13.4696, 75.3276, -146.126
3.27093, -1, -32.25, -4.31533, 26.3358, 13.4707, 75.282, -146.242
3.28045, -1, -32.5043, -4.44584, 26.3871, 13.4739, 75.1457, -146.588
3.28856, -1, -32.6741, -4.53274, 26.4216, 13.4761, 75.0548, -146.818
3.29651, -1, -32.8437, -4.61965, 26.4559, 13.4782, 74.9639, -147.048
3.3045, -1, -33.0133, -4.70653, 26.4901, 13.4804, 74.8733, -147.279
3.31255, -1, -33.183, -4.79337, 26.5244, 13.4827, 74.7829, -147.509
3.32059, -1, -33.2679, -4.83675, 26.5415, 13.4849, 74.6921, -147.739
3.32793, -1, -33.438, -4.9236, 26.5758, 13.486, 74.6469, -147.854
3.33599, -1, -33.6083, -5.01054, 26.61, 13.4882, 74.5564, -148.083
3.34394, -1, -33.7787, -5.0973, 26.6442, 13.4904, 74.4657, -148.313
3.35197, -1, -33.9489, -5.18404, 26.6784, 13.4926, 74.3751, -148.543
3.35993, -1, -34.1192, -5.27076, 26.7125, 13.4949, 74.2846, -148.772
3.36794, -1, -34.2893, -5.35747, 26.7467, 13.4971, 74.1941, -149.002
3.37598, -1, -34.4593, -5.44415, 26.781, 13.4994, 74.1034, -149.231
3.38392, -1, -34.6289, -5.5308, 26.815, 13.5018, 74.0128, -149.461
3.39193, -1, -34.7978, -5.61746, 26.8491, 13.5043, 73.9225, -149.69
3.39998, -1, -34.9663, -5.70407, 26.8833, 13.5067, 73.8318, -149.919
3.40792, -1, -35.1347, -5.79062, 26.9174, 13.5091, 73.7414, -150.148
3.41609, -1, -35.3029, -5.8771, 26.9514, 13.5116, 73.6513, -150.377
3.42392, -1, -35.4714, -5.96335, 26.9856, 13.514, 73.5607, -150.606
3.43192, -1, -35.6399, -6.04957, 27.0197, 13.5162, 73.4703, -150.835
3.43892, -1, -35.8084, -6.13581, 27.0537, 13.5186, 73.3802, -151.063
3.44792, -1, -35.9768, -6.2219, 27.0878, 13.521, 73.2897, -151.292
3.45691, -1, -36.1453, -6.30798, 27.1218, 13.5233, 73.1994, -151.52
3.46472, -1, -36.314, -6.39414, 27.1557, 13.5258, 73.1091, -151.749
3.47192, -1, -36.4828, -6.48038, 27.1897, 13.5282, 73.0187, -151.977
3.47993, -1, -36.6517, -6.56655, 27.2236, 13.5305, 72.9284, -152.205
3.49106, -1, -36.9051, -6.69579, 27.2744, 13.5339, 72.7931, -152.547
3.49592, -1, -36.9897, -6.73886, 27.2914, 13.535, 72.7481, -152.661
3.50392, -1, -37.1585, -6.82505, 27.3254, 13.5373, 72.6579, -152.889
3.51199, -1, -37.3272, -6.9111, 27.3592, 13.5395, 72.5679, -153.117
3.52002, -1, -37.4955, -6.99712, 27.3931, 13.5417, 72.4782, -153.345
3.52705, -1, -37.6634, -7.08316, 27.4271, 13.544, 72.3882, -153.572
3.536, -1, -37.8311, -7.16918, 27.461, 13.5463, 72.2984, -153.8
3.54392, -1, -37.9987, -7.25512, 27.4948, 13.5485, 72.2088, -154.027
3.55192, -1, -38.1661, -7.341, 27.5288, 13.5506, 72.1189, -154.255
3.55999, -1, -38.3335, -7.42682, 27.5626, 13.5528, 72.0293, -154.482
3.56792, -1, -38.5008, -7.51252, 27.5964, 13.5549, 71.9397, -154.709
3.57594, -1, -38.6679, -7.59824, 27.6303, 13.557, 71.8501, -154.936
3.58399, -1, -38.8352, -7.68391, 27.6642, 13.559, 71.7605, -155.164
3.59192, -1, -39.0025, -7.76957, 27.6978, 13.5611, 71.6711, -155.39
3.59992, -1, -39.17, -7.85519, 27.7316, 13.5632, 71.5819, -155.617
3.60801, -1, -39.3375, -7.94089, 27.7656, 13.5651, 71.4925, -155.844
3.61593, -1, -39.505, -8.02649, 27.7993, 13.5671, 71.4031, -156.071
3.62397, -1, -39.6727, -8.11204, 27.8329, 13.569, 71.3141, -156.297
3.63199, -1, -39.8404, -8.19754, 27.8666, 13.5709, 71.2246, -156.524
3.63994, -1, -40.008, -8.28303, 27.9004, 13.5729, 71.1353, -156.75
3.64798, -1, -40.1755, -8.36841, 27.934, 13.5749, 71.0461, -156.976
3.65611, -1, -40.3429, -8.45376, 27.9677, 13.5768, 70.9565, -157.203
3.66401, -1, -40.5101, -8.53918, 28.0015, 13.5788, 70.8672, -157.429
3.67201, -1, -40.677, -8.62454, 28.035, 13.5807, 70.7781, -157.655
3.68008, -1, -40.8437, -8.70991, 28.0686, 13.5827, 70.689, -157.881
3.68805, -1, -41.0102, -8.79525, 28.1024, 13.5848, 70.5998, -158.106
3.69556, -1, -41.0934, -8.8379, 28.1192, 13.5868, 70.5107, -158.332
3.70404, -1, -41.3426, -8.96573, 28.1695, 13.5888, 70.4217, -158.558
3.71212, -1, -41.5088, -9.05088, 28.2032, 13.5909, 70.3325, -158.784
3.71899, -1, -41.5919, -9.09342, 28.2201, 13.5919, 70.2879, -158.896
3.72806, -1, -41.8414, -9.22102, 28.2704, 13.5949, 70.1544, -159.235
3.7349, -1, -41.9246, -9.26352, 28.2872, 13.5958, 70.1098, -159.347
3.74421, -1, -42.1742, -9.39105, 28.3377, 13.5989, 69.9761, -159.686
3.75091, -1, -42.2574, -9.4336, 28.3545, 13.5999, 69.9316, -159.798
3.7604, -1, -42.5068, -9.56109, 28.4048, 13.603, 69.7982, -160.136
3.7669, -1, -42.59, -9.60357, 28.4216, 13.604, 69.7538, -160.249
3.77651, -1, -42.8396, -9.73099, 28.4719, 13.607, 69.6205, -160.586
3.78446, -1, -43.006, -9.81595, 28.5053, 13.609, 69.5319, -160.812
3.79256, -1, -43.1723, -9.90085, 28.5389, 13.6111, 69.4431, -161.036
3.80048, -1, -43.3384, -9.98576, 28.5724, 13.6131, 69.3543, -161.261
3.8087, -1, -43.5044, -10.0706, 28.606, 13.6152, 69.2659, -161.486
3.81652, -1, -43.6705, -10.1556, 28.6395, 13.6173, 69.177, -161.711
3.82446, -1, -43.7534, -10.1981, 28.6563, 13.6184, 69.1328, -161.823
3.8319, -1, -43.9193, -10.2828, 28.6897, 13.6206, 69.0443, -162.047
3.84068, -1, -44.0849, -10.3676, 28.7231, 13.6227, 68.9558, -162.272
3.84791, -1, -44.2502, -10.4524, 28.7567, 13.6248, 68.8671, -162.496
3.85592, -1, -44.4154, -10.5369, 28.7902, 13.6271, 68.7785, -162.72
3.86395, -1, -44.5806, -10.6214, 28.8235, 13.6293, 68.6901, -162.945
3.87191, -1, -44.7458, -10.7059, 28.857, 13.6315, 68.6014, -163.169
3.8799, -1, -44.911, -10.7903, 28.8906, 13.6336, 68.5129, -163.393
3.88799, -1, -45.0763, -10.8748, 28.9239, 13.6359, 68.4247, -163.617
3.89591, -1, -45.2416, -10.9593, 28.9574, 13.638, 68.336, -163.841
3.90391, -1, -45.4068, -11.0437, 28.9908, 13.6403, 68.2476, -164.065
3.91196, -1, -45.5722, -11.1281, 29.0241, 13.6426, 68.1594, -164.289
3.9199, -1, -45.7375, -11.2126, 29.0573, 13.6449, 68.0711, -164.512
3.92791, -1, -45.9025, -11.2969, 29.0908, 13.6472, 67.9827, -164.736
3.93597, -1, -46.0656, -11.3802, 29.1242, 13.6494, 67.8944, -164.959
3.94391, -1, -46.2251, -11.4613, 29.1577, 13.6518, 67.8068, -165.182
3.95192, -1, -46.3792, -11.5387, 29.1914, 13.6542, 67.72, -165.401
3.96093, -1, -46.5254, -11.6113, 29.2245, 13.6564, 67.6364, -165.612
3.9679, -1, -46.6615, -11.6783, 29.2557, 13.6586, 67.5581, -165.811
3.9769, -1, -46.7845, -11.7381, 29.284, 13.6607, 67.4866, -165.992
3.98397, -1, -46.8919, -11.7908, 29.3085, 13.6626, 67.4248, -166.148
3.99191, -1, -46.9828, -11.8369, 29.3281, 13.6641, 67.3742, -166.276
3.9999, -1, -47.0579, -11.8771, 29.342, 13.6651, 67.3348, -166.375
4.00797, -1, -47.1179, -11.9104, 29.3513, 13.6657, 67.3062, -166.448
4.0159, -1, -47.1636, -11.9364, 29.3568, 13.666, 67.2872, -166.495
4.0239, -1, -47.197, -11.9552, 29.3595, 13.6662, 67.2754, -166.525
4.03198, -1, -47.2199, -11.9679, 29.3608, 13.6662, 67.2688, -166.542
4.0399, -1, -47.2344, -11.9759, 29.3613, 13.6663, 67.2654, -166.551
4.04791, -1, -47.2425, -11.9802, 29.3616, 13.6664, 67.2637, -166.555
4.056, 2, -47.2463, -11.9822, 29.3617, 13.6665, 67.2629, -166.557
4.0639, 2, -47.247, -11.983, 29.3619, 13.6665, 67.2625, -166.558
4.07191, 2, -47.2466, -11.9833, 29.362, 13.6666, 67.2623, -166.558
4.08002, 2, -47.2463, -11.9834, 29.362, 13.6666, 67.2623, -166.558
4.0879, 2, -47.2464, -11.9835, 29.3621, 13.6665, 67.2622, -166.558
4.0959, 2, -47.2471, -11.9836, 29.3621, 13.6666, 67.2622, -166.558
4.10396, 2, -47.2482, -11.984, 29.3621, 13.6666, 67.2622, -166.558
4.11194, 2, -47.2498, -11.9846, 29.3621, 13.6665, 67.2622, -166.558
4.1199, 2, -47.2516, -11.9855, 29.3621, 13.6666, 67.2622, -166.558
4.12802, 2, -47.2532, -11.9863, 29.3621, 13.6666, 67.2622, -166.558
4.13591, 2, -47.2545, -11.9871, 29.3621, 13.6666, 67.2622, -166.558
4.1439, 2, -47.2552, -11.9876, 29.3621, 13.6666, 67.2622, -166.558
4.15206, 2, -47.2555, -11.9879, 29.3621, 13.6666, 67.2622, -166.558
4.16, 2, -47.2557, -11.988, 29.3621, 13.6666, 67.2622, -166.558
4.16747, 2, -47.2556, -11.9881, 29.3621, 13.6666, 67.2622, -166.558
4.17607, 2, -47.2552, -11.9881, 29.3621, 13.6666, 67.2622, -166.558
4.18401, 2, -47.2547, -11.988, 29.3621, 13.6666, 67.2622, -166.558
4.19203, 2, -47.2542, -11.988, 29.3621, 13.6665, 67.2622, -166.558
4.20007, 2, -47.2538, -11.988, 29.3621, 13.6666, 67.2622, -166.558
4.20791, 2, -47.2536, -11.988, 29.3621, 13.6666, 67.2622, -166.558
4.21593, 2, -47.2537, -11.9881, 29.3621, 13.6665, 67.2623, -166.558
4.22403, 2, -47.2538, -11.9883, 29.3621, 13.6666, 67.2623, -166.558
4.23112, 2, -47.2539, -11.9885, 29.3621, 13.6666, 67.2622, -166.558
4.24003, 2, -47.2548, -11.9889, 29.3621, 13.6666, 67.2622, -166.558
4.2469, 2, -47.2551, -11.9891, 29.3621, 13.6666, 67.2622, -166.558
4.25648, 2, -47.2557, -11.9893, 29.3621, 13.6666, 67.2622, -166.558
4.26423, 2, -47.2558, -11.9894, 29.3621, 13.6666, 67.2622, -166.558
4.27088, 2, -47.2558, -11.9894, 29.3621, 13.6666, 67.2622, -166.558
4.28088, 2, -47.2557, -11.9893, 29.3621, 13.6665, 67.2622, -166.558
4.2884, 2, -47.2555, -11.9893, 29.3621, 13.6665, 67.2622, -166.558
4.29652, 2, -47.2551, -11.9893, 29.3621, 13.6665, 67.2622, -166.558
4.30474, 2, -47.2547, -11.9892, 29.3621, 13.6666, 67.2622, -166.558
4.31248, 2, -47.2544, -11.9892, 29.3621, 13.6666, 67.2623, -166.558
4.32051, 2, -47.2543, -11.9893, 29.3621, 13.6665, 67.2623, -166.558
4.32881, 2, -47.2541, -11.9893, 29.3621, 13.6665, 67.2623, -166.558
4.3359, 2, -47.254, -11.9893, 29.3621, 13.6665, 67.2623, -166.558
4.34395, 2, -47.254, -11.9893, 29.3621, 13.6665, 67.2623, -166.558
4.35281, 2, -47.254, -11.9894, 29.3621, 13.6665, 67.2623, -166.558
4.35989, 2, -47.254, -11.9894, 29.3621, 13.6665, 67.2623, -166.558
4.36794, 2, -47.254, -11.9894, 29.3621, 13.6664, 67.2623, -166.558
4.37589, 2, -47.2541, -11.9894, 29.3621, 13.6664, 67.2623, -166.558
4.38389, 2, -47.2541, -11.9894, 29.3621, 13.6665, 67.2623, -166.558
4.39198, 2, -47.2541, -11.9894, 29.3621, 13.6664, 67.2623, -166.558
4.39988, 2, -47.2539, -11.9893, 29.3621, 13.6664, 67.2623, -166.558
4.40789, 2, -47.2539, -11.9892, 29.3621, 13.6664, 67.2624, -166.558
4.41493, 2, -47.2537, -11.9892, 29.3621, 13.6664, 67.2624, -166.558
4.42388, 2, -47.2536, -11.9892, 29.3621, 13.6665, 67.2623, -166.558
4.43196, 2, -47.2534, -11.9892, 29.3621, 13.6665, 67.2623, -166.558
4.43995, 2, -47.2533, -11.9892, 29.3621, 13.6664, 67.2623, -166.558
4.4479, 2, -47.2532, -11.9892, 29.3621, 13.6664, 67.2623, -166.558
4.45589, 2, -47.2532, -11.9893, 29.3621, 13.6665, 67.2623, -166.558
4.464, 2, -47.2531, -11.9893, 29.3621, 13.6664, 67.2623, -166.558
4.47377, 2, -47.253, -11.9893, 29.3621, 13.6664, 67.2624, -166.558
4.47988, 2, -47.253, -11.9893, 29.3621, 13.6664, 67.2624, -166.558
4.48795, 2, -47.2529, -11.9892, 29.3621, 13.6664, 67.2624, -166.558
4.49588, 2, -47.2528, -11.9892, 29.3621, 13.6664, 67.2624, -166.558
4.50389, 2, -47.2527, -11.9892, 29.3621, 13.6664, 67.2623, -166.558
4.51196, 2, -47.2526, -11.9891, 29.3621, 13.6664, 67.2624, -166.558
4.51988, 2, -47.2525, -11.9891, 29.3621, 13.6664, 67.2624, -166.558
4.52788, 2, -47.2524, -11.9891, 29.3621, 13.6664, 67.2624, -166.557
4.53596, 2, -47.2524, -11.9891, 29.3621, 13.6664, 67.2624, -166.557
4.54388, 2, -47.2523, -11.9891, 29.3621, 13.6664, 67.2624, -166.557
4.5519, 2, -47.2523, -11.9891, 29.3621, 13.6664, 67.2624, -166.557
4.55998, 2, -47.2522, -11.9891, 29.3621, 13.6664, 67.2624, -166.557
4.56788, 2, -47.2521, -11.9891, 29.3621, 13.6664, 67.2624, -166.557
4.57589, 2, -47.252, -11.9891, 29.3621, 13.6664, 67.2624, -166.557
4.58395, 2, -47.2518, -11.9891, 29.3621, 13.6664, 67.2624, -166.557
4.59189, 2, -47.2517, -11.9891, 29.3621, 13.6664, 67.2624, -166.557
4.59988, 2, -47.2516, -11.989, 29.3621, 13.6664, 67.2625, -166.557
4.60794, 2, -47.2515, -11.9889, 29.3621, 13.6664, 67.2625, -166.557
4.6159, 2, -47.2514, -11.9889, 29.3621, 13.6664, 67.2625, -166.557
4.62389, 2, -47.2513, -11.9888, 29.3621, 13.6664, 67.2625, -166.557
4.63201, 2, -47.2511, -11.9888, 29.3621, 13.6664, 67.2625, -166.557
4.63991, 2, -47.251, -11.9888, 29.3621, 13.6663, 67.2625, -166.557
4.64792, 2, -47.2509, -11.9888, 29.3621, 13.6664, 67.2625, -166.557
4.65605, 2, -47.2508, -11.9888, 29.3621, 13.6664, 67.2625, -166.557
4.66397, 2, -47.2507, -11.9888, 29.3621, 13.6664, 67.2625, -166.557
4.67198, 2, -47.2507, -11.9888, 29.3621, 13.6664, 67.2625, -166.557
4.68005, 2, -47.2506, -11.9888, 29.3621, 13.6664, 67.2625, -166.557
4.68799, 2, -47.2505, -11.9888, 29.3621, 13.6663, 67.2625, -166.557
4.696, 2, -47.2505, -11.9888, 29.3621, 13.6664, 67.2625, -166.557
4.70406, 2, -47.2504, -11.9887, 29.3621, 13.6664, 67.2625, -166.557
4.71191, 2, -47.2504, -11.9886, 29.3621, 13.6663, 67.2625, -166.557
4.71993, 2, -47.2503, -11.9886, 29.3621, 13.6663, 67.2625, -166.557
4.72829, 2, -47.2502, -11.9885, 29.3621, 13.6663, 67.2625, -166.557
4.73487, 2, -47.2502, -11.9885, 29.3621, 13.6663, 67.2625, -166.557
4.74408, 2, -47.25, -11.9885, 29.3621, 13.6663, 67.2626, -166.557
4.75087, 2, -47.25, -11.9885, 29.3621, 13.6663, 67.2626, -166.557
4.76015, 2, -47.25, -11.9885, 29.3621, 13.6663, 67.2626, -166.557
4.76693, 2, -47.2499, -11.9885, 29.3621, 13.6663, 67.2626, -166.557
4.77668, 2, -47.2499, -11.9885, 29.3621, 13.6662, 67.2626, -166.557
4.78447, 2, -47.2499, -11.9885, 29.3621, 13.6663, 67.2626, -166.557
4.79247, 2, -47.2498, -11.9884, 29.3621, 13.6663, 67.2626, -166.557
4.80052, 2, -47.2498, -11.9884, 29.3621, 13.6663, 67.2626, -166.557
4.80842, 2, -47.2498, -11.9884, 29.3621, 13.6663, 67.2627, -166.557
4.81665, 2, -47.2498, -11.9883, 29.3621, 13.6662, 67.2627, -166.557
4.82469, 2, -47.2497, -11.9882, 29.3621, 13.6662, 67.2627, -166.557
4.83188, 2, -47.2497, -11.9882, 29.3621, 13.6662, 67.2627, -166.557
4.83987, 2, -47.2496, -11.9881, 29.3621, 13.6662, 67.2627, -166.557
4.84794, 2, -47.2495, -11.9881, 29.3621, 13.6662, 67.2627, -166.557
4.85587, 2, -47.2494, -11.9881, 29.3621, 13.6662, 67.2627, -166.556
4.86387, 2, -47.2493, -11.9881, 29.3621, 13.6662, 67.2627, -166.556
4.87192, 2, -47.2493, -11.9881, 29.3621, 13.6661, 67.2627, -166.556
4.87987, 2, -47.2492, -11.9881, 29.3621, 13.6661, 67.2627, -166.556
4.88793, 2, -47.2492, -11.9881, 29.3621, 13.6661, 67.2627, -166.556
4.89597, 2, -47.2492, -11.988, 29.3621, 13.6661, 67.2627, -166.556
4.90387, 2, -47.2491, -11.988, 29.3621, 13.6661, 67.2628, -166.556
4.91188, 2, -47.2491, -11.988, 29.3621, 13.6661, 67.2627, -166.556
4.91992, 2, -47.2491, -11.9879, 29.3621, 13.666, 67.2627, -166.556
4.92787, 2, -47.2491, -11.9878, 29.3621, 13.666, 67.2628, -166.556
4.93588, 2, -47.2491, -11.9878, 29.3621, 13.666, 67.2628, -166.556
4.94392, 2, -47.2489, -11.9877, 29.3621, 13.666, 67.2628, -166.556
4.9519, 2, -47.2488, -11.9877, 29.3621, 13.666, 67.2628, -166.556
4.95987, 2, -47.2488, -11.9877, 29.3621, 13.666, 67.2628, -166.556
4.96798, 2, -47.2487, -11.9877, 29.3621, 13.666, 67.2628, -166.556
4.97694, 2, -47.2487, -11.9877, 29.3621, 13.666, 67.2628, -166.556
4.98387, 2, -47.2486, -11.9877, 29.3621, 13.666, 67.2628, -166.556
4.99194, 2, -47.2486, -11.9877, 29.3621, 13.666, 67.2628, -166.556
4.99986, 2, -47.2486, -11.9876, 29.3621, 13.6659, 67.2628, -166.556
5.00787, 2, -47.2486, -11.9876, 29.3621, 13.666, 67.2629, -166.556
5.01593, 2, -47.2486, -11.9876, 29.3621, 13.6659, 67.2629, -166.556
5.02387, 2, -47.2486, -11.9875, 29.3621, 13.6659, 67.2629, -166.556
5.03188, 2, -47.2485, -11.9874, 29.3621, 13.6659, 67.2629, -166.556
5.03994, 2, -47.2485, -11.9874, 29.3621, 13.6659, 67.2629, -166.556
5.04786, 2, -47.2484, -11.9874, 29.3621, 13.6659, 67.263, -166.556
5.05706, 2, -47.2483, -11.9873, 29.362, 13.6659, 67.263, -166.556
5.06397, 2, -47.2482, -11.9873, 29.362, 13.6659, 67.263, -166.556
5.07187, 2, -47.2481, -11.9873, 29.362, 13.6659, 67.263, -166.556
5.07987, 2, -47.248, -11.9873, 29.3621, 13.6658, 67.263, -166.556
5.08793, 2, -47.248, -11.9873, 29.3621, 13.6658, 67.263, -166.556
5.09587, 2, -47.2479, -11.9873, 29.3621, 13.6658, 67.263, -166.556
5.10387, 2, -47.248, -11.9872, 29.362, 13.6658, 67.263, -166.556
5.11196, 2, -47.2479, -11.9872, 29.362, 13.6658, 67.263, -166.556
5.11989, 2, -47.2479, -11.9872, 29.362, 13.6658, 67.263, -166.556
5.12786, 2, -47.2479, -11.9871, 29.3621, 13.6657, 67.263, -166.556
5.13595, 4, -47.2479, -11.9871, 29.3621, 13.6658, 67.263, -166.556
5.14386, 4, -47.2478, -11.987, 29.3621, 13.6658, 67.263, -166.556
5.15191, 4, -47.2478, -11.987, 29.3621, 13.6657, 67.263, -166.556
5.16001, 4, -47.2477, -11.987, 29.3621, 13.6657, 67.2631, -166.556
5.16796, 4, -47.2476, -11.9869, 29.362, 13.6657, 67.2631, -166.556
5.17597, 4, -47.2475, -11.9869, 29.362, 13.6656, 67.2631, -166.556
5.18403, 4, -47.2475, -11.9869, 29.362, 13.6655, 67.2631, -166.556
5.19198, 4, -47.2475, -11.9869, 29.362, 13.6655, 67.2631, -166.556
5.19992, 4, -47.2474, -11.9869, 29.362, 13.6655, 67.2631, -166.556
5.20803, 4, -47.2474, -11.9869, 29.362, 13.6655, 67.2631, -166.556
5.2159, 4, -47.2474, -11.9868, 29.362, 13.6655, 67.2631, -166.556
5.2239, 4, -47.2474, -11.9868, 29.362, 13.6655, 67.2631, -166.555
5.23201, 4, -47.2473, -11.9867, 29.362, 13.6655, 67.2631, -166.556
5.2403, 4, -47.2473, -11.9867, 29.3621, 13.6655, 67.2631, -166.555
5.25187, 4, -47.2473, -11.9867, 29.362, 13.6655, 67.2631, -166.555
5.25647, 4, -47.2472, -11.9866, 29.362, 13.6655, 67.2631, -166.555
5.26589, 4, -47.2471, -11.9866, 29.362, 13.6655, 67.2631, -166.555
5.27277, 4, -47.2471, -11.9866, 29.362, 13.6655, 67.2631, -166.555
5.27901, 4, -47.247, -11.9866, 29.362, 13.6655, 67.2631, -166.555
5.29292, 4, -47.2469, -11.9866, 29.362, 13.6654, 67.2631, -166.555
5.29509, 4, -47.2469, -11.9866, 29.362, 13.6654, 67.2631, -166.555
5.30484, 4, -47.2469, -11.9865, 29.362, 13.6654, 67.2631, -166.555
5.31503, 4, -47.2468, -11.9865, 29.362, 13.6654, 67.2631, -166.555
5.31963, 4, -47.2469, -11.9865, 29.3621, 13.6654, 67.2631, -166.555
5.3287, 4, -47.2472, -11.9869, 29.3624, 13.6655, 67.2633, -166.555
5.33976, 4, -47.25, -11.9886, 29.3641, 13.6671, 67.2638, -166.555
5.34468, 4, -47.2518, -11.9903, 29.3662, 13.6705, 67.2661, -166.554
5.35407, 4, -47.2607, -12.0012, 29.3817, 13.7016, 67.2722, -166.549
5.35907, 5, -47.2653, -12.0071, 29.3916, 13.7217, 67.2776, -166.544
5.36769, 5, -47.278, -12.0236, 29.4216, 13.7845, 67.2948, -166.53
5.37606, 5, -47.2963, -12.0477, 29.4686, 13.886, 67.323, -166.507
5.38401, 5, -47.3213, -12.0795, 29.5358, 14.0335, 67.3641, -166.472
5.39427, 5, -47.3719, -12.1424, 29.6775, 14.3496, 67.4505, -166.398
5.40009, 5, -47.3924, -12.1675, 29.7354, 14.4794, 67.4864, -166.367
5.407, 5, -47.4381, -12.2239, 29.8657, 14.7711, 67.5652, -166.299
5.41856, 5, -47.516, -12.3213, 30.0919, 15.2719, 67.7004, -166.181
5.42404, 5, -47.5441, -12.3567, 30.1738, 15.4511, 67.7484, -166.14
5.43349, 5, -47.6339, -12.47, 30.432, 16.0086, 67.8964, -166.01
5.43997, 5, -47.6655, -12.5096, 30.5209, 16.1985, 67.9465, -165.967
5.4479, 5, -47.7303, -12.5907, 30.7019, 16.5813, 68.0467, -165.879
5.45588, 5, -47.7968, -12.6732, 30.8864, 16.9662, 68.1459, -165.792
5.46295, 5, -47.8643, -12.7569, 31.0729, 17.3525, 68.2443, -165.705
5.47197, 5, -47.9324, -12.8412, 31.261, 17.7391, 68.342, -165.62
5.48279, 5, -48.035, -12.9686, 31.5493, 18.3199, 68.4858, -165.492
5.487, 5, -48.0692, -13.0113, 31.6467, 18.5137, 68.5332, -165.45
5.49601, 5, -48.1373, -13.0972, 31.8422, 18.9016, 68.6274, -165.367
5.504, 5, -48.2055, -13.1835, 32.0394, 19.2897, 68.7202, -165.284
5.51092, 5, -48.2739, -13.2703, 32.2394, 19.6775, 68.8121, -165.203
5.52098, 5, -48.3427, -13.3576, 32.4414, 20.0658, 68.9029, -165.121
5.52759, 5, -48.4117, -13.4454, 32.645, 20.454, 68.9924, -165.042
5.53591, 5, -48.4795, -13.5334, 32.8512, 20.8423, 69.0811, -164.961
5.5465, 5, -48.5766, -13.6643, 33.1627, 21.4215, 69.2136, -164.837
5.55118, 5, -48.6073, -13.7072, 33.2662, 21.6128, 69.258, -164.792
5.55989, 6, -48.6652, -13.7916, 33.4724, 21.9892, 69.3477, -164.691
5.56788, 6, -48.7168, -13.8734, 33.6752, 22.3537, 69.4405, -164.572
5.57599, 6, -48.7606, -13.9518, 33.8715, 22.7018, 69.5376, -164.426
5.58708, 6, -48.809, -14.0615, 34.1519, 23.185, 69.6925, -164.147
5.59087, 7, -48.8203, -14.0958, 34.2409, 23.3346, 69.747, -164.036
5.60006, 7, -48.8354, -14.1607, 34.4111, 23.6166, 69.86, -163.79
5.60741, 7, -48.8407, -14.221, 34.5719, 23.8775, 69.978, -163.512
5.61597, 7, -48.8368, -14.2765, 34.7249, 24.1208, 70.1007, -163.207
5.62401, 8, -48.8244, -14.3274, 34.8707, 24.3496, 70.2266, -162.881
5.63184, 8, -48.805, -14.3745, 35.0103, 24.5679, 70.3559, -162.537
5.64003, 8, -48.78, -14.4185, 35.1449, 24.7787, 70.4879, -162.181
5.648, 9, -48.7507, -14.4599, 35.2757, 24.9847, 70.6221, -161.816
5.65698, 9, -48.7181, -14.4993, 35.4036, 25.1876, 70.7577, -161.445
5.6649, 9, -48.6835, -14.5371, 35.529, 25.3889, 70.8947, -161.07
5.67247, 9, -48.6474, -14.5739, 35.6528, 25.5901, 71.0323, -160.693
5.67994, 10, -48.6103, -14.6098, 35.7751, 25.792, 71.1706, -160.314
5.68796, 10, -48.5725, -14.6449, 35.8962, 25.9953, 71.3094, -159.937
5.69789, 10, -48.5341, -14.6795, 36.0164, 26.2, 71.4483, -159.559
5.70409, 10, -48.4949, -14.7139, 36.1362, 26.4066, 71.5876, -159.184
5.71226, 11, -48.4549, -14.748, 36.2555, 26.6153, 71.7263, -158.811
5.71988, 11, -48.4142, -14.7818, 36.3744, 26.826, 71.8652, -158.439
5.72822, 11, -48.3727, -14.8155, 36.4927, 27.0383, 72.0033, -158.07
5.73596, 12, -48.3306, -14.849, 36.6105, 27.2523, 72.1415, -157.702
5.74288, 12, -48.3092, -14.8656, 36.6693, 27.3599, 72.2104, -157.519
5.75236, 12, -48.2445, -14.9154, 36.8447, 27.685, 72.4163, -156.972
5.76112, 12, -48.2006, -14.9486, 36.9613, 27.9028, 72.553, -156.61
5.767, 13, -48.1783, -14.9652, 37.0193, 28.012, 72.6212, -156.429
5.77665, 13, -48.1102, -15.0147, 37.1921, 28.3407, 72.8253, -155.889
5.78432, 13, -48.0636, -15.0476, 37.3062, 28.5603, 72.9603, -155.531
5.79084, 13, -48.0399, -15.064, 37.3629, 28.6701, 73.0277, -155.352
5.80059, 14, -47.9672, -15.1132, 37.5319, 28.9998, 73.2291, -154.816
5.80935, 14, -47.9175, -15.146, 37.6436, 29.2195, 73.3627, -154.461
5.81483, 14, -47.8921, -15.1624, 37.6991, 29.3294, 73.4292, -154.283
5.82567, 15, -47.8134, -15.2113, 37.864, 29.6581, 73.6283, -153.752
5.83703, 15, -47.7313, -15.26, 38.0265, 29.9859, 73.8258, -153.222
5.83986, 15, -47.7313, -15.26, 38.0265, 29.9859, 73.8258, -153.222
5.84784, 15, -47.6746, -15.2924, 38.1338, 30.2039, 73.9566, -152.87
5.856, 16, -47.6162, -15.325, 38.2403, 30.4212, 74.0868, -152.519
5.86381, 16, -47.5563, -15.3575, 38.3461, 30.6377, 74.2162, -152.17
5.87189, 16, -47.495, -15.3902, 38.4507, 30.8539, 74.3446, -151.822
5.87983, 16, -47.4324, -15.423, 38.5543, 31.0696, 74.4722, -151.475
5.88785, 17, -47.3683, -15.4561, 38.6569, 31.2844, 74.5983, -151.129
5.89589, 17, -47.3028, -15.4894, 38.7589, 31.4988, 74.7238, -150.785
5.90405, 17, -47.236, -15.5232, 38.8606, 31.7125, 74.8479, -150.443
5.911, 18, -47.1678, -15.5575, 38.9617, 31.926, 74.971, -150.102
5.91986, 18, -47.0981, -15.5922, 39.062, 32.1387, 75.0928, -149.765
5.92799, 18, -47.0267, -15.6273, 39.1613, 32.351, 75.2128, -149.428
5.93598, 18, -46.9538, -15.663, 39.2599, 32.5628, 75.3317, -149.094
5.9439, 19, -46.8792, -15.6994, 39.3582, 32.7744, 75.4487, -148.762
5.95202, 19, -46.8033, -15.7365, 39.4562, 32.9852, 75.5641, -148.433
5.9618, 19, -46.7259, -15.7934, 39.6027, 33.3004, 75.7345, -147.943
5.96784, 19, -46.6471, -15.8127, 39.6512, 33.4051, 75.7903, -147.781
5.97755, 20, -46.5667, -15.852, 39.7476, 33.6143, 75.9009, -147.459
5.98461, 20, -46.485, -15.8921, 39.8432, 33.8227, 76.0094, -147.139
5.99183, 20, -46.4018, -15.933, 39.9383, 34.0303, 76.1162, -146.822
6.00259, 21, -46.2742, -15.9961, 40.0804, 34.3404, 76.2733, -146.35
6.00806, 21, -46.2309, -16.0175, 40.1277, 34.4434, 76.3247, -146.194
6.01584, 21, -46.1431, -16.0611, 40.2218, 34.6487, 76.426, -145.884
6.02383, 21, -46.0537, -16.1055, 40.3151, 34.8528, 76.5257, -145.576
6.03198, 22, -45.9625, -16.1506, 40.4073, 35.056, 76.6234, -145.27
6.03894, 22, -45.8695, -16.1964, 40.4987, 35.2581, 76.7197, -144.966
6.04785, 22, -45.7747, -16.2429, 40.5894, 35.4591, 76.8142, -144.664
6.05608, 23, -45.6779, -16.2902, 40.6794, 35.6586, 76.9066, -144.364
6.06396, 23, -45.5794, -16.338, 40.7688, 35.8566, 76.9977, -144.065
6.07187, 23, -45.4791, -16.3863, 40.8572, 36.0533, 77.0873, -143.768
6.0799, 23, -45.3768, -16.4352, 40.9444, 36.2486, 77.1748, -143.472
6.08783, 24, -45.2726, -16.4845, 41.0302, 36.442, 77.2611, -143.178
6.09586, 24, -45.1665, -16.5342, 41.1147, 36.6335, 77.3457, -142.886
6.10395, 24, -45.0585, -16.5842, 41.1981, 36.8231, 77.4291, -142.594
6.11277, 24, -44.9485, -16.6347, 41.2802, 37.0109, 77.5109, -142.303
6.11983, 25, -44.8365, -16.6854, 41.3609, 37.1967, 77.5913, -142.014
6.12923, 25, -44.7223, -16.7363, 41.4402, 37.3803, 77.6707, -141.725
6.13599, 25, -44.606, -16.7873, 41.5179, 37.5614, 77.7483, -141.436
6.14607, 26, -44.4874, -16.8384, 41.5939, 37.7406, 77.8251, -141.149
6.15184, 26, -44.3665, -16.8895, 41.6682, 37.9177, 77.9004, -140.862
6.16011, 26, -44.2432, -16.9404, 41.7407, 38.0924, 77.9751, -140.575
6.16792, 26, -44.1178, -16.9912, 41.8115, 38.2645, 78.0476, -140.289
6.17592, 27, -43.9903, -17.0418, 41.8803, 38.4341, 78.1198, -140.003
6.18407, 27, -43.8608, -17.092, 41.9472, 38.6012, 78.1901, -139.718
6.19137, 27, -43.7293, -17.1418, 42.0122, 38.766, 78.2603, -139.432
6.20048, 27, -43.5958, -17.1914, 42.0754, 38.9282, 78.3286, -139.147
6.20824, 28, -43.46, -17.2405, 42.1366, 39.0878, 78.3964, -138.862
6.21679, 28, -43.3218, -17.2891, 42.1957, 39.2449, 78.4632, -138.578
6.22386, 28, -43.1814, -17.3373, 42.2527, 39.3993, 78.529, -138.293
6.23218, 28, -43.0387, -17.3849, 42.3076, 39.5514, 78.5942, -138.008
6.24035, 29, -42.8938, -17.432, 42.3603, 39.7011, 78.6577, -137.724
6.24693, 29, -42.8205, -17.4554, 42.3859, 39.7749, 78.6896, -137.582
6.25696, 29, -42.5973, -17.5244, 42.4596, 39.9922, 78.7829, -137.156
6.26417, 30, -42.4457, -17.5698, 42.5059, 40.1338, 78.8449, -136.872
6.27091, 30, -42.3689, -17.5922, 42.5283, 40.2037, 78.8754, -136.73
6.28062, 30, -42.1358, -17.6583, 42.5922, 40.4096, 78.9649, -136.305
6.29007, 30, -41.9778, -17.7014, 42.6321, 40.5438, 79.0241, -136.021
6.29634, 31, -41.8178, -17.7438, 42.6699, 40.6754, 79.0817, -135.738
6.30561, 31, -41.6559, -17.7854, 42.7054, 40.8045, 79.1398, -135.455
6.31326, 31, -41.492, -17.8261, 42.739, 40.9308, 79.1958, -135.172
6.31883, 31, -41.4094, -17.8462, 42.755, 40.993, 79.2236, -135.03
6.32839, 32, -41.2426, -17.8856, 42.7852, 41.1157, 79.307, -134.606
6.33663, 32, -40.9888, -17.9431, 42.8264, 41.2954, 79.3607, -134.323
6.34379, 32, -40.9031, -17.9619, 42.8392, 41.3541, 79.3877, -134.183
6.35182, 33, -40.7302, -17.9988, 42.8631, 41.4698, 79.4414, -133.901
6.36264, 33, -40.4674, -18.0525, 42.8947, 41.6387, 79.5189, -133.478
6.36782, 33, -40.3789, -18.0699, 42.9043, 41.6939, 79.5449, -133.338
6.37587, 33, -40.2007, -18.1043, 42.9219, 41.8021, 79.596, -133.057
6.38405, 34, -40.0208, -18.1378, 42.9371, 41.908, 79.6456, -132.776
6.39178, 34, -39.8389, -18.1704, 42.9502, 42.0117, 79.6954, -132.495
6.39982, 34, -39.6551, -18.202, 42.9613, 42.113, 79.7445, -132.216
6.40838, 35, -39.4693, -18.2326, 42.9704, 42.2123, 79.7918, -131.936
6.41601, 35, -39.2818, -18.2621, 42.9773, 42.3093, 79.8393, -131.657
6.42383, 35, -39.0925, -18.2909, 42.9822, 42.4039, 79.8863, -131.378
6.43187, 35, -38.9014, -18.3184, 42.9851, 42.4962, 79.9318, -131.099
6.43979, 36, -38.7087, -18.345, 42.9861, 42.5861, 79.9772, -130.822
6.44782, 36, -38.5143, -18.3705, 42.9852, 42.6738, 80.0226, -130.544
6.45862, 36, -38.2194, -18.4069, 42.9799, 42.8012, 80.0877, -130.128
6.46404, 36, -38.1202, -18.4186, 42.9772, 42.8426, 80.1094, -129.989
6.47186, 37, -37.9204, -18.441, 42.9702, 42.9236, 80.1528, -129.713
6.48087, 37, -37.7191, -18.4623, 42.9611, 43.0025, 80.1952, -129.437
6.48797, 37, -37.5168, -18.4828, 42.9497, 43.0791, 80.2363, -129.162
6.49599, 38, -37.3134, -18.502, 42.9364, 43.1539, 80.2776, -128.887
6.50392, 38, -37.1086, -18.5202, 42.9211, 43.2261, 80.3184, -128.613
6.512, 38, -36.9022, -18.5374, 42.9037, 43.2964, 80.3577, -128.339
6.51985, 38, -36.6938, -18.5535, 42.8844, 43.3642, 80.3966, -128.065
6.52781, 39, -36.4836, -18.5683, 42.8631, 43.43, 80.4355, -127.792
6.53602, 39, -36.2716, -18.5818, 42.8396, 43.4936, 80.4737, -127.52
6.54472, 39, -36.0578, -18.5945, 42.8142, 43.5546, 80.5109, -127.249
6.55141, 39, -35.8423, -18.6063, 42.7869, 43.6142, 80.5477, -126.978
6.55958, 40, -35.6258, -18.6167, 42.7576, 43.6707, 80.5847, -126.707
6.56786, 40, -35.4082, -18.6259, 42.7263, 43.726, 80.6208, -126.437
6.57584, 40, -35.1888, -18.6341, 42.693, 43.7786, 80.6556, -126.168
6.58507, 41, -34.9677, -18.6413, 42.658, 43.8289, 80.69, -125.899
6.59116, 41, -34.745, -18.6473, 42.621, 43.8781, 80.7246, -125.63
6.59987, 41, -34.5217, -18.6523, 42.582, 43.9244, 80.7584, -125.363
6.61057, 41, -34.2977, -18.6563, 42.5413, 43.9684, 80.7912, -125.096
6.61543, 42, -34.0728, -18.6594, 42.4987, 44.011, 80.8234, -124.83
6.62389, 42, -33.8468, -18.6615, 42.4544, 44.0512, 80.8555, -124.565
6.63181, 42, -33.6196, -18.6626, 42.4083, 44.0889, 80.8875, -124.3
6.64017, 42, -33.3903, -18.6629, 42.3603, 44.1246, 80.9185, -124.036
6.64711, 43, -33.1586, -18.6624, 42.3106, 44.1589, 80.9486, -123.773
6.65523, 43, -32.9246, -18.6609, 42.2592, 44.1908, 80.9782, -123.51
6.66384, 43, -32.6894, -18.6582, 42.2061, 44.22, 81.0078, -123.249
6.67175, 44, -32.4534, -18.6543, 42.1512, 44.2471, 81.0369, -122.988
6.67998, 44, -32.216, -18.6496, 42.0945, 44.2721, 81.0652, -122.727
6.6881, 44, -31.9769, -18.6437, 42.036, 44.2955, 81.0927, -122.468
6.6966, 44, -31.7364, -18.6368, 41.9758, 44.3169, 81.1195, -122.209
6.70391, 45, -31.4952, -18.6287, 41.9138, 44.3358, 81.1465, -121.951
6.71226, 45, -31.2535, -18.6196, 41.85, 44.3521, 81.1733, -121.693
6.72028, 45, -31.0115, -18.6094, 41.7846, 44.3659, 81.1992, -121.436
6.72763, 45, -30.8904, -18.6038, 41.7512, 44.372, 81.2118, -121.18
6.73624, 46, -30.5255, -18.5849, 41.6486, 44.3868, 81.2487, -120.924
6.74424, 46, -30.2795, -18.5707, 41.5781, 44.394, 81.273, -120.67
6.75204, 46, -30.0312, -18.5557, 41.5058, 44.3987, 81.2973, -120.415
6.76081, 47, -29.7811, -18.5394, 41.4319, 44.4012, 81.3215, -120.162
6.76842, 47, -29.5296, -18.5217, 41.356, 44.4023, 81.345, -119.909
6.77491, 47, -29.4031, -18.5123, 41.3174, 44.4023, 81.3565, -119.783
6.78725, 47, -29.0212, -18.4823, 41.1987, 44.3987, 81.3905, -119.405
6.79267, 48, -28.7646, -18.4607, 41.1173, 44.3927, 81.4128, -119.153
6.80035, 48, -28.5065, -18.4377, 41.0341, 44.3843, 81.4354, -118.902
6.8089, 48, -28.2472, -18.4135, 40.9492, 44.3732, 81.4582, -118.652
6.8164, 48, -27.9881, -18.3879, 40.8625, 44.3591, 81.4806, -118.403
6.82439, 49, -27.7292, -18.3609, 40.7737, 44.3423, 81.5025, -118.153
6.8325, 49, -27.5993, -18.3468, 40.683, 44.3226, 81.5243, -117.904
6.84159, 49, -27.2068, -18.3021, 40.5902, 44.2994, 81.5458, -117.656
6.84873, 50, -26.9422, -18.2704, 40.4954, 44.2735, 81.5676, -117.407
6.85579, 50, -26.8092, -18.2539, 40.4473, 44.2596, 81.5787, -117.283
6.86395, 50, -26.5418, -18.2197, 40.3497, 44.2298, 81.6012, -117.035
6.87427, 50, -26.2727, -18.1656, 40.1997, 44.1797, 81.635, -116.663
6.8788, 51, -26.0019, -18.1467, 40.1487, 44.1612, 81.6462, -116.539
6.88803, 51, -25.7289, -18.1076, 40.0452, 44.1222, 81.6687, -116.292
6.89792, 51, -25.3158, -18.0458, 39.8857, 44.0592, 81.7029, -115.921
6.9038, 51, -25.1777, -18.0244, 39.8314, 44.0363, 81.7147, -115.798
6.91358, 52, -24.7633, -17.9577, 39.6657, 43.9626, 81.7512, -115.428
6.9213, 52, -24.6249, -17.9346, 39.6095, 43.937, 81.7635, -115.304
6.92785, 52, -24.3472, -17.887, 39.4957, 43.8827, 81.788, -115.058
6.93854, 53, -23.9273, -17.8121, 39.3209, 43.7956, 81.8251, -114.687
6.94403, 53, -23.7862, -17.7863, 39.2615, 43.7652, 81.8376, -114.564
6.9508, 53, -23.5024, -17.7333, 39.1409, 43.701, 81.8632, -114.318
6.95982, 53, -23.2174, -17.6785, 39.0184, 43.6347, 81.8899, -114.072
6.9709, 54, -22.7867, -17.5929, 38.831, 43.5283, 81.9306, -113.702
6.9758, 54, -22.6418, -17.5635, 38.7675, 43.4916, 81.9443, -113.579
6.98385, 54, -22.3504, -17.5033, 38.6391, 43.415, 81.9719, -113.333
6.9928, 54, -22.0575, -17.4415, 38.5083, 43.3355, 82.0002, -113.087
6.99988, 55, -21.7637, -17.3778, 38.3755, 43.2523, 82.0295, -112.84
7.00785, 55, -21.4693, -17.3125, 38.2407, 43.1659, 82.0596, -112.594
7.01594, 55, -21.1739, -17.2452, 38.1041, 43.0762, 82.0897, -112.348
7.02483, 56, -20.8764, -17.1763, 37.9654, 42.9827, 82.1199, -112.102
7.03178, 56, -20.5766, -17.1056, 37.8248, 42.886, 82.1509, -111.856
7.04006, 56, -20.2754, -17.0332, 37.6823, 42.7858, 82.183, -111.61
7.04844, 56, -19.9726, -16.9592, 37.5378, 42.6823, 82.2154, -111.365
7.05586, 57, -19.6677, -16.8835, 37.3913, 42.5753, 82.2479, -111.119
7.06398, 57, -19.361, -16.8063, 37.243, 42.4647, 82.2809, -110.874
7.07176, 57, -19.0523, -16.7275, 37.0931, 42.3507, 82.3149, -110.629
7.08002, 58, -18.7422, -16.6473, 36.9415, 42.2328, 82.3498, -110.383
7.08908, 58, -18.4309, -16.5654, 36.7881, 42.1112, 82.3845, -110.138
7.09514, 58, -18.1178, -16.482, 36.6324, 41.986, 82.4195, -109.893
7.1048, 58, -17.8021, -16.3971, 36.4747, 41.8573, 82.4556, -109.649
7.11382, 59, -17.4844, -16.3107, 36.3158, 41.725, 82.4926, -109.404
7.11995, 59, -17.1651, -16.2228, 36.1554, 41.5889, 82.5295, -109.159
7.12792, 59, -16.8442, -16.1335, 35.993, 41.4487, 82.5669, -108.915
7.13596, 59, -16.5218, -16.0426, 35.8286, 41.3047, 82.6054, -108.671
7.14394, 60, -16.1977, -15.95, 35.663, 41.1567, 82.6449, -108.427
7.15284, 60, -15.8719, -15.856, 35.4961, 41.0049, 82.684, -108.182
7.15992, 60, -15.5451, -15.7604, 35.3271, 40.8492, 82.7237, -107.938
7.16818, 61, -15.2164, -15.6633, 35.1559, 40.6896, 82.7649, -107.694
7.17606, 61, -14.8845, -15.5646, 34.9834, 40.5258, 82.8066, -107.45
7.18398, 61, -14.5492, -15.4644, 34.8096, 40.3579, 82.8485, -107.205
7.19236, 61, -14.2108, -15.3627, 34.6338, 40.186, 82.8917, -106.961
7.1999, 62, -13.8708, -15.2594, 34.4558, 40.0098, 82.9362, -106.717
7.20805, 62, -13.5297, -15.1544, 34.2769, 39.8296, 82.9806, -106.472
7.21667, 62, -13.1871, -15.0476, 34.0967, 39.6449, 83.026, -106.228
7.22544, 62, -12.8432, -14.9392, 33.914, 39.4556, 83.0732, -105.982
7.23183, 63, -12.498, -14.8292, 33.7293, 39.2622, 83.1205, -105.737
7.24199, 63, -12.1508, -14.7175, 33.5439, 39.0646, 83.1692, -105.492
7.24698, 63, -11.9764, -14.661, 33.4506, 38.9641, 83.1944, -105.369
7.25638, 64, -11.4472, -14.4884, 33.1669, 38.6556, 83.2706, -105
7.26278, 64, -11.2689, -14.4299, 33.0715, 38.5505, 83.2964, -104.877
7.27461, 64, -10.7304, -14.2518, 32.7839, 38.2287, 83.3772, -104.506
7.2788, 64, -10.5497, -14.1915, 32.687, 38.1191, 83.4043, -104.383
7.28826, 65, -10.0052, -14.0076, 32.393, 37.7831, 83.4886, -104.011
7.29493, 65, -9.8233, -13.9455, 32.2945, 37.6686, 83.5176, -103.886
7.30431, 65, -9.27582, -13.7559, 31.9971, 37.3186, 83.6057, -103.512
7.31341, 65, -8.90827, -13.6266, 31.7957, 37.0794, 83.6677, -103.263
7.32078, 66, -8.53695, -13.4952, 31.5934, 36.8357, 83.7303, -103.012
7.32926, 66, -8.16174, -13.3616, 31.3899, 36.5874, 83.7957, -102.761
7.33485, 66, -7.9728, -13.2942, 31.2873, 36.4615, 83.8288, -102.635
7.34509, 67, -7.402, -13.0888, 30.9774, 36.0765, 83.9304, -102.257
7.35262, 67, -7.211, -13.0191, 30.7699, 35.8141, 84.0006, -102.004
7.35978, 67, -6.82813, -12.8782, 30.6653, 35.681, 84.0364, -101.877
7.36782, 67, -6.44442, -12.735, 30.4545, 35.4112, 84.11, -101.622
7.37585, 68, -6.05928, -12.5897, 30.243, 35.1371, 84.1848, -101.367
7.38382, 68, -5.6709, -12.4426, 30.0305, 34.8585, 84.2622, -101.112
7.39371, 68, -5.08092, -12.2177, 29.7087, 34.4317, 84.382, -100.727
7.39992, 68, -4.88233, -12.1416, 29.6012, 34.287, 84.4228, -100.598
7.4079, 69, -4.48313, -11.9877, 29.3854, 33.9944, 84.5062, -100.341
7.41579, 69, -4.08211, -11.8318, 29.1676, 33.6974, 84.5917, -100.082
7.42401, 69, -3.68049, -11.6744, 28.9496, 33.3957, 84.6795, -99.8227
7.43128, 70, -3.27851, -11.5145, 28.7314, 33.0899, 84.7691, -99.5623
7.43993, 70, -2.87468, -11.352, 28.5116, 32.7797, 84.861, -99.3011
7.44798, 70, -2.46805, -11.1874, 28.2913, 32.4653, 84.9554, -99.0395
7.45662, 70, -2.05705, -11.0211, 28.0707, 32.1469, 85.0515, -98.7772
7.46274, 71, -1.64194, -10.853, 27.8489, 31.8242, 85.1499, -98.5144
7.47191, 71, -1.22419, -10.6823, 27.6271, 31.4976, 85.2507, -98.2507
7.47975, 71, -0.805849, -10.5093, 27.4058, 31.167, 85.3534, -97.9862
7.48791, 71, -0.387917, -10.3346, 27.1835, 30.8321, 85.4585, -97.7212
7.49694, 72, 0.0308038, -10.1585, 26.9611, 30.4937, 85.5661, -97.4556
7.50459, 72, 0.451759, -9.9799, 26.7389, 30.1517, 85.6754, -97.1891
7.5108, 72, 0.876561, -9.79849, 26.516, 29.8064, 85.7874, -96.9217
7.52092, 73, 1.30447, -9.6151, 26.2936, 29.4576, 85.9013, -96.6539
7.52797, 73, 1.7352, -9.43073, 26.0719, 29.1055, 86.0175, -96.3856
7.53579, 73, 2.1671, -9.24454, 25.8496, 28.7502, 86.1362, -96.1165
7.54385, 73, 2.5986, -9.05578, 25.6279, 28.3916, 86.2569, -95.8465
7.55184, 74, 3.02949, -8.86489, 25.4072, 28.0304, 86.3804, -95.5757
7.55981, 74, 3.46161, -8.67226, 25.1862, 27.6665, 86.506, -95.3044
7.57048, 74, 4.11591, -8.37856, 24.8565, 27.1156, 86.6992, -94.8954
7.57593, 74, 4.33583, -8.27913, 24.7472, 26.9308, 86.7649, -94.7587
7.58437, 75, 4.77747, -8.07869, 24.5282, 26.5596, 86.8981, -94.4849
7.59078, 75, 5.21937, -7.87672, 24.3101, 26.1863, 87.0338, -94.2106
7.59993, 75, 5.65965, -7.67254, 24.0937, 25.811, 87.1723, -93.9351
7.60979, 76, 6.09843, -7.46551, 23.8776, 25.434, 87.3134, -93.6587
7.6159, 76, 6.53802, -7.25626, 23.6625, 25.0559, 87.457, -93.3815
7.62396, 76, 6.97964, -7.04468, 23.4491, 24.6765, 87.6037, -93.1039
7.63234, 76, 7.42393, -6.82998, 23.2362, 24.2961, 87.7529, -92.8248
7.63989, 77, 7.86975, -6.61275, 23.0244, 23.9144, 87.9053, -92.5449
7.64807, 77, 8.31543, -6.39404, 22.8145, 23.5319, 88.0605, -92.2642
7.65605, 77, 8.75863, -6.1729, 22.6055, 23.1491, 88.2185, -91.9826
7.66417, 77, 9.19967, -5.94885, 22.3976, 22.7662, 88.3797, -91.7001
7.67162, 78, 9.64046, -5.72247, 22.192, 22.3835, 88.5435, -91.4165
7.68009, 78, 10.0833, -5.49286, 21.9879, 22.001, 88.7106, -91.1317
7.68799, 78, 10.5281, -5.25949, 21.7846, 21.619, 88.8804, -90.8459
7.69662, 78, 10.9732, -5.0239, 21.5833, 21.2378, 89.0535, -90.5587
7.70409, 79, 11.4168, -4.78622, 21.3837, 20.8575, 89.2294, -90.2703
7.71193, 79, 11.857, -4.54571, 21.1849, 20.4779, 89.4083, -89.9811
7.72277, 79, 12.2943, -4.30312, 20.9883, 20.0999, 89.5904, -89.6909
7.7283, 80, 12.7304, -4.05775, 20.7942, 19.7239, 89.7756, -89.3993
7.73581, 80, 13.1673, -3.80851, 20.6012, 19.3498, 89.9638, -89.1064
7.74381, 80, 13.6045, -3.55656, 20.4095, 18.9778, 90.1554, -88.8122
7.75202, 80, 14.0411, -3.30209, 20.2201, 18.6081, 90.35, -88.5169
7.75877, 81, 14.2583, -3.17361, 20.1262, 18.4242, 90.4485, -88.3685
7.7681, 81, 14.9041, -2.78409, 19.8457, 17.8764, 90.7486, -87.9212
7.775, 81, 15.1171, -2.65274, 19.7532, 17.6956, 90.8502, -87.7715
7.78299, 82, 15.5414, -2.38689, 19.5702, 17.336, 91.0559, -87.4712
7.7922, 82, 16.177, -1.98227, 19.2987, 16.8029, 91.3708, -87.0173
7.80074, 82, 16.6, -1.70841, 19.1193, 16.4523, 91.5851, -86.7126
7.80933, 82, 17.0211, -1.43108, 18.942, 16.1053, 91.8024, -86.4063
7.81636, 83, 17.4387, -1.15058, 18.7668, 15.763, 92.0233, -86.098
7.82488, 83, 17.8514, -0.866042, 18.5928, 15.4245, 92.2474, -85.7879
7.8338, 83, 18.0557, -0.578409, 18.4202, 15.0907, 92.4752, -85.4761
7.84096, 83, 18.6636, -0.287353, 18.2501, 14.7623, 92.7061, -85.1627
7.84961, 84, 19.0666, 0.00726828, 18.0817, 14.4384, 92.9405, -84.8468
7.85717, 84, 19.2675, 0.304767, 17.9142, 14.1201, 93.1783, -84.5291
7.86276, 84, 19.6676, 0.455092, 17.8309, 13.9629, 93.2984, -84.3695
7.87173, 85, 20.0637, 0.758293, 17.6661, 13.6521, 93.5408, -84.0491
7.87995, 85, 20.4551, 1.06389, 17.5031, 13.3471, 93.7865, -83.7261
7.88778, 85, 20.8415, 1.37319, 17.3415, 13.048, 94.0353, -83.4012
7.89584, 85, 21.2228, 1.68528, 17.1814, 12.7548, 94.2868, -83.0747
7.9059, 86, 21.7886, 2.16038, 16.9451, 12.3271, 94.6695, -82.5806
7.91172, 86, 21.9759, 2.32014, 16.8672, 12.1876, 94.7986, -82.4147
7.91975, 86, 22.3483, 2.64189, 16.7125, 11.9135, 95.0587, -82.0818
7.9284, 86, 22.717, 2.96674, 16.5593, 11.646, 95.3215, -81.7464
7.93575, 87, 23.0809, 3.29435, 16.4083, 11.3851, 95.5867, -81.4089
7.94375, 87, 23.44, 3.62578, 16.2595, 11.1309, 95.854, -81.0701
7.95183, 87, 23.7934, 3.95917, 16.1125, 10.8835, 96.1234, -80.7293
7.95972, 88, 24.1415, 4.29519, 15.9675, 10.6434, 96.3944, -80.3863
7.96963, 88, 24.4854, 4.63292, 15.8246, 10.4101, 96.8031, -79.8691
7.97776, 88, 24.9941, 5.14425, 15.6144, 10.0731, 97.0773, -79.522
7.98375, 88, 25.1618, 5.31558, 15.5454, 9.96432, 97.2146, -79.3477
7.99183, 89, 25.4934, 5.65944, 15.4091, 9.75219, 97.4897, -78.9985
8.00223, 89, 25.9803, 6.17687, 15.209, 9.44731, 97.9032, -78.4723
8.00676, 89, 26.1405, 6.35028, 15.1434, 9.34921, 98.0412, -78.2959
8.01575, 89, 26.4579, 6.6983, 15.0142, 9.15849, 98.3176, -77.9422
8.02383, 90, 26.7707, 7.047, 14.8876, 8.97511, 98.5941, -77.5874
8.03175, 90, 27.0788, 7.39708, 14.7634, 8.79891, 98.8707, -77.231
8.03975, 90, 27.3821, 7.74829, 14.6416, 8.63004, 99.1471, -76.8736
8.04777, 91, 27.6805, 8.10175, 14.5222, 8.46798, 99.4231, -76.5152
8.05575, 91, 27.9742, 8.45604, 14.4052, 8.31322, 99.6986, -76.1553
8.06382, 91, 28.2632, 8.81144, 14.2906, 8.16567, 99.9738, -75.7941
8.07175, 91, 28.5469, 9.16712, 14.1786, 8.02541, 100.248, -75.4317
8.07975, 92, 28.8258, 9.52441, 14.0689, 7.89233, 100.523, -75.0678
8.08784, 92, 29.1006, 9.88247, 13.9614, 7.76623, 100.797, -74.7025
8.09579, 92, 29.3711, 10.2416, 13.8559, 7.6472, 101.07, -74.3363
8.10382, 92, 29.6374, 10.601, 13.7525, 7.53535, 101.343, -73.9682
8.11174, 93, 29.8994, 10.9618, 13.6512, 7.43066, 101.616, -73.5983
8.1198, 93, 30.1568, 11.3229, 13.5521, 7.33332, 101.888, -73.2269
8.12784, 93, 30.4087, 11.6849, 13.4551, 7.2436, 102.16, -72.8535
8.13575, 94, 30.6552, 12.0471, 13.3601, 7.16053, 102.432, -72.4784
8.14383, 94, 30.8969, 12.4111, 13.2669, 7.08534, 102.703, -72.1019
8.15548, 94, 31.2507, 12.9589, 13.1307, 6.98539, 103.109, -71.5335
8.16008, 94, 31.3661, 13.1419, 13.0864, 6.95602, 103.244, -71.3431
8.16726, 95, 31.5938, 13.5077, 12.9994, 6.90159, 103.513, -70.961
8.17591, 95, 31.8176, 13.8748, 12.9147, 6.85488, 103.782, -70.5771
8.18385, 95, 32.0374, 14.2424, 12.8321, 6.81566, 104.049, -70.1916
8.19207, 96, 32.2529, 14.6103, 12.7515, 6.78297, 104.315, -69.8048
8.19993, 96, 32.4639, 14.9776, 12.6729, 6.75677, 104.579, -69.4162
8.20788, 96, 32.6705, 15.3451, 12.5966, 6.73747, 104.842, -69.0259
8.21652, 96, 32.8726, 15.7121, 12.5226, 6.72505, 105.103, -68.6345
8.22388, 97, 33.0699, 16.0787, 12.4511, 6.71894, 105.362, -68.2413
8.23178, 97, 33.263, 16.4446, 12.3821, 6.71806, 105.619, -67.8474
8.23977, 97, 33.452, 16.8106, 12.3154, 6.72434, 105.874, -67.4528
8.24888, 97, 33.6368, 17.1763, 12.2512, 6.73765, 106.126, -67.0566
8.25587, 98, 33.8174, 17.5414, 12.1893, 6.75788, 106.376, -66.6593
8.26402, 98, 33.9941, 17.9054, 12.1299, 6.78489, 106.624, -66.2609
8.27075, 98, 34.081, 18.0871, 12.1011, 6.80057, 106.748, -66.0611
8.28049, 99, 34.3366, 18.6322, 12.0182, 6.85611, 107.113, -65.4612
8.28829, 99, 34.5027, 18.9945, 11.9659, 6.90163, 107.354, -65.0598
8.29617, 99, 34.6657, 19.3555, 11.9159, 6.95273, 107.592, -64.6572
8.30276, 99, 34.7461, 19.5354, 11.8918, 6.97996, 107.71, -64.4557
8.31227, 100, 34.9825, 20.0735, 11.8231, 7.07185, 108.059, -63.8495
8.32033, 100, 35.1361, 20.4294, 11.7806, 7.1392, 108.288, -63.445
8.32831, 100, 35.2867, 20.7826, 11.7407, 7.2125, 108.513, -63.0407
8.33636, 100, 35.361, 20.9581, 11.7036, 7.29009, 108.734, -62.6363
8.34439, 101, 35.5072, 21.3079, 11.6863, 7.3308, 108.951, -62.2331
8.35174, 101, 35.6506, 21.6553, 11.6538, 7.4155, 109.058, -62.032
8.35975, 101, 35.791, 22, 11.6242, 7.50425, 109.266, -61.6307
8.36866, 102, 35.9283, 22.3416, 11.5979, 7.59707, 109.569, -61.033
8.37574, 102, 36.0623, 22.6806, 11.5747, 7.69369, 109.667, -60.8349
8.38377, 102, 36.1934, 23.0183, 11.5544, 7.79394, 109.859, -60.4393
8.39174, 102, 36.3214, 23.3539, 11.5367, 7.89773, 110.046, -60.0455
8.39971, 103, 36.4468, 23.6871, 11.5212, 8.00545, 110.23, -59.6518
8.4078, 103, 36.5703, 24.0157, 11.5081, 8.11731, 110.41, -59.2579
8.41574, 103, 36.6921, 24.3396, 11.4972, 8.23362, 110.587, -58.8643
8.42381, 103, 36.8122, 24.6565, 11.4887, 8.35443, 110.76, -58.4717
8.43178, 104, 36.9305, 24.9676, 11.483, 8.47941, 110.927, -58.0808
8.43974, 104, 37.0472, 25.2732, 11.4807, 8.60827, 111.086, -57.6943
8.44773, 104, 37.1619, 25.5745, 11.4818, 8.74003, 111.234, -57.314
8.45475, 104, 37.2748, 25.8731, 11.4867, 8.87423, 111.371, -56.9409
8.46375, 104, 37.386, 26.168, 11.4952, 9.01024, 111.497, -56.5759
8.47174, 104, 37.4959, 26.4595, 11.5066, 9.1482, 111.614, -56.2174
8.47983, 104, 37.6046, 26.7466, 11.5201, 9.28794, 111.724, -55.8633
8.48884, 104, 37.7123, 27.0285, 11.535, 9.42956, 111.83, -55.5131
8.49573, 104, 37.8189, 27.3069, 11.5508, 9.57296, 111.933, -55.1647
8.50384, 104, 37.9244, 27.5822, 11.5665, 9.71815, 112.034, -54.8174
8.51173, 104, 38.0291, 27.8563, 11.5818, 9.8652, 112.135, -54.4714
8.51978, 104, 38.1328, 28.1305, 11.5971, 10.0139, 112.234, -54.1265
8.52775, 104, 38.2358, 28.4041, 11.6126, 10.1649, 112.334, -53.782
8.53576, 104, 38.3379, 28.678, 11.6278, 10.3179, 112.432, -53.4384
8.54377, 104, 38.4387, 28.9521, 11.6428, 10.4725, 112.53, -53.0958
8.55179, 104, 38.5377, 29.224, 11.6577, 10.6288, 112.628, -52.7539
8.55979, 104, 38.6342, 29.4934, 11.6719, 10.7864, 112.725, -52.4137
8.56773, 104, 38.728, 29.7583, 11.6852, 10.9447, 112.821, -52.0767
8.57574, 104, 38.8189, 30.0175, 11.698, 11.1025, 112.915, -51.7446
8.5838, 104, 38.9066, 30.2701, 11.7102, 11.2585, 113.007, -51.4201
8.59173, 104, 38.9909, 30.5135, 11.7218, 11.4106, 113.096, -51.1069
8.59975, 104, 39.0714, 30.7459, 11.7326, 11.5568, 113.18, -50.8084
8.60779, 104, 39.1476, 30.9673, 11.7429, 11.696, 113.259, -50.5272
8.61573, 104, 39.2194, 31.1757, 11.7528, 11.8261, 113.332, -50.2666
8.6238, 104, 39.2859, 31.3682, 11.7622, 11.9464, 113.398, -50.0282
8.63178, 104, 39.3469, 31.5439, 11.7709, 12.0559, 113.458, -49.8131
8.63978, 104, 39.4019, 31.7015, 11.7787, 12.1538, 113.511, -49.6221
8.64775, 104, 39.4502, 31.8401, 11.7856, 12.24, 113.557, -49.4553
8.6558, 104, 39.492, 31.9602, 11.7916, 12.3137, 113.596, -49.3127
8.66379, 104, 39.5269, 32.0628, 11.7967, 12.3758, 113.629, -49.1937
8.6718, 104, 39.5551, 32.1488, 11.8012, 12.4255, 113.656, -49.0974
8.67988, 104, 39.5779, 32.2196, 11.8053, 12.4642, 113.676, -49.0219
8.68783, 104, 39.5953, 32.277, 11.8092, 12.4936, 113.691, -48.9661
8.69587, 104, 39.6083, 32.3229, 11.8128, 12.5148, 113.701, -48.9263
8.70389, 104, 39.6176, 32.3582, 11.8159, 12.5293, 113.708, -48.8996
8.71185, 104, 39.6241, 32.3844, 11.8186, 12.5387, 113.712, -48.8828
8.7199, 104, 39.6289, 32.4036, 11.8209, 12.5441, 113.714, -48.873
8.72779, 104, 39.6326, 32.417, 11.8226, 12.547, 113.715, -48.8679
8.73577, 104, 39.6345, 32.4256, 11.8241, 12.5485, 113.716, -48.8656
8.74401, 105, 39.6353, 32.4308, 11.8251, 12.5492, 113.716, -48.8645
8.75185, 105, 39.6356, 32.4341, 11.8259, 12.5496, 113.716, -48.8642
8.76019, 105, 39.6356, 32.4362, 11.8265, 12.5498, 113.717, -48.8641
8.76677, 105, 39.6356, 32.4369, 11.8267, 12.5498, 113.716, -48.8642
8.77604, 105, 39.6355, 32.4384, 11.8274, 12.5498, 113.716, -48.8645
8.78278, 105, 39.6355, 32.4388, 11.8276, 12.5499, 113.716, -48.8646
8.79254, 105, 39.6357, 32.4398, 11.8283, 12.5499, 113.716, -48.8651
8.80022, 105, 39.6359, 32.4403, 11.8287, 12.55, 113.716, -48.8654
8.80866, 105, 39.6361, 32.4408, 11.8291, 12.5499, 113.716, -48.8656
8.81634, 105, 39.6362, 32.4414, 11.8294, 12.5499, 113.716, -48.8658
8.8243, 105, 39.6365, 32.4419, 11.8297, 12.5499, 113.716, -48.8661
8.83257, 105, 39.6367, 32.4425, 11.8301, 12.5498, 113.716, -48.8664
8.84104, 105, 39.6367, 32.443, 11.8304, 12.5498, 113.716, -48.8667
8.84673, 105, 39.6367, 32.4432, 11.8306, 12.5498, 113.716, -48.8668
8.85688, 105, 39.6367, 32.4435, 11.831, 12.5498, 113.716, -48.8671
8.86374, 105, 39.6367, 32.4436, 11.831, 12.5498, 113.716, -48.8672
