hehonglu123/Motion-Primitive-Planning/realrobot/recorded_data/repeatibility/from_NX/v800_iteration2.csv
timestamp, cmd_num, J1, J2, J3, J4, J5, J6
0.000371, -1, 39.6332, 32.4436, 11.8321, 12.5484, 113.716, -48.8695
0.007525, -1, 39.6332, 32.4436, 11.8321, 12.5484, 113.716, -48.8696
0.010183, -1, 39.6332, 32.4436, 11.8321, 12.5484, 113.716, -48.8696
0.032739, -1, 39.6332, 32.4436, 11.8321, 12.5483, 113.716, -48.8695
0.034743, -1, 39.6332, 32.4436, 11.8321, 12.5483, 113.716, -48.8695
0.038706, -1, 39.6332, 32.4436, 11.8321, 12.5484, 113.716, -48.8694
0.039992, -1, 39.6332, 32.4436, 11.8321, 12.5484, 113.716, -48.8694
0.048224, -1, 39.6332, 32.4437, 11.8321, 12.5484, 113.716, -48.8695
0.057035, -1, 39.6331, 32.4436, 11.8321, 12.5484, 113.716, -48.8694
0.201675, -1, 38.3433, 31.7863, 12.0859, 12.5586, 113.044, -50.5872
0.203792, -1, 38.2563, 31.7408, 12.1054, 12.5598, 112.994, -50.7123
0.205048, -1, 38.2563, 31.7408, 12.1054, 12.5598, 112.994, -50.7123
0.206829, -1, 38.2563, 31.7408, 12.1054, 12.5598, 112.994, -50.7123
0.208253, -1, 38.1678, 31.6945, 12.125, 12.5609, 112.945, -50.8386
0.209512, -1, 38.1678, 31.6945, 12.125, 12.5609, 112.945, -50.8386
0.211307, -1, 38.0779, 31.6477, 12.1445, 12.5621, 112.894, -50.9657
0.214237, -1, 38.0779, 31.6477, 12.1445, 12.5621, 112.894, -50.9657
0.217081, -1, 37.9868, 31.6002, 12.1639, 12.5633, 112.844, -51.0938
0.218362, -1, 37.9868, 31.6002, 12.1639, 12.5633, 112.844, -51.0938
0.220421, -1, 37.8944, 31.5524, 12.1833, 12.5645, 112.793, -51.2225
0.221686, -1, 37.8944, 31.5524, 12.1833, 12.5645, 112.793, -51.2225
0.223713, -1, 37.8011, 31.5041, 12.2028, 12.5657, 112.742, -51.3517
0.226287, -1, 37.8011, 31.5041, 12.2028, 12.5657, 112.742, -51.3517
0.228354, -1, 37.7069, 31.4555, 12.2222, 12.5668, 112.691, -51.4811
0.229871, -1, 37.7069, 31.4555, 12.2222, 12.5668, 112.691, -51.4811
0.231941, -1, 37.612, 31.4068, 12.2416, 12.5681, 112.64, -51.6107
0.23316, -1, 37.612, 31.4068, 12.2416, 12.5681, 112.64, -51.6107
0.234411, -1, 37.612, 31.4068, 12.2416, 12.5681, 112.64, -51.6107
0.236372, -1, 37.5167, 31.3579, 12.2609, 12.5693, 112.588, -51.7404
0.237691, -1, 37.5167, 31.3579, 12.2609, 12.5693, 112.588, -51.7404
0.240368, -1, 37.421, 31.309, 12.2803, 12.5706, 112.537, -51.8701
0.243915, -1, 37.325, 31.26, 12.2997, 12.5718, 112.486, -51.9999
0.248191, -1, 37.229, 31.2111, 12.3191, 12.573, 112.434, -52.1297
0.256189, -1, 37.0368, 31.1133, 12.3579, 12.5755, 112.331, -52.3897
0.264495, -1, 36.8447, 31.0156, 12.3966, 12.5781, 112.228, -52.6498
0.271672, -1, 36.6529, 30.9179, 12.4355, 12.5806, 112.125, -52.9102
0.279797, -1, 36.4613, 30.8203, 12.4743, 12.5832, 112.022, -53.1704
0.288514, -1, 36.2697, 30.7225, 12.5131, 12.5859, 111.919, -53.4308
0.295755, -1, 36.0782, 30.6247, 12.552, 12.5885, 111.817, -53.6913
0.30436, -1, 35.8867, 30.5267, 12.5909, 12.5911, 111.714, -53.9521
0.312606, -1, 35.7909, 30.4777, 12.6104, 12.5924, 111.611, -54.2124
0.319713, -1, 35.5992, 30.3797, 12.6492, 12.5949, 111.559, -54.3425
0.328914, -1, 35.311, 30.2323, 12.7074, 12.599, 111.404, -54.733
0.336283, -1, 35.1185, 30.134, 12.7463, 12.6015, 111.301, -54.9937
0.343181, -1, 35.0223, 30.0848, 12.7658, 12.6028, 111.25, -55.1241
0.353058, -1, 34.7339, 29.9371, 12.824, 12.6067, 111.095, -55.5151
0.359225, -1, 34.6378, 29.8879, 12.8434, 12.608, 111.043, -55.6455
0.368409, -1, 34.3494, 29.7403, 12.9019, 12.6119, 110.889, -56.0367
0.375225, -1, 34.2533, 29.6911, 12.9213, 12.6132, 110.837, -56.1673
0.38318, -1, 34.0613, 29.5928, 12.9602, 12.6158, 110.734, -56.428
0.392656, -1, 33.7738, 29.4453, 13.0186, 12.6199, 110.58, -56.8192
0.399238, -1, 33.6779, 29.3962, 13.038, 12.6212, 110.528, -56.9498
0.407179, -1, 33.4858, 29.2978, 13.0769, 12.6239, 110.425, -57.2108
0.416725, -1, 33.1972, 29.1502, 13.1354, 12.6278, 110.27, -57.6022
0.425518, -1, 33.0045, 29.0516, 13.1741, 12.6305, 110.167, -57.8633
0.431174, -1, 32.908, 29.0023, 13.1936, 12.6318, 110.116, -57.9937
0.440721, -1, 32.7149, 28.9038, 13.2326, 12.6345, 110.013, -58.3858
0.44728, -1, 32.5214, 28.8051, 13.2714, 12.6372, 109.91, -58.5164
0.456816, -1, 32.3276, 28.7064, 13.3102, 12.6399, 109.807, -58.7773
0.464247, -1, 32.1336, 28.6077, 13.3492, 12.6425, 109.704, -59.0383
0.471279, -1, 31.9396, 28.5089, 13.388, 12.6452, 109.6, -59.2996
0.47919, -1, 31.7458, 28.4101, 13.427, 12.6479, 109.497, -59.5611
0.487178, -1, 31.5522, 28.3113, 13.466, 12.6508, 109.394, -59.8223
0.495176, -1, 31.3589, 28.2127, 13.5049, 12.6536, 109.291, -60.0836
0.503178, -1, 31.1661, 28.1142, 13.544, 12.6565, 109.188, -60.3449
0.511237, -1, 30.9737, 28.0156, 13.583, 12.6593, 109.085, -60.6064
0.519278, -1, 30.7815, 27.9171, 13.6219, 12.6622, 108.982, -60.8678
0.527178, -1, 30.5895, 27.8186, 13.661, 12.6651, 108.879, -61.1291
0.53524, -1, 30.3975, 27.7199, 13.7, 12.6679, 108.775, -61.3906
0.543176, -1, 30.2054, 27.6212, 13.7389, 12.6705, 108.672, -61.6521
0.551176, -1, 30.0131, 27.5225, 13.778, 12.6733, 108.569, -61.9138
0.559255, -1, 29.8203, 27.4238, 13.8169, 12.6761, 108.466, -62.1753
0.567171, -1, 29.627, 27.325, 13.8558, 12.6786, 108.362, -62.437
0.575175, -1, 29.4331, 27.2262, 13.8947, 12.6812, 108.259, -62.6988
0.583245, -1, 29.239, 27.1274, 13.9337, 12.6838, 108.156, -62.9606
0.591173, -1, 29.0447, 27.0285, 13.9726, 12.6863, 108.052, -63.2221
0.599257, -1, 28.8502, 26.9295, 14.0116, 12.6888, 107.949, -63.4835
0.607187, -1, 28.6561, 26.8306, 14.0505, 12.6913, 107.845, -63.7452
0.61528, -1, 28.462, 26.7318, 14.0895, 12.6937, 107.742, -64.007
0.623173, -1, 28.2684, 26.6331, 14.1286, 12.6962, 107.639, -64.2686
0.631504, -1, 28.0753, 26.5343, 14.1676, 12.6986, 107.535, -64.5301
0.639248, -1, 27.8824, 26.4355, 14.2066, 12.7009, 107.432, -64.7918
0.647243, -1, 27.6896, 26.3367, 14.2456, 12.7034, 107.329, -65.0538
0.785806, -1, 24.4047, 24.6564, 14.9081, 12.7428, 105.573, -69.5028
0.78766, -1, 24.3086, 24.6069, 14.9276, 12.744, 105.522, -69.6336
0.789099, -1, 24.3086, 24.6069, 14.9276, 12.744, 105.522, -69.6336
0.790282, -1, 24.3086, 24.6069, 14.9276, 12.744, 105.522, -69.6336
0.792339, -1, 24.2124, 24.5575, 14.9471, 12.7452, 105.47, -69.7644
0.793539, -1, 24.2124, 24.5575, 14.9471, 12.7452, 105.47, -69.7644
0.794791, -1, 24.2124, 24.5575, 14.9471, 12.7452, 105.47, -69.7644
0.798225, -1, 24.1161, 24.5081, 14.9665, 12.7464, 105.419, -69.8951
0.801037, -1, 24.0197, 24.4588, 14.986, 12.7475, 105.367, -70.0258
0.802239, -1, 24.0197, 24.4588, 14.986, 12.7475, 105.367, -70.0258
0.805122, -1, 23.9233, 24.4094, 15.0055, 12.7487, 105.315, -70.1567
0.806452, -1, 23.9233, 24.4094, 15.0055, 12.7487, 105.315, -70.1567
0.808458, -1, 23.8269, 24.36, 15.025, 12.7499, 105.263, -70.2876
0.809729, -1, 23.8269, 24.36, 15.025, 12.7499, 105.263, -70.2876
0.81093, -1, 23.8269, 24.36, 15.025, 12.7499, 105.263, -70.2876
0.813165, -1, 23.7304, 24.3105, 15.0444, 12.7511, 105.212, -70.4184
0.814357, -1, 23.7304, 24.3105, 15.0444, 12.7511, 105.212, -70.4184
0.816417, -1, 23.6339, 24.2611, 15.0639, 12.7523, 105.16, -70.5493
0.817616, -1, 23.6339, 24.2611, 15.0639, 12.7523, 105.16, -70.5493
0.818883, -1, 23.6339, 24.2611, 15.0639, 12.7523, 105.16, -70.5493
0.8208, -1, 23.5374, 24.2117, 15.0834, 12.7535, 105.108, -70.6802
0.82511, -1, 23.4407, 24.1623, 15.1029, 12.7547, 105.057, -70.811
0.831192, -1, 23.3439, 24.1129, 15.1223, 12.7559, 105.005, -70.9419
0.840199, -1, 23.053, 23.9644, 15.1806, 12.7596, 104.85, -71.3345
0.847148, -1, 22.956, 23.915, 15.2001, 12.7608, 104.798, -71.4655
0.8552, -1, 22.762, 23.8162, 15.239, 12.7633, 104.695, -71.7274
0.864398, -1, 22.4713, 23.6681, 15.2975, 12.767, 104.54, -72.1197
0.871146, -1, 22.3745, 23.6188, 15.317, 12.7682, 104.488, -72.2503
0.880717, -1, 22.0845, 23.4708, 15.3753, 12.7721, 104.333, -72.6426
0.888559, -1, 21.8915, 23.3721, 15.4143, 12.7747, 104.23, -72.9042
0.895231, -1, 21.7952, 23.3228, 15.4339, 12.7761, 104.178, -73.035
0.903159, -1, 21.6031, 23.224, 15.4728, 12.7788, 104.075, -73.2962
0.91271, -1, 21.3147, 23.0759, 15.5312, 12.7828, 103.92, -73.6884
0.921464, -1, 21.1224, 22.9774, 15.5702, 12.7855, 103.817, -73.95
0.927187, -1, 21.0262, 22.9281, 15.5896, 12.7869, 103.765, -74.0807
0.936748, -1, 20.8337, 22.8295, 15.648, 12.7909, 103.611, -74.4723
0.945645, -1, 20.5448, 22.6816, 15.6869, 12.7936, 103.508, -74.7337
0.951208, -1, 20.4483, 22.6323, 15.7063, 12.795, 103.456, -74.8644
0.960192, -1, 20.2548, 22.5336, 15.7452, 12.7977, 103.353, -75.1258
0.9682, -1, 20.061, 22.4348, 15.7842, 12.8004, 103.25, -75.3869
0.975208, -1, 19.8674, 22.3361, 15.8229, 12.8032, 103.147, -75.648
0.983253, -1, 19.6738, 22.2375, 15.8617, 12.8058, 103.044, -75.9092
0.991144, -1, 19.4802, 22.1389, 15.9007, 12.8086, 102.941, -76.1705
0.999171, -1, 19.2869, 22.0402, 15.9395, 12.8113, 102.838, -76.4315
1.00725, -1, 19.094, 21.9415, 15.9784, 12.814, 102.735, -76.6924
1.01514, -1, 18.9014, 21.843, 16.0173, 12.8167, 102.632, -76.9533
1.02321, -1, 18.7091, 21.7442, 16.056, 12.8194, 102.529, -77.2143
1.03123, -1, 18.5172, 21.6456, 16.0949, 12.8221, 102.426, -77.4752
1.03914, -1, 18.3255, 21.547, 16.1338, 12.8248, 102.323, -77.7358
1.04718, -1, 18.1336, 21.4485, 16.1726, 12.8273, 102.22, -77.9966
1.05529, -1, 17.9417, 21.3501, 16.2115, 12.8298, 102.117, -78.2575
1.06314, -1, 17.7498, 21.2518, 16.2504, 12.8323, 102.014, -78.5182
1.07116, -1, 17.5576, 21.1535, 16.2892, 12.8347, 101.912, -78.7787
1.07924, -1, 17.3649, 21.0552, 16.3281, 12.8371, 101.809, -79.0391
1.08717, -1, 17.1719, 20.9568, 16.3669, 12.8395, 101.706, -79.2997
1.09515, -1, 16.9789, 20.8586, 16.4056, 12.8419, 101.603, -79.5604
1.10323, -1, 16.7858, 20.7603, 16.4445, 12.8442, 101.5, -79.8208
1.11115, -1, 16.5927, 20.6621, 16.4832, 12.8465, 101.397, -80.0813
1.1193, -1, 16.3996, 20.5638, 16.5219, 12.8488, 101.295, -80.3419
1.1272, -1, 16.207, 20.4655, 16.5606, 12.8511, 101.192, -80.6025
1.13515, -1, 16.015, 20.3672, 16.5994, 12.8534, 101.089, -80.8629
1.14412, -1, 15.8232, 20.2687, 16.6381, 12.8557, 100.987, -81.1229
1.15223, -1, 15.6316, 20.1702, 16.6768, 12.858, 100.884, -81.383
1.15925, -1, 15.4404, 20.0719, 16.7154, 12.8604, 100.781, -81.6431
1.16805, -1, 15.2493, 19.9737, 16.7542, 12.8627, 100.679, -81.9031
1.17622, -1, 15.0582, 19.8754, 16.793, 12.8649, 100.576, -82.1629
1.18326, -1, 14.867, 19.7773, 16.8317, 12.8672, 100.474, -82.4227
1.19209, -1, 14.6756, 19.6792, 16.8704, 12.8695, 100.371, -82.6826
1.20023, -1, 14.4839, 19.581, 16.9091, 12.8718, 100.268, -82.9426
1.2072, -1, 14.2919, 19.4829, 16.9478, 12.8741, 100.166, -83.2022
1.21608, -1, 14.0996, 19.3849, 16.9866, 12.8763, 100.063, -83.4618
1.22431, -1, 13.9072, 19.2869, 17.0252, 12.8786, 99.9607, -83.7214
1.23126, -1, 13.7146, 19.1892, 17.0637, 12.8809, 99.8584, -83.9811
1.24035, -1, 13.5221, 19.0913, 17.1025, 12.8832, 99.7556, -84.2404
1.24818, -1, 13.3299, 18.9934, 17.1411, 12.8856, 99.6532, -84.4997
1.25555, -1, 13.1382, 18.8956, 17.1796, 12.8879, 99.5511, -84.759
1.26352, -1, 12.9468, 18.7977, 17.2183, 12.8902, 99.4485, -85.0184
1.2722, -1, 12.7556, 18.6997, 17.2569, 12.8925, 99.3462, -85.2776
1.27971, -1, 12.5648, 18.6019, 17.2954, 12.895, 99.2442, -85.5364
1.28944, -1, 12.3744, 18.5041, 17.334, 12.8974, 99.1418, -85.7953
1.29648, -1, 12.1844, 18.4063, 17.3725, 12.8999, 99.0396, -86.0543
1.3037, -1, 11.9942, 18.3087, 17.411, 12.9023, 98.9375, -86.3129
1.31227, -1, 11.8037, 18.2111, 17.4497, 12.9047, 98.8354, -86.5716
1.3197, -1, 11.7084, 18.1623, 17.4689, 12.906, 98.7844, -86.8301
1.32817, -1, 11.4222, 18.0158, 17.5267, 12.9096, 98.6316, -87.0888
1.33522, -1, 11.3267, 17.967, 17.546, 12.9108, 98.5806, -87.2182
1.3443, -1, 11.0396, 17.8207, 17.6038, 12.9145, 98.4279, -87.6058
1.35113, -1, 10.9438, 17.7719, 17.623, 12.9158, 98.377, -87.735
1.3604, -1, 10.6562, 17.6257, 17.6807, 12.9195, 98.224, -88.1225
1.36714, -1, 10.5604, 17.577, 17.6998, 12.9208, 98.1731, -88.2517
1.37644, -1, 10.2736, 17.4308, 17.7575, 12.9246, 98.0203, -88.639
1.38314, -1, 10.1781, 17.382, 17.7767, 12.9258, 97.9693, -88.768
1.39256, -1, 9.89227, 17.2356, 17.8342, 12.9298, 97.8166, -89.1551
1.39932, -1, 9.79714, 17.1869, 17.8534, 12.9311, 97.7655, -89.2842
1.40874, -1, 9.51252, 17.0408, 17.9109, 12.9352, 97.6126, -89.6714
1.41669, -1, 9.32329, 16.9435, 17.9492, 12.9379, 97.5109, -89.929
1.42466, -1, 9.13404, 16.8461, 17.9876, 12.9406, 97.409, -90.1865
1.43279, -1, 8.94471, 16.749, 18.0259, 12.9433, 97.3071, -90.4441
1.44073, -1, 8.84995, 16.7004, 18.0451, 12.9459, 97.2054, -90.7016
1.44865, -1, 8.66037, 16.6032, 18.0835, 12.9472, 97.1545, -90.8303
1.45687, -1, 8.47076, 16.506, 18.1219, 12.9499, 97.0528, -91.0874
1.46417, -1, 8.28078, 16.409, 18.1602, 12.9526, 96.9515, -91.3446
1.47215, -1, 8.09026, 16.3121, 18.1986, 12.9552, 96.8497, -91.6017
1.48018, -1, 7.89967, 16.2152, 18.2369, 12.9578, 96.7482, -91.8589
1.48813, -1, 7.70913, 16.1184, 18.2751, 12.9605, 96.647, -92.1157
1.49613, -1, 7.51862, 16.0214, 18.3134, 12.9629, 96.5454, -92.3724
1.50414, -1, 7.32829, 15.9245, 18.3517, 12.9655, 96.4441, -92.6293
1.51214, -1, 7.13826, 15.8276, 18.3898, 12.9681, 96.3428, -92.8861
1.5202, -1, 6.94859, 15.7306, 18.4281, 12.9706, 96.2414, -93.1427
1.52814, -1, 6.75941, 15.6337, 18.4664, 12.9731, 96.1404, -93.399
1.53764, -1, 6.47665, 15.4885, 18.5234, 12.9769, 95.989, -93.7835
1.5442, -1, 6.38254, 15.4401, 18.5425, 12.9781, 95.9385, -93.9117
1.55214, -1, 6.19441, 15.3434, 18.5807, 12.9805, 95.8377, -94.1679
1.56017, -1, 6.00627, 15.2468, 18.6188, 12.9829, 95.7368, -94.4237
1.5682, -1, 5.81788, 15.1501, 18.657, 12.9852, 95.6359, -94.6797
1.57613, -1, 5.62952, 15.0534, 18.6952, 12.9875, 95.5351, -94.9356
1.58417, -1, 5.44087, 14.9568, 18.7332, 12.9898, 95.4343, -95.1915
1.59112, -1, 5.25188, 14.8603, 18.7714, 12.992, 95.3334, -95.4469
1.59917, -1, 5.06251, 14.764, 18.8095, 12.9943, 95.2328, -95.7025
1.6072, -1, 4.87307, 14.6676, 18.8475, 12.9965, 95.132, -95.9579
1.61513, -1, 4.68371, 14.5713, 18.8856, 12.9987, 95.0312, -96.2133
1.62322, -1, 4.4943, 14.475, 18.9237, 13.0009, 94.9306, -96.4684
1.63115, -1, 4.30518, 14.3786, 18.9617, 13.0031, 94.8298, -96.7234
1.6392, -1, 4.11631, 14.2822, 18.9997, 13.0053, 94.7289, -96.9784
1.64765, -1, 3.92799, 14.1859, 19.0376, 13.0077, 94.6282, -97.2335
1.65615, -1, 3.74027, 14.0897, 19.0756, 13.0098, 94.5273, -97.4884
1.66328, -1, 3.55289, 13.9935, 19.1135, 13.0122, 94.4265, -97.743
1.67127, -1, 3.36597, 13.8975, 19.1514, 13.0145, 94.3261, -97.9977
1.67925, -1, 3.17905, 13.8014, 19.1892, 13.0168, 94.2252, -98.2524
1.68735, -1, 2.99204, 13.7053, 19.2271, 13.019, 94.1245, -98.5071
1.6953, -1, 2.80506, 13.6093, 19.265, 13.0214, 94.0241, -98.7613
1.70313, -1, 2.61789, 13.5133, 19.3029, 13.0236, 93.9234, -99.0154
1.71139, -1, 2.43045, 13.4174, 19.3408, 13.0259, 93.823, -99.2695
1.71923, -1, 2.24285, 13.3216, 19.3785, 13.0282, 93.7228, -99.5235
1.72727, -1, 2.05479, 13.2258, 19.4164, 13.0304, 93.6224, -99.7773
1.73529, -1, 1.86668, 13.13, 19.4543, 13.0326, 93.5222, -100.031
1.74368, -1, 1.67846, 13.0342, 19.492, 13.035, 93.4223, -100.284
1.75219, -1, 1.49007, 12.9384, 19.5298, 13.0371, 93.3221, -100.538
1.75943, -1, 1.30206, 12.8426, 19.5676, 13.0395, 93.2221, -100.792
1.76782, -1, 1.11439, 12.7468, 19.6053, 13.0418, 93.1222, -101.045
1.77631, -1, 0.927429, 12.6512, 19.6431, 13.0442, 93.0222, -101.298
1.78364, -1, 0.740918, 12.5556, 19.6808, 13.0466, 92.9224, -101.551
1.79223, -1, 0.554722, 12.46, 19.7183, 13.049, 92.8226, -101.804
1.79967, -1, 0.369004, 12.3647, 19.756, 13.0515, 92.7228, -102.057
1.8083, -1, 0.183474, 12.2693, 19.7937, 13.054, 92.6233, -102.309
1.81586, -1, -0.00193191, 12.1739, 19.8312, 13.0564, 92.5237, -102.562
1.82431, -1, -0.187356, 12.0787, 19.8688, 13.0589, 92.4242, -102.815
1.83111, -1, -0.280201, 12.0311, 19.8877, 13.0601, 92.3744, -102.941
1.84036, -1, -0.559204, 11.8884, 19.944, 13.0638, 92.2254, -103.319
1.84712, -1, -0.652333, 11.8409, 19.9627, 13.065, 92.1757, -103.445
1.85619, -1, -0.932017, 11.6984, 20.0191, 13.0688, 92.0266, -103.823
1.86323, -1, -1.02538, 11.6509, 20.0378, 13.07, 91.9769, -103.949
1.87242, -1, -1.3058, 11.5083, 20.094, 13.0738, 91.8277, -104.327
1.87912, -1, -1.39927, 11.4608, 20.1128, 13.0751, 91.7781, -104.452
1.88892, -1, -1.67936, 11.3181, 20.1689, 13.0789, 91.6294, -104.83
1.89658, -1, -1.86559, 11.2231, 20.2064, 13.0815, 91.5301, -105.081
1.90461, -1, -2.05132, 11.1281, 20.2438, 13.0842, 91.4311, -105.332
1.91277, -1, -2.23648, 11.0332, 20.2812, 13.0868, 91.3319, -105.583
1.9207, -1, -2.42133, 10.9383, 20.3186, 13.0895, 91.2327, -105.834
1.92867, -1, -2.60568, 10.8436, 20.3559, 13.0921, 91.1338, -106.085
1.93695, -1, -2.78953, 10.7488, 20.3931, 13.0948, 91.0346, -106.336
1.94475, -1, -2.88143, 10.7015, 20.4305, 13.0974, 90.9355, -106.587
1.95212, -1, -3.0654, 10.6067, 20.4492, 13.0987, 90.8861, -106.712
1.96096, -1, -3.24959, 10.5121, 20.505, 13.1025, 90.7377, -107.088
1.96711, -1, -3.43406, 10.4175, 20.5237, 13.1038, 90.6883, -107.213
1.97519, -1, -3.61881, 10.3231, 20.561, 13.1063, 90.5895, -107.464
1.98315, -1, -3.80367, 10.2288, 20.5982, 13.1088, 90.4907, -107.714
1.99112, -1, -3.98888, 10.1345, 20.6355, 13.1112, 90.392, -107.964
1.99919, -1, -4.17435, 10.0403, 20.6727, 13.1136, 90.2933, -108.214
2.00712, -1, -4.36008, 9.94597, 20.7098, 13.1159, 90.1947, -108.464
2.01535, -1, -4.54556, 9.85163, 20.7471, 13.1182, 90.096, -108.713
2.0231, -1, -4.7307, 9.7574, 20.7844, 13.1206, 89.9975, -108.963
2.03115, -1, -4.91545, 9.66322, 20.8214, 13.123, 89.899, -109.212
2.03998, -1, -5.09958, 9.56919, 20.8585, 13.1253, 89.8005, -109.461
2.04711, -1, -5.28311, 9.4751, 20.8957, 13.1276, 89.7023, -109.711
2.05513, -1, -5.46624, 9.38116, 20.9327, 13.13, 89.6039, -109.96
2.06396, -1, -5.64887, 9.28724, 20.9698, 13.1322, 89.5057, -110.208
2.07218, -1, -5.83126, 9.19328, 21.0069, 13.1345, 89.4076, -110.457
2.08012, -1, -6.01363, 9.09939, 21.0438, 13.1368, 89.3094, -110.706
2.08816, -1, -6.19623, 9.00556, 21.0809, 13.139, 89.2111, -110.954
2.09511, -1, -6.37908, 8.91189, 21.118, 13.1412, 89.1134, -111.203
2.10312, -1, -6.56204, 8.81828, 21.1548, 13.1433, 89.0154, -111.451
2.1119, -1, -6.74534, 8.72465, 21.1917, 13.1455, 88.9174, -111.699
2.12019, -1, -6.92911, 8.63111, 21.2286, 13.1476, 88.8197, -111.947
2.12723, -1, -7.11311, 8.53757, 21.2655, 13.1497, 88.7218, -112.195
2.13603, -1, -7.29744, 8.44399, 21.3024, 13.1518, 88.624, -112.442
2.14411, -1, -7.48142, 8.35034, 21.3393, 13.1539, 88.5263, -112.69
2.15144, -1, -7.66518, 8.25685, 21.376, 13.1561, 88.4287, -112.938
2.16, -1, -7.84851, 8.16342, 21.4129, 13.1583, 88.3311, -113.185
2.16812, -1, -8.03137, 8.06998, 21.4498, 13.1606, 88.2338, -113.432
2.17554, -1, -8.21361, 7.97667, 21.4865, 13.1627, 88.1364, -113.679
2.18402, -1, -8.39516, 7.88344, 21.5232, 13.165, 88.039, -113.926
2.19211, -1, -8.57631, 7.79019, 21.5601, 13.1673, 87.9417, -114.173
2.19975, -1, -8.75723, 7.69701, 21.5969, 13.1696, 87.8443, -114.419
2.20819, -1, -8.93797, 7.6039, 21.6336, 13.1718, 87.7467, -114.666
2.21514, -1, -9.11891, 7.51084, 21.6704, 13.174, 87.6496, -114.912
2.22391, -1, -9.30001, 7.41797, 21.707, 13.1763, 87.5524, -115.159
2.23222, -1, -9.48142, 7.32518, 21.7437, 13.1785, 87.4551, -115.405
2.23925, -1, -9.6632, 7.23235, 21.7804, 13.1807, 87.3582, -115.651
2.24814, -1, -9.84538, 7.13964, 21.817, 13.183, 87.2609, -115.897
2.25625, -1, -10.0279, 7.04693, 21.8535, 13.1851, 87.1637, -116.143
2.26348, -1, -10.2104, 6.95417, 21.8901, 13.1874, 87.0667, -116.389
2.27239, -1, -10.393, 6.8614, 21.9267, 13.1896, 86.9694, -116.635
2.27955, -1, -10.5755, 6.76869, 21.9633, 13.1918, 86.8724, -116.88
2.2877, -1, -10.7575, 6.67604, 21.9998, 13.1941, 86.7754, -117.126
2.29654, -1, -10.9392, 6.58343, 22.0362, 13.1965, 86.6784, -117.371
2.30366, -1, -11.1201, 6.49089, 22.0727, 13.199, 86.5815, -117.616
2.31171, -1, -11.3001, 6.39843, 22.1093, 13.2014, 86.485, -117.861
2.3207, -1, -11.4799, 6.30595, 22.1457, 13.2039, 86.3881, -118.105
2.32766, -1, -11.5697, 6.25976, 22.1639, 13.205, 86.3398, -118.228
2.33514, -1, -11.749, 6.16734, 22.2004, 13.2075, 86.2432, -118.473
2.34489, -1, -12.018, 6.02892, 22.2551, 13.2112, 86.0983, -118.839
2.35309, -1, -12.1973, 5.9368, 22.2915, 13.2137, 86.0018, -119.084
2.35916, -1, -12.287, 5.8908, 22.3098, 13.2149, 85.9537, -119.206
2.36894, -1, -12.557, 5.75275, 22.3642, 13.2187, 85.8091, -119.572
2.37634, -1, -12.7374, 5.6608, 22.4005, 13.2211, 85.7128, -119.816
2.38315, -1, -12.8278, 5.61484, 22.4187, 13.2223, 85.6648, -119.938
2.39335, -1, -13.0993, 5.47694, 22.4731, 13.226, 85.5208, -120.303
2.39914, -1, -13.1899, 5.43093, 22.4912, 13.2272, 85.473, -120.425
2.4071, -1, -13.371, 5.33893, 22.5275, 13.2296, 85.377, -120.669
2.41662, -1, -13.6422, 5.20107, 22.5819, 13.2334, 85.2335, -121.033
2.42467, -1, -13.8226, 5.10921, 22.6179, 13.236, 85.1377, -121.276
2.43273, -1, -14.0022, 5.01741, 22.6541, 13.2386, 85.0421, -121.519
2.44068, -1, -14.0915, 4.92573, 22.6903, 13.2411, 84.9465, -121.762
2.44872, -1, -14.27, 4.87989, 22.7083, 13.2437, 84.8508, -122.005
2.45672, -1, -14.4482, 4.78829, 22.7445, 13.2449, 84.803, -122.247
2.4641, -1, -14.6259, 4.69667, 22.7807, 13.2475, 84.7075, -122.368
2.47214, -1, -14.8036, 4.60516, 22.8168, 13.2499, 84.6117, -122.611
2.48015, -1, -14.9812, 4.51372, 22.8529, 13.2524, 84.516, -122.853
2.48812, -1, -15.159, 4.42239, 22.8891, 13.2548, 84.4205, -123.096
2.4961, -1, -15.3372, 4.3311, 22.9251, 13.2572, 84.3248, -123.337
2.50411, -1, -15.5158, 4.23984, 22.9611, 13.2596, 84.2291, -123.579
2.5121, -1, -15.6949, 4.14858, 22.9972, 13.2618, 84.1337, -123.821
2.52015, -1, -15.8741, 4.05738, 23.0331, 13.264, 84.0381, -124.063
2.52811, -1, -16.0535, 3.96614, 23.0691, 13.2663, 83.9426, -124.304
2.53609, -1, -16.2332, 3.87486, 23.1052, 13.2684, 83.8473, -124.546
2.54313, -1, -16.4129, 3.78365, 23.1411, 13.2705, 83.7517, -124.787
2.55109, -1, -16.5921, 3.69247, 23.1769, 13.2727, 83.6563, -125.029
2.5601, -1, -16.7709, 3.60134, 23.2127, 13.2749, 83.5611, -125.27
2.56709, -1, -16.949, 3.51034, 23.2486, 13.2772, 83.4656, -125.511
2.5751, -1, -17.1261, 3.41937, 23.2844, 13.2794, 83.3703, -125.751
2.5841, -1, -17.3028, 3.32844, 23.3203, 13.2816, 83.2753, -125.992
2.5922, -1, -17.4792, 3.23761, 23.356, 13.2837, 83.18, -126.233
2.6001, -1, -17.6554, 3.14685, 23.3918, 13.2858, 83.085, -126.473
2.60721, -1, -17.8314, 3.05625, 23.4278, 13.2879, 82.9903, -126.713
2.61509, -1, -18.0075, 2.96567, 23.4636, 13.29, 82.8952, -126.953
2.62312, -1, -18.1838, 2.87529, 23.4993, 13.2922, 82.8004, -127.194
2.63121, -1, -18.3605, 2.78487, 23.5351, 13.2943, 82.7059, -127.434
2.63909, -1, -18.5377, 2.69448, 23.5708, 13.2964, 82.6113, -127.673
2.64732, -1, -18.7152, 2.60414, 23.6064, 13.2984, 82.5167, -127.913
2.65518, -1, -18.893, 2.51375, 23.6422, 13.3004, 82.4223, -128.152
2.66321, -1, -19.0712, 2.42327, 23.6779, 13.3024, 82.3277, -128.392
2.67153, -1, -19.2495, 2.33285, 23.7134, 13.3043, 82.2333, -128.631
2.6792, -1, -19.4276, 2.24245, 23.749, 13.3064, 82.1392, -128.87
2.68721, -1, -19.605, 2.15209, 23.7846, 13.3085, 82.0451, -129.109
2.69571, -1, -19.7818, 2.06176, 23.82, 13.3107, 81.9509, -129.348
2.70416, -1, -19.958, 1.97148, 23.8555, 13.3129, 81.8568, -129.587
2.71124, -1, -20.1335, 1.88128, 23.891, 13.315, 81.7629, -129.826
2.7199, -1, -20.3085, 1.79114, 23.9265, 13.3173, 81.6689, -130.064
2.72817, -1, -20.4832, 1.70102, 23.9619, 13.3195, 81.5748, -130.303
2.73524, -1, -20.6577, 1.61103, 23.9975, 13.3217, 81.4811, -130.541
2.74405, -1, -20.8322, 1.5211, 24.0329, 13.3238, 81.3869, -130.779
2.75216, -1, -21.007, 1.43128, 24.0684, 13.3261, 81.2932, -131.017
2.75953, -1, -21.1821, 1.34153, 24.1039, 13.3282, 81.1995, -131.255
2.76826, -1, -21.3575, 1.25181, 24.1393, 13.3304, 81.1055, -131.492
2.77548, -1, -21.5334, 1.16217, 24.1746, 13.3326, 81.0117, -131.73
2.78368, -1, -21.7095, 1.07255, 24.2101, 13.3348, 80.918, -131.968
2.79219, -1, -21.8857, 0.982855, 24.2455, 13.3369, 80.8242, -132.205
2.79973, -1, -22.0623, 0.893254, 24.2808, 13.3391, 80.7304, -132.442
2.8083, -1, -22.239, 0.803734, 24.3162, 13.3413, 80.637, -132.68
2.8157, -1, -22.4153, 0.714267, 24.3515, 13.3435, 80.5432, -132.917
2.8242, -1, -22.5911, 0.624729, 24.3866, 13.3458, 80.4496, -133.154
2.83108, -1, -22.6789, 0.579993, 24.4042, 13.347, 80.4029, -133.272
2.84013, -1, -22.941, 0.445906, 24.4571, 13.3506, 80.2624, -133.627
2.84713, -1, -23.028, 0.401181, 24.4747, 13.3519, 80.2157, -133.746
2.85659, -1, -23.2883, 0.267183, 24.5273, 13.3555, 80.0756, -134.101
2.86311, -1, -23.3749, 0.222521, 24.5449, 13.3567, 80.0288, -134.219
2.87227, -1, -23.6346, 0.0887213, 24.5977, 13.3603, 79.8888, -134.573
2.87907, -1, -23.7212, 0.0441699, 24.6152, 13.3615, 79.8421, -134.691
2.88844, -1, -23.9812, -0.0893179, 24.668, 13.3652, 79.7023, -135.046
2.89513, -1, -24.068, -0.133808, 24.6855, 13.3664, 79.6557, -135.163
2.9049, -1, -24.3288, -0.267231, 24.7381, 13.3701, 79.5161, -135.517
2.91264, -1, -24.5031, -0.356088, 24.7733, 13.3725, 79.423, -135.753
2.92065, -1, -24.6777, -0.444965, 24.8083, 13.3749, 79.33, -135.988
2.92872, -1, -24.8526, -0.533854, 24.8433, 13.3773, 79.2369, -136.224
2.93667, -1, -25.0278, -0.622703, 24.8785, 13.3797, 79.144, -136.459
2.94467, -1, -25.1153, -0.711527, 24.9135, 13.3821, 79.0511, -136.694
2.95304, -1, -25.2901, -0.75589, 24.9484, 13.3843, 78.9584, -136.929
2.9591, -1, -25.4644, -0.844679, 24.9659, 13.3856, 78.9122, -137.047
2.96809, -1, -25.6384, -0.933458, 25.0009, 13.3881, 78.8193, -137.282
2.97617, -1, -25.8117, -1.0221, 25.0356, 13.3905, 78.7266, -137.516
2.9841, -1, -25.9843, -1.11081, 25.0706, 13.3929, 78.6342, -137.751
2.99208, -1, -26.1565, -1.19949, 25.1056, 13.3954, 78.5416, -137.986
3.00013, -1, -26.3283, -1.28806, 25.1404, 13.3977, 78.4492, -138.22
3.00809, -1, -26.5, -1.37655, 25.1752, 13.4001, 78.3567, -138.455
3.01608, -1, -26.6719, -1.46491, 25.2102, 13.4023, 78.2643, -138.689
3.02414, -1, -26.844, -1.55317, 25.2451, 13.4046, 78.1719, -138.923
3.03209, -1, -27.0164, -1.64132, 25.28, 13.4068, 78.0794, -139.157
3.04009, -1, -27.1888, -1.72951, 25.3149, 13.4089, 77.9874, -139.39
3.04816, -1, -27.3614, -1.81768, 25.3497, 13.4111, 77.8951, -139.624
3.05609, -1, -27.5345, -1.90573, 25.3844, 13.4133, 77.803, -139.857
3.06414, -1, -27.7077, -1.99394, 25.4194, 13.4153, 77.7111, -140.091
3.07211, -1, -27.8811, -2.08203, 25.4543, 13.4174, 77.6189, -140.324
3.08011, -1, -28.0545, -2.17002, 25.489, 13.4194, 77.5269, -140.558
3.08815, -1, -28.2278, -2.25808, 25.5238, 13.4214, 77.4351, -140.791
3.09508, -1, -28.4008, -2.34616, 25.5587, 13.4235, 77.3429, -141.024
3.10386, -1, -28.5735, -2.43416, 25.5934, 13.4256, 77.2508, -141.257
3.11215, -1, -28.7456, -2.52212, 25.6281, 13.4277, 77.159, -141.49
3.11908, -1, -28.917, -2.61016, 25.6628, 13.4299, 77.0669, -141.723
3.1281, -1, -29.0877, -2.69807, 25.6974, 13.4321, 76.9749, -141.956
3.13614, -1, -29.2582, -2.7859, 25.732, 13.4342, 76.8832, -142.188
3.14308, -1, -29.4287, -2.87367, 25.7668, 13.4362, 76.7911, -142.421
3.15199, -1, -29.5995, -2.9613, 25.8015, 13.4383, 76.6994, -142.653
3.16015, -1, -29.7705, -3.04881, 25.836, 13.4403, 76.6076, -142.886
3.16716, -1, -29.9415, -3.1363, 25.8706, 13.4424, 76.5157, -143.118
3.17534, -1, -30.1124, -3.22375, 25.9052, 13.4445, 76.424, -143.35
3.1832, -1, -30.2835, -3.31122, 25.9398, 13.4466, 76.3323, -143.582
3.1912, -1, -30.4549, -3.3986, 25.9744, 13.4487, 76.2409, -143.814
3.19993, -1, -30.6266, -3.48613, 26.0089, 13.4506, 76.1492, -144.045
3.20815, -1, -30.7984, -3.57356, 26.0433, 13.4527, 76.0577, -144.277
3.21508, -1, -30.9702, -3.6609, 26.0779, 13.4547, 75.9665, -144.508
3.22441, -1, -31.142, -3.74827, 26.1125, 13.4567, 75.875, -144.739
3.23115, -1, -31.3136, -3.83559, 26.1469, 13.4588, 75.7836, -144.971
3.23928, -1, -31.4848, -3.92291, 26.1814, 13.4609, 75.6926, -145.202
3.24725, -1, -31.6554, -4.01013, 26.2159, 13.463, 75.6012, -145.433
3.25538, -1, -31.8257, -4.09739, 26.2502, 13.4652, 75.51, -145.664
3.2634, -1, -31.9954, -4.18461, 26.2846, 13.4674, 75.4191, -145.895
3.27142, -1, -32.1648, -4.27171, 26.3191, 13.4697, 75.3278, -146.126
3.27957, -1, -32.3342, -4.35879, 26.3534, 13.4718, 75.2367, -146.357
3.28755, -1, -32.5038, -4.44576, 26.3877, 13.4739, 75.1459, -146.587
3.29697, -1, -32.6734, -4.53262, 26.4222, 13.4761, 75.055, -146.817
3.30418, -1, -32.8431, -4.61949, 26.4565, 13.4782, 74.9642, -147.048
3.31164, -1, -33.0127, -4.70635, 26.4907, 13.4804, 74.8735, -147.278
3.32098, -1, -33.1825, -4.79321, 26.525, 13.4826, 74.7831, -147.508
3.32814, -1, -33.3524, -4.88001, 26.5593, 13.4849, 74.6924, -147.738
3.33506, -1, -33.4375, -4.92346, 26.5764, 13.486, 74.6471, -147.853
3.34505, -1, -33.693, -5.05381, 26.6277, 13.4892, 74.5114, -148.198
3.35212, -1, -33.8632, -5.14057, 26.662, 13.4915, 74.4206, -148.427
3.35908, -1, -33.9484, -5.18392, 26.679, 13.4926, 74.3754, -148.542
3.36979, -1, -34.2038, -5.31407, 26.7302, 13.496, 74.2397, -148.886
3.37632, -1, -34.3739, -5.40072, 26.7645, 13.4983, 74.1489, -149.116
3.38306, -1, -34.4588, -5.44403, 26.7816, 13.4994, 74.1037, -149.23
3.39237, -1, -34.7129, -5.57404, 26.8327, 13.503, 73.968, -149.575
3.39906, -1, -34.7973, -5.61735, 26.8498, 13.5042, 73.9228, -149.689
3.40853, -1, -35.05, -5.74719, 26.901, 13.5079, 73.7869, -150.033
3.41659, -1, -35.2182, -5.83367, 26.935, 13.5104, 73.6966, -150.262
3.42469, -1, -35.3866, -5.92003, 26.9692, 13.5128, 73.6062, -150.491
3.43266, -1, -35.5551, -6.00623, 27.0033, 13.5151, 73.5159, -150.72
3.44063, -1, -35.7236, -6.09246, 27.0372, 13.5174, 73.4254, -150.948
3.44878, -1, -35.8921, -6.1786, 27.0712, 13.5198, 73.3353, -151.177
3.45663, -1, -35.9763, -6.22165, 27.0883, 13.5209, 73.2899, -151.405
3.46407, -1, -36.1449, -6.30777, 27.1224, 13.5234, 73.1996, -151.52
3.47213, -1, -36.3134, -6.39392, 27.1562, 13.5258, 73.1093, -151.748
3.4801, -1, -36.4822, -6.48015, 27.1902, 13.5282, 73.0189, -151.976
3.48807, -1, -36.6511, -6.56633, 27.2242, 13.5305, 72.9286, -152.205
3.49735, -1, -36.9045, -6.69557, 27.275, 13.5339, 72.7934, -152.547
3.50312, -1, -36.9891, -6.73864, 27.2919, 13.535, 72.7484, -152.661
3.51105, -1, -37.158, -6.8248, 27.3259, 13.5372, 72.6582, -152.889
3.51913, -1, -37.3267, -6.91085, 27.3597, 13.5395, 72.5683, -153.117
3.52706, -1, -37.495, -6.99689, 27.3936, 13.5418, 72.4785, -153.344
3.53505, -1, -37.6629, -7.08293, 27.4276, 13.544, 72.3884, -153.572
3.54407, -1, -37.8305, -7.16895, 27.4615, 13.5462, 72.2986, -153.799
3.55221, -1, -37.9981, -7.25489, 27.4953, 13.5485, 72.209, -154.027
3.56006, -1, -38.1656, -7.34076, 27.5292, 13.5507, 72.1192, -154.254
3.56808, -1, -38.3329, -7.42656, 27.5631, 13.5528, 72.0296, -154.481
3.57617, -1, -38.5002, -7.51225, 27.5968, 13.555, 71.9401, -154.708
3.58307, -1, -38.6674, -7.59796, 27.6307, 13.557, 71.8503, -154.936
3.59206, -1, -38.8347, -7.68362, 27.6646, 13.5591, 71.7607, -155.163
3.60016, -1, -39.002, -7.76925, 27.6982, 13.5612, 71.6713, -155.39
3.60807, -1, -39.1695, -7.85484, 27.732, 13.5632, 71.5821, -155.616
3.61512, -1, -39.337, -7.94057, 27.7659, 13.5651, 71.4927, -155.843
3.62307, -1, -39.5045, -8.0262, 27.7996, 13.5671, 71.4033, -156.07
3.63106, -1, -39.6722, -8.11175, 27.8332, 13.569, 71.3143, -156.297
3.64006, -1, -39.8399, -8.19723, 27.8669, 13.571, 71.2248, -156.523
3.64817, -1, -40.0075, -8.28273, 27.9007, 13.5729, 71.1354, -156.749
3.65509, -1, -40.1751, -8.36812, 27.9343, 13.5749, 71.0462, -156.976
3.66406, -1, -40.3424, -8.45346, 27.968, 13.5768, 70.9568, -157.202
3.67212, -1, -40.5095, -8.53886, 28.0018, 13.5788, 70.8675, -157.428
3.6792, -1, -40.6764, -8.62423, 28.0353, 13.5808, 70.7784, -157.654
3.68724, -1, -40.8431, -8.70961, 28.069, 13.5828, 70.6892, -157.88
3.69516, -1, -41.0096, -8.79497, 28.1028, 13.5848, 70.6001, -158.106
3.70317, -1, -41.176, -8.88026, 28.1364, 13.5868, 70.511, -158.332
3.71127, -1, -41.3421, -8.96542, 28.1699, 13.5888, 70.422, -158.558
3.71908, -1, -41.5083, -9.05055, 28.2036, 13.5909, 70.3328, -158.783
3.72737, -1, -41.6745, -9.13567, 28.2373, 13.5928, 70.2435, -159.009
3.73515, -1, -41.8408, -9.2207, 28.2708, 13.5948, 70.1547, -159.234
3.7433, -1, -42.0073, -9.30567, 28.3044, 13.5969, 70.0655, -159.46
3.75138, -1, -42.1737, -9.39072, 28.3381, 13.5989, 69.9764, -159.685
3.75932, -1, -42.34, -9.47581, 28.3716, 13.6009, 69.8877, -159.91
3.76735, -1, -42.5063, -9.56075, 28.4051, 13.6029, 69.7985, -160.135
3.77582, -1, -42.6727, -9.64573, 28.4387, 13.605, 69.7097, -160.36
3.78416, -1, -42.8391, -9.7307, 28.4721, 13.607, 69.6209, -160.586
3.79154, -1, -43.0054, -9.81561, 28.5055, 13.6091, 69.5321, -160.811
3.7997, -1, -43.1717, -9.90055, 28.5391, 13.6112, 69.4433, -161.036
3.80824, -1, -43.3379, -9.98549, 28.5726, 13.6132, 69.3546, -161.26
3.81561, -1, -43.5039, -10.0703, 28.6061, 13.6153, 69.2661, -161.485
3.82417, -1, -43.67, -10.1553, 28.6396, 13.6173, 69.1773, -161.71
3.83166, -1, -43.7529, -10.1978, 28.6564, 13.6184, 69.1331, -161.934
3.84007, -1, -44.0016, -10.325, 28.7064, 13.6216, 69.0004, -162.159
3.84709, -1, -44.0843, -10.3674, 28.7232, 13.6227, 68.956, -162.271
3.85616, -1, -44.3322, -10.4943, 28.7735, 13.6259, 68.823, -162.607
3.86305, -1, -44.4148, -10.5366, 28.7902, 13.6271, 68.7787, -162.72
3.87238, -1, -44.6625, -10.6634, 28.8402, 13.6304, 68.646, -163.056
3.87908, -1, -44.7452, -10.7056, 28.857, 13.6314, 68.6016, -163.168
3.88922, -1, -44.9932, -10.8323, 28.9072, 13.6347, 68.4691, -163.504
3.89513, -1, -45.0758, -10.8745, 28.9239, 13.6358, 68.425, -163.616
3.90455, -1, -45.3237, -11.0013, 28.974, 13.6391, 68.2922, -163.952
3.91104, -1, -45.4064, -11.0435, 28.9907, 13.6403, 68.2479, -164.064
3.92092, -1, -45.6543, -11.1702, 29.0405, 13.6437, 68.1156, -164.4
3.92866, -1, -45.8196, -11.2546, 29.0738, 13.646, 68.0271, -164.623
3.93667, -1, -45.9839, -11.3385, 29.1072, 13.6483, 67.9388, -164.847
3.9447, -1, -46.1454, -11.4209, 29.1407, 13.6505, 67.8509, -165.07
3.95268, -1, -46.3026, -11.5004, 29.1742, 13.6528, 67.7634, -165.291
3.96063, -1, -46.3788, -11.5385, 29.191, 13.654, 67.7203, -165.507
3.96808, -1, -46.525, -11.6112, 29.2241, 13.6564, 67.6367, -165.612
3.97614, -1, -46.6611, -11.6781, 29.2553, 13.6587, 67.5583, -165.811
3.9841, -1, -46.784, -11.738, 29.2836, 13.6607, 67.4867, -165.991
3.99204, -1, -46.8914, -11.7908, 29.3081, 13.6626, 67.425, -166.148
4.00013, -1, -46.9824, -11.8369, 29.3277, 13.6641, 67.3743, -166.276
4.00703, -1, -47.0576, -11.877, 29.3416, 13.6651, 67.3349, -166.375
4.01606, -1, -47.1177, -11.9104, 29.3509, 13.6657, 67.3063, -166.447
4.02304, -1, -47.1634, -11.9364, 29.3564, 13.666, 67.2872, -166.495
4.03104, -1, -47.1967, -11.9552, 29.3592, 13.6662, 67.2755, -166.525
4.04005, -1, -47.2196, -11.9679, 29.3604, 13.6662, 67.2688, -166.542
4.04809, -1, -47.2341, -11.9758, 29.361, 13.6663, 67.2654, -166.551
4.05606, -1, -47.2423, -11.9801, 29.3613, 13.6664, 67.2637, -166.555
4.06406, 2, -47.2461, -11.9821, 29.3614, 13.6665, 67.2629, -166.557
4.07211, 2, -47.2469, -11.983, 29.3616, 13.6665, 67.2625, -166.558
4.08008, 2, -47.2466, -11.9833, 29.3617, 13.6666, 67.2624, -166.558
4.08805, 2, -47.2464, -11.9834, 29.3617, 13.6666, 67.2623, -166.558
4.09791, 2, -47.2467, -11.9835, 29.3618, 13.6666, 67.2622, -166.558
4.10406, 2, -47.2471, -11.9836, 29.3618, 13.6666, 67.2622, -166.558
4.1111, 2, -47.2481, -11.984, 29.3618, 13.6666, 67.2622, -166.558
4.1202, 2, -47.2498, -11.9846, 29.3618, 13.6666, 67.2622, -166.558
4.12704, 2, -47.2517, -11.9855, 29.3618, 13.6667, 67.2622, -166.558
4.13605, 2, -47.2533, -11.9863, 29.3618, 13.6666, 67.2622, -166.558
4.14413, 2, -47.2545, -11.9871, 29.3618, 13.6666, 67.2622, -166.558
4.15208, 2, -47.2552, -11.9876, 29.3618, 13.6666, 67.2622, -166.558
4.15915, 2, -47.2555, -11.9879, 29.3618, 13.6666, 67.2622, -166.558
4.16713, 2, -47.2557, -11.988, 29.3618, 13.6666, 67.2622, -166.558
4.17513, 2, -47.2556, -11.9881, 29.3618, 13.6666, 67.2622, -166.558
4.1832, 2, -47.2552, -11.9881, 29.3618, 13.6666, 67.2622, -166.558
4.19114, 2, -47.2547, -11.988, 29.3619, 13.6666, 67.2622, -166.558
4.19916, 2, -47.2542, -11.988, 29.3619, 13.6666, 67.2622, -166.558
4.20722, 2, -47.2538, -11.988, 29.3619, 13.6666, 67.2622, -166.558
4.21508, 2, -47.2536, -11.9881, 29.3619, 13.6666, 67.2622, -166.558
4.22307, 2, -47.2537, -11.9881, 29.3618, 13.6666, 67.2622, -166.558
4.23116, 2, -47.2538, -11.9884, 29.3618, 13.6666, 67.2622, -166.558
4.23912, 2, -47.2542, -11.9887, 29.3618, 13.6666, 67.2622, -166.558
4.2472, 2, -47.2548, -11.989, 29.3618, 13.6666, 67.2622, -166.558
4.25529, 2, -47.2554, -11.9892, 29.3618, 13.6666, 67.2622, -166.558
4.26356, 2, -47.2557, -11.9893, 29.3618, 13.6666, 67.2623, -166.558
4.27205, 2, -47.2558, -11.9894, 29.3618, 13.6666, 67.2623, -166.558
4.27947, 2, -47.2558, -11.9894, 29.3618, 13.6666, 67.2622, -166.558
4.28786, 2, -47.2556, -11.9894, 29.3619, 13.6666, 67.2622, -166.558
4.29614, 2, -47.2554, -11.9893, 29.3619, 13.6666, 67.2623, -166.558
4.30363, 2, -47.255, -11.9893, 29.3619, 13.6666, 67.2622, -166.558
4.31221, 2, -47.2546, -11.9893, 29.3619, 13.6666, 67.2622, -166.558
4.3196, 2, -47.2543, -11.9893, 29.3619, 13.6666, 67.2623, -166.558
4.32815, 2, -47.2541, -11.9893, 29.3619, 13.6665, 67.2623, -166.558
4.33594, 2, -47.254, -11.9893, 29.3619, 13.6666, 67.2623, -166.558
4.34406, 2, -47.254, -11.9894, 29.3618, 13.6665, 67.2623, -166.558
4.35107, 2, -47.254, -11.9894, 29.3618, 13.6665, 67.2623, -166.558
4.36015, 2, -47.2539, -11.9894, 29.3618, 13.6665, 67.2623, -166.558
4.36704, 2, -47.254, -11.9895, 29.3618, 13.6665, 67.2623, -166.558
4.37621, 2, -47.254, -11.9895, 29.3618, 13.6665, 67.2623, -166.558
4.38306, 2, -47.254, -11.9895, 29.3619, 13.6666, 67.2623, -166.558
4.39102, 2, -47.254, -11.9894, 29.3619, 13.6665, 67.2622, -166.558
4.40036, 2, -47.2539, -11.9893, 29.3619, 13.6665, 67.2623, -166.558
4.40702, 2, -47.2538, -11.9893, 29.3619, 13.6665, 67.2623, -166.558
4.41653, 2, -47.2537, -11.9893, 29.3619, 13.6665, 67.2623, -166.558
4.42457, 2, -47.2536, -11.9892, 29.3618, 13.6665, 67.2623, -166.558
4.43304, 2, -47.2534, -11.9892, 29.3619, 13.6665, 67.2624, -166.558
4.4406, 2, -47.2533, -11.9893, 29.3619, 13.6665, 67.2623, -166.558
4.44858, 2, -47.2532, -11.9893, 29.3618, 13.6665, 67.2623, -166.558
4.45687, 2, -47.2531, -11.9893, 29.3618, 13.6665, 67.2623, -166.558
4.46458, 2, -47.2531, -11.9893, 29.3618, 13.6665, 67.2623, -166.558
4.47203, 2, -47.253, -11.9893, 29.3618, 13.6664, 67.2623, -166.558
4.4809, 2, -47.2529, -11.9893, 29.3618, 13.6664, 67.2623, -166.558
4.48806, 2, -47.2529, -11.9893, 29.3618, 13.6664, 67.2623, -166.558
4.49603, 2, -47.2529, -11.9893, 29.3618, 13.6664, 67.2623, -166.558
4.50413, 2, -47.2528, -11.9892, 29.3619, 13.6664, 67.2623, -166.558
4.51203, 2, -47.2527, -11.9892, 29.3618, 13.6664, 67.2624, -166.558
4.52002, 2, -47.2526, -11.9891, 29.3618, 13.6664, 67.2624, -166.558
4.52808, 2, -47.2525, -11.989, 29.3618, 13.6665, 67.2624, -166.558
4.53604, 2, -47.2524, -11.989, 29.3618, 13.6665, 67.2623, -166.558
4.54404, 2, -47.2524, -11.989, 29.3618, 13.6665, 67.2624, -166.558
4.55208, 2, -47.2523, -11.989, 29.3619, 13.6665, 67.2624, -166.558
4.55903, 2, -47.2522, -11.989, 29.3619, 13.6665, 67.2624, -166.558
4.56712, 2, -47.2521, -11.989, 29.3618, 13.6665, 67.2624, -166.558
4.57502, 2, -47.252, -11.9891, 29.3618, 13.6665, 67.2624, -166.557
4.58407, 2, -47.2519, -11.9891, 29.3618, 13.6665, 67.2624, -166.557
4.59202, 2, -47.2518, -11.989, 29.3618, 13.6665, 67.2624, -166.557
4.60009, 2, -47.2517, -11.989, 29.3618, 13.6665, 67.2624, -166.557
4.60803, 2, -47.2516, -11.989, 29.3618, 13.6664, 67.2624, -166.557
4.61603, 2, -47.2515, -11.9889, 29.3618, 13.6664, 67.2624, -166.557
4.62415, 2, -47.2514, -11.9888, 29.3618, 13.6665, 67.2624, -166.557
4.63102, 2, -47.2512, -11.9888, 29.3618, 13.6665, 67.2624, -166.557
4.64003, 2, -47.2512, -11.9887, 29.3619, 13.6665, 67.2624, -166.557
4.64809, 2, -47.251, -11.9887, 29.3618, 13.6664, 67.2624, -166.557
4.65607, 2, -47.2509, -11.9888, 29.3618, 13.6664, 67.2624, -166.557
4.66311, 2, -47.2508, -11.9888, 29.3618, 13.6664, 67.2624, -166.557
4.67111, 2, -47.2507, -11.9888, 29.3618, 13.6664, 67.2624, -166.557
4.67912, 2, -47.2506, -11.9888, 29.3618, 13.6663, 67.2624, -166.557
4.68719, 2, -47.2506, -11.9888, 29.3618, 13.6663, 67.2625, -166.557
4.69513, 2, -47.2505, -11.9888, 29.3618, 13.6664, 67.2625, -166.557
4.70313, 2, -47.2505, -11.9887, 29.3618, 13.6664, 67.2625, -166.557
4.7112, 2, -47.2505, -11.9887, 29.3618, 13.6664, 67.2625, -166.557
4.71907, 2, -47.2504, -11.9886, 29.3619, 13.6664, 67.2625, -166.557
4.72705, 2, -47.2503, -11.9885, 29.3618, 13.6663, 67.2625, -166.557
4.73515, 2, -47.2502, -11.9885, 29.3618, 13.6663, 67.2625, -166.557
4.74327, 2, -47.2501, -11.9884, 29.3618, 13.6663, 67.2625, -166.557
4.75132, 2, -47.2501, -11.9884, 29.3619, 13.6663, 67.2626, -166.557
4.75928, 2, -47.25, -11.9884, 29.3618, 13.6663, 67.2626, -166.557
4.76734, 2, -47.25, -11.9884, 29.3618, 13.6663, 67.2626, -166.557
4.77541, 2, -47.2499, -11.9884, 29.3618, 13.6663, 67.2626, -166.557
4.78346, 2, -47.2499, -11.9884, 29.3618, 13.6663, 67.2626, -166.557
4.79161, 2, -47.2499, -11.9884, 29.3618, 13.6663, 67.2626, -166.557
4.80012, 2, -47.2499, -11.9884, 29.3618, 13.6663, 67.2626, -166.557
4.80759, 2, -47.2498, -11.9884, 29.3618, 13.6663, 67.2626, -166.557
4.81619, 2, -47.2498, -11.9883, 29.3618, 13.6663, 67.2626, -166.557
4.82364, 2, -47.2497, -11.9882, 29.3618, 13.6662, 67.2626, -166.557
4.83213, 2, -47.2497, -11.9882, 29.3618, 13.6662, 67.2627, -166.557
4.83987, 2, -47.2497, -11.9881, 29.3618, 13.6662, 67.2627, -166.557
4.84803, 2, -47.2495, -11.9881, 29.3618, 13.6662, 67.2627, -166.557
4.85505, 2, -47.2495, -11.988, 29.3618, 13.6662, 67.2627, -166.557
4.86417, 2, -47.2494, -11.988, 29.3618, 13.6662, 67.2627, -166.557
4.87101, 2, -47.2494, -11.988, 29.3618, 13.6661, 67.2627, -166.557
4.88021, 2, -47.2494, -11.988, 29.3618, 13.6662, 67.2627, -166.557
4.88705, 2, -47.2493, -11.988, 29.3618, 13.6662, 67.2628, -166.557
4.89637, 2, -47.2493, -11.988, 29.3618, 13.6661, 67.2628, -166.557
4.90309, 2, -47.2493, -11.988, 29.3618, 13.6661, 67.2627, -166.557
4.91253, 2, -47.2492, -11.9879, 29.3618, 13.6661, 67.2628, -166.556
4.92057, 2, -47.2492, -11.9879, 29.3618, 13.6661, 67.2628, -166.556
4.92854, 2, -47.2491, -11.9878, 29.3618, 13.6661, 67.2628, -166.556
4.93679, 2, -47.2491, -11.9877, 29.3618, 13.6661, 67.2628, -166.556
4.94466, 2, -47.249, -11.9877, 29.3618, 13.6661, 67.2628, -166.556
4.95258, 2, -47.2489, -11.9876, 29.3618, 13.666, 67.2628, -166.556
4.96067, 2, -47.2488, -11.9876, 29.3618, 13.666, 67.2628, -166.556
4.96801, 2, -47.2488, -11.9876, 29.3618, 13.666, 67.2628, -166.556
4.97602, 2, -47.2488, -11.9876, 29.3618, 13.666, 67.2628, -166.556
4.98407, 2, -47.2487, -11.9876, 29.3618, 13.666, 67.2628, -166.556
4.99205, 2, -47.2486, -11.9876, 29.3618, 13.666, 67.2628, -166.556
5.00001, 2, -47.2486, -11.9876, 29.3618, 13.666, 67.2628, -166.556
5.00812, 2, -47.2486, -11.9876, 29.3618, 13.666, 67.2629, -166.556
5.01602, 2, -47.2485, -11.9876, 29.3618, 13.666, 67.2628, -166.556
5.02402, 2, -47.2485, -11.9875, 29.3618, 13.666, 67.2629, -166.556
5.03206, 2, -47.2485, -11.9874, 29.3618, 13.6659, 67.2629, -166.556
5.04002, 2, -47.2485, -11.9874, 29.3618, 13.6659, 67.2629, -166.556
5.04801, 2, -47.2484, -11.9873, 29.3618, 13.6658, 67.263, -166.556
5.05607, 2, -47.2483, -11.9873, 29.3618, 13.6658, 67.2629, -166.556
5.06422, 2, -47.2483, -11.9872, 29.3618, 13.6658, 67.263, -166.556
5.072, 2, -47.2482, -11.9872, 29.3618, 13.6658, 67.263, -166.556
5.08005, 2, -47.2481, -11.9872, 29.3618, 13.6658, 67.263, -166.556
5.08804, 2, -47.248, -11.9872, 29.3618, 13.6657, 67.263, -166.556
5.09758, 2, -47.248, -11.9872, 29.3618, 13.6657, 67.263, -166.556
5.10405, 2, -47.248, -11.9872, 29.3618, 13.6658, 67.263, -166.556
5.11314, 2, -47.248, -11.9872, 29.3618, 13.6657, 67.263, -166.556
5.12, 2, -47.2479, -11.9872, 29.3618, 13.6657, 67.263, -166.556
5.12804, 2, -47.2479, -11.9871, 29.3618, 13.6656, 67.263, -166.556
5.13602, 2, -47.2479, -11.9871, 29.3618, 13.6656, 67.263, -166.556
5.14401, 4, -47.2479, -11.987, 29.3618, 13.6656, 67.263, -166.556
5.15204, 4, -47.2478, -11.987, 29.3618, 13.6656, 67.263, -166.556
5.15906, 4, -47.2478, -11.9869, 29.3618, 13.6656, 67.263, -166.556
5.16804, 4, -47.2477, -11.9869, 29.3618, 13.6656, 67.263, -166.556
5.17607, 4, -47.2476, -11.9869, 29.3618, 13.6656, 67.2631, -166.556
5.18402, 4, -47.2475, -11.9869, 29.3618, 13.6656, 67.2631, -166.556
5.19204, 4, -47.2475, -11.9869, 29.3618, 13.6656, 67.2631, -166.556
5.19912, 4, -47.2474, -11.9868, 29.3618, 13.6655, 67.2631, -166.556
5.20715, 4, -47.2474, -11.9868, 29.3618, 13.6655, 67.2631, -166.556
5.21515, 4, -47.2474, -11.9868, 29.3618, 13.6655, 67.2631, -166.556
5.22304, 4, -47.2474, -11.9868, 29.3618, 13.6655, 67.2631, -166.556
5.23107, 4, -47.2474, -11.9867, 29.3618, 13.6655, 67.2631, -166.555
5.23912, 4, -47.2473, -11.9867, 29.3618, 13.6655, 67.2631, -166.555
5.24734, 4, -47.2473, -11.9866, 29.3618, 13.6655, 67.2631, -166.555
5.25954, 4, -47.2472, -11.9866, 29.3618, 13.6654, 67.2631, -166.555
5.26424, 4, -47.2472, -11.9866, 29.3618, 13.6654, 67.2631, -166.555
5.27611, 4, -47.2471, -11.9865, 29.3618, 13.6654, 67.2631, -166.555
5.27989, 4, -47.2471, -11.9865, 29.3618, 13.6654, 67.2631, -166.555
5.28999, 4, -47.247, -11.9865, 29.3618, 13.6654, 67.2631, -166.555
5.2963, 4, -47.247, -11.9865, 29.3618, 13.6654, 67.2631, -166.555
5.3043, 4, -47.2469, -11.9865, 29.3618, 13.6654, 67.2631, -166.555
5.31225, 4, -47.2469, -11.9865, 29.3618, 13.6654, 67.2631, -166.555
5.32202, 4, -47.2469, -11.9865, 29.3618, 13.6653, 67.2632, -166.555
5.32813, 4, -47.2469, -11.9864, 29.3618, 13.6654, 67.2632, -166.555
5.33756, 4, -47.2468, -11.9864, 29.3618, 13.6654, 67.2632, -166.555
5.34431, 4, -47.2468, -11.9864, 29.3618, 13.6653, 67.2632, -166.555
5.35226, 4, -47.2468, -11.9863, 29.3618, 13.6653, 67.2632, -166.555
5.36042, 4, -47.2468, -11.9863, 29.3618, 13.6653, 67.2631, -166.555
5.36848, 4, -47.2469, -11.9863, 29.3618, 13.6653, 67.2632, -166.555
5.3779, 4, -47.2478, -11.9868, 29.3622, 13.6654, 67.2632, -166.555
5.38452, 4, -47.25, -11.9885, 29.364, 13.667, 67.2639, -166.555
5.39259, 4, -47.2541, -11.993, 29.3695, 13.6768, 67.2662, -166.553
5.40305, 4, -47.2611, -12.002, 29.3822, 13.7021, 67.2725, -166.548
5.41314, 4, -47.2804, -12.0279, 29.4258, 13.7903, 67.2966, -166.528
5.41516, 5, -47.2804, -12.0279, 29.4258, 13.7903, 67.2966, -166.528
5.42502, 5, -47.3018, -12.0565, 29.4793, 13.9801, 67.3494, -166.485
5.43114, 5, -47.3316, -12.095, 29.5581, 14.0731, 67.3749, -166.463
5.44094, 5, -47.3942, -12.173, 29.7303, 14.4526, 67.4786, -166.374
5.44943, 5, -47.448, -12.2392, 29.8814, 14.7885, 67.5691, -166.296
5.45682, 5, -47.5103, -12.3162, 30.0601, 15.183, 67.6749, -166.203
5.46315, 5, -47.5441, -12.3583, 30.1586, 15.3989, 67.7325, -166.154
5.47521, 5, -47.6552, -12.4973, 30.482, 16.0992, 67.9172, -165.992
5.47912, 5, -47.695, -12.5472, 30.597, 16.3446, 67.9815, -165.936
5.49084, 5, -47.821, -12.7055, 30.958, 17.1001, 68.1761, -165.765
5.49773, 5, -47.8648, -12.7602, 31.0815, 17.3555, 68.2409, -165.651
5.50564, 5, -47.9993, -12.9279, 31.4592, 18.1252, 68.4336, -165.538
5.51219, 5, -48.0448, -12.9847, 31.5875, 18.3827, 68.4968, -165.481
5.51928, 5, -48.1368, -13.0993, 31.8467, 18.8991, 68.6225, -165.37
5.53017, 5, -48.2752, -13.2728, 32.2438, 19.6738, 68.8069, -165.206
5.53615, 5, -48.3207, -13.3307, 32.3776, 19.9321, 68.8676, -165.152
5.54814, 5, -48.4515, -13.5027, 32.7829, 20.7054, 69.0469, -164.988
5.55404, 5, -48.4925, -13.5591, 33.0543, 21.2136, 69.1656, -164.871
5.5626, 6, -48.6057, -13.7234, 33.3223, 21.7085, 69.285, -164.739
5.5682, 6, -48.6395, -13.7763, 33.4542, 21.9489, 69.3455, -164.665
5.57598, 6, -48.6991, -13.8785, 33.7113, 22.4112, 69.4695, -164.491
5.58434, 7, -48.7463, -13.975, 33.9569, 22.8431, 69.5989, -164.278
5.59114, 7, -48.7799, -14.0651, 34.1902, 23.2416, 69.7353, -164.018
5.59999, 7, -48.7997, -14.1488, 34.409, 23.6069, 69.8797, -163.707
5.6109, 8, -48.8046, -14.2626, 34.7123, 24.1014, 70.1116, -163.152
5.61513, 8, -48.7997, -14.2973, 34.8082, 24.2548, 70.1927, -162.946
5.62423, 8, -48.7814, -14.3621, 34.9935, 24.5489, 70.36, -162.51
5.63323, 9, -48.7535, -14.4218, 35.1709, 24.8319, 70.5332, -162.048
5.63902, 9, -48.7178, -14.4774, 35.343, 25.1078, 70.7107, -161.567
5.64906, 9, -48.676, -14.5297, 35.5118, 25.3799, 70.8913, -161.075
5.65613, 10, -48.6294, -14.5795, 35.6776, 25.6512, 71.0738, -160.577
5.66399, 10, -48.5796, -14.6274, 35.8406, 25.9233, 71.258, -160.077
5.67502, 11, -48.5006, -14.6969, 36.0825, 26.3351, 71.5351, -159.327
5.67924, 11, -48.4736, -14.7197, 36.1626, 26.4738, 71.6275, -159.078
5.68813, 11, -48.419, -14.765, 36.3218, 26.7535, 71.8123, -158.582
5.69585, 12, -48.3639, -14.81, 36.4794, 27.0359, 71.9965, -158.089
5.70309, 12, -48.3087, -14.8549, 36.6362, 27.3211, 72.1804, -157.599
5.71329, 12, -48.2531, -14.8996, 36.7927, 27.6089, 72.3635, -157.112
5.71929, 13, -48.1962, -14.9443, 36.9481, 27.8984, 72.5458, -156.628
5.72806, 13, -48.1374, -14.9889, 37.1019, 28.1895, 72.7276, -156.147
5.73976, 13, -48.0763, -15.0331, 37.2545, 28.4817, 72.9081, -155.668
5.74414, 14, -48.0125, -15.077, 37.4059, 28.7743, 73.0878, -155.19
5.75109, 14, -47.9461, -15.1206, 37.556, 29.0672, 73.2667, -154.714
5.76017, 14, -47.8773, -15.1641, 37.7042, 29.3598, 73.4443, -154.241
5.76809, 15, -47.8061, -15.2074, 37.8508, 29.6518, 73.6211, -153.769
5.77569, 15, -47.7327, -15.2506, 37.996, 29.9431, 73.7967, -153.298
5.78817, 16, -47.6181, -15.3157, 38.2108, 30.3784, 74.0578, -152.594
5.79203, 16, -47.5787, -15.3375, 38.2815, 30.5229, 74.1442, -152.361
5.79951, 16, -47.4983, -15.3814, 38.4215, 30.8113, 74.3157, -151.897
5.8083, 17, -47.4156, -15.4257, 38.5601, 31.099, 74.4855, -151.434
5.8187, 17, -47.3304, -15.4705, 38.6973, 31.3853, 74.6533, -150.974
5.8243, 17, -47.2429, -15.516, 38.8332, 31.6705, 74.8193, -150.517
5.83161, 18, -47.1981, -15.539, 38.9008, 31.9551, 74.9831, -150.064
5.84004, 18, -47.0594, -15.6091, 39.1015, 32.2385, 75.1445, -149.614
5.84873, 18, -47.0116, -15.6569, 39.2339, 32.5212, 75.3034, -149.168
5.85662, 19, -46.8637, -15.7058, 39.3655, 32.8033, 75.4595, -148.725
5.86402, 19, -46.7614, -15.7557, 39.4962, 33.0841, 75.6128, -148.287
5.87117, 20, -46.7091, -15.781, 39.5612, 33.2241, 75.6883, -148.069
5.87916, 20, -46.6028, -15.8328, 39.6904, 33.5035, 75.8371, -147.637
5.88843, 20, -46.4387, -15.913, 39.8825, 33.9201, 76.0545, -146.997
5.89698, 21, -46.3263, -15.9683, 40.0092, 34.1961, 76.1956, -146.576
5.90444, 21, -46.2115, -16.0251, 40.1351, 34.471, 76.3334, -146.159
5.91354, 21, -46.0942, -16.0836, 40.2599, 34.7439, 76.4679, -145.746
5.92086, 22, -45.9741, -16.1434, 40.3834, 35.015, 76.5993, -145.337
5.92864, 22, -45.8509, -16.2045, 40.5055, 35.2842, 76.7279, -144.931
5.93782, 22, -45.7242, -16.2668, 40.6261, 35.5512, 76.8531, -144.528
5.94533, 23, -45.594, -16.3302, 40.7452, 35.8156, 76.9753, -144.129
5.95302, 23, -45.4601, -16.3945, 40.8626, 36.0777, 77.0949, -143.732
5.9609, 24, -45.3227, -16.4596, 40.9782, 36.3371, 77.2113, -143.338
5.96929, 24, -45.1816, -16.5254, 41.0917, 36.5931, 77.3252, -142.947
5.97685, 24, -45.1096, -16.5918, 41.2029, 36.8459, 77.4364, -142.558
5.98317, 25, -44.9631, -16.6251, 41.2575, 36.971, 77.491, -142.364
5.99197, 25, -44.8131, -16.6921, 41.3649, 37.2185, 77.5985, -141.977
6.00012, 25, -44.6596, -16.7595, 41.4697, 37.4621, 77.7037, -141.591
6.00817, 26, -44.5026, -16.8271, 41.5718, 37.7018, 77.8065, -141.207
6.01601, 26, -44.3419, -16.8948, 41.671, 37.9378, 77.9074, -140.825
6.02678, 27, -44.0941, -16.996, 41.8137, 38.2833, 78.0543, -140.252
6.03218, 27, -44.0096, -17.0296, 41.8595, 38.3964, 78.1023, -140.061
6.04047, 27, -43.8376, -17.0965, 41.9486, 38.6194, 78.1968, -139.68
6.05005, 28, -43.5717, -17.1957, 42.076, 38.9455, 78.3349, -139.109
6.05505, 28, -43.481, -17.2284, 42.1169, 39.0519, 78.3802, -138.919
6.06298, 28, -43.2966, -17.2932, 42.1959, 39.2615, 78.4694, -138.54
6.0721, 29, -43.1083, -17.357, 42.2714, 39.4664, 78.5571, -138.16
6.08011, 29, -42.9159, -17.4198, 42.3428, 39.6671, 78.6427, -137.781
6.08711, 29, -42.7197, -17.4814, 42.4104, 39.8631, 78.727, -137.402
6.09785, 30, -42.5196, -17.542, 42.4742, 40.0543, 78.8098, -136.834
6.10504, 30, -42.3158, -17.6015, 42.5343, 40.2411, 78.8911, -136.645
6.11111, 30, -42.1087, -17.6598, 42.5906, 40.4234, 78.9707, -136.267
6.11903, 31, -41.8983, -17.7169, 42.6432, 40.6012, 79.049, -135.889
6.13086, 31, -41.5758, -17.8001, 42.7146, 40.8593, 79.1641, -135.323
6.13523, 32, -41.4664, -17.8272, 42.7365, 40.9431, 79.2014, -135.134
6.1444, 32, -41.2449, -17.8801, 42.7774, 41.1075, 79.2757, -134.757
6.15104, 32, -41.0197, -17.9315, 42.8145, 41.2678, 79.3483, -134.38
6.1602, 33, -40.7908, -17.9814, 42.8479, 41.4237, 79.4201, -134.005
6.16955, 33, -40.5583, -18.0296, 42.8776, 41.5753, 79.4899, -133.629
6.17702, 34, -40.3228, -18.0762, 42.9034, 41.7226, 79.5587, -133.254
6.18402, 34, -40.0852, -18.1213, 42.9256, 41.8655, 79.6259, -132.879
6.19196, 34, -39.8454, -18.1647, 42.9437, 42.0042, 79.6921, -132.505
6.20013, 35, -39.6023, -18.2063, 42.9582, 42.1392, 79.7572, -132.132
6.208, 35, -39.3553, -18.2463, 42.9692, 42.2701, 79.8203, -131.76
6.21604, 35, -39.1048, -18.2848, 42.9764, 42.3967, 79.8834, -131.388
6.22415, 36, -38.8509, -18.3215, 42.98, 42.5194, 79.944, -131.017
6.2316, 36, -38.5937, -18.3564, 42.9801, 42.6379, 80.0047, -130.646
6.23997, 36, -38.3335, -18.3895, 42.9766, 42.7526, 80.0634, -130.276
6.2492, 37, -38.0701, -18.4208, 42.9695, 42.8632, 80.1212, -129.907
6.25824, 37, -37.8029, -18.4501, 42.9587, 42.9699, 80.1785, -129.539
6.26426, 37, -37.5324, -18.4775, 42.9443, 43.0728, 80.2338, -129.172
6.27397, 38, -37.2599, -18.503, 42.9264, 43.1719, 80.2888, -128.806
6.27997, 38, -36.9856, -18.5265, 42.9047, 43.2669, 80.3423, -128.44
6.28844, 39, -36.7091, -18.5482, 42.8795, 43.358, 80.394, -128.075
6.29606, 39, -36.4299, -18.5676, 42.8508, 43.4455, 80.446, -127.712
6.30412, 39, -36.1479, -18.5852, 42.8185, 43.5285, 80.4961, -127.349
6.31229, 40, -35.8624, -18.6011, 42.7828, 43.6081, 80.5454, -126.988
6.32254, 40, -35.5741, -18.615, 42.7436, 43.6836, 80.5946, -126.627
6.32834, 40, -35.2833, -18.6268, 42.7008, 43.7556, 80.6417, -126.267
6.33711, 41, -34.9896, -18.6367, 42.6547, 43.8234, 80.6878, -125.909
6.3436, 41, -34.8415, -18.6409, 42.6053, 43.8882, 80.7339, -125.551
6.35303, 41, -34.3928, -18.6509, 42.5526, 43.9485, 80.7782, -125.196
6.35898, 42, -34.2421, -18.6533, 42.525, 43.9773, 80.7997, -125.018
6.368, 42, -33.7878, -18.6578, 42.4374, 44.0587, 80.8641, -124.487
6.37512, 43, -33.6356, -18.6584, 42.4066, 44.0836, 80.8854, -124.311
6.38442, 43, -33.1755, -18.6578, 42.3093, 44.1538, 80.9463, -123.783
6.39099, 43, -33.0204, -18.6566, 42.2754, 44.1753, 80.9661, -123.608
6.40094, 44, -32.5513, -18.6504, 42.1689, 44.2332, 81.0251, -123.085
6.41007, 44, -32.2358, -18.6439, 42.094, 44.2671, 81.0629, -122.738
6.41662, 44, -31.9177, -18.6356, 42.0159, 44.2979, 81.0995, -122.392
6.42485, 45, -31.5973, -18.6251, 41.9347, 44.3247, 81.1354, -122.047
6.43245, 45, -31.2743, -18.613, 41.8503, 44.3471, 81.1712, -121.703
6.44173, 46, -30.9492, -18.599, 41.7628, 44.3651, 81.2056, -121.36
6.44879, 46, -30.6227, -18.5829, 41.6724, 44.3791, 81.2387, -121.019
6.45653, 46, -30.2935, -18.5646, 41.5789, 44.3893, 81.2712, -120.68
6.4659, 47, -29.9614, -18.5442, 41.4824, 44.3954, 81.3038, -120.341
6.47116, 47, -29.7942, -18.5331, 41.4329, 44.397, 81.3198, -120.172
6.48081, 47, -29.4577, -18.5092, 41.2794, 44.3974, 81.3663, -119.666
6.48931, 48, -28.9488, -18.469, 41.173, 44.3921, 81.3965, -119.33
6.496, 48, -28.7784, -18.4544, 41.1186, 44.3877, 81.4114, -119.163
6.50417, 48, -28.4358, -18.4235, 41.0074, 44.3755, 81.4417, -118.829
6.51383, 49, -28.0913, -18.39, 40.8931, 44.3481, 81.4867, -118.329
6.51903, 49, -27.7452, -18.3542, 40.7755, 44.3365, 81.5013, -118.162
6.53076, 50, -27.2212, -18.2956, 40.5923, 44.2935, 81.5448, -117.664
6.53616, 50, -27.0449, -18.2746, 40.5294, 44.2766, 81.5594, -117.499
6.54435, 50, -26.689, -18.2306, 40.4009, 44.2398, 81.5893, -117.167
6.55215, 51, -26.329, -18.184, 40.2691, 44.1978, 81.6195, -116.836
6.56002, 51, -25.9662, -18.1345, 40.1338, 44.1497, 81.6495, -116.507
6.5708, 51, -25.4183, -18.0544, 39.9239, 44.069, 81.6951, -116.012
6.57611, 52, -25.2352, -18.0262, 39.8521, 44.0392, 81.7107, -115.847
6.58358, 52, -24.8681, -17.9676, 39.7059, 43.9749, 81.7429, -115.518
6.59202, 52, -24.4993, -17.9058, 39.5561, 43.9059, 81.7755, -115.189
6.60011, 53, -24.1279, -17.8407, 39.4026, 43.8307, 81.8084, -114.86
6.60996, 53, -23.5629, -17.7371, 39.1654, 43.7082, 81.859, -114.367
6.61518, 53, -23.3725, -17.7011, 39.0846, 43.6645, 81.8766, -114.203
6.624, 54, -22.9889, -17.6266, 38.9206, 43.5727, 81.9127, -113.874
6.63197, 54, -22.6019, -17.549, 38.7528, 43.4755, 81.9489, -113.546
6.64108, 55, -22.2127, -17.4683, 38.5805, 43.3721, 81.986, -113.218
6.64801, 55, -21.8225, -17.3846, 38.4048, 43.2628, 82.0247, -112.89
6.65594, 55, -21.4311, -17.2979, 38.2264, 43.1475, 82.0646, -112.561
6.66422, 56, -21.0375, -17.2079, 38.0444, 43.0262, 82.1047, -112.233
6.67428, 56, -20.6396, -17.1148, 37.858, 42.8989, 82.167, -111.742
6.68012, 56, -20.2369, -17.0187, 37.6682, 42.7655, 82.1885, -111.578
6.6892, 57, -19.8295, -16.9197, 37.4756, 42.6259, 82.2317, -111.25
6.69594, 57, -19.4194, -16.8178, 37.2791, 42.4801, 82.2754, -110.923
6.70411, 57, -19.0076, -16.7129, 37.0789, 42.3278, 82.3209, -110.596
6.71192, 58, -18.5948, -16.6054, 36.8765, 42.1688, 82.3671, -110.269
6.72003, 58, -18.1798, -16.495, 36.6709, 42.0036, 82.4136, -109.942
6.72818, 59, -17.761, -16.3819, 36.4612, 41.832, 82.4618, -109.616
6.7353, 59, -17.3376, -16.2661, 36.2486, 41.6539, 82.5111, -109.29
6.74305, 59, -16.9088, -16.148, 36.0332, 41.4689, 82.5606, -108.964
6.75142, 60, -16.4759, -16.027, 35.814, 41.2769, 82.6122, -108.638
6.7622, 60, -16.0402, -15.9033, 35.5924, 41.078, 82.6646, -108.312
6.76746, 60, -15.6041, -15.7769, 35.3683, 40.8719, 82.7172, -107.986
6.77694, 61, -15.1664, -15.6476, 35.1401, 40.6588, 82.7722, -107.661
6.78402, 61, -14.7253, -15.5155, 34.9091, 40.4385, 82.8278, -107.335
6.79331, 62, -14.2784, -15.3807, 34.6754, 40.2111, 82.8849, -107.009
6.80006, 62, -13.8256, -15.2428, 34.4384, 39.9764, 82.9441, -106.684
6.80811, 62, -13.3675, -15.1017, 34.1993, 39.734, 83.0036, -106.358
6.81627, 63, -12.9069, -14.9575, 33.9571, 39.4837, 83.0661, -106.031
6.82585, 63, -12.4449, -14.8105, 33.7112, 39.2257, 83.1293, -105.704
6.83398, 63, -11.9811, -14.6608, 33.463, 38.9599, 83.1954, -105.376
6.84013, 64, -11.5129, -14.5074, 33.2112, 38.6862, 83.2632, -105.048
6.84751, 64, -11.2764, -14.4293, 33.0842, 38.5464, 83.2976, -104.884
6.85888, 64, -10.5575, -14.1905, 32.6999, 38.1151, 83.4056, -104.39
6.86397, 65, -10.0719, -14.0274, 32.4392, 37.817, 83.4804, -104.059
6.87101, 65, -9.82822, -13.9447, 32.308, 37.6647, 83.519, -103.893
6.8812, 66, -9.09574, -13.6919, 31.91, 37.1957, 83.6382, -103.395
6.8889, 66, -8.60395, -13.5182, 31.6409, 36.8728, 83.7216, -103.061
6.8962, 66, -8.10631, -13.3405, 31.3693, 36.5419, 83.8083, -102.726
6.90329, 67, -7.85456, -13.2506, 31.2323, 36.3733, 83.8526, -102.558
6.91108, 67, -7.346, -13.0683, 30.9569, 36.0296, 83.9438, -102.222
6.92105, 67, -6.57583, -12.7871, 30.5393, 35.4985, 84.0871, -101.714
6.92979, 68, -6.06115, -12.5943, 30.258, 35.1339, 84.1866, -101.374
6.93813, 68, -5.54413, -12.3984, 29.9742, 34.7617, 84.29, -101.034
6.94572, 69, -5.02129, -12.1987, 29.688, 34.381, 84.3971, -100.691
6.95289, 69, -4.49043, -11.9944, 29.4006, 33.9922, 84.5077, -100.348
6.95896, 69, -4.22255, -11.8909, 29.256, 33.7948, 84.5645, -100.175
6.97084, 70, -3.41521, -11.576, 28.8209, 33.1906, 84.7403, -99.6561
6.97675, 70, -2.87625, -11.3618, 28.5286, 32.7782, 84.8622, -99.3082
6.98555, 70, -2.33486, -11.1429, 28.2349, 32.3583, 84.9881, -98.9593
6.99273, 71, -2.0619, -11.032, 28.0876, 32.1458, 85.0523, -98.7846
6.99904, 71, -1.51038, -10.8076, 27.7921, 31.7154, 85.1841, -98.434
7.01297, 72, -0.671939, -10.4633, 27.3493, 31.056, 85.3888, -97.9054
7.01512, 72, -0.39158, -10.3469, 27.2014, 30.8324, 85.4592, -97.7287
7.02611, 72, 0.449177, -9.99259, 26.7577, 30.1525, 85.6759, -97.1964
7.0312, 72, 0.730412, -9.8722, 26.6093, 29.9229, 85.7501, -97.0183
7.04138, 73, 1.58313, -9.50434, 26.1647, 29.225, 85.9788, -96.4828
7.04693, 73, 1.87069, -9.37994, 26.0168, 28.9895, 86.0571, -96.3037
7.05612, 74, 2.44813, -9.12844, 25.7215, 28.514, 86.2167, -95.9442
7.06301, 74, 3.02552, -8.87397, 25.4275, 28.0334, 86.3807, -95.5834
7.07204, 74, 3.60221, -8.61634, 25.1337, 27.5481, 86.5488, -95.2212
7.08009, 75, 4.18127, -8.35386, 24.841, 27.058, 86.7213, -94.8574
7.0878, 75, 4.76621, -8.08691, 24.5489, 26.5646, 86.8985, -94.4926
7.09595, 75, 5.35547, -7.81627, 24.2587, 26.0672, 87.0802, -94.1265
7.10587, 76, 6.23859, -7.40316, 23.8273, 25.3143, 87.3614, -93.5741
7.11125, 76, 6.53187, -7.26366, 23.6845, 25.0624, 87.4576, -93.3892
7.12272, 77, 7.11855, -6.98062, 23.3999, 24.5572, 87.7534, -92.8324
7.12827, 77, 7.70851, -6.69234, 23.1164, 24.0499, 87.8547, -92.6458
7.13693, 77, 8.30248, -6.40026, 22.8359, 23.5409, 88.0611, -92.2718
7.14322, 78, 8.89615, -6.10361, 22.5578, 23.0311, 88.2723, -91.8961
7.15095, 78, 9.48586, -5.80299, 22.2827, 22.521, 88.4888, -91.5185
7.16376, 78, 10.3664, -5.34225, 21.8742, 21.7572, 88.8235, -90.9485
7.16797, 79, 10.6608, -5.18588, 21.7391, 21.5032, 88.9378, -90.7575
7.176, 79, 11.2512, -4.86966, 21.4717, 20.9966, 89.1702, -90.3739
7.18407, 79, 11.8407, -4.54845, 21.2073, 20.4909, 89.4081, -89.9886
7.19195, 80, 12.4257, -4.22345, 20.9461, 19.9874, 89.6514, -89.6011
7.19993, 80, 13.0056, -3.89309, 20.6876, 19.4882, 89.9002, -89.2113
7.20815, 80, 13.5838, -3.55776, 20.4314, 18.9924, 90.1547, -88.8194
7.21606, 81, 14.1628, -3.21716, 20.179, 18.5008, 90.4148, -88.4249
7.22311, 81, 14.7407, -2.87159, 19.9295, 18.0138, 90.6805, -88.0279
7.23267, 82, 15.3128, -2.52085, 19.6833, 17.5319, 90.9518, -87.6286
7.2412, 82, 15.8774, -2.1642, 19.4405, 17.0557, 91.2289, -87.2264
7.24884, 82, 16.4372, -1.80169, 19.1996, 16.586, 91.5122, -86.8211
7.25592, 83, 16.9953, -1.43288, 18.962, 16.1238, 91.8014, -86.4129
7.26393, 83, 17.5514, -1.05761, 18.7285, 15.6684, 92.0964, -86.0014
7.2721, 83, 18.1012, -0.676148, 18.4978, 15.2205, 92.3973, -85.587
7.27993, 84, 18.6419, -0.289007, 18.2702, 14.7813, 92.7044, -85.1692
7.28806, 84, 19.1748, 0.103784, 18.0453, 14.3515, 93.0173, -84.7478
7.29768, 84, 19.7037, 0.503312, 17.8222, 13.931, 93.3361, -84.3229
7.30346, 85, 20.2294, 0.908908, 17.6028, 13.5199, 93.6606, -83.8943
7.3121, 85, 20.7496, 1.32023, 17.3871, 13.1184, 93.9905, -83.4624
7.32054, 86, 21.2607, 1.73625, 17.1738, 12.7277, 94.3255, -83.027
7.32804, 86, 21.7615, 2.15808, 16.9635, 12.3482, 94.6654, -82.5875
7.33614, 86, 22.2545, 2.58507, 16.7564, 11.9801, 95.0105, -82.1444
7.34344, 87, 22.4992, 2.80059, 16.6537, 11.8004, 95.1848, -81.6975
7.35195, 87, 23.2267, 3.45512, 16.3507, 11.2791, 95.7141, -81.2473
7.3601, 87, 23.7035, 3.89753, 16.1542, 10.946, 96.0717, -80.7941
7.36696, 88, 23.9382, 4.12035, 16.0572, 10.7842, 96.2516, -80.5661
7.37497, 88, 24.3991, 4.56839, 15.8652, 10.47, 96.6132, -80.1077
7.38518, 89, 25.0728, 5.24843, 15.5845, 10.0215, 97.1596, -79.4145
7.39097, 89, 25.2939, 5.47694, 15.4933, 9.87861, 97.3425, -79.1821
7.40017, 89, 25.9472, 6.16643, 15.2251, 9.46853, 97.8929, -78.4814
7.40717, 90, 26.1616, 6.39767, 15.1376, 9.33791, 98.0767, -78.2464
7.41629, 90, 26.7919, 7.09399, 14.8822, 8.96589, 98.629, -77.5376
7.42305, 90, 26.9973, 7.32707, 14.7993, 8.84826, 98.8132, -77.3
7.43252, 91, 27.5993, 8.03018, 14.5562, 8.51427, 99.3652, -76.5848
7.44043, 91, 27.9894, 8.50181, 14.3999, 8.30772, 99.7325, -76.1051
7.44934, 91, 28.3725, 8.97504, 14.2482, 8.11423, 100.099, -75.6228
7.45492, 92, 28.5615, 9.21239, 14.1739, 8.02212, 100.282, -75.381
7.4645, 92, 28.934, 9.92732, 13.9562, 7.76477, 100.83, -74.6513
7.47359, 92, 29.2986, 10.4059, 13.8161, 7.60918, 101.195, -74.1622
7.48055, 93, 29.6539, 10.6458, 13.7476, 7.53608, 101.559, -73.6697
7.48791, 93, 29.9997, 11.1271, 13.6133, 7.39947, 101.74, -73.4223
7.49588, 94, 30.3365, 11.6094, 13.4827, 7.27615, 102.103, -72.9252
7.50401, 94, 30.6652, 12.0926, 13.3557, 7.16546, 102.465, -72.4251
7.51193, 94, 30.987, 12.5778, 13.2321, 7.06762, 102.826, -71.9224
7.51992, 95, 31.301, 13.0643, 13.1122, 6.98285, 103.186, -71.4161
7.528, 95, 31.6065, 13.5517, 12.996, 6.91029, 103.545, -70.9068
7.53591, 95, 31.9031, 14.04, 12.8836, 6.85081, 103.902, -70.3944
7.54296, 96, 32.1917, 14.5283, 12.7752, 6.80405, 104.257, -69.8797
7.55192, 96, 32.4731, 15.0167, 12.6706, 6.76885, 104.609, -69.3618
7.55992, 96, 32.7484, 15.5057, 12.57, 6.74593, 104.958, -68.8413
7.56798, 97, 33.0168, 15.9939, 12.4733, 6.73423, 105.304, -68.318
7.57591, 97, 33.2774, 16.4813, 12.3809, 6.73295, 105.646, -67.7931
7.58388, 98, 33.5297, 16.9686, 12.2929, 6.74462, 105.985, -67.2664
7.59199, 98, 33.7744, 17.455, 12.2093, 6.76852, 106.32, -66.737
7.59991, 98, 34.0114, 17.9402, 12.1299, 6.80351, 106.65, -66.2059
7.60895, 99, 34.2412, 18.4245, 12.0547, 6.84873, 106.977, -65.6732
7.61597, 99, 34.4649, 18.907, 11.9836, 6.90581, 107.298, -65.1388
7.62391, 99, 34.683, 19.3871, 11.9168, 6.97279, 107.615, -64.6026
7.63192, 100, 34.8953, 19.8645, 11.8544, 7.04987, 107.927, -64.0647
7.64002, 100, 35.1021, 20.3382, 11.7967, 7.13701, 108.233, -63.5263
7.64813, 101, 35.3035, 20.8072, 11.7437, 7.23301, 108.532, -62.9885
7.65499, 101, 35.4999, 21.2721, 11.6958, 7.33765, 108.824, -62.451
7.66397, 101, 35.6908, 21.7326, 11.6531, 7.45026, 109.108, -61.9155
7.67196, 102, 35.8756, 22.1883, 11.6155, 7.57033, 109.382, -61.3827
7.67991, 102, 36.0537, 22.6389, 11.5827, 7.69747, 109.647, -60.8536
7.68798, 102, 36.2257, 23.0837, 11.5547, 7.83085, 109.903, -60.328
7.69594, 103, 36.3927, 23.5212, 11.5313, 7.97041, 110.15, -59.8063
7.70391, 103, 36.5559, 23.9492, 11.5128, 8.11597, 110.388, -59.2891
7.71198, 103, 36.716, 24.3687, 11.4994, 8.26754, 110.617, -58.7781
7.71991, 104, 36.8731, 24.78, 11.4913, 8.42532, 110.835, -58.2731
7.72792, 104, 37.0281, 25.1838, 11.4883, 8.58938, 111.039, -57.7749
7.73598, 104, 37.1812, 25.5804, 11.4906, 8.7591, 111.229, -57.2841
7.74391, 104, 37.3315, 25.9712, 11.498, 8.9341, 111.405, -56.8008
7.75193, 104, 37.4776, 26.3567, 11.5098, 9.11387, 111.567, -56.3244
7.75997, 104, 37.619, 26.7367, 11.5248, 9.29819, 111.719, -55.8531
7.76792, 104, 37.7577, 27.1106, 11.5425, 9.48666, 111.862, -55.386
7.77591, 104, 37.8948, 27.478, 11.5616, 9.67822, 112, -54.9225
7.78398, 104, 38.0303, 27.8385, 11.5809, 9.87252, 112.135, -54.4633
7.79192, 104, 38.1634, 28.1925, 11.6, 10.0685, 112.267, -54.0094
7.79995, 104, 38.2929, 28.5388, 11.6184, 10.2654, 112.397, -53.5621
7.80812, 104, 38.4182, 28.8772, 11.6358, 10.4614, 112.523, -53.1251
7.81552, 104, 38.5389, 29.2056, 11.6526, 10.6545, 112.644, -52.7005
7.82403, 104, 38.6542, 29.5234, 11.6686, 10.8431, 112.761, -52.2927
7.83209, 104, 38.7637, 29.828, 11.6838, 11.0257, 112.872, -51.9043
7.84007, 104, 38.8672, 30.1189, 11.6981, 11.2006, 112.975, -51.5365
7.84755, 104, 38.9644, 30.3954, 11.7119, 11.3667, 113.073, -51.1923
7.85609, 104, 39.0551, 30.6548, 11.7248, 11.5229, 113.163, -50.8725
7.86296, 104, 39.0979, 30.7777, 11.7308, 11.5971, 113.205, -50.7218
7.87195, 104, 39.2157, 31.1184, 11.7475, 11.8033, 113.32, -50.3069
7.8801, 104, 39.2852, 31.3204, 11.7576, 11.927, 113.389, -50.0617
7.8869, 104, 39.3172, 31.4139, 11.7622, 11.9844, 113.42, -49.9485
7.89612, 104, 39.4025, 31.6652, 11.7744, 12.1387, 113.504, -49.6465
7.90295, 104, 39.4272, 31.739, 11.778, 12.1841, 113.529, -49.5583
7.91229, 104, 39.4913, 31.9315, 11.7876, 12.3021, 113.591, -49.3302
7.92038, 104, 39.5259, 32.0375, 11.7931, 12.366, 113.625, -49.208
7.92694, 104, 39.5408, 32.0842, 11.7955, 12.3935, 113.64, -49.1558
7.93677, 104, 39.5773, 32.2009, 11.8021, 12.4579, 113.673, -49.0307
7.94443, 104, 39.5955, 32.2614, 11.806, 12.4886, 113.689, -48.9723
7.95289, 104, 39.6094, 32.3101, 11.8097, 12.5112, 113.7, -48.9304
7.96055, 104, 39.6199, 32.3481, 11.8131, 12.5267, 113.707, -48.902
7.96856, 104, 39.6277, 32.3765, 11.8162, 12.5369, 113.712, -48.8837
7.97689, 104, 39.6335, 32.3974, 11.8188, 12.543, 113.714, -48.8729
7.98391, 104, 39.6357, 32.4056, 11.8199, 12.545, 113.715, -48.8696
7.99191, 104, 39.639, 32.4177, 11.8217, 12.5474, 113.716, -48.8658
7.99992, 105, 39.641, 32.4254, 11.823, 12.5486, 113.716, -48.864
8.00794, 105, 39.642, 32.43, 11.824, 12.5492, 113.716, -48.8633
8.01589, 105, 39.6421, 32.4329, 11.8248, 12.5495, 113.717, -48.8632
8.02395, 105, 39.6417, 32.4347, 11.8255, 12.5496, 113.717, -48.8634
8.03193, 105, 39.6413, 32.436, 11.8261, 12.5497, 113.717, -48.8636
8.0399, 105, 39.6408, 32.4371, 11.8266, 12.5497, 113.717, -48.8639
8.04798, 105, 39.6402, 32.4379, 11.827, 12.5498, 113.717, -48.8642
8.05589, 105, 39.6398, 32.4386, 11.8275, 12.5498, 113.717, -48.8646
8.0639, 105, 39.6394, 32.4395, 11.8281, 12.5498, 113.717, -48.8649
8.07195, 105, 39.639, 32.4404, 11.8286, 12.5498, 113.717, -48.8652
8.07989, 105, 39.6387, 32.4413, 11.8291, 12.5498, 113.717, -48.8656
8.0879, 105, 39.6384, 32.4421, 11.8296, 12.5497, 113.717, -48.8658
8.09603, 105, 39.638, 32.4428, 11.8299, 12.5496, 113.717, -48.8662
8.10389, 105, 39.6377, 32.4433, 11.8303, 12.5497, 113.717, -48.8664
8.11294, 105, 39.6374, 32.4436, 11.8305, 12.5497, 113.716, -48.8666
8.11996, 105, 39.6371, 32.4437, 11.8308, 12.5497, 113.716, -48.8669
