hehonglu123/Motion-Primitive-Planning/realrobot/recorded_data/repeatibility/from_NX/v800_iteration0.csv
timestamp, cmd_num, J1, J2, J3, J4, J5, J6
0.000384, -1, 39.6326, 32.4436, 11.8322, 12.5483, 113.716, -48.8695
0.003754, -1, 39.6326, 32.4436, 11.8322, 12.5483, 113.716, -48.8695
0.027905, -1, 39.6326, 32.4436, 11.8322, 12.5483, 113.716, -48.8695
0.029163, -1, 39.6326, 32.4436, 11.8322, 12.5483, 113.716, -48.8695
0.031299, -1, 39.6325, 32.4436, 11.8322, 12.5483, 113.716, -48.8695
0.03428, -1, 39.6325, 32.4436, 11.8322, 12.5483, 113.716, -48.8695
0.03949, -1, 39.6325, 32.4436, 11.8322, 12.5483, 113.716, -48.8695
0.047415, -1, 39.6323, 32.4436, 11.8322, 12.5483, 113.716, -48.8696
0.192031, -1, 38.3437, 31.7865, 12.0859, 12.5584, 113.044, -50.5868
0.19335, -1, 38.3437, 31.7865, 12.0859, 12.5584, 113.044, -50.5868
0.194559, -1, 38.3437, 31.7865, 12.0859, 12.5584, 113.044, -50.5868
0.197249, -1, 38.2567, 31.741, 12.1054, 12.5596, 112.994, -50.7118
0.198516, -1, 38.2567, 31.741, 12.1054, 12.5596, 112.994, -50.7118
0.200589, -1, 38.1682, 31.6947, 12.125, 12.5607, 112.945, -50.8381
0.201773, -1, 38.1682, 31.6947, 12.125, 12.5607, 112.945, -50.8381
0.204544, -1, 38.0783, 31.6478, 12.1445, 12.5619, 112.894, -50.9652
0.205853, -1, 38.0783, 31.6478, 12.1445, 12.5619, 112.894, -50.9652
0.208538, -1, 38.0783, 31.6478, 12.1445, 12.5631, 112.844, -51.0932
0.209808, -1, 37.9871, 31.6004, 12.164, 12.5631, 112.844, -51.0932
0.210981, -1, 37.9871, 31.6004, 12.164, 12.5631, 112.844, -51.0932
0.213048, -1, 37.8947, 31.5525, 12.1834, 12.5643, 112.793, -51.2221
0.214359, -1, 37.8947, 31.5525, 12.1834, 12.5643, 112.793, -51.2221
0.216325, -1, 37.8013, 31.5042, 12.2028, 12.5654, 112.742, -51.3512
0.218253, -1, 37.8013, 31.5042, 12.2028, 12.5654, 112.742, -51.3512
0.220067, -1, 37.7071, 31.4557, 12.2222, 12.5666, 112.691, -51.4805
0.22286, -1, 37.7071, 31.4557, 12.2222, 12.5666, 112.691, -51.4805
0.224961, -1, 37.6123, 31.4069, 12.2416, 12.5678, 112.64, -51.6101
0.226154, -1, 37.6123, 31.4069, 12.2416, 12.5678, 112.64, -51.6101
0.228032, -1, 37.5169, 31.358, 12.2609, 12.569, 112.588, -51.7399
0.229538, -1, 37.5169, 31.358, 12.2609, 12.569, 112.588, -51.7399
0.236574, -1, 37.3253, 31.2602, 12.2997, 12.5715, 112.486, -51.9994
0.240144, -1, 37.2293, 31.2112, 12.3191, 12.5727, 112.434, -52.1292
0.248023, -1, 37.1332, 31.1135, 12.3579, 12.5752, 112.331, -52.3891
0.256796, -1, 36.9409, 31.0646, 12.3773, 12.5766, 112.28, -52.6493
0.264002, -1, 36.749, 30.9669, 12.4161, 12.5791, 112.177, -52.9098
0.271401, -1, 36.5574, 30.8693, 12.455, 12.5817, 112.074, -53.04
0.279403, -1, 36.3659, 30.7716, 12.4938, 12.5844, 111.971, -53.3003
0.287443, -1, 36.1744, 30.6737, 12.5326, 12.587, 111.868, -53.5607
0.295432, -1, 35.9829, 30.5758, 12.5715, 12.5896, 111.765, -53.8212
0.303395, -1, 35.7915, 30.4778, 12.6104, 12.5922, 111.662, -54.0819
0.31146, -1, 35.5997, 30.3798, 12.6493, 12.5947, 111.559, -54.3421
0.319396, -1, 35.4076, 30.2815, 12.6881, 12.5974, 111.456, -54.6025
0.327447, -1, 35.2152, 30.1832, 12.7269, 12.6, 111.353, -54.8631
0.335395, -1, 35.0228, 30.0849, 12.7658, 12.6025, 111.25, -55.1239
0.345769, -1, 34.7343, 29.9372, 12.8241, 12.6066, 111.095, -55.5148
0.351459, -1, 34.6381, 29.8879, 12.8435, 12.6078, 111.043, -55.6452
0.359388, -1, 34.4457, 29.7895, 12.8825, 12.6104, 110.941, -55.906
0.369967, -1, 34.1576, 29.642, 12.9408, 12.6143, 110.786, -56.2975
0.377191, -1, 34.0616, 29.5437, 12.9798, 12.617, 110.683, -56.5583
0.383392, -1, 33.8698, 29.4946, 12.9993, 12.6183, 110.631, -56.6886
0.392403, -1, 33.678, 29.3963, 13.0381, 12.621, 110.528, -56.9495
0.399463, -1, 33.486, 29.298, 13.077, 12.6237, 110.425, -57.2107
0.408454, -1, 33.2936, 29.1995, 13.116, 12.6264, 110.322, -57.4717
0.415396, -1, 33.101, 29.1009, 13.1548, 12.629, 110.219, -57.7327
0.42346, -1, 32.9082, 29.0024, 13.1937, 12.6316, 110.116, -57.9938
0.431435, -1, 32.715, 28.9038, 13.2326, 12.6343, 110.013, -58.255
0.439398, -1, 32.5216, 28.8052, 13.2715, 12.637, 109.91, -58.5163
0.447404, -1, 32.3278, 28.7064, 13.3103, 12.6397, 109.807, -58.7773
0.455377, -1, 32.1337, 28.6077, 13.3493, 12.6424, 109.704, -59.0384
0.463515, -1, 31.9397, 28.5089, 13.3881, 12.6452, 109.6, -59.2997
0.471392, -1, 31.7458, 28.4101, 13.4271, 12.6479, 109.497, -59.5612
0.47939, -1, 31.5522, 28.3113, 13.4661, 12.6507, 109.394, -59.8224
0.487481, -1, 31.3589, 28.2127, 13.505, 12.6536, 109.291, -60.0836
0.495389, -1, 31.1661, 28.1142, 13.544, 12.6563, 109.188, -60.3449
0.5034, -1, 30.9736, 28.0157, 13.5831, 12.6592, 109.085, -60.6065
0.511466, -1, 30.7814, 27.9172, 13.622, 12.6621, 108.982, -60.8677
0.51939, -1, 30.5894, 27.8186, 13.661, 12.6649, 108.878, -61.129
0.527401, -1, 30.3974, 27.72, 13.7, 12.6677, 108.775, -61.3905
0.535469, -1, 30.2054, 27.6212, 13.7389, 12.6704, 108.672, -61.6521
0.543391, -1, 30.013, 27.5225, 13.778, 12.6731, 108.569, -61.9138
0.55139, -1, 29.8202, 27.4238, 13.8169, 12.6758, 108.466, -62.1754
0.55957, -1, 29.6269, 27.325, 13.8558, 12.6785, 108.362, -62.437
0.567399, -1, 29.433, 27.2262, 13.8947, 12.681, 108.259, -62.6989
0.575396, -1, 29.2389, 27.1274, 13.9337, 12.6836, 108.156, -62.9607
0.58463, -1, 29.0447, 27.0285, 13.9726, 12.686, 108.052, -63.2221
0.591474, -1, 28.8502, 26.9295, 14.0116, 12.6886, 107.949, -63.4836
0.599851, -1, 28.656, 26.8306, 14.0505, 12.691, 107.845, -63.7452
0.607498, -1, 28.4619, 26.7318, 14.0896, 12.6935, 107.742, -64.007
0.615572, -1, 28.2682, 26.6331, 14.1287, 12.696, 107.639, -64.2686
0.623886, -1, 28.0751, 26.5344, 14.1676, 12.6983, 107.535, -64.5302
0.631544, -1, 27.8821, 26.4355, 14.2066, 12.7008, 107.432, -64.792
0.63963, -1, 27.6893, 26.3367, 14.2456, 12.7032, 107.329, -65.0538
0.775379, -1, 24.5006, 24.7058, 14.8886, 12.7414, 105.625, -69.372
0.778215, -1, 24.4045, 24.6563, 14.9081, 12.7426, 105.573, -69.5029
0.779446, -1, 24.4045, 24.6563, 14.9081, 12.7426, 105.573, -69.5029
0.781536, -1, 24.3083, 24.6068, 14.9276, 12.7438, 105.522, -69.6337
0.782739, -1, 24.3083, 24.6068, 14.9276, 12.7438, 105.522, -69.6337
0.784727, -1, 24.2121, 24.5574, 14.9471, 12.745, 105.47, -69.7645
0.785934, -1, 24.2121, 24.5574, 14.9471, 12.745, 105.47, -69.7645
0.788743, -1, 24.1158, 24.508, 14.9666, 12.7462, 105.418, -69.8952
0.79023, -1, 24.1158, 24.508, 14.9666, 12.7462, 105.418, -69.8952
0.791408, -1, 24.1158, 24.508, 14.9666, 12.7462, 105.418, -69.8952
0.794268, -1, 24.0194, 24.4586, 14.9861, 12.7474, 105.367, -70.0259
0.795445, -1, 24.0194, 24.4586, 14.9861, 12.7474, 105.367, -70.0259
0.797483, -1, 23.923, 24.4092, 15.0056, 12.7486, 105.315, -70.1568
0.798677, -1, 23.923, 24.4092, 15.0056, 12.7486, 105.315, -70.1568
0.800658, -1, 23.8266, 24.3598, 15.0251, 12.7498, 105.263, -70.2876
0.804902, -1, 23.7302, 24.3104, 15.0445, 12.751, 105.212, -70.4185
0.806207, -1, 23.7302, 24.3104, 15.0445, 12.751, 105.212, -70.4185
0.807401, -1, 23.7302, 24.3104, 15.0445, 12.751, 105.212, -70.4185
0.809468, -1, 23.6337, 24.261, 15.0639, 12.7522, 105.16, -70.5494
0.810831, -1, 23.6337, 24.261, 15.0639, 12.7522, 105.16, -70.5494
0.813092, -1, 23.5371, 24.2116, 15.0834, 12.7534, 105.108, -70.6803
0.817557, -1, 23.4405, 24.1621, 15.1029, 12.7546, 105.057, -70.8112
0.823426, -1, 23.3436, 24.1127, 15.1224, 12.7558, 105.005, -70.942
0.832891, -1, 23.0527, 23.9643, 15.1807, 12.7594, 104.85, -71.3347
0.841767, -1, 22.8587, 23.8654, 15.2196, 12.7619, 104.746, -71.5966
0.847432, -1, 22.7617, 23.816, 15.2391, 12.7632, 104.695, -71.7275
0.856997, -1, 22.4709, 23.668, 15.2975, 12.7669, 104.54, -72.12
0.863368, -1, 22.3741, 23.6186, 15.3171, 12.7681, 104.488, -72.2506
0.871445, -1, 22.1808, 23.52, 15.356, 12.7707, 104.385, -72.5119
0.881019, -1, 21.8913, 23.372, 15.4144, 12.7746, 104.23, -72.9044
0.887381, -1, 21.7949, 23.3226, 15.4339, 12.776, 104.178, -73.0351
0.896378, -1, 21.6027, 23.2238, 15.4729, 12.7787, 104.075, -73.2964
0.903365, -1, 21.4106, 23.1251, 15.5117, 12.7814, 103.972, -73.5578
0.912392, -1, 21.2183, 23.0264, 15.5508, 12.784, 103.869, -73.8194
0.919438, -1, 21.0259, 22.9278, 15.5897, 12.7867, 103.765, -74.0807
0.927385, -1, 20.8334, 22.8292, 15.6286, 12.7895, 103.662, -74.3419
0.935409, -1, 20.6409, 22.7306, 15.6676, 12.7922, 103.559, -74.6032
0.943395, -1, 20.4481, 22.6319, 15.7064, 12.7949, 103.456, -74.8645
0.951381, -1, 20.2546, 22.5333, 15.7453, 12.7976, 103.353, -75.126
0.959473, -1, 20.0608, 22.4345, 15.7843, 12.8003, 103.25, -75.387
0.967399, -1, 19.8671, 22.3358, 15.8231, 12.8031, 103.147, -75.6482
0.975377, -1, 19.6735, 22.2372, 15.8619, 12.8058, 103.044, -75.9094
0.983439, -1, 19.4798, 22.1385, 15.9008, 12.8086, 102.941, -76.1707
0.991369, -1, 19.2866, 22.0399, 15.9396, 12.8113, 102.838, -76.4317
0.999424, -1, 19.0937, 21.9413, 15.9785, 12.814, 102.735, -76.6926
1.00744, -1, 18.9011, 21.8427, 16.0174, 12.8167, 102.632, -76.9536
1.01537, -1, 18.7088, 21.7439, 16.0562, 12.8194, 102.529, -77.2146
1.02338, -1, 18.517, 21.6453, 16.095, 12.8221, 102.426, -77.4755
1.03144, -1, 18.3251, 21.5468, 16.134, 12.8247, 102.323, -77.7361
1.03938, -1, 18.1332, 21.4483, 16.1727, 12.8272, 102.22, -77.9968
1.04738, -1, 17.9414, 21.3499, 16.2116, 12.8297, 102.117, -78.2576
1.05544, -1, 17.7495, 21.2516, 16.2505, 12.8322, 102.014, -78.5183
1.06337, -1, 17.5572, 21.1533, 16.2893, 12.8347, 101.912, -78.7788
1.07153, -1, 17.3646, 21.055, 16.3282, 12.8371, 101.809, -79.0393
1.07939, -1, 17.1715, 20.9567, 16.3669, 12.8394, 101.705, -79.2999
1.0874, -1, 16.9784, 20.8584, 16.4057, 12.8418, 101.603, -79.5606
1.0957, -1, 16.7853, 20.7602, 16.4445, 12.8441, 101.5, -79.821
1.10349, -1, 16.5922, 20.662, 16.4833, 12.8464, 101.397, -80.0816
1.11146, -1, 16.3991, 20.5637, 16.5219, 12.8488, 101.295, -80.3421
1.11988, -1, 16.2066, 20.4654, 16.5606, 12.851, 101.192, -80.6027
1.12753, -1, 16.0145, 20.3671, 16.5994, 12.8533, 101.089, -80.863
1.13553, -1, 15.8227, 20.2686, 16.6381, 12.8556, 100.987, -81.123
1.14408, -1, 15.6312, 20.1702, 16.6768, 12.858, 100.884, -81.3831
1.15244, -1, 15.44, 20.0719, 16.7154, 12.8604, 100.781, -81.6433
1.1594, -1, 15.2489, 19.9736, 16.7542, 12.8627, 100.679, -81.9033
1.16827, -1, 15.0578, 19.8754, 16.7929, 12.8649, 100.576, -82.163
1.17556, -1, 14.8666, 19.7773, 16.8316, 12.8672, 100.473, -82.4227
1.18355, -1, 14.6752, 19.6792, 16.8703, 12.8694, 100.371, -82.6827
1.19259, -1, 14.4835, 19.581, 16.909, 12.8718, 100.268, -82.9426
1.19994, -1, 14.2914, 19.4829, 16.9476, 12.8741, 100.166, -83.2023
1.20843, -1, 14.099, 19.3849, 16.9864, 12.8763, 100.063, -83.4618
1.21668, -1, 13.9066, 19.2869, 17.025, 12.8786, 99.9606, -83.7215
1.2239, -1, 13.714, 19.1891, 17.0635, 12.8809, 99.8583, -83.9812
1.2325, -1, 13.5215, 19.0913, 17.1023, 12.8832, 99.7556, -84.2405
1.24081, -1, 13.3292, 18.9934, 17.1409, 12.8855, 99.6532, -84.4998
1.24812, -1, 13.1375, 18.8955, 17.1794, 12.8878, 99.551, -84.7592
1.25616, -1, 12.9461, 18.7976, 17.218, 12.8902, 99.4485, -85.0186
1.26459, -1, 12.8505, 18.7486, 17.2373, 12.8913, 99.3973, -85.1482
1.2714, -1, 12.6596, 18.6507, 17.2758, 12.8937, 99.2952, -85.4072
1.27941, -1, 12.4689, 18.5529, 17.3144, 12.8962, 99.1928, -85.6661
1.28923, -1, 12.1838, 18.4063, 17.3722, 12.8998, 99.0395, -86.0547
1.29538, -1, 12.0887, 18.3575, 17.3915, 12.901, 98.9886, -86.1841
1.30344, -1, 11.8985, 18.2599, 17.4301, 12.9035, 98.8863, -86.4428
1.31138, -1, 11.708, 18.1622, 17.4687, 12.9059, 98.7844, -86.7013
1.32081, -1, 11.4217, 18.0157, 17.5265, 12.9095, 98.6315, -87.0892
1.32881, -1, 11.2305, 17.9182, 17.5651, 12.912, 98.5296, -87.3479
1.33537, -1, 11.1348, 17.8694, 17.5844, 12.9132, 98.4787, -87.4771
1.34521, -1, 10.8474, 17.7232, 17.6421, 12.917, 98.3259, -87.8645
1.35137, -1, 10.7515, 17.6745, 17.6614, 12.9183, 98.2748, -87.9937
1.36092, -1, 10.4641, 17.5282, 17.719, 12.9221, 98.1221, -88.3812
1.36741, -1, 10.3685, 17.4795, 17.7382, 12.9234, 98.0711, -88.5103
1.37708, -1, 10.0821, 17.3332, 17.7959, 12.9272, 97.9182, -88.8974
1.38337, -1, 9.98685, 17.2844, 17.8151, 12.9286, 97.8674, -89.0265
1.39143, -1, 9.79652, 17.1869, 17.8534, 12.9311, 97.7654, -89.2847
1.40102, -1, 9.6066, 17.0894, 17.8918, 12.9339, 97.6635, -89.6717
1.40736, -1, 9.41729, 16.9921, 17.9301, 12.9367, 97.5617, -89.8005
1.41542, -1, 9.22812, 16.8947, 17.9684, 12.9393, 97.4597, -90.0581
1.42335, -1, 9.03884, 16.7975, 18.0069, 12.942, 97.3579, -90.3155
1.43138, -1, 8.84938, 16.7003, 18.0452, 12.9447, 97.2563, -90.5731
1.43946, -1, 8.65987, 16.6031, 18.0836, 12.9473, 97.1544, -90.8306
1.44745, -1, 8.47028, 16.506, 18.122, 12.95, 97.0528, -91.0876
1.45543, -1, 8.28025, 16.4089, 18.1603, 12.9527, 96.9514, -91.3447
1.46339, -1, 8.08973, 16.312, 18.1986, 12.9552, 96.8496, -91.602
1.4714, -1, 7.89914, 16.2151, 18.2369, 12.9579, 96.7481, -91.859
1.47944, -1, 7.70855, 16.1182, 18.2751, 12.9605, 96.6468, -92.1159
1.48735, -1, 7.518, 16.0213, 18.3135, 12.963, 96.5453, -92.3727
1.49536, -1, 7.3277, 15.9244, 18.3517, 12.9655, 96.444, -92.6294
1.50343, -1, 7.13758, 15.8275, 18.3898, 12.9681, 96.3428, -92.8863
1.5114, -1, 6.94793, 15.7305, 18.4282, 12.9706, 96.2414, -93.1428
1.51936, -1, 6.75876, 15.6336, 18.4664, 12.973, 96.1403, -93.3991
1.52743, -1, 6.57012, 15.5368, 18.5044, 12.9756, 96.0395, -93.6556
1.53535, -1, 6.38185, 15.4401, 18.5426, 12.9781, 95.9384, -93.912
1.54336, -1, 6.1938, 15.3433, 18.5808, 12.9806, 95.8375, -94.1681
1.55144, -1, 6.00569, 15.2467, 18.6189, 12.983, 95.7367, -94.424
1.55935, -1, 5.81735, 15.1499, 18.6571, 12.9852, 95.6357, -94.6799
1.5674, -1, 5.62894, 15.0532, 18.6952, 12.9875, 95.5349, -94.936
1.57562, -1, 5.44035, 14.9566, 18.7332, 12.9898, 95.4341, -95.1917
1.58337, -1, 5.25137, 14.8601, 18.7714, 12.9921, 95.3332, -95.4472
1.59162, -1, 5.06205, 14.7637, 18.8095, 12.9943, 95.2327, -95.7027
1.6002, -1, 4.87255, 14.6674, 18.8475, 12.9966, 95.1319, -95.9582
1.60748, -1, 4.68321, 14.571, 18.8856, 12.9987, 95.031, -96.2137
1.61574, -1, 4.49376, 14.4748, 18.9237, 13.0008, 94.9304, -96.4688
1.62463, -1, 4.30457, 14.3784, 18.9617, 13.0031, 94.8296, -96.7237
1.6315, -1, 4.11568, 14.282, 18.9997, 13.0053, 94.7287, -96.9786
1.64015, -1, 3.92733, 14.1857, 19.0376, 13.0076, 94.6281, -97.2338
1.64736, -1, 3.7396, 14.0896, 19.0756, 13.0098, 94.5272, -97.4886
1.65539, -1, 3.55225, 13.9933, 19.1136, 13.0121, 94.4264, -97.7433
1.66346, -1, 3.36528, 13.8973, 19.1514, 13.0144, 94.3259, -97.998
1.67142, -1, 3.17831, 13.8013, 19.1892, 13.0167, 94.225, -98.2529
1.67949, -1, 2.99137, 13.7052, 19.2271, 13.0189, 94.1244, -98.5075
1.68765, -1, 2.80442, 13.6092, 19.2651, 13.0212, 94.024, -98.7617
1.6956, -1, 2.61728, 13.5132, 19.303, 13.0235, 93.9233, -99.0159
1.70367, -1, 2.42995, 13.4172, 19.3408, 13.0258, 93.8228, -99.27
1.71185, -1, 2.24235, 13.3214, 19.3786, 13.0281, 93.7226, -99.524
1.72128, -1, 2.05423, 13.2256, 19.4165, 13.0303, 93.6221, -99.7777
1.72786, -1, 1.86608, 13.1298, 19.4543, 13.0326, 93.5221, -100.031
1.73597, -1, 1.67781, 13.034, 19.492, 13.0349, 93.4222, -100.285
1.7439, -1, 1.48953, 12.9383, 19.5298, 13.037, 93.322, -100.539
1.75191, -1, 1.3015, 12.8424, 19.5676, 13.0394, 93.222, -100.792
1.76046, -1, 1.11381, 12.7467, 19.6053, 13.0417, 93.122, -101.045
1.76787, -1, 1.02021, 12.6988, 19.6242, 13.0429, 93.072, -101.172
1.77537, -1, 0.833597, 12.6033, 19.6619, 13.0453, 92.9721, -101.425
1.78439, -1, 0.554135, 12.4599, 19.7183, 13.049, 92.8225, -101.804
1.79135, -1, 0.461195, 12.4122, 19.7371, 13.0502, 92.7725, -101.931
1.79937, -1, 0.275538, 12.3169, 19.7748, 13.0527, 92.6727, -102.183
1.80743, -1, 0.0902089, 12.2215, 19.8124, 13.0552, 92.5735, -102.436
1.81534, -1, -0.0951345, 12.1262, 19.8499, 13.0576, 92.4738, -102.689
1.82347, -1, -0.280754, 12.0309, 19.8876, 13.06, 92.3743, -102.941
1.83134, -1, -0.466641, 11.9357, 19.9252, 13.0626, 92.275, -103.193
1.83934, -1, -0.652842, 11.8407, 19.9627, 13.065, 92.1755, -103.445
1.84946, -1, -0.93249, 11.6982, 20.019, 13.0688, 92.0264, -103.823
1.85534, -1, -1.02583, 11.6507, 20.0377, 13.07, 91.9768, -103.949
1.8649, -1, -1.30634, 11.5081, 20.094, 13.0738, 91.8276, -104.327
1.87135, -1, -1.39982, 11.4606, 20.1128, 13.075, 91.778, -104.453
1.881, -1, -1.6799, 11.3179, 20.1688, 13.0788, 91.6292, -104.83
1.88738, -1, -1.77307, 11.2704, 20.1875, 13.0801, 91.5796, -104.956
1.89692, -1, -1.95913, 11.1754, 20.225, 13.0827, 91.4805, -105.333
1.9044, -1, -2.14453, 11.0805, 20.2624, 13.0854, 91.3814, -105.458
1.91139, -1, -2.32959, 10.9855, 20.2998, 13.088, 91.2822, -105.709
1.91935, -1, -2.51428, 10.8907, 20.3372, 13.0907, 91.1831, -105.96
1.92734, -1, -2.69838, 10.796, 20.3744, 13.0934, 91.0841, -106.211
1.9354, -1, -2.88214, 10.7013, 20.4118, 13.096, 90.985, -106.462
1.94339, -1, -3.06609, 10.6065, 20.4492, 13.0986, 90.8859, -106.713
1.95139, -1, -3.25028, 10.5119, 20.4865, 13.1012, 90.787, -106.963
1.9594, -1, -3.43472, 10.4174, 20.5237, 13.1037, 90.6881, -107.214
1.96744, -1, -3.61938, 10.323, 20.561, 13.1062, 90.5893, -107.464
1.97538, -1, -3.80434, 10.2286, 20.5983, 13.1087, 90.4905, -107.714
1.9834, -1, -3.98969, 10.1343, 20.6355, 13.1111, 90.3917, -107.964
1.99134, -1, -4.17502, 10.04, 20.6727, 13.1135, 90.2932, -108.214
1.99946, -1, -4.3606, 9.94576, 20.7098, 13.1159, 90.1945, -108.464
2.00733, -1, -4.54605, 9.85141, 20.7471, 13.1182, 90.0957, -108.714
2.0154, -1, -4.73124, 9.75716, 20.7844, 13.1205, 89.9973, -108.963
2.02334, -1, -4.91604, 9.66301, 20.8215, 13.1229, 89.8988, -109.212
2.03136, -1, -5.10017, 9.56895, 20.8586, 13.1253, 89.8003, -109.462
2.03941, -1, -5.28369, 9.47487, 20.8957, 13.1276, 89.7021, -109.711
2.04734, -1, -5.46695, 9.38092, 20.9328, 13.1299, 89.6037, -109.96
2.05533, -1, -5.6496, 9.28704, 20.9699, 13.1322, 89.5054, -110.209
2.0634, -1, -5.83189, 9.19311, 21.007, 13.1345, 89.4075, -110.458
2.07152, -1, -6.01427, 9.09924, 21.0439, 13.1368, 89.3092, -110.706
2.07935, -1, -6.19684, 9.00539, 21.081, 13.1389, 89.2109, -110.955
2.08743, -1, -6.37969, 8.9117, 21.1181, 13.1411, 89.1132, -111.203
2.09572, -1, -6.56275, 8.81805, 21.1549, 13.1432, 89.0152, -111.451
2.10342, -1, -6.74609, 8.72442, 21.1918, 13.1454, 88.9172, -111.7
2.11154, -1, -6.92988, 8.63082, 21.2287, 13.1476, 88.8195, -111.948
2.1199, -1, -7.11385, 8.53727, 21.2656, 13.1497, 88.7216, -112.195
2.12834, -1, -7.29805, 8.44368, 21.3024, 13.1518, 88.6239, -112.443
2.13554, -1, -7.48198, 8.35004, 21.3394, 13.1539, 88.5262, -112.69
2.14399, -1, -7.66569, 8.25652, 21.3761, 13.1561, 88.4285, -112.938
2.15234, -1, -7.84909, 8.16309, 21.413, 13.1582, 88.3309, -113.185
2.15943, -1, -8.03196, 8.06972, 21.4498, 13.1605, 88.2336, -113.432
2.16838, -1, -8.21417, 7.97647, 21.4866, 13.1627, 88.1362, -113.679
2.17542, -1, -8.39578, 7.88324, 21.5233, 13.165, 88.0387, -113.927
2.18358, -1, -8.57695, 7.79, 21.5602, 13.1673, 87.9415, -114.173
2.19242, -1, -8.7578, 7.69686, 21.5969, 13.1696, 87.8441, -114.42
2.19964, -1, -8.93852, 7.60372, 21.6337, 13.1718, 87.7466, -114.666
2.20776, -1, -9.1195, 7.51067, 21.6705, 13.174, 87.6495, -114.913
2.21676, -1, -9.30066, 7.41776, 21.7071, 13.1763, 87.5522, -115.159
2.22388, -1, -9.48204, 7.32497, 21.7437, 13.1784, 87.455, -115.405
2.23243, -1, -9.66376, 7.23211, 21.7805, 13.1807, 87.358, -115.652
2.24074, -1, -9.84595, 7.13937, 21.817, 13.1829, 87.2607, -115.898
2.24789, -1, -10.0285, 7.04666, 21.8535, 13.1851, 87.1636, -116.144
2.25646, -1, -10.211, 6.95389, 21.8902, 13.1874, 87.0665, -116.39
2.26493, -1, -10.3024, 6.9075, 21.9085, 13.1885, 86.9693, -116.635
2.27235, -1, -10.5761, 6.76839, 21.9633, 13.1917, 86.8722, -116.881
2.27993, -1, -10.6672, 6.72205, 21.9816, 13.1929, 86.8237, -117.003
2.28921, -1, -10.9397, 6.58317, 22.0362, 13.1965, 86.6782, -117.371
2.29532, -1, -11.0303, 6.53687, 22.0544, 13.1977, 86.6298, -117.494
2.30453, -1, -11.3007, 6.39814, 22.1093, 13.2013, 86.4848, -117.861
2.31137, -1, -11.3906, 6.35191, 22.1275, 13.2026, 86.4364, -117.984
2.32056, -1, -11.6598, 6.21325, 22.1821, 13.2063, 86.2913, -118.351
2.32732, -1, -11.7495, 6.16703, 22.2004, 13.2075, 86.243, -118.473
2.33532, -1, -11.9289, 6.07474, 22.2369, 13.21, 86.1465, -118.718
2.34338, -1, -12.1082, 5.98252, 22.2732, 13.2124, 86.0499, -118.962
2.35291, -1, -12.3775, 5.84445, 22.3279, 13.2161, 85.9054, -119.328
2.36175, -1, -12.5576, 5.75241, 22.3642, 13.2186, 85.809, -119.572
2.36744, -1, -12.6477, 5.70642, 22.3823, 13.2199, 85.7608, -119.694
2.37692, -1, -12.9188, 5.56854, 22.4369, 13.2235, 85.6167, -120.06
2.38584, -1, -13.0998, 5.47661, 22.4731, 13.226, 85.5207, -120.304
2.39139, -1, -13.1904, 5.43061, 22.4912, 13.2272, 85.4728, -120.425
2.40034, -1, -13.3717, 5.33859, 22.5275, 13.2296, 85.3768, -120.669
2.40839, -1, -13.5526, 5.2467, 22.5638, 13.2321, 85.2813, -120.912
2.41532, -1, -13.7331, 5.15486, 22.5999, 13.2347, 85.1853, -121.155
2.42409, -1, -13.9131, 5.06299, 22.636, 13.2372, 85.0896, -121.398
2.43131, -1, -14.0921, 4.97125, 22.6722, 13.2398, 84.9942, -121.641
2.43932, -1, -14.2705, 4.87955, 22.7083, 13.2424, 84.8984, -121.884
2.44814, -1, -14.4487, 4.7879, 22.7445, 13.2449, 84.8027, -122.126
2.45532, -1, -14.6265, 4.69624, 22.7808, 13.2474, 84.7073, -122.369
2.46332, -1, -14.8041, 4.60471, 22.8168, 13.2499, 84.6114, -122.611
2.47221, -1, -14.9818, 4.51324, 22.8529, 13.2523, 84.5157, -122.854
2.47935, -1, -15.1596, 4.42192, 22.8892, 13.2548, 84.4203, -123.096
2.48733, -1, -15.3378, 4.33066, 22.9252, 13.2572, 84.3246, -123.338
2.4961, -1, -15.5164, 4.23938, 22.9612, 13.2595, 84.2289, -123.58
2.50439, -1, -15.6955, 4.14815, 22.9973, 13.2618, 84.1336, -123.822
2.51131, -1, -15.8746, 4.05694, 23.0332, 13.2641, 84.0379, -124.063
2.52013, -1, -16.054, 3.9657, 23.0692, 13.2662, 83.9424, -124.305
2.52733, -1, -16.2338, 3.87442, 23.1053, 13.2683, 83.8472, -124.546
2.53535, -1, -16.4135, 3.78324, 23.1411, 13.2705, 83.7515, -124.788
2.5447, -1, -16.5927, 3.69209, 23.1769, 13.2726, 83.656, -125.029
2.55131, -1, -16.7715, 3.60094, 23.2128, 13.2749, 83.5609, -125.27
2.55938, -1, -16.9495, 3.50993, 23.2487, 13.2771, 83.4653, -125.511
2.56733, -1, -17.1266, 3.41898, 23.2845, 13.2793, 83.37, -125.752
2.57532, -1, -17.3033, 3.32805, 23.3204, 13.2815, 83.275, -125.993
2.58338, -1, -17.4798, 3.23719, 23.3562, 13.2837, 83.1798, -126.233
2.59145, -1, -17.656, 3.14643, 23.3919, 13.2858, 83.0848, -126.473
2.59939, -1, -17.8319, 3.05583, 23.4279, 13.2879, 82.9901, -126.714
2.60748, -1, -18.008, 2.96528, 23.4637, 13.29, 82.8951, -126.954
2.61569, -1, -18.1844, 2.8749, 23.4994, 13.2921, 82.8002, -127.194
2.62342, -1, -18.3611, 2.7845, 23.5352, 13.2942, 82.7057, -127.434
2.63149, -1, -18.5382, 2.69414, 23.5709, 13.2963, 82.611, -127.674
2.63984, -1, -18.7158, 2.60378, 23.6065, 13.2984, 82.5165, -127.913
2.64742, -1, -18.8936, 2.5134, 23.6423, 13.3004, 82.4221, -128.153
2.6554, -1, -19.0718, 2.42293, 23.6779, 13.3023, 82.3275, -128.392
2.66488, -1, -19.25, 2.3326, 23.7135, 13.3043, 82.2331, -128.632
2.67136, -1, -19.428, 2.24222, 23.7491, 13.3064, 82.139, -128.871
2.67945, -1, -19.6055, 2.15183, 23.7847, 13.3086, 82.0449, -129.11
2.68909, -1, -19.7823, 2.06154, 23.8201, 13.3107, 81.9507, -129.349
2.69632, -1, -19.9585, 1.97127, 23.8556, 13.3129, 81.8566, -129.588
2.7037, -1, -20.1341, 1.88105, 23.8912, 13.315, 81.7627, -129.826
2.71322, -1, -20.3091, 1.79091, 23.9266, 13.3173, 81.6686, -130.065
2.71973, -1, -20.4838, 1.7008, 23.9621, 13.3195, 81.5746, -130.303
2.72792, -1, -20.6582, 1.61079, 23.9977, 13.3217, 81.4808, -130.541
2.73661, -1, -20.8327, 1.52086, 24.0332, 13.3238, 81.3867, -130.779
2.74386, -1, -21.0075, 1.43106, 24.0686, 13.3261, 81.2929, -131.017
2.75247, -1, -21.1826, 1.34134, 24.1042, 13.3283, 81.1993, -131.255
2.76152, -1, -21.3581, 1.25159, 24.1396, 13.3304, 81.1054, -131.493
2.76798, -1, -21.446, 1.20676, 24.1749, 13.3327, 81.0114, -131.731
2.77649, -1, -21.7101, 1.07236, 24.2104, 13.3348, 80.9179, -131.968
2.78334, -1, -21.7982, 1.02754, 24.2281, 13.3358, 80.8709, -132.087
2.7933, -1, -22.0628, 0.893124, 24.2811, 13.3391, 80.7303, -132.443
2.7993, -1, -22.1512, 0.848361, 24.2988, 13.3401, 80.6835, -132.561
2.80851, -1, -22.4159, 0.714125, 24.3519, 13.3434, 80.543, -132.917
2.81534, -1, -22.5038, 0.669383, 24.3694, 13.3446, 80.4962, -133.036
2.8233, -1, -22.6794, 0.579918, 24.4046, 13.347, 80.4026, -133.272
2.83275, -1, -22.9417, 0.445832, 24.4575, 13.3506, 80.2621, -133.628
2.8393, -1, -23.0286, 0.401131, 24.4751, 13.3518, 80.2155, -133.746
2.84877, -1, -23.289, 0.267096, 24.5278, 13.3555, 80.0754, -134.101
2.85692, -1, -23.4621, 0.177813, 24.563, 13.3579, 79.9818, -134.338
2.86482, -1, -23.6352, 0.0886295, 24.5982, 13.3604, 79.8886, -134.574
2.87286, -1, -23.8085, -0.000511704, 24.6333, 13.3627, 79.7954, -134.81
2.88095, -1, -23.9818, -0.0894855, 24.6685, 13.3652, 79.7021, -135.046
2.8873, -1, -24.0686, -0.133961, 24.686, 13.3664, 79.6555, -135.164
2.89683, -1, -24.2424, -0.22295, 24.721, 13.3689, 79.5624, -135.4
2.9049, -1, -24.4164, -0.311859, 24.7562, 13.3713, 79.4694, -135.635
2.9123, -1, -24.5909, -0.400676, 24.7913, 13.3738, 79.3762, -135.871
2.91937, -1, -24.7656, -0.489553, 24.8263, 13.3762, 79.2832, -136.106
2.92837, -1, -24.9407, -0.578429, 24.8614, 13.3785, 79.1903, -136.342
2.9363, -1, -25.1158, -0.667275, 24.8965, 13.3809, 79.0973, -136.577
2.9443, -1, -25.2906, -0.756014, 24.9315, 13.3832, 79.0045, -136.812
2.95231, -1, -25.465, -0.844806, 24.9665, 13.3855, 78.912, -137.047
2.95936, -1, -25.639, -0.933607, 25.0015, 13.3881, 78.819, -137.282
2.9673, -1, -25.8123, -1.02225, 25.0363, 13.3905, 78.7264, -137.517
2.97531, -1, -25.9849, -1.111, 25.0713, 13.3929, 78.634, -137.752
2.9834, -1, -26.1572, -1.19967, 25.1063, 13.3954, 78.5414, -137.986
2.9913, -1, -26.329, -1.28826, 25.1411, 13.3977, 78.4489, -138.221
2.99936, -1, -26.5007, -1.37676, 25.1759, 13.4001, 78.3564, -138.455
3.00736, -1, -26.6726, -1.46513, 25.2109, 13.4022, 78.264, -138.689
3.0153, -1, -26.8447, -1.55342, 25.2458, 13.4045, 78.1717, -138.923
3.02331, -1, -27.017, -1.64155, 25.2806, 13.4067, 78.0792, -139.157
3.03137, -1, -27.1894, -1.72975, 25.3155, 13.4089, 77.9872, -139.391
3.0394, -1, -27.3621, -1.81794, 25.3503, 13.4111, 77.8949, -139.625
3.04731, -1, -27.5351, -1.90597, 25.385, 13.4132, 77.8028, -139.858
3.05537, -1, -27.7083, -1.99415, 25.4199, 13.4152, 77.7109, -140.092
3.0633, -1, -27.8817, -2.08227, 25.4548, 13.4174, 77.6187, -140.325
3.07136, -1, -28.0551, -2.17027, 25.4895, 13.4194, 77.5267, -140.559
3.07931, -1, -28.2283, -2.2583, 25.5242, 13.4214, 77.4349, -140.792
3.08737, -1, -28.4014, -2.3464, 25.559, 13.4234, 77.3427, -141.025
3.09545, -1, -28.574, -2.43441, 25.5937, 13.4255, 77.2506, -141.258
3.10341, -1, -28.7461, -2.52236, 25.6283, 13.4277, 77.1587, -141.491
3.11146, -1, -28.9175, -2.61041, 25.663, 13.4298, 77.0666, -141.724
3.11974, -1, -29.0883, -2.69833, 25.6976, 13.4321, 76.9747, -141.956
3.1274, -1, -29.2587, -2.78613, 25.7322, 13.4342, 76.8829, -142.189
3.13548, -1, -29.4292, -2.87392, 25.7669, 13.4362, 76.7909, -142.421
3.14384, -1, -29.6, -2.96154, 25.8015, 13.4383, 76.6991, -142.654
3.15229, -1, -29.771, -3.04906, 25.836, 13.4403, 76.6074, -142.886
3.15938, -1, -29.942, -3.13656, 25.8707, 13.4424, 76.5156, -143.118
3.16733, -1, -30.1129, -3.22397, 25.9052, 13.4445, 76.4239, -143.35
3.17544, -1, -30.284, -3.31144, 25.9398, 13.4466, 76.3322, -143.582
3.18365, -1, -30.4553, -3.39881, 25.9744, 13.4487, 76.2408, -143.814
3.19148, -1, -30.627, -3.48629, 26.0089, 13.4507, 76.149, -144.046
3.19959, -1, -30.7989, -3.57373, 26.0433, 13.4527, 76.0576, -144.277
3.20765, -1, -30.9708, -3.66109, 26.0779, 13.4547, 75.9663, -144.508
3.21574, -1, -31.1425, -3.74845, 26.1125, 13.4567, 75.8747, -144.74
3.22377, -1, -31.3142, -3.83577, 26.1469, 13.4588, 75.7834, -144.971
3.23239, -1, -31.4854, -3.92308, 26.1813, 13.4608, 75.6923, -145.203
3.23987, -1, -31.656, -4.01033, 26.2158, 13.463, 75.6009, -145.434
3.24847, -1, -31.8262, -4.09757, 26.2502, 13.4652, 75.5098, -145.665
3.25592, -1, -31.996, -4.18479, 26.2846, 13.4674, 75.4188, -145.896
3.26446, -1, -32.1654, -4.27195, 26.3191, 13.4696, 75.3276, -146.126
3.27186, -1, -32.2501, -4.3155, 26.3362, 13.4708, 75.2821, -146.242
3.28044, -1, -32.5043, -4.44597, 26.3876, 13.4739, 75.1457, -146.588
3.28737, -1, -32.5892, -4.48944, 26.4048, 13.475, 75.1004, -146.703
3.29642, -1, -32.8436, -4.61977, 26.4565, 13.4782, 74.964, -147.048
3.30328, -1, -32.9285, -4.66322, 26.4735, 13.4793, 74.9185, -147.163
3.31247, -1, -33.1831, -4.79349, 26.5249, 13.4826, 74.7829, -147.509
3.31933, -1, -33.268, -4.83687, 26.5421, 13.4838, 74.7374, -147.624
3.32729, -1, -33.438, -4.9237, 26.5763, 13.486, 74.6469, -147.854
3.33534, -1, -33.6084, -5.01064, 26.6106, 13.4882, 74.5563, -148.083
3.34473, -1, -33.8638, -5.14081, 26.662, 13.4915, 74.4203, -148.428
3.3529, -1, -34.0341, -5.22752, 26.6961, 13.4938, 74.3298, -148.658
3.3609, -1, -34.2043, -5.3143, 26.7302, 13.496, 74.2394, -148.887
3.36729, -1, -34.2894, -5.35764, 26.7474, 13.4971, 74.1941, -149.002
3.37704, -1, -34.5443, -5.48758, 26.7987, 13.5006, 74.0581, -149.346
3.38328, -1, -34.6289, -5.53092, 26.8157, 13.5018, 74.0129, -149.461
3.39293, -1, -34.7979, -5.61756, 26.8669, 13.5054, 73.8771, -149.804
3.39935, -1, -34.9664, -5.70416, 26.884, 13.5067, 73.8319, -149.919
3.40834, -1, -35.1347, -5.79066, 26.9181, 13.5091, 73.7414, -150.148
3.41634, -1, -35.303, -5.87708, 26.9522, 13.5115, 73.6513, -150.377
3.42329, -1, -35.4714, -5.96331, 26.9863, 13.5139, 73.5608, -150.606
3.43129, -1, -35.6399, -6.04954, 27.0204, 13.5163, 73.4703, -150.834
3.44007, -1, -35.8084, -6.13575, 27.0543, 13.5186, 73.3802, -151.063
3.44728, -1, -35.9769, -6.22183, 27.0885, 13.521, 73.2896, -151.292
3.45532, -1, -36.1454, -6.30796, 27.1225, 13.5235, 73.1993, -151.52
3.46406, -1, -36.314, -6.39411, 27.1565, 13.5258, 73.109, -151.749
3.47128, -1, -36.4829, -6.48033, 27.1905, 13.5282, 73.0187, -151.977
3.47928, -1, -36.6517, -6.5665, 27.2245, 13.5305, 72.9284, -152.205
3.49041, -1, -36.9051, -6.69579, 27.2753, 13.534, 72.7931, -152.547
3.49531, -1, -36.9897, -6.73886, 27.2922, 13.5351, 72.7481, -152.661
3.50328, -1, -37.1586, -6.82502, 27.3262, 13.5373, 72.6579, -152.889
3.51132, -1, -37.3272, -6.91105, 27.3601, 13.5395, 72.568, -153.117
3.51932, -1, -37.4956, -6.99708, 27.394, 13.5418, 72.4782, -153.345
3.52729, -1, -37.6634, -7.0831, 27.428, 13.544, 72.3882, -153.572
3.53532, -1, -37.8311, -7.1691, 27.4618, 13.5462, 72.2984, -153.8
3.54339, -1, -37.9986, -7.25501, 27.4957, 13.5485, 72.2088, -154.027
3.55128, -1, -38.1661, -7.34091, 27.5296, 13.5507, 72.119, -154.255
3.55933, -1, -38.3335, -7.42673, 27.5635, 13.5529, 72.0293, -154.482
3.56739, -1, -38.5007, -7.51243, 27.5973, 13.5549, 71.9398, -154.709
3.57528, -1, -38.6679, -7.59813, 27.6312, 13.557, 71.8501, -154.937
3.58335, -1, -38.8353, -7.68381, 27.665, 13.5591, 71.7605, -155.164
3.59128, -1, -39.0026, -7.76948, 27.6987, 13.5611, 71.6711, -155.39
3.59932, -1, -39.17, -7.85507, 27.7325, 13.5631, 71.5819, -155.617
3.60744, -1, -39.3375, -7.94075, 27.7664, 13.5651, 71.4925, -155.844
3.61537, -1, -39.5051, -8.02637, 27.8001, 13.567, 71.4031, -156.071
3.62341, -1, -39.6727, -8.1119, 27.8337, 13.569, 71.3141, -156.297
3.63144, -1, -39.8404, -8.19738, 27.8674, 13.571, 71.2246, -156.524
3.63939, -1, -40.008, -8.2829, 27.9011, 13.5729, 71.1352, -156.75
3.64735, -1, -40.1756, -8.36827, 27.9347, 13.5749, 71.046, -156.976
3.65549, -1, -40.3429, -8.45361, 27.9684, 13.5768, 70.9565, -157.203
3.66331, -1, -40.51, -8.53901, 28.0021, 13.5788, 70.8673, -157.429
3.67138, -1, -40.6769, -8.62438, 28.0357, 13.5808, 70.7782, -157.655
3.67934, -1, -40.8436, -8.70974, 28.0693, 13.5828, 70.689, -157.881
3.6874, -1, -41.0101, -8.79505, 28.1031, 13.5848, 70.5998, -158.106
3.69559, -1, -41.1764, -8.88033, 28.1366, 13.5868, 70.5107, -158.333
3.70354, -1, -41.3426, -8.96554, 28.1702, 13.5887, 70.4217, -158.558
3.71162, -1, -41.5089, -9.05072, 28.2038, 13.5908, 70.3325, -158.784
3.71976, -1, -41.6751, -9.13581, 28.2374, 13.5928, 70.2433, -159.009
3.72773, -1, -41.8414, -9.22087, 28.271, 13.5948, 70.1544, -159.235
3.73639, -1, -42.0079, -9.30587, 28.3046, 13.5968, 70.0651, -159.461
3.7439, -1, -42.1743, -9.39093, 28.3382, 13.5989, 69.9761, -159.686
3.75245, -1, -42.3405, -9.47602, 28.3717, 13.6009, 69.8873, -159.911
3.75984, -1, -42.5068, -9.56097, 28.4053, 13.6029, 69.7982, -160.136
3.76839, -1, -42.6733, -9.64597, 28.4388, 13.6049, 69.7093, -160.361
3.77582, -1, -42.7565, -9.68843, 28.4556, 13.606, 69.6648, -160.474
3.78428, -1, -43.006, -9.81583, 28.5056, 13.6091, 69.5318, -160.812
3.79135, -1, -43.0891, -9.85828, 28.5224, 13.6101, 69.4873, -160.924
3.80041, -1, -43.3383, -9.98563, 28.5727, 13.6132, 69.3543, -161.261
3.80728, -1, -43.4214, -10.0281, 28.5894, 13.6142, 69.3101, -161.373
3.81649, -1, -43.6705, -10.1555, 28.6396, 13.6174, 69.177, -161.71
3.8233, -1, -43.7534, -10.198, 28.6564, 13.6184, 69.1328, -161.823
3.83127, -1, -43.9193, -10.2827, 28.6897, 13.6205, 69.0443, -162.047
3.84062, -1, -44.1676, -10.4099, 28.7399, 13.6237, 68.9113, -162.384
3.84728, -1, -44.2502, -10.4522, 28.7567, 13.6248, 68.8671, -162.496
3.85682, -1, -44.498, -10.579, 28.8068, 13.6282, 68.7343, -162.833
3.8648, -1, -44.6632, -10.6636, 28.8402, 13.6304, 68.6457, -163.057
3.8729, -1, -44.8284, -10.7481, 28.8737, 13.6326, 68.5572, -163.281
3.88176, -1, -44.9937, -10.8325, 28.9071, 13.6347, 68.4687, -163.505
3.88885, -1, -45.0763, -10.917, 28.9404, 13.6369, 68.3804, -163.729
3.89702, -1, -45.3243, -11.0016, 28.9739, 13.6391, 68.2918, -163.953
3.90327, -1, -45.4069, -11.0438, 28.9906, 13.6403, 68.2477, -164.065
3.91133, -1, -45.5721, -11.1283, 29.0238, 13.6426, 68.1594, -164.289
3.9204, -1, -45.7375, -11.2127, 29.057, 13.6449, 68.0711, -164.512
3.92728, -1, -45.9025, -11.297, 29.0904, 13.6471, 67.9827, -164.736
3.93533, -1, -46.0656, -11.3803, 29.1238, 13.6494, 67.8944, -164.959
3.94326, -1, -46.2252, -11.4614, 29.1574, 13.6517, 67.8068, -165.182
3.95127, -1, -46.3793, -11.5388, 29.191, 13.6541, 67.7201, -165.401
3.95936, -1, -46.5256, -11.6114, 29.2241, 13.6564, 67.6364, -165.612
3.96727, -1, -46.6616, -11.6784, 29.2553, 13.6586, 67.5581, -165.811
3.97526, -1, -46.7845, -11.7382, 29.2836, 13.6606, 67.4866, -165.991
3.98342, -1, -46.8918, -11.7909, 29.3081, 13.6626, 67.4248, -166.148
3.9913, -1, -46.9828, -11.8369, 29.3276, 13.664, 67.3742, -166.277
3.99931, -1, -47.0578, -11.8771, 29.3415, 13.665, 67.3348, -166.375
4.00734, -1, -47.1178, -11.9105, 29.3508, 13.6656, 67.3063, -166.448
4.01526, -1, -47.1635, -11.9364, 29.3564, 13.666, 67.2873, -166.495
4.02326, -1, -47.1968, -11.9553, 29.3591, 13.6661, 67.2755, -166.525
4.03129, -1, -47.2196, -11.968, 29.3604, 13.6662, 67.2688, -166.542
4.03927, -1, -47.2341, -11.9759, 29.3609, 13.6663, 67.2654, -166.551
4.04741, -1, -47.2422, -11.9802, 29.3612, 13.6664, 67.2637, -166.555
4.05531, 2, -47.2461, -11.9822, 29.3614, 13.6664, 67.263, -166.557
4.06326, 2, -47.2469, -11.983, 29.3615, 13.6665, 67.2626, -166.558
4.07126, 2, -47.2465, -11.9833, 29.3616, 13.6666, 67.2624, -166.558
4.07933, 2, -47.2463, -11.9834, 29.3617, 13.6666, 67.2623, -166.558
4.08728, 2, -47.2464, -11.9834, 29.3617, 13.6666, 67.2622, -166.558
4.09527, 2, -47.247, -11.9836, 29.3618, 13.6666, 67.2622, -166.558
4.10338, 2, -47.2481, -11.984, 29.3618, 13.6666, 67.2621, -166.558
4.11135, 2, -47.2498, -11.9846, 29.3618, 13.6666, 67.2621, -166.558
4.11936, 2, -47.2517, -11.9855, 29.3618, 13.6666, 67.2621, -166.558
4.12747, 2, -47.2533, -11.9863, 29.3618, 13.6666, 67.2621, -166.558
4.13536, 2, -47.2545, -11.9871, 29.3618, 13.6666, 67.2621, -166.558
4.14337, 2, -47.2553, -11.9876, 29.3618, 13.6666, 67.2621, -166.558
4.15145, 2, -47.2556, -11.9879, 29.3618, 13.6667, 67.2621, -166.558
4.1593, 2, -47.2557, -11.988, 29.3618, 13.6666, 67.2621, -166.558
4.16731, 2, -47.2557, -11.9881, 29.3618, 13.6666, 67.2621, -166.558
4.1754, 2, -47.2552, -11.9881, 29.3618, 13.6666, 67.2621, -166.558
4.18332, 2, -47.2547, -11.988, 29.3618, 13.6666, 67.2621, -166.558
4.19138, 2, -47.2542, -11.988, 29.3618, 13.6666, 67.2621, -166.558
4.19986, 2, -47.2539, -11.988, 29.3618, 13.6666, 67.2621, -166.558
4.20835, 2, -47.2537, -11.9881, 29.3618, 13.6666, 67.2622, -166.558
4.21562, 2, -47.2537, -11.9882, 29.3618, 13.6666, 67.2622, -166.558
4.22376, 2, -47.2539, -11.9884, 29.3618, 13.6666, 67.2622, -166.558
4.23191, 2, -47.2542, -11.9887, 29.3618, 13.6666, 67.2622, -166.558
4.2398, 2, -47.2549, -11.989, 29.3618, 13.6666, 67.2621, -166.558
4.24837, 2, -47.2555, -11.9892, 29.3618, 13.6665, 67.2621, -166.558
4.25617, 2, -47.2558, -11.9893, 29.3618, 13.6666, 67.2621, -166.558
4.26381, 2, -47.2559, -11.9894, 29.3618, 13.6665, 67.2622, -166.558
4.27238, 2, -47.2559, -11.9894, 29.3618, 13.6665, 67.2622, -166.558
4.28016, 2, -47.2558, -11.9894, 29.3618, 13.6665, 67.2622, -166.558
4.28726, 2, -47.2557, -11.9894, 29.3618, 13.6665, 67.2622, -166.558
4.29662, 2, -47.2551, -11.9893, 29.3618, 13.6666, 67.2622, -166.558
4.30416, 2, -47.2549, -11.9893, 29.3618, 13.6666, 67.2622, -166.558
4.31125, 2, -47.2545, -11.9892, 29.3618, 13.6666, 67.2622, -166.558
4.3205, 2, -47.2542, -11.9893, 29.3618, 13.6665, 67.2623, -166.558
4.3273, 2, -47.2541, -11.9893, 29.3618, 13.6665, 67.2622, -166.558
4.33525, 2, -47.2541, -11.9893, 29.3618, 13.6665, 67.2622, -166.558
4.34479, 2, -47.254, -11.9894, 29.3618, 13.6665, 67.2623, -166.558
4.35308, 2, -47.254, -11.9895, 29.3618, 13.6665, 67.2623, -166.558
4.3608, 2, -47.254, -11.9895, 29.3618, 13.6665, 67.2623, -166.558
4.36881, 2, -47.2541, -11.9895, 29.3618, 13.6665, 67.2623, -166.558
4.37721, 2, -47.2541, -11.9894, 29.3618, 13.6665, 67.2623, -166.558
4.38328, 2, -47.2541, -11.9894, 29.3618, 13.6665, 67.2622, -166.558
4.39303, 2, -47.254, -11.9893, 29.3618, 13.6665, 67.2622, -166.558
4.39924, 2, -47.254, -11.9893, 29.3618, 13.6664, 67.2622, -166.558
4.40726, 2, -47.2539, -11.9893, 29.3618, 13.6665, 67.2623, -166.558
4.41532, 2, -47.2538, -11.9892, 29.3618, 13.6665, 67.2623, -166.558
4.42519, 2, -47.2535, -11.9892, 29.3618, 13.6665, 67.2623, -166.558
4.43124, 2, -47.2534, -11.9892, 29.3618, 13.6665, 67.2623, -166.558
4.43931, 2, -47.2533, -11.9893, 29.3618, 13.6665, 67.2623, -166.558
4.44726, 2, -47.2532, -11.9893, 29.3618, 13.6665, 67.2623, -166.558
4.45525, 2, -47.2532, -11.9893, 29.3618, 13.6665, 67.2623, -166.558
4.46334, 2, -47.2532, -11.9893, 29.3618, 13.6665, 67.2622, -166.558
4.47125, 2, -47.2531, -11.9893, 29.3618, 13.6665, 67.2623, -166.558
4.47924, 2, -47.253, -11.9893, 29.3618, 13.6665, 67.2623, -166.558
4.48734, 2, -47.2529, -11.9893, 29.3618, 13.6665, 67.2624, -166.558
4.49528, 2, -47.2529, -11.9892, 29.3618, 13.6665, 67.2624, -166.558
4.50324, 2, -47.2527, -11.9892, 29.3618, 13.6665, 67.2623, -166.558
4.51131, 2, -47.2527, -11.9891, 29.3618, 13.6665, 67.2623, -166.558
4.51924, 2, -47.2526, -11.9891, 29.3618, 13.6665, 67.2623, -166.558
4.52725, 2, -47.2525, -11.9891, 29.3618, 13.6664, 67.2623, -166.558
4.53531, 2, -47.2524, -11.9891, 29.3618, 13.6665, 67.2624, -166.558
4.54324, 2, -47.2524, -11.9891, 29.3618, 13.6665, 67.2623, -166.557
4.55128, 2, -47.2523, -11.9891, 29.3618, 13.6665, 67.2624, -166.557
4.55931, 2, -47.2523, -11.9891, 29.3618, 13.6665, 67.2623, -166.557
4.56726, 2, -47.2522, -11.9891, 29.3618, 13.6664, 67.2624, -166.557
4.57524, 2, -47.252, -11.9891, 29.3618, 13.6664, 67.2624, -166.557
4.58331, 2, -47.2519, -11.9891, 29.3618, 13.6665, 67.2624, -166.557
4.59124, 2, -47.2518, -11.9891, 29.3618, 13.6665, 67.2624, -166.557
4.59926, 2, -47.2517, -11.989, 29.3618, 13.6665, 67.2624, -166.557
4.60737, 2, -47.2516, -11.9889, 29.3618, 13.6665, 67.2624, -166.557
4.61533, 2, -47.2515, -11.9889, 29.3618, 13.6665, 67.2624, -166.557
4.62334, 2, -47.2513, -11.9888, 29.3618, 13.6664, 67.2624, -166.557
4.63144, 2, -47.2512, -11.9888, 29.3618, 13.6664, 67.2624, -166.557
4.63935, 2, -47.2511, -11.9888, 29.3618, 13.6664, 67.2624, -166.557
4.64736, 2, -47.251, -11.9888, 29.3618, 13.6664, 67.2624, -166.557
4.65542, 2, -47.2509, -11.9888, 29.3618, 13.6664, 67.2624, -166.557
4.66328, 2, -47.2508, -11.9888, 29.3618, 13.6664, 67.2624, -166.557
4.67127, 2, -47.2508, -11.9888, 29.3618, 13.6664, 67.2624, -166.557
4.67935, 2, -47.2507, -11.9888, 29.3618, 13.6664, 67.2624, -166.557
4.68733, 2, -47.2507, -11.9888, 29.3618, 13.6664, 67.2625, -166.557
4.69543, 2, -47.2506, -11.9888, 29.3618, 13.6664, 67.2625, -166.557
4.70352, 2, -47.2505, -11.9887, 29.3618, 13.6663, 67.2624, -166.557
4.7115, 2, -47.2505, -11.9886, 29.3618, 13.6663, 67.2625, -166.557
4.71967, 2, -47.2503, -11.9886, 29.3618, 13.6663, 67.2625, -166.557
4.7277, 2, -47.2503, -11.9885, 29.3618, 13.6663, 67.2625, -166.557
4.73571, 2, -47.2502, -11.9884, 29.3618, 13.6663, 67.2625, -166.557
4.74434, 2, -47.2501, -11.9884, 29.3618, 13.6663, 67.2625, -166.557
4.7518, 2, -47.2501, -11.9884, 29.3618, 13.6663, 67.2625, -166.557
4.76042, 2, -47.25, -11.9884, 29.3618, 13.6663, 67.2625, -166.557
4.76788, 2, -47.25, -11.9884, 29.3618, 13.6663, 67.2626, -166.557
4.7763, 2, -47.25, -11.9884, 29.3618, 13.6663, 67.2626, -166.557
4.78324, 2, -47.2499, -11.9884, 29.3618, 13.6663, 67.2626, -166.557
4.79227, 2, -47.2499, -11.9884, 29.3618, 13.6663, 67.2626, -166.557
4.79934, 2, -47.2499, -11.9884, 29.3618, 13.6663, 67.2626, -166.557
4.80835, 2, -47.2498, -11.9883, 29.3618, 13.6662, 67.2626, -166.557
4.81524, 2, -47.2498, -11.9883, 29.3618, 13.6662, 67.2626, -166.557
4.82447, 2, -47.2498, -11.9882, 29.3618, 13.6662, 67.2627, -166.557
4.83127, 2, -47.2497, -11.9881, 29.3618, 13.6662, 67.2627, -166.557
4.84062, 2, -47.2496, -11.9881, 29.3618, 13.6662, 67.2628, -166.557
4.84729, 2, -47.2495, -11.988, 29.3618, 13.6662, 67.2628, -166.557
4.85673, 2, -47.2494, -11.988, 29.3618, 13.6662, 67.2628, -166.556
4.86323, 2, -47.2494, -11.988, 29.3618, 13.6661, 67.2628, -166.556
4.87276, 2, -47.2493, -11.988, 29.3618, 13.6662, 67.2627, -166.556
4.88089, 2, -47.2493, -11.988, 29.3618, 13.6661, 67.2627, -166.557
4.88885, 2, -47.2492, -11.988, 29.3618, 13.6661, 67.2628, -166.556
4.89681, 2, -47.2492, -11.988, 29.3618, 13.666, 67.2628, -166.557
4.9049, 2, -47.2492, -11.9879, 29.3618, 13.666, 67.2628, -166.556
4.91224, 2, -47.2491, -11.9879, 29.3618, 13.666, 67.2628, -166.556
4.92023, 2, -47.2491, -11.9879, 29.3618, 13.6661, 67.2628, -166.556
4.9283, 2, -47.2491, -11.9878, 29.3618, 13.6661, 67.2629, -166.556
4.93627, 2, -47.249, -11.9877, 29.3618, 13.666, 67.2628, -166.556
4.9433, 2, -47.249, -11.9877, 29.3618, 13.666, 67.2629, -166.556
4.95123, 2, -47.2488, -11.9876, 29.3618, 13.666, 67.2629, -166.556
4.95923, 2, -47.2487, -11.9876, 29.3618, 13.666, 67.2629, -166.556
4.96734, 2, -47.2487, -11.9876, 29.3618, 13.666, 67.2629, -166.556
4.97523, 2, -47.2486, -11.9876, 29.3618, 13.6659, 67.2629, -166.556
4.98323, 2, -47.2486, -11.9876, 29.3618, 13.6659, 67.2629, -166.556
4.99129, 2, -47.2485, -11.9876, 29.3618, 13.6659, 67.2629, -166.556
4.9993, 2, -47.2485, -11.9876, 29.3618, 13.666, 67.263, -166.556
5.00724, 2, -47.2485, -11.9875, 29.3618, 13.6659, 67.2629, -166.556
5.0153, 2, -47.2484, -11.9875, 29.3618, 13.6659, 67.2629, -166.556
5.02323, 2, -47.2484, -11.9874, 29.3618, 13.6659, 67.263, -166.556
5.03123, 2, -47.2483, -11.9874, 29.3618, 13.6659, 67.263, -166.556
5.03929, 2, -47.2483, -11.9873, 29.3618, 13.6659, 67.263, -166.556
5.04724, 2, -47.2482, -11.9873, 29.3618, 13.6659, 67.263, -166.556
5.05546, 2, -47.2481, -11.9872, 29.3618, 13.6658, 67.263, -166.556
5.06422, 2, -47.2481, -11.9872, 29.3618, 13.6657, 67.263, -166.556
5.07126, 2, -47.248, -11.9872, 29.3618, 13.6657, 67.263, -166.556
5.07926, 2, -47.248, -11.9872, 29.3618, 13.6657, 67.263, -166.556
5.08731, 2, -47.248, -11.9872, 29.3618, 13.6657, 67.263, -166.556
5.09523, 2, -47.2479, -11.9872, 29.3618, 13.6657, 67.263, -166.556
5.10325, 2, -47.2479, -11.9871, 29.3618, 13.6657, 67.2631, -166.556
5.11147, 2, -47.2478, -11.9871, 29.3618, 13.6657, 67.2631, -166.556
5.11931, 2, -47.2478, -11.9871, 29.3618, 13.6657, 67.2631, -166.556
5.12733, 2, -47.2478, -11.987, 29.3618, 13.6656, 67.2631, -166.556
5.13539, 4, -47.2478, -11.9869, 29.3618, 13.6656, 67.263, -166.556
5.14334, 4, -47.2477, -11.9869, 29.3618, 13.6656, 67.2631, -166.556
5.15133, 4, -47.2477, -11.9869, 29.3618, 13.6656, 67.2631, -166.556
5.1594, 4, -47.2476, -11.9868, 29.3618, 13.6656, 67.2631, -166.556
5.16747, 4, -47.2475, -11.9868, 29.3618, 13.6656, 67.2631, -166.556
5.17526, 4, -47.2475, -11.9868, 29.3618, 13.6656, 67.2631, -166.556
5.18338, 4, -47.2475, -11.9868, 29.3618, 13.6656, 67.2631, -166.556
5.19134, 4, -47.2474, -11.9868, 29.3618, 13.6656, 67.2631, -166.556
5.19971, 4, -47.2474, -11.9868, 29.3618, 13.6656, 67.2631, -166.556
5.20752, 4, -47.2473, -11.9867, 29.3617, 13.6655, 67.2632, -166.556
5.21568, 4, -47.2473, -11.9867, 29.3618, 13.6655, 67.2632, -166.556
5.22423, 4, -47.2473, -11.9867, 29.3618, 13.6655, 67.2631, -166.556
5.23169, 4, -47.2473, -11.9866, 29.3618, 13.6654, 67.2632, -166.556
5.24841, 4, -47.2472, -11.9865, 29.3618, 13.6654, 67.2632, -166.555
5.25345, 4, -47.2472, -11.9865, 29.3618, 13.6654, 67.2631, -166.555
5.25616, 4, -47.2472, -11.9865, 29.3618, 13.6654, 67.2631, -166.555
5.26827, 4, -47.2471, -11.9864, 29.3618, 13.6654, 67.2631, -166.555
5.27237, 4, -47.2471, -11.9864, 29.3618, 13.6653, 67.2631, -166.555
5.28232, 4, -47.2471, -11.9864, 29.3618, 13.6653, 67.2631, -166.555
5.28928, 4, -47.247, -11.9864, 29.3618, 13.6653, 67.2632, -166.555
5.29658, 4, -47.2469, -11.9864, 29.3618, 13.6653, 67.2632, -166.555
5.30724, 4, -47.2469, -11.9864, 29.3618, 13.6653, 67.2632, -166.555
5.31446, 4, -47.2469, -11.9864, 29.3618, 13.6653, 67.2632, -166.555
5.32028, 4, -47.2469, -11.9864, 29.3618, 13.6653, 67.2632, -166.555
5.33343, 4, -47.2468, -11.9863, 29.3618, 13.6653, 67.2632, -166.555
5.33538, 4, -47.2468, -11.9863, 29.3618, 13.6653, 67.2632, -166.555
5.34547, 4, -47.2468, -11.9862, 29.3618, 13.6653, 67.2632, -166.555
5.35303, 4, -47.2468, -11.9862, 29.3618, 13.6653, 67.2632, -166.555
5.35943, 4, -47.2468, -11.9862, 29.3618, 13.6653, 67.2632, -166.555
5.37084, 4, -47.2478, -11.9866, 29.3621, 13.6654, 67.2633, -166.555
5.3794, 4, -47.25, -11.9883, 29.364, 13.6671, 67.2639, -166.555
5.38625, 4, -47.2541, -11.9929, 29.3695, 13.6769, 67.2662, -166.554
5.39148, 4, -47.2571, -11.9968, 29.3747, 13.6872, 67.2687, -166.552
5.39961, 4, -47.2661, -12.0086, 29.3928, 13.7231, 67.2782, -166.544
5.40924, 5, -47.2901, -12.0409, 29.4498, 13.8404, 67.3104, -166.517
5.418, 5, -47.3156, -12.0744, 29.5153, 13.9802, 67.3495, -166.485
5.42335, 5, -47.3317, -12.095, 29.5581, 14.0731, 67.375, -166.463
5.43136, 5, -47.371, -12.1442, 29.6655, 14.3091, 67.4392, -166.408
5.44261, 5, -47.4481, -12.2393, 29.8815, 14.7886, 67.5692, -166.296
5.44842, 5, -47.4783, -12.2765, 29.9675, 14.9791, 67.6203, -166.251
5.45654, 5, -47.5443, -12.3584, 30.1586, 15.3989, 67.7325, -166.154
5.46338, 5, -47.6168, -12.4492, 30.3702, 15.8588, 67.854, -166.047
5.476, 5, -47.7361, -12.5988, 30.715, 16.594, 68.0464, -165.879
5.48359, 5, -47.8211, -12.7056, 30.958, 17.1002, 68.1761, -165.765
5.48837, 5, -47.8648, -12.7603, 31.0815, 17.3556, 68.2409, -165.708
5.49795, 5, -47.9993, -12.928, 31.4593, 18.1253, 68.4337, -165.538
5.50343, 5, -48.0449, -12.9848, 31.5876, 18.3828, 68.4969, -165.482
5.51288, 5, -48.1369, -13.0995, 31.8467, 18.899, 68.6225, -165.371
5.51934, 5, -48.2293, -13.215, 32.1103, 19.4156, 68.746, -165.261
5.52744, 5, -48.3207, -13.3308, 32.3775, 19.9321, 68.8676, -165.152
5.53858, 5, -48.4515, -13.5028, 32.7826, 20.7053, 69.0469, -164.988
5.54622, 5, -48.4926, -13.5592, 33.054, 21.2136, 69.1656, -164.871
5.55547, 6, -48.6058, -13.7235, 33.322, 21.7085, 69.285, -164.739
5.56096, 6, -48.6396, -13.7764, 33.4541, 21.9489, 69.3455, -164.665
5.56829, 6, -48.6992, -13.8787, 33.7113, 22.4112, 69.4695, -164.491
5.57658, 6, -48.7464, -13.9752, 33.9569, 22.8431, 69.5989, -164.278
5.58336, 7, -48.78, -14.0653, 34.19, 23.2416, 69.7352, -164.018
5.59321, 7, -48.7998, -14.149, 34.409, 23.6069, 69.8796, -163.707
5.60357, 8, -48.8046, -14.2628, 34.7122, 24.1013, 70.1116, -163.152
5.6084, 8, -48.7998, -14.2974, 34.8081, 24.2547, 70.1927, -162.946
5.61647, 8, -48.7815, -14.3623, 34.9934, 24.5489, 70.36, -162.51
5.62842, 9, -48.7365, -14.4502, 35.2573, 24.9706, 70.6216, -161.809
5.63223, 9, -48.7178, -14.4776, 35.3429, 25.1078, 70.7107, -161.567
5.64147, 9, -48.6761, -14.5298, 35.5118, 25.3799, 70.8913, -161.075
5.64752, 10, -48.6295, -14.5796, 35.6775, 25.6512, 71.0739, -160.578
5.65627, 10, -48.5797, -14.6276, 35.8405, 25.9233, 71.258, -160.077
5.66618, 10, -48.5274, -14.6741, 36.0019, 26.1972, 71.4427, -159.576
5.67153, 11, -48.4737, -14.7199, 36.1625, 26.4738, 71.6275, -159.078
5.68038, 11, -48.4191, -14.7651, 36.3217, 26.7536, 71.8123, -158.582
5.68852, 12, -48.3639, -14.8102, 36.4793, 27.036, 71.9966, -158.089
5.69621, 12, -48.3087, -14.855, 36.6362, 27.3211, 72.1804, -157.599
5.70565, 12, -48.2531, -14.8997, 36.7926, 27.6089, 72.3634, -157.112
5.71187, 13, -48.1962, -14.9444, 36.9479, 27.8984, 72.5458, -156.629
5.71951, 13, -48.1374, -14.9889, 37.1017, 28.1895, 72.7276, -156.147
5.7276, 13, -48.0762, -15.0331, 37.2543, 28.4817, 72.9081, -155.668
5.73643, 14, -48.0125, -15.077, 37.4058, 28.7743, 73.0877, -155.19
5.74376, 14, -47.946, -15.1207, 37.5559, 29.0672, 73.2667, -154.714
5.7526, 14, -47.8773, -15.1642, 37.7042, 29.3599, 73.4443, -154.241
5.7606, 15, -47.8061, -15.2075, 37.8506, 29.6519, 73.6211, -153.769
5.76853, 15, -47.7327, -15.2507, 37.9958, 29.9431, 73.7967, -153.298
5.77704, 16, -47.6568, -15.294, 38.1395, 30.2336, 73.9711, -152.828
5.78383, 16, -47.618, -15.3158, 38.2106, 30.523, 74.1442, -152.361
5.79221, 16, -47.4982, -15.3815, 38.4214, 30.8113, 74.3157, -151.897
5.80011, 17, -47.4571, -15.4036, 38.56, 31.099, 74.4856, -151.434
5.80807, 17, -47.3732, -15.4481, 38.6287, 31.2423, 74.5696, -150.974
5.81661, 17, -47.2428, -15.516, 38.8331, 31.6705, 74.8193, -150.517
5.82324, 18, -47.198, -15.5391, 38.9007, 31.8129, 74.9014, -150.29
5.83248, 18, -47.0593, -15.6091, 39.1013, 32.2385, 75.1445, -149.614
5.83938, 18, -47.0116, -15.6329, 39.1677, 32.3799, 75.2242, -149.391
5.84741, 19, -46.9137, -15.6813, 39.2997, 32.6624, 75.3819, -148.946
5.85666, 19, -46.7614, -15.7556, 39.4961, 33.0841, 75.6128, -148.287
5.86378, 20, -46.7092, -15.781, 39.5611, 33.2241, 75.6883, -148.069
5.87314, 20, -46.5488, -15.8592, 39.7546, 33.6427, 75.9104, -147.423
5.87942, 20, -46.4941, -15.8859, 39.8186, 33.7816, 75.9829, -147.21
5.88774, 21, -46.3828, -15.9405, 39.946, 34.0582, 76.1255, -146.786
5.89523, 21, -46.2693, -15.9966, 40.0722, 34.3336, 76.2649, -146.367
5.90579, 21, -46.0942, -16.0836, 40.2598, 34.7439, 76.4679, -145.746
5.91141, 22, -46.0345, -16.1133, 40.3218, 34.8797, 76.534, -145.541
5.92024, 22, -45.9129, -16.1737, 40.4445, 35.1498, 76.664, -145.133
5.93001, 22, -45.788, -16.2355, 40.566, 35.418, 76.791, -144.528
5.93532, 23, -45.6596, -16.2983, 40.6859, 35.6838, 76.9146, -144.328
5.94326, 23, -45.5276, -16.3622, 40.8041, 35.947, 77.0356, -143.93
5.95435, 24, -45.3228, -16.4595, 40.9782, 36.3371, 77.2112, -143.338
5.95941, 24, -45.2527, -16.4924, 41.0352, 36.4655, 77.2685, -143.143
5.97036, 24, -45.0369, -16.5917, 41.2029, 36.8458, 77.4364, -142.558
5.97636, 25, -44.9632, -16.6251, 41.2575, 36.971, 77.491, -142.364
5.98331, 25, -44.8133, -16.6921, 41.3649, 37.2185, 77.5986, -141.977
5.99125, 25, -44.6598, -16.7595, 41.4697, 37.462, 77.7037, -141.591
6.00037, 26, -44.5027, -16.8271, 41.5718, 37.7017, 77.8066, -141.207
6.00867, 26, -44.342, -16.8948, 41.671, 37.9377, 77.9074, -140.825
6.01638, 27, -44.1777, -16.9623, 41.7669, 38.1692, 78.006, -140.443
6.02331, 27, -44.0097, -17.0297, 41.8594, 38.3964, 78.1023, -140.061
6.03119, 27, -43.8377, -17.0965, 41.9485, 38.6194, 78.1968, -139.68
6.04042, 28, -43.6615, -17.1627, 42.0343, 38.838, 78.2895, -139.299
6.04717, 28, -43.4812, -17.2284, 42.1168, 39.052, 78.3802, -138.919
6.05526, 28, -43.2968, -17.293, 42.1958, 39.2614, 78.4694, -138.54
6.06349, 29, -43.1085, -17.3568, 42.2712, 39.4664, 78.5572, -138.16
6.07343, 29, -42.9161, -17.4195, 42.3427, 39.6672, 78.6428, -137.781
6.07941, 29, -42.7198, -17.4812, 42.4103, 39.8631, 78.7271, -137.402
6.08721, 30, -42.5197, -17.5418, 42.474, 40.0543, 78.8099, -137.023
6.09525, 30, -42.3159, -17.6013, 42.5341, 40.2411, 78.8911, -136.645
6.10441, 30, -42.1088, -17.6596, 42.5904, 40.4233, 78.9707, -136.267
6.11123, 31, -41.8983, -17.7167, 42.643, 40.6012, 79.049, -135.889
6.11933, 31, -41.6842, -17.7725, 42.6915, 40.7744, 79.1262, -135.511
6.12842, 32, -41.4665, -17.8269, 42.7363, 40.9431, 79.2014, -135.134
6.13645, 32, -41.2449, -17.8798, 42.7772, 41.1075, 79.2756, -134.757
6.14338, 32, -41.0198, -17.9312, 42.8142, 41.2677, 79.3483, -134.38
6.1515, 33, -40.791, -17.981, 42.8477, 41.4237, 79.42, -134.005
6.16038, 33, -40.5585, -18.0292, 42.8774, 41.5753, 79.4898, -133.629
6.16839, 33, -40.3229, -18.0758, 42.9032, 41.7226, 79.5586, -133.254
6.17526, 34, -40.0853, -18.1207, 42.9253, 41.8656, 79.6259, -132.879
6.18352, 34, -39.8455, -18.1641, 42.9434, 42.0043, 79.6922, -132.505
6.19237, 34, -39.6023, -18.2058, 42.9579, 42.1392, 79.7572, -132.132
6.20047, 35, -39.3553, -18.2458, 42.9689, 42.2701, 79.8204, -131.76
6.20748, 35, -39.1048, -18.2843, 42.9762, 42.3968, 79.8833, -131.388
6.21696, 36, -38.851, -18.321, 42.9797, 42.5194, 79.944, -131.017
6.23015, 36, -38.4639, -18.3727, 42.9787, 42.6958, 80.0344, -130.461
6.23707, 36, -38.202, -18.4049, 42.9733, 42.8085, 80.0922, -130.092
6.24006, 37, -38.0698, -18.4203, 42.9693, 42.8633, 80.1212, -129.907
6.2477, 37, -37.8027, -18.4495, 42.9586, 42.97, 80.1785, -129.539
6.25664, 37, -37.5323, -18.4769, 42.9442, 43.073, 80.2337, -129.172
6.2642, 38, -37.2599, -18.5024, 42.9263, 43.172, 80.2887, -128.806
6.27304, 38, -36.9857, -18.5259, 42.9046, 43.2668, 80.3422, -128.44
6.28117, 38, -36.7092, -18.5476, 42.8795, 43.358, 80.394, -128.075
6.28782, 39, -36.5699, -18.5576, 42.8656, 43.4021, 80.446, -127.712
6.29844, 39, -36.148, -18.5845, 42.8184, 43.5285, 80.4962, -127.349
6.30412, 40, -36.0056, -18.5927, 42.801, 43.6081, 80.5455, -126.988
6.31269, 40, -35.574, -18.6143, 42.7436, 43.6836, 80.5947, -126.627
6.31923, 40, -35.4289, -18.6205, 42.7226, 43.7201, 80.6185, -126.447
6.33254, 41, -34.8413, -18.6403, 42.6305, 43.8563, 80.7109, -125.73
6.33514, 41, -34.8413, -18.6403, 42.6305, 43.8563, 80.7109, -125.73
6.34528, 41, -34.3926, -18.6502, 42.5526, 43.9485, 80.7781, -125.196
6.35139, 42, -34.2419, -18.6526, 42.525, 43.9774, 80.7997, -125.018
6.36116, 42, -33.7876, -18.657, 42.4374, 44.0588, 80.8642, -124.487
6.36733, 42, -33.6354, -18.6576, 42.4066, 44.0837, 80.8854, -124.311
6.37523, 43, -33.3294, -18.6578, 42.3424, 44.1312, 80.9264, -123.959
6.38324, 43, -33.0202, -18.6561, 42.2753, 44.1753, 80.9661, -123.608
6.39137, 44, -32.708, -18.6525, 42.2052, 44.215, 81.0056, -123.259
6.39919, 44, -32.3938, -18.6471, 42.1318, 44.2506, 81.0442, -122.911
6.40872, 44, -32.0769, -18.6398, 42.0554, 44.283, 81.0994, -122.392
6.41831, 45, -31.5974, -18.6252, 41.9347, 44.3247, 81.1354, -122.047
6.42415, 45, -31.4363, -18.6194, 41.8928, 44.3364, 81.1534, -121.875
6.43118, 45, -31.1122, -18.6065, 41.8069, 44.3566, 81.1886, -121.531
6.43933, 46, -30.7863, -18.5915, 41.718, 44.3726, 81.2222, -121.19
6.44741, 46, -30.4586, -18.5744, 41.6261, 44.3847, 81.2549, -120.849
6.45632, 47, -30.1279, -18.5551, 41.5311, 44.3929, 81.2874, -120.51
6.46321, 47, -29.7943, -18.5335, 41.4329, 44.397, 81.3198, -120.172
6.47118, 47, -29.4578, -18.5097, 41.3315, 44.3982, 81.351, -119.835
6.48033, 48, -29.1191, -18.4835, 41.2267, 44.3954, 81.3815, -119.498
6.48729, 48, -28.7785, -18.4548, 41.1187, 44.3877, 81.4115, -119.163
6.49519, 48, -28.4358, -18.4239, 41.0075, 44.3755, 81.4417, -118.828
6.50339, 49, -28.0913, -18.3905, 40.8932, 44.3584, 81.4719, -118.495
6.51448, 49, -27.5713, -18.3357, 40.7154, 44.3236, 81.5159, -117.996
6.5234, 50, -27.2213, -18.2959, 40.5924, 44.2936, 81.5449, -117.664
6.52837, 50, -27.0449, -18.275, 40.5295, 44.2767, 81.5595, -117.498
6.5362, 50, -26.6892, -18.231, 40.401, 44.2397, 81.5893, -117.167
6.54596, 51, -26.3293, -18.1844, 40.2692, 44.1978, 81.6195, -116.837
6.55132, 51, -25.9666, -18.1349, 40.1338, 44.1497, 81.6495, -116.507
6.55933, 51, -25.6017, -18.0822, 39.9949, 44.0971, 81.6798, -116.177
6.56745, 52, -25.2354, -18.0266, 39.8522, 44.0392, 81.7107, -115.847
6.57624, 52, -24.8682, -17.968, 39.706, 43.9748, 81.7429, -115.518
6.58476, 52, -24.4993, -17.9061, 39.5562, 43.9059, 81.7756, -115.189
6.59132, 53, -24.1279, -17.841, 39.4028, 43.8307, 81.8084, -114.86
6.60117, 53, -23.7525, -17.7727, 39.2455, 43.7505, 81.8418, -114.531
6.61118, 54, -23.1814, -17.6645, 39.0032, 43.6192, 81.8945, -114.039
6.61538, 54, -22.9893, -17.6269, 38.9208, 43.5727, 81.9126, -113.875
6.62431, 54, -22.6023, -17.5493, 38.7529, 43.4755, 81.9489, -113.546
6.63199, 54, -22.2131, -17.4685, 38.5807, 43.3722, 81.986, -113.218
6.63928, 55, -21.8228, -17.3848, 38.405, 43.2628, 82.0247, -112.889
6.64939, 55, -21.4313, -17.2981, 38.2266, 43.1475, 82.0647, -112.561
6.65545, 56, -21.0377, -17.2082, 38.0446, 43.0262, 82.1047, -112.233
6.66419, 56, -20.6397, -17.1149, 37.8581, 42.8988, 82.1458, -111.905
6.67119, 56, -20.237, -17.0188, 37.6684, 42.7655, 82.1885, -111.578
6.68033, 57, -19.8297, -16.9198, 37.4758, 42.6259, 82.2316, -111.25
6.6872, 57, -19.4196, -16.8178, 37.2793, 42.4802, 82.2754, -110.923
6.69609, 57, -19.0076, -16.7129, 37.0791, 42.3278, 82.3209, -110.596
6.70368, 58, -18.5948, -16.6054, 36.8767, 42.1689, 82.3671, -110.269
6.7129, 58, -18.1799, -16.495, 36.6711, 42.0036, 82.4136, -109.942
6.72054, 59, -17.7611, -16.3817, 36.4613, 41.8321, 82.4618, -109.616
6.72767, 59, -17.3375, -16.266, 36.2487, 41.654, 82.5111, -109.29
6.7356, 59, -16.9087, -16.1478, 36.0334, 41.469, 82.5606, -108.964
6.74408, 60, -16.4758, -16.0268, 35.8142, 41.277, 82.6122, -108.638
6.75172, 60, -16.0403, -15.903, 35.5925, 41.078, 82.6645, -108.312
6.76027, 60, -15.6041, -15.7766, 35.3683, 40.8719, 82.7172, -107.986
6.76802, 61, -15.1664, -15.6473, 35.1402, 40.6588, 82.7722, -107.661
6.77575, 61, -14.9465, -15.5152, 34.9093, 40.4385, 82.8277, -107.335
6.78497, 62, -14.5027, -15.3803, 34.6756, 40.2111, 82.8849, -107.009
6.80094, 62, -13.3674, -15.1014, 34.1995, 39.734, 83.0037, -106.357
6.80268, 62, -13.3674, -15.1014, 34.1995, 39.734, 83.0037, -106.357
6.80815, 63, -13.1373, -15.0297, 34.0789, 39.4837, 83.0661, -106.031
6.81623, 63, -12.4451, -14.8103, 33.7113, 39.2257, 83.1293, -105.704
6.82337, 63, -12.2135, -14.7359, 33.5875, 39.0938, 83.1618, -105.54
6.83131, 64, -11.7479, -14.5844, 33.3376, 38.8241, 83.2292, -105.212
6.84046, 64, -11.0386, -14.3505, 32.9567, 38.4047, 83.3331, -104.719
6.84982, 64, -10.5576, -14.1905, 32.6996, 38.1152, 83.4056, -104.39
6.85538, 65, -10.3152, -14.1093, 32.5696, 37.9672, 83.4424, -104.225
6.8634, 65, -9.82832, -13.9448, 32.3077, 37.6647, 83.519, -103.893
6.87694, 66, -8.85028, -13.6055, 31.7753, 37.0352, 83.6796, -103.228
6.87936, 66, -8.85028, -13.6055, 31.7753, 37.0352, 83.6796, -103.228
6.88736, 66, -8.35583, -13.4297, 31.5051, 36.7084, 83.7645, -102.894
6.89539, 67, -7.8544, -13.2504, 31.2319, 36.3734, 83.8526, -102.558
6.90482, 67, -7.0898, -12.9756, 30.8183, 35.8548, 83.9907, -102.053
6.91303, 67, -6.57601, -12.787, 30.5392, 35.4986, 84.0871, -101.714
6.91931, 68, -6.3188, -12.6911, 30.3987, 35.3172, 84.1364, -101.545
6.92787, 68, -5.80322, -12.4966, 30.1163, 34.9488, 84.2378, -101.204
6.94118, 68, -5.02147, -12.1986, 29.6877, 34.381, 84.4519, -100.52
6.94343, 69, -4.75702, -12.0971, 29.5442, 34.1876, 84.4519, -100.52
6.95133, 69, -4.22275, -11.8909, 29.2557, 33.7949, 84.5645, -100.175
6.96243, 70, -3.41539, -11.5761, 28.8207, 33.1906, 84.7402, -99.6562
6.9682, 70, -3.14608, -11.4695, 28.6749, 32.9854, 84.8007, -99.4823
6.97615, 70, -2.60658, -11.253, 28.3819, 32.5691, 84.9247, -99.1338
6.98593, 71, -1.78778, -10.9206, 27.9398, 31.9315, 85.1176, -98.6094
6.99139, 71, -1.51096, -10.8079, 27.792, 31.7153, 85.1841, -98.4338
7.0003, 71, -0.952628, -10.5792, 27.4969, 31.2777, 85.3196, -98.0819
7.0082, 72, -0.391847, -10.347, 27.2013, 30.8323, 85.4592, -97.7286
7.01637, 72, 0.168661, -10.1118, 26.9056, 30.3806, 85.6027, -97.3743
7.02332, 72, 0.730204, -9.87242, 26.6092, 29.9229, 85.75, -97.0183
7.03448, 73, 1.58281, -9.5047, 26.1648, 29.225, 85.9788, -96.4827
7.03916, 73, 1.87038, -9.38029, 26.0168, 28.9895, 86.0571, -96.3036
7.04917, 74, 2.44788, -9.12873, 25.7215, 28.514, 86.2168, -95.9441
7.0553, 74, 3.02515, -8.87431, 25.4275, 28.0335, 86.3806, -95.5834
7.06436, 74, 3.60171, -8.61674, 25.1336, 27.5481, 86.5488, -95.2212
7.07145, 75, 4.18104, -8.35419, 24.8409, 27.058, 86.7214, -94.8574
7.08023, 75, 4.76608, -8.08725, 24.5488, 26.5646, 86.8985, -94.4926
7.08727, 75, 5.35514, -7.81676, 24.2588, 26.0672, 87.0802, -94.1265
7.09522, 76, 5.94434, -7.54219, 23.9708, 25.5658, 87.2665, -93.7586
7.10321, 76, 6.53154, -7.2641, 23.6845, 25.0624, 87.4576, -93.3892
7.11275, 76, 7.11798, -6.98112, 23.4, 24.5573, 87.6535, -93.0185
7.11935, 77, 7.70782, -6.69278, 23.1164, 24.0499, 87.8547, -92.6458
7.12915, 77, 8.30186, -6.40064, 22.8358, 23.5409, 88.0611, -92.2718
7.13903, 78, 9.19098, -5.95415, 22.4199, 22.7761, 88.3799, -91.7075
7.14345, 78, 9.48523, -5.80341, 22.2828, 22.521, 88.4888, -91.5184
7.15232, 78, 10.0722, -5.4978, 22.01, 22.0115, 88.7106, -91.1389
7.16124, 79, 10.6602, -5.1863, 21.7391, 21.5032, 88.9378, -90.7575
7.16717, 79, 11.2507, -4.87004, 21.4718, 20.9965, 89.1703, -90.3738
7.17741, 79, 11.8404, -4.54878, 21.2073, 20.4909, 89.4082, -89.9884
7.18355, 80, 12.4253, -4.22396, 20.9461, 19.9875, 89.6514, -89.6011
7.19221, 80, 13.0052, -3.89364, 20.6877, 19.4882, 89.9003, -89.2112
7.2031, 81, 13.5836, -3.55806, 20.4314, 18.9924, 90.1547, -88.6226
7.20766, 81, 14.1628, -3.21734, 20.1791, 18.5009, 90.4148, -88.4249
7.21637, 81, 14.7405, -2.87185, 19.9297, 18.0137, 90.6805, -88.0278
7.22493, 82, 15.3125, -2.52127, 19.6835, 17.532, 90.9518, -87.6285
7.23149, 82, 15.8773, -2.1647, 19.4406, 17.0557, 91.229, -87.2263
7.24533, 82, 16.7164, -1.61845, 19.0804, 16.354, 91.656, -86.6176
7.24828, 83, 16.9953, -1.43334, 18.9622, 16.1238, 91.8013, -86.4131
7.25566, 83, 17.5513, -1.05804, 18.7286, 15.6684, 92.0964, -86.0014
7.2643, 83, 18.1014, -0.676425, 18.4978, 15.2205, 92.3973, -85.5871
7.27176, 84, 18.6421, -0.28931, 18.2703, 14.7814, 92.7043, -85.1694
7.28026, 84, 19.175, 0.103537, 18.0454, 14.3515, 93.0173, -84.7478
7.28871, 84, 19.4398, 0.503076, 17.8224, 13.931, 93.336, -84.3231
7.29641, 85, 20.2295, 0.908798, 17.603, 13.5198, 93.6605, -83.8944
7.30314, 85, 20.4906, 1.11393, 17.4948, 13.3178, 93.8249, -83.6788
7.31304, 86, 21.261, 1.7363, 17.1739, 12.7278, 94.3254, -83.027
7.32032, 86, 21.7617, 2.15796, 16.9636, 12.3482, 94.6654, -82.5875
7.32715, 86, 22.0089, 2.37069, 16.8597, 12.1627, 94.8373, -82.3664
7.33641, 87, 22.7432, 3.01718, 16.5518, 11.6237, 95.3602, -81.6975
7.34315, 87, 22.9858, 3.23536, 16.4507, 11.4499, 95.5367, -81.4727
7.35123, 87, 23.4665, 3.67564, 16.2521, 11.111, 95.8925, -81.0212
7.3606, 88, 24.17, 4.3436, 15.961, 10.6256, 96.4321, -80.3372
7.36716, 88, 24.3991, 4.56803, 15.8653, 10.47, 96.6131, -80.1077
7.37752, 88, 25.0728, 5.2481, 15.5846, 10.0215, 97.1597, -79.4145
7.38481, 89, 25.5135, 5.70605, 15.4031, 9.73884, 97.5258, -78.9492
7.39576, 89, 25.9473, 6.16609, 15.2252, 9.46853, 97.8929, -78.4816
7.39932, 90, 26.1617, 6.39727, 15.1377, 9.33791, 98.0767, -78.2465
7.40873, 90, 26.5845, 6.8611, 14.8823, 8.96596, 98.6291, -77.5377
7.41687, 90, 26.9979, 7.32698, 14.7174, 8.73382, 98.9973, -77.0622
7.42492, 91, 27.4016, 7.7951, 14.6364, 8.62245, 99.1814, -76.5849
7.43215, 91, 27.7959, 8.26563, 14.4775, 8.4094, 99.5489, -76.3454
7.44019, 91, 28.1826, 8.73824, 14.3236, 8.20941, 99.9159, -75.8643
7.44814, 92, 28.5623, 9.21228, 14.174, 8.02213, 100.282, -75.381
7.45617, 92, 28.935, 9.68848, 14.0279, 7.84743, 100.648, -74.8951
7.46426, 92, 29.2996, 10.1664, 13.8858, 7.68542, 101.013, -74.4073
7.47114, 93, 29.6547, 10.6458, 13.7477, 7.53608, 101.377, -73.9165
7.47924, 93, 30.0004, 11.127, 13.6134, 7.39947, 101.74, -73.4225
7.4874, 94, 30.3372, 11.6092, 13.4827, 7.2761, 102.103, -72.9253
7.49521, 94, 30.6658, 12.0924, 13.3557, 7.16537, 102.465, -72.4252
7.50314, 94, 30.9874, 12.5775, 13.2322, 7.06755, 102.826, -71.9225
7.51111, 95, 31.3013, 13.0641, 13.1122, 6.9828, 103.187, -71.4161
7.51924, 95, 31.6067, 13.5515, 12.996, 6.91025, 103.545, -70.9069
7.52715, 95, 31.9034, 14.0399, 12.8837, 6.85075, 103.902, -70.3944
7.53514, 96, 32.192, 14.5281, 12.7753, 6.80395, 104.257, -69.8796
7.54321, 96, 32.4734, 15.0166, 12.6707, 6.76876, 104.609, -69.3618
7.55114, 96, 32.7486, 15.5057, 12.5701, 6.74587, 104.958, -68.8411
7.55913, 97, 33.0171, 15.9939, 12.4734, 6.73413, 105.304, -68.3179
7.56722, 97, 33.2775, 16.4813, 12.381, 6.73288, 105.646, -67.793
7.57531, 98, 33.5299, 16.9686, 12.293, 6.74459, 105.985, -67.2663
7.58314, 98, 33.7745, 17.4552, 12.2094, 6.76844, 106.32, -66.737
7.59121, 98, 34.0116, 17.9403, 12.13, 6.80346, 106.65, -66.2059
7.59914, 99, 34.2413, 18.4246, 12.0548, 6.84869, 106.977, -65.6731
7.60722, 99, 34.4649, 18.9069, 11.9836, 6.90572, 107.298, -65.1388
7.61517, 99, 34.683, 19.3869, 11.9168, 6.97282, 107.615, -64.6025
7.62423, 100, 34.8954, 19.8644, 11.8544, 7.04985, 107.927, -64.0647
7.63128, 100, 35.102, 20.3381, 11.7967, 7.13704, 108.233, -63.5262
7.63924, 100, 35.3035, 20.8071, 11.7437, 7.23303, 108.532, -62.9885
7.64726, 101, 35.4998, 21.2721, 11.6957, 7.33769, 108.824, -62.451
7.65534, 101, 35.6908, 21.7325, 11.6531, 7.45023, 109.108, -61.9155
7.66317, 102, 35.8757, 22.1881, 11.6154, 7.57026, 109.382, -61.3827
7.67114, 102, 36.0538, 22.6388, 11.5826, 7.6975, 109.647, -60.8536
7.67921, 102, 36.2258, 23.0837, 11.5547, 7.8309, 109.903, -60.328
7.68721, 103, 36.3928, 23.5211, 11.5313, 7.97045, 110.15, -59.8065
7.69521, 103, 36.5561, 23.9491, 11.5127, 8.11599, 110.388, -59.2891
7.70327, 103, 36.7161, 24.3686, 11.4993, 8.26752, 110.617, -58.778
7.71131, 104, 36.8732, 24.78, 11.4912, 8.42533, 110.835, -58.2731
7.71947, 104, 37.0281, 25.1839, 11.4882, 8.58935, 111.039, -57.775
7.72744, 104, 37.1813, 25.5804, 11.4905, 8.75906, 111.229, -57.2842
7.73615, 104, 37.3315, 25.9712, 11.498, 8.9341, 111.405, -56.8009
7.74447, 104, 37.4776, 26.3566, 11.5097, 9.11381, 111.567, -56.3246
7.75161, 104, 37.619, 26.7367, 11.5247, 9.2982, 111.719, -55.8531
7.75969, 104, 37.7577, 27.1105, 11.5424, 9.48662, 111.862, -55.3861
7.76829, 104, 37.8947, 27.478, 11.5615, 9.67823, 112, -54.9225
7.77634, 104, 38.0302, 27.8384, 11.5808, 9.87247, 112.135, -54.4633
7.78376, 104, 38.1633, 28.1924, 11.6, 10.0685, 112.267, -54.0094
7.79236, 104, 38.2928, 28.5387, 11.6184, 10.2653, 112.397, -53.5622
7.79913, 104, 38.356, 28.709, 11.6272, 10.3636, 112.46, -53.3422
7.80719, 104, 38.479, 29.0426, 11.6442, 10.5584, 112.584, -52.911
7.81667, 104, 38.6541, 29.5233, 11.6686, 10.8432, 112.761, -52.2928
7.82316, 104, 38.7096, 29.6773, 11.6763, 10.9354, 112.817, -52.096
7.83237, 104, 38.8671, 30.1187, 11.6981, 11.2006, 112.975, -51.5365
7.83913, 104, 38.9165, 30.2589, 11.7051, 11.2847, 113.025, -51.3614
7.84847, 104, 39.0551, 30.6544, 11.7248, 11.5228, 113.163, -50.8725
7.85518, 104, 39.0978, 30.7773, 11.7308, 11.5971, 113.205, -50.7217
7.8646, 104, 39.2156, 31.118, 11.7475, 11.8034, 113.32, -50.3069
7.87265, 104, 39.2852, 31.3199, 11.7576, 11.9269, 113.389, -50.0618
7.88073, 104, 39.3474, 31.502, 11.7666, 12.0387, 113.45, -49.8418
7.88868, 104, 39.4024, 31.6646, 11.7744, 12.1387, 113.505, -49.6466
7.89702, 104, 39.4502, 31.8073, 11.7814, 12.2266, 113.551, -49.4763
7.90312, 104, 39.4715, 31.8714, 11.7846, 12.2659, 113.572, -49.4003
7.91274, 104, 39.5094, 32.037, 11.793, 12.366, 113.625, -49.208
7.921, 104, 39.5542, 32.1264, 11.7978, 12.4177, 113.652, -49.1088
7.92713, 104, 39.5663, 32.1652, 11.8, 12.439, 113.664, -49.0671
7.93616, 104, 39.5869, 32.2323, 11.8041, 12.4743, 113.682, -48.999
7.94504, 104, 39.6029, 32.3097, 11.8098, 12.5111, 113.7, -48.9302
7.95112, 104, 39.6151, 32.3301, 11.8115, 12.5197, 113.704, -48.9145
7.95912, 104, 39.6242, 32.3631, 11.8147, 12.5323, 113.71, -48.8916
7.9672, 104, 39.631, 32.3875, 11.8176, 12.5403, 113.713, -48.8775
7.97512, 104, 39.6358, 32.4054, 11.8199, 12.545, 113.715, -48.8695
7.98313, 104, 39.6391, 32.4175, 11.8217, 12.5475, 113.716, -48.8657
7.99122, 104, 39.6412, 32.4252, 11.823, 12.5487, 113.716, -48.8639
7.99916, 105, 39.6421, 32.4299, 11.824, 12.5493, 113.716, -48.8633
8.00714, 105, 39.6421, 32.4328, 11.8248, 12.5496, 113.717, -48.8631
8.01519, 105, 39.6417, 32.4347, 11.8254, 12.5497, 113.717, -48.8632
8.02316, 105, 39.6413, 32.436, 11.8261, 12.5497, 113.717, -48.8635
8.03112, 105, 39.6408, 32.437, 11.8266, 12.5498, 113.717, -48.8638
8.03919, 105, 39.6403, 32.4378, 11.827, 12.5498, 113.717, -48.8642
8.04723, 105, 39.6398, 32.4386, 11.8275, 12.5498, 113.717, -48.8646
8.05512, 105, 39.6394, 32.4395, 11.828, 12.5497, 113.717, -48.8649
8.06319, 105, 39.639, 32.4404, 11.8286, 12.5497, 113.717, -48.8652
8.07113, 105, 39.6386, 32.4413, 11.8291, 12.5497, 113.717, -48.8656
8.07915, 105, 39.6383, 32.4421, 11.8295, 12.5497, 113.717, -48.8659
8.08719, 105, 39.638, 32.4428, 11.8299, 12.5498, 113.717, -48.8662
8.09511, 105, 39.6377, 32.4433, 11.8302, 12.5497, 113.717, -48.8665
8.10312, 105, 39.6374, 32.4436, 11.8305, 12.5497, 113.716, -48.8667
8.11119, 105, 39.6371, 32.4438, 11.8307, 12.5497, 113.716, -48.867
