hehonglu123/Motion-Primitive-Planning/ILC/recorded_data/realrobot/from_NX/iteration_31/run_3.csv
timestamp, cmd_num, J1, J2, J3, J4, J5, J6
0.000361, -1, 39.6291, 32.447, 11.8316, 12.5436, 113.713, -48.8735
0.003166, -1, 39.6291, 32.447, 11.8316, 12.5436, 113.713, -48.8736
0.007971, -1, 39.6291, 32.447, 11.8316, 12.5436, 113.713, -48.8736
0.029372, -1, 39.6291, 32.447, 11.8316, 12.5436, 113.713, -48.8736
0.032067, -1, 39.6291, 32.447, 11.8316, 12.5436, 113.713, -48.8736
0.033251, -1, 39.6291, 32.447, 11.8316, 12.5436, 113.713, -48.8736
0.038942, -1, 39.6291, 32.447, 11.8316, 12.5436, 113.713, -48.8736
0.047766, -1, 39.6291, 32.447, 11.8316, 12.5436, 113.713, -48.8736
0.055756, -1, 39.6286, 32.4469, 11.8316, 12.5436, 113.713, -48.8736
0.194769, -1, 38.4234, 31.8341, 12.0655, 12.5536, 113.089, -50.4681
0.196841, -1, 38.3381, 31.7894, 12.0848, 12.5548, 113.041, -50.5913
0.198039, -1, 38.3381, 31.7894, 12.0848, 12.5548, 113.041, -50.5913
0.20092, -1, 38.2511, 31.7439, 12.1043, 12.5559, 112.991, -50.7163
0.202205, -1, 38.2511, 31.7439, 12.1043, 12.5559, 112.991, -50.7163
0.204211, -1, 38.1626, 31.6976, 12.1238, 12.5572, 112.942, -50.8425
0.205466, -1, 38.1626, 31.6976, 12.1238, 12.5572, 112.942, -50.8425
0.20793, -1, 38.0726, 31.6507, 12.1433, 12.5584, 112.891, -50.9697
0.209281, -1, 38.0726, 31.6507, 12.1433, 12.5584, 112.891, -50.9697
0.21068, -1, 38.0726, 31.6507, 12.1433, 12.5584, 112.891, -50.9697
0.21349, -1, 37.9814, 31.6032, 12.1628, 12.5596, 112.84, -51.0977
0.2147, -1, 37.9814, 31.6032, 12.1628, 12.5596, 112.84, -51.0977
0.21675, -1, 37.8891, 31.5552, 12.1822, 12.5608, 112.79, -51.2263
0.217937, -1, 37.8891, 31.5552, 12.1822, 12.5608, 112.79, -51.2263
0.219923, -1, 37.7957, 31.5069, 12.2016, 12.562, 112.739, -51.3554
0.221556, -1, 37.7957, 31.5069, 12.2016, 12.562, 112.739, -51.3554
0.222812, -1, 37.7957, 31.5069, 12.2016, 12.562, 112.739, -51.3554
0.226035, -1, 37.7015, 31.4583, 12.221, 12.5632, 112.688, -51.4847
0.227927, -1, 37.6066, 31.4095, 12.2404, 12.5644, 112.637, -51.6145
0.229301, -1, 37.6066, 31.4095, 12.2404, 12.5644, 112.637, -51.6145
0.230607, -1, 37.6066, 31.4095, 12.2404, 12.5644, 112.637, -51.6145
0.232583, -1, 37.5112, 31.3606, 12.2598, 12.5656, 112.585, -51.7443
0.242809, -1, 37.3195, 31.2626, 12.2985, 12.5682, 112.483, -52.0038
0.249257, -1, 37.1273, 31.1646, 12.3374, 12.5706, 112.38, -52.2636
0.255001, -1, 37.0312, 31.1157, 12.3567, 12.5719, 112.328, -52.3937
0.264354, -1, 36.743, 30.9691, 12.4149, 12.5758, 112.174, -52.7841
0.272289, -1, 36.5513, 30.8714, 12.4538, 12.5784, 112.071, -53.0445
0.278811, -1, 36.4554, 30.8225, 12.4732, 12.5797, 112.019, -53.1746
0.288417, -1, 36.1681, 30.6759, 12.5315, 12.5835, 111.865, -53.5652
0.297486, -1, 36.0723, 30.6269, 12.5704, 12.5861, 111.762, -53.8258
0.304274, -1, 35.8806, 30.529, 12.5899, 12.5875, 111.711, -53.9562
0.312533, -1, 35.689, 30.431, 12.6482, 12.5913, 111.556, -54.3466
0.319746, -1, 35.4971, 30.3329, 12.6677, 12.5926, 111.505, -54.4768
0.327786, -1, 35.3049, 30.2347, 12.7064, 12.5952, 111.402, -54.7372
0.335906, -1, 35.1124, 30.1364, 12.7453, 12.5977, 111.298, -54.9981
0.343741, -1, 34.9201, 30.0379, 12.7842, 12.6003, 111.196, -55.2588
0.351749, -1, 34.7279, 29.9394, 12.823, 12.6029, 111.092, -55.5193
0.359788, -1, 34.5356, 29.841, 12.8619, 12.6053, 110.989, -55.7801
0.367796, -1, 34.3434, 29.7425, 12.9009, 12.608, 110.886, -56.041
0.374749, -1, 34.1514, 29.6442, 12.9398, 12.6106, 110.783, -56.302
0.383749, -1, 33.9595, 29.5459, 12.9788, 12.6132, 110.68, -56.5627
0.391811, -1, 33.7678, 29.4476, 13.0177, 12.6159, 110.577, -56.8234
0.39977, -1, 33.576, 29.3492, 13.0565, 12.6185, 110.474, -57.0843
0.407743, -1, 33.3837, 29.2508, 13.0955, 12.6211, 110.371, -57.3456
0.415818, -1, 33.1912, 29.1523, 13.1345, 12.6237, 110.268, -57.6064
0.423748, -1, 32.9985, 29.0537, 13.1733, 12.6263, 110.165, -57.8675
0.431738, -1, 32.8055, 28.9551, 13.2122, 12.6289, 110.062, -58.1286
0.43982, -1, 32.6122, 28.8565, 13.2511, 12.6316, 109.959, -58.3901
0.447747, -1, 32.4186, 28.7579, 13.29, 12.6343, 109.856, -58.6512
0.456741, -1, 32.2247, 28.6592, 13.3289, 12.6369, 109.753, -58.9121
0.463809, -1, 32.0306, 28.5604, 13.3678, 12.6396, 109.649, -59.1733
0.471733, -1, 31.8368, 28.4616, 13.4067, 12.6423, 109.546, -59.4347
0.479744, -1, 31.6432, 28.3628, 13.4458, 12.645, 109.443, -59.696
0.487854, -1, 31.4497, 28.2641, 13.4847, 12.6479, 109.34, -59.9572
0.495779, -1, 31.2567, 28.1656, 13.5236, 12.6506, 109.237, -60.2185
0.503807, -1, 31.0641, 28.0671, 13.5627, 12.6535, 109.134, -60.4801
0.511742, -1, 30.8719, 27.9685, 13.6018, 12.6563, 109.031, -60.7415
0.519751, -1, 30.6798, 27.87, 13.6407, 12.6591, 108.928, -61.0027
0.527859, -1, 30.488, 27.7714, 13.6798, 12.6619, 108.824, -61.2639
0.535753, -1, 30.296, 27.6727, 13.7187, 12.6647, 108.721, -61.5253
0.543751, -1, 30.1038, 27.5739, 13.7577, 12.6674, 108.618, -61.7871
0.551834, -1, 29.9113, 27.4752, 13.7967, 12.6702, 108.515, -62.0487
0.559752, -1, 29.7183, 27.3765, 13.8356, 12.6728, 108.412, -62.3104
0.567768, -1, 29.5247, 27.2777, 13.8745, 12.6755, 108.309, -62.572
0.575821, -1, 29.3307, 27.1789, 13.9135, 12.6781, 108.205, -62.8339
0.583741, -1, 29.1365, 27.0801, 13.9524, 12.6807, 108.102, -63.0954
0.591779, -1, 28.9421, 26.9812, 13.9914, 12.6833, 107.998, -63.3569
0.599785, -1, 28.7478, 26.8823, 14.0304, 12.6858, 107.895, -63.6184
0.607743, -1, 28.5538, 26.7834, 14.0693, 12.6883, 107.791, -63.8803
0.615824, -1, 28.3598, 26.6847, 14.1084, 12.6908, 107.688, -64.1421
0.62374, -1, 28.1664, 26.5859, 14.1474, 12.6933, 107.585, -64.4036
0.631772, -1, 27.9734, 26.4871, 14.1864, 12.6958, 107.482, -64.6654
0.639896, -1, 27.7806, 26.3882, 14.2255, 12.6982, 107.378, -64.9273
0.778201, -1, 24.496, 24.7077, 14.8879, 12.7378, 105.623, -69.3766
0.780284, -1, 24.496, 24.7077, 14.8879, 12.739, 105.571, -69.5075
0.782605, -1, 24.3998, 24.6583, 14.9074, 12.739, 105.571, -69.5075
0.784494, -1, 24.3036, 24.6088, 14.9269, 12.7402, 105.52, -69.6384
0.785853, -1, 24.3036, 24.6088, 14.9269, 12.7402, 105.52, -69.6384
0.78705, -1, 24.3036, 24.6088, 14.9269, 12.7402, 105.52, -69.6384
0.789054, -1, 24.2074, 24.5594, 14.9464, 12.7414, 105.468, -69.7691
0.792536, -1, 24.1111, 24.51, 14.9659, 12.7426, 105.416, -69.8998
0.794006, -1, 24.1111, 24.51, 14.9659, 12.7426, 105.416, -69.8998
0.795201, -1, 24.1111, 24.51, 14.9659, 12.7426, 105.416, -69.8998
0.797929, -1, 24.0148, 24.4606, 14.9854, 12.7437, 105.365, -70.0305
0.799165, -1, 24.0148, 24.4606, 14.9854, 12.7437, 105.365, -70.0305
0.801475, -1, 23.9183, 24.4112, 15.0049, 12.7449, 105.313, -70.1613
0.802747, -1, 23.9183, 24.4112, 15.0049, 12.7449, 105.313, -70.1613
0.805513, -1, 23.8219, 24.3617, 15.0244, 12.7461, 105.261, -70.2921
0.807502, -1, 23.8219, 24.3617, 15.0244, 12.7461, 105.261, -70.2921
0.809599, -1, 23.7255, 24.3123, 15.0438, 12.7474, 105.209, -70.4229
0.810859, -1, 23.7255, 24.3123, 15.0438, 12.7474, 105.209, -70.4229
0.812937, -1, 23.629, 24.2629, 15.0633, 12.7486, 105.158, -70.5539
0.814168, -1, 23.629, 24.2629, 15.0633, 12.7486, 105.158, -70.5539
0.81564, -1, 23.629, 24.2629, 15.0633, 12.7486, 105.158, -70.5539
0.817752, -1, 23.5324, 24.2135, 15.0827, 12.7497, 105.106, -70.6849
0.830749, -1, 23.2421, 24.0651, 15.1412, 12.7534, 104.951, -71.0773
0.83283, -1, 23.1452, 24.0156, 15.1606, 12.7546, 104.899, -71.2082
0.83973, -1, 23.0483, 23.9662, 15.18, 12.7558, 104.848, -71.3391
0.84778, -1, 22.8543, 23.8674, 15.2189, 12.7582, 104.744, -71.6009
0.855745, -1, 22.6604, 23.7686, 15.2579, 12.7607, 104.641, -71.8628
0.863769, -1, 22.4668, 23.67, 15.2969, 12.7631, 104.538, -72.1241
0.871732, -1, 22.2734, 23.5713, 15.3359, 12.7656, 104.434, -72.3855
0.879739, -1, 22.0802, 23.4726, 15.3748, 12.7683, 104.331, -72.6471
0.887778, -1, 21.8872, 23.3739, 15.4138, 12.7708, 104.228, -72.9087
0.89586, -1, 21.6946, 23.2752, 15.4528, 12.7735, 104.124, -73.17
0.903757, -1, 21.5025, 23.1763, 15.4917, 12.7761, 104.021, -73.4314
0.911792, -1, 21.3102, 23.0776, 15.5306, 12.7787, 103.918, -73.6929
0.919731, -1, 21.1178, 22.979, 15.5696, 12.7814, 103.815, -73.9547
0.927733, -1, 20.9253, 22.8803, 15.6085, 12.7841, 103.712, -74.2158
0.937283, -1, 20.7328, 22.7817, 15.6474, 12.7868, 103.609, -74.4769
0.943733, -1, 20.5401, 22.683, 15.6863, 12.7895, 103.506, -74.7382
0.952735, -1, 20.347, 22.5844, 15.7251, 12.7923, 103.403, -74.9996
0.958743, -1, 20.1534, 22.4856, 15.7641, 12.795, 103.3, -75.2609
0.967725, -1, 19.9598, 22.3869, 15.8029, 12.7977, 103.196, -75.5219
0.975744, -1, 19.7661, 22.2882, 15.8416, 12.8004, 103.094, -75.783
0.98376, -1, 19.5726, 22.1896, 15.8805, 12.8031, 102.991, -76.0443
0.991723, -1, 19.3792, 22.091, 15.9194, 12.8058, 102.887, -76.3056
0.999785, -1, 19.1862, 21.9924, 15.9582, 12.8086, 102.785, -76.5664
1.00773, -1, 18.9934, 21.8937, 15.9972, 12.8114, 102.681, -76.8272
1.01573, -1, 18.8009, 21.7951, 16.036, 12.8141, 102.578, -77.0882
1.0238, -1, 18.6088, 21.6963, 16.0747, 12.8168, 102.476, -77.3492
1.03177, -1, 18.417, 21.5977, 16.1137, 12.8195, 102.373, -77.6099
1.03972, -1, 18.225, 21.4991, 16.1526, 12.8221, 102.27, -77.8706
1.04781, -1, 18.0332, 21.4006, 16.1913, 12.8247, 102.167, -78.1314
1.05574, -1, 17.8414, 21.3023, 16.2302, 12.8273, 102.064, -78.3922
1.06374, -1, 17.6493, 21.2039, 16.2691, 12.8298, 101.961, -78.6528
1.07182, -1, 17.457, 21.1056, 16.3079, 12.8323, 101.858, -78.913
1.07973, -1, 17.2641, 21.0073, 16.3468, 12.8347, 101.755, -79.1737
1.08772, -1, 17.071, 20.9091, 16.3855, 12.8372, 101.652, -79.4343
1.09581, -1, 16.8779, 20.8108, 16.4244, 12.8396, 101.549, -79.695
1.10372, -1, 16.6848, 20.7127, 16.4632, 12.8419, 101.446, -79.9554
1.11172, -1, 16.4919, 20.6145, 16.5019, 12.8443, 101.344, -80.2159
1.12011, -1, 16.299, 20.5162, 16.5406, 12.8466, 101.241, -80.4766
1.12722, -1, 16.1067, 20.4178, 16.5794, 12.8489, 101.139, -80.7372
1.13518, -1, 15.9147, 20.3194, 16.6181, 12.8512, 101.036, -80.9974
1.14461, -1, 15.723, 20.2209, 16.6569, 12.8535, 100.933, -81.2574
1.1519, -1, 15.5316, 20.1224, 16.6955, 12.8559, 100.831, -81.5175
1.15988, -1, 15.3404, 20.0241, 16.7341, 12.8583, 100.728, -81.7777
1.16866, -1, 15.1493, 19.9258, 16.7729, 12.8606, 100.625, -82.0376
1.17584, -1, 14.9582, 19.8276, 16.8116, 12.8628, 100.523, -82.2973
1.18389, -1, 14.7669, 19.7295, 16.8503, 12.865, 100.421, -82.5573
1.19262, -1, 14.5754, 19.6313, 16.8891, 12.8674, 100.318, -82.8175
1.1998, -1, 14.3836, 19.5332, 16.9277, 12.8696, 100.215, -83.0772
1.20782, -1, 14.1913, 19.4352, 16.9664, 12.8719, 100.113, -83.3365
1.21687, -1, 13.999, 19.3373, 17.0051, 12.8742, 100.01, -83.5962
1.22389, -1, 13.8066, 19.2395, 17.0437, 12.8765, 99.9076, -83.856
1.23198, -1, 13.6142, 19.1417, 17.0824, 12.8788, 99.8051, -84.1155
1.23999, -1, 13.4218, 19.0439, 17.1211, 12.8812, 99.7025, -84.3747
1.24672, -1, 13.3258, 18.9949, 17.1403, 12.8823, 99.6513, -84.5044
1.25613, -1, 13.0382, 18.848, 17.1981, 12.8858, 99.4979, -84.8933
1.26282, -1, 12.9426, 18.7991, 17.2175, 12.887, 99.4466, -85.023
1.27233, -1, 12.656, 18.6521, 17.2753, 12.8905, 99.2933, -85.4118
1.28029, -1, 12.4652, 18.5543, 17.3139, 12.893, 99.1909, -85.6706
1.28826, -1, 12.275, 18.4565, 17.3524, 12.8954, 99.0886, -85.9295
1.29642, -1, 12.0849, 18.3587, 17.3909, 12.8979, 98.9866, -86.1885
1.30518, -1, 11.9897, 18.3099, 17.4102, 12.9002, 98.8845, -86.4473
1.31081, -1, 11.7992, 18.2123, 17.4489, 12.9014, 98.8335, -86.5765
1.32098, -1, 11.5131, 18.0659, 17.5066, 12.9051, 98.6808, -86.9645
1.32771, -1, 11.4176, 18.017, 17.5259, 12.9063, 98.6298, -87.0939
1.33471, -1, 11.2265, 17.9195, 17.5645, 12.9087, 98.5278, -87.3525
1.34372, -1, 11.0352, 17.822, 17.603, 12.9112, 98.426, -87.6107
1.35171, -1, 10.8437, 17.7246, 17.6415, 12.9137, 98.3239, -87.8688
1.35871, -1, 10.6521, 17.6272, 17.68, 12.9162, 98.2219, -88.1271
1.36776, -1, 10.4607, 17.5296, 17.7183, 12.9188, 98.1203, -88.3856
1.37572, -1, 10.2695, 17.4321, 17.7568, 12.9212, 98.0183, -88.6437
1.38271, -1, 10.0786, 17.3346, 17.7952, 12.9238, 97.9164, -88.9017
1.39171, -1, 9.88822, 17.237, 17.8335, 12.9265, 97.8147, -89.1598
1.39973, -1, 9.69811, 17.1395, 17.8719, 12.9291, 97.7126, -89.418
1.40781, -1, 9.50836, 17.042, 17.9102, 12.9319, 97.6106, -89.676
1.41571, -1, 9.31903, 16.9447, 17.9485, 12.9346, 97.5089, -89.9336
1.42371, -1, 9.12969, 16.8473, 17.9869, 12.9373, 97.4069, -90.191
1.43326, -1, 8.94029, 16.7501, 18.0252, 12.9399, 97.3051, -90.5775
1.43971, -1, 8.75069, 16.653, 18.0636, 12.9426, 97.2035, -90.7063
1.44871, -1, 8.56108, 16.5558, 18.102, 12.9452, 97.1018, -90.9634
1.45472, -1, 8.3713, 16.4587, 18.1403, 12.9479, 97.0005, -91.2207
1.46371, -1, 8.18106, 16.3617, 18.1786, 12.9506, 96.8989, -91.4779
1.47275, -1, 7.99063, 16.2649, 18.217, 12.9532, 96.7972, -91.7351
1.47871, -1, 7.80018, 16.168, 18.2552, 12.9559, 96.6958, -91.992
1.48771, -1, 7.60964, 16.071, 18.2934, 12.9585, 96.5943, -92.2486
1.49571, -1, 7.41924, 15.9741, 18.3318, 12.9611, 96.4928, -92.5054
1.50373, -1, 7.22911, 15.8771, 18.3699, 12.9636, 96.3917, -92.7624
1.51173, -1, 7.03929, 15.7801, 18.4081, 12.9662, 96.2903, -93.0189
1.51977, -1, 6.84983, 15.6832, 18.4464, 12.9688, 96.1889, -93.2754
1.52773, -1, 6.66084, 15.5864, 18.4845, 12.9713, 96.0883, -93.5317
1.53576, -1, 6.47231, 15.4896, 18.5226, 12.9739, 95.9872, -93.7882
1.54377, -1, 6.28406, 15.3928, 18.5608, 12.9764, 95.886, -94.0447
1.55175, -1, 6.09598, 15.2961, 18.5989, 12.9788, 95.7854, -94.3006
1.55971, -1, 5.90762, 15.1994, 18.6371, 12.9812, 95.6842, -94.5565
1.5678, -1, 5.71925, 15.1027, 18.6752, 12.9835, 95.5832, -94.8124
1.57573, -1, 5.53081, 15.0061, 18.7133, 12.9859, 95.4827, -95.0684
1.58371, -1, 5.34201, 14.9096, 18.7514, 12.9882, 95.3818, -95.3241
1.59177, -1, 5.15285, 14.8131, 18.7896, 12.9905, 95.2811, -95.5796
1.59971, -1, 4.96348, 14.7168, 18.8276, 12.9928, 95.1806, -95.8351
1.60772, -1, 4.77413, 14.6204, 18.8656, 12.9951, 95.0797, -96.0906
1.61577, -1, 4.58479, 14.524, 18.9037, 12.9972, 94.979, -96.3458
1.62372, -1, 4.39562, 14.4277, 18.9417, 12.9995, 94.8783, -96.6007
1.63181, -1, 4.20669, 14.3313, 18.9798, 13.0016, 94.7774, -96.8556
1.63975, -1, 4.01797, 14.2349, 19.0177, 13.004, 94.6766, -97.1106
1.6478, -1, 3.82993, 14.1387, 19.0556, 13.0063, 94.5758, -97.3657
1.65597, -1, 3.64237, 14.0425, 19.0936, 13.0084, 94.475, -97.6203
1.66417, -1, 3.45518, 13.9463, 19.1315, 13.0108, 94.3745, -97.875
1.67137, -1, 3.26825, 13.8503, 19.1693, 13.0131, 94.2738, -98.1298
1.67988, -1, 3.08122, 13.7543, 19.2072, 13.0153, 94.173, -98.3847
1.68826, -1, 2.89422, 13.6582, 19.2452, 13.0176, 94.0725, -98.639
1.69572, -1, 2.70708, 13.5622, 19.2831, 13.0199, 93.9718, -98.8931
1.70404, -1, 2.51982, 13.4662, 19.321, 13.0221, 93.8713, -99.1471
1.71257, -1, 2.3324, 13.3702, 19.3587, 13.0244, 93.771, -99.4014
1.71994, -1, 2.14457, 13.2745, 19.3965, 13.0266, 93.6707, -99.6554
1.72794, -1, 1.95646, 13.1786, 19.4344, 13.0288, 93.5705, -99.909
1.73677, -1, 1.76833, 13.0827, 19.4722, 13.0311, 93.4707, -100.163
1.7441, -1, 1.58011, 12.9869, 19.5099, 13.0333, 93.3705, -100.416
1.75071, -1, 1.48605, 12.939, 19.5288, 13.0344, 93.3204, -100.543
1.76094, -1, 1.20423, 12.7952, 19.5855, 13.0379, 93.1706, -100.923
1.76821, -1, 1.01677, 12.6994, 19.6232, 13.0403, 93.0704, -101.176
1.7763, -1, 0.830012, 12.6039, 19.661, 13.0427, 92.9704, -101.429
1.78516, -1, 0.643634, 12.5083, 19.6985, 13.045, 92.8708, -101.682
1.79076, -1, 0.550623, 12.4605, 19.7173, 13.0462, 92.8209, -101.809
1.80035, -1, 0.272062, 12.3174, 19.7739, 13.0499, 92.6713, -102.188
1.80917, -1, 0.179321, 12.2697, 19.7927, 13.0512, 92.572, -102.441
1.81479, -1, -0.00606813, 12.1744, 19.8302, 13.0536, 92.5221, -102.567
1.82478, -1, -0.28446, 12.0315, 19.8867, 13.0572, 92.3726, -102.946
1.8317, -1, -0.377355, 11.9839, 19.9055, 13.0585, 92.323, -103.072
1.83876, -1, -0.563459, 11.8888, 19.943, 13.061, 92.2236, -103.324
1.8477, -1, -0.749844, 11.7938, 19.9805, 13.0634, 92.124, -103.576
1.8557, -1, -0.93633, 11.6987, 20.018, 13.0659, 92.0247, -103.828
1.86269, -1, -1.12305, 11.6036, 20.0554, 13.0685, 91.9253, -104.08
1.87175, -1, -1.31, 11.5086, 20.093, 13.071, 91.826, -104.332
1.8797, -1, -1.49678, 11.4135, 20.1305, 13.0735, 91.7269, -104.583
1.88669, -1, -1.68335, 11.3183, 20.1679, 13.0761, 91.6277, -104.835
1.89571, -1, -1.86955, 11.2232, 20.2053, 13.0787, 91.5284, -105.086
1.90377, -1, -2.05542, 11.1283, 20.2428, 13.0814, 91.4294, -105.337
1.91178, -1, -2.24053, 11.0333, 20.2801, 13.084, 91.3302, -105.588
1.91971, -1, -2.4253, 10.9384, 20.3175, 13.0867, 91.2309, -105.839
1.92775, -1, -2.60979, 10.8437, 20.3549, 13.0894, 91.132, -106.09
1.93475, -1, -2.79378, 10.7489, 20.3921, 13.092, 91.0329, -106.341
1.94376, -1, -2.97769, 10.6541, 20.4295, 13.0947, 90.9337, -106.592
1.95169, -1, -3.16179, 10.5594, 20.4669, 13.0973, 90.8351, -106.842
1.95977, -1, -3.34611, 10.4648, 20.5041, 13.0999, 90.736, -107.093
1.96769, -1, -3.53076, 10.3704, 20.5414, 13.1024, 90.6371, -107.343
1.97674, -1, -3.7155, 10.2761, 20.5786, 13.105, 90.5385, -107.594
1.98269, -1, -3.90059, 10.1817, 20.6158, 13.1074, 90.4395, -107.844
1.9917, -1, -4.0859, 10.0873, 20.6531, 13.1099, 90.3408, -108.093
1.99977, -1, -4.27142, 9.99305, 20.6903, 13.1123, 90.2424, -108.344
2.00771, -1, -4.457, 9.89869, 20.7274, 13.1147, 90.1436, -108.593
2.01595, -1, -4.64228, 9.80435, 20.7648, 13.117, 90.0451, -108.843
2.02375, -1, -4.82715, 9.71012, 20.8019, 13.1194, 89.9468, -109.092
2.03169, -1, -5.01169, 9.61602, 20.8389, 13.1219, 89.8482, -109.342
2.04054, -1, -5.19554, 9.52195, 20.8761, 13.1242, 89.7498, -109.591
2.04769, -1, -5.37887, 9.42789, 20.9133, 13.1266, 89.6515, -109.84
2.05569, -1, -5.56184, 9.33398, 20.9503, 13.1289, 89.5531, -110.089
2.06456, -1, -5.74439, 9.24006, 20.9875, 13.1312, 89.4548, -110.337
2.07171, -1, -5.92671, 9.14617, 21.0245, 13.1335, 89.3568, -110.586
2.07975, -1, -6.10916, 9.05231, 21.0615, 13.1357, 89.2586, -110.835
2.08848, -1, -6.29184, 8.95851, 21.0986, 13.138, 89.1606, -111.083
2.09571, -1, -6.47473, 8.8649, 21.1355, 13.1402, 89.0629, -111.332
2.10375, -1, -6.65787, 8.77127, 21.1723, 13.1423, 88.9647, -111.58
2.11253, -1, -6.84147, 8.67762, 21.2093, 13.1445, 88.8668, -111.828
2.1197, -1, -7.02534, 8.584, 21.2462, 13.1466, 88.7691, -112.076
2.1277, -1, -7.20954, 8.49044, 21.283, 13.1487, 88.6712, -112.324
2.13652, -1, -7.39376, 8.39678, 21.32, 13.1508, 88.5733, -112.571
2.14379, -1, -7.57756, 8.30312, 21.3568, 13.153, 88.4759, -112.819
2.15178, -1, -7.761, 8.20973, 21.3935, 13.1551, 88.3782, -113.066
2.16072, -1, -7.94416, 8.11633, 21.4304, 13.1574, 88.2808, -113.313
2.1678, -1, -8.1268, 8.02297, 21.4672, 13.1597, 88.1835, -113.561
2.17587, -1, -8.3086, 7.92974, 21.5039, 13.1618, 88.086, -113.808
2.18468, -1, -8.48998, 7.83648, 21.5408, 13.1641, 87.9886, -114.055
2.19169, -1, -8.67102, 7.7433, 21.5776, 13.1664, 87.8913, -114.301
2.19978, -1, -8.85169, 7.65011, 21.6144, 13.1687, 87.7938, -114.548
2.20868, -1, -9.03243, 7.55703, 21.6511, 13.1709, 87.6964, -114.794
2.21572, -1, -9.21344, 7.46402, 21.6878, 13.1732, 87.5994, -115.041
2.22396, -1, -9.39475, 7.37121, 21.7244, 13.1754, 87.5022, -115.287
2.23288, -1, -9.57645, 7.27836, 21.7612, 13.1775, 87.405, -115.533
2.23993, -1, -9.75836, 7.18554, 21.7978, 13.1798, 87.308, -115.779
2.24811, -1, -9.94067, 7.09281, 21.8343, 13.182, 87.2107, -116.025
2.2547, -1, -10.0319, 7.04643, 21.8526, 13.1831, 87.1621, -116.148
2.26412, -1, -10.3059, 6.90726, 21.9075, 13.1865, 87.0164, -116.517
2.27227, -1, -10.4884, 6.81451, 21.9441, 13.1887, 86.9193, -116.762
2.28035, -1, -10.6707, 6.7218, 21.9806, 13.1909, 86.8222, -117.008
2.28826, -1, -10.8525, 6.62921, 22.0171, 13.1933, 86.7254, -117.253
2.29632, -1, -11.0338, 6.53665, 22.0535, 13.1958, 86.6284, -117.498
2.30428, -1, -11.1241, 6.4904, 22.0901, 13.1981, 86.5317, -117.743
2.31223, -1, -11.3043, 6.39791, 22.1084, 13.1993, 86.4836, -117.988
2.32038, -1, -11.4841, 6.30544, 22.1449, 13.2018, 86.3867, -118.233
2.32768, -1, -11.6635, 6.21305, 22.1813, 13.2042, 86.29, -118.356
2.33568, -1, -11.8428, 6.1207, 22.2178, 13.2067, 86.1936, -118.6
2.34377, -1, -12.0219, 6.02843, 22.2542, 13.2091, 86.0969, -118.844
2.35168, -1, -12.2013, 5.93625, 22.2906, 13.2116, 86.0003, -119.088
2.35872, -1, -12.3809, 5.84423, 22.3271, 13.2141, 85.9041, -119.333
2.36769, -1, -12.5611, 5.75216, 22.3634, 13.2165, 85.8077, -119.577
2.37573, -1, -12.7415, 5.66015, 22.3997, 13.219, 85.7114, -119.821
2.38373, -1, -12.9223, 5.56823, 22.4361, 13.2215, 85.6156, -120.064
2.39168, -1, -13.1034, 5.47626, 22.4723, 13.2239, 85.5195, -120.308
2.39969, -1, -13.2846, 5.38423, 22.5085, 13.2263, 85.4235, -120.552
2.4077, -1, -13.4657, 5.29229, 22.5449, 13.2288, 85.3278, -120.795
2.41577, -1, -13.6464, 5.20038, 22.5811, 13.2314, 85.2319, -121.039
2.42368, -1, -13.8266, 5.10854, 22.6172, 13.2339, 85.1361, -121.281
2.43168, -1, -14.0062, 5.01671, 22.6534, 13.2366, 85.0405, -121.524
2.43976, -1, -14.1849, 4.92503, 22.6895, 13.239, 84.9449, -121.767
2.45012, -1, -14.3632, 4.83334, 22.7256, 13.2417, 84.8492, -122.01
2.45568, -1, -14.5411, 4.74169, 22.7618, 13.2442, 84.7538, -122.252
2.46375, -1, -14.7188, 4.6501, 22.798, 13.2467, 84.6581, -122.495
2.47272, -1, -14.8964, 4.55861, 22.834, 13.2492, 84.5623, -122.737
2.47877, -1, -15.0741, 4.46714, 22.8702, 13.2517, 84.4667, -122.98
2.48775, -1, -15.2523, 4.37583, 22.9063, 13.2541, 84.3711, -123.222
2.49568, -1, -15.4306, 4.28448, 22.9423, 13.2565, 84.2754, -123.463
2.50368, -1, -15.6095, 4.19315, 22.9784, 13.2588, 84.1799, -123.705
2.51176, -1, -15.7886, 4.10188, 23.0144, 13.2612, 84.0844, -123.947
2.51969, -1, -15.9679, 4.01064, 23.0503, 13.2634, 83.9889, -124.189
2.52768, -1, -16.1475, 3.91935, 23.0863, 13.2656, 83.8935, -124.43
2.53574, -1, -16.3272, 3.8281, 23.1223, 13.2677, 83.798, -124.671
2.54373, -1, -16.5066, 3.73695, 23.1581, 13.2698, 83.7026, -124.913
2.55177, -1, -16.6856, 3.64585, 23.1939, 13.2721, 83.6072, -125.154
2.55969, -1, -16.8641, 3.55478, 23.2298, 13.2744, 83.5118, -125.395
2.56768, -1, -17.0417, 3.46379, 23.2656, 13.2766, 83.4164, -125.636
2.57576, -1, -17.2185, 3.37285, 23.3015, 13.2789, 83.3212, -125.877
2.58369, -1, -17.3951, 3.28199, 23.3374, 13.2811, 83.2262, -126.117
2.59167, -1, -17.5713, 3.19116, 23.3731, 13.2832, 83.1311, -126.358
2.59976, -1, -17.7474, 3.10051, 23.409, 13.2854, 83.0362, -126.598
2.60768, -1, -17.9234, 3.0099, 23.4449, 13.2875, 82.9415, -126.838
2.61567, -1, -18.0996, 2.91942, 23.4806, 13.2896, 82.8466, -127.079
2.62375, -1, -18.2762, 2.82903, 23.5164, 13.2918, 82.7519, -127.319
2.63168, -1, -18.4531, 2.73859, 23.5522, 13.2938, 82.6573, -127.558
2.63972, -1, -18.6306, 2.64818, 23.5878, 13.2958, 82.5625, -127.798
2.64782, -1, -18.8083, 2.55785, 23.6235, 13.2979, 82.4679, -128.038
2.65576, -1, -18.9863, 2.4674, 23.6592, 13.2999, 82.3737, -128.277
2.66387, -1, -19.1646, 2.3769, 23.6948, 13.3019, 82.2791, -128.517
2.67184, -1, -19.3428, 2.28656, 23.7304, 13.3039, 82.1848, -128.756
2.67982, -1, -19.5205, 2.19619, 23.7661, 13.306, 82.091, -128.995
2.68774, -1, -19.6975, 2.1058, 23.8015, 13.3082, 81.9966, -129.234
2.69581, -1, -19.874, 2.01551, 23.8369, 13.3104, 81.9024, -129.473
2.70371, -1, -20.0498, 1.92523, 23.8725, 13.3125, 81.8085, -129.712
2.71176, -1, -20.225, 1.83501, 23.9081, 13.3147, 81.7143, -129.95
2.71984, -1, -20.4, 1.7449, 23.9434, 13.3169, 81.6202, -130.188
2.72785, -1, -20.5746, 1.65485, 23.979, 13.3192, 81.5265, -130.427
2.73594, -1, -20.7491, 1.56487, 24.0145, 13.3213, 81.4325, -130.665
2.74401, -1, -20.9237, 1.47494, 24.0499, 13.3235, 81.3388, -130.903
2.75067, -1, -21.0111, 1.43008, 24.0676, 13.3246, 81.2919, -131.022
2.76008, -1, -21.274, 1.29543, 24.1209, 13.3279, 81.1512, -131.379
2.76668, -1, -21.3618, 1.25054, 24.1386, 13.329, 81.1043, -131.498
2.77618, -1, -21.6257, 1.1161, 24.1916, 13.3321, 80.9636, -131.854
2.78516, -1, -21.8019, 1.02643, 24.2271, 13.3344, 80.8697, -132.092
2.79094, -1, -21.8901, 0.98161, 24.2448, 13.3355, 80.8229, -132.21
2.80028, -1, -22.1549, 0.847235, 24.2978, 13.3387, 80.6823, -132.566
2.80914, -1, -22.2432, 0.802453, 24.3332, 13.3409, 80.5886, -132.803
2.81547, -1, -22.4196, 0.712998, 24.3508, 13.342, 80.5419, -132.922
2.82425, -1, -22.5953, 0.623484, 24.3859, 13.3443, 80.4482, -133.159
2.83167, -1, -22.7707, 0.534045, 24.4212, 13.3467, 80.3548, -133.396
2.83948, -1, -22.9453, 0.444623, 24.4564, 13.3491, 80.261, -133.632
2.84666, -1, -23.1189, 0.355241, 24.4915, 13.3516, 80.1676, -133.869
2.85567, -1, -23.2924, 0.265901, 24.5266, 13.354, 80.0742, -134.106
2.86346, -1, -23.4655, 0.176621, 24.5618, 13.3564, 79.9806, -134.342
2.87067, -1, -23.6387, 0.0874399, 24.597, 13.3588, 79.8873, -134.578
2.87972, -1, -23.812, -0.00166866, 24.6321, 13.3612, 79.7942, -134.814
2.88746, -1, -23.9854, -0.0906543, 24.6673, 13.3637, 79.701, -135.051
2.89566, -1, -24.1591, -0.179643, 24.7023, 13.3661, 79.6079, -135.287
2.90367, -1, -24.333, -0.26859, 24.7374, 13.3686, 79.5149, -135.522
2.91152, -1, -24.5073, -0.357499, 24.7726, 13.371, 79.4218, -135.758
2.91969, -1, -24.6819, -0.446401, 24.8076, 13.3735, 79.3288, -135.993
2.92766, -1, -24.8569, -0.535302, 24.8426, 13.3758, 79.2357, -136.229
2.93576, -1, -25.032, -0.624162, 24.8778, 13.3782, 79.1427, -136.464
2.94366, -1, -25.2068, -0.712998, 24.9128, 13.3806, 79.0497, -136.699
2.95268, -1, -25.3813, -0.801735, 24.9478, 13.3829, 78.957, -136.934
2.95946, -1, -25.5555, -0.890572, 24.9829, 13.3854, 78.8645, -137.169
2.96766, -1, -25.7291, -0.979328, 25.0177, 13.388, 78.7716, -137.404
2.97567, -1, -25.902, -1.06798, 25.0526, 13.3903, 78.679, -137.639
2.98375, -1, -26.0745, -1.1567, 25.0876, 13.3928, 78.5868, -137.873
2.99167, -1, -26.2466, -1.24533, 25.1225, 13.3953, 78.4941, -138.108
2.99966, -1, -26.4183, -1.33384, 25.1573, 13.3976, 78.4015, -138.342
3.00767, -1, -26.5901, -1.42224, 25.1923, 13.3999, 78.3092, -138.577
3.0157, -1, -26.7621, -1.51057, 25.2273, 13.4021, 78.2166, -138.811
3.02373, -1, -26.9344, -1.5988, 25.2621, 13.4045, 78.1242, -139.045
3.03169, -1, -27.1069, -1.68698, 25.2969, 13.4066, 78.0321, -139.279
3.03966, -1, -27.2794, -1.77525, 25.3318, 13.4088, 77.9398, -139.513
3.04788, -1, -27.4523, -1.86333, 25.3666, 13.411, 77.8478, -139.746
3.05567, -1, -27.6255, -1.95145, 25.4013, 13.4131, 77.7559, -139.98
3.06366, -1, -27.7987, -2.03967, 25.4362, 13.4151, 77.6638, -140.213
3.07173, -1, -27.9719, -2.12767, 25.471, 13.4172, 77.5718, -140.447
3.07969, -1, -28.1452, -2.21571, 25.5057, 13.4192, 77.4798, -140.68
3.08768, -1, -28.3183, -2.30376, 25.5405, 13.4213, 77.3878, -140.913
3.09573, -1, -28.4911, -2.3918, 25.5752, 13.4234, 77.2956, -141.146
3.10377, -1, -28.6636, -2.47978, 25.6098, 13.4255, 77.2036, -141.379
3.11169, -1, -28.8354, -2.56778, 25.6445, 13.4277, 77.1116, -141.612
3.11973, -1, -29.0063, -2.65575, 25.6792, 13.4299, 77.0197, -141.845
3.12838, -1, -29.1771, -2.74361, 25.7137, 13.4321, 76.9278, -142.077
3.13573, -1, -29.3476, -2.8314, 25.7484, 13.4341, 76.8361, -142.31
3.1437, -1, -29.5183, -2.91909, 25.7831, 13.4362, 76.7441, -142.542
3.15253, -1, -29.6892, -3.00665, 25.8176, 13.4382, 76.6522, -142.775
3.15981, -1, -29.8602, -3.09418, 25.8522, 13.4402, 76.5606, -143.007
3.16782, -1, -30.0311, -3.18165, 25.8868, 13.4424, 76.4686, -143.239
3.17679, -1, -30.202, -3.26915, 25.9213, 13.4445, 76.3769, -143.471
3.18385, -1, -30.3732, -3.35661, 25.9559, 13.4466, 76.2855, -143.703
3.19172, -1, -30.5447, -3.44403, 25.9904, 13.4486, 76.1939, -143.935
3.20162, -1, -30.7165, -3.53157, 26.0249, 13.4506, 76.1025, -144.166
3.20792, -1, -30.8884, -3.61892, 26.0594, 13.4527, 76.0112, -144.397
3.21574, -1, -31.0602, -3.70635, 26.094, 13.4547, 75.9198, -144.629
3.22448, -1, -31.2319, -3.79367, 26.1284, 13.4568, 75.8284, -144.86
3.23186, -1, -31.4032, -3.88098, 26.1628, 13.4588, 75.7371, -145.092
3.23987, -1, -31.5741, -3.96831, 26.1972, 13.461, 75.6458, -145.323
3.24673, -1, -31.6594, -4.01194, 26.2145, 13.4621, 75.6001, -145.438
3.25605, -1, -31.9146, -4.14289, 26.266, 13.4654, 75.4634, -145.784
3.26266, -1, -31.9994, -4.18651, 26.2832, 13.4665, 75.418, -145.9
3.27288, -1, -32.2537, -4.3172, 26.3348, 13.4698, 75.2812, -146.246
3.28023, -1, -32.423, -4.40426, 26.369, 13.472, 75.1902, -146.477
3.2882, -1, -32.5927, -4.49124, 26.4033, 13.4741, 75.0996, -146.707
3.2971, -1, -32.7624, -4.57816, 26.4378, 13.4762, 75.0085, -146.938
3.30432, -1, -32.932, -4.66504, 26.472, 13.4784, 74.9177, -147.168
3.3123, -1, -33.0169, -4.70851, 26.5062, 13.4806, 74.8273, -147.398
3.32102, -1, -33.1866, -4.79545, 26.5233, 13.4817, 74.782, -147.513
3.3282, -1, -33.3565, -4.88226, 26.5577, 13.4839, 74.6911, -147.743
3.33565, -1, -33.5267, -4.96921, 26.5919, 13.4861, 74.6005, -147.973
3.34367, -1, -33.697, -5.05612, 26.6261, 13.4883, 74.5102, -148.203
3.35167, -1, -33.8672, -5.14287, 26.6603, 13.4905, 74.4194, -148.433
3.35965, -1, -34.0375, -5.22962, 26.6944, 13.4927, 74.329, -148.663
3.36771, -1, -34.2077, -5.31639, 26.7286, 13.495, 74.2386, -148.892
3.37468, -1, -34.3778, -5.40304, 26.7629, 13.4973, 74.1479, -149.121
3.3837, -1, -34.5477, -5.48968, 26.797, 13.4997, 74.0572, -149.351
3.3917, -1, -34.7169, -5.57632, 26.8311, 13.502, 73.9668, -149.58
3.39966, -1, -34.8857, -5.66293, 26.8653, 13.5044, 73.8762, -149.809
3.40765, -1, -35.0541, -5.74945, 26.8994, 13.5069, 73.7858, -150.038
3.41571, -1, -35.2224, -5.83593, 26.9334, 13.5094, 73.6954, -150.267
3.42368, -1, -35.3907, -5.92226, 26.9675, 13.5118, 73.6051, -150.496
3.43172, -1, -35.5592, -6.00847, 27.0017, 13.5141, 73.5147, -150.725
3.43965, -1, -35.7277, -6.09475, 27.0356, 13.5164, 73.4244, -150.953
3.44677, -1, -35.8962, -6.18092, 27.0697, 13.5188, 73.3342, -151.182
3.45571, -1, -36.0647, -6.26705, 27.1038, 13.5212, 73.2436, -151.41
3.4647, -1, -36.2332, -6.35318, 27.1377, 13.5237, 73.1532, -151.639
3.47165, -1, -36.4019, -6.43939, 27.1717, 13.5261, 73.0631, -151.868
3.47974, -1, -36.5707, -6.52565, 27.2057, 13.5284, 72.9725, -152.096
3.48765, -1, -36.7396, -6.61182, 27.2396, 13.5307, 72.8824, -152.324
3.49566, -1, -36.9085, -6.69798, 27.2735, 13.533, 72.7924, -152.552
3.50372, -1, -37.0776, -6.78416, 27.3075, 13.5353, 72.7022, -152.78
3.51164, -1, -37.2464, -6.87029, 27.3414, 13.5376, 72.6123, -153.008
3.51967, -1, -37.4149, -6.95629, 27.3752, 13.5398, 72.5225, -153.235
3.52771, -1, -37.5831, -7.04239, 27.4092, 13.5422, 72.4325, -153.463
3.53566, -1, -37.7509, -7.12842, 27.4432, 13.5443, 72.3426, -153.69
3.5437, -1, -37.9185, -7.21441, 27.477, 13.5466, 72.2528, -153.918
3.55178, -1, -38.0859, -7.3003, 27.5108, 13.5488, 72.1632, -154.146
3.55965, -1, -38.2533, -7.38619, 27.5448, 13.551, 72.0733, -154.373
3.56765, -1, -38.4206, -7.47194, 27.5785, 13.5532, 71.9837, -154.6
3.57574, -1, -38.5878, -7.55764, 27.6123, 13.5552, 71.8943, -154.827
3.58364, -1, -38.755, -7.64336, 27.6463, 13.5573, 71.8045, -155.055
3.59167, -1, -38.9224, -7.72907, 27.68, 13.5594, 71.7151, -155.282
3.59972, -1, -39.0897, -7.8147, 27.7137, 13.5614, 71.626, -155.508
3.60764, -1, -39.2572, -7.90034, 27.7475, 13.5635, 71.5364, -155.735
3.61566, -1, -39.4248, -7.98606, 27.7814, 13.5655, 71.447, -155.962
3.62376, -1, -39.5924, -8.07161, 27.815, 13.5675, 71.3578, -156.189
3.63165, -1, -39.76, -8.15714, 27.8487, 13.5694, 71.2684, -156.415
3.63966, -1, -39.9276, -8.24263, 27.8824, 13.5713, 71.179, -156.642
3.64792, -1, -40.0952, -8.32803, 27.9161, 13.5733, 71.0897, -156.868
3.65574, -1, -40.2627, -8.41338, 27.9497, 13.5752, 71.0006, -157.094
3.66373, -1, -40.43, -8.49877, 27.9836, 13.5772, 70.9111, -157.321
3.67209, -1, -40.5971, -8.58415, 28.0172, 13.5792, 70.8219, -157.547
3.67975, -1, -40.7639, -8.66952, 28.0508, 13.5811, 70.733, -157.772
3.68779, -1, -40.9304, -8.75482, 28.0845, 13.5832, 70.6437, -157.998
3.6963, -1, -41.0968, -8.84015, 28.1182, 13.5852, 70.5545, -158.224
3.70365, -1, -41.263, -8.92538, 28.1517, 13.5873, 70.4655, -158.45
3.71168, -1, -41.4292, -9.01055, 28.1852, 13.5893, 70.3762, -158.676
3.72056, -1, -41.5955, -9.09575, 28.219, 13.5913, 70.287, -158.901
3.72773, -1, -41.7619, -9.18084, 28.2525, 13.5933, 70.198, -159.126
3.73581, -1, -41.9282, -9.26588, 28.2861, 13.5952, 70.1089, -159.352
3.74491, -1, -42.0946, -9.3509, 28.3198, 13.5973, 70.0199, -159.578
3.75196, -1, -42.2607, -9.43602, 28.3534, 13.5994, 69.9309, -159.803
3.76005, -1, -42.4269, -9.52101, 28.3869, 13.6014, 69.8422, -160.028
3.76663, -1, -42.5101, -9.56348, 28.4037, 13.6024, 69.7976, -160.141
3.77616, -1, -42.7598, -9.69094, 28.454, 13.6054, 69.6642, -160.478
3.78422, -1, -42.9263, -9.77589, 28.4875, 13.6075, 69.5757, -160.704
3.79219, -1, -43.0928, -9.86081, 28.521, 13.6095, 69.4866, -160.928
3.801, -1, -43.259, -9.94577, 28.5545, 13.6116, 69.3981, -161.153
3.80664, -1, -43.3421, -9.98824, 28.5713, 13.6126, 69.3537, -161.266
3.81628, -1, -43.5082, -10.0731, 28.6215, 13.6157, 69.2208, -161.603
3.82503, -1, -43.6741, -10.1581, 28.6383, 13.6168, 69.1765, -161.715
3.8307, -1, -43.8399, -10.243, 28.6718, 13.6189, 69.0881, -161.94
3.84075, -1, -44.0883, -10.3702, 28.7219, 13.6222, 68.9554, -162.276
3.84764, -1, -44.171, -10.4125, 28.7387, 13.6232, 68.911, -162.388
3.85571, -1, -44.3361, -10.4971, 28.7722, 13.6254, 68.8224, -162.613
3.86363, -1, -44.5014, -10.5817, 28.8056, 13.6277, 68.7338, -162.837
3.87166, -1, -44.6665, -10.6662, 28.839, 13.6298, 68.6451, -163.061
3.87969, -1, -44.8318, -10.7507, 28.8725, 13.632, 68.5566, -163.285
3.88769, -1, -44.9972, -10.8352, 28.9059, 13.6342, 68.4681, -163.509
3.89565, -1, -45.1625, -10.9197, 28.9393, 13.6364, 68.3798, -163.733
3.90368, -1, -45.3278, -11.0042, 28.9728, 13.6386, 68.2913, -163.957
3.91163, -1, -45.4931, -11.0887, 29.0061, 13.6409, 68.2029, -164.181
3.91963, -1, -45.6584, -11.1731, 29.0393, 13.6432, 68.1149, -164.405
3.92771, -1, -45.8237, -11.2575, 29.0727, 13.6455, 68.0263, -164.629
3.93566, -1, -45.9879, -11.3414, 29.1061, 13.6478, 67.9379, -164.852
3.94363, -1, -46.1493, -11.4237, 29.1396, 13.65, 67.8499, -165.075
3.9535, -1, -46.3823, -11.5412, 29.19, 13.6537, 67.7196, -165.405
3.95963, -1, -46.4564, -11.5781, 29.2067, 13.6548, 67.6774, -165.512
3.96866, -1, -46.5975, -11.6479, 29.239, 13.6571, 67.5959, -165.717
3.97571, -1, -46.727, -11.7112, 29.2688, 13.6593, 67.5213, -165.907
3.98364, -1, -46.8419, -11.7672, 29.2951, 13.6613, 67.4544, -166.075
3.99163, -1, -46.9404, -11.8163, 29.3172, 13.663, 67.3987, -166.218
3.99973, -1, -47.0228, -11.8592, 29.3337, 13.6643, 67.354, -166.33
4.00764, -1, -47.0899, -11.8959, 29.3449, 13.6651, 67.3205, -166.415
4.01565, -1, -47.1422, -11.9253, 29.3521, 13.6655, 67.2973, -166.473
4.02372, -1, -47.181, -11.9473, 29.356, 13.6658, 67.2823, -166.511
4.03163, -1, -47.2084, -11.9627, 29.3578, 13.6659, 67.2736, -166.533
4.03963, -1, -47.2264, -11.9727, 29.3586, 13.6659, 67.2688, -166.545
4.04771, -1, -47.2372, -11.9785, 29.359, 13.6659, 67.2665, -166.55
4.05569, 2, -47.2428, -11.9814, 29.3592, 13.6659, 67.2655, -166.553
4.06369, 2, -47.2448, -11.9827, 29.3593, 13.666, 67.2649, -166.554
4.0717, 2, -47.2448, -11.9832, 29.3594, 13.666, 67.2647, -166.555
4.07963, 2, -47.2445, -11.9834, 29.3594, 13.666, 67.2646, -166.555
4.08763, 2, -47.2446, -11.9835, 29.3594, 13.6661, 67.2645, -166.555
4.09573, 2, -47.2449, -11.9836, 29.3595, 13.6661, 67.2645, -166.555
4.10363, 2, -47.2458, -11.9839, 29.3595, 13.6661, 67.2645, -166.555
4.11163, 2, -47.2471, -11.9844, 29.3595, 13.6661, 67.2645, -166.555
4.11971, 2, -47.2489, -11.9852, 29.3595, 13.6661, 67.2645, -166.555
4.12762, 2, -47.2504, -11.9861, 29.3595, 13.6661, 67.2645, -166.555
4.13565, 2, -47.2518, -11.9869, 29.3595, 13.6661, 67.2645, -166.555
4.14372, 2, -47.2528, -11.9875, 29.3595, 13.6661, 67.2645, -166.555
4.15171, 2, -47.2532, -11.9879, 29.3595, 13.666, 67.2645, -166.555
4.15972, 2, -47.2534, -11.9881, 29.3595, 13.6661, 67.2645, -166.555
4.16779, 2, -47.2535, -11.9882, 29.3595, 13.6661, 67.2645, -166.555
4.17575, 2, -47.2531, -11.9882, 29.3595, 13.666, 67.2645, -166.555
4.18373, 2, -47.2527, -11.9882, 29.3595, 13.6661, 67.2645, -166.555
4.19189, 2, -47.2522, -11.9881, 29.3595, 13.6661, 67.2645, -166.555
4.19963, 2, -47.2519, -11.9881, 29.3595, 13.6661, 67.2645, -166.555
4.20763, 2, -47.2517, -11.9881, 29.3596, 13.6661, 67.2645, -166.555
4.21602, 2, -47.2517, -11.9882, 29.3595, 13.6661, 67.2645, -166.555
4.22371, 2, -47.2518, -11.9884, 29.3595, 13.666, 67.2645, -166.555
4.2317, 2, -47.252, -11.9887, 29.3595, 13.666, 67.2645, -166.555
4.23992, 2, -47.2526, -11.9891, 29.3595, 13.666, 67.2645, -166.555
4.24783, 2, -47.2531, -11.9894, 29.3595, 13.6661, 67.2645, -166.555
4.25593, 2, -47.2535, -11.9896, 29.3596, 13.6661, 67.2645, -166.555
4.26439, 2, -47.2536, -11.9897, 29.3596, 13.6661, 67.2645, -166.555
4.27202, 2, -47.2536, -11.9897, 29.3596, 13.6661, 67.2645, -166.555
4.27867, 2, -47.2536, -11.9897, 29.3596, 13.666, 67.2645, -166.555
4.28828, 2, -47.2534, -11.9896, 29.3596, 13.6661, 67.2645, -166.555
4.29617, 2, -47.253, -11.9895, 29.3596, 13.6661, 67.2645, -166.555
4.30418, 2, -47.2526, -11.9895, 29.3596, 13.6661, 67.2645, -166.555
4.31247, 2, -47.2523, -11.9895, 29.3596, 13.6661, 67.2645, -166.555
4.32027, 2, -47.2522, -11.9895, 29.3596, 13.6661, 67.2645, -166.555
4.32762, 2, -47.2521, -11.9895, 29.3596, 13.6661, 67.2645, -166.555
4.33569, 2, -47.252, -11.9896, 29.3596, 13.666, 67.2645, -166.555
4.34362, 2, -47.2519, -11.9896, 29.3596, 13.666, 67.2645, -166.555
4.35168, 2, -47.252, -11.9897, 29.3595, 13.666, 67.2645, -166.555
4.35969, 2, -47.252, -11.9897, 29.3596, 13.666, 67.2645, -166.555
4.36762, 2, -47.252, -11.9898, 29.3596, 13.666, 67.2645, -166.555
4.37563, 2, -47.252, -11.9898, 29.3596, 13.666, 67.2645, -166.555
4.38376, 2, -47.252, -11.9897, 29.3596, 13.6659, 67.2645, -166.555
4.39166, 2, -47.2519, -11.9897, 29.3595, 13.666, 67.2645, -166.555
4.39961, 2, -47.2519, -11.9896, 29.3595, 13.666, 67.2645, -166.555
4.40767, 2, -47.2518, -11.9895, 29.3595, 13.666, 67.2645, -166.555
4.41564, 2, -47.2517, -11.9895, 29.3596, 13.666, 67.2645, -166.555
4.42362, 2, -47.2516, -11.9895, 29.3596, 13.666, 67.2645, -166.555
4.43169, 2, -47.2516, -11.9895, 29.3596, 13.666, 67.2645, -166.555
4.43961, 2, -47.2515, -11.9895, 29.3595, 13.666, 67.2645, -166.555
4.44773, 2, -47.2514, -11.9895, 29.3595, 13.666, 67.2645, -166.555
4.45568, 2, -47.2514, -11.9896, 29.3595, 13.666, 67.2645, -166.555
4.46469, 2, -47.2513, -11.9895, 29.3595, 13.6659, 67.2645, -166.555
4.47162, 2, -47.2513, -11.9896, 29.3595, 13.6659, 67.2645, -166.555
4.47969, 2, -47.2512, -11.9896, 29.3595, 13.6659, 67.2646, -166.555
4.48763, 2, -47.2512, -11.9895, 29.3595, 13.6659, 67.2646, -166.555
4.49562, 2, -47.2511, -11.9895, 29.3596, 13.6659, 67.2646, -166.555
4.50369, 2, -47.251, -11.9894, 29.3596, 13.6659, 67.2646, -166.555
4.51164, 2, -47.2509, -11.9893, 29.3595, 13.666, 67.2646, -166.555
4.51962, 2, -47.2509, -11.9893, 29.3596, 13.6659, 67.2646, -166.555
4.5277, 2, -47.2507, -11.9893, 29.3595, 13.6659, 67.2647, -166.555
4.53563, 2, -47.2506, -11.9892, 29.3595, 13.6659, 67.2647, -166.555
4.54362, 2, -47.2506, -11.9892, 29.3595, 13.6659, 67.2647, -166.555
4.55173, 2, -47.2505, -11.9893, 29.3595, 13.6659, 67.2647, -166.555
4.55967, 2, -47.2504, -11.9893, 29.3595, 13.666, 67.2647, -166.555
4.56768, 2, -47.2502, -11.9893, 29.3595, 13.666, 67.2647, -166.555
4.57569, 2, -47.2501, -11.9893, 29.3595, 13.666, 67.2647, -166.555
4.58361, 2, -47.2501, -11.9893, 29.3595, 13.666, 67.2647, -166.555
4.59161, 2, -47.2499, -11.9892, 29.3595, 13.666, 67.2647, -166.555
4.5997, 2, -47.2498, -11.9892, 29.3595, 13.6659, 67.2647, -166.555
4.60763, 2, -47.2497, -11.9891, 29.3595, 13.6659, 67.2647, -166.555
4.61562, 2, -47.2496, -11.989, 29.3595, 13.666, 67.2647, -166.555
4.62369, 2, -47.2495, -11.989, 29.3595, 13.6659, 67.2647, -166.555
4.63162, 2, -47.2494, -11.989, 29.3595, 13.6659, 67.2647, -166.555
4.63962, 2, -47.2493, -11.9889, 29.3595, 13.6659, 67.2647, -166.555
4.64773, 2, -47.2492, -11.9889, 29.3595, 13.6658, 67.2647, -166.555
4.6557, 2, -47.2491, -11.9889, 29.3595, 13.6658, 67.2647, -166.555
4.6637, 2, -47.249, -11.9889, 29.3595, 13.6658, 67.2647, -166.555
4.67178, 2, -47.249, -11.9889, 29.3595, 13.6658, 67.2647, -166.555
4.67972, 2, -47.2489, -11.9889, 29.3595, 13.6658, 67.2647, -166.555
4.68773, 2, -47.2489, -11.9889, 29.3595, 13.6658, 67.2647, -166.555
4.69582, 2, -47.2488, -11.9889, 29.3595, 13.6658, 67.2647, -166.555
4.70362, 2, -47.2488, -11.9888, 29.3595, 13.6658, 67.2647, -166.555
4.71163, 2, -47.2487, -11.9888, 29.3595, 13.6658, 67.2647, -166.555
4.72004, 2, -47.2486, -11.9887, 29.3595, 13.6658, 67.2647, -166.555
4.7277, 2, -47.2486, -11.9886, 29.3595, 13.6658, 67.2648, -166.555
4.73571, 2, -47.2485, -11.9886, 29.3595, 13.6658, 67.2648, -166.555
4.74421, 2, -47.2484, -11.9886, 29.3595, 13.6658, 67.2648, -166.555
4.75067, 2, -47.2484, -11.9886, 29.3595, 13.6658, 67.2648, -166.555
4.7599, 2, -47.2484, -11.9886, 29.3595, 13.6658, 67.2647, -166.555
4.76845, 2, -47.2483, -11.9885, 29.3595, 13.6658, 67.2647, -166.555
4.77601, 2, -47.2483, -11.9886, 29.3595, 13.6658, 67.2648, -166.555
4.78267, 2, -47.2483, -11.9886, 29.3595, 13.6658, 67.2648, -166.555
4.79257, 2, -47.2482, -11.9886, 29.3595, 13.6657, 67.2648, -166.555
4.80016, 2, -47.2482, -11.9885, 29.3595, 13.6657, 67.2648, -166.555
4.80819, 2, -47.2482, -11.9885, 29.3595, 13.6657, 67.2648, -166.554
4.81649, 2, -47.2481, -11.9884, 29.3595, 13.6657, 67.2648, -166.554
4.82421, 2, -47.2481, -11.9884, 29.3595, 13.6657, 67.2648, -166.554
4.83161, 2, -47.248, -11.9883, 29.3595, 13.6657, 67.2648, -166.554
4.84052, 2, -47.2479, -11.9882, 29.3595, 13.6656, 67.2648, -166.554
4.84761, 2, -47.2478, -11.9882, 29.3595, 13.6656, 67.2648, -166.554
4.85561, 2, -47.2477, -11.9882, 29.3595, 13.6656, 67.2648, -166.554
4.86368, 2, -47.2477, -11.9882, 29.3595, 13.6656, 67.2648, -166.554
4.8716, 2, -47.2476, -11.9882, 29.3595, 13.6656, 67.2649, -166.554
4.8796, 2, -47.2476, -11.9882, 29.3595, 13.6656, 67.2649, -166.554
4.88767, 2, -47.2476, -11.9882, 29.3595, 13.6655, 67.2649, -166.554
4.89564, 2, -47.2476, -11.9882, 29.3595, 13.6656, 67.2649, -166.554
4.90361, 2, -47.2475, -11.9881, 29.3595, 13.6655, 67.2649, -166.554
4.91165, 2, -47.2476, -11.9881, 29.3595, 13.6655, 67.2649, -166.554
4.91961, 2, -47.2475, -11.988, 29.3595, 13.6655, 67.2649, -166.554
4.92761, 2, -47.2474, -11.988, 29.3595, 13.6655, 67.2649, -166.554
4.93569, 2, -47.2473, -11.9879, 29.3595, 13.6655, 67.265, -166.554
4.9436, 2, -47.2473, -11.9879, 29.3595, 13.6654, 67.2649, -166.554
4.9516, 2, -47.2472, -11.9879, 29.3595, 13.6655, 67.2649, -166.554
4.95966, 2, -47.2471, -11.9878, 29.3595, 13.6655, 67.265, -166.554
4.96761, 2, -47.2471, -11.9878, 29.3595, 13.6655, 67.265, -166.554
4.9766, 2, -47.2471, -11.9878, 29.3595, 13.6654, 67.265, -166.554
4.98366, 2, -47.247, -11.9878, 29.3595, 13.6654, 67.265, -166.554
4.99267, 2, -47.247, -11.9878, 29.3595, 13.6654, 67.265, -166.554
4.9996, 2, -47.247, -11.9878, 29.3595, 13.6654, 67.265, -166.554
5.00768, 2, -47.2469, -11.9878, 29.3595, 13.6654, 67.265, -166.554
5.01561, 2, -47.2469, -11.9877, 29.3595, 13.6654, 67.265, -166.554
5.0236, 2, -47.2468, -11.9877, 29.3595, 13.6654, 67.265, -166.554
5.03169, 2, -47.2468, -11.9876, 29.3595, 13.6653, 67.265, -166.554
5.0396, 2, -47.2468, -11.9876, 29.3595, 13.6653, 67.265, -166.554
5.04761, 2, -47.2467, -11.9875, 29.3595, 13.6653, 67.265, -166.554
5.057, 2, -47.2466, -11.9875, 29.3595, 13.6653, 67.265, -166.554
5.06364, 2, -47.2465, -11.9875, 29.3595, 13.6653, 67.265, -166.554
5.07166, 2, -47.2465, -11.9875, 29.3595, 13.6653, 67.265, -166.554
5.0796, 2, -47.2464, -11.9875, 29.3595, 13.6653, 67.265, -166.554
5.08761, 2, -47.2464, -11.9875, 29.3595, 13.6653, 67.2651, -166.554
5.09567, 2, -47.2463, -11.9875, 29.3595, 13.6653, 67.2651, -166.554
5.10361, 2, -47.2463, -11.9874, 29.3595, 13.6653, 67.2651, -166.554
5.1116, 2, -47.2463, -11.9874, 29.3595, 13.6652, 67.2651, -166.554
5.11967, 4, -47.2463, -11.9874, 29.3595, 13.6652, 67.2651, -166.554
5.12761, 4, -47.2463, -11.9873, 29.3595, 13.6652, 67.2651, -166.554
5.1356, 4, -47.2463, -11.9873, 29.3595, 13.6652, 67.2651, -166.554
5.14367, 4, -47.2462, -11.9873, 29.3595, 13.6652, 67.2651, -166.554
5.15164, 4, -47.2461, -11.9872, 29.3595, 13.6652, 67.2652, -166.554
5.15976, 4, -47.246, -11.9872, 29.3595, 13.6651, 67.2652, -166.554
5.16776, 4, -47.246, -11.9872, 29.3595, 13.6651, 67.2652, -166.554
5.17569, 4, -47.246, -11.9872, 29.3595, 13.6651, 67.2652, -166.554
5.1837, 4, -47.2459, -11.9872, 29.3595, 13.6651, 67.2653, -166.554
5.19177, 4, -47.2458, -11.9871, 29.3595, 13.6651, 67.2652, -166.554
5.19972, 4, -47.2458, -11.9871, 29.3595, 13.6651, 67.2653, -166.554
5.20761, 4, -47.2458, -11.9871, 29.3595, 13.665, 67.2653, -166.554
5.21592, 4, -47.2458, -11.9871, 29.3595, 13.665, 67.2653, -166.554
5.23359, 4, -47.2457, -11.987, 29.3595, 13.665, 67.2653, -166.553
5.23613, 4, -47.2457, -11.987, 29.3595, 13.6651, 67.2653, -166.553
5.24007, 4, -47.2457, -11.987, 29.3595, 13.665, 67.2653, -166.554
5.25008, 4, -47.2456, -11.9869, 29.3595, 13.665, 67.2653, -166.553
5.25625, 4, -47.2456, -11.9869, 29.3595, 13.665, 67.2653, -166.553
5.26423, 4, -47.2455, -11.9869, 29.3595, 13.665, 67.2653, -166.553
5.27706, 4, -47.2454, -11.9869, 29.3595, 13.665, 67.2653, -166.553
5.28255, 4, -47.2454, -11.9869, 29.3595, 13.665, 67.2653, -166.553
5.29078, 4, -47.2454, -11.9869, 29.3595, 13.665, 67.2653, -166.553
5.29868, 4, -47.2454, -11.9868, 29.3595, 13.6649, 67.2653, -166.553
5.30509, 4, -47.2454, -11.9868, 29.3595, 13.6649, 67.2653, -166.553
5.31236, 4, -47.2453, -11.9868, 29.3595, 13.665, 67.2653, -166.553
5.3204, 4, -47.2453, -11.9868, 29.3595, 13.665, 67.2653, -166.553
5.32874, 4, -47.2453, -11.9867, 29.3595, 13.665, 67.2653, -166.553
5.33766, 4, -47.2453, -11.9867, 29.3595, 13.6649, 67.2653, -166.553
5.34436, 4, -47.2453, -11.9867, 29.3595, 13.6649, 67.2653, -166.553
5.35174, 4, -47.2452, -11.9867, 29.3595, 13.6649, 67.2653, -166.553
5.3611, 4, -47.2452, -11.9866, 29.3595, 13.6649, 67.2653, -166.553
5.36781, 4, -47.2451, -11.9866, 29.3595, 13.6649, 67.2653, -166.553
5.37578, 4, -47.2451, -11.9866, 29.3595, 13.6649, 67.2653, -166.553
5.38573, 4, -47.2452, -11.9867, 29.3595, 13.6649, 67.2654, -166.553
5.39477, 4, -47.2461, -11.9871, 29.3599, 13.665, 67.2654, -166.553
5.40177, 4, -47.2485, -11.9889, 29.3617, 13.6668, 67.266, -166.553
5.4077, 4, -47.2503, -11.9907, 29.3639, 13.6702, 67.2668, -166.553
5.42533, 4, -47.265, -12.0175, 29.4045, 13.7507, 67.2884, -166.537
5.42733, 4, -47.2715, -12.0175, 29.4045, 13.7507, 67.2884, -166.537
5.43173, 5, -47.2797, -12.0283, 29.4232, 13.789, 67.2991, -166.528
5.4425, 5, -47.3167, -12.0772, 29.5141, 13.9791, 67.3528, -166.486
5.44784, 5, -47.334, -12.0996, 29.5588, 14.0737, 67.3789, -166.464
5.45608, 5, -47.3777, -12.1549, 29.6735, 14.3195, 67.4467, -166.407
5.46374, 5, -47.4341, -12.225, 29.8245, 14.6474, 67.5365, -166.333
5.47384, 5, -47.5425, -12.3586, 30.1231, 15.2967, 67.7114, -166.184
5.48356, 5, -47.63, -12.4662, 30.3688, 15.8257, 67.8519, -166.064
5.48984, 5, -47.7283, -12.5868, 30.6465, 16.4168, 68.0074, -165.931
5.50054, 5, -47.8356, -12.719, 30.9521, 17.0558, 68.1726, -165.789
5.50393, 5, -47.892, -12.7887, 31.1129, 17.3883, 68.2576, -165.716
5.51482, 5, -48.0687, -13.0084, 31.6193, 18.4152, 68.5153, -165.493
5.51978, 5, -48.1293, -13.084, 31.7929, 18.7625, 68.6009, -165.418
5.52874, 5, -48.2509, -13.2361, 32.1443, 19.4575, 68.7698, -165.271
5.53576, 5, -48.3713, -13.3862, 32.4969, 20.1421, 68.9345, -165.125
5.5438, 5, -48.4866, -13.5316, 32.8466, 20.808, 69.0953, -164.974
5.55183, 6, -48.5923, -13.6699, 33.1866, 21.4436, 69.254, -164.809
5.56087, 6, -48.6837, -13.7983, 33.5124, 22.0379, 69.4124, -164.617
5.57108, 7, -48.7567, -13.9172, 33.8196, 22.5857, 69.5735, -164.385
5.57844, 7, -48.8259, -14.0801, 34.2436, 23.3138, 69.8244, -163.932
5.58707, 7, -48.8379, -14.1302, 34.375, 23.5336, 69.9114, -163.748
5.59172, 8, -48.846, -14.2235, 34.6247, 23.945, 70.0927, -163.329
5.60097, 8, -48.8356, -14.3074, 34.8609, 24.3269, 70.2836, -162.843
5.60779, 9, -48.8098, -14.3835, 35.0865, 24.6893, 70.4849, -162.3
5.61575, 9, -48.7713, -14.4543, 35.305, 25.0423, 70.6964, -161.71
5.62562, 10, -48.7225, -14.5215, 35.5205, 25.3927, 70.9174, -161.091
5.63372, 10, -48.6643, -14.5867, 35.735, 25.7447, 71.146, -160.453
5.64188, 11, -48.5977, -14.6503, 35.9488, 26.0997, 71.3799, -159.807
5.64799, 11, -48.5248, -14.7126, 36.1629, 26.4589, 71.6163, -159.162
5.65702, 12, -48.4476, -14.7746, 36.3758, 26.8234, 71.8541, -158.52
5.66384, 12, -48.3686, -14.8365, 36.5861, 27.1943, 72.093, -157.878
5.67209, 13, -48.2888, -14.8972, 36.7948, 27.5727, 72.3334, -157.233
5.67991, 13, -48.2088, -14.9557, 37.0017, 27.9588, 72.5761, -156.585
5.68788, 14, -48.1272, -15.0135, 37.2064, 28.3523, 72.8213, -155.933
5.69812, 14, -48.0429, -15.0723, 37.4099, 28.7518, 73.0689, -155.277
5.70573, 15, -47.9552, -15.1321, 37.6132, 29.1554, 73.3177, -154.622
5.71371, 15, -47.8636, -15.1918, 37.8146, 29.5605, 73.566, -153.969
5.71997, 16, -47.767, -15.2505, 38.0143, 29.965, 73.812, -153.319
5.72869, 16, -47.6634, -15.3096, 38.2125, 30.367, 74.0544, -152.675
5.736, 17, -47.5529, -15.3703, 38.4078, 30.7656, 74.292, -152.036
5.74588, 17, -47.4368, -15.4331, 38.5996, 31.1599, 74.5239, -151.403
5.75223, 18, -47.3159, -15.4969, 38.7886, 31.5494, 74.7496, -150.776
5.76094, 18, -47.1899, -15.5615, 38.9747, 31.935, 74.9696, -150.156
5.76823, 18, -47.0586, -15.6282, 39.1578, 32.3177, 75.1839, -149.544
5.77705, 19, -46.9215, -15.698, 39.3391, 32.6989, 75.3935, -148.938
5.78444, 19, -46.7789, -15.7702, 39.5194, 33.0792, 75.5987, -148.339
5.7932, 20, -46.6314, -15.8439, 39.6979, 33.4584, 75.7998, -147.747
5.801, 20, -46.4796, -15.9191, 39.8737, 33.8371, 75.9967, -147.161
5.80915, 21, -46.3238, -15.996, 40.0478, 34.2148, 76.1897, -146.582
5.8208, 22, -46.083, -16.1145, 40.3054, 34.7795, 76.4711, -145.724
5.82514, 22, -46.0006, -16.1547, 40.3898, 34.9669, 76.5629, -145.442
5.83511, 23, -45.832, -16.2363, 40.5561, 35.3398, 76.7435, -144.88
5.84112, 23, -45.7454, -16.2778, 40.6383, 35.7094, 76.9193, -144.324
5.85009, 24, -45.4746, -16.4058, 40.8804, 36.0748, 77.0903, -143.772
5.85966, 24, -45.2845, -16.4941, 41.0365, 36.4341, 77.2552, -143.227
5.86374, 25, -45.1867, -16.5389, 41.1129, 36.6107, 77.3351, -142.956
5.87177, 25, -44.9858, -16.6293, 41.2626, 36.9573, 77.4896, -142.418
5.88196, 26, -44.6722, -16.7657, 41.4792, 37.4598, 77.708, -141.62
5.88779, 26, -44.5642, -16.8117, 41.5489, 37.6226, 77.7775, -141.357
5.89721, 27, -44.2293, -16.9508, 41.7503, 38.0992, 77.979, -140.57
5.90371, 27, -44.1142, -16.9974, 41.8147, 38.2542, 78.0439, -140.308
5.91171, 28, -43.8792, -17.0903, 41.9388, 38.5586, 78.1717, -139.786
5.91973, 28, -43.6375, -17.1822, 42.0566, 38.8563, 78.2972, -139.263
5.93071, 29, -43.2613, -17.3172, 42.2203, 39.2889, 78.481, -138.481
5.93895, 29, -43.0023, -17.405, 42.3206, 39.5682, 78.601, -137.958
5.94373, 30, -42.8704, -17.448, 42.368, 39.7049, 78.6599, -137.697
5.95174, 30, -42.6011, -17.5319, 42.4573, 39.9719, 78.776, -137.174
5.96309, 31, -42.1818, -17.6525, 42.5777, 40.3568, 78.9446, -136.392
5.96783, 31, -42.0381, -17.6915, 42.6142, 40.4807, 78.9993, -136.132
5.97874, 32, -41.5959, -17.805, 42.7135, 40.8394, 79.1595, -135.351
5.9838, 32, -41.4452, -17.8415, 42.7432, 40.9546, 79.2112, -135.091
5.99449, 33, -40.9832, -17.9467, 42.822, 41.2879, 79.3627, -134.314
5.99982, 33, -40.8257, -17.9803, 42.8447, 41.3949, 79.412, -134.056
6.00775, 34, -40.5057, -18.0455, 42.8849, 41.6028, 79.5082, -133.539
6.02001, 34, -40.0161, -18.1387, 42.9315, 41.8995, 79.6481, -132.766
6.0247, 35, -39.8504, -18.1684, 42.9435, 41.9944, 79.6936, -132.509
6.03305, 35, -39.5148, -18.2253, 42.9621, 42.1788, 79.7823, -131.997
6.0425, 36, -38.9992, -18.3041, 42.9768, 42.4411, 79.9115, -131.229
6.04878, 36, -38.8236, -18.3287, 42.9784, 42.5246, 79.9534, -130.974
6.05572, 37, -38.4674, -18.3754, 42.9765, 42.6861, 80.036, -130.464
6.06877, 37, -37.9226, -18.439, 42.9608, 42.9141, 80.1557, -129.703
6.0717, 38, -37.7382, -18.4582, 42.9521, 42.9864, 80.1945, -129.45
6.08338, 38, -37.1779, -18.511, 42.9164, 43.1921, 80.3081, -128.694
6.0877, 39, -36.9889, -18.5269, 42.9011, 43.257, 80.3447, -128.442
6.09571, 39, -36.6074, -18.556, 42.8654, 43.3813, 80.4161, -127.941
6.1038, 40, -36.2209, -18.5813, 42.8231, 43.4982, 80.4864, -127.442
6.11177, 40, -35.8282, -18.6029, 42.7743, 43.6079, 80.5545, -126.945
6.12154, 41, -35.4296, -18.6204, 42.7188, 43.7106, 80.6211, -126.449
6.12872, 41, -35.0253, -18.6342, 42.6569, 43.8055, 80.6848, -125.956
6.13904, 42, -34.4108, -18.6485, 42.5519, 43.9353, 80.7778, -125.22
6.14387, 42, -34.2044, -18.6516, 42.5137, 43.9748, 80.8073, -124.976
6.15357, 43, -33.7894, -18.6555, 42.4327, 44.0489, 80.8661, -124.489
6.16068, 43, -33.3705, -18.6562, 42.3457, 44.1154, 80.923, -124.005
6.16781, 44, -32.9463, -18.6532, 42.2529, 44.1755, 80.9776, -123.523
6.17671, 44, -32.5158, -18.6465, 42.1544, 44.2276, 81.0318, -123.043
6.18378, 45, -32.0787, -18.6359, 42.0501, 44.2729, 81.0832, -122.566
6.19221, 45, -31.6363, -18.6216, 41.9398, 44.311, 81.1334, -122.091
6.20146, 46, -31.1902, -18.6039, 41.8234, 44.3413, 81.1825, -121.618
6.20847, 46, -30.7424, -18.5828, 41.7012, 44.3638, 81.2287, -121.148
6.21612, 47, -30.292, -18.5578, 41.5731, 44.3787, 81.2736, -120.681
6.22458, 47, -29.8371, -18.5285, 41.4391, 44.3863, 81.3183, -120.215
6.23605, 48, -29.1426, -18.4762, 41.2269, 44.3845, 81.382, -119.519
6.24381, 48, -28.6719, -18.436, 41.0778, 44.3722, 81.4238, -119.058
6.25058, 49, -28.4347, -18.4142, 41.001, 44.3629, 81.4448, -118.829
6.25992, 49, -27.7193, -18.3422, 40.7618, 44.3211, 81.5063, -118.141
6.26411, 50, -27.4797, -18.316, 40.6789, 44.3022, 81.5266, -117.912
6.27302, 50, -26.9978, -18.2596, 40.508, 44.2577, 81.5677, -117.455
6.28031, 51, -26.5098, -18.1975, 40.3307, 44.2044, 81.6101, -116.999
6.28909, 51, -26.0141, -18.1298, 40.1469, 44.1405, 81.6524, -116.545
6.29661, 52, -25.5111, -18.0566, 39.9557, 44.0675, 81.6952, -116.091
6.30518, 52, -25.004, -17.9781, 39.7572, 43.9836, 81.7394, -115.637
6.31265, 52, -24.4948, -17.894, 39.5528, 43.8896, 81.7843, -115.185
6.32114, 53, -23.9829, -17.804, 39.3412, 43.7855, 81.8293, -114.732
6.331, 54, -23.4654, -17.7079, 39.1214, 43.6707, 81.8768, -114.28
6.33716, 54, -23.2038, -17.6575, 38.8948, 43.5451, 81.9265, -113.828
6.34599, 55, -22.4065, -17.497, 38.6608, 43.4083, 81.9775, -113.376
6.35318, 55, -22.1376, -17.4403, 38.5407, 43.3355, 82.0319, -112.924
6.36248, 56, -21.3271, -17.2612, 38.1709, 43.0996, 82.0878, -112.472
6.37143, 56, -20.7832, -17.1346, 37.9158, 42.928, 82.1449, -112.021
6.37828, 57, -20.2328, -17.0024, 37.6539, 42.745, 82.2047, -111.569
6.38376, 57, -19.9539, -16.9342, 37.5207, 42.6492, 82.2347, -111.344
6.39169, 58, -19.3892, -16.793, 37.2486, 42.4481, 82.2963, -110.893
6.39985, 58, -18.8182, -16.6459, 36.97, 42.2342, 82.3607, -110.443
6.40961, 59, -17.9565, -16.4148, 36.5397, 41.8899, 82.4606, -109.768
6.4157, 59, -17.6679, -16.3354, 36.3929, 41.7689, 82.4954, -109.544
6.4253, 60, -17.085, -16.1733, 36.0948, 41.5173, 82.566, -109.094
6.43169, 60, -16.492, -16.0064, 35.7908, 41.2533, 82.6392, -108.644
6.4427, 61, -15.5884, -15.7461, 35.3265, 40.8337, 82.7504, -107.971
6.44778, 61, -15.2854, -15.6571, 35.169, 40.6875, 82.7884, -107.747
6.4579, 62, -14.3716, -15.3846, 34.6896, 40.2305, 82.9048, -107.074
6.46376, 62, -14.0641, -15.2918, 34.5273, 40.0716, 82.9447, -106.85
6.4732, 63, -13.4411, -15.102, 34.2002, 39.7443, 83.0258, -106.402
6.47978, 63, -12.8089, -14.9053, 33.868, 39.4036, 83.1096, -105.953
6.48826, 64, -12.1702, -14.7024, 33.5308, 39.0493, 83.1964, -105.503
6.49804, 64, -11.2045, -14.3869, 33.0128, 38.4909, 83.3343, -104.826
6.50586, 65, -10.5494, -14.1671, 32.6584, 38.0984, 83.4329, -104.373
6.51172, 65, -10.2176, -14.0543, 32.4785, 37.8956, 83.4848, -104.146
6.51972, 66, -9.5462, -13.8236, 32.1144, 37.4751, 83.5933, -103.689
6.53194, 66, -8.5243, -13.4643, 31.5563, 36.8094, 83.7692, -103.001
6.53668, 67, -8.18077, -13.3408, 31.3666, 36.5779, 83.8312, -102.771
6.5446, 67, -7.48737, -13.0882, 30.9819, 36.1022, 83.9606, -102.308
6.55479, 68, -6.42991, -12.6946, 30.3948, 35.358, 84.1676, -101.608
6.55971, 68, -6.07373, -12.5602, 30.1974, 35.1033, 84.2396, -101.374
6.5684, 69, -5.35826, -12.2878, 29.7999, 34.585, 84.3881, -100.905
6.5805, 69, -4.27604, -11.8675, 29.1998, 33.7878, 84.6193, -100.197
6.58369, 70, -3.91205, -11.7244, 29.0001, 33.5179, 84.6984, -99.9603
6.59517, 70, -2.80943, -11.2827, 28.4028, 32.6913, 84.942, -99.249
6.59971, 71, -2.43875, -11.1313, 28.204, 32.4102, 85.0255, -99.0118
6.60969, 71, -1.69245, -10.824, 27.805, 31.8377, 85.1985, -98.5366
6.61764, 72, -0.939234, -10.5106, 27.4041, 31.25, 85.3803, -98.0592
6.62745, 72, -0.179824, -10.1925, 26.7978, 30.3357, 85.6714, -97.3391
6.63184, 73, 0.584328, -9.86839, 26.5945, 30.0243, 85.7731, -97.0979
6.6413, 73, 1.35262, -9.53698, 26.1872, 29.3922, 85.9824, -96.615
6.64769, 74, 2.12499, -9.19928, 25.78, 28.7502, 86.1996, -96.1305
6.65996, 74, 3.28903, -8.68226, 25.1749, 27.7734, 86.5387, -95.401
6.66378, 75, 3.67782, -8.50675, 24.9759, 27.4447, 86.6548, -95.157
6.67375, 75, 4.45691, -8.15055, 24.5811, 26.7847, 86.891, -94.6684
6.67984, 76, 5.23827, -7.78863, 24.1911, 26.1235, 87.1333, -94.1786
6.68833, 76, 6.02128, -7.42086, 23.806, 25.46, 87.3814, -93.6865
6.69588, 77, 6.80489, -7.04748, 23.4261, 24.7962, 87.6363, -93.1926
6.70392, 77, 7.59017, -6.66581, 23.0493, 24.1319, 87.8993, -92.6965
6.71761, 78, 8.7725, -6.07513, 22.4898, 23.1293, 88.313, -91.9491
6.72186, 78, 9.16758, -5.8735, 22.3053, 22.7921, 88.4568, -91.6979
6.7333, 79, 10.3551, -5.25608, 21.7559, 21.7704, 88.9092, -90.9386
6.7356, 79, 10.7516, -5.04661, 21.5742, 21.4269, 89.0668, -90.6828
6.74476, 80, 11.5435, -4.62047, 21.2126, 20.7376, 89.3919, -90.167
6.75176, 80, 12.3319, -4.18385, 20.8556, 20.0459, 89.7279, -89.6449
6.76082, 81, 13.1142, -3.73717, 20.503, 19.3595, 90.0738, -89.1158
6.76784, 81, 13.8904, -3.28373, 20.1564, 18.6838, 90.4276, -88.5812
6.77644, 82, 14.6596, -2.82423, 19.8176, 18.0226, 90.7873, -88.0424
6.784, 82, 15.4209, -2.35674, 19.4894, 17.3775, 91.151, -87.5014
6.79202, 82, 16.1725, -1.88155, 19.1716, 16.7507, 91.5182, -86.9579
6.80021, 83, 16.9123, -1.39982, 18.8646, 16.1442, 91.8889, -86.4134
6.80813, 83, 17.6395, -0.912486, 18.5669, 15.5571, 92.2635, -85.8685
6.81614, 84, 18.3516, -0.421102, 18.2789, 14.9896, 92.6437, -85.3248
6.82421, 84, 19.0472, 0.0742156, 17.9985, 14.4418, 93.0308, -84.7816
6.83304, 85, 19.3886, 0.323888, 17.8603, 14.175, 93.4262, -84.2396
6.84011, 85, 20.057, 0.827214, 17.5884, 13.6558, 93.6273, -83.9692
6.84758, 86, 20.707, 1.33535, 17.3219, 13.1554, 94.0351, -83.4302
6.85554, 86, 21.34, 1.84767, 17.0605, 12.6743, 94.4496, -82.8925
6.86354, 86, 21.9584, 2.36673, 16.8055, 12.2127, 94.8709, -82.3542
6.87163, 87, 22.565, 2.89595, 16.5554, 11.7703, 95.2995, -81.8139
6.87956, 87, 23.1617, 3.4354, 16.3097, 11.3463, 95.7354, -81.27
6.8876, 88, 23.749, 3.98244, 16.0676, 10.9389, 96.1785, -80.7205
6.89554, 88, 24.326, 4.53629, 15.8286, 10.548, 96.6274, -80.1622
6.9036, 89, 24.8916, 5.10005, 15.5955, 10.1728, 97.0825, -79.5939
6.91154, 89, 25.4476, 5.67509, 15.3679, 9.81404, 97.5425, -79.0145
6.91957, 90, 25.998, 6.26035, 15.144, 9.47165, 98.0067, -78.4226
6.92754, 90, 26.5425, 6.85448, 14.9253, 9.14542, 98.475, -77.8169
6.93558, 91, 27.0765, 7.4573, 14.7125, 8.83661, 98.9482, -77.1973
6.94365, 91, 27.5972, 8.06997, 14.5051, 8.54617, 99.4264, -76.5661
6.95152, 92, 28.1071, 8.69324, 14.3021, 8.27547, 99.91, -75.9226
6.9596, 92, 28.6096, 9.3268, 14.1031, 8.02602, 100.399, -75.2686
6.96916, 93, 29.1053, 9.9693, 13.9085, 7.79777, 100.892, -74.6068
6.97555, 93, 29.5903, 10.6189, 13.7195, 7.59182, 101.387, -73.9374
6.98453, 94, 30.0619, 11.2741, 13.5375, 7.40844, 101.883, -73.2602
6.99154, 94, 30.5187, 11.9332, 13.3619, 7.24822, 102.378, -72.5771
6.9995, 95, 30.9612, 12.5953, 13.1927, 7.11131, 102.871, -71.8894
7.00763, 95, 31.3897, 13.26, 13.0313, 6.99806, 103.361, -71.1948
7.01556, 96, 31.8045, 13.9275, 12.8773, 6.90789, 103.848, -70.4949
7.02355, 96, 32.2036, 14.5963, 12.7294, 6.84188, 104.332, -69.7905
7.03154, 97, 32.5858, 15.2651, 12.5874, 6.79882, 104.812, -69.0796
7.03957, 97, 32.9517, 15.9319, 12.452, 6.77626, 105.286, -68.3634
7.04763, 98, 33.3021, 16.5949, 12.3248, 6.77488, 105.755, -67.6465
7.05554, 98, 33.6382, 17.2523, 12.2067, 6.79515, 106.214, -66.928
7.06355, 99, 33.9598, 17.9019, 12.0985, 6.83486, 106.662, -66.2104
7.07163, 99, 34.2673, 18.5427, 12.0006, 6.89461, 107.095, -65.4979
7.07967, 100, 34.563, 19.1738, 11.9132, 6.97297, 107.512, -64.7903
7.08754, 100, 34.8471, 19.7951, 11.836, 7.06845, 107.912, -64.0893
7.09582, 101, 35.118, 20.4042, 11.7679, 7.18012, 108.295, -63.3981
7.10354, 101, 35.3748, 20.9998, 11.7076, 7.30584, 108.661, -62.7163
7.11155, 101, 35.6184, 21.5813, 11.6551, 7.44345, 109.011, -62.0445
7.11961, 102, 35.8492, 22.1478, 11.6102, 7.59042, 109.346, -61.3859
7.12754, 102, 36.0673, 22.6995, 11.5722, 7.74466, 109.666, -60.7409
7.13564, 103, 36.2752, 23.2361, 11.5413, 7.90458, 109.971, -60.1094
7.14364, 103, 36.4759, 23.7577, 11.5178, 8.06983, 110.262, -59.4917
7.15155, 103, 36.6712, 24.2657, 11.5027, 8.24135, 110.536, -58.8886
7.15981, 104, 36.8612, 24.7605, 11.4952, 8.42019, 110.794, -58.297
7.16759, 104, 37.0467, 25.2423, 11.4941, 8.60802, 111.034, -57.7145
7.17564, 104, 37.2271, 25.7115, 11.499, 8.80492, 111.255, -57.1401
7.18372, 104, 37.3986, 26.1671, 11.509, 9.01049, 111.458, -56.5731
7.19164, 104, 37.5597, 26.6096, 11.5226, 9.22383, 111.647, -56.0135
7.19966, 104, 37.7132, 27.0387, 11.539, 9.44208, 111.822, -55.4631
7.20813, 104, 37.8631, 27.4556, 11.5577, 9.66279, 111.986, -54.9253
7.21527, 104, 37.9376, 27.6589, 11.5676, 9.77317, 112.065, -54.6626
7.224, 104, 38.1575, 28.2481, 11.5978, 10.1001, 112.289, -53.9029
7.23164, 104, 38.2991, 28.6233, 11.6176, 10.3129, 112.429, -53.4221
7.23958, 104, 38.4351, 28.9839, 11.6364, 10.5196, 112.562, -52.9645
7.24765, 104, 38.5642, 29.3278, 11.6544, 10.7191, 112.687, -52.5304
7.25671, 104, 38.6855, 29.6542, 11.6714, 10.9104, 112.804, -52.1217
7.26395, 104, 38.7989, 29.9615, 11.6871, 11.0929, 112.914, -51.7375
7.27194, 104, 38.9044, 30.2505, 11.7019, 11.2658, 113.015, -51.3779
7.27991, 104, 39.0023, 30.5204, 11.7155, 11.4287, 113.11, -51.0441
7.28658, 104, 39.0483, 30.6478, 11.7219, 11.5062, 113.155, -50.8868
7.2961, 104, 39.174, 31.0011, 11.7391, 11.7225, 113.277, -50.4523
7.30408, 104, 39.2473, 31.2121, 11.7493, 11.8524, 113.349, -50.1943
7.31249, 104, 39.3124, 31.4029, 11.7588, 11.9709, 113.414, -49.9615
7.32016, 104, 39.3697, 31.5746, 11.7673, 12.0772, 113.472, -49.7539
7.32815, 104, 39.4201, 31.7269, 11.7746, 12.1713, 113.523, -49.5714
7.33613, 104, 39.4428, 31.7958, 11.7781, 12.2536, 113.567, -49.4136
7.34427, 104, 39.4838, 31.9201, 11.7845, 12.3232, 113.604, -49.2797
7.35158, 104, 39.5188, 32.0272, 11.7903, 12.3539, 113.62, -49.2217
7.35954, 104, 39.5477, 32.1177, 11.7954, 12.4064, 113.647, -49.1225
7.36758, 104, 39.5714, 32.1928, 11.8, 12.4471, 113.669, -49.0435
7.37556, 104, 39.5906, 32.2544, 11.8041, 12.4785, 113.685, -48.9841
7.38355, 104, 39.6058, 32.304, 11.8078, 12.5019, 113.696, -48.941
7.39158, 104, 39.6177, 32.343, 11.8113, 12.5185, 113.704, -48.9111
7.39958, 104, 39.6267, 32.3722, 11.8143, 12.5298, 113.709, -48.8915
7.40753, 104, 39.6332, 32.394, 11.817, 12.5369, 113.712, -48.8797
7.41558, 104, 39.6373, 32.41, 11.8193, 12.5409, 113.713, -48.8735
7.42352, 104, 39.6397, 32.4209, 11.8209, 12.543, 113.714, -48.8705
7.4315, 105, 39.641, 32.4276, 11.8222, 12.5441, 113.714, -48.8691
7.43964, 105, 39.6413, 32.4319, 11.8232, 12.5446, 113.714, -48.8685
7.44753, 105, 39.6408, 32.4348, 11.824, 12.5448, 113.714, -48.8684
7.45552, 105, 39.6398, 32.4369, 11.8248, 12.5449, 113.714, -48.8685
7.46509, 105, 39.6386, 32.4383, 11.8255, 12.5451, 113.714, -48.8686
7.47153, 105, 39.6372, 32.4396, 11.826, 12.5451, 113.714, -48.8688
7.47955, 105, 39.6361, 32.4408, 11.8265, 12.5451, 113.714, -48.8691
7.48759, 105, 39.6354, 32.442, 11.827, 12.5451, 113.714, -48.8693
7.49552, 105, 39.635, 32.4431, 11.8276, 12.5451, 113.714, -48.8696
7.50353, 105, 39.6346, 32.4442, 11.8282, 12.5451, 113.714, -48.8699
7.51161, 105, 39.6344, 32.4451, 11.8287, 12.5451, 113.714, -48.8701
7.51956, 105, 39.6341, 32.4459, 11.8291, 12.5451, 113.714, -48.8703
7.52752, 105, 39.6339, 32.4465, 11.8294, 12.5451, 113.714, -48.8705
7.53559, 105, 39.6336, 32.4468, 11.8297, 12.5451, 113.714, -48.8707
7.54355, 105, 39.6333, 32.4471, 11.83, 12.5451, 113.714, -48.8709
7.55157, 105, 39.6331, 32.4471, 11.8302, 12.5451, 113.714, -48.8711
