hehonglu123/Motion-Primitive-Planning/simulation/robotstudio_sim/scripts/fitting_output/threshold0.01/curve_exe_v500_fine.csv
timestamp, cmd_num, J1, J2, J3, J4, J5, J6
0, 1, -0.933074, 64.1005, 9.02172, 43.9493, -96.0816, 169.825
0.002, 1, -0.933074, 64.1005, 9.02172, 43.9493, -96.0816, 169.825
0.004, 1, -0.933074, 64.1005, 9.02172, 43.9493, -96.0816, 169.825
0.008, 1, -0.933074, 64.1005, 9.02172, 43.9493, -96.0816, 169.825
0.011, 1, -0.933074, 64.1005, 9.02172, 43.9493, -96.0816, 169.825
0.016, 1, -0.933074, 64.1005, 9.02172, 43.9493, -96.0816, 169.825
0.02, 1, -0.933074, 64.1005, 9.02172, 43.9493, -96.0816, 169.825
0.024, 1, -0.933074, 64.1005, 9.02172, 43.9493, -96.0816, 169.825
0.028, 1, -0.933074, 64.1005, 9.02172, 43.9493, -96.0816, 169.825
0.032, 1, -0.933065, 64.1005, 9.02172, 43.9493, -96.0816, 169.825
0.036, 1, -0.933, 64.1005, 9.02173, 43.9493, -96.0816, 169.825
0.04, 1, -0.932778, 64.1004, 9.02173, 43.9493, -96.0816, 169.825
0.044, 1, -0.932252, 64.1003, 9.02175, 43.9493, -96.0816, 169.825
0.048, 1, -0.93128, 64.1, 9.02178, 43.9494, -96.0815, 169.825
0.052, 1, -0.929754, 64.0995, 9.02181, 43.9495, -96.0815, 169.825
0.056, 1, -0.927597, 64.0987, 9.02183, 43.9497, -96.0813, 169.824
0.06, 1, -0.924762, 64.0976, 9.02179, 43.9502, -96.0809, 169.823
0.064, 1, -0.921212, 64.0962, 9.02165, 43.951, -96.0802, 169.821
0.068, 1, -0.916899, 64.0943, 9.02134, 43.9523, -96.0791, 169.818
0.072, 1, -0.911725, 64.092, 9.02078, 43.9543, -96.0775, 169.813
0.076, 1, -0.905533, 64.0891, 9.01988, 43.9572, -96.075, 169.806
0.08, 1, -0.898122, 64.0855, 9.01852, 43.9613, -96.0716, 169.797
0.084, 1, -0.889292, 64.0812, 9.01656, 43.9669, -96.0668, 169.784
0.088, 1, -0.878882, 64.0761, 9.01386, 43.9744, -96.0606, 169.766
0.092, 1, -0.866785, 64.0702, 9.01025, 43.984, -96.0525, 169.744
0.096, 1, -0.852917, 64.0634, 9.00555, 43.9963, -96.0422, 169.715
0.1, 1, -0.837177, 64.0556, 8.99957, 44.0114, -96.0294, 169.68
0.104, 1, -0.81943, 64.0469, 8.99214, 44.03, -96.0138, 169.637
0.108, 1, -0.799549, 64.0372, 8.98312, 44.0522, -95.995, 169.585
0.112, 1, -0.777447, 64.0264, 8.97234, 44.0784, -95.9729, 169.524
0.116, 1, -0.753104, 64.0148, 8.95967, 44.1089, -95.9471, 169.454
0.12, 1, -0.726548, 64.0023, 8.945, 44.1439, -95.9175, 169.372
0.124, 1, -0.697823, 63.9893, 8.92823, 44.1837, -95.8839, 169.28
0.128, 1, -0.666977, 63.9757, 8.90932, 44.2282, -95.8463, 169.177
0.131, 1, -0.634048, 63.9615, 8.88825, 44.2775, -95.8046, 169.063
0.136, 1, -0.599042, 63.9467, 8.86507, 44.3316, -95.759, 168.938
0.139, 1, -0.56192, 63.9313, 8.83985, 44.3902, -95.7094, 168.802
0.144, 1, -0.522647, 63.9149, 8.81271, 44.4531, -95.6562, 168.656
0.148, 1, -0.481238, 63.8976, 8.78379, 44.52, -95.5996, 168.501
0.152, 1, -0.437788, 63.8794, 8.75325, 44.5907, -95.5399, 168.338
0.156, 1, -0.39243, 63.8603, 8.72126, 44.6647, -95.4773, 168.166
0.16, 1, -0.345284, 63.8402, 8.68799, 44.7416, -95.4123, 167.988
0.164, 1, -0.296431, 63.8194, 8.65365, 44.821, -95.3451, 167.804
0.168, 1, -0.24594, 63.7977, 8.61843, 44.9025, -95.2762, 167.615
0.172, 1, -0.193908, 63.7752, 8.58251, 44.9858, -95.2058, 167.423
0.176, 1, -0.140466, 63.7519, 8.54605, 45.0704, -95.1342, 167.226
0.18, 1, -0.0857549, 63.7279, 8.5092, 45.1562, -95.0617, 167.028
0.184, 1, -0.0299204, 63.7034, 8.47205, 45.2427, -94.9886, 166.827
0.188, 1, 0.0268825, 63.6782, 8.43471, 45.3298, -94.9149, 166.626
0.192, 1, 0.084497, 63.6527, 8.39724, 45.4174, -94.8409, 166.423
0.196, 1, 0.142793, 63.6269, 8.35967, 45.5052, -94.7667, 166.219
0.2, 1, 0.201678, 63.6007, 8.32205, 45.5933, -94.6922, 166.015
0.204, 1, 0.261075, 63.5744, 8.28441, 45.6814, -94.6177, 165.811
0.208, 1, 0.320891, 63.548, 8.24675, 45.7697, -94.5431, 165.606
0.212, 1, 0.381016, 63.5214, 8.2091, 45.858, -94.4685, 165.402
0.216, 1, 0.441348, 63.4948, 8.17146, 45.9462, -94.3939, 165.197
0.22, 1, 0.50181, 63.4682, 8.13382, 46.0345, -94.3193, 164.992
0.224, 1, 0.562349, 63.4415, 8.09621, 46.1227, -94.2447, 164.788
0.228, 1, 0.622929, 63.4148, 8.05861, 46.211, -94.1702, 164.583
0.232, 1, 0.683525, 63.3881, 8.02103, 46.2991, -94.0956, 164.379
0.236, 1, 0.744122, 63.3614, 7.98347, 46.3873, -94.0211, 164.175
0.24, 1, 0.804707, 63.3347, 7.94592, 46.4753, -93.9467, 163.971
0.244, 1, 0.865274, 63.3081, 7.9084, 46.5634, -93.8723, 163.767
0.248, 1, 0.925816, 63.2814, 7.87091, 46.6514, -93.7979, 163.563
0.252, 1, 0.98633, 63.2548, 7.83343, 46.7393, -93.7236, 163.359
0.256, 1, 1.04681, 63.2281, 7.79597, 46.8272, -93.6493, 163.155
0.26, 1, 1.10727, 63.2015, 7.75854, 46.915, -93.5751, 162.952
0.264, 1, 1.16768, 63.1749, 7.72113, 47.0028, -93.5009, 162.748
0.268, 1, 1.22807, 63.1484, 7.68374, 47.0905, -93.4267, 162.545
0.272, 1, 1.28842, 63.1218, 7.64637, 47.1782, -93.3526, 162.342
0.276, 1, 1.34873, 63.0952, 7.60902, 47.2659, -93.2786, 162.139
0.28, 1, 1.40901, 63.0687, 7.5717, 47.3534, -93.2045, 161.936
0.284, 1, 1.46925, 63.0422, 7.5344, 47.441, -93.1306, 161.733
0.288, 1, 1.52946, 63.0157, 7.49712, 47.5284, -93.0566, 161.53
0.292, 1, 1.58963, 62.9892, 7.45986, 47.6159, -92.9828, 161.327
0.296, 1, 1.64976, 62.9627, 7.42263, 47.7032, -92.9089, 161.125
0.3, 1, 1.70986, 62.9363, 7.38542, 47.7905, -92.8351, 160.923
0.304, 1, 1.76992, 62.9098, 7.34823, 47.8778, -92.7614, 160.72
0.308, 1, 1.82994, 62.8834, 7.31107, 47.965, -92.6877, 160.518
0.312, 1, 1.88993, 62.857, 7.27393, 48.0522, -92.614, 160.316
0.316, 1, 1.94988, 62.8306, 7.23681, 48.1393, -92.5404, 160.114
0.32, 1, 2.00979, 62.8042, 7.19971, 48.2263, -92.4668, 159.913
0.324, 1, 2.06967, 62.7779, 7.16264, 48.3133, -92.3933, 159.711
0.328, 1, 2.1295, 62.7515, 7.12559, 48.4002, -92.3198, 159.509
0.332, 1, 2.1893, 62.7252, 7.08857, 48.4871, -92.2464, 159.308
0.336, 1, 2.24906, 62.6989, 7.05156, 48.5739, -92.173, 159.107
0.34, 1, 2.30879, 62.6726, 7.01459, 48.6607, -92.0997, 158.906
0.344, 1, 2.36847, 62.6463, 6.97763, 48.7474, -92.0264, 158.705
0.348, 1, 2.42812, 62.6201, 6.9407, 48.8341, -91.9531, 158.504
0.352, 1, 2.48772, 62.5938, 6.90379, 48.9207, -91.88, 158.303
0.356, 1, 2.54729, 62.5676, 6.86691, 49.0072, -91.8068, 158.103
0.36, 1, 2.60682, 62.5414, 6.83005, 49.0937, -91.7337, 157.902
0.364, 1, 2.66631, 62.5152, 6.79321, 49.1801, -91.6607, 157.702
0.368, 1, 2.72577, 62.489, 6.7564, 49.2665, -91.5877, 157.502
0.372, 1, 2.78518, 62.4629, 6.71961, 49.3528, -91.5147, 157.302
0.376, 1, 2.84455, 62.4367, 6.68285, 49.4391, -91.4418, 157.102
0.38, 1, 2.90389, 62.4106, 6.64611, 49.5253, -91.3689, 156.902
0.384, 1, 2.96318, 62.3845, 6.6094, 49.6114, -91.2961, 156.702
0.388, 1, 3.02244, 62.3584, 6.57271, 49.6975, -91.2234, 156.503
0.392, 1, 3.08166, 62.3324, 6.53604, 49.7836, -91.1506, 156.303
0.396, 1, 3.14083, 62.3063, 6.4994, 49.8695, -91.078, 156.104
0.4, 1, 3.19997, 62.2803, 6.46279, 49.9555, -91.0054, 155.905
0.404, 1, 3.25907, 62.2543, 6.42619, 50.0413, -90.9328, 155.706
0.408, 1, 3.31812, 62.2283, 6.38963, 50.1271, -90.8603, 155.507
0.412, 1, 3.37714, 62.2023, 6.35309, 50.2129, -90.7878, 155.308
0.416, 1, 3.43612, 62.1763, 6.31657, 50.2985, -90.7154, 155.11
0.42, 1, 3.49505, 62.1504, 6.28008, 50.3842, -90.643, 154.911
0.424, 1, 3.55395, 62.1244, 6.24361, 50.4697, -90.5707, 154.713
0.428, 1, 3.6128, 62.0985, 6.20717, 50.5553, -90.4984, 154.515
0.432, 1, 3.67161, 62.0726, 6.17076, 50.6407, -90.4262, 154.317
0.436, 1, 3.73038, 62.0468, 6.13437, 50.7261, -90.354, 154.119
0.44, 1, 3.78911, 62.0209, 6.098, 50.8114, -90.2819, 153.921
0.444, 1, 3.8478, 61.9951, 6.06166, 50.8967, -90.2098, 153.723
0.448, 1, 3.90645, 61.9693, 6.02535, 50.9819, -90.1378, 153.526
0.452, 1, 3.96506, 61.9435, 5.98906, 51.067, -90.0659, 153.329
0.456, 1, 4.02362, 61.9177, 5.9528, 51.1521, -89.994, 153.131
0.46, 1, 4.08215, 61.8919, 5.91657, 51.2371, -89.9221, 152.934
0.464, 1, 4.14063, 61.8662, 5.88036, 51.3221, -89.8503, 152.737
0.468, 1, 4.19907, 61.8404, 5.84417, 51.407, -89.7785, 152.541
0.472, 1, 4.25747, 61.8147, 5.80801, 51.4919, -89.7068, 152.344
0.476, 1, 4.31582, 61.789, 5.77188, 51.5766, -89.6352, 152.148
0.48, 1, 4.37414, 61.7634, 5.73578, 51.6614, -89.5636, 151.951
0.484, 1, 4.43241, 61.7377, 5.6997, 51.746, -89.492, 151.755
0.488, 1, 4.49064, 61.7121, 5.66365, 51.8306, -89.4205, 151.559
0.492, 1, 4.54882, 61.6865, 5.62762, 51.9151, -89.3491, 151.363
0.496, 1, 4.60696, 61.6609, 5.59162, 51.9996, -89.2777, 151.167
0.5, 1, 4.66506, 61.6353, 5.55564, 52.084, -89.2063, 150.972
0.504, 1, 4.72312, 61.6097, 5.5197, 52.1684, -89.135, 150.776
0.508, 1, 4.78114, 61.5842, 5.48378, 52.2527, -89.0638, 150.581
0.512, 1, 4.83911, 61.5587, 5.44788, 52.3369, -88.9926, 150.386
0.516, 1, 4.89704, 61.5332, 5.41202, 52.4211, -88.9215, 150.19
0.52, 1, 4.95492, 61.5077, 5.37618, 52.5051, -88.8504, 149.996
0.524, 1, 5.01277, 61.4822, 5.34036, 52.5892, -88.7794, 149.801
0.528, 1, 5.07057, 61.4568, 5.30458, 52.6731, -88.7084, 149.606
0.532, 1, 5.12832, 61.4314, 5.26882, 52.7571, -88.6375, 149.412
0.536, 1, 5.18603, 61.406, 5.23309, 52.8409, -88.5666, 149.217
0.54, 1, 5.2437, 61.3806, 5.19738, 52.9247, -88.4958, 149.023
0.544, 1, 5.30133, 61.3552, 5.1617, 53.0084, -88.4251, 148.829
0.548, 1, 5.35891, 61.3299, 5.12605, 53.0921, -88.3544, 148.635
0.552, 1, 5.41644, 61.3045, 5.09043, 53.1756, -88.2837, 148.442
0.556, 1, 5.47393, 61.2792, 5.05483, 53.2592, -88.2131, 148.248
0.56, 1, 5.53138, 61.2539, 5.01926, 53.3426, -88.1426, 148.055
0.564, 1, 5.58879, 61.2287, 4.98372, 53.426, -88.0721, 147.861
0.568, 1, 5.64614, 61.2034, 4.94821, 53.5094, -88.0016, 147.668
0.572, 1, 5.70346, 61.1782, 4.91272, 53.5926, -87.9313, 147.475
0.576, 1, 5.76073, 61.153, 4.87726, 53.6758, -87.861, 147.282
0.58, 1, 5.81795, 61.1278, 4.84183, 53.759, -87.7907, 147.09
0.584, 1, 5.87513, 61.1026, 4.80642, 53.842, -87.7205, 146.897
0.588, 1, 5.93227, 61.0775, 4.77105, 53.9251, -87.6503, 146.705
0.592, 1, 5.98936, 61.0523, 4.7357, 54.008, -87.5802, 146.512
0.596, 1, 6.04641, 61.0272, 4.70038, 54.0909, -87.5102, 146.32
0.6, 1, 6.10341, 61.0021, 4.66509, 54.1737, -87.4402, 146.128
0.604, 1, 6.16037, 60.977, 4.62982, 54.2564, -87.3702, 145.937
0.608, 1, 6.21728, 60.952, 4.59458, 54.3391, -87.3004, 145.745
0.612, 1, 6.33096, 60.902, 4.52419, 54.5043, -87.1608, 145.362
0.616, 1, 6.38774, 60.877, 4.48904, 54.5868, -87.091, 145.171
0.62, 1, 6.44447, 60.852, 4.45392, 54.6692, -87.0214, 144.98
0.624, 1, 6.50115, 60.827, 4.41882, 54.7515, -86.9518, 144.789
0.628, 1, 6.55779, 60.8021, 4.38375, 54.8338, -86.8822, 144.598
0.632, 1, 6.61438, 60.7772, 4.34872, 54.916, -86.8128, 144.408
0.636, 1, 6.67093, 60.7523, 4.3137, 54.9982, -86.7433, 144.218
0.64, 1, 6.72743, 60.7274, 4.27872, 55.0803, -86.6739, 144.027
0.644, 1, 6.78388, 60.7026, 4.24377, 55.1623, -86.6046, 143.837
0.648, 1, 6.84029, 60.6777, 4.20884, 55.2442, -86.5354, 143.647
0.652, 1, 6.89666, 60.6529, 4.17395, 55.3261, -86.4662, 143.457
0.656, 1, 6.95297, 60.6281, 4.13908, 55.4079, -86.397, 143.268
0.66, 1, 7.00924, 60.6034, 4.10424, 55.4897, -86.3279, 143.078
0.664, 1, 7.06547, 60.5786, 4.06943, 55.5714, -86.2589, 142.889
0.668, 1, 7.12164, 60.5539, 4.03465, 55.653, -86.1899, 142.7
0.672, 1, 7.17777, 60.5292, 3.99989, 55.7345, -86.121, 142.511
0.676, 1, 7.23386, 60.5045, 3.96517, 55.816, -86.0521, 142.322
0.68, 1, 7.2899, 60.4798, 3.93047, 55.8974, -85.9833, 142.133
0.684, 1, 7.34589, 60.4552, 3.89581, 55.9788, -85.9146, 141.945
0.688, 1, 7.40183, 60.4305, 3.86117, 56.06, -85.8459, 141.757
0.692, 1, 7.45773, 60.4059, 3.82656, 56.1413, -85.7772, 141.568
0.696, 1, 7.51358, 60.3813, 3.79198, 56.2224, -85.7086, 141.38
0.7, 1, 7.56938, 60.3568, 3.75743, 56.3035, -85.6401, 141.192
0.704, 1, 7.62514, 60.3322, 3.72291, 56.3845, -85.5717, 141.005
0.708, 1, 7.68085, 60.3077, 3.68842, 56.4654, -85.5033, 140.817
0.712, 1, 7.73651, 60.2832, 3.65396, 56.5463, -85.4349, 140.63
0.716, 1, 7.79213, 60.2587, 3.61952, 56.6271, -85.3666, 140.442
0.72, 1, 7.8477, 60.2343, 3.58512, 56.7078, -85.2984, 140.255
0.724, 1, 7.90322, 60.2098, 3.55074, 56.7884, -85.2302, 140.068
0.728, 1, 7.95869, 60.1854, 3.5164, 56.869, -85.1621, 139.882
0.732, 1, 8.01412, 60.161, 3.48208, 56.9496, -85.0941, 139.695
0.736, 1, 8.0695, 60.1366, 3.44779, 57.03, -85.0261, 139.508
0.74, 1, 8.12483, 60.1123, 3.41354, 57.1104, -84.9581, 139.322
0.744, 1, 8.18011, 60.0879, 3.37931, 57.1907, -84.8902, 139.136
0.748, 1, 8.23534, 60.0636, 3.34511, 57.271, -84.8224, 138.95
0.752, 1, 8.29053, 60.0393, 3.31094, 57.3511, -84.7547, 138.764
0.756, 1, 8.34567, 60.0151, 3.2768, 57.4312, -84.687, 138.579
0.76, 1, 8.40077, 59.9908, 3.24269, 57.5113, -84.6193, 138.393
0.764, 1, 8.45581, 59.9666, 3.20861, 57.5912, -84.5517, 138.208
0.768, 1, 8.51081, 59.9424, 3.17456, 57.6711, -84.4842, 138.023
0.772, 1, 8.56576, 59.9182, 3.14054, 57.751, -84.4167, 137.837
0.776, 1, 8.62066, 59.894, 3.10655, 57.8307, -84.3493, 137.653
0.78, 1, 8.67552, 59.8699, 3.07259, 57.9104, -84.282, 137.468
0.784, 1, 8.73032, 59.8457, 3.03866, 57.99, -84.2147, 137.283
0.788, 1, 8.78508, 59.8216, 3.00476, 58.0696, -84.1474, 137.099
0.792, 1, 8.83979, 59.7976, 2.97088, 58.1491, -84.0803, 136.915
0.796, 1, 8.89446, 59.7735, 2.93704, 58.2285, -84.0131, 136.731
0.8, 1, 8.94907, 59.7494, 2.90323, 58.3078, -83.9461, 136.547
0.804, 1, 9.00364, 59.7254, 2.86945, 58.3871, -83.8791, 136.363
0.808, 1, 9.05816, 59.7014, 2.83569, 58.4663, -83.8121, 136.18
0.812, 1, 9.11263, 59.6774, 2.80197, 58.5454, -83.7453, 135.996
0.816, 1, 9.16705, 59.6535, 2.76828, 58.6245, -83.6784, 135.813
0.82, 1, 9.22142, 59.6296, 2.73461, 58.7034, -83.6117, 135.63
0.824, 1, 9.27574, 59.6056, 2.70098, 58.7824, -83.545, 135.447
0.828, 1, 9.33002, 59.5818, 2.66738, 58.8612, -83.4783, 135.264
0.832, 1, 9.38425, 59.5579, 2.6338, 58.94, -83.4118, 135.082
0.836, 1, 9.43843, 59.534, 2.60026, 59.0187, -83.3452, 134.899
0.84, 1, 9.49256, 59.5102, 2.56675, 59.0973, -83.2788, 134.717
0.844, 1, 9.54664, 59.4864, 2.53326, 59.1759, -83.2124, 134.535
0.848, 1, 9.60068, 59.4626, 2.49981, 59.2544, -83.146, 134.353
0.852, 1, 9.65467, 59.4388, 2.46639, 59.3328, -83.0797, 134.171
0.856, 1, 9.7086, 59.4151, 2.43299, 59.4112, -83.0135, 133.99
0.86, 1, 9.76249, 59.3914, 2.39963, 59.4895, -82.9473, 133.808
0.864, 1, 9.81633, 59.3677, 2.36629, 59.5677, -82.8812, 133.627
0.868, 1, 9.87013, 59.344, 2.33299, 59.6458, -82.8152, 133.446
0.872, 1, 9.92387, 59.3203, 2.29972, 59.7239, -82.7492, 133.265
0.876, 1, 9.97757, 59.2967, 2.26647, 59.8019, -82.6833, 133.084
0.88, 1, 10.0312, 59.2731, 2.23326, 59.8799, -82.6174, 132.903
0.884, 1, 10.0848, 59.2495, 2.20008, 59.9577, -82.5516, 132.723
0.888, 1, 10.1384, 59.2259, 2.16692, 60.0355, -82.4858, 132.543
0.892, 1, 10.1919, 59.2024, 2.1338, 60.1132, -82.4202, 132.363
0.896, 1, 10.2453, 59.1788, 2.10071, 60.1909, -82.3545, 132.183
0.9, 1, 10.2987, 59.1553, 2.06764, 60.2685, -82.289, 132.003
0.904, 1, 10.3521, 59.1319, 2.03461, 60.346, -82.2234, 131.823
0.908, 1, 10.4054, 59.1084, 2.00161, 60.4234, -82.158, 131.644
0.912, 1, 10.4586, 59.0849, 1.96864, 60.5008, -82.0926, 131.464
0.916, 1, 10.5119, 59.0615, 1.93569, 60.5781, -82.0273, 131.285
0.92, 1, 10.565, 59.0381, 1.90278, 60.6553, -81.962, 131.106
0.924, 1, 10.6181, 59.0147, 1.8699, 60.7325, -81.8968, 130.927
0.928, 1, 10.6712, 58.9914, 1.83705, 60.8096, -81.8316, 130.749
0.932, 1, 10.7242, 58.968, 1.80422, 60.8866, -81.7665, 130.57
0.936, 1, 10.7772, 58.9447, 1.77143, 60.9635, -81.7015, 130.392
0.94, 1, 10.8301, 58.9214, 1.73867, 61.0404, -81.6365, 130.214
0.944, 1, 10.883, 58.8982, 1.70594, 61.1172, -81.5716, 130.036
0.948, 1, 10.9358, 58.8749, 1.67324, 61.1939, -81.5068, 129.858
0.952, 1, 10.9886, 58.8517, 1.64057, 61.2706, -81.442, 129.68
0.956, 1, 11.0413, 58.8285, 1.60793, 61.3472, -81.3773, 129.503
0.96, 1, 11.094, 58.8053, 1.57532, 61.4237, -81.3126, 129.325
0.964, 1, 11.1466, 58.7821, 1.54274, 61.5001, -81.248, 129.148
0.968, 1, 11.1992, 58.759, 1.51019, 61.5765, -81.1834, 128.971
0.972, 1, 11.2517, 58.7359, 1.47767, 61.6528, -81.1189, 128.794
0.976, 1, 11.3042, 58.7128, 1.44518, 61.7291, -81.0545, 128.618
0.98, 1, 11.3566, 58.6897, 1.41272, 61.8052, -80.9901, 128.441
0.984, 1, 11.409, 58.6666, 1.38029, 61.8813, -80.9258, 128.265
0.988, 1, 11.4613, 58.6436, 1.34789, 61.9573, -80.8615, 128.088
0.992, 1, 11.5136, 58.6206, 1.31552, 62.0333, -80.7974, 127.912
0.996, 1, 11.5658, 58.5976, 1.28318, 62.1092, -80.7332, 127.737
1, 1, 11.618, 58.5746, 1.25087, 62.185, -80.6691, 127.561
1.004, 1, 11.6702, 58.5516, 1.21859, 62.2607, -80.6051, 127.385
1.008, 1, 11.7222, 58.5287, 1.18634, 62.3364, -80.5412, 127.21
1.012, 1, 11.7743, 58.5058, 1.15413, 62.412, -80.4773, 127.035
1.016, 1, 11.8263, 58.4829, 1.12194, 62.4875, -80.4134, 126.86
1.02, 1, 11.8782, 58.4601, 1.08978, 62.563, -80.3497, 126.685
1.024, 1, 11.9301, 58.4372, 1.05765, 62.6384, -80.2859, 126.51
1.027, 1, 11.9301, 58.4372, 1.05765, 62.6384, -80.2859, 126.51
1.032, 1, 11.982, 58.4144, 1.02555, 62.7137, -80.2223, 126.336
1.036, 1, 12.0338, 58.3916, 0.993487, 62.7889, -80.1587, 126.161
1.04, 1, 12.0855, 58.3688, 0.96145, 62.8641, -80.0952, 125.987
1.044, 1, 12.1372, 58.3461, 0.929443, 62.9392, -80.0317, 125.813
1.048, 1, 12.1889, 58.3233, 0.897466, 63.0142, -79.9683, 125.639
1.052, 1, 12.2405, 58.3006, 0.865519, 63.0892, -79.9049, 125.465
1.055, 1, 12.292, 58.2779, 0.833602, 63.1641, -79.8416, 125.292
1.06, 1, 12.3435, 58.2552, 0.801715, 63.2389, -79.7784, 125.118
1.064, 1, 12.395, 58.2326, 0.769859, 63.3137, -79.7152, 124.945
1.068, 1, 12.4464, 58.21, 0.738032, 63.3883, -79.6521, 124.772
1.072, 1, 12.4978, 58.1874, 0.706236, 63.463, -79.589, 124.599
1.076, 1, 12.5491, 58.1648, 0.674469, 63.5375, -79.526, 124.426
1.08, 1, 12.6003, 58.1422, 0.642733, 63.612, -79.4631, 124.254
1.084, 1, 12.6516, 58.1197, 0.611026, 63.6864, -79.4002, 124.081
1.088, 1, 12.7027, 58.0971, 0.57935, 63.7607, -79.3374, 123.909
1.091, 1, 12.7538, 58.0746, 0.547704, 63.8349, -79.2746, 123.737
1.096, 1, 12.8049, 58.0522, 0.516087, 63.9091, -79.2119, 123.565
1.1, 1, 12.8559, 58.0297, 0.484501, 63.9832, -79.1493, 123.393
1.104, 1, 12.9069, 58.0073, 0.452945, 64.0573, -79.0867, 123.221
1.108, 1, 12.9578, 57.9848, 0.421418, 64.1313, -79.0242, 123.05
1.112, 1, 13.0087, 57.9624, 0.389921, 64.2052, -78.9617, 122.879
1.116, 1, 13.0596, 57.9401, 0.358455, 64.279, -78.8993, 122.708
1.119, 1, 13.1103, 57.9177, 0.327018, 64.3528, -78.837, 122.537
1.124, 1, 13.1611, 57.8954, 0.29561, 64.4265, -78.7747, 122.366
1.128, 1, 13.2118, 57.8731, 0.264233, 64.5001, -78.7125, 122.195
1.132, 1, 13.2624, 57.8508, 0.232886, 64.5737, -78.6503, 122.025
1.136, 1, 13.313, 57.8285, 0.201568, 64.6471, -78.5882, 121.854
1.14, 1, 13.3635, 57.8063, 0.17028, 64.7206, -78.5261, 121.684
1.144, 1, 13.414, 57.784, 0.139021, 64.7939, -78.4641, 121.514
1.147, 1, 13.4645, 57.7618, 0.107792, 64.8672, -78.4022, 121.344
1.152, 1, 13.5149, 57.7397, 0.0765933, 64.9404, -78.3403, 121.175
1.156, 1, 13.5652, 57.7175, 0.0454239, 65.0135, -78.2785, 121.005
1.16, 1, 13.6155, 57.6954, 0.014284, 65.0866, -78.2168, 120.836
1.164, 1, 13.6658, 57.6732, -0.0168263, 65.1596, -78.1551, 120.667
1.168, 1, 13.716, 57.6511, -0.047907, 65.2325, -78.0934, 120.498
1.172, 1, 13.7661, 57.6291, -0.0789582, 65.3054, -78.0318, 120.329
1.175, 1, 13.8162, 57.607, -0.10998, 65.3782, -77.9703, 120.16
1.18, 1, 13.8663, 57.585, -0.140972, 65.4509, -77.9089, 119.992
1.184, 1, 13.9163, 57.5629, -0.171935, 65.5236, -77.8474, 119.823
1.188, 1, 13.9663, 57.541, -0.202868, 65.5961, -77.7861, 119.655
1.192, 1, 14.0162, 57.519, -0.233772, 65.6687, -77.7248, 119.487
1.196, 1, 14.0661, 57.497, -0.264647, 65.7411, -77.6636, 119.319
1.2, 1, 14.1159, 57.4751, -0.295492, 65.8135, -77.6024, 119.151
1.204, 1, 14.1657, 57.4532, -0.326308, 65.8858, -77.5413, 118.984
1.208, 1, 14.2154, 57.4313, -0.357094, 65.958, -77.4802, 118.816
1.212, 1, 14.2651, 57.4094, -0.387851, 66.0302, -77.4192, 118.649
1.216, 1, 14.3148, 57.3876, -0.418579, 66.1023, -77.3583, 118.482
1.22, 1, 14.3643, 57.3657, -0.449278, 66.1743, -77.2974, 118.315
1.224, 1, 14.4139, 57.3439, -0.479948, 66.2463, -77.2366, 118.148
1.228, 1, 14.4634, 57.3222, -0.510588, 66.3182, -77.1758, 117.981
1.232, 1, 14.5128, 57.3004, -0.5412, 66.39, -77.1151, 117.815
1.236, 1, 14.5622, 57.2786, -0.571782, 66.4618, -77.0545, 117.649
1.24, 1, 14.6116, 57.2569, -0.602335, 66.5335, -76.9939, 117.482
1.244, 1, 14.6609, 57.2352, -0.632859, 66.6051, -76.9333, 117.316
1.248, 1, 14.7102, 57.2135, -0.663354, 66.6767, -76.8729, 117.151
1.252, 1, 14.7594, 57.1919, -0.69382, 66.7481, -76.8124, 116.985
1.256, 1, 14.8085, 57.1702, -0.724257, 66.8196, -76.7521, 116.819
1.26, 1, 14.8577, 57.1486, -0.754665, 66.8909, -76.6918, 116.654
1.264, 1, 14.9067, 57.127, -0.785044, 66.9622, -76.6315, 116.489
1.267, 1, 14.9558, 57.1054, -0.815394, 67.0334, -76.5713, 116.324
1.272, 1, 15.0047, 57.0839, -0.845715, 67.1046, -76.5112, 116.159
1.276, 1, 15.0537, 57.0623, -0.876008, 67.1756, -76.4511, 115.994
1.28, 1, 15.1026, 57.0408, -0.906272, 67.2467, -76.3911, 115.83
1.284, 1, 15.1514, 57.0193, -0.936507, 67.3176, -76.3311, 115.665
1.288, 1, 15.2002, 56.9978, -0.966713, 67.3885, -76.2712, 115.501
1.292, 1, 15.249, 56.9764, -0.99689, 67.4593, -76.2114, 115.337
1.295, 1, 15.2977, 56.9549, -1.02704, 67.53, -76.1516, 115.173
1.3, 1, 15.3463, 56.9335, -1.05716, 67.6007, -76.0919, 115.009
1.304, 1, 15.3949, 56.9121, -1.08725, 67.6713, -76.0322, 114.845
1.308, 1, 15.4435, 56.8907, -1.11731, 67.7419, -75.9726, 114.682
1.312, 1, 15.492, 56.8694, -1.14735, 67.8123, -75.913, 114.518
1.316, 1, 15.5405, 56.8481, -1.17736, 67.8827, -75.8535, 114.355
1.32, 1, 15.5889, 56.8267, -1.20733, 67.9531, -75.7941, 114.192
1.324, 1, 15.6373, 56.8055, -1.23728, 68.0234, -75.7346, 114.029
1.328, 1, 15.6856, 56.7842, -1.2672, 68.0936, -75.6753, 113.867
1.332, 1, 15.7339, 56.7629, -1.2971, 68.1637, -75.616, 113.704
1.336, 1, 15.7821, 56.7417, -1.32696, 68.2338, -75.5568, 113.542
1.34, 1, 15.8303, 56.7205, -1.35679, 68.3038, -75.4976, 113.379
1.344, 1, 15.8785, 56.6993, -1.3866, 68.3737, -75.4385, 113.217
1.348, 1, 15.9266, 56.6781, -1.41638, 68.4436, -75.3795, 113.055
1.352, 1, 15.9747, 56.657, -1.44613, 68.5134, -75.3205, 112.894
1.356, 1, 16.0227, 56.6358, -1.47585, 68.5831, -75.2615, 112.732
1.36, 1, 16.0706, 56.6147, -1.50554, 68.6528, -75.2026, 112.571
1.364, 1, 16.1186, 56.5936, -1.53521, 68.7224, -75.1438, 112.409
1.368, 1, 16.1664, 56.5725, -1.56485, 68.792, -75.085, 112.248
1.372, 1, 16.2143, 56.5515, -1.59446, 68.8615, -75.0263, 112.087
1.376, 1, 16.262, 56.5305, -1.62404, 68.9309, -74.9676, 111.926
1.38, 1, 16.3098, 56.5094, -1.65359, 69.0002, -74.909, 111.765
1.384, 1, 16.3575, 56.4884, -1.68311, 69.0695, -74.8505, 111.605
1.388, 1, 16.4051, 56.4675, -1.71261, 69.1387, -74.792, 111.444
1.392, 1, 16.4527, 56.4465, -1.74208, 69.2078, -74.7335, 111.284
1.396, 1, 16.5003, 56.4256, -1.77152, 69.2769, -74.6751, 111.124
1.4, 1, 16.5478, 56.4047, -1.80093, 69.3459, -74.6168, 110.964
1.404, 1, 16.5953, 56.3838, -1.83032, 69.4149, -74.5585, 110.804
1.408, 1, 16.6427, 56.3629, -1.85968, 69.4838, -74.5003, 110.645
1.412, 1, 16.6901, 56.342, -1.88901, 69.5526, -74.4422, 110.485
1.416, 1, 16.7374, 56.3212, -1.91831, 69.6214, -74.384, 110.326
1.42, 1, 16.7847, 56.3004, -1.94758, 69.6901, -74.326, 110.167
1.424, 1, 16.832, 56.2796, -1.97683, 69.7587, -74.268, 110.007
1.428, 1, 16.8792, 56.2588, -2.00605, 69.8272, -74.21, 109.849
1.432, 1, 16.9263, 56.2381, -2.03524, 69.8957, -74.1521, 109.69
1.436, 1, 16.9734, 56.2173, -2.0644, 69.9642, -74.0943, 109.531
1.44, 1, 17.0205, 56.1966, -2.09354, 70.0326, -74.0365, 109.373
1.444, 1, 17.0675, 56.1759, -2.12265, 70.1009, -73.9788, 109.214
1.448, 1, 17.1145, 56.1552, -2.15173, 70.1691, -73.9211, 109.056
1.452, 1, 17.1615, 56.1346, -2.18079, 70.2373, -73.8635, 108.898
1.456, 1, 17.2084, 56.1139, -2.20981, 70.3054, -73.8059, 108.74
1.46, 1, 17.2552, 56.0933, -2.23881, 70.3734, -73.7484, 108.583
1.464, 1, 17.302, 56.0727, -2.26779, 70.4414, -73.6909, 108.425
1.468, 1, 17.3488, 56.0521, -2.29673, 70.5093, -73.6335, 108.268
1.472, 1, 17.3955, 56.0316, -2.32565, 70.5772, -73.5762, 108.11
1.476, 1, 17.4422, 56.011, -2.35454, 70.645, -73.5189, 107.953
1.48, 1, 17.4888, 55.9905, -2.38341, 70.7127, -73.4616, 107.796
1.484, 1, 17.5354, 55.97, -2.41225, 70.7804, -73.4044, 107.639
1.488, 1, 17.5819, 55.9495, -2.44106, 70.848, -73.3473, 107.483
1.492, 1, 17.6284, 55.929, -2.46984, 70.9155, -73.2902, 107.326
1.496, 1, 17.6749, 55.9086, -2.4986, 70.983, -73.2332, 107.17
1.5, 1, 17.7213, 55.8882, -2.52733, 71.0504, -73.1762, 107.014
1.504, 1, 17.7677, 55.8677, -2.55603, 71.1178, -73.1193, 106.858
1.508, 1, 17.814, 55.8474, -2.58471, 71.1851, -73.0624, 106.702
1.512, 1, 17.8603, 55.827, -2.61336, 71.2523, -73.0056, 106.546
1.516, 1, 17.9065, 55.8066, -2.64198, 71.3195, -72.9488, 106.39
1.52, 1, 17.9527, 55.7863, -2.67058, 71.3866, -72.8921, 106.235
1.524, 1, 17.9989, 55.766, -2.69915, 71.4536, -72.8354, 106.079
1.528, 1, 18.045, 55.7457, -2.7277, 71.5206, -72.7788, 105.924
1.532, 1, 18.0911, 55.7254, -2.75621, 71.5875, -72.7223, 105.769
1.536, 1, 18.1371, 55.7051, -2.78471, 71.6544, -72.6658, 105.614
1.54, 1, 18.1831, 55.6849, -2.81317, 71.7212, -72.6093, 105.459
1.544, 1, 18.229, 55.6647, -2.84161, 71.7879, -72.5529, 105.304
1.548, 1, 18.2749, 55.6445, -2.87002, 71.8546, -72.4966, 105.15
1.552, 1, 18.3208, 55.6243, -2.89841, 71.9212, -72.4403, 104.996
1.556, 1, 18.3666, 55.6041, -2.92677, 71.9877, -72.384, 104.841
1.56, 1, 18.4124, 55.584, -2.9551, 72.0542, -72.3278, 104.687
1.564, 1, 18.4581, 55.5639, -2.98341, 72.1206, -72.2717, 104.533
1.568, 1, 18.5038, 55.5437, -3.01169, 72.187, -72.2156, 104.379
1.572, 1, 18.5494, 55.5237, -3.03995, 72.2533, -72.1596, 104.226
1.576, 1, 18.595, 55.5036, -3.06818, 72.3195, -72.1036, 104.072
1.58, 1, 18.6406, 55.4835, -3.09638, 72.3857, -72.0477, 103.919
1.584, 1, 18.6861, 55.4635, -3.12456, 72.4518, -71.9918, 103.766
1.588, 1, 18.7316, 55.4435, -3.15271, 72.5179, -71.9359, 103.613
1.592, 1, 18.777, 55.4235, -3.18084, 72.5839, -71.8802, 103.46
1.596, 1, 18.8224, 55.4035, -3.20894, 72.6498, -71.8244, 103.307
1.6, 1, 18.8678, 55.3835, -3.23701, 72.7157, -71.7688, 103.154
1.604, 1, 18.9131, 55.3636, -3.26506, 72.7815, -71.7131, 103.002
1.608, 1, 18.9584, 55.3437, -3.29309, 72.8473, -71.6575, 102.849
1.612, 1, 19.0488, 55.3039, -3.34906, 72.9786, -71.5465, 102.545
1.616, 1, 19.0939, 55.284, -3.377, 73.0442, -71.4911, 102.393
1.62, 1, 19.139, 55.2641, -3.40492, 73.1097, -71.4358, 102.241
1.624, 1, 19.1841, 55.2443, -3.43282, 73.1752, -71.3804, 102.089
1.628, 1, 19.2291, 55.2245, -3.46069, 73.2406, -71.3251, 101.938
1.632, 1, 19.2741, 55.2047, -3.48854, 73.3059, -71.2699, 101.786
1.636, 1, 19.3191, 55.1849, -3.51636, 73.3712, -71.2148, 101.635
1.64, 1, 19.364, 55.1651, -3.54415, 73.4364, -71.1596, 101.484
1.644, 1, 19.4088, 55.1454, -3.57192, 73.5016, -71.1046, 101.333
1.648, 1, 19.4536, 55.1257, -3.59966, 73.5667, -71.0495, 101.182
1.652, 1, 19.4984, 55.1059, -3.62738, 73.6317, -70.9946, 101.031
1.656, 1, 19.5432, 55.0863, -3.65508, 73.6967, -70.9396, 100.88
1.66, 1, 19.5879, 55.0666, -3.68275, 73.7616, -70.8848, 100.73
1.664, 1, 19.6325, 55.0469, -3.71039, 73.8265, -70.8299, 100.58
1.668, 1, 19.6771, 55.0273, -3.73801, 73.8913, -70.7752, 100.429
1.672, 1, 19.7217, 55.0077, -3.7656, 73.956, -70.7204, 100.279
1.676, 1, 19.7663, 54.9881, -3.79317, 74.0207, -70.6658, 100.129
1.68, 1, 19.8108, 54.9685, -3.82072, 74.0854, -70.6111, 99.9796
1.684, 1, 19.8552, 54.9489, -3.84824, 74.1499, -70.5566, 99.83
1.688, 1, 19.8996, 54.9294, -3.87573, 74.2145, -70.502, 99.6805
1.692, 1, 19.944, 54.9098, -3.9032, 74.2789, -70.4476, 99.5311
1.696, 1, 19.9883, 54.8903, -3.93065, 74.3433, -70.3931, 99.3818
1.7, 1, 20.0326, 54.8708, -3.95807, 74.4077, -70.3387, 99.2327
1.704, 1, 20.0769, 54.8513, -3.98547, 74.4719, -70.2844, 99.0837
1.708, 1, 20.1211, 54.8319, -4.01284, 74.5362, -70.2301, 98.9348
1.712, 1, 20.1653, 54.8124, -4.04018, 74.6003, -70.1759, 98.7861
1.716, 1, 20.2094, 54.793, -4.06751, 74.6644, -70.1217, 98.6375
1.72, 1, 20.2535, 54.7736, -4.0948, 74.7285, -70.0676, 98.4891
1.724, 1, 20.2976, 54.7542, -4.12208, 74.7925, -70.0135, 98.3407
1.728, 1, 20.3416, 54.7348, -4.14933, 74.8564, -69.9594, 98.1926
1.732, 1, 20.3856, 54.7155, -4.17655, 74.9203, -69.9054, 98.0445
1.736, 1, 20.4295, 54.6961, -4.20375, 74.9841, -69.8515, 97.8966
1.74, 1, 20.4734, 54.6768, -4.23093, 75.0479, -69.7976, 97.7488
1.744, 1, 20.5173, 54.6575, -4.25808, 75.1116, -69.7438, 97.6011
1.748, 1, 20.5611, 54.6382, -4.28521, 75.1753, -69.69, 97.4536
1.752, 1, 20.6049, 54.6189, -4.31231, 75.2389, -69.6362, 97.3062
1.756, 1, 20.6487, 54.5997, -4.33939, 75.3024, -69.5825, 97.1589
1.76, 1, 20.6924, 54.5804, -4.36645, 75.3659, -69.5288, 97.0117
1.764, 1, 20.7361, 54.5612, -4.39348, 75.4293, -69.4752, 96.8647
1.768, 1, 20.7797, 54.542, -4.42049, 75.4927, -69.4217, 96.7178
1.772, 1, 20.8233, 54.5228, -4.44747, 75.556, -69.3681, 96.5711
1.776, 1, 20.8668, 54.5037, -4.47443, 75.6193, -69.3147, 96.4245
1.78, 1, 20.9104, 54.4845, -4.50137, 75.6825, -69.2613, 96.278
1.784, 1, 20.9538, 54.4654, -4.52829, 75.7457, -69.2079, 96.1316
1.788, 1, 20.9973, 54.4462, -4.55518, 75.8088, -69.1546, 95.9854
1.792, 1, 21.0407, 54.4271, -4.58204, 75.8718, -69.1013, 95.8393
1.796, 1, 21.084, 54.4081, -4.60888, 75.9348, -69.048, 95.6933
1.8, 1, 21.1274, 54.389, -4.6357, 75.9977, -68.9949, 95.5474
1.804, 1, 21.1707, 54.3699, -4.6625, 76.0606, -68.9417, 95.4017
1.808, 1, 21.2139, 54.3509, -4.68927, 76.1234, -68.8886, 95.2561
1.812, 1, 21.2571, 54.3319, -4.71602, 76.1862, -68.8356, 95.1106
1.816, 1, 21.3003, 54.3129, -4.74275, 76.2489, -68.7826, 94.9653
1.82, 1, 21.3434, 54.2939, -4.76945, 76.3116, -68.7296, 94.8201
1.824, 1, 21.3865, 54.2749, -4.79613, 76.3742, -68.6767, 94.675
1.828, 1, 21.4296, 54.256, -4.82279, 76.4367, -68.6238, 94.53
1.832, 1, 21.4726, 54.237, -4.84942, 76.4992, -68.571, 94.3851
1.836, 1, 21.5156, 54.2181, -4.87603, 76.5616, -68.5182, 94.2404
1.84, 1, 21.5586, 54.1992, -4.90262, 76.624, -68.4655, 94.0958
1.844, 1, 21.6015, 54.1803, -4.92918, 76.6864, -68.4128, 93.9514
1.848, 1, 21.6444, 54.1614, -4.95572, 76.7486, -68.3602, 93.807
1.852, 1, 21.6872, 54.1426, -4.98224, 76.8109, -68.3076, 93.6628
1.856, 1, 21.73, 54.1237, -5.00874, 76.873, -68.255, 93.5187
1.86, 1, 21.7728, 54.1049, -5.03521, 76.9352, -68.2025, 93.3747
1.864, 1, 21.8155, 54.0861, -5.06166, 76.9972, -68.1501, 93.2309
1.868, 1, 21.8582, 54.0673, -5.08809, 77.0592, -68.0977, 93.0872
1.872, 1, 21.9009, 54.0485, -5.11449, 77.1212, -68.0453, 92.9436
1.876, 1, 21.9435, 54.0298, -5.14088, 77.1831, -67.993, 92.8001
1.88, 1, 21.9861, 54.011, -5.16724, 77.245, -67.9407, 92.6567
1.884, 1, 22.0286, 53.9923, -5.19357, 77.3068, -67.8885, 92.5135
1.888, 1, 22.0711, 53.9736, -5.21989, 77.3685, -67.8363, 92.3704
1.892, 1, 22.1136, 53.9549, -5.24618, 77.4302, -67.7841, 92.2274
1.896, 1, 22.1561, 53.9362, -5.27245, 77.4919, -67.732, 92.0845
1.9, 1, 22.1985, 53.9175, -5.2987, 77.5534, -67.68, 91.9418
1.904, 1, 22.2408, 53.8989, -5.32493, 77.615, -67.628, 91.7991
1.908, 1, 22.2832, 53.8803, -5.35113, 77.6765, -67.576, 91.6566
1.912, 1, 22.3255, 53.8616, -5.37731, 77.7379, -67.5241, 91.5142
1.916, 1, 22.3677, 53.843, -5.40347, 77.7993, -67.4722, 91.372
1.92, 1, 22.41, 53.8245, -5.42961, 77.8606, -67.4204, 91.2298
1.924, 1, 22.4521, 53.8059, -5.45572, 77.9219, -67.3686, 91.0878
1.928, 1, 22.4943, 53.7873, -5.48182, 77.9831, -67.3168, 90.9459
1.932, 1, 22.5364, 53.7688, -5.50789, 78.0443, -67.2651, 90.8041
1.936, 1, 22.5785, 53.7503, -5.53394, 78.1054, -67.2134, 90.6624
1.94, 1, 22.6205, 53.7318, -5.55996, 78.1665, -67.1618, 90.5209
1.944, 1, 22.6626, 53.7133, -5.58597, 78.2275, -67.1103, 90.3795
1.948, 1, 22.7045, 53.6948, -5.61195, 78.2885, -67.0587, 90.2382
1.952, 1, 22.7465, 53.6763, -5.63791, 78.3494, -67.0072, 90.097
1.956, 1, 22.7884, 53.6579, -5.66386, 78.4103, -66.9558, 89.9559
1.96, 1, 22.8303, 53.6395, -5.68977, 78.4711, -66.9044, 89.8149
1.964, 1, 22.8721, 53.621, -5.71567, 78.5319, -66.853, 89.6741
1.968, 1, 22.9139, 53.6026, -5.74155, 78.5926, -66.8017, 89.5334
1.972, 1, 22.9557, 53.5843, -5.7674, 78.6532, -66.7504, 89.3928
1.976, 1, 22.9974, 53.5659, -5.79323, 78.7139, -66.6992, 89.2523
1.98, 1, 23.0391, 53.5475, -5.81904, 78.7744, -66.648, 89.1119
1.984, 1, 23.0808, 53.5292, -5.84483, 78.835, -66.5969, 88.9716
1.988, 1, 23.1224, 53.5109, -5.8706, 78.8954, -66.5458, 88.8315
1.992, 1, 23.164, 53.4926, -5.89635, 78.9558, -66.4947, 88.6915
1.996, 1, 23.2055, 53.4743, -5.92207, 79.0162, -66.4437, 88.5516
1.999, 1, 23.2055, 53.4743, -5.92207, 79.0162, -66.4437, 88.5516
2.004, 1, 23.2471, 53.456, -5.94778, 79.0765, -66.3927, 88.4118
2.008, 1, 23.2886, 53.4377, -5.97346, 79.1368, -66.3418, 88.2721
2.012, 1, 23.33, 53.4195, -5.99912, 79.197, -66.2909, 88.1326
2.015, 1, 23.3714, 53.4013, -6.02477, 79.2572, -66.24, 87.9931
2.019, 1, 23.4128, 53.383, -6.05038, 79.3173, -66.1892, 87.8538
2.024, 1, 23.4542, 53.3648, -6.07598, 79.3773, -66.1384, 87.7146
2.028, 1, 23.4955, 53.3467, -6.10156, 79.4374, -66.0877, 87.5754
2.031, 1, 23.5368, 53.3285, -6.12712, 79.4973, -66.037, 87.4365
2.036, 1, 23.5781, 53.3103, -6.15265, 79.5573, -65.9864, 87.2976
2.04, 1, 23.6193, 53.2922, -6.17817, 79.6171, -65.9358, 87.1588
2.044, 1, 23.6605, 53.2741, -6.20366, 79.6769, -65.8852, 87.0202
2.048, 1, 23.7016, 53.2559, -6.22914, 79.7367, -65.8347, 86.8816
2.051, 1, 23.7427, 53.2378, -6.25459, 79.7964, -65.7842, 86.7432
2.055, 1, 23.7838, 53.2198, -6.28002, 79.8561, -65.7338, 86.6049
2.06, 1, 23.8249, 53.2017, -6.30543, 79.9157, -65.6834, 86.4667
2.064, 1, 23.8659, 53.1836, -6.33082, 79.9753, -65.633, 86.3286
2.068, 1, 23.9069, 53.1656, -6.35619, 80.0349, -65.5827, 86.1907
2.071, 1, 23.9478, 53.1476, -6.38154, 80.0943, -65.5324, 86.0528
2.076, 1, 23.9887, 53.1296, -6.40687, 80.1538, -65.4822, 85.915
2.08, 1, 24.0296, 53.1116, -6.43218, 80.2132, -65.432, 85.7774
2.084, 1, 24.0705, 53.0936, -6.45747, 80.2725, -65.3819, 85.6399
2.087, 1, 24.1113, 53.0756, -6.48274, 80.3318, -65.3318, 85.5024
2.092, 1, 24.1521, 53.0577, -6.50799, 80.391, -65.2817, 85.3651
2.096, 1, 24.1929, 53.0397, -6.53321, 80.4502, -65.2317, 85.2279
2.1, 1, 24.2336, 53.0218, -6.55842, 80.5094, -65.1817, 85.0909
2.104, 1, 24.2743, 53.0039, -6.58361, 80.5685, -65.1317, 84.9539
2.107, 1, 24.3149, 52.986, -6.60877, 80.6275, -65.0818, 84.817
2.111, 1, 24.3556, 52.9681, -6.63392, 80.6865, -65.0319, 84.6803
2.116, 1, 24.3961, 52.9502, -6.65905, 80.7455, -64.9821, 84.5436
2.12, 1, 24.4367, 52.9324, -6.68415, 80.8044, -64.9323, 84.4071
2.124, 1, 24.4772, 52.9146, -6.70924, 80.8633, -64.8826, 84.2706
2.127, 1, 24.5177, 52.8967, -6.7343, 80.9221, -64.8328, 84.1343
2.132, 1, 24.5582, 52.8789, -6.75935, 80.9809, -64.7832, 83.9981
2.136, 1, 24.5986, 52.8611, -6.78438, 81.0396, -64.7335, 83.862
2.14, 1, 24.639, 52.8433, -6.80939, 81.0983, -64.6839, 83.726
2.143, 1, 24.6794, 52.8256, -6.83437, 81.1569, -64.6344, 83.5901
2.148, 1, 24.7197, 52.8078, -6.85934, 81.2155, -64.5849, 83.4543
2.152, 1, 24.76, 52.7901, -6.88429, 81.274, -64.5354, 83.3186
2.156, 1, 24.8003, 52.7724, -6.90922, 81.3325, -64.486, 83.1831
2.16, 1, 24.8406, 52.7546, -6.93413, 81.391, -64.4366, 83.0476
2.163, 1, 24.8808, 52.7369, -6.95902, 81.4494, -64.3872, 82.9122
2.168, 1, 24.9209, 52.7193, -6.98389, 81.5077, -64.3379, 82.777
2.172, 1, 24.9611, 52.7016, -7.00874, 81.5661, -64.2886, 82.6418
2.176, 1, 25.0012, 52.6839, -7.03357, 81.6243, -64.2393, 82.5068
2.179, 1, 25.0413, 52.6663, -7.05838, 81.6825, -64.1901, 82.3718
2.184, 1, 25.0814, 52.6487, -7.08317, 81.7407, -64.141, 82.237
2.188, 1, 25.1214, 52.631, -7.10795, 81.7989, -64.0918, 82.1023
2.192, 1, 25.1614, 52.6134, -7.1327, 81.8569, -64.0427, 81.9677
2.196, 1, 25.2013, 52.5959, -7.15744, 81.915, -63.9937, 81.8331
2.199, 1, 25.2413, 52.5783, -7.18215, 81.973, -63.9447, 81.6987
2.204, 1, 25.2812, 52.5607, -7.20685, 82.0309, -63.8957, 81.5644
2.208, 1, 25.321, 52.5432, -7.23153, 82.0888, -63.8467, 81.4302
2.212, 1, 25.3609, 52.5256, -7.25618, 82.1467, -63.7978, 81.2961
2.216, 1, 25.4007, 52.5081, -7.28082, 82.2045, -63.749, 81.1621
2.219, 1, 25.4404, 52.4906, -7.30545, 82.2623, -63.7001, 81.0282
2.224, 1, 25.4802, 52.4731, -7.33005, 82.32, -63.6513, 80.8944
2.228, 1, 25.5199, 52.4556, -7.35463, 82.3777, -63.6026, 80.7607
2.232, 1, 25.5596, 52.4382, -7.3792, 82.4353, -63.5539, 80.6271
2.235, 1, 25.5992, 52.4207, -7.40374, 82.4929, -63.5052, 80.4936
2.24, 1, 25.6389, 52.4033, -7.42827, 82.5505, -63.4566, 80.3602
2.244, 1, 25.6785, 52.3858, -7.45278, 82.608, -63.4079, 80.2269
2.248, 1, 25.718, 52.3684, -7.47727, 82.6655, -63.3594, 80.0937
2.252, 1, 25.7576, 52.351, -7.50174, 82.7229, -63.3108, 79.9607
2.255, 1, 25.7971, 52.3336, -7.52619, 82.7803, -63.2623, 79.8277
2.259, 1, 25.8365, 52.3163, -7.55062, 82.8376, -63.2139, 79.6948
2.264, 1, 25.876, 52.2989, -7.57504, 82.8949, -63.1655, 79.562
2.268, 1, 25.9154, 52.2816, -7.59944, 82.9521, -63.1171, 79.4293
2.272, 1, 25.9548, 52.2642, -7.62382, 83.0093, -63.0687, 79.2967
2.275, 1, 25.9941, 52.2469, -7.64818, 83.0665, -63.0204, 79.1643
2.28, 1, 26.0335, 52.2296, -7.67252, 83.1236, -62.9721, 79.0319
2.284, 1, 26.0728, 52.2123, -7.69684, 83.1807, -62.9239, 78.8996
2.288, 1, 26.112, 52.195, -7.72115, 83.2377, -62.8757, 78.7674
2.291, 1, 26.1513, 52.1777, -7.74544, 83.2947, -62.8275, 78.6353
2.296, 1, 26.1905, 52.1605, -7.76971, 83.3517, -62.7794, 78.5033
2.3, 1, 26.2297, 52.1432, -7.79396, 83.4086, -62.7313, 78.3714
2.304, 1, 26.2688, 52.126, -7.81819, 83.4655, -62.6832, 78.2396
2.308, 1, 26.3079, 52.1088, -7.84241, 83.5223, -62.6352, 78.1079
2.311, 1, 26.347, 52.0916, -7.8666, 83.5791, -62.5872, 77.9763
2.316, 1, 26.3861, 52.0744, -7.89078, 83.6358, -62.5393, 77.8449
2.32, 1, 26.4251, 52.0572, -7.91494, 83.6925, -62.4914, 77.7135
2.324, 1, 26.4641, 52.04, -7.93909, 83.7491, -62.4435, 77.5821
2.328, 1, 26.5031, 52.0229, -7.96321, 83.8057, -62.3956, 77.4509
2.331, 1, 26.542, 52.0057, -7.98732, 83.8623, -62.3478, 77.3198
2.336, 1, 26.581, 51.9886, -8.01141, 83.9189, -62.3, 77.1888
2.34, 1, 26.6198, 51.9715, -8.03548, 83.9753, -62.2523, 77.0579
2.344, 1, 26.6587, 51.9544, -8.05954, 84.0318, -62.2046, 76.9271
2.347, 1, 26.6975, 51.9373, -8.08358, 84.0882, -62.1569, 76.7963
2.352, 1, 26.7363, 51.9202, -8.1076, 84.1445, -62.1093, 76.6657
2.356, 1, 26.7751, 51.9031, -8.1316, 84.2009, -62.0617, 76.5352
2.36, 1, 26.8139, 51.8861, -8.15558, 84.2571, -62.0141, 76.4047
2.364, 1, 26.8526, 51.869, -8.17955, 84.3134, -61.9666, 76.2744
2.367, 1, 26.8913, 51.852, -8.2035, 84.3696, -61.9191, 76.1442
2.372, 1, 26.9299, 51.835, -8.22743, 84.4257, -61.8716, 76.014
2.376, 1, 26.9686, 51.818, -8.25134, 84.4819, -61.8242, 75.8839
2.38, 1, 27.0072, 51.801, -8.27524, 84.5379, -61.7768, 75.754
2.383, 1, 27.0458, 51.784, -8.29912, 84.594, -61.7294, 75.6241
2.388, 1, 27.0843, 51.7671, -8.32298, 84.65, -61.6821, 75.4943
2.392, 1, 27.1228, 51.7501, -8.34683, 84.7059, -61.6348, 75.3647
2.396, 1, 27.1613, 51.7332, -8.37066, 84.7618, -61.5876, 75.2351
2.4, 1, 27.1998, 51.7162, -8.39447, 84.8177, -61.5403, 75.1056
2.403, 1, 27.2382, 51.6993, -8.41826, 84.8735, -61.4932, 74.9762
2.408, 1, 27.2767, 51.6824, -8.44204, 84.9293, -61.446, 74.8469
2.412, 1, 27.315, 51.6655, -8.4658, 84.9851, -61.3989, 74.7176
2.416, 1, 27.3534, 51.6486, -8.48954, 85.0408, -61.3518, 74.5885
2.42, 1, 27.3917, 51.6318, -8.51327, 85.0965, -61.3047, 74.4595
2.423, 1, 27.43, 51.6149, -8.53698, 85.1521, -61.2577, 74.3306
2.428, 1, 27.4683, 51.598, -8.56067, 85.2077, -61.2107, 74.2017
2.432, 1, 27.5065, 51.5812, -8.58434, 85.2632, -61.1638, 74.0729
2.436, 1, 27.5448, 51.5644, -8.608, 85.3188, -61.1169, 73.9443
2.439, 1, 27.583, 51.5476, -8.63164, 85.3742, -61.07, 73.8157
2.444, 1, 27.6211, 51.5308, -8.65527, 85.4297, -61.0231, 73.6872
2.448, 1, 27.6593, 51.514, -8.67887, 85.4851, -60.9763, 73.5588
2.452, 1, 27.6974, 51.4972, -8.70247, 85.5404, -60.9295, 73.4305
2.456, 1, 27.7355, 51.4805, -8.72604, 85.5957, -60.8828, 73.3023
2.459, 1, 27.7735, 51.4637, -8.7496, 85.651, -60.836, 73.1742
2.464, 1, 27.8116, 51.447, -8.77314, 85.7063, -60.7893, 73.0462
2.468, 1, 27.8496, 51.4302, -8.79666, 85.7615, -60.7427, 72.9183
2.472, 1, 27.8875, 51.4135, -8.82017, 85.8166, -60.6961, 72.7904
2.476, 1, 27.9255, 51.3968, -8.84366, 85.8717, -60.6495, 72.6626
2.479, 1, 27.9634, 51.3801, -8.86714, 85.9268, -60.6029, 72.535
2.484, 1, 28.0013, 51.3634, -8.8906, 85.9819, -60.5564, 72.4074
2.488, 1, 28.0392, 51.3468, -8.91404, 86.0369, -60.5099, 72.2799
2.492, 1, 28.077, 51.3301, -8.93746, 86.0918, -60.4635, 72.1525
2.495, 1, 28.1149, 51.3135, -8.96087, 86.1468, -60.417, 72.0252
2.5, 1, 28.1526, 51.2968, -8.98427, 86.2017, -60.3706, 71.898
2.504, 1, 28.1904, 51.2802, -9.00764, 86.2565, -60.3243, 71.7708
2.508, 1, 28.2281, 51.2636, -9.031, 86.3113, -60.2779, 71.6438
2.512, 1, 28.2659, 51.247, -9.05435, 86.3661, -60.2316, 71.5168
2.515, 1, 28.3036, 51.2304, -9.07768, 86.4209, -60.1854, 71.39
2.52, 1, 28.3412, 51.2138, -9.10099, 86.4756, -60.1391, 71.2632
2.524, 1, 28.3789, 51.1973, -9.12428, 86.5302, -60.0929, 71.1365
2.528, 1, 28.4165, 51.1807, -9.14757, 86.5848, -60.0468, 71.0099
2.531, 1, 28.454, 51.1642, -9.17083, 86.6394, -60.0006, 70.8833
2.536, 1, 28.4916, 51.1476, -9.19408, 86.694, -59.9545, 70.7569
2.54, 1, 28.5291, 51.1311, -9.21731, 86.7485, -59.9084, 70.6306
2.544, 1, 28.5667, 51.1146, -9.24053, 86.803, -59.8624, 70.5043
2.548, 1, 28.6041, 51.0981, -9.26373, 86.8574, -59.8164, 70.3781
2.551, 1, 28.6416, 51.0816, -9.28691, 86.9118, -59.7704, 70.252
2.556, 1, 28.679, 51.0652, -9.31008, 86.9662, -59.7245, 70.126
2.56, 1, 28.7164, 51.0487, -9.33324, 87.0205, -59.6785, 70.0001
2.564, 1, 28.7538, 51.0322, -9.35638, 87.0748, -59.6326, 69.8743
2.568, 1, 28.7912, 51.0158, -9.3795, 87.1291, -59.5868, 69.7485
2.571, 1, 28.8285, 50.9994, -9.40261, 87.1833, -59.541, 69.6228
2.576, 1, 28.8658, 50.9829, -9.4257, 87.2375, -59.4952, 69.4973
2.58, 1, 28.9031, 50.9665, -9.44877, 87.2916, -59.4494, 69.3718
2.584, 1, 28.9403, 50.9501, -9.47183, 87.3458, -59.4037, 69.2463
2.587, 1, 28.9776, 50.9338, -9.49488, 87.3998, -59.358, 69.121
2.592, 1, 29.0148, 50.9174, -9.51791, 87.4539, -59.3123, 68.9958
2.596, 1, 29.052, 50.901, -9.54092, 87.5079, -59.2666, 68.8706
2.6, 1, 29.0891, 50.8847, -9.56392, 87.5618, -59.221, 68.7455
2.604, 1, 29.1262, 50.8683, -9.58691, 87.6158, -59.1754, 68.6205
2.607, 1, 29.1633, 50.852, -9.60987, 87.6697, -59.1299, 68.4956
2.612, 1, 29.2375, 50.8193, -9.65577, 87.7774, -59.0389, 68.246
2.616, 1, 29.2745, 50.803, -9.67869, 87.8312, -58.9934, 68.1214
2.62, 1, 29.3115, 50.7868, -9.7016, 87.8849, -58.948, 67.9968
2.624, 1, 29.3485, 50.7705, -9.72449, 87.9386, -58.9026, 67.8723
2.627, 1, 29.3485, 50.7705, -9.72449, 87.9386, -58.9026, 67.8723
2.632, 1, 29.3855, 50.7542, -9.74737, 87.9923, -58.8572, 67.7479
2.636, 1, 29.4224, 50.738, -9.77023, 88.0459, -58.8119, 67.6235
2.64, 1, 29.4593, 50.7217, -9.79308, 88.0996, -58.7666, 67.4993
2.643, 1, 29.4962, 50.7055, -9.81591, 88.1531, -58.7213, 67.3751
2.648, 1, 29.5331, 50.6892, -9.83873, 88.2067, -58.676, 67.251
2.652, 1, 29.5699, 50.673, -9.86153, 88.2602, -58.6308, 67.127
2.656, 1, 29.6067, 50.6568, -9.88432, 88.3137, -58.5856, 67.0031
2.66, 1, 29.6435, 50.6406, -9.90709, 88.3671, -58.5404, 66.8792
2.663, 1, 29.6803, 50.6245, -9.92985, 88.4205, -58.4953, 66.7554
2.668, 1, 29.717, 50.6083, -9.95259, 88.4739, -58.4502, 66.6318
2.672, 1, 29.7537, 50.5921, -9.97532, 88.5272, -58.4051, 66.5081
2.676, 1, 29.7904, 50.576, -9.99803, 88.5805, -58.3601, 66.3846
2.679, 1, 29.8271, 50.5598, -10.0207, 88.6338, -58.3151, 66.2612
2.684, 1, 29.8637, 50.5437, -10.0434, 88.687, -58.2701, 66.1378
2.688, 1, 29.9004, 50.5276, -10.0661, 88.7402, -58.2251, 66.0145
2.692, 1, 29.937, 50.5115, -10.0887, 88.7934, -58.1802, 65.8913
2.696, 1, 29.9736, 50.4954, -10.1114, 88.8465, -58.1353, 65.7682
2.699, 1, 30.0101, 50.4793, -10.134, 88.8996, -58.0904, 65.6451
2.704, 1, 30.0466, 50.4632, -10.1566, 88.9526, -58.0456, 65.5221
2.708, 1, 30.0831, 50.4471, -10.1792, 89.0057, -58.0007, 65.3992
2.712, 1, 30.1196, 50.4311, -10.2018, 89.0586, -57.956, 65.2764
2.716, 1, 30.1561, 50.415, -10.2244, 89.1116, -57.9112, 65.1537
2.719, 1, 30.1925, 50.399, -10.2469, 89.1645, -57.8665, 65.031
2.724, 1, 30.2289, 50.3829, -10.2695, 89.2174, -57.8218, 64.9084
2.728, 1, 30.2653, 50.3669, -10.292, 89.2703, -57.7771, 64.7859
2.732, 1, 30.3017, 50.3509, -10.3145, 89.3231, -57.7324, 64.6635
2.735, 1, 30.338, 50.3349, -10.337, 89.3759, -57.6878, 64.5411
2.74, 1, 30.3744, 50.3189, -10.3595, 89.4286, -57.6432, 64.4189
2.744, 1, 30.4107, 50.303, -10.382, 89.4814, -57.5987, 64.2967
2.748, 1, 30.4469, 50.287, -10.4044, 89.5341, -57.5541, 64.1746
2.752, 1, 30.4832, 50.271, -10.4268, 89.5867, -57.5096, 64.0525
2.755, 1, 30.5194, 50.2551, -10.4493, 89.6394, -57.4652, 63.9305
2.76, 1, 30.5556, 50.2392, -10.4717, 89.6919, -57.4207, 63.8087
2.764, 1, 30.5918, 50.2232, -10.4941, 89.7445, -57.3763, 63.6868
2.768, 1, 30.628, 50.2073, -10.5165, 89.797, -57.3319, 63.5651
2.772, 1, 30.6641, 50.1914, -10.5388, 89.8495, -57.2875, 63.4434
2.775, 1, 30.7002, 50.1755, -10.5612, 89.902, -57.2432, 63.3219
2.78, 1, 30.7363, 50.1596, -10.5835, 89.9544, -57.1989, 63.2003
2.784, 1, 30.7724, 50.1437, -10.6059, 90.0068, -57.1546, 63.0789
2.788, 1, 30.8085, 50.1279, -10.6282, 90.0592, -57.1103, 62.9576
2.791, 1, 30.8445, 50.112, -10.6505, 90.1115, -57.0661, 62.8363
2.796, 1, 30.8805, 50.0962, -10.6728, 90.1638, -57.0219, 62.7151
2.8, 1, 30.9165, 50.0803, -10.695, 90.2161, -56.9777, 62.5939
2.804, 1, 30.9524, 50.0645, -10.7173, 90.2683, -56.9336, 62.4729
2.808, 1, 30.9884, 50.0487, -10.7396, 90.3205, -56.8895, 62.3519
2.811, 1, 31.0243, 50.0329, -10.7618, 90.3727, -56.8454, 62.231
2.816, 1, 31.0602, 50.0171, -10.784, 90.4248, -56.8013, 62.1101
2.82, 1, 31.0961, 50.0013, -10.8062, 90.4769, -56.7573, 61.9894
2.824, 1, 31.1319, 49.9855, -10.8284, 90.529, -56.7133, 61.8687
2.828, 1, 31.1677, 49.9697, -10.8506, 90.581, -56.6693, 61.7481
2.831, 1, 31.2036, 49.954, -10.8727, 90.633, -56.6253, 61.6275
2.836, 1, 31.2393, 49.9382, -10.8949, 90.685, -56.5814, 61.507
2.84, 1, 31.2751, 49.9225, -10.917, 90.737, -56.5375, 61.3866
2.844, 1, 31.3108, 49.9067, -10.9392, 90.7889, -56.4936, 61.2663
2.847, 1, 31.3466, 49.891, -10.9613, 90.8408, -56.4498, 61.1461
2.852, 1, 31.3823, 49.8753, -10.9834, 90.8926, -56.4059, 61.0259
2.856, 1, 31.4179, 49.8596, -11.0055, 90.9444, -56.3621, 60.9058
2.86, 1, 31.4536, 49.8439, -11.0275, 90.9962, -56.3184, 60.7858
2.864, 1, 31.4892, 49.8282, -11.0496, 91.048, -56.2746, 60.6658
2.867, 1, 31.5248, 49.8126, -11.0716, 91.0997, -56.2309, 60.5459
2.872, 1, 31.5604, 49.7969, -11.0937, 91.1514, -56.1872, 60.4261
2.876, 1, 31.596, 49.7812, -11.1157, 91.2031, -56.1435, 60.3064
2.88, 1, 31.6316, 49.7656, -11.1377, 91.2547, -56.0999, 60.1867
2.883, 1, 31.6671, 49.7499, -11.1597, 91.3063, -56.0563, 60.0671
2.888, 1, 31.7026, 49.7343, -11.1816, 91.3579, -56.0127, 59.9475
2.892, 1, 31.7381, 49.7187, -11.2036, 91.4094, -55.9691, 59.8281
2.896, 1, 31.7735, 49.7031, -11.2256, 91.4609, -55.9256, 59.7087
2.9, 1, 31.809, 49.6875, -11.2475, 91.5124, -55.8821, 59.5894
2.903, 1, 31.8444, 49.6719, -11.2694, 91.5639, -55.8386, 59.4701
2.908, 1, 31.8798, 49.6563, -11.2913, 91.6153, -55.7951, 59.351
2.912, 1, 31.9152, 49.6407, -11.3132, 91.6667, -55.7517, 59.2319
2.916, 1, 31.9506, 49.6252, -11.3351, 91.718, -55.7083, 59.1128
2.92, 1, 31.9859, 49.6096, -11.357, 91.7694, -55.6649, 58.9939
2.923, 1, 32.0212, 49.5941, -11.3789, 91.8207, -55.6215, 58.875
2.928, 1, 32.0565, 49.5785, -11.4007, 91.8719, -55.5782, 58.7561
2.932, 1, 32.0918, 49.563, -11.4226, 91.9232, -55.5349, 58.6374
2.936, 1, 32.127, 49.5475, -11.4444, 91.9744, -55.4916, 58.5187
2.939, 1, 32.1623, 49.532, -11.4662, 92.0256, -55.4484, 58.4001
2.944, 1, 32.1975, 49.5165, -11.488, 92.0767, -55.4051, 58.2815
2.948, 1, 32.2327, 49.501, -11.5098, 92.1278, -55.3619, 58.163
2.952, 1, 32.2679, 49.4855, -11.5315, 92.1789, -55.3188, 58.0446
2.956, 1, 32.303, 49.47, -11.5533, 92.23, -55.2756, 57.9263
2.959, 1, 32.3382, 49.4546, -11.5751, 92.281, -55.2325, 57.808
2.964, 1, 32.3733, 49.4391, -11.5968, 92.332, -55.1894, 57.6898
2.968, 1, 32.4084, 49.4237, -11.6185, 92.383, -55.1463, 57.5717
2.972, 1, 32.4434, 49.4082, -11.6402, 92.4339, -55.1032, 57.4536
2.976, 1, 32.4785, 49.3928, -11.6619, 92.4849, -55.0602, 57.3356
2.98, 1, 32.5135, 49.3774, -11.6836, 92.5357, -55.0172, 57.2177
2.984, 1, 32.5485, 49.362, -11.7053, 92.5866, -54.9742, 57.0998
2.988, 1, 32.5835, 49.3466, -11.7269, 92.6374, -54.9312, 56.982
2.992, 1, 32.6185, 49.3312, -11.7486, 92.6882, -54.8883, 56.8643
2.995, 1, 32.6535, 49.3158, -11.7702, 92.739, -54.8454, 56.7466
3, 1, 32.6884, 49.3004, -11.7918, 92.7897, -54.8025, 56.629
3.004, 1, 32.7233, 49.285, -11.8135, 92.8404, -54.7596, 56.5114
3.008, 1, 32.7582, 49.2697, -11.8351, 92.8911, -54.7168, 56.394
3.012, 1, 32.7931, 49.2543, -11.8566, 92.9418, -54.674, 56.2766
3.015, 1, 32.8279, 49.239, -11.8782, 92.9924, -54.6312, 56.1592
3.02, 1, 32.8628, 49.2237, -11.8998, 93.043, -54.5884, 56.042
3.024, 1, 32.8976, 49.2083, -11.9213, 93.0936, -54.5457, 55.9248
3.028, 1, 32.9324, 49.193, -11.9429, 93.1441, -54.503, 55.8076
3.031, 1, 32.9672, 49.1777, -11.9644, 93.1946, -54.4603, 55.6906
3.036, 1, 33.0019, 49.1624, -11.9859, 93.2451, -54.4176, 55.5736
3.04, 1, 33.0367, 49.1471, -12.0074, 93.2956, -54.375, 55.4566
3.044, 1, 33.0714, 49.1318, -12.0289, 93.346, -54.3324, 55.3397
3.048, 1, 33.1061, 49.1166, -12.0504, 93.3964, -54.2898, 55.2229
3.051, 1, 33.1407, 49.1013, -12.0719, 93.4468, -54.2472, 55.1062
3.056, 1, 33.1754, 49.086, -12.0933, 93.4971, -54.2046, 54.9895
3.06, 1, 33.21, 49.0708, -12.1147, 93.5474, -54.1621, 54.8729
3.064, 1, 33.2447, 49.0556, -12.1362, 93.5977, -54.1196, 54.7563
3.068, 1, 33.2793, 49.0403, -12.1576, 93.648, -54.0771, 54.6398
3.071, 1, 33.3139, 49.0251, -12.179, 93.6982, -54.0347, 54.5234
3.076, 1, 33.3484, 49.0099, -12.2004, 93.7484, -53.9922, 54.4071
3.08, 1, 33.383, 48.9947, -12.2218, 93.7986, -53.9498, 54.2908
3.084, 1, 33.4175, 48.9795, -12.2432, 93.8488, -53.9074, 54.1745
3.087, 1, 33.452, 48.9643, -12.2645, 93.8989, -53.8651, 54.0584
3.092, 1, 33.4865, 48.9491, -12.2859, 93.949, -53.8227, 53.9422
3.096, 1, 33.521, 48.934, -12.3072, 93.999, -53.7804, 53.8262
3.1, 1, 33.5554, 48.9188, -12.3285, 94.0491, -53.7381, 53.7102
3.104, 1, 33.5899, 48.9036, -12.3498, 94.0991, -53.6959, 53.5943
3.107, 1, 33.6243, 48.8885, -12.3711, 94.1491, -53.6536, 53.4785
3.112, 1, 33.6587, 48.8733, -12.3924, 94.199, -53.6114, 53.3627
3.116, 1, 33.693, 48.8582, -12.4137, 94.249, -53.5692, 53.2469
3.12, 1, 33.7274, 48.8431, -12.435, 94.2989, -53.527, 53.1313
3.124, 1, 33.7617, 48.828, -12.4562, 94.3488, -53.4848, 53.0157
3.128, 1, 33.7961, 48.8129, -12.4775, 94.3986, -53.4427, 52.9001
3.132, 1, 33.8304, 48.7978, -12.4987, 94.4484, -53.4006, 52.7847
3.136, 1, 33.8646, 48.7827, -12.5199, 94.4982, -53.3585, 52.6692
3.14, 1, 33.8989, 48.7676, -12.5412, 94.548, -53.3164, 52.5539
3.143, 1, 33.9332, 48.7525, -12.5624, 94.5978, -53.2744, 52.4386
3.148, 1, 33.9674, 48.7374, -12.5835, 94.6475, -53.2324, 52.3234
3.152, 1, 34.0016, 48.7224, -12.6047, 94.6972, -53.1904, 52.2082
3.156, 1, 34.0358, 48.7073, -12.6259, 94.7468, -53.1484, 52.0931
3.16, 1, 34.07, 48.6923, -12.647, 94.7965, -53.1064, 51.978
3.163, 1, 34.1041, 48.6773, -12.6682, 94.8461, -53.0645, 51.8631
3.168, 1, 34.1383, 48.6622, -12.6893, 94.8957, -53.0226, 51.7481
3.172, 1, 34.1724, 48.6472, -12.7104, 94.9452, -52.9807, 51.6333
3.176, 1, 34.2065, 48.6322, -12.7315, 94.9948, -52.9389, 51.5185
3.179, 1, 34.2406, 48.6172, -12.7526, 95.0443, -52.897, 51.4037
3.184, 1, 34.2746, 48.6022, -12.7737, 95.0938, -52.8552, 51.289
3.188, 1, 34.3087, 48.5872, -12.7948, 95.1432, -52.8134, 51.1744
3.192, 1, 34.3427, 48.5722, -12.8159, 95.1926, -52.7716, 51.0598
3.196, 1, 34.3767, 48.5573, -12.8369, 95.242, -52.7299, 50.9453
3.199, 1, 34.4107, 48.5423, -12.858, 95.2914, -52.6881, 50.8309
3.204, 1, 34.4447, 48.5274, -12.879, 95.3408, -52.6464, 50.7165
3.208, 1, 34.4787, 48.5124, -12.9, 95.3901, -52.6047, 50.6022
3.212, 1, 34.5126, 48.4975, -12.921, 95.4394, -52.5631, 50.4879
3.216, 1, 34.5465, 48.4825, -12.942, 95.4887, -52.5214, 50.3737
3.22, 1, 34.5804, 48.4676, -12.963, 95.5379, -52.4798, 50.2596
3.224, 1, 34.6143, 48.4527, -12.984, 95.5871, -52.4382, 50.1455
3.228, 1, 34.6482, 48.4378, -13.005, 95.6363, -52.3966, 50.0315
3.232, 1, 34.6821, 48.4229, -13.0259, 95.6855, -52.355, 49.9175
3.235, 1, 34.7159, 48.408, -13.0469, 95.7347, -52.3135, 49.8036
3.24, 1, 34.7497, 48.3931, -13.0678, 95.7838, -52.272, 49.6897
3.244, 1, 34.7835, 48.3782, -13.0887, 95.8329, -52.2305, 49.576
3.248, 1, 34.8173, 48.3634, -13.1096, 95.882, -52.189, 49.4622
3.252, 1, 34.8511, 48.3485, -13.1305, 95.931, -52.1476, 49.3485
3.255, 1, 34.8848, 48.3336, -13.1514, 95.98, -52.1061, 49.2349
3.26, 1, 34.9185, 48.3188, -13.1723, 96.029, -52.0647, 49.1214
3.264, 1, 34.9523, 48.304, -13.1932, 96.078, -52.0233, 49.0079
3.268, 1, 34.986, 48.2891, -13.214, 96.1269, -51.982, 48.8944
3.272, 1, 35.0196, 48.2743, -13.2349, 96.1759, -51.9406, 48.781
3.276, 1, 35.0533, 48.2595, -13.2557, 96.2248, -51.8993, 48.6677
3.28, 1, 35.087, 48.2447, -13.2765, 96.2736, -51.858, 48.5544
3.284, 1, 35.1206, 48.2299, -13.2974, 96.3225, -51.8167, 48.4412
3.288, 1, 35.1542, 48.2151, -13.3182, 96.3713, -51.7754, 48.3281
3.291, 1, 35.1878, 48.2003, -13.339, 96.4201, -51.7342, 48.215
3.296, 1, 35.2213, 48.1855, -13.3598, 96.4689, -51.693, 48.1019
3.3, 1, 35.2548, 48.1708, -13.3805, 96.5176, -51.6518, 47.9889
3.304, 1, 35.2879, 48.1562, -13.4013, 96.5664, -51.6106, 47.876
3.308, 1, 35.3204, 48.1419, -13.4222, 96.615, -51.5695, 47.7632
3.312, 1, 35.3522, 48.1279, -13.443, 96.6636, -51.5284, 47.6506
3.316, 1, 35.3831, 48.1143, -13.464, 96.712, -51.4876, 47.5384
3.32, 1, 35.4129, 48.1014, -13.4849, 96.7601, -51.4469, 47.4267
3.324, 1, 35.4416, 48.089, -13.5058, 96.8079, -51.4066, 47.316
3.328, 1, 35.4691, 48.0774, -13.5266, 96.855, -51.3669, 47.2066
3.332, 1, 35.4955, 48.0663, -13.5471, 96.9013, -51.3278, 47.0991
3.336, 1, 35.5209, 48.0557, -13.5672, 96.9465, -51.2898, 46.9943
3.34, 1, 35.5453, 48.0456, -13.5867, 96.9903, -51.2529, 46.8927
3.344, 1, 35.5688, 48.036, -13.6055, 97.0323, -51.2174, 46.795
3.347, 1, 35.5911, 48.0268, -13.6234, 97.0724, -51.1837, 46.702
3.352, 1, 35.6124, 48.0181, -13.6403, 97.1102, -51.1518, 46.6144
3.356, 1, 35.6327, 48.0097, -13.656, 97.1454, -51.1221, 46.5326
3.36, 1, 35.6519, 48.0017, -13.6703, 97.1778, -51.0948, 46.4574
3.364, 1, 35.6702, 47.9939, -13.6832, 97.2073, -51.0699, 46.389
3.368, 1, 35.6877, 47.9863, -13.6946, 97.2337, -51.0476, 46.3278
3.372, 1, 35.7046, 47.9788, -13.7044, 97.257, -51.0279, 46.2737
3.376, 1, 35.7207, 47.9714, -13.7127, 97.2773, -51.0107, 46.2268
3.38, 1, 35.7359, 47.9642, -13.7195, 97.2947, -50.9959, 46.1866
3.383, 1, 35.7501, 47.9574, -13.7251, 97.3093, -50.9835, 46.1528
3.388, 1, 35.7631, 47.9511, -13.7295, 97.3214, -50.9732, 46.1249
3.392, 2, 35.7852, 47.9401, -13.7355, 97.3392, -50.958, 46.084
3.396, 2, 35.7944, 47.9355, -13.7374, 97.3454, -50.9526, 46.0698
3.4, 2, 35.8025, 47.9314, -13.7387, 97.3501, -50.9485, 46.0589
3.403, 2, 35.8025, 47.9314, -13.7387, 97.3501, -50.9485, 46.0589
3.408, 2, 35.8097, 47.9278, -13.7396, 97.3537, -50.9454, 46.0507
3.412, 2, 35.816, 47.9248, -13.7401, 97.3563, -50.9431, 46.0447
3.416, 2, 35.8214, 47.9222, -13.7404, 97.3582, -50.9415, 46.0405
3.42, 2, 35.8258, 47.9201, -13.7405, 97.3596, -50.9403, 46.0374
3.424, 2, 35.8293, 47.9185, -13.7406, 97.3605, -50.9395, 46.0354
3.428, 2, 35.832, 47.9174, -13.7406, 97.3611, -50.9389, 46.034
3.432, 2, 35.8338, 47.9165, -13.7406, 97.3615, -50.9385, 46.033
3.436, 2, 35.8351, 47.916, -13.7406, 97.3618, -50.9383, 46.0323
3.439, 2, 35.836, 47.9156, -13.7406, 97.362, -50.9381, 46.0319
3.444, 2, 35.8366, 47.9153, -13.7406, 97.3622, -50.938, 46.0316
3.448, 2, 35.837, 47.9152, -13.7406, 97.3622, -50.9379, 46.0314
3.452, 2, 35.8373, 47.915, -13.7406, 97.3623, -50.9378, 46.0313
3.456, 2, 35.8374, 47.915, -13.7406, 97.3624, -50.9378, 46.0312
3.46, 2, 35.8376, 47.9149, -13.7406, 97.3624, -50.9378, 46.0311
3.464, 2, 35.8377, 47.9149, -13.7406, 97.3624, -50.9377, 46.0311
3.468, 2, 35.8377, 47.9148, -13.7406, 97.3624, -50.9377, 46.031
3.472, 2, 35.8377, 47.9148, -13.7406, 97.3624, -50.9377, 46.031
3.476, 2, 35.8378, 47.9148, -13.7406, 97.3624, -50.9377, 46.031
3.48, 2, 35.8378, 47.9148, -13.7406, 97.3624, -50.9377, 46.031
3.484, 2, 35.8378, 47.9148, -13.7406, 97.3624, -50.9377, 46.031
3.488, 2, 35.8378, 47.9148, -13.7406, 97.3624, -50.9377, 46.031
3.492, 2, 35.8378, 47.9148, -13.7406, 97.3624, -50.9377, 46.031
3.495, 2, 35.8378, 47.9148, -13.7406, 97.3624, -50.9377, 46.031
3.5, 2, 35.8378, 47.9148, -13.7406, 97.3624, -50.9377, 46.031
3.504, 2, 35.8378, 47.9148, -13.7406, 97.3624, -50.9377, 46.031
3.508, 2, 35.8378, 47.9148, -13.7406, 97.3624, -50.9377, 46.031
3.512, 2, 35.8378, 47.9148, -13.7406, 97.3624, -50.9377, 46.031
3.516, 2, 35.8378, 47.9148, -13.7406, 97.3624, -50.9377, 46.031
3.52, 2, 35.8378, 47.9148, -13.7406, 97.3624, -50.9377, 46.031
3.524, 2, 35.8378, 47.9148, -13.7406, 97.3624, -50.9377, 46.031
3.528, 2, 35.8378, 47.9148, -13.7406, 97.3624, -50.9377, 46.031
3.531, 2, 35.8378, 47.9148, -13.7406, 97.3624, -50.9377, 46.031
3.536, 2, 35.8378, 47.9148, -13.7406, 97.3624, -50.9377, 46.031
3.54, 2, 35.8378, 47.9148, -13.7406, 97.3624, -50.9377, 46.031
3.544, 2, 35.8378, 47.9148, -13.7406, 97.3624, -50.9377, 46.031
3.548, 2, 35.8378, 47.9148, -13.7406, 97.3624, -50.9377, 46.031
3.552, 2, 35.8378, 47.9148, -13.7406, 97.3624, -50.9377, 46.031
3.556, 2, 35.8378, 47.9148, -13.7406, 97.3624, -50.9377, 46.031
3.56, 2, 35.8378, 47.9148, -13.7406, 97.3624, -50.9377, 46.031
3.564, 2, 35.8378, 47.9148, -13.7406, 97.3624, -50.9377, 46.031
3.568, 2, 35.8378, 47.9148, -13.7406, 97.3624, -50.9377, 46.031
3.572, 2, 35.8378, 47.9148, -13.7406, 97.3624, -50.9377, 46.031
3.576, 2, 35.8378, 47.9148, -13.7406, 97.3624, -50.9377, 46.031
3.58, 2, 35.8378, 47.9148, -13.7406, 97.3624, -50.9377, 46.031
3.584, 2, 35.8378, 47.9148, -13.7406, 97.3624, -50.9377, 46.031
3.587, 2, 35.8378, 47.9148, -13.7406, 97.3624, -50.9377, 46.031
3.592, 2, 35.8378, 47.9148, -13.7406, 97.3624, -50.9377, 46.031
3.596, 2, 35.8378, 47.9148, -13.7406, 97.3624, -50.9377, 46.031
3.6, 2, 35.8378, 47.9148, -13.7406, 97.3624, -50.9377, 46.031
3.604, 2, 35.8378, 47.9148, -13.7406, 97.3624, -50.9377, 46.031
3.608, 2, 35.8378, 47.9148, -13.7406, 97.3624, -50.9377, 46.031
3.612, 2, 35.8378, 47.9148, -13.7406, 97.3624, -50.9377, 46.031
3.616, 2, 35.8378, 47.9148, -13.7406, 97.3624, -50.9377, 46.031
3.62, 2, 35.8378, 47.9148, -13.7406, 97.3624, -50.9377, 46.031
3.624, 2, 35.8378, 47.9148, -13.7406, 97.3624, -50.9377, 46.031
3.628, 2, 35.8378, 47.9148, -13.7406, 97.3624, -50.9377, 46.031
3.632, 2, 35.8378, 47.9148, -13.7406, 97.3624, -50.9377, 46.031
3.636, 2, 35.8378, 47.9148, -13.7406, 97.3624, -50.9377, 46.031
3.64, 2, 35.8378, 47.9148, -13.7406, 97.3624, -50.9377, 46.031
3.644, 2, 35.8378, 47.9148, -13.7406, 97.3624, -50.9377, 46.031
3.648, 2, 35.8378, 47.9148, -13.7406, 97.3624, -50.9377, 46.031
3.652, 2, 35.8378, 47.9148, -13.7406, 97.3624, -50.9377, 46.031
3.656, 2, 35.8378, 47.9148, -13.7406, 97.3624, -50.9377, 46.031
3.66, 2, 35.8378, 47.9148, -13.7406, 97.3624, -50.9377, 46.031
3.664, 2, 35.8378, 47.9148, -13.7406, 97.3624, -50.9377, 46.031
3.668, 2, 35.8378, 47.9148, -13.7406, 97.3624, -50.9377, 46.031
3.672, 2, 35.8378, 47.9148, -13.7406, 97.3624, -50.9377, 46.031
3.676, 2, 35.8378, 47.9148, -13.7406, 97.3624, -50.9377, 46.031
3.679, 2, 35.8378, 47.9148, -13.7406, 97.3624, -50.9377, 46.031
3.684, 2, 35.8378, 47.9148, -13.7406, 97.3624, -50.9377, 46.031
3.688, 2, 35.8378, 47.9148, -13.7406, 97.3624, -50.9377, 46.031
3.692, 2, 35.8378, 47.9148, -13.7406, 97.3624, -50.9377, 46.031
3.696, 2, 35.8378, 47.9148, -13.7406, 97.3624, -50.9377, 46.031
3.7, 2, 35.8378, 47.9148, -13.7406, 97.3624, -50.9377, 46.031
3.704, 2, 35.8378, 47.9148, -13.7406, 97.3624, -50.9377, 46.031
3.708, 2, 35.8378, 47.9148, -13.7406, 97.3624, -50.9377, 46.031
3.712, 2, 35.8378, 47.9148, -13.7406, 97.3624, -50.9377, 46.031
3.716, 2, 35.8378, 47.9148, -13.7406, 97.3624, -50.9377, 46.031
3.72, 2, 35.8378, 47.9148, -13.7406, 97.3624, -50.9377, 46.031
3.724, 2, 35.8378, 47.9148, -13.7406, 97.3624, -50.9377, 46.031
3.728, 2, 35.8378, 47.9148, -13.7406, 97.3624, -50.9377, 46.031
3.732, 2, 35.8378, 47.9148, -13.7406, 97.3624, -50.9377, 46.031
3.735, 2, 35.8378, 47.9148, -13.7406, 97.3624, -50.9377, 46.031
3.74, 2, 35.8378, 47.9148, -13.7406, 97.3624, -50.9377, 46.031
3.744, 2, 35.8378, 47.9148, -13.7406, 97.3624, -50.9377, 46.031
3.748, 2, 35.8378, 47.9148, -13.7406, 97.3624, -50.9377, 46.031
3.752, 2, 35.8378, 47.9148, -13.7406, 97.3624, -50.9377, 46.031
3.756, 2, 35.8378, 47.9148, -13.7406, 97.3624, -50.9377, 46.031
3.76, 2, 35.8378, 47.9148, -13.7406, 97.3624, -50.9377, 46.031
3.764, 2, 35.8378, 47.9148, -13.7406, 97.3624, -50.9377, 46.031
3.768, 2, 35.8378, 47.9148, -13.7406, 97.3624, -50.9377, 46.031
3.772, 2, 35.8378, 47.9148, -13.7406, 97.3624, -50.9377, 46.031
3.776, 2, 35.8378, 47.9148, -13.7406, 97.3624, -50.9377, 46.031
3.78, 2, 35.8378, 47.9148, -13.7406, 97.3624, -50.9377, 46.031
3.784, 2, 35.8378, 47.9148, -13.7406, 97.3624, -50.9377, 46.031
3.788, 2, 35.8378, 47.9148, -13.7406, 97.3624, -50.9377, 46.031
3.792, 2, 35.8378, 47.9148, -13.7406, 97.3624, -50.9377, 46.031
3.796, 2, 35.8378, 47.9148, -13.7406, 97.3624, -50.9377, 46.031
3.8, 2, 35.8378, 47.9148, -13.7406, 97.3624, -50.9377, 46.031
3.804, 2, 35.8378, 47.9148, -13.7406, 97.3624, -50.9377, 46.031
3.808, 2, 35.8378, 47.9148, -13.7406, 97.3624, -50.9377, 46.031
3.812, 2, 35.8378, 47.9148, -13.7406, 97.3624, -50.9377, 46.031
3.816, 2, 35.8378, 47.9148, -13.7406, 97.3624, -50.9377, 46.031
3.82, 2, 35.8378, 47.9148, -13.7406, 97.3624, -50.9377, 46.031
3.824, 2, 35.8378, 47.9148, -13.7406, 97.3624, -50.9377, 46.031
3.828, 2, 35.8378, 47.9148, -13.7406, 97.3624, -50.9377, 46.031
3.832, 2, 35.8378, 47.9148, -13.7406, 97.3624, -50.9377, 46.031
3.836, 2, 35.8378, 47.9148, -13.7406, 97.3624, -50.9377, 46.031
3.84, 2, 35.8378, 47.9148, -13.7406, 97.3624, -50.9377, 46.031
3.844, 2, 35.8378, 47.9148, -13.7406, 97.3624, -50.9377, 46.031
3.848, 2, 35.8378, 47.9148, -13.7406, 97.3624, -50.9377, 46.031
3.852, 2, 35.8378, 47.9148, -13.7406, 97.3624, -50.9377, 46.031
3.856, 2, 35.8378, 47.9148, -13.7406, 97.3624, -50.9377, 46.031
3.86, 2, 35.8378, 47.9148, -13.7406, 97.3624, -50.9377, 46.031
3.864, 2, 35.8378, 47.9148, -13.7406, 97.3624, -50.9377, 46.031
3.868, 2, 35.8378, 47.9148, -13.7406, 97.3624, -50.9377, 46.031
3.872, 2, 35.8378, 47.9148, -13.7406, 97.3624, -50.9377, 46.031
3.876, 2, 35.8378, 47.9148, -13.7406, 97.3624, -50.9377, 46.031
3.88, 2, 35.8378, 47.9148, -13.7406, 97.3624, -50.9377, 46.031
3.884, 2, 35.8378, 47.9148, -13.7406, 97.3624, -50.9377, 46.031
3.888, 2, 35.8378, 47.9148, -13.7406, 97.3624, -50.9377, 46.031
3.892, 2, 35.8378, 47.9148, -13.7406, 97.3624, -50.9377, 46.031
3.896, 2, 35.8378, 47.9148, -13.7406, 97.3624, -50.9377, 46.031
3.9, 2, 35.8378, 47.9148, -13.7406, 97.3624, -50.9377, 46.031
3.904, 2, 35.8378, 47.9148, -13.7406, 97.3624, -50.9377, 46.031
3.908, 2, 35.8378, 47.9148, -13.7406, 97.3624, -50.9377, 46.031
3.912, 2, 35.8378, 47.9148, -13.7406, 97.3624, -50.9377, 46.031
3.916, 2, 35.8378, 47.9148, -13.7406, 97.3624, -50.9377, 46.031
3.92, 2, 35.8378, 47.9148, -13.7406, 97.3624, -50.9377, 46.031
3.924, 2, 35.8378, 47.9148, -13.7406, 97.3624, -50.9377, 46.031
3.928, 2, 35.8378, 47.9148, -13.7406, 97.3624, -50.9377, 46.031
3.932, 2, 35.8378, 47.9148, -13.7406, 97.3624, -50.9377, 46.031
3.936, 2, 35.8378, 47.9148, -13.7406, 97.3624, -50.9377, 46.031
3.94, 2, 35.8378, 47.9148, -13.7406, 97.3624, -50.9377, 46.031
3.944, 2, 35.8378, 47.9148, -13.7406, 97.3624, -50.9377, 46.031
3.948, 2, 35.8378, 47.9148, -13.7406, 97.3624, -50.9377, 46.031
3.952, 2, 35.8378, 47.9148, -13.7406, 97.3624, -50.9377, 46.031
3.956, 2, 35.8378, 47.9148, -13.7406, 97.3624, -50.9377, 46.031
3.96, 2, 35.8378, 47.9148, -13.7406, 97.3624, -50.9377, 46.031
3.964, 2, 35.8378, 47.9148, -13.7406, 97.3624, -50.9377, 46.031
3.968, 2, 35.8378, 47.9148, -13.7406, 97.3624, -50.9377, 46.031
3.972, 2, 35.8378, 47.9148, -13.7406, 97.3624, -50.9377, 46.031
3.976, 2, 35.8378, 47.9148, -13.7406, 97.3624, -50.9377, 46.031
3.98, 2, 35.8378, 47.9148, -13.7406, 97.3624, -50.9377, 46.031
3.984, 2, 35.8378, 47.9148, -13.7406, 97.3624, -50.9377, 46.031
3.988, 2, 35.8378, 47.9148, -13.7406, 97.3624, -50.9377, 46.031
3.992, 2, 35.8378, 47.9148, -13.7406, 97.3624, -50.9377, 46.031
3.996, 2, 35.8378, 47.9148, -13.7406, 97.3624, -50.9377, 46.031
3.999, 2, 35.8378, 47.9148, -13.7406, 97.3624, -50.9377, 46.031
4.004, 2, 35.8378, 47.9148, -13.7406, 97.3624, -50.9377, 46.031
4.008, 2, 35.8378, 47.9148, -13.7406, 97.3624, -50.9377, 46.031
4.012, 2, 35.8378, 47.9148, -13.7406, 97.3624, -50.9377, 46.031
4.016, 2, 35.8378, 47.9148, -13.7406, 97.3624, -50.9377, 46.031
4.02, 2, 35.8378, 47.9148, -13.7406, 97.3624, -50.9377, 46.031
4.024, 2, 35.8378, 47.9148, -13.7406, 97.3624, -50.9377, 46.031
4.028, 2, 35.8378, 47.9148, -13.7406, 97.3624, -50.9377, 46.031
4.032, 2, 35.8378, 47.9148, -13.7406, 97.3624, -50.9377, 46.031
4.036, 2, 35.8378, 47.9148, -13.7406, 97.3624, -50.9377, 46.031
4.04, 2, 35.8378, 47.9148, -13.7406, 97.3624, -50.9377, 46.031
4.044, 2, 35.8378, 47.9148, -13.7406, 97.3624, -50.9377, 46.031
4.048, 2, 35.8378, 47.9148, -13.7406, 97.3624, -50.9377, 46.031
4.052, 2, 35.8378, 47.9148, -13.7406, 97.3624, -50.9377, 46.031
4.056, 2, 35.8378, 47.9148, -13.7406, 97.3624, -50.9377, 46.031
4.06, 2, 35.8378, 47.9148, -13.7406, 97.3624, -50.9377, 46.031
4.064, 2, 35.8378, 47.9148, -13.7406, 97.3624, -50.9377, 46.031
4.068, 2, 35.8378, 47.9148, -13.7406, 97.3624, -50.9377, 46.031
4.072, 2, 35.8378, 47.9148, -13.7406, 97.3624, -50.9377, 46.031
4.076, 2, 35.8378, 47.9148, -13.7406, 97.3624, -50.9377, 46.031
4.08, 2, 35.8378, 47.9148, -13.7406, 97.3624, -50.9377, 46.031
4.084, 2, 35.8378, 47.9148, -13.7406, 97.3624, -50.9377, 46.031
4.088, 2, 35.8378, 47.9148, -13.7406, 97.3624, -50.9377, 46.031
4.092, 2, 35.8378, 47.9148, -13.7406, 97.3624, -50.9377, 46.031
4.096, 2, 35.8378, 47.9148, -13.7406, 97.3624, -50.9377, 46.031
4.1, 2, 35.8378, 47.9148, -13.7406, 97.3624, -50.9377, 46.031
4.104, 2, 35.8378, 47.9148, -13.7406, 97.3624, -50.9377, 46.031
4.108, 2, 35.8378, 47.9148, -13.7406, 97.3624, -50.9377, 46.031
4.112, 2, 35.8378, 47.9148, -13.7406, 97.3624, -50.9377, 46.031
4.116, 2, 35.8378, 47.9148, -13.7406, 97.3624, -50.9377, 46.031
4.12, 2, 35.8378, 47.9148, -13.7406, 97.3624, -50.9377, 46.031
4.124, 2, 35.8378, 47.9148, -13.7406, 97.3624, -50.9377, 46.031
4.128, 2, 35.8378, 47.9148, -13.7406, 97.3624, -50.9377, 46.031
4.132, 2, 35.8378, 47.9148, -13.7406, 97.3624, -50.9377, 46.031
4.136, 2, 35.8378, 47.9148, -13.7406, 97.3624, -50.9377, 46.031
4.14, 2, 35.8378, 47.9148, -13.7406, 97.3624, -50.9377, 46.031
4.144, 2, 35.8378, 47.9148, -13.7406, 97.3624, -50.9377, 46.031
4.148, 2, 35.8378, 47.9148, -13.7406, 97.3624, -50.9377, 46.031
4.152, 2, 35.8378, 47.9148, -13.7406, 97.3624, -50.9377, 46.031
4.156, 2, 35.8378, 47.9148, -13.7406, 97.3624, -50.9377, 46.031
4.16, 2, 35.8378, 47.9148, -13.7406, 97.3624, -50.9377, 46.031
4.164, 2, 35.8378, 47.9148, -13.7406, 97.3624, -50.9377, 46.031
4.168, 2, 35.8378, 47.9148, -13.7406, 97.3624, -50.9377, 46.031
4.172, 2, 35.8378, 47.9148, -13.7406, 97.3624, -50.9377, 46.031
4.176, 2, 35.8378, 47.9148, -13.7406, 97.3624, -50.9377, 46.031
4.18, 2, 35.8378, 47.9148, -13.7406, 97.3624, -50.9377, 46.031
4.184, 2, 35.8378, 47.9148, -13.7406, 97.3624, -50.9377, 46.031
4.188, 2, 35.8378, 47.9148, -13.7406, 97.3624, -50.9377, 46.031
4.192, 2, 35.8378, 47.9148, -13.7406, 97.3624, -50.9377, 46.031
4.196, 2, 35.8378, 47.9148, -13.7406, 97.3624, -50.9377, 46.031
4.2, 2, 35.8378, 47.9148, -13.7406, 97.3624, -50.9377, 46.031
4.204, 2, 35.8378, 47.9148, -13.7406, 97.3624, -50.9377, 46.031
4.208, 2, 35.8378, 47.9148, -13.7406, 97.3624, -50.9377, 46.031
4.212, 2, 35.8378, 47.9148, -13.7406, 97.3624, -50.9377, 46.031
4.216, 2, 35.8378, 47.9148, -13.7406, 97.3624, -50.9377, 46.031
4.22, 2, 35.8378, 47.9148, -13.7406, 97.3624, -50.9377, 46.031
4.224, 2, 35.8378, 47.9148, -13.7406, 97.3624, -50.9377, 46.031
4.228, 2, 35.8378, 47.9148, -13.7406, 97.3624, -50.9377, 46.031
4.232, 2, 35.8378, 47.9148, -13.7406, 97.3624, -50.9377, 46.031
4.236, 2, 35.8378, 47.9148, -13.7406, 97.3624, -50.9377, 46.031
4.24, 2, 35.8378, 47.9148, -13.7406, 97.3624, -50.9377, 46.031
4.244, 2, 35.8378, 47.9148, -13.7406, 97.3624, -50.9377, 46.031
4.248, 2, 35.8378, 47.9148, -13.7406, 97.3624, -50.9377, 46.031
4.252, 2, 35.8378, 47.9148, -13.7406, 97.3624, -50.9377, 46.031
4.256, 2, 35.8378, 47.9148, -13.7406, 97.3624, -50.9377, 46.031
4.26, 2, 35.8378, 47.9148, -13.7406, 97.3624, -50.9377, 46.031
4.264, 2, 35.8378, 47.9148, -13.7406, 97.3624, -50.9377, 46.031
4.268, 2, 35.8378, 47.9148, -13.7406, 97.3624, -50.9377, 46.031
4.272, 2, 35.8378, 47.9148, -13.7406, 97.3624, -50.9377, 46.031
4.276, 2, 35.8378, 47.9148, -13.7406, 97.3624, -50.9377, 46.031
4.28, 2, 35.8378, 47.9148, -13.7406, 97.3624, -50.9377, 46.031
4.284, 2, 35.8378, 47.9148, -13.7406, 97.3624, -50.9377, 46.031
4.288, 2, 35.8378, 47.9148, -13.7406, 97.3624, -50.9377, 46.031
4.292, 2, 35.8378, 47.9148, -13.7406, 97.3624, -50.9377, 46.031
4.296, 2, 35.8378, 47.9148, -13.7406, 97.3624, -50.9377, 46.031
4.3, 2, 35.8378, 47.9148, -13.7406, 97.3624, -50.9377, 46.031
4.304, 2, 35.8378, 47.9148, -13.7406, 97.3624, -50.9377, 46.031
4.308, 2, 35.8378, 47.9148, -13.7406, 97.3624, -50.9377, 46.031
4.312, 2, 35.8378, 47.9148, -13.7406, 97.3624, -50.9377, 46.031
4.316, 2, 35.8378, 47.9148, -13.7406, 97.3624, -50.9377, 46.031
4.32, 2, 35.8378, 47.9148, -13.7406, 97.3624, -50.9377, 46.031
4.324, 2, 35.8378, 47.9148, -13.7406, 97.3624, -50.9377, 46.031
4.328, 2, 35.8378, 47.9148, -13.7406, 97.3624, -50.9377, 46.031
4.332, 2, 35.8378, 47.9148, -13.7406, 97.3624, -50.9377, 46.031
4.336, 2, 35.8378, 47.9148, -13.7406, 97.3624, -50.9377, 46.031
4.34, 2, 35.8378, 47.9148, -13.7406, 97.3624, -50.9377, 46.031
4.344, 2, 35.8378, 47.9148, -13.7406, 97.3624, -50.9377, 46.031
4.348, 2, 35.8378, 47.9148, -13.7406, 97.3624, -50.9377, 46.031
4.352, 2, 35.8378, 47.9148, -13.7406, 97.3624, -50.9377, 46.031
4.356, 2, 35.8378, 47.9148, -13.7406, 97.3624, -50.9377, 46.031
4.36, 2, 35.8378, 47.9148, -13.7406, 97.3624, -50.9377, 46.031
4.364, 2, 35.8378, 47.9148, -13.7406, 97.3624, -50.9377, 46.031
4.368, 2, 35.8378, 47.9148, -13.7406, 97.3624, -50.9377, 46.031
4.372, 2, 35.8378, 47.9148, -13.7406, 97.3624, -50.9377, 46.031
4.376, 2, 35.8378, 47.9148, -13.7406, 97.3624, -50.9377, 46.031
4.38, 2, 35.8378, 47.9148, -13.7406, 97.3624, -50.9377, 46.031
4.384, 2, 35.8378, 47.9148, -13.7406, 97.3624, -50.9377, 46.031
4.388, 2, 35.8378, 47.9148, -13.7406, 97.3624, -50.9377, 46.031
4.392, 3, 35.8378, 47.9148, -13.7406, 97.3624, -50.9377, 46.031
4.396, 3, 35.8378, 47.9148, -13.7406, 97.3624, -50.9377, 46.031
4.4, 3, 35.8378, 47.9148, -13.7406, 97.3624, -50.9377, 46.031
4.404, 3, 35.8378, 47.9148, -13.7406, 97.3624, -50.9377, 46.031
4.408, 3, 35.8378, 47.9148, -13.7406, 97.3624, -50.9377, 46.031
4.412, 3, 35.8378, 47.9148, -13.7406, 97.3624, -50.9377, 46.031
4.416, 3, 35.8378, 47.9148, -13.7406, 97.3624, -50.9377, 46.031
4.42, 3, 35.8378, 47.9148, -13.7406, 97.3624, -50.9377, 46.031
4.424, 3, 35.8378, 47.9148, -13.7406, 97.3624, -50.9377, 46.031
4.428, 3, 35.8378, 47.9148, -13.7406, 97.3624, -50.9377, 46.031
4.432, 4, 35.8378, 47.9148, -13.7406, 97.3624, -50.9377, 46.031
4.436, 4, 35.8378, 47.9148, -13.7406, 97.3624, -50.9377, 46.031
4.44, 4, 35.8378, 47.9148, -13.7406, 97.3624, -50.9377, 46.031
4.444, 4, 35.8378, 47.9148, -13.7406, 97.3624, -50.9377, 46.031
4.448, 4, 35.8378, 47.9148, -13.7406, 97.3624, -50.9377, 46.031
4.452, 4, 35.8378, 47.9148, -13.7406, 97.3624, -50.9377, 46.031
4.456, 4, 35.8378, 47.9148, -13.7406, 97.3624, -50.9377, 46.031
4.46, 4, 35.8378, 47.9148, -13.7406, 97.3624, -50.9377, 46.031
4.464, 4, 35.8378, 47.9148, -13.7406, 97.3624, -50.9377, 46.031
4.468, 4, 35.8378, 47.9148, -13.7406, 97.3624, -50.9377, 46.031
4.472, 4, 35.8378, 47.9148, -13.7406, 97.3624, -50.9377, 46.031
4.476, 4, 35.8378, 47.9148, -13.7406, 97.3624, -50.9377, 46.031
4.48, 4, 35.8378, 47.9148, -13.7406, 97.3624, -50.9377, 46.031
4.484, 4, 35.8378, 47.9148, -13.7406, 97.3624, -50.9377, 46.031
4.488, 4, 35.8378, 47.9148, -13.7406, 97.3624, -50.9377, 46.031
4.492, 4, 35.8378, 47.9148, -13.7406, 97.3624, -50.9377, 46.031
4.496, 4, 35.8378, 47.9148, -13.7406, 97.3624, -50.9377, 46.031
4.5, 4, 35.8378, 47.9148, -13.7406, 97.3624, -50.9377, 46.031
4.504, 4, 35.8378, 47.9148, -13.7406, 97.3624, -50.9377, 46.031
4.508, 4, 35.8378, 47.9148, -13.7406, 97.3624, -50.9377, 46.031
4.512, 4, 35.8378, 47.9148, -13.7406, 97.3624, -50.9377, 46.031
4.516, 4, 35.8378, 47.9148, -13.7406, 97.3624, -50.9377, 46.031
4.52, 4, 35.8378, 47.9148, -13.7406, 97.3624, -50.9377, 46.031
4.524, 4, 35.8378, 47.9148, -13.7406, 97.3624, -50.9377, 46.031
4.528, 4, 35.8378, 47.9148, -13.7406, 97.3624, -50.9377, 46.031
4.532, 5, 35.8378, 47.9148, -13.7406, 97.3624, -50.9377, 46.031
4.536, 5, 35.8378, 47.9148, -13.7406, 97.3624, -50.9377, 46.031
4.54, 5, 35.8378, 47.9148, -13.7406, 97.3624, -50.9377, 46.031
4.544, 5, 35.8378, 47.9148, -13.7406, 97.3624, -50.9377, 46.031
4.548, 5, 35.8378, 47.9148, -13.7406, 97.3624, -50.9377, 46.031
4.552, 5, 35.8378, 47.9148, -13.7406, 97.3624, -50.9377, 46.031
4.556, 5, 35.8378, 47.9148, -13.7406, 97.3624, -50.9377, 46.031
4.56, 5, 35.8378, 47.9148, -13.7406, 97.3624, -50.9377, 46.031
4.564, 5, 35.8378, 47.9148, -13.7406, 97.3624, -50.9377, 46.031
4.568, 5, 35.8378, 47.915, -13.7406, 97.3624, -50.9377, 46.031
4.572, 5, 35.8379, 47.9154, -13.7406, 97.3624, -50.9378, 46.0309
4.576, 5, 35.838, 47.9161, -13.7406, 97.3624, -50.9379, 46.0309
4.58, 5, 35.8381, 47.9173, -13.7407, 97.3624, -50.9382, 46.0308
4.584, 5, 35.8383, 47.9192, -13.7407, 97.3623, -50.9389, 46.0306
4.588, 5, 35.8385, 47.9217, -13.7409, 97.3622, -50.9403, 46.0301
4.592, 5, 35.8388, 47.9251, -13.7411, 97.3619, -50.9426, 46.0294
4.596, 5, 35.8392, 47.9295, -13.7415, 97.3616, -50.9464, 46.0282
4.6, 5, 35.8396, 47.935, -13.7422, 97.361, -50.9521, 46.0264
4.604, 5, 35.84, 47.9419, -13.7431, 97.3601, -50.9605, 46.0237
4.608, 5, 35.8404, 47.9504, -13.7444, 97.3588, -50.9722, 46.02
4.612, 5, 35.8409, 47.9608, -13.7463, 97.3571, -50.9882, 46.015
4.616, 5, 35.8414, 47.9731, -13.7487, 97.3549, -51.0093, 46.0083
4.62, 5, 35.8418, 47.9875, -13.7519, 97.352, -51.0365, 45.9997
4.624, 5, 35.8424, 48.0041, -13.7559, 97.3483, -51.0709, 45.9888
4.628, 5, 35.843, 48.0229, -13.7609, 97.3436, -51.1135, 45.9754
4.632, 5, 35.8436, 48.044, -13.7671, 97.338, -51.1651, 45.9592
4.636, 5, 35.8443, 48.0676, -13.7744, 97.3313, -51.2267, 45.9398
4.64, 5, 35.8452, 48.0936, -13.783, 97.3234, -51.2988, 45.9171
4.644, 5, 35.8461, 48.1221, -13.7931, 97.3142, -51.3819, 45.8909
4.648, 5, 35.847, 48.1528, -13.8045, 97.3037, -51.4765, 45.8612
4.652, 5, 35.848, 48.1858, -13.8174, 97.2919, -51.5825, 45.8279
4.656, 5, 35.8491, 48.2206, -13.8317, 97.2788, -51.6998, 45.7911
4.66, 5, 35.8501, 48.257, -13.8474, 97.2644, -51.8277, 45.7509
4.664, 5, 35.8512, 48.2947, -13.8644, 97.2488, -51.9655, 45.7077
4.668, 5, 35.8524, 48.3335, -13.8825, 97.2321, -52.1121, 45.6618
4.672, 5, 35.8537, 48.3732, -13.9016, 97.2145, -52.2658, 45.6137
4.676, 5, 35.8551, 48.4134, -13.9215, 97.1961, -52.4252, 45.5638
4.68, 5, 35.8567, 48.454, -13.9419, 97.1772, -52.5884, 45.5128
4.684, 5, 35.8585, 48.4947, -13.9627, 97.158, -52.7534, 45.4612
4.688, 5, 35.8604, 48.5354, -13.9835, 97.1387, -52.9182, 45.4097
4.692, 5, 35.8625, 48.5762, -14.0041, 97.1196, -53.081, 45.359
4.696, 5, 35.8645, 48.6168, -14.0243, 97.1008, -53.2396, 45.3095
4.7, 5, 35.8665, 48.6572, -14.0438, 97.0826, -53.3925, 45.2618
4.704, 5, 35.8685, 48.697, -14.0624, 97.0652, -53.5381, 45.2164
4.708, 5, 35.8702, 48.7359, -14.0801, 97.0488, -53.6752, 45.1737
4.712, 5, 35.8718, 48.7737, -14.0965, 97.0334, -53.8027, 45.134
4.716, 5, 35.8733, 48.8099, -14.1117, 97.0193, -53.92, 45.0975
4.72, 5, 35.8745, 48.8442, -14.1256, 97.0063, -54.0268, 45.0643
4.724, 5, 35.8755, 48.8763, -14.1382, 96.9946, -54.1228, 45.0344
4.728, 5, 35.8764, 48.9062, -14.1494, 96.9842, -54.2082, 45.0079
4.732, 5, 35.8771, 48.9339, -14.1593, 96.975, -54.2833, 44.9845
4.736, 5, 35.8776, 48.9592, -14.1679, 96.967, -54.3486, 44.9642
4.74, 5, 35.878, 48.9821, -14.1753, 96.9601, -54.4046, 44.9468
4.744, 5, 35.8783, 49.0027, -14.1817, 96.9542, -54.4521, 44.9321
4.748, 5, 35.8785, 49.0208, -14.187, 96.9493, -54.4919, 44.9197
4.752, 5, 35.8786, 49.0367, -14.1914, 96.9452, -54.5247, 44.9095
4.756, 5, 35.8786, 49.0505, -14.195, 96.9419, -54.5515, 44.9012
4.76, 5, 35.8786, 49.0624, -14.1979, 96.9393, -54.5729, 44.8945
4.765, 6, 35.8785, 49.0728, -14.2002, 96.9372, -54.5898, 44.8893
4.767, 6, 35.8785, 49.0728, -14.2002, 96.9372, -54.5898, 44.8893
4.772, 6, 35.8783, 49.0899, -14.2033, 96.9344, -54.6126, 44.8822
4.776, 6, 35.8782, 49.0968, -14.2043, 96.9335, -54.6198, 44.8799
4.78, 6, 35.8781, 49.1026, -14.2051, 96.9328, -54.625, 44.8783
4.784, 6, 35.878, 49.1073, -14.2056, 96.9324, -54.6287, 44.8772
4.788, 6, 35.8779, 49.111, -14.2059, 96.9321, -54.6312, 44.8764
4.792, 6, 35.8778, 49.1137, -14.2062, 96.9319, -54.633, 44.8758
4.796, 6, 35.8778, 49.1156, -14.2064, 96.9317, -54.6341, 44.8755
4.8, 6, 35.8778, 49.1169, -14.2065, 96.9316, -54.6349, 44.8752
4.804, 6, 35.8777, 49.1178, -14.2066, 96.9316, -54.6355, 44.875
4.808, 6, 35.8777, 49.1186, -14.2066, 96.9315, -54.6359, 44.8749
4.812, 6, 35.8776, 49.1193, -14.2067, 96.9315, -54.6362, 44.8748
4.816, 6, 35.8775, 49.1203, -14.2067, 96.9315, -54.6365, 44.8747
4.82, 6, 35.8772, 49.1217, -14.2068, 96.9315, -54.6369, 44.8746
4.824, 6, 35.8769, 49.1237, -14.207, 96.9315, -54.6377, 44.8744
4.828, 6, 35.8764, 49.1263, -14.2073, 96.9315, -54.6391, 44.8739
4.832, 6, 35.8758, 49.1297, -14.2077, 96.9315, -54.6414, 44.8732
4.836, 6, 35.875, 49.1341, -14.2084, 96.9316, -54.6451, 44.872
4.84, 6, 35.8741, 49.1395, -14.2094, 96.9317, -54.6507, 44.8702
4.844, 6, 35.8732, 49.1459, -14.2107, 96.9318, -54.6588, 44.8676
4.848, 6, 35.8722, 49.1531, -14.2126, 96.9319, -54.67, 44.864
4.852, 6, 35.8713, 49.1609, -14.2149, 96.932, -54.6849, 44.8593
4.856, 6, 35.8706, 49.1692, -14.2179, 96.9322, -54.7039, 44.8532
4.86, 6, 35.8701, 49.1775, -14.2215, 96.9324, -54.7275, 44.8458
4.864, 6, 35.87, 49.1859, -14.2257, 96.9327, -54.7556, 44.8368
4.868, 6, 35.8701, 49.1941, -14.2306, 96.933, -54.7881, 44.8265
4.872, 6, 35.8705, 49.202, -14.236, 96.9332, -54.8247, 44.8149
4.876, 6, 35.8711, 49.2097, -14.2419, 96.9335, -54.8646, 44.8023
4.88, 6, 35.8719, 49.2172, -14.2481, 96.9339, -54.9071, 44.7889
4.884, 6, 35.8728, 49.2244, -14.2546, 96.9342, -54.9511, 44.775
4.888, 6, 35.8738, 49.2314, -14.2611, 96.9345, -54.9957, 44.7609
4.892, 6, 35.8747, 49.2383, -14.2676, 96.9348, -55.0397, 44.747
4.896, 6, 35.8755, 49.2454, -14.2738, 96.9351, -55.0821, 44.7336
4.9, 6, 35.8762, 49.2529, -14.2797, 96.9353, -55.1219, 44.7211
4.904, 6, 35.8765, 49.2608, -14.285, 96.9355, -55.1582, 44.7096
4.908, 6, 35.8766, 49.2692, -14.2899, 96.9358, -55.1906, 44.6994
4.912, 6, 35.8763, 49.2779, -14.2941, 96.936, -55.2187, 44.6905
4.916, 6, 35.8758, 49.2866, -14.2977, 96.9361, -55.2424, 44.6831
4.92, 6, 35.8751, 49.2953, -14.3007, 96.9362, -55.262, 44.6769
4.926, 7, 35.8742, 49.3036, -14.3032, 96.9364, -55.2776, 44.672
4.928, 7, 35.8734, 49.3114, -14.3051, 96.9365, -55.2898, 44.6681
4.932, 7, 35.8725, 49.3184, -14.3066, 96.9365, -55.2991, 44.6652
4.936, 7, 35.8717, 49.3247, -14.3078, 96.9366, -55.306, 44.6631
4.94, 7, 35.871, 49.3301, -14.3086, 96.9366, -55.3109, 44.6615
4.944, 7, 35.8704, 49.3345, -14.3092, 96.9367, -55.3144, 44.6604
4.948, 7, 35.8699, 49.338, -14.3097, 96.9367, -55.3169, 44.6596
4.952, 7, 35.8696, 49.3405, -14.31, 96.9367, -55.3185, 44.6591
4.956, 7, 35.8693, 49.3423, -14.3102, 96.9367, -55.3196, 44.6587
4.96, 7, 35.8692, 49.3436, -14.3103, 96.9367, -55.3204, 44.6585
4.964, 7, 35.869, 49.3446, -14.3104, 96.9367, -55.3209, 44.6583
4.968, 7, 35.8689, 49.3455, -14.3105, 96.9367, -55.3213, 44.6582
4.972, 7, 35.8689, 49.3466, -14.3105, 96.9367, -55.3217, 44.6581
4.976, 7, 35.8687, 49.348, -14.3106, 96.9367, -55.3222, 44.658
4.98, 7, 35.8686, 49.35, -14.3107, 96.9366, -55.323, 44.6577
4.984, 7, 35.8685, 49.3526, -14.3108, 96.9363, -55.3243, 44.6573
4.988, 7, 35.8683, 49.356, -14.3111, 96.936, -55.3266, 44.6566
4.992, 7, 35.868, 49.3604, -14.3115, 96.9354, -55.3302, 44.6555
4.996, 7, 35.8678, 49.366, -14.3121, 96.9345, -55.3357, 44.6538
5, 7, 35.8674, 49.373, -14.313, 96.9331, -55.3436, 44.6514
5.004, 7, 35.867, 49.3816, -14.3142, 96.9312, -55.3548, 44.6479
5.008, 7, 35.8665, 49.392, -14.3159, 96.9286, -55.3701, 44.6433
5.012, 7, 35.866, 49.4043, -14.3181, 96.9252, -55.3902, 44.6371
5.016, 7, 35.8654, 49.4183, -14.321, 96.9207, -55.4162, 44.6292
5.02, 7, 35.8649, 49.4341, -14.3246, 96.9151, -55.449, 44.6192
5.024, 7, 35.8643, 49.4514, -14.329, 96.9082, -55.4895, 44.6068
5.028, 7, 35.8638, 49.4701, -14.3342, 96.8998, -55.5382, 44.592
5.032, 7, 35.8634, 49.4903, -14.3405, 96.8899, -55.5956, 44.5745
5.036, 7, 35.8631, 49.512, -14.3476, 96.8784, -55.662, 44.5543
5.04, 7, 35.8628, 49.5353, -14.3557, 96.8654, -55.7374, 44.5313
5.044, 7, 35.8627, 49.5601, -14.3647, 96.8508, -55.8215, 44.5058
5.048, 7, 35.8626, 49.5861, -14.3745, 96.8347, -55.9139, 44.4777
5.052, 7, 35.8628, 49.6128, -14.3851, 96.8173, -56.0139, 44.4473
5.056, 7, 35.8631, 49.6399, -14.3964, 96.7987, -56.1205, 44.4149
5.06, 7, 35.8636, 49.6671, -14.4081, 96.7791, -56.2325, 44.3809
5.064, 7, 35.8644, 49.6943, -14.4203, 96.7587, -56.3485, 44.3457
5.068, 7, 35.8652, 49.7215, -14.4326, 96.7379, -56.4669, 44.3097
5.072, 7, 35.8661, 49.749, -14.445, 96.7169, -56.586, 44.2736
5.076, 7, 35.8671, 49.7769, -14.4572, 96.696, -56.7041, 44.2378
5.08, 7, 35.868, 49.8052, -14.4691, 96.6755, -56.8197, 44.2028
5.084, 7, 35.8689, 49.8335, -14.4806, 96.6557, -56.9314, 44.1689
5.088, 7, 35.8696, 49.8614, -14.4915, 96.6368, -57.0379, 44.1367
5.092, 7, 35.8703, 49.8884, -14.5017, 96.6189, -57.1382, 44.1063
5.096, 7, 35.8709, 49.9144, -14.5112, 96.6023, -57.2314, 44.0781
5.1, 7, 35.8713, 49.9391, -14.5198, 96.5871, -57.3168, 44.0523
5.104, 7, 35.8716, 49.9626, -14.5276, 96.5732, -57.3939, 44.0289
5.108, 7, 35.8716, 49.9849, -14.5345, 96.561, -57.4625, 44.0082
5.112, 7, 35.8714, 50.0059, -14.5406, 96.5502, -57.5226, 43.99
5.116, 7, 35.8709, 50.0255, -14.5458, 96.5409, -57.5745, 43.9743
5.12, 7, 35.8703, 50.0435, -14.5503, 96.5329, -57.6185, 43.961
5.124, 7, 35.8697, 50.0597, -14.554, 96.5263, -57.6553, 43.9499
5.128, 7, 35.8689, 50.0742, -14.557, 96.5209, -57.6857, 43.9407
5.132, 7, 35.8682, 50.0868, -14.5595, 96.5164, -57.7103, 43.9332
5.137, 8, 35.8674, 50.0979, -14.5615, 96.5129, -57.7299, 43.9273
5.14, 8, 35.8667, 50.1077, -14.563, 96.5101, -57.7452, 43.9227
5.144, 8, 35.8661, 50.1163, -14.5642, 96.508, -57.7569, 43.9191
5.148, 8, 35.8654, 50.1239, -14.5651, 96.5065, -57.7656, 43.9165
5.152, 8, 35.8649, 50.1303, -14.5658, 96.5053, -57.772, 43.9146
5.156, 8, 35.8644, 50.1356, -14.5663, 96.5045, -57.7765, 43.9132
5.16, 8, 35.864, 50.1398, -14.5666, 96.5039, -57.7797, 43.9122
5.164, 8, 35.8637, 50.143, -14.5668, 96.5035, -57.7819, 43.9116
5.168, 8, 35.8635, 50.1453, -14.567, 96.5033, -57.7834, 43.9111
5.172, 8, 35.8633, 50.1469, -14.5671, 96.5031, -57.7844, 43.9108
5.176, 8, 35.8632, 50.1482, -14.5672, 96.503, -57.7851, 43.9106
5.18, 8, 35.863, 50.1492, -14.5672, 96.5029, -57.7856, 43.9104
5.184, 8, 35.8629, 50.1504, -14.5673, 96.5028, -57.786, 43.9103
5.188, 8, 35.8626, 50.1519, -14.5674, 96.5027, -57.7866, 43.9101
5.192, 8, 35.8622, 50.1539, -14.5675, 96.5026, -57.7874, 43.9098
5.196, 8, 35.8618, 50.1565, -14.5677, 96.5025, -57.7888, 43.9093
5.2, 8, 35.8612, 50.1599, -14.5681, 96.5022, -57.7911, 43.9084
5.204, 8, 35.8605, 50.1641, -14.5686, 96.5018, -57.7948, 43.907
5.208, 8, 35.8597, 50.1692, -14.5693, 96.5012, -57.8003, 43.9049
5.212, 8, 35.8588, 50.1754, -14.5704, 96.5003, -57.8083, 43.9019
5.216, 8, 35.8578, 50.1828, -14.5718, 96.499, -57.8192, 43.8977
5.22, 8, 35.8567, 50.1916, -14.5736, 96.4973, -57.8338, 43.8922
5.224, 8, 35.8555, 50.2017, -14.576, 96.4951, -57.8527, 43.885
5.228, 8, 35.8544, 50.2131, -14.579, 96.4923, -57.8767, 43.8759
5.232, 8, 35.8533, 50.2256, -14.5826, 96.4889, -57.9062, 43.8647
5.236, 8, 35.8524, 50.2387, -14.587, 96.4847, -57.9418, 43.8512
5.24, 8, 35.8518, 50.2523, -14.592, 96.4797, -57.9838, 43.8352
5.244, 8, 35.8515, 50.2662, -14.5978, 96.474, -58.0321, 43.817
5.248, 8, 35.8515, 50.2801, -14.6042, 96.4676, -58.0865, 43.7964
5.252, 8, 35.8518, 50.2941, -14.6112, 96.4604, -58.1463, 43.7738
5.256, 8, 35.8524, 50.3082, -14.6187, 96.4528, -58.2106, 43.7495
5.26, 8, 35.8531, 50.3223, -14.6267, 96.4446, -58.2784, 43.7238
5.264, 8, 35.8539, 50.3365, -14.6348, 96.4362, -58.3486, 43.6973
5.268, 8, 35.8549, 50.3506, -14.6431, 96.4276, -58.4199, 43.6704
5.272, 8, 35.8558, 50.3645, -14.6513, 96.4191, -58.4909, 43.6436
5.276, 8, 35.8568, 50.3783, -14.6594, 96.4107, -58.5603, 43.6174
5.28, 8, 35.8576, 50.392, -14.6671, 96.4026, -58.627, 43.5922
5.284, 8, 35.8582, 50.4059, -14.6743, 96.395, -58.6896, 43.5686
5.288, 8, 35.8585, 50.4199, -14.681, 96.388, -58.7473, 43.5468
5.292, 8, 35.8585, 50.4341, -14.6871, 96.3816, -58.7995, 43.5272
5.296, 8, 35.8581, 50.4482, -14.6925, 96.376, -58.8456, 43.5098
5.3, 8, 35.8575, 50.462, -14.6972, 96.3711, -58.8855, 43.4947
5.304, 8, 35.8566, 50.475, -14.7012, 96.367, -58.9196, 43.4819
5.308, 8, 35.8556, 50.4871, -14.7046, 96.3635, -58.948, 43.4712
5.312, 8, 35.8545, 50.4982, -14.7074, 96.3607, -58.9713, 43.4624
5.317, 9, 35.8535, 50.5081, -14.7096, 96.3584, -58.9899, 43.4554
5.32, 9, 35.8524, 50.5171, -14.7114, 96.3566, -59.0046, 43.4498
5.324, 9, 35.8514, 50.5252, -14.7128, 96.3552, -59.0159, 43.4456
5.328, 9, 35.8504, 50.5323, -14.7139, 96.3542, -59.0243, 43.4424
5.332, 9, 35.8495, 50.5385, -14.7147, 96.3535, -59.0305, 43.4401
5.336, 9, 35.8488, 50.5436, -14.7152, 96.3529, -59.0348, 43.4384
5.34, 9, 35.8482, 50.5476, -14.7156, 96.3525, -59.0379, 43.4373
5.344, 9, 35.8477, 50.5507, -14.7159, 96.3523, -59.04, 43.4365
5.348, 9, 35.8474, 50.5529, -14.7161, 96.3521, -59.0415, 43.4359
5.352, 9, 35.8471, 50.5544, -14.7163, 96.352, -59.0424, 43.4356
5.356, 9, 35.8469, 50.5556, -14.7164, 96.3519, -59.0431, 43.4353
5.36, 9, 35.8467, 50.5566, -14.7164, 96.3519, -59.0436, 43.4351
5.364, 9, 35.8464, 50.5578, -14.7165, 96.3518, -59.044, 43.435
5.368, 9, 35.8461, 50.5592, -14.7165, 96.3517, -59.0446, 43.4348
5.372, 9, 35.8455, 50.5612, -14.7166, 96.3516, -59.0454, 43.4346
5.376, 9, 35.8448, 50.5638, -14.7167, 96.3513, -59.0468, 43.4342
5.38, 9, 35.8439, 50.5672, -14.7169, 96.3509, -59.0491, 43.4335
5.384, 9, 35.8428, 50.5716, -14.7172, 96.3502, -59.0527, 43.4325
5.388, 9, 35.8415, 50.5771, -14.7176, 96.3491, -59.0583, 43.431
5.392, 9, 35.8401, 50.584, -14.7182, 96.3475, -59.0663, 43.4287
5.396, 9, 35.8384, 50.5925, -14.719, 96.3453, -59.0776, 43.4256
5.4, 9, 35.8365, 50.6027, -14.7201, 96.3423, -59.093, 43.4214
5.404, 9, 35.8345, 50.6148, -14.7215, 96.3384, -59.1133, 43.4158
5.408, 9, 35.8325, 50.6286, -14.7233, 96.3332, -59.1396, 43.4085
5.412, 9, 35.8304, 50.644, -14.7256, 96.3267, -59.1727, 43.3994
5.416, 9, 35.8283, 50.6608, -14.7283, 96.3187, -59.2135, 43.3882
5.42, 9, 35.8264, 50.679, -14.7315, 96.3091, -59.2626, 43.3747
5.424, 9, 35.8245, 50.6984, -14.7353, 96.2977, -59.3205, 43.3587
5.428, 9, 35.8228, 50.7193, -14.7396, 96.2845, -59.3875, 43.3403
5.432, 9, 35.8212, 50.7416, -14.7445, 96.2694, -59.4635, 43.3194
5.436, 9, 35.8197, 50.7652, -14.7499, 96.2527, -59.5483, 43.296
5.44, 9, 35.8184, 50.7899, -14.7557, 96.2342, -59.6414, 43.2704
5.444, 9, 35.8173, 50.8153, -14.762, 96.2143, -59.7421, 43.2427
5.448, 9, 35.8166, 50.8408, -14.7686, 96.1929, -59.8495, 43.2132
5.452, 9, 35.8163, 50.8663, -14.7754, 96.1705, -59.9622, 43.1822
5.456, 9, 35.8164, 50.8917, -14.7825, 96.1473, -60.0788, 43.1502
5.46, 9, 35.8166, 50.9172, -14.7896, 96.1235, -60.1978, 43.1175
5.464, 9, 35.8169, 50.9429, -14.7967, 96.0996, -60.3173, 43.0847
5.468, 9, 35.817, 50.969, -14.8036, 96.076, -60.4356, 43.0521
5.472, 9, 35.8169, 50.9954, -14.8104, 96.0528, -60.5514, 43.0204
5.476, 9, 35.8164, 51.022, -14.8168, 96.0304, -60.663, 42.9897
5.48, 9, 35.8158, 51.0482, -14.823, 96.009, -60.7692, 42.9605
5.484, 9, 35.8148, 51.0736, -14.8287, 95.9889, -60.8691, 42.9331
5.488, 9, 35.8137, 51.098, -14.8339, 95.9702, -60.9617, 42.9077
5.492, 9, 35.8124, 51.1213, -14.8387, 95.9532, -61.0463, 42.8844
5.496, 9, 35.8109, 51.1435, -14.843, 95.9378, -61.1226, 42.8635
5.5, 9, 35.8092, 51.1646, -14.8468, 95.9241, -61.1903, 42.8449
5.504, 9, 35.8072, 51.1845, -14.8501, 95.9121, -61.2494, 42.8287
5.508, 9, 35.8051, 51.2032, -14.853, 95.9019, -61.3002, 42.8147
5.512, 9, 35.803, 51.2203, -14.8554, 95.8931, -61.3433, 42.8029
5.516, 9, 35.8008, 51.2357, -14.8575, 95.8859, -61.3792, 42.793
5.52, 9, 35.7987, 51.2495, -14.8591, 95.8799, -61.4087, 42.7849
5.524, 9, 35.7968, 51.2617, -14.8605, 95.8751, -61.4325, 42.7784
5.529, 10, 35.7949, 51.2724, -14.8616, 95.8713, -61.4513, 42.7732
5.531, 10, 35.7949, 51.2724, -14.8616, 95.8713, -61.4513, 42.7732
5.536, 10, 35.7915, 51.2902, -14.8631, 95.866, -61.4771, 42.7661
5.54, 10, 35.7899, 51.2975, -14.8636, 95.8644, -61.4854, 42.7638
5.544, 10, 35.7886, 51.3036, -14.864, 95.8631, -61.4914, 42.7622
5.548, 10, 35.7874, 51.3086, -14.8643, 95.8623, -61.4957, 42.761
5.552, 10, 35.7864, 51.3125, -14.8645, 95.8617, -61.4987, 42.7602
5.556, 10, 35.7857, 51.3154, -14.8646, 95.8613, -61.5007, 42.7596
5.56, 10, 35.7852, 51.3175, -14.8647, 95.861, -61.5021, 42.7592
5.564, 10, 35.7848, 51.3189, -14.8648, 95.8608, -61.503, 42.759
5.568, 10, 35.7845, 51.32, -14.8648, 95.8607, -61.5037, 42.7588
5.572, 10, 35.7842, 51.321, -14.8648, 95.8606, -61.5042, 42.7587
5.576, 10, 35.7839, 51.3221, -14.8649, 95.8605, -61.5046, 42.7585
5.58, 10, 35.7834, 51.3235, -14.8649, 95.8604, -61.5051, 42.7583
5.584, 10, 35.7828, 51.3255, -14.865, 95.8602, -61.5059, 42.758
5.588, 10, 35.7819, 51.328, -14.8652, 95.86, -61.5073, 42.7575
5.592, 10, 35.7809, 51.3314, -14.8654, 95.8595, -61.5097, 42.7566
5.596, 10, 35.7797, 51.3357, -14.8657, 95.8588, -61.5134, 42.7551
5.6, 10, 35.7783, 51.341, -14.8662, 95.8577, -61.519, 42.7529
5.604, 10, 35.7767, 51.3477, -14.8668, 95.856, -61.5271, 42.7497
5.608, 10, 35.775, 51.3558, -14.8677, 95.8538, -61.5384, 42.7452
5.612, 10, 35.7731, 51.3655, -14.8689, 95.8508, -61.5538, 42.7392
5.616, 10, 35.7711, 51.3767, -14.8704, 95.8468, -61.5739, 42.7313
5.62, 10, 35.769, 51.3893, -14.8724, 95.8416, -61.5997, 42.7212
5.624, 10, 35.7671, 51.4029, -14.8747, 95.8352, -61.632, 42.7085
5.628, 10, 35.7654, 51.4169, -14.8775, 95.8273, -61.6712, 42.6931
5.632, 10, 35.7641, 51.4312, -14.8807, 95.818, -61.7178, 42.6748
5.636, 10, 35.7633, 51.4455, -14.8844, 95.8072, -61.7717, 42.6537
5.64, 10, 35.7629, 51.4597, -14.8885, 95.7949, -61.8325, 42.6299
5.644, 10, 35.7631, 51.4737, -14.893, 95.7814, -61.8994, 42.6037
5.648, 10, 35.7635, 51.4877, -14.8978, 95.7669, -61.9714, 42.5755
5.652, 10, 35.7643, 51.5017, -14.9028, 95.7516, -62.0472, 42.5458
5.656, 10, 35.7652, 51.5156, -14.9079, 95.7357, -62.1254, 42.5153
5.66, 10, 35.7663, 51.5294, -14.913, 95.7197, -62.2044, 42.4844
5.664, 10, 35.7673, 51.5429, -14.9181, 95.7038, -62.2826, 42.4538
5.668, 10, 35.7681, 51.5564, -14.923, 95.6884, -62.3585, 42.4241
5.672, 10, 35.7687, 51.5701, -14.9277, 95.6737, -62.4306, 42.3959
5.676, 10, 35.7688, 51.5841, -14.932, 95.6601, -62.4975, 42.3698
5.68, 10, 35.7684, 51.5986, -14.9359, 95.6477, -62.5583, 42.346
5.684, 10, 35.7676, 51.6133, -14.9395, 95.6366, -62.6124, 42.3249
5.688, 10, 35.7663, 51.6281, -14.9426, 95.627, -62.6595, 42.3065
5.692, 10, 35.7646, 51.6426, -14.9452, 95.6188, -62.6996, 42.2908
5.696, 10, 35.7628, 51.6563, -14.9475, 95.612, -62.733, 42.2777
5.7, 10, 35.7609, 51.6689, -14.9493, 95.6064, -62.7605, 42.267
5.704, 10, 35.759, 51.6804, -14.9509, 95.6018, -62.7825, 42.2584
5.709, 11, 35.7572, 51.6906, -14.9521, 95.5983, -62.7998, 42.2516
5.712, 11, 35.7555, 51.6997, -14.953, 95.5956, -62.8131, 42.2464
5.715, 11, 35.7555, 51.6997, -14.953, 95.5956, -62.8131, 42.2464
5.72, 11, 35.7539, 51.7077, -14.9537, 95.5935, -62.8232, 42.2425
5.724, 11, 35.7524, 51.7146, -14.9543, 95.592, -62.8306, 42.2396
5.728, 11, 35.7511, 51.7203, -14.9547, 95.5909, -62.8359, 42.2375
5.732, 11, 35.75, 51.7248, -14.955, 95.5901, -62.8396, 42.2361
5.736, 11, 35.7491, 51.7283, -14.9552, 95.5896, -62.8422, 42.235
5.74, 11, 35.748, 51.7326, -14.9554, 95.589, -62.8452, 42.2339
5.744, 11, 35.7477, 51.7338, -14.9555, 95.5889, -62.846, 42.2336
5.748, 11, 35.7474, 51.7348, -14.9555, 95.5887, -62.8465, 42.2333
5.752, 11, 35.747, 51.7357, -14.9556, 95.5886, -62.847, 42.2332
5.756, 11, 35.7465, 51.7367, -14.9556, 95.5886, -62.8473, 42.2331
5.76, 11, 35.7459, 51.7381, -14.9556, 95.5884, -62.8478, 42.2329
5.764, 11, 35.7449, 51.74, -14.9556, 95.5882, -62.8487, 42.2327
5.768, 11, 35.7437, 51.7425, -14.9557, 95.5879, -62.8501, 42.2323
5.772, 11, 35.7422, 51.7458, -14.9557, 95.5873, -62.8524, 42.2318
5.776, 11, 35.7405, 51.7501, -14.9557, 95.5863, -62.8562, 42.2308
5.78, 11, 35.7385, 51.7555, -14.9557, 95.5849, -62.8618, 42.2295
5.784, 11, 35.7362, 51.7623, -14.9557, 95.5828, -62.8701, 42.2274
5.788, 11, 35.7337, 51.7705, -14.9556, 95.5798, -62.8816, 42.2246
5.792, 11, 35.7308, 51.7805, -14.9556, 95.5758, -62.8973, 42.2208
5.796, 11, 35.7276, 51.7922, -14.9555, 95.5705, -62.9181, 42.2158
5.8, 11, 35.7242, 51.8055, -14.9553, 95.5636, -62.9449, 42.2092
5.804, 11, 35.7207, 51.8201, -14.9551, 95.5549, -62.9788, 42.201
5.808, 11, 35.7171, 51.8361, -14.9547, 95.5442, -63.0204, 42.1909
5.812, 11, 35.7136, 51.8531, -14.9543, 95.5314, -63.0705, 42.1787
5.816, 11, 35.7101, 51.8712, -14.9537, 95.5161, -63.1296, 42.1643
5.82, 11, 35.7067, 51.8904, -14.953, 95.4986, -63.1979, 42.1477
5.824, 11, 35.7033, 51.9107, -14.9522, 95.4786, -63.2753, 42.1289
5.828, 11, 35.7001, 51.932, -14.9511, 95.4564, -63.3615, 42.1079
5.832, 11, 35.6971, 51.9539, -14.95, 95.432, -63.456, 42.0849
5.836, 11, 35.6945, 51.9761, -14.9486, 95.4057, -63.558, 42.06
5.84, 11, 35.6924, 51.9981, -14.9471, 95.3777, -63.6662, 42.0337
5.844, 11, 35.6909, 52.0199, -14.9454, 95.3485, -63.7795, 42.0061
5.848, 11, 35.6896, 52.0415, -14.9437, 95.3183, -63.896, 41.9777
5.852, 11, 35.6885, 52.0631, -14.9418, 95.2877, -64.0142, 41.9489
5.856, 11, 35.6872, 52.0851, -14.9398, 95.2572, -64.1322, 41.9201
5.86, 11, 35.6856, 52.1075, -14.9379, 95.2271, -64.2483, 41.8918
5.864, 11, 35.6836, 52.1302, -14.9359, 95.1979, -64.3609, 41.8644
5.868, 11, 35.6812, 52.153, -14.934, 95.1699, -64.4686, 41.8381
5.872, 11, 35.6785, 52.1755, -14.9321, 95.1436, -64.5702, 41.8133
5.876, 11, 35.6755, 52.1973, -14.9303, 95.119, -64.6647, 41.7902
5.88, 11, 35.6724, 52.2184, -14.9286, 95.0965, -64.7514, 41.769
5.884, 11, 35.6691, 52.2386, -14.9271, 95.0761, -64.8298, 41.7499
5.888, 11, 35.6657, 52.258, -14.9257, 95.058, -64.8994, 41.7329
5.892, 11, 35.662, 52.2764, -14.9245, 95.0421, -64.9604, 41.718
5.896, 11, 35.6583, 52.2939, -14.9234, 95.0284, -65.0129, 41.7051
5.9, 11, 35.6546, 52.3101, -14.9225, 95.0169, -65.0575, 41.6943
5.904, 11, 35.651, 52.3248, -14.9218, 95.0072, -65.0946, 41.6852
5.908, 11, 35.6476, 52.3382, -14.9212, 94.9992, -65.1251, 41.6777
5.912, 11, 35.6445, 52.35, -14.9207, 94.9928, -65.1497, 41.6717
5.917, 12, 35.6416, 52.3606, -14.9204, 94.9878, -65.1693, 41.6669
5.919, 12, 35.6416, 52.3606, -14.9204, 94.9878, -65.1693, 41.6669
5.924, 12, 35.6364, 52.3782, -14.9199, 94.9808, -65.1959, 41.6604
5.928, 12, 35.6341, 52.3853, -14.9198, 94.9786, -65.2045, 41.6583
5.932, 12, 35.632, 52.3914, -14.9197, 94.977, -65.2107, 41.6568
5.936, 12, 35.6303, 52.3963, -14.9196, 94.9758, -65.2151, 41.6557
5.94, 12, 35.6288, 52.4001, -14.9196, 94.975, -65.2182, 41.6549
5.944, 12, 35.6277, 52.4029, -14.9195, 94.9745, -65.2203, 41.6544
5.948, 12, 35.6268, 52.4049, -14.9195, 94.9741, -65.2218, 41.6541
5.952, 12, 35.6263, 52.4063, -14.9195, 94.9738, -65.2227, 41.6538
5.956, 12, 35.6258, 52.4073, -14.9195, 94.9737, -65.2234, 41.6537
5.96, 12, 35.6253, 52.4083, -14.9195, 94.9735, -65.2239, 41.6535
5.964, 12, 35.6248, 52.4094, -14.9195, 94.9734, -65.2244, 41.6534
5.968, 12, 35.624, 52.4108, -14.9195, 94.9733, -65.2249, 41.6532
5.972, 12, 35.623, 52.4127, -14.9195, 94.9731, -65.2257, 41.6529
5.976, 12, 35.6217, 52.4152, -14.9196, 94.9727, -65.2272, 41.6524
5.98, 12, 35.6203, 52.4184, -14.9196, 94.972, -65.2296, 41.6515
5.984, 12, 35.6186, 52.4225, -14.9196, 94.971, -65.2334, 41.65
5.988, 12, 35.6167, 52.4274, -14.9197, 94.9695, -65.239, 41.6479
5.992, 12, 35.6147, 52.4332, -14.9197, 94.9673, -65.2471, 41.6448
5.996, 12, 35.6125, 52.4402, -14.9198, 94.9643, -65.2583, 41.6405
6, 12, 35.6101, 52.4484, -14.9198, 94.9603, -65.2733, 41.6349
6.004, 12, 35.6075, 52.4578, -14.9198, 94.955, -65.2926, 41.6275
6.008, 12, 35.6049, 52.4683, -14.9198, 94.9484, -65.317, 41.6182
6.012, 12, 35.6023, 52.4797, -14.9197, 94.9403, -65.3472, 41.6068
6.016, 12, 35.5999, 52.4915, -14.9196, 94.9304, -65.3834, 41.593
6.02, 12, 35.5977, 52.5036, -14.9195, 94.9188, -65.4261, 41.5768
6.024, 12, 35.596, 52.5156, -14.9192, 94.9055, -65.4752, 41.5582
6.028, 12, 35.5947, 52.5276, -14.9189, 94.8905, -65.5303, 41.5372
6.032, 12, 35.5939, 52.5395, -14.9185, 94.874, -65.591, 41.5142
6.036, 12, 35.5936, 52.5513, -14.9181, 94.8562, -65.6562, 41.4895
6.04, 12, 35.5935, 52.563, -14.9176, 94.8374, -65.725, 41.4634
