hehonglu123/Motion-Primitive-Planning/simulation/robotstudio_sim/scripts/fitting_output_new/threshold0.01/curve_exe_v5000_fine.csv
timestamp, cmd_num, J1, J2, J3, J4, J5, J6
0, 1, -22.0103, 43.2858, 24.1255, -32.8071, -59.2113, 146.003
0.002, 1, -22.0103, 43.2858, 24.1255, -32.8071, -59.2113, 146.003
0.004, 1, -22.0103, 43.2858, 24.1255, -32.8071, -59.2113, 146.003
0.008, 1, -22.0103, 43.2858, 24.1255, -32.8071, -59.2113, 146.003
0.011, 1, -22.0103, 43.2858, 24.1255, -32.8071, -59.2113, 146.003
0.016, 1, -22.0103, 43.2858, 24.1255, -32.8071, -59.2113, 146.003
0.02, 1, -22.0103, 43.2858, 24.1255, -32.8071, -59.2113, 146.003
0.024, 1, -22.0103, 43.2858, 24.1255, -32.8071, -59.2113, 146.003
0.028, 1, -22.0103, 43.2858, 24.1255, -32.8071, -59.2113, 146.003
0.032, 1, -22.0103, 43.2858, 24.1255, -32.8071, -59.2113, 146.003
0.036, 1, -22.0103, 43.2858, 24.1255, -32.8071, -59.2113, 146.003
0.04, 1, -22.0103, 43.2858, 24.1255, -32.8071, -59.2113, 146.003
0.044, 1, -22.01, 43.2858, 24.1255, -32.8071, -59.2114, 146.003
0.048, 1, -22.0095, 43.2858, 24.1255, -32.8071, -59.2114, 146.003
0.052, 1, -22.0085, 43.2857, 24.1255, -32.807, -59.2114, 146.003
0.056, 1, -22.0069, 43.2856, 24.1255, -32.8068, -59.2114, 146.002
0.06, 1, -22.0047, 43.2855, 24.1254, -32.8063, -59.2114, 146.002
0.064, 1, -22.0017, 43.2854, 24.1253, -32.8054, -59.2114, 146.001
0.068, 1, -21.998, 43.2852, 24.1249, -32.8038, -59.2114, 146
0.072, 1, -21.9934, 43.285, 24.1243, -32.8012, -59.2113, 145.998
0.076, 1, -21.9877, 43.2848, 24.1233, -32.7972, -59.2111, 145.995
0.08, 1, -21.9809, 43.2846, 24.1218, -32.7914, -59.2109, 145.99
0.084, 1, -21.9727, 43.2845, 24.1196, -32.7833, -59.2105, 145.984
0.088, 1, -21.9627, 43.2843, 24.1166, -32.7722, -59.21, 145.975
0.092, 1, -21.9508, 43.2843, 24.1126, -32.7575, -59.2092, 145.964
0.096, 1, -21.9369, 43.2844, 24.1073, -32.7385, -59.2082, 145.949
0.1, 1, -21.9208, 43.2847, 24.1005, -32.7145, -59.2069, 145.93
0.104, 1, -21.9025, 43.2853, 24.0921, -32.6846, -59.2053, 145.907
0.108, 1, -21.8818, 43.2861, 24.0817, -32.6483, -59.2032, 145.878
0.112, 1, -21.8584, 43.2872, 24.0693, -32.605, -59.2006, 145.845
0.116, 1, -21.8324, 43.2887, 24.0546, -32.554, -59.1976, 145.805
0.12, 1, -21.8037, 43.2905, 24.0376, -32.4951, -59.1941, 145.759
0.124, 1, -21.7723, 43.2928, 24.018, -32.4278, -59.19, 145.706
0.128, 1, -21.7381, 43.2954, 23.996, -32.352, -59.1854, 145.647
0.131, 1, -21.7014, 43.2986, 23.9714, -32.2677, -59.1802, 145.582
0.136, 1, -21.6621, 43.3021, 23.9443, -32.175, -59.1745, 145.51
0.139, 1, -21.6203, 43.3061, 23.9149, -32.0743, -59.1682, 145.431
0.144, 1, -21.5759, 43.3104, 23.8831, -31.9661, -59.1615, 145.347
0.148, 1, -21.529, 43.3151, 23.8493, -31.8508, -59.1543, 145.257
0.152, 1, -21.4796, 43.32, 23.8137, -31.7293, -59.1467, 145.163
0.156, 1, -21.4278, 43.3252, 23.7764, -31.6021, -59.1388, 145.064
0.16, 1, -21.374, 43.3305, 23.7377, -31.47, -59.1306, 144.961
0.164, 1, -21.3183, 43.336, 23.6977, -31.3338, -59.1221, 144.855
0.168, 1, -21.2608, 43.3416, 23.6568, -31.1942, -59.1135, 144.746
0.172, 1, -21.2018, 43.3472, 23.6151, -31.0517, -59.1046, 144.635
0.176, 1, -21.1413, 43.3529, 23.5727, -30.9071, -59.0957, 144.522
0.18, 1, -21.0794, 43.3585, 23.5299, -30.7608, -59.0867, 144.408
0.184, 1, -21.0162, 43.3642, 23.4868, -30.6133, -59.0776, 144.294
0.188, 1, -20.9519, 43.3698, 23.4434, -30.4649, -59.0685, 144.178
0.192, 1, -20.8866, 43.3753, 23.3999, -30.3158, -59.0593, 144.062
0.196, 1, -20.8206, 43.3809, 23.3562, -30.1663, -59.0502, 143.945
0.2, 1, -20.7542, 43.3864, 23.3125, -30.0164, -59.041, 143.829
0.204, 1, -20.6874, 43.3919, 23.2687, -29.8663, -59.0318, 143.712
0.208, 1, -20.6203, 43.3974, 23.2248, -29.7159, -59.0226, 143.595
0.212, 1, -20.553, 43.4029, 23.1809, -29.5653, -59.0134, 143.477
0.216, 1, -20.4856, 43.4084, 23.137, -29.4146, -59.0042, 143.36
0.22, 1, -20.4181, 43.414, 23.093, -29.2638, -58.995, 143.242
0.224, 1, -20.3505, 43.4195, 23.049, -29.1129, -58.9858, 143.125
0.228, 1, -20.2828, 43.425, 23.0049, -28.9618, -58.9766, 143.007
0.232, 1, -20.215, 43.4305, 22.9608, -28.8106, -58.9673, 142.889
0.236, 1, -20.1472, 43.436, 22.9167, -28.6593, -58.9581, 142.771
0.24, 1, -20.0794, 43.4415, 22.8725, -28.5079, -58.9489, 142.654
0.244, 1, -20.0115, 43.4471, 22.8284, -28.3565, -58.9396, 142.536
0.248, 1, -19.9435, 43.4526, 22.7842, -28.2049, -58.9304, 142.417
0.252, 1, -19.8755, 43.4581, 22.7399, -28.0532, -58.9211, 142.299
0.256, 1, -19.8075, 43.4637, 22.6957, -27.9014, -58.9118, 142.181
0.26, 1, -19.7394, 43.4692, 22.6514, -27.7495, -58.9025, 142.063
0.264, 1, -19.6712, 43.4747, 22.607, -27.5975, -58.8933, 141.944
0.268, 1, -19.603, 43.4803, 22.5627, -27.4455, -58.884, 141.826
0.272, 1, -19.5348, 43.4858, 22.5183, -27.2933, -58.8747, 141.707
0.276, 1, -19.4665, 43.4914, 22.4739, -27.141, -58.8654, 141.589
0.28, 1, -19.3982, 43.4969, 22.4295, -26.9886, -58.8561, 141.47
0.284, 1, -19.3299, 43.5025, 22.385, -26.8361, -58.8468, 141.351
0.288, 1, -19.2614, 43.5081, 22.3405, -26.6835, -58.8375, 141.232
0.292, 1, -19.193, 43.5136, 22.296, -26.5309, -58.8281, 141.113
0.296, 1, -19.1245, 43.5192, 22.2514, -26.3781, -58.8188, 140.994
0.3, 1, -19.0559, 43.5248, 22.2068, -26.2252, -58.8095, 140.875
0.304, 1, -18.9874, 43.5304, 22.1622, -26.0722, -58.8001, 140.756
0.308, 1, -18.9187, 43.5359, 22.1176, -25.9191, -58.7908, 140.637
0.312, 1, -18.85, 43.5415, 22.0729, -25.766, -58.7814, 140.517
0.316, 1, -18.7813, 43.5471, 22.0282, -25.6127, -58.7721, 140.398
0.32, 1, -18.7126, 43.5527, 21.9835, -25.4593, -58.7627, 140.279
0.324, 1, -18.6437, 43.5583, 21.9387, -25.3058, -58.7533, 140.159
0.328, 1, -18.5749, 43.5639, 21.8939, -25.1522, -58.7439, 140.039
0.332, 1, -18.506, 43.5695, 21.8491, -24.9985, -58.7346, 139.92
0.336, 1, -18.437, 43.5751, 21.8043, -24.8447, -58.7252, 139.8
0.34, 1, -18.368, 43.5807, 21.7594, -24.6908, -58.7158, 139.68
0.344, 1, -18.299, 43.5864, 21.7145, -24.5369, -58.7064, 139.56
0.348, 1, -18.2299, 43.592, 21.6695, -24.3828, -58.697, 139.44
0.352, 1, -18.1608, 43.5976, 21.6246, -24.2286, -58.6875, 139.32
0.356, 1, -18.0916, 43.6032, 21.5796, -24.0743, -58.6781, 139.2
0.36, 1, -18.0224, 43.6089, 21.5346, -23.9199, -58.6687, 139.079
0.364, 1, -17.9531, 43.6145, 21.4895, -23.7654, -58.6593, 138.959
0.368, 1, -17.8838, 43.6201, 21.4444, -23.6108, -58.6498, 138.839
0.372, 1, -17.8144, 43.6258, 21.3993, -23.4561, -58.6404, 138.718
0.376, 1, -17.745, 43.6314, 21.3542, -23.3012, -58.6309, 138.597
0.38, 1, -17.6755, 43.6371, 21.309, -23.1463, -58.6215, 138.477
0.384, 1, -17.606, 43.6427, 21.2638, -22.9913, -58.612, 138.356
0.388, 1, -17.5365, 43.6484, 21.2185, -22.8362, -58.6025, 138.235
0.392, 1, -17.4669, 43.654, 21.1733, -22.681, -58.593, 138.114
0.396, 1, -17.3973, 43.6597, 21.128, -22.5256, -58.5836, 137.993
0.4, 1, -17.3276, 43.6654, 21.0826, -22.3702, -58.5741, 137.872
0.404, 1, -17.2578, 43.671, 21.0373, -22.2147, -58.5646, 137.751
0.408, 1, -17.1881, 43.6767, 20.9919, -22.059, -58.5551, 137.63
0.412, 1, -17.1182, 43.6824, 20.9465, -21.9033, -58.5456, 137.508
0.416, 1, -17.0484, 43.6881, 20.901, -21.7474, -58.536, 137.387
0.42, 1, -16.9784, 43.6938, 20.8555, -21.5915, -58.5265, 137.265
0.424, 1, -16.9085, 43.6995, 20.81, -21.4354, -58.517, 137.144
0.428, 1, -16.8385, 43.7052, 20.7645, -21.2792, -58.5074, 137.022
0.432, 1, -16.7684, 43.7109, 20.7189, -21.123, -58.4979, 136.9
0.436, 1, -16.6983, 43.7166, 20.6733, -20.9666, -58.4884, 136.779
0.44, 1, -16.6281, 43.7223, 20.6277, -20.8101, -58.4788, 136.657
0.444, 1, -16.5579, 43.728, 20.582, -20.6535, -58.4692, 136.535
0.448, 1, -16.4877, 43.7337, 20.5363, -20.4969, -58.4597, 136.413
0.452, 1, -16.4174, 43.7394, 20.4906, -20.3401, -58.4501, 136.291
0.456, 1, -16.3471, 43.7451, 20.4449, -20.1832, -58.4405, 136.168
0.46, 1, -16.2767, 43.7509, 20.3991, -20.0262, -58.4309, 136.046
0.464, 1, -16.2062, 43.7566, 20.3533, -19.8691, -58.4213, 135.924
0.468, 1, -16.1358, 43.7623, 20.3074, -19.7119, -58.4117, 135.801
0.472, 1, -16.0652, 43.7681, 20.2615, -19.5545, -58.4021, 135.679
0.476, 1, -15.9947, 43.7738, 20.2156, -19.3971, -58.3925, 135.556
0.48, 1, -15.924, 43.7795, 20.1697, -19.2396, -58.3829, 135.433
0.484, 1, -15.8534, 43.7853, 20.1237, -19.082, -58.3733, 135.311
0.488, 1, -15.7827, 43.791, 20.0777, -18.9243, -58.3636, 135.188
0.492, 1, -15.7119, 43.7968, 20.0317, -18.7664, -58.354, 135.065
0.496, 1, -15.6411, 43.8026, 19.9856, -18.6085, -58.3444, 134.942
0.5, 1, -15.5702, 43.8083, 19.9396, -18.4504, -58.3347, 134.819
0.504, 1, -15.4993, 43.8141, 19.8934, -18.2923, -58.3251, 134.695
0.508, 1, -15.4284, 43.8199, 19.8473, -18.134, -58.3154, 134.572
0.512, 1, -15.3574, 43.8256, 19.8011, -17.9757, -58.3057, 134.449
0.516, 1, -15.2863, 43.8314, 19.7549, -17.8172, -58.296, 134.325
0.52, 1, -15.2153, 43.8372, 19.7087, -17.6587, -58.2864, 134.202
0.524, 1, -15.1441, 43.843, 19.6624, -17.5, -58.2767, 134.078
0.528, 1, -15.0729, 43.8488, 19.6161, -17.3412, -58.267, 133.954
0.532, 1, -15.0017, 43.8546, 19.5697, -17.1823, -58.2573, 133.831
0.536, 1, -14.9304, 43.8604, 19.5234, -17.0233, -58.2476, 133.707
0.54, 1, -14.8591, 43.8662, 19.477, -16.8643, -58.2378, 133.583
0.544, 1, -14.7877, 43.872, 19.4306, -16.7051, -58.2281, 133.459
0.548, 1, -14.7163, 43.8778, 19.3841, -16.5458, -58.2184, 133.335
0.552, 1, -14.6448, 43.8836, 19.3376, -16.3864, -58.2087, 133.211
0.556, 1, -14.5733, 43.8894, 19.2911, -16.2268, -58.1989, 133.086
0.56, 1, -14.5018, 43.8952, 19.2446, -16.0672, -58.1892, 132.962
0.564, 1, -14.4302, 43.901, 19.198, -15.9075, -58.1794, 132.838
0.568, 1, -14.3585, 43.9069, 19.1514, -15.7477, -58.1697, 132.713
0.572, 1, -14.2868, 43.9127, 19.1047, -15.5878, -58.1599, 132.588
0.576, 1, -14.2151, 43.9185, 19.0581, -15.4277, -58.1501, 132.464
0.58, 1, -14.1433, 43.9244, 19.0114, -15.2676, -58.1403, 132.339
0.584, 1, -14.0714, 43.9302, 18.9646, -15.1074, -58.1306, 132.214
0.588, 1, -13.9995, 43.9361, 18.9179, -14.947, -58.1208, 132.089
0.592, 1, -13.9276, 43.9419, 18.8711, -14.7866, -58.111, 131.964
0.596, 1, -13.8556, 43.9478, 18.8243, -14.626, -58.1012, 131.839
0.6, 1, -13.7836, 43.9536, 18.7774, -14.4653, -58.0914, 131.714
0.604, 1, -13.7115, 43.9595, 18.7305, -14.3046, -58.0815, 131.589
0.608, 1, -13.6394, 43.9654, 18.6836, -14.1437, -58.0717, 131.463
0.612, 1, -13.5672, 43.9712, 18.6367, -13.9827, -58.0619, 131.338
0.616, 1, -13.495, 43.9771, 18.5897, -13.8216, -58.052, 131.213
0.62, 1, -13.4227, 43.983, 18.5427, -13.6604, -58.0422, 131.087
0.624, 1, -13.3504, 43.9889, 18.4956, -13.4991, -58.0324, 130.961
0.628, 1, -13.2781, 43.9948, 18.4486, -13.3377, -58.0225, 130.836
0.632, 1, -13.2057, 44.0007, 18.4015, -13.1762, -58.0126, 130.71
0.636, 1, -13.1332, 44.0065, 18.3543, -13.0146, -58.0028, 130.584
0.64, 1, -13.0607, 44.0124, 18.3072, -12.8529, -57.9929, 130.458
0.644, 1, -12.9882, 44.0183, 18.26, -12.6911, -57.983, 130.332
0.648, 1, -12.9156, 44.0243, 18.2128, -12.5291, -57.9731, 130.206
0.652, 1, -12.8429, 44.0302, 18.1655, -12.3671, -57.9632, 130.079
0.656, 1, -12.7703, 44.0361, 18.1182, -12.205, -57.9533, 129.953
0.66, 1, -12.6975, 44.042, 18.0709, -12.0427, -57.9434, 129.827
0.664, 1, -12.6248, 44.0479, 18.0236, -11.8804, -57.9335, 129.7
0.668, 1, -12.5519, 44.0538, 17.9762, -11.718, -57.9236, 129.574
0.672, 1, -12.4791, 44.0598, 17.9288, -11.5554, -57.9137, 129.447
0.676, 1, -12.4061, 44.0657, 17.8814, -11.3928, -57.9037, 129.32
0.68, 1, -12.3332, 44.0716, 17.8339, -11.23, -57.8938, 129.194
0.684, 1, -12.2602, 44.0776, 17.7864, -11.0672, -57.8838, 129.067
0.688, 1, -12.1871, 44.0835, 17.7389, -10.9042, -57.8739, 128.94
0.692, 1, -12.114, 44.0895, 17.6914, -10.7412, -57.8639, 128.813
0.696, 1, -12.0409, 44.0954, 17.6438, -10.578, -57.854, 128.686
0.7, 1, -11.9677, 44.1014, 17.5962, -10.4148, -57.844, 128.559
0.704, 1, -11.8945, 44.1073, 17.5485, -10.2514, -57.834, 128.431
0.708, 1, -11.8212, 44.1133, 17.5009, -10.0879, -57.8241, 128.304
0.712, 1, -11.7479, 44.1192, 17.4532, -9.92439, -57.8141, 128.177
0.716, 1, -11.6745, 44.1252, 17.4054, -9.76074, -57.8041, 128.049
0.72, 1, -11.6011, 44.1312, 17.3577, -9.59698, -57.7941, 127.921
0.724, 1, -11.5277, 44.1372, 17.3099, -9.43313, -57.7841, 127.794
0.728, 1, -11.4542, 44.1431, 17.2621, -9.26918, -57.7741, 127.666
0.732, 1, -11.3806, 44.1491, 17.2143, -9.10513, -57.764, 127.538
0.736, 1, -11.307, 44.1551, 17.1664, -8.94099, -57.754, 127.41
0.74, 1, -11.2334, 44.1611, 17.1185, -8.77674, -57.744, 127.283
0.744, 1, -11.1598, 44.1671, 17.0706, -8.6124, -57.734, 127.154
0.748, 1, -11.086, 44.1731, 17.0226, -8.44796, -57.7239, 127.026
0.752, 1, -11.0123, 44.1791, 16.9746, -8.28343, -57.7139, 126.898
0.756, 1, -10.9385, 44.1851, 16.9266, -8.1188, -57.7038, 126.77
0.76, 1, -10.8646, 44.1911, 16.8786, -7.95407, -57.6937, 126.642
0.764, 1, -10.7907, 44.1971, 16.8305, -7.78924, -57.6837, 126.513
0.768, 1, -10.7168, 44.2031, 16.7824, -7.62433, -57.6736, 126.385
0.772, 1, -10.6428, 44.2091, 16.7343, -7.45931, -57.6635, 126.256
0.776, 1, -10.5688, 44.2152, 16.6862, -7.2942, -57.6535, 126.128
0.78, 1, -10.4948, 44.2212, 16.638, -7.129, -57.6434, 125.999
0.784, 1, -10.4207, 44.2272, 16.5898, -6.9637, -57.6333, 125.87
0.788, 1, -10.3465, 44.2332, 16.5415, -6.79831, -57.6232, 125.741
0.792, 1, -10.2723, 44.2393, 16.4933, -6.63283, -57.6131, 125.612
0.796, 1, -10.1981, 44.2453, 16.445, -6.46725, -57.603, 125.483
0.8, 1, -10.1239, 44.2514, 16.3967, -6.30158, -57.5928, 125.354
0.804, 1, -10.0495, 44.2574, 16.3483, -6.13581, -57.5827, 125.225
0.808, 1, -9.9752, 44.2635, 16.3, -5.96996, -57.5726, 125.096
0.812, 1, -9.90081, 44.2695, 16.2516, -5.80401, -57.5625, 124.967
0.816, 1, -9.82638, 44.2756, 16.2032, -5.63797, -57.5523, 124.837
0.82, 1, -9.75191, 44.2816, 16.1547, -5.47184, -57.5422, 124.708
0.824, 1, -9.67739, 44.2877, 16.1062, -5.30562, -57.532, 124.578
0.828, 1, -9.60284, 44.2938, 16.0577, -5.13931, -57.5219, 124.449
0.832, 1, -9.52824, 44.2998, 16.0092, -4.97291, -57.5117, 124.319
0.836, 1, -9.45361, 44.3059, 15.9607, -4.80642, -57.5015, 124.19
0.84, 1, -9.37893, 44.312, 15.9121, -4.63984, -57.4914, 124.06
0.844, 1, -9.30422, 44.318, 15.8635, -4.47317, -57.4812, 123.93
0.848, 1, -9.22946, 44.3241, 15.8148, -4.30641, -57.471, 123.8
0.852, 1, -9.15467, 44.3302, 15.7662, -4.13956, -57.4608, 123.67
0.856, 1, -9.07983, 44.3363, 15.7175, -3.97263, -57.4506, 123.54
0.86, 1, -9.00496, 44.3424, 15.6688, -3.8056, -57.4404, 123.41
0.864, 1, -8.93005, 44.3485, 15.6201, -3.63849, -57.4302, 123.28
0.868, 1, -8.8551, 44.3546, 15.5713, -3.47129, -57.42, 123.149
0.872, 1, -8.78011, 44.3607, 15.5225, -3.30401, -57.4098, 123.019
0.876, 1, -8.70508, 44.3668, 15.4737, -3.13664, -57.3996, 122.889
0.88, 1, -8.63002, 44.3729, 15.4249, -2.96918, -57.3893, 122.758
0.884, 1, -8.55492, 44.379, 15.376, -2.80163, -57.3791, 122.628
0.888, 1, -8.47978, 44.3851, 15.3271, -2.63401, -57.3689, 122.497
0.892, 1, -8.4046, 44.3912, 15.2782, -2.46629, -57.3586, 122.367
0.896, 1, -8.32939, 44.3974, 15.2293, -2.29849, -57.3484, 122.236
0.9, 1, -8.25415, 44.4035, 15.1803, -2.13061, -57.3381, 122.105
0.904, 1, -8.17886, 44.4096, 15.1313, -1.96265, -57.3279, 121.974
0.908, 1, -8.10354, 44.4157, 15.0823, -1.79461, -57.3176, 121.843
0.912, 1, -8.02818, 44.4219, 15.0333, -1.62648, -57.3074, 121.712
0.916, 1, -7.95279, 44.428, 14.9842, -1.45827, -57.2971, 121.581
0.92, 1, -7.87736, 44.4341, 14.9352, -1.28999, -57.2868, 121.45
0.924, 1, -7.8019, 44.4403, 14.8861, -1.12162, -57.2765, 121.319
0.928, 1, -7.7264, 44.4464, 14.8369, -0.95318, -57.2662, 121.188
0.932, 1, -7.65087, 44.4526, 14.7878, -0.784661, -57.2559, 121.056
0.936, 1, -7.5753, 44.4587, 14.7386, -0.616065, -57.2457, 120.925
0.94, 1, -7.4997, 44.4649, 14.6894, -0.447393, -57.2354, 120.794
0.944, 1, -7.42407, 44.471, 14.6402, -0.278646, -57.225, 120.662
0.948, 1, -7.3484, 44.4772, 14.591, -0.109825, -57.2147, 120.531
0.952, 1, -7.2727, 44.4833, 14.5417, 0.0590694, -57.2044, 120.399
0.956, 1, -7.19697, 44.4895, 14.4925, 0.228036, -57.1941, 120.268
0.96, 1, -7.12121, 44.4957, 14.4432, 0.397075, -57.1838, 120.136
0.964, 1, -7.04541, 44.5018, 14.3939, 0.566184, -57.1735, 120.004
0.968, 1, -6.96958, 44.508, 14.3445, 0.735363, -57.1631, 119.872
0.972, 1, -6.89373, 44.5142, 14.2952, 0.904611, -57.1528, 119.741
0.976, 1, -6.81784, 44.5204, 14.2458, 1.07393, -57.1425, 119.609
0.98, 1, -6.74192, 44.5265, 14.1964, 1.24331, -57.1321, 119.477
0.984, 1, -6.66597, 44.5327, 14.147, 1.41276, -57.1218, 119.345
0.988, 1, -6.59, 44.5389, 14.0975, 1.58228, -57.1114, 119.213
0.992, 1, -6.51399, 44.5451, 14.0481, 1.75186, -57.1011, 119.081
0.996, 1, -6.43796, 44.5513, 13.9986, 1.9215, -57.0907, 118.948
1, 1, -6.36189, 44.5575, 13.9491, 2.09121, -57.0803, 118.816
1.004, 1, -6.2858, 44.5637, 13.8996, 2.26098, -57.07, 118.684
1.008, 1, -6.20968, 44.5699, 13.8501, 2.43081, -57.0596, 118.552
1.012, 1, -6.13354, 44.5761, 13.8005, 2.6007, -57.0492, 118.419
1.016, 1, -6.05737, 44.5823, 13.751, 2.77065, -57.0388, 118.287
1.02, 1, -5.98117, 44.5885, 13.7014, 2.94067, -57.0285, 118.154
1.024, 1, -5.90494, 44.5947, 13.6518, 3.11074, -57.0181, 118.022
1.027, 1, -5.8287, 44.6009, 13.6022, 3.28086, -57.0077, 117.889
1.032, 1, -5.75242, 44.6071, 13.5526, 3.45104, -56.9973, 117.757
1.036, 1, -5.67612, 44.6133, 13.5029, 3.62128, -56.9869, 117.624
1.04, 1, -5.5998, 44.6195, 13.4532, 3.79157, -56.9765, 117.492
1.044, 1, -5.52345, 44.6257, 13.4036, 3.96192, -56.9661, 117.359
1.048, 1, -5.44708, 44.6319, 13.3539, 4.13232, -56.9557, 117.226
1.052, 1, -5.37068, 44.6381, 13.3042, 4.30277, -56.9453, 117.093
1.055, 1, -5.29427, 44.6444, 13.2544, 4.47327, -56.9349, 116.96
1.06, 1, -5.21783, 44.6506, 13.2047, 4.64382, -56.9245, 116.828
1.064, 1, -5.14137, 44.6568, 13.155, 4.81442, -56.914, 116.695
1.068, 1, -5.06488, 44.663, 13.1052, 4.98507, -56.9036, 116.562
1.072, 1, -4.98838, 44.6693, 13.0554, 5.15577, -56.8932, 116.429
1.076, 1, -4.91185, 44.6755, 13.0056, 5.32651, -56.8828, 116.296
1.08, 1, -4.83531, 44.6817, 12.9558, 5.4973, -56.8723, 116.163
1.084, 1, -4.75874, 44.6879, 12.906, 5.66813, -56.8619, 116.03
1.088, 1, -4.68216, 44.6942, 12.8562, 5.83901, -56.8515, 115.897
1.091, 1, -4.60555, 44.7004, 12.8063, 6.00993, -56.841, 115.763
1.096, 1, -4.52893, 44.7066, 12.7564, 6.18089, -56.8306, 115.63
1.1, 1, -4.45229, 44.7129, 12.7066, 6.3519, -56.8202, 115.497
1.104, 1, -4.37563, 44.7191, 12.6567, 6.52294, -56.8097, 115.364
1.108, 1, -4.29895, 44.7254, 12.6068, 6.69402, -56.7993, 115.23
1.112, 1, -4.22226, 44.7316, 12.5569, 6.86514, -56.7888, 115.097
1.116, 1, -4.14555, 44.7379, 12.507, 7.0363, -56.7784, 114.964
1.119, 1, -4.06882, 44.7441, 12.4571, 7.20749, -56.7679, 114.83
1.124, 1, -3.99208, 44.7503, 12.4071, 7.37872, -56.7575, 114.697
1.128, 1, -3.91532, 44.7566, 12.3572, 7.54999, -56.747, 114.564
1.132, 1, -3.83855, 44.7628, 12.3072, 7.72129, -56.7365, 114.43
1.136, 1, -3.76176, 44.7691, 12.2573, 7.89262, -56.7261, 114.297
1.14, 1, -3.68496, 44.7753, 12.2073, 8.06398, -56.7156, 114.163
1.144, 1, -3.60815, 44.7816, 12.1573, 8.23538, -56.7051, 114.03
1.147, 1, -3.53132, 44.7878, 12.1073, 8.4068, -56.6947, 113.896
1.152, 1, -3.45448, 44.7941, 12.0573, 8.57826, -56.6842, 113.763
1.156, 1, -3.37763, 44.8004, 12.0073, 8.74974, -56.6737, 113.629
1.16, 1, -3.30078, 44.8066, 11.9573, 8.92125, -56.6633, 113.495
1.164, 1, -3.22391, 44.8129, 11.9072, 9.09278, -56.6528, 113.362
1.168, 1, -3.14703, 44.8191, 11.8572, 9.26434, -56.6423, 113.228
1.172, 1, -3.07014, 44.8254, 11.8072, 9.43592, -56.6318, 113.094
1.175, 1, -2.99324, 44.8317, 11.7571, 9.60752, -56.6214, 112.961
1.18, 1, -2.91633, 44.8379, 11.7071, 9.77915, -56.6109, 112.827
1.184, 1, -2.83941, 44.8442, 11.657, 9.95079, -56.6004, 112.693
1.188, 1, -2.76249, 44.8504, 11.607, 10.1224, -56.5899, 112.56
1.192, 1, -2.68556, 44.8567, 11.5569, 10.2941, -56.5794, 112.426
1.196, 1, -2.60862, 44.863, 11.5068, 10.4658, -56.5689, 112.292
1.2, 1, -2.53168, 44.8692, 11.4567, 10.6375, -56.5585, 112.158
1.204, 1, -2.45473, 44.8755, 11.4067, 10.8092, -56.548, 112.025
1.208, 1, -2.37777, 44.8818, 11.3566, 10.981, -56.5375, 111.891
1.212, 1, -2.30082, 44.888, 11.3065, 11.1527, -56.527, 111.757
1.216, 1, -2.22386, 44.8943, 11.2564, 11.3244, -56.5165, 111.623
1.22, 1, -2.14689, 44.9006, 11.2063, 11.4962, -56.506, 111.489
1.224, 1, -2.06992, 44.9068, 11.1562, 11.6679, -56.4955, 111.356
1.228, 1, -1.99296, 44.9131, 11.1061, 11.8397, -56.485, 111.222
1.232, 1, -1.91599, 44.9194, 11.0561, 12.0115, -56.4746, 111.088
1.236, 1, -1.83902, 44.9256, 11.006, 12.1832, -56.4641, 110.954
1.24, 1, -1.76205, 44.9319, 10.9559, 12.355, -56.4536, 110.82
1.244, 1, -1.68508, 44.9382, 10.9058, 12.5268, -56.4431, 110.687
1.248, 1, -1.60811, 44.9444, 10.8557, 12.6985, -56.4326, 110.553
1.252, 1, -1.53114, 44.9507, 10.8056, 12.8703, -56.4221, 110.419
1.256, 1, -1.45418, 44.957, 10.7555, 13.042, -56.4116, 110.285
1.26, 1, -1.37721, 44.9632, 10.7054, 13.2138, -56.4011, 110.151
1.264, 1, -1.30026, 44.9695, 10.6553, 13.3855, -56.3907, 110.018
1.267, 1, -1.2233, 44.9758, 10.6052, 13.5572, -56.3802, 109.884
1.272, 1, -1.14636, 44.982, 10.5552, 13.729, -56.3697, 109.75
1.276, 1, -1.06941, 44.9883, 10.5051, 13.9007, -56.3592, 109.616
1.28, 1, -0.992475, 44.9946, 10.455, 14.0724, -56.3487, 109.483
1.284, 1, -0.915544, 45.0008, 10.405, 14.244, -56.3382, 109.349
1.288, 1, -0.83862, 45.0071, 10.3549, 14.4157, -56.3277, 109.215
1.292, 1, -0.761705, 45.0134, 10.3048, 14.5874, -56.3173, 109.081
1.295, 1, -0.684798, 45.0196, 10.2548, 14.759, -56.3068, 108.948
1.3, 1, -0.607899, 45.0259, 10.2047, 14.9306, -56.2963, 108.814
1.304, 1, -0.531011, 45.0321, 10.1547, 15.1022, -56.2858, 108.68
1.308, 1, -0.454132, 45.0384, 10.1047, 15.2737, -56.2754, 108.547
1.312, 1, -0.377264, 45.0447, 10.0546, 15.4453, -56.2649, 108.413
1.316, 1, -0.300408, 45.0509, 10.0046, 15.6168, -56.2544, 108.279
1.32, 1, -0.223563, 45.0572, 9.9546, 15.7883, -56.2439, 108.146
1.324, 1, -0.146731, 45.0634, 9.90459, 15.9597, -56.2335, 108.012
1.328, 1, -0.0699125, 45.0697, 9.8546, 16.1312, -56.223, 107.879
1.332, 1, 0.00689264, 45.0759, 9.80461, 16.3026, -56.2125, 107.745
1.336, 1, 0.0836836, 45.0822, 9.75463, 16.4739, -56.2021, 107.612
1.34, 1, 0.16046, 45.0884, 9.70467, 16.6453, -56.1916, 107.478
1.344, 1, 0.23722, 45.0947, 9.65471, 16.8166, -56.1811, 107.345
1.348, 1, 0.313965, 45.1009, 9.60476, 16.9878, -56.1707, 107.211
1.352, 1, 0.390693, 45.1072, 9.55483, 17.159, -56.1602, 107.078
1.356, 1, 0.467404, 45.1134, 9.5049, 17.3302, -56.1498, 106.945
1.36, 1, 0.544097, 45.1197, 9.45499, 17.5014, -56.1393, 106.811
1.364, 1, 0.620772, 45.1259, 9.40509, 17.6725, -56.1289, 106.678
1.368, 1, 0.697429, 45.1322, 9.3552, 17.8436, -56.1184, 106.545
1.372, 1, 0.774067, 45.1384, 9.30532, 18.0146, -56.108, 106.412
1.376, 1, 0.850684, 45.1447, 9.25546, 18.1856, -56.0975, 106.278
1.38, 1, 0.927282, 45.1509, 9.20561, 18.3565, -56.0871, 106.145
1.384, 1, 1.00386, 45.1571, 9.15577, 18.5274, -56.0767, 106.012
1.388, 1, 1.08041, 45.1634, 9.10595, 18.6982, -56.0662, 105.879
1.392, 1, 1.15694, 45.1696, 9.05614, 18.869, -56.0558, 105.746
1.396, 1, 1.23345, 45.1758, 9.00634, 19.0397, -56.0454, 105.613
1.4, 1, 1.30994, 45.1821, 8.95657, 19.2104, -56.035, 105.48
1.404, 1, 1.3864, 45.1883, 8.9068, 19.381, -56.0245, 105.347
1.408, 1, 1.46283, 45.1945, 8.85706, 19.5516, -56.0141, 105.214
1.412, 1, 1.53924, 45.2007, 8.80733, 19.7221, -56.0037, 105.081
1.416, 1, 1.61563, 45.2069, 8.75761, 19.8926, -55.9933, 104.949
1.42, 1, 1.69198, 45.2132, 8.70792, 20.063, -55.9829, 104.816
1.424, 1, 1.76831, 45.2194, 8.65824, 20.2333, -55.9725, 104.683
1.428, 1, 1.84461, 45.2256, 8.60857, 20.4036, -55.9621, 104.55
1.432, 1, 1.92089, 45.2318, 8.55893, 20.5738, -55.9517, 104.418
1.436, 1, 1.99713, 45.238, 8.50931, 20.744, -55.9413, 104.285
1.44, 1, 2.07335, 45.2442, 8.4597, 20.9141, -55.9309, 104.153
1.444, 1, 2.14953, 45.2504, 8.41011, 21.0841, -55.9206, 104.02
1.448, 1, 2.22569, 45.2566, 8.36055, 21.2541, -55.9102, 103.888
1.452, 1, 2.30181, 45.2628, 8.311, 21.424, -55.8998, 103.756
1.456, 1, 2.3779, 45.269, 8.26147, 21.5938, -55.8894, 103.623
1.46, 1, 2.45396, 45.2752, 8.21197, 21.7635, -55.8791, 103.491
1.464, 1, 2.52998, 45.2814, 8.16249, 21.9332, -55.8687, 103.359
1.468, 1, 2.60598, 45.2876, 8.11303, 22.1028, -55.8583, 103.227
1.472, 1, 2.68194, 45.2938, 8.06359, 22.2723, -55.848, 103.095
1.476, 1, 2.75786, 45.3, 8.01417, 22.4417, -55.8377, 102.963
1.48, 1, 2.83375, 45.3062, 7.96478, 22.6111, -55.8273, 102.831
1.484, 1, 2.9096, 45.3123, 7.91541, 22.7804, -55.817, 102.699
1.488, 1, 2.98541, 45.3185, 7.86606, 22.9496, -55.8066, 102.567
1.492, 1, 3.06119, 45.3247, 7.81674, 23.1187, -55.7963, 102.435
1.496, 1, 3.13693, 45.3309, 7.76744, 23.2877, -55.786, 102.304
1.5, 1, 3.21263, 45.337, 7.71817, 23.4567, -55.7757, 102.172
1.504, 1, 3.2883, 45.3432, 7.66893, 23.6255, -55.7654, 102.04
1.508, 1, 3.36392, 45.3493, 7.61971, 23.7943, -55.7551, 101.909
1.512, 1, 3.4395, 45.3555, 7.57051, 23.963, -55.7448, 101.778
1.516, 1, 3.51504, 45.3616, 7.52135, 24.1315, -55.7345, 101.646
1.52, 1, 3.59054, 45.3678, 7.47221, 24.3, -55.7242, 101.515
1.524, 1, 3.666, 45.374, 7.42309, 24.4684, -55.7139, 101.384
1.528, 1, 3.74142, 45.3801, 7.37401, 24.6367, -55.7036, 101.253
1.532, 1, 3.81679, 45.3862, 7.32495, 24.805, -55.6933, 101.122
1.536, 1, 3.89212, 45.3924, 7.27592, 24.9731, -55.6831, 100.991
1.54, 1, 3.96741, 45.3985, 7.22692, 25.1411, -55.6728, 100.86
1.544, 1, 4.04265, 45.4046, 7.17795, 25.309, -55.6626, 100.729
1.548, 1, 4.11784, 45.4108, 7.12901, 25.4768, -55.6523, 100.598
1.552, 1, 4.19299, 45.4169, 7.0801, 25.6445, -55.6421, 100.468
1.556, 1, 4.26809, 45.423, 7.03122, 25.8121, -55.6318, 100.337
1.56, 1, 4.34315, 45.4291, 6.98237, 25.9796, -55.6216, 100.207
1.564, 1, 4.41816, 45.4352, 6.93355, 26.147, -55.6114, 100.076
1.568, 1, 4.49312, 45.4413, 6.88476, 26.3143, -55.6012, 99.9459
1.572, 1, 4.56803, 45.4474, 6.836, 26.4815, -55.591, 99.8156
1.576, 1, 4.64289, 45.4535, 6.78728, 26.6485, -55.5808, 99.6855
1.58, 1, 4.7177, 45.4596, 6.73859, 26.8155, -55.5706, 99.5554
1.584, 1, 4.79247, 45.4657, 6.68993, 26.9823, -55.5604, 99.4254
1.588, 1, 4.86718, 45.4718, 6.6413, 27.1491, -55.5502, 99.2956
1.592, 1, 4.94184, 45.4779, 6.59271, 27.3157, -55.54, 99.1658
1.596, 1, 5.01645, 45.4839, 6.54415, 27.4822, -55.5299, 99.0361
1.6, 1, 5.09101, 45.49, 6.49563, 27.6486, -55.5197, 98.9064
1.604, 1, 5.16551, 45.4961, 6.44714, 27.8148, -55.5096, 98.7769
1.608, 1, 5.23996, 45.5022, 6.39868, 27.981, -55.4994, 98.6475
1.612, 1, 5.31436, 45.5082, 6.35026, 28.147, -55.4893, 98.5182
1.616, 1, 5.3887, 45.5143, 6.30187, 28.3129, -55.4791, 98.3889
1.62, 1, 5.46299, 45.5203, 6.25352, 28.4787, -55.469, 98.2598
1.624, 1, 5.53722, 45.5264, 6.20521, 28.6443, -55.4589, 98.1307
1.628, 1, 5.6114, 45.5324, 6.15693, 28.8099, -55.4488, 98.0018
1.632, 1, 5.68553, 45.5384, 6.10869, 28.9753, -55.4387, 97.8729
1.636, 1, 5.75959, 45.5445, 6.06049, 29.1406, -55.4286, 97.7441
1.64, 1, 5.8336, 45.5505, 6.01232, 29.3057, -55.4185, 97.6155
1.644, 1, 5.90756, 45.5565, 5.96419, 29.4707, -55.4084, 97.4869
1.648, 1, 5.98145, 45.5626, 5.9161, 29.6356, -55.3984, 97.3585
1.652, 1, 6.05529, 45.5686, 5.86805, 29.8004, -55.3883, 97.2301
1.656, 1, 6.12907, 45.5746, 5.82003, 29.965, -55.3783, 97.1019
1.66, 1, 6.20279, 45.5806, 5.77206, 30.1295, -55.3682, 96.9737
1.664, 1, 6.27645, 45.5866, 5.72412, 30.2939, -55.3582, 96.8457
1.668, 1, 6.35005, 45.5926, 5.67622, 30.4581, -55.3481, 96.7177
1.672, 1, 6.42359, 45.5986, 5.62836, 30.6222, -55.3381, 96.5899
1.676, 1, 6.49707, 45.6045, 5.58054, 30.7862, -55.3281, 96.4621
1.68, 1, 6.57049, 45.6105, 5.53276, 30.95, -55.3181, 96.3345
1.684, 1, 6.64385, 45.6165, 5.48502, 31.1137, -55.3081, 96.207
1.688, 1, 6.71714, 45.6225, 5.43732, 31.2773, -55.2981, 96.0796
1.692, 1, 6.79038, 45.6284, 5.38966, 31.4407, -55.2882, 95.9523
1.696, 1, 6.86355, 45.6344, 5.34204, 31.604, -55.2782, 95.8251
1.7, 1, 6.93666, 45.6404, 5.29446, 31.7671, -55.2682, 95.698
1.704, 1, 7.0097, 45.6463, 5.24692, 31.9301, -55.2583, 95.571
1.708, 1, 7.08268, 45.6522, 5.19943, 32.093, -55.2483, 95.4441
1.712, 1, 7.1556, 45.6582, 5.15197, 32.2557, -55.2384, 95.3174
1.716, 1, 7.22845, 45.6641, 5.10456, 32.4182, -55.2285, 95.1908
1.72, 1, 7.30124, 45.67, 5.05719, 32.5807, -55.2185, 95.0642
1.724, 1, 7.37396, 45.676, 5.00987, 32.7429, -55.2086, 94.9378
1.728, 1, 7.44661, 45.6819, 4.96258, 32.9051, -55.1987, 94.8115
1.732, 1, 7.51921, 45.6878, 4.91534, 33.0671, -55.1888, 94.6853
1.736, 1, 7.59173, 45.6937, 4.86814, 33.2289, -55.179, 94.5592
1.74, 1, 7.66419, 45.6996, 4.82099, 33.3906, -55.1691, 94.4333
1.744, 1, 7.73658, 45.7055, 4.77388, 33.5521, -55.1592, 94.3074
1.748, 1, 7.8089, 45.7114, 4.72681, 33.7135, -55.1494, 94.1817
1.752, 1, 7.88116, 45.7173, 4.67979, 33.8747, -55.1395, 94.0561
1.756, 1, 7.95335, 45.7232, 4.63281, 34.0358, -55.1297, 93.9306
1.76, 1, 8.02547, 45.729, 4.58587, 34.1967, -55.1199, 93.8053
1.764, 1, 8.09752, 45.7349, 4.53898, 34.3575, -55.1101, 93.68
1.768, 1, 8.16951, 45.7408, 4.49214, 34.5181, -55.1002, 93.5549
1.772, 1, 8.24142, 45.7466, 4.44534, 34.6786, -55.0904, 93.4299
1.776, 1, 8.31326, 45.7525, 4.39858, 34.8389, -55.0807, 93.305
1.78, 1, 8.38504, 45.7583, 4.35187, 34.9991, -55.0709, 93.1802
1.784, 1, 8.45674, 45.7642, 4.30521, 35.1591, -55.0611, 93.0556
1.788, 1, 8.52837, 45.77, 4.25859, 35.3189, -55.0513, 92.9311
1.792, 1, 8.59994, 45.7758, 4.21202, 35.4786, -55.0416, 92.8067
1.796, 1, 8.67143, 45.7817, 4.1655, 35.6381, -55.0319, 92.6824
1.8, 1, 8.74285, 45.7875, 4.11902, 35.7975, -55.0221, 92.5583
1.804, 1, 8.8142, 45.7933, 4.07259, 35.9567, -55.0124, 92.4342
1.808, 1, 8.88548, 45.7991, 4.02621, 36.1157, -55.0027, 92.3103
1.812, 1, 8.95668, 45.8049, 3.97987, 36.2746, -54.993, 92.1866
1.816, 1, 9.02781, 45.8107, 3.93358, 36.4333, -54.9833, 92.0629
1.82, 1, 9.09887, 45.8165, 3.88734, 36.5919, -54.9736, 91.9394
1.824, 1, 9.16986, 45.8222, 3.84114, 36.7503, -54.9639, 91.816
1.828, 1, 9.24077, 45.828, 3.795, 36.9085, -54.9543, 91.6928
1.832, 1, 9.31161, 45.8338, 3.7489, 37.0665, -54.9446, 91.5696
1.836, 1, 9.38238, 45.8396, 3.70285, 37.2244, -54.935, 91.4466
1.84, 1, 9.45307, 45.8453, 3.65685, 37.3822, -54.9254, 91.3237
1.844, 1, 9.52369, 45.8511, 3.61089, 37.5397, -54.9157, 91.201
1.848, 1, 9.59423, 45.8568, 3.56499, 37.6971, -54.9061, 91.0784
1.852, 1, 9.6647, 45.8625, 3.51913, 37.8544, -54.8965, 90.9559
1.856, 1, 9.73509, 45.8683, 3.47332, 38.0114, -54.8869, 90.8335
1.86, 1, 9.80541, 45.874, 3.42757, 38.1683, -54.8773, 90.7113
1.864, 1, 9.87565, 45.8797, 3.38186, 38.3251, -54.8678, 90.5892
1.868, 1, 9.94582, 45.8854, 3.3362, 38.4816, -54.8582, 90.4673
1.872, 1, 10.0159, 45.8912, 3.29059, 38.638, -54.8487, 90.3454
1.876, 1, 10.0859, 45.8969, 3.24503, 38.7942, -54.8391, 90.2237
1.88, 1, 10.1559, 45.9026, 3.19952, 38.9503, -54.8296, 90.1022
1.884, 1, 10.2257, 45.9082, 3.15406, 39.1061, -54.8201, 89.9807
1.888, 1, 10.2955, 45.9139, 3.10865, 39.2618, -54.8106, 89.8594
1.892, 1, 10.3652, 45.9196, 3.06329, 39.4174, -54.8011, 89.7383
1.896, 1, 10.4348, 45.9253, 3.01798, 39.5727, -54.7916, 89.6173
1.9, 1, 10.5044, 45.9309, 2.97272, 39.7279, -54.7821, 89.4964
1.904, 1, 10.5739, 45.9366, 2.92751, 39.8829, -54.7727, 89.3756
1.908, 1, 10.6433, 45.9423, 2.88235, 40.0378, -54.7632, 89.255
1.912, 1, 10.7126, 45.9479, 2.83725, 40.1924, -54.7538, 89.1345
1.916, 1, 10.7818, 45.9535, 2.79219, 40.3469, -54.7443, 89.0142
1.92, 1, 10.851, 45.9592, 2.74719, 40.5012, -54.7349, 88.8939
1.924, 1, 10.9201, 45.9648, 2.70223, 40.6554, -54.7255, 88.7739
1.928, 1, 10.9891, 45.9704, 2.65733, 40.8093, -54.7161, 88.6539
1.932, 1, 11.058, 45.976, 2.61248, 40.9631, -54.7067, 88.5341
1.936, 1, 11.1269, 45.9816, 2.56768, 41.1167, -54.6973, 88.4145
1.94, 1, 11.1956, 45.9872, 2.52293, 41.2701, -54.688, 88.2949
1.944, 1, 11.2643, 45.9928, 2.47824, 41.4234, -54.6786, 88.1755
1.948, 1, 11.3329, 45.9984, 2.43359, 41.5765, -54.6692, 88.0563
1.952, 1, 11.4015, 46.004, 2.389, 41.7294, -54.6599, 87.9372
1.956, 1, 11.4699, 46.0096, 2.34446, 41.8821, -54.6506, 87.8182
1.96, 1, 11.5383, 46.0151, 2.29997, 42.0346, -54.6413, 87.6994
1.964, 1, 11.6066, 46.0207, 2.25553, 42.187, -54.632, 87.5807
1.968, 1, 11.6748, 46.0263, 2.21115, 42.3392, -54.6227, 87.4621
1.972, 1, 11.743, 46.0318, 2.16681, 42.4912, -54.6134, 87.3437
1.976, 1, 11.811, 46.0373, 2.12253, 42.6431, -54.6041, 87.2254
1.98, 1, 11.879, 46.0429, 2.0783, 42.7947, -54.5949, 87.1073
1.984, 1, 11.9469, 46.0484, 2.03412, 42.9462, -54.5856, 86.9893
1.988, 1, 12.0147, 46.0539, 1.99, 43.0975, -54.5764, 86.8714
1.992, 1, 12.0825, 46.0595, 1.94592, 43.2486, -54.5671, 86.7537
1.996, 1, 12.1501, 46.065, 1.9019, 43.3996, -54.5579, 86.6361
1.999, 1, 12.2177, 46.0705, 1.85793, 43.5503, -54.5487, 86.5186
2.004, 1, 12.2852, 46.076, 1.81401, 43.7009, -54.5395, 86.4013
2.008, 1, 12.3526, 46.0815, 1.77015, 43.8513, -54.5303, 86.2841
2.012, 1, 12.42, 46.0869, 1.72634, 44.0015, -54.5212, 86.1671
2.015, 1, 12.4872, 46.0924, 1.68258, 44.1516, -54.512, 86.0502
2.019, 1, 12.5544, 46.0979, 1.63887, 44.3015, -54.5029, 85.9335
2.024, 1, 12.6215, 46.1033, 1.59521, 44.4511, -54.4937, 85.8169
2.028, 1, 12.6885, 46.1088, 1.55161, 44.6007, -54.4846, 85.7004
2.031, 1, 12.7555, 46.1143, 1.50806, 44.75, -54.4755, 85.5841
2.036, 1, 12.8223, 46.1197, 1.46456, 44.8991, -54.4664, 85.4679
2.04, 1, 12.8891, 46.1251, 1.42111, 45.0481, -54.4573, 85.3518
2.044, 1, 12.9558, 46.1306, 1.37772, 45.1969, -54.4482, 85.2359
2.048, 1, 13.0224, 46.136, 1.33437, 45.3455, -54.4391, 85.1201
2.051, 1, 13.0889, 46.1414, 1.29108, 45.4939, -54.43, 85.0045
2.055, 1, 13.1554, 46.1468, 1.24785, 45.6422, -54.421, 84.889
2.06, 1, 13.2218, 46.1522, 1.20466, 45.7903, -54.4119, 84.7737
2.064, 1, 13.2881, 46.1576, 1.16153, 45.9382, -54.4029, 84.6584
2.068, 1, 13.3543, 46.163, 1.11845, 46.0859, -54.3939, 84.5434
2.071, 1, 13.4204, 46.1684, 1.07543, 46.2334, -54.3849, 84.4284
2.076, 1, 13.4865, 46.1738, 1.03245, 46.3807, -54.3759, 84.3137
2.08, 1, 13.5524, 46.1791, 0.989531, 46.5279, -54.3669, 84.199
2.084, 1, 13.6183, 46.1845, 0.946662, 46.6749, -54.3579, 84.0845
2.087, 1, 13.6841, 46.1899, 0.903845, 46.8217, -54.349, 83.9701
2.092, 1, 13.7499, 46.1952, 0.861082, 46.9683, -54.34, 83.8559
2.096, 1, 13.8155, 46.2006, 0.818371, 47.1148, -54.3311, 83.7418
2.1, 1, 13.8811, 46.2059, 0.775712, 47.2611, -54.3221, 83.6279
2.104, 1, 13.9466, 46.2112, 0.733106, 47.4072, -54.3132, 83.5141
2.107, 1, 14.012, 46.2166, 0.690553, 47.5531, -54.3043, 83.4004
2.111, 1, 14.0773, 46.2219, 0.648052, 47.6988, -54.2954, 83.2869
2.116, 1, 14.1425, 46.2272, 0.605604, 47.8443, -54.2865, 83.1735
2.12, 1, 14.2077, 46.2325, 0.563209, 47.9897, -54.2776, 83.0602
2.124, 1, 14.2728, 46.2378, 0.520866, 48.1349, -54.2688, 82.9471
2.127, 1, 14.3378, 46.2431, 0.478576, 48.2799, -54.2599, 82.8342
2.132, 1, 14.4027, 46.2484, 0.436338, 48.4247, -54.2511, 82.7214
2.136, 1, 14.4675, 46.2537, 0.394153, 48.5694, -54.2422, 82.6087
2.14, 1, 14.5323, 46.2589, 0.35202, 48.7138, -54.2334, 82.4961
2.143, 1, 14.597, 46.2642, 0.30994, 48.8581, -54.2246, 82.3837
2.148, 1, 14.6616, 46.2695, 0.267913, 49.0022, -54.2158, 82.2715
2.152, 1, 14.7261, 46.2747, 0.225938, 49.1462, -54.207, 82.1593
2.156, 1, 14.7905, 46.28, 0.184015, 49.2899, -54.1983, 82.0474
2.16, 1, 14.8549, 46.2852, 0.142145, 49.4335, -54.1895, 81.9355
2.163, 1, 14.9192, 46.2904, 0.100328, 49.5769, -54.1807, 81.8238
2.168, 1, 14.9834, 46.2957, 0.0585626, 49.7201, -54.172, 81.7123
2.172, 1, 15.0475, 46.3009, 0.01685, 49.8631, -54.1632, 81.6008
2.176, 1, 15.1115, 46.3061, -0.0248101, 50.0059, -54.1545, 81.4896
2.179, 1, 15.1755, 46.3113, -0.0664179, 50.1486, -54.1458, 81.3784
2.184, 1, 15.2394, 46.3165, -0.107973, 50.2911, -54.1371, 81.2674
2.188, 1, 15.3031, 46.3217, -0.149476, 50.4334, -54.1284, 81.1566
2.192, 1, 15.3669, 46.3269, -0.190927, 50.5755, -54.1198, 81.0458
2.196, 1, 15.4305, 46.3321, -0.232325, 50.7175, -54.1111, 80.9352
2.199, 1, 15.494, 46.3372, -0.273671, 50.8592, -54.1024, 80.8248
2.204, 1, 15.5575, 46.3424, -0.314965, 51.0008, -54.0938, 80.7145
2.208, 1, 15.6209, 46.3476, -0.356207, 51.1422, -54.0851, 80.6043
2.212, 1, 15.6842, 46.3527, -0.397396, 51.2835, -54.0765, 80.4943
2.216, 1, 15.7475, 46.3579, -0.438533, 51.4245, -54.0679, 80.3844
2.219, 1, 15.8106, 46.363, -0.479618, 51.5654, -54.0593, 80.2747
2.224, 1, 15.8737, 46.3682, -0.520651, 51.7061, -54.0507, 80.1651
2.228, 1, 15.9367, 46.3733, -0.561631, 51.8466, -54.0421, 80.0556
2.232, 1, 15.9996, 46.3784, -0.60256, 51.9869, -54.0336, 79.9463
2.235, 1, 16.0624, 46.3835, -0.643437, 52.1271, -54.025, 79.8371
2.24, 1, 16.1252, 46.3886, -0.684262, 52.2671, -54.0165, 79.7281
2.244, 1, 16.1879, 46.3937, -0.725034, 52.4069, -54.0079, 79.6191
2.248, 1, 16.2505, 46.3988, -0.765756, 52.5465, -53.9994, 79.5104
2.252, 1, 16.313, 46.4039, -0.806425, 52.686, -53.9909, 79.4017
2.255, 1, 16.3754, 46.409, -0.847043, 52.8252, -53.9824, 79.2932
2.259, 1, 16.4378, 46.4141, -0.887609, 52.9643, -53.9739, 79.1849
2.264, 1, 16.5001, 46.4191, -0.928124, 53.1033, -53.9654, 79.0767
2.268, 1, 16.5623, 46.4242, -0.968588, 53.242, -53.9569, 78.9686
2.272, 1, 16.6244, 46.4293, -1.009, 53.3806, -53.9485, 78.8606
2.275, 1, 16.6864, 46.4343, -1.04936, 53.519, -53.94, 78.7528
2.28, 1, 16.7484, 46.4394, -1.08967, 53.6572, -53.9316, 78.6451
2.284, 1, 16.8103, 46.4444, -1.12993, 53.7952, -53.9231, 78.5376
2.288, 1, 16.8721, 46.4494, -1.17014, 53.9331, -53.9147, 78.4302
2.291, 1, 16.9338, 46.4545, -1.2103, 54.0708, -53.9063, 78.3229
2.296, 1, 16.9955, 46.4595, -1.2504, 54.2083, -53.8979, 78.2158
2.3, 1, 17.057, 46.4645, -1.29046, 54.3457, -53.8895, 78.1088
2.304, 1, 17.1185, 46.4695, -1.33046, 54.4828, -53.8812, 78.0019
2.308, 1, 17.18, 46.4745, -1.37042, 54.6198, -53.8728, 77.8952
2.311, 1, 17.2413, 46.4795, -1.41032, 54.7567, -53.8644, 77.7886
2.316, 1, 17.3026, 46.4845, -1.45018, 54.8933, -53.8561, 77.6822
2.32, 1, 17.3638, 46.4895, -1.48998, 55.0298, -53.8478, 77.5759
2.324, 1, 17.4249, 46.4944, -1.52973, 55.1661, -53.8394, 77.4697
2.328, 1, 17.4859, 46.4994, -1.56944, 55.3022, -53.8311, 77.3636
2.331, 1, 17.5469, 46.5044, -1.60909, 55.4382, -53.8228, 77.2577
2.336, 1, 17.6077, 46.5093, -1.64869, 55.574, -53.8145, 77.1519
2.34, 1, 17.6685, 46.5143, -1.68825, 55.7096, -53.8063, 77.0462
2.344, 1, 17.7293, 46.5192, -1.72775, 55.8451, -53.798, 76.9407
2.347, 1, 17.7899, 46.5241, -1.7672, 55.9804, -53.7897, 76.8353
2.352, 1, 17.8505, 46.5291, -1.80661, 56.1155, -53.7815, 76.7301
2.356, 1, 17.911, 46.534, -1.84596, 56.2504, -53.7732, 76.625
2.36, 1, 17.9714, 46.5389, -1.88527, 56.3852, -53.765, 76.52
2.364, 1, 18.0318, 46.5438, -1.92452, 56.5198, -53.7568, 76.4151
2.367, 1, 18.092, 46.5487, -1.96373, 56.6542, -53.7486, 76.3104
2.372, 1, 18.1522, 46.5536, -2.00289, 56.7885, -53.7404, 76.2058
2.376, 1, 18.2124, 46.5585, -2.042, 56.9226, -53.7322, 76.1013
2.38, 1, 18.2724, 46.5634, -2.08106, 57.0565, -53.724, 75.997
2.383, 1, 18.3324, 46.5683, -2.12007, 57.1903, -53.7158, 75.8928
2.388, 1, 18.3923, 46.5732, -2.15903, 57.3239, -53.7077, 75.7887
2.392, 1, 18.4521, 46.578, -2.19794, 57.4573, -53.6995, 75.6848
2.396, 1, 18.5118, 46.5829, -2.23681, 57.5906, -53.6914, 75.5809
2.4, 1, 18.5715, 46.5878, -2.27562, 57.7237, -53.6833, 75.4773
2.403, 1, 18.6311, 46.5926, -2.31439, 57.8566, -53.6752, 75.3737
2.408, 1, 18.6906, 46.5975, -2.35311, 57.9894, -53.667, 75.2703
2.412, 1, 18.7501, 46.6023, -2.39178, 58.122, -53.659, 75.167
2.416, 1, 18.8094, 46.6071, -2.4304, 58.2544, -53.6509, 75.0638
2.42, 1, 18.8687, 46.612, -2.46897, 58.3867, -53.6428, 74.9608
2.423, 1, 18.928, 46.6168, -2.5075, 58.5188, -53.6347, 74.8579
2.428, 1, 18.9871, 46.6216, -2.54598, 58.6507, -53.6267, 74.7551
2.432, 1, 19.0462, 46.6264, -2.58441, 58.7825, -53.6186, 74.6524
2.436, 1, 19.1052, 46.6312, -2.62279, 58.9141, -53.6106, 74.5499
2.439, 1, 19.1641, 46.636, -2.66112, 59.0455, -53.6026, 74.4475
2.444, 1, 19.223, 46.6408, -2.69941, 59.1768, -53.5945, 74.3452
2.448, 1, 19.2818, 46.6456, -2.73765, 59.3079, -53.5865, 74.2431
2.452, 1, 19.3405, 46.6504, -2.77584, 59.4389, -53.5785, 74.1411
2.456, 1, 19.3991, 46.6551, -2.81399, 59.5697, -53.5705, 74.0392
2.459, 1, 19.4577, 46.6599, -2.85208, 59.7003, -53.5626, 73.9374
2.464, 1, 19.5162, 46.6647, -2.89013, 59.8308, -53.5546, 73.8358
2.468, 1, 19.5746, 46.6694, -2.92814, 59.9611, -53.5466, 73.7343
2.472, 1, 19.6329, 46.6742, -2.96609, 60.0912, -53.5387, 73.6329
2.476, 1, 19.6912, 46.6789, -3.004, 60.2212, -53.5308, 73.5316
2.479, 1, 19.7494, 46.6837, -3.04186, 60.351, -53.5228, 73.4305
2.484, 1, 19.8076, 46.6884, -3.07968, 60.4807, -53.5149, 73.3295
2.488, 1, 19.8656, 46.6931, -3.11745, 60.6102, -53.507, 73.2286
2.492, 1, 19.9236, 46.6978, -3.15517, 60.7395, -53.4991, 73.1278
2.495, 1, 19.9815, 46.7026, -3.19284, 60.8687, -53.4912, 73.0272
2.5, 1, 20.0394, 46.7073, -3.23047, 60.9978, -53.4833, 72.9267
2.504, 1, 20.0972, 46.712, -3.26805, 61.1266, -53.4755, 72.8263
2.508, 1, 20.1549, 46.7167, -3.30559, 61.2553, -53.4676, 72.726
2.512, 1, 20.2125, 46.7214, -3.34308, 61.3839, -53.4598, 72.6259
2.515, 1, 20.2701, 46.726, -3.38052, 61.5123, -53.4519, 72.5259
2.52, 1, 20.3275, 46.7307, -3.41792, 61.6405, -53.4441, 72.426
2.524, 1, 20.385, 46.7354, -3.45527, 61.7686, -53.4363, 72.3262
2.528, 1, 20.4423, 46.7401, -3.49258, 61.8965, -53.4285, 72.2265
2.531, 1, 20.4996, 46.7447, -3.52984, 62.0243, -53.4207, 72.127
2.536, 1, 20.5568, 46.7494, -3.56705, 62.1519, -53.4129, 72.0276
2.54, 1, 20.6139, 46.754, -3.60422, 62.2793, -53.4051, 71.9283
2.544, 1, 20.671, 46.7587, -3.64135, 62.4066, -53.3973, 71.8292
2.548, 1, 20.728, 46.7633, -3.67842, 62.5337, -53.3896, 71.7301
2.551, 1, 20.7849, 46.7679, -3.71546, 62.6607, -53.3818, 71.6312
2.556, 1, 20.8418, 46.7726, -3.75244, 62.7875, -53.3741, 71.5324
2.56, 1, 20.8986, 46.7772, -3.78939, 62.9142, -53.3663, 71.4337
2.564, 1, 20.9553, 46.7818, -3.82628, 63.0407, -53.3586, 71.3352
2.568, 1, 21.012, 46.7864, -3.86314, 63.1671, -53.3509, 71.2367
2.571, 1, 21.0686, 46.791, -3.89994, 63.2933, -53.3432, 71.1384
2.576, 1, 21.1251, 46.7956, -3.93671, 63.4194, -53.3355, 71.0402
2.58, 1, 21.1815, 46.8002, -3.97342, 63.5453, -53.3278, 70.9421
2.584, 1, 21.2379, 46.8048, -4.0101, 63.671, -53.3201, 70.8441
2.587, 1, 21.2942, 46.8094, -4.04673, 63.7966, -53.3124, 70.7463
2.592, 1, 21.3505, 46.814, -4.08331, 63.9221, -53.3048, 70.6486
2.596, 1, 21.4066, 46.8186, -4.11985, 64.0474, -53.2971, 70.551
2.6, 1, 21.4628, 46.8231, -4.15635, 64.1725, -53.2895, 70.4535
2.604, 1, 21.5188, 46.8277, -4.1928, 64.2975, -53.2819, 70.3561
2.607, 1, 21.5748, 46.8322, -4.22921, 64.4223, -53.2742, 70.2589
2.612, 1, 21.6307, 46.8368, -4.26557, 64.547, -53.2666, 70.1617
2.616, 1, 21.6865, 46.8413, -4.30189, 64.6716, -53.259, 70.0647
2.62, 1, 21.7423, 46.8459, -4.33817, 64.796, -53.2514, 69.9678
2.624, 1, 21.798, 46.8504, -4.37441, 64.9202, -53.2438, 69.871
2.627, 1, 21.8536, 46.8549, -4.4106, 65.0443, -53.2363, 69.7743
2.632, 1, 21.9092, 46.8595, -4.44674, 65.1682, -53.2287, 69.6778
2.636, 1, 21.9647, 46.864, -4.48285, 65.292, -53.2211, 69.5813
2.64, 1, 22.0202, 46.8685, -4.51891, 65.4157, -53.2136, 69.485
2.643, 1, 22.0755, 46.873, -4.55493, 65.5392, -53.206, 69.3888
2.648, 1, 22.1308, 46.8775, -4.59091, 65.6626, -53.1985, 69.2927
2.652, 1, 22.1861, 46.882, -4.62684, 65.7858, -53.191, 69.1967
2.656, 1, 22.2413, 46.8865, -4.66273, 65.9088, -53.1835, 69.1008
2.66, 1, 22.2964, 46.891, -4.69858, 66.0318, -53.176, 69.0051
2.663, 1, 22.3514, 46.8954, -4.73438, 66.1545, -53.1685, 68.9094
2.668, 1, 22.4064, 46.8999, -4.77015, 66.2772, -53.161, 68.8139
2.672, 1, 22.4613, 46.9044, -4.80587, 66.3997, -53.1535, 68.7185
2.676, 1, 22.5162, 46.9089, -4.84155, 66.522, -53.146, 68.6232
2.679, 1, 22.571, 46.9133, -4.87719, 66.6442, -53.1386, 68.528
2.684, 1, 22.6257, 46.9178, -4.91278, 66.7663, -53.1311, 68.4329
2.688, 1, 22.6804, 46.9222, -4.94834, 66.8882, -53.1237, 68.3379
2.692, 1, 22.735, 46.9267, -4.98385, 67.0099, -53.1162, 68.2431
2.696, 1, 22.7895, 46.9311, -5.01932, 67.1316, -53.1088, 68.1483
2.699, 1, 22.844, 46.9355, -5.05475, 67.2531, -53.1014, 68.0537
2.704, 1, 22.8984, 46.94, -5.09014, 67.3744, -53.094, 67.9591
2.708, 1, 22.9527, 46.9444, -5.12549, 67.4956, -53.0866, 67.8647
2.712, 1, 23.007, 46.9488, -5.16079, 67.6167, -53.0792, 67.7704
2.716, 1, 23.0612, 46.9532, -5.19606, 67.7376, -53.0718, 67.6762
2.719, 1, 23.1154, 46.9576, -5.23128, 67.8584, -53.0644, 67.5821
2.724, 1, 23.1694, 46.962, -5.26647, 67.979, -53.0571, 67.4881
2.728, 1, 23.2235, 46.9664, -5.30161, 68.0995, -53.0497, 67.3942
2.732, 1, 23.2774, 46.9708, -5.33672, 68.2199, -53.0423, 67.3005
2.735, 1, 23.3313, 46.9752, -5.37178, 68.3401, -53.035, 67.2068
2.74, 1, 23.3852, 46.9796, -5.4068, 68.4602, -53.0277, 67.1133
2.744, 1, 23.439, 46.984, -5.44178, 68.5802, -53.0203, 67.0198
2.748, 1, 23.4927, 46.9883, -5.47672, 68.7, -53.013, 66.9265
2.752, 1, 23.5463, 46.9927, -5.51162, 68.8196, -53.0057, 66.8333
2.755, 1, 23.5999, 46.9971, -5.54649, 68.9392, -52.9984, 66.7401
2.76, 1, 23.6535, 47.0014, -5.58131, 69.0586, -52.9911, 66.6471
2.764, 1, 23.707, 47.0058, -5.61609, 69.1778, -52.9838, 66.5542
2.768, 1, 23.7604, 47.0101, -5.65083, 69.297, -52.9766, 66.4614
2.772, 1, 23.8137, 47.0145, -5.68554, 69.416, -52.9693, 66.3687
2.775, 1, 23.867, 47.0188, -5.7202, 69.5348, -52.962, 66.2761
2.78, 1, 23.9202, 47.0231, -5.75482, 69.6536, -52.9548, 66.1836
2.784, 1, 23.9734, 47.0275, -5.78941, 69.7721, -52.9476, 66.0912
2.788, 1, 24.0265, 47.0318, -5.82395, 69.8906, -52.9403, 65.999
2.791, 1, 24.0796, 47.0361, -5.85846, 70.0089, -52.9331, 65.9068
2.796, 1, 24.1326, 47.0404, -5.89293, 70.1271, -52.9259, 65.8147
2.8, 1, 24.1855, 47.0447, -5.92736, 70.2452, -52.9187, 65.7227
2.804, 1, 24.2384, 47.049, -5.96175, 70.3631, -52.9115, 65.6309
2.808, 1, 24.2912, 47.0533, -5.9961, 70.4809, -52.9043, 65.5391
2.811, 1, 24.3439, 47.0576, -6.03041, 70.5985, -52.8971, 65.4475
2.816, 1, 24.3966, 47.0619, -6.06469, 70.7161, -52.8899, 65.3559
2.82, 1, 24.4493, 47.0662, -6.09892, 70.8335, -52.8827, 65.2645
2.824, 1, 24.5018, 47.0705, -6.13312, 70.9507, -52.8756, 65.1731
2.828, 1, 24.5543, 47.0747, -6.16728, 71.0678, -52.8684, 65.0819
2.831, 1, 24.6068, 47.079, -6.2014, 71.1848, -52.8613, 64.9907
2.836, 1, 24.6592, 47.0833, -6.23548, 71.3017, -52.8542, 64.8997
2.84, 1, 24.7115, 47.0875, -6.26953, 71.4184, -52.847, 64.8087
2.844, 1, 24.7638, 47.0918, -6.30354, 71.5351, -52.8399, 64.7179
2.847, 1, 24.816, 47.096, -6.33751, 71.6515, -52.8328, 64.6271
2.852, 1, 24.8682, 47.1003, -6.37144, 71.7679, -52.8257, 64.5365
2.856, 1, 24.9203, 47.1045, -6.40533, 71.8841, -52.8186, 64.446
2.86, 1, 24.9724, 47.1088, -6.43919, 72.0002, -52.8115, 64.3555
2.864, 1, 25.0244, 47.113, -6.47301, 72.1162, -52.8044, 64.2652
2.867, 1, 25.0763, 47.1172, -6.50679, 72.232, -52.7973, 64.1749
2.872, 1, 25.1282, 47.1214, -6.54054, 72.3477, -52.7903, 64.0848
2.876, 1, 25.18, 47.1257, -6.57425, 72.4633, -52.7832, 63.9948
2.88, 1, 25.2318, 47.1299, -6.60792, 72.5788, -52.7762, 63.9048
2.883, 1, 25.2835, 47.1341, -6.64155, 72.6941, -52.7691, 63.815
2.888, 1, 25.3351, 47.1383, -6.67515, 72.8093, -52.7621, 63.7252
2.892, 1, 25.3867, 47.1425, -6.70871, 72.9244, -52.7551, 63.6356
2.896, 1, 25.4383, 47.1467, -6.74223, 73.0393, -52.7481, 63.546
2.9, 1, 25.4897, 47.1509, -6.77572, 73.1542, -52.741, 63.4566
2.903, 1, 25.5412, 47.1551, -6.80917, 73.2689, -52.734, 63.3672
2.908, 1, 25.5925, 47.1592, -6.84259, 73.3834, -52.727, 63.278
2.912, 1, 25.6439, 47.1634, -6.87597, 73.4979, -52.7201, 63.1888
2.916, 1, 25.6951, 47.1676, -6.90931, 73.6122, -52.7131, 63.0997
2.92, 1, 25.7463, 47.1718, -6.94261, 73.7264, -52.7061, 63.0108
2.923, 1, 25.7975, 47.1759, -6.97588, 73.8405, -52.6991, 62.9219
2.928, 1, 25.8486, 47.1801, -7.00912, 73.9545, -52.6922, 62.8331
2.932, 1, 25.8996, 47.1842, -7.04232, 74.0683, -52.6852, 62.7445
2.936, 1, 25.9506, 47.1884, -7.07548, 74.182, -52.6783, 62.6559
2.939, 1, 26.0015, 47.1925, -7.1086, 74.2956, -52.6713, 62.5674
2.944, 1, 26.0524, 47.1967, -7.14169, 74.409, -52.6644, 62.479
2.948, 1, 26.1032, 47.2008, -7.17475, 74.5224, -52.6575, 62.3907
2.952, 1, 26.154, 47.2049, -7.20777, 74.6356, -52.6506, 62.3025
2.956, 1, 26.2047, 47.2091, -7.24075, 74.7487, -52.6437, 62.2144
2.959, 1, 26.2553, 47.2132, -7.2737, 74.8617, -52.6368, 62.1264
2.964, 1, 26.3059, 47.2173, -7.30662, 74.9746, -52.6299, 62.0384
2.968, 1, 26.3565, 47.2214, -7.3395, 75.0873, -52.623, 61.9506
2.972, 1, 26.407, 47.2255, -7.37234, 75.1999, -52.6161, 61.8629
2.976, 1, 26.4574, 47.2296, -7.40515, 75.3124, -52.6093, 61.7752
2.98, 1, 26.5078, 47.2337, -7.43792, 75.4248, -52.6024, 61.6877
2.984, 1, 26.5582, 47.2378, -7.47066, 75.5371, -52.5955, 61.6002
2.988, 1, 26.6084, 47.2419, -7.50337, 75.6492, -52.5887, 61.5129
2.992, 1, 26.6587, 47.246, -7.53604, 75.7612, -52.5818, 61.4256
2.995, 1, 26.7088, 47.2501, -7.56867, 75.8731, -52.575, 61.3384
3, 1, 26.759, 47.2542, -7.60128, 75.9849, -52.5682, 61.2513
3.004, 1, 26.809, 47.2582, -7.63384, 76.0966, -52.5614, 61.1643
3.008, 1, 26.8591, 47.2623, -7.66638, 76.2082, -52.5546, 61.0774
3.012, 1, 26.909, 47.2664, -7.69888, 76.3196, -52.5477, 60.9906
3.015, 1, 26.9589, 47.2704, -7.73134, 76.4309, -52.541, 60.9039
3.02, 1, 27.0088, 47.2745, -7.76378, 76.5421, -52.5342, 60.8173
3.024, 1, 27.0586, 47.2786, -7.79618, 76.6532, -52.5274, 60.7307
3.028, 1, 27.1084, 47.2826, -7.82854, 76.7642, -52.5206, 60.6443
3.031, 1, 27.1581, 47.2867, -7.86087, 76.8751, -52.5138, 60.5579
3.036, 1, 27.2077, 47.2907, -7.89317, 76.9858, -52.5071, 60.4716
3.04, 1, 27.2573, 47.2947, -7.92543, 77.0965, -52.5003, 60.3854
3.044, 1, 27.3069, 47.2988, -7.95767, 77.207, -52.4936, 60.2993
3.048, 1, 27.3564, 47.3028, -7.98986, 77.3174, -52.4868, 60.2133
3.051, 1, 27.4058, 47.3068, -8.02203, 77.4277, -52.4801, 60.1274
3.056, 1, 27.4552, 47.3108, -8.05416, 77.5379, -52.4734, 60.0416
3.06, 1, 27.5046, 47.3149, -8.08626, 77.6479, -52.4666, 59.9558
3.064, 1, 27.5539, 47.3189, -8.11833, 77.7579, -52.4599, 59.8702
3.068, 1, 27.6031, 47.3229, -8.15036, 77.8677, -52.4532, 59.7846
3.071, 1, 27.6523, 47.3269, -8.18236, 77.9775, -52.4465, 59.6991
3.076, 1, 27.7015, 47.3309, -8.21433, 78.0871, -52.4398, 59.6137
3.08, 1, 27.7506, 47.3349, -8.24627, 78.1966, -52.4331, 59.5284
3.084, 1, 27.7996, 47.3389, -8.27817, 78.306, -52.4265, 59.4432
3.087, 1, 27.8486, 47.3429, -8.31005, 78.4153, -52.4198, 59.3581
3.092, 1, 27.8976, 47.3468, -8.34188, 78.5245, -52.4131, 59.273
3.096, 1, 27.9465, 47.3508, -8.37369, 78.6335, -52.4065, 59.188
3.1, 1, 27.9953, 47.3548, -8.40547, 78.7425, -52.3998, 59.1032
3.104, 1, 28.0441, 47.3588, -8.43721, 78.8513, -52.3932, 59.0184
3.107, 1, 28.0929, 47.3627, -8.46892, 78.9601, -52.3865, 58.9336
3.112, 1, 28.1416, 47.3667, -8.5006, 79.0687, -52.3799, 58.849
3.116, 1, 28.1903, 47.3707, -8.53225, 79.1772, -52.3733, 58.7645
3.12, 1, 28.2389, 47.3746, -8.56387, 79.2856, -52.3666, 58.68
3.124, 1, 28.2874, 47.3786, -8.59546, 79.3939, -52.36, 58.5956
3.128, 1, 28.3359, 47.3825, -8.62701, 79.5021, -52.3534, 58.5114
3.132, 1, 28.3844, 47.3865, -8.65853, 79.6102, -52.3468, 58.4272
3.136, 1, 28.4328, 47.3904, -8.69003, 79.7182, -52.3402, 58.343
3.14, 1, 28.4812, 47.3943, -8.72149, 79.8261, -52.3336, 58.259
3.143, 1, 28.5295, 47.3983, -8.75292, 79.9339, -52.3271, 58.175
3.148, 1, 28.5778, 47.4022, -8.78432, 80.0415, -52.3205, 58.0912
3.152, 1, 28.626, 47.4061, -8.81568, 80.1491, -52.3139, 58.0074
3.156, 1, 28.6742, 47.41, -8.84702, 80.2565, -52.3073, 57.9237
3.16, 1, 28.7223, 47.414, -8.87833, 80.3639, -52.3008, 57.84
3.163, 1, 28.7704, 47.4179, -8.9096, 80.4711, -52.2942, 57.7565
3.168, 1, 28.8184, 47.4218, -8.94085, 80.5783, -52.2877, 57.673
3.172, 1, 28.8664, 47.4257, -8.97206, 80.6853, -52.2812, 57.5897
3.176, 1, 28.9144, 47.4296, -9.00325, 80.7922, -52.2746, 57.5064
3.179, 1, 28.9623, 47.4335, -9.0344, 80.8991, -52.2681, 57.4231
3.184, 1, 29.0101, 47.4374, -9.06552, 81.0058, -52.2616, 57.34
3.188, 1, 29.0579, 47.4413, -9.09662, 81.1124, -52.2551, 57.2569
3.192, 1, 29.1057, 47.4452, -9.12768, 81.2189, -52.2486, 57.174
3.196, 1, 29.1534, 47.449, -9.15871, 81.3253, -52.2421, 57.0911
3.199, 1, 29.2011, 47.4529, -9.18972, 81.4316, -52.2356, 57.0082
3.204, 1, 29.2487, 47.4568, -9.22069, 81.5378, -52.2291, 56.9255
3.208, 1, 29.2962, 47.4607, -9.25163, 81.644, -52.2226, 56.8428
3.212, 1, 29.3438, 47.4645, -9.28255, 81.75, -52.2162, 56.7603
3.216, 1, 29.3913, 47.4684, -9.31343, 81.8559, -52.2097, 56.6778
3.22, 1, 29.4387, 47.4723, -9.34429, 81.9617, -52.2032, 56.5953
3.224, 1, 29.4861, 47.4761, -9.37511, 82.0673, -52.1968, 56.513
3.228, 1, 29.5334, 47.48, -9.40591, 82.173, -52.1903, 56.4307
3.232, 1, 29.5807, 47.4838, -9.43668, 82.2784, -52.1839, 56.3486
3.235, 1, 29.628, 47.4877, -9.46741, 82.3838, -52.1774, 56.2665
3.24, 1, 29.6752, 47.4915, -9.49812, 82.4891, -52.171, 56.1844
3.244, 1, 29.7224, 47.4953, -9.5288, 82.5943, -52.1646, 56.1025
3.248, 1, 29.7695, 47.4992, -9.55945, 82.6994, -52.1582, 56.0206
3.252, 1, 29.8166, 47.503, -9.59007, 82.8044, -52.1518, 55.9388
3.255, 1, 29.8636, 47.5068, -9.62066, 82.9093, -52.1454, 55.8571
3.26, 1, 29.9106, 47.5107, -9.65123, 83.0141, -52.139, 55.7754
3.264, 1, 29.9575, 47.5145, -9.68176, 83.1188, -52.1326, 55.6939
3.268, 1, 30.0044, 47.5183, -9.71227, 83.2234, -52.1262, 55.6124
3.272, 1, 30.0513, 47.5221, -9.74274, 83.3279, -52.1198, 55.531
3.276, 1, 30.0981, 47.5259, -9.77319, 83.4324, -52.1134, 55.4496
3.28, 1, 30.1449, 47.5297, -9.80361, 83.5367, -52.1071, 55.3684
3.284, 1, 30.1916, 47.5335, -9.83401, 83.6409, -52.1007, 55.2872
3.288, 1, 30.2383, 47.5373, -9.86437, 83.745, -52.0943, 55.2061
3.291, 1, 30.2849, 47.5411, -9.8947, 83.849, -52.088, 55.1251
3.296, 1, 30.3315, 47.5449, -9.92501, 83.9529, -52.0816, 55.0441
3.3, 1, 30.378, 47.5487, -9.95529, 84.0568, -52.0753, 54.9632
3.304, 1, 30.4246, 47.5525, -9.98554, 84.1605, -52.069, 54.8824
3.308, 1, 30.471, 47.5563, -10.0158, 84.2641, -52.0626, 54.8017
3.312, 1, 30.5174, 47.56, -10.046, 84.3677, -52.0563, 54.721
3.316, 1, 30.5638, 47.5638, -10.0761, 84.4711, -52.05, 54.6404
3.32, 1, 30.6102, 47.5676, -10.1063, 84.5745, -52.0437, 54.5599
3.324, 1, 30.6564, 47.5714, -10.1364, 84.6777, -52.0374, 54.4795
3.328, 1, 30.7027, 47.5751, -10.1665, 84.7809, -52.0311, 54.3991
3.332, 1, 30.7489, 47.5789, -10.1965, 84.8839, -52.0248, 54.3188
3.336, 1, 30.7951, 47.5826, -10.2266, 84.9869, -52.0185, 54.2386
3.34, 1, 30.8412, 47.5864, -10.2566, 85.0898, -52.0122, 54.1585
3.344, 1, 30.8873, 47.5901, -10.2865, 85.1926, -52.0059, 54.0784
3.347, 1, 30.9333, 47.5939, -10.3165, 85.2953, -51.9997, 53.9984
3.352, 1, 30.9793, 47.5976, -10.3464, 85.3979, -51.9934, 53.9185
3.356, 1, 31.0253, 47.6014, -10.3763, 85.5004, -51.9871, 53.8386
3.36, 1, 31.0712, 47.6051, -10.4062, 85.6028, -51.9809, 53.7589
3.364, 1, 31.1171, 47.6088, -10.436, 85.7051, -51.9746, 53.6791
3.368, 1, 31.1629, 47.6126, -10.4658, 85.8073, -51.9684, 53.5995
3.372, 1, 31.2087, 47.6163, -10.4956, 85.9094, -51.9622, 53.5199
3.376, 1, 31.2544, 47.62, -10.5253, 86.0115, -51.9559, 53.4405
3.38, 1, 31.3002, 47.6237, -10.5551, 86.1134, -51.9497, 53.361
3.383, 1, 31.3458, 47.6275, -10.5848, 86.2153, -51.9435, 53.2817
3.388, 1, 31.3915, 47.6312, -10.6145, 86.317, -51.9373, 53.2024
3.392, 1, 31.437, 47.6349, -10.6441, 86.4187, -51.9311, 53.1232
3.396, 1, 31.4826, 47.6386, -10.6737, 86.5203, -51.9249, 53.0441
3.4, 1, 31.5281, 47.6423, -10.7033, 86.6218, -51.9187, 52.965
3.403, 1, 31.5736, 47.646, -10.7329, 86.7232, -51.9125, 52.886
3.408, 1, 31.619, 47.6497, -10.7625, 86.8245, -51.9063, 52.8071
3.412, 1, 31.6644, 47.6534, -10.792, 86.9257, -51.9001, 52.7282
3.416, 1, 31.7097, 47.6571, -10.8215, 87.0269, -51.8939, 52.6494
3.42, 1, 31.755, 47.6608, -10.8509, 87.1279, -51.8878, 52.5707
3.424, 1, 31.8003, 47.6644, -10.8804, 87.2289, -51.8816, 52.4921
3.428, 1, 31.8455, 47.6681, -10.9098, 87.3298, -51.8754, 52.4135
3.432, 1, 31.8907, 47.6718, -10.9392, 87.4305, -51.8693, 52.335
3.436, 1, 31.9358, 47.6755, -10.9686, 87.5312, -51.8631, 52.2565
3.439, 1, 31.9809, 47.6791, -10.9979, 87.6318, -51.857, 52.1782
3.444, 1, 32.026, 47.6828, -11.0272, 87.7324, -51.8508, 52.0998
3.448, 1, 32.071, 47.6865, -11.0565, 87.8328, -51.8447, 52.0216
3.452, 1, 32.116, 47.6901, -11.0858, 87.9331, -51.8386, 51.9434
3.456, 1, 32.161, 47.6938, -11.115, 88.0334, -51.8325, 51.8653
3.46, 1, 32.2059, 47.6974, -11.1442, 88.1336, -51.8263, 51.7873
3.464, 1, 32.2508, 47.7011, -11.1734, 88.2336, -51.8202, 51.7093
3.468, 1, 32.2956, 47.7048, -11.2026, 88.3336, -51.8141, 51.6314
3.472, 1, 32.3404, 47.7084, -11.2317, 88.4335, -51.808, 51.5536
3.476, 1, 32.3852, 47.712, -11.2608, 88.5334, -51.8019, 51.4758
3.48, 1, 32.4299, 47.7157, -11.2899, 88.6331, -51.7958, 51.3981
3.484, 1, 32.4746, 47.7193, -11.319, 88.7328, -51.7898, 51.3205
3.488, 1, 32.5192, 47.7229, -11.348, 88.8323, -51.7837, 51.2429
3.492, 1, 32.5638, 47.7266, -11.377, 88.9318, -51.7776, 51.1654
3.495, 1, 32.6084, 47.7302, -11.406, 89.0312, -51.7715, 51.088
3.5, 1, 32.6529, 47.7338, -11.435, 89.1305, -51.7655, 51.0106
3.504, 1, 32.6974, 47.7374, -11.4639, 89.2298, -51.7594, 50.9333
3.508, 1, 32.7418, 47.7411, -11.4928, 89.3289, -51.7534, 50.8561
3.512, 1, 32.7863, 47.7447, -11.5217, 89.428, -51.7473, 50.7789
3.516, 1, 32.8306, 47.7483, -11.5506, 89.527, -51.7413, 50.7018
3.52, 1, 32.875, 47.7519, -11.5794, 89.6258, -51.7352, 50.6248
3.524, 1, 32.9193, 47.7555, -11.6082, 89.7247, -51.7292, 50.5478
3.528, 1, 32.9635, 47.7591, -11.637, 89.8234, -51.7232, 50.4709
3.531, 1, 33.0078, 47.7627, -11.6658, 89.922, -51.7171, 50.394
3.536, 1, 33.052, 47.7663, -11.6945, 90.0206, -51.7111, 50.3173
3.54, 1, 33.0961, 47.7699, -11.7233, 90.1191, -51.7051, 50.2405
3.544, 1, 33.1402, 47.7735, -11.752, 90.2175, -51.6991, 50.1639
3.548, 1, 33.1843, 47.7771, -11.7806, 90.3158, -51.6931, 50.0873
3.552, 1, 33.2284, 47.7807, -11.8093, 90.414, -51.6871, 50.0108
3.556, 1, 33.2724, 47.7842, -11.8379, 90.5122, -51.6811, 49.9343
3.56, 1, 33.3163, 47.7878, -11.8665, 90.6103, -51.6751, 49.8579
3.564, 1, 33.3603, 47.7914, -11.8951, 90.7083, -51.6691, 49.7816
3.568, 1, 33.4042, 47.795, -11.9236, 90.8062, -51.6632, 49.7053
3.572, 1, 33.448, 47.7985, -11.9522, 90.904, -51.6572, 49.6291
3.576, 1, 33.4919, 47.8021, -11.9807, 91.0017, -51.6512, 49.5529
3.58, 1, 33.5356, 47.8057, -12.0092, 91.0994, -51.6452, 49.4768
3.584, 1, 33.5794, 47.8092, -12.0376, 91.197, -51.6393, 49.4008
3.587, 1, 33.6231, 47.8128, -12.0661, 91.2945, -51.6333, 49.3248
3.592, 1, 33.6668, 47.8163, -12.0945, 91.3919, -51.6274, 49.2489
3.596, 1, 33.7105, 47.8199, -12.1229, 91.4893, -51.6214, 49.1731
3.6, 1, 33.7541, 47.8234, -12.1512, 91.5866, -51.6155, 49.0973
3.604, 1, 33.7976, 47.827, -12.1796, 91.6838, -51.6096, 49.0216
3.608, 1, 33.8412, 47.8305, -12.2079, 91.7809, -51.6036, 48.946
3.612, 1, 33.8847, 47.8341, -12.2362, 91.8779, -51.5977, 48.8704
3.616, 1, 33.9282, 47.8376, -12.2645, 91.9749, -51.5918, 48.7948
3.62, 1, 33.9716, 47.8411, -12.2927, 92.0717, -51.5859, 48.7194
3.624, 1, 34.015, 47.8447, -12.3209, 92.1685, -51.58, 48.644
3.628, 1, 34.0584, 47.8482, -12.3492, 92.2653, -51.5741, 48.5686
3.632, 1, 34.1017, 47.8517, -12.3773, 92.3619, -51.5682, 48.4933
3.636, 1, 34.145, 47.8552, -12.4055, 92.4585, -51.5623, 48.4181
3.64, 1, 34.1882, 47.8588, -12.4336, 92.555, -51.5564, 48.3429
3.644, 1, 34.2315, 47.8623, -12.4618, 92.6514, -51.5505, 48.2678
3.648, 1, 34.2747, 47.8658, -12.4899, 92.7477, -51.5446, 48.1928
3.652, 1, 34.3178, 47.8693, -12.5179, 92.844, -51.5387, 48.1178
3.656, 1, 34.3609, 47.8728, -12.546, 92.9401, -51.5328, 48.0429
3.66, 1, 34.404, 47.8763, -12.574, 93.0363, -51.527, 47.968
3.664, 1, 34.4471, 47.8798, -12.602, 93.1323, -51.5211, 47.8932
3.668, 1, 34.4901, 47.8833, -12.63, 93.2282, -51.5152, 47.8184
3.672, 1, 34.5331, 47.8868, -12.6579, 93.3241, -51.5094, 47.7438
3.676, 1, 34.576, 47.8903, -12.6859, 93.4199, -51.5035, 47.6691
3.679, 1, 34.6189, 47.8938, -12.7138, 93.5156, -51.4977, 47.5946
3.684, 1, 34.6618, 47.8973, -12.7417, 93.6113, -51.4919, 47.52
3.688, 1, 34.7047, 47.9008, -12.7696, 93.7069, -51.486, 47.4456
3.692, 1, 34.7475, 47.9043, -12.7974, 93.8024, -51.4802, 47.3712
3.696, 1, 34.7903, 47.9078, -12.8252, 93.8978, -51.4744, 47.2969
3.7, 1, 34.833, 47.9112, -12.8531, 93.9931, -51.4685, 47.2226
3.704, 1, 34.8758, 47.9147, -12.8808, 94.0884, -51.4627, 47.1484
3.708, 1, 34.9184, 47.9182, -12.9086, 94.1836, -51.4569, 47.0742
3.712, 1, 34.9611, 47.9217, -12.9363, 94.2787, -51.4511, 47.0001
3.716, 1, 35.0037, 47.9251, -12.9641, 94.3738, -51.4453, 46.926
3.72, 1, 35.0462, 47.9286, -12.9918, 94.4688, -51.4395, 46.852
3.724, 1, 35.0886, 47.9321, -13.0195, 94.5637, -51.4337, 46.7781
3.728, 1, 35.1307, 47.9356, -13.0472, 94.6585, -51.4279, 46.7043
3.732, 1, 35.1723, 47.9391, -13.0749, 94.7532, -51.4222, 46.6305
3.735, 1, 35.2133, 47.9428, -13.1026, 94.8477, -51.4164, 46.5568
3.74, 1, 35.2536, 47.9465, -13.1304, 94.942, -51.4107, 46.4833
3.744, 1, 35.2929, 47.9503, -13.1581, 95.0359, -51.405, 46.4102
3.748, 1, 35.3313, 47.9542, -13.1858, 95.1292, -51.3994, 46.3374
3.752, 1, 35.3686, 47.9583, -13.2135, 95.2217, -51.3939, 46.2653
3.756, 1, 35.4048, 47.9624, -13.2409, 95.3131, -51.3885, 46.194
3.76, 1, 35.4397, 47.9667, -13.268, 95.403, -51.3831, 46.124
3.764, 1, 35.4734, 47.971, -13.2947, 95.4909, -51.378, 46.0554
3.768, 1, 35.5057, 47.9752, -13.3207, 95.5763, -51.3729, 45.9887
3.772, 1, 35.5367, 47.9794, -13.3459, 95.6588, -51.3681, 45.9244
3.776, 1, 35.5664, 47.9834, -13.37, 95.7378, -51.3635, 45.8627
3.78, 1, 35.5949, 47.9871, -13.3928, 95.8128, -51.3591, 45.8042
3.784, 1, 35.6222, 47.9905, -13.4143, 95.8834, -51.3549, 45.7492
3.788, 1, 35.6482, 47.9936, -13.4341, 95.9491, -51.351, 45.6979
3.792, 1, 35.6728, 47.9963, -13.4523, 96.0097, -51.3474, 45.6507
3.796, 1, 35.6961, 47.9987, -13.4686, 96.0649, -51.3441, 45.6076
3.8, 1, 35.7182, 48.0005, -13.4832, 96.1146, -51.341, 45.5689
3.804, 1, 35.7389, 48.002, -13.4959, 96.1588, -51.3383, 45.5345
3.808, 1, 35.7585, 48.003, -13.5068, 96.1976, -51.3359, 45.5043
3.812, 1, 35.7768, 48.0036, -13.516, 96.2311, -51.3337, 45.4783
3.816, 1, 35.7939, 48.0039, -13.5235, 96.2597, -51.3318, 45.456
3.82, 1, 35.8094, 48.0038, -13.5296, 96.2838, -51.3302, 45.4374
3.824, 1, 35.8234, 48.0036, -13.5345, 96.3037, -51.3288, 45.4219
3.828, 2, 35.8358, 48.0032, -13.5383, 96.32, -51.3276, 45.4093
3.832, 2, 35.8467, 48.0028, -13.5412, 96.3331, -51.3266, 45.3992
3.836, 2, 35.8561, 48.0023, -13.5433, 96.3434, -51.3259, 45.3913
3.84, 2, 35.8645, 48.0017, -13.5448, 96.3513, -51.3252, 45.3851
3.844, 2, 35.8718, 48.0012, -13.5458, 96.3574, -51.3247, 45.3805
3.848, 2, 35.8783, 48.0006, -13.5464, 96.3619, -51.3243, 45.3771
3.852, 2, 35.8838, 48.0001, -13.5468, 96.3651, -51.324, 45.3746
3.856, 2, 35.8884, 47.9997, -13.547, 96.3674, -51.3238, 45.3729
3.86, 2, 35.8922, 47.9993, -13.547, 96.369, -51.3236, 45.3717
3.864, 2, 35.895, 47.999, -13.547, 96.3701, -51.3235, 45.3708
3.868, 2, 35.8971, 47.9988, -13.547, 96.3708, -51.3234, 45.3703
3.872, 2, 35.8985, 47.9987, -13.547, 96.3713, -51.3233, 45.3699
3.876, 2, 35.8994, 47.9986, -13.547, 96.3717, -51.3233, 45.3696
3.88, 2, 35.9001, 47.9986, -13.547, 96.3719, -51.3233, 45.3694
3.884, 2, 35.9005, 47.9985, -13.547, 96.3721, -51.3233, 45.3693
3.888, 2, 35.9008, 47.9985, -13.547, 96.3722, -51.3232, 45.3693
3.892, 2, 35.901, 47.9985, -13.547, 96.3722, -51.3232, 45.3692
3.896, 2, 35.9012, 47.9984, -13.547, 96.3723, -51.3232, 45.3692
3.9, 2, 35.9013, 47.9984, -13.547, 96.3723, -51.3232, 45.3691
3.904, 2, 35.9013, 47.9984, -13.547, 96.3723, -51.3232, 45.3691
3.908, 2, 35.9014, 47.9984, -13.547, 96.3724, -51.3232, 45.3691
3.912, 2, 35.9014, 47.9984, -13.547, 96.3724, -51.3232, 45.3691
3.916, 2, 35.9014, 47.9984, -13.547, 96.3724, -51.3232, 45.3691
3.92, 2, 35.9014, 47.9984, -13.547, 96.3724, -51.3232, 45.3691
3.924, 2, 35.9014, 47.9984, -13.547, 96.3724, -51.3232, 45.3691
3.928, 2, 35.9014, 47.9984, -13.547, 96.3724, -51.3232, 45.3691
3.932, 2, 35.9014, 47.9984, -13.547, 96.3724, -51.3232, 45.3691
3.936, 2, 35.9015, 47.9984, -13.547, 96.3724, -51.3232, 45.3691
3.94, 2, 35.9015, 47.9984, -13.547, 96.3724, -51.3232, 45.3691
3.944, 2, 35.9015, 47.9984, -13.547, 96.3724, -51.3232, 45.3691
3.948, 2, 35.9015, 47.9984, -13.547, 96.3724, -51.3232, 45.3691
3.952, 2, 35.9015, 47.9984, -13.547, 96.3724, -51.3232, 45.3691
3.956, 2, 35.9015, 47.9984, -13.547, 96.3724, -51.3232, 45.3691
3.96, 2, 35.9015, 47.9984, -13.547, 96.3724, -51.3232, 45.3691
3.964, 2, 35.9015, 47.9984, -13.547, 96.3724, -51.3232, 45.3691
3.968, 2, 35.9015, 47.9984, -13.547, 96.3724, -51.3232, 45.3691
3.972, 2, 35.9015, 47.9984, -13.547, 96.3724, -51.3232, 45.3691
3.976, 2, 35.9015, 47.9984, -13.547, 96.3724, -51.3232, 45.3691
3.98, 2, 35.9015, 47.9984, -13.547, 96.3724, -51.3232, 45.3691
3.984, 2, 35.9015, 47.9984, -13.547, 96.3724, -51.3232, 45.3691
3.988, 2, 35.9015, 47.9984, -13.547, 96.3724, -51.3232, 45.3691
3.992, 2, 35.9015, 47.9984, -13.547, 96.3724, -51.3232, 45.3691
3.996, 2, 35.9015, 47.9984, -13.547, 96.3724, -51.3232, 45.3691
3.999, 2, 35.9015, 47.9984, -13.547, 96.3724, -51.3232, 45.3691
4.004, 2, 35.9015, 47.9984, -13.547, 96.3724, -51.3232, 45.3691
4.008, 2, 35.9015, 47.9984, -13.547, 96.3724, -51.3232, 45.3691
4.012, 2, 35.9015, 47.9984, -13.547, 96.3724, -51.3232, 45.3691
4.016, 2, 35.9015, 47.9984, -13.547, 96.3724, -51.3232, 45.3691
4.02, 2, 35.9015, 47.9984, -13.547, 96.3724, -51.3232, 45.3691
4.024, 2, 35.9015, 47.9984, -13.547, 96.3724, -51.3232, 45.3691
4.028, 2, 35.9015, 47.9984, -13.547, 96.3724, -51.3232, 45.3691
4.032, 2, 35.9015, 47.9984, -13.547, 96.3724, -51.3232, 45.3691
4.036, 2, 35.9015, 47.9984, -13.547, 96.3724, -51.3232, 45.3691
4.04, 2, 35.9015, 47.9984, -13.547, 96.3724, -51.3232, 45.3691
4.044, 2, 35.9015, 47.9984, -13.547, 96.3724, -51.3232, 45.3691
4.048, 2, 35.9015, 47.9984, -13.547, 96.3724, -51.3232, 45.3691
4.052, 2, 35.9015, 47.9984, -13.547, 96.3724, -51.3232, 45.3691
4.056, 2, 35.9015, 47.9984, -13.547, 96.3724, -51.3232, 45.3691
4.06, 2, 35.9015, 47.9984, -13.547, 96.3724, -51.3232, 45.3691
4.064, 2, 35.9015, 47.9984, -13.547, 96.3724, -51.3232, 45.3691
4.068, 2, 35.9015, 47.9984, -13.547, 96.3724, -51.3232, 45.3691
4.072, 2, 35.9015, 47.9984, -13.547, 96.3724, -51.3232, 45.3691
4.076, 2, 35.9015, 47.9984, -13.547, 96.3724, -51.3232, 45.3691
4.08, 2, 35.9015, 47.9984, -13.547, 96.3724, -51.3232, 45.3691
4.084, 2, 35.9015, 47.9984, -13.547, 96.3724, -51.3232, 45.3691
4.088, 2, 35.9015, 47.9984, -13.547, 96.3724, -51.3232, 45.3691
4.092, 2, 35.9015, 47.9984, -13.547, 96.3724, -51.3232, 45.3691
4.096, 2, 35.9015, 47.9984, -13.547, 96.3724, -51.3232, 45.3691
4.1, 2, 35.9015, 47.9984, -13.547, 96.3724, -51.3232, 45.3691
4.104, 2, 35.9015, 47.9984, -13.547, 96.3724, -51.3232, 45.3691
4.108, 2, 35.9015, 47.9984, -13.547, 96.3724, -51.3232, 45.3691
4.112, 2, 35.9015, 47.9984, -13.547, 96.3724, -51.3232, 45.3691
4.116, 2, 35.9015, 47.9984, -13.547, 96.3724, -51.3232, 45.3691
4.12, 2, 35.9015, 47.9984, -13.547, 96.3724, -51.3232, 45.3691
4.124, 2, 35.9015, 47.9984, -13.547, 96.3724, -51.3232, 45.3691
4.128, 2, 35.9015, 47.9984, -13.547, 96.3724, -51.3232, 45.3691
4.132, 2, 35.9015, 47.9984, -13.547, 96.3724, -51.3232, 45.3691
4.136, 2, 35.9015, 47.9984, -13.547, 96.3724, -51.3232, 45.3691
4.14, 2, 35.9015, 47.9984, -13.547, 96.3724, -51.3232, 45.3691
4.144, 2, 35.9015, 47.9984, -13.547, 96.3724, -51.3232, 45.3691
4.148, 2, 35.9015, 47.9984, -13.547, 96.3724, -51.3232, 45.3691
4.152, 2, 35.9015, 47.9984, -13.547, 96.3724, -51.3232, 45.3691
4.156, 2, 35.9015, 47.9984, -13.547, 96.3724, -51.3232, 45.3691
4.16, 2, 35.9015, 47.9984, -13.547, 96.3724, -51.3232, 45.3691
4.164, 2, 35.9015, 47.9984, -13.547, 96.3724, -51.3232, 45.3691
4.168, 2, 35.9015, 47.9984, -13.547, 96.3724, -51.3232, 45.3691
4.172, 2, 35.9015, 47.9984, -13.547, 96.3724, -51.3232, 45.3691
4.176, 2, 35.9015, 47.9984, -13.547, 96.3724, -51.3232, 45.3691
4.18, 2, 35.9015, 47.9984, -13.547, 96.3724, -51.3232, 45.3691
4.184, 2, 35.9015, 47.9984, -13.547, 96.3724, -51.3232, 45.3691
4.188, 2, 35.9015, 47.9984, -13.547, 96.3724, -51.3232, 45.3691
4.192, 2, 35.9015, 47.9984, -13.547, 96.3724, -51.3232, 45.3691
4.196, 2, 35.9015, 47.9984, -13.547, 96.3724, -51.3232, 45.3691
4.2, 2, 35.9015, 47.9984, -13.547, 96.3724, -51.3232, 45.3691
4.204, 2, 35.9015, 47.9984, -13.547, 96.3724, -51.3232, 45.3691
4.208, 2, 35.9015, 47.9984, -13.547, 96.3724, -51.3232, 45.3691
4.212, 2, 35.9015, 47.9984, -13.547, 96.3724, -51.3232, 45.3691
4.216, 2, 35.9015, 47.9984, -13.547, 96.3724, -51.3232, 45.3691
4.22, 2, 35.9015, 47.9984, -13.547, 96.3724, -51.3232, 45.3691
4.224, 2, 35.9015, 47.9984, -13.547, 96.3724, -51.3232, 45.3691
4.228, 2, 35.9015, 47.9984, -13.547, 96.3724, -51.3232, 45.3691
4.232, 2, 35.9015, 47.9984, -13.547, 96.3724, -51.3232, 45.3691
4.236, 2, 35.9015, 47.9984, -13.547, 96.3724, -51.3232, 45.3691
4.24, 2, 35.9015, 47.9984, -13.547, 96.3724, -51.3232, 45.3691
4.244, 2, 35.9015, 47.9984, -13.547, 96.3724, -51.3232, 45.3691
4.248, 2, 35.9015, 47.9984, -13.547, 96.3724, -51.3232, 45.3691
4.252, 2, 35.9015, 47.9984, -13.547, 96.3724, -51.3232, 45.3691
4.256, 2, 35.9015, 47.9984, -13.547, 96.3724, -51.3232, 45.3691
4.26, 2, 35.9015, 47.9984, -13.547, 96.3724, -51.3232, 45.3691
4.264, 2, 35.9015, 47.9984, -13.547, 96.3724, -51.3232, 45.3691
4.268, 2, 35.9015, 47.9984, -13.547, 96.3724, -51.3232, 45.3691
4.272, 2, 35.9015, 47.9984, -13.547, 96.3724, -51.3232, 45.3691
4.276, 2, 35.9015, 47.9984, -13.547, 96.3724, -51.3232, 45.3691
4.28, 2, 35.9015, 47.9984, -13.547, 96.3724, -51.3232, 45.3691
4.284, 2, 35.9015, 47.9984, -13.547, 96.3724, -51.3232, 45.3691
4.288, 2, 35.9015, 47.9984, -13.547, 96.3724, -51.3232, 45.3691
4.292, 2, 35.9015, 47.9984, -13.547, 96.3724, -51.3232, 45.3691
4.296, 2, 35.9015, 47.9984, -13.547, 96.3724, -51.3232, 45.3691
4.3, 2, 35.9015, 47.9984, -13.547, 96.3724, -51.3232, 45.3691
4.304, 2, 35.9015, 47.9984, -13.547, 96.3724, -51.3232, 45.3691
4.308, 2, 35.9015, 47.9984, -13.547, 96.3724, -51.3232, 45.3691
4.312, 2, 35.9015, 47.9984, -13.547, 96.3724, -51.3232, 45.3691
4.316, 2, 35.9015, 47.9984, -13.547, 96.3724, -51.3232, 45.3691
4.32, 2, 35.9015, 47.9984, -13.547, 96.3724, -51.3232, 45.3691
4.324, 2, 35.9015, 47.9984, -13.547, 96.3724, -51.3232, 45.3691
4.328, 2, 35.9015, 47.9984, -13.547, 96.3724, -51.3232, 45.3691
4.332, 2, 35.9015, 47.9984, -13.547, 96.3724, -51.3232, 45.3691
4.336, 2, 35.9015, 47.9984, -13.547, 96.3724, -51.3232, 45.3691
4.34, 2, 35.9015, 47.9984, -13.547, 96.3724, -51.3232, 45.3691
4.344, 2, 35.9015, 47.9984, -13.547, 96.3724, -51.3232, 45.3691
4.348, 2, 35.9015, 47.9984, -13.547, 96.3724, -51.3232, 45.3691
4.352, 2, 35.9015, 47.9984, -13.547, 96.3724, -51.3232, 45.3691
4.356, 2, 35.9015, 47.9984, -13.547, 96.3724, -51.3232, 45.3691
4.36, 2, 35.9015, 47.9984, -13.547, 96.3724, -51.3232, 45.3691
4.364, 2, 35.9015, 47.9984, -13.547, 96.3724, -51.3232, 45.3691
4.368, 2, 35.9015, 47.9984, -13.547, 96.3724, -51.3232, 45.3691
4.372, 2, 35.9015, 47.9984, -13.547, 96.3724, -51.3232, 45.3691
4.376, 2, 35.9015, 47.9984, -13.547, 96.3724, -51.3232, 45.3691
4.38, 2, 35.9015, 47.9984, -13.547, 96.3724, -51.3232, 45.3691
4.384, 2, 35.9015, 47.9984, -13.547, 96.3724, -51.3232, 45.3691
4.388, 2, 35.9015, 47.9984, -13.547, 96.3724, -51.3232, 45.3691
4.392, 2, 35.9015, 47.9984, -13.547, 96.3724, -51.3232, 45.3691
4.396, 2, 35.9015, 47.9984, -13.547, 96.3724, -51.3232, 45.3691
4.4, 2, 35.9015, 47.9984, -13.547, 96.3724, -51.3232, 45.3691
4.404, 2, 35.9015, 47.9984, -13.547, 96.3724, -51.3232, 45.3691
4.408, 2, 35.9015, 47.9984, -13.547, 96.3724, -51.3232, 45.3691
4.412, 2, 35.9015, 47.9984, -13.547, 96.3724, -51.3232, 45.3691
4.416, 2, 35.9015, 47.9984, -13.547, 96.3724, -51.3232, 45.3691
4.42, 2, 35.9015, 47.9984, -13.547, 96.3724, -51.3232, 45.3691
4.424, 2, 35.9015, 47.9984, -13.547, 96.3724, -51.3232, 45.3691
4.428, 2, 35.9015, 47.9984, -13.547, 96.3724, -51.3232, 45.3691
4.432, 2, 35.9015, 47.9984, -13.547, 96.3724, -51.3232, 45.3691
4.436, 2, 35.9015, 47.9984, -13.547, 96.3724, -51.3232, 45.3691
4.44, 2, 35.9015, 47.9984, -13.547, 96.3724, -51.3232, 45.3691
4.444, 2, 35.9015, 47.9984, -13.547, 96.3724, -51.3232, 45.3691
4.448, 2, 35.9015, 47.9984, -13.547, 96.3724, -51.3232, 45.3691
4.452, 2, 35.9015, 47.9984, -13.547, 96.3724, -51.3232, 45.3691
4.456, 2, 35.9015, 47.9984, -13.547, 96.3724, -51.3232, 45.3691
4.46, 2, 35.9015, 47.9984, -13.547, 96.3724, -51.3232, 45.3691
4.464, 2, 35.9015, 47.9984, -13.547, 96.3724, -51.3232, 45.3691
4.468, 2, 35.9015, 47.9984, -13.547, 96.3724, -51.3232, 45.3691
4.472, 2, 35.9015, 47.9984, -13.547, 96.3724, -51.3232, 45.3691
4.476, 2, 35.9015, 47.9984, -13.547, 96.3724, -51.3232, 45.3691
4.48, 2, 35.9015, 47.9984, -13.547, 96.3724, -51.3232, 45.3691
4.484, 2, 35.9015, 47.9984, -13.547, 96.3724, -51.3232, 45.3691
4.488, 2, 35.9015, 47.9984, -13.547, 96.3724, -51.3232, 45.3691
4.492, 2, 35.9015, 47.9984, -13.547, 96.3724, -51.3232, 45.3691
4.496, 2, 35.9015, 47.9984, -13.547, 96.3724, -51.3232, 45.3691
4.5, 2, 35.9015, 47.9984, -13.547, 96.3724, -51.3232, 45.3691
4.504, 2, 35.9015, 47.9984, -13.547, 96.3724, -51.3232, 45.3691
4.508, 2, 35.9015, 47.9984, -13.547, 96.3724, -51.3232, 45.3691
4.512, 2, 35.9015, 47.9984, -13.547, 96.3724, -51.3232, 45.3691
4.516, 2, 35.9015, 47.9984, -13.547, 96.3724, -51.3232, 45.3691
4.52, 2, 35.9015, 47.9984, -13.547, 96.3724, -51.3232, 45.3691
4.524, 2, 35.9015, 47.9984, -13.547, 96.3724, -51.3232, 45.3691
4.528, 2, 35.9015, 47.9984, -13.547, 96.3724, -51.3232, 45.3691
4.532, 2, 35.9015, 47.9984, -13.547, 96.3724, -51.3232, 45.3691
4.536, 2, 35.9015, 47.9984, -13.547, 96.3724, -51.3232, 45.3691
4.54, 2, 35.9015, 47.9984, -13.547, 96.3724, -51.3232, 45.3691
4.544, 2, 35.9015, 47.9984, -13.547, 96.3724, -51.3232, 45.3691
4.548, 2, 35.9015, 47.9984, -13.547, 96.3724, -51.3232, 45.3691
4.552, 2, 35.9015, 47.9984, -13.547, 96.3724, -51.3232, 45.3691
4.556, 2, 35.9015, 47.9984, -13.547, 96.3724, -51.3232, 45.3691
4.56, 2, 35.9015, 47.9984, -13.547, 96.3724, -51.3232, 45.3691
4.564, 2, 35.9015, 47.9984, -13.547, 96.3724, -51.3232, 45.3691
4.568, 2, 35.9015, 47.9984, -13.547, 96.3724, -51.3232, 45.3691
4.572, 2, 35.9015, 47.9984, -13.547, 96.3724, -51.3232, 45.3691
4.576, 2, 35.9015, 47.9984, -13.547, 96.3724, -51.3232, 45.3691
4.58, 2, 35.9015, 47.9984, -13.547, 96.3724, -51.3232, 45.3691
4.584, 2, 35.9015, 47.9984, -13.547, 96.3724, -51.3232, 45.3691
4.588, 2, 35.9015, 47.9984, -13.547, 96.3724, -51.3232, 45.3691
4.592, 2, 35.9015, 47.9984, -13.547, 96.3724, -51.3232, 45.3691
4.596, 2, 35.9015, 47.9984, -13.547, 96.3724, -51.3232, 45.3691
4.6, 2, 35.9015, 47.9984, -13.547, 96.3724, -51.3232, 45.3691
4.604, 2, 35.9015, 47.9984, -13.547, 96.3724, -51.3232, 45.3691
4.608, 2, 35.9015, 47.9984, -13.547, 96.3724, -51.3232, 45.3691
4.612, 2, 35.9015, 47.9984, -13.547, 96.3724, -51.3232, 45.3691
4.616, 2, 35.9015, 47.9984, -13.547, 96.3724, -51.3232, 45.3691
4.62, 2, 35.9015, 47.9984, -13.547, 96.3724, -51.3232, 45.3691
4.624, 2, 35.9015, 47.9984, -13.547, 96.3724, -51.3232, 45.3691
4.628, 2, 35.9015, 47.9984, -13.547, 96.3724, -51.3232, 45.3691
4.632, 2, 35.9015, 47.9984, -13.547, 96.3724, -51.3232, 45.3691
4.636, 2, 35.9015, 47.9984, -13.547, 96.3724, -51.3232, 45.3691
4.64, 2, 35.9015, 47.9984, -13.547, 96.3724, -51.3232, 45.3691
4.644, 2, 35.9015, 47.9984, -13.547, 96.3724, -51.3232, 45.3691
4.648, 2, 35.9015, 47.9984, -13.547, 96.3724, -51.3232, 45.3691
4.652, 2, 35.9015, 47.9984, -13.547, 96.3724, -51.3232, 45.3691
4.656, 2, 35.9015, 47.9984, -13.547, 96.3724, -51.3232, 45.3691
4.66, 2, 35.9015, 47.9984, -13.547, 96.3724, -51.3232, 45.3691
4.664, 2, 35.9015, 47.9984, -13.547, 96.3724, -51.3232, 45.3691
4.668, 2, 35.9015, 47.9984, -13.547, 96.3724, -51.3232, 45.3691
4.672, 2, 35.9015, 47.9984, -13.547, 96.3724, -51.3232, 45.3691
4.676, 2, 35.9015, 47.9984, -13.547, 96.3724, -51.3232, 45.3691
4.68, 2, 35.9015, 47.9984, -13.547, 96.3724, -51.3232, 45.3691
4.684, 2, 35.9015, 47.9984, -13.547, 96.3724, -51.3232, 45.3691
4.688, 2, 35.9015, 47.9984, -13.547, 96.3724, -51.3232, 45.3691
4.692, 2, 35.9015, 47.9984, -13.547, 96.3724, -51.3232, 45.3691
4.696, 2, 35.9015, 47.9984, -13.547, 96.3724, -51.3232, 45.3691
4.7, 2, 35.9015, 47.9984, -13.547, 96.3724, -51.3232, 45.3691
4.704, 2, 35.9015, 47.9984, -13.547, 96.3724, -51.3232, 45.3691
4.708, 2, 35.9015, 47.9984, -13.547, 96.3724, -51.3232, 45.3691
4.712, 2, 35.9015, 47.9984, -13.547, 96.3724, -51.3232, 45.3691
4.716, 2, 35.9015, 47.9984, -13.547, 96.3724, -51.3232, 45.3691
4.72, 2, 35.9015, 47.9984, -13.547, 96.3724, -51.3232, 45.3691
4.724, 2, 35.9015, 47.9984, -13.547, 96.3724, -51.3232, 45.3691
4.728, 2, 35.9015, 47.9984, -13.547, 96.3724, -51.3232, 45.3691
4.732, 2, 35.9015, 47.9984, -13.547, 96.3724, -51.3232, 45.3691
4.736, 2, 35.9015, 47.9984, -13.547, 96.3724, -51.3232, 45.3691
4.74, 2, 35.9015, 47.9984, -13.547, 96.3724, -51.3232, 45.3691
4.744, 2, 35.9015, 47.9984, -13.547, 96.3724, -51.3232, 45.3691
4.748, 2, 35.9015, 47.9984, -13.547, 96.3724, -51.3232, 45.3691
4.752, 2, 35.9015, 47.9984, -13.547, 96.3724, -51.3232, 45.3691
4.756, 2, 35.9015, 47.9984, -13.547, 96.3724, -51.3232, 45.3691
4.76, 2, 35.9015, 47.9984, -13.547, 96.3724, -51.3232, 45.3691
4.764, 2, 35.9015, 47.9984, -13.547, 96.3724, -51.3232, 45.3691
4.768, 2, 35.9015, 47.9984, -13.547, 96.3724, -51.3232, 45.3691
4.772, 2, 35.9015, 47.9984, -13.547, 96.3724, -51.3232, 45.3691
4.776, 2, 35.9015, 47.9984, -13.547, 96.3724, -51.3232, 45.3691
4.78, 2, 35.9015, 47.9984, -13.547, 96.3724, -51.3232, 45.3691
4.784, 2, 35.9015, 47.9984, -13.547, 96.3724, -51.3232, 45.3691
4.788, 2, 35.9015, 47.9984, -13.547, 96.3724, -51.3232, 45.3691
4.792, 2, 35.9015, 47.9984, -13.547, 96.3724, -51.3232, 45.3691
4.796, 2, 35.9015, 47.9984, -13.547, 96.3724, -51.3232, 45.3691
4.8, 2, 35.9015, 47.9984, -13.547, 96.3724, -51.3232, 45.3691
4.804, 2, 35.9015, 47.9984, -13.547, 96.3724, -51.3232, 45.3691
4.808, 2, 35.9015, 47.9984, -13.547, 96.3724, -51.3232, 45.3691
4.812, 2, 35.9015, 47.9984, -13.547, 96.3724, -51.3232, 45.3691
4.816, 2, 35.9015, 47.9984, -13.547, 96.3724, -51.3232, 45.3691
4.82, 2, 35.9015, 47.9984, -13.547, 96.3724, -51.3232, 45.3691
4.824, 2, 35.9015, 47.9984, -13.547, 96.3724, -51.3232, 45.3691
4.828, 3, 35.9015, 47.9984, -13.547, 96.3724, -51.3232, 45.3691
4.832, 3, 35.9015, 47.9984, -13.547, 96.3724, -51.3232, 45.3691
4.836, 3, 35.9015, 47.9984, -13.547, 96.3724, -51.3232, 45.3691
4.84, 3, 35.9015, 47.9984, -13.547, 96.3724, -51.3232, 45.3691
4.844, 3, 35.9015, 47.9984, -13.547, 96.3724, -51.3232, 45.3691
4.848, 3, 35.9015, 47.9984, -13.547, 96.3724, -51.3232, 45.3691
4.852, 3, 35.9015, 47.9984, -13.547, 96.3724, -51.3232, 45.3691
4.856, 3, 35.9015, 47.9984, -13.547, 96.3724, -51.3232, 45.3691
4.86, 3, 35.9015, 47.9984, -13.547, 96.3724, -51.3232, 45.3691
4.864, 3, 35.9015, 47.9984, -13.547, 96.3724, -51.3232, 45.3691
4.868, 4, 35.9015, 47.9984, -13.547, 96.3724, -51.3232, 45.3691
4.872, 4, 35.9015, 47.9984, -13.547, 96.3724, -51.3232, 45.3691
4.876, 4, 35.9015, 47.9984, -13.547, 96.3724, -51.3232, 45.3691
4.88, 4, 35.9015, 47.9984, -13.547, 96.3724, -51.3232, 45.3691
4.884, 4, 35.9015, 47.9984, -13.547, 96.3724, -51.3232, 45.3691
4.888, 4, 35.9015, 47.9984, -13.547, 96.3724, -51.3232, 45.3691
4.892, 4, 35.9015, 47.9984, -13.547, 96.3724, -51.3232, 45.3691
4.896, 4, 35.9015, 47.9984, -13.547, 96.3724, -51.3232, 45.3691
4.9, 4, 35.9015, 47.9984, -13.547, 96.3724, -51.3232, 45.3691
4.904, 4, 35.9015, 47.9984, -13.547, 96.3724, -51.3232, 45.3691
4.908, 4, 35.9015, 47.9984, -13.547, 96.3724, -51.3232, 45.3691
4.912, 4, 35.9015, 47.9984, -13.547, 96.3724, -51.3232, 45.3691
4.916, 4, 35.9015, 47.9984, -13.547, 96.3724, -51.3232, 45.3691
4.92, 4, 35.9015, 47.9984, -13.547, 96.3724, -51.3232, 45.3691
4.924, 4, 35.9015, 47.9984, -13.547, 96.3724, -51.3232, 45.3691
4.928, 4, 35.9015, 47.9984, -13.547, 96.3724, -51.3232, 45.3691
4.932, 4, 35.9015, 47.9984, -13.547, 96.3724, -51.3232, 45.3691
4.936, 4, 35.9015, 47.9984, -13.547, 96.3724, -51.3232, 45.3691
4.94, 4, 35.9015, 47.9984, -13.547, 96.3724, -51.3232, 45.3691
4.944, 4, 35.9015, 47.9984, -13.547, 96.3724, -51.3232, 45.3691
4.948, 4, 35.9015, 47.9984, -13.547, 96.3724, -51.3232, 45.3691
4.952, 4, 35.9015, 47.9984, -13.547, 96.3724, -51.3232, 45.3691
4.956, 4, 35.9015, 47.9984, -13.547, 96.3724, -51.3232, 45.3691
4.96, 4, 35.9015, 47.9984, -13.547, 96.3724, -51.3232, 45.3691
4.964, 4, 35.9015, 47.9984, -13.547, 96.3724, -51.3232, 45.3691
4.968, 5, 35.9015, 47.9984, -13.547, 96.3724, -51.3232, 45.3691
4.972, 5, 35.9015, 47.9984, -13.547, 96.3724, -51.3232, 45.3691
4.976, 5, 35.9015, 47.9984, -13.547, 96.3724, -51.3232, 45.3691
4.98, 5, 35.9015, 47.9984, -13.547, 96.3724, -51.3232, 45.3691
4.984, 5, 35.9015, 47.9984, -13.547, 96.3724, -51.3232, 45.3691
4.988, 5, 35.9015, 47.9984, -13.547, 96.3724, -51.3232, 45.3691
4.992, 5, 35.9015, 47.9984, -13.547, 96.3724, -51.3232, 45.3691
4.996, 5, 35.9015, 47.9984, -13.547, 96.3724, -51.3232, 45.3691
5, 5, 35.9015, 47.9984, -13.547, 96.3724, -51.3232, 45.3691
5.004, 5, 35.9014, 47.9985, -13.547, 96.3724, -51.3232, 45.3691
5.008, 5, 35.9014, 47.9986, -13.5471, 96.3724, -51.3232, 45.3691
5.012, 5, 35.9013, 47.999, -13.5471, 96.3724, -51.3233, 45.369
5.016, 5, 35.901, 47.9998, -13.5472, 96.3724, -51.3234, 45.3689
5.02, 5, 35.9006, 48.001, -13.5473, 96.3725, -51.3238, 45.3686
5.024, 5, 35.9, 48.0029, -13.5476, 96.3727, -51.3246, 45.3679
5.028, 5, 35.8991, 48.0056, -13.548, 96.3731, -51.326, 45.3667
5.032, 5, 35.8981, 48.0091, -13.5487, 96.3738, -51.3285, 45.3646
5.036, 5, 35.8968, 48.0137, -13.5497, 96.3748, -51.3325, 45.3611
5.04, 5, 35.8953, 48.0196, -13.5512, 96.3763, -51.3387, 45.3559
5.044, 5, 35.8936, 48.0268, -13.5533, 96.3786, -51.3476, 45.3482
5.048, 5, 35.8916, 48.0359, -13.5562, 96.3817, -51.3602, 45.3375
5.052, 5, 35.8894, 48.0469, -13.5599, 96.3859, -51.3773, 45.323
5.056, 5, 35.8869, 48.0601, -13.5649, 96.3914, -51.4, 45.3037
5.06, 5, 35.8842, 48.0757, -13.5711, 96.3986, -51.4293, 45.2789
5.064, 5, 35.8813, 48.0937, -13.5789, 96.4075, -51.4664, 45.2475
5.068, 5, 35.8782, 48.1144, -13.5883, 96.4185, -51.5124, 45.2085
5.072, 5, 35.8748, 48.138, -13.5997, 96.4317, -51.5685, 45.1612
5.076, 5, 35.8712, 48.1647, -13.6132, 96.4474, -51.6357, 45.1046
5.08, 5, 35.8674, 48.1947, -13.629, 96.4658, -51.715, 45.038
5.084, 5, 35.8632, 48.2283, -13.6472, 96.4869, -51.8074, 44.9606
5.088, 5, 35.8587, 48.2657, -13.6679, 96.5108, -51.9136, 44.8719
5.092, 5, 35.8538, 48.3071, -13.6912, 96.5376, -52.0343, 44.7714
5.096, 5, 35.8485, 48.3526, -13.7173, 96.5672, -52.1702, 44.6587
5.1, 5, 35.8427, 48.4024, -13.7461, 96.5996, -52.3218, 44.5335
5.104, 5, 35.8364, 48.4567, -13.7776, 96.6347, -52.4895, 44.3956
5.108, 5, 35.8295, 48.5155, -13.8119, 96.6724, -52.6735, 44.245
5.112, 5, 35.8221, 48.5788, -13.8489, 96.7125, -52.8742, 44.0815
5.116, 5, 35.8141, 48.6464, -13.8885, 96.7547, -53.0916, 43.9054
5.12, 5, 35.8056, 48.7182, -13.9306, 96.7988, -53.3257, 43.7168
5.124, 5, 35.7967, 48.7939, -13.9751, 96.8445, -53.5764, 43.5161
5.128, 5, 35.7874, 48.873, -14.0219, 96.8915, -53.8433, 43.3038
5.132, 5, 35.7777, 48.9553, -14.0705, 96.9395, -54.1257, 43.0805
5.136, 5, 35.7677, 49.0401, -14.121, 96.9879, -54.4228, 42.847
5.14, 5, 35.7576, 49.1272, -14.1728, 97.0365, -54.7334, 42.6046
5.144, 5, 35.7473, 49.2159, -14.2257, 97.0848, -55.0561, 42.3545
5.148, 5, 35.7369, 49.3057, -14.2794, 97.1325, -55.3891, 42.098
5.152, 5, 35.7266, 49.3962, -14.3335, 97.179, -55.7305, 41.837
5.156, 5, 35.7164, 49.487, -14.3875, 97.224, -56.0779, 41.573
5.16, 5, 35.7063, 49.5779, -14.4412, 97.2672, -56.429, 41.3079
5.164, 5, 35.6964, 49.6687, -14.4941, 97.3082, -56.7813, 41.0437
5.168, 5, 35.6865, 49.7592, -14.5458, 97.3468, -57.1323, 40.7822
5.172, 5, 35.6767, 49.8491, -14.5961, 97.3827, -57.4795, 40.5251
5.176, 5, 35.6666, 49.938, -14.6447, 97.4159, -57.8207, 40.274
5.18, 5, 35.6563, 50.0257, -14.6912, 97.4463, -58.1537, 40.0305
5.184, 5, 35.6456, 50.1115, -14.7355, 97.4738, -58.4765, 39.7958
5.188, 5, 35.6346, 50.1951, -14.7775, 97.4985, -58.7876, 39.571
5.192, 5, 35.6234, 50.2759, -14.817, 97.5204, -59.0854, 39.3568
5.196, 5, 35.6121, 50.3536, -14.854, 97.5398, -59.3689, 39.1541
5.2, 5, 35.6008, 50.4277, -14.8883, 97.5568, -59.6373, 38.9632
5.204, 5, 35.5896, 50.4981, -14.9202, 97.5716, -59.8897, 38.7845
5.208, 5, 35.5787, 50.5644, -14.9495, 97.5843, -60.1257, 38.618
5.212, 5, 35.5682, 50.6266, -14.9763, 97.5952, -60.3451, 38.464
5.216, 5, 35.558, 50.6845, -15.0007, 97.6045, -60.5477, 38.3224
5.22, 5, 35.5483, 50.7382, -15.0228, 97.6123, -60.7334, 38.193
5.224, 5, 35.539, 50.7877, -15.0427, 97.6189, -60.9025, 38.0755
5.228, 5, 35.5302, 50.8331, -15.0605, 97.6243, -61.0552, 37.9698
5.232, 5, 35.522, 50.8746, -15.0762, 97.6289, -61.1919, 37.8753
5.236, 5, 35.5142, 50.9121, -15.0902, 97.6325, -61.3132, 37.7918
5.24, 5, 35.507, 50.9461, -15.1023, 97.6356, -61.4197, 37.7186
5.244, 5, 35.5001, 50.9766, -15.1129, 97.638, -61.5122, 37.6551
5.248, 5, 35.4937, 51.0041, -15.122, 97.6399, -61.5916, 37.6008
5.252, 5, 35.4877, 51.0286, -15.1297, 97.6415, -61.6588, 37.5548
5.256, 5, 35.482, 51.0503, -15.1363, 97.6427, -61.715, 37.5164
5.26, 5, 35.4769, 51.0694, -15.1417, 97.6436, -61.7614, 37.4848
5.264, 5, 35.4722, 51.0861, -15.1462, 97.6444, -61.7991, 37.4591
5.268, 5, 35.4679, 51.1005, -15.1499, 97.6449, -61.8292, 37.4386
5.272, 5, 35.4641, 51.113, -15.1528, 97.6454, -61.8529, 37.4225
5.276, 6, 35.4606, 51.1239, -15.1551, 97.6457, -61.8711, 37.4101
5.28, 6, 35.4575, 51.1332, -15.1569, 97.6459, -61.8849, 37.4008
5.284, 6, 35.4547, 51.1412, -15.1583, 97.6461, -61.8952, 37.3938
5.288, 6, 35.4522, 51.1478, -15.1593, 97.6462, -61.9026, 37.3888
5.292, 6, 35.4501, 51.1532, -15.1601, 97.6463, -61.9078, 37.3852
5.296, 6, 35.4484, 51.1573, -15.1607, 97.6464, -61.9114, 37.3828
5.3, 6, 35.447, 51.1604, -15.1611, 97.6464, -61.9139, 37.3811
5.304, 6, 35.4461, 51.1626, -15.1614, 97.6465, -61.9157, 37.3799
5.308, 6, 35.4454, 51.1641, -15.1616, 97.6465, -61.9168, 37.3791
5.312, 6, 35.4449, 51.1652, -15.1617, 97.6465, -61.9176, 37.3786
5.316, 6, 35.4446, 51.166, -15.1618, 97.6465, -61.9181, 37.3783
5.32, 6, 35.4443, 51.1668, -15.1618, 97.6465, -61.9185, 37.378
5.324, 6, 35.4441, 51.1677, -15.1618, 97.6464, -61.9189, 37.3779
5.328, 6, 35.4437, 51.169, -15.1617, 97.6462, -61.9194, 37.3778
5.332, 6, 35.4433, 51.1708, -15.1616, 97.6459, -61.9201, 37.3778
5.336, 6, 35.4428, 51.1732, -15.1614, 97.6452, -61.9214, 37.3779
5.34, 6, 35.4422, 51.1763, -15.1611, 97.644, -61.9235, 37.3782
5.344, 6, 35.4416, 51.18, -15.1606, 97.6421, -61.9268, 37.3786
5.348, 6, 35.4408, 51.1844, -15.1599, 97.6393, -61.9318, 37.3793
5.352, 6, 35.44, 51.1894, -15.1591, 97.6353, -61.9389, 37.3803
5.356, 6, 35.4393, 51.1948, -15.158, 97.6298, -61.9486, 37.3817
5.36, 6, 35.4386, 51.2006, -15.1567, 97.6226, -61.9613, 37.3834
5.364, 6, 35.438, 51.2066, -15.1551, 97.6136, -61.9772, 37.3857
5.368, 6, 35.4377, 51.2126, -15.1533, 97.6026, -61.9967, 37.3884
5.372, 6, 35.4376, 51.2184, -15.1511, 97.5896, -62.0197, 37.3916
5.376, 6, 35.4378, 51.2238, -15.1488, 97.5746, -62.0461, 37.3953
5.38, 6, 35.4382, 51.2288, -15.1462, 97.5579, -62.0756, 37.3995
5.384, 6, 35.4388, 51.2332, -15.1434, 97.5398, -62.1077, 37.4039
5.388, 6, 35.4396, 51.2371, -15.1405, 97.5207, -62.1416, 37.4087
5.392, 6, 35.4405, 51.2407, -15.1375, 97.5009, -62.1766, 37.4136
5.396, 6, 35.4414, 51.2442, -15.1345, 97.481, -62.2118, 37.4185
5.4, 6, 35.4423, 51.2478, -15.1316, 97.4615, -62.2463, 37.4233
5.404, 6, 35.443, 51.2517, -15.1288, 97.4429, -62.2794, 37.4279
5.408, 6, 35.4435, 51.2561, -15.1261, 97.4254, -62.3103, 37.4322
5.412, 6, 35.4438, 51.2611, -15.1236, 97.4095, -62.3385, 37.4361
5.416, 6, 35.4439, 51.2666, -15.1213, 97.3954, -62.3635, 37.4395
5.42, 6, 35.4437, 51.2726, -15.1193, 97.3832, -62.3852, 37.4425
5.424, 7, 35.4434, 51.2789, -15.1175, 97.3729, -62.4034, 37.445
5.428, 7, 35.4428, 51.2854, -15.116, 97.3645, -62.4184, 37.4471
5.432, 7, 35.4421, 51.2918, -15.1148, 97.3577, -62.4303, 37.4488
5.436, 7, 35.4414, 51.2981, -15.1138, 97.3525, -62.4396, 37.45
5.44, 7, 35.4406, 51.304, -15.113, 97.3486, -62.4466, 37.451
5.444, 7, 35.4399, 51.3092, -15.1123, 97.3457, -62.4517, 37.4517
5.448, 7, 35.4393, 51.3136, -15.1119, 97.3436, -62.4553, 37.4522
5.452, 7, 35.4388, 51.3171, -15.1115, 97.3422, -62.4579, 37.4526
5.456, 7, 35.4384, 51.3197, -15.1113, 97.3412, -62.4597, 37.4528
5.46, 7, 35.4381, 51.3217, -15.1111, 97.3405, -62.4609, 37.453
5.464, 7, 35.4378, 51.3231, -15.111, 97.34, -62.4617, 37.4531
5.468, 7, 35.4374, 51.3244, -15.1109, 97.3397, -62.4623, 37.4531
5.472, 7, 35.4368, 51.3257, -15.1109, 97.3395, -62.4628, 37.4531
5.476, 7, 35.4359, 51.3272, -15.1109, 97.3393, -62.4635, 37.453
5.48, 7, 35.4347, 51.3293, -15.1109, 97.3391, -62.4644, 37.4526
5.484, 7, 35.4332, 51.3319, -15.1111, 97.3389, -62.4661, 37.4519
5.488, 7, 35.4313, 51.3354, -15.1112, 97.3385, -62.4688, 37.4506
5.492, 7, 35.429, 51.3398, -15.1114, 97.3379, -62.473, 37.4486
5.496, 7, 35.4265, 51.3453, -15.1117, 97.3371, -62.4795, 37.4455
5.5, 7, 35.4235, 51.3522, -15.1121, 97.336, -62.4889, 37.441
5.504, 7, 35.4202, 51.3607, -15.1126, 97.3343, -62.502, 37.4346
5.508, 7, 35.4163, 51.3709, -15.1132, 97.332, -62.5199, 37.426
5.512, 7, 35.412, 51.3832, -15.1139, 97.329, -62.5436, 37.4145
5.516, 7, 35.4071, 51.3974, -15.1147, 97.3251, -62.5742, 37.3997
5.52, 7, 35.4017, 51.4138, -15.1156, 97.3202, -62.6129, 37.381
5.524, 7, 35.3959, 51.4324, -15.1166, 97.3139, -62.661, 37.3578
5.528, 7, 35.3894, 51.4534, -15.1177, 97.3063, -62.7197, 37.3295
5.532, 7, 35.3824, 51.4769, -15.1189, 97.297, -62.79, 37.2956
5.536, 7, 35.3746, 51.5032, -15.12, 97.2859, -62.873, 37.2556
5.54, 7, 35.3661, 51.5323, -15.1211, 97.2728, -62.9697, 37.2091
5.544, 7, 35.357, 51.5643, -15.1222, 97.2576, -63.081, 37.1557
5.548, 7, 35.3471, 51.5989, -15.1231, 97.2401, -63.2074, 37.0951
5.552, 7, 35.3368, 51.6357, -15.124, 97.2201, -63.3495, 37.027
5.556, 7, 35.3261, 51.6745, -15.1246, 97.1976, -63.5075, 36.9515
5.56, 7, 35.3153, 51.7149, -15.125, 97.1724, -63.6811, 36.8687
5.564, 7, 35.3043, 51.7565, -15.1249, 97.1447, -63.8697, 36.7789
5.568, 7, 35.2933, 51.7993, -15.1244, 97.1144, -64.0723, 36.6826
5.572, 7, 35.2824, 51.8429, -15.1232, 97.0817, -64.2873, 36.5805
5.576, 7, 35.2717, 51.8872, -15.1214, 97.0468, -64.513, 36.4736
5.58, 7, 35.2612, 51.9319, -15.119, 97.01, -64.7472, 36.3629
5.584, 7, 35.251, 51.9768, -15.1158, 96.9717, -64.9875, 36.2495
5.588, 7, 35.2412, 52.0216, -15.1119, 96.9322, -65.2315, 36.1347
5.592, 7, 35.2315, 52.0661, -15.1074, 96.892, -65.4763, 36.0196
5.596, 7, 35.2218, 52.1103, -15.1024, 96.8514, -65.7194, 35.9055
5.6, 7, 35.2119, 52.1541, -15.0969, 96.811, -65.9581, 35.7938
5.604, 7, 35.2016, 52.1977, -15.0911, 96.7712, -66.1898, 35.6854
5.608, 7, 35.1907, 52.2408, -15.0851, 96.7325, -66.4123, 35.5816
5.612, 7, 35.1793, 52.2834, -15.0789, 96.6952, -66.6236, 35.4831
5.616, 7, 35.1676, 52.325, -15.0727, 96.6597, -66.8223, 35.3907
5.62, 7, 35.1557, 52.3654, -15.0667, 96.6263, -67.0072, 35.3048
5.624, 7, 35.1439, 52.4041, -15.0608, 96.5952, -67.1778, 35.2257
5.628, 7, 35.1324, 52.4405, -15.0552, 96.5665, -67.3335, 35.1536
5.632, 7, 35.1213, 52.4745, -15.0499, 96.5402, -67.4744, 35.0884
5.636, 7, 35.1108, 52.506, -15.045, 96.5165, -67.6007, 35.0301
5.64, 7, 35.1008, 52.5349, -15.0405, 96.4952, -67.7127, 34.9784
5.644, 7, 35.0915, 52.5613, -15.0364, 96.4765, -67.811, 34.933
5.648, 7, 35.0827, 52.5853, -15.0329, 96.4601, -67.8963, 34.8937
5.652, 7, 35.0745, 52.607, -15.0298, 96.446, -67.9695, 34.8601
5.656, 7, 35.0669, 52.6266, -15.0271, 96.4339, -68.0316, 34.8315
5.66, 7, 35.06, 52.644, -15.0249, 96.4238, -68.0835, 34.8077
5.664, 7, 35.0537, 52.6593, -15.0231, 96.4154, -68.1263, 34.788
5.668, 7, 35.0481, 52.6728, -15.0216, 96.4086, -68.1612, 34.772
5.672, 7, 35.043, 52.6847, -15.0205, 96.4031, -68.1891, 34.7591
5.676, 8, 35.0385, 52.6951, -15.0196, 96.3987, -68.2112, 34.7491
5.68, 8, 35.0345, 52.7043, -15.0189, 96.3954, -68.2281, 34.7413
5.684, 8, 35.0307, 52.7123, -15.0184, 96.3928, -68.241, 34.7354
5.688, 8, 35.0274, 52.7192, -15.0181, 96.391, -68.2504, 34.7311
5.692, 8, 35.0245, 52.725, -15.0179, 96.3896, -68.2572, 34.7279
5.696, 8, 35.022, 52.7296, -15.0178, 96.3887, -68.2621, 34.7257
5.7, 8, 35.0199, 52.7332, -15.0177, 96.388, -68.2654, 34.7242
5.704, 8, 35.0184, 52.7357, -15.0176, 96.3876, -68.2677, 34.7232
5.708, 8, 35.0173, 52.7376, -15.0176, 96.3872, -68.2693, 34.7224
5.712, 8, 35.0164, 52.7388, -15.0176, 96.387, -68.2703, 34.722
5.716, 8, 35.0157, 52.7398, -15.0176, 96.3869, -68.2711, 34.7216
5.72, 8, 35.015, 52.7407, -15.0175, 96.3868, -68.2716, 34.7214
5.724, 8, 35.0139, 52.7417, -15.0174, 96.3866, -68.2721, 34.7212
5.728, 8, 35.0125, 52.7431, -15.0172, 96.3864, -68.2727, 34.7211
5.732, 8, 35.0107, 52.7449, -15.0169, 96.3859, -68.2737, 34.721
5.736, 8, 35.0083, 52.7472, -15.0163, 96.385, -68.2754, 34.7209
5.74, 8, 35.0055, 52.7502, -15.0152, 96.3836, -68.2782, 34.7207
5.744, 8, 35.0024, 52.7537, -15.0136, 96.3813, -68.2825, 34.7204
5.748, 8, 34.999, 52.7578, -15.0113, 96.3779, -68.289, 34.72
5.752, 8, 34.9954, 52.7623, -15.0081, 96.3731, -68.2982, 34.7194
5.756, 8, 34.9914, 52.7674, -15.0037, 96.3664, -68.3108, 34.7187
5.76, 8, 34.9872, 52.773, -14.998, 96.3577, -68.3272, 34.7177
5.764, 8, 34.9826, 52.7791, -14.9908, 96.3466, -68.3482, 34.7164
5.768, 8, 34.9777, 52.7856, -14.9818, 96.3328, -68.3744, 34.7149
5.772, 8, 34.9726, 52.7924, -14.971, 96.3161, -68.4061, 34.713
5.776, 8, 34.9675, 52.7993, -14.9582, 96.2962, -68.4437, 34.7107
5.78, 8, 34.9625, 52.8057, -14.9433, 96.273, -68.4875, 34.708
5.784, 8, 34.958, 52.8117, -14.9264, 96.2467, -68.5375, 34.7049
5.788, 8, 34.9541, 52.817, -14.9076, 96.2172, -68.5932, 34.7015
5.792, 8, 34.951, 52.8215, -14.8871, 96.1851, -68.654, 34.6978
5.796, 8, 34.9483, 52.8254, -14.8652, 96.1508, -68.7192, 34.6937
5.8, 8, 34.9461, 52.8287, -14.8421, 96.1147, -68.7875, 34.6895
5.804, 8, 34.9441, 52.8318, -14.8184, 96.0777, -68.8578, 34.685
5.808, 8, 34.942, 52.8347, -14.7944, 96.0403, -68.9288, 34.6806
5.812, 8, 34.9397, 52.8376, -14.7706, 96.0033, -68.9992, 34.6761
5.816, 8, 34.9371, 52.8406, -14.7475, 95.9673, -69.0676, 34.6718
5.82, 8, 34.9341, 52.8439, -14.7253, 95.933, -69.1328, 34.6676
5.824, 8, 34.9307, 52.8477, -14.7046, 95.9009, -69.1938, 34.6637
5.828, 8, 34.9269, 52.8523, -14.6855, 95.8716, -69.2497, 34.6602
5.832, 8, 34.9226, 52.8576, -14.6684, 95.8453, -69.2997, 34.6569
5.836, 8, 34.918, 52.8636, -14.6533, 95.8223, -69.3436, 34.6541
5.84, 8, 34.913, 52.8702, -14.6402, 95.8026, -69.3812, 34.6517
5.844, 8, 34.9079, 52.8772, -14.6292, 95.7861, -69.4127, 34.6496
5.848, 9, 34.9029, 52.8844, -14.6202, 95.7726, -69.4386, 34.6479
5.852, 9, 34.898, 52.8916, -14.6129, 95.7617, -69.4592, 34.6466
5.856, 9, 34.8933, 52.8985, -14.6071, 95.7533, -69.4754, 34.6455
5.86, 9, 34.889, 52.9049, -14.6027, 95.7469, -69.4877, 34.6447
5.864, 9, 34.885, 52.9106, -14.5993, 95.7421, -69.4969, 34.6441
5.868, 9, 34.8814, 52.9155, -14.5969, 95.7386, -69.5035, 34.6437
5.872, 9, 34.8783, 52.9196, -14.5951, 95.7362, -69.5082, 34.6434
5.876, 9, 34.8758, 52.9228, -14.5939, 95.7345, -69.5115, 34.6432
5.88, 9, 34.8739, 52.9251, -14.593, 95.7333, -69.5138, 34.643
5.884, 9, 34.8724, 52.9268, -14.5925, 95.7325, -69.5153, 34.6429
5.888, 9, 34.8712, 52.9281, -14.5921, 95.7319, -69.5164, 34.6429
5.892, 9, 34.8701, 52.9292, -14.5918, 95.7316, -69.5172, 34.6428
5.896, 9, 34.8688, 52.9303, -14.5915, 95.7312, -69.5178, 34.6427
5.9, 9, 34.8671, 52.9318, -14.5913, 95.7309, -69.5186, 34.6426
5.904, 9, 34.8649, 52.9337, -14.5909, 95.7304, -69.5197, 34.6424
5.908, 9, 34.8622, 52.9362, -14.5904, 95.7297, -69.5216, 34.6419
5.912, 9, 34.859, 52.9394, -14.5895, 95.7285, -69.5247, 34.6412
5.916, 9, 34.8552, 52.9434, -14.5881, 95.7266, -69.5297, 34.6401
5.92, 9, 34.8507, 52.9484, -14.5861, 95.7238, -69.5371, 34.6383
5.924, 9, 34.8456, 52.9545, -14.5831, 95.7197, -69.5478, 34.6358
5.928, 9, 34.8395, 52.9619, -14.5789, 95.7139, -69.5629, 34.6323
5.932, 9, 34.8325, 52.9706, -14.5732, 95.706, -69.5833, 34.6274
5.936, 9, 34.8244, 52.9807, -14.5654, 95.6956, -69.6103, 34.621
5.94, 9, 34.8151, 52.9922, -14.5552, 95.6822, -69.6453, 34.6127
5.944, 9, 34.8047, 53.0051, -14.542, 95.6651, -69.6895, 34.6022
5.948, 9, 34.7932, 53.0191, -14.5256, 95.6438, -69.7443, 34.5892
5.952, 9, 34.7807, 53.0341, -14.5057, 95.6179, -69.8111, 34.5734
5.956, 9, 34.7673, 53.0497, -14.4822, 95.5869, -69.891, 34.5544
5.96, 9, 34.7534, 53.0655, -14.4551, 95.5503, -69.9847, 34.5321
5.964, 9, 34.7391, 53.0814, -14.4242, 95.5081, -70.0929, 34.5063
5.968, 9, 34.7246, 53.097, -14.3896, 95.46, -70.2156, 34.4771
5.972, 9, 34.7101, 53.1121, -14.3511, 95.4062, -70.3525, 34.4445
5.976, 9, 34.6957, 53.1267, -14.3089, 95.347, -70.5027, 34.4086
5.98, 9, 34.6818, 53.1405, -14.2628, 95.283, -70.6647, 34.37
5.984, 9, 34.6684, 53.1536, -14.2134, 95.2149, -70.8368, 34.3289
5.988, 9, 34.6554, 53.166, -14.1612, 95.1435, -71.0167, 34.2859
5.992, 9, 34.6428, 53.1778, -14.1068, 95.0697, -71.2019, 34.2416
5.996, 9, 34.6305, 53.1893, -14.0511, 94.9948, -71.3896, 34.1967
6, 9, 34.6181, 53.2006, -13.9951, 94.9198, -71.577, 34.1518
6.004, 9, 34.6053, 53.2124, -13.9396, 94.8459, -71.7614, 34.1076
6.008, 9, 34.5919, 53.2248, -13.8854, 94.774, -71.94, 34.0648
6.012, 9, 34.5777, 53.238, -13.8332, 94.7053, -72.1104, 34.0239
6.016, 9, 34.563, 53.2519, -13.7839, 94.6406, -72.2707, 33.9854
6.02, 9, 34.5478, 53.2664, -13.7378, 94.5804, -72.4193, 33.9497
6.024, 9, 34.5326, 53.2813, -13.6954, 94.5253, -72.5551, 33.9171
6.028, 9, 34.5175, 53.2962, -13.657, 94.4756, -72.6774, 33.8877
6.032, 9, 34.5026, 53.3109, -13.6227, 94.4313, -72.786, 33.8615
6.036, 9, 34.4883, 53.3253, -13.5925, 94.3925, -72.8811, 33.8387
