hehonglu123/Motion-Primitive-Planning/ILC/recorded_data/realrobot/from_NX/iteration_32/run_3.csv
timestamp, cmd_num, J1, J2, J3, J4, J5, J6
0.001128, -1, 39.6292, 32.447, 11.8316, 12.5437, 113.713, -48.8735
0.004947, -1, 39.6292, 32.447, 11.8316, 12.5437, 113.713, -48.8735
0.007724, -1, 39.6292, 32.447, 11.8316, 12.5437, 113.713, -48.8735
0.030135, -1, 39.6292, 32.447, 11.8316, 12.5436, 113.713, -48.8735
0.031481, -1, 39.6292, 32.447, 11.8316, 12.5436, 113.713, -48.8735
0.035374, -1, 39.6292, 32.447, 11.8316, 12.5436, 113.713, -48.8735
0.039584, -1, 39.6292, 32.447, 11.8316, 12.5437, 113.713, -48.8735
0.048575, -1, 39.6292, 32.447, 11.8316, 12.5437, 113.713, -48.8736
0.183741, -1, 38.5876, 31.9207, 12.0277, 12.551, 113.184, -50.2283
0.18496, -1, 38.5876, 31.9207, 12.0277, 12.551, 113.184, -50.2283
0.187749, -1, 38.5065, 31.8781, 12.0464, 12.5522, 113.137, -50.347
0.188997, -1, 38.5065, 31.8781, 12.0464, 12.5522, 113.137, -50.347
0.191048, -1, 38.4232, 31.8344, 12.0655, 12.5534, 113.089, -50.4682
0.192392, -1, 38.4232, 31.8344, 12.0655, 12.5534, 113.089, -50.4682
0.193613, -1, 38.4232, 31.8344, 12.0655, 12.5534, 113.089, -50.4682
0.196685, -1, 38.338, 31.7897, 12.0848, 12.5547, 113.04, -50.5914
0.199532, -1, 38.251, 31.7442, 12.1043, 12.5558, 112.991, -50.7164
0.200792, -1, 38.251, 31.7442, 12.1043, 12.5558, 112.991, -50.7164
0.202742, -1, 38.1624, 31.6979, 12.1239, 12.557, 112.942, -50.8426
0.204111, -1, 38.1624, 31.6979, 12.1239, 12.557, 112.942, -50.8426
0.205439, -1, 38.1624, 31.6979, 12.1239, 12.557, 112.942, -50.8426
0.207634, -1, 38.0725, 31.651, 12.1434, 12.5582, 112.891, -50.9697
0.2089, -1, 38.0725, 31.651, 12.1434, 12.5582, 112.891, -50.9697
0.212489, -1, 37.9813, 31.6036, 12.1629, 12.5595, 112.84, -51.0977
0.213694, -1, 37.9813, 31.6036, 12.1629, 12.5595, 112.84, -51.0977
0.215763, -1, 37.8889, 31.5556, 12.1823, 12.5607, 112.79, -51.2265
0.216974, -1, 37.8889, 31.5556, 12.1823, 12.5607, 112.79, -51.2265
0.219017, -1, 37.7956, 31.5073, 12.2017, 12.5619, 112.739, -51.3555
0.220459, -1, 37.7956, 31.5073, 12.2017, 12.5619, 112.739, -51.3555
0.224273, -1, 37.7014, 31.4587, 12.2211, 12.5631, 112.688, -51.4849
0.231597, -1, 37.5112, 31.3611, 12.2599, 12.5655, 112.585, -51.7444
0.239661, -1, 37.3196, 31.2631, 12.2986, 12.568, 112.483, -52.0039
0.248469, -1, 37.1275, 31.1652, 12.3375, 12.5705, 112.38, -52.2636
0.255657, -1, 36.9352, 31.0674, 12.3762, 12.5732, 112.277, -52.5237
0.263721, -1, 36.7431, 30.9697, 12.415, 12.5757, 112.174, -52.784
0.272468, -1, 36.5514, 30.8719, 12.4539, 12.5783, 112.071, -53.0444
0.27966, -1, 36.3598, 30.7741, 12.4927, 12.5809, 111.968, -53.3047
0.287638, -1, 36.1681, 30.6763, 12.5315, 12.5835, 111.865, -53.5651
0.296496, -1, 35.9766, 30.5783, 12.5704, 12.586, 111.762, -53.8256
0.303713, -1, 35.785, 30.4803, 12.6094, 12.5886, 111.659, -54.0862
0.311635, -1, 35.5932, 30.3823, 12.6483, 12.5911, 111.556, -54.3464
0.32056, -1, 35.4011, 30.2841, 12.6871, 12.5937, 111.453, -54.6068
0.327783, -1, 35.2088, 30.1858, 12.7259, 12.5963, 111.35, -54.8674
0.335791, -1, 35.0163, 30.0874, 12.7648, 12.5989, 111.247, -55.1283
0.344761, -1, 34.824, 29.989, 12.8037, 12.6015, 111.144, -55.3887
0.352305, -1, 34.6318, 29.8905, 12.8425, 12.604, 111.041, -55.6495
0.359996, -1, 34.4395, 29.7921, 12.8815, 12.6066, 110.938, -55.9104
0.368054, -1, 34.2474, 29.6937, 12.9204, 12.6092, 110.835, -56.1714
0.376207, -1, 34.0555, 29.5954, 12.9593, 12.6117, 110.732, -56.4321
0.384134, -1, 33.8637, 29.4972, 12.9983, 12.6144, 110.629, -56.6928
0.392124, -1, 33.672, 29.3988, 13.0371, 12.617, 110.526, -56.9538
0.400343, -1, 33.48, 29.3004, 13.076, 12.6197, 110.422, -57.215
0.408163, -1, 33.3839, 29.2512, 13.0955, 12.6223, 110.32, -57.476
0.415556, -1, 33.1913, 29.1527, 13.1345, 12.6236, 110.268, -57.6064
0.423614, -1, 32.9986, 29.0541, 13.1733, 12.6262, 110.165, -57.8674
0.431557, -1, 32.8056, 28.9555, 13.2122, 12.6289, 110.062, -58.1284
0.439555, -1, 32.6123, 28.8568, 13.2511, 12.6316, 109.959, -58.39
0.447608, -1, 32.4188, 28.7581, 13.29, 12.6343, 109.856, -58.6511
0.455553, -1, 32.2249, 28.6594, 13.3289, 12.6369, 109.753, -58.912
0.463562, -1, 32.0309, 28.5607, 13.3678, 12.6396, 109.649, -59.1731
0.471565, -1, 31.837, 28.4618, 13.4067, 12.6423, 109.546, -59.4345
0.479566, -1, 31.6434, 28.3631, 13.4457, 12.645, 109.443, -59.6959
0.487615, -1, 31.4499, 28.2644, 13.4847, 12.6479, 109.34, -59.9571
0.495553, -1, 31.2569, 28.1659, 13.5236, 12.6506, 109.237, -60.2185
0.503554, -1, 31.0643, 28.0674, 13.5627, 12.6534, 109.134, -60.4799
0.511616, -1, 30.872, 27.9688, 13.6018, 12.6563, 109.031, -60.7414
0.519592, -1, 30.6799, 27.8702, 13.6407, 12.6591, 108.928, -61.0026
0.52757, -1, 30.488, 27.7716, 13.6797, 12.6619, 108.824, -61.264
0.535617, -1, 30.296, 27.6729, 13.7187, 12.6647, 108.721, -61.5253
0.545377, -1, 30.1038, 27.5741, 13.7577, 12.6674, 108.618, -61.7871
0.551549, -1, 29.9113, 27.4753, 13.7967, 12.6702, 108.515, -62.0486
0.559634, -1, 29.7183, 27.3766, 13.8356, 12.6729, 108.412, -62.3102
0.567552, -1, 29.5247, 27.2778, 13.8745, 12.6755, 108.309, -62.5719
0.575571, -1, 29.3307, 27.1791, 13.9135, 12.6781, 108.205, -62.8338
0.583623, -1, 29.1366, 27.0802, 13.9525, 12.6807, 108.102, -63.0953
0.591556, -1, 28.9422, 26.9813, 13.9915, 12.6832, 107.998, -63.3567
0.59961, -1, 28.748, 26.8824, 14.0304, 12.6858, 107.895, -63.6182
0.607551, -1, 28.5539, 26.7835, 14.0693, 12.6883, 107.791, -63.88
0.615566, -1, 28.36, 26.6848, 14.1085, 12.6908, 107.688, -64.1417
0.623649, -1, 28.1666, 26.5861, 14.1474, 12.6933, 107.585, -64.4033
0.631564, -1, 27.9735, 26.4872, 14.1864, 12.6958, 107.482, -64.6652
0.768907, -1, 24.6887, 24.8068, 14.8488, 12.7354, 105.726, -69.1147
0.770094, -1, 24.6887, 24.8068, 14.8488, 12.7354, 105.726, -69.1147
0.772817, -1, 24.5924, 24.7574, 14.8683, 12.7367, 105.675, -69.2455
0.774011, -1, 24.5924, 24.7574, 14.8683, 12.7367, 105.675, -69.2455
0.776107, -1, 24.4962, 24.7079, 14.8879, 12.7379, 105.623, -69.3765
0.777464, -1, 24.4962, 24.7079, 14.8879, 12.7379, 105.623, -69.3765
0.78017, -1, 24.4, 24.6584, 14.9074, 12.739, 105.571, -69.5074
0.783316, -1, 24.4, 24.609, 14.9269, 12.7403, 105.52, -69.6382
0.784691, -1, 24.3038, 24.609, 14.9269, 12.7403, 105.52, -69.6382
0.785906, -1, 24.3038, 24.609, 14.9269, 12.7403, 105.52, -69.6382
0.788145, -1, 24.2075, 24.5596, 14.9464, 12.7415, 105.468, -69.7689
0.789439, -1, 24.2075, 24.5596, 14.9464, 12.7415, 105.468, -69.7689
0.791254, -1, 24.2075, 24.5596, 14.9659, 12.7426, 105.416, -69.8996
0.792738, -1, 24.1112, 24.5102, 14.9659, 12.7426, 105.416, -69.8996
0.793939, -1, 24.1112, 24.5102, 14.9659, 12.7426, 105.416, -69.8996
0.797433, -1, 24.0149, 24.4608, 14.9854, 12.7437, 105.365, -70.0303
0.799452, -1, 23.9184, 24.4114, 15.0049, 12.7449, 105.313, -70.1611
0.800883, -1, 23.9184, 24.4114, 15.0049, 12.7449, 105.313, -70.1611
0.802168, -1, 23.9184, 24.4114, 15.0049, 12.7449, 105.313, -70.1611
0.805037, -1, 23.822, 24.3619, 15.0243, 12.7461, 105.261, -70.292
0.806277, -1, 23.822, 24.3619, 15.0243, 12.7461, 105.261, -70.292
0.80841, -1, 23.7256, 24.3125, 15.0438, 12.7474, 105.209, -70.4228
0.818547, -1, 23.5324, 24.2137, 15.0827, 12.7497, 105.106, -70.6846
0.823726, -1, 23.339, 24.1147, 15.1217, 12.7521, 105.003, -70.9462
0.831858, -1, 23.1452, 24.0159, 15.1605, 12.7545, 104.899, -71.2079
0.839781, -1, 22.9514, 23.917, 15.1994, 12.7569, 104.796, -71.4697
0.848006, -1, 22.7573, 23.8181, 15.2384, 12.7594, 104.693, -71.7317
0.85455, -1, 22.6604, 23.7687, 15.2579, 12.7606, 104.641, -71.8626
0.864001, -1, 22.3699, 23.6208, 15.3164, 12.7643, 104.486, -72.2548
0.872159, -1, 22.1768, 23.5221, 15.3553, 12.7669, 104.382, -72.516
0.880176, -1, 21.9836, 23.4233, 15.3942, 12.7695, 104.279, -72.7776
0.888129, -1, 21.7908, 23.3247, 15.4333, 12.7721, 104.176, -73.0392
0.896205, -1, 21.5985, 23.2259, 15.4722, 12.7748, 104.073, -73.3005
0.90419, -1, 21.5024, 23.1272, 15.5111, 12.7775, 103.97, -73.562
0.912149, -1, 21.3102, 23.0778, 15.5306, 12.7788, 103.867, -73.8236
0.920242, -1, 21.1178, 22.9792, 15.5696, 12.7814, 103.815, -74.0852
0.927535, -1, 20.9253, 22.8806, 15.6085, 12.7841, 103.712, -74.2158
0.935535, -1, 20.7328, 22.782, 15.6474, 12.7868, 103.609, -74.4768
0.943622, -1, 20.5402, 22.6834, 15.6863, 12.7895, 103.506, -74.738
0.95155, -1, 20.347, 22.5848, 15.7251, 12.7923, 103.403, -74.9995
0.959592, -1, 20.1534, 22.486, 15.7642, 12.7949, 103.3, -75.2607
0.967531, -1, 19.9598, 22.3873, 15.803, 12.7977, 103.196, -75.5218
0.975556, -1, 19.7662, 22.2886, 15.8417, 12.8004, 103.094, -75.7829
0.98253, -1, 19.5726, 22.19, 15.8806, 12.8031, 102.991, -76.0443
0.991552, -1, 19.3793, 22.0914, 15.9195, 12.8059, 102.887, -76.3055
0.999533, -1, 19.1862, 21.9927, 15.9583, 12.8087, 102.785, -76.5663
1.0077, -1, 18.9934, 21.8941, 15.9973, 12.8114, 102.681, -76.827
1.01554, -1, 18.8009, 21.7954, 16.0361, 12.8141, 102.578, -77.0879
1.02357, -1, 18.6088, 21.6967, 16.0749, 12.8168, 102.476, -77.349
1.03163, -1, 18.417, 21.5981, 16.1138, 12.8196, 102.373, -77.6097
1.03953, -1, 18.2251, 21.4996, 16.1526, 12.8222, 102.27, -77.8705
1.04854, -1, 18.0332, 21.4011, 16.1914, 12.8248, 102.167, -78.1313
1.0556, -1, 17.8413, 21.3027, 16.2304, 12.8273, 102.064, -78.3921
1.06354, -1, 17.6493, 21.2043, 16.2692, 12.8298, 101.961, -78.6526
1.07161, -1, 17.457, 21.1061, 16.3081, 12.8323, 101.858, -78.913
1.0796, -1, 17.2641, 21.0077, 16.3469, 12.8348, 101.755, -79.1736
1.08753, -1, 17.071, 20.9094, 16.3857, 12.8372, 101.652, -79.4343
1.09555, -1, 16.878, 20.8111, 16.4245, 12.8396, 101.549, -79.6948
1.10355, -1, 16.6849, 20.713, 16.4633, 12.842, 101.446, -79.9552
1.11154, -1, 16.4919, 20.6147, 16.502, 12.8444, 101.344, -80.2158
1.11961, -1, 16.2991, 20.5164, 16.5407, 12.8466, 101.241, -80.4765
1.12753, -1, 16.1068, 20.418, 16.5795, 12.849, 101.139, -80.7371
1.13555, -1, 15.9148, 20.3196, 16.6182, 12.8513, 101.036, -80.9973
1.14364, -1, 15.7231, 20.221, 16.657, 12.8537, 100.933, -81.2573
1.15153, -1, 15.5317, 20.1226, 16.6955, 12.856, 100.831, -81.5174
1.15955, -1, 15.3406, 20.0243, 16.7342, 12.8583, 100.728, -81.7776
1.16761, -1, 15.1494, 19.9261, 16.773, 12.8606, 100.625, -82.0374
1.17553, -1, 14.9582, 19.8279, 16.8117, 12.8629, 100.523, -82.2973
1.18354, -1, 14.7669, 19.7297, 16.8504, 12.8652, 100.42, -82.5572
1.19163, -1, 14.5755, 19.6316, 16.8891, 12.8675, 100.318, -82.8173
1.19955, -1, 14.3836, 19.5335, 16.9278, 12.8698, 100.215, -83.077
1.20753, -1, 14.1914, 19.4354, 16.9665, 12.8721, 100.113, -83.3365
1.21569, -1, 13.9991, 19.3374, 17.0052, 12.8743, 100.01, -83.5961
1.22353, -1, 13.8067, 19.2396, 17.0437, 12.8766, 99.9076, -83.8557
1.2316, -1, 13.6143, 19.1418, 17.0824, 12.8789, 99.8051, -84.1152
1.24043, -1, 13.4219, 19.0439, 17.1211, 12.8812, 99.7025, -84.3745
1.24764, -1, 13.2299, 18.946, 17.1596, 12.8835, 99.6004, -84.6337
1.25567, -1, 13.0383, 18.8481, 17.1982, 12.8859, 99.4979, -84.8931
1.26445, -1, 12.847, 18.75, 17.2368, 12.8882, 99.3954, -85.1526
1.27163, -1, 12.6559, 18.6521, 17.2753, 12.8906, 99.2933, -85.4116
1.27976, -1, 12.4653, 18.5543, 17.3139, 12.8931, 99.1909, -85.6704
1.28883, -1, 12.2751, 18.4565, 17.3524, 12.8954, 99.0886, -85.9294
1.29553, -1, 12.0849, 18.3588, 17.3908, 12.8979, 98.9867, -86.1884
1.30433, -1, 11.8946, 18.2612, 17.4295, 12.9002, 98.8845, -86.4472
1.31158, -1, 11.704, 18.1636, 17.4681, 12.9027, 98.7826, -86.7058
1.31998, -1, 11.5133, 18.066, 17.5065, 12.9051, 98.6809, -86.9644
1.32847, -1, 11.3223, 17.9684, 17.5451, 12.9075, 98.5788, -87.2232
1.3357, -1, 11.131, 17.8708, 17.5837, 12.9099, 98.4769, -87.4816
1.34388, -1, 10.9396, 17.7733, 17.6221, 12.9124, 98.3751, -87.7398
1.35274, -1, 10.7479, 17.6759, 17.6606, 12.9149, 98.2729, -87.998
1.35998, -1, 10.5564, 17.5783, 17.699, 12.9174, 98.1711, -88.2563
1.36829, -1, 10.3651, 17.4808, 17.7374, 12.92, 98.0693, -88.5146
1.37686, -1, 10.1741, 17.3833, 17.7759, 12.9224, 97.9674, -88.7726
1.38407, -1, 9.9834, 17.2856, 17.8143, 12.9252, 97.8656, -89.0307
1.39213, -1, 9.79311, 17.1881, 17.8526, 12.9277, 97.7636, -89.2888
1.40106, -1, 9.60321, 17.0906, 17.8909, 12.9304, 97.6616, -89.5469
1.40812, -1, 9.50843, 17.042, 17.9293, 12.9332, 97.5598, -89.8046
1.41635, -1, 9.31911, 16.9446, 17.9677, 12.9359, 97.4579, -90.0622
1.42353, -1, 9.12973, 16.8473, 17.9869, 12.9373, 97.407, -90.1909
1.43152, -1, 8.94033, 16.7501, 18.0252, 12.9399, 97.3052, -90.4486
1.43964, -1, 8.75079, 16.653, 18.0635, 12.9425, 97.2036, -90.7061
1.44752, -1, 8.56121, 16.5558, 18.102, 12.9451, 97.1018, -90.9633
1.45551, -1, 8.37144, 16.4587, 18.1403, 12.9479, 97.0005, -91.2205
1.46358, -1, 8.18121, 16.3617, 18.1786, 12.9505, 96.8989, -91.4776
1.47152, -1, 7.99076, 16.2648, 18.217, 12.9532, 96.7973, -91.735
1.47965, -1, 7.80029, 16.1679, 18.2552, 12.9558, 96.6959, -91.9919
1.48751, -1, 7.6097, 16.0709, 18.2935, 12.9585, 96.5943, -92.2485
1.49553, -1, 7.41926, 15.9739, 18.3318, 12.961, 96.4929, -92.5053
1.50357, -1, 7.22914, 15.877, 18.3699, 12.9636, 96.3917, -92.7621
1.51152, -1, 7.03931, 15.78, 18.4081, 12.9662, 96.2903, -93.0188
1.51959, -1, 6.8499, 15.6831, 18.4464, 12.9688, 96.189, -93.2753
1.5276, -1, 6.66096, 15.5862, 18.4845, 12.9713, 96.0883, -93.5316
1.53554, -1, 6.47245, 15.4894, 18.5226, 12.9738, 95.9871, -93.7881
1.54352, -1, 6.28421, 15.3927, 18.5608, 12.9763, 95.886, -94.0445
1.55252, -1, 6.0961, 15.296, 18.5989, 12.9788, 95.7854, -94.3004
1.55958, -1, 5.90777, 15.1993, 18.637, 12.9812, 95.6842, -94.5563
1.56851, -1, 5.71931, 15.1026, 18.6752, 12.9836, 95.5833, -94.8123
1.57558, -1, 5.53093, 15.006, 18.7132, 12.9859, 95.4828, -95.0683
1.58355, -1, 5.34216, 14.9094, 18.7514, 12.9883, 95.3818, -95.3239
1.59154, -1, 5.15302, 14.813, 18.7895, 12.9905, 95.2812, -95.5792
1.59958, -1, 4.96365, 14.7167, 18.8275, 12.9928, 95.1806, -95.8347
1.60752, -1, 4.77428, 14.6202, 18.8656, 12.9951, 95.0797, -96.0904
1.61561, -1, 4.58488, 14.5238, 18.9036, 12.9973, 94.979, -96.3455
1.62352, -1, 4.39574, 14.4275, 18.9416, 12.9995, 94.8783, -96.6005
1.63151, -1, 4.2068, 14.3311, 18.9797, 13.0016, 94.7774, -96.8554
1.63964, -1, 4.01804, 14.2347, 19.0177, 13.0039, 94.6766, -97.1105
1.64753, -1, 3.83002, 14.1385, 19.0556, 13.0063, 94.5758, -97.3655
1.65553, -1, 3.64249, 14.0423, 19.0935, 13.0084, 94.475, -97.6202
1.66361, -1, 3.45521, 13.9461, 19.1315, 13.0108, 94.3744, -97.875
1.67152, -1, 3.26818, 13.8501, 19.1692, 13.0131, 94.2738, -98.1297
1.67958, -1, 3.08119, 13.7541, 19.2071, 13.0153, 94.173, -98.3844
1.6876, -1, 2.8942, 13.658, 19.2451, 13.0175, 94.0724, -98.6388
1.69553, -1, 2.70709, 13.5619, 19.283, 13.0198, 93.9718, -98.8929
1.70354, -1, 2.51987, 13.466, 19.3209, 13.0221, 93.8714, -99.147
1.71159, -1, 2.33243, 13.3701, 19.3586, 13.0244, 93.771, -99.4013
1.71959, -1, 2.14456, 13.2743, 19.3965, 13.0266, 93.6706, -99.6552
1.72751, -1, 1.95654, 13.1785, 19.4343, 13.0288, 93.5705, -99.9089
1.73572, -1, 1.76846, 13.0827, 19.4721, 13.0311, 93.4707, -100.163
1.74355, -1, 1.58024, 12.9868, 19.5098, 13.0333, 93.3706, -100.416
1.75162, -1, 1.39215, 12.891, 19.5477, 13.0357, 93.2704, -100.67
1.75995, -1, 1.20436, 12.7951, 19.5854, 13.038, 93.1706, -100.923
1.76761, -1, 1.01683, 12.6994, 19.6232, 13.0403, 93.0704, -101.176
1.77563, -1, 0.829997, 12.6039, 19.6609, 13.0427, 92.9705, -101.429
1.78411, -1, 0.643721, 12.5083, 19.6985, 13.0451, 92.8709, -101.682
1.79108, -1, 0.550677, 12.4605, 19.7173, 13.0463, 92.771, -101.935
1.79957, -1, 0.272, 12.3174, 19.7739, 13.05, 92.6713, -102.188
1.80831, -1, 0.0865831, 12.222, 19.8114, 13.0524, 92.572, -102.44
1.81559, -1, -0.0988734, 12.1267, 19.849, 13.0549, 92.4723, -102.693
1.82363, -1, -0.284495, 12.0315, 19.8867, 13.0573, 92.3727, -102.946
1.83247, -1, -0.470417, 11.9363, 19.9242, 13.0598, 92.2734, -103.198
1.83977, -1, -0.656675, 11.8413, 19.9618, 13.0622, 92.1738, -103.45
1.84791, -1, -0.843076, 11.7463, 19.9993, 13.0647, 92.0743, -103.702
1.8567, -1, -1.02967, 11.6512, 20.0368, 13.0672, 91.9752, -103.954
1.86394, -1, -1.21646, 11.5562, 20.0743, 13.0698, 91.8757, -104.206
1.87212, -1, -1.4034, 11.4612, 20.1118, 13.0723, 91.7765, -104.457
1.88096, -1, -1.59007, 11.366, 20.1493, 13.0748, 91.6774, -104.709
1.88805, -1, -1.77649, 11.2709, 20.1866, 13.0773, 91.5781, -104.96
1.89617, -1, -1.96251, 11.1759, 20.2241, 13.08, 91.4789, -105.212
1.90501, -1, -2.14793, 11.081, 20.2615, 13.0827, 91.3798, -105.463
1.91212, -1, -2.24045, 11.0336, 20.2989, 13.0853, 91.2806, -105.713
1.92032, -1, -2.42532, 10.9387, 20.3363, 13.088, 91.1815, -105.964
1.9275, -1, -2.60978, 10.844, 20.3549, 13.0893, 91.1321, -106.09
1.9355, -1, -2.79377, 10.7492, 20.3921, 13.092, 91.0329, -106.341
1.94356, -1, -2.97773, 10.6545, 20.4295, 13.0946, 90.9338, -106.592
1.95153, -1, -3.16185, 10.5598, 20.4669, 13.0972, 90.8351, -106.842
1.95951, -1, -3.34616, 10.4652, 20.5041, 13.0998, 90.736, -107.093
1.9675, -1, -3.53075, 10.3707, 20.5413, 13.1024, 90.6371, -107.343
1.9755, -1, -3.71551, 10.2764, 20.5786, 13.1049, 90.5385, -107.593
1.98357, -1, -3.90051, 10.182, 20.6158, 13.1073, 90.4395, -107.843
1.99151, -1, -4.08575, 10.0877, 20.6531, 13.1098, 90.3409, -108.093
1.99957, -1, -4.27123, 9.99339, 20.6902, 13.1123, 90.2424, -108.343
2.00752, -1, -4.45677, 9.89906, 20.7274, 13.1146, 90.1436, -108.593
2.01576, -1, -4.64205, 9.80472, 20.7647, 13.117, 90.0451, -108.843
2.0235, -1, -4.82696, 9.71053, 20.8018, 13.1194, 89.9468, -109.092
2.03152, -1, -5.01152, 9.61642, 20.8388, 13.1218, 89.8483, -109.342
2.04031, -1, -5.19537, 9.52234, 20.876, 13.1242, 89.7498, -109.591
2.04751, -1, -5.37877, 9.42828, 20.9131, 13.1265, 89.6516, -109.84
2.05652, -1, -5.56172, 9.33436, 20.9501, 13.1288, 89.5531, -110.089
2.0643, -1, -5.74431, 9.24039, 20.9873, 13.1311, 89.4549, -110.337
2.0715, -1, -5.92669, 9.14645, 21.0243, 13.1334, 89.3569, -110.586
2.0795, -1, -6.10912, 9.05262, 21.0612, 13.1356, 89.2586, -110.835
2.08836, -1, -6.29191, 8.95879, 21.0983, 13.1379, 89.1606, -111.083
2.0955, -1, -6.47482, 8.86515, 21.1353, 13.1402, 89.0629, -111.331
2.10351, -1, -6.65794, 8.77147, 21.172, 13.1423, 88.9648, -111.58
2.11229, -1, -6.84144, 8.67785, 21.209, 13.1445, 88.8667, -111.828
2.11952, -1, -7.02522, 8.58422, 21.2459, 13.1466, 88.769, -112.076
2.1275, -1, -7.20936, 8.49064, 21.2827, 13.1487, 88.6711, -112.323
2.13634, -1, -7.39358, 8.39698, 21.3197, 13.1508, 88.5733, -112.571
2.14351, -1, -7.57743, 8.30336, 21.3565, 13.153, 88.4758, -112.819
2.15152, -1, -7.76092, 8.20992, 21.3933, 13.1551, 88.3782, -113.066
2.16039, -1, -7.94404, 8.11651, 21.4302, 13.1574, 88.2808, -113.313
2.16752, -1, -8.12668, 8.02312, 21.467, 13.1597, 88.1835, -113.561
2.1755, -1, -8.30852, 7.92985, 21.5037, 13.1619, 88.086, -113.808
2.18435, -1, -8.48992, 7.83661, 21.5406, 13.1641, 87.9886, -114.055
2.1915, -1, -8.67094, 7.74342, 21.5774, 13.1664, 87.8914, -114.301
2.19952, -1, -8.85175, 7.65022, 21.6142, 13.1686, 87.7938, -114.548
2.20834, -1, -9.03254, 7.55713, 21.6509, 13.1708, 87.6964, -114.794
2.21551, -1, -9.21354, 7.46413, 21.6877, 13.1731, 87.5993, -115.041
2.22353, -1, -9.39477, 7.3713, 21.7243, 13.1753, 87.5021, -115.287
2.2323, -1, -9.57644, 7.27846, 21.761, 13.1775, 87.405, -115.533
2.23954, -1, -9.75835, 7.18563, 21.7977, 13.1798, 87.3079, -115.779
2.24756, -1, -9.94063, 7.09294, 21.8342, 13.1819, 87.2107, -116.025
2.25641, -1, -10.1231, 7.00016, 21.8708, 13.1842, 87.1135, -116.271
2.26364, -1, -10.3059, 6.90735, 21.9074, 13.1864, 87.0164, -116.517
2.2716, -1, -10.4884, 6.81457, 21.944, 13.1886, 86.9193, -116.762
2.28041, -1, -10.6706, 6.72189, 21.9806, 13.1909, 86.8222, -117.007
2.28763, -1, -10.8524, 6.62928, 22.0171, 13.1933, 86.7254, -117.253
2.2955, -1, -11.0338, 6.5367, 22.0535, 13.1957, 86.6285, -117.498
2.30448, -1, -11.2143, 6.4442, 22.0901, 13.1981, 86.5317, -117.743
2.31153, -1, -11.3941, 6.35176, 22.1266, 13.2005, 86.4353, -117.988
2.31961, -1, -11.5738, 6.25928, 22.1631, 13.2029, 86.3384, -118.233
2.32844, -1, -11.7532, 6.16685, 22.1996, 13.2054, 86.2418, -118.478
2.33579, -1, -11.9323, 6.07457, 22.236, 13.2079, 86.1452, -118.722
2.34387, -1, -12.1116, 5.9823, 22.2724, 13.2103, 86.0486, -118.966
2.35279, -1, -12.291, 5.8902, 22.3088, 13.2128, 85.9522, -119.21
2.35985, -1, -12.4709, 5.79819, 22.3452, 13.2153, 85.856, -119.455
2.36801, -1, -12.6512, 5.70614, 22.3814, 13.2178, 85.7595, -119.699
2.37597, -1, -12.8318, 5.61417, 22.4177, 13.2202, 85.6634, -119.943
2.38421, -1, -13.0128, 5.52227, 22.4541, 13.2227, 85.5676, -120.186
2.3921, -1, -13.194, 5.43026, 22.4902, 13.2252, 85.4716, -120.43
2.40269, -1, -13.3752, 5.33826, 22.5265, 13.2275, 85.3756, -120.674
2.40802, -1, -13.4657, 5.29232, 22.5446, 13.23, 85.28, -120.917
2.41612, -1, -13.6463, 5.20044, 22.5808, 13.2326, 85.184, -121.16
2.42498, -1, -13.8265, 5.06266, 22.635, 13.2352, 85.0882, -121.403
2.43149, -1, -14.0061, 5.01677, 22.6531, 13.2365, 85.0405, -121.524
2.43951, -1, -14.1849, 4.92506, 22.6892, 13.2391, 84.9449, -121.767
2.44754, -1, -14.3631, 4.83335, 22.7253, 13.2417, 84.8493, -122.01
2.4555, -1, -14.541, 4.74172, 22.7616, 13.2442, 84.7538, -122.252
2.46354, -1, -14.7187, 4.6501, 22.7978, 13.2467, 84.6581, -122.495
2.47154, -1, -14.8964, 4.55857, 22.8338, 13.2492, 84.5623, -122.737
2.47951, -1, -15.0741, 4.4671, 22.8699, 13.2517, 84.4668, -122.98
2.4875, -1, -15.2521, 4.37581, 22.9061, 13.2541, 84.3711, -123.222
2.49554, -1, -15.4305, 4.28446, 22.9421, 13.2565, 84.2754, -123.463
2.50356, -1, -15.6094, 4.19317, 22.9781, 13.2588, 84.1799, -123.705
2.51148, -1, -15.7886, 4.10191, 23.0142, 13.2611, 84.0843, -123.947
2.51957, -1, -15.9678, 4.01066, 23.0501, 13.2634, 83.9889, -124.189
2.52748, -1, -16.1473, 3.9194, 23.0861, 13.2656, 83.8935, -124.43
2.53549, -1, -16.3271, 3.82816, 23.1222, 13.2677, 83.798, -124.671
2.54363, -1, -16.5066, 3.73696, 23.158, 13.2699, 83.7026, -124.913
2.55149, -1, -16.6856, 3.64585, 23.1938, 13.2721, 83.6071, -125.154
2.55957, -1, -16.864, 3.55473, 23.2297, 13.2745, 83.5118, -125.395
2.56853, -1, -17.0417, 3.46368, 23.2656, 13.2767, 83.4164, -125.636
2.57549, -1, -17.2185, 3.37273, 23.3014, 13.2789, 83.3211, -125.876
2.58361, -1, -17.3951, 3.28186, 23.3373, 13.2811, 83.2261, -126.117
2.59151, -1, -17.5714, 3.19101, 23.3731, 13.2833, 83.1311, -126.358
2.59952, -1, -17.7474, 3.10038, 23.409, 13.2854, 83.0363, -126.598
2.60755, -1, -17.9234, 3.00979, 23.4449, 13.2875, 82.9416, -126.838
2.61549, -1, -18.0997, 2.91934, 23.4806, 13.2896, 82.8467, -127.078
2.62356, -1, -18.2762, 2.82897, 23.5164, 13.2917, 82.7519, -127.319
2.63155, -1, -18.4531, 2.73854, 23.5522, 13.2938, 82.6574, -127.558
2.6395, -1, -18.6306, 2.64814, 23.5878, 13.2958, 82.5625, -127.798
2.64749, -1, -18.8083, 2.55785, 23.6235, 13.2979, 82.468, -128.037
2.65557, -1, -18.9863, 2.46742, 23.6593, 13.2999, 82.3737, -128.277
2.66353, -1, -19.1646, 2.37694, 23.6949, 13.3019, 82.2792, -128.516
2.6715, -1, -19.3428, 2.28659, 23.7305, 13.3039, 82.1848, -128.755
2.67957, -1, -19.5205, 2.19623, 23.7662, 13.3061, 82.091, -128.994
2.68748, -1, -19.6975, 2.10583, 23.8016, 13.3082, 81.9966, -129.233
2.69548, -1, -19.8741, 2.01555, 23.837, 13.3104, 81.9024, -129.473
2.7036, -1, -20.0499, 1.92528, 23.8727, 13.3126, 81.8085, -129.712
2.7115, -1, -20.2251, 1.83506, 23.9082, 13.3147, 81.7143, -129.95
2.71951, -1, -20.4, 1.74495, 23.9436, 13.3169, 81.6203, -130.188
2.72755, -1, -20.5746, 1.65489, 23.9792, 13.3191, 81.5266, -130.426
2.73549, -1, -20.749, 1.56494, 24.0147, 13.3213, 81.4325, -130.665
2.74357, -1, -20.9236, 1.47506, 24.0501, 13.3235, 81.3388, -130.903
2.75162, -1, -21.0986, 1.38535, 24.0856, 13.3257, 81.2452, -131.141
2.75961, -1, -21.2739, 1.29557, 24.1211, 13.3279, 81.1513, -131.378
2.76766, -1, -21.4496, 1.20584, 24.1564, 13.3301, 81.0574, -131.616
2.77558, -1, -21.6256, 1.11622, 24.1918, 13.3322, 80.9636, -131.854
2.78402, -1, -21.8018, 1.02656, 24.2273, 13.3344, 80.8698, -132.092
2.79161, -1, -21.9782, 0.936931, 24.2626, 13.3366, 80.7759, -132.329
2.79949, -1, -22.1548, 0.847359, 24.298, 13.3387, 80.6824, -132.566
2.80826, -1, -22.3314, 0.757816, 24.3333, 13.3409, 80.5887, -132.803
2.81553, -1, -22.5074, 0.668354, 24.3685, 13.3432, 80.4951, -133.04
2.8236, -1, -22.683, 0.578838, 24.4037, 13.3456, 80.4015, -133.277
2.83241, -1, -22.858, 0.489401, 24.439, 13.3479, 80.3079, -133.514
2.83971, -1, -23.032, 0.399969, 24.4741, 13.3503, 80.2143, -133.751
2.8477, -1, -23.2056, 0.310587, 24.5092, 13.3528, 80.1208, -133.988
2.85661, -1, -23.3789, 0.221229, 24.5444, 13.3552, 80.0274, -134.224
2.86397, -1, -23.552, 0.132001, 24.5796, 13.3577, 79.934, -134.46
2.87253, -1, -23.7252, 0.0428397, 24.6147, 13.36, 79.8407, -134.696
2.88081, -1, -23.8986, -0.0462304, 24.6499, 13.3624, 79.7477, -134.933
2.88806, -1, -24.072, -0.135168, 24.685, 13.3649, 79.6544, -135.169
2.89604, -1, -24.2458, -0.224161, 24.7201, 13.3674, 79.5614, -135.404
2.90494, -1, -24.4199, -0.313112, 24.7553, 13.3698, 79.4685, -135.64
2.9121, -1, -24.5071, -0.401976, 24.7904, 13.3722, 79.3753, -135.875
2.92019, -1, -24.7692, -0.490871, 24.8254, 13.3747, 79.2822, -136.111
2.9289, -1, -24.8567, -0.535322, 24.8429, 13.3758, 79.2358, -136.229
2.9355, -1, -25.0319, -0.624194, 24.878, 13.3782, 79.1428, -136.464
2.94358, -1, -25.2068, -0.713012, 24.9131, 13.3806, 79.0498, -136.699
2.95148, -1, -25.3813, -0.801778, 24.948, 13.383, 78.9571, -136.934
2.9595, -1, -25.5555, -0.890608, 24.9831, 13.3854, 78.8645, -137.169
2.96753, -1, -25.7291, -0.979323, 25.0179, 13.3879, 78.7717, -137.404
2.97548, -1, -25.902, -1.06802, 25.0528, 13.3903, 78.6791, -137.639
2.98361, -1, -26.0745, -1.15672, 25.0879, 13.3928, 78.5869, -137.873
2.99155, -1, -26.2465, -1.24534, 25.1228, 13.3952, 78.4942, -138.108
2.99947, -1, -26.4182, -1.33384, 25.1575, 13.3976, 78.4016, -138.342
3.00758, -1, -26.5901, -1.42227, 25.1925, 13.3998, 78.3093, -138.577
3.01548, -1, -26.7621, -1.51058, 25.2274, 13.4021, 78.2166, -138.811
3.02353, -1, -26.9343, -1.59878, 25.2623, 13.4044, 78.1243, -139.045
3.03155, -1, -27.1067, -1.68697, 25.2971, 13.4066, 78.0322, -139.279
3.03946, -1, -27.2793, -1.77521, 25.332, 13.4088, 77.9399, -139.513
3.04994, -1, -27.4522, -1.86331, 25.3667, 13.411, 77.8479, -139.863
3.05554, -1, -27.6253, -1.9514, 25.4014, 13.4131, 77.7559, -139.98
3.06454, -1, -27.7986, -2.03962, 25.4364, 13.4152, 77.6638, -140.213
3.07148, -1, -27.9719, -2.12766, 25.4711, 13.4173, 77.5718, -140.446
3.07955, -1, -28.1452, -2.21568, 25.5058, 13.4193, 77.4798, -140.68
3.08748, -1, -28.3183, -2.30373, 25.5406, 13.4214, 77.3878, -140.913
3.09549, -1, -28.4911, -2.39179, 25.5753, 13.4234, 77.2957, -141.146
3.10355, -1, -28.6636, -2.47972, 25.61, 13.4256, 77.2036, -141.379
3.11153, -1, -28.8353, -2.56772, 25.6447, 13.4278, 77.1117, -141.612
3.11948, -1, -29.0063, -2.65568, 25.6794, 13.4299, 77.0197, -141.844
3.12751, -1, -29.177, -2.74358, 25.7139, 13.4321, 76.9278, -142.077
3.13555, -1, -29.3476, -2.8314, 25.7486, 13.4341, 76.8361, -142.309
3.14352, -1, -29.5183, -2.91908, 25.7832, 13.4362, 76.7442, -142.542
3.15148, -1, -29.6892, -3.00666, 25.8177, 13.4383, 76.6522, -142.774
3.15955, -1, -29.8601, -3.09422, 25.8523, 13.4403, 76.5607, -143.007
3.16748, -1, -30.031, -3.18172, 25.8869, 13.4425, 76.4686, -143.239
3.17581, -1, -30.202, -3.26925, 25.9215, 13.4444, 76.377, -143.471
3.18352, -1, -30.3732, -3.35667, 25.956, 13.4466, 76.2856, -143.702
3.19146, -1, -30.5447, -3.44412, 25.9906, 13.4486, 76.1939, -143.934
3.2007, -1, -30.7166, -3.53164, 26.025, 13.4506, 76.1025, -144.166
3.20848, -1, -30.8885, -3.61899, 26.0595, 13.4527, 76.0112, -144.397
3.21556, -1, -31.0603, -3.7064, 26.0941, 13.4547, 75.9198, -144.629
3.22354, -1, -31.2319, -3.79373, 26.1285, 13.4567, 75.8284, -144.86
3.23147, -1, -31.4032, -3.8811, 26.1629, 13.4588, 75.7372, -145.092
3.23953, -1, -31.574, -3.96838, 26.1974, 13.4611, 75.6459, -145.323
3.24764, -1, -31.7445, -4.05564, 26.2318, 13.4632, 75.5546, -145.554
3.25555, -1, -31.9145, -4.14292, 26.2661, 13.4654, 75.4635, -145.784
3.26369, -1, -32.0842, -4.23013, 26.3005, 13.4676, 75.3725, -146.015
3.27183, -1, -32.2536, -4.31727, 26.335, 13.4698, 75.2813, -146.246
3.27957, -1, -32.4229, -4.40428, 26.3692, 13.4719, 75.1902, -146.477
3.28765, -1, -32.5926, -4.49125, 26.4035, 13.474, 75.0997, -146.707
3.29603, -1, -32.7622, -4.57816, 26.438, 13.4762, 75.0085, -146.937
3.30358, -1, -32.9319, -4.66508, 26.4722, 13.4784, 74.9178, -147.168
3.31156, -1, -33.1016, -4.75204, 26.5064, 13.4805, 74.8274, -147.398
3.32105, -1, -33.2714, -4.83888, 26.5408, 13.4827, 74.7365, -147.628
3.32755, -1, -33.4415, -4.92575, 26.575, 13.485, 74.6459, -147.858
3.33566, -1, -33.6119, -5.01271, 26.6092, 13.4871, 74.5553, -148.088
3.34593, -1, -33.7821, -5.09949, 26.6435, 13.4894, 74.4648, -148.318
3.35202, -1, -33.9524, -5.18624, 26.6777, 13.4917, 74.3743, -148.548
3.35979, -1, -34.1226, -5.27297, 26.7118, 13.4939, 74.2838, -148.777
3.36863, -1, -34.2927, -5.35968, 26.746, 13.4961, 74.1933, -149.006
3.37595, -1, -34.4628, -5.44632, 26.7803, 13.4984, 74.1026, -149.236
3.38468, -1, -34.6323, -5.53298, 26.8144, 13.5008, 74.0121, -149.465
3.39277, -1, -34.8012, -5.61962, 26.8484, 13.5032, 73.9217, -149.695
3.40022, -1, -34.9698, -5.70621, 26.8827, 13.5056, 73.831, -149.923
3.40805, -1, -35.1381, -5.79268, 26.9167, 13.5081, 73.7405, -150.152
3.41682, -1, -35.2222, -5.87915, 26.9508, 13.5105, 73.6504, -150.381
3.42407, -1, -35.3905, -5.9223, 26.9678, 13.5118, 73.5599, -150.61
3.43148, -1, -35.559, -6.00847, 27.002, 13.5141, 73.5148, -150.725
3.43952, -1, -35.7276, -6.09473, 27.0359, 13.5164, 73.4245, -150.953
3.44746, -1, -35.8962, -6.1809, 27.07, 13.5188, 73.3343, -151.182
3.45545, -1, -36.0647, -6.26702, 27.1041, 13.5212, 73.2438, -151.41
3.46354, -1, -36.2332, -6.35315, 27.138, 13.5237, 73.1533, -151.639
3.47146, -1, -36.4018, -6.43935, 27.172, 13.526, 73.0631, -151.868
3.47945, -1, -36.5707, -6.5256, 27.206, 13.5284, 72.9726, -152.096
3.48753, -1, -36.7395, -6.61178, 27.2399, 13.5306, 72.8824, -152.324
3.49548, -1, -36.9085, -6.69795, 27.2738, 13.533, 72.7924, -152.552
3.50346, -1, -37.0775, -6.78411, 27.3078, 13.5353, 72.7023, -152.78
3.51152, -1, -37.2463, -6.8702, 27.3417, 13.5375, 72.6124, -153.008
3.51947, -1, -37.4149, -6.95624, 27.3756, 13.5397, 72.5225, -153.235
3.52746, -1, -37.583, -7.04231, 27.4095, 13.542, 72.4326, -153.463
3.53767, -1, -37.8346, -7.17131, 27.4604, 13.5454, 72.2978, -153.804
3.54346, -1, -37.9184, -7.21428, 27.4773, 13.5465, 72.253, -153.918
3.55148, -1, -38.0858, -7.30021, 27.5112, 13.5488, 72.1633, -154.145
3.55953, -1, -38.2532, -7.38608, 27.5451, 13.551, 72.0734, -154.373
3.56852, -1, -38.4205, -7.47179, 27.5789, 13.5531, 71.9838, -154.6
3.57546, -1, -38.5877, -7.55751, 27.6127, 13.5552, 71.8944, -154.827
3.58353, -1, -38.7551, -7.64324, 27.6466, 13.5573, 71.8046, -155.054
3.59146, -1, -38.9224, -7.72894, 27.6804, 13.5593, 71.715, -155.281
3.59951, -1, -39.0897, -7.81447, 27.7141, 13.5614, 71.626, -155.508
3.60754, -1, -39.2572, -7.90012, 27.7479, 13.5635, 71.5364, -155.735
3.61546, -1, -39.4247, -7.98582, 27.7817, 13.5654, 71.4471, -155.962
3.62346, -1, -39.5923, -8.07136, 27.8153, 13.5674, 71.3578, -156.189
3.63154, -1, -39.76, -8.15691, 27.849, 13.5694, 71.2684, -156.415
3.63946, -1, -39.9276, -8.24239, 27.8828, 13.5713, 71.1791, -156.642
3.64746, -1, -40.0952, -8.32785, 27.9164, 13.5733, 71.0897, -156.868
3.65552, -1, -40.2627, -8.41322, 27.95, 13.5753, 71.0006, -157.094
3.66352, -1, -40.4299, -8.4986, 27.9838, 13.5773, 70.9111, -157.32
3.67146, -1, -40.5969, -8.58399, 28.0174, 13.5792, 70.822, -157.546
3.67954, -1, -40.7638, -8.66938, 28.051, 13.5812, 70.733, -157.772
3.68745, -1, -40.9304, -8.75469, 28.0846, 13.5832, 70.6437, -157.998
3.69546, -1, -41.0968, -8.84003, 28.1183, 13.5853, 70.5546, -158.224
3.70352, -1, -41.263, -8.92526, 28.1518, 13.5873, 70.4656, -158.45
3.71145, -1, -41.4292, -9.01042, 28.1854, 13.5893, 70.3762, -158.676
3.7195, -1, -41.5955, -9.09558, 28.2191, 13.5913, 70.2871, -158.901
3.72752, -1, -41.7618, -9.18068, 28.2526, 13.5933, 70.198, -159.126
3.73546, -1, -41.9282, -9.26573, 28.2861, 13.5953, 70.109, -159.352
3.74376, -1, -42.0946, -9.35077, 28.3199, 13.5973, 70.02, -159.578
3.75149, -1, -42.2608, -9.43586, 28.3534, 13.5993, 69.931, -159.803
3.75954, -1, -42.427, -9.52091, 28.3869, 13.6014, 69.8422, -160.028
3.76781, -1, -42.5934, -9.60592, 28.4204, 13.6034, 69.7531, -160.253
3.77557, -1, -42.7598, -9.6909, 28.454, 13.6055, 69.6643, -160.478
3.78356, -1, -42.9263, -9.77586, 28.4873, 13.6075, 69.5757, -160.704
3.79163, -1, -43.0927, -9.86078, 28.5208, 13.6095, 69.4867, -160.928
3.8001, -1, -43.259, -9.94577, 28.5543, 13.6116, 69.3981, -161.153
3.80746, -1, -43.4251, -10.0307, 28.5878, 13.6137, 69.3095, -161.378
3.81555, -1, -43.591, -10.1156, 28.6213, 13.6158, 69.2208, -161.603
3.82438, -1, -43.7569, -10.2006, 28.6548, 13.6179, 69.1323, -161.828
3.83157, -1, -43.9227, -10.2854, 28.6882, 13.62, 69.0439, -162.052
3.83962, -1, -44.0882, -10.3701, 28.7216, 13.6222, 68.9554, -162.276
3.8483, -1, -44.2536, -10.4548, 28.7552, 13.6243, 68.8667, -162.501
3.85576, -1, -44.4187, -10.5394, 28.7886, 13.6266, 68.7781, -162.725
3.86383, -1, -44.584, -10.624, 28.822, 13.6287, 68.6896, -162.949
3.87251, -1, -44.7491, -10.7085, 28.8554, 13.6309, 68.6008, -163.173
3.87994, -1, -44.9145, -10.7929, 28.8889, 13.6331, 68.5123, -163.397
3.88854, -1, -45.0798, -10.8774, 28.9223, 13.6353, 68.4241, -163.621
3.89603, -1, -45.2452, -10.962, 28.9557, 13.6375, 68.3355, -163.846
3.90407, -1, -45.4105, -11.0465, 28.9891, 13.6397, 68.2471, -164.07
3.91211, -1, -45.5757, -11.1309, 29.0224, 13.642, 68.1589, -164.293
3.92027, -1, -45.741, -11.2154, 29.0556, 13.6443, 68.0706, -164.517
3.92839, -1, -45.906, -11.2997, 29.089, 13.6466, 67.9822, -164.741
3.93609, -1, -45.9878, -11.3415, 29.1058, 13.6477, 67.8938, -164.964
3.94349, -1, -46.1491, -11.4238, 29.1392, 13.65, 67.85, -165.076
3.95241, -1, -46.3061, -11.5032, 29.1728, 13.6524, 67.7195, -165.405
3.9595, -1, -46.4563, -11.5781, 29.2064, 13.6548, 67.6773, -165.512
3.96745, -1, -46.5974, -11.648, 29.2386, 13.6571, 67.5959, -165.718
3.97545, -1, -46.7269, -11.7113, 29.2684, 13.6593, 67.5213, -165.907
3.9835, -1, -46.8418, -11.7673, 29.2948, 13.6613, 67.4544, -166.075
3.99144, -1, -46.9405, -11.8164, 29.3169, 13.663, 67.3987, -166.217
3.99947, -1, -47.0229, -11.8592, 29.3334, 13.6643, 67.354, -166.33
4.00749, -1, -47.0899, -11.8959, 29.3446, 13.665, 67.3205, -166.415
4.01546, -1, -47.1422, -11.9253, 29.3518, 13.6654, 67.2973, -166.473
4.02344, -1, -47.181, -11.9473, 29.3557, 13.6657, 67.2823, -166.51
4.03148, -1, -47.2084, -11.9627, 29.3575, 13.6658, 67.2736, -166.533
4.04123, -1, -47.2327, -11.976, 29.3585, 13.6659, 67.2675, -166.548
4.04744, -1, -47.2373, -11.9785, 29.3587, 13.6659, 67.2666, -166.55
4.05641, 2, -47.2428, -11.9813, 29.3589, 13.6659, 67.2655, -166.553
4.06344, 2, -47.2448, -11.9826, 29.359, 13.666, 67.2649, -166.554
4.07345, 2, -47.2448, -11.9831, 29.3592, 13.6661, 67.2646, -166.555
4.07952, 2, -47.2446, -11.9833, 29.3592, 13.6661, 67.2646, -166.555
4.08744, 2, -47.2445, -11.9834, 29.3593, 13.666, 67.2645, -166.555
4.09544, 2, -47.2449, -11.9835, 29.3593, 13.6661, 67.2645, -166.555
4.10353, 2, -47.2458, -11.9837, 29.3593, 13.6661, 67.2645, -166.555
4.11146, 2, -47.2471, -11.9843, 29.3593, 13.6661, 67.2644, -166.555
4.11946, 2, -47.2489, -11.985, 29.3593, 13.6661, 67.2645, -166.555
4.12751, 2, -47.2504, -11.9859, 29.3593, 13.6661, 67.2645, -166.555
4.13547, 2, -47.2518, -11.9867, 29.3593, 13.6661, 67.2645, -166.555
4.14344, 2, -47.2527, -11.9874, 29.3593, 13.6661, 67.2645, -166.555
4.1515, 2, -47.2532, -11.9878, 29.3593, 13.6661, 67.2645, -166.555
4.15945, 2, -47.2533, -11.988, 29.3593, 13.6661, 67.2645, -166.555
4.16745, 2, -47.2534, -11.9881, 29.3593, 13.6662, 67.2645, -166.555
4.17551, 2, -47.2531, -11.9881, 29.3593, 13.6661, 67.2645, -166.555
4.18346, 2, -47.2527, -11.988, 29.3594, 13.6661, 67.2645, -166.555
4.19144, 2, -47.2522, -11.988, 29.3594, 13.6661, 67.2644, -166.555
4.19951, 2, -47.2519, -11.988, 29.3594, 13.6661, 67.2644, -166.555
4.20744, 2, -47.2517, -11.988, 29.3594, 13.666, 67.2644, -166.555
4.21545, 2, -47.2517, -11.9881, 29.3594, 13.666, 67.2644, -166.555
4.22353, 2, -47.2518, -11.9883, 29.3594, 13.6661, 67.2645, -166.555
4.23147, 2, -47.252, -11.9886, 29.3594, 13.666, 67.2645, -166.555
4.23945, 2, -47.2526, -11.9889, 29.3594, 13.666, 67.2645, -166.555
4.24751, 2, -47.2532, -11.9893, 29.3594, 13.666, 67.2645, -166.555
4.25547, 2, -47.2535, -11.9894, 29.3594, 13.666, 67.2645, -166.555
4.26352, 2, -47.2537, -11.9895, 29.3594, 13.666, 67.2645, -166.555
4.27162, 2, -47.2537, -11.9895, 29.3594, 13.666, 67.2645, -166.555
4.27956, 2, -47.2536, -11.9895, 29.3594, 13.6661, 67.2644, -166.555
4.28754, 2, -47.2534, -11.9895, 29.3594, 13.666, 67.2645, -166.555
4.2956, 2, -47.253, -11.9894, 29.3594, 13.666, 67.2645, -166.555
4.30352, 2, -47.2526, -11.9894, 29.3594, 13.666, 67.2645, -166.555
4.31144, 2, -47.2524, -11.9894, 29.3594, 13.6661, 67.2645, -166.555
4.31964, 2, -47.2522, -11.9894, 29.3594, 13.666, 67.2645, -166.555
4.32747, 2, -47.2521, -11.9894, 29.3594, 13.666, 67.2645, -166.555
4.33557, 2, -47.252, -11.9895, 29.3594, 13.666, 67.2645, -166.555
4.34361, 2, -47.252, -11.9895, 29.3594, 13.6661, 67.2645, -166.555
4.35163, 2, -47.252, -11.9896, 29.3594, 13.666, 67.2645, -166.555
4.35976, 2, -47.252, -11.9896, 29.3594, 13.666, 67.2645, -166.555
4.36803, 2, -47.2521, -11.9896, 29.3594, 13.666, 67.2645, -166.555
4.37663, 2, -47.2521, -11.9896, 29.3594, 13.666, 67.2645, -166.555
4.38395, 2, -47.252, -11.9896, 29.3594, 13.666, 67.2645, -166.555
4.39202, 2, -47.252, -11.9895, 29.3594, 13.666, 67.2644, -166.555
4.39996, 2, -47.2519, -11.9895, 29.3594, 13.666, 67.2645, -166.555
4.40805, 2, -47.2518, -11.9894, 29.3594, 13.666, 67.2646, -166.555
4.41621, 2, -47.2517, -11.9894, 29.3594, 13.666, 67.2646, -166.555
4.42395, 2, -47.2516, -11.9894, 29.3594, 13.666, 67.2645, -166.555
4.43201, 2, -47.2515, -11.9894, 29.3594, 13.666, 67.2645, -166.555
4.44004, 2, -47.2515, -11.9894, 29.3594, 13.6659, 67.2645, -166.555
4.44745, 2, -47.2514, -11.9894, 29.3594, 13.6659, 67.2646, -166.555
4.45543, 2, -47.2514, -11.9894, 29.3594, 13.666, 67.2646, -166.555
4.46348, 2, -47.2513, -11.9895, 29.3594, 13.666, 67.2646, -166.555
4.47144, 2, -47.2513, -11.9895, 29.3594, 13.666, 67.2645, -166.555
4.47944, 2, -47.2512, -11.9894, 29.3594, 13.6659, 67.2645, -166.555
4.48748, 2, -47.2511, -11.9894, 29.3594, 13.6659, 67.2646, -166.555
4.49542, 2, -47.2511, -11.9894, 29.3594, 13.666, 67.2646, -166.555
4.50345, 2, -47.251, -11.9893, 29.3594, 13.6659, 67.2646, -166.555
4.51148, 2, -47.2509, -11.9893, 29.3594, 13.6659, 67.2646, -166.555
4.51945, 2, -47.2508, -11.9892, 29.3594, 13.6659, 67.2646, -166.555
4.52743, 2, -47.2507, -11.9892, 29.3594, 13.6659, 67.2647, -166.555
4.537, 2, -47.2506, -11.9892, 29.3594, 13.6659, 67.2647, -166.555
4.54516, 2, -47.2504, -11.9892, 29.3594, 13.6659, 67.2647, -166.555
4.55142, 2, -47.2504, -11.9892, 29.3594, 13.6659, 67.2647, -166.555
4.55952, 2, -47.2503, -11.9892, 29.3594, 13.6659, 67.2647, -166.555
4.56847, 2, -47.2502, -11.9892, 29.3594, 13.6659, 67.2647, -166.555
4.57542, 2, -47.25, -11.9892, 29.3594, 13.6659, 67.2647, -166.555
4.5835, 2, -47.2499, -11.9892, 29.3594, 13.6659, 67.2647, -166.555
4.59247, 2, -47.2498, -11.9892, 29.3594, 13.6659, 67.2647, -166.555
4.59944, 2, -47.2497, -11.9891, 29.3594, 13.6659, 67.2647, -166.555
4.60757, 2, -47.2496, -11.989, 29.3594, 13.6659, 67.2647, -166.555
4.61546, 2, -47.2495, -11.989, 29.3594, 13.6659, 67.2647, -166.555
4.62342, 2, -47.2494, -11.9889, 29.3594, 13.6659, 67.2647, -166.555
4.63149, 2, -47.2493, -11.9889, 29.3594, 13.6658, 67.2647, -166.555
4.63945, 2, -47.2493, -11.9889, 29.3594, 13.6659, 67.2647, -166.555
4.64743, 2, -47.2492, -11.9889, 29.3594, 13.6659, 67.2647, -166.555
4.65549, 2, -47.2491, -11.9889, 29.3594, 13.6659, 67.2647, -166.555
4.66342, 2, -47.249, -11.9889, 29.3594, 13.6658, 67.2647, -166.555
4.67144, 2, -47.249, -11.9889, 29.3594, 13.6658, 67.2647, -166.555
4.6795, 2, -47.249, -11.9889, 29.3594, 13.6658, 67.2647, -166.555
4.68744, 2, -47.249, -11.9889, 29.3594, 13.6658, 67.2647, -166.555
4.69542, 2, -47.2489, -11.9889, 29.3594, 13.6658, 67.2647, -166.555
4.70349, 2, -47.2488, -11.9888, 29.3594, 13.6658, 67.2647, -166.555
4.71142, 2, -47.2488, -11.9888, 29.3594, 13.6658, 67.2647, -166.555
4.71945, 2, -47.2487, -11.9887, 29.3594, 13.6658, 67.2647, -166.555
4.72751, 2, -47.2486, -11.9886, 29.3594, 13.6658, 67.2648, -166.555
4.73542, 2, -47.2485, -11.9886, 29.3594, 13.6657, 67.2648, -166.555
4.74346, 2, -47.2485, -11.9886, 29.3594, 13.6658, 67.2648, -166.555
4.7515, 2, -47.2484, -11.9886, 29.3594, 13.6658, 67.2648, -166.555
4.75948, 2, -47.2484, -11.9886, 29.3594, 13.6657, 67.2648, -166.555
4.76752, 2, -47.2484, -11.9886, 29.3594, 13.6658, 67.2648, -166.555
4.7756, 2, -47.2483, -11.9886, 29.3594, 13.6658, 67.2648, -166.555
4.78354, 2, -47.2483, -11.9886, 29.3594, 13.6658, 67.2648, -166.555
4.79153, 2, -47.2483, -11.9886, 29.3594, 13.6658, 67.2648, -166.555
4.79961, 2, -47.2482, -11.9885, 29.3594, 13.6658, 67.2648, -166.555
4.80751, 2, -47.2482, -11.9885, 29.3594, 13.6657, 67.2648, -166.555
4.81544, 2, -47.2482, -11.9884, 29.3594, 13.6657, 67.2648, -166.555
4.82351, 2, -47.2481, -11.9883, 29.3594, 13.6657, 67.2648, -166.554
4.83146, 2, -47.248, -11.9883, 29.3594, 13.6657, 67.2648, -166.554
4.83959, 2, -47.2479, -11.9882, 29.3594, 13.6657, 67.2648, -166.554
4.84765, 2, -47.2478, -11.9882, 29.3594, 13.6657, 67.2648, -166.554
4.85565, 2, -47.2478, -11.9882, 29.3594, 13.6657, 67.2648, -166.554
4.86402, 2, -47.2478, -11.9882, 29.3594, 13.6657, 67.2648, -166.554
4.87208, 2, -47.2477, -11.9882, 29.3594, 13.6656, 67.2648, -166.554
4.88053, 2, -47.2477, -11.9882, 29.3594, 13.6657, 67.2648, -166.554
4.88823, 2, -47.2477, -11.9882, 29.3593, 13.6656, 67.2649, -166.554
4.89603, 2, -47.2476, -11.9882, 29.3594, 13.6656, 67.2649, -166.554
4.90396, 2, -47.2476, -11.9881, 29.3594, 13.6656, 67.2649, -166.554
4.91223, 2, -47.2476, -11.9881, 29.3593, 13.6656, 67.2649, -166.554
4.92011, 2, -47.2475, -11.988, 29.3594, 13.6656, 67.2649, -166.554
4.92795, 2, -47.2475, -11.988, 29.3594, 13.6656, 67.265, -166.554
4.9363, 2, -47.2473, -11.9879, 29.3594, 13.6656, 67.265, -166.554
4.94348, 2, -47.2473, -11.9879, 29.3594, 13.6656, 67.265, -166.554
4.95142, 2, -47.2472, -11.9879, 29.3594, 13.6655, 67.265, -166.554
4.96029, 2, -47.2472, -11.9879, 29.3594, 13.6655, 67.265, -166.554
4.96746, 2, -47.2471, -11.9879, 29.3594, 13.6655, 67.265, -166.554
4.97543, 2, -47.2471, -11.9879, 29.3594, 13.6655, 67.265, -166.554
4.98341, 2, -47.2471, -11.9879, 29.3594, 13.6655, 67.265, -166.554
4.99146, 2, -47.247, -11.9879, 29.3594, 13.6655, 67.265, -166.554
4.99943, 2, -47.247, -11.9878, 29.3593, 13.6655, 67.265, -166.554
5.00743, 2, -47.247, -11.9878, 29.3594, 13.6655, 67.265, -166.554
5.01547, 2, -47.247, -11.9878, 29.3594, 13.6654, 67.265, -166.554
5.02342, 2, -47.2469, -11.9877, 29.3594, 13.6654, 67.265, -166.554
5.03141, 2, -47.2468, -11.9876, 29.3594, 13.6654, 67.265, -166.554
5.03948, 2, -47.2467, -11.9876, 29.3594, 13.6654, 67.265, -166.554
5.04741, 2, -47.2466, -11.9876, 29.3594, 13.6654, 67.265, -166.554
5.0576, 2, -47.2466, -11.9875, 29.3594, 13.6654, 67.2651, -166.554
5.06344, 2, -47.2465, -11.9875, 29.3594, 13.6654, 67.2651, -166.554
5.07144, 2, -47.2465, -11.9875, 29.3594, 13.6654, 67.2651, -166.554
5.07941, 2, -47.2465, -11.9875, 29.3594, 13.6653, 67.2651, -166.554
5.08742, 2, -47.2465, -11.9875, 29.3594, 13.6653, 67.2651, -166.554
5.09547, 2, -47.2464, -11.9875, 29.3594, 13.6653, 67.2651, -166.554
5.10341, 2, -47.2464, -11.9875, 29.3594, 13.6653, 67.2652, -166.554
5.11143, 2, -47.2463, -11.9875, 29.3594, 13.6653, 67.2651, -166.554
5.11951, 2, -47.2463, -11.9874, 29.3594, 13.6653, 67.2651, -166.554
5.1274, 2, -47.2463, -11.9874, 29.3593, 13.6652, 67.2651, -166.554
5.13543, 2, -47.2462, -11.9873, 29.3594, 13.6652, 67.2652, -166.554
5.14351, 4, -47.2461, -11.9873, 29.3594, 13.6652, 67.2652, -166.554
5.1514, 4, -47.2461, -11.9872, 29.3594, 13.6652, 67.2652, -166.554
5.15942, 4, -47.246, -11.9872, 29.3594, 13.6652, 67.2652, -166.554
5.16747, 4, -47.246, -11.9872, 29.3594, 13.6652, 67.2652, -166.554
5.17542, 4, -47.2459, -11.9872, 29.3593, 13.6651, 67.2652, -166.554
5.18341, 4, -47.2459, -11.9872, 29.3594, 13.6651, 67.2653, -166.554
5.19149, 4, -47.2458, -11.9872, 29.3594, 13.6651, 67.2652, -166.554
5.19942, 4, -47.2458, -11.9872, 29.3594, 13.6651, 67.2652, -166.554
5.20741, 4, -47.2458, -11.9872, 29.3593, 13.6651, 67.2652, -166.554
5.21547, 4, -47.2458, -11.9871, 29.3594, 13.6651, 67.2653, -166.554
5.2234, 4, -47.2458, -11.9871, 29.3594, 13.665, 67.2653, -166.554
5.23143, 4, -47.2457, -11.987, 29.3594, 13.665, 67.2653, -166.554
5.23964, 4, -47.2457, -11.987, 29.3594, 13.665, 67.2653, -166.554
5.25463, 4, -47.2456, -11.9869, 29.3594, 13.665, 67.2653, -166.554
5.25678, 4, -47.2455, -11.9869, 29.3594, 13.665, 67.2653, -166.554
5.26935, 4, -47.2455, -11.9869, 29.3594, 13.665, 67.2653, -166.554
5.2721, 4, -47.2454, -11.9869, 29.3594, 13.665, 67.2653, -166.553
5.27968, 4, -47.2454, -11.9869, 29.3594, 13.665, 67.2653, -166.553
5.28856, 4, -47.2454, -11.9869, 29.3594, 13.665, 67.2652, -166.553
5.30081, 4, -47.2453, -11.9869, 29.3594, 13.665, 67.2653, -166.553
5.30373, 4, -47.2453, -11.9869, 29.3594, 13.665, 67.2653, -166.553
5.31383, 4, -47.2453, -11.9869, 29.3594, 13.665, 67.2653, -166.553
5.32057, 4, -47.2453, -11.9868, 29.3594, 13.665, 67.2653, -166.553
5.32931, 4, -47.2453, -11.9868, 29.3594, 13.6649, 67.2653, -166.553
5.33589, 4, -47.2452, -11.9868, 29.3594, 13.6649, 67.2653, -166.553
5.34439, 4, -47.2452, -11.9867, 29.3594, 13.6649, 67.2652, -166.553
5.35452, 4, -47.2451, -11.9867, 29.3594, 13.6649, 67.2653, -166.553
5.36082, 4, -47.2451, -11.9866, 29.3594, 13.6649, 67.2653, -166.553
5.36796, 4, -47.245, -11.9866, 29.3594, 13.6649, 67.2653, -166.553
5.37807, 4, -47.245, -11.9866, 29.3594, 13.6649, 67.2653, -166.553
5.3847, 4, -47.245, -11.9866, 29.3593, 13.6649, 67.2653, -166.553
5.39425, 4, -47.2449, -11.9866, 29.3594, 13.6649, 67.2653, -166.553
5.40282, 4, -47.2449, -11.9866, 29.3594, 13.6649, 67.2653, -166.553
5.40874, 4, -47.245, -11.9867, 29.3594, 13.6649, 67.2653, -166.553
5.41754, 4, -47.246, -11.9871, 29.3598, 13.665, 67.2654, -166.553
5.42872, 4, -47.2501, -11.9906, 29.3638, 13.6701, 67.2668, -166.553
5.43619, 4, -47.2526, -11.9932, 29.3724, 13.6867, 67.2709, -166.55
5.44074, 4, -47.2557, -11.997, 29.3724, 13.7016, 67.2748, -166.547
5.44928, 4, -47.2713, -12.0172, 29.4046, 13.7507, 67.2884, -166.537
5.45747, 5, -47.2895, -12.0414, 29.4473, 13.8387, 67.3129, -166.517
5.46502, 5, -47.3017, -12.0769, 29.5143, 13.979, 67.3527, -166.485
5.47155, 5, -47.3337, -12.0993, 29.5589, 14.0737, 67.3789, -166.464
5.47958, 5, -47.3773, -12.1547, 29.6736, 14.3194, 67.4467, -166.407
5.48755, 5, -47.4338, -12.2249, 29.8247, 14.6473, 67.5365, -166.332
5.49851, 5, -47.5422, -12.3585, 30.1233, 15.2965, 67.7113, -166.183
5.50794, 5, -47.6297, -12.4661, 30.3689, 15.8257, 67.8519, -166.064
5.51272, 5, -47.6777, -12.5248, 30.504, 16.1144, 68.0074, -165.93
5.52343, 5, -47.8354, -12.7189, 30.9523, 17.0555, 68.1726, -165.788
5.52754, 5, -47.8918, -12.7885, 31.1132, 17.3881, 68.2575, -165.715
5.53764, 5, -48.0686, -13.0083, 31.6196, 18.4152, 68.5153, -165.492
5.54526, 5, -48.1899, -13.1599, 31.9684, 19.1104, 68.6858, -165.344
5.55163, 5, -48.2508, -13.2359, 32.1446, 19.4574, 68.7697, -165.271
5.55967, 5, -48.3711, -13.386, 32.4972, 20.1421, 68.9345, -165.125
5.56756, 5, -48.4864, -13.5315, 32.8468, 20.8078, 69.0953, -164.974
5.57561, 6, -48.5921, -13.6697, 33.1869, 21.4436, 69.2539, -164.809
5.58456, 6, -48.6834, -13.7982, 33.5127, 22.0379, 69.4125, -164.617
5.59463, 7, -48.785, -13.9734, 33.9663, 22.8407, 69.6557, -164.249
5.59959, 7, -48.8081, -14.0277, 34.1077, 23.0831, 69.7393, -164.098
5.61066, 8, -48.8443, -14.178, 34.5023, 23.7435, 70.0009, -163.547
5.61664, 8, -48.8459, -14.2235, 34.6252, 23.9449, 70.0927, -163.329
5.62698, 8, -48.8244, -14.3463, 34.9754, 24.5098, 70.383, -162.578
5.63156, 9, -48.8097, -14.3835, 35.0871, 24.6893, 70.485, -162.299
5.64012, 9, -48.7712, -14.4542, 35.3055, 25.0423, 70.6964, -161.71
5.64758, 10, -48.7224, -14.5214, 35.5211, 25.3928, 70.9174, -161.09
5.65653, 10, -48.6641, -14.5866, 35.7356, 25.7447, 71.146, -160.452
5.66604, 11, -48.5619, -14.6815, 36.0564, 26.2786, 71.498, -159.484
5.67156, 11, -48.5249, -14.7125, 36.1633, 26.4588, 71.6163, -159.162
5.6801, 12, -48.4479, -14.7743, 36.3763, 26.8235, 71.8542, -158.52
5.69656, 12, -48.3296, -14.8663, 36.6912, 27.3829, 72.3342, -157.232
5.70221, 13, -48.2499, -14.9258, 36.8991, 27.7658, 72.4556, -156.584
5.70433, 13, -48.2099, -14.955, 37.0023, 27.9602, 72.5776, -156.584
5.71565, 14, -48.0867, -15.0421, 37.3089, 28.5538, 72.9474, -155.604
5.72053, 14, -48.0442, -15.0716, 37.4107, 28.7545, 73.0718, -155.275
5.72855, 15, -47.9568, -15.1314, 37.6139, 29.1584, 73.3209, -154.62
5.73661, 15, -47.8651, -15.1911, 37.8153, 29.5635, 73.5691, -153.967
5.74695, 16, -47.7173, -15.2793, 38.1142, 30.1687, 73.9362, -152.994
5.7516, 16, -47.6645, -15.3089, 38.2131, 30.369, 74.0565, -152.673
5.76863, 17, -47.4378, -15.4325, 38.6002, 31.1606, 74.5247, -151.402
5.77494, 18, -47.3165, -15.4967, 38.789, 31.5499, 74.7502, -150.775
5.77688, 18, -47.3165, -15.4967, 38.789, 31.5499, 74.7502, -150.775
5.78404, 18, -47.1902, -15.5616, 38.9752, 31.9355, 74.9699, -150.156
5.79169, 19, -47.0586, -15.6284, 39.1582, 32.318, 75.1841, -149.544
5.80149, 19, -46.9214, -15.6983, 39.3395, 32.6993, 75.3938, -148.938
5.80777, 20, -46.7787, -15.7705, 39.5199, 33.0794, 75.5989, -148.338
5.81661, 20, -46.6313, -15.8443, 39.6984, 33.4587, 75.7999, -147.746
5.82496, 21, -46.4798, -15.9193, 39.8743, 33.8374, 75.9969, -147.161
5.83529, 21, -46.3246, -15.9959, 40.0485, 34.4041, 76.285, -146.294
5.83986, 22, -46.1657, -16.0743, 40.2211, 34.5927, 76.379, -146.008
5.84852, 22, -46.0025, -16.1542, 40.3911, 34.9686, 76.5642, -145.441
5.85601, 23, -45.8342, -16.2358, 40.5579, 35.3423, 76.7456, -144.879
5.8647, 23, -45.6596, -16.3194, 40.7222, 35.7129, 76.9222, -144.323
5.8738, 24, -45.4773, -16.4054, 40.8831, 36.0791, 77.0938, -143.771
5.8808, 24, -45.2873, -16.4937, 41.0393, 36.4386, 77.259, -143.225
5.88859, 25, -45.0898, -16.5836, 41.191, 36.7896, 77.4171, -142.685
5.89692, 25, -44.8855, -16.6742, 41.3385, 37.1309, 77.5675, -142.15
5.90654, 26, -44.6745, -16.7653, 41.4813, 37.4627, 77.7105, -141.619
5.91298, 26, -44.4565, -16.8574, 41.6191, 37.7854, 77.8475, -141.093
5.92253, 27, -44.2313, -16.9505, 41.7515, 38.1003, 77.98, -140.57
5.92896, 27, -43.9991, -17.044, 41.8783, 38.4079, 78.1087, -140.047
5.93626, 28, -43.7605, -17.1367, 41.9991, 38.7086, 78.2351, -139.524
5.94595, 28, -43.5149, -17.228, 42.1133, 39.0025, 78.3589, -139.002
5.95273, 29, -43.2621, -17.3177, 42.2207, 39.289, 78.4811, -138.481
5.96146, 29, -43.0028, -17.4055, 42.321, 39.5682, 78.601, -137.958
5.9683, 30, -42.8707, -17.4485, 42.3684, 39.7049, 78.6599, -137.435
5.98071, 30, -42.3234, -17.6134, 42.5397, 40.2307, 78.8892, -136.653
5.98355, 31, -42.3234, -17.6134, 42.5397, 40.2307, 78.8892, -136.653
5.99155, 31, -42.0379, -17.6919, 42.6145, 40.4807, 78.9993, -136.132
6.00283, 32, -41.596, -17.8054, 42.7138, 40.8395, 79.1595, -135.351
6.00984, 32, -41.293, -17.8777, 42.7716, 41.0678, 79.2624, -134.832
6.0169, 33, -40.9833, -17.9471, 42.8223, 41.2879, 79.3628, -134.314
6.02353, 33, -40.8259, -17.9807, 42.845, 41.395, 79.4121, -134.056
6.03154, 34, -40.5059, -18.046, 42.8852, 41.6028, 79.5083, -133.539
6.03965, 34, -40.1805, -18.1088, 42.918, 41.8027, 79.6021, -133.024
6.04805, 35, -39.8504, -18.1689, 42.9437, 41.9944, 79.6936, -132.509
6.05553, 35, -39.5148, -18.2257, 42.9623, 42.1789, 79.7824, -131.996
6.06563, 36, -38.9991, -18.3045, 42.977, 42.4412, 79.9116, -131.229
6.07845, 36, -38.4673, -18.3758, 42.9767, 42.6862, 80.0361, -130.464
6.08041, 37, -38.4673, -18.3758, 42.9767, 42.6862, 80.0361, -130.464
6.08768, 37, -38.1055, -18.4191, 42.9679, 42.8401, 80.1161, -129.956
6.09558, 38, -37.738, -18.4586, 42.9523, 42.9864, 80.1945, -129.45
6.10353, 38, -37.3657, -18.4945, 42.9301, 43.1256, 80.2705, -128.945
6.11153, 39, -36.9887, -18.5272, 42.9012, 43.257, 80.3446, -128.442
6.12051, 39, -36.6071, -18.5563, 42.8655, 43.3814, 80.4162, -127.941
6.12767, 40, -36.2205, -18.5816, 42.8231, 43.4983, 80.4864, -127.442
6.13881, 40, -35.6294, -18.6124, 42.7474, 43.6603, 80.5882, -126.697
6.14459, 41, -35.4293, -18.6207, 42.7189, 43.7107, 80.6211, -126.449
6.15493, 41, -34.821, -18.6401, 42.6236, 43.8507, 80.7164, -125.71
6.15951, 42, -34.6161, -18.6449, 42.5886, 43.894, 80.7476, -125.465
6.17138, 42, -33.997, -18.6543, 42.474, 44.0128, 80.8367, -124.732
6.17554, 43, -33.7891, -18.6558, 42.4327, 44.0489, 80.8661, -124.489
6.18617, 43, -33.1589, -18.6555, 42.3, 44.1465, 80.9504, -123.763
6.1915, 44, -32.9461, -18.6535, 42.2529, 44.1756, 80.9777, -123.522
6.19957, 44, -32.5156, -18.6466, 42.1544, 44.2277, 81.0318, -123.043
6.20853, 45, -32.0785, -18.636, 42.05, 44.2728, 81.0832, -122.566
6.21755, 45, -31.6361, -18.6216, 41.9397, 44.311, 81.1333, -122.091
6.22359, 46, -31.19, -18.6039, 41.8233, 44.3414, 81.1823, -121.618
6.23491, 46, -30.5173, -18.5706, 41.6378, 44.3722, 81.2511, -120.914
6.24153, 47, -30.2916, -18.5576, 41.573, 44.3786, 81.2736, -120.68
6.24871, 47, -29.8367, -18.5282, 41.439, 44.3863, 81.3183, -120.215
6.25557, 48, -29.3754, -18.4944, 41.2991, 44.3872, 81.3611, -119.751
6.26376, 48, -28.9076, -18.4563, 41.153, 44.3793, 81.4029, -119.288
6.27524, 49, -28.1966, -18.391, 40.9227, 44.3514, 81.4656, -118.599
6.27996, 49, -27.9582, -18.367, 40.843, 44.3375, 81.4862, -118.37
6.2887, 50, -27.4796, -18.3156, 40.6788, 44.3022, 81.5266, -117.912
6.3015, 51, -26.7547, -18.2288, 40.4201, 44.2323, 81.5888, -117.227
6.30445, 51, -26.5098, -18.1971, 40.3307, 44.2044, 81.6101, -116.999
6.31225, 51, -26.0141, -18.1294, 40.1469, 44.1405, 81.6524, -116.545
6.31967, 52, -25.5111, -18.0562, 39.9557, 44.0674, 81.6952, -116.091
6.32852, 52, -25.0039, -17.9777, 39.7572, 43.9836, 81.7394, -115.637
6.33801, 53, -24.4946, -17.8936, 39.5527, 43.8895, 81.7843, -115.184
6.34443, 53, -23.9826, -17.8034, 39.341, 43.7854, 81.8293, -114.732
6.35265, 54, -23.465, -17.707, 39.1212, 43.6706, 81.8769, -114.28
6.36053, 54, -22.9394, -17.6043, 38.8942, 43.5447, 81.9269, -113.828
6.37054, 55, -22.4056, -17.4954, 38.6597, 43.4075, 81.9784, -113.376
6.37666, 55, -21.867, -17.3804, 38.4172, 43.2584, 82.0333, -112.923
6.38454, 56, -21.3261, -17.2594, 38.1684, 43.0976, 82.0899, -112.471
6.39289, 56, -20.7821, -17.1327, 37.9129, 42.9257, 82.1475, -112.019
6.40045, 57, -20.2315, -17.0004, 37.6508, 42.7424, 82.2074, -111.568
6.40898, 57, -19.6713, -16.8624, 37.3826, 42.5477, 82.2677, -111.118
6.41615, 58, -19.1031, -16.7184, 37.1074, 42.3407, 82.3306, -110.667
6.4285, 58, -18.2435, -16.4914, 36.6833, 42.0066, 82.4276, -109.993
6.43447, 59, -17.9559, -16.4132, 36.5383, 41.8889, 82.4616, -109.768
6.44085, 59, -17.3771, -16.2535, 36.2438, 41.644, 82.5311, -109.318
6.44953, 60, -16.7895, -16.0896, 35.9431, 41.3865, 82.6027, -108.869
6.46083, 60, -15.8904, -15.8334, 35.4824, 40.9767, 82.7131, -108.195
6.4642, 61, -15.8904, -15.8334, 35.4824, 40.9767, 82.7506, -107.971
6.47153, 61, -15.2849, -15.6562, 35.1687, 40.6873, 82.7885, -107.746
6.47952, 62, -14.6768, -15.4749, 34.85, 40.3859, 82.8655, -107.298
6.49143, 62, -13.7533, -15.1951, 34.3622, 39.9095, 82.9853, -106.625
6.49551, 63, -13.4405, -15.099, 34.1975, 39.7443, 83.0264, -106.401
6.50593, 63, -12.4893, -14.8007, 33.6952, 39.2283, 83.1535, -105.727
6.51162, 64, -12.1693, -14.6984, 33.5252, 39.0495, 83.1977, -105.502
6.52277, 64, -11.2023, -14.3818, 33.0049, 38.4907, 83.3362, -104.824
6.52934, 65, -10.5463, -14.1616, 32.6497, 38.0978, 83.4351, -104.37
6.53808, 65, -9.87864, -13.9343, 32.288, 37.686, 83.5406, -103.914
6.54521, 66, -9.54085, -13.818, 32.105, 37.4727, 83.6525, -103.456
6.55148, 66, -8.8593, -13.58, 31.7347, 37.0322, 83.7112, -103.226
6.5596, 67, -8.17232, -13.3344, 31.3576, 36.5724, 83.8337, -102.765
6.56756, 67, -7.47762, -13.0817, 30.9731, 36.0951, 83.9632, -102.301
6.57555, 68, -6.77352, -12.8213, 30.5828, 35.6013, 84.0998, -101.834
6.58547, 68, -5.7043, -12.4189, 29.9906, 34.8358, 84.3162, -101.131
6.59461, 69, -4.98602, -12.1436, 29.5919, 34.3111, 84.4671, -100.66
6.59955, 69, -4.62505, -12.0034, 29.3916, 34.045, 84.5443, -100.424
6.60754, 70, -3.89806, -11.7185, 28.9917, 33.507, 84.7016, -99.9508
6.61557, 70, -3.16392, -11.426, 28.5932, 32.9585, 84.8629, -99.4768
6.62606, 71, -2.05113, -10.9721, 27.9964, 32.1144, 85.1144, -98.7649
6.63476, 71, -1.30094, -10.6616, 27.5966, 31.5342, 85.2918, -98.2885
6.64208, 72, -0.544624, -10.3457, 27.1943, 30.9372, 85.4789, -97.8101
6.64751, 72, -0.164455, -10.186, 26.9923, 30.632, 85.576, -97.5701
6.65646, 73, 0.59951, -9.8616, 26.5861, 30.0116, 85.7772, -97.0882
6.66352, 73, 1.36783, -9.52987, 26.1788, 29.3793, 85.9865, -96.6052
6.67198, 74, 2.14013, -9.19209, 25.7717, 28.7372, 86.204, -96.1208
6.67952, 74, 2.91526, -8.84881, 25.3673, 28.0876, 86.4286, -95.6348
6.68785, 75, 3.69231, -8.49948, 24.968, 27.4315, 86.6595, -95.1474
6.69906, 75, 4.47165, -7.96269, 24.3776, 26.4407, 87.0163, -94.4139
6.70491, 76, 5.25342, -7.78087, 24.1833, 26.1101, 87.1382, -94.1688
6.7125, 76, 6.03664, -7.41308, 23.7982, 25.4466, 87.3865, -93.6766
6.71964, 77, 6.82053, -7.03957, 23.4182, 24.7828, 87.6415, -93.1826
6.74115, 78, 8.78867, -6.06659, 22.4823, 23.1157, 88.3187, -91.9391
6.74371, 78, 9.18362, -5.86489, 22.2979, 22.7785, 88.4627, -91.6882
6.75627, 79, 10.3708, -5.24717, 21.7486, 21.7566, 88.9154, -90.9287
6.75767, 79, 10.3708, -5.24717, 21.7486, 21.7566, 88.9154, -90.9287
6.75984, 79, 10.7671, -5.03761, 21.5669, 21.413, 89.0732, -90.6727
6.76832, 80, 11.5588, -4.61127, 21.2054, 20.7236, 89.3984, -90.1566
6.77544, 80, 12.3476, -4.17425, 20.8483, 20.0319, 89.7347, -89.6343
6.78376, 80, 13.1299, -3.72744, 20.4958, 19.3459, 90.0808, -89.105
6.79244, 81, 13.9061, -3.27405, 20.1496, 18.6703, 90.4347, -88.5703
6.7997, 82, 14.6752, -2.81443, 19.8109, 18.0093, 90.7946, -88.0314
6.80754, 82, 15.4363, -2.34671, 19.4829, 17.3645, 91.1584, -87.4902
6.81542, 82, 16.1874, -1.87146, 19.165, 16.738, 91.5259, -86.9466
6.82337, 83, 16.9258, -1.39028, 18.8576, 16.132, 91.8966, -86.4022
6.83146, 83, 17.6507, -0.90413, 18.5595, 15.5456, 92.2716, -85.8577
6.84021, 84, 18.3601, -0.414304, 18.271, 14.9793, 92.6516, -85.3154
6.84746, 84, 19.0519, 0.0786109, 17.9902, 14.4333, 93.0382, -84.7743
6.8564, 85, 19.7249, 0.576479, 17.7155, 13.9072, 93.4325, -84.2357
6.86354, 85, 20.379, 1.07907, 17.4473, 13.4009, 93.8344, -83.7002
6.87257, 86, 21.0154, 1.58563, 17.1851, 12.9149, 94.2422, -83.1679
6.8797, 86, 21.6368, 2.0974, 16.93, 12.4481, 94.6556, -82.6363
6.88869, 86, 22.2457, 2.61714, 16.6812, 12.0007, 95.0753, -82.1033
6.89596, 87, 22.8438, 3.14697, 16.437, 11.5717, 95.5021, -81.5668
6.90476, 87, 23.4324, 3.68563, 16.1968, 11.1596, 95.9364, -81.0256
6.91189, 88, 24.0106, 4.23055, 15.959, 10.7628, 96.3779, -80.4759
6.9208, 88, 24.5777, 4.7834, 15.7246, 10.3817, 96.8258, -79.9166
6.92793, 89, 24.8573, 5.06394, 15.4958, 10.0157, 97.2801, -79.3457
6.93672, 89, 25.4098, 5.63441, 15.3829, 9.66643, 97.7393, -78.7634
6.94424, 90, 26.2304, 6.51167, 15.05, 9.3329, 98.2027, -78.1675
6.95135, 90, 26.5013, 6.80923, 14.9416, 9.17222, 98.4361, -77.8642
6.96022, 91, 27.0355, 7.41112, 14.729, 8.71612, 99.1445, -76.9336
6.96753, 91, 27.5573, 8.02279, 14.5216, 8.57288, 99.3836, -76.6174
6.97658, 92, 28.3212, 8.95972, 14.2182, 8.17251, 100.11, -75.6495
6.98335, 92, 28.5723, 9.27715, 14.119, 8.04921, 100.355, -75.3214
6.99138, 93, 29.069, 9.9188, 13.9238, 7.81831, 100.85, -74.6592
6.99936, 93, 29.5548, 10.5679, 13.7336, 7.60925, 101.347, -73.9894
7.00737, 94, 30.0274, 11.2232, 13.5505, 7.42304, 101.844, -73.3116
7.01773, 94, 30.7085, 12.2141, 13.2886, 7.18767, 102.588, -72.2849
7.02339, 95, 30.9286, 12.5459, 13.2047, 7.12105, 102.835, -71.9403
7.03371, 95, 31.5683, 13.5451, 12.9647, 6.95704, 103.569, -70.8971
7.03937, 96, 31.7747, 13.8793, 12.8883, 6.91379, 103.812, -70.5465
7.04735, 96, 32.1753, 14.5485, 12.7402, 6.846, 104.296, -69.8425
7.05694, 97, 32.5591, 15.2176, 12.5978, 6.78682, 105.015, -68.7745
7.06341, 97, 32.9265, 15.8847, 12.4621, 6.77744, 105.251, -68.4161
7.07297, 98, 33.2782, 16.5479, 12.3346, 6.77463, 105.72, -67.6992
7.08035, 98, 33.6156, 17.2058, 12.2162, 6.79367, 106.179, -66.9809
7.08738, 99, 33.9383, 17.8562, 12.1076, 6.83229, 106.626, -66.2629
7.09536, 99, 34.2469, 18.498, 12.0092, 6.89097, 107.058, -65.5498
7.10333, 100, 34.5432, 19.1297, 11.9213, 6.96836, 107.475, -64.8421
7.11142, 100, 34.8283, 19.7516, 11.8435, 7.06272, 107.876, -64.1401
7.11957, 101, 35.1004, 20.3621, 11.7747, 7.17346, 108.26, -63.4475
7.12737, 101, 35.3584, 20.959, 11.7136, 7.29804, 108.629, -62.7649
7.13546, 101, 35.6031, 21.5419, 11.6603, 7.43474, 108.982, -62.0917
7.14334, 102, 35.8349, 22.1098, 11.6144, 7.58093, 109.319, -61.4314
7.15135, 102, 36.0539, 22.6629, 11.5756, 7.73449, 109.642, -60.7851
7.15941, 103, 36.2624, 23.2008, 11.5439, 7.89389, 109.95, -60.1522
7.16735, 103, 36.4634, 23.7234, 11.5196, 8.0586, 110.242, -59.5335
7.17537, 103, 36.6587, 24.2322, 11.5038, 8.22961, 110.518, -58.9293
7.18341, 104, 36.849, 24.7279, 11.4958, 8.40786, 110.777, -58.337
7.19136, 104, 37.0346, 25.2106, 11.4942, 8.595, 111.018, -57.7538
7.19935, 104, 37.2155, 25.6807, 11.4986, 8.79132, 111.24, -57.1787
7.20752, 104, 37.3877, 26.1372, 11.5084, 8.99624, 111.445, -56.6114
7.21536, 104, 37.5494, 26.5804, 11.5217, 9.20919, 111.635, -56.0512
7.22337, 104, 37.7032, 27.0104, 11.5379, 9.4272, 111.81, -55.5
7.23142, 104, 37.8531, 27.4282, 11.5565, 9.64777, 111.975, -54.9614
7.23934, 104, 38.0016, 27.8323, 11.5764, 9.86813, 112.131, -54.4394
7.24737, 104, 38.1478, 28.2224, 11.5965, 10.0855, 112.28, -53.9363
7.25542, 104, 38.2898, 28.5985, 11.6164, 10.2989, 112.42, -53.4538
7.26335, 104, 38.4263, 28.9602, 11.6352, 10.5059, 112.553, -52.9946
7.27141, 104, 38.5558, 29.3052, 11.6532, 10.7059, 112.678, -52.559
7.27949, 104, 38.6778, 29.6328, 11.6704, 10.8977, 112.796, -52.1486
7.28744, 104, 38.7917, 29.9413, 11.6861, 11.0809, 112.907, -51.7628
7.29554, 104, 38.8977, 30.2315, 11.7009, 11.2544, 113.009, -51.4015
7.30346, 104, 38.9961, 30.5027, 11.7147, 11.4181, 113.104, -51.066
7.31145, 104, 39.0865, 30.7541, 11.7271, 11.5712, 113.192, -50.7559
7.31953, 104, 39.1688, 30.9861, 11.7383, 11.7133, 113.272, -50.4708
7.32735, 104, 39.2427, 31.1982, 11.7486, 11.8439, 113.345, -50.2111
7.33545, 104, 39.3082, 31.3903, 11.7582, 11.9632, 113.41, -49.9764
7.3434, 104, 39.3659, 31.5633, 11.7667, 12.0704, 113.469, -49.7672
7.35141, 104, 39.4167, 31.7168, 11.7741, 12.1652, 113.52, -49.583
7.35966, 104, 39.4611, 31.8511, 11.7808, 12.2484, 113.564, -49.4236
7.36773, 104, 39.4996, 31.9678, 11.787, 12.3188, 113.602, -49.2882
7.37564, 104, 39.5319, 32.0675, 11.7924, 12.3781, 113.633, -49.1766
7.3838, 104, 39.5584, 32.1511, 11.7972, 12.4252, 113.657, -49.0863
7.39178, 104, 39.5801, 32.2201, 11.8016, 12.4617, 113.676, -49.016
7.39988, 104, 39.5975, 32.2763, 11.8055, 12.4896, 113.69, -48.9639
7.40845, 104, 39.6112, 32.3211, 11.8091, 12.5099, 113.7, -48.9267
7.41621, 104, 39.6219, 32.3557, 11.8123, 12.524, 113.706, -48.9015
7.42391, 104, 39.6298, 32.3814, 11.8152, 12.5333, 113.71, -48.8857
7.43245, 104, 39.6352, 32.4006, 11.8177, 12.539, 113.712, -48.8766
7.43997, 104, 39.6371, 32.4081, 11.8188, 12.542, 113.714, -48.8719
7.44734, 104, 39.6396, 32.4193, 11.8205, 12.5429, 113.714, -48.8706
7.45651, 105, 39.6413, 32.4289, 11.8224, 12.5443, 113.714, -48.8688
7.46338, 105, 39.6414, 32.4309, 11.8228, 12.5445, 113.714, -48.8686
7.47143, 105, 39.6409, 32.4339, 11.8237, 12.5448, 113.714, -48.8684
7.47937, 105, 39.64, 32.4361, 11.8245, 12.545, 113.714, -48.8684
7.48735, 105, 39.6389, 32.4377, 11.8252, 12.545, 113.714, -48.8685
7.49534, 105, 39.6375, 32.4391, 11.8258, 12.5451, 113.714, -48.8686
7.50337, 105, 39.6363, 32.4404, 11.8263, 12.5452, 113.714, -48.8688
7.5129, 105, 39.6353, 32.4422, 11.8271, 12.5452, 113.714, -48.8693
7.52119, 105, 39.6349, 32.4433, 11.8278, 12.5451, 113.714, -48.8696
7.52739, 105, 39.6348, 32.4438, 11.828, 12.5452, 113.714, -48.8697
7.53696, 105, 39.6345, 32.4453, 11.8288, 12.5451, 113.714, -48.8701
7.54531, 105, 39.6342, 32.4459, 11.8292, 12.5451, 113.714, -48.8703
7.55138, 105, 39.634, 32.4462, 11.8293, 12.5451, 113.714, -48.8705
7.56111, 105, 39.6337, 32.4468, 11.8297, 12.5451, 113.714, -48.8707
7.56733, 105, 39.6334, 32.4468, 11.8299, 12.5451, 113.714, -48.8709
7.57635, 105, 39.6332, 32.447, 11.8301, 12.5451, 113.714, -48.871
