hehonglu123/Motion-Primitive-Planning/ILC/recorded_data/realrobot/from_NX/iteration_32/run_1.csv
timestamp, cmd_num, J1, J2, J3, J4, J5, J6
0.001253, -1, 39.6292, 32.447, 11.8316, 12.5436, 113.713, -48.8735
0.004871, -1, 39.6292, 32.447, 11.8316, 12.5436, 113.713, -48.8735
0.007734, -1, 39.6292, 32.447, 11.8316, 12.5437, 113.713, -48.8735
0.029927, -1, 39.6292, 32.447, 11.8316, 12.5436, 113.713, -48.8736
0.031313, -1, 39.6292, 32.447, 11.8316, 12.5436, 113.713, -48.8736
0.034488, -1, 39.6292, 32.447, 11.8316, 12.5436, 113.713, -48.8736
0.039683, -1, 39.6292, 32.447, 11.8316, 12.5436, 113.713, -48.8736
0.184878, -1, 38.5876, 31.9205, 12.0278, 12.5511, 113.184, -50.2282
0.187566, -1, 38.5065, 31.878, 12.0465, 12.5523, 113.137, -50.347
0.188826, -1, 38.5065, 31.878, 12.0465, 12.5523, 113.137, -50.347
0.190747, -1, 38.4233, 31.8343, 12.0656, 12.5535, 113.089, -50.4683
0.192094, -1, 38.4233, 31.8343, 12.0656, 12.5535, 113.089, -50.4683
0.193502, -1, 38.4233, 31.8343, 12.0656, 12.5535, 113.089, -50.4683
0.195743, -1, 38.338, 31.7897, 12.0849, 12.5547, 113.04, -50.5916
0.199676, -1, 38.251, 31.7441, 12.1044, 12.5559, 112.991, -50.7167
0.200925, -1, 38.251, 31.7441, 12.1044, 12.5559, 112.991, -50.7167
0.202869, -1, 38.1624, 31.6978, 12.1239, 12.5571, 112.941, -50.8428
0.204237, -1, 38.1624, 31.6978, 12.1239, 12.5571, 112.941, -50.8428
0.205547, -1, 38.1624, 31.6978, 12.1239, 12.5571, 112.941, -50.8428
0.207653, -1, 38.0725, 31.6509, 12.1434, 12.5583, 112.891, -50.9699
0.208884, -1, 38.0725, 31.6509, 12.1434, 12.5583, 112.891, -50.9699
0.211506, -1, 37.9813, 31.6035, 12.1629, 12.5596, 112.84, -51.0979
0.213404, -1, 37.9813, 31.6035, 12.1629, 12.5596, 112.84, -51.0979
0.21549, -1, 37.889, 31.5555, 12.1823, 12.5608, 112.79, -51.2266
0.216758, -1, 37.889, 31.5555, 12.1823, 12.5608, 112.79, -51.2266
0.218682, -1, 37.889, 31.5555, 12.1823, 12.562, 112.739, -51.3556
0.220126, -1, 37.7956, 31.5072, 12.2017, 12.562, 112.739, -51.3556
0.221361, -1, 37.7956, 31.5072, 12.2017, 12.562, 112.739, -51.3556
0.224603, -1, 37.7014, 31.4587, 12.2211, 12.5632, 112.688, -51.485
0.227707, -1, 37.6065, 31.4099, 12.2405, 12.5645, 112.636, -51.6147
0.231614, -1, 37.5111, 31.361, 12.2599, 12.5657, 112.585, -51.7445
0.239641, -1, 37.3195, 31.263, 12.2987, 12.5682, 112.483, -52.0041
0.248632, -1, 37.1274, 31.1651, 12.3375, 12.5706, 112.38, -52.2638
0.2557, -1, 36.9351, 31.0673, 12.3762, 12.5732, 112.277, -52.5239
0.263777, -1, 36.743, 30.9695, 12.415, 12.5758, 112.174, -52.7842
0.272514, -1, 36.5514, 30.8717, 12.4539, 12.5783, 112.071, -53.0445
0.279724, -1, 36.3597, 30.774, 12.4928, 12.581, 111.968, -53.3049
0.287716, -1, 36.1682, 30.6762, 12.5316, 12.5835, 111.865, -53.5653
0.296523, -1, 35.9766, 30.5783, 12.5705, 12.5861, 111.762, -53.8259
0.303674, -1, 35.7851, 30.4803, 12.6094, 12.5887, 111.659, -54.0865
0.311697, -1, 35.5933, 30.3823, 12.6483, 12.5911, 111.556, -54.3467
0.320561, -1, 35.4012, 30.2841, 12.6871, 12.5938, 111.453, -54.6069
0.327766, -1, 35.2089, 30.1858, 12.7259, 12.5964, 111.35, -54.8676
0.335849, -1, 35.0165, 30.0875, 12.7649, 12.599, 111.247, -55.1284
0.344816, -1, 34.8242, 29.989, 12.8038, 12.6016, 111.144, -55.389
0.352056, -1, 34.6319, 29.8905, 12.8425, 12.6041, 111.041, -55.6497
0.358626, -1, 34.5357, 29.8412, 12.862, 12.6054, 110.989, -55.7801
0.368073, -1, 34.2476, 29.6936, 12.9204, 12.6093, 110.835, -56.1716
0.376206, -1, 34.0556, 29.5954, 12.9593, 12.6118, 110.732, -56.4324
0.38421, -1, 33.8639, 29.497, 12.9983, 12.6145, 110.629, -56.6931
0.392184, -1, 33.6721, 29.3987, 13.0372, 12.6172, 110.526, -56.9539
0.398629, -1, 33.5762, 29.3495, 13.0566, 12.6185, 110.474, -57.0843
0.408228, -1, 33.384, 29.2019, 13.1151, 12.6223, 110.319, -57.4761
0.416209, -1, 33.1914, 29.1526, 13.1345, 12.6236, 110.216, -57.737
0.424342, -1, 32.9987, 29.0539, 13.1733, 12.6263, 110.113, -57.9981
0.431623, -1, 32.8057, 28.9554, 13.2122, 12.6289, 110.062, -58.1287
0.439606, -1, 32.6124, 28.8567, 13.2512, 12.6316, 109.959, -58.3901
0.446631, -1, 32.4189, 28.758, 13.29, 12.6343, 109.855, -58.6513
0.455596, -1, 32.225, 28.6593, 13.3289, 12.6369, 109.753, -58.9122
0.463616, -1, 32.0309, 28.5606, 13.3678, 12.6396, 109.649, -59.1732
0.470608, -1, 31.8371, 28.4618, 13.4067, 12.6423, 109.546, -59.4346
0.47965, -1, 31.6435, 28.363, 13.4458, 12.645, 109.443, -59.696
0.487658, -1, 31.45, 28.2643, 13.4848, 12.6479, 109.34, -59.9571
0.495608, -1, 31.2569, 28.1658, 13.5237, 12.6507, 109.237, -60.2184
0.503605, -1, 31.0643, 28.0673, 13.5628, 12.6535, 109.134, -60.48
0.635248, -1, 27.8773, 26.4378, 14.206, 12.697, 107.43, -64.7962
0.638015, -1, 27.8773, 26.4378, 14.2255, 12.6982, 107.378, -64.9272
0.639509, -1, 27.7809, 26.3883, 14.2255, 12.6982, 107.378, -64.9272
0.640701, -1, 27.7809, 26.3883, 14.2255, 12.6982, 107.378, -64.9272
0.642732, -1, 27.6845, 26.3389, 14.245, 12.6995, 107.327, -65.0582
0.643945, -1, 27.6845, 26.3389, 14.245, 12.6995, 107.327, -65.0582
0.645252, -1, 27.6845, 26.3389, 14.245, 12.6995, 107.327, -65.0582
0.648655, -1, 27.5883, 26.2894, 14.2644, 12.7007, 107.275, -65.189
0.651459, -1, 27.4922, 26.24, 14.2838, 12.7019, 107.223, -65.3198
0.652655, -1, 27.4922, 26.24, 14.2838, 12.7019, 107.223, -65.3198
0.654732, -1, 27.3961, 26.1905, 14.3033, 12.7031, 107.172, -65.4506
0.655966, -1, 27.3961, 26.1905, 14.3033, 12.7031, 107.172, -65.4506
0.657372, -1, 27.3961, 26.1905, 14.3033, 12.7031, 107.172, -65.4506
0.660193, -1, 27.3, 26.1409, 14.3229, 12.7043, 107.12, -65.5814
0.661489, -1, 27.3, 26.1409, 14.3229, 12.7043, 107.12, -65.5814
0.664395, -1, 27.2038, 26.0914, 14.3424, 12.7055, 107.068, -65.7122
0.666344, -1, 27.1076, 26.0419, 14.3618, 12.7066, 107.017, -65.843
0.667729, -1, 27.1076, 26.0419, 14.3618, 12.7066, 107.017, -65.843
0.669072, -1, 27.1076, 26.0419, 14.3618, 12.7066, 107.017, -65.843
0.671075, -1, 27.0114, 25.9925, 14.3813, 12.7078, 106.965, -65.9738
0.672379, -1, 27.0114, 25.9925, 14.3813, 12.7078, 106.965, -65.9738
0.679618, -1, 26.8187, 25.8937, 14.4202, 12.7101, 106.862, -66.2358
0.687599, -1, 26.6257, 25.7948, 14.4592, 12.7124, 106.758, -66.4974
0.695668, -1, 26.4323, 25.696, 14.4981, 12.7147, 106.655, -66.7592
0.703603, -1, 26.2384, 25.5972, 14.5371, 12.7169, 106.552, -67.021
0.711603, -1, 26.0444, 25.4983, 14.5761, 12.7192, 106.449, -67.283
0.719701, -1, 25.8502, 25.3995, 14.615, 12.7215, 106.346, -67.5447
0.727602, -1, 25.6561, 25.3007, 14.6541, 12.7238, 106.243, -67.8063
0.735673, -1, 25.4621, 25.2019, 14.693, 12.7261, 106.139, -68.0679
0.743633, -1, 25.2684, 25.1033, 14.7319, 12.7284, 106.036, -68.3297
0.751702, -1, 25.0751, 25.0045, 14.771, 12.7307, 105.933, -68.5914
0.759776, -1, 24.8818, 24.9056, 14.81, 12.7331, 105.829, -68.853
0.7677, -1, 24.6889, 24.8068, 14.8489, 12.7355, 105.726, -69.1147
0.775701, -1, 24.4964, 24.7079, 14.8879, 12.7379, 105.623, -69.3765
0.783771, -1, 24.304, 24.609, 14.9269, 12.7402, 105.52, -69.6383
0.791715, -1, 24.1114, 24.5101, 14.9659, 12.7426, 105.416, -69.8997
0.799624, -1, 23.9187, 24.4113, 15.0049, 12.7448, 105.313, -70.1612
0.80793, -1, 23.7257, 24.3125, 15.0438, 12.7474, 105.209, -70.4229
0.815663, -1, 23.5326, 24.2136, 15.0827, 12.7497, 105.106, -70.6848
0.823891, -1, 23.3391, 24.1147, 15.1217, 12.7521, 105.003, -70.9463
0.831829, -1, 23.1454, 24.0159, 15.1606, 12.7545, 104.899, -71.208
0.839782, -1, 22.9515, 23.917, 15.1995, 12.7569, 104.796, -71.4699
0.847956, -1, 22.7575, 23.8182, 15.2385, 12.7593, 104.693, -71.7319
0.855931, -1, 22.5637, 23.7194, 15.2775, 12.7618, 104.589, -71.9934
0.86433, -1, 22.37, 23.6208, 15.3165, 12.7643, 104.486, -72.2548
0.872422, -1, 22.1768, 23.5221, 15.3554, 12.7668, 104.382, -72.5161
0.880108, -1, 21.9837, 23.4233, 15.3943, 12.7694, 104.279, -72.7778
0.888158, -1, 21.7908, 23.3246, 15.4333, 12.772, 104.176, -73.0394
0.89622, -1, 21.5986, 23.2259, 15.4722, 12.7747, 104.073, -73.3005
0.904164, -1, 21.4064, 23.1271, 15.5111, 12.7774, 103.97, -73.5621
0.912166, -1, 21.3102, 23.0777, 15.5502, 12.78, 103.867, -73.8238
0.920452, -1, 21.1178, 22.979, 15.5891, 12.7827, 103.763, -74.0853
0.927597, -1, 20.9254, 22.8804, 15.6085, 12.7841, 103.712, -74.2158
0.936232, -1, 20.733, 22.7818, 15.6475, 12.7868, 103.609, -74.4769
0.943649, -1, 20.5403, 22.6832, 15.6864, 12.7895, 103.506, -74.7381
0.951592, -1, 20.3472, 22.5846, 15.7252, 12.7922, 103.403, -74.9995
0.959608, -1, 20.1535, 22.4858, 15.7642, 12.7949, 103.3, -75.2608
0.967634, -1, 19.9599, 22.3871, 15.8031, 12.7976, 103.197, -75.5219
0.975609, -1, 19.7663, 22.2885, 15.8418, 12.8004, 103.094, -75.7831
0.9826, -1, 19.5727, 22.1899, 15.8807, 12.8031, 102.991, -76.0443
0.991626, -1, 19.3794, 22.0913, 15.9196, 12.8059, 102.887, -76.3055
0.999604, -1, 19.1862, 21.9926, 15.9584, 12.8086, 102.785, -76.5663
1.00766, -1, 18.9935, 21.8939, 15.9974, 12.8114, 102.681, -76.827
1.01568, -1, 18.8009, 21.7952, 16.0362, 12.8141, 102.578, -77.088
1.0236, -1, 18.6088, 21.6965, 16.0749, 12.8168, 102.476, -77.3491
1.03058, -1, 18.417, 21.5979, 16.1139, 12.8195, 102.373, -77.6097
1.03959, -1, 18.2251, 21.4994, 16.1527, 12.8222, 102.27, -77.8705
1.04758, -1, 18.0333, 21.4009, 16.1915, 12.8248, 102.167, -78.1313
1.05658, -1, 17.8415, 21.3026, 16.2305, 12.8273, 102.064, -78.3922
1.0636, -1, 17.6494, 21.2042, 16.2694, 12.8298, 101.961, -78.6527
1.07259, -1, 17.457, 21.1059, 16.3082, 12.8323, 101.858, -78.9131
1.07966, -1, 17.2642, 21.0076, 16.347, 12.8348, 101.755, -79.1737
1.0876, -1, 17.0711, 20.9094, 16.3858, 12.8372, 101.652, -79.4344
1.0956, -1, 16.8781, 20.8111, 16.4246, 12.8396, 101.549, -79.6949
1.10359, -1, 16.685, 20.7129, 16.4634, 12.842, 101.446, -79.9555
1.11159, -1, 16.492, 20.6147, 16.5021, 12.8443, 101.344, -80.2159
1.11979, -1, 16.2992, 20.5164, 16.5408, 12.8466, 101.241, -80.4766
1.12761, -1, 16.1068, 20.418, 16.5796, 12.849, 101.139, -80.7373
1.13558, -1, 15.9148, 20.3196, 16.6183, 12.8513, 101.036, -80.9974
1.14369, -1, 15.7231, 20.221, 16.657, 12.8536, 100.933, -81.2574
1.15161, -1, 15.5318, 20.1226, 16.6956, 12.8559, 100.831, -81.5175
1.15959, -1, 15.3406, 20.0243, 16.7343, 12.8583, 100.728, -81.7777
1.16766, -1, 15.1495, 19.9261, 16.7731, 12.8606, 100.625, -82.0375
1.17566, -1, 14.9583, 19.8279, 16.8118, 12.8628, 100.523, -82.2975
1.18359, -1, 14.767, 19.7297, 16.8505, 12.8651, 100.42, -82.5574
1.19167, -1, 14.5755, 19.6316, 16.8892, 12.8674, 100.318, -82.8175
1.19959, -1, 14.3836, 19.5335, 16.9279, 12.8697, 100.215, -83.0771
1.20758, -1, 14.1914, 19.4354, 16.9666, 12.872, 100.113, -83.3365
1.21566, -1, 13.999, 19.3374, 17.0053, 12.8742, 100.01, -83.5961
1.22359, -1, 13.8068, 19.2396, 17.0438, 12.8766, 99.9076, -83.8558
1.23165, -1, 13.6143, 19.1418, 17.0825, 12.8788, 99.8051, -84.1154
1.23982, -1, 13.4219, 19.0438, 17.1213, 12.8811, 99.7025, -84.3746
1.24761, -1, 13.23, 18.9459, 17.1597, 12.8834, 99.6004, -84.6338
1.25575, -1, 13.0383, 18.8481, 17.1983, 12.8858, 99.4979, -84.8933
1.26445, -1, 12.847, 18.7501, 17.237, 12.8882, 99.3954, -85.1528
1.27168, -1, 12.656, 18.6521, 17.2755, 12.8905, 99.2933, -85.4118
1.27976, -1, 12.4654, 18.5543, 17.3141, 12.893, 99.1908, -85.6705
1.2889, -1, 12.2752, 18.4566, 17.3526, 12.8954, 99.0886, -85.9295
1.29571, -1, 12.0849, 18.3588, 17.3911, 12.8979, 98.9866, -86.1885
1.30433, -1, 11.8945, 18.2612, 17.4297, 12.9002, 98.8844, -86.4473
1.31163, -1, 11.704, 18.1636, 17.4683, 12.9026, 98.7825, -86.7059
1.31983, -1, 11.5132, 18.0659, 17.5068, 12.9051, 98.6808, -86.9645
1.32852, -1, 11.3222, 17.9683, 17.5454, 12.9075, 98.5788, -87.2232
1.33572, -1, 11.131, 17.8708, 17.5839, 12.91, 98.4769, -87.4816
1.34385, -1, 10.9396, 17.7734, 17.6224, 12.9124, 98.3751, -87.7398
1.35273, -1, 10.748, 17.676, 17.6608, 12.9149, 98.2729, -87.998
1.35993, -1, 10.5564, 17.5784, 17.6992, 12.9174, 98.1711, -88.2564
1.36803, -1, 10.3652, 17.4809, 17.7376, 12.92, 98.0693, -88.5148
1.3746, -1, 10.2696, 17.4321, 17.7568, 12.9212, 98.0183, -88.6438
1.38416, -1, 9.98352, 17.2857, 17.8144, 12.9252, 97.8657, -89.0306
1.39219, -1, 9.7932, 17.1882, 17.8527, 12.9278, 97.7636, -89.2888
1.40101, -1, 9.60326, 17.0907, 17.8911, 12.9305, 97.6617, -89.5471
1.40815, -1, 9.41384, 16.9934, 17.9294, 12.9333, 97.5599, -89.8047
1.41621, -1, 9.22453, 16.896, 17.9677, 12.9359, 97.4579, -90.0624
1.42509, -1, 9.12983, 16.8474, 17.9869, 12.9372, 97.4069, -90.3198
1.43063, -1, 8.94041, 16.7502, 18.0252, 12.9398, 97.3052, -90.4486
1.44061, -1, 8.65606, 16.6044, 18.0828, 12.9438, 97.1527, -90.835
1.44757, -1, 8.56127, 16.5558, 18.1021, 12.9452, 97.1019, -90.9635
1.45559, -1, 8.37151, 16.4588, 18.1404, 12.9479, 97.0005, -91.2206
1.46365, -1, 8.18123, 16.3617, 18.1786, 12.9506, 96.8989, -91.4778
1.47157, -1, 7.99079, 16.2649, 18.217, 12.9532, 96.7972, -91.735
1.47966, -1, 7.80037, 16.168, 18.2552, 12.9559, 96.6958, -91.9919
1.4876, -1, 7.60979, 16.071, 18.2935, 12.9585, 96.5943, -92.2486
1.49557, -1, 7.41937, 15.974, 18.3318, 12.9611, 96.4929, -92.5054
1.50362, -1, 7.22924, 15.877, 18.3699, 12.9637, 96.3917, -92.7622
1.51157, -1, 7.03941, 15.78, 18.4081, 12.9662, 96.2902, -93.0189
1.51959, -1, 6.84995, 15.683, 18.4464, 12.9688, 96.1889, -93.2753
1.52764, -1, 6.66105, 15.5861, 18.4845, 12.9713, 96.0883, -93.5316
1.5372, -1, 6.37838, 15.4409, 18.5416, 12.9752, 95.9367, -93.9164
1.54357, -1, 6.28428, 15.3925, 18.5607, 12.9764, 95.8861, -94.0446
1.55257, -1, 6.09615, 15.2958, 18.5988, 12.9789, 95.7854, -94.3005
1.55862, -1, 5.90782, 15.1991, 18.637, 12.9812, 95.6842, -94.5563
1.56757, -1, 5.71944, 15.1024, 18.6752, 12.9836, 95.5832, -94.8122
1.57565, -1, 5.53096, 15.0058, 18.7132, 12.9859, 95.4827, -95.0682
1.58357, -1, 5.3422, 14.9093, 18.7513, 12.9882, 95.3818, -95.324
1.59158, -1, 5.15305, 14.8128, 18.7894, 12.9905, 95.2811, -95.5794
1.59958, -1, 4.9637, 14.7165, 18.8274, 12.9928, 95.1807, -95.8347
1.60757, -1, 4.77437, 14.6201, 18.8655, 12.995, 95.0798, -96.0903
1.61564, -1, 4.58488, 14.5237, 18.9035, 12.9972, 94.979, -96.3455
1.62359, -1, 4.39572, 14.4273, 18.9416, 12.9995, 94.8783, -96.6004
1.63159, -1, 4.20681, 14.3309, 18.9795, 13.0016, 94.7774, -96.8553
1.63965, -1, 4.01809, 14.2345, 19.0175, 13.0039, 94.6766, -97.1105
1.64759, -1, 3.83002, 14.1383, 19.0554, 13.0062, 94.5759, -97.3656
1.6556, -1, 3.64246, 14.0422, 19.0933, 13.0084, 94.4751, -97.6203
1.66365, -1, 3.45527, 13.946, 19.1313, 13.0107, 94.3745, -97.8749
1.67157, -1, 3.26828, 13.85, 19.169, 13.0131, 94.2738, -98.1296
1.67958, -1, 3.08123, 13.754, 19.2069, 13.0153, 94.173, -98.3845
1.68764, -1, 2.89428, 13.6579, 19.2449, 13.0176, 94.0725, -98.6388
1.69557, -1, 2.70722, 13.5619, 19.2828, 13.0198, 93.9719, -98.893
1.70356, -1, 2.51989, 13.466, 19.3207, 13.022, 93.8714, -99.1471
1.71165, -1, 2.33246, 13.3701, 19.3584, 13.0243, 93.7711, -99.4013
1.71958, -1, 2.14459, 13.2743, 19.3962, 13.0266, 93.6707, -99.6554
1.72757, -1, 1.95649, 13.1785, 19.4341, 13.0288, 93.5705, -99.9089
1.73571, -1, 1.76844, 13.0826, 19.4719, 13.0311, 93.4707, -100.163
1.74363, -1, 1.58024, 12.9868, 19.5096, 13.0333, 93.3705, -100.416
1.7516, -1, 1.39217, 12.891, 19.5475, 13.0356, 93.2704, -100.67
1.75996, -1, 1.20441, 12.7951, 19.5852, 13.038, 93.1706, -100.923
1.76766, -1, 1.01691, 12.6994, 19.6229, 13.0404, 93.0704, -101.176
1.77567, -1, 0.830108, 12.6038, 19.6608, 13.0427, 92.9705, -101.429
1.78406, -1, 0.643745, 12.5082, 19.6984, 13.0451, 92.8709, -101.682
1.79169, -1, 0.457807, 12.4127, 19.736, 13.0475, 92.771, -101.935
1.79975, -1, 0.272149, 12.3174, 19.7737, 13.0499, 92.6712, -102.188
1.80827, -1, 0.0866873, 12.2219, 19.8113, 13.0524, 92.572, -102.441
1.81563, -1, -0.0987263, 12.1266, 19.8489, 13.0549, 92.4723, -102.693
1.82363, -1, -0.284376, 12.0314, 19.8866, 13.0573, 92.3727, -102.946
1.83243, -1, -0.470347, 11.9362, 19.9242, 13.0597, 92.2734, -103.198
1.84005, -1, -0.656547, 11.8411, 19.9617, 13.0622, 92.1739, -103.45
1.84656, -1, -0.749704, 11.7937, 19.9805, 13.0634, 92.1241, -103.576
1.85672, -1, -1.0296, 11.6511, 20.0367, 13.0672, 91.9751, -103.954
1.86392, -1, -1.21641, 11.556, 20.0742, 13.0698, 91.8757, -104.206
1.87205, -1, -1.4034, 11.4609, 20.1118, 13.0723, 91.7765, -104.457
1.87857, -1, -1.4968, 11.4134, 20.1306, 13.0735, 91.727, -104.583
1.88821, -1, -1.77649, 11.2707, 20.1866, 13.0774, 91.5781, -104.961
1.89633, -1, -1.96255, 11.1757, 20.2241, 13.08, 91.479, -105.212
1.90495, -1, -2.1479, 11.0808, 20.2615, 13.0827, 91.3798, -105.463
1.91214, -1, -2.33281, 10.9858, 20.2988, 13.0854, 91.2806, -105.714
1.9202, -1, -2.42522, 10.891, 20.3363, 13.0881, 91.1816, -105.965
1.92899, -1, -2.60971, 10.8437, 20.3549, 13.0894, 91.1321, -106.09
1.93555, -1, -2.79365, 10.7489, 20.3921, 13.0921, 91.0329, -106.341
1.94361, -1, -2.97758, 10.6542, 20.4295, 13.0947, 90.9338, -106.592
1.95156, -1, -3.16166, 10.5595, 20.4668, 13.0972, 90.8351, -106.842
1.95958, -1, -3.34602, 10.4649, 20.504, 13.0998, 90.7361, -107.093
1.96759, -1, -3.53062, 10.3704, 20.5413, 13.1024, 90.6371, -107.344
1.97556, -1, -3.71541, 10.276, 20.5786, 13.105, 90.5385, -107.594
1.98362, -1, -3.90042, 10.1817, 20.6158, 13.1074, 90.4395, -107.844
1.99159, -1, -4.08565, 10.0873, 20.6531, 13.1099, 90.3408, -108.093
1.99956, -1, -4.27121, 9.99298, 20.6902, 13.1123, 90.2424, -108.344
2.00761, -1, -4.45679, 9.89864, 20.7274, 13.1146, 90.1436, -108.593
2.01557, -1, -4.64207, 9.80431, 20.7647, 13.117, 90.0452, -108.843
2.02373, -1, -4.82703, 9.71014, 20.8019, 13.1194, 89.9469, -109.092
2.03058, -1, -5.0116, 9.61605, 20.8389, 13.1218, 89.8482, -109.342
2.03957, -1, -5.1954, 9.52201, 20.8761, 13.1242, 89.7498, -109.591
2.04763, -1, -5.37875, 9.42798, 20.9132, 13.1265, 89.6516, -109.84
2.05555, -1, -5.56174, 9.3341, 20.9503, 13.1288, 89.5531, -110.089
2.06458, -1, -5.74431, 9.24016, 20.9875, 13.1311, 89.4548, -110.337
2.07161, -1, -5.92664, 9.14623, 21.0245, 13.1334, 89.3569, -110.586
2.0806, -1, -6.10905, 9.05238, 21.0615, 13.1356, 89.2586, -110.835
2.08758, -1, -6.29176, 8.95856, 21.0986, 13.1379, 89.1606, -111.083
2.09563, -1, -6.47472, 8.86492, 21.1355, 13.1402, 89.0629, -111.332
2.10355, -1, -6.65784, 8.77131, 21.1723, 13.1423, 88.9648, -111.58
2.11157, -1, -6.8414, 8.67768, 21.2093, 13.1444, 88.8668, -111.828
2.11962, -1, -7.02523, 8.58408, 21.2462, 13.1466, 88.7691, -112.076
2.12759, -1, -7.20935, 8.49056, 21.2831, 13.1487, 88.6711, -112.324
2.13558, -1, -7.3935, 8.39692, 21.3201, 13.1508, 88.5733, -112.571
2.14362, -1, -7.57736, 8.30329, 21.3569, 13.1529, 88.4758, -112.819
2.15158, -1, -7.76085, 8.20985, 21.3936, 13.155, 88.3782, -113.066
2.15959, -1, -7.94393, 8.11646, 21.4305, 13.1573, 88.2808, -113.313
2.16763, -1, -8.1266, 8.02311, 21.4674, 13.1596, 88.1836, -113.561
2.17555, -1, -8.30845, 7.92984, 21.504, 13.1618, 88.0861, -113.808
2.18356, -1, -8.48984, 7.83656, 21.5409, 13.1641, 87.9887, -114.055
2.19162, -1, -8.67088, 7.74336, 21.5778, 13.1664, 87.8914, -114.301
2.19955, -1, -8.85162, 7.65019, 21.6145, 13.1687, 87.7938, -114.548
2.20758, -1, -9.0324, 7.5571, 21.6512, 13.1709, 87.6964, -114.794
2.21562, -1, -9.21344, 7.46407, 21.6879, 13.1732, 87.5994, -115.041
2.22356, -1, -9.39471, 7.37126, 21.7245, 13.1753, 87.5022, -115.287
2.23166, -1, -9.57633, 7.27842, 21.7612, 13.1775, 87.405, -115.533
2.23955, -1, -9.7582, 7.18562, 21.7979, 13.1798, 87.308, -115.779
2.24757, -1, -9.94055, 7.09287, 21.8344, 13.182, 87.2107, -116.025
2.25642, -1, -10.123, 7.00016, 21.871, 13.1843, 87.1135, -116.271
2.26373, -1, -10.3057, 6.90737, 21.9076, 13.1865, 87.0164, -116.517
2.27165, -1, -10.4883, 6.8146, 21.9441, 13.1887, 86.9192, -116.762
2.28044, -1, -10.6706, 6.7219, 21.9807, 13.1909, 86.8222, -117.008
2.28766, -1, -10.8524, 6.62932, 22.0171, 13.1933, 86.7255, -117.253
2.29568, -1, -11.0336, 6.53671, 22.0535, 13.1957, 86.6285, -117.498
2.30453, -1, -11.2141, 6.44416, 22.0901, 13.1981, 86.5318, -117.743
2.31155, -1, -11.394, 6.35171, 22.1266, 13.2006, 86.4353, -117.988
2.31963, -1, -11.5737, 6.25926, 22.163, 13.2029, 86.3384, -118.233
2.32852, -1, -11.7531, 6.1668, 22.1995, 13.2054, 86.2418, -118.478
2.33564, -1, -11.9323, 6.07449, 22.236, 13.2079, 86.1453, -118.722
2.34385, -1, -12.1116, 5.98226, 22.2723, 13.2104, 86.0486, -118.966
2.35265, -1, -12.291, 5.89021, 22.3088, 13.2129, 85.9522, -119.21
2.35984, -1, -12.4709, 5.79824, 22.3451, 13.2154, 85.856, -119.455
2.36802, -1, -12.6511, 5.7062, 22.3813, 13.2178, 85.7596, -119.699
2.37596, -1, -12.8317, 5.61425, 22.4177, 13.2203, 85.6635, -119.943
2.38261, -1, -12.9222, 5.56832, 22.4359, 13.2215, 85.6156, -120.064
2.39223, -1, -13.1939, 5.43039, 22.4902, 13.2252, 85.4716, -120.43
2.40281, -1, -13.3752, 5.33837, 22.5265, 13.2276, 85.3756, -120.674
2.40814, -1, -13.556, 5.24646, 22.5628, 13.2301, 85.28, -120.917
2.41617, -1, -13.6462, 5.1546, 22.5988, 13.2326, 85.184, -121.16
2.42501, -1, -13.9164, 5.06274, 22.635, 13.2352, 85.0882, -121.403
2.43207, -1, -14.0061, 5.01683, 22.6531, 13.2365, 85.0406, -121.524
2.43954, -1, -14.1848, 4.92511, 22.6893, 13.2391, 84.945, -121.767
2.44759, -1, -14.3632, 4.8334, 22.7253, 13.2417, 84.8493, -122.01
2.45554, -1, -14.5411, 4.74177, 22.7616, 13.2442, 84.7539, -122.252
2.46364, -1, -14.7188, 4.6502, 22.7978, 13.2467, 84.6582, -122.495
2.47162, -1, -14.8964, 4.5587, 22.8338, 13.2492, 84.5624, -122.737
2.47954, -1, -15.0741, 4.46724, 22.87, 13.2517, 84.4667, -122.98
2.48755, -1, -15.2521, 4.376, 22.9062, 13.2541, 84.3711, -123.222
2.49562, -1, -15.4304, 4.28467, 22.9422, 13.2565, 84.2754, -123.463
2.50361, -1, -15.6094, 4.19335, 22.9782, 13.2589, 84.1799, -123.705
2.51154, -1, -15.7885, 4.1021, 23.0142, 13.2612, 84.0843, -123.947
2.51959, -1, -15.9678, 4.01087, 23.0501, 13.2634, 83.9889, -124.188
2.52754, -1, -16.1474, 3.91959, 23.0862, 13.2655, 83.8935, -124.43
2.53554, -1, -16.3272, 3.82833, 23.1222, 13.2677, 83.798, -124.671
2.54367, -1, -16.5066, 3.73712, 23.158, 13.2698, 83.7026, -124.913
2.5516, -1, -16.6856, 3.646, 23.1938, 13.2721, 83.6072, -125.154
2.56054, -1, -16.864, 3.55488, 23.2297, 13.2745, 83.5118, -125.395
2.56754, -1, -17.0417, 3.46383, 23.2655, 13.2767, 83.4165, -125.636
2.57656, -1, -17.2186, 3.37286, 23.3014, 13.2789, 83.3212, -125.876
2.58367, -1, -17.3951, 3.28197, 23.3373, 13.2811, 83.2262, -126.117
2.59154, -1, -17.5714, 3.19115, 23.373, 13.2831, 83.1311, -126.358
2.59956, -1, -17.7474, 3.1005, 23.4089, 13.2853, 83.0363, -126.598
2.6076, -1, -17.9234, 3.00989, 23.4448, 13.2875, 82.9415, -126.838
2.61554, -1, -18.0996, 2.91942, 23.4805, 13.2896, 82.8466, -127.078
2.62361, -1, -18.2761, 2.82905, 23.5163, 13.2917, 82.7519, -127.319
2.63162, -1, -18.4531, 2.73863, 23.5521, 13.2938, 82.6574, -127.558
2.63956, -1, -18.6305, 2.64825, 23.5877, 13.2958, 82.5626, -127.798
2.64756, -1, -18.8082, 2.55795, 23.6234, 13.2979, 82.468, -128.037
2.65563, -1, -18.9862, 2.46752, 23.6591, 13.2999, 82.3737, -128.277
2.66364, -1, -19.1644, 2.37706, 23.6947, 13.3019, 82.2792, -128.516
2.67154, -1, -19.3426, 2.28671, 23.7302, 13.3039, 82.1849, -128.755
2.6796, -1, -19.5203, 2.19635, 23.7659, 13.306, 82.091, -128.994
2.68753, -1, -19.6974, 2.10594, 23.8014, 13.3082, 81.9966, -129.233
2.69554, -1, -19.874, 2.01567, 23.8367, 13.3104, 81.9024, -129.473
2.70367, -1, -20.0498, 1.92541, 23.8723, 13.3126, 81.8085, -129.711
2.71155, -1, -20.225, 1.83519, 23.9079, 13.3148, 81.7143, -129.95
2.71954, -1, -20.3999, 1.74505, 23.9432, 13.317, 81.6203, -130.188
2.72761, -1, -20.5745, 1.65499, 23.9788, 13.3192, 81.5266, -130.426
2.73554, -1, -20.7489, 1.56503, 24.0143, 13.3213, 81.4325, -130.665
2.7436, -1, -20.9235, 1.47516, 24.0497, 13.3235, 81.3388, -130.903
2.75164, -1, -21.0985, 1.38546, 24.0852, 13.3256, 81.2452, -131.141
2.7596, -1, -21.2739, 1.29568, 24.1207, 13.3279, 81.1513, -131.378
2.76771, -1, -21.4495, 1.20599, 24.1559, 13.3301, 81.0574, -131.616
2.77572, -1, -21.6256, 1.11634, 24.1913, 13.3322, 80.9636, -131.854
2.78401, -1, -21.8017, 1.02668, 24.2268, 13.3344, 80.8698, -132.092
2.79171, -1, -21.9781, 0.937082, 24.2621, 13.3366, 80.7759, -132.329
2.79967, -1, -22.1547, 0.847504, 24.2975, 13.3387, 80.6824, -132.566
2.80831, -1, -22.3312, 0.757942, 24.3329, 13.3409, 80.5888, -132.803
2.81568, -1, -22.5073, 0.668474, 24.368, 13.3431, 80.4951, -133.04
2.82364, -1, -22.6829, 0.57895, 24.4032, 13.3455, 80.4015, -133.277
2.83235, -1, -22.858, 0.489515, 24.4385, 13.3479, 80.3079, -133.514
2.83975, -1, -23.0319, 0.400104, 24.4736, 13.3504, 80.2143, -133.751
2.8477, -1, -23.2055, 0.310697, 24.5088, 13.3529, 80.1208, -133.988
2.8567, -1, -23.3789, 0.221356, 24.544, 13.3552, 80.0274, -134.224
2.864, -1, -23.552, 0.132123, 24.5792, 13.3577, 79.934, -134.46
2.87195, -1, -23.7253, 0.0429632, 24.6143, 13.3599, 79.8407, -134.696
2.88071, -1, -23.8986, -0.0461051, 24.6495, 13.3624, 79.7477, -134.933
2.88808, -1, -24.072, -0.135087, 24.6846, 13.3649, 79.6544, -135.169
2.89606, -1, -24.2458, -0.224077, 24.7197, 13.3674, 79.5614, -135.404
2.90506, -1, -24.42, -0.313042, 24.7549, 13.3698, 79.4685, -135.64
2.91215, -1, -24.5944, -0.401898, 24.79, 13.3723, 79.3753, -135.875
2.9201, -1, -24.6817, -0.490799, 24.825, 13.3746, 79.2822, -136.111
2.92888, -1, -24.8566, -0.535247, 24.8426, 13.3758, 79.2358, -136.347
2.9362, -1, -25.0317, -0.624103, 24.8777, 13.3782, 79.0962, -136.582
2.94358, -1, -25.2066, -0.712918, 24.9128, 13.3806, 79.0498, -136.699
2.95153, -1, -25.3812, -0.801648, 24.9478, 13.383, 78.9571, -136.934
2.95957, -1, -25.5553, -0.890511, 24.9829, 13.3854, 78.8645, -137.169
2.96755, -1, -25.7289, -0.979246, 25.0177, 13.3879, 78.7717, -137.404
2.97555, -1, -25.9019, -1.06793, 25.0526, 13.3902, 78.6791, -137.639
2.98359, -1, -26.0744, -1.15669, 25.0877, 13.3927, 78.5869, -137.873
2.99154, -1, -26.2464, -1.24532, 25.1227, 13.3952, 78.4941, -138.108
2.9996, -1, -26.4182, -1.33382, 25.1574, 13.3976, 78.4015, -138.342
3.00655, -1, -26.5901, -1.42225, 25.1924, 13.3999, 78.3093, -138.577
3.01553, -1, -26.762, -1.51055, 25.2274, 13.4021, 78.2167, -138.811
3.02363, -1, -26.9343, -1.59872, 25.2622, 13.4044, 78.1243, -139.045
3.03154, -1, -27.1067, -1.68688, 25.2971, 13.4066, 78.0322, -139.278
3.03952, -1, -27.2793, -1.77509, 25.332, 13.4088, 77.9399, -139.513
3.04759, -1, -27.4521, -1.86316, 25.3667, 13.4109, 77.8479, -139.746
3.05553, -1, -27.6252, -1.95121, 25.4014, 13.4131, 77.756, -139.98
3.06358, -1, -27.7985, -2.0394, 25.4363, 13.4151, 77.6639, -140.213
3.07254, -1, -27.9718, -2.12741, 25.4711, 13.4172, 77.5718, -140.446
3.07953, -1, -28.1451, -2.21542, 25.5058, 13.4193, 77.4798, -140.68
3.08752, -1, -28.3182, -2.30344, 25.5406, 13.4213, 77.3878, -140.913
3.09559, -1, -28.491, -2.39152, 25.5754, 13.4234, 77.2956, -141.146
3.10361, -1, -28.6634, -2.47948, 25.61, 13.4256, 77.2036, -141.379
3.11157, -1, -28.8353, -2.56748, 25.6447, 13.4277, 77.1117, -141.612
3.11952, -1, -29.0063, -2.65547, 25.6794, 13.4299, 77.0197, -141.844
3.12754, -1, -29.1769, -2.74336, 25.7139, 13.4321, 76.9278, -142.077
3.13561, -1, -29.3475, -2.83119, 25.7486, 13.4341, 76.8361, -142.309
3.1436, -1, -29.5182, -2.91892, 25.7833, 13.4362, 76.7442, -142.542
3.15154, -1, -29.689, -3.00653, 25.8178, 13.4382, 76.6523, -142.774
3.15961, -1, -29.86, -3.0941, 25.8523, 13.4403, 76.5606, -143.007
3.16756, -1, -30.031, -3.18159, 25.887, 13.4425, 76.4687, -143.239
3.17577, -1, -30.2019, -3.26914, 25.9215, 13.4444, 76.377, -143.47
3.18357, -1, -30.373, -3.35657, 25.956, 13.4466, 76.2856, -143.702
3.19152, -1, -30.5446, -3.44402, 25.9906, 13.4485, 76.1939, -143.934
3.20071, -1, -30.7164, -3.53158, 26.0251, 13.4506, 76.1025, -144.166
3.20853, -1, -30.8882, -3.6189, 26.0595, 13.4527, 76.0112, -144.397
3.21559, -1, -31.0601, -3.70631, 26.0941, 13.4546, 75.9198, -144.629
3.22359, -1, -31.2317, -3.79368, 26.1285, 13.4567, 75.8284, -144.86
3.23152, -1, -31.4032, -3.88104, 26.1629, 13.4588, 75.7372, -145.092
3.23959, -1, -31.5741, -3.96836, 26.1974, 13.461, 75.6459, -145.323
3.24765, -1, -31.7445, -4.05562, 26.2318, 13.4632, 75.5546, -145.553
3.25556, -1, -31.9145, -4.14296, 26.2661, 13.4653, 75.4635, -145.784
3.2637, -1, -32.0843, -4.2302, 26.3005, 13.4675, 75.3725, -146.015
3.27182, -1, -32.2537, -4.31732, 26.3349, 13.4697, 75.2813, -146.246
3.27965, -1, -32.423, -4.40439, 26.3691, 13.4719, 75.1904, -146.477
3.28769, -1, -32.5926, -4.49135, 26.4035, 13.474, 75.0998, -146.707
3.296, -1, -32.7623, -4.57829, 26.438, 13.4761, 75.0086, -146.938
3.3037, -1, -32.9319, -4.66518, 26.4722, 13.4783, 74.9178, -147.168
3.31171, -1, -33.1017, -4.75211, 26.5064, 13.4805, 74.8274, -147.398
3.32017, -1, -33.2715, -4.83897, 26.5407, 13.4827, 74.7365, -147.628
3.32758, -1, -33.4415, -4.92584, 26.575, 13.4849, 74.646, -147.858
3.3357, -1, -33.6118, -5.01279, 26.6091, 13.4871, 74.5555, -148.088
3.34591, -1, -33.7821, -5.09958, 26.6434, 13.4893, 74.4648, -148.318
3.35253, -1, -33.9524, -5.18634, 26.6776, 13.4916, 74.3743, -148.548
3.35983, -1, -34.1226, -5.27307, 26.7117, 13.4938, 74.2838, -148.777
3.36861, -1, -34.2927, -5.35976, 26.7459, 13.4961, 74.1933, -149.006
3.37597, -1, -34.4628, -5.44641, 26.7802, 13.4984, 74.1026, -149.236
3.38404, -1, -34.6324, -5.53309, 26.8143, 13.5008, 74.0121, -149.465
3.39275, -1, -34.8013, -5.61974, 26.8483, 13.5032, 73.9217, -149.694
3.40011, -1, -34.9699, -5.70632, 26.8826, 13.5056, 73.831, -149.923
3.40846, -1, -35.1382, -5.79278, 26.9166, 13.5081, 73.7406, -150.152
3.41683, -1, -35.3064, -5.8792, 26.9507, 13.5106, 73.6505, -150.381
3.42416, -1, -35.4747, -5.96541, 26.9849, 13.5129, 73.56, -150.61
3.43213, -1, -35.559, -6.00849, 27.0019, 13.5141, 73.5149, -150.839
3.44095, -1, -35.7275, -6.0947, 27.0359, 13.5164, 73.4244, -151.067
3.44752, -1, -35.8961, -6.18084, 27.07, 13.5188, 73.3343, -151.182
3.45552, -1, -36.0646, -6.26694, 27.1041, 13.5212, 73.2438, -151.41
3.46363, -1, -36.2331, -6.35304, 27.1381, 13.5237, 73.1533, -151.639
3.47154, -1, -36.4018, -6.43923, 27.172, 13.526, 73.0631, -151.867
3.47953, -1, -36.5707, -6.52547, 27.206, 13.5284, 72.9725, -152.096
3.48756, -1, -36.7395, -6.61164, 27.24, 13.5307, 72.8824, -152.324
3.49554, -1, -36.9085, -6.69779, 27.2739, 13.533, 72.7924, -152.552
3.50359, -1, -37.0774, -6.78395, 27.3078, 13.5353, 72.7022, -152.78
3.51155, -1, -37.2462, -6.87008, 27.3418, 13.5375, 72.6123, -153.008
3.51952, -1, -37.4148, -6.95606, 27.3756, 13.5398, 72.5225, -153.235
3.52751, -1, -37.583, -7.04212, 27.4096, 13.5421, 72.4326, -153.463
3.53559, -1, -37.7508, -7.12815, 27.4436, 13.5443, 72.3427, -153.691
3.54356, -1, -37.9183, -7.21409, 27.4774, 13.5466, 72.253, -153.918
3.5515, -1, -38.0857, -7.30003, 27.5113, 13.5488, 72.1633, -154.146
3.56189, -1, -38.2531, -7.38589, 27.5452, 13.551, 72.0734, -154.373
3.5675, -1, -38.4205, -7.47165, 27.579, 13.5532, 71.9837, -154.6
3.57653, -1, -38.5876, -7.55736, 27.6128, 13.5553, 71.8943, -154.827
3.58363, -1, -38.755, -7.6431, 27.6468, 13.5573, 71.8045, -155.055
3.59256, -1, -38.9223, -7.7288, 27.6805, 13.5594, 71.7151, -155.282
3.59964, -1, -39.0897, -7.81442, 27.7142, 13.5615, 71.626, -155.508
3.60759, -1, -39.2572, -7.90006, 27.7481, 13.5635, 71.5364, -155.735
3.61551, -1, -39.4247, -7.98576, 27.7819, 13.5654, 71.4471, -155.962
3.62358, -1, -39.5922, -8.07133, 27.8155, 13.5674, 71.3578, -156.188
3.63158, -1, -39.7599, -8.15688, 27.8491, 13.5694, 71.2684, -156.415
3.63953, -1, -39.9275, -8.24236, 27.8829, 13.5713, 71.1791, -156.641
3.64753, -1, -40.0951, -8.32782, 27.9165, 13.5733, 71.0897, -156.868
3.65557, -1, -40.2626, -8.41319, 27.9502, 13.5752, 71.0006, -157.094
3.66359, -1, -40.4299, -8.49857, 27.984, 13.5772, 70.9111, -157.32
3.67154, -1, -40.5969, -8.58395, 28.0175, 13.5792, 70.822, -157.546
3.67958, -1, -40.7637, -8.66934, 28.0511, 13.5812, 70.7331, -157.772
3.6875, -1, -40.9303, -8.75469, 28.0848, 13.5832, 70.6438, -157.998
3.69551, -1, -41.0967, -8.84002, 28.1185, 13.5852, 70.5546, -158.224
3.70363, -1, -41.2629, -8.92528, 28.152, 13.5873, 70.4656, -158.45
3.7115, -1, -41.4291, -9.01042, 28.1855, 13.5893, 70.3764, -158.676
3.71953, -1, -41.5954, -9.09561, 28.2192, 13.5913, 70.2871, -158.901
3.72758, -1, -41.7618, -9.18075, 28.2528, 13.5933, 70.1981, -159.126
3.73551, -1, -41.9282, -9.26581, 28.2863, 13.5953, 70.109, -159.352
3.74378, -1, -42.0946, -9.35085, 28.3201, 13.5974, 70.02, -159.578
3.75151, -1, -42.2607, -9.43594, 28.3536, 13.5994, 69.931, -159.803
3.75955, -1, -42.4269, -9.52099, 28.3871, 13.6014, 69.8422, -160.028
3.76781, -1, -42.5933, -9.60599, 28.4207, 13.6035, 69.7532, -160.253
3.77561, -1, -42.7598, -9.69096, 28.4542, 13.6055, 69.6642, -160.478
3.78365, -1, -42.9263, -9.77591, 28.4876, 13.6075, 69.5757, -160.704
3.79167, -1, -43.0927, -9.86081, 28.5211, 13.6095, 69.4867, -160.928
3.80001, -1, -43.2589, -9.9458, 28.5546, 13.6116, 69.398, -161.153
3.80763, -1, -43.425, -10.0307, 28.5881, 13.6137, 69.3095, -161.378
3.81569, -1, -43.5909, -10.1157, 28.6216, 13.6157, 69.2208, -161.603
3.82448, -1, -43.7568, -10.2006, 28.6551, 13.6178, 69.1323, -161.828
3.83155, -1, -43.9226, -10.2854, 28.6885, 13.62, 69.0439, -162.052
3.83967, -1, -44.0882, -10.3702, 28.7219, 13.6222, 68.9554, -162.276
3.84839, -1, -44.2535, -10.4548, 28.7554, 13.6243, 68.8667, -162.5
3.85573, -1, -44.4187, -10.5394, 28.7888, 13.6266, 68.778, -162.725
3.86389, -1, -44.5839, -10.6239, 28.8222, 13.6288, 68.6896, -162.949
3.87261, -1, -44.749, -10.7085, 28.8557, 13.6309, 68.6009, -163.173
3.87989, -1, -44.9144, -10.7929, 28.8892, 13.6331, 68.5124, -163.397
3.88804, -1, -45.0797, -10.8775, 28.9225, 13.6353, 68.4241, -163.621
3.89606, -1, -45.2451, -10.962, 28.9559, 13.6375, 68.3355, -163.845
3.90404, -1, -45.4103, -11.0465, 28.9894, 13.6398, 68.2472, -164.069
3.91214, -1, -45.5756, -11.1309, 29.0226, 13.6421, 68.159, -164.293
3.92037, -1, -45.7409, -11.2153, 29.0558, 13.6443, 68.0707, -164.517
3.92837, -1, -45.9059, -11.2996, 29.0893, 13.6466, 67.9822, -164.741
3.93615, -1, -45.9877, -11.3414, 29.1228, 13.6489, 67.8939, -164.964
3.94354, -1, -46.1491, -11.4237, 29.1395, 13.6501, 67.8501, -165.075
3.95241, -1, -46.3821, -11.5411, 29.19, 13.6537, 67.7196, -165.405
3.95956, -1, -46.4562, -11.578, 29.2066, 13.6549, 67.6775, -165.512
3.9675, -1, -46.5974, -11.6479, 29.2389, 13.6571, 67.596, -165.717
3.97563, -1, -46.7269, -11.7112, 29.2687, 13.6593, 67.5214, -165.907
3.98357, -1, -46.8418, -11.7672, 29.2951, 13.6613, 67.4545, -166.075
3.99149, -1, -46.9405, -11.8164, 29.3171, 13.663, 67.3988, -166.217
3.99953, -1, -47.0229, -11.8592, 29.3337, 13.6643, 67.354, -166.33
4.00758, -1, -47.0899, -11.896, 29.3448, 13.6651, 67.3205, -166.414
4.01549, -1, -47.1422, -11.9253, 29.352, 13.6655, 67.2973, -166.473
4.0235, -1, -47.181, -11.9473, 29.3559, 13.6657, 67.2823, -166.51
4.03154, -1, -47.2084, -11.9627, 29.3577, 13.6658, 67.2736, -166.533
4.03954, -1, -47.2265, -11.9727, 29.3585, 13.6659, 67.2689, -166.545
4.04751, -1, -47.2373, -11.9785, 29.3589, 13.6659, 67.2665, -166.55
4.05556, 2, -47.2428, -11.9814, 29.3591, 13.6659, 67.2654, -166.553
4.06535, 2, -47.2448, -11.983, 29.3593, 13.666, 67.2648, -166.555
4.07149, 2, -47.2449, -11.9832, 29.3593, 13.666, 67.2647, -166.555
4.07957, 2, -47.2447, -11.9834, 29.3593, 13.6661, 67.2646, -166.555
4.08941, 2, -47.2446, -11.9835, 29.3594, 13.6661, 67.2645, -166.555
4.09549, 2, -47.245, -11.9836, 29.3594, 13.666, 67.2644, -166.555
4.10358, 2, -47.2459, -11.9839, 29.3594, 13.6661, 67.2644, -166.555
4.11151, 2, -47.2472, -11.9844, 29.3594, 13.6661, 67.2644, -166.555
4.1195, 2, -47.2489, -11.9851, 29.3594, 13.6661, 67.2645, -166.555
4.12756, 2, -47.2505, -11.986, 29.3594, 13.6661, 67.2645, -166.555
4.13549, 2, -47.2519, -11.9869, 29.3594, 13.6661, 67.2645, -166.555
4.14351, 2, -47.2528, -11.9875, 29.3594, 13.6661, 67.2645, -166.555
4.15158, 2, -47.2532, -11.9879, 29.3594, 13.6661, 67.2645, -166.555
4.1595, 2, -47.2534, -11.9881, 29.3594, 13.6661, 67.2645, -166.555
4.16758, 2, -47.2535, -11.9882, 29.3594, 13.6661, 67.2645, -166.555
4.17559, 2, -47.2532, -11.9882, 29.3594, 13.6661, 67.2645, -166.555
4.18349, 2, -47.2527, -11.9881, 29.3594, 13.666, 67.2645, -166.555
4.19149, 2, -47.2522, -11.9881, 29.3594, 13.666, 67.2645, -166.555
4.19957, 2, -47.2519, -11.9881, 29.3594, 13.6661, 67.2645, -166.555
4.2075, 2, -47.2517, -11.9881, 29.3595, 13.6661, 67.2645, -166.555
4.21549, 2, -47.2517, -11.9882, 29.3595, 13.6661, 67.2645, -166.555
4.22356, 2, -47.2518, -11.9884, 29.3594, 13.666, 67.2645, -166.555
4.2315, 2, -47.2521, -11.9887, 29.3594, 13.666, 67.2645, -166.555
4.23951, 2, -47.2527, -11.989, 29.3594, 13.666, 67.2645, -166.555
4.24758, 2, -47.2532, -11.9893, 29.3595, 13.6661, 67.2645, -166.555
4.25549, 2, -47.2535, -11.9895, 29.3594, 13.6661, 67.2645, -166.555
4.26353, 2, -47.2537, -11.9896, 29.3594, 13.6661, 67.2645, -166.555
4.27164, 2, -47.2537, -11.9896, 29.3595, 13.6661, 67.2645, -166.555
4.27961, 2, -47.2536, -11.9896, 29.3595, 13.6661, 67.2645, -166.555
4.28759, 2, -47.2534, -11.9895, 29.3595, 13.666, 67.2645, -166.555
4.29576, 2, -47.253, -11.9895, 29.3595, 13.666, 67.2645, -166.555
4.3036, 2, -47.2527, -11.9895, 29.3595, 13.666, 67.2645, -166.555
4.31157, 2, -47.2524, -11.9895, 29.3595, 13.666, 67.2645, -166.555
4.31965, 2, -47.2522, -11.9895, 29.3594, 13.6661, 67.2645, -166.555
4.32753, 2, -47.2521, -11.9895, 29.3595, 13.6661, 67.2645, -166.555
4.33558, 2, -47.252, -11.9895, 29.3595, 13.666, 67.2645, -166.555
4.34365, 2, -47.252, -11.9896, 29.3594, 13.666, 67.2645, -166.555
4.35164, 2, -47.252, -11.9897, 29.3594, 13.666, 67.2645, -166.555
4.35979, 2, -47.252, -11.9897, 29.3594, 13.666, 67.2645, -166.555
4.36782, 2, -47.252, -11.9897, 29.3594, 13.6661, 67.2646, -166.555
4.37585, 2, -47.252, -11.9897, 29.3594, 13.666, 67.2645, -166.555
4.38395, 2, -47.252, -11.9897, 29.3595, 13.666, 67.2645, -166.555
4.39201, 2, -47.2519, -11.9896, 29.3595, 13.666, 67.2646, -166.555
4.40063, 2, -47.2518, -11.9895, 29.3595, 13.666, 67.2646, -166.555
4.40809, 2, -47.2518, -11.9895, 29.3595, 13.666, 67.2646, -166.555
4.4161, 2, -47.2517, -11.9895, 29.3595, 13.666, 67.2646, -166.555
4.4241, 2, -47.2516, -11.9895, 29.3595, 13.666, 67.2646, -166.555
4.43212, 2, -47.2515, -11.9895, 29.3594, 13.666, 67.2646, -166.555
4.44013, 2, -47.2515, -11.9895, 29.3594, 13.666, 67.2646, -166.555
4.4475, 2, -47.2515, -11.9895, 29.3594, 13.666, 67.2646, -166.555
4.45548, 2, -47.2514, -11.9895, 29.3594, 13.666, 67.2646, -166.555
4.46353, 2, -47.2513, -11.9895, 29.3594, 13.666, 67.2646, -166.555
4.47148, 2, -47.2513, -11.9895, 29.3594, 13.666, 67.2646, -166.555
4.47951, 2, -47.2513, -11.9895, 29.3595, 13.666, 67.2646, -166.555
4.48758, 2, -47.2512, -11.9895, 29.3594, 13.666, 67.2646, -166.555
4.49547, 2, -47.2511, -11.9894, 29.3594, 13.666, 67.2646, -166.555
4.5035, 2, -47.251, -11.9894, 29.3595, 13.666, 67.2646, -166.555
4.51156, 2, -47.2509, -11.9893, 29.3595, 13.666, 67.2646, -166.555
4.51949, 2, -47.2508, -11.9893, 29.3595, 13.666, 67.2646, -166.555
4.52749, 2, -47.2507, -11.9893, 29.3595, 13.666, 67.2646, -166.555
4.53553, 2, -47.2506, -11.9893, 29.3595, 13.666, 67.2646, -166.555
4.54347, 2, -47.2505, -11.9892, 29.3595, 13.666, 67.2646, -166.555
4.55148, 2, -47.2504, -11.9893, 29.3594, 13.666, 67.2647, -166.555
4.56102, 2, -47.2503, -11.9893, 29.3594, 13.666, 67.2646, -166.555
4.56748, 2, -47.2502, -11.9893, 29.3594, 13.666, 67.2646, -166.555
4.57648, 2, -47.2501, -11.9892, 29.3594, 13.6659, 67.2647, -166.555
4.58354, 2, -47.25, -11.9892, 29.3594, 13.666, 67.2647, -166.555
4.59255, 2, -47.2499, -11.9892, 29.3595, 13.666, 67.2647, -166.555
4.59948, 2, -47.2498, -11.9892, 29.3595, 13.6659, 67.2647, -166.555
4.60754, 2, -47.2497, -11.9891, 29.3595, 13.6659, 67.2647, -166.555
4.61549, 2, -47.2495, -11.989, 29.3594, 13.6659, 67.2647, -166.555
4.62348, 2, -47.2495, -11.989, 29.3594, 13.6659, 67.2647, -166.555
4.63154, 2, -47.2494, -11.9889, 29.3594, 13.6659, 67.2647, -166.555
4.63949, 2, -47.2492, -11.9889, 29.3594, 13.6659, 67.2647, -166.555
4.6475, 2, -47.2492, -11.9889, 29.3594, 13.6659, 67.2647, -166.555
4.65556, 2, -47.2491, -11.9889, 29.3594, 13.6659, 67.2647, -166.555
4.66348, 2, -47.2491, -11.9889, 29.3594, 13.6659, 67.2647, -166.555
4.67159, 2, -47.249, -11.9889, 29.3594, 13.6658, 67.2647, -166.555
4.67958, 2, -47.2489, -11.9889, 29.3594, 13.6658, 67.2647, -166.555
4.68748, 2, -47.2489, -11.9889, 29.3594, 13.6659, 67.2647, -166.555
4.69547, 2, -47.2489, -11.9889, 29.3594, 13.6659, 67.2647, -166.555
4.70354, 2, -47.2488, -11.9888, 29.3594, 13.6659, 67.2647, -166.555
4.71147, 2, -47.2488, -11.9888, 29.3594, 13.6659, 67.2648, -166.555
4.71948, 2, -47.2487, -11.9887, 29.3594, 13.6658, 67.2647, -166.555
4.72755, 2, -47.2486, -11.9886, 29.3594, 13.6658, 67.2648, -166.555
4.73549, 2, -47.2485, -11.9886, 29.3594, 13.6658, 67.2648, -166.555
4.74348, 2, -47.2484, -11.9885, 29.3594, 13.6658, 67.2647, -166.555
4.75154, 2, -47.2484, -11.9885, 29.3594, 13.6658, 67.2648, -166.555
4.7595, 2, -47.2483, -11.9886, 29.3594, 13.6658, 67.2648, -166.555
4.76754, 2, -47.2483, -11.9886, 29.3594, 13.6657, 67.2648, -166.554
4.77563, 2, -47.2483, -11.9886, 29.3594, 13.6657, 67.2648, -166.554
4.78359, 2, -47.2483, -11.9886, 29.3594, 13.6657, 67.2648, -166.555
4.79158, 2, -47.2483, -11.9885, 29.3594, 13.6657, 67.2648, -166.555
4.79964, 2, -47.2482, -11.9885, 29.3595, 13.6657, 67.2648, -166.554
4.80759, 2, -47.2482, -11.9885, 29.3595, 13.6657, 67.2648, -166.554
4.81555, 2, -47.2481, -11.9884, 29.3594, 13.6657, 67.2648, -166.554
4.82363, 2, -47.2481, -11.9883, 29.3594, 13.6657, 67.2648, -166.554
4.8315, 2, -47.248, -11.9882, 29.3595, 13.6657, 67.2648, -166.554
4.83976, 2, -47.2479, -11.9882, 29.3594, 13.6657, 67.2648, -166.554
4.84765, 2, -47.2479, -11.9882, 29.3594, 13.6657, 67.2648, -166.554
4.8556, 2, -47.2478, -11.9882, 29.3594, 13.6657, 67.2648, -166.554
4.86412, 2, -47.2478, -11.9882, 29.3594, 13.6657, 67.2648, -166.554
4.87178, 2, -47.2478, -11.9882, 29.3594, 13.6656, 67.2648, -166.554
4.87982, 2, -47.2477, -11.9882, 29.3594, 13.6656, 67.2648, -166.554
4.8884, 2, -47.2477, -11.9882, 29.3594, 13.6656, 67.2648, -166.554
4.89599, 2, -47.2477, -11.9881, 29.3594, 13.6656, 67.2648, -166.554
4.90469, 2, -47.2477, -11.9881, 29.3594, 13.6656, 67.2648, -166.554
4.91224, 2, -47.2476, -11.9881, 29.3594, 13.6656, 67.2648, -166.554
4.92008, 2, -47.2476, -11.988, 29.3594, 13.6656, 67.2649, -166.554
4.92805, 2, -47.2475, -11.9879, 29.3594, 13.6655, 67.2649, -166.554
4.93638, 2, -47.2474, -11.9879, 29.3594, 13.6655, 67.2649, -166.554
4.94405, 2, -47.2473, -11.9879, 29.3594, 13.6655, 67.2649, -166.554
4.95148, 2, -47.2473, -11.9878, 29.3594, 13.6654, 67.2649, -166.554
4.96034, 2, -47.2472, -11.9878, 29.3594, 13.6655, 67.265, -166.554
4.96752, 2, -47.2471, -11.9878, 29.3594, 13.6655, 67.265, -166.554
4.97552, 2, -47.2471, -11.9878, 29.3594, 13.6655, 67.265, -166.554
4.98348, 2, -47.2471, -11.9877, 29.3594, 13.6655, 67.265, -166.554
4.99166, 2, -47.2471, -11.9877, 29.3594, 13.6655, 67.265, -166.554
4.99947, 2, -47.2471, -11.9877, 29.3594, 13.6654, 67.265, -166.554
5.00748, 2, -47.247, -11.9877, 29.3594, 13.6654, 67.265, -166.554
5.01554, 2, -47.247, -11.9877, 29.3594, 13.6654, 67.265, -166.554
5.02346, 2, -47.2469, -11.9876, 29.3594, 13.6654, 67.265, -166.554
5.03146, 2, -47.2469, -11.9876, 29.3594, 13.6654, 67.265, -166.554
5.03953, 2, -47.2468, -11.9875, 29.3594, 13.6654, 67.265, -166.554
5.04747, 2, -47.2467, -11.9875, 29.3594, 13.6653, 67.265, -166.554
5.05688, 2, -47.2467, -11.9874, 29.3594, 13.6653, 67.2651, -166.554
5.06377, 2, -47.2466, -11.9874, 29.3594, 13.6652, 67.2651, -166.554
5.07146, 2, -47.2465, -11.9874, 29.3594, 13.6652, 67.2651, -166.554
5.07954, 2, -47.2465, -11.9874, 29.3594, 13.6652, 67.2651, -166.554
5.08961, 2, -47.2464, -11.9874, 29.3594, 13.6652, 67.2651, -166.554
5.09546, 2, -47.2464, -11.9874, 29.3594, 13.6652, 67.2651, -166.554
5.10353, 2, -47.2464, -11.9874, 29.3594, 13.6652, 67.2651, -166.554
5.11168, 2, -47.2464, -11.9873, 29.3594, 13.6651, 67.2651, -166.554
5.12049, 4, -47.2464, -11.9873, 29.3594, 13.6651, 67.2652, -166.554
5.12753, 4, -47.2463, -11.9873, 29.3594, 13.6651, 67.2651, -166.554
5.13547, 4, -47.2463, -11.9872, 29.3594, 13.6652, 67.2652, -166.554
5.14346, 4, -47.2462, -11.9872, 29.3594, 13.6652, 67.2652, -166.554
5.15155, 4, -47.2461, -11.9871, 29.3594, 13.6651, 67.2652, -166.554
5.1595, 4, -47.2461, -11.9871, 29.3594, 13.6651, 67.2652, -166.554
5.16747, 4, -47.246, -11.9871, 29.3594, 13.6651, 67.2652, -166.554
5.17555, 4, -47.246, -11.9871, 29.3594, 13.6651, 67.2652, -166.554
5.18349, 4, -47.2459, -11.9871, 29.3594, 13.6651, 67.2652, -166.553
5.19146, 4, -47.2459, -11.9871, 29.3594, 13.6651, 67.2652, -166.553
5.19954, 4, -47.2458, -11.9871, 29.3594, 13.6651, 67.2652, -166.553
5.20747, 4, -47.2459, -11.987, 29.3594, 13.6651, 67.2652, -166.553
5.21561, 4, -47.2458, -11.987, 29.3594, 13.665, 67.2652, -166.554
5.22952, 4, -47.2458, -11.9869, 29.3594, 13.665, 67.2653, -166.554
5.23234, 4, -47.2457, -11.9869, 29.3594, 13.665, 67.2653, -166.554
5.23963, 4, -47.2457, -11.9868, 29.3594, 13.665, 67.2653, -166.554
5.24768, 4, -47.2456, -11.9868, 29.3594, 13.665, 67.2653, -166.553
5.2599, 4, -47.2455, -11.9868, 29.3594, 13.665, 67.2653, -166.553
5.26364, 4, -47.2455, -11.9868, 29.3594, 13.665, 67.2653, -166.553
5.2766, 4, -47.2454, -11.9867, 29.3594, 13.665, 67.2653, -166.553
5.27973, 4, -47.2454, -11.9867, 29.3594, 13.665, 67.2653, -166.553
5.28947, 4, -47.2453, -11.9867, 29.3594, 13.665, 67.2653, -166.553
5.29572, 4, -47.2453, -11.9867, 29.3594, 13.665, 67.2653, -166.553
5.30728, 4, -47.2453, -11.9867, 29.3594, 13.6649, 67.2653, -166.553
5.31173, 4, -47.2453, -11.9867, 29.3594, 13.6649, 67.2653, -166.553
5.32059, 4, -47.2453, -11.9867, 29.3594, 13.6649, 67.2653, -166.553
5.32778, 4, -47.2453, -11.9866, 29.3594, 13.6649, 67.2653, -166.553
5.33586, 4, -47.2452, -11.9866, 29.3594, 13.6649, 67.2653, -166.553
5.34391, 4, -47.2452, -11.9866, 29.3594, 13.6648, 67.2654, -166.553
5.35389, 4, -47.2451, -11.9865, 29.3594, 13.6648, 67.2654, -166.553
5.36004, 4, -47.245, -11.9865, 29.3594, 13.6649, 67.2653, -166.553
5.36803, 4, -47.245, -11.9865, 29.3594, 13.6648, 67.2653, -166.553
5.37985, 4, -47.245, -11.9865, 29.3594, 13.6648, 67.2654, -166.553
5.38432, 4, -47.2451, -11.9865, 29.3594, 13.6649, 67.2653, -166.553
5.39338, 4, -47.246, -11.987, 29.3598, 13.665, 67.2654, -166.553
5.40029, 4, -47.2483, -11.9888, 29.3617, 13.6667, 67.266, -166.553
5.40958, 4, -47.2526, -11.9933, 29.3673, 13.6765, 67.2684, -166.552
5.41821, 4, -47.2598, -12.0023, 29.38, 13.7016, 67.2748, -166.547
5.42455, 4, -47.2714, -12.0175, 29.4047, 13.7507, 67.2884, -166.537
5.43227, 5, -47.2896, -12.0418, 29.4474, 13.8387, 67.3129, -166.517
5.44086, 5, -47.3166, -12.0773, 29.5143, 13.9791, 67.3526, -166.485
5.45062, 5, -47.3543, -12.1256, 29.6119, 14.1868, 67.4099, -166.438
5.4563, 5, -47.3776, -12.1551, 29.7445, 14.4729, 67.489, -166.372
5.46522, 5, -47.467, -12.266, 29.9145, 14.8431, 67.5893, -166.287
5.47161, 5, -47.5031, -12.3105, 30.014, 15.0598, 67.6477, -166.238
5.48354, 5, -47.6298, -12.4663, 30.3688, 15.8257, 67.8518, -166.064
5.48766, 5, -47.6777, -12.5251, 30.5038, 16.1145, 67.928, -165.999
5.49567, 5, -47.7807, -12.6518, 30.7963, 16.7313, 68.0891, -165.861
5.50357, 5, -47.8918, -12.7888, 31.1128, 17.3882, 68.2575, -165.716
5.51162, 5, -48.0086, -12.9339, 31.4473, 18.0699, 68.4295, -165.567
5.52158, 5, -48.1899, -13.1601, 31.968, 19.1106, 68.6857, -165.345
5.52766, 5, -48.2508, -13.2361, 32.1442, 19.4575, 68.7697, -165.271
5.53562, 5, -48.3711, -13.3863, 32.4969, 20.1425, 68.9345, -165.125
5.54365, 5, -48.4864, -13.5317, 32.8466, 20.8081, 69.0952, -164.974
5.55161, 6, -48.5922, -13.6699, 33.1866, 21.4435, 69.2539, -164.809
5.5596, 6, -48.6836, -13.7984, 33.5123, 22.0379, 69.4124, -164.617
5.5702, 7, -48.7851, -13.9736, 33.9658, 22.8407, 69.6556, -164.249
5.57561, 7, -48.8082, -14.0279, 34.1071, 23.0832, 69.7392, -164.098
5.58611, 7, -48.8377, -14.1303, 34.5018, 23.7437, 70.0009, -163.547
5.59351, 8, -48.8428, -14.2667, 34.7443, 24.139, 70.1869, -163.094
5.5996, 8, -48.8355, -14.3076, 34.8609, 24.3268, 70.2836, -162.843
5.61241, 9, -48.7919, -14.4196, 35.1964, 24.8665, 70.5895, -162.01
5.61963, 9, -48.7712, -14.4544, 35.305, 25.0424, 70.8058, -161.403
5.63053, 10, -48.6641, -14.5868, 35.735, 25.7447, 71.146, -160.453
5.63251, 10, -48.6641, -14.5868, 35.735, 25.7447, 71.146, -160.453
5.63994, 11, -48.5976, -14.6504, 35.9489, 26.0997, 71.38, -159.807
5.64764, 11, -48.5249, -14.7127, 36.1629, 26.4589, 71.6163, -159.162
5.6584, 12, -48.4088, -14.8054, 36.4812, 27.0082, 71.9735, -158.199
5.66368, 12, -48.3694, -14.8361, 36.5862, 27.1946, 72.0932, -157.877
5.67448, 13, -48.25, -14.926, 36.8986, 27.7658, 72.4555, -156.909
5.68374, 13, -48.21, -14.9551, 37.0018, 27.9603, 72.7002, -156.259
5.68761, 14, -48.1284, -15.013, 37.2065, 28.3545, 72.8236, -155.931
5.69951, 14, -48.001, -15.1015, 37.5121, 28.9561, 73.1963, -154.947
5.70669, 15, -47.9115, -15.1615, 37.7146, 29.3609, 73.4452, -154.293
5.71535, 15, -47.8175, -15.2207, 37.915, 29.7657, 73.6924, -153.642
5.72156, 16, -47.7683, -15.25, 38.0146, 29.9675, 73.8147, -153.317
5.72759, 16, -47.6647, -15.309, 38.2128, 30.3691, 74.0565, -152.673
5.7356, 17, -47.5542, -15.3696, 38.4081, 30.7669, 74.2934, -152.035
5.7471, 17, -47.438, -15.4326, 38.5998, 31.1607, 74.5248, -151.088
5.7516, 18, -47.3167, -15.4967, 38.7887, 31.5498, 74.7502, -150.775
5.76098, 18, -47.1904, -15.5617, 38.975, 31.9354, 74.9699, -150.156
5.76859, 19, -47.0588, -15.6285, 39.1581, 32.3181, 75.1842, -149.544
5.77596, 19, -46.9216, -15.6983, 39.3393, 32.6992, 75.3938, -148.938
5.78376, 20, -46.7789, -15.7706, 39.5196, 33.0795, 75.5989, -148.338
5.79207, 20, -46.6314, -15.8443, 39.6981, 33.4587, 75.7999, -147.746
5.8003, 21, -46.4799, -15.9193, 39.8741, 33.8374, 75.9969, -147.161
5.81177, 21, -46.2458, -16.0349, 40.1349, 34.4042, 76.285, -146.294
5.81999, 22, -46.1658, -16.0743, 40.3064, 34.7808, 76.472, -145.724
5.82438, 22, -46.0026, -16.1541, 40.3909, 34.9685, 76.5641, -145.441
5.83333, 23, -45.8344, -16.2357, 40.5578, 35.3424, 76.7456, -144.879
5.84064, 23, -45.6597, -16.3192, 40.722, 35.7129, 76.9223, -144.323
5.84865, 24, -45.4775, -16.4053, 40.8829, 36.0791, 77.0939, -143.771
5.85669, 24, -45.2875, -16.4936, 41.0392, 36.4387, 77.259, -143.225
5.86459, 25, -45.09, -16.5835, 41.1909, 36.7896, 77.4171, -142.685
5.87271, 25, -44.8858, -16.6741, 41.3383, 37.1309, 77.5675, -142.15
5.8807, 26, -44.6748, -16.7652, 41.4811, 37.4626, 77.7105, -141.619
5.89238, 26, -44.4567, -16.8573, 41.6189, 37.7853, 77.9144, -140.831
5.89632, 27, -44.2312, -16.9504, 41.7514, 38.1003, 77.98, -140.57
5.90641, 27, -43.9991, -17.0438, 41.8782, 38.4079, 78.1087, -140.047
5.91237, 28, -43.7604, -17.1366, 41.999, 38.7087, 78.2351, -139.524
5.92178, 28, -43.5148, -17.2279, 42.1132, 39.0025, 78.359, -139.002
5.93065, 29, -43.2621, -17.3175, 42.2205, 39.2891, 78.4811, -138.481
5.93898, 29, -43.0029, -17.4053, 42.3208, 39.5683, 78.6011, -137.958
5.94481, 30, -42.7369, -17.4907, 42.4138, 39.8396, 78.7183, -137.435
5.95308, 30, -42.6012, -17.5322, 42.4575, 40.1024, 78.8331, -136.913
5.96032, 31, -42.3237, -17.6132, 42.5395, 40.3569, 78.9446, -136.392
5.96901, 31, -42.0383, -17.6918, 42.6144, 40.4808, 78.9993, -136.132
5.97559, 32, -41.7453, -17.7681, 42.6822, 40.7221, 79.107, -135.611
5.98567, 32, -41.2932, -17.8776, 42.7713, 41.0678, 79.2624, -134.832
5.99409, 33, -40.9835, -17.947, 42.8221, 41.288, 79.3628, -134.314
6.00353, 33, -40.667, -18.0135, 42.8658, 41.5, 79.4605, -133.798
6.01082, 34, -40.344, -18.0775, 42.9023, 41.7037, 79.5556, -133.281
6.01568, 35, -40.1808, -18.1086, 42.9178, 41.8026, 79.6022, -133.024
6.03873, 36, -39.173, -18.2789, 42.9737, 42.3558, 79.8691, -131.484
6.04119, 36, -38.9992, -18.3043, 42.9768, 42.4412, 79.9115, -131.229
6.04319, 36, -38.9992, -18.3043, 42.9768, 42.4412, 79.9115, -131.229
6.0536, 37, -38.4676, -18.3756, 42.9765, 42.6862, 80.036, -130.464
6.06407, 37, -38.1058, -18.4189, 42.9678, 42.84, 80.1161, -129.956
6.06755, 37, -37.9228, -18.439, 42.9608, 42.9141, 80.1557, -129.703
6.07376, 38, -37.5528, -18.4767, 42.9419, 43.0569, 80.2327, -129.198
6.08197, 38, -37.3661, -18.4942, 42.93, 43.1255, 80.308, -128.694
6.08956, 39, -36.799, -18.5419, 42.8841, 43.3201, 80.3805, -128.191
6.09821, 39, -36.6076, -18.5559, 42.8654, 43.3813, 80.4161, -127.941
6.10359, 40, -36.221, -18.5812, 42.823, 43.4982, 80.4864, -127.442
6.11451, 40, -35.6297, -18.612, 42.7473, 43.6602, 80.5881, -126.697
6.11965, 41, -35.4297, -18.6203, 42.7188, 43.7106, 80.6211, -126.449
6.13086, 41, -34.8214, -18.6396, 42.6235, 43.8507, 80.7164, -125.71
6.13556, 42, -34.6166, -18.6444, 42.5885, 43.894, 80.7476, -125.465
6.15023, 42, -33.7895, -18.6553, 42.4326, 44.0489, 80.8661, -124.489
6.15561, 43, -33.7895, -18.6553, 42.4326, 44.0489, 80.8661, -124.489
6.15963, 43, -33.3708, -18.656, 42.3456, 44.1155, 80.923, -124.005
6.16767, 44, -32.9465, -18.6531, 42.2528, 44.1755, 80.9777, -123.522
6.17868, 44, -32.2982, -18.6415, 42.1029, 44.2511, 81.0578, -122.805
6.18804, 45, -31.8583, -18.6291, 41.9956, 44.2929, 81.1083, -122.328
6.19203, 45, -31.6366, -18.6215, 41.9397, 44.311, 81.1333, -122.091
6.20395, 46, -30.9668, -18.5937, 41.7629, 44.3536, 81.2059, -121.383
6.20857, 46, -30.7426, -18.5826, 41.7011, 44.3638, 81.2287, -121.148
6.21881, 47, -30.0654, -18.5436, 41.5068, 44.3834, 81.2962, -120.447
6.2236, 47, -29.8372, -18.5284, 41.439, 44.3863, 81.3184, -120.215
6.23316, 48, -29.3758, -18.4946, 41.2991, 44.3872, 81.3611, -119.751
6.24157, 48, -28.9082, -18.4565, 41.153, 44.3794, 81.4029, -119.288
6.25085, 49, -28.1971, -18.3913, 40.9227, 44.3515, 81.4656, -118.599
6.25575, 49, -27.9587, -18.3673, 40.843, 44.3376, 81.4862, -118.37
6.26472, 50, -27.48, -18.3159, 40.6788, 44.3022, 81.5266, -117.912
6.27262, 50, -26.998, -18.2594, 40.5079, 44.2576, 81.5677, -117.455
6.28057, 51, -26.5101, -18.1973, 40.3306, 44.2044, 81.6101, -116.999
6.28801, 51, -26.0144, -18.1297, 40.1469, 44.1405, 81.6525, -116.545
6.29658, 52, -25.5114, -18.0564, 39.9557, 44.0675, 81.6952, -116.091
6.30615, 52, -25.0042, -17.9779, 39.7573, 43.9836, 81.7394, -115.637
6.31669, 53, -24.2397, -17.8495, 39.448, 43.8388, 81.8067, -114.958
6.32059, 53, -23.9832, -17.8037, 39.3412, 43.7854, 81.8293, -114.732
6.32775, 54, -23.4657, -17.7072, 39.1212, 43.6706, 81.8769, -114.28
6.33637, 54, -22.9399, -17.6045, 38.8942, 43.5447, 81.9269, -113.828
6.34381, 55, -22.4063, -17.4957, 38.6597, 43.4075, 81.9783, -113.376
6.35562, 55, -21.5973, -17.3209, 38.2936, 43.1794, 82.0615, -112.697
6.35998, 56, -21.3265, -17.2597, 38.1685, 43.0976, 82.0898, -112.471
6.37073, 56, -20.7825, -17.1329, 37.913, 42.9257, 82.1474, -112.019
6.37602, 57, -20.2319, -17.0007, 37.6508, 42.7424, 82.2074, -111.568
6.38773, 57, -19.6718, -16.8627, 37.3826, 42.5477, 82.2677, -110.892
6.39345, 58, -19.1035, -16.7186, 37.1074, 42.3406, 82.3306, -110.667
6.40178, 58, -18.5309, -16.5686, 36.8263, 42.121, 82.3948, -110.217
6.40866, 59, -17.9562, -16.4133, 36.5384, 41.8889, 82.4616, -109.768
6.41694, 59, -17.3773, -16.2537, 36.2439, 41.644, 82.5311, -109.318
6.42446, 60, -16.7897, -16.0898, 35.9431, 41.3865, 82.6026, -108.869
6.4332, 60, -16.1922, -15.9205, 35.6371, 41.1165, 82.6761, -108.419
6.44029, 61, -15.5886, -15.7456, 35.3263, 40.8335, 82.7505, -107.97
6.45103, 61, -14.9818, -15.5662, 35.0099, 40.5382, 82.8267, -107.523
6.45629, 62, -14.6774, -15.4751, 34.8499, 40.3859, 82.905, -107.074
6.46534, 62, -13.754, -15.1953, 34.3622, 39.9095, 82.9853, -106.625
6.47157, 63, -13.4413, -15.0993, 34.1975, 39.7443, 83.0263, -106.401
6.47958, 63, -12.809, -14.9019, 33.8639, 39.4036, 83.1104, -105.952
6.48987, 64, -11.8488, -14.5948, 33.3534, 38.8671, 83.2427, -105.277
6.4956, 64, -11.5267, -14.4893, 33.1799, 38.681, 83.2886, -105.051
6.50658, 65, -10.5468, -14.1618, 32.6497, 38.0977, 83.4352, -104.37
6.51367, 65, -9.8789, -13.9342, 32.2879, 37.686, 83.5406, -103.914
6.51955, 66, -9.54102, -13.8179, 32.105, 37.4727, 83.5957, -103.685
6.53172, 66, -8.51666, -13.4579, 31.5473, 36.8047, 83.7715, -102.996
6.53738, 67, -7.82653, -13.2088, 31.1664, 36.3358, 83.8974, -102.533
6.54685, 67, -7.12711, -12.9524, 30.7788, 35.8502, 84.0307, -102.068
6.55156, 68, -6.77402, -12.8212, 30.583, 35.6013, 84.0997, -101.834
6.56004, 68, -6.06254, -12.5542, 30.1891, 35.0937, 84.2425, -101.365
6.56964, 69, -4.98649, -12.1435, 29.592, 34.3111, 84.4671, -100.66
6.5794, 69, -4.26301, -11.8617, 29.1915, 33.7771, 84.6224, -100.187
6.58534, 70, -3.89864, -11.5733, 28.7924, 33.2342, 84.7817, -99.7139
6.59431, 70, -2.79489, -11.2764, 28.3947, 32.6802, 84.9453, -99.2395
6.59963, 71, -2.42397, -11.125, 28.1959, 32.399, 85.0289, -99.0023
6.6076, 71, -1.67736, -10.8177, 27.797, 31.8262, 85.202, -98.527
6.61564, 72, -0.924005, -10.5043, 27.3961, 31.238, 85.3842, -98.0495
6.62358, 72, -0.16478, -10.1861, 26.9925, 30.6319, 85.576, -97.57
6.6316, 73, 0.599084, -9.86175, 26.5865, 30.0117, 85.7771, -97.0883
6.64251, 73, 1.36739, -9.5301, 26.1793, 29.3793, 85.9866, -96.3633
6.64758, 74, 2.13985, -9.19219, 25.772, 28.7371, 86.204, -96.1208
6.66061, 75, 3.30364, -8.67514, 25.1672, 27.7603, 86.5433, -95.3912
6.6636, 75, 3.6925, -8.49956, 24.9682, 27.4315, 86.6595, -95.1472
6.6716, 75, 4.47206, -8.14306, 24.5733, 26.7711, 86.8959, -94.6586
6.68282, 76, 5.25368, -7.78104, 24.1835, 26.1103, 87.1383, -94.1688
6.68761, 76, 6.03661, -7.41335, 23.7985, 25.4467, 87.3865, -93.6766
6.70714, 77, 7.99993, -6.4635, 22.8546, 23.7854, 88.0399, -92.438
6.70895, 77, 7.99993, -6.4635, 22.8546, 23.7854, 88.0399, -92.438
6.71952, 78, 9.18385, -5.8651, 22.298, 22.7787, 88.4627, -91.6882
6.72557, 78, 9.57924, -5.66125, 22.1143, 22.4398, 88.6101, -91.4361
6.72811, 79, 9.97501, -5.45525, 21.9311, 22.0991, 88.7611, -91.183
6.73642, 79, 10.7676, -5.03788, 21.5671, 21.4132, 89.0733, -90.6727
6.74365, 80, 11.5593, -4.61159, 21.2056, 20.7237, 89.3985, -90.1567
6.75142, 80, 12.3476, -4.17474, 20.8486, 20.032, 89.7347, -89.6344
6.76065, 81, 13.1298, -3.72796, 20.4961, 19.3459, 90.0808, -89.1051
6.76744, 81, 13.9061, -3.27434, 20.1497, 18.6702, 90.4347, -88.5703
6.77567, 82, 14.6756, -2.81449, 19.8109, 18.0093, 90.7946, -88.0315
6.78357, 82, 15.4368, -2.34679, 19.483, 17.3646, 91.1584, -87.4904
6.79152, 82, 16.1878, -1.87168, 19.1651, 16.7379, 91.5259, -86.9467
6.79955, 83, 16.9264, -1.39033, 18.8576, 16.1321, 91.8967, -86.4023
6.80759, 83, 17.6512, -0.904127, 18.5597, 15.5458, 92.2715, -85.8579
6.81594, 84, 18.3601, -0.414454, 18.2713, 14.9794, 92.6516, -85.3155
6.82447, 84, 19.0518, 0.0785366, 17.9904, 14.4333, 93.0382, -84.7743
6.83216, 85, 19.7249, 0.576432, 17.7155, 13.9072, 93.4325, -84.2358
6.83949, 85, 20.379, 1.07897, 17.4474, 13.4009, 93.8344, -83.7002
6.84839, 86, 21.0154, 1.5854, 17.1852, 12.9149, 94.2422, -83.1679
6.8556, 86, 21.6369, 2.09718, 16.93, 12.448, 94.6556, -82.6362
6.86448, 86, 22.2458, 2.61694, 16.6812, 12.0007, 95.0753, -82.1033
6.87174, 87, 22.8438, 3.14671, 16.4371, 11.5718, 95.502, -81.5669
6.8805, 87, 23.4321, 3.68522, 16.197, 11.1597, 95.9363, -81.0256
6.88776, 88, 24.0103, 4.23017, 15.9592, 10.7628, 96.3778, -80.476
6.89665, 88, 24.5773, 4.78313, 15.7247, 10.3817, 96.8258, -79.9166
6.90387, 89, 25.1341, 5.34754, 15.4958, 10.0157, 97.2802, -79.3458
6.91282, 89, 25.6838, 5.92396, 15.2709, 9.66649, 97.7393, -78.7634
6.92032, 90, 26.2301, 6.51157, 15.05, 9.33297, 98.2027, -78.1674
6.92879, 90, 26.7695, 7.10906, 14.8346, 9.01573, 98.6708, -77.5573
6.93598, 91, 27.0351, 7.41114, 14.6248, 8.71612, 99.1444, -76.9336
6.94484, 91, 27.5565, 8.02265, 14.5217, 8.43424, 99.6243, -76.2978
6.95198, 92, 28.0676, 8.6447, 14.3184, 8.30081, 99.8666, -75.6493
6.95942, 92, 28.5714, 9.27707, 14.1191, 8.04927, 100.356, -75.3213
6.9674, 93, 29.0684, 9.91885, 13.9237, 7.81825, 100.85, -74.6591
6.97551, 93, 29.5544, 10.5679, 13.7335, 7.60936, 101.347, -73.9894
6.98341, 94, 30.0269, 11.2231, 13.5504, 7.42306, 101.844, -73.3116
6.99144, 94, 30.4845, 11.8828, 13.3743, 7.26023, 102.341, -72.6281
6.99947, 95, 30.9281, 12.5458, 13.2047, 7.12112, 102.835, -71.9404
7.00743, 95, 31.3578, 13.2112, 13.0427, 7.00591, 103.325, -71.2463
7.01543, 96, 31.7741, 13.8791, 12.8883, 6.91382, 103.812, -70.5465
7.02342, 96, 32.175, 14.5484, 12.7401, 6.84595, 104.296, -69.8424
7.0329, 97, 32.7447, 15.5514, 12.529, 6.7868, 105.015, -68.7746
7.03949, 97, 32.9265, 15.8844, 12.4621, 6.77742, 105.251, -68.4162
7.04953, 98, 33.449, 16.8774, 12.2742, 6.78148, 105.951, -67.3401
7.05542, 98, 33.6159, 17.2057, 12.2161, 6.7936, 106.179, -66.9808
7.06604, 99, 33.9387, 17.8561, 12.1075, 6.8589, 106.844, -65.9056
7.07141, 99, 34.2471, 18.4976, 12.0091, 6.89087, 107.058, -65.5499
7.08038, 100, 34.5435, 19.1294, 11.9212, 6.96833, 107.475, -64.8419
7.08749, 100, 34.8286, 19.7516, 11.8434, 7.06271, 107.876, -64.14
7.09654, 100, 35.1007, 20.3621, 11.7746, 7.17345, 108.26, -63.4476
7.10343, 101, 35.3587, 20.959, 11.7135, 7.29811, 108.629, -62.7648
7.11147, 101, 35.6034, 21.5419, 11.6602, 7.43476, 108.982, -62.0916
7.11941, 102, 35.8352, 22.1099, 11.6144, 7.58089, 109.319, -61.4314
7.12741, 102, 36.0542, 22.663, 11.5756, 7.73439, 109.642, -60.7851
7.1355, 103, 36.2627, 23.2009, 11.5439, 7.89378, 109.95, -60.1523
7.14341, 103, 36.4637, 23.7236, 11.5196, 8.05857, 110.242, -59.5335
7.15149, 103, 36.6591, 24.2326, 11.5038, 8.22958, 110.518, -58.9292
7.15944, 104, 36.8493, 24.7283, 11.4958, 8.4078, 110.777, -58.3369
7.16744, 104, 37.0349, 25.2108, 11.4941, 8.59497, 111.018, -57.7536
7.1755, 104, 37.2157, 25.681, 11.4986, 8.7913, 111.24, -57.1788
7.1834, 104, 37.3879, 26.1375, 11.5083, 8.99623, 111.445, -56.6114
7.19142, 104, 37.5496, 26.5805, 11.5217, 9.20918, 111.635, -56.0512
7.19947, 104, 37.7034, 27.0104, 11.5378, 9.42724, 111.81, -55.5001
7.20742, 104, 37.8533, 27.4282, 11.5564, 9.64783, 111.976, -54.9613
7.21542, 104, 38.0018, 27.8323, 11.5763, 9.86821, 112.131, -54.4395
7.22348, 104, 38.1479, 28.2224, 11.5964, 10.0856, 112.28, -53.9364
7.23141, 104, 38.2899, 28.5984, 11.6163, 10.2988, 112.42, -53.4539
7.2394, 104, 38.4264, 28.9601, 11.6351, 10.5059, 112.553, -52.9947
7.2475, 104, 38.5559, 29.3051, 11.6532, 10.7058, 112.678, -52.5591
7.25542, 104, 38.6778, 29.6327, 11.6703, 10.8977, 112.796, -52.1486
7.26341, 104, 38.7917, 29.9412, 11.6861, 11.0808, 112.907, -51.7628
7.2715, 104, 38.8978, 30.2316, 11.7008, 11.2543, 113.009, -51.4015
7.27946, 104, 38.9962, 30.503, 11.7146, 11.418, 113.104, -51.066
7.2875, 104, 39.0867, 30.7544, 11.7271, 11.571, 113.192, -50.7559
7.29558, 104, 39.1691, 30.9864, 11.7383, 11.7133, 113.272, -50.4707
7.30352, 104, 39.243, 31.1988, 11.7486, 11.8439, 113.345, -50.211
7.31151, 104, 39.3084, 31.3908, 11.7582, 11.9631, 113.41, -49.9765
7.31958, 104, 39.3661, 31.5638, 11.7667, 12.0703, 113.469, -49.7671
7.32755, 104, 39.4169, 31.7172, 11.7741, 12.1652, 113.52, -49.5829
7.33545, 104, 39.4613, 31.8517, 11.7808, 12.2485, 113.564, -49.4233
7.34352, 104, 39.4998, 31.9683, 11.787, 12.3188, 113.602, -49.288
7.35144, 104, 39.532, 32.068, 11.7924, 12.3782, 113.633, -49.1762
7.35961, 104, 39.5585, 32.1516, 11.7972, 12.4253, 113.658, -49.0859
7.36765, 104, 39.5802, 32.2206, 11.8015, 12.4617, 113.676, -49.0156
7.37567, 104, 39.5975, 32.2767, 11.8055, 12.4896, 113.69, -48.9635
7.38374, 104, 39.6112, 32.3216, 11.8091, 12.5099, 113.7, -48.9265
7.39183, 104, 39.6219, 32.3561, 11.8123, 12.5239, 113.706, -48.9013
7.39993, 104, 39.6299, 32.3818, 11.8152, 12.5333, 113.71, -48.8854
7.40793, 104, 39.6353, 32.4009, 11.8177, 12.539, 113.712, -48.8762
7.41648, 104, 39.6386, 32.4146, 11.8197, 12.542, 113.714, -48.8716
7.42399, 104, 39.6406, 32.4235, 11.8212, 12.5435, 113.714, -48.8695
7.43222, 105, 39.6414, 32.429, 11.8223, 12.5443, 113.714, -48.8685
7.44002, 105, 39.6413, 32.4326, 11.8233, 12.5447, 113.714, -48.8681
7.44801, 105, 39.6411, 32.4339, 11.8237, 12.5449, 113.714, -48.8681
7.45592, 105, 39.6402, 32.4361, 11.8245, 12.545, 113.714, -48.8681
7.46444, 105, 39.6383, 32.4384, 11.8255, 12.5451, 113.714, -48.8684
7.47141, 105, 39.6376, 32.4391, 11.8257, 12.5451, 113.714, -48.8685
7.4794, 105, 39.6364, 32.4403, 11.8263, 12.5451, 113.714, -48.8688
7.48747, 105, 39.6357, 32.4415, 11.8268, 12.5451, 113.714, -48.8691
7.49543, 105, 39.6352, 32.4427, 11.8274, 12.5451, 113.714, -48.8694
7.50341, 105, 39.6349, 32.4439, 11.828, 12.5451, 113.714, -48.8698
7.51146, 105, 39.6346, 32.4448, 11.8285, 12.5451, 113.714, -48.87
7.51939, 105, 39.6343, 32.4456, 11.8289, 12.5451, 113.714, -48.8702
7.52742, 105, 39.6341, 32.4463, 11.8293, 12.5451, 113.714, -48.8704
7.53688, 105, 39.6336, 32.4468, 11.8297, 12.5451, 113.714, -48.8707
7.54532, 105, 39.6333, 32.4469, 11.8299, 12.5451, 113.714, -48.8709
7.55162, 105, 39.6332, 32.447, 11.83, 12.5451, 113.714, -48.871
