hehonglu123/Motion-Primitive-Planning/ILC/recorded_data/realrobot/from_NX/iteration_32/run_2.csv
timestamp, cmd_num, J1, J2, J3, J4, J5, J6
0.000378, -1, 39.6292, 32.447, 11.8315, 12.5436, 113.713, -48.8736
0.005499, -1, 39.6292, 32.447, 11.8315, 12.5437, 113.713, -48.8736
0.008233, -1, 39.6292, 32.447, 11.8316, 12.5437, 113.713, -48.8736
0.029678, -1, 39.6292, 32.447, 11.8315, 12.5436, 113.713, -48.8736
0.032499, -1, 39.6292, 32.447, 11.8315, 12.5436, 113.713, -48.8736
0.035163, -1, 39.6292, 32.447, 11.8315, 12.5436, 113.713, -48.8735
0.039727, -1, 39.6292, 32.447, 11.8315, 12.5436, 113.713, -48.8735
0.04818, -1, 39.6292, 32.447, 11.8315, 12.5436, 113.713, -48.8736
0.055274, -1, 39.6291, 32.447, 11.8315, 12.5436, 113.713, -48.8736
0.063711, -1, 39.6263, 32.4465, 11.8315, 12.5436, 113.713, -48.8737
0.199531, -1, 38.3382, 31.7896, 12.085, 12.5546, 113.04, -50.5915
0.201591, -1, 38.2512, 31.7441, 12.1044, 12.5558, 112.991, -50.7165
0.202785, -1, 38.2512, 31.7441, 12.1044, 12.5558, 112.991, -50.7165
0.204749, -1, 38.1626, 31.6978, 12.124, 12.557, 112.941, -50.8428
0.206091, -1, 38.1626, 31.6978, 12.124, 12.557, 112.941, -50.8428
0.207452, -1, 38.1626, 31.6978, 12.124, 12.557, 112.941, -50.8428
0.209544, -1, 38.0727, 31.6509, 12.1435, 12.5583, 112.891, -50.97
0.213714, -1, 37.9814, 31.6034, 12.163, 12.5595, 112.84, -51.0981
0.214979, -1, 37.9814, 31.6034, 12.163, 12.5595, 112.84, -51.0981
0.217026, -1, 37.8891, 31.5555, 12.1824, 12.5608, 112.79, -51.2268
0.218408, -1, 37.8891, 31.5555, 12.1824, 12.5608, 112.79, -51.2268
0.219652, -1, 37.8891, 31.5555, 12.1824, 12.5608, 112.79, -51.2268
0.222905, -1, 37.7957, 31.5072, 12.2018, 12.562, 112.739, -51.3558
0.224866, -1, 37.7016, 31.4586, 12.2212, 12.5632, 112.688, -51.4852
0.226317, -1, 37.7016, 31.4586, 12.2212, 12.5632, 112.688, -51.4852
0.228974, -1, 37.6067, 31.4098, 12.2406, 12.5644, 112.637, -51.6149
0.230508, -1, 37.6067, 31.4098, 12.2406, 12.5644, 112.637, -51.6149
0.231777, -1, 37.6067, 31.4098, 12.2406, 12.5644, 112.637, -51.6149
0.233823, -1, 37.5113, 31.361, 12.26, 12.5656, 112.585, -51.7447
0.235217, -1, 37.5113, 31.361, 12.26, 12.5656, 112.585, -51.7447
0.238163, -1, 37.4155, 31.312, 12.2794, 12.5669, 112.534, -51.8744
0.239531, -1, 37.4155, 31.312, 12.2794, 12.5669, 112.534, -51.8744
0.251605, -1, 37.1275, 31.1651, 12.3376, 12.5705, 112.38, -52.2639
0.255621, -1, 37.0314, 31.1162, 12.357, 12.5718, 112.328, -52.3939
0.263635, -1, 36.8392, 31.0185, 12.3957, 12.5745, 112.225, -52.654
0.271614, -1, 36.6473, 30.9207, 12.4345, 12.577, 112.122, -52.9145
0.279678, -1, 36.4556, 30.823, 12.4735, 12.5796, 112.02, -53.1747
0.287642, -1, 36.264, 30.7253, 12.5123, 12.5822, 111.917, -53.435
0.295636, -1, 36.0724, 30.6274, 12.5511, 12.5848, 111.814, -53.6956
0.303703, -1, 35.8809, 30.5294, 12.5901, 12.5874, 111.711, -53.9563
0.312671, -1, 35.6893, 30.4313, 12.6289, 12.5899, 111.608, -54.2166
0.319645, -1, 35.4973, 30.3332, 12.6678, 12.5925, 111.505, -54.4769
0.327682, -1, 35.3051, 30.2349, 12.7066, 12.5951, 111.402, -54.7373
0.335603, -1, 35.1127, 30.1367, 12.7455, 12.5977, 111.298, -54.998
0.343622, -1, 34.9204, 30.0383, 12.7844, 12.6002, 111.195, -55.2588
0.351684, -1, 34.7281, 29.9398, 12.8232, 12.6028, 111.092, -55.5194
0.359607, -1, 34.5358, 29.8413, 12.8621, 12.6054, 110.989, -55.7802
0.367614, -1, 34.3437, 29.7429, 12.9011, 12.6079, 110.886, -56.0411
0.375681, -1, 34.1517, 29.6446, 12.94, 12.6105, 110.783, -56.302
0.383601, -1, 33.9598, 29.5463, 12.9789, 12.6132, 110.68, -56.5628
0.391613, -1, 33.7681, 29.448, 13.0179, 12.6159, 110.577, -56.8235
0.399691, -1, 33.5762, 29.3496, 13.0567, 12.6184, 110.474, -57.0845
0.407603, -1, 33.3841, 29.2513, 13.0956, 12.6211, 110.371, -57.3457
0.415612, -1, 33.1915, 29.1527, 13.1346, 12.6236, 110.268, -57.6065
0.423681, -1, 32.9988, 29.0541, 13.1734, 12.6262, 110.165, -57.8676
0.431621, -1, 32.8059, 28.9555, 13.2123, 12.6289, 110.062, -58.1288
0.439627, -1, 32.6125, 28.8569, 13.2512, 12.6316, 109.959, -58.3902
0.447707, -1, 32.419, 28.7582, 13.29, 12.6342, 109.855, -58.6513
0.455637, -1, 32.2251, 28.6595, 13.329, 12.6369, 109.753, -58.9121
0.463644, -1, 32.031, 28.5607, 13.3678, 12.6396, 109.649, -59.1732
0.471685, -1, 31.8371, 28.4619, 13.4067, 12.6423, 109.546, -59.4346
0.479621, -1, 31.6435, 28.3631, 13.4458, 12.645, 109.443, -59.6961
0.48783, -1, 31.45, 28.2645, 13.4848, 12.6479, 109.34, -59.9572
0.495749, -1, 31.257, 28.1659, 13.5237, 12.6506, 109.237, -60.2185
0.503748, -1, 31.0644, 28.0675, 13.5628, 12.6535, 109.134, -60.48
0.512486, -1, 30.8722, 27.9689, 13.6018, 12.6562, 109.031, -60.7415
0.65006, -1, 27.5884, 26.2896, 14.2644, 12.7007, 107.275, -65.189
0.651305, -1, 27.5884, 26.2896, 14.2644, 12.7007, 107.275, -65.189
0.653994, -1, 27.4922, 26.2401, 14.2839, 12.702, 107.223, -65.3198
0.655187, -1, 27.4922, 26.2401, 14.2839, 12.702, 107.223, -65.3198
0.658054, -1, 27.3961, 26.1906, 14.3034, 12.7032, 107.172, -65.4506
0.659971, -1, 27.3961, 26.1906, 14.3034, 12.7032, 107.172, -65.4506
0.661523, -1, 27.3001, 26.1411, 14.3229, 12.7043, 107.12, -65.5813
0.664863, -1, 27.2039, 26.0916, 14.3425, 12.7055, 107.068, -65.7122
0.666148, -1, 27.2039, 26.0916, 14.3425, 12.7055, 107.068, -65.7122
0.667441, -1, 27.2039, 26.0916, 14.3425, 12.7055, 107.068, -65.7122
0.669491, -1, 27.1077, 26.0421, 14.3619, 12.7066, 107.017, -65.843
0.670773, -1, 27.1077, 26.0421, 14.3619, 12.7066, 107.017, -65.843
0.672854, -1, 27.0114, 25.9926, 14.3813, 12.7078, 106.965, -65.9738
0.674179, -1, 27.0114, 25.9926, 14.3813, 12.7078, 106.965, -65.9738
0.675405, -1, 27.0114, 25.9926, 14.3813, 12.7078, 106.965, -65.9738
0.678435, -1, 26.9151, 25.9432, 14.4007, 12.7089, 106.913, -66.1048
0.680361, -1, 26.8188, 25.8938, 14.4203, 12.7101, 106.862, -66.2358
0.682592, -1, 26.8188, 25.8938, 14.4203, 12.7101, 106.862, -66.2358
0.684493, -1, 26.7223, 25.8443, 14.4398, 12.7113, 106.81, -66.3666
0.685924, -1, 26.7223, 25.8443, 14.4398, 12.7113, 106.81, -66.3666
0.687168, -1, 26.7223, 25.8443, 14.4398, 12.7113, 106.81, -66.3666
0.689232, -1, 26.6257, 25.7949, 14.4593, 12.7124, 106.758, -66.4974
0.696654, -1, 26.4322, 25.696, 14.4981, 12.7147, 106.655, -66.7592
0.703646, -1, 26.3354, 25.6466, 14.5176, 12.7158, 106.604, -66.89
0.710656, -1, 26.1414, 25.5478, 14.5566, 12.718, 106.5, -67.152
0.719598, -1, 25.9473, 25.4488, 14.5955, 12.7203, 106.397, -67.414
0.727607, -1, 25.7531, 25.3501, 14.6345, 12.7227, 106.294, -67.6755
0.735601, -1, 25.5591, 25.2513, 14.6736, 12.7249, 106.191, -67.9369
0.743654, -1, 25.3653, 25.1526, 14.7124, 12.7272, 106.088, -68.1986
0.751599, -1, 25.1718, 25.0539, 14.7515, 12.7295, 105.984, -68.4606
0.758678, -1, 24.9785, 24.9551, 14.7905, 12.7319, 105.881, -68.7222
0.767659, -1, 24.7854, 24.8563, 14.8294, 12.7342, 105.778, -68.9838
0.775641, -1, 24.5926, 24.7574, 14.8684, 12.7366, 105.675, -69.2455
0.783586, -1, 24.4002, 24.6585, 14.9074, 12.739, 105.571, -69.5074
0.79169, -1, 24.2077, 24.5596, 14.9464, 12.7414, 105.468, -69.7689
0.799613, -1, 24.0151, 24.4608, 14.9854, 12.7437, 105.365, -70.0303
0.807608, -1, 23.8223, 24.362, 15.0243, 12.7461, 105.261, -70.292
0.816598, -1, 23.6293, 24.2631, 15.0632, 12.7485, 105.158, -70.5538
0.823619, -1, 23.436, 24.1642, 15.1022, 12.7509, 105.055, -70.8155
0.832596, -1, 23.2423, 24.0653, 15.1411, 12.7533, 104.951, -71.0772
0.839657, -1, 23.0486, 23.9664, 15.1799, 12.7557, 104.848, -71.3389
0.84759, -1, 22.8546, 23.8676, 15.2189, 12.7582, 104.744, -71.601
0.855599, -1, 22.6606, 23.7688, 15.2579, 12.7607, 104.641, -71.8628
0.863651, -1, 22.4669, 23.6701, 15.2969, 12.7631, 104.538, -72.1242
0.871585, -1, 22.2735, 23.5715, 15.3358, 12.7656, 104.434, -72.3856
0.879647, -1, 22.0803, 23.4728, 15.3747, 12.7682, 104.331, -72.6471
0.887589, -1, 21.8873, 23.3741, 15.4137, 12.7708, 104.228, -72.9087
0.895604, -1, 21.6948, 23.2753, 15.4527, 12.7734, 104.124, -73.17
0.903652, -1, 21.5025, 23.1765, 15.4916, 12.7761, 104.021, -73.4313
0.911586, -1, 21.3103, 23.0778, 15.5305, 12.7787, 103.918, -73.6928
0.919592, -1, 21.118, 22.9792, 15.5695, 12.7814, 103.815, -73.9546
0.92765, -1, 20.9256, 22.8805, 15.6084, 12.784, 103.712, -74.2158
0.935616, -1, 20.733, 22.7819, 15.6474, 12.7867, 103.609, -74.4769
0.943594, -1, 20.5404, 22.6833, 15.6863, 12.7894, 103.506, -74.7382
0.951662, -1, 20.3473, 22.5847, 15.7251, 12.7922, 103.403, -74.9995
0.95962, -1, 20.1536, 22.4859, 15.7641, 12.7949, 103.3, -75.2608
0.967606, -1, 19.96, 22.3872, 15.803, 12.7976, 103.197, -75.5218
0.975687, -1, 19.7663, 22.2885, 15.8417, 12.8003, 103.094, -75.783
0.983588, -1, 19.5728, 22.1899, 15.8806, 12.803, 102.991, -76.0443
0.991673, -1, 19.3794, 22.0913, 15.9195, 12.8058, 102.887, -76.3055
0.999606, -1, 19.1863, 21.9926, 15.9583, 12.8085, 102.785, -76.5663
1.00763, -1, 18.9935, 21.894, 15.9973, 12.8113, 102.681, -76.8271
1.01581, -1, 18.801, 21.7953, 16.0361, 12.814, 102.578, -77.0881
1.02368, -1, 18.6089, 21.6965, 16.0749, 12.8167, 102.476, -77.3491
1.03169, -1, 18.4171, 21.5979, 16.1138, 12.8194, 102.373, -77.6097
1.03975, -1, 18.2252, 21.4994, 16.1527, 12.8221, 102.27, -77.8704
1.04769, -1, 18.0333, 21.4009, 16.1914, 12.8247, 102.167, -78.1312
1.0556, -1, 17.8414, 21.3026, 16.2304, 12.8272, 102.064, -78.3922
1.06366, -1, 17.6494, 21.2042, 16.2693, 12.8298, 101.961, -78.6528
1.07161, -1, 17.4571, 21.1059, 16.3081, 12.8323, 101.858, -78.9131
1.07969, -1, 17.2642, 21.0076, 16.347, 12.8347, 101.755, -79.1737
1.08772, -1, 17.0711, 20.9093, 16.3857, 12.8372, 101.652, -79.4344
1.09577, -1, 16.8782, 20.8111, 16.4245, 12.8397, 101.549, -79.695
1.10389, -1, 16.6851, 20.7129, 16.4633, 12.8419, 101.447, -79.9555
1.11193, -1, 16.4921, 20.6147, 16.502, 12.8443, 101.344, -80.216
1.11994, -1, 16.2992, 20.5164, 16.5407, 12.8466, 101.241, -80.4767
1.12659, -1, 16.203, 20.4672, 16.5601, 12.8478, 101.19, -80.607
1.1361, -1, 15.915, 20.3196, 16.6182, 12.8512, 101.036, -80.9974
1.14415, -1, 15.7232, 20.2211, 16.657, 12.8536, 100.933, -81.2574
1.15223, -1, 15.5318, 20.1227, 16.6956, 12.8559, 100.831, -81.5175
1.16014, -1, 15.3407, 20.0244, 16.7342, 12.8582, 100.728, -81.7776
1.16817, -1, 15.2451, 19.9261, 16.773, 12.8605, 100.625, -82.0375
1.17631, -1, 15.054, 19.8279, 16.8117, 12.8628, 100.523, -82.2974
1.18357, -1, 14.8627, 19.7788, 16.831, 12.8639, 100.472, -82.4272
1.19158, -1, 14.6714, 19.6807, 16.8697, 12.8663, 100.369, -82.6873
1.19962, -1, 14.4798, 19.5826, 16.9085, 12.8685, 100.266, -82.9472
1.20758, -1, 14.2877, 19.4845, 16.9471, 12.8708, 100.164, -83.2068
1.21559, -1, 14.0954, 19.3865, 16.9859, 12.8731, 100.061, -83.4662
1.22363, -1, 13.903, 19.2885, 17.0245, 12.8754, 99.9587, -83.7258
1.23157, -1, 13.7106, 19.1907, 17.063, 12.8777, 99.8565, -83.9856
1.23958, -1, 13.5182, 19.0929, 17.1018, 12.88, 99.7538, -84.2448
1.24757, -1, 13.326, 18.995, 17.1404, 12.8823, 99.6514, -84.5041
1.25566, -1, 13.1342, 18.8971, 17.1789, 12.8846, 99.5492, -84.7634
1.26365, -1, 12.9428, 18.7991, 17.2176, 12.887, 99.4466, -85.0229
1.27167, -1, 12.7517, 18.7011, 17.2562, 12.8893, 99.3442, -85.2822
1.27957, -1, 12.5608, 18.6032, 17.2947, 12.8918, 99.2421, -85.5411
1.28766, -1, 12.3703, 18.5055, 17.3333, 12.8942, 99.1398, -85.8
1.29563, -1, 12.1802, 18.4077, 17.3717, 12.8966, 99.0376, -86.0591
1.3036, -1, 11.9899, 18.31, 17.4103, 12.8991, 98.9355, -86.318
1.31259, -1, 11.7995, 18.2124, 17.449, 12.9014, 98.8334, -86.5766
1.31958, -1, 11.6088, 18.1148, 17.4875, 12.9039, 98.7317, -86.8352
1.32858, -1, 11.4179, 18.0171, 17.5259, 12.9063, 98.6298, -87.0939
1.33639, -1, 11.2268, 17.9196, 17.5645, 12.9088, 98.5279, -87.3526
1.34357, -1, 11.0354, 17.822, 17.6031, 12.9112, 98.4261, -87.6108
1.35258, -1, 10.8439, 17.7247, 17.6415, 12.9137, 98.324, -87.8689
1.36038, -1, 10.6523, 17.6271, 17.68, 12.9162, 98.222, -88.1272
1.36757, -1, 10.4608, 17.5296, 17.7183, 12.9187, 98.1203, -88.3856
1.37567, -1, 10.2697, 17.4321, 17.7568, 12.9212, 98.0184, -88.6437
1.38435, -1, 10.0788, 17.3346, 17.7952, 12.9238, 97.9165, -88.9017
1.39158, -1, 9.88834, 17.237, 17.8335, 12.9265, 97.8147, -89.1597
1.39964, -1, 9.69817, 17.1394, 17.8719, 12.9291, 97.7126, -89.4178
1.40839, -1, 9.50849, 17.042, 17.9102, 12.9319, 97.6107, -89.6758
1.41559, -1, 9.31922, 16.9447, 17.9485, 12.9346, 97.5089, -89.9334
1.42365, -1, 9.12986, 16.8473, 17.9869, 12.9372, 97.407, -90.1908
1.4324, -1, 8.94048, 16.7501, 18.0252, 12.9399, 97.3052, -90.4485
1.43959, -1, 8.75091, 16.653, 18.0635, 12.9425, 97.2035, -90.706
1.44766, -1, 8.56131, 16.5558, 18.102, 12.9452, 97.1019, -90.9631
1.45636, -1, 8.37155, 16.4587, 18.1403, 12.9479, 97.0005, -91.2204
1.46361, -1, 8.18129, 16.3617, 18.1786, 12.9505, 96.8989, -91.4776
1.47167, -1, 7.99088, 16.2648, 18.217, 12.9532, 96.7973, -91.7349
1.48036, -1, 7.80043, 16.1679, 18.2552, 12.9559, 96.6959, -91.9918
1.48763, -1, 7.60983, 16.071, 18.2935, 12.9584, 96.5944, -92.2484
1.49563, -1, 7.41946, 15.974, 18.3318, 12.961, 96.493, -92.5052
1.50432, -1, 7.22937, 15.8771, 18.3699, 12.9636, 96.3917, -92.762
1.51171, -1, 7.03951, 15.7801, 18.4081, 12.9662, 96.2903, -93.0187
1.51971, -1, 6.85004, 15.6831, 18.4465, 12.9688, 96.1891, -93.2752
1.52838, -1, 6.66103, 15.5863, 18.4845, 12.9713, 96.0884, -93.5315
1.53575, -1, 6.47251, 15.4895, 18.5226, 12.9738, 95.9872, -93.788
1.5437, -1, 6.28423, 15.3928, 18.5608, 12.9763, 95.8861, -94.0444
1.5524, -1, 6.09611, 15.296, 18.5989, 12.9789, 95.7854, -94.3004
1.5598, -1, 5.90784, 15.1993, 18.637, 12.9813, 95.6843, -94.5563
1.56759, -1, 5.71949, 15.1027, 18.6752, 12.9836, 95.5834, -94.8121
1.57647, -1, 5.53098, 15.0061, 18.7132, 12.986, 95.4828, -95.0681
1.58368, -1, 5.34226, 14.9095, 18.7513, 12.9882, 95.3818, -95.3238
1.59181, -1, 5.15315, 14.8131, 18.7895, 12.9905, 95.2812, -95.5792
1.60063, -1, 4.96379, 14.7168, 18.8275, 12.9928, 95.1807, -95.8347
1.60787, -1, 4.77447, 14.6204, 18.8655, 12.9951, 95.0798, -96.0903
1.61593, -1, 4.58504, 14.524, 18.9036, 12.9973, 94.979, -96.3455
1.62401, -1, 4.3959, 14.4277, 18.9416, 12.9995, 94.8783, -96.6004
1.63201, -1, 4.20693, 14.3313, 18.9796, 13.0017, 94.7774, -96.8553
1.64019, -1, 4.01827, 14.2349, 19.0176, 13.004, 94.6767, -97.1105
1.6482, -1, 3.83014, 14.1387, 19.0555, 13.0063, 94.5758, -97.3656
1.65612, -1, 3.64256, 14.0425, 19.0935, 13.0084, 94.4751, -97.6202
1.6649, -1, 3.45539, 13.9463, 19.1314, 13.0108, 94.3745, -97.8749
1.6722, -1, 3.2684, 13.8503, 19.1692, 13.0132, 94.2738, -98.1295
1.68016, -1, 3.17485, 13.8022, 19.1881, 13.0143, 94.1731, -98.3845
1.68757, -1, 2.98786, 13.7062, 19.2261, 13.0165, 94.1227, -98.5117
1.6946, -1, 2.80084, 13.6101, 19.264, 13.0187, 94.0222, -98.7659
1.70468, -1, 2.51998, 13.4661, 19.3209, 13.0222, 93.8713, -99.147
1.71159, -1, 2.42629, 13.4182, 19.3398, 13.0233, 93.8211, -99.2741
1.71961, -1, 2.23872, 13.3223, 19.3775, 13.0256, 93.721, -99.5282
1.72659, -1, 2.05069, 13.2266, 19.4154, 13.0278, 93.6206, -99.7821
1.73558, -1, 1.86261, 13.1307, 19.4533, 13.03, 93.5206, -100.036
1.74363, -1, 1.67452, 13.0348, 19.491, 13.0323, 93.4207, -100.289
1.75058, -1, 1.48631, 12.939, 19.5288, 13.0345, 93.3205, -100.543
1.75957, -1, 1.2984, 12.8431, 19.5666, 13.0369, 93.2205, -100.796
1.76761, -1, 1.1108, 12.7473, 19.6043, 13.0392, 93.1206, -101.05
1.77561, -1, 0.92369, 12.6517, 19.6421, 13.0416, 93.0205, -101.303
1.78357, -1, 0.737085, 12.5561, 19.6798, 13.0439, 92.9208, -101.556
1.79164, -1, 0.550988, 12.4605, 19.7174, 13.0464, 92.8209, -101.809
1.79956, -1, 0.36516, 12.3651, 19.7551, 13.0488, 92.7211, -102.062
1.80759, -1, 0.179509, 12.2697, 19.7927, 13.0513, 92.6218, -102.314
1.81713, -1, -0.00590902, 12.1744, 19.8302, 13.0537, 92.5222, -102.567
1.82362, -1, -0.191433, 12.0791, 19.8679, 13.0561, 92.4225, -102.819
1.83257, -1, -0.377236, 11.9839, 19.9056, 13.0585, 92.3231, -103.072
1.83858, -1, -0.563312, 11.8888, 19.9431, 13.061, 92.2236, -103.324
1.84756, -1, -0.749612, 11.7938, 19.9806, 13.0635, 92.1241, -103.576
1.85556, -1, -0.93606, 11.6987, 20.0181, 13.066, 92.0248, -103.828
1.8636, -1, -1.12275, 11.6036, 20.0555, 13.0685, 91.9254, -104.08
1.87158, -1, -1.30971, 11.5086, 20.0931, 13.071, 91.826, -104.331
1.87964, -1, -1.49655, 11.4135, 20.1306, 13.0735, 91.727, -104.583
1.88757, -1, -1.6831, 11.3183, 20.1679, 13.0761, 91.6278, -104.835
1.89556, -1, -1.86937, 11.2233, 20.2054, 13.0787, 91.5285, -105.086
1.90363, -1, -2.05521, 11.1283, 20.2428, 13.0814, 91.4295, -105.337
1.91156, -1, -2.24036, 11.0334, 20.2802, 13.084, 91.3302, -105.588
1.91956, -1, -2.42514, 10.9386, 20.3176, 13.0866, 91.231, -105.839
1.92763, -1, -2.60964, 10.8438, 20.355, 13.0894, 91.1321, -106.09
1.93556, -1, -2.79367, 10.7491, 20.3922, 13.092, 91.0329, -106.341
1.94358, -1, -2.97757, 10.6543, 20.4296, 13.0946, 90.9338, -106.592
1.95163, -1, -3.16165, 10.5596, 20.467, 13.0972, 90.8351, -106.842
1.95956, -1, -3.34595, 10.4651, 20.5041, 13.0998, 90.7361, -107.093
1.96757, -1, -3.53059, 10.3706, 20.5414, 13.1024, 90.6371, -107.343
1.97565, -1, -3.71536, 10.2762, 20.5787, 13.105, 90.5385, -107.594
1.98356, -1, -3.90036, 10.1819, 20.6159, 13.1074, 90.4396, -107.843
1.99163, -1, -4.08563, 10.0875, 20.6532, 13.1099, 90.3409, -108.093
1.99956, -1, -4.27116, 9.99319, 20.6904, 13.1124, 90.2424, -108.343
2.0076, -1, -4.45671, 9.89886, 20.7275, 13.1147, 90.1437, -108.593
2.0157, -1, -4.64197, 9.80453, 20.7648, 13.117, 90.0453, -108.843
2.02371, -1, -4.82689, 9.71032, 20.802, 13.1194, 89.9469, -109.092
2.03169, -1, -5.01138, 9.61622, 20.839, 13.1219, 89.8483, -109.342
2.03973, -1, -5.19522, 9.52218, 20.8762, 13.1242, 89.7499, -109.591
2.04769, -1, -5.3786, 9.42814, 20.9133, 13.1265, 89.6517, -109.84
2.05575, -1, -5.56161, 9.33422, 20.9503, 13.1288, 89.5531, -110.089
2.06383, -1, -5.74417, 9.24029, 20.9875, 13.1311, 89.455, -110.338
2.07158, -1, -5.92653, 9.14637, 21.0245, 13.1335, 89.357, -110.586
2.0796, -1, -6.10896, 9.05251, 21.0615, 13.1357, 89.2587, -110.835
2.0877, -1, -6.29165, 8.9587, 21.0986, 13.1379, 89.1607, -111.083
2.09569, -1, -6.47459, 8.86505, 21.1355, 13.1401, 89.0629, -111.332
2.10384, -1, -6.65775, 8.77138, 21.1723, 13.1423, 88.9649, -111.58
2.1119, -1, -6.84127, 8.67776, 21.2093, 13.1445, 88.8668, -111.828
2.11994, -1, -7.0251, 8.58412, 21.2462, 13.1465, 88.7691, -112.076
2.12664, -1, -7.11712, 8.53732, 21.2646, 13.1476, 88.72, -112.2
2.13601, -1, -7.39347, 8.39691, 21.32, 13.1508, 88.5733, -112.571
2.14408, -1, -7.57725, 8.30327, 21.3568, 13.1529, 88.4759, -112.819
2.15218, -1, -7.76081, 8.20983, 21.3935, 13.1551, 88.3782, -113.066
2.16015, -1, -7.94385, 8.11647, 21.4304, 13.1574, 88.2809, -113.313
2.16814, -1, -8.12643, 8.02313, 21.4672, 13.1597, 88.1835, -113.561
2.1762, -1, -8.30832, 7.92986, 21.5039, 13.1619, 88.0861, -113.808
2.18412, -1, -8.39908, 7.88323, 21.5223, 13.163, 87.9887, -114.055
2.19155, -1, -8.58029, 7.78997, 21.5592, 13.1652, 87.9401, -114.178
2.20023, -1, -8.7612, 7.69679, 21.5959, 13.1675, 87.8427, -114.425
2.20759, -1, -8.9419, 7.60362, 21.6327, 13.1698, 87.7451, -114.671
2.21557, -1, -9.12284, 7.51054, 21.6694, 13.172, 87.648, -114.917
2.22355, -1, -9.30398, 7.41763, 21.7061, 13.1743, 87.5507, -115.164
2.23157, -1, -9.48542, 7.32483, 21.7427, 13.1764, 87.4535, -115.41
2.23961, -1, -9.66721, 7.23195, 21.7794, 13.1787, 87.3566, -115.656
2.24763, -1, -9.84932, 7.13922, 21.816, 13.181, 87.2593, -115.902
2.25564, -1, -10.0318, 7.0465, 21.8526, 13.1831, 87.1621, -116.148
2.26364, -1, -10.2143, 6.95373, 21.8892, 13.1854, 87.0651, -116.394
2.27155, -1, -10.397, 6.86095, 21.9258, 13.1876, 86.9677, -116.639
2.27957, -1, -10.5795, 6.76822, 21.9624, 13.1897, 86.8708, -116.885
2.28761, -1, -10.7615, 6.67558, 21.9989, 13.192, 86.7739, -117.13
2.29557, -1, -10.943, 6.58302, 22.0353, 13.1946, 86.6769, -117.376
2.30356, -1, -11.1239, 6.49046, 22.0718, 13.1969, 86.5801, -117.621
2.3131, -1, -11.3041, 6.39796, 22.1084, 13.1993, 86.4837, -117.866
2.31955, -1, -11.4839, 6.30549, 22.1449, 13.2018, 86.3868, -118.11
2.32862, -1, -11.6633, 6.21307, 22.1813, 13.2041, 86.2901, -118.355
2.33563, -1, -11.8426, 6.12067, 22.2178, 13.2067, 86.1936, -118.6
2.34355, -1, -12.0218, 6.02841, 22.2542, 13.2091, 86.0969, -118.844
2.35156, -1, -12.2011, 5.93625, 22.2906, 13.2116, 86.0004, -119.088
2.35961, -1, -12.3808, 5.84422, 22.3271, 13.2141, 85.9042, -119.332
2.36755, -1, -12.5609, 5.75216, 22.3633, 13.2165, 85.8078, -119.577
2.37561, -1, -12.7413, 5.66016, 22.3996, 13.219, 85.7115, -119.821
2.38356, -1, -12.9222, 5.56824, 22.436, 13.2215, 85.6156, -120.064
2.39156, -1, -13.1033, 5.47632, 22.4723, 13.2239, 85.5195, -120.308
2.39964, -1, -13.2845, 5.38427, 22.5085, 13.2263, 85.4235, -120.552
2.40755, -1, -13.4656, 5.29233, 22.5448, 13.2287, 85.3278, -120.795
2.41555, -1, -13.6462, 5.20044, 22.581, 13.2313, 85.232, -121.038
2.42385, -1, -13.8264, 5.10862, 22.617, 13.2338, 85.1362, -121.281
2.43159, -1, -14.0061, 5.01675, 22.6533, 13.2364, 85.0406, -121.524
2.43954, -1, -14.1848, 4.92504, 22.6894, 13.239, 84.945, -121.767
2.44837, -1, -14.3631, 4.83334, 22.7254, 13.2416, 84.8493, -122.01
2.45554, -1, -14.5411, 4.74169, 22.7617, 13.2442, 84.7539, -122.252
2.46355, -1, -14.7187, 4.65012, 22.7979, 13.2467, 84.6582, -122.495
2.47234, -1, -14.8963, 4.55864, 22.8339, 13.2492, 84.5624, -122.737
2.47957, -1, -15.074, 4.46717, 22.8701, 13.2517, 84.4668, -122.98
2.48755, -1, -15.252, 4.37588, 22.9062, 13.2541, 84.3711, -123.221
2.49637, -1, -15.4303, 4.28456, 22.9422, 13.2565, 84.2755, -123.463
2.50355, -1, -15.6093, 4.19327, 22.9782, 13.2588, 84.1799, -123.705
2.51165, -1, -15.7885, 4.10201, 23.0142, 13.2611, 84.0844, -123.947
2.52042, -1, -15.9677, 4.0108, 23.0501, 13.2634, 83.9889, -124.188
2.52764, -1, -16.1473, 3.9195, 23.086, 13.2656, 83.8936, -124.43
2.53571, -1, -16.3271, 3.82822, 23.122, 13.2677, 83.7981, -124.671
2.54444, -1, -16.5065, 3.73705, 23.1578, 13.2699, 83.7026, -124.913
2.55169, -1, -16.6854, 3.64594, 23.1937, 13.2721, 83.6072, -125.154
2.55972, -1, -16.8639, 3.55483, 23.2295, 13.2744, 83.5118, -125.395
2.56909, -1, -17.0415, 3.46379, 23.2653, 13.2766, 83.4165, -125.636
2.57558, -1, -17.2184, 3.37284, 23.3012, 13.2788, 83.3212, -125.876
2.58364, -1, -17.3949, 3.28199, 23.337, 13.2811, 83.2262, -126.117
2.5916, -1, -17.5712, 3.19115, 23.3728, 13.2832, 83.1311, -126.358
2.59974, -1, -17.7472, 3.10054, 23.4086, 13.2855, 83.0363, -126.598
2.60799, -1, -17.9232, 3.00995, 23.4445, 13.2875, 82.9416, -126.838
2.6158, -1, -18.0994, 2.91951, 23.4802, 13.2896, 82.8466, -127.078
2.62398, -1, -18.276, 2.82916, 23.5159, 13.2918, 82.7519, -127.319
2.63206, -1, -18.453, 2.73873, 23.5518, 13.2938, 82.6574, -127.558
2.63998, -1, -18.6304, 2.64833, 23.5874, 13.2959, 82.5627, -127.798
2.64817, -1, -18.8081, 2.55802, 23.623, 13.2979, 82.4681, -128.037
2.65619, -1, -18.9861, 2.46758, 23.6588, 13.2999, 82.3738, -128.277
2.66411, -1, -19.1644, 2.37708, 23.6943, 13.3019, 82.2793, -128.516
2.67218, -1, -19.3426, 2.28675, 23.7299, 13.3039, 82.1849, -128.755
2.68011, -1, -19.4315, 2.24157, 23.7656, 13.306, 82.091, -128.994
2.68807, -1, -19.6089, 2.15117, 23.7833, 13.3071, 82.0438, -129.234
2.69454, -1, -19.7858, 2.06084, 23.8187, 13.3093, 81.9496, -129.353
2.70354, -1, -19.962, 1.97059, 23.8542, 13.3115, 81.8554, -129.592
2.71154, -1, -20.1374, 1.88035, 23.8898, 13.3136, 81.7615, -129.831
2.71961, -1, -20.3124, 1.7902, 23.9252, 13.3159, 81.6674, -130.069
2.72753, -1, -20.4871, 1.70013, 23.9606, 13.318, 81.5734, -130.307
2.73555, -1, -20.6615, 1.61012, 23.9962, 13.3203, 81.4796, -130.546
2.74355, -1, -20.836, 1.52017, 24.0316, 13.3224, 81.3856, -130.784
2.75155, -1, -21.0108, 1.43039, 24.067, 13.3246, 81.2919, -131.022
2.7596, -1, -21.186, 1.34065, 24.1026, 13.3267, 81.1983, -131.26
2.76757, -1, -21.3615, 1.25086, 24.138, 13.3289, 81.1043, -131.497
2.77557, -1, -21.5375, 1.16117, 24.1733, 13.3311, 81.0104, -131.735
2.7836, -1, -21.7136, 1.07154, 24.2087, 13.3333, 80.9168, -131.973
2.79154, -1, -21.8898, 0.981869, 24.2441, 13.3355, 80.8229, -132.21
2.7996, -1, -22.0663, 0.892237, 24.2794, 13.3376, 80.7291, -132.447
2.80754, -1, -22.243, 0.802677, 24.3148, 13.3398, 80.6356, -132.685
2.81556, -1, -22.4194, 0.713174, 24.3501, 13.342, 80.5419, -132.922
2.82456, -1, -22.5951, 0.623632, 24.3852, 13.3444, 80.4483, -133.159
2.83154, -1, -22.7705, 0.534229, 24.4204, 13.3468, 80.3549, -133.395
2.84055, -1, -22.945, 0.444805, 24.4557, 13.3491, 80.2611, -133.632
2.8476, -1, -23.1187, 0.355393, 24.4908, 13.3516, 80.1676, -133.869
2.85553, -1, -23.2921, 0.266052, 24.5259, 13.3541, 80.0743, -134.106
2.86353, -1, -23.4652, 0.176737, 24.5611, 13.3565, 79.9806, -134.342
2.87161, -1, -23.6384, 0.0875567, 24.5963, 13.3589, 79.8874, -134.578
2.87953, -1, -23.8118, -0.00157455, 24.6314, 13.3612, 79.7943, -134.814
2.88757, -1, -23.9852, -0.0905513, 24.6666, 13.3636, 79.7011, -135.05
2.89559, -1, -24.1589, -0.17953, 24.7016, 13.3661, 79.608, -135.286
2.90355, -1, -24.3328, -0.268505, 24.7367, 13.3685, 79.515, -135.522
2.91153, -1, -24.5071, -0.357399, 24.7719, 13.371, 79.4219, -135.757
2.9196, -1, -24.6816, -0.446291, 24.8069, 13.3734, 79.3288, -135.993
2.92755, -1, -24.8565, -0.535172, 24.8419, 13.3758, 79.2358, -136.229
2.93556, -1, -25.0317, -0.624042, 24.877, 13.3782, 79.1429, -136.464
2.9436, -1, -25.2067, -0.712901, 24.912, 13.3806, 79.0499, -136.699
2.95155, -1, -25.3811, -0.801621, 24.947, 13.383, 78.9571, -136.934
2.95953, -1, -25.5553, -0.890453, 24.9821, 13.3855, 78.8645, -137.169
2.96761, -1, -25.729, -0.979186, 25.017, 13.388, 78.7717, -137.404
2.97553, -1, -25.9018, -1.06786, 25.0518, 13.3903, 78.6791, -137.638
2.98355, -1, -26.0742, -1.1566, 25.0869, 13.3928, 78.5869, -137.873
2.9916, -1, -26.2463, -1.24526, 25.1218, 13.3952, 78.4942, -138.107
2.99953, -1, -26.4181, -1.33376, 25.1567, 13.3975, 78.4015, -138.342
3.00755, -1, -26.5899, -1.42219, 25.1916, 13.3998, 78.3093, -138.576
3.01564, -1, -26.762, -1.51055, 25.2266, 13.4021, 78.2167, -138.811
3.02362, -1, -26.9342, -1.59874, 25.2615, 13.4044, 78.1242, -139.044
3.03169, -1, -27.1066, -1.68688, 25.2964, 13.4066, 78.0322, -139.278
3.03962, -1, -27.2791, -1.77514, 25.3313, 13.4087, 77.94, -139.512
3.04768, -1, -27.4519, -1.86323, 25.3661, 13.4109, 77.8479, -139.746
3.05572, -1, -27.6251, -1.95129, 25.4009, 13.4131, 77.756, -139.979
3.0636, -1, -27.7984, -2.03949, 25.4358, 13.4152, 77.6639, -140.213
3.07156, -1, -27.9717, -2.12754, 25.4706, 13.4173, 77.5719, -140.446
3.07973, -1, -28.145, -2.21557, 25.5053, 13.4194, 77.4799, -140.68
3.08762, -1, -28.3181, -2.30361, 25.5401, 13.4214, 77.3878, -140.913
3.0956, -1, -28.4909, -2.39169, 25.5749, 13.4235, 77.2957, -141.146
3.10384, -1, -28.6633, -2.47963, 25.6095, 13.4256, 77.2037, -141.379
3.11174, -1, -28.8352, -2.56764, 25.6443, 13.4277, 77.1117, -141.612
3.11979, -1, -29.0061, -2.65562, 25.679, 13.4299, 77.0198, -141.844
3.1281, -1, -29.1768, -2.74347, 25.7135, 13.4321, 76.9279, -142.077
3.13594, -1, -29.3474, -2.83128, 25.7482, 13.4341, 76.8362, -142.309
3.144, -1, -29.5181, -2.91901, 25.783, 13.4363, 76.7442, -142.542
3.15054, -1, -29.6035, -2.96278, 25.8002, 13.4373, 76.6984, -142.658
3.1601, -1, -29.86, -3.09411, 25.8521, 13.4403, 76.5607, -143.007
3.16811, -1, -30.0309, -3.18157, 25.8867, 13.4425, 76.4687, -143.239
3.17698, -1, -30.2018, -3.26911, 25.9212, 13.4445, 76.377, -143.471
3.18412, -1, -30.2874, -3.31283, 25.9385, 13.4466, 76.2855, -143.702
3.19212, -1, -30.4588, -3.40023, 25.9731, 13.4476, 76.1939, -143.934
3.19954, -1, -30.6304, -3.48774, 26.0076, 13.4496, 76.1482, -144.05
3.20753, -1, -30.8023, -3.57516, 26.0421, 13.4517, 76.0568, -144.282
3.21557, -1, -30.9742, -3.66253, 26.0767, 13.4536, 75.9656, -144.513
3.22355, -1, -31.1459, -3.74989, 26.1113, 13.4557, 75.8741, -144.744
3.23157, -1, -31.3174, -3.83723, 26.1457, 13.4577, 75.7828, -144.976
3.23955, -1, -31.4886, -3.92457, 26.1801, 13.4599, 75.6917, -145.207
3.24753, -1, -31.6592, -4.01181, 26.2147, 13.4621, 75.6002, -145.438
3.25564, -1, -31.8294, -4.09912, 26.2491, 13.4642, 75.509, -145.669
3.26352, -1, -31.9993, -4.18639, 26.2835, 13.4664, 75.4181, -145.9
3.27157, -1, -32.1688, -4.27352, 26.318, 13.4686, 75.3269, -146.131
3.27958, -1, -32.3381, -4.36065, 26.3523, 13.4708, 75.2358, -146.362
3.28753, -1, -32.5077, -4.44766, 26.3866, 13.4729, 75.145, -146.592
3.29555, -1, -32.6774, -4.53459, 26.4211, 13.4751, 75.0541, -146.822
3.30359, -1, -32.8469, -4.62149, 26.4554, 13.4772, 74.9633, -147.053
3.31152, -1, -33.0166, -4.70843, 26.4896, 13.4794, 74.8725, -147.283
3.32052, -1, -33.1864, -4.79535, 26.5239, 13.4816, 74.7821, -147.513
3.32759, -1, -33.3563, -4.88218, 26.5583, 13.4838, 74.6913, -147.743
3.3366, -1, -33.5266, -4.96913, 26.5925, 13.4861, 74.6006, -147.973
3.34353, -1, -33.6969, -5.05603, 26.6268, 13.4883, 74.5103, -148.203
3.35159, -1, -33.8672, -5.14277, 26.661, 13.4905, 74.4195, -148.433
3.35953, -1, -34.0375, -5.22947, 26.6952, 13.4927, 74.3291, -148.662
3.36792, -1, -34.2076, -5.31622, 26.7293, 13.4949, 74.2387, -148.892
3.37786, -1, -34.4627, -5.44619, 26.7808, 13.4984, 74.1027, -149.236
3.38352, -1, -34.5476, -5.4895, 26.7978, 13.4996, 74.0574, -149.35
3.39241, -1, -34.7167, -5.57619, 26.8319, 13.5019, 73.9669, -149.58
3.39952, -1, -34.8854, -5.66281, 26.8661, 13.5043, 73.8763, -149.809
3.40754, -1, -35.0539, -5.74932, 26.9002, 13.5069, 73.7858, -150.038
3.41564, -1, -35.2222, -5.83581, 26.9343, 13.5093, 73.6955, -150.267
3.42352, -1, -35.3904, -5.92218, 26.9684, 13.5117, 73.6052, -150.496
3.43152, -1, -35.559, -6.00838, 27.0025, 13.514, 73.5149, -150.725
3.4408, -1, -35.7275, -6.09462, 27.0365, 13.5164, 73.4245, -150.953
3.44754, -1, -35.896, -6.18079, 27.0706, 13.5188, 73.3343, -151.182
3.45571, -1, -36.0646, -6.26691, 27.1047, 13.5212, 73.2438, -151.41
3.46352, -1, -36.233, -6.35301, 27.1386, 13.5236, 73.1534, -151.639
3.47152, -1, -36.4017, -6.43922, 27.1726, 13.526, 73.0632, -151.867
3.47958, -1, -36.5706, -6.52543, 27.2065, 13.5284, 72.9727, -152.095
3.48753, -1, -36.7395, -6.61159, 27.2405, 13.5307, 72.8825, -152.324
3.49552, -1, -36.9084, -6.69774, 27.2744, 13.533, 72.7924, -152.552
3.50358, -1, -37.0774, -6.7839, 27.3083, 13.5353, 72.7023, -152.78
3.5116, -1, -37.2462, -6.87, 27.3422, 13.5376, 72.6124, -153.008
3.51957, -1, -37.4147, -6.95602, 27.376, 13.5398, 72.5225, -153.235
3.52767, -1, -37.5829, -7.04208, 27.41, 13.5421, 72.4326, -153.463
3.5356, -1, -37.7507, -7.12812, 27.444, 13.5444, 72.3428, -153.69
3.54362, -1, -37.9184, -7.21409, 27.4778, 13.5466, 72.253, -153.918
3.55175, -1, -38.0857, -7.30001, 27.5116, 13.5488, 72.1633, -154.145
3.55964, -1, -38.2532, -7.38593, 27.5456, 13.551, 72.0735, -154.373
3.56757, -1, -38.4204, -7.47167, 27.5794, 13.5532, 71.9838, -154.6
3.57643, -1, -38.5876, -7.55738, 27.6132, 13.5552, 71.8944, -154.827
3.58355, -1, -38.755, -7.6431, 27.6472, 13.5573, 71.8046, -155.054
3.59163, -1, -38.9222, -7.72878, 27.6809, 13.5593, 71.7151, -155.281
3.60041, -1, -39.0895, -7.81437, 27.7146, 13.5614, 71.6261, -155.508
3.60768, -1, -39.2571, -7.90004, 27.7484, 13.5635, 71.5365, -155.735
3.61573, -1, -39.4246, -7.98575, 27.7822, 13.5654, 71.4471, -155.962
3.62476, -1, -39.5922, -8.07129, 27.8159, 13.5675, 71.3578, -156.188
3.63193, -1, -39.7598, -8.15681, 27.8495, 13.5694, 71.2685, -156.415
3.63997, -1, -39.9274, -8.24232, 27.8833, 13.5713, 71.1792, -156.641
3.6488, -1, -40.0951, -8.3278, 27.9169, 13.5732, 71.0897, -156.868
3.65605, -1, -40.2625, -8.4132, 27.9506, 13.5753, 71.0007, -157.094
3.66408, -1, -40.4298, -8.49862, 27.9844, 13.5772, 70.9112, -157.32
3.67309, -1, -40.5969, -8.58403, 28.018, 13.5791, 70.822, -157.546
3.68007, -1, -40.7637, -8.66942, 28.0515, 13.5812, 70.7331, -157.772
3.68814, -1, -40.9303, -8.75474, 28.0852, 13.5832, 70.6438, -157.998
3.69689, -1, -41.0135, -8.79741, 28.1021, 13.5843, 70.5993, -158.111
3.70351, -1, -41.1798, -8.88268, 28.1357, 13.5863, 70.5101, -158.337
3.71163, -1, -41.346, -8.96784, 28.1692, 13.5883, 70.421, -158.563
3.7195, -1, -41.5121, -9.05299, 28.2029, 13.5903, 70.3317, -158.788
3.72863, -1, -41.7617, -9.18069, 28.2532, 13.5933, 70.1981, -159.126
3.73554, -1, -41.8449, -9.22324, 28.27, 13.5943, 70.1536, -159.239
3.74352, -1, -42.0112, -9.30824, 28.3036, 13.5963, 70.0644, -159.465
3.75282, -1, -42.2606, -9.43591, 28.354, 13.5993, 69.931, -159.803
3.75951, -1, -42.3437, -9.47846, 28.3708, 13.6004, 69.8868, -159.915
3.7675, -1, -42.51, -9.56344, 28.4043, 13.6024, 69.7977, -160.14
3.77563, -1, -42.6764, -9.64847, 28.4379, 13.6044, 69.7088, -160.366
3.78351, -1, -42.8429, -9.73346, 28.4713, 13.6065, 69.62, -160.591
3.79157, -1, -43.0094, -9.81841, 28.5047, 13.6085, 69.5312, -160.816
3.79957, -1, -43.1757, -9.90336, 28.5382, 13.6105, 69.4425, -161.041
3.8075, -1, -43.3418, -9.9883, 28.5717, 13.6126, 69.3538, -161.265
3.81736, -1, -43.5079, -10.0732, 28.6052, 13.6147, 69.2209, -161.603
3.82359, -1, -43.6738, -10.1582, 28.6387, 13.6168, 69.1766, -161.715
3.83258, -1, -43.8396, -10.243, 28.6721, 13.6189, 69.0882, -161.94
3.8395, -1, -44.0053, -10.3278, 28.7055, 13.6212, 68.9998, -162.164
3.84756, -1, -44.1707, -10.4125, 28.739, 13.6232, 68.9111, -162.388
3.85552, -1, -44.3359, -10.4971, 28.7725, 13.6254, 68.8225, -162.613
3.8635, -1, -44.5011, -10.5817, 28.8058, 13.6276, 68.734, -162.837
3.87164, -1, -44.6663, -10.6662, 28.8392, 13.6298, 68.6453, -163.061
3.8795, -1, -44.8316, -10.7507, 28.8727, 13.632, 68.5567, -163.285
3.88751, -1, -44.9969, -10.8351, 28.906, 13.6342, 68.4682, -163.509
3.89558, -1, -45.1622, -10.9197, 28.9394, 13.6364, 68.38, -163.733
3.9035, -1, -45.3276, -11.0042, 28.9728, 13.6386, 68.2914, -163.957
3.91159, -1, -45.4928, -11.0887, 29.0061, 13.6409, 68.203, -164.181
3.91956, -1, -45.6581, -11.1731, 29.0392, 13.6432, 68.1151, -164.405
3.9275, -1, -45.8234, -11.2576, 29.0726, 13.6454, 68.0264, -164.628
3.9355, -1, -45.9876, -11.3414, 29.106, 13.6478, 67.9381, -164.852
3.9437, -1, -46.149, -11.4237, 29.1395, 13.65, 67.8501, -165.075
3.95157, -1, -46.3059, -11.5031, 29.1731, 13.6524, 67.7626, -165.296
3.9595, -1, -46.4561, -11.578, 29.2066, 13.6548, 67.6774, -165.512
3.96756, -1, -46.5972, -11.6479, 29.2388, 13.6571, 67.5959, -165.717
3.9755, -1, -46.7267, -11.7111, 29.2687, 13.6593, 67.5213, -165.907
3.9835, -1, -46.8416, -11.7671, 29.295, 13.6613, 67.4544, -166.075
3.99165, -1, -46.9403, -11.8163, 29.317, 13.663, 67.3987, -166.217
3.99951, -1, -47.0228, -11.8591, 29.3336, 13.6643, 67.354, -166.33
4.00753, -1, -47.0898, -11.8959, 29.3448, 13.6651, 67.3205, -166.414
4.01559, -1, -47.142, -11.9253, 29.3519, 13.6655, 67.2972, -166.473
4.02359, -1, -47.1809, -11.9473, 29.3558, 13.6657, 67.2823, -166.51
4.03165, -1, -47.2083, -11.9627, 29.3576, 13.6658, 67.2736, -166.533
4.03965, -1, -47.2264, -11.9727, 29.3584, 13.6659, 67.2689, -166.544
4.04782, -1, -47.2372, -11.9785, 29.3588, 13.6659, 67.2665, -166.55
4.05561, 2, -47.2427, -11.9814, 29.359, 13.666, 67.2654, -166.553
4.06369, 2, -47.2448, -11.9827, 29.3592, 13.666, 67.2649, -166.554
4.07168, 2, -47.2448, -11.9832, 29.3592, 13.6661, 67.2646, -166.555
4.07953, 2, -47.2445, -11.9834, 29.3593, 13.6661, 67.2645, -166.555
4.0876, 2, -47.2445, -11.9835, 29.3594, 13.6661, 67.2645, -166.555
4.09559, 2, -47.2449, -11.9836, 29.3594, 13.6661, 67.2645, -166.555
4.10364, 2, -47.2458, -11.9838, 29.3594, 13.666, 67.2645, -166.555
4.11182, 2, -47.2471, -11.9843, 29.3594, 13.6661, 67.2645, -166.555
4.11979, 2, -47.2489, -11.9851, 29.3594, 13.6661, 67.2644, -166.555
4.1278, 2, -47.2505, -11.986, 29.3594, 13.6661, 67.2645, -166.555
4.13595, 2, -47.2518, -11.9868, 29.3594, 13.6661, 67.2644, -166.555
4.14398, 2, -47.2528, -11.9875, 29.3594, 13.666, 67.2645, -166.555
4.15206, 2, -47.2532, -11.9879, 29.3594, 13.6661, 67.2644, -166.555
4.16008, 2, -47.2534, -11.9881, 29.3594, 13.666, 67.2645, -166.555
4.16809, 2, -47.2535, -11.9882, 29.3594, 13.666, 67.2645, -166.555
4.1761, 2, -47.2532, -11.9882, 29.3594, 13.6661, 67.2645, -166.555
4.18409, 2, -47.2527, -11.9882, 29.3594, 13.6661, 67.2645, -166.555
4.19229, 2, -47.2522, -11.9881, 29.3594, 13.6661, 67.2645, -166.555
4.20004, 2, -47.252, -11.9881, 29.3595, 13.6661, 67.2645, -166.555
4.20754, 2, -47.2518, -11.9881, 29.3595, 13.6661, 67.2645, -166.555
4.21549, 2, -47.2517, -11.9882, 29.3595, 13.6661, 67.2645, -166.555
4.22349, 2, -47.2518, -11.9883, 29.3595, 13.666, 67.2645, -166.555
4.23163, 2, -47.2519, -11.9885, 29.3595, 13.666, 67.2645, -166.555
4.23949, 2, -47.2523, -11.9889, 29.3595, 13.6661, 67.2645, -166.555
4.24757, 2, -47.2529, -11.9892, 29.3595, 13.666, 67.2645, -166.555
4.25554, 2, -47.2534, -11.9895, 29.3595, 13.666, 67.2645, -166.555
4.26353, 2, -47.2537, -11.9896, 29.3595, 13.666, 67.2645, -166.555
4.27156, 2, -47.2538, -11.9897, 29.3595, 13.666, 67.2645, -166.555
4.27958, 2, -47.2537, -11.9897, 29.3595, 13.6661, 67.2645, -166.555
4.28749, 2, -47.2536, -11.9896, 29.3595, 13.6661, 67.2645, -166.555
4.29548, 2, -47.2532, -11.9896, 29.3595, 13.6661, 67.2645, -166.555
4.30355, 2, -47.2528, -11.9895, 29.3594, 13.6661, 67.2646, -166.555
4.31156, 2, -47.2525, -11.9895, 29.3595, 13.6661, 67.2645, -166.555
4.31949, 2, -47.2523, -11.9895, 29.3594, 13.666, 67.2645, -166.555
4.32759, 2, -47.2521, -11.9895, 29.3594, 13.666, 67.2645, -166.555
4.33657, 2, -47.252, -11.9896, 29.3594, 13.666, 67.2645, -166.555
4.34349, 2, -47.252, -11.9897, 29.3595, 13.666, 67.2645, -166.555
4.35163, 2, -47.252, -11.9897, 29.3594, 13.666, 67.2645, -166.555
4.36054, 2, -47.252, -11.9897, 29.3594, 13.666, 67.2645, -166.555
4.36748, 2, -47.252, -11.9897, 29.3594, 13.666, 67.2645, -166.555
4.37555, 2, -47.2521, -11.9897, 29.3595, 13.666, 67.2645, -166.555
4.38349, 2, -47.252, -11.9897, 29.3595, 13.666, 67.2645, -166.555
4.39157, 2, -47.252, -11.9897, 29.3595, 13.666, 67.2645, -166.555
4.39957, 2, -47.2519, -11.9896, 29.3595, 13.666, 67.2645, -166.555
4.40749, 2, -47.2518, -11.9895, 29.3595, 13.666, 67.2645, -166.555
4.4155, 2, -47.2517, -11.9895, 29.3595, 13.666, 67.2645, -166.555
4.42355, 2, -47.2516, -11.9895, 29.3595, 13.666, 67.2645, -166.555
4.43156, 2, -47.2515, -11.9895, 29.3595, 13.666, 67.2645, -166.555
4.43949, 2, -47.2514, -11.9895, 29.3595, 13.666, 67.2646, -166.555
4.44761, 2, -47.2514, -11.9895, 29.3595, 13.666, 67.2646, -166.555
4.4555, 2, -47.2513, -11.9896, 29.3595, 13.666, 67.2646, -166.555
4.46349, 2, -47.2513, -11.9896, 29.3594, 13.666, 67.2646, -166.555
4.47162, 2, -47.2513, -11.9896, 29.3594, 13.666, 67.2646, -166.555
4.47949, 2, -47.2512, -11.9896, 29.3595, 13.666, 67.2646, -166.555
4.48748, 2, -47.2512, -11.9895, 29.3595, 13.666, 67.2646, -166.555
4.49557, 2, -47.2511, -11.9895, 29.3595, 13.666, 67.2647, -166.555
4.50348, 2, -47.251, -11.9894, 29.3595, 13.666, 67.2646, -166.555
4.51156, 2, -47.251, -11.9893, 29.3594, 13.666, 67.2646, -166.555
4.51959, 2, -47.2508, -11.9893, 29.3595, 13.666, 67.2646, -166.555
4.52758, 2, -47.2508, -11.9893, 29.3595, 13.666, 67.2647, -166.555
4.53557, 2, -47.2507, -11.9893, 29.3595, 13.666, 67.2646, -166.555
4.54364, 2, -47.2506, -11.9893, 29.3594, 13.6659, 67.2646, -166.555
4.55166, 2, -47.2505, -11.9893, 29.3594, 13.666, 67.2647, -166.555
4.55959, 2, -47.2504, -11.9893, 29.3594, 13.666, 67.2647, -166.555
4.56767, 2, -47.2503, -11.9893, 29.3594, 13.666, 67.2646, -166.555
4.5755, 2, -47.2502, -11.9893, 29.3594, 13.6659, 67.2647, -166.555
4.58354, 2, -47.2501, -11.9893, 29.3594, 13.6659, 67.2647, -166.555
4.59183, 2, -47.25, -11.9892, 29.3595, 13.6659, 67.2646, -166.555
4.59956, 2, -47.2499, -11.9892, 29.3595, 13.6659, 67.2646, -166.555
4.60757, 2, -47.2498, -11.9891, 29.3595, 13.6659, 67.2647, -166.555
4.61574, 2, -47.2496, -11.9891, 29.3595, 13.6659, 67.2647, -166.555
4.6239, 2, -47.2495, -11.989, 29.3595, 13.6659, 67.2646, -166.555
4.63249, 2, -47.2494, -11.989, 29.3595, 13.6659, 67.2647, -166.555
4.64011, 2, -47.2494, -11.989, 29.3595, 13.6659, 67.2647, -166.555
4.64832, 2, -47.2493, -11.989, 29.3594, 13.6659, 67.2647, -166.555
4.65597, 2, -47.2492, -11.989, 29.3594, 13.6659, 67.2647, -166.555
4.66458, 2, -47.2492, -11.989, 29.3594, 13.6659, 67.2647, -166.555
4.67251, 2, -47.2491, -11.989, 29.3594, 13.6658, 67.2647, -166.555
4.68005, 2, -47.249, -11.989, 29.3595, 13.6658, 67.2647, -166.555
4.68826, 2, -47.2489, -11.989, 29.3594, 13.6658, 67.2647, -166.555
4.69635, 2, -47.2489, -11.9889, 29.3594, 13.6658, 67.2647, -166.555
4.70348, 2, -47.2489, -11.9889, 29.3594, 13.6658, 67.2647, -166.555
4.71221, 2, -47.2488, -11.9889, 29.3594, 13.6658, 67.2647, -166.555
4.7204, 2, -47.2487, -11.9888, 29.3594, 13.6658, 67.2647, -166.555
4.72748, 2, -47.2486, -11.9887, 29.3594, 13.6658, 67.2647, -166.555
4.73555, 2, -47.2485, -11.9886, 29.3594, 13.6658, 67.2648, -166.555
4.74347, 2, -47.2484, -11.9886, 29.3594, 13.6658, 67.2648, -166.555
4.75157, 2, -47.2484, -11.9886, 29.3594, 13.6658, 67.2648, -166.555
4.75953, 2, -47.2484, -11.9886, 29.3594, 13.6658, 67.2648, -166.555
4.76756, 2, -47.2483, -11.9886, 29.3594, 13.6658, 67.2648, -166.555
4.77551, 2, -47.2483, -11.9886, 29.3594, 13.6658, 67.2648, -166.555
4.78356, 2, -47.2483, -11.9886, 29.3594, 13.6658, 67.2648, -166.555
4.79154, 2, -47.2483, -11.9886, 29.3594, 13.6657, 67.2648, -166.555
4.79947, 2, -47.2482, -11.9886, 29.3594, 13.6657, 67.2648, -166.555
4.80902, 2, -47.2482, -11.9885, 29.3594, 13.6657, 67.2648, -166.554
4.81547, 2, -47.2481, -11.9885, 29.3594, 13.6657, 67.2648, -166.554
4.82347, 2, -47.2481, -11.9884, 29.3594, 13.6657, 67.2648, -166.554
4.83172, 2, -47.248, -11.9883, 29.3594, 13.6657, 67.2648, -166.554
4.83947, 2, -47.248, -11.9883, 29.3594, 13.6656, 67.2648, -166.554
4.84748, 2, -47.2479, -11.9883, 29.3594, 13.6656, 67.2649, -166.554
4.85554, 2, -47.2478, -11.9883, 29.3594, 13.6656, 67.2649, -166.554
4.86349, 2, -47.2478, -11.9883, 29.3594, 13.6656, 67.2649, -166.554
4.87154, 2, -47.2477, -11.9883, 29.3594, 13.6656, 67.2649, -166.554
4.87954, 2, -47.2477, -11.9882, 29.3594, 13.6656, 67.2648, -166.554
4.88747, 2, -47.2476, -11.9882, 29.3594, 13.6656, 67.2648, -166.554
4.89551, 2, -47.2476, -11.9882, 29.3594, 13.6656, 67.2648, -166.554
4.90362, 2, -47.2476, -11.9882, 29.3595, 13.6656, 67.2648, -166.554
4.91154, 2, -47.2476, -11.9882, 29.3594, 13.6656, 67.2648, -166.554
4.91949, 2, -47.2475, -11.9881, 29.3595, 13.6656, 67.2649, -166.554
4.92754, 2, -47.2475, -11.988, 29.3595, 13.6655, 67.2649, -166.554
4.93547, 2, -47.2474, -11.988, 29.3594, 13.6655, 67.2649, -166.554
4.94347, 2, -47.2473, -11.9879, 29.3594, 13.6655, 67.2649, -166.554
4.95164, 2, -47.2472, -11.9879, 29.3594, 13.6655, 67.2649, -166.554
4.95956, 2, -47.2471, -11.9879, 29.3594, 13.6655, 67.2649, -166.554
4.96747, 2, -47.2471, -11.9879, 29.3594, 13.6654, 67.265, -166.554
4.97554, 2, -47.2471, -11.9879, 29.3594, 13.6654, 67.265, -166.554
4.98347, 2, -47.247, -11.9879, 29.3595, 13.6654, 67.265, -166.554
4.99154, 2, -47.247, -11.9879, 29.3595, 13.6655, 67.265, -166.554
4.99956, 2, -47.2469, -11.9878, 29.3594, 13.6654, 67.265, -166.554
5.00747, 2, -47.2469, -11.9878, 29.3594, 13.6654, 67.265, -166.554
5.01547, 2, -47.2469, -11.9878, 29.3594, 13.6654, 67.265, -166.554
5.02359, 2, -47.2469, -11.9877, 29.3595, 13.6654, 67.265, -166.554
5.03164, 2, -47.2468, -11.9877, 29.3594, 13.6653, 67.265, -166.554
5.03956, 2, -47.2467, -11.9876, 29.3594, 13.6653, 67.2651, -166.554
5.04763, 2, -47.2467, -11.9876, 29.3594, 13.6653, 67.2651, -166.554
5.05794, 2, -47.2466, -11.9876, 29.3594, 13.6654, 67.2651, -166.554
5.06364, 2, -47.2466, -11.9875, 29.3594, 13.6653, 67.2651, -166.554
5.07167, 2, -47.2465, -11.9875, 29.3594, 13.6652, 67.2651, -166.554
5.07948, 2, -47.2465, -11.9875, 29.3594, 13.6653, 67.2651, -166.554
5.08758, 2, -47.2464, -11.9875, 29.3594, 13.6653, 67.2651, -166.554
5.0955, 2, -47.2464, -11.9875, 29.3594, 13.6653, 67.2651, -166.554
5.10352, 2, -47.2464, -11.9875, 29.3594, 13.6652, 67.2651, -166.554
5.11171, 2, -47.2463, -11.9875, 29.3594, 13.6652, 67.2651, -166.554
5.12053, 4, -47.2463, -11.9874, 29.3594, 13.6652, 67.2651, -166.554
5.12771, 4, -47.2463, -11.9874, 29.3594, 13.6651, 67.2652, -166.554
5.13623, 4, -47.2462, -11.9874, 29.3594, 13.6652, 67.2651, -166.554
5.14388, 4, -47.2461, -11.9873, 29.3594, 13.6652, 67.2651, -166.554
5.15251, 4, -47.2461, -11.9873, 29.3594, 13.6652, 67.2651, -166.554
5.16037, 4, -47.246, -11.9873, 29.3594, 13.6651, 67.2652, -166.554
5.16802, 4, -47.246, -11.9873, 29.3594, 13.6651, 67.2652, -166.554
5.176, 4, -47.2459, -11.9872, 29.3594, 13.6651, 67.2652, -166.554
5.18434, 4, -47.2459, -11.9872, 29.3594, 13.6651, 67.2652, -166.554
5.19212, 4, -47.2459, -11.9872, 29.3594, 13.6651, 67.2652, -166.554
5.20001, 4, -47.2459, -11.9872, 29.3594, 13.6651, 67.2652, -166.554
5.20837, 4, -47.2459, -11.9872, 29.3594, 13.6651, 67.2652, -166.554
5.21638, 4, -47.2459, -11.9872, 29.3594, 13.6651, 67.2652, -166.554
5.23109, 4, -47.2459, -11.9871, 29.3594, 13.6651, 67.2652, -166.554
5.2339, 4, -47.2458, -11.9871, 29.3594, 13.665, 67.2652, -166.554
5.23968, 4, -47.2457, -11.9871, 29.3594, 13.665, 67.2652, -166.554
5.24775, 4, -47.2457, -11.987, 29.3594, 13.665, 67.2653, -166.553
5.25563, 4, -47.2456, -11.987, 29.3594, 13.665, 67.2653, -166.553
5.26362, 4, -47.2456, -11.9869, 29.3594, 13.665, 67.2653, -166.553
5.27603, 4, -47.2455, -11.9869, 29.3594, 13.665, 67.2653, -166.553
5.28332, 4, -47.2455, -11.9869, 29.3594, 13.6649, 67.2653, -166.554
5.28769, 4, -47.2454, -11.9869, 29.3594, 13.665, 67.2653, -166.553
5.29561, 4, -47.2454, -11.9869, 29.3594, 13.665, 67.2653, -166.553
5.30708, 4, -47.2453, -11.9869, 29.3594, 13.665, 67.2653, -166.553
5.31325, 4, -47.2453, -11.9869, 29.3594, 13.6649, 67.2653, -166.553
5.32135, 4, -47.2453, -11.9868, 29.3594, 13.6649, 67.2653, -166.553
5.3298, 4, -47.2453, -11.9868, 29.3594, 13.6649, 67.2653, -166.553
5.33566, 4, -47.2453, -11.9868, 29.3594, 13.6649, 67.2653, -166.553
5.34371, 4, -47.2453, -11.9867, 29.3594, 13.6649, 67.2653, -166.553
5.35168, 4, -47.2452, -11.9867, 29.3594, 13.6649, 67.2653, -166.553
5.35963, 4, -47.2452, -11.9867, 29.3594, 13.6648, 67.2653, -166.553
5.36768, 4, -47.2451, -11.9867, 29.3594, 13.6648, 67.2653, -166.553
5.37568, 4, -47.2451, -11.9866, 29.3594, 13.6649, 67.2653, -166.553
5.39179, 4, -47.2454, -11.9868, 29.3595, 13.6649, 67.2654, -166.553
5.39505, 4, -47.2461, -11.9872, 29.3598, 13.665, 67.2655, -166.553
5.40065, 4, -47.247, -11.9878, 29.3604, 13.6654, 67.2656, -166.553
5.41141, 4, -47.2502, -11.9907, 29.3638, 13.6765, 67.2683, -166.552
5.4156, 4, -47.2558, -11.9972, 29.3724, 13.6867, 67.2709, -166.55
5.42604, 4, -47.265, -12.0175, 29.4046, 13.7507, 67.2884, -166.537
5.43184, 5, -47.2796, -12.0283, 29.4233, 13.789, 67.299, -166.529
5.44323, 5, -47.3168, -12.0771, 29.5142, 13.979, 67.3527, -166.486
5.44764, 5, -47.3341, -12.0995, 29.5588, 14.0737, 67.3789, -166.464
5.45662, 5, -47.3777, -12.1548, 29.6735, 14.3195, 67.4467, -166.407
5.46861, 5, -47.4671, -12.2657, 29.9144, 14.8431, 67.5893, -166.288
5.47354, 5, -47.5032, -12.3102, 30.0139, 15.0597, 67.6477, -166.238
5.48379, 5, -47.6299, -12.466, 30.3687, 15.8257, 67.8518, -166.064
5.49058, 5, -47.7282, -12.5867, 30.6464, 16.4169, 68.0074, -165.931
5.50142, 5, -47.8355, -12.7189, 30.9519, 17.0558, 68.1726, -165.789
5.50472, 5, -47.8919, -12.7885, 31.1128, 17.3883, 68.2576, -165.716
5.51173, 5, -48.0088, -12.9336, 31.4473, 18.0697, 68.4294, -165.567
5.52368, 5, -48.1901, -13.1599, 31.9679, 19.1106, 68.6858, -165.345
5.52905, 5, -48.251, -13.2359, 32.1441, 19.4575, 68.7698, -165.272
5.53662, 5, -48.3713, -13.386, 32.4967, 20.1422, 68.9345, -165.125
5.54372, 5, -48.4867, -13.5315, 32.8464, 20.8081, 69.0953, -164.974
5.55259, 6, -48.5923, -13.6698, 33.1865, 21.4436, 69.2539, -164.809
5.56128, 6, -48.6838, -13.7982, 33.5122, 22.0378, 69.4124, -164.617
5.56965, 7, -48.7567, -13.9171, 33.8195, 22.5857, 69.5735, -164.385
5.57839, 7, -48.8084, -14.0277, 34.1071, 23.0832, 69.7392, -164.098
5.58372, 7, -48.8379, -14.1301, 34.3749, 23.5337, 69.9114, -163.748
5.59262, 8, -48.846, -14.2234, 34.6246, 23.945, 70.0927, -163.329
5.59981, 8, -48.8357, -14.3073, 34.8609, 24.3269, 70.2836, -162.843
5.60821, 9, -48.8098, -14.3834, 35.0866, 24.6893, 70.4849, -162.3
5.61856, 9, -48.7713, -14.4541, 35.305, 25.0423, 70.6964, -161.71
5.62662, 10, -48.7225, -14.5214, 35.5204, 25.3927, 70.9174, -161.091
5.63222, 10, -48.6642, -14.5866, 35.7349, 25.7447, 71.146, -160.453
5.64128, 11, -48.5977, -14.6502, 35.9487, 26.0996, 71.3799, -159.807
5.64966, 11, -48.525, -14.7125, 36.1627, 26.4589, 71.6163, -159.162
5.65651, 11, -48.4481, -14.7743, 36.3757, 26.8235, 71.8542, -158.52
5.66689, 12, -48.3695, -14.8359, 36.5861, 27.1946, 72.0933, -157.877
5.6725, 13, -48.2899, -14.8963, 36.7948, 27.5734, 72.3342, -157.232
5.68026, 13, -48.21, -14.9549, 37.0017, 27.9602, 72.5776, -156.584
5.68824, 14, -48.1283, -15.0128, 37.2065, 28.3545, 72.8237, -155.931
5.69632, 14, -48.0442, -15.0715, 37.4102, 28.7545, 73.0718, -155.275
5.7064, 15, -47.9567, -15.1312, 37.6134, 29.1583, 73.3208, -154.62
5.71483, 15, -47.8651, -15.191, 37.8148, 29.5636, 73.5691, -153.967
5.72025, 16, -47.8174, -15.2205, 37.9148, 29.7659, 73.8147, -153.317
5.73129, 16, -47.6646, -15.3087, 38.2126, 30.3691, 74.0566, -152.673
5.73688, 17, -47.5541, -15.3694, 38.408, 30.767, 74.2935, -152.035
5.74374, 17, -47.4967, -15.4007, 38.5042, 30.9644, 74.4099, -151.718
5.75649, 18, -47.3166, -15.4965, 38.7886, 31.5499, 74.7502, -150.775
5.7633, 18, -47.1903, -15.5615, 38.9749, 31.9355, 74.97, -150.156
5.76878, 18, -47.1252, -15.5946, 39.0668, 32.127, 75.0776, -149.544
5.77596, 19, -46.9908, -15.6629, 39.2487, 32.5088, 75.2895, -149.24
5.78364, 20, -46.8508, -15.7341, 39.4294, 32.8895, 75.4968, -148.637
5.79169, 20, -46.7056, -15.807, 39.609, 33.2692, 75.6999, -148.041
5.80194, 21, -46.4798, -15.919, 39.874, 33.8374, 75.9969, -147.161
5.80765, 21, -46.4027, -15.9572, 39.9612, 34.0264, 76.0939, -146.87
5.81564, 22, -46.2456, -16.0347, 40.1348, 34.4042, 76.285, -146.294
5.82601, 22, -46.0847, -16.154, 40.3909, 34.9685, 76.5641, -145.441
5.83468, 23, -45.8343, -16.2355, 40.5577, 35.3424, 76.7456, -144.879
5.84202, 23, -45.7478, -16.277, 40.7219, 35.7128, 76.9222, -144.323
5.84839, 24, -45.5695, -16.3619, 40.8029, 35.8966, 77.0088, -144.046
5.85558, 24, -45.3834, -16.4491, 40.9616, 36.2598, 77.1773, -143.498
5.86371, 25, -45.1896, -16.5384, 41.1155, 36.6152, 77.339, -142.955
5.87173, 25, -44.9886, -16.6287, 41.2651, 36.9614, 77.4932, -142.417
5.87977, 26, -44.781, -16.7195, 41.4103, 37.2979, 77.6399, -141.884
5.88758, 26, -44.5665, -16.811, 41.5506, 37.6249, 77.7797, -141.356
5.89662, 27, -44.3447, -16.9037, 41.6858, 37.9437, 77.9144, -140.831
5.90685, 27, -43.999, -17.0437, 41.8782, 38.4079, 78.1087, -140.047
5.91172, 28, -43.8805, -17.0902, 41.9394, 38.5591, 78.1722, -139.786
5.92019, 28, -43.6384, -17.1823, 42.0569, 38.8564, 78.2973, -139.263
5.92765, 29, -43.3891, -17.2729, 42.1677, 39.1467, 78.4202, -138.742
5.94277, 29, -42.8706, -17.4483, 42.3682, 39.705, 78.6599, -137.696
5.94478, 30, -42.8706, -17.4483, 42.3682, 39.705, 78.6599, -137.696
5.95273, 30, -42.601, -17.5322, 42.4575, 39.972, 78.776, -137.174
5.95963, 31, -42.3235, -17.6132, 42.5395, 40.2307, 78.8892, -136.653
5.96835, 31, -42.0382, -17.6917, 42.6144, 40.4808, 78.9993, -136.132
5.97667, 32, -41.7453, -17.768, 42.6822, 40.7222, 79.1069, -135.611
5.98945, 32, -41.2932, -17.8775, 42.7714, 41.0678, 79.2624, -134.832
5.99243, 33, -41.1392, -17.9126, 42.7977, 41.1788, 79.3129, -134.573
5.9996, 33, -40.8262, -17.9805, 42.8449, 41.395, 79.4121, -134.056
6.0112, 34, -40.3439, -18.0774, 42.9024, 41.7038, 79.5556, -133.281
6.01662, 34, -40.1806, -18.1085, 42.9179, 41.8026, 79.6021, -133.024
6.02566, 35, -39.8505, -18.1686, 42.9436, 41.9945, 79.6936, -132.509
6.03359, 35, -39.5149, -18.2254, 42.9622, 42.1789, 79.7824, -131.997
6.04354, 36, -38.9992, -18.3042, 42.9769, 42.4412, 79.9116, -131.229
6.04771, 36, -38.8236, -18.3288, 42.9784, 42.5247, 79.9535, -130.974
6.05657, 37, -38.4675, -18.3755, 42.9765, 42.6861, 80.036, -130.464
6.06375, 37, -38.1057, -18.4188, 42.9678, 42.84, 80.1161, -129.956
6.07194, 38, -37.7383, -18.4582, 42.9521, 42.9864, 80.1945, -129.45
6.07971, 38, -37.366, -18.4942, 42.9299, 43.1255, 80.2705, -128.945
6.09183, 39, -36.7987, -18.5419, 42.884, 43.3202, 80.3805, -128.191
6.09577, 39, -36.6074, -18.5559, 42.8653, 43.3814, 80.4162, -127.941
6.10465, 40, -36.2207, -18.5812, 42.8229, 43.4983, 80.4864, -127.442
6.11379, 40, -35.8281, -18.6028, 42.7741, 43.608, 80.5545, -126.945
6.11999, 41, -35.4296, -18.6203, 42.7187, 43.7106, 80.6211, -126.449
6.12952, 41, -35.0253, -18.6341, 42.6567, 43.8056, 80.6847, -125.956
6.13762, 42, -34.6164, -18.6445, 42.5883, 43.894, 80.7476, -125.465
6.14478, 42, -34.2043, -18.6516, 42.5135, 43.9749, 80.8073, -124.976
6.1546, 43, -33.7894, -18.6554, 42.4325, 44.049, 80.8661, -124.489
6.16252, 43, -33.3706, -18.6562, 42.3455, 44.1155, 80.923, -124.005
6.16841, 44, -32.9463, -18.6532, 42.2527, 44.1756, 80.9777, -123.522
6.17729, 44, -32.5156, -18.6464, 42.1542, 44.2277, 81.0317, -123.043
6.18428, 45, -32.0786, -18.6359, 42.0499, 44.2728, 81.0832, -122.566
6.19309, 45, -31.6364, -18.6216, 41.9396, 44.311, 81.1333, -122.091
6.20222, 46, -31.1903, -18.6039, 41.8232, 44.3414, 81.1824, -121.618
6.20924, 46, -30.7424, -18.5827, 41.701, 44.3639, 81.2286, -121.148
6.22052, 47, -30.0652, -18.5436, 41.5067, 44.3833, 81.2961, -120.447
6.22729, 47, -29.837, -18.5284, 41.439, 44.3863, 81.3183, -120.215
6.23299, 48, -29.3756, -18.4946, 41.299, 44.3872, 81.3611, -119.751
6.24139, 48, -28.9079, -18.4565, 41.153, 44.3793, 81.4029, -119.288
6.24763, 49, -28.6719, -18.4359, 41.0776, 44.3722, 81.4237, -119.058
6.25558, 49, -28.1968, -18.3912, 40.9227, 44.3514, 81.4656, -118.599
6.26494, 50, -27.4797, -18.3159, 40.6788, 44.3022, 81.5266, -117.912
6.2739, 50, -26.9979, -18.2594, 40.5079, 44.2577, 81.5677, -117.455
6.27963, 51, -26.755, -18.229, 40.4201, 44.2323, 81.5888, -117.227
6.291, 51, -26.0142, -18.1297, 40.1468, 44.1405, 81.6525, -116.545
6.2974, 52, -25.511, -18.0564, 39.9556, 44.0675, 81.6952, -116.091
6.30358, 52, -25.2578, -18.0178, 39.8572, 44.0269, 81.7171, -115.864
6.31168, 53, -24.7496, -17.9366, 39.6558, 43.9378, 81.7618, -115.411
6.32368, 53, -23.983, -17.8036, 39.3411, 43.7854, 81.8293, -114.732
6.33027, 54, -23.4653, -17.7072, 39.1212, 43.6706, 81.8769, -114.28
6.33795, 54, -23.2036, -17.6566, 39.0085, 43.5448, 81.9269, -113.828
6.34849, 55, -22.406, -17.4957, 38.6596, 43.4075, 81.9784, -113.376
6.35165, 55, -22.1371, -17.4389, 38.5392, 43.3344, 82.0054, -113.15
6.36163, 56, -21.3263, -17.2596, 38.1684, 43.0976, 82.0899, -112.471
6.36866, 56, -21.0549, -17.197, 38.0416, 43.0131, 82.1183, -112.245
6.37562, 57, -20.5083, -17.0674, 37.7825, 42.8354, 82.1773, -111.794
6.38357, 57, -19.9531, -16.9324, 37.5175, 42.6466, 82.2374, -111.343
6.39519, 58, -19.1037, -16.7186, 37.1074, 42.3407, 82.3306, -110.667
6.3996, 58, -18.8178, -16.6443, 36.9676, 42.2324, 82.3626, -110.442
6.41032, 59, -17.9563, -16.4133, 36.5383, 41.8889, 82.4616, -109.768
6.41567, 59, -17.6676, -16.3339, 36.3918, 41.7681, 82.4962, -109.543
6.42641, 60, -16.7895, -16.0898, 35.943, 41.3865, 82.6026, -108.869
6.43168, 60, -16.4918, -16.0059, 35.7906, 41.2531, 82.6394, -108.644
6.43959, 61, -15.8907, -15.8337, 35.4824, 40.9767, 82.713, -108.195
6.45201, 61, -15.2853, -15.6564, 35.1687, 40.5382, 82.8268, -107.522
6.45657, 62, -14.6771, -15.4751, 34.85, 40.3859, 82.8655, -107.298
6.46775, 62, -13.7538, -15.1954, 34.3624, 39.9095, 82.9853, -106.625
6.47259, 63, -13.4411, -15.0993, 34.1977, 39.7443, 83.0263, -106.401
6.48285, 63, -12.4895, -14.8009, 33.6952, 39.2283, 83.1535, -105.727
6.48756, 64, -12.1693, -14.6986, 33.5252, 39.0494, 83.1976, -105.502
6.49943, 64, -11.2026, -14.3821, 33.0051, 38.4908, 83.3361, -104.824
6.5036, 65, -10.8762, -14.2729, 32.8284, 38.2965, 83.3849, -104.598
6.51305, 65, -10.2142, -14.049, 32.4696, 37.8944, 83.4873, -104.142
6.52355, 66, -9.20107, -13.7, 31.9207, 37.2548, 83.6526, -103.456
6.52976, 66, -8.85947, -13.58, 31.7349, 37.0322, 83.7112, -103.226
6.53572, 67, -8.17244, -13.3343, 31.3577, 36.5725, 83.8336, -102.764
6.54459, 67, -7.47784, -13.0817, 30.9732, 36.095, 83.9632, -102.301
6.55168, 68, -6.77364, -12.8213, 30.5828, 35.6013, 84.0997, -101.834
6.56057, 68, -6.06206, -12.5543, 30.189, 35.0938, 84.2425, -101.365
6.57106, 69, -5.34594, -12.2821, 29.7917, 34.5748, 84.4671, -100.66
6.57572, 69, -4.62538, -12.0034, 29.3918, 34.045, 84.5443, -100.424
6.58556, 70, -3.89849, -11.7186, 28.9917, 33.5071, 84.7016, -99.9508
6.5923, 70, -3.16456, -11.4262, 28.5933, 32.9585, 84.8629, -99.4768
6.59984, 71, -2.4241, -11.1253, 28.1957, 32.3989, 85.0289, -99.0022
6.61248, 71, -1.30105, -10.6617, 27.5966, 31.5341, 85.2919, -98.2885
6.61782, 72, -0.923504, -10.5043, 27.3957, 31.238, 85.3841, -98.0495
6.62459, 72, -0.16451, -10.1862, 26.9923, 30.6321, 85.5759, -97.57
6.6326, 73, 0.59915, -9.8619, 26.5862, 30.0118, 85.7772, -97.0881
6.64003, 73, 1.36739, -9.53023, 26.1789, 29.3792, 85.9866, -96.6052
6.64815, 74, 2.13972, -9.19228, 25.7717, 28.7372, 86.2041, -96.1208
6.65754, 74, 2.91511, -8.84885, 25.3673, 28.0875, 86.4287, -95.6348
6.66496, 75, 3.69241, -8.49949, 24.9677, 27.4315, 86.6595, -95.1473
6.67254, 75, 4.472, -8.143, 24.5729, 26.7712, 86.896, -94.6586
6.6807, 76, 5.25386, -7.78089, 24.1831, 26.1102, 87.1383, -94.1688
6.68877, 76, 6.03685, -7.41315, 23.7983, 25.4468, 87.3865, -93.6767
6.69673, 77, 6.82043, -7.03963, 23.4183, 24.7828, 87.6415, -93.1826
6.70886, 77, 7.60595, -6.65766, 23.0415, 24.1184, 87.9047, -92.4379
6.71239, 77, 7.99971, -6.46326, 22.6678, 23.4513, 88.1779, -92.1889
6.73418, 79, 9.97446, -5.45509, 21.9308, 22.099, 88.761, -90.9285
6.73688, 79, 10.7672, -5.0377, 21.5667, 21.413, 89.0733, -90.6726
6.7475, 80, 11.559, -4.61136, 21.2053, 20.7237, 89.3985, -90.1567
6.74955, 80, 11.9539, -4.39433, 21.0263, 20.3777, 89.5653, -89.8964
6.7514, 80, 11.9539, -4.39433, 21.0263, 20.3777, 89.5653, -89.8964
6.75941, 80, 12.7395, -3.95205, 20.6715, 19.688, 89.9066, -89.3705
6.76886, 81, 13.9058, -3.27428, 20.1495, 18.6704, 90.4347, -88.5704
6.77545, 81, 14.2914, -3.04532, 19.979, 18.3379, 90.6141, -88.3013
6.78341, 82, 15.0567, -2.58166, 19.6456, 17.6846, 90.976, -87.7612
6.79289, 82, 16.1876, -1.87141, 19.1649, 16.7381, 91.5258, -86.9468
6.80103, 83, 16.9262, -1.39018, 18.8575, 16.1322, 91.8966, -86.4023
6.80741, 83, 17.2904, -1.14772, 18.7074, 15.8366, 92.0835, -86.1299
6.81548, 84, 18.0077, -0.659715, 18.4141, 15.2599, 92.4607, -85.5864
6.82505, 84, 19.0519, 0.0786176, 17.9903, 14.4333, 93.0382, -84.7743
6.83142, 85, 19.3909, 0.326965, 17.8521, 14.1677, 93.2343, -84.5045
6.8404, 85, 20.0543, 0.827311, 17.5806, 13.6517, 93.6326, -83.9676
6.84763, 86, 20.6992, 1.33187, 17.3154, 13.1555, 94.0375, -83.4338
6.85645, 86, 21.3278, 1.84054, 17.0565, 12.679, 94.4481, -82.9021
6.86348, 86, 21.9429, 2.35587, 16.8049, 12.222, 94.8646, -82.37
6.87143, 87, 22.5463, 2.8807, 16.5586, 11.7839, 95.2877, -81.8357
6.87943, 87, 23.1394, 3.41532, 16.3166, 11.3637, 95.7182, -81.2969
6.88741, 88, 23.7228, 3.95698, 16.0778, 10.9592, 96.1562, -80.7521
6.89541, 88, 24.2955, 4.50535, 15.8413, 10.5703, 96.6009, -80.1974
6.90337, 89, 24.8573, 5.0638, 15.6096, 10.1966, 97.0523, -79.6326
6.91144, 89, 25.41, 5.63437, 15.383, 9.83908, 97.5092, -79.0561
6.91939, 90, 25.958, 6.21641, 15.1599, 9.4977, 97.9705, -78.4673
6.92741, 90, 26.5016, 6.80907, 14.9417, 9.17217, 98.4362, -77.8642
6.93546, 91, 27.0359, 7.41109, 14.7291, 8.86366, 98.9069, -77.247
6.94341, 91, 27.5577, 8.02274, 14.5216, 8.57274, 99.3836, -76.6173
6.95139, 92, 28.0689, 8.64483, 14.3183, 8.30092, 99.8666, -75.9752
6.95947, 92, 28.5726, 9.27719, 14.119, 8.04933, 100.356, -75.3213
6.96743, 93, 29.0695, 9.919, 13.9237, 7.81839, 100.85, -74.6592
6.97541, 93, 29.5555, 10.5681, 13.7336, 7.6094, 101.347, -73.9894
6.98345, 94, 30.028, 11.2234, 13.5505, 7.42312, 101.844, -73.3118
6.99142, 94, 30.4856, 11.883, 13.3743, 7.26028, 102.341, -72.6281
6.99938, 95, 30.929, 12.546, 13.2047, 7.12111, 102.835, -71.9404
7.00747, 95, 31.3587, 13.2116, 13.0428, 7.0059, 103.325, -71.2464
7.01538, 96, 31.7749, 13.8794, 12.8884, 6.91386, 103.812, -70.5466
7.02348, 96, 32.1756, 14.5486, 12.7402, 6.846, 104.296, -69.8424
7.03243, 97, 32.5593, 15.2176, 12.5978, 6.80139, 104.776, -69.132
7.03949, 97, 32.9268, 15.8846, 12.4621, 6.77743, 105.251, -68.4162
7.04865, 98, 33.2786, 16.5479, 12.3346, 6.77462, 105.72, -67.6991
7.05551, 98, 33.6159, 17.2059, 12.2161, 6.79362, 106.179, -66.9809
7.06351, 98, 33.9385, 17.8563, 12.1076, 6.83227, 106.626, -66.263
7.07157, 99, 34.2469, 18.4978, 12.0092, 6.8909, 107.058, -65.5499
7.07953, 99, 34.5433, 19.1295, 11.9213, 6.9684, 107.475, -64.8419
7.08819, 100, 34.8283, 19.7517, 11.8434, 7.06274, 107.876, -64.1401
7.0955, 100, 35.1003, 20.3621, 11.7746, 7.17346, 108.26, -63.4476
7.10346, 101, 35.3583, 20.9589, 11.7135, 7.29807, 108.629, -62.7648
7.11223, 101, 35.603, 21.5417, 11.6601, 7.43476, 108.982, -62.0918
7.11962, 102, 35.8347, 22.1095, 11.6143, 7.58089, 109.319, -61.4314
7.12761, 102, 36.0538, 22.6627, 11.5755, 7.73442, 109.642, -60.785
7.13566, 103, 36.2622, 23.2004, 11.5437, 7.89376, 109.95, -60.1524
7.14439, 103, 36.4632, 23.7229, 11.5195, 8.05858, 110.242, -59.5334
7.1518, 103, 36.6586, 24.2318, 11.5037, 8.22957, 110.518, -58.9293
7.16044, 104, 36.8488, 24.7276, 11.4956, 8.40778, 110.777, -58.3369
7.16799, 104, 37.0345, 25.2102, 11.494, 8.59494, 111.018, -57.7537
7.17606, 104, 37.2153, 25.6804, 11.4986, 8.79132, 111.24, -57.1787
7.18397, 104, 37.3875, 26.137, 11.5083, 8.99628, 111.445, -56.6113
7.19201, 104, 37.5492, 26.5801, 11.5217, 9.20919, 111.635, -56.0513
7.20002, 104, 37.6269, 26.7966, 11.5379, 9.42719, 111.81, -55.5001
7.20874, 104, 37.7783, 27.2206, 11.5469, 9.53729, 111.976, -54.9614
7.216, 104, 37.9274, 27.6317, 11.5663, 9.75818, 112.055, -54.4394
7.2234, 104, 38.0749, 28.0292, 11.5864, 9.97715, 112.206, -54.1855
7.23142, 104, 38.2192, 28.412, 11.6065, 10.1928, 112.351, -53.6923
7.23949, 104, 38.3587, 28.7812, 11.6259, 10.4032, 112.488, -53.2214
7.24745, 104, 38.4918, 29.1347, 11.6443, 10.607, 112.617, -52.7738
7.25547, 104, 38.6176, 29.4713, 11.6619, 10.803, 112.738, -52.3507
7.2634, 104, 38.7355, 29.7893, 11.6784, 10.9904, 112.852, -51.9527
7.27141, 104, 38.8455, 30.0886, 11.6936, 11.1688, 112.959, -51.5789
7.27945, 104, 38.9477, 30.3696, 11.708, 11.3376, 113.057, -51.2305
7.28741, 104, 39.0422, 30.6309, 11.7211, 11.4959, 113.149, -50.9078
7.2954, 104, 39.1286, 30.8726, 11.7329, 11.6436, 113.233, -50.61
7.30506, 104, 39.2427, 31.1986, 11.7486, 11.844, 113.345, -50.211
7.3114, 104, 39.2764, 31.2971, 11.7535, 11.9051, 113.378, -50.0906
7.31943, 104, 39.338, 31.4796, 11.7627, 12.0182, 113.44, -49.8688
7.32902, 104, 39.3921, 31.7172, 11.7741, 12.1652, 113.52, -49.583
7.33539, 104, 39.4396, 31.7867, 11.7775, 12.2083, 113.543, -49.5001
7.34343, 104, 39.481, 31.9121, 11.784, 12.285, 113.584, -49.3528
7.35248, 104, 39.5165, 32.0202, 11.7898, 12.3498, 113.618, -49.229
7.3594, 104, 39.5458, 32.1118, 11.7949, 12.4032, 113.646, -49.1286
7.36754, 104, 39.5698, 32.1878, 11.7995, 12.4445, 113.668, -49.0482
7.37542, 104, 39.5893, 32.2502, 11.8036, 12.4766, 113.684, -48.9875
7.38342, 104, 39.6048, 32.3005, 11.8073, 12.5005, 113.696, -48.9434
7.39142, 104, 39.6169, 32.34, 11.8108, 12.5176, 113.703, -48.9127
7.39942, 104, 39.6262, 32.3698, 11.8138, 12.5291, 113.709, -48.8925
7.40742, 104, 39.6329, 32.392, 11.8166, 12.5365, 113.712, -48.8802
7.41545, 104, 39.6371, 32.4083, 11.8189, 12.5407, 113.713, -48.8736
7.42344, 104, 39.6397, 32.4195, 11.8205, 12.5429, 113.714, -48.8704
7.43142, 104, 39.641, 32.4265, 11.8218, 12.544, 113.714, -48.869
7.43945, 105, 39.6414, 32.4309, 11.8229, 12.5445, 113.714, -48.8684
7.44746, 105, 39.6409, 32.4339, 11.8238, 12.5448, 113.714, -48.8682
7.4554, 105, 39.64, 32.4361, 11.8246, 12.5449, 113.714, -48.8683
7.46342, 105, 39.6388, 32.4377, 11.8252, 12.5451, 113.714, -48.8684
7.47146, 105, 39.6375, 32.4391, 11.8258, 12.5451, 113.714, -48.8687
7.47945, 105, 39.6363, 32.4404, 11.8263, 12.5451, 113.714, -48.8689
7.48744, 105, 39.6356, 32.4416, 11.8269, 12.5451, 113.714, -48.8693
7.49547, 105, 39.6351, 32.4427, 11.8274, 12.5451, 113.714, -48.8695
7.5034, 105, 39.6348, 32.4438, 11.8281, 12.5451, 113.714, -48.8698
7.51143, 105, 39.6346, 32.4448, 11.8286, 12.5452, 113.714, -48.87
7.51943, 105, 39.6343, 32.4456, 11.829, 12.5451, 113.714, -48.8703
7.52742, 105, 39.634, 32.4462, 11.8293, 12.5451, 113.714, -48.8705
7.53546, 105, 39.6338, 32.4466, 11.8296, 12.5451, 113.714, -48.8707
7.54351, 105, 39.6335, 32.4468, 11.8299, 12.5451, 113.714, -48.8708
7.55151, 105, 39.6332, 32.4469, 11.8301, 12.5451, 113.714, -48.871
