hehonglu123/Motion-Primitive-Planning/ILC/recorded_data/realrobot/from_NX/iteration_4/run_4.csv
timestamp, cmd_num, J1, J2, J3, J4, J5, J6
0.000361, -1, 39.632, 32.4461, 11.8315, 12.547, 113.714, -48.8709
0.007554, -1, 39.632, 32.4461, 11.8315, 12.5469, 113.714, -48.8709
0.010206, -1, 39.632, 32.4461, 11.8315, 12.5469, 113.714, -48.8709
0.033574, -1, 39.632, 32.4461, 11.8315, 12.5469, 113.714, -48.8709
0.034933, -1, 39.632, 32.4461, 11.8315, 12.5469, 113.714, -48.8709
0.037526, -1, 39.632, 32.4461, 11.8315, 12.5469, 113.714, -48.8709
0.039214, -1, 39.632, 32.4461, 11.8315, 12.5469, 113.714, -48.8709
0.047334, -1, 39.632, 32.4461, 11.8315, 12.5469, 113.714, -48.8709
0.055269, -1, 39.6318, 32.4461, 11.8315, 12.5469, 113.714, -48.8709
0.063269, -1, 39.6306, 32.4459, 11.8315, 12.5469, 113.714, -48.8709
0.071474, -1, 39.6269, 32.445, 11.8315, 12.5469, 113.714, -48.8709
0.079263, -1, 39.62, 32.4429, 11.8314, 12.5469, 113.714, -48.8714
0.0873, -1, 39.6091, 32.4389, 11.8314, 12.5469, 113.713, -48.8742
0.095348, -1, 39.593, 32.4321, 11.8314, 12.5469, 113.71, -48.882
0.103266, -1, 39.5691, 32.4216, 11.8315, 12.5469, 113.705, -48.8976
0.111281, -1, 39.5356, 32.4067, 11.8326, 12.5469, 113.696, -48.9242
0.119351, -1, 39.4919, 32.3862, 11.836, 12.5469, 113.681, -48.9658
0.127266, -1, 39.4363, 32.3592, 11.8425, 12.5469, 113.658, -49.0264
0.135266, -1, 39.3676, 32.3252, 11.8529, 12.5469, 113.625, -49.1093
0.143395, -1, 39.2852, 32.2835, 11.8682, 12.5471, 113.583, -49.2162
0.151272, -1, 39.1891, 32.2339, 11.8884, 12.5474, 113.532, -49.3491
0.159286, -1, 39.079, 32.1765, 11.913, 12.5481, 113.469, -49.5069
0.167575, -1, 38.955, 32.1113, 11.9417, 12.5493, 113.398, -49.6885
0.175359, -1, 38.8182, 32.0391, 11.9741, 12.551, 113.318, -49.8908
0.183409, -1, 38.6695, 31.9608, 12.0094, 12.5529, 113.231, -50.111
0.191795, -1, 38.5099, 31.8769, 12.0464, 12.5551, 113.138, -50.3449
0.19937, -1, 38.3414, 31.7885, 12.0848, 12.5575, 113.041, -50.5891
0.207402, -1, 38.1659, 31.6968, 12.1238, 12.5599, 112.942, -50.8401
0.216001, -1, 37.9848, 31.6024, 12.1628, 12.5623, 112.841, -51.0951
0.225573, -1, 37.7991, 31.5063, 12.2016, 12.5646, 112.739, -51.3528
0.231373, -1, 37.6101, 31.4089, 12.2404, 12.5671, 112.637, -51.6118
0.240169, -1, 37.419, 31.3111, 12.2792, 12.5696, 112.535, -51.8713
0.247345, -1, 37.2271, 31.2131, 12.318, 12.572, 112.432, -52.1308
0.255513, -1, 37.035, 31.1154, 12.3567, 12.5745, 112.329, -52.3904
0.264344, -1, 36.8428, 31.0177, 12.3954, 12.5772, 112.226, -52.6506
0.271574, -1, 36.6511, 30.9199, 12.4343, 12.5797, 112.123, -52.9111
0.279773, -1, 36.4595, 30.8222, 12.4732, 12.5823, 112.02, -53.1713
0.288525, -1, 36.2679, 30.7245, 12.512, 12.5849, 111.917, -53.4317
0.295752, -1, 36.0764, 30.6266, 12.5508, 12.5874, 111.815, -53.6922
0.304357, -1, 35.8848, 30.5286, 12.5897, 12.5901, 111.711, -53.9529
0.312689, -1, 35.6932, 30.4306, 12.6286, 12.5926, 111.608, -54.2133
0.319834, -1, 35.5013, 30.3326, 12.6675, 12.5952, 111.505, -54.4735
0.328739, -1, 35.309, 30.2343, 12.7063, 12.5979, 111.402, -54.734
0.336017, -1, 35.1166, 30.136, 12.7452, 12.6004, 111.299, -54.9948
0.343837, -1, 35.0204, 30.0869, 12.7646, 12.6017, 111.248, -55.2556
0.35297, -1, 34.732, 29.9391, 12.8229, 12.6056, 111.093, -55.5161
0.360383, -1, 34.5397, 29.8407, 12.8618, 12.6082, 110.99, -55.7769
0.501405, -1, 31.1644, 28.1161, 13.5429, 12.6551, 109.187, -60.3457
0.50277, -1, 31.1644, 28.1161, 13.5429, 12.6551, 109.187, -60.3457
0.504067, -1, 31.1644, 28.1161, 13.5429, 12.6551, 109.187, -60.3457
0.50612, -1, 31.0682, 28.0669, 13.5624, 12.6566, 109.135, -60.4766
0.50741, -1, 31.0682, 28.0669, 13.5624, 12.6566, 109.135, -60.4766
0.509355, -1, 31.0682, 28.0669, 13.5624, 12.6566, 109.083, -60.6075
0.510809, -1, 30.972, 28.0176, 13.582, 12.658, 109.083, -60.6075
0.514479, -1, 30.8759, 27.9683, 13.6015, 12.6594, 109.032, -60.7382
0.515746, -1, 30.8759, 27.9683, 13.6015, 12.6594, 109.032, -60.7382
0.51764, -1, 30.7799, 27.919, 13.6209, 12.6607, 108.98, -60.8688
0.519059, -1, 30.7799, 27.919, 13.6209, 12.6607, 108.98, -60.8688
0.520325, -1, 30.7799, 27.919, 13.6209, 12.6607, 108.98, -60.8688
0.523111, -1, 30.6839, 27.8697, 13.6404, 12.6622, 108.929, -60.9995
0.524319, -1, 30.6839, 27.8697, 13.6404, 12.6622, 108.929, -60.9995
0.526408, -1, 30.5879, 27.8204, 13.6599, 12.6636, 108.877, -61.13
0.528035, -1, 30.5879, 27.8204, 13.6599, 12.6636, 108.877, -61.13
0.530103, -1, 30.492, 27.7711, 13.6794, 12.665, 108.825, -61.2607
0.531307, -1, 30.492, 27.7711, 13.6794, 12.665, 108.825, -61.2607
0.532592, -1, 30.492, 27.7711, 13.6794, 12.665, 108.825, -61.2607
0.534611, -1, 30.396, 27.7218, 13.6989, 12.6664, 108.774, -61.3915
0.535907, -1, 30.396, 27.7218, 13.6989, 12.6664, 108.774, -61.3915
0.537776, -1, 30.2999, 27.6724, 13.7184, 12.6678, 108.722, -61.5223
0.546478, -1, 30.1077, 27.5737, 13.7574, 12.6705, 108.619, -61.7843
0.551295, -1, 30.0114, 27.5243, 13.7769, 12.6719, 108.567, -61.915
0.559344, -1, 29.8186, 27.4256, 13.8158, 12.6745, 108.464, -62.1765
0.567252, -1, 29.6253, 27.3268, 13.8547, 12.6772, 108.361, -62.4381
0.575273, -1, 29.4315, 27.2281, 13.8936, 12.6798, 108.258, -62.6999
0.583343, -1, 29.2375, 27.1293, 13.9326, 12.6823, 108.154, -62.9618
0.591269, -1, 29.0431, 27.0304, 13.9716, 12.6848, 108.051, -63.2232
0.599324, -1, 28.8487, 26.9314, 14.0105, 12.6874, 107.947, -63.4847
0.607264, -1, 28.6546, 26.8325, 14.0495, 12.6898, 107.844, -63.7462
0.615423, -1, 28.4605, 26.7337, 14.0885, 12.6923, 107.741, -64.0081
0.623272, -1, 28.2668, 26.635, 14.1276, 12.6948, 107.637, -64.2697
0.631263, -1, 28.0737, 26.5362, 14.1665, 12.6972, 107.534, -64.5312
0.639321, -1, 27.8809, 26.4374, 14.2056, 12.6996, 107.431, -64.7931
0.647261, -1, 27.6882, 26.3385, 14.2446, 12.702, 107.327, -65.055
0.65559, -1, 27.4958, 26.2396, 14.2835, 12.7045, 107.224, -65.3165
0.792945, -1, 24.2112, 24.5592, 14.9461, 12.7439, 105.469, -69.7655
0.794222, -1, 24.2112, 24.5592, 14.9461, 12.7439, 105.469, -69.7655
0.796243, -1, 24.1149, 24.5098, 14.9656, 12.745, 105.417, -69.8962
0.79766, -1, 24.1149, 24.5098, 14.9656, 12.745, 105.417, -69.8962
0.800535, -1, 24.1149, 24.5098, 14.9656, 12.7462, 105.366, -70.0269
0.801828, -1, 24.0186, 24.4605, 14.9851, 12.7462, 105.366, -70.0269
0.803778, -1, 23.9222, 24.411, 15.0046, 12.7473, 105.314, -70.1577
0.810247, -1, 23.8258, 24.3616, 15.024, 12.7486, 105.262, -70.2886
0.812335, -1, 23.7293, 24.3122, 15.0435, 12.7498, 105.21, -70.4194
0.813604, -1, 23.7293, 24.3122, 15.0435, 12.7498, 105.21, -70.4194
0.814798, -1, 23.7293, 24.3122, 15.0435, 12.7498, 105.21, -70.4194
0.816863, -1, 23.6328, 24.2627, 15.0629, 12.751, 105.159, -70.5505
0.818154, -1, 23.6328, 24.2627, 15.0629, 12.751, 105.159, -70.5505
0.82003, -1, 23.5362, 24.2133, 15.0824, 12.7522, 105.107, -70.6814
0.821478, -1, 23.5362, 24.2133, 15.0824, 12.7522, 105.107, -70.6814
0.822947, -1, 23.5362, 24.2133, 15.0824, 12.7522, 105.107, -70.6814
0.825656, -1, 23.4395, 24.1639, 15.1019, 12.7534, 105.055, -70.8123
0.826844, -1, 23.4395, 24.1639, 15.1019, 12.7534, 105.055, -70.8123
0.829837, -1, 23.3427, 24.1145, 15.1214, 12.7546, 105.004, -70.943
0.831797, -1, 23.3427, 24.1145, 15.1214, 12.7558, 104.952, -71.0739
0.83325, -1, 23.2458, 24.0651, 15.1408, 12.7558, 104.952, -71.0739
0.834486, -1, 23.2458, 24.0651, 15.1408, 12.7558, 104.952, -71.0739
0.841239, -1, 23.0519, 23.9661, 15.1797, 12.7583, 104.849, -71.3356
0.848765, -1, 22.9549, 23.9167, 15.1991, 12.7595, 104.797, -71.4665
0.855291, -1, 22.7608, 23.8179, 15.2381, 12.7619, 104.694, -71.7284
0.864292, -1, 22.4701, 23.6699, 15.2966, 12.7657, 104.539, -72.1208
0.871237, -1, 22.3734, 23.6206, 15.3161, 12.7669, 104.487, -72.2514
0.879241, -1, 22.18, 23.5218, 15.355, 12.7695, 104.383, -72.5128
0.887308, -1, 21.9869, 23.4231, 15.3939, 12.7721, 104.28, -72.7745
0.897526, -1, 21.698, 23.275, 15.4524, 12.776, 104.125, -73.1666
0.903278, -1, 21.6019, 23.2256, 15.4718, 12.7774, 104.074, -73.2972
0.911256, -1, 21.4097, 23.1268, 15.5107, 12.7801, 103.971, -73.5587
0.921241, -1, 21.1213, 22.9788, 15.5692, 12.7841, 103.816, -73.9511
0.92727, -1, 21.0251, 22.9295, 15.5887, 12.7854, 103.764, -74.0818
0.936777, -1, 20.7364, 22.7816, 15.6471, 12.7894, 103.61, -74.4735
0.945726, -1, 20.5438, 22.683, 15.686, 12.7922, 103.506, -74.7347
0.951245, -1, 20.4473, 22.6337, 15.7054, 12.7935, 103.455, -74.8654
0.959311, -1, 20.2538, 22.535, 15.7443, 12.7963, 103.352, -75.1269
0.968908, -1, 20.0601, 22.387, 15.8027, 12.8004, 103.197, -75.5184
0.976238, -1, 19.8665, 22.3376, 15.822, 12.8017, 103.146, -75.649
0.984239, -1, 19.6728, 22.239, 15.8608, 12.8044, 103.043, -75.9102
0.992279, -1, 19.4792, 22.1404, 15.8998, 12.8071, 102.94, -76.1715
0.999273, -1, 19.286, 22.0418, 15.9386, 12.8098, 102.837, -76.4326
1.00731, -1, 19.0931, 21.9431, 15.9775, 12.8126, 102.734, -76.6933
1.01525, -1, 18.9004, 21.8444, 16.0164, 12.8153, 102.631, -76.9542
1.02329, -1, 18.7082, 21.7456, 16.0551, 12.818, 102.528, -77.2152
1.03134, -1, 18.5163, 21.647, 16.094, 12.8207, 102.425, -77.4763
1.03923, -1, 18.3244, 21.5484, 16.1329, 12.8234, 102.322, -77.7369
1.04725, -1, 18.1325, 21.4499, 16.1717, 12.8259, 102.22, -77.9976
1.05532, -1, 17.9407, 21.3515, 16.2106, 12.8285, 102.117, -78.2584
1.06325, -1, 17.7488, 21.2532, 16.2495, 12.831, 102.014, -78.5191
1.07124, -1, 17.5566, 21.1549, 16.2883, 12.8335, 101.911, -78.7796
1.07933, -1, 17.364, 21.0566, 16.3272, 12.8359, 101.808, -79.04
1.08726, -1, 17.1709, 20.9583, 16.366, 12.8383, 101.704, -79.3006
1.09528, -1, 16.9778, 20.86, 16.4048, 12.8407, 101.602, -79.5614
1.10332, -1, 16.7848, 20.7618, 16.4436, 12.843, 101.499, -79.8218
1.11124, -1, 16.5917, 20.6636, 16.4824, 12.8453, 101.396, -80.0823
1.11925, -1, 16.3987, 20.5654, 16.521, 12.8477, 101.294, -80.3427
1.12732, -1, 16.2061, 20.4671, 16.5598, 12.8499, 101.191, -80.6034
1.13524, -1, 16.014, 20.3687, 16.5986, 12.8523, 101.088, -80.8637
1.14345, -1, 15.8222, 20.2702, 16.6373, 12.8546, 100.986, -81.1237
1.15124, -1, 15.6307, 20.1717, 16.6759, 12.8569, 100.883, -81.3837
1.15924, -1, 15.4395, 20.0733, 16.7145, 12.8592, 100.78, -81.6439
1.16817, -1, 15.2484, 19.975, 16.7533, 12.8615, 100.678, -81.904
1.17546, -1, 15.0573, 19.8768, 16.7921, 12.8638, 100.575, -82.1638
1.18342, -1, 14.8661, 19.7786, 16.8307, 12.8661, 100.473, -82.4236
1.19214, -1, 14.6747, 19.6805, 16.8695, 12.8684, 100.37, -82.6836
1.19969, -1, 14.4829, 19.5824, 16.9082, 12.8707, 100.267, -82.9436
1.20734, -1, 14.2909, 19.4844, 16.9469, 12.873, 100.165, -83.2032
1.21627, -1, 14.0986, 19.3864, 16.9856, 12.8753, 100.062, -83.4626
1.22385, -1, 13.9061, 19.2884, 17.0242, 12.8775, 99.9597, -83.7223
1.23224, -1, 13.7136, 19.1906, 17.0628, 12.8798, 99.8575, -83.982
1.24031, -1, 13.5212, 19.0928, 17.1016, 12.8822, 99.7549, -84.2412
1.24809, -1, 13.329, 18.9948, 17.1401, 12.8845, 99.6525, -84.5006
1.25542, -1, 13.1373, 18.897, 17.1786, 12.8868, 99.5504, -84.7598
1.26425, -1, 12.9459, 18.799, 17.2173, 12.8891, 99.4478, -85.0192
1.27207, -1, 12.7548, 18.701, 17.2559, 12.8915, 99.3455, -85.2785
1.27965, -1, 12.564, 18.6031, 17.2944, 12.894, 99.2433, -85.5373
1.28895, -1, 12.3736, 18.5054, 17.333, 12.8964, 99.1409, -85.7962
1.29648, -1, 12.1835, 18.4076, 17.3715, 12.8988, 99.0387, -86.0552
1.30381, -1, 11.9933, 18.3099, 17.41, 12.9012, 98.9367, -86.3141
1.31372, -1, 11.8028, 18.2123, 17.4486, 12.9035, 98.8347, -86.5727
1.32033, -1, 11.6122, 18.1147, 17.4871, 12.906, 98.7329, -86.8312
1.32783, -1, 11.4213, 18.0171, 17.5256, 12.9085, 98.631, -87.0899
1.33582, -1, 11.3258, 17.9196, 17.5642, 12.9109, 98.529, -87.3486
1.34429, -1, 11.0387, 17.8221, 17.6027, 12.9134, 98.4272, -87.6069
1.35124, -1, 10.9429, 17.7734, 17.6219, 12.9146, 98.3762, -87.736
1.36026, -1, 10.6554, 17.6271, 17.6796, 12.9184, 98.2231, -88.1234
1.36731, -1, 10.5596, 17.5784, 17.6988, 12.9196, 98.1723, -88.2526
1.37639, -1, 10.2728, 17.4321, 17.7564, 12.9234, 98.0196, -88.6398
1.38324, -1, 10.1773, 17.3834, 17.7757, 12.9247, 97.9686, -88.7689
1.39242, -1, 9.89147, 17.2369, 17.8331, 12.9287, 97.8159, -89.1559
1.39922, -1, 9.79638, 17.1882, 17.8523, 12.9299, 97.7648, -89.285
1.40858, -1, 9.51181, 17.042, 17.9099, 12.9341, 97.6119, -89.6721
1.41535, -1, 9.41719, 16.9934, 17.929, 12.9355, 97.561, -89.8008
1.42327, -1, 9.22793, 16.896, 17.9674, 12.9381, 97.459, -90.0584
1.43279, -1, 8.94388, 16.7502, 18.0249, 12.9421, 97.3063, -90.4448
1.43928, -1, 8.84915, 16.7016, 18.0441, 12.9434, 97.2555, -90.5736
1.44884, -1, 8.5648, 16.5559, 18.1017, 12.9474, 97.103, -90.9595
1.45684, -1, 8.37504, 16.4588, 18.14, 12.9502, 97.0016, -91.2166
1.46329, -1, 8.27993, 16.4103, 18.1592, 12.9515, 96.9509, -91.3452
1.47297, -1, 8.08942, 16.3134, 18.2167, 12.9554, 96.7984, -91.7312
1.48023, -1, 7.89895, 16.2166, 18.2359, 12.9568, 96.7476, -91.8597
1.48822, -1, 7.70836, 16.1196, 18.2741, 12.9594, 96.6464, -92.1166
1.49628, -1, 7.51777, 16.0227, 18.3124, 12.9619, 96.5448, -92.3732
1.50422, -1, 7.32748, 15.9257, 18.3507, 12.9645, 96.4435, -92.63
1.5113, -1, 7.13748, 15.8288, 18.3887, 12.967, 96.3423, -92.8868
1.51923, -1, 6.94784, 15.7318, 18.4271, 12.9696, 96.2408, -93.1433
1.52722, -1, 6.75863, 15.6349, 18.4653, 12.9721, 96.1399, -93.3997
1.53525, -1, 6.56994, 15.5381, 18.5033, 12.9746, 96.039, -93.656
1.54323, -1, 6.38159, 15.4413, 18.5414, 12.9771, 95.9379, -93.9125
1.55131, -1, 6.19353, 15.3446, 18.5796, 12.9796, 95.8371, -94.1687
1.55927, -1, 6.0054, 15.2479, 18.6177, 12.982, 95.7361, -94.4245
1.56722, -1, 5.81706, 15.1512, 18.6559, 12.9843, 95.6351, -94.6803
1.57531, -1, 5.62871, 15.0546, 18.694, 12.9866, 95.5343, -94.9364
1.58325, -1, 5.44012, 14.958, 18.732, 12.989, 95.4336, -95.1922
1.59125, -1, 5.25113, 14.8615, 18.7703, 12.9912, 95.3328, -95.4476
1.59931, -1, 5.06176, 14.7652, 18.8083, 12.9934, 95.2322, -95.7031
1.60722, -1, 4.87236, 14.6688, 18.8463, 12.9957, 95.1314, -95.9586
1.61523, -1, 4.68295, 14.5724, 18.8844, 12.9979, 95.0306, -96.2141
1.62331, -1, 4.49359, 14.476, 18.9225, 13.0001, 94.93, -96.4691
1.63122, -1, 4.30449, 14.3797, 18.9605, 13.0023, 94.8292, -96.7239
1.63928, -1, 4.11558, 14.2832, 18.9985, 13.0045, 94.7282, -96.9789
1.64723, -1, 3.92724, 14.1869, 19.0364, 13.0068, 94.6275, -97.2338
1.65523, -1, 3.73957, 14.0908, 19.0743, 13.009, 94.5267, -97.4887
1.66329, -1, 3.55219, 13.9945, 19.1123, 13.0113, 94.426, -97.7435
1.67125, -1, 3.36521, 13.8985, 19.1501, 13.0137, 94.3256, -97.9982
1.67936, -1, 3.17821, 13.8025, 19.1879, 13.016, 94.2247, -98.253
1.68729, -1, 2.99129, 13.7065, 19.2258, 13.0182, 94.124, -98.5076
1.69533, -1, 2.80431, 13.6104, 19.2638, 13.0204, 94.0235, -98.7618
1.70343, -1, 2.61717, 13.5145, 19.3017, 13.0227, 93.9229, -99.016
1.71132, -1, 2.4298, 13.4185, 19.3395, 13.0249, 93.8225, -99.2702
1.71929, -1, 2.2422, 13.3227, 19.3773, 13.0272, 93.7223, -99.5244
1.72739, -1, 2.05416, 13.2269, 19.4152, 13.0295, 93.6219, -99.7782
1.73525, -1, 1.86606, 13.1311, 19.453, 13.0317, 93.5219, -100.032
1.74327, -1, 1.67782, 13.0352, 19.4907, 13.034, 93.422, -100.285
1.75138, -1, 1.48961, 12.9394, 19.5285, 13.0363, 93.3217, -100.539
1.75939, -1, 1.30164, 12.8435, 19.5663, 13.0386, 93.2218, -100.793
1.76773, -1, 1.11394, 12.7477, 19.604, 13.0409, 93.1218, -101.046
1.77554, -1, 0.926898, 12.652, 19.6417, 13.0433, 93.0218, -101.298
1.78355, -1, 0.74034, 12.5565, 19.6794, 13.0456, 92.922, -101.552
1.79167, -1, 0.554195, 12.4609, 19.717, 13.0481, 92.8222, -101.805
1.79963, -1, 0.368463, 12.3656, 19.7547, 13.0506, 92.7224, -102.057
1.80833, -1, 0.182961, 12.2703, 19.7923, 13.053, 92.6231, -102.31
1.8162, -1, -0.0024231, 12.1749, 19.8299, 13.0555, 92.5235, -102.563
1.8238, -1, -0.187946, 12.0796, 19.8675, 13.0579, 92.4239, -102.815
1.83232, -1, -0.373699, 11.9844, 19.9052, 13.0604, 92.3245, -103.068
1.83986, -1, -0.559824, 11.8892, 19.9427, 13.0629, 92.225, -103.32
1.84838, -1, -0.74614, 11.7942, 19.9803, 13.0653, 92.1255, -103.572
1.85522, -1, -0.839372, 11.7467, 19.999, 13.0666, 92.0757, -103.698
1.86442, -1, -1.11947, 11.6041, 20.0552, 13.0703, 91.9268, -104.076
1.87124, -1, -1.21298, 11.5565, 20.0739, 13.0716, 91.8771, -104.202
1.88034, -1, -1.49335, 11.4139, 20.1303, 13.0754, 91.7284, -104.579
1.88726, -1, -1.5867, 11.3663, 20.149, 13.0767, 91.6788, -104.705
1.89649, -1, -1.86611, 11.2237, 20.205, 13.0805, 91.5299, -105.082
1.90322, -1, -1.95905, 11.1762, 20.2238, 13.0819, 91.4804, -105.207
1.91295, -1, -2.23692, 11.0339, 20.2799, 13.0859, 91.3316, -105.584
1.92061, -1, -2.42174, 10.939, 20.3173, 13.0885, 91.2324, -105.835
1.92729, -1, -2.51402, 10.8917, 20.336, 13.0898, 91.1829, -105.96
1.93683, -1, -2.79009, 10.7496, 20.3918, 13.0938, 91.0344, -106.337
1.94478, -1, -2.97407, 10.6548, 20.4292, 13.0964, 90.9353, -106.587
1.95278, -1, -3.15813, 10.5602, 20.4666, 13.099, 90.8365, -106.838
1.96106, -1, -3.34239, 10.4656, 20.5038, 13.1016, 90.7375, -107.089
1.96721, -1, -3.4347, 10.4183, 20.5224, 13.1028, 90.6881, -107.214
1.97528, -1, -3.61944, 10.3239, 20.5597, 13.1054, 90.5893, -107.464
1.98426, -1, -3.80432, 10.2296, 20.5969, 13.1079, 90.4904, -107.714
1.9922, -1, -3.98954, 10.1352, 20.6342, 13.1103, 90.3916, -107.964
2.00022, -1, -4.17498, 10.0409, 20.6714, 13.1128, 90.2931, -108.214
2.00826, -1, -4.36067, 9.94655, 20.7085, 13.1151, 90.1944, -108.464
2.01543, -1, -4.54612, 9.85222, 20.7458, 13.1174, 90.0958, -108.714
2.02322, -1, -4.73119, 9.75799, 20.7831, 13.1197, 89.9974, -108.963
2.03121, -1, -4.91597, 9.66381, 20.8201, 13.1222, 89.8989, -109.213
2.04008, -1, -5.10011, 9.56982, 20.8572, 13.1244, 89.8004, -109.462
2.0472, -1, -5.2836, 9.47576, 20.8944, 13.1268, 89.7021, -109.711
2.05522, -1, -5.46674, 9.38185, 20.9315, 13.1292, 89.6037, -109.96
2.06401, -1, -5.64944, 9.28795, 20.9685, 13.1314, 89.5054, -110.209
2.0712, -1, -5.83183, 9.194, 21.0057, 13.1337, 89.4073, -110.458
2.07931, -1, -6.01415, 9.10014, 21.0426, 13.136, 89.3092, -110.706
2.08805, -1, -6.19668, 9.00631, 21.0796, 13.1382, 89.211, -110.955
2.09627, -1, -6.37958, 8.91256, 21.1166, 13.1404, 89.1133, -111.203
2.10421, -1, -6.5626, 8.8189, 21.1534, 13.1426, 89.0153, -111.451
2.11222, -1, -6.74597, 8.72525, 21.1903, 13.1447, 88.9173, -111.7
2.1192, -1, -6.92979, 8.63165, 21.2272, 13.1468, 88.8196, -111.948
2.12722, -1, -7.11379, 8.53805, 21.2641, 13.149, 88.7216, -112.196
2.136, -1, -7.29808, 8.4445, 21.301, 13.1511, 88.6238, -112.443
2.1443, -1, -7.48207, 8.35084, 21.3379, 13.1532, 88.5262, -112.691
2.15131, -1, -7.66575, 8.25737, 21.3746, 13.1554, 88.4286, -112.938
2.1601, -1, -7.84908, 8.16398, 21.4114, 13.1575, 88.3311, -113.185
2.16721, -1, -8.03197, 8.07061, 21.4484, 13.1599, 88.2338, -113.433
2.17548, -1, -8.21409, 7.97732, 21.4851, 13.162, 88.1363, -113.68
2.18409, -1, -8.39565, 7.88407, 21.5218, 13.1643, 88.0389, -113.927
2.1922, -1, -8.57679, 7.7908, 21.5587, 13.1665, 87.9416, -114.174
2.19966, -1, -8.75763, 7.69761, 21.5955, 13.1688, 87.8441, -114.42
2.20815, -1, -8.93823, 7.60446, 21.6322, 13.1711, 87.7466, -114.667
2.21531, -1, -9.11921, 7.51137, 21.669, 13.1733, 87.6495, -114.913
2.2239, -1, -9.30039, 7.41843, 21.7056, 13.1755, 87.5523, -115.16
2.23228, -1, -9.48185, 7.32564, 21.7423, 13.1777, 87.4551, -115.406
2.23923, -1, -9.66366, 7.2328, 21.779, 13.1799, 87.3582, -115.652
2.24807, -1, -9.84582, 7.14008, 21.8155, 13.1822, 87.2608, -115.898
2.2562, -1, -10.0283, 7.04735, 21.8521, 13.1844, 87.1637, -116.144
2.26335, -1, -10.211, 6.95457, 21.8887, 13.1866, 87.0666, -116.39
2.27229, -1, -10.3936, 6.86177, 21.9253, 13.1888, 86.9693, -116.635
2.28038, -1, -10.5761, 6.76908, 21.9619, 13.1911, 86.8723, -116.88
2.28766, -1, -10.7581, 6.67643, 21.9984, 13.1934, 86.7754, -117.126
2.29644, -1, -10.9397, 6.5838, 22.0348, 13.1958, 86.6784, -117.371
2.30365, -1, -11.1205, 6.49129, 22.0712, 13.1982, 86.5816, -117.616
2.31177, -1, -11.3005, 6.3988, 22.1078, 13.2006, 86.4851, -117.861
2.32059, -1, -11.4803, 6.30629, 22.1442, 13.203, 86.3883, -118.106
2.32778, -1, -11.6598, 6.21387, 22.1806, 13.2055, 86.2916, -118.351
2.33582, -1, -11.8391, 6.1215, 22.2172, 13.208, 86.1951, -118.595
2.34482, -1, -12.0183, 6.02919, 22.2536, 13.2104, 86.0984, -118.84
2.35312, -1, -12.1976, 5.93702, 22.2899, 13.2129, 86.0019, -119.084
2.35984, -1, -12.2873, 5.89101, 22.3082, 13.2141, 85.9537, -119.328
2.36889, -1, -12.5574, 5.75298, 22.3626, 13.2179, 85.8092, -119.572
2.37626, -1, -12.7378, 5.66101, 22.3988, 13.2203, 85.7129, -119.816
2.38326, -1, -12.8282, 5.61506, 22.4171, 13.2215, 85.6649, -119.938
2.39322, -1, -13.0999, 5.47716, 22.4715, 13.2252, 85.5211, -120.303
2.39922, -1, -13.1905, 5.43114, 22.4896, 13.2264, 85.4731, -120.425
2.40721, -1, -13.3717, 5.33916, 22.5259, 13.2288, 85.3772, -120.669
2.41655, -1, -13.6428, 5.20131, 22.5802, 13.2326, 85.2336, -121.034
2.42327, -1, -13.733, 5.1554, 22.5982, 13.2339, 85.1857, -121.155
2.43123, -1, -13.9129, 5.06356, 22.6344, 13.2365, 85.0898, -121.398
2.44075, -1, -14.1812, 4.92599, 22.6886, 13.2403, 84.9466, -121.763
2.44875, -1, -14.3595, 4.83435, 22.7247, 13.2429, 84.8509, -122.006
2.45519, -1, -14.4485, 4.78855, 22.7428, 13.2441, 84.8031, -122.127
2.46481, -1, -14.6261, 4.65113, 22.7971, 13.248, 84.6597, -122.49
2.47279, -1, -14.8038, 4.60538, 22.8151, 13.2504, 84.564, -122.733
2.48105, -1, -15.0702, 4.46821, 22.8693, 13.2529, 84.4684, -122.975
2.48723, -1, -15.1592, 4.42257, 22.8874, 13.2541, 84.4206, -123.096
2.49619, -1, -15.3375, 4.33127, 22.9235, 13.2565, 84.3248, -123.338
2.50321, -1, -15.5162, 4.23996, 22.9595, 13.2589, 84.2292, -123.58
2.51119, -1, -15.6953, 4.14874, 22.9955, 13.2611, 84.1338, -123.821
2.51925, -1, -15.8746, 4.05754, 23.0314, 13.2635, 84.0382, -124.063
2.52721, -1, -16.054, 3.96627, 23.0674, 13.2656, 83.9427, -124.305
2.53523, -1, -16.2338, 3.87498, 23.1035, 13.2678, 83.8476, -124.546
2.54329, -1, -16.4133, 3.78381, 23.1394, 13.2699, 83.7519, -124.787
2.5512, -1, -16.5925, 3.69264, 23.1752, 13.2721, 83.6565, -125.029
2.55929, -1, -16.7712, 3.60147, 23.2111, 13.2743, 83.5613, -125.27
2.5672, -1, -16.9493, 3.51042, 23.247, 13.2766, 83.4657, -125.511
2.5752, -1, -17.1264, 3.4194, 23.2828, 13.2788, 83.3704, -125.752
2.58327, -1, -17.303, 3.32849, 23.3187, 13.281, 83.2755, -125.992
2.59119, -1, -17.4794, 3.23763, 23.3545, 13.2831, 83.1802, -126.233
2.59923, -1, -17.6556, 3.14688, 23.3903, 13.2853, 83.0852, -126.473
2.60729, -1, -17.8316, 3.05627, 23.4263, 13.2874, 82.9906, -126.714
2.61519, -1, -18.0077, 2.96571, 23.4621, 13.2895, 82.8957, -126.954
2.62321, -1, -18.1842, 2.87532, 23.4978, 13.2917, 82.8008, -127.194
2.63125, -1, -18.3609, 2.78493, 23.5336, 13.2937, 82.7063, -127.434
2.63918, -1, -18.5381, 2.69454, 23.5693, 13.2957, 82.6115, -127.674
2.64721, -1, -18.7157, 2.60421, 23.6049, 13.2978, 82.5169, -127.913
2.65527, -1, -18.8936, 2.51384, 23.6407, 13.2998, 82.4226, -128.153
2.6632, -1, -19.0717, 2.42335, 23.6764, 13.3018, 82.3281, -128.392
2.67145, -1, -19.2499, 2.33293, 23.7119, 13.3038, 82.2337, -128.631
2.67923, -1, -19.428, 2.2425, 23.7475, 13.3059, 82.1397, -128.87
2.68728, -1, -19.6053, 2.15211, 23.7831, 13.3081, 82.0455, -129.109
2.69559, -1, -19.7821, 2.06177, 23.8185, 13.3102, 81.9513, -129.348
2.7033, -1, -19.9582, 1.97152, 23.854, 13.3124, 81.8572, -129.588
2.71132, -1, -20.1336, 1.88131, 23.8896, 13.3145, 81.7632, -129.826
2.71975, -1, -20.3086, 1.79112, 23.925, 13.3168, 81.6691, -130.064
2.72726, -1, -20.4834, 1.701, 23.9605, 13.3189, 81.575, -130.303
2.7352, -1, -20.6578, 1.61102, 23.9961, 13.3211, 81.4813, -130.541
2.74393, -1, -20.8324, 1.52111, 24.0315, 13.3233, 81.3873, -130.779
2.75227, -1, -21.0073, 1.43132, 24.0669, 13.3255, 81.2937, -131.017
2.75931, -1, -21.1825, 1.34158, 24.1024, 13.3277, 81.2, -131.255
2.76819, -1, -21.3581, 1.25182, 24.1378, 13.3298, 81.1061, -131.493
2.7754, -1, -21.5339, 1.16219, 24.1731, 13.332, 81.0122, -131.731
2.78363, -1, -21.7101, 1.07255, 24.2085, 13.3341, 80.9185, -131.968
2.79155, -1, -21.8864, 0.982868, 24.2439, 13.3364, 80.8247, -132.205
2.79958, -1, -22.0629, 0.893265, 24.2793, 13.3385, 80.7309, -132.442
2.8078, -1, -22.2395, 0.803708, 24.3146, 13.3407, 80.6374, -132.68
2.81637, -1, -22.4158, 0.714213, 24.3499, 13.3429, 80.5437, -132.917
2.82374, -1, -22.5916, 0.624692, 24.385, 13.3452, 80.4501, -133.154
2.83229, -1, -22.7669, 0.535246, 24.4202, 13.3477, 80.3567, -133.39
2.83979, -1, -22.9413, 0.445856, 24.4555, 13.35, 80.2629, -133.627
2.84829, -1, -23.115, 0.35647, 24.4906, 13.3525, 80.1694, -133.864
2.85578, -1, -23.2018, 0.311819, 24.5081, 13.3537, 80.076, -134.101
2.86427, -1, -23.4616, 0.177867, 24.561, 13.3574, 79.9824, -134.337
2.87119, -1, -23.5482, 0.133281, 24.5786, 13.3586, 79.9358, -134.455
2.87927, -1, -23.7215, 0.044147, 24.6137, 13.3609, 79.8425, -134.691
2.88718, -1, -23.8949, -0.0449166, 24.6489, 13.3633, 79.7495, -134.928
2.89636, -1, -24.1553, -0.178337, 24.7015, 13.367, 79.6097, -135.282
2.90325, -1, -24.2422, -0.222825, 24.719, 13.3683, 79.5631, -135.399
2.9126, -1, -24.5035, -0.356181, 24.7717, 13.3719, 79.4236, -135.753
2.91918, -1, -24.5908, -0.40062, 24.7892, 13.3731, 79.377, -135.87
2.92875, -1, -24.8531, -0.533991, 24.8417, 13.3767, 79.2375, -136.224
2.93675, -1, -25.0282, -0.62286, 24.8769, 13.3791, 79.1446, -136.459
2.94475, -1, -25.2031, -0.711675, 24.9119, 13.3814, 79.0516, -136.694
2.95276, -1, -25.3776, -0.800432, 24.9468, 13.3838, 78.9589, -136.929
2.96078, -1, -25.5517, -0.88921, 24.9819, 13.3863, 78.8663, -137.164
2.96875, -1, -25.6386, -0.977945, 25.0167, 13.3888, 78.7734, -137.399
2.97697, -1, -25.8117, -1.02228, 25.0516, 13.3911, 78.6808, -137.634
2.9848, -1, -25.9844, -1.111, 25.0691, 13.3924, 78.6348, -137.869
2.99218, -1, -26.1566, -1.19967, 25.1041, 13.3948, 78.5422, -137.986
2.99919, -1, -26.3285, -1.28825, 25.139, 13.3972, 78.4497, -138.22
3.00719, -1, -26.5003, -1.37673, 25.1738, 13.3996, 78.3571, -138.455
3.01524, -1, -26.6723, -1.46512, 25.2088, 13.4018, 78.2648, -138.689
3.02319, -1, -26.8444, -1.55339, 25.2437, 13.404, 78.1723, -138.923
3.03118, -1, -27.0168, -1.64153, 25.2785, 13.4063, 78.0799, -139.157
3.03925, -1, -27.1893, -1.72972, 25.3135, 13.4084, 77.9879, -139.391
3.0472, -1, -27.362, -1.81789, 25.3483, 13.4106, 77.8957, -139.625
3.05528, -1, -27.5351, -1.90593, 25.383, 13.4127, 77.8037, -139.858
3.06326, -1, -27.7083, -1.99412, 25.4179, 13.4148, 77.7118, -140.091
3.07117, -1, -27.8816, -2.0822, 25.4528, 13.4169, 77.6196, -140.325
3.07937, -1, -28.0548, -2.1702, 25.4875, 13.4189, 77.5276, -140.558
3.08719, -1, -28.228, -2.2582, 25.5222, 13.4209, 77.4357, -140.792
3.09518, -1, -28.4009, -2.34627, 25.5571, 13.4231, 77.3435, -141.025
3.10402, -1, -28.5735, -2.43427, 25.5917, 13.4252, 77.2514, -141.257
3.11224, -1, -28.7456, -2.5222, 25.6264, 13.4274, 77.1595, -141.49
3.12028, -1, -28.917, -2.61021, 25.6611, 13.4295, 77.0675, -141.723
3.12819, -1, -29.0878, -2.69811, 25.6957, 13.4316, 76.9756, -141.956
3.13517, -1, -29.2584, -2.78594, 25.7303, 13.4337, 76.8839, -142.188
3.14318, -1, -29.429, -2.87373, 25.765, 13.4358, 76.7919, -142.421
3.152, -1, -29.5998, -2.96136, 25.7996, 13.4378, 76.7001, -142.653
3.16024, -1, -29.7708, -3.04892, 25.8341, 13.4398, 76.6083, -142.886
3.16717, -1, -29.9419, -3.13646, 25.8687, 13.4419, 76.5165, -143.118
3.17526, -1, -30.1128, -3.22392, 25.9032, 13.444, 76.4248, -143.35
3.18324, -1, -30.2839, -3.31146, 25.9377, 13.446, 76.3331, -143.582
3.19132, -1, -30.4552, -3.39884, 25.9723, 13.4481, 76.2417, -143.814
3.20004, -1, -30.6269, -3.48636, 26.0069, 13.4501, 76.15, -144.046
3.20821, -1, -30.7987, -3.57377, 26.0413, 13.4522, 76.0586, -144.277
3.21537, -1, -30.9704, -3.66113, 26.0758, 13.4542, 75.9674, -144.508
3.22451, -1, -31.1422, -3.7485, 26.1104, 13.4562, 75.8758, -144.739
3.23118, -1, -31.3137, -3.83581, 26.1448, 13.4583, 75.7845, -144.971
3.23931, -1, -31.4848, -3.92313, 26.1791, 13.4604, 75.6933, -145.202
3.2472, -1, -31.6554, -4.01037, 26.2136, 13.4626, 75.6019, -145.433
3.25526, -1, -31.8257, -4.09766, 26.248, 13.4647, 75.5107, -145.664
3.26336, -1, -31.9955, -4.1849, 26.2824, 13.467, 75.4199, -145.895
3.27135, -1, -32.165, -4.27204, 26.3168, 13.4691, 75.3287, -146.126
3.27952, -1, -32.3344, -4.35914, 26.3511, 13.4713, 75.2375, -146.356
3.28752, -1, -32.5041, -4.44617, 26.3854, 13.4734, 75.1468, -146.587
3.29558, -1, -32.6738, -4.53308, 26.4198, 13.4756, 75.0559, -146.817
3.3037, -1, -32.8434, -4.62001, 26.4542, 13.4777, 74.9651, -147.048
3.31231, -1, -33.0131, -4.70693, 26.4883, 13.4799, 74.8744, -147.278
3.31971, -1, -33.1828, -4.79385, 26.5226, 13.4821, 74.7839, -147.508
3.32783, -1, -33.3527, -4.88069, 26.5569, 13.4844, 74.6931, -147.738
3.33633, -1, -33.5229, -4.96759, 26.5912, 13.4866, 74.6025, -147.968
3.34375, -1, -33.6932, -5.05444, 26.6254, 13.4887, 74.5122, -148.198
3.35186, -1, -33.7783, -5.1412, 26.6597, 13.4909, 74.4214, -148.428
3.36035, -1, -34.0337, -5.2279, 26.6938, 13.4932, 74.3309, -148.657
3.36716, -1, -34.1188, -5.27127, 26.7108, 13.4943, 74.2857, -148.772
3.37522, -1, -34.2888, -5.35797, 26.745, 13.4965, 74.1953, -149.001
3.38434, -1, -34.5437, -5.48797, 26.7964, 13.5, 74.0593, -149.345
3.39116, -1, -34.6283, -5.53131, 26.8134, 13.5012, 74.014, -149.46
3.40047, -1, -34.8815, -5.66127, 26.8646, 13.5048, 73.8782, -149.804
3.40716, -1, -34.9658, -5.70457, 26.8817, 13.5061, 73.8329, -149.918
3.41648, -1, -35.2183, -5.83431, 26.9328, 13.5097, 73.6974, -150.261
3.42318, -1, -35.3025, -5.8775, 26.9498, 13.5109, 73.6524, -150.376
3.43262, -1, -35.5554, -6.00689, 27.001, 13.5145, 73.5168, -150.72
3.44064, -1, -35.7239, -6.09313, 27.035, 13.5169, 73.4264, -150.948
3.44717, -1, -35.8081, -6.13621, 27.052, 13.5181, 73.3814, -151.063
3.45678, -1, -36.0608, -6.26541, 27.1032, 13.5217, 73.2458, -151.405
3.46474, -1, -36.2293, -6.35152, 27.1371, 13.5241, 73.1553, -151.634
3.47327, -1, -36.398, -6.43774, 27.1711, 13.5265, 73.0651, -151.863
3.47916, -1, -36.4825, -6.48086, 27.1881, 13.5277, 73.0199, -151.977
3.48871, -1, -36.6513, -6.56701, 27.222, 13.53, 72.9296, -152.205
3.49622, -1, -36.8202, -6.65325, 27.256, 13.5321, 72.8393, -152.433
3.50415, -1, -36.9892, -6.73935, 27.2899, 13.5345, 72.7493, -152.661
3.51216, -1, -37.1581, -6.8255, 27.3239, 13.5368, 72.6592, -152.889
3.52321, -1, -37.411, -6.95458, 27.3747, 13.5402, 72.5244, -153.231
3.52716, -1, -37.4951, -6.99762, 27.3917, 13.5413, 72.4795, -153.344
3.53516, -1, -37.6629, -7.08366, 27.4258, 13.5436, 72.3895, -153.572
3.54324, -1, -37.8306, -7.16967, 27.4596, 13.5458, 72.2997, -153.799
3.5512, -1, -37.9982, -7.25559, 27.4935, 13.548, 72.2101, -154.027
3.55918, -1, -38.1657, -7.3415, 27.5275, 13.5502, 72.1201, -154.254
3.56729, -1, -38.3331, -7.42732, 27.5614, 13.5524, 72.0305, -154.481
3.57515, -1, -38.5003, -7.513, 27.5952, 13.5545, 71.941, -154.709
3.58317, -1, -38.6676, -7.59871, 27.6291, 13.5565, 71.8513, -154.936
3.59124, -1, -38.8349, -7.68441, 27.663, 13.5586, 71.7618, -155.163
3.59915, -1, -39.0022, -7.77008, 27.6968, 13.5607, 71.6724, -155.39
3.60719, -1, -39.1696, -7.85566, 27.7306, 13.5628, 71.5832, -155.617
3.61524, -1, -39.3372, -7.94137, 27.7645, 13.5647, 71.4938, -155.843
3.62317, -1, -39.5048, -8.02699, 27.7982, 13.5667, 71.4043, -156.07
3.63117, -1, -39.6724, -8.11249, 27.8319, 13.5686, 71.3153, -156.297
3.63922, -1, -39.8401, -8.19795, 27.8657, 13.5705, 71.2257, -156.523
3.64715, -1, -40.0077, -8.2834, 27.8994, 13.5725, 71.1364, -156.75
3.65516, -1, -40.1752, -8.36878, 27.933, 13.5744, 71.0472, -156.976
3.66326, -1, -40.3425, -8.45413, 27.9668, 13.5764, 70.9578, -157.202
3.67116, -1, -40.5096, -8.53951, 28.0005, 13.5784, 70.8686, -157.428
3.67918, -1, -40.6765, -8.62487, 28.034, 13.5803, 70.7794, -157.654
3.68727, -1, -40.8433, -8.71024, 28.0677, 13.5824, 70.6903, -157.88
3.69525, -1, -41.0097, -8.79559, 28.1014, 13.5844, 70.6012, -158.106
3.70326, -1, -41.1761, -8.88089, 28.135, 13.5864, 70.5121, -158.332
3.71133, -1, -41.3422, -8.96605, 28.1685, 13.5884, 70.423, -158.558
3.71939, -1, -41.5085, -9.05123, 28.2021, 13.5904, 70.3338, -158.783
3.72726, -1, -41.6748, -9.13634, 28.2357, 13.5924, 70.2445, -159.008
3.73533, -1, -41.8411, -9.22141, 28.2693, 13.5943, 70.1557, -159.234
3.74318, -1, -42.0075, -9.30642, 28.3029, 13.5964, 70.0665, -159.46
3.75138, -1, -42.1738, -9.39148, 28.3366, 13.5984, 69.9774, -159.685
3.75927, -1, -42.34, -9.47653, 28.37, 13.6004, 69.8888, -159.91
3.76725, -1, -42.5063, -9.56148, 28.4036, 13.6025, 69.7997, -160.135
3.77541, -1, -42.6728, -9.64646, 28.4371, 13.6045, 69.7108, -160.361
3.78345, -1, -42.8392, -9.73142, 28.4706, 13.6065, 69.6219, -160.586
3.79145, -1, -43.0056, -9.81636, 28.504, 13.6086, 69.5332, -160.811
3.79987, -1, -43.1719, -9.90129, 28.5375, 13.6106, 69.4444, -161.036
3.80821, -1, -43.3381, -9.98627, 28.571, 13.6127, 69.3556, -161.26
3.81563, -1, -43.5041, -10.0712, 28.6044, 13.6147, 69.2672, -161.485
3.82429, -1, -43.67, -10.1562, 28.638, 13.6168, 69.1784, -161.71
3.83178, -1, -43.8359, -10.2411, 28.6714, 13.6189, 69.09, -161.935
3.8403, -1, -44.0017, -10.3259, 28.7048, 13.6211, 69.0017, -162.159
3.8479, -1, -44.0844, -10.4107, 28.7383, 13.6232, 68.9129, -162.383
3.85631, -1, -44.3323, -10.4953, 28.7718, 13.6254, 68.8243, -162.608
3.86395, -1, -44.4148, -10.5376, 28.7885, 13.6277, 68.7357, -162.832
3.87218, -1, -44.6626, -10.6644, 28.8385, 13.6298, 68.6471, -163.056
3.87918, -1, -44.7452, -10.7066, 28.8553, 13.6309, 68.6028, -163.168
3.88914, -1, -44.9933, -10.8332, 28.9054, 13.6342, 68.4701, -163.504
3.89517, -1, -45.076, -10.8755, 28.9221, 13.6353, 68.426, -163.616
3.90318, -1, -45.2413, -10.96, 28.9555, 13.6375, 68.3375, -163.84
3.91246, -1, -45.4892, -11.0867, 29.0056, 13.6409, 68.205, -164.176
3.91916, -1, -45.5718, -11.1289, 29.0221, 13.642, 68.161, -164.288
3.92902, -1, -45.8197, -11.2556, 29.072, 13.6455, 68.0284, -164.623
3.93674, -1, -45.9839, -11.3395, 29.1054, 13.6477, 67.9401, -164.847
3.94498, -1, -46.1454, -11.4219, 29.1388, 13.65, 67.852, -165.07
3.9527, -1, -46.3025, -11.5014, 29.1724, 13.6525, 67.7646, -165.291
3.96079, -1, -46.4529, -11.5765, 29.2059, 13.6548, 67.6794, -165.507
3.96875, -1, -46.5942, -11.6465, 29.2382, 13.6571, 67.5978, -165.713
3.97677, -1, -46.724, -11.7099, 29.2681, 13.6593, 67.523, -165.903
3.98479, -1, -46.7836, -11.7389, 29.2818, 13.6614, 67.4559, -166.072
3.99298, -1, -46.8908, -11.7916, 29.3062, 13.6623, 67.4265, -166.147
3.99922, -1, -46.9816, -11.8376, 29.3257, 13.6637, 67.376, -166.275
4.00818, -1, -47.0566, -11.8776, 29.3396, 13.6647, 67.3367, -166.374
4.01616, -1, -47.1166, -11.9109, 29.3487, 13.6653, 67.3082, -166.446
4.02417, -1, -47.1622, -11.9367, 29.3543, 13.6656, 67.2893, -166.494
4.03116, -1, -47.1953, -11.9555, 29.357, 13.6657, 67.2775, -166.523
4.03916, -1, -47.2181, -11.9682, 29.3582, 13.6658, 67.271, -166.54
4.04718, -1, -47.2324, -11.976, 29.3588, 13.6659, 67.2676, -166.548
4.05518, -1, -47.2405, -11.9803, 29.359, 13.6659, 67.2659, -166.553
4.06316, 2, -47.2443, -11.9823, 29.3592, 13.666, 67.2651, -166.554
4.07119, 2, -47.2452, -11.9832, 29.3593, 13.6661, 67.2647, -166.555
4.07922, 2, -47.245, -11.9835, 29.3594, 13.6661, 67.2646, -166.556
4.08718, 2, -47.2448, -11.9837, 29.3594, 13.6661, 67.2645, -166.556
4.09519, 2, -47.245, -11.9837, 29.3594, 13.6661, 67.2645, -166.556
4.10313, 2, -47.2456, -11.9839, 29.3595, 13.6661, 67.2645, -166.556
4.11121, 2, -47.2466, -11.9843, 29.3595, 13.6661, 67.2645, -166.556
4.1192, 2, -47.2482, -11.9849, 29.3595, 13.6661, 67.2645, -166.556
4.12714, 2, -47.25, -11.9857, 29.3595, 13.6661, 67.2645, -166.556
4.13516, 2, -47.2514, -11.9866, 29.3595, 13.6661, 67.2645, -166.556
4.14319, 2, -47.2526, -11.9873, 29.3595, 13.6661, 67.2645, -166.556
4.15115, 2, -47.2533, -11.9879, 29.3595, 13.6661, 67.2645, -166.556
4.15916, 2, -47.2536, -11.9881, 29.3595, 13.6661, 67.2645, -166.556
4.16722, 2, -47.2537, -11.9883, 29.3595, 13.6661, 67.2645, -166.556
4.17514, 2, -47.2537, -11.9883, 29.3595, 13.6661, 67.2645, -166.556
4.1832, 2, -47.2532, -11.9883, 29.3595, 13.6661, 67.2645, -166.556
4.19128, 2, -47.2528, -11.9883, 29.3595, 13.6661, 67.2644, -166.556
4.19934, 2, -47.2524, -11.9882, 29.3595, 13.6661, 67.2645, -166.556
4.20727, 2, -47.2521, -11.9883, 29.3595, 13.6661, 67.2645, -166.556
4.2153, 2, -47.2521, -11.9883, 29.3595, 13.6661, 67.2645, -166.556
4.22328, 2, -47.2521, -11.9884, 29.3595, 13.6661, 67.2645, -166.556
4.23128, 2, -47.2522, -11.9886, 29.3595, 13.6661, 67.2645, -166.556
4.23925, 2, -47.2526, -11.9889, 29.3595, 13.6661, 67.2645, -166.556
4.24717, 2, -47.2532, -11.9893, 29.3595, 13.666, 67.2645, -166.556
4.2552, 2, -47.2536, -11.9896, 29.3595, 13.6661, 67.2645, -166.556
4.26327, 2, -47.2538, -11.9897, 29.3595, 13.666, 67.2645, -166.556
4.27126, 2, -47.2539, -11.9897, 29.3595, 13.666, 67.2645, -166.556
4.27944, 2, -47.2539, -11.9897, 29.3595, 13.6661, 67.2645, -166.556
4.28777, 2, -47.2538, -11.9896, 29.3595, 13.6661, 67.2645, -166.556
4.29621, 2, -47.2535, -11.9896, 29.3595, 13.666, 67.2645, -166.556
4.30357, 2, -47.253, -11.9896, 29.3595, 13.6661, 67.2645, -166.556
4.31197, 2, -47.2527, -11.9896, 29.3595, 13.6661, 67.2645, -166.556
4.32027, 2, -47.2525, -11.9895, 29.3595, 13.6661, 67.2645, -166.556
4.32769, 2, -47.2524, -11.9896, 29.3595, 13.666, 67.2645, -166.556
4.33628, 2, -47.2523, -11.9896, 29.3595, 13.6661, 67.2645, -166.556
4.34373, 2, -47.2523, -11.9897, 29.3595, 13.666, 67.2645, -166.556
4.35224, 2, -47.2523, -11.9897, 29.3595, 13.666, 67.2645, -166.556
4.35998, 2, -47.2522, -11.9898, 29.3595, 13.666, 67.2645, -166.556
4.36819, 2, -47.2522, -11.9898, 29.3595, 13.666, 67.2645, -166.555
4.37521, 2, -47.2522, -11.9898, 29.3595, 13.666, 67.2645, -166.555
4.38426, 2, -47.2522, -11.9898, 29.3595, 13.666, 67.2646, -166.556
4.39117, 2, -47.2522, -11.9897, 29.3595, 13.666, 67.2646, -166.556
4.4003, 2, -47.2521, -11.9896, 29.3595, 13.666, 67.2646, -166.556
4.40717, 2, -47.2521, -11.9896, 29.3595, 13.666, 67.2646, -166.556
4.41515, 2, -47.2519, -11.9896, 29.3595, 13.666, 67.2646, -166.555
4.4245, 2, -47.2518, -11.9895, 29.3595, 13.666, 67.2646, -166.555
4.43117, 2, -47.2517, -11.9895, 29.3595, 13.666, 67.2646, -166.555
4.43913, 2, -47.2516, -11.9895, 29.3595, 13.666, 67.2645, -166.555
4.44867, 2, -47.2515, -11.9896, 29.3595, 13.666, 67.2645, -166.555
4.45705, 2, -47.2515, -11.9896, 29.3595, 13.666, 67.2645, -166.555
4.46475, 2, -47.2514, -11.9896, 29.3595, 13.666, 67.2646, -166.555
4.47273, 2, -47.2514, -11.9896, 29.3595, 13.666, 67.2645, -166.555
4.48098, 2, -47.2513, -11.9896, 29.3595, 13.666, 67.2645, -166.555
4.48713, 2, -47.2513, -11.9896, 29.3595, 13.666, 67.2645, -166.555
4.49618, 2, -47.2512, -11.9895, 29.3595, 13.6659, 67.2646, -166.555
4.50501, 2, -47.251, -11.9895, 29.3595, 13.6659, 67.2646, -166.555
4.51114, 2, -47.251, -11.9894, 29.3595, 13.6659, 67.2646, -166.555
4.51915, 2, -47.2509, -11.9894, 29.3595, 13.6659, 67.2646, -166.555
4.52717, 2, -47.2508, -11.9893, 29.3595, 13.666, 67.2646, -166.555
4.53513, 2, -47.2507, -11.9893, 29.3595, 13.666, 67.2646, -166.555
4.54315, 2, -47.2506, -11.9893, 29.3595, 13.666, 67.2646, -166.555
4.55118, 2, -47.2505, -11.9893, 29.3595, 13.666, 67.2646, -166.555
4.55918, 2, -47.2504, -11.9893, 29.3595, 13.666, 67.2646, -166.555
4.56715, 2, -47.2504, -11.9893, 29.3595, 13.6659, 67.2646, -166.555
4.57516, 2, -47.2502, -11.9893, 29.3595, 13.6659, 67.2646, -166.555
4.58313, 2, -47.2501, -11.9893, 29.3595, 13.666, 67.2646, -166.555
4.59116, 2, -47.25, -11.9893, 29.3595, 13.6659, 67.2646, -166.555
4.59917, 2, -47.25, -11.9893, 29.3595, 13.6659, 67.2647, -166.555
4.60713, 2, -47.2499, -11.9892, 29.3595, 13.6659, 67.2646, -166.555
4.61518, 2, -47.2498, -11.9891, 29.3595, 13.6659, 67.2647, -166.555
4.62319, 2, -47.2496, -11.989, 29.3595, 13.6659, 67.2647, -166.555
4.63113, 2, -47.2495, -11.989, 29.3595, 13.6659, 67.2647, -166.555
4.63915, 2, -47.2495, -11.989, 29.3595, 13.6659, 67.2647, -166.555
4.64717, 2, -47.2494, -11.989, 29.3595, 13.6659, 67.2647, -166.555
4.65513, 2, -47.2493, -11.989, 29.3595, 13.6659, 67.2647, -166.555
4.66315, 2, -47.2492, -11.989, 29.3595, 13.6659, 67.2647, -166.555
4.67121, 2, -47.2492, -11.989, 29.3595, 13.6659, 67.2647, -166.555
4.67913, 2, -47.2491, -11.989, 29.3595, 13.6659, 67.2647, -166.555
4.68718, 2, -47.2491, -11.989, 29.3595, 13.6658, 67.2647, -166.555
4.69532, 2, -47.2491, -11.9889, 29.3595, 13.6658, 67.2647, -166.555
4.70418, 2, -47.2491, -11.9889, 29.3595, 13.6658, 67.2647, -166.555
4.71126, 2, -47.2489, -11.9888, 29.3595, 13.6658, 67.2647, -166.555
4.71927, 2, -47.2489, -11.9888, 29.3595, 13.6658, 67.2647, -166.555
4.72726, 2, -47.2489, -11.9887, 29.3595, 13.6658, 67.2647, -166.555
4.73525, 2, -47.2487, -11.9886, 29.3595, 13.6659, 67.2647, -166.555
4.74318, 2, -47.2486, -11.9886, 29.3595, 13.6658, 67.2647, -166.555
4.75116, 2, -47.2486, -11.9886, 29.3595, 13.6658, 67.2647, -166.555
4.75918, 2, -47.2486, -11.9886, 29.3595, 13.6658, 67.2648, -166.555
4.76744, 2, -47.2485, -11.9886, 29.3595, 13.6658, 67.2648, -166.555
4.77528, 2, -47.2485, -11.9886, 29.3595, 13.6658, 67.2648, -166.555
4.78336, 2, -47.2485, -11.9886, 29.3595, 13.6658, 67.2648, -166.555
4.79143, 2, -47.2484, -11.9886, 29.3595, 13.6657, 67.2648, -166.555
4.79951, 2, -47.2484, -11.9886, 29.3595, 13.6658, 67.2648, -166.555
4.80756, 2, -47.2483, -11.9885, 29.3595, 13.6657, 67.2648, -166.555
4.81599, 2, -47.2483, -11.9885, 29.3595, 13.6658, 67.2648, -166.555
4.82427, 2, -47.2482, -11.9884, 29.3595, 13.6657, 67.2648, -166.555
4.83164, 2, -47.2481, -11.9883, 29.3595, 13.6657, 67.2648, -166.555
4.84025, 2, -47.2481, -11.9883, 29.3595, 13.6657, 67.2648, -166.555
4.84776, 2, -47.248, -11.9882, 29.3595, 13.6657, 67.2648, -166.554
4.85624, 2, -47.2479, -11.9882, 29.3595, 13.6657, 67.2648, -166.554
4.86392, 2, -47.2479, -11.9882, 29.3595, 13.6656, 67.2648, -166.554
4.87217, 2, -47.2478, -11.9882, 29.3595, 13.6657, 67.2648, -166.554
4.87913, 2, -47.2478, -11.9882, 29.3595, 13.6657, 67.2648, -166.554
4.88821, 2, -47.2477, -11.9882, 29.3595, 13.6656, 67.2648, -166.554
4.89522, 2, -47.2477, -11.9882, 29.3595, 13.6656, 67.2648, -166.554
4.90313, 2, -47.2477, -11.9882, 29.3595, 13.6656, 67.2648, -166.554
4.91251, 2, -47.2476, -11.9881, 29.3595, 13.6656, 67.2648, -166.554
4.91912, 2, -47.2476, -11.9881, 29.3595, 13.6656, 67.2648, -166.554
4.92846, 2, -47.2475, -11.988, 29.3595, 13.6656, 67.2648, -166.554
4.93515, 2, -47.2475, -11.9879, 29.3595, 13.6656, 67.2648, -166.554
4.9447, 2, -47.2474, -11.9879, 29.3595, 13.6656, 67.2648, -166.554
4.95261, 2, -47.2473, -11.9878, 29.3595, 13.6655, 67.2649, -166.554
4.96085, 2, -47.2472, -11.9878, 29.3595, 13.6655, 67.2649, -166.554
4.96878, 2, -47.2472, -11.9878, 29.3595, 13.6655, 67.2649, -166.554
4.97669, 2, -47.2471, -11.9878, 29.3595, 13.6655, 67.2649, -166.554
4.98471, 2, -47.2471, -11.9878, 29.3595, 13.6655, 67.2649, -166.554
4.99272, 2, -47.2471, -11.9878, 29.3595, 13.6655, 67.2649, -166.554
5.00015, 2, -47.2471, -11.9878, 29.3595, 13.6655, 67.265, -166.554
5.00813, 2, -47.2471, -11.9878, 29.3595, 13.6655, 67.265, -166.554
5.01616, 2, -47.247, -11.9877, 29.3595, 13.6655, 67.265, -166.554
5.02413, 2, -47.247, -11.9877, 29.3595, 13.6654, 67.265, -166.554
5.03213, 2, -47.2469, -11.9876, 29.3595, 13.6654, 67.265, -166.554
5.04015, 2, -47.2468, -11.9876, 29.3595, 13.6654, 67.2651, -166.554
5.04811, 2, -47.2468, -11.9875, 29.3595, 13.6654, 67.2651, -166.554
5.05618, 2, -47.2467, -11.9875, 29.3595, 13.6654, 67.2651, -166.554
5.06457, 2, -47.2466, -11.9875, 29.3595, 13.6654, 67.2651, -166.554
5.07109, 2, -47.2466, -11.9875, 29.3595, 13.6654, 67.2651, -166.554
5.07923, 2, -47.2465, -11.9875, 29.3595, 13.6654, 67.2651, -166.554
5.08716, 2, -47.2465, -11.9874, 29.3595, 13.6654, 67.2651, -166.554
5.09511, 2, -47.2465, -11.9874, 29.3595, 13.6653, 67.2651, -166.554
5.10315, 2, -47.2465, -11.9874, 29.3595, 13.6653, 67.2651, -166.554
5.11115, 2, -47.2464, -11.9874, 29.3595, 13.6654, 67.2651, -166.554
5.1191, 2, -47.2464, -11.9874, 29.3595, 13.6654, 67.2651, -166.554
5.12716, 2, -47.2463, -11.9873, 29.3595, 13.6653, 67.2651, -166.554
5.13514, 2, -47.2463, -11.9873, 29.3595, 13.6652, 67.2651, -166.554
5.14308, 4, -47.2463, -11.9872, 29.3595, 13.6652, 67.2651, -166.554
5.15116, 4, -47.2462, -11.9872, 29.3595, 13.6652, 67.2651, -166.554
5.15914, 4, -47.2461, -11.9872, 29.3595, 13.6652, 67.2651, -166.554
5.16711, 4, -47.246, -11.9872, 29.3595, 13.6652, 67.2652, -166.554
5.17518, 4, -47.246, -11.9872, 29.3595, 13.6652, 67.2652, -166.554
5.1832, 4, -47.2459, -11.9871, 29.3595, 13.6652, 67.2651, -166.554
5.19116, 4, -47.2459, -11.9871, 29.3595, 13.6652, 67.2652, -166.554
5.19923, 4, -47.2458, -11.9871, 29.3595, 13.6651, 67.2652, -166.554
5.20723, 4, -47.2458, -11.9871, 29.3595, 13.6652, 67.2652, -166.554
5.21521, 4, -47.2458, -11.987, 29.3595, 13.6651, 67.2652, -166.554
5.22326, 4, -47.2458, -11.987, 29.3595, 13.6651, 67.2652, -166.554
5.23128, 4, -47.2458, -11.987, 29.3595, 13.6651, 67.2652, -166.554
5.23912, 4, -47.2458, -11.987, 29.3595, 13.6651, 67.2652, -166.553
5.24743, 4, -47.2457, -11.9869, 29.3595, 13.6651, 67.2652, -166.554
5.25917, 4, -47.2456, -11.9869, 29.3595, 13.6651, 67.2652, -166.553
5.26344, 4, -47.2456, -11.9868, 29.3595, 13.665, 67.2652, -166.553
5.27399, 4, -47.2455, -11.9868, 29.3595, 13.665, 67.2653, -166.553
5.28197, 4, -47.2455, -11.9868, 29.3595, 13.665, 67.2653, -166.553
5.28924, 4, -47.2454, -11.9868, 29.3595, 13.6651, 67.2652, -166.553
5.29626, 4, -47.2454, -11.9868, 29.3595, 13.665, 67.2652, -166.553
5.30504, 4, -47.2454, -11.9868, 29.3595, 13.665, 67.2652, -166.553
5.31319, 4, -47.2454, -11.9867, 29.3595, 13.665, 67.2653, -166.553
5.32111, 4, -47.2454, -11.9867, 29.3595, 13.6649, 67.2653, -166.553
5.32818, 4, -47.2453, -11.9867, 29.3595, 13.6649, 67.2653, -166.553
5.33804, 4, -47.2453, -11.9866, 29.3595, 13.665, 67.2653, -166.553
5.34403, 4, -47.2453, -11.9866, 29.3595, 13.665, 67.2652, -166.553
5.35218, 4, -47.2452, -11.9866, 29.3595, 13.665, 67.2653, -166.553
5.35994, 4, -47.2452, -11.9866, 29.3595, 13.6649, 67.2653, -166.553
5.36838, 4, -47.2451, -11.9866, 29.3595, 13.6649, 67.2653, -166.553
5.37724, 4, -47.2451, -11.9865, 29.3595, 13.6648, 67.2652, -166.553
5.38388, 4, -47.245, -11.9865, 29.3595, 13.6648, 67.2652, -166.553
5.3947, 4, -47.245, -11.9865, 29.3595, 13.6649, 67.2653, -166.553
5.40063, 4, -47.2449, -11.9865, 29.3595, 13.6649, 67.2653, -166.553
5.40867, 4, -47.2449, -11.9865, 29.3595, 13.6649, 67.2653, -166.553
5.41672, 4, -47.2453, -11.9867, 29.3596, 13.6649, 67.2653, -166.553
5.42495, 4, -47.2459, -11.987, 29.3598, 13.665, 67.2655, -166.553
5.43383, 4, -47.2501, -11.9905, 29.3638, 13.67, 67.2668, -166.552
5.44091, 4, -47.2556, -11.997, 29.3723, 13.6865, 67.2708, -166.55
5.44918, 4, -47.2646, -12.0088, 29.3902, 13.7219, 67.2804, -166.543
5.45529, 4, -47.271, -12.0173, 29.4044, 13.7502, 67.2882, -166.536
5.46597, 5, -47.3012, -12.0579, 29.4769, 13.9002, 67.3304, -166.503
5.47132, 5, -47.3157, -12.0771, 29.5138, 13.9776, 67.3522, -166.485
5.47924, 5, -47.353, -12.1255, 29.6112, 14.1846, 67.4092, -166.437
5.49155, 5, -47.4322, -12.2251, 29.8235, 14.6435, 67.5352, -166.332
5.497, 5, -47.465, -12.2659, 30.0125, 15.0546, 67.646, -166.237
5.50497, 5, -47.5398, -12.3588, 30.1215, 15.2907, 67.7774, -166.125
5.5113, 5, -47.6267, -12.4664, 30.3668, 15.8182, 67.8494, -166.063
5.51923, 5, -47.7243, -12.5871, 30.6443, 16.4077, 68.0043, -165.93
5.53122, 5, -47.8871, -12.7891, 31.1101, 17.3771, 68.2536, -165.715
5.53798, 5, -48.0034, -12.9345, 31.4445, 18.0573, 68.4251, -165.566
5.54323, 5, -48.0631, -13.0094, 31.6164, 18.4025, 68.5108, -165.491
5.55125, 5, -48.1837, -13.1619, 31.9661, 19.0977, 68.681, -165.343
5.56277, 5, -48.3626, -13.391, 32.4976, 20.1319, 68.93, -165.121
5.56836, 5, -48.4198, -13.466, 32.6746, 20.4692, 69.011, -165.046
5.57629, 6, -48.5277, -13.6118, 33.0243, 21.1253, 69.1709, -164.886
5.5843, 6, -48.6231, -13.7489, 33.3631, 21.7458, 69.3292, -164.704
5.59465, 6, -48.7338, -13.9346, 33.8402, 22.5922, 69.5692, -164.359
5.59931, 7, -48.7605, -13.9916, 33.9894, 22.8496, 69.6512, -164.219
5.60824, 7, -48.7978, -14.099, 34.2726, 23.3277, 69.8205, -163.888
5.61625, 8, -48.8143, -14.1969, 34.5348, 23.7633, 69.9995, -163.488
5.62431, 8, -48.8114, -14.2843, 34.7797, 24.1664, 70.1911, -163.017
5.63395, 9, -48.7906, -14.3637, 35.0112, 24.5472, 70.5044, -162.191
5.6393, 9, -48.7547, -14.438, 35.2329, 24.9168, 70.6154, -161.889
5.64867, 10, -48.7071, -14.5082, 35.4505, 25.2829, 70.8458, -161.259
5.65623, 10, -48.6503, -14.5743, 35.6675, 25.6503, 71.085, -160.604
5.66424, 11, -48.5855, -14.6374, 35.8855, 26.0209, 71.3297, -159.935
5.67566, 11, -48.4772, -14.731, 36.2168, 26.5837, 71.6994, -158.929
5.68023, 12, -48.4389, -14.7624, 36.3278, 26.7736, 71.8226, -158.595
5.68833, 12, -48.3607, -14.8254, 36.548, 27.1568, 72.0685, -157.929
5.69624, 13, -48.2804, -14.8885, 36.7661, 27.5452, 72.3145, -157.266
5.70725, 13, -48.1558, -14.9831, 37.0874, 28.1364, 72.6843, -156.277
5.71136, 14, -48.1128, -15.0147, 37.1924, 28.3354, 72.8078, -155.947
5.7202, 14, -48.0247, -15.0778, 37.3999, 28.7353, 73.0545, -155.289
5.72829, 15, -47.9334, -15.1403, 37.6049, 29.1368, 73.3007, -154.634
5.73537, 15, -47.8387, -15.2013, 37.8063, 29.5383, 73.545, -153.983
5.74425, 16, -47.7401, -15.2606, 38.0051, 29.9384, 73.7868, -153.335
5.75224, 16, -47.6365, -15.3197, 38.202, 30.3374, 74.0263, -152.69
5.76107, 17, -47.5273, -15.3799, 38.3961, 30.7351, 74.2631, -152.051
5.77131, 17, -47.3538, -15.4727, 38.681, 31.3289, 74.6124, -151.098
5.77623, 18, -47.2935, -15.504, 38.775, 31.526, 74.7271, -150.783
5.78482, 18, -47.169, -15.5673, 38.9613, 31.9183, 74.9533, -150.159
5.79545, 19, -47.0392, -15.6321, 39.1448, 32.5027, 75.2832, -149.235
5.8004, 19, -46.9043, -15.6994, 39.3263, 32.6964, 75.3904, -148.93
5.80928, 20, -46.7645, -15.7686, 39.5068, 33.0819, 75.6006, -148.327
5.81647, 20, -46.62, -15.8396, 39.6855, 33.4645, 75.8049, -147.733
5.82473, 21, -46.471, -15.9133, 39.8615, 33.8449, 76.0037, -147.146
5.8327, 21, -46.317, -15.9903, 40.0357, 34.223, 76.197, -146.566
5.84003, 22, -46.1579, -16.0704, 40.2085, 34.5986, 76.3846, -145.994
5.84866, 22, -45.993, -16.1525, 40.3787, 34.9711, 76.5666, -145.43
5.85691, 23, -45.8223, -16.2364, 40.5457, 35.3399, 76.7435, -144.871
5.86792, 23, -45.6453, -16.3224, 40.7103, 35.8851, 76.998, -144.044
5.8732, 24, -45.4615, -16.4101, 40.872, 36.0646, 77.0802, -143.771
5.88073, 24, -45.3671, -16.4545, 40.9513, 36.2427, 77.2404, -143.229
5.8879, 25, -45.1734, -16.5441, 41.1063, 36.5943, 77.3959, -142.691
5.89879, 25, -44.8708, -16.6805, 41.331, 37.11, 77.5465, -142.156
5.90622, 26, -44.6609, -16.7723, 41.475, 37.4452, 77.6926, -141.624
5.91498, 26, -44.444, -16.8645, 41.6137, 37.7733, 77.8344, -141.095
5.91923, 27, -44.3328, -16.9105, 41.6809, 37.9346, 77.9038, -140.831
5.92905, 27, -44.1053, -17.0023, 41.811, 38.2513, 78.0394, -140.305
5.93522, 28, -43.8712, -17.0933, 41.9351, 38.5596, 78.1711, -139.78
5.94321, 28, -43.6305, -17.1835, 42.0527, 38.8598, 78.2993, -139.256
5.95128, 29, -43.3832, -17.2725, 42.1636, 39.1516, 78.4238, -138.733
5.95926, 29, -43.1294, -17.3599, 42.2676, 39.4348, 78.5455, -138.21
5.96761, 30, -42.8689, -17.4456, 42.3645, 39.7098, 78.6636, -137.688
5.9807, 30, -42.4627, -17.5706, 42.4964, 40.2341, 78.8912, -136.646
5.98322, 31, -42.3228, -17.6111, 42.5367, 40.2341, 78.8912, -136.646
5.99136, 31, -42.0368, -17.69, 42.6121, 40.4834, 79.0006, -136.125
5.99933, 32, -41.7433, -17.7667, 42.6805, 40.7242, 79.1077, -135.605
6.0119, 32, -41.2904, -17.8772, 42.7704, 41.0697, 79.2629, -134.826
6.01621, 33, -41.1363, -17.9127, 42.7969, 41.1807, 79.3134, -134.568
6.02633, 33, -40.664, -18.0143, 42.8655, 41.5019, 79.4613, -133.792
6.03225, 34, -40.5033, -18.0466, 42.8848, 41.6048, 79.5091, -133.534
6.03923, 34, -40.1786, -18.1094, 42.9177, 41.8046, 79.603, -133.019
6.05126, 35, -39.6825, -18.1982, 42.9536, 42.0895, 79.7393, -132.247
6.06018, 35, -39.3443, -18.2532, 42.9688, 42.27, 79.8268, -131.735
6.06323, 36, -39.1725, -18.2794, 42.9737, 42.3574, 79.87, -131.479
6.07229, 36, -38.8233, -18.3294, 42.9784, 42.5264, 79.9543, -130.968
6.07923, 37, -38.467, -18.376, 42.9765, 42.6877, 80.0368, -130.459
6.08821, 37, -38.1047, -18.4193, 42.9677, 42.8416, 80.1168, -129.951
6.09789, 38, -37.5509, -18.4771, 42.9417, 43.0584, 80.2334, -129.192
6.1032, 38, -37.3641, -18.4947, 42.9298, 43.127, 80.2712, -128.94
6.11126, 39, -36.987, -18.5273, 42.9009, 43.2584, 80.3453, -128.437
6.1193, 39, -36.6053, -18.5565, 42.8652, 43.3826, 80.4169, -127.936
6.13183, 40, -36.2189, -18.5819, 42.8228, 43.4995, 80.4871, -127.188
6.14017, 40, -35.8266, -18.6035, 42.7739, 43.6612, 80.5888, -126.692
6.1433, 41, -35.4283, -18.621, 42.7184, 43.7116, 80.6217, -126.444
6.15542, 41, -34.8203, -18.6404, 42.6231, 43.8516, 80.717, -125.705
6.16023, 42, -34.6155, -18.6452, 42.5881, 43.8949, 80.7482, -125.46
6.17035, 42, -34.2036, -18.6522, 42.5132, 44.0136, 80.8374, -124.727
6.17621, 43, -33.7885, -18.656, 42.4322, 44.0497, 80.8668, -124.484
6.1843, 43, -33.3694, -18.6567, 42.3452, 44.1161, 80.9236, -124
6.19224, 44, -32.9447, -18.6535, 42.2524, 44.1761, 80.9783, -123.517
6.19965, 44, -32.5139, -18.6466, 42.1538, 44.2281, 81.0324, -123.038
6.20829, 45, -32.0765, -18.636, 42.0494, 44.2734, 81.0838, -122.561
6.21895, 45, -31.6339, -18.6132, 41.8816, 44.3275, 81.1587, -121.85
6.22339, 46, -31.188, -18.604, 41.8226, 44.3417, 81.1829, -121.613
6.23534, 46, -30.516, -18.5708, 41.637, 44.3723, 81.2516, -120.909
6.24289, 47, -30.2904, -18.5578, 41.5722, 44.3788, 81.2741, -120.676
6.24789, 47, -29.8356, -18.5284, 41.4383, 44.3864, 81.3187, -120.21
6.25704, 48, -29.3743, -18.4945, 41.2983, 44.3873, 81.3616, -119.746
6.26615, 48, -28.9065, -18.4564, 41.1522, 44.3794, 81.4033, -119.284
6.27253, 49, -28.4331, -18.4139, 41.0001, 44.3629, 81.4452, -118.824
6.28129, 49, -27.9566, -18.3669, 40.8422, 44.3375, 81.4866, -118.365
6.28853, 50, -27.4776, -18.3155, 40.678, 44.302, 81.527, -117.907
6.29628, 50, -26.9954, -18.259, 40.5071, 44.2574, 81.5681, -117.451
6.30425, 51, -26.5072, -18.1968, 40.3298, 44.204, 81.6106, -116.995
6.31247, 51, -26.0113, -18.1292, 40.146, 44.14, 81.6529, -116.54
6.32401, 52, -25.2552, -18.0175, 39.8564, 44.0263, 81.7175, -115.859
6.32851, 52, -25.0014, -17.9776, 39.7564, 43.9829, 81.7399, -115.633
6.33607, 53, -24.4925, -17.8939, 39.5521, 43.8888, 81.7847, -115.18
6.3457, 53, -23.9807, -17.8043, 39.3408, 43.7849, 81.8296, -114.727
6.35232, 54, -23.4633, -17.7086, 39.1215, 43.6704, 81.8767, -114.276
6.36093, 54, -22.9378, -17.6066, 38.8957, 43.5454, 81.9258, -113.824
6.36798, 55, -22.4044, -17.4984, 38.6628, 43.4091, 81.976, -113.372
6.37685, 55, -21.866, -17.3841, 38.4221, 43.2611, 82.0295, -112.92
6.38387, 56, -21.5959, -17.3247, 38.2994, 43.1826, 82.0571, -112.468
6.39266, 56, -21.0539, -17.2016, 38.0492, 43.0172, 82.1126, -112.018
6.40437, 57, -19.9517, -16.9388, 37.5276, 42.6518, 82.2302, -111.342
6.40929, 57, -19.6706, -16.8698, 37.3932, 42.553, 82.2602, -111.117
6.41801, 58, -19.1027, -16.7274, 37.1192, 42.3463, 82.3226, -110.666
6.42537, 58, -18.5308, -16.5791, 36.8396, 42.1274, 82.3864, -110.217
6.43282, 59, -17.9568, -16.4252, 36.5534, 41.8966, 82.4519, -109.768
6.44319, 59, -17.3785, -16.2664, 36.2612, 41.6537, 82.5198, -109.319
6.44887, 60, -16.7915, -16.103, 35.9631, 41.3981, 82.5893, -108.87
6.45727, 60, -16.4939, -16.0193, 35.8118, 41.2655, 82.6253, -108.421
6.46669, 61, -15.893, -15.8477, 35.5055, 40.99, 82.6981, -108.197
6.47127, 61, -15.2875, -15.6712, 35.1927, 40.7007, 82.7733, -107.749
6.48339, 62, -14.3731, -15.3983, 34.7124, 40.2422, 82.891, -107.076
6.48964, 62, -14.0648, -15.2099, 34.3847, 39.9193, 82.9731, -106.627
6.49808, 63, -13.1237, -15.0147, 34.0523, 39.5821, 83.0581, -106.177
6.50322, 63, -12.8055, -14.9145, 33.8839, 39.4078, 83.1018, -105.952
6.51296, 64, -12.1652, -14.7104, 33.5436, 39.048, 83.192, -105.276
6.51929, 64, -11.5213, -14.5011, 33.197, 38.6739, 83.2857, -105.05
6.52724, 65, -10.8706, -14.2848, 32.8445, 38.2849, 83.3838, -104.597
6.53528, 65, -10.2089, -14.0611, 32.4859, 37.881, 83.4865, -104.143
6.54316, 66, -9.5379, -13.8317, 32.1229, 37.4606, 83.5942, -103.686
6.55618, 66, -8.51888, -13.476, 31.5695, 36.8013, 83.7656, -102.999
6.55934, 67, -8.17675, -13.3538, 31.3822, 36.5738, 83.8256, -102.768
6.57078, 67, -7.13655, -12.9763, 30.8121, 35.8684, 84.0142, -102.074
6.57656, 68, -6.78487, -12.8464, 30.6197, 35.6254, 84.0802, -101.842
6.58322, 68, -6.07504, -12.5813, 30.2323, 35.1276, 84.2172, -101.375
6.59519, 69, -4.99725, -12.1708, 29.6422, 34.3521, 84.4361, -100.67
6.59924, 69, -4.63446, -12.0299, 29.443, 34.0855, 84.5127, -100.434
6.60991, 70, -3.53328, -11.5973, 28.8406, 33.2631, 84.754, -99.7215
6.61521, 70, -3.16204, -11.4497, 28.6386, 32.9808, 84.8382, -99.4824
6.62329, 71, -2.41438, -11.1489, 28.2335, 32.4057, 85.0116, -99.003
6.63432, 71, -1.28016, -10.684, 27.6224, 31.5199, 85.2843, -98.2804
6.64207, 72, -0.898542, -10.5251, 27.4183, 30.9132, 85.475, -97.7957
6.64823, 72, -0.130338, -10.2021, 27.01, 30.6045, 85.5729, -97.5525
6.65527, 73, 0.644226, -9.87118, 26.6015, 29.979, 85.7749, -97.0642
6.66427, 73, 1.42515, -9.53226, 26.1928, 29.3414, 85.9852, -96.5739
6.67125, 74, 2.21201, -9.18673, 25.783, 28.6916, 86.2048, -96.0809
6.68023, 74, 3.00359, -8.83615, 25.3734, 28.0305, 86.4334, -95.5852
6.68829, 75, 3.7981, -8.48077, 24.9661, 27.36, 86.6702, -95.087
6.69623, 75, 4.59495, -8.11852, 24.5618, 26.6834, 86.9138, -94.5873
6.71466, 76, 6.59193, -7.18034, 23.5737, 24.9847, 87.5502, -93.3314
6.72794, 77, 7.79224, -6.59511, 22.9972, 23.963, 87.9545, -92.5722
6.72925, 77, 7.79224, -6.59511, 22.9972, 23.963, 87.9545, -92.5722
6.7313, 77, 8.19291, -6.39678, 22.807, 23.621, 88.0942, -92.3182
6.73518, 78, 8.59355, -6.19669, 22.6177, 23.2784, 88.2364, -92.0636
6.74363, 78, 9.3947, -5.7918, 22.2434, 22.5914, 88.5285, -91.5516
6.75206, 79, 10.1952, -5.37861, 21.8741, 21.904, 88.8307, -91.0365
6.76013, 79, 10.9947, -4.95646, 21.5103, 21.2181, 89.1422, -90.5178
6.76712, 80, 11.7907, -4.5247, 21.152, 20.5351, 89.4629, -89.996
6.77524, 80, 12.5817, -4.083, 20.8007, 19.8554, 89.7928, -89.4696
6.78322, 81, 13.3687, -3.63026, 20.455, 19.1833, 90.1325, -88.9382
6.79125, 81, 14.1523, -3.16784, 20.1146, 18.5185, 90.4827, -88.4016
6.80011, 82, 14.9289, -2.69822, 19.7786, 17.8617, 90.8435, -87.8603
6.80752, 82, 15.6964, -2.22095, 19.4484, 17.2131, 91.2157, -87.3141
6.8171, 83, 16.4538, -1.73518, 19.1233, 16.5751, 91.5981, -86.7635
6.8241, 83, 17.2003, -1.24125, 18.8053, 15.953, 91.9896, -86.2097
6.83327, 84, 17.9322, -0.740646, 18.4944, 15.3466, 92.3886, -85.6545
6.83959, 84, 18.6458, -0.235582, 18.1929, 14.7605, 92.7941, -85.0991
6.84862, 84, 19.3417, 0.274802, 17.9004, 14.1976, 93.2049, -84.544
6.85616, 85, 20.0215, 0.791805, 17.6171, 13.6589, 93.6207, -83.9906
6.86452, 85, 20.6858, 1.31417, 17.3422, 13.1447, 94.0403, -83.4396
6.8717, 86, 21.0122, 1.57661, 17.0747, 12.6547, 94.4628, -82.8903
6.88066, 86, 21.9695, 2.37144, 16.8153, 12.1875, 94.8896, -82.3406
6.88809, 87, 22.5909, 2.91068, 16.5621, 11.7428, 95.3218, -81.789
6.89511, 87, 22.8972, 3.18372, 16.4374, 11.5279, 95.5402, -81.5118
6.9042, 88, 23.7993, 4.01523, 16.0697, 10.9109, 96.2047, -80.6727
6.91111, 88, 24.0943, 4.29598, 15.9489, 10.7135, 96.4291, -80.3888
6.91908, 89, 24.6747, 4.86432, 15.7113, 10.331, 96.8828, -79.8147
6.92912, 89, 25.5232, 5.73654, 15.3655, 9.78573, 97.5762, -78.9333
6.93531, 90, 25.8014, 6.03215, 15.2517, 9.61207, 97.8103, -78.6343
6.94544, 90, 26.6264, 6.9321, 14.916, 9.11273, 98.5225, -77.7165
6.95113, 90, 26.8965, 7.23607, 14.8066, 8.95475, 98.7631, -77.4043
6.96139, 91, 27.6871, 8.16233, 14.4859, 8.50845, 99.4939, -76.4506
6.96722, 91, 27.9446, 8.47646, 14.3812, 8.36945, 99.7402, -76.1268
6.9751, 92, 28.4525, 9.1124, 14.1755, 8.10817, 100.235, -75.4722
6.98306, 92, 28.9526, 9.75801, 13.9748, 7.86958, 100.734, -74.8092
6.99355, 93, 29.4424, 10.4106, 13.7802, 7.55521, 101.483, -73.8024
6.99906, 93, 29.9191, 11.0686, 13.5936, 7.46232, 101.733, -73.4633
7.00805, 94, 30.381, 11.7299, 13.415, 7.29419, 102.23, -72.7806
7.01522, 94, 30.8281, 12.3936, 13.2434, 7.14968, 102.725, -72.0938
7.02307, 95, 31.2612, 13.0592, 13.0792, 7.02916, 103.216, -71.4012
7.03107, 95, 31.6807, 13.7265, 12.9231, 6.93224, 103.704, -70.7027
7.04005, 96, 32.0861, 14.3947, 12.7738, 6.85894, 104.189, -69.9996
7.04727, 97, 32.4759, 15.0634, 12.6307, 6.80988, 104.669, -69.2908
7.05506, 97, 32.8496, 15.7321, 12.4946, 6.78204, 105.145, -68.5758
7.06404, 98, 33.2068, 16.3991, 12.3664, 6.77563, 105.614, -67.8576
7.07216, 98, 33.5487, 17.0636, 12.2468, 6.79162, 106.076, -67.1363
7.08006, 99, 33.8768, 17.7238, 12.136, 6.82799, 106.529, -66.4114
7.08807, 99, 34.1917, 18.3787, 12.0346, 6.88431, 106.972, -65.6873
7.09607, 100, 34.4947, 19.0261, 11.9424, 6.95973, 107.403, -64.9645
7.10313, 100, 34.7865, 19.6652, 11.8588, 7.05235, 107.822, -64.2429
7.11135, 101, 35.0665, 20.2946, 11.7837, 7.16227, 108.227, -63.5262
7.11906, 101, 35.3346, 20.9132, 11.7167, 7.28739, 108.618, -62.8159
7.12706, 101, 35.5914, 21.521, 11.6582, 7.42672, 108.993, -62.1118
7.13605, 102, 35.8365, 22.1164, 11.6083, 7.57847, 109.352, -61.4179
7.14422, 102, 36.069, 22.6987, 11.567, 7.74095, 109.693, -60.7355
7.15205, 103, 36.2913, 23.2659, 11.5343, 7.91297, 110.017, -60.0639
7.15913, 103, 36.5061, 23.8172, 11.5105, 8.09381, 110.322, -59.4047
7.16706, 104, 36.7136, 24.3528, 11.496, 8.28371, 110.608, -58.7594
7.17506, 104, 36.9134, 24.8722, 11.4895, 8.48288, 110.874, -58.1261
7.18405, 104, 37.1068, 25.375, 11.49, 8.69067, 111.12, -57.5048
7.19211, 104, 37.2937, 25.8619, 11.4971, 8.90588, 111.345, -56.8974
7.19909, 104, 37.4721, 26.3318, 11.5092, 9.12669, 111.552, -56.3044
7.20807, 104, 37.641, 26.7849, 11.5246, 9.35097, 111.741, -55.7269
7.21612, 104, 37.8025, 27.2226, 11.5428, 9.5763, 111.916, -55.1674
7.22317, 104, 37.9587, 27.6443, 11.5632, 9.79982, 112.078, -54.629
7.23144, 104, 38.11, 28.0498, 11.5843, 10.0198, 112.23, -54.1135
7.23916, 104, 38.2556, 28.4379, 11.6052, 10.2349, 112.374, -53.6205
7.24712, 104, 38.3945, 28.8098, 11.6252, 10.444, 112.51, -53.1519
7.25519, 104, 38.5263, 29.1638, 11.6438, 10.6459, 112.638, -52.7072
7.2631, 104, 38.6501, 29.4998, 11.6614, 10.8399, 112.758, -52.2877
7.27113, 104, 38.7657, 29.8164, 11.6779, 11.0254, 112.871, -51.8934
7.27924, 104, 38.8729, 30.1143, 11.6932, 11.2016, 112.976, -51.5233
7.28722, 104, 38.9722, 30.3938, 11.7075, 11.368, 113.073, -51.179
7.29533, 104, 39.0638, 30.6533, 11.7206, 11.524, 113.163, -50.8602
7.30342, 104, 39.1476, 30.8933, 11.7325, 11.6693, 113.245, -50.5665
7.31143, 104, 39.2235, 31.1138, 11.7431, 11.8035, 113.321, -50.298
7.32006, 104, 39.2916, 31.314, 11.7531, 11.9262, 113.389, -50.0548
7.32816, 104, 39.352, 31.4947, 11.7622, 12.0371, 113.449, -49.8368
7.3356, 104, 39.405, 31.6561, 11.7701, 12.1361, 113.504, -49.6438
7.34415, 104, 39.4514, 31.798, 11.7772, 12.223, 113.55, -49.4758
7.35166, 104, 39.492, 31.9216, 11.7836, 12.2975, 113.589, -49.3324
7.36018, 104, 39.5266, 32.0281, 11.7895, 12.3607, 113.623, -49.2121
7.36798, 104, 39.5553, 32.118, 11.7946, 12.4121, 113.65, -49.1145
7.3762, 104, 39.5788, 32.1926, 11.7993, 12.4521, 113.67, -49.0368
7.38359, 104, 39.5888, 32.2248, 11.8014, 12.4687, 113.679, -49.0055
7.39209, 104, 39.6121, 32.3032, 11.8072, 12.506, 113.697, -48.9359
7.39906, 104, 39.6181, 32.3238, 11.8089, 12.5149, 113.701, -48.9197
7.40825, 104, 39.6316, 32.3708, 11.8136, 12.5333, 113.71, -48.8872
7.41509, 104, 39.6348, 32.3825, 11.815, 12.5372, 113.711, -48.8806
7.42432, 104, 39.6414, 32.4087, 11.8186, 12.5442, 113.714, -48.8692
7.43105, 104, 39.6427, 32.4147, 11.8196, 12.5454, 113.714, -48.8674
7.44058, 105, 39.6447, 32.4265, 11.8217, 12.5473, 113.715, -48.8649
7.44854, 105, 39.6447, 32.4308, 11.8228, 12.5479, 113.715, -48.8644
7.45654, 105, 39.6439, 32.4338, 11.8237, 12.5481, 113.715, -48.8644
7.46464, 105, 39.6428, 32.4358, 11.8244, 12.5483, 113.715, -48.8646
7.47262, 105, 39.6418, 32.4374, 11.8251, 12.5483, 113.715, -48.8649
7.48062, 105, 39.6407, 32.4387, 11.8257, 12.5483, 113.715, -48.8652
7.48871, 105, 39.6396, 32.4399, 11.8262, 12.5483, 113.715, -48.8656
7.49667, 105, 39.6392, 32.4405, 11.8268, 12.5484, 113.715, -48.8659
7.50455, 105, 39.6387, 32.4416, 11.8271, 12.5484, 113.715, -48.8661
7.51203, 105, 39.6383, 32.4426, 11.8277, 12.5483, 113.715, -48.8664
7.52008, 105, 39.638, 32.4437, 11.8282, 12.5483, 113.715, -48.8667
7.52895, 105, 39.6377, 32.4445, 11.8287, 12.5483, 113.715, -48.8672
7.53604, 105, 39.6375, 32.4452, 11.8291, 12.5483, 113.715, -48.8673
7.54407, 105, 39.6371, 32.4457, 11.8294, 12.5483, 113.715, -48.8675
7.55205, 105, 39.6368, 32.446, 11.8297, 12.5483, 113.715, -48.8678
7.56026, 105, 39.6366, 32.4462, 11.8299, 12.5483, 113.715, -48.868
