hehonglu123/Motion-Primitive-Planning/ILC/recorded_data/realrobot/wood/iteration_18/run_4.csv
timestamp, cmd_num, J1, J2, J3, J4, J5, J6
0.000531, -1, 11.3762, 13.6155, 17.3341, -145.52, -97.9262, 142.517
0.004348, -1, 11.3762, 13.6155, 17.3341, -145.52, -97.9263, 142.517
0.007746, -1, 11.3762, 13.6155, 17.3341, -145.52, -97.9263, 142.517
0.028335, -1, 11.3762, 13.6155, 17.3341, -145.52, -97.9262, 142.516
0.031022, -1, 11.3762, 13.6155, 17.3341, -145.52, -97.9263, 142.516
0.03375, -1, 11.3762, 13.6155, 17.3341, -145.52, -97.9263, 142.516
0.039703, -1, 11.3762, 13.6155, 17.3341, -145.52, -97.9263, 142.517
0.18019, -1, 10.3399, 13.3422, 17.4008, -145.843, -97.8166, 140.652
0.181459, -1, 10.3399, 13.3422, 17.4008, -145.843, -97.8166, 140.652
0.183572, -1, 10.2667, 13.3223, 17.4059, -145.866, -97.8084, 140.514
0.184894, -1, 10.2667, 13.3223, 17.4059, -145.866, -97.8084, 140.514
0.186842, -1, 10.1925, 13.3022, 17.4109, -145.89, -97.8002, 140.376
0.188322, -1, 10.1925, 13.3022, 17.4109, -145.89, -97.8002, 140.376
0.189579, -1, 10.1925, 13.3022, 17.4109, -145.89, -97.8002, 140.376
0.193879, -1, 10.1173, 13.2819, 17.416, -145.914, -97.7919, 140.237
0.196035, -1, 10.0414, 13.2614, 17.421, -145.937, -97.7834, 140.098
0.197435, -1, 10.0414, 13.2614, 17.421, -145.937, -97.7834, 140.098
0.200812, -1, 9.96482, 13.2408, 17.426, -145.961, -97.7749, 139.959
0.202106, -1, 9.96482, 13.2408, 17.426, -145.961, -97.7749, 139.959
0.204184, -1, 9.88768, 13.2201, 17.431, -145.985, -97.7663, 139.819
0.205479, -1, 9.88768, 13.2201, 17.431, -145.985, -97.7663, 139.819
0.207259, -1, 9.81014, 13.1994, 17.436, -146.01, -97.7576, 139.68
0.209487, -1, 9.81014, 13.1994, 17.436, -146.01, -97.7576, 139.68
0.211557, -1, 9.73237, 13.1787, 17.4411, -146.033, -97.749, 139.54
0.212822, -1, 9.73237, 13.1787, 17.4411, -146.033, -97.749, 139.54
0.214008, -1, 9.73237, 13.1787, 17.4411, -146.033, -97.749, 139.54
0.216241, -1, 9.65455, 13.1579, 17.4461, -146.057, -97.7404, 139.4
0.217597, -1, 9.65455, 13.1579, 17.4461, -146.057, -97.7404, 139.4
0.21963, -1, 9.57684, 13.1373, 17.4512, -146.081, -97.7318, 139.26
0.22474, -1, 9.4993, 13.1167, 17.4561, -146.105, -97.7234, 139.121
0.231799, -1, 9.34457, 13.0756, 17.466, -146.153, -97.7066, 138.841
0.239821, -1, 9.19016, 13.0344, 17.4761, -146.201, -97.6898, 138.562
0.248168, -1, 9.03623, 12.9933, 17.4861, -146.249, -97.6731, 138.282
0.255752, -1, 8.88252, 12.9522, 17.4962, -146.297, -97.6561, 138.002
0.263647, -1, 8.72894, 12.9112, 17.5064, -146.345, -97.6389, 137.722
0.27237, -1, 8.57593, 12.87, 17.5165, -146.393, -97.6215, 137.442
0.280605, -1, 8.42319, 12.8288, 17.5267, -146.441, -97.604, 137.162
0.287764, -1, 8.27026, 12.7874, 17.5369, -146.489, -97.5867, 136.882
0.296435, -1, 8.11681, 12.7458, 17.5471, -146.537, -97.5696, 136.602
0.303936, -1, 7.96293, 12.7042, 17.5573, -146.585, -97.5529, 136.321
0.311914, -1, 7.80836, 12.6624, 17.5674, -146.633, -97.5362, 136.041
0.320787, -1, 7.65344, 12.6207, 17.5775, -146.68, -97.5196, 135.761
0.328385, -1, 7.49853, 12.5791, 17.5878, -146.729, -97.5027, 135.481
0.336164, -1, 7.34347, 12.5375, 17.5979, -146.777, -97.4856, 135.2
0.344138, -1, 7.18852, 12.496, 17.6082, -146.824, -97.4682, 134.92
0.3522, -1, 7.03346, 12.4545, 17.6185, -146.873, -97.4509, 134.639
0.36023, -1, 6.87829, 12.4132, 17.6288, -146.921, -97.4338, 134.359
0.368201, -1, 6.80077, 12.3926, 17.6391, -146.969, -97.4169, 134.079
0.376433, -1, 6.64592, 12.3512, 17.6496, -147.017, -97.4001, 133.798
0.384422, -1, 6.49136, 12.31, 17.6548, -147.041, -97.3835, 133.518
0.391604, -1, 6.33699, 12.2686, 17.6652, -147.089, -97.3751, 133.378
0.39972, -1, 6.18275, 12.2272, 17.6755, -147.138, -97.358, 133.097
0.407627, -1, 6.02841, 12.1857, 17.6857, -147.186, -97.3408, 132.816
0.415613, -1, 5.87385, 12.1443, 17.6961, -147.233, -97.3232, 132.536
0.425089, -1, 5.64172, 12.0817, 17.7115, -147.306, -97.297, 132.115
0.43068, -1, 5.56422, 12.0608, 17.7166, -147.33, -97.2884, 131.974
0.43967, -1, 5.40908, 12.0192, 17.7269, -147.378, -97.2714, 131.693
0.447601, -1, 5.25372, 11.9775, 17.7372, -147.426, -97.2546, 131.412
0.455607, -1, 5.09811, 11.9358, 17.7476, -147.474, -97.2378, 131.131
0.463657, -1, 4.9424, 11.8942, 17.7581, -147.522, -97.221, 130.85
0.471623, -1, 4.78667, 11.8526, 17.7686, -147.57, -97.2038, 130.569
0.479611, -1, 4.63091, 11.8111, 17.779, -147.619, -97.1865, 130.288
0.487669, -1, 4.47522, 11.7696, 17.7894, -147.667, -97.169, 130.007
0.495612, -1, 4.31971, 11.7281, 17.7998, -147.715, -97.1516, 129.726
0.503615, -1, 4.16443, 11.6867, 17.8102, -147.764, -97.1345, 129.445
0.511667, -1, 4.00952, 11.6452, 17.8207, -147.811, -97.1176, 129.164
0.647136, -1, 1.36361, 10.9362, 17.9974, -148.633, -96.8263, 124.376
0.648435, -1, 1.36361, 10.9362, 17.9974, -148.633, -96.8263, 124.376
0.649638, -1, 1.36361, 10.9362, 17.9974, -148.633, -96.8263, 124.376
0.651734, -1, 1.28571, 10.9154, 18.0026, -148.658, -96.8179, 124.234
0.652945, -1, 1.28571, 10.9154, 18.0026, -148.658, -96.8179, 124.234
0.654959, -1, 1.20787, 10.8945, 18.0078, -148.682, -96.8095, 124.093
0.656219, -1, 1.20787, 10.8945, 18.0078, -148.682, -96.8095, 124.093
0.659654, -1, 1.1301, 10.8736, 18.013, -148.706, -96.801, 123.952
0.661813, -1, 1.1301, 10.8736, 18.013, -148.706, -96.801, 123.952
0.663917, -1, 1.05242, 10.8527, 18.0182, -148.73, -96.7926, 123.811
0.66511, -1, 1.05242, 10.8527, 18.0182, -148.73, -96.7926, 123.811
0.667282, -1, 0.974844, 10.8318, 18.0234, -148.755, -96.7841, 123.67
0.66854, -1, 0.974844, 10.8318, 18.0234, -148.755, -96.7841, 123.67
0.669803, -1, 0.974844, 10.8318, 18.0234, -148.755, -96.7841, 123.67
0.6718, -1, 0.897343, 10.8109, 18.0286, -148.779, -96.7755, 123.529
0.673474, -1, 0.897343, 10.8109, 18.0286, -148.779, -96.7755, 123.529
0.67556, -1, 0.819923, 10.79, 18.0338, -148.803, -96.7669, 123.387
0.676809, -1, 0.819923, 10.79, 18.0338, -148.803, -96.7669, 123.387
0.67872, -1, 0.819923, 10.79, 18.0338, -148.803, -96.7669, 123.387
0.680111, -1, 0.742572, 10.7691, 18.039, -148.827, -96.7581, 123.246
0.681422, -1, 0.742572, 10.7691, 18.039, -148.827, -96.7581, 123.246
0.68778, -1, 0.587935, 10.7273, 18.0493, -148.876, -96.7405, 122.964
0.695642, -1, 0.433174, 10.6855, 18.0598, -148.924, -96.7229, 122.681
0.703647, -1, 0.27805, 10.6436, 18.0701, -148.972, -96.7056, 122.398
0.711756, -1, 0.122482, 10.6017, 18.0806, -149.021, -96.6886, 122.115
0.719743, -1, -0.0335168, 10.5599, 18.0912, -149.069, -96.6718, 121.833
0.727706, -1, -0.189849, 10.518, 18.1017, -149.118, -96.6551, 121.55
0.73583, -1, -0.346441, 10.4762, 18.1122, -149.167, -96.6383, 121.267
0.743706, -1, -0.503447, 10.4343, 18.1226, -149.215, -96.6212, 120.984
0.751661, -1, -0.660686, 10.3924, 18.133, -149.263, -96.6039, 120.702
0.759739, -1, -0.818052, 10.3506, 18.1435, -149.312, -96.5863, 120.419
0.767632, -1, -0.975442, 10.3087, 18.1538, -149.36, -96.5691, 120.136
0.775643, -1, -1.13269, 10.2669, 18.1642, -149.409, -96.552, 119.853
0.783752, -1, -1.28978, 10.2251, 18.1746, -149.458, -96.5351, 119.57
0.791723, -1, -1.44669, 10.1832, 18.1849, -149.506, -96.5184, 119.286
0.799926, -1, -1.60329, 10.1414, 18.1954, -149.555, -96.5015, 119.003
0.80801, -1, -1.75936, 10.0995, 18.2059, -149.604, -96.4845, 118.72
0.81598, -1, -1.91506, 10.0576, 18.2163, -149.652, -96.4671, 118.436
0.824061, -1, -2.07045, 10.0157, 18.2268, -149.701, -96.4495, 118.153
0.830609, -1, -2.14801, 9.99472, 18.232, -149.725, -96.4406, 118.011
0.84013, -1, -2.38076, 9.93191, 18.2476, -149.798, -96.4146, 117.586
0.84817, -1, -2.53636, 9.88987, 18.2581, -149.846, -96.3975, 117.302
0.856235, -1, -2.69215, 9.84794, 18.2684, -149.895, -96.3807, 117.018
0.864155, -1, -2.84832, 9.80601, 18.2788, -149.944, -96.3639, 116.735
0.872228, -1, -2.9266, 9.76403, 18.2892, -149.992, -96.3469, 116.451
0.880403, -1, -3.0834, 9.74307, 18.2944, -150.017, -96.3298, 116.167
0.88759, -1, -3.2406, 9.70114, 18.3049, -150.066, -96.321, 116.025
0.895646, -1, -3.39823, 9.65914, 18.3154, -150.114, -96.3035, 115.741
0.90367, -1, -3.55601, 9.61716, 18.3258, -150.163, -96.2859, 115.457
0.911587, -1, -3.71381, 9.57532, 18.3363, -150.211, -96.2686, 115.173
0.919646, -1, -3.87183, 9.53333, 18.3466, -150.26, -96.2515, 114.889
0.927593, -1, -4.02978, 9.49126, 18.357, -150.309, -96.2345, 114.605
0.93559, -1, -4.18765, 9.44934, 18.3674, -150.358, -96.2175, 114.321
0.943735, -1, -4.3454, 9.40733, 18.3778, -150.406, -96.2004, 114.036
0.951594, -1, -4.50292, 9.3653, 18.3881, -150.455, -96.1831, 113.751
0.959588, -1, -4.65992, 9.32327, 18.3985, -150.504, -96.1654, 113.467
0.967661, -1, -4.8165, 9.28119, 18.4089, -150.553, -96.1476, 113.182
0.975615, -1, -4.97281, 9.23909, 18.4194, -150.602, -96.1301, 112.897
0.983584, -1, -5.12876, 9.19706, 18.43, -150.651, -96.1129, 112.612
0.990585, -1, -5.28463, 9.15496, 18.4406, -150.699, -96.0959, 112.328
0.999596, -1, -5.4406, 9.1128, 18.4511, -150.748, -96.079, 112.043
1.00761, -1, -5.59671, 9.07073, 18.4615, -150.797, -96.062, 111.758
1.01658, -1, -5.75326, 9.02861, 18.472, -150.846, -96.0448, 111.473
1.02359, -1, -5.91017, 8.98638, 18.4824, -150.895, -96.0274, 111.188
1.03166, -1, -6.06754, 8.94423, 18.4927, -150.944, -96.0097, 110.903
1.0396, -1, -6.22546, 8.90208, 18.5031, -150.992, -95.9922, 110.618
1.0476, -1, -6.38377, 8.85993, 18.5135, -151.042, -95.9749, 110.333
1.05566, -1, -6.54217, 8.81783, 18.5238, -151.09, -95.9579, 110.048
1.06359, -1, -6.70071, 8.77567, 18.5344, -151.139, -95.9408, 109.762
1.0717, -1, -6.85941, 8.73348, 18.545, -151.189, -95.9238, 109.477
1.07959, -1, -7.018, 8.69137, 18.5555, -151.237, -95.9067, 109.191
1.08759, -1, -7.17655, 8.64923, 18.5659, -151.286, -95.8892, 108.906
1.09567, -1, -7.33491, 8.60703, 18.5763, -151.336, -95.8715, 108.62
1.10359, -1, -7.49292, 8.56476, 18.5868, -151.385, -95.8538, 108.334
1.11166, -1, -7.65049, 8.52248, 18.5973, -151.434, -95.8363, 108.048
1.11967, -1, -7.80791, 8.4802, 18.6078, -151.483, -95.8191, 107.763
1.12758, -1, -7.96485, 8.43792, 18.6182, -151.532, -95.802, 107.477
1.13563, -1, -8.12154, 8.39558, 18.6285, -151.58, -95.7851, 107.191
1.14412, -1, -8.27812, 8.35325, 18.639, -151.63, -95.7681, 106.905
1.15159, -1, -8.43481, 8.31088, 18.6496, -151.679, -95.7509, 106.619
1.1596, -1, -8.59176, 8.26849, 18.6602, -151.728, -95.7334, 106.333
1.1684, -1, -8.74911, 8.22622, 18.6707, -151.777, -95.7156, 106.047
1.17558, -1, -8.90677, 8.18388, 18.6811, -151.826, -95.6981, 105.76
1.18367, -1, -9.06483, 8.14155, 18.6915, -151.875, -95.6807, 105.474
1.19238, -1, -9.22332, 8.09927, 18.702, -151.924, -95.6635, 105.188
1.19962, -1, -9.38226, 8.05695, 18.7124, -151.973, -95.6464, 104.901
1.20784, -1, -9.54134, 8.0146, 18.7229, -152.023, -95.6293, 104.614
1.21647, -1, -9.70046, 7.97238, 18.7334, -152.072, -95.612, 104.327
1.22368, -1, -9.85973, 7.93012, 18.7439, -152.121, -95.5945, 104.04
1.23201, -1, -10.0191, 7.88775, 18.7545, -152.17, -95.5767, 103.753
1.24055, -1, -10.1784, 7.84532, 18.7652, -152.22, -95.5588, 103.466
1.2477, -1, -10.3375, 7.80282, 18.7758, -152.269, -95.5413, 103.18
1.25622, -1, -10.4964, 7.76032, 18.7864, -152.318, -95.524, 102.893
1.26448, -1, -10.6549, 7.71784, 18.7968, -152.368, -95.5069, 102.605
1.27162, -1, -10.813, 7.67533, 18.8073, -152.417, -95.49, 102.319
1.28044, -1, -10.9709, 7.63276, 18.8178, -152.466, -95.4728, 102.032
1.28855, -1, -11.1284, 7.59026, 18.8282, -152.515, -95.4554, 101.744
1.29586, -1, -11.2859, 7.54779, 18.8387, -152.564, -95.4377, 101.457
1.30468, -1, -11.4433, 7.5053, 18.8492, -152.614, -95.4199, 101.17
1.3127, -1, -11.6009, 7.46278, 18.8597, -152.663, -95.4023, 100.882
1.31997, -1, -11.7588, 7.42034, 18.8704, -152.712, -95.3848, 100.594
1.32906, -1, -11.9171, 7.37793, 18.881, -152.762, -95.3676, 100.306
1.33603, -1, -12.0759, 7.33552, 18.8916, -152.811, -95.3504, 100.019
1.34448, -1, -12.235, 7.29314, 18.9021, -152.86, -95.3332, 99.7307
1.35293, -1, -12.3946, 7.2507, 18.9126, -152.91, -95.3157, 99.4424
1.36015, -1, -12.5545, 7.20828, 18.9231, -152.96, -95.2979, 99.1545
1.36828, -1, -12.7144, 7.16586, 18.9337, -153.009, -95.28, 98.8666
1.37612, -1, -12.7944, 7.14464, 18.939, -153.034, -95.2621, 98.5786
1.38491, -1, -12.9546, 7.10214, 18.9495, -153.083, -95.2532, 98.4346
1.39242, -1, -13.1146, 7.05956, 18.9601, -153.132, -95.2272, 98.0024
1.39958, -1, -13.2745, 7.01696, 18.9707, -153.182, -95.2186, 97.8584
1.40761, -1, -13.4342, 6.97433, 18.9813, -153.232, -95.2015, 97.5701
1.41562, -1, -13.5935, 6.93158, 18.9919, -153.281, -95.1843, 97.2814
1.42358, -1, -13.7526, 6.88886, 19.0024, -153.33, -95.1669, 96.9928
1.43157, -1, -13.9114, 6.84618, 19.0129, -153.38, -95.1492, 96.7046
1.43963, -1, -14.0697, 6.80348, 19.0234, -153.429, -95.1314, 96.4159
1.44757, -1, -14.2279, 6.76087, 19.034, -153.479, -95.1136, 96.1271
1.45558, -1, -14.3861, 6.71822, 19.0445, -153.528, -95.0962, 95.838
1.46361, -1, -14.5444, 6.67553, 19.0551, -153.577, -95.079, 95.5492
1.47157, -1, -14.7031, 6.633, 19.0656, -153.627, -95.0617, 95.2599
1.47961, -1, -14.8621, 6.59048, 19.0762, -153.677, -95.0445, 94.9704
1.48757, -1, -15.0214, 6.5478, 19.087, -153.726, -95.0271, 94.6813
1.49557, -1, -15.1812, 6.50523, 19.0977, -153.776, -95.0094, 94.3921
1.50365, -1, -15.3414, 6.46265, 19.1084, -153.826, -94.9914, 94.1029
1.51157, -1, -15.5019, 6.41995, 19.119, -153.875, -94.9734, 93.8136
1.52057, -1, -15.6626, 6.37728, 19.1296, -153.925, -94.9558, 93.5244
1.52763, -1, -15.8233, 6.33451, 19.1402, -153.975, -94.9384, 93.2351
1.53561, -1, -15.9841, 6.29162, 19.1509, -154.024, -94.9211, 92.9454
1.54358, -1, -16.1449, 6.24878, 19.1615, -154.074, -94.9041, 92.6555
1.55164, -1, -16.3056, 6.20588, 19.1721, -154.123, -94.8868, 92.366
1.55958, -1, -16.4661, 6.16287, 19.1826, -154.173, -94.8693, 92.0765
1.56757, -1, -16.6264, 6.11989, 19.1931, -154.223, -94.8515, 91.7864
1.57567, -1, -16.7863, 6.07692, 19.2038, -154.272, -94.8336, 91.4962
1.58359, -1, -16.9458, 6.03394, 19.2145, -154.322, -94.816, 91.2061
1.59163, -1, -17.1051, 5.99097, 19.2251, -154.372, -94.7985, 90.916
1.59957, -1, -17.2642, 5.94802, 19.2357, -154.421, -94.7811, 90.6256
1.60757, -1, -17.4232, 5.90518, 19.2463, -154.471, -94.7638, 90.3352
1.61563, -1, -17.5825, 5.86238, 19.257, -154.521, -94.7463, 90.0451
1.62358, -1, -17.7419, 5.81954, 19.2677, -154.571, -94.7287, 89.7548
1.63157, -1, -17.9015, 5.77674, 19.2784, -154.621, -94.7108, 89.4644
1.63964, -1, -18.0616, 5.73394, 19.289, -154.671, -94.6927, 89.1738
1.64759, -1, -18.222, 5.69115, 19.2997, -154.721, -94.6748, 88.8834
1.65557, -1, -18.3829, 5.64835, 19.3104, -154.771, -94.6571, 88.5926
1.66363, -1, -18.5443, 5.6054, 19.3212, -154.821, -94.6398, 88.3015
1.67157, -1, -18.7059, 5.56241, 19.3319, -154.87, -94.6225, 88.0107
1.67958, -1, -18.8675, 5.51946, 19.3425, -154.921, -94.6053, 87.7199
1.68764, -1, -19.0292, 5.47642, 19.3531, -154.971, -94.5877, 87.4286
1.69557, -1, -19.1908, 5.43322, 19.3637, -155.02, -94.5699, 87.1372
1.70367, -1, -19.3523, 5.39007, 19.3744, -155.071, -94.5517, 86.8458
1.71168, -1, -19.5136, 5.34692, 19.3849, -155.12, -94.5338, 86.5542
1.71971, -1, -19.6744, 5.30367, 19.3956, -155.17, -94.5161, 86.2626
1.72773, -1, -19.8351, 5.26047, 19.4062, -155.22, -94.4985, 85.9708
1.73567, -1, -19.9956, 5.21728, 19.417, -155.27, -94.4811, 85.6793
1.74371, -1, -20.1556, 5.17411, 19.4278, -155.32, -94.4637, 85.3877
1.7522, -1, -20.3154, 5.13114, 19.4387, -155.37, -94.4461, 85.096
1.75974, -1, -20.4753, 5.08811, 19.4495, -155.42, -94.4283, 84.8041
1.76758, -1, -20.6354, 5.04502, 19.4602, -155.47, -94.4101, 84.5126
1.77642, -1, -20.7956, 5.00211, 19.471, -155.521, -94.3921, 84.2206
1.7836, -1, -20.9564, 4.95912, 19.4817, -155.571, -94.3743, 83.9283
1.79165, -1, -21.1174, 4.91603, 19.4923, -155.621, -94.3569, 83.6363
1.80069, -1, -21.2789, 4.87296, 19.503, -155.671, -94.3396, 83.3445
1.8078, -1, -21.4408, 4.82974, 19.5136, -155.721, -94.3224, 83.0521
1.81594, -1, -21.603, 4.78647, 19.5244, -155.772, -94.305, 82.7596
1.8248, -1, -21.7652, 4.74326, 19.5352, -155.822, -94.2873, 82.467
1.83198, -1, -21.9276, 4.69989, 19.5459, -155.872, -94.2693, 82.1745
1.84013, -1, -22.0901, 4.65649, 19.5567, -155.922, -94.2514, 81.8817
1.84899, -1, -22.2527, 4.61313, 19.5674, -155.972, -94.2335, 81.5887
1.85611, -1, -22.4151, 4.56966, 19.5781, -156.023, -94.216, 81.2961
1.86417, -1, -22.5772, 4.52627, 19.5888, -156.073, -94.1984, 81.0034
1.87304, -1, -22.7389, 4.48281, 19.5995, -156.123, -94.181, 80.7105
1.88011, -1, -22.8196, 4.46107, 19.6048, -156.148, -94.1635, 80.4174
1.88818, -1, -22.9808, 4.41768, 19.6156, -156.198, -94.1546, 80.1244
1.89558, -1, -23.142, 4.37435, 19.6262, -156.249, -94.1365, 79.978
1.90357, -1, -23.3029, 4.33098, 19.637, -156.299, -94.1182, 79.6847
1.91164, -1, -23.4637, 4.2877, 19.6479, -156.35, -94.1, 79.3911
1.91962, -1, -23.6246, 4.24439, 19.6587, -156.4, -94.0821, 79.0979
1.92761, -1, -23.7857, 4.20109, 19.6695, -156.45, -94.0644, 78.8046
1.93555, -1, -23.947, 4.15782, 19.6802, -156.501, -94.047, 78.5109
1.94357, -1, -24.1087, 4.11441, 19.6909, -156.551, -94.0296, 78.217
1.95162, -1, -24.2709, 4.07101, 19.7017, -156.601, -94.0121, 77.9232
1.95957, -1, -24.4335, 4.0276, 19.7124, -156.652, -93.9942, 77.6292
1.96756, -1, -24.5965, 3.98409, 19.723, -156.702, -93.9761, 77.3349
1.97561, -1, -24.7597, 3.94051, 19.7337, -156.753, -93.958, 77.0405
1.98357, -1, -24.9231, 3.89696, 19.7444, -156.803, -93.9401, 76.7466
1.99158, -1, -25.0865, 3.8534, 19.7554, -156.853, -93.9224, 76.4525
1.99962, -1, -25.2498, 3.8098, 19.7663, -156.904, -93.9049, 76.1581
2.00756, -1, -25.4129, 3.76619, 19.7771, -156.954, -93.8875, 75.8636
2.01802, -1, -25.5758, 3.7225, 19.7879, -157.005, -93.8698, 75.5694
2.02256, -1, -25.7385, 3.67886, 19.7986, -157.055, -93.8518, 75.2749
2.03157, -1, -25.9009, 3.63534, 19.8094, -157.106, -93.8336, 74.98
2.03962, -1, -26.0632, 3.59174, 19.8202, -157.156, -93.8152, 74.6854
2.04755, -1, -26.2249, 3.54823, 19.8309, -157.207, -93.7971, 74.3908
2.05555, -1, -26.3864, 3.50483, 19.8417, -157.258, -93.7792, 74.096
2.06363, -1, -26.5481, 3.46132, 19.8525, -157.308, -93.7615, 73.8007
2.07157, -1, -26.7099, 3.4178, 19.8633, -157.359, -93.744, 73.5056
2.07959, -1, -26.8722, 3.37428, 19.8742, -157.409, -93.7263, 73.2104
2.08906, -1, -27.0349, 3.33068, 19.885, -157.46, -93.7083, 72.915
2.09556, -1, -27.1977, 3.28706, 19.8959, -157.511, -93.6901, 72.6194
2.10362, -1, -27.3609, 3.24345, 19.9066, -157.561, -93.6718, 72.3242
2.11157, -1, -27.5246, 3.19966, 19.9174, -157.611, -93.6537, 72.0289
2.11955, -1, -27.6885, 3.15595, 19.9282, -157.662, -93.6358, 71.7334
2.12762, -1, -27.8525, 3.11232, 19.939, -157.713, -93.6181, 71.4376
2.13555, -1, -28.0167, 3.06859, 19.9498, -157.764, -93.6004, 71.1421
2.14355, -1, -28.181, 3.02485, 19.9606, -157.815, -93.5827, 70.8463
2.15175, -1, -28.3453, 2.98112, 19.9714, -157.865, -93.5646, 70.5502
2.15955, -1, -28.5093, 2.93735, 19.9824, -157.916, -93.5462, 70.2542
2.16756, -1, -28.673, 2.89366, 19.9932, -157.967, -93.5277, 69.9584
2.17562, -1, -28.8365, 2.84992, 20.0041, -158.017, -93.5095, 69.6622
2.18356, -1, -28.9996, 2.80618, 20.0148, -158.068, -93.4915, 69.3656
2.19156, -1, -29.1624, 2.76251, 20.0256, -158.119, -93.4738, 69.0692
2.19962, -1, -29.3251, 2.71883, 20.0364, -158.17, -93.4562, 68.7725
2.2076, -1, -29.4878, 2.67511, 20.0473, -158.221, -93.4385, 68.4757
2.21564, -1, -29.6506, 2.63135, 20.0581, -158.272, -93.4205, 68.1788
2.2237, -1, -29.8137, 2.58757, 20.0689, -158.323, -93.4022, 67.8822
2.23165, -1, -29.9767, 2.54379, 20.0798, -158.374, -93.3838, 67.5855
2.23966, -1, -30.14, 2.49992, 20.0909, -158.425, -93.3655, 67.2885
2.24776, -1, -30.3037, 2.45592, 20.1018, -158.476, -93.3476, 66.9915
2.25561, -1, -30.4681, 2.41202, 20.1128, -158.527, -93.3297, 66.6945
2.26356, -1, -30.6328, 2.36798, 20.1236, -158.577, -93.3119, 66.3974
2.2718, -1, -30.7979, 2.32401, 20.1344, -158.628, -93.2942, 66.0999
2.27959, -1, -30.9629, 2.28006, 20.1454, -158.68, -93.2761, 65.8027
2.28765, -1, -31.1281, 2.23595, 20.1562, -158.73, -93.2577, 65.5055
2.29572, -1, -31.2932, 2.19202, 20.1671, -158.782, -93.2391, 65.2081
2.30372, -1, -31.4581, 2.14815, 20.1779, -158.833, -93.2208, 64.9102
2.31217, -1, -31.6227, 2.10407, 20.1887, -158.884, -93.2029, 64.6124
2.31984, -1, -31.7872, 2.0601, 20.1997, -158.935, -93.1851, 64.3145
2.3279, -1, -31.9515, 2.01619, 20.2106, -158.986, -93.1675, 64.0163
2.33608, -1, -32.1155, 1.97216, 20.2216, -159.037, -93.1498, 63.7182
2.34405, -1, -32.2791, 1.92817, 20.2326, -159.089, -93.1319, 63.4203
2.35208, -1, -32.4426, 1.88415, 20.2434, -159.14, -93.1137, 63.1224
2.36031, -1, -32.6062, 1.84003, 20.2544, -159.191, -93.0953, 62.824
2.36896, -1, -32.7701, 1.79596, 20.2654, -159.243, -93.0771, 62.5256
2.37611, -1, -32.852, 1.77393, 20.2763, -159.294, -93.0591, 62.2275
2.3842, -1, -33.0162, 1.72974, 20.2872, -159.345, -93.0412, 61.9289
2.39154, -1, -33.1807, 1.68549, 20.2926, -159.37, -93.0323, 61.7795
2.39954, -1, -33.3455, 1.64132, 20.3035, -159.422, -93.0146, 61.4806
2.40759, -1, -33.5108, 1.59708, 20.3146, -159.473, -92.9965, 61.1822
2.41558, -1, -33.6764, 1.55279, 20.3255, -159.524, -92.9782, 60.8835
2.42355, -1, -33.8421, 1.50859, 20.3365, -159.575, -92.9596, 60.5845
2.43159, -1, -34.008, 1.46437, 20.3473, -159.626, -92.941, 60.2853
2.43958, -1, -34.174, 1.42017, 20.3582, -159.678, -92.9227, 59.9862
2.44754, -1, -34.3401, 1.37599, 20.3692, -159.729, -92.9046, 59.6866
2.45559, -1, -34.5062, 1.33177, 20.3801, -159.781, -92.8867, 59.3869
2.46355, -1, -34.6719, 1.28759, 20.3911, -159.832, -92.8689, 59.0876
2.47153, -1, -34.8372, 1.24337, 20.402, -159.883, -92.851, 58.7884
2.4796, -1, -35.0022, 1.19914, 20.413, -159.935, -92.8328, 58.4888
2.48756, -1, -35.1669, 1.15486, 20.4241, -159.987, -92.8143, 58.1889
2.49554, -1, -35.3315, 1.11056, 20.4352, -160.038, -92.7958, 57.8893
2.50361, -1, -35.4954, 1.06641, 20.4463, -160.089, -92.7775, 57.5896
2.51154, -1, -35.6577, 1.02258, 20.4576, -160.141, -92.7594, 57.2897
2.51955, -1, -35.8172, 0.97932, 20.4691, -160.191, -92.7414, 56.9911
2.52861, -1, -35.9727, 0.937213, 20.481, -160.242, -92.7237, 56.6959
2.53554, -1, -36.1232, 0.896718, 20.4929, -160.291, -92.7062, 56.4068
2.54458, -1, -36.2659, 0.858477, 20.5048, -160.339, -92.689, 56.1278
2.5516, -1, -36.399, 0.82315, 20.5164, -160.384, -92.6725, 55.8653
2.55955, -1, -36.5209, 0.790861, 20.527, -160.424, -92.6575, 55.6254
2.56754, -1, -36.63, 0.761987, 20.5363, -160.46, -92.6442, 55.4138
2.5756, -1, -36.7247, 0.736908, 20.5436, -160.49, -92.6331, 55.2354
2.58357, -1, -36.8048, 0.715655, 20.5487, -160.515, -92.6244, 55.0922
2.59155, -1, -36.8711, 0.698181, 20.5516, -160.533, -92.618, 54.9837
2.59962, -1, -36.9243, 0.684172, 20.5529, -160.547, -92.6135, 54.9071
2.60759, -1, -36.9647, 0.673306, 20.5533, -160.556, -92.6106, 54.8553
2.61554, -1, -36.9942, 0.66556, 20.553, -160.561, -92.609, 54.8239
2.6236, -1, -37.0145, 0.660511, 20.5525, -160.565, -92.6081, 54.806
2.63154, -1, -37.0269, 0.657501, 20.5522, -160.566, -92.6076, 54.7969
2.63956, -1, -37.0335, 0.655886, 20.552, -160.567, -92.6074, 54.7925
2.64759, 2, -37.0357, 0.655148, 20.5519, -160.568, -92.6072, 54.7906
2.65558, 2, -37.0356, 0.654843, 20.5519, -160.568, -92.6072, 54.7897
2.66354, 2, -37.035, 0.654708, 20.5518, -160.568, -92.6072, 54.7893
2.6716, 2, -37.0348, 0.654651, 20.5518, -160.568, -92.6072, 54.7891
2.67955, 2, -37.0351, 0.654596, 20.5518, -160.568, -92.6073, 54.789
2.68754, 2, -37.0362, 0.654564, 20.5517, -160.568, -92.6073, 54.789
2.69561, 2, -37.0373, 0.654456, 20.5515, -160.568, -92.6073, 54.789
2.70355, 2, -37.0388, 0.654256, 20.5513, -160.568, -92.6073, 54.789
2.71157, 2, -37.0402, 0.654005, 20.5512, -160.568, -92.6074, 54.7891
2.71969, 2, -37.0414, 0.653742, 20.551, -160.568, -92.6074, 54.7892
2.72769, 2, -37.0423, 0.653517, 20.5508, -160.568, -92.6074, 54.7893
2.73563, 2, -37.0427, 0.653413, 20.5506, -160.568, -92.6075, 54.7894
2.74371, 2, -37.0427, 0.653354, 20.5504, -160.568, -92.6075, 54.7895
2.75167, 2, -37.0423, 0.653346, 20.5502, -160.568, -92.6076, 54.7897
2.75961, 2, -37.0415, 0.653387, 20.5502, -160.568, -92.6076, 54.7898
2.7677, 2, -37.0404, 0.65344, 20.5501, -160.568, -92.6076, 54.79
2.77561, 2, -37.0388, 0.653494, 20.5501, -160.568, -92.6077, 54.7903
2.78357, 2, -37.0374, 0.65357, 20.55, -160.568, -92.6077, 54.7905
2.79166, 2, -37.0364, 0.653597, 20.5499, -160.568, -92.6077, 54.7906
2.8, 2, -37.0357, 0.653591, 20.5499, -160.568, -92.6077, 54.7906
2.80772, 2, -37.0355, 0.653569, 20.5499, -160.568, -92.6077, 54.7907
2.8159, 2, -37.0356, 0.653548, 20.5499, -160.568, -92.6077, 54.7907
2.82417, 2, -37.0358, 0.653484, 20.5498, -160.568, -92.6077, 54.7907
2.83192, 2, -37.036, 0.653418, 20.5498, -160.568, -92.6077, 54.7907
2.84007, 2, -37.0365, 0.653368, 20.5498, -160.568, -92.6077, 54.7908
2.84842, 2, -37.0373, 0.653345, 20.5498, -160.568, -92.6077, 54.7909
2.85612, 2, -37.038, 0.653335, 20.5498, -160.568, -92.6077, 54.791
2.86415, 2, -37.0387, 0.653353, 20.5498, -160.568, -92.6077, 54.791
2.87247, 2, -37.0391, 0.653387, 20.5498, -160.568, -92.6078, 54.791
2.88013, 2, -37.0392, 0.653408, 20.5497, -160.568, -92.6078, 54.791
2.88818, 2, -37.0393, 0.653449, 20.5497, -160.568, -92.6077, 54.7911
2.89643, 2, -37.0392, 0.653473, 20.5498, -160.568, -92.6078, 54.7911
2.90354, 2, -37.039, 0.653466, 20.5497, -160.568, -92.6078, 54.7911
2.91158, 2, -37.0386, 0.653468, 20.5497, -160.568, -92.6078, 54.7912
2.92048, 2, -37.0382, 0.653466, 20.5497, -160.568, -92.6078, 54.7913
2.92753, 2, -37.038, 0.653457, 20.5497, -160.568, -92.6079, 54.7913
2.93558, 2, -37.0379, 0.653406, 20.5497, -160.568, -92.6079, 54.7913
2.94357, 2, -37.0378, 0.653393, 20.5497, -160.568, -92.6079, 54.7913
2.95153, 2, -37.0378, 0.653357, 20.5497, -160.568, -92.6078, 54.7914
2.95959, 2, -37.0378, 0.653371, 20.5496, -160.568, -92.6079, 54.7915
2.96753, 2, -37.0379, 0.653388, 20.5496, -160.568, -92.6079, 54.7916
2.97554, 2, -37.038, 0.653385, 20.5496, -160.568, -92.6079, 54.7916
2.98358, 2, -37.0381, 0.653413, 20.5496, -160.568, -92.6079, 54.7917
2.99154, 2, -37.0383, 0.65344, 20.5496, -160.568, -92.6079, 54.7917
2.99954, 2, -37.0385, 0.653446, 20.5496, -160.568, -92.6079, 54.7917
3.0076, 2, -37.0385, 0.653459, 20.5496, -160.568, -92.6079, 54.7918
3.01553, 2, -37.0386, 0.653473, 20.5496, -160.568, -92.6079, 54.7919
3.02353, 2, -37.0385, 0.65345, 20.5496, -160.568, -92.6079, 54.7919
3.03262, 2, -37.0385, 0.653443, 20.5496, -160.568, -92.6079, 54.7919
3.03954, 2, -37.0385, 0.653454, 20.5496, -160.568, -92.608, 54.792
3.04752, 2, -37.0385, 0.653423, 20.5495, -160.568, -92.608, 54.7921
3.05559, 2, -37.0385, 0.653412, 20.5495, -160.568, -92.608, 54.7921
3.06353, 2, -37.0385, 0.653414, 20.5495, -160.568, -92.608, 54.7922
3.07153, 2, -37.0384, 0.653415, 20.5495, -160.568, -92.608, 54.7922
3.0796, 2, -37.0384, 0.653405, 20.5495, -160.568, -92.608, 54.7922
3.08756, 2, -37.0384, 0.653422, 20.5495, -160.568, -92.608, 54.7923
3.09552, 2, -37.0384, 0.65343, 20.5495, -160.568, -92.608, 54.7923
3.10359, 2, -37.0384, 0.653459, 20.5495, -160.568, -92.608, 54.7924
3.11157, 2, -37.0385, 0.653473, 20.5495, -160.568, -92.6081, 54.7924
3.11954, 2, -37.0384, 0.653461, 20.5495, -160.568, -92.608, 54.7925
3.12759, 2, -37.0384, 0.653455, 20.5495, -160.568, -92.6081, 54.7925
3.13552, 2, -37.0384, 0.65346, 20.5494, -160.568, -92.6081, 54.7926
3.14352, 2, -37.0384, 0.653447, 20.5494, -160.568, -92.6081, 54.7927
3.15159, 2, -37.0384, 0.653438, 20.5494, -160.568, -92.6081, 54.7927
3.15956, 2, -37.0383, 0.653426, 20.5494, -160.568, -92.608, 54.7927
3.16753, 2, -37.0383, 0.653402, 20.5494, -160.567, -92.608, 54.7927
3.17559, 2, -37.0384, 0.653381, 20.5494, -160.568, -92.608, 54.7928
3.18353, 2, -37.0383, 0.653403, 20.5493, -160.567, -92.608, 54.7928
3.19153, 2, -37.0383, 0.653418, 20.5494, -160.567, -92.608, 54.7928
3.1996, 2, -37.0383, 0.653446, 20.5494, -160.567, -92.6081, 54.7928
3.20753, 2, -37.0383, 0.653448, 20.5493, -160.567, -92.6081, 54.7929
3.21556, 2, -37.0382, 0.653449, 20.5493, -160.567, -92.6081, 54.793
3.2237, 2, -37.0383, 0.653457, 20.5493, -160.567, -92.608, 54.793
3.23162, 2, -37.0383, 0.653464, 20.5493, -160.567, -92.6081, 54.793
3.23963, 2, -37.0382, 0.653475, 20.5493, -160.567, -92.6081, 54.7931
3.24768, 2, -37.0383, 0.653469, 20.5493, -160.567, -92.6081, 54.7931
3.25566, 2, -37.0382, 0.653459, 20.5493, -160.567, -92.6081, 54.7931
3.26353, 2, -37.0382, 0.653454, 20.5493, -160.567, -92.6081, 54.7932
3.27159, 2, -37.0382, 0.653434, 20.5493, -160.567, -92.6081, 54.7932
3.27973, 2, -37.0382, 0.653454, 20.5493, -160.567, -92.6081, 54.7932
3.28757, 2, -37.0381, 0.653441, 20.5493, -160.567, -92.6081, 54.7932
3.29569, 2, -37.0382, 0.653438, 20.5492, -160.567, -92.6081, 54.7932
3.30367, 2, -37.0382, 0.653463, 20.5492, -160.567, -92.6081, 54.7933
3.31178, 2, -37.0382, 0.653475, 20.5492, -160.567, -92.6081, 54.7933
3.31986, 2, -37.0381, 0.653469, 20.5492, -160.567, -92.6081, 54.7933
3.32798, 2, -37.0381, 0.65347, 20.5492, -160.567, -92.6081, 54.7933
3.33597, 2, -37.0381, 0.653477, 20.5492, -160.567, -92.6082, 54.7933
3.34402, 2, -37.0381, 0.653481, 20.5492, -160.567, -92.6081, 54.7934
3.352, 2, -37.0381, 0.653483, 20.5492, -160.567, -92.6081, 54.7934
3.36036, 2, -37.0381, 0.653465, 20.5492, -160.567, -92.6081, 54.7934
3.36812, 2, -37.0381, 0.653457, 20.5492, -160.567, -92.6081, 54.7934
3.37629, 2, -37.0381, 0.653461, 20.5492, -160.567, -92.6082, 54.7935
3.38414, 2, -37.038, 0.653457, 20.5492, -160.567, -92.6082, 54.7935
3.3921, 2, -37.038, 0.653461, 20.5492, -160.567, -92.6081, 54.7935
3.39952, 2, -37.038, 0.653455, 20.5491, -160.567, -92.6081, 54.7936
3.40751, 2, -37.0379, 0.653463, 20.5492, -160.567, -92.6082, 54.7936
3.41556, 2, -37.0379, 0.653475, 20.5491, -160.567, -92.6082, 54.7936
3.42355, 2, -37.0379, 0.65348, 20.5491, -160.567, -92.6082, 54.7936
3.43152, 2, -37.0379, 0.653482, 20.5491, -160.567, -92.6082, 54.7936
3.43957, 2, -37.0379, 0.653483, 20.5491, -160.567, -92.6082, 54.7936
3.44755, 2, -37.0379, 0.653484, 20.5491, -160.567, -92.6082, 54.7937
3.45551, 2, -37.0379, 0.653484, 20.5491, -160.567, -92.6083, 54.7937
3.46356, 2, -37.0379, 0.653473, 20.5491, -160.567, -92.6083, 54.7937
3.47151, 2, -37.0379, 0.653472, 20.549, -160.567, -92.6082, 54.7937
3.47953, 2, -37.0379, 0.653478, 20.549, -160.567, -92.6082, 54.7937
3.4876, 2, -37.0379, 0.653471, 20.549, -160.567, -92.6083, 54.7937
3.49553, 2, -37.0379, 0.653471, 20.549, -160.567, -92.6083, 54.7938
3.50352, 2, -37.0378, 0.653478, 20.549, -160.567, -92.6083, 54.7938
3.51158, 2, -37.0378, 0.65347, 20.549, -160.567, -92.6083, 54.7938
3.52135, 2, -37.0378, 0.65347, 20.549, -160.567, -92.6083, 54.7939
3.52751, 2, -37.0378, 0.653478, 20.549, -160.567, -92.6082, 54.7939
3.5365, 2, -37.0378, 0.653481, 20.549, -160.567, -92.6082, 54.7939
3.54351, 2, -37.0378, 0.653483, 20.549, -160.567, -92.6082, 54.7939
3.55152, 2, -37.0378, 0.653484, 20.549, -160.567, -92.6082, 54.7938
3.55959, 2, -37.0378, 0.653484, 20.549, -160.567, -92.6083, 54.7939
3.56751, 2, -37.0378, 0.653484, 20.549, -160.567, -92.6083, 54.7938
3.57551, 2, -37.0377, 0.653484, 20.549, -160.567, -92.6083, 54.7939
3.58357, 2, -37.0377, 0.653484, 20.549, -160.567, -92.6083, 54.7939
3.59154, 2, -37.0377, 0.653484, 20.5489, -160.567, -92.6083, 54.7939
3.59952, 2, -37.0377, 0.653484, 20.5489, -160.567, -92.6083, 54.794
3.60757, 2, -37.0377, 0.653473, 20.5489, -160.567, -92.6083, 54.794
3.61557, 2, -37.0377, 0.653472, 20.5489, -160.567, -92.6083, 54.794
3.62351, 2, -37.0377, 0.653478, 20.5489, -160.567, -92.6083, 54.7939
3.63157, 2, -37.0377, 0.653482, 20.5489, -160.567, -92.6083, 54.794
3.63952, 2, -37.0377, 0.653483, 20.5489, -160.567, -92.6083, 54.794
3.64864, 2, -37.0376, 0.653484, 20.5489, -160.567, -92.6084, 54.794
3.65557, 2, -37.0377, 0.653484, 20.5489, -160.567, -92.6083, 54.7939
3.66353, 2, -37.0377, 0.653484, 20.5489, -160.567, -92.6083, 54.794
3.67151, 2, -37.0377, 0.653484, 20.5489, -160.567, -92.6083, 54.794
3.67959, 2, -37.0376, 0.653484, 20.5489, -160.567, -92.6084, 54.794
3.68751, 2, -37.0376, 0.653484, 20.5489, -160.567, -92.6083, 54.794
3.69551, 2, -37.0376, 0.653484, 20.5489, -160.567, -92.6083, 54.794
3.70368, 2, -37.0376, 0.653484, 20.5489, -160.567, -92.6083, 54.794
3.71153, 2, -37.0376, 0.653484, 20.5488, -160.567, -92.6083, 54.794
3.71955, 2, -37.0376, 0.653484, 20.5488, -160.567, -92.6083, 54.794
3.72763, 4, -37.0375, 0.653484, 20.5488, -160.567, -92.6084, 54.7939
3.7356, 4, -37.0375, 0.653484, 20.5488, -160.567, -92.6084, 54.7939
3.74361, 4, -37.0375, 0.653484, 20.5488, -160.567, -92.6083, 54.7939
3.75167, 4, -37.0375, 0.653484, 20.5488, -160.567, -92.6083, 54.794
3.75966, 4, -37.0375, 0.653484, 20.5488, -160.567, -92.6083, 54.794
3.76751, 4, -37.0375, 0.653496, 20.5488, -160.567, -92.6083, 54.794
3.77557, 4, -37.0374, 0.65349, 20.5488, -160.567, -92.6084, 54.794
3.78359, 4, -37.0374, 0.653499, 20.5488, -160.567, -92.6083, 54.794
3.79155, 4, -37.0374, 0.653491, 20.5488, -160.567, -92.6083, 54.794
3.79969, 4, -37.0374, 0.653487, 20.5488, -160.567, -92.6083, 54.794
3.80769, 4, -37.0374, 0.653486, 20.5488, -160.567, -92.6083, 54.794
3.81603, 4, -37.0374, 0.653485, 20.5488, -160.567, -92.6083, 54.794
3.82385, 4, -37.0373, 0.653484, 20.5487, -160.567, -92.6083, 54.794
3.8321, 4, -37.0373, 0.653484, 20.5487, -160.567, -92.6083, 54.794
3.85304, 4, -37.0374, 0.653484, 20.5487, -160.567, -92.6084, 54.794
3.85481, 4, -37.0374, 0.653484, 20.5487, -160.567, -92.6084, 54.794
3.85746, 4, -37.0373, 0.653484, 20.5487, -160.567, -92.6084, 54.794
3.86611, 4, -37.0373, 0.653484, 20.5487, -160.566, -92.6084, 54.794
3.8726, 4, -37.0372, 0.653473, 20.5487, -160.567, -92.6084, 54.794
3.8801, 4, -37.0365, 0.653321, 20.5487, -160.566, -92.6083, 54.7941
3.88802, 4, -37.0356, 0.653019, 20.5487, -160.566, -92.6084, 54.7941
3.8962, 4, -37.0315, 0.651276, 20.5491, -160.567, -92.6084, 54.7941
3.9035, 4, -37.0239, 0.646949, 20.5507, -160.566, -92.6084, 54.7941
3.9115, 4, -37.0126, 0.639149, 20.5545, -160.566, -92.6084, 54.794
3.92103, 4, -36.9873, 0.620158, 20.5675, -160.564, -92.6084, 54.794
3.92751, 5, -36.9761, 0.611574, 20.5744, -160.562, -92.6084, 54.794
3.93556, 5, -36.9495, 0.591177, 20.5932, -160.559, -92.6082, 54.794
3.94366, 5, -36.9178, 0.56627, 20.6185, -160.553, -92.6079, 54.794
3.95295, 5, -36.8613, 0.520596, 20.6693, -160.542, -92.607, 54.7939
3.95955, 5, -36.8399, 0.503004, 20.6893, -160.538, -92.6064, 54.7939
3.96775, 5, -36.7934, 0.464292, 20.7333, -160.528, -92.6051, 54.7938
3.97692, 5, -36.7417, 0.398371, 20.8073, -160.511, -92.6027, 54.7939
3.98349, 5, -36.6853, 0.374581, 20.8334, -160.505, -92.6019, 54.7938
3.99169, 5, -36.625, 0.325045, 20.8871, -160.493, -92.6001, 54.7938
3.9997, 5, -36.5608, 0.273402, 20.9419, -160.481, -92.5982, 54.7938
4.0075, 5, -36.4941, 0.220338, 20.9973, -160.469, -92.5964, 54.7939
4.01732, 5, -36.3921, 0.139777, 21.0805, -160.451, -92.5936, 54.7939
4.02653, 5, -36.3235, 0.085815, 21.136, -160.439, -92.5916, 54.794
4.03149, 5, -36.2891, 0.0588317, 21.1638, -160.433, -92.5906, 54.794
4.04363, 5, -36.1858, -0.0218236, 21.247, -160.415, -92.5877, 54.794
4.04762, 5, -36.1515, -0.0486027, 21.2747, -160.409, -92.5867, 54.794
4.05549, 5, -36.0828, -0.101973, 21.3301, -160.396, -92.5846, 54.7942
4.06356, 5, -36.0142, -0.155091, 21.3854, -160.383, -92.5826, 54.7943
4.07149, 5, -35.9456, -0.20805, 21.4406, -160.371, -92.5806, 54.7947
4.07948, 5, -35.8769, -0.260825, 21.4958, -160.358, -92.5785, 54.7952
4.08758, 5, -35.8081, -0.313461, 21.5508, -160.345, -92.5765, 54.7959
4.09567, 5, -35.7391, -0.366164, 21.6058, -160.332, -92.5744, 54.7968
4.10356, 5, -35.6699, -0.418848, 21.6606, -160.32, -92.5724, 54.7979
4.11151, 5, -35.6003, -0.471591, 21.7152, -160.307, -92.5703, 54.7992
4.11969, 5, -35.5306, -0.524418, 21.7695, -160.295, -92.5682, 54.8006
4.12754, 5, -35.4605, -0.577263, 21.8238, -160.282, -92.5661, 54.8021
4.1355, 5, -35.3903, -0.630113, 21.8779, -160.269, -92.564, 54.8037
4.14369, 5, -35.3198, -0.682852, 21.9318, -160.256, -92.5619, 54.8056
4.15497, 5, -35.2493, -0.761832, 22.0126, -160.236, -92.5587, 54.8085
4.1595, 5, -35.1787, -0.787984, 22.0395, -160.23, -92.5576, 54.8095
4.16881, 5, -35.108, -0.840176, 22.0931, -160.216, -92.5555, 54.8117
4.17755, 5, -35.0375, -0.892259, 22.1467, -160.203, -92.5532, 54.8141
4.18358, 5, -34.967, -0.944019, 22.2001, -160.19, -92.5511, 54.8165
4.19151, 5, -34.8966, -0.995623, 22.2534, -160.177, -92.5489, 54.819
4.19966, 5, -34.8261, -1.04703, 22.3066, -160.164, -92.5467, 54.8216
4.20775, 5, -34.7555, -1.09842, 22.3596, -160.151, -92.5444, 54.8244
4.21554, 5, -34.6847, -1.14983, 22.4124, -160.139, -92.542, 54.8273
4.22356, 5, -34.6138, -1.20114, 22.4651, -160.126, -92.5397, 54.8303
4.23163, 5, -34.5427, -1.25254, 22.5175, -160.113, -92.5374, 54.8334
4.23959, 5, -34.4715, -1.30391, 22.5699, -160.099, -92.5352, 54.8366
4.24784, 5, -34.4001, -1.35526, 22.6221, -160.085, -92.5329, 54.8399
4.25592, 5, -34.3285, -1.4066, 22.6741, -160.071, -92.5306, 54.8434
4.26363, 5, -34.2567, -1.45782, 22.726, -160.058, -92.5282, 54.8469
4.27167, 5, -34.1849, -1.50885, 22.7779, -160.044, -92.5259, 54.8505
4.28041, 5, -34.1129, -1.55964, 22.8295, -160.03, -92.5236, 54.8543
4.28758, 5, -34.0408, -1.61027, 22.8811, -160.017, -92.5213, 54.8583
4.29603, 5, -33.9687, -1.66064, 22.9326, -160.004, -92.5189, 54.8622
4.30389, 5, -33.8966, -1.71076, 22.984, -159.99, -92.5166, 54.8663
4.31174, 5, -33.8245, -1.76076, 23.0351, -159.976, -92.5142, 54.8704
4.32091, 5, -33.7523, -1.8107, 23.0861, -159.962, -92.5119, 54.8747
4.3287, 5, -33.68, -1.86058, 23.1369, -159.948, -92.5096, 54.879
4.33682, 5, -33.6075, -1.91037, 23.1876, -159.934, -92.5073, 54.8833
4.34493, 5, -33.5349, -1.9604, 23.2381, -159.92, -92.505, 54.8876
4.35202, 5, -33.462, -2.01072, 23.2885, -159.905, -92.5027, 54.8915
4.36091, 5, -33.3891, -2.06135, 23.3389, -159.891, -92.5004, 54.8946
4.36807, 5, -33.3165, -2.11241, 23.3892, -159.877, -92.498, 54.8963
4.37633, 6, -33.2441, -2.164, 23.4398, -159.863, -92.4955, 54.8966
4.38479, 6, -33.2081, -2.19013, 23.4907, -159.848, -92.4927, 54.8948
4.39232, 6, -33.1363, -2.24308, 23.5422, -159.833, -92.4894, 54.8895
4.39948, 6, -33.0649, -2.29685, 23.5683, -159.825, -92.4873, 54.8846
4.40749, 7, -32.9939, -2.35176, 23.6212, -159.807, -92.4822, 54.8714
4.41553, 7, -32.9235, -2.40779, 23.6753, -159.789, -92.4755, 54.8551
4.42565, 7, -32.8188, -2.49453, 23.7591, -159.758, -92.462, 54.8278
4.43148, 7, -32.7841, -2.52419, 23.7877, -159.748, -92.4565, 54.8187
4.43953, 7, -32.7155, -2.58473, 23.846, -159.726, -92.4439, 54.8009
4.44748, 8, -32.6474, -2.64687, 23.9056, -159.702, -92.4293, 54.7838
4.45558, 8, -32.5801, -2.71079, 23.9664, -159.677, -92.4127, 54.7668
4.46352, 8, -32.5135, -2.77642, 24.0283, -159.651, -92.3944, 54.7492
4.47161, 8, -32.4477, -2.84364, 24.0912, -159.623, -92.3742, 54.7306
4.47968, 8, -32.3825, -2.91236, 24.1551, -159.596, -92.3528, 54.7105
4.48753, 9, -32.3178, -2.98243, 24.2199, -159.567, -92.3303, 54.6885
4.49575, 9, -32.2537, -3.0538, 24.2858, -159.537, -92.3067, 54.6648
4.50432, 9, -32.1902, -3.1265, 24.3526, -159.506, -92.2818, 54.6395
4.51148, 9, -32.1273, -3.20044, 24.4205, -159.474, -92.255, 54.6128
4.51954, 9, -32.0649, -3.27571, 24.4893, -159.441, -92.2265, 54.585
4.52851, 10, -32.0031, -3.35222, 24.5591, -159.408, -92.1969, 54.5557
4.5355, 10, -31.942, -3.43012, 24.63, -159.372, -92.1662, 54.5243
4.54463, 10, -31.8814, -3.5095, 24.702, -159.336, -92.1342, 54.491
4.55164, 10, -31.8213, -3.59027, 24.775, -159.3, -92.1001, 54.456
4.56051, 10, -31.7618, -3.67249, 24.8491, -159.263, -92.0645, 54.42
4.56824, 11, -31.7028, -3.75616, 24.9241, -159.224, -92.0282, 54.3826
4.57549, 11, -31.6445, -3.84137, 25.0001, -159.184, -91.9908, 54.3435
4.58355, 11, -31.5866, -3.92801, 25.077, -159.145, -91.9514, 54.3024
4.59485, 11, -31.5008, -4.0607, 25.1941, -159.082, -91.8897, 54.2381
4.59967, 11, -31.4724, -4.10567, 25.2337, -159.06, -91.8687, 54.2162
4.60846, 12, -31.4162, -4.19675, 25.3136, -159.018, -91.8254, 54.1711
4.61556, 12, -31.3603, -4.28922, 25.3947, -158.974, -91.78, 54.1238
4.62369, 12, -31.305, -4.38307, 25.4767, -158.928, -91.734, 54.0749
4.63447, 12, -31.2231, -4.52633, 25.6018, -158.859, -91.6623, 53.9996
4.63948, 12, -31.1959, -4.5748, 25.644, -158.835, -91.6374, 53.9736
4.64747, 13, -31.1422, -4.67282, 25.7291, -158.787, -91.5875, 53.9199
4.65557, 13, -31.0889, -4.77219, 25.8151, -158.738, -91.5358, 53.8653
4.66348, 13, -31.0362, -4.87304, 25.9021, -158.689, -91.4822, 53.8096
4.67172, 13, -30.9841, -4.97543, 25.9902, -158.638, -91.4284, 53.7518
4.68053, 13, -30.9323, -5.07931, 26.0794, -158.587, -91.3726, 53.6925
4.6877, 14, -30.8812, -5.18455, 26.1697, -158.534, -91.3154, 53.6324
4.69557, 14, -30.8306, -5.29129, 26.2611, -158.48, -91.2576, 53.5702
4.70349, 14, -30.7806, -5.39953, 26.3533, -158.427, -91.1972, 53.5067
4.71148, 14, -30.7311, -5.50922, 26.4465, -158.371, -91.1368, 53.4425
4.71982, 14, -30.6821, -5.62047, 26.5406, -158.315, -91.0742, 53.3759
4.72864, 14, -30.6336, -5.73318, 26.6358, -158.259, -91.0104, 53.3081
4.73558, 15, -30.5856, -5.84729, 26.7322, -158.2, -90.9453, 53.2395
4.74569, 15, -30.5382, -5.96259, 26.8297, -158.142, -90.8784, 53.1685
4.75176, 15, -30.4912, -6.07925, 26.9283, -158.082, -90.8112, 53.0969
4.76156, 15, -30.4447, -6.19747, 27.0278, -158.021, -90.7416, 53.0232
4.76762, 15, -30.3987, -6.31698, 27.1281, -157.96, -90.6714, 52.9477
4.77551, 16, -30.3534, -6.43812, 27.2294, -157.897, -90.5991, 52.8715
4.78356, 16, -30.3085, -6.56071, 27.3319, -157.834, -90.5264, 52.7927
4.79156, 16, -30.264, -6.68465, 27.4355, -157.769, -90.4516, 52.7136
4.79993, 16, -30.22, -6.81017, 27.5403, -157.705, -90.3761, 52.6325
4.80762, 16, -30.1766, -6.93716, 27.646, -157.638, -90.2988, 52.5503
4.81567, 17, -30.1335, -7.06576, 27.7526, -157.572, -90.2205, 52.4669
4.82384, 17, -30.091, -7.19598, 27.86, -157.504, -90.1407, 52.3819
4.83181, 17, -30.049, -7.32764, 27.9684, -157.435, -90.0594, 52.2961
4.83995, 17, -30.0075, -7.46048, 28.0781, -157.365, -89.9771, 52.2082
4.84841, 17, -29.9665, -7.59473, 28.1889, -157.295, -89.8933, 52.1198
4.85598, 18, -29.926, -7.73047, 28.3009, -157.223, -89.8083, 52.0295
4.86409, 18, -29.8861, -7.86763, 28.4137, -157.151, -89.7218, 51.9384
4.87254, 18, -29.8466, -8.00616, 28.5273, -157.078, -89.6347, 51.8453
4.88092, 18, -29.8075, -8.14584, 28.6418, -157.003, -89.5458, 51.7514
4.88822, 18, -29.7689, -8.28693, 28.7577, -156.928, -89.4556, 51.6555
4.89608, 19, -29.7498, -8.35794, 28.816, -156.89, -89.4102, 51.5591
4.90348, 19, -29.712, -8.50118, 28.9336, -156.814, -89.3185, 51.51
4.91152, 19, -29.6745, -8.64608, 29.0521, -156.737, -89.2253, 51.4117
4.92091, 19, -29.6192, -8.86594, 29.2313, -156.619, -89.0834, 51.2619
4.92891, 19, -29.6011, -9.01407, 29.3518, -156.54, -88.9875, 51.1609
4.93553, 20, -29.5651, -9.08873, 29.4125, -156.5, -88.939, 51.1096
4.9463, 20, -29.512, -9.31492, 29.5965, -156.378, -88.7922, 50.9547
4.9517, 20, -29.4945, -9.3911, 29.6583, -156.337, -88.7428, 50.9025
4.95948, 20, -29.4599, -9.54431, 29.7826, -156.255, -88.643, 50.7972
4.96751, 20, -29.4257, -9.6986, 29.9077, -156.171, -88.5421, 50.6905
4.97566, 21, -29.3922, -9.85416, 30.0337, -156.087, -88.4402, 50.5827
4.98347, 21, -29.3589, -10.0112, 30.1607, -156.001, -88.337, 50.474
4.99154, 21, -29.3259, -10.1699, 30.289, -155.915, -88.2329, 50.364
5.00193, 21, -29.2775, -10.4098, 30.483, -155.785, -88.0748, 50.1975
5.00749, 21, -29.2616, -10.4902, 30.5481, -155.741, -88.0215, 50.1418
5.01714, 22, -29.2301, -10.6521, 30.6789, -155.652, -87.9144, 49.9726
5.02363, 22, -29.1989, -10.8155, 30.8107, -155.562, -87.8062, 49.9158
5.03169, 22, -29.168, -10.9802, 30.9435, -155.472, -87.6969, 49.8017
5.03953, 22, -29.1376, -11.1457, 31.0772, -155.381, -87.5868, 49.6864
5.04863, 22, -29.1076, -11.3122, 31.2118, -155.289, -87.4755, 49.5703
5.05544, 22, -29.078, -11.4803, 31.3474, -155.195, -87.3634, 49.4533
5.06349, 23, -29.0487, -11.6501, 31.4837, -155.101, -87.2504, 49.3356
5.0716, 23, -29.0197, -11.8209, 31.6208, -155.007, -87.1362, 49.2172
5.08044, 23, -28.9912, -11.9925, 31.7587, -154.911, -87.0215, 49.0983
5.08747, 23, -28.9631, -12.1652, 31.8976, -154.815, -86.9058, 48.979
5.09551, 23, -28.9354, -12.3395, 32.0374, -154.717, -86.789, 48.8587
5.10357, 24, -28.908, -12.515, 32.1781, -154.619, -86.6714, 48.738
5.11146, 24, -28.8809, -12.691, 32.3196, -154.52, -86.5527, 48.617
5.12069, 24, -28.8541, -12.8677, 32.4616, -154.42, -86.4336, 48.495
5.12767, 24, -28.8278, -13.0458, 32.6045, -154.32, -86.3133, 48.3724
5.13646, 24, -28.8017, -13.2255, 32.7485, -154.218, -86.1925, 48.2495
5.14424, 25, -28.776, -13.4057, 32.8932, -154.116, -86.0709, 48.1262
5.15152, 25, -28.7506, -13.5865, 33.0385, -154.013, -85.9484, 48.0027
5.15955, 25, -28.7252, -13.7686, 33.1843, -153.909, -85.8256, 47.8794
5.17091, 25, -28.6877, -14.0443, 33.4045, -153.752, -85.6394, 47.6936
5.17559, 25, -28.6754, -14.1365, 33.4784, -153.699, -85.5773, 47.6316
5.18346, 26, -28.6509, -14.3211, 33.6266, -153.592, -85.4522, 47.5077
5.19154, 26, -28.6268, -14.5069, 33.7752, -153.485, -85.3266, 47.3834
5.19954, 26, -28.603, -14.6942, 33.9244, -153.378, -85.2006, 47.259
5.20749, 26, -28.5793, -14.8821, 34.0746, -153.269, -85.0736, 47.1348
5.21546, 26, -28.5556, -15.0702, 34.2254, -153.16, -84.9464, 47.0105
5.22375, 27, -28.5323, -15.2589, 34.3765, -153.05, -84.8185, 46.8866
5.23297, 27, -28.5092, -15.4487, 34.5282, -152.939, -84.6902, 46.7634
5.23955, 27, -28.4863, -15.6389, 34.6806, -152.828, -84.5613, 46.64
5.24798, 27, -28.4637, -15.8293, 34.8337, -152.716, -84.432, 46.517
5.25634, 27, -28.4413, -16.0208, 34.9872, -152.603, -84.3024, 46.3944
5.26367, 28, -28.419, -16.2138, 35.1407, -152.489, -84.1723, 46.2719
5.27207, 28, -28.3966, -16.4074, 35.2949, -152.375, -84.0418, 46.1499
5.27947, 28, -28.3744, -16.6013, 35.4499, -152.261, -83.9108, 46.0284
5.28821, 28, -28.3524, -16.7962, 35.6054, -152.145, -83.7798, 45.9077
5.2969, 28, -28.3303, -16.992, 35.7609, -152.029, -83.6482, 45.7876
5.30555, 29, -28.3083, -17.1878, 35.9168, -151.912, -83.5166, 45.6684
5.31259, 29, -28.2865, -17.3836, 36.0733, -151.795, -83.3846, 45.5502
5.31964, 29, -28.2647, -17.5803, 36.2303, -151.677, -83.2522, 45.4328
5.32872, 29, -28.243, -17.7777, 36.3873, -151.558, -83.1195, 45.3166
5.33645, 29, -28.2213, -17.9751, 36.5444, -151.439, -82.9867, 45.2008
5.3439, 29, -28.1999, -18.1728, 36.7023, -151.319, -82.8536, 45.0867
5.35277, 30, -28.1785, -18.3715, 36.8608, -151.199, -82.7203, 44.9733
5.36009, 30, -28.1571, -18.5706, 37.0193, -151.077, -82.587, 44.8611
5.36882, 30, -28.1358, -18.7698, 37.1777, -150.956, -82.4533, 44.7502
5.37644, 30, -28.1146, -18.9696, 37.3365, -150.833, -82.3195, 44.6407
5.384, 30, -28.1039, -19.1706, 37.4961, -150.71, -82.1852, 44.5329
5.3928, 31, -28.0825, -19.2712, 37.5759, -150.586, -82.0512, 44.4262
5.40028, 31, -28.0611, -19.4723, 37.815, -150.462, -81.9167, 44.3212
5.40905, 31, -28.0399, -19.7741, 37.9747, -150.337, -81.7826, 44.2181
5.41655, 31, -28.0079, -19.9757, 38.1351, -150.212, -81.6482, 44.1162
5.42345, 31, -27.9971, -20.0763, 38.2153, -150.149, -81.5809, 44.0659
5.4315, 32, -27.9756, -20.2772, 38.3754, -150.022, -81.4467, 43.9671
5.43949, 32, -27.9539, -20.4783, 38.535, -149.896, -81.3122, 43.8701
5.44763, 32, -27.9317, -20.6801, 38.6949, -149.769, -81.1783, 43.7758
5.45711, 32, -27.9093, -20.8815, 38.935, -149.578, -80.9775, 43.6387
5.46351, 32, -27.8867, -21.0824, 39.0147, -149.514, -80.9108, 43.5943
5.47152, 33, -27.8638, -21.2834, 39.1736, -149.387, -80.7775, 43.5078
5.47945, 33, -27.8406, -21.4841, 39.3325, -149.259, -80.6447, 43.4247
5.48744, 33, -27.817, -21.6839, 39.4914, -149.132, -80.5123, 43.3441
5.49785, 33, -27.7805, -21.9828, 39.7284, -148.94, -80.3147, 43.2299
5.50371, 33, -27.7682, -22.0824, 39.8069, -148.876, -80.249, 43.1931
5.51303, 34, -27.7304, -22.3798, 40.0421, -148.685, -80.0525, 43.089
5.51945, 34, -27.7175, -22.4784, 40.1204, -148.621, -79.9872, 43.0559
5.53122, 34, -27.6783, -22.7738, 40.3546, -148.43, -79.791, 42.9604
5.53551, 34, -27.665, -22.8723, 40.4322, -148.366, -79.7257, 42.9306
5.54453, 34, -27.6381, -23.0686, 40.5873, -148.238, -79.595, 42.8734
5.55141, 35, -27.6106, -23.264, 40.7426, -148.11, -79.4644, 42.8187
5.55952, 35, -27.5831, -23.4596, 40.8977, -147.981, -79.3336, 42.7676
5.56745, 35, -27.5553, -23.6555, 41.052, -147.853, -79.2033, 42.7203
5.57559, 35, -27.527, -23.8509, 41.2061, -147.723, -79.073, 42.6764
5.58444, 35, -27.4986, -24.0456, 41.3602, -147.594, -78.9428, 42.6353
5.59166, 36, -27.4699, -24.2404, 41.5144, -147.463, -78.813, 42.5979
5.59947, 36, -27.4407, -24.435, 41.6679, -147.333, -78.6831, 42.5647
5.60755, 36, -27.4113, -24.6287, 41.8208, -147.202, -78.5541, 42.5358
5.61544, 36, -27.3815, -24.8217, 41.9734, -147.071, -78.4251, 42.5111
5.6236, 36, -27.351, -25.0148, 42.1256, -146.94, -78.2967, 42.4906
5.63176, 37, -27.3197, -25.2073, 42.2769, -146.809, -78.1688, 42.4748
5.63946, 37, -27.2876, -25.3985, 42.4271, -146.679, -78.0412, 42.4634
5.64868, 37, -27.2548, -25.5887, 42.5763, -146.549, -77.9143, 42.4569
5.65732, 37, -27.2211, -25.7783, 42.7247, -146.419, -77.7875, 42.454
5.66348, 37, -27.1864, -25.9667, 42.872, -146.291, -77.6615, 42.454
5.67222, 37, -27.1508, -26.1532, 43.018, -146.163, -77.5356, 42.46
5.67948, 38, -27.1143, -26.3384, 43.1627, -146.035, -77.4106, 42.4723
5.68754, 38, -27.077, -26.5229, 43.3066, -145.908, -77.2861, 42.4897
5.69755, 38, -27.0389, -26.7062, 43.4497, -145.781, -77.1621, 42.5127
5.70394, 38, -27, -26.888, 43.5917, -145.655, -77.0386, 42.5413
5.71151, 38, -26.9603, -27.0689, 43.7327, -145.529, -76.9155, 42.5757
5.71947, 39, -26.9199, -27.2496, 43.8729, -145.403, -76.7929, 42.6163
5.72749, 39, -26.8788, -27.4295, 44.0123, -145.278, -76.6702, 42.6628
5.7356, 39, -26.8368, -27.6079, 44.151, -145.152, -76.5479, 42.7145
5.74358, 39, -26.7941, -27.7858, 44.2889, -145.026, -76.4255, 42.7723
5.75171, 39, -26.7507, -27.9635, 44.4258, -144.9, -76.3031, 42.8369
5.76045, 40, -26.7064, -28.1403, 44.5616, -144.775, -76.1809, 42.9067
5.76756, 40, -26.661, -28.3153, 44.6966, -144.651, -76.0588, 42.9838
5.77565, 40, -26.6149, -28.4891, 44.8303, -144.527, -75.9372, 43.0671
5.7835, 40, -26.5677, -28.6621, 44.9628, -144.403, -75.8157, 43.1564
5.79152, 40, -26.5194, -28.8337, 45.0938, -144.281, -75.6951, 43.2531
5.79992, 41, -26.47, -29.0031, 45.2234, -144.159, -75.5747, 43.3559
5.8082, 41, -26.4194, -29.1709, 45.3516, -144.039, -75.4547, 43.4656
5.81566, 41, -26.3676, -29.3375, 45.4783, -143.919, -75.3354, 43.5821
5.82454, 41, -26.3144, -29.5027, 45.6034, -143.801, -75.2164, 43.7055
5.83172, 41, -26.26, -29.6658, 45.7269, -143.684, -75.0981, 43.8362
5.83991, 42, -26.2041, -29.827, 45.8485, -143.568, -74.9802, 43.9742
5.84891, 42, -26.1467, -29.9866, 45.9683, -143.453, -74.8627, 44.1197
5.85665, 42, -26.0878, -30.1444, 46.0861, -143.341, -74.746, 44.2719
5.86488, 42, -26.0273, -30.3001, 46.2019, -143.229, -74.6294, 44.4316
5.87285, 42, -25.9653, -30.4533, 46.3157, -143.12, -74.5136, 44.5984
5.88094, 42, -25.9016, -30.6043, 46.4273, -143.013, -74.3982, 44.7727
5.88886, 43, -25.8363, -30.7534, 46.5369, -142.907, -74.2832, 44.9548
5.896, 43, -25.803, -30.8271, 46.5909, -142.803, -74.1688, 45.1445
5.90539, 43, -25.7007, -31.0449, 46.7498, -142.701, -74.0544, 45.3421
5.91142, 43, -25.6659, -31.1163, 46.8018, -142.65, -73.9976, 45.4437
5.91947, 43, -25.5949, -31.2575, 46.9043, -142.551, -73.8843, 45.6526
5.9293, 44, -25.4853, -31.4654, 47.0541, -142.406, -73.7154, 45.9807
5.93544, 44, -25.4478, -31.5336, 47.1028, -142.359, -73.6595, 46.0941
5.94348, 44, -25.3715, -31.6684, 47.1983, -142.267, -73.548, 46.3268
5.95158, 44, -25.2935, -31.8005, 47.2914, -142.176, -73.437, 46.5676
5.95955, 44, -25.2136, -31.9297, 47.3821, -142.089, -73.327, 46.8165
5.96748, 45, -25.1319, -32.0564, 47.4704, -142.004, -73.2174, 47.074
5.97559, 45, -25.0481, -32.1801, 47.5563, -141.923, -73.1083, 47.34
5.98581, 45, -24.9621, -32.3604, 47.6798, -141.805, -72.9455, 47.7543
5.99149, 45, -24.8742, -32.4189, 47.7194, -141.767, -72.8913, 47.8965
6.00105, 45, -24.7376, -32.5896, 47.8338, -141.658, -72.7301, 48.3359
6.00744, 46, -24.6909, -32.6448, 47.8705, -141.624, -72.6765, 48.4869
6.01552, 46, -24.5958, -32.7527, 47.9417, -141.557, -72.5698, 48.795
6.02536, 46, -24.4982, -32.9082, 48.0428, -141.464, -72.4115, 49.2729
6.03225, 46, -24.3983, -32.9581, 48.0749, -141.435, -72.359, 49.4367
6.03944, 46, -24.2962, -33.0552, 48.1367, -141.379, -72.2549, 49.7707
6.04847, 47, -24.1917, -33.1486, 48.1948, -141.327, -72.1521, 50.1124
6.05552, 47, -24.0849, -33.238, 48.2495, -141.28, -72.0502, 50.4627
6.06343, 47, -23.9753, -33.3233, 48.3004, -141.236, -71.9496, 50.8212
6.07377, 47, -23.8062, -33.4437, 48.3696, -141.18, -71.8009, 51.3748
6.07958, 47, -23.7484, -33.4817, 48.3908, -141.164, -71.752, 51.5637
6.08747, 48, -23.6308, -33.5546, 48.4301, -141.134, -71.6553, 51.9478
6.09545, 48, -23.5105, -33.623, 48.4652, -141.109, -71.5604, 52.3398
6.10344, 48, -23.3876, -33.6868, 48.4961, -141.089, -71.4669, 52.7409
6.11147, 48, -23.2623, -33.7458, 48.5229, -141.074, -71.3753, 53.1512
6.1195, 48, -23.1343, -33.7997, 48.5454, -141.064, -71.286, 53.5698
6.12757, 49, -23.0035, -33.8486, 48.5635, -141.059, -71.1986, 53.9972
6.1355, 49, -22.8698, -33.8923, 48.5772, -141.058, -71.1128, 54.432
6.14349, 49, -22.733, -33.9304, 48.5862, -141.063, -71.0295, 54.8745
6.15143, 49, -22.5934, -33.9629, 48.5905, -141.074, -70.9479, 55.3249
6.1595, 49, -22.451, -33.9897, 48.5905, -141.092, -70.8688, 55.7829
6.16739, 50, -22.3057, -34.0105, 48.5855, -141.115, -70.7919, 56.2488
6.17561, 50, -22.1579, -34.0251, 48.5754, -141.145, -70.7181, 56.7215
6.18352, 50, -22.0073, -34.0335, 48.5603, -141.18, -70.6468, 57.2024
6.19143, 50, -21.8538, -34.0359, 48.54, -141.221, -70.579, 57.691
6.19958, 50, -21.6974, -34.0322, 48.5141, -141.269, -70.5139, 58.1868
6.20839, 51, -21.5378, -34.0219, 48.4828, -141.323, -70.4532, 58.6896
6.21555, 51, -21.3754, -34.0048, 48.4463, -141.383, -70.395, 59.1978
6.22479, 51, -21.2104, -33.9809, 48.4044, -141.45, -70.3411, 59.7122
6.23207, 51, -21.0428, -33.9498, 48.3569, -141.522, -70.2908, 60.2322
6.23952, 51, -20.8727, -33.9117, 48.3038, -141.601, -70.2437, 60.758
6.24753, 51, -20.7001, -33.8661, 48.2448, -141.686, -70.2011, 61.2889
6.25603, 52, -20.5247, -33.8125, 48.1798, -141.777, -70.1637, 61.827
6.26567, 52, -20.3465, -33.7509, 48.1087, -141.875, -70.1305, 62.3726
6.27161, 52, -20.1654, -33.6812, 48.0314, -141.98, -70.1019, 62.9256
6.27976, 52, -19.9815, -33.6031, 47.9475, -142.091, -70.0786, 63.4852
6.28837, 52, -19.7949, -33.5165, 47.8571, -142.209, -70.0609, 64.0521
6.29552, 53, -19.6063, -33.4213, 47.7605, -142.333, -70.0489, 64.625
6.30356, 53, -19.4157, -33.3178, 47.6577, -142.463, -70.0423, 65.2029
6.31152, 53, -19.223, -33.2062, 47.549, -142.599, -70.0405, 65.784
6.31965, 53, -19.0287, -33.0863, 47.4346, -142.74, -70.0438, 66.3681
6.32902, 53, -18.8328, -32.9581, 47.3143, -142.886, -70.0533, 66.9548
6.33846, 54, -18.6351, -32.8217, 47.1883, -143.037, -70.0689, 67.5424
6.34386, 54, -18.4355, -32.6771, 47.0566, -143.192, -70.0911, 68.1302
6.35185, 54, -18.2341, -32.5244, 46.9197, -143.352, -70.12, 68.7194
6.35997, 54, -18.0312, -32.3635, 46.777, -143.516, -70.155, 69.31
6.36858, 54, -17.8272, -32.1937, 46.6284, -143.685, -70.1963, 69.9022
6.37607, 55, -17.6222, -32.0146, 46.4736, -143.858, -70.2458, 70.4967
6.38472, 55, -17.4162, -31.8263, 46.3125, -144.035, -70.303, 71.0957
6.39199, 55, -17.3125, -31.6287, 46.1447, -144.218, -70.3679, 71.6995
6.39995, 55, -17.1038, -31.5261, 46.0579, -144.312, -70.4422, 72.3072
6.4144, 55, -16.6814, -31.0887, 45.6922, -144.698, -70.5701, 73.2286
6.4165, 56, -16.5747, -30.9729, 45.5966, -144.798, -70.6173, 73.5381
6.42342, 56, -16.4678, -30.8545, 45.4992, -144.898, -70.6667, 73.8486
6.43157, 56, -16.2531, -30.6092, 45.2984, -145.103, -70.7723, 74.4716
6.44091, 56, -16.0379, -30.221, 44.9836, -145.417, -70.949, 75.4122
6.44746, 56, -15.8229, -30.0863, 44.8758, -145.523, -71.0124, 75.727
6.45544, 56, -15.6075, -29.8087, 44.655, -145.738, -71.1465, 76.3576
6.46342, 57, -15.391, -29.5209, 44.4269, -145.956, -71.2901, 76.9889
6.47147, 57, -15.1733, -29.2229, 44.1929, -146.177, -71.4436, 77.6216
6.47947, 57, -14.9549, -28.9148, 43.9526, -146.399, -71.6065, 78.2546
6.48742, 57, -14.7368, -28.5984, 43.7065, -146.623, -71.7791, 78.8859
6.49694, 58, -14.4108, -28.1084, 43.3292, -146.959, -72.0543, 79.8286
6.5037, 58, -14.3027, -27.9415, 43.2011, -147.071, -72.1499, 80.141
6.51224, 58, -14.0876, -27.6016, 42.9429, -147.294, -72.3466, 80.7612
6.51944, 58, -13.874, -27.2547, 42.6819, -147.515, -72.5506, 81.3743
6.5275, 58, -13.6618, -26.9009, 42.4177, -147.734, -72.7613, 81.981
6.53732, 59, -13.346, -26.3583, 42.0164, -148.058, -73.0899, 82.8792
6.54342, 59, -13.2414, -26.1736, 41.8806, -148.165, -73.2032, 83.1755
6.55257, 59, -13.0337, -25.7996, 41.6065, -148.377, -73.4353, 83.7645
6.56024, 59, -12.8278, -25.4186, 41.3289, -148.589, -73.6757, 84.3501
6.56742, 59, -12.6229, -25.031, 41.0471, -148.798, -73.9246, 84.9324
6.57625, 59, -12.4189, -24.6354, 40.7614, -149.006, -74.1826, 85.5109
6.58341, 60, -12.216, -24.2323, 40.4707, -149.213, -74.4496, 86.0866
6.59143, 60, -12.0144, -23.8217, 40.1765, -149.418, -74.7258, 86.6593
6.60234, 60, -11.7147, -23.1936, 39.7287, -149.721, -75.1561, 87.5117
6.60765, 60, -11.6157, -22.9814, 39.5785, -149.821, -75.3037, 87.7931
6.61647, 60, -11.4193, -22.553, 39.2763, -150.017, -75.6041, 88.3523
6.62342, 61, -11.2254, -22.1205, 38.9727, -150.21, -75.9108, 88.9052
6.63143, 61, -11.0338, -21.6842, 38.6685, -150.399, -76.2226, 89.4496
6.63946, 61, -10.8445, -21.2447, 38.3641, -150.582, -76.5386, 89.9845
6.64748, 61, -10.6574, -20.8018, 38.0601, -150.76, -76.8588, 90.5098
6.65563, 61, -10.4729, -20.3555, 37.756, -150.933, -77.1826, 91.0255
6.66339, 62, -10.2907, -19.9059, 37.4525, -151.101, -77.5105, 91.5322
6.67143, 62, -10.1115, -19.4534, 37.1485, -151.264, -77.8429, 92.0302
6.67956, 62, -9.93507, -18.9987, 36.8444, -151.422, -78.1803, 92.5201
6.6909, 62, -9.76107, -18.3118, 36.3861, -151.651, -78.6963, 93.2424
6.69541, 62, -9.58958, -18.0817, 36.2333, -151.726, -78.8709, 93.4793
6.70376, 63, -9.42032, -17.6208, 35.9275, -151.87, -79.2236, 93.9473
6.7115, 63, -9.25321, -17.1582, 35.6226, -152.01, -79.5807, 94.4059
6.71942, 63, -9.08835, -16.6938, 35.3187, -152.145, -79.941, 94.855
6.73092, 63, -8.84589, -15.9936, 34.8651, -152.337, -80.4869, 95.51
6.7357, 63, -8.76635, -15.7591, 34.7146, -152.398, -80.6701, 95.723
6.74473, 64, -8.60924, -15.2891, 34.4147, -152.516, -81.0383, 96.1416
6.75178, 64, -8.45468, -14.8181, 34.1172, -152.629, -81.4089, 96.5491
6.75951, 64, -8.30258, -14.3463, 33.8202, -152.737, -81.7823, 96.946
6.76804, 64, -8.15283, -13.8743, 33.5246, -152.84, -82.1588, 97.3331
6.77647, 64, -8.00555, -13.4028, 33.2299, -152.937, -82.5382, 97.709
6.78381, 64, -7.86067, -12.9322, 32.9371, -153.03, -82.9201, 98.0734
6.79241, 65, -7.71842, -12.4633, 32.6465, -153.116, -83.3035, 98.4262
6.80041, 65, -7.57902, -11.9958, 32.3588, -153.197, -83.6879, 98.7656
6.80842, 65, -7.44277, -11.5299, 32.0753, -153.272, -84.072, 99.0912
6.81557, 65, -7.30927, -11.0652, 31.7952, -153.341, -84.4559, 99.403
6.82361, 65, -7.17878, -10.6022, 31.5195, -153.404, -84.839, 99.7002
6.83578, 66, -6.98745, -9.91358, 31.1125, -153.488, -85.4115, 100.117
6.83996, 66, -6.92477, -9.68595, 30.9789, -153.514, -85.602, 100.249
6.84787, 66, -6.80102, -9.23443, 30.7148, -153.559, -85.9819, 100.5
6.85596, 66, -6.67949, -8.78886, 30.4542, -153.6, -86.36, 100.735
6.86472, 66, -6.56033, -8.34877, 30.1985, -153.635, -86.7355, 100.953
6.8725, 67, -6.44366, -7.91466, 29.9478, -153.665, -87.1077, 101.154
6.88005, 67, -6.32992, -7.48627, 29.7029, -153.689, -87.4757, 101.337
6.88819, 67, -6.21891, -7.06394, 29.4651, -153.706, -87.839, 101.504
6.89599, 67, -6.16431, -6.8546, 29.233, -153.719, -88.1976, 101.653
6.90402, 67, -6.05715, -6.44086, 29.1191, -153.723, -88.3749, 101.784
6.91232, 68, -5.90042, -5.83165, 28.7872, -153.729, -88.9009, 101.897
6.91937, 68, -5.84916, -5.63151, 28.6791, -153.73, -89.0745, 101.948
6.92747, 68, -5.74796, -5.23506, 28.4656, -153.726, -89.4197, 102.036
6.93679, 68, -5.59935, -4.6505, 28.1528, -153.712, -89.9344, 102.133
6.94576, 68, -5.50232, -4.26731, 27.9483, -153.697, -90.276, 102.175
6.95144, 69, -5.45449, -4.07716, 27.8472, -153.688, -90.4464, 102.189
6.96205, 69, -5.31356, -3.51232, 27.5504, -153.654, -90.9569, 102.206
6.96874, 69, -5.22172, -3.14057, 27.3578, -153.625, -91.2961, 102.193
6.97546, 69, -5.17644, -2.95638, 27.2626, -153.609, -91.4654, 102.178
6.9834, 69, -5.08713, -2.59091, 27.0748, -153.574, -91.803, 102.133
6.99329, 70, -4.95624, -2.04916, 26.8013, -153.516, -92.3068, 102.024
6.9994, 70, -4.91318, -1.87077, 26.712, -153.494, -92.4739, 101.977
7.00747, 70, -4.82805, -1.51786, 26.5357, -153.448, -92.8068, 101.866
7.0184, 70, -4.70243, -0.999122, 26.2796, -153.373, -93.3021, 101.659
7.02349, 70, -4.66114, -0.828842, 26.1966, -153.346, -93.466, 101.579
7.03296, 71, -4.57933, -0.493382, 26.0331, -153.29, -93.7914, 101.307
7.04201, 71, -4.49856, -0.164193, 25.8737, -153.233, -94.2738, 101.099
7.04752, 71, -4.41884, 0.158063, 25.7196, -153.171, -94.4328, 100.988
7.05648, 71, -4.33998, 0.474159, 25.5708, -153.108, -94.7477, 100.749
7.06355, 71, -4.2619, 0.784302, 25.4268, -153.042, -95.0591, 100.49
7.0724, 71, -4.18468, 1.08761, 25.2872, -152.975, -95.3667, 100.211
7.0794, 72, -4.10805, 1.3848, 25.152, -152.906, -95.6709, 99.912
7.08839, 72, -4.03158, 1.67516, 25.0205, -152.835, -95.9721, 99.5919
7.09541, 72, -3.95538, 1.95941, 24.8923, -152.764, -96.2708, 99.2509
7.1034, 72, -3.87922, 2.23802, 24.7672, -152.691, -96.5672, 98.8889
7.11239, 72, -3.80312, 2.51009, 24.6451, -152.618, -96.8612, 98.5052
7.12256, 73, -3.72718, 2.77644, 24.5261, -152.544, -97.1527, 98.0991
7.12841, 73, -3.65107, 3.03657, 24.4104, -152.47, -97.4418, 97.6709
7.13877, 73, -3.53654, 3.41441, 24.244, -152.361, -97.8698, 96.9875
7.14352, 73, -3.49815, 3.53724, 24.1905, -152.324, -98.0108, 96.7493
7.1514, 73, -3.42113, 3.77742, 24.0865, -152.252, -98.29, 96.2575
7.15939, 74, -3.34354, 4.00901, 23.9866, -152.181, -98.5647, 95.7472
7.16915, 74, -3.26528, 4.23224, 23.8907, -152.112, -98.8342, 95.2197
7.17647, 74, -3.18635, 4.44689, 23.799, -152.044, -99.098, 94.6778
7.18794, 74, -3.06673, 4.75051, 23.6694, -151.946, -99.4812, 93.842
7.19158, 74, -3.02646, 4.84691, 23.6283, -151.915, -99.6054, 93.5577
7.19986, 75, -2.94525, 5.03276, 23.5494, -151.853, -99.8476, 92.9817
7.20841, 75, -2.86303, 5.20848, 23.4745, -151.796, -100.081, 92.3973
7.21554, 75, -2.77977, 5.37321, 23.4034, -151.741, -100.306, 91.8051
7.22431, 75, -2.69559, 5.52731, 23.3361, -151.689, -100.522, 91.2046
7.23144, 75, -2.61051, 5.67075, 23.2727, -151.641, -100.729, 90.5969
7.23947, 76, -2.52443, 5.80296, 23.2135, -151.595, -100.926, 89.9817
7.24761, 76, -2.4374, 5.9238, 23.1586, -151.553, -101.115, 89.3579
7.25551, 76, -2.34957, 6.03289, 23.1081, -151.516, -101.294, 88.7249
7.26795, 76, -2.21641, 6.17347, 23.0407, -151.467, -101.544, 87.7617
7.27164, 76, -2.17158, 6.21402, 23.0207, -151.452, -101.622, 87.4375
7.28077, 77, -2.0813, 6.28529, 22.9845, -151.426, -101.77, 86.7854
7.28819, 77, -1.99017, 6.3433, 22.9536, -151.405, -101.905, 86.1321
7.29564, 77, -1.89808, 6.38782, 22.9283, -151.387, -102.026, 85.4807
7.30422, 77, -1.80512, 6.41806, 22.9088, -151.374, -102.133, 84.8321
7.3115, 77, -1.71133, 6.43417, 22.8951, -151.364, -102.225, 84.1869
7.31991, 78, -1.61676, 6.43588, 22.8873, -151.358, -102.303, 83.5469
7.32846, 78, -1.52149, 6.42246, 22.8849, -151.354, -102.364, 82.9109
7.33564, 78, -1.42556, 6.39368, 22.8882, -151.354, -102.411, 82.2785
7.34466, 78, -1.32933, 6.3493, 22.8974, -151.356, -102.441, 81.6505
7.3518, 78, -1.23272, 6.2888, 22.9127, -151.363, -102.456, 81.0275
7.35989, 78, -1.13594, 6.2122, 22.9348, -151.373, -102.455, 80.4103
7.36902, 79, -1.03909, 6.1195, 22.9637, -151.386, -102.436, 79.7995
7.37682, 79, -0.942063, 6.01066, 23.0001, -151.402, -102.399, 79.1971
7.3847, 79, -0.845075, 5.88565, 23.0439, -151.421, -102.345, 78.6046
7.3922, 79, -0.748096, 5.7441, 23.0952, -151.442, -102.273, 78.0213
7.39998, 79, -0.651057, 5.58605, 23.1541, -151.467, -102.183, 77.448
7.40911, 80, -0.553927, 5.4114, 23.2206, -151.493, -102.075, 76.8857
7.41786, 80, -0.456779, 5.22025, 23.2949, -151.52, -101.948, 76.334
7.42491, 80, -0.408253, 5.11847, 23.335, -151.549, -101.803, 75.7917
7.4325, 80, -0.263039, 4.78692, 23.4678, -151.58, -101.639, 75.2589
7.43938, 80, -0.214679, 4.66722, 23.5163, -151.597, -101.55, 74.9959
7.44953, 81, -0.0697005, 4.2823, 23.6749, -151.647, -101.253, 74.2223
7.45543, 81, -0.0214927, 4.14559, 23.7322, -151.664, -101.145, 73.9687
7.46338, 81, 0.0747787, 3.85923, 23.8539, -151.699, -100.914, 73.4688
7.47152, 81, 0.170859, 3.55654, 23.9851, -151.736, -100.663, 72.9782
7.48356, 82, 0.314487, 3.06969, 24.2006, -151.792, -100.251, 72.2607
7.48742, 82, 0.362277, 2.899, 24.2772, -151.81, -100.104, 72.0263
7.49697, 82, 0.50531, 2.36203, 24.5211, -151.866, -99.635, 71.3369
7.50337, 82, 0.552824, 2.17522, 24.6071, -151.885, -99.4691, 71.112
7.51296, 82, 0.695108, 1.59008, 24.8796, -151.941, -98.9449, 70.4518
7.52137, 82, 0.789805, 1.1795, 25.0729, -151.977, -98.5736, 70.0248
7.5276, 83, 0.837149, 0.968374, 25.1729, -151.995, -98.3819, 69.8152
7.53539, 83, 0.931871, 0.535464, 25.3804, -152.03, -97.9861, 69.4032
7.5499, 83, 1.07399, -0.141216, 25.7108, -152.081, -97.3631, 68.8051
7.55195, 83, 1.12143, -0.374198, 25.8252, -152.097, -97.1476, 68.6106
7.56042, 83, 1.21636, -0.850615, 26.0609, -152.128, -96.7053, 68.2293
7.56759, 84, 1.31134, -1.34116, 26.3066, -152.158, -96.2481, 67.858
7.57639, 84, 1.40667, -1.84522, 26.5618, -152.188, -95.7753, 67.4951
7.58346, 84, 1.5022, -2.36244, 26.8276, -152.215, -95.2877, 67.1395
7.59141, 84, 1.59804, -2.8935, 27.1037, -152.241, -94.7841, 66.7917
7.60068, 84, 1.6942, -3.43791, 27.3899, -152.265, -94.2655, 66.4508
7.61145, 85, 1.83924, -4.27941, 27.8393, -152.298, -93.4594, 65.9521
7.61542, 85, 1.88768, -4.56628, 27.994, -152.308, -93.1832, 65.7898
7.62349, 85, 1.98488, -5.14811, 28.3111, -152.327, -92.6197, 65.4712
7.63145, 85, 2.08243, -5.74025, 28.6371, -152.344, -92.0441, 65.16
7.63938, 85, 2.18041, -6.34153, 28.9725, -152.358, -91.4583, 64.8574
7.65196, 86, 2.3286, -7.25801, 29.4911, -152.374, -90.5601, 64.4212
7.65652, 86, 2.37833, -7.56711, 29.6679, -152.378, -90.2559, 64.2808
7.66376, 86, 2.47858, -8.18984, 30.0267, -152.383, -89.6408, 64.0076
7.67138, 86, 2.57988, -8.81877, 30.392, -152.386, -89.0176, 63.7453
7.67952, 86, 2.68185, -9.45295, 30.7626, -152.387, -88.3903, 63.4947
7.69117, 86, 2.83702, -10.4121, 31.3286, -152.382, -87.4403, 63.1402
7.69538, 87, 2.88922, -10.7337, 31.5201, -152.378, -87.1208, 63.0279
7.70457, 87, 2.99408, -11.3789, 31.906, -152.368, -86.4781, 62.8124
7.71138, 87, 3.10008, -12.0269, 32.2964, -152.355, -85.8305, 62.6094
7.71946, 87, 3.20685, -12.6773, 32.6916, -152.337, -85.1786, 62.4191
7.72737, 87, 3.31429, -13.3304, 33.0922, -152.315, -84.5231, 62.2415
7.73543, 88, 3.4225, -13.9863, 33.4981, -152.29, -83.8619, 62.077
7.74354, 88, 3.53118, -14.6447, 33.9087, -152.261, -83.1954, 61.9255
7.75149, 88, 3.64036, -15.3045, 34.3246, -152.227, -82.5235, 61.7876
7.75966, 88, 3.74998, -15.9643, 34.7453, -152.189, -81.847, 61.6641
7.76836, 88, 3.8599, -16.6233, 35.1698, -152.146, -81.1685, 61.5555
7.7755, 89, 3.97012, -17.2801, 35.5975, -152.099, -80.4888, 61.4638
7.78841, 89, 4.13588, -18.2596, 36.2409, -152.017, -79.4693, 61.3598
7.79168, 89, 4.19139, -18.5845, 36.4555, -151.988, -79.1294, 61.3345
7.80058, 89, 4.30279, -19.2318, 36.8847, -151.926, -78.4509, 61.2988
7.80742, 89, 4.41435, -19.8744, 37.3124, -151.857, -77.7781, 61.2829
7.81554, 90, 4.52619, -20.5118, 37.7384, -151.784, -77.1093, 61.2873
7.82365, 90, 4.63875, -21.1447, 38.164, -151.705, -76.4417, 61.3157
7.83158, 90, 4.75147, -21.7729, 38.5891, -151.621, -75.775, 61.3672
7.8403, 90, 4.86389, -22.3967, 39.0138, -151.531, -75.1098, 61.442
7.84802, 90, 4.97593, -23.0163, 39.439, -151.434, -74.4468, 61.5428
7.85601, 91, 5.0876, -23.6328, 39.8643, -151.332, -73.7838, 61.6697
7.86445, 91, 5.199, -24.2455, 40.2898, -151.222, -73.1201, 61.8249
7.87193, 91, 5.30984, -24.8535, 40.7156, -151.106, -72.4561, 62.009
7.88078, 91, 5.42009, -25.4567, 41.1408, -150.983, -71.7912, 62.2226
7.89289, 91, 5.58428, -26.3484, 41.7758, -150.786, -70.7962, 62.6001
7.89643, 92, 5.63889, -26.6418, 41.9866, -150.718, -70.4658, 62.7418
7.90395, 92, 5.69355, -26.9334, 42.1969, -150.576, -69.8068, 63.0484
7.91192, 92, 5.80321, -27.5098, 42.6142, -150.503, -69.4787, 63.2133
7.92123, 92, 5.96897, -28.357, 43.2305, -150.278, -68.5001, 63.7543
7.92738, 92, 6.02453, -28.6344, 43.4332, -150.2, -68.1757, 63.9504
7.93536, 92, 6.13645, -29.1804, 43.8334, -150.043, -67.5327, 64.3654
7.94754, 93, 6.30695, -29.9778, 44.4209, -149.802, -66.5805, 65.0472
7.95133, 93, 6.36476, -30.2381, 44.6135, -149.721, -66.2651, 65.2901
7.96069, 93, 6.5416, -31.0047, 45.1824, -149.476, -65.3251, 66.0666
7.96738, 93, 6.60162, -31.2565, 45.3694, -149.394, -65.0132, 66.3425
7.97536, 93, 6.72338, -31.7559, 45.7397, -149.23, -64.3899, 66.9221
7.98338, 94, 6.84734, -32.25, 46.1068, -149.065, -63.7659, 67.5431
7.99288, 94, 7.03694, -32.9823, 46.6532, -148.816, -62.8202, 68.563
8.00195, 94, 7.16541, -33.4623, 47.0157, -148.65, -62.1817, 69.3087
8.00891, 94, 7.29617, -33.9356, 47.3761, -148.486, -61.537, 70.1053
8.01703, 94, 7.43018, -34.4016, 47.7321, -148.326, -60.8878, 70.9546
8.02333, 95, 7.49871, -34.6313, 47.9074, -148.248, -60.5634, 71.3993
8.03145, 95, 7.63963, -35.0829, 48.2519, -148.1, -59.9168, 72.3222
8.04105, 95, 7.78654, -35.5243, 48.5856, -147.964, -59.2748, 73.7831
8.04738, 95, 7.93996, -35.9527, 48.9073, -147.842, -58.64, 74.289
8.05637, 95, 8.1004, -36.3636, 49.2139, -147.737, -58.013, 75.3266
8.06336, 95, 8.2677, -36.7544, 49.5053, -147.649, -57.3955, 76.3991
8.07239, 96, 8.44196, -37.1242, 49.7799, -147.58, -56.792, 77.5015
8.07936, 96, 8.6223, -37.4711, 50.0378, -147.533, -56.2021, 78.6339
8.08738, 96, 8.808, -37.7936, 50.2787, -147.505, -55.6266, 79.7889
8.09742, 96, 8.99853, -38.0904, 50.5002, -147.498, -55.0685, 80.9611
8.10336, 96, 9.19253, -38.3624, 50.7023, -147.511, -54.5304, 82.1446
8.11143, 97, 9.3884, -38.609, 50.885, -147.547, -54.0151, 83.3385
8.11936, 97, 9.58467, -38.8302, 51.0471, -147.604, -53.5244, 84.5366
8.12838, 97, 9.78033, -39.0269, 51.1889, -147.681, -53.0602, 85.7296
8.13643, 97, 9.97455, -39.1989, 51.3111, -147.775, -52.6248, 86.9101
8.14337, 97, 10.1662, -39.3449, 51.4135, -147.885, -52.2193, 88.07
8.15149, 97, 10.3543, -39.4657, 51.497, -148.007, -51.8443, 89.2043
8.15932, 98, 10.5386, -39.5611, 51.562, -148.14, -51.5003, 90.305
8.16736, 98, 10.7204, -39.6323, 51.6092, -148.283, -51.1865, 91.3724
8.17536, 98, 10.9005, -39.6808, 51.6388, -148.436, -50.9009, 92.4142
8.18337, 98, 11.0792, -39.7061, 51.6511, -148.599, -50.6397, 93.4443
8.19144, 98, 11.2556, -39.7081, 51.6468, -148.775, -50.3997, 94.4765
8.19936, 98, 11.4308, -39.6867, 51.6252, -148.964, -50.1785, 95.5221
8.20736, 98, 11.6063, -39.6414, 51.586, -149.166, -49.9763, 96.5893
8.21544, 99, 11.7815, -39.5728, 51.529, -149.382, -49.7944, 97.6772
8.22337, 99, 11.9553, -39.4816, 51.4536, -149.61, -49.6354, 98.7825
8.23151, 99, 12.1264, -39.3676, 51.3598, -149.846, -49.5026, 99.8937
8.23942, 99, 12.2939, -39.2314, 51.2478, -150.088, -49.399, 101.001
8.24746, 99, 12.4562, -39.0729, 51.1183, -150.332, -49.3263, 102.093
8.25552, 99, 12.6113, -38.8923, 50.9728, -150.575, -49.2843, 103.16
8.26382, 100, 12.7579, -38.6878, 50.8118, -150.815, -49.2737, 104.196
8.27159, 100, 12.8957, -38.459, 50.6342, -151.05, -49.295, 105.204
8.27948, 100, 13.0244, -38.2074, 50.4394, -151.28, -49.348, 106.184
8.28736, 100, 13.1445, -37.9337, 50.2283, -151.503, -49.4321, 107.138
8.29625, 100, 13.2566, -37.6393, 49.9997, -151.721, -49.5475, 108.07
8.3034, 100, 13.3605, -37.322, 49.7526, -151.932, -49.6937, 108.979
8.31164, 101, 13.4563, -36.9809, 49.4889, -152.136, -49.8701, 109.868
8.31953, 101, 13.5441, -36.615, 49.208, -152.33, -50.0761, 110.731
8.32747, 101, 13.6242, -36.2236, 48.9103, -152.516, -50.3118, 111.573
8.33563, 101, 13.6961, -35.8072, 48.5949, -152.693, -50.5773, 112.391
8.35298, 101, 13.8146, -34.905, 47.9115, -153.015, -51.2019, 113.961
8.35426, 101, 13.8146, -34.905, 47.9115, -153.015, -51.2019, 113.961
8.3604, 102, 13.8607, -34.4205, 47.5444, -153.159, -51.5627, 114.709
8.36791, 102, 13.8973, -33.9127, 47.1603, -153.291, -51.9558, 115.436
8.37675, 102, 13.9245, -33.381, 46.7603, -153.41, -52.3811, 116.138
8.38394, 102, 13.9426, -32.8267, 46.3458, -153.515, -52.8383, 116.813
8.39252, 102, 13.9524, -32.2517, 45.9177, -153.607, -53.3249, 117.463
8.40048, 103, 13.9547, -31.6558, 45.476, -153.684, -53.8387, 118.087
8.4081, 103, 13.9532, -31.3506, 45.2502, -153.749, -54.3771, 118.683
8.41601, 103, 13.9452, -30.7266, 44.7902, -153.777, -54.9373, 119.254
8.42336, 103, 13.9311, -30.0862, 44.3196, -153.821, -55.2248, 119.53
8.43137, 103, 13.9113, -29.431, 43.8395, -153.853, -55.813, 120.063
8.4394, 103, 13.8862, -28.7618, 43.3519, -153.874, -56.418, 120.57
8.44731, 104, 13.8567, -28.0808, 42.858, -153.884, -57.0373, 121.051
8.45534, 104, 13.823, -27.3897, 42.3594, -153.885, -57.6693, 121.509
8.46346, 104, 13.7855, -26.6903, 41.8568, -153.874, -58.3156, 121.946
8.47135, 104, 13.7444, -25.9834, 41.3509, -153.855, -58.9767, 122.362
8.47935, 104, 13.7008, -25.2717, 40.8431, -153.827, -59.6501, 122.761
8.4889, 104, 13.632, -24.1984, 40.0791, -153.771, -60.6777, 123.331
8.49535, 104, 13.6083, -23.8392, 39.8243, -153.748, -61.0234, 123.515
8.50527, 104, 13.5345, -22.7578, 39.0607, -153.674, -62.0696, 124.057
8.51135, 104, 13.5094, -22.3967, 38.8067, -153.646, -62.4202, 124.234
8.52096, 104, 13.4328, -21.3119, 38.047, -153.556, -63.4751, 124.762
8.52901, 104, 13.3808, -20.5888, 37.5422, -153.491, -64.1793, 125.112
8.53534, 104, 13.3548, -20.2274, 37.2904, -153.457, -64.5314, 125.286
8.54343, 104, 13.3025, -19.5041, 36.7883, -153.385, -65.237, 125.633
8.55332, 104, 13.2499, -18.7805, 36.2882, -153.31, -65.9442, 126.152
8.55935, 104, 13.1975, -18.0568, 35.79, -153.23, -66.6522, 126.325
8.56742, 104, 13.1453, -17.3327, 35.2944, -153.147, -67.361, 126.67
8.5764, 104, 13.0934, -16.6082, 34.8008, -153.06, -68.0687, 127.014
8.58335, 104, 13.0418, -15.8838, 34.3092, -152.968, -68.7773, 127.358
8.59142, 104, 12.9907, -15.1592, 33.8198, -152.873, -69.4882, 127.701
8.59936, 104, 12.9397, -14.4342, 33.3327, -152.774, -70.1998, 128.045
8.60735, 104, 12.8891, -13.7089, 32.8483, -152.671, -70.9107, 128.388
8.61546, 104, 12.8389, -12.9835, 32.3664, -152.564, -71.621, 128.732
8.62336, 104, 12.789, -12.2579, 31.8871, -152.454, -72.3333, 129.077
8.63139, 104, 12.7395, -11.5328, 31.4105, -152.339, -73.0464, 129.421
8.63942, 104, 12.6905, -10.8076, 30.9363, -152.221, -73.7595, 129.767
8.64734, 104, 12.6417, -10.0821, 30.465, -152.099, -74.4726, 130.113
8.65539, 104, 12.5932, -9.35665, 29.9968, -151.972, -75.1858, 130.459
8.66343, 104, 12.5452, -8.63085, 29.5317, -151.842, -75.9002, 130.807
8.67134, 104, 12.4977, -7.90451, 29.0696, -151.708, -76.6149, 131.156
8.67937, 104, 12.4505, -7.1787, 28.6109, -151.569, -77.3307, 131.506
8.68748, 104, 12.4041, -6.45327, 28.1553, -151.426, -78.0465, 131.857
8.69534, 104, 12.3582, -5.72839, 27.7033, -151.279, -78.7606, 132.209
8.70335, 104, 12.3128, -5.00436, 27.255, -151.128, -79.4753, 132.562
8.71141, 104, 12.2683, -4.28145, 26.8109, -150.973, -80.1913, 132.917
8.71935, 104, 12.225, -3.56055, 26.3716, -150.814, -80.907, 133.273
8.72735, 104, 12.1826, -2.84421, 25.9371, -150.651, -81.6189, 133.629
8.73546, 104, 12.1415, -2.13388, 25.5085, -150.484, -82.3268, 133.986
8.74339, 104, 12.1017, -1.43087, 25.0868, -150.314, -83.0316, 134.342
8.75144, 104, 12.0628, -0.736222, 24.6737, -150.141, -83.7294, 134.696
8.75952, 104, 12.025, -0.051282, 24.2702, -149.967, -84.4172, 135.048
8.76747, 104, 11.9882, 0.623091, 23.8774, -149.791, -85.0925, 135.395
8.77547, 104, 11.9523, 1.28471, 23.4972, -149.615, -85.7531, 135.737
8.78352, 104, 11.9178, 1.93351, 23.1292, -149.438, -86.3998, 136.074
8.79184, 104, 11.8844, 2.5672, 22.7741, -149.263, -87.0309, 136.404
8.80037, 104, 11.8517, 3.18454, 22.4312, -149.088, -87.6457, 136.728
8.80745, 104, 11.8206, 3.78588, 22.1019, -148.914, -88.2446, 137.044
8.8154, 104, 11.7907, 4.37017, 21.785, -148.741, -88.8257, 137.355
8.82361, 104, 11.762, 4.93787, 21.4806, -148.569, -89.3893, 137.658
8.83156, 104, 11.7349, 5.48859, 21.1875, -148.4, -89.9376, 137.954
8.83962, 104, 11.7087, 6.02193, 20.9065, -148.232, -90.4698, 138.243
8.84764, 104, 11.6837, 6.53848, 20.6375, -148.067, -90.9854, 138.525
8.85577, 104, 11.6599, 7.03814, 20.3799, -147.904, -91.4848, 138.8
8.86382, 104, 11.6372, 7.52084, 20.134, -147.743, -91.9666, 139.067
8.87259, 104, 11.6157, 7.98725, 19.8987, -147.586, -92.4315, 139.326
8.87994, 104, 11.5954, 8.43688, 19.6744, -147.431, -92.8801, 139.578
8.88863, 104, 11.5763, 8.86922, 19.4613, -147.281, -93.3119, 139.822
8.89592, 104, 11.5582, 9.28412, 19.2582, -147.133, -93.7271, 140.057
8.90449, 104, 11.5412, 9.68186, 19.0655, -146.99, -94.125, 140.284
8.91194, 104, 11.5332, 9.87388, 18.9733, -146.921, -94.5056, 140.502
8.91933, 104, 11.5178, 10.2443, 18.7969, -146.784, -94.6891, 140.608
8.92842, 104, 11.4967, 10.7639, 18.5513, -146.589, -95.2117, 140.911
8.93536, 104, 11.4902, 10.9276, 18.4747, -146.527, -95.3763, 141.006
8.94336, 104, 11.4779, 11.2398, 18.33, -146.408, -95.6903, 141.189
8.95139, 104, 11.4666, 11.5312, 18.1959, -146.295, -95.9839, 141.361
8.95933, 104, 11.4565, 11.8022, 18.0722, -146.189, -96.2564, 141.521
8.96737, 104, 11.4472, 12.0517, 17.9592, -146.091, -96.5074, 141.669
8.97709, 104, 11.4346, 12.3863, 17.8094, -145.958, -96.8429, 141.868
8.98485, 104, 11.4271, 12.5832, 17.7225, -145.88, -97.0389, 141.985
8.99285, 104, 11.4206, 12.7587, 17.646, -145.81, -97.2128, 142.089
9.00119, 104, 11.4146, 12.9136, 17.5794, -145.749, -97.3651, 142.18
9.00743, 104, 11.4119, 12.9836, 17.5498, -145.722, -97.4328, 142.221
9.01534, 104, 11.4068, 13.1091, 17.4977, -145.673, -97.5524, 142.292
9.02495, 104, 11.3999, 13.2626, 17.4362, -145.616, -97.6935, 142.377
9.03316, 104, 11.3959, 13.3434, 17.4051, -145.587, -97.7645, 142.419
9.03933, 104, 11.394, 13.3782, 17.3924, -145.575, -97.7933, 142.437
9.04887, 104, 11.3905, 13.4375, 17.3721, -145.555, -97.8395, 142.465
9.05642, 104, 11.3874, 13.4845, 17.3574, -145.541, -97.8727, 142.485
9.06333, 104, 11.3849, 13.5204, 17.3473, -145.532, -97.8958, 142.498
9.0714, 104, 11.3828, 13.5471, 17.3408, -145.525, -97.9111, 142.507
9.0804, 104, 11.3812, 13.5668, 17.3368, -145.522, -97.92, 142.511
9.08733, 104, 11.3799, 13.5806, 17.3346, -145.52, -97.9249, 142.514
9.09541, 104, 11.379, 13.5899, 17.3334, -145.519, -97.9274, 142.515
9.10332, 105, 11.3783, 13.5961, 17.3328, -145.518, -97.9285, 142.516
9.11133, 105, 11.3778, 13.6002, 17.3325, -145.518, -97.929, 142.516
9.1194, 105, 11.3774, 13.603, 17.3324, -145.518, -97.9293, 142.516
9.12733, 105, 11.3771, 13.6051, 17.3324, -145.518, -97.9294, 142.516
9.13537, 105, 11.3768, 13.607, 17.3323, -145.518, -97.9294, 142.516
9.1434, 105, 11.3767, 13.6086, 17.3323, -145.518, -97.9295, 142.516
9.15133, 105, 11.3766, 13.61, 17.3323, -145.518, -97.9295, 142.516
9.15938, 105, 11.3765, 13.6112, 17.3323, -145.518, -97.9294, 142.516
9.16739, 105, 11.3764, 13.6123, 17.3324, -145.518, -97.9293, 142.516
9.17534, 105, 11.3763, 13.6131, 17.3324, -145.518, -97.9291, 142.516
9.18333, 105, 11.3763, 13.6137, 17.3324, -145.518, -97.929, 142.516
9.1914, 105, 11.3763, 13.6141, 17.3324, -145.518, -97.9288, 142.516
9.19933, 105, 11.3763, 13.6145, 17.3325, -145.518, -97.9288, 142.516
9.20733, 105, 11.3763, 13.6146, 17.3325, -145.518, -97.9286, 142.516
9.21541, 105, 11.3763, 13.6147, 17.3325, -145.518, -97.9285, 142.516
9.22334, 105, 11.3763, 13.6147, 17.3325, -145.518, -97.9283, 142.516
