hehonglu123/Motion-Primitive-Planning/ILC/recorded_data/realrobot/wood/iteration_18/run_1.csv
timestamp, cmd_num, J1, J2, J3, J4, J5, J6
0.000359, -1, 11.3761, 13.6155, 17.3341, -145.52, -97.9262, 142.517
0.003034, -1, 11.3761, 13.6155, 17.3341, -145.52, -97.9262, 142.517
0.007949, -1, 11.3761, 13.6155, 17.3341, -145.52, -97.9262, 142.517
0.028289, -1, 11.3762, 13.6155, 17.3341, -145.52, -97.9262, 142.517
0.030954, -1, 11.3762, 13.6155, 17.3341, -145.52, -97.9262, 142.517
0.032297, -1, 11.3762, 13.6155, 17.3341, -145.52, -97.9262, 142.517
0.039799, -1, 11.3761, 13.6155, 17.3341, -145.52, -97.9262, 142.517
0.047856, -1, 11.3761, 13.6155, 17.3341, -145.52, -97.9262, 142.517
0.05581, -1, 11.3756, 13.6155, 17.3341, -145.52, -97.9262, 142.517
0.191696, -1, 10.1171, 13.2818, 17.4159, -145.914, -97.792, 140.237
0.193217, -1, 10.1171, 13.2818, 17.4159, -145.914, -97.792, 140.237
0.194509, -1, 10.1171, 13.2818, 17.4159, -145.914, -97.792, 140.237
0.19647, -1, 10.0413, 13.2614, 17.4209, -145.937, -97.7836, 140.099
0.198617, -1, 10.0413, 13.2614, 17.4209, -145.937, -97.7836, 140.099
0.20134, -1, 9.96477, 13.2407, 17.426, -145.961, -97.7751, 139.959
0.202547, -1, 9.96477, 13.2407, 17.426, -145.961, -97.7751, 139.959
0.207579, -1, 9.88768, 13.2201, 17.436, -146.01, -97.7578, 139.68
0.20904, -1, 9.81014, 13.1994, 17.436, -146.01, -97.7578, 139.68
0.210339, -1, 9.81014, 13.1994, 17.436, -146.01, -97.7578, 139.68
0.212326, -1, 9.73235, 13.1787, 17.4411, -146.034, -97.7491, 139.54
0.213649, -1, 9.73235, 13.1787, 17.4411, -146.034, -97.7491, 139.54
0.214838, -1, 9.73235, 13.1787, 17.4411, -146.034, -97.7491, 139.54
0.217028, -1, 9.65456, 13.158, 17.4462, -146.058, -97.7405, 139.401
0.218236, -1, 9.65456, 13.158, 17.4462, -146.058, -97.7405, 139.401
0.22234, -1, 9.57689, 13.1373, 17.4512, -146.081, -97.732, 139.261
0.225108, -1, 9.49934, 13.1167, 17.4561, -146.105, -97.7235, 139.121
0.226298, -1, 9.49934, 13.1167, 17.4561, -146.105, -97.7235, 139.121
0.228428, -1, 9.42189, 13.0961, 17.4611, -146.129, -97.715, 138.981
0.229726, -1, 9.42189, 13.0961, 17.4611, -146.129, -97.715, 138.981
0.231582, -1, 9.42189, 13.0961, 17.4611, -146.129, -97.715, 138.981
0.233013, -1, 9.34455, 13.0755, 17.466, -146.154, -97.7066, 138.842
0.241732, -1, 9.19017, 13.0344, 17.476, -146.201, -97.6899, 138.562
0.249017, -1, 9.03625, 12.9933, 17.4861, -146.249, -97.6732, 138.282
0.256068, -1, 8.88252, 12.9523, 17.4962, -146.298, -97.6563, 138.002
0.262717, -1, 8.80571, 12.9317, 17.5013, -146.322, -97.6478, 137.862
0.273071, -1, 8.57594, 12.8701, 17.5165, -146.393, -97.6217, 137.442
0.27879, -1, 8.49957, 12.8494, 17.5215, -146.417, -97.613, 137.302
0.288293, -1, 8.27027, 12.7875, 17.5368, -146.489, -97.5869, 136.882
0.296873, -1, 8.11684, 12.7459, 17.547, -146.537, -97.5699, 136.602
0.304357, -1, 7.96289, 12.7043, 17.5572, -146.585, -97.553, 136.321
0.31254, -1, 7.88569, 12.6834, 17.5623, -146.609, -97.5363, 136.041
0.321031, -1, 7.73098, 12.6417, 17.5724, -146.657, -97.528, 135.901
0.326717, -1, 7.57605, 12.6, 17.5826, -146.705, -97.5113, 135.621
0.336842, -1, 7.34353, 12.5377, 17.5978, -146.777, -97.4857, 135.2
0.344735, -1, 7.18857, 12.4962, 17.608, -146.825, -97.4683, 134.92
0.351729, -1, 7.11104, 12.4754, 17.6132, -146.849, -97.4596, 134.78
0.359732, -1, 6.95584, 12.434, 17.6235, -146.897, -97.4424, 134.5
0.369085, -1, 6.72333, 12.3721, 17.639, -146.969, -97.4171, 134.079
0.375727, -1, 6.64597, 12.3515, 17.6443, -146.993, -97.4087, 133.939
0.383746, -1, 6.49141, 12.3102, 17.6547, -147.042, -97.392, 133.658
0.393045, -1, 6.25995, 12.2482, 17.6702, -147.113, -97.3667, 133.238
0.398802, -1, 6.18284, 12.2274, 17.6754, -147.138, -97.3582, 133.097
0.407732, -1, 6.02846, 12.186, 17.6856, -147.186, -97.341, 132.816
0.417864, -1, 5.79656, 12.1237, 17.7011, -147.257, -97.3146, 132.395
0.423801, -1, 5.71919, 12.1029, 17.7062, -147.282, -97.3058, 132.255
0.431728, -1, 5.5643, 12.0612, 17.7165, -147.33, -97.2885, 131.974
0.439792, -1, 5.40924, 12.0196, 17.7268, -147.378, -97.2716, 131.693
0.447802, -1, 5.25387, 11.9779, 17.737, -147.426, -97.2547, 131.412
0.456764, -1, 5.0982, 11.9362, 17.7474, -147.474, -97.238, 131.131
0.463707, -1, 4.94247, 11.8946, 17.7579, -147.522, -97.2211, 130.85
0.471813, -1, 4.78675, 11.853, 17.7684, -147.57, -97.204, 130.569
0.479724, -1, 4.63098, 11.8114, 17.7788, -147.619, -97.1866, 130.288
0.487724, -1, 4.47527, 11.77, 17.7893, -147.667, -97.1692, 130.007
0.495706, -1, 4.31973, 11.7285, 17.7996, -147.715, -97.1518, 129.726
0.503759, -1, 4.16444, 11.687, 17.8101, -147.764, -97.1347, 129.445
0.511788, -1, 4.00955, 11.6455, 17.8205, -147.812, -97.1178, 129.164
0.644554, -1, 1.44146, 10.9572, 17.9922, -148.609, -96.835, 124.517
0.645831, -1, 1.44146, 10.9572, 17.9922, -148.609, -96.835, 124.517
0.647829, -1, 1.36353, 10.9364, 17.9974, -148.634, -96.8265, 124.376
0.649137, -1, 1.36353, 10.9364, 17.9974, -148.634, -96.8265, 124.376
0.651197, -1, 1.36353, 10.9364, 17.9974, -148.634, -96.818, 124.234
0.652677, -1, 1.28563, 10.9156, 18.0026, -148.658, -96.818, 124.234
0.653958, -1, 1.28563, 10.9156, 18.0026, -148.658, -96.818, 124.234
0.657844, -1, 1.2078, 10.8947, 18.0078, -148.682, -96.8096, 124.093
0.661482, -1, 1.13006, 10.8738, 18.013, -148.706, -96.8012, 123.952
0.663371, -1, 1.0524, 10.8529, 18.0181, -148.73, -96.7927, 123.811
0.664818, -1, 1.0524, 10.8529, 18.0181, -148.73, -96.7927, 123.811
0.666017, -1, 1.0524, 10.8529, 18.0181, -148.73, -96.7927, 123.811
0.668026, -1, 0.974822, 10.832, 18.0233, -148.755, -96.7843, 123.669
0.669231, -1, 0.974822, 10.832, 18.0233, -148.755, -96.7843, 123.669
0.671281, -1, 0.974822, 10.8112, 18.0285, -148.779, -96.7757, 123.528
0.673546, -1, 0.897338, 10.8112, 18.0285, -148.779, -96.7757, 123.528
0.675368, -1, 0.81991, 10.7903, 18.0337, -148.803, -96.767, 123.387
0.676818, -1, 0.81991, 10.7903, 18.0337, -148.803, -96.767, 123.387
0.67802, -1, 0.81991, 10.7903, 18.0337, -148.803, -96.767, 123.387
0.680147, -1, 0.742517, 10.7694, 18.0389, -148.827, -96.7583, 123.246
0.681349, -1, 0.742517, 10.7694, 18.0389, -148.827, -96.7583, 123.246
0.687997, -1, 0.587813, 10.7275, 18.0493, -148.876, -96.7406, 122.963
0.695709, -1, 0.433051, 10.6858, 18.0597, -148.924, -96.723, 122.681
0.703734, -1, 0.277934, 10.6439, 18.0701, -148.972, -96.7058, 122.398
0.711845, -1, 0.122423, 10.602, 18.0806, -149.021, -96.6888, 122.115
0.719863, -1, -0.0335129, 10.5601, 18.0912, -149.07, -96.6719, 121.833
0.727811, -1, -0.189896, 10.5183, 18.1017, -149.118, -96.6552, 121.55
0.736014, -1, -0.346459, 10.4764, 18.1122, -149.167, -96.6384, 121.267
0.74271, -1, -0.424881, 10.4554, 18.1174, -149.191, -96.6299, 121.126
0.752116, -1, -0.660704, 10.3927, 18.133, -149.263, -96.6039, 120.702
0.758708, -1, -0.739338, 10.3717, 18.1382, -149.288, -96.5952, 120.56
0.76815, -1, -0.975484, 10.3089, 18.1538, -149.36, -96.5692, 120.136
0.776243, -1, -1.13268, 10.2671, 18.1642, -149.409, -96.5521, 119.853
0.784289, -1, -1.2898, 10.2252, 18.1745, -149.458, -96.5352, 119.57
0.792325, -1, -1.44667, 10.1833, 18.1849, -149.506, -96.5185, 119.286
0.800314, -1, -1.60326, 10.1415, 18.1954, -149.555, -96.5016, 119.003
0.808346, -1, -1.7594, 10.0996, 18.2059, -149.604, -96.4846, 118.72
0.81634, -1, -1.83733, 10.0787, 18.2111, -149.628, -96.4672, 118.436
0.824268, -1, -1.99292, 10.0368, 18.2216, -149.676, -96.4584, 118.153
0.831706, -1, -2.14812, 9.99489, 18.232, -149.725, -96.4407, 118.011
0.839712, -1, -2.30322, 9.95302, 18.2424, -149.774, -96.4233, 117.728
0.84777, -1, -2.45862, 9.91109, 18.2528, -149.822, -96.4062, 117.444
0.855804, -1, -2.61429, 9.86909, 18.2633, -149.871, -96.3892, 117.16
0.863699, -1, -2.77029, 9.82715, 18.2737, -149.92, -96.3724, 116.876
0.871772, -1, -2.92669, 9.78517, 18.2841, -149.968, -96.3556, 116.593
0.879704, -1, -3.08347, 9.74319, 18.2944, -150.017, -96.3385, 116.309
0.887698, -1, -3.24063, 9.70122, 18.3048, -150.066, -96.3211, 116.025
0.895767, -1, -3.39825, 9.6592, 18.3154, -150.114, -96.3035, 115.741
0.903708, -1, -3.55604, 9.61721, 18.3259, -150.163, -96.286, 115.457
0.911768, -1, -3.71387, 9.57535, 18.3363, -150.212, -96.2687, 115.173
0.919694, -1, -3.8719, 9.53335, 18.3467, -150.26, -96.2516, 114.889
0.927729, -1, -4.02982, 9.49132, 18.3571, -150.309, -96.2346, 114.605
0.935775, -1, -4.1877, 9.44941, 18.3675, -150.358, -96.2176, 114.32
0.943819, -1, -4.34544, 9.4074, 18.3778, -150.406, -96.2005, 114.036
0.95173, -1, -4.50288, 9.36538, 18.3882, -150.456, -96.1831, 113.751
0.960696, -1, -4.65988, 9.32335, 18.3986, -150.504, -96.1655, 113.467
0.967693, -1, -4.81646, 9.28129, 18.409, -150.553, -96.1477, 113.182
0.975718, -1, -4.97278, 9.23919, 18.4196, -150.602, -96.1302, 112.897
0.983774, -1, -5.12881, 9.19713, 18.4301, -150.651, -96.113, 112.612
0.991705, -1, -5.28469, 9.15501, 18.4407, -150.699, -96.096, 112.327
0.9997, -1, -5.44061, 9.11283, 18.4512, -150.748, -96.079, 112.043
1.00781, -1, -5.59683, 9.07069, 18.4616, -150.797, -96.0621, 111.758
1.0157, -1, -5.75332, 9.02857, 18.4721, -150.846, -96.0449, 111.473
1.02398, -1, -5.91024, 8.98635, 18.4825, -150.895, -96.0275, 111.188
1.03171, -1, -6.06766, 8.94421, 18.4929, -150.944, -96.0099, 110.903
1.0397, -1, -6.22565, 8.90206, 18.5033, -150.992, -95.9923, 110.618
1.04856, -1, -6.38391, 8.85988, 18.5136, -151.042, -95.975, 110.333
1.05569, -1, -6.54222, 8.81781, 18.524, -151.09, -95.958, 110.048
1.06371, -1, -6.70079, 8.77565, 18.5346, -151.139, -95.9409, 109.762
1.0725, -1, -6.85951, 8.7335, 18.5451, -151.189, -95.9239, 109.477
1.07969, -1, -7.0181, 8.69142, 18.5556, -151.237, -95.9067, 109.191
1.08772, -1, -7.17665, 8.64926, 18.5661, -151.286, -95.8893, 108.906
1.09651, -1, -7.33501, 8.60706, 18.5765, -151.336, -95.8716, 108.62
1.1037, -1, -7.49302, 8.56476, 18.587, -151.385, -95.8539, 108.334
1.11179, -1, -7.6506, 8.52244, 18.5975, -151.434, -95.8363, 108.048
1.12049, -1, -7.80794, 8.48015, 18.6079, -151.483, -95.8191, 107.763
1.12769, -1, -7.96487, 8.43787, 18.6184, -151.532, -95.8021, 107.477
1.13605, -1, -8.12158, 8.39551, 18.6287, -151.581, -95.7851, 107.191
1.14515, -1, -8.27818, 8.35316, 18.6393, -151.63, -95.7682, 106.905
1.15125, -1, -8.43485, 8.31081, 18.6498, -151.679, -95.7509, 106.619
1.16016, -1, -8.59185, 8.26843, 18.6604, -151.728, -95.7334, 106.333
1.16723, -1, -8.74915, 8.22616, 18.6709, -151.777, -95.7157, 106.046
1.17582, -1, -8.90676, 8.18385, 18.6812, -151.826, -95.6982, 105.76
1.18439, -1, -9.06492, 8.14149, 18.6917, -151.875, -95.6808, 105.474
1.19181, -1, -9.2235, 8.09923, 18.7022, -151.925, -95.6636, 105.187
1.1997, -1, -9.38242, 8.05691, 18.7126, -151.973, -95.6465, 104.9
1.20844, -1, -9.54151, 8.01456, 18.7231, -152.023, -95.6294, 104.614
1.21573, -1, -9.70066, 7.97232, 18.7336, -152.072, -95.6121, 104.327
1.22373, -1, -9.85993, 7.93003, 18.7441, -152.121, -95.5945, 104.04
1.23276, -1, -10.0193, 7.88767, 18.7548, -152.17, -95.5767, 103.753
1.23987, -1, -10.1785, 7.84524, 18.7654, -152.22, -95.5589, 103.466
1.24801, -1, -10.3376, 7.80275, 18.776, -152.269, -95.5413, 103.18
1.25469, -1, -10.4171, 7.7815, 18.7813, -152.294, -95.5327, 103.036
1.26275, -1, -10.5758, 7.73901, 18.7918, -152.343, -95.5155, 102.749
1.27218, -1, -10.8131, 7.67526, 18.8075, -152.417, -95.4901, 102.319
1.28121, -1, -10.971, 7.63268, 18.818, -152.466, -95.4729, 102.032
1.28674, -1, -11.0498, 7.61139, 18.8232, -152.491, -95.4643, 101.888
1.29628, -1, -11.286, 7.54768, 18.8389, -152.564, -95.4378, 101.457
1.30508, -1, -11.4434, 7.50521, 18.8494, -152.614, -95.42, 101.169
1.31228, -1, -11.5222, 7.4627, 18.8599, -152.663, -95.4023, 100.882
1.31868, -1, -11.6799, 7.44147, 18.8653, -152.688, -95.3936, 100.738
1.32964, -1, -11.9172, 7.37785, 18.8811, -152.762, -95.3677, 100.306
1.33569, -1, -11.9965, 7.35663, 18.8864, -152.787, -95.3591, 100.162
1.34276, -1, -12.1554, 7.31425, 18.897, -152.836, -95.3419, 99.8745
1.35359, -1, -12.3946, 7.25065, 18.9127, -152.91, -95.3158, 99.4423
1.35968, -1, -12.4745, 7.22943, 18.9181, -152.935, -95.307, 99.2983
1.36775, -1, -12.6345, 7.18704, 18.9286, -152.984, -95.2891, 99.0105
1.37568, -1, -12.7945, 7.1446, 18.9392, -153.034, -95.2711, 98.7227
1.38369, -1, -12.9547, 7.10209, 18.9497, -153.083, -95.2534, 98.4346
1.39171, -1, -13.1147, 7.05951, 18.9602, -153.133, -95.236, 98.1463
1.39968, -1, -13.2746, 7.01692, 18.9708, -153.182, -95.2187, 97.8583
1.40774, -1, -13.4343, 6.97428, 18.9815, -153.232, -95.2016, 97.57
1.41571, -1, -13.5936, 6.93154, 18.992, -153.281, -95.1844, 97.2813
1.42367, -1, -13.7527, 6.88881, 19.0026, -153.331, -95.167, 96.9926
1.43172, -1, -13.9115, 6.84612, 19.0131, -153.38, -95.1494, 96.7042
1.43968, -1, -14.0699, 6.80341, 19.0236, -153.429, -95.1315, 96.4156
1.44781, -1, -14.228, 6.7608, 19.0342, -153.479, -95.1138, 96.1267
1.45577, -1, -14.3862, 6.71813, 19.0447, -153.528, -95.0963, 95.8377
1.46473, -1, -14.5445, 6.67545, 19.0552, -153.577, -95.079, 95.5488
1.47168, -1, -14.7032, 6.63291, 19.0658, -153.627, -95.0618, 95.2595
1.47977, -1, -14.8622, 6.59039, 19.0764, -153.677, -95.0446, 94.9701
1.4877, -1, -15.0215, 6.54772, 19.0871, -153.726, -95.0272, 94.6811
1.49568, -1, -15.1813, 6.50511, 19.0978, -153.776, -95.0094, 94.392
1.50375, -1, -15.3415, 6.46253, 19.1085, -153.826, -94.9915, 94.1028
1.51174, -1, -15.5019, 6.41982, 19.1192, -153.875, -94.9735, 93.8134
1.51968, -1, -15.6627, 6.37716, 19.1298, -153.925, -94.9559, 93.5242
1.52777, -1, -15.8234, 6.33439, 19.1404, -153.975, -94.9385, 93.2349
1.53568, -1, -15.9842, 6.2915, 19.1511, -154.024, -94.9213, 92.9454
1.5437, -1, -16.145, 6.24864, 19.1616, -154.074, -94.9041, 92.6554
1.55172, -1, -16.3057, 6.2057, 19.1722, -154.124, -94.8868, 92.366
1.55968, -1, -16.4662, 6.16267, 19.1827, -154.173, -94.8693, 92.0764
1.56777, -1, -16.6266, 6.11969, 19.1932, -154.223, -94.8515, 91.7861
1.57567, -1, -16.7864, 6.07673, 19.2039, -154.272, -94.8336, 91.4961
1.58371, -1, -16.9459, 6.03372, 19.2146, -154.322, -94.8159, 91.206
1.59175, -1, -17.1052, 5.99075, 19.2252, -154.372, -94.7984, 90.9159
1.59968, -1, -17.2643, 5.9478, 19.2358, -154.422, -94.781, 90.6255
1.60769, -1, -17.4234, 5.90497, 19.2464, -154.471, -94.7638, 90.3351
1.61582, -1, -17.5827, 5.86215, 19.2571, -154.522, -94.7464, 90.045
1.62367, -1, -17.742, 5.81932, 19.2678, -154.571, -94.7288, 89.7547
1.63168, -1, -17.9016, 5.77654, 19.2785, -154.621, -94.7108, 89.4643
1.63979, -1, -18.0617, 5.73373, 19.2892, -154.671, -94.6927, 89.1737
1.64775, -1, -18.2222, 5.69093, 19.2997, -154.721, -94.6749, 88.8833
1.65577, -1, -18.3831, 5.64811, 19.3105, -154.771, -94.6572, 88.5924
1.66385, -1, -18.5445, 5.60513, 19.3212, -154.821, -94.6399, 88.3013
1.67179, -1, -18.706, 5.56214, 19.3319, -154.871, -94.6226, 88.0104
1.67987, -1, -18.8676, 5.51917, 19.3426, -154.921, -94.6053, 87.7197
1.68781, -1, -19.0293, 5.47608, 19.3531, -154.971, -94.5878, 87.4285
1.69574, -1, -19.1909, 5.43291, 19.3638, -155.02, -94.57, 87.137
1.70382, -1, -19.3524, 5.38972, 19.3744, -155.071, -94.5518, 86.8456
1.71174, -1, -19.5137, 5.34652, 19.385, -155.12, -94.5338, 86.5541
1.71971, -1, -19.6746, 5.30326, 19.3956, -155.17, -94.5161, 86.2625
1.72783, -1, -19.8353, 5.26009, 19.4063, -155.22, -94.4985, 85.9707
1.73583, -1, -19.9957, 5.2169, 19.417, -155.27, -94.481, 85.6792
1.74393, -1, -20.1557, 5.17372, 19.4279, -155.32, -94.4636, 85.3876
1.75276, -1, -20.3154, 5.13073, 19.4387, -155.37, -94.4461, 85.0959
1.76004, -1, -20.4754, 5.08769, 19.4495, -155.42, -94.4282, 84.8041
1.76674, -1, -20.5554, 5.06611, 19.4549, -155.445, -94.4192, 84.6582
1.77695, -1, -20.7958, 5.00164, 19.471, -155.521, -94.3921, 84.2205
1.78427, -1, -20.9565, 4.95866, 19.4817, -155.571, -94.3744, 83.9282
1.79223, -1, -21.1175, 4.91557, 19.4923, -155.621, -94.3569, 83.636
1.8011, -1, -21.279, 4.87249, 19.503, -155.671, -94.3396, 83.3442
1.80674, -1, -21.3599, 4.85091, 19.5083, -155.696, -94.331, 83.1982
1.8163, -1, -21.6031, 4.78598, 19.5244, -155.772, -94.3051, 82.7593
1.82507, -1, -21.6843, 4.76438, 19.5298, -155.797, -94.2963, 82.613
1.83077, -1, -21.8466, 4.7211, 19.5405, -155.847, -94.2784, 82.3205
1.84071, -1, -22.0904, 4.656, 19.5567, -155.922, -94.2514, 81.8816
1.84771, -1, -22.1717, 4.63432, 19.5621, -155.948, -94.2424, 81.7351
1.85473, -1, -22.3341, 4.59094, 19.5727, -155.997, -94.2248, 81.4422
1.86372, -1, -22.4963, 4.5475, 19.5834, -156.048, -94.2072, 81.1496
1.87167, -1, -22.6582, 4.50407, 19.5942, -156.098, -94.1898, 80.857
1.87868, -1, -22.8197, 4.46059, 19.6048, -156.148, -94.1723, 80.564
1.88768, -1, -22.9809, 4.4172, 19.6156, -156.198, -94.1545, 80.2711
1.89568, -1, -23.142, 4.3739, 19.6262, -156.249, -94.1365, 79.9781
1.90267, -1, -23.3029, 4.33054, 19.637, -156.299, -94.1183, 79.6847
1.91167, -1, -23.4638, 4.28725, 19.6479, -156.35, -94.1001, 79.3912
1.91968, -1, -23.6247, 4.24398, 19.6587, -156.4, -94.0822, 79.0979
1.92667, -1, -23.7858, 4.20069, 19.6695, -156.45, -94.0645, 78.8046
1.93566, -1, -23.9471, 4.15743, 19.6802, -156.501, -94.047, 78.5109
1.94369, -1, -24.1088, 4.11403, 19.6909, -156.551, -94.0296, 78.2169
1.95322, -1, -24.271, 4.07069, 19.7017, -156.601, -94.0121, 77.923
1.95966, -1, -24.4336, 4.02729, 19.7124, -156.652, -93.9942, 77.6291
1.96868, -1, -24.5966, 3.98377, 19.7231, -156.702, -93.9761, 77.3347
1.97467, -1, -24.7598, 3.94019, 19.7337, -156.752, -93.9579, 77.0405
1.98367, -1, -24.9232, 3.89664, 19.7445, -156.803, -93.9401, 76.7465
1.99186, -1, -25.0866, 3.85306, 19.7554, -156.853, -93.9224, 76.4523
1.99968, -1, -25.2499, 3.80946, 19.7663, -156.904, -93.9049, 76.1578
2.00767, -1, -25.413, 3.76584, 19.7772, -156.955, -93.8875, 75.8634
2.01649, -1, -25.5758, 3.72215, 19.7879, -157.005, -93.8698, 75.5693
2.0227, -1, -25.7385, 3.67851, 19.7986, -157.055, -93.8518, 75.2746
2.03167, -1, -25.901, 3.63501, 19.8094, -157.106, -93.8335, 74.9798
2.04049, -1, -26.0632, 3.59143, 19.8202, -157.156, -93.8151, 74.6851
2.04769, -1, -26.225, 3.54794, 19.831, -157.207, -93.7971, 74.3906
2.05566, -1, -26.3866, 3.50459, 19.8418, -157.258, -93.7793, 74.0957
2.06448, -1, -26.5482, 3.46111, 19.8525, -157.308, -93.7616, 73.8004
2.07166, -1, -26.7102, 3.41762, 19.8634, -157.359, -93.744, 73.5054
2.07966, -1, -26.8724, 3.3741, 19.8742, -157.409, -93.7263, 73.2102
2.09133, -1, -27.1164, 3.30867, 19.8905, -157.485, -93.6992, 72.7669
2.09573, -1, -27.1979, 3.28688, 19.8959, -157.511, -93.6901, 72.6193
2.10366, -1, -27.3611, 3.24328, 19.9066, -157.561, -93.6718, 72.3241
2.11166, -1, -27.5247, 3.19947, 19.9174, -157.611, -93.6537, 72.0288
2.11981, -1, -27.6886, 3.15573, 19.9282, -157.663, -93.6358, 71.7331
2.12767, -1, -27.8527, 3.11209, 19.939, -157.713, -93.6181, 71.4375
2.13568, -1, -28.0168, 3.06836, 19.9498, -157.764, -93.6004, 71.142
2.14377, -1, -28.181, 3.02462, 19.9606, -157.815, -93.5826, 70.8462
2.15177, -1, -28.3454, 2.98087, 19.9714, -157.865, -93.5646, 70.55
2.15977, -1, -28.5094, 2.93708, 19.9824, -157.916, -93.5462, 70.254
2.16783, -1, -28.6732, 2.89344, 19.9932, -157.967, -93.5277, 69.9582
2.17577, -1, -28.8366, 2.84975, 20.004, -158.017, -93.5095, 69.662
2.18386, -1, -28.9997, 2.80604, 20.0148, -158.068, -93.4916, 69.3654
2.19184, -1, -29.1625, 2.76239, 20.0255, -158.119, -93.4739, 69.0691
2.19979, -1, -29.3252, 2.71871, 20.0364, -158.17, -93.4562, 68.7724
2.20767, -1, -29.4879, 2.67501, 20.0472, -158.221, -93.4385, 68.4756
2.21585, -1, -29.6507, 2.63126, 20.058, -158.272, -93.4205, 68.1785
2.22376, -1, -29.8137, 2.58746, 20.0689, -158.323, -93.4022, 67.882
2.23173, -1, -29.9769, 2.5437, 20.0798, -158.374, -93.3838, 67.5853
2.23994, -1, -30.1401, 2.49982, 20.0908, -158.425, -93.3655, 67.2882
2.24801, -1, -30.304, 2.45582, 20.1018, -158.476, -93.3475, 66.9911
2.25471, -1, -30.386, 2.43385, 20.1072, -158.501, -93.3387, 66.8427
2.26417, -1, -30.6329, 2.36787, 20.1235, -158.577, -93.312, 66.397
2.27206, -1, -30.798, 2.3239, 20.1344, -158.628, -93.2942, 66.0995
2.28011, -1, -30.963, 2.27999, 20.1453, -158.68, -93.2761, 65.8022
2.28665, -1, -31.0455, 2.25797, 20.1507, -158.705, -93.2669, 65.6537
2.29641, -1, -31.2933, 2.19202, 20.167, -158.782, -93.2391, 65.2076
2.30424, -1, -31.4582, 2.14816, 20.1778, -158.833, -93.2208, 64.9099
2.31231, -1, -31.6228, 2.10413, 20.1886, -158.884, -93.2028, 64.6121
2.32023, -1, -31.7051, 2.08214, 20.1941, -158.935, -93.1851, 64.3143
2.32765, -1, -31.8696, 2.03819, 20.2051, -158.961, -93.1763, 64.1652
2.33638, -1, -32.0337, 1.99426, 20.2161, -159.012, -93.1586, 63.8669
2.34366, -1, -32.1975, 1.95024, 20.227, -159.063, -93.1408, 63.569
2.35168, -1, -32.361, 1.90623, 20.2379, -159.114, -93.1228, 63.2712
2.3597, -1, -32.5246, 1.86218, 20.2489, -159.165, -93.1045, 62.9731
2.36766, -1, -32.6883, 1.81804, 20.2598, -159.217, -93.0861, 62.6746
2.37469, -1, -32.8522, 1.77397, 20.2707, -159.268, -93.068, 62.3764
2.38371, -1, -33.0163, 1.72977, 20.2816, -159.319, -93.0501, 62.0781
2.39165, -1, -33.1808, 1.68555, 20.2925, -159.37, -93.0323, 61.7793
2.39981, -1, -33.3456, 1.64139, 20.3034, -159.422, -93.0145, 61.4804
2.40765, -1, -33.5109, 1.59715, 20.3144, -159.473, -92.9965, 61.182
2.41566, -1, -33.6765, 1.55287, 20.3254, -159.524, -92.9783, 60.8832
2.42265, -1, -33.8423, 1.50867, 20.3364, -159.575, -92.9596, 60.5842
2.43165, -1, -34.0081, 1.46448, 20.3472, -159.626, -92.941, 60.285
2.43965, -1, -34.1741, 1.42032, 20.3581, -159.678, -92.9226, 59.9859
2.44773, -1, -34.3403, 1.37614, 20.3691, -159.729, -92.9046, 59.6864
2.45571, -1, -34.5063, 1.33194, 20.38, -159.781, -92.8867, 59.3867
2.46366, -1, -34.6721, 1.28778, 20.391, -159.832, -92.869, 59.0874
2.47271, -1, -34.8373, 1.24357, 20.4019, -159.883, -92.8511, 58.7882
2.47963, -1, -35.0024, 1.19933, 20.4129, -159.935, -92.8329, 58.4886
2.48765, -1, -35.1671, 1.15504, 20.424, -159.987, -92.8143, 58.1887
2.49573, -1, -35.3316, 1.11072, 20.4351, -160.038, -92.7958, 57.8891
2.50365, -1, -35.4956, 1.0666, 20.4462, -160.089, -92.7775, 57.5893
2.51165, -1, -35.6579, 1.02283, 20.4575, -160.141, -92.7594, 57.2894
2.51975, -1, -35.8173, 0.979616, 20.469, -160.191, -92.7414, 56.9908
2.52766, -1, -35.9728, 0.937531, 20.4809, -160.242, -92.7237, 56.6957
2.53566, -1, -36.1232, 0.897061, 20.4928, -160.292, -92.7062, 56.4066
2.54372, -1, -36.2659, 0.858804, 20.5047, -160.339, -92.6891, 56.1276
2.55166, -1, -36.3991, 0.823482, 20.5163, -160.384, -92.6726, 55.8651
2.55964, -1, -36.521, 0.791226, 20.5269, -160.424, -92.6575, 55.6253
2.56771, -1, -36.6301, 0.762346, 20.5362, -160.46, -92.6442, 55.4137
2.57566, -1, -36.7248, 0.737225, 20.5435, -160.49, -92.6332, 55.2353
2.58365, -1, -36.8049, 0.715981, 20.5486, -160.515, -92.6245, 55.0921
2.59174, -1, -36.8712, 0.698484, 20.5515, -160.533, -92.618, 54.9837
2.59965, -1, -36.9244, 0.684416, 20.5528, -160.547, -92.6135, 54.9071
2.60765, -1, -36.9649, 0.673541, 20.5532, -160.556, -92.6106, 54.8552
2.61581, -1, -36.9944, 0.665752, 20.5529, -160.561, -92.609, 54.8238
2.6237, -1, -37.0147, 0.660679, 20.5524, -160.565, -92.6081, 54.8059
2.63165, -1, -37.027, 0.657654, 20.5521, -160.566, -92.6076, 54.7967
2.63969, 2, -37.0337, 0.65601, 20.5519, -160.567, -92.6074, 54.7924
2.64768, 2, -37.0358, 0.655255, 20.5518, -160.568, -92.6073, 54.7904
2.65572, 2, -37.0356, 0.654928, 20.5518, -160.568, -92.6072, 54.7896
2.66381, 2, -37.035, 0.654788, 20.5517, -160.568, -92.6072, 54.7892
2.67175, 2, -37.0347, 0.654721, 20.5517, -160.568, -92.6072, 54.789
2.67974, 2, -37.0351, 0.654682, 20.5517, -160.568, -92.6072, 54.7889
2.68786, 2, -37.0362, 0.654639, 20.5517, -160.568, -92.6073, 54.7889
2.69583, 2, -37.0372, 0.654535, 20.5515, -160.568, -92.6073, 54.7889
2.70365, 2, -37.0387, 0.654324, 20.5513, -160.568, -92.6073, 54.789
2.71172, 2, -37.0401, 0.654065, 20.5511, -160.568, -92.6073, 54.7891
2.71969, 2, -37.0413, 0.653806, 20.5509, -160.568, -92.6074, 54.7892
2.72777, 2, -37.0423, 0.653573, 20.5507, -160.568, -92.6074, 54.7893
2.73581, 2, -37.0428, 0.653444, 20.5505, -160.568, -92.6074, 54.7894
2.7438, 2, -37.0428, 0.653375, 20.5504, -160.568, -92.6075, 54.7895
2.7522, 2, -37.0423, 0.653361, 20.5502, -160.568, -92.6076, 54.7897
2.75864, 2, -37.0419, 0.653379, 20.5502, -160.568, -92.6076, 54.7897
2.76802, 2, -37.0405, 0.653451, 20.5501, -160.568, -92.6076, 54.79
2.77469, 2, -37.0397, 0.65348, 20.5501, -160.568, -92.6076, 54.7901
2.78421, 2, -37.0375, 0.653599, 20.5499, -160.568, -92.6077, 54.7904
2.79222, 2, -37.0364, 0.653623, 20.5499, -160.568, -92.6077, 54.7905
2.80052, 2, -37.0357, 0.653626, 20.5499, -160.568, -92.6077, 54.7905
2.80823, 2, -37.0354, 0.653611, 20.5499, -160.568, -92.6077, 54.7906
2.81624, 2, -37.0355, 0.653585, 20.5499, -160.568, -92.6077, 54.7907
2.82455, 2, -37.0357, 0.65352, 20.5498, -160.568, -92.6077, 54.7906
2.83223, 2, -37.0358, 0.653486, 20.5498, -160.568, -92.6077, 54.7907
2.83963, 2, -37.0362, 0.653437, 20.5498, -160.568, -92.6077, 54.7907
2.84767, 2, -37.0368, 0.653389, 20.5498, -160.568, -92.6077, 54.7907
2.85573, 2, -37.0375, 0.653367, 20.5497, -160.568, -92.6077, 54.7908
2.86364, 2, -37.0383, 0.653368, 20.5497, -160.568, -92.6077, 54.7909
2.87163, 2, -37.0388, 0.653394, 20.5497, -160.568, -92.6078, 54.7909
2.87968, 2, -37.0391, 0.653435, 20.5497, -160.568, -92.6078, 54.7909
2.88766, 2, -37.0392, 0.653462, 20.5497, -160.568, -92.6078, 54.791
2.89565, 2, -37.0392, 0.653474, 20.5497, -160.568, -92.6078, 54.791
2.90368, 2, -37.039, 0.653479, 20.5497, -160.568, -92.6078, 54.791
2.91166, 2, -37.0385, 0.653482, 20.5497, -160.568, -92.6078, 54.7911
2.91964, 2, -37.0382, 0.653483, 20.5497, -160.568, -92.6078, 54.7912
2.9277, 2, -37.038, 0.653465, 20.5497, -160.568, -92.6078, 54.7913
2.93564, 2, -37.0379, 0.653465, 20.5497, -160.568, -92.6078, 54.7914
2.94363, 2, -37.0378, 0.653438, 20.5497, -160.568, -92.6078, 54.7914
2.9517, 2, -37.0378, 0.653426, 20.5497, -160.568, -92.6079, 54.7915
2.96132, 2, -37.0378, 0.653421, 20.5496, -160.568, -92.6079, 54.7915
2.96763, 2, -37.0378, 0.653418, 20.5496, -160.568, -92.6079, 54.7915
2.97581, 2, -37.0379, 0.653447, 20.5496, -160.568, -92.6079, 54.7916
2.98475, 2, -37.038, 0.653467, 20.5496, -160.568, -92.6079, 54.7916
2.99163, 2, -37.0382, 0.653476, 20.5496, -160.568, -92.6079, 54.7917
2.9997, 2, -37.0384, 0.653481, 20.5496, -160.568, -92.6079, 54.7917
3.00764, 2, -37.0385, 0.653482, 20.5496, -160.568, -92.6079, 54.7917
3.01564, 2, -37.0385, 0.653472, 20.5496, -160.568, -92.608, 54.7917
3.02373, 2, -37.0385, 0.653471, 20.5496, -160.568, -92.6079, 54.7918
3.03163, 2, -37.0385, 0.653491, 20.5496, -160.568, -92.6079, 54.7919
3.03964, 2, -37.0385, 0.653469, 20.5496, -160.568, -92.6079, 54.7919
3.0477, 2, -37.0385, 0.653448, 20.5496, -160.568, -92.608, 54.792
3.05566, 2, -37.0385, 0.653431, 20.5495, -160.568, -92.608, 54.792
3.06363, 2, -37.0384, 0.653434, 20.5495, -160.568, -92.608, 54.7921
3.0717, 2, -37.0384, 0.653432, 20.5495, -160.568, -92.608, 54.7921
3.07963, 2, -37.0384, 0.653442, 20.5495, -160.568, -92.6079, 54.7922
3.08764, 2, -37.0384, 0.653439, 20.5495, -160.568, -92.608, 54.7923
3.09571, 2, -37.0384, 0.653463, 20.5494, -160.568, -92.608, 54.7923
3.10364, 2, -37.0384, 0.653487, 20.5494, -160.568, -92.608, 54.7924
3.11163, 2, -37.0384, 0.653475, 20.5494, -160.568, -92.6081, 54.7924
3.1197, 2, -37.0384, 0.653472, 20.5494, -160.568, -92.608, 54.7925
3.12768, 2, -37.0384, 0.653491, 20.5494, -160.568, -92.608, 54.7925
3.13565, 2, -37.0384, 0.653487, 20.5494, -160.568, -92.6081, 54.7925
3.14372, 2, -37.0384, 0.653486, 20.5494, -160.568, -92.6081, 54.7926
3.15169, 2, -37.0384, 0.653466, 20.5494, -160.568, -92.6081, 54.7926
3.1597, 2, -37.0383, 0.653476, 20.5494, -160.568, -92.608, 54.7926
3.16781, 2, -37.0383, 0.653469, 20.5494, -160.568, -92.6081, 54.7927
3.17573, 2, -37.0383, 0.65347, 20.5494, -160.568, -92.6081, 54.7928
3.18373, 2, -37.0383, 0.653478, 20.5493, -160.568, -92.6081, 54.7928
3.19184, 2, -37.0383, 0.653481, 20.5493, -160.568, -92.6081, 54.7928
3.19973, 2, -37.0383, 0.653483, 20.5493, -160.568, -92.6081, 54.7928
3.20763, 2, -37.0383, 0.653484, 20.5493, -160.568, -92.6081, 54.7929
3.21591, 2, -37.0383, 0.653496, 20.5493, -160.567, -92.6081, 54.793
3.22368, 2, -37.0383, 0.65349, 20.5493, -160.567, -92.6081, 54.793
3.23171, 2, -37.0382, 0.653487, 20.5493, -160.567, -92.6081, 54.793
3.23987, 2, -37.0383, 0.653485, 20.5493, -160.567, -92.6081, 54.793
3.2478, 2, -37.0382, 0.653485, 20.5493, -160.567, -92.6081, 54.7931
3.25587, 2, -37.0382, 0.653473, 20.5493, -160.567, -92.6081, 54.7931
3.26428, 2, -37.0382, 0.653472, 20.5493, -160.567, -92.6081, 54.7932
3.27199, 2, -37.0382, 0.653479, 20.5493, -160.567, -92.6081, 54.7932
3.27867, 2, -37.0382, 0.653469, 20.5493, -160.567, -92.6081, 54.7932
3.28823, 2, -37.0382, 0.653462, 20.5492, -160.567, -92.6082, 54.7932
3.29653, 2, -37.0382, 0.653481, 20.5492, -160.567, -92.6082, 54.7932
3.30417, 2, -37.0381, 0.653488, 20.5492, -160.567, -92.6081, 54.7932
3.31246, 2, -37.0381, 0.653486, 20.5492, -160.567, -92.6081, 54.7933
3.3202, 2, -37.0382, 0.653485, 20.5492, -160.567, -92.6081, 54.7933
3.32817, 2, -37.0382, 0.653485, 20.5492, -160.567, -92.6081, 54.7933
3.33633, 2, -37.0381, 0.653484, 20.5492, -160.567, -92.6081, 54.7933
3.34362, 2, -37.0381, 0.653484, 20.5492, -160.567, -92.6081, 54.7933
3.35162, 2, -37.0381, 0.653504, 20.5492, -160.567, -92.6082, 54.7933
3.3597, 2, -37.038, 0.653498, 20.5492, -160.567, -92.6082, 54.7934
3.36762, 2, -37.038, 0.653491, 20.5492, -160.567, -92.6082, 54.7934
3.37563, 2, -37.0381, 0.653487, 20.5491, -160.567, -92.6082, 54.7935
3.38368, 2, -37.038, 0.653485, 20.5491, -160.567, -92.6082, 54.7935
3.39164, 2, -37.038, 0.653485, 20.5491, -160.567, -92.6082, 54.7936
3.39962, 2, -37.038, 0.653484, 20.5491, -160.567, -92.6082, 54.7936
3.40768, 2, -37.038, 0.653484, 20.5491, -160.567, -92.6081, 54.7936
3.41563, 2, -37.038, 0.653484, 20.5491, -160.567, -92.6082, 54.7936
3.42362, 2, -37.038, 0.653484, 20.5491, -160.567, -92.6082, 54.7937
3.43167, 2, -37.038, 0.653484, 20.5491, -160.567, -92.6081, 54.7937
3.43962, 2, -37.0379, 0.653484, 20.5491, -160.567, -92.6082, 54.7937
3.44762, 2, -37.0379, 0.653484, 20.5491, -160.567, -92.6082, 54.7937
3.4557, 2, -37.0379, 0.653496, 20.5491, -160.567, -92.6082, 54.7937
3.46535, 2, -37.0379, 0.65349, 20.5491, -160.567, -92.6082, 54.7937
3.47162, 2, -37.0379, 0.653487, 20.5491, -160.567, -92.6082, 54.7937
3.47969, 2, -37.0378, 0.653498, 20.5491, -160.567, -92.6082, 54.7937
3.48867, 2, -37.0379, 0.653503, 20.549, -160.567, -92.6082, 54.7938
3.49563, 2, -37.0378, 0.653505, 20.549, -160.567, -92.6083, 54.7938
3.50369, 2, -37.0378, 0.653506, 20.549, -160.567, -92.6083, 54.7938
3.51161, 2, -37.0378, 0.653494, 20.549, -160.567, -92.6082, 54.7938
3.51962, 2, -37.0378, 0.653489, 20.549, -160.567, -92.6083, 54.7939
3.52772, 2, -37.0378, 0.653486, 20.549, -160.567, -92.6083, 54.7939
3.53562, 2, -37.0378, 0.653485, 20.549, -160.567, -92.6083, 54.7939
3.54366, 2, -37.0378, 0.653485, 20.549, -160.567, -92.6083, 54.7939
3.55169, 2, -37.0378, 0.653484, 20.549, -160.567, -92.6082, 54.7939
3.55964, 2, -37.0378, 0.653484, 20.549, -160.567, -92.6083, 54.7938
3.56763, 2, -37.0378, 0.653484, 20.5489, -160.567, -92.6083, 54.7939
3.57569, 2, -37.0378, 0.653484, 20.5489, -160.567, -92.6083, 54.7939
3.58367, 2, -37.0378, 0.653484, 20.5489, -160.567, -92.6082, 54.7939
3.59162, 2, -37.0378, 0.653484, 20.5489, -160.567, -92.6083, 54.7939
3.59968, 2, -37.0377, 0.653484, 20.5489, -160.567, -92.6083, 54.7939
3.60761, 2, -37.0377, 0.653484, 20.5489, -160.567, -92.6082, 54.794
3.61562, 2, -37.0377, 0.653484, 20.5489, -160.567, -92.6083, 54.7939
3.62369, 2, -37.0377, 0.653484, 20.5489, -160.567, -92.6083, 54.7939
3.63166, 2, -37.0377, 0.653484, 20.5489, -160.567, -92.6083, 54.794
3.63979, 2, -37.0377, 0.653504, 20.5488, -160.567, -92.6083, 54.7939
3.64783, 2, -37.0377, 0.653498, 20.5488, -160.567, -92.6083, 54.7939
3.65566, 2, -37.0377, 0.653498, 20.5489, -160.567, -92.6082, 54.794
3.66369, 2, -37.0377, 0.653503, 20.5489, -160.567, -92.6082, 54.794
3.67178, 2, -37.0377, 0.65351, 20.5488, -160.567, -92.6082, 54.794
3.67983, 2, -37.0377, 0.653496, 20.5488, -160.567, -92.6083, 54.794
3.68724, 2, -37.0377, 0.65349, 20.5488, -160.567, -92.6083, 54.794
3.69584, 2, -37.0376, 0.653487, 20.5488, -160.567, -92.6083, 54.794
3.70367, 4, -37.0376, 0.653485, 20.5488, -160.567, -92.6083, 54.794
3.71162, 4, -37.0376, 0.653485, 20.5488, -160.567, -92.6083, 54.794
3.71971, 4, -37.0376, 0.653497, 20.5488, -160.567, -92.6082, 54.794
3.72768, 4, -37.0376, 0.653509, 20.5488, -160.567, -92.6083, 54.794
3.73573, 4, -37.0376, 0.653501, 20.5488, -160.567, -92.6083, 54.7941
3.74414, 4, -37.0375, 0.653499, 20.5487, -160.567, -92.6083, 54.794
3.7518, 4, -37.0375, 0.653496, 20.5487, -160.567, -92.6083, 54.794
3.75986, 4, -37.0375, 0.65349, 20.5487, -160.567, -92.6083, 54.794
3.76835, 4, -37.0375, 0.653494, 20.5487, -160.567, -92.6083, 54.794
3.77599, 4, -37.0375, 0.653501, 20.5487, -160.567, -92.6083, 54.794
3.78266, 4, -37.0375, 0.653503, 20.5487, -160.567, -92.6083, 54.794
3.79252, 4, -37.0375, 0.65349, 20.5487, -160.567, -92.6083, 54.794
3.80021, 4, -37.0374, 0.653487, 20.5487, -160.567, -92.6083, 54.794
3.80861, 4, -37.0375, 0.653493, 20.5487, -160.567, -92.6083, 54.794
3.83089, 4, -37.0375, 0.65352, 20.5487, -160.567, -92.6083, 54.7941
3.83359, 4, -37.0374, 0.653523, 20.5487, -160.567, -92.6083, 54.7941
3.83537, 4, -37.0374, 0.653523, 20.5487, -160.567, -92.6083, 54.7941
3.84048, 4, -37.0374, 0.653525, 20.5487, -160.567, -92.6083, 54.794
3.84762, 4, -37.0374, 0.65352, 20.5487, -160.567, -92.6083, 54.7939
3.85567, 4, -37.0371, 0.653472, 20.5487, -160.567, -92.6083, 54.794
3.86364, 4, -37.0356, 0.653073, 20.5487, -160.567, -92.6083, 54.794
3.87286, 4, -37.0282, 0.649644, 20.5497, -160.566, -92.6084, 54.794
3.88109, 4, -37.0239, 0.643739, 20.5523, -160.566, -92.6084, 54.7941
3.88673, 4, -37.0124, 0.63944, 20.5546, -160.566, -92.6085, 54.7941
3.89842, 4, -36.987, 0.620483, 20.5676, -160.564, -92.6084, 54.794
3.90381, 5, -36.9757, 0.611885, 20.5745, -160.562, -92.6084, 54.794
3.91159, 5, -36.949, 0.591411, 20.5932, -160.559, -92.6082, 54.794
3.91961, 5, -36.9174, 0.566427, 20.6185, -160.553, -92.6079, 54.794
3.92768, 5, -36.8811, 0.536979, 20.6508, -160.546, -92.6073, 54.7939
3.93561, 5, -36.8398, 0.502989, 20.6893, -160.538, -92.6064, 54.7939
3.94361, 5, -36.7934, 0.464178, 20.7333, -160.528, -92.6051, 54.7939
3.95176, 5, -36.7418, 0.4211, 20.7819, -160.517, -92.6035, 54.7938
3.95965, 5, -36.6854, 0.37433, 20.8335, -160.505, -92.6019, 54.7938
3.96926, 5, -36.6251, 0.324797, 20.8871, -160.493, -92.6001, 54.7938
3.97578, 5, -36.5609, 0.273162, 20.942, -160.481, -92.5983, 54.7937
3.98365, 5, -36.4943, 0.22016, 20.9974, -160.469, -92.5963, 54.7937
3.99161, 5, -36.4265, 0.166554, 21.0529, -160.457, -92.5945, 54.7938
3.99975, 5, -36.3578, 0.112683, 21.1084, -160.445, -92.5925, 54.7939
4.00758, 5, -36.2891, 0.0587365, 21.1639, -160.433, -92.5905, 54.7939
4.01569, 5, -36.2202, 0.00488834, 21.2194, -160.421, -92.5886, 54.794
4.02602, 5, -36.1169, -0.0754662, 21.3026, -160.402, -92.5857, 54.7941
4.03177, 5, -36.0826, -0.102151, 21.3303, -160.396, -92.5846, 54.7941
4.03968, 5, -36.014, -0.155334, 21.3855, -160.384, -92.5826, 54.7943
4.04761, 5, -35.9454, -0.208311, 21.4408, -160.371, -92.5806, 54.7947
4.05561, 5, -35.8768, -0.261137, 21.496, -160.358, -92.5785, 54.7952
4.06369, 5, -35.8081, -0.313787, 21.551, -160.345, -92.5765, 54.796
4.0716, 5, -35.7391, -0.366463, 21.606, -160.332, -92.5745, 54.797
4.07974, 5, -35.67, -0.41912, 21.6608, -160.32, -92.5724, 54.7981
4.08761, 5, -35.6005, -0.471853, 21.7153, -160.307, -92.5703, 54.7993
4.09571, 5, -35.5307, -0.524649, 21.7697, -160.295, -92.5682, 54.8008
4.10384, 5, -35.4607, -0.577388, 21.824, -160.282, -92.5661, 54.8023
4.11176, 5, -35.3905, -0.630156, 21.8781, -160.269, -92.564, 54.8039
4.1196, 5, -35.32, -0.682869, 21.9321, -160.256, -92.562, 54.8057
4.12784, 5, -35.2495, -0.735556, 21.986, -160.243, -92.5598, 54.8076
4.13597, 5, -35.1789, -0.787941, 22.0397, -160.23, -92.5576, 54.8097
4.14362, 5, -35.1082, -0.840181, 22.0934, -160.216, -92.5554, 54.8119
4.15182, 5, -35.0375, -0.892285, 22.1469, -160.203, -92.5533, 54.8142
4.16077, 5, -34.9669, -0.944053, 22.2003, -160.19, -92.551, 54.8168
4.16768, 5, -34.8964, -0.995673, 22.2536, -160.177, -92.5489, 54.8193
4.17716, 5, -34.8259, -1.04709, 22.3068, -160.164, -92.5466, 54.8219
4.18433, 5, -34.7554, -1.09849, 22.3598, -160.151, -92.5443, 54.8246
4.19199, 5, -34.6847, -1.1499, 22.4127, -160.139, -92.5421, 54.8274
4.1997, 5, -34.6138, -1.20116, 22.4654, -160.126, -92.5398, 54.8305
4.20767, 5, -34.5429, -1.25254, 22.5178, -160.112, -92.5376, 54.8335
4.21574, 5, -34.4717, -1.30389, 22.5702, -160.099, -92.5352, 54.8368
4.22363, 5, -34.4003, -1.35519, 22.6224, -160.085, -92.5329, 54.84
4.23213, 5, -34.3288, -1.40653, 22.6744, -160.071, -92.5306, 54.8435
4.23973, 5, -34.2571, -1.45776, 22.7263, -160.058, -92.5283, 54.8471
4.24772, 5, -34.1852, -1.50882, 22.7782, -160.044, -92.5259, 54.8508
4.25688, 5, -34.1132, -1.55959, 22.8298, -160.03, -92.5236, 54.8545
4.26391, 5, -34.0411, -1.61024, 22.8814, -160.017, -92.5212, 54.8584
4.27198, 5, -33.9689, -1.66066, 22.9329, -160.004, -92.5188, 54.8624
4.28048, 5, -33.8967, -1.71081, 22.9843, -159.99, -92.5165, 54.8665
4.28813, 5, -33.8246, -1.76086, 23.0354, -159.976, -92.5142, 54.8706
4.2961, 5, -33.7523, -1.81081, 23.0864, -159.962, -92.5119, 54.8748
4.3046, 5, -33.68, -1.86067, 23.1372, -159.948, -92.5095, 54.8791
4.31293, 5, -33.6076, -1.91048, 23.1879, -159.934, -92.5072, 54.8834
4.32025, 5, -33.535, -1.96049, 23.2384, -159.919, -92.505, 54.8877
4.32841, 5, -33.4986, -1.98562, 23.2636, -159.905, -92.5026, 54.8917
4.33707, 5, -33.4257, -2.03609, 23.314, -159.898, -92.5015, 54.8934
4.34259, 5, -33.353, -2.08695, 23.3643, -159.884, -92.4992, 54.8957
4.35295, 6, -33.2443, -2.16415, 23.4401, -159.863, -92.4956, 54.8966
4.36174, 6, -33.2082, -2.21664, 23.491, -159.848, -92.4927, 54.8947
4.3676, 6, -33.1364, -2.24324, 23.5166, -159.841, -92.4911, 54.8927
4.37561, 6, -33.065, -2.29705, 23.5685, -159.825, -92.4872, 54.8845
4.38366, 7, -32.9941, -2.352, 23.6214, -159.807, -92.4822, 54.8713
4.39059, 7, -32.9236, -2.4081, 23.6755, -159.789, -92.4755, 54.855
4.40273, 7, -32.8189, -2.49486, 23.7592, -159.758, -92.462, 54.8278
4.41047, 7, -32.7498, -2.55459, 23.8168, -159.737, -92.4504, 54.8098
4.41555, 7, -32.7155, -2.5851, 23.8461, -159.726, -92.4438, 54.801
4.42359, 8, -32.6474, -2.64727, 23.9057, -159.702, -92.4293, 54.7839
4.43178, 8, -32.5801, -2.71117, 23.9665, -159.677, -92.4128, 54.7669
4.43963, 8, -32.5136, -2.77678, 24.0283, -159.651, -92.3943, 54.7493
4.44761, 8, -32.4477, -2.844, 24.0913, -159.623, -92.3742, 54.7307
4.45559, 8, -32.3825, -2.91269, 24.1551, -159.596, -92.3527, 54.7105
4.46365, 9, -32.3178, -2.98276, 24.22, -159.567, -92.3303, 54.6887
4.47264, 9, -32.2538, -3.05411, 24.2858, -159.537, -92.3066, 54.6649
4.47975, 9, -32.1903, -3.1268, 24.3527, -159.506, -92.2818, 54.6396
4.48756, 9, -32.1274, -3.20074, 24.4206, -159.474, -92.255, 54.613
4.49565, 9, -32.065, -3.27596, 24.4894, -159.441, -92.2265, 54.5852
4.50359, 10, -32.0032, -3.35247, 24.5592, -159.408, -92.1969, 54.5557
4.51164, 10, -31.9421, -3.43038, 24.6301, -159.372, -92.1662, 54.5244
4.51961, 10, -31.8814, -3.50978, 24.702, -159.336, -92.1341, 54.491
4.53007, 10, -31.7915, -3.63146, 24.812, -159.282, -92.0825, 54.438
4.53573, 10, -31.7618, -3.67277, 24.8491, -159.263, -92.0646, 54.4199
4.54365, 11, -31.7029, -3.75641, 24.9241, -159.224, -92.0283, 54.3826
4.5516, 11, -31.6445, -3.8416, 25.0001, -159.184, -91.9909, 54.3436
4.55974, 11, -31.5866, -3.92823, 25.0769, -159.145, -91.9514, 54.3025
4.56761, 11, -31.5292, -4.01629, 25.1547, -159.103, -91.9104, 54.2598
4.57566, 11, -31.4725, -4.10585, 25.2336, -159.06, -91.8687, 54.2162
4.58356, 12, -31.4162, -4.19693, 25.3135, -159.018, -91.8254, 54.1711
4.5916, 12, -31.3604, -4.28939, 25.3946, -158.974, -91.78, 54.1238
4.59968, 12, -31.3051, -4.38322, 25.4767, -158.928, -91.734, 54.0749
4.60781, 12, -31.2504, -4.47838, 25.5598, -158.882, -91.6869, 54.025
4.6159, 12, -31.1961, -4.57491, 25.6439, -158.835, -91.6375, 53.9735
4.62355, 13, -31.1423, -4.67292, 25.729, -158.787, -91.5875, 53.9198
4.63166, 13, -31.089, -4.77229, 25.815, -158.738, -91.5359, 53.8651
4.63964, 13, -31.0363, -4.87309, 25.902, -158.689, -91.4823, 53.8094
4.64782, 13, -30.9841, -4.97549, 25.9901, -158.638, -91.4284, 53.7516
4.65576, 13, -30.9324, -5.0793, 26.0793, -158.587, -91.3725, 53.6923
4.66431, 14, -30.8812, -5.18448, 26.1696, -158.534, -91.3153, 53.6322
4.67192, 14, -30.8307, -5.29123, 26.261, -158.48, -91.2575, 53.5699
4.68036, 14, -30.7808, -5.39944, 26.3533, -158.427, -91.1972, 53.5064
4.68861, 14, -30.7312, -5.50909, 26.4464, -158.371, -91.1368, 53.4422
4.69569, 14, -30.6823, -5.62033, 26.5405, -158.315, -91.0742, 53.3756
4.70468, 15, -30.6339, -5.73305, 26.6357, -158.259, -91.0104, 53.3078
4.71159, 15, -30.5858, -5.84714, 26.732, -158.2, -90.9453, 53.2392
4.71959, 15, -30.5384, -5.96242, 26.8296, -158.142, -90.8785, 53.1681
4.72997, 15, -30.4914, -6.07908, 26.9282, -158.082, -90.8112, 53.0965
4.73603, 15, -30.4448, -6.19726, 27.0277, -158.021, -90.7416, 53.0228
4.74371, 15, -30.3988, -6.31678, 27.128, -157.96, -90.6714, 52.9473
4.75174, 16, -30.3534, -6.43789, 27.2293, -157.897, -90.599, 52.8712
4.75994, 16, -30.3085, -6.56046, 27.3318, -157.834, -90.5264, 52.7924
4.76799, 16, -30.264, -6.68439, 27.4354, -157.769, -90.4516, 52.7133
4.776, 16, -30.22, -6.80992, 27.5402, -157.705, -90.3761, 52.6322
4.78444, 16, -30.1765, -6.93691, 27.646, -157.638, -90.2988, 52.55
4.79204, 17, -30.1335, -7.06557, 27.7526, -157.572, -90.2205, 52.4667
4.80021, 17, -30.091, -7.19579, 27.86, -157.504, -90.1407, 52.3818
4.80867, 17, -30.049, -7.32742, 27.9684, -157.435, -90.0594, 52.2961
4.81702, 17, -30.0075, -7.46027, 28.078, -157.365, -89.9772, 52.2082
4.82258, 17, -29.987, -7.52722, 28.1333, -157.33, -89.9355, 52.1642
4.8322, 18, -29.9463, -7.66227, 28.2447, -157.259, -89.8084, 52.0296
4.84013, 18, -29.9061, -7.79869, 28.3571, -157.187, -89.7651, 51.9842
4.84824, 18, -29.8664, -7.93661, 28.4703, -157.115, -89.6346, 51.8454
4.85696, 18, -29.8076, -8.1457, 28.6418, -157.003, -89.5459, 51.7515
4.86506, 18, -29.7882, -8.28677, 28.7576, -156.928, -89.4556, 51.6557
4.87061, 19, -29.7499, -8.35781, 28.8159, -156.89, -89.4102, 51.6077
4.88245, 19, -29.6932, -8.57336, 28.9927, -156.775, -89.2721, 51.4612
4.88853, 19, -29.6745, -8.64599, 29.052, -156.737, -89.2253, 51.412
4.89558, 19, -29.6376, -8.79234, 29.1713, -156.659, -89.1308, 51.3123
4.9036, 19, -29.6011, -8.93979, 29.2913, -156.58, -89.0355, 51.2122
4.91077, 20, -29.5652, -9.08869, 29.4124, -156.5, -88.9389, 51.11
4.91958, 20, -29.5298, -9.23908, 29.5347, -156.419, -88.8412, 51.0072
4.92764, 20, -29.4946, -9.39106, 29.6582, -156.337, -88.7427, 50.9028
4.93966, 20, -29.4429, -9.62121, 29.8449, -156.213, -88.5926, 50.7442
4.94353, 20, -29.4259, -9.6985, 29.9076, -156.171, -88.5421, 50.6908
4.95188, 21, -29.3923, -9.85405, 30.0337, -156.087, -88.4402, 50.5829
4.95957, 21, -29.359, -10.0111, 30.1608, -156.002, -88.337, 50.4741
4.96858, 21, -29.3261, -10.1698, 30.289, -155.915, -88.2329, 50.364
4.97568, 21, -29.2937, -10.3295, 30.4182, -155.829, -88.1278, 50.2533
4.98472, 21, -29.2617, -10.4901, 30.5482, -155.741, -88.0214, 50.1418
4.99167, 21, -29.2301, -10.652, 30.6791, -155.652, -87.9144, 50.0292
4.99958, 22, -29.1989, -10.8154, 30.811, -155.563, -87.8062, 49.9158
5.00777, 22, -29.168, -10.98, 30.9438, -155.472, -87.6969, 49.8017
5.02272, 22, -29.1076, -11.312, 31.212, -155.289, -87.4754, 49.5704
5.02408, 22, -29.1076, -11.312, 31.212, -155.289, -87.4754, 49.5704
5.03158, 22, -29.078, -11.4801, 31.3477, -155.195, -87.3634, 49.4534
5.03968, 23, -29.0487, -11.6499, 31.484, -155.101, -87.2504, 49.3358
5.04762, 23, -29.0197, -11.8207, 31.6212, -155.007, -87.1362, 49.2174
5.0568, 23, -28.9913, -11.9922, 31.7591, -154.911, -87.0215, 49.0984
5.06372, 23, -28.9632, -12.165, 31.898, -154.815, -86.9058, 48.9792
5.07162, 23, -28.9354, -12.3393, 32.0377, -154.717, -86.789, 48.859
5.08036, 24, -28.908, -12.5147, 32.1784, -154.619, -86.6715, 48.7384
5.08764, 24, -28.8809, -12.6906, 32.3199, -154.52, -86.5529, 48.6174
5.0956, 24, -28.8541, -12.8673, 32.4619, -154.42, -86.4337, 48.4954
5.10695, 24, -28.8146, -13.1352, 32.6765, -154.269, -86.2529, 48.3114
5.1117, 24, -28.8017, -13.2251, 32.7486, -154.218, -86.1925, 48.2499
5.11957, 25, -28.7759, -13.4054, 32.8933, -154.116, -86.0709, 48.1264
5.12769, 25, -28.7505, -13.5863, 33.0386, -154.013, -85.9484, 48.0029
5.13559, 25, -28.7252, -13.7683, 33.1843, -153.909, -85.8257, 47.8796
5.14376, 25, -28.7001, -13.9519, 33.3309, -153.804, -85.7016, 47.7557
5.15159, 25, -28.6753, -14.1362, 33.4784, -153.699, -85.5774, 47.6317
5.15975, 26, -28.6509, -14.3208, 33.6266, -153.592, -85.4523, 47.5078
5.16799, 26, -28.6267, -14.5066, 33.7751, -153.485, -85.3267, 47.3834
5.17566, 26, -28.6029, -14.6939, 33.9243, -153.378, -85.2007, 47.259
5.18398, 26, -28.5792, -14.8818, 34.0744, -153.269, -85.0737, 47.1348
5.19167, 26, -28.5556, -15.0697, 34.2252, -153.16, -84.9464, 47.0107
5.19968, 27, -28.5323, -15.2584, 34.3763, -153.05, -84.8185, 46.8866
5.20861, 27, -28.5093, -15.4481, 34.5279, -152.939, -84.6903, 46.7634
5.21736, 27, -28.4864, -15.6383, 34.6803, -152.828, -84.5613, 46.6399
5.2242, 27, -28.4637, -15.8288, 34.8335, -152.716, -84.432, 46.5168
5.23205, 27, -28.4413, -16.0203, 34.987, -152.603, -84.3023, 46.3942
5.24038, 28, -28.419, -16.2133, 35.1405, -152.489, -84.1722, 46.2717
5.24864, 28, -28.3966, -16.407, 35.2947, -152.375, -84.0417, 46.1496
5.25792, 28, -28.3744, -16.6009, 35.4497, -152.261, -83.9108, 46.0282
5.26483, 28, -28.3524, -16.7958, 35.6051, -152.145, -83.7798, 45.9072
5.27191, 28, -28.3303, -16.9917, 35.7607, -152.029, -83.6482, 45.7872
5.27996, 28, -28.3083, -17.1876, 35.9166, -151.912, -83.5167, 45.6682
5.28893, 29, -28.2865, -17.3834, 36.0731, -151.795, -83.3846, 45.55
5.29617, 29, -28.2647, -17.5802, 36.2302, -151.677, -83.2523, 45.4327
5.30487, 29, -28.2429, -17.7777, 36.3871, -151.558, -83.1196, 45.3163
5.31254, 29, -28.2212, -17.9751, 36.5442, -151.439, -82.9868, 45.2007
5.32012, 29, -28.1998, -18.1728, 36.702, -151.319, -82.8537, 45.0864
5.32897, 30, -28.1891, -18.272, 36.8605, -151.199, -82.7204, 44.973
5.33639, 30, -28.1571, -18.5706, 37.0191, -151.078, -82.587, 44.8608
5.34591, 30, -28.1464, -18.7697, 37.1775, -150.956, -82.4533, 44.75
5.35158, 30, -28.1252, -18.8695, 37.2568, -150.895, -82.3865, 44.6951
5.35958, 30, -28.1039, -19.07, 37.416, -150.772, -82.2524, 44.5864
5.36759, 31, -28.0824, -19.2712, 37.5757, -150.648, -82.1181, 44.4791
5.37458, 31, -28.061, -19.4722, 37.7351, -150.524, -81.9841, 44.3733
5.38372, 31, -28.0398, -19.6733, 37.8945, -150.4, -81.8496, 44.2691
5.39319, 31, -28.0185, -19.8748, 38.1348, -150.211, -81.6482, 44.1161
5.39957, 31, -27.997, -20.0762, 38.2151, -150.148, -81.5809, 44.0659
5.40766, 32, -27.9755, -20.2771, 38.3752, -150.022, -81.4466, 43.9671
5.41557, 32, -27.9538, -20.4783, 38.5348, -149.896, -81.3123, 43.8701
5.42356, 32, -27.9316, -20.6801, 38.6947, -149.769, -81.1784, 43.7757
5.43394, 32, -27.8979, -20.982, 38.9348, -149.578, -80.9774, 43.6385
5.43982, 32, -27.8866, -21.0823, 39.0145, -149.514, -80.9107, 43.5943
5.44755, 33, -27.8637, -21.2834, 39.1733, -149.387, -80.7775, 43.5077
5.45556, 33, -27.8405, -21.4841, 39.3322, -149.259, -80.6448, 43.4246
5.46737, 33, -27.8049, -21.7835, 39.5704, -149.068, -80.4463, 43.3051
5.47155, 33, -27.7928, -21.8831, 39.6494, -149.004, -80.3805, 43.2672
5.4806, 33, -27.7681, -22.0823, 39.8067, -148.876, -80.2491, 43.1931
5.48753, 34, -27.743, -22.2809, 39.9636, -148.749, -80.1178, 43.1226
5.49556, 34, -27.7175, -22.4784, 40.1204, -148.621, -79.9871, 43.0557
5.50368, 34, -27.6914, -22.6753, 40.2766, -148.493, -79.8564, 42.9911
5.5117, 34, -27.665, -22.8722, 40.4321, -148.366, -79.7258, 42.9305
5.52054, 34, -27.6381, -23.0686, 40.5872, -148.238, -79.595, 42.8732
5.52775, 35, -27.6106, -23.2641, 40.7425, -148.11, -79.4644, 42.8185
5.53568, 35, -27.583, -23.4597, 40.8976, -147.981, -79.3337, 42.7674
5.54367, 35, -27.5552, -23.6557, 41.052, -147.853, -79.2033, 42.7203
5.55155, 35, -27.527, -23.851, 41.206, -147.723, -79.073, 42.6762
5.5597, 35, -27.4986, -24.0457, 41.3602, -147.594, -78.9428, 42.6351
5.56784, 36, -27.4699, -24.2405, 41.5143, -147.463, -78.813, 42.5977
5.57559, 36, -27.4407, -24.435, 41.6679, -147.333, -78.6831, 42.5644
5.58481, 36, -27.4113, -24.6287, 41.8208, -147.202, -78.5541, 42.5355
5.59331, 36, -27.3814, -24.8217, 41.9734, -147.071, -78.4251, 42.5108
5.59962, 36, -27.3509, -25.0148, 42.1257, -146.94, -78.2967, 42.4902
5.6085, 36, -27.3196, -25.2074, 42.277, -146.809, -78.1688, 42.4743
5.61556, 37, -27.2875, -25.3986, 42.4271, -146.679, -78.0412, 42.4629
5.6236, 37, -27.2547, -25.5888, 42.5763, -146.549, -77.9143, 42.4563
5.63364, 37, -27.221, -25.7785, 42.7248, -146.419, -77.7875, 42.4535
5.6397, 37, -27.1864, -25.9669, 42.8721, -146.291, -77.6615, 42.4538
5.64763, 37, -27.1507, -26.1534, 43.0181, -146.163, -77.5357, 42.4601
5.65557, 38, -27.1142, -26.3385, 43.1628, -146.035, -77.4106, 42.4726
5.66359, 38, -27.077, -26.523, 43.3066, -145.908, -77.2861, 42.4902
5.67169, 38, -27.0389, -26.7063, 43.4497, -145.781, -77.1622, 42.5134
5.67965, 38, -26.9999, -26.888, 43.5918, -145.655, -77.0387, 42.5419
5.6881, 38, -26.9602, -27.0689, 43.7328, -145.529, -76.9154, 42.5763
5.69621, 39, -26.9198, -27.2496, 43.873, -145.403, -76.7929, 42.6169
5.70366, 39, -26.8788, -27.4294, 44.0124, -145.278, -76.6702, 42.6634
5.71193, 39, -26.8368, -27.608, 44.1511, -145.152, -76.5478, 42.7151
5.72006, 39, -26.7941, -27.7858, 44.289, -145.026, -76.4255, 42.7729
5.72735, 39, -26.7725, -27.8747, 44.3576, -144.963, -76.3643, 42.8044
5.73567, 40, -26.7064, -28.1403, 44.5617, -144.775, -76.1809, 42.9074
5.74366, 40, -26.661, -28.3155, 44.6967, -144.651, -76.0587, 42.9844
5.7517, 40, -26.6148, -28.4893, 44.8303, -144.527, -75.9372, 43.0676
5.76007, 40, -26.5677, -28.6622, 44.9628, -144.403, -75.8156, 43.1568
5.76877, 40, -26.5194, -28.8337, 45.0938, -144.281, -75.695, 43.2535
5.77593, 41, -26.4699, -29.0032, 45.2234, -144.159, -75.5747, 43.3563
5.78512, 41, -26.4194, -29.1709, 45.3515, -144.039, -75.4547, 43.4661
5.79202, 41, -26.3676, -29.3374, 45.4782, -143.919, -75.3355, 43.5824
5.79855, 41, -26.3412, -29.4203, 45.541, -143.86, -75.2759, 43.6432
5.80809, 41, -26.2599, -29.6658, 45.7268, -143.684, -75.0981, 43.8363
5.81653, 42, -26.2041, -29.8271, 45.8484, -143.568, -74.9802, 43.9743
5.82498, 42, -26.1467, -29.9866, 45.9681, -143.453, -74.8627, 44.1196
5.83215, 42, -26.1175, -30.0658, 46.0859, -143.341, -74.746, 44.2719
5.84094, 42, -26.0577, -30.2227, 46.2017, -143.229, -74.6294, 44.4316
5.84754, 42, -25.9965, -30.3771, 46.2589, -143.175, -74.5714, 44.5142
5.85638, 43, -25.9337, -30.5293, 46.4272, -143.013, -74.3982, 44.7726
5.86512, 43, -25.8692, -30.6792, 46.4822, -142.959, -74.3406, 44.9547
5.87154, 43, -25.8031, -30.8272, 46.5907, -142.855, -74.2259, 45.0486
5.87959, 43, -25.7353, -30.973, 46.6971, -142.752, -74.1116, 45.2422
5.8877, 43, -25.666, -31.1165, 46.8017, -142.65, -73.9976, 45.4435
5.8956, 43, -25.595, -31.2576, 46.9042, -142.551, -73.8844, 45.6524
5.90354, 44, -25.5225, -31.3968, 47.0047, -142.454, -73.7715, 45.8692
5.91172, 44, -25.448, -31.5337, 47.1028, -142.359, -73.6595, 46.0941
5.92189, 44, -25.3329, -31.735, 47.2451, -142.221, -73.4924, 46.4463
5.9276, 44, -25.2937, -31.8006, 47.2914, -142.177, -73.437, 46.5678
5.93555, 44, -25.2138, -31.9299, 47.3821, -142.089, -73.327, 46.8168
5.94357, 45, -25.1321, -32.0565, 47.4704, -142.004, -73.2174, 47.0742
5.95162, 45, -25.0483, -32.1803, 47.5563, -141.923, -73.1082, 47.3402
5.95978, 45, -24.9624, -32.3012, 47.6393, -141.843, -72.9997, 47.6143
5.96836, 45, -24.8743, -32.419, 47.7194, -141.767, -72.8913, 47.8966
5.97459, 45, -24.7839, -32.5337, 47.7964, -141.694, -72.7837, 48.1874
5.98357, 46, -24.6911, -32.645, 47.8704, -141.624, -72.6766, 48.487
5.99256, 46, -24.596, -32.7529, 47.9416, -141.557, -72.5697, 48.7952
5.99954, 46, -24.4983, -32.8574, 48.0098, -141.493, -72.464, 49.1114
6.01004, 46, -24.3477, -33.0072, 48.1062, -141.406, -72.3067, 49.6027
6.01569, 46, -24.2963, -33.0553, 48.1366, -141.379, -72.2549, 49.7705
6.02453, 47, -24.1918, -33.1487, 48.1948, -141.327, -72.1521, 50.1123
6.03156, 47, -24.085, -33.238, 48.2494, -141.28, -72.0502, 50.4625
6.03954, 47, -23.9755, -33.3234, 48.3003, -141.236, -71.9496, 50.8211
6.04759, 47, -23.8634, -33.4046, 48.3475, -141.197, -71.8502, 51.1879
6.05561, 47, -23.7485, -33.4818, 48.3907, -141.164, -71.752, 51.5636
6.06368, 48, -23.6308, -33.5546, 48.43, -141.134, -71.6552, 51.9476
6.07156, 48, -23.5105, -33.623, 48.4651, -141.109, -71.5604, 52.3396
6.07963, 48, -23.3876, -33.6868, 48.496, -141.089, -71.4669, 52.7408
6.08754, 48, -23.2623, -33.7459, 48.5229, -141.074, -71.3754, 53.1509
6.09561, 48, -23.1344, -33.7998, 48.5454, -141.064, -71.2861, 53.5696
6.10353, 49, -23.0035, -33.8487, 48.5635, -141.059, -71.1986, 53.9969
6.11175, 49, -22.8698, -33.8923, 48.5772, -141.058, -71.1128, 54.4318
6.12032, 49, -22.7331, -33.9305, 48.5862, -141.063, -71.0295, 54.8745
6.12755, 49, -22.5935, -33.9629, 48.5905, -141.074, -70.9479, 55.3249
6.1357, 49, -22.451, -33.9897, 48.5905, -141.092, -70.8688, 55.7828
6.14399, 50, -22.3058, -34.0105, 48.5855, -141.115, -70.7919, 56.2487
6.15174, 50, -22.1579, -34.0252, 48.5754, -141.145, -70.7182, 56.7215
6.16012, 50, -22.0074, -34.0335, 48.5603, -141.18, -70.6469, 57.2023
6.16787, 50, -21.8539, -34.0359, 48.5399, -141.221, -70.579, 57.6909
6.17565, 50, -21.6974, -34.0322, 48.5141, -141.269, -70.5139, 58.1868
6.18481, 51, -21.5378, -34.0219, 48.4828, -141.323, -70.4532, 58.6895
6.1989, 51, -21.3754, -34.0048, 48.4261, -141.416, -70.3675, 59.4541
6.20139, 51, -21.2104, -33.9809, 48.4044, -141.45, -70.3411, 59.712
6.21341, 51, -20.9581, -33.9317, 48.3311, -141.561, -70.2668, 60.4942
6.21638, 51, -20.8727, -33.9117, 48.3038, -141.601, -70.2437, 60.7577
6.22383, 51, -20.7001, -33.8661, 48.2449, -141.686, -70.2012, 61.2887
6.2323, 52, -20.5247, -33.8125, 48.1799, -141.777, -70.1637, 61.8268
6.24001, 52, -20.3466, -33.7509, 48.1088, -141.875, -70.1305, 62.3723
6.24856, 52, -20.1654, -33.6812, 48.0314, -141.98, -70.1019, 62.9256
6.25569, 52, -19.9814, -33.6031, 47.9475, -142.091, -70.0786, 63.4853
6.26422, 52, -19.7949, -33.5166, 47.8572, -142.209, -70.0609, 64.052
6.27184, 53, -19.6062, -33.4213, 47.7605, -142.333, -70.0488, 64.625
6.27999, 53, -19.4156, -33.3178, 47.6577, -142.463, -70.0421, 65.203
6.28898, 53, -19.223, -33.2063, 47.5491, -142.599, -70.0404, 65.7838
6.2975, 53, -19.0287, -33.0864, 47.4346, -142.74, -70.0437, 66.3681
6.30403, 53, -18.8327, -32.9583, 47.3144, -142.886, -70.0533, 66.9547
6.315, 54, -18.635, -32.8219, 47.1884, -143.037, -70.0689, 67.5423
6.32055, 54, -18.4355, -32.6773, 47.0567, -143.192, -70.0911, 68.13
6.32812, 54, -18.234, -32.5246, 46.9197, -143.352, -70.1201, 68.7194
6.33623, 54, -18.0311, -32.3637, 46.777, -143.516, -70.155, 69.3098
6.34439, 54, -17.9292, -32.2799, 46.6285, -143.685, -70.1963, 69.902
6.3515, 55, -17.7248, -32.1055, 46.5519, -143.77, -70.2199, 70.1988
6.35959, 55, -17.5194, -31.9218, 46.3939, -143.946, -70.2735, 70.7956
6.36756, 55, -17.3125, -31.7289, 46.2296, -144.126, -70.3342, 71.397
6.37557, 55, -17.1039, -31.5264, 46.0581, -144.312, -70.4042, 72.0028
6.38357, 55, -16.8935, -31.3131, 45.8788, -144.503, -70.4823, 72.613
6.39172, 56, -16.6814, -31.089, 45.6924, -144.698, -70.5701, 73.2286
6.39968, 56, -16.4678, -30.8547, 45.4994, -144.898, -70.6667, 73.8486
6.40754, 56, -16.2529, -30.6093, 45.2986, -145.103, -70.7724, 74.4717
6.41801, 56, -15.9303, -30.2211, 44.9838, -145.417, -70.949, 75.4121
6.42375, 56, -15.8229, -30.0865, 44.876, -145.523, -71.0124, 75.7269
6.43172, 57, -15.6075, -29.8089, 44.6552, -145.738, -71.1465, 76.3577
6.43953, 57, -15.391, -29.521, 44.4271, -145.956, -71.2901, 76.9889
6.44764, 57, -15.1733, -29.223, 44.1932, -146.177, -71.4435, 77.6214
6.45553, 57, -14.955, -28.915, 43.9529, -146.399, -71.6065, 78.2545
6.46354, 57, -14.7368, -28.5986, 43.7066, -146.623, -71.7791, 78.8859
6.47458, 58, -14.4108, -28.1087, 43.3294, -146.959, -72.0543, 79.8285
6.4805, 58, -14.3027, -27.9418, 43.2013, -147.071, -72.1499, 80.1409
6.4876, 58, -14.0875, -27.6019, 42.9431, -147.294, -72.3467, 80.7612
6.49658, 58, -13.8739, -27.255, 42.6821, -147.515, -72.5506, 81.3742
6.50353, 58, -13.6618, -26.9012, 42.4178, -147.734, -72.7613, 81.981
6.51159, 58, -13.4508, -26.5412, 42.1512, -147.95, -72.9786, 82.5813
6.51953, 59, -13.2413, -26.1739, 41.8808, -148.165, -73.2031, 83.1755
6.52754, 59, -13.0337, -25.7998, 41.6067, -148.377, -73.4352, 83.7645
6.53559, 59, -12.8277, -25.4188, 41.329, -148.589, -73.6757, 84.35
6.54375, 59, -12.6228, -25.0312, 41.0472, -148.798, -73.9245, 84.9324
6.55259, 59, -12.4189, -24.6357, 40.7615, -149.007, -74.1825, 85.511
6.55953, 60, -12.2158, -24.2325, 40.4707, -149.213, -74.4496, 86.0867
6.56772, 60, -12.0143, -23.8218, 40.1765, -149.418, -74.7256, 86.6594
6.57557, 60, -11.8142, -23.4049, 39.8787, -149.621, -75.0104, 87.2289
6.58356, 60, -11.6156, -22.9815, 39.5787, -149.821, -75.3036, 87.7932
6.59153, 60, -11.4192, -22.5531, 39.2764, -150.017, -75.604, 88.3524
6.59959, 61, -11.2253, -22.1207, 38.9729, -150.21, -75.9107, 88.9051
6.60754, 61, -11.0337, -21.6846, 38.6688, -150.399, -76.2226, 89.4498
6.61693, 61, -10.8444, -21.2452, 38.3642, -150.582, -76.5387, 89.9846
6.62371, 61, -10.6574, -20.8022, 38.0601, -150.76, -76.8588, 90.5098
6.63158, 61, -10.4727, -20.3558, 37.7561, -150.933, -77.1826, 91.0255
6.63959, 62, -10.2906, -19.9062, 37.4526, -151.101, -77.5104, 91.5322
6.64766, 62, -10.1114, -19.4537, 37.1486, -151.264, -77.8428, 92.0301
6.65553, 62, -9.93489, -18.9989, 36.8444, -151.422, -78.1802, 92.5201
6.66369, 62, -9.76101, -18.5414, 36.5391, -151.576, -78.5229, 93.0033
6.67172, 62, -9.58966, -18.0821, 36.2337, -151.725, -78.8708, 93.4791
6.67964, 63, -9.42035, -17.6211, 35.9278, -151.87, -79.2236, 93.9472
6.68785, 63, -9.25313, -17.1583, 35.6227, -152.01, -79.5806, 94.4058
6.69569, 63, -9.08827, -16.6938, 35.3188, -152.145, -79.941, 94.855
6.70401, 63, -8.92601, -16.2277, 35.016, -152.274, -80.3043, 95.2943
6.71163, 63, -8.76628, -15.7594, 34.7147, -152.398, -80.6701, 95.7228
6.71994, 63, -8.60918, -15.2895, 34.4148, -152.516, -81.0382, 96.1415
6.72901, 64, -8.45463, -14.8186, 34.1173, -152.629, -81.4088, 96.549
6.73555, 64, -8.30252, -14.3466, 33.8204, -152.737, -81.7822, 96.946
6.74441, 64, -8.15286, -13.8748, 33.5249, -152.84, -82.1587, 97.333
6.75159, 64, -8.00551, -13.4032, 33.23, -152.937, -82.5382, 97.7092
6.75973, 64, -7.86067, -12.9327, 32.9371, -153.03, -82.92, 98.0736
6.76936, 65, -7.71844, -12.4639, 32.6465, -153.116, -83.3035, 98.4263
6.78264, 65, -7.51046, -11.7633, 32.2167, -153.235, -83.8801, 98.9302
6.78633, 65, -7.44268, -11.5304, 32.0754, -153.272, -84.0721, 99.0912
6.79464, 65, -7.30923, -11.0656, 31.7952, -153.341, -84.4559, 99.4029
6.80039, 65, -7.17873, -10.6027, 31.5195, -153.404, -84.839, 99.7001
6.8089, 66, -7.05069, -10.1429, 31.2473, -153.462, -85.2208, 99.9822
6.8161, 66, -6.92476, -9.68643, 30.9789, -153.514, -85.602, 100.249
6.82561, 66, -6.80101, -9.23491, 30.715, -153.559, -85.9819, 100.5
6.83213, 66, -6.67949, -8.7893, 30.4544, -153.6, -86.3599, 100.735
6.84016, 66, -6.61958, -8.56856, 30.1986, -153.636, -86.7355, 100.953
6.84836, 67, -6.44363, -7.91497, 29.9478, -153.665, -87.1076, 101.154
6.85707, 67, -6.32988, -7.48651, 29.7027, -153.689, -87.4757, 101.338
6.86351, 67, -6.27403, -7.27466, 29.5829, -153.698, -87.658, 101.423
6.87259, 67, -6.11042, -6.647, 29.2329, -153.719, -88.1976, 101.653
6.88161, 67, -6.00436, -6.23613, 29.007, -153.726, -88.5512, 101.784
6.88753, 68, -5.95215, -6.03293, 28.8964, -153.728, -88.7265, 101.843
6.89807, 68, -5.79837, -5.43207, 28.5718, -153.729, -89.2474, 101.994
6.90356, 68, -5.74796, -5.23456, 28.4655, -153.726, -89.4197, 102.036
6.91151, 68, -5.64846, -4.84359, 28.256, -153.718, -89.7631, 102.106
6.91952, 68, -5.55059, -4.45783, 28.0502, -153.705, -90.1053, 102.157
6.93372, 69, -5.45444, -4.07668, 27.7471, -153.677, -90.6167, 102.199
6.93604, 69, -5.36006, -3.69903, 27.6482, -153.666, -90.7869, 102.205
6.94352, 69, -5.26733, -3.32539, 27.4537, -153.64, -91.1266, 102.203
6.95368, 69, -5.13154, -2.77285, 27.1681, -153.592, -91.6344, 102.158
6.95951, 69, -5.08712, -2.59053, 27.0748, -153.574, -91.803, 102.133
6.96903, 70, -4.99945, -2.22836, 26.8915, -153.536, -92.1393, 102.024
6.97566, 70, -4.91309, -1.87066, 26.712, -153.494, -92.4739, 101.977
6.98352, 70, -4.82801, -1.51783, 26.5358, -153.448, -92.8068, 101.866
6.99158, 70, -4.74401, -1.17075, 26.3638, -153.399, -93.1376, 101.733
7.00065, 70, -4.66112, -0.828802, 26.1965, -153.346, -93.466, 101.579
7.00774, 71, -4.57932, -0.493357, 26.0331, -153.29, -93.7915, 101.402
7.01551, 71, -4.49853, -0.164072, 25.8737, -153.233, -94.1138, 101.205
7.02353, 71, -4.41881, 0.15813, 25.7196, -153.171, -94.4327, 100.988
7.03157, 71, -4.33998, 0.474124, 25.5708, -153.108, -94.7477, 100.749
7.03952, 71, -4.26191, 0.784333, 25.4268, -153.042, -95.0591, 100.49
7.04767, 71, -4.18468, 1.08775, 25.2872, -152.975, -95.3667, 100.211
7.05666, 72, -4.10797, 1.38494, 25.1519, -152.906, -95.6709, 99.9121
7.06351, 72, -4.03151, 1.67523, 25.0204, -152.835, -95.9722, 99.5919
7.07262, 72, -3.95528, 1.95949, 24.8922, -152.764, -96.2709, 99.2508
7.07952, 72, -3.87919, 2.23799, 24.7671, -152.691, -96.5672, 98.8888
7.08752, 72, -3.80312, 2.51006, 24.645, -152.618, -96.8612, 98.505
7.09651, 73, -3.72723, 2.77641, 24.526, -152.544, -97.1527, 98.099
7.10365, 73, -3.65114, 3.03659, 24.4103, -152.47, -97.4418, 97.6708
7.11356, 73, -3.57483, 3.29008, 24.2984, -152.397, -97.7279, 97.2202
7.12302, 73, -3.45974, 3.65847, 24.1378, -152.288, -98.1509, 96.5057
7.12776, 73, -3.4212, 3.77753, 24.0864, -152.252, -98.2899, 96.2573
7.13609, 74, -3.34355, 4.00916, 23.9866, -152.181, -98.5647, 95.7469
7.1436, 74, -3.26528, 4.23247, 23.8907, -152.112, -98.8342, 95.2196
7.15162, 74, -3.18632, 4.44711, 23.799, -152.044, -99.098, 94.6778
7.15951, 74, -3.10668, 4.65191, 23.7115, -151.978, -99.3552, 94.1237
7.16759, 74, -3.02638, 4.84706, 23.6283, -151.915, -99.6054, 93.5577
7.17578, 75, -2.94515, 5.03292, 23.5494, -151.853, -99.8476, 92.9817
7.18423, 75, -2.86294, 5.20862, 23.4745, -151.796, -100.081, 92.3972
7.19169, 75, -2.77972, 5.37334, 23.4034, -151.741, -100.306, 91.8049
7.20051, 75, -2.69555, 5.52742, 23.3361, -151.689, -100.522, 91.2046
7.20844, 75, -2.61046, 5.67089, 23.2728, -151.64, -100.729, 90.5968
7.21567, 76, -2.52444, 5.80314, 23.2136, -151.595, -100.926, 89.9816
7.22621, 76, -2.43745, 5.92396, 23.1587, -151.553, -101.115, 89.3578
7.23164, 76, -2.34962, 6.03308, 23.1082, -151.516, -101.294, 88.7247
7.24017, 76, -2.26102, 6.12997, 23.0621, -151.483, -101.463, 88.084
7.24755, 76, -2.17167, 6.21425, 23.0208, -151.452, -101.622, 87.4373
7.25604, 77, -2.08139, 6.28553, 22.9846, -151.427, -101.77, 86.7853
7.26454, 77, -1.99021, 6.34365, 22.9536, -151.405, -101.905, 86.132
7.2717, 77, -1.89808, 6.38815, 22.9284, -151.387, -102.026, 85.4807
7.28066, 77, -1.80517, 6.41838, 22.9089, -151.374, -102.133, 84.8321
7.28793, 77, -1.71138, 6.43453, 22.8952, -151.364, -102.226, 84.1869
7.29595, 77, -1.61678, 6.4362, 22.8875, -151.358, -102.303, 83.5469
7.30503, 78, -1.52147, 6.42271, 22.8851, -151.354, -102.364, 82.911
7.31204, 78, -1.42558, 6.39389, 22.8882, -151.354, -102.411, 82.2786
7.32091, 78, -1.32933, 6.34949, 22.8975, -151.357, -102.441, 81.6504
7.32852, 78, -1.23278, 6.28899, 22.9128, -151.363, -102.456, 81.0277
7.33731, 78, -1.13611, 6.21236, 22.9348, -151.373, -102.455, 80.4102
7.34492, 79, -1.08771, 6.16798, 22.9483, -151.379, -102.436, 79.7995
7.35315, 79, -0.942247, 6.01073, 23.0001, -151.402, -102.399, 79.1973
7.3595, 79, -0.893742, 5.95026, 23.021, -151.411, -102.374, 78.8999
7.36755, 79, -0.796735, 5.81701, 23.0685, -151.431, -102.312, 78.3118
7.37556, 79, -0.699733, 5.66716, 23.1237, -151.454, -102.23, 77.7334
7.3835, 80, -0.602634, 5.5008, 23.1863, -151.479, -102.132, 77.1655
7.3916, 80, -0.505489, 5.3178, 23.2566, -151.506, -102.014, 76.6088
7.3995, 80, -0.408431, 5.11834, 23.3349, -151.535, -101.878, 76.0616
7.4077, 80, -0.311597, 4.90192, 23.4213, -151.565, -101.724, 75.5242
7.41554, 80, -0.214809, 4.66713, 23.5161, -151.597, -101.55, 74.996
7.42355, 81, -0.118216, 4.4146, 23.6197, -151.63, -101.357, 74.4779
7.43172, 81, -0.0217279, 4.14551, 23.7321, -151.664, -101.145, 73.9689
7.4417, 81, 0.0745618, 3.70985, 23.9182, -151.717, -100.791, 73.2224
7.44749, 81, 0.170648, 3.55641, 23.985, -151.736, -100.663, 72.9783
7.45578, 81, 0.266485, 3.23627, 24.1261, -151.773, -100.393, 72.4975
7.46614, 82, 0.409921, 2.7242, 24.3561, -151.829, -99.9527, 71.7941
7.47326, 82, 0.457623, 2.54512, 24.4374, -151.866, -99.6349, 71.3369
7.48031, 82, 0.552738, 2.17532, 24.6069, -151.885, -99.469, 71.1121
7.48751, 82, 0.647672, 1.78938, 24.7862, -151.923, -99.1241, 70.6694
7.49654, 82, 0.742467, 1.38699, 24.975, -151.959, -98.7614, 70.237
7.50631, 83, 0.884571, 0.753989, 25.2752, -152.013, -98.1861, 69.6078
7.51172, 83, 0.931917, 0.535747, 25.3803, -152.03, -97.9861, 69.4031
7.51948, 83, 1.02664, 0.0881683, 25.5983, -152.065, -97.5745, 69.0018
7.52749, 83, 1.12148, -0.374005, 25.8251, -152.097, -97.1477, 68.6108
7.53608, 83, 1.21635, -0.850268, 26.0607, -152.128, -96.7054, 68.2293
7.54456, 84, 1.31137, -1.3408, 26.3064, -152.159, -96.2482, 67.858
7.55149, 84, 1.40669, -1.84517, 26.5617, -152.188, -95.7753, 67.4949
7.55962, 84, 1.50211, -2.36249, 26.8276, -152.215, -95.2878, 67.1395
7.56751, 84, 1.59783, -2.8933, 27.1035, -152.241, -94.7843, 66.7917
7.5756, 84, 1.69395, -3.43766, 27.3899, -152.265, -94.2654, 66.4508
7.58853, 85, 1.83898, -4.2791, 27.8391, -152.298, -93.4596, 65.9521
7.59164, 85, 1.88742, -4.56586, 27.9937, -152.308, -93.1833, 65.7899
7.59974, 85, 1.98468, -5.1475, 28.3108, -152.327, -92.6197, 65.4711
7.60856, 85, 2.08233, -5.73977, 28.6369, -152.344, -92.0441, 65.1601
7.61665, 85, 2.18033, -6.3411, 28.9723, -152.358, -91.4584, 64.8576
7.62451, 85, 2.27902, -6.95014, 29.3161, -152.369, -90.8619, 64.5643
7.63249, 86, 2.3783, -7.5665, 29.6678, -152.378, -90.2559, 64.2809
7.63962, 86, 2.47854, -8.18909, 30.0265, -152.383, -89.6409, 64.0077
7.64751, 86, 2.57988, -8.81784, 30.3916, -152.386, -89.0179, 63.7454
7.65558, 86, 2.68188, -9.45214, 30.7622, -152.387, -88.3903, 63.4947
7.66776, 87, 2.83707, -10.4113, 31.3283, -152.382, -87.4404, 63.1404
7.67166, 87, 2.88926, -10.7329, 31.5198, -152.378, -87.1209, 63.028
7.68082, 87, 2.99414, -11.3781, 31.9058, -152.368, -86.4781, 62.8126
7.68764, 87, 3.10013, -12.0263, 32.2965, -152.355, -85.8303, 62.6095
7.69565, 87, 3.20688, -12.6768, 32.6917, -152.337, -85.1786, 62.4193
7.70359, 87, 3.31424, -13.3298, 33.0921, -152.315, -84.5232, 62.2416
7.71165, 88, 3.42242, -13.9857, 33.4978, -152.29, -83.8619, 62.077
7.71991, 88, 3.53109, -14.6441, 33.9083, -152.26, -83.1954, 61.9256
7.72858, 88, 3.64036, -15.3039, 34.3242, -152.227, -82.5236, 61.7876
7.73556, 88, 3.75005, -15.9638, 34.7449, -152.189, -81.8469, 61.6641
7.7436, 88, 3.85999, -16.6226, 35.1695, -152.146, -81.1686, 61.5557
7.75155, 89, 3.97021, -17.2794, 35.5973, -152.099, -80.4888, 61.4638
7.75965, 89, 4.08066, -17.9335, 36.0264, -152.046, -79.8089, 61.3899
7.77691, 89, 4.3029, -19.2312, 36.8844, -151.926, -78.4512, 61.2989
7.77871, 89, 4.3029, -19.2312, 36.8844, -151.926, -78.4512, 61.2989
7.7854, 89, 4.41447, -19.8738, 37.3121, -151.857, -77.778, 61.2829
7.79228, 90, 4.5263, -20.5115, 37.7382, -151.784, -77.1091, 61.2873
7.79995, 90, 4.63885, -21.1446, 38.1638, -151.705, -76.4417, 61.3156
7.80801, 90, 4.75152, -21.7727, 38.5888, -151.621, -75.7751, 61.3672
7.81607, 90, 4.86398, -22.3963, 39.0136, -151.531, -75.1097, 61.442
7.82406, 90, 4.97602, -23.0161, 39.4389, -151.434, -74.4467, 61.5428
7.83255, 91, 5.08769, -23.6325, 39.8642, -151.332, -73.7839, 61.6698
7.84007, 91, 5.14343, -23.9395, 40.2898, -151.222, -73.12, 61.825
7.84819, 91, 5.25462, -24.8534, 40.7156, -151.106, -72.4559, 62.0091
7.85548, 91, 5.36518, -25.1556, 40.9283, -151.045, -72.1237, 62.1121
7.86348, 91, 5.47495, -25.7554, 41.3527, -150.919, -71.459, 62.3408
7.87247, 92, 5.58434, -26.3481, 41.9865, -150.718, -70.4656, 62.7418
7.87948, 92, 5.69361, -26.9331, 42.1967, -150.648, -70.1359, 62.8912
7.88755, 92, 5.80329, -27.5095, 42.614, -150.503, -69.4787, 63.2134
7.89553, 92, 5.91363, -28.0767, 43.0262, -150.354, -68.8253, 63.566
7.90354, 92, 6.02458, -28.6341, 43.433, -150.2, -68.1759, 63.9504
7.91148, 92, 6.13651, -29.1802, 43.8334, -150.043, -67.5326, 64.3655
7.91949, 93, 6.24978, -29.7146, 44.2269, -149.883, -66.8966, 64.8119
7.93552, 93, 6.48211, -30.751, 44.994, -149.558, -65.6376, 65.7993
7.93766, 93, 6.54161, -31.0044, 45.1821, -149.476, -65.3251, 66.0666
7.9435, 93, 6.60165, -31.2562, 45.3691, -149.394, -65.0131, 66.3425
7.95155, 93, 6.72339, -31.7557, 45.7397, -149.23, -64.3898, 66.922
7.95957, 94, 6.84728, -32.2498, 46.1068, -149.065, -63.766, 67.543
7.9675, 94, 6.97332, -32.7392, 46.4713, -148.899, -63.137, 68.2102
7.9755, 94, 7.10094, -33.223, 46.8346, -148.733, -62.5016, 68.9291
7.98552, 94, 7.29621, -33.9354, 47.376, -148.485, -61.537, 70.1053
7.99151, 94, 7.36275, -34.1694, 47.5548, -148.405, -61.2126, 70.5232
8.00054, 95, 7.49879, -34.6312, 47.9073, -148.248, -60.5633, 71.3996
8.00751, 95, 7.63973, -35.083, 48.2519, -148.1, -59.9167, 72.3225
8.01551, 95, 7.78663, -35.5243, 48.5856, -147.964, -59.275, 73.286
8.02354, 95, 7.94005, -35.9526, 48.9072, -147.842, -58.6401, 74.2894
8.03166, 95, 8.10049, -36.3637, 49.2138, -147.737, -58.0128, 75.3272
8.03969, 96, 8.26777, -36.7547, 49.5051, -147.649, -57.3953, 76.3994
8.04755, 96, 8.44196, -37.1244, 49.7798, -147.58, -56.7917, 77.5018
8.05549, 96, 8.62229, -37.4713, 50.0377, -147.533, -56.202, 78.6342
8.06354, 96, 8.80806, -37.7938, 50.2785, -147.505, -55.6266, 79.7891
8.07154, 96, 8.99857, -38.0906, 50.5, -147.497, -55.0686, 80.9613
8.08088, 96, 9.19253, -38.3626, 50.7021, -147.511, -54.5305, 82.1447
8.08747, 97, 9.38835, -38.6091, 50.8849, -147.547, -54.015, 83.3383
8.09555, 97, 9.58467, -38.8303, 51.0471, -147.604, -53.5243, 84.5366
8.10349, 97, 9.78025, -39.027, 51.1887, -147.681, -53.0601, 85.7295
8.11148, 97, 9.97447, -39.199, 51.3109, -147.775, -52.6247, 86.91
8.11956, 97, 10.1662, -39.3451, 51.4134, -147.885, -52.2193, 88.0703
8.12749, 97, 10.3543, -39.4657, 51.4969, -148.007, -51.8443, 89.2046
8.13579, 98, 10.5387, -39.5612, 51.562, -148.14, -51.5003, 90.305
8.14351, 98, 10.7206, -39.6324, 51.6091, -148.283, -51.1865, 91.3725
8.15157, 98, 10.9007, -39.6809, 51.6387, -148.436, -50.9009, 92.4142
8.1595, 98, 11.0792, -39.7062, 51.651, -148.599, -50.6398, 93.4442
8.16748, 98, 11.2557, -39.7082, 51.6467, -148.775, -50.3997, 94.4766
8.17558, 98, 11.4308, -39.6868, 51.6252, -148.964, -50.1786, 95.522
8.18372, 98, 11.6063, -39.6415, 51.586, -149.166, -49.9763, 96.5892
8.19159, 99, 11.7815, -39.5729, 51.5291, -149.382, -49.7943, 97.6771
8.19957, 99, 11.9554, -39.4817, 51.4537, -149.61, -49.6353, 98.7827
8.20798, 99, 12.1265, -39.3678, 51.3598, -149.846, -49.5026, 99.8937
8.21558, 99, 12.294, -39.2315, 51.2478, -150.088, -49.3989, 101.001
8.22359, 99, 12.4563, -39.0731, 51.1184, -150.332, -49.3263, 102.093
8.2317, 99, 12.6114, -38.8925, 50.9729, -150.575, -49.2843, 103.16
8.24005, 100, 12.758, -38.688, 50.8118, -150.815, -49.2737, 104.196
8.24771, 100, 12.8958, -38.4591, 50.6342, -151.05, -49.2951, 105.205
8.25553, 100, 13.0245, -38.2076, 50.4395, -151.28, -49.348, 106.183
8.26358, 100, 13.1447, -37.9339, 50.2283, -151.503, -49.4321, 107.139
8.27265, 100, 13.2567, -37.6395, 49.9997, -151.721, -49.5475, 108.07
8.27973, 100, 13.3606, -37.3223, 49.7527, -151.932, -49.6937, 108.979
8.28786, 101, 13.4563, -36.9812, 49.489, -152.135, -49.87, 109.868
8.29598, 101, 13.5441, -36.6153, 49.2081, -152.33, -50.0761, 110.731
8.3039, 101, 13.6242, -36.224, 48.9104, -152.516, -50.3117, 111.573
8.31205, 101, 13.6961, -35.8076, 48.595, -152.693, -50.5773, 112.391
8.32002, 101, 13.7598, -35.3678, 48.2621, -152.859, -50.8737, 113.186
8.33875, 102, 13.8608, -34.421, 47.5446, -153.159, -51.5627, 114.709
8.34085, 102, 13.8803, -34.1701, 47.3546, -153.227, -51.7553, 115.075
8.34429, 102, 13.8974, -33.9131, 47.1604, -153.291, -51.9558, 115.436
8.35287, 102, 13.9122, -33.6501, 46.9624, -153.352, -52.1643, 116.138
8.36007, 102, 13.9347, -33.107, 46.5549, -153.464, -52.6057, 116.813
8.36752, 102, 13.9486, -32.5424, 46.1337, -153.563, -53.0781, 117.141
8.37634, 103, 13.9545, -31.9569, 45.6987, -153.648, -53.8386, 118.086
8.38349, 103, 13.9532, -31.3512, 45.2504, -153.718, -54.1049, 118.388
8.39151, 103, 13.9453, -30.7272, 44.7904, -153.777, -54.6547, 118.971
8.39952, 103, 13.9311, -30.0869, 44.3198, -153.821, -55.2248, 119.53
8.40749, 103, 13.9114, -29.4317, 43.8397, -153.853, -55.813, 120.063
8.41547, 103, 13.8863, -28.7624, 43.352, -153.874, -56.4181, 120.57
8.42344, 104, 13.8567, -28.0815, 42.8582, -153.884, -57.0372, 121.052
8.43294, 104, 13.8048, -27.0417, 42.1087, -153.881, -57.9905, 121.73
8.43947, 104, 13.7855, -26.691, 41.857, -153.874, -58.3158, 121.946
8.44748, 104, 13.7444, -25.9841, 41.3511, -153.855, -58.9767, 122.362
8.45701, 104, 13.6783, -24.9153, 40.589, -153.81, -59.9909, 122.954
8.46348, 104, 13.6554, -24.5576, 40.3343, -153.792, -60.3335, 123.144
8.47147, 104, 13.6084, -23.84, 39.8245, -153.748, -61.0234, 123.515
8.47954, 104, 13.5595, -23.1195, 39.3152, -153.7, -61.7196, 123.878
8.48923, 104, 13.5094, -22.3975, 38.8069, -153.646, -62.4202, 124.234
8.49549, 104, 13.4586, -21.6742, 38.3001, -153.587, -63.1231, 124.587
8.50355, 104, 13.407, -20.9509, 37.7947, -153.525, -63.8272, 124.937
8.51251, 104, 13.3548, -20.2281, 37.2905, -153.456, -64.5313, 125.286
8.51947, 104, 13.3025, -19.5048, 36.7884, -153.385, -65.237, 125.633
8.52758, 104, 13.25, -18.781, 36.2883, -153.31, -65.9443, 125.979
8.53548, 104, 13.1975, -18.0573, 35.7902, -153.23, -66.6521, 126.325
8.54347, 104, 13.1454, -17.3332, 35.2946, -153.147, -67.3609, 126.67
8.55154, 104, 13.0935, -16.6087, 34.8009, -153.059, -68.0688, 127.014
8.55947, 104, 13.0419, -15.8841, 34.3092, -152.968, -68.7774, 127.358
8.56747, 104, 12.9907, -15.1596, 33.8198, -152.873, -69.4882, 127.702
8.57553, 104, 12.9397, -14.4345, 33.3327, -152.774, -70.1998, 128.045
8.58348, 104, 12.8891, -13.7094, 32.8484, -152.671, -70.9106, 128.388
8.59146, 104, 12.839, -12.984, 32.3666, -152.564, -71.6209, 128.732
8.59955, 104, 12.7891, -12.2583, 31.8873, -152.454, -72.3333, 129.076
8.60749, 104, 12.7396, -11.5332, 31.4108, -152.339, -73.0463, 129.421
8.61546, 104, 12.6906, -10.808, 30.9366, -152.221, -73.7595, 129.767
8.62354, 104, 12.6419, -10.0826, 30.4652, -152.099, -74.4726, 130.113
8.63152, 104, 12.5933, -9.35701, 29.997, -151.972, -75.1858, 130.459
8.63946, 104, 12.5453, -8.63121, 29.5318, -151.842, -75.9002, 130.807
8.64754, 104, 12.4977, -7.90489, 29.0699, -151.708, -76.6149, 131.156
8.65551, 104, 12.4506, -7.17919, 28.6112, -151.569, -77.3306, 131.505
8.6635, 104, 12.4042, -6.4539, 28.1557, -151.426, -78.0464, 131.857
8.67153, 104, 12.3583, -5.72905, 27.7037, -151.279, -78.7605, 132.209
8.6795, 104, 12.3129, -5.00465, 27.2552, -151.128, -79.4755, 132.562
8.68762, 104, 12.2684, -4.28148, 26.811, -150.973, -80.1914, 132.917
8.69558, 104, 12.225, -3.56064, 26.3717, -150.814, -80.9069, 133.273
8.70356, 104, 12.1826, -2.84442, 25.9372, -150.651, -81.6189, 133.629
8.71162, 104, 12.1415, -2.13428, 25.5087, -150.484, -82.3268, 133.986
8.71963, 104, 12.1018, -1.43129, 25.0872, -150.314, -83.0316, 134.342
8.72753, 104, 12.0629, -0.736635, 24.6741, -150.141, -83.7294, 134.696
8.73563, 104, 12.0251, -0.0517268, 24.2706, -149.967, -84.4172, 135.048
8.74349, 104, 11.9882, 0.622463, 23.8777, -149.791, -85.0924, 135.395
8.75149, 104, 11.9524, 1.28408, 23.4974, -149.615, -85.7531, 135.737
8.75966, 104, 11.9177, 1.93263, 23.1295, -149.439, -86.3997, 136.074
8.76835, 104, 11.8843, 2.56644, 22.7743, -149.263, -87.031, 136.404
8.77569, 104, 11.8517, 3.18398, 22.4313, -149.088, -87.646, 136.728
8.78377, 104, 11.8206, 3.78524, 22.1019, -148.914, -88.2446, 137.044
8.7918, 104, 11.7907, 4.3694, 21.7851, -148.741, -88.8257, 137.355
8.80021, 104, 11.762, 4.93712, 21.4807, -148.569, -89.3893, 137.658
8.80789, 104, 11.7348, 5.48798, 21.1876, -148.4, -89.9375, 137.954
8.81654, 104, 11.7087, 6.02139, 20.9068, -148.232, -90.4698, 138.243
8.82404, 104, 11.6837, 6.53808, 20.6377, -148.067, -90.9855, 138.525
8.83204, 104, 11.6599, 7.03775, 20.38, -147.904, -91.4848, 138.8
8.84015, 104, 11.6372, 7.52032, 20.1341, -147.743, -91.9667, 139.066
8.84884, 104, 11.6263, 7.98663, 19.8989, -147.586, -92.4315, 139.326
8.85604, 104, 11.6054, 8.21348, 19.7853, -147.508, -92.6579, 139.453
8.86477, 104, 11.5857, 8.65465, 19.5666, -147.355, -93.098, 139.822
8.87145, 104, 11.5671, 9.07811, 19.3587, -147.206, -93.5217, 139.94
8.87952, 104, 11.5495, 9.48465, 19.1606, -147.061, -93.928, 140.172
8.88751, 104, 11.5332, 9.87317, 18.9733, -146.92, -94.3176, 140.394
8.89545, 104, 11.5178, 10.2437, 18.7969, -146.784, -94.6891, 140.608
8.90345, 104, 11.5035, 10.5949, 18.6307, -146.653, -95.0424, 140.812
8.9115, 104, 11.4902, 10.9271, 18.4748, -146.527, -95.3763, 141.006
8.91952, 104, 11.4779, 11.2394, 18.3301, -146.408, -95.6903, 141.189
8.92746, 104, 11.4666, 11.5309, 18.1959, -146.295, -95.9839, 141.361
8.93697, 104, 11.4518, 11.9293, 18.0143, -146.139, -96.3846, 141.597
8.94511, 104, 11.4428, 12.1681, 17.9066, -146.045, -96.6246, 141.739
8.95144, 104, 11.4386, 12.2797, 17.8567, -146.001, -96.7365, 141.805
8.96109, 104, 11.4271, 12.5829, 17.7225, -145.88, -97.0389, 141.985
8.9675, 104, 11.4237, 12.6734, 17.6829, -145.844, -97.1287, 142.039
8.97545, 104, 11.4175, 12.8384, 17.6114, -145.779, -97.2916, 142.136
8.98505, 104, 11.4119, 12.9833, 17.5497, -145.722, -97.4951, 142.258
8.99145, 104, 11.4068, 13.1089, 17.4976, -145.673, -97.5523, 142.292
9.00047, 104, 11.4021, 13.2157, 17.4545, -145.633, -97.6513, 142.351
9.00753, 104, 11.3979, 13.3048, 17.4196, -145.601, -97.7313, 142.399
9.01544, 104, 11.3941, 13.3781, 17.3923, -145.575, -97.7934, 142.437
9.02345, 104, 11.3905, 13.4374, 17.372, -145.555, -97.8395, 142.465
9.03154, 104, 11.3874, 13.4845, 17.3573, -145.541, -97.8728, 142.485
9.03957, 104, 11.3849, 13.5203, 17.3472, -145.532, -97.8959, 142.498
9.04746, 104, 11.3829, 13.5471, 17.3408, -145.525, -97.9111, 142.507
9.05551, 104, 11.3812, 13.5668, 17.3368, -145.522, -97.9201, 142.512
9.06345, 104, 11.38, 13.5806, 17.3345, -145.52, -97.925, 142.514
9.07144, 104, 11.379, 13.5899, 17.3333, -145.519, -97.9275, 142.515
9.07955, 105, 11.3783, 13.5962, 17.3328, -145.518, -97.9286, 142.516
9.08746, 105, 11.3778, 13.6003, 17.3325, -145.518, -97.9291, 142.516
9.09544, 105, 11.3774, 13.6031, 17.3324, -145.518, -97.9293, 142.516
9.10352, 105, 11.3771, 13.6052, 17.3323, -145.518, -97.9295, 142.517
9.11145, 105, 11.3769, 13.6071, 17.3323, -145.518, -97.9295, 142.517
9.11952, 105, 11.3768, 13.6086, 17.3323, -145.518, -97.9295, 142.517
9.12752, 105, 11.3766, 13.61, 17.3323, -145.518, -97.9295, 142.517
9.13551, 105, 11.3765, 13.6113, 17.3323, -145.518, -97.9293, 142.517
9.14346, 105, 11.3764, 13.6122, 17.3323, -145.518, -97.9292, 142.517
9.15154, 105, 11.3764, 13.6131, 17.3323, -145.518, -97.9291, 142.517
9.15952, 105, 11.3763, 13.6137, 17.3324, -145.518, -97.929, 142.517
9.16759, 105, 11.3763, 13.6142, 17.3324, -145.518, -97.9288, 142.517
9.17552, 105, 11.3763, 13.6145, 17.3324, -145.518, -97.9287, 142.517
9.18348, 105, 11.3763, 13.6147, 17.3325, -145.518, -97.9286, 142.517
9.19153, 105, 11.3763, 13.6147, 17.3325, -145.518, -97.9285, 142.517
