hehonglu123/Motion-Primitive-Planning/ILC/recorded_data/realrobot/from_NX/iteration_26/run_2.csv
timestamp, cmd_num, J1, J2, J3, J4, J5, J6
0.000423, -1, 39.6291, 32.4472, 11.8317, 12.5444, 113.713, -48.873
0.003728, -1, 39.6291, 32.4472, 11.8317, 12.5444, 113.713, -48.873
0.007928, -1, 39.6291, 32.4472, 11.8317, 12.5444, 113.713, -48.873
0.028721, -1, 39.6291, 32.4472, 11.8317, 12.5444, 113.713, -48.8731
0.029927, -1, 39.6291, 32.4472, 11.8317, 12.5444, 113.713, -48.8731
0.03261, -1, 39.6291, 32.4472, 11.8317, 12.5444, 113.713, -48.8731
0.039797, -1, 39.6291, 32.4472, 11.8317, 12.5444, 113.713, -48.8731
0.047697, -1, 39.6289, 32.4471, 11.8317, 12.5444, 113.713, -48.8731
0.055964, -1, 39.6276, 32.447, 11.8317, 12.5444, 113.713, -48.8731
0.063725, -1, 39.6239, 32.4462, 11.8316, 12.5444, 113.713, -48.8732
0.071835, -1, 39.6169, 32.4441, 11.8316, 12.5444, 113.713, -48.8739
0.079836, -1, 39.6061, 32.4401, 11.8315, 12.5444, 113.712, -48.8765
0.088699, -1, 39.5899, 32.4333, 11.8315, 12.5443, 113.709, -48.8841
0.096005, -1, 39.566, 32.4228, 11.8317, 12.5443, 113.704, -48.8996
0.102689, -1, 39.5505, 32.4159, 11.832, 12.5443, 113.7, -48.9112
0.112831, -1, 39.4889, 32.3874, 11.8361, 12.5443, 113.679, -48.9675
0.120242, -1, 39.4334, 32.3603, 11.8426, 12.5443, 113.656, -49.028
0.128207, -1, 39.3648, 32.3263, 11.853, 12.5443, 113.624, -49.1106
0.137137, -1, 39.2826, 32.2847, 11.8683, 12.5445, 113.582, -49.2173
0.142767, -1, 39.2364, 32.2609, 11.8778, 12.5447, 113.557, -49.2805
0.152314, -1, 39.0766, 32.1777, 11.9131, 12.5457, 113.468, -49.5078
0.161147, -1, 38.9526, 32.1125, 11.9418, 12.5468, 113.397, -49.6895
0.166768, -1, 38.8857, 32.0773, 11.9576, 12.5476, 113.357, -49.7883
0.176337, -1, 38.7429, 32.0019, 11.9916, 12.5495, 113.229, -50.1125
0.183695, -1, 38.5885, 31.9207, 12.0279, 12.5516, 113.184, -50.228
0.323825, -1, 35.306, 30.2352, 12.7066, 12.5956, 111.401, -54.737
0.325736, -1, 35.2098, 30.1861, 12.7261, 12.5969, 111.35, -54.8673
0.327094, -1, 35.2098, 30.1861, 12.7261, 12.5969, 111.35, -54.8673
0.3284, -1, 35.2098, 30.1861, 12.7261, 12.5969, 111.35, -54.8673
0.330462, -1, 35.1136, 30.1369, 12.7455, 12.5982, 111.298, -54.9977
0.331717, -1, 35.1136, 30.1369, 12.7455, 12.5982, 111.298, -54.9977
0.332917, -1, 35.1136, 30.1369, 12.7455, 12.5982, 111.298, -54.9977
0.336798, -1, 35.0173, 30.0877, 12.765, 12.5995, 111.247, -55.1282
0.338897, -1, 34.9212, 30.0385, 12.7844, 12.6008, 111.195, -55.2585
0.34032, -1, 34.9212, 30.0385, 12.7844, 12.6008, 111.195, -55.2585
0.343088, -1, 34.825, 29.9892, 12.8039, 12.6021, 111.143, -55.3887
0.34447, -1, 34.825, 29.9892, 12.8039, 12.6021, 111.143, -55.3887
0.347197, -1, 34.7289, 29.94, 12.8232, 12.6033, 111.092, -55.519
0.348433, -1, 34.7289, 29.94, 12.8232, 12.6033, 111.092, -55.519
0.352501, -1, 34.6328, 29.8907, 12.8426, 12.6046, 111.04, -55.6495
0.354552, -1, 34.5367, 29.8415, 12.8621, 12.6058, 110.989, -55.7799
0.35583, -1, 34.5367, 29.8415, 12.8621, 12.6058, 110.989, -55.7799
0.357027, -1, 34.5367, 29.8415, 12.8621, 12.6058, 110.989, -55.7799
0.359286, -1, 34.4406, 29.7922, 12.8816, 12.6071, 110.938, -55.9103
0.360554, -1, 34.4406, 29.7922, 12.8816, 12.6071, 110.938, -55.9103
0.362679, -1, 34.3445, 29.743, 12.9011, 12.6085, 110.886, -56.0408
0.363886, -1, 34.3445, 29.743, 12.9011, 12.6085, 110.886, -56.0408
0.371659, -1, 34.1524, 29.6446, 12.94, 12.611, 110.783, -56.3017
0.375677, -1, 34.0565, 29.5955, 12.9594, 12.6123, 110.731, -56.4321
0.383678, -1, 33.8647, 29.4972, 12.9984, 12.615, 110.628, -56.6928
0.391762, -1, 33.673, 29.3989, 13.0372, 12.6176, 110.525, -56.9537
0.399682, -1, 33.481, 29.3005, 13.0761, 12.6203, 110.422, -57.2148
0.407695, -1, 33.2886, 29.2021, 13.1151, 12.6228, 110.319, -57.4758
0.415789, -1, 33.0959, 29.1035, 13.154, 12.6255, 110.216, -57.7367
0.423712, -1, 32.903, 29.0049, 13.1928, 12.6281, 110.113, -57.9977
0.431676, -1, 32.7098, 28.9063, 13.2318, 12.6308, 110.01, -58.259
0.439757, -1, 32.5165, 28.8076, 13.2707, 12.6335, 109.907, -58.5203
0.447693, -1, 32.3227, 28.7089, 13.3095, 12.6362, 109.804, -58.7812
0.455797, -1, 32.1286, 28.6103, 13.3485, 12.6388, 109.701, -59.0422
0.463871, -1, 31.9346, 28.5115, 13.3873, 12.6415, 109.597, -59.3034
0.471699, -1, 31.7409, 28.4126, 13.4263, 12.6442, 109.494, -59.5649
0.479743, -1, 31.5472, 28.3139, 13.4654, 12.647, 109.391, -59.8262
0.488508, -1, 31.354, 28.2153, 13.5043, 12.6498, 109.288, -60.0874
0.495702, -1, 31.1612, 28.1168, 13.5433, 12.6526, 109.185, -60.3487
0.503805, -1, 30.9688, 28.0183, 13.5824, 12.6555, 109.082, -60.6103
0.512574, -1, 30.7766, 27.9197, 13.6213, 12.6583, 108.979, -60.8716
0.519773, -1, 30.5847, 27.8211, 13.6603, 12.6611, 108.876, -61.1329
0.527848, -1, 30.3928, 27.7225, 13.6993, 12.6639, 108.772, -61.3943
0.536583, -1, 30.2007, 27.6237, 13.7382, 12.6666, 108.669, -61.656
0.543787, -1, 30.0083, 27.5249, 13.7773, 12.6693, 108.566, -61.9176
0.551854, -1, 29.8155, 27.4262, 13.8163, 12.672, 108.463, -62.1792
0.560602, -1, 29.6223, 27.3274, 13.8551, 12.6747, 108.36, -62.4408
0.567733, -1, 29.4285, 27.2287, 13.8941, 12.6773, 108.256, -62.7027
0.575776, -1, 29.2344, 27.1298, 13.9331, 12.68, 108.153, -62.9646
0.585145, -1, 29.04, 27.0309, 13.972, 12.6825, 108.05, -63.2259
0.591982, -1, 28.8456, 26.932, 14.011, 12.6851, 107.946, -63.4872
0.600721, -1, 28.6515, 26.8331, 14.0499, 12.6876, 107.843, -63.749
0.60809, -1, 28.4574, 26.7343, 14.089, 12.6901, 107.74, -64.0108
0.616104, -1, 28.2638, 26.6357, 14.128, 12.6926, 107.636, -64.2723
0.622671, -1, 28.1671, 26.5863, 14.1475, 12.6938, 107.585, -64.4031
0.630786, -1, 27.9741, 26.4874, 14.1865, 12.6962, 107.481, -64.6649
0.640466, -1, 27.6849, 26.3391, 14.245, 12.7, 107.326, -65.0578
0.649064, -1, 27.4926, 26.2402, 14.2839, 12.7024, 107.223, -65.3194
0.656382, -1, 27.3005, 26.1412, 14.323, 12.7048, 107.12, -65.581
0.664318, -1, 27.1083, 26.0422, 14.3619, 12.7071, 107.016, -65.8428
0.673103, -1, 27.012, 25.9928, 14.3813, 12.7083, 106.913, -66.1044
0.678737, -1, 26.8193, 25.894, 14.4203, 12.7106, 106.861, -66.2355
0.688753, -1, 26.5295, 25.7457, 14.4787, 12.714, 106.706, -66.6279
0.69572, -1, 26.4328, 25.6963, 14.4981, 12.7152, 106.655, -66.7588
0.703662, -1, 26.239, 25.5974, 14.5371, 12.7174, 106.552, -67.0206
0.711719, -1, 26.0449, 25.4985, 14.5761, 12.7197, 106.449, -67.2827
0.71968, -1, 25.8506, 25.3997, 14.615, 12.722, 106.345, -67.5443
0.726677, -1, 25.6564, 25.3009, 14.6541, 12.7243, 106.242, -67.8057
0.735681, -1, 25.4624, 25.2021, 14.693, 12.7265, 106.139, -68.0673
0.743666, -1, 25.2686, 25.1034, 14.732, 12.7289, 106.036, -68.3291
0.750678, -1, 25.0752, 25.0047, 14.7711, 12.7311, 105.932, -68.5911
0.759708, -1, 24.882, 24.9058, 14.8101, 12.7335, 105.829, -68.8525
0.767664, -1, 24.689, 24.807, 14.849, 12.7359, 105.726, -69.1143
0.906951, -1, 21.3104, 23.0778, 15.5307, 12.7792, 103.918, -73.6924
0.908164, -1, 21.3104, 23.0778, 15.5307, 12.7792, 103.918, -73.6924
0.909445, -1, 21.3104, 23.0778, 15.5307, 12.7792, 103.918, -73.6924
0.911523, -1, 21.2142, 23.0285, 15.5502, 12.7806, 103.866, -73.8233
0.912785, -1, 21.2142, 23.0285, 15.5502, 12.7806, 103.866, -73.8233
0.915309, -1, 21.118, 22.9792, 15.5697, 12.7819, 103.815, -73.9542
0.916534, -1, 21.118, 22.9792, 15.5697, 12.7819, 103.815, -73.9542
0.919785, -1, 21.0218, 22.9299, 15.5891, 12.7833, 103.763, -74.0848
0.921122, -1, 21.0218, 22.9299, 15.5891, 12.7833, 103.763, -74.0848
0.924388, -1, 20.9255, 22.8805, 15.6085, 12.7846, 103.712, -74.2154
0.925579, -1, 20.9255, 22.8805, 15.6085, 12.7846, 103.712, -74.2154
0.927675, -1, 20.8293, 22.8312, 15.628, 12.7859, 103.66, -74.346
0.928869, -1, 20.8293, 22.8312, 15.628, 12.7859, 103.66, -74.346
0.930905, -1, 20.733, 22.7819, 15.6475, 12.7873, 103.608, -74.4766
0.932137, -1, 20.733, 22.7819, 15.6475, 12.7873, 103.608, -74.4766
0.935631, -1, 20.6367, 22.7327, 15.667, 12.7887, 103.557, -74.6072
0.936848, -1, 20.6367, 22.7327, 15.667, 12.7887, 103.557, -74.6072
0.939725, -1, 20.5404, 22.6833, 15.6864, 12.79, 103.505, -74.7379
0.941006, -1, 20.5404, 22.6833, 15.6864, 12.79, 103.505, -74.7379
0.943118, -1, 20.4439, 22.634, 15.7058, 12.7914, 103.454, -74.8685
0.944321, -1, 20.4439, 22.634, 15.7058, 12.7914, 103.454, -74.8685
0.945601, -1, 20.4439, 22.634, 15.7058, 12.7914, 103.454, -74.8685
0.956734, -1, 20.1537, 22.486, 15.7642, 12.7954, 103.299, -75.2605
0.959737, -1, 20.0568, 22.4366, 15.7836, 12.7968, 103.248, -75.391
0.967656, -1, 19.8633, 22.3379, 15.8223, 12.7996, 103.145, -75.6521
0.975733, -1, 19.6696, 22.2392, 15.8611, 12.8023, 103.042, -75.9134
0.983675, -1, 19.4762, 22.1406, 15.9001, 12.805, 102.939, -76.1747
0.991672, -1, 19.283, 22.042, 15.9389, 12.8077, 102.836, -76.4356
0.999933, -1, 19.0901, 21.9433, 15.9778, 12.8105, 102.733, -76.6965
1.00773, -1, 18.8974, 21.8447, 16.0167, 12.8132, 102.629, -76.9573
1.01575, -1, 18.705, 21.7459, 16.0554, 12.8159, 102.527, -77.2184
1.02408, -1, 18.5131, 21.6473, 16.0942, 12.8186, 102.424, -77.4793
1.03122, -1, 18.3213, 21.5487, 16.1332, 12.8214, 102.321, -77.7399
1.03976, -1, 18.1294, 21.4502, 16.1719, 12.824, 102.218, -78.0007
1.0483, -1, 17.9375, 21.3518, 16.2108, 12.8265, 102.115, -78.2616
1.05566, -1, 17.7457, 21.2535, 16.2498, 12.829, 102.012, -78.5223
1.06368, -1, 17.5534, 21.1552, 16.2886, 12.8316, 101.909, -78.7828
1.07248, -1, 17.3608, 21.0569, 16.3274, 12.8341, 101.806, -79.0432
1.0798, -1, 17.1677, 20.9586, 16.3662, 12.8365, 101.703, -79.3038
1.08785, -1, 16.9747, 20.8603, 16.405, 12.8389, 101.601, -79.5644
1.0967, -1, 16.7816, 20.7621, 16.4438, 12.8413, 101.498, -79.8248
1.10389, -1, 16.5886, 20.6639, 16.4826, 12.8436, 101.395, -80.0853
1.11209, -1, 16.3956, 20.5656, 16.5213, 12.846, 101.292, -80.3459
1.11866, -1, 16.2992, 20.5165, 16.5406, 12.8471, 101.241, -80.4762
1.12811, -1, 16.011, 20.3689, 16.5988, 12.8505, 101.087, -80.8669
1.13465, -1, 15.9151, 20.3197, 16.6181, 12.8517, 101.036, -80.9969
1.14509, -1, 15.6276, 20.1719, 16.6762, 12.8552, 100.882, -81.3869
1.15223, -1, 15.4364, 20.0736, 16.7147, 12.8575, 100.779, -81.6471
1.1603, -1, 15.2452, 19.9753, 16.7535, 12.8599, 100.677, -81.9072
1.1691, -1, 15.1496, 19.8771, 16.7923, 12.862, 100.574, -82.167
1.17472, -1, 14.9584, 19.828, 16.8116, 12.8632, 100.523, -82.2969
1.18466, -1, 14.6713, 19.6808, 16.8696, 12.8667, 100.369, -82.6867
1.19166, -1, 14.5756, 19.6317, 16.889, 12.8678, 100.318, -82.8168
1.19871, -1, 14.3838, 19.5336, 16.9277, 12.8701, 100.215, -83.0766
1.20785, -1, 14.1915, 19.4356, 16.9664, 12.8724, 100.112, -83.3361
1.21565, -1, 13.9992, 19.3376, 17.0052, 12.8747, 100.01, -83.5956
1.22269, -1, 13.8068, 19.2398, 17.0437, 12.877, 99.9074, -83.8554
1.23169, -1, 13.6144, 19.142, 17.0824, 12.8793, 99.8049, -84.1149
1.23965, -1, 13.422, 19.0441, 17.1211, 12.8816, 99.7023, -84.3741
1.2477, -1, 13.23, 18.9461, 17.1595, 12.8839, 99.6002, -84.6334
1.25567, -1, 13.0384, 18.8482, 17.1981, 12.8862, 99.4977, -84.8927
1.26369, -1, 12.8471, 18.7502, 17.2368, 12.8885, 99.3952, -85.1521
1.27173, -1, 12.6561, 18.6523, 17.2753, 12.8909, 99.2931, -85.4111
1.27965, -1, 12.4655, 18.5545, 17.3139, 12.8934, 99.1907, -85.67
1.28765, -1, 12.2752, 18.4567, 17.3524, 12.8957, 99.0884, -85.9289
1.29574, -1, 12.0851, 18.359, 17.3909, 12.8982, 98.9864, -86.188
1.30365, -1, 11.8948, 18.2614, 17.4295, 12.9006, 98.8842, -86.4467
1.31265, -1, 11.7043, 18.1637, 17.4681, 12.903, 98.7823, -86.7052
1.31964, -1, 11.5135, 18.0661, 17.5066, 12.9055, 98.6806, -86.9639
1.32765, -1, 11.3224, 17.9685, 17.5452, 12.9079, 98.5785, -87.2226
1.33656, -1, 11.1311, 17.871, 17.5838, 12.9103, 98.4766, -87.481
1.34364, -1, 10.9397, 17.7735, 17.6222, 12.9128, 98.3748, -87.7392
1.35167, -1, 10.7481, 17.6761, 17.6607, 12.9153, 98.2727, -87.9974
1.3605, -1, 10.5565, 17.5786, 17.6991, 12.9178, 98.1709, -88.2558
1.36666, -1, 10.3653, 17.4811, 17.7375, 12.9204, 98.0691, -88.5141
1.37565, -1, 10.1742, 17.3835, 17.776, 12.9229, 97.9671, -88.7722
1.38443, -1, 9.98362, 17.2859, 17.8144, 12.9256, 97.8654, -89.0303
1.39166, -1, 9.79329, 17.1883, 17.8527, 12.9282, 97.7634, -89.2883
1.39966, -1, 9.60331, 17.0908, 17.891, 12.9309, 97.6614, -89.5465
1.40844, -1, 9.41396, 16.9935, 17.9293, 12.9337, 97.5597, -89.8042
1.41564, -1, 9.22463, 16.8961, 17.9677, 12.9364, 97.4576, -90.0618
1.42368, -1, 9.03525, 16.7988, 18.0061, 12.939, 97.3558, -90.3193
1.43248, -1, 8.84584, 16.7017, 18.0443, 12.9416, 97.2542, -90.5769
1.43964, -1, 8.65624, 16.6045, 18.0828, 12.9443, 97.1524, -90.8344
1.44765, -1, 8.46657, 16.5074, 18.1212, 12.9469, 97.0509, -91.0914
1.45646, -1, 8.27652, 16.4103, 18.1594, 12.9497, 96.9495, -91.3487
1.46367, -1, 8.0861, 16.3134, 18.1978, 12.9523, 96.8478, -91.6059
1.47167, -1, 7.89562, 16.2165, 18.2361, 12.955, 96.7463, -91.8631
1.48045, -1, 7.70511, 16.1196, 18.2743, 12.9576, 96.645, -92.1199
1.48764, -1, 7.51461, 16.0226, 18.3126, 12.9602, 96.5433, -92.3765
1.49584, -1, 7.32439, 15.9257, 18.3508, 12.9628, 96.442, -92.6333
1.50454, -1, 7.13439, 15.8287, 18.3889, 12.9653, 96.3408, -92.8903
1.51173, -1, 6.94469, 15.7317, 18.4272, 12.968, 96.2393, -93.1467
1.52004, -1, 6.75547, 15.6348, 18.4654, 12.9705, 96.1384, -93.4032
1.52857, -1, 6.56678, 15.538, 18.5034, 12.9731, 96.0376, -93.6595
1.53574, -1, 6.37842, 15.4413, 18.5415, 12.9756, 95.9365, -93.916
1.54416, -1, 6.19029, 15.3446, 18.5797, 12.9781, 95.8355, -94.1722
1.55124, -1, 6.09622, 15.2962, 18.5987, 12.9794, 95.7346, -94.4281
1.55924, -1, 5.90793, 15.1995, 18.6369, 12.9817, 95.6841, -94.6839
1.56842, -1, 5.62531, 15.0546, 18.6941, 12.9852, 95.5328, -94.94
1.57665, -1, 5.43672, 14.958, 18.7321, 12.9875, 95.4321, -95.1958
1.58367, -1, 5.24778, 14.8615, 18.7704, 12.9898, 95.3313, -95.4512
1.59265, -1, 5.05842, 14.7652, 18.8084, 12.9921, 95.2308, -95.7067
1.60071, -1, 4.86906, 14.6688, 18.8464, 12.9944, 95.13, -95.9623
1.60791, -1, 4.67971, 14.5724, 18.8845, 12.9965, 95.0292, -96.2177
1.61671, -1, 4.49039, 14.476, 18.9226, 12.9988, 94.9286, -96.4726
1.62414, -1, 4.30139, 14.3797, 18.9606, 13.001, 94.8277, -96.7275
1.63216, -1, 4.11251, 14.2833, 18.9986, 13.0032, 94.7268, -96.9825
1.64097, -1, 3.92409, 14.187, 19.0365, 13.0056, 94.6261, -97.2378
1.64827, -1, 3.73635, 14.0908, 19.0745, 13.0077, 94.5252, -97.4926
1.65625, -1, 3.54901, 13.9946, 19.1125, 13.01, 94.4245, -97.7474
1.6642, -1, 3.362, 13.8985, 19.1503, 13.0124, 94.324, -98.002
1.67241, -1, 3.26848, 13.8505, 19.1881, 13.0146, 94.2232, -98.2568
1.68026, -1, 3.08145, 13.7545, 19.2071, 13.0168, 94.1225, -98.5114
1.68764, -1, 2.89446, 13.6584, 19.245, 13.018, 94.0723, -98.6385
1.69563, -1, 2.70742, 13.5624, 19.2829, 13.0202, 93.9717, -98.8926
1.70368, -1, 2.52011, 13.4664, 19.3208, 13.0224, 93.8712, -99.1467
1.71168, -1, 2.33263, 13.3705, 19.3586, 13.0248, 93.7709, -99.4009
1.71963, -1, 2.14479, 13.2747, 19.3964, 13.027, 93.6705, -99.6549
1.72768, -1, 1.95669, 13.1788, 19.4344, 13.0292, 93.5703, -99.9084
1.73564, -1, 1.76856, 13.083, 19.4721, 13.0315, 93.4705, -100.162
1.74363, -1, 1.58026, 12.9872, 19.5098, 13.0337, 93.3704, -100.416
1.7517, -1, 1.39218, 12.8914, 19.5477, 13.036, 93.2703, -100.669
1.75967, -1, 1.20441, 12.7955, 19.5855, 13.0383, 93.1704, -100.923
1.76768, -1, 1.01692, 12.6998, 19.6232, 13.0407, 93.0703, -101.176
1.7772, -1, 0.736993, 12.5565, 19.6798, 13.0442, 92.9205, -101.555
1.78363, -1, 0.643906, 12.5086, 19.6986, 13.0454, 92.8707, -101.682
1.79164, -1, 0.457978, 12.4131, 19.7362, 13.0479, 92.7709, -101.935
1.79972, -1, 0.272288, 12.3178, 19.7739, 13.0504, 92.6712, -102.187
1.80771, -1, 0.0868739, 12.2224, 19.8115, 13.0528, 92.572, -102.44
1.81565, -1, -0.0985414, 12.127, 19.849, 13.0552, 92.4721, -102.693
1.82463, -1, -0.284152, 12.0318, 19.8867, 13.0577, 92.3725, -102.945
1.83164, -1, -0.470078, 11.9366, 19.9243, 13.0602, 92.2733, -103.197
1.83963, -1, -0.656341, 11.8415, 19.9618, 13.0627, 92.1737, -103.449
1.84767, -1, -0.842763, 11.7466, 19.9994, 13.0651, 92.0742, -103.701
1.85564, -1, -1.0294, 11.6515, 20.0368, 13.0677, 91.975, -103.953
1.86366, -1, -1.21629, 11.5565, 20.0743, 13.0702, 91.8756, -104.205
1.87164, -1, -1.40329, 11.4614, 20.1118, 13.0727, 91.7764, -104.457
1.87963, -1, -1.58998, 11.3663, 20.1493, 13.0752, 91.6773, -104.708
1.8877, -1, -1.77635, 11.2712, 20.1867, 13.0778, 91.578, -104.96
1.89563, -1, -1.96237, 11.1762, 20.2242, 13.0804, 91.4789, -105.211
1.90365, -1, -2.14779, 11.0813, 20.2615, 13.083, 91.3797, -105.462
1.9117, -1, -2.33273, 10.9864, 20.2989, 13.0857, 91.2805, -105.713
1.91963, -1, -2.51741, 10.8915, 20.3363, 13.0884, 91.1814, -105.964
1.92767, -1, -2.70155, 10.7968, 20.3736, 13.091, 91.0823, -106.215
1.93573, -1, -2.8854, 10.7021, 20.4109, 13.0937, 90.9833, -106.466
1.94364, -1, -3.06938, 10.6073, 20.4483, 13.0962, 90.8843, -106.716
1.95164, -1, -3.25354, 10.5127, 20.4856, 13.0989, 90.7854, -106.967
1.9597, -1, -3.43801, 10.4182, 20.5228, 13.1014, 90.6865, -107.218
1.96764, -1, -3.62274, 10.3238, 20.5602, 13.104, 90.5877, -107.468
1.97571, -1, -3.80768, 10.2295, 20.5974, 13.1065, 90.4889, -107.718
1.98366, -1, -3.99293, 10.1351, 20.6347, 13.1089, 90.3901, -107.968
1.9917, -1, -4.17825, 10.0408, 20.6719, 13.1114, 90.2916, -108.218
1.99978, -1, -4.36396, 9.94645, 20.709, 13.1137, 90.1928, -108.468
2.00766, -1, -4.54944, 9.85207, 20.7463, 13.1162, 90.0943, -108.717
2.01572, -1, -4.73455, 9.75781, 20.7836, 13.1185, 89.9959, -108.967
2.02396, -1, -4.91931, 9.66361, 20.8206, 13.121, 89.8974, -109.216
2.03175, -1, -5.10349, 9.56954, 20.8577, 13.1233, 89.7989, -109.466
2.03974, -1, -5.28699, 9.47545, 20.8949, 13.1256, 89.7007, -109.715
2.04816, -1, -5.47014, 9.38151, 20.9319, 13.128, 89.6022, -109.964
2.05527, -1, -5.56154, 9.33456, 20.9504, 13.1292, 89.5038, -110.213
2.06364, -1, -5.83523, 9.19364, 21.0061, 13.1326, 89.4058, -110.461
2.07241, -1, -6.01754, 9.09977, 21.043, 13.1349, 89.3076, -110.71
2.07971, -1, -6.20007, 9.00594, 21.0801, 13.137, 89.2095, -110.959
2.08771, -1, -6.38293, 8.91222, 21.1171, 13.1393, 89.1118, -111.207
2.09663, -1, -6.56597, 8.8186, 21.154, 13.1414, 89.0137, -111.455
2.10389, -1, -6.74933, 8.72493, 21.1908, 13.1436, 88.9156, -111.704
2.11192, -1, -6.9331, 8.63134, 21.2278, 13.1457, 88.8179, -111.952
2.12082, -1, -7.11708, 8.53774, 21.2647, 13.1479, 88.7199, -112.199
2.12804, -1, -7.3014, 8.44417, 21.3015, 13.15, 88.6221, -112.447
2.13463, -1, -7.39343, 8.39735, 21.32, 13.1511, 88.5732, -112.571
2.14494, -1, -7.66902, 8.25697, 21.3752, 13.1543, 88.4269, -112.942
2.15228, -1, -7.85227, 8.16353, 21.412, 13.1565, 88.3294, -113.189
2.16023, -1, -8.03521, 8.07011, 21.4489, 13.1588, 88.2322, -113.437
2.16898, -1, -8.21744, 7.97681, 21.4856, 13.161, 88.1347, -113.684
2.17629, -1, -8.3083, 7.93016, 21.5224, 13.1632, 88.0373, -113.931
2.18426, -1, -8.48967, 7.83692, 21.5408, 13.1654, 87.94, -114.178
2.19162, -1, -8.67072, 7.74376, 21.5776, 13.1665, 87.8913, -114.301
2.19963, -1, -8.85147, 7.65058, 21.6143, 13.1688, 87.7938, -114.547
2.20767, -1, -9.03217, 7.55753, 21.6511, 13.171, 87.6964, -114.794
2.21572, -1, -9.21315, 7.46451, 21.6878, 13.1733, 87.5993, -115.04
2.22267, -1, -9.39445, 7.37166, 21.7244, 13.1756, 87.5021, -115.287
2.23167, -1, -9.57611, 7.27879, 21.7611, 13.1777, 87.4049, -115.533
2.23961, -1, -9.758, 7.18598, 21.7978, 13.18, 87.3079, -115.778
2.24663, -1, -9.94034, 7.09323, 21.8343, 13.1822, 87.2106, -116.025
2.25562, -1, -10.1228, 7.00049, 21.8709, 13.1844, 87.1134, -116.271
2.26365, -1, -10.3056, 6.90771, 21.9076, 13.1867, 87.0164, -116.516
2.27172, -1, -10.4881, 6.81495, 21.9441, 13.1889, 86.9192, -116.762
2.27963, -1, -10.6705, 6.72221, 21.9807, 13.1911, 86.8221, -117.007
2.28762, -1, -10.8522, 6.62963, 22.0172, 13.1936, 86.7254, -117.253
2.29568, -1, -11.0335, 6.53704, 22.0536, 13.196, 86.6284, -117.498
2.30364, -1, -11.214, 6.44451, 22.0902, 13.1984, 86.5317, -117.743
2.31163, -1, -11.3939, 6.35203, 22.1267, 13.2008, 86.4352, -117.987
2.32062, -1, -11.5735, 6.25959, 22.1631, 13.2032, 86.3384, -118.232
2.32762, -1, -11.7528, 6.16714, 22.1997, 13.2057, 86.2418, -118.477
2.33561, -1, -11.9321, 6.07484, 22.2362, 13.2082, 86.1452, -118.721
2.34376, -1, -12.1113, 5.98259, 22.2725, 13.2106, 86.0485, -118.966
2.35164, -1, -12.2908, 5.89051, 22.309, 13.2131, 85.9521, -119.21
2.35968, -1, -12.4707, 5.79845, 22.3453, 13.2156, 85.8559, -119.454
2.36761, -1, -12.6509, 5.70642, 22.3815, 13.2181, 85.7595, -119.698
2.37561, -1, -12.8316, 5.61441, 22.4179, 13.2205, 85.6634, -119.942
2.38368, -1, -13.0126, 5.52252, 22.4542, 13.223, 85.5676, -120.185
2.39163, -1, -13.1938, 5.43048, 22.4904, 13.2254, 85.4715, -120.429
2.4009, -1, -13.375, 5.33847, 22.5267, 13.2278, 85.3756, -120.673
2.40761, -1, -13.5558, 5.24656, 22.563, 13.2303, 85.28, -120.916
2.41568, -1, -13.7363, 5.15471, 22.599, 13.2329, 85.184, -121.159
2.42362, -1, -13.9162, 5.0629, 22.6352, 13.2355, 85.0882, -121.402
2.43166, -1, -14.0953, 4.97117, 22.6714, 13.238, 84.9929, -121.645
2.43971, -1, -14.2738, 4.87946, 22.7074, 13.2406, 84.897, -121.888
2.44762, -1, -14.4519, 4.78782, 22.7436, 13.2432, 84.8015, -122.131
2.45561, -1, -14.6296, 4.69619, 22.7798, 13.2458, 84.706, -122.373
2.46368, -1, -14.8073, 4.60466, 22.8159, 13.2482, 84.6102, -122.616
2.47166, -1, -14.985, 4.51317, 22.852, 13.2507, 84.5145, -122.858
2.47974, -1, -15.1628, 4.42178, 22.8882, 13.2531, 84.419, -123.1
2.4877, -1, -15.341, 4.33049, 22.9243, 13.2555, 84.3232, -123.342
2.49584, -1, -15.5197, 4.23914, 22.9602, 13.2579, 84.2276, -123.584
2.50362, -1, -15.6987, 4.14783, 22.9963, 13.2603, 84.1322, -123.826
2.51173, -1, -15.878, 4.05661, 23.0322, 13.2625, 84.0366, -124.067
2.51988, -1, -16.0573, 3.96534, 23.0682, 13.2648, 83.941, -124.309
2.52781, -1, -16.2371, 3.87404, 23.1043, 13.2669, 83.8458, -124.55
2.53578, -1, -16.4167, 3.78284, 23.1402, 13.2691, 83.7503, -124.791
2.54417, -1, -16.596, 3.69168, 23.1759, 13.2713, 83.6549, -125.033
2.5518, -1, -16.7746, 3.60059, 23.2118, 13.2735, 83.5596, -125.274
2.55961, -1, -16.9527, 3.50954, 23.2477, 13.2758, 83.4641, -125.515
2.5682, -1, -17.1299, 3.41852, 23.2835, 13.2779, 83.3688, -125.756
2.57571, -1, -17.3065, 3.3276, 23.3194, 13.2802, 83.2737, -125.996
2.58365, -1, -17.483, 3.2367, 23.3551, 13.2823, 83.1785, -126.237
2.59266, -1, -17.6591, 3.14591, 23.3909, 13.2845, 83.0836, -126.478
2.59989, -1, -17.8351, 3.05529, 23.4268, 13.2866, 82.9889, -126.718
2.60784, -1, -18.0112, 2.96471, 23.4627, 13.2887, 82.8941, -126.958
2.61669, -1, -18.1876, 2.87432, 23.4983, 13.2908, 82.7992, -127.198
2.62399, -1, -18.3643, 2.78387, 23.5341, 13.293, 82.7047, -127.438
2.63198, -1, -18.5415, 2.69345, 23.5698, 13.295, 82.6099, -127.678
2.63865, -1, -18.6303, 2.64825, 23.5876, 13.296, 82.5626, -127.797
2.64661, -1, -18.8079, 2.55792, 23.6233, 13.298, 82.468, -128.037
2.65638, -1, -19.0751, 2.4222, 23.6769, 13.301, 82.3264, -128.396
2.66493, -1, -19.2534, 2.3318, 23.7124, 13.303, 82.2319, -128.636
2.67221, -1, -19.4314, 2.24145, 23.748, 13.3051, 82.1379, -128.875
2.6802, -1, -19.5201, 2.19626, 23.7659, 13.3073, 82.0437, -129.114
2.68906, -1, -19.6971, 2.10589, 23.8013, 13.3084, 81.9967, -129.233
2.69565, -1, -19.8737, 2.01562, 23.8367, 13.3106, 81.9025, -129.472
2.7036, -1, -20.0494, 1.92538, 23.8723, 13.3128, 81.8086, -129.711
2.7116, -1, -20.2246, 1.83517, 23.9078, 13.3149, 81.7144, -129.949
2.71968, -1, -20.3996, 1.74502, 23.9432, 13.3171, 81.6203, -130.188
2.72761, -1, -20.5742, 1.65493, 23.9788, 13.3193, 81.5266, -130.426
2.7356, -1, -20.7486, 1.56493, 24.0143, 13.3214, 81.4326, -130.665
2.74262, -1, -20.9233, 1.47504, 24.0497, 13.3236, 81.3388, -130.903
2.7516, -1, -21.0982, 1.38533, 24.0852, 13.3259, 81.2452, -131.14
2.7596, -1, -21.2736, 1.29553, 24.1207, 13.3281, 81.1513, -131.378
2.76765, -1, -21.4493, 1.20582, 24.156, 13.3302, 81.0574, -131.616
2.77564, -1, -21.6254, 1.11621, 24.1913, 13.3324, 80.9637, -131.854
2.78366, -1, -21.8016, 1.02654, 24.2268, 13.3346, 80.8699, -132.091
2.7916, -1, -21.978, 0.936938, 24.2622, 13.3367, 80.776, -132.328
2.7996, -1, -22.1545, 0.84736, 24.2975, 13.3389, 80.6824, -132.565
2.80771, -1, -22.3311, 0.757806, 24.3329, 13.341, 80.5887, -132.803
2.8156, -1, -22.5071, 0.668323, 24.3681, 13.3433, 80.4951, -133.04
2.8246, -1, -22.6826, 0.578837, 24.4033, 13.3457, 80.4015, -133.276
2.83167, -1, -22.8576, 0.489408, 24.4386, 13.3481, 80.308, -133.513
2.8396, -1, -23.0316, 0.399977, 24.4738, 13.3505, 80.2144, -133.75
2.84762, -1, -23.2053, 0.310598, 24.5089, 13.353, 80.1208, -133.987
2.85567, -1, -23.3786, 0.221258, 24.5441, 13.3554, 80.0275, -134.223
2.8636, -1, -23.5517, 0.132022, 24.5793, 13.3578, 79.934, -134.46
2.8716, -1, -23.7249, 0.0428824, 24.6145, 13.3602, 79.8407, -134.696
2.87967, -1, -23.8983, -0.0461778, 24.6497, 13.3626, 79.7477, -134.932
2.8876, -1, -24.0718, -0.135107, 24.6848, 13.365, 79.6545, -135.168
2.89559, -1, -24.2456, -0.224121, 24.7198, 13.3675, 79.5614, -135.403
2.90368, -1, -24.4198, -0.313058, 24.755, 13.3699, 79.4686, -135.639
2.91161, -1, -24.5943, -0.401913, 24.7901, 13.3724, 79.3754, -135.875
2.91965, -1, -24.769, -0.49081, 24.8251, 13.3748, 79.2823, -136.111
2.92768, -1, -24.9441, -0.57971, 24.8602, 13.3772, 79.1895, -136.346
2.93563, -1, -25.1191, -0.668524, 24.8953, 13.3796, 79.0963, -136.581
2.94364, -1, -25.2938, -0.757303, 24.9302, 13.382, 79.0034, -136.816
2.95168, -1, -25.4681, -0.846101, 24.9652, 13.3843, 78.9109, -137.051
2.95959, -1, -25.642, -0.934878, 25.0002, 13.3869, 78.8181, -137.286
2.96759, -1, -25.8153, -1.02358, 25.035, 13.3894, 78.7254, -137.521
2.9757, -1, -25.9878, -1.11231, 25.07, 13.3917, 78.6331, -137.755
2.98362, -1, -26.1601, -1.20097, 25.105, 13.3942, 78.5405, -137.99
2.99168, -1, -26.332, -1.28954, 25.1398, 13.3966, 78.448, -138.224
2.99976, -1, -26.5037, -1.378, 25.1746, 13.3989, 78.3555, -138.459
3.00762, -1, -26.6757, -1.46633, 25.2097, 13.4011, 78.263, -138.693
3.01573, -1, -26.8478, -1.55461, 25.2446, 13.4035, 78.1706, -138.927
3.02399, -1, -27.0202, -1.64279, 25.2794, 13.4057, 78.0781, -139.161
3.0317, -1, -27.1927, -1.73099, 25.3143, 13.4079, 77.9862, -139.395
3.03977, -1, -27.3654, -1.81921, 25.3491, 13.4101, 77.8939, -139.629
3.04807, -1, -27.5385, -1.90728, 25.3838, 13.4122, 77.8019, -139.863
3.0557, -1, -27.7116, -1.99547, 25.4187, 13.4143, 77.7101, -140.096
3.06383, -1, -27.885, -2.0836, 25.4536, 13.4164, 77.6179, -140.329
3.07237, -1, -28.0583, -2.17159, 25.4883, 13.4184, 77.5258, -140.563
3.07964, -1, -28.2315, -2.25962, 25.523, 13.4205, 77.4339, -140.796
3.0877, -1, -28.4044, -2.3477, 25.5579, 13.4226, 77.3418, -141.029
3.09655, -1, -28.5771, -2.43568, 25.5925, 13.4247, 77.2496, -141.262
3.10414, -1, -28.7491, -2.52363, 25.6272, 13.4268, 77.1578, -141.495
3.11059, -1, -28.8349, -2.56766, 25.6446, 13.4279, 77.1117, -141.611
3.12073, -1, -29.0913, -2.69963, 25.6965, 13.4312, 76.9738, -141.96
3.12801, -1, -29.2619, -2.78748, 25.7311, 13.4332, 76.8821, -142.193
3.1346, -1, -29.3472, -2.83139, 25.7485, 13.4342, 76.8362, -142.309
3.14494, -1, -29.6033, -2.96291, 25.8004, 13.4373, 76.6984, -142.658
3.15218, -1, -29.7743, -3.05046, 25.835, 13.4394, 76.6066, -142.89
3.16014, -1, -29.9453, -3.13797, 25.8696, 13.4415, 76.5147, -143.122
3.1682, -1, -30.1163, -3.22543, 25.9041, 13.4436, 76.4229, -143.354
3.17619, -1, -30.2873, -3.31295, 25.9387, 13.4456, 76.3313, -143.586
3.18419, -1, -30.373, -3.35663, 25.9559, 13.4467, 76.2398, -143.818
3.19225, -1, -30.5445, -3.44404, 25.9905, 13.4488, 76.1939, -144.05
3.1996, -1, -30.7163, -3.53157, 26.025, 13.4508, 76.1026, -144.166
3.20763, -1, -30.8881, -3.61893, 26.0594, 13.4528, 76.0113, -144.397
3.21559, -1, -31.0599, -3.70632, 26.094, 13.4548, 75.9199, -144.628
3.22359, -1, -31.2314, -3.79362, 26.1285, 13.4569, 75.8285, -144.859
3.23165, -1, -31.4028, -3.88099, 26.1629, 13.4589, 75.7373, -145.091
3.23959, -1, -31.5737, -3.96826, 26.1974, 13.4611, 75.646, -145.322
3.2476, -1, -31.7441, -4.05552, 26.2318, 13.4632, 75.5547, -145.553
3.25564, -1, -31.9142, -4.1428, 26.2661, 13.4654, 75.4635, -145.784
3.26358, -1, -32.0838, -4.23, 26.3005, 13.4676, 75.3726, -146.015
3.27164, -1, -32.2532, -4.31715, 26.3349, 13.4698, 75.2814, -146.246
3.27968, -1, -32.4226, -4.40421, 26.3691, 13.472, 75.1903, -146.476
3.28758, -1, -32.5924, -4.49119, 26.4035, 13.4741, 75.0997, -146.707
3.2956, -1, -32.7619, -4.57808, 26.438, 13.4762, 75.0087, -146.937
3.30365, -1, -32.9316, -4.66495, 26.4722, 13.4784, 74.9178, -147.167
3.31162, -1, -33.1013, -4.75189, 26.5064, 13.4805, 74.8274, -147.398
3.3196, -1, -33.2711, -4.83873, 26.5407, 13.4828, 74.7365, -147.628
3.32767, -1, -33.4412, -4.92561, 26.575, 13.485, 74.646, -147.858
3.33665, -1, -33.6115, -5.01257, 26.6092, 13.4872, 74.5555, -148.087
3.34403, -1, -33.7818, -5.09938, 26.6435, 13.4894, 74.465, -148.317
3.35169, -1, -33.952, -5.18615, 26.6776, 13.4917, 74.3744, -148.547
3.35959, -1, -34.1223, -5.27288, 26.7117, 13.494, 74.2839, -148.777
3.36833, -1, -34.2924, -5.35962, 26.7459, 13.4962, 74.1935, -149.006
3.37558, -1, -34.4624, -5.44625, 26.7802, 13.4985, 74.1028, -149.235
3.38358, -1, -34.6319, -5.53289, 26.8142, 13.5009, 74.0122, -149.465
3.39172, -1, -34.8008, -5.61956, 26.8483, 13.5032, 73.9218, -149.694
3.39958, -1, -34.9694, -5.70614, 26.8825, 13.5057, 73.8312, -149.923
3.40758, -1, -35.1377, -5.79262, 26.9166, 13.5081, 73.7407, -150.152
3.41684, -1, -35.306, -5.87907, 26.9506, 13.5106, 73.6506, -150.381
3.42358, -1, -35.4744, -5.96532, 26.9848, 13.513, 73.5601, -150.61
3.43166, -1, -35.643, -6.05154, 27.0188, 13.5153, 73.4697, -150.839
3.43963, -1, -35.8115, -6.13775, 27.0527, 13.5177, 73.3796, -151.067
3.44762, -1, -35.98, -6.22388, 27.0868, 13.5201, 73.289, -151.296
3.45565, -1, -36.1484, -6.31, 27.1208, 13.5225, 73.1987, -151.524
3.46359, -1, -36.317, -6.39616, 27.1547, 13.5249, 73.1084, -151.753
3.47159, -1, -36.4859, -6.48241, 27.1887, 13.5273, 73.018, -151.981
3.47968, -1, -36.6547, -6.56859, 27.2227, 13.5297, 72.9277, -152.209
3.48765, -1, -36.8236, -6.65479, 27.2565, 13.532, 72.8375, -152.437
3.4956, -1, -36.9926, -6.7409, 27.2904, 13.5343, 72.7476, -152.665
3.50365, -1, -37.1615, -6.82703, 27.3244, 13.5365, 72.6574, -152.893
3.5119, -1, -37.3302, -6.91312, 27.3582, 13.5388, 72.5675, -153.121
3.51964, -1, -37.4986, -6.9991, 27.392, 13.541, 72.4778, -153.349
3.5278, -1, -37.6665, -7.08514, 27.4261, 13.5432, 72.3878, -153.576
3.53573, -1, -37.8342, -7.17115, 27.4599, 13.5455, 72.2979, -153.804
3.54367, -1, -38.0017, -7.25705, 27.4937, 13.5477, 72.2084, -154.031
3.55175, -1, -38.1691, -7.34292, 27.5276, 13.5499, 72.1184, -154.259
3.56035, -1, -38.3365, -7.42875, 27.5615, 13.5522, 72.0287, -154.486
3.56775, -1, -38.5038, -7.51442, 27.5953, 13.5543, 71.9392, -154.713
3.57573, -1, -38.671, -7.60014, 27.6292, 13.5563, 71.8495, -154.94
3.58362, -1, -38.8383, -7.68581, 27.6631, 13.5584, 71.7599, -155.168
3.59163, -1, -39.0056, -7.77147, 27.6968, 13.5605, 71.6706, -155.394
3.59979, -1, -39.173, -7.85707, 27.7306, 13.5625, 71.5814, -155.621
3.60814, -1, -39.3406, -7.94276, 27.7645, 13.5645, 71.492, -155.848
3.61584, -1, -39.5081, -8.02842, 27.7982, 13.5664, 71.4025, -156.075
3.62396, -1, -39.6758, -8.11397, 27.8318, 13.5684, 71.3134, -156.301
3.63193, -1, -39.8434, -8.19946, 27.8656, 13.5703, 71.2238, -156.528
3.63863, -1, -39.9272, -8.24222, 27.8825, 13.5714, 71.1793, -156.641
3.64838, -1, -40.1786, -8.37037, 27.933, 13.5744, 71.0454, -156.98
3.65622, -1, -40.3459, -8.45576, 27.9668, 13.5763, 70.9559, -157.207
3.66413, -1, -40.5131, -8.54118, 28.0005, 13.5783, 70.8668, -157.433
3.67238, -1, -40.6801, -8.62656, 28.0341, 13.5803, 70.7776, -157.659
3.68013, -1, -40.7635, -8.66925, 28.0677, 13.5822, 70.6885, -157.885
3.68824, -1, -40.9301, -8.79728, 28.1015, 13.5843, 70.5993, -158.111
3.69618, -1, -41.0965, -8.83994, 28.1184, 13.5853, 70.5547, -158.224
3.70357, -1, -41.2627, -8.92519, 28.1519, 13.5873, 70.4657, -158.449
3.71157, -1, -41.4288, -9.01035, 28.1855, 13.5893, 70.3764, -158.675
3.71962, -1, -41.5951, -9.09552, 28.2192, 13.5913, 70.2873, -158.9
3.72771, -1, -41.7614, -9.18065, 28.2528, 13.5933, 70.1982, -159.126
3.73557, -1, -41.9278, -9.26568, 28.2863, 13.5953, 70.1091, -159.352
3.74357, -1, -42.0942, -9.35069, 28.3201, 13.5973, 70.0202, -159.577
3.75157, -1, -42.2605, -9.43579, 28.3536, 13.5993, 69.9311, -159.802
3.75962, -1, -42.4267, -9.5208, 28.3871, 13.6014, 69.8424, -160.028
3.76766, -1, -42.5931, -9.60577, 28.4207, 13.6034, 69.7533, -160.253
3.7756, -1, -42.7595, -9.69072, 28.4542, 13.6054, 69.6644, -160.478
3.78366, -1, -42.9259, -9.77568, 28.4876, 13.6074, 69.5758, -160.703
3.79157, -1, -43.0923, -9.86062, 28.5211, 13.6094, 69.4869, -160.928
3.79958, -1, -43.2585, -9.94551, 28.5546, 13.6115, 69.3982, -161.153
3.80771, -1, -43.4246, -10.0304, 28.5881, 13.6136, 69.3096, -161.377
3.81559, -1, -43.5906, -10.1153, 28.6216, 13.6157, 69.221, -161.602
3.82458, -1, -43.7565, -10.2002, 28.6552, 13.6178, 69.1325, -161.827
3.83165, -1, -43.9223, -10.285, 28.6886, 13.62, 69.044, -162.051
3.84062, -1, -44.0879, -10.3697, 28.722, 13.6221, 68.9556, -162.276
3.84765, -1, -44.2532, -10.4544, 28.7555, 13.6243, 68.8668, -162.5
3.85568, -1, -44.4184, -10.5389, 28.789, 13.6266, 68.7782, -162.724
3.86357, -1, -44.5836, -10.6234, 28.8223, 13.6287, 68.6898, -162.949
3.87158, -1, -44.7488, -10.7079, 28.8557, 13.6309, 68.601, -163.173
3.87963, -1, -44.9141, -10.7923, 28.8893, 13.6331, 68.5125, -163.397
3.88765, -1, -45.0795, -10.8768, 28.9226, 13.6353, 68.4242, -163.621
3.89557, -1, -45.2448, -10.9613, 28.956, 13.6375, 68.3357, -163.845
3.90364, -1, -45.41, -11.0457, 28.9894, 13.6397, 68.2474, -164.069
3.91157, -1, -45.5753, -11.1302, 29.0226, 13.642, 68.1591, -164.293
3.91957, -1, -45.7406, -11.2147, 29.0559, 13.6443, 68.0708, -164.516
3.92771, -1, -45.9056, -11.2989, 29.0893, 13.6466, 67.9824, -164.74
3.93556, -1, -46.0686, -11.3822, 29.1227, 13.6489, 67.894, -164.963
3.9436, -1, -46.228, -11.4633, 29.1562, 13.6513, 67.8064, -165.186
3.95166, -1, -46.3819, -11.5406, 29.1899, 13.6536, 67.7197, -165.405
3.95957, -1, -46.5277, -11.6132, 29.2229, 13.656, 67.6361, -165.616
3.96764, -1, -46.6635, -11.68, 29.2541, 13.6582, 67.558, -165.814
3.97564, -1, -46.7861, -11.7397, 29.2823, 13.6603, 67.4867, -165.994
3.98359, -1, -46.893, -11.7923, 29.3066, 13.6622, 67.4253, -166.15
3.99157, -1, -46.9835, -11.8382, 29.326, 13.6638, 67.375, -166.277
3.99966, -1, -47.0581, -11.8782, 29.3397, 13.6648, 67.336, -166.375
4.00763, -1, -47.1178, -11.9113, 29.3488, 13.6653, 67.3078, -166.447
4.0156, -1, -47.163, -11.937, 29.3542, 13.6656, 67.289, -166.494
4.02371, -1, -47.1959, -11.9556, 29.3569, 13.6658, 67.2774, -166.523
4.03165, -1, -47.2185, -11.9681, 29.3581, 13.6658, 67.2709, -166.54
4.03967, -1, -47.2327, -11.9759, 29.3587, 13.6659, 67.2675, -166.548
4.04803, -1, -47.2405, -11.98, 29.359, 13.6659, 67.2658, -166.552
4.05567, 2, -47.2442, -11.982, 29.3591, 13.666, 67.2651, -166.554
4.06363, 2, -47.245, -11.9828, 29.3592, 13.666, 67.2647, -166.555
4.0717, 2, -47.2447, -11.9831, 29.3593, 13.666, 67.2646, -166.555
4.07959, 2, -47.2446, -11.9833, 29.3593, 13.6661, 67.2645, -166.555
4.08767, 2, -47.2447, -11.9833, 29.3594, 13.6661, 67.2645, -166.555
4.09569, 2, -47.2454, -11.9835, 29.3594, 13.6662, 67.2644, -166.555
4.10368, 2, -47.2465, -11.9839, 29.3594, 13.6661, 67.2644, -166.555
4.11217, 2, -47.2481, -11.9846, 29.3594, 13.6661, 67.2644, -166.555
4.11989, 2, -47.2499, -11.9854, 29.3594, 13.6661, 67.2644, -166.555
4.12793, 2, -47.2513, -11.9863, 29.3594, 13.6661, 67.2644, -166.555
4.13462, 2, -47.252, -11.9867, 29.3594, 13.6661, 67.2645, -166.555
4.14405, 2, -47.2532, -11.9876, 29.3594, 13.6661, 67.2645, -166.555
4.15057, 2, -47.2533, -11.9877, 29.3594, 13.666, 67.2645, -166.555
4.16046, 2, -47.2536, -11.988, 29.3594, 13.6661, 67.2644, -166.555
4.16821, 2, -47.2535, -11.988, 29.3594, 13.6661, 67.2644, -166.555
4.17613, 2, -47.253, -11.988, 29.3594, 13.6661, 67.2644, -166.555
4.18436, 2, -47.2526, -11.9879, 29.3595, 13.6661, 67.2644, -166.555
4.19219, 2, -47.2523, -11.9879, 29.3595, 13.6661, 67.2645, -166.555
4.19955, 2, -47.252, -11.9879, 29.3595, 13.6661, 67.2645, -166.555
4.20846, 2, -47.2518, -11.9879, 29.3595, 13.666, 67.2644, -166.555
4.21561, 2, -47.2518, -11.988, 29.3595, 13.666, 67.2645, -166.555
4.22355, 2, -47.252, -11.9882, 29.3595, 13.666, 67.2645, -166.555
4.23155, 2, -47.2522, -11.9885, 29.3595, 13.666, 67.2645, -166.555
4.23963, 2, -47.2528, -11.9889, 29.3595, 13.6661, 67.2645, -166.555
4.24763, 2, -47.2534, -11.9892, 29.3595, 13.6661, 67.2644, -166.555
4.25555, 2, -47.2537, -11.9893, 29.3595, 13.666, 67.2645, -166.555
4.26361, 2, -47.2538, -11.9894, 29.3595, 13.666, 67.2645, -166.555
4.27155, 2, -47.2538, -11.9894, 29.3595, 13.666, 67.2645, -166.555
4.27958, 2, -47.2537, -11.9894, 29.3595, 13.666, 67.2645, -166.555
4.28771, 2, -47.2536, -11.9893, 29.3595, 13.6661, 67.2645, -166.555
4.29558, 2, -47.2531, -11.9893, 29.3595, 13.6661, 67.2645, -166.555
4.30356, 2, -47.2527, -11.9892, 29.3595, 13.6661, 67.2644, -166.555
4.31162, 2, -47.2525, -11.9892, 29.3595, 13.6661, 67.2644, -166.555
4.31957, 2, -47.2523, -11.9892, 29.3595, 13.666, 67.2645, -166.555
4.32953, 2, -47.2521, -11.9893, 29.3595, 13.666, 67.2645, -166.555
4.33564, 2, -47.2521, -11.9893, 29.3595, 13.666, 67.2645, -166.555
4.34363, 2, -47.2521, -11.9894, 29.3595, 13.666, 67.2645, -166.555
4.35257, 2, -47.2521, -11.9895, 29.3595, 13.666, 67.2645, -166.555
4.35973, 2, -47.2521, -11.9895, 29.3595, 13.666, 67.2645, -166.555
4.36763, 2, -47.2522, -11.9895, 29.3595, 13.666, 67.2645, -166.555
4.37555, 2, -47.2522, -11.9895, 29.3595, 13.666, 67.2645, -166.555
4.38362, 2, -47.2521, -11.9895, 29.3594, 13.666, 67.2645, -166.555
4.39155, 2, -47.252, -11.9894, 29.3594, 13.6659, 67.2645, -166.555
4.39955, 2, -47.2519, -11.9893, 29.3595, 13.6659, 67.2645, -166.555
4.40768, 2, -47.2519, -11.9893, 29.3595, 13.666, 67.2646, -166.555
4.41555, 2, -47.2517, -11.9893, 29.3595, 13.666, 67.2646, -166.555
4.42355, 2, -47.2516, -11.9893, 29.3595, 13.666, 67.2646, -166.555
4.43162, 2, -47.2515, -11.9893, 29.3595, 13.666, 67.2645, -166.555
4.43955, 2, -47.2515, -11.9893, 29.3594, 13.666, 67.2645, -166.555
4.44766, 2, -47.2513, -11.9893, 29.3595, 13.666, 67.2645, -166.555
4.45565, 2, -47.2513, -11.9893, 29.3595, 13.666, 67.2645, -166.555
4.46355, 2, -47.2513, -11.9893, 29.3595, 13.666, 67.2645, -166.555
4.47155, 2, -47.2512, -11.9894, 29.3595, 13.6659, 67.2646, -166.555
4.47962, 2, -47.2512, -11.9893, 29.3595, 13.6659, 67.2645, -166.555
4.48766, 2, -47.2511, -11.9893, 29.3595, 13.666, 67.2645, -166.555
4.49554, 2, -47.251, -11.9893, 29.3595, 13.6659, 67.2646, -166.555
4.50364, 2, -47.251, -11.9892, 29.3595, 13.6659, 67.2646, -166.555
4.51155, 2, -47.2509, -11.9891, 29.3595, 13.6659, 67.2646, -166.555
4.51958, 2, -47.2508, -11.9891, 29.3594, 13.6659, 67.2645, -166.555
4.52777, 2, -47.2507, -11.9891, 29.3594, 13.6659, 67.2646, -166.555
4.5357, 2, -47.2506, -11.9891, 29.3595, 13.666, 67.2646, -166.555
4.54364, 2, -47.2505, -11.9891, 29.3595, 13.666, 67.2647, -166.555
4.55171, 2, -47.2505, -11.9891, 29.3595, 13.666, 67.2646, -166.555
4.55965, 2, -47.2503, -11.9891, 29.3595, 13.666, 67.2647, -166.555
4.56772, 2, -47.2502, -11.9891, 29.3595, 13.666, 67.2647, -166.555
4.5758, 2, -47.2501, -11.9891, 29.3594, 13.666, 67.2647, -166.555
4.58358, 2, -47.25, -11.9891, 29.3595, 13.6659, 67.2647, -166.555
4.59158, 2, -47.2499, -11.9891, 29.3595, 13.6659, 67.2647, -166.555
4.59974, 2, -47.2498, -11.989, 29.3595, 13.6659, 67.2647, -166.555
4.60772, 2, -47.2497, -11.9889, 29.3595, 13.6659, 67.2647, -166.555
4.61578, 2, -47.2495, -11.9889, 29.3595, 13.6659, 67.2647, -166.555
4.62432, 2, -47.2494, -11.9888, 29.3595, 13.6659, 67.2647, -166.555
4.63186, 2, -47.2493, -11.9888, 29.3595, 13.6659, 67.2647, -166.555
4.63993, 2, -47.2492, -11.9888, 29.3595, 13.6659, 67.2647, -166.555
4.64818, 2, -47.2492, -11.9888, 29.3595, 13.6659, 67.2647, -166.555
4.65607, 2, -47.2491, -11.9888, 29.3594, 13.6658, 67.2647, -166.555
4.66405, 2, -47.2491, -11.9888, 29.3594, 13.6659, 67.2647, -166.555
4.67245, 2, -47.249, -11.9888, 29.3594, 13.6659, 67.2647, -166.555
4.68008, 2, -47.2489, -11.9888, 29.3594, 13.6658, 67.2647, -166.555
4.68818, 2, -47.2489, -11.9888, 29.3594, 13.6659, 67.2647, -166.555
4.69625, 2, -47.2488, -11.9888, 29.3594, 13.6658, 67.2647, -166.555
4.70354, 2, -47.2488, -11.9887, 29.3594, 13.6658, 67.2647, -166.555
4.71154, 2, -47.2487, -11.9887, 29.3595, 13.6659, 67.2647, -166.555
4.71959, 2, -47.2486, -11.9886, 29.3595, 13.6658, 67.2647, -166.555
4.72761, 2, -47.2485, -11.9886, 29.3595, 13.6658, 67.2647, -166.555
4.73554, 2, -47.2484, -11.9885, 29.3595, 13.6658, 67.2647, -166.555
4.74359, 2, -47.2484, -11.9885, 29.3595, 13.6658, 67.2648, -166.555
4.75154, 2, -47.2483, -11.9885, 29.3595, 13.6658, 67.2648, -166.555
4.75954, 2, -47.2483, -11.9885, 29.3595, 13.6658, 67.2647, -166.555
4.76768, 2, -47.2483, -11.9885, 29.3595, 13.6658, 67.2647, -166.555
4.77553, 2, -47.2483, -11.9885, 29.3594, 13.6658, 67.2648, -166.554
4.78357, 2, -47.2482, -11.9885, 29.3594, 13.6657, 67.2648, -166.554
4.79163, 2, -47.2482, -11.9885, 29.3595, 13.6658, 67.2648, -166.555
4.79953, 2, -47.2482, -11.9885, 29.3595, 13.6658, 67.2648, -166.555
4.80761, 2, -47.2482, -11.9884, 29.3595, 13.6658, 67.2648, -166.555
4.81566, 2, -47.2481, -11.9884, 29.3594, 13.6658, 67.2648, -166.554
4.82355, 2, -47.248, -11.9883, 29.3594, 13.6658, 67.2648, -166.554
4.83255, 2, -47.2479, -11.9883, 29.3595, 13.6657, 67.2648, -166.554
4.83963, 2, -47.2479, -11.9882, 29.3594, 13.6657, 67.2648, -166.554
4.8486, 2, -47.2478, -11.9882, 29.3594, 13.6657, 67.2648, -166.554
4.85554, 2, -47.2477, -11.9882, 29.3594, 13.6656, 67.2648, -166.554
4.86361, 2, -47.2477, -11.9882, 29.3594, 13.6656, 67.2648, -166.554
4.87154, 2, -47.2477, -11.9882, 29.3594, 13.6656, 67.2648, -166.554
4.87953, 2, -47.2476, -11.9882, 29.3594, 13.6656, 67.2648, -166.554
4.88769, 2, -47.2476, -11.9882, 29.3594, 13.6656, 67.2648, -166.554
4.89553, 2, -47.2476, -11.9882, 29.3594, 13.6655, 67.2649, -166.554
4.90354, 2, -47.2476, -11.9881, 29.3594, 13.6655, 67.2649, -166.554
4.91161, 2, -47.2475, -11.9881, 29.3594, 13.6655, 67.2649, -166.554
4.91953, 2, -47.2475, -11.988, 29.3594, 13.6655, 67.265, -166.554
4.92761, 2, -47.2474, -11.988, 29.3594, 13.6655, 67.265, -166.554
4.9356, 2, -47.2473, -11.9879, 29.3594, 13.6655, 67.265, -166.554
4.94354, 2, -47.2473, -11.9879, 29.3594, 13.6655, 67.265, -166.554
4.95157, 2, -47.2472, -11.9879, 29.3594, 13.6655, 67.265, -166.554
4.95964, 2, -47.2471, -11.9879, 29.3594, 13.6655, 67.2649, -166.554
4.96761, 2, -47.2471, -11.9879, 29.3594, 13.6655, 67.265, -166.554
4.97553, 2, -47.2471, -11.9879, 29.3594, 13.6654, 67.265, -166.554
4.98361, 2, -47.2471, -11.9879, 29.3594, 13.6655, 67.265, -166.554
4.99156, 2, -47.247, -11.9879, 29.3594, 13.6654, 67.265, -166.554
4.99957, 2, -47.247, -11.9879, 29.3594, 13.6654, 67.265, -166.554
5.0077, 2, -47.247, -11.9878, 29.3594, 13.6654, 67.265, -166.554
5.01554, 2, -47.247, -11.9878, 29.3594, 13.6654, 67.2651, -166.554
5.02357, 2, -47.2469, -11.9877, 29.3594, 13.6654, 67.265, -166.554
5.03171, 2, -47.2468, -11.9876, 29.3594, 13.6654, 67.265, -166.554
5.03963, 2, -47.2467, -11.9876, 29.3594, 13.6653, 67.265, -166.554
5.0477, 2, -47.2467, -11.9876, 29.3594, 13.6653, 67.265, -166.554
5.0573, 2, -47.2466, -11.9876, 29.3594, 13.6653, 67.2651, -166.554
5.06465, 2, -47.2465, -11.9876, 29.3594, 13.6653, 67.2651, -166.554
5.07163, 2, -47.2465, -11.9876, 29.3594, 13.6653, 67.2652, -166.554
5.07973, 2, -47.2464, -11.9876, 29.3595, 13.6653, 67.2652, -166.554
5.08763, 2, -47.2464, -11.9875, 29.3594, 13.6652, 67.2652, -166.554
5.09556, 2, -47.2464, -11.9875, 29.3594, 13.6652, 67.2652, -166.554
5.10369, 2, -47.2464, -11.9875, 29.3595, 13.6652, 67.2652, -166.554
5.11209, 2, -47.2464, -11.9875, 29.3594, 13.6652, 67.2652, -166.554
5.1198, 2, -47.2463, -11.9874, 29.3594, 13.6652, 67.2652, -166.554
5.12813, 2, -47.2463, -11.9874, 29.3594, 13.6652, 67.2652, -166.554
5.13603, 4, -47.2462, -11.9874, 29.3594, 13.6652, 67.2652, -166.554
5.14393, 4, -47.2462, -11.9873, 29.3594, 13.6652, 67.2652, -166.554
5.15206, 4, -47.2461, -11.9873, 29.3594, 13.6652, 67.2653, -166.554
5.16013, 4, -47.246, -11.9873, 29.3594, 13.6651, 67.2652, -166.554
5.16811, 4, -47.2459, -11.9872, 29.3594, 13.6651, 67.2652, -166.554
5.17615, 4, -47.2459, -11.9872, 29.3594, 13.6651, 67.2652, -166.554
5.18415, 4, -47.2459, -11.9872, 29.3594, 13.6651, 67.2652, -166.554
5.19212, 4, -47.2459, -11.9872, 29.3594, 13.6651, 67.2652, -166.554
5.2002, 4, -47.2458, -11.9872, 29.3594, 13.665, 67.2652, -166.554
5.20807, 4, -47.2458, -11.9872, 29.3594, 13.6651, 67.2653, -166.554
5.21553, 4, -47.2458, -11.9872, 29.3594, 13.665, 67.2652, -166.554
5.22357, 4, -47.2458, -11.9871, 29.3594, 13.665, 67.2652, -166.554
5.23152, 4, -47.2458, -11.9871, 29.3594, 13.6651, 67.2652, -166.554
5.23966, 4, -47.2457, -11.9871, 29.3594, 13.665, 67.2653, -166.554
5.25319, 4, -47.2456, -11.987, 29.3594, 13.665, 67.2653, -166.553
5.25564, 4, -47.2456, -11.987, 29.3594, 13.665, 67.2653, -166.553
5.26947, 4, -47.2454, -11.987, 29.3594, 13.665, 67.2653, -166.553
5.27172, 4, -47.2454, -11.987, 29.3594, 13.665, 67.2653, -166.553
5.28358, 4, -47.2454, -11.987, 29.3594, 13.6649, 67.2653, -166.553
5.28952, 4, -47.2453, -11.987, 29.3594, 13.665, 67.2653, -166.553
5.29762, 4, -47.2453, -11.987, 29.3594, 13.665, 67.2653, -166.553
5.3037, 4, -47.2453, -11.987, 29.3594, 13.6649, 67.2653, -166.553
5.3147, 4, -47.2453, -11.9869, 29.3594, 13.6649, 67.2653, -166.553
5.31976, 4, -47.2453, -11.9869, 29.3594, 13.6649, 67.2653, -166.553
5.33073, 4, -47.2453, -11.9868, 29.3594, 13.665, 67.2653, -166.553
5.33741, 4, -47.2452, -11.9868, 29.3594, 13.6649, 67.2653, -166.553
5.34418, 4, -47.2452, -11.9868, 29.3594, 13.6649, 67.2653, -166.553
5.35168, 4, -47.2452, -11.9868, 29.3594, 13.6648, 67.2653, -166.553
5.3637, 4, -47.2451, -11.9867, 29.3594, 13.6648, 67.2653, -166.553
5.37193, 4, -47.2451, -11.9867, 29.3594, 13.6648, 67.2653, -166.553
5.37566, 4, -47.245, -11.9867, 29.3594, 13.6648, 67.2653, -166.553
5.38438, 4, -47.245, -11.9867, 29.3594, 13.6648, 67.2654, -166.553
5.39169, 4, -47.245, -11.9867, 29.3594, 13.6648, 67.2653, -166.553
5.40241, 4, -47.2451, -11.9868, 29.3595, 13.6648, 67.2654, -166.553
5.41102, 4, -47.2459, -11.9872, 29.3598, 13.665, 67.2654, -166.553
5.42065, 4, -47.2483, -11.989, 29.3617, 13.6667, 67.266, -166.553
5.42372, 4, -47.2501, -11.9907, 29.3638, 13.6701, 67.2668, -166.553
5.43479, 5, -47.2556, -12.0022, 29.3798, 13.7013, 67.2747, -166.547
5.43966, 5, -47.2647, -12.0088, 29.3903, 13.722, 67.2804, -166.543
5.44783, 5, -47.2792, -12.0282, 29.4231, 13.7884, 67.2988, -166.529
5.4557, 5, -47.3013, -12.0579, 29.477, 13.9004, 67.3304, -166.503
5.46668, 5, -47.3531, -12.1254, 29.6113, 14.1847, 67.4092, -166.438
5.47464, 5, -47.4026, -12.1881, 29.7437, 14.4698, 67.488, -166.372
5.48066, 5, -47.4322, -12.2251, 29.8237, 14.6437, 67.5353, -166.332
5.48796, 5, -47.5009, -12.3105, 30.0128, 15.0547, 67.646, -166.238
5.49567, 5, -47.5819, -12.411, 30.2402, 15.5459, 67.7773, -166.126
5.50696, 5, -47.7244, -12.5873, 30.6447, 16.408, 68.0042, -165.931
5.51169, 5, -47.7767, -12.6521, 30.7943, 16.7216, 68.0857, -165.86
5.52069, 5, -47.8872, -12.7894, 31.1107, 17.3772, 68.2536, -165.715
5.53149, 5, -48.0629, -13.0095, 31.6169, 18.4025, 68.5106, -165.492
5.53605, 5, -48.1231, -13.0852, 31.7906, 18.7493, 68.5959, -165.418
5.54438, 5, -48.2441, -13.2376, 32.1421, 19.4431, 68.7643, -165.27
5.55281, 5, -48.3639, -13.3881, 32.4949, 20.1274, 68.9287, -165.124
5.56018, 5, -48.4789, -13.5337, 32.8451, 20.7936, 69.0892, -164.973
5.56784, 6, -48.5847, -13.6709, 33.1855, 21.4301, 69.2479, -164.807
5.57581, 6, -48.6771, -13.7971, 33.5114, 22.0265, 69.4069, -164.614
5.58818, 7, -48.752, -13.9132, 33.8175, 22.8334, 69.6521, -164.245
5.592, 7, -48.8065, -14.0214, 34.1021, 23.0769, 69.7364, -164.094
5.60236, 7, -48.8394, -14.1218, 34.3642, 23.5274, 69.9093, -163.749
5.60863, 8, -48.8508, -14.2125, 34.6054, 23.9334, 70.0882, -163.344
5.61686, 8, -48.8436, -14.2935, 34.8307, 24.3034, 70.2725, -162.884
5.62662, 9, -48.8209, -14.3668, 35.0441, 24.6484, 70.4628, -162.377
5.63308, 9, -48.7854, -14.434, 35.2498, 24.9788, 70.6597, -161.83
5.64094, 9, -48.7396, -14.4971, 35.4535, 25.305, 70.8639, -161.255
5.64854, 10, -48.6848, -14.5586, 35.6585, 25.6336, 71.0762, -160.658
5.65899, 10, -48.6218, -14.6206, 35.865, 25.9692, 71.2963, -160.044
5.66435, 11, -48.5525, -14.6828, 36.0738, 26.3139, 71.523, -159.421
5.67366, 11, -48.4783, -14.7454, 36.2846, 26.6683, 71.7544, -158.792
5.68028, 12, -48.4008, -14.8087, 36.4947, 27.032, 71.9893, -158.157
5.68896, 12, -48.3218, -14.8716, 36.7035, 27.4043, 72.2269, -157.518
5.69945, 13, -48.2426, -14.9321, 36.9113, 27.7851, 72.4669, -156.874
5.7065, 13, -48.1624, -14.9905, 37.1173, 28.1737, 72.7094, -156.226
5.71231, 14, -48.1215, -15.0196, 37.2195, 28.3707, 72.8316, -155.573
5.72098, 14, -48.0371, -15.0788, 37.4233, 28.7692, 73.0779, -155.246
5.72843, 15, -47.9489, -15.1388, 37.6265, 29.172, 73.3258, -154.592
5.73563, 15, -47.8569, -15.1982, 37.8277, 29.5769, 73.5737, -153.939
5.7496, 16, -47.7085, -15.3157, 38.2253, 30.3845, 74.063, -152.644
5.75373, 16, -47.6009, -15.3459, 38.3232, 30.5847, 74.1828, -152.324
5.7675, 17, -47.4286, -15.439, 38.6113, 31.1791, 74.5343, -151.371
5.77034, 17, -47.3688, -15.4706, 38.7058, 31.3748, 74.6482, -151.056
5.77566, 18, -47.3077, -15.5023, 38.7998, 31.5694, 74.7606, -150.743
5.78366, 18, -47.1818, -15.5664, 38.9857, 31.9555, 74.9808, -150.124
5.79372, 19, -46.9826, -15.6672, 39.2591, 32.529, 75.3005, -149.208
5.79974, 19, -46.9133, -15.7025, 39.3496, 32.7195, 75.4047, -148.906
5.80763, 20, -46.7709, -15.7746, 39.5297, 33.0998, 75.6096, -148.306
5.81572, 20, -46.6236, -15.8482, 39.7079, 33.479, 75.8105, -147.715
5.82369, 21, -46.472, -15.9231, 39.8835, 33.8576, 76.0073, -147.13
5.83641, 21, -46.3162, -15.9997, 40.0572, 34.4244, 76.2952, -146.263
5.84249, 22, -46.0744, -16.1186, 40.3142, 34.8007, 76.4819, -145.693
5.84787, 22, -45.9915, -16.159, 40.3982, 34.9882, 76.5737, -145.41
5.85795, 23, -45.7351, -16.2821, 40.6459, 35.546, 76.8425, -144.57
5.86364, 23, -45.6464, -16.3241, 40.7272, 35.7302, 76.9296, -144.292
5.87166, 24, -45.4633, -16.4101, 40.8873, 36.0951, 77.0999, -143.741
5.87965, 24, -45.2726, -16.4987, 41.0432, 36.4533, 77.2639, -143.196
5.88867, 25, -45.0751, -16.5883, 41.195, 36.8034, 77.4212, -142.656
5.8985, 25, -44.7669, -16.7233, 41.4149, 37.3122, 77.6442, -141.855
5.90376, 26, -44.6608, -16.7688, 41.4859, 37.4774, 77.7153, -141.591
5.91526, 26, -44.3311, -16.9076, 41.6908, 37.961, 77.9216, -140.801
5.91972, 27, -44.2176, -16.954, 41.7563, 38.1183, 77.9882, -140.539
5.93005, 27, -43.9859, -17.0466, 41.8828, 38.4272, 78.1185, -140.015
5.93795, 28, -43.7475, -17.1385, 42.003, 38.7288, 78.2461, -139.492
5.94473, 28, -43.5018, -17.2296, 42.1165, 39.0229, 78.3706, -138.969
5.95169, 29, -43.2486, -17.3191, 42.2232, 39.309, 78.4928, -138.447
5.96071, 29, -42.9888, -17.4064, 42.3229, 39.5872, 78.6118, -137.925
5.96769, 30, -42.7224, -17.4914, 42.4155, 39.8571, 78.7278, -137.403
5.97671, 30, -42.4481, -17.5742, 42.5009, 40.1185, 78.8413, -136.881
5.98365, 31, -42.1657, -17.6543, 42.5793, 40.3715, 78.9516, -136.361
5.99182, 31, -41.8758, -17.732, 42.6508, 40.6161, 79.0594, -135.841
6.00289, 32, -41.4279, -17.8443, 42.7452, 40.967, 79.2164, -135.062
6.00778, 32, -41.2754, -17.8804, 42.7733, 41.0799, 79.2675, -134.803
6.01674, 33, -40.9655, -17.9504, 42.824, 41.2998, 79.3679, -134.285
6.0247, 33, -40.6487, -18.0171, 42.8676, 41.5115, 79.4657, -133.769
6.03266, 34, -40.3257, -18.081, 42.9039, 41.7149, 79.5608, -133.252
6.04616, 35, -39.8322, -18.172, 42.9447, 42.005, 79.6987, -132.48
6.04885, 35, -39.665, -18.2007, 42.9547, 42.098, 79.7434, -132.224
6.05611, 35, -39.326, -18.2555, 42.9694, 42.2783, 79.8308, -131.712
6.0639, 36, -38.98, -18.307, 42.9771, 42.4507, 79.9163, -131.2
6.07587, 36, -38.6267, -18.3779, 42.9762, 42.695, 80.0405, -130.435
6.07978, 37, -38.2674, -18.3999, 42.9726, 42.7727, 80.0806, -130.181
6.09015, 37, -37.9024, -18.4411, 42.96, 42.9224, 80.1601, -129.675
6.0962, 38, -37.5322, -18.4785, 42.9407, 43.0647, 80.237, -129.169
6.10629, 38, -37.1573, -18.5127, 42.9149, 43.1996, 80.3123, -128.665
6.11365, 39, -36.7778, -18.5434, 42.8822, 43.3271, 80.3845, -128.163
6.12228, 39, -36.3936, -18.5704, 42.8428, 43.4473, 80.4556, -127.664
6.12819, 40, -36.0038, -18.5937, 42.7968, 43.5602, 80.5244, -127.165
6.13704, 40, -35.6077, -18.6131, 42.7443, 43.666, 80.5919, -126.669
6.14421, 41, -35.2061, -18.6285, 42.6852, 43.7644, 80.6567, -126.174
6.15254, 41, -34.799, -18.6404, 42.6197, 43.8557, 80.7199, -125.682
6.16042, 42, -34.3882, -18.6489, 42.5478, 43.9399, 80.7812, -125.193
6.16851, 42, -33.9744, -18.6542, 42.4695, 44.017, 80.8401, -124.705
6.17766, 43, -33.5574, -18.6563, 42.3851, 44.0867, 80.8982, -124.219
6.18677, 44, -33.1356, -18.6551, 42.2949, 44.1498, 80.9535, -123.736
6.19414, 44, -32.708, -18.6499, 42.199, 44.2054, 81.008, -123.256
6.2008, 44, -32.2738, -18.6411, 42.0973, 44.2536, 81.0608, -122.777
6.20964, 45, -31.8335, -18.6284, 41.9895, 44.295, 81.1112, -122.301
6.21629, 45, -31.6117, -18.6207, 41.9335, 44.3129, 81.1361, -121.828
6.22499, 46, -30.9419, -18.5927, 41.7562, 44.3548, 81.2084, -121.356
6.23348, 46, -30.7178, -18.5816, 41.6307, 44.373, 81.2537, -120.888
6.24126, 47, -30.0401, -18.5422, 41.4994, 44.3838, 81.2986, -120.421
6.2478, 47, -29.8117, -18.5268, 41.4315, 44.3866, 81.3208, -120.188
6.25564, 48, -29.35, -18.4928, 41.2912, 44.387, 81.3635, -119.725
6.26364, 48, -28.882, -18.4545, 41.1448, 44.3787, 81.4052, -119.262
6.27348, 49, -28.4085, -18.4118, 40.9924, 44.35, 81.468, -118.573
6.28246, 49, -27.6929, -18.3395, 40.7527, 44.3192, 81.5087, -118.115
6.28772, 50, -27.4531, -18.3131, 40.6696, 44.2999, 81.5289, -117.886
6.29714, 50, -26.7277, -18.2257, 40.4103, 44.2293, 81.5913, -117.201
6.30369, 51, -26.4826, -18.1938, 40.3207, 44.2011, 81.6126, -116.974
6.31404, 51, -25.7354, -18.0899, 40.0417, 44.1011, 81.6761, -116.292
6.32127, 52, -25.4829, -18.0525, 39.9449, 44.0631, 81.6976, -116.065
6.32783, 52, -24.9757, -17.9738, 39.7462, 43.9786, 81.742, -115.612
6.33564, 53, -24.4666, -17.8897, 39.5416, 43.884, 81.7868, -115.159
6.34385, 53, -23.9545, -17.7998, 39.3299, 43.7796, 81.8317, -114.706
6.35166, 54, -23.4367, -17.7035, 39.1101, 43.6646, 81.879, -114.255
6.36176, 54, -22.6445, -17.5471, 38.7677, 43.4718, 81.9533, -113.577
6.37109, 55, -22.3767, -17.4917, 38.6498, 43.3286, 82.0056, -113.125
6.37848, 55, -21.5675, -17.3167, 38.2848, 43.1732, 82.0612, -112.673
6.38367, 56, -21.2966, -17.2555, 38.1599, 43.0911, 82.0893, -112.447
6.39165, 56, -20.7521, -17.1291, 37.9046, 42.9182, 82.1467, -111.996
6.40327, 57, -19.9218, -16.929, 37.5094, 42.6376, 82.237, -111.319
6.40764, 57, -19.6403, -16.8594, 37.3745, 42.5384, 82.2673, -111.094
6.41845, 58, -18.7855, -16.6409, 36.9599, 42.2222, 82.3621, -110.419
6.42364, 58, -18.4987, -16.5651, 36.8187, 42.1105, 82.3942, -110.194
6.43166, 59, -17.9237, -16.4094, 36.531, 41.8781, 82.4606, -109.745
6.43973, 59, -17.3443, -16.2491, 36.2366, 41.6325, 82.5298, -109.295
6.44882, 60, -16.7556, -16.0845, 35.9356, 41.3736, 82.6016, -108.845
6.45668, 60, -16.1566, -15.9143, 35.6289, 41.1014, 82.6758, -108.396
6.46387, 61, -15.5519, -15.7391, 35.3165, 40.8159, 82.7516, -107.947
6.47174, 61, -14.9444, -15.5595, 34.9984, 40.5178, 82.8295, -107.498
6.48065, 62, -14.3331, -15.3758, 34.6752, 40.2074, 82.9094, -107.049
6.4896, 63, -13.7138, -15.187, 34.3475, 39.8844, 82.9911, -106.6
6.49569, 63, -13.0847, -14.9915, 34.0157, 39.5481, 83.0751, -106.15
6.50405, 63, -12.4477, -14.7896, 33.6785, 39.198, 83.1618, -105.7
6.51165, 64, -11.806, -14.5828, 33.3358, 38.8337, 83.2522, -105.25
6.52314, 65, -10.8325, -14.2606, 32.8096, 38.259, 83.3961, -104.571
6.52775, 65, -10.5028, -14.1495, 32.6306, 38.0594, 83.4468, -104.344
6.53675, 65, -9.83524, -13.9225, 32.2687, 37.6471, 83.5522, -103.888
6.54767, 66, -8.81814, -13.5694, 31.7162, 36.9955, 83.7218, -103.2
6.55208, 66, -8.47668, -13.4479, 31.5292, 36.7699, 83.7813, -102.97
6.55975, 67, -7.78977, -13.1995, 31.1499, 36.3057, 83.9049, -102.508
6.56876, 67, -7.09428, -12.9437, 30.7648, 35.8256, 84.0356, -102.045
6.57771, 68, -6.39035, -12.6806, 30.3754, 35.3302, 84.1729, -101.58
6.58385, 68, -5.68025, -12.4124, 29.9826, 34.8219, 84.3171, -101.114
6.59271, 69, -4.96592, -12.138, 29.5863, 34.301, 84.4671, -100.646
6.60065, 69, -4.2452, -11.8564, 29.1874, 33.7693, 84.6225, -100.177
6.61068, 70, -3.51588, -11.5681, 28.7889, 33.2268, 84.7826, -99.7063
6.61588, 70, -2.77823, -11.2712, 28.3908, 32.671, 84.9479, -99.2335
6.62497, 71, -2.03323, -10.9669, 27.9912, 32.1018, 85.1192, -98.759
6.6322, 71, -1.28036, -10.656, 27.5893, 31.5173, 85.2987, -98.2811
6.64027, 72, -0.520082, -10.339, 27.1847, 30.9155, 85.4875, -97.7995
6.6504, 72, 0.246454, -10.0161, 26.7775, 30.2965, 85.6855, -97.3147
6.65657, 73, 1.01821, -9.6854, 26.3683, 29.6651, 85.8926, -96.8275
6.66598, 73, 1.79502, -9.34758, 25.9583, 29.0217, 86.1079, -96.3387
6.67471, 74, 2.57577, -9.00348, 25.5498, 28.3696, 86.3313, -95.8479
6.68106, 74, 3.35884, -8.65473, 25.145, 27.7106, 86.5615, -95.3561
6.68872, 75, 4.1433, -8.29976, 24.7454, 27.0457, 86.7979, -94.8633
6.69732, 75, 4.92922, -7.93957, 24.3504, 26.3794, 87.0397, -94.3703
6.70446, 76, 5.3222, -7.57391, 23.9609, 25.7134, 87.2869, -93.8764
6.72335, 77, 7.28398, -6.82403, 23.2005, 24.3839, 87.7984, -92.8867
6.72593, 77, 7.67657, -6.63138, 23.0135, 24.0524, 87.9309, -92.6391
6.73764, 78, 8.85524, -6.03832, 22.4582, 23.054, 88.3439, -91.895
6.73891, 78, 8.85524, -6.03832, 22.4582, 23.054, 88.3439, -91.895
6.74343, 78, 9.24834, -5.83627, 22.2751, 22.7185, 88.4876, -91.6454
6.75151, 79, 10.0357, -5.42686, 21.9104, 22.0426, 88.7855, -91.1434
6.75955, 79, 10.8244, -5.01164, 21.548, 21.3604, 89.0973, -90.6363
6.76884, 80, 12.0046, -4.37265, 21.0088, 20.3303, 89.5881, -89.8645
6.77554, 80, 12.3955, -4.15431, 20.8313, 19.987, 89.7568, -89.6038
6.78354, 81, 13.1719, -3.71035, 20.4803, 19.3066, 90.1004, -89.0773
6.79148, 81, 13.9423, -3.25922, 20.1364, 18.6374, 90.4507, -88.5456
6.79953, 82, 14.706, -2.80141, 19.8016, 17.9838, 90.8057, -88.0098
6.80761, 82, 15.4621, -2.3354, 19.4778, 17.3469, 91.1645, -87.4717
6.81568, 83, 16.2084, -1.86212, 19.1638, 16.7276, 91.5272, -86.9312
6.82354, 83, 16.9433, -1.3825, 18.8593, 16.1268, 91.8949, -86.3893
6.8334, 84, 18.0219, -0.653953, 18.4182, 15.2582, 92.4577, -85.577
6.83948, 84, 18.3739, -0.409101, 18.2753, 14.9774, 92.649, -85.3067
6.84754, 84, 19.0655, 0.0835322, 17.9942, 14.4301, 93.0373, -84.7669
6.85655, 85, 19.7387, 0.581747, 17.7186, 13.9019, 93.4341, -84.2289
6.86347, 85, 20.3936, 1.08547, 17.4497, 13.3928, 93.8386, -83.6928
6.87156, 86, 21.0312, 1.59349, 17.1867, 12.9042, 94.2489, -83.1589
6.87954, 86, 21.6542, 2.10694, 16.9306, 12.4352, 94.6647, -82.6245
6.88744, 87, 22.2648, 2.62898, 16.6806, 11.9865, 95.0865, -82.0881
6.89554, 87, 22.8642, 3.16133, 16.435, 11.5565, 95.5151, -81.5477
6.90376, 88, 23.4539, 3.70283, 16.1933, 11.1439, 95.9512, -81.0025
6.91154, 88, 24.0341, 4.25107, 15.9541, 10.7468, 96.3944, -80.4494
6.91947, 88, 24.6032, 4.80764, 15.7186, 10.3652, 96.8443, -79.8869
6.9276, 89, 25.1618, 5.37569, 15.4886, 9.99881, 97.3009, -79.3138
6.93547, 89, 25.7132, 5.95481, 15.2625, 9.6485, 97.7626, -78.7297
6.94348, 90, 26.2611, 6.54382, 15.0407, 9.31394, 98.229, -78.1319
6.9516, 90, 26.8017, 7.14186, 14.8244, 8.99575, 98.7, -77.5204
6.95953, 91, 27.3296, 7.749, 14.6138, 8.69577, 99.1758, -76.8956
6.96751, 91, 27.8447, 8.36679, 14.408, 8.4143, 99.6569, -76.2592
6.97563, 92, 28.3506, 8.99494, 14.2066, 8.15377, 100.143, -75.6106
6.98349, 92, 28.8499, 9.63307, 14.0095, 7.91418, 100.634, -74.9525
6.99147, 93, 29.3405, 10.2791, 13.8173, 7.69654, 101.128, -74.2876
6.99962, 93, 29.8187, 10.9317, 13.6316, 7.50123, 101.625, -73.6142
7.00748, 94, 30.2827, 11.589, 13.4528, 7.32886, 102.12, -72.9338
7.01564, 94, 30.7322, 12.2497, 13.2802, 7.17982, 102.615, -72.2487
7.02356, 95, 31.168, 12.9129, 13.1146, 7.05412, 103.106, -71.558
7.0318, 95, 31.5903, 13.5785, 12.9569, 6.95212, 103.595, -70.8607
7.03956, 96, 31.9984, 14.2461, 12.8062, 6.87333, 104.08, -70.1586
7.04793, 96, 32.3904, 14.9153, 12.6617, 6.81904, 104.561, -69.4514
7.05559, 97, 32.7664, 15.5855, 12.5237, 6.78639, 105.038, -68.7377
7.06391, 97, 33.127, 16.2543, 12.3933, 6.77478, 105.509, -68.0199
7.07176, 98, 33.4726, 16.9199, 12.2713, 6.78541, 105.973, -67.2994
7.07956, 98, 33.8042, 17.5808, 12.158, 6.81692, 106.428, -66.5751
7.08748, 99, 34.1217, 18.2354, 12.0541, 6.86798, 106.873, -65.8509
7.09585, 99, 34.427, 18.8822, 11.9598, 6.93915, 107.306, -65.1288
7.10354, 100, 34.7215, 19.5201, 11.8749, 7.02774, 107.726, -64.4085
7.11164, 100, 35.0041, 20.1481, 11.7993, 7.13417, 108.13, -63.6938
7.11964, 101, 35.2737, 20.7651, 11.7324, 7.25636, 108.518, -62.9877
7.1285, 101, 35.5306, 21.371, 11.674, 7.39301, 108.889, -62.2888
7.13584, 102, 35.7746, 21.9638, 11.6242, 7.54156, 109.243, -61.6008
7.14387, 102, 36.0055, 22.5428, 11.5826, 7.70001, 109.58, -60.9257
7.15194, 103, 36.2255, 23.1069, 11.5491, 7.86636, 109.901, -60.2629
7.16063, 103, 36.4381, 23.6559, 11.5238, 8.0397, 110.206, -59.6124
7.16802, 103, 36.6446, 24.1898, 11.5073, 8.22064, 110.494, -58.9758
7.17603, 104, 36.8447, 24.7085, 11.499, 8.40993, 110.765, -58.3508
7.18408, 104, 37.0387, 25.2114, 11.4974, 8.60842, 111.017, -57.7361
7.19211, 104, 37.2264, 25.699, 11.502, 8.81579, 111.249, -57.1322
7.20008, 104, 37.317, 25.9369, 11.5122, 9.03079, 111.461, -56.54
7.20803, 104, 37.4902, 26.4007, 11.5186, 9.1407, 111.561, -56.2483
7.2155, 104, 37.6531, 26.8488, 11.5334, 9.36382, 111.749, -55.6753
7.22349, 104, 37.8098, 27.2824, 11.5512, 9.58842, 111.922, -55.1192
7.23152, 104, 37.9631, 27.7007, 11.5711, 9.81187, 112.084, -54.5832
7.23952, 104, 38.1131, 28.1033, 11.5917, 10.032, 112.236, -54.0697
7.24747, 104, 38.2581, 28.4889, 11.6121, 10.2471, 112.38, -53.5788
7.25546, 104, 38.397, 28.8585, 11.6314, 10.456, 112.515, -53.1121
7.26355, 104, 38.5291, 29.21, 11.6496, 10.6579, 112.643, -52.6696
7.27151, 104, 38.6529, 29.5435, 11.6669, 10.8517, 112.764, -52.2522
7.27951, 104, 38.7683, 29.8576, 11.6828, 11.0369, 112.876, -51.8599
7.28747, 104, 38.8754, 30.153, 11.6978, 11.2126, 112.981, -51.4923
7.29546, 104, 38.9746, 30.4297, 11.7117, 11.3785, 113.078, -51.1501
7.30355, 104, 39.0662, 30.6863, 11.7244, 11.534, 113.168, -50.8336
7.31155, 104, 39.15, 30.9235, 11.7358, 11.6788, 113.25, -50.542
7.31946, 104, 39.2257, 31.1412, 11.7463, 11.8123, 113.325, -50.2758
7.32921, 104, 39.2933, 31.4302, 11.7605, 11.9908, 113.424, -49.9238
7.33546, 104, 39.3529, 31.517, 11.7648, 12.0444, 113.453, -49.819
7.34452, 104, 39.4053, 31.6758, 11.7724, 12.1424, 113.507, -49.6283
7.35151, 104, 39.4512, 31.8153, 11.7793, 12.2284, 113.552, -49.4624
7.36051, 104, 39.4914, 31.9368, 11.7856, 12.3019, 113.592, -49.3211
7.36753, 104, 39.5258, 32.0412, 11.7912, 12.3642, 113.625, -49.203
7.37545, 104, 39.554, 32.1292, 11.7962, 12.4145, 113.651, -49.1075
7.38347, 104, 39.5771, 32.202, 11.8007, 12.4534, 113.671, -49.032
7.39158, 104, 39.5955, 32.2617, 11.8047, 12.4836, 113.687, -48.9755
7.39946, 104, 39.6097, 32.3096, 11.8084, 12.5057, 113.697, -48.9347
7.40749, 104, 39.6207, 32.3469, 11.8117, 12.5213, 113.704, -48.9066
7.41552, 104, 39.6291, 32.3749, 11.8147, 12.5318, 113.709, -48.8884
7.42347, 104, 39.6351, 32.3958, 11.8173, 12.5383, 113.712, -48.8776
7.43152, 104, 39.6388, 32.4111, 11.8195, 12.542, 113.713, -48.8718
7.43952, 104, 39.6409, 32.4213, 11.821, 12.544, 113.714, -48.8689
7.44746, 105, 39.6419, 32.4277, 11.8223, 12.5449, 113.714, -48.8677
7.45546, 105, 39.6417, 32.4318, 11.8233, 12.5453, 113.714, -48.8673
7.46353, 105, 39.6409, 32.4346, 11.8241, 12.5456, 113.714, -48.8672
7.47154, 105, 39.6399, 32.4366, 11.8249, 12.5457, 113.714, -48.8674
7.47949, 105, 39.6389, 32.4381, 11.8255, 12.5458, 113.714, -48.8676
7.48753, 105, 39.6377, 32.4395, 11.8261, 12.5459, 113.714, -48.8679
7.49546, 105, 39.6366, 32.4407, 11.8266, 12.5458, 113.714, -48.8683
7.50346, 105, 39.6359, 32.4419, 11.8271, 12.5458, 113.714, -48.8686
7.5116, 105, 39.6355, 32.4431, 11.8277, 12.5458, 113.714, -48.8688
7.51945, 105, 39.6353, 32.4441, 11.8283, 12.5458, 113.714, -48.8691
7.5275, 105, 39.6351, 32.4451, 11.8288, 12.5458, 113.714, -48.8694
7.53557, 105, 39.6349, 32.4459, 11.8292, 12.5458, 113.714, -48.8696
7.54355, 105, 39.6346, 32.4465, 11.8295, 12.5458, 113.714, -48.8698
7.5516, 105, 39.6343, 32.4468, 11.8298, 12.5457, 113.714, -48.87
7.55962, 105, 39.6341, 32.447, 11.8301, 12.5457, 113.714, -48.8702
7.56781, 105, 39.6338, 32.4471, 11.8303, 12.5457, 113.714, -48.8704
