hehonglu123/Motion-Primitive-Planning/ILC/recorded_data/realrobot/from_NX/iteration_26/run_4.csv
timestamp, cmd_num, J1, J2, J3, J4, J5, J6
0.000394, -1, 39.6291, 32.4471, 11.8317, 12.5443, 113.713, -48.873
0.004251, -1, 39.6291, 32.4471, 11.8317, 12.5444, 113.713, -48.8731
0.007889, -1, 39.6291, 32.4471, 11.8317, 12.5443, 113.713, -48.8731
0.030389, -1, 39.6291, 32.4471, 11.8317, 12.5443, 113.713, -48.873
0.034663, -1, 39.6291, 32.4471, 11.8317, 12.5443, 113.713, -48.873
0.036023, -1, 39.6291, 32.4471, 11.8317, 12.5443, 113.713, -48.873
0.039673, -1, 39.6291, 32.4471, 11.8317, 12.5443, 113.713, -48.873
0.047742, -1, 39.6291, 32.4471, 11.8317, 12.5443, 113.713, -48.8731
0.055732, -1, 39.6285, 32.4471, 11.8317, 12.5443, 113.713, -48.8731
0.063731, -1, 39.6262, 32.4466, 11.8316, 12.5443, 113.713, -48.8731
0.071685, -1, 39.6209, 32.4453, 11.8316, 12.5443, 113.713, -48.8734
0.079689, -1, 39.6121, 32.4424, 11.8316, 12.5443, 113.712, -48.8748
0.087734, -1, 39.5989, 32.4371, 11.8315, 12.5443, 113.711, -48.8793
0.095667, -1, 39.5792, 32.4286, 11.8316, 12.5443, 113.707, -48.8904
0.103675, -1, 39.5506, 32.4159, 11.832, 12.5443, 113.7, -48.9109
0.111769, -1, 39.5122, 32.3984, 11.8341, 12.5443, 113.688, -48.9443
0.119668, -1, 39.4628, 32.3747, 11.8389, 12.5443, 113.669, -48.9947
0.127712, -1, 39.4007, 32.3443, 11.8473, 12.5443, 113.642, -49.0663
0.135703, -1, 39.3254, 32.3065, 11.8601, 12.5444, 113.604, -49.1606
0.143672, -1, 39.2363, 32.2608, 11.8779, 12.5446, 113.558, -49.2804
0.151866, -1, 39.1334, 32.2073, 11.9003, 12.5452, 113.501, -49.4258
0.159737, -1, 39.0162, 32.1459, 11.9271, 12.5461, 113.434, -49.5958
0.167704, -1, 38.8857, 32.0772, 11.9577, 12.5476, 113.358, -49.7882
0.176561, -1, 38.7428, 32.0019, 11.9917, 12.5495, 113.274, -50.0001
0.183765, -1, 38.5884, 31.9206, 12.0279, 12.5516, 113.184, -50.2278
0.191802, -1, 38.4241, 31.8344, 12.0657, 12.5539, 113.089, -50.4678
0.32924, -1, 35.2096, 30.1859, 12.7261, 12.5968, 111.35, -54.867
0.330533, -1, 35.2096, 30.1859, 12.7261, 12.5968, 111.35, -54.867
0.332325, -1, 35.1133, 30.1367, 12.7456, 12.5981, 111.298, -54.9974
0.333754, -1, 35.1133, 30.1367, 12.7456, 12.5981, 111.298, -54.9974
0.334945, -1, 35.1133, 30.1367, 12.7456, 12.5981, 111.298, -54.9974
0.337012, -1, 35.0171, 30.0875, 12.7651, 12.5994, 111.247, -55.1279
0.338308, -1, 35.0171, 30.0875, 12.7651, 12.5994, 111.247, -55.1279
0.340849, -1, 34.921, 30.0383, 12.7845, 12.6007, 111.195, -55.2582
0.342188, -1, 34.921, 30.0383, 12.7845, 12.6007, 111.195, -55.2582
0.343416, -1, 34.921, 30.0383, 12.7845, 12.6007, 111.195, -55.2582
0.346246, -1, 34.8248, 29.989, 12.8039, 12.6019, 111.144, -55.3885
0.347541, -1, 34.8248, 29.989, 12.8039, 12.6019, 111.144, -55.3885
0.350282, -1, 34.7287, 29.9398, 12.8233, 12.6032, 111.092, -55.5188
0.351591, -1, 34.7287, 29.9398, 12.8233, 12.6032, 111.092, -55.5188
0.353793, -1, 34.6326, 29.8905, 12.8427, 12.6045, 111.041, -55.6492
0.35539, -1, 34.6326, 29.8905, 12.8427, 12.6045, 111.041, -55.6492
0.357593, -1, 34.5364, 29.8413, 12.8622, 12.6057, 110.989, -55.7796
0.358808, -1, 34.5364, 29.8413, 12.8622, 12.6057, 110.989, -55.7796
0.360759, -1, 34.4404, 29.792, 12.8817, 12.607, 110.938, -55.91
0.362126, -1, 34.4404, 29.792, 12.8817, 12.607, 110.938, -55.91
0.363448, -1, 34.4404, 29.792, 12.8817, 12.607, 110.938, -55.91
0.366678, -1, 34.3443, 29.7428, 12.9012, 12.6084, 110.886, -56.0405
0.375663, -1, 34.1522, 29.6445, 12.9401, 12.611, 110.783, -56.3014
0.383707, -1, 33.9604, 29.5462, 12.979, 12.6136, 110.68, -56.5622
0.391713, -1, 33.7687, 29.4479, 13.0179, 12.6163, 110.577, -56.823
0.398661, -1, 33.5769, 29.3496, 13.0568, 12.6189, 110.474, -57.0839
0.407669, -1, 33.3847, 29.2512, 13.0958, 12.6215, 110.371, -57.3451
0.415705, -1, 33.1921, 29.1527, 13.1347, 12.6241, 110.268, -57.6061
0.425253, -1, 32.9029, 29.0048, 13.1929, 12.628, 110.113, -57.9977
0.431661, -1, 32.8064, 28.9555, 13.2124, 12.6294, 110.062, -58.1283
0.43972, -1, 32.6131, 28.8569, 13.2514, 12.632, 109.958, -58.3897
0.447689, -1, 32.4195, 28.7581, 13.2902, 12.6347, 109.855, -58.6506
0.455661, -1, 32.2256, 28.6594, 13.3291, 12.6374, 109.753, -58.9116
0.462662, -1, 32.0315, 28.5607, 13.368, 12.6401, 109.649, -59.1726
0.471664, -1, 31.8377, 28.4619, 13.4069, 12.6428, 109.546, -59.434
0.480654, -1, 31.644, 28.3631, 13.4459, 12.6455, 109.443, -59.6954
0.487752, -1, 31.4505, 28.2644, 13.4849, 12.6484, 109.34, -59.9565
0.497689, -1, 31.2574, 28.1659, 13.5238, 12.6511, 109.237, -60.2178
0.503654, -1, 31.0648, 28.0674, 13.5629, 12.6539, 109.134, -60.4794
0.511721, -1, 30.8726, 27.9688, 13.6019, 12.6567, 109.031, -60.7409
0.519659, -1, 30.6806, 27.8703, 13.6409, 12.6596, 108.928, -61.0022
0.527756, -1, 30.4887, 27.7717, 13.6799, 12.6624, 108.824, -61.2634
0.535653, -1, 30.2967, 27.673, 13.7189, 12.6652, 108.721, -61.5248
0.543667, -1, 30.1045, 27.5743, 13.7579, 12.6679, 108.618, -61.7867
0.551721, -1, 29.912, 27.4755, 13.7969, 12.6707, 108.515, -62.0483
0.559834, -1, 29.7189, 27.3767, 13.8358, 12.6733, 108.411, -62.31
0.567657, -1, 29.5253, 27.2779, 13.8747, 12.676, 108.308, -62.5717
0.575719, -1, 29.3313, 27.1792, 13.9137, 12.6786, 108.205, -62.8337
0.583664, -1, 29.1371, 27.0803, 13.9526, 12.6812, 108.102, -63.0952
0.591654, -1, 28.9426, 26.9814, 13.9916, 12.6837, 107.998, -63.3566
0.599725, -1, 28.7484, 26.8825, 14.0305, 12.6863, 107.895, -63.6181
0.607653, -1, 28.5543, 26.7836, 14.0695, 12.6888, 107.791, -63.8799
0.615742, -1, 28.3603, 26.6848, 14.1086, 12.6913, 107.688, -64.1417
0.623711, -1, 28.1669, 26.5861, 14.1476, 12.6938, 107.585, -64.4032
0.631654, -1, 27.974, 26.4873, 14.1865, 12.6963, 107.482, -64.6648
0.63973, -1, 27.7812, 26.3884, 14.2256, 12.6987, 107.378, -64.9268
0.647649, -1, 27.5887, 26.2896, 14.2645, 12.7011, 107.275, -65.1887
0.78886, -1, 24.2079, 24.5597, 14.9465, 12.7419, 105.468, -69.7685
0.79007, -1, 24.2079, 24.5597, 14.9465, 12.7419, 105.468, -69.7685
0.791992, -1, 24.1116, 24.5102, 14.966, 12.743, 105.416, -69.8992
0.79344, -1, 24.1116, 24.5102, 14.966, 12.743, 105.416, -69.8992
0.794635, -1, 24.1116, 24.5102, 14.966, 12.743, 105.416, -69.8992
0.797311, -1, 24.0153, 24.4609, 14.9855, 12.7441, 105.365, -70.0299
0.798595, -1, 24.0153, 24.4609, 14.9855, 12.7441, 105.365, -70.0299
0.801732, -1, 23.9188, 24.4115, 15.005, 12.7453, 105.313, -70.1607
0.803255, -1, 23.9188, 24.4115, 15.005, 12.7453, 105.313, -70.1607
0.806082, -1, 23.8224, 24.362, 15.0244, 12.7465, 105.261, -70.2916
0.807277, -1, 23.8224, 24.362, 15.0244, 12.7465, 105.261, -70.2916
0.809388, -1, 23.7259, 24.3126, 15.0439, 12.7478, 105.209, -70.4223
0.81058, -1, 23.7259, 24.3126, 15.0439, 12.7478, 105.209, -70.4223
0.812744, -1, 23.6294, 24.2631, 15.0633, 12.749, 105.158, -70.5532
0.814047, -1, 23.6294, 24.2631, 15.0633, 12.749, 105.158, -70.5532
0.820772, -1, 23.5328, 24.2137, 15.0828, 12.7502, 105.106, -70.6842
0.822128, -1, 23.4361, 24.1643, 15.1023, 12.7513, 105.054, -70.815
0.82331, -1, 23.4361, 24.1643, 15.1023, 12.7513, 105.054, -70.815
0.82542, -1, 23.3393, 24.1149, 15.1218, 12.7525, 105.003, -70.9458
0.826689, -1, 23.3393, 24.1149, 15.1218, 12.7525, 105.003, -70.9458
0.829454, -1, 23.2425, 24.0654, 15.1412, 12.7537, 104.951, -71.0767
0.830703, -1, 23.2425, 24.0654, 15.1412, 12.7537, 104.951, -71.0767
0.834577, -1, 23.1456, 24.016, 15.1606, 12.7549, 104.899, -71.2076
0.840172, -1, 23.0487, 23.9665, 15.1801, 12.7562, 104.796, -71.4694
0.848292, -1, 22.8546, 23.8676, 15.219, 12.7586, 104.692, -71.7313
0.855636, -1, 22.6607, 23.7689, 15.258, 12.7611, 104.641, -71.8622
0.863688, -1, 22.467, 23.6702, 15.297, 12.7636, 104.537, -72.1236
0.871691, -1, 22.2736, 23.5716, 15.3359, 12.766, 104.434, -72.385
0.879741, -1, 22.0804, 23.4728, 15.3748, 12.7686, 104.331, -72.6465
0.887639, -1, 21.8874, 23.3741, 15.4138, 12.7712, 104.227, -72.9082
0.895657, -1, 21.6949, 23.2754, 15.4528, 12.7739, 104.124, -73.1695
0.903656, -1, 21.5026, 23.1766, 15.4917, 12.7766, 104.021, -73.4309
0.911683, -1, 21.3103, 23.0779, 15.5306, 12.7792, 103.918, -73.6924
0.919654, -1, 21.118, 22.9792, 15.5696, 12.7819, 103.815, -73.9541
0.92765, -1, 20.9255, 22.8805, 15.6085, 12.7845, 103.712, -74.2153
0.935689, -1, 20.733, 22.7819, 15.6475, 12.7873, 103.609, -74.4763
0.943657, -1, 20.5404, 22.6833, 15.6864, 12.79, 103.505, -74.7376
0.95167, -1, 20.3473, 22.5846, 15.7252, 12.7927, 103.402, -74.9991
0.958705, -1, 20.1536, 22.4859, 15.7642, 12.7954, 103.299, -75.2603
0.967651, -1, 19.96, 22.3871, 15.803, 12.7982, 103.196, -75.5214
0.975646, -1, 19.7663, 22.2884, 15.8417, 12.8009, 103.094, -75.7826
0.984636, -1, 19.5728, 22.1898, 15.8807, 12.8036, 102.99, -76.0438
0.991633, -1, 19.3794, 22.0912, 15.9196, 12.8063, 102.887, -76.3052
0.999657, -1, 19.1864, 21.9925, 15.9584, 12.8091, 102.784, -76.5659
1.00764, -1, 18.9936, 21.8939, 15.9973, 12.8118, 102.681, -76.8267
1.01563, -1, 18.8011, 21.7953, 16.0361, 12.8145, 102.578, -77.0878
1.02373, -1, 18.609, 21.6965, 16.0749, 12.8172, 102.475, -77.3488
1.03167, -1, 18.4172, 21.5979, 16.1138, 12.8199, 102.372, -77.6094
1.03964, -1, 18.2252, 21.4994, 16.1527, 12.8226, 102.27, -77.8701
1.04771, -1, 18.0334, 21.4009, 16.1915, 12.8251, 102.167, -78.1309
1.05564, -1, 17.8416, 21.3026, 16.2304, 12.8277, 102.064, -78.3919
1.06365, -1, 17.6495, 21.2042, 16.2693, 12.8302, 101.961, -78.6524
1.07171, -1, 17.4571, 21.1059, 16.3081, 12.8327, 101.858, -78.9127
1.07963, -1, 17.2643, 21.0076, 16.3469, 12.8352, 101.755, -79.1733
1.08763, -1, 17.0712, 20.9093, 16.3857, 12.8376, 101.652, -79.4339
1.09572, -1, 16.8782, 20.811, 16.4244, 12.84, 101.549, -79.6945
1.10364, -1, 16.6851, 20.7129, 16.4633, 12.8423, 101.446, -79.955
1.11163, -1, 16.4921, 20.6146, 16.5019, 12.8447, 101.344, -80.2155
1.11973, -1, 16.2992, 20.5163, 16.5406, 12.847, 101.241, -80.4762
1.12768, -1, 16.1069, 20.4179, 16.5794, 12.8493, 101.138, -80.7367
1.13565, -1, 15.9149, 20.3195, 16.6181, 12.8516, 101.036, -80.9968
1.14372, -1, 15.7232, 20.221, 16.6569, 12.8539, 100.933, -81.2568
1.15164, -1, 15.5319, 20.1226, 16.6954, 12.8563, 100.83, -81.5169
1.15971, -1, 15.3407, 20.0243, 16.7341, 12.8586, 100.728, -81.7772
1.1685, -1, 15.1495, 19.9261, 16.7729, 12.861, 100.625, -82.037
1.17568, -1, 14.9584, 19.8279, 16.8116, 12.8632, 100.523, -82.2969
1.1838, -1, 14.767, 19.7297, 16.8502, 12.8655, 100.42, -82.5569
1.19266, -1, 14.5755, 19.6316, 16.889, 12.8678, 100.318, -82.817
1.19977, -1, 14.3837, 19.5335, 16.9276, 12.8701, 100.215, -83.0766
1.2078, -1, 14.1915, 19.4355, 16.9663, 12.8724, 100.113, -83.3361
1.21653, -1, 13.9993, 19.3375, 17.0051, 12.8746, 100.01, -83.5956
1.22366, -1, 13.8068, 19.2397, 17.0436, 12.877, 99.9074, -83.8554
1.23177, -1, 13.6143, 19.1419, 17.0823, 12.8793, 99.805, -84.115
1.24056, -1, 13.422, 19.044, 17.121, 12.8816, 99.7024, -84.3741
1.24769, -1, 13.23, 18.9461, 17.1595, 12.8838, 99.6002, -84.6335
1.25586, -1, 13.0384, 18.8482, 17.1981, 12.8863, 99.4978, -84.8928
1.26465, -1, 12.8472, 18.7502, 17.2368, 12.8886, 99.3952, -85.1523
1.27205, -1, 12.6562, 18.6522, 17.2753, 12.891, 99.2932, -85.4112
1.27869, -1, 12.5608, 18.6033, 17.2946, 12.8922, 99.242, -85.5406
1.28932, -1, 12.2752, 18.4567, 17.3524, 12.8958, 99.0884, -85.9289
1.29621, -1, 12.0851, 18.3589, 17.3909, 12.8982, 98.9865, -86.188
1.30492, -1, 11.8947, 18.2613, 17.4296, 12.9006, 98.8843, -86.4467
1.31215, -1, 11.7042, 18.1637, 17.4682, 12.903, 98.7824, -86.7053
1.3205, -1, 11.5133, 18.066, 17.5066, 12.9055, 98.6807, -86.9639
1.32915, -1, 11.3224, 17.9684, 17.5452, 12.9079, 98.5787, -87.2226
1.33623, -1, 11.2268, 17.8708, 17.5838, 12.9103, 98.4767, -87.481
1.34474, -1, 10.9396, 17.7734, 17.6223, 12.9128, 98.3749, -87.7391
1.35162, -1, 10.8438, 17.7247, 17.6415, 12.914, 98.3238, -87.8683
1.35964, -1, 10.6522, 17.6272, 17.68, 12.9165, 98.2218, -88.1266
1.36847, -1, 10.4608, 17.5297, 17.7184, 12.9191, 98.1201, -88.3851
1.37562, -1, 10.2697, 17.4322, 17.7568, 12.9216, 98.0182, -88.6432
1.38364, -1, 10.0788, 17.3347, 17.7953, 12.9242, 97.9162, -88.9011
1.39171, -1, 9.88848, 17.2371, 17.8335, 12.9268, 97.8146, -89.1591
1.39963, -1, 9.69833, 17.1396, 17.8719, 12.9294, 97.7125, -89.4173
1.40662, -1, 9.50861, 17.0422, 17.9102, 12.9322, 97.6105, -89.6754
1.41562, -1, 9.31931, 16.9448, 17.9485, 12.935, 97.5087, -89.9329
1.42363, -1, 9.12999, 16.8475, 17.9869, 12.9376, 97.4069, -90.1904
1.43169, -1, 8.94056, 16.7503, 18.0253, 12.9402, 97.305, -90.448
1.43963, -1, 8.75095, 16.6531, 18.0636, 12.9429, 97.2035, -90.7056
1.44765, -1, 8.56133, 16.5559, 18.102, 12.9455, 97.1017, -90.9628
1.45466, -1, 8.37155, 16.4588, 18.1404, 12.9482, 97.0004, -91.22
1.46363, -1, 8.18129, 16.3618, 18.1786, 12.9509, 96.8988, -91.4772
1.47162, -1, 7.99086, 16.2649, 18.217, 12.9535, 96.7971, -91.7345
1.48063, -1, 7.80034, 16.168, 18.2553, 12.9562, 96.6957, -91.9915
1.48662, -1, 7.60974, 16.0711, 18.2935, 12.9589, 96.5941, -92.2481
1.49563, -1, 7.41934, 15.9742, 18.3319, 12.9614, 96.4927, -92.5049
1.50369, -1, 7.22924, 15.8773, 18.37, 12.964, 96.3916, -92.7618
1.51162, -1, 7.03947, 15.7803, 18.4082, 12.9666, 96.2901, -93.0185
1.51962, -1, 6.85004, 15.6834, 18.4465, 12.9691, 96.1888, -93.2748
1.52768, -1, 6.66115, 15.5865, 18.4846, 12.9717, 96.0882, -93.5312
1.53567, -1, 6.47268, 15.4897, 18.5226, 12.9742, 95.987, -93.7876
1.54367, -1, 6.28445, 15.3929, 18.5608, 12.9767, 95.886, -94.0442
1.55163, -1, 6.09635, 15.2962, 18.5989, 12.9792, 95.7852, -94.3001
1.55962, -1, 5.90797, 15.1995, 18.6371, 12.9816, 95.6841, -94.556
1.56769, -1, 5.71949, 15.1028, 18.6753, 12.9838, 95.5832, -94.8119
1.57565, -1, 5.531, 15.0062, 18.7133, 12.9862, 95.4826, -95.0679
1.58363, -1, 5.34224, 14.9096, 18.7514, 12.9886, 95.3817, -95.3236
1.59169, -1, 5.15309, 14.8132, 18.7896, 12.9908, 95.281, -95.579
1.59961, -1, 4.9637, 14.7169, 18.8276, 12.9931, 95.1805, -95.8345
1.60762, -1, 4.77431, 14.6205, 18.8656, 12.9953, 95.0797, -96.0901
1.61568, -1, 4.58485, 14.5241, 18.9037, 12.9975, 94.9789, -96.3453
1.62364, -1, 4.39568, 14.4278, 18.9417, 12.9998, 94.8782, -96.6002
1.63163, -1, 4.20674, 14.3313, 18.9797, 13.002, 94.7773, -96.855
1.63969, -1, 4.01804, 14.2349, 19.0177, 13.0043, 94.6765, -97.1102
1.6476, -1, 3.83005, 14.1387, 19.0556, 13.0065, 94.5758, -97.3653
1.65564, -1, 3.64256, 14.0425, 19.0935, 13.0087, 94.4749, -97.6199
1.66376, -1, 3.45538, 13.9463, 19.1314, 13.0111, 94.3744, -97.8746
1.67172, -1, 3.26838, 13.8503, 19.1692, 13.0134, 94.2737, -98.1294
1.67969, -1, 3.08136, 13.7543, 19.2071, 13.0156, 94.173, -98.3842
1.68798, -1, 2.89438, 13.6582, 19.2451, 13.0178, 94.0724, -98.6385
1.69576, -1, 2.70735, 13.5622, 19.2829, 13.0201, 93.9717, -98.8925
1.70381, -1, 2.5201, 13.4662, 19.3208, 13.0224, 93.8713, -99.1466
1.71215, -1, 2.33262, 13.3703, 19.3586, 13.0247, 93.771, -99.4008
1.71928, -1, 2.14467, 13.2745, 19.3963, 13.0269, 93.6706, -99.6549
1.72772, -1, 1.95656, 13.1787, 19.4343, 13.0291, 93.5705, -99.9085
1.73637, -1, 1.76843, 13.0828, 19.472, 13.0314, 93.4706, -100.162
1.74365, -1, 1.58012, 12.987, 19.5097, 13.0336, 93.3705, -100.416
1.75173, -1, 1.39204, 12.8911, 19.5476, 13.0359, 93.2704, -100.669
1.76056, -1, 1.20426, 12.7953, 19.5853, 13.0382, 93.1705, -100.922
1.76786, -1, 1.01684, 12.6995, 19.6229, 13.0407, 93.0704, -101.175
1.77595, -1, 0.83005, 12.604, 19.6607, 13.043, 92.9704, -101.429
1.78473, -1, 0.643784, 12.5083, 19.6983, 13.0453, 92.8708, -101.682
1.792, -1, 0.457911, 12.4129, 19.7359, 13.0478, 92.7709, -101.935
1.80015, -1, 0.272235, 12.3176, 19.7736, 13.0502, 92.6712, -102.187
1.80895, -1, 0.0867954, 12.2221, 19.8112, 13.0527, 92.5719, -102.44
1.81615, -1, -0.098565, 12.1268, 19.8487, 13.0551, 92.4722, -102.693
1.82426, -1, -0.284189, 12.0316, 19.8864, 13.0576, 92.3726, -102.945
1.83297, -1, -0.470101, 11.9364, 19.924, 13.0601, 92.2734, -103.197
1.84024, -1, -0.563211, 11.8414, 19.9615, 13.0625, 92.1737, -103.449
1.84833, -1, -0.749581, 11.7939, 19.9991, 13.065, 92.0742, -103.701
1.85561, -1, -0.936124, 11.6989, 20.0178, 13.0663, 92.0247, -103.827
1.86367, -1, -1.12291, 11.6038, 20.0552, 13.0688, 91.9253, -104.079
1.8717, -1, -1.30994, 11.5087, 20.0928, 13.0713, 91.826, -104.331
1.87961, -1, -1.49678, 11.4136, 20.1303, 13.0738, 91.7269, -104.582
1.88761, -1, -1.68333, 11.3184, 20.1677, 13.0764, 91.6277, -104.834
1.89561, -1, -1.86955, 11.2233, 20.2052, 13.079, 91.5285, -105.085
1.90372, -1, -2.05528, 11.1284, 20.2426, 13.0816, 91.4294, -105.336
1.91166, -1, -2.24042, 11.0335, 20.28, 13.0842, 91.3301, -105.587
1.91961, -1, -2.42524, 10.9386, 20.3174, 13.0869, 91.2309, -105.838
1.92761, -1, -2.60962, 10.8438, 20.3547, 13.0896, 91.132, -106.089
1.93566, -1, -2.79352, 10.749, 20.392, 13.0923, 91.0328, -106.34
1.94361, -1, -2.97743, 10.6543, 20.4294, 13.0949, 90.9337, -106.591
1.95161, -1, -3.16145, 10.5596, 20.4668, 13.0975, 90.835, -106.842
1.95971, -1, -3.34571, 10.465, 20.504, 13.1001, 90.736, -107.092
1.96761, -1, -3.53039, 10.3706, 20.5413, 13.1026, 90.637, -107.343
1.97561, -1, -3.71523, 10.2762, 20.5786, 13.1052, 90.5384, -107.593
1.98462, -1, -3.90026, 10.1818, 20.6158, 13.1077, 90.4395, -107.843
1.99162, -1, -4.08558, 10.0875, 20.6531, 13.1101, 90.3408, -108.093
1.99968, -1, -4.27118, 9.99321, 20.6903, 13.1126, 90.2423, -108.343
2.00761, -1, -4.45684, 9.89889, 20.7274, 13.1149, 90.1435, -108.593
2.01584, -1, -4.64216, 9.80455, 20.7648, 13.1173, 90.0451, -108.842
2.0236, -1, -4.82702, 9.71035, 20.8019, 13.1196, 89.9468, -109.092
2.03165, -1, -5.01155, 9.61626, 20.8389, 13.1221, 89.8482, -109.341
2.04045, -1, -5.19538, 9.52218, 20.8761, 13.1244, 89.7498, -109.591
2.0476, -1, -5.37869, 9.42811, 20.9132, 13.1267, 89.6516, -109.84
2.05562, -1, -5.56157, 9.33423, 20.9502, 13.129, 89.5531, -110.088
2.06444, -1, -5.74408, 9.24027, 20.9874, 13.1313, 89.4548, -110.337
2.0716, -1, -5.92637, 9.14636, 21.0244, 13.1337, 89.3568, -110.586
2.07961, -1, -6.10872, 9.05256, 21.0613, 13.1359, 89.2586, -110.835
2.0884, -1, -6.29144, 8.95878, 21.0984, 13.1381, 89.1606, -111.083
2.09562, -1, -6.47444, 8.86512, 21.1354, 13.1403, 89.0629, -111.331
2.1036, -1, -6.65757, 8.77148, 21.1721, 13.1426, 88.9648, -111.58
2.1124, -1, -6.84118, 8.67787, 21.2091, 13.1447, 88.8667, -111.828
2.1196, -1, -7.02508, 8.58426, 21.246, 13.1468, 88.7691, -112.076
2.12762, -1, -7.20931, 8.49074, 21.2829, 13.1489, 88.6711, -112.323
2.13647, -1, -7.39356, 8.39709, 21.3198, 13.1511, 88.5733, -112.571
2.14361, -1, -7.5774, 8.30344, 21.3567, 13.1533, 88.4758, -112.818
2.15161, -1, -7.76088, 8.21002, 21.3934, 13.1554, 88.3781, -113.066
2.16042, -1, -7.94398, 8.1166, 21.4303, 13.1577, 88.2808, -113.313
2.16761, -1, -8.12658, 8.02322, 21.4671, 13.1599, 88.1836, -113.56
2.17564, -1, -8.30841, 7.92992, 21.5038, 13.1621, 88.086, -113.807
2.18449, -1, -8.48979, 7.83665, 21.5407, 13.1643, 87.9887, -114.054
2.19171, -1, -8.67078, 7.74347, 21.5775, 13.1666, 87.8913, -114.301
2.19975, -1, -8.8515, 7.6503, 21.6143, 13.1689, 87.7939, -114.547
2.20863, -1, -9.03218, 7.55723, 21.651, 13.1711, 87.6964, -114.793
2.21571, -1, -9.21321, 7.46423, 21.6878, 13.1734, 87.5993, -115.04
2.22371, -1, -9.39448, 7.37143, 21.7244, 13.1756, 87.5021, -115.286
2.23251, -1, -9.57611, 7.2786, 21.7611, 13.1777, 87.405, -115.532
2.23965, -1, -9.75806, 7.18576, 21.7978, 13.18, 87.3079, -115.779
2.24764, -1, -9.9404, 7.09302, 21.8343, 13.1822, 87.2107, -116.025
2.25656, -1, -10.1229, 7.00026, 21.8709, 13.1844, 87.1135, -116.271
2.26373, -1, -10.3056, 6.90747, 21.9075, 13.1867, 87.0165, -116.516
2.2719, -1, -10.4883, 6.81473, 21.9441, 13.1888, 86.9192, -116.762
2.28072, -1, -10.6705, 6.72201, 21.9807, 13.1911, 86.8221, -117.007
2.28805, -1, -10.8523, 6.62942, 22.0172, 13.1935, 86.7254, -117.253
2.2946, -1, -10.9431, 6.58312, 22.0353, 13.1947, 86.6768, -117.376
2.30403, -1, -11.2141, 6.44434, 22.0901, 13.1983, 86.5318, -117.743
2.31209, -1, -11.3939, 6.35185, 22.1267, 13.2008, 86.4353, -117.988
2.32022, -1, -11.5736, 6.25942, 22.1631, 13.2031, 86.3384, -118.233
2.32815, -1, -11.7529, 6.167, 22.1995, 13.2056, 86.2418, -118.477
2.33466, -1, -11.8425, 6.12085, 22.2178, 13.2069, 86.1936, -118.6
2.34429, -1, -12.1113, 5.9825, 22.2724, 13.2106, 86.0486, -118.966
2.35214, -1, -12.201, 5.93644, 22.2906, 13.2118, 86.0004, -119.21
2.35873, -1, -12.3807, 5.84442, 22.3271, 13.2144, 85.9041, -119.332
2.36863, -1, -12.6509, 5.70639, 22.3814, 13.218, 85.7596, -119.698
2.37563, -1, -12.7412, 5.6604, 22.3995, 13.2192, 85.7115, -119.82
2.38359, -1, -12.922, 5.56852, 22.4359, 13.2216, 85.6156, -120.064
2.39164, -1, -13.1032, 5.47658, 22.4722, 13.2241, 85.5195, -120.308
2.3997, -1, -13.2845, 5.38454, 22.5084, 13.2265, 85.4235, -120.551
2.40893, -1, -13.5559, 5.24668, 22.5628, 13.2303, 85.2799, -120.916
2.41559, -1, -13.6462, 5.20074, 22.5809, 13.2316, 85.2319, -121.038
2.42364, -1, -13.8264, 5.10891, 22.617, 13.2341, 85.1362, -121.281
2.43159, -1, -14.006, 5.01711, 22.6532, 13.2367, 85.0405, -121.524
2.43959, -1, -14.1847, 4.92542, 22.6894, 13.2393, 84.9449, -121.767
2.44766, -1, -14.3631, 4.83374, 22.7254, 13.2419, 84.8493, -122.01
2.45558, -1, -14.541, 4.74213, 22.7617, 13.2444, 84.7538, -122.252
2.46361, -1, -14.7186, 4.65055, 22.7979, 13.2469, 84.6581, -122.495
2.47166, -1, -14.8962, 4.55905, 22.8339, 13.2494, 84.5624, -122.737
2.47965, -1, -15.0739, 4.46764, 22.8701, 13.2519, 84.4667, -122.979
2.4876, -1, -15.2519, 4.37636, 22.9062, 13.2543, 84.3711, -123.221
2.49565, -1, -15.4303, 4.28502, 22.9422, 13.2567, 84.2754, -123.463
2.50464, -1, -15.6092, 4.19369, 22.9783, 13.2591, 84.1799, -123.705
2.51159, -1, -15.7884, 4.10244, 23.0143, 13.2613, 84.0843, -123.947
2.51966, -1, -15.9676, 4.01119, 23.0502, 13.2636, 83.9889, -124.188
2.52771, -1, -16.1472, 3.91989, 23.0862, 13.2658, 83.8935, -124.429
2.53564, -1, -16.327, 3.8286, 23.1223, 13.2679, 83.7981, -124.671
2.54369, -1, -16.5064, 3.73733, 23.1581, 13.2701, 83.7026, -124.912
2.55159, -1, -16.6854, 3.64618, 23.1939, 13.2723, 83.6072, -125.154
2.55965, -1, -16.8638, 3.55509, 23.2297, 13.2746, 83.5118, -125.395
2.5676, -1, -17.0414, 3.46402, 23.2656, 13.2768, 83.4164, -125.635
2.57559, -1, -17.2184, 3.37304, 23.3014, 13.279, 83.3212, -125.876
2.58365, -1, -17.3949, 3.28217, 23.3373, 13.2812, 83.2262, -126.117
2.5917, -1, -17.5712, 3.1913, 23.373, 13.2833, 83.1311, -126.358
2.59959, -1, -17.7472, 3.10065, 23.4089, 13.2855, 83.0363, -126.598
2.60767, -1, -17.9232, 3.01005, 23.4448, 13.2876, 82.9416, -126.838
2.61559, -1, -18.0994, 2.91957, 23.4805, 13.2898, 82.8466, -127.078
2.62359, -1, -18.2759, 2.8292, 23.5162, 13.2919, 82.7519, -127.318
2.63165, -1, -18.4529, 2.73876, 23.5521, 13.2939, 82.6573, -127.558
2.63958, -1, -18.6303, 2.64838, 23.5877, 13.296, 82.5625, -127.797
2.64761, -1, -18.808, 2.55803, 23.6234, 13.298, 82.468, -128.037
2.65566, -1, -18.9861, 2.4676, 23.6592, 13.3, 82.3737, -128.276
2.66359, -1, -19.1644, 2.37714, 23.6947, 13.302, 82.2792, -128.516
2.6716, -1, -19.3426, 2.28679, 23.7303, 13.304, 82.1848, -128.755
2.67969, -1, -19.5202, 2.19643, 23.766, 13.3062, 82.091, -128.994
2.68768, -1, -19.6973, 2.10607, 23.8015, 13.3084, 81.9967, -129.233
2.69576, -1, -19.8738, 2.01575, 23.8369, 13.3106, 81.9024, -129.472
2.70373, -1, -20.0496, 1.92552, 23.8725, 13.3127, 81.8086, -129.711
2.71172, -1, -20.2247, 1.83533, 23.908, 13.315, 81.7144, -129.95
2.7198, -1, -20.3996, 1.7452, 23.9434, 13.3171, 81.6203, -130.188
2.72767, -1, -20.5743, 1.65514, 23.9791, 13.3193, 81.5266, -130.426
2.73559, -1, -20.7487, 1.56517, 24.0145, 13.3215, 81.4325, -130.665
2.74369, -1, -20.9233, 1.4753, 24.0499, 13.3237, 81.3389, -130.903
2.75162, -1, -21.0983, 1.38556, 24.0855, 13.3258, 81.2452, -131.14
2.75964, -1, -21.2737, 1.29574, 24.1209, 13.328, 81.1514, -131.378
2.76796, -1, -21.4494, 1.20604, 24.1562, 13.3302, 81.0574, -131.616
2.77578, -1, -21.6254, 1.11638, 24.1916, 13.3323, 80.9637, -131.854
2.78463, -1, -21.8016, 1.02672, 24.227, 13.3345, 80.8698, -132.091
2.79199, -1, -21.978, 0.9371, 24.2624, 13.3367, 80.776, -132.328
2.79996, -1, -22.1546, 0.847524, 24.2978, 13.3389, 80.6824, -132.566
2.80894, -1, -22.3311, 0.757974, 24.3331, 13.341, 80.5887, -132.803
2.81615, -1, -22.5072, 0.668491, 24.3683, 13.3433, 80.4951, -133.04
2.82418, -1, -22.6828, 0.579029, 24.4035, 13.3458, 80.4016, -133.277
2.83296, -1, -22.8577, 0.489603, 24.4388, 13.3481, 80.3079, -133.513
2.84027, -1, -23.0317, 0.400167, 24.474, 13.3505, 80.2143, -133.75
2.84822, -1, -23.2054, 0.310797, 24.5091, 13.3529, 80.1208, -133.987
2.857, -1, -23.2921, 0.266129, 24.5266, 13.3542, 80.0742, -134.105
2.86362, -1, -23.4652, 0.176849, 24.5618, 13.3566, 79.9806, -134.342
2.87168, -1, -23.6383, 0.0876532, 24.597, 13.359, 79.8874, -134.578
2.87961, -1, -23.8117, -0.00145316, 24.6322, 13.3613, 79.7942, -134.814
2.88758, -1, -23.9851, -0.0904429, 24.6673, 13.3639, 79.7011, -135.05
2.89562, -1, -24.1588, -0.17943, 24.7023, 13.3664, 79.6079, -135.286
2.9036, -1, -24.3328, -0.268405, 24.7374, 13.3687, 79.515, -135.521
2.91059, -1, -24.507, -0.357307, 24.7726, 13.3712, 79.422, -135.757
2.91958, -1, -24.6817, -0.446186, 24.8077, 13.3736, 79.3288, -135.993
2.92757, -1, -24.8566, -0.535088, 24.8427, 13.376, 79.2358, -136.228
2.93565, -1, -25.0317, -0.623965, 24.8779, 13.3783, 79.1429, -136.464
2.94357, -1, -25.2066, -0.712754, 24.9129, 13.3808, 79.0498, -136.699
2.95158, -1, -25.3811, -0.801508, 24.9479, 13.3831, 78.9571, -136.934
2.95966, -1, -25.5552, -0.890349, 24.983, 13.3855, 78.8646, -137.169
2.96758, -1, -25.7287, -0.979091, 25.0178, 13.388, 78.7717, -137.404
2.97558, -1, -25.9017, -1.06779, 25.0527, 13.3904, 78.6791, -137.638
2.98365, -1, -26.0742, -1.15652, 25.0877, 13.3929, 78.5869, -137.873
2.99157, -1, -26.2462, -1.24514, 25.1226, 13.3953, 78.4942, -138.107
3.00057, -1, -26.4179, -1.33368, 25.1574, 13.3977, 78.4016, -138.342
3.00765, -1, -26.5898, -1.42211, 25.1924, 13.4, 78.3093, -138.576
3.01557, -1, -26.7618, -1.51044, 25.2273, 13.4023, 78.2167, -138.81
3.02358, -1, -26.9341, -1.59865, 25.2621, 13.4046, 78.1243, -139.044
3.03163, -1, -27.1066, -1.68684, 25.297, 13.4068, 78.0322, -139.278
3.03968, -1, -27.2792, -1.77512, 25.3319, 13.4089, 77.9399, -139.512
3.04761, -1, -27.4521, -1.86326, 25.3666, 13.4111, 77.8479, -139.746
3.0556, -1, -27.6252, -1.95136, 25.4014, 13.4132, 77.756, -139.979
3.06362, -1, -27.7984, -2.03956, 25.4363, 13.4153, 77.6639, -140.213
3.07159, -1, -27.9717, -2.12761, 25.471, 13.4174, 77.5719, -140.446
3.07959, -1, -28.145, -2.21565, 25.5057, 13.4194, 77.4799, -140.68
3.08762, -1, -28.3181, -2.30369, 25.5405, 13.4214, 77.3879, -140.913
3.09561, -1, -28.4908, -2.39175, 25.5752, 13.4235, 77.2958, -141.145
3.10359, -1, -28.6633, -2.47971, 25.6099, 13.4257, 77.2037, -141.378
3.11162, -1, -28.835, -2.5677, 25.6446, 13.4279, 77.1117, -141.611
3.11959, -1, -29.006, -2.65569, 25.6793, 13.43, 77.0198, -141.844
3.12758, -1, -29.1767, -2.74358, 25.7138, 13.4322, 76.9278, -142.077
3.13563, -1, -29.3472, -2.8314, 25.7485, 13.4342, 76.8362, -142.309
3.14359, -1, -29.5179, -2.9191, 25.7832, 13.4363, 76.7442, -142.541
3.15169, -1, -29.6889, -3.00668, 25.8177, 13.4384, 76.6524, -142.774
3.15957, -1, -29.8599, -3.09423, 25.8522, 13.4404, 76.5608, -143.006
3.16759, -1, -30.0309, -3.18168, 25.8868, 13.4425, 76.4687, -143.238
3.17646, -1, -30.2018, -3.2692, 25.9214, 13.4445, 76.3771, -143.47
3.1836, -1, -30.373, -3.35661, 25.9559, 13.4466, 76.2857, -143.702
3.19168, -1, -30.5445, -3.44403, 25.9905, 13.4487, 76.194, -143.934
3.20113, -1, -30.7163, -3.53157, 26.0249, 13.4507, 76.1026, -144.166
3.20736, -1, -30.8882, -3.61891, 26.0594, 13.4527, 76.0113, -144.397
3.21578, -1, -31.06, -3.70628, 26.094, 13.4547, 75.9199, -144.628
3.22407, -1, -31.2316, -3.79362, 26.1284, 13.4568, 75.8285, -144.86
3.23158, -1, -31.4029, -3.88096, 26.1628, 13.4589, 75.7372, -145.091
3.2398, -1, -31.5737, -3.96827, 26.1973, 13.4611, 75.6459, -145.322
3.24907, -1, -31.7442, -4.05553, 26.2317, 13.4632, 75.5546, -145.553
3.25462, -1, -31.8292, -4.09917, 26.2489, 13.4643, 75.5091, -145.668
3.26373, -1, -32.0839, -4.23006, 26.3005, 13.4676, 75.3725, -146.015
3.2733, -1, -32.2533, -4.31718, 26.3349, 13.4699, 75.2813, -146.246
3.27982, -1, -32.4227, -4.4042, 26.3691, 13.472, 75.1903, -146.476
3.28809, -1, -32.5924, -4.4912, 26.4035, 13.4741, 75.0997, -146.707
3.29457, -1, -32.6773, -4.53466, 26.4208, 13.4752, 75.0541, -146.822
3.3041, -1, -32.9317, -4.66501, 26.4722, 13.4784, 74.9179, -147.167
3.31211, -1, -33.1014, -4.75193, 26.5064, 13.4805, 74.8275, -147.398
3.32173, -1, -33.2713, -4.83878, 26.5408, 13.4828, 74.7365, -147.628
3.32814, -1, -33.4413, -4.92569, 26.575, 13.485, 74.646, -147.858
3.33613, -1, -33.6116, -5.0126, 26.6092, 13.4872, 74.5555, -148.087
3.34488, -1, -33.7819, -5.09941, 26.6435, 13.4894, 74.4649, -148.317
3.35242, -1, -33.867, -5.14279, 26.6607, 13.4917, 74.3744, -148.547
3.36007, -1, -34.0372, -5.22952, 26.6948, 13.4928, 74.3292, -148.662
3.36892, -1, -34.2074, -5.31629, 26.7289, 13.495, 74.2388, -148.891
3.37561, -1, -34.3775, -5.40295, 26.7633, 13.4973, 74.148, -149.121
3.3836, -1, -34.5472, -5.4896, 26.7974, 13.4997, 74.0575, -149.35
3.39163, -1, -34.7165, -5.57631, 26.8315, 13.5021, 73.967, -149.579
3.39956, -1, -34.8853, -5.66293, 26.8657, 13.5045, 73.8764, -149.808
3.40756, -1, -35.0537, -5.74947, 26.8998, 13.507, 73.7859, -150.037
3.41561, -1, -35.222, -5.83594, 26.9339, 13.5094, 73.6956, -150.266
3.4227, -1, -35.3903, -5.9223, 26.968, 13.5118, 73.6052, -150.495
3.43162, -1, -35.5589, -6.00851, 27.0021, 13.5141, 73.5149, -150.724
3.43956, -1, -35.7273, -6.09475, 27.0361, 13.5165, 73.4245, -150.953
3.44762, -1, -35.8958, -6.1809, 27.0702, 13.5189, 73.3343, -151.181
3.45557, -1, -36.0644, -6.26707, 27.1043, 13.5213, 73.2438, -151.41
3.46356, -1, -36.2329, -6.35317, 27.1383, 13.5237, 73.1534, -151.639
3.47163, -1, -36.4015, -6.43935, 27.1722, 13.5262, 73.0632, -151.867
3.47956, -1, -36.5704, -6.52556, 27.2062, 13.5285, 72.9726, -152.095
3.48757, -1, -36.7392, -6.61173, 27.2401, 13.5308, 72.8825, -152.323
3.49746, -1, -36.9081, -6.69789, 27.274, 13.5331, 72.7925, -152.551
3.50362, -1, -37.0772, -6.78405, 27.308, 13.5353, 72.7024, -152.78
3.51156, -1, -37.246, -6.87016, 27.3419, 13.5376, 72.6124, -153.008
3.51956, -1, -37.4145, -6.95618, 27.3758, 13.5399, 72.5226, -153.235
3.52764, -1, -37.5827, -7.04222, 27.4098, 13.5421, 72.4327, -153.463
3.53558, -1, -37.7505, -7.12824, 27.4437, 13.5443, 72.3429, -153.69
3.54361, -1, -37.9181, -7.21419, 27.4775, 13.5466, 72.2531, -153.918
3.55166, -1, -38.0855, -7.30007, 27.5114, 13.5489, 72.1635, -154.145
3.55956, -1, -38.253, -7.38594, 27.5454, 13.551, 72.0735, -154.372
3.56757, -1, -38.4203, -7.47168, 27.5792, 13.5532, 71.9839, -154.599
3.57563, -1, -38.5875, -7.55735, 27.613, 13.5553, 71.8945, -154.827
3.58356, -1, -38.7549, -7.64307, 27.6469, 13.5574, 71.8047, -155.054
3.59156, -1, -38.9221, -7.7287, 27.6807, 13.5594, 71.7152, -155.281
3.59963, -1, -39.0894, -7.81431, 27.7144, 13.5615, 71.6261, -155.508
3.60757, -1, -39.2569, -7.89997, 27.7483, 13.5636, 71.5365, -155.734
3.61556, -1, -39.4244, -7.98567, 27.7821, 13.5654, 71.4472, -155.961
3.62364, -1, -39.592, -8.07121, 27.8157, 13.5674, 71.3579, -156.188
3.63156, -1, -39.7597, -8.15676, 27.8494, 13.5694, 71.2685, -156.415
3.63956, -1, -39.9274, -8.24229, 27.8832, 13.5714, 71.1792, -156.641
3.64765, -1, -40.0949, -8.32775, 27.9168, 13.5734, 71.0897, -156.867
3.65556, -1, -40.2624, -8.41311, 27.9505, 13.5753, 71.0007, -157.094
3.66356, -1, -40.4296, -8.49851, 27.9843, 13.5773, 70.9112, -157.32
3.6717, -1, -40.5966, -8.58388, 28.0179, 13.5793, 70.8221, -157.546
3.67958, -1, -40.7634, -8.66929, 28.0514, 13.5813, 70.7331, -157.772
3.68762, -1, -40.9301, -8.75463, 28.0852, 13.5833, 70.6438, -157.998
3.69594, -1, -41.0965, -8.83995, 28.1189, 13.5853, 70.5547, -158.224
3.70367, -1, -41.2627, -8.9252, 28.1524, 13.5873, 70.4657, -158.45
3.7117, -1, -41.4289, -9.01037, 28.186, 13.5893, 70.3764, -158.675
3.7201, -1, -41.5952, -9.09553, 28.2197, 13.5913, 70.2872, -158.901
3.72767, -1, -41.7615, -9.18065, 28.2533, 13.5933, 70.1981, -159.126
3.73557, -1, -41.9278, -9.26571, 28.2868, 13.5953, 70.1091, -159.352
3.74439, -1, -42.0942, -9.35071, 28.3205, 13.5973, 70.0201, -159.577
3.75159, -1, -42.2604, -9.4358, 28.3541, 13.5994, 69.9311, -159.802
3.75963, -1, -42.4266, -9.52085, 28.3875, 13.6014, 69.8424, -160.028
3.76847, -1, -42.5931, -9.60588, 28.4211, 13.6034, 69.7532, -160.253
3.77574, -1, -42.7595, -9.69086, 28.4546, 13.6054, 69.6643, -160.478
3.7838, -1, -42.9259, -9.77583, 28.488, 13.6075, 69.5759, -160.703
3.79191, -1, -43.0924, -9.86077, 28.5215, 13.6095, 69.4868, -160.928
3.80074, -1, -43.2586, -9.94572, 28.555, 13.6116, 69.3982, -161.153
3.80801, -1, -43.4247, -10.0306, 28.5885, 13.6137, 69.3096, -161.377
3.81455, -1, -43.5077, -10.0731, 28.6052, 13.6148, 69.2654, -161.49
3.82494, -1, -43.7566, -10.2005, 28.6554, 13.6179, 69.1324, -161.827
3.83213, -1, -43.9224, -10.2853, 28.6888, 13.6201, 69.044, -162.052
3.84016, -1, -44.088, -10.37, 28.7222, 13.6222, 68.9556, -162.276
3.84879, -1, -44.2533, -10.4547, 28.7557, 13.6243, 68.8669, -162.5
3.8562, -1, -44.3359, -10.497, 28.7725, 13.6266, 68.7782, -162.724
3.86415, -1, -44.501, -10.5815, 28.8058, 13.6277, 68.7339, -162.949
3.87157, -1, -44.6662, -10.6661, 28.8391, 13.6298, 68.6453, -163.061
3.8796, -1, -44.8315, -10.7506, 28.8727, 13.632, 68.5567, -163.285
3.88759, -1, -44.9969, -10.835, 28.9061, 13.6342, 68.4682, -163.509
3.89555, -1, -45.1623, -10.9195, 28.9394, 13.6364, 68.38, -163.733
3.9036, -1, -45.3276, -11.004, 28.9729, 13.6386, 68.2914, -163.957
3.91155, -1, -45.4928, -11.0885, 29.0062, 13.6409, 68.2031, -164.181
3.91954, -1, -45.6581, -11.1729, 29.0393, 13.6431, 68.1151, -164.405
3.92761, -1, -45.8233, -11.2574, 29.0727, 13.6455, 68.0265, -164.628
3.93555, -1, -45.9875, -11.3412, 29.1061, 13.6478, 67.9381, -164.852
3.94354, -1, -46.1489, -11.4235, 29.1395, 13.6501, 67.8501, -165.075
3.95161, -1, -46.3059, -11.5028, 29.1731, 13.6524, 67.7627, -165.296
3.95955, -1, -46.4562, -11.5778, 29.2067, 13.6548, 67.6775, -165.512
3.96755, -1, -46.5972, -11.6477, 29.2389, 13.6571, 67.596, -165.717
3.97561, -1, -46.7267, -11.711, 29.2687, 13.6593, 67.5214, -165.907
3.98354, -1, -46.8416, -11.767, 29.295, 13.6613, 67.4545, -166.075
3.99154, -1, -46.9403, -11.8161, 29.317, 13.6631, 67.3987, -166.217
4.00144, -1, -47.0228, -11.8783, 29.3398, 13.6647, 67.336, -166.375
4.00755, -1, -47.0899, -11.8958, 29.3448, 13.665, 67.3206, -166.414
4.01654, -1, -47.1422, -11.9252, 29.352, 13.6654, 67.2973, -166.473
4.02362, -1, -47.181, -11.9472, 29.3559, 13.6657, 67.2823, -166.51
4.03154, -1, -47.2085, -11.9626, 29.3577, 13.6658, 67.2736, -166.533
4.03957, -1, -47.2265, -11.9726, 29.3585, 13.6659, 67.2689, -166.545
4.04768, -1, -47.2373, -11.9785, 29.3589, 13.666, 67.2665, -166.55
4.05559, 2, -47.2428, -11.9814, 29.3591, 13.666, 67.2654, -166.553
4.06355, 2, -47.2448, -11.9827, 29.3592, 13.666, 67.2649, -166.554
4.07162, 2, -47.2449, -11.9832, 29.3593, 13.6661, 67.2647, -166.555
4.07954, 2, -47.2447, -11.9834, 29.3594, 13.6662, 67.2646, -166.555
4.08757, 2, -47.2446, -11.9835, 29.3594, 13.6662, 67.2645, -166.555
4.09568, 2, -47.245, -11.9836, 29.3594, 13.6661, 67.2645, -166.555
4.10354, 2, -47.2459, -11.9838, 29.3595, 13.6661, 67.2644, -166.555
4.11154, 2, -47.2472, -11.9843, 29.3594, 13.6661, 67.2644, -166.555
4.11961, 2, -47.2489, -11.9851, 29.3594, 13.6662, 67.2644, -166.555
4.12755, 2, -47.2505, -11.986, 29.3594, 13.6661, 67.2644, -166.555
4.13558, 2, -47.2519, -11.9868, 29.3594, 13.6661, 67.2644, -166.555
4.14361, 2, -47.2528, -11.9875, 29.3594, 13.6661, 67.2644, -166.555
4.15154, 2, -47.2532, -11.9879, 29.3595, 13.6662, 67.2645, -166.555
4.15954, 2, -47.2534, -11.9881, 29.3595, 13.6662, 67.2645, -166.555
4.16763, 2, -47.2535, -11.9881, 29.3595, 13.6662, 67.2645, -166.555
4.17555, 2, -47.2531, -11.9881, 29.3595, 13.6661, 67.2644, -166.555
4.18358, 2, -47.2527, -11.9881, 29.3595, 13.6661, 67.2644, -166.555
4.19172, 2, -47.2522, -11.9881, 29.3595, 13.6661, 67.2644, -166.555
4.19965, 2, -47.2518, -11.9881, 29.3595, 13.6661, 67.2645, -166.555
4.20766, 2, -47.2517, -11.9881, 29.3595, 13.6661, 67.2645, -166.555
4.21575, 2, -47.2517, -11.9881, 29.3595, 13.6661, 67.2645, -166.555
4.22368, 2, -47.2518, -11.9883, 29.3595, 13.6661, 67.2645, -166.555
4.2316, 2, -47.252, -11.9887, 29.3595, 13.6661, 67.2645, -166.555
4.23973, 2, -47.2526, -11.989, 29.3595, 13.6661, 67.2644, -166.555
4.24756, 2, -47.2531, -11.9893, 29.3595, 13.6661, 67.2645, -166.555
4.25559, 2, -47.2534, -11.9895, 29.3595, 13.6661, 67.2645, -166.555
4.26368, 2, -47.2536, -11.9896, 29.3595, 13.6661, 67.2645, -166.555
4.27196, 2, -47.2536, -11.9896, 29.3595, 13.6661, 67.2644, -166.555
4.27975, 2, -47.2535, -11.9896, 29.3595, 13.6661, 67.2645, -166.555
4.2879, 2, -47.2533, -11.9895, 29.3595, 13.6661, 67.2645, -166.555
4.29582, 2, -47.2529, -11.9895, 29.3595, 13.6661, 67.2645, -166.555
4.30389, 2, -47.2526, -11.9894, 29.3595, 13.6661, 67.2645, -166.555
4.31208, 2, -47.2523, -11.9894, 29.3595, 13.666, 67.2645, -166.555
4.32017, 2, -47.2521, -11.9895, 29.3595, 13.6661, 67.2645, -166.555
4.32805, 2, -47.252, -11.9895, 29.3595, 13.6661, 67.2645, -166.555
4.33617, 2, -47.252, -11.9895, 29.3595, 13.6661, 67.2645, -166.555
4.34416, 2, -47.252, -11.9896, 29.3595, 13.6661, 67.2645, -166.555
4.35212, 2, -47.252, -11.9897, 29.3595, 13.666, 67.2645, -166.555
4.36026, 2, -47.2519, -11.9897, 29.3595, 13.666, 67.2645, -166.555
4.36753, 2, -47.252, -11.9897, 29.3595, 13.666, 67.2645, -166.555
4.37556, 2, -47.2521, -11.9897, 29.3595, 13.666, 67.2645, -166.555
4.38363, 2, -47.2521, -11.9897, 29.3595, 13.666, 67.2646, -166.555
4.39157, 2, -47.252, -11.9896, 29.3595, 13.666, 67.2646, -166.555
4.39954, 2, -47.2519, -11.9896, 29.3595, 13.6659, 67.2645, -166.555
4.40762, 2, -47.2519, -11.9895, 29.3595, 13.666, 67.2645, -166.555
4.41553, 2, -47.2517, -11.9894, 29.3595, 13.666, 67.2645, -166.555
4.42353, 2, -47.2516, -11.9894, 29.3595, 13.666, 67.2645, -166.555
4.43158, 2, -47.2515, -11.9894, 29.3595, 13.666, 67.2645, -166.555
4.43954, 2, -47.2514, -11.9894, 29.3595, 13.666, 67.2645, -166.555
4.44753, 2, -47.2513, -11.9895, 29.3595, 13.666, 67.2645, -166.555
4.4556, 2, -47.2513, -11.9895, 29.3595, 13.666, 67.2645, -166.555
4.46353, 2, -47.2512, -11.9895, 29.3595, 13.666, 67.2645, -166.555
4.47153, 2, -47.2512, -11.9895, 29.3595, 13.666, 67.2645, -166.555
4.47959, 2, -47.2511, -11.9895, 29.3595, 13.666, 67.2645, -166.555
4.48753, 2, -47.2511, -11.9895, 29.3595, 13.666, 67.2645, -166.555
4.49553, 2, -47.251, -11.9894, 29.3595, 13.666, 67.2645, -166.555
4.50359, 2, -47.2509, -11.9894, 29.3595, 13.666, 67.2645, -166.555
4.51257, 2, -47.2509, -11.9893, 29.3595, 13.666, 67.2646, -166.555
4.51954, 2, -47.2508, -11.9893, 29.3595, 13.666, 67.2646, -166.555
4.5276, 2, -47.2507, -11.9892, 29.3595, 13.666, 67.2646, -166.555
4.53562, 2, -47.2506, -11.9892, 29.3595, 13.666, 67.2646, -166.555
4.54354, 2, -47.2505, -11.9892, 29.3595, 13.666, 67.2646, -166.555
4.55164, 2, -47.2504, -11.9892, 29.3595, 13.666, 67.2646, -166.555
4.55957, 2, -47.2503, -11.9892, 29.3595, 13.6659, 67.2646, -166.555
4.56753, 2, -47.2502, -11.9893, 29.3595, 13.6659, 67.2647, -166.555
4.5756, 2, -47.2501, -11.9892, 29.3595, 13.6659, 67.2647, -166.555
4.58353, 2, -47.25, -11.9892, 29.3595, 13.6659, 67.2647, -166.555
4.59152, 2, -47.2498, -11.9892, 29.3595, 13.6659, 67.2647, -166.555
4.59961, 2, -47.2497, -11.9892, 29.3595, 13.6659, 67.2646, -166.555
4.60752, 2, -47.2496, -11.9891, 29.3595, 13.6659, 67.2646, -166.555
4.61553, 2, -47.2495, -11.989, 29.3595, 13.6659, 67.2647, -166.555
4.62359, 2, -47.2494, -11.989, 29.3595, 13.6659, 67.2647, -166.555
4.63152, 2, -47.2493, -11.989, 29.3595, 13.6659, 67.2647, -166.555
4.63954, 2, -47.2492, -11.9889, 29.3595, 13.6659, 67.2647, -166.555
4.6476, 2, -47.2491, -11.9889, 29.3595, 13.6659, 67.2647, -166.555
4.65554, 2, -47.249, -11.9889, 29.3595, 13.6659, 67.2647, -166.555
4.66353, 2, -47.249, -11.9889, 29.3595, 13.6659, 67.2647, -166.555
4.6716, 2, -47.2489, -11.9889, 29.3595, 13.6659, 67.2647, -166.555
4.67954, 2, -47.2489, -11.9889, 29.3595, 13.6658, 67.2647, -166.555
4.68756, 2, -47.2488, -11.9889, 29.3595, 13.6658, 67.2647, -166.555
4.69568, 2, -47.2488, -11.9889, 29.3595, 13.6658, 67.2647, -166.555
4.70362, 2, -47.2487, -11.9889, 29.3595, 13.6658, 67.2647, -166.555
4.71164, 2, -47.2486, -11.9888, 29.3595, 13.6658, 67.2647, -166.555
4.71974, 2, -47.2486, -11.9887, 29.3595, 13.6658, 67.2647, -166.555
4.72767, 2, -47.2485, -11.9887, 29.3595, 13.6658, 67.2647, -166.555
4.73559, 2, -47.2484, -11.9886, 29.3595, 13.6658, 67.2647, -166.555
4.74365, 2, -47.2483, -11.9886, 29.3595, 13.6658, 67.2647, -166.555
4.75155, 2, -47.2484, -11.9886, 29.3595, 13.6658, 67.2647, -166.555
4.75957, 2, -47.2483, -11.9886, 29.3595, 13.6658, 67.2647, -166.555
4.76766, 2, -47.2483, -11.9886, 29.3595, 13.6658, 67.2648, -166.555
4.77567, 2, -47.2483, -11.9886, 29.3595, 13.6658, 67.2648, -166.555
4.78371, 2, -47.2482, -11.9886, 29.3595, 13.6658, 67.2648, -166.555
4.79222, 2, -47.2482, -11.9886, 29.3595, 13.6658, 67.2648, -166.555
4.79986, 2, -47.2482, -11.9886, 29.3595, 13.6657, 67.2648, -166.555
4.8079, 2, -47.2482, -11.9885, 29.3595, 13.6657, 67.2648, -166.555
4.81637, 2, -47.2481, -11.9884, 29.3595, 13.6657, 67.2648, -166.554
4.82406, 2, -47.248, -11.9883, 29.3595, 13.6657, 67.2648, -166.554
4.83203, 2, -47.2479, -11.9883, 29.3595, 13.6656, 67.2648, -166.554
4.84047, 2, -47.2478, -11.9883, 29.3595, 13.6657, 67.2648, -166.554
4.84812, 2, -47.2478, -11.9883, 29.3595, 13.6656, 67.2648, -166.554
4.85612, 2, -47.2478, -11.9883, 29.3595, 13.6656, 67.2649, -166.554
4.8644, 2, -47.2477, -11.9883, 29.3595, 13.6656, 67.2649, -166.554
4.87151, 2, -47.2477, -11.9883, 29.3595, 13.6656, 67.2649, -166.554
4.87955, 2, -47.2476, -11.9883, 29.3595, 13.6656, 67.2649, -166.554
4.88845, 2, -47.2476, -11.9882, 29.3595, 13.6656, 67.265, -166.554
4.89555, 2, -47.2476, -11.9882, 29.3595, 13.6656, 67.2649, -166.554
4.90357, 2, -47.2476, -11.9882, 29.3595, 13.6656, 67.2649, -166.554
4.91156, 2, -47.2476, -11.9882, 29.3595, 13.6655, 67.265, -166.554
4.91953, 2, -47.2475, -11.9881, 29.3595, 13.6656, 67.265, -166.554
4.92752, 2, -47.2474, -11.988, 29.3595, 13.6655, 67.265, -166.554
4.93718, 2, -47.2473, -11.9879, 29.3595, 13.6655, 67.265, -166.554
4.94351, 2, -47.2473, -11.9879, 29.3595, 13.6655, 67.265, -166.554
4.95151, 2, -47.2472, -11.9879, 29.3595, 13.6655, 67.265, -166.554
4.95958, 2, -47.2472, -11.9879, 29.3595, 13.6655, 67.265, -166.554
4.96751, 2, -47.2471, -11.9879, 29.3595, 13.6655, 67.265, -166.554
4.97556, 2, -47.2471, -11.9879, 29.3595, 13.6655, 67.265, -166.554
4.98535, 2, -47.2471, -11.9879, 29.3595, 13.6654, 67.265, -166.554
4.99152, 2, -47.2471, -11.9879, 29.3595, 13.6654, 67.265, -166.554
4.99952, 2, -47.2471, -11.9879, 29.3595, 13.6655, 67.265, -166.554
5.00757, 2, -47.247, -11.9878, 29.3595, 13.6654, 67.265, -166.554
5.01552, 2, -47.247, -11.9878, 29.3595, 13.6654, 67.265, -166.554
5.02351, 2, -47.2469, -11.9877, 29.3595, 13.6654, 67.265, -166.554
5.03158, 2, -47.2469, -11.9877, 29.3595, 13.6654, 67.265, -166.554
5.03952, 2, -47.2468, -11.9876, 29.3595, 13.6654, 67.265, -166.554
5.04753, 2, -47.2467, -11.9876, 29.3595, 13.6654, 67.265, -166.554
5.0566, 2, -47.2466, -11.9875, 29.3595, 13.6654, 67.265, -166.554
5.06386, 2, -47.2466, -11.9875, 29.3595, 13.6653, 67.265, -166.554
5.07157, 2, -47.2465, -11.9875, 29.3595, 13.6653, 67.2651, -166.554
5.07952, 2, -47.2465, -11.9875, 29.3595, 13.6652, 67.2651, -166.554
5.08751, 2, -47.2465, -11.9875, 29.3595, 13.6652, 67.2651, -166.554
5.09555, 2, -47.2464, -11.9875, 29.3595, 13.6652, 67.2651, -166.554
5.10352, 2, -47.2464, -11.9875, 29.3595, 13.6652, 67.2651, -166.554
5.11151, 2, -47.2464, -11.9875, 29.3595, 13.6652, 67.2651, -166.554
5.11956, 4, -47.2464, -11.9874, 29.3594, 13.6652, 67.2652, -166.554
5.12751, 4, -47.2464, -11.9874, 29.3594, 13.6651, 67.2652, -166.554
5.13551, 4, -47.2463, -11.9873, 29.3594, 13.6651, 67.2652, -166.554
5.14358, 4, -47.2462, -11.9873, 29.3595, 13.6651, 67.2652, -166.554
5.15151, 4, -47.2461, -11.9873, 29.3595, 13.6651, 67.2652, -166.554
5.15953, 4, -47.2461, -11.9872, 29.3595, 13.6651, 67.2652, -166.554
5.16758, 4, -47.246, -11.9872, 29.3595, 13.6651, 67.2652, -166.554
5.17551, 4, -47.246, -11.9872, 29.3595, 13.6651, 67.2652, -166.554
5.18352, 4, -47.2459, -11.9872, 29.3595, 13.665, 67.2653, -166.554
5.19161, 4, -47.2459, -11.9872, 29.3595, 13.665, 67.2653, -166.554
5.19959, 4, -47.2459, -11.9872, 29.3594, 13.665, 67.2653, -166.554
5.20761, 4, -47.2459, -11.9871, 29.3595, 13.665, 67.2653, -166.554
5.21569, 4, -47.2459, -11.9871, 29.3595, 13.665, 67.2653, -166.553
5.22381, 4, -47.2458, -11.9871, 29.3595, 13.665, 67.2653, -166.553
5.23547, 4, -47.2458, -11.987, 29.3595, 13.665, 67.2653, -166.553
5.23981, 4, -47.2458, -11.987, 29.3594, 13.665, 67.2653, -166.553
5.24779, 4, -47.2457, -11.987, 29.3594, 13.665, 67.2653, -166.553
5.26573, 4, -47.2456, -11.9869, 29.3595, 13.665, 67.2653, -166.553
5.26842, 4, -47.2455, -11.9869, 29.3595, 13.665, 67.2653, -166.553
5.27193, 4, -47.2455, -11.9869, 29.3595, 13.665, 67.2653, -166.553
5.28192, 4, -47.2454, -11.9869, 29.3595, 13.665, 67.2653, -166.553
5.28867, 4, -47.2454, -11.9869, 29.3595, 13.665, 67.2654, -166.553
5.2981, 4, -47.2454, -11.9869, 29.3595, 13.665, 67.2654, -166.553
5.3043, 4, -47.2454, -11.9869, 29.3595, 13.6649, 67.2653, -166.553
5.31315, 4, -47.2454, -11.9869, 29.3595, 13.6649, 67.2653, -166.553
5.32074, 4, -47.2453, -11.9868, 29.3595, 13.6649, 67.2653, -166.553
5.33015, 4, -47.2453, -11.9868, 29.3595, 13.6649, 67.2653, -166.553
5.33839, 4, -47.2453, -11.9868, 29.3595, 13.6649, 67.2653, -166.553
5.34672, 4, -47.2452, -11.9867, 29.3595, 13.6649, 67.2653, -166.553
5.35282, 4, -47.2452, -11.9867, 29.3595, 13.6648, 67.2653, -166.553
5.36089, 4, -47.2451, -11.9867, 29.3595, 13.6648, 67.2653, -166.553
5.36829, 4, -47.245, -11.9867, 29.3595, 13.6648, 67.2654, -166.553
5.37635, 4, -47.245, -11.9866, 29.3595, 13.6648, 67.2654, -166.553
5.38586, 4, -47.245, -11.9866, 29.3595, 13.6648, 67.2654, -166.553
5.39476, 4, -47.2454, -11.9868, 29.3596, 13.6648, 67.2654, -166.553
5.39968, 4, -47.246, -11.9872, 29.3598, 13.6649, 67.2654, -166.553
5.40771, 4, -47.2483, -11.9889, 29.3617, 13.6667, 67.266, -166.553
5.41757, 4, -47.2556, -11.9972, 29.3724, 13.6865, 67.2708, -166.55
5.42372, 4, -47.2597, -12.0023, 29.3799, 13.7013, 67.2747, -166.548
5.43162, 5, -47.2712, -12.0175, 29.4044, 13.7503, 67.2883, -166.537
5.43974, 5, -47.2892, -12.0417, 29.447, 13.8379, 67.3127, -166.518
5.44765, 5, -47.316, -12.0772, 29.5138, 13.9777, 67.3523, -166.486
5.45578, 5, -47.3533, -12.1255, 29.6112, 14.1847, 67.4093, -166.438
5.46395, 5, -47.4028, -12.1882, 29.7435, 14.4698, 67.488, -166.372
5.47164, 5, -47.4651, -12.2659, 29.9132, 14.8387, 67.5879, -166.287
5.47965, 5, -47.54, -12.3588, 30.1215, 15.2907, 67.7094, -166.184
5.48992, 5, -47.6745, -12.5252, 30.5017, 16.1063, 67.9251, -165.999
5.49731, 5, -47.7245, -12.6519, 30.7938, 16.7215, 68.0857, -165.861
5.50362, 5, -47.8312, -12.7194, 30.9494, 17.0453, 68.1688, -165.789
5.5186, 5, -48.063, -13.0092, 31.6163, 18.4023, 68.5106, -165.492
5.52062, 5, -48.063, -13.0092, 31.6163, 18.4023, 68.5106, -165.492
5.52764, 5, -48.1837, -13.1612, 31.9652, 19.0966, 68.6805, -165.344
5.53573, 5, -48.3045, -13.313, 32.3179, 19.787, 68.847, -165.197
5.54581, 5, -48.4791, -13.5335, 32.8442, 20.7936, 69.0892, -164.973
5.55174, 5, -48.5334, -13.6034, 33.0161, 21.1164, 69.1686, -164.893
5.56067, 6, -48.6331, -13.7352, 33.3498, 21.7337, 69.3271, -164.715
5.56766, 6, -48.7172, -13.856, 33.6664, 22.3078, 69.4874, -164.503
5.57971, 7, -48.8067, -14.021, 34.1013, 23.077, 69.7364, -164.094
5.5837, 7, -48.8258, -14.0723, 34.2352, 23.3082, 69.8221, -163.929
5.59164, 8, -48.8477, -14.1681, 34.4864, 23.7355, 69.9979, -163.554
5.60401, 8, -48.8493, -14.2538, 34.7188, 24.1222, 70.1796, -163.121
5.60771, 8, -48.834, -14.3307, 34.9378, 24.4785, 70.3668, -162.636
5.61892, 9, -48.7854, -14.4337, 35.2491, 24.9788, 70.6596, -161.831
5.6253, 9, -48.7637, -14.4657, 35.3509, 25.1418, 70.7607, -161.546
5.63358, 10, -48.7134, -14.5277, 35.5551, 25.4686, 70.969, -160.959
5.63977, 10, -48.6542, -14.5893, 35.7608, 25.8003, 71.1853, -160.353
5.64864, 11, -48.5878, -14.6514, 35.9683, 26.1403, 71.409, -159.734
5.65599, 11, -48.5159, -14.7139, 36.1784, 26.4899, 71.6381, -159.107
5.66428, 12, -48.4398, -14.7769, 36.3893, 26.8491, 71.8715, -158.475
5.67177, 12, -48.3614, -14.8402, 36.5986, 27.217, 72.1078, -157.838
5.6804, 13, -48.2822, -14.9021, 36.8069, 27.5938, 72.3466, -157.196
5.68778, 13, -48.2027, -14.9613, 37.0138, 27.9784, 72.5878, -156.551
5.69635, 14, -48.1215, -15.0194, 37.2187, 28.3707, 72.8316, -155.9
5.70374, 14, -48.0371, -15.0786, 37.4226, 28.7691, 73.0779, -155.246
5.71175, 15, -47.9488, -15.1386, 37.6259, 29.1721, 73.3258, -154.592
5.72363, 15, -47.809, -15.2273, 37.927, 29.7794, 73.697, -153.614
5.72966, 16, -47.7596, -15.2564, 38.0265, 29.9817, 73.8198, -153.29
5.73946, 16, -47.6009, -15.3456, 38.3224, 30.5848, 74.1829, -152.324
5.74383, 17, -47.5447, -15.3763, 38.4194, 30.784, 74.3016, -152.005
5.75554, 17, -47.3688, -15.4703, 38.7051, 31.3749, 74.6483, -151.056
5.75981, 18, -47.3077, -15.5019, 38.7991, 31.5694, 74.7606, -150.743
5.76883, 18, -47.1818, -15.5661, 38.985, 31.9554, 74.9809, -150.124
5.77585, 19, -47.0504, -15.6324, 39.1678, 32.3383, 75.1952, -149.512
5.78469, 19, -46.9133, -15.7021, 39.3488, 32.7195, 75.4047, -148.906
5.79377, 20, -46.7708, -15.7742, 39.529, 33.0998, 75.6097, -148.306
5.80267, 20, -46.6235, -15.8478, 39.7072, 33.479, 75.8105, -147.715
5.80862, 21, -46.4718, -15.9227, 39.8829, 33.8577, 76.0074, -147.13
5.8205, 21, -46.2366, -16.0385, 40.1428, 34.4244, 76.2952, -146.263
5.82874, 22, -46.0742, -16.1182, 40.3134, 34.8008, 76.4819, -145.693
5.83314, 22, -45.9914, -16.1587, 40.3976, 34.9883, 76.5737, -145.41
5.84204, 23, -45.8219, -16.2404, 40.5634, 35.361, 76.7542, -144.848
5.84907, 23, -45.6462, -16.3237, 40.7266, 35.7303, 76.9296, -144.292
5.85628, 24, -45.4631, -16.4097, 40.8868, 36.0951, 77.0999, -143.741
5.86705, 24, -45.2725, -16.4983, 41.0428, 36.4533, 77.2639, -143.196
5.87466, 25, -45.0749, -16.588, 41.1946, 36.8035, 77.4212, -142.656
5.88336, 25, -44.8712, -16.6778, 41.3423, 37.1448, 77.5714, -142.121
5.88838, 26, -44.7668, -16.7229, 41.4145, 37.3122, 77.6441, -141.591
5.89786, 26, -44.4427, -16.8608, 41.6236, 37.8017, 77.8539, -141.064
5.90372, 27, -44.331, -16.9073, 41.6905, 37.9609, 77.9216, -140.801
5.91408, 27, -43.9858, -17.0464, 41.8826, 38.4272, 78.1185, -140.015
5.91968, 28, -43.8675, -17.0925, 41.9435, 38.5789, 78.1826, -139.753
5.92765, 28, -43.6254, -17.1841, 42.0604, 38.877, 78.3087, -139.23
5.93571, 29, -43.3757, -17.2745, 42.1704, 39.167, 78.432, -138.708
5.94358, 29, -43.1192, -17.3629, 42.2737, 39.4491, 78.5528, -138.186
5.95171, 30, -42.8563, -17.4491, 42.3699, 39.7233, 78.6701, -137.664
5.9597, 30, -42.586, -17.533, 42.4589, 39.9888, 78.7849, -137.142
5.97091, 31, -42.1654, -17.6543, 42.5792, 40.3715, 78.9515, -136.361
5.97562, 31, -42.0214, -17.6935, 42.6157, 40.4948, 79.0057, -136.101
5.98549, 32, -41.5788, -17.8075, 42.7152, 40.8521, 79.1648, -135.321
5.99169, 32, -41.4279, -17.8443, 42.745, 40.9671, 79.2164, -135.062
5.99961, 33, -41.1212, -17.9159, 42.7994, 41.1909, 79.3179, -134.544
6.01078, 33, -40.6485, -18.0172, 42.8675, 41.5114, 79.4657, -133.768
6.01739, 34, -40.4877, -18.0494, 42.8865, 41.7149, 79.5608, -133.252
6.024, 34, -40.1623, -18.1121, 42.9192, 41.8136, 79.6073, -132.995
6.0346, 35, -39.6647, -18.2007, 42.9545, 42.098, 79.7434, -132.224
6.04347, 35, -39.3257, -18.2556, 42.9693, 42.2783, 79.8308, -131.712
6.04867, 36, -39.1536, -18.2817, 42.974, 42.3654, 79.874, -131.456
6.06054, 36, -38.6264, -18.3551, 42.978, 42.6155, 79.9998, -130.69
6.0637, 37, -38.4474, -18.378, 42.9761, 42.695, 80.0406, -130.436
6.07521, 37, -37.9019, -18.4411, 42.9598, 42.9224, 80.1601, -129.675
6.07963, 38, -37.7174, -18.4602, 42.9509, 42.9944, 80.1989, -129.422
6.08863, 38, -37.3449, -18.496, 42.9284, 43.1331, 80.2748, -128.917
6.09571, 39, -36.9677, -18.5284, 42.8991, 43.2643, 80.3487, -128.414
6.11035, 39, -36.3933, -18.5824, 42.8203, 43.5046, 80.4903, -127.414
6.1124, 40, -36.1992, -18.5824, 42.8203, 43.5046, 80.4903, -127.414
6.12052, 40, -35.8063, -18.6038, 42.7711, 43.614, 80.5583, -126.917
6.12762, 41, -35.4074, -18.6211, 42.7153, 43.7162, 80.6247, -126.421
6.13757, 41, -35.0028, -18.6347, 42.653, 43.8107, 80.6883, -125.928
6.14362, 42, -34.5938, -18.6449, 42.5843, 43.8987, 80.751, -125.437
6.15187, 42, -34.1815, -18.6517, 42.5091, 43.9793, 80.8106, -124.948
6.15962, 43, -33.7663, -18.6553, 42.4278, 44.0528, 80.8694, -124.462
6.1677, 43, -33.3471, -18.6559, 42.3404, 44.1191, 80.9261, -123.977
6.17762, 44, -32.9223, -18.6527, 42.2473, 44.1787, 80.9807, -123.495
6.18464, 44, -32.4913, -18.6458, 42.1486, 44.2304, 81.0348, -123.016
6.19369, 45, -32.0539, -18.635, 42.0439, 44.2753, 81.086, -122.539
6.20162, 45, -31.6115, -18.6206, 41.9332, 44.313, 81.1361, -122.064
6.21089, 46, -31.1654, -18.6027, 41.8165, 44.3429, 81.185, -121.356
6.21609, 46, -30.7175, -18.5815, 41.6939, 44.3649, 81.2312, -121.122
6.22592, 47, -30.2668, -18.5563, 41.5656, 44.3793, 81.2762, -120.654
6.23514, 47, -29.8116, -18.5267, 41.4313, 44.3878, 81.3424, -119.956
6.24133, 48, -29.3499, -18.4928, 41.291, 44.387, 81.3635, -119.725
6.24829, 48, -28.8818, -18.4545, 41.1445, 44.3786, 81.4052, -119.262
6.25629, 49, -28.4082, -18.4118, 40.9921, 44.3618, 81.4471, -118.803
6.26458, 49, -27.9318, -18.3647, 40.8339, 44.3359, 81.4885, -118.344
6.27254, 50, -27.453, -18.3131, 40.6694, 44.3, 81.5289, -117.886
6.28062, 50, -26.9709, -18.2563, 40.4981, 44.2549, 81.5701, -117.43
6.28791, 51, -26.4825, -18.1939, 40.3205, 44.2011, 81.6126, -116.974
6.29673, 51, -25.9863, -18.126, 40.1364, 44.1367, 81.6549, -116.519
6.30438, 52, -25.4829, -18.0525, 39.9448, 44.0631, 81.6977, -116.065
6.31389, 52, -24.9756, -17.9738, 39.7459, 43.9786, 81.742, -115.612
6.32158, 53, -24.4664, -17.8898, 39.5412, 43.8841, 81.7868, -115.159
6.32974, 53, -23.9544, -17.8, 39.3295, 43.7796, 81.8317, -114.706
6.33653, 54, -23.4365, -17.7037, 39.1098, 43.6646, 81.879, -114.255
6.34551, 54, -22.9103, -17.6009, 38.8833, 43.5389, 81.9282, -113.803
6.35699, 55, -22.1074, -17.435, 38.5295, 43.3287, 82.0056, -113.125
6.36153, 55, -21.8377, -17.3767, 38.4078, 43.2525, 82.0332, -112.899
6.37265, 56, -21.025, -17.1932, 38.033, 43.0061, 82.1177, -112.221
6.37703, 56, -21.025, -17.1932, 38.033, 42.9182, 82.1468, -111.996
6.3869, 57, -20.2011, -16.9974, 37.6424, 42.7339, 82.2068, -111.545
6.39305, 57, -19.9218, -16.9293, 37.5092, 42.6376, 82.237, -111.319
6.40451, 58, -19.0715, -16.7155, 37.0991, 42.3307, 82.3621, -110.419
6.41119, 58, -18.7854, -16.6412, 36.9595, 42.2222, 82.3621, -110.194
6.41561, 59, -18.2113, -16.488, 36.6754, 41.9959, 82.4269, -109.969
6.42365, 59, -17.6346, -16.33, 36.3843, 41.7569, 82.4951, -109.52
6.43397, 60, -16.7552, -16.0847, 35.9354, 41.3736, 82.6016, -108.845
6.44185, 60, -16.1562, -15.9146, 35.6285, 41.1015, 82.6758, -108.396
6.45061, 61, -15.5516, -15.7393, 35.3162, 40.8159, 82.7516, -107.947
6.45562, 61, -15.2482, -15.6501, 35.1578, 40.6684, 82.7904, -107.722
6.46666, 62, -14.3328, -15.376, 34.675, 40.2074, 82.9094, -107.049
6.47346, 62, -14.0244, -15.2823, 34.5115, 39.8844, 82.991, -106.6
6.48152, 63, -13.0843, -14.9916, 34.0153, 39.5481, 83.0751, -106.15
6.48761, 63, -12.7667, -14.8914, 33.8474, 39.3748, 83.1179, -105.925
6.49741, 64, -12.1272, -14.6872, 33.3356, 38.8337, 83.2521, -105.25
6.50698, 64, -11.1591, -14.37, 32.9864, 38.4545, 83.3467, -104.798
6.51161, 65, -10.8323, -14.2607, 32.8093, 38.2591, 83.396, -104.571
6.51985, 65, -10.1703, -14.0369, 32.4501, 37.8555, 83.4988, -104.116
6.53246, 66, -9.1586, -13.689, 31.9013, 37.2169, 83.6637, -103.43
6.53928, 66, -8.47649, -13.4479, 31.529, 36.7699, 83.7813, -102.97
6.54367, 67, -8.13382, -13.3246, 31.3402, 36.5398, 83.8422, -102.74
6.55249, 67, -7.44287, -13.0726, 30.958, 36.0677, 83.9693, -102.277
6.55964, 68, -6.74308, -12.8129, 30.5704, 35.5797, 84.1035, -101.813
6.56862, 68, -6.03565, -12.547, 30.1794, 35.0775, 84.2442, -101.347
6.57892, 69, -5.3233, -12.2759, 29.7846, 34.563, 84.3915, -100.88
6.58366, 69, -4.60622, -11.9977, 29.3867, 34.0363, 84.5442, -100.412
6.5921, 70, -3.88159, -11.713, 28.988, 33.4996, 84.702, -99.9419
6.59967, 70, -3.14786, -11.4204, 28.5896, 32.9504, 84.8646, -99.47
6.61075, 71, -2.03318, -10.9664, 27.9912, 32.1018, 85.1192, -98.759
6.61834, 71, -1.65783, -10.8119, 27.7905, 31.8115, 85.2079, -98.281
6.62466, 72, -0.901208, -10.4977, 27.3871, 31.2187, 85.3921, -98.0407
6.63162, 72, -0.137626, -10.178, 26.9812, 30.6077, 85.5854, -97.5578
6.63961, 73, 0.631612, -9.85134, 26.5728, 29.9824, 85.7881, -97.0714
6.65236, 73, 1.79493, -9.34723, 25.9583, 29.0216, 86.1079, -96.3387
6.65669, 74, 2.18475, -9.17589, 25.7537, 28.6967, 86.2187, -96.0935
6.66769, 74, 3.35859, -8.65448, 25.1448, 27.7104, 86.5615, -95.356
6.67594, 75, 4.14338, -8.29937, 24.745, 27.0455, 86.7978, -94.8632
6.67964, 75, 4.53643, -8.1198, 24.5467, 26.7123, 86.918, -94.6167
6.68889, 76, 5.32267, -7.75703, 24.1545, 26.0465, 87.1627, -94.1234
6.70866, 76, 6.10779, -7.38888, 23.7684, 25.3802, 87.7983, -92.8867
6.71104, 77, 7.67637, -6.6314, 23.0135, 24.0522, 87.9309, -92.6391
6.72296, 78, 8.85523, -6.03818, 22.4582, 23.054, 88.3439, -91.8949
6.7245, 78, 8.85523, -6.03818, 22.4582, 23.054, 88.3439, -91.8949
6.72943, 78, 9.24829, -5.83618, 22.2751, 22.7186, 88.4875, -91.6453
6.73561, 79, 10.0355, -5.42692, 21.9103, 22.0426, 88.7854, -91.1434
6.74366, 79, 10.8244, -5.01172, 21.5478, 21.3603, 89.0973, -90.6363
6.75224, 80, 11.6124, -4.5882, 21.1873, 20.6743, 89.4219, -90.1233
6.75949, 80, 12.396, -4.15431, 20.8313, 19.987, 89.7567, -89.6038
6.7684, 81, 13.1721, -3.71047, 20.4803, 19.3066, 90.1003, -89.0775
6.77558, 81, 13.9422, -3.25944, 20.1366, 18.6375, 90.4506, -88.5457
6.78395, 82, 14.7059, -2.80154, 19.8017, 17.9838, 90.8058, -88.0098
6.79171, 82, 15.4621, -2.33542, 19.4779, 17.3469, 91.1645, -87.4717
6.79972, 82, 16.2087, -1.86197, 19.1637, 16.7275, 91.5273, -86.9311
6.80787, 83, 16.9439, -1.38224, 18.8591, 16.127, 91.8949, -86.3894
6.81583, 83, 17.6669, -0.897469, 18.5629, 15.5436, 92.2685, -85.8474
6.82471, 84, 18.3751, -0.408792, 18.2751, 14.9776, 92.649, -85.3068
6.83207, 84, 19.0667, 0.0837918, 17.994, 14.4302, 93.0373, -84.767
6.84089, 85, 19.74, 0.582057, 17.7185, 13.9017, 93.4342, -84.2289
6.84802, 85, 20.3949, 1.08594, 17.4496, 13.3928, 93.8385, -83.6929
6.85686, 86, 21.0324, 1.59395, 17.1867, 12.9041, 94.2489, -83.159
6.86404, 86, 21.3457, 2.10736, 16.9305, 12.4352, 94.6646, -82.6245
6.87284, 86, 21.9623, 2.36698, 16.8049, 12.2084, 95.0865, -82.088
6.88012, 87, 22.5672, 2.89425, 16.5572, 11.7691, 95.3, -81.5476
6.88746, 87, 23.1617, 3.43178, 16.3137, 11.3483, 95.7321, -81.2757
6.89549, 88, 23.7465, 3.97656, 16.0735, 10.9435, 96.1719, -80.727
6.90356, 88, 24.3209, 4.52822, 15.8357, 10.5542, 96.6185, -80.1692
6.91263, 89, 25.1624, 5.37575, 15.4886, 9.99888, 97.3009, -79.3138
6.91946, 89, 25.4387, 5.66416, 15.3752, 9.82169, 97.5313, -79.0231
6.92748, 90, 25.9884, 6.24843, 15.151, 9.47931, 97.9952, -78.4325
6.93548, 90, 26.5333, 6.84192, 14.9318, 9.15273, 98.464, -77.8277
6.94348, 91, 27.068, 7.44437, 14.7183, 8.8436, 98.9373, -77.2094
6.95146, 91, 27.5891, 8.05667, 14.5102, 8.55257, 99.4156, -76.5791
6.9595, 92, 28.099, 8.67976, 14.3067, 8.28139, 99.8994, -75.9363
6.96745, 92, 28.6014, 9.31324, 14.1075, 8.03134, 100.388, -75.2826
6.97548, 93, 29.097, 9.95579, 13.9127, 7.80249, 100.881, -74.621
6.98593, 93, 29.8189, 10.9321, 13.6316, 7.50119, 101.625, -73.6142
6.99144, 94, 30.0527, 11.2602, 13.5414, 7.41212, 101.873, -73.2748
7.00194, 94, 30.5094, 11.9192, 13.3658, 7.25141, 102.615, -72.2486
7.00747, 95, 30.9522, 12.5814, 13.1964, 7.11399, 102.861, -71.9041
7.01651, 95, 31.3813, 13.246, 13.0348, 7.00024, 103.351, -71.2099
7.02346, 96, 31.7965, 13.9126, 12.8808, 6.90962, 103.837, -70.5099
7.03248, 96, 32.1965, 14.5807, 12.7331, 6.84319, 104.321, -69.8057
7.03945, 97, 32.5803, 15.2505, 12.5918, 6.80007, 104.8, -69.0952
7.04749, 97, 32.9486, 15.9203, 12.4576, 6.77788, 105.274, -68.3789
7.05547, 98, 33.3015, 16.5877, 12.3313, 6.77728, 105.742, -67.6601
7.06348, 98, 33.6401, 17.2512, 12.2135, 6.79878, 106.201, -66.9374
7.07159, 99, 33.9646, 17.909, 12.1048, 6.83985, 106.652, -66.2125
7.07949, 99, 34.2758, 18.5601, 12.0057, 6.90134, 107.091, -65.4896
7.08746, 100, 34.5757, 19.2024, 11.9161, 6.98123, 107.518, -64.7682
7.09552, 100, 34.8645, 19.8356, 11.836, 7.0789, 107.93, -64.05
7.10342, 101, 35.1406, 20.4583, 11.7649, 7.19332, 108.326, -63.3398
7.11147, 101, 35.4036, 21.0699, 11.7022, 7.32302, 108.705, -62.6372
7.11972, 102, 35.6542, 21.6695, 11.6481, 7.46594, 109.068, -61.9431
7.12746, 102, 35.8917, 22.2554, 11.6024, 7.61969, 109.413, -61.2617
7.13546, 102, 36.1167, 22.8272, 11.5649, 7.78224, 109.742, -60.5928
7.14352, 103, 36.3327, 23.3836, 11.5355, 7.95207, 110.055, -59.9362
7.15147, 103, 36.5422, 23.9248, 11.5146, 8.12914, 110.352, -59.2924
7.15945, 104, 36.7455, 24.4511, 11.5023, 8.31419, 110.632, -58.6621
7.16753, 104, 36.9423, 24.962, 11.4974, 8.50803, 110.893, -58.0421
7.17546, 104, 37.1334, 25.457, 11.4989, 8.711, 111.135, -57.4328
7.18346, 104, 37.3169, 25.9367, 11.5066, 8.92237, 111.357, -56.8346
7.19154, 104, 37.4901, 26.4005, 11.5186, 9.14069, 111.561, -56.2482
7.19949, 104, 37.653, 26.8486, 11.5335, 9.36372, 111.748, -55.6753
7.20754, 104, 37.8097, 27.2821, 11.5512, 9.58835, 111.922, -55.1193
7.21561, 104, 37.963, 27.7003, 11.5711, 9.81187, 112.084, -54.5832
7.22382, 104, 38.113, 28.103, 11.5917, 10.0319, 112.236, -54.0697
7.2316, 104, 38.258, 28.4888, 11.6121, 10.2471, 112.38, -53.5788
7.23967, 104, 38.3969, 28.8583, 11.6314, 10.456, 112.515, -53.1122
7.2476, 104, 38.529, 29.2099, 11.6496, 10.658, 112.643, -52.6696
7.25547, 104, 38.6528, 29.5435, 11.6668, 10.8517, 112.763, -52.2523
7.26355, 104, 38.7681, 29.8576, 11.6828, 11.0369, 112.876, -51.86
7.27179, 104, 38.8751, 30.153, 11.6977, 11.2126, 112.981, -51.4923
7.27952, 104, 38.9743, 30.4296, 11.7117, 11.3786, 113.078, -51.1502
7.28767, 104, 39.0659, 30.6864, 11.7244, 11.5341, 113.168, -50.8335
7.29566, 104, 39.1496, 30.9238, 11.7358, 11.6789, 113.25, -50.5419
7.30374, 104, 39.2253, 31.1416, 11.7462, 11.8123, 113.325, -50.2757
7.31208, 104, 39.2929, 31.3392, 11.7559, 11.9344, 113.393, -50.0348
7.32052, 104, 39.3525, 31.5174, 11.7647, 12.0445, 113.453, -49.8191
7.32797, 104, 39.4048, 31.6763, 11.7724, 12.1426, 113.507, -49.6284
7.33656, 104, 39.4508, 31.8159, 11.7792, 12.2286, 113.553, -49.4625
7.34401, 104, 39.491, 31.9374, 11.7855, 12.302, 113.592, -49.3213
7.35202, 104, 39.5255, 32.0418, 11.7911, 12.3643, 113.625, -49.2032
7.3603, 104, 39.5537, 32.1297, 11.7961, 12.4145, 113.651, -49.1076
7.36826, 104, 39.5659, 32.2026, 11.8006, 12.4535, 113.671, -49.032
7.37607, 104, 39.5866, 32.2339, 11.8026, 12.4835, 113.686, -48.9754
7.38443, 104, 39.6094, 32.31, 11.8082, 12.5057, 113.697, -48.9347
7.3915, 104, 39.6152, 32.3299, 11.81, 12.5142, 113.701, -48.9193
7.3995, 104, 39.6249, 32.3622, 11.8131, 12.527, 113.707, -48.8964
7.40849, 104, 39.6347, 32.396, 11.8172, 12.5383, 113.712, -48.8776
7.41548, 104, 39.6369, 32.4042, 11.8183, 12.5404, 113.712, -48.8741
7.42344, 104, 39.6397, 32.4168, 11.8202, 12.5432, 113.713, -48.8702
7.43151, 104, 39.6413, 32.4249, 11.8216, 12.5445, 113.714, -48.8684
7.43945, 105, 39.6417, 32.4299, 11.8227, 12.5452, 113.714, -48.8676
7.44744, 105, 39.6411, 32.4332, 11.8237, 12.5455, 113.714, -48.8674
7.45697, 105, 39.6398, 32.4365, 11.8249, 12.5457, 113.714, -48.8675
7.46344, 105, 39.6394, 32.4374, 11.8252, 12.5458, 113.714, -48.8676
7.47147, 105, 39.6383, 32.4388, 11.8258, 12.5458, 113.714, -48.8679
7.48106, 105, 39.6366, 32.4407, 11.8266, 12.5458, 113.714, -48.8683
7.48746, 105, 39.6362, 32.4413, 11.8269, 12.5458, 113.714, -48.8685
7.49544, 105, 39.6357, 32.4425, 11.8275, 12.5459, 113.714, -48.8688
7.50351, 105, 39.6354, 32.4436, 11.8281, 12.5459, 113.714, -48.8691
7.51145, 105, 39.6352, 32.4446, 11.8286, 12.5459, 113.714, -48.8694
7.52137, 105, 39.635, 32.4459, 11.8292, 12.5459, 113.714, -48.8697
7.5275, 105, 39.6347, 32.4462, 11.8294, 12.5459, 113.714, -48.8699
7.53542, 105, 39.6345, 32.4466, 11.8297, 12.5459, 113.714, -48.8701
7.54345, 105, 39.6342, 32.4469, 11.83, 12.5458, 113.714, -48.8702
7.55151, 105, 39.6339, 32.447, 11.8302, 12.5459, 113.714, -48.8704
