hehonglu123/Motion-Primitive-Planning/ILC/recorded_data/realrobot/from_NX/iteration_26/run_3.csv
timestamp, cmd_num, J1, J2, J3, J4, J5, J6
0.000359, -1, 39.629, 32.4472, 11.8316, 12.5443, 113.713, -48.873
0.004492, -1, 39.629, 32.4472, 11.8316, 12.5443, 113.713, -48.873
0.007871, -1, 39.629, 32.4472, 11.8316, 12.5443, 113.713, -48.873
0.028603, -1, 39.629, 32.4472, 11.8317, 12.5443, 113.713, -48.873
0.031333, -1, 39.629, 32.4472, 11.8317, 12.5444, 113.713, -48.873
0.034632, -1, 39.629, 32.4472, 11.8317, 12.5444, 113.713, -48.873
0.039788, -1, 39.629, 32.4472, 11.8316, 12.5443, 113.713, -48.873
0.04775, -1, 39.6289, 32.4472, 11.8316, 12.5443, 113.713, -48.873
0.056771, -1, 39.6284, 32.4471, 11.8316, 12.5443, 113.713, -48.8731
0.06372, -1, 39.6261, 32.4467, 11.8316, 12.5443, 113.713, -48.8731
0.071769, -1, 39.6208, 32.4454, 11.8316, 12.5443, 113.713, -48.8733
0.079772, -1, 39.612, 32.4424, 11.8315, 12.5443, 113.712, -48.8746
0.087738, -1, 39.5989, 32.4371, 11.8315, 12.5443, 113.711, -48.8793
0.095724, -1, 39.5792, 32.4286, 11.8315, 12.5443, 113.707, -48.8906
0.103755, -1, 39.5506, 32.416, 11.832, 12.5443, 113.7, -48.9111
0.111774, -1, 39.5123, 32.3984, 11.8341, 12.5443, 113.688, -48.9447
0.11973, -1, 39.4629, 32.3747, 11.839, 12.5443, 113.669, -48.9951
0.127777, -1, 39.4009, 32.3443, 11.8473, 12.5444, 113.642, -49.0668
0.135823, -1, 39.3256, 32.3065, 11.8601, 12.5444, 113.604, -49.1611
0.14375, -1, 39.2365, 32.2609, 11.8779, 12.5446, 113.558, -49.2812
0.151791, -1, 39.1335, 32.2073, 11.9004, 12.5451, 113.501, -49.4266
0.159766, -1, 39.0164, 32.146, 11.9271, 12.5461, 113.434, -49.5966
0.167746, -1, 38.8859, 32.0771, 11.9578, 12.5476, 113.358, -49.789
0.175765, -1, 38.743, 32.0018, 11.9917, 12.5495, 113.274, -50.0007
0.183764, -1, 38.5886, 31.9205, 12.028, 12.5516, 113.184, -50.2283
0.191725, -1, 38.4243, 31.8343, 12.0658, 12.5539, 113.089, -50.4682
0.199796, -1, 38.252, 31.7441, 12.1046, 12.5563, 112.991, -50.7163
0.337801, -1, 35.0172, 30.0876, 12.7652, 12.5994, 111.247, -55.1279
0.339006, -1, 35.0172, 30.0876, 12.7652, 12.5994, 111.247, -55.1279
0.341069, -1, 34.9211, 30.0383, 12.7847, 12.6008, 111.195, -55.2582
0.343181, -1, 34.9211, 30.0383, 12.7847, 12.6008, 111.195, -55.2582
0.345154, -1, 34.8249, 29.9891, 12.8041, 12.6021, 111.144, -55.3884
0.346483, -1, 34.8249, 29.9891, 12.8041, 12.6021, 111.144, -55.3884
0.349205, -1, 34.7289, 29.9399, 12.8235, 12.6033, 111.092, -55.5187
0.352364, -1, 34.6327, 29.8906, 12.8429, 12.6046, 111.041, -55.6492
0.353795, -1, 34.6327, 29.8906, 12.8429, 12.6046, 111.041, -55.6492
0.355066, -1, 34.6327, 29.8906, 12.8429, 12.6046, 111.041, -55.6492
0.357026, -1, 34.5365, 29.8414, 12.8624, 12.6059, 110.989, -55.7795
0.358414, -1, 34.5365, 29.8414, 12.8624, 12.6059, 110.989, -55.7795
0.360212, -1, 34.4404, 29.7921, 12.8819, 12.6071, 110.938, -55.91
0.361818, -1, 34.4404, 29.7921, 12.8819, 12.6071, 110.938, -55.91
0.363064, -1, 34.4404, 29.7921, 12.8819, 12.6071, 110.938, -55.91
0.36923, -1, 34.2483, 29.6937, 12.9208, 12.6097, 110.835, -56.1711
0.370538, -1, 34.2483, 29.6937, 12.9208, 12.6097, 110.835, -56.1711
0.373267, -1, 34.1524, 29.6446, 12.9402, 12.611, 110.783, -56.3015
0.37463, -1, 34.1524, 29.6446, 12.9402, 12.611, 110.783, -56.3015
0.376551, -1, 34.0564, 29.5955, 12.9597, 12.6123, 110.732, -56.4318
0.377952, -1, 34.0564, 29.5955, 12.9597, 12.6123, 110.732, -56.4318
0.379252, -1, 34.0564, 29.5955, 12.9597, 12.6123, 110.732, -56.4318
0.385714, -1, 33.8646, 29.4972, 12.9987, 12.615, 110.629, -56.6926
0.392342, -1, 33.7688, 29.448, 13.0181, 12.6176, 110.525, -56.9534
0.400356, -1, 33.577, 29.3496, 13.0569, 12.6189, 110.422, -57.2146
0.407714, -1, 33.3847, 29.2512, 13.0959, 12.6216, 110.371, -57.3452
0.41574, -1, 33.1921, 29.1527, 13.1349, 12.6242, 110.268, -57.6059
0.423886, -1, 32.9994, 29.0541, 13.1736, 12.6268, 110.164, -57.867
0.431714, -1, 32.8064, 28.9556, 13.2126, 12.6294, 110.062, -58.1281
0.439715, -1, 32.6131, 28.857, 13.2515, 12.6321, 109.958, -58.3895
0.447742, -1, 32.4195, 28.7583, 13.2903, 12.6348, 109.855, -58.6506
0.455711, -1, 32.2256, 28.6596, 13.3293, 12.6374, 109.752, -58.9115
0.463757, -1, 32.0315, 28.5608, 13.3681, 12.6402, 109.649, -59.1726
0.471706, -1, 31.8376, 28.462, 13.407, 12.6429, 109.546, -59.4339
0.47983, -1, 31.644, 28.3632, 13.4461, 12.6456, 109.443, -59.6953
0.487816, -1, 31.4504, 28.2645, 13.485, 12.6485, 109.34, -59.9565
0.49574, -1, 31.2574, 28.166, 13.5239, 12.6512, 109.237, -60.2179
0.503709, -1, 31.0648, 28.0675, 13.563, 12.6541, 109.134, -60.4794
0.511781, -1, 30.8726, 27.9689, 13.602, 12.6569, 109.031, -60.7409
0.51973, -1, 30.6806, 27.8703, 13.641, 12.6597, 108.928, -61.0021
0.527719, -1, 30.4887, 27.7718, 13.68, 12.6625, 108.824, -61.2633
0.536709, -1, 30.2967, 27.673, 13.719, 12.6653, 108.721, -61.5248
0.543707, -1, 30.1045, 27.5742, 13.758, 12.668, 108.618, -61.7867
0.552708, -1, 29.912, 27.4755, 13.797, 12.6708, 108.515, -62.0482
0.5598, -1, 29.719, 27.3768, 13.8359, 12.6735, 108.411, -62.3098
0.56771, -1, 29.5253, 27.278, 13.8748, 12.6761, 108.308, -62.5715
0.575709, -1, 29.3313, 27.1792, 13.9137, 12.6788, 108.205, -62.8334
0.58383, -1, 29.1371, 27.0803, 13.9527, 12.6813, 108.102, -63.095
0.591712, -1, 28.9426, 26.9814, 13.9917, 12.6838, 107.998, -63.3565
0.599776, -1, 28.7484, 26.8825, 14.0306, 12.6864, 107.895, -63.6179
0.608136, -1, 28.5543, 26.7836, 14.0696, 12.6888, 107.791, -63.8797
0.614881, -1, 28.3603, 26.6849, 14.1087, 12.6914, 107.688, -64.1414
0.623776, -1, 28.1669, 26.5861, 14.1476, 12.6938, 107.585, -64.4031
0.632509, -1, 27.974, 26.4873, 14.1866, 12.6963, 107.482, -64.6648
0.639727, -1, 27.7812, 26.3885, 14.2256, 12.6987, 107.378, -64.9267
0.6478, -1, 27.5886, 26.2896, 14.2646, 12.7011, 107.275, -65.1885
0.656554, -1, 27.3965, 26.1906, 14.3035, 12.7036, 107.172, -65.4501
0.792559, -1, 24.1115, 24.5103, 14.966, 12.743, 105.416, -69.8991
0.793783, -1, 24.1115, 24.5103, 14.966, 12.743, 105.416, -69.8991
0.79647, -1, 24.0152, 24.4609, 14.9855, 12.7442, 105.365, -70.0297
0.797788, -1, 24.0152, 24.4609, 14.9855, 12.7442, 105.365, -70.0297
0.800533, -1, 23.9188, 24.4115, 15.005, 12.7454, 105.313, -70.1605
0.801956, -1, 23.9188, 24.4115, 15.005, 12.7454, 105.313, -70.1605
0.803918, -1, 23.8224, 24.362, 15.0245, 12.7466, 105.261, -70.2914
0.808304, -1, 23.7259, 24.3126, 15.0439, 12.7478, 105.209, -70.4223
0.809893, -1, 23.7259, 24.3126, 15.0439, 12.7478, 105.209, -70.4223
0.811822, -1, 23.6294, 24.2631, 15.0634, 12.749, 105.158, -70.5532
0.813171, -1, 23.6294, 24.2631, 15.0634, 12.749, 105.158, -70.5532
0.814488, -1, 23.6294, 24.2631, 15.0634, 12.749, 105.158, -70.5532
0.816559, -1, 23.5328, 24.2137, 15.0828, 12.7502, 105.106, -70.6841
0.817841, -1, 23.5328, 24.2137, 15.0828, 12.7502, 105.106, -70.6841
0.820458, -1, 23.5328, 24.2137, 15.0828, 12.7502, 105.106, -70.6841
0.824937, -1, 23.3394, 24.1149, 15.1218, 12.7525, 105.003, -70.9457
0.826225, -1, 23.3394, 24.1149, 15.1218, 12.7525, 105.003, -70.9457
0.828138, -1, 23.2425, 24.0654, 15.1412, 12.7538, 104.951, -71.0766
0.829538, -1, 23.2425, 24.0654, 15.1412, 12.7538, 104.951, -71.0766
0.830807, -1, 23.2425, 24.0654, 15.1412, 12.7538, 104.951, -71.0766
0.832823, -1, 23.1456, 24.016, 15.1607, 12.755, 104.899, -71.2074
0.834079, -1, 23.1456, 24.016, 15.1607, 12.755, 104.899, -71.2074
0.840085, -1, 22.9517, 23.9171, 15.1995, 12.7574, 104.796, -71.4693
0.846698, -1, 22.8547, 23.8676, 15.219, 12.7586, 104.744, -71.6002
0.856316, -1, 22.5638, 23.7195, 15.2775, 12.7624, 104.589, -71.9929
0.864252, -1, 22.3702, 23.6209, 15.3165, 12.7648, 104.486, -72.2543
0.872317, -1, 22.1769, 23.5222, 15.3554, 12.7674, 104.382, -72.5157
0.878768, -1, 22.0803, 23.4728, 15.3748, 12.7687, 104.33, -72.6464
0.888297, -1, 21.791, 23.3248, 15.4333, 12.7726, 104.176, -73.0388
0.896327, -1, 21.6948, 23.2754, 15.4528, 12.7753, 104.073, -73.3001
0.903689, -1, 21.5026, 23.1766, 15.4917, 12.7766, 104.021, -73.4308
0.911731, -1, 21.3103, 23.0779, 15.5307, 12.7792, 103.918, -73.6924
0.919728, -1, 21.1179, 22.9793, 15.5697, 12.7819, 103.815, -73.9539
0.92774, -1, 20.9254, 22.8806, 15.6086, 12.7846, 103.712, -74.2152
0.935705, -1, 20.733, 22.782, 15.6475, 12.7872, 103.609, -74.4763
0.943765, -1, 20.5403, 22.6833, 15.6864, 12.79, 103.505, -74.7376
0.951737, -1, 20.3472, 22.5847, 15.7252, 12.7927, 103.402, -74.999
0.959708, -1, 20.1536, 22.4859, 15.7642, 12.7954, 103.299, -75.2603
0.967726, -1, 19.96, 22.3872, 15.803, 12.7982, 103.196, -75.5212
0.975741, -1, 19.7664, 22.2885, 15.8417, 12.8009, 103.094, -75.7824
0.982712, -1, 19.5728, 22.1899, 15.8807, 12.8036, 102.99, -76.0437
0.991736, -1, 19.3794, 22.0913, 15.9196, 12.8063, 102.887, -76.305
1.00217, -1, 19.0899, 21.9433, 15.9779, 12.8105, 102.733, -76.6962
1.00669, -1, 18.9935, 21.894, 15.9973, 12.8118, 102.681, -76.8266
1.01571, -1, 18.8011, 21.7953, 16.0361, 12.8146, 102.578, -77.0875
1.02374, -1, 18.609, 21.6966, 16.0748, 12.8174, 102.475, -77.3487
1.03324, -1, 18.4171, 21.598, 16.1138, 12.8201, 102.372, -77.6094
1.03971, -1, 18.2252, 21.4995, 16.1527, 12.8227, 102.27, -77.8701
1.04774, -1, 18.0333, 21.401, 16.1915, 12.8253, 102.167, -78.1309
1.05572, -1, 17.8414, 21.3026, 16.2304, 12.8278, 102.064, -78.3918
1.0647, -1, 17.6494, 21.2043, 16.2692, 12.8304, 101.961, -78.6523
1.07072, -1, 17.457, 21.106, 16.308, 12.8329, 101.858, -78.9128
1.07968, -1, 17.2642, 21.0077, 16.3469, 12.8354, 101.755, -79.1733
1.08776, -1, 17.0711, 20.9094, 16.3856, 12.8378, 101.652, -79.434
1.0957, -1, 16.8781, 20.8112, 16.4244, 12.8401, 101.549, -79.6945
1.10368, -1, 16.685, 20.713, 16.4632, 12.8424, 101.446, -79.9549
1.11176, -1, 16.4921, 20.6147, 16.5019, 12.8448, 101.344, -80.2153
1.1197, -1, 16.2992, 20.5164, 16.5406, 12.8471, 101.241, -80.476
1.1277, -1, 16.1069, 20.4181, 16.5794, 12.8494, 101.138, -80.7366
1.13577, -1, 15.9149, 20.3197, 16.6181, 12.8518, 101.036, -80.9967
1.14368, -1, 15.7232, 20.2212, 16.6568, 12.854, 100.933, -81.2567
1.15173, -1, 15.5318, 20.1227, 16.6954, 12.8564, 100.83, -81.5169
1.15979, -1, 15.3406, 20.0245, 16.7341, 12.8588, 100.728, -81.777
1.16768, -1, 15.1495, 19.9262, 16.7729, 12.8611, 100.625, -82.0369
1.1757, -1, 14.9583, 19.828, 16.8116, 12.8633, 100.523, -82.2966
1.18378, -1, 14.767, 19.7299, 16.8502, 12.8656, 100.42, -82.5566
1.1917, -1, 14.5755, 19.6318, 16.889, 12.8679, 100.318, -82.8167
1.19976, -1, 14.3837, 19.5336, 16.9276, 12.8702, 100.215, -83.0765
1.20772, -1, 14.1915, 19.4356, 16.9664, 12.8725, 100.113, -83.3359
1.21571, -1, 13.9992, 19.3376, 17.0051, 12.8747, 100.01, -83.5956
1.22379, -1, 13.8067, 19.2397, 17.0436, 12.8771, 99.9074, -83.8553
1.23176, -1, 13.6143, 19.1419, 17.0823, 12.8793, 99.8049, -84.1148
1.23983, -1, 13.4219, 19.044, 17.121, 12.8817, 99.7024, -84.3741
1.24788, -1, 13.23, 18.9461, 17.1595, 12.8839, 99.6003, -84.6334
1.25584, -1, 13.0384, 18.8482, 17.1981, 12.8863, 99.4977, -84.8927
1.26386, -1, 12.8471, 18.7502, 17.2368, 12.8887, 99.3952, -85.1522
1.27186, -1, 12.6561, 18.6523, 17.2753, 12.891, 99.2932, -85.4111
1.2798, -1, 12.4654, 18.5545, 17.3139, 12.8935, 99.1908, -85.6699
1.28784, -1, 12.2751, 18.4567, 17.3525, 12.8959, 99.0885, -85.9288
1.29573, -1, 12.0849, 18.3589, 17.3909, 12.8983, 98.9866, -86.1878
1.30449, -1, 11.8946, 18.2613, 17.4296, 12.9007, 98.8844, -86.4466
1.31185, -1, 11.7041, 18.1637, 17.4682, 12.9031, 98.7825, -86.7051
1.32004, -1, 11.5133, 18.066, 17.5067, 12.9056, 98.6807, -86.9638
1.32668, -1, 11.4178, 18.0172, 17.526, 12.9068, 98.6296, -87.0932
1.33476, -1, 11.2266, 17.9197, 17.5646, 12.9092, 98.5277, -87.3518
1.3441, -1, 10.9396, 17.7735, 17.6223, 12.9129, 98.3749, -87.7392
1.35069, -1, 10.8438, 17.7247, 17.6416, 12.9141, 98.3238, -87.8684
1.35876, -1, 10.6521, 17.6273, 17.68, 12.9166, 98.2218, -88.1266
1.36829, -1, 10.3651, 17.4809, 17.7376, 12.9204, 98.0691, -88.5142
1.37711, -1, 10.1741, 17.3835, 17.7761, 12.9228, 97.9672, -88.772
1.3828, -1, 10.0787, 17.3347, 17.7953, 12.9242, 97.9163, -88.9011
1.39233, -1, 9.79312, 17.1883, 17.8528, 12.9282, 97.7634, -89.2883
1.40114, -1, 9.6981, 17.1395, 17.8911, 12.9309, 97.6615, -89.5465
1.40676, -1, 9.50849, 17.0421, 17.9103, 12.9323, 97.6106, -89.6755
1.41671, -1, 9.22451, 16.896, 17.9678, 12.9364, 97.4578, -90.0617
1.4237, -1, 9.12986, 16.8474, 17.987, 12.9377, 97.4069, -90.1904
1.43077, -1, 8.94049, 16.7502, 18.0253, 12.9404, 97.3051, -90.4481
1.43979, -1, 8.7509, 16.653, 18.0636, 12.943, 97.2035, -90.7057
1.44767, -1, 8.56128, 16.5558, 18.1021, 12.9456, 97.1018, -90.9629
1.45472, -1, 8.37151, 16.4587, 18.1404, 12.9484, 97.0003, -91.2201
1.46367, -1, 8.18118, 16.3617, 18.1787, 12.951, 96.8987, -91.4772
1.47166, -1, 7.99076, 16.2649, 18.2171, 12.9537, 96.7971, -91.7345
1.47869, -1, 7.80027, 16.168, 18.2553, 12.9563, 96.6957, -91.9915
1.4877, -1, 7.6097, 16.071, 18.2935, 12.9589, 96.5942, -92.2482
1.49568, -1, 7.4193, 15.9741, 18.3319, 12.9615, 96.4927, -92.505
1.50269, -1, 7.2292, 15.8772, 18.3701, 12.9641, 96.3916, -92.7617
1.51167, -1, 7.03938, 15.7802, 18.4083, 12.9667, 96.2902, -93.0185
1.51973, -1, 6.84997, 15.6832, 18.4466, 12.9692, 96.1889, -93.2749
1.52669, -1, 6.66102, 15.5864, 18.4846, 12.9718, 96.0883, -93.5313
1.53568, -1, 6.47255, 15.4895, 18.5227, 12.9743, 95.9871, -93.7877
1.54467, -1, 6.28434, 15.3928, 18.5609, 12.9768, 95.886, -94.0441
1.55078, -1, 6.09619, 15.296, 18.599, 12.9793, 95.7853, -94.3
1.55977, -1, 5.90787, 15.1993, 18.6372, 12.9816, 95.6842, -94.5559
1.56869, -1, 5.71949, 15.1026, 18.6754, 12.984, 95.5832, -94.8119
1.57475, -1, 5.531, 15.006, 18.7134, 12.9863, 95.4827, -95.0679
1.58368, -1, 5.34222, 14.9094, 18.7516, 12.9886, 95.3817, -95.3236
1.59169, -1, 5.15309, 14.813, 18.7897, 12.9908, 95.2811, -95.5789
1.59974, -1, 4.96368, 14.7168, 18.8277, 12.9932, 95.1805, -95.8344
1.60768, -1, 4.77426, 14.6204, 18.8658, 12.9954, 95.0797, -96.09
1.61574, -1, 4.58481, 14.524, 18.9039, 12.9976, 94.9789, -96.3452
1.62397, -1, 4.39561, 14.4277, 18.9419, 12.9998, 94.8782, -96.6002
1.63168, -1, 4.20668, 14.3313, 18.9799, 13.002, 94.7773, -96.855
1.6398, -1, 4.018, 14.2349, 19.0179, 13.0043, 94.6765, -97.1101
1.64851, -1, 3.82997, 14.1388, 19.0558, 13.0066, 94.5757, -97.3652
1.65571, -1, 3.64249, 14.0426, 19.0938, 13.0088, 94.4749, -97.6199
1.66373, -1, 3.45537, 13.9465, 19.1317, 13.0112, 94.3743, -97.8746
1.67246, -1, 3.26837, 13.8505, 19.1695, 13.0134, 94.2736, -98.1294
1.67973, -1, 3.08139, 13.7544, 19.2074, 13.0156, 94.173, -98.3842
1.68772, -1, 2.89443, 13.6584, 19.2453, 13.0179, 94.0724, -98.6385
1.69653, -1, 2.70738, 13.5624, 19.2832, 13.0201, 93.9717, -98.8926
1.70366, -1, 2.52005, 13.4663, 19.3211, 13.0224, 93.8713, -99.1467
1.7118, -1, 2.33259, 13.3704, 19.3589, 13.0247, 93.771, -99.4009
1.72054, -1, 2.14473, 13.2747, 19.3966, 13.027, 93.6707, -99.6548
1.72773, -1, 1.95663, 13.1788, 19.4346, 13.0292, 93.5705, -99.9084
1.73595, -1, 1.76844, 13.0829, 19.4723, 13.0315, 93.4706, -100.162
1.74457, -1, 1.58013, 12.9871, 19.51, 13.0337, 93.3705, -100.416
1.75178, -1, 1.39204, 12.8913, 19.5479, 13.0359, 93.2704, -100.669
1.76041, -1, 1.20426, 12.7955, 19.5856, 13.0383, 93.1705, -100.923
1.76857, -1, 1.01678, 12.6997, 19.6232, 13.0407, 93.0703, -101.176
1.77578, -1, 0.829986, 12.6042, 19.661, 13.0431, 92.9704, -101.429
1.78432, -1, 0.643806, 12.5086, 19.6986, 13.0454, 92.8708, -101.682
1.79172, -1, 0.457856, 12.4131, 19.7362, 13.0479, 92.7709, -101.935
1.79975, -1, 0.272118, 12.3177, 19.7739, 13.0503, 92.6711, -102.187
1.80856, -1, 0.0867371, 12.2223, 19.8115, 13.0528, 92.5719, -102.44
1.81671, -1, -0.0986817, 12.127, 19.849, 13.0551, 92.4722, -102.693
1.8241, -1, -0.284302, 12.0317, 19.8867, 13.0576, 92.3726, -102.945
1.83067, -1, -0.377201, 11.9841, 19.9055, 13.0588, 92.323, -103.071
1.83871, -1, -0.563291, 11.8889, 19.943, 13.0614, 92.2235, -103.323
1.84666, -1, -0.749647, 11.7939, 19.9806, 13.0638, 92.124, -103.575
1.85689, -1, -1.02953, 11.6514, 20.0367, 13.0676, 91.9751, -103.953
1.86415, -1, -1.21637, 11.5563, 20.0742, 13.0701, 91.8757, -104.205
1.87066, -1, -1.3099, 11.5088, 20.093, 13.0713, 91.826, -104.331
1.88109, -1, -1.59009, 11.3661, 20.1492, 13.0752, 91.6773, -104.708
1.88823, -1, -1.77649, 11.2711, 20.1865, 13.0777, 91.578, -104.96
1.89641, -1, -1.96257, 11.1761, 20.224, 13.0804, 91.4789, -105.211
1.90504, -1, -2.05539, 11.1286, 20.2428, 13.0817, 91.4294, -105.337
1.91165, -1, -2.24048, 11.0337, 20.2801, 13.0843, 91.3301, -105.587
1.91866, -1, -2.42525, 10.9388, 20.3174, 13.087, 91.2309, -105.838
1.92951, -1, -2.70164, 10.7967, 20.3734, 13.091, 91.0824, -106.215
1.93565, -1, -2.79353, 10.7493, 20.392, 13.0923, 91.0329, -106.34
1.94269, -1, -2.97738, 10.6546, 20.4294, 13.095, 90.9337, -106.591
1.95165, -1, -3.16149, 10.5598, 20.4668, 13.0976, 90.835, -106.842
1.95871, -1, -3.34578, 10.4653, 20.504, 13.1002, 90.736, -107.092
1.96769, -1, -3.53045, 10.3708, 20.5412, 13.1027, 90.637, -107.343
1.97565, -1, -3.71526, 10.2765, 20.5785, 13.1052, 90.5385, -107.593
1.98372, -1, -3.90035, 10.1822, 20.6158, 13.1077, 90.4395, -107.843
1.99323, -1, -4.17839, 10.0407, 20.6716, 13.1114, 90.2916, -108.218
1.99971, -1, -4.27121, 9.99355, 20.6902, 13.1126, 90.2424, -108.343
2.00666, -1, -4.45675, 9.89923, 20.7273, 13.115, 90.1436, -108.593
2.01567, -1, -4.64207, 9.80491, 20.7647, 13.1174, 90.0452, -108.842
2.02374, -1, -4.82693, 9.71071, 20.8018, 13.1197, 89.9468, -109.092
2.03165, -1, -5.01153, 9.61661, 20.8388, 13.1221, 89.8482, -109.341
2.04066, -1, -5.19536, 9.52254, 20.876, 13.1245, 89.7498, -109.591
2.04775, -1, -5.3787, 9.42848, 20.9131, 13.1268, 89.6516, -109.839
2.05672, -1, -5.5616, 9.33455, 20.9501, 13.1291, 89.5531, -110.088
2.06371, -1, -5.74411, 9.24058, 20.9873, 13.1314, 89.4548, -110.337
2.07173, -1, -5.92643, 9.14664, 21.0243, 13.1338, 89.3568, -110.586
2.07976, -1, -6.10881, 9.05281, 21.0612, 13.136, 89.2586, -110.835
2.08766, -1, -6.29152, 8.95902, 21.0983, 13.1382, 89.1606, -111.083
2.09575, -1, -6.47451, 8.86538, 21.1353, 13.1404, 89.0629, -111.331
2.10366, -1, -6.6576, 8.77174, 21.1721, 13.1426, 88.9647, -111.579
2.11165, -1, -6.84118, 8.67811, 21.2091, 13.1447, 88.8667, -111.828
2.11978, -1, -7.02507, 8.5845, 21.246, 13.1468, 88.769, -112.076
2.12764, -1, -7.20934, 8.49094, 21.2828, 13.1489, 88.671, -112.323
2.13565, -1, -7.39353, 8.39732, 21.3198, 13.151, 88.5733, -112.571
2.14374, -1, -7.57733, 8.30367, 21.3566, 13.1532, 88.4758, -112.818
2.15165, -1, -7.76082, 8.21023, 21.3933, 13.1553, 88.3782, -113.066
2.15974, -1, -7.94392, 8.11681, 21.4302, 13.1576, 88.2808, -113.313
2.16772, -1, -8.12656, 8.02342, 21.467, 13.1599, 88.1835, -113.56
2.17565, -1, -8.30843, 7.93012, 21.5037, 13.1621, 88.086, -113.807
2.18366, -1, -8.48972, 7.83685, 21.5405, 13.1644, 87.9887, -114.054
2.19172, -1, -8.67079, 7.74361, 21.5773, 13.1666, 87.8913, -114.301
2.19971, -1, -8.85146, 7.65043, 21.614, 13.1689, 87.7938, -114.547
2.20777, -1, -9.0322, 7.55738, 21.6508, 13.1711, 87.6964, -114.794
2.21575, -1, -9.21325, 7.46437, 21.6875, 13.1734, 87.5993, -115.04
2.22365, -1, -9.39454, 7.37157, 21.7242, 13.1756, 87.5021, -115.286
2.2318, -1, -9.57617, 7.27877, 21.7609, 13.1778, 87.405, -115.533
2.23981, -1, -9.75819, 7.18596, 21.7975, 13.1801, 87.3079, -115.779
2.24776, -1, -9.94053, 7.09323, 21.834, 13.1822, 87.2106, -116.025
2.25583, -1, -10.123, 7.00051, 21.8706, 13.1845, 87.1134, -116.271
2.26378, -1, -10.3057, 6.90771, 21.9073, 13.1867, 87.0164, -116.516
2.27176, -1, -10.4883, 6.81492, 21.9438, 13.1889, 86.9192, -116.762
2.2799, -1, -10.6705, 6.72224, 21.9804, 13.1912, 86.8222, -117.007
2.28765, -1, -10.8523, 6.62962, 22.0168, 13.1936, 86.7253, -117.253
2.29568, -1, -11.0336, 6.53702, 22.0532, 13.196, 86.6285, -117.498
2.30379, -1, -11.2141, 6.44451, 22.0898, 13.1983, 86.5318, -117.743
2.31171, -1, -11.394, 6.35203, 22.1264, 13.2008, 86.4353, -117.987
2.31991, -1, -11.5735, 6.25958, 22.1627, 13.2032, 86.3384, -118.232
2.32798, -1, -11.7528, 6.16712, 22.1992, 13.2057, 86.2418, -118.477
2.33589, -1, -11.9321, 6.07483, 22.2357, 13.2082, 86.1452, -118.721
2.34411, -1, -12.1113, 5.98259, 22.2721, 13.2106, 86.0486, -118.966
2.35067, -1, -12.201, 5.93651, 22.2903, 13.2118, 86.0003, -119.088
2.3601, -1, -12.4707, 5.79848, 22.3449, 13.2156, 85.856, -119.454
2.36827, -1, -12.6509, 5.70644, 22.3811, 13.218, 85.7595, -119.698
2.37621, -1, -12.8316, 5.61446, 22.4176, 13.2205, 85.6634, -119.942
2.38421, -1, -13.0127, 5.52256, 22.4539, 13.2229, 85.5675, -120.186
2.39231, -1, -13.1939, 5.43051, 22.4901, 13.2254, 85.4715, -120.429
2.40122, -1, -13.2845, 5.33849, 22.5264, 13.2278, 85.3756, -120.673
2.40817, -1, -13.4656, 5.29253, 22.5446, 13.2291, 85.3278, -120.795
2.41625, -1, -13.6462, 5.20061, 22.5808, 13.2316, 85.2319, -121.038
2.42372, -1, -13.8264, 5.10875, 22.6169, 13.2342, 85.1362, -121.281
2.43166, -1, -14.006, 5.01693, 22.6531, 13.2368, 85.0406, -121.524
2.43968, -1, -14.1847, 4.92523, 22.6893, 13.2394, 84.945, -121.767
2.44764, -1, -14.3629, 4.83352, 22.7254, 13.242, 84.8493, -122.01
2.45464, -1, -14.5409, 4.74184, 22.7617, 13.2444, 84.7538, -122.252
2.46363, -1, -14.7186, 4.65023, 22.7979, 13.247, 84.6581, -122.494
2.47165, -1, -14.8961, 4.55875, 22.8339, 13.2494, 84.5624, -122.737
2.47864, -1, -15.0738, 4.46729, 22.8701, 13.252, 84.4667, -122.979
2.48763, -1, -15.2519, 4.376, 22.9062, 13.2544, 84.3711, -123.221
2.49566, -1, -15.4303, 4.2847, 22.9422, 13.2567, 84.2754, -123.463
2.50265, -1, -15.6092, 4.1934, 22.9782, 13.2591, 84.1799, -123.705
2.51164, -1, -15.7884, 4.10215, 23.0143, 13.2614, 84.0844, -123.947
2.51964, -1, -15.9676, 4.01093, 23.0501, 13.2636, 83.9889, -124.188
2.52664, -1, -16.1472, 3.91964, 23.0862, 13.2658, 83.8935, -124.43
2.53564, -1, -16.327, 3.82837, 23.1222, 13.2679, 83.798, -124.671
2.54465, -1, -16.5064, 3.73715, 23.158, 13.27, 83.7026, -124.912
2.55065, -1, -16.6854, 3.64599, 23.1938, 13.2723, 83.6072, -125.154
2.55963, -1, -16.8638, 3.55489, 23.2297, 13.2746, 83.5118, -125.395
2.56865, -1, -17.0414, 3.46389, 23.2655, 13.2769, 83.4165, -125.635
2.57464, -1, -17.2182, 3.3729, 23.3013, 13.279, 83.3212, -125.876
2.58363, -1, -17.3948, 3.282, 23.3372, 13.2812, 83.2262, -126.117
2.59166, -1, -17.5711, 3.19113, 23.3729, 13.2833, 83.1311, -126.357
2.59965, -1, -17.7472, 3.10049, 23.4087, 13.2856, 83.0363, -126.598
2.60763, -1, -17.9232, 3.00989, 23.4447, 13.2876, 82.9416, -126.838
2.61574, -1, -18.0994, 2.91941, 23.4803, 13.2898, 82.8467, -127.078
2.62364, -1, -18.2759, 2.82908, 23.5161, 13.2919, 82.7519, -127.318
2.63164, -1, -18.4529, 2.73865, 23.5518, 13.294, 82.6574, -127.558
2.63975, -1, -18.6303, 2.64827, 23.5875, 13.296, 82.5626, -127.797
2.64763, -1, -18.808, 2.55792, 23.6231, 13.298, 82.468, -128.037
2.65564, -1, -18.986, 2.46749, 23.6589, 13.3, 82.3737, -128.276
2.66375, -1, -19.1643, 2.37703, 23.6944, 13.302, 82.2792, -128.516
2.67164, -1, -19.3425, 2.28668, 23.73, 13.304, 82.1849, -128.755
2.67963, -1, -19.5202, 2.19629, 23.7657, 13.3062, 82.091, -128.994
2.68772, -1, -19.6972, 2.10592, 23.8011, 13.3084, 81.9967, -129.233
2.69564, -1, -19.8738, 2.01566, 23.8365, 13.3106, 81.9024, -129.472
2.70363, -1, -20.0495, 1.92543, 23.8721, 13.3127, 81.8086, -129.711
2.71177, -1, -20.2247, 1.83521, 23.9076, 13.3149, 81.7143, -129.949
2.71965, -1, -20.3996, 1.74513, 23.943, 13.3171, 81.6203, -130.188
2.72771, -1, -20.5742, 1.65506, 23.9786, 13.3193, 81.5266, -130.426
2.73654, -1, -20.7486, 1.5651, 24.0141, 13.3215, 81.4326, -130.664
2.74373, -1, -20.9233, 1.47522, 24.0494, 13.3237, 81.3388, -130.903
2.75181, -1, -21.0983, 1.38552, 24.085, 13.3259, 81.2452, -131.14
2.75975, -1, -21.2736, 1.29575, 24.1205, 13.3281, 81.1513, -131.378
2.76777, -1, -21.4493, 1.20601, 24.1558, 13.3303, 81.0574, -131.616
2.77582, -1, -21.6254, 1.11638, 24.1911, 13.3324, 80.9636, -131.854
2.786, -1, -21.8016, 1.0267, 24.2266, 13.3346, 80.8698, -132.091
2.79187, -1, -21.978, 0.937074, 24.2619, 13.3368, 80.776, -132.328
2.7997, -1, -22.1546, 0.847476, 24.2972, 13.3389, 80.6824, -132.565
2.80842, -1, -22.3312, 0.757929, 24.3326, 13.3411, 80.5887, -132.803
2.81664, -1, -22.5072, 0.668486, 24.3678, 13.3434, 80.4951, -133.04
2.82378, -1, -22.6828, 0.578985, 24.403, 13.3457, 80.4015, -133.277
2.83264, -1, -22.8578, 0.489558, 24.4382, 13.3481, 80.3079, -133.513
2.84015, -1, -23.0317, 0.400171, 24.4734, 13.3505, 80.2144, -133.75
2.84798, -1, -23.2053, 0.310806, 24.5085, 13.353, 80.1208, -133.987
2.85481, -1, -23.292, 0.266114, 24.5261, 13.3542, 80.0742, -134.105
2.86267, -1, -23.4652, 0.176815, 24.5613, 13.3567, 79.9806, -134.342
2.87219, -1, -23.725, 0.0430389, 24.614, 13.3602, 79.8408, -134.696
2.88101, -1, -23.8984, -0.0460215, 24.6493, 13.3626, 79.7477, -134.932
2.88842, -1, -24.0718, -0.134969, 24.6843, 13.3651, 79.6545, -135.168
2.89621, -1, -24.1587, -0.223981, 24.7193, 13.3675, 79.5614, -135.404
2.90501, -1, -24.3327, -0.268466, 24.7369, 13.3687, 79.4686, -135.639
2.91221, -1, -24.507, -0.357381, 24.7721, 13.3712, 79.3754, -135.875
2.91963, -1, -24.6816, -0.446252, 24.8071, 13.3737, 79.3289, -135.993
2.92762, -1, -24.8566, -0.53516, 24.8421, 13.376, 79.2358, -136.228
2.93569, -1, -25.0317, -0.624036, 24.8773, 13.3784, 79.1429, -136.464
2.94362, -1, -25.2066, -0.712853, 24.9123, 13.3808, 79.0499, -136.699
2.95163, -1, -25.3811, -0.801603, 24.9473, 13.3832, 78.9571, -136.934
2.95967, -1, -25.5552, -0.890431, 24.9824, 13.3856, 78.8646, -137.169
2.96769, -1, -25.7288, -0.979171, 25.0172, 13.3881, 78.7717, -137.404
2.97562, -1, -25.9017, -1.06787, 25.0521, 13.3905, 78.6792, -137.638
2.98368, -1, -26.0741, -1.15659, 25.0872, 13.3929, 78.5869, -137.873
2.99163, -1, -26.2462, -1.24521, 25.1221, 13.3954, 78.4942, -138.107
2.99964, -1, -26.4179, -1.33371, 25.157, 13.3977, 78.4016, -138.342
3.00763, -1, -26.5898, -1.42213, 25.1919, 13.4, 78.3093, -138.576
3.01563, -1, -26.7618, -1.51046, 25.2269, 13.4022, 78.2167, -138.81
3.02265, -1, -26.9341, -1.59865, 25.2618, 13.4045, 78.1243, -139.044
3.03162, -1, -27.1065, -1.68679, 25.2966, 13.4068, 78.0322, -139.278
3.03962, -1, -27.2791, -1.77502, 25.3315, 13.4089, 77.9399, -139.512
3.0477, -1, -27.452, -1.86309, 25.3663, 13.4112, 77.8479, -139.746
3.05669, -1, -27.6252, -1.95118, 25.4011, 13.4132, 77.756, -139.979
3.06362, -1, -27.7985, -2.0394, 25.4361, 13.4154, 77.664, -140.212
3.07169, -1, -27.9717, -2.12741, 25.4709, 13.4175, 77.5719, -140.446
3.07962, -1, -28.145, -2.21548, 25.5056, 13.4195, 77.4799, -140.679
3.08763, -1, -28.3181, -2.30358, 25.5405, 13.4215, 77.3879, -140.913
3.09568, -1, -28.4909, -2.39165, 25.5753, 13.4236, 77.2957, -141.146
3.10365, -1, -28.6633, -2.47962, 25.6099, 13.4258, 77.2037, -141.378
3.11161, -1, -28.8351, -2.56765, 25.6447, 13.4279, 77.1118, -141.611
3.11968, -1, -29.0061, -2.65562, 25.6794, 13.4301, 77.0198, -141.844
3.12762, -1, -29.1767, -2.74352, 25.7139, 13.4323, 76.9279, -142.077
3.13573, -1, -29.3473, -2.83133, 25.7486, 13.4343, 76.8362, -142.309
3.14363, -1, -29.518, -2.91902, 25.7834, 13.4364, 76.7442, -142.541
3.15162, -1, -29.6889, -3.00661, 25.8179, 13.4383, 76.6523, -142.774
3.15968, -1, -29.8599, -3.09414, 25.8525, 13.4404, 76.5608, -143.006
3.16764, -1, -30.0309, -3.18159, 25.8872, 13.4426, 76.4688, -143.238
3.17563, -1, -30.2018, -3.2691, 25.9218, 13.4446, 76.3771, -143.47
3.18369, -1, -30.373, -3.35652, 25.9563, 13.4467, 76.2857, -143.702
3.19161, -1, -30.5445, -3.44397, 25.991, 13.4487, 76.194, -143.934
3.19967, -1, -30.7163, -3.5315, 26.0254, 13.4507, 76.1026, -144.166
3.20765, -1, -30.8882, -3.61888, 26.0599, 13.4528, 76.0113, -144.397
3.21563, -1, -31.06, -3.70632, 26.0946, 13.4548, 75.9199, -144.628
3.22394, -1, -31.2316, -3.79367, 26.129, 13.4568, 75.8285, -144.86
3.23166, -1, -31.403, -3.88103, 26.1634, 13.4589, 75.7373, -145.091
3.23967, -1, -31.5738, -3.96833, 26.1979, 13.4611, 75.646, -145.322
3.24801, -1, -31.7443, -4.05558, 26.2323, 13.4632, 75.5547, -145.553
3.25574, -1, -31.9143, -4.14288, 26.2667, 13.4654, 75.4636, -145.784
3.2638, -1, -32.084, -4.23008, 26.3011, 13.4676, 75.3726, -146.015
3.27225, -1, -32.2533, -4.31718, 26.3355, 13.4699, 75.2814, -146.246
3.27973, -1, -32.4228, -4.40423, 26.3697, 13.472, 75.1903, -146.476
3.28762, -1, -32.5925, -4.49118, 26.4041, 13.4742, 75.0997, -146.707
3.29642, -1, -32.7621, -4.57807, 26.4385, 13.4763, 75.0087, -146.937
3.30382, -1, -32.9317, -4.66501, 26.4727, 13.4785, 74.9178, -147.167
3.31165, -1, -33.1015, -4.75195, 26.5069, 13.4806, 74.8274, -147.398
3.32061, -1, -33.2713, -4.83881, 26.5412, 13.4828, 74.7366, -147.628
3.32778, -1, -33.4413, -4.92571, 26.5755, 13.4851, 74.646, -147.858
3.33588, -1, -33.6116, -5.01269, 26.6096, 13.4872, 74.5555, -148.087
3.34487, -1, -33.7819, -5.0995, 26.6439, 13.4895, 74.4649, -148.318
3.35198, -1, -33.9522, -5.18626, 26.678, 13.4917, 74.3744, -148.547
3.36033, -1, -34.1224, -5.273, 26.7121, 13.4939, 74.2839, -148.777
3.36902, -1, -34.2925, -5.35974, 26.7463, 13.4962, 74.1935, -149.006
3.37614, -1, -34.4625, -5.44637, 26.7806, 13.4985, 74.1028, -149.235
3.38418, -1, -34.6321, -5.53301, 26.8146, 13.5008, 74.0122, -149.465
3.39309, -1, -34.801, -5.61968, 26.8487, 13.5032, 73.9218, -149.694
3.39872, -1, -34.8853, -5.66299, 26.8658, 13.5045, 73.8764, -149.809
3.40825, -1, -35.0538, -5.74954, 26.917, 13.5081, 73.7407, -150.152
3.41562, -1, -35.222, -5.836, 26.934, 13.5093, 73.6956, -150.266
3.42361, -1, -35.3902, -5.92235, 26.9681, 13.5119, 73.6052, -150.495
3.43165, -1, -35.5588, -6.00855, 27.0022, 13.5142, 73.5149, -150.724
3.43964, -1, -35.7273, -6.0948, 27.0361, 13.5165, 73.4245, -150.953
3.44661, -1, -35.8958, -6.18093, 27.0702, 13.5189, 73.3343, -151.181
3.45561, -1, -36.0644, -6.26705, 27.1043, 13.5213, 73.2438, -151.41
3.46362, -1, -36.2329, -6.35316, 27.1382, 13.5237, 73.1535, -151.638
3.4717, -1, -36.4015, -6.43935, 27.1721, 13.5261, 73.0633, -151.867
3.4796, -1, -36.5703, -6.52556, 27.2062, 13.5285, 72.9727, -152.095
3.48762, -1, -36.7392, -6.61169, 27.2401, 13.5307, 72.8825, -152.323
3.49462, -1, -36.9081, -6.69786, 27.2739, 13.533, 72.7926, -152.551
3.50363, -1, -37.0772, -6.78399, 27.3079, 13.5353, 72.7023, -152.779
3.51448, -1, -37.3304, -6.91314, 27.3587, 13.5387, 72.5675, -153.121
3.51967, -1, -37.4146, -6.95613, 27.3756, 13.5398, 72.5227, -153.235
3.5276, -1, -37.5827, -7.04217, 27.4096, 13.5421, 72.4328, -153.463
3.53562, -1, -37.7505, -7.12821, 27.4435, 13.5444, 72.3429, -153.69
3.54463, -1, -37.9181, -7.21414, 27.4773, 13.5467, 72.2531, -153.918
3.5516, -1, -38.0855, -7.30003, 27.5112, 13.5489, 72.1634, -154.145
3.56062, -1, -38.253, -7.38591, 27.5452, 13.5511, 72.0735, -154.372
3.56665, -1, -38.4203, -7.47161, 27.5789, 13.5532, 71.9838, -154.599
3.57562, -1, -38.5875, -7.5573, 27.6127, 13.5553, 71.8944, -154.827
3.5836, -1, -38.7548, -7.64301, 27.6467, 13.5574, 71.8047, -155.054
3.59166, -1, -38.9221, -7.7287, 27.6804, 13.5594, 71.7152, -155.281
3.59961, -1, -39.0894, -7.81429, 27.7141, 13.5615, 71.6262, -155.508
3.60769, -1, -39.2569, -7.89995, 27.748, 13.5636, 71.5366, -155.735
3.61564, -1, -39.4244, -7.98564, 27.7818, 13.5655, 71.4472, -155.961
3.62361, -1, -39.5921, -8.0712, 27.8154, 13.5675, 71.3579, -156.188
3.63167, -1, -39.7598, -8.15672, 27.8491, 13.5694, 71.2686, -156.415
3.63965, -1, -39.9273, -8.24219, 27.8828, 13.5714, 71.1792, -156.641
3.64761, -1, -40.0949, -8.32767, 27.9165, 13.5734, 71.0898, -156.867
3.65568, -1, -40.2624, -8.41307, 27.9501, 13.5753, 71.0007, -157.094
3.6636, -1, -40.4296, -8.49847, 27.9839, 13.5773, 70.9113, -157.32
3.6717, -1, -40.5967, -8.58386, 28.0175, 13.5793, 70.8221, -157.546
3.67967, -1, -40.7635, -8.66927, 28.0511, 13.5812, 70.7331, -157.772
3.6876, -1, -40.9301, -8.75463, 28.0849, 13.5833, 70.6438, -157.998
3.69563, -1, -41.0965, -8.83995, 28.1185, 13.5853, 70.5547, -158.224
3.70367, -1, -41.2628, -8.9252, 28.1521, 13.5873, 70.4657, -158.45
3.7116, -1, -41.429, -9.01038, 28.1857, 13.5892, 70.3764, -158.675
3.71968, -1, -41.5952, -9.09555, 28.2193, 13.5913, 70.2872, -158.901
3.72762, -1, -41.7615, -9.18064, 28.2529, 13.5933, 70.1981, -159.126
3.73575, -1, -41.9279, -9.2657, 28.2865, 13.5952, 70.109, -159.352
3.74403, -1, -42.0942, -9.35073, 28.3202, 13.5973, 70.0201, -159.577
3.75169, -1, -42.2605, -9.43583, 28.3537, 13.5993, 69.9311, -159.802
3.7597, -1, -42.4267, -9.52088, 28.3872, 13.6014, 69.8424, -160.028
3.76805, -1, -42.5931, -9.60585, 28.4208, 13.6034, 69.7533, -160.253
3.77575, -1, -42.7595, -9.69082, 28.4543, 13.6054, 69.6644, -160.478
3.7837, -1, -42.926, -9.77581, 28.4877, 13.6075, 69.5758, -160.703
3.79178, -1, -43.0924, -9.86072, 28.5212, 13.6096, 69.4868, -160.928
3.80042, -1, -43.2586, -9.94563, 28.5547, 13.6116, 69.3981, -161.153
3.80775, -1, -43.4247, -10.0306, 28.5882, 13.6137, 69.3097, -161.377
3.81574, -1, -43.5907, -10.1155, 28.6217, 13.6158, 69.221, -161.602
3.82453, -1, -43.7565, -10.2004, 28.6552, 13.6179, 69.1324, -161.827
3.83177, -1, -43.9224, -10.2852, 28.6886, 13.6201, 69.044, -162.052
3.83991, -1, -44.088, -10.37, 28.722, 13.6222, 68.9556, -162.276
3.84854, -1, -44.2533, -10.4547, 28.7555, 13.6244, 68.8669, -162.5
3.85613, -1, -44.4184, -10.5392, 28.7889, 13.6265, 68.7782, -162.724
3.86412, -1, -44.5837, -10.6237, 28.8222, 13.6288, 68.6897, -162.949
3.87276, -1, -44.7489, -10.7083, 28.8556, 13.6309, 68.601, -163.173
3.88011, -1, -44.9142, -10.7927, 28.8891, 13.6331, 68.5124, -163.397
3.8882, -1, -45.0796, -10.8771, 28.9225, 13.6353, 68.4242, -163.621
3.89635, -1, -45.2449, -10.9617, 28.9559, 13.6375, 68.3357, -163.845
3.90436, -1, -45.4102, -11.0462, 28.9893, 13.6398, 68.2473, -164.069
3.91232, -1, -45.4928, -11.1305, 29.0225, 13.642, 68.1591, -164.293
3.92013, -1, -45.658, -11.1728, 29.0391, 13.6432, 68.1151, -164.405
3.92858, -1, -45.9056, -11.2992, 29.0892, 13.6466, 67.9824, -164.74
3.93569, -1, -45.9875, -11.341, 29.1059, 13.6477, 67.9381, -164.852
3.94364, -1, -46.1489, -11.4233, 29.1393, 13.65, 67.8501, -165.075
3.95184, -1, -46.3059, -11.5026, 29.1729, 13.6524, 67.7627, -165.296
3.95964, -1, -46.4561, -11.5776, 29.2065, 13.6548, 67.6775, -165.512
3.96762, -1, -46.5971, -11.6475, 29.2387, 13.6571, 67.596, -165.717
3.97565, -1, -46.7267, -11.7108, 29.2685, 13.6594, 67.5214, -165.907
3.98364, -1, -46.8416, -11.7669, 29.2949, 13.6613, 67.4545, -166.075
3.99159, -1, -46.9402, -11.816, 29.3169, 13.663, 67.3988, -166.217
3.99959, -1, -47.0227, -11.8589, 29.3335, 13.6643, 67.3541, -166.33
4.00767, -1, -47.0898, -11.8957, 29.3446, 13.6651, 67.3206, -166.414
4.01561, -1, -47.1421, -11.9251, 29.3518, 13.6655, 67.2973, -166.473
4.02358, -1, -47.1809, -11.9472, 29.3557, 13.6657, 67.2823, -166.51
4.03162, -1, -47.2084, -11.9626, 29.3575, 13.6659, 67.2737, -166.533
4.03958, -1, -47.2264, -11.9726, 29.3583, 13.6659, 67.2689, -166.545
4.04863, -1, -47.2372, -11.9784, 29.3587, 13.6659, 67.2665, -166.55
4.05564, 2, -47.2427, -11.9813, 29.3589, 13.666, 67.2654, -166.553
4.06465, 2, -47.2448, -11.9826, 29.359, 13.666, 67.2648, -166.554
4.07159, 2, -47.2448, -11.9832, 29.3591, 13.6661, 67.2646, -166.555
4.08064, 2, -47.2446, -11.9833, 29.3592, 13.666, 67.2645, -166.555
4.08759, 2, -47.2446, -11.9834, 29.3592, 13.6661, 67.2645, -166.555
4.09561, 2, -47.245, -11.9835, 29.3592, 13.6661, 67.2644, -166.555
4.10364, 2, -47.2459, -11.9838, 29.3593, 13.6661, 67.2644, -166.555
4.1116, 2, -47.2472, -11.9843, 29.3593, 13.6661, 67.2644, -166.555
4.1196, 2, -47.249, -11.9851, 29.3593, 13.6661, 67.2644, -166.555
4.12766, 2, -47.2506, -11.986, 29.3593, 13.6661, 67.2644, -166.555
4.1356, 2, -47.2519, -11.9868, 29.3592, 13.666, 67.2644, -166.555
4.14362, 2, -47.2528, -11.9875, 29.3592, 13.6661, 67.2644, -166.555
4.15166, 2, -47.2532, -11.9878, 29.3593, 13.6661, 67.2644, -166.555
4.15959, 2, -47.2534, -11.988, 29.3593, 13.6661, 67.2644, -166.555
4.16758, 2, -47.2535, -11.9881, 29.3593, 13.6661, 67.2644, -166.555
4.17569, 2, -47.2532, -11.9881, 29.3593, 13.6661, 67.2644, -166.555
4.18359, 2, -47.2527, -11.9881, 29.3593, 13.6661, 67.2644, -166.555
4.19159, 2, -47.2522, -11.988, 29.3593, 13.666, 67.2645, -166.555
4.19965, 2, -47.2519, -11.988, 29.3593, 13.666, 67.2645, -166.555
4.20759, 2, -47.2517, -11.988, 29.3593, 13.6661, 67.2645, -166.555
4.21561, 2, -47.2517, -11.9881, 29.3593, 13.6661, 67.2645, -166.555
4.22366, 2, -47.2519, -11.9883, 29.3593, 13.666, 67.2645, -166.555
4.23161, 2, -47.2521, -11.9886, 29.3593, 13.666, 67.2645, -166.555
4.23962, 2, -47.2527, -11.989, 29.3593, 13.666, 67.2645, -166.555
4.24775, 2, -47.2532, -11.9893, 29.3593, 13.666, 67.2644, -166.555
4.25571, 2, -47.2535, -11.9894, 29.3593, 13.666, 67.2644, -166.555
4.26368, 2, -47.2536, -11.9895, 29.3593, 13.666, 67.2645, -166.555
4.27177, 2, -47.2536, -11.9896, 29.3593, 13.666, 67.2645, -166.555
4.27971, 2, -47.2535, -11.9895, 29.3593, 13.666, 67.2645, -166.555
4.28764, 2, -47.2533, -11.9895, 29.3594, 13.666, 67.2645, -166.555
4.29577, 2, -47.2529, -11.9894, 29.3593, 13.666, 67.2645, -166.555
4.30361, 2, -47.2525, -11.9894, 29.3593, 13.666, 67.2645, -166.555
4.31166, 2, -47.2523, -11.9894, 29.3593, 13.666, 67.2645, -166.555
4.31971, 2, -47.2521, -11.9894, 29.3593, 13.666, 67.2645, -166.555
4.3277, 2, -47.252, -11.9894, 29.3593, 13.6661, 67.2645, -166.555
4.33589, 2, -47.252, -11.9895, 29.3593, 13.666, 67.2645, -166.555
4.34392, 2, -47.252, -11.9895, 29.3593, 13.666, 67.2645, -166.555
4.35189, 2, -47.252, -11.9896, 29.3593, 13.666, 67.2645, -166.555
4.36007, 2, -47.252, -11.9897, 29.3593, 13.666, 67.2645, -166.555
4.36806, 2, -47.2521, -11.9897, 29.3593, 13.666, 67.2645, -166.555
4.37462, 2, -47.252, -11.9897, 29.3593, 13.666, 67.2645, -166.555
4.38421, 2, -47.252, -11.9896, 29.3593, 13.666, 67.2645, -166.555
4.39217, 2, -47.2519, -11.9895, 29.3593, 13.666, 67.2645, -166.555
4.40019, 2, -47.2518, -11.9895, 29.3593, 13.666, 67.2645, -166.555
4.40825, 2, -47.2517, -11.9894, 29.3593, 13.666, 67.2645, -166.555
4.41622, 2, -47.2516, -11.9894, 29.3593, 13.666, 67.2646, -166.555
4.42357, 2, -47.2515, -11.9894, 29.3593, 13.666, 67.2645, -166.555
4.43158, 2, -47.2514, -11.9894, 29.3593, 13.6659, 67.2645, -166.555
4.43968, 2, -47.2514, -11.9894, 29.3593, 13.6659, 67.2645, -166.555
4.4476, 2, -47.2513, -11.9894, 29.3593, 13.666, 67.2646, -166.555
4.4556, 2, -47.2513, -11.9894, 29.3593, 13.6659, 67.2646, -166.555
4.46362, 2, -47.2512, -11.9895, 29.3593, 13.6659, 67.2645, -166.555
4.47157, 2, -47.2512, -11.9895, 29.3593, 13.6659, 67.2646, -166.555
4.47967, 2, -47.2512, -11.9895, 29.3593, 13.6659, 67.2646, -166.555
4.48761, 2, -47.2511, -11.9894, 29.3593, 13.6659, 67.2646, -166.555
4.49558, 2, -47.251, -11.9894, 29.3593, 13.6659, 67.2646, -166.555
4.50357, 2, -47.2509, -11.9893, 29.3593, 13.6659, 67.2646, -166.555
4.51166, 2, -47.2508, -11.9892, 29.3593, 13.666, 67.2646, -166.555
4.51957, 2, -47.2507, -11.9892, 29.3593, 13.6659, 67.2646, -166.555
4.52758, 2, -47.2506, -11.9892, 29.3593, 13.6659, 67.2646, -166.555
4.53566, 2, -47.2506, -11.9892, 29.3593, 13.6659, 67.2646, -166.555
4.54357, 2, -47.2505, -11.9892, 29.3593, 13.6659, 67.2646, -166.555
4.5526, 2, -47.2504, -11.9892, 29.3593, 13.6659, 67.2646, -166.555
4.55964, 2, -47.2503, -11.9892, 29.3593, 13.6659, 67.2646, -166.555
4.56865, 2, -47.2502, -11.9892, 29.3593, 13.6659, 67.2646, -166.555
4.57559, 2, -47.2501, -11.9892, 29.3593, 13.6659, 67.2647, -166.555
4.58364, 2, -47.25, -11.9892, 29.3593, 13.6659, 67.2647, -166.555
4.59157, 2, -47.2499, -11.9892, 29.3593, 13.6659, 67.2646, -166.555
4.59958, 2, -47.2498, -11.9891, 29.3593, 13.6659, 67.2646, -166.555
4.60764, 2, -47.2497, -11.989, 29.3593, 13.6659, 67.2646, -166.555
4.61562, 2, -47.2496, -11.989, 29.3593, 13.6659, 67.2647, -166.555
4.62358, 2, -47.2495, -11.9889, 29.3593, 13.6659, 67.2647, -166.555
4.63164, 2, -47.2493, -11.9889, 29.3593, 13.6659, 67.2647, -166.555
4.63959, 2, -47.2492, -11.9889, 29.3593, 13.6659, 67.2647, -166.555
4.64761, 2, -47.2491, -11.9889, 29.3593, 13.6659, 67.2647, -166.555
4.65565, 2, -47.2491, -11.9889, 29.3593, 13.6659, 67.2647, -166.555
4.66357, 2, -47.249, -11.9889, 29.3593, 13.6659, 67.2647, -166.555
4.67157, 2, -47.249, -11.9889, 29.3593, 13.6658, 67.2647, -166.555
4.67967, 2, -47.2489, -11.9889, 29.3593, 13.6658, 67.2648, -166.555
4.68757, 2, -47.2488, -11.9889, 29.3593, 13.6658, 67.2647, -166.555
4.69558, 2, -47.2488, -11.9888, 29.3593, 13.6658, 67.2647, -166.555
4.70364, 2, -47.2487, -11.9888, 29.3593, 13.6658, 67.2647, -166.555
4.71157, 2, -47.2487, -11.9887, 29.3593, 13.6658, 67.2647, -166.555
4.71958, 2, -47.2486, -11.9887, 29.3593, 13.6658, 67.2647, -166.555
4.72764, 2, -47.2486, -11.9886, 29.3593, 13.6658, 67.2647, -166.555
4.73561, 2, -47.2485, -11.9886, 29.3593, 13.6658, 67.2647, -166.555
4.74361, 2, -47.2484, -11.9886, 29.3593, 13.6658, 67.2647, -166.555
4.75172, 2, -47.2484, -11.9886, 29.3593, 13.6658, 67.2647, -166.555
4.75967, 2, -47.2483, -11.9886, 29.3593, 13.6658, 67.2647, -166.555
4.76766, 2, -47.2483, -11.9886, 29.3593, 13.6658, 67.2647, -166.555
4.77576, 2, -47.2483, -11.9886, 29.3593, 13.6658, 67.2647, -166.555
4.7837, 2, -47.2483, -11.9886, 29.3593, 13.6658, 67.2647, -166.555
4.79158, 2, -47.2482, -11.9886, 29.3593, 13.6658, 67.2647, -166.555
4.7997, 2, -47.2482, -11.9885, 29.3593, 13.6658, 67.2647, -166.555
4.8076, 2, -47.2482, -11.9885, 29.3593, 13.6657, 67.2648, -166.554
4.81566, 2, -47.2482, -11.9884, 29.3593, 13.6657, 67.2648, -166.554
4.82397, 2, -47.2481, -11.9884, 29.3593, 13.6657, 67.2648, -166.554
4.83168, 2, -47.248, -11.9883, 29.3593, 13.6656, 67.2648, -166.554
4.84003, 2, -47.2479, -11.9883, 29.3593, 13.6656, 67.2648, -166.554
4.84792, 2, -47.2479, -11.9883, 29.3593, 13.6656, 67.2648, -166.554
4.85589, 2, -47.2478, -11.9882, 29.3593, 13.6656, 67.2649, -166.554
4.86429, 2, -47.2478, -11.9882, 29.3593, 13.6656, 67.2649, -166.554
4.87234, 2, -47.2477, -11.9882, 29.3593, 13.6656, 67.2648, -166.554
4.88007, 2, -47.2477, -11.9882, 29.3593, 13.6656, 67.2648, -166.554
4.88847, 2, -47.2477, -11.9882, 29.3593, 13.6656, 67.2649, -166.554
4.89614, 2, -47.2477, -11.9882, 29.3593, 13.6656, 67.2649, -166.554
4.90416, 2, -47.2476, -11.9882, 29.3593, 13.6656, 67.265, -166.554
4.91234, 2, -47.2476, -11.9881, 29.3593, 13.6656, 67.265, -166.554
4.92038, 2, -47.2476, -11.9881, 29.3593, 13.6656, 67.265, -166.554
4.92756, 2, -47.2475, -11.988, 29.3593, 13.6656, 67.265, -166.554
4.93641, 2, -47.2474, -11.9879, 29.3593, 13.6656, 67.265, -166.554
4.94366, 2, -47.2474, -11.9879, 29.3593, 13.6655, 67.265, -166.554
4.95158, 2, -47.2473, -11.9879, 29.3593, 13.6655, 67.265, -166.554
4.95956, 2, -47.2472, -11.9879, 29.3593, 13.6656, 67.265, -166.554
4.96765, 2, -47.2471, -11.9879, 29.3593, 13.6655, 67.265, -166.554
4.97557, 2, -47.2471, -11.9879, 29.3593, 13.6655, 67.265, -166.554
4.98359, 2, -47.2471, -11.9879, 29.3593, 13.6654, 67.265, -166.554
4.99161, 2, -47.2471, -11.9878, 29.3593, 13.6654, 67.265, -166.554
4.99956, 2, -47.2471, -11.9878, 29.3593, 13.6654, 67.265, -166.554
5.00756, 2, -47.2471, -11.9878, 29.3593, 13.6654, 67.265, -166.554
5.01567, 2, -47.247, -11.9878, 29.3593, 13.6654, 67.265, -166.554
5.02356, 2, -47.247, -11.9877, 29.3593, 13.6654, 67.265, -166.554
5.03155, 2, -47.2469, -11.9877, 29.3593, 13.6654, 67.265, -166.554
5.03962, 2, -47.2469, -11.9876, 29.3593, 13.6654, 67.265, -166.554
5.04756, 2, -47.2467, -11.9876, 29.3593, 13.6653, 67.265, -166.554
5.05782, 2, -47.2466, -11.9876, 29.3593, 13.6653, 67.2651, -166.554
5.06455, 2, -47.2466, -11.9875, 29.3593, 13.6653, 67.2651, -166.554
5.07164, 2, -47.2466, -11.9876, 29.3593, 13.6653, 67.2651, -166.554
5.07956, 2, -47.2465, -11.9876, 29.3593, 13.6653, 67.2651, -166.554
5.08756, 2, -47.2465, -11.9875, 29.3593, 13.6653, 67.2651, -166.554
5.09563, 2, -47.2465, -11.9875, 29.3593, 13.6653, 67.2651, -166.554
5.10356, 2, -47.2464, -11.9875, 29.3593, 13.6653, 67.2652, -166.554
5.11156, 2, -47.2465, -11.9875, 29.3593, 13.6652, 67.2651, -166.554
5.11965, 2, -47.2464, -11.9874, 29.3593, 13.6652, 67.2651, -166.554
5.12755, 2, -47.2464, -11.9874, 29.3593, 13.6652, 67.2652, -166.554
5.1356, 2, -47.2463, -11.9873, 29.3593, 13.6652, 67.2652, -166.554
5.14363, 4, -47.2462, -11.9873, 29.3593, 13.6652, 67.2653, -166.554
5.15159, 4, -47.2462, -11.9873, 29.3593, 13.6652, 67.2652, -166.554
5.15956, 4, -47.2461, -11.9873, 29.3593, 13.6652, 67.2652, -166.554
5.16762, 4, -47.246, -11.9873, 29.3593, 13.6651, 67.2652, -166.554
5.17557, 4, -47.246, -11.9873, 29.3593, 13.6651, 67.2652, -166.554
5.18358, 4, -47.2459, -11.9873, 29.3593, 13.6651, 67.2652, -166.554
5.19162, 4, -47.2459, -11.9872, 29.3593, 13.6651, 67.2652, -166.554
5.19955, 4, -47.2458, -11.9872, 29.3593, 13.6651, 67.2652, -166.554
5.20757, 4, -47.2458, -11.9872, 29.3593, 13.665, 67.2653, -166.554
5.21565, 4, -47.2458, -11.9872, 29.3593, 13.6651, 67.2652, -166.554
5.22355, 4, -47.2458, -11.9872, 29.3593, 13.6651, 67.2652, -166.554
5.23156, 4, -47.2458, -11.9871, 29.3593, 13.6651, 67.2652, -166.554
5.23983, 4, -47.2457, -11.9871, 29.3593, 13.6651, 67.2653, -166.554
5.25342, 4, -47.2456, -11.987, 29.3593, 13.665, 67.2653, -166.554
5.25634, 4, -47.2456, -11.987, 29.3593, 13.665, 67.2653, -166.554
5.26381, 4, -47.2455, -11.987, 29.3593, 13.6651, 67.2653, -166.553
5.27945, 4, -47.2455, -11.987, 29.3593, 13.665, 67.2653, -166.554
5.28145, 4, -47.2455, -11.987, 29.3593, 13.665, 67.2653, -166.554
5.2881, 4, -47.2454, -11.987, 29.3593, 13.665, 67.2653, -166.553
5.29959, 4, -47.2454, -11.9869, 29.3593, 13.665, 67.2653, -166.554
5.30386, 4, -47.2453, -11.9869, 29.3593, 13.665, 67.2653, -166.554
5.31432, 4, -47.2453, -11.9869, 29.3593, 13.665, 67.2653, -166.553
5.32001, 4, -47.2453, -11.9869, 29.3593, 13.665, 67.2653, -166.553
5.33154, 4, -47.2453, -11.9868, 29.3593, 13.665, 67.2653, -166.553
5.33672, 4, -47.2453, -11.9868, 29.3593, 13.665, 67.2653, -166.553
5.34475, 4, -47.2453, -11.9868, 29.3593, 13.665, 67.2653, -166.553
5.35234, 4, -47.2452, -11.9867, 29.3593, 13.665, 67.2653, -166.553
5.3616, 4, -47.2451, -11.9867, 29.3593, 13.6649, 67.2653, -166.553
5.36832, 4, -47.2451, -11.9867, 29.3593, 13.6649, 67.2653, -166.553
5.37838, 4, -47.245, -11.9867, 29.3593, 13.6648, 67.2653, -166.553
5.38445, 4, -47.245, -11.9867, 29.3593, 13.6649, 67.2653, -166.553
5.39253, 4, -47.2449, -11.9867, 29.3593, 13.6649, 67.2654, -166.553
5.40266, 4, -47.2449, -11.9867, 29.3593, 13.6649, 67.2653, -166.553
5.40844, 4, -47.2451, -11.9867, 29.3593, 13.6649, 67.2654, -166.553
5.41786, 4, -47.246, -11.9872, 29.3597, 13.665, 67.2654, -166.553
5.42495, 4, -47.2482, -11.9889, 29.3616, 13.6667, 67.266, -166.553
5.43546, 4, -47.2524, -11.9933, 29.3671, 13.6765, 67.2683, -166.552
5.44096, 4, -47.2555, -11.997, 29.3723, 13.6866, 67.2747, -166.548
5.44979, 4, -47.271, -12.0173, 29.4044, 13.7504, 67.2882, -166.537
5.45867, 5, -47.289, -12.0415, 29.4472, 13.8381, 67.3127, -166.518
5.46607, 5, -47.3157, -12.077, 29.514, 13.9779, 67.3523, -166.486
5.47176, 5, -47.333, -12.0994, 29.5586, 14.0721, 67.3783, -166.464
5.48079, 5, -47.3762, -12.1548, 29.6732, 14.4698, 67.488, -166.372
5.48774, 5, -47.4322, -12.225, 29.824, 14.6437, 67.5353, -166.333
5.49966, 5, -47.5398, -12.3586, 30.1223, 15.2908, 67.7093, -166.184
5.50374, 5, -47.5818, -12.4107, 30.2407, 15.5459, 67.7773, -166.126
5.5117, 5, -47.6744, -12.525, 30.5027, 16.1065, 67.9251, -165.999
5.52317, 5, -47.8311, -12.7192, 30.9507, 17.0453, 68.1689, -165.789
5.52943, 5, -47.9447, -12.8607, 31.2768, 17.7151, 68.3392, -165.641
5.53768, 5, -48.0629, -13.009, 31.6177, 18.4023, 68.5106, -165.492
5.54378, 5, -48.1231, -13.0847, 31.7914, 18.7492, 68.5959, -165.418
5.55169, 5, -48.2441, -13.2372, 32.143, 19.4432, 68.7644, -165.27
5.56333, 5, -48.4222, -13.4612, 32.6717, 20.4635, 69.0094, -165.049
5.56955, 5, -48.4788, -13.5332, 33.0179, 21.1165, 69.1686, -164.893
5.57889, 6, -48.6329, -13.7351, 33.3517, 21.7337, 69.3272, -164.715
5.58382, 6, -48.6771, -13.7967, 33.5125, 22.0265, 69.4069, -164.615
5.59276, 7, -48.752, -13.9128, 33.8187, 22.577, 69.5692, -164.381
5.5997, 7, -48.8065, -14.021, 34.1032, 23.077, 69.7364, -164.094
5.60901, 7, -48.8394, -14.1214, 34.3653, 23.5274, 69.9092, -163.749
5.61578, 8, -48.8508, -14.2122, 34.6065, 23.9333, 70.0882, -163.345
5.62368, 8, -48.8436, -14.2932, 34.8318, 24.3035, 70.2725, -162.885
5.63597, 9, -48.8046, -14.4007, 35.1488, 24.8148, 70.5603, -162.108
5.63971, 9, -48.7854, -14.4337, 35.251, 24.9788, 70.6596, -161.831
5.64932, 10, -48.7397, -14.4969, 35.4548, 25.305, 70.8638, -161.255
5.65909, 10, -48.6543, -14.5893, 35.7627, 25.8004, 71.1854, -160.353
5.6673, 10, -48.6218, -14.6203, 35.8662, 26.1404, 71.409, -159.734
5.67168, 11, -48.5524, -14.6826, 36.075, 26.314, 71.523, -159.421
5.68148, 11, -48.4783, -14.7452, 36.2858, 26.6683, 71.7544, -158.792
5.68773, 12, -48.4008, -14.8085, 36.496, 27.032, 71.9894, -158.157
5.6958, 12, -48.3218, -14.8714, 36.7048, 27.4044, 72.227, -157.518
5.70474, 13, -48.2426, -14.9319, 36.9125, 27.7851, 72.4669, -156.874
5.71177, 13, -48.1624, -14.9904, 37.1184, 28.1737, 72.7094, -156.226
5.72293, 14, -48.0371, -15.0786, 37.4244, 28.7691, 73.0779, -155.246
5.73248, 14, -47.9488, -15.1386, 37.6276, 29.172, 73.3258, -154.592
5.7357, 15, -47.9034, -15.1685, 37.7284, 29.3743, 73.4498, -154.266
5.74379, 15, -47.8091, -15.2273, 37.9286, 29.7794, 73.697, -153.614
5.75184, 16, -47.7085, -15.2858, 38.1274, 30.1834, 73.9419, -152.966
5.75992, 16, -47.6008, -15.3457, 38.3241, 30.5847, 74.1828, -152.324
5.76789, 17, -47.4871, -15.4075, 38.5171, 30.9822, 74.4188, -151.687
5.77581, 17, -47.3687, -15.4705, 38.7068, 31.3748, 74.6482, -151.056
5.78548, 18, -47.2453, -15.534, 38.894, 31.7629, 74.8714, -150.432
5.79535, 18, -47.1167, -15.5991, 39.0782, 32.1471, 75.0886, -149.512
5.802, 19, -46.9825, -15.6671, 39.2598, 32.529, 75.3005, -149.208
5.80792, 19, -46.8427, -15.7382, 39.4404, 32.9098, 75.5077, -148.605
5.81611, 20, -46.6978, -15.8112, 39.6198, 33.2894, 75.7106, -148.01
5.82391, 20, -46.5483, -15.8853, 39.7967, 33.6684, 75.9094, -147.422
5.83202, 21, -46.3946, -15.961, 39.9712, 34.0466, 76.1042, -146.839
5.84278, 22, -46.2366, -16.0387, 40.144, 34.4244, 76.2951, -146.263
5.84816, 22, -46.0743, -16.1185, 40.3147, 34.8008, 76.4819, -145.693
5.8574, 22, -45.9072, -16.1996, 40.482, 35.175, 76.6646, -145.129
5.86894, 23, -45.6461, -16.324, 40.7278, 35.7303, 76.9297, -144.292
5.87496, 24, -45.5556, -16.3666, 40.8084, 35.9133, 77.0155, -144.016
5.8804, 24, -45.3687, -16.4541, 40.9665, 36.2751, 77.1827, -143.468
5.88892, 25, -45.1745, -16.5434, 41.1202, 36.6296, 77.3435, -142.925
5.89648, 25, -44.9738, -16.6331, 41.27, 36.9752, 77.4972, -142.388
5.90447, 25, -44.7668, -16.7232, 41.4155, 37.3122, 77.6441, -141.856
5.91371, 26, -44.5526, -16.8147, 41.5562, 37.6406, 77.7851, -141.327
5.9204, 26, -44.331, -16.9075, 41.6915, 37.9609, 77.9216, -140.801
5.92975, 27, -44.1025, -17.0003, 41.821, 38.2737, 78.0537, -140.277
5.94054, 27, -43.8676, -17.0926, 42.0037, 38.7289, 78.2462, -139.492
5.9463, 28, -43.6255, -17.1842, 42.0613, 38.8768, 78.3087, -139.23
5.95374, 29, -43.3759, -17.2746, 42.1713, 39.1669, 78.432, -138.708
5.96135, 29, -43.1192, -17.363, 42.2746, 39.4491, 78.5528, -138.186
5.96772, 29, -42.9885, -17.4064, 42.3236, 39.5872, 78.6118, -137.925
5.97567, 30, -42.722, -17.4914, 42.4162, 39.857, 78.7278, -137.403
5.98604, 31, -42.3076, -17.6146, 42.5417, 40.2462, 78.8968, -136.621
5.99179, 31, -42.1654, -17.6543, 42.58, 40.3716, 78.9516, -136.361
6.00154, 31, -41.728, -17.77, 42.6846, 40.7352, 79.1125, -135.581
6.01165, 32, -41.4278, -17.8443, 42.7459, 40.9671, 79.2164, -135.062
6.01836, 33, -41.1211, -17.9159, 42.8002, 41.1908, 79.318, -134.544
6.0238, 33, -40.9653, -17.9504, 42.8246, 41.2997, 79.3679, -134.285
6.03162, 33, -40.6485, -18.0172, 42.8682, 41.5115, 79.4657, -133.768
6.04362, 34, -40.1624, -18.1121, 42.9199, 41.8136, 79.6072, -132.995
6.04935, 34, -39.9979, -18.1425, 42.9334, 41.9103, 79.6532, -132.737
6.05814, 35, -39.4962, -18.2287, 42.9635, 42.1891, 79.7873, -131.968
6.06591, 36, -39.1539, -18.2818, 42.9747, 42.3655, 79.874, -131.456
6.07515, 36, -38.8041, -18.3316, 42.979, 42.534, 79.9582, -130.945
6.07971, 36, -38.6266, -18.3553, 42.9787, 42.6155, 79.9997, -130.69
6.08774, 37, -38.2671, -18.4001, 42.973, 42.7728, 80.0807, -130.181
6.09575, 37, -37.902, -18.4412, 42.9603, 42.9224, 80.1602, -129.675
6.10687, 38, -37.345, -18.4961, 42.9288, 43.1332, 80.2748, -128.917
6.11265, 38, -37.157, -18.5128, 42.9151, 43.1997, 80.3122, -128.665
6.12058, 39, -36.7775, -18.5436, 42.8823, 43.3271, 80.3845, -128.163
6.12768, 39, -36.3935, -18.5706, 42.8429, 43.4473, 80.4556, -127.664
6.13618, 40, -36.0036, -18.5939, 42.7969, 43.5602, 80.5244, -127.165
6.14368, 40, -35.6076, -18.6133, 42.7444, 43.666, 80.5919, -126.669
6.15581, 41, -35.003, -18.6351, 42.6533, 43.8107, 80.6883, -125.928
6.16071, 42, -34.799, -18.6406, 42.6198, 43.8556, 80.7199, -125.682
6.16917, 42, -34.3882, -18.6491, 42.5478, 43.9398, 80.7812, -125.192
6.17672, 43, -33.9745, -18.6543, 42.4695, 44.017, 80.84, -124.705
6.1838, 43, -33.5575, -18.6564, 42.3851, 44.0867, 80.8982, -124.219
6.19171, 43, -33.1357, -18.6551, 42.2949, 44.1498, 80.9535, -123.736
6.19968, 44, -32.708, -18.65, 42.1989, 44.2055, 81.008, -123.255
6.20776, 44, -32.2738, -18.6411, 42.0972, 44.2536, 81.0608, -122.777
6.21769, 45, -31.8335, -18.6284, 41.9895, 44.295, 81.1112, -122.301
6.22367, 45, -31.3889, -18.6122, 41.8759, 44.3289, 81.1609, -121.828
6.23182, 46, -30.9419, -18.5926, 41.7561, 44.3549, 81.2085, -121.356
6.24387, 47, -30.2671, -18.5563, 41.5658, 44.3794, 81.2762, -120.654
6.24771, 47, -30.0402, -18.5421, 41.4993, 44.3838, 81.2987, -120.421
6.25719, 48, -29.5818, -18.5102, 41.3621, 44.3878, 81.3424, -119.956
6.26472, 48, -29.1168, -18.4741, 41.2188, 44.384, 81.3844, -119.493
6.27829, 49, -28.6458, -18.4336, 41.0693, 44.3713, 81.4471, -118.803
6.28089, 49, -28.1705, -18.3887, 40.914, 44.35, 81.468, -118.573
6.28927, 50, -27.6929, -18.3393, 40.7526, 44.3192, 81.5087, -118.115
6.29579, 50, -27.2127, -18.2852, 40.5847, 44.2784, 81.5493, -117.658
6.30471, 51, -26.7279, -18.2256, 40.4103, 44.2293, 81.5912, -117.202
6.31186, 51, -26.2356, -18.1604, 40.2295, 44.1701, 81.6337, -116.746
6.31992, 51, -25.7355, -18.0897, 40.0418, 44.1011, 81.6761, -116.292
6.32956, 52, -25.2299, -18.0136, 39.8464, 44.0222, 81.7196, -115.838
6.33598, 52, -24.7216, -17.9323, 39.6446, 43.9326, 81.7644, -115.385
6.34846, 53, -24.2112, -17.8453, 39.4366, 43.7796, 81.8317, -114.706
6.35278, 54, -23.6965, -17.7523, 39.2208, 43.7234, 81.855, -114.481
6.36104, 54, -23.1749, -17.6528, 38.9976, 43.6031, 81.9035, -114.029
6.37317, 55, -22.3768, -17.4915, 38.6498, 43.4017, 81.9789, -113.351
6.37713, 55, -22.1077, -17.4347, 38.5297, 43.3286, 82.0056, -113.125
6.3887, 56, -21.2967, -17.2554, 38.1598, 43.0912, 82.0893, -112.447
6.39245, 56, -21.025, -17.1929, 38.0331, 43.0062, 82.1177, -112.221
6.4006, 56, -20.4778, -17.0637, 37.7743, 42.8275, 82.1767, -111.77
6.40863, 57, -19.9219, -16.929, 37.5094, 42.6377, 82.237, -111.319
6.4186, 58, -19.3569, -16.7881, 37.2378, 42.4361, 82.2984, -110.869
6.42437, 58, -18.7857, -16.6409, 36.9599, 42.2222, 82.3621, -110.419
6.43333, 59, -18.2117, -16.4878, 36.6758, 41.9959, 82.4268, -109.969
6.44034, 59, -17.9239, -16.4093, 36.531, 41.8781, 82.4606, -109.52
6.44857, 59, -17.3443, -16.249, 36.2366, 41.5046, 82.5652, -109.07
6.46475, 60, -16.1564, -15.9143, 35.4733, 40.9604, 82.7133, -108.171
6.46672, 61, -15.8545, -15.8272, 35.4733, 40.9604, 82.7133, -108.171
6.47332, 61, -15.5516, -15.739, 35.3164, 40.8159, 82.7516, -107.946
6.47971, 61, -14.9443, -15.5595, 34.9984, 40.5179, 82.8295, -107.498
6.49191, 62, -14.0249, -15.2821, 34.5118, 40.0474, 82.9501, -106.824
6.49573, 63, -13.7139, -15.1869, 34.3475, 39.8844, 82.991, -106.6
6.5056, 63, -13.0847, -14.9913, 34.0155, 39.5481, 83.0751, -105.925
6.51347, 64, -12.1274, -14.6868, 33.508, 39.0176, 83.2065, -105.475
6.52216, 64, -11.4833, -14.4771, 33.1619, 38.6461, 83.2988, -105.024
6.5311, 65, -10.8321, -14.2605, 32.8096, 38.2591, 83.396, -104.571
6.53613, 65, -10.5025, -14.1495, 32.6307, 38.0596, 83.4467, -104.344
6.54369, 66, -9.83513, -13.9224, 32.2687, 37.647, 83.5522, -103.888
6.55328, 66, -9.15861, -13.6887, 31.7162, 36.9957, 83.7218, -103.2
6.56175, 67, -8.13423, -13.3244, 31.3404, 36.5398, 83.8422, -102.739
6.5686, 67, -7.78983, -13.1993, 31.1499, 36.3057, 83.9048, -102.508
6.57618, 67, -7.09437, -12.9437, 30.7649, 35.8257, 84.0356, -102.045
6.58368, 68, -6.39041, -12.6806, 30.3755, 35.3302, 84.1729, -101.58
6.59171, 69, -5.68014, -12.4123, 29.9826, 34.8219, 84.3171, -101.114
6.59973, 69, -4.96568, -12.1377, 29.5862, 34.3009, 84.4671, -100.646
6.6126, 70, -3.8817, -11.7131, 28.9881, 33.4996, 84.702, -99.9419
6.61565, 70, -3.51594, -11.568, 28.7889, 33.2266, 84.7826, -99.7063
6.62662, 71, -2.40655, -11.1196, 28.1913, 32.3882, 85.0327, -98.9966
6.63172, 71, -2.03321, -10.9666, 27.9912, 32.1018, 85.1192, -98.7591
6.64041, 71, -1.28042, -10.6557, 27.5893, 31.5171, 85.2988, -98.2811
6.64765, 72, -0.520039, -10.3385, 27.1845, 30.9153, 85.4876, -97.7995
6.65578, 73, 0.246455, -10.0156, 26.7773, 30.2966, 85.6856, -97.3149
6.66765, 73, 1.40584, -9.51693, 26.1634, 29.3446, 85.9992, -96.5832
6.67274, 74, 1.7947, -9.3472, 25.9584, 29.0217, 86.1079, -96.3386
6.6831, 74, 2.96646, -8.82931, 25.3468, 28.0407, 86.4456, -95.6021
6.6891, 75, 3.35816, -8.65428, 25.145, 27.7104, 86.5615, -95.3561
6.69572, 75, 4.1428, -8.29921, 24.7452, 27.0455, 86.7979, -94.8632
6.70374, 75, 4.9289, -7.93906, 24.3501, 26.3794, 87.0397, -94.3704
6.72396, 77, 6.89177, -7.01404, 23.3886, 24.7152, 87.668, -93.1342
6.72568, 77, 6.89177, -7.01404, 23.3886, 24.7152, 87.668, -93.1342
6.73727, 77, 8.06899, -6.43603, 22.8276, 23.7205, 88.0658, -92.3915
6.73954, 78, 8.46173, -6.23823, 22.6425, 23.3879, 88.2034, -92.1435
6.74553, 78, 8.85468, -6.03803, 22.4583, 23.0539, 88.3439, -91.8948
6.75175, 78, 9.64122, -5.63208, 22.0926, 22.3814, 88.6348, -91.395
6.75966, 79, 10.4294, -5.21961, 21.729, 21.7021, 88.9397, -90.8905
6.7676, 79, 11.2181, -4.80079, 21.3673, 21.0178, 89.2583, -90.3804
6.77567, 80, 12.0044, -4.37229, 21.0087, 20.3303, 89.5881, -89.8645
6.78368, 80, 12.7844, -3.93302, 20.655, 19.6455, 89.9277, -89.3413
6.79163, 81, 13.5575, -3.48545, 20.3074, 18.9701, 90.2748, -88.8121
6.79968, 81, 14.3246, -3.03107, 19.9677, 18.3087, 90.6278, -88.2781
6.80849, 82, 15.0844, -2.56917, 19.6384, 17.6633, 90.9846, -87.7411
6.81555, 82, 15.836, -2.09944, 19.3196, 17.035, 91.3454, -87.2016
6.82433, 83, 16.5771, -1.62245, 19.0103, 16.425, 91.7103, -86.6604
6.83165, 83, 17.3062, -1.14034, 18.7101, 15.8334, 92.0809, -86.1182
6.83965, 84, 18.0221, -0.653604, 18.4181, 15.2583, 92.4577, -85.577
6.84777, 84, 18.7224, -0.16286, 18.134, 14.7016, 92.8422, -85.0367
6.8564, 85, 19.4052, 0.332483, 17.8555, 14.1635, 93.2346, -84.4977
6.86395, 85, 20.0691, 0.833548, 17.5833, 13.6448, 93.6355, -83.9607
6.87196, 85, 20.715, 1.33966, 17.3174, 13.146, 94.0431, -83.4257
6.88012, 86, 21.3451, 1.85015, 17.0576, 12.6671, 94.456, -82.8919
6.88801, 86, 21.9616, 2.36728, 16.8049, 12.2085, 94.8748, -82.3568
6.89662, 87, 22.5664, 2.89444, 16.5572, 11.7692, 95.3, -81.8184
6.90449, 87, 23.1607, 3.43189, 16.3137, 11.3483, 95.7322, -81.2757
6.91205, 88, 23.4544, 3.9767, 16.0735, 10.9435, 96.1719, -80.727
6.92017, 88, 24.3202, 4.52854, 15.8357, 10.5542, 96.6185, -80.1692
6.92847, 89, 24.8838, 5.0906, 15.603, 10.1801, 97.0719, -79.6018
6.93551, 89, 25.1619, 5.37611, 15.4887, 9.99885, 97.3009, -79.3138
6.94354, 89, 25.7134, 5.95535, 15.2626, 9.64847, 97.7628, -78.7294
6.95155, 90, 26.2613, 6.54439, 15.0406, 9.31386, 98.229, -78.1318
6.9595, 90, 26.8018, 7.14227, 14.8244, 8.99572, 98.7, -77.5203
6.9676, 91, 27.3296, 7.74921, 14.6138, 8.69574, 99.1759, -76.8958
6.97553, 91, 27.8448, 8.36704, 14.408, 8.41423, 99.657, -76.2593
6.9835, 92, 28.3506, 8.99538, 14.2066, 8.15375, 100.143, -75.6107
6.99149, 92, 28.8499, 9.63354, 14.0095, 7.91411, 100.634, -74.9526
6.99959, 93, 29.3404, 10.2795, 13.8173, 7.69646, 101.129, -74.2876
7.00751, 93, 29.8187, 10.9322, 13.6315, 7.50116, 101.625, -73.6142
7.0155, 94, 30.2828, 11.5894, 13.4528, 7.32889, 102.12, -72.9339
7.02358, 94, 30.7322, 12.2501, 13.2802, 7.17993, 102.615, -72.2487
7.03154, 95, 31.168, 12.9135, 13.1146, 7.05417, 103.106, -71.558
7.03957, 95, 31.5903, 13.5792, 12.9569, 6.95214, 103.595, -70.8606
7.04756, 96, 31.9983, 14.2467, 12.8062, 6.87328, 104.08, -70.1587
7.05571, 97, 32.3903, 14.9157, 12.6616, 6.81904, 104.561, -69.4515
7.06356, 97, 32.7663, 15.5858, 12.5237, 6.78639, 105.038, -68.7377
7.07344, 98, 33.1269, 16.5881, 12.3312, 6.77731, 105.742, -67.6602
7.07949, 98, 33.4727, 16.9204, 12.2713, 6.78544, 105.973, -67.2995
7.08759, 98, 33.8041, 17.5811, 12.158, 6.81695, 106.428, -66.5751
7.09786, 99, 34.2759, 18.5603, 12.0057, 6.90132, 107.092, -65.4897
7.10349, 99, 34.4272, 18.8828, 11.9597, 6.93918, 107.306, -65.1289
7.11149, 100, 34.7217, 19.5206, 11.8749, 7.02779, 107.726, -64.4086
7.11959, 100, 35.0045, 20.1487, 11.7994, 7.13421, 108.13, -63.6939
7.12757, 101, 35.2741, 20.7658, 11.7324, 7.25639, 108.518, -62.9877
7.1355, 101, 35.531, 21.3717, 11.674, 7.393, 108.889, -62.2888
7.14356, 102, 35.7751, 21.9647, 11.6242, 7.54152, 109.243, -61.6007
7.15149, 102, 36.006, 22.5437, 11.5826, 7.69995, 109.58, -60.9258
7.15949, 103, 36.226, 23.1076, 11.5492, 7.86626, 109.901, -60.263
7.16761, 103, 36.4386, 23.6565, 11.5239, 8.03966, 110.206, -59.6126
7.17549, 103, 36.6451, 24.1904, 11.5074, 8.22063, 110.494, -58.9758
7.18351, 104, 36.8451, 24.7089, 11.499, 8.40987, 110.765, -58.3508
7.19156, 104, 37.039, 25.2116, 11.4973, 8.60838, 111.016, -57.7362
7.19954, 104, 37.2267, 25.6993, 11.502, 8.81579, 111.249, -57.1321
7.20756, 104, 37.4052, 26.1709, 11.5121, 9.03071, 111.461, -56.5401
7.21556, 104, 37.5729, 26.6266, 11.5256, 9.25181, 111.657, -55.9599
7.22349, 104, 37.7322, 27.0674, 11.5419, 9.47608, 111.837, -55.395
7.2316, 104, 37.8869, 27.4935, 11.561, 9.70034, 112.004, -54.8484
7.23949, 104, 38.0387, 27.9042, 11.5813, 9.92235, 112.161, -54.3237
7.2475, 104, 38.1864, 28.2983, 11.602, 10.1401, 112.309, -53.8213
7.25564, 104, 38.3285, 28.6762, 11.6219, 10.3524, 112.449, -53.3422
7.26367, 104, 38.4641, 29.0369, 11.6406, 10.5579, 112.58, -52.8878
7.27163, 104, 38.5921, 29.3795, 11.6583, 10.7559, 112.704, -52.4577
7.2801, 104, 38.7118, 29.7033, 11.675, 10.9454, 112.821, -52.0531
7.2876, 104, 38.8229, 30.0078, 11.6904, 11.126, 112.929, -51.673
7.2956, 104, 38.926, 30.2941, 11.7049, 11.2968, 113.03, -51.3179
7.30368, 104, 39.0214, 30.5608, 11.7182, 11.4576, 113.124, -50.9887
7.31155, 104, 39.1091, 30.8076, 11.7302, 11.6079, 113.21, -50.6845
7.31952, 104, 39.1888, 31.0351, 11.7411, 11.7471, 113.288, -50.4056
7.3276, 104, 39.2605, 31.2427, 11.7511, 11.8749, 113.36, -50.1519
7.33563, 104, 39.324, 31.4304, 11.7604, 11.9909, 113.424, -49.9235
7.34367, 104, 39.3798, 31.5989, 11.7686, 12.0952, 113.481, -49.7203
7.35214, 104, 39.4289, 31.748, 11.7759, 12.187, 113.531, -49.5421
7.3598, 104, 39.4719, 31.8783, 11.7824, 12.2668, 113.573, -49.3887
7.36788, 104, 39.5093, 31.9912, 11.7884, 12.3345, 113.609, -49.2589
7.37634, 104, 39.5405, 32.0873, 11.7937, 12.391, 113.638, -49.1526
7.38403, 104, 39.5661, 32.1674, 11.7984, 12.4352, 113.662, -49.0672
7.39208, 104, 39.5868, 32.2334, 11.8026, 12.4696, 113.68, -49.0014
7.4001, 104, 39.603, 32.287, 11.8065, 12.4955, 113.692, -48.9532
7.40813, 104, 39.6155, 32.3295, 11.81, 12.5142, 113.701, -48.9192
7.41609, 104, 39.6252, 32.3619, 11.8132, 12.5271, 113.707, -48.8964
7.42421, 104, 39.6324, 32.386, 11.816, 12.5355, 113.711, -48.8823
7.43215, 104, 39.6351, 32.3958, 11.8172, 12.5404, 113.712, -48.8742
7.43948, 104, 39.6387, 32.411, 11.8194, 12.542, 113.713, -48.8719
7.44858, 105, 39.6415, 32.4248, 11.8217, 12.5445, 113.714, -48.8685
7.45548, 105, 39.6419, 32.4276, 11.8222, 12.5449, 113.714, -48.8681
7.46349, 105, 39.6417, 32.4317, 11.8232, 12.5453, 113.714, -48.8677
7.47161, 105, 39.6409, 32.4345, 11.8241, 12.5455, 113.714, -48.8675
7.47948, 105, 39.6399, 32.4365, 11.8249, 12.5457, 113.714, -48.8676
7.48748, 105, 39.6389, 32.4381, 11.8256, 12.5458, 113.714, -48.8678
7.49554, 105, 39.6377, 32.4395, 11.8261, 12.5458, 113.714, -48.8681
7.50353, 105, 39.6366, 32.4407, 11.8266, 12.5459, 113.714, -48.8684
7.51155, 105, 39.6359, 32.4419, 11.8272, 12.5459, 113.714, -48.8687
7.51954, 105, 39.6355, 32.4431, 11.8278, 12.5459, 113.714, -48.8689
7.52748, 105, 39.6353, 32.4442, 11.8284, 12.5458, 113.714, -48.8692
7.53553, 105, 39.6351, 32.4451, 11.8289, 12.5458, 113.714, -48.8695
7.54354, 105, 39.6349, 32.4459, 11.8293, 12.5458, 113.714, -48.8697
7.55151, 105, 39.6346, 32.4465, 11.8296, 12.5458, 113.714, -48.87
7.55959, 105, 39.6343, 32.4468, 11.8298, 12.5459, 113.714, -48.8702
7.56755, 105, 39.634, 32.447, 11.8301, 12.5459, 113.714, -48.8703
