hehonglu123/Motion-Primitive-Planning/ILC/recorded_data/realrobot/wood/iteration_2/run_1.csv
timestamp, cmd_num, J1, J2, J3, J4, J5, J6
0.000376, -1, 11.3757, 13.6139, 17.3368, -145.52, -97.9255, 142.516
0.004203, -1, 11.3757, 13.6139, 17.3368, -145.52, -97.9255, 142.516
0.007812, -1, 11.3757, 13.6139, 17.3368, -145.52, -97.9255, 142.516
0.030251, -1, 11.3757, 13.614, 17.3368, -145.52, -97.9255, 142.516
0.032769, -1, 11.3757, 13.614, 17.3368, -145.52, -97.9255, 142.516
0.034799, -1, 11.3757, 13.614, 17.3368, -145.521, -97.9255, 142.516
0.039628, -1, 11.3757, 13.614, 17.3368, -145.521, -97.9255, 142.516
0.047688, -1, 11.3757, 13.614, 17.3368, -145.521, -97.9255, 142.516
0.179227, -1, 10.3388, 13.3411, 17.4035, -145.843, -97.8154, 140.648
0.180654, -1, 10.3388, 13.3411, 17.4035, -145.843, -97.8154, 140.648
0.181843, -1, 10.3388, 13.3411, 17.4035, -145.843, -97.8154, 140.648
0.183871, -1, 10.2656, 13.3212, 17.4085, -145.867, -97.8072, 140.511
0.185076, -1, 10.2656, 13.3212, 17.4085, -145.867, -97.8072, 140.511
0.186976, -1, 10.1913, 13.3011, 17.4136, -145.891, -97.7989, 140.372
0.188433, -1, 10.1913, 13.3011, 17.4136, -145.891, -97.7989, 140.372
0.195246, -1, 10.0402, 13.2603, 17.4236, -145.938, -97.7822, 140.095
0.196614, -1, 10.0402, 13.2603, 17.4236, -145.938, -97.7822, 140.095
0.197977, -1, 10.0402, 13.2603, 17.4236, -145.938, -97.7822, 140.095
0.20165, -1, 9.96368, 13.2397, 17.4286, -145.962, -97.7736, 139.956
0.203717, -1, 9.88653, 13.219, 17.4336, -145.986, -97.765, 139.816
0.204944, -1, 9.88653, 13.219, 17.4336, -145.986, -97.765, 139.816
0.206141, -1, 9.88653, 13.219, 17.4336, -145.986, -97.765, 139.816
0.208204, -1, 9.80899, 13.1983, 17.4387, -146.01, -97.7564, 139.677
0.210328, -1, 9.80899, 13.1983, 17.4387, -146.01, -97.7564, 139.677
0.212414, -1, 9.73125, 13.1776, 17.4437, -146.034, -97.7477, 139.537
0.213617, -1, 9.73125, 13.1776, 17.4437, -146.034, -97.7477, 139.537
0.215694, -1, 9.6535, 13.1569, 17.4487, -146.058, -97.7392, 139.397
0.216926, -1, 9.6535, 13.1569, 17.4487, -146.058, -97.7392, 139.397
0.218202, -1, 9.6535, 13.1569, 17.4487, -146.058, -97.7392, 139.397
0.224098, -1, 9.49826, 13.1157, 17.4587, -146.106, -97.7222, 139.118
0.231736, -1, 9.34354, 13.0745, 17.4686, -146.154, -97.7054, 138.838
0.239811, -1, 9.18913, 13.0333, 17.4785, -146.202, -97.6886, 138.559
0.249708, -1, 9.03518, 12.9923, 17.4885, -146.25, -97.672, 138.279
0.256642, -1, 8.88142, 12.9512, 17.4986, -146.298, -97.6551, 137.999
0.263708, -1, 8.72778, 12.9103, 17.5089, -146.346, -97.6379, 137.72
0.272475, -1, 8.57471, 12.8691, 17.5189, -146.393, -97.6205, 137.44
0.279847, -1, 8.42202, 12.8279, 17.529, -146.442, -97.6029, 137.159
0.287833, -1, 8.26904, 12.7866, 17.5392, -146.489, -97.5856, 136.879
0.296662, -1, 8.11558, 12.745, 17.5493, -146.537, -97.5686, 136.599
0.304018, -1, 7.96168, 12.7034, 17.5595, -146.586, -97.5519, 136.319
0.310606, -1, 7.88447, 12.6826, 17.5646, -146.609, -97.5435, 136.179
0.320922, -1, 7.6522, 12.6199, 17.5797, -146.681, -97.5186, 135.759
0.328222, -1, 7.49725, 12.5783, 17.5899, -146.729, -97.5018, 135.479
0.336209, -1, 7.3422, 12.5368, 17.6001, -146.777, -97.4846, 135.198
0.344336, -1, 7.18726, 12.4952, 17.6103, -146.825, -97.4673, 134.918
0.35235, -1, 7.0322, 12.4537, 17.6206, -146.874, -97.45, 134.638
0.360227, -1, 6.9546, 12.4331, 17.6257, -146.922, -97.433, 134.358
0.367601, -1, 6.79952, 12.3919, 17.636, -146.945, -97.4245, 134.217
0.375663, -1, 6.64469, 12.3505, 17.6464, -146.994, -97.4077, 133.937
0.383611, -1, 6.49011, 12.3093, 17.6568, -147.042, -97.391, 133.656
0.391602, -1, 6.33573, 12.268, 17.6672, -147.09, -97.3742, 133.376
0.399653, -1, 6.18149, 12.2265, 17.6775, -147.138, -97.3572, 133.096
0.407609, -1, 6.02716, 12.185, 17.6877, -147.186, -97.34, 132.815
0.415614, -1, 5.87259, 12.1435, 17.698, -147.234, -97.3224, 132.534
0.423602, -1, 5.71791, 12.1019, 17.7083, -147.282, -97.3048, 132.254
0.43165, -1, 5.56302, 12.0601, 17.7185, -147.33, -97.2876, 131.973
0.439661, -1, 5.40789, 12.0185, 17.7288, -147.378, -97.2706, 131.692
0.447607, -1, 5.25255, 11.9768, 17.7391, -147.427, -97.2538, 131.411
0.45562, -1, 5.09693, 11.9351, 17.7495, -147.475, -97.2371, 131.13
0.463666, -1, 4.94111, 11.8935, 17.76, -147.523, -97.2202, 130.849
0.471603, -1, 4.78541, 11.8519, 17.7704, -147.571, -97.2031, 130.568
0.479625, -1, 4.62967, 11.8103, 17.7809, -147.619, -97.1857, 130.287
0.487677, -1, 4.47396, 11.7689, 17.7913, -147.667, -97.1683, 130.006
0.497208, -1, 4.31843, 11.7274, 17.8017, -147.716, -97.151, 129.725
0.503608, -1, 4.1631, 11.6859, 17.8122, -147.764, -97.1339, 129.444
0.511666, -1, 4.00828, 11.6445, 17.8225, -147.812, -97.1169, 129.163
0.519601, -1, 3.85383, 11.603, 17.8328, -147.861, -97.1, 128.882
0.527621, -1, 3.6995, 11.5614, 17.8432, -147.909, -97.0832, 128.601
0.53568, -1, 3.54504, 11.5198, 17.8535, -147.957, -97.0662, 128.319
0.543601, -1, 3.39039, 11.4781, 17.8639, -148.006, -97.0488, 128.037
0.551602, -1, 3.23546, 11.4363, 17.8744, -148.054, -97.0312, 127.756
0.559661, -1, 3.0803, 11.3945, 17.8848, -148.102, -97.0137, 127.475
0.567599, -1, 2.925, 11.3527, 17.8952, -148.15, -96.9965, 127.193
0.575621, -1, 2.76945, 11.3109, 17.9054, -148.199, -96.9795, 126.911
0.583666, -1, 2.61358, 11.2691, 17.9158, -148.246, -96.9627, 126.63
0.591599, -1, 2.4575, 11.2274, 17.9263, -148.295, -96.946, 126.348
0.59972, -1, 2.30112, 11.1857, 17.9367, -148.344, -96.9291, 126.066
0.607667, -1, 2.14446, 11.1439, 17.9471, -148.391, -96.9119, 125.784
0.615608, -1, 1.98772, 11.1022, 17.9575, -148.44, -96.8946, 125.502
0.623606, -1, 1.83114, 11.0606, 17.9678, -148.489, -96.8771, 125.221
0.63166, -1, 1.67472, 11.0189, 17.9783, -148.537, -96.8597, 124.938
0.770187, -1, -0.976248, 10.3082, 18.1556, -149.361, -96.5683, 120.135
0.772243, -1, -1.0549, 10.2873, 18.1607, -149.385, -96.5598, 119.994
0.773485, -1, -1.0549, 10.2873, 18.1607, -149.385, -96.5598, 119.994
0.774744, -1, -1.0549, 10.2873, 18.1607, -149.385, -96.5598, 119.994
0.776752, -1, -1.13351, 10.2663, 18.1659, -149.409, -96.5513, 119.852
0.778123, -1, -1.13351, 10.2663, 18.1659, -149.409, -96.5513, 119.852
0.782372, -1, -1.21209, 10.2454, 18.1711, -149.434, -96.5429, 119.711
0.785675, -1, -1.29058, 10.2245, 18.1763, -149.458, -96.5345, 119.569
0.78691, -1, -1.29058, 10.2245, 18.1763, -149.458, -96.5345, 119.569
0.788997, -1, -1.36902, 10.2035, 18.1814, -149.483, -96.5261, 119.427
0.790197, -1, -1.36902, 10.2035, 18.1814, -149.483, -96.5261, 119.427
0.792291, -1, -1.44744, 10.1826, 18.1866, -149.507, -96.5178, 119.286
0.793586, -1, -1.44744, 10.1826, 18.1866, -149.507, -96.5178, 119.286
0.794812, -1, -1.44744, 10.1826, 18.1866, -149.507, -96.5178, 119.286
0.796873, -1, -1.5258, 10.1617, 18.1918, -149.531, -96.5094, 119.144
0.798371, -1, -1.5258, 10.1617, 18.1918, -149.531, -96.5094, 119.144
0.800484, -1, -1.60405, 10.1408, 18.1971, -149.555, -96.5009, 119.003
0.801723, -1, -1.60405, 10.1408, 18.1971, -149.555, -96.5009, 119.003
0.80301, -1, -1.60405, 10.1408, 18.1971, -149.555, -96.5009, 119.003
0.806494, -1, -1.68217, 10.1199, 18.2024, -149.58, -96.4924, 118.861
0.808638, -1, -1.76017, 10.099, 18.2076, -149.604, -96.4839, 118.719
0.809923, -1, -1.76017, 10.099, 18.2076, -149.604, -96.4839, 118.719
0.817713, -1, -1.91586, 10.0571, 18.2181, -149.653, -96.4665, 118.436
0.824278, -1, -2.07124, 10.0152, 18.2285, -149.701, -96.4489, 118.152
0.832164, -1, -2.22638, 9.97327, 18.2389, -149.75, -96.4313, 117.869
0.840203, -1, -2.38163, 9.93139, 18.2492, -149.798, -96.414, 117.585
0.848232, -1, -2.53713, 9.88941, 18.2597, -149.847, -96.397, 117.301
0.85624, -1, -2.61499, 9.84745, 18.2701, -149.896, -96.3801, 117.017
0.864153, -1, -2.77099, 9.82648, 18.2753, -149.92, -96.3718, 116.734
0.872326, -1, -2.92741, 9.7845, 18.2858, -149.968, -96.3549, 116.45
0.879597, -1, -3.08421, 9.74254, 18.2961, -150.017, -96.338, 116.309
0.887591, -1, -3.24143, 9.70057, 18.3066, -150.066, -96.3205, 116.024
0.895653, -1, -3.39906, 9.65854, 18.317, -150.114, -96.3029, 115.741
0.9036, -1, -3.55686, 9.61655, 18.3275, -150.163, -96.2854, 115.457
0.911594, -1, -3.7147, 9.5747, 18.3379, -150.212, -96.2681, 115.173
0.919637, -1, -3.8727, 9.5327, 18.3483, -150.26, -96.251, 114.888
0.927613, -1, -4.03065, 9.49071, 18.3587, -150.31, -96.234, 114.604
0.935685, -1, -4.18852, 9.4488, 18.3691, -150.358, -96.217, 114.32
0.943596, -1, -4.34624, 9.40685, 18.3794, -150.407, -96.2, 114.035
0.951612, -1, -4.50372, 9.36483, 18.3897, -150.456, -96.1826, 113.75
0.959634, -1, -4.66066, 9.32281, 18.4001, -150.505, -96.1649, 113.466
0.96758, -1, -4.81723, 9.28076, 18.4106, -150.553, -96.1472, 113.181
0.975596, -1, -4.97345, 9.23868, 18.4211, -150.603, -96.1297, 112.896
0.983728, -1, -5.12946, 9.19665, 18.4316, -150.651, -96.1124, 112.611
0.991601, -1, -5.28535, 9.15453, 18.4422, -150.7, -96.0954, 112.327
1.0006, -1, -5.44138, 9.11233, 18.4527, -150.749, -96.0785, 112.042
1.00765, -1, -5.59759, 9.07023, 18.4631, -150.798, -96.0615, 111.757
1.01665, -1, -5.75411, 9.02811, 18.4736, -150.846, -96.0444, 111.472
1.02379, -1, -5.91104, 8.98588, 18.484, -150.895, -96.0269, 111.188
1.03265, -1, -6.06842, 8.94375, 18.4943, -150.944, -96.0093, 110.903
1.03959, -1, -6.22637, 8.90161, 18.5047, -150.993, -95.9917, 110.617
1.04838, -1, -6.38466, 8.85947, 18.5151, -151.042, -95.9744, 110.332
1.05559, -1, -6.54304, 8.81739, 18.5254, -151.091, -95.9574, 110.047
1.06359, -1, -6.70159, 8.77524, 18.536, -151.14, -95.9403, 109.762
1.07238, -1, -6.8603, 8.73307, 18.5465, -151.189, -95.9234, 109.476
1.07969, -1, -7.01882, 8.69099, 18.557, -151.238, -95.9063, 109.19
1.08758, -1, -7.17732, 8.64886, 18.5674, -151.287, -95.8888, 108.905
1.09644, -1, -7.33564, 8.60668, 18.5778, -151.336, -95.8711, 108.619
1.10363, -1, -7.49362, 8.5644, 18.5883, -151.385, -95.8534, 108.333
1.11159, -1, -7.65123, 8.52209, 18.5988, -151.434, -95.8358, 108.048
1.1204, -1, -7.80853, 8.4798, 18.6092, -151.483, -95.8186, 107.762
1.12758, -1, -7.96549, 8.43752, 18.6196, -151.532, -95.8016, 107.477
1.1356, -1, -8.1222, 8.39516, 18.63, -151.581, -95.7847, 107.191
1.14492, -1, -8.27872, 8.35284, 18.6405, -151.63, -95.7677, 106.905
1.1516, -1, -8.43545, 8.31048, 18.651, -151.679, -95.7505, 106.619
1.15966, -1, -8.59249, 8.26813, 18.6616, -151.728, -95.7329, 106.332
1.16758, -1, -8.74979, 8.22589, 18.6721, -151.778, -95.7152, 106.046
1.17559, -1, -8.90752, 8.18357, 18.6824, -151.826, -95.6976, 105.759
1.18376, -1, -9.06563, 8.14129, 18.6928, -151.875, -95.6804, 105.473
1.19162, -1, -9.22422, 8.09906, 18.7033, -151.925, -95.6632, 105.186
1.19966, -1, -9.38312, 8.05676, 18.7137, -151.974, -95.6461, 104.9
1.20797, -1, -9.5422, 8.01441, 18.7242, -152.023, -95.629, 104.613
1.21568, -1, -9.70134, 7.97219, 18.7347, -152.073, -95.6117, 104.326
1.22369, -1, -9.86054, 7.92996, 18.7451, -152.121, -95.5941, 104.039
1.23215, -1, -10.0199, 7.88757, 18.7559, -152.171, -95.5762, 103.752
1.2392, -1, -10.0995, 7.84514, 18.7665, -152.22, -95.5584, 103.465
1.24758, -1, -10.3382, 7.80265, 18.777, -152.269, -95.5409, 103.179
1.25636, -1, -10.4971, 7.76015, 18.7876, -152.319, -95.5237, 102.892
1.26375, -1, -10.6556, 7.7177, 18.798, -152.368, -95.5066, 102.605
1.27171, -1, -10.8137, 7.67516, 18.8085, -152.417, -95.4896, 102.318
1.28053, -1, -10.9716, 7.63257, 18.819, -152.466, -95.4725, 102.031
1.28775, -1, -11.1292, 7.59007, 18.8293, -152.516, -95.4551, 101.743
1.29585, -1, -11.2866, 7.54761, 18.8399, -152.565, -95.4374, 101.455
1.30473, -1, -11.4441, 7.50514, 18.8503, -152.615, -95.4196, 101.168
1.31209, -1, -11.6017, 7.46267, 18.8608, -152.664, -95.4019, 100.881
1.32009, -1, -11.7596, 7.42027, 18.8715, -152.713, -95.3846, 100.593
1.32914, -1, -11.918, 7.3779, 18.882, -152.762, -95.3673, 100.305
1.33616, -1, -12.0767, 7.33552, 18.8926, -152.812, -95.3501, 100.018
1.34417, -1, -12.2359, 7.29312, 18.9031, -152.861, -95.3329, 99.7297
1.35295, -1, -12.3954, 7.25072, 18.9136, -152.911, -95.3154, 99.4417
1.36168, -1, -12.4753, 7.2295, 18.9242, -152.96, -95.2976, 99.1538
1.3682, -1, -12.6352, 7.18712, 18.9294, -153.009, -95.2796, 98.866
1.37558, -1, -12.7952, 7.14465, 18.94, -153.034, -95.2707, 98.7221
1.38357, -1, -12.9553, 7.1021, 18.9505, -153.084, -95.253, 98.4339
1.39162, -1, -13.1153, 7.05948, 18.961, -153.133, -95.2356, 98.1457
1.39957, -1, -13.2751, 7.01685, 18.9716, -153.183, -95.2183, 97.8577
1.40757, -1, -13.4348, 6.97417, 18.9822, -153.232, -95.2012, 97.5694
1.41562, -1, -13.5941, 6.9314, 18.9928, -153.281, -95.184, 97.2806
1.42357, -1, -13.7533, 6.88866, 19.0033, -153.331, -95.1666, 96.9919
1.43159, -1, -13.9121, 6.84597, 19.0138, -153.38, -95.149, 96.7035
1.43968, -1, -14.0704, 6.80323, 19.0243, -153.429, -95.1312, 96.4149
1.44757, -1, -14.2287, 6.76059, 19.0349, -153.479, -95.1134, 96.126
1.45558, -1, -14.3869, 6.71793, 19.0453, -153.529, -95.096, 95.837
1.46357, -1, -14.5452, 6.67524, 19.0558, -153.578, -95.0788, 95.5481
1.47157, -1, -14.7038, 6.63269, 19.0664, -153.628, -95.0616, 95.2588
1.47964, -1, -14.8628, 6.59018, 19.077, -153.677, -95.0444, 94.9694
1.48758, -1, -15.0221, 6.54752, 19.0877, -153.726, -95.0269, 94.6804
1.49559, -1, -15.1819, 6.50492, 19.0985, -153.777, -95.0092, 94.3914
1.50457, -1, -15.342, 6.46235, 19.1091, -153.826, -94.9912, 94.1022
1.51157, -1, -15.5024, 6.41966, 19.1198, -153.875, -94.9733, 93.8128
1.51957, -1, -15.6631, 6.37697, 19.1303, -153.926, -94.9556, 93.5236
1.52764, -1, -15.8238, 6.33422, 19.1409, -153.975, -94.9383, 93.2345
1.53558, -1, -15.9846, 6.29134, 19.1516, -154.025, -94.9211, 92.9449
1.54356, -1, -16.1455, 6.24846, 19.1622, -154.075, -94.9039, 92.655
1.55163, -1, -16.3062, 6.20554, 19.1727, -154.124, -94.8866, 92.3656
1.55956, -1, -16.4667, 6.16251, 19.1832, -154.173, -94.8691, 92.076
1.56757, -1, -16.627, 6.11951, 19.1937, -154.223, -94.8513, 91.7858
1.57564, -1, -16.7869, 6.07654, 19.2043, -154.273, -94.8334, 91.4957
1.58359, -1, -16.9464, 6.03355, 19.215, -154.323, -94.8157, 91.2055
1.59163, -1, -17.1057, 5.99058, 19.2256, -154.373, -94.7982, 90.9153
1.59959, -1, -17.2648, 5.94763, 19.2362, -154.422, -94.7808, 90.6249
1.60761, -1, -17.4239, 5.90481, 19.2468, -154.472, -94.7636, 90.3346
1.61564, -1, -17.5832, 5.86204, 19.2575, -154.522, -94.7462, 90.0444
1.62356, -1, -17.7425, 5.81923, 19.2681, -154.571, -94.7286, 89.754
1.63156, -1, -17.9021, 5.77645, 19.2788, -154.622, -94.7106, 89.4636
1.63964, -1, -18.0622, 5.73367, 19.2894, -154.671, -94.6925, 89.1732
1.64758, -1, -18.2227, 5.69089, 19.3, -154.721, -94.6747, 88.8827
1.65559, -1, -18.3836, 5.64805, 19.3108, -154.771, -94.657, 88.5919
1.66365, -1, -18.545, 5.60508, 19.3214, -154.821, -94.6397, 88.3008
1.67158, -1, -18.7065, 5.56213, 19.3321, -154.871, -94.6224, 88.0101
1.67957, -1, -18.8681, 5.51913, 19.3427, -154.921, -94.6051, 87.7193
1.68763, -1, -19.0299, 5.47606, 19.3532, -154.971, -94.5876, 87.4282
1.69561, -1, -19.1914, 5.43288, 19.3639, -155.021, -94.5697, 87.1368
1.70372, -1, -19.3529, 5.38971, 19.3745, -155.071, -94.5517, 86.8455
1.71167, -1, -19.5142, 5.34653, 19.385, -155.12, -94.5336, 86.5539
1.71971, -1, -19.6752, 5.30328, 19.3957, -155.17, -94.5159, 86.2622
1.72767, -1, -19.8358, 5.26014, 19.4063, -155.221, -94.4983, 85.9703
1.73567, -1, -19.9962, 5.21692, 19.417, -155.27, -94.4809, 85.6788
1.74373, -1, -20.1562, 5.17379, 19.4278, -155.32, -94.4635, 85.3873
1.75222, -1, -20.316, 5.13087, 19.4387, -155.371, -94.446, 85.0955
1.75964, -1, -20.476, 5.08786, 19.4495, -155.421, -94.4281, 84.8036
1.7677, -1, -20.636, 5.04477, 19.4602, -155.471, -94.41, 84.5119
1.77658, -1, -20.7963, 5.00186, 19.4709, -155.521, -94.392, 84.2199
1.78372, -1, -20.957, 4.95887, 19.4816, -155.571, -94.3742, 83.9278
1.79192, -1, -21.1181, 4.91579, 19.4922, -155.621, -94.3567, 83.6357
1.80072, -1, -21.2796, 4.87273, 19.5029, -155.672, -94.3395, 83.3438
1.8079, -1, -21.4415, 4.82951, 19.5135, -155.722, -94.3223, 83.0516
1.81603, -1, -21.6037, 4.78624, 19.5242, -155.772, -94.3049, 82.759
1.82257, -1, -21.6847, 4.76465, 19.5296, -155.797, -94.2961, 82.6127
1.83211, -1, -21.9283, 4.69968, 19.5457, -155.872, -94.2693, 82.1738
1.84022, -1, -22.0909, 4.65629, 19.5565, -155.923, -94.2513, 81.8811
1.84896, -1, -22.2534, 4.61296, 19.5672, -155.973, -94.2335, 81.5882
1.85614, -1, -22.4157, 4.56954, 19.5778, -156.023, -94.2159, 81.2955
1.86423, -1, -22.4968, 4.52617, 19.5886, -156.074, -94.1984, 81.0029
1.87297, -1, -22.6587, 4.50446, 19.5939, -156.099, -94.1897, 80.7099
1.87955, -1, -22.8202, 4.46102, 19.6046, -156.148, -94.1722, 80.5633
1.8876, -1, -22.9815, 4.41765, 19.6153, -156.199, -94.1545, 80.2704
1.89557, -1, -23.1426, 4.37439, 19.6259, -156.249, -94.1365, 79.9774
1.90368, -1, -23.3036, 4.33108, 19.6367, -156.299, -94.1182, 79.6841
1.91156, -1, -23.4645, 4.28782, 19.6476, -156.35, -94.1, 79.3905
1.91956, -1, -23.6254, 4.24454, 19.6584, -156.4, -94.0821, 79.0972
1.9276, -1, -23.7865, 4.20127, 19.6692, -156.45, -94.0645, 78.8039
1.93558, -1, -23.9478, 4.15801, 19.6799, -156.501, -94.047, 78.5101
1.94361, -1, -24.1094, 4.11463, 19.6905, -156.552, -94.0296, 78.2163
1.95162, -1, -24.2716, 4.07123, 19.7013, -156.602, -94.012, 77.9225
1.95955, -1, -24.4343, 4.02783, 19.712, -156.652, -93.9942, 77.6286
1.96756, -1, -24.5972, 3.98432, 19.7226, -156.702, -93.9761, 77.3343
1.97562, -1, -24.7604, 3.94075, 19.7333, -156.753, -93.958, 77.04
1.98355, -1, -24.9238, 3.89721, 19.744, -156.804, -93.9402, 76.7461
1.99177, -1, -25.0872, 3.85368, 19.7549, -156.854, -93.9226, 76.452
1.99957, -1, -25.2505, 3.81012, 19.7658, -156.904, -93.9051, 76.1576
2.00855, -1, -25.4135, 3.76652, 19.7767, -156.955, -93.8876, 75.8633
2.01637, -1, -25.5763, 3.72285, 19.7874, -157.005, -93.8699, 75.569
2.02355, -1, -25.739, 3.67925, 19.7981, -157.055, -93.8519, 75.2744
2.03255, -1, -25.9015, 3.63583, 19.8089, -157.106, -93.8337, 74.9796
2.04038, -1, -26.0637, 3.59226, 19.8197, -157.156, -93.8153, 74.6849
2.04755, -1, -26.2255, 3.5488, 19.8305, -157.207, -93.7972, 74.3904
2.05556, -1, -26.387, 3.50541, 19.8412, -157.258, -93.7793, 74.0956
2.06435, -1, -26.5487, 3.46193, 19.852, -157.308, -93.7617, 73.8003
2.07155, -1, -26.7106, 3.41843, 19.8628, -157.359, -93.7441, 73.5053
2.07955, -1, -26.8729, 3.37493, 19.8737, -157.41, -93.7264, 73.2101
2.09144, -1, -27.117, 3.30948, 19.89, -157.486, -93.6993, 72.7668
2.09565, -1, -27.1984, 3.28769, 19.8954, -157.511, -93.6902, 72.6192
2.10357, -1, -27.3616, 3.24407, 19.9061, -157.561, -93.6719, 72.324
2.11167, -1, -27.5252, 3.20025, 19.9168, -157.612, -93.6538, 72.0286
2.11955, -1, -27.6891, 3.15652, 19.9277, -157.663, -93.6359, 71.733
2.12756, -1, -27.8531, 3.11288, 19.9384, -157.713, -93.6182, 71.4373
2.13562, -1, -28.0173, 3.06914, 19.9492, -157.764, -93.6005, 71.1418
2.14354, -1, -28.1816, 3.02543, 19.96, -157.815, -93.5827, 70.8461
2.15156, -1, -28.3459, 2.98173, 19.9708, -157.865, -93.5647, 70.55
2.15964, -1, -28.5099, 2.93799, 19.9817, -157.916, -93.5464, 70.2541
2.16758, -1, -28.6736, 2.89434, 19.9925, -157.967, -93.5279, 69.9582
2.17562, -1, -28.8371, 2.85064, 20.0033, -158.018, -93.5097, 69.6621
2.18355, -1, -29.0001, 2.80694, 20.0141, -158.069, -93.4917, 69.3655
2.19157, -1, -29.1629, 2.7633, 20.0248, -158.12, -93.474, 69.0691
2.19966, -1, -29.3256, 2.71961, 20.0357, -158.17, -93.4564, 68.7725
2.20765, -1, -29.4884, 2.6759, 20.0465, -158.222, -93.4387, 68.4756
2.21565, -1, -29.6512, 2.63212, 20.0573, -158.273, -93.4207, 68.1787
2.22371, -1, -29.8142, 2.58831, 20.0681, -158.323, -93.4024, 67.8821
2.23168, -1, -29.9772, 2.54457, 20.079, -158.375, -93.384, 67.5853
2.23966, -1, -30.1405, 2.50068, 20.09, -158.425, -93.3657, 67.2882
2.24774, -1, -30.3044, 2.45669, 20.101, -158.476, -93.3478, 66.9911
2.25555, -1, -30.4687, 2.41275, 20.1119, -158.527, -93.33, 66.6943
2.26358, -1, -30.6335, 2.3687, 20.1227, -158.578, -93.3122, 66.397
2.27166, -1, -30.7985, 2.32473, 20.1335, -158.629, -93.2944, 66.0996
2.2799, -1, -30.9635, 2.28078, 20.1444, -158.68, -93.2764, 65.8022
2.28775, -1, -31.1287, 2.2367, 20.1552, -158.731, -93.258, 65.505
2.29582, -1, -31.2937, 2.19276, 20.1661, -158.782, -93.2394, 65.2076
2.30382, -1, -31.4586, 2.14893, 20.1769, -158.833, -93.2211, 64.9098
2.31203, -1, -31.6232, 2.10492, 20.1877, -158.884, -93.2031, 64.6121
2.31993, -1, -31.7878, 2.06098, 20.1987, -158.936, -93.1853, 64.3141
2.32817, -1, -31.952, 2.01704, 20.2096, -158.987, -93.1677, 64.0161
2.33618, -1, -32.116, 1.97302, 20.2206, -159.038, -93.1501, 63.7179
2.34409, -1, -32.2796, 1.92905, 20.2315, -159.089, -93.1321, 63.4202
2.35213, -1, -32.4431, 1.88504, 20.2424, -159.14, -93.114, 63.1222
2.3602, -1, -32.6068, 1.84091, 20.2534, -159.191, -93.0956, 62.824
2.36897, -1, -32.6887, 1.81886, 20.2588, -159.217, -93.0773, 62.5257
2.37554, -1, -32.8526, 1.77481, 20.2697, -159.268, -93.0683, 62.3766
2.3836, -1, -33.0168, 1.73061, 20.2806, -159.319, -93.0504, 62.0782
2.39154, -1, -33.1813, 1.68635, 20.2915, -159.371, -93.0326, 61.7797
2.39954, -1, -33.3461, 1.64222, 20.3024, -159.422, -93.0148, 61.4809
2.40761, -1, -33.5113, 1.598, 20.3134, -159.473, -92.9969, 61.1824
2.41553, -1, -33.677, 1.55374, 20.3244, -159.525, -92.9786, 60.8835
2.4236, -1, -33.8427, 1.50954, 20.3353, -159.576, -92.96, 60.5844
2.43154, -1, -34.0086, 1.46534, 20.3461, -159.627, -92.9414, 60.2853
2.43956, -1, -34.1746, 1.42114, 20.3571, -159.678, -92.923, 59.9861
2.44765, -1, -34.3407, 1.377, 20.368, -159.73, -92.9049, 59.6866
2.45554, -1, -34.5067, 1.3328, 20.379, -159.781, -92.887, 59.3867
2.46355, -1, -34.6725, 1.28865, 20.3899, -159.833, -92.8693, 59.0874
2.47163, -1, -34.8377, 1.24447, 20.4008, -159.884, -92.8514, 58.7882
2.47956, -1, -35.0027, 1.20028, 20.4118, -159.935, -92.8332, 58.4886
2.48761, -1, -35.1674, 1.156, 20.4229, -159.987, -92.8146, 58.1887
2.49556, -1, -35.3319, 1.11169, 20.434, -160.038, -92.7961, 57.8891
2.50355, -1, -35.4959, 1.06754, 20.4451, -160.09, -92.7778, 57.5892
2.51257, -1, -35.6582, 1.0237, 20.4564, -160.141, -92.7597, 57.2894
2.51955, -1, -35.8177, 0.980449, 20.4679, -160.192, -92.7418, 56.9908
2.52754, -1, -35.9733, 0.938366, 20.4798, -160.243, -92.7241, 56.6956
2.5356, -1, -36.1238, 0.897896, 20.4917, -160.292, -92.7066, 56.4064
2.54353, -1, -36.2665, 0.859632, 20.5036, -160.339, -92.6895, 56.1274
2.55155, -1, -36.3997, 0.824347, 20.5152, -160.384, -92.6731, 55.8648
2.55962, -1, -36.5216, 0.792084, 20.5258, -160.425, -92.6578, 55.625
2.56754, -1, -36.6308, 0.76324, 20.5351, -160.46, -92.6445, 55.4133
2.57554, -1, -36.7255, 0.738174, 20.5424, -160.49, -92.6335, 55.2349
2.5836, -1, -36.8055, 0.716932, 20.5474, -160.515, -92.6248, 55.0915
2.59154, -1, -36.8718, 0.699397, 20.5504, -160.534, -92.6183, 54.983
2.59961, -1, -36.925, 0.685383, 20.5517, -160.547, -92.6138, 54.9061
2.60762, -1, -36.9654, 0.674537, 20.5521, -160.556, -92.611, 54.8543
2.61558, -1, -36.995, 0.666705, 20.5519, -160.562, -92.6092, 54.8228
2.62353, -1, -37.0154, 0.661571, 20.5515, -160.565, -92.6084, 54.8048
2.6316, -1, -37.0278, 0.658524, 20.5511, -160.567, -92.6079, 54.7957
2.63956, -1, -37.0345, 0.656919, 20.551, -160.568, -92.6077, 54.7914
2.64753, 2, -37.0367, 0.656175, 20.5509, -160.568, -92.6076, 54.7894
2.65561, 2, -37.0366, 0.655862, 20.5509, -160.568, -92.6076, 54.7885
2.66356, 2, -37.036, 0.655746, 20.5508, -160.568, -92.6076, 54.7881
2.67155, 2, -37.0358, 0.65569, 20.5508, -160.568, -92.6076, 54.788
2.67962, 2, -37.0362, 0.655629, 20.5508, -160.568, -92.6076, 54.788
2.68754, 2, -37.0371, 0.65559, 20.5507, -160.569, -92.6076, 54.788
2.69556, 2, -37.0382, 0.655498, 20.5506, -160.568, -92.6076, 54.788
2.70367, 2, -37.0396, 0.655304, 20.5504, -160.568, -92.6076, 54.7881
2.71163, 2, -37.041, 0.655054, 20.5502, -160.568, -92.6077, 54.7881
2.71966, 2, -37.0422, 0.654799, 20.55, -160.568, -92.6077, 54.7882
2.7277, 2, -37.0431, 0.654565, 20.5498, -160.568, -92.6077, 54.7883
2.73564, 2, -37.0435, 0.654445, 20.5496, -160.568, -92.6077, 54.7884
2.74363, 2, -37.0436, 0.654391, 20.5494, -160.568, -92.6078, 54.7886
2.75171, 2, -37.0431, 0.654396, 20.5492, -160.568, -92.6078, 54.7888
2.75976, 2, -37.0423, 0.654429, 20.5492, -160.568, -92.6079, 54.789
2.76757, 2, -37.0414, 0.6545, 20.5491, -160.568, -92.6079, 54.7892
2.77566, 2, -37.0399, 0.654551, 20.549, -160.568, -92.608, 54.7894
2.78374, 2, -37.0385, 0.654622, 20.5489, -160.568, -92.608, 54.7896
2.79168, 2, -37.0375, 0.654642, 20.5489, -160.568, -92.608, 54.7897
2.80014, 2, -37.0369, 0.654654, 20.5488, -160.568, -92.6081, 54.7898
2.80785, 2, -37.0367, 0.654626, 20.5488, -160.568, -92.6081, 54.7899
2.81589, 2, -37.0367, 0.654585, 20.5488, -160.568, -92.6081, 54.79
2.82438, 2, -37.0369, 0.654521, 20.5488, -160.568, -92.6081, 54.79
2.83206, 2, -37.0371, 0.654486, 20.5487, -160.568, -92.6081, 54.7901
2.84008, 2, -37.0376, 0.654441, 20.5487, -160.568, -92.6081, 54.7901
2.84852, 2, -37.0382, 0.654443, 20.5487, -160.568, -92.6081, 54.7901
2.85614, 2, -37.0389, 0.65444, 20.5487, -160.568, -92.6081, 54.7901
2.86411, 2, -37.0392, 0.654442, 20.5487, -160.568, -92.6081, 54.7902
2.87236, 2, -37.0397, 0.65445, 20.5487, -160.568, -92.6082, 54.7902
2.88008, 2, -37.0398, 0.65446, 20.5487, -160.568, -92.6082, 54.7902
2.88753, 2, -37.0399, 0.654476, 20.5487, -160.568, -92.6081, 54.7903
2.89644, 2, -37.0399, 0.654509, 20.5487, -160.568, -92.6081, 54.7904
2.90353, 2, -37.0398, 0.654507, 20.5487, -160.568, -92.6081, 54.7904
2.91153, 2, -37.0394, 0.654505, 20.5487, -160.568, -92.6081, 54.7905
2.91959, 2, -37.0391, 0.654496, 20.5486, -160.568, -92.6082, 54.7905
2.92753, 2, -37.0389, 0.654475, 20.5486, -160.568, -92.6082, 54.7905
2.93552, 2, -37.0389, 0.654465, 20.5486, -160.568, -92.6083, 54.7906
2.94359, 2, -37.0388, 0.654461, 20.5486, -160.568, -92.6082, 54.7906
2.95158, 2, -37.0388, 0.654441, 20.5486, -160.568, -92.6083, 54.7906
2.95954, 2, -37.0388, 0.65445, 20.5486, -160.568, -92.6083, 54.7907
2.96757, 2, -37.0389, 0.654454, 20.5486, -160.568, -92.6083, 54.7907
2.97554, 2, -37.0389, 0.654456, 20.5485, -160.568, -92.6083, 54.7908
2.98352, 2, -37.039, 0.654456, 20.5485, -160.568, -92.6082, 54.7908
2.99159, 2, -37.0391, 0.654476, 20.5485, -160.568, -92.6083, 54.7909
2.99955, 2, -37.0392, 0.654491, 20.5485, -160.568, -92.6083, 54.791
3.00754, 2, -37.0393, 0.654497, 20.5485, -160.568, -92.6083, 54.7911
3.01559, 2, -37.0393, 0.6545, 20.5485, -160.568, -92.6083, 54.7912
3.02352, 2, -37.0393, 0.654489, 20.5485, -160.568, -92.6083, 54.7913
3.03152, 2, -37.0393, 0.654477, 20.5485, -160.568, -92.6083, 54.7913
3.03963, 2, -37.0393, 0.654466, 20.5485, -160.568, -92.6083, 54.7913
3.04753, 2, -37.0393, 0.654461, 20.5485, -160.568, -92.6083, 54.7913
3.05552, 2, -37.0393, 0.654459, 20.5485, -160.568, -92.6083, 54.7914
3.06359, 2, -37.0393, 0.654458, 20.5484, -160.568, -92.6083, 54.7914
3.07152, 2, -37.0393, 0.654458, 20.5484, -160.568, -92.6083, 54.7915
3.07954, 2, -37.0392, 0.654457, 20.5484, -160.568, -92.6083, 54.7916
3.08759, 2, -37.0393, 0.654457, 20.5484, -160.568, -92.6083, 54.7916
3.09552, 2, -37.0392, 0.654457, 20.5484, -160.568, -92.6083, 54.7917
3.10357, 2, -37.0392, 0.654469, 20.5484, -160.568, -92.6083, 54.7917
3.11161, 2, -37.0392, 0.654482, 20.5484, -160.568, -92.6083, 54.7917
3.11959, 2, -37.0392, 0.654493, 20.5484, -160.568, -92.6083, 54.7918
3.12752, 2, -37.0392, 0.654498, 20.5484, -160.568, -92.6083, 54.7918
3.13559, 2, -37.0392, 0.654519, 20.5484, -160.568, -92.6083, 54.7918
3.14352, 2, -37.0392, 0.65451, 20.5484, -160.568, -92.6083, 54.7919
3.15153, 2, -37.0392, 0.654499, 20.5484, -160.568, -92.6083, 54.7919
3.15961, 2, -37.0391, 0.654476, 20.5484, -160.568, -92.6083, 54.792
3.16755, 2, -37.0391, 0.654466, 20.5484, -160.568, -92.6083, 54.792
3.17554, 2, -37.0391, 0.654461, 20.5483, -160.568, -92.6083, 54.7921
3.18359, 2, -37.0391, 0.654459, 20.5483, -160.568, -92.6083, 54.7921
3.19153, 2, -37.0391, 0.654458, 20.5483, -160.568, -92.6084, 54.7921
3.19957, 2, -37.0391, 0.654458, 20.5483, -160.568, -92.6084, 54.7922
3.20766, 2, -37.0391, 0.654477, 20.5483, -160.568, -92.6084, 54.7922
3.21562, 2, -37.039, 0.654509, 20.5483, -160.568, -92.6084, 54.7923
3.22362, 2, -37.039, 0.654506, 20.5483, -160.568, -92.6084, 54.7923
3.23171, 2, -37.0391, 0.654522, 20.5483, -160.568, -92.6084, 54.7924
3.23965, 2, -37.039, 0.654523, 20.5483, -160.568, -92.6084, 54.7924
3.24763, 2, -37.039, 0.654519, 20.5483, -160.568, -92.6085, 54.7924
3.2557, 2, -37.039, 0.654491, 20.5483, -160.568, -92.6084, 54.7924
3.26354, 2, -37.039, 0.654473, 20.5482, -160.568, -92.6085, 54.7924
3.27155, 2, -37.039, 0.654476, 20.5482, -160.568, -92.6084, 54.7925
3.27966, 2, -37.039, 0.654478, 20.5482, -160.568, -92.6085, 54.7925
3.2877, 2, -37.039, 0.654467, 20.5482, -160.568, -92.6085, 54.7925
3.29584, 2, -37.0389, 0.654474, 20.5482, -160.568, -92.6084, 54.7926
3.3038, 2, -37.0389, 0.654477, 20.5482, -160.568, -92.6085, 54.7926
3.31188, 2, -37.0389, 0.654474, 20.5481, -160.568, -92.6085, 54.7926
3.3199, 2, -37.0389, 0.654489, 20.5481, -160.568, -92.6085, 54.7927
3.32798, 2, -37.0389, 0.654496, 20.5481, -160.568, -92.6084, 54.7927
3.33609, 2, -37.0389, 0.6545, 20.5481, -160.568, -92.6085, 54.7927
3.34421, 2, -37.0389, 0.65452, 20.5481, -160.568, -92.6085, 54.7927
3.3521, 2, -37.0388, 0.65451, 20.5481, -160.568, -92.6085, 54.7928
3.36027, 2, -37.0389, 0.654506, 20.5481, -160.568, -92.6085, 54.7928
3.3681, 2, -37.0389, 0.654522, 20.5481, -160.568, -92.6085, 54.7928
3.37614, 2, -37.0388, 0.654509, 20.5481, -160.568, -92.6085, 54.7929
3.38352, 2, -37.0388, 0.6545, 20.5481, -160.568, -92.6085, 54.7929
3.39151, 2, -37.0388, 0.654494, 20.5481, -160.567, -92.6085, 54.7929
3.39958, 2, -37.0388, 0.654474, 20.5481, -160.568, -92.6085, 54.7929
3.40757, 2, -37.0388, 0.654477, 20.5481, -160.567, -92.6085, 54.7929
3.41551, 2, -37.0388, 0.654479, 20.548, -160.567, -92.6085, 54.7929
3.42357, 2, -37.0388, 0.654505, 20.548, -160.567, -92.6085, 54.793
3.43152, 2, -37.0388, 0.654504, 20.548, -160.567, -92.6085, 54.793
3.43954, 2, -37.0388, 0.654503, 20.548, -160.567, -92.6085, 54.7931
3.44758, 2, -37.0388, 0.654503, 20.548, -160.567, -92.6085, 54.7931
3.45556, 2, -37.0388, 0.654503, 20.548, -160.567, -92.6085, 54.793
3.46351, 2, -37.0388, 0.654521, 20.548, -160.567, -92.6085, 54.793
3.47156, 2, -37.0387, 0.654529, 20.548, -160.567, -92.6085, 54.7931
3.47964, 2, -37.0387, 0.654508, 20.548, -160.567, -92.6085, 54.7931
3.48752, 2, -37.0388, 0.65448, 20.548, -160.567, -92.6085, 54.7931
3.49558, 2, -37.0387, 0.654487, 20.548, -160.567, -92.6085, 54.7931
3.50522, 2, -37.0387, 0.654483, 20.548, -160.567, -92.6086, 54.7931
3.51153, 2, -37.0387, 0.654505, 20.548, -160.567, -92.6085, 54.793
3.51959, 2, -37.0387, 0.654511, 20.548, -160.567, -92.6086, 54.7931
3.52855, 2, -37.0387, 0.654506, 20.5479, -160.567, -92.6086, 54.7931
3.53551, 2, -37.0387, 0.654504, 20.5479, -160.567, -92.6086, 54.7931
3.54363, 2, -37.0387, 0.654503, 20.5479, -160.567, -92.6086, 54.7931
3.55152, 2, -37.0387, 0.654532, 20.5479, -160.567, -92.6086, 54.7931
3.55952, 2, -37.0387, 0.654535, 20.5479, -160.567, -92.6086, 54.7931
3.56758, 2, -37.0386, 0.654554, 20.5479, -160.567, -92.6086, 54.7931
3.57551, 2, -37.0386, 0.654563, 20.5479, -160.567, -92.6086, 54.7931
3.58351, 2, -37.0386, 0.654538, 20.5479, -160.567, -92.6086, 54.7931
3.59158, 2, -37.0386, 0.654537, 20.5479, -160.567, -92.6086, 54.7931
3.59952, 2, -37.0386, 0.654529, 20.5479, -160.567, -92.6087, 54.7931
3.60753, 2, -37.0386, 0.654533, 20.5479, -160.567, -92.6086, 54.7931
3.6156, 2, -37.0386, 0.654542, 20.5478, -160.567, -92.6086, 54.7932
3.62356, 2, -37.0386, 0.654521, 20.5478, -160.567, -92.6086, 54.7932
3.63151, 2, -37.0386, 0.654529, 20.5479, -160.567, -92.6086, 54.7932
3.6396, 2, -37.0386, 0.654533, 20.5478, -160.567, -92.6086, 54.7931
3.64886, 2, -37.0386, 0.654546, 20.5478, -160.567, -92.6086, 54.7931
3.65549, 2, -37.0386, 0.654548, 20.5478, -160.567, -92.6087, 54.7932
3.66357, 2, -37.0385, 0.654542, 20.5478, -160.567, -92.6087, 54.7932
3.67153, 2, -37.0385, 0.654531, 20.5478, -160.567, -92.6087, 54.7932
3.67955, 2, -37.0385, 0.654553, 20.5478, -160.567, -92.6087, 54.7931
3.68758, 2, -37.0386, 0.654551, 20.5478, -160.567, -92.6087, 54.7932
3.69551, 2, -37.0385, 0.654536, 20.5478, -160.567, -92.6087, 54.7932
3.70367, 2, -37.0385, 0.654544, 20.5478, -160.567, -92.6087, 54.7932
3.71165, 2, -37.0385, 0.654521, 20.5478, -160.567, -92.6087, 54.7933
3.71961, 2, -37.0385, 0.654511, 20.5478, -160.567, -92.6087, 54.7932
3.72757, 4, -37.0385, 0.654536, 20.5478, -160.567, -92.6087, 54.7932
3.73568, 4, -37.0385, 0.654554, 20.5477, -160.567, -92.6086, 54.7933
3.74362, 4, -37.0385, 0.654563, 20.5477, -160.567, -92.6087, 54.7933
3.75162, 4, -37.0385, 0.654567, 20.5477, -160.567, -92.6087, 54.7933
3.7597, 4, -37.0385, 0.65455, 20.5477, -160.567, -92.6087, 54.7932
3.76754, 4, -37.0385, 0.654543, 20.5477, -160.567, -92.6087, 54.7932
3.77561, 4, -37.0385, 0.654558, 20.5477, -160.567, -92.6087, 54.7932
3.78365, 4, -37.0385, 0.654535, 20.5477, -160.567, -92.6087, 54.7932
3.7917, 4, -37.0385, 0.654528, 20.5477, -160.567, -92.6087, 54.7932
3.79973, 4, -37.0384, 0.654533, 20.5477, -160.567, -92.6086, 54.7932
3.80779, 4, -37.0384, 0.654542, 20.5477, -160.567, -92.6087, 54.7932
3.81614, 4, -37.0384, 0.654539, 20.5477, -160.567, -92.6087, 54.7933
3.82394, 4, -37.0384, 0.654549, 20.5476, -160.567, -92.6087, 54.7933
3.84999, 4, -37.0384, 0.654531, 20.5476, -160.567, -92.6087, 54.7932
3.85361, 4, -37.0383, 0.654562, 20.5476, -160.567, -92.6087, 54.7932
3.85609, 4, -37.0383, 0.654565, 20.5476, -160.567, -92.6087, 54.7932
3.85814, 4, -37.0383, 0.654565, 20.5476, -160.567, -92.6087, 54.7932
3.86481, 4, -37.0383, 0.654575, 20.5476, -160.567, -92.6087, 54.7932
3.87345, 4, -37.0383, 0.654567, 20.5476, -160.567, -92.6087, 54.7932
3.88031, 4, -37.0381, 0.654417, 20.5476, -160.567, -92.6087, 54.7932
3.88806, 4, -37.0366, 0.654113, 20.5477, -160.567, -92.6087, 54.7932
3.89552, 4, -37.0326, 0.652341, 20.548, -160.567, -92.6087, 54.7932
3.90424, 4, -37.025, 0.647983, 20.5495, -160.567, -92.6087, 54.7932
3.91147, 4, -37.0137, 0.640199, 20.5533, -160.566, -92.6087, 54.7932
3.91952, 4, -36.9981, 0.628628, 20.5607, -160.565, -92.6087, 54.7932
3.92755, 5, -36.9771, 0.612567, 20.5731, -160.563, -92.6088, 54.7932
3.9356, 5, -36.9505, 0.592118, 20.5917, -160.559, -92.6086, 54.7932
3.9435, 5, -36.9188, 0.567168, 20.617, -160.554, -92.6083, 54.7932
3.9517, 5, -36.8823, 0.537794, 20.6492, -160.547, -92.6078, 54.7932
3.95953, 5, -36.8409, 0.503869, 20.6877, -160.538, -92.6069, 54.7931
3.9675, 5, -36.7943, 0.465117, 20.7317, -160.528, -92.6056, 54.7931
3.976, 5, -36.7425, 0.422132, 20.7801, -160.518, -92.6041, 54.7931
3.98354, 5, -36.686, 0.375454, 20.8316, -160.506, -92.6024, 54.7931
3.99151, 5, -36.6256, 0.32597, 20.8853, -160.494, -92.6006, 54.793
3.9995, 5, -36.5614, 0.27438, 20.9401, -160.481, -92.5989, 54.793
4.00758, 5, -36.4947, 0.22136, 20.9954, -160.469, -92.5971, 54.793
4.01655, 5, -36.4269, 0.167778, 21.0508, -160.457, -92.5953, 54.793
4.02366, 5, -36.3584, 0.113929, 21.1063, -160.445, -92.5934, 54.793
4.03156, 5, -36.2897, 0.0599867, 21.1618, -160.433, -92.5915, 54.793
4.03951, 5, -36.2208, 0.00620644, 21.2172, -160.421, -92.5895, 54.7931
4.04767, 5, -36.1521, -0.0473585, 21.2726, -160.409, -92.5876, 54.7931
4.05635, 5, -36.0834, -0.100702, 21.3279, -160.397, -92.5856, 54.7932
4.06454, 5, -36.0148, -0.153792, 21.3832, -160.384, -92.5837, 54.7932
4.07156, 5, -35.9462, -0.206705, 21.4384, -160.371, -92.5816, 54.7934
4.07949, 5, -35.8775, -0.259449, 21.4935, -160.358, -92.5796, 54.7937
4.08752, 5, -35.8087, -0.312025, 21.5486, -160.345, -92.5777, 54.7941
4.09671, 5, -35.7396, -0.364669, 21.6035, -160.333, -92.5756, 54.7947
4.10615, 5, -35.6355, -0.443584, 21.6855, -160.314, -92.5726, 54.7961
4.11154, 5, -35.6007, -0.469926, 21.7128, -160.308, -92.5716, 54.7967
4.12296, 5, -35.496, -0.549055, 21.7943, -160.289, -92.5685, 54.7986
4.1277, 5, -35.4609, -0.575433, 21.8213, -160.283, -92.5675, 54.7993
4.13647, 5, -35.3906, -0.628196, 21.8754, -160.27, -92.5654, 54.8008
4.14449, 5, -35.3201, -0.680895, 21.9294, -160.257, -92.5634, 54.8024
4.15166, 5, -35.2496, -0.733563, 21.9832, -160.244, -92.5613, 54.8043
4.16049, 5, -35.179, -0.78588, 22.0369, -160.231, -92.5592, 54.8063
4.16758, 5, -35.1084, -0.838035, 22.0906, -160.217, -92.5571, 54.8084
4.17574, 5, -35.0378, -0.890112, 22.1441, -160.204, -92.555, 54.8106
4.18454, 5, -34.9673, -0.94184, 22.1974, -160.191, -92.5528, 54.8129
4.1915, 5, -34.8968, -0.993403, 22.2507, -160.178, -92.5506, 54.8153
4.19989, 5, -34.8263, -1.04477, 22.3039, -160.165, -92.5484, 54.8179
4.20857, 5, -34.7556, -1.09613, 22.3569, -160.152, -92.5462, 54.8205
4.21565, 5, -34.6849, -1.1475, 22.4096, -160.14, -92.544, 54.8233
4.22441, 5, -34.6139, -1.19875, 22.4623, -160.127, -92.5418, 54.8263
4.2318, 5, -34.5429, -1.25014, 22.5146, -160.114, -92.5396, 54.8292
4.2396, 5, -34.4717, -1.30147, 22.567, -160.1, -92.5374, 54.8323
4.24973, 5, -34.4003, -1.3528, 22.6191, -160.086, -92.5351, 54.8356
4.25664, 5, -34.3286, -1.40414, 22.6711, -160.072, -92.5328, 54.8389
4.26849, 5, -34.221, -1.48088, 22.7488, -160.052, -92.5294, 54.8441
4.27152, 5, -34.185, -1.50636, 22.7747, -160.045, -92.5283, 54.846
4.27958, 5, -34.113, -1.55713, 22.8263, -160.032, -92.526, 54.8497
4.28759, 5, -34.041, -1.60777, 22.8778, -160.018, -92.5237, 54.8535
4.29567, 5, -33.9689, -1.65815, 22.9293, -160.005, -92.5213, 54.8574
4.30417, 5, -33.8967, -1.7083, 22.9806, -159.991, -92.519, 54.8614
4.31191, 5, -33.8246, -1.75832, 23.0317, -159.978, -92.5167, 54.8655
4.31981, 5, -33.7523, -1.80822, 23.0827, -159.964, -92.5144, 54.8697
4.3283, 5, -33.68, -1.85808, 23.1335, -159.95, -92.5121, 54.8739
4.33764, 5, -33.6075, -1.90789, 23.1841, -159.935, -92.5098, 54.8783
4.34408, 5, -33.5349, -1.95794, 23.2346, -159.921, -92.5075, 54.8825
4.35214, 5, -33.4621, -2.0083, 23.2851, -159.907, -92.5052, 54.8864
4.36111, 5, -33.3893, -2.05902, 23.3355, -159.893, -92.503, 54.8895
4.36807, 5, -33.3169, -2.11019, 23.3859, -159.879, -92.5005, 54.8911
4.37626, 6, -33.2445, -2.16193, 23.4367, -159.864, -92.498, 54.8914
4.38569, 6, -33.1726, -2.21456, 23.4877, -159.849, -92.4949, 54.8897
4.39149, 6, -33.1368, -2.24122, 23.5135, -159.842, -92.4932, 54.8877
4.3995, 6, -33.0655, -2.29514, 23.5657, -159.826, -92.489, 54.8801
4.40753, 7, -32.9946, -2.35025, 23.6189, -159.808, -92.4835, 54.8676
4.41663, 7, -32.8893, -2.43508, 23.701, -159.78, -92.4724, 54.8436
4.42658, 7, -32.8197, -2.49345, 23.7575, -159.759, -92.4627, 54.8261
4.43298, 7, -32.7507, -2.5533, 23.8152, -159.737, -92.4509, 54.8088
4.44114, 8, -32.6825, -2.61476, 23.8743, -159.715, -92.4373, 54.7919
4.44748, 8, -32.6486, -2.64603, 23.9043, -159.703, -92.4297, 54.7835
4.45562, 8, -32.5814, -2.70992, 23.9651, -159.678, -92.4131, 54.7667
4.46387, 8, -32.5148, -2.77555, 24.027, -159.651, -92.3948, 54.7492
4.47147, 8, -32.449, -2.84275, 24.0899, -159.624, -92.3747, 54.7306
4.47948, 8, -32.3838, -2.91143, 24.1538, -159.596, -92.3533, 54.7105
4.48981, 9, -32.287, -3.0169, 24.2514, -159.553, -92.3191, 54.6768
4.4955, 9, -32.2551, -3.05274, 24.2844, -159.538, -92.3072, 54.6648
4.50369, 9, -32.1916, -3.1254, 24.3513, -159.506, -92.2823, 54.6394
4.51244, 9, -32.1287, -3.19929, 24.4191, -159.474, -92.2556, 54.6129
4.51958, 9, -32.0663, -3.2745, 24.4879, -159.442, -92.2271, 54.5851
4.52926, 10, -32.0044, -3.35093, 24.5577, -159.408, -92.1975, 54.5556
4.53551, 10, -31.9433, -3.42878, 24.6285, -159.373, -92.1668, 54.5244
4.5436, 10, -31.8827, -3.50808, 24.7004, -159.337, -92.1348, 54.4911
4.55394, 10, -31.7927, -3.62963, 24.8103, -159.282, -92.0832, 54.4383
4.55963, 10, -31.7631, -3.6709, 24.8474, -159.264, -92.0653, 54.4202
4.56754, 11, -31.7041, -3.7545, 24.9224, -159.225, -92.029, 54.383
4.5755, 11, -31.6457, -3.8396, 24.9983, -159.185, -91.9917, 54.3439
4.58365, 11, -31.5878, -3.92616, 25.0751, -159.145, -91.9523, 54.3028
4.59158, 11, -31.5304, -4.0142, 25.1528, -159.104, -91.9113, 54.2603
4.59955, 11, -31.4736, -4.10372, 25.2317, -159.061, -91.8696, 54.2168
4.60745, 12, -31.4173, -4.19468, 25.3117, -159.018, -91.8263, 54.1718
4.6155, 12, -31.3615, -4.28706, 25.3926, -158.975, -91.7809, 54.1245
4.6236, 12, -31.3061, -4.38082, 25.4748, -158.929, -91.735, 54.0757
4.63169, 12, -31.2513, -4.47593, 25.5579, -158.883, -91.6879, 54.0259
4.63974, 12, -31.1971, -4.57241, 25.642, -158.837, -91.6385, 53.9744
4.64746, 13, -31.1433, -4.67034, 25.727, -158.788, -91.5885, 53.9209
4.65552, 13, -31.0901, -4.76964, 25.813, -158.739, -91.537, 53.8663
4.66359, 13, -31.0373, -4.87042, 25.8999, -158.69, -91.4834, 53.8105
4.67148, 13, -30.9851, -4.97279, 25.988, -158.639, -91.4296, 53.7527
4.67967, 13, -30.9334, -5.07657, 26.0772, -158.588, -91.3738, 53.6935
4.68844, 14, -30.8822, -5.18176, 26.1674, -158.535, -91.3164, 53.6334
4.69571, 14, -30.8317, -5.28849, 26.2588, -158.481, -91.2587, 53.5713
4.70433, 14, -30.7818, -5.39664, 26.351, -158.428, -91.1985, 53.5079
4.71237, 14, -30.7322, -5.50629, 26.4441, -158.373, -91.1381, 53.4437
4.71958, 14, -30.6832, -5.61751, 26.5382, -158.316, -91.0755, 53.3772
4.72855, 15, -30.6347, -5.73018, 26.6334, -158.26, -91.0117, 53.3095
4.73559, 15, -30.5866, -5.84422, 26.7297, -158.201, -90.9467, 53.2409
4.74364, 15, -30.5391, -5.95946, 26.8273, -158.143, -90.8798, 53.1699
4.75372, 15, -30.4922, -6.07612, 26.9258, -158.083, -90.8126, 53.0983
4.75978, 15, -30.4457, -6.19426, 27.0253, -158.023, -90.7431, 53.0248
4.76854, 15, -30.3997, -6.31376, 27.1256, -157.961, -90.6729, 52.9493
4.77552, 16, -30.3543, -6.43489, 27.2269, -157.898, -90.6006, 52.8733
4.78364, 16, -30.3094, -6.55744, 27.3294, -157.835, -90.5279, 52.7946
4.79162, 16, -30.2649, -6.68133, 27.433, -157.771, -90.4532, 52.7154
4.79973, 16, -30.2209, -6.80679, 27.5378, -157.706, -90.3777, 52.6344
4.80802, 16, -30.1774, -6.93375, 27.6435, -157.64, -90.3004, 52.552
4.81581, 17, -30.1343, -7.06237, 27.75, -157.573, -90.2221, 52.4686
4.82398, 17, -30.0919, -7.19254, 27.8574, -157.505, -90.1423, 52.3838
4.83264, 17, -30.0499, -7.32417, 27.9658, -157.436, -90.0611, 52.2981
4.84, 17, -30.0084, -7.45706, 28.0755, -157.367, -89.9789, 52.2102
4.84806, 17, -29.9674, -7.5913, 28.1863, -157.296, -89.895, 52.1218
4.85611, 18, -29.9269, -7.72706, 28.2983, -157.225, -89.8101, 52.0314
4.86422, 18, -29.887, -7.86419, 28.411, -157.152, -89.7236, 51.9403
4.87208, 18, -29.8475, -8.00273, 28.5246, -157.079, -89.6364, 51.8473
4.88038, 18, -29.8084, -8.14242, 28.6392, -157.005, -89.5477, 51.7533
4.889, 18, -29.789, -8.28348, 28.7549, -156.93, -89.4575, 51.6576
4.89544, 19, -29.7507, -8.35451, 28.8133, -156.892, -89.4121, 51.6096
4.90539, 19, -29.694, -8.56997, 28.9901, -156.777, -89.274, 51.463
4.91452, 19, -29.6568, -8.71559, 29.1089, -156.7, -89.1802, 51.3642
4.91949, 19, -29.6384, -8.78891, 29.1686, -156.661, -89.1328, 51.3141
4.92747, 19, -29.602, -8.93632, 29.2887, -156.581, -89.0376, 51.214
4.93549, 20, -29.5659, -9.08515, 29.4097, -156.501, -88.9411, 51.1118
4.94352, 20, -29.5304, -9.23555, 29.5321, -156.421, -88.8434, 51.009
4.95153, 20, -29.4952, -9.38751, 29.6556, -156.339, -88.7449, 50.9047
4.95962, 20, -29.4606, -9.54067, 29.7798, -156.257, -88.6452, 50.7994
4.96894, 20, -29.4096, -9.77252, 29.9678, -156.131, -88.4936, 50.6392
4.97567, 21, -29.3928, -9.85044, 30.0309, -156.089, -88.4425, 50.585
4.98352, 21, -29.3596, -10.0075, 30.158, -156.003, -88.3393, 50.4763
4.99154, 21, -29.3266, -10.1661, 30.2862, -155.917, -88.2352, 50.3663
4.99947, 21, -29.2942, -10.3257, 30.4153, -155.83, -88.1301, 50.2556
5.00804, 21, -29.2622, -10.4863, 30.5454, -155.743, -88.0238, 50.1441
5.01567, 21, -29.2306, -10.6481, 30.6762, -155.654, -87.9167, 50.0316
5.02368, 22, -29.1994, -10.8114, 30.808, -155.564, -87.8085, 49.9183
5.0318, 22, -29.1685, -10.9761, 30.9408, -155.474, -87.6993, 49.804
5.0433, 22, -29.1231, -11.2247, 31.1416, -155.337, -87.5337, 49.6308
5.04746, 22, -29.1081, -11.3081, 31.209, -155.29, -87.4778, 49.5729
5.05625, 22, -29.0785, -11.4762, 31.3445, -155.197, -87.3657, 49.4559
5.06352, 23, -29.0492, -11.646, 31.4809, -155.103, -87.2527, 49.3384
5.07148, 23, -29.0202, -11.8169, 31.618, -155.009, -87.1386, 49.2199
5.08295, 23, -28.9776, -12.0746, 31.8252, -154.865, -86.9663, 49.0414
5.08766, 23, -28.9636, -12.1611, 31.8948, -154.817, -86.9082, 48.9816
5.09644, 23, -28.9359, -12.3354, 32.0345, -154.719, -86.7915, 48.8614
5.10355, 24, -28.9085, -12.5109, 32.1752, -154.621, -86.6739, 48.7409
5.11146, 24, -28.8814, -12.6869, 32.3166, -154.522, -86.5553, 48.6199
5.1195, 24, -28.8546, -12.8634, 32.4585, -154.422, -86.4362, 48.4979
5.12751, 24, -28.8283, -13.0416, 32.6013, -154.322, -86.3158, 48.3754
5.13659, 24, -28.8022, -13.2212, 32.7452, -154.22, -86.1951, 48.2526
5.14359, 25, -28.7764, -13.4013, 32.8899, -154.118, -86.0735, 48.1292
5.15147, 25, -28.751, -13.582, 33.0351, -154.015, -85.951, 48.0058
5.1598, 25, -28.7257, -13.7641, 33.1808, -153.911, -85.8282, 47.8824
5.16925, 25, -28.7005, -13.9477, 33.3274, -153.807, -85.7042, 47.7586
5.17547, 25, -28.6758, -14.132, 33.4749, -153.701, -85.5799, 47.6348
5.1836, 26, -28.6514, -14.3166, 33.6231, -153.595, -85.4549, 47.5109
5.19148, 26, -28.6273, -14.5023, 33.7716, -153.488, -85.3293, 47.3866
5.19947, 26, -28.6034, -14.6896, 33.9208, -153.38, -85.2034, 47.262
5.20785, 26, -28.5797, -14.8775, 34.0711, -153.271, -85.0764, 47.1378
5.21634, 26, -28.5561, -15.0654, 34.2219, -153.162, -84.9492, 47.0135
5.22363, 27, -28.5327, -15.2541, 34.3731, -153.052, -84.8213, 46.8895
5.23201, 27, -28.5097, -15.4438, 34.5247, -152.942, -84.693, 46.7663
5.24054, 27, -28.4868, -15.6338, 34.6771, -152.83, -84.564, 46.6427
5.24793, 27, -28.4641, -15.8241, 34.8302, -152.718, -84.4348, 46.5196
5.25689, 27, -28.4417, -16.0156, 34.9837, -152.605, -84.3052, 46.397
5.26548, 28, -28.4194, -16.2087, 35.1373, -152.492, -84.1751, 46.2744
5.27247, 28, -28.397, -16.4022, 35.2915, -152.378, -84.0445, 46.1523
5.27955, 28, -28.3749, -16.5961, 35.4466, -152.263, -83.9137, 46.0308
5.28854, 28, -28.3529, -16.791, 35.602, -152.148, -83.7827, 45.91
5.29566, 28, -28.3308, -16.9868, 35.7574, -152.032, -83.651, 45.7899
5.30376, 28, -28.3088, -17.1826, 35.9133, -151.915, -83.5195, 45.6709
5.31251, 29, -28.2869, -17.3784, 36.0698, -151.797, -83.3874, 45.5525
5.31973, 29, -28.2652, -17.5752, 36.2269, -151.679, -83.2551, 45.4352
5.32879, 29, -28.2433, -17.7725, 36.3839, -151.561, -83.1224, 45.319
5.3363, 29, -28.2216, -17.9696, 36.5409, -151.442, -82.9896, 45.2034
5.34403, 29, -28.2001, -18.167, 36.6987, -151.322, -82.8565, 45.0892
5.35276, 30, -28.1785, -18.3653, 36.857, -151.202, -82.7234, 44.9761
5.36045, 30, -28.1568, -18.5639, 37.0152, -151.081, -82.5903, 44.8644
5.37362, 30, -28.1245, -18.8617, 37.2524, -150.898, -82.3901, 44.6997
5.37624, 30, -28.1137, -18.9614, 37.3317, -150.837, -82.3233, 44.6454
5.38411, 30, -28.1027, -19.1615, 37.4906, -150.715, -82.1894, 44.5386
5.39142, 31, -28.0808, -19.2615, 37.5701, -150.653, -82.1227, 44.4856
5.3995, 31, -28.0589, -19.4614, 37.7287, -150.53, -81.9891, 44.3811
5.4083, 31, -28.0372, -19.6612, 37.8873, -150.407, -81.8552, 44.2783
5.41695, 31, -28.0153, -19.8616, 38.1265, -150.22, -81.6547, 44.1274
5.42355, 31, -27.9934, -20.0619, 38.2063, -150.158, -81.5878, 44.0778
5.43147, 32, -27.9714, -20.2618, 38.3656, -150.032, -81.454, 43.9803
5.43946, 32, -27.9492, -20.4621, 38.5247, -149.907, -81.3201, 43.8841
5.44747, 32, -27.9267, -20.6632, 38.6841, -149.78, -81.1863, 43.7904
5.45789, 32, -27.8927, -20.9642, 38.9239, -149.59, -80.9853, 43.6532
5.46531, 32, -27.8813, -21.0644, 39.0037, -149.526, -80.9185, 43.609
5.47147, 33, -27.8582, -21.265, 39.1628, -149.398, -80.7849, 43.5219
5.47945, 33, -27.8349, -21.4656, 39.3219, -149.271, -80.6516, 43.4382
5.49143, 33, -27.7993, -21.7651, 39.5605, -149.079, -80.4522, 43.3177
5.49546, 33, -27.7872, -21.8647, 39.6396, -149.015, -80.386, 43.2794
5.50359, 33, -27.7627, -22.0643, 39.7971, -148.887, -80.254, 43.2047
5.51141, 34, -27.7379, -22.2635, 39.9543, -148.759, -80.1221, 43.1335
5.51947, 34, -27.7127, -22.4617, 40.1115, -148.631, -79.9909, 43.0659
5.52905, 34, -27.6871, -22.6595, 40.2683, -148.503, -79.8596, 43.0004
5.5356, 34, -27.6611, -22.8574, 40.4245, -148.374, -79.7286, 42.9385
5.54358, 34, -27.6346, -23.0546, 40.5802, -148.246, -79.5975, 42.8801
5.55165, 35, -27.6077, -23.251, 40.7362, -148.117, -79.4667, 42.8243
5.56044, 35, -27.5805, -23.4474, 40.8919, -147.987, -79.3359, 42.772
5.56752, 35, -27.553, -23.6441, 41.0468, -147.858, -79.2055, 42.7238
5.57545, 35, -27.5251, -23.8403, 41.2013, -147.728, -79.0754, 42.6792
5.5837, 35, -27.4969, -24.0355, 41.3555, -147.598, -78.9454, 42.6377
5.5924, 36, -27.4682, -24.2306, 41.5096, -147.468, -78.8159, 42.6001
5.59945, 36, -27.439, -24.4254, 41.6629, -147.338, -78.6863, 42.5668
5.60869, 36, -27.4095, -24.619, 41.8154, -147.208, -78.5576, 42.5381
5.62031, 36, -27.3795, -24.8117, 41.9676, -147.012, -78.3647, 42.503
5.62353, 36, -27.3489, -25.0044, 42.1195, -146.947, -78.3008, 42.4934
5.63237, 36, -27.3174, -25.1968, 42.2705, -146.817, -78.173, 42.4776
5.64046, 37, -27.2852, -25.3879, 42.4204, -146.686, -78.0456, 42.4663
5.64846, 37, -27.2523, -25.5781, 42.5697, -146.557, -77.9187, 42.4596
5.65756, 37, -27.2188, -25.7681, 42.7183, -146.427, -77.7917, 42.4566
5.66369, 37, -27.1844, -25.957, 42.866, -146.298, -77.6655, 42.4566
5.67241, 37, -27.1492, -26.1443, 43.0127, -146.169, -77.5392, 42.4623
5.67945, 38, -27.1133, -26.3304, 43.1583, -146.04, -77.4136, 42.4741
5.68748, 38, -27.0767, -26.5161, 43.3032, -145.912, -77.2882, 42.4908
5.69552, 38, -27.0393, -26.7007, 43.4473, -145.784, -77.1633, 42.5131
5.70351, 38, -27.001, -26.8836, 43.5906, -145.656, -77.0387, 42.5409
5.71183, 38, -26.9619, -27.0657, 43.7327, -145.528, -76.9146, 42.5747
5.71961, 39, -26.9219, -27.2474, 43.8738, -145.401, -76.791, 42.6148
5.72754, 39, -26.8812, -27.428, 44.014, -145.275, -76.6676, 42.661
5.73577, 39, -26.8393, -27.607, 44.1531, -145.148, -76.5449, 42.7125
5.74454, 39, -26.7967, -27.785, 44.291, -145.022, -76.4225, 42.7704
5.75156, 39, -26.7533, -27.9627, 44.4277, -144.897, -76.3004, 42.8352
5.75966, 40, -26.7088, -28.1393, 44.5631, -144.773, -76.1787, 42.9052
5.76745, 40, -26.6633, -28.314, 44.6975, -144.649, -76.0572, 42.9823
5.77549, 40, -26.6168, -28.4872, 44.8306, -144.526, -75.9364, 43.0656
5.78461, 40, -26.5693, -28.6595, 44.9623, -144.403, -75.8155, 43.1549
5.79242, 40, -26.5206, -28.8303, 45.0926, -144.282, -75.6954, 43.2515
5.79967, 41, -26.4707, -28.999, 45.2214, -144.161, -75.5756, 43.3542
5.80871, 41, -26.4197, -29.1659, 45.3488, -144.041, -75.4561, 43.4637
5.8157, 41, -26.3675, -29.3317, 45.4748, -143.922, -75.3373, 43.5798
5.82469, 41, -26.3138, -29.4963, 45.5993, -143.805, -75.2185, 43.7027
5.83354, 41, -26.259, -29.6589, 45.7221, -143.688, -75.1006, 43.8329
5.84073, 42, -26.2028, -29.8197, 45.8431, -143.573, -74.983, 43.9704
5.8488, 42, -26.1452, -29.979, 45.9625, -143.459, -74.8657, 44.1152
5.85602, 42, -26.0862, -30.1368, 46.0802, -143.346, -74.7491, 44.2672
5.86509, 42, -26.0258, -30.2926, 46.1961, -143.235, -74.6325, 44.4266
5.87208, 42, -25.964, -30.4461, 46.3103, -143.125, -74.5165, 44.5934
5.8801, 42, -25.9325, -30.5974, 46.4225, -143.017, -74.401, 44.7673
5.88902, 43, -25.8357, -30.7469, 46.5327, -142.911, -74.2857, 44.9496
5.8965, 43, -25.7691, -30.8943, 46.6407, -142.806, -74.1711, 45.1394
5.90344, 43, -25.7352, -30.9672, 46.6939, -142.755, -74.1138, 45.2373
5.91223, 43, -25.6661, -31.1111, 46.7989, -142.653, -73.9995, 45.5422
5.91942, 43, -25.5954, -31.2526, 46.9019, -142.553, -73.886, 45.6478
5.92748, 44, -25.5229, -31.392, 47.0028, -142.456, -73.7728, 45.8645
5.93567, 44, -25.4485, -31.529, 47.101, -142.361, -73.6602, 46.0893
5.94965, 44, -25.2939, -31.7956, 47.29, -142.177, -73.4361, 46.563
5.95139, 44, -25.2939, -31.7956, 47.29, -142.177, -73.4361, 46.563
5.96089, 44, -25.1731, -31.9882, 47.4255, -142.046, -73.2699, 46.9397
5.96748, 45, -25.1319, -32.0511, 47.4694, -142.004, -73.2146, 47.0695
5.97545, 45, -25.048, -32.1747, 47.5554, -141.922, -73.1048, 47.3355
5.98522, 45, -24.9182, -32.3548, 47.6789, -141.804, -72.9414, 47.7498
5.99159, 45, -24.8739, -32.4133, 47.7186, -141.766, -72.8871, 47.8919
5.99944, 45, -24.7835, -32.5281, 47.7957, -141.693, -72.7796, 48.1825
6.00902, 46, -24.6909, -32.6395, 47.8698, -141.589, -72.6195, 48.635
6.01553, 46, -24.596, -32.7478, 47.941, -141.556, -72.5666, 48.79
6.02346, 46, -24.4986, -32.8527, 48.0093, -141.493, -72.4616, 49.1061
6.03493, 46, -24.3484, -33.0033, 48.1057, -141.406, -72.3053, 49.597
6.03963, 46, -24.2972, -33.0517, 48.1361, -141.379, -72.2539, 49.7648
6.04779, 47, -24.1929, -33.1456, 48.1943, -141.328, -72.1517, 50.1062
6.05552, 47, -24.0862, -33.2355, 48.2489, -141.28, -72.0504, 50.4561
6.06357, 47, -23.977, -33.3213, 48.2999, -141.236, -71.9502, 50.8144
6.07377, 47, -23.808, -33.4421, 48.3692, -141.18, -71.8021, 51.3674
6.08049, 47, -23.7502, -33.4803, 48.3904, -141.164, -71.7533, 51.5561
6.0874, 48, -23.6326, -33.5533, 48.4298, -141.135, -71.6565, 51.9394
6.09552, 48, -23.5124, -33.6218, 48.465, -141.11, -71.5616, 52.3307
6.10343, 48, -23.3895, -33.6856, 48.4961, -141.089, -71.4681, 52.7305
6.11166, 48, -23.2643, -33.7446, 48.5233, -141.074, -71.3762, 53.1391
6.11941, 48, -23.1363, -33.7986, 48.5461, -141.064, -71.2866, 53.5556
6.1274, 49, -23.0055, -33.8475, 48.5646, -141.059, -71.1987, 53.9809
6.13553, 49, -22.8719, -33.8911, 48.5787, -141.058, -71.1125, 54.4133
6.14344, 49, -22.7352, -33.9293, 48.5881, -141.062, -71.0287, 54.8536
6.15144, 49, -22.5957, -33.9619, 48.5929, -141.073, -70.9467, 55.3019
6.15986, 49, -22.4534, -33.989, 48.5934, -141.09, -70.8672, 55.7577
6.16762, 50, -22.3084, -34.0101, 48.589, -141.113, -70.7899, 56.2217
6.17546, 50, -22.1607, -34.0252, 48.5796, -141.142, -70.7158, 56.6925
6.18564, 50, -22.0104, -34.0341, 48.5651, -141.176, -70.6442, 57.1711
6.1916, 50, -21.8573, -34.0369, 48.5454, -141.217, -70.576, 57.658
6.20288, 50, -21.6218, -34.0295, 48.5058, -141.291, -70.4797, 58.4022
6.2075, 50, -21.5418, -34.0237, 48.4898, -141.318, -70.4496, 58.6538
6.21656, 51, -21.3797, -34.0069, 48.4538, -141.378, -70.3912, 59.1617
6.22359, 51, -21.2148, -33.9832, 48.4123, -141.444, -70.3371, 59.6769
6.23155, 51, -21.0472, -33.9524, 48.365, -141.516, -70.2866, 60.1986
6.23975, 51, -20.8771, -33.9145, 48.312, -141.595, -70.2394, 60.727
6.24808, 51, -20.7044, -33.8692, 48.2532, -141.68, -70.1967, 61.2607
6.25642, 52, -20.529, -33.8161, 48.1884, -141.772, -70.159, 61.801
6.26354, 52, -20.3509, -33.7552, 48.1178, -141.87, -70.1254, 62.3474
6.27144, 52, -20.17, -33.6863, 48.0412, -141.974, -70.0963, 62.8996
6.27953, 52, -19.9865, -33.6092, 47.9584, -142.084, -70.0723, 63.4565
6.28893, 52, -19.8006, -33.5238, 47.8695, -142.2, -70.0538, 64.0192
6.29749, 53, -19.6125, -33.4296, 47.7744, -142.323, -70.0407, 64.5873
6.30367, 53, -19.4225, -33.327, 47.6731, -142.451, -70.0332, 65.1607
6.3116, 53, -19.2305, -33.2161, 47.5658, -142.586, -70.0307, 65.738
6.32007, 53, -19.0365, -33.0966, 47.4522, -142.726, -70.0333, 66.3207
6.32789, 53, -18.8404, -32.9682, 47.3321, -142.873, -70.0425, 66.9082
6.3365, 54, -18.6422, -32.8307, 47.2055, -143.024, -70.0582, 67.4992
6.34424, 54, -18.4418, -32.6843, 47.0725, -143.181, -70.0811, 68.0934
6.35192, 54, -18.2392, -32.5292, 46.9333, -143.344, -70.1116, 68.6916
6.36052, 54, -18.0346, -32.3654, 46.7878, -143.512, -70.149, 69.2934
6.3692, 54, -17.8287, -32.1924, 46.6361, -143.684, -70.193, 69.8977
6.37604, 55, -17.622, -32.0103, 46.478, -143.862, -70.2457, 70.5048
6.38407, 55, -17.5182, -31.9159, 46.3139, -144.044, -70.3058, 71.1153
6.3922, 55, -17.3096, -31.7204, 46.2297, -144.136, -70.3734, 71.7282
6.40078, 55, -17.0997, -31.5155, 46.0561, -144.325, -70.4106, 72.0353
6.40742, 55, -16.8885, -31.3004, 45.8757, -144.518, -70.4903, 72.6505
6.41557, 56, -16.6761, -31.0756, 45.6892, -144.714, -70.5788, 73.2682
6.42363, 56, -16.4627, -30.842, 45.4971, -144.914, -70.6753, 73.8873
6.43144, 56, -16.2484, -30.5986, 45.2983, -145.117, -70.78, 74.5068
6.44201, 56, -15.9272, -30.2155, 44.9879, -145.428, -70.9537, 75.4377
6.44763, 56, -15.8205, -30.0834, 44.882, -145.533, -71.0158, 75.7486
6.45687, 57, -15.4994, -29.6722, 44.5548, -145.851, -71.2154, 76.6799
6.46342, 57, -15.3921, -29.5306, 44.4426, -145.958, -71.2862, 76.99
6.47145, 57, -15.1766, -29.2402, 44.2143, -146.173, -71.4346, 77.6102
6.47941, 57, -14.9607, -28.9396, 43.9802, -146.39, -71.592, 78.23
6.48748, 57, -14.7448, -28.6301, 43.74, -146.608, -71.7585, 78.8482
6.49565, 58, -14.5292, -28.3113, 43.4953, -146.827, -71.9342, 79.4654
6.50608, 58, -14.2068, -27.8167, 43.1178, -147.157, -72.2145, 80.3896
6.5115, 58, -14.0997, -27.6472, 42.9895, -147.267, -72.3125, 80.6964
6.52183, 58, -13.8864, -27.302, 42.7295, -147.487, -72.6201, 81.6131
6.52744, 58, -13.6739, -26.9489, 42.4641, -147.707, -72.7272, 81.9176
6.53549, 58, -13.4619, -26.5883, 42.1946, -147.926, -72.9477, 82.5242
6.54446, 59, -13.2511, -26.2198, 41.9205, -148.144, -73.1767, 83.127
6.55144, 59, -13.042, -25.8436, 41.6423, -148.361, -73.4141, 83.7255
6.55949, 59, -12.8346, -25.46, 41.3608, -148.576, -73.6596, 84.3204
6.56765, 59, -12.6286, -25.0696, 41.0758, -148.789, -73.913, 84.9106
6.5754, 59, -12.4237, -24.6716, 40.7881, -149, -74.1746, 85.4953
6.58342, 60, -12.2201, -24.2668, 40.4965, -149.208, -74.4438, 86.0748
6.59163, 60, -12.0182, -23.8552, 40.2022, -149.414, -74.7208, 86.6495
6.60042, 60, -11.8178, -23.4376, 39.9049, -149.617, -75.0055, 87.2192
6.60743, 60, -11.619, -23.0135, 39.6053, -149.816, -75.2978, 87.7827
6.61543, 60, -11.4224, -22.5841, 39.3036, -150.012, -75.5973, 88.3409
6.62348, 61, -11.2281, -22.1503, 38.9996, -150.205, -75.9038, 88.8934
6.63142, 61, -11.0359, -21.7116, 38.6938, -150.394, -76.2169, 89.4394
6.64084, 61, -10.8457, -21.2686, 38.3861, -150.579, -76.536, 89.9776
6.65223, 61, -10.5645, -20.5965, 37.9229, -150.848, -77.0265, 90.7713
6.65548, 61, -10.4718, -20.3702, 37.7679, -150.935, -77.1927, 91.032
6.66345, 62, -10.2885, -19.9152, 37.4581, -151.107, -77.529, 91.5472
6.67143, 62, -10.1081, -19.4569, 37.1479, -151.273, -77.87, 92.054
6.67948, 62, -9.93034, -18.9958, 36.8381, -151.435, -78.2156, 92.5519
6.68743, 62, -9.75537, -18.5315, 36.5279, -151.591, -78.5653, 93.0416
6.69559, 62, -9.58312, -18.0652, 36.2187, -151.742, -78.9189, 93.522
6.70349, 63, -9.41306, -17.5974, 35.9099, -151.888, -79.2765, 93.9936
6.71158, 63, -9.24519, -17.1283, 35.6023, -152.029, -79.6376, 94.4547
6.71973, 63, -9.07982, -16.6587, 35.2959, -152.165, -80.0018, 94.9059
6.72879, 63, -8.91702, -16.1887, 34.9904, -152.294, -80.3693, 95.3473
6.73551, 63, -8.75683, -15.7182, 34.6863, -152.419, -80.7391, 95.7775
6.74355, 64, -8.59946, -15.2479, 34.3842, -152.537, -81.1108, 96.1975
6.75188, 64, -8.44478, -14.7784, 34.0851, -152.65, -81.4842, 96.6054
6.75953, 64, -8.29282, -14.309, 33.7876, -152.757, -81.859, 97.0017
6.76806, 64, -8.14354, -13.8403, 33.4929, -152.859, -82.2349, 97.387
6.77542, 64, -7.99701, -13.3727, 33.2005, -152.954, -82.6116, 97.7597
6.7839, 65, -7.85311, -12.9068, 32.9113, -153.045, -82.9888, 98.1198
6.79285, 65, -7.71187, -12.4429, 32.6251, -153.129, -83.3662, 98.4676
6.79983, 65, -7.57336, -11.9806, 32.3421, -153.208, -83.7438, 98.8017
6.8085, 65, -7.43779, -11.5203, 32.063, -153.28, -84.121, 99.1221
6.81752, 65, -7.30483, -11.0613, 31.7865, -153.347, -84.4983, 99.4291
6.82533, 65, -7.1746, -10.6037, 31.5135, -153.409, -84.8755, 99.7223
6.83262, 66, -7.0467, -10.1482, 31.243, -153.465, -85.2525, 100.001
6.8398, 66, -6.92094, -9.69529, 30.9759, -153.516, -85.6301, 100.265
6.848, 66, -6.79736, -9.24615, 30.7126, -153.561, -86.0078, 100.515
6.856, 66, -6.67599, -8.80178, 30.4522, -153.602, -86.385, 100.749
6.86456, 66, -6.55697, -8.36203, 30.1964, -153.637, -86.7605, 100.967
6.87222, 67, -6.44045, -7.92802, 29.9453, -153.666, -87.1334, 101.168
6.88013, 67, -6.3267, -7.49935, 29.6997, -153.689, -87.503, 101.352
6.88816, 67, -6.21561, -7.07606, 29.4609, -153.707, -87.8679, 101.519
6.89628, 67, -6.16106, -6.86613, 29.2279, -153.719, -88.2281, 101.668
6.9034, 67, -6.0537, -6.45095, 29.1135, -153.723, -88.4064, 101.735
6.91148, 68, -5.94852, -6.04135, 28.8896, -153.728, -88.7601, 101.858
6.91943, 68, -5.84525, -5.6379, 28.6709, -153.73, -89.1105, 101.963
6.92753, 68, -5.74384, -5.23946, 28.4559, -153.726, -89.4585, 102.05
6.9354, 68, -5.64419, -4.84671, 28.2451, -153.717, -89.8048, 102.119
6.94358, 68, -5.54616, -4.4592, 28.0381, -153.704, -90.1501, 102.169
6.9516, 69, -5.44992, -4.07656, 27.834, -153.687, -90.494, 102.2
6.95942, 69, -5.35557, -3.69777, 27.6343, -153.665, -90.8369, 102.214
6.96895, 69, -5.21734, -3.13773, 27.3432, -153.623, -91.3477, 102.198
6.97691, 69, -5.12748, -2.77, 27.1535, -153.59, -91.6858, 102.162
6.98501, 69, -5.03929, -2.40573, 26.9684, -153.554, -92.0212, 102.105
6.99341, 70, -4.95259, -2.04597, 26.7879, -153.514, -92.3542, 102.025
6.99959, 70, -4.90971, -1.86793, 26.6991, -153.492, -92.5198, 101.978
7.00752, 70, -4.8249, -1.51573, 26.524, -153.445, -92.8493, 101.866
7.01885, 70, -4.69968, -0.997662, 26.2699, -153.371, -93.3392, 101.658
7.02356, 70, -4.65849, -0.827484, 26.1875, -153.344, -93.5014, 101.577
7.03141, 71, -4.57686, -0.49198, 26.0252, -153.288, -93.8241, 101.4
7.03948, 71, -4.49625, -0.162273, 25.8666, -153.23, -94.1449, 101.201
7.04753, 71, -4.41666, 0.160759, 25.7129, -153.168, -94.4636, 100.98
7.05547, 71, -4.33786, 0.477891, 25.564, -153.105, -94.7798, 100.738
7.06341, 71, -4.25981, 0.789336, 25.4194, -153.039, -95.0936, 100.474
7.07159, 72, -4.18268, 1.09398, 25.2789, -152.971, -95.4046, 100.191
7.08037, 72, -4.10607, 1.39249, 25.1426, -152.902, -95.7124, 99.8858
7.08747, 72, -4.02964, 1.68382, 25.0101, -152.831, -96.0168, 99.5607
7.09547, 72, -3.95348, 1.96852, 24.8812, -152.759, -96.3177, 99.2154
7.10343, 72, -3.87732, 2.24701, 24.7558, -152.686, -96.6147, 98.8501
7.11141, 72, -3.80117, 2.51821, 24.6338, -152.613, -96.9081, 98.4649
7.11963, 73, -3.7251, 2.7829, 24.5152, -152.539, -97.198, 98.0595
7.12766, 73, -3.64891, 3.04065, 24.4003, -152.465, -97.4845, 97.6343
7.1354, 73, -3.57254, 3.29126, 24.2892, -152.392, -97.7677, 97.1889
7.1438, 73, -3.49593, 3.5356, 24.182, -152.319, -98.0471, 96.7253
7.15226, 73, -3.41902, 3.77309, 24.0788, -152.248, -98.3227, 96.2425
7.16039, 74, -3.34145, 4.00238, 23.9794, -152.177, -98.5938, 95.7417
7.16947, 74, -3.2632, 4.22374, 23.8837, -152.108, -98.8597, 95.2238
7.17548, 74, -3.18418, 4.43689, 23.7917, -152.04, -99.1201, 94.6903
7.18342, 74, -3.10442, 4.64055, 23.7036, -151.974, -99.3745, 94.1425
7.19141, 74, -3.02385, 4.83496, 23.6195, -151.911, -99.6225, 93.58
7.19964, 75, -2.94237, 5.02058, 23.5395, -151.85, -99.8636, 93.0043
7.20746, 75, -2.85993, 5.19671, 23.4636, -151.793, -100.098, 92.4162
7.21554, 75, -2.77656, 5.36222, 23.3917, -151.737, -100.324, 91.817
7.22344, 75, -2.69232, 5.5174, 23.3239, -151.685, -100.542, 91.207
7.23161, 75, -2.60716, 5.66216, 23.2604, -151.637, -100.752, 90.588
7.23951, 76, -2.52106, 5.79564, 23.2013, -151.591, -100.952, 89.9621
7.2477, 76, -2.434, 5.91749, 23.147, -151.551, -101.143, 89.3298
7.25639, 76, -2.34601, 6.02734, 23.0973, -151.514, -101.322, 88.6918
7.26352, 76, -2.25727, 6.1248, 23.0521, -151.48, -101.491, 88.0502
7.27175, 76, -2.16765, 6.20948, 23.0116, -151.45, -101.647, 87.4058
7.28044, 77, -2.0771, 6.2809, 22.9761, -151.424, -101.792, 86.7578
7.28749, 77, -1.98564, 6.33884, 22.9457, -151.403, -101.924, 86.1089
7.29544, 77, -1.89333, 6.38308, 22.9207, -151.385, -102.043, 85.4602
7.30433, 77, -1.80026, 6.41291, 22.9012, -151.372, -102.148, 84.8114
7.31171, 77, -1.70647, 6.42858, 22.8876, -151.362, -102.24, 84.1636
7.31994, 78, -1.61204, 6.42985, 22.8797, -151.356, -102.316, 83.5197
7.32884, 78, -1.51691, 6.41616, 22.8773, -151.353, -102.378, 82.8798
7.33576, 78, -1.42108, 6.3874, 22.8807, -151.353, -102.424, 82.245
7.34464, 78, -1.32486, 6.343, 22.8903, -151.356, -102.453, 81.6172
7.35186, 78, -1.22818, 6.28233, 22.9062, -151.363, -102.467, 80.997
7.36028, 78, -1.13121, 6.20534, 22.9288, -151.372, -102.465, 80.3838
7.36901, 79, -1.0341, 6.11189, 22.9584, -151.385, -102.444, 79.7772
7.3768, 79, -0.936797, 6.00209, 22.9954, -151.401, -102.406, 79.1779
7.3848, 79, -0.839598, 5.87602, 23.0399, -151.42, -102.35, 78.586
7.3938, 79, -0.742437, 5.73333, 23.0922, -151.442, -102.276, 78.0009
7.40022, 79, -0.645366, 5.57419, 23.1522, -151.467, -102.184, 77.424
7.4074, 80, -0.596785, 5.4884, 23.1851, -151.48, -102.132, 77.1392
7.41642, 80, -0.451074, 5.20654, 23.2955, -151.522, -101.945, 76.3012
7.42339, 80, -0.402564, 5.10433, 23.3363, -151.537, -101.873, 76.027
7.4314, 80, -0.305585, 4.88694, 23.4241, -151.567, -101.716, 75.487
7.43945, 80, -0.208643, 4.65102, 23.5201, -151.6, -101.54, 74.9579
7.44761, 81, -0.1118, 4.39783, 23.6247, -151.633, -101.345, 74.4404
7.45543, 81, -0.015231, 4.12833, 23.738, -151.667, -101.131, 73.9329
7.46339, 81, 0.0810819, 3.84199, 23.8603, -151.702, -100.899, 73.4353
7.47156, 81, 0.177197, 3.53964, 23.9919, -151.738, -100.648, 72.9472
7.47952, 81, 0.273041, 3.22016, 24.1332, -151.775, -100.377, 72.4693
7.48981, 82, 0.416519, 2.70944, 24.363, -151.83, -99.937, 71.7704
7.49742, 82, 0.511908, 2.3483, 24.5275, -151.867, -99.6197, 71.3166
7.50674, 82, 0.607242, 1.9715, 24.7013, -151.905, -99.2841, 70.8722
7.51146, 82, 0.654822, 1.77659, 24.7918, -151.923, -99.1096, 70.6534
7.52108, 82, 0.797326, 1.16662, 25.0777, -151.977, -98.559, 70.0123
7.52736, 83, 0.844786, 0.955094, 25.1777, -151.994, -98.3668, 69.8031
7.53639, 83, 0.93965, 0.520918, 25.3857, -152.03, -97.9695, 69.3915
7.5517, 83, 1.12951, -0.393215, 25.8333, -152.097, -97.1238, 68.5951
7.55452, 83, 1.17706, -0.631281, 25.9511, -152.113, -96.9019, 68.4013
7.56251, 83, 1.27229, -1.11868, 26.1949, -152.144, -96.446, 68.0206
7.56739, 83, 1.31995, -1.36779, 26.3208, -152.16, -96.2121, 67.8336
7.57881, 84, 1.46339, -2.1361, 26.7135, -152.204, -95.4865, 67.2843
7.58628, 84, 1.51131, -2.39887, 26.8498, -152.218, -95.237, 66.9282
7.59141, 84, 1.60735, -2.93487, 27.1298, -152.244, -94.7261, 66.7531
7.59946, 84, 1.7038, -3.48421, 27.42, -152.268, -94.2004, 66.4087
7.60741, 84, 1.80083, -4.04674, 27.7206, -152.29, -93.6604, 66.0718
7.61539, 85, 1.89821, -4.62161, 28.0308, -152.311, -93.1057, 65.7436
7.62345, 85, 1.99595, -5.2071, 28.3506, -152.33, -92.5369, 65.4238
7.63141, 85, 2.09418, -5.80268, 28.6791, -152.346, -91.9566, 65.1122
7.63939, 85, 2.19301, -6.40727, 29.0167, -152.36, -91.3655, 64.8094
7.64765, 86, 2.2925, -7.01986, 29.3626, -152.371, -90.7642, 64.5163
7.65916, 86, 2.44279, -7.9518, 29.8953, -152.382, -89.8445, 64.0951
7.66354, 86, 2.49332, -8.26557, 30.0766, -152.384, -89.5334, 63.96
7.67144, 86, 2.59518, -8.89807, 30.4439, -152.386, -88.9057, 63.6984
7.67945, 86, 2.69783, -9.53622, 30.817, -152.386, -88.2741, 63.4485
7.68742, 86, 2.80159, -10.1791, 31.1957, -152.383, -87.6373, 63.2099
7.69548, 87, 2.9062, -10.8259, 31.5808, -152.376, -86.9939, 62.9829
7.70341, 87, 3.01136, -11.4759, 31.9712, -152.365, -86.3446, 62.7674
7.7119, 87, 3.11748, -12.1286, 32.3666, -152.351, -85.6899, 62.5639
7.71977, 87, 3.22433, -12.7833, 32.7676, -152.332, -85.0308, 62.3728
7.72745, 87, 3.33168, -13.4403, 33.1737, -152.31, -84.3677, 62.1944
7.73581, 88, 3.43972, -14.0987, 33.5844, -152.283, -83.7004, 62.0295
7.74348, 88, 3.5485, -14.7586, 33.9988, -152.253, -83.0293, 61.8787
7.75155, 88, 3.65778, -15.4183, 34.4164, -152.219, -82.3558, 61.7427
7.76201, 88, 3.7677, -16.0771, 34.8369, -152.179, -81.6807, 61.6227
7.76853, 88, 3.87807, -16.7348, 35.2597, -152.135, -81.0057, 61.5187
7.77649, 89, 3.98874, -17.3894, 35.6842, -152.087, -80.3315, 61.4326
7.78341, 89, 4.0996, -18.041, 36.1094, -152.034, -79.6575, 61.3642
7.7922, 89, 4.21074, -18.6892, 36.5351, -151.975, -78.9835, 61.3145
7.80138, 89, 4.32221, -19.3345, 36.9614, -151.912, -78.3101, 61.2842
7.80843, 89, 4.43381, -19.9758, 37.3874, -151.842, -77.6407, 61.2726
7.81568, 90, 4.5456, -20.6133, 37.8133, -151.768, -76.9729, 61.2822
7.82365, 90, 4.65785, -21.2471, 38.2402, -151.688, -76.3047, 61.3151
7.83238, 90, 4.76986, -21.877, 38.6676, -151.602, -75.636, 61.3714
7.8438, 90, 4.88152, -22.5028, 39.0955, -151.462, -74.6346, 61.5007
7.84822, 90, 4.99273, -23.1241, 39.5242, -151.412, -74.3014, 61.5569
7.85591, 91, 5.10374, -23.7412, 39.953, -151.307, -73.6344, 61.6889
7.86447, 91, 5.21458, -24.3532, 40.3811, -151.196, -72.967, 61.8488
7.87197, 91, 5.32507, -24.9594, 40.8085, -151.077, -72.3005, 62.0372
7.87995, 91, 5.43526, -25.5592, 41.2337, -150.952, -71.6343, 62.2544
7.88849, 91, 5.54523, -26.1513, 41.6564, -150.821, -70.9704, 62.5014
7.89592, 92, 5.60018, -26.4443, 41.8668, -150.754, -70.6398, 62.7794
7.90439, 92, 5.76556, -27.3112, 42.493, -150.542, -69.6535, 63.0885
7.91145, 92, 5.82106, -27.5959, 42.6997, -150.469, -69.3265, 63.2546
7.91938, 92, 5.93258, -28.1589, 43.1091, -150.319, -68.6749, 63.6104
7.92846, 92, 6.10118, -28.9883, 43.7149, -150.085, -67.7035, 64.207
7.93538, 92, 6.1579, -29.2606, 43.9145, -150.005, -67.382, 64.4226
7.94938, 93, 6.38808, -30.3311, 44.7024, -149.676, -66.0998, 65.3759
7.95146, 93, 6.38808, -30.3311, 44.7024, -149.676, -66.0998, 65.3759
7.95939, 93, 6.50547, -30.8557, 45.0919, -149.507, -65.4575, 65.9087
7.96749, 93, 6.6243, -31.3739, 45.4789, -149.336, -64.8136, 66.4823
7.97538, 93, 6.74493, -31.8858, 45.8626, -149.164, -64.1682, 67.0984
7.98491, 94, 6.93099, -32.6445, 46.4319, -148.904, -63.1966, 68.1058
7.99299, 94, 7.059, -33.143, 46.8063, -148.732, -62.5456, 68.8377
8.00095, 94, 7.19012, -33.6319, 47.1754, -148.563, -61.8932, 69.6178
8.00748, 94, 7.25701, -33.8725, 47.3578, -148.48, -61.5664, 70.0247
8.01537, 94, 7.39444, -34.3458, 47.7166, -148.32, -60.9125, 70.8753
8.02495, 95, 7.53727, -34.8076, 48.066, -148.167, -60.2629, 72.2372
8.03151, 95, 7.68589, -35.2563, 48.4046, -148.026, -59.6189, 72.7104
8.04042, 95, 7.84056, -35.6903, 48.731, -147.897, -58.9812, 73.6875
8.04822, 95, 8.00139, -36.1079, 49.0439, -147.784, -58.3509, 74.7005
8.05642, 95, 8.16862, -36.5061, 49.3415, -147.687, -57.7292, 75.7478
8.06338, 96, 8.3423, -36.8854, 49.6236, -147.609, -57.1189, 76.8283
8.0715, 96, 8.52183, -37.2437, 49.8889, -147.55, -56.5223, 77.9408
8.07938, 96, 8.70593, -37.5789, 50.138, -147.512, -55.9393, 79.0819
8.08738, 96, 8.89435, -37.8891, 50.3698, -147.493, -55.3711, 80.246
8.09685, 96, 9.08655, -38.1744, 50.5826, -147.494, -54.8218, 81.4235
8.10339, 96, 9.28114, -38.4357, 50.7764, -147.518, -54.2944, 82.6114
8.1115, 97, 9.47657, -38.6721, 50.9506, -147.562, -53.7912, 83.8051
8.11939, 97, 9.67175, -38.8844, 51.1043, -147.627, -53.3136, 84.999
8.12744, 97, 9.86591, -39.073, 51.2385, -147.71, -52.8635, 86.1822
8.13537, 97, 10.0584, -39.2363, 51.3535, -147.81, -52.4416, 87.3519
8.14338, 97, 10.2479, -39.3735, 51.4496, -147.925, -52.0486, 88.5006
8.15151, 97, 10.4338, -39.4853, 51.5272, -148.051, -51.6851, 89.6245
8.1594, 98, 10.6168, -39.5719, 51.5867, -148.188, -51.3514, 90.716
8.16737, 98, 10.7978, -39.635, 51.6285, -148.336, -51.0467, 91.7815
8.17541, 98, 10.9773, -39.6752, 51.6524, -148.494, -50.7687, 92.8276
8.18338, 98, 11.155, -39.6924, 51.659, -148.663, -50.514, 93.8695
8.1915, 98, 11.3306, -39.6861, 51.6487, -148.846, -50.2806, 94.9169
8.19939, 98, 11.5055, -39.656, 51.6206, -149.042, -50.0666, 95.9806
8.20746, 98, 11.6804, -39.6024, 51.5747, -149.251, -49.8733, 97.0619
8.21538, 99, 11.8542, -39.526, 51.5107, -149.472, -49.7021, 98.1611
8.2235, 99, 12.0258, -39.4272, 51.4282, -149.703, -49.5558, 99.2687
8.23159, 99, 12.1942, -39.3063, 51.3276, -149.942, -49.4374, 100.376
8.23947, 99, 12.3584, -39.1634, 51.2094, -150.184, -49.3493, 101.471
8.24792, 99, 12.5164, -38.999, 51.0748, -150.426, -49.2911, 102.544
8.25553, 99, 12.6668, -38.8128, 50.9251, -150.666, -49.2636, 103.587
8.26348, 100, 12.8087, -38.602, 50.7603, -150.902, -49.2659, 104.6
8.27153, 100, 12.9418, -38.367, 50.5793, -151.132, -49.2994, 105.583
8.27939, 100, 13.0661, -38.1081, 50.3814, -151.357, -49.3629, 106.539
8.28761, 100, 13.1823, -37.8257, 50.1667, -151.576, -49.4572, 107.475
8.29541, 100, 13.2908, -37.5209, 49.9328, -151.79, -49.5829, 108.39
8.30415, 100, 13.3916, -37.1911, 49.6789, -151.998, -49.7404, 109.29
8.31158, 101, 13.4849, -36.8366, 49.4062, -152.2, -49.9302, 110.175
8.31957, 101, 13.5711, -36.4554, 49.1135, -152.395, -50.1526, 111.043
8.32773, 101, 13.6497, -36.0479, 48.8015, -152.581, -50.4079, 111.896
8.33574, 101, 13.72, -35.6148, 48.4697, -152.759, -50.6962, 112.726
8.35367, 102, 13.8341, -34.6754, 47.7518, -153.08, -51.3726, 114.321
8.35495, 102, 13.8341, -34.6754, 47.7518, -153.08, -51.3726, 114.321
8.35999, 102, 13.8767, -34.1697, 47.3678, -153.222, -51.7599, 115.077
8.36853, 102, 13.9089, -33.6393, 46.9676, -153.35, -52.1786, 115.806
8.3761, 102, 13.9312, -33.0852, 46.5525, -153.464, -52.6287, 116.505
8.38398, 102, 13.9443, -32.5095, 46.124, -153.564, -53.1094, 117.176
8.39193, 102, 13.9477, -32.2135, 45.6815, -153.649, -53.6184, 117.821
8.39992, 103, 13.9488, -31.6056, 45.4547, -153.686, -53.8833, 118.438
8.40837, 103, 13.9376, -30.6576, 44.7551, -153.778, -54.7167, 119.029
8.41537, 103, 13.9307, -30.333, 44.5159, -153.802, -55.0067, 119.315
8.42337, 103, 13.9128, -29.672, 44.0293, -153.839, -55.6025, 119.87
8.43142, 103, 13.8895, -28.9959, 43.5337, -153.865, -56.2188, 120.399
8.43939, 103, 13.8614, -28.307, 43.0309, -153.879, -56.8516, 120.902
8.44737, 104, 13.8287, -27.6081, 42.5233, -153.883, -57.497, 121.378
8.45546, 104, 13.7919, -26.9015, 42.0128, -153.875, -58.1543, 121.83
8.46337, 104, 13.751, -26.1886, 41.5003, -153.858, -58.8238, 122.259
8.47136, 104, 13.7071, -25.4711, 40.9875, -153.833, -59.5028, 122.667
8.47938, 104, 13.6611, -24.7515, 40.4753, -153.799, -60.1891, 123.057
8.48746, 104, 13.6134, -24.0303, 39.9637, -153.757, -60.8804, 123.432
8.49696, 104, 13.5389, -22.9459, 39.1988, -153.684, -61.9256, 123.976
8.50337, 104, 13.5136, -22.5843, 38.9446, -153.658, -62.2757, 124.154
8.51292, 104, 13.437, -21.4993, 38.1844, -153.569, -63.329, 124.683
8.51938, 104, 13.4111, -21.1376, 37.9319, -153.537, -63.6806, 124.858
8.52736, 104, 13.3592, -20.4145, 37.4274, -153.471, -64.3842, 125.207
8.53542, 104, 13.3071, -19.6911, 36.9249, -153.4, -65.0886, 125.554
8.54339, 104, 13.2549, -18.9673, 36.4243, -153.326, -65.7945, 125.9
8.55236, 104, 13.2027, -18.2435, 35.9255, -153.247, -66.5012, 126.246
8.55944, 104, 13.1508, -17.5197, 35.4295, -153.165, -67.2091, 126.59
8.56737, 104, 13.099, -16.7952, 34.9357, -153.078, -67.9165, 126.934
8.57536, 104, 13.0476, -16.071, 34.4437, -152.988, -68.6237, 127.278
8.58343, 104, 12.9966, -15.3466, 33.9538, -152.894, -69.3334, 127.622
8.59136, 104, 12.9457, -14.6215, 33.4661, -152.796, -70.0441, 127.964
8.59938, 104, 12.8952, -13.8958, 32.9809, -152.694, -70.7544, 128.308
8.60742, 104, 12.8452, -13.1703, 32.4983, -152.588, -71.4638, 128.652
8.61549, 104, 12.7955, -12.4444, 32.0185, -152.479, -72.1749, 128.995
8.62342, 104, 12.7459, -11.719, 31.5414, -152.365, -72.8872, 129.34
8.63142, 104, 12.6969, -10.9938, 31.0666, -152.248, -73.5993, 129.685
8.63937, 104, 12.6482, -10.2684, 30.5944, -152.127, -74.3119, 130.03
8.64737, 104, 12.5997, -9.54266, 30.1256, -152.001, -75.0243, 130.376
8.65543, 104, 12.5516, -8.81687, 29.6596, -151.872, -75.7376, 130.724
8.66336, 104, 12.5043, -8.09052, 29.1965, -151.738, -76.4517, 131.072
8.67137, 104, 12.4573, -7.36462, 28.7369, -151.601, -77.1665, 131.422
8.67948, 104, 12.411, -6.63926, 28.2807, -151.459, -77.8817, 131.772
8.68736, 104, 12.3654, -5.91479, 27.8278, -151.314, -78.5951, 132.124
8.69536, 104, 12.3202, -5.19081, 27.3786, -151.164, -79.3087, 132.476
8.70344, 104, 12.2757, -4.46811, 26.9337, -151.01, -80.0231, 132.83
8.71136, 104, 12.2323, -3.74751, 26.4935, -150.852, -80.7373, 133.185
8.71966, 104, 12.1899, -3.03098, 26.0586, -150.69, -81.4485, 133.541
8.72739, 104, 12.1485, -2.32027, 25.6292, -150.525, -82.1553, 133.896
8.73543, 104, 12.1086, -1.6163, 25.2063, -150.356, -82.8587, 134.252
8.74351, 104, 12.0696, -0.920445, 24.7919, -150.184, -83.5561, 134.605
8.75183, 104, 12.0316, -0.234172, 24.3863, -150.011, -84.2446, 134.957
8.75947, 104, 11.9946, 0.441662, 23.9912, -149.836, -84.9215, 135.304
8.76752, 104, 11.9586, 1.10601, 23.608, -149.66, -85.5846, 135.647
8.77548, 104, 11.9238, 1.75745, 23.2369, -149.484, -86.2338, 135.985
8.78389, 104, 11.8903, 2.39474, 22.8785, -149.308, -86.8684, 136.317
8.79235, 104, 11.8576, 3.01584, 22.532, -149.133, -87.4869, 136.642
8.79941, 104, 11.8263, 3.62114, 22.1987, -148.959, -88.0898, 136.96
8.80742, 104, 11.7963, 4.2099, 21.8781, -148.786, -88.6753, 137.272
8.81559, 104, 11.7674, 4.78186, 21.5702, -148.614, -89.243, 137.577
8.82358, 104, 11.74, 5.33707, 21.2739, -148.444, -89.7948, 137.875
8.83165, 104, 11.7137, 5.87507, 20.9893, -148.276, -90.331, 138.166
8.83973, 104, 11.6885, 6.39632, 20.717, -148.11, -90.8507, 138.45
8.84778, 104, 11.6645, 6.90061, 20.4559, -147.947, -91.3543, 138.726
8.85641, 104, 11.6416, 7.38795, 20.2066, -147.786, -91.8406, 138.995
8.86469, 104, 11.62, 7.85882, 19.9683, -147.627, -92.3095, 139.256
8.87189, 104, 11.5994, 8.31296, 19.7406, -147.472, -92.7621, 139.51
8.88063, 104, 11.5801, 8.7503, 19.5243, -147.321, -93.1982, 139.756
8.88791, 104, 11.5618, 9.16973, 19.3184, -147.173, -93.6176, 139.994
8.89651, 104, 11.5446, 9.57243, 19.1225, -147.028, -94.0201, 140.223
8.90469, 104, 11.5364, 9.76695, 19.0286, -146.889, -94.4053, 140.443
8.91135, 104, 11.5208, 10.1424, 18.849, -146.82, -94.5911, 140.55
8.91937, 104, 11.5063, 10.4988, 18.6798, -146.688, -94.9491, 140.757
8.9284, 104, 11.4864, 10.9976, 18.4453, -146.499, -95.4504, 141.048
8.93534, 104, 11.4803, 11.1541, 18.3727, -146.439, -95.6076, 141.14
8.94338, 104, 11.4688, 11.4512, 18.2355, -146.325, -95.9067, 141.315
8.9514, 104, 11.4584, 11.7279, 18.1087, -146.217, -96.1849, 141.478
8.95941, 104, 11.449, 11.9834, 17.9925, -146.117, -96.4416, 141.63
8.96735, 104, 11.4402, 12.2175, 17.887, -146.024, -96.6766, 141.769
8.9754, 104, 11.4322, 12.4308, 17.7919, -145.94, -96.8896, 141.896
8.98335, 104, 11.425, 12.623, 17.7073, -145.863, -97.0806, 142.01
8.99285, 104, 11.4157, 12.8715, 17.5994, -145.765, -97.3258, 142.156
9.00098, 104, 11.4102, 13.0119, 17.5398, -145.71, -97.4619, 142.238
9.00735, 104, 11.4077, 13.0749, 17.5135, -145.685, -97.5218, 142.274
9.01693, 104, 11.4006, 13.2359, 17.4485, -145.625, -97.6709, 142.363
9.0234, 104, 11.3985, 13.2805, 17.4309, -145.609, -97.711, 142.387
9.03299, 104, 11.3946, 13.3579, 17.3896, -145.57, -97.8048, 142.444
9.03936, 104, 11.391, 13.4208, 17.3794, -145.56, -97.8279, 142.458
9.04742, 104, 11.3878, 13.4711, 17.3632, -145.545, -97.8645, 142.48
9.05643, 104, 11.3851, 13.5099, 17.3518, -145.534, -97.89, 142.495
9.06341, 104, 11.383, 13.5389, 17.3445, -145.527, -97.9072, 142.505
9.07141, 104, 11.3813, 13.5605, 17.3399, -145.523, -97.9177, 142.51
9.07936, 104, 11.3799, 13.5758, 17.3373, -145.521, -97.9234, 142.513
9.08735, 104, 11.3789, 13.5862, 17.3359, -145.519, -97.9265, 142.515
9.09538, 105, 11.3781, 13.5932, 17.3352, -145.519, -97.9279, 142.515
9.10334, 105, 11.3776, 13.5979, 17.3349, -145.519, -97.9286, 142.516
9.11137, 105, 11.3772, 13.601, 17.3348, -145.518, -97.9288, 142.516
9.11942, 105, 11.3768, 13.6033, 17.3347, -145.518, -97.929, 142.516
9.12739, 105, 11.3766, 13.6052, 17.3347, -145.518, -97.929, 142.516
9.13534, 105, 11.3764, 13.6069, 17.3347, -145.518, -97.9291, 142.516
9.14341, 105, 11.3763, 13.6083, 17.3347, -145.518, -97.929, 142.516
9.15134, 105, 11.3762, 13.6096, 17.3347, -145.518, -97.9289, 142.516
9.15935, 105, 11.3761, 13.6106, 17.3347, -145.518, -97.9287, 142.516
9.16741, 105, 11.376, 13.6115, 17.3347, -145.518, -97.9286, 142.516
9.17534, 105, 11.376, 13.6122, 17.3347, -145.518, -97.9284, 142.516
9.18338, 105, 11.376, 13.6127, 17.3347, -145.518, -97.9283, 142.516
9.19141, 105, 11.376, 13.6131, 17.3348, -145.518, -97.9282, 142.516
9.19936, 105, 11.376, 13.6132, 17.3348, -145.518, -97.928, 142.516
9.20735, 105, 11.376, 13.6133, 17.3349, -145.519, -97.9278, 142.516
9.21542, 105, 11.376, 13.6134, 17.3349, -145.519, -97.9276, 142.516
