hehonglu123/Motion-Primitive-Planning/simulation/robotstudio_sim/scripts/recorded_data/curve_exe_v1000_z50.csv
timestamp, cmd_num, J1, J2, J3, J4, J5, J6
0, -1, 3.56316, 59.0974, -65.6057, 2.04179, -35.0544, 181.376
0.002, -1, 3.56316, 59.0974, -65.6057, 2.04179, -35.0544, 181.376
0.006, -1, 3.56316, 59.0974, -65.6057, 2.04179, -35.0544, 181.376
0.008, -1, 3.56316, 59.0974, -65.6057, 2.04179, -35.0544, 181.376
0.011, -1, 3.56316, 59.0974, -65.6057, 2.04179, -35.0544, 181.376
0.016, -1, 3.56316, 59.0974, -65.6057, 2.04179, -35.0544, 181.376
0.02, -1, 3.56316, 59.0974, -65.6057, 2.04179, -35.0544, 181.376
0.024, -1, 3.56316, 59.0974, -65.6057, 2.04179, -35.0544, 181.376
0.028, -1, 3.56316, 59.0974, -65.6057, 2.04179, -35.0544, 181.376
0.032, -1, 3.56315, 59.0974, -65.6057, 2.04179, -35.0544, 181.376
0.036, -1, 3.56311, 59.0974, -65.6057, 2.04178, -35.0544, 181.376
0.04, -1, 3.56295, 59.0973, -65.6057, 2.04172, -35.0544, 181.376
0.044, -1, 3.56256, 59.0971, -65.6058, 2.04151, -35.0547, 181.375
0.048, -1, 3.56184, 59.0966, -65.6059, 2.0409, -35.0553, 181.375
0.052, -1, 3.56072, 59.0958, -65.606, 2.03946, -35.0568, 181.375
0.056, -1, 3.55919, 59.0945, -65.6059, 2.03647, -35.06, 181.374
0.06, -1, 3.55731, 59.0928, -65.6056, 2.03097, -35.0658, 181.372
0.064, -1, 3.55519, 59.0905, -65.6047, 2.02175, -35.0755, 181.369
0.068, -1, 3.55297, 59.0877, -65.6029, 2.00745, -35.0905, 181.364
0.072, -1, 3.55079, 59.0844, -65.6, 1.98671, -35.1123, 181.357
0.076, -1, 3.54871, 59.0806, -65.5956, 1.95822, -35.1423, 181.347
0.08, -1, 3.54671, 59.0761, -65.5896, 1.92089, -35.1815, 181.335
0.084, -1, 3.54477, 59.0711, -65.5817, 1.87385, -35.231, 181.319
0.088, -1, 3.54284, 59.0653, -65.572, 1.81648, -35.2913, 181.299
0.092, -1, 3.54093, 59.0588, -65.5602, 1.74843, -35.3629, 181.276
0.096, -1, 3.53908, 59.0517, -65.5464, 1.66964, -35.4457, 181.249
0.1, -1, 3.53734, 59.0439, -65.5306, 1.58033, -35.5396, 181.218
0.104, -1, 3.53578, 59.0355, -65.5129, 1.48107, -35.6439, 181.185
0.108, -1, 3.53438, 59.0265, -65.4935, 1.37274, -35.7578, 181.148
0.112, -1, 3.53305, 59.017, -65.4726, 1.25648, -35.88, 181.108
0.116, -1, 3.53167, 59.0068, -65.4506, 1.13362, -36.0092, 181.066
0.12, -1, 3.5301, 58.9961, -65.4277, 1.00551, -36.1439, 181.022
0.124, -1, 3.52822, 58.9848, -65.4042, 0.873426, -36.2827, 180.977
0.128, -1, 3.52594, 58.973, -65.3803, 0.738463, -36.4246, 180.931
0.131, -1, 3.52327, 58.9607, -65.3562, 0.6015, -36.5686, 180.884
0.136, -1, 3.52027, 58.9482, -65.332, 0.463191, -36.714, 180.837
0.139, -1, 3.51702, 58.9354, -65.3077, 0.323999, -36.8603, 180.789
0.144, -1, 3.5136, 58.9224, -65.2834, 0.184241, -37.0073, 180.742
0.148, -1, 3.51008, 58.9094, -65.259, 0.0441352, -37.1546, 180.694
0.152, -1, 3.50647, 58.8963, -65.2346, -0.0961733, -37.3021, 180.646
0.156, -1, 3.50282, 58.8831, -65.2102, -0.236585, -37.4497, 180.598
0.16, -1, 3.49913, 58.87, -65.1858, -0.377032, -37.5974, 180.55
0.164, -1, 3.49542, 58.8568, -65.1614, -0.517468, -37.745, 180.502
0.168, -1, 3.49169, 58.8436, -65.137, -0.657865, -37.8926, 180.454
0.172, -1, 3.48796, 58.8304, -65.1126, -0.798199, -38.0402, 180.406
0.176, -1, 3.48422, 58.8172, -65.0883, -0.938458, -38.1876, 180.359
0.18, -1, 3.48048, 58.8041, -65.0639, -1.07863, -38.335, 180.311
0.184, -1, 3.47674, 58.7909, -65.0396, -1.21871, -38.4823, 180.263
0.188, -1, 3.473, 58.7777, -65.0153, -1.3587, -38.6294, 180.215
0.192, -1, 3.46926, 58.7646, -64.991, -1.49858, -38.7765, 180.167
0.196, -1, 3.46553, 58.7514, -64.9668, -1.63837, -38.9235, 180.12
0.2, -1, 3.46179, 58.7383, -64.9425, -1.77805, -39.0703, 180.072
0.204, -1, 3.45806, 58.7252, -64.9183, -1.91763, -39.2171, 180.024
0.208, -1, 3.45433, 58.712, -64.8941, -2.05711, -39.3637, 179.977
0.212, -1, 3.4506, 58.6989, -64.8699, -2.19648, -39.5102, 179.929
0.216, -1, 3.44688, 58.6858, -64.8457, -2.33574, -39.6567, 179.882
0.22, -1, 3.44315, 58.6727, -64.8216, -2.4749, -39.803, 179.834
0.224, -1, 3.43944, 58.6597, -64.7974, -2.61396, -39.9492, 179.787
0.228, -1, 3.43572, 58.6466, -64.7733, -2.75291, -40.0952, 179.739
0.232, -1, 3.432, 58.6335, -64.7492, -2.89175, -40.2412, 179.692
0.236, -1, 3.42829, 58.6205, -64.7251, -3.03049, -40.3871, 179.645
0.24, -1, 3.42459, 58.6074, -64.7011, -3.16913, -40.5328, 179.597
0.244, -1, 3.42088, 58.5944, -64.677, -3.30766, -40.6785, 179.55
0.248, -1, 3.41718, 58.5814, -64.653, -3.44608, -40.824, 179.503
0.252, -1, 3.41348, 58.5684, -64.629, -3.5844, -40.9694, 179.456
0.256, -1, 3.40978, 58.5554, -64.605, -3.72261, -41.1147, 179.408
0.26, -1, 3.40609, 58.5424, -64.581, -3.86072, -41.2599, 179.361
0.264, -1, 3.4024, 58.5294, -64.5571, -3.99872, -41.405, 179.314
0.268, -1, 3.39871, 58.5164, -64.5331, -4.13662, -41.55, 179.267
0.272, -1, 3.39502, 58.5035, -64.5092, -4.27441, -41.6949, 179.22
0.276, -1, 3.39134, 58.4905, -64.4853, -4.41209, -41.8396, 179.173
0.28, -1, 3.38766, 58.4776, -64.4614, -4.54967, -41.9843, 179.126
0.284, -1, 3.38399, 58.4647, -64.4376, -4.68715, -42.1288, 179.079
0.288, -1, 3.38031, 58.4517, -64.4137, -4.82451, -42.2732, 179.032
0.292, -1, 3.37664, 58.4388, -64.3899, -4.96178, -42.4175, 178.986
0.296, -1, 3.37297, 58.4259, -64.3661, -5.09894, -42.5617, 178.939
0.3, -1, 3.3693, 58.413, -64.3423, -5.23599, -42.7058, 178.892
0.304, -1, 3.36564, 58.4001, -64.3185, -5.37294, -42.8498, 178.845
0.308, -1, 3.36198, 58.3873, -64.2948, -5.50978, -42.9937, 178.799
0.312, -1, 3.35832, 58.3744, -64.2711, -5.64652, -43.1374, 178.752
0.316, -1, 3.35467, 58.3616, -64.2473, -5.78315, -43.2811, 178.705
0.32, -1, 3.35101, 58.3487, -64.2236, -5.91968, -43.4246, 178.659
0.324, -1, 3.34736, 58.3359, -64.2, -6.0561, -43.568, 178.612
0.328, -1, 3.34372, 58.3231, -64.1763, -6.19243, -43.7114, 178.566
0.332, -1, 3.34007, 58.3102, -64.1526, -6.32864, -43.8546, 178.519
0.336, -1, 3.33643, 58.2974, -64.129, -6.46476, -43.9977, 178.473
0.34, -1, 3.33279, 58.2847, -64.1054, -6.60077, -44.1407, 178.426
0.344, -1, 3.32916, 58.2719, -64.0818, -6.73668, -44.2836, 178.38
0.348, -1, 3.32552, 58.2591, -64.0583, -6.87249, -44.4263, 178.333
0.352, -1, 3.32189, 58.2463, -64.0347, -7.0082, -44.569, 178.287
0.356, -1, 3.31826, 58.2336, -64.0112, -7.14381, -44.7116, 178.241
0.36, -1, 3.31464, 58.2208, -63.9876, -7.27932, -44.8541, 178.195
0.364, -1, 3.31102, 58.2081, -63.9641, -7.41472, -44.9964, 178.148
0.368, -1, 3.3074, 58.1954, -63.9406, -7.55003, -45.1387, 178.102
0.372, -1, 3.30378, 58.1826, -63.9172, -7.68523, -45.2808, 178.056
0.376, -1, 3.30017, 58.1699, -63.8937, -7.82034, -45.4229, 178.01
0.38, -1, 3.29655, 58.1572, -63.8703, -7.95534, -45.5648, 177.964
0.384, -1, 3.29295, 58.1445, -63.8469, -8.09025, -45.7066, 177.918
0.388, -1, 3.28934, 58.1319, -63.8235, -8.22505, -45.8484, 177.872
0.392, -1, 3.28574, 58.1192, -63.8001, -8.35976, -45.99, 177.826
0.396, -1, 3.28214, 58.1065, -63.7767, -8.49437, -46.1315, 177.78
0.4, -1, 3.27854, 58.0939, -63.7534, -8.62888, -46.2729, 177.734
0.404, -1, 3.27494, 58.0812, -63.73, -8.76329, -46.4142, 177.688
0.408, -1, 3.27135, 58.0686, -63.7067, -8.8976, -46.5554, 177.642
0.412, -1, 3.26776, 58.056, -63.6834, -9.03181, -46.6965, 177.597
0.416, -1, 3.26417, 58.0434, -63.6602, -9.16593, -46.8375, 177.551
0.42, -1, 3.26059, 58.0308, -63.6369, -9.29994, -46.9784, 177.505
0.424, -1, 3.257, 58.0182, -63.6137, -9.43386, -47.1192, 177.459
0.428, -1, 3.25343, 58.0056, -63.5904, -9.56768, -47.2599, 177.414
0.432, -1, 3.24985, 57.993, -63.5672, -9.70141, -47.4005, 177.368
0.436, -1, 3.24627, 57.9804, -63.544, -9.83503, -47.541, 177.322
0.44, -1, 3.2427, 57.9679, -63.5208, -9.96856, -47.6814, 177.277
0.444, -1, 3.23913, 57.9553, -63.4977, -10.102, -47.8217, 177.231
0.448, -1, 3.23557, 57.9428, -63.4745, -10.2353, -47.9619, 177.186
0.452, -1, 3.232, 57.9302, -63.4514, -10.3686, -48.1019, 177.14
0.456, -1, 3.22844, 57.9177, -63.4283, -10.5017, -48.2419, 177.095
0.46, -1, 3.22488, 57.9052, -63.4052, -10.6347, -48.3818, 177.05
0.464, -1, 3.22133, 57.8927, -63.3821, -10.7677, -48.5216, 177.004
0.468, -1, 3.21777, 57.8802, -63.3591, -10.9005, -48.6612, 176.959
0.472, -1, 3.21422, 57.8677, -63.336, -11.0333, -48.8008, 176.914
0.476, -1, 3.21067, 57.8552, -63.313, -11.166, -48.9403, 176.868
0.48, -1, 3.20713, 57.8428, -63.29, -11.2985, -49.0796, 176.823
0.484, -1, 3.20358, 57.8303, -63.267, -11.431, -49.2189, 176.778
0.488, -1, 3.20004, 57.8179, -63.244, -11.5634, -49.3581, 176.733
0.492, -1, 3.1965, 57.8054, -63.2211, -11.6956, -49.4972, 176.688
0.496, -1, 3.19297, 57.793, -63.1981, -11.8278, -49.6361, 176.642
0.5, -1, 3.18944, 57.7806, -63.1752, -11.9599, -49.775, 176.597
0.504, -1, 3.1859, 57.7681, -63.1523, -12.0919, -49.9138, 176.552
0.508, -1, 3.18238, 57.7557, -63.1294, -12.2238, -50.0524, 176.507
0.512, -1, 3.17885, 57.7433, -63.1065, -12.3556, -50.191, 176.462
0.516, -1, 3.17533, 57.7309, -63.0836, -12.4873, -50.3295, 176.417
0.52, -1, 3.17181, 57.7186, -63.0608, -12.6189, -50.4679, 176.372
0.524, -1, 3.16829, 57.7062, -63.038, -12.7505, -50.6061, 176.328
0.528, -1, 3.16477, 57.6938, -63.0152, -12.8819, -50.7443, 176.283
0.532, -1, 3.16126, 57.6815, -62.9924, -13.0132, -50.8824, 176.238
0.536, -1, 3.15775, 57.6691, -62.9696, -13.1445, -51.0204, 176.193
0.54, -1, 3.15424, 57.6568, -62.9468, -13.2756, -51.1582, 176.148
0.544, -1, 3.15074, 57.6445, -62.9241, -13.4067, -51.296, 176.104
0.548, -1, 3.14724, 57.6322, -62.9013, -13.5376, -51.4337, 176.059
0.552, -1, 3.14373, 57.6198, -62.8786, -13.6685, -51.5713, 176.014
0.556, -1, 3.14024, 57.6075, -62.8559, -13.7993, -51.7088, 175.97
0.56, -1, 3.13674, 57.5952, -62.8332, -13.9299, -51.8462, 175.925
0.564, -1, 3.13325, 57.583, -62.8106, -14.0605, -51.9835, 175.88
0.568, -1, 3.12975, 57.5707, -62.7879, -14.191, -52.1207, 175.836
0.572, -1, 3.12627, 57.5584, -62.7653, -14.3214, -52.2578, 175.791
0.576, -1, 3.12278, 57.5462, -62.7427, -14.4518, -52.3948, 175.747
0.58, -1, 3.11929, 57.5339, -62.7201, -14.582, -52.5317, 175.703
0.584, -1, 3.11581, 57.5217, -62.6975, -14.7121, -52.6685, 175.658
0.588, -1, 3.11233, 57.5094, -62.6749, -14.8422, -52.8053, 175.614
0.592, -1, 3.10886, 57.4972, -62.6523, -14.9722, -52.9419, 175.569
0.596, -1, 3.10538, 57.485, -62.6298, -15.102, -53.0785, 175.525
0.6, -1, 3.10191, 57.4728, -62.6073, -15.2318, -53.2149, 175.481
0.604, -1, 3.09844, 57.4606, -62.5848, -15.3615, -53.3513, 175.437
0.608, -1, 3.09497, 57.4484, -62.5623, -15.4911, -53.4875, 175.392
0.612, -1, 3.09151, 57.4362, -62.5398, -15.6207, -53.6237, 175.348
0.616, -1, 3.08805, 57.424, -62.5173, -15.7501, -53.7598, 175.304
0.62, -1, 3.08458, 57.4119, -62.4949, -15.8795, -53.8958, 175.26
0.624, -1, 3.08113, 57.3997, -62.4724, -16.0087, -54.0317, 175.216
0.628, -1, 3.07767, 57.3876, -62.45, -16.1379, -54.1675, 175.172
0.632, -1, 3.07422, 57.3754, -62.4276, -16.267, -54.3033, 175.127
0.636, -1, 3.07077, 57.3633, -62.4052, -16.3961, -54.4389, 175.083
0.64, -1, 3.06732, 57.3511, -62.3828, -16.525, -54.5745, 175.039
0.644, -1, 3.06387, 57.339, -62.3604, -16.6539, -54.71, 174.995
0.648, -1, 3.06043, 57.3269, -62.3381, -16.7826, -54.8453, 174.952
0.652, -1, 3.05698, 57.3148, -62.3157, -16.9113, -54.9806, 174.908
0.656, -1, 3.05354, 57.3027, -62.2934, -17.0399, -55.1158, 174.864
0.66, -1, 3.05011, 57.2906, -62.2711, -17.1684, -55.251, 174.82
0.664, -1, 3.04667, 57.2785, -62.2488, -17.2969, -55.386, 174.776
0.668, -1, 3.04324, 57.2665, -62.2265, -17.4252, -55.5209, 174.732
0.672, -1, 3.03981, 57.2544, -62.2043, -17.5535, -55.6558, 174.688
0.676, -1, 3.03638, 57.2423, -62.182, -17.6817, -55.7906, 174.645
0.68, -1, 3.03295, 57.2303, -62.1598, -17.8098, -55.9253, 174.601
0.684, -1, 3.02953, 57.2183, -62.1376, -17.9378, -56.0599, 174.557
0.688, -1, 3.0261, 57.2062, -62.1154, -18.0658, -56.1944, 174.514
0.692, -1, 3.02268, 57.1942, -62.0932, -18.1936, -56.3288, 174.47
0.696, -1, 3.01926, 57.1822, -62.071, -18.3214, -56.4632, 174.426
0.7, -1, 3.01585, 57.1702, -62.0488, -18.4491, -56.5974, 174.383
0.704, -1, 3.01243, 57.1581, -62.0267, -18.5768, -56.7316, 174.339
0.708, -1, 3.00902, 57.1462, -62.0045, -18.7043, -56.8657, 174.296
0.712, -1, 3.00561, 57.1342, -61.9824, -18.8318, -56.9997, 174.252
0.716, -1, 3.00221, 57.1222, -61.9603, -18.9592, -57.1336, 174.209
0.72, -1, 2.9988, 57.1102, -61.9382, -19.0865, -57.2675, 174.165
0.724, -1, 2.9954, 57.0982, -61.9161, -19.2137, -57.4013, 174.122
0.728, -1, 2.992, 57.0863, -61.894, -19.3409, -57.5349, 174.079
0.732, -1, 2.9886, 57.0743, -61.872, -19.4679, -57.6685, 174.035
0.736, -1, 2.9852, 57.0624, -61.8499, -19.5949, -57.8021, 173.992
0.74, -1, 2.98181, 57.0504, -61.8279, -19.7219, -57.9355, 173.949
0.744, -1, 2.97841, 57.0385, -61.8059, -19.8487, -58.0688, 173.905
0.748, -1, 2.97502, 57.0266, -61.7839, -19.9755, -58.2021, 173.862
0.752, -1, 2.97163, 57.0147, -61.7619, -20.1021, -58.3353, 173.819
0.756, -1, 2.96825, 57.0028, -61.7399, -20.2288, -58.4684, 173.776
0.76, -1, 2.96486, 56.9909, -61.718, -20.3553, -58.6015, 173.732
0.764, -1, 2.96148, 56.979, -61.696, -20.4818, -58.7344, 173.689
0.768, -1, 2.9581, 56.9671, -61.6741, -20.6081, -58.8673, 173.646
0.772, -1, 2.95472, 56.9552, -61.6521, -20.7344, -59.0001, 173.603
0.776, -1, 2.95135, 56.9433, -61.6302, -20.8607, -59.1328, 173.56
0.78, -1, 2.94797, 56.9314, -61.6083, -20.9868, -59.2654, 173.517
0.784, -1, 2.9446, 56.9196, -61.5865, -21.1129, -59.398, 173.474
0.788, -1, 2.94123, 56.9077, -61.5646, -21.2389, -59.5304, 173.431
0.792, -1, 2.93786, 56.8959, -61.5427, -21.3648, -59.6628, 173.388
0.796, -1, 2.93449, 56.8841, -61.5209, -21.4907, -59.7952, 173.345
0.8, -1, 2.93113, 56.8722, -61.499, -21.6165, -59.9274, 173.302
0.804, -1, 2.92777, 56.8604, -61.4772, -21.7422, -60.0596, 173.259
0.808, -1, 2.92441, 56.8486, -61.4554, -21.8678, -60.1916, 173.216
0.812, -1, 2.92105, 56.8368, -61.4336, -21.9934, -60.3236, 173.173
0.816, -1, 2.91769, 56.825, -61.4118, -22.1189, -60.4556, 173.13
0.82, -1, 2.91434, 56.8132, -61.3901, -22.2443, -60.5874, 173.088
0.824, -1, 2.91098, 56.8014, -61.3683, -22.3696, -60.7192, 173.045
0.828, -1, 2.90763, 56.7896, -61.3466, -22.4949, -60.8509, 173.002
0.832, -1, 2.90429, 56.7778, -61.3248, -22.6201, -60.9825, 172.959
0.836, -1, 2.90094, 56.7661, -61.3031, -22.7452, -61.1141, 172.917
0.84, -1, 2.89759, 56.7543, -61.2814, -22.8702, -61.2455, 172.874
0.844, -1, 2.89425, 56.7425, -61.2597, -22.9952, -61.3769, 172.831
0.848, -1, 2.89091, 56.7308, -61.238, -23.1201, -61.5083, 172.789
0.852, -1, 2.88757, 56.719, -61.2164, -23.245, -61.6395, 172.746
0.856, -1, 2.88423, 56.7073, -61.1947, -23.3697, -61.7707, 172.704
0.86, -1, 2.8809, 56.6956, -61.1731, -23.4944, -61.9018, 172.661
0.864, -1, 2.87757, 56.6839, -61.1514, -23.619, -62.0328, 172.619
0.868, -1, 2.87423, 56.6721, -61.1298, -23.7436, -62.1637, 172.576
0.872, -1, 2.8709, 56.6604, -61.1082, -23.8681, -62.2946, 172.534
0.876, -1, 2.86758, 56.6487, -61.0866, -23.9925, -62.4254, 172.491
0.88, -1, 2.86425, 56.637, -61.065, -24.1168, -62.5561, 172.449
0.884, -1, 2.86093, 56.6253, -61.0435, -24.2411, -62.6868, 172.406
0.888, -1, 2.8576, 56.6137, -61.0219, -24.3653, -62.8174, 172.364
0.892, -1, 2.85428, 56.602, -61.0004, -24.4894, -62.9479, 172.322
0.896, -1, 2.85097, 56.5903, -60.9788, -24.6135, -63.0783, 172.279
0.9, -1, 2.84765, 56.5786, -60.9573, -24.7375, -63.2087, 172.237
0.904, -1, 2.84433, 56.567, -60.9358, -24.8615, -63.339, 172.195
0.908, -1, 2.84102, 56.5553, -60.9143, -24.9853, -63.4692, 172.152
0.912, -1, 2.83771, 56.5437, -60.8928, -25.1091, -63.5994, 172.11
0.916, -1, 2.8344, 56.532, -60.8713, -25.2329, -63.7295, 172.068
0.92, -1, 2.83109, 56.5204, -60.8499, -25.3565, -63.8595, 172.026
0.924, -1, 2.82778, 56.5088, -60.8284, -25.4802, -63.9895, 171.983
0.928, -1, 2.82448, 56.4972, -60.807, -25.6037, -64.1193, 171.941
0.932, -1, 2.82118, 56.4855, -60.7855, -25.7272, -64.2492, 171.899
0.936, -1, 2.81788, 56.4739, -60.7641, -25.8506, -64.3789, 171.857
0.94, -1, 2.81458, 56.4623, -60.7427, -25.974, -64.5086, 171.815
0.944, -1, 2.81128, 56.4507, -60.7213, -26.0973, -64.6383, 171.773
0.948, -1, 2.80798, 56.4391, -60.6999, -26.2205, -64.7678, 171.731
0.952, -1, 2.80469, 56.4276, -60.6785, -26.3437, -64.8973, 171.689
0.956, -1, 2.80139, 56.416, -60.6571, -26.4668, -65.0267, 171.647
0.96, -1, 2.7981, 56.4044, -60.6358, -26.5898, -65.1561, 171.605
0.964, -1, 2.79481, 56.3928, -60.6144, -26.7128, -65.2854, 171.563
0.968, -1, 2.79153, 56.3813, -60.5931, -26.8357, -65.4146, 171.521
0.972, -1, 2.78824, 56.3697, -60.5718, -26.9586, -65.5438, 171.479
0.976, -1, 2.78496, 56.3582, -60.5505, -27.0814, -65.6729, 171.437
0.98, -1, 2.78167, 56.3466, -60.5292, -27.2042, -65.802, 171.395
0.984, -1, 2.77839, 56.3351, -60.5079, -27.3268, -65.931, 171.353
0.988, -1, 2.77511, 56.3235, -60.4866, -27.4495, -66.0599, 171.311
0.992, -1, 2.77183, 56.312, -60.4653, -27.572, -66.1888, 171.27
0.996, -1, 2.76856, 56.3005, -60.444, -27.6945, -66.3176, 171.228
1, -1, 2.76528, 56.289, -60.4228, -27.817, -66.4463, 171.186
1.004, -1, 2.76201, 56.2775, -60.4015, -27.9394, -66.575, 171.144
1.008, -1, 2.75874, 56.266, -60.3803, -28.0617, -66.7036, 171.102
1.012, -1, 2.75547, 56.2545, -60.3591, -28.184, -66.8322, 171.061
1.016, -1, 2.7522, 56.243, -60.3379, -28.3062, -66.9607, 171.019
1.02, -1, 2.74893, 56.2315, -60.3167, -28.4284, -67.0891, 170.977
1.024, -1, 2.74566, 56.22, -60.2955, -28.5505, -67.2175, 170.936
1.027, -1, 2.7424, 56.2085, -60.2743, -28.6725, -67.3458, 170.894
1.032, -1, 2.73914, 56.197, -60.2531, -28.7945, -67.474, 170.852
1.036, -1, 2.73588, 56.1856, -60.2319, -28.9165, -67.6022, 170.811
1.04, -1, 2.73262, 56.1741, -60.2108, -29.0384, -67.7304, 170.769
1.044, -1, 2.72936, 56.1626, -60.1896, -29.1602, -67.8585, 170.728
1.048, -1, 2.7261, 56.1512, -60.1685, -29.282, -67.9865, 170.686
1.052, -1, 2.72285, 56.1397, -60.1474, -29.4037, -68.1144, 170.644
1.055, -1, 2.71959, 56.1283, -60.1263, -29.5253, -68.2424, 170.603
1.06, -1, 2.71634, 56.1168, -60.1051, -29.6469, -68.3702, 170.561
1.064, -1, 2.71309, 56.1054, -60.0841, -29.7685, -68.498, 170.52
1.068, -1, 2.70984, 56.094, -60.063, -29.89, -68.6257, 170.479
1.072, -1, 2.70659, 56.0826, -60.0419, -30.0114, -68.7534, 170.437
1.076, -1, 2.70334, 56.0711, -60.0208, -30.1328, -68.881, 170.396
1.08, -1, 2.7001, 56.0597, -59.9998, -30.2542, -69.0086, 170.354
1.084, -1, 2.69685, 56.0483, -59.9787, -30.3754, -69.1361, 170.313
1.088, -1, 2.69361, 56.0369, -59.9577, -30.4967, -69.2636, 170.271
1.091, -1, 2.69037, 56.0255, -59.9366, -30.6178, -69.391, 170.23
1.096, -1, 2.68713, 56.0141, -59.9156, -30.739, -69.5183, 170.189
1.1, -1, 2.68389, 56.0027, -59.8946, -30.86, -69.6456, 170.147
1.104, -1, 2.68066, 55.9913, -59.8736, -30.9811, -69.7728, 170.106
1.108, -1, 2.67742, 55.98, -59.8526, -31.102, -69.9, 170.065
1.112, -1, 2.67419, 55.9686, -59.8316, -31.2229, -70.0271, 170.024
1.116, -1, 2.67095, 55.9572, -59.8106, -31.3438, -70.1542, 169.982
1.119, -1, 2.66772, 55.9459, -59.7896, -31.4646, -70.2812, 169.941
1.124, -1, 2.66449, 55.9345, -59.7687, -31.5854, -70.4082, 169.9
1.128, -1, 2.66126, 55.9231, -59.7477, -31.7061, -70.5351, 169.859
1.132, -1, 2.65804, 55.9118, -59.7268, -31.8267, -70.6619, 169.818
1.136, -1, 2.65481, 55.9005, -59.7059, -31.9474, -70.7887, 169.776
1.14, -1, 2.65159, 55.8891, -59.6849, -32.0679, -70.9155, 169.735
1.144, -1, 2.64836, 55.8778, -59.664, -32.1884, -71.0422, 169.694
1.147, -1, 2.64514, 55.8664, -59.6431, -32.3089, -71.1688, 169.653
1.152, -1, 2.64192, 55.8551, -59.6222, -32.4293, -71.2954, 169.612
1.156, -1, 2.6387, 55.8438, -59.6013, -32.5497, -71.422, 169.571
1.16, -1, 2.63549, 55.8325, -59.5804, -32.67, -71.5485, 169.53
1.164, -1, 2.63227, 55.8212, -59.5595, -32.7902, -71.6749, 169.489
1.168, -1, 2.62905, 55.8099, -59.5387, -32.9105, -71.8013, 169.448
1.172, -1, 2.62584, 55.7986, -59.5178, -33.0306, -71.9276, 169.407
1.175, -1, 2.62263, 55.7873, -59.497, -33.1507, -72.0539, 169.366
1.18, -1, 2.61942, 55.776, -59.4761, -33.2708, -72.1802, 169.325
1.184, -1, 2.61621, 55.7647, -59.4553, -33.3908, -72.3064, 169.284
1.188, -1, 2.613, 55.7534, -59.4345, -33.5108, -72.4325, 169.243
1.192, -1, 2.60979, 55.7421, -59.4137, -33.6308, -72.5586, 169.202
1.196, -1, 2.60659, 55.7308, -59.3928, -33.7506, -72.6846, 169.161
1.2, -1, 2.60338, 55.7196, -59.372, -33.8705, -72.8106, 169.12
1.204, -1, 2.60018, 55.7083, -59.3513, -33.9903, -72.9365, 169.079
1.208, -1, 2.59697, 55.697, -59.3305, -34.11, -73.0624, 169.038
1.212, -1, 2.59377, 55.6858, -59.3097, -34.2297, -73.1883, 168.998
1.216, -1, 2.59057, 55.6745, -59.2889, -34.3494, -73.3141, 168.957
1.22, -1, 2.58737, 55.6633, -59.2682, -34.469, -73.4398, 168.916
1.224, -1, 2.58417, 55.652, -59.2474, -34.5885, -73.5655, 168.875
1.228, -1, 2.58098, 55.6408, -59.2267, -34.7081, -73.6912, 168.834
1.232, -1, 2.57778, 55.6295, -59.2059, -34.8275, -73.8168, 168.794
1.236, -1, 2.57459, 55.6183, -59.1852, -34.947, -73.9424, 168.753
1.24, -1, 2.57139, 55.6071, -59.1645, -35.0664, -74.0679, 168.712
1.244, -1, 2.5682, 55.5958, -59.1438, -35.1857, -74.1934, 168.671
1.248, -1, 2.56501, 55.5846, -59.123, -35.305, -74.3188, 168.631
1.252, -1, 2.56182, 55.5734, -59.1023, -35.4243, -74.4442, 168.59
1.256, -1, 2.55863, 55.5622, -59.0817, -35.5435, -74.5695, 168.549
1.26, -1, 2.55545, 55.551, -59.061, -35.6627, -74.6948, 168.509
1.264, -1, 2.55226, 55.5398, -59.0403, -35.7818, -74.8201, 168.468
1.267, -1, 2.54907, 55.5286, -59.0196, -35.9009, -74.9453, 168.427
1.272, -1, 2.54589, 55.5174, -58.9989, -36.02, -75.0705, 168.387
1.276, -1, 2.54271, 55.5062, -58.9783, -36.139, -75.1956, 168.346
1.28, -1, 2.53953, 55.495, -58.9576, -36.258, -75.3207, 168.305
1.284, -1, 2.53634, 55.4838, -58.937, -36.3769, -75.4457, 168.265
1.288, -1, 2.53316, 55.4726, -58.9164, -36.4958, -75.5708, 168.224
1.292, -1, 2.52999, 55.4614, -58.8957, -36.6147, -75.6957, 168.184
1.295, -1, 2.52681, 55.4502, -58.8751, -36.7335, -75.8206, 168.143
1.3, -1, 2.52363, 55.4391, -58.8545, -36.8523, -75.9455, 168.103
1.304, -1, 2.52046, 55.4279, -58.8339, -36.9711, -76.0704, 168.062
1.308, -1, 2.51728, 55.4167, -58.8133, -37.0898, -76.1952, 168.022
1.312, -1, 2.51411, 55.4056, -58.7927, -37.2084, -76.32, 167.981
1.316, -1, 2.51094, 55.3944, -58.7721, -37.3271, -76.4447, 167.941
1.32, -1, 2.50776, 55.3833, -58.7515, -37.4457, -76.5694, 167.9
1.324, -1, 2.50459, 55.3721, -58.7309, -37.5643, -76.6941, 167.86
1.328, -1, 2.50142, 55.361, -58.7103, -37.6828, -76.8187, 167.819
1.332, -1, 2.49826, 55.3498, -58.6898, -37.8013, -76.9433, 167.779
1.336, -1, 2.49509, 55.3387, -58.6692, -37.9197, -77.0678, 167.738
1.34, -1, 2.49192, 55.3275, -58.6486, -38.0382, -77.1923, 167.698
1.344, -1, 2.48875, 55.3164, -58.6281, -38.1566, -77.3168, 167.657
1.348, -1, 2.48559, 55.3052, -58.6075, -38.2749, -77.4412, 167.617
1.352, -1, 2.48243, 55.2941, -58.587, -38.3932, -77.5656, 167.577
1.356, -1, 2.47926, 55.283, -58.5665, -38.5115, -77.6899, 167.536
1.36, -1, 2.4761, 55.2719, -58.546, -38.6298, -77.8143, 167.496
1.364, -1, 2.47294, 55.2608, -58.5254, -38.748, -77.9386, 167.456
1.368, -1, 2.46978, 55.2496, -58.5049, -38.8662, -78.0628, 167.415
1.372, -1, 2.46662, 55.2385, -58.4844, -38.9843, -78.187, 167.375
1.376, -1, 2.46346, 55.2274, -58.4639, -39.1024, -78.3112, 167.335
1.38, -1, 2.4603, 55.2163, -58.4434, -39.2205, -78.4353, 167.294
1.384, -1, 2.45715, 55.2052, -58.4229, -39.3385, -78.5595, 167.254
1.388, -1, 2.45399, 55.1941, -58.4024, -39.4566, -78.6835, 167.214
1.392, -1, 2.45084, 55.183, -58.382, -39.5745, -78.8076, 167.174
1.396, -1, 2.44768, 55.1719, -58.3615, -39.6925, -78.9316, 167.133
1.4, -1, 2.44453, 55.1608, -58.341, -39.8104, -79.0555, 167.093
1.404, -1, 2.44138, 55.1497, -58.3206, -39.9283, -79.1795, 167.053
1.408, -1, 2.43823, 55.1386, -58.3001, -40.0462, -79.3034, 167.013
1.412, -1, 2.43508, 55.1276, -58.2796, -40.164, -79.4273, 166.972
1.416, -1, 2.43193, 55.1165, -58.2592, -40.2818, -79.5511, 166.932
1.42, -1, 2.42878, 55.1054, -58.2388, -40.3995, -79.6749, 166.892
1.424, -1, 2.42563, 55.0943, -58.2183, -40.5173, -79.7987, 166.852
1.428, -1, 2.42248, 55.0833, -58.1979, -40.635, -79.9224, 166.812
1.432, -1, 2.41933, 55.0722, -58.1775, -40.7526, -80.0461, 166.772
1.436, -1, 2.41619, 55.0611, -58.1571, -40.8703, -80.1698, 166.731
1.44, -1, 2.41304, 55.0501, -58.1366, -40.9879, -80.2935, 166.691
1.444, -1, 2.4099, 55.039, -58.1162, -41.1054, -80.4171, 166.651
1.448, -1, 2.40676, 55.0279, -58.0958, -41.223, -80.5407, 166.611
1.452, -1, 2.40361, 55.0169, -58.0754, -41.3405, -80.6642, 166.571
1.456, -1, 2.40047, 55.0058, -58.055, -41.458, -80.7877, 166.531
1.46, -1, 2.39733, 54.9948, -58.0346, -41.5755, -80.9112, 166.491
1.464, -1, 2.39419, 54.9837, -58.0143, -41.6929, -81.0347, 166.451
1.468, -1, 2.39105, 54.9727, -57.9939, -41.8103, -81.1581, 166.411
1.472, -1, 2.38791, 54.9617, -57.9735, -41.9277, -81.2815, 166.371
1.476, -1, 2.38477, 54.9506, -57.9531, -42.045, -81.4049, 166.33
1.48, -1, 2.38164, 54.9396, -57.9328, -42.1623, -81.5282, 166.29
1.484, -1, 2.3785, 54.9285, -57.9124, -42.2796, -81.6516, 166.25
1.488, -1, 2.37536, 54.9175, -57.8921, -42.3969, -81.7748, 166.21
1.492, -1, 2.37223, 54.9065, -57.8717, -42.5141, -81.8981, 166.17
1.496, -1, 2.36909, 54.8955, -57.8514, -42.6313, -82.0213, 166.13
1.5, -1, 2.36596, 54.8844, -57.831, -42.7485, -82.1445, 166.09
1.504, -1, 2.36282, 54.8734, -57.8107, -42.8657, -82.2677, 166.05
1.508, -1, 2.35969, 54.8624, -57.7904, -42.9828, -82.3908, 166.01
1.512, -1, 2.35656, 54.8514, -57.77, -43.0999, -82.5139, 165.971
1.516, -1, 2.35343, 54.8404, -57.7497, -43.217, -82.637, 165.931
1.52, -1, 2.3503, 54.8294, -57.7294, -43.334, -82.7601, 165.891
1.524, -1, 2.34717, 54.8184, -57.7091, -43.4511, -82.8831, 165.851
1.528, -1, 2.34404, 54.8074, -57.6888, -43.5681, -83.0061, 165.811
1.532, -1, 2.34092, 54.7963, -57.6685, -43.685, -83.1291, 165.771
1.536, -1, 2.33779, 54.7854, -57.6482, -43.802, -83.2521, 165.731
1.54, -1, 2.33466, 54.7743, -57.6279, -43.9189, -83.375, 165.691
1.544, -1, 2.33154, 54.7634, -57.6076, -44.0358, -83.4979, 165.651
1.548, -1, 2.32841, 54.7524, -57.5873, -44.1527, -83.6208, 165.611
1.552, -1, 2.32529, 54.7414, -57.567, -44.2695, -83.7436, 165.571
1.556, -1, 2.32217, 54.7304, -57.5467, -44.3864, -83.8665, 165.531
1.56, -1, 2.31904, 54.7194, -57.5265, -44.5032, -83.9893, 165.492
1.564, -1, 2.31592, 54.7084, -57.5062, -44.6199, -84.112, 165.452
1.568, -1, 2.3128, 54.6974, -57.4859, -44.7367, -84.2348, 165.412
1.572, -1, 2.30967, 54.6864, -57.4657, -44.8534, -84.3575, 165.372
1.576, -1, 2.30655, 54.6755, -57.4454, -44.9701, -84.4802, 165.332
1.58, -1, 2.30343, 54.6645, -57.4252, -45.0868, -84.6029, 165.292
1.584, -1, 2.30031, 54.6535, -57.4049, -45.2035, -84.7256, 165.253
1.588, -1, 2.29719, 54.6425, -57.3847, -45.3202, -84.8482, 165.213
1.592, -1, 2.29408, 54.6316, -57.3644, -45.4368, -84.9708, 165.173
1.596, -1, 2.29096, 54.6206, -57.3442, -45.5534, -85.0934, 165.133
1.6, -1, 2.28784, 54.6096, -57.3239, -45.67, -85.216, 165.093
1.604, -1, 2.28472, 54.5987, -57.3037, -45.7865, -85.3385, 165.054
1.608, -1, 2.28161, 54.5877, -57.2835, -45.9031, -85.4611, 165.014
1.612, -1, 2.27849, 54.5767, -57.2632, -46.0196, -85.5836, 164.974
1.616, -1, 2.27538, 54.5658, -57.243, -46.1361, -85.7061, 164.934
1.62, -1, 2.27226, 54.5548, -57.2228, -46.2526, -85.8286, 164.895
1.624, -1, 2.26915, 54.5439, -57.2026, -46.3691, -85.951, 164.855
1.628, -1, 2.26603, 54.5329, -57.1824, -46.4856, -86.0734, 164.815
1.632, -1, 2.26292, 54.522, -57.1622, -46.602, -86.1959, 164.775
1.636, -1, 2.25981, 54.511, -57.142, -46.7184, -86.3183, 164.736
1.64, -1, 2.2567, 54.5001, -57.1217, -46.8348, -86.4407, 164.696
1.644, -1, 2.25358, 54.4891, -57.1015, -46.9512, -86.563, 164.656
1.648, -1, 2.25047, 54.4782, -57.0813, -47.0676, -86.6854, 164.616
1.652, -1, 2.24736, 54.4672, -57.0611, -47.184, -86.8077, 164.577
1.656, -1, 2.24425, 54.4563, -57.041, -47.3003, -86.93, 164.537
1.66, -1, 2.24114, 54.4453, -57.0208, -47.4166, -87.0523, 164.497
1.664, -1, 2.23803, 54.4344, -57.0006, -47.5329, -87.1746, 164.458
1.668, -1, 2.23492, 54.4235, -56.9804, -47.6492, -87.2969, 164.418
1.672, -1, 2.23181, 54.4125, -56.9602, -47.7655, -87.4191, 164.378
1.676, -1, 2.2287, 54.4016, -56.94, -47.8818, -87.5413, 164.339
1.68, -1, 2.22559, 54.3906, -56.9198, -47.998, -87.6635, 164.299
1.684, -1, 2.22249, 54.3797, -56.8997, -48.1142, -87.7858, 164.259
1.688, -1, 2.21938, 54.3688, -56.8795, -48.2305, -87.9079, 164.22
1.692, -1, 2.21627, 54.3578, -56.8593, -48.3467, -88.0301, 164.18
1.696, -1, 2.21317, 54.3469, -56.8392, -48.4628, -88.1523, 164.14
1.7, -1, 2.21006, 54.336, -56.819, -48.579, -88.2744, 164.101
1.704, -1, 2.20695, 54.3251, -56.7988, -48.6952, -88.3965, 164.061
1.708, -1, 2.20385, 54.3141, -56.7787, -48.8113, -88.5186, 164.021
1.712, -1, 2.20074, 54.3032, -56.7585, -48.9275, -88.6407, 163.982
1.716, -1, 2.19764, 54.2923, -56.7384, -49.0436, -88.7628, 163.942
1.72, -1, 2.19453, 54.2814, -56.7182, -49.1597, -88.8849, 163.903
1.724, -1, 2.19143, 54.2705, -56.6981, -49.2758, -89.0069, 163.863
1.728, -1, 2.18832, 54.2595, -56.6779, -49.3919, -89.129, 163.823
1.732, -1, 2.18522, 54.2486, -56.6578, -49.5079, -89.251, 163.784
1.736, -1, 2.18211, 54.2377, -56.6376, -49.624, -89.373, 163.744
1.74, -1, 2.17901, 54.2268, -56.6175, -49.74, -89.495, 163.704
1.744, -1, 2.17591, 54.2159, -56.5973, -49.8561, -89.617, 163.665
1.748, -1, 2.17281, 54.205, -56.5772, -49.9721, -89.739, 163.625
1.752, -1, 2.1697, 54.194, -56.5571, -50.0881, -89.861, 163.586
1.756, -1, 2.1666, 54.1831, -56.5369, -50.2041, -89.9829, 163.546
1.76, -1, 2.1635, 54.1722, -56.5168, -50.3201, -90.1049, 163.507
1.764, -1, 2.1604, 54.1613, -56.4967, -50.4361, -90.2268, 163.467
1.768, -1, 2.1573, 54.1504, -56.4765, -50.552, -90.3487, 163.427
1.772, -1, 2.1542, 54.1395, -56.4564, -50.668, -90.4706, 163.388
1.776, -1, 2.1511, 54.1286, -56.4363, -50.7839, -90.5925, 163.348
1.78, -1, 2.148, 54.1177, -56.4162, -50.8999, -90.7144, 163.309
1.784, -1, 2.1449, 54.1068, -56.396, -51.0158, -90.8363, 163.269
1.788, -1, 2.1418, 54.0959, -56.3759, -51.1317, -90.9582, 163.23
1.792, -1, 2.1387, 54.085, -56.3558, -51.2476, -91.08, 163.19
1.796, -1, 2.1356, 54.0741, -56.3357, -51.3635, -91.2019, 163.15
1.8, -1, 2.1325, 54.0632, -56.3156, -51.4794, -91.3237, 163.111
1.804, -1, 2.1294, 54.0523, -56.2954, -51.5953, -91.4455, 163.071
1.808, -1, 2.12631, 54.0414, -56.2753, -51.7112, -91.5674, 163.032
1.812, -1, 2.12321, 54.0305, -56.2552, -51.827, -91.6892, 162.992
1.816, -1, 2.12011, 54.0196, -56.2351, -51.9429, -91.811, 162.953
1.82, -1, 2.11701, 54.0087, -56.215, -52.0587, -91.9328, 162.913
1.824, -1, 2.11391, 53.9978, -56.1949, -52.1745, -92.0545, 162.874
1.828, -1, 2.11082, 53.9869, -56.1748, -52.2904, -92.1763, 162.834
1.832, -1, 2.10772, 53.976, -56.1547, -52.4062, -92.2981, 162.795
1.836, -1, 2.10462, 53.9651, -56.1346, -52.522, -92.4198, 162.755
1.84, -1, 2.10153, 53.9542, -56.1145, -52.6378, -92.5416, 162.716
1.844, -1, 2.09843, 53.9433, -56.0944, -52.7536, -92.6633, 162.676
1.848, -1, 2.09534, 53.9324, -56.0743, -52.8694, -92.7851, 162.637
1.852, -1, 2.09224, 53.9215, -56.0542, -52.9852, -92.9068, 162.597
1.856, -1, 2.08914, 53.9106, -56.0341, -53.101, -93.0285, 162.558
1.86, -1, 2.08605, 53.8997, -56.014, -53.2167, -93.1502, 162.518
1.864, -1, 2.08295, 53.8889, -55.9939, -53.3325, -93.272, 162.479
1.868, -1, 2.07986, 53.878, -55.9738, -53.4483, -93.3937, 162.439
1.872, -1, 2.07676, 53.8671, -55.9537, -53.564, -93.5154, 162.4
1.876, -1, 2.07367, 53.8562, -55.9336, -53.6798, -93.637, 162.36
1.88, -1, 2.07057, 53.8453, -55.9135, -53.7955, -93.7587, 162.321
1.884, -1, 2.06748, 53.8344, -55.8935, -53.9113, -93.8804, 162.281
1.888, -1, 2.06438, 53.8235, -55.8734, -54.027, -94.0021, 162.242
1.892, -1, 2.06129, 53.8126, -55.8533, -54.1427, -94.1238, 162.202
1.896, -1, 2.05819, 53.8018, -55.8332, -54.2584, -94.2454, 162.163
1.9, -1, 2.0551, 53.7909, -55.8131, -54.3742, -94.3671, 162.123
1.904, -1, 2.05201, 53.78, -55.793, -54.4899, -94.4888, 162.084
1.908, -1, 2.04891, 53.7691, -55.7729, -54.6056, -94.6104, 162.044
1.912, -1, 2.04582, 53.7582, -55.7528, -54.7213, -94.732, 162.005
1.916, -1, 2.04272, 53.7473, -55.7328, -54.837, -94.8537, 161.965
1.92, -1, 2.03963, 53.7365, -55.7127, -54.9527, -94.9753, 161.926
1.924, -1, 2.03654, 53.7256, -55.6926, -55.0684, -95.097, 161.886
1.928, -1, 2.03344, 53.7147, -55.6725, -55.1841, -95.2186, 161.847
1.932, -1, 2.03035, 53.7038, -55.6524, -55.2998, -95.3402, 161.807
1.936, -1, 2.02726, 53.6929, -55.6324, -55.4155, -95.4619, 161.768
1.94, -1, 2.02416, 53.682, -55.6123, -55.5311, -95.5835, 161.728
1.944, -1, 2.02107, 53.6712, -55.5922, -55.6468, -95.7051, 161.689
1.948, -1, 2.01798, 53.6603, -55.5721, -55.7625, -95.8267, 161.649
1.952, -1, 2.01488, 53.6494, -55.552, -55.8782, -95.9484, 161.61
1.956, -1, 2.01179, 53.6385, -55.532, -55.9939, -96.07, 161.57
1.96, -1, 2.0087, 53.6276, -55.5119, -56.1096, -96.1916, 161.531
1.964, -1, 2.0056, 53.6168, -55.4918, -56.2252, -96.3132, 161.491
1.968, -1, 2.00251, 53.6059, -55.4717, -56.3409, -96.4349, 161.452
1.972, -1, 1.99942, 53.595, -55.4516, -56.4566, -96.5565, 161.412
1.976, -1, 1.99633, 53.5841, -55.4316, -56.5723, -96.6781, 161.373
1.98, -1, 1.99323, 53.5732, -55.4115, -56.688, -96.7997, 161.333
1.984, -1, 1.99014, 53.5623, -55.3914, -56.8037, -96.9214, 161.294
1.988, -1, 1.98705, 53.5515, -55.3713, -56.9193, -97.043, 161.254
1.992, -1, 1.98395, 53.5406, -55.3512, -57.035, -97.1646, 161.215
1.996, -1, 1.98086, 53.5297, -55.3312, -57.1507, -97.2862, 161.176
1.999, -1, 1.97777, 53.5188, -55.3111, -57.2664, -97.4079, 161.136
2.004, -1, 1.97467, 53.5079, -55.291, -57.3821, -97.5295, 161.097
2.008, -1, 1.97158, 53.497, -55.2709, -57.4978, -97.6511, 161.057
2.012, -1, 1.96849, 53.4862, -55.2508, -57.6135, -97.7728, 161.018
2.015, -1, 1.96539, 53.4753, -55.2307, -57.7292, -97.8944, 160.978
2.019, -1, 1.9623, 53.4644, -55.2107, -57.8449, -98.0161, 160.939
2.024, -1, 1.95921, 53.4535, -55.1906, -57.9606, -98.1377, 160.899
2.028, -1, 1.95612, 53.4426, -55.1705, -58.0763, -98.2594, 160.86
2.031, -1, 1.95308, 53.4318, -55.1504, -58.192, -98.381, 160.82
2.036, -1, 1.95012, 53.421, -55.1303, -58.3077, -98.5026, 160.781
2.04, -1, 1.9473, 53.4102, -55.1102, -58.4232, -98.624, 160.741
2.044, -1, 1.94468, 53.3996, -55.0901, -58.5383, -98.745, 160.702
2.048, -1, 1.94228, 53.3892, -55.0701, -58.6528, -98.8654, 160.663
2.051, -1, 1.9401, 53.379, -55.0503, -58.7661, -98.9846, 160.624
2.055, -1, 1.93813, 53.3691, -55.0307, -58.8777, -99.1018, 160.586
2.06, -1, 1.93633, 53.3595, -55.0115, -58.9867, -99.2164, 160.549
2.064, -1, 1.93463, 53.3504, -54.9929, -59.0922, -99.3274, 160.513
2.068, -1, 1.93298, 53.3416, -54.9751, -59.1933, -99.4336, 160.478
2.071, -1, 1.93136, 53.3333, -54.9583, -59.2889, -99.5341, 160.446
2.076, -1, 1.92975, 53.3255, -54.9426, -59.3782, -99.6279, 160.415
2.08, -1, 1.92816, 53.3182, -54.9281, -59.4603, -99.7142, 160.387
2.084, -1, 1.92659, 53.3116, -54.9151, -59.5345, -99.7923, 160.362
2.087, -1, 1.92503, 53.3055, -54.9036, -59.6006, -99.8617, 160.339
2.092, -1, 1.92349, 53.3001, -54.8936, -59.6582, -99.9223, 160.319
2.096, -1, 1.92196, 53.2952, -54.8852, -59.7074, -99.9741, 160.303
2.1, -1, 1.92042, 53.291, -54.8782, -59.7486, -100.017, 160.289
2.104, -1, 1.91887, 53.2873, -54.8725, -59.7821, -100.053, 160.277
2.107, -1, 1.91729, 53.2841, -54.8682, -59.8087, -100.081, 160.268
2.111, -1, 1.91573, 53.2815, -54.8648, -59.8293, -100.102, 160.261
2.116, -1, 1.91422, 53.2793, -54.8624, -59.8448, -100.119, 160.256
2.12, -1, 1.91283, 53.2775, -54.8607, -59.8561, -100.13, 160.252
2.124, -1, 1.91161, 53.2762, -54.8595, -59.8642, -100.139, 160.249
2.127, 2, 1.91059, 53.2751, -54.8587, -59.8699, -100.145, 160.247
2.132, 2, 1.9098, 53.2744, -54.8582, -59.8738, -100.149, 160.246
2.136, 2, 1.90923, 53.2739, -54.8578, -59.8765, -100.152, 160.245
2.14, 2, 1.90883, 53.2735, -54.8576, -59.8783, -100.154, 160.245
2.143, 2, 1.90855, 53.2732, -54.8574, -59.8795, -100.155, 160.244
2.148, 2, 1.90837, 53.2731, -54.8573, -59.8804, -100.156, 160.244
2.152, 2, 1.90824, 53.273, -54.8572, -59.8809, -100.157, 160.244
2.156, 2, 1.90816, 53.2729, -54.8572, -59.8813, -100.157, 160.244
2.16, 2, 1.9081, 53.2728, -54.8571, -59.8816, -100.157, 160.244
2.163, 2, 1.90806, 53.2728, -54.8571, -59.8817, -100.157, 160.244
2.168, 2, 1.90804, 53.2728, -54.8571, -59.8819, -100.158, 160.243
2.172, 2, 1.90802, 53.2728, -54.8571, -59.8819, -100.158, 160.243
2.176, 2, 1.90801, 53.2728, -54.8571, -59.882, -100.158, 160.243
2.179, 2, 1.908, 53.2727, -54.8571, -59.882, -100.158, 160.243
2.184, 2, 1.90799, 53.2727, -54.8571, -59.8821, -100.158, 160.243
2.188, 2, 1.90799, 53.2727, -54.8571, -59.8821, -100.158, 160.243
2.192, 2, 1.90799, 53.2727, -54.8571, -59.8821, -100.158, 160.243
2.196, 2, 1.90799, 53.2727, -54.8571, -59.8821, -100.158, 160.243
2.199, 2, 1.90798, 53.2727, -54.8571, -59.8821, -100.158, 160.243
2.204, 2, 1.90798, 53.2727, -54.8571, -59.8821, -100.158, 160.243
2.208, 2, 1.90798, 53.2727, -54.8571, -59.8821, -100.158, 160.243
2.212, 2, 1.90798, 53.2727, -54.8571, -59.8821, -100.158, 160.243
2.216, 2, 1.90798, 53.2727, -54.8571, -59.8821, -100.158, 160.243
2.219, 2, 1.90798, 53.2727, -54.8571, -59.8821, -100.158, 160.243
2.224, 2, 1.90798, 53.2727, -54.8571, -59.8821, -100.158, 160.243
2.228, 2, 1.90798, 53.2727, -54.8571, -59.8821, -100.158, 160.243
2.232, 2, 1.90798, 53.2727, -54.8571, -59.8821, -100.158, 160.243
2.235, 2, 1.90798, 53.2727, -54.8571, -59.8821, -100.158, 160.243
2.24, 2, 1.90798, 53.2727, -54.8571, -59.8821, -100.158, 160.243
2.244, 2, 1.90798, 53.2727, -54.8571, -59.8821, -100.158, 160.243
2.248, 2, 1.90798, 53.2727, -54.8571, -59.8821, -100.158, 160.243
2.252, 2, 1.90798, 53.2727, -54.8571, -59.8821, -100.158, 160.243
2.255, 2, 1.90798, 53.2727, -54.8571, -59.8821, -100.158, 160.243
2.259, 2, 1.90798, 53.2727, -54.8571, -59.8821, -100.158, 160.243
2.264, 2, 1.90798, 53.2727, -54.8571, -59.8821, -100.158, 160.243
2.268, 2, 1.90798, 53.2727, -54.8571, -59.8821, -100.158, 160.243
2.272, 2, 1.90798, 53.2727, -54.8571, -59.8821, -100.158, 160.243
2.275, 2, 1.90798, 53.2727, -54.8571, -59.8821, -100.158, 160.243
2.28, 2, 1.90798, 53.2727, -54.8571, -59.8821, -100.158, 160.243
2.284, 2, 1.90798, 53.2727, -54.8571, -59.8821, -100.158, 160.243
2.288, 2, 1.90798, 53.2727, -54.8571, -59.8821, -100.158, 160.243
2.291, 2, 1.90798, 53.2727, -54.8571, -59.8821, -100.158, 160.243
2.296, 2, 1.90798, 53.2727, -54.8571, -59.8821, -100.158, 160.243
2.3, 2, 1.90798, 53.2727, -54.8571, -59.8821, -100.158, 160.243
2.304, 2, 1.90798, 53.2727, -54.8571, -59.8821, -100.158, 160.243
2.308, 2, 1.90798, 53.2727, -54.8571, -59.8821, -100.158, 160.243
2.311, 2, 1.90798, 53.2727, -54.8571, -59.8821, -100.158, 160.243
2.316, 2, 1.90798, 53.2727, -54.8571, -59.8821, -100.158, 160.243
2.32, 2, 1.90798, 53.2727, -54.8571, -59.8821, -100.158, 160.243
2.324, 2, 1.90798, 53.2727, -54.8571, -59.8821, -100.158, 160.243
2.328, 2, 1.90798, 53.2727, -54.8571, -59.8821, -100.158, 160.243
2.331, 2, 1.90798, 53.2727, -54.8571, -59.8821, -100.158, 160.243
2.336, 2, 1.90798, 53.2727, -54.8571, -59.8821, -100.158, 160.243
2.34, 2, 1.90798, 53.2727, -54.8571, -59.8821, -100.158, 160.243
2.344, 2, 1.90798, 53.2727, -54.8571, -59.8821, -100.158, 160.243
2.347, 2, 1.90798, 53.2727, -54.8571, -59.8821, -100.158, 160.243
2.352, 2, 1.90798, 53.2727, -54.8571, -59.8821, -100.158, 160.243
2.356, 2, 1.90798, 53.2727, -54.8571, -59.8821, -100.158, 160.243
2.36, 2, 1.90798, 53.2727, -54.8571, -59.8821, -100.158, 160.243
2.364, 2, 1.90798, 53.2727, -54.8571, -59.8821, -100.158, 160.243
2.367, 2, 1.90798, 53.2727, -54.8571, -59.8821, -100.158, 160.243
2.372, 2, 1.90798, 53.2727, -54.8571, -59.8821, -100.158, 160.243
2.376, 2, 1.90798, 53.2727, -54.8571, -59.8821, -100.158, 160.243
2.38, 2, 1.90798, 53.2727, -54.8571, -59.8821, -100.158, 160.243
2.383, 2, 1.90798, 53.2727, -54.8571, -59.8821, -100.158, 160.243
2.388, 2, 1.90798, 53.2727, -54.8571, -59.8821, -100.158, 160.243
2.392, 2, 1.90798, 53.2727, -54.8571, -59.8821, -100.158, 160.243
2.396, 2, 1.90798, 53.2727, -54.8571, -59.8821, -100.158, 160.243
2.4, 2, 1.90798, 53.2727, -54.8571, -59.8821, -100.158, 160.243
2.403, 2, 1.90798, 53.2727, -54.8571, -59.8821, -100.158, 160.243
2.408, 2, 1.90798, 53.2727, -54.8571, -59.8821, -100.158, 160.243
2.412, 2, 1.90798, 53.2727, -54.8571, -59.8821, -100.158, 160.243
2.416, 2, 1.90798, 53.2727, -54.8571, -59.8821, -100.158, 160.243
2.42, 2, 1.90798, 53.2727, -54.8571, -59.8821, -100.158, 160.243
2.423, 2, 1.90798, 53.2727, -54.8571, -59.8821, -100.158, 160.243
2.428, 2, 1.90798, 53.2727, -54.8571, -59.8821, -100.158, 160.243
2.432, 2, 1.90798, 53.2727, -54.8571, -59.8821, -100.158, 160.243
2.436, 2, 1.90798, 53.2727, -54.8571, -59.8821, -100.158, 160.243
2.439, 2, 1.90798, 53.2727, -54.8571, -59.8821, -100.158, 160.243
2.444, 2, 1.90798, 53.2727, -54.8571, -59.8821, -100.158, 160.243
2.448, 2, 1.90798, 53.2727, -54.8571, -59.8821, -100.158, 160.243
2.452, 2, 1.90798, 53.2727, -54.8571, -59.8821, -100.158, 160.243
2.456, 2, 1.90798, 53.2727, -54.8571, -59.8821, -100.158, 160.243
2.459, 2, 1.90798, 53.2727, -54.8571, -59.8821, -100.158, 160.243
2.464, 2, 1.90798, 53.2727, -54.8571, -59.8821, -100.158, 160.243
2.468, 2, 1.90798, 53.2727, -54.8571, -59.8821, -100.158, 160.243
2.472, 2, 1.90798, 53.2727, -54.8571, -59.8821, -100.158, 160.243
2.476, 2, 1.90798, 53.2727, -54.8571, -59.8821, -100.158, 160.243
2.479, 2, 1.90798, 53.2727, -54.8571, -59.8821, -100.158, 160.243
2.484, 2, 1.90798, 53.2727, -54.8571, -59.8821, -100.158, 160.243
2.488, 2, 1.90798, 53.2727, -54.8571, -59.8821, -100.158, 160.243
2.492, 2, 1.90798, 53.2727, -54.8571, -59.8821, -100.158, 160.243
2.495, 2, 1.90798, 53.2727, -54.8571, -59.8821, -100.158, 160.243
2.5, 2, 1.90798, 53.2727, -54.8571, -59.8821, -100.158, 160.243
2.504, 2, 1.90798, 53.2727, -54.8571, -59.8821, -100.158, 160.243
2.508, 2, 1.90798, 53.2727, -54.8571, -59.8821, -100.158, 160.243
2.512, 2, 1.90798, 53.2727, -54.8571, -59.8821, -100.158, 160.243
2.515, 2, 1.90798, 53.2727, -54.8571, -59.8821, -100.158, 160.243
2.52, 2, 1.90798, 53.2727, -54.8571, -59.8821, -100.158, 160.243
2.524, 2, 1.90798, 53.2727, -54.8571, -59.8821, -100.158, 160.243
2.528, 2, 1.90798, 53.2727, -54.8571, -59.8821, -100.158, 160.243
2.531, 2, 1.90798, 53.2727, -54.8571, -59.8821, -100.158, 160.243
2.536, 2, 1.90798, 53.2727, -54.8571, -59.8821, -100.158, 160.243
2.54, 2, 1.90798, 53.2727, -54.8571, -59.8821, -100.158, 160.243
2.544, 2, 1.90798, 53.2727, -54.8571, -59.8821, -100.158, 160.243
2.548, 2, 1.90798, 53.2727, -54.8571, -59.8821, -100.158, 160.243
2.551, 2, 1.90798, 53.2727, -54.8571, -59.8821, -100.158, 160.243
2.556, 2, 1.90798, 53.2727, -54.8571, -59.8821, -100.158, 160.243
2.56, 2, 1.90798, 53.2727, -54.8571, -59.8821, -100.158, 160.243
2.564, 2, 1.90798, 53.2727, -54.8571, -59.8821, -100.158, 160.243
2.568, 2, 1.90798, 53.2727, -54.8571, -59.8821, -100.158, 160.243
2.571, 2, 1.90798, 53.2727, -54.8571, -59.8821, -100.158, 160.243
2.576, 2, 1.90798, 53.2727, -54.8571, -59.8821, -100.158, 160.243
2.58, 2, 1.90798, 53.2727, -54.8571, -59.8821, -100.158, 160.243
2.584, 2, 1.90798, 53.2727, -54.8571, -59.8821, -100.158, 160.243
2.587, 2, 1.90798, 53.2727, -54.8571, -59.8821, -100.158, 160.243
2.592, 2, 1.90798, 53.2727, -54.8571, -59.8821, -100.158, 160.243
2.596, 2, 1.90798, 53.2727, -54.8571, -59.8821, -100.158, 160.243
2.6, 2, 1.90798, 53.2727, -54.8571, -59.8821, -100.158, 160.243
2.604, 2, 1.90798, 53.2727, -54.8571, -59.8821, -100.158, 160.243
2.607, 2, 1.90798, 53.2727, -54.8571, -59.8821, -100.158, 160.243
2.612, 2, 1.90798, 53.2727, -54.8571, -59.8821, -100.158, 160.243
2.616, 2, 1.90798, 53.2727, -54.8571, -59.8821, -100.158, 160.243
2.62, 2, 1.90798, 53.2727, -54.8571, -59.8821, -100.158, 160.243
2.624, 2, 1.90798, 53.2727, -54.8571, -59.8821, -100.158, 160.243
2.627, 2, 1.90798, 53.2727, -54.8571, -59.8821, -100.158, 160.243
2.632, 2, 1.90798, 53.2727, -54.8571, -59.8821, -100.158, 160.243
2.636, 2, 1.90798, 53.2727, -54.8571, -59.8821, -100.158, 160.243
2.64, 2, 1.90798, 53.2727, -54.8571, -59.8821, -100.158, 160.243
2.643, 2, 1.90798, 53.2727, -54.8571, -59.8821, -100.158, 160.243
2.648, 2, 1.90798, 53.2727, -54.8571, -59.8821, -100.158, 160.243
2.652, 2, 1.90798, 53.2727, -54.8571, -59.8821, -100.158, 160.243
2.656, 2, 1.90798, 53.2727, -54.8571, -59.8821, -100.158, 160.243
2.66, 2, 1.90798, 53.2727, -54.8571, -59.8821, -100.158, 160.243
2.663, 2, 1.90798, 53.2727, -54.8571, -59.8821, -100.158, 160.243
2.668, 2, 1.90798, 53.2727, -54.8571, -59.8821, -100.158, 160.243
2.672, 2, 1.90798, 53.2727, -54.8571, -59.8821, -100.158, 160.243
2.676, 2, 1.90798, 53.2727, -54.8571, -59.8821, -100.158, 160.243
2.679, 2, 1.90798, 53.2727, -54.8571, -59.8821, -100.158, 160.243
2.684, 2, 1.90798, 53.2727, -54.8571, -59.8821, -100.158, 160.243
2.688, 2, 1.90798, 53.2727, -54.8571, -59.8821, -100.158, 160.243
2.692, 2, 1.90798, 53.2727, -54.8571, -59.8821, -100.158, 160.243
2.696, 2, 1.90798, 53.2727, -54.8571, -59.8821, -100.158, 160.243
2.699, 2, 1.90798, 53.2727, -54.8571, -59.8821, -100.158, 160.243
2.704, 2, 1.90798, 53.2727, -54.8571, -59.8821, -100.158, 160.243
2.708, 2, 1.90798, 53.2727, -54.8571, -59.8821, -100.158, 160.243
2.712, 2, 1.90798, 53.2727, -54.8571, -59.8821, -100.158, 160.243
2.716, 2, 1.90798, 53.2727, -54.8571, -59.8821, -100.158, 160.243
2.719, 2, 1.90798, 53.2727, -54.8571, -59.8821, -100.158, 160.243
2.724, 2, 1.90798, 53.2727, -54.8571, -59.8821, -100.158, 160.243
2.728, 2, 1.90798, 53.2727, -54.8571, -59.8821, -100.158, 160.243
2.732, 2, 1.90798, 53.2727, -54.8571, -59.8821, -100.158, 160.243
2.735, 2, 1.90798, 53.2727, -54.8571, -59.8821, -100.158, 160.243
2.74, 2, 1.90798, 53.2727, -54.8571, -59.8821, -100.158, 160.243
2.744, 2, 1.90798, 53.2727, -54.8571, -59.8821, -100.158, 160.243
2.748, 2, 1.90798, 53.2727, -54.8571, -59.8821, -100.158, 160.243
2.752, 2, 1.90798, 53.2727, -54.8571, -59.8821, -100.158, 160.243
2.755, 2, 1.90798, 53.2727, -54.8571, -59.8821, -100.158, 160.243
2.76, 2, 1.90798, 53.2727, -54.8571, -59.8821, -100.158, 160.243
2.764, 2, 1.90798, 53.2727, -54.8571, -59.8821, -100.158, 160.243
2.768, 2, 1.90798, 53.2727, -54.8571, -59.8821, -100.158, 160.243
2.772, 2, 1.90798, 53.2727, -54.8571, -59.8821, -100.158, 160.243
2.775, 2, 1.90798, 53.2727, -54.8571, -59.8821, -100.158, 160.243
2.78, 2, 1.90798, 53.2727, -54.8571, -59.8821, -100.158, 160.243
2.784, 2, 1.90798, 53.2727, -54.8571, -59.8821, -100.158, 160.243
2.788, 2, 1.90798, 53.2727, -54.8571, -59.8821, -100.158, 160.243
2.791, 2, 1.90798, 53.2727, -54.8571, -59.8821, -100.158, 160.243
2.796, 2, 1.90798, 53.2727, -54.8571, -59.8821, -100.158, 160.243
2.8, 2, 1.90798, 53.2727, -54.8571, -59.8821, -100.158, 160.243
2.804, 2, 1.90798, 53.2727, -54.8571, -59.8821, -100.158, 160.243
2.808, 2, 1.90798, 53.2727, -54.8571, -59.8821, -100.158, 160.243
2.811, 2, 1.90798, 53.2727, -54.8571, -59.8821, -100.158, 160.243
2.816, 2, 1.90798, 53.2727, -54.8571, -59.8821, -100.158, 160.243
2.82, 2, 1.90798, 53.2727, -54.8571, -59.8821, -100.158, 160.243
2.824, 2, 1.90798, 53.2727, -54.8571, -59.8821, -100.158, 160.243
2.828, 2, 1.90798, 53.2727, -54.8571, -59.8821, -100.158, 160.243
2.831, 2, 1.90798, 53.2727, -54.8571, -59.8821, -100.158, 160.243
2.836, 2, 1.90798, 53.2727, -54.8571, -59.8821, -100.158, 160.243
2.84, 2, 1.90798, 53.2727, -54.8571, -59.8821, -100.158, 160.243
2.844, 2, 1.90798, 53.2727, -54.8571, -59.8821, -100.158, 160.243
2.847, 2, 1.90798, 53.2727, -54.8571, -59.8821, -100.158, 160.243
2.852, 2, 1.90798, 53.2727, -54.8571, -59.8821, -100.158, 160.243
2.856, 2, 1.90798, 53.2727, -54.8571, -59.8821, -100.158, 160.243
2.86, 2, 1.90798, 53.2727, -54.8571, -59.8821, -100.158, 160.243
2.864, 2, 1.90798, 53.2727, -54.8571, -59.8821, -100.158, 160.243
2.867, 2, 1.90798, 53.2727, -54.8571, -59.8821, -100.158, 160.243
2.872, 2, 1.90798, 53.2727, -54.8571, -59.8821, -100.158, 160.243
2.876, 2, 1.90798, 53.2727, -54.8571, -59.8821, -100.158, 160.243
2.88, 2, 1.90798, 53.2727, -54.8571, -59.8821, -100.158, 160.243
2.883, 2, 1.90798, 53.2727, -54.8571, -59.8821, -100.158, 160.243
2.888, 2, 1.90798, 53.2727, -54.8571, -59.8821, -100.158, 160.243
2.892, 2, 1.90798, 53.2727, -54.8571, -59.8821, -100.158, 160.243
2.896, 2, 1.90798, 53.2727, -54.8571, -59.8821, -100.158, 160.243
2.9, 2, 1.90798, 53.2727, -54.8571, -59.8821, -100.158, 160.243
2.903, 2, 1.90798, 53.2727, -54.8571, -59.8821, -100.158, 160.243
2.908, 2, 1.90798, 53.2727, -54.8571, -59.8821, -100.158, 160.243
2.912, 2, 1.90798, 53.2727, -54.8571, -59.8821, -100.158, 160.243
2.916, 2, 1.90798, 53.2727, -54.8571, -59.8821, -100.158, 160.243
2.92, 2, 1.90798, 53.2727, -54.8571, -59.8821, -100.158, 160.243
2.923, 2, 1.90798, 53.2727, -54.8571, -59.8821, -100.158, 160.243
2.928, 2, 1.90798, 53.2727, -54.8571, -59.8821, -100.158, 160.243
2.932, 2, 1.90798, 53.2727, -54.8571, -59.8821, -100.158, 160.243
2.936, 2, 1.90798, 53.2727, -54.8571, -59.8821, -100.158, 160.243
2.939, 2, 1.90798, 53.2727, -54.8571, -59.8821, -100.158, 160.243
2.944, 2, 1.90798, 53.2727, -54.8571, -59.8821, -100.158, 160.243
2.948, 2, 1.90798, 53.2727, -54.8571, -59.8821, -100.158, 160.243
2.952, 2, 1.90798, 53.2727, -54.8571, -59.8821, -100.158, 160.243
2.956, 2, 1.90798, 53.2727, -54.8571, -59.8821, -100.158, 160.243
2.959, 2, 1.90798, 53.2727, -54.8571, -59.8821, -100.158, 160.243
2.964, 2, 1.90798, 53.2727, -54.8571, -59.8821, -100.158, 160.243
2.968, 2, 1.90798, 53.2727, -54.8571, -59.8821, -100.158, 160.243
2.972, 2, 1.90798, 53.2727, -54.8571, -59.8821, -100.158, 160.243
2.976, 2, 1.90798, 53.2727, -54.8571, -59.8821, -100.158, 160.243
2.98, 2, 1.90798, 53.2727, -54.8571, -59.8821, -100.158, 160.243
2.984, 2, 1.90798, 53.2727, -54.8571, -59.8821, -100.158, 160.243
2.988, 2, 1.90798, 53.2727, -54.8571, -59.8821, -100.158, 160.243
2.992, 2, 1.90798, 53.2727, -54.8571, -59.8821, -100.158, 160.243
2.995, 2, 1.90798, 53.2727, -54.8571, -59.8821, -100.158, 160.243
3, 2, 1.90798, 53.2727, -54.8571, -59.8821, -100.158, 160.243
3.004, 2, 1.90798, 53.2727, -54.8571, -59.8821, -100.158, 160.243
3.008, 2, 1.90798, 53.2727, -54.8571, -59.8821, -100.158, 160.243
3.012, 2, 1.90798, 53.2727, -54.8571, -59.8821, -100.158, 160.243
3.015, 2, 1.90798, 53.2727, -54.8571, -59.8821, -100.158, 160.243
3.02, 2, 1.90798, 53.2727, -54.8571, -59.8821, -100.158, 160.243
3.024, 2, 1.90798, 53.2727, -54.8571, -59.8821, -100.158, 160.243
3.028, 2, 1.90798, 53.2727, -54.8571, -59.8821, -100.158, 160.243
3.031, 2, 1.90798, 53.2727, -54.8571, -59.8821, -100.158, 160.243
3.036, 2, 1.90798, 53.2727, -54.8571, -59.8821, -100.158, 160.243
3.04, 2, 1.90798, 53.2727, -54.8571, -59.8821, -100.158, 160.243
3.044, 2, 1.90798, 53.2727, -54.8571, -59.8821, -100.158, 160.243
3.048, 2, 1.90798, 53.2727, -54.8571, -59.8821, -100.158, 160.243
3.051, 2, 1.90798, 53.2727, -54.8571, -59.8821, -100.158, 160.243
3.056, 2, 1.90798, 53.2727, -54.8571, -59.8821, -100.158, 160.243
3.06, 2, 1.90798, 53.2727, -54.8571, -59.8821, -100.158, 160.243
3.064, 2, 1.90798, 53.2727, -54.8571, -59.8821, -100.158, 160.243
3.068, 2, 1.90798, 53.2727, -54.8571, -59.8821, -100.158, 160.243
3.071, 2, 1.90798, 53.2727, -54.8571, -59.8821, -100.158, 160.243
3.076, 2, 1.90798, 53.2727, -54.8571, -59.8821, -100.158, 160.243
3.08, 2, 1.90798, 53.2727, -54.8571, -59.8821, -100.158, 160.243
3.084, 2, 1.90798, 53.2727, -54.8571, -59.8821, -100.158, 160.243
3.087, 2, 1.90798, 53.2727, -54.8571, -59.8821, -100.158, 160.243
3.092, 2, 1.90798, 53.2727, -54.8571, -59.8821, -100.158, 160.243
3.096, 2, 1.90798, 53.2727, -54.8571, -59.8821, -100.158, 160.243
3.1, 2, 1.90798, 53.2727, -54.8571, -59.8821, -100.158, 160.243
3.104, 2, 1.90798, 53.2727, -54.8571, -59.8821, -100.158, 160.243
3.107, 2, 1.90798, 53.2727, -54.8571, -59.8821, -100.158, 160.243
3.112, 2, 1.90798, 53.2727, -54.8571, -59.8821, -100.158, 160.243
3.116, 2, 1.90798, 53.2727, -54.8571, -59.8821, -100.158, 160.243
3.12, 2, 1.90798, 53.2727, -54.8571, -59.8821, -100.158, 160.243
3.124, 2, 1.90798, 53.2727, -54.8571, -59.8821, -100.158, 160.243
3.128, 2, 1.90798, 53.2727, -54.8571, -59.8821, -100.158, 160.243
3.132, 2, 1.90798, 53.2727, -54.8571, -59.8821, -100.158, 160.243
3.136, 2, 1.90798, 53.2727, -54.8571, -59.8821, -100.158, 160.243
3.14, 2, 1.90798, 53.2727, -54.8571, -59.8821, -100.158, 160.243
3.143, 2, 1.90798, 53.2727, -54.8571, -59.8821, -100.158, 160.243
3.148, 2, 1.90798, 53.2727, -54.8571, -59.8821, -100.158, 160.243
3.152, 2, 1.90798, 53.2727, -54.8571, -59.8821, -100.158, 160.243
3.156, 2, 1.90798, 53.2727, -54.8571, -59.8821, -100.158, 160.243
3.16, 2, 1.90798, 53.2727, -54.8571, -59.8821, -100.158, 160.243
3.163, 2, 1.90798, 53.2727, -54.8571, -59.8821, -100.158, 160.243
3.168, 2, 1.90798, 53.2727, -54.8571, -59.8821, -100.158, 160.243
3.172, 2, 1.90798, 53.2727, -54.8571, -59.8821, -100.158, 160.243
3.176, 2, 1.90798, 53.2727, -54.8571, -59.8821, -100.158, 160.243
3.179, 2, 1.90798, 53.2727, -54.8571, -59.8821, -100.158, 160.243
3.184, 2, 1.90798, 53.2727, -54.8571, -59.8821, -100.158, 160.243
3.188, 2, 1.90798, 53.2727, -54.8571, -59.8821, -100.158, 160.243
3.192, 2, 1.90798, 53.2727, -54.8571, -59.8821, -100.158, 160.243
3.196, 2, 1.90798, 53.2727, -54.8571, -59.8821, -100.158, 160.243
3.199, 2, 1.90798, 53.2727, -54.8571, -59.8821, -100.158, 160.243
3.204, 4, 1.90798, 53.2727, -54.8571, -59.8821, -100.158, 160.243
3.208, 4, 1.90798, 53.2727, -54.8571, -59.8821, -100.158, 160.243
3.212, 4, 1.90798, 53.2727, -54.8571, -59.8821, -100.158, 160.243
3.216, 4, 1.90798, 53.2727, -54.8571, -59.8821, -100.158, 160.243
3.22, 4, 1.90798, 53.2727, -54.8571, -59.8821, -100.158, 160.243
3.224, 4, 1.90798, 53.2727, -54.8571, -59.8821, -100.158, 160.243
3.228, 4, 1.90798, 53.2727, -54.8571, -59.8821, -100.158, 160.243
3.232, 4, 1.90798, 53.2727, -54.8571, -59.8821, -100.158, 160.243
3.235, 4, 1.90798, 53.2727, -54.8571, -59.8821, -100.158, 160.243
3.24, 4, 1.90798, 53.2727, -54.8571, -59.8821, -100.158, 160.243
3.244, 4, 1.90798, 53.2727, -54.8571, -59.8821, -100.158, 160.243
3.248, 4, 1.90798, 53.2727, -54.8571, -59.8821, -100.158, 160.243
3.252, 4, 1.90798, 53.2727, -54.8571, -59.8821, -100.158, 160.243
3.255, 4, 1.90798, 53.2727, -54.8571, -59.8821, -100.158, 160.243
3.26, 4, 1.90798, 53.2727, -54.8571, -59.8821, -100.158, 160.243
3.264, 4, 1.90798, 53.2727, -54.8571, -59.8821, -100.158, 160.243
3.268, 4, 1.90798, 53.2727, -54.8571, -59.8821, -100.158, 160.243
3.272, 4, 1.90798, 53.2727, -54.8571, -59.8821, -100.158, 160.243
3.276, 4, 1.90798, 53.2727, -54.8571, -59.8821, -100.158, 160.243
3.28, 4, 1.90798, 53.2727, -54.8571, -59.8821, -100.158, 160.243
3.284, 4, 1.90798, 53.2727, -54.8571, -59.8821, -100.158, 160.243
3.288, 4, 1.90798, 53.2727, -54.8571, -59.8821, -100.158, 160.243
3.291, 4, 1.90798, 53.2727, -54.8571, -59.8821, -100.158, 160.243
3.296, 4, 1.90798, 53.2727, -54.8571, -59.8821, -100.158, 160.243
3.3, 4, 1.90798, 53.2727, -54.8571, -59.8821, -100.158, 160.243
3.304, 4, 1.90798, 53.2727, -54.8571, -59.8821, -100.158, 160.243
3.31, 4, 1.90798, 53.2727, -54.8571, -59.8821, -100.158, 160.243
3.314, 4, 1.90798, 53.2727, -54.8571, -59.8821, -100.158, 160.243
3.318, 4, 1.90798, 53.2727, -54.8571, -59.8821, -100.158, 160.243
3.322, 4, 1.90798, 53.2727, -54.8571, -59.8821, -100.158, 160.243
3.326, 4, 1.90798, 53.2727, -54.8571, -59.8821, -100.158, 160.243
3.33, 4, 1.90798, 53.2727, -54.8571, -59.8821, -100.158, 160.243
3.334, 4, 1.90798, 53.2727, -54.8571, -59.8821, -100.158, 160.243
3.338, 4, 1.90798, 53.2727, -54.8571, -59.8821, -100.158, 160.243
3.341, 4, 1.90798, 53.2727, -54.8571, -59.8821, -100.158, 160.243
3.346, 4, 1.90798, 53.2727, -54.8571, -59.8821, -100.158, 160.243
3.348, 4, 1.90798, 53.2727, -54.8571, -59.8821, -100.158, 160.243
3.354, 4, 1.90798, 53.2727, -54.8571, -59.8821, -100.158, 160.243
3.358, 4, 1.90798, 53.2727, -54.8571, -59.8821, -100.158, 160.243
3.362, 4, 1.90799, 53.2727, -54.8571, -59.8821, -100.158, 160.243
3.366, 4, 1.90808, 53.2727, -54.8571, -59.8821, -100.158, 160.243
3.37, 4, 1.90839, 53.2727, -54.8571, -59.8821, -100.158, 160.243
3.374, 4, 1.90911, 53.2727, -54.857, -59.8821, -100.158, 160.243
3.378, 4, 1.91044, 53.2726, -54.857, -59.8821, -100.158, 160.243
3.382, 4, 1.91253, 53.2724, -54.8569, -59.882, -100.157, 160.243
3.386, 4, 1.91548, 53.2722, -54.8568, -59.8818, -100.156, 160.243
3.39, 4, 1.91932, 53.2719, -54.8566, -59.8814, -100.155, 160.243
3.392, 4, 1.91932, 53.2719, -54.8566, -59.8814, -100.155, 160.243
3.396, 4, 1.92409, 53.2715, -54.8565, -59.8808, -100.152, 160.243
3.4, 4, 1.92981, 53.271, -54.8563, -59.8798, -100.148, 160.243
3.403, 4, 1.93656, 53.2704, -54.8561, -59.8782, -100.142, 160.243
3.408, 4, 1.94451, 53.2696, -54.8559, -59.8758, -100.133, 160.242
3.414, 4, 1.96475, 53.2675, -54.8557, -59.868, -100.102, 160.241
3.418, 4, 1.97733, 53.2662, -54.8558, -59.8621, -100.079, 160.24
3.42, 4, 1.97733, 53.2662, -54.8558, -59.8621, -100.079, 160.24
3.424, 4, 1.99159, 53.2647, -54.856, -59.8543, -100.049, 160.239
3.43, 4, 2.02507, 53.2613, -54.857, -59.8323, -99.9649, 160.236
3.434, 4, 2.04434, 53.2594, -54.8579, -59.8173, -99.9081, 160.234
3.436, 4, 2.04434, 53.2594, -54.8579, -59.8173, -99.9081, 160.234
3.439, 4, 2.06536, 53.2573, -54.8591, -59.7995, -99.84, 160.231
3.444, 4, 2.08812, 53.255, -54.8607, -59.7784, -99.7599, 160.228
3.448, 4, 2.11253, 53.2527, -54.8627, -59.7539, -99.6669, 160.224
3.452, 4, 2.13846, 53.2502, -54.8652, -59.7259, -99.5604, 160.22
3.456, 4, 2.16577, 53.2477, -54.8681, -59.6941, -99.44, 160.216
3.46, 4, 2.19433, 53.2451, -54.8714, -59.6586, -99.3056, 160.21
3.464, 4, 2.2241, 53.2425, -54.8753, -59.6194, -99.1572, 160.205
3.468, 4, 2.25513, 53.2398, -54.8796, -59.5766, -98.9953, 160.198
3.472, 4, 2.2876, 53.237, -54.8843, -59.5303, -98.8205, 160.192
3.476, 4, 2.32171, 53.234, -54.8894, -59.4809, -98.6337, 160.184
3.48, 4, 2.35756, 53.231, -54.8948, -59.4285, -98.4358, 160.177
3.484, 4, 2.39514, 53.2278, -54.9004, -59.3735, -98.2279, 160.169
3.488, 4, 2.43439, 53.2244, -54.9063, -59.3162, -98.0112, 160.16
3.492, 4, 2.47523, 53.2209, -54.9124, -59.2569, -97.7869, 160.151
3.495, 4, 2.51769, 53.2172, -54.9186, -59.1958, -97.5562, 160.142
3.5, 4, 2.56182, 53.2133, -54.9249, -59.1334, -97.3202, 160.133
3.506, 4, 2.65525, 53.205, -54.9376, -59.0055, -96.8363, 160.115
3.51, 4, 2.70453, 53.2006, -54.944, -58.9404, -96.5901, 160.105
3.512, 4, 2.70453, 53.2006, -54.944, -58.9404, -96.5901, 160.105
3.516, 4, 2.75537, 53.1961, -54.9503, -58.8749, -96.3419, 160.095
3.52, 4, 2.80751, 53.1914, -54.9566, -58.8089, -96.0922, 160.086
3.524, 4, 2.86067, 53.1866, -54.9629, -58.7427, -95.8413, 160.076
3.528, 4, 2.91457, 53.1817, -54.9691, -58.6761, -95.5894, 160.066
3.531, 4, 2.969, 53.1768, -54.9754, -58.6094, -95.3366, 160.056
3.536, 4, 3.02384, 53.1719, -54.9816, -58.5425, -95.0831, 160.047
3.54, 4, 3.07899, 53.1669, -54.9879, -58.4754, -94.8289, 160.037
3.544, 4, 3.13439, 53.1619, -54.9942, -58.4081, -94.5741, 160.027
3.548, 4, 3.19, 53.1569, -55.0005, -58.3407, -94.3187, 160.017
3.552, 4, 3.24579, 53.1519, -55.0068, -58.2731, -94.0627, 160.007
3.556, 4, 3.30174, 53.1468, -55.0131, -58.2054, -93.8062, 159.997
3.56, 4, 3.35784, 53.1418, -55.0194, -58.1375, -93.549, 159.987
3.564, 4, 3.41407, 53.1367, -55.0257, -58.0694, -93.2913, 159.977
3.568, 4, 3.47045, 53.1316, -55.0321, -58.0013, -93.033, 159.967
3.572, 4, 3.52694, 53.1265, -55.0384, -57.9329, -92.7741, 159.957
3.576, 4, 3.58356, 53.1214, -55.0448, -57.8644, -92.5147, 159.947
3.58, 4, 3.64027, 53.1163, -55.0512, -57.7958, -92.2547, 159.937
3.584, 4, 3.69706, 53.1112, -55.0576, -57.727, -91.9941, 159.927
3.587, 4, 3.75393, 53.106, -55.064, -57.6581, -91.733, 159.917
3.592, 4, 3.81086, 53.1009, -55.0705, -57.589, -91.4713, 159.906
3.596, 4, 3.86784, 53.0957, -55.0769, -57.5197, -91.209, 159.896
3.6, 4, 3.92478, 53.0906, -55.0834, -57.4504, -90.9463, 159.886
3.604, 4, 3.98148, 53.0854, -55.0899, -57.3809, -90.683, 159.876
3.608, 4, 4.03762, 53.0803, -55.0965, -57.3113, -90.4193, 159.866
3.612, 4, 4.09285, 53.0752, -55.1031, -57.2416, -90.1553, 159.855
3.616, 4, 4.14692, 53.0701, -55.1098, -57.1719, -89.8911, 159.845
3.62, 4, 4.19973, 53.0651, -55.1166, -57.1024, -89.6271, 159.835
3.624, 4, 4.25136, 53.0602, -55.1236, -57.0332, -89.3635, 159.824
3.628, 4, 4.30208, 53.0552, -55.1306, -56.9646, -89.1008, 159.814
3.632, 4, 4.35227, 53.0504, -55.1377, -56.8968, -88.8397, 159.803
3.636, 4, 4.40229, 53.0455, -55.1448, -56.8301, -88.5806, 159.792
3.64, 4, 4.45229, 53.0406, -55.1519, -56.7649, -88.3241, 159.781
3.644, 4, 4.50227, 53.0356, -55.159, -56.7014, -88.0706, 159.769
3.649, 4, 4.55208, 53.0307, -55.1661, -56.6398, -87.8204, 159.757
3.654, 4, 4.65073, 53.0207, -55.1805, -56.5237, -87.331, 159.732
3.656, 4, 4.65073, 53.0207, -55.1805, -56.5237, -87.331, 159.732
3.66, 4, 4.69957, 53.0157, -55.1877, -56.4694, -87.0918, 159.718
3.664, 4, 4.74821, 53.0107, -55.195, -56.4178, -86.8563, 159.704
3.668, 4, 4.7967, 53.0057, -55.2024, -56.369, -86.6242, 159.689
3.672, 4, 4.84501, 53.0006, -55.2098, -56.3231, -86.3951, 159.673
3.676, 4, 4.89295, 52.9956, -55.2174, -56.2799, -86.1686, 159.656
3.679, 4, 4.94022, 52.9905, -55.2252, -56.2393, -85.9441, 159.638
3.684, 4, 4.9865, 52.9855, -55.2332, -56.2013, -85.721, 159.619
3.688, 4, 5.03157, 52.9806, -55.2415, -56.1657, -85.4989, 159.599
3.692, 4, 5.0753, 52.9757, -55.2501, -56.1324, -85.2772, 159.579
3.696, 4, 5.11776, 52.9709, -55.259, -56.1014, -85.0555, 159.556
3.7, 4, 5.15909, 52.9662, -55.2682, -56.0725, -84.8336, 159.533
3.704, 4, 5.19949, 52.9615, -55.2778, -56.0458, -84.6112, 159.509
3.708, 4, 5.23911, 52.9568, -55.2876, -56.0212, -84.3883, 159.484
3.712, 4, 5.27809, 52.9522, -55.2977, -55.9986, -84.1647, 159.457
3.716, 4, 5.3165, 52.9475, -55.3081, -55.9782, -83.9404, 159.43
3.72, 4, 5.3544, 52.9429, -55.3188, -55.9598, -83.7154, 159.401
3.724, 4, 5.39183, 52.9383, -55.3298, -55.9435, -83.4897, 159.371
3.728, 4, 5.42882, 52.9336, -55.341, -55.9293, -83.2632, 159.34
3.732, 4, 5.46539, 52.929, -55.3526, -55.9172, -83.0359, 159.308
3.735, 4, 5.50156, 52.9245, -55.3643, -55.9071, -82.808, 159.274
3.74, 4, 5.53734, 52.9199, -55.3764, -55.8991, -82.5794, 159.24
3.744, 4, 5.57273, 52.9154, -55.3886, -55.8931, -82.3501, 159.204
3.748, 4, 5.60775, 52.9109, -55.4012, -55.8892, -82.1202, 159.168
3.752, 4, 5.64241, 52.9064, -55.4139, -55.8874, -81.8896, 159.13
3.756, 4, 5.6767, 52.902, -55.427, -55.8876, -81.6585, 159.091
3.76, 4, 5.71064, 52.8976, -55.4402, -55.8899, -81.4269, 159.051
3.764, 4, 5.74423, 52.8934, -55.4537, -55.8941, -81.1947, 159.011
3.768, 4, 5.77747, 52.8891, -55.4674, -55.9004, -80.9621, 158.969
3.774, 4, 5.84294, 52.8809, -55.4954, -55.919, -80.4958, 158.882
3.778, 4, 5.87518, 52.8769, -55.5098, -55.9313, -80.2621, 158.836
3.782, 4, 5.90708, 52.8731, -55.5243, -55.9455, -80.0281, 158.79
3.786, 4, 5.93867, 52.8693, -55.539, -55.9616, -79.7939, 158.743
3.788, 4, 5.93867, 52.8693, -55.539, -55.9616, -79.7939, 158.743
3.792, 4, 5.96994, 52.8657, -55.554, -55.9796, -79.5595, 158.696
3.796, 4, 6.0009, 52.8622, -55.5691, -55.9995, -79.325, 158.647
3.8, 4, 6.03155, 52.8588, -55.5843, -56.0212, -79.0905, 158.597
3.804, 4, 6.06189, 52.8556, -55.5998, -56.0447, -78.8559, 158.546
3.808, 4, 6.09194, 52.8525, -55.6154, -56.0699, -78.6215, 158.495
3.812, 4, 6.12169, 52.8496, -55.6312, -56.0969, -78.3871, 158.443
3.816, 4, 6.15115, 52.8469, -55.6471, -56.1255, -78.1528, 158.39
3.82, 4, 6.18032, 52.8444, -55.6631, -56.1557, -77.9189, 158.336
3.824, 4, 6.20921, 52.842, -55.6793, -56.1875, -77.6852, 158.282
3.828, 4, 6.23782, 52.8399, -55.6956, -56.2207, -77.4518, 158.227
3.832, 4, 6.26616, 52.8381, -55.712, -56.2555, -77.2189, 158.171
3.836, 4, 6.29422, 52.8364, -55.7285, -56.2915, -76.9865, 158.115
3.84, 4, 6.32202, 52.835, -55.7451, -56.3289, -76.7546, 158.058
3.844, 4, 6.34955, 52.8339, -55.7617, -56.3675, -76.5232, 158.001
3.848, 4, 6.37683, 52.833, -55.7785, -56.4073, -76.2926, 157.943
3.852, 4, 6.40385, 52.8324, -55.7953, -56.4481, -76.0627, 157.885
3.856, 4, 6.43062, 52.8322, -55.8121, -56.4899, -75.8335, 157.826
3.86, 4, 6.45714, 52.8322, -55.829, -56.5326, -75.6052, 157.768
3.864, 4, 6.48342, 52.8326, -55.8459, -56.5761, -75.3777, 157.709
3.868, 4, 6.50945, 52.8333, -55.8629, -56.6203, -75.1512, 157.65
3.872, 4, 6.53524, 52.8343, -55.8798, -56.6651, -74.9257, 157.59
3.876, 4, 6.56081, 52.8357, -55.8967, -56.7103, -74.7012, 157.531
3.88, 4, 6.58614, 52.8375, -55.9136, -56.756, -74.4778, 157.472
3.884, 4, 6.61124, 52.8396, -55.9305, -56.802, -74.2554, 157.413
3.888, 4, 6.63611, 52.8422, -55.9473, -56.8481, -74.0343, 157.353
3.892, 4, 6.66077, 52.8452, -55.9641, -56.8942, -73.8143, 157.295
3.896, 4, 6.68521, 52.8486, -55.9808, -56.9403, -73.5956, 157.236
3.9, 4, 6.70943, 52.8524, -55.9974, -56.9862, -73.3781, 157.177
3.904, 4, 6.73344, 52.8567, -56.0139, -57.0318, -73.1619, 157.119
3.908, 4, 6.75724, 52.8614, -56.0304, -57.0769, -72.947, 157.062
3.912, 4, 6.78084, 52.8666, -56.0467, -57.1214, -72.7334, 157.005
3.916, 4, 6.80424, 52.8723, -56.0629, -57.1652, -72.5212, 156.948
3.92, 4, 6.82744, 52.8784, -56.0789, -57.2082, -72.3103, 156.892
3.924, 4, 6.85044, 52.8851, -56.0948, -57.2502, -72.1007, 156.837
3.928, 4, 6.87325, 52.8923, -56.1105, -57.291, -71.8925, 156.783
3.932, 4, 6.89587, 52.9, -56.126, -57.3307, -71.6856, 156.729
3.936, 4, 6.9183, 52.9082, -56.1414, -57.3689, -71.48, 156.676
3.94, 4, 6.94056, 52.917, -56.1566, -57.4055, -71.2758, 156.625
3.944, 4, 6.96263, 52.9264, -56.1715, -57.4405, -71.0729, 156.574
3.948, 4, 6.98453, 52.9363, -56.1862, -57.4737, -70.8714, 156.524
3.952, 4, 7.00625, 52.9468, -56.2007, -57.5048, -70.6711, 156.476
3.956, 4, 7.02781, 52.9578, -56.215, -57.5339, -70.472, 156.429
3.96, 4, 7.0492, 52.9695, -56.229, -57.5607, -70.2742, 156.383
3.964, 4, 7.07043, 52.9818, -56.2428, -57.585, -70.0776, 156.338
3.968, 4, 7.0915, 52.9947, -56.2563, -57.6068, -69.8822, 156.295
3.972, 4, 7.11241, 53.0081, -56.2695, -57.6259, -69.688, 156.253
3.976, 4, 7.13317, 53.0223, -56.2824, -57.6421, -69.4948, 156.213
3.98, 4, 7.15378, 53.037, -56.2951, -57.6552, -69.3027, 156.174
3.984, 4, 7.17425, 53.0524, -56.3075, -57.6652, -69.1117, 156.137
3.988, 4, 7.19457, 53.0684, -56.3195, -57.6718, -68.9217, 156.102
3.992, 4, 7.21475, 53.0851, -56.3313, -57.6749, -68.7326, 156.069
3.996, 4, 7.23479, 53.1024, -56.3428, -57.6743, -68.5444, 156.037
3.999, 4, 7.25471, 53.1204, -56.354, -57.6699, -68.357, 156.008
4.004, 4, 7.27448, 53.139, -56.3648, -57.6615, -68.1705, 155.98
4.008, 4, 7.29413, 53.1583, -56.3754, -57.6489, -67.9848, 155.955
4.012, 4, 7.31363, 53.1782, -56.3857, -57.632, -67.7997, 155.932
4.016, 4, 7.33299, 53.1988, -56.3957, -57.6106, -67.6153, 155.911
4.02, 4, 7.3522, 53.22, -56.4053, -57.5844, -67.4316, 155.892
4.026, 4, 7.39015, 53.2641, -56.4239, -57.5174, -67.0659, 155.862
4.03, 4, 7.40891, 53.2871, -56.4328, -57.4762, -66.8839, 155.851
4.031, 4, 7.40891, 53.2871, -56.4328, -57.4762, -66.8839, 155.851
4.036, 4, 7.42754, 53.3107, -56.4415, -57.4296, -66.7024, 155.842
4.04, 4, 7.44609, 53.3349, -56.4498, -57.3774, -66.5214, 155.836
4.044, 4, 7.46455, 53.3597, -56.458, -57.3195, -66.3409, 155.833
4.048, 4, 7.48293, 53.3851, -56.4659, -57.2557, -66.1608, 155.833
4.052, 4, 7.50124, 53.4111, -56.4735, -57.1858, -65.9811, 155.835
4.056, 4, 7.51948, 53.4376, -56.481, -57.1096, -65.8017, 155.841
4.06, 4, 7.53762, 53.4646, -56.4883, -57.0269, -65.6226, 155.85
4.064, 4, 7.55565, 53.4921, -56.4956, -56.9374, -65.4437, 155.862
4.068, 4, 7.57358, 53.5201, -56.5027, -56.8408, -65.2648, 155.878
4.072, 4, 7.5914, 53.5486, -56.5097, -56.7371, -65.086, 155.896
4.076, 4, 7.60912, 53.5774, -56.5168, -56.6258, -64.9071, 155.919
4.08, 4, 7.62672, 53.6067, -56.5239, -56.5068, -64.728, 155.945
4.084, 4, 7.6442, 53.6363, -56.531, -56.3798, -64.5487, 155.975
4.088, 4, 7.66153, 53.6662, -56.5383, -56.2444, -64.369, 156.008
4.092, 4, 7.6787, 53.6963, -56.5458, -56.1006, -64.189, 156.046
4.096, 4, 7.69571, 53.7267, -56.5535, -55.9479, -64.0085, 156.088
4.1, 4, 7.71257, 53.7572, -56.5616, -55.7862, -63.8277, 156.134
4.104, 4, 7.72928, 53.7878, -56.57, -55.6153, -63.6463, 156.184
4.108, 4, 7.74586, 53.8184, -56.5788, -55.4349, -63.4646, 156.239
4.112, 4, 7.76233, 53.849, -56.5881, -55.2448, -63.2824, 156.298
4.116, 4, 7.77872, 53.8795, -56.598, -55.0448, -63.0999, 156.362
4.12, 4, 7.79501, 53.9099, -56.6085, -54.8349, -62.9171, 156.431
4.124, 4, 7.81119, 53.9401, -56.6197, -54.6148, -62.7341, 156.505
4.128, 4, 7.82726, 53.9699, -56.6316, -54.3844, -62.5508, 156.583
4.132, 4, 7.84321, 53.9994, -56.6444, -54.1436, -62.3675, 156.667
4.136, 4, 7.85906, 54.0286, -56.6581, -53.8924, -62.1841, 156.755
4.14, 4, 7.87478, 54.0574, -56.6726, -53.6307, -62.0008, 156.849
4.145, 4, 7.89037, 54.0859, -56.6881, -53.3585, -61.8177, 156.947
4.15, 4, 7.92114, 54.142, -56.7221, -52.783, -61.4526, 157.16
4.152, 4, 7.92114, 54.142, -56.7221, -52.783, -61.4526, 157.16
4.156, 4, 7.93633, 54.1695, -56.7407, -52.4799, -61.2709, 157.274
4.16, 4, 7.9514, 54.1965, -56.7605, -52.1668, -61.09, 157.393
4.164, 4, 7.96631, 54.2231, -56.7814, -51.8441, -60.91, 157.517
4.168, 4, 7.98107, 54.249, -56.8036, -51.5119, -60.7311, 157.646
4.172, 4, 7.99568, 54.2744, -56.827, -51.1708, -60.5535, 157.78
4.176, 4, 8.01014, 54.2992, -56.8518, -50.8211, -60.3774, 157.918
4.18, 4, 8.02444, 54.3233, -56.8778, -50.4633, -60.203, 158.06
4.184, 4, 8.03854, 54.3467, -56.9051, -50.098, -60.0304, 158.207
4.188, 4, 8.05245, 54.3694, -56.9338, -49.7259, -59.8598, 158.357
4.192, 4, 8.06615, 54.3913, -56.9637, -49.3475, -59.6914, 158.511
4.196, 4, 8.07963, 54.4126, -56.9949, -48.9636, -59.5254, 158.668
4.2, 4, 8.09285, 54.4331, -57.0273, -48.575, -59.3619, 158.828
4.204, 4, 8.10579, 54.4529, -57.0608, -48.1825, -59.2009, 158.991
4.208, 4, 8.11843, 54.472, -57.0955, -47.7869, -59.0426, 159.155
4.212, 4, 8.13075, 54.4905, -57.1311, -47.389, -58.8871, 159.322
4.216, 4, 8.1427, 54.5084, -57.1677, -46.9899, -58.7343, 159.49
4.22, 4, 8.15427, 54.5257, -57.2051, -46.5903, -58.5844, 159.658
4.224, 4, 8.16541, 54.5426, -57.2432, -46.1912, -58.4373, 159.828
4.228, 4, 8.1761, 54.5589, -57.2818, -45.7936, -58.293, 159.997
4.232, 4, 8.18632, 54.5747, -57.321, -45.3982, -58.1514, 160.166
4.236, 4, 8.19602, 54.5899, -57.3605, -45.0062, -58.0124, 160.334
4.24, 4, 8.20518, 54.6046, -57.4004, -44.6183, -57.876, 160.5
4.244, 4, 8.21375, 54.6186, -57.4404, -44.2353, -57.7419, 160.665
4.248, 4, 8.22172, 54.6319, -57.4805, -43.8582, -57.61, 160.827
4.252, 4, 8.22906, 54.6445, -57.5205, -43.4877, -57.4802, 160.987
4.256, 4, 8.23572, 54.6566, -57.5603, -43.1246, -57.3522, 161.144
4.26, 4, 8.24164, 54.6681, -57.5997, -42.7695, -57.2259, 161.298
4.264, 4, 8.24677, 54.6791, -57.6386, -42.4231, -57.1009, 161.447
4.268, 4, 8.25106, 54.6896, -57.6768, -42.086, -56.977, 161.593
4.272, 4, 8.25448, 54.6997, -57.7142, -41.7587, -56.8539, 161.734
4.276, 4, 8.25701, 54.7094, -57.7506, -41.4419, -56.7315, 161.87
4.28, 4, 8.25861, 54.7187, -57.7859, -41.1359, -56.6093, 162.001
4.284, 4, 8.2592, 54.7277, -57.8199, -40.8414, -56.4873, 162.127
4.288, 4, 8.25875, 54.7364, -57.8526, -40.5588, -56.3651, 162.247
4.292, 4, 8.25722, 54.7448, -57.8836, -40.2886, -56.2425, 162.361
4.296, 4, 8.25458, 54.7529, -57.913, -40.0312, -56.1193, 162.469
4.3, 4, 8.25079, 54.7607, -57.9406, -39.7869, -55.9951, 162.57
4.304, 4, 8.24583, 54.7682, -57.9662, -39.5561, -55.8698, 162.665
4.308, 4, 8.23972, 54.7754, -57.9897, -39.3391, -55.7431, 162.753
4.312, 4, 8.23247, 54.7824, -58.0111, -39.1362, -55.6148, 162.834
4.316, 4, 8.22408, 54.7891, -58.0302, -38.9478, -55.4847, 162.908
4.32, 4, 8.21457, 54.7955, -58.0468, -38.7741, -55.3525, 162.974
4.324, 4, 8.20397, 54.8016, -58.0609, -38.6155, -55.2182, 163.033
4.328, 4, 8.19231, 54.8075, -58.0725, -38.472, -55.0815, 163.084
4.332, 4, 8.1796, 54.8131, -58.0813, -38.3439, -54.9423, 163.127
4.336, 4, 8.16581, 54.8184, -58.0873, -38.2314, -54.8005, 163.162
4.34, 4, 8.151, 54.8235, -58.0904, -38.1345, -54.6558, 163.189
4.344, 4, 8.13528, 54.8283, -58.0906, -38.0535, -54.5082, 163.208
4.348, 4, 8.11873, 54.8329, -58.0878, -37.9883, -54.3575, 163.218
4.352, 4, 8.10138, 54.8373, -58.0819, -37.9393, -54.2037, 163.221
4.356, 4, 8.08328, 54.8416, -58.0728, -37.9064, -54.0467, 163.214
4.36, 4, 8.0646, 54.8457, -58.0605, -37.8898, -53.8864, 163.2
4.364, 4, 8.04561, 54.8497, -58.045, -37.8896, -53.7226, 163.176
4.368, 4, 8.02648, 54.8536, -58.0261, -37.9059, -53.5553, 163.144
4.372, 4, 8.00726, 54.8576, -58.0038, -37.9388, -53.3843, 163.104
4.376, 4, 7.98799, 54.8615, -57.978, -37.9884, -53.2094, 163.054
4.38, 4, 7.9688, 54.8655, -57.9487, -38.055, -53.0306, 162.996
4.384, 4, 7.94974, 54.8696, -57.9159, -38.1385, -52.8476, 162.928
4.388, 4, 7.93072, 54.8737, -57.8795, -38.2393, -52.6604, 162.851
4.392, 4, 7.91162, 54.878, -57.8394, -38.3573, -52.469, 162.766
4.396, 4, 7.89247, 54.8825, -57.7956, -38.4926, -52.2734, 162.67
4.4, 4, 7.87345, 54.8873, -57.7482, -38.6454, -52.0736, 162.566
4.404, 4, 7.8548, 54.8924, -57.6971, -38.8156, -51.8698, 162.452
4.408, 4, 7.83666, 54.898, -57.6423, -39.0033, -51.6623, 162.329
4.412, 4, 7.81913, 54.9041, -57.5839, -39.2085, -51.4513, 162.196
4.416, 4, 7.80232, 54.911, -57.5219, -39.431, -51.2372, 162.055
4.42, 4, 7.78634, 54.9185, -57.4564, -39.6708, -51.0204, 161.904
4.424, 4, 7.77125, 54.9266, -57.3875, -39.9279, -50.8013, 161.744
4.428, 4, 7.75706, 54.9355, -57.3153, -40.2019, -50.5806, 161.576
4.432, 4, 7.74376, 54.9449, -57.2401, -40.4926, -50.3589, 161.398
4.436, 4, 7.73133, 54.9551, -57.1621, -40.7994, -50.137, 161.213
4.44, 4, 7.71972, 54.9659, -57.0814, -41.1217, -49.9157, 161.019
4.444, 4, 7.70894, 54.9774, -56.9984, -41.4586, -49.6958, 160.819
4.448, 4, 7.69895, 54.9895, -56.9133, -41.809, -49.4782, 160.611
4.452, 4, 7.68977, 55.0022, -56.8265, -42.1717, -49.2638, 160.398
4.456, 4, 7.68136, 55.0155, -56.7385, -42.5451, -49.0536, 160.18
4.46, 4, 7.6737, 55.0292, -56.6496, -42.9274, -48.8485, 159.958
4.464, 4, 7.66674, 55.0432, -56.5603, -43.3163, -48.6494, 159.733
4.468, 4, 7.66041, 55.0576, -56.4712, -43.7096, -48.4572, 159.507
4.472, 4, 7.65456, 55.0724, -56.3827, -44.1046, -48.2726, 159.282
4.476, 4, 7.64907, 55.0878, -56.2953, -44.4987, -48.0965, 159.057
4.48, 4, 7.64386, 55.1039, -56.2093, -44.8891, -47.9292, 158.836
4.484, 4, 7.63899, 55.1208, -56.1252, -45.2733, -47.7712, 158.619
4.488, 4, 7.63461, 55.1385, -56.0435, -45.6486, -47.6226, 158.408
4.492, 4, 7.6309, 55.157, -55.9645, -46.0127, -47.4836, 158.204
4.496, 4, 7.62806, 55.1762, -55.8885, -46.3635, -47.354, 158.008
4.5, 4, 7.62622, 55.1963, -55.8158, -46.699, -47.2336, 157.822
4.504, 4, 7.6254, 55.2172, -55.7465, -47.0179, -47.122, 157.644
4.508, 4, 7.62549, 55.2392, -55.6808, -47.3187, -47.0189, 157.477
4.512, 4, 7.62629, 55.2623, -55.6187, -47.6009, -46.9236, 157.321
4.516, 4, 7.62756, 55.2865, -55.5601, -47.8641, -46.8357, 157.176
4.52, 4, 7.62908, 55.3115, -55.5052, -48.1083, -46.7542, 157.04
4.524, 4, 7.6307, 55.3369, -55.454, -48.3338, -46.6786, 156.916
4.528, 4, 7.63235, 55.3623, -55.4063, -48.5413, -46.608, 156.801
4.532, 4, 7.63398, 55.3877, -55.3622, -48.7315, -46.5418, 156.695
4.536, 4, 7.63553, 55.413, -55.3214, -48.9053, -46.4793, 156.598
4.54, 4, 7.63688, 55.4385, -55.2835, -49.0635, -46.4199, 156.51
4.544, 4, 7.63786, 55.4645, -55.2484, -49.2072, -46.363, 156.429
4.548, 4, 7.63829, 55.491, -55.2157, -49.3375, -46.308, 156.355
4.552, 4, 7.63807, 55.518, -55.1854, -49.4552, -46.2544, 156.288
4.556, 4, 7.63715, 55.5453, -55.1573, -49.5613, -46.2016, 156.227
4.56, 4, 7.63559, 55.5725, -55.1314, -49.6564, -46.149, 156.171
4.564, 4, 7.63353, 55.5992, -55.1079, -49.7408, -46.0962, 156.121
4.568, 4, 7.63112, 55.6253, -55.0866, -49.815, -46.0426, 156.076
4.572, 4, 7.62841, 55.6509, -55.0675, -49.8788, -45.9879, 156.035
4.576, 4, 7.62536, 55.6766, -55.0506, -49.9323, -45.9318, 156
4.58, 4, 7.62184, 55.7025, -55.0356, -49.9753, -45.874, 155.97
4.584, 4, 7.61774, 55.7291, -55.0225, -50.0075, -45.8142, 155.944
4.588, 4, 7.61298, 55.7563, -55.0115, -50.0286, -45.7522, 155.924
4.592, 4, 7.60756, 55.7843, -55.0024, -50.0382, -45.6879, 155.91
4.596, 4, 7.60159, 55.8129, -54.9956, -50.0356, -45.621, 155.901
4.6, 4, 7.59521, 55.8418, -54.9912, -50.0202, -45.5513, 155.899
4.604, 4, 7.58853, 55.8708, -54.9894, -49.9914, -45.4786, 155.902
4.608, 4, 7.58154, 55.8998, -54.9904, -49.9486, -45.4031, 155.913
4.612, 4, 7.57408, 55.9289, -54.9942, -49.8915, -45.3246, 155.93
4.616, 4, 7.56592, 55.9586, -55.0008, -49.8196, -45.2433, 155.954
4.62, 4, 7.55685, 55.989, -55.0101, -49.7325, -45.1592, 155.986
4.624, 4, 7.54682, 56.0205, -55.0223, -49.6299, -45.0725, 156.025
4.628, 4, 7.53588, 56.0528, -55.0374, -49.5114, -44.9832, 156.072
4.632, 4, 7.52419, 56.0857, -55.0555, -49.3765, -44.8914, 156.127
4.636, 4, 7.51189, 56.1189, -55.077, -49.225, -44.7972, 156.19
4.64, 4, 7.49903, 56.152, -55.1019, -49.0565, -44.7007, 156.261
4.644, 4, 7.48544, 56.1847, -55.1305, -48.8711, -44.602, 156.341
4.648, 4, 7.47081, 56.2172, -55.1627, -48.6689, -44.5015, 156.429
4.652, 4, 7.45481, 56.2499, -55.1985, -48.45, -44.3994, 156.525
4.656, 4, 7.43727, 56.2829, -55.2378, -48.2143, -44.296, 156.63
4.66, 4, 7.41822, 56.3163, -55.2807, -47.9616, -44.1915, 156.744
4.664, 4, 7.3978, 56.3499, -55.3273, -47.6917, -44.0862, 156.866
4.668, 4, 7.37619, 56.3834, -55.3778, -47.4043, -43.9802, 156.998
4.672, 4, 7.35343, 56.4165, -55.4325, -47.099, -43.8737, 157.139
4.676, 4, 7.32947, 56.449, -55.4914, -46.7758, -43.767, 157.289
4.68, 4, 7.30419, 56.4812, -55.5546, -46.4344, -43.6604, 157.449
4.684, 4, 7.2774, 56.5132, -55.622, -46.075, -43.5542, 157.618
4.688, 4, 7.249, 56.5453, -55.6937, -45.6975, -43.4487, 157.797
4.692, 4, 7.21908, 56.5778, -55.7696, -45.3015, -43.344, 157.986
4.696, 4, 7.18787, 56.6107, -55.8497, -44.8869, -43.2402, 158.185
4.7, 4, 7.15566, 56.6437, -55.9342, -44.4535, -43.1371, 158.394
4.704, 4, 7.1226, 56.6768, -56.0231, -44.0013, -43.0348, 158.613
4.708, 4, 7.08875, 56.71, -56.1163, -43.5304, -42.933, 158.842
4.712, 4, 7.05408, 56.7434, -56.2137, -43.0413, -42.8317, 159.08
4.716, 4, 7.0185, 56.7772, -56.3151, -42.5347, -42.7306, 159.328
4.72, 4, 6.98195, 56.8114, -56.4202, -42.0115, -42.6296, 159.585
4.724, 4, 6.94438, 56.8459, -56.5288, -41.4727, -42.5286, 159.85
4.728, 4, 6.90576, 56.8807, -56.6409, -40.9195, -42.4273, 160.123
4.732, 4, 6.86614, 56.9154, -56.7561, -40.3529, -42.3254, 160.402
4.736, 4, 6.8256, 56.9497, -56.8742, -39.7744, -42.2229, 160.688
4.74, 4, 6.78422, 56.9836, -56.9951, -39.1852, -42.1196, 160.979
4.744, 4, 6.742, 57.017, -57.1184, -38.5867, -42.0155, 161.275
4.748, 4, 6.69891, 57.05, -57.2437, -37.9803, -41.9105, 161.575
4.752, 4, 6.65491, 57.0828, -57.3707, -37.3673, -41.8048, 161.878
4.756, 4, 6.60996, 57.1154, -57.4991, -36.749, -41.6984, 162.184
4.76, 4, 6.56405, 57.1479, -57.6286, -36.1264, -41.5914, 162.492
4.764, 4, 6.51719, 57.1804, -57.759, -35.5004, -41.484, 162.802
4.768, 4, 6.46943, 57.2128, -57.8901, -34.8717, -41.3761, 163.113
4.772, 4, 6.42091, 57.2453, -58.0217, -34.2409, -41.268, 163.425
4.776, 4, 6.3718, 57.2777, -58.1538, -33.6082, -41.1596, 163.738
4.78, 4, 6.32225, 57.3102, -58.2863, -32.974, -41.0509, 164.052
4.784, 4, 6.27238, 57.3427, -58.4191, -32.3383, -40.942, 164.366
4.788, 4, 6.22226, 57.3753, -58.5522, -31.7014, -40.8329, 164.681
4.792, 4, 6.17195, 57.4079, -58.6856, -31.0632, -40.7236, 164.997
4.796, 4, 6.12147, 57.4405, -58.8192, -30.4237, -40.6141, 165.313
4.8, 4, 6.07086, 57.4732, -58.9531, -29.783, -40.5044, 165.63
4.804, 4, 6.02012, 57.506, -59.0873, -29.1411, -40.3944, 165.948
4.808, 4, 5.96926, 57.5388, -59.2218, -28.4979, -40.2843, 166.266
4.812, 4, 5.91828, 57.5717, -59.3565, -27.8535, -40.1739, 166.585
4.816, 4, 5.86718, 57.6047, -59.4915, -27.2077, -40.0633, 166.905
4.82, 4, 5.81597, 57.6377, -59.6267, -26.5607, -39.9525, 167.225
4.824, 4, 5.76465, 57.6708, -59.7623, -25.9122, -39.8415, 167.545
4.828, 4, 5.71321, 57.7039, -59.8981, -25.2624, -39.7302, 167.867
4.832, 4, 5.66165, 57.7371, -60.0343, -24.6112, -39.6187, 168.189
4.836, 4, 5.60998, 57.7704, -60.1707, -23.9585, -39.5069, 168.512
4.84, 4, 5.55818, 57.8038, -60.3075, -23.3043, -39.3949, 168.836
4.844, 4, 5.50626, 57.8373, -60.4446, -22.6486, -39.2826, 169.16
4.848, 4, 5.45422, 57.8708, -60.582, -21.9914, -39.17, 169.485
4.852, 4, 5.40206, 57.9044, -60.7197, -21.3325, -39.0572, 169.811
4.856, 4, 5.34976, 57.9381, -60.8578, -20.6719, -38.9441, 170.138
4.86, 4, 5.29734, 57.9719, -60.9962, -20.0097, -38.8307, 170.466
4.864, 4, 5.24478, 58.0058, -61.135, -19.3458, -38.717, 170.794
4.868, 4, 5.19207, 58.0397, -61.2742, -18.68, -38.603, 171.123
4.872, 4, 5.1392, 58.0738, -61.4138, -18.0125, -38.4887, 171.454
4.876, 4, 5.08619, 58.1079, -61.5537, -17.3431, -38.3741, 171.785
4.88, 4, 5.03308, 58.1422, -61.694, -16.6718, -38.2591, 172.117
4.884, 4, 4.97993, 58.1765, -61.8348, -15.9986, -38.1438, 172.45
4.888, 4, 4.92686, 58.211, -61.9759, -15.3235, -38.0282, 172.784
4.892, 4, 4.87397, 58.2456, -62.1174, -14.6464, -37.9122, 173.119
4.896, 4, 4.82137, 58.2802, -62.2592, -13.9676, -37.796, 173.455
4.9, 4, 4.7691, 58.315, -62.4014, -13.2871, -37.6794, 173.792
4.904, 4, 4.71715, 58.3499, -62.5439, -12.6052, -37.5626, 174.129
4.908, 4, 4.66547, 58.3848, -62.6865, -11.9222, -37.4456, 174.467
4.912, 4, 4.61402, 58.4198, -62.8293, -11.2385, -37.3285, 174.805
4.916, 4, 4.56285, 58.4548, -62.9721, -10.5545, -37.2113, 175.144
4.92, 4, 4.51214, 58.4898, -63.1148, -9.87079, -37.0942, 175.482
4.924, 4, 4.46212, 58.5248, -63.2572, -9.18821, -36.9772, 175.82
4.928, 4, 4.41304, 58.5598, -63.399, -8.50777, -36.8606, 176.156
4.932, 4, 4.36509, 58.5947, -63.54, -7.83086, -36.7446, 176.491
4.936, 4, 4.31842, 58.6293, -63.6798, -7.15921, -36.6294, 176.824
4.94, 4, 4.27307, 58.6637, -63.8179, -6.49492, -36.5154, 177.153
4.944, 4, 4.22903, 58.6976, -63.954, -5.84041, -36.4031, 177.477
4.948, 4, 4.1863, 58.7309, -64.0874, -5.19838, -36.293, 177.794
4.952, 4, 4.14493, 58.7634, -64.2175, -4.57169, -36.1854, 178.105
4.956, 4, 4.10508, 58.7951, -64.3439, -3.96332, -36.081, 178.406
4.96, 4, 4.06685, 58.8256, -64.4658, -3.3763, -35.9802, 178.696
4.964, 4, 4.0303, 58.8549, -64.5826, -2.81366, -35.8836, 178.975
4.968, 4, 3.9953, 58.8827, -64.6937, -2.27831, -35.7917, 179.24
4.972, 4, 3.96167, 58.909, -64.7988, -1.77298, -35.705, 179.49
4.976, 4, 3.92924, 58.9335, -64.8971, -1.3, -35.6238, 179.724
4.98, 4, 3.89792, 58.9561, -64.9886, -0.861232, -35.5486, 179.941
4.984, 4, 3.86769, 58.9768, -65.0727, -0.457962, -35.4795, 180.141
4.988, 4, 3.83865, 58.9956, -65.1495, -0.0908493, -35.4166, 180.322
4.992, 4, 3.81095, 59.0124, -65.2189, 0.240055, -35.36, 180.486
4.996, 4, 3.78477, 59.0273, -65.2809, 0.535262, -35.3095, 180.632
5, 4, 3.76019, 59.0403, -65.3358, 0.795783, -35.265, 180.761
5.004, 4, 3.73721, 59.0515, -65.3839, 1.02306, -35.2262, 180.873
5.008, 4, 3.71579, 59.0611, -65.4255, 1.21893, -35.1929, 180.97
5.012, 4, 3.69591, 59.0691, -65.461, 1.38557, -35.1646, 181.052
5.016, 4, 3.67759, 59.0758, -65.491, 1.52544, -35.1408, 181.121
5.02, 4, 3.66092, 59.0811, -65.516, 1.6412, -35.1212, 181.178
5.024, 4, 3.64596, 59.0854, -65.5365, 1.73559, -35.1053, 181.225
5.028, 4, 3.63268, 59.0888, -65.5531, 1.81137, -35.0925, 181.262
5.032, 4, 3.62099, 59.0913, -65.5663, 1.8712, -35.0825, 181.292
5.036, 4, 3.61069, 59.0932, -65.5767, 1.91757, -35.0747, 181.315
5.04, 4, 3.60161, 59.0946, -65.5846, 1.95282, -35.0689, 181.332
5.044, 4, 3.59362, 59.0956, -65.5906, 1.97905, -35.0645, 181.345
5.048, 4, 3.58668, 59.0963, -65.5951, 1.99815, -35.0614, 181.354
5.052, 4, 3.58079, 59.0967, -65.5983, 2.01177, -35.0592, 181.361
5.056, 55, 3.57595, 59.0969, -65.6006, 2.0213, -35.0577, 181.366
5.06, 55, 3.57216, 59.0971, -65.6022, 2.02787, -35.0566, 181.369
5.064, 55, 3.56935, 59.0972, -65.6033, 2.03235, -35.0559, 181.371
5.068, 55, 3.56737, 59.0973, -65.6041, 2.03539, -35.0554, 181.372
5.072, 55, 3.56601, 59.0973, -65.6046, 2.03746, -35.0551, 181.373
5.076, 55, 3.56509, 59.0974, -65.6049, 2.03885, -35.0548, 181.374
5.08, 55, 3.56447, 59.0974, -65.6052, 2.0398, -35.0547, 181.375
5.084, 55, 3.56404, 59.0974, -65.6053, 2.04044, -35.0546, 181.375
5.088, 55, 3.56376, 59.0974, -65.6054, 2.04088, -35.0545, 181.375
5.092, 55, 3.56357, 59.0974, -65.6055, 2.04117, -35.0545, 181.375
5.096, 55, 3.56343, 59.0974, -65.6056, 2.04137, -35.0544, 181.375
5.1, 55, 3.56335, 59.0974, -65.6056, 2.0415, -35.0544, 181.375
5.104, 55, 3.56329, 59.0974, -65.6056, 2.0416, -35.0544, 181.375
5.108, 55, 3.56324, 59.0974, -65.6056, 2.04166, -35.0544, 181.376
5.112, 55, 3.56322, 59.0974, -65.6056, 2.0417, -35.0544, 181.376
5.116, 55, 3.5632, 59.0974, -65.6057, 2.04173, -35.0544, 181.376
5.12, 55, 3.56319, 59.0974, -65.6057, 2.04175, -35.0544, 181.376
5.124, 55, 3.56318, 59.0974, -65.6057, 2.04176, -35.0544, 181.376
5.128, 55, 3.56317, 59.0974, -65.6057, 2.04177, -35.0544, 181.376
5.132, 55, 3.56317, 59.0974, -65.6057, 2.04177, -35.0544, 181.376
5.136, 55, 3.56316, 59.0974, -65.6057, 2.04178, -35.0544, 181.376
5.14, 55, 3.56316, 59.0974, -65.6057, 2.04178, -35.0544, 181.376
5.144, 55, 3.56316, 59.0974, -65.6057, 2.04178, -35.0544, 181.376
5.148, 55, 3.56316, 59.0974, -65.6057, 2.04178, -35.0544, 181.376
5.152, 55, 3.56316, 59.0974, -65.6057, 2.04179, -35.0544, 181.376
5.156, 55, 3.56316, 59.0974, -65.6057, 2.04179, -35.0544, 181.376
5.16, 55, 3.56316, 59.0974, -65.6057, 2.04179, -35.0544, 181.376
5.164, 55, 3.56316, 59.0974, -65.6057, 2.04179, -35.0544, 181.376
5.168, 55, 3.56316, 59.0974, -65.6057, 2.04179, -35.0544, 181.376
5.172, 55, 3.56316, 59.0974, -65.6057, 2.04179, -35.0544, 181.376
