hehonglu123/Motion-Primitive-Planning/simulation/robotstudio_sim/scripts/curve_pose_opt/curve_exe_vmax_z10.csv
timestamp, cmd_num, J1, J2, J3, J4, J5, J6
0, -1, -6.2693, 53.4206, -25.1823, -125.828, 86.5344, 53.4912
0.002, -1, -6.2693, 53.4206, -25.1823, -125.828, 86.5344, 53.4912
0.006, -1, -6.2693, 53.4206, -25.1823, -125.828, 86.5344, 53.4912
0.008, -1, -6.2693, 53.4206, -25.1823, -125.828, 86.5344, 53.4912
0.011, -1, -6.2693, 53.4206, -25.1823, -125.828, 86.5344, 53.4912
0.016, -1, -6.2693, 53.4206, -25.1823, -125.828, 86.5344, 53.4912
0.02, -1, -6.2693, 53.4206, -25.1823, -125.828, 86.5344, 53.4912
0.024, -1, -6.2693, 53.4206, -25.1823, -125.828, 86.5344, 53.4912
0.028, -1, -6.2693, 53.4206, -25.1823, -125.828, 86.5344, 53.4912
0.032, -1, -6.2693, 53.4206, -25.1823, -125.828, 86.5344, 53.4912
0.036, -1, -6.26927, 53.4206, -25.1823, -125.828, 86.5344, 53.4912
0.04, -1, -6.26917, 53.4204, -25.1823, -125.828, 86.5344, 53.4912
0.044, -1, -6.26892, 53.42, -25.1822, -125.828, 86.5344, 53.4912
0.048, -1, -6.26843, 53.4192, -25.182, -125.828, 86.5345, 53.4912
0.052, -1, -6.26764, 53.4177, -25.1817, -125.828, 86.5345, 53.4912
0.056, -1, -6.26652, 53.4154, -25.1811, -125.828, 86.5346, 53.4911
0.06, -1, -6.26505, 53.412, -25.1801, -125.828, 86.5346, 53.4909
0.064, -1, -6.26324, 53.4074, -25.1785, -125.827, 86.5348, 53.4907
0.068, -1, -6.2611, 53.4015, -25.176, -125.827, 86.5349, 53.4903
0.072, -1, -6.25862, 53.394, -25.1723, -125.826, 86.5352, 53.4896
0.076, -1, -6.25579, 53.385, -25.167, -125.825, 86.5355, 53.4887
0.08, -1, -6.25256, 53.374, -25.1596, -125.824, 86.5358, 53.4874
0.084, -1, -6.2489, 53.3609, -25.1498, -125.822, 86.5363, 53.4856
0.088, -1, -6.24479, 53.3452, -25.1369, -125.819, 86.5369, 53.4832
0.092, -1, -6.24025, 53.3267, -25.1205, -125.816, 86.5376, 53.4801
0.096, -1, -6.23529, 53.3052, -25.0999, -125.811, 86.5385, 53.4762
0.1, -1, -6.22993, 53.2803, -25.0745, -125.806, 86.5395, 53.4714
0.104, -1, -6.22414, 53.2517, -25.0439, -125.8, 86.5407, 53.4655
0.108, -1, -6.21792, 53.2192, -25.0074, -125.792, 86.542, 53.4585
0.112, -1, -6.21123, 53.1823, -24.9646, -125.783, 86.5436, 53.4501
0.116, -1, -6.20408, 53.1409, -24.915, -125.772, 86.5453, 53.4404
0.12, -1, -6.19646, 53.0947, -24.8582, -125.759, 86.5473, 53.4293
0.124, -1, -6.18837, 53.0438, -24.794, -125.745, 86.5495, 53.4167
0.128, -1, -6.17982, 52.988, -24.7221, -125.73, 86.5519, 53.4025
0.131, -1, -6.17081, 52.9272, -24.6424, -125.712, 86.5546, 53.3868
0.136, -1, -6.16133, 52.8614, -24.5549, -125.693, 86.5574, 53.3695
0.139, -1, -6.15138, 52.7907, -24.4598, -125.672, 86.5606, 53.3506
0.144, -1, -6.14095, 52.7151, -24.3571, -125.65, 86.5639, 53.3302
0.148, -1, -6.13006, 52.6347, -24.2471, -125.625, 86.5675, 53.3084
0.152, -1, -6.11872, 52.5498, -24.1303, -125.599, 86.5712, 53.2851
0.156, -1, -6.10698, 52.4606, -24.007, -125.572, 86.5752, 53.2606
0.16, -1, -6.09483, 52.3674, -23.8778, -125.544, 86.5793, 53.2349
0.164, -1, -6.08225, 52.2704, -23.7432, -125.514, 86.5836, 53.208
0.168, -1, -6.06925, 52.1699, -23.6037, -125.483, 86.5881, 53.1802
0.172, -1, -6.05581, 52.0662, -23.4599, -125.451, 86.5927, 53.1516
0.176, -1, -6.04198, 51.9597, -23.3125, -125.419, 86.5974, 53.1222
0.18, -1, -6.0278, 51.8508, -23.1619, -125.385, 86.6023, 53.0923
0.184, -1, -6.01329, 51.7396, -23.0086, -125.351, 86.6072, 53.0618
0.188, -1, -5.99844, 51.6266, -22.8533, -125.317, 86.6123, 53.0309
0.192, -1, -5.98321, 51.5118, -22.6964, -125.283, 86.6174, 52.9997
0.196, -1, -5.96757, 51.3954, -22.5382, -125.248, 86.6225, 52.9683
0.2, -1, -5.95148, 51.2775, -22.379, -125.213, 86.6277, 52.9367
0.204, -1, -5.93492, 51.1584, -22.2193, -125.177, 86.633, 52.905
0.208, -1, -5.91793, 51.0382, -22.059, -125.142, 86.6383, 52.8733
0.212, -1, -5.90059, 50.9173, -21.8986, -125.107, 86.6436, 52.8415
0.216, -1, -5.88298, 50.7958, -21.738, -125.072, 86.6489, 52.8097
0.22, -1, -5.8652, 50.674, -21.5774, -125.036, 86.6542, 52.7778
0.224, -1, -5.8473, 50.552, -21.4168, -125.001, 86.6595, 52.746
0.228, -1, -5.82934, 50.4299, -21.2562, -124.966, 86.6648, 52.7143
0.232, -1, -5.81133, 50.3078, -21.0958, -124.931, 86.6702, 52.6825
0.236, -1, -5.7933, 50.1858, -20.9356, -124.895, 86.6755, 52.6508
0.24, -1, -5.77526, 50.0638, -20.7754, -124.86, 86.6808, 52.6191
0.244, -1, -5.75722, 49.9419, -20.6154, -124.825, 86.6861, 52.5874
0.248, -1, -5.73919, 49.8201, -20.4556, -124.79, 86.6914, 52.5558
0.252, -1, -5.72117, 49.6984, -20.2959, -124.755, 86.6967, 52.5242
0.256, -1, -5.70316, 49.5769, -20.1364, -124.72, 86.702, 52.4926
0.26, -1, -5.68517, 49.4554, -19.977, -124.685, 86.7073, 52.4611
0.264, -1, -5.66719, 49.3341, -19.8179, -124.65, 86.7126, 52.4296
0.268, -1, -5.64923, 49.2129, -19.6588, -124.615, 86.7179, 52.3981
0.272, -1, -5.63128, 49.0918, -19.5, -124.58, 86.7232, 52.3666
0.276, -1, -5.61336, 48.9708, -19.3413, -124.545, 86.7285, 52.3352
0.28, -1, -5.59545, 48.85, -19.1828, -124.51, 86.7337, 52.3038
0.284, -1, -5.57756, 48.7293, -19.0244, -124.476, 86.739, 52.2725
0.288, -1, -5.5597, 48.6087, -18.8662, -124.441, 86.7442, 52.2412
0.292, -1, -5.54184, 48.4883, -18.7082, -124.406, 86.7495, 52.2099
0.296, -1, -5.52401, 48.3679, -18.5503, -124.372, 86.7547, 52.1787
0.3, -1, -5.5062, 48.2477, -18.3926, -124.337, 86.76, 52.1475
0.304, -1, -5.4884, 48.1277, -18.2351, -124.302, 86.7652, 52.1163
0.308, -1, -5.47062, 48.0077, -18.0777, -124.268, 86.7704, 52.0851
0.312, -1, -5.45286, 47.8879, -17.9205, -124.233, 86.7756, 52.054
0.316, -1, -5.43512, 47.7682, -17.7635, -124.199, 86.7809, 52.0229
0.32, -1, -5.4174, 47.6486, -17.6066, -124.164, 86.7861, 51.9919
0.324, -1, -5.3997, 47.5292, -17.4498, -124.13, 86.7913, 51.9609
0.328, -1, -5.38201, 47.4099, -17.2933, -124.095, 86.7965, 51.9299
0.332, -1, -5.36435, 47.2907, -17.1369, -124.061, 86.8017, 51.8989
0.336, -1, -5.3467, 47.1716, -16.9806, -124.027, 86.8069, 51.868
0.34, -1, -5.32907, 47.0526, -16.8246, -123.993, 86.812, 51.8371
0.344, -1, -5.31145, 46.9338, -16.6686, -123.958, 86.8172, 51.8062
0.348, -1, -5.29386, 46.8151, -16.5129, -123.924, 86.8224, 51.7754
0.352, -1, -5.27628, 46.6965, -16.3573, -123.89, 86.8276, 51.7446
0.356, -1, -5.25872, 46.5781, -16.2019, -123.856, 86.8327, 51.7138
0.36, -1, -5.24117, 46.4597, -16.0466, -123.822, 86.8379, 51.6831
0.364, -1, -5.22365, 46.3415, -15.8915, -123.788, 86.843, 51.6524
0.368, -1, -5.20614, 46.2234, -15.7365, -123.754, 86.8482, 51.6217
0.372, -1, -5.18865, 46.1055, -15.5817, -123.72, 86.8533, 51.5911
0.376, -1, -5.17118, 45.9876, -15.427, -123.686, 86.8585, 51.5605
0.38, -1, -5.15373, 45.8699, -15.2726, -123.652, 86.8636, 51.5299
0.384, -1, -5.13629, 45.7523, -15.1182, -123.618, 86.8687, 51.4994
0.388, -1, -5.11887, 45.6348, -14.964, -123.584, 86.8738, 51.4689
0.392, -1, -5.10147, 45.5174, -14.81, -123.55, 86.879, 51.4384
0.396, -1, -5.08409, 45.4002, -14.6561, -123.516, 86.8841, 51.4079
0.4, -1, -5.06672, 45.283, -14.5024, -123.483, 86.8892, 51.3775
0.404, -1, -5.04937, 45.166, -14.3489, -123.449, 86.8943, 51.3471
0.408, -1, -5.03204, 45.0491, -14.1955, -123.415, 86.8994, 51.3167
0.412, -1, -5.01473, 44.9323, -14.0422, -123.381, 86.9045, 51.2864
0.416, -1, -4.99743, 44.8156, -13.8891, -123.348, 86.9095, 51.2561
0.42, -1, -4.98016, 44.699, -13.7362, -123.314, 86.9146, 51.2258
0.424, -1, -4.96289, 44.5826, -13.5834, -123.281, 86.9197, 51.1956
0.428, -1, -4.94565, 44.4662, -13.4307, -123.247, 86.9248, 51.1654
0.432, -1, -4.92842, 44.35, -13.2783, -123.214, 86.9298, 51.1352
0.436, -1, -4.91121, 44.2338, -13.1259, -123.18, 86.9349, 51.105
0.44, -1, -4.89402, 44.1178, -12.9737, -123.147, 86.9399, 51.0749
0.444, -1, -4.87684, 44.0019, -12.8217, -123.113, 86.945, 51.0448
0.448, -1, -4.85969, 43.8861, -12.6698, -123.08, 86.9501, 51.0148
0.452, -1, -4.84254, 43.7704, -12.5181, -123.047, 86.9551, 50.9847
0.456, -1, -4.82542, 43.6549, -12.3665, -123.013, 86.9601, 50.9547
0.46, -1, -4.80831, 43.5394, -12.215, -122.98, 86.9652, 50.9248
0.464, -1, -4.79122, 43.4241, -12.0637, -122.947, 86.9702, 50.8948
0.468, -1, -4.77414, 43.3088, -11.9126, -122.914, 86.9752, 50.8649
0.472, -1, -4.75709, 43.1937, -11.7616, -122.881, 86.9802, 50.835
0.476, -1, -4.74004, 43.0787, -11.6107, -122.847, 86.9852, 50.8052
0.48, -1, -4.72302, 42.9638, -11.46, -122.814, 86.9902, 50.7753
0.484, -1, -4.70601, 42.849, -11.3095, -122.781, 86.9952, 50.7455
0.488, -1, -4.68902, 42.7343, -11.1591, -122.748, 87.0002, 50.7158
0.492, -1, -4.67205, 42.6197, -11.0088, -122.715, 87.0052, 50.686
0.496, -1, -4.65509, 42.5052, -10.8587, -122.682, 87.0102, 50.6563
0.5, -1, -4.63814, 42.3908, -10.7087, -122.649, 87.0152, 50.6266
0.504, -1, -4.62122, 42.2765, -10.5589, -122.617, 87.0202, 50.597
0.508, -1, -4.60431, 42.1624, -10.4092, -122.584, 87.0251, 50.5673
0.512, -1, -4.58742, 42.0483, -10.2597, -122.551, 87.0301, 50.5377
0.516, -1, -4.57054, 41.9344, -10.1103, -122.518, 87.0351, 50.5082
0.52, -1, -4.55368, 41.8205, -9.96103, -122.485, 87.04, 50.4786
0.524, -1, -4.53684, 41.7068, -9.81192, -122.452, 87.045, 50.4491
0.528, -1, -4.52001, 41.5932, -9.66296, -122.42, 87.0499, 50.4196
0.532, -1, -4.5032, 41.4797, -9.51413, -122.387, 87.0549, 50.3902
0.536, -1, -4.4864, 41.3663, -9.36545, -122.354, 87.0598, 50.3607
0.54, -1, -4.46962, 41.253, -9.21691, -122.322, 87.0647, 50.3313
0.544, -1, -4.45286, 41.1398, -9.06852, -122.289, 87.0697, 50.302
0.548, -1, -4.43611, 41.0268, -8.92026, -122.257, 87.0746, 50.2726
0.552, -1, -4.41938, 40.9138, -8.77214, -122.224, 87.0795, 50.2433
0.556, -1, -4.40266, 40.801, -8.62417, -122.192, 87.0844, 50.214
0.56, -1, -4.38596, 40.6882, -8.47634, -122.159, 87.0893, 50.1848
0.564, -1, -4.36928, 40.5756, -8.32864, -122.127, 87.0942, 50.1555
0.568, -1, -4.35261, 40.4631, -8.18108, -122.094, 87.0992, 50.1263
0.572, -1, -4.33596, 40.3507, -8.03367, -122.062, 87.104, 50.0972
0.576, -1, -4.31932, 40.2384, -7.88639, -122.03, 87.1089, 50.068
0.58, -1, -4.3027, 40.1262, -7.73925, -121.997, 87.1138, 50.0389
0.584, -1, -4.28609, 40.0141, -7.59225, -121.965, 87.1187, 50.0098
0.588, -1, -4.2695, 39.9021, -7.44539, -121.933, 87.1236, 49.9807
0.592, -1, -4.25293, 39.7902, -7.29866, -121.901, 87.1285, 49.9517
0.596, -1, -4.23637, 39.6785, -7.15207, -121.868, 87.1333, 49.9227
0.6, -1, -4.21982, 39.5668, -7.00562, -121.836, 87.1382, 49.8937
0.604, -1, -4.20329, 39.4552, -6.85931, -121.804, 87.1431, 49.8647
0.608, -1, -4.18678, 39.3438, -6.71313, -121.772, 87.1479, 49.8358
0.612, -1, -4.17028, 39.2324, -6.56708, -121.74, 87.1528, 49.8069
0.616, -1, -4.1538, 39.1212, -6.42118, -121.708, 87.1576, 49.778
0.62, -1, -4.13733, 39.01, -6.2754, -121.676, 87.1625, 49.7491
0.624, -1, -4.12087, 38.899, -6.12976, -121.644, 87.1673, 49.7203
0.628, -1, -4.10443, 38.7881, -5.98426, -121.612, 87.1721, 49.6915
0.632, -1, -4.08801, 38.6772, -5.83889, -121.58, 87.1769, 49.6628
0.636, -1, -4.0716, 38.5665, -5.69365, -121.548, 87.1818, 49.634
0.64, -1, -4.05521, 38.4559, -5.54854, -121.516, 87.1866, 49.6053
0.644, -1, -4.03883, 38.3453, -5.40357, -121.484, 87.1914, 49.5766
0.648, -1, -4.02247, 38.2349, -5.25873, -121.453, 87.1962, 49.5479
0.652, -1, -4.00612, 38.1246, -5.11401, -121.421, 87.201, 49.5193
0.656, -1, -3.98979, 38.0143, -4.96943, -121.389, 87.2058, 49.4907
0.66, -1, -3.97347, 37.9042, -4.82499, -121.357, 87.2106, 49.4621
0.664, -1, -3.95716, 37.7941, -4.68067, -121.326, 87.2154, 49.4335
0.668, -1, -3.94087, 37.6842, -4.53648, -121.294, 87.2202, 49.405
0.672, -1, -3.9246, 37.5744, -4.39242, -121.262, 87.225, 49.3765
0.676, -1, -3.90834, 37.4646, -4.24849, -121.231, 87.2298, 49.348
0.68, -1, -3.89209, 37.355, -4.10468, -121.199, 87.2346, 49.3195
0.684, -1, -3.87586, 37.2455, -3.96101, -121.168, 87.2393, 49.2911
0.688, -1, -3.85965, 37.136, -3.81747, -121.136, 87.2441, 49.2627
0.692, -1, -3.84344, 37.0267, -3.67405, -121.105, 87.2489, 49.2343
0.696, -1, -3.82726, 36.9174, -3.53076, -121.073, 87.2536, 49.2059
0.7, -1, -3.81108, 36.8083, -3.38759, -121.042, 87.2584, 49.1776
0.704, -1, -3.79492, 36.6992, -3.24456, -121.01, 87.2631, 49.1493
0.708, -1, -3.77878, 36.5903, -3.10164, -120.979, 87.2679, 49.121
0.712, -1, -3.76265, 36.4814, -2.95886, -120.947, 87.2726, 49.0927
0.716, -1, -3.74653, 36.3726, -2.8162, -120.916, 87.2774, 49.0645
0.72, -1, -3.73043, 36.264, -2.67367, -120.885, 87.2821, 49.0363
0.724, -1, -3.71434, 36.1554, -2.53126, -120.854, 87.2868, 49.0081
0.728, -1, -3.69827, 36.0469, -2.38897, -120.822, 87.2915, 48.9799
0.732, -1, -3.68221, 35.9385, -2.24681, -120.791, 87.2963, 48.9518
0.736, -1, -3.66617, 35.8302, -2.10478, -120.76, 87.301, 48.9237
0.74, -1, -3.65013, 35.7221, -1.96286, -120.729, 87.3057, 48.8956
0.744, -1, -3.63412, 35.614, -1.82107, -120.698, 87.3104, 48.8675
0.748, -1, -3.61811, 35.5059, -1.67941, -120.666, 87.3151, 48.8395
0.752, -1, -3.60212, 35.398, -1.53786, -120.635, 87.3198, 48.8115
0.756, -1, -3.58615, 35.2902, -1.39644, -120.604, 87.3245, 48.7835
0.76, -1, -3.57018, 35.1825, -1.25514, -120.573, 87.3292, 48.7555
0.764, -1, -3.55424, 35.0749, -1.11396, -120.542, 87.3339, 48.7276
0.768, -1, -3.5383, 34.9673, -0.972907, -120.511, 87.3386, 48.6996
0.772, -1, -3.52238, 34.8599, -0.831971, -120.48, 87.3433, 48.6718
0.776, -1, -3.50647, 34.7525, -0.691156, -120.449, 87.3479, 48.6439
0.78, -1, -3.49058, 34.6452, -0.550461, -120.419, 87.3526, 48.616
0.784, -1, -3.4747, 34.5381, -0.409886, -120.388, 87.3573, 48.5882
0.788, -1, -3.45883, 34.431, -0.269431, -120.357, 87.362, 48.5604
0.792, -1, -3.44298, 34.324, -0.129095, -120.326, 87.3666, 48.5326
0.796, -1, -3.42714, 34.2171, 0.011122, -120.295, 87.3713, 48.5049
0.8, -1, -3.41131, 34.1103, 0.15122, -120.264, 87.3759, 48.4772
0.804, -1, -3.3955, 34.0036, 0.291199, -120.234, 87.3806, 48.4494
0.808, -1, -3.3797, 33.8969, 0.431061, -120.203, 87.3852, 48.4218
0.812, -1, -3.36392, 33.7904, 0.570804, -120.172, 87.3899, 48.3941
0.816, -1, -3.34814, 33.6839, 0.71043, -120.142, 87.3945, 48.3665
0.82, -1, -3.33238, 33.5776, 0.849939, -120.111, 87.3991, 48.3389
0.824, -1, -3.31664, 33.4713, 0.989331, -120.08, 87.4038, 48.3113
0.828, -1, -3.3009, 33.3651, 1.12861, -120.05, 87.4084, 48.2837
0.832, -1, -3.28519, 33.259, 1.26776, -120.019, 87.413, 48.2562
0.836, -1, -3.26948, 33.153, 1.40681, -119.989, 87.4176, 48.2286
0.84, -1, -3.25378, 33.0471, 1.54573, -119.958, 87.4222, 48.2011
0.844, -1, -3.2381, 32.9413, 1.68455, -119.928, 87.4269, 48.1737
0.848, -1, -3.22244, 32.8355, 1.82324, -119.897, 87.4315, 48.1462
0.852, -1, -3.20678, 32.7299, 1.96182, -119.867, 87.4361, 48.1188
0.856, -1, -3.19114, 32.6243, 2.10029, -119.836, 87.4407, 48.0914
0.86, -1, -3.17551, 32.5189, 2.23864, -119.806, 87.4453, 48.064
0.864, -1, -3.1599, 32.4135, 2.37688, -119.776, 87.4499, 48.0366
0.868, -1, -3.14429, 32.3082, 2.51501, -119.745, 87.4544, 48.0093
0.872, -1, -3.1287, 32.2029, 2.65302, -119.715, 87.459, 47.982
0.876, -1, -3.11313, 32.0978, 2.79092, -119.685, 87.4636, 47.9547
0.88, -1, -3.09756, 31.9928, 2.9287, -119.654, 87.4682, 47.9274
0.884, -1, -3.08201, 31.8878, 3.06638, -119.624, 87.4728, 47.9002
0.888, -1, -3.06647, 31.7829, 3.20394, -119.594, 87.4773, 47.8729
0.892, -1, -3.05095, 31.6782, 3.34139, -119.564, 87.4819, 47.8457
0.896, -1, -3.03543, 31.5735, 3.47872, -119.534, 87.4865, 47.8186
0.9, -1, -3.01993, 31.4688, 3.61595, -119.504, 87.491, 47.7914
0.904, -1, -3.00444, 31.3643, 3.75306, -119.473, 87.4956, 47.7643
0.908, -1, -2.98897, 31.2599, 3.89007, -119.443, 87.5001, 47.7371
0.912, -1, -2.97351, 31.1555, 4.02696, -119.413, 87.5047, 47.71
0.916, -1, -2.95805, 31.0512, 4.16374, -119.383, 87.5092, 47.683
0.92, -1, -2.94262, 30.947, 4.30042, -119.353, 87.5137, 47.6559
0.924, -1, -2.92719, 30.8429, 4.43698, -119.323, 87.5183, 47.6289
0.928, -1, -2.91178, 30.7389, 4.57343, -119.293, 87.5228, 47.6019
0.932, -1, -2.89638, 30.6349, 4.70978, -119.263, 87.5274, 47.5749
0.936, -1, -2.88099, 30.5311, 4.84601, -119.233, 87.5319, 47.5479
0.94, -1, -2.86561, 30.4273, 4.98214, -119.204, 87.5364, 47.521
0.944, -1, -2.85024, 30.3236, 5.11816, -119.174, 87.5409, 47.4941
0.948, -1, -2.83489, 30.22, 5.25407, -119.144, 87.5454, 47.4672
0.952, -1, -2.81955, 30.1165, 5.38987, -119.114, 87.5499, 47.4403
0.956, -1, -2.80422, 30.013, 5.52557, -119.084, 87.5545, 47.4134
0.96, -1, -2.7889, 29.9097, 5.66116, -119.054, 87.559, 47.3866
0.964, -1, -2.7736, 29.8064, 5.79664, -119.025, 87.5635, 47.3598
0.968, -1, -2.75831, 29.7032, 5.93202, -118.995, 87.5679, 47.333
0.972, -1, -2.74303, 29.6, 6.06729, -118.965, 87.5724, 47.3062
0.976, -1, -2.72776, 29.497, 6.20245, -118.936, 87.5769, 47.2795
0.98, -1, -2.7125, 29.394, 6.33751, -118.906, 87.5814, 47.2527
0.984, -1, -2.69725, 29.2911, 6.47247, -118.876, 87.5859, 47.226
0.988, -1, -2.68202, 29.1883, 6.60732, -118.847, 87.5904, 47.1993
0.992, -1, -2.6668, 29.0856, 6.74206, -118.817, 87.5949, 47.1727
0.996, -1, -2.65159, 28.983, 6.87671, -118.787, 87.5993, 47.146
1, -1, -2.63639, 28.8804, 7.01124, -118.758, 87.6038, 47.1194
1.004, -1, -2.6212, 28.7779, 7.14568, -118.728, 87.6083, 47.0928
1.008, -1, -2.60603, 28.6755, 7.28001, -118.699, 87.6127, 47.0662
1.012, -1, -2.59086, 28.5732, 7.41424, -118.669, 87.6172, 47.0396
1.016, -1, -2.57571, 28.4709, 7.54837, -118.64, 87.6216, 47.0131
1.02, -1, -2.56057, 28.3687, 7.6824, -118.611, 87.6261, 46.9865
1.024, -1, -2.54544, 28.2666, 7.81632, -118.581, 87.6305, 46.96
1.027, -1, -2.53033, 28.1646, 7.95015, -118.552, 87.635, 46.9335
1.032, -1, -2.51522, 28.0627, 8.08387, -118.522, 87.6394, 46.9071
1.036, -1, -2.50013, 27.9608, 8.21749, -118.493, 87.6439, 46.8806
1.04, -1, -2.48505, 27.859, 8.35101, -118.464, 87.6483, 46.8542
1.044, -1, -2.46997, 27.7573, 8.48443, -118.434, 87.6527, 46.8278
1.048, -1, -2.45491, 27.6557, 8.61776, -118.405, 87.6572, 46.8014
1.052, -1, -2.43986, 27.5541, 8.75098, -118.376, 87.6616, 46.775
1.055, -1, -2.42483, 27.4526, 8.8841, -118.347, 87.666, 46.7487
1.06, -1, -2.4098, 27.3512, 9.01712, -118.317, 87.6704, 46.7224
1.064, -1, -2.39479, 27.2499, 9.15005, -118.288, 87.6748, 46.6961
1.068, -1, -2.37978, 27.1486, 9.28287, -118.259, 87.6793, 46.6698
1.072, -1, -2.36479, 27.0474, 9.4156, -118.23, 87.6837, 46.6435
1.076, -1, -2.34981, 26.9463, 9.54823, -118.201, 87.6881, 46.6172
1.08, -1, -2.33484, 26.8453, 9.68076, -118.172, 87.6925, 46.591
1.084, -1, -2.31988, 26.7443, 9.81319, -118.143, 87.6969, 46.5648
1.088, -1, -2.30493, 26.6434, 9.94553, -118.113, 87.7013, 46.5386
1.091, -1, -2.28999, 26.5426, 10.0778, -118.084, 87.7057, 46.5124
1.096, -1, -2.27506, 26.4419, 10.2099, -118.055, 87.71, 46.4863
1.1, -1, -2.26015, 26.3412, 10.342, -118.026, 87.7144, 46.4601
1.104, -1, -2.24524, 26.2406, 10.4739, -117.997, 87.7188, 46.434
1.108, -1, -2.23035, 26.1401, 10.6058, -117.968, 87.7232, 46.4079
1.112, -1, -2.21547, 26.0397, 10.7375, -117.94, 87.7276, 46.3819
1.116, -1, -2.20059, 25.9393, 10.8692, -117.911, 87.7319, 46.3558
1.119, -1, -2.18573, 25.839, 11.0008, -117.882, 87.7363, 46.3298
1.124, -1, -2.17088, 25.7388, 11.1322, -117.853, 87.7407, 46.3037
1.128, -1, -2.15604, 25.6386, 11.2636, -117.824, 87.745, 46.2777
1.132, -1, -2.14121, 25.5385, 11.3949, -117.795, 87.7494, 46.2517
1.136, -1, -2.12639, 25.4385, 11.5261, -117.766, 87.7538, 46.2258
1.14, -1, -2.11158, 25.3386, 11.6572, -117.738, 87.7581, 46.1998
1.144, -1, -2.09679, 25.2387, 11.7882, -117.709, 87.7625, 46.1739
1.147, -1, -2.082, 25.1389, 11.9191, -117.68, 87.7668, 46.148
1.152, -1, -2.06722, 25.0392, 12.0499, -117.651, 87.7712, 46.1221
1.156, -1, -2.05246, 24.9395, 12.1806, -117.623, 87.7755, 46.0962
1.16, -1, -2.0377, 24.8399, 12.3113, -117.594, 87.7799, 46.0704
1.164, -1, -2.02296, 24.7404, 12.4418, -117.565, 87.7842, 46.0445
1.168, -1, -2.00822, 24.641, 12.5722, -117.537, 87.7885, 46.0187
1.172, -1, -1.9935, 24.5416, 12.7026, -117.508, 87.7928, 45.9929
1.175, -1, -1.97878, 24.4423, 12.8329, -117.479, 87.7972, 45.9671
1.18, -1, -1.96408, 24.3431, 12.963, -117.451, 87.8015, 45.9414
1.184, -1, -1.94939, 24.2439, 13.0931, -117.422, 87.8058, 45.9156
1.188, -1, -1.9347, 24.1448, 13.2231, -117.394, 87.8101, 45.8899
1.192, -1, -1.92003, 24.0458, 13.353, -117.365, 87.8145, 45.8642
1.196, -1, -1.90537, 23.9468, 13.4828, -117.337, 87.8188, 45.8385
1.2, -1, -1.89072, 23.8479, 13.6125, -117.308, 87.8231, 45.8128
1.204, -1, -1.87607, 23.7491, 13.7422, -117.28, 87.8274, 45.7872
1.208, -1, -1.86144, 23.6504, 13.8717, -117.251, 87.8317, 45.7615
1.212, -1, -1.84682, 23.5517, 14.0011, -117.223, 87.836, 45.7359
1.216, -1, -1.83221, 23.4531, 14.1305, -117.194, 87.8403, 45.7103
1.22, -1, -1.8176, 23.3545, 14.2598, -117.166, 87.8446, 45.6847
1.224, -1, -1.80301, 23.256, 14.389, -117.138, 87.8489, 45.6591
1.228, -1, -1.78843, 23.1576, 14.518, -117.109, 87.8532, 45.6336
1.232, -1, -1.77386, 23.0593, 14.6471, -117.081, 87.8574, 45.6081
1.236, -1, -1.75929, 22.961, 14.776, -117.053, 87.8617, 45.5825
1.24, -1, -1.74474, 22.8628, 14.9048, -117.024, 87.866, 45.557
1.244, -1, -1.7302, 22.7646, 15.0335, -116.996, 87.8703, 45.5316
1.248, -1, -1.71567, 22.6666, 15.1622, -116.968, 87.8746, 45.5061
1.252, -1, -1.70115, 22.5685, 15.2908, -116.94, 87.8788, 45.4806
1.256, -1, -1.68663, 22.4706, 15.4192, -116.911, 87.8831, 45.4552
1.26, -1, -1.67213, 22.3727, 15.5476, -116.883, 87.8874, 45.4298
1.264, -1, -1.65764, 22.2749, 15.6759, -116.855, 87.8916, 45.4044
1.267, -1, -1.64315, 22.1772, 15.8041, -116.827, 87.8959, 45.379
1.272, -1, -1.62868, 22.0795, 15.9323, -116.799, 87.9001, 45.3537
1.276, -1, -1.61422, 21.9819, 16.0603, -116.771, 87.9044, 45.3283
1.28, -1, -1.59976, 21.8843, 16.1883, -116.743, 87.9086, 45.303
1.284, -1, -1.58532, 21.7868, 16.3162, -116.714, 87.9129, 45.2777
1.288, -1, -1.57088, 21.6894, 16.444, -116.686, 87.9171, 45.2524
1.292, -1, -1.55646, 21.5921, 16.5717, -116.658, 87.9214, 45.2271
1.295, -1, -1.54204, 21.4948, 16.6993, -116.63, 87.9256, 45.2019
1.3, -1, -1.52764, 21.3975, 16.8268, -116.602, 87.9298, 45.1766
1.304, -1, -1.51324, 21.3004, 16.9543, -116.574, 87.9341, 45.1514
1.308, -1, -1.49885, 21.2033, 17.0816, -116.546, 87.9383, 45.1262
1.312, -1, -1.48447, 21.1062, 17.2089, -116.518, 87.9425, 45.101
1.316, -1, -1.47011, 21.0093, 17.3361, -116.49, 87.9468, 45.0758
1.32, -1, -1.45575, 20.9124, 17.4632, -116.463, 87.951, 45.0507
1.324, -1, -1.4414, 20.8155, 17.5903, -116.435, 87.9552, 45.0255
1.328, -1, -1.42706, 20.7187, 17.7172, -116.407, 87.9594, 45.0004
1.332, -1, -1.41272, 20.622, 17.8441, -116.379, 87.9636, 44.9753
1.336, -1, -1.3984, 20.5254, 17.9709, -116.351, 87.9678, 44.9502
1.34, -1, -1.38409, 20.4288, 18.0976, -116.323, 87.9721, 44.9251
1.344, -1, -1.36978, 20.3322, 18.2242, -116.295, 87.9763, 44.9
1.348, -1, -1.35549, 20.2358, 18.3507, -116.268, 87.9805, 44.875
1.352, -1, -1.34121, 20.1394, 18.4772, -116.24, 87.9847, 44.85
1.356, -1, -1.32693, 20.043, 18.6036, -116.212, 87.9889, 44.825
1.36, -1, -1.31266, 19.9467, 18.7299, -116.184, 87.9931, 44.8
1.364, -1, -1.2984, 19.8505, 18.8561, -116.157, 87.9973, 44.775
1.368, -1, -1.28416, 19.7544, 18.9822, -116.129, 88.0014, 44.75
1.372, -1, -1.26992, 19.6583, 19.1083, -116.101, 88.0056, 44.7251
1.376, -1, -1.25569, 19.5622, 19.2343, -116.074, 88.0098, 44.7001
1.38, -1, -1.24146, 19.4662, 19.3602, -116.046, 88.014, 44.6752
1.384, -1, -1.22725, 19.3703, 19.486, -116.018, 88.0182, 44.6503
1.388, -1, -1.21305, 19.2745, 19.6117, -115.991, 88.0224, 44.6254
1.392, -1, -1.19885, 19.1787, 19.7374, -115.963, 88.0265, 44.6005
1.396, -1, -1.18467, 19.0829, 19.863, -115.936, 88.0307, 44.5757
1.4, -1, -1.17049, 18.9873, 19.9885, -115.908, 88.0349, 44.5508
1.404, -1, -1.15632, 18.8916, 20.1139, -115.88, 88.039, 44.526
1.408, -1, -1.14216, 18.7961, 20.2392, -115.853, 88.0432, 44.5012
1.412, -1, -1.12801, 18.7006, 20.3645, -115.825, 88.0474, 44.4764
1.416, -1, -1.11387, 18.6051, 20.4897, -115.798, 88.0515, 44.4516
1.42, -1, -1.09974, 18.5098, 20.6148, -115.77, 88.0557, 44.4269
1.424, -1, -1.08562, 18.4144, 20.7399, -115.743, 88.0598, 44.4021
1.428, -1, -1.0715, 18.3192, 20.8648, -115.715, 88.064, 44.3774
1.432, -1, -1.05739, 18.224, 20.9897, -115.688, 88.0681, 44.3527
1.436, -1, -1.0433, 18.1288, 21.1145, -115.661, 88.0723, 44.328
1.44, -1, -1.02921, 18.0337, 21.2392, -115.633, 88.0764, 44.3033
1.444, -1, -1.01512, 17.9387, 21.3639, -115.606, 88.0806, 44.2786
1.448, -1, -1.00105, 17.8437, 21.4885, -115.579, 88.0847, 44.254
1.452, -1, -0.986989, 17.7488, 21.613, -115.551, 88.0888, 44.2293
1.456, -1, -0.972934, 17.654, 21.7374, -115.524, 88.093, 44.2047
1.46, -1, -0.958887, 17.5592, 21.8618, -115.497, 88.0971, 44.1801
1.464, -1, -0.944849, 17.4644, 21.986, -115.469, 88.1012, 44.1555
1.468, -1, -0.930819, 17.3697, 22.1103, -115.442, 88.1054, 44.1309
1.472, -1, -0.916798, 17.2751, 22.2344, -115.415, 88.1095, 44.1063
1.476, -1, -0.902785, 17.1805, 22.3584, -115.387, 88.1136, 44.0818
1.48, -1, -0.888781, 17.086, 22.4824, -115.36, 88.1177, 44.0572
1.484, -1, -0.874785, 16.9915, 22.6063, -115.333, 88.1218, 44.0327
1.488, -1, -0.860798, 16.8971, 22.7302, -115.306, 88.126, 44.0082
1.492, -1, -0.846818, 16.8028, 22.8539, -115.279, 88.1301, 43.9837
1.496, -1, -0.832847, 16.7085, 22.9776, -115.252, 88.1342, 43.9592
1.5, -1, -0.818885, 16.6143, 23.1012, -115.224, 88.1383, 43.9348
1.504, -1, -0.80493, 16.5201, 23.2248, -115.197, 88.1424, 43.9103
1.508, -1, -0.790984, 16.426, 23.3482, -115.17, 88.1465, 43.8859
1.512, -1, -0.777046, 16.3319, 23.4716, -115.143, 88.1506, 43.8614
1.516, -1, -0.763117, 16.2379, 23.5949, -115.116, 88.1547, 43.837
1.52, -1, -0.749195, 16.1439, 23.7182, -115.089, 88.1588, 43.8126
1.524, -1, -0.735282, 16.05, 23.8414, -115.062, 88.1629, 43.7883
1.528, -1, -0.721377, 15.9562, 23.9645, -115.035, 88.1669, 43.7639
1.532, -1, -0.707479, 15.8624, 24.0875, -115.008, 88.171, 43.7395
1.536, -1, -0.69359, 15.7686, 24.2105, -114.981, 88.1751, 43.7152
1.54, -1, -0.67971, 15.6749, 24.3334, -114.954, 88.1792, 43.6909
1.544, -1, -0.665837, 15.5813, 24.4562, -114.927, 88.1833, 43.6666
1.548, -1, -0.651972, 15.4877, 24.5789, -114.9, 88.1874, 43.6423
1.552, -1, -0.638115, 15.3942, 24.7016, -114.873, 88.1914, 43.618
1.556, -1, -0.624266, 15.3007, 24.8242, -114.846, 88.1955, 43.5937
1.56, -1, -0.610425, 15.2073, 24.9468, -114.819, 88.1996, 43.5695
1.564, -1, -0.596592, 15.114, 25.0692, -114.792, 88.2036, 43.5452
1.568, -1, -0.582767, 15.0207, 25.1916, -114.765, 88.2077, 43.521
1.572, -1, -0.56895, 14.9274, 25.314, -114.738, 88.2118, 43.4968
1.576, -1, -0.555141, 14.8342, 25.4362, -114.712, 88.2158, 43.4726
1.58, -1, -0.54134, 14.741, 25.5584, -114.685, 88.2199, 43.4484
1.584, -1, -0.527546, 14.648, 25.6805, -114.658, 88.224, 43.4242
1.588, -1, -0.51376, 14.5549, 25.8026, -114.631, 88.228, 43.4001
1.592, -1, -0.499982, 14.4619, 25.9246, -114.604, 88.2321, 43.3759
1.596, -1, -0.486212, 14.369, 26.0465, -114.578, 88.2361, 43.3518
1.6, -1, -0.47245, 14.2761, 26.1683, -114.551, 88.2402, 43.3277
1.604, -1, -0.458695, 14.1833, 26.2901, -114.524, 88.2442, 43.3036
1.608, -1, -0.444948, 14.0905, 26.4118, -114.497, 88.2482, 43.2795
1.612, -1, -0.431209, 13.9977, 26.5334, -114.471, 88.2523, 43.2554
1.616, -1, -0.417478, 13.9051, 26.655, -114.444, 88.2563, 43.2314
1.62, -1, -0.403754, 13.8124, 26.7765, -114.417, 88.2604, 43.2073
1.624, -1, -0.390038, 13.7199, 26.898, -114.391, 88.2644, 43.1833
1.628, -1, -0.376329, 13.6273, 27.0193, -114.364, 88.2684, 43.1593
1.632, -1, -0.362628, 13.5349, 27.1406, -114.337, 88.2725, 43.1353
1.636, -1, -0.348935, 13.4424, 27.2619, -114.311, 88.2765, 43.1113
1.64, -1, -0.335249, 13.3501, 27.383, -114.284, 88.2805, 43.0873
1.644, -1, -0.321571, 13.2577, 27.5041, -114.257, 88.2845, 43.0633
1.648, -1, -0.3079, 13.1655, 27.6252, -114.231, 88.2886, 43.0393
1.652, -1, -0.294237, 13.0732, 27.7461, -114.204, 88.2926, 43.0154
1.656, -1, -0.280581, 12.9811, 27.867, -114.178, 88.2966, 42.9915
1.66, -1, -0.266932, 12.889, 27.9879, -114.151, 88.3006, 42.9676
1.664, -1, -0.253292, 12.7969, 28.1087, -114.125, 88.3046, 42.9437
1.668, -1, -0.239658, 12.7049, 28.2294, -114.098, 88.3086, 42.9198
1.672, -1, -0.226033, 12.6129, 28.35, -114.072, 88.3126, 42.8959
1.676, -1, -0.212414, 12.521, 28.4706, -114.045, 88.3166, 42.872
1.68, -1, -0.198803, 12.4291, 28.5911, -114.019, 88.3206, 42.8482
1.684, -1, -0.185199, 12.3373, 28.7115, -113.992, 88.3246, 42.8243
1.688, -1, -0.171602, 12.2455, 28.8319, -113.966, 88.3286, 42.8005
1.692, -1, -0.158012, 12.1538, 28.9522, -113.939, 88.3326, 42.7767
1.696, -1, -0.14443, 12.0621, 29.0725, -113.913, 88.3366, 42.7529
1.7, -1, -0.130854, 11.9705, 29.1927, -113.887, 88.3406, 42.7291
1.704, -1, -0.117286, 11.8789, 29.3128, -113.86, 88.3446, 42.7053
1.708, -1, -0.103725, 11.7874, 29.4328, -113.834, 88.3486, 42.6816
1.712, -1, -0.0901711, 11.6959, 29.5528, -113.808, 88.3526, 42.6578
1.716, -1, -0.0766243, 11.6045, 29.6728, -113.781, 88.3566, 42.6341
1.72, -1, -0.0630846, 11.5131, 29.7926, -113.755, 88.3605, 42.6103
1.724, -1, -0.0495521, 11.4218, 29.9125, -113.729, 88.3645, 42.5866
1.728, -1, -0.0360266, 11.3305, 30.0322, -113.702, 88.3685, 42.5629
1.732, -1, -0.0225083, 11.2393, 30.1519, -113.676, 88.3725, 42.5392
1.736, -1, -0.00899696, 11.1481, 30.2715, -113.65, 88.3765, 42.5156
1.74, -1, 0.00450728, 11.0569, 30.391, -113.623, 88.3804, 42.4919
1.744, -1, 0.0180045, 10.9658, 30.5105, -113.597, 88.3844, 42.4683
1.748, -1, 0.0314947, 10.8748, 30.63, -113.571, 88.3884, 42.4446
1.752, -1, 0.0449779, 10.7838, 30.7493, -113.545, 88.3923, 42.421
1.756, -1, 0.0584541, 10.6928, 30.8687, -113.519, 88.3963, 42.3974
1.76, -1, 0.0719234, 10.6019, 30.9879, -113.492, 88.4003, 42.3738
1.764, -1, 0.0853858, 10.511, 31.1071, -113.466, 88.4042, 42.3502
1.768, -1, 0.0988413, 10.4202, 31.2262, -113.44, 88.4082, 42.3266
1.772, -1, 0.11229, 10.3295, 31.3453, -113.414, 88.4121, 42.303
1.776, -1, 0.125732, 10.2387, 31.4643, -113.388, 88.4161, 42.2795
1.78, -1, 0.139167, 10.1481, 31.5832, -113.362, 88.42, 42.2559
1.784, -1, 0.152595, 10.0574, 31.7021, -113.335, 88.424, 42.2324
1.788, -1, 0.166016, 9.96685, 31.8209, -113.309, 88.4279, 42.2089
1.792, -1, 0.179431, 9.87631, 31.9397, -113.283, 88.4319, 42.1854
1.796, -1, 0.192839, 9.78581, 32.0584, -113.257, 88.4358, 42.1619
1.8, -1, 0.20624, 9.69536, 32.1771, -113.231, 88.4398, 42.1384
1.804, -1, 0.219634, 9.60496, 32.2957, -113.205, 88.4437, 42.1149
1.808, -1, 0.233022, 9.5146, 32.4142, -113.179, 88.4476, 42.0915
1.812, -1, 0.246403, 9.42429, 32.5327, -113.153, 88.4516, 42.068
1.816, -1, 0.259777, 9.33402, 32.6511, -113.127, 88.4555, 42.0446
1.82, -1, 0.273145, 9.24379, 32.7694, -113.101, 88.4594, 42.0212
1.824, -1, 0.286506, 9.15361, 32.8877, -113.075, 88.4634, 41.9978
1.828, -1, 0.29986, 9.06348, 33.0059, -113.049, 88.4673, 41.9744
1.832, -1, 0.313208, 8.97339, 33.1241, -113.023, 88.4712, 41.951
1.836, -1, 0.326549, 8.88334, 33.2422, -112.997, 88.4751, 41.9276
1.84, -1, 0.339883, 8.79334, 33.3603, -112.971, 88.4791, 41.9042
1.844, -1, 0.353211, 8.70338, 33.4783, -112.945, 88.483, 41.8809
1.848, -1, 0.366533, 8.61347, 33.5962, -112.92, 88.4869, 41.8575
1.852, -1, 0.379848, 8.5236, 33.7141, -112.894, 88.4908, 41.8342
1.856, -1, 0.393156, 8.43377, 33.832, -112.868, 88.4947, 41.8109
1.86, -1, 0.406459, 8.34399, 33.9497, -112.842, 88.4986, 41.7876
1.864, -1, 0.419754, 8.25425, 34.0674, -112.816, 88.5025, 41.7643
1.868, -1, 0.433043, 8.16455, 34.1851, -112.79, 88.5065, 41.741
1.872, -1, 0.446326, 8.0749, 34.3027, -112.764, 88.5104, 41.7177
1.876, -1, 0.459602, 7.98529, 34.4203, -112.739, 88.5143, 41.6944
1.88, -1, 0.472872, 7.89572, 34.5377, -112.713, 88.5182, 41.6712
1.884, -1, 0.486136, 7.8062, 34.6552, -112.687, 88.5221, 41.6479
1.888, -1, 0.499393, 7.71672, 34.7726, -112.661, 88.526, 41.6247
1.892, -1, 0.512644, 7.62728, 34.8899, -112.635, 88.5299, 41.6015
1.896, -1, 0.525889, 7.53788, 35.0071, -112.61, 88.5338, 41.5783
1.9, -1, 0.539127, 7.44853, 35.1244, -112.584, 88.5377, 41.5551
1.904, -1, 0.552359, 7.35922, 35.2415, -112.558, 88.5415, 41.5319
1.908, -1, 0.565585, 7.26995, 35.3586, -112.533, 88.5454, 41.5087
1.912, -1, 0.578804, 7.18072, 35.4757, -112.507, 88.5493, 41.4855
1.916, -1, 0.592018, 7.09153, 35.5926, -112.481, 88.5532, 41.4624
1.92, -1, 0.605225, 7.00239, 35.7096, -112.455, 88.5571, 41.4392
1.924, -1, 0.618426, 6.91329, 35.8265, -112.43, 88.561, 41.4161
1.928, -1, 0.63162, 6.82423, 35.9433, -112.404, 88.5649, 41.393
1.932, -1, 0.644809, 6.73521, 36.06, -112.378, 88.5687, 41.3699
1.936, -1, 0.657991, 6.64623, 36.1768, -112.353, 88.5726, 41.3468
1.94, -1, 0.671168, 6.5573, 36.2934, -112.327, 88.5765, 41.3237
1.944, -1, 0.684338, 6.4684, 36.41, -112.302, 88.5804, 41.3006
1.948, -1, 0.697502, 6.37955, 36.5266, -112.276, 88.5842, 41.2775
1.952, -1, 0.71066, 6.29074, 36.6431, -112.25, 88.5881, 41.2545
1.956, -1, 0.723812, 6.20196, 36.7595, -112.225, 88.592, 41.2314
1.96, -1, 0.736958, 6.11323, 36.8759, -112.199, 88.5958, 41.2084
1.964, -1, 0.750098, 6.02454, 36.9923, -112.174, 88.5997, 41.1854
1.968, -1, 0.763232, 5.93589, 37.1086, -112.148, 88.6036, 41.1623
1.972, -1, 0.77636, 5.84728, 37.2248, -112.123, 88.6074, 41.1393
1.976, -1, 0.789482, 5.75871, 37.341, -112.097, 88.6113, 41.1163
1.98, -1, 0.802598, 5.67018, 37.4571, -112.072, 88.6152, 41.0934
1.984, -1, 0.815708, 5.5817, 37.5732, -112.046, 88.619, 41.0704
1.988, -1, 0.828812, 5.49325, 37.6892, -112.021, 88.6229, 41.0474
1.992, -1, 0.84191, 5.40484, 37.8052, -111.995, 88.6267, 41.0245
1.996, -1, 0.855002, 5.31647, 37.9211, -111.97, 88.6306, 41.0015
1.999, -1, 0.868088, 5.22814, 38.0369, -111.944, 88.6344, 40.9786
2.004, -1, 0.881169, 5.13985, 38.1528, -111.919, 88.6383, 40.9557
2.008, -1, 0.894244, 5.0516, 38.2685, -111.893, 88.6421, 40.9328
2.012, -1, 0.907312, 4.96339, 38.3842, -111.868, 88.6459, 40.9098
2.015, -1, 0.920375, 4.87522, 38.4999, -111.843, 88.6498, 40.887
2.019, -1, 0.933432, 4.78708, 38.6155, -111.817, 88.6536, 40.8641
2.024, -1, 0.946484, 4.69899, 38.7311, -111.792, 88.6575, 40.8412
2.028, -1, 0.959529, 4.61094, 38.8466, -111.766, 88.6613, 40.8183
2.031, -1, 0.972569, 4.52292, 38.962, -111.741, 88.6651, 40.7955
2.036, -1, 0.985603, 4.43494, 39.0774, -111.716, 88.669, 40.7726
2.04, -1, 0.998632, 4.34701, 39.1928, -111.69, 88.6728, 40.7498
2.044, -1, 1.01165, 4.25911, 39.3081, -111.665, 88.6766, 40.727
2.048, -1, 1.02467, 4.17124, 39.4233, -111.64, 88.6805, 40.7042
2.051, -1, 1.03768, 4.08342, 39.5385, -111.615, 88.6843, 40.6814
2.055, -1, 1.05069, 3.99564, 39.6537, -111.589, 88.6881, 40.6586
2.06, -1, 1.06369, 3.90789, 39.7688, -111.564, 88.6919, 40.6358
2.064, -1, 1.07668, 3.82018, 39.8838, -111.539, 88.6958, 40.613
2.068, -1, 1.08967, 3.73251, 39.9988, -111.513, 88.6996, 40.5903
2.071, -1, 1.10265, 3.64488, 40.1138, -111.488, 88.7034, 40.5675
2.076, -1, 1.11563, 3.55728, 40.2287, -111.463, 88.7072, 40.5448
2.08, -1, 1.1286, 3.46973, 40.3436, -111.438, 88.711, 40.522
2.084, -1, 1.14157, 3.38221, 40.4584, -111.413, 88.7148, 40.4993
2.087, -1, 1.15453, 3.29472, 40.5731, -111.387, 88.7187, 40.4766
2.092, -1, 1.16749, 3.20728, 40.6878, -111.362, 88.7225, 40.4539
2.096, -1, 1.18044, 3.11987, 40.8025, -111.337, 88.7263, 40.4312
2.1, -1, 1.19338, 3.0325, 40.9171, -111.312, 88.7301, 40.4085
2.104, -1, 1.20632, 2.94516, 41.0316, -111.287, 88.7339, 40.3859
2.107, -1, 1.21925, 2.85787, 41.1462, -111.261, 88.7377, 40.3632
2.111, -1, 1.23218, 2.77061, 41.2606, -111.236, 88.7415, 40.3405
2.116, -1, 1.2451, 2.68338, 41.375, -111.211, 88.7453, 40.3179
2.12, -1, 1.25802, 2.59619, 41.4894, -111.186, 88.7491, 40.2953
2.124, -1, 1.27093, 2.50904, 41.6037, -111.161, 88.7529, 40.2726
2.127, -1, 1.28384, 2.42193, 41.718, -111.136, 88.7567, 40.25
2.132, -1, 1.29674, 2.33485, 41.8322, -111.111, 88.7605, 40.2274
2.136, -1, 1.30964, 2.2478, 41.9464, -111.086, 88.7643, 40.2048
2.14, -1, 1.32253, 2.1608, 42.0605, -111.061, 88.7681, 40.1822
2.143, -1, 1.33541, 2.07383, 42.1746, -111.036, 88.7719, 40.1596
2.148, -1, 1.34829, 1.9869, 42.2887, -111.011, 88.7757, 40.1371
2.152, -1, 1.36115, 1.90005, 42.4026, -110.986, 88.7794, 40.1145
2.156, -1, 1.37396, 1.81334, 42.5165, -110.961, 88.7832, 40.0919
2.16, -1, 1.38669, 1.72686, 42.6302, -110.936, 88.787, 40.0694
2.163, -1, 1.39931, 1.64073, 42.7437, -110.911, 88.7907, 40.0469
2.168, -1, 1.41178, 1.55506, 42.8569, -110.886, 88.7945, 40.0244
2.172, -1, 1.42407, 1.46996, 42.9697, -110.861, 88.7982, 40.002
2.176, -1, 1.43617, 1.38558, 43.0819, -110.836, 88.8019, 39.9797
2.179, -1, 1.44805, 1.30207, 43.1933, -110.811, 88.8056, 39.9575
2.184, -1, 1.45965, 1.21971, 43.3036, -110.787, 88.8092, 39.9354
2.188, -1, 1.47091, 1.13884, 43.4126, -110.763, 88.8128, 39.9136
2.192, -1, 1.48177, 1.05992, 43.5198, -110.739, 88.8163, 39.8921
2.196, -1, 1.49216, 0.983373, 43.6248, -110.715, 88.8197, 39.8709
2.199, -1, 1.50207, 0.90953, 43.7271, -110.693, 88.8231, 39.8503
2.204, -1, 1.51151, 0.838573, 43.8263, -110.67, 88.8263, 39.8302
2.208, -1, 1.52053, 0.770576, 43.9219, -110.649, 88.8294, 39.8109
2.212, -1, 1.52918, 0.70557, 44.0134, -110.628, 88.8323, 39.7923
2.216, -1, 1.53749, 0.643602, 44.1004, -110.609, 88.8352, 39.7747
2.219, -1, 1.54547, 0.584795, 44.1823, -110.591, 88.8378, 39.7582
2.224, -1, 1.55309, 0.529369, 44.2588, -110.574, 88.8403, 39.7428
2.228, -1, 1.56032, 0.477563, 44.3296, -110.558, 88.8426, 39.7286
2.232, -1, 1.56718, 0.429507, 44.3944, -110.543, 88.8448, 39.7156
2.235, -1, 1.57368, 0.38516, 44.453, -110.531, 88.8467, 39.704
2.24, -1, 1.57989, 0.344367, 44.5055, -110.519, 88.8485, 39.6936
2.244, -1, 1.58583, 0.306968, 44.552, -110.509, 88.85, 39.6846
2.248, -1, 1.59151, 0.27288, 44.5928, -110.5, 88.8514, 39.6768
2.252, -1, 1.5969, 0.242119, 44.6279, -110.493, 88.8527, 39.6701
2.255, -1, 1.60193, 0.214763, 44.6579, -110.487, 88.8537, 39.6646
2.259, -1, 1.60653, 0.190894, 44.683, -110.482, 88.8547, 39.66
2.264, -1, 1.61064, 0.170504, 44.7037, -110.477, 88.8554, 39.6563
2.268, -1, 1.61425, 0.153428, 44.7205, -110.474, 88.8561, 39.6534
2.272, -1, 1.61739, 0.139338, 44.734, -110.472, 88.8566, 39.6511
2.275, -1, 1.6201, 0.127835, 44.7446, -110.47, 88.857, 39.6494
2.28, -1, 1.62241, 0.118539, 44.7529, -110.468, 88.8573, 39.648
2.284, -1, 1.62434, 0.111131, 44.7592, -110.467, 88.8576, 39.6471
2.288, -1, 1.62592, 0.10534, 44.7638, -110.466, 88.8578, 39.6464
2.291, 2, 1.62717, 0.100927, 44.7673, -110.466, 88.8579, 39.6459
2.296, 2, 1.62812, 0.0976716, 44.7697, -110.465, 88.8581, 39.6456
2.3, 2, 1.6288, 0.0953515, 44.7714, -110.465, 88.8581, 39.6454
2.304, 2, 1.62928, 0.0937456, 44.7726, -110.465, 88.8582, 39.6452
2.308, 2, 1.6296, 0.0926521, 44.7734, -110.465, 88.8582, 39.6451
2.311, 2, 1.62982, 0.091911, 44.774, -110.465, 88.8582, 39.645
2.316, 2, 1.62997, 0.091409, 44.7743, -110.465, 88.8583, 39.645
2.32, 2, 1.63007, 0.091069, 44.7746, -110.465, 88.8583, 39.645
2.324, 2, 1.63014, 0.0908386, 44.7747, -110.465, 88.8583, 39.6449
2.328, 2, 1.63019, 0.0906826, 44.7748, -110.465, 88.8583, 39.6449
2.331, 2, 1.63022, 0.0905769, 44.7749, -110.465, 88.8583, 39.6449
2.336, 2, 1.63024, 0.0905053, 44.775, -110.465, 88.8583, 39.6449
2.34, 2, 1.63025, 0.0904568, 44.775, -110.465, 88.8583, 39.6449
2.344, 2, 1.63026, 0.0904239, 44.775, -110.465, 88.8583, 39.6449
2.347, 2, 1.63027, 0.0904017, 44.7751, -110.465, 88.8583, 39.6449
2.352, 2, 1.63028, 0.0903866, 44.7751, -110.465, 88.8583, 39.6449
2.356, 2, 1.63028, 0.0903764, 44.7751, -110.465, 88.8583, 39.6449
2.36, 2, 1.63028, 0.0903695, 44.7751, -110.465, 88.8583, 39.6449
2.364, 2, 1.63028, 0.0903648, 44.7751, -110.465, 88.8583, 39.6449
2.367, 2, 1.63028, 0.0903616, 44.7751, -110.465, 88.8583, 39.6449
2.372, 2, 1.63028, 0.0903595, 44.7751, -110.465, 88.8583, 39.6449
2.376, 2, 1.63028, 0.090358, 44.7751, -110.465, 88.8583, 39.6449
2.38, 2, 1.63028, 0.090357, 44.7751, -110.465, 88.8583, 39.6449
2.383, 2, 1.63028, 0.0903563, 44.7751, -110.465, 88.8583, 39.6449
2.388, 2, 1.63028, 0.0903559, 44.7751, -110.465, 88.8583, 39.6449
2.392, 2, 1.63029, 0.0903556, 44.7751, -110.465, 88.8583, 39.6449
2.396, 2, 1.63029, 0.0903554, 44.7751, -110.465, 88.8583, 39.6449
2.4, 2, 1.63029, 0.0903552, 44.7751, -110.465, 88.8583, 39.6449
2.403, 2, 1.63029, 0.0903551, 44.7751, -110.465, 88.8583, 39.6449
2.408, 2, 1.63029, 0.0903551, 44.7751, -110.465, 88.8583, 39.6449
2.412, 2, 1.63029, 0.090355, 44.7751, -110.465, 88.8583, 39.6449
2.416, 2, 1.63029, 0.090355, 44.7751, -110.465, 88.8583, 39.6449
2.42, 2, 1.63029, 0.090355, 44.7751, -110.465, 88.8583, 39.6449
2.423, 2, 1.63029, 0.090355, 44.7751, -110.465, 88.8583, 39.6449
2.428, 2, 1.63029, 0.090355, 44.7751, -110.465, 88.8583, 39.6449
2.432, 2, 1.63029, 0.090355, 44.7751, -110.465, 88.8583, 39.6449
2.436, 2, 1.63029, 0.0903549, 44.7751, -110.465, 88.8583, 39.6449
2.439, 2, 1.63029, 0.0903549, 44.7751, -110.465, 88.8583, 39.6449
2.444, 2, 1.63029, 0.0903549, 44.7751, -110.465, 88.8583, 39.6449
2.448, 2, 1.63029, 0.0903549, 44.7751, -110.465, 88.8583, 39.6449
2.452, 2, 1.63029, 0.0903549, 44.7751, -110.465, 88.8583, 39.6449
2.456, 2, 1.63029, 0.0903549, 44.7751, -110.465, 88.8583, 39.6449
2.459, 2, 1.63029, 0.0903549, 44.7751, -110.465, 88.8583, 39.6449
2.464, 2, 1.63029, 0.0903549, 44.7751, -110.465, 88.8583, 39.6449
2.468, 2, 1.63029, 0.0903549, 44.7751, -110.465, 88.8583, 39.6449
2.472, 2, 1.63029, 0.0903549, 44.7751, -110.465, 88.8583, 39.6449
2.476, 2, 1.63029, 0.0903549, 44.7751, -110.465, 88.8583, 39.6449
2.479, 2, 1.63029, 0.0903549, 44.7751, -110.465, 88.8583, 39.6449
2.484, 2, 1.63029, 0.0903549, 44.7751, -110.465, 88.8583, 39.6449
2.488, 2, 1.63029, 0.0903549, 44.7751, -110.465, 88.8583, 39.6449
2.492, 2, 1.63029, 0.0903549, 44.7751, -110.465, 88.8583, 39.6449
2.495, 2, 1.63029, 0.0903549, 44.7751, -110.465, 88.8583, 39.6449
2.5, 2, 1.63029, 0.0903549, 44.7751, -110.465, 88.8583, 39.6449
2.504, 2, 1.63029, 0.0903549, 44.7751, -110.465, 88.8583, 39.6449
2.508, 2, 1.63029, 0.0903549, 44.7751, -110.465, 88.8583, 39.6449
2.512, 2, 1.63029, 0.0903549, 44.7751, -110.465, 88.8583, 39.6449
2.515, 2, 1.63029, 0.0903549, 44.7751, -110.465, 88.8583, 39.6449
2.52, 2, 1.63029, 0.0903549, 44.7751, -110.465, 88.8583, 39.6449
2.524, 2, 1.63029, 0.0903549, 44.7751, -110.465, 88.8583, 39.6449
2.528, 2, 1.63029, 0.0903549, 44.7751, -110.465, 88.8583, 39.6449
2.531, 2, 1.63029, 0.0903549, 44.7751, -110.465, 88.8583, 39.6449
2.536, 2, 1.63029, 0.0903549, 44.7751, -110.465, 88.8583, 39.6449
2.54, 2, 1.63029, 0.0903549, 44.7751, -110.465, 88.8583, 39.6449
2.544, 2, 1.63029, 0.0903549, 44.7751, -110.465, 88.8583, 39.6449
2.548, 2, 1.63029, 0.0903549, 44.7751, -110.465, 88.8583, 39.6449
2.551, 2, 1.63029, 0.0903549, 44.7751, -110.465, 88.8583, 39.6449
2.556, 2, 1.63029, 0.0903549, 44.7751, -110.465, 88.8583, 39.6449
2.56, 2, 1.63029, 0.0903549, 44.7751, -110.465, 88.8583, 39.6449
2.564, 2, 1.63029, 0.0903549, 44.7751, -110.465, 88.8583, 39.6449
2.568, 2, 1.63029, 0.0903549, 44.7751, -110.465, 88.8583, 39.6449
2.571, 2, 1.63029, 0.0903549, 44.7751, -110.465, 88.8583, 39.6449
2.576, 2, 1.63029, 0.0903549, 44.7751, -110.465, 88.8583, 39.6449
2.58, 2, 1.63029, 0.0903549, 44.7751, -110.465, 88.8583, 39.6449
2.584, 2, 1.63029, 0.0903549, 44.7751, -110.465, 88.8583, 39.6449
2.587, 2, 1.63029, 0.0903549, 44.7751, -110.465, 88.8583, 39.6449
2.592, 2, 1.63029, 0.0903549, 44.7751, -110.465, 88.8583, 39.6449
2.596, 2, 1.63029, 0.0903549, 44.7751, -110.465, 88.8583, 39.6449
2.6, 2, 1.63029, 0.0903549, 44.7751, -110.465, 88.8583, 39.6449
2.604, 2, 1.63029, 0.0903549, 44.7751, -110.465, 88.8583, 39.6449
2.607, 2, 1.63029, 0.0903549, 44.7751, -110.465, 88.8583, 39.6449
2.612, 2, 1.63029, 0.0903549, 44.7751, -110.465, 88.8583, 39.6449
2.616, 2, 1.63029, 0.0903549, 44.7751, -110.465, 88.8583, 39.6449
2.62, 2, 1.63029, 0.0903549, 44.7751, -110.465, 88.8583, 39.6449
2.624, 2, 1.63029, 0.0903549, 44.7751, -110.465, 88.8583, 39.6449
2.627, 2, 1.63029, 0.0903549, 44.7751, -110.465, 88.8583, 39.6449
2.632, 2, 1.63029, 0.0903549, 44.7751, -110.465, 88.8583, 39.6449
2.636, 2, 1.63029, 0.0903549, 44.7751, -110.465, 88.8583, 39.6449
2.64, 2, 1.63029, 0.0903549, 44.7751, -110.465, 88.8583, 39.6449
2.643, 2, 1.63029, 0.0903549, 44.7751, -110.465, 88.8583, 39.6449
2.648, 2, 1.63029, 0.0903549, 44.7751, -110.465, 88.8583, 39.6449
2.652, 2, 1.63029, 0.0903549, 44.7751, -110.465, 88.8583, 39.6449
2.656, 2, 1.63029, 0.0903549, 44.7751, -110.465, 88.8583, 39.6449
2.66, 2, 1.63029, 0.0903549, 44.7751, -110.465, 88.8583, 39.6449
2.663, 2, 1.63029, 0.0903549, 44.7751, -110.465, 88.8583, 39.6449
2.668, 2, 1.63029, 0.0903549, 44.7751, -110.465, 88.8583, 39.6449
2.672, 2, 1.63029, 0.0903549, 44.7751, -110.465, 88.8583, 39.6449
2.676, 2, 1.63029, 0.0903549, 44.7751, -110.465, 88.8583, 39.6449
2.679, 2, 1.63029, 0.0903549, 44.7751, -110.465, 88.8583, 39.6449
2.684, 2, 1.63029, 0.0903549, 44.7751, -110.465, 88.8583, 39.6449
2.688, 2, 1.63029, 0.0903549, 44.7751, -110.465, 88.8583, 39.6449
2.692, 2, 1.63029, 0.0903549, 44.7751, -110.465, 88.8583, 39.6449
2.696, 2, 1.63029, 0.0903549, 44.7751, -110.465, 88.8583, 39.6449
2.699, 2, 1.63029, 0.0903549, 44.7751, -110.465, 88.8583, 39.6449
2.704, 2, 1.63029, 0.0903549, 44.7751, -110.465, 88.8583, 39.6449
2.708, 2, 1.63029, 0.0903549, 44.7751, -110.465, 88.8583, 39.6449
2.712, 2, 1.63029, 0.0903549, 44.7751, -110.465, 88.8583, 39.6449
2.716, 2, 1.63029, 0.0903549, 44.7751, -110.465, 88.8583, 39.6449
2.719, 2, 1.63029, 0.0903549, 44.7751, -110.465, 88.8583, 39.6449
2.724, 2, 1.63029, 0.0903549, 44.7751, -110.465, 88.8583, 39.6449
2.728, 2, 1.63029, 0.0903549, 44.7751, -110.465, 88.8583, 39.6449
2.732, 2, 1.63029, 0.0903549, 44.7751, -110.465, 88.8583, 39.6449
2.735, 2, 1.63029, 0.0903549, 44.7751, -110.465, 88.8583, 39.6449
2.74, 2, 1.63029, 0.0903549, 44.7751, -110.465, 88.8583, 39.6449
2.744, 2, 1.63029, 0.0903549, 44.7751, -110.465, 88.8583, 39.6449
2.748, 2, 1.63029, 0.0903549, 44.7751, -110.465, 88.8583, 39.6449
2.752, 2, 1.63029, 0.0903549, 44.7751, -110.465, 88.8583, 39.6449
2.755, 2, 1.63029, 0.0903549, 44.7751, -110.465, 88.8583, 39.6449
2.76, 2, 1.63029, 0.0903549, 44.7751, -110.465, 88.8583, 39.6449
2.764, 2, 1.63029, 0.0903549, 44.7751, -110.465, 88.8583, 39.6449
2.768, 2, 1.63029, 0.0903549, 44.7751, -110.465, 88.8583, 39.6449
2.772, 2, 1.63029, 0.0903549, 44.7751, -110.465, 88.8583, 39.6449
2.775, 2, 1.63029, 0.0903549, 44.7751, -110.465, 88.8583, 39.6449
2.78, 2, 1.63029, 0.0903549, 44.7751, -110.465, 88.8583, 39.6449
2.784, 2, 1.63029, 0.0903549, 44.7751, -110.465, 88.8583, 39.6449
2.788, 2, 1.63029, 0.0903549, 44.7751, -110.465, 88.8583, 39.6449
2.791, 2, 1.63029, 0.0903549, 44.7751, -110.465, 88.8583, 39.6449
2.796, 2, 1.63029, 0.0903549, 44.7751, -110.465, 88.8583, 39.6449
2.8, 2, 1.63029, 0.0903549, 44.7751, -110.465, 88.8583, 39.6449
2.804, 2, 1.63029, 0.0903549, 44.7751, -110.465, 88.8583, 39.6449
2.808, 2, 1.63029, 0.0903549, 44.7751, -110.465, 88.8583, 39.6449
2.811, 2, 1.63029, 0.0903549, 44.7751, -110.465, 88.8583, 39.6449
2.816, 2, 1.63029, 0.0903549, 44.7751, -110.465, 88.8583, 39.6449
2.82, 2, 1.63029, 0.0903549, 44.7751, -110.465, 88.8583, 39.6449
2.824, 2, 1.63029, 0.0903549, 44.7751, -110.465, 88.8583, 39.6449
2.828, 2, 1.63029, 0.0903549, 44.7751, -110.465, 88.8583, 39.6449
2.831, 2, 1.63029, 0.0903549, 44.7751, -110.465, 88.8583, 39.6449
2.836, 2, 1.63029, 0.0903549, 44.7751, -110.465, 88.8583, 39.6449
2.84, 2, 1.63029, 0.0903549, 44.7751, -110.465, 88.8583, 39.6449
2.844, 2, 1.63029, 0.0903549, 44.7751, -110.465, 88.8583, 39.6449
2.847, 2, 1.63029, 0.0903549, 44.7751, -110.465, 88.8583, 39.6449
2.852, 2, 1.63029, 0.0903549, 44.7751, -110.465, 88.8583, 39.6449
2.856, 2, 1.63029, 0.0903549, 44.7751, -110.465, 88.8583, 39.6449
2.86, 2, 1.63029, 0.0903549, 44.7751, -110.465, 88.8583, 39.6449
2.864, 2, 1.63029, 0.0903549, 44.7751, -110.465, 88.8583, 39.6449
2.867, 2, 1.63029, 0.0903549, 44.7751, -110.465, 88.8583, 39.6449
2.872, 2, 1.63029, 0.0903549, 44.7751, -110.465, 88.8583, 39.6449
2.876, 2, 1.63029, 0.0903549, 44.7751, -110.465, 88.8583, 39.6449
2.88, 2, 1.63029, 0.0903549, 44.7751, -110.465, 88.8583, 39.6449
2.883, 2, 1.63029, 0.0903549, 44.7751, -110.465, 88.8583, 39.6449
2.888, 2, 1.63029, 0.0903549, 44.7751, -110.465, 88.8583, 39.6449
2.892, 2, 1.63029, 0.0903549, 44.7751, -110.465, 88.8583, 39.6449
2.896, 2, 1.63029, 0.0903549, 44.7751, -110.465, 88.8583, 39.6449
2.9, 2, 1.63029, 0.0903549, 44.7751, -110.465, 88.8583, 39.6449
2.903, 2, 1.63029, 0.0903549, 44.7751, -110.465, 88.8583, 39.6449
2.908, 2, 1.63029, 0.0903549, 44.7751, -110.465, 88.8583, 39.6449
2.912, 2, 1.63029, 0.0903549, 44.7751, -110.465, 88.8583, 39.6449
2.916, 2, 1.63029, 0.0903549, 44.7751, -110.465, 88.8583, 39.6449
2.92, 2, 1.63029, 0.0903549, 44.7751, -110.465, 88.8583, 39.6449
2.923, 2, 1.63029, 0.0903549, 44.7751, -110.465, 88.8583, 39.6449
2.928, 2, 1.63029, 0.0903549, 44.7751, -110.465, 88.8583, 39.6449
2.932, 2, 1.63029, 0.0903549, 44.7751, -110.465, 88.8583, 39.6449
2.936, 2, 1.63029, 0.0903549, 44.7751, -110.465, 88.8583, 39.6449
2.939, 2, 1.63029, 0.0903549, 44.7751, -110.465, 88.8583, 39.6449
2.944, 2, 1.63029, 0.0903549, 44.7751, -110.465, 88.8583, 39.6449
2.948, 2, 1.63029, 0.0903549, 44.7751, -110.465, 88.8583, 39.6449
2.952, 2, 1.63029, 0.0903549, 44.7751, -110.465, 88.8583, 39.6449
2.956, 2, 1.63029, 0.0903549, 44.7751, -110.465, 88.8583, 39.6449
2.959, 2, 1.63029, 0.0903549, 44.7751, -110.465, 88.8583, 39.6449
2.964, 2, 1.63029, 0.0903549, 44.7751, -110.465, 88.8583, 39.6449
2.968, 2, 1.63029, 0.0903549, 44.7751, -110.465, 88.8583, 39.6449
2.972, 2, 1.63029, 0.0903549, 44.7751, -110.465, 88.8583, 39.6449
2.976, 2, 1.63029, 0.0903549, 44.7751, -110.465, 88.8583, 39.6449
2.98, 2, 1.63029, 0.0903549, 44.7751, -110.465, 88.8583, 39.6449
2.984, 2, 1.63029, 0.0903549, 44.7751, -110.465, 88.8583, 39.6449
2.988, 2, 1.63029, 0.0903549, 44.7751, -110.465, 88.8583, 39.6449
2.992, 2, 1.63029, 0.0903549, 44.7751, -110.465, 88.8583, 39.6449
2.995, 2, 1.63029, 0.0903549, 44.7751, -110.465, 88.8583, 39.6449
3, 2, 1.63029, 0.0903549, 44.7751, -110.465, 88.8583, 39.6449
3.004, 2, 1.63029, 0.0903549, 44.7751, -110.465, 88.8583, 39.6449
3.008, 2, 1.63029, 0.0903549, 44.7751, -110.465, 88.8583, 39.6449
3.012, 2, 1.63029, 0.0903549, 44.7751, -110.465, 88.8583, 39.6449
3.015, 2, 1.63029, 0.0903549, 44.7751, -110.465, 88.8583, 39.6449
3.02, 2, 1.63029, 0.0903549, 44.7751, -110.465, 88.8583, 39.6449
3.024, 2, 1.63029, 0.0903549, 44.7751, -110.465, 88.8583, 39.6449
3.028, 2, 1.63029, 0.0903549, 44.7751, -110.465, 88.8583, 39.6449
3.031, 2, 1.63029, 0.0903549, 44.7751, -110.465, 88.8583, 39.6449
3.036, 2, 1.63029, 0.0903549, 44.7751, -110.465, 88.8583, 39.6449
3.04, 2, 1.63029, 0.0903549, 44.7751, -110.465, 88.8583, 39.6449
3.044, 2, 1.63029, 0.0903549, 44.7751, -110.465, 88.8583, 39.6449
3.048, 2, 1.63029, 0.0903549, 44.7751, -110.465, 88.8583, 39.6449
3.051, 2, 1.63029, 0.0903549, 44.7751, -110.465, 88.8583, 39.6449
3.056, 2, 1.63029, 0.0903549, 44.7751, -110.465, 88.8583, 39.6449
3.06, 2, 1.63029, 0.0903549, 44.7751, -110.465, 88.8583, 39.6449
3.064, 2, 1.63029, 0.0903549, 44.7751, -110.465, 88.8583, 39.6449
3.068, 2, 1.63029, 0.0903549, 44.7751, -110.465, 88.8583, 39.6449
3.071, 2, 1.63029, 0.0903549, 44.7751, -110.465, 88.8583, 39.6449
3.076, 2, 1.63029, 0.0903549, 44.7751, -110.465, 88.8583, 39.6449
3.08, 2, 1.63029, 0.0903549, 44.7751, -110.465, 88.8583, 39.6449
3.084, 2, 1.63029, 0.0903549, 44.7751, -110.465, 88.8583, 39.6449
3.087, 2, 1.63029, 0.0903549, 44.7751, -110.465, 88.8583, 39.6449
3.092, 2, 1.63029, 0.0903549, 44.7751, -110.465, 88.8583, 39.6449
3.096, 2, 1.63029, 0.0903549, 44.7751, -110.465, 88.8583, 39.6449
3.1, 2, 1.63029, 0.0903549, 44.7751, -110.465, 88.8583, 39.6449
3.104, 2, 1.63029, 0.0903549, 44.7751, -110.465, 88.8583, 39.6449
3.107, 2, 1.63029, 0.0903549, 44.7751, -110.465, 88.8583, 39.6449
3.112, 2, 1.63029, 0.0903549, 44.7751, -110.465, 88.8583, 39.6449
3.116, 2, 1.63029, 0.0903549, 44.7751, -110.465, 88.8583, 39.6449
3.12, 2, 1.63029, 0.0903549, 44.7751, -110.465, 88.8583, 39.6449
3.124, 2, 1.63029, 0.0903549, 44.7751, -110.465, 88.8583, 39.6449
3.128, 2, 1.63029, 0.0903549, 44.7751, -110.465, 88.8583, 39.6449
3.132, 2, 1.63029, 0.0903549, 44.7751, -110.465, 88.8583, 39.6449
3.136, 2, 1.63029, 0.0903549, 44.7751, -110.465, 88.8583, 39.6449
3.14, 2, 1.63029, 0.0903549, 44.7751, -110.465, 88.8583, 39.6449
3.143, 2, 1.63029, 0.0903549, 44.7751, -110.465, 88.8583, 39.6449
3.148, 2, 1.63029, 0.0903549, 44.7751, -110.465, 88.8583, 39.6449
3.152, 2, 1.63029, 0.0903549, 44.7751, -110.465, 88.8583, 39.6449
3.156, 2, 1.63029, 0.0903549, 44.7751, -110.465, 88.8583, 39.6449
3.16, 2, 1.63029, 0.0903549, 44.7751, -110.465, 88.8583, 39.6449
3.163, 2, 1.63029, 0.0903549, 44.7751, -110.465, 88.8583, 39.6449
3.168, 2, 1.63029, 0.0903549, 44.7751, -110.465, 88.8583, 39.6449
3.172, 2, 1.63029, 0.0903549, 44.7751, -110.465, 88.8583, 39.6449
3.176, 2, 1.63029, 0.0903549, 44.7751, -110.465, 88.8583, 39.6449
3.179, 2, 1.63029, 0.0903549, 44.7751, -110.465, 88.8583, 39.6449
3.184, 2, 1.63029, 0.0903549, 44.7751, -110.465, 88.8583, 39.6449
3.188, 2, 1.63029, 0.0903549, 44.7751, -110.465, 88.8583, 39.6449
3.192, 2, 1.63029, 0.0903549, 44.7751, -110.465, 88.8583, 39.6449
3.196, 2, 1.63029, 0.0903549, 44.7751, -110.465, 88.8583, 39.6449
3.199, 2, 1.63029, 0.0903549, 44.7751, -110.465, 88.8583, 39.6449
3.204, 2, 1.63029, 0.0903549, 44.7751, -110.465, 88.8583, 39.6449
3.208, 2, 1.63029, 0.0903549, 44.7751, -110.465, 88.8583, 39.6449
3.212, 2, 1.63029, 0.0903549, 44.7751, -110.465, 88.8583, 39.6449
3.216, 2, 1.63029, 0.0903549, 44.7751, -110.465, 88.8583, 39.6449
3.22, 2, 1.63029, 0.0903549, 44.7751, -110.465, 88.8583, 39.6449
3.224, 2, 1.63029, 0.0903549, 44.7751, -110.465, 88.8583, 39.6449
3.228, 2, 1.63029, 0.0903549, 44.7751, -110.465, 88.8583, 39.6449
3.232, 2, 1.63029, 0.0903549, 44.7751, -110.465, 88.8583, 39.6449
3.235, 2, 1.63029, 0.0903549, 44.7751, -110.465, 88.8583, 39.6449
3.24, 2, 1.63029, 0.0903549, 44.7751, -110.465, 88.8583, 39.6449
3.244, 2, 1.63029, 0.0903549, 44.7751, -110.465, 88.8583, 39.6449
3.248, 2, 1.63029, 0.0903549, 44.7751, -110.465, 88.8583, 39.6449
3.252, 2, 1.63029, 0.0903549, 44.7751, -110.465, 88.8583, 39.6449
3.255, 2, 1.63029, 0.0903549, 44.7751, -110.465, 88.8583, 39.6449
3.26, 2, 1.63029, 0.0903549, 44.7751, -110.465, 88.8583, 39.6449
3.264, 2, 1.63029, 0.0903549, 44.7751, -110.465, 88.8583, 39.6449
3.268, 2, 1.63029, 0.0903549, 44.7751, -110.465, 88.8583, 39.6449
3.272, 2, 1.63029, 0.0903549, 44.7751, -110.465, 88.8583, 39.6449
3.276, 2, 1.63029, 0.0903549, 44.7751, -110.465, 88.8583, 39.6449
3.28, 2, 1.63029, 0.0903549, 44.7751, -110.465, 88.8583, 39.6449
3.284, 2, 1.63029, 0.0903549, 44.7751, -110.465, 88.8583, 39.6449
3.288, 2, 1.63029, 0.0903549, 44.7751, -110.465, 88.8583, 39.6449
3.291, 2, 1.63029, 0.0903549, 44.7751, -110.465, 88.8583, 39.6449
3.296, 2, 1.63029, 0.0903549, 44.7751, -110.465, 88.8583, 39.6449
3.3, 2, 1.63029, 0.0903549, 44.7751, -110.465, 88.8583, 39.6449
3.304, 2, 1.63029, 0.0903549, 44.7751, -110.465, 88.8583, 39.6449
3.308, 2, 1.63029, 0.0903549, 44.7751, -110.465, 88.8583, 39.6449
3.312, 2, 1.63029, 0.0903549, 44.7751, -110.465, 88.8583, 39.6449
3.316, 2, 1.63029, 0.0903549, 44.7751, -110.465, 88.8583, 39.6449
3.32, 2, 1.63029, 0.0903549, 44.7751, -110.465, 88.8583, 39.6449
3.324, 2, 1.63029, 0.0903549, 44.7751, -110.465, 88.8583, 39.6449
3.328, 2, 1.63029, 0.0903549, 44.7751, -110.465, 88.8583, 39.6449
3.332, 2, 1.63029, 0.0903549, 44.7751, -110.465, 88.8583, 39.6449
3.336, 2, 1.63029, 0.0903549, 44.7751, -110.465, 88.8583, 39.6449
3.34, 2, 1.63029, 0.0903549, 44.7751, -110.465, 88.8583, 39.6449
3.344, 2, 1.63029, 0.0903549, 44.7751, -110.465, 88.8583, 39.6449
3.347, 2, 1.63029, 0.0903549, 44.7751, -110.465, 88.8583, 39.6449
3.354, 2, 1.63029, 0.0903549, 44.7751, -110.465, 88.8583, 39.6449
3.358, 2, 1.63029, 0.0903549, 44.7751, -110.465, 88.8583, 39.6449
3.362, 2, 1.63029, 0.0903549, 44.7751, -110.465, 88.8583, 39.6449
3.366, 2, 1.63029, 0.0903549, 44.7751, -110.465, 88.8583, 39.6449
3.37, 2, 1.63029, 0.0903549, 44.7751, -110.465, 88.8583, 39.6449
3.374, 2, 1.63029, 0.0903549, 44.7751, -110.465, 88.8583, 39.6449
3.378, 2, 1.63029, 0.0903549, 44.7751, -110.465, 88.8583, 39.6449
3.382, 2, 1.63029, 0.0903549, 44.7751, -110.465, 88.8583, 39.6449
3.386, 2, 1.63029, 0.0903549, 44.7751, -110.465, 88.8583, 39.6449
3.388, 2, 1.63029, 0.0903549, 44.7751, -110.465, 88.8583, 39.6449
3.394, 2, 1.63029, 0.0903549, 44.7751, -110.465, 88.8583, 39.6449
3.398, 2, 1.63029, 0.0903549, 44.7751, -110.465, 88.8583, 39.6449
3.402, 2, 1.63029, 0.0903549, 44.7751, -110.465, 88.8583, 39.6449
3.406, 2, 1.63029, 0.0903549, 44.7751, -110.465, 88.8583, 39.6449
3.41, 2, 1.63028, 0.0903593, 44.7751, -110.465, 88.8583, 39.6449
3.414, 2, 1.63026, 0.0903932, 44.7751, -110.465, 88.8583, 39.6449
3.418, 2, 1.6302, 0.0905256, 44.775, -110.465, 88.8583, 39.6449
3.422, 2, 1.63001, 0.0908762, 44.7749, -110.465, 88.8583, 39.6449
3.426, 2, 1.62965, 0.0915986, 44.7746, -110.465, 88.8582, 39.6449
3.428, 2, 1.62965, 0.0915986, 44.7746, -110.465, 88.8582, 39.6449
3.432, 2, 1.62902, 0.092861, 44.7741, -110.465, 88.8582, 39.6449
3.436, 2, 1.62807, 0.0948519, 44.7732, -110.465, 88.8581, 39.6449
3.439, 2, 1.62673, 0.0977942, 44.7718, -110.465, 88.8579, 39.6449
3.444, 2, 1.62493, 0.101947, 44.7697, -110.465, 88.8576, 39.645
3.448, 2, 1.62264, 0.107607, 44.7666, -110.465, 88.8572, 39.645
3.452, 2, 1.61983, 0.115121, 44.7622, -110.466, 88.8565, 39.6448
3.456, 2, 1.61646, 0.124884, 44.7562, -110.466, 88.8556, 39.6444
3.46, 2, 1.61247, 0.137298, 44.7481, -110.467, 88.8544, 39.6435
3.464, 2, 1.60779, 0.15271, 44.7376, -110.468, 88.8527, 39.6417
3.468, 2, 1.60237, 0.171394, 44.7242, -110.47, 88.8504, 39.6387
3.472, 2, 1.59616, 0.193576, 44.7073, -110.472, 88.8474, 39.634
3.476, 2, 1.58912, 0.219476, 44.6866, -110.474, 88.8436, 39.6271
3.48, 2, 1.58118, 0.249342, 44.6614, -110.476, 88.8389, 39.6176
3.484, 2, 1.57231, 0.283465, 44.6314, -110.479, 88.8332, 39.6049
3.488, 2, 1.56246, 0.322147, 44.596, -110.482, 88.8263, 39.5885
3.492, 2, 1.55163, 0.365677, 44.5549, -110.486, 88.8181, 39.5681
3.495, 2, 1.53979, 0.414326, 44.5077, -110.49, 88.8085, 39.5431
3.5, 2, 1.52692, 0.468343, 44.454, -110.495, 88.7974, 39.5133
3.504, 2, 1.51299, 0.527942, 44.3937, -110.5, 88.7849, 39.4784
3.508, 2, 1.49796, 0.593294, 44.3265, -110.506, 88.7707, 39.4382
3.512, 2, 1.48177, 0.664577, 44.2526, -110.512, 88.7549, 39.3928
3.516, 2, 1.46435, 0.741997, 44.1717, -110.519, 88.7376, 39.3423
3.52, 2, 1.4456, 0.825746, 44.0841, -110.526, 88.7187, 39.2867
3.524, 2, 1.42545, 0.915937, 43.9899, -110.533, 88.6984, 39.2263
3.528, 2, 1.40386, 1.01259, 43.8895, -110.541, 88.6768, 39.1615
3.531, 2, 1.38081, 1.11567, 43.7831, -110.551, 88.6544, 39.0924
3.536, 2, 1.3563, 1.22512, 43.6712, -110.561, 88.6313, 39.0195
3.54, 2, 1.33027, 1.34086, 43.5543, -110.574, 88.6083, 38.943
3.544, 2, 1.30272, 1.46286, 43.4327, -110.588, 88.5856, 38.8633
3.548, 2, 1.27358, 1.59105, 43.307, -110.605, 88.5641, 38.7809
3.552, 2, 1.24283, 1.72539, 43.1776, -110.625, 88.5443, 38.6959
3.556, 2, 1.21043, 1.86582, 43.0448, -110.649, 88.5268, 38.6088
3.56, 2, 1.17636, 2.01229, 42.909, -110.677, 88.5123, 38.5196
3.564, 2, 1.14065, 2.1647, 42.7705, -110.709, 88.501, 38.4287
3.568, 2, 1.10333, 2.32293, 42.6297, -110.747, 88.4934, 38.3361
3.572, 2, 1.06444, 2.48691, 42.4867, -110.79, 88.4899, 38.2419
3.576, 2, 1.02401, 2.65655, 42.3418, -110.839, 88.4906, 38.146
3.58, 2, 0.982059, 2.83185, 42.195, -110.893, 88.4958, 38.0486
3.584, 2, 0.938574, 3.01283, 42.0466, -110.954, 88.5056, 37.9496
3.587, 2, 0.893532, 3.19954, 41.8965, -111.02, 88.5203, 37.849
3.592, 2, 0.8469, 3.39206, 41.745, -111.093, 88.54, 37.7469
3.596, 2, 0.798639, 3.59046, 41.592, -111.172, 88.565, 37.6433
3.6, 2, 0.748707, 3.79482, 41.4377, -111.258, 88.5956, 37.5383
3.604, 2, 0.697059, 4.00518, 41.2821, -111.351, 88.6318, 37.432
3.608, 2, 0.643651, 4.22157, 41.1256, -111.452, 88.674, 37.3245
3.612, 2, 0.588434, 4.44395, 40.9682, -111.559, 88.7223, 37.2157
3.616, 2, 0.531361, 4.67229, 40.8102, -111.674, 88.7769, 37.1059
3.62, 2, 0.472386, 4.90649, 40.6516, -111.796, 88.8381, 36.995
3.624, 2, 0.411489, 5.1464, 40.4928, -111.926, 88.9062, 36.8831
3.628, 2, 0.348705, 5.3918, 40.3337, -112.065, 88.9814, 36.7705
3.632, 2, 0.284129, 5.64236, 40.1747, -112.211, 89.064, 36.657
3.636, 2, 0.217901, 5.89771, 40.0157, -112.366, 89.1543, 36.5429
3.64, 2, 0.150164, 6.15741, 39.8569, -112.53, 89.2523, 36.4282
3.644, 2, 0.0810521, 6.42099, 39.6986, -112.702, 89.3581, 36.313
3.648, 2, 0.0106553, 6.688, 39.5408, -112.882, 89.4715, 36.1973
3.652, 2, -0.0610046, 6.95805, 39.3839, -113.07, 89.5923, 36.0812
3.656, 2, -0.133969, 7.23091, 39.228, -113.266, 89.7201, 35.9649
3.66, 2, -0.208295, 7.50637, 39.0733, -113.468, 89.8548, 35.8485
3.664, 2, -0.284001, 7.78422, 38.92, -113.678, 89.9959, 35.7322
3.668, 2, -0.36104, 8.06418, 38.7683, -113.893, 90.1432, 35.6162
3.672, 2, -0.439303, 8.34592, 38.6183, -114.114, 90.2964, 35.5008
3.676, 2, -0.518657, 8.62911, 38.4702, -114.34, 90.4551, 35.3862
3.679, 2, -0.59901, 8.91344, 38.3241, -114.572, 90.619, 35.2724
3.684, 2, -0.680358, 9.19869, 38.1802, -114.807, 90.7877, 35.1598
3.688, 2, -0.762782, 9.48481, 38.0386, -115.047, 90.9606, 35.0484
3.692, 2, -0.846415, 9.7718, 37.8993, -115.289, 91.1373, 34.9382
3.696, 2, -0.931387, 10.0596, 37.7622, -115.534, 91.3174, 34.8293
3.7, 2, -1.01776, 10.3482, 37.6273, -115.782, 91.5006, 34.7216
3.704, 2, -1.10549, 10.6374, 37.4945, -116.032, 91.6868, 34.6151
3.708, 2, -1.19445, 10.9267, 37.3635, -116.285, 91.8758, 34.5098
3.712, 2, -1.28447, 11.2158, 37.2342, -116.54, 92.0678, 34.4054
3.716, 2, -1.3754, 11.5044, 37.1064, -116.798, 92.2629, 34.302
3.72, 2, -1.46715, 11.7923, 36.9799, -117.059, 92.4611, 34.1992
3.724, 2, -1.55969, 12.0798, 36.8544, -117.323, 92.6626, 34.0971
3.728, 2, -1.65304, 12.3669, 36.7298, -117.59, 92.8672, 33.9955
3.732, 2, -1.74724, 12.6538, 36.6058, -117.86, 93.0751, 33.8943
3.735, 2, -1.84232, 12.9407, 36.4823, -118.135, 93.2862, 33.7935
3.74, 2, -1.93831, 13.2277, 36.359, -118.412, 93.5005, 33.6929
3.744, 2, -2.03525, 13.5148, 36.2359, -118.693, 93.718, 33.5926
3.748, 2, -2.13318, 13.8022, 36.1128, -118.978, 93.9385, 33.4925
3.752, 2, -2.23216, 14.0898, 35.9896, -119.267, 94.1621, 33.3927
3.756, 2, -2.33225, 14.3778, 35.8661, -119.559, 94.3885, 33.2931
3.76, 2, -2.4335, 14.6661, 35.7423, -119.854, 94.6178, 33.1939
3.764, 2, -2.53594, 14.9547, 35.6181, -120.152, 94.8496, 33.0952
3.768, 2, -2.63955, 15.2437, 35.4935, -120.454, 95.0839, 32.997
3.772, 2, -2.7443, 15.5331, 35.3684, -120.759, 95.3203, 32.8997
3.776, 2, -2.85015, 15.8226, 35.2428, -121.067, 95.5587, 32.8032
3.78, 2, -2.95702, 16.1122, 35.1166, -121.377, 95.7987, 32.7079
3.784, 2, -3.06483, 16.4018, 34.9899, -121.69, 96.0401, 32.6139
3.788, 2, -3.1735, 16.691, 34.8625, -122.006, 96.2826, 32.5212
3.792, 2, -3.28293, 16.9797, 34.7345, -122.323, 96.5261, 32.4301
3.796, 2, -3.39301, 17.2677, 34.6058, -122.643, 96.7703, 32.3406
3.8, 2, -3.50363, 17.5547, 34.4765, -122.964, 97.0149, 32.2528
3.804, 2, -3.61469, 17.8405, 34.3466, -123.287, 97.2598, 32.1669
3.808, 2, -3.72608, 18.1249, 34.2161, -123.611, 97.5046, 32.0831
3.812, 2, -3.83776, 18.408, 34.0851, -123.935, 97.749, 32.0015
3.816, 2, -3.94972, 18.6895, 33.9535, -124.261, 97.9927, 31.9225
3.82, 2, -4.06195, 18.9695, 33.8213, -124.586, 98.2353, 31.8465
3.824, 2, -4.17444, 19.2478, 33.6886, -124.912, 98.4765, 31.7736
3.828, 2, -4.28716, 19.5243, 33.5554, -125.238, 98.716, 31.7044
3.832, 2, -4.40006, 19.799, 33.4216, -125.563, 98.9536, 31.639
3.836, 2, -4.51305, 20.0715, 33.2873, -125.887, 99.1889, 31.5777
3.84, 2, -4.62596, 20.3418, 33.1525, -126.211, 99.4218, 31.5207
3.844, 2, -4.73862, 20.6097, 33.0172, -126.534, 99.6522, 31.4681
3.848, 2, -4.8508, 20.8751, 32.8814, -126.856, 99.88, 31.42
3.852, 2, -4.96231, 21.1378, 32.7451, -127.177, 100.105, 31.3764
3.856, 2, -5.07301, 21.3978, 32.6084, -127.496, 100.327, 31.3374
3.86, 2, -5.18284, 21.6551, 32.4713, -127.815, 100.547, 31.3031
3.864, 2, -5.29182, 21.9097, 32.3337, -128.132, 100.763, 31.2735
3.868, 2, -5.40004, 22.1616, 32.1957, -128.448, 100.977, 31.249
3.872, 2, -5.5076, 22.4106, 32.057, -128.761, 101.187, 31.2297
3.876, 2, -5.61454, 22.6566, 31.9178, -129.074, 101.395, 31.2162
3.88, 2, -5.72079, 22.8997, 31.778, -129.384, 101.598, 31.2087
3.884, 2, -5.82624, 23.1395, 31.6376, -129.692, 101.799, 31.2078
3.888, 2, -5.93069, 23.3759, 31.4967, -129.999, 101.995, 31.2137
3.892, 2, -6.03396, 23.609, 31.3552, -130.303, 102.188, 31.2268
3.896, 2, -6.1359, 23.8386, 31.2132, -130.605, 102.377, 31.2473
3.9, 2, -6.23639, 24.0648, 31.0709, -130.905, 102.562, 31.275
3.904, 2, -6.33538, 24.2874, 30.9284, -131.202, 102.743, 31.31
3.908, 2, -6.43283, 24.5066, 30.7858, -131.496, 102.919, 31.3519
3.912, 2, -6.52869, 24.7223, 30.6433, -131.786, 103.092, 31.4002
3.916, 2, -6.62296, 24.9346, 30.501, -132.073, 103.259, 31.4546
3.92, 2, -6.71564, 25.1434, 30.3589, -132.355, 103.423, 31.5147
3.924, 2, -6.80681, 25.3489, 30.217, -132.633, 103.581, 31.5803
3.928, 2, -6.89652, 25.5512, 30.0754, -132.906, 103.735, 31.6514
3.932, 2, -6.9848, 25.7502, 29.9339, -133.173, 103.885, 31.7284
3.936, 2, -7.0716, 25.9461, 29.7923, -133.436, 104.029, 31.8118
3.94, 2, -7.15682, 26.1387, 29.6506, -133.694, 104.169, 31.9022
3.944, 2, -7.2403, 26.3281, 29.5087, -133.947, 104.304, 32.0005
3.948, 2, -7.32186, 26.5141, 29.3662, -134.195, 104.435, 32.1074
3.952, 2, -7.40137, 26.6967, 29.2232, -134.439, 104.561, 32.2232
3.956, 2, -7.47873, 26.8758, 29.0795, -134.679, 104.682, 32.3482
3.96, 2, -7.55392, 27.0516, 28.9351, -134.915, 104.799, 32.4825
3.964, 2, -7.62692, 27.224, 28.79, -135.146, 104.912, 32.6257
3.968, 2, -7.69767, 27.3931, 28.6445, -135.374, 105.021, 32.7772
3.972, 2, -7.76604, 27.5586, 28.4988, -135.598, 105.125, 32.9359
3.976, 2, -7.83191, 27.7205, 28.3531, -135.817, 105.226, 33.1009
3.98, 2, -7.89513, 27.8787, 28.2077, -136.032, 105.323, 33.2709
3.984, 2, -7.95563, 28.0331, 28.0629, -136.241, 105.416, 33.4448
3.988, 2, -8.01341, 28.1837, 27.9188, -136.445, 105.505, 33.6218
3.992, 2, -8.06858, 28.3309, 27.7753, -136.642, 105.59, 33.8015
3.996, 2, -8.12139, 28.4748, 27.6326, -136.833, 105.671, 33.9836
3.999, 2, -8.17206, 28.616, 27.4903, -137.015, 105.747, 34.1688
4.004, 2, -8.22077, 28.7548, 27.3482, -137.19, 105.817, 34.3577
4.008, 2, -8.26756, 28.8912, 27.206, -137.356, 105.882, 34.5513
4.012, 2, -8.31237, 29.0253, 27.0633, -137.514, 105.942, 34.751
4.016, 2, -8.35505, 29.1568, 26.9198, -137.664, 105.996, 34.9578
4.02, 2, -8.39545, 29.2855, 26.7752, -137.805, 106.044, 35.1726
4.024, 2, -8.43344, 29.4113, 26.6293, -137.939, 106.087, 35.396
4.028, 2, -8.46897, 29.5342, 26.4821, -138.066, 106.125, 35.6282
4.032, 2, -8.50206, 29.654, 26.3336, -138.185, 106.158, 35.8687
4.036, 2, -8.53275, 29.7709, 26.184, -138.299, 106.186, 36.1166
4.04, 2, -8.561, 29.8849, 26.0336, -138.406, 106.21, 36.3706
4.044, 2, -8.5867, 29.9958, 25.883, -138.508, 106.231, 36.6292
4.048, 2, -8.60971, 30.1033, 25.7326, -138.605, 106.248, 36.8903
4.052, 2, -8.62985, 30.2071, 25.5832, -138.697, 106.263, 37.1523
4.056, 2, -8.64704, 30.307, 25.4353, -138.784, 106.275, 37.4132
4.06, 2, -8.66128, 30.4028, 25.2895, -138.866, 106.284, 37.6716
4.064, 2, -8.67268, 30.4945, 25.146, -138.942, 106.291, 37.9262
4.068, 2, -8.68141, 30.5825, 25.0052, -139.011, 106.294, 38.1761
4.072, 2, -8.68764, 30.667, 24.8669, -139.073, 106.294, 38.4208
4.076, 2, -8.69151, 30.7482, 24.7311, -139.127, 106.29, 38.6604
4.08, 2, -8.69312, 30.8263, 24.5972, -139.172, 106.282, 38.8957
4.084, 2, -8.69247, 30.9015, 24.4649, -139.207, 106.268, 39.1276
4.088, 2, -8.68953, 30.9738, 24.3334, -139.232, 106.248, 39.3576
4.092, 2, -8.68425, 31.0435, 24.2021, -139.246, 106.222, 39.5875
4.096, 2, -8.6766, 31.1106, 24.0701, -139.249, 106.188, 39.8191
4.1, 2, -8.66658, 31.1752, 23.9366, -139.24, 106.148, 40.0541
4.104, 2, -8.65423, 31.2377, 23.801, -139.22, 106.1, 40.2941
4.108, 2, -8.63966, 31.2983, 23.6626, -139.189, 106.045, 40.5405
4.112, 2, -8.62304, 31.3572, 23.5212, -139.148, 105.983, 40.794
4.116, 2, -8.60462, 31.4145, 23.3765, -139.097, 105.915, 41.0552
4.12, 2, -8.5846, 31.4703, 23.2287, -139.038, 105.84, 41.3237
4.124, 2, -8.56306, 31.5245, 23.078, -138.972, 105.761, 41.5989
4.128, 2, -8.5399, 31.577, 22.925, -138.9, 105.677, 41.8796
4.132, 2, -8.51499, 31.6275, 22.7704, -138.823, 105.59, 42.1641
4.136, 2, -8.48819, 31.6757, 22.615, -138.743, 105.5, 42.4505
4.14, 2, -8.4594, 31.7215, 22.4598, -138.66, 105.409, 42.7368
4.144, 2, -8.42855, 31.7645, 22.3056, -138.576, 105.318, 43.0207
4.148, 2, -8.39558, 31.8046, 22.1534, -138.491, 105.226, 43.3003
4.152, 2, -8.36057, 31.8417, 22.0039, -138.404, 105.133, 43.5734
4.156, 2, -8.32364, 31.8759, 21.8577, -138.316, 105.041, 43.8384
4.16, 2, -8.28497, 31.9071, 21.7152, -138.226, 104.949, 44.0938
4.164, 2, -8.24469, 31.9351, 21.5766, -138.134, 104.856, 44.3386
4.168, 2, -8.20295, 31.96, 21.4419, -138.039, 104.762, 44.5725
4.172, 2, -8.15994, 31.9817, 21.3109, -137.94, 104.666, 44.7956
4.176, 2, -8.11588, 32.0001, 21.183, -137.836, 104.567, 45.0084
4.18, 2, -8.07083, 32.0154, 21.0578, -137.725, 104.464, 45.2121
4.184, 2, -8.02477, 32.0277, 20.9344, -137.606, 104.357, 45.4081
4.188, 2, -7.97752, 32.037, 20.8119, -137.479, 104.243, 45.5979
4.192, 2, -7.92887, 32.0435, 20.6893, -137.343, 104.124, 45.7832
4.196, 2, -7.87858, 32.0474, 20.5658, -137.196, 103.996, 45.966
4.2, 2, -7.82648, 32.0489, 20.4403, -137.038, 103.861, 46.1479
4.204, 2, -7.77248, 32.0484, 20.3121, -136.868, 103.717, 46.3306
4.208, 2, -7.71659, 32.046, 20.1805, -136.687, 103.565, 46.5157
4.212, 2, -7.6589, 32.0421, 20.045, -136.495, 103.404, 46.7045
4.216, 2, -7.59952, 32.0369, 19.9051, -136.291, 103.233, 46.8981
4.22, 2, -7.53859, 32.0306, 19.7608, -136.077, 103.055, 47.0971
4.224, 2, -7.47634, 32.0235, 19.6121, -135.853, 102.869, 47.3019
4.228, 2, -7.41297, 32.0155, 19.4593, -135.62, 102.676, 47.5123
4.232, 2, -7.34868, 32.0068, 19.3028, -135.38, 102.477, 47.7277
4.236, 2, -7.28364, 31.9973, 19.1431, -135.134, 102.273, 47.9473
4.24, 2, -7.21796, 31.9868, 18.9811, -134.884, 102.066, 48.17
4.244, 2, -7.15175, 31.9753, 18.8175, -134.63, 101.856, 48.3945
4.248, 2, -7.085, 31.9623, 18.6532, -134.375, 101.645, 48.6192
4.252, 2, -7.01763, 31.9476, 18.489, -134.12, 101.434, 48.8424
4.256, 2, -6.94953, 31.931, 18.3256, -133.866, 101.224, 49.0623
4.26, 2, -6.88066, 31.912, 18.1637, -133.614, 101.015, 49.2771
4.264, 2, -6.81103, 31.8907, 18.0038, -133.363, 100.808, 49.4852
4.268, 2, -6.74071, 31.8669, 17.8463, -133.114, 100.602, 49.6851
4.272, 2, -6.66972, 31.8405, 17.6912, -132.867, 100.398, 49.8755
4.276, 2, -6.5981, 31.8117, 17.5384, -132.62, 100.194, 50.0558
4.28, 2, -6.52589, 31.7804, 17.3878, -132.374, 99.9907, 50.2254
4.284, 2, -6.45316, 31.7467, 17.2388, -132.125, 99.7857, 50.3842
4.288, 2, -6.38002, 31.7107, 17.0909, -131.874, 99.5782, 50.5326
4.292, 2, -6.30658, 31.6726, 16.9432, -131.619, 99.3671, 50.6711
4.296, 2, -6.23292, 31.6324, 16.7951, -131.358, 99.1511, 50.8005
4.3, 2, -6.15913, 31.5903, 16.6458, -131.089, 98.9291, 50.9219
4.304, 2, -6.08536, 31.5465, 16.4944, -130.812, 98.6999, 51.0367
4.308, 2, -6.01172, 31.5014, 16.3402, -130.525, 98.4627, 51.1462
4.312, 2, -5.9383, 31.455, 16.1827, -130.228, 98.2168, 51.2519
4.316, 2, -5.8651, 31.4076, 16.0213, -129.92, 97.962, 51.3551
4.32, 2, -5.79213, 31.3594, 15.8559, -129.601, 97.6981, 51.4571
4.324, 2, -5.7194, 31.3103, 15.6863, -129.271, 97.4256, 51.5589
4.328, 2, -5.6469, 31.2606, 15.5126, -128.932, 97.1449, 51.6611
4.332, 2, -5.57461, 31.2102, 15.3352, -128.584, 96.857, 51.7641
4.336, 2, -5.5025, 31.1593, 15.1545, -128.228, 96.5631, 51.8681
4.34, 2, -5.43057, 31.1083, 14.9713, -127.867, 96.2644, 51.9729
4.344, 2, -5.35883, 31.0574, 14.7863, -127.502, 95.9624, 52.0784
4.348, 2, -5.28726, 31.0067, 14.6006, -127.135, 95.6586, 52.1841
4.352, 2, -5.21576, 30.9561, 14.4149, -126.767, 95.3548, 52.2896
4.356, 2, -5.14422, 30.9053, 14.2301, -126.402, 95.0525, 52.3944
4.36, 2, -5.07268, 30.8539, 14.0468, -126.04, 94.7532, 52.4979
4.364, 2, -5.00134, 30.8015, 13.8655, -125.683, 94.4582, 52.5997
4.368, 2, -4.93055, 30.7479, 13.6866, -125.332, 94.1687, 52.6991
4.372, 2, -4.86068, 30.693, 13.5106, -124.989, 93.8853, 52.7954
4.376, 2, -4.79213, 30.6368, 13.3375, -124.654, 93.6085, 52.8877
4.38, 2, -4.72517, 30.5795, 13.1675, -124.326, 93.3383, 52.9753
4.384, 2, -4.65987, 30.5213, 13.0006, -124.005, 93.0744, 53.0571
4.388, 2, -4.59613, 30.4623, 12.8364, -123.691, 92.8163, 53.1321
4.392, 2, -4.53379, 30.4026, 12.6745, -123.382, 92.5631, 53.1994
4.396, 2, -4.47274, 30.3424, 12.5143, -123.076, 92.3138, 53.2581
4.4, 2, -4.41299, 30.2818, 12.3549, -122.773, 92.0673, 53.3076
4.404, 2, -4.35457, 30.2211, 12.1955, -122.471, 91.822, 53.3475
4.408, 2, -4.29744, 30.1602, 12.0352, -122.167, 91.5766, 53.3773
4.412, 2, -4.24144, 30.0994, 11.8732, -121.859, 91.3296, 53.3971
4.416, 2, -4.18628, 30.0385, 11.7086, -121.547, 91.0794, 53.4071
4.42, 2, -4.13168, 29.9776, 11.5406, -121.228, 90.8248, 53.4075
4.424, 2, -4.0775, 29.9167, 11.3686, -120.901, 90.5645, 53.399
4.428, 2, -4.02383, 29.8558, 11.192, -120.564, 90.2975, 53.3823
4.432, 2, -3.97089, 29.795, 11.0103, -120.217, 90.023, 53.3584
4.436, 2, -3.91906, 29.7343, 10.8232, -119.86, 89.7405, 53.3282
4.44, 2, -3.86865, 29.674, 10.6307, -119.491, 89.4497, 53.2929
4.444, 2, -3.8199, 29.6139, 10.4329, -119.112, 89.1507, 53.2533
4.448, 2, -3.77281, 29.5543, 10.23, -118.723, 88.844, 53.2104
4.452, 2, -3.72723, 29.495, 10.0226, -118.324, 88.5303, 53.165
4.456, 2, -3.68289, 29.4362, 9.81129, -117.918, 88.2106, 53.1176
4.46, 2, -3.63952, 29.3779, 9.59696, -117.506, 87.8861, 53.0687
4.464, 2, -3.59689, 29.3203, 9.38065, -117.089, 87.5583, 53.0189
4.468, 2, -3.55483, 29.2634, 9.16355, -116.67, 87.2287, 52.9684
4.472, 2, -3.51315, 29.2071, 8.94683, -116.251, 86.899, 52.9177
4.476, 2, -3.47168, 29.1512, 8.73157, -115.834, 86.571, 52.8672
4.48, 2, -3.43028, 29.0954, 8.51869, -115.422, 86.2464, 52.817
4.484, 2, -3.38898, 29.0393, 8.30899, -115.015, 85.9268, 52.7676
4.488, 2, -3.34794, 28.9829, 8.10306, -114.617, 85.6137, 52.7191
4.492, 2, -3.30745, 28.926, 7.90121, -114.229, 85.3084, 52.6716
4.496, 2, -3.26786, 28.8688, 7.7036, -113.851, 85.0116, 52.6251
4.5, 2, -3.22957, 28.8114, 7.51031, -113.485, 84.724, 52.5794
4.504, 2, -3.19297, 28.7542, 7.32145, -113.131, 84.4459, 52.5337
4.508, 2, -3.15832, 28.6973, 7.13703, -112.788, 84.1771, 52.4873
4.512, 2, -3.1257, 28.6409, 6.95691, -112.455, 83.9173, 52.4389
4.516, 2, -3.09503, 28.5848, 6.78079, -112.132, 83.6658, 52.3871
4.52, 2, -3.06613, 28.5292, 6.60821, -111.817, 83.4218, 52.3301
4.524, 2, -3.03888, 28.4739, 6.43851, -111.507, 83.184, 52.2663
4.528, 2, -3.01325, 28.4194, 6.27079, -111.202, 82.9512, 52.1938
4.532, 2, -2.98923, 28.3657, 6.10398, -110.899, 82.7219, 52.1112
4.536, 2, -2.96686, 28.3132, 5.93696, -110.596, 82.4948, 52.0169
4.54, 2, -2.94614, 28.2621, 5.76862, -110.291, 82.2684, 51.9098
4.544, 2, -2.92702, 28.2124, 5.59796, -109.982, 82.0412, 51.789
4.548, 2, -2.90935, 28.1642, 5.42408, -109.667, 81.8118, 51.6539
4.552, 2, -2.89288, 28.1172, 5.24617, -109.344, 81.5792, 51.5042
4.556, 2, -2.87743, 28.0712, 5.06353, -109.013, 81.3421, 51.3399
4.56, 2, -2.86293, 28.0262, 4.87564, -108.672, 81.0996, 51.1614
4.564, 2, -2.84947, 27.9822, 4.68212, -108.32, 80.851, 50.9695
4.568, 2, -2.83725, 27.9396, 4.48278, -107.956, 80.5958, 50.7652
4.572, 2, -2.82644, 27.8983, 4.27761, -107.582, 80.3335, 50.5496
4.576, 2, -2.81714, 27.8586, 4.06681, -107.197, 80.0644, 50.3241
4.58, 2, -2.80934, 27.8203, 3.85077, -106.802, 79.7886, 50.0899
4.584, 2, -2.80292, 27.7834, 3.63009, -106.397, 79.5068, 49.8484
4.588, 2, -2.79764, 27.7478, 3.4055, -105.985, 79.2199, 49.6012
4.592, 2, -2.79323, 27.7132, 3.1779, -105.568, 78.9291, 49.3496
4.596, 2, -2.78944, 27.6795, 2.94839, -105.146, 78.6356, 49.095
4.6, 2, -2.78608, 27.6466, 2.71825, -104.722, 78.341, 48.8389
4.604, 2, -2.78305, 27.6145, 2.48881, -104.299, 78.0466, 48.5829
4.608, 2, -2.78028, 27.5831, 2.26128, -103.878, 77.7542, 48.3283
4.612, 2, -2.77777, 27.552, 2.03674, -103.463, 77.4652, 48.0766
4.616, 2, -2.77562, 27.5209, 1.81612, -103.054, 77.1814, 47.8292
4.62, 2, -2.77398, 27.4896, 1.60018, -102.655, 76.904, 47.5873
4.624, 2, -2.77306, 27.458, 1.38946, -102.267, 76.6344, 47.3518
4.628, 2, -2.77301, 27.4261, 1.18428, -101.892, 76.3737, 47.1233
4.632, 2, -2.77398, 27.3938, 0.984813, -101.53, 76.1224, 46.9018
4.636, 2, -2.77605, 27.3615, 0.791178, -101.181, 75.8811, 46.6867
4.64, 2, -2.77922, 27.3295, 0.603404, -100.846, 75.6497, 46.4768
4.644, 2, -2.78342, 27.2981, 0.421368, -100.524, 75.428, 46.27
4.648, 2, -2.78854, 27.2674, 0.244759, -100.214, 75.2155, 46.0641
4.652, 2, -2.7945, 27.2375, 0.0730868, -99.9138, 75.0114, 45.8561
4.656, 2, -2.80125, 27.2084, -0.094294, -99.6218, 74.8147, 45.6428
4.66, 2, -2.80878, 27.1802, -0.258216, -99.336, 74.6243, 45.4208
4.664, 2, -2.8171, 27.1528, -0.419718, -99.0539, 74.4389, 45.187
4.668, 2, -2.82625, 27.1264, -0.579987, -98.7734, 74.2571, 44.938
4.672, 2, -2.83627, 27.1013, -0.740255, -98.4919, 74.0775, 44.6711
4.676, 2, -2.84719, 27.0778, -0.901708, -98.2072, 73.8986, 44.3838
4.68, 2, -2.85907, 27.0563, -1.06545, -97.917, 73.7191, 44.074
4.684, 2, -2.87192, 27.0369, -1.23247, -97.6195, 73.5375, 43.7402
4.688, 2, -2.88574, 27.0198, -1.40366, -97.3129, 73.3528, 43.3816
4.692, 2, -2.90056, 27.0048, -1.5797, -96.9959, 73.1639, 42.9979
4.696, 2, -2.91637, 26.9921, -1.76109, -96.6677, 72.9701, 42.5894
4.7, 2, -2.93317, 26.9815, -1.94809, -96.3276, 72.7708, 42.1571
4.704, 2, -2.95091, 26.9733, -2.14076, -95.9756, 72.5656, 41.7022
4.708, 2, -2.9695, 26.9672, -2.33895, -95.6121, 72.3545, 41.2268
4.712, 2, -2.98879, 26.9633, -2.54225, -95.2377, 72.1378, 40.7331
4.716, 2, -3.0086, 26.9614, -2.7501, -94.8537, 71.9161, 40.2238
4.72, 2, -3.02882, 26.9612, -2.96173, -94.4618, 71.69, 39.7019
4.724, 2, -3.04936, 26.9625, -3.17623, -94.0638, 71.4607, 39.1706
4.728, 2, -3.07013, 26.9651, -3.39246, -93.6619, 71.2293, 38.6332
4.732, 2, -3.09105, 26.9686, -3.60906, -93.2586, 70.9972, 38.0932
4.736, 2, -3.1121, 26.9729, -3.82458, -92.8563, 70.7657, 37.5542
4.74, 2, -3.13328, 26.9777, -4.03767, -92.4576, 70.5363, 37.0198
4.744, 2, -3.15458, 26.9825, -4.24715, -92.0652, 70.3106, 36.4935
4.748, 2, -3.17601, 26.9871, -4.45201, -91.6814, 70.0899, 35.9787
4.752, 2, -3.19757, 26.9911, -4.65145, -91.3086, 69.8756, 35.4784
4.756, 2, -3.21929, 26.9944, -4.84494, -90.9488, 69.6689, 34.9949
4.76, 2, -3.24119, 26.9971, -5.03219, -90.6032, 69.4706, 34.5298
4.764, 2, -3.26329, 26.9995, -5.21311, -90.2729, 69.2816, 34.0835
4.768, 2, -3.28553, 27.0018, -5.38765, -89.9581, 69.102, 33.6557
4.772, 2, -3.30789, 27.0045, -5.55586, -89.6585, 68.9321, 33.2448
4.776, 2, -3.33036, 27.0082, -5.71801, -89.3734, 68.7718, 32.8481
4.78, 2, -3.353, 27.0133, -5.87464, -89.1013, 68.6207, 32.4623
4.784, 2, -3.37584, 27.0201, -6.02651, -88.8408, 68.4785, 32.0831
4.788, 2, -3.39885, 27.029, -6.17454, -88.5899, 68.3447, 31.7058
4.792, 2, -3.42191, 27.0403, -6.31985, -88.3465, 68.2185, 31.3252
4.796, 2, -3.44486, 27.054, -6.46375, -88.1084, 68.0993, 30.9362
4.8, 2, -3.46754, 27.0705, -6.60756, -87.8733, 67.9862, 30.5337
4.804, 2, -3.48976, 27.09, -6.7526, -87.639, 67.8786, 30.113
4.808, 2, -3.51138, 27.1125, -6.90001, -87.4036, 67.7756, 29.6701
4.812, 2, -3.53233, 27.1385, -7.05076, -87.1653, 67.6763, 29.2017
4.816, 2, -3.55264, 27.168, -7.20563, -86.9226, 67.58, 28.7054
4.82, 2, -3.57241, 27.201, -7.36519, -86.6743, 67.4861, 28.1801
4.824, 2, -3.59173, 27.2373, -7.52979, -86.4198, 67.3939, 27.6254
4.828, 2, -3.61073, 27.2768, -7.69954, -86.1586, 67.3029, 27.0421
4.832, 2, -3.62947, 27.3192, -7.87435, -85.8909, 67.2127, 26.4318
4.836, 2, -3.64801, 27.3644, -8.0539, -85.617, 67.123, 25.797
4.84, 2, -3.66634, 27.4123, -8.2377, -85.3374, 67.0336, 25.1407
4.844, 2, -3.68442, 27.4628, -8.42504, -85.0529, 66.9442, 24.4665
4.848, 2, -3.70225, 27.5157, -8.61509, -84.7647, 66.855, 23.7783
4.852, 2, -3.71983, 27.5707, -8.8069, -84.4739, 66.7658, 23.0805
4.856, 2, -3.73717, 27.6274, -8.99942, -84.182, 66.677, 22.3775
4.86, 2, -3.75434, 27.6851, -9.19159, -83.8907, 66.5888, 21.6738
4.864, 2, -3.77144, 27.7433, -9.38232, -83.6015, 66.5015, 20.9742
4.868, 2, -3.78856, 27.8014, -9.5705, -83.3162, 66.4156, 20.2835
4.872, 2, -3.80571, 27.8589, -9.75507, -83.0367, 66.3316, 19.606
4.876, 2, -3.82285, 27.9154, -9.93499, -82.7647, 66.2498, 18.9462
4.88, 2, -3.83989, 27.9707, -10.1093, -82.5015, 66.1709, 18.3077
4.884, 2, -3.85675, 28.0245, -10.2772, -82.2487, 66.0951, 17.6938
4.888, 2, -3.87333, 28.0766, -10.4378, -82.0075, 66.0228, 17.1073
4.892, 2, -3.88955, 28.1268, -10.5908, -81.7787, 65.9543, 16.5502
4.896, 2, -3.90537, 28.1751, -10.7357, -81.563, 65.8899, 16.0238
4.9, 2, -3.92073, 28.2215, -10.8724, -81.3611, 65.8297, 15.5289
4.904, 2, -3.93561, 28.2661, -11.0008, -81.1729, 65.774, 15.0653
4.908, 2, -3.94996, 28.3092, -11.121, -80.9986, 65.7226, 14.6323
4.912, 2, -3.9637, 28.3511, -11.2334, -80.8378, 65.6757, 14.2286
4.916, 2, -3.97672, 28.3919, -11.3384, -80.69, 65.6331, 13.8521
4.92, 2, -3.9889, 28.4319, -11.4364, -80.5547, 65.5948, 13.5006
4.924, 2, -4.00012, 28.4712, -11.528, -80.4312, 65.5607, 13.1713
4.928, 2, -4.01031, 28.5101, -11.6139, -80.3187, 65.5307, 12.8616
4.932, 2, -4.01942, 28.5486, -11.6945, -80.2167, 65.5047, 12.5689
4.936, 2, -4.02744, 28.5872, -11.7706, -80.1246, 65.4827, 12.2905
4.94, 2, -4.03439, 28.626, -11.8428, -80.0421, 65.4647, 12.0243
4.944, 2, -4.04032, 28.6654, -11.9115, -79.9687, 65.4508, 11.7681
4.948, 2, -4.04525, 28.7059, -11.9773, -79.9043, 65.4409, 11.5201
4.952, 2, -4.04925, 28.7477, -12.0407, -79.8487, 65.4353, 11.2787
4.956, 2, -4.05234, 28.7911, -12.1019, -79.8017, 65.434, 11.0424
4.96, 2, -4.05459, 28.8364, -12.1614, -79.7634, 65.437, 10.8098
4.964, 2, -4.05604, 28.884, -12.2195, -79.7337, 65.4446, 10.5798
4.968, 2, -4.05674, 28.9341, -12.2766, -79.7125, 65.4567, 10.3511
4.972, 2, -4.05674, 28.9869, -12.333, -79.6998, 65.4735, 10.1225
4.976, 2, -4.05606, 29.0427, -12.389, -79.6953, 65.4951, 9.89277
4.98, 2, -4.05472, 29.1017, -12.445, -79.6988, 65.5213, 9.66058
4.984, 2, -4.05272, 29.1642, -12.5013, -79.7102, 65.5523, 9.42454
4.988, 2, -4.05008, 29.2302, -12.5584, -79.729, 65.588, 9.1832
4.992, 2, -4.04681, 29.2999, -12.6164, -79.7547, 65.6283, 8.93507
4.996, 2, -4.0429, 29.3733, -12.6759, -79.7871, 65.6732, 8.67871
5, 2, -4.03837, 29.4503, -12.7372, -79.8255, 65.7224, 8.41275
5.004, 2, -4.0332, 29.5307, -12.8004, -79.8694, 65.7758, 8.136
5.008, 2, -4.0274, 29.6144, -12.866, -79.9183, 65.8333, 7.84757
5.012, 2, -4.02101, 29.7012, -12.934, -79.9716, 65.8945, 7.54694
5.016, 2, -4.01406, 29.7909, -13.0044, -80.0288, 65.9593, 7.234
5.02, 2, -4.00665, 29.8832, -13.0773, -80.0895, 66.0272, 6.90907
5.024, 2, -3.99889, 29.9777, -13.1525, -80.1531, 66.098, 6.57292
5.028, 2, -3.99096, 30.0742, -13.2299, -80.2191, 66.1712, 6.22668
5.032, 2, -3.98297, 30.172, -13.3091, -80.2872, 66.2465, 5.87183
5.036, 2, -3.97501, 30.2708, -13.3897, -80.3568, 66.3234, 5.51014
5.04, 2, -3.96709, 30.3702, -13.4714, -80.4276, 66.4015, 5.14362
5.044, 2, -3.95921, 30.4701, -13.5537, -80.4989, 66.4801, 4.77448
5.048, 2, -3.9513, 30.5704, -13.636, -80.5704, 66.5589, 4.40502
5.052, 2, -3.9433, 30.6709, -13.7178, -80.6416, 66.6373, 4.03755
5.056, 2, -3.93519, 30.7714, -13.7987, -80.712, 66.7148, 3.67428
5.06, 2, -3.92698, 30.8716, -13.8782, -80.7812, 66.7909, 3.31728
5.064, 2, -3.91874, 30.9712, -13.9557, -80.8491, 66.8654, 2.96839
5.068, 2, -3.91054, 31.0698, -14.0309, -80.9153, 66.9378, 2.6292
5.072, 2, -3.90243, 31.1674, -14.1035, -80.9799, 67.0081, 2.30105
5.076, 2, -3.89445, 31.2638, -14.1732, -81.0429, 67.0761, 1.98504
5.08, 2, -3.88663, 31.359, -14.2396, -81.1047, 67.1418, 1.68201
5.084, 2, -3.87898, 31.453, -14.3025, -81.1658, 67.2054, 1.39262
5.088, 2, -3.87151, 31.5459, -14.3617, -81.2269, 67.2672, 1.1173
5.092, 2, -3.86419, 31.6377, -14.417, -81.289, 67.3274, 0.85642
5.096, 2, -3.85701, 31.7284, -14.4682, -81.3533, 67.3867, 0.610249
5.1, 2, -3.84993, 31.8179, -14.515, -81.4211, 67.4456, 0.37908
5.104, 2, -3.84292, 31.9061, -14.5574, -81.494, 67.5048, 0.163236
5.108, 2, -3.83593, 31.9928, -14.5949, -81.5735, 67.5647, -0.0369404
5.112, 2, -3.82897, 32.0782, -14.6274, -81.6613, 67.6262, -0.221133
5.116, 2, -3.82202, 32.1622, -14.6547, -81.7588, 67.6899, -0.389124
5.12, 2, -3.81514, 32.2451, -14.6766, -81.8673, 67.7562, -0.540857
5.124, 2, -3.80836, 32.3271, -14.6932, -81.9881, 67.8258, -0.676473
5.128, 2, -3.80171, 32.4085, -14.7044, -82.1221, 67.8991, -0.796327
5.132, 2, -3.7952, 32.4897, -14.7105, -82.2699, 67.9765, -0.900983
5.136, 2, -3.78883, 32.5712, -14.7117, -82.432, 68.0582, -0.991204
5.14, 2, -3.78254, 32.6533, -14.7083, -82.6087, 68.1445, -1.06795
5.144, 2, -3.77629, 32.7367, -14.7006, -82.8001, 68.2356, -1.13239
5.148, 2, -3.77002, 32.8218, -14.6888, -83.0058, 68.3315, -1.18588
5.152, 2, -3.76369, 32.9091, -14.6731, -83.2258, 68.4324, -1.22994
5.156, 2, -3.75728, 32.999, -14.6538, -83.4595, 68.5382, -1.26621
5.16, 2, -3.75076, 33.0916, -14.6313, -83.7065, 68.6491, -1.29631
5.164, 2, -3.74411, 33.1871, -14.6058, -83.9666, 68.7649, -1.32176
5.168, 2, -3.73734, 33.2858, -14.5777, -84.2392, 68.8859, -1.34391
5.172, 2, -3.7304, 33.3876, -14.5473, -84.5241, 69.0119, -1.36385
5.176, 2, -3.72329, 33.4926, -14.5149, -84.8212, 69.143, -1.38243
5.18, 2, -3.71599, 33.6007, -14.4809, -85.1302, 69.2792, -1.40025
5.184, 2, -3.70851, 33.7116, -14.4455, -85.451, 69.4205, -1.41774
5.188, 2, -3.70085, 33.825, -14.4088, -85.7833, 69.5668, -1.43516
5.192, 2, -3.69304, 33.9405, -14.3711, -86.1266, 69.7179, -1.45271
5.196, 2, -3.68511, 34.0575, -14.3323, -86.4804, 69.8737, -1.47049
5.2, 2, -3.67713, 34.1758, -14.2927, -86.8439, 70.0337, -1.48854
5.204, 2, -3.66917, 34.295, -14.2523, -87.216, 70.1976, -1.50689
5.208, 2, -3.6613, 34.4151, -14.2111, -87.5954, 70.3647, -1.5255
5.212, 2, -3.65355, 34.536, -14.1693, -87.9808, 70.5345, -1.54434
5.216, 2, -3.64594, 34.6574, -14.127, -88.3705, 70.7062, -1.56335
5.22, 2, -3.63844, 34.7793, -14.0844, -88.7628, 70.879, -1.58246
5.224, 2, -3.631, 34.9013, -14.0418, -89.156, 71.0523, -1.6016
5.228, 2, -3.62355, 35.0234, -13.9992, -89.5484, 71.2252, -1.62068
5.232, 2, -3.61604, 35.1455, -13.9568, -89.9381, 71.3969, -1.63963
5.236, 2, -3.60843, 35.2674, -13.9147, -90.3236, 71.5667, -1.65836
5.24, 2, -3.60076, 35.389, -13.8731, -90.7032, 71.7338, -1.6768
5.244, 2, -3.59309, 35.5102, -13.8321, -91.0756, 71.8978, -1.6949
5.248, 2, -3.58562, 35.631, -13.7917, -91.4398, 72.0582, -1.71258
5.252, 2, -3.5786, 35.751, -13.7521, -91.7951, 72.2145, -1.72979
5.256, 2, -3.57234, 35.87, -13.7134, -92.141, 72.3667, -1.74643
5.26, 2, -3.56715, 35.9876, -13.6757, -92.4774, 72.5147, -1.76235
5.264, 2, -3.56333, 36.1035, -13.639, -92.8043, 72.6586, -1.77735
5.268, 2, -3.56107, 36.2177, -13.6032, -93.1222, 72.7986, -1.7911
5.272, 2, -3.56047, 36.3299, -13.5684, -93.4316, 72.9351, -1.80318
5.276, 2, -3.56148, 36.4405, -13.5342, -93.7334, 73.0685, -1.81306
5.28, 2, -3.56397, 36.5498, -13.5005, -94.0284, 73.1993, -1.82014
5.284, 2, -3.5678, 36.658, -13.4669, -94.3178, 73.3281, -1.82378
5.288, 2, -3.57288, 36.7656, -13.4332, -94.6028, 73.4554, -1.82334
5.292, 2, -3.5792, 36.8728, -13.3991, -94.8849, 73.5822, -1.81822
5.296, 2, -3.58675, 36.9794, -13.3644, -95.1654, 73.709, -1.80788
5.3, 2, -3.59552, 37.0856, -13.3289, -95.4461, 73.8366, -1.79189
5.304, 2, -3.60551, 37.1914, -13.2923, -95.7283, 73.9658, -1.76991
5.308, 2, -3.61671, 37.2968, -13.2544, -96.0136, 74.0973, -1.74171
5.312, 2, -3.62908, 37.4022, -13.2151, -96.3034, 74.2318, -1.70722
5.316, 2, -3.6426, 37.5077, -13.1741, -96.5991, 74.3698, -1.6665
5.32, 2, -3.65733, 37.614, -13.1313, -96.9017, 74.5118, -1.61972
5.324, 2, -3.6734, 37.7214, -13.0868, -97.2125, 74.6583, -1.5672
5.328, 2, -3.69105, 37.8302, -13.0404, -97.5324, 74.8097, -1.50933
5.332, 2, -3.7105, 37.9407, -12.9923, -97.8622, 74.9662, -1.44655
5.336, 2, -3.73191, 38.0532, -12.9427, -98.2025, 75.1283, -1.37932
5.34, 2, -3.75536, 38.1679, -12.8916, -98.554, 75.2959, -1.30804
5.344, 2, -3.7808, 38.2851, -12.839, -98.9172, 75.4694, -1.23308
5.348, 2, -3.80808, 38.4049, -12.7851, -99.2922, 75.6487, -1.15471
5.352, 2, -3.83693, 38.5275, -12.7299, -99.6793, 75.834, -1.07316
5.356, 2, -3.86702, 38.6525, -12.6734, -100.079, 76.0252, -0.988612
5.36, 2, -3.89807, 38.7797, -12.6155, -100.49, 76.2222, -0.901221
5.364, 2, -3.92983, 38.9091, -12.5563, -100.913, 76.4249, -0.811143
5.368, 2, -3.96213, 39.0402, -12.4958, -101.347, 76.6331, -0.718555
5.372, 2, -3.99483, 39.1729, -12.4338, -101.792, 76.8462, -0.623662
5.376, 2, -4.02779, 39.3069, -12.3706, -102.245, 77.0639, -0.526703
5.38, 2, -4.06088, 39.442, -12.3062, -102.708, 77.2855, -0.427953
5.384, 2, -4.09396, 39.578, -12.2407, -103.176, 77.5105, -0.327715
5.388, 2, -4.12693, 39.7146, -12.1744, -103.651, 77.738, -0.226318
5.392, 2, -4.15975, 39.8515, -12.1076, -104.129, 77.9674, -0.124115
5.396, 2, -4.19244, 39.9886, -12.0405, -104.609, 78.1977, -0.0214782
5.4, 2, -4.22509, 40.1257, -11.9733, -105.089, 78.4281, 0.0812116
5.404, 2, -4.25786, 40.2631, -11.9063, -105.567, 78.6578, 0.183571
5.408, 2, -4.29085, 40.4005, -11.8397, -106.043, 78.8858, 0.285228
5.412, 2, -4.32408, 40.5378, -11.7738, -106.513, 79.1115, 0.385839
5.416, 2, -4.35748, 40.6747, -11.7087, -106.977, 79.3341, 0.48509
5.42, 2, -4.39093, 40.8106, -11.6446, -107.433, 79.5531, 0.582713
5.424, 2, -4.42425, 40.9452, -11.5816, -107.881, 79.7678, 0.678479
5.428, 2, -4.45732, 41.078, -11.52, -108.319, 79.9779, 0.772199
5.432, 2, -4.49011, 41.2086, -11.4598, -108.747, 80.1831, 0.863728
5.436, 2, -4.52282, 41.3367, -11.4012, -109.164, 80.383, 0.952979
5.44, 2, -4.55577, 41.4622, -11.3444, -109.57, 80.5775, 1.03995
5.444, 2, -4.58936, 41.585, -11.2894, -109.964, 80.7664, 1.12475
5.448, 2, -4.62385, 41.7051, -11.2365, -110.347, 80.9496, 1.20765
5.452, 2, -4.65938, 41.8222, -11.1856, -110.718, 81.1271, 1.28913
5.456, 2, -4.69596, 41.9366, -11.1369, -111.077, 81.299, 1.36985
5.46, 2, -4.73345, 42.0483, -11.0904, -111.426, 81.4652, 1.45064
5.464, 2, -4.77166, 42.1577, -11.046, -111.765, 81.6261, 1.53253
5.468, 2, -4.81041, 42.2651, -11.0037, -112.094, 81.7817, 1.61663
5.472, 2, -4.84968, 42.371, -10.9635, -112.414, 81.9325, 1.70412
5.476, 2, -4.88961, 42.4759, -10.9253, -112.728, 82.0788, 1.7962
5.48, 2, -4.9304, 42.5801, -10.8889, -113.036, 82.2213, 1.89405
5.484, 2, -4.97216, 42.6838, -10.8543, -113.339, 82.3606, 1.99879
5.488, 2, -5.01498, 42.7873, -10.8213, -113.641, 82.4974, 2.11144
5.492, 2, -5.0589, 42.8907, -10.7898, -113.941, 82.6325, 2.23287
5.496, 2, -5.104, 42.994, -10.7594, -114.244, 82.7669, 2.3638
5.5, 2, -5.1504, 43.0975, -10.7299, -114.549, 82.9013, 2.50473
5.504, 2, -5.19825, 43.2013, -10.7012, -114.859, 83.0367, 2.65598
5.508, 2, -5.24779, 43.3055, -10.6729, -115.176, 83.174, 2.81767
5.512, 2, -5.2993, 43.4104, -10.6448, -115.501, 83.3139, 2.98975
5.516, 2, -5.35306, 43.5163, -10.6169, -115.836, 83.4572, 3.17207
5.52, 2, -5.40927, 43.6232, -10.5888, -116.182, 83.6047, 3.36442
5.524, 2, -5.46798, 43.7315, -10.5607, -116.539, 83.7569, 3.56656
5.528, 2, -5.52911, 43.8412, -10.5322, -116.91, 83.9142, 3.77825
5.532, 2, -5.5924, 43.9522, -10.5035, -117.294, 84.0771, 3.99923
5.536, 2, -5.65754, 44.0647, -10.4743, -117.692, 84.2456, 4.22922
5.54, 2, -5.72421, 44.1786, -10.4446, -118.103, 84.4199, 4.46788
5.544, 2, -5.79208, 44.2937, -10.4142, -118.527, 84.5998, 4.71474
5.548, 2, -5.86089, 44.41, -10.3831, -118.964, 84.785, 4.9692
5.552, 2, -5.93037, 44.5274, -10.3511, -119.413, 84.975, 5.23053
5.556, 2, -6.00028, 44.6457, -10.3184, -119.871, 85.1692, 5.49782
5.56, 2, -6.07045, 44.7647, -10.285, -120.338, 85.367, 5.77007
5.564, 2, -6.14071, 44.8843, -10.251, -120.811, 85.5675, 6.04615
5.568, 2, -6.21095, 45.0043, -10.2166, -121.288, 85.7699, 6.32486
5.572, 2, -6.2811, 45.1243, -10.1821, -121.768, 85.9732, 6.60496
5.576, 2, -6.35122, 45.2443, -10.1475, -122.248, 86.1767, 6.88514
5.58, 2, -6.42144, 45.3643, -10.113, -122.725, 86.3792, 7.16412
5.584, 2, -6.49189, 45.4843, -10.079, -123.199, 86.5799, 7.44063
5.588, 2, -6.56254, 45.6041, -10.0455, -123.666, 86.778, 7.71349
5.592, 2, -6.63322, 45.7235, -10.0126, -124.126, 86.9726, 7.98166
5.596, 2, -6.70366, 45.842, -9.98056, -124.575, 87.1631, 8.24423
5.6, 2, -6.77351, 45.9592, -9.94938, -125.014, 87.3489, 8.50044
5.604, 2, -6.84241, 46.0746, -9.91915, -125.441, 87.5297, 8.7497
5.608, 2, -6.91008, 46.1876, -9.88994, -125.855, 87.7051, 8.99159
5.612, 2, -6.97635, 46.298, -9.86183, -126.256, 87.8748, 9.22582
5.616, 2, -7.04121, 46.4056, -9.83494, -126.643, 88.0387, 9.45235
5.62, 2, -7.10479, 46.5105, -9.80945, -127.016, 88.1967, 9.67141
5.624, 2, -7.16734, 46.613, -9.78554, -127.376, 88.3487, 9.88358
5.628, 2, -7.22914, 46.7135, -9.76347, -127.722, 88.4948, 10.09
5.632, 2, -7.29051, 46.8121, -9.74351, -128.054, 88.6352, 10.2921
5.636, 2, -7.35177, 46.9091, -9.72596, -128.375, 88.7702, 10.4922
5.64, 2, -7.41319, 47.0051, -9.71115, -128.685, 88.9003, 10.693
5.644, 2, -7.47487, 47.1003, -9.69943, -128.985, 89.026, 10.8977
5.648, 2, -7.53683, 47.1953, -9.69115, -129.277, 89.1479, 11.1097
5.652, 2, -7.59903, 47.2904, -9.68667, -129.564, 89.2667, 11.333
5.656, 2, -7.66142, 47.386, -9.68633, -129.847, 89.3834, 11.5714
5.66, 2, -7.72395, 47.4824, -9.69044, -130.128, 89.4987, 11.8287
5.664, 2, -7.78659, 47.5799, -9.69925, -130.411, 89.6136, 12.1084
5.668, 2, -7.84932, 47.6785, -9.7129, -130.697, 89.7289, 12.4138
5.672, 2, -7.91219, 47.7784, -9.73148, -130.988, 89.8457, 12.7476
5.676, 2, -7.97524, 47.8794, -9.75497, -131.287, 89.9646, 13.1118
5.68, 2, -8.03857, 47.9817, -9.78329, -131.595, 90.0866, 13.5078
5.684, 2, -8.10231, 48.0856, -9.8163, -131.914, 90.2121, 13.9362
5.688, 2, -8.16666, 48.1912, -9.85377, -132.245, 90.3418, 14.3968
5.692, 2, -8.23176, 48.2988, -9.89543, -132.588, 90.4759, 14.8888
5.696, 2, -8.29772, 48.4084, -9.94095, -132.945, 90.6147, 15.4107
5.7, 2, -8.36454, 48.5199, -9.98995, -133.314, 90.7583, 15.9605
5.704, 2, -8.43209, 48.633, -10.042, -133.695, 90.9064, 16.5359
5.708, 2, -8.50006, 48.7474, -10.0967, -134.088, 91.0589, 17.1339
5.712, 2, -8.56812, 48.8626, -10.1535, -134.492, 91.2153, 17.7516
5.716, 2, -8.63604, 48.9783, -10.2121, -134.904, 91.3751, 18.3854
5.72, 2, -8.70378, 49.0944, -10.272, -135.324, 91.5377, 19.0318
5.724, 2, -8.77146, 49.2108, -10.3329, -135.748, 91.702, 19.687
5.728, 2, -8.83919, 49.3275, -10.3945, -136.175, 91.8674, 20.347
5.732, 2, -8.90702, 49.4442, -10.4562, -136.602, 92.0329, 21.0081
5.736, 2, -8.97495, 49.5608, -10.5178, -137.027, 92.1976, 21.6664
5.74, 2, -9.04289, 49.6767, -10.579, -137.448, 92.3607, 22.3183
5.744, 2, -9.11066, 49.7918, -10.6394, -137.863, 92.5212, 22.9604
5.748, 2, -9.17802, 49.9055, -10.6988, -138.269, 92.6784, 23.5895
5.752, 2, -9.24474, 50.0176, -10.7569, -138.665, 92.8316, 24.2026
5.756, 2, -9.3106, 50.1276, -10.8136, -139.048, 92.9801, 24.7973
5.76, 2, -9.37537, 50.2352, -10.8685, -139.419, 93.1234, 25.3713
5.764, 2, -9.43881, 50.3401, -10.9217, -139.775, 93.2611, 25.9232
5.768, 2, -9.50061, 50.442, -10.9729, -140.116, 93.393, 26.4516
5.772, 2, -9.56041, 50.5404, -11.0221, -140.441, 93.5187, 26.9559
5.776, 2, -9.61788, 50.6352, -11.0693, -140.75, 93.6382, 27.4358
5.78, 2, -9.67276, 50.7262, -11.1147, -141.043, 93.7514, 27.8916
5.784, 2, -9.72485, 50.8132, -11.1583, -141.32, 93.8583, 28.3237
5.788, 2, -9.77401, 50.8963, -11.2004, -141.58, 93.959, 28.733
5.792, 2, -9.82012, 50.9756, -11.2414, -141.824, 94.0535, 29.1207
5.796, 2, -9.86308, 51.0511, -11.2817, -142.052, 94.1419, 29.4885
5.8, 2, -9.90285, 51.1231, -11.3217, -142.265, 94.2243, 29.8379
5.804, 2, -9.93936, 51.1917, -11.3621, -142.461, 94.3008, 30.1711
5.808, 2, -9.97256, 51.2572, -11.4033, -142.642, 94.3715, 30.4899
5.812, 2, -10.0024, 51.3199, -11.4461, -142.807, 94.4365, 30.7966
5.816, 2, -10.0288, 51.38, -11.491, -142.958, 94.496, 31.0934
5.82, 2, -10.0518, 51.4378, -11.5387, -143.092, 94.55, 31.3825
5.824, 2, -10.0715, 51.4936, -11.5899, -143.212, 94.5986, 31.6662
5.828, 2, -10.0878, 51.548, -11.6453, -143.317, 94.6418, 31.9465
5.832, 2, -10.101, 51.6014, -11.7055, -143.407, 94.6799, 32.2255
5.836, 2, -10.1113, 51.6542, -11.7711, -143.482, 94.7127, 32.5052
5.84, 2, -10.1187, 51.7069, -11.8427, -143.542, 94.7406, 32.7876
5.844, 2, -10.1233, 51.7601, -11.9209, -143.588, 94.7635, 33.0744
5.848, 2, -10.1252, 51.8142, -12.0059, -143.62, 94.7818, 33.3675
5.852, 2, -10.1245, 51.8695, -12.0984, -143.639, 94.7957, 33.6689
5.856, 2, -10.121, 51.9261, -12.1986, -143.645, 94.8053, 33.9803
5.86, 2, -10.1149, 51.9843, -12.3068, -143.639, 94.8111, 34.3036
5.864, 2, -10.1061, 52.044, -12.4234, -143.621, 94.8134, 34.6406
5.868, 2, -10.0948, 52.1055, -12.5485, -143.594, 94.8124, 34.9929
5.872, 2, -10.081, 52.1686, -12.6823, -143.557, 94.8087, 35.3622
5.876, 2, -10.0648, 52.2336, -12.8249, -143.512, 94.8024, 35.7499
5.88, 2, -10.0463, 52.3004, -12.9763, -143.459, 94.794, 36.1571
5.884, 2, -10.0256, 52.369, -13.1365, -143.399, 94.7837, 36.5846
5.888, 2, -10.0027, 52.4396, -13.3052, -143.333, 94.7719, 37.0328
5.892, 2, -9.97811, 52.5121, -13.4821, -143.262, 94.7589, 37.5017
5.896, 2, -9.95201, 52.5864, -13.6668, -143.187, 94.7447, 37.9905
5.9, 2, -9.92487, 52.6624, -13.8587, -143.107, 94.7297, 38.498
5.904, 2, -9.89716, 52.7401, -14.0569, -143.024, 94.7139, 39.0223
5.908, 2, -9.86925, 52.8191, -14.2604, -142.938, 94.6976, 39.561
5.912, 2, -9.84138, 52.8991, -14.4682, -142.85, 94.6808, 40.111
5.916, 2, -9.81365, 52.9796, -14.679, -142.761, 94.6637, 40.669
5.92, 2, -9.78605, 53.06, -14.8912, -142.671, 94.6464, 41.231
5.924, 2, -9.75845, 53.14, -15.1035, -142.58, 94.6291, 41.7931
5.928, 2, -9.73073, 53.2189, -15.3141, -142.491, 94.6119, 42.3508
5.932, 2, -9.70284, 53.2963, -15.5217, -142.402, 94.5949, 42.9
5.936, 2, -9.67486, 53.3717, -15.7246, -142.315, 94.578, 43.4363
5.94, 2, -9.64685, 53.4448, -15.9214, -142.23, 94.5615, 43.9558
5.944, 2, -9.61886, 53.5152, -16.1109, -142.148, 94.5452, 44.4548
5.948, 2, -9.5909, 53.5824, -16.2921, -142.069, 94.5292, 44.9301
5.952, 2, -9.56295, 53.6462, -16.4641, -141.993, 94.5132, 45.3792
5.956, 2, -9.53498, 53.706, -16.6264, -141.92, 94.4972, 45.8002
5.96, 2, -9.50689, 53.7616, -16.7788, -141.849, 94.4809, 46.1923
5.964, 2, -9.47858, 53.8127, -16.9214, -141.78, 94.4641, 46.5551
5.968, 2, -9.45, 53.8592, -17.0544, -141.712, 94.4465, 46.889
5.972, 2, -9.4212, 53.901, -17.1784, -141.645, 94.4276, 47.1949
5.976, 2, -9.39229, 53.9382, -17.294, -141.577, 94.4069, 47.4738
5.98, 2, -9.36337, 53.9712, -17.4022, -141.507, 94.3841, 47.7273
5.984, 2, -9.33447, 54.0001, -17.5037, -141.435, 94.3587, 47.9569
5.988, 2, -9.30559, 54.025, -17.5996, -141.359, 94.3301, 48.1642
5.992, 2, -9.2767, 54.0462, -17.6908, -141.279, 94.2979, 48.3512
5.996, 2, -9.24769, 54.0637, -17.7783, -141.192, 94.2616, 48.5196
6, 2, -9.21831, 54.0776, -17.8631, -141.098, 94.2208, 48.6713
6.004, 2, -9.18829, 54.0882, -17.9461, -140.996, 94.1749, 48.8082
6.008, 2, -9.15738, 54.0956, -18.0283, -140.885, 94.1237, 48.9319
6.012, 2, -9.12539, 54.1001, -18.1106, -140.764, 94.0665, 49.0442
6.016, 2, -9.0921, 54.1019, -18.194, -140.632, 94.003, 49.1466
6.02, 2, -9.05722, 54.1015, -18.2792, -140.487, 93.9328, 49.2406
6.024, 2, -9.02046, 54.0989, -18.3671, -140.33, 93.8555, 49.3276
6.028, 2, -8.98155, 54.0943, -18.4584, -140.158, 93.7707, 49.4092
6.032, 2, -8.94033, 54.0878, -18.5539, -139.973, 93.6783, 49.4869
6.036, 2, -8.8967, 54.0796, -18.6544, -139.772, 93.5778, 49.5623
6.04, 2, -8.85064, 54.0698, -18.7605, -139.555, 93.4691, 49.6368
6.044, 2, -8.80214, 54.0586, -18.8728, -139.322, 93.3519, 49.7117
6.048, 2, -8.75118, 54.0461, -18.9919, -139.073, 93.2261, 49.7883
6.052, 2, -8.69775, 54.0326, -19.1181, -138.806, 93.0916, 49.8674
6.056, 2, -8.64173, 54.0181, -19.2519, -138.522, 92.9484, 49.9497
6.06, 2, -8.58298, 54.0027, -19.3932, -138.221, 92.7963, 50.0359
6.064, 2, -8.52138, 53.9865, -19.5424, -137.902, 92.6355, 50.1261
6.068, 2, -8.45698, 53.9695, -19.6994, -137.567, 92.466, 50.2205
6.072, 2, -8.39005, 53.9521, -19.8641, -137.214, 92.2879, 50.3194
6.076, 2, -8.32099, 53.9346, -20.0365, -136.845, 92.1015, 50.4226
6.08, 2, -8.25026, 53.9174, -20.2162, -136.46, 91.9071, 50.5301
6.084, 2, -8.17834, 53.9008, -20.4029, -136.061, 91.705, 50.6416
6.088, 2, -8.10571, 53.8852, -20.596, -135.647, 91.496, 50.7569
6.092, 2, -8.03283, 53.8707, -20.7948, -135.221, 91.2807, 50.8756
6.096, 2, -7.95993, 53.8573, -20.9984, -134.785, 91.0602, 50.9972
6.1, 2, -7.88707, 53.8445, -21.2059, -134.34, 90.8355, 51.121
6.104, 2, -7.81427, 53.8324, -21.416, -133.89, 90.6079, 51.2464
6.108, 2, -7.74161, 53.8205, -21.6274, -133.437, 90.3787, 51.3727
6.112, 2, -7.66916, 53.8088, -21.8388, -132.983, 90.1492, 51.4991
6.116, 2, -7.59693, 53.797, -22.0489, -132.531, 89.9208, 51.6249
