hehonglu123/Motion-Primitive-Planning/realrobot/recorded_data/repeatability/from_NX/v200_iteration1.csv
timestamp, cmd_num, J1, J2, J3, J4, J5, J6
0.000369, -1, 39.6338, 32.4447, 11.8323, 12.5488, 113.716, -48.8693
0.006176, -1, 39.6338, 32.4447, 11.8323, 12.5488, 113.716, -48.8693
0.008142, -1, 39.6338, 32.4447, 11.8323, 12.5488, 113.716, -48.8693
0.031522, -1, 39.6338, 32.4447, 11.8323, 12.5489, 113.716, -48.8693
0.032772, -1, 39.6338, 32.4447, 11.8323, 12.5489, 113.716, -48.8693
0.036111, -1, 39.6338, 32.4447, 11.8323, 12.5488, 113.716, -48.8693
0.039159, -1, 39.6338, 32.4447, 11.8323, 12.5488, 113.716, -48.8693
0.047225, -1, 39.6338, 32.4447, 11.8323, 12.5488, 113.716, -48.8694
0.055994, -1, 39.6333, 32.4446, 11.8323, 12.5488, 113.716, -48.8694
0.064352, -1, 39.6309, 32.4442, 11.8323, 12.5488, 113.716, -48.8694
0.213175, -1, 37.9897, 31.5998, 12.1647, 12.5635, 112.845, -51.0906
0.215062, -1, 37.9897, 31.5998, 12.1647, 12.5646, 112.794, -51.2195
0.216404, -1, 37.8974, 31.5519, 12.1841, 12.5646, 112.794, -51.2195
0.217704, -1, 37.8974, 31.5519, 12.1841, 12.5646, 112.794, -51.2195
0.219689, -1, 37.8041, 31.5036, 12.2036, 12.5657, 112.743, -51.3487
0.221052, -1, 37.8041, 31.5036, 12.2036, 12.5657, 112.743, -51.3487
0.222309, -1, 37.8041, 31.5036, 12.2036, 12.5657, 112.743, -51.3487
0.227483, -1, 37.615, 31.4063, 12.2424, 12.5681, 112.64, -51.6078
0.228833, -1, 37.615, 31.4063, 12.2424, 12.5681, 112.64, -51.6078
0.230093, -1, 37.615, 31.4063, 12.2424, 12.5681, 112.64, -51.6078
0.232084, -1, 37.5196, 31.3574, 12.2618, 12.5693, 112.589, -51.7376
0.233379, -1, 37.5196, 31.3574, 12.2618, 12.5693, 112.589, -51.7376
0.236071, -1, 37.5196, 31.3574, 12.2618, 12.5705, 112.538, -51.8674
0.23734, -1, 37.4239, 31.3085, 12.2812, 12.5705, 112.538, -51.8674
0.238534, -1, 37.4239, 31.3085, 12.2812, 12.5705, 112.538, -51.8674
0.240996, -1, 37.328, 31.2595, 12.3006, 12.5718, 112.486, -51.9972
0.242319, -1, 37.328, 31.2595, 12.3006, 12.5718, 112.486, -51.9972
0.244338, -1, 37.232, 31.2106, 12.32, 12.573, 112.435, -52.1272
0.245602, -1, 37.232, 31.2106, 12.32, 12.573, 112.435, -52.1272
0.247421, -1, 37.1358, 31.1617, 12.3394, 12.5742, 112.384, -52.2571
0.249684, -1, 37.1358, 31.1617, 12.3394, 12.5742, 112.384, -52.2571
0.251579, -1, 37.0397, 31.1129, 12.3588, 12.5755, 112.332, -52.3872
0.254217, -1, 37.0397, 31.1129, 12.3588, 12.5755, 112.332, -52.3872
0.256297, -1, 36.9436, 31.0641, 12.3782, 12.5769, 112.281, -52.5173
0.263722, -1, 36.7517, 30.9664, 12.4169, 12.5795, 112.178, -52.7778
0.2731, -1, 36.5601, 30.8687, 12.4558, 12.5821, 112.075, -53.0382
0.280298, -1, 36.3685, 30.7711, 12.4947, 12.5848, 111.972, -53.2986
0.287798, -1, 36.1769, 30.6734, 12.5335, 12.5874, 111.869, -53.559
0.297126, -1, 35.9854, 30.5755, 12.5724, 12.59, 111.766, -53.8197
0.304365, -1, 35.794, 30.4775, 12.6113, 12.5926, 111.663, -54.0804
0.31186, -1, 35.6022, 30.3795, 12.6502, 12.595, 111.56, -54.3407
0.32112, -1, 35.4102, 30.2812, 12.6889, 12.5978, 111.457, -54.6011
0.327215, -1, 35.3141, 30.2321, 12.7083, 12.5991, 111.405, -54.7314
0.336291, -1, 35.0254, 30.0847, 12.7667, 12.603, 111.25, -55.1226
0.343198, -1, 34.9292, 30.0354, 12.7861, 12.6043, 111.199, -55.253
0.351217, -1, 34.7369, 29.9369, 12.8249, 12.6069, 111.096, -55.5136
0.360399, -1, 34.4485, 29.7893, 12.8833, 12.6108, 110.941, -55.9048
0.36729, -1, 34.3523, 29.7401, 12.9027, 12.6121, 110.889, -56.0353
0.376608, -1, 34.0642, 29.5927, 12.961, 12.6161, 110.735, -56.4266
0.383194, -1, 33.9683, 29.5435, 12.9805, 12.6174, 110.683, -56.5571
0.391273, -1, 33.7765, 29.4453, 13.0194, 12.6202, 110.58, -56.8179
0.400836, -1, 33.4885, 29.2979, 13.0777, 12.6242, 110.426, -57.2096
0.408728, -1, 33.296, 29.1995, 13.1167, 12.627, 110.322, -57.4707
0.416723, -1, 33.1034, 29.1009, 13.1555, 12.6296, 110.219, -57.7317
0.42321, -1, 33.007, 29.0517, 13.1749, 12.6309, 110.168, -57.8623
0.43279, -1, 32.814, 28.9039, 13.2333, 12.6349, 110.013, -58.2541
0.44075, -1, 32.6206, 28.8546, 13.2528, 12.6363, 109.962, -58.5156
0.448856, -1, 32.4269, 28.7559, 13.2916, 12.6391, 109.858, -58.7765
0.456184, -1, 32.233, 28.6573, 13.3305, 12.6418, 109.756, -58.9071
0.464217, -1, 32.039, 28.5585, 13.3693, 12.6445, 109.652, -59.1682
0.471204, -1, 31.845, 28.4597, 13.4081, 12.6472, 109.549, -59.4295
0.479202, -1, 31.6513, 28.3608, 13.4472, 12.65, 109.446, -59.691
0.487258, -1, 31.4579, 28.2621, 13.4861, 12.6529, 109.343, -59.9522
0.495209, -1, 31.2648, 28.1635, 13.525, 12.6557, 109.24, -60.2136
0.50326, -1, 31.0721, 28.065, 13.5641, 12.6585, 109.137, -60.475
0.511192, -1, 30.8798, 27.9665, 13.603, 12.6614, 109.034, -60.7365
0.519237, -1, 30.6877, 27.868, 13.642, 12.6642, 108.931, -60.9978
0.527257, -1, 30.4957, 27.7695, 13.681, 12.6669, 108.827, -61.2592
0.535187, -1, 30.3036, 27.6708, 13.7199, 12.6697, 108.724, -61.5207
0.543195, -1, 30.1114, 27.5721, 13.7589, 12.6723, 108.621, -61.7825
0.551342, -1, 29.9187, 27.4734, 13.798, 12.6751, 108.518, -62.0441
0.559195, -1, 29.7256, 27.3747, 13.8368, 12.6778, 108.414, -62.3057
0.567199, -1, 29.532, 27.276, 13.8756, 12.6803, 108.311, -62.5674
0.575256, -1, 29.338, 27.1772, 13.9146, 12.6829, 108.208, -62.8293
0.583206, -1, 29.1438, 27.0783, 13.9534, 12.6855, 108.104, -63.0909
0.591254, -1, 28.9493, 26.9793, 13.9924, 12.6878, 108.001, -63.3523
0.599306, -1, 28.755, 26.8804, 14.0313, 12.6904, 107.898, -63.6138
0.607194, -1, 28.5608, 26.7815, 14.0702, 12.6928, 107.794, -63.8756
0.615259, -1, 28.3669, 26.6827, 14.1093, 12.6953, 107.691, -64.1374
0.623191, -1, 28.1736, 26.584, 14.1482, 12.6977, 107.587, -64.3988
0.631216, -1, 27.9806, 26.4852, 14.1871, 12.7002, 107.484, -64.6604
0.63929, -1, 27.7877, 26.3865, 14.2261, 12.7026, 107.381, -64.9223
0.647248, -1, 27.5951, 26.2877, 14.265, 12.705, 107.277, -65.1841
0.65528, -1, 27.4029, 26.1888, 14.3039, 12.7074, 107.174, -65.4456
0.663368, -1, 27.2106, 26.0898, 14.343, 12.7096, 107.071, -65.7073
0.797617, -1, 24.0211, 24.4594, 14.9857, 12.7479, 105.367, -70.0255
0.798799, -1, 24.0211, 24.4594, 14.9857, 12.7479, 105.367, -70.0255
0.800907, -1, 23.9247, 24.41, 15.0052, 12.7491, 105.316, -70.1564
0.802226, -1, 23.9247, 24.41, 15.0052, 12.7491, 105.316, -70.1564
0.805016, -1, 23.8282, 24.3606, 15.0246, 12.7503, 105.264, -70.2872
0.806249, -1, 23.8282, 24.3606, 15.0246, 12.7503, 105.264, -70.2872
0.808235, -1, 23.7317, 24.3112, 15.0441, 12.7516, 105.212, -70.418
0.811947, -1, 23.6352, 24.2617, 15.0635, 12.7528, 105.16, -70.549
0.813328, -1, 23.6352, 24.2617, 15.0635, 12.7528, 105.16, -70.549
0.81462, -1, 23.6352, 24.2617, 15.0635, 12.7528, 105.16, -70.549
0.816578, -1, 23.5386, 24.2123, 15.083, 12.754, 105.109, -70.6799
0.817859, -1, 23.5386, 24.2123, 15.083, 12.754, 105.109, -70.6799
0.820571, -1, 23.5386, 24.2123, 15.083, 12.754, 105.109, -70.6799
0.821957, -1, 23.442, 24.1629, 15.1025, 12.7551, 105.057, -70.8107
0.823902, -1, 23.442, 24.1629, 15.1025, 12.7551, 105.005, -70.9416
0.825989, -1, 23.3451, 24.1135, 15.122, 12.7564, 105.005, -70.9416
0.827185, -1, 23.3451, 24.1135, 15.122, 12.7564, 105.005, -70.9416
0.83003, -1, 23.2482, 24.064, 15.1414, 12.7576, 104.954, -71.0724
0.831236, -1, 23.2482, 24.064, 15.1414, 12.7576, 104.954, -71.0724
0.833421, -1, 23.1512, 24.0145, 15.1608, 12.7588, 104.902, -71.2034
0.834614, -1, 23.1512, 24.0145, 15.1608, 12.7588, 104.902, -71.2034
0.839192, -1, 23.0542, 23.965, 15.1803, 12.76, 104.85, -71.3343
0.847226, -1, 22.8601, 23.8662, 15.2192, 12.7625, 104.747, -71.5961
0.856398, -1, 22.5692, 23.7181, 15.2777, 12.7663, 104.592, -71.9887
0.863175, -1, 22.4723, 23.6687, 15.2972, 12.7675, 104.54, -72.1193
0.872555, -1, 22.1822, 23.5207, 15.3556, 12.7713, 104.385, -72.5116
0.879189, -1, 22.0856, 23.4714, 15.375, 12.7727, 104.333, -72.6424
0.888718, -1, 21.7963, 23.3234, 15.4336, 12.7766, 104.178, -73.0348
0.896728, -1, 21.6042, 23.2247, 15.4726, 12.7793, 104.075, -73.2959
0.904752, -1, 21.4121, 23.1259, 15.5115, 12.782, 103.972, -73.5573
0.912735, -1, 21.2198, 23.0273, 15.5505, 12.7846, 103.869, -73.8188
0.920785, -1, 21.0275, 22.9287, 15.5895, 12.7874, 103.766, -74.0803
0.928756, -1, 20.8351, 22.83, 15.6284, 12.7901, 103.663, -74.3414
0.936983, -1, 20.7388, 22.7807, 15.6674, 12.7928, 103.56, -74.6026
0.943182, -1, 20.5461, 22.6822, 15.6868, 12.7942, 103.508, -74.7333
0.952168, -1, 20.3529, 22.5835, 15.7257, 12.7969, 103.405, -74.9947
0.959353, -1, 20.1591, 22.4847, 15.7647, 12.7996, 103.302, -75.256
0.968221, -1, 19.9652, 22.386, 15.8035, 12.8023, 103.199, -75.517
0.976163, -1, 19.7716, 22.2873, 15.8422, 12.8051, 103.096, -75.7782
0.983262, -1, 19.578, 22.1887, 15.8812, 12.8077, 102.993, -76.0394
0.991172, -1, 19.3844, 22.09, 15.9201, 12.8105, 102.89, -76.3007
0.999195, -1, 19.1914, 21.9914, 15.9588, 12.8132, 102.787, -76.5615
1.00717, -1, 18.9986, 21.8928, 15.9978, 12.8159, 102.684, -76.8224
1.01516, -1, 18.8061, 21.7942, 16.0366, 12.8186, 102.581, -77.0833
1.02325, -1, 18.6141, 21.6955, 16.0754, 12.8213, 102.478, -77.3444
1.03118, -1, 18.4223, 21.5969, 16.1143, 12.8239, 102.375, -77.6051
1.03918, -1, 18.2305, 21.4984, 16.1532, 12.8265, 102.272, -77.8657
1.04725, -1, 18.0387, 21.4, 16.1919, 12.829, 102.169, -78.1264
1.05517, -1, 17.8469, 21.3016, 16.2309, 12.8315, 102.066, -78.3873
1.06319, -1, 17.6548, 21.2033, 16.2697, 12.834, 101.963, -78.6479
1.07125, -1, 17.4624, 21.105, 16.3085, 12.8364, 101.861, -78.9083
1.07918, -1, 17.2695, 21.0067, 16.3474, 12.8388, 101.757, -79.169
1.08719, -1, 17.0764, 20.9084, 16.3862, 12.8411, 101.655, -79.4296
1.09527, -1, 16.8832, 20.8101, 16.425, 12.8435, 101.552, -79.6902
1.10321, -1, 16.6901, 20.7119, 16.4638, 12.8458, 101.449, -79.9506
1.11117, -1, 16.497, 20.6137, 16.5025, 12.8481, 101.346, -80.2112
1.11926, -1, 16.3041, 20.5154, 16.5412, 12.8504, 101.244, -80.4718
1.12717, -1, 16.1118, 20.4171, 16.58, 12.8526, 101.141, -80.7324
1.13526, -1, 15.9199, 20.3187, 16.6187, 12.855, 101.038, -80.9924
1.14342, -1, 15.7283, 20.2202, 16.6575, 12.8573, 100.936, -81.2524
1.15124, -1, 15.5369, 20.1218, 16.6961, 12.8596, 100.833, -81.5126
1.15932, -1, 15.3458, 20.0236, 16.7348, 12.8619, 100.731, -81.7729
1.16808, -1, 15.1547, 19.9253, 16.7737, 12.8641, 100.628, -82.0326
1.17623, -1, 14.9636, 19.8271, 16.8124, 12.8664, 100.525, -82.2924
1.18339, -1, 14.7722, 19.7291, 16.8511, 12.8688, 100.423, -82.5521
1.1921, -1, 14.5808, 19.631, 16.8898, 12.871, 100.32, -82.8122
1.20018, -1, 14.3889, 19.5328, 16.9285, 12.8734, 100.217, -83.072
1.20726, -1, 14.1967, 19.4348, 16.9672, 12.8756, 100.115, -83.3315
1.21607, -1, 14.0043, 19.3368, 17.006, 12.8778, 100.012, -83.5911
1.22418, -1, 13.8117, 19.2389, 17.0445, 12.8802, 99.91, -83.8507
1.23136, -1, 13.6192, 19.1411, 17.0833, 12.8824, 99.8074, -84.1102
1.24024, -1, 13.4267, 19.0432, 17.122, 12.8848, 99.7048, -84.3695
1.24751, -1, 13.2347, 18.9454, 17.1605, 12.8871, 99.6026, -84.6288
1.25547, -1, 13.0432, 18.8475, 17.1991, 12.8894, 99.5002, -84.8881
1.26439, -1, 12.8519, 18.7495, 17.2378, 12.8918, 99.3977, -85.1475
1.27172, -1, 12.6609, 18.6516, 17.2763, 12.8942, 99.2957, -85.4064
1.28032, -1, 12.4702, 18.5538, 17.3149, 12.8967, 99.1933, -85.6654
1.28768, -1, 12.2801, 18.456, 17.3535, 12.8991, 99.091, -85.9244
1.29627, -1, 12.09, 18.3583, 17.392, 12.9015, 98.9891, -86.1834
1.30466, -1, 11.8997, 18.2607, 17.4306, 12.904, 98.8868, -86.4422
1.31173, -1, 11.8045, 18.163, 17.4692, 12.9064, 98.7848, -86.7006
1.32116, -1, 11.5184, 18.0654, 17.5077, 12.9088, 98.683, -86.9592
1.32716, -1, 11.423, 18.0166, 17.527, 12.91, 98.632, -87.0886
1.33597, -1, 11.2318, 17.919, 17.5656, 12.9137, 98.4791, -87.4766
1.34433, -1, 10.9446, 17.7728, 17.6234, 12.9162, 98.3773, -87.7347
1.35116, -1, 10.8487, 17.7241, 17.6426, 12.9175, 98.3263, -87.8639
1.35922, -1, 10.657, 17.6266, 17.6811, 12.92, 98.2243, -88.1221
1.36845, -1, 10.3698, 17.4803, 17.7386, 12.9239, 98.0716, -88.5097
1.37516, -1, 10.2743, 17.4316, 17.7579, 12.9251, 98.0207, -88.6386
1.38321, -1, 10.0835, 17.334, 17.7964, 12.9277, 97.9187, -88.8967
1.39259, -1, 9.7979, 17.1877, 17.8539, 12.9317, 97.7659, -89.2839
1.39923, -1, 9.70285, 17.139, 17.873, 12.933, 97.7149, -89.413
1.40721, -1, 9.51322, 17.0416, 17.9114, 12.9357, 97.6129, -89.671
1.41673, -1, 9.22926, 16.8955, 17.9689, 12.9398, 97.4602, -90.0574
1.42557, -1, 9.03999, 16.7983, 18.0073, 12.9424, 97.3583, -90.3148
1.43127, -1, 8.94532, 16.7497, 18.0264, 12.9438, 97.3074, -90.4436
1.4408, -1, 8.66097, 16.6039, 18.084, 12.9477, 97.1549, -90.8298
1.44956, -1, 8.56617, 16.5553, 18.1033, 12.9491, 97.1041, -90.9583
1.45522, -1, 8.37646, 16.4582, 18.1416, 12.9518, 97.0025, -91.2154
1.46495, -1, 8.18623, 16.3613, 18.1798, 12.9544, 96.8501, -91.6013
1.47214, -1, 7.99563, 16.2644, 18.2182, 12.9569, 96.7993, -91.7299
1.47929, -1, 7.80498, 16.1675, 18.2564, 12.9596, 96.698, -91.9869
1.48716, -1, 7.61452, 16.0706, 18.2947, 12.9621, 96.5966, -92.2435
1.49515, -1, 7.42415, 15.9737, 18.333, 12.9647, 96.4951, -92.5003
1.50319, -1, 7.23391, 15.8769, 18.3711, 12.9673, 96.3939, -92.7572
1.51116, -1, 7.04408, 15.7798, 18.4093, 12.9698, 96.2924, -93.0138
1.51923, -1, 6.85463, 15.6829, 18.4476, 12.9722, 96.1912, -93.2703
1.52716, -1, 6.66575, 15.5861, 18.4856, 12.9747, 96.0905, -93.5265
1.53515, -1, 6.47728, 15.4893, 18.5236, 12.9772, 95.9894, -93.7829
1.54321, -1, 6.28903, 15.3926, 18.5619, 12.9797, 95.8884, -94.0394
1.55115, -1, 6.10101, 15.2959, 18.5999, 12.9821, 95.7878, -94.2953
1.55917, -1, 5.91272, 15.1992, 18.638, 12.9844, 95.6867, -94.5513
1.56723, -1, 5.7243, 15.1024, 18.6762, 12.9867, 95.5857, -94.8072
1.57515, -1, 5.53575, 15.0058, 18.7143, 12.989, 95.4851, -95.0631
1.58315, -1, 5.34691, 14.9093, 18.7524, 12.9912, 95.3842, -95.3187
1.59126, -1, 5.15774, 14.8128, 18.7906, 12.9935, 95.2834, -95.5741
1.59918, -1, 4.96828, 14.7165, 18.8286, 12.9957, 95.1828, -95.8295
1.60715, -1, 4.77886, 14.6202, 18.8667, 12.998, 95.0819, -96.0851
1.61521, -1, 4.58954, 14.5238, 18.9047, 13.0001, 94.9811, -96.3405
1.62316, -1, 4.40019, 14.4276, 18.9428, 13.0023, 94.8805, -96.5954
1.63116, -1, 4.21114, 14.3312, 18.9808, 13.0046, 94.7796, -96.8503
1.63925, -1, 4.02264, 14.2348, 19.0188, 13.0068, 94.6788, -97.1053
1.64719, -1, 3.83468, 14.1386, 19.0567, 13.009, 94.578, -97.3604
1.65529, -1, 3.64718, 14.0424, 19.0947, 13.0113, 94.4772, -97.6152
1.66362, -1, 3.46007, 13.9462, 19.1326, 13.0137, 94.3766, -97.8699
1.67215, -1, 3.27318, 13.8502, 19.1704, 13.016, 94.2759, -98.1246
1.67933, -1, 3.08622, 13.7542, 19.2083, 13.0182, 94.1752, -98.3793
1.68766, -1, 2.89919, 13.6581, 19.2462, 13.0205, 94.0747, -98.6337
1.69526, -1, 2.7121, 13.5621, 19.2841, 13.0227, 93.974, -98.8878
1.70337, -1, 2.52483, 13.4661, 19.322, 13.025, 93.8735, -99.1419
1.71209, -1, 2.33734, 13.3702, 19.3597, 13.0273, 93.7733, -99.396
1.7192, -1, 2.14946, 13.2745, 19.3975, 13.0295, 93.6728, -99.6499
1.72727, -1, 1.96129, 13.1787, 19.4355, 13.0317, 93.5726, -99.9036
1.73615, -1, 1.77313, 13.0829, 19.4732, 13.034, 93.4727, -100.157
1.7433, -1, 1.58483, 12.9871, 19.5109, 13.0362, 93.3725, -100.411
1.75149, -1, 1.39663, 12.8913, 19.5488, 13.0385, 93.2724, -100.664
1.76048, -1, 1.20875, 12.7955, 19.5865, 13.0408, 93.1726, -100.918
1.76753, -1, 1.02145, 12.6997, 19.6242, 13.0432, 93.0725, -101.171
1.77567, -1, 0.834787, 12.6042, 19.6619, 13.0456, 92.9726, -101.424
1.78459, -1, 0.648432, 12.5086, 19.6995, 13.048, 92.873, -101.677
1.79168, -1, 0.462522, 12.4131, 19.7371, 13.0505, 92.773, -101.93
1.80025, -1, 0.277021, 12.3178, 19.7748, 13.053, 92.6733, -102.182
1.80873, -1, 0.0916604, 12.2225, 19.8124, 13.0554, 92.574, -102.435
1.81625, -1, -0.0938268, 12.1271, 19.8499, 13.0578, 92.4743, -102.688
1.82378, -1, -0.186612, 12.0795, 19.8688, 13.0603, 92.3748, -102.94
1.83291, -1, -0.465313, 11.9367, 19.9251, 13.0628, 92.2755, -103.192
1.8402, -1, -0.651596, 11.8417, 19.9626, 13.0653, 92.176, -103.444
1.84718, -1, -0.744781, 11.7942, 19.9814, 13.0665, 92.1263, -103.57
1.85721, -1, -1.02467, 11.6516, 20.0376, 13.0703, 91.9773, -103.948
1.86319, -1, -1.11812, 11.6041, 20.0563, 13.0715, 91.9275, -104.074
1.87245, -1, -1.39867, 11.4615, 20.1126, 13.0753, 91.7784, -104.452
1.87914, -1, -1.4921, 11.414, 20.1314, 13.0766, 91.729, -104.577
1.8872, -1, -1.67879, 11.3188, 20.1687, 13.0791, 91.6297, -104.829
1.89663, -1, -1.95794, 11.1763, 20.2249, 13.0831, 91.4809, -105.206
1.90316, -1, -2.05068, 11.1289, 20.2436, 13.0844, 91.4315, -105.332
1.9127, -1, -2.32824, 10.9865, 20.2997, 13.0883, 91.2828, -105.708
1.92072, -1, -2.51294, 10.8917, 20.3371, 13.091, 91.1836, -105.959
1.92955, -1, -2.697, 10.797, 20.3743, 13.0937, 91.0846, -106.21
1.93522, -1, -2.78888, 10.7496, 20.393, 13.0951, 91.035, -106.336
1.9448, -1, -3.06479, 10.6075, 20.4491, 13.0989, 90.8865, -106.712
1.95213, -1, -3.15685, 10.5601, 20.4678, 13.1002, 90.8371, -106.837
1.96013, -1, -3.34115, 10.4656, 20.505, 13.1028, 90.7381, -107.088
1.96814, -1, -3.52579, 10.3711, 20.5422, 13.1053, 90.6391, -107.338
1.97614, -1, -3.71053, 10.2767, 20.5795, 13.1078, 90.5406, -107.588
1.98313, -1, -3.89558, 10.1824, 20.6167, 13.1102, 90.4417, -107.838
1.99153, -1, -4.08101, 10.0881, 20.654, 13.1126, 90.3429, -108.088
2.00017, -1, -4.26658, 9.99383, 20.6912, 13.115, 90.2444, -108.338
2.00814, -1, -4.45219, 9.89952, 20.7283, 13.1173, 90.1456, -108.588
2.01634, -1, -4.63755, 9.8052, 20.7657, 13.1196, 90.0471, -108.837
2.02415, -1, -4.82257, 9.71104, 20.8028, 13.1219, 89.9487, -109.087
2.03116, -1, -5.00712, 9.61697, 20.8398, 13.1243, 89.8501, -109.336
2.03914, -1, -5.19088, 9.52287, 20.877, 13.1266, 89.7516, -109.586
2.04721, -1, -5.3742, 9.42883, 20.9141, 13.129, 89.6535, -109.835
2.05514, -1, -5.55708, 9.33493, 20.9511, 13.1313, 89.555, -110.083
2.06313, -1, -5.73952, 9.24102, 20.9883, 13.1336, 89.4569, -110.332
2.07213, -1, -5.92185, 9.14709, 21.0252, 13.1359, 89.3589, -110.581
2.0802, -1, -6.10425, 9.05319, 21.0622, 13.138, 89.2606, -110.829
2.08893, -1, -6.28695, 8.95943, 21.0993, 13.1403, 89.1625, -111.078
2.09523, -1, -6.46983, 8.86579, 21.1362, 13.1425, 89.0648, -111.326
2.10316, -1, -6.65297, 8.77213, 21.173, 13.1445, 88.9668, -111.574
2.11116, -1, -6.83651, 8.67856, 21.2099, 13.1467, 88.8689, -111.823
2.12014, -1, -7.02044, 8.58499, 21.2468, 13.1488, 88.7712, -112.07
2.12714, -1, -7.20464, 8.49145, 21.2836, 13.1509, 88.6733, -112.318
2.1352, -1, -7.38884, 8.39785, 21.3206, 13.153, 88.5755, -112.565
2.14422, -1, -7.5727, 8.30422, 21.3574, 13.1552, 88.478, -112.813
2.15117, -1, -7.75636, 8.21077, 21.3941, 13.1574, 88.3802, -113.061
2.15929, -1, -7.93952, 8.11734, 21.431, 13.1595, 88.2827, -113.308
2.1682, -1, -8.12207, 8.02398, 21.4678, 13.1618, 88.1855, -113.555
2.17527, -1, -8.30391, 7.93072, 21.5044, 13.164, 88.088, -113.802
2.18331, -1, -8.4853, 7.83748, 21.5413, 13.1664, 87.9906, -114.049
2.19219, -1, -8.66624, 7.74429, 21.5781, 13.1686, 87.8934, -114.296
2.1992, -1, -8.84697, 7.65109, 21.6148, 13.1709, 87.7959, -114.542
2.20739, -1, -9.02779, 7.55799, 21.6515, 13.1731, 87.6985, -114.789
2.21516, -1, -9.20881, 7.46503, 21.6882, 13.1754, 87.6015, -115.035
2.22319, -1, -9.38998, 7.3722, 21.7248, 13.1776, 87.5042, -115.281
2.23126, -1, -9.57154, 7.27936, 21.7615, 13.1798, 87.407, -115.528
2.23927, -1, -9.75345, 7.18664, 21.7981, 13.1821, 87.31, -115.774
2.24748, -1, -9.93582, 7.09394, 21.8346, 13.1843, 87.2126, -116.02
2.25539, -1, -10.1184, 7.00119, 21.8712, 13.1865, 87.1154, -116.266
2.26346, -1, -10.301, 6.90841, 21.9078, 13.1888, 87.0185, -116.511
2.27161, -1, -10.4835, 6.81565, 21.9444, 13.1909, 86.9213, -116.757
2.27962, -1, -10.6659, 6.72292, 21.981, 13.1932, 86.8243, -117.002
2.2877, -1, -10.8478, 6.63031, 22.0174, 13.1956, 86.7274, -117.248
2.29624, -1, -11.0291, 6.5377, 22.0538, 13.198, 86.6304, -117.493
2.30368, -1, -11.2096, 6.44521, 22.0904, 13.2004, 86.5336, -117.737
2.31168, -1, -11.3895, 6.35273, 22.1269, 13.2028, 86.437, -117.982
2.32023, -1, -11.5691, 6.26028, 22.1633, 13.2053, 86.3402, -118.227
2.32763, -1, -11.6588, 6.21406, 22.1815, 13.2065, 86.2919, -118.35
2.33512, -1, -11.838, 6.1217, 22.2181, 13.2091, 86.1954, -118.594
2.34419, -1, -12.1069, 5.98334, 22.2727, 13.2127, 86.0505, -118.961
2.35113, -1, -12.1966, 5.93728, 22.2909, 13.2139, 86.0023, -119.083
2.35913, -1, -12.3762, 5.84527, 22.3274, 13.2164, 85.906, -119.327
2.3684, -1, -12.6464, 5.70729, 22.3818, 13.2202, 85.7613, -119.693
2.37514, -1, -12.7366, 5.66135, 22.3999, 13.2214, 85.7131, -119.815
2.38441, -1, -13.0079, 5.52353, 22.4545, 13.2251, 85.5693, -120.181
2.39113, -1, -13.0985, 5.47754, 22.4727, 13.2263, 85.5212, -120.302
2.40307, -1, -13.3703, 5.33953, 22.527, 13.2299, 85.3774, -120.668
2.40715, -1, -13.4608, 5.29357, 22.5452, 13.2311, 85.3297, -120.79
2.41667, -1, -13.7318, 5.15572, 22.5994, 13.235, 85.186, -121.154
2.42543, -1, -13.9118, 5.06383, 22.6356, 13.2375, 85.0902, -121.397
2.43115, -1, -14.0015, 5.01793, 22.6537, 13.2388, 85.0425, -121.519
2.44069, -1, -14.1801, 4.88034, 22.7079, 13.2426, 84.8989, -121.883
2.4496, -1, -14.3585, 4.83449, 22.7259, 13.2452, 84.8033, -122.125
2.45512, -1, -14.5365, 4.74287, 22.7621, 13.2464, 84.7556, -122.246
2.46412, -1, -14.7142, 4.65131, 22.7984, 13.2488, 84.66, -122.489
2.47212, -1, -14.8918, 4.55981, 22.8344, 13.2514, 84.5642, -122.731
2.47909, -1, -15.0695, 4.4684, 22.8706, 13.2538, 84.4686, -122.974
2.48811, -1, -15.2474, 4.37718, 22.9067, 13.2562, 84.373, -123.216
2.49611, -1, -15.4257, 4.2859, 22.9427, 13.2585, 84.2773, -123.458
2.50312, -1, -15.6045, 4.19467, 22.9787, 13.2609, 84.1818, -123.699
2.51116, -1, -15.7836, 4.10346, 23.0147, 13.2632, 84.0862, -123.941
2.5192, -1, -15.9628, 4.01226, 23.0506, 13.2654, 83.9908, -124.183
2.52712, -1, -16.1423, 3.92097, 23.0866, 13.2675, 83.8953, -124.424
2.53513, -1, -16.3221, 3.82974, 23.1226, 13.2696, 83.7999, -124.666
2.5432, -1, -16.5016, 3.73854, 23.1583, 13.2717, 83.7044, -124.907
2.55112, -1, -16.6808, 3.64738, 23.1941, 13.2739, 83.609, -125.149
2.56011, -1, -16.8593, 3.5563, 23.2299, 13.2762, 83.5137, -125.39
2.56712, -1, -17.037, 3.4653, 23.2657, 13.2784, 83.4183, -125.63
2.57514, -1, -17.2139, 3.37435, 23.3015, 13.2806, 83.3231, -125.871
2.58319, -1, -17.3905, 3.28356, 23.3373, 13.2828, 83.228, -126.112
2.59121, -1, -17.5668, 3.19272, 23.373, 13.2849, 83.1328, -126.352
2.59917, -1, -17.7429, 3.10207, 23.4088, 13.2871, 83.0379, -126.592
2.6072, -1, -17.9188, 3.01149, 23.4447, 13.2891, 82.9432, -126.832
2.61512, -1, -18.0951, 2.92104, 23.4804, 13.2913, 82.8482, -127.072
2.62312, -1, -18.2715, 2.83071, 23.5161, 13.2934, 82.7535, -127.313
2.63119, -1, -18.4483, 2.74031, 23.5519, 13.2955, 82.659, -127.553
2.63913, -1, -18.6257, 2.64993, 23.5875, 13.2975, 82.5643, -127.792
2.64712, -1, -18.8032, 2.55963, 23.6231, 13.2996, 82.4698, -128.032
2.65522, -1, -18.9812, 2.46916, 23.6588, 13.3015, 82.3755, -128.271
2.6632, -1, -19.1595, 2.37869, 23.6944, 13.3034, 82.2808, -128.511
2.67127, -1, -19.3377, 2.28832, 23.7299, 13.3055, 82.1865, -128.75
2.67927, -1, -19.5155, 2.19793, 23.7656, 13.3075, 82.0926, -128.989
2.68723, -1, -19.6927, 2.10754, 23.8011, 13.3097, 81.9983, -129.228
2.6953, -1, -19.8693, 2.0173, 23.8365, 13.312, 81.9042, -129.467
2.70312, -1, -20.0452, 1.92704, 23.8721, 13.3141, 81.8104, -129.706
2.71114, -1, -20.2205, 1.83685, 23.9076, 13.3163, 81.7162, -129.944
2.71923, -1, -20.3954, 1.74673, 23.943, 13.3186, 81.6222, -130.183
2.72731, -1, -20.57, 1.65665, 23.9787, 13.3208, 81.5284, -130.421
2.73518, -1, -20.7443, 1.5667, 24.0142, 13.323, 81.4343, -130.659
2.74337, -1, -20.9189, 1.47682, 24.0496, 13.3251, 81.3404, -130.897
2.75135, -1, -21.0939, 1.38708, 24.0852, 13.3273, 81.2468, -131.135
2.7594, -1, -21.2692, 1.29733, 24.1207, 13.3295, 81.1529, -131.373
2.76757, -1, -21.4448, 1.20764, 24.1561, 13.3317, 81.059, -131.611
2.77576, -1, -21.6207, 1.11804, 24.1915, 13.3339, 80.9653, -131.848
2.78445, -1, -21.7968, 1.02839, 24.227, 13.3361, 80.8715, -132.086
2.79167, -1, -21.9732, 0.938712, 24.2624, 13.3383, 80.7777, -132.323
2.8002, -1, -22.1499, 0.849141, 24.2978, 13.3404, 80.6842, -132.56
2.80846, -1, -22.3265, 0.759608, 24.3332, 13.3426, 80.5905, -132.797
2.81569, -1, -22.5026, 0.670149, 24.3684, 13.3448, 80.4968, -133.035
2.82423, -1, -22.6783, 0.580631, 24.4037, 13.3472, 80.4033, -133.271
2.83251, -1, -22.7659, 0.535911, 24.4214, 13.3484, 80.3096, -133.508
2.83913, -1, -22.9405, 0.446533, 24.4567, 13.3508, 80.2627, -133.626
2.84816, -1, -23.2012, 0.312479, 24.5094, 13.3545, 80.1226, -133.982
2.85515, -1, -23.2879, 0.267821, 24.527, 13.3557, 80.076, -134.1
2.86311, -1, -23.4609, 0.178513, 24.5623, 13.3581, 79.9824, -134.336
2.87256, -1, -23.7207, 0.0447922, 24.6151, 13.3617, 79.8425, -134.691
2.87918, -1, -23.8073, 0.00024954, 24.6327, 13.3629, 79.796, -134.809
2.88711, -1, -23.9806, -0.088737, 24.668, 13.3653, 79.7028, -135.045
2.89651, -1, -24.2411, -0.222148, 24.7206, 13.3691, 79.563, -135.398
2.90315, -1, -24.328, -0.266615, 24.7382, 13.3703, 79.5165, -135.516
2.91113, -1, -24.5022, -0.35549, 24.7735, 13.3727, 79.4234, -135.752
2.92102, -1, -24.7642, -0.488799, 24.826, 13.3763, 79.2837, -136.105
2.92949, -1, -24.9393, -0.577686, 24.8612, 13.3787, 79.191, -136.341
2.93513, -1, -25.0269, -0.622091, 24.8788, 13.3799, 79.1445, -136.458
2.94473, -1, -25.2018, -0.755251, 24.9313, 13.3834, 79.0051, -136.811
2.95355, -1, -25.3765, -0.844073, 24.9663, 13.3857, 78.9126, -137.046
2.95911, -1, -25.5508, -0.888478, 24.9839, 13.3869, 78.8662, -137.163
2.96809, -1, -25.7244, -0.977161, 25.0187, 13.3895, 78.7733, -137.398
2.9752, -1, -25.8975, -1.06583, 25.0536, 13.3918, 78.6807, -137.633
2.98413, -1, -26.07, -1.15455, 25.0887, 13.3943, 78.5884, -137.867
2.9921, -1, -26.2419, -1.24315, 25.1236, 13.3967, 78.4958, -138.102
3.00013, -1, -26.4136, -1.3317, 25.1584, 13.3991, 78.4033, -138.336
3.00713, -1, -26.5853, -1.42017, 25.1935, 13.4012, 78.311, -138.571
3.0152, -1, -26.7572, -1.50849, 25.2285, 13.4035, 78.2184, -138.805
3.0231, -1, -26.9295, -1.59671, 25.2633, 13.4058, 78.126, -139.039
3.03112, -1, -27.1019, -1.68485, 25.2982, 13.408, 78.0339, -139.273
3.03918, -1, -27.2744, -1.77305, 25.3331, 13.4101, 77.9416, -139.507
3.04713, -1, -27.4472, -1.86112, 25.3679, 13.4123, 77.8494, -139.74
3.05511, -1, -27.6204, -1.94921, 25.4028, 13.4144, 77.7575, -139.973
3.06409, -1, -27.7936, -2.03744, 25.4377, 13.4165, 77.6654, -140.207
3.07217, -1, -27.967, -2.12545, 25.4725, 13.4185, 77.5733, -140.44
3.07913, -1, -28.1404, -2.21351, 25.5073, 13.4205, 77.4814, -140.674
3.08718, -1, -28.3136, -2.30155, 25.5422, 13.4225, 77.3893, -140.907
3.0951, -1, -28.4865, -2.3896, 25.5769, 13.4246, 77.2972, -141.14
3.10313, -1, -28.6589, -2.47755, 25.6116, 13.4267, 77.2052, -141.373
3.11116, -1, -28.8307, -2.56556, 25.6463, 13.4288, 77.1133, -141.606
3.1191, -1, -29.0018, -2.65354, 25.681, 13.4311, 77.0213, -141.839
3.12721, -1, -29.1723, -2.74141, 25.7156, 13.4332, 76.9293, -142.071
3.1351, -1, -29.3428, -2.82919, 25.7503, 13.4352, 76.8377, -142.304
3.14311, -1, -29.5135, -2.91689, 25.7851, 13.4374, 76.7456, -142.536
3.15212, -1, -29.6842, -3.00443, 25.8196, 13.4394, 76.6538, -142.768
3.15914, -1, -29.8552, -3.09199, 25.8542, 13.4415, 76.5623, -143.001
3.1672, -1, -30.0262, -3.17945, 25.8888, 13.4436, 76.4703, -143.233
3.17618, -1, -30.1971, -3.26692, 25.9233, 13.4456, 76.3786, -143.465
3.18324, -1, -30.3682, -3.35432, 25.9578, 13.4477, 76.2871, -143.697
3.19127, -1, -30.5397, -3.44175, 25.9924, 13.4497, 76.1954, -143.929
3.19959, -1, -30.7116, -3.52929, 26.0268, 13.4518, 76.104, -144.16
3.20812, -1, -30.8835, -3.6166, 26.0613, 13.4538, 76.0126, -144.391
3.21513, -1, -31.0553, -3.70396, 26.0959, 13.4557, 75.9211, -144.623
3.22386, -1, -31.2271, -3.79132, 26.1303, 13.4578, 75.8297, -144.854
3.23209, -1, -31.3985, -3.87862, 26.1647, 13.4599, 75.7384, -145.086
3.24015, -1, -31.5695, -3.96589, 26.1991, 13.462, 75.6472, -145.317
3.24802, -1, -31.7399, -4.05312, 26.2335, 13.4642, 75.5561, -145.548
3.25608, -1, -31.9099, -4.14036, 26.2678, 13.4664, 75.4649, -145.778
3.26415, -1, -32.0795, -4.22756, 26.3022, 13.4686, 75.3739, -146.009
3.27223, -1, -32.2488, -4.31463, 26.3366, 13.4709, 75.2827, -146.24
3.28014, -1, -32.4182, -4.40168, 26.3708, 13.473, 75.1915, -146.471
3.2876, -1, -32.5878, -4.48864, 26.4051, 13.4751, 75.101, -146.701
3.29642, -1, -32.7575, -4.57553, 26.4396, 13.4772, 75.0099, -146.931
3.30368, -1, -32.9272, -4.66244, 26.4738, 13.4794, 74.9192, -147.162
3.31227, -1, -33.0969, -4.74925, 26.5079, 13.4816, 74.8289, -147.392
3.32044, -1, -33.1818, -4.83605, 26.5423, 13.4839, 74.7381, -147.622
3.32768, -1, -33.3516, -4.87948, 26.5765, 13.4861, 74.6476, -147.852
3.33621, -1, -33.607, -5.00985, 26.6107, 13.4883, 74.557, -148.082
3.34312, -1, -33.6922, -5.05324, 26.6278, 13.4894, 74.5118, -148.197
3.35221, -1, -33.9476, -5.18335, 26.6791, 13.4927, 74.3758, -148.541
3.35909, -1, -34.0328, -5.22672, 26.6961, 13.4938, 74.3305, -148.656
3.36896, -1, -34.2881, -5.35682, 26.7474, 13.4972, 74.1948, -149
3.37635, -1, -34.458, -5.44345, 26.7817, 13.4995, 74.1041, -149.229
3.38312, -1, -34.5428, -5.48677, 26.7987, 13.5007, 74.0588, -149.344
3.39321, -1, -34.7965, -5.61676, 26.8498, 13.5043, 73.9232, -149.688
3.39914, -1, -34.8808, -5.66006, 26.8669, 13.5055, 73.8778, -149.803
3.40854, -1, -35.1334, -5.78985, 26.918, 13.5092, 73.7421, -150.146
3.41744, -1, -35.3016, -5.87629, 26.9521, 13.5116, 73.652, -150.375
3.42466, -1, -35.4701, -5.96255, 26.9862, 13.514, 73.5614, -150.604
3.43264, -1, -35.6386, -6.04877, 27.0203, 13.5164, 73.471, -150.833
3.44144, -1, -35.807, -6.13496, 27.0542, 13.5187, 73.3809, -151.062
3.44709, -1, -35.8912, -6.178, 27.0713, 13.5199, 73.3357, -151.176
3.45718, -1, -36.1441, -6.30718, 27.1224, 13.5235, 73.2, -151.519
3.4631, -1, -36.2283, -6.35023, 27.1394, 13.5247, 73.1547, -151.633
3.47208, -1, -36.3971, -6.43641, 27.1733, 13.5271, 73.0647, -151.861
3.48007, -1, -36.5659, -6.52266, 27.2073, 13.5294, 72.9741, -152.089
3.48816, -1, -36.7349, -6.60883, 27.2412, 13.5317, 72.8839, -152.318
3.49509, -1, -36.9038, -6.69498, 27.2751, 13.5339, 72.7939, -152.546
3.50408, -1, -37.0728, -6.78118, 27.3091, 13.5363, 72.7036, -152.774
3.51212, -1, -37.2416, -6.86731, 27.343, 13.5384, 72.6136, -153.002
3.51913, -1, -37.4101, -6.95332, 27.3768, 13.5407, 72.5238, -153.229
3.52715, -1, -37.5782, -7.03938, 27.4108, 13.5429, 72.4338, -153.457
3.53508, -1, -37.7461, -7.1254, 27.4448, 13.5452, 72.344, -153.684
3.54309, -1, -37.9136, -7.21134, 27.4786, 13.5474, 72.2542, -153.912
3.55117, -1, -38.0811, -7.29723, 27.5124, 13.5496, 72.1646, -154.14
3.55909, -1, -38.2485, -7.38312, 27.5465, 13.5518, 72.0748, -154.367
3.56708, -1, -38.4158, -7.46887, 27.5802, 13.5539, 71.9852, -154.594
3.57607, -1, -38.5829, -7.55456, 27.614, 13.556, 71.8956, -154.821
3.58418, -1, -38.7502, -7.6403, 27.648, 13.5581, 71.8058, -155.049
3.59207, -1, -38.9175, -7.72595, 27.6817, 13.5601, 71.7163, -155.275
3.60007, -1, -39.0849, -7.81154, 27.7154, 13.5622, 71.6273, -155.502
3.60714, -1, -39.2524, -7.89719, 27.7492, 13.5642, 71.5377, -155.729
3.61508, -1, -39.42, -7.98289, 27.783, 13.5661, 71.4485, -155.956
3.62412, -1, -39.5876, -8.06845, 27.8166, 13.5681, 71.3593, -156.183
3.63109, -1, -39.7553, -8.154, 27.8503, 13.57, 71.27, -156.409
3.6391, -1, -39.923, -8.23949, 27.884, 13.572, 71.1806, -156.635
3.64808, -1, -40.0905, -8.32496, 27.9177, 13.5739, 71.0912, -156.862
3.65511, -1, -40.258, -8.41033, 27.9513, 13.5759, 71.002, -157.088
3.66315, -1, -40.4251, -8.49571, 27.9851, 13.5779, 70.9126, -157.314
3.67157, -1, -40.5921, -8.58109, 28.0187, 13.5798, 70.8233, -157.54
3.67921, -1, -40.7589, -8.66648, 28.0523, 13.5818, 70.7343, -157.766
3.68722, -1, -40.9255, -8.75179, 28.086, 13.5838, 70.645, -157.992
3.69584, -1, -41.092, -8.8371, 28.1197, 13.5858, 70.5559, -158.218
3.70415, -1, -41.2583, -8.92237, 28.1533, 13.5878, 70.467, -158.444
3.71124, -1, -41.4245, -9.0075, 28.1868, 13.5898, 70.3778, -158.669
3.71989, -1, -41.5907, -9.09263, 28.2205, 13.5918, 70.2886, -158.895
3.72813, -1, -41.757, -9.17772, 28.2541, 13.5939, 70.1995, -159.12
3.73515, -1, -41.9234, -9.26278, 28.2876, 13.5959, 70.1104, -159.346
3.74432, -1, -42.0898, -9.34779, 28.3213, 13.5979, 70.0214, -159.571
3.75131, -1, -42.2561, -9.4329, 28.3548, 13.5999, 69.9324, -159.797
3.75936, -1, -42.4224, -9.5179, 28.3883, 13.6019, 69.8436, -160.022
3.76827, -1, -42.5887, -9.60286, 28.4219, 13.6039, 69.7544, -160.247
3.77545, -1, -42.7551, -9.6878, 28.4554, 13.606, 69.6656, -160.472
3.78354, -1, -42.9215, -9.77276, 28.4888, 13.608, 69.577, -160.697
3.79201, -1, -43.0877, -9.85768, 28.5223, 13.6101, 69.488, -160.922
3.80041, -1, -43.2539, -9.94263, 28.5558, 13.6122, 69.3994, -161.147
3.80767, -1, -43.4201, -10.0276, 28.5893, 13.6142, 69.3108, -161.371
3.81625, -1, -43.5862, -10.1125, 28.6228, 13.6163, 69.2222, -161.596
3.82444, -1, -43.6691, -10.155, 28.6563, 13.6184, 69.1335, -161.821
3.83176, -1, -43.918, -10.2822, 28.6898, 13.6206, 69.0449, -162.046
3.84028, -1, -44.0836, -10.367, 28.7232, 13.6227, 68.9565, -162.27
3.84709, -1, -44.1662, -10.4094, 28.74, 13.6238, 68.9121, -162.382
3.85515, -1, -44.3314, -10.494, 28.7735, 13.626, 68.8235, -162.606
3.86427, -1, -44.5793, -10.6208, 28.8236, 13.6293, 68.6908, -162.943
3.87113, -1, -44.6619, -10.6631, 28.8403, 13.6304, 68.6464, -163.055
3.87913, -1, -44.8271, -10.7475, 28.8738, 13.6325, 68.5579, -163.279
3.88872, -1, -45.075, -10.8743, 28.9239, 13.6359, 68.4254, -163.615
3.89645, -1, -45.2403, -10.9588, 28.9573, 13.638, 68.3368, -163.839
3.90312, -1, -45.3229, -11.001, 28.9741, 13.6392, 68.2925, -163.951
3.91265, -1, -45.5708, -11.1277, 29.024, 13.6426, 68.1602, -164.287
3.92071, -1, -45.7361, -11.2121, 29.0572, 13.6449, 68.0718, -164.511
3.92909, -1, -45.9011, -11.2964, 29.0907, 13.6471, 67.9834, -164.734
3.93509, -1, -45.9831, -11.3382, 29.1074, 13.6483, 67.9392, -164.846
3.94465, -1, -46.2238, -11.4608, 29.1576, 13.6517, 67.8075, -165.18
3.95291, -1, -46.378, -11.5382, 29.1912, 13.6541, 67.7208, -165.399
3.96085, -1, -46.5243, -11.611, 29.2243, 13.6564, 67.6371, -165.611
3.96809, -1, -46.5938, -11.6453, 29.2402, 13.6575, 67.597, -165.712
3.97695, -1, -46.7238, -11.7379, 29.2839, 13.6607, 67.4871, -165.99
3.98306, -1, -46.8393, -11.7651, 29.2967, 13.6616, 67.4547, -166.072
3.99208, -1, -46.9386, -11.8145, 29.3189, 13.6633, 67.3985, -166.215
4.00007, -1, -47.0216, -11.8576, 29.3356, 13.6647, 67.3534, -166.329
4.0081, -1, -47.0892, -11.8945, 29.3471, 13.6654, 67.3195, -166.414
4.01605, -1, -47.142, -11.9242, 29.3544, 13.6658, 67.2958, -166.474
4.02407, -1, -47.1813, -11.9465, 29.3584, 13.666, 67.2807, -166.512
4.03208, -1, -47.2093, -11.9621, 29.3603, 13.6661, 67.2717, -166.535
4.04006, -1, -47.2278, -11.9723, 29.3611, 13.6662, 67.2669, -166.547
4.04806, -1, -47.239, -11.9783, 29.3615, 13.6663, 67.2645, -166.553
4.05608, 2, -47.2448, -11.9813, 29.3617, 13.6664, 67.2633, -166.556
4.06405, 2, -47.247, -11.9827, 29.3618, 13.6665, 67.2627, -166.557
4.07205, 2, -47.247, -11.9832, 29.362, 13.6665, 67.2625, -166.558
4.08013, 2, -47.2466, -11.9834, 29.362, 13.6666, 67.2624, -166.558
4.08805, 2, -47.2465, -11.9835, 29.362, 13.6666, 67.2623, -166.558
4.09604, 2, -47.2468, -11.9836, 29.362, 13.6666, 67.2623, -166.558
4.10412, 2, -47.2477, -11.9838, 29.3621, 13.6666, 67.2623, -166.558
4.11124, 2, -47.249, -11.9843, 29.3621, 13.6666, 67.2622, -166.558
4.11914, 2, -47.2509, -11.985, 29.3621, 13.6666, 67.2623, -166.558
4.12706, 2, -47.2526, -11.9859, 29.3621, 13.6666, 67.2623, -166.558
4.13509, 2, -47.2541, -11.9867, 29.3621, 13.6666, 67.2623, -166.558
4.14405, 2, -47.2551, -11.9873, 29.3621, 13.6665, 67.2623, -166.558
4.15211, 2, -47.2556, -11.9877, 29.3621, 13.6665, 67.2623, -166.558
4.1591, 2, -47.2559, -11.9879, 29.3621, 13.6666, 67.2622, -166.558
4.16721, 2, -47.256, -11.988, 29.3621, 13.6666, 67.2623, -166.558
4.17518, 2, -47.2558, -11.988, 29.3621, 13.6666, 67.2622, -166.558
4.18318, 2, -47.2553, -11.988, 29.3621, 13.6666, 67.2622, -166.558
4.1913, 2, -47.2547, -11.988, 29.3621, 13.6666, 67.2623, -166.558
4.19917, 2, -47.2543, -11.988, 29.3621, 13.6666, 67.2622, -166.558
4.20723, 2, -47.254, -11.988, 29.3621, 13.6666, 67.2622, -166.558
4.21528, 2, -47.2539, -11.9881, 29.3621, 13.6666, 67.2622, -166.558
4.22311, 2, -47.254, -11.9882, 29.3621, 13.6666, 67.2623, -166.558
4.23116, 2, -47.2542, -11.9884, 29.3621, 13.6666, 67.2623, -166.558
4.23939, 2, -47.2547, -11.9887, 29.3621, 13.6666, 67.2623, -166.558
4.24717, 2, -47.2553, -11.989, 29.3621, 13.6666, 67.2623, -166.558
4.25525, 2, -47.2558, -11.9891, 29.3621, 13.6666, 67.2623, -166.558
4.26343, 2, -47.256, -11.9892, 29.3621, 13.6666, 67.2623, -166.558
4.27144, 2, -47.2561, -11.9892, 29.3621, 13.6666, 67.2623, -166.558
4.27945, 2, -47.256, -11.9892, 29.3621, 13.6666, 67.2623, -166.558
4.28763, 2, -47.2559, -11.9892, 29.3621, 13.6666, 67.2623, -166.558
4.29623, 2, -47.2555, -11.9891, 29.3621, 13.6666, 67.2623, -166.558
4.30367, 2, -47.2551, -11.9891, 29.3621, 13.6666, 67.2623, -166.558
4.31215, 2, -47.2548, -11.9891, 29.3621, 13.6666, 67.2623, -166.558
4.31961, 2, -47.2545, -11.9891, 29.3621, 13.6666, 67.2623, -166.558
4.32818, 2, -47.2543, -11.9892, 29.3621, 13.6666, 67.2622, -166.558
4.33576, 2, -47.2543, -11.9892, 29.3621, 13.6665, 67.2623, -166.558
4.34412, 2, -47.2542, -11.9892, 29.3621, 13.6665, 67.2623, -166.558
4.35113, 2, -47.2542, -11.9892, 29.3621, 13.6665, 67.2623, -166.558
4.36013, 2, -47.2542, -11.9893, 29.3621, 13.6665, 67.2623, -166.558
4.36705, 2, -47.2542, -11.9893, 29.3621, 13.6665, 67.2623, -166.558
4.37619, 2, -47.2543, -11.9893, 29.3621, 13.6665, 67.2623, -166.558
4.3831, 2, -47.2543, -11.9893, 29.3621, 13.6665, 67.2623, -166.558
4.39239, 2, -47.2542, -11.9892, 29.3621, 13.6665, 67.2623, -166.558
4.39905, 2, -47.2542, -11.9892, 29.3621, 13.6665, 67.2623, -166.558
4.40851, 2, -47.2541, -11.9891, 29.3621, 13.6665, 67.2623, -166.558
4.41656, 2, -47.254, -11.9891, 29.3621, 13.6665, 67.2623, -166.558
4.42456, 2, -47.2538, -11.9891, 29.3621, 13.6665, 67.2623, -166.558
4.43267, 2, -47.2537, -11.9891, 29.3621, 13.6665, 67.2623, -166.558
4.44062, 2, -47.2536, -11.9891, 29.3621, 13.6665, 67.2623, -166.558
4.44862, 2, -47.2535, -11.9892, 29.3621, 13.6665, 67.2623, -166.558
4.45669, 2, -47.2535, -11.9892, 29.3621, 13.6665, 67.2623, -166.558
4.46469, 2, -47.2534, -11.9892, 29.3621, 13.6664, 67.2623, -166.558
4.47204, 2, -47.2533, -11.9892, 29.3621, 13.6664, 67.2623, -166.558
4.48005, 2, -47.2533, -11.9892, 29.3621, 13.6664, 67.2623, -166.558
4.48809, 2, -47.2532, -11.9891, 29.3621, 13.6665, 67.2623, -166.558
4.49606, 2, -47.2531, -11.9891, 29.3621, 13.6665, 67.2624, -166.558
4.50404, 2, -47.253, -11.9891, 29.3621, 13.6665, 67.2624, -166.558
4.51209, 2, -47.2529, -11.989, 29.3621, 13.6665, 67.2623, -166.558
4.52005, 2, -47.2529, -11.989, 29.3621, 13.6665, 67.2624, -166.558
4.52806, 2, -47.2528, -11.989, 29.3621, 13.6665, 67.2624, -166.558
4.53609, 2, -47.2527, -11.989, 29.3621, 13.6665, 67.2624, -166.558
4.54404, 2, -47.2526, -11.989, 29.3621, 13.6665, 67.2624, -166.558
4.55206, 2, -47.2526, -11.989, 29.3621, 13.6665, 67.2623, -166.558
4.56011, 2, -47.2525, -11.9891, 29.3621, 13.6665, 67.2624, -166.558
4.56804, 2, -47.2524, -11.9891, 29.3621, 13.6665, 67.2624, -166.558
4.57604, 2, -47.2522, -11.989, 29.3621, 13.6665, 67.2624, -166.558
4.58559, 2, -47.2521, -11.989, 29.3621, 13.6664, 67.2624, -166.557
4.59203, 2, -47.252, -11.989, 29.3621, 13.6664, 67.2624, -166.557
4.60107, 2, -47.2519, -11.989, 29.3621, 13.6665, 67.2624, -166.557
4.6081, 2, -47.2518, -11.989, 29.3621, 13.6664, 67.2624, -166.557
4.61603, 2, -47.2516, -11.9889, 29.3621, 13.6664, 67.2624, -166.557
4.62405, 2, -47.2516, -11.9889, 29.3621, 13.6665, 67.2625, -166.557
4.63214, 2, -47.2514, -11.9889, 29.3621, 13.6664, 67.2625, -166.557
4.63905, 2, -47.2513, -11.9889, 29.3621, 13.6664, 67.2625, -166.557
4.64804, 2, -47.2512, -11.9889, 29.3621, 13.6664, 67.2625, -166.557
4.6561, 2, -47.2512, -11.9889, 29.3621, 13.6664, 67.2625, -166.557
4.66308, 2, -47.2511, -11.9889, 29.3621, 13.6664, 67.2625, -166.557
4.67204, 2, -47.251, -11.9889, 29.3621, 13.6664, 67.2625, -166.557
4.68011, 2, -47.2509, -11.9889, 29.3621, 13.6665, 67.2625, -166.557
4.68804, 2, -47.2508, -11.9889, 29.3621, 13.6664, 67.2625, -166.557
4.69605, 2, -47.2508, -11.9889, 29.3621, 13.6664, 67.2625, -166.557
4.7041, 2, -47.2507, -11.9888, 29.3621, 13.6664, 67.2625, -166.557
4.71121, 2, -47.2507, -11.9888, 29.3621, 13.6664, 67.2625, -166.557
4.71918, 2, -47.2507, -11.9887, 29.3621, 13.6664, 67.2626, -166.557
4.7271, 2, -47.2506, -11.9887, 29.3621, 13.6664, 67.2626, -166.557
4.73512, 2, -47.2505, -11.9887, 29.3621, 13.6664, 67.2626, -166.557
4.74319, 2, -47.2504, -11.9887, 29.3621, 13.6664, 67.2626, -166.557
4.75123, 2, -47.2503, -11.9887, 29.3621, 13.6663, 67.2626, -166.557
4.75949, 2, -47.2502, -11.9887, 29.3621, 13.6663, 67.2626, -166.557
4.76767, 2, -47.2502, -11.9886, 29.3621, 13.6663, 67.2626, -166.557
4.77611, 2, -47.2502, -11.9886, 29.3621, 13.6663, 67.2626, -166.557
4.78405, 2, -47.2502, -11.9886, 29.3621, 13.6663, 67.2626, -166.557
4.79195, 2, -47.2501, -11.9886, 29.3621, 13.6663, 67.2626, -166.557
4.80023, 2, -47.2501, -11.9886, 29.3621, 13.6663, 67.2626, -166.557
4.80787, 2, -47.25, -11.9886, 29.3621, 13.6663, 67.2627, -166.557
4.81614, 2, -47.25, -11.9885, 29.3621, 13.6662, 67.2627, -166.557
4.8236, 2, -47.2499, -11.9884, 29.3621, 13.6663, 67.2626, -166.556
4.83216, 2, -47.2498, -11.9884, 29.3621, 13.6663, 67.2627, -166.556
4.83986, 2, -47.2498, -11.9884, 29.3621, 13.6663, 67.2627, -166.556
4.84811, 2, -47.2497, -11.9883, 29.362, 13.6662, 67.2627, -166.556
4.85507, 2, -47.2497, -11.9883, 29.362, 13.6662, 67.2628, -166.556
4.8641, 2, -47.2496, -11.9883, 29.362, 13.6662, 67.2628, -166.556
4.87111, 2, -47.2495, -11.9883, 29.362, 13.6662, 67.2628, -166.556
4.88022, 2, -47.2494, -11.9883, 29.3621, 13.6662, 67.2628, -166.556
4.88709, 2, -47.2494, -11.9883, 29.3621, 13.6662, 67.2628, -166.556
4.89639, 2, -47.2494, -11.9883, 29.3621, 13.6662, 67.2628, -166.556
4.90304, 2, -47.2494, -11.9883, 29.3621, 13.6661, 67.2628, -166.556
4.91264, 2, -47.2494, -11.9882, 29.3621, 13.6662, 67.2628, -166.556
4.92056, 2, -47.2493, -11.9882, 29.362, 13.6662, 67.2628, -166.556
4.9286, 2, -47.2492, -11.9881, 29.362, 13.6661, 67.2628, -166.556
4.93697, 2, -47.2492, -11.988, 29.362, 13.6661, 67.2628, -166.556
4.94461, 2, -47.2491, -11.988, 29.362, 13.6661, 67.2628, -166.556
4.95286, 2, -47.249, -11.988, 29.362, 13.6661, 67.2628, -166.556
4.96083, 2, -47.2489, -11.988, 29.362, 13.6661, 67.2628, -166.556
4.96863, 2, -47.2489, -11.988, 29.362, 13.666, 67.2628, -166.556
4.97602, 2, -47.2488, -11.9879, 29.362, 13.666, 67.2628, -166.556
4.98486, 2, -47.2488, -11.9879, 29.362, 13.666, 67.2628, -166.556
4.99207, 2, -47.2487, -11.9879, 29.362, 13.666, 67.2628, -166.556
5.00005, 2, -47.2487, -11.9879, 29.3621, 13.666, 67.2628, -166.556
5.00802, 2, -47.2487, -11.9879, 29.3621, 13.666, 67.2629, -166.556
5.01608, 2, -47.2487, -11.9879, 29.362, 13.666, 67.2629, -166.556
5.02402, 2, -47.2487, -11.9878, 29.362, 13.666, 67.2628, -166.556
5.03203, 2, -47.2486, -11.9878, 29.362, 13.666, 67.2628, -166.556
5.04007, 2, -47.2485, -11.9877, 29.362, 13.666, 67.2629, -166.556
5.04802, 2, -47.2485, -11.9877, 29.362, 13.666, 67.2629, -166.556
5.05618, 2, -47.2484, -11.9876, 29.362, 13.6659, 67.263, -166.556
5.06402, 2, -47.2483, -11.9876, 29.362, 13.6659, 67.2629, -166.556
5.07202, 2, -47.2482, -11.9876, 29.362, 13.6659, 67.2629, -166.556
5.08009, 2, -47.2482, -11.9876, 29.362, 13.6659, 67.263, -166.556
5.08802, 2, -47.2481, -11.9876, 29.3621, 13.6659, 67.263, -166.556
5.09705, 2, -47.2481, -11.9876, 29.3621, 13.6658, 67.263, -166.556
5.10408, 2, -47.248, -11.9876, 29.362, 13.6659, 67.263, -166.556
5.11202, 2, -47.248, -11.9875, 29.362, 13.6658, 67.263, -166.556
5.11912, 2, -47.248, -11.9875, 29.362, 13.6658, 67.263, -166.556
5.12703, 2, -47.2479, -11.9874, 29.362, 13.6657, 67.263, -166.556
5.13527, 2, -47.2479, -11.9874, 29.362, 13.6657, 67.263, -166.556
5.1431, 4, -47.2479, -11.9873, 29.362, 13.6657, 67.263, -166.556
5.15208, 4, -47.2478, -11.9873, 29.362, 13.6657, 67.263, -166.556
5.16003, 4, -47.2477, -11.9872, 29.362, 13.6657, 67.263, -166.556
5.16714, 4, -47.2477, -11.9872, 29.362, 13.6656, 67.263, -166.556
5.17513, 4, -47.2476, -11.9872, 29.362, 13.6656, 67.263, -166.556
5.18313, 4, -47.2475, -11.9872, 29.362, 13.6656, 67.2631, -166.556
5.19126, 4, -47.2475, -11.9872, 29.362, 13.6656, 67.2631, -166.556
5.19917, 4, -47.2474, -11.9872, 29.362, 13.6656, 67.2631, -166.556
5.20713, 4, -47.2474, -11.9872, 29.362, 13.6655, 67.2631, -166.556
5.21522, 4, -47.2474, -11.9872, 29.362, 13.6655, 67.2631, -166.556
5.22303, 4, -47.2473, -11.9871, 29.362, 13.6655, 67.2631, -166.556
5.23114, 4, -47.2473, -11.9871, 29.362, 13.6655, 67.2631, -166.556
5.23977, 4, -47.2473, -11.987, 29.362, 13.6655, 67.2631, -166.556
5.2659, 4, -47.2472, -11.9869, 29.362, 13.6654, 67.2631, -166.555
5.26856, 4, -47.2471, -11.9869, 29.362, 13.6654, 67.2631, -166.555
5.27033, 4, -47.2471, -11.9869, 29.362, 13.6654, 67.2631, -166.555
5.273, 4, -47.2471, -11.9869, 29.362, 13.6654, 67.2631, -166.555
5.28045, 4, -47.2471, -11.9869, 29.362, 13.6654, 67.2631, -166.555
5.28744, 4, -47.247, -11.9868, 29.362, 13.6654, 67.2631, -166.555
5.29556, 4, -47.2471, -11.9869, 29.3621, 13.6654, 67.2631, -166.555
5.30443, 4, -47.248, -11.9873, 29.3623, 13.6656, 67.2632, -166.555
5.31156, 4, -47.2501, -11.9888, 29.364, 13.6671, 67.2638, -166.555
5.32013, 4, -47.2536, -11.9921, 29.3688, 13.6761, 67.2659, -166.554
5.32841, 4, -47.2558, -11.9977, 29.3785, 13.6975, 67.2709, -166.549
5.3356, 4, -47.2614, -12.0014, 29.3857, 13.7342, 67.2807, -166.541
5.34436, 4, -47.2738, -12.0163, 29.4194, 13.7902, 67.2958, -166.528
5.35288, 5, -47.285, -12.0301, 29.4525, 13.8659, 67.3168, -166.511
5.36006, 5, -47.2981, -12.0468, 29.4929, 13.9593, 67.3433, -166.489
5.36806, 5, -47.313, -12.066, 29.5399, 14.0676, 67.3734, -166.463
5.37503, 5, -47.3211, -12.0764, 29.5653, 14.1256, 67.3895, -166.449
5.38301, 5, -47.3386, -12.0988, 29.6186, 14.2466, 67.4228, -166.42
5.39302, 5, -47.3673, -12.1358, 29.7025, 14.4351, 67.476, -166.375
5.40033, 5, -47.3876, -12.1615, 29.7598, 14.5628, 67.5118, -166.345
5.40707, 5, -47.3982, -12.1746, 29.7887, 14.627, 67.5295, -166.33
5.41503, 5, -47.4196, -12.2011, 29.8467, 14.7555, 67.5645, -166.299
5.42449, 5, -47.4521, -12.2413, 29.9342, 14.9485, 67.6177, -166.253
5.4311, 5, -47.4629, -12.2548, 29.9636, 15.0129, 67.6356, -166.237
5.43922, 5, -47.4849, -12.2816, 30.0225, 15.1417, 67.6707, -166.207
5.447, 5, -47.5068, -12.3086, 30.0818, 15.2706, 67.7054, -166.177
5.45742, 5, -47.5286, -12.3492, 30.1713, 15.4644, 67.7579, -166.132
5.46306, 5, -47.5505, -12.3628, 30.2013, 15.5291, 67.7756, -166.117
5.47305, 5, -47.5829, -12.4034, 30.2915, 15.7229, 67.8275, -166.071
5.4791, 5, -47.5937, -12.4169, 30.3216, 15.7875, 67.8445, -166.056
5.48814, 5, -47.6151, -12.444, 30.382, 15.9165, 67.8785, -166.026
5.49501, 5, -47.6368, -12.4713, 30.4428, 16.0456, 67.9132, -165.997
5.50403, 5, -47.6587, -12.4988, 30.5037, 16.1747, 67.9476, -165.967
5.51107, 5, -47.6807, -12.5263, 30.5649, 16.3039, 67.9814, -165.938
5.519, 5, -47.7031, -12.554, 30.6263, 16.433, 68.0148, -165.908
5.528, 5, -47.7257, -12.5819, 30.6879, 16.5622, 68.0489, -165.878
5.53524, 5, -47.7483, -12.6099, 30.7499, 16.6913, 68.0829, -165.849
5.54301, 5, -47.7707, -12.6378, 30.8122, 16.8202, 68.1163, -165.82
5.552, 5, -47.7932, -12.6658, 30.8746, 16.9491, 68.149, -165.791
5.56003, 5, -47.8157, -12.6938, 30.9373, 17.0782, 68.182, -165.762
5.56935, 5, -47.8384, -12.722, 31.0002, 17.2075, 68.2154, -165.733
5.57509, 5, -47.861, -12.7501, 31.0633, 17.3367, 68.2482, -165.704
5.58489, 5, -47.8839, -12.7782, 31.1266, 17.4658, 68.2806, -165.675
5.592, 5, -47.9066, -12.8064, 31.1901, 17.595, 68.3129, -165.647
5.601, 5, -47.9291, -12.8346, 31.2538, 17.7241, 68.3457, -165.618
5.60701, 5, -47.9516, -12.8631, 31.3178, 17.8531, 68.3784, -165.59
5.616, 5, -47.9742, -12.8915, 31.3821, 17.9824, 68.4104, -165.562
5.624, 5, -47.9966, -12.9201, 31.4466, 18.1118, 68.4419, -165.534
5.63281, 5, -48.0194, -12.9488, 31.5113, 18.2411, 68.4737, -165.505
5.639, 5, -48.0425, -12.9776, 31.5763, 18.3703, 68.5058, -165.477
5.648, 5, -48.0656, -13.0064, 31.6414, 18.4995, 68.5374, -165.449
5.65704, 5, -48.0887, -13.0352, 31.7067, 18.6286, 68.5685, -165.422
5.66415, 5, -48.1119, -13.0641, 31.7723, 18.7578, 68.5996, -165.394
5.67209, 5, -48.1352, -13.093, 31.838, 18.8873, 68.6311, -165.367
5.6825, 5, -48.1699, -13.1365, 31.9371, 19.0815, 68.6782, -165.325
5.688, 5, -48.1815, -13.1511, 31.9703, 19.1462, 68.6936, -165.311
5.69607, 5, -48.2049, -13.1801, 32.0367, 19.2755, 68.724, -165.284
5.70401, 5, -48.228, -13.2093, 32.1035, 19.4046, 68.7544, -165.257
5.712, 5, -48.2511, -13.2386, 32.1706, 19.534, 68.7854, -165.231
5.72006, 5, -48.2744, -13.2678, 32.2379, 19.6632, 68.8161, -165.204
5.72802, 5, -48.2977, -13.2972, 32.3053, 19.7927, 68.8462, -165.177
5.73602, 5, -48.3209, -13.3266, 32.3729, 19.9222, 68.8761, -165.15
5.74406, 5, -48.3444, -13.3561, 32.4406, 20.0514, 68.9061, -165.123
5.752, 5, -48.368, -13.3855, 32.5085, 20.1808, 68.9366, -165.096
5.76076, 5, -48.3914, -13.4151, 32.5768, 20.3099, 68.9667, -165.07
5.76806, 5, -48.4148, -13.4446, 32.6453, 20.4392, 68.9961, -165.043
5.77602, 5, -48.4386, -13.4744, 32.714, 20.5686, 69.0252, -165.017
5.784, 5, -48.4622, -13.5041, 32.783, 20.6982, 69.0546, -164.991
5.79234, 5, -48.4859, -13.5339, 32.8522, 20.8276, 69.0844, -164.964
5.79954, 5, -48.5097, -13.5637, 32.9217, 20.957, 69.1138, -164.937
5.80815, 5, -48.5333, -13.5936, 32.9913, 21.0864, 69.1426, -164.911
5.81648, 5, -48.5569, -13.6235, 33.061, 21.2157, 69.1713, -164.885
5.82382, 5, -48.5804, -13.6535, 33.1309, 21.345, 69.2002, -164.859
5.83239, 5, -48.6041, -13.6837, 33.201, 21.4746, 69.2295, -164.833
5.84039, 5, -48.6277, -13.7139, 33.2715, 21.6042, 69.2583, -164.807
5.84769, 5, -48.6395, -13.729, 33.3068, 21.669, 69.2725, -164.781
5.8561, 5, -48.6751, -13.7743, 33.413, 21.8632, 69.3146, -164.755
5.86301, 5, -48.6867, -13.7893, 33.4485, 21.9278, 69.3285, -164.742
5.87109, 5, -48.7094, -13.8194, 33.5195, 22.0569, 69.357, -164.716
5.88015, 5, -48.7423, -13.8641, 33.6257, 22.2491, 69.4001, -164.675
5.887, 5, -48.7528, -13.8788, 33.6609, 22.3126, 69.4144, -164.661
5.8963, 5, -48.783, -13.9222, 33.7655, 22.5004, 69.4578, -164.612
5.90539, 5, -48.8017, -13.9505, 33.8339, 22.6222, 69.4876, -164.574
5.91279, 6, -48.8192, -13.9782, 33.9011, 22.7408, 69.519, -164.532
5.92084, 6, -48.8352, -14.005, 33.967, 22.8557, 69.5509, -164.485
5.92854, 6, -48.8495, -14.0312, 34.0314, 22.967, 69.5832, -164.432
5.93652, 6, -48.8618, -14.0564, 34.0945, 23.0745, 69.6162, -164.372
5.94464, 6, -48.872, -14.0808, 34.1559, 23.1783, 69.6507, -164.309
5.95263, 6, -48.8804, -14.1043, 34.2157, 23.2786, 69.6864, -164.238
5.96061, 6, -48.8872, -14.1268, 34.2739, 23.375, 69.7224, -164.163
5.96885, 6, -48.8899, -14.1378, 34.3025, 23.422, 69.7405, -164.083
5.9766, 6, -48.8941, -14.1592, 34.3586, 23.5136, 69.7777, -164.04
5.98404, 6, -48.8968, -14.1796, 34.4135, 23.6023, 69.8164, -163.953
5.99205, 6, -48.8981, -14.1996, 34.4672, 23.6881, 69.8552, -163.861
5.99995, 7, -48.8985, -14.219, 34.5199, 23.7719, 69.8938, -163.766
6.01009, 7, -48.8971, -14.2468, 34.5971, 23.8941, 69.9538, -163.618
6.016, 7, -48.896, -14.2557, 34.6224, 23.9339, 69.9742, -163.567
6.02403, 7, -48.8932, -14.2735, 34.6724, 24.0125, 70.0145, -163.464
6.03205, 7, -48.8893, -14.2907, 34.7215, 24.0895, 70.0554, -163.358
6.04004, 7, -48.8847, -14.3072, 34.77, 24.1652, 70.0976, -163.249
6.04806, 7, -48.8791, -14.3234, 34.8175, 24.239, 70.14, -163.138
6.056, 7, -48.8728, -14.3394, 34.8643, 24.3116, 70.1819, -163.025
6.06407, 7, -48.8657, -14.3549, 34.9106, 24.383, 70.2248, -162.91
6.07204, 7, -48.8581, -14.3696, 34.9561, 24.4536, 70.2684, -162.793
6.07999, 7, -48.85, -14.3841, 35.0011, 24.5229, 70.3115, -162.675
6.08801, 8, -48.8412, -14.3986, 35.0456, 24.5917, 70.3551, -162.555
6.09757, 8, -48.8318, -14.4126, 35.0897, 24.6602, 70.3998, -162.373
6.10415, 8, -48.8219, -14.4262, 35.1334, 24.7278, 70.4441, -162.312
6.11493, 8, -48.806, -14.4462, 35.1981, 24.8287, 70.5107, -162.128
6.12003, 8, -48.8005, -14.4529, 35.2196, 24.8622, 70.5335, -162.067
6.128, 8, -48.789, -14.4662, 35.2621, 24.9296, 70.5788, -161.943
6.136, 8, -48.7775, -14.4791, 35.3044, 24.9958, 70.6237, -161.818
6.14408, 8, -48.7656, -14.4917, 35.3463, 25.0626, 70.6697, -161.692
6.15223, 8, -48.7535, -14.5042, 35.3879, 25.1283, 70.7157, -161.566
6.159, 8, -48.7413, -14.5166, 35.4294, 25.1947, 70.7609, -161.439
6.16798, 8, -48.7288, -14.529, 35.4706, 25.2602, 70.8068, -161.312
6.1776, 9, -48.7161, -14.5409, 35.5116, 25.3265, 70.8532, -161.185
6.18415, 9, -48.7033, -14.5526, 35.5526, 25.3921, 70.8988, -161.058
6.19212, 9, -48.6904, -14.5643, 35.5933, 25.4583, 70.945, -160.931
6.19913, 9, -48.6773, -14.5761, 35.634, 25.5245, 70.9918, -160.804
6.2072, 9, -48.6642, -14.5879, 35.6745, 25.5907, 71.0375, -160.678
6.21554, 9, -48.6509, -14.5994, 35.7148, 25.6574, 71.0834, -160.551
6.22399, 9, -48.6375, -14.6107, 35.7551, 25.7237, 71.1302, -160.424
6.23105, 9, -48.624, -14.6221, 35.7952, 25.791, 71.1762, -160.296
6.23906, 9, -48.6105, -14.6334, 35.8351, 25.8578, 71.2223, -160.17
6.24714, 9, -48.5969, -14.6449, 35.8751, 25.9257, 71.2694, -160.043
6.25544, 9, -48.5834, -14.6563, 35.9149, 25.993, 71.3159, -159.917
6.26397, 10, -48.5697, -14.6673, 35.9547, 26.0613, 71.3618, -159.791
6.27204, 10, -48.556, -14.6784, 35.9945, 26.1289, 71.4088, -159.665
6.28005, 10, -48.5424, -14.6895, 36.0341, 26.1976, 71.4554, -159.539
6.28799, 10, -48.5289, -14.7006, 36.0739, 26.2656, 71.5015, -159.413
6.29601, 10, -48.5153, -14.7119, 36.1136, 26.3345, 71.5484, -159.288
6.30409, 10, -48.5016, -14.723, 36.1531, 26.4033, 71.5952, -159.163
6.31161, 10, -48.4879, -14.7338, 36.1927, 26.4727, 71.641, -159.038
6.32016, 10, -48.474, -14.7448, 36.2324, 26.5421, 71.6875, -158.913
6.3276, 10, -48.4601, -14.7558, 36.2718, 26.6119, 71.7341, -158.789
6.33609, 10, -48.4464, -14.767, 36.3113, 26.6819, 71.7799, -158.665
6.34418, 10, -48.4326, -14.7783, 36.3506, 26.7524, 71.8262, -158.541
6.3523, 11, -48.4188, -14.7892, 36.3899, 26.823, 71.8729, -158.418
6.36097, 11, -48.4049, -14.8002, 36.4293, 26.8937, 71.9185, -158.295
6.36803, 11, -48.391, -14.8113, 36.4686, 26.9646, 71.9645, -158.171
6.37514, 11, -48.3841, -14.8168, 36.4882, 27.0001, 71.9879, -158.11
6.38416, 11, -48.3634, -14.8337, 36.547, 27.1069, 72.0567, -157.926
6.39098, 11, -48.3564, -14.8393, 36.5666, 27.1425, 72.0795, -157.865
6.40156, 11, -48.3355, -14.8557, 36.6253, 27.2497, 72.1492, -157.681
6.407, 11, -48.3284, -14.8612, 36.6449, 27.2855, 72.1722, -157.62
6.41638, 11, -48.3071, -14.8776, 36.7034, 27.3936, 72.2404, -157.438
6.4244, 11, -48.2929, -14.8887, 36.7425, 27.4658, 72.2867, -157.316
6.43098, 11, -48.2858, -14.8942, 36.762, 27.5022, 72.3097, -157.256
6.44055, 12, -48.2643, -14.9107, 36.8203, 27.611, 72.3777, -157.074
6.44854, 12, -48.2499, -14.9214, 36.8592, 27.6837, 72.4239, -156.952
6.45541, 12, -48.2426, -14.9269, 36.8786, 27.7198, 72.447, -156.892
6.46449, 12, -48.2282, -14.9379, 36.9173, 27.7929, 72.4922, -156.711
6.47262, 12, -48.2136, -14.949, 36.956, 27.9022, 72.5603, -156.59
6.48064, 12, -48.199, -14.9601, 36.9946, 27.9387, 72.5833, -156.47
6.48797, 12, -48.1842, -14.9712, 37.033, 28.0114, 72.6286, -156.41
6.49597, 12, -48.1692, -14.982, 37.0715, 28.0847, 72.6735, -156.291
6.50697, 12, -48.1466, -14.9985, 37.1291, 28.1943, 72.7423, -156.111
6.51209, 12, -48.139, -15.004, 37.1481, 28.2309, 72.7649, -156.051
6.51998, 12, -48.1237, -15.0151, 37.1863, 28.3038, 72.8095, -155.931
6.52812, 13, -48.1083, -15.0262, 37.2244, 28.3776, 72.8548, -155.812
6.5351, 13, -48.0928, -15.0371, 37.2624, 28.4509, 72.9001, -155.692
6.54403, 13, -48.0772, -15.0478, 37.3003, 28.5246, 72.9445, -155.573
6.55202, 13, -48.0616, -15.0587, 37.3382, 28.5979, 72.9895, -155.454
6.55997, 13, -48.0458, -15.0696, 37.3759, 28.6716, 73.0349, -155.335
6.56799, 13, -48.0298, -15.0807, 37.4136, 28.7449, 73.0792, -155.217
6.57601, 13, -48.0135, -15.0916, 37.4512, 28.8184, 73.1237, -155.098
6.58297, 13, -47.9971, -15.1023, 37.4886, 28.8916, 73.169, -154.979
6.59202, 13, -47.9806, -15.113, 37.526, 28.965, 73.2136, -154.86
6.60002, 13, -47.964, -15.1238, 37.5634, 29.0383, 73.2579, -154.741
6.60899, 13, -47.9473, -15.1347, 37.6005, 29.1117, 73.303, -154.622
6.61596, 14, -47.9304, -15.1457, 37.6376, 29.1849, 73.3477, -154.504
6.62657, 14, -47.9134, -15.1565, 37.6745, 29.2585, 73.3915, -154.327
6.63885, 14, -47.8964, -15.1671, 37.7296, 29.3688, 73.4584, -154.15
6.64107, 14, -47.8792, -15.1778, 37.748, 29.4053, 73.4806, -154.15
6.64808, 14, -47.8618, -15.1887, 37.7847, 29.4786, 73.5243, -154.032
6.65598, 14, -47.844, -15.1996, 37.8211, 29.5519, 73.5686, -153.914
6.66396, 14, -47.8261, -15.2105, 37.8575, 29.625, 73.6134, -153.796
6.67529, 14, -47.7991, -15.2265, 37.9118, 29.7341, 73.6789, -153.619
6.67905, 14, -47.79, -15.2317, 37.9299, 29.7706, 73.7009, -153.561
6.68796, 14, -47.7716, -15.2424, 37.966, 29.8436, 73.7454, -153.443
6.69596, 14, -47.7532, -15.2531, 38.002, 29.9163, 73.7892, -153.325
6.7041, 15, -47.7346, -15.2639, 38.0378, 29.989, 73.8326, -153.208
6.7121, 15, -47.716, -15.2747, 38.0736, 30.0618, 73.8768, -153.09
6.71996, 15, -47.697, -15.2852, 38.1094, 30.1345, 73.9208, -152.973
6.72796, 15, -47.6778, -15.2957, 38.1448, 30.2072, 73.9639, -152.856
6.73605, 15, -47.6585, -15.3064, 38.1803, 30.2797, 74.0075, -152.739
6.74396, 15, -47.639, -15.3172, 38.2157, 30.3523, 74.0515, -152.622
6.75209, 15, -47.6193, -15.3281, 38.2509, 30.4246, 74.0946, -152.504
6.75912, 15, -47.5995, -15.3388, 38.286, 30.4971, 74.1377, -152.388
6.76727, 15, -47.5796, -15.3494, 38.3211, 30.569, 74.1816, -152.271
6.77525, 15, -47.5595, -15.36, 38.3559, 30.6412, 74.2247, -152.154
6.78338, 15, -47.5392, -15.3707, 38.3907, 30.7129, 74.2671, -152.038
6.79182, 16, -47.5187, -15.3816, 38.4255, 30.785, 74.3103, -151.922
6.80019, 16, -47.498, -15.3926, 38.4601, 30.8567, 74.3534, -151.806
6.80849, 16, -47.4773, -15.4033, 38.4945, 30.9288, 74.3956, -151.691
6.81554, 16, -47.4563, -15.414, 38.529, 31.0006, 74.4382, -151.575
6.82406, 16, -47.4352, -15.4247, 38.5633, 31.0727, 74.4813, -151.459
6.83182, 16, -47.4141, -15.4356, 38.5974, 31.1443, 74.5234, -151.344
6.84014, 16, -47.3927, -15.4467, 38.6316, 31.216, 74.565, -151.228
6.8492, 16, -47.371, -15.4577, 38.6657, 31.2876, 74.6075, -151.114
6.855, 16, -47.3602, -15.4631, 38.6827, 31.3233, 74.6286, -151.056
6.86406, 16, -47.3276, -15.4793, 38.7336, 31.4304, 74.6908, -150.884
6.87097, 16, -47.3166, -15.4847, 38.7506, 31.4659, 74.7115, -150.827
6.87914, 17, -47.2945, -15.4957, 38.7844, 31.5375, 74.7536, -150.713
6.8883, 17, -47.261, -15.5125, 38.8349, 31.6441, 74.8159, -150.541
6.8951, 17, -47.2497, -15.5182, 38.8517, 31.6797, 74.8362, -150.484
6.90431, 17, -47.2155, -15.5347, 38.9021, 31.7863, 74.8984, -150.313
6.91098, 17, -47.204, -15.5403, 38.9189, 31.8221, 74.9192, -150.256
6.92047, 17, -47.1696, -15.5572, 38.9691, 31.9287, 74.9802, -150.086
6.92996, 17, -47.1464, -15.5687, 39.0024, 31.9999, 75.0209, -149.973
6.93685, 17, -47.123, -15.5803, 39.0356, 32.0709, 75.0623, -149.861
6.94452, 17, -47.0996, -15.5918, 39.0688, 32.1418, 75.1025, -149.748
6.95252, 17, -47.0759, -15.6031, 39.102, 32.2126, 75.1423, -149.636
6.96072, 17, -47.0517, -15.6147, 39.135, 32.2833, 75.1826, -149.524
6.96848, 18, -47.0396, -15.6205, 39.1515, 32.3185, 75.2028, -149.412
6.97674, 18, -47.0155, -15.6324, 39.201, 32.4245, 75.262, -149.301
6.98294, 18, -46.9914, -15.6443, 39.2174, 32.4596, 75.2816, -149.245
6.99313, 18, -46.9548, -15.6617, 39.2667, 32.5656, 75.3412, -149.078
6.99902, 18, -46.9426, -15.6677, 39.2831, 32.6005, 75.3611, -149.022
7.00801, 18, -46.918, -15.6797, 39.3159, 32.6715, 75.3999, -148.912
7.01597, 18, -46.8931, -15.6919, 39.3486, 32.7417, 75.4383, -148.801
7.02317, 18, -46.868, -15.7043, 39.3812, 32.8127, 75.4773, -148.691
7.03096, 18, -46.8429, -15.7164, 39.4139, 32.8827, 75.5161, -148.581
7.03995, 18, -46.8176, -15.7286, 39.4464, 32.9535, 75.5541, -148.471
7.04924, 18, -46.7921, -15.7409, 39.4788, 33.0234, 75.6112, -148.307
7.05608, 19, -46.7664, -15.7535, 39.5113, 33.0939, 75.6305, -148.253
7.06395, 19, -46.7405, -15.7663, 39.5437, 33.1637, 75.6685, -148.144
7.07095, 19, -46.7146, -15.7788, 39.576, 33.2336, 75.7057, -148.035
7.07994, 19, -46.6885, -15.7914, 39.6082, 33.3034, 75.7429, -147.927
7.08796, 19, -46.6623, -15.8042, 39.6405, 33.3734, 75.7806, -147.819
7.09494, 19, -46.6357, -15.8173, 39.6726, 33.4431, 75.8178, -147.71
7.10401, 19, -46.609, -15.8305, 39.7046, 33.5128, 75.8543, -147.603
7.11371, 19, -46.582, -15.8434, 39.7368, 33.5826, 75.8908, -147.443
7.11995, 19, -46.5549, -15.8565, 39.7689, 33.6523, 75.9279, -147.389
7.12803, 19, -46.5278, -15.8698, 39.8007, 33.722, 75.9643, -147.283
7.13595, 19, -46.5006, -15.8834, 39.8325, 33.7914, 76, -147.177
7.14396, 20, -46.4732, -15.8969, 39.8645, 33.861, 76.0356, -147.07
7.15232, 20, -46.4455, -15.9104, 39.8962, 33.9302, 76.0717, -146.964
7.15989, 20, -46.4176, -15.9241, 39.9279, 33.9996, 76.1073, -146.859
7.16695, 20, -46.3897, -15.938, 39.9597, 34.0683, 76.1422, -146.754
7.17594, 20, -46.3616, -15.9521, 39.9914, 34.1375, 76.177, -146.649
7.184, 20, -46.3333, -15.966, 40.0228, 34.2061, 76.2124, -146.544
7.19202, 20, -46.3049, -15.9799, 40.0543, 34.2752, 76.2474, -146.44
7.20001, 20, -46.2763, -15.9941, 40.086, 34.3436, 76.2816, -146.336
7.20794, 20, -46.2474, -16.0086, 40.1173, 34.4128, 76.3154, -146.232
7.21596, 20, -46.2185, -16.0229, 40.1487, 34.4811, 76.3496, -146.128
7.2241, 20, -46.1893, -16.0371, 40.1799, 34.5502, 76.3837, -146.024
7.23704, 21, -46.1452, -16.0591, 40.2269, 34.6525, 76.4338, -145.869
7.24005, 21, -46.1304, -16.0666, 40.2424, 34.6869, 76.4502, -145.818
7.24794, 21, -46.1005, -16.0815, 40.2735, 34.7549, 76.4835, -145.715
7.25598, 21, -46.0705, -16.0962, 40.3046, 34.8234, 76.5171, -145.613
7.26399, 21, -46.0405, -16.1111, 40.3356, 34.891, 76.5499, -145.51
7.27253, 21, -46.0102, -16.1262, 40.3664, 34.9588, 76.5821, -145.408
7.27994, 21, -45.9798, -16.1415, 40.3972, 35.0264, 76.6143, -145.307
7.28795, 21, -45.949, -16.1565, 40.428, 35.0939, 76.6469, -145.206
7.29676, 21, -45.9182, -16.1717, 40.4586, 35.1613, 76.6794, -145.105
7.3041, 21, -45.8872, -16.1873, 40.4891, 35.2285, 76.7112, -145.004
7.31156, 21, -45.856, -16.2029, 40.5196, 35.2962, 76.7426, -144.903
7.32172, 22, -45.8246, -16.2182, 40.55, 35.3631, 76.7742, -144.802
7.32818, 22, -45.7928, -16.2337, 40.5802, 35.4306, 76.8062, -144.702
7.33611, 22, -45.761, -16.2496, 40.6104, 35.4971, 76.8375, -144.601
7.34406, 22, -45.7289, -16.2654, 40.6406, 35.5641, 76.8681, -144.501
7.35151, 22, -45.7129, -16.2733, 40.6556, 35.5973, 76.8985, -144.401
7.36003, 22, -45.6644, -16.297, 40.7003, 35.697, 76.9292, -144.302
7.36695, 22, -45.648, -16.3051, 40.7152, 35.7299, 76.9447, -144.252
7.37601, 22, -45.5988, -16.3294, 40.76, 35.829, 76.9901, -144.103
7.38299, 22, -45.5822, -16.3374, 40.7748, 35.8619, 77.005, -144.053
7.39308, 22, -45.5326, -16.3615, 40.8189, 35.9605, 77.0494, -143.905
7.40056, 22, -45.499, -16.378, 40.8483, 36.0258, 77.0795, -143.806
7.40824, 23, -45.4652, -16.3943, 40.8775, 36.0911, 77.1094, -143.707
7.41501, 23, -45.4483, -16.4024, 40.8921, 36.1241, 77.1241, -143.658
7.42293, 23, -45.4144, -16.4187, 40.9211, 36.1888, 77.1531, -143.559
7.43241, 23, -45.3631, -16.4437, 40.9645, 36.2868, 77.196, -143.412
7.44128, 23, -45.3285, -16.4602, 40.9933, 36.3512, 77.2251, -143.314
7.4471, 23, -45.3111, -16.4684, 41.0075, 36.3838, 77.2397, -143.265
7.45735, 23, -45.2588, -16.4934, 41.0502, 36.48, 77.2824, -143.118
7.46293, 23, -45.2412, -16.5018, 41.0645, 36.5123, 77.2963, -143.07
7.47174, 23, -45.2059, -16.5185, 41.0929, 36.5765, 77.3241, -142.973
7.47894, 23, -45.1702, -16.5351, 41.121, 36.6395, 77.3521, -142.875
7.48908, 23, -45.1165, -16.5605, 41.1628, 36.7349, 77.3947, -142.729
7.49726, 24, -45.0805, -16.5775, 41.1907, 36.7978, 77.4225, -142.632
7.50549, 24, -45.0623, -16.5858, 41.2045, 36.8296, 77.4497, -142.535
7.51101, 24, -45.0259, -16.6026, 41.232, 36.8922, 77.4632, -142.487
7.52002, 24, -44.9892, -16.6196, 41.2593, 36.9549, 77.4903, -142.39
7.52793, 24, -44.9524, -16.6367, 41.2866, 37.0175, 77.5178, -142.293
7.53494, 24, -44.9154, -16.6535, 41.3138, 37.0795, 77.5451, -142.197
7.54778, 24, -44.8593, -16.679, 41.354, 37.1727, 77.5852, -142.052
7.55094, 24, -44.8405, -16.6876, 41.3673, 37.2032, 77.5984, -142.004
7.55993, 24, -44.8027, -16.7047, 41.3939, 37.2652, 77.6245, -141.908
7.56798, 24, -44.7647, -16.7216, 41.4205, 37.3261, 77.6511, -141.812
7.57515, 24, -44.7264, -16.7387, 41.4467, 37.3874, 77.6778, -141.716
7.58418, 25, -44.6877, -16.7559, 41.4728, 37.4481, 77.7041, -141.619
7.59193, 25, -44.649, -16.7729, 41.4987, 37.5081, 77.7298, -141.523
7.599, 25, -44.6099, -16.7899, 41.5245, 37.5688, 77.7551, -141.427
7.60799, 25, -44.5707, -16.8072, 41.5501, 37.6281, 77.7805, -141.331
7.61594, 25, -44.5311, -16.8244, 41.5755, 37.6881, 77.8063, -141.235
7.625, 25, -44.4913, -16.8413, 41.6007, 37.7473, 77.8321, -141.14
7.63193, 25, -44.4515, -16.8584, 41.6257, 37.8065, 77.8573, -141.044
7.64, 25, -44.4114, -16.8756, 41.6506, 37.866, 77.8823, -140.949
7.64795, 25, -44.3708, -16.8926, 41.6751, 37.9243, 77.9069, -140.853
7.65604, 25, -44.3301, -16.9095, 41.6995, 37.9836, 77.9316, -140.758
7.66393, 25, -44.2892, -16.9266, 41.7237, 38.0413, 77.9568, -140.662
7.67256, 26, -44.2481, -16.9438, 41.7478, 38.0993, 77.9818, -140.567
7.68076, 26, -44.2065, -16.9606, 41.7716, 38.1574, 78.0063, -140.471
7.68795, 26, -44.1649, -16.9775, 41.7952, 38.2143, 78.0303, -140.376
7.69601, 26, -44.1231, -16.9946, 41.8186, 38.272, 78.054, -140.281
7.70393, 26, -44.0808, -17.0116, 41.8417, 38.3284, 78.0779, -140.186
7.71193, 26, -44.0383, -17.0284, 41.8647, 38.3849, 78.102, -140.09
7.72187, 26, -43.9957, -17.0453, 41.8874, 38.4416, 78.126, -139.995
7.72712, 26, -43.9528, -17.0624, 41.91, 38.4969, 78.1496, -139.9
7.736, 26, -43.9095, -17.0792, 41.9323, 38.553, 78.1728, -139.805
7.744, 26, -43.866, -17.0958, 41.9545, 38.6082, 78.1959, -139.71
7.75193, 26, -43.8225, -17.1126, 41.9766, 38.6629, 78.219, -139.615
7.76, 27, -43.7786, -17.1294, 41.9981, 38.7185, 78.2424, -139.52
7.76793, 27, -43.7344, -17.1459, 42.0194, 38.7727, 78.266, -139.425
7.77617, 27, -43.69, -17.1624, 42.0407, 38.8276, 78.289, -139.33
7.78333, 27, -43.6453, -17.1793, 42.0617, 38.882, 78.3117, -139.234
7.79133, 27, -43.6004, -17.1959, 42.0827, 38.9354, 78.334, -139.139
7.79939, 27, -43.5552, -17.2122, 42.1034, 38.9895, 78.3563, -139.044
7.80833, 27, -43.5098, -17.2286, 42.1237, 39.0425, 78.3789, -138.949
7.8155, 27, -43.4641, -17.2452, 42.1438, 39.0953, 78.4017, -138.854
7.82412, 27, -43.4181, -17.2615, 42.1636, 39.1486, 78.4242, -138.76
7.83241, 27, -43.372, -17.2776, 42.1833, 39.2002, 78.4464, -138.665
7.84003, 27, -43.3256, -17.2938, 42.2029, 39.2524, 78.4682, -138.57
7.84764, 28, -43.3023, -17.3102, 42.2221, 39.3044, 78.4899, -138.475
7.86168, 28, -43.2085, -17.3342, 42.2505, 39.3809, 78.5227, -138.333
7.86402, 28, -43.185, -17.3421, 42.2598, 39.4069, 78.5338, -138.286
7.87196, 28, -43.1377, -17.3581, 42.2782, 39.458, 78.5561, -138.191
7.87898, 28, -43.1139, -17.3662, 42.2874, 39.4829, 78.567, -138.144
7.88696, 28, -43.0662, -17.3821, 42.3058, 39.5333, 78.5886, -138.049
7.89783, 28, -42.9941, -17.4057, 42.3325, 39.6089, 78.6203, -137.906
7.90434, 28, -42.9457, -17.4214, 42.3501, 39.6585, 78.6413, -137.812
7.91092, 28, -42.9215, -17.4294, 42.3589, 39.6836, 78.6518, -137.765
7.92276, 28, -42.8483, -17.4529, 42.3845, 39.758, 78.6837, -137.623
7.92883, 28, -42.7992, -17.4682, 42.4013, 39.8067, 78.7051, -137.528
7.93505, 29, -42.7746, -17.476, 42.4097, 39.8313, 78.7156, -137.48
7.94509, 29, -42.7004, -17.4994, 42.4347, 39.9041, 78.7465, -137.338
7.95092, 29, -42.6755, -17.5069, 42.4428, 39.9279, 78.7568, -137.291
7.9605, 29, -42.6005, -17.5296, 42.4667, 40.0004, 78.7872, -137.149
7.96927, 29, -42.5755, -17.5373, 42.4824, 40.0476, 78.8077, -137.054
7.97489, 29, -42.5251, -17.5526, 42.4901, 40.0708, 78.8181, -137.007
7.98555, 29, -42.4489, -17.5751, 42.5127, 40.1415, 78.8494, -136.865
7.99254, 29, -42.4235, -17.5825, 42.5203, 40.1649, 78.8596, -136.817
7.99992, 29, -42.3724, -17.5974, 42.5353, 40.2107, 78.8799, -136.723
8.00791, 29, -42.321, -17.6124, 42.5498, 40.257, 78.8998, -136.628
8.01491, 29, -42.2693, -17.6272, 42.5641, 40.3034, 78.9194, -136.534
8.02407, 30, -42.2175, -17.6417, 42.5783, 40.3484, 78.939, -136.439
8.0309, 30, -42.1654, -17.6562, 42.5921, 40.3936, 78.9589, -136.345
8.03992, 30, -42.1132, -17.6708, 42.6056, 40.4394, 78.9789, -136.25
8.04792, 30, -42.0607, -17.6854, 42.6189, 40.4839, 78.9989, -136.156
8.05598, 30, -42.0079, -17.6995, 42.6321, 40.5282, 79.0184, -136.062
8.06293, 30, -41.9549, -17.7136, 42.6451, 40.5731, 79.0378, -135.967
8.07193, 30, -41.9017, -17.7279, 42.6577, 40.6169, 79.0569, -135.872
8.07892, 30, -41.8482, -17.7421, 42.67, 40.6602, 79.0759, -135.778
8.08791, 30, -41.7946, -17.756, 42.6821, 40.7041, 79.0951, -135.684
8.09592, 30, -41.7407, -17.7697, 42.6939, 40.7474, 79.1146, -135.589
8.10592, 31, -41.6594, -17.7905, 42.7113, 40.8109, 79.1438, -135.448
8.11191, 31, -41.6322, -17.7974, 42.7169, 40.8324, 79.1534, -135.401
8.12235, 31, -41.5776, -17.8112, 42.7281, 40.8752, 79.1722, -135.306
8.12877, 31, -41.5227, -17.8246, 42.7391, 40.9167, 79.1908, -135.212
8.13492, 31, -41.4677, -17.8379, 42.7499, 40.958, 79.209, -135.118
8.14392, 31, -41.4124, -17.8513, 42.7605, 40.9999, 79.2273, -135.024
8.15194, 31, -41.3569, -17.8647, 42.7708, 41.0409, 79.2457, -134.929
8.15995, 31, -41.3012, -17.8778, 42.7807, 41.081, 79.2644, -134.835
8.17013, 31, -41.2453, -17.8907, 42.7905, 41.1218, 79.2924, -134.693
8.17502, 31, -41.1892, -17.9037, 42.7999, 41.1627, 79.3016, -134.646
8.18401, 31, -41.133, -17.9167, 42.8091, 41.2023, 79.3197, -134.551
8.19194, 31, -41.0765, -17.9296, 42.818, 41.2417, 79.3375, -134.457
8.20005, 32, -41.0198, -17.9422, 42.8268, 41.2818, 79.3553, -134.363
8.20791, 32, -40.9628, -17.9547, 42.8353, 41.3214, 79.373, -134.269
8.21597, 32, -40.9056, -17.9672, 42.8436, 41.36, 79.3909, -134.175
8.22393, 32, -40.8482, -17.9798, 42.8518, 41.399, 79.409, -134.081
8.23192, 32, -40.7906, -17.9923, 42.8596, 41.4382, 79.4272, -133.987
8.23997, 32, -40.7327, -18.0043, 42.8673, 41.4764, 79.4451, -133.894
8.24801, 32, -40.6747, -18.0164, 42.8748, 41.5139, 79.4627, -133.799
8.25591, 32, -40.6165, -18.0284, 42.882, 41.5517, 79.4799, -133.706
8.26392, 32, -40.5581, -18.0405, 42.8887, 41.5896, 79.497, -133.611
8.27202, 32, -40.4993, -18.0525, 42.8953, 41.6265, 79.5139, -133.518
8.27991, 32, -40.4403, -18.0641, 42.9017, 41.6631, 79.5308, -133.424
8.28729, 33, -40.3812, -18.0755, 42.9079, 41.7001, 79.548, -133.33
8.2961, 33, -40.3219, -18.0869, 42.9139, 41.737, 79.5653, -133.236
8.30474, 33, -40.2624, -18.0984, 42.9196, 41.7726, 79.5826, -133.143
8.31205, 33, -40.2029, -18.1099, 42.9251, 41.8079, 79.5995, -133.049
8.32022, 33, -40.1431, -18.1212, 42.9304, 41.8436, 79.6161, -132.956
8.32754, 33, -40.0831, -18.1322, 42.9353, 41.8794, 79.6326, -132.862
8.33639, 33, -40.0228, -18.1432, 42.94, 41.9141, 79.6488, -132.769
8.34516, 33, -39.9623, -18.1542, 42.9444, 41.9484, 79.6651, -132.675
8.35155, 33, -39.932, -18.1597, 42.9486, 41.983, 79.6815, -132.581
8.3607, 33, -39.8405, -18.1761, 42.9527, 42.0177, 79.6981, -132.488
8.36794, 33, -39.7793, -18.1867, 42.9565, 42.0516, 79.7149, -132.394
8.3763, 34, -39.7181, -18.1971, 42.9602, 42.0847, 79.7315, -132.301
8.38471, 34, -39.6565, -18.2074, 42.9637, 42.1182, 79.7478, -132.207
8.39207, 34, -39.5947, -18.2177, 42.967, 42.1522, 79.7638, -132.114
8.39891, 34, -39.5638, -18.2229, 42.9685, 42.1689, 79.7717, -132.068
8.40898, 34, -39.4706, -18.2383, 42.9727, 42.2179, 79.795, -131.928
8.41623, 34, -39.4083, -18.2481, 42.9752, 42.2503, 79.8105, -131.835
8.42297, 34, -39.377, -18.2529, 42.9763, 42.2667, 79.8183, -131.789
8.43091, 34, -39.3144, -18.2625, 42.9784, 42.2996, 79.834, -131.696
8.44042, 34, -39.2202, -18.277, 42.9813, 42.3473, 79.8579, -131.556
8.44945, 34, -39.1572, -18.2867, 42.9828, 42.3784, 79.8737, -131.463
8.45497, 34, -39.1256, -18.2915, 42.9835, 42.394, 79.8816, -131.416
8.46449, 35, -39.0304, -18.3057, 42.9853, 42.4414, 79.9047, -131.277
8.47341, 35, -38.9667, -18.3148, 42.9861, 42.4722, 79.9199, -131.184
8.48132, 35, -38.9348, -18.3238, 42.9868, 42.5024, 79.9349, -131.091
8.4869, 35, -38.8708, -18.3282, 42.987, 42.5173, 79.9423, -131.045
8.49771, 35, -38.7744, -18.3416, 42.9874, 42.5625, 79.9648, -130.906
8.5039, 35, -38.7422, -18.3461, 42.9875, 42.5777, 79.9723, -130.86
8.51194, 35, -38.6776, -18.3549, 42.9875, 42.6075, 79.9875, -130.767
8.52104, 35, -38.5805, -18.3679, 42.9875, 42.6508, 80.0106, -130.628
8.52689, 35, -38.548, -18.372, 42.9875, 42.6651, 80.0183, -130.582
8.53589, 35, -38.483, -18.3802, 42.9874, 42.6938, 80.0332, -130.49
8.54289, 35, -38.4177, -18.3883, 42.9872, 42.7228, 80.048, -130.397
8.55108, 36, -38.3523, -18.3965, 42.9869, 42.7513, 80.0624, -130.304
8.55992, 36, -38.2867, -18.4045, 42.9863, 42.7792, 80.0767, -130.212
8.56692, 36, -38.2209, -18.4126, 42.9855, 42.8066, 80.0908, -130.119
8.57592, 36, -38.1549, -18.4206, 42.9844, 42.834, 80.105, -130.027
8.58397, 36, -38.0887, -18.4283, 42.983, 42.8618, 80.1193, -129.935
8.59203, 36, -38.0224, -18.4357, 42.9813, 42.8894, 80.1338, -129.843
8.59991, 36, -37.9559, -18.4429, 42.9793, 42.9161, 80.1484, -129.751
8.60889, 36, -37.8892, -18.45, 42.977, 42.9423, 80.163, -129.659
8.6159, 36, -37.8222, -18.4572, 42.9744, 42.9684, 80.1773, -129.567
8.6239, 36, -37.7552, -18.4642, 42.9716, 42.9948, 80.1914, -129.476
8.63198, 36, -37.6879, -18.4713, 42.9684, 43.0213, 80.2053, -129.383
8.6399, 37, -37.6205, -18.4783, 42.965, 43.0471, 80.219, -129.292
8.64805, 37, -37.5531, -18.4852, 42.9612, 43.0723, 80.2325, -129.2
8.65599, 37, -37.4853, -18.4917, 42.9572, 43.0973, 80.246, -129.108
8.66393, 37, -37.4173, -18.498, 42.9527, 43.1222, 80.2596, -129.016
8.6719, 37, -37.3491, -18.5042, 42.948, 43.1475, 80.2732, -128.925
8.67996, 37, -37.2808, -18.5104, 42.9431, 43.1725, 80.2871, -128.833
8.6879, 37, -37.2123, -18.5165, 42.938, 43.1968, 80.301, -128.742
8.69592, 37, -37.1436, -18.5224, 42.9327, 43.2205, 80.3148, -128.651
8.70396, 37, -37.0749, -18.5283, 42.9271, 43.2438, 80.3282, -128.56
8.7119, 37, -37.0059, -18.5342, 42.9213, 43.2673, 80.3414, -128.468
8.72079, 38, -36.9368, -18.54, 42.9153, 43.2908, 80.3543, -128.377
8.73066, 38, -36.8673, -18.5457, 42.9058, 43.3256, 80.3735, -128.24
8.73589, 38, -36.7978, -18.5512, 42.9024, 43.3368, 80.3798, -128.195
8.74396, 38, -36.728, -18.5564, 42.8955, 43.3591, 80.3924, -128.103
8.75192, 38, -36.6582, -18.5614, 42.8884, 43.381, 80.4052, -128.012
8.7599, 38, -36.5881, -18.5663, 42.8813, 43.4027, 80.418, -127.921
8.76987, 38, -36.5178, -18.5711, 42.8739, 43.4247, 80.4311, -127.83
8.77608, 38, -36.4475, -18.5759, 42.8662, 43.4467, 80.4441, -127.739
8.78389, 38, -36.3769, -18.5805, 42.8583, 43.4682, 80.4572, -127.648
8.7919, 38, -36.3062, -18.5849, 42.8502, 43.489, 80.4699, -127.558
8.80021, 38, -36.2354, -18.5892, 42.8416, 43.5094, 80.4825, -127.467
8.80735, 38, -36.1643, -18.5934, 42.8327, 43.5293, 80.4948, -127.377
8.81597, 39, -36.0931, -18.5976, 42.8239, 43.5493, 80.5071, -127.287
8.82455, 39, -36.0217, -18.6017, 42.8148, 43.5694, 80.5193, -127.196
8.83203, 39, -35.9501, -18.6058, 42.8055, 43.5895, 80.5314, -127.106
8.83948, 39, -35.8784, -18.6097, 42.796, 43.6093, 80.5435, -127.015
8.84858, 39, -35.8064, -18.6134, 42.7862, 43.6286, 80.5558, -126.925
8.85596, 39, -35.7344, -18.617, 42.7762, 43.6474, 80.5683, -126.835
8.86451, 39, -35.6622, -18.6204, 42.7662, 43.6659, 80.5808, -126.744
8.87221, 39, -35.5897, -18.6236, 42.7559, 43.6844, 80.5934, -126.654
8.87889, 39, -35.5535, -18.6252, 42.7507, 43.6936, 80.5996, -126.609
8.88882, 39, -35.4445, -18.6296, 42.7345, 43.7213, 80.618, -126.475
8.89644, 40, -35.3716, -18.6324, 42.7234, 43.7397, 80.6299, -126.385
8.9046, 40, -35.2986, -18.6351, 42.7121, 43.7578, 80.6416, -126.295
8.91288, 40, -35.2254, -18.6376, 42.7006, 43.7752, 80.653, -126.205
8.92047, 40, -35.1521, -18.64, 42.6889, 43.7921, 80.6643, -126.116
8.92827, 40, -35.0787, -18.6423, 42.677, 43.8087, 80.6756, -126.026
8.93487, 40, -35.042, -18.6434, 42.671, 43.817, 80.6812, -125.981
8.94442, 40, -34.9313, -18.6467, 42.653, 43.8416, 80.6981, -125.846
8.9525, 40, -34.8573, -18.6487, 42.6406, 43.8581, 80.7095, -125.757
8.96045, 40, -34.7831, -18.6507, 42.6279, 43.8747, 80.7211, -125.667
8.96887, 40, -34.7089, -18.6527, 42.6149, 43.891, 80.7328, -125.578
8.97654, 40, -34.6717, -18.6546, 42.6018, 43.9068, 80.7444, -125.489
8.98384, 41, -34.5973, -18.6555, 42.5952, 43.9145, 80.7502, -125.444
8.99325, 41, -34.4854, -18.6579, 42.5751, 43.9371, 80.767, -125.311
9.00144, 41, -34.448, -18.6595, 42.5613, 43.9517, 80.7779, -125.223
9.00695, 41, -34.3731, -18.6602, 42.5545, 43.9589, 80.7834, -125.178
9.01594, 41, -34.298, -18.6615, 42.5407, 43.9733, 80.7941, -125.089
9.02388, 41, -34.2228, -18.6628, 42.5266, 43.9874, 80.8047, -125.001
9.03193, 41, -34.1475, -18.6639, 42.5121, 44.0018, 80.8153, -124.912
9.04319, 41, -34.0342, -18.6654, 42.4902, 44.023, 80.8312, -124.778
9.04688, 41, -33.9964, -18.6658, 42.4828, 44.0301, 80.8365, -124.734
9.05588, 41, -33.9205, -18.6667, 42.4678, 44.0438, 80.8472, -124.646
9.06389, 41, -33.8444, -18.6674, 42.4526, 44.057, 80.8579, -124.557
9.07202, 42, -33.7682, -18.6679, 42.4374, 44.0698, 80.8689, -124.469
9.07886, 42, -33.6918, -18.6684, 42.4221, 44.0822, 80.8799, -124.381
9.08787, 42, -33.6153, -18.6687, 42.4063, 44.0942, 80.8907, -124.293
9.09597, 42, -33.5386, -18.6689, 42.3903, 44.1061, 80.9015, -124.204
9.10394, 42, -33.4619, -18.669, 42.3742, 44.1178, 80.9119, -124.117
9.11189, 42, -33.385, -18.6691, 42.3578, 44.1294, 80.9222, -124.029
9.11988, 42, -33.308, -18.6691, 42.3412, 44.141, 80.9322, -123.941
9.12789, 42, -33.2307, -18.6691, 42.3246, 44.1524, 80.9421, -123.853
9.13595, 42, -33.1534, -18.669, 42.3079, 44.1639, 80.952, -123.766
9.14388, 42, -33.0758, -18.669, 42.2907, 44.1751, 80.9617, -123.678
9.15187, 42, -32.9981, -18.669, 42.2734, 44.1859, 80.9714, -123.59
9.16005, 43, -32.9202, -18.6689, 42.256, 44.1963, 80.981, -123.503
9.16806, 43, -32.8422, -18.6688, 42.2383, 44.2064, 80.9907, -123.415
9.17669, 43, -32.7641, -18.6686, 42.2204, 44.2161, 81.0005, -123.328
9.18292, 43, -32.6859, -18.6684, 42.2025, 44.2254, 81.0105, -123.241
9.19187, 43, -32.6076, -18.668, 42.1842, 44.2345, 81.0204, -123.154
9.19997, 43, -32.529, -18.6674, 42.1657, 44.2432, 81.0304, -123.067
9.20789, 43, -32.4504, -18.6666, 42.1471, 44.2518, 81.0402, -122.981
9.21842, 43, -32.3716, -18.6656, 42.1187, 44.2643, 81.0546, -122.85
9.22387, 43, -32.2926, -18.6644, 42.1092, 44.2684, 81.0592, -122.807
9.23196, 43, -32.2135, -18.663, 42.0902, 44.2765, 81.0685, -122.72
9.23987, 43, -32.1342, -18.6614, 42.0708, 44.2845, 81.0776, -122.633
9.24718, 44, -32.0548, -18.6595, 42.0511, 44.2925, 81.0867, -122.547
9.25589, 44, -31.9752, -18.6575, 42.0314, 44.3002, 81.0956, -122.46
9.26387, 44, -31.8956, -18.6552, 42.0113, 44.3078, 81.1045, -122.374
9.27194, 44, -31.8157, -18.6528, 41.9912, 44.3151, 81.1133, -122.288
9.27988, 44, -31.7357, -18.6502, 41.9709, 44.3222, 81.122, -122.201
9.28798, 44, -31.6557, -18.6475, 41.9503, 44.329, 81.1309, -122.115
9.29588, 44, -31.5755, -18.6447, 41.9296, 44.3353, 81.1397, -122.029
9.30395, 44, -31.4952, -18.6418, 41.9088, 44.3413, 81.1487, -121.943
9.31192, 44, -31.4148, -18.6386, 41.8876, 44.347, 81.1577, -121.858
9.31996, 44, -31.334, -18.6353, 41.8663, 44.3523, 81.1668, -121.772
9.32806, 44, -31.2532, -18.6319, 41.8448, 44.3575, 81.176, -121.686
9.33601, 45, -31.1723, -18.6283, 41.823, 44.3622, 81.185, -121.6
9.34421, 45, -31.0911, -18.6246, 41.8013, 44.3666, 81.1938, -121.515
9.3529, 45, -31.0099, -18.6208, 41.7793, 44.3708, 81.2025, -121.429
9.36004, 45, -30.9285, -18.6169, 41.7571, 44.3749, 81.2108, -121.344
9.36803, 45, -30.847, -18.6129, 41.7346, 44.3786, 81.2191, -121.258
9.37591, 45, -30.7652, -18.6089, 41.712, 44.3821, 81.2273, -121.173
9.38391, 45, -30.6833, -18.6046, 41.6891, 44.3854, 81.2353, -121.087
9.39198, 45, -30.6013, -18.6001, 41.6662, 44.3884, 81.2432, -121.002
9.3989, 45, -30.5602, -18.5977, 41.6547, 44.3898, 81.2472, -120.96
9.40808, 45, -30.437, -18.5905, 41.6196, 44.3937, 81.259, -120.833
9.41722, 45, -30.3546, -18.5856, 41.596, 44.396, 81.2669, -120.748
9.42583, 46, -30.272, -18.5805, 41.5723, 44.3981, 81.2748, -120.663
9.43237, 46, -30.1892, -18.5752, 41.5484, 44.4, 81.2828, -120.579
9.44037, 46, -30.1062, -18.5698, 41.5243, 44.4016, 81.2908, -120.494
9.44838, 46, -30.0232, -18.5643, 41.4998, 44.4031, 81.2989, -120.41
9.45488, 46, -29.9815, -18.5615, 41.4876, 44.4037, 81.303, -120.367
9.46447, 46, -29.8565, -18.553, 41.4507, 44.4051, 81.3152, -120.24
9.47246, 46, -29.8148, -18.5473, 41.4259, 44.4059, 81.3235, -120.156
9.48046, 46, -29.7312, -18.5444, 41.4134, 44.4061, 81.3316, -120.071
9.48852, 46, -29.6474, -18.5383, 41.3881, 44.4065, 81.3396, -119.987
9.49586, 46, -29.5636, -18.532, 41.3627, 44.4067, 81.3435, -119.945
9.5039, 46, -29.4797, -18.5256, 41.3371, 44.4067, 81.3512, -119.861
9.51189, 47, -29.3956, -18.5192, 41.3113, 44.4068, 81.3589, -119.777
9.51899, 47, -29.3112, -18.5125, 41.2852, 44.4067, 81.3664, -119.693
9.52794, 47, -29.2267, -18.5056, 41.259, 44.4066, 81.3737, -119.609
9.53593, 47, -29.1421, -18.4987, 41.2326, 44.4064, 81.3811, -119.525
9.54386, 47, -29.0574, -18.4917, 41.2061, 44.4058, 81.3884, -119.441
9.55187, 47, -28.9725, -18.4846, 41.1792, 44.4049, 81.3956, -119.357
9.55992, 47, -28.8874, -18.4772, 41.1522, 44.4035, 81.4028, -119.273
9.56789, 47, -28.8023, -18.4695, 41.1251, 44.4016, 81.4101, -119.189
9.57591, 47, -28.717, -18.4617, 41.0978, 44.3993, 81.4174, -119.106
9.58386, 47, -28.6315, -18.4539, 41.0702, 44.3967, 81.4248, -119.022
9.59189, 47, -28.546, -18.4459, 41.0423, 44.3938, 81.4322, -118.938
9.5999, 48, -28.4602, -18.4378, 41.0143, 44.3906, 81.4398, -118.855
9.60787, 48, -28.3743, -18.4298, 40.9861, 44.387, 81.4474, -118.771
9.616, 48, -28.2882, -18.4218, 40.9577, 44.383, 81.4552, -118.688
9.62384, 48, -28.2019, -18.4133, 40.929, 44.3788, 81.4629, -118.605
9.63192, 48, -28.1156, -18.4045, 40.9002, 44.3742, 81.4706, -118.522
9.64089, 48, -28.0292, -18.3957, 40.8713, 44.3692, 81.4783, -118.439
9.64787, 48, -27.9426, -18.3867, 40.842, 44.3641, 81.4858, -118.356
9.65586, 48, -27.8559, -18.3774, 40.8125, 44.3585, 81.4932, -118.272
9.66469, 48, -27.7688, -18.3682, 40.7828, 44.3527, 81.5005, -118.19
9.67086, 48, -27.6816, -18.3589, 40.753, 44.3466, 81.5076, -118.106
9.67986, 48, -27.5941, -18.3493, 40.7229, 44.34, 81.5147, -118.023
9.68999, 49, -27.5065, -18.3394, 40.6926, 44.333, 81.5217, -117.94
9.69601, 49, -27.4188, -18.3294, 40.6621, 44.3257, 81.5287, -117.857
9.70396, 49, -27.331, -18.3193, 40.6313, 44.3178, 81.5356, -117.774
9.71186, 49, -27.243, -18.3091, 40.6002, 44.3094, 81.5425, -117.691
9.71985, 49, -27.155, -18.2989, 40.5691, 44.3006, 81.5494, -117.609
9.72795, 49, -27.0668, -18.2884, 40.5377, 44.2915, 81.5564, -117.526
9.73587, 49, -26.9783, -18.2775, 40.506, 44.282, 81.5636, -117.444
9.74387, 49, -26.8896, -18.2664, 40.4742, 44.2725, 81.5707, -117.361
9.75192, 49, -26.8008, -18.2552, 40.4421, 44.2627, 81.5781, -117.278
9.75987, 49, -26.7118, -18.2441, 40.4098, 44.2528, 81.5855, -117.195
9.76806, 49, -26.6228, -18.2327, 40.3772, 44.2427, 81.5931, -117.113
9.77567, 50, -26.5337, -18.221, 40.3446, 44.2324, 81.6008, -117.03
9.78387, 50, -26.4443, -18.2091, 40.3117, 44.2219, 81.6085, -116.947
9.79192, 50, -26.3547, -18.1971, 40.2785, 44.2112, 81.6162, -116.865
9.79986, 50, -26.265, -18.185, 40.2451, 44.1999, 81.6239, -116.782
9.80788, 50, -26.175, -18.1729, 40.2115, 44.1884, 81.6316, -116.7
9.81591, 50, -26.0849, -18.1603, 40.1776, 44.1763, 81.6391, -116.617
9.82398, 50, -25.9947, -18.1475, 40.1436, 44.1637, 81.6466, -116.535
9.83199, 50, -25.9043, -18.1346, 40.1094, 44.1506, 81.654, -116.452
9.84004, 50, -25.8138, -18.1216, 40.0748, 44.1372, 81.6614, -116.37
9.84745, 50, -25.7231, -18.1085, 40.0399, 44.1236, 81.6687, -116.288
9.856, 50, -25.6324, -18.095, 40.005, 44.11, 81.6762, -116.205
9.86417, 51, -25.5416, -18.0812, 39.9698, 44.0963, 81.6836, -116.123
9.8729, 51, -25.4505, -18.0674, 39.9343, 44.0824, 81.691, -116.04
9.87989, 51, -25.3591, -18.0537, 39.8986, 44.0682, 81.6985, -115.958
9.88814, 51, -25.2675, -18.0395, 39.8628, 44.0535, 81.7061, -115.875
9.89485, 51, -25.2217, -18.0323, 39.8447, 44.046, 81.71, -115.834
9.90411, 51, -25.0842, -18.0102, 39.7902, 44.0226, 81.7218, -115.711
9.91351, 51, -24.9923, -17.9957, 39.7537, 44.0062, 81.7298, -115.628
9.9202, 51, -24.9003, -17.981, 39.7168, 43.9894, 81.738, -115.546
9.92685, 51, -24.8542, -17.9734, 39.6982, 43.981, 81.7422, -115.505
9.93728, 51, -24.7156, -17.9502, 39.6426, 43.9557, 81.7549, -115.382
9.94284, 51, -24.6692, -17.9425, 39.6238, 43.9472, 81.7592, -115.34
9.95238, 52, -24.5297, -17.9195, 39.5672, 43.9212, 81.7718, -115.218
9.96044, 52, -24.4366, -17.9035, 39.5293, 43.9033, 81.7802, -115.135
9.96701, 52, -24.39, -17.8953, 39.5102, 43.8942, 81.7844, -115.094
9.97506, 52, -24.2968, -17.879, 39.4719, 43.8753, 81.7925, -115.012
9.98291, 52, -24.2034, -17.8629, 39.4334, 43.8559, 81.8006, -114.929
9.99247, 52, -24.1098, -17.8462, 39.3946, 43.8365, 81.8087, -114.806
9.99984, 52, -24.0161, -17.8293, 39.3556, 43.817, 81.8167, -114.765
10.0079, 52, -23.9222, -17.8124, 39.3164, 43.7974, 81.8247, -114.683
10.0158, 52, -23.8279, -17.7953, 39.2769, 43.7776, 81.8328, -114.6
10.0239, 52, -23.7335, -17.7778, 39.2371, 43.7573, 81.841, -114.518
10.0319, 52, -23.6389, -17.7601, 39.1971, 43.7362, 81.8492, -114.436
10.04, 53, -23.5441, -17.7425, 39.1569, 43.7145, 81.8576, -114.354
10.0469, 53, -23.4493, -17.7246, 39.1164, 43.6926, 81.8662, -114.272
10.0559, 53, -23.3543, -17.7062, 39.0758, 43.6707, 81.875, -114.19
10.0639, 53, -23.2594, -17.688, 39.0348, 43.6488, 81.8841, -114.108
10.0719, 53, -23.1641, -17.6696, 38.9937, 43.6264, 81.8932, -114.026
10.0799, 53, -23.0686, -17.6507, 38.9523, 43.6034, 81.9025, -113.945
10.0879, 53, -22.9729, -17.6317, 38.9107, 43.5797, 81.9118, -113.862
10.0949, 53, -22.8771, -17.6125, 38.869, 43.5556, 81.9211, -113.78
10.1038, 53, -22.7809, -17.5931, 38.8268, 43.5317, 81.9303, -113.698
10.1119, 53, -22.6847, -17.5735, 38.7846, 43.5078, 81.9393, -113.616
10.1219, 53, -22.5401, -17.5438, 38.7207, 43.4711, 81.9529, -113.492
10.1278, 54, -22.4918, -17.5338, 38.6993, 43.4584, 81.9574, -113.451
10.1365, 54, -22.3952, -17.5134, 38.6563, 43.4324, 81.9664, -113.369
10.143, 54, -22.2984, -17.493, 38.6131, 43.4063, 81.9756, -113.287
10.1518, 54, -22.2014, -17.4724, 38.5695, 43.3802, 81.9848, -113.205
10.1599, 54, -22.1041, -17.4517, 38.5259, 43.3539, 81.9941, -113.123
10.1679, 54, -22.0068, -17.4309, 38.4819, 43.3272, 82.0035, -113.041
10.1758, 54, -21.9093, -17.4097, 38.4378, 43.2994, 82.0132, -112.959
10.1871, 54, -21.7627, -17.3776, 38.3711, 43.2572, 82.0281, -112.836
10.1909, 54, -21.7137, -17.3668, 38.3488, 43.2433, 82.0332, -112.795
10.1998, 54, -21.6155, -17.3448, 38.3041, 43.2152, 82.0435, -112.712
10.2079, 54, -21.5171, -17.3229, 38.2591, 43.1866, 82.0538, -112.631
10.216, 55, -21.4185, -17.3007, 38.2139, 43.157, 82.0641, -112.548
10.2237, 55, -21.3198, -17.2781, 38.1685, 43.1269, 82.0743, -112.466
10.2319, 55, -21.2208, -17.2556, 38.1228, 43.0969, 82.0843, -112.384
10.2399, 55, -21.1218, -17.2328, 38.077, 43.0669, 82.0943, -112.302
10.2479, 55, -21.0228, -17.2098, 38.0308, 43.036, 82.1043, -112.22
10.2558, 55, -20.9233, -17.1868, 37.9845, 43.0042, 82.1142, -112.138
10.2639, 55, -20.8236, -17.1635, 37.9379, 42.9722, 82.1242, -112.056
10.2718, 55, -20.7237, -17.1399, 37.8911, 42.9404, 82.1342, -111.974
10.2798, 55, -20.6236, -17.1163, 37.844, 42.9085, 82.1444, -111.893
10.2879, 55, -20.5234, -17.0925, 37.7968, 42.8755, 82.1547, -111.811
10.2958, 55, -20.4232, -17.0686, 37.7493, 42.8418, 82.1652, -111.729
10.3039, 56, -20.3228, -17.0444, 37.7016, 42.8084, 82.1761, -111.647
10.312, 56, -20.2221, -17.02, 37.6538, 42.7749, 82.187, -111.565
10.3207, 56, -20.1213, -16.9955, 37.6057, 42.7407, 82.1981, -111.483
10.328, 56, -20.0201, -16.9705, 37.5575, 42.7054, 82.2091, -111.401
10.3359, 56, -19.9186, -16.9456, 37.5089, 42.6706, 82.2201, -111.319
10.3439, 56, -19.8169, -16.9205, 37.4603, 42.6358, 82.2308, -111.237
10.3514, 56, -19.7151, -16.8951, 37.4114, 42.6003, 82.2415, -111.156
10.3611, 56, -19.6133, -16.8697, 37.3622, 42.5636, 82.2523, -111.073
10.3678, 56, -19.5115, -16.844, 37.3129, 42.527, 82.2631, -110.992
10.3759, 56, -19.4097, -16.8183, 37.2633, 42.4905, 82.274, -110.91
10.3839, 56, -19.3075, -16.7924, 37.2135, 42.4532, 82.285, -110.828
10.3923, 57, -19.2051, -16.7663, 37.1635, 42.4148, 82.2961, -110.747
10.4, 57, -19.1024, -16.7399, 37.1133, 42.3769, 82.3074, -110.665
10.4069, 57, -19.0509, -16.7267, 37.0882, 42.358, 82.3132, -110.624
10.4161, 57, -18.8963, -16.6869, 37.0124, 42.2996, 82.3309, -110.501
10.4228, 57, -18.8447, -16.6735, 36.987, 42.2797, 82.3368, -110.46
10.4323, 57, -18.6897, -16.633, 36.9107, 42.2202, 82.3547, -110.337
10.4419, 57, -18.586, -16.6057, 36.8596, 42.1802, 82.3664, -110.256
10.4483, 57, -18.4821, -16.5783, 36.8082, 42.1389, 82.3781, -110.174
10.4548, 57, -18.43, -16.5645, 36.7825, 42.1182, 82.3839, -110.133
10.4653, 57, -18.2733, -16.5228, 36.705, 42.0568, 82.4012, -110.011
10.4711, 57, -18.2209, -16.5089, 36.679, 42.036, 82.407, -109.97
10.4805, 58, -18.0638, -16.4669, 36.6008, 41.9718, 82.4242, -109.848
10.4892, 58, -18.0114, -16.4388, 36.5484, 41.9295, 82.4359, -109.766
10.4964, 58, -17.9063, -16.4246, 36.5221, 41.9082, 82.4419, -109.726
10.5038, 58, -17.8011, -16.3961, 36.4694, 41.8646, 82.4539, -109.645
10.5118, 58, -17.6959, -16.3676, 36.4165, 41.8206, 82.4662, -109.563
10.5199, 58, -17.5903, -16.3389, 36.3634, 41.7773, 82.4788, -109.482
10.5278, 58, -17.4844, -16.3101, 36.3101, 41.733, 82.4914, -109.4
10.5352, 58, -17.3785, -16.2809, 36.2567, 41.6876, 82.5039, -109.319
10.5439, 58, -17.2723, -16.2517, 36.2031, 41.6428, 82.5164, -109.237
10.5518, 58, -17.1659, -16.2222, 36.1493, 41.5974, 82.5288, -109.156
10.561, 58, -17.0591, -16.1926, 36.0954, 41.5506, 82.5411, -109.033
10.568, 59, -16.9521, -16.1627, 36.0411, 41.5045, 82.5534, -108.993
10.5759, 59, -16.8449, -16.1327, 35.9868, 41.4578, 82.5658, -108.911
10.5828, 59, -16.7376, -16.1026, 35.9321, 41.4096, 82.5782, -108.829
10.5918, 59, -16.6301, -16.0724, 35.8773, 41.3619, 82.591, -108.749
10.5999, 59, -16.5225, -16.0419, 35.8224, 41.3139, 82.604, -108.667
10.6068, 59, -16.4147, -16.0113, 35.7673, 41.2642, 82.6172, -108.586
10.6159, 59, -16.3067, -15.9806, 35.7119, 41.2153, 82.6307, -108.504
10.6249, 59, -16.1985, -15.9498, 35.6564, 41.1657, 82.6441, -108.423
10.6318, 59, -16.0901, -15.9186, 35.6008, 41.1149, 82.6574, -108.342
10.6399, 59, -15.9814, -15.8873, 35.5449, 41.0648, 82.6705, -108.26
10.6478, 59, -15.8727, -15.8558, 35.4889, 41.0138, 82.6836, -108.179
10.6558, 60, -15.7637, -15.8242, 35.4327, 40.9619, 82.6965, -108.097
10.664, 60, -15.6546, -15.7922, 35.3763, 40.9108, 82.7094, -108.016
10.6718, 60, -15.5451, -15.76, 35.3196, 40.8584, 82.7225, -107.934
10.6799, 60, -15.4352, -15.7277, 35.2628, 40.8054, 82.7358, -107.853
10.6878, 60, -15.3251, -15.6953, 35.2057, 40.7529, 82.7494, -107.771
10.6958, 60, -15.2148, -15.6627, 35.1484, 40.6989, 82.7634, -107.69
10.7039, 60, -15.1041, -15.6299, 35.091, 40.645, 82.7775, -107.609
10.7119, 60, -14.9933, -15.597, 35.0334, 40.591, 82.7916, -107.527
10.7198, 60, -14.8823, -15.564, 34.9756, 40.5353, 82.8056, -107.446
10.7278, 60, -14.7712, -15.5308, 34.9177, 40.4804, 82.8195, -107.365
10.736, 60, -14.6598, -15.4973, 34.8596, 40.4241, 82.8333, -107.284
10.7471, 61, -14.4924, -15.4469, 34.7721, 40.3395, 82.8542, -107.161
10.7518, 61, -14.4365, -15.43, 34.7428, 40.3111, 82.8611, -107.121
10.7598, 61, -14.3245, -15.396, 34.6841, 40.2532, 82.8753, -107.039
10.7679, 61, -14.2123, -15.3618, 34.6252, 40.1959, 82.8897, -106.957
10.7758, 61, -14.0997, -15.3275, 34.5661, 40.1375, 82.9045, -106.876
10.7851, 61, -13.9869, -15.293, 34.5068, 40.0789, 82.9197, -106.794
10.7918, 61, -13.8739, -15.2582, 34.4474, 40.0202, 82.9348, -106.713
10.7999, 61, -13.7607, -15.2234, 34.3878, 39.9602, 82.9498, -106.631
10.8078, 61, -13.6472, -15.1884, 34.3281, 39.9008, 82.9646, -106.55
10.8159, 61, -13.5337, -15.1532, 34.2682, 39.84, 82.9794, -106.468
10.824, 61, -13.4199, -15.1178, 34.2081, 39.7792, 82.994, -106.387
10.8319, 62, -13.3058, -15.0823, 34.1478, 39.7181, 83.0089, -106.306
10.8401, 62, -13.1915, -15.0465, 34.0873, 39.6557, 83.024, -106.224
10.8498, 62, -13.077, -15.0106, 34.0266, 39.5937, 83.0394, -106.143
10.8559, 62, -12.9622, -14.9746, 33.9656, 39.5301, 83.0551, -106.06
10.864, 62, -12.8474, -14.9383, 33.9045, 39.4671, 83.071, -105.979
10.8718, 62, -12.7324, -14.9018, 33.8431, 39.4026, 83.087, -105.897
10.8807, 62, -12.6172, -14.8652, 33.7817, 39.3384, 83.1028, -105.815
10.8879, 62, -12.5016, -14.8285, 33.72, 39.2733, 83.1185, -105.733
10.8959, 62, -12.3856, -14.7915, 33.6582, 39.208, 83.1344, -105.651
10.905, 62, -12.269, -14.7543, 33.5962, 39.1426, 83.1503, -105.57
10.9124, 62, -12.1522, -14.717, 33.5341, 39.0759, 83.1664, -105.487
10.9204, 63, -12.0353, -14.6794, 33.4718, 39.0095, 83.1831, -105.406
10.9289, 63, -11.9182, -14.6417, 33.4092, 38.9417, 83.2001, -105.324
10.9362, 63, -11.8009, -14.6039, 33.3464, 38.8744, 83.2173, -105.243
10.9428, 63, -11.7422, -14.5849, 33.315, 38.8401, 83.2259, -105.202
10.9533, 63, -11.5657, -14.5274, 33.2203, 38.737, 83.2515, -105.079
10.9604, 63, -11.4476, -14.4888, 33.1569, 38.6672, 83.2685, -104.998
10.9692, 63, -11.3293, -14.4501, 33.0934, 38.5976, 83.2854, -104.915
10.9749, 63, -11.2701, -14.4306, 33.0616, 38.5623, 83.2939, -104.874
10.9844, 63, -11.1514, -14.3915, 32.9658, 38.4559, 83.3199, -104.751
10.9933, 63, -11.0325, -14.3522, 32.9339, 38.4203, 83.3378, -104.669
10.9988, 63, -10.9134, -14.3127, 32.8698, 38.3485, 83.3469, -104.627
11.0092, 64, -10.7343, -14.2529, 32.7734, 38.2402, 83.3743, -104.504
11.0179, 64, -10.6744, -14.2128, 32.7088, 38.1676, 83.3925, -104.421
11.0238, 64, -10.5543, -14.1926, 32.6764, 38.1309, 83.4015, -104.379
11.0318, 64, -10.4339, -14.152, 32.6115, 38.0572, 83.4197, -104.297
11.0398, 64, -10.3132, -14.1113, 32.5464, 37.9831, 83.4379, -104.214
11.0468, 64, -10.1925, -14.0704, 32.4811, 37.9082, 83.4563, -104.132
11.0597, 64, -10.011, -14.0087, 32.3828, 37.7947, 83.485, -104.008
11.0638, 64, -9.95053, -13.988, 32.35, 37.7569, 83.4948, -103.967
11.0718, 64, -9.82951, -13.9466, 32.2843, 37.6805, 83.5145, -103.884
11.0799, 64, -9.7083, -13.905, 32.2184, 37.6035, 83.5339, -103.801
11.087, 64, -9.58661, -13.8631, 32.1523, 37.5261, 83.5534, -103.718
11.0958, 65, -9.46452, -13.821, 32.086, 37.4485, 83.5728, -103.634
11.1038, 65, -9.34196, -13.7785, 32.0195, 37.37, 83.5924, -103.551
11.1109, 65, -9.21912, -13.7358, 31.9527, 37.2913, 83.6124, -103.468
11.1199, 65, -9.09596, -13.6929, 31.8858, 37.2119, 83.633, -103.385
11.1289, 65, -8.97258, -13.6496, 31.8187, 37.132, 83.6539, -103.301
11.1348, 65, -8.84896, -13.6061, 31.7515, 37.0514, 83.6749, -103.218
11.1438, 65, -8.72491, -13.5624, 31.6841, 36.9702, 83.6958, -103.135
11.1518, 65, -8.60052, -13.5185, 31.6166, 36.8887, 83.7167, -103.051
11.1598, 65, -8.47579, -13.4745, 31.549, 36.8065, 83.7377, -102.968
11.1679, 65, -8.35091, -13.4301, 31.4812, 36.7242, 83.7592, -102.884
11.1758, 65, -8.22605, -13.3855, 31.4132, 36.6411, 83.7814, -102.801
11.184, 66, -8.10099, -13.3408, 31.3449, 36.5577, 83.8037, -102.717
11.1926, 66, -7.97582, -13.2958, 31.2764, 36.4736, 83.826, -102.633
11.1989, 66, -7.85046, -13.2506, 31.2078, 36.389, 83.8481, -102.549
11.2078, 66, -7.72466, -13.2052, 31.1389, 36.3041, 83.8702, -102.465
11.2159, 66, -7.59845, -13.1596, 31.07, 36.2184, 83.8927, -102.381
11.2238, 66, -7.47192, -13.1138, 31.0009, 36.1321, 83.9156, -102.297
11.2344, 66, -7.34505, -13.0676, 30.8972, 36.0018, 83.9509, -102.17
11.2398, 66, -7.21795, -13.0212, 30.8625, 35.958, 83.9626, -102.128
11.2479, 66, -7.09065, -12.9746, 30.793, 35.8702, 83.986, -102.044
11.2558, 66, -6.9631, -12.9277, 30.7233, 35.782, 84.0095, -101.959
11.264, 66, -6.83535, -12.8805, 30.6534, 35.6934, 84.0332, -101.875
11.2718, 67, -6.70738, -12.833, 30.5834, 35.6041, 84.0576, -101.79
11.2798, 67, -6.57912, -12.7852, 30.5132, 35.5142, 84.0826, -101.706
11.2879, 67, -6.45073, -12.7373, 30.4429, 35.424, 84.1075, -101.62
11.2958, 67, -6.32203, -12.689, 30.3724, 35.333, 84.1323, -101.535
11.3039, 67, -6.19303, -12.6406, 30.3019, 35.2414, 84.157, -101.45
11.3118, 67, -6.06369, -12.592, 30.2312, 35.1495, 84.1819, -101.365
11.3201, 67, -5.93411, -12.5431, 30.1605, 35.0569, 84.2076, -101.28
11.3279, 67, -5.80426, -12.494, 30.0895, 34.9638, 84.2338, -101.194
11.3359, 67, -5.67385, -12.4447, 30.0183, 34.8706, 84.2598, -101.109
11.3443, 67, -5.54299, -12.3952, 29.947, 34.7767, 84.2858, -101.024
11.3514, 67, -5.41191, -12.3455, 29.8755, 34.6822, 84.3119, -100.939
11.3601, 68, -5.28054, -12.2955, 29.8038, 34.5873, 84.3385, -100.853
11.3683, 68, -5.14905, -12.2452, 29.7322, 34.4917, 84.366, -100.768
11.3755, 68, -5.08324, -12.22, 29.6604, 34.3955, 84.3935, -100.682
11.3839, 68, -4.88569, -12.1439, 29.5886, 34.2989, 84.4208, -100.597
11.3927, 68, -4.75366, -12.0928, 29.5167, 34.2017, 84.448, -100.511
11.3999, 68, -4.62138, -12.0415, 29.4446, 34.104, 84.4756, -100.425
11.4088, 68, -4.4888, -11.99, 29.3724, 34.0062, 84.504, -100.338
11.416, 68, -4.35601, -11.9381, 29.3, 33.9076, 84.5326, -100.252
11.4228, 68, -4.28948, -11.912, 29.2638, 33.8581, 84.5469, -100.209
11.433, 68, -4.08966, -11.8337, 29.1549, 33.7091, 84.5896, -100.08
11.4402, 68, -3.9561, -11.7812, 29.0822, 33.6088, 84.6183, -99.9933
11.4468, 69, -3.88922, -11.755, 29.0459, 33.5585, 84.633, -99.9498
11.4573, 69, -3.68842, -11.6759, 28.9367, 33.4071, 84.6779, -99.8204
11.4653, 69, -3.55401, -11.623, 28.8639, 33.3055, 84.7075, -99.7336
11.4708, 69, -3.48671, -11.5963, 28.8274, 33.2546, 84.7223, -99.6906
11.4812, 69, -3.28445, -11.5162, 28.7179, 33.1012, 84.767, -99.5602
11.4868, 69, -3.21687, -11.4894, 28.6813, 33.0499, 84.7823, -99.517
11.4972, 69, -3.08165, -11.4354, 28.608, 32.9468, 84.8133, -99.4302
11.506, 69, -2.87834, -11.354, 28.4978, 32.7912, 84.8595, -99.2994
11.5118, 69, -2.8104, -11.3267, 28.4611, 32.7391, 84.8749, -99.2557
11.5198, 69, -2.67428, -11.2718, 28.3876, 32.6343, 84.9058, -99.1681
11.5268, 69, -2.53786, -11.2168, 28.3142, 32.5292, 84.9376, -99.0812
11.5359, 70, -2.40101, -11.1614, 28.2407, 32.4236, 84.9699, -98.9935
11.5438, 70, -2.26398, -11.106, 28.1671, 32.3177, 85.0018, -98.9063
11.5519, 70, -2.12674, -11.0502, 28.0934, 32.2114, 85.0335, -98.8184
11.5598, 70, -1.98935, -10.9944, 28.0196, 32.1045, 85.0657, -98.7313
11.5678, 70, -1.85166, -10.9384, 27.9457, 31.9972, 85.0989, -98.6434
11.5749, 70, -1.71381, -10.8822, 27.8717, 31.8892, 85.1318, -98.5563
11.5838, 70, -1.5758, -10.8257, 27.7976, 31.7807, 85.1646, -98.468
11.5919, 70, -1.43752, -10.7691, 27.7236, 31.6718, 85.1977, -98.3807
11.5998, 70, -1.29917, -10.7122, 27.6495, 31.5626, 85.2317, -98.2924
11.6078, 70, -1.16057, -10.6551, 27.5755, 31.453, 85.2661, -98.2044
11.6161, 71, -1.02171, -10.5976, 27.5015, 31.3429, 85.3001, -98.1161
11.6238, 71, -0.882599, -10.5398, 27.4275, 31.2325, 85.3341, -98.028
11.6336, 71, -0.743311, -10.4818, 27.3533, 31.1216, 85.3866, -97.8953
11.6396, 71, -0.603915, -10.4235, 27.2791, 31.0101, 85.4043, -97.8513
11.6478, 71, -0.464216, -10.365, 27.2048, 30.898, 85.4393, -97.7629
11.6558, 71, -0.324336, -10.3062, 27.1305, 30.7858, 85.4743, -97.6743
11.6638, 71, -0.184198, -10.2474, 27.0563, 30.6729, 85.51, -97.586
11.6718, 71, -0.0436089, -10.1884, 26.9821, 30.56, 85.5466, -97.4972
11.6802, 71, 0.0972193, -10.1293, 26.9079, 30.4465, 85.5827, -97.4086
11.6878, 71, 0.238309, -10.0699, 26.8337, 30.3326, 85.6187, -97.3195
11.6958, 71, 0.379609, -10.0103, 26.7594, 30.2184, 85.6552, -97.2309
11.706, 72, 0.521127, -9.95053, 26.6851, 30.1034, 85.6924, -97.1412
11.7119, 72, 0.662951, -9.89045, 26.6107, 29.9883, 85.7293, -97.0522
11.7208, 72, 0.805015, -9.82993, 26.5364, 29.8728, 85.7662, -96.9624
11.7278, 72, 0.947321, -9.76922, 26.4622, 29.757, 85.8038, -96.8734
11.7358, 72, 1.08974, -9.70818, 26.388, 29.6409, 85.8421, -96.7837
11.7439, 72, 1.23228, -9.64691, 26.3138, 29.5245, 85.88, -96.6948
11.7518, 72, 1.37495, -9.58535, 26.2398, 29.4077, 85.9177, -96.605
11.7598, 72, 1.51772, -9.52363, 26.1657, 29.2903, 85.9564, -96.516
11.7678, 72, 1.66072, -9.46175, 26.0917, 29.1724, 85.9955, -96.4264
11.7759, 72, 1.80388, -9.39971, 26.0176, 29.0543, 86.0342, -96.3373
11.7838, 72, 1.94719, -9.33746, 25.9434, 28.9358, 86.0732, -96.2475
