hehonglu123/Motion-Primitive-Planning/realrobot/recorded_data/repeatability/from_NX/v400_iteration4.csv
timestamp, cmd_num, J1, J2, J3, J4, J5, J6
0.000587, -1, 39.6333, 32.4444, 11.832, 12.5484, 113.716, -48.8695
0.004501, -1, 39.6333, 32.4444, 11.832, 12.5484, 113.716, -48.8695
0.008396, -1, 39.6333, 32.4444, 11.832, 12.5484, 113.716, -48.8695
0.036165, -1, 39.6333, 32.4445, 11.832, 12.5483, 113.716, -48.8696
0.037516, -1, 39.6333, 32.4445, 11.832, 12.5483, 113.716, -48.8696
0.038784, -1, 39.6333, 32.4445, 11.832, 12.5483, 113.716, -48.8696
0.040877, -1, 39.6333, 32.4445, 11.832, 12.5484, 113.716, -48.8696
0.048123, -1, 39.6333, 32.4445, 11.832, 12.5483, 113.716, -48.8696
0.055458, -1, 39.6328, 32.4444, 11.832, 12.5483, 113.716, -48.8695
0.2035, -1, 38.1686, 31.6941, 12.1252, 12.5606, 112.945, -50.8378
0.205442, -1, 38.1686, 31.6941, 12.1252, 12.5606, 112.945, -50.8378
0.206918, -1, 38.0788, 31.6472, 12.1447, 12.5618, 112.895, -50.965
0.208097, -1, 38.0788, 31.6472, 12.1447, 12.5618, 112.895, -50.965
0.210834, -1, 37.9876, 31.5998, 12.1642, 12.563, 112.844, -51.0931
0.212092, -1, 37.9876, 31.5998, 12.1642, 12.563, 112.844, -51.0931
0.214257, -1, 37.8953, 31.5519, 12.1836, 12.5642, 112.793, -51.2218
0.216517, -1, 37.8953, 31.5519, 12.1836, 12.5642, 112.793, -51.2218
0.218613, -1, 37.8019, 31.5037, 12.203, 12.5653, 112.742, -51.3509
0.219863, -1, 37.8019, 31.5037, 12.203, 12.5653, 112.742, -51.3509
0.22306, -1, 37.7078, 31.4551, 12.2225, 12.5665, 112.691, -51.4803
0.224306, -1, 37.7078, 31.4551, 12.2225, 12.5665, 112.691, -51.4803
0.226363, -1, 37.613, 31.4064, 12.2418, 12.5677, 112.64, -51.6099
0.227559, -1, 37.613, 31.4064, 12.2418, 12.5677, 112.64, -51.6099
0.228828, -1, 37.613, 31.4064, 12.2418, 12.5677, 112.64, -51.6099
0.231284, -1, 37.5176, 31.3575, 12.2612, 12.5689, 112.589, -51.7397
0.232488, -1, 37.5176, 31.3575, 12.2612, 12.5689, 112.589, -51.7397
0.235384, -1, 37.4219, 31.3085, 12.2806, 12.5701, 112.537, -51.8694
0.236586, -1, 37.4219, 31.3085, 12.2806, 12.5701, 112.537, -51.8694
0.238641, -1, 37.326, 31.2596, 12.3, 12.5714, 112.486, -51.9992
0.239844, -1, 37.326, 31.2596, 12.3, 12.5714, 112.486, -51.9992
0.241851, -1, 37.2299, 31.2106, 12.3194, 12.5726, 112.435, -52.1291
0.244423, -1, 37.2299, 31.2106, 12.3194, 12.5726, 112.435, -52.1291
0.248409, -1, 37.1339, 31.1617, 12.3388, 12.5738, 112.383, -52.2591
0.255529, -1, 36.9416, 31.064, 12.3776, 12.5764, 112.28, -52.5192
0.263456, -1, 36.7496, 30.9663, 12.4163, 12.579, 112.177, -52.7795
0.271509, -1, 36.558, 30.8687, 12.4552, 12.5816, 112.074, -53.0399
0.279521, -1, 36.3665, 30.771, 12.4941, 12.5843, 111.971, -53.3001
0.287456, -1, 36.1749, 30.6733, 12.5329, 12.5869, 111.868, -53.5606
0.295466, -1, 35.9834, 30.5753, 12.5718, 12.5895, 111.765, -53.8212
0.303553, -1, 35.792, 30.4774, 12.6108, 12.5922, 111.662, -54.0819
0.311449, -1, 35.6002, 30.3794, 12.6496, 12.5947, 111.559, -54.3421
0.319483, -1, 35.4082, 30.2812, 12.6884, 12.5974, 111.456, -54.6024
0.327519, -1, 35.2158, 30.1829, 12.7272, 12.6, 111.353, -54.863
0.335458, -1, 35.0234, 30.0846, 12.7661, 12.6026, 111.25, -55.1238
0.343526, -1, 34.8311, 29.9861, 12.805, 12.6053, 111.147, -55.3843
0.351447, -1, 34.6388, 29.8876, 12.8438, 12.6078, 111.044, -55.645
0.359522, -1, 34.4465, 29.7892, 12.8827, 12.6104, 110.941, -55.9058
0.367737, -1, 34.2543, 29.6908, 12.9217, 12.613, 110.837, -56.1669
0.375494, -1, 34.0623, 29.5926, 12.9605, 12.6156, 110.734, -56.4275
0.383604, -1, 33.8705, 29.4943, 12.9995, 12.6183, 110.631, -56.6884
0.392512, -1, 33.6788, 29.396, 13.0384, 12.6211, 110.528, -56.9493
0.399563, -1, 33.4868, 29.2978, 13.0772, 12.6238, 110.425, -57.2105
0.407617, -1, 33.2944, 29.1994, 13.1163, 12.6264, 110.322, -57.4716
0.416374, -1, 33.1017, 29.1008, 13.1551, 12.629, 110.219, -57.7325
0.42345, -1, 32.9089, 29.0023, 13.1939, 12.6317, 110.116, -57.9937
0.431587, -1, 32.7157, 28.9038, 13.2329, 12.6344, 110.013, -58.255
0.440509, -1, 32.5222, 28.8051, 13.2717, 12.6372, 109.91, -58.5163
0.447776, -1, 32.3284, 28.7064, 13.3106, 12.6398, 109.807, -58.7773
0.455659, -1, 32.1344, 28.6077, 13.3495, 12.6426, 109.704, -59.0383
0.464516, -1, 31.9403, 28.5089, 13.3883, 12.6454, 109.6, -59.2997
0.471817, -1, 31.7465, 28.41, 13.4273, 12.648, 109.497, -59.5612
0.479821, -1, 31.5529, 28.3113, 13.4663, 12.6509, 109.394, -59.8223
0.488685, -1, 31.3596, 28.2127, 13.5052, 12.6536, 109.291, -60.0836
0.496244, -1, 31.1667, 28.1142, 13.5442, 12.6564, 109.188, -60.3448
0.503912, -1, 30.9742, 28.0157, 13.5833, 12.6593, 109.085, -60.6064
0.513388, -1, 30.7821, 27.9172, 13.6222, 12.6621, 108.982, -60.8677
0.520445, -1, 30.5901, 27.8187, 13.6612, 12.665, 108.879, -61.129
0.528028, -1, 30.3982, 27.7201, 13.7002, 12.6678, 108.775, -61.3905
0.536038, -1, 30.3022, 27.6214, 13.7391, 12.6704, 108.672, -61.652
0.54435, -1, 30.11, 27.5227, 13.7782, 12.6731, 108.569, -61.9137
0.551432, -1, 29.9175, 27.4733, 13.7977, 12.6745, 108.517, -62.0445
0.559442, -1, 29.7244, 27.3746, 13.8365, 12.6772, 108.414, -62.3061
0.567498, -1, 29.5308, 27.2758, 13.8754, 12.6798, 108.311, -62.5679
0.57544, -1, 29.3368, 27.177, 13.9143, 12.6824, 108.207, -62.8298
0.583438, -1, 29.1427, 27.0781, 13.9532, 12.6849, 108.104, -63.0913
0.591531, -1, 28.9482, 26.9792, 13.9922, 12.6873, 108.001, -63.3527
0.59944, -1, 28.7539, 26.8803, 14.0311, 12.6899, 107.897, -63.6143
0.60762, -1, 28.5597, 26.7814, 14.0701, 12.6923, 107.794, -63.8761
0.615492, -1, 28.3657, 26.6827, 14.1092, 12.6947, 107.69, -64.1378
0.623429, -1, 28.1724, 26.584, 14.1481, 12.6971, 107.587, -64.3993
0.631482, -1, 27.9793, 26.4852, 14.1871, 12.6996, 107.484, -64.6609
0.63947, -1, 27.7864, 26.3864, 14.2261, 12.702, 107.381, -64.9228
0.647444, -1, 27.5938, 26.2875, 14.265, 12.7044, 107.277, -65.1846
0.655524, -1, 27.4016, 26.1886, 14.304, 12.7069, 107.174, -65.4461
0.663478, -1, 27.2094, 26.0896, 14.343, 12.7091, 107.071, -65.7078
0.671436, -1, 27.0169, 25.9908, 14.3818, 12.7115, 106.967, -65.9695
0.804685, -1, 23.8272, 24.3603, 15.0246, 12.7499, 105.263, -70.2877
0.806686, -1, 23.7308, 24.3109, 15.044, 12.7511, 105.212, -70.4186
0.807964, -1, 23.7308, 24.3109, 15.044, 12.7511, 105.212, -70.4186
0.809206, -1, 23.7308, 24.3109, 15.044, 12.7511, 105.212, -70.4186
0.81122, -1, 23.6342, 24.2614, 15.0634, 12.7523, 105.16, -70.5495
0.812501, -1, 23.6342, 24.2614, 15.0634, 12.7523, 105.16, -70.5495
0.814275, -1, 23.5377, 24.212, 15.0829, 12.7535, 105.109, -70.6805
0.819086, -1, 23.5377, 24.212, 15.0829, 12.7547, 105.057, -70.8112
0.820362, -1, 23.441, 24.1626, 15.1024, 12.7547, 105.057, -70.8112
0.822302, -1, 23.441, 24.1626, 15.1024, 12.7547, 105.057, -70.942
0.823681, -1, 23.3442, 24.1131, 15.1219, 12.7559, 105.005, -70.942
0.824937, -1, 23.3442, 24.1131, 15.1219, 12.7559, 105.005, -70.942
0.827681, -1, 23.2473, 24.0637, 15.1413, 12.7571, 104.953, -71.0729
0.828926, -1, 23.2473, 24.0637, 15.1413, 12.7571, 104.953, -71.0729
0.830943, -1, 23.1503, 24.0142, 15.1607, 12.7584, 104.902, -71.2038
0.833217, -1, 23.1503, 24.0142, 15.1607, 12.7584, 104.902, -71.2038
0.835355, -1, 23.0533, 23.9647, 15.1802, 12.7597, 104.85, -71.3347
0.836623, -1, 23.0533, 23.9647, 15.1802, 12.7597, 104.85, -71.3347
0.838469, -1, 23.0533, 23.9153, 15.1996, 12.7609, 104.798, -71.4656
0.839894, -1, 22.9563, 23.9153, 15.1996, 12.7609, 104.798, -71.4656
0.841188, -1, 22.9563, 23.9153, 15.1996, 12.7609, 104.798, -71.4656
0.847433, -1, 22.7622, 23.8165, 15.2386, 12.7633, 104.695, -71.7275
0.855498, -1, 22.5684, 23.7177, 15.2775, 12.7659, 104.591, -71.9891
0.863496, -1, 22.3748, 23.6191, 15.3165, 12.7683, 104.488, -72.2504
0.87147, -1, 22.1815, 23.5204, 15.3555, 12.7709, 104.385, -72.5119
0.879536, -1, 21.9884, 23.4217, 15.3944, 12.7735, 104.281, -72.7735
0.887521, -1, 21.7957, 23.3231, 15.4334, 12.7761, 104.178, -73.035
0.895529, -1, 21.6035, 23.2243, 15.4723, 12.7788, 104.075, -73.2963
0.903649, -1, 21.4114, 23.1255, 15.5112, 12.7815, 103.972, -73.5577
0.911537, -1, 21.2191, 23.0269, 15.5503, 12.7841, 103.869, -73.8191
0.919535, -1, 21.0267, 22.9283, 15.5892, 12.7869, 103.765, -74.0806
0.927606, -1, 20.8341, 22.8297, 15.6281, 12.7896, 103.662, -74.3418
0.935436, -1, 20.6416, 22.7311, 15.6671, 12.7923, 103.559, -74.603
0.943574, -1, 20.4487, 22.6324, 15.7059, 12.795, 103.456, -74.8642
0.95227, -1, 20.2552, 22.5337, 15.7448, 12.7977, 103.353, -75.1258
0.959508, -1, 20.0613, 22.435, 15.7838, 12.8004, 103.25, -75.3869
0.967595, -1, 19.8676, 22.3363, 15.8225, 12.8032, 103.147, -75.648
0.976542, -1, 19.674, 22.2376, 15.8613, 12.8058, 103.044, -75.9091
0.983829, -1, 19.4804, 22.139, 15.9003, 12.8087, 102.941, -76.1704
0.991849, -1, 19.2871, 22.0404, 15.9391, 12.8114, 102.838, -76.4315
1.00068, -1, 19.0942, 21.9417, 15.978, 12.8141, 102.735, -76.6924
1.0079, -1, 18.9016, 21.8431, 16.0169, 12.8168, 102.632, -76.9533
1.016, -1, 18.7094, 21.7444, 16.0556, 12.8195, 102.529, -77.2143
1.02488, -1, 18.5174, 21.6458, 16.0946, 12.8221, 102.426, -77.4753
1.032, -1, 18.3257, 21.5473, 16.1335, 12.8248, 102.323, -77.7358
1.04062, -1, 18.1339, 21.4488, 16.1723, 12.8273, 102.22, -77.9966
1.0489, -1, 18.038, 21.3996, 16.1917, 12.8286, 102.118, -78.2574
1.05543, -1, 17.8461, 21.3013, 16.2307, 12.8311, 102.066, -78.3878
1.06446, -1, 17.5579, 21.1538, 16.2889, 12.8348, 101.912, -78.7787
1.07143, -1, 17.4616, 21.1047, 16.3084, 12.836, 101.86, -78.9088
1.07941, -1, 17.2688, 21.0064, 16.3473, 12.8384, 101.757, -79.1693
1.08747, -1, 17.0756, 20.9081, 16.386, 12.8408, 101.654, -79.43
1.09543, -1, 16.8825, 20.8098, 16.4249, 12.8431, 101.551, -79.6905
1.10353, -1, 16.6894, 20.7117, 16.4637, 12.8454, 101.449, -79.951
1.11148, -1, 16.4962, 20.6134, 16.5024, 12.8477, 101.346, -80.2116
1.11942, -1, 16.3033, 20.5151, 16.5411, 12.85, 101.243, -80.4722
1.12746, -1, 16.1111, 20.4168, 16.5799, 12.8523, 101.141, -80.7328
1.13697, -1, 15.8234, 20.2691, 16.6381, 12.8557, 100.987, -81.1228
1.14583, -1, 15.6318, 20.1707, 16.6768, 12.858, 100.884, -81.3829
1.15149, -1, 15.5362, 20.1215, 16.6961, 12.8592, 100.833, -81.513
1.16103, -1, 15.2495, 19.9742, 16.7542, 12.8627, 100.679, -81.9031
1.16742, -1, 15.154, 19.925, 16.7736, 12.8638, 100.627, -82.033
1.177, -1, 14.9629, 19.8269, 16.8123, 12.866, 100.525, -82.4226
1.18347, -1, 14.7715, 19.7288, 16.851, 12.8684, 100.422, -82.5526
1.19241, -1, 14.58, 19.6307, 16.8897, 12.8706, 100.32, -82.8127
1.19948, -1, 14.3882, 19.5325, 16.9284, 12.8729, 100.217, -83.0723
1.20744, -1, 14.196, 19.4345, 16.9671, 12.8752, 100.115, -83.3318
1.21542, -1, 14.0036, 19.3365, 17.0059, 12.8774, 100.012, -83.5914
1.22353, -1, 13.811, 19.2386, 17.0444, 12.8798, 99.9096, -83.8512
1.23143, -1, 13.6184, 19.1408, 17.0831, 12.882, 99.8071, -84.1108
1.23949, -1, 13.426, 19.043, 17.1218, 12.8844, 99.7045, -84.37
1.24742, -1, 13.234, 18.9451, 17.1603, 12.8867, 99.6023, -84.6293
1.25541, -1, 13.0425, 18.8472, 17.1989, 12.8891, 99.4999, -84.8886
1.26355, -1, 12.8513, 18.7493, 17.2376, 12.8914, 99.3974, -85.148
1.27141, -1, 12.6602, 18.6513, 17.2761, 12.8938, 99.2954, -85.4071
1.27945, -1, 12.4696, 18.5536, 17.3147, 12.8963, 99.193, -85.666
1.28776, -1, 12.2796, 18.4558, 17.3532, 12.8987, 99.0908, -85.925
1.29541, -1, 12.0895, 18.3581, 17.3917, 12.9011, 98.9888, -86.1839
1.30348, -1, 11.8991, 18.2605, 17.4304, 12.9035, 98.8865, -86.4426
1.31287, -1, 11.7086, 18.1628, 17.469, 12.9059, 98.7845, -86.701
1.31941, -1, 11.5178, 18.0652, 17.5074, 12.9084, 98.6827, -86.9596
1.32752, -1, 11.3268, 17.9676, 17.546, 12.9108, 98.5807, -87.2183
1.33541, -1, 11.1355, 17.87, 17.5846, 12.9132, 98.4788, -87.4767
1.34347, -1, 10.944, 17.7725, 17.6231, 12.9158, 98.377, -87.735
1.35148, -1, 10.7522, 17.6751, 17.6616, 12.9183, 98.275, -87.9933
1.35941, -1, 10.5605, 17.5776, 17.7, 12.9208, 98.1731, -88.2516
1.36742, -1, 10.3692, 17.4801, 17.7384, 12.9233, 98.0713, -88.5101
1.37576, -1, 10.1781, 17.3826, 17.7769, 12.9258, 97.9693, -88.7681
1.38354, -1, 9.98751, 17.285, 17.8152, 12.9285, 97.8675, -89.0262
1.3915, -1, 9.7972, 17.1875, 17.8536, 12.9311, 97.7656, -89.2843
1.39981, -1, 9.60726, 17.09, 17.8919, 12.9339, 97.6636, -89.5424
1.40752, -1, 9.41797, 16.9927, 17.9302, 12.9366, 97.5619, -89.8002
1.41552, -1, 9.22879, 16.8954, 17.9686, 12.9393, 97.4599, -90.0578
1.42405, -1, 9.03945, 16.7981, 18.007, 12.9419, 97.3581, -90.3153
1.43141, -1, 8.85004, 16.701, 18.0453, 12.9445, 97.2565, -90.5729
1.43948, -1, 8.66054, 16.6038, 18.0837, 12.9472, 97.1546, -90.8303
1.44827, -1, 8.47093, 16.5066, 18.1221, 12.9499, 97.053, -91.0873
1.45545, -1, 8.28098, 16.4096, 18.1604, 12.9525, 96.9516, -91.3443
1.46386, -1, 8.09047, 16.3127, 18.1987, 12.9552, 96.8498, -91.6016
1.47241, -1, 7.89983, 16.2158, 18.2371, 12.9578, 96.7483, -91.8588
1.47961, -1, 7.70925, 16.1189, 18.2753, 12.9604, 96.6471, -92.1156
1.48778, -1, 7.51872, 16.022, 18.3136, 12.9629, 96.5455, -92.3722
1.49661, -1, 7.32837, 15.9251, 18.3518, 12.9655, 96.4441, -92.629
1.50392, -1, 7.13827, 15.8282, 18.3899, 12.968, 96.343, -92.8859
1.51228, -1, 6.94864, 15.7312, 18.4283, 12.9705, 96.2415, -93.1423
1.52075, -1, 6.75937, 15.6343, 18.4665, 12.973, 96.1405, -93.3989
1.52799, -1, 6.57069, 15.5375, 18.5044, 12.9755, 96.0396, -93.6552
1.53604, -1, 6.3824, 15.4407, 18.5426, 12.9781, 95.9385, -93.9117
1.54489, -1, 6.19427, 15.344, 18.5807, 12.9805, 95.8377, -94.168
1.55194, -1, 6.10027, 15.2956, 18.5998, 12.9818, 95.7874, -94.4238
1.5606, -1, 5.81787, 15.1506, 18.657, 12.9852, 95.6359, -94.6798
1.56741, -1, 5.72368, 15.1022, 18.6761, 12.9864, 95.5855, -94.8078
1.5754, -1, 5.53521, 15.0056, 18.7141, 12.9886, 95.4848, -95.0636
1.5835, -1, 5.34644, 14.909, 18.7523, 12.9909, 95.3838, -95.3193
1.5914, -1, 5.15731, 14.8126, 18.7904, 12.9932, 95.2831, -95.5746
1.5994, -1, 4.96788, 14.7163, 18.8284, 12.9954, 95.1824, -95.8302
1.60745, -1, 4.77849, 14.62, 18.8665, 12.9977, 95.0816, -96.0858
1.61545, -1, 4.58911, 14.5236, 18.9045, 12.9998, 94.9808, -96.3409
1.62351, -1, 4.39979, 14.4273, 18.9426, 13.002, 94.8802, -96.5959
1.63139, -1, 4.21072, 14.3309, 18.9806, 13.0043, 94.7793, -96.8509
1.63939, -1, 4.02212, 14.2345, 19.0186, 13.0065, 94.6786, -97.1059
1.64746, -1, 3.83407, 14.1383, 19.0565, 13.0088, 94.5777, -97.361
1.6554, -1, 3.64648, 14.0421, 19.0944, 13.011, 94.477, -97.6156
1.66347, -1, 3.45938, 13.946, 19.1324, 13.0134, 94.3763, -97.8704
1.67299, -1, 3.27246, 13.85, 19.1891, 13.0169, 94.2253, -98.2525
1.67939, -1, 3.08547, 13.7539, 19.208, 13.018, 94.1749, -98.3799
1.6884, -1, 2.89845, 13.6579, 19.246, 13.0202, 94.0744, -98.6343
1.69546, -1, 2.7114, 13.5619, 19.2839, 13.0225, 93.9738, -98.8884
1.70345, -1, 2.52412, 13.4659, 19.3218, 13.0247, 93.8733, -99.1424
1.71241, -1, 2.33671, 13.3701, 19.3595, 13.0271, 93.7729, -99.3966
1.71945, -1, 2.14884, 13.2743, 19.3974, 13.0293, 93.6725, -99.6505
1.72746, -1, 1.96075, 13.1785, 19.4353, 13.0315, 93.5723, -99.904
1.7354, -1, 1.77266, 13.0827, 19.4731, 13.0338, 93.4724, -100.158
1.74351, -1, 1.58437, 12.9869, 19.5108, 13.0361, 93.3722, -100.411
1.75139, -1, 1.39617, 12.8911, 19.5486, 13.0383, 93.2721, -100.665
1.75944, -1, 1.20832, 12.7952, 19.5864, 13.0407, 93.1723, -100.918
1.76746, -1, 1.02098, 12.6995, 19.624, 13.0431, 93.0722, -101.171
1.7754, -1, 0.834255, 12.6039, 19.6618, 13.0454, 92.9722, -101.424
1.78352, -1, 0.647888, 12.5083, 19.6994, 13.0479, 92.8726, -101.677
1.79146, -1, 0.461945, 12.4128, 19.737, 13.0503, 92.7726, -101.93
1.79939, -1, 0.27628, 12.3175, 19.7747, 13.0528, 92.6729, -102.183
1.8074, -1, 0.090888, 12.2221, 19.8123, 13.0553, 92.5736, -102.436
1.81546, -1, -0.0945587, 12.1268, 19.8499, 13.0577, 92.474, -102.688
1.82346, -1, -0.280157, 12.0316, 19.8875, 13.0602, 92.3745, -102.941
1.83142, -1, -0.466078, 11.9364, 19.9251, 13.0627, 92.2753, -103.193
1.83946, -1, -0.652349, 11.8414, 19.9626, 13.0652, 92.1757, -103.445
1.8474, -1, -0.838749, 11.7464, 20.0002, 13.0676, 92.0762, -103.697
1.85545, -1, -1.02536, 11.6513, 20.0376, 13.0701, 91.977, -103.949
1.86348, -1, -1.21224, 11.5563, 20.0751, 13.0727, 91.8775, -104.201
1.87139, -1, -1.39922, 11.4612, 20.1127, 13.0752, 91.7781, -104.452
1.87962, -1, -1.58599, 11.3661, 20.1501, 13.0777, 91.6791, -104.704
1.88748, -1, -1.77244, 11.271, 20.1875, 13.0803, 91.5798, -104.955
1.89549, -1, -1.95836, 11.176, 20.225, 13.0829, 91.4806, -105.207
1.90387, -1, -2.14374, 11.0811, 20.2624, 13.0855, 91.3816, -105.458
1.9115, -1, -2.32873, 10.9862, 20.2998, 13.0882, 91.2824, -105.709
1.91951, -1, -2.51349, 10.8914, 20.3372, 13.0909, 91.1833, -105.96
1.92799, -1, -2.69758, 10.7967, 20.3744, 13.0935, 91.0843, -106.211
1.93539, -1, -2.88141, 10.702, 20.4118, 13.0962, 90.9851, -106.462
1.94347, -1, -3.06546, 10.6072, 20.4492, 13.0987, 90.8861, -106.712
1.95227, -1, -3.24967, 10.5126, 20.4864, 13.1013, 90.7872, -106.963
1.95948, -1, -3.43413, 10.4181, 20.5237, 13.1038, 90.6883, -107.213
1.96759, -1, -3.61882, 10.3237, 20.5609, 13.1064, 90.5895, -107.464
1.9764, -1, -3.80369, 10.2294, 20.5982, 13.1089, 90.4907, -107.714
1.98367, -1, -3.98892, 10.135, 20.6355, 13.1112, 90.392, -107.964
1.99181, -1, -4.17432, 10.0407, 20.6727, 13.1136, 90.2934, -108.214
2.00063, -1, -4.35997, 9.94638, 20.7098, 13.116, 90.1947, -108.464
2.00781, -1, -4.54541, 9.85204, 20.7471, 13.1183, 90.096, -108.713
2.01599, -1, -4.73058, 9.75782, 20.7844, 13.1206, 89.9976, -108.963
2.02473, -1, -4.91533, 9.66364, 20.8215, 13.123, 89.899, -109.212
2.032, -1, -5.09948, 9.56961, 20.8586, 13.1254, 89.8006, -109.461
2.04058, -1, -5.28292, 9.47557, 20.8958, 13.1277, 89.7024, -109.71
2.04876, -1, -5.37455, 9.38162, 20.9328, 13.13, 89.604, -109.96
2.05604, -1, -5.55751, 9.33467, 20.9699, 13.1323, 89.5057, -110.208
2.06337, -1, -5.73997, 9.24075, 20.9885, 13.1334, 89.4566, -110.333
2.07138, -1, -5.92232, 9.14684, 21.0255, 13.1357, 89.3586, -110.581
2.07942, -1, -6.10481, 9.05296, 21.0625, 13.1378, 89.2602, -110.83
2.0874, -1, -6.28755, 8.9592, 21.0996, 13.1401, 89.1622, -111.078
2.09539, -1, -6.47045, 8.86555, 21.1366, 13.1422, 89.0645, -111.327
2.10343, -1, -6.65361, 8.77186, 21.1733, 13.1444, 88.9664, -111.575
2.11138, -1, -6.83717, 8.6783, 21.2103, 13.1465, 88.8685, -111.823
2.11943, -1, -7.02103, 8.58474, 21.2471, 13.1486, 88.7709, -112.071
2.12743, -1, -7.20518, 8.49118, 21.284, 13.1508, 88.6729, -112.319
2.13694, -1, -7.48129, 8.35072, 21.3394, 13.1539, 88.5264, -112.69
2.14589, -1, -7.66509, 8.25718, 21.3761, 13.1561, 88.4287, -112.938
2.15146, -1, -7.75682, 8.21047, 21.3945, 13.1572, 88.3799, -113.061
2.15938, -1, -7.9399, 8.11711, 21.4314, 13.1595, 88.2824, -113.308
2.16979, -1, -8.12241, 7.97714, 21.4866, 13.1628, 88.1364, -113.679
2.17545, -1, -8.30433, 7.93051, 21.5049, 13.1639, 88.0877, -113.803
2.18499, -1, -8.4857, 7.83728, 21.5418, 13.1662, 87.9417, -114.173
2.19139, -1, -8.66661, 7.74414, 21.5785, 13.1684, 87.8931, -114.296
2.19945, -1, -8.84742, 7.65094, 21.6153, 13.1707, 87.7956, -114.543
2.20738, -1, -9.02826, 7.55783, 21.652, 13.173, 87.6982, -114.789
2.21542, -1, -9.20931, 7.46485, 21.6887, 13.1752, 87.6011, -115.036
2.22345, -1, -9.39053, 7.37204, 21.7253, 13.1774, 87.5038, -115.282
2.23139, -1, -9.57214, 7.27917, 21.762, 13.1796, 87.4067, -115.528
2.23944, -1, -9.75406, 7.18643, 21.7987, 13.1819, 87.3097, -115.774
2.24739, -1, -9.93645, 7.09373, 21.8351, 13.1841, 87.2124, -116.02
2.25539, -1, -10.119, 7.001, 21.8717, 13.1863, 87.1152, -116.266
2.26344, -1, -10.3016, 6.90824, 21.9083, 13.1886, 87.0182, -116.512
2.27141, -1, -10.4842, 6.81544, 21.9449, 13.1907, 86.921, -116.757
2.27939, -1, -10.6665, 6.72274, 21.9815, 13.193, 86.8239, -117.003
2.2875, -1, -10.8484, 6.63014, 22.0179, 13.1954, 86.727, -117.248
2.29538, -1, -11.0297, 6.53755, 22.0542, 13.1979, 86.63, -117.493
2.30339, -1, -11.2101, 6.44506, 22.0908, 13.2002, 86.5332, -117.738
2.31144, -1, -11.39, 6.35263, 22.1273, 13.2026, 86.4367, -117.983
2.31938, -1, -11.5696, 6.2602, 22.1637, 13.2051, 86.3399, -118.228
2.3274, -1, -11.7489, 6.1678, 22.2002, 13.2075, 86.2433, -118.473
2.33546, -1, -11.9282, 6.07553, 22.2366, 13.2101, 86.1468, -118.717
2.34338, -1, -12.1074, 5.9833, 22.273, 13.2125, 86.0502, -118.961
2.35155, -1, -12.2868, 5.89122, 22.3094, 13.2149, 85.9538, -119.205
2.35938, -1, -12.4667, 5.79919, 22.3458, 13.2174, 85.8575, -119.45
2.36739, -1, -12.6469, 5.7072, 22.3819, 13.2199, 85.761, -119.694
2.37545, -1, -12.8275, 5.61525, 22.4183, 13.2223, 85.6649, -119.937
2.38344, -1, -13.0085, 5.52334, 22.4547, 13.2248, 85.5691, -120.181
2.39146, -1, -13.1897, 5.43133, 22.4908, 13.2272, 85.473, -120.425
2.40148, -1, -13.3709, 5.33936, 22.5271, 13.2296, 85.377, -120.669
2.40759, -1, -13.5518, 5.24746, 22.5634, 13.232, 85.2815, -120.912
2.41548, -1, -13.7324, 5.15562, 22.5995, 13.2347, 85.1856, -121.155
2.42387, -1, -13.9124, 5.06375, 22.6356, 13.2372, 85.0899, -121.398
2.43156, -1, -14.0915, 4.97202, 22.6719, 13.2398, 84.9945, -121.641
2.43938, -1, -14.2699, 4.88035, 22.7079, 13.2424, 84.8986, -121.884
2.44814, -1, -14.4482, 4.7887, 22.7441, 13.2449, 84.803, -122.126
2.45555, -1, -14.6259, 4.69705, 22.7803, 13.2475, 84.7075, -122.368
2.46341, -1, -14.8035, 4.60555, 22.8165, 13.25, 84.6117, -122.611
2.47231, -1, -14.9811, 4.51405, 22.8525, 13.2524, 84.5159, -122.853
2.47993, -1, -15.1589, 4.42268, 22.8888, 13.2548, 84.4205, -123.095
2.48774, -1, -15.337, 4.3314, 22.9248, 13.2572, 84.3248, -123.337
2.49648, -1, -15.5156, 4.24011, 22.9608, 13.2596, 84.2291, -123.579
2.50388, -1, -15.6946, 4.14889, 22.9969, 13.2619, 84.1338, -123.821
2.51251, -1, -15.8738, 4.05769, 23.0328, 13.2641, 84.0382, -124.063
2.52062, -1, -16.0531, 3.96645, 23.0688, 13.2663, 83.9427, -124.304
2.52833, -1, -16.2329, 3.87514, 23.1049, 13.2684, 83.8474, -124.546
2.53598, -1, -16.4127, 3.78395, 23.1408, 13.2705, 83.7517, -124.787
2.5447, -1, -16.5919, 3.6928, 23.1766, 13.2727, 83.6563, -125.028
2.55257, -1, -16.7708, 3.60167, 23.2125, 13.2748, 83.5612, -125.27
2.55988, -1, -16.86, 3.55614, 23.2304, 13.276, 83.5134, -125.39
2.56902, -1, -17.1261, 3.41966, 23.2841, 13.2792, 83.3703, -125.751
2.57671, -1, -17.3028, 3.32878, 23.3201, 13.2815, 83.2753, -125.992
2.58336, -1, -17.391, 3.28337, 23.338, 13.2827, 83.2277, -126.112
2.59324, -1, -17.6554, 3.14715, 23.3917, 13.2859, 83.085, -126.473
2.60064, -1, -17.8313, 3.05654, 23.4277, 13.288, 82.9902, -126.713
2.60743, -1, -17.9193, 3.01125, 23.4456, 13.289, 82.9428, -126.833
2.61541, -1, -18.0955, 2.92074, 23.4814, 13.2911, 82.8479, -127.073
2.62341, -1, -18.272, 2.83037, 23.5171, 13.2933, 82.7532, -127.313
2.63136, -1, -18.4488, 2.73996, 23.5529, 13.2954, 82.6587, -127.553
2.64159, -1, -18.715, 2.60439, 23.6064, 13.2984, 82.5167, -127.913
2.64743, -1, -18.8038, 2.55923, 23.6243, 13.2994, 82.4695, -128.032
2.65536, -1, -18.9818, 2.4688, 23.66, 13.3014, 82.3752, -128.272
2.66574, -1, -19.2493, 2.33315, 23.7134, 13.3043, 82.2333, -128.631
2.67138, -1, -19.3384, 2.28798, 23.7312, 13.3054, 82.1862, -128.75
2.67936, -1, -19.5161, 2.1976, 23.7669, 13.3075, 82.0924, -128.989
2.68836, -1, -19.6933, 2.10724, 23.8024, 13.3096, 81.9981, -129.229
2.69535, -1, -19.8699, 2.01696, 23.8377, 13.3118, 81.9039, -129.468
2.70436, -1, -20.0458, 1.92669, 23.8733, 13.314, 81.81, -129.706
2.71142, -1, -20.221, 1.83647, 23.9088, 13.3162, 81.7158, -129.945
2.71936, -1, -20.3959, 1.74634, 23.9442, 13.3184, 81.6218, -130.183
2.72743, -1, -20.5705, 1.65623, 23.9798, 13.3206, 81.5281, -130.422
2.73542, -1, -20.7448, 1.56625, 24.0153, 13.3228, 81.434, -130.66
2.74337, -1, -20.9194, 1.47635, 24.0506, 13.325, 81.3402, -130.898
2.75136, -1, -21.0944, 1.38661, 24.0862, 13.3272, 81.2465, -131.135
2.75942, -1, -21.2697, 1.29686, 24.1217, 13.3294, 81.1526, -131.373
2.76742, -1, -21.4453, 1.20718, 24.157, 13.3315, 81.0587, -131.611
2.77537, -1, -21.6213, 1.11759, 24.1923, 13.3337, 80.9649, -131.849
2.78344, -1, -21.7974, 1.02798, 24.2278, 13.3358, 80.8712, -132.087
2.7914, -1, -21.9738, 0.938361, 24.2632, 13.3381, 80.7774, -132.324
2.79942, -1, -22.1504, 0.848789, 24.2986, 13.3401, 80.6838, -132.561
2.80743, -1, -22.3271, 0.759253, 24.3339, 13.3423, 80.5902, -132.798
2.81536, -1, -22.5031, 0.669784, 24.3691, 13.3446, 80.4965, -133.035
2.82344, -1, -22.6788, 0.580263, 24.4044, 13.347, 80.4029, -133.272
2.83137, -1, -22.8539, 0.490839, 24.4397, 13.3494, 80.3093, -133.509
2.83943, -1, -23.028, 0.401464, 24.4749, 13.3518, 80.2158, -133.746
2.84748, -1, -23.2016, 0.312106, 24.51, 13.3543, 80.1223, -133.982
2.85536, -1, -23.3749, 0.222776, 24.5452, 13.3567, 80.0289, -134.219
2.86337, -1, -23.5479, 0.133549, 24.5804, 13.3592, 79.9355, -134.455
2.87141, -1, -23.7211, 0.0444277, 24.6156, 13.3616, 79.8422, -134.691
2.87954, -1, -23.8945, -0.0446323, 24.6508, 13.3639, 79.7491, -134.927
2.8875, -1, -24.0679, -0.133562, 24.6859, 13.3664, 79.6558, -135.163
2.89551, -1, -24.2417, -0.222484, 24.7209, 13.3689, 79.5627, -135.399
2.90366, -1, -24.4157, -0.311415, 24.7561, 13.3713, 79.4697, -135.634
2.91146, -1, -24.5901, -0.400207, 24.7912, 13.3737, 79.3765, -135.87
2.91954, -1, -24.7648, -0.489092, 24.8262, 13.3762, 79.2834, -136.106
2.92793, -1, -24.9399, -0.577963, 24.8613, 13.3786, 79.1907, -136.341
2.93636, -1, -25.115, -0.666773, 24.8965, 13.3809, 79.0976, -136.577
2.94342, -1, -25.2899, -0.755531, 24.9314, 13.3832, 79.0048, -136.811
2.95219, -1, -25.4644, -0.844347, 24.9665, 13.3856, 78.9123, -137.046
2.95947, -1, -25.6384, -0.933145, 25.0014, 13.388, 78.8194, -137.282
2.96754, -1, -25.8117, -1.0218, 25.0362, 13.3905, 78.7266, -137.516
2.97634, -1, -25.9843, -1.11054, 25.0711, 13.3929, 78.6343, -137.751
2.98365, -1, -26.1565, -1.19923, 25.1062, 13.3954, 78.5417, -137.985
2.99161, -1, -26.3283, -1.28779, 25.1409, 13.3978, 78.4492, -138.22
3.00049, -1, -26.5, -1.37625, 25.1758, 13.4001, 78.3567, -138.454
3.00791, -1, -26.6718, -1.46461, 25.2108, 13.4023, 78.2643, -138.688
3.01649, -1, -26.844, -1.55292, 25.2457, 13.4045, 78.1719, -138.922
3.02467, -1, -27.0164, -1.64108, 25.2804, 13.4068, 78.0795, -139.156
3.03194, -1, -27.1888, -1.72926, 25.3154, 13.4089, 77.9875, -139.39
3.04055, -1, -27.3614, -1.81742, 25.3502, 13.4111, 77.8951, -139.624
3.04872, -1, -27.5345, -1.90546, 25.3849, 13.4133, 77.8031, -139.858
3.05605, -1, -27.7077, -1.99367, 25.4198, 13.4153, 77.7112, -140.091
3.06334, -1, -27.7943, -2.03776, 25.4372, 13.4164, 77.6651, -140.208
3.07135, -1, -27.9677, -2.12576, 25.472, 13.4184, 77.5731, -140.441
3.0794, -1, -28.1411, -2.21379, 25.5067, 13.4204, 77.4811, -140.675
3.08741, -1, -28.3142, -2.30181, 25.5415, 13.4225, 77.3891, -140.908
3.09536, -1, -28.4871, -2.38989, 25.5763, 13.4245, 77.297, -141.141
3.10335, -1, -28.6595, -2.47786, 25.6109, 13.4267, 77.2049, -141.374
3.11135, -1, -28.8313, -2.56585, 25.6456, 13.4288, 77.1129, -141.607
3.12148, -1, -29.0876, -2.69776, 25.6976, 13.4321, 76.975, -141.956
3.12746, -1, -29.1729, -2.74167, 25.7149, 13.4332, 76.929, -142.072
3.13534, -1, -29.3434, -2.82944, 25.7496, 13.4352, 76.8373, -142.304
3.1456, -1, -29.5994, -2.96093, 25.8016, 13.4383, 76.6994, -142.653
3.15137, -1, -29.6849, -3.00471, 25.8188, 13.4393, 76.6534, -142.769
3.15935, -1, -29.8559, -3.09228, 25.8534, 13.4413, 76.5619, -143.002
3.16891, -1, -30.1123, -3.22344, 25.9053, 13.4444, 76.4242, -143.35
3.17694, -1, -30.1977, -3.31093, 25.9398, 13.4465, 76.3325, -143.581
3.18341, -1, -30.3689, -3.35463, 25.9571, 13.4476, 76.2868, -143.697
3.19291, -1, -30.5405, -3.44204, 25.9917, 13.4496, 76.1951, -143.929
3.20035, -1, -30.7122, -3.52957, 26.0261, 13.4516, 76.1036, -144.161
3.2074, -1, -30.8842, -3.61694, 26.0606, 13.4537, 76.0122, -144.392
3.21635, -1, -31.056, -3.7043, 26.0953, 13.4556, 75.9208, -144.624
3.22416, -1, -31.2277, -3.79164, 26.1297, 13.4577, 75.8294, -144.855
3.23136, -1, -31.3992, -3.87895, 26.164, 13.4598, 75.7381, -145.086
3.23934, -1, -31.5701, -3.96625, 26.1986, 13.4619, 75.6469, -145.317
3.24818, -1, -31.7405, -4.05347, 26.233, 13.4641, 75.5557, -145.548
3.25534, -1, -31.9104, -4.14073, 26.2673, 13.4663, 75.4646, -145.779
3.26334, -1, -32.0801, -4.22796, 26.3018, 13.4686, 75.3736, -146.01
3.27214, -1, -32.2494, -4.31503, 26.3362, 13.4708, 75.2823, -146.241
3.27934, -1, -32.4187, -4.40207, 26.3704, 13.4729, 75.1913, -146.471
3.28741, -1, -32.5885, -4.48903, 26.4048, 13.475, 75.1007, -146.702
3.29619, -1, -32.7582, -4.57593, 26.4393, 13.4772, 75.0096, -146.932
3.30334, -1, -32.9278, -4.66285, 26.4735, 13.4793, 74.9189, -147.163
3.31136, -1, -33.0974, -4.74974, 26.5077, 13.4815, 74.8286, -147.393
3.32011, -1, -33.2672, -4.83652, 26.5421, 13.4838, 74.7378, -147.623
3.32844, -1, -33.4372, -4.92339, 26.5763, 13.486, 74.6472, -147.853
3.33635, -1, -33.6076, -5.01032, 26.6105, 13.4882, 74.5566, -148.083
3.34483, -1, -33.7779, -5.09708, 26.6448, 13.4904, 74.466, -148.312
3.35135, -1, -33.9483, -5.18382, 26.679, 13.4926, 74.3755, -148.542
3.35941, -1, -34.1186, -5.27056, 26.7131, 13.4949, 74.2849, -148.772
3.36742, -1, -34.2888, -5.35726, 26.7474, 13.4971, 74.1944, -149.001
3.37535, -1, -34.4587, -5.44389, 26.7816, 13.4994, 74.1038, -149.23
3.38343, -1, -34.6282, -5.53057, 26.8157, 13.5018, 74.0132, -149.46
3.39155, -1, -34.7971, -5.61723, 26.8498, 13.5041, 73.9229, -149.689
3.39943, -1, -34.9656, -5.70382, 26.884, 13.5066, 73.8323, -149.918
3.40756, -1, -35.1339, -5.79033, 26.9181, 13.5091, 73.7418, -150.147
3.41573, -1, -35.3022, -5.87679, 26.9522, 13.5115, 73.6516, -150.376
3.42351, -1, -35.4707, -5.96305, 26.9863, 13.514, 73.5611, -150.605
3.43145, -1, -35.6392, -6.04929, 27.0204, 13.5163, 73.4707, -150.834
3.43992, -1, -35.8076, -6.1355, 27.0543, 13.5187, 73.3805, -151.062
3.44765, -1, -35.9761, -6.22161, 27.0885, 13.521, 73.29, -151.291
3.45537, -1, -36.1446, -6.30774, 27.1225, 13.5235, 73.1997, -151.519
3.46416, -1, -36.3133, -6.39389, 27.1564, 13.5259, 73.1094, -151.748
3.47235, -1, -36.4821, -6.48012, 27.1904, 13.5282, 73.019, -151.976
3.47949, -1, -36.651, -6.5663, 27.2244, 13.5305, 72.9287, -152.204
3.48838, -1, -36.8199, -6.65248, 27.2583, 13.5328, 72.8384, -152.432
3.496, -1, -36.989, -6.73863, 27.2922, 13.5351, 72.7484, -152.66
3.5044, -1, -37.1579, -6.82481, 27.3262, 13.5373, 72.6582, -152.889
3.51254, -1, -37.3266, -6.91085, 27.36, 13.5395, 72.5683, -153.116
3.51991, -1, -37.4949, -6.99689, 27.3939, 13.5417, 72.4785, -153.344
3.52856, -1, -37.6628, -7.08294, 27.4279, 13.5441, 72.3885, -153.571
3.53646, -1, -37.8305, -7.16893, 27.4618, 13.5463, 72.2987, -153.799
3.5442, -1, -37.998, -7.25484, 27.4956, 13.5485, 72.2091, -154.027
3.55191, -1, -38.0817, -7.34076, 27.5296, 13.5507, 72.1193, -154.254
3.56089, -1, -38.3329, -7.42656, 27.5635, 13.5529, 72.0296, -154.481
3.56856, -1, -38.5001, -7.51221, 27.5972, 13.555, 71.9402, -154.708
3.57534, -1, -38.5836, -7.55506, 27.6142, 13.556, 71.8954, -154.822
3.58333, -1, -38.7509, -7.64078, 27.6481, 13.5581, 71.8055, -155.049
3.59265, -1, -39.0019, -7.76927, 27.6987, 13.5612, 71.6714, -155.389
3.59933, -1, -39.0855, -7.81206, 27.7155, 13.5622, 71.627, -155.503
3.60733, -1, -39.2531, -7.89771, 27.7494, 13.5642, 71.5374, -155.73
3.61668, -1, -39.5045, -8.02622, 27.8001, 13.5671, 71.4034, -156.07
3.62334, -1, -39.5883, -8.06899, 27.8169, 13.5681, 71.3589, -156.183
3.63137, -1, -39.756, -8.15452, 27.8506, 13.57, 71.2696, -156.41
3.64095, -1, -40.0074, -8.28274, 27.9011, 13.5729, 71.1355, -156.749
3.64899, -1, -40.175, -8.36812, 27.9347, 13.5749, 71.0464, -156.975
3.65686, -1, -40.3423, -8.45346, 27.9685, 13.5768, 70.957, -157.202
3.66498, -1, -40.5093, -8.53882, 28.0022, 13.5788, 70.8676, -157.428
3.67298, -1, -40.6762, -8.62419, 28.0357, 13.5807, 70.7784, -157.654
3.67934, -1, -40.7596, -8.66687, 28.0525, 13.5817, 70.7339, -157.767
3.68739, -1, -40.9262, -8.75219, 28.0862, 13.5838, 70.6447, -157.993
3.69533, -1, -41.0927, -8.8375, 28.1199, 13.5858, 70.5556, -158.218
3.70432, -1, -41.2589, -8.92271, 28.1534, 13.5878, 70.4666, -158.445
3.71233, -1, -41.4251, -9.0079, 28.187, 13.5898, 70.3774, -158.67
3.71932, -1, -41.5913, -9.09305, 28.2207, 13.5918, 70.2883, -158.896
3.72736, -1, -41.7576, -9.17812, 28.2542, 13.5938, 70.1992, -159.121
3.73543, -1, -41.924, -9.26316, 28.2877, 13.5958, 70.1101, -159.347
3.74334, -1, -42.0905, -9.34816, 28.3214, 13.5979, 70.021, -159.572
3.75139, -1, -42.2568, -9.43327, 28.355, 13.5998, 69.932, -159.797
3.75932, -1, -42.423, -9.51829, 28.3884, 13.6019, 69.8432, -160.023
3.76733, -1, -42.5894, -9.60325, 28.422, 13.6039, 69.7541, -160.248
3.77539, -1, -42.7558, -9.68822, 28.4555, 13.6059, 69.6652, -160.473
3.78333, -1, -42.9221, -9.77318, 28.4889, 13.608, 69.5767, -160.698
3.79132, -1, -43.0885, -9.85806, 28.5223, 13.6101, 69.4877, -160.923
3.79944, -1, -43.2546, -9.94297, 28.5558, 13.6121, 69.3991, -161.148
3.80732, -1, -43.4208, -10.0279, 28.5893, 13.6142, 69.3105, -161.372
3.81533, -1, -43.5868, -10.1128, 28.6228, 13.6163, 69.2217, -161.597
3.82341, -1, -43.7528, -10.1977, 28.6563, 13.6183, 69.1331, -161.822
3.83132, -1, -43.9186, -10.2825, 28.6897, 13.6206, 69.0447, -162.046
3.83932, -1, -44.0842, -10.3673, 28.7231, 13.6227, 68.9562, -162.271
3.84741, -1, -44.2495, -10.452, 28.7566, 13.6248, 68.8675, -162.495
3.85532, -1, -44.4147, -10.5366, 28.79, 13.6271, 68.7788, -162.719
3.86333, -1, -44.58, -10.6211, 28.8233, 13.6293, 68.6904, -162.944
3.8714, -1, -44.7451, -10.7056, 28.8568, 13.6315, 68.6017, -163.168
3.87933, -1, -44.9104, -10.7901, 28.8903, 13.6337, 68.5133, -163.392
3.88736, -1, -45.0757, -10.8746, 28.9236, 13.6359, 68.425, -163.616
3.89548, -1, -45.241, -10.9591, 28.957, 13.638, 68.3364, -163.84
3.90343, -1, -45.4063, -11.0436, 28.9904, 13.6403, 68.248, -164.064
3.91142, -1, -45.5716, -11.128, 29.0236, 13.6426, 68.1598, -164.288
3.91948, -1, -45.7368, -11.2124, 29.0568, 13.6449, 68.0715, -164.511
3.92743, -1, -45.9018, -11.2967, 29.0903, 13.6471, 67.9831, -164.735
3.93543, -1, -46.0649, -11.38, 29.1237, 13.6494, 67.8947, -164.959
3.94351, -1, -46.2244, -11.461, 29.1572, 13.6518, 67.8071, -165.181
3.95135, -1, -46.3786, -11.5384, 29.1909, 13.6541, 67.7204, -165.4
3.95935, -1, -46.5249, -11.6111, 29.2239, 13.6564, 67.6367, -165.611
3.96748, -1, -46.6609, -11.678, 29.2551, 13.6586, 67.5584, -165.81
3.9755, -1, -46.784, -11.7379, 29.2834, 13.6606, 67.4868, -165.991
3.98353, -1, -46.8914, -11.7907, 29.3079, 13.6625, 67.425, -166.147
3.99162, -1, -46.9824, -11.8368, 29.3275, 13.664, 67.3744, -166.276
3.99967, -1, -47.0575, -11.8769, 29.3414, 13.6651, 67.3349, -166.375
4.00776, -1, -47.1176, -11.9103, 29.3507, 13.6657, 67.3064, -166.447
4.01635, -1, -47.1634, -11.9363, 29.3563, 13.666, 67.2873, -166.495
4.02388, -1, -47.1967, -11.9552, 29.359, 13.6662, 67.2755, -166.525
4.03242, -1, -47.2197, -11.9679, 29.3603, 13.6663, 67.2688, -166.542
4.03989, -1, -47.2342, -11.9758, 29.3609, 13.6663, 67.2654, -166.551
4.04877, -1, -47.2424, -11.9802, 29.3612, 13.6664, 67.2637, -166.555
4.05586, 2, -47.2447, -11.9814, 29.3613, 13.6665, 67.2629, -166.557
4.06432, 2, -47.247, -11.983, 29.3615, 13.6666, 67.2625, -166.558
4.07231, 2, -47.2466, -11.9833, 29.3616, 13.6665, 67.2623, -166.558
4.0793, 2, -47.2465, -11.9833, 29.3616, 13.6665, 67.2623, -166.558
4.08842, 2, -47.2465, -11.9834, 29.3617, 13.6666, 67.2622, -166.558
4.09531, 2, -47.2468, -11.9835, 29.3617, 13.6666, 67.2622, -166.558
4.10443, 2, -47.2482, -11.984, 29.3618, 13.6666, 67.2622, -166.558
4.11136, 2, -47.249, -11.9843, 29.3618, 13.6666, 67.2621, -166.558
4.11934, 2, -47.2509, -11.9851, 29.3617, 13.6666, 67.2621, -166.558
4.12731, 2, -47.2526, -11.9859, 29.3617, 13.6666, 67.2621, -166.558
4.1354, 2, -47.2541, -11.9868, 29.3618, 13.6666, 67.2621, -166.558
4.14332, 2, -47.2551, -11.9874, 29.3618, 13.6666, 67.2621, -166.558
4.15287, 2, -47.2557, -11.9879, 29.3618, 13.6666, 67.2621, -166.558
4.16107, 2, -47.2558, -11.988, 29.3618, 13.6666, 67.2621, -166.558
4.1673, 2, -47.2559, -11.9881, 29.3618, 13.6666, 67.2621, -166.558
4.17531, 2, -47.2556, -11.9881, 29.3618, 13.6666, 67.2621, -166.558
4.1834, 2, -47.2551, -11.9881, 29.3618, 13.6666, 67.2622, -166.558
4.19131, 2, -47.2545, -11.9881, 29.3618, 13.6666, 67.2622, -166.558
4.20034, 2, -47.2541, -11.988, 29.3618, 13.6666, 67.2622, -166.558
4.20737, 2, -47.2538, -11.9881, 29.3618, 13.6666, 67.2622, -166.558
4.2153, 2, -47.2537, -11.9881, 29.3618, 13.6666, 67.2622, -166.558
4.22332, 2, -47.2539, -11.9883, 29.3618, 13.6666, 67.2622, -166.558
4.23141, 2, -47.254, -11.9885, 29.3618, 13.6666, 67.2622, -166.558
4.23931, 2, -47.2546, -11.9889, 29.3618, 13.6666, 67.2622, -166.558
4.2473, 2, -47.2553, -11.9892, 29.3618, 13.6666, 67.2622, -166.558
4.25538, 2, -47.2557, -11.9893, 29.3618, 13.6665, 67.2622, -166.558
4.26332, 2, -47.2559, -11.9894, 29.3618, 13.6666, 67.2622, -166.558
4.27131, 2, -47.256, -11.9894, 29.3618, 13.6666, 67.2622, -166.558
4.27937, 2, -47.2559, -11.9894, 29.3618, 13.6666, 67.2622, -166.558
4.28731, 2, -47.2558, -11.9894, 29.3618, 13.6666, 67.2622, -166.558
4.2953, 2, -47.2554, -11.9893, 29.3618, 13.6666, 67.2622, -166.558
4.30343, 2, -47.2549, -11.9893, 29.3618, 13.6666, 67.2622, -166.558
4.31131, 2, -47.2546, -11.9893, 29.3618, 13.6666, 67.2622, -166.558
4.3193, 2, -47.2543, -11.9893, 29.3618, 13.6665, 67.2622, -166.558
4.32737, 2, -47.2541, -11.9893, 29.3618, 13.6665, 67.2622, -166.558
4.33531, 2, -47.254, -11.9894, 29.3618, 13.6666, 67.2622, -166.558
4.34332, 2, -47.254, -11.9894, 29.3618, 13.6666, 67.2622, -166.558
4.35139, 2, -47.254, -11.9895, 29.3618, 13.6666, 67.2622, -166.558
4.3593, 2, -47.254, -11.9895, 29.3618, 13.6666, 67.2623, -166.558
4.36734, 2, -47.2541, -11.9895, 29.3618, 13.6666, 67.2623, -166.558
4.37538, 2, -47.2542, -11.9895, 29.3618, 13.6666, 67.2622, -166.558
4.38332, 2, -47.2542, -11.9894, 29.3618, 13.6665, 67.2622, -166.558
4.39134, 2, -47.2541, -11.9894, 29.3618, 13.6665, 67.2623, -166.558
4.39948, 2, -47.254, -11.9893, 29.3618, 13.6665, 67.2623, -166.558
4.40739, 2, -47.2539, -11.9893, 29.3618, 13.6665, 67.2622, -166.558
4.4154, 2, -47.2538, -11.9893, 29.3618, 13.6665, 67.2622, -166.558
4.42348, 2, -47.2536, -11.9893, 29.3618, 13.6665, 67.2623, -166.558
4.43141, 2, -47.2535, -11.9893, 29.3618, 13.6665, 67.2623, -166.558
4.43936, 2, -47.2534, -11.9893, 29.3618, 13.6665, 67.2623, -166.558
4.44742, 2, -47.2533, -11.9893, 29.3618, 13.6664, 67.2623, -166.558
4.45539, 2, -47.2533, -11.9893, 29.3618, 13.6665, 67.2623, -166.558
4.46354, 2, -47.2532, -11.9894, 29.3618, 13.6665, 67.2623, -166.558
4.47147, 2, -47.2531, -11.9894, 29.3618, 13.6664, 67.2623, -166.558
4.47945, 2, -47.2531, -11.9893, 29.3618, 13.6665, 67.2623, -166.558
4.48752, 2, -47.253, -11.9893, 29.3618, 13.6665, 67.2623, -166.558
4.49559, 2, -47.2529, -11.9893, 29.3618, 13.6665, 67.2623, -166.558
4.50368, 2, -47.2529, -11.9892, 29.3618, 13.6665, 67.2624, -166.558
4.51202, 2, -47.2528, -11.9892, 29.3618, 13.6665, 67.2624, -166.558
4.52034, 2, -47.2527, -11.9892, 29.3618, 13.6665, 67.2624, -166.558
4.52787, 2, -47.2526, -11.9891, 29.3618, 13.6665, 67.2624, -166.558
4.53587, 2, -47.2525, -11.9891, 29.3618, 13.6664, 67.2624, -166.558
4.5444, 2, -47.2524, -11.9891, 29.3618, 13.6664, 67.2623, -166.557
4.55194, 2, -47.2523, -11.9892, 29.3618, 13.6664, 67.2623, -166.557
4.56007, 2, -47.2523, -11.9892, 29.3618, 13.6664, 67.2623, -166.557
4.56796, 2, -47.2522, -11.9891, 29.3618, 13.6664, 67.2624, -166.557
4.5753, 2, -47.2521, -11.9891, 29.3618, 13.6665, 67.2624, -166.557
4.58331, 2, -47.2519, -11.9891, 29.3618, 13.6664, 67.2624, -166.557
4.59233, 2, -47.2518, -11.9891, 29.3618, 13.6664, 67.2624, -166.557
4.59929, 2, -47.2517, -11.9891, 29.3618, 13.6664, 67.2624, -166.557
4.60729, 2, -47.2516, -11.989, 29.3618, 13.6664, 67.2624, -166.557
4.61534, 2, -47.2515, -11.989, 29.3618, 13.6664, 67.2624, -166.557
4.62489, 2, -47.2513, -11.9889, 29.3618, 13.6664, 67.2625, -166.557
4.6313, 2, -47.2512, -11.9889, 29.3618, 13.6664, 67.2625, -166.557
4.64069, 2, -47.2511, -11.9889, 29.3618, 13.6664, 67.2624, -166.557
4.64729, 2, -47.251, -11.9888, 29.3618, 13.6664, 67.2624, -166.557
4.65529, 2, -47.2509, -11.9889, 29.3618, 13.6663, 67.2624, -166.557
4.66335, 2, -47.2509, -11.9889, 29.3618, 13.6664, 67.2624, -166.557
4.67302, 2, -47.2508, -11.9888, 29.3618, 13.6664, 67.2624, -166.557
4.67932, 2, -47.2508, -11.9888, 29.3618, 13.6664, 67.2624, -166.557
4.68896, 2, -47.2507, -11.9888, 29.3618, 13.6664, 67.2625, -166.557
4.69699, 2, -47.2506, -11.9888, 29.3618, 13.6664, 67.2625, -166.557
4.70428, 2, -47.2506, -11.9888, 29.3618, 13.6664, 67.2625, -166.557
4.71136, 2, -47.2505, -11.9887, 29.3618, 13.6664, 67.2625, -166.557
4.71929, 2, -47.2505, -11.9887, 29.3618, 13.6664, 67.2625, -166.557
4.72729, 2, -47.2504, -11.9886, 29.3618, 13.6664, 67.2625, -166.557
4.73539, 2, -47.2503, -11.9886, 29.3618, 13.6664, 67.2625, -166.557
4.74331, 2, -47.2503, -11.9885, 29.3618, 13.6664, 67.2625, -166.557
4.75129, 2, -47.2502, -11.9885, 29.3618, 13.6663, 67.2625, -166.557
4.75935, 2, -47.2501, -11.9885, 29.3618, 13.6663, 67.2625, -166.557
4.7673, 2, -47.2501, -11.9885, 29.3618, 13.6663, 67.2625, -166.557
4.77529, 2, -47.2501, -11.9885, 29.3617, 13.6663, 67.2625, -166.557
4.78337, 2, -47.25, -11.9885, 29.3618, 13.6663, 67.2626, -166.556
4.79129, 2, -47.25, -11.9885, 29.3618, 13.6663, 67.2626, -166.557
4.79928, 2, -47.25, -11.9885, 29.3618, 13.6663, 67.2626, -166.556
4.80744, 2, -47.2499, -11.9884, 29.3618, 13.6663, 67.2626, -166.556
4.81529, 2, -47.2499, -11.9884, 29.3618, 13.6663, 67.2627, -166.556
4.82335, 2, -47.2498, -11.9883, 29.3618, 13.6663, 67.2626, -166.556
4.83131, 2, -47.2498, -11.9882, 29.3618, 13.6663, 67.2627, -166.556
4.83929, 2, -47.2497, -11.9882, 29.3618, 13.6663, 67.2627, -166.556
4.84733, 2, -47.2496, -11.9881, 29.3618, 13.6662, 67.2627, -166.556
4.85533, 2, -47.2495, -11.9881, 29.3618, 13.6662, 67.2628, -166.556
4.86331, 2, -47.2495, -11.9881, 29.3618, 13.6662, 67.2628, -166.556
4.8714, 2, -47.2494, -11.9881, 29.3618, 13.6662, 67.2628, -166.556
4.87931, 2, -47.2494, -11.9881, 29.3618, 13.6662, 67.2628, -166.556
4.8873, 2, -47.2493, -11.9881, 29.3618, 13.6662, 67.2628, -166.556
4.89537, 2, -47.2493, -11.9881, 29.3618, 13.6662, 67.2628, -166.556
4.90344, 2, -47.2493, -11.9881, 29.3617, 13.6662, 67.2628, -166.556
4.91139, 2, -47.2493, -11.988, 29.3618, 13.6661, 67.2628, -166.556
4.91943, 2, -47.2492, -11.988, 29.3618, 13.6661, 67.2628, -166.556
4.92743, 2, -47.2492, -11.9879, 29.3618, 13.6661, 67.2628, -166.556
4.93539, 2, -47.2491, -11.9878, 29.3618, 13.6661, 67.2628, -166.556
4.94346, 2, -47.249, -11.9878, 29.3618, 13.6661, 67.2628, -166.556
4.95131, 2, -47.2489, -11.9878, 29.3617, 13.6661, 67.2628, -166.556
4.95932, 2, -47.2489, -11.9877, 29.3617, 13.666, 67.2629, -166.556
4.96737, 2, -47.2488, -11.9877, 29.3617, 13.666, 67.2629, -166.556
4.97541, 2, -47.2487, -11.9877, 29.3617, 13.666, 67.263, -166.556
4.98368, 2, -47.2487, -11.9877, 29.3618, 13.666, 67.263, -166.556
4.99155, 2, -47.2487, -11.9877, 29.3618, 13.666, 67.263, -166.556
4.99956, 2, -47.2486, -11.9877, 29.3618, 13.666, 67.263, -166.556
5.00787, 2, -47.2486, -11.9877, 29.3617, 13.666, 67.263, -166.556
5.01573, 2, -47.2486, -11.9876, 29.3617, 13.6659, 67.263, -166.556
5.02377, 2, -47.2486, -11.9876, 29.3617, 13.6659, 67.263, -166.556
5.03239, 2, -47.2485, -11.9875, 29.3618, 13.6659, 67.263, -166.556
5.03983, 2, -47.2484, -11.9874, 29.3617, 13.6659, 67.263, -166.556
5.0485, 2, -47.2483, -11.9874, 29.3618, 13.6659, 67.263, -166.556
5.05643, 2, -47.2483, -11.9873, 29.3617, 13.6658, 67.263, -166.556
5.06443, 2, -47.2482, -11.9873, 29.3617, 13.6658, 67.263, -166.556
5.07186, 2, -47.2482, -11.9873, 29.3617, 13.6658, 67.263, -166.556
5.07927, 2, -47.2481, -11.9874, 29.3617, 13.6658, 67.263, -166.556
5.08732, 2, -47.248, -11.9873, 29.3617, 13.6658, 67.2631, -166.556
5.09529, 2, -47.248, -11.9873, 29.3618, 13.6658, 67.2631, -166.556
5.10328, 2, -47.248, -11.9873, 29.3618, 13.6658, 67.2631, -166.556
5.11286, 2, -47.248, -11.9873, 29.3618, 13.6658, 67.2631, -166.556
5.11929, 2, -47.248, -11.9872, 29.3618, 13.6658, 67.2631, -166.556
5.12872, 2, -47.2479, -11.9871, 29.3617, 13.6657, 67.2631, -166.556
5.13689, 4, -47.2479, -11.9871, 29.3617, 13.6657, 67.2631, -166.556
5.14475, 4, -47.2478, -11.987, 29.3617, 13.6657, 67.2631, -166.556
5.15127, 4, -47.2478, -11.987, 29.3617, 13.6657, 67.2631, -166.556
5.16084, 4, -47.2477, -11.987, 29.3617, 13.6656, 67.2631, -166.556
5.1689, 4, -47.2476, -11.987, 29.3617, 13.6656, 67.2631, -166.556
5.17689, 4, -47.2476, -11.9869, 29.3617, 13.6656, 67.2631, -166.556
5.18491, 4, -47.2476, -11.9869, 29.3617, 13.6656, 67.2631, -166.556
5.19132, 4, -47.2475, -11.9869, 29.3617, 13.6655, 67.2631, -166.556
5.20028, 4, -47.2474, -11.9869, 29.3618, 13.6655, 67.2631, -166.556
5.20833, 4, -47.2474, -11.9869, 29.3617, 13.6655, 67.2631, -166.556
5.2163, 4, -47.2474, -11.9869, 29.3617, 13.6655, 67.2632, -166.556
5.22516, 4, -47.2474, -11.9868, 29.3617, 13.6655, 67.2632, -166.556
5.23131, 4, -47.2473, -11.9868, 29.3617, 13.6655, 67.2632, -166.556
5.23949, 4, -47.2473, -11.9867, 29.3617, 13.6654, 67.2632, -166.556
5.25948, 4, -47.2472, -11.9867, 29.3617, 13.6654, 67.2632, -166.556
5.26217, 4, -47.2472, -11.9866, 29.3617, 13.6654, 67.2632, -166.556
5.26421, 4, -47.2472, -11.9866, 29.3617, 13.6654, 67.2632, -166.556
5.27141, 4, -47.2471, -11.9866, 29.3617, 13.6654, 67.2632, -166.555
5.27973, 4, -47.2471, -11.9866, 29.3617, 13.6654, 67.2632, -166.555
5.28857, 4, -47.2471, -11.9866, 29.3617, 13.6654, 67.2632, -166.555
5.29549, 4, -47.2474, -11.9868, 29.3618, 13.6654, 67.2632, -166.555
5.30888, 4, -47.2502, -11.9888, 29.364, 13.6671, 67.2638, -166.555
5.3124, 4, -47.2519, -11.9905, 29.3661, 13.6704, 67.2647, -166.555
5.32214, 4, -47.2603, -12.0004, 29.381, 13.7008, 67.2721, -166.549
5.32746, 4, -47.2644, -12.0055, 29.39, 13.7198, 67.2772, -166.545
5.33653, 5, -47.2753, -12.019, 29.4166, 13.7773, 67.2927, -166.532
5.34338, 5, -47.2902, -12.0379, 29.4565, 13.8659, 67.3171, -166.512
5.35147, 5, -47.3098, -12.0626, 29.511, 13.9878, 67.3514, -166.483
5.35929, 5, -47.3339, -12.0923, 29.5802, 14.1442, 67.3944, -166.446
5.36873, 5, -47.3623, -12.1275, 29.6629, 14.3312, 67.4458, -166.401
5.37723, 5, -47.3946, -12.1676, 29.757, 14.5434, 67.5048, -166.352
5.38336, 5, -47.43, -12.2123, 29.8598, 14.7738, 67.5672, -166.297
5.39128, 5, -47.4677, -12.2603, 29.9693, 15.0163, 67.6338, -166.239
5.40007, 5, -47.5075, -12.3109, 30.0837, 15.2663, 67.7011, -166.181
5.40833, 5, -47.5491, -12.3635, 30.2011, 15.5205, 67.7699, -166.122
5.41536, 5, -47.5922, -12.4173, 30.3203, 15.7766, 67.8382, -166.061
5.42358, 5, -47.636, -12.4719, 30.4407, 16.0335, 67.9065, -166.002
5.43138, 5, -47.6805, -12.5268, 30.562, 16.291, 67.9745, -165.943
5.43938, 5, -47.7253, -12.5821, 30.6845, 16.5486, 68.0418, -165.883
5.44764, 5, -47.77, -12.6374, 30.8083, 16.8064, 68.109, -165.825
5.45831, 5, -47.8148, -12.6929, 30.9332, 17.0646, 68.175, -165.767
5.4633, 5, -47.8595, -12.7487, 31.059, 17.323, 68.2412, -165.709
5.47168, 5, -47.9039, -12.8045, 31.1855, 17.5812, 68.306, -165.651
5.48034, 5, -47.9482, -12.8605, 31.3128, 17.8395, 68.3713, -165.595
5.4874, 5, -47.9927, -12.9168, 31.4411, 18.0981, 68.435, -165.538
5.49553, 5, -48.0378, -12.9736, 31.5704, 18.3563, 68.4988, -165.481
5.50358, 5, -48.0835, -13.0307, 31.7008, 18.615, 68.5619, -165.426
5.51169, 5, -48.1296, -13.0883, 31.832, 18.8737, 68.6245, -165.37
5.51973, 5, -48.1759, -13.1462, 31.9638, 19.1325, 68.687, -165.315
5.52839, 5, -48.2223, -13.2045, 32.0965, 19.391, 68.748, -165.26
5.5358, 5, -48.2689, -13.2631, 32.2303, 19.6498, 68.8097, -165.206
5.54456, 5, -48.3155, -13.3218, 32.3649, 19.9087, 68.8699, -165.152
5.55283, 5, -48.3625, -13.3808, 32.5004, 20.1674, 68.9305, -165.098
5.55985, 5, -48.4096, -13.4399, 32.637, 20.4262, 68.99, -165.045
5.5688, 5, -48.4567, -13.499, 32.7744, 20.6853, 69.0489, -164.992
5.5771, 5, -48.4802, -13.5583, 32.9127, 20.9442, 69.1079, -164.939
5.58387, 5, -48.5272, -13.5879, 32.9822, 21.0737, 69.1368, -164.913
5.59125, 5, -48.5733, -13.6472, 33.1217, 21.3326, 69.1948, -164.861
5.59923, 5, -48.6179, -13.7062, 33.2617, 21.5911, 69.253, -164.808
5.60931, 5, -48.6812, -13.7936, 33.4719, 21.975, 69.3393, -164.723
5.61531, 5, -48.7011, -13.8223, 33.5415, 22.1013, 69.3689, -164.692
5.62511, 6, -48.7566, -13.9064, 33.7471, 22.471, 69.4585, -164.584
5.63122, 6, -48.7733, -13.9336, 33.8141, 22.5901, 69.4895, -164.542
5.63934, 6, -48.8033, -13.9865, 33.9454, 22.8202, 69.5538, -164.446
5.64878, 6, -48.8393, -14.0616, 34.1335, 23.1429, 69.6545, -164.268
5.65684, 6, -48.8563, -14.1084, 34.2526, 23.3426, 69.7258, -164.126
5.6648, 6, -48.8672, -14.1523, 34.3666, 23.5302, 69.7999, -163.965
5.67146, 7, -48.8705, -14.1733, 34.4217, 23.62, 69.8382, -163.879
5.67924, 7, -48.8734, -14.2132, 34.5286, 23.7919, 69.9155, -163.695
5.68886, 7, -48.8691, -14.2684, 34.6815, 24.0345, 70.0365, -163.394
5.69528, 7, -48.8655, -14.2856, 34.7308, 24.1119, 70.0779, -163.288
5.70323, 7, -48.8556, -14.3186, 34.8271, 24.2624, 70.1617, -163.07
5.71131, 8, -48.8427, -14.35, 34.9209, 24.4081, 70.2469, -162.844
5.71939, 8, -48.8271, -14.3799, 35.0121, 24.5498, 70.3335, -162.61
5.72808, 8, -48.8094, -14.4086, 35.1012, 24.6883, 70.4215, -162.371
5.73625, 8, -48.7897, -14.4363, 35.1883, 24.8246, 70.5104, -162.128
5.74561, 8, -48.7578, -14.4764, 35.3162, 25.0265, 70.6456, -161.757
5.7514, 8, -48.7467, -14.4894, 35.3583, 25.0932, 70.691, -161.632
5.76022, 9, -48.7241, -14.5148, 35.442, 25.2262, 70.7821, -161.38
5.77111, 9, -48.6887, -14.5518, 35.566, 25.4253, 70.9199, -161.002
5.7763, 9, -48.6765, -14.5639, 35.6069, 25.4917, 70.9661, -160.875
5.78429, 9, -48.6516, -14.5879, 35.6881, 25.6249, 71.058, -160.622
5.79125, 9, -48.6257, -14.6112, 35.7687, 25.7588, 71.1505, -160.368
5.7994, 10, -48.5994, -14.6342, 35.849, 25.8934, 71.2432, -160.115
5.80732, 10, -48.5728, -14.657, 35.929, 26.0289, 71.3359, -159.863
5.8153, 10, -48.546, -14.6794, 36.009, 26.165, 71.4289, -159.611
5.82325, 10, -48.5189, -14.7019, 36.0887, 26.302, 71.5219, -159.36
5.83132, 10, -48.4918, -14.7243, 36.1682, 26.4401, 71.6147, -159.11
5.83928, 10, -48.4646, -14.7465, 36.2474, 26.5791, 71.7073, -158.861
5.84741, 11, -48.4375, -14.769, 36.3264, 26.7192, 71.7999, -158.613
5.85625, 11, -48.4104, -14.7913, 36.4052, 26.8601, 71.8924, -158.365
5.86327, 11, -48.3832, -14.8136, 36.4837, 27.0017, 71.9845, -158.119
5.87132, 11, -48.3559, -14.8361, 36.5621, 27.1442, 72.0767, -157.873
5.87927, 11, -48.3281, -14.8583, 36.6404, 27.2873, 72.1688, -157.629
5.88732, 12, -48.2999, -14.8805, 36.7185, 27.4312, 72.2604, -157.385
5.89543, 12, -48.2716, -14.9028, 36.7965, 27.5759, 72.3521, -157.142
5.90423, 12, -48.2429, -14.9247, 36.8743, 27.721, 72.4436, -156.9
5.91144, 12, -48.2137, -14.9468, 36.9519, 27.8663, 72.5345, -156.659
5.91958, 12, -48.184, -14.9688, 37.0291, 28.0123, 72.6255, -156.418
5.92735, 12, -48.1538, -14.9906, 37.1058, 28.1581, 72.7165, -156.178
5.93542, 13, -48.1233, -15.0125, 37.1822, 28.3045, 72.8068, -155.938
5.94418, 13, -48.0925, -15.0344, 37.2584, 28.4513, 72.8971, -155.699
5.95216, 13, -48.0613, -15.0561, 37.3342, 28.5979, 72.9869, -155.461
5.96004, 13, -48.0296, -15.0781, 37.4098, 28.7446, 73.0766, -155.223
5.96874, 13, -47.9974, -15.0999, 37.4849, 28.8914, 73.1662, -154.985
5.97624, 14, -47.9646, -15.1217, 37.5596, 29.0378, 73.2555, -154.747
5.98427, 14, -47.9314, -15.1435, 37.6339, 29.1846, 73.3447, -154.51
5.9914, 14, -47.8975, -15.1652, 37.7078, 29.3313, 73.4333, -154.274
6.00024, 14, -47.8628, -15.1868, 37.7811, 29.4776, 73.5219, -154.038
6.00755, 14, -47.8272, -15.2084, 37.854, 29.6238, 73.6104, -153.802
6.01561, 14, -47.791, -15.2298, 37.9266, 29.7697, 73.6983, -153.566
6.0254, 15, -47.7543, -15.2512, 37.9987, 29.9153, 73.7861, -153.331
6.03176, 15, -47.7168, -15.2727, 38.0705, 30.0609, 73.8738, -153.096
6.04034, 15, -47.6787, -15.294, 38.1419, 30.2062, 73.9609, -152.861
6.04877, 15, -47.6399, -15.3156, 38.2129, 30.3512, 74.0479, -152.627
6.05582, 15, -47.6006, -15.3372, 38.2835, 30.4959, 74.1345, -152.393
6.06436, 16, -47.5607, -15.3587, 38.3534, 30.64, 74.2207, -152.16
6.07287, 16, -47.5201, -15.3803, 38.423, 30.784, 74.3065, -151.928
6.08074, 16, -47.4788, -15.402, 38.4923, 30.928, 74.3919, -151.696
6.08728, 16, -47.458, -15.4128, 38.5267, 30.9999, 74.4346, -151.58
6.09665, 16, -47.3944, -15.4457, 38.6296, 31.2151, 74.5612, -151.234
6.10468, 17, -47.351, -15.4677, 38.6978, 31.3582, 74.6454, -151.005
6.11129, 17, -47.329, -15.4786, 38.7318, 31.4296, 74.687, -150.89
6.12047, 17, -47.2623, -15.512, 38.8333, 31.6434, 74.8119, -150.547
6.12728, 17, -47.2397, -15.5232, 38.867, 31.7146, 74.853, -150.433
6.13752, 17, -47.1707, -15.557, 38.9676, 31.9281, 74.9763, -150.093
6.14344, 17, -47.1475, -15.5685, 39.001, 31.9991, 75.0171, -149.98
6.15148, 18, -47.1005, -15.5914, 39.0675, 32.1409, 75.0983, -149.754
6.15925, 18, -47.0529, -15.6145, 39.1337, 32.2824, 75.1784, -149.53
6.16877, 18, -46.9805, -15.6499, 39.2325, 32.4943, 75.2977, -149.195
6.17682, 18, -46.9316, -15.6737, 39.2982, 32.6353, 75.3765, -148.973
6.18488, 18, -46.8818, -15.6982, 39.3636, 32.7764, 75.4542, -148.753
6.1931, 19, -46.8316, -15.7228, 39.4289, 32.9171, 75.5315, -148.533
6.19941, 19, -46.8062, -15.7351, 39.4615, 32.9873, 75.5697, -148.423
6.20886, 19, -46.7549, -15.7602, 39.5264, 33.1276, 75.646, -148.204
6.21777, 19, -46.6765, -15.7983, 39.6234, 33.3374, 75.7585, -147.879
6.2233, 19, -46.65, -15.8112, 39.6556, 33.4073, 75.7958, -147.771
6.23123, 19, -46.5965, -15.8373, 39.7198, 33.5469, 75.8694, -147.556
6.23924, 20, -46.5424, -15.8636, 39.7839, 33.6862, 75.9428, -147.342
6.24812, 20, -46.4878, -15.8905, 39.8477, 33.8251, 76.0146, -147.129
6.25629, 20, -46.4323, -15.9176, 39.9112, 33.9637, 76.0863, -146.917
6.26424, 20, -46.3762, -15.9453, 39.9746, 34.1017, 76.1565, -146.707
6.27223, 20, -46.3197, -15.9733, 40.0377, 34.2397, 76.2269, -146.497
6.28021, 21, -46.2623, -16.0017, 40.1008, 34.3773, 76.2954, -146.289
6.28723, 21, -46.2043, -16.0305, 40.1634, 34.5146, 76.3638, -146.081
6.2954, 21, -46.1457, -16.0597, 40.2259, 34.6514, 76.4308, -145.875
6.30329, 21, -46.0861, -16.0893, 40.2881, 34.7877, 76.4975, -145.669
6.31123, 21, -46.0258, -16.1192, 40.3499, 34.9236, 76.5632, -145.465
6.31945, 21, -45.9646, -16.1493, 40.4115, 35.0589, 76.6279, -145.261
6.32743, 22, -45.9027, -16.1799, 40.4726, 35.1938, 76.6926, -145.059
6.33525, 22, -45.8401, -16.2108, 40.5334, 35.3283, 76.7556, -144.857
6.34386, 22, -45.7768, -16.242, 40.5939, 35.4622, 76.819, -144.656
6.35234, 22, -45.7127, -16.2735, 40.6541, 35.5956, 76.8803, -144.456
6.35923, 22, -45.6477, -16.3053, 40.7139, 35.7281, 76.9416, -144.257
6.36839, 23, -45.5821, -16.3374, 40.7733, 35.8601, 77.002, -144.058
6.37646, 23, -45.5155, -16.3697, 40.8322, 35.9913, 77.0615, -143.86
6.38422, 23, -45.448, -16.4022, 40.8907, 36.1221, 77.1211, -143.662
6.39313, 23, -45.3797, -16.4351, 40.9487, 36.2523, 77.1786, -143.465
6.40024, 23, -45.3105, -16.4681, 41.0061, 36.3816, 77.2366, -143.269
6.4073, 23, -45.2405, -16.5013, 41.063, 36.51, 77.2932, -143.074
6.41537, 24, -45.1695, -16.5347, 41.1193, 36.6375, 77.3493, -142.879
6.42697, 24, -45.0614, -16.5851, 41.2027, 36.8273, 77.4329, -142.588
6.43229, 24, -45.0249, -16.6019, 41.2302, 36.8901, 77.46, -142.491
6.43934, 24, -44.9512, -16.6358, 41.2848, 37.0152, 77.5147, -142.297
6.44741, 24, -44.8766, -16.6697, 41.3387, 37.1394, 77.5686, -142.104
6.45556, 25, -44.801, -16.7038, 41.392, 37.2626, 77.6214, -141.912
6.46325, 25, -44.7246, -16.7379, 41.4447, 37.3848, 77.6746, -141.719
6.47166, 25, -44.6473, -16.772, 41.4966, 37.5059, 77.7263, -141.527
6.48031, 25, -44.5691, -16.8062, 41.5479, 37.626, 77.7774, -141.335
6.48828, 25, -44.4898, -16.8403, 41.5984, 37.7452, 77.8289, -141.144
6.49637, 25, -44.4096, -16.8745, 41.6482, 37.8635, 77.8789, -140.952
6.50348, 26, -44.3283, -16.9085, 41.6971, 37.9809, 77.9287, -140.761
6.51232, 26, -44.246, -16.9426, 41.7453, 38.097, 77.9787, -140.571
6.51966, 26, -44.1628, -16.9765, 41.7927, 38.212, 78.0269, -140.38
6.52832, 26, -44.0786, -17.0104, 41.8392, 38.326, 78.0749, -140.189
6.53584, 26, -43.9935, -17.0442, 41.8849, 38.4387, 78.1232, -139.999
6.54457, 27, -43.9074, -17.0779, 41.9299, 38.5504, 78.17, -139.808
6.55308, 27, -43.8204, -17.1113, 41.9739, 38.661, 78.2165, -139.618
6.56035, 27, -43.7324, -17.1446, 42.0171, 38.7707, 78.2636, -139.428
6.56798, 27, -43.6881, -17.1778, 42.0595, 38.8792, 78.3091, -139.238
6.57674, 27, -43.5987, -17.1944, 42.101, 38.9865, 78.354, -139.048
6.58378, 27, -43.5082, -17.2272, 42.1213, 39.0398, 78.3767, -138.953
6.59275, 28, -43.3706, -17.2761, 42.1811, 39.1977, 78.444, -138.668
6.60139, 28, -43.3242, -17.3085, 42.2199, 39.3014, 78.4877, -138.479
6.60722, 28, -43.2307, -17.3246, 42.2388, 39.3529, 78.5097, -138.384
6.61686, 28, -43.0886, -17.3725, 42.2945, 39.5056, 78.5756, -138.099
6.62445, 28, -42.9927, -17.4041, 42.3304, 39.6063, 78.618, -137.91
6.63149, 29, -42.9444, -17.4198, 42.3479, 39.6562, 78.6391, -137.815
6.63922, 29, -42.8469, -17.4511, 42.3823, 39.7551, 78.6818, -137.626
6.64738, 29, -42.7484, -17.4821, 42.416, 39.8529, 78.7239, -137.436
6.65668, 29, -42.5989, -17.528, 42.4645, 39.9972, 78.7855, -137.152
6.66898, 29, -42.4473, -17.5734, 42.5108, 40.1386, 78.8475, -136.868
6.67139, 29, -42.4473, -17.5734, 42.5108, 40.1386, 78.8475, -136.868
6.67927, 30, -42.345, -17.6033, 42.5405, 40.2316, 78.8878, -136.678
6.68987, 30, -42.19, -17.6473, 42.5832, 40.3689, 78.9473, -136.395
6.69822, 30, -42.0856, -17.6763, 42.6104, 40.4592, 78.9872, -136.206
6.70324, 30, -42.033, -17.6907, 42.6237, 40.5039, 79.0069, -136.112
6.71128, 30, -41.927, -17.7191, 42.6496, 40.5926, 79.0456, -135.923
6.72106, 31, -41.8201, -17.7473, 42.6744, 40.6799, 79.1033, -135.639
6.72719, 31, -41.7124, -17.775, 42.6983, 40.7662, 79.1228, -135.545
6.7353, 31, -41.6036, -17.8025, 42.7211, 40.8514, 79.161, -135.356
6.74334, 31, -41.494, -17.8295, 42.7432, 40.9351, 79.1981, -135.168
6.75126, 31, -41.3834, -17.8562, 42.7644, 41.0181, 79.235, -134.979
6.75928, 31, -41.272, -17.8825, 42.7844, 41.0997, 79.2723, -134.79
6.76828, 32, -41.1598, -17.9083, 42.8036, 41.1805, 79.3091, -134.602
6.77539, 32, -41.0468, -17.934, 42.8218, 41.26, 79.345, -134.413
6.78425, 32, -40.933, -17.9591, 42.8389, 41.3387, 79.3806, -134.225
6.79453, 32, -40.7606, -17.9963, 42.8631, 41.4549, 79.4346, -133.944
6.79921, 32, -40.7028, -18.0084, 42.8706, 41.4929, 79.4522, -133.85
6.80725, 33, -40.5863, -18.0324, 42.8849, 41.5683, 79.4868, -133.662
6.81522, 33, -40.4689, -18.0562, 42.8982, 41.6427, 79.521, -133.474
6.82504, 33, -40.3507, -18.0794, 42.9107, 41.7162, 79.5554, -133.287
6.83128, 33, -40.2318, -18.1023, 42.9222, 41.7881, 79.5896, -133.1
6.83922, 33, -40.1123, -18.1248, 42.9326, 41.8593, 79.6229, -132.912
6.84736, 33, -39.9919, -18.1468, 42.9421, 41.9292, 79.6558, -132.725
6.85529, 34, -39.8707, -18.1686, 42.9507, 41.9983, 79.6888, -132.538
6.86323, 34, -39.7486, -18.1898, 42.9586, 42.0663, 79.722, -132.351
6.8713, 34, -39.6254, -18.2105, 42.9655, 42.1332, 79.7542, -132.165
6.87928, 34, -39.5013, -18.2309, 42.9714, 42.1996, 79.7859, -131.979
6.88721, 34, -39.3766, -18.2506, 42.9765, 42.2645, 79.8171, -131.793
6.89544, 35, -39.2511, -18.2701, 42.9805, 42.3291, 79.8489, -131.606
6.90426, 35, -39.1249, -18.2893, 42.9837, 42.3918, 79.8803, -131.42
6.9113, 35, -38.998, -18.3079, 42.986, 42.4543, 79.9109, -131.235
6.91934, 35, -38.8703, -18.3261, 42.9873, 42.5148, 79.941, -131.049
6.92758, 35, -38.7419, -18.3438, 42.9878, 42.5752, 79.9712, -130.864
6.93539, 35, -38.6125, -18.3612, 42.9879, 42.6341, 80.0017, -130.678
6.94347, 36, -38.4824, -18.378, 42.9871, 42.6918, 80.0316, -130.493
6.95242, 36, -38.3516, -18.3942, 42.9855, 42.7493, 80.0608, -130.308
6.95928, 36, -38.2202, -18.4103, 42.983, 42.8046, 80.0895, -130.123
6.9678, 36, -38.088, -18.4259, 42.9796, 42.8599, 80.1182, -129.939
6.9763, 36, -37.9551, -18.4407, 42.9751, 42.9138, 80.1473, -129.755
6.98328, 37, -37.8216, -18.4549, 42.9697, 42.9663, 80.1758, -129.571
6.99247, 37, -37.6874, -18.4689, 42.9633, 43.0191, 80.2037, -129.387
7.00101, 37, -37.5525, -18.4826, 42.9559, 43.07, 80.2311, -129.203
7.00828, 37, -37.4167, -18.4956, 42.9475, 43.1201, 80.2584, -129.02
7.01962, 37, -37.2119, -18.514, 42.9333, 43.1942, 80.2998, -128.746
7.02403, 37, -37.1434, -18.52, 42.9281, 43.2179, 80.3133, -128.654
7.03168, 38, -37.0056, -18.5318, 42.9169, 43.265, 80.3399, -128.472
7.04067, 38, -36.8673, -18.5432, 42.9048, 43.3118, 80.3659, -128.289
7.04783, 38, -36.7281, -18.5539, 42.8918, 43.3567, 80.3915, -128.106
7.05639, 38, -36.5881, -18.5639, 42.878, 43.4007, 80.4174, -127.924
7.06379, 38, -36.4475, -18.5734, 42.8633, 43.4446, 80.4433, -127.743
7.07248, 39, -36.3061, -18.5825, 42.8475, 43.4868, 80.4688, -127.561
7.08038, 39, -36.164, -18.5911, 42.8307, 43.5275, 80.4938, -127.38
7.08724, 39, -36.0927, -18.5953, 42.8221, 43.5476, 80.5061, -127.29
7.09655, 39, -35.8779, -18.6072, 42.7948, 43.6078, 80.5428, -127.018
7.10323, 39, -35.806, -18.6109, 42.7853, 43.627, 80.5551, -126.928
7.11124, 39, -35.6617, -18.6178, 42.7657, 43.6645, 80.5799, -126.748
7.12071, 40, -35.4441, -18.627, 42.7345, 43.7199, 80.6163, -126.478
7.12741, 40, -35.3713, -18.6299, 42.7236, 43.7381, 80.6281, -126.388
7.13653, 40, -35.1518, -18.6379, 42.6897, 43.7902, 80.6629, -126.119
7.14322, 40, -35.0783, -18.6403, 42.678, 43.8069, 80.6743, -126.029
7.15126, 40, -34.931, -18.6448, 42.654, 43.84, 80.6971, -125.85
7.16075, 41, -34.7085, -18.6506, 42.6164, 43.889, 80.7317, -125.582
7.16987, 41, -34.5597, -18.6539, 42.5903, 43.9199, 80.7543, -125.404
7.17899, 41, -34.4103, -18.6568, 42.5634, 43.9496, 80.7765, -125.226
7.18479, 41, -34.2601, -18.6593, 42.5357, 43.9786, 80.7981, -125.048
7.1937, 41, -34.1095, -18.6614, 42.5071, 44.0071, 80.8194, -124.871
7.20166, 41, -34.0339, -18.6631, 42.4777, 44.0347, 80.8408, -124.694
7.2088, 42, -33.8823, -18.6637, 42.4628, 44.048, 80.8515, -124.517
7.21621, 42, -33.7301, -18.6647, 42.4323, 44.0737, 80.8731, -124.429
7.22424, 42, -33.5773, -18.6652, 42.401, 44.0981, 80.8944, -124.253
7.2322, 42, -33.4236, -18.6654, 42.3688, 44.1219, 80.9151, -124.077
7.23924, 42, -33.2693, -18.6655, 42.336, 44.1451, 80.9354, -123.901
7.24738, 43, -33.1146, -18.6653, 42.3024, 44.1676, 80.9552, -123.725
7.25527, 43, -32.9592, -18.6648, 42.2679, 44.1889, 80.9748, -123.55
7.2632, 43, -32.8031, -18.6638, 42.2328, 44.209, 80.9944, -123.376
7.27121, 43, -32.6465, -18.6622, 42.1969, 44.2279, 81.0142, -123.201
7.27927, 43, -32.4894, -18.6602, 42.1601, 44.2458, 81.0338, -123.027
7.28719, 43, -32.3316, -18.6576, 42.1226, 44.2628, 81.0528, -122.854
7.29536, 44, -32.1731, -18.6545, 42.0843, 44.2792, 81.0714, -122.68
7.30327, 44, -32.0141, -18.6509, 42.0451, 44.2948, 81.0897, -122.507
7.3112, 44, -31.8547, -18.6467, 42.0053, 44.3097, 81.1076, -122.334
7.31928, 44, -31.6949, -18.642, 41.9647, 44.3236, 81.1255, -122.162
7.32725, 44, -31.5346, -18.6367, 41.9234, 44.3362, 81.1434, -121.99
7.33519, 45, -31.3738, -18.6308, 41.8812, 44.3476, 81.1613, -121.818
7.34343, 45, -31.2124, -18.6243, 41.8383, 44.3579, 81.1792, -121.647
7.35118, 45, -31.0503, -18.6174, 41.7946, 44.367, 81.1966, -121.475
7.3592, 45, -30.8874, -18.6101, 41.7503, 44.3752, 81.2135, -121.304
7.36847, 45, -30.7241, -18.6021, 41.705, 44.3824, 81.23, -121.133
7.37896, 45, -30.5599, -18.5934, 41.6592, 44.3886, 81.2462, -120.963
7.38327, 46, -30.3952, -18.5842, 41.6125, 44.3937, 81.2623, -120.793
7.39326, 46, -30.2299, -18.5746, 41.565, 44.3979, 81.2783, -120.624
7.40019, 46, -30.0641, -18.5644, 41.5168, 44.401, 81.2945, -120.454
7.40724, 46, -29.8977, -18.5539, 41.4677, 44.4032, 81.3106, -120.285
7.41528, 46, -29.7307, -18.5427, 41.418, 44.4044, 81.3267, -120.116
7.42355, 47, -29.5629, -18.5308, 41.3673, 44.405, 81.3425, -119.948
7.43141, 47, -29.3946, -18.5182, 41.3159, 44.4051, 81.3578, -119.78
7.43931, 47, -29.2256, -18.505, 41.2637, 44.4046, 81.3729, -119.612
7.4482, 47, -29.0561, -18.4914, 41.2107, 44.403, 81.3878, -119.444
7.45581, 47, -28.8861, -18.4772, 41.1568, 44.4, 81.4025, -119.276
7.46419, 47, -28.7156, -18.4622, 41.1022, 44.3957, 81.4173, -119.108
7.47235, 48, -28.5446, -18.4467, 41.0468, 44.3902, 81.4323, -118.941
7.48029, 48, -28.373, -18.4308, 40.9906, 44.3834, 81.4474, -118.774
7.4873, 48, -28.2008, -18.4144, 40.9335, 44.3755, 81.4626, -118.608
7.49538, 48, -28.0283, -18.397, 40.8756, 44.3664, 81.4776, -118.442
7.50347, 48, -27.855, -18.3791, 40.8169, 44.356, 81.4924, -118.275
7.51164, 49, -27.6808, -18.3607, 40.7573, 44.3442, 81.507, -118.109
7.52035, 49, -27.5059, -18.3415, 40.6968, 44.331, 81.5213, -117.943
7.52763, 49, -27.3301, -18.3216, 40.6354, 44.3163, 81.5355, -117.777
7.53624, 49, -27.1538, -18.3011, 40.5732, 44.3001, 81.5497, -117.612
7.54399, 49, -26.9771, -18.2798, 40.5099, 44.2823, 81.5641, -117.446
7.55285, 49, -26.7997, -18.2577, 40.4459, 44.2636, 81.5787, -117.281
7.56037, 50, -26.6217, -18.2351, 40.381, 44.2439, 81.5936, -117.115
7.56877, 50, -26.4429, -18.2116, 40.3153, 44.2231, 81.6087, -116.95
7.57629, 50, -26.2634, -18.1876, 40.2487, 44.2009, 81.6238, -116.785
7.58468, 50, -26.1734, -18.1754, 40.2151, 44.1893, 81.6389, -116.62
7.59122, 50, -25.9928, -18.1501, 40.1471, 44.1647, 81.6463, -116.537
7.60052, 51, -25.7207, -18.1111, 40.0434, 44.1252, 81.6687, -116.29
7.60724, 51, -25.6299, -18.0976, 40.0083, 44.1117, 81.6762, -116.208
7.61831, 51, -25.3567, -18.0562, 39.9018, 44.0693, 81.6988, -115.961
7.62318, 51, -25.2655, -18.0421, 39.8658, 44.0545, 81.7065, -115.878
7.63249, 51, -24.9908, -17.9984, 39.7565, 44.0069, 81.7302, -115.631
7.6392, 51, -24.8988, -17.9835, 39.7196, 43.9903, 81.7383, -115.549
7.64947, 52, -24.6215, -17.9377, 39.6077, 43.9395, 81.7631, -115.302
7.65514, 52, -24.5285, -17.922, 39.5699, 43.922, 81.7714, -115.22
7.66325, 52, -24.342, -17.8898, 39.4937, 43.8854, 81.7879, -115.056
7.67355, 52, -24.061, -17.8402, 39.3777, 43.8275, 81.8124, -114.809
7.67924, 52, -23.967, -17.8233, 39.3385, 43.8079, 81.8206, -114.726
7.6888, 53, -23.6842, -17.7713, 39.2195, 43.7467, 81.8455, -114.48
7.69785, 53, -23.4948, -17.7357, 39.1389, 43.7033, 81.8626, -114.316
7.70326, 53, -23.3998, -17.7175, 39.0982, 43.6815, 81.8714, -114.234
7.71284, 53, -23.2096, -17.6808, 39.0164, 43.6373, 81.8893, -113.988
7.72101, 53, -23.0183, -17.6432, 38.9337, 43.5907, 81.9074, -113.823
7.72749, 53, -22.8261, -17.6048, 38.8501, 43.5429, 81.9257, -113.741
7.73518, 54, -22.6334, -17.5658, 38.7656, 43.4947, 81.9438, -113.577
7.74404, 54, -22.4404, -17.5259, 38.68, 43.4438, 81.9621, -113.413
7.75223, 54, -22.2468, -17.4851, 38.5934, 43.3916, 81.9806, -113.248
7.75922, 54, -22.0528, -17.4436, 38.5059, 43.3388, 81.9994, -113.085
7.76819, 54, -21.8584, -17.4013, 38.4176, 43.2832, 82.0188, -112.92
7.77823, 55, -21.5645, -17.3363, 38.2836, 43.1988, 82.049, -112.674
7.78326, 55, -21.4661, -17.3142, 38.2385, 43.1695, 82.0591, -112.592
7.79363, 55, -21.1695, -17.2467, 38.102, 43.0798, 82.0892, -112.346
7.79918, 55, -21.07, -17.2238, 38.056, 43.0493, 82.0993, -112.263
7.80725, 55, -20.8706, -17.1776, 37.9632, 42.9861, 82.1194, -112.099
7.81519, 55, -20.6709, -17.1304, 37.8695, 42.9225, 82.1398, -111.936
7.82432, 56, -20.4707, -17.0826, 37.7748, 42.8565, 82.1608, -111.772
7.83224, 56, -20.2696, -17.0342, 37.6795, 42.7896, 82.1822, -111.608
7.84272, 56, -19.9661, -16.9601, 37.5352, 42.6858, 82.2148, -111.362
7.84826, 56, -19.8644, -16.9351, 37.4867, 42.6508, 82.2256, -111.281
7.85722, 56, -19.6605, -16.8845, 37.389, 42.5795, 82.2473, -111.117
7.86421, 57, -19.4563, -16.8333, 37.2902, 42.5061, 82.2691, -110.953
7.87134, 57, -19.2518, -16.7814, 37.1905, 42.4314, 82.2913, -110.79
7.87919, 57, -19.0469, -16.7287, 37.09, 42.355, 82.3141, -110.626
7.88725, 57, -18.8415, -16.6754, 36.9889, 42.2768, 82.3375, -110.463
7.89532, 57, -18.6354, -16.6214, 36.8871, 42.1972, 82.3607, -110.299
7.90435, 58, -18.4282, -16.5666, 36.7846, 42.1157, 82.3839, -110.136
7.91134, 58, -18.2194, -16.511, 36.6811, 42.0328, 82.4071, -109.972
7.91985, 58, -18.0092, -16.4548, 36.5767, 41.9481, 82.4306, -109.809
7.92825, 58, -17.7983, -16.3978, 36.4713, 41.8619, 82.4546, -109.646
7.93557, 58, -17.587, -16.3403, 36.3653, 41.7743, 82.4793, -109.484
7.94426, 58, -17.3751, -16.282, 36.2588, 41.6849, 82.504, -109.321
7.95326, 59, -17.1623, -16.2232, 36.1516, 41.5939, 82.5287, -109.158
7.96018, 59, -16.9485, -16.1638, 36.0436, 41.5011, 82.5535, -108.995
7.96932, 59, -16.7337, -16.1038, 35.9346, 41.4065, 82.5785, -108.832
7.97617, 59, -16.5181, -16.0431, 35.8246, 41.3101, 82.6045, -108.669
7.98325, 59, -16.3015, -15.9817, 35.714, 41.2121, 82.6309, -108.506
7.99128, 59, -16.0845, -15.9197, 35.6028, 41.1122, 82.6572, -108.343
8.00134, 60, -15.8676, -15.8571, 35.4911, 41.0104, 82.6833, -108.181
8.00743, 60, -15.6509, -15.7937, 35.3786, 40.9072, 82.7096, -108.018
8.01542, 60, -15.4332, -15.7294, 35.2651, 40.8023, 82.7364, -107.855
8.02437, 60, -15.2136, -15.6645, 35.1506, 40.6955, 82.764, -107.692
8.03158, 60, -14.9923, -15.5987, 35.0354, 40.587, 82.7918, -107.529
8.03976, 61, -14.7698, -15.5323, 34.9197, 40.4764, 82.8196, -107.367
8.04997, 61, -14.5462, -15.4652, 34.8035, 40.364, 82.8476, -107.204
8.05628, 61, -14.3217, -15.3975, 34.6867, 40.2499, 82.876, -107.041
8.06376, 61, -14.0961, -15.3291, 34.5688, 40.1339, 82.9053, -106.878
8.07422, 61, -13.8698, -15.26, 34.4499, 40.0163, 82.9351, -106.715
8.08049, 62, -13.6425, -15.1902, 34.3303, 39.8968, 82.9647, -106.552
8.08777, 62, -13.5284, -15.1551, 34.2703, 39.8363, 82.9795, -106.39
8.09655, 62, -13.185, -15.0486, 34.0896, 39.6517, 83.0247, -106.226
8.10428, 62, -12.9558, -14.9767, 33.9682, 39.5261, 83.0561, -106.063
8.11122, 62, -12.8413, -14.9405, 33.9071, 39.4627, 83.0719, -105.981
8.11932, 62, -12.6121, -14.8673, 33.7842, 39.3342, 83.1034, -105.818
8.12729, 63, -12.382, -14.7934, 33.6605, 39.204, 83.1351, -105.654
8.13522, 63, -12.1504, -14.7187, 33.5363, 39.0719, 83.1674, -105.49
8.14318, 63, -11.9177, -14.6433, 33.4115, 38.9377, 83.2011, -105.327
8.15256, 63, -11.566, -14.5285, 33.2229, 38.7325, 83.2521, -105.081
8.15919, 63, -11.4479, -14.4899, 33.1596, 38.663, 83.269, -104.999
8.16922, 64, -11.0914, -14.3727, 32.9683, 38.4517, 83.3209, -104.753
8.17538, 64, -10.972, -14.3332, 32.9042, 38.3803, 83.3388, -104.67
8.1848, 64, -10.6114, -14.2135, 32.711, 38.1633, 83.3932, -104.423
8.19281, 64, -10.3689, -14.1326, 32.5814, 38.016, 83.4296, -104.258
8.20161, 64, -10.1255, -14.0508, 32.4509, 37.8663, 83.4669, -104.093
8.20716, 64, -10.0039, -14.0096, 32.3854, 37.7907, 83.4862, -104.01
8.21617, 65, -9.76095, -13.9265, 32.2538, 37.638, 83.5251, -103.844
8.2241, 65, -9.51825, -13.8425, 32.1214, 37.4832, 83.5637, -103.678
8.23117, 65, -9.27547, -13.7575, 31.9884, 37.3265, 83.6033, -103.512
8.24174, 65, -8.90939, -13.6283, 31.7876, 37.0874, 83.6653, -103.262
8.24817, 65, -8.78645, -13.5847, 31.7204, 37.0066, 83.6861, -103.178
8.25619, 66, -8.539, -13.497, 31.5854, 36.8434, 83.7278, -103.012
8.26417, 66, -8.29016, -13.4084, 31.4496, 36.6784, 83.7711, -102.844
8.2723, 66, -8.04044, -13.3188, 31.3131, 36.5113, 83.8154, -102.677
8.28018, 66, -7.78895, -13.2283, 31.1758, 36.3422, 83.8595, -102.509
8.28817, 66, -7.53507, -13.1369, 31.0381, 36.171, 83.9047, -102.341
8.29853, 67, -7.15113, -12.998, 30.8305, 35.9099, 83.9747, -102.088
8.3042, 67, -7.02275, -12.9511, 30.7609, 35.8219, 83.9981, -102.003
8.31217, 67, -6.76588, -12.8568, 30.6212, 35.6444, 84.046, -101.834
8.32019, 67, -6.5092, -12.7615, 30.4808, 35.4647, 84.0954, -101.665
8.32815, 67, -6.25269, -12.6651, 30.34, 35.2829, 84.1447, -101.495
8.33624, 67, -5.99557, -12.5678, 30.1988, 35.0989, 84.1952, -101.324
8.34431, 68, -5.73714, -12.4697, 30.057, 34.9131, 84.2471, -101.154
8.35328, 68, -5.47741, -12.3705, 29.9144, 34.7252, 84.2989, -100.983
8.35916, 68, -5.21679, -12.2704, 29.7713, 34.5351, 84.3526, -100.812
8.36827, 68, -4.95473, -12.1692, 29.6279, 34.343, 84.4071, -100.641
8.37516, 68, -4.69056, -12.0671, 29.4839, 34.1489, 84.4617, -100.469
8.38325, 68, -4.42432, -11.9641, 29.3395, 33.9528, 84.5183, -100.297
8.39117, 69, -4.15619, -11.8601, 29.1946, 33.7549, 84.5751, -100.124
8.40099, 69, -3.88677, -11.7552, 29.0495, 33.5546, 84.6331, -99.9514
8.40823, 69, -3.61699, -11.6496, 28.9041, 33.3525, 84.6926, -99.7785
8.41523, 69, -3.34761, -11.5428, 28.7582, 33.1486, 84.7518, -99.605
8.42331, 69, -3.07804, -11.435, 28.6117, 32.9429, 84.8132, -99.4313
8.43132, 70, -2.80735, -11.3262, 28.4649, 32.7351, 84.8747, -99.2569
8.43926, 70, -2.53583, -11.2164, 28.318, 32.5253, 84.9378, -99.0825
8.44747, 70, -2.26356, -11.1058, 28.1709, 32.3139, 85.0015, -98.9077
8.45623, 70, -1.99047, -10.9944, 28.0234, 32.1005, 85.0657, -98.7327
8.46386, 70, -1.71627, -10.8822, 27.8756, 31.8853, 85.1318, -98.5576
8.48028, 71, -1.16274, -10.6543, 27.58, 31.4495, 85.2661, -98.206
8.48302, 71, -1.16274, -10.6543, 27.58, 31.4495, 85.2661, -98.1178
8.48802, 71, -0.882807, -10.539, 27.4321, 31.2291, 85.3341, -98.0297
8.49624, 71, -0.602495, -10.4229, 27.2838, 31.0065, 85.4042, -97.8532
8.50337, 71, -0.322137, -10.3059, 27.1354, 30.7824, 85.4745, -97.6763
8.51146, 71, -0.0413283, -10.1881, 26.9871, 30.5568, 85.5465, -97.4994
8.51971, 72, 0.240311, -10.0693, 26.8387, 30.3295, 85.6187, -97.3218
8.52818, 72, 0.522652, -9.94943, 26.6903, 30.1005, 85.6924, -97.1437
8.53567, 72, 0.805747, -9.82868, 26.5417, 29.87, 85.7668, -96.9653
8.54425, 72, 1.08912, -9.70704, 26.3934, 29.6381, 85.8426, -96.7868
8.5526, 72, 1.37277, -9.58458, 26.2452, 29.4047, 85.9187, -96.6081
8.55971, 72, 1.65802, -9.46128, 26.0969, 29.1696, 85.9962, -96.4292
8.56847, 73, 1.94508, -9.33708, 25.9488, 28.9334, 86.0746, -96.2501
8.57752, 73, 2.23318, -9.2117, 25.8007, 28.6957, 86.1542, -96.0704
8.58376, 73, 2.37738, -9.14864, 25.7269, 28.5762, 86.2345, -95.8904
8.59281, 73, 2.81054, -8.95815, 25.5057, 28.216, 86.3162, -95.7101
8.60018, 73, 3.09987, -8.82998, 25.3582, 27.9745, 86.3991, -95.5294
8.60718, 74, 3.2449, -8.76559, 25.2845, 27.8534, 86.4408, -95.4391
8.61729, 74, 3.68143, -8.5708, 25.064, 27.4877, 86.5676, -95.1673
8.62334, 74, 3.82716, -8.50526, 24.9907, 27.3651, 86.6103, -95.0765
8.63124, 74, 4.11832, -8.37354, 24.8444, 27.1193, 86.6969, -94.8944
8.64329, 74, 4.55545, -8.1741, 24.6251, 26.7488, 86.8286, -94.6208
8.64731, 74, 4.70162, -8.10722, 24.5522, 26.6248, 86.8732, -94.5294
8.65536, 75, 4.99458, -7.97288, 24.4067, 26.3762, 86.963, -94.3463
8.66316, 75, 5.28856, -7.83739, 24.2617, 26.1267, 87.054, -94.1633
8.67307, 75, 5.73005, -7.63196, 24.045, 25.7508, 87.1929, -93.8877
8.68148, 75, 6.02398, -7.49374, 23.9008, 25.4995, 87.2872, -93.7035
8.68716, 75, 6.17104, -7.42427, 23.8289, 25.3736, 87.3345, -93.6112
8.6972, 76, 6.61386, -7.21456, 23.6141, 24.9947, 87.4786, -93.3341
8.70319, 76, 6.76177, -7.14402, 23.5429, 24.8681, 87.5274, -93.2415
8.71115, 76, 7.05728, -7.00205, 23.4005, 24.6146, 87.6256, -93.0563
8.72101, 76, 7.35233, -6.85902, 23.2586, 24.3607, 87.7251, -92.777
8.72716, 76, 7.64744, -6.71483, 23.1172, 24.1062, 87.826, -92.6837
8.73521, 76, 7.94316, -6.56984, 22.9764, 23.8512, 87.9282, -92.4967
8.74436, 77, 8.23982, -6.42393, 22.8363, 23.5962, 88.0317, -92.3094
8.75112, 77, 8.53668, -6.27652, 22.6968, 23.3407, 88.1367, -92.1219
8.75921, 77, 8.83258, -6.1279, 22.5578, 23.085, 88.2426, -91.9341
8.76745, 77, 9.12802, -5.97815, 22.4195, 22.8297, 88.3502, -91.7458
8.77515, 77, 9.42414, -5.82746, 22.2818, 22.5743, 88.4591, -91.5567
8.78311, 78, 9.7208, -5.67564, 22.1449, 22.3188, 88.5689, -91.3674
8.79216, 78, 10.0171, -5.52225, 22.0086, 22.0635, 88.6805, -91.1774
8.80152, 78, 10.3127, -5.36756, 21.8052, 21.6809, 88.8498, -90.892
8.80715, 78, 10.6074, -5.21181, 21.7378, 21.5535, 88.907, -90.7966
8.81873, 78, 11.0497, -4.97664, 21.5367, 21.172, 89.0807, -90.5094
8.8244, 78, 11.1974, -4.89768, 21.47, 21.0451, 89.1391, -90.4133
8.83215, 79, 11.4926, -4.73851, 21.3373, 20.7914, 89.2572, -90.2208
8.84015, 79, 11.7869, -4.57811, 21.2052, 20.5381, 89.3766, -90.028
8.85023, 79, 12.2267, -4.33597, 21.0084, 20.1596, 89.5581, -89.738
8.85521, 79, 12.3732, -4.25475, 20.9432, 20.0338, 89.6194, -89.641
8.86314, 79, 12.6657, -4.09093, 20.8134, 19.7827, 89.7428, -89.4467
8.87128, 80, 12.9577, -3.92535, 20.6844, 19.5325, 89.8678, -89.2517
8.87922, 80, 13.2486, -3.75847, 20.5562, 19.2832, 89.994, -89.0561
8.88718, 80, 13.5383, -3.59078, 20.4287, 19.0349, 90.1216, -88.8601
8.89521, 80, 13.8276, -3.42192, 20.302, 18.7875, 90.2507, -88.6636
8.90329, 80, 14.1174, -3.25117, 20.1761, 18.5414, 90.3811, -88.4662
8.91117, 80, 14.4068, -3.07875, 20.0512, 18.2966, 90.513, -88.2681
8.91943, 81, 14.6949, -2.90542, 19.927, 18.0526, 90.6462, -88.0692
8.92822, 81, 14.9817, -2.73134, 19.8035, 17.8102, 90.781, -87.8699
8.93526, 81, 15.2674, -2.55547, 19.6807, 17.5693, 90.9169, -87.6701
8.94326, 81, 15.5521, -2.37767, 19.5588, 17.3297, 91.0546, -87.4697
8.95125, 81, 15.8362, -2.19861, 19.4377, 17.0914, 91.1935, -87.2686
8.95932, 82, 16.119, -2.01903, 19.3174, 16.8548, 91.334, -87.0665
8.96746, 82, 16.3997, -1.83823, 19.1978, 16.6198, 91.4761, -86.8638
8.97612, 82, 16.6793, -1.6551, 19.0787, 16.3864, 91.6197, -86.6601
8.98326, 82, 16.9588, -1.47017, 18.9606, 16.155, 91.7646, -86.4563
8.99326, 82, 17.2379, -1.28448, 18.8434, 15.9254, 91.9112, -86.2512
8.99945, 82, 17.516, -1.09744, 18.7271, 15.6979, 92.059, -86.0452
9.01025, 83, 17.7926, -0.908111, 18.6114, 15.4722, 92.2087, -85.8383
9.01806, 83, 18.067, -0.716953, 18.4963, 15.2484, 92.3596, -85.6308
9.02414, 83, 18.3394, -0.524952, 18.3818, 15.0271, 92.5124, -85.4225
9.03234, 83, 18.6104, -0.33173, 18.2682, 14.8078, 92.6663, -85.2136
9.03956, 83, 18.8799, -0.136538, 18.1556, 14.5905, 92.8221, -85.0036
9.05421, 84, 19.2803, 0.158788, 17.9879, 14.2689, 93.0582, -84.6867
9.05789, 84, 19.4128, 0.25773, 17.9324, 14.1629, 93.1378, -84.5808
9.06425, 84, 19.6774, 0.456996, 17.8214, 13.9529, 93.2977, -84.3683
9.07235, 84, 19.9414, 0.658431, 17.7112, 13.7449, 93.4591, -84.155
9.07972, 84, 20.0732, 0.75975, 17.602, 13.5395, 93.622, -83.9405
9.08815, 84, 20.4671, 1.06496, 17.4937, 13.3368, 93.7864, -83.7248
9.09597, 85, 20.5976, 1.16743, 17.4399, 13.2364, 93.952, -83.5085
9.10315, 85, 20.8568, 1.37395, 17.3327, 13.0376, 94.0352, -83.4
9.11224, 85, 21.2406, 1.68658, 17.1727, 12.744, 94.287, -83.0733
9.1192, 85, 21.3675, 1.79139, 17.1197, 12.6476, 94.3715, -82.964
9.12713, 85, 21.6201, 2.00242, 17.0144, 12.457, 94.5416, -82.7443
9.13637, 86, 21.9948, 2.32223, 16.8584, 12.1764, 94.799, -82.4132
9.14328, 86, 22.1183, 2.4291, 16.8068, 12.0842, 94.8855, -82.3023
9.15119, 86, 22.364, 2.64378, 16.7041, 11.9019, 95.0594, -82.0801
9.16062, 86, 22.7302, 2.96937, 16.5511, 11.6343, 95.3225, -81.745
9.16875, 86, 22.973, 3.18784, 16.45, 11.4597, 95.4993, -81.5202
9.17665, 86, 23.0941, 3.2976, 16.3998, 11.3734, 95.588, -81.2944
9.18475, 87, 23.4552, 3.62979, 16.2512, 11.1191, 95.8559, -81.0681
9.19369, 87, 23.6929, 3.85254, 16.1532, 10.9534, 96.0357, -80.8413
9.19919, 87, 23.8105, 3.96402, 16.1045, 10.8718, 96.1258, -80.7274
9.20959, 87, 24.1592, 4.30032, 15.9593, 10.6315, 96.3973, -80.3843
9.21513, 87, 24.2743, 4.41299, 15.9113, 10.553, 96.488, -80.2696
9.22336, 88, 24.5031, 4.63846, 15.8161, 10.3982, 96.67, -80.0398
9.23218, 88, 24.7293, 4.86464, 15.722, 10.2463, 96.8525, -79.8093
9.23913, 88, 24.9534, 5.09235, 15.629, 10.0978, 97.0354, -79.578
9.24714, 88, 25.1756, 5.32071, 15.5372, 9.95223, 97.2187, -79.3456
9.25523, 88, 25.3964, 5.54935, 15.4462, 9.81014, 97.4023, -79.1127
9.26317, 88, 25.6152, 5.77917, 15.356, 9.67109, 97.5861, -78.8793
9.27132, 89, 25.8324, 6.00971, 15.2668, 9.53537, 97.7701, -78.6455
9.28013, 89, 26.048, 6.24055, 15.1787, 9.40246, 97.9541, -78.4108
9.28816, 89, 26.2616, 6.47259, 15.0919, 9.27297, 98.1383, -78.1753
9.29843, 89, 26.5778, 6.82207, 14.9638, 9.08465, 98.4149, -77.8212
9.30323, 89, 26.6821, 6.93852, 14.9216, 9.02361, 98.5073, -77.7029
9.31114, 90, 26.8888, 7.17204, 14.8381, 8.90388, 98.6917, -77.4661
9.31935, 90, 27.0932, 7.40635, 14.7556, 8.78723, 98.8764, -77.2283
9.3271, 90, 27.2953, 7.64074, 14.6743, 8.67388, 99.0606, -76.9899
9.33512, 90, 27.4949, 7.87608, 14.5939, 8.56357, 99.2449, -76.7511
9.3432, 90, 27.692, 8.11262, 14.5147, 8.45635, 99.4288, -76.512
9.35114, 90, 27.8871, 8.34893, 14.4366, 8.35235, 99.6125, -76.2724
9.35913, 91, 28.0803, 8.58508, 14.3596, 8.25159, 99.7962, -76.032
9.36734, 91, 28.2715, 8.82189, 14.2837, 8.15409, 99.9795, -75.791
9.37531, 91, 28.4609, 9.05875, 14.2089, 8.06002, 100.163, -75.5495
9.38314, 91, 28.6489, 9.29593, 14.1352, 7.96896, 100.346, -75.3079
9.39149, 91, 28.8349, 9.53418, 14.0623, 7.88099, 100.529, -75.0652
9.39913, 92, 29.019, 9.77267, 13.9904, 7.79626, 100.711, -74.8218
9.40732, 92, 29.201, 10.011, 13.9195, 7.71454, 100.894, -74.578
9.41706, 92, 29.3809, 10.2501, 13.8495, 7.63592, 101.076, -74.3335
9.4232, 92, 29.5589, 10.4894, 13.7806, 7.56067, 101.258, -74.0886
9.43129, 92, 29.7347, 10.729, 13.7126, 7.48847, 101.44, -73.8426
9.43947, 93, 29.9083, 10.9696, 13.6455, 7.41935, 101.622, -73.596
9.44724, 93, 30.0796, 11.2106, 13.5794, 7.35376, 101.803, -73.3486
9.45529, 93, 30.2483, 11.4511, 13.5141, 7.29104, 101.985, -73.1007
9.46319, 93, 30.4145, 11.6924, 13.4498, 7.23247, 102.166, -72.8517
9.47214, 93, 30.5785, 11.9342, 13.3862, 7.17587, 102.347, -72.6016
9.47915, 93, 30.7405, 12.1763, 13.3236, 7.12358, 102.528, -72.3511
9.48717, 94, 30.9005, 12.4198, 13.2618, 7.0743, 102.709, -72.0999
9.49622, 94, 31.0588, 12.6641, 13.2009, 7.02727, 102.889, -71.8481
9.50324, 94, 31.2152, 12.9083, 13.1409, 6.98466, 103.07, -71.5951
9.51139, 94, 31.3696, 13.1527, 13.0818, 6.94517, 103.25, -71.3413
9.51943, 94, 31.5224, 13.3974, 13.0236, 6.90804, 103.429, -71.0867
9.52742, 94, 31.6733, 13.6417, 12.9664, 6.87414, 103.609, -70.8316
9.53615, 95, 31.8223, 13.8866, 12.91, 6.84407, 103.788, -70.5754
9.54399, 95, 31.9697, 14.132, 12.8546, 6.81723, 103.966, -70.3186
9.55222, 95, 32.1153, 14.3769, 12.8001, 6.79343, 104.144, -70.061
9.5605, 95, 32.2591, 14.6221, 12.7465, 6.77226, 104.321, -69.8028
9.56778, 95, 32.4007, 14.8673, 12.6939, 6.75406, 104.498, -69.544
9.57631, 96, 32.5401, 15.1119, 12.6424, 6.73875, 104.674, -69.2842
9.58448, 96, 32.6089, 15.2343, 12.617, 6.72666, 104.849, -69.0237
9.59198, 96, 32.7447, 15.4797, 12.5669, 6.71779, 105.023, -68.7629
9.60019, 96, 32.9449, 15.8472, 12.4937, 6.71212, 105.197, -68.5014
9.60716, 96, 33.0107, 15.9694, 12.4699, 6.71036, 105.283, -68.3703
9.61621, 97, 33.2048, 16.3364, 12.3999, 6.70817, 105.541, -67.9763
9.62311, 97, 33.2684, 16.4585, 12.3772, 6.70836, 105.626, -67.845
9.63234, 97, 33.456, 16.8246, 12.3108, 6.71381, 105.881, -67.4502
9.63916, 97, 33.5176, 16.947, 12.2891, 6.71735, 105.966, -67.3182
9.64712, 97, 33.6396, 17.1913, 12.2466, 6.72666, 106.134, -67.0539
9.65516, 97, 33.7605, 17.4348, 12.2051, 6.73936, 106.301, -66.7891
9.66468, 98, 33.9391, 17.7998, 12.145, 6.76463, 106.55, -66.3914
9.67354, 98, 34.0563, 18.0422, 12.1064, 6.78508, 106.714, -66.1254
9.67926, 98, 34.1143, 18.1633, 12.0874, 6.79619, 106.796, -65.9922
9.68898, 98, 34.2858, 18.5273, 12.032, 6.83322, 107.04, -65.5921
9.6967, 98, 34.3982, 18.769, 11.9964, 6.86126, 107.201, -65.325
9.70345, 99, 34.4539, 18.8896, 11.9789, 6.87654, 107.281, -65.1912
9.71112, 99, 34.5645, 19.1309, 11.9448, 6.90958, 107.441, -64.9231
9.72012, 99, 34.6736, 19.3716, 11.9118, 6.94485, 107.599, -64.6546
9.72812, 99, 34.7812, 19.6115, 11.8798, 6.982, 107.757, -64.3857
9.73612, 99, 34.8869, 19.8514, 11.8488, 7.02178, 107.913, -64.1164
9.74415, 99, 34.9906, 20.0907, 11.8189, 7.06489, 108.067, -63.8465
9.75216, 100, 35.0926, 20.3286, 11.7902, 7.10951, 108.221, -63.5764
9.76302, 100, 35.243, 20.684, 11.7492, 7.18153, 108.448, -63.1715
9.76817, 100, 35.2924, 20.802, 11.7361, 7.20689, 108.523, -63.0365
9.77611, 100, 35.3903, 21.0371, 11.711, 7.25833, 108.671, -62.7665
9.78312, 100, 35.4868, 21.2717, 11.6871, 7.31195, 108.818, -62.4965
9.79107, 101, 35.5819, 21.5058, 11.6647, 7.36838, 108.962, -62.2274
9.80011, 101, 35.6755, 21.738, 11.6436, 7.4256, 109.104, -61.9589
9.80716, 101, 35.7679, 21.9687, 11.6239, 7.48567, 109.244, -61.6909
9.81511, 101, 35.8591, 22.1982, 11.6058, 7.54671, 109.381, -61.4239
9.82411, 101, 35.9493, 22.4254, 11.589, 7.60973, 109.515, -61.1581
9.83111, 101, 36.0387, 22.6507, 11.5736, 7.67456, 109.647, -60.8935
9.8391, 102, 36.1271, 22.8751, 11.5598, 7.74049, 109.776, -60.6299
9.84813, 102, 36.2144, 23.0978, 11.5472, 7.80852, 109.902, -60.3672
9.85617, 102, 36.3004, 23.3187, 11.536, 7.87722, 110.026, -60.1053
9.86411, 102, 36.3854, 23.539, 11.5257, 7.94816, 110.147, -59.8443
9.87117, 102, 36.4695, 23.7589, 11.5164, 8.02007, 110.267, -59.5833
9.87908, 103, 36.5523, 23.9779, 11.5081, 8.09437, 110.386, -59.322
9.88711, 103, 36.6344, 24.1967, 11.5005, 8.17021, 110.504, -59.0601
9.8952, 103, 36.7156, 24.415, 11.4936, 8.24867, 110.622, -58.7974
9.90312, 103, 36.796, 24.6308, 11.4874, 8.32931, 110.739, -58.534
9.91127, 103, 36.8758, 24.8435, 11.4822, 8.41218, 110.855, -58.2699
9.91922, 103, 36.9545, 25.0538, 11.4782, 8.49722, 110.969, -58.0064
9.92719, 104, 37.0325, 25.2615, 11.4756, 8.58412, 111.079, -57.7449
9.9352, 104, 37.1094, 25.4659, 11.4748, 8.67261, 111.183, -57.487
9.94331, 104, 37.1852, 25.6682, 11.476, 8.76185, 111.281, -57.233
9.95126, 104, 37.2598, 25.8689, 11.4797, 8.85202, 111.372, -56.9837
9.95922, 104, 37.3335, 26.0666, 11.4855, 8.94278, 111.456, -56.7393
9.96729, 104, 37.4065, 26.2604, 11.4929, 9.03395, 111.535, -56.499
9.97516, 104, 37.4788, 26.4515, 11.5018, 9.12598, 111.609, -56.262
9.98314, 104, 37.5507, 26.64, 11.5116, 9.21876, 111.681, -56.0269
9.99127, 104, 37.6223, 26.8254, 11.5218, 9.31216, 111.751, -55.7933
9.99917, 104, 37.6932, 27.0084, 11.5323, 9.40666, 111.819, -55.5606
10.0072, 104, 37.7638, 27.1909, 11.543, 9.50188, 111.887, -55.3288
10.0154, 104, 37.8339, 27.3731, 11.5535, 9.5978, 111.954, -55.0973
10.0234, 104, 37.9037, 27.5547, 11.5642, 9.69457, 112.022, -54.866
10.0316, 104, 37.973, 27.736, 11.5746, 9.79227, 112.088, -54.6353
10.0396, 104, 38.0422, 27.9181, 11.585, 9.89049, 112.155, -54.4049
10.0475, 104, 38.1112, 28.1007, 11.5954, 9.98957, 112.221, -54.1751
10.0562, 104, 38.1799, 28.2831, 11.6057, 10.0899, 112.287, -53.9455
10.0637, 104, 38.2485, 28.4656, 11.6161, 10.1908, 112.353, -53.716
10.0723, 104, 38.3166, 28.6491, 11.6264, 10.2928, 112.419, -53.4871
10.0797, 104, 38.3844, 28.8331, 11.6366, 10.3956, 112.484, -53.2586
10.0882, 104, 38.4518, 29.0168, 11.6468, 10.499, 112.549, -53.0306
10.0956, 104, 38.4854, 29.1085, 11.6519, 10.5511, 112.582, -52.9165
10.1046, 104, 38.5857, 29.3843, 11.667, 10.7084, 112.679, -52.5749
10.1121, 104, 38.6519, 29.5686, 11.677, 10.8142, 112.744, -52.3476
10.1191, 104, 38.6849, 29.6606, 11.6819, 10.8674, 112.776, -52.2342
10.1282, 104, 38.7833, 29.9361, 11.6965, 11.0282, 112.872, -51.8945
10.1351, 104, 38.8159, 30.0282, 11.7014, 11.0823, 112.905, -51.7814
10.1444, 104, 38.9129, 30.3051, 11.7157, 11.2459, 113, -51.4421
10.1512, 104, 38.945, 30.3973, 11.7205, 11.3008, 113.032, -51.3293
10.1592, 104, 39.0087, 30.5809, 11.73, 11.411, 113.095, -51.1038
10.1686, 104, 39.1017, 30.8532, 11.7437, 11.5774, 113.19, -50.7671
10.1767, 104, 39.1611, 31.0302, 11.7523, 11.6882, 113.252, -50.5445
10.1846, 104, 39.2182, 31.2005, 11.7603, 11.798, 113.313, -50.3256
10.1927, 104, 39.2728, 31.3629, 11.7677, 11.9051, 113.373, -50.1132
10.2007, 104, 39.3248, 31.5168, 11.7745, 12.0079, 113.429, -49.9109
10.2087, 104, 39.3735, 31.6602, 11.7807, 12.1044, 113.483, -49.7223
10.2168, 104, 39.4186, 31.7918, 11.7865, 12.1925, 113.531, -49.5508
10.2247, 104, 39.4397, 31.8531, 11.7893, 12.2332, 113.552, -49.3991
10.2321, 104, 39.4785, 31.9664, 11.7945, 12.3058, 113.591, -49.3314
10.2401, 104, 39.513, 32.0664, 11.7995, 12.3681, 113.624, -49.2122
10.2481, 104, 39.5424, 32.152, 11.8041, 12.4185, 113.651, -49.1148
10.2561, 104, 39.5669, 32.2232, 11.8083, 12.458, 113.672, -49.0375
10.2642, 104, 39.587, 32.2812, 11.8122, 12.4886, 113.687, -48.9792
10.2711, 104, 39.6024, 32.3274, 11.8157, 12.5109, 113.698, -48.9369
10.2792, 104, 39.6136, 32.3626, 11.8187, 12.5265, 113.706, -48.9078
10.2871, 104, 39.6214, 32.3885, 11.8211, 12.5367, 113.711, -48.8888
10.2951, 104, 39.6266, 32.4071, 11.823, 12.5429, 113.713, -48.8775
10.3041, 104, 39.6303, 32.4198, 11.8244, 12.5464, 113.715, -48.8712
10.3112, 105, 39.6329, 32.4278, 11.8255, 12.5482, 113.716, -48.8681
10.3191, 105, 39.6338, 32.4326, 11.8263, 12.5491, 113.716, -48.8667
10.3281, 105, 39.6334, 32.4354, 11.827, 12.5495, 113.716, -48.8661
10.3362, 105, 39.6326, 32.437, 11.8275, 12.5497, 113.716, -48.8659
10.3441, 105, 39.6318, 32.4381, 11.8279, 12.5498, 113.716, -48.8658
10.3521, 105, 39.6314, 32.4392, 11.8283, 12.5498, 113.716, -48.8658
10.3591, 105, 39.6313, 32.4402, 11.8287, 12.5499, 113.716, -48.8659
10.3671, 105, 39.6314, 32.4411, 11.8292, 12.5499, 113.716, -48.8661
10.3752, 105, 39.6319, 32.4419, 11.8296, 12.5498, 113.716, -48.8661
10.3831, 105, 39.6325, 32.4426, 11.83, 12.5499, 113.716, -48.8664
10.3911, 105, 39.6332, 32.4432, 11.8303, 12.5499, 113.716, -48.8666
10.3992, 105, 39.6337, 32.4436, 11.8306, 12.5499, 113.716, -48.8668
10.4071, 105, 39.6347, 32.4438, 11.8307, 12.5499, 113.716, -48.8668
10.4151, 105, 39.6358, 32.444, 11.8308, 12.55, 113.716, -48.8669
10.4232, 105, 39.6366, 32.4442, 11.8308, 12.5499, 113.716, -48.8669
