hehonglu123/Motion-Primitive-Planning/realrobot/recorded_data/repeatability/from_NX/v800_iteration3.csv
timestamp, cmd_num, J1, J2, J3, J4, J5, J6
0.000377, -1, 39.6332, 32.4436, 11.8321, 12.5484, 113.715, -48.8695
0.004335, -1, 39.6332, 32.4436, 11.8321, 12.5484, 113.715, -48.8695
0.007743, -1, 39.6332, 32.4436, 11.8321, 12.5484, 113.715, -48.8695
0.030325, -1, 39.6333, 32.4436, 11.8321, 12.5483, 113.715, -48.8695
0.031685, -1, 39.6332, 32.4436, 11.8321, 12.5483, 113.715, -48.8695
0.034493, -1, 39.6332, 32.4436, 11.8321, 12.5483, 113.715, -48.8695
0.039525, -1, 39.6332, 32.4436, 11.8321, 12.5483, 113.715, -48.8696
0.047601, -1, 39.6332, 32.4436, 11.8322, 12.5483, 113.716, -48.8696
0.201714, -1, 38.2564, 31.7409, 12.1054, 12.5598, 112.994, -50.7125
0.202947, -1, 38.2564, 31.7409, 12.1054, 12.5598, 112.994, -50.7125
0.205175, -1, 38.1679, 31.6947, 12.1249, 12.561, 112.945, -50.8387
0.206437, -1, 38.1679, 31.6947, 12.1249, 12.561, 112.945, -50.8387
0.208434, -1, 38.078, 31.6478, 12.1444, 12.5622, 112.894, -50.9658
0.209712, -1, 38.078, 31.6478, 12.1444, 12.5622, 112.894, -50.9658
0.210892, -1, 38.078, 31.6478, 12.1444, 12.5622, 112.894, -50.9658
0.216174, -1, 37.8945, 31.5525, 12.1833, 12.5646, 112.793, -51.2226
0.217562, -1, 37.8945, 31.5525, 12.1833, 12.5646, 112.793, -51.2226
0.21892, -1, 37.8945, 31.5525, 12.1833, 12.5646, 112.793, -51.2226
0.220879, -1, 37.8011, 31.5042, 12.2027, 12.5657, 112.742, -51.3516
0.222151, -1, 37.8011, 31.5042, 12.2027, 12.5657, 112.742, -51.3516
0.223966, -1, 37.7069, 31.4557, 12.2221, 12.5669, 112.691, -51.481
0.2266, -1, 37.7069, 31.4557, 12.2221, 12.5669, 112.691, -51.481
0.228694, -1, 37.6121, 31.4069, 12.2415, 12.5681, 112.639, -51.6106
0.230221, -1, 37.6121, 31.4069, 12.2415, 12.5681, 112.639, -51.6106
0.232097, -1, 37.5167, 31.358, 12.2609, 12.5693, 112.588, -51.7404
0.233476, -1, 37.5167, 31.358, 12.2609, 12.5693, 112.588, -51.7404
0.234782, -1, 37.5167, 31.358, 12.2609, 12.5693, 112.588, -51.7404
0.237593, -1, 37.421, 31.3091, 12.2802, 12.5706, 112.537, -51.8701
0.238888, -1, 37.421, 31.3091, 12.2802, 12.5706, 112.537, -51.8701
0.240933, -1, 37.3251, 31.2601, 12.2996, 12.5718, 112.485, -51.9998
0.244305, -1, 37.2291, 31.2112, 12.3191, 12.5729, 112.434, -52.1297
0.245679, -1, 37.2291, 31.2112, 12.3191, 12.5729, 112.434, -52.1297
0.248094, -1, 37.2291, 31.1623, 12.3385, 12.5742, 112.383, -52.2596
0.256182, -1, 36.9407, 31.0646, 12.3772, 12.5768, 112.28, -52.5197
0.264088, -1, 36.8447, 31.0157, 12.3965, 12.5781, 112.228, -52.6498
0.271518, -1, 36.6531, 30.918, 12.4354, 12.5806, 112.125, -52.9102
0.279594, -1, 36.4615, 30.8204, 12.4742, 12.5833, 112.022, -53.1704
0.287515, -1, 36.27, 30.7227, 12.5131, 12.5859, 111.919, -53.4308
0.29552, -1, 36.0783, 30.6248, 12.5519, 12.5885, 111.817, -53.6913
0.303676, -1, 35.8869, 30.5268, 12.5909, 12.5912, 111.713, -53.9519
0.311592, -1, 35.6953, 30.4288, 12.6297, 12.5937, 111.61, -54.2123
0.319511, -1, 35.5033, 30.3307, 12.6686, 12.5963, 111.507, -54.4727
0.327519, -1, 35.3111, 30.2324, 12.7074, 12.599, 111.404, -54.7331
0.335515, -1, 35.1187, 30.1342, 12.7462, 12.6015, 111.301, -54.9937
0.343576, -1, 34.9263, 30.0358, 12.7852, 12.6042, 111.198, -55.2545
0.351517, -1, 34.7341, 29.9373, 12.824, 12.6067, 111.095, -55.515
0.359547, -1, 34.5417, 29.8387, 12.8628, 12.6093, 110.992, -55.7759
0.36762, -1, 34.3494, 29.7403, 12.9018, 12.6119, 110.889, -56.0367
0.375516, -1, 34.1573, 29.642, 12.9407, 12.6146, 110.786, -56.2976
0.383511, -1, 33.9655, 29.5438, 12.9797, 12.6172, 110.683, -56.5584
0.392508, -1, 33.7738, 29.4454, 13.0186, 12.6199, 110.58, -56.8191
0.39953, -1, 33.5819, 29.3471, 13.0574, 12.6226, 110.476, -57.0801
0.40851, -1, 33.3897, 29.2488, 13.0964, 12.6252, 110.373, -57.3414
0.415577, -1, 33.1971, 29.1502, 13.1353, 12.6278, 110.27, -57.6022
0.423548, -1, 33.0045, 29.0516, 13.1741, 12.6305, 110.167, -57.8632
0.431582, -1, 32.8116, 28.9531, 13.2131, 12.6332, 110.064, -58.1244
0.439577, -1, 32.6182, 28.8545, 13.252, 12.6359, 109.961, -58.3857
0.447558, -1, 32.4245, 28.7558, 13.2908, 12.6386, 109.858, -58.6469
0.455577, -1, 32.2307, 28.6571, 13.3297, 12.6413, 109.755, -58.9078
0.463495, -1, 32.0366, 28.5584, 13.3686, 12.644, 109.652, -59.1689
0.471516, -1, 31.8427, 28.4595, 13.4074, 12.6467, 109.549, -59.4304
0.479579, -1, 31.649, 28.3607, 13.4465, 12.6494, 109.446, -59.6918
0.487615, -1, 31.4555, 28.262, 13.4855, 12.6523, 109.342, -59.9529
0.495538, -1, 31.2624, 28.1634, 13.5244, 12.655, 109.239, -60.2142
0.503575, -1, 31.0698, 28.065, 13.5635, 12.6579, 109.136, -60.4756
0.511507, -1, 30.8775, 27.9664, 13.6025, 12.6607, 109.033, -60.737
0.51952, -1, 30.6855, 27.8679, 13.6414, 12.6636, 108.93, -60.9983
0.527574, -1, 30.4935, 27.7693, 13.6804, 12.6664, 108.827, -61.2597
0.535519, -1, 30.3015, 27.6706, 13.7194, 12.6692, 108.723, -61.5213
0.543612, -1, 30.1093, 27.5719, 13.7584, 12.6718, 108.62, -61.7831
0.551514, -1, 29.9167, 27.4731, 13.7974, 12.6746, 108.517, -62.0445
0.559545, -1, 29.7237, 27.3744, 13.8363, 12.6772, 108.414, -62.3062
0.567582, -1, 29.5301, 27.2756, 13.8751, 12.6798, 108.311, -62.5679
0.575525, -1, 29.336, 27.1768, 13.9141, 12.6824, 108.207, -62.8298
0.58352, -1, 29.1419, 27.078, 13.9531, 12.685, 108.104, -63.0914
0.592058, -1, 28.9475, 26.979, 13.9921, 12.6874, 108.001, -63.3528
0.59964, -1, 28.7532, 26.8801, 14.031, 12.69, 107.897, -63.6144
0.60761, -1, 28.559, 26.7813, 14.07, 12.6924, 107.794, -63.876
0.615678, -1, 28.3651, 26.6825, 14.1091, 12.6948, 107.69, -64.1378
0.623616, -1, 28.1718, 26.5838, 14.1481, 12.6973, 107.587, -64.3993
0.631712, -1, 27.9788, 26.4849, 14.187, 12.6998, 107.484, -64.661
0.639529, -1, 27.786, 26.3861, 14.2261, 12.7021, 107.38, -64.9228
0.647512, -1, 27.5934, 26.2873, 14.265, 12.7045, 107.277, -65.1844
0.785998, -1, 24.3087, 24.6069, 14.9275, 12.744, 105.522, -69.6336
0.78727, -1, 24.3087, 24.6069, 14.9275, 12.744, 105.522, -69.6336
0.789217, -1, 24.2125, 24.5575, 14.947, 12.7452, 105.47, -69.7643
0.790521, -1, 24.2125, 24.5575, 14.947, 12.7452, 105.47, -69.7643
0.792337, -1, 24.2125, 24.5575, 14.947, 12.7452, 105.418, -69.8951
0.793774, -1, 24.1162, 24.5081, 14.9665, 12.7464, 105.418, -69.8951
0.794954, -1, 24.1162, 24.5081, 14.9665, 12.7464, 105.418, -69.8951
0.799627, -1, 24.0199, 24.4587, 14.986, 12.7475, 105.367, -70.0258
0.801761, -1, 23.9235, 24.4093, 15.0055, 12.7487, 105.315, -70.1567
0.803024, -1, 23.9235, 24.4093, 15.0055, 12.7487, 105.315, -70.1567
0.80596, -1, 23.8271, 24.3599, 15.025, 12.7499, 105.263, -70.2875
0.807266, -1, 23.8271, 24.3599, 15.025, 12.7499, 105.263, -70.2875
0.809329, -1, 23.7306, 24.3105, 15.0444, 12.7511, 105.212, -70.4183
0.810519, -1, 23.7306, 24.3105, 15.0444, 12.7511, 105.212, -70.4183
0.811836, -1, 23.7306, 24.3105, 15.0444, 12.7511, 105.212, -70.4183
0.816793, -1, 23.5375, 24.2117, 15.0833, 12.7534, 105.108, -70.6802
0.818321, -1, 23.5375, 24.2117, 15.0833, 12.7534, 105.108, -70.6802
0.819512, -1, 23.5375, 24.2117, 15.0833, 12.7534, 105.108, -70.6802
0.822258, -1, 23.4408, 24.1622, 15.1028, 12.7546, 105.057, -70.8111
0.823441, -1, 23.4408, 24.1622, 15.1028, 12.7546, 105.057, -70.8111
0.825495, -1, 23.344, 24.1128, 15.1223, 12.7559, 105.005, -70.9419
0.826707, -1, 23.344, 24.1128, 15.1223, 12.7559, 105.005, -70.9419
0.833583, -1, 23.1501, 24.0139, 15.1612, 12.7583, 104.901, -71.2036
0.839539, -1, 23.0531, 23.9644, 15.1806, 12.7596, 104.85, -71.3345
0.847498, -1, 22.859, 23.8655, 15.2196, 12.762, 104.746, -71.5965
0.855503, -1, 22.665, 23.7667, 15.2585, 12.7645, 104.643, -71.8583
0.86356, -1, 22.4712, 23.668, 15.2975, 12.767, 104.54, -72.1196
0.871518, -1, 22.2778, 23.5693, 15.3365, 12.7695, 104.436, -72.3811
0.879498, -1, 22.0846, 23.4706, 15.3754, 12.7721, 104.333, -72.6426
0.889076, -1, 21.8915, 23.3719, 15.4144, 12.7747, 104.178, -73.035
0.89554, -1, 21.699, 23.2732, 15.4534, 12.7774, 104.126, -73.1656
0.904505, -1, 21.5069, 23.1745, 15.4923, 12.7801, 104.023, -73.427
0.911571, -1, 21.3147, 23.0758, 15.5312, 12.7828, 103.92, -73.6884
0.919493, -1, 21.1224, 22.9772, 15.5702, 12.7854, 103.817, -73.9501
0.927533, -1, 20.93, 22.8786, 15.6091, 12.7882, 103.714, -74.2113
0.93556, -1, 20.7375, 22.78, 15.6481, 12.7909, 103.611, -74.4724
0.943505, -1, 20.5449, 22.6814, 15.687, 12.7936, 103.507, -74.7338
0.951607, -1, 20.3518, 22.5827, 15.7258, 12.7963, 103.405, -74.9951
0.959491, -1, 20.158, 22.484, 15.7648, 12.799, 103.302, -75.2563
0.967494, -1, 19.9642, 22.3852, 15.8037, 12.8017, 103.198, -75.5174
0.97557, -1, 19.7706, 22.2865, 15.8424, 12.8044, 103.096, -75.7786
0.983504, -1, 19.577, 22.1879, 15.8813, 12.8071, 102.993, -76.0399
0.991489, -1, 19.3835, 22.0893, 15.9202, 12.81, 102.889, -76.3011
0.999568, -1, 19.1905, 21.9906, 15.959, 12.8126, 102.787, -76.5619
1.00749, -1, 18.9977, 21.892, 15.9979, 12.8154, 102.683, -76.8227
1.01549, -1, 18.8052, 21.7934, 16.0367, 12.8181, 102.58, -77.0837
1.02358, -1, 18.6131, 21.6947, 16.0755, 12.8207, 102.478, -77.3446
1.03149, -1, 18.4214, 21.5961, 16.1144, 12.8234, 102.374, -77.6053
1.03948, -1, 18.2295, 21.4976, 16.1533, 12.826, 102.272, -77.866
1.04756, -1, 18.0376, 21.3992, 16.1921, 12.8285, 102.169, -78.1266
1.05549, -1, 17.8458, 21.3008, 16.2311, 12.831, 102.066, -78.3876
1.06354, -1, 17.6538, 21.2025, 16.2699, 12.8334, 101.963, -78.6482
1.07167, -1, 17.4613, 21.1042, 16.3087, 12.8359, 101.86, -78.9087
1.07949, -1, 17.2685, 21.0059, 16.3476, 12.8383, 101.757, -79.1692
1.08759, -1, 17.0754, 20.9076, 16.3863, 12.8407, 101.654, -79.4299
1.09637, -1, 16.8824, 20.8094, 16.4252, 12.8431, 101.551, -79.6905
1.10358, -1, 16.6893, 20.7112, 16.464, 12.8454, 101.448, -79.951
1.11165, -1, 16.4962, 20.613, 16.5027, 12.8477, 101.346, -80.2116
1.12048, -1, 16.3032, 20.5147, 16.5414, 12.85, 101.243, -80.4722
1.1276, -1, 16.111, 20.4164, 16.5802, 12.8523, 101.14, -80.7326
1.13566, -1, 15.919, 20.318, 16.6189, 12.8546, 101.038, -80.9927
1.14441, -1, 15.7273, 20.2195, 16.6577, 12.8569, 100.935, -81.2528
1.15151, -1, 15.536, 20.1211, 16.6963, 12.8594, 100.833, -81.513
1.15971, -1, 15.3448, 20.0228, 16.7349, 12.8617, 100.73, -81.7732
1.16844, -1, 15.1538, 19.9245, 16.7738, 12.8639, 100.627, -82.033
1.1757, -1, 14.9626, 19.8263, 16.8125, 12.8662, 100.525, -82.2928
1.18365, -1, 14.7713, 19.7283, 16.8512, 12.8685, 100.422, -82.5526
1.19263, -1, 14.5798, 19.6301, 16.8899, 12.8707, 100.319, -82.8127
1.20003, -1, 14.3879, 19.532, 16.9286, 12.873, 100.217, -83.0725
1.20855, -1, 14.1957, 19.434, 16.9673, 12.8753, 100.114, -83.3319
1.21591, -1, 14.0034, 19.336, 17.006, 12.8775, 100.012, -83.5916
1.22411, -1, 13.8109, 19.2381, 17.0445, 12.8799, 99.9095, -83.8513
1.23203, -1, 13.6183, 19.1403, 17.0832, 12.8821, 99.8069, -84.1109
1.24004, -1, 13.4259, 19.0424, 17.122, 12.8844, 99.7043, -84.3702
1.24818, -1, 13.234, 18.9446, 17.1604, 12.8868, 99.6022, -84.6293
1.25611, -1, 13.1382, 18.8467, 17.199, 12.8891, 99.4997, -84.8886
1.2641, -1, 12.9467, 18.7977, 17.2184, 12.8914, 99.3973, -85.148
1.27209, -1, 12.7556, 18.6997, 17.2569, 12.8926, 99.3462, -85.4069
1.27948, -1, 12.5648, 18.6019, 17.2954, 12.8951, 99.2441, -85.5364
1.28751, -1, 12.3744, 18.5042, 17.334, 12.8975, 99.1417, -85.7953
1.29553, -1, 12.1844, 18.4064, 17.3725, 12.8999, 99.0396, -86.0543
1.30347, -1, 11.9941, 18.3087, 17.4111, 12.9023, 98.9375, -86.3132
1.31148, -1, 11.8037, 18.2111, 17.4497, 12.9048, 98.8353, -86.5717
1.32093, -1, 11.5176, 18.0646, 17.5074, 12.9084, 98.6826, -86.9595
1.32748, -1, 11.4221, 18.0158, 17.5267, 12.9096, 98.6316, -87.0889
1.33554, -1, 11.231, 17.9182, 17.5653, 12.912, 98.5296, -87.3476
1.34348, -1, 11.0396, 17.8207, 17.6038, 12.9145, 98.4279, -87.6059
1.35147, -1, 10.8479, 17.7233, 17.6423, 12.9169, 98.3259, -87.8642
1.35953, -1, 10.6562, 17.6258, 17.6808, 12.9194, 98.2239, -88.1225
1.36747, -1, 10.4647, 17.5283, 17.7191, 12.922, 98.1223, -88.3809
1.37549, -1, 10.2735, 17.4308, 17.7576, 12.9246, 98.0203, -88.639
1.38355, -1, 10.0827, 17.3333, 17.7961, 12.9272, 97.9183, -88.8972
1.39148, -1, 9.89225, 17.2357, 17.8344, 12.9299, 97.8166, -89.1552
1.40194, -1, 9.70209, 17.1383, 17.8727, 12.9326, 97.7144, -89.4134
1.40754, -1, 9.51252, 17.0409, 17.911, 12.9354, 97.6125, -89.6715
1.41549, -1, 9.32335, 16.9436, 17.9493, 12.938, 97.5108, -89.929
1.42348, -1, 9.13405, 16.8462, 17.9877, 12.9406, 97.4089, -90.1866
1.43158, -1, 8.94467, 16.7491, 18.026, 12.9433, 97.3071, -90.4442
1.43948, -1, 8.75518, 16.6519, 18.0644, 12.946, 97.2054, -90.7017
1.44747, -1, 8.56561, 16.5546, 18.1028, 12.9486, 97.1037, -90.9588
1.45552, -1, 8.37587, 16.4576, 18.1411, 12.9513, 97.0022, -91.216
1.46348, -1, 8.18558, 16.3605, 18.1794, 12.954, 96.9006, -91.473
1.47154, -1, 7.99504, 16.2637, 18.2178, 12.9565, 96.7989, -91.7303
1.47947, -1, 7.80442, 16.1668, 18.256, 12.9592, 96.6976, -91.9872
1.48748, -1, 7.61382, 16.0699, 18.2943, 12.9618, 96.5961, -92.244
1.49554, -1, 7.42341, 15.9729, 18.3326, 12.9643, 96.4947, -92.5007
1.50347, -1, 7.23324, 15.876, 18.3707, 12.9669, 96.3935, -92.7576
1.51148, -1, 7.0434, 15.779, 18.4089, 12.9694, 96.292, -93.0143
1.51954, -1, 6.85393, 15.6821, 18.4472, 12.972, 96.1907, -93.2706
1.52747, -1, 6.665, 15.5852, 18.4853, 12.9744, 96.0901, -93.527
1.53549, -1, 6.47658, 15.4884, 18.5233, 12.977, 95.9889, -93.7834
1.54354, -1, 6.28842, 15.3917, 18.5615, 12.9794, 95.8879, -94.0398
1.55153, -1, 6.10037, 15.295, 18.5996, 12.9818, 95.7873, -94.2957
1.55948, -1, 5.91212, 15.1983, 18.6378, 12.9842, 95.6862, -94.5517
1.56757, -1, 5.72376, 15.1016, 18.676, 12.9865, 95.5853, -94.8076
1.57548, -1, 5.53527, 15.005, 18.714, 12.9888, 95.4847, -95.0635
1.58354, -1, 5.34641, 14.9084, 18.7521, 12.9911, 95.3837, -95.3192
1.59152, -1, 5.15721, 14.812, 18.7903, 12.9933, 95.2829, -95.5746
1.59959, -1, 4.96787, 14.7157, 18.8283, 12.9955, 95.1824, -95.8301
1.60763, -1, 4.77844, 14.6194, 18.8664, 12.9977, 95.0815, -96.0857
1.61558, -1, 4.58897, 14.523, 18.9044, 12.9999, 94.9808, -96.3409
1.62359, -1, 4.3997, 14.4267, 18.9424, 13.0021, 94.8802, -96.5958
1.63166, -1, 4.2107, 14.3304, 18.9805, 13.0043, 94.7793, -96.8508
1.63959, -1, 4.02201, 14.234, 19.0184, 13.0066, 94.6785, -97.1059
1.64748, -1, 3.834, 14.1378, 19.0563, 13.0088, 94.5776, -97.361
1.65578, -1, 3.64649, 14.0416, 19.0943, 13.011, 94.4768, -97.6156
1.6643, -1, 3.45934, 13.9455, 19.1322, 13.0134, 94.3762, -97.8704
1.67157, -1, 3.27242, 13.8495, 19.17, 13.0157, 94.2755, -98.1251
1.67973, -1, 3.08548, 13.7535, 19.2079, 13.0179, 94.1748, -98.3798
1.68848, -1, 2.89854, 13.6574, 19.2458, 13.0202, 94.0743, -98.6343
1.6957, -1, 2.71152, 13.5614, 19.2837, 13.0224, 93.9736, -98.8884
1.70432, -1, 2.52425, 13.4654, 19.3216, 13.0247, 93.8731, -99.1425
1.71267, -1, 2.33678, 13.3696, 19.3594, 13.027, 93.7729, -99.3966
1.7199, -1, 2.14892, 13.2738, 19.3972, 13.0293, 93.6725, -99.6506
1.7281, -1, 1.9608, 13.178, 19.4351, 13.0314, 93.5722, -99.9041
1.73684, -1, 1.77257, 13.0822, 19.4729, 13.0337, 93.4723, -100.158
1.74404, -1, 1.58424, 12.9864, 19.5106, 13.0359, 93.3721, -100.411
1.75229, -1, 1.39602, 12.8906, 19.5485, 13.0382, 93.272, -100.665
1.76092, -1, 1.30205, 12.8427, 19.5862, 13.0406, 93.1722, -100.918
1.76811, -1, 1.11437, 12.7469, 19.605, 13.043, 93.0721, -101.171
1.77609, -1, 0.927391, 12.6512, 19.6428, 13.0442, 93.0222, -101.298
1.78346, -1, 0.7409, 12.5557, 19.6805, 13.0465, 92.9224, -101.551
1.79149, -1, 0.554727, 12.4601, 19.718, 13.049, 92.8225, -101.804
1.79951, -1, 0.368971, 12.3648, 19.7557, 13.0515, 92.7227, -102.057
1.80747, -1, 0.183448, 12.2694, 19.7934, 13.0539, 92.6232, -102.309
1.81546, -1, -0.0018585, 12.174, 19.8309, 13.0563, 92.5237, -102.562
1.82346, -1, -0.187294, 12.0788, 19.8685, 13.0588, 92.4241, -102.815
1.83146, -1, -0.372982, 11.9836, 19.9062, 13.0613, 92.3247, -103.067
1.8395, -1, -0.559115, 11.8884, 19.9437, 13.0638, 92.2253, -103.319
1.84747, -1, -0.745452, 11.7934, 19.9813, 13.0663, 92.1259, -103.571
1.85546, -1, -0.931921, 11.6984, 20.0188, 13.0687, 92.0266, -103.823
1.86352, -1, -1.11868, 11.6033, 20.0562, 13.0712, 91.9271, -104.075
1.87146, -1, -1.30576, 11.5083, 20.0938, 13.0737, 91.8277, -104.327
1.87946, -1, -1.49265, 11.4132, 20.1313, 13.0763, 91.7286, -104.578
1.88753, -1, -1.67932, 11.3181, 20.1686, 13.0788, 91.6293, -104.83
1.89737, -1, -1.86552, 11.1756, 20.2248, 13.0827, 91.4805, -105.207
1.90351, -1, -2.05124, 11.1281, 20.2435, 13.0841, 91.4311, -105.332
1.91246, -1, -2.23644, 11.0332, 20.2809, 13.0867, 91.3318, -105.583
1.91946, -1, -2.42129, 10.9383, 20.3183, 13.0894, 91.2327, -105.834
1.92847, -1, -2.60572, 10.8436, 20.3556, 13.092, 91.1337, -106.085
1.93556, -1, -2.78959, 10.7488, 20.3928, 13.0948, 91.0345, -106.336
1.94347, -1, -2.97341, 10.654, 20.4302, 13.0973, 90.9354, -106.587
1.95152, -1, -3.15747, 10.5593, 20.4676, 13.0999, 90.8367, -106.837
1.9595, -1, -3.34176, 10.4648, 20.5048, 13.1025, 90.7376, -107.088
1.96747, -1, -3.52642, 10.3703, 20.5421, 13.105, 90.6387, -107.338
1.97552, -1, -3.71115, 10.276, 20.5793, 13.1075, 90.5401, -107.589
1.98346, -1, -3.89624, 10.1816, 20.6165, 13.1099, 90.4412, -107.839
1.99194, -1, -4.08162, 10.0873, 20.6538, 13.1123, 90.3425, -108.089
1.99947, -1, -4.26716, 9.99304, 20.691, 13.1148, 90.244, -108.339
2.00746, -1, -4.45279, 9.89874, 20.7282, 13.1171, 90.1452, -108.588
2.0168, -1, -4.63808, 9.80441, 20.7655, 13.1194, 90.0466, -108.838
2.02345, -1, -4.82304, 9.71027, 20.8027, 13.1217, 89.9483, -109.087
2.03152, -1, -5.00758, 9.61618, 20.8397, 13.1241, 89.8496, -109.337
2.03946, -1, -5.19138, 9.52212, 20.8769, 13.1264, 89.7512, -109.586
2.04746, -1, -5.37469, 9.42808, 20.914, 13.1287, 89.6531, -109.835
2.05552, -1, -5.55764, 9.33417, 20.9511, 13.1311, 89.5547, -110.084
2.06346, -1, -5.74016, 9.24021, 20.9882, 13.1333, 89.4565, -110.333
2.07149, -1, -5.92245, 9.14629, 21.0252, 13.1357, 89.3585, -110.582
2.07952, -1, -6.10489, 9.05243, 21.0622, 13.1378, 89.2601, -110.83
2.08747, -1, -6.28763, 8.95864, 21.0993, 13.1401, 89.1621, -111.078
2.0955, -1, -6.47054, 8.86503, 21.1363, 13.1423, 89.0645, -111.327
2.10364, -1, -6.65361, 8.77138, 21.173, 13.1444, 88.9665, -111.575
2.11155, -1, -6.83721, 8.67781, 21.21, 13.1465, 88.8686, -111.823
2.11956, -1, -7.02114, 8.58425, 21.2469, 13.1486, 88.7709, -112.071
2.12766, -1, -7.20527, 8.49076, 21.2838, 13.1507, 88.6729, -112.319
2.13557, -1, -7.38946, 8.39715, 21.3207, 13.1528, 88.5751, -112.566
2.14366, -1, -7.5733, 8.30349, 21.3576, 13.155, 88.4776, -112.814
2.15152, -1, -7.75684, 8.21007, 21.3943, 13.1571, 88.3799, -113.061
2.15949, -1, -7.94003, 8.11668, 21.4312, 13.1594, 88.2824, -113.309
2.16749, -1, -8.1226, 8.02329, 21.468, 13.1617, 88.1851, -113.556
2.17564, -1, -8.30443, 7.93005, 21.5047, 13.1639, 88.0876, -113.803
2.18358, -1, -8.48577, 7.83685, 21.5416, 13.1662, 87.9902, -114.05
2.19166, -1, -8.66677, 7.74366, 21.5784, 13.1684, 87.893, -114.296
2.19983, -1, -8.84752, 7.65047, 21.6151, 13.1706, 87.7955, -114.543
2.20785, -1, -9.02833, 7.55737, 21.6519, 13.1729, 87.6981, -114.789
2.21587, -1, -9.20937, 7.46437, 21.6886, 13.1752, 87.601, -115.036
2.22398, -1, -9.3906, 7.37155, 21.7252, 13.1774, 87.5038, -115.282
2.23336, -1, -9.57218, 7.27874, 21.7619, 13.1796, 87.4066, -115.528
2.24001, -1, -9.75417, 7.18594, 21.7986, 13.1818, 87.3095, -115.774
2.2481, -1, -9.93656, 7.09325, 21.8351, 13.184, 87.2122, -116.02
2.25602, -1, -10.1191, 7.0005, 21.8717, 13.1863, 87.115, -116.266
2.26402, -1, -10.2104, 6.95412, 21.8901, 13.1885, 87.018, -116.512
2.27219, -1, -10.393, 6.815, 21.945, 13.1907, 86.9209, -116.757
2.27944, -1, -10.5754, 6.76865, 21.9633, 13.1918, 86.8723, -116.88
2.28848, -1, -10.8484, 6.6297, 22.0181, 13.1953, 86.7269, -117.248
2.29553, -1, -10.9391, 6.5834, 22.0362, 13.1965, 86.6783, -117.371
2.30344, -1, -11.12, 6.49086, 22.0727, 13.1989, 86.5815, -117.616
2.31144, -1, -11.3002, 6.39837, 22.1093, 13.2013, 86.4849, -117.861
2.31945, -1, -11.4799, 6.30593, 22.1458, 13.2038, 86.3881, -118.105
2.32744, -1, -11.6592, 6.21353, 22.1822, 13.2062, 86.2914, -118.35
2.33553, -1, -11.8386, 6.12112, 22.2188, 13.2088, 86.195, -118.595
2.34345, -1, -12.0179, 6.02884, 22.2552, 13.2111, 86.0984, -118.839
2.35145, -1, -12.1972, 5.93667, 22.2916, 13.2137, 86.0018, -119.083
2.36097, -1, -12.4669, 5.79862, 22.3462, 13.2174, 85.8574, -119.45
2.36744, -1, -12.5569, 5.75259, 22.3642, 13.2187, 85.8091, -119.572
2.37544, -1, -12.7373, 5.66064, 22.4005, 13.2211, 85.7128, -119.816
2.38502, -1, -12.9182, 5.52278, 22.4551, 13.2248, 85.5689, -120.181
2.39146, -1, -13.0992, 5.47679, 22.4732, 13.226, 85.5209, -120.303
2.4037, -1, -13.2806, 5.38474, 22.5093, 13.2284, 85.4249, -120.547
2.40743, -1, -13.4617, 5.29279, 22.5457, 13.2309, 85.3292, -120.79
2.41551, -1, -13.6424, 5.20091, 22.5818, 13.2334, 85.2334, -121.033
2.42344, -1, -13.8227, 5.10908, 22.6179, 13.236, 85.1377, -121.276
2.43145, -1, -14.0022, 5.01729, 22.6541, 13.2386, 85.0421, -121.519
2.43954, -1, -14.1808, 4.9256, 22.6902, 13.2411, 84.9465, -121.762
2.44744, -1, -14.3591, 4.83394, 22.7263, 13.2437, 84.8507, -122.005
2.45544, -1, -14.5371, 4.7423, 22.7626, 13.2462, 84.7552, -122.247
2.46355, -1, -14.7148, 4.65069, 22.7988, 13.2487, 84.6595, -122.49
2.47148, -1, -14.8925, 4.55918, 22.8348, 13.2511, 84.5638, -122.732
2.47944, -1, -15.0701, 4.46776, 22.871, 13.2536, 84.4682, -122.974
2.4875, -1, -15.248, 4.37649, 22.9071, 13.256, 84.3725, -123.216
2.49544, -1, -15.4264, 4.28518, 22.9431, 13.2584, 84.2769, -123.458
2.50344, -1, -15.6052, 4.19397, 22.9791, 13.2608, 84.1814, -123.7
2.51152, -1, -15.7844, 4.10277, 23.0151, 13.263, 84.0859, -123.942
2.51945, -1, -15.9636, 4.01158, 23.051, 13.2652, 83.9904, -124.183
2.52747, -1, -16.1433, 3.92032, 23.0871, 13.2673, 83.8949, -124.425
2.5355, -1, -16.3231, 3.82908, 23.1231, 13.2694, 83.7995, -124.666
2.54343, -1, -16.5025, 3.7379, 23.1589, 13.2715, 83.704, -124.908
2.55151, -1, -16.6816, 3.64682, 23.1947, 13.2737, 83.6086, -125.149
2.55944, -1, -16.8601, 3.55573, 23.2306, 13.276, 83.5133, -125.39
2.56744, -1, -17.0376, 3.46472, 23.2664, 13.2782, 83.4179, -125.631
2.57551, -1, -17.2145, 3.37382, 23.3022, 13.2804, 83.3226, -125.872
2.58344, -1, -17.391, 3.28297, 23.3381, 13.2826, 83.2276, -126.112
2.59147, -1, -17.5674, 3.19212, 23.3739, 13.2847, 83.1324, -126.353
2.59956, -1, -17.7435, 3.10146, 23.4098, 13.2869, 83.0375, -126.593
2.60756, -1, -17.9194, 3.01086, 23.4457, 13.289, 82.9428, -126.833
2.61554, -1, -18.0956, 2.92039, 23.4814, 13.2912, 82.8478, -127.073
2.6236, -1, -18.2721, 2.83002, 23.5171, 13.2933, 82.7531, -127.314
2.63159, -1, -18.449, 2.73964, 23.553, 13.2953, 82.6586, -127.553
2.63958, -1, -18.6264, 2.64925, 23.5886, 13.2974, 82.5639, -127.793
2.64761, -1, -18.804, 2.55894, 23.6243, 13.2994, 82.4694, -128.033
2.65545, -1, -18.982, 2.46852, 23.6601, 13.3013, 82.375, -128.272
2.66347, -1, -19.1604, 2.37805, 23.6957, 13.3033, 82.2804, -128.512
2.67188, -1, -19.3386, 2.2877, 23.7312, 13.3053, 82.1861, -128.751
2.6795, -1, -19.5163, 2.19734, 23.7669, 13.3074, 82.0923, -128.99
2.68757, -1, -19.6934, 2.10695, 23.8024, 13.3096, 81.998, -129.229
2.69581, -1, -19.87, 2.01669, 23.8378, 13.3118, 81.9038, -129.468
2.7037, -1, -20.0458, 1.9264, 23.8734, 13.3139, 81.81, -129.707
2.71179, -1, -20.2211, 1.83619, 23.9089, 13.3162, 81.7158, -129.945
2.72033, -1, -20.3959, 1.74609, 23.9443, 13.3184, 81.6218, -130.183
2.72791, -1, -20.5705, 1.65599, 23.98, 13.3206, 81.528, -130.422
2.736, -1, -20.7449, 1.56602, 24.0155, 13.3228, 81.4339, -130.66
2.74405, -1, -20.9195, 1.47613, 24.0509, 13.325, 81.3401, -130.898
2.752, -1, -21.0945, 1.38639, 24.0865, 13.3272, 81.2464, -131.136
2.76004, -1, -21.2697, 1.29667, 24.122, 13.3294, 81.1525, -131.374
2.76832, -1, -21.3575, 1.25182, 24.1573, 13.3316, 81.0586, -131.611
2.77598, -1, -21.5333, 1.16215, 24.175, 13.3326, 81.0117, -131.73
2.7848, -1, -21.7095, 1.07257, 24.2105, 13.3348, 80.9181, -131.968
2.79144, -1, -21.8858, 0.982906, 24.2459, 13.3369, 80.8242, -132.205
2.7995, -1, -22.0623, 0.893346, 24.2812, 13.3391, 80.7304, -132.442
2.80747, -1, -22.2389, 0.803829, 24.3166, 13.3413, 80.637, -132.68
2.81544, -1, -22.4153, 0.71433, 24.3519, 13.3435, 80.5432, -132.917
2.82347, -1, -22.5911, 0.624807, 24.3871, 13.3458, 80.4495, -133.154
2.83142, -1, -22.7665, 0.535404, 24.4224, 13.3482, 80.3561, -133.39
2.83952, -1, -22.941, 0.445988, 24.4576, 13.3506, 80.2624, -133.627
2.84743, -1, -23.1149, 0.356573, 24.4927, 13.3531, 80.1689, -133.864
2.85542, -1, -23.2884, 0.267222, 24.5279, 13.3555, 80.0756, -134.101
2.86351, -1, -23.4614, 0.177928, 24.5631, 13.358, 79.982, -134.337
2.87142, -1, -23.6346, 0.0887401, 24.5982, 13.3603, 79.8888, -134.573
2.87941, -1, -23.8079, -0.00038019, 24.6334, 13.3627, 79.7956, -134.809
2.88751, -1, -23.9813, -0.0893247, 24.6686, 13.3652, 79.7023, -135.045
2.89542, -1, -24.1549, -0.178301, 24.7036, 13.3676, 79.6092, -135.281
2.90593, -1, -24.3288, -0.267233, 24.7386, 13.3701, 79.4697, -135.635
2.9115, -1, -24.503, -0.356084, 24.7738, 13.3726, 79.423, -135.752
2.92047, -1, -24.6776, -0.444953, 24.8089, 13.3749, 79.3299, -135.988
2.92742, -1, -24.8526, -0.533851, 24.8438, 13.3773, 79.2369, -136.224
2.9355, -1, -25.0277, -0.622691, 24.879, 13.3797, 79.144, -136.459
2.94345, -1, -25.2026, -0.711534, 24.914, 13.382, 79.0511, -136.694
2.95142, -1, -25.3772, -0.800279, 24.9489, 13.3843, 78.9584, -136.929
2.95944, -1, -25.5513, -0.889086, 24.984, 13.3868, 78.8658, -137.164
2.96746, -1, -25.725, -0.977804, 25.0188, 13.3893, 78.7729, -137.399
2.97552, -1, -25.8979, -1.06649, 25.0536, 13.3917, 78.6803, -137.634
2.98343, -1, -26.0704, -1.15521, 25.0886, 13.3942, 78.5881, -137.868
2.99142, -1, -26.2424, -1.24382, 25.1235, 13.3966, 78.4953, -138.103
2.9995, -1, -26.4141, -1.33235, 25.1583, 13.3989, 78.4028, -138.337
3.00745, -1, -26.5859, -1.42074, 25.1932, 13.4012, 78.3106, -138.572
3.01542, -1, -26.7579, -1.50906, 25.2281, 13.4034, 78.218, -138.806
3.02349, -1, -26.9302, -1.59726, 25.2629, 13.4056, 78.1256, -139.04
3.03143, -1, -27.1026, -1.68541, 25.2977, 13.4079, 78.0335, -139.273
3.03943, -1, -27.2751, -1.7736, 25.3326, 13.41, 77.9412, -139.507
3.04749, -1, -27.448, -1.86166, 25.3673, 13.4122, 77.8491, -139.741
3.05543, -1, -27.6212, -1.94975, 25.4021, 13.4143, 77.7571, -139.974
3.06342, -1, -27.7944, -2.03793, 25.437, 13.4164, 77.665, -140.208
3.07149, -1, -27.9678, -2.12594, 25.4717, 13.4185, 77.5729, -140.441
3.07958, -1, -28.1411, -2.21399, 25.5064, 13.4204, 77.481, -140.675
3.08742, -1, -28.3143, -2.30198, 25.5412, 13.4224, 77.389, -140.908
3.09547, -1, -28.4871, -2.39004, 25.576, 13.4245, 77.2969, -141.141
3.10428, -1, -28.6596, -2.478, 25.6106, 13.4267, 77.2048, -141.374
3.11153, -1, -28.8314, -2.56599, 25.6453, 13.4288, 77.1128, -141.607
3.11952, -1, -29.0024, -2.65397, 25.68, 13.431, 77.0209, -141.839
3.12831, -1, -29.173, -2.7418, 25.7145, 13.4332, 76.9289, -142.072
3.13557, -1, -29.3434, -2.82959, 25.7493, 13.4352, 76.8372, -142.304
3.14356, -1, -29.5141, -2.9173, 25.784, 13.4373, 76.7452, -142.537
3.15231, -1, -29.685, -3.00486, 25.8185, 13.4394, 76.6533, -142.769
3.15944, -1, -29.856, -3.09241, 25.8531, 13.4414, 76.5619, -143.002
3.16751, -1, -30.027, -3.17988, 25.8878, 13.4435, 76.4698, -143.234
3.17699, -1, -30.1979, -3.26737, 25.9223, 13.4455, 76.3782, -143.466
3.18442, -1, -30.369, -3.3548, 25.9569, 13.4476, 76.2868, -143.698
3.19162, -1, -30.5406, -3.44225, 25.9915, 13.4497, 76.195, -143.929
3.20166, -1, -30.7123, -3.52975, 26.0259, 13.4516, 76.1035, -144.161
3.20776, -1, -30.8842, -3.61707, 26.0605, 13.4537, 76.0122, -144.392
3.21579, -1, -31.056, -3.70447, 26.0951, 13.4556, 75.9206, -144.624
3.2246, -1, -31.2278, -3.79182, 26.1296, 13.4577, 75.8293, -144.855
3.23195, -1, -31.3993, -3.87914, 26.1639, 13.4598, 75.738, -145.087
3.24061, -1, -31.5701, -3.96643, 26.1985, 13.462, 75.6469, -145.318
3.24875, -1, -31.7406, -4.05369, 26.2329, 13.4641, 75.5556, -145.548
3.25604, -1, -31.9105, -4.14092, 26.2672, 13.4663, 75.4645, -145.779
3.26399, -1, -31.9954, -4.22813, 26.3017, 13.4685, 75.3735, -146.01
3.27276, -1, -32.1649, -4.27168, 26.3189, 13.4696, 75.2823, -146.241
3.28002, -1, -32.3342, -4.35875, 26.3533, 13.4719, 75.1912, -146.471
3.28741, -1, -32.5038, -4.44576, 26.3875, 13.474, 75.1459, -146.587
3.29542, -1, -32.6735, -4.53266, 26.422, 13.4761, 75.055, -146.817
3.30349, -1, -32.8431, -4.61957, 26.4564, 13.4782, 74.9642, -147.047
3.31144, -1, -33.0126, -4.70645, 26.4906, 13.4804, 74.8736, -147.278
3.31941, -1, -33.1824, -4.79333, 26.5248, 13.4826, 74.7831, -147.508
3.32745, -1, -33.3523, -4.88018, 26.5592, 13.4849, 74.6924, -147.738
3.33539, -1, -33.5225, -4.9671, 26.5934, 13.4871, 74.6018, -147.968
3.34342, -1, -33.6929, -5.05395, 26.6277, 13.4893, 74.5114, -148.198
3.3514, -1, -33.8632, -5.1407, 26.6619, 13.4915, 74.4206, -148.427
3.3609, -1, -34.1187, -5.27078, 26.7131, 13.4949, 74.2848, -148.772
3.36746, -1, -34.2038, -5.31415, 26.7302, 13.4961, 74.2397, -148.886
3.37542, -1, -34.3739, -5.40078, 26.7645, 13.4983, 74.1489, -149.116
3.3834, -1, -34.5436, -5.48741, 26.7987, 13.5006, 74.0584, -149.345
3.39371, -1, -34.7128, -5.57409, 26.8498, 13.5042, 73.9227, -149.689
3.39941, -1, -34.8815, -5.66069, 26.8669, 13.5055, 73.8773, -149.804
3.40844, -1, -35.0499, -5.74723, 26.901, 13.508, 73.7869, -150.033
3.41548, -1, -35.2182, -5.83373, 26.9351, 13.5104, 73.6966, -150.262
3.4244, -1, -35.3866, -5.92009, 26.9692, 13.5128, 73.6062, -150.491
3.43147, -1, -35.5551, -6.0063, 27.0034, 13.5151, 73.5158, -150.72
3.43941, -1, -35.7235, -6.09252, 27.0373, 13.5174, 73.4255, -150.948
3.44743, -1, -35.892, -6.17865, 27.0713, 13.5198, 73.3352, -151.177
3.45548, -1, -36.0605, -6.26477, 27.1054, 13.5222, 73.2447, -151.405
3.4634, -1, -36.229, -6.35084, 27.1394, 13.5246, 73.1544, -151.634
3.47146, -1, -36.3977, -6.43703, 27.1733, 13.527, 73.0642, -151.862
3.4795, -1, -36.5667, -6.52326, 27.2073, 13.5293, 72.9737, -152.091
3.4874, -1, -36.7356, -6.60942, 27.2412, 13.5317, 72.8835, -152.319
3.49541, -1, -36.9045, -6.69558, 27.2751, 13.5339, 72.7934, -152.547
3.50347, -1, -37.0735, -6.78172, 27.3091, 13.5362, 72.7032, -152.775
3.51143, -1, -37.2423, -6.86781, 27.343, 13.5384, 72.6132, -153.003
3.5194, -1, -37.4109, -6.95382, 27.3768, 13.5406, 72.5234, -153.23
3.52747, -1, -37.579, -7.03987, 27.4108, 13.5429, 72.4334, -153.458
3.53539, -1, -37.7467, -7.12585, 27.4447, 13.5451, 72.3435, -153.685
3.54341, -1, -37.9143, -7.21179, 27.4785, 13.5473, 72.2538, -153.913
3.55148, -1, -38.0818, -7.29768, 27.5124, 13.5495, 72.1642, -154.14
3.5594, -1, -38.2492, -7.38355, 27.5464, 13.5518, 72.0744, -154.368
3.5674, -1, -38.4166, -7.46926, 27.5801, 13.5539, 71.9848, -154.595
3.57548, -1, -38.5837, -7.55496, 27.614, 13.556, 71.8953, -154.822
3.58341, -1, -38.7511, -7.64065, 27.6479, 13.558, 71.8055, -155.049
3.59142, -1, -38.9183, -7.72632, 27.6816, 13.5601, 71.7159, -155.276
3.59964, -1, -39.0857, -7.81192, 27.7153, 13.5622, 71.6268, -155.503
3.60747, -1, -39.2532, -7.89757, 27.7492, 13.5642, 71.5372, -155.73
3.61551, -1, -39.4207, -7.98328, 27.783, 13.5661, 71.448, -155.956
3.62382, -1, -39.5884, -8.06881, 27.8166, 13.568, 71.3588, -156.183
3.63152, -1, -39.756, -8.15434, 27.8503, 13.57, 71.2694, -156.41
3.63955, -1, -39.9237, -8.23983, 27.8841, 13.5719, 71.1801, -156.636
3.64803, -1, -40.0913, -8.32525, 27.9177, 13.5739, 71.0907, -156.862
3.65648, -1, -40.2587, -8.4106, 27.9514, 13.5759, 71.0016, -157.089
3.66342, -1, -40.4259, -8.49598, 27.9852, 13.5779, 70.9121, -157.315
3.67231, -1, -40.5928, -8.58134, 28.0188, 13.5798, 70.8228, -157.541
3.67946, -1, -40.7597, -8.66673, 28.0523, 13.5818, 70.7338, -157.767
3.68777, -1, -40.9263, -8.75207, 28.0861, 13.5838, 70.6446, -157.993
3.6964, -1, -41.0928, -8.83738, 28.1198, 13.5858, 70.5555, -158.219
3.70363, -1, -41.259, -8.92263, 28.1533, 13.5878, 70.4666, -158.445
3.71178, -1, -41.4252, -9.0078, 28.1869, 13.5898, 70.3773, -158.67
3.72063, -1, -41.5914, -9.09294, 28.2206, 13.5918, 70.2882, -158.896
3.72783, -1, -41.7577, -9.17802, 28.2541, 13.5938, 70.1991, -159.121
3.73649, -1, -41.9241, -9.26309, 28.2877, 13.5959, 70.11, -159.347
3.74489, -1, -42.0905, -9.34811, 28.3214, 13.5979, 70.021, -159.573
3.75196, -1, -42.2568, -9.43319, 28.3549, 13.5999, 69.9319, -159.798
3.76051, -1, -42.4231, -9.51819, 28.3883, 13.6019, 69.8431, -160.023
3.7688, -1, -42.5063, -9.56067, 28.4219, 13.6039, 69.754, -160.248
3.77594, -1, -42.6727, -9.64567, 28.4387, 13.6049, 69.7097, -160.473
3.78454, -1, -42.9222, -9.77311, 28.4888, 13.6081, 69.5766, -160.698
3.79141, -1, -43.0054, -9.81557, 28.5055, 13.6091, 69.5321, -160.811
3.7994, -1, -43.1716, -9.90049, 28.539, 13.6111, 69.4434, -161.036
3.80746, -1, -43.3378, -9.98545, 28.5725, 13.6132, 69.3546, -161.26
3.81542, -1, -43.5039, -10.0703, 28.6059, 13.6152, 69.2661, -161.485
3.82339, -1, -43.6699, -10.1553, 28.6394, 13.6173, 69.1773, -161.71
3.83145, -1, -43.8358, -10.2402, 28.6728, 13.6194, 69.0888, -161.935
3.83939, -1, -44.0016, -10.325, 28.7062, 13.6216, 69.0005, -162.159
3.8474, -1, -44.167, -10.4097, 28.7397, 13.6238, 68.9117, -162.383
3.85554, -1, -44.3322, -10.4943, 28.7732, 13.626, 68.8231, -162.607
3.86339, -1, -44.4974, -10.5788, 28.8065, 13.6282, 68.7346, -162.832
3.87356, -1, -44.7452, -10.7056, 28.8567, 13.6315, 68.6017, -163.168
3.87945, -1, -44.8278, -10.7478, 28.8734, 13.6326, 68.5575, -163.28
3.88739, -1, -44.9932, -10.8322, 28.9068, 13.6348, 68.469, -163.504
3.89706, -1, -45.1584, -10.9168, 28.9569, 13.638, 68.3363, -163.84
3.90345, -1, -45.3237, -11.0013, 28.9736, 13.6391, 68.2921, -163.952
3.91311, -1, -45.489, -11.0857, 29.007, 13.6414, 68.1597, -164.288
3.91939, -1, -45.6543, -11.1701, 29.0401, 13.6437, 68.1157, -164.4
3.92953, -1, -45.9019, -11.2967, 29.0903, 13.6471, 67.983, -164.735
3.93538, -1, -45.9838, -11.3385, 29.107, 13.6483, 67.9388, -164.847
3.94339, -1, -46.1454, -11.4209, 29.1404, 13.6505, 67.8508, -165.07
3.95149, -1, -46.3025, -11.5003, 29.174, 13.6529, 67.7634, -165.291
3.95938, -1, -46.4531, -11.5755, 29.2076, 13.6553, 67.6781, -165.507
3.96739, -1, -46.5945, -11.6455, 29.2399, 13.6575, 67.5966, -165.713
3.97555, -1, -46.7244, -11.709, 29.2698, 13.6596, 67.5217, -165.903
3.98343, -1, -46.8398, -11.7653, 29.2963, 13.6617, 67.4544, -166.073
3.9914, -1, -46.9391, -11.8146, 29.3186, 13.6633, 67.3984, -166.215
3.99945, -1, -47.022, -11.8577, 29.3353, 13.6646, 67.3532, -166.329
4.00738, -1, -47.0896, -11.8947, 29.3467, 13.6654, 67.3193, -166.415
4.0154, -1, -47.1423, -11.9243, 29.3541, 13.6659, 67.2958, -166.474
4.02345, -1, -47.1816, -11.9466, 29.3581, 13.6661, 67.2806, -166.512
4.03136, -1, -47.2095, -11.9622, 29.36, 13.6662, 67.2717, -166.535
4.03938, -1, -47.2279, -11.9723, 29.3608, 13.6662, 67.2668, -166.547
4.04745, -1, -47.239, -11.9783, 29.3612, 13.6663, 67.2645, -166.553
4.05535, 2, -47.2448, -11.9812, 29.3614, 13.6664, 67.2633, -166.556
4.06338, 2, -47.2468, -11.9826, 29.3616, 13.6665, 67.2627, -166.557
4.07146, 2, -47.2468, -11.9831, 29.3617, 13.6665, 67.2624, -166.558
4.07938, 2, -47.2465, -11.9833, 29.3618, 13.6665, 67.2623, -166.558
4.08739, 2, -47.2463, -11.9833, 29.3618, 13.6666, 67.2622, -166.558
4.09545, 2, -47.2467, -11.9834, 29.3618, 13.6666, 67.2622, -166.558
4.10342, 2, -47.2476, -11.9837, 29.3619, 13.6666, 67.2622, -166.558
4.11147, 2, -47.2488, -11.9842, 29.3619, 13.6666, 67.2623, -166.558
4.11955, 2, -47.2507, -11.985, 29.3619, 13.6666, 67.2622, -166.558
4.12748, 2, -47.2524, -11.9859, 29.3619, 13.6666, 67.2622, -166.558
4.13554, 2, -47.2538, -11.9867, 29.3619, 13.6666, 67.2622, -166.558
4.14352, 2, -47.2548, -11.9873, 29.3619, 13.6666, 67.2622, -166.558
4.15153, 2, -47.2553, -11.9877, 29.3619, 13.6666, 67.2622, -166.558
4.15951, 2, -47.2555, -11.9879, 29.3619, 13.6666, 67.2622, -166.558
4.16741, 2, -47.2556, -11.988, 29.3619, 13.6666, 67.2622, -166.558
4.17542, 2, -47.2554, -11.988, 29.3619, 13.6666, 67.2622, -166.558
4.18353, 2, -47.2548, -11.988, 29.3619, 13.6666, 67.2622, -166.558
4.19155, 2, -47.2543, -11.9879, 29.3619, 13.6665, 67.2622, -166.558
4.19955, 2, -47.2538, -11.9879, 29.3619, 13.6666, 67.2622, -166.558
4.2077, 2, -47.2536, -11.9879, 29.3619, 13.6666, 67.2622, -166.558
4.21575, 2, -47.2536, -11.988, 29.3619, 13.6666, 67.2622, -166.558
4.22378, 2, -47.2537, -11.9881, 29.3619, 13.6666, 67.2622, -166.558
4.23197, 2, -47.2538, -11.9884, 29.3619, 13.6666, 67.2623, -166.558
4.24053, 2, -47.2544, -11.9888, 29.3619, 13.6665, 67.2622, -166.558
4.2479, 2, -47.255, -11.989, 29.3619, 13.6665, 67.2623, -166.558
4.25652, 2, -47.2554, -11.9892, 29.3619, 13.6665, 67.2623, -166.558
4.264, 2, -47.2556, -11.9893, 29.3619, 13.6665, 67.2622, -166.558
4.27197, 2, -47.2557, -11.9893, 29.3619, 13.6665, 67.2623, -166.558
4.28039, 2, -47.2556, -11.9893, 29.3619, 13.6665, 67.2623, -166.558
4.28739, 2, -47.2556, -11.9893, 29.3619, 13.6665, 67.2623, -166.558
4.29541, 2, -47.2553, -11.9892, 29.3619, 13.6666, 67.2623, -166.558
4.30342, 2, -47.2548, -11.9892, 29.3619, 13.6666, 67.2623, -166.558
4.31141, 2, -47.2545, -11.9892, 29.3619, 13.6665, 67.2623, -166.558
4.31941, 2, -47.2542, -11.9892, 29.3619, 13.6666, 67.2623, -166.558
4.32741, 2, -47.254, -11.9892, 29.3619, 13.6666, 67.2623, -166.558
4.33533, 2, -47.2539, -11.9892, 29.3619, 13.6665, 67.2623, -166.558
4.34337, 2, -47.2538, -11.9893, 29.3619, 13.6665, 67.2623, -166.558
4.35275, 2, -47.2538, -11.9893, 29.3619, 13.6666, 67.2623, -166.558
4.35938, 2, -47.2538, -11.9894, 29.3619, 13.6666, 67.2623, -166.558
4.36737, 2, -47.2538, -11.9894, 29.3619, 13.6665, 67.2623, -166.558
4.3769, 2, -47.2539, -11.9894, 29.3619, 13.6665, 67.2623, -166.558
4.38507, 2, -47.2539, -11.9893, 29.3619, 13.6665, 67.2623, -166.558
4.39138, 2, -47.2539, -11.9893, 29.3619, 13.6664, 67.2623, -166.558
4.39943, 2, -47.2538, -11.9892, 29.3619, 13.6665, 67.2623, -166.558
4.40906, 2, -47.2537, -11.9892, 29.3619, 13.6665, 67.2623, -166.558
4.41537, 2, -47.2536, -11.9892, 29.3619, 13.6665, 67.2623, -166.558
4.42347, 2, -47.2535, -11.9892, 29.3619, 13.6665, 67.2623, -166.558
4.43242, 2, -47.2533, -11.9892, 29.3619, 13.6665, 67.2623, -166.558
4.43936, 2, -47.2532, -11.9892, 29.3619, 13.6665, 67.2623, -166.558
4.44743, 2, -47.2531, -11.9892, 29.3619, 13.6665, 67.2623, -166.558
4.45539, 2, -47.253, -11.9892, 29.3619, 13.6665, 67.2623, -166.558
4.46337, 2, -47.253, -11.9893, 29.3619, 13.6665, 67.2623, -166.558
4.47145, 2, -47.2529, -11.9893, 29.3619, 13.6665, 67.2623, -166.558
4.47941, 2, -47.2529, -11.9892, 29.3619, 13.6665, 67.2623, -166.558
4.48739, 2, -47.2528, -11.9892, 29.3619, 13.6664, 67.2623, -166.558
4.49544, 2, -47.2528, -11.9892, 29.3619, 13.6664, 67.2623, -166.558
4.50337, 2, -47.2527, -11.9892, 29.3619, 13.6665, 67.2623, -166.558
4.51138, 2, -47.2526, -11.9891, 29.3619, 13.6664, 67.2623, -166.558
4.51945, 2, -47.2525, -11.9891, 29.3619, 13.6664, 67.2624, -166.558
4.52737, 2, -47.2524, -11.9891, 29.3619, 13.6664, 67.2624, -166.558
4.53536, 2, -47.2523, -11.9891, 29.3619, 13.6664, 67.2624, -166.558
4.54343, 2, -47.2522, -11.9891, 29.3619, 13.6664, 67.2623, -166.557
4.55138, 2, -47.2522, -11.9891, 29.3619, 13.6664, 67.2623, -166.558
4.55937, 2, -47.2521, -11.9891, 29.3619, 13.6664, 67.2623, -166.557
4.56743, 2, -47.252, -11.9891, 29.3619, 13.6664, 67.2623, -166.557
4.57537, 2, -47.2519, -11.9891, 29.3619, 13.6664, 67.2623, -166.557
4.58337, 2, -47.2518, -11.9891, 29.3619, 13.6665, 67.2623, -166.557
4.59144, 2, -47.2517, -11.9891, 29.3619, 13.6664, 67.2624, -166.557
4.59937, 2, -47.2516, -11.989, 29.3619, 13.6664, 67.2624, -166.557
4.6074, 2, -47.2515, -11.989, 29.3619, 13.6664, 67.2624, -166.557
4.61552, 2, -47.2514, -11.9889, 29.3619, 13.6664, 67.2624, -166.557
4.62348, 2, -47.2513, -11.9889, 29.3619, 13.6664, 67.2624, -166.557
4.63148, 2, -47.2511, -11.9888, 29.3619, 13.6664, 67.2624, -166.557
4.63953, 2, -47.251, -11.9888, 29.3619, 13.6664, 67.2624, -166.557
4.64751, 2, -47.2509, -11.9888, 29.3619, 13.6664, 67.2625, -166.557
4.65551, 2, -47.2509, -11.9888, 29.3619, 13.6664, 67.2624, -166.557
4.66343, 2, -47.2508, -11.9888, 29.3619, 13.6664, 67.2625, -166.557
4.67141, 2, -47.2507, -11.9888, 29.3619, 13.6664, 67.2625, -166.557
4.67942, 2, -47.2506, -11.9888, 29.3619, 13.6664, 67.2625, -166.557
4.68752, 2, -47.2505, -11.9888, 29.3619, 13.6663, 67.2624, -166.557
4.69577, 2, -47.2504, -11.9888, 29.3619, 13.6664, 67.2625, -166.557
4.70373, 2, -47.2503, -11.9887, 29.3619, 13.6664, 67.2625, -166.557
4.71236, 2, -47.2503, -11.9887, 29.3619, 13.6664, 67.2625, -166.557
4.71995, 2, -47.2503, -11.9886, 29.3619, 13.6664, 67.2625, -166.557
4.72841, 2, -47.2502, -11.9885, 29.3619, 13.6663, 67.2625, -166.557
4.73596, 2, -47.2501, -11.9885, 29.3619, 13.6663, 67.2625, -166.557
4.74453, 2, -47.25, -11.9885, 29.3619, 13.6663, 67.2625, -166.557
4.75219, 2, -47.2499, -11.9885, 29.3619, 13.6663, 67.2626, -166.557
4.75994, 2, -47.2499, -11.9885, 29.3619, 13.6663, 67.2626, -166.557
4.76853, 2, -47.2499, -11.9885, 29.3619, 13.6663, 67.2626, -166.557
4.77599, 2, -47.2499, -11.9885, 29.3619, 13.6663, 67.2626, -166.557
4.78437, 2, -47.2498, -11.9885, 29.3619, 13.6663, 67.2626, -166.557
4.79227, 2, -47.2498, -11.9885, 29.3619, 13.6663, 67.2627, -166.557
4.79935, 2, -47.2498, -11.9885, 29.3619, 13.6663, 67.2627, -166.557
4.80742, 2, -47.2498, -11.9884, 29.3619, 13.6663, 67.2627, -166.557
4.8156, 2, -47.2497, -11.9884, 29.3619, 13.6663, 67.2627, -166.557
4.82339, 2, -47.2497, -11.9883, 29.3619, 13.6663, 67.2626, -166.557
4.83141, 2, -47.2497, -11.9882, 29.3619, 13.6663, 67.2627, -166.557
4.83935, 2, -47.2496, -11.9882, 29.3619, 13.6663, 67.2627, -166.557
4.84735, 2, -47.2495, -11.9881, 29.3619, 13.6662, 67.2627, -166.557
4.85542, 2, -47.2494, -11.9881, 29.3619, 13.6662, 67.2628, -166.557
4.86525, 2, -47.2493, -11.9881, 29.3619, 13.6662, 67.2628, -166.557
4.87137, 2, -47.2493, -11.9881, 29.3619, 13.6662, 67.2627, -166.557
4.88089, 2, -47.2493, -11.9881, 29.3619, 13.6662, 67.2627, -166.557
4.88921, 2, -47.2492, -11.9881, 29.3619, 13.6661, 67.2627, -166.556
4.89535, 2, -47.2492, -11.9881, 29.3619, 13.6661, 67.2627, -166.556
4.90342, 2, -47.2492, -11.9881, 29.3619, 13.6661, 67.2627, -166.556
4.9132, 2, -47.2491, -11.988, 29.3619, 13.6661, 67.2627, -166.556
4.91935, 2, -47.2491, -11.988, 29.3619, 13.6661, 67.2627, -166.556
4.92742, 2, -47.249, -11.9879, 29.3619, 13.6661, 67.2628, -166.556
4.93726, 2, -47.249, -11.9878, 29.3619, 13.666, 67.2628, -166.556
4.94335, 2, -47.2489, -11.9878, 29.3619, 13.666, 67.2628, -166.556
4.95143, 2, -47.2489, -11.9877, 29.3619, 13.666, 67.2628, -166.556
4.95937, 2, -47.2488, -11.9877, 29.3619, 13.666, 67.2628, -166.556
4.96735, 2, -47.2487, -11.9877, 29.3619, 13.666, 67.2629, -166.556
4.97542, 2, -47.2487, -11.9877, 29.3619, 13.666, 67.2629, -166.556
4.98338, 2, -47.2486, -11.9877, 29.3619, 13.666, 67.2629, -166.556
4.99139, 2, -47.2486, -11.9877, 29.3619, 13.666, 67.2629, -166.556
4.99942, 2, -47.2486, -11.9877, 29.3618, 13.666, 67.263, -166.556
5.00735, 2, -47.2486, -11.9877, 29.3618, 13.6659, 67.2629, -166.556
5.01535, 2, -47.2486, -11.9876, 29.3618, 13.666, 67.2629, -166.556
5.02343, 2, -47.2486, -11.9876, 29.3619, 13.6659, 67.2629, -166.556
5.03136, 2, -47.2485, -11.9875, 29.3619, 13.6659, 67.2629, -166.556
5.03935, 2, -47.2484, -11.9874, 29.3619, 13.6659, 67.263, -166.556
5.04741, 2, -47.2483, -11.9874, 29.3619, 13.6659, 67.263, -166.556
5.05559, 2, -47.2482, -11.9874, 29.3619, 13.6659, 67.263, -166.556
5.06437, 2, -47.2482, -11.9873, 29.3618, 13.6659, 67.263, -166.556
5.07139, 2, -47.2481, -11.9873, 29.3618, 13.6658, 67.263, -166.556
5.07938, 2, -47.2481, -11.9873, 29.3618, 13.6658, 67.263, -166.556
5.08773, 2, -47.248, -11.9873, 29.3618, 13.6658, 67.263, -166.556
5.09535, 2, -47.248, -11.9873, 29.3618, 13.6658, 67.263, -166.556
5.10335, 2, -47.2479, -11.9873, 29.3618, 13.6658, 67.263, -166.556
5.11148, 2, -47.2479, -11.9873, 29.3618, 13.6658, 67.263, -166.556
5.11943, 2, -47.248, -11.9872, 29.3618, 13.6657, 67.263, -166.556
5.12746, 2, -47.2479, -11.9872, 29.3618, 13.6657, 67.263, -166.556
5.13584, 2, -47.2479, -11.9871, 29.3618, 13.6657, 67.2631, -166.556
5.14346, 4, -47.2479, -11.9871, 29.3618, 13.6657, 67.2631, -166.556
5.1515, 4, -47.2478, -11.987, 29.3618, 13.6657, 67.2631, -166.556
5.15955, 4, -47.2477, -11.987, 29.3618, 13.6657, 67.2631, -166.556
5.16735, 4, -47.2476, -11.987, 29.3618, 13.6656, 67.2631, -166.556
5.17538, 4, -47.2476, -11.9869, 29.3618, 13.6656, 67.2631, -166.556
5.18348, 4, -47.2475, -11.9869, 29.3618, 13.6656, 67.2631, -166.556
5.19146, 4, -47.2475, -11.9869, 29.3619, 13.6656, 67.2631, -166.556
5.19955, 4, -47.2474, -11.9869, 29.3618, 13.6655, 67.2631, -166.556
5.20768, 4, -47.2474, -11.9869, 29.3618, 13.6656, 67.2631, -166.556
5.21561, 4, -47.2474, -11.9869, 29.3618, 13.6656, 67.2631, -166.556
5.22367, 4, -47.2474, -11.9868, 29.3618, 13.6655, 67.2631, -166.556
5.23191, 4, -47.2473, -11.9868, 29.3618, 13.6655, 67.2631, -166.556
5.2407, 4, -47.2473, -11.9867, 29.3618, 13.6654, 67.2631, -166.556
5.25642, 4, -47.2472, -11.9866, 29.3618, 13.6654, 67.2631, -166.555
5.2583, 4, -47.2472, -11.9866, 29.3618, 13.6654, 67.2631, -166.555
5.26646, 4, -47.2472, -11.9866, 29.3618, 13.6654, 67.2631, -166.555
5.27451, 4, -47.2471, -11.9866, 29.3618, 13.6654, 67.2631, -166.555
5.28064, 4, -47.247, -11.9866, 29.3618, 13.6654, 67.2631, -166.555
5.28866, 4, -47.247, -11.9866, 29.3618, 13.6654, 67.2631, -166.555
5.29862, 4, -47.2469, -11.9866, 29.3618, 13.6654, 67.2631, -166.555
5.30469, 4, -47.2469, -11.9866, 29.3618, 13.6654, 67.2631, -166.555
5.31272, 4, -47.2469, -11.9866, 29.3618, 13.6654, 67.2631, -166.555
5.32085, 4, -47.2468, -11.9865, 29.3618, 13.6653, 67.2632, -166.555
5.33683, 4, -47.2468, -11.9864, 29.3618, 13.6653, 67.2632, -166.555
5.33874, 4, -47.2468, -11.9864, 29.3618, 13.6653, 67.2632, -166.555
5.34753, 4, -47.2468, -11.9864, 29.3618, 13.6653, 67.2631, -166.555
5.35154, 4, -47.2468, -11.9863, 29.3618, 13.6653, 67.2632, -166.555
5.36208, 4, -47.2468, -11.9863, 29.3618, 13.6652, 67.2632, -166.555
5.36753, 4, -47.2469, -11.9864, 29.3618, 13.6652, 67.2632, -166.555
5.37548, 4, -47.2477, -11.9868, 29.3622, 13.6654, 67.2633, -166.555
5.38688, 4, -47.2517, -11.9903, 29.3661, 13.6704, 67.2647, -166.554
5.39445, 4, -47.2571, -11.9969, 29.3748, 13.6871, 67.2686, -166.552
5.40277, 4, -47.2661, -12.0087, 29.3928, 13.723, 67.2782, -166.544
5.40749, 5, -47.2725, -12.0172, 29.4071, 13.7517, 67.2861, -166.537
5.41712, 5, -47.2901, -12.041, 29.4498, 13.8404, 67.328, -166.503
5.42515, 5, -47.3156, -12.0744, 29.5153, 13.9801, 67.3749, -166.463
5.43339, 5, -47.3709, -12.1441, 29.6655, 14.3091, 67.4392, -166.408
5.44187, 5, -47.4201, -12.2047, 29.8023, 14.6128, 67.522, -166.337
5.44847, 5, -47.4481, -12.2392, 29.8815, 14.7886, 67.5691, -166.296
5.45656, 5, -47.5103, -12.3162, 30.06, 15.1831, 67.6749, -166.204
5.46855, 5, -47.6167, -12.4491, 30.3701, 15.8587, 67.854, -166.047
5.47198, 5, -47.6551, -12.4973, 30.4817, 16.0992, 67.9172, -165.992
5.48056, 5, -47.7359, -12.5988, 30.7147, 16.594, 68.0463, -165.879
5.48838, 5, -47.821, -12.7056, 30.9577, 17.1002, 68.1761, -165.765
5.49554, 5, -47.9092, -12.8157, 31.2059, 17.6116, 68.3056, -165.651
5.50382, 5, -47.9993, -12.9281, 31.4589, 18.1253, 68.4336, -165.538
5.51144, 5, -48.0907, -13.0421, 31.7164, 18.6408, 68.5598, -165.426
5.51947, 5, -48.1831, -13.1573, 31.9774, 19.1573, 68.6845, -165.315
5.52998, 5, -48.2753, -13.2731, 32.2432, 19.9322, 68.8676, -165.152
5.53548, 5, -48.3654, -13.3887, 32.5115, 20.1904, 68.9278, -165.098
5.54644, 5, -48.4926, -13.5594, 32.9182, 20.9607, 69.1062, -164.931
5.55254, 5, -48.5321, -13.615, 33.0536, 21.2136, 69.1656, -164.871
5.55951, 6, -48.6058, -13.7238, 33.3216, 21.7084, 69.2851, -164.739
5.56812, 6, -48.6708, -13.8284, 33.5835, 22.1835, 69.4069, -164.582
5.57639, 6, -48.7243, -13.9279, 33.8351, 22.6313, 69.5334, -164.39
5.58517, 7, -48.7648, -14.0212, 34.0746, 23.0466, 69.6661, -164.154
5.59154, 7, -48.7914, -14.108, 34.3008, 23.4283, 69.8065, -163.868
5.6006, 7, -48.8046, -14.1887, 34.5124, 23.7781, 69.9549, -163.533
5.60958, 8, -48.8046, -14.2629, 34.7117, 24.1013, 70.1116, -163.152
5.61546, 8, -48.7919, -14.3307, 34.9013, 24.4036, 70.2755, -162.732
5.62443, 8, -48.7686, -14.3928, 35.0824, 24.6915, 70.4459, -162.281
5.6316, 9, -48.7366, -14.4503, 35.2568, 24.9706, 70.6215, -161.809
5.64034, 9, -48.6976, -14.5042, 35.4272, 25.2441, 70.8006, -161.322
5.65016, 10, -48.6533, -14.5551, 35.5946, 25.5156, 70.9825, -160.827
5.65572, 10, -48.6049, -14.6039, 35.7588, 25.7871, 71.1656, -160.327
5.66447, 10, -48.5538, -14.6511, 35.9209, 26.06, 71.3502, -159.826
5.67174, 11, -48.5006, -14.6972, 36.082, 26.3351, 71.5351, -159.327
5.68034, 11, -48.4465, -14.7426, 36.2419, 26.6133, 71.7198, -158.829
5.68915, 11, -48.3915, -14.7877, 36.4002, 26.8944, 71.9045, -158.335
5.69752, 12, -48.3363, -14.8327, 36.5573, 27.1782, 72.0886, -157.844
5.70437, 12, -48.281, -14.8775, 36.7141, 27.4648, 72.2721, -157.355
5.71462, 13, -48.2248, -14.9221, 36.8701, 27.7535, 72.4547, -156.87
5.72021, 13, -48.1671, -14.9667, 37.0246, 28.0437, 72.6367, -156.387
5.72825, 13, -48.1071, -15.0111, 37.1778, 28.3356, 72.818, -155.907
5.73712, 14, -48.0447, -15.0551, 37.3298, 28.628, 72.998, -155.429
5.74393, 14, -47.9796, -15.0989, 37.4807, 28.9208, 73.1774, -154.952
5.75407, 14, -47.912, -15.1425, 37.6299, 29.2136, 73.3556, -154.477
5.76062, 15, -47.842, -15.1858, 37.7773, 29.506, 73.5328, -154.005
5.76853, 15, -47.7697, -15.2291, 37.9231, 29.7975, 73.709, -153.533
5.77591, 15, -47.7327, -15.2723, 38.0676, 30.0884, 73.884, -153.063
5.78812, 16, -47.5787, -15.3376, 38.281, 30.5229, 74.1441, -152.361
5.79233, 16, -47.5387, -15.3595, 38.3513, 30.6671, 74.23, -152.129
5.80083, 16, -47.4982, -15.3815, 38.4211, 30.8113, 74.3156, -151.897
5.81208, 17, -47.3732, -15.4482, 38.6285, 31.2423, 74.5696, -151.204
5.81748, 17, -47.2869, -15.4932, 38.7651, 31.5279, 74.7366, -150.745
5.8251, 18, -47.2428, -15.516, 38.8329, 31.6704, 74.8192, -150.517
5.83141, 18, -47.1525, -15.5622, 38.9676, 31.955, 74.9831, -150.064
5.8422, 18, -47.0117, -15.6328, 39.1674, 32.3799, 75.2242, -149.39
5.84904, 19, -46.9138, -15.6812, 39.2995, 32.6624, 75.3819, -148.946
5.85529, 19, -46.8637, -15.7058, 39.3652, 32.8034, 75.4595, -148.725
5.86873, 19, -46.7092, -15.781, 39.5609, 33.2241, 75.7631, -147.853
5.87328, 20, -46.6028, -15.8327, 39.6902, 33.5035, 75.8371, -147.637
5.88174, 20, -46.494, -15.8859, 39.8184, 33.7816, 75.9829, -147.21
5.89015, 20, -46.3828, -15.9405, 39.9457, 34.0582, 76.1254, -146.786
5.8953, 21, -46.3263, -15.9684, 40.009, 34.1961, 76.1956, -146.576
5.9049, 21, -46.2116, -16.0542, 40.1975, 34.6076, 76.401, -145.952
5.91347, 22, -46.0346, -16.1134, 40.3217, 34.8797, 76.534, -145.541
5.91931, 22, -45.9742, -16.1435, 40.3833, 35.015, 76.5993, -145.337
5.92737, 22, -45.8509, -16.2046, 40.5054, 35.2843, 76.7279, -144.931
5.93723, 23, -45.7242, -16.2669, 40.6261, 35.5512, 76.8532, -144.528
5.94392, 23, -45.594, -16.3302, 40.7452, 35.8157, 76.9754, -144.129
5.95236, 23, -45.4601, -16.3945, 40.8626, 36.0777, 77.0949, -143.732
5.95945, 24, -45.3226, -16.4596, 40.9782, 36.3371, 77.2113, -143.339
5.97015, 24, -45.1096, -16.5586, 41.1477, 36.7199, 77.3812, -142.752
5.97553, 24, -45.0368, -16.5918, 41.2029, 36.8459, 77.4364, -142.558
5.98436, 25, -44.8886, -16.6586, 41.3116, 37.0953, 77.545, -142.17
5.99234, 25, -44.7368, -16.7258, 41.4177, 37.3408, 77.6515, -141.784
5.9995, 26, -44.5815, -16.7933, 41.5212, 37.5824, 77.7553, -141.399
6.00786, 26, -44.4227, -16.861, 41.622, 37.8203, 77.8572, -141.016
6.01532, 26, -44.2602, -16.9286, 41.7196, 38.0541, 77.9572, -140.633
6.02362, 27, -44.094, -16.996, 41.8138, 38.2833, 78.0543, -140.252
6.03235, 27, -43.9241, -17.0631, 41.9046, 38.5084, 78.1498, -139.871
6.04031, 27, -43.75, -17.1297, 41.992, 38.7292, 78.2435, -139.49
6.04846, 28, -43.5718, -17.1957, 42.0762, 38.9455, 78.3349, -139.109
6.05897, 28, -43.3893, -17.293, 42.1961, 39.2614, 78.4693, -138.54
6.06352, 28, -43.2029, -17.325, 42.2343, 39.3644, 78.5134, -138.35
6.07231, 29, -43.0125, -17.3883, 42.3078, 39.5673, 78.6002, -137.971
6.07939, 29, -42.8182, -17.4505, 42.3772, 39.7657, 78.685, -137.592
6.08846, 30, -42.62, -17.5116, 42.4429, 39.9592, 78.7685, -137.213
6.09642, 30, -42.418, -17.5717, 42.5047, 40.1482, 78.8507, -136.834
6.10338, 30, -42.2125, -17.6306, 42.563, 40.3327, 78.9309, -136.456
6.1115, 31, -42.0039, -17.6883, 42.6175, 40.5128, 79.0101, -136.078
6.11962, 31, -41.7917, -17.7448, 42.668, 40.6885, 79.0877, -135.7
6.12789, 31, -41.5757, -17.8, 42.7146, 40.8594, 79.1641, -135.323
6.13544, 32, -41.356, -17.8537, 42.7575, 41.0258, 79.2385, -134.945
6.14354, 32, -41.1327, -17.9059, 42.7964, 41.1881, 79.3122, -134.568
6.15217, 32, -40.9058, -17.9565, 42.8316, 41.3462, 79.3842, -134.192
6.16013, 33, -40.6749, -18.0055, 42.8633, 41.5, 79.4553, -133.817
6.16737, 33, -40.4407, -18.0529, 42.891, 41.6494, 79.5242, -133.441
6.17634, 34, -40.2043, -18.0987, 42.915, 41.7946, 79.5926, -133.067
6.18371, 34, -39.9657, -18.1429, 42.9351, 41.9354, 79.659, -132.692
6.19142, 34, -39.7242, -18.1855, 42.9513, 42.0722, 79.7251, -132.319
6.20049, 35, -39.4791, -18.2264, 42.9641, 42.2052, 79.7887, -131.946
6.21359, 35, -39.2303, -18.2847, 42.9764, 42.3968, 79.8834, -131.388
6.21629, 35, -38.978, -18.3033, 42.9786, 42.4586, 79.9139, -131.202
6.22414, 36, -38.7225, -18.3391, 42.9804, 42.5792, 79.9744, -130.831
6.23166, 36, -38.4638, -18.3731, 42.9787, 42.6958, 80.0344, -130.461
6.24117, 36, -38.202, -18.4053, 42.9734, 42.8084, 80.0922, -130.091
6.24942, 37, -37.9368, -18.4356, 42.9644, 42.917, 80.1501, -129.723
6.25585, 37, -37.6678, -18.464, 42.9518, 43.0219, 80.2063, -129.355
6.26541, 38, -37.3962, -18.4904, 42.9356, 43.1229, 80.2613, -128.989
6.27439, 38, -37.1229, -18.5149, 42.9159, 43.2199, 80.3159, -128.623
6.28061, 38, -36.8476, -18.5375, 42.8923, 43.313, 80.3682, -128.257
6.28864, 39, -36.5697, -18.5581, 42.8654, 43.4022, 80.4201, -127.893
6.29631, 39, -36.2892, -18.5765, 42.8348, 43.4875, 80.4713, -127.53
6.30609, 39, -36.0054, -18.5933, 42.8009, 43.5687, 80.5207, -127.168
6.31418, 40, -35.7185, -18.6082, 42.7635, 43.6463, 80.5701, -126.807
6.32086, 40, -35.4289, -18.6211, 42.7224, 43.7201, 80.6184, -126.447
6.32749, 40, -35.2832, -18.6267, 42.7006, 43.7557, 80.6418, -126.267
6.33543, 41, -34.9894, -18.6366, 42.6545, 43.8235, 80.6878, -125.909
6.34336, 41, -34.6924, -18.6446, 42.6051, 43.8883, 80.7338, -125.551
6.35148, 42, -34.3927, -18.6508, 42.5524, 43.9485, 80.7781, -125.196
6.35928, 42, -34.0909, -18.6551, 42.4964, 44.0056, 80.8211, -124.841
6.36874, 42, -33.6353, -18.6583, 42.4064, 44.0836, 80.8853, -124.311
6.37727, 43, -33.3294, -18.6583, 42.3423, 44.1312, 80.9263, -123.959
6.38341, 43, -33.1752, -18.6577, 42.3091, 44.1538, 80.9463, -123.783
6.39371, 43, -32.708, -18.6528, 42.205, 44.215, 81.0056, -123.259
6.39953, 44, -32.5512, -18.6502, 42.1688, 44.2332, 81.0251, -123.085
6.40962, 44, -32.077, -18.6399, 42.0553, 44.2829, 81.0813, -122.564
6.41543, 44, -31.9176, -18.6354, 42.0158, 44.2979, 81.0994, -122.391
6.42352, 45, -31.5971, -18.625, 41.9346, 44.3246, 81.1354, -122.047
6.43137, 45, -31.2741, -18.6129, 41.8502, 44.347, 81.1712, -121.703
6.44113, 46, -30.9492, -18.599, 41.7627, 44.3651, 81.2055, -121.36
6.44936, 46, -30.6226, -18.574, 41.626, 44.3847, 81.2548, -120.849
6.46141, 47, -30.1278, -18.5546, 41.531, 44.3928, 81.2874, -120.341
6.46352, 47, -29.9613, -18.5441, 41.4823, 44.3954, 81.3037, -120.341
6.47131, 47, -29.6262, -18.5214, 41.3825, 44.398, 81.3356, -120.003
6.47985, 47, -29.2884, -18.4964, 41.2794, 44.3974, 81.3663, -119.666
6.48971, 48, -28.7783, -18.4543, 41.1186, 44.3877, 81.4114, -119.163
6.4953, 48, -28.6073, -18.4391, 41.0634, 44.3822, 81.4265, -118.995
6.50636, 49, -28.0912, -18.39, 40.8931, 44.3585, 81.4719, -118.495
6.51166, 49, -27.9184, -18.3724, 40.8348, 44.3481, 81.4867, -118.329
6.52048, 49, -27.5713, -18.3352, 40.7154, 44.3235, 81.5159, -117.996
6.52747, 50, -27.2213, -18.2955, 40.5923, 44.2935, 81.5448, -117.664
6.53534, 50, -26.8677, -18.2529, 40.4656, 44.2587, 81.5742, -117.333
6.54689, 50, -26.5096, -18.1839, 40.2691, 44.1977, 81.6195, -116.837
6.55144, 51, -26.148, -18.1595, 40.2018, 44.1744, 81.6345, -116.672
6.55939, 51, -25.7842, -18.1085, 40.0647, 44.1239, 81.6646, -116.342
6.5673, 51, -25.4186, -18.0543, 39.9239, 44.069, 81.6951, -116.012
6.57644, 52, -25.0521, -17.9972, 39.7794, 44.0076, 81.7266, -115.683
6.58362, 52, -24.6842, -17.937, 39.6314, 43.9411, 81.7592, -115.354
6.59328, 53, -24.314, -17.8735, 39.4798, 43.8689, 81.7919, -115.025
6.59932, 53, -23.9407, -17.8068, 39.3244, 43.7914, 81.8249, -114.696
6.60889, 53, -23.5629, -17.737, 39.1654, 43.7082, 81.859, -114.367
6.61548, 54, -23.1811, -17.6641, 39.003, 43.6193, 81.8945, -114.039
6.6253, 54, -22.7958, -17.5881, 38.8372, 43.5249, 81.9307, -113.71
6.63586, 54, -22.2128, -17.4681, 38.5805, 43.3721, 81.986, -113.218
6.63962, 55, -22.0179, -17.4266, 38.493, 43.3182, 82.0052, -113.054
6.64835, 55, -21.627, -17.3415, 38.3159, 43.206, 82.0447, -112.725
6.65582, 55, -21.2348, -17.2532, 38.1359, 43.0877, 82.0846, -112.397
6.66362, 56, -20.8391, -17.1616, 37.9517, 42.9632, 82.125, -112.069
6.67414, 56, -20.4388, -17.0669, 37.7634, 42.833, 82.167, -111.742
6.68042, 57, -20.0337, -16.9693, 37.5723, 42.6964, 82.2101, -111.414
6.68936, 57, -19.6248, -16.8689, 37.3778, 42.5539, 82.2533, -111.087
6.6954, 57, -19.2138, -16.7654, 37.1793, 42.4048, 82.2979, -110.76
6.70392, 58, -18.8016, -16.6592, 36.978, 42.2491, 82.344, -110.432
6.71426, 58, -18.3879, -16.5502, 36.7742, 42.087, 82.3902, -110.106
6.71991, 58, -17.971, -16.4383, 36.5664, 41.9187, 82.4374, -109.779
6.72766, 59, -17.5499, -16.3238, 36.3551, 41.7438, 82.4864, -109.453
6.73585, 59, -17.1236, -16.2069, 36.1412, 41.5623, 82.5357, -109.127
6.74943, 60, -16.4757, -16.0265, 35.814, 41.2769, 82.6122, -108.638
6.75237, 60, -16.258, -15.9649, 35.7034, 41.1783, 82.6384, -108.475
6.75992, 60, -15.8221, -15.8399, 35.4808, 40.9758, 82.6907, -108.149
6.76894, 61, -15.3855, -15.7121, 35.2546, 40.7662, 82.7444, -107.824
6.77587, 61, -14.9464, -15.5814, 35.0247, 40.5496, 82.8, -107.498
6.78447, 61, -14.5025, -15.448, 34.7924, 40.3257, 82.8559, -107.173
6.79213, 62, -14.0524, -15.3117, 34.557, 40.0948, 82.9145, -106.847
6.80014, 62, -13.8253, -15.1722, 34.319, 39.8561, 82.9737, -106.521
6.80945, 62, -13.1372, -15.0296, 34.0786, 39.6097, 83.0346, -106.194
6.81533, 63, -12.9068, -14.9572, 33.9569, 39.4837, 83.0661, -106.031
6.82329, 63, -12.445, -14.8102, 33.711, 39.2257, 83.1294, -105.704
6.83144, 63, -11.981, -14.6605, 33.4626, 38.9599, 83.1954, -105.376
6.83956, 64, -11.5128, -14.5072, 33.2108, 38.6862, 83.2632, -105.048
6.84729, 64, -11.0383, -14.3503, 32.9564, 38.4047, 83.3331, -104.719
6.85682, 65, -10.3149, -14.1092, 32.5694, 37.9671, 83.4424, -104.225
6.86343, 65, -10.0717, -14.0273, 32.4386, 37.817, 83.4804, -104.059
6.87149, 65, -9.58402, -13.8613, 32.1756, 37.5104, 83.5579, -103.727
6.88142, 66, -8.85028, -13.6056, 31.7752, 37.0352, 83.6796, -103.228
6.88729, 66, -8.60377, -13.5182, 31.6403, 36.8728, 83.7216, -103.061
6.89793, 66, -7.85414, -13.2505, 31.2317, 36.3733, 83.8526, -102.558
6.90344, 67, -7.60057, -13.1598, 31.0941, 36.2025, 83.8977, -102.39
6.91135, 67, -7.08944, -12.9756, 30.818, 35.8548, 83.9907, -102.053
6.92191, 67, -6.57566, -12.7871, 30.3985, 35.3172, 84.1364, -101.544
6.92963, 68, -5.80313, -12.4967, 30.1162, 34.9488, 84.2378, -101.204
6.93544, 68, -5.54415, -12.3984, 29.9738, 34.7617, 84.29, -101.033
6.94695, 68, -5.0213, -12.1987, 29.6875, 34.1875, 84.4519, -100.52
6.95145, 69, -4.49045, -11.9945, 29.4001, 33.9922, 84.5077, -100.348
6.95948, 69, -3.95367, -11.7867, 29.1106, 33.5954, 84.6222, -100.002
6.96995, 70, -3.14552, -11.4695, 28.6746, 32.9854, 84.8007, -99.4824
6.97533, 70, -2.87599, -11.3618, 28.5282, 32.7782, 84.8622, -99.3083
6.98329, 70, -2.33478, -11.1431, 28.2346, 32.3583, 84.988, -98.9593
6.9915, 71, -1.78732, -10.9205, 27.9396, 31.9315, 85.1176, -98.6094
7.00181, 71, -1.23206, -10.694, 27.4967, 31.2776, 85.3197, -98.0819
7.00742, 71, -0.671972, -10.4633, 27.349, 31.056, 85.3888, -97.9053
7.01643, 72, -0.111113, -10.2297, 27.0531, 30.6072, 85.5306, -97.5516
7.02685, 72, 0.730716, -9.87215, 26.6089, 29.9229, 85.7501, -97.0183
7.03144, 73, 1.01313, -9.75054, 26.4605, 29.6918, 85.8255, -96.84
7.03968, 73, 1.58328, -9.50438, 26.1645, 29.225, 85.9789, -96.4828
7.04735, 73, 2.15919, -9.25467, 25.8687, 28.7525, 86.1364, -96.124
7.05551, 74, 2.73694, -9.0015, 25.5741, 28.2743, 86.2981, -95.7638
7.0651, 74, 3.31354, -8.74573, 25.2802, 27.7914, 86.4641, -95.4024
7.07331, 74, 3.8908, -8.48579, 24.9869, 27.3035, 86.6344, -95.0394
7.07935, 75, 4.4729, -8.22092, 24.6945, 26.8117, 86.8094, -94.6751
7.08732, 75, 5.06047, -7.95223, 24.4031, 26.3165, 86.9887, -94.3097
7.0954, 75, 5.65011, -7.67968, 24.1144, 25.817, 87.1727, -93.9427
7.10328, 76, 6.2382, -7.40343, 23.8272, 25.3143, 87.3613, -93.5741
7.1113, 76, 6.82441, -7.12314, 23.542, 24.81, 87.5549, -93.2041
7.12142, 77, 7.4124, -6.83721, 23.2577, 24.3038, 87.7534, -92.8323
7.1274, 77, 8.00464, -6.54694, 22.9756, 23.7954, 87.9572, -92.4589
7.13544, 77, 8.59915, -6.25269, 22.6964, 23.2861, 88.166, -92.0842
7.1436, 78, 9.19121, -5.95396, 22.4197, 22.7761, 88.3799, -91.7076
7.15294, 78, 9.77911, -5.65108, 22.146, 22.2661, 88.599, -91.329
7.16046, 78, 10.3662, -5.34229, 21.8741, 21.7572, 88.8235, -90.9485
7.16746, 79, 10.9555, -5.02851, 21.6051, 21.2498, 89.0534, -90.566
7.17529, 79, 11.5458, -4.70967, 21.3392, 20.7436, 89.2886, -90.1814
7.18448, 80, 12.1337, -4.38662, 21.0762, 20.2387, 89.529, -89.7952
7.19132, 80, 12.7157, -4.05925, 20.8167, 19.7374, 89.7751, -89.4065
7.19934, 80, 13.2943, -3.72613, 20.5592, 19.2398, 90.0266, -89.0156
7.20786, 81, 13.8731, -3.38821, 20.3047, 18.746, 90.284, -88.6226
7.21693, 81, 14.4519, -3.04482, 20.0539, 18.2567, 90.5469, -88.2266
7.22547, 81, 15.0274, -2.69694, 19.8059, 17.7721, 90.8154, -87.8285
7.23327, 82, 15.5956, -2.34323, 19.5617, 17.2931, 91.0895, -87.428
7.23968, 82, 16.1572, -1.984, 19.3199, 16.8199, 91.3698, -87.024
7.24863, 82, 16.7159, -1.61815, 19.0803, 16.354, 91.6559, -86.6175
7.25584, 83, 17.2733, -1.24612, 18.8449, 15.8952, 91.9481, -86.2075
7.26442, 83, 17.8272, -0.86726, 18.6129, 15.4434, 92.2461, -85.7944
7.27303, 84, 18.3727, -0.483114, 18.3836, 14.9999, 92.5501, -85.3786
7.28039, 84, 18.909, -0.093127, 18.1576, 14.5653, 92.8601, -84.959
7.28792, 84, 19.4395, 0.30273, 17.9335, 14.1401, 93.176, -84.5358
7.29627, 85, 19.9668, 0.705532, 17.7121, 13.7243, 93.4976, -84.1092
7.30332, 85, 20.2291, 0.909084, 17.6029, 13.5198, 93.6607, -83.8944
7.3124, 85, 21.0061, 1.52785, 17.2803, 12.9217, 94.1573, -83.2452
7.31928, 86, 21.2603, 1.7365, 17.1739, 12.7278, 94.3254, -83.027
7.32837, 86, 22.0084, 2.37091, 16.8597, 12.1627, 94.8373, -82.3664
7.33528, 86, 22.2543, 2.58521, 16.7564, 11.98, 95.0105, -82.1444
7.34461, 87, 22.9853, 3.23556, 16.4507, 11.45, 95.5366, -81.4727
7.35127, 87, 23.2265, 3.45522, 16.3508, 11.279, 95.7141, -81.2473
7.36149, 88, 23.9379, 4.12033, 16.0574, 10.7843, 96.2516, -80.5661
7.36734, 88, 24.1698, 4.34402, 15.961, 10.6256, 96.4321, -80.3372
7.3768, 88, 24.8499, 5.02089, 15.677, 10.1678, 96.977, -79.6463
7.38515, 89, 25.2937, 5.47699, 15.4934, 9.87859, 97.3426, -79.1821
7.3974, 89, 25.9472, 6.16653, 15.2252, 9.4685, 97.8929, -78.4815
7.39928, 89, 25.9472, 6.16653, 15.2252, 9.4685, 97.8929, -78.4815
7.40728, 90, 26.3741, 6.6294, 15.0514, 9.21058, 98.2608, -78.0108
7.41681, 90, 26.792, 7.09412, 14.8824, 8.96586, 98.8133, -77.3002
7.42587, 90, 27.2006, 7.56084, 14.7174, 8.73383, 98.9974, -76.8238
7.43127, 91, 27.5995, 8.03037, 14.5563, 8.51423, 99.3652, -76.5849
7.43927, 91, 27.9897, 8.50195, 14.4, 8.30773, 99.7325, -76.1052
7.44753, 92, 28.3728, 8.97512, 14.2483, 8.1142, 100.099, -75.623
7.45635, 92, 28.7489, 9.45034, 14.1005, 7.93317, 100.465, -75.1384
7.46435, 92, 29.1177, 9.92741, 13.9563, 7.76482, 100.83, -74.6513
7.47223, 93, 29.4778, 10.406, 13.8162, 7.60916, 101.195, -74.1622
7.48035, 93, 29.8282, 10.8865, 13.6801, 7.46617, 101.559, -73.6698
7.48825, 93, 30.1693, 11.3681, 13.5476, 7.33619, 101.922, -73.1744
7.49633, 94, 30.5019, 11.8508, 13.4188, 7.21911, 102.284, -72.6755
7.50432, 94, 30.827, 12.3352, 13.2936, 7.11492, 102.646, -72.1743
7.5123, 94, 31.145, 12.8212, 13.1718, 7.02344, 103.007, -71.6697
7.52032, 95, 31.4548, 13.3082, 13.0537, 6.9451, 103.366, -71.1619
7.52825, 95, 31.7558, 13.7961, 12.9394, 6.8787, 103.724, -70.651
7.53624, 96, 32.0483, 14.2844, 12.8291, 6.82596, 104.08, -70.1373
7.5433, 96, 32.3331, 14.7726, 12.7226, 6.78491, 104.433, -69.6212
7.55127, 96, 32.6114, 15.2615, 12.62, 6.75583, 104.784, -69.1018
7.55933, 97, 32.8832, 15.75, 12.5213, 6.73879, 105.131, -68.58
7.56727, 97, 33.1478, 16.2379, 12.4267, 6.73213, 105.476, -68.0556
7.57533, 97, 33.4042, 16.7252, 12.3365, 6.7372, 105.816, -67.5301
7.58334, 98, 33.6527, 17.212, 12.2507, 6.75517, 106.153, -67.0018
7.59128, 98, 33.8937, 17.6979, 12.1692, 6.78472, 106.485, -66.4717
7.59944, 98, 34.1269, 18.1827, 12.0919, 6.82482, 106.814, -65.9396
7.60727, 99, 34.3535, 18.6659, 12.0187, 6.87574, 107.138, -65.4063
7.61528, 99, 34.5743, 19.1474, 11.9497, 6.93826, 107.457, -64.8708
7.62429, 100, 34.7897, 19.6264, 11.8851, 7.0099, 107.772, -64.3338
7.63136, 100, 34.9992, 20.1021, 11.825, 7.09245, 108.081, -63.7954
7.63936, 100, 35.2033, 20.5736, 11.7697, 7.18395, 108.384, -63.2574
7.64772, 101, 35.4022, 21.0402, 11.7191, 7.2843, 108.679, -62.7197
7.65537, 101, 35.596, 21.5031, 11.6739, 7.39302, 108.967, -62.183
7.66337, 101, 35.7841, 21.9614, 11.6337, 7.50932, 109.246, -61.6486
7.67196, 102, 35.9655, 22.4143, 11.5985, 7.63309, 109.516, -61.1178
7.68036, 102, 36.1404, 22.8624, 11.5681, 7.7634, 109.776, -60.5904
7.6873, 102, 36.3098, 23.3037, 11.5425, 7.89988, 110.028, -60.0667
7.69623, 103, 36.4747, 23.7363, 11.5214, 8.04245, 110.27, -59.5472
7.7037, 103, 36.6364, 24.1601, 11.5054, 8.19099, 110.504, -59.0328
7.71222, 104, 36.7949, 24.5754, 11.4947, 8.34558, 110.727, -58.5248
7.72041, 104, 36.9508, 24.983, 11.4892, 8.50659, 110.938, -58.0231
7.72757, 104, 37.105, 25.3829, 11.4887, 8.67349, 111.136, -57.5287
7.73564, 104, 37.2568, 25.7767, 11.4937, 8.84598, 111.319, -57.0414
7.74367, 104, 37.4051, 26.1646, 11.5035, 9.02344, 111.487, -56.562
7.75232, 104, 37.5488, 26.5476, 11.5169, 9.20552, 111.644, -56.0882
7.75975, 104, 37.6886, 26.9245, 11.5334, 9.39202, 111.791, -55.619
7.76835, 104, 37.8264, 27.2955, 11.552, 9.58209, 111.932, -55.1538
7.77605, 104, 37.9627, 27.6592, 11.5713, 9.77516, 112.068, -54.6922
7.78385, 104, 38.0972, 28.0166, 11.5905, 9.97039, 112.202, -54.2357
7.79188, 104, 38.1634, 28.1926, 11.6094, 10.1669, 112.332, -53.7847
7.80037, 104, 38.3561, 28.7092, 11.6273, 10.3636, 112.46, -53.3422
7.80726, 104, 38.4182, 28.8772, 11.6359, 10.4614, 112.523, -53.125
7.81633, 104, 38.5972, 29.366, 11.6607, 10.7496, 112.703, -52.4943
7.82331, 104, 38.6542, 29.5234, 11.6687, 10.8432, 112.761, -52.2927
7.83126, 104, 38.7637, 29.8279, 11.6838, 11.0258, 112.872, -51.9042
7.8405, 104, 38.9166, 30.2589, 11.7052, 11.2849, 113.025, -51.3614
7.84725, 104, 38.9644, 30.3952, 11.712, 11.3667, 113.073, -51.1923
7.85526, 104, 39.0552, 30.6545, 11.7249, 11.5228, 113.163, -50.8725
7.86468, 104, 39.1783, 31.0094, 11.7422, 11.7373, 113.284, -50.4391
7.87126, 104, 39.2157, 31.1181, 11.7475, 11.8032, 113.32, -50.307
7.87929, 104, 39.2853, 31.32, 11.7576, 11.9268, 113.389, -50.0618
7.88876, 104, 39.376, 31.586, 11.7707, 12.0902, 113.478, -49.7411
7.89722, 104, 39.4274, 31.7386, 11.778, 12.1841, 113.529, -49.5583
7.90326, 104, 39.4504, 31.8074, 11.7814, 12.2266, 113.551, -49.4762
7.91286, 104, 39.5096, 31.9862, 11.7905, 12.3355, 113.609, -49.2661
7.92103, 104, 39.5261, 32.0838, 11.7956, 12.3935, 113.64, -49.1559
7.92725, 104, 39.5544, 32.1264, 11.7979, 12.4177, 113.652, -49.1089
7.93532, 104, 39.5774, 32.2005, 11.8022, 12.4579, 113.673, -49.0307
7.94438, 104, 39.5956, 32.261, 11.8061, 12.4887, 113.689, -48.9723
7.95126, 104, 39.6095, 32.3097, 11.8098, 12.5111, 113.7, -48.9304
7.95931, 104, 39.62, 32.3477, 11.8132, 12.5267, 113.707, -48.9019
7.96725, 104, 39.6279, 32.3762, 11.8162, 12.5368, 113.712, -48.8837
7.97525, 104, 39.6336, 32.3972, 11.8188, 12.543, 113.714, -48.8731
7.98331, 104, 39.6376, 32.412, 11.8209, 12.5464, 113.715, -48.8674
7.99126, 104, 39.6403, 32.4218, 11.8224, 12.5482, 113.716, -48.8647
7.99922, 105, 39.6417, 32.4278, 11.8236, 12.549, 113.716, -48.8636
8.00731, 105, 39.6422, 32.4315, 11.8244, 12.5494, 113.717, -48.8632
8.01525, 105, 39.642, 32.4338, 11.8252, 12.5496, 113.717, -48.8632
8.02325, 105, 39.6415, 32.4354, 11.8258, 12.5497, 113.717, -48.8635
8.03135, 105, 39.6411, 32.4365, 11.8264, 12.5498, 113.717, -48.8638
8.03925, 105, 39.6405, 32.4375, 11.8268, 12.5498, 113.717, -48.8641
8.04728, 105, 39.64, 32.4382, 11.8273, 12.5498, 113.717, -48.8644
8.05532, 105, 39.6396, 32.439, 11.8278, 12.5498, 113.717, -48.8648
8.06326, 105, 39.6392, 32.4399, 11.8283, 12.5498, 113.717, -48.8651
8.07126, 105, 39.6388, 32.4408, 11.8289, 12.5497, 113.717, -48.8654
8.07935, 105, 39.6384, 32.4417, 11.8293, 12.5497, 113.717, -48.8658
8.08733, 105, 39.6381, 32.4424, 11.8298, 12.5498, 113.717, -48.866
8.09525, 105, 39.6378, 32.443, 11.8301, 12.5497, 113.717, -48.8663
8.10332, 105, 39.6375, 32.4434, 11.8304, 12.5497, 113.717, -48.8666
8.11126, 105, 39.6372, 32.4436, 11.8307, 12.5497, 113.716, -48.8668
