hehonglu123/Motion-Primitive-Planning/simulation/robotstudio_sim/scripts/fitting_output/movel/curve_exe_v5000_fine.csv
timestamp, cmd_num, J1, J2, J3, J4, J5, J6
0, 1, -1.03478, 64.2084, 9.04567, 43.4164, -96.331, 171.025
0.002, 1, -1.03478, 64.2084, 9.04567, 43.4164, -96.331, 171.025
0.004, 1, -1.03478, 64.2084, 9.04567, 43.4164, -96.331, 171.025
0.008, 1, -1.03478, 64.2084, 9.04567, 43.4164, -96.331, 171.025
0.011, 1, -1.03478, 64.2084, 9.04567, 43.4164, -96.331, 171.025
0.016, 1, -1.03478, 64.2084, 9.04567, 43.4164, -96.331, 171.025
0.02, 1, -1.03478, 64.2084, 9.04567, 43.4164, -96.331, 171.025
0.024, 1, -1.03478, 64.2084, 9.04567, 43.4164, -96.331, 171.025
0.028, 1, -1.03478, 64.2084, 9.04567, 43.4164, -96.331, 171.025
0.032, 1, -1.03478, 64.2084, 9.04567, 43.4164, -96.331, 171.025
0.036, 1, -1.03477, 64.2084, 9.04567, 43.4164, -96.331, 171.025
0.04, 1, -1.0347, 64.2084, 9.04567, 43.4164, -96.331, 171.025
0.044, 1, -1.03448, 64.2083, 9.04568, 43.4164, -96.331, 171.025
0.048, 1, -1.03396, 64.2082, 9.0457, 43.4164, -96.331, 171.025
0.052, 1, -1.03298, 64.2079, 9.04572, 43.4164, -96.3309, 171.025
0.056, 1, -1.03146, 64.2074, 9.04575, 43.4165, -96.3308, 171.025
0.06, 1, -1.0293, 64.2066, 9.04577, 43.4168, -96.3306, 171.024
0.064, 1, -1.02647, 64.2055, 9.04573, 43.4172, -96.3303, 171.023
0.068, 1, -1.02292, 64.2041, 9.04559, 43.4181, -96.3296, 171.021
0.072, 1, -1.01861, 64.2022, 9.04528, 43.4194, -96.3285, 171.018
0.076, 1, -1.01344, 64.1999, 9.04472, 43.4214, -96.3268, 171.013
0.08, 1, -1.00725, 64.197, 9.04382, 43.4243, -96.3244, 171.006
0.084, 1, -0.999847, 64.1934, 9.04245, 43.4285, -96.3209, 170.997
0.088, 1, -0.991021, 64.1891, 9.0405, 43.4341, -96.3162, 170.983
0.092, 1, -0.980616, 64.184, 9.0378, 43.4416, -96.3099, 170.966
0.096, 1, -0.968525, 64.1781, 9.03418, 43.4513, -96.3018, 170.943
0.1, 1, -0.954664, 64.1713, 9.02947, 43.4636, -96.2915, 170.915
0.104, 1, -0.93893, 64.1636, 9.02349, 43.4789, -96.2786, 170.879
0.108, 1, -0.921191, 64.1549, 9.01606, 43.4976, -96.263, 170.836
0.112, 1, -0.901316, 64.1451, 9.00703, 43.5199, -96.2442, 170.784
0.116, 1, -0.879219, 64.1344, 8.99625, 43.5463, -96.222, 170.723
0.12, 1, -0.854878, 64.1228, 8.98358, 43.577, -96.1962, 170.651
0.124, 1, -0.828315, 64.1104, 8.9689, 43.6123, -96.1666, 170.569
0.128, 1, -0.799573, 64.0973, 8.95212, 43.6523, -96.1329, 170.477
0.131, 1, -0.768697, 64.0836, 8.9332, 43.6971, -96.0952, 170.373
0.136, 1, -0.735727, 64.0694, 8.91213, 43.7468, -96.0534, 170.258
0.139, 1, -0.700668, 64.0546, 8.88893, 43.8012, -96.0077, 170.132
0.144, 1, -0.663486, 64.0391, 8.8637, 43.8603, -95.958, 169.995
0.148, 1, -0.624146, 64.0227, 8.83653, 43.9237, -95.9046, 169.848
0.152, 1, -0.582666, 64.0054, 8.80758, 43.9911, -95.8478, 169.692
0.156, 1, -0.539138, 63.9871, 8.77699, 44.0623, -95.7879, 169.527
0.16, 1, -0.493694, 63.9679, 8.74494, 44.1369, -95.7251, 169.355
0.164, 1, -0.446451, 63.9478, 8.71161, 44.2145, -95.6599, 169.175
0.168, 1, -0.39749, 63.9269, 8.6772, 44.2946, -95.5924, 168.99
0.172, 1, -0.346882, 63.9052, 8.64188, 44.3769, -95.5232, 168.799
0.176, 1, -0.29473, 63.8826, 8.60586, 44.4609, -95.4525, 168.604
0.18, 1, -0.241165, 63.8593, 8.56929, 44.5464, -95.3806, 168.407
0.184, 1, -0.186333, 63.8353, 8.53231, 44.6329, -95.3077, 168.206
0.188, 1, -0.130374, 63.8106, 8.49504, 44.7203, -95.2342, 168.004
0.192, 1, -0.073442, 63.7854, 8.45756, 44.8083, -95.1602, 167.8
0.196, 1, -0.0156884, 63.7599, 8.41994, 44.8967, -95.0858, 167.595
0.2, 1, 0.0427594, 63.7339, 8.38223, 44.9855, -95.0111, 167.39
0.204, 1, 0.101811, 63.7077, 8.34446, 45.0744, -94.9362, 167.183
0.208, 1, 0.161388, 63.6813, 8.30667, 45.1635, -94.8613, 166.977
0.212, 1, 0.221393, 63.6548, 8.26886, 45.2527, -94.7863, 166.77
0.216, 1, 0.281713, 63.6282, 8.23106, 45.3419, -94.7113, 166.564
0.22, 1, 0.342243, 63.6015, 8.19327, 45.4311, -94.6362, 166.357
0.224, 1, 0.402905, 63.5747, 8.15548, 45.5202, -94.5612, 166.151
0.228, 1, 0.463647, 63.5479, 8.11772, 45.6094, -94.4862, 165.944
0.232, 1, 0.52443, 63.5211, 8.07997, 45.6985, -94.4112, 165.737
0.236, 1, 0.585231, 63.4944, 8.04223, 45.7876, -94.3363, 165.531
0.24, 1, 0.646033, 63.4676, 8.00452, 45.8767, -94.2614, 165.325
0.244, 1, 0.706825, 63.4408, 7.96682, 45.9657, -94.1865, 165.118
0.248, 1, 0.767598, 63.4141, 7.92915, 46.0546, -94.1117, 164.912
0.252, 1, 0.828347, 63.3873, 7.8915, 46.1436, -94.0369, 164.706
0.256, 1, 0.889069, 63.3606, 7.85387, 46.2324, -93.9621, 164.5
0.26, 1, 0.949761, 63.3338, 7.81626, 46.3212, -93.8874, 164.295
0.264, 1, 1.01042, 63.3071, 7.77867, 46.41, -93.8127, 164.089
0.268, 1, 1.07105, 63.2804, 7.7411, 46.4987, -93.7381, 163.884
0.272, 1, 1.13164, 63.2537, 7.70356, 46.5874, -93.6635, 163.678
0.276, 1, 1.1922, 63.2271, 7.66604, 46.676, -93.589, 163.473
0.28, 1, 1.25273, 63.2004, 7.62854, 46.7645, -93.5145, 163.268
0.284, 1, 1.31322, 63.1738, 7.59106, 46.853, -93.44, 163.063
0.288, 1, 1.37367, 63.1472, 7.5536, 46.9415, -93.3656, 162.858
0.292, 1, 1.43409, 63.1206, 7.51617, 47.0299, -93.2913, 162.653
0.296, 1, 1.49447, 63.094, 7.47875, 47.1182, -93.2169, 162.448
0.3, 1, 1.55482, 63.0674, 7.44136, 47.2065, -93.1427, 162.244
0.304, 1, 1.61513, 63.0409, 7.404, 47.2947, -93.0685, 162.039
0.308, 1, 1.6754, 63.0143, 7.36665, 47.3829, -92.9943, 161.835
0.312, 1, 1.73564, 62.9878, 7.32933, 47.4711, -92.9201, 161.631
0.316, 1, 1.79584, 62.9613, 7.29203, 47.5591, -92.846, 161.426
0.32, 1, 1.85601, 62.9348, 7.25476, 47.6472, -92.772, 161.223
0.324, 1, 1.91613, 62.9083, 7.2175, 47.7351, -92.698, 161.019
0.328, 1, 1.97622, 62.8819, 7.18027, 47.8231, -92.624, 160.815
0.332, 1, 2.03628, 62.8554, 7.14307, 47.9109, -92.5501, 160.611
0.336, 1, 2.09629, 62.829, 7.10588, 47.9987, -92.4762, 160.408
0.34, 1, 2.15627, 62.8026, 7.06872, 48.0865, -92.4024, 160.205
0.344, 1, 2.21621, 62.7762, 7.03159, 48.1742, -92.3287, 160.002
0.348, 1, 2.27611, 62.7498, 6.99447, 48.2618, -92.2549, 159.798
0.352, 1, 2.33597, 62.7235, 6.95738, 48.3494, -92.1813, 159.596
0.356, 1, 2.3958, 62.6971, 6.92031, 48.4369, -92.1076, 159.393
0.36, 1, 2.45559, 62.6708, 6.88327, 48.5244, -92.034, 159.19
0.364, 1, 2.51534, 62.6445, 6.84625, 48.6118, -91.9605, 158.987
0.368, 1, 2.57505, 62.6182, 6.80925, 48.6992, -91.887, 158.785
0.372, 1, 2.63472, 62.5919, 6.77228, 48.7865, -91.8136, 158.583
0.376, 1, 2.69435, 62.5657, 6.73533, 48.8737, -91.7402, 158.381
0.38, 1, 2.75394, 62.5394, 6.69841, 48.9609, -91.6668, 158.179
0.384, 1, 2.8135, 62.5132, 6.66151, 49.0481, -91.5935, 157.977
0.388, 1, 2.87302, 62.487, 6.62463, 49.1351, -91.5202, 157.775
0.392, 1, 2.93249, 62.4608, 6.58778, 49.2222, -91.4471, 157.573
0.396, 1, 2.99193, 62.4346, 6.55096, 49.3091, -91.3739, 157.372
0.4, 1, 3.05133, 62.4085, 6.51415, 49.396, -91.3008, 157.17
0.404, 1, 3.11069, 62.3823, 6.47738, 49.4829, -91.2277, 156.969
0.408, 1, 3.17001, 62.3562, 6.44062, 49.5697, -91.1547, 156.768
0.412, 1, 3.22929, 62.3301, 6.40389, 49.6564, -91.0818, 156.567
0.416, 1, 3.28853, 62.304, 6.36719, 49.7431, -91.0089, 156.366
0.42, 1, 3.34772, 62.278, 6.33051, 49.8297, -90.936, 156.166
0.424, 1, 3.40688, 62.2519, 6.29386, 49.9162, -90.8632, 155.965
0.428, 1, 3.466, 62.2259, 6.25723, 50.0027, -90.7904, 155.765
0.432, 1, 3.52508, 62.1999, 6.22063, 50.0892, -90.7177, 155.564
0.436, 1, 3.58412, 62.1739, 6.18405, 50.1755, -90.645, 155.364
0.44, 1, 3.64311, 62.1479, 6.1475, 50.2619, -90.5724, 155.164
0.444, 1, 3.70207, 62.1219, 6.11097, 50.3481, -90.4999, 154.965
0.448, 1, 3.76098, 62.096, 6.07447, 50.4343, -90.4274, 154.765
0.452, 1, 3.81986, 62.0701, 6.03799, 50.5205, -90.3549, 154.565
0.456, 1, 3.87869, 62.0442, 6.00154, 50.6065, -90.2825, 154.366
0.46, 1, 3.93748, 62.0183, 5.96511, 50.6925, -90.2101, 154.167
0.464, 1, 3.99623, 61.9924, 5.92871, 50.7785, -90.1378, 153.967
0.468, 1, 4.05494, 61.9666, 5.89234, 50.8644, -90.0656, 153.768
0.472, 1, 4.1136, 61.9408, 5.85599, 50.9502, -89.9934, 153.569
0.476, 1, 4.17223, 61.9149, 5.81967, 51.036, -89.9212, 153.371
0.48, 1, 4.23081, 61.8891, 5.78337, 51.1217, -89.8491, 153.172
0.484, 1, 4.28935, 61.8634, 5.7471, 51.2074, -89.7771, 152.974
0.488, 1, 4.34785, 61.8376, 5.71086, 51.2929, -89.7051, 152.775
0.492, 1, 4.4063, 61.8119, 5.67464, 51.3785, -89.6331, 152.577
0.496, 1, 4.46471, 61.7861, 5.63845, 51.4639, -89.5612, 152.379
0.5, 1, 4.52309, 61.7604, 5.60228, 51.5493, -89.4894, 152.181
0.504, 1, 4.58141, 61.7348, 5.56615, 51.6347, -89.4176, 151.984
0.508, 1, 4.6397, 61.7091, 5.53003, 51.7199, -89.3459, 151.786
0.512, 1, 4.69794, 61.6835, 5.49395, 51.8052, -89.2742, 151.589
0.516, 1, 4.75614, 61.6578, 5.45789, 51.8903, -89.2025, 151.391
0.52, 1, 4.8143, 61.6322, 5.42186, 51.9754, -89.131, 151.194
0.524, 1, 4.87241, 61.6066, 5.38585, 52.0604, -89.0594, 150.997
0.528, 1, 4.93048, 61.5811, 5.34987, 52.1454, -88.988, 150.8
0.532, 1, 4.98851, 61.5555, 5.31392, 52.2303, -88.9165, 150.604
0.536, 1, 5.0465, 61.53, 5.278, 52.3151, -88.8452, 150.407
0.54, 1, 5.10444, 61.5045, 5.2421, 52.3999, -88.7739, 150.211
0.544, 1, 5.16233, 61.479, 5.20623, 52.4846, -88.7026, 150.014
0.548, 1, 5.22019, 61.4535, 5.17038, 52.5692, -88.6314, 149.818
0.552, 1, 5.278, 61.4281, 5.13457, 52.6538, -88.5603, 149.622
0.556, 1, 5.33576, 61.4026, 5.09878, 52.7383, -88.4892, 149.427
0.56, 1, 5.39348, 61.3772, 5.06302, 52.8228, -88.4181, 149.231
0.564, 1, 5.45116, 61.3518, 5.02728, 52.9071, -88.3471, 149.035
0.568, 1, 5.50879, 61.3264, 4.99157, 52.9915, -88.2762, 148.84
0.572, 1, 5.56638, 61.3011, 4.95589, 53.0757, -88.2053, 148.645
0.576, 1, 5.62393, 61.2757, 4.92024, 53.1599, -88.1345, 148.45
0.58, 1, 5.68143, 61.2504, 4.88461, 53.244, -88.0637, 148.255
0.584, 1, 5.73888, 61.2251, 4.84902, 53.3281, -87.993, 148.06
0.588, 1, 5.79629, 61.1998, 4.81345, 53.4121, -87.9224, 147.865
0.592, 1, 5.85366, 61.1746, 4.7779, 53.496, -87.8518, 147.671
0.596, 1, 5.91098, 61.1494, 4.74239, 53.5799, -87.7812, 147.477
0.6, 1, 5.96826, 61.1241, 4.7069, 53.6637, -87.7107, 147.282
0.604, 1, 6.02549, 61.0989, 4.67144, 53.7474, -87.6403, 147.088
0.608, 1, 6.08267, 61.0738, 4.63601, 53.8311, -87.5699, 146.895
0.612, 1, 6.13982, 61.0486, 4.60061, 53.9147, -87.4996, 146.701
0.616, 1, 6.19691, 61.0235, 4.56524, 53.9982, -87.4293, 146.507
0.62, 1, 6.25396, 60.9983, 4.52989, 54.0817, -87.3591, 146.314
0.624, 1, 6.31097, 60.9732, 4.49457, 54.1651, -87.2889, 146.121
0.628, 1, 6.36793, 60.9482, 4.45928, 54.2484, -87.2188, 145.928
0.632, 1, 6.42484, 60.9231, 4.42402, 54.3317, -87.1488, 145.735
0.636, 1, 6.48171, 60.8981, 4.38879, 54.4149, -87.0788, 145.542
0.64, 1, 6.53853, 60.873, 4.35358, 54.498, -87.0089, 145.349
0.644, 1, 6.59531, 60.848, 4.3184, 54.5811, -86.939, 145.157
0.648, 1, 6.65204, 60.8231, 4.28326, 54.6641, -86.8692, 144.965
0.652, 1, 6.70872, 60.7981, 4.24814, 54.747, -86.7994, 144.772
0.656, 1, 6.76536, 60.7732, 4.21305, 54.8299, -86.7297, 144.58
0.66, 1, 6.82195, 60.7482, 4.17798, 54.9127, -86.66, 144.389
0.664, 1, 6.8785, 60.7234, 4.14295, 54.9954, -86.5904, 144.197
0.668, 1, 6.935, 60.6985, 4.10794, 55.0781, -86.5209, 144.005
0.672, 1, 6.99145, 60.6736, 4.07297, 55.1607, -86.4514, 143.814
0.676, 1, 7.04786, 60.6488, 4.03802, 55.2432, -86.382, 143.623
0.68, 1, 7.10422, 60.624, 4.0031, 55.3256, -86.3126, 143.432
0.684, 1, 7.16053, 60.5992, 3.96821, 55.408, -86.2433, 143.241
0.688, 1, 7.2168, 60.5744, 3.93335, 55.4903, -86.1741, 143.05
0.692, 1, 7.27302, 60.5496, 3.89852, 55.5726, -86.1049, 142.86
0.696, 1, 7.3292, 60.5249, 3.86372, 55.6548, -86.0358, 142.669
0.7, 1, 7.38532, 60.5002, 3.82895, 55.7369, -85.9667, 142.479
0.704, 1, 7.4414, 60.4755, 3.7942, 55.8189, -85.8977, 142.289
0.708, 1, 7.49743, 60.4508, 3.75949, 55.9009, -85.8287, 142.099
0.712, 1, 7.55342, 60.4262, 3.7248, 55.9828, -85.7598, 141.909
0.716, 1, 7.60936, 60.4016, 3.69015, 56.0647, -85.691, 141.719
0.72, 1, 7.66525, 60.3769, 3.65552, 56.1464, -85.6222, 141.53
0.724, 1, 7.72109, 60.3524, 3.62092, 56.2281, -85.5535, 141.341
0.728, 1, 7.77689, 60.3278, 3.58635, 56.3097, -85.4848, 141.152
0.732, 1, 7.83264, 60.3032, 3.55181, 56.3913, -85.4162, 140.963
0.736, 1, 7.88834, 60.2787, 3.5173, 56.4728, -85.3476, 140.774
0.74, 1, 7.94399, 60.2542, 3.48282, 56.5542, -85.2791, 140.585
0.744, 1, 7.9996, 60.2297, 3.44837, 56.6356, -85.2107, 140.397
0.748, 1, 8.05516, 60.2053, 3.41395, 56.7169, -85.1423, 140.208
0.752, 1, 8.11067, 60.1808, 3.37956, 56.7981, -85.074, 140.02
0.756, 1, 8.16613, 60.1564, 3.3452, 56.8792, -85.0057, 139.832
0.76, 1, 8.22155, 60.132, 3.31087, 56.9603, -84.9375, 139.644
0.764, 1, 8.27691, 60.1076, 3.27657, 57.0413, -84.8694, 139.457
0.768, 1, 8.33223, 60.0833, 3.24229, 57.1222, -84.8013, 139.269
0.772, 1, 8.3875, 60.0589, 3.20805, 57.2031, -84.7333, 139.082
0.776, 1, 8.44273, 60.0346, 3.17384, 57.2839, -84.6653, 138.895
0.78, 1, 8.4979, 60.0103, 3.13965, 57.3646, -84.5974, 138.708
0.784, 1, 8.55303, 59.9861, 3.1055, 57.4452, -84.5296, 138.521
0.788, 1, 8.60811, 59.9618, 3.07138, 57.5258, -84.4618, 138.334
0.792, 1, 8.66314, 59.9376, 3.03728, 57.6063, -84.3941, 138.147
0.796, 1, 8.71813, 59.9134, 3.00322, 57.6868, -84.3264, 137.961
0.8, 1, 8.77306, 59.8892, 2.96919, 57.7671, -84.2588, 137.775
0.804, 1, 8.82795, 59.865, 2.93518, 57.8474, -84.1912, 137.589
0.808, 1, 8.88279, 59.8409, 2.90121, 57.9277, -84.1238, 137.403
0.812, 1, 8.93758, 59.8168, 2.86726, 58.0078, -84.0563, 137.217
0.816, 1, 8.99232, 59.7927, 2.83335, 58.0879, -83.989, 137.032
0.82, 1, 9.04701, 59.7686, 2.79947, 58.1679, -83.9217, 136.846
0.824, 1, 9.10166, 59.7445, 2.76561, 58.2479, -83.8544, 136.661
0.828, 1, 9.15625, 59.7205, 2.73179, 58.3277, -83.7872, 136.476
0.832, 1, 9.2108, 59.6965, 2.698, 58.4075, -83.7201, 136.291
0.836, 1, 9.2653, 59.6725, 2.66423, 58.4872, -83.653, 136.106
0.84, 1, 9.31975, 59.6485, 2.6305, 58.5669, -83.586, 135.922
0.844, 1, 9.37415, 59.6245, 2.59679, 58.6465, -83.519, 135.737
0.848, 1, 9.42851, 59.6006, 2.56312, 58.726, -83.4522, 135.553
0.852, 1, 9.48281, 59.5767, 2.52948, 58.8055, -83.3853, 135.369
0.856, 1, 9.53707, 59.5528, 2.49586, 58.8848, -83.3186, 135.185
0.86, 1, 9.59128, 59.5289, 2.46228, 58.9641, -83.2518, 135.001
0.864, 1, 9.64543, 59.5051, 2.42873, 59.0434, -83.1852, 134.818
0.868, 1, 9.69954, 59.4813, 2.39521, 59.1225, -83.1186, 134.634
0.872, 1, 9.7536, 59.4575, 2.36171, 59.2016, -83.0521, 134.451
0.876, 1, 9.80762, 59.4337, 2.32825, 59.2806, -82.9856, 134.268
0.88, 1, 9.86158, 59.4099, 2.29482, 59.3596, -82.9192, 134.085
0.884, 1, 9.9155, 59.3862, 2.26142, 59.4385, -82.8528, 133.902
0.888, 1, 9.96936, 59.3625, 2.22805, 59.5173, -82.7865, 133.72
0.892, 1, 10.0232, 59.3388, 2.19471, 59.596, -82.7203, 133.538
0.896, 1, 10.0769, 59.3151, 2.1614, 59.6746, -82.6541, 133.355
0.9, 1, 10.1307, 59.2915, 2.12812, 59.7532, -82.588, 133.173
0.904, 1, 10.1843, 59.2678, 2.09487, 59.8317, -82.522, 132.991
0.908, 1, 10.238, 59.2442, 2.06165, 59.9102, -82.456, 132.809
0.912, 1, 10.2915, 59.2206, 2.02846, 59.9886, -82.3901, 132.628
0.916, 1, 10.3451, 59.1971, 1.9953, 60.0669, -82.3242, 132.446
0.92, 1, 10.3985, 59.1735, 1.96217, 60.1451, -82.2584, 132.265
0.924, 1, 10.452, 59.15, 1.92907, 60.2233, -82.1926, 132.084
0.928, 1, 10.5053, 59.1265, 1.89601, 60.3013, -82.1269, 131.903
0.932, 1, 10.5587, 59.103, 1.86297, 60.3794, -82.0613, 131.722
0.936, 1, 10.6119, 59.0796, 1.82996, 60.4573, -81.9958, 131.542
0.94, 1, 10.6652, 59.0561, 1.79699, 60.5352, -81.9303, 131.361
0.944, 1, 10.7184, 59.0327, 1.76404, 60.613, -81.8648, 131.181
0.948, 1, 10.7715, 59.0093, 1.73112, 60.6907, -81.7994, 131.001
0.952, 1, 10.8246, 58.986, 1.69824, 60.7683, -81.7341, 130.821
0.956, 1, 10.8776, 58.9626, 1.66538, 60.8459, -81.6688, 130.641
0.96, 1, 10.9306, 58.9393, 1.63256, 60.9234, -81.6036, 130.462
0.964, 1, 10.9835, 58.916, 1.59977, 61.0009, -81.5385, 130.282
0.968, 1, 11.0364, 58.8927, 1.567, 61.0782, -81.4734, 130.103
0.972, 1, 11.0892, 58.8694, 1.53427, 61.1555, -81.4084, 129.924
0.976, 1, 11.142, 58.8462, 1.50157, 61.2328, -81.3434, 129.745
0.98, 1, 11.1948, 58.823, 1.4689, 61.3099, -81.2785, 129.566
0.984, 1, 11.2475, 58.7998, 1.43626, 61.387, -81.2137, 129.388
0.988, 1, 11.3001, 58.7766, 1.40364, 61.464, -81.1489, 129.209
0.992, 1, 11.3527, 58.7534, 1.37106, 61.5409, -81.0842, 129.031
0.996, 1, 11.4052, 58.7303, 1.33851, 61.6178, -81.0195, 128.853
1, 1, 11.4577, 58.7072, 1.30599, 61.6946, -80.9549, 128.675
1.004, 1, 11.5102, 58.6841, 1.27351, 61.7713, -80.8904, 128.497
1.008, 1, 11.5626, 58.661, 1.24105, 61.848, -80.8259, 128.32
1.012, 1, 11.6149, 58.638, 1.20862, 61.9245, -80.7615, 128.142
1.016, 1, 11.6672, 58.615, 1.17622, 62.001, -80.6971, 127.965
1.02, 1, 11.7195, 58.592, 1.14385, 62.0775, -80.6328, 127.788
1.024, 1, 11.7717, 58.569, 1.11152, 62.1538, -80.5686, 127.611
1.027, 1, 11.8238, 58.546, 1.07921, 62.2301, -80.5044, 127.434
1.032, 1, 11.8759, 58.5231, 1.04693, 62.3063, -80.4403, 127.258
1.036, 1, 11.928, 58.5002, 1.01469, 62.3825, -80.3762, 127.081
1.04, 1, 11.98, 58.4773, 0.982474, 62.4586, -80.3122, 126.905
1.044, 1, 12.0319, 58.4544, 0.950289, 62.5346, -80.2483, 126.729
1.048, 1, 12.0838, 58.4315, 0.918135, 62.6105, -80.1844, 126.553
1.052, 1, 12.1357, 58.4087, 0.886012, 62.6863, -80.1206, 126.377
1.055, 1, 12.1875, 58.3859, 0.853918, 62.7621, -80.0569, 126.202
1.06, 1, 12.2392, 58.3631, 0.821856, 62.8378, -79.9932, 126.026
1.064, 1, 12.2909, 58.3404, 0.789823, 62.9135, -79.9295, 125.851
1.068, 1, 12.3426, 58.3176, 0.757821, 62.9891, -79.866, 125.676
1.072, 1, 12.3942, 58.2949, 0.72585, 63.0646, -79.8025, 125.501
1.076, 1, 12.4458, 58.2722, 0.693909, 63.14, -79.739, 125.326
1.08, 1, 12.4973, 58.2495, 0.661998, 63.2153, -79.6756, 125.152
1.084, 1, 12.5487, 58.2268, 0.630117, 63.2906, -79.6123, 124.977
1.088, 1, 12.6002, 58.2042, 0.598267, 63.3658, -79.549, 124.803
1.091, 1, 12.6515, 58.1816, 0.566448, 63.441, -79.4858, 124.629
1.096, 1, 12.7028, 58.159, 0.534658, 63.516, -79.4227, 124.455
1.1, 1, 12.7541, 58.1364, 0.502899, 63.591, -79.3596, 124.281
1.104, 1, 12.8053, 58.1139, 0.47117, 63.666, -79.2965, 124.107
1.108, 1, 12.8565, 58.0914, 0.439471, 63.7408, -79.2336, 123.934
1.112, 1, 12.9076, 58.0688, 0.407802, 63.8156, -79.1707, 123.761
1.116, 1, 12.9587, 58.0464, 0.376164, 63.8903, -79.1078, 123.588
1.119, 1, 13.0097, 58.0239, 0.344556, 63.9649, -79.045, 123.415
1.124, 1, 13.0607, 58.0015, 0.312978, 64.0395, -78.9823, 123.242
1.128, 1, 13.1116, 57.979, 0.28143, 64.114, -78.9196, 123.069
1.132, 1, 13.1625, 57.9566, 0.249912, 64.1884, -78.857, 122.897
1.136, 1, 13.2133, 57.9343, 0.218424, 64.2628, -78.7945, 122.725
1.14, 1, 13.2641, 57.9119, 0.186967, 64.3371, -78.732, 122.553
1.144, 1, 13.3148, 57.8896, 0.155539, 64.4113, -78.6695, 122.381
1.147, 1, 13.3655, 57.8673, 0.124142, 64.4854, -78.6072, 122.209
1.152, 1, 13.4162, 57.845, 0.0927741, 64.5595, -78.5449, 122.037
1.156, 1, 13.4668, 57.8227, 0.0614364, 64.6335, -78.4826, 121.866
1.16, 1, 13.5173, 57.8004, 0.0301288, 64.7074, -78.4204, 121.694
1.164, 1, 13.5678, 57.7782, -0.00114893, 64.7813, -78.3583, 121.523
1.168, 1, 13.6182, 57.756, -0.0323967, 64.8551, -78.2962, 121.352
1.172, 1, 13.6686, 57.7338, -0.0636147, 64.9288, -78.2342, 121.182
1.175, 1, 13.719, 57.7116, -0.0948027, 65.0025, -78.1722, 121.011
1.18, 1, 13.7693, 57.6895, -0.125961, 65.076, -78.1104, 120.84
1.184, 1, 13.8195, 57.6674, -0.157089, 65.1495, -78.0485, 120.67
1.188, 1, 13.8697, 57.6453, -0.188188, 65.223, -77.9867, 120.5
1.192, 1, 13.9199, 57.6232, -0.219257, 65.2963, -77.925, 120.33
1.196, 1, 13.97, 57.6011, -0.250296, 65.3696, -77.8634, 120.16
1.2, 1, 14.02, 57.5791, -0.281305, 65.4429, -77.8018, 119.99
1.204, 1, 14.0701, 57.5571, -0.312285, 65.516, -77.7402, 119.821
1.208, 1, 14.12, 57.5351, -0.343235, 65.5891, -77.6787, 119.652
1.212, 1, 14.1699, 57.5131, -0.374155, 65.6621, -77.6173, 119.482
1.216, 1, 14.2198, 57.4911, -0.405046, 65.7351, -77.556, 119.313
1.22, 1, 14.2696, 57.4692, -0.435907, 65.8079, -77.4947, 119.145
1.224, 1, 14.3194, 57.4473, -0.466739, 65.8807, -77.4334, 118.976
1.228, 1, 14.3691, 57.4254, -0.497541, 65.9535, -77.3722, 118.807
1.232, 1, 14.4188, 57.4035, -0.528313, 66.0262, -77.3111, 118.639
1.236, 1, 14.4684, 57.3817, -0.559056, 66.0987, -77.25, 118.471
1.24, 1, 14.518, 57.3599, -0.58977, 66.1713, -77.189, 118.303
1.244, 1, 14.5675, 57.3381, -0.620454, 66.2437, -77.1281, 118.135
1.248, 1, 14.617, 57.3163, -0.651109, 66.3161, -77.0672, 117.967
1.252, 1, 14.6665, 57.2945, -0.681734, 66.3884, -77.0063, 117.8
1.256, 1, 14.7159, 57.2728, -0.71233, 66.4607, -76.9455, 117.632
1.26, 1, 14.7652, 57.251, -0.742897, 66.5329, -76.8848, 117.465
1.264, 1, 14.8145, 57.2293, -0.773434, 66.605, -76.8242, 117.298
1.267, 1, 14.8638, 57.2077, -0.803942, 66.677, -76.7636, 117.131
1.272, 1, 14.913, 57.186, -0.834421, 66.749, -76.703, 116.964
1.276, 1, 14.9621, 57.1644, -0.86487, 66.8209, -76.6425, 116.798
1.28, 1, 15.0112, 57.1427, -0.89529, 66.8927, -76.5821, 116.631
1.284, 1, 15.0603, 57.1211, -0.925682, 66.9645, -76.5217, 116.465
1.288, 1, 15.1093, 57.0996, -0.956044, 67.0362, -76.4614, 116.299
1.292, 1, 15.1583, 57.078, -0.986377, 67.1078, -76.4012, 116.133
1.295, 1, 15.2072, 57.0565, -1.01668, 67.1794, -76.341, 115.967
1.3, 1, 15.2561, 57.0349, -1.04696, 67.2509, -76.2808, 115.801
1.304, 1, 15.3049, 57.0135, -1.0772, 67.3223, -76.2207, 115.636
1.308, 1, 15.3537, 56.992, -1.10742, 67.3937, -76.1607, 115.471
1.312, 1, 15.4024, 56.9705, -1.13761, 67.4649, -76.1007, 115.305
1.316, 1, 15.4511, 56.9491, -1.16777, 67.5362, -76.0408, 115.14
1.32, 1, 15.4997, 56.9277, -1.1979, 67.6073, -75.981, 114.975
1.324, 1, 15.5483, 56.9063, -1.228, 67.6784, -75.9212, 114.811
1.328, 1, 15.5969, 56.8849, -1.25807, 67.7494, -75.8614, 114.646
1.332, 1, 15.6454, 56.8636, -1.28811, 67.8204, -75.8018, 114.482
1.336, 1, 15.6938, 56.8422, -1.31813, 67.8912, -75.7421, 114.318
1.34, 1, 15.7422, 56.8209, -1.34811, 67.962, -75.6826, 114.154
1.344, 1, 15.7906, 56.7996, -1.37807, 68.0328, -75.6231, 113.99
1.348, 1, 15.8389, 56.7784, -1.408, 68.1035, -75.5636, 113.826
1.352, 1, 15.8872, 56.7571, -1.4379, 68.1741, -75.5042, 113.662
1.356, 1, 15.9354, 56.7359, -1.46777, 68.2446, -75.4449, 113.499
1.36, 1, 15.9836, 56.7147, -1.49761, 68.3151, -75.3856, 113.336
1.364, 1, 16.0317, 56.6935, -1.52742, 68.3855, -75.3264, 113.173
1.368, 1, 16.0798, 56.6723, -1.55721, 68.4558, -75.2672, 113.01
1.372, 1, 16.1278, 56.6512, -1.58697, 68.5261, -75.2081, 112.847
1.376, 1, 16.1758, 56.63, -1.61669, 68.5963, -75.149, 112.684
1.38, 1, 16.2238, 56.6089, -1.64639, 68.6664, -75.09, 112.522
1.384, 1, 16.2717, 56.5878, -1.67606, 68.7365, -75.0311, 112.359
1.388, 1, 16.3195, 56.5668, -1.70571, 68.8065, -74.9722, 112.197
1.392, 1, 16.3673, 56.5457, -1.73532, 68.8764, -74.9134, 112.035
1.396, 1, 16.4151, 56.5247, -1.76491, 68.9463, -74.8546, 111.873
1.4, 1, 16.4628, 56.5037, -1.79446, 69.0161, -74.7959, 111.711
1.404, 1, 16.5105, 56.4827, -1.82399, 69.0858, -74.7372, 111.55
1.408, 1, 16.5581, 56.4617, -1.8535, 69.1555, -74.6786, 111.388
1.412, 1, 16.6057, 56.4408, -1.88297, 69.2251, -74.6201, 111.227
1.416, 1, 16.6532, 56.4198, -1.91241, 69.2946, -74.5616, 111.066
1.42, 1, 16.7007, 56.3989, -1.94183, 69.3641, -74.5032, 110.905
1.424, 1, 16.7482, 56.378, -1.97122, 69.4335, -74.4448, 110.744
1.428, 1, 16.7956, 56.3572, -2.00058, 69.5028, -74.3864, 110.584
1.432, 1, 16.8429, 56.3363, -2.02991, 69.5721, -74.3282, 110.423
1.436, 1, 16.8902, 56.3155, -2.05922, 69.6413, -74.27, 110.263
1.44, 1, 16.9375, 56.2947, -2.0885, 69.7104, -74.2118, 110.103
1.444, 1, 16.9847, 56.2739, -2.11775, 69.7795, -74.1537, 109.943
1.448, 1, 17.0319, 56.2531, -2.14697, 69.8485, -74.0956, 109.783
1.452, 1, 17.079, 56.2324, -2.17616, 69.9174, -74.0376, 109.623
1.456, 1, 17.1261, 56.2117, -2.20533, 69.9863, -73.9797, 109.463
1.46, 1, 17.1732, 56.191, -2.23447, 70.0551, -73.9218, 109.304
1.464, 1, 17.2202, 56.1703, -2.26358, 70.1239, -73.864, 109.145
1.468, 1, 17.2671, 56.1496, -2.29267, 70.1925, -73.8062, 108.986
1.472, 1, 17.314, 56.1289, -2.32172, 70.2612, -73.7485, 108.827
1.476, 1, 17.3609, 56.1083, -2.35075, 70.3297, -73.6908, 108.668
1.48, 1, 17.4077, 56.0877, -2.37975, 70.3982, -73.6332, 108.509
1.484, 1, 17.4545, 56.0671, -2.40873, 70.4666, -73.5757, 108.351
1.488, 1, 17.5012, 56.0465, -2.43768, 70.535, -73.5182, 108.192
1.492, 1, 17.5479, 56.026, -2.4666, 70.6033, -73.4607, 108.034
1.496, 1, 17.5946, 56.0054, -2.49549, 70.6715, -73.4033, 107.876
1.5, 1, 17.6412, 55.9849, -2.52435, 70.7397, -73.346, 107.718
1.504, 1, 17.6877, 55.9644, -2.55319, 70.8078, -73.2887, 107.56
1.508, 1, 17.7342, 55.9439, -2.582, 70.8758, -73.2314, 107.403
1.512, 1, 17.7807, 55.9235, -2.61079, 70.9438, -73.1743, 107.245
1.516, 1, 17.8271, 55.903, -2.63954, 71.0117, -73.1171, 107.088
1.52, 1, 17.8735, 55.8826, -2.66827, 71.0795, -73.0601, 106.93
1.524, 1, 17.9198, 55.8622, -2.69698, 71.1473, -73.003, 106.773
1.528, 1, 17.9661, 55.8418, -2.72565, 71.215, -72.9461, 106.617
1.532, 1, 18.0124, 55.8215, -2.7543, 71.2827, -72.8892, 106.46
1.536, 1, 18.0586, 55.8011, -2.78293, 71.3503, -72.8323, 106.303
1.54, 1, 18.1048, 55.7808, -2.81152, 71.4178, -72.7755, 106.147
1.544, 1, 18.1509, 55.7605, -2.84009, 71.4853, -72.7187, 105.99
1.548, 1, 18.197, 55.7402, -2.86864, 71.5527, -72.662, 105.834
1.552, 1, 18.243, 55.72, -2.89715, 71.62, -72.6054, 105.678
1.556, 1, 18.289, 55.6997, -2.92564, 71.6873, -72.5488, 105.522
1.56, 1, 18.335, 55.6795, -2.9541, 71.7545, -72.4923, 105.367
1.564, 1, 18.3809, 55.6593, -2.98254, 71.8216, -72.4358, 105.211
1.568, 1, 18.4267, 55.6391, -3.01095, 71.8887, -72.3793, 105.056
1.572, 1, 18.4725, 55.6189, -3.03934, 71.9558, -72.323, 104.9
1.576, 1, 18.5183, 55.5987, -3.06769, 72.0227, -72.2666, 104.745
1.58, 1, 18.5641, 55.5786, -3.09602, 72.0896, -72.2103, 104.59
1.584, 1, 18.6098, 55.5585, -3.12433, 72.1565, -72.1541, 104.435
1.588, 1, 18.6554, 55.5384, -3.15261, 72.2232, -72.0979, 104.281
1.592, 1, 18.701, 55.5183, -3.18086, 72.29, -72.0418, 104.126
1.596, 1, 18.7466, 55.4983, -3.20908, 72.3566, -71.9857, 103.972
1.6, 1, 18.7921, 55.4782, -3.23729, 72.4232, -71.9297, 103.817
1.604, 1, 18.8376, 55.4582, -3.26546, 72.4897, -71.8737, 103.663
1.608, 1, 18.8831, 55.4382, -3.29361, 72.5562, -71.8178, 103.509
1.612, 1, 18.9285, 55.4182, -3.32173, 72.6226, -71.762, 103.355
1.616, 1, 18.9738, 55.3982, -3.34982, 72.689, -71.7062, 103.201
1.62, 1, 19.0191, 55.3783, -3.37789, 72.7552, -71.6504, 103.048
1.624, 1, 19.0644, 55.3583, -3.40594, 72.8215, -71.5947, 102.894
1.628, 1, 19.1096, 55.3384, -3.43396, 72.8876, -71.539, 102.741
1.632, 1, 19.1548, 55.3185, -3.46195, 72.9537, -71.4834, 102.588
1.636, 1, 19.2, 55.2987, -3.48992, 73.0198, -71.4279, 102.435
1.64, 1, 19.2451, 55.2788, -3.51786, 73.0858, -71.3724, 102.282
1.644, 1, 19.2902, 55.259, -3.54577, 73.1517, -71.3169, 102.129
1.648, 1, 19.3352, 55.2391, -3.57366, 73.2175, -71.2615, 101.977
1.652, 1, 19.3802, 55.2193, -3.60153, 73.2833, -71.2061, 101.824
1.656, 1, 19.4251, 55.1996, -3.62937, 73.3491, -71.1508, 101.672
1.66, 1, 19.47, 55.1798, -3.65718, 73.4148, -71.0956, 101.52
1.664, 1, 19.5149, 55.16, -3.68497, 73.4804, -71.0404, 101.368
1.668, 1, 19.5597, 55.1403, -3.71273, 73.5459, -70.9852, 101.216
1.672, 1, 19.6045, 55.1206, -3.74047, 73.6114, -70.9301, 101.064
1.676, 1, 19.6492, 55.1009, -3.76818, 73.6769, -70.8751, 100.912
1.68, 1, 19.6939, 55.0812, -3.79587, 73.7423, -70.8201, 100.761
1.684, 1, 19.7386, 55.0616, -3.82353, 73.8076, -70.7652, 100.61
1.688, 1, 19.7832, 55.0419, -3.85117, 73.8728, -70.7103, 100.458
1.692, 1, 19.8278, 55.0223, -3.87878, 73.938, -70.6554, 100.307
1.696, 1, 19.8723, 55.0027, -3.90636, 74.0032, -70.6006, 100.156
1.7, 1, 19.9168, 54.9831, -3.93392, 74.0683, -70.5459, 100.006
1.704, 1, 19.9612, 54.9635, -3.96146, 74.1333, -70.4911, 99.855
1.708, 1, 20.0057, 54.944, -3.98897, 74.1983, -70.4365, 99.7045
1.712, 1, 20.05, 54.9244, -4.01646, 74.2632, -70.3819, 99.5541
1.716, 1, 20.0944, 54.9049, -4.04392, 74.328, -70.3274, 99.4038
1.72, 1, 20.1387, 54.8854, -4.07135, 74.3928, -70.2729, 99.2537
1.724, 1, 20.1829, 54.8659, -4.09876, 74.4575, -70.2184, 99.1038
1.728, 1, 20.2271, 54.8465, -4.12615, 74.5222, -70.164, 98.9539
1.732, 1, 20.2713, 54.827, -4.15351, 74.5868, -70.1096, 98.8042
1.736, 1, 20.3154, 54.8076, -4.18085, 74.6514, -70.0553, 98.6546
1.74, 1, 20.3595, 54.7882, -4.20816, 74.7159, -70.0011, 98.5052
1.744, 1, 20.4036, 54.7688, -4.23545, 74.7803, -69.9469, 98.3559
1.748, 1, 20.4476, 54.7494, -4.26271, 74.8447, -69.8927, 98.2067
1.752, 1, 20.4916, 54.7301, -4.28995, 74.909, -69.8386, 98.0577
1.756, 1, 20.5355, 54.7107, -4.31716, 74.9733, -69.7845, 97.9088
1.76, 1, 20.5794, 54.6914, -4.34435, 75.0375, -69.7305, 97.76
1.764, 1, 20.6233, 54.6721, -4.37152, 75.1016, -69.6766, 97.6114
1.768, 1, 20.6671, 54.6528, -4.39866, 75.1657, -69.6227, 97.4629
1.772, 1, 20.7109, 54.6335, -4.42578, 75.2298, -69.5688, 97.3145
1.776, 1, 20.7546, 54.6143, -4.45287, 75.2937, -69.515, 97.1663
1.78, 1, 20.7983, 54.595, -4.47994, 75.3577, -69.4612, 97.0182
1.784, 1, 20.842, 54.5758, -4.50699, 75.4215, -69.4075, 96.8702
1.788, 1, 20.8856, 54.5566, -4.53401, 75.4853, -69.3538, 96.7224
1.792, 1, 20.9292, 54.5374, -4.561, 75.5491, -69.3002, 96.5747
1.796, 1, 20.9727, 54.5182, -4.58798, 75.6128, -69.2466, 96.4271
1.8, 1, 21.0162, 54.4991, -4.61493, 75.6764, -69.193, 96.2796
1.804, 1, 21.0597, 54.4799, -4.64185, 75.74, -69.1395, 96.1323
1.808, 1, 21.1031, 54.4608, -4.66875, 75.8035, -69.0861, 95.9851
1.812, 1, 21.1465, 54.4417, -4.69563, 75.867, -69.0327, 95.8381
1.816, 1, 21.1899, 54.4226, -4.72249, 75.9304, -68.9794, 95.6911
1.82, 1, 21.2332, 54.4036, -4.74932, 75.9938, -68.9261, 95.5443
1.824, 1, 21.2765, 54.3845, -4.77612, 76.0571, -68.8728, 95.3977
1.828, 1, 21.3197, 54.3655, -4.80291, 76.1203, -68.8196, 95.2511
1.832, 1, 21.3629, 54.3465, -4.82967, 76.1835, -68.7665, 95.1047
1.836, 1, 21.4061, 54.3275, -4.8564, 76.2467, -68.7133, 94.9584
1.84, 1, 21.4492, 54.3085, -4.88312, 76.3097, -68.6603, 94.8122
1.844, 1, 21.4923, 54.2895, -4.90981, 76.3728, -68.6073, 94.6662
1.848, 1, 21.5354, 54.2705, -4.93647, 76.4357, -68.5543, 94.5203
1.852, 1, 21.5784, 54.2516, -4.96312, 76.4986, -68.5014, 94.3745
1.856, 1, 21.6214, 54.2327, -4.98974, 76.5615, -68.4485, 94.2289
1.86, 1, 21.6643, 54.2138, -5.01633, 76.6243, -68.3956, 94.0834
1.864, 1, 21.7072, 54.1949, -5.04291, 76.6871, -68.3428, 93.938
1.868, 1, 21.7501, 54.176, -5.06946, 76.7498, -68.2901, 93.7927
1.872, 1, 21.7929, 54.1572, -5.09599, 76.8124, -68.2374, 93.6475
1.876, 1, 21.8357, 54.1383, -5.12249, 76.875, -68.1847, 93.5025
1.88, 1, 21.8785, 54.1195, -5.14897, 76.9375, -68.1321, 93.3576
1.884, 1, 21.9212, 54.1007, -5.17543, 77, -68.0796, 93.2129
1.888, 1, 21.9639, 54.0819, -5.20187, 77.0625, -68.0271, 93.0682
1.892, 1, 22.0065, 54.0631, -5.22828, 77.1248, -67.9746, 92.9237
1.896, 1, 22.0491, 54.0444, -5.25467, 77.1871, -67.9222, 92.7793
1.9, 1, 22.0917, 54.0256, -5.28104, 77.2494, -67.8698, 92.635
1.904, 1, 22.1342, 54.0069, -5.30739, 77.3116, -67.8175, 92.4909
1.908, 1, 22.1767, 53.9882, -5.33371, 77.3738, -67.7652, 92.3469
1.912, 1, 22.2192, 53.9695, -5.36001, 77.4359, -67.7129, 92.203
1.916, 1, 22.2616, 53.9508, -5.38629, 77.498, -67.6607, 92.0592
1.92, 1, 22.304, 53.9322, -5.41254, 77.56, -67.6086, 91.9155
1.924, 1, 22.3463, 53.9135, -5.43878, 77.6219, -67.5564, 91.772
1.928, 1, 22.3886, 53.8949, -5.46499, 77.6838, -67.5044, 91.6286
1.932, 1, 22.4309, 53.8763, -5.49118, 77.7456, -67.4524, 91.4853
1.936, 1, 22.4732, 53.8577, -5.51734, 77.8074, -67.4004, 91.3421
1.94, 1, 22.5154, 53.8391, -5.54349, 77.8692, -67.3484, 91.1991
1.944, 1, 22.5576, 53.8206, -5.56961, 77.9308, -67.2965, 91.0562
1.948, 1, 22.5997, 53.802, -5.59571, 77.9925, -67.2447, 90.9134
1.952, 1, 22.6418, 53.7835, -5.62178, 78.0541, -67.1929, 90.7707
1.956, 1, 22.6839, 53.7649, -5.64784, 78.1156, -67.1411, 90.6281
1.96, 1, 22.7259, 53.7464, -5.67387, 78.1771, -67.0894, 90.4857
1.964, 1, 22.7679, 53.728, -5.69988, 78.2385, -67.0378, 90.3434
1.968, 1, 22.8098, 53.7095, -5.72587, 78.2999, -66.9861, 90.2012
1.972, 1, 22.8518, 53.691, -5.75184, 78.3612, -66.9345, 90.0591
1.976, 1, 22.8936, 53.6726, -5.77779, 78.4224, -66.883, 89.9171
1.98, 1, 22.9355, 53.6542, -5.80371, 78.4837, -66.8315, 89.7753
1.984, 1, 22.9773, 53.6358, -5.82961, 78.5448, -66.7801, 89.6336
1.988, 1, 23.0191, 53.6174, -5.85549, 78.6059, -66.7286, 89.492
1.992, 1, 23.0608, 53.599, -5.88135, 78.667, -66.6773, 89.3505
1.996, 1, 23.1026, 53.5806, -5.90719, 78.728, -66.6259, 89.2091
1.999, 1, 23.1442, 53.5623, -5.933, 78.789, -66.5747, 89.0679
2.004, 1, 23.1859, 53.5439, -5.95879, 78.8499, -66.5234, 88.9268
2.008, 1, 23.2275, 53.5256, -5.98457, 78.9108, -66.4722, 88.7858
2.012, 1, 23.2691, 53.5073, -6.01032, 78.9716, -66.4211, 88.6449
2.015, 1, 23.3106, 53.489, -6.03605, 79.0323, -66.37, 88.5041
2.019, 1, 23.3521, 53.4708, -6.06175, 79.093, -66.3189, 88.3634
2.024, 1, 23.3936, 53.4525, -6.08744, 79.1537, -66.2679, 88.2229
2.028, 1, 23.435, 53.4343, -6.11311, 79.2143, -66.2169, 88.0825
2.031, 1, 23.4764, 53.416, -6.13875, 79.2749, -66.1659, 87.9422
2.036, 1, 23.5178, 53.3978, -6.16437, 79.3354, -66.115, 87.802
2.04, 1, 23.5591, 53.3796, -6.18997, 79.3958, -66.0642, 87.6619
2.044, 1, 23.6004, 53.3615, -6.21555, 79.4562, -66.0134, 87.5219
2.048, 1, 23.6417, 53.3433, -6.24111, 79.5166, -65.9626, 87.3821
2.051, 1, 23.6829, 53.3251, -6.26665, 79.5769, -65.9119, 87.2424
2.055, 1, 23.7241, 53.307, -6.29217, 79.6371, -65.8612, 87.1027
2.06, 1, 23.7653, 53.2889, -6.31766, 79.6973, -65.8105, 86.9632
2.064, 1, 23.8064, 53.2708, -6.34314, 79.7575, -65.7599, 86.8239
2.068, 1, 23.8475, 53.2527, -6.36859, 79.8176, -65.7094, 86.6846
2.071, 1, 23.8885, 53.2346, -6.39402, 79.8777, -65.6588, 86.5454
2.076, 1, 23.9296, 53.2165, -6.41944, 79.9377, -65.6084, 86.4064
2.08, 1, 23.9706, 53.1985, -6.44483, 79.9977, -65.5579, 86.2675
2.084, 1, 24.0115, 53.1805, -6.4702, 80.0576, -65.5075, 86.1287
2.087, 1, 24.0525, 53.1624, -6.49555, 80.1174, -65.4572, 85.99
2.092, 1, 24.0934, 53.1444, -6.52088, 80.1772, -65.4068, 85.8514
2.096, 1, 24.1342, 53.1265, -6.54619, 80.237, -65.3566, 85.7129
2.1, 1, 24.175, 53.1085, -6.57148, 80.2967, -65.3063, 85.5745
2.104, 1, 24.2158, 53.0905, -6.59674, 80.3564, -65.2561, 85.4363
2.107, 1, 24.2566, 53.0726, -6.62199, 80.416, -65.206, 85.2981
2.111, 1, 24.2973, 53.0546, -6.64722, 80.4756, -65.1559, 85.1601
2.116, 1, 24.338, 53.0367, -6.67243, 80.5351, -65.1058, 85.0222
2.12, 1, 24.3787, 53.0188, -6.69761, 80.5946, -65.0557, 84.8844
2.124, 1, 24.4193, 53.0009, -6.72278, 80.654, -65.0058, 84.7467
2.127, 1, 24.4599, 52.9831, -6.74793, 80.7134, -64.9558, 84.6091
2.132, 1, 24.5005, 52.9652, -6.77305, 80.7727, -64.9059, 84.4716
2.136, 1, 24.541, 52.9474, -6.79816, 80.832, -64.856, 84.3343
2.14, 1, 24.5815, 52.9295, -6.82324, 80.8913, -64.8062, 84.197
2.143, 1, 24.622, 52.9117, -6.84831, 80.9505, -64.7564, 84.0598
2.148, 1, 24.6624, 52.8939, -6.87336, 81.0096, -64.7066, 83.9228
2.152, 1, 24.7028, 52.8761, -6.89838, 81.0687, -64.6569, 83.7859
2.156, 1, 24.7432, 52.8584, -6.92339, 81.1277, -64.6072, 83.6491
2.16, 1, 24.7835, 52.8406, -6.94837, 81.1868, -64.5576, 83.5123
2.163, 1, 24.8239, 52.8229, -6.97334, 81.2457, -64.508, 83.3757
2.168, 1, 24.8641, 52.8051, -6.99829, 81.3046, -64.4584, 83.2393
2.172, 1, 24.9044, 52.7874, -7.02322, 81.3635, -64.4089, 83.1029
2.176, 1, 24.9446, 52.7697, -7.04812, 81.4223, -64.3595, 82.9666
2.179, 1, 24.9848, 52.752, -7.07301, 81.4811, -64.31, 82.8304
2.184, 1, 25.0249, 52.7343, -7.09788, 81.5398, -64.2606, 82.6943
2.188, 1, 25.065, 52.7167, -7.12273, 81.5985, -64.2112, 82.5584
2.192, 1, 25.1051, 52.699, -7.14756, 81.6571, -64.1619, 82.4225
2.196, 1, 25.1452, 52.6814, -7.17237, 81.7157, -64.1126, 82.2868
2.199, 1, 25.1852, 52.6638, -7.19716, 81.7742, -64.0634, 82.1511
2.204, 1, 25.2252, 52.6462, -7.22193, 81.8327, -64.0142, 82.0156
2.208, 1, 25.2652, 52.6286, -7.24668, 81.8912, -63.965, 81.8802
2.212, 1, 25.3051, 52.611, -7.27141, 81.9496, -63.9159, 81.7449
2.216, 1, 25.345, 52.5934, -7.29613, 82.008, -63.8668, 81.6096
2.219, 1, 25.3849, 52.5759, -7.32082, 82.0663, -63.8177, 81.4745
2.224, 1, 25.4247, 52.5583, -7.3455, 82.1245, -63.7687, 81.3395
2.228, 1, 25.4645, 52.5408, -7.37015, 82.1828, -63.7197, 81.2046
2.232, 1, 25.5043, 52.5233, -7.39479, 82.2409, -63.6708, 81.0698
2.235, 1, 25.544, 52.5058, -7.41941, 82.2991, -63.6219, 80.9351
2.24, 1, 25.5837, 52.4883, -7.44401, 82.3572, -63.573, 80.8005
2.244, 1, 25.6234, 52.4709, -7.46859, 82.4152, -63.5242, 80.666
2.248, 1, 25.6631, 52.4534, -7.49315, 82.4732, -63.4754, 80.5316
2.252, 1, 25.7027, 52.436, -7.51769, 82.5312, -63.4266, 80.3974
2.255, 1, 25.7423, 52.4185, -7.54221, 82.5891, -63.3779, 80.2632
2.259, 1, 25.7819, 52.4011, -7.56672, 82.6469, -63.3292, 80.1291
2.264, 1, 25.8214, 52.3837, -7.59121, 82.7048, -63.2806, 79.9951
2.268, 1, 25.8609, 52.3663, -7.61567, 82.7626, -63.232, 79.8613
2.272, 1, 25.9004, 52.3489, -7.64012, 82.8203, -63.1834, 79.7275
2.275, 1, 25.9398, 52.3316, -7.66455, 82.878, -63.1349, 79.5938
2.28, 1, 25.9792, 52.3142, -7.68896, 82.9356, -63.0864, 79.4603
2.284, 1, 26.0186, 52.2969, -7.71336, 82.9932, -63.0379, 79.3268
2.288, 1, 26.0579, 52.2796, -7.73773, 83.0508, -62.9895, 79.1934
2.291, 1, 26.0973, 52.2623, -7.76209, 83.1083, -62.9411, 79.0602
2.296, 1, 26.1366, 52.245, -7.78642, 83.1658, -62.8928, 78.927
2.3, 1, 26.1758, 52.2277, -7.81074, 83.2232, -62.8445, 78.7939
2.304, 1, 26.2151, 52.2104, -7.83505, 83.2806, -62.7962, 78.661
2.308, 1, 26.2543, 52.1931, -7.85933, 83.3379, -62.748, 78.5281
2.311, 1, 26.2934, 52.1759, -7.88359, 83.3952, -62.6998, 78.3954
2.316, 1, 26.3326, 52.1587, -7.90784, 83.4525, -62.6516, 78.2627
2.32, 1, 26.3717, 52.1414, -7.93207, 83.5097, -62.6035, 78.1301
2.324, 1, 26.4108, 52.1242, -7.95628, 83.5669, -62.5554, 77.9977
2.328, 1, 26.4498, 52.107, -7.98047, 83.624, -62.5073, 77.8653
2.331, 1, 26.4889, 52.0899, -8.00464, 83.6811, -62.4593, 77.733
2.336, 1, 26.5279, 52.0727, -8.0288, 83.7381, -62.4113, 77.6009
2.34, 1, 26.5668, 52.0555, -8.05294, 83.7951, -62.3634, 77.4688
2.344, 1, 26.6058, 52.0384, -8.07706, 83.8521, -62.3154, 77.3368
2.347, 1, 26.6447, 52.0213, -8.10116, 83.909, -62.2676, 77.2049
2.352, 1, 26.6836, 52.0041, -8.12524, 83.9659, -62.2197, 77.0732
2.356, 1, 26.7224, 51.987, -8.14931, 84.0227, -62.1719, 76.9415
2.36, 1, 26.7613, 51.9699, -8.17336, 84.0795, -62.1241, 76.8099
2.364, 1, 26.8001, 51.9529, -8.19739, 84.1363, -62.0764, 76.6784
2.367, 1, 26.8388, 51.9358, -8.2214, 84.193, -62.0287, 76.5471
2.372, 1, 26.8776, 51.9187, -8.2454, 84.2496, -61.981, 76.4158
2.376, 1, 26.9163, 51.9017, -8.26937, 84.3062, -61.9334, 76.2846
2.38, 1, 26.955, 51.8847, -8.29333, 84.3628, -61.8858, 76.1535
2.383, 1, 26.9936, 51.8677, -8.31728, 84.4194, -61.8382, 76.0225
2.388, 1, 27.0322, 51.8507, -8.3412, 84.4759, -61.7907, 75.8916
2.392, 1, 27.0708, 51.8337, -8.36511, 84.5323, -61.7432, 75.7608
2.396, 1, 27.1094, 51.8167, -8.389, 84.5887, -61.6958, 75.63
2.4, 1, 27.1479, 51.7997, -8.41287, 84.6451, -61.6483, 75.4994
2.403, 1, 27.1865, 51.7828, -8.43673, 84.7014, -61.601, 75.3689
2.408, 1, 27.2249, 51.7658, -8.46057, 84.7577, -61.5536, 75.2385
2.412, 1, 27.2634, 51.7489, -8.48439, 84.814, -61.5063, 75.1081
2.416, 1, 27.3018, 51.732, -8.50819, 84.8702, -61.459, 74.9779
2.42, 1, 27.3402, 51.7151, -8.53198, 84.9264, -61.4117, 74.8478
2.423, 1, 27.3786, 51.6982, -8.55574, 84.9825, -61.3645, 74.7177
2.428, 1, 27.417, 51.6813, -8.5795, 85.0386, -61.3173, 74.5878
2.432, 1, 27.4553, 51.6644, -8.60323, 85.0946, -61.2702, 74.4579
2.436, 1, 27.4936, 51.6476, -8.62695, 85.1506, -61.2231, 74.3281
2.439, 1, 27.5318, 51.6307, -8.65065, 85.2066, -61.176, 74.1985
2.444, 1, 27.5701, 51.6139, -8.67433, 85.2625, -61.1289, 74.0689
2.448, 1, 27.6083, 51.5971, -8.698, 85.3184, -61.0819, 73.9394
2.452, 1, 27.6465, 51.5803, -8.72165, 85.3743, -61.035, 73.81
2.456, 1, 27.6846, 51.5634, -8.74528, 85.4301, -60.988, 73.6807
2.459, 1, 27.7227, 51.5467, -8.76889, 85.4858, -60.9411, 73.5515
2.464, 1, 27.7608, 51.5299, -8.79249, 85.5416, -60.8942, 73.4223
2.468, 1, 27.7989, 51.5131, -8.81608, 85.5973, -60.8474, 73.2933
2.472, 1, 27.837, 51.4964, -8.83964, 85.6529, -60.8005, 73.1644
2.476, 1, 27.875, 51.4796, -8.86319, 85.7085, -60.7538, 73.0355
2.479, 1, 27.913, 51.4629, -8.88672, 85.7641, -60.707, 72.9068
2.484, 1, 27.9509, 51.4462, -8.91024, 85.8196, -60.6603, 72.7781
2.488, 1, 27.9889, 51.4295, -8.93373, 85.8751, -60.6136, 72.6496
2.492, 1, 28.0268, 51.4128, -8.95722, 85.9306, -60.567, 72.5211
2.495, 1, 28.0647, 51.3961, -8.98068, 85.986, -60.5204, 72.3927
2.5, 1, 28.1025, 51.3795, -9.00413, 86.0414, -60.4738, 72.2644
2.504, 1, 28.1404, 51.3628, -9.02757, 86.0967, -60.4272, 72.1362
2.508, 1, 28.1782, 51.3462, -9.05098, 86.152, -60.3807, 72.008
2.512, 1, 28.2159, 51.3295, -9.07438, 86.2072, -60.3342, 71.88
2.515, 1, 28.2537, 51.3129, -9.09776, 86.2625, -60.2878, 71.7521
2.52, 1, 28.2914, 51.2963, -9.12113, 86.3176, -60.2414, 71.6242
2.524, 1, 28.3291, 51.2797, -9.14448, 86.3728, -60.195, 71.4965
2.528, 1, 28.3668, 51.2631, -9.16782, 86.4279, -60.1486, 71.3688
2.531, 1, 28.4044, 51.2466, -9.19114, 86.4829, -60.1023, 71.2412
2.536, 1, 28.4421, 51.23, -9.21444, 86.538, -60.056, 71.1137
2.54, 1, 28.4797, 51.2134, -9.23773, 86.593, -60.0097, 70.9863
2.544, 1, 28.5172, 51.1969, -9.261, 86.6479, -59.9635, 70.859
2.548, 1, 28.5548, 51.1804, -9.28425, 86.7028, -59.9173, 70.7317
2.551, 1, 28.5923, 51.1639, -9.30749, 86.7577, -59.8712, 70.6046
2.556, 1, 28.6298, 51.1474, -9.33071, 86.8126, -59.825, 70.4775
2.56, 1, 28.6673, 51.1309, -9.35392, 86.8674, -59.7789, 70.3505
2.564, 1, 28.7047, 51.1144, -9.37711, 86.9221, -59.7329, 70.2236
2.568, 1, 28.7421, 51.0979, -9.40029, 86.9768, -59.6868, 70.0968
2.571, 1, 28.7795, 51.0814, -9.42344, 87.0315, -59.6408, 69.9701
2.576, 1, 28.8169, 51.065, -9.44659, 87.0862, -59.5948, 69.8435
2.58, 1, 28.8542, 51.0486, -9.46972, 87.1408, -59.5489, 69.717
2.584, 1, 28.8915, 51.0321, -9.49283, 87.1954, -59.503, 69.5905
2.587, 1, 28.9288, 51.0157, -9.51592, 87.2499, -59.4571, 69.4641
2.592, 1, 28.9661, 50.9993, -9.53901, 87.3044, -59.4112, 69.3378
2.596, 1, 29.0033, 50.9829, -9.56207, 87.3589, -59.3654, 69.2116
2.6, 1, 29.0405, 50.9665, -9.58512, 87.4133, -59.3196, 69.0855
2.604, 1, 29.0777, 50.9502, -9.60816, 87.4677, -59.2739, 68.9595
2.607, 1, 29.1149, 50.9338, -9.63117, 87.5221, -59.2281, 68.8335
2.612, 1, 29.152, 50.9174, -9.65418, 87.5764, -59.1824, 68.7077
2.616, 1, 29.1891, 50.9011, -9.67717, 87.6307, -59.1368, 68.5819
2.62, 1, 29.2262, 50.8848, -9.70014, 87.6849, -59.0911, 68.4562
2.624, 1, 29.2633, 50.8685, -9.7231, 87.7392, -59.0455, 68.3306
2.627, 1, 29.3003, 50.8522, -9.74604, 87.7933, -59, 68.2051
2.632, 1, 29.3373, 50.8359, -9.76896, 87.8475, -58.9544, 68.0796
2.636, 1, 29.3743, 50.8196, -9.79188, 87.9016, -58.9089, 67.9543
2.64, 1, 29.4113, 50.8033, -9.81477, 87.9557, -58.8634, 67.829
2.643, 1, 29.4482, 50.787, -9.83765, 88.0097, -58.818, 67.7038
2.648, 1, 29.4852, 50.7708, -9.86052, 88.0637, -58.7725, 67.5787
2.652, 1, 29.522, 50.7545, -9.88337, 88.1177, -58.7271, 67.4537
2.656, 1, 29.5589, 50.7383, -9.90621, 88.1716, -58.6818, 67.3287
2.66, 1, 29.5958, 50.7221, -9.92903, 88.2255, -58.6364, 67.2039
2.663, 1, 29.6326, 50.7059, -9.95183, 88.2793, -58.5911, 67.0791
2.668, 1, 29.6694, 50.6897, -9.97462, 88.3331, -58.5459, 66.9544
2.672, 1, 29.7061, 50.6735, -9.9974, 88.3869, -58.5006, 66.8298
2.676, 1, 29.7429, 50.6573, -10.0202, 88.4407, -58.4554, 66.7052
2.679, 1, 29.7796, 50.6412, -10.0429, 88.4944, -58.4102, 66.5808
2.684, 1, 29.8163, 50.625, -10.0656, 88.5481, -58.3651, 66.4564
2.688, 1, 29.853, 50.6089, -10.0884, 88.6017, -58.3199, 66.3321
2.692, 1, 29.8896, 50.5927, -10.1111, 88.6553, -58.2748, 66.2079
2.696, 1, 29.9263, 50.5766, -10.1337, 88.7089, -58.2298, 66.0837
2.699, 1, 29.9629, 50.5605, -10.1564, 88.7624, -58.1847, 65.9597
2.704, 1, 29.9995, 50.5444, -10.1791, 88.8159, -58.1397, 65.8357
2.708, 1, 30.036, 50.5283, -10.2017, 88.8694, -58.0947, 65.7118
2.712, 1, 30.0725, 50.5122, -10.2243, 88.9228, -58.0498, 65.588
2.716, 1, 30.1091, 50.4961, -10.247, 88.9762, -58.0049, 65.4643
2.719, 1, 30.1455, 50.4801, -10.2696, 89.0296, -57.96, 65.3406
2.724, 1, 30.182, 50.464, -10.2921, 89.083, -57.9151, 65.2171
2.728, 1, 30.2184, 50.448, -10.3147, 89.1363, -57.8703, 65.0936
2.732, 1, 30.2549, 50.4319, -10.3373, 89.1895, -57.8255, 64.9702
2.735, 1, 30.2912, 50.4159, -10.3598, 89.2428, -57.7807, 64.8468
2.74, 1, 30.3276, 50.3999, -10.3823, 89.2959, -57.7359, 64.7236
2.744, 1, 30.364, 50.3839, -10.4049, 89.3491, -57.6912, 64.6004
2.748, 1, 30.4003, 50.3679, -10.4274, 89.4022, -57.6465, 64.4773
2.752, 1, 30.4366, 50.3519, -10.4498, 89.4553, -57.6018, 64.3543
2.755, 1, 30.4729, 50.336, -10.4723, 89.5084, -57.5572, 64.2313
2.76, 1, 30.5091, 50.32, -10.4948, 89.5614, -57.5126, 64.1085
2.764, 1, 30.5454, 50.3041, -10.5172, 89.6144, -57.468, 63.9857
2.768, 1, 30.5816, 50.2881, -10.5396, 89.6674, -57.4235, 63.863
2.772, 1, 30.6177, 50.2722, -10.562, 89.7203, -57.3789, 63.7403
2.775, 1, 30.6539, 50.2563, -10.5844, 89.7732, -57.3344, 63.6178
2.78, 1, 30.69, 50.2403, -10.6068, 89.8261, -57.29, 63.4953
2.784, 1, 30.7262, 50.2244, -10.6292, 89.8789, -57.2455, 63.3729
2.788, 1, 30.7623, 50.2086, -10.6516, 89.9317, -57.2011, 63.2506
2.791, 1, 30.7983, 50.1927, -10.6739, 89.9845, -57.1567, 63.1283
2.796, 1, 30.8344, 50.1768, -10.6962, 90.0372, -57.1124, 63.0061
2.8, 1, 30.8704, 50.1609, -10.7185, 90.0899, -57.0681, 62.884
2.804, 1, 30.9064, 50.1451, -10.7408, 90.1426, -57.0238, 62.762
2.808, 1, 30.9424, 50.1293, -10.7631, 90.1952, -56.9795, 62.6401
2.811, 1, 30.9784, 50.1134, -10.7854, 90.2478, -56.9352, 62.5182
2.816, 1, 31.0143, 50.0976, -10.8077, 90.3003, -56.891, 62.3964
2.82, 1, 31.0502, 50.0818, -10.8299, 90.3529, -56.8468, 62.2747
2.824, 1, 31.0861, 50.066, -10.8521, 90.4054, -56.8027, 62.1531
2.828, 1, 31.122, 50.0502, -10.8744, 90.4578, -56.7585, 62.0315
2.831, 1, 31.1578, 50.0344, -10.8966, 90.5103, -56.7144, 61.91
2.836, 1, 31.1936, 50.0186, -10.9188, 90.5627, -56.6703, 61.7886
2.84, 1, 31.2294, 50.0029, -10.9409, 90.6151, -56.6263, 61.6672
2.844, 1, 31.2652, 49.9871, -10.9631, 90.6674, -56.5822, 61.546
2.847, 1, 31.301, 49.9714, -10.9852, 90.7197, -56.5382, 61.4248
2.852, 1, 31.3367, 49.9557, -11.0074, 90.772, -56.4943, 61.3037
2.856, 1, 31.3724, 49.9399, -11.0295, 90.8242, -56.4503, 61.1826
2.86, 1, 31.4081, 49.9242, -11.0516, 90.8764, -56.4064, 61.0616
2.864, 1, 31.4438, 49.9085, -11.0737, 90.9286, -56.3625, 60.9408
2.867, 1, 31.4795, 49.8928, -11.0958, 90.9808, -56.3186, 60.8199
2.872, 1, 31.5151, 49.8771, -11.1179, 91.0329, -56.2748, 60.6992
2.876, 1, 31.5507, 49.8615, -11.1399, 91.085, -56.231, 60.5785
2.88, 1, 31.5863, 49.8458, -11.162, 91.137, -56.1872, 60.4579
2.883, 1, 31.6219, 49.8301, -11.184, 91.189, -56.1434, 60.3374
2.888, 1, 31.6574, 49.8145, -11.206, 91.241, -56.0997, 60.2169
2.892, 1, 31.6929, 49.7988, -11.228, 91.293, -56.056, 60.0965
2.896, 1, 31.7284, 49.7832, -11.25, 91.3449, -56.0123, 59.9762
2.9, 1, 31.7639, 49.7676, -11.272, 91.3968, -55.9686, 59.8559
2.903, 1, 31.7994, 49.752, -11.2939, 91.4487, -55.925, 59.7358
2.908, 1, 31.8348, 49.7364, -11.3159, 91.5005, -55.8814, 59.6157
2.912, 1, 31.8702, 49.7208, -11.3378, 91.5523, -55.8378, 59.4956
2.916, 1, 31.9056, 49.7052, -11.3598, 91.6041, -55.7943, 59.3757
2.92, 1, 31.941, 49.6896, -11.3817, 91.6558, -55.7507, 59.2558
2.923, 1, 31.9764, 49.6741, -11.4036, 91.7075, -55.7072, 59.136
2.928, 1, 32.0117, 49.6585, -11.4254, 91.7592, -55.6638, 59.0162
2.932, 1, 32.047, 49.643, -11.4473, 91.8109, -55.6203, 58.8966
2.936, 1, 32.0823, 49.6274, -11.4692, 91.8625, -55.5769, 58.777
2.939, 1, 32.1176, 49.6119, -11.491, 91.9141, -55.5335, 58.6574
2.944, 1, 32.1528, 49.5964, -11.5129, 91.9656, -55.4901, 58.538
2.948, 1, 32.188, 49.5809, -11.5347, 92.0172, -55.4468, 58.4186
2.952, 1, 32.2233, 49.5654, -11.5565, 92.0687, -55.4034, 58.2992
2.956, 1, 32.2584, 49.5499, -11.5783, 92.1201, -55.3601, 58.18
2.959, 1, 32.2936, 49.5344, -11.6001, 92.1716, -55.3169, 58.0608
2.964, 1, 32.3288, 49.5189, -11.6218, 92.223, -55.2736, 57.9417
2.968, 1, 32.3639, 49.5035, -11.6436, 92.2744, -55.2304, 57.8226
2.972, 1, 32.399, 49.488, -11.6653, 92.3257, -55.1872, 57.7037
2.976, 1, 32.4341, 49.4726, -11.6871, 92.3771, -55.144, 57.5848
2.98, 1, 32.4691, 49.4571, -11.7088, 92.4283, -55.1009, 57.4659
2.984, 1, 32.5042, 49.4417, -11.7305, 92.4796, -55.0578, 57.3471
2.988, 1, 32.5392, 49.4263, -11.7522, 92.5308, -55.0147, 57.2284
2.992, 1, 32.5742, 49.4109, -11.7739, 92.582, -54.9716, 57.1098
2.995, 1, 32.6092, 49.3955, -11.7955, 92.6332, -54.9285, 56.9912
3, 1, 32.6442, 49.3801, -11.8172, 92.6843, -54.8855, 56.8727
3.004, 1, 32.6791, 49.3647, -11.8389, 92.7355, -54.8425, 56.7543
3.008, 1, 32.714, 49.3493, -11.8605, 92.7866, -54.7995, 56.6359
3.012, 1, 32.7489, 49.3339, -11.8821, 92.8376, -54.7566, 56.5177
3.015, 1, 32.7838, 49.3186, -11.9037, 92.8886, -54.7137, 56.3994
3.02, 1, 32.8187, 49.3032, -11.9253, 92.9396, -54.6708, 56.2813
3.024, 1, 32.8535, 49.2879, -11.9469, 92.9906, -54.6279, 56.1632
3.028, 1, 32.8884, 49.2726, -11.9685, 93.0415, -54.585, 56.0451
3.031, 1, 32.9232, 49.2572, -11.99, 93.0925, -54.5422, 55.9272
3.036, 1, 32.958, 49.2419, -12.0116, 93.1433, -54.4994, 55.8093
3.04, 1, 32.9927, 49.2266, -12.0331, 93.1942, -54.4566, 55.6915
3.044, 1, 33.0275, 49.2113, -12.0546, 93.245, -54.4139, 55.5737
3.048, 1, 33.0622, 49.196, -12.0761, 93.2958, -54.3711, 55.456
3.051, 1, 33.0969, 49.1807, -12.0976, 93.3466, -54.3284, 55.3384
3.056, 1, 33.1316, 49.1655, -12.1191, 93.3973, -54.2857, 55.2208
3.06, 1, 33.1663, 49.1502, -12.1406, 93.448, -54.2431, 55.1033
3.064, 1, 33.2009, 49.135, -12.1621, 93.4987, -54.2005, 54.9859
3.068, 1, 33.2356, 49.1197, -12.1835, 93.5494, -54.1578, 54.8685
3.071, 1, 33.2702, 49.1045, -12.2049, 93.6, -54.1153, 54.7512
3.076, 1, 33.3048, 49.0892, -12.2264, 93.6506, -54.0727, 54.634
3.08, 1, 33.3393, 49.074, -12.2478, 93.7012, -54.0301, 54.5168
3.084, 1, 33.3739, 49.0588, -12.2692, 93.7517, -53.9876, 54.3997
3.087, 1, 33.4084, 49.0436, -12.2906, 93.8022, -53.9451, 54.2827
3.092, 1, 33.4429, 49.0284, -12.312, 93.8527, -53.9027, 54.1657
3.096, 1, 33.4774, 49.0132, -12.3333, 93.9032, -53.8602, 54.0488
3.1, 1, 33.5119, 48.998, -12.3547, 93.9536, -53.8178, 53.9319
3.104, 1, 33.5464, 48.9829, -12.376, 94.004, -53.7754, 53.8151
3.107, 1, 33.5808, 48.9677, -12.3974, 94.0544, -53.733, 53.6984
3.112, 1, 33.6152, 48.9526, -12.4187, 94.1047, -53.6907, 53.5818
3.116, 1, 33.6496, 48.9374, -12.44, 94.1551, -53.6483, 53.4652
3.12, 1, 33.684, 48.9223, -12.4613, 94.2054, -53.606, 53.3486
3.124, 1, 33.7184, 48.9071, -12.4826, 94.2556, -53.5637, 53.2322
3.128, 1, 33.7527, 48.892, -12.5038, 94.3059, -53.5215, 53.1158
3.132, 1, 33.7871, 48.8769, -12.5251, 94.3561, -53.4792, 52.9994
3.136, 1, 33.8214, 48.8618, -12.5464, 94.4063, -53.437, 52.8832
3.14, 1, 33.8557, 48.8467, -12.5676, 94.4564, -53.3948, 52.767
3.143, 1, 33.8899, 48.8316, -12.5888, 94.5065, -53.3526, 52.6508
3.148, 1, 33.9242, 48.8165, -12.61, 94.5566, -53.3105, 52.5347
3.152, 1, 33.9584, 48.8015, -12.6313, 94.6067, -53.2684, 52.4187
3.156, 1, 33.9926, 48.7864, -12.6524, 94.6568, -53.2263, 52.3027
3.16, 1, 34.0268, 48.7714, -12.6736, 94.7068, -53.1842, 52.1868
3.163, 1, 34.061, 48.7563, -12.6948, 94.7568, -53.1421, 52.071
3.168, 1, 34.0952, 48.7413, -12.716, 94.8068, -53.1001, 51.9552
3.172, 1, 34.1293, 48.7262, -12.7371, 94.8567, -53.0581, 51.8395
3.176, 1, 34.1634, 48.7112, -12.7582, 94.9066, -53.0161, 51.7239
3.179, 1, 34.1976, 48.6962, -12.7794, 94.9565, -52.9741, 51.6083
3.184, 1, 34.2316, 48.6812, -12.8005, 95.0064, -52.9322, 51.4927
3.188, 1, 34.2657, 48.6662, -12.8216, 95.0562, -52.8903, 51.3773
3.192, 1, 34.2998, 48.6512, -12.8427, 95.106, -52.8484, 51.2619
3.196, 1, 34.3338, 48.6362, -12.8638, 95.1558, -52.8065, 51.1465
3.199, 1, 34.3678, 48.6212, -12.8848, 95.2055, -52.7646, 51.0312
3.204, 1, 34.4018, 48.6063, -12.9059, 95.2553, -52.7228, 50.916
3.208, 1, 34.4358, 48.5913, -12.9269, 95.305, -52.681, 50.8008
3.212, 1, 34.4698, 48.5764, -12.948, 95.3547, -52.6392, 50.6857
3.216, 1, 34.5037, 48.5614, -12.969, 95.4043, -52.5974, 50.5707
3.22, 1, 34.5376, 48.5465, -12.99, 95.4539, -52.5557, 50.4557
3.224, 1, 34.5715, 48.5315, -13.011, 95.5035, -52.514, 50.3408
3.228, 1, 34.6054, 48.5166, -13.032, 95.5531, -52.4722, 50.2259
3.232, 1, 34.6393, 48.5017, -13.053, 95.6027, -52.4306, 50.1111
3.235, 1, 34.6732, 48.4868, -13.074, 95.6522, -52.3889, 49.9964
3.24, 1, 34.707, 48.4719, -13.0949, 95.7017, -52.3473, 49.8817
3.244, 1, 34.7408, 48.457, -13.1159, 95.7511, -52.3057, 49.7671
3.248, 1, 34.7746, 48.4421, -13.1368, 95.8006, -52.2641, 49.6525
3.252, 1, 34.8084, 48.4273, -13.1577, 95.85, -52.2225, 49.538
3.255, 1, 34.8422, 48.4124, -13.1787, 95.8994, -52.1809, 49.4236
3.26, 1, 34.8759, 48.3975, -13.1996, 95.9488, -52.1394, 49.3092
3.264, 1, 34.9097, 48.3827, -13.2205, 95.9981, -52.0979, 49.1949
3.268, 1, 34.9434, 48.3678, -13.2413, 96.0474, -52.0564, 49.0806
3.272, 1, 34.9771, 48.353, -13.2622, 96.0967, -52.0149, 48.9664
3.276, 1, 35.0108, 48.3382, -13.2831, 96.146, -51.9735, 48.8522
3.28, 1, 35.0444, 48.3234, -13.3039, 96.1952, -51.9321, 48.7381
3.284, 1, 35.0781, 48.3085, -13.3248, 96.2445, -51.8907, 48.6241
3.288, 1, 35.1117, 48.2937, -13.3456, 96.2936, -51.8493, 48.5101
3.291, 1, 35.1453, 48.2789, -13.3664, 96.3428, -51.8079, 48.3962
3.296, 1, 35.1788, 48.2642, -13.3872, 96.392, -51.7666, 48.2823
3.3, 1, 35.212, 48.2495, -13.4081, 96.4411, -51.7253, 48.1686
3.304, 1, 35.2448, 48.2351, -13.4289, 96.4901, -51.684, 48.0549
3.308, 1, 35.2771, 48.2208, -13.4498, 96.5391, -51.6428, 47.9413
3.312, 1, 35.3089, 48.2068, -13.4706, 96.588, -51.6017, 47.828
3.316, 1, 35.34, 48.1931, -13.4915, 96.6367, -51.5608, 47.7152
3.32, 1, 35.3705, 48.1797, -13.5123, 96.6852, -51.5201, 47.6028
3.324, 1, 35.4004, 48.1667, -13.5331, 96.7332, -51.4796, 47.4914
3.328, 1, 35.4296, 48.1541, -13.5536, 96.7808, -51.4397, 47.381
3.332, 1, 35.4579, 48.142, -13.5741, 96.8278, -51.4002, 47.2722
3.336, 1, 35.4853, 48.1304, -13.5942, 96.8739, -51.3615, 47.1652
3.34, 1, 35.5116, 48.1193, -13.6139, 96.9189, -51.3237, 47.0608
3.344, 1, 35.5367, 48.1088, -13.6332, 96.9627, -51.287, 46.9593
3.347, 1, 35.5607, 48.0989, -13.6519, 97.0049, -51.2516, 46.8614
3.352, 1, 35.5837, 48.0894, -13.6697, 97.0452, -51.2177, 46.7677
3.356, 1, 35.6056, 48.0803, -13.6866, 97.0835, -51.1856, 46.6789
3.36, 1, 35.6265, 48.0717, -13.7025, 97.1195, -51.1554, 46.5954
3.364, 1, 35.6464, 48.0633, -13.7171, 97.1529, -51.1274, 46.5179
3.368, 1, 35.6652, 48.0553, -13.7305, 97.1837, -51.1015, 46.4465
3.372, 1, 35.683, 48.0477, -13.7426, 97.2116, -51.0781, 46.3818
3.376, 1, 35.6998, 48.0404, -13.7532, 97.2366, -51.057, 46.3238
3.38, 1, 35.7157, 48.0333, -13.7625, 97.2588, -51.0384, 46.2725
3.383, 1, 35.7306, 48.0264, -13.7703, 97.278, -51.0221, 46.228
3.388, 1, 35.7448, 48.0199, -13.7769, 97.2945, -51.0082, 46.1898
3.392, 1, 35.7579, 48.0136, -13.7822, 97.3084, -50.9964, 46.1577
3.396, 1, 35.77, 48.0077, -13.7864, 97.32, -50.9866, 46.1311
3.4, 2, 35.781, 48.0022, -13.7896, 97.3293, -50.9787, 46.1096
3.403, 2, 35.7909, 47.9973, -13.792, 97.3368, -50.9723, 46.0924
3.408, 2, 35.7998, 47.9929, -13.7937, 97.3426, -50.9673, 46.079
3.412, 2, 35.8076, 47.9889, -13.7949, 97.3471, -50.9635, 46.0688
3.416, 2, 35.8146, 47.9855, -13.7957, 97.3504, -50.9606, 46.0612
3.42, 2, 35.8206, 47.9826, -13.7961, 97.3529, -50.9585, 46.0556
3.424, 2, 35.8257, 47.9801, -13.7964, 97.3546, -50.9569, 46.0517
3.428, 2, 35.8299, 47.9782, -13.7965, 97.3558, -50.9558, 46.0489
3.432, 2, 35.8332, 47.9767, -13.7966, 97.3567, -50.9551, 46.047
3.436, 2, 35.8356, 47.9756, -13.7966, 97.3573, -50.9546, 46.0457
3.439, 2, 35.8374, 47.9749, -13.7966, 97.3577, -50.9542, 46.0448
3.444, 2, 35.8385, 47.9744, -13.7966, 97.3579, -50.954, 46.0442
3.448, 2, 35.8393, 47.974, -13.7966, 97.3581, -50.9538, 46.0438
3.452, 2, 35.8398, 47.9738, -13.7966, 97.3582, -50.9537, 46.0435
3.456, 2, 35.8402, 47.9737, -13.7966, 97.3583, -50.9537, 46.0434
3.46, 2, 35.8405, 47.9735, -13.7966, 97.3584, -50.9536, 46.0432
3.464, 2, 35.8406, 47.9735, -13.7966, 97.3584, -50.9536, 46.0431
3.468, 2, 35.8407, 47.9734, -13.7966, 97.3584, -50.9535, 46.0431
3.472, 2, 35.8408, 47.9734, -13.7966, 97.3584, -50.9535, 46.043
3.476, 2, 35.8409, 47.9734, -13.7966, 97.3584, -50.9535, 46.043
3.48, 2, 35.8409, 47.9733, -13.7966, 97.3585, -50.9535, 46.043
3.484, 2, 35.8409, 47.9733, -13.7966, 97.3585, -50.9535, 46.043
3.488, 2, 35.8409, 47.9733, -13.7966, 97.3585, -50.9535, 46.043
3.492, 2, 35.8409, 47.9733, -13.7966, 97.3585, -50.9535, 46.043
3.495, 2, 35.841, 47.9733, -13.7966, 97.3585, -50.9535, 46.043
3.5, 2, 35.841, 47.9733, -13.7966, 97.3585, -50.9535, 46.043
3.504, 2, 35.841, 47.9733, -13.7966, 97.3585, -50.9535, 46.043
3.508, 2, 35.841, 47.9733, -13.7966, 97.3585, -50.9535, 46.043
3.512, 2, 35.841, 47.9733, -13.7966, 97.3585, -50.9535, 46.043
3.516, 2, 35.841, 47.9733, -13.7966, 97.3585, -50.9535, 46.043
3.52, 2, 35.841, 47.9733, -13.7966, 97.3585, -50.9535, 46.043
3.524, 2, 35.841, 47.9733, -13.7966, 97.3585, -50.9535, 46.043
3.528, 2, 35.841, 47.9733, -13.7966, 97.3585, -50.9535, 46.043
3.531, 2, 35.841, 47.9733, -13.7966, 97.3585, -50.9535, 46.043
3.536, 2, 35.841, 47.9733, -13.7966, 97.3585, -50.9535, 46.043
3.54, 2, 35.841, 47.9733, -13.7966, 97.3585, -50.9535, 46.043
3.544, 2, 35.841, 47.9733, -13.7966, 97.3585, -50.9535, 46.043
3.548, 2, 35.841, 47.9733, -13.7966, 97.3585, -50.9535, 46.043
3.552, 2, 35.841, 47.9733, -13.7966, 97.3585, -50.9535, 46.043
3.556, 2, 35.841, 47.9733, -13.7966, 97.3585, -50.9535, 46.043
3.56, 2, 35.841, 47.9733, -13.7966, 97.3585, -50.9535, 46.043
3.564, 2, 35.841, 47.9733, -13.7966, 97.3585, -50.9535, 46.043
3.568, 2, 35.841, 47.9733, -13.7966, 97.3585, -50.9535, 46.043
3.572, 2, 35.841, 47.9733, -13.7966, 97.3585, -50.9535, 46.043
3.576, 2, 35.841, 47.9733, -13.7966, 97.3585, -50.9535, 46.043
3.58, 2, 35.841, 47.9733, -13.7966, 97.3585, -50.9535, 46.043
3.584, 2, 35.841, 47.9733, -13.7966, 97.3585, -50.9535, 46.043
3.587, 2, 35.841, 47.9733, -13.7966, 97.3585, -50.9535, 46.043
3.592, 2, 35.841, 47.9733, -13.7966, 97.3585, -50.9535, 46.043
3.596, 2, 35.841, 47.9733, -13.7966, 97.3585, -50.9535, 46.043
3.6, 2, 35.841, 47.9733, -13.7966, 97.3585, -50.9535, 46.043
3.604, 2, 35.841, 47.9733, -13.7966, 97.3585, -50.9535, 46.043
3.608, 2, 35.841, 47.9733, -13.7966, 97.3585, -50.9535, 46.043
3.612, 2, 35.841, 47.9733, -13.7966, 97.3585, -50.9535, 46.043
3.616, 2, 35.841, 47.9733, -13.7966, 97.3585, -50.9535, 46.043
3.62, 2, 35.841, 47.9733, -13.7966, 97.3585, -50.9535, 46.043
3.624, 2, 35.841, 47.9733, -13.7966, 97.3585, -50.9535, 46.043
3.628, 2, 35.841, 47.9733, -13.7966, 97.3585, -50.9535, 46.043
3.632, 2, 35.841, 47.9733, -13.7966, 97.3585, -50.9535, 46.043
3.636, 2, 35.841, 47.9733, -13.7966, 97.3585, -50.9535, 46.043
3.64, 2, 35.841, 47.9733, -13.7966, 97.3585, -50.9535, 46.043
3.644, 2, 35.841, 47.9733, -13.7966, 97.3585, -50.9535, 46.043
3.648, 2, 35.841, 47.9733, -13.7966, 97.3585, -50.9535, 46.043
3.652, 2, 35.841, 47.9733, -13.7966, 97.3585, -50.9535, 46.043
3.656, 2, 35.841, 47.9733, -13.7966, 97.3585, -50.9535, 46.043
3.66, 2, 35.841, 47.9733, -13.7966, 97.3585, -50.9535, 46.043
3.664, 2, 35.841, 47.9733, -13.7966, 97.3585, -50.9535, 46.043
3.668, 2, 35.841, 47.9733, -13.7966, 97.3585, -50.9535, 46.043
3.672, 2, 35.841, 47.9733, -13.7966, 97.3585, -50.9535, 46.043
3.676, 2, 35.841, 47.9733, -13.7966, 97.3585, -50.9535, 46.043
3.679, 2, 35.841, 47.9733, -13.7966, 97.3585, -50.9535, 46.043
3.684, 2, 35.841, 47.9733, -13.7966, 97.3585, -50.9535, 46.043
3.688, 2, 35.841, 47.9733, -13.7966, 97.3585, -50.9535, 46.043
3.692, 2, 35.841, 47.9733, -13.7966, 97.3585, -50.9535, 46.043
3.696, 2, 35.841, 47.9733, -13.7966, 97.3585, -50.9535, 46.043
3.7, 2, 35.841, 47.9733, -13.7966, 97.3585, -50.9535, 46.043
3.704, 2, 35.841, 47.9733, -13.7966, 97.3585, -50.9535, 46.043
3.708, 2, 35.841, 47.9733, -13.7966, 97.3585, -50.9535, 46.043
3.712, 2, 35.841, 47.9733, -13.7966, 97.3585, -50.9535, 46.043
3.716, 2, 35.841, 47.9733, -13.7966, 97.3585, -50.9535, 46.043
3.72, 2, 35.841, 47.9733, -13.7966, 97.3585, -50.9535, 46.043
3.724, 2, 35.841, 47.9733, -13.7966, 97.3585, -50.9535, 46.043
3.728, 2, 35.841, 47.9733, -13.7966, 97.3585, -50.9535, 46.043
3.732, 2, 35.841, 47.9733, -13.7966, 97.3585, -50.9535, 46.043
3.735, 2, 35.841, 47.9733, -13.7966, 97.3585, -50.9535, 46.043
3.74, 2, 35.841, 47.9733, -13.7966, 97.3585, -50.9535, 46.043
3.744, 2, 35.841, 47.9733, -13.7966, 97.3585, -50.9535, 46.043
3.748, 2, 35.841, 47.9733, -13.7966, 97.3585, -50.9535, 46.043
3.752, 2, 35.841, 47.9733, -13.7966, 97.3585, -50.9535, 46.043
3.756, 2, 35.841, 47.9733, -13.7966, 97.3585, -50.9535, 46.043
3.76, 2, 35.841, 47.9733, -13.7966, 97.3585, -50.9535, 46.043
3.764, 2, 35.841, 47.9733, -13.7966, 97.3585, -50.9535, 46.043
3.768, 2, 35.841, 47.9733, -13.7966, 97.3585, -50.9535, 46.043
3.772, 2, 35.841, 47.9733, -13.7966, 97.3585, -50.9535, 46.043
3.776, 2, 35.841, 47.9733, -13.7966, 97.3585, -50.9535, 46.043
3.78, 2, 35.841, 47.9733, -13.7966, 97.3585, -50.9535, 46.043
3.784, 2, 35.841, 47.9733, -13.7966, 97.3585, -50.9535, 46.043
3.788, 2, 35.841, 47.9733, -13.7966, 97.3585, -50.9535, 46.043
3.792, 2, 35.841, 47.9733, -13.7966, 97.3585, -50.9535, 46.043
3.796, 2, 35.841, 47.9733, -13.7966, 97.3585, -50.9535, 46.043
3.8, 2, 35.841, 47.9733, -13.7966, 97.3585, -50.9535, 46.043
3.804, 2, 35.841, 47.9733, -13.7966, 97.3585, -50.9535, 46.043
3.808, 2, 35.841, 47.9733, -13.7966, 97.3585, -50.9535, 46.043
3.812, 2, 35.841, 47.9733, -13.7966, 97.3585, -50.9535, 46.043
3.816, 2, 35.841, 47.9733, -13.7966, 97.3585, -50.9535, 46.043
3.82, 2, 35.841, 47.9733, -13.7966, 97.3585, -50.9535, 46.043
3.824, 2, 35.841, 47.9733, -13.7966, 97.3585, -50.9535, 46.043
3.828, 2, 35.841, 47.9733, -13.7966, 97.3585, -50.9535, 46.043
3.832, 2, 35.841, 47.9733, -13.7966, 97.3585, -50.9535, 46.043
3.836, 2, 35.841, 47.9733, -13.7966, 97.3585, -50.9535, 46.043
3.84, 2, 35.841, 47.9733, -13.7966, 97.3585, -50.9535, 46.043
3.844, 2, 35.841, 47.9733, -13.7966, 97.3585, -50.9535, 46.043
3.848, 2, 35.841, 47.9733, -13.7966, 97.3585, -50.9535, 46.043
3.852, 2, 35.841, 47.9733, -13.7966, 97.3585, -50.9535, 46.043
3.856, 2, 35.841, 47.9733, -13.7966, 97.3585, -50.9535, 46.043
3.86, 2, 35.841, 47.9733, -13.7966, 97.3585, -50.9535, 46.043
3.864, 2, 35.841, 47.9733, -13.7966, 97.3585, -50.9535, 46.043
3.868, 2, 35.841, 47.9733, -13.7966, 97.3585, -50.9535, 46.043
3.872, 2, 35.841, 47.9733, -13.7966, 97.3585, -50.9535, 46.043
3.876, 2, 35.841, 47.9733, -13.7966, 97.3585, -50.9535, 46.043
3.88, 2, 35.841, 47.9733, -13.7966, 97.3585, -50.9535, 46.043
3.884, 2, 35.841, 47.9733, -13.7966, 97.3585, -50.9535, 46.043
3.888, 2, 35.841, 47.9733, -13.7966, 97.3585, -50.9535, 46.043
3.892, 2, 35.841, 47.9733, -13.7966, 97.3585, -50.9535, 46.043
3.896, 2, 35.841, 47.9733, -13.7966, 97.3585, -50.9535, 46.043
3.9, 2, 35.841, 47.9733, -13.7966, 97.3585, -50.9535, 46.043
3.904, 2, 35.841, 47.9733, -13.7966, 97.3585, -50.9535, 46.043
3.908, 2, 35.841, 47.9733, -13.7966, 97.3585, -50.9535, 46.043
3.912, 2, 35.841, 47.9733, -13.7966, 97.3585, -50.9535, 46.043
3.916, 2, 35.841, 47.9733, -13.7966, 97.3585, -50.9535, 46.043
3.92, 2, 35.841, 47.9733, -13.7966, 97.3585, -50.9535, 46.043
3.924, 2, 35.841, 47.9733, -13.7966, 97.3585, -50.9535, 46.043
3.928, 2, 35.841, 47.9733, -13.7966, 97.3585, -50.9535, 46.043
3.932, 2, 35.841, 47.9733, -13.7966, 97.3585, -50.9535, 46.043
3.936, 2, 35.841, 47.9733, -13.7966, 97.3585, -50.9535, 46.043
3.94, 2, 35.841, 47.9733, -13.7966, 97.3585, -50.9535, 46.043
3.944, 2, 35.841, 47.9733, -13.7966, 97.3585, -50.9535, 46.043
3.948, 2, 35.841, 47.9733, -13.7966, 97.3585, -50.9535, 46.043
3.952, 2, 35.841, 47.9733, -13.7966, 97.3585, -50.9535, 46.043
3.956, 2, 35.841, 47.9733, -13.7966, 97.3585, -50.9535, 46.043
3.96, 2, 35.841, 47.9733, -13.7966, 97.3585, -50.9535, 46.043
3.964, 2, 35.841, 47.9733, -13.7966, 97.3585, -50.9535, 46.043
3.968, 2, 35.841, 47.9733, -13.7966, 97.3585, -50.9535, 46.043
3.972, 2, 35.841, 47.9733, -13.7966, 97.3585, -50.9535, 46.043
3.976, 2, 35.841, 47.9733, -13.7966, 97.3585, -50.9535, 46.043
3.98, 2, 35.841, 47.9733, -13.7966, 97.3585, -50.9535, 46.043
3.984, 2, 35.841, 47.9733, -13.7966, 97.3585, -50.9535, 46.043
3.988, 2, 35.841, 47.9733, -13.7966, 97.3585, -50.9535, 46.043
3.992, 2, 35.841, 47.9733, -13.7966, 97.3585, -50.9535, 46.043
3.996, 2, 35.841, 47.9733, -13.7966, 97.3585, -50.9535, 46.043
3.999, 2, 35.841, 47.9733, -13.7966, 97.3585, -50.9535, 46.043
4.004, 2, 35.841, 47.9733, -13.7966, 97.3585, -50.9535, 46.043
4.008, 2, 35.841, 47.9733, -13.7966, 97.3585, -50.9535, 46.043
4.012, 2, 35.841, 47.9733, -13.7966, 97.3585, -50.9535, 46.043
4.016, 2, 35.841, 47.9733, -13.7966, 97.3585, -50.9535, 46.043
4.02, 2, 35.841, 47.9733, -13.7966, 97.3585, -50.9535, 46.043
4.024, 2, 35.841, 47.9733, -13.7966, 97.3585, -50.9535, 46.043
4.028, 2, 35.841, 47.9733, -13.7966, 97.3585, -50.9535, 46.043
4.032, 2, 35.841, 47.9733, -13.7966, 97.3585, -50.9535, 46.043
4.036, 2, 35.841, 47.9733, -13.7966, 97.3585, -50.9535, 46.043
4.04, 2, 35.841, 47.9733, -13.7966, 97.3585, -50.9535, 46.043
4.044, 2, 35.841, 47.9733, -13.7966, 97.3585, -50.9535, 46.043
4.048, 2, 35.841, 47.9733, -13.7966, 97.3585, -50.9535, 46.043
4.052, 2, 35.841, 47.9733, -13.7966, 97.3585, -50.9535, 46.043
4.056, 2, 35.841, 47.9733, -13.7966, 97.3585, -50.9535, 46.043
4.06, 2, 35.841, 47.9733, -13.7966, 97.3585, -50.9535, 46.043
4.064, 2, 35.841, 47.9733, -13.7966, 97.3585, -50.9535, 46.043
4.068, 2, 35.841, 47.9733, -13.7966, 97.3585, -50.9535, 46.043
4.072, 2, 35.841, 47.9733, -13.7966, 97.3585, -50.9535, 46.043
4.076, 2, 35.841, 47.9733, -13.7966, 97.3585, -50.9535, 46.043
4.08, 2, 35.841, 47.9733, -13.7966, 97.3585, -50.9535, 46.043
4.084, 2, 35.841, 47.9733, -13.7966, 97.3585, -50.9535, 46.043
4.088, 2, 35.841, 47.9733, -13.7966, 97.3585, -50.9535, 46.043
4.092, 2, 35.841, 47.9733, -13.7966, 97.3585, -50.9535, 46.043
4.096, 2, 35.841, 47.9733, -13.7966, 97.3585, -50.9535, 46.043
4.1, 2, 35.841, 47.9733, -13.7966, 97.3585, -50.9535, 46.043
4.104, 2, 35.841, 47.9733, -13.7966, 97.3585, -50.9535, 46.043
4.108, 2, 35.841, 47.9733, -13.7966, 97.3585, -50.9535, 46.043
4.112, 2, 35.841, 47.9733, -13.7966, 97.3585, -50.9535, 46.043
4.116, 2, 35.841, 47.9733, -13.7966, 97.3585, -50.9535, 46.043
4.12, 2, 35.841, 47.9733, -13.7966, 97.3585, -50.9535, 46.043
4.124, 2, 35.841, 47.9733, -13.7966, 97.3585, -50.9535, 46.043
4.128, 2, 35.841, 47.9733, -13.7966, 97.3585, -50.9535, 46.043
4.132, 2, 35.841, 47.9733, -13.7966, 97.3585, -50.9535, 46.043
4.136, 2, 35.841, 47.9733, -13.7966, 97.3585, -50.9535, 46.043
4.14, 2, 35.841, 47.9733, -13.7966, 97.3585, -50.9535, 46.043
4.144, 2, 35.841, 47.9733, -13.7966, 97.3585, -50.9535, 46.043
4.148, 2, 35.841, 47.9733, -13.7966, 97.3585, -50.9535, 46.043
4.152, 2, 35.841, 47.9733, -13.7966, 97.3585, -50.9535, 46.043
4.156, 2, 35.841, 47.9733, -13.7966, 97.3585, -50.9535, 46.043
4.16, 2, 35.841, 47.9733, -13.7966, 97.3585, -50.9535, 46.043
4.164, 2, 35.841, 47.9733, -13.7966, 97.3585, -50.9535, 46.043
4.168, 2, 35.841, 47.9733, -13.7966, 97.3585, -50.9535, 46.043
4.172, 2, 35.841, 47.9733, -13.7966, 97.3585, -50.9535, 46.043
4.176, 2, 35.841, 47.9733, -13.7966, 97.3585, -50.9535, 46.043
4.18, 2, 35.841, 47.9733, -13.7966, 97.3585, -50.9535, 46.043
4.184, 2, 35.841, 47.9733, -13.7966, 97.3585, -50.9535, 46.043
4.188, 2, 35.841, 47.9733, -13.7966, 97.3585, -50.9535, 46.043
4.192, 2, 35.841, 47.9733, -13.7966, 97.3585, -50.9535, 46.043
4.196, 2, 35.841, 47.9733, -13.7966, 97.3585, -50.9535, 46.043
4.2, 2, 35.841, 47.9733, -13.7966, 97.3585, -50.9535, 46.043
4.204, 2, 35.841, 47.9733, -13.7966, 97.3585, -50.9535, 46.043
4.208, 2, 35.841, 47.9733, -13.7966, 97.3585, -50.9535, 46.043
4.212, 2, 35.841, 47.9733, -13.7966, 97.3585, -50.9535, 46.043
4.216, 2, 35.841, 47.9733, -13.7966, 97.3585, -50.9535, 46.043
4.22, 2, 35.841, 47.9733, -13.7966, 97.3585, -50.9535, 46.043
4.224, 2, 35.841, 47.9733, -13.7966, 97.3585, -50.9535, 46.043
4.228, 2, 35.841, 47.9733, -13.7966, 97.3585, -50.9535, 46.043
4.232, 2, 35.841, 47.9733, -13.7966, 97.3585, -50.9535, 46.043
4.236, 2, 35.841, 47.9733, -13.7966, 97.3585, -50.9535, 46.043
4.24, 2, 35.841, 47.9733, -13.7966, 97.3585, -50.9535, 46.043
4.244, 2, 35.841, 47.9733, -13.7966, 97.3585, -50.9535, 46.043
4.248, 2, 35.841, 47.9733, -13.7966, 97.3585, -50.9535, 46.043
4.252, 2, 35.841, 47.9733, -13.7966, 97.3585, -50.9535, 46.043
4.256, 2, 35.841, 47.9733, -13.7966, 97.3585, -50.9535, 46.043
4.26, 2, 35.841, 47.9733, -13.7966, 97.3585, -50.9535, 46.043
4.264, 2, 35.841, 47.9733, -13.7966, 97.3585, -50.9535, 46.043
4.268, 2, 35.841, 47.9733, -13.7966, 97.3585, -50.9535, 46.043
4.272, 2, 35.841, 47.9733, -13.7966, 97.3585, -50.9535, 46.043
4.276, 2, 35.841, 47.9733, -13.7966, 97.3585, -50.9535, 46.043
4.28, 2, 35.841, 47.9733, -13.7966, 97.3585, -50.9535, 46.043
4.284, 2, 35.841, 47.9733, -13.7966, 97.3585, -50.9535, 46.043
4.288, 2, 35.841, 47.9733, -13.7966, 97.3585, -50.9535, 46.043
4.292, 2, 35.841, 47.9733, -13.7966, 97.3585, -50.9535, 46.043
4.296, 2, 35.841, 47.9733, -13.7966, 97.3585, -50.9535, 46.043
4.3, 2, 35.841, 47.9733, -13.7966, 97.3585, -50.9535, 46.043
4.304, 2, 35.841, 47.9733, -13.7966, 97.3585, -50.9535, 46.043
4.308, 2, 35.841, 47.9733, -13.7966, 97.3585, -50.9535, 46.043
4.312, 2, 35.841, 47.9733, -13.7966, 97.3585, -50.9535, 46.043
4.316, 2, 35.841, 47.9733, -13.7966, 97.3585, -50.9535, 46.043
4.32, 2, 35.841, 47.9733, -13.7966, 97.3585, -50.9535, 46.043
4.324, 2, 35.841, 47.9733, -13.7966, 97.3585, -50.9535, 46.043
4.328, 2, 35.841, 47.9733, -13.7966, 97.3585, -50.9535, 46.043
4.332, 2, 35.841, 47.9733, -13.7966, 97.3585, -50.9535, 46.043
4.336, 2, 35.841, 47.9733, -13.7966, 97.3585, -50.9535, 46.043
4.34, 2, 35.841, 47.9733, -13.7966, 97.3585, -50.9535, 46.043
4.344, 2, 35.841, 47.9733, -13.7966, 97.3585, -50.9535, 46.043
4.348, 2, 35.841, 47.9733, -13.7966, 97.3585, -50.9535, 46.043
4.352, 2, 35.841, 47.9733, -13.7966, 97.3585, -50.9535, 46.043
4.356, 2, 35.841, 47.9733, -13.7966, 97.3585, -50.9535, 46.043
4.36, 2, 35.841, 47.9733, -13.7966, 97.3585, -50.9535, 46.043
4.364, 2, 35.841, 47.9733, -13.7966, 97.3585, -50.9535, 46.043
4.368, 2, 35.841, 47.9733, -13.7966, 97.3585, -50.9535, 46.043
4.372, 2, 35.841, 47.9733, -13.7966, 97.3585, -50.9535, 46.043
4.376, 2, 35.841, 47.9733, -13.7966, 97.3585, -50.9535, 46.043
4.38, 2, 35.841, 47.9733, -13.7966, 97.3585, -50.9535, 46.043
4.384, 2, 35.841, 47.9733, -13.7966, 97.3585, -50.9535, 46.043
4.388, 2, 35.841, 47.9733, -13.7966, 97.3585, -50.9535, 46.043
4.392, 2, 35.841, 47.9733, -13.7966, 97.3585, -50.9535, 46.043
4.396, 2, 35.841, 47.9733, -13.7966, 97.3585, -50.9535, 46.043
4.4, 3, 35.841, 47.9733, -13.7966, 97.3585, -50.9535, 46.043
4.404, 3, 35.841, 47.9733, -13.7966, 97.3585, -50.9535, 46.043
4.408, 3, 35.841, 47.9733, -13.7966, 97.3585, -50.9535, 46.043
4.412, 3, 35.841, 47.9733, -13.7966, 97.3585, -50.9535, 46.043
4.416, 3, 35.841, 47.9733, -13.7966, 97.3585, -50.9535, 46.043
4.42, 3, 35.841, 47.9733, -13.7966, 97.3585, -50.9535, 46.043
4.424, 3, 35.841, 47.9733, -13.7966, 97.3585, -50.9535, 46.043
4.428, 3, 35.841, 47.9733, -13.7966, 97.3585, -50.9535, 46.043
4.432, 3, 35.841, 47.9733, -13.7966, 97.3585, -50.9535, 46.043
4.436, 4, 35.841, 47.9733, -13.7966, 97.3585, -50.9535, 46.043
4.44, 4, 35.841, 47.9733, -13.7966, 97.3585, -50.9535, 46.043
4.444, 4, 35.841, 47.9733, -13.7966, 97.3585, -50.9535, 46.043
4.448, 4, 35.841, 47.9733, -13.7966, 97.3585, -50.9535, 46.043
4.452, 4, 35.841, 47.9733, -13.7966, 97.3585, -50.9535, 46.043
4.456, 4, 35.841, 47.9733, -13.7966, 97.3585, -50.9535, 46.043
4.46, 4, 35.841, 47.9733, -13.7966, 97.3585, -50.9535, 46.043
4.464, 4, 35.841, 47.9733, -13.7966, 97.3585, -50.9535, 46.043
4.468, 4, 35.841, 47.9733, -13.7966, 97.3585, -50.9535, 46.043
4.472, 4, 35.841, 47.9733, -13.7966, 97.3585, -50.9535, 46.043
4.476, 4, 35.841, 47.9733, -13.7966, 97.3585, -50.9535, 46.043
4.48, 4, 35.841, 47.9733, -13.7966, 97.3585, -50.9535, 46.043
4.484, 4, 35.841, 47.9733, -13.7966, 97.3585, -50.9535, 46.043
4.488, 4, 35.841, 47.9733, -13.7966, 97.3585, -50.9535, 46.043
4.492, 4, 35.841, 47.9733, -13.7966, 97.3585, -50.9535, 46.043
4.496, 4, 35.841, 47.9733, -13.7966, 97.3585, -50.9535, 46.043
4.5, 4, 35.841, 47.9733, -13.7966, 97.3585, -50.9535, 46.043
4.504, 4, 35.841, 47.9733, -13.7966, 97.3585, -50.9535, 46.043
4.508, 4, 35.841, 47.9733, -13.7966, 97.3585, -50.9535, 46.043
4.512, 4, 35.841, 47.9733, -13.7966, 97.3585, -50.9535, 46.043
4.516, 4, 35.841, 47.9733, -13.7966, 97.3585, -50.9535, 46.043
4.52, 4, 35.841, 47.9733, -13.7966, 97.3585, -50.9535, 46.043
4.524, 4, 35.841, 47.9733, -13.7966, 97.3585, -50.9535, 46.043
4.528, 4, 35.841, 47.9733, -13.7966, 97.3585, -50.9535, 46.043
4.532, 4, 35.841, 47.9733, -13.7966, 97.3585, -50.9535, 46.043
4.536, 5, 35.841, 47.9733, -13.7966, 97.3585, -50.9535, 46.043
4.54, 5, 35.841, 47.9733, -13.7966, 97.3585, -50.9535, 46.043
4.544, 5, 35.841, 47.9733, -13.7966, 97.3585, -50.9535, 46.043
4.548, 5, 35.841, 47.9733, -13.7966, 97.3585, -50.9535, 46.043
4.552, 5, 35.841, 47.9733, -13.7966, 97.3585, -50.9535, 46.043
4.556, 5, 35.841, 47.9733, -13.7966, 97.3585, -50.9535, 46.043
4.56, 5, 35.841, 47.9733, -13.7966, 97.3585, -50.9535, 46.043
4.564, 5, 35.841, 47.9733, -13.7966, 97.3585, -50.9535, 46.043
4.568, 5, 35.841, 47.9734, -13.7966, 97.3585, -50.9535, 46.043
4.572, 5, 35.841, 47.9735, -13.7966, 97.3585, -50.9535, 46.043
4.576, 5, 35.841, 47.9739, -13.7966, 97.3585, -50.9536, 46.0429
4.58, 5, 35.8411, 47.9746, -13.7966, 97.3585, -50.9537, 46.0429
4.584, 5, 35.8412, 47.9758, -13.7966, 97.3584, -50.9541, 46.0428
4.588, 5, 35.8413, 47.9776, -13.7967, 97.3584, -50.9548, 46.0425
4.592, 5, 35.8415, 47.9802, -13.7968, 97.3582, -50.9562, 46.0421
4.596, 5, 35.8417, 47.9836, -13.797, 97.358, -50.9587, 46.0412
4.6, 5, 35.842, 47.9879, -13.7974, 97.3576, -50.9627, 46.0399
4.604, 5, 35.8423, 47.9934, -13.7979, 97.357, -50.9688, 46.0379
4.608, 5, 35.8427, 48.0002, -13.7988, 97.3562, -50.9776, 46.035
4.612, 5, 35.843, 48.0086, -13.7999, 97.3549, -50.99, 46.031
4.616, 5, 35.8434, 48.0189, -13.8016, 97.3533, -51.0069, 46.0254
4.62, 5, 35.8437, 48.0311, -13.8037, 97.3511, -51.0291, 46.0182
4.624, 5, 35.8441, 48.0455, -13.8066, 97.3482, -51.0578, 46.0088
4.628, 5, 35.8445, 48.0621, -13.8102, 97.3446, -51.0941, 45.9969
4.632, 5, 35.8449, 48.0811, -13.8147, 97.34, -51.139, 45.9822
4.636, 5, 35.8454, 48.1026, -13.8202, 97.3345, -51.1936, 45.9644
4.64, 5, 35.8459, 48.127, -13.8269, 97.3278, -51.2587, 45.9432
4.644, 5, 35.8464, 48.1543, -13.8347, 97.32, -51.3354, 45.9182
4.648, 5, 35.847, 48.1848, -13.8439, 97.3108, -51.4244, 45.8893
4.652, 5, 35.8477, 48.2188, -13.8545, 97.3001, -51.5262, 45.8563
4.656, 5, 35.8483, 48.2562, -13.8666, 97.288, -51.6415, 45.8189
4.66, 5, 35.8489, 48.2973, -13.8803, 97.2743, -51.7707, 45.7771
4.664, 5, 35.8494, 48.342, -13.8955, 97.259, -51.914, 45.7308
4.668, 5, 35.8499, 48.3902, -13.9124, 97.2421, -52.0715, 45.6801
4.672, 5, 35.8503, 48.4419, -13.931, 97.2234, -52.243, 45.6249
4.676, 5, 35.8506, 48.4971, -13.9512, 97.203, -52.4284, 45.5654
4.68, 5, 35.8509, 48.5559, -13.9731, 97.1809, -52.6271, 45.5018
4.684, 5, 35.8513, 48.618, -13.9966, 97.1572, -52.8385, 45.4342
4.688, 5, 35.8518, 48.6832, -14.0217, 97.1319, -53.0618, 45.3631
4.692, 5, 35.8525, 48.7512, -14.0482, 97.105, -53.2961, 45.2886
4.696, 5, 35.8533, 48.8215, -14.0761, 97.0766, -53.5401, 45.2112
4.7, 5, 35.8543, 48.8936, -14.1052, 97.047, -53.7927, 45.1313
4.704, 5, 35.8555, 48.9667, -14.1355, 97.0161, -54.0523, 45.0494
4.708, 5, 35.8568, 49.0407, -14.1666, 96.9843, -54.3172, 44.966
4.712, 5, 35.8583, 49.1153, -14.1985, 96.9517, -54.5856, 44.8817
4.716, 5, 35.8597, 49.1903, -14.2308, 96.9185, -54.8555, 44.7972
4.72, 5, 35.8612, 49.2656, -14.2634, 96.885, -55.1251, 44.713
4.724, 5, 35.8625, 49.341, -14.296, 96.8515, -55.3923, 44.6297
4.728, 5, 35.8639, 49.4161, -14.3284, 96.8182, -55.6553, 44.5478
4.732, 5, 35.8651, 49.4906, -14.3603, 96.7852, -55.9125, 44.468
4.736, 5, 35.8662, 49.564, -14.3916, 96.753, -56.162, 44.3908
4.74, 5, 35.8673, 49.6358, -14.422, 96.7216, -56.4025, 44.3164
4.744, 5, 35.8682, 49.7058, -14.4513, 96.6914, -56.6326, 44.2454
4.748, 5, 35.8691, 49.7736, -14.4794, 96.6623, -56.8513, 44.1781
4.752, 5, 35.8698, 49.8391, -14.5061, 96.6348, -57.0576, 44.1147
4.756, 5, 35.8703, 49.9019, -14.5313, 96.6087, -57.2509, 44.0553
4.76, 5, 35.8706, 49.962, -14.555, 96.5843, -57.4309, 44.0002
4.764, 5, 35.8707, 50.019, -14.5771, 96.5616, -57.5972, 43.9493
4.768, 5, 35.8706, 50.0725, -14.5975, 96.5406, -57.75, 43.9026
4.772, 5, 35.8703, 50.1225, -14.6162, 96.5214, -57.8895, 43.86
4.776, 5, 35.8698, 50.1689, -14.6334, 96.5038, -58.016, 43.8214
4.78, 5, 35.8691, 50.2114, -14.6489, 96.4879, -58.1299, 43.7867
4.784, 5, 35.8683, 50.2503, -14.6628, 96.4737, -58.2317, 43.7557
4.788, 5, 35.8674, 50.2856, -14.6753, 96.461, -58.322, 43.7282
4.792, 5, 35.8664, 50.3176, -14.6863, 96.4498, -58.4015, 43.7041
4.796, 5, 35.8653, 50.3464, -14.696, 96.44, -58.4707, 43.6831
4.8, 5, 35.864, 50.3723, -14.7043, 96.4315, -58.5304, 43.6649
4.804, 5, 35.8627, 50.3954, -14.7115, 96.4243, -58.5813, 43.6495
4.808, 5, 35.8614, 50.4157, -14.7177, 96.4181, -58.6244, 43.6364
4.812, 5, 35.8601, 50.4336, -14.7228, 96.413, -58.6602, 43.6255
4.816, 5, 35.8589, 50.4491, -14.7271, 96.4088, -58.6898, 43.6165
4.82, 5, 35.8577, 50.4626, -14.7306, 96.4054, -58.7138, 43.6092
4.824, 5, 35.8566, 50.4743, -14.7334, 96.4026, -58.733, 43.6034
4.828, 6, 35.8555, 50.4845, -14.7356, 96.4005, -58.748, 43.5989
4.832, 6, 35.8545, 50.4935, -14.7373, 96.3988, -58.7596, 43.5954
4.836, 6, 35.8536, 50.5014, -14.7386, 96.3976, -58.7682, 43.5927
4.84, 6, 35.8528, 50.5081, -14.7396, 96.3967, -58.7746, 43.5908
4.844, 6, 35.8521, 50.5137, -14.7404, 96.396, -58.7791, 43.5894
4.848, 6, 35.8516, 50.5182, -14.7409, 96.3956, -58.7823, 43.5884
4.852, 6, 35.8511, 50.5217, -14.7412, 96.3953, -58.7845, 43.5878
4.856, 6, 35.8508, 50.5242, -14.7415, 96.3951, -58.786, 43.5873
4.86, 6, 35.8505, 50.5259, -14.7417, 96.3949, -58.7871, 43.587
4.864, 6, 35.8503, 50.5273, -14.7418, 96.3948, -58.7878, 43.5868
4.868, 6, 35.8501, 50.5284, -14.7418, 96.3947, -58.7883, 43.5866
4.872, 6, 35.8498, 50.5296, -14.7419, 96.3947, -58.7888, 43.5865
4.876, 6, 35.8494, 50.5311, -14.7419, 96.3946, -58.7893, 43.5863
4.88, 6, 35.8488, 50.5331, -14.742, 96.3944, -58.7902, 43.586
4.884, 6, 35.8481, 50.5357, -14.742, 96.3941, -58.7918, 43.5855
4.888, 6, 35.8471, 50.539, -14.7421, 96.3936, -58.7943, 43.5847
4.892, 6, 35.846, 50.5433, -14.7422, 96.3928, -58.7984, 43.5834
4.896, 6, 35.8447, 50.5487, -14.7424, 96.3916, -58.8045, 43.5814
4.9, 6, 35.8432, 50.5554, -14.7426, 96.3899, -58.8135, 43.5786
4.904, 6, 35.8415, 50.5636, -14.7429, 96.3874, -58.8259, 43.5746
4.908, 6, 35.8396, 50.5736, -14.7434, 96.384, -58.8429, 43.5692
4.912, 6, 35.8375, 50.5854, -14.744, 96.3796, -58.8653, 43.5621
4.916, 6, 35.8352, 50.5993, -14.7448, 96.3739, -58.8941, 43.5529
4.92, 6, 35.8328, 50.6153, -14.7458, 96.3666, -58.9306, 43.5413
4.924, 6, 35.8302, 50.6335, -14.7471, 96.3576, -58.9757, 43.527
4.928, 6, 35.8274, 50.6541, -14.7487, 96.3466, -59.0306, 43.5096
4.932, 6, 35.8245, 50.6772, -14.7505, 96.3334, -59.0961, 43.4888
4.936, 6, 35.8214, 50.7031, -14.7527, 96.3179, -59.1732, 43.4644
4.94, 6, 35.818, 50.7319, -14.7553, 96.2999, -59.2626, 43.436
4.944, 6, 35.8144, 50.7639, -14.7583, 96.2791, -59.365, 43.4037
4.948, 6, 35.8104, 50.7992, -14.7618, 96.2555, -59.481, 43.367
4.952, 6, 35.8063, 50.8376, -14.7657, 96.229, -59.6108, 43.326
4.956, 6, 35.8018, 50.8792, -14.7701, 96.1995, -59.7549, 43.2806
4.96, 6, 35.7972, 50.9238, -14.7751, 96.1669, -59.9131, 43.2308
4.964, 6, 35.7924, 50.9714, -14.7807, 96.1313, -60.0855, 43.1767
4.968, 6, 35.7873, 51.0219, -14.7868, 96.0927, -60.2715, 43.1183
4.972, 6, 35.782, 51.0753, -14.7934, 96.0511, -60.4705, 43.056
4.976, 6, 35.7765, 51.1314, -14.8005, 96.0067, -60.6818, 42.9899
4.98, 6, 35.7708, 51.1902, -14.8081, 95.9598, -60.9044, 42.9204
4.984, 6, 35.7649, 51.2511, -14.8161, 95.9104, -61.1371, 42.8478
4.988, 6, 35.759, 51.3139, -14.8245, 95.8589, -61.3786, 42.7727
4.992, 6, 35.753, 51.3778, -14.8333, 95.8055, -61.6275, 42.6954
4.996, 6, 35.7472, 51.4425, -14.8425, 95.7506, -61.882, 42.6165
5, 6, 35.7416, 51.5076, -14.8518, 95.6945, -62.1404, 42.5365
5.004, 6, 35.7362, 51.5729, -14.8614, 95.6377, -62.4009, 42.456
5.008, 6, 35.7309, 51.6385, -14.8711, 95.5805, -62.6614, 42.3757
5.012, 6, 35.7257, 51.7041, -14.8809, 95.5235, -62.9201, 42.2961
5.016, 6, 35.7205, 51.7698, -14.8907, 95.467, -63.175, 42.2177
5.02, 6, 35.7152, 51.8351, -14.9004, 95.4114, -63.4245, 42.1411
5.024, 6, 35.7097, 51.8996, -14.91, 95.357, -63.6669, 42.0668
5.028, 6, 35.7041, 51.9628, -14.9194, 95.3044, -63.9007, 41.9953
5.032, 6, 35.6982, 52.0243, -14.9284, 95.2537, -64.1247, 41.9268
5.036, 6, 35.6922, 52.0839, -14.9372, 95.2053, -64.3378, 41.8618
5.04, 6, 35.686, 52.1412, -14.9456, 95.1594, -64.5389, 41.8005
5.044, 6, 35.6798, 52.1962, -14.9535, 95.1162, -64.7273, 41.7431
5.048, 6, 35.6735, 52.2487, -14.9611, 95.076, -64.9025, 41.6899
5.052, 6, 35.6672, 52.2985, -14.9681, 95.0386, -65.0641, 41.6408
5.056, 6, 35.661, 52.3455, -14.9746, 95.0044, -65.2121, 41.5958
5.06, 6, 35.6549, 52.3892, -14.9806, 94.9732, -65.3465, 41.5551
5.064, 6, 35.649, 52.4298, -14.9861, 94.9449, -65.4676, 41.5184
5.068, 6, 35.6434, 52.467, -14.9911, 94.9197, -65.5758, 41.4856
5.072, 6, 35.6381, 52.501, -14.9956, 94.8973, -65.6715, 41.4566
5.076, 6, 35.633, 52.5319, -14.9995, 94.8776, -65.7553, 41.4312
5.08, 6, 35.6282, 52.5599, -15.003, 94.8605, -65.828, 41.4093
5.084, 6, 35.6237, 52.5851, -15.0061, 94.8459, -65.8902, 41.3905
5.088, 6, 35.6193, 52.6077, -15.0087, 94.8335, -65.9429, 41.3745
5.092, 6, 35.6152, 52.6278, -15.011, 94.8231, -65.9868, 41.3613
5.096, 6, 35.6114, 52.6456, -15.0129, 94.8145, -66.023, 41.3503
5.1, 6, 35.608, 52.6613, -15.0145, 94.8076, -66.0524, 41.3414
5.104, 6, 35.6048, 52.6749, -15.0158, 94.802, -66.0759, 41.3343
5.108, 6, 35.6019, 52.6868, -15.0168, 94.7976, -66.0944, 41.3287
5.112, 7, 35.5993, 52.6972, -15.0177, 94.7943, -66.1087, 41.3244
5.116, 7, 35.5969, 52.7061, -15.0183, 94.7917, -66.1195, 41.3212
5.12, 7, 35.5947, 52.7137, -15.0188, 94.7898, -66.1274, 41.3188
5.124, 7, 35.5928, 52.7201, -15.0192, 94.7885, -66.1332, 41.317
5.128, 7, 35.5912, 52.7252, -15.0195, 94.7875, -66.1373, 41.3158
5.132, 7, 35.5899, 52.7291, -15.0197, 94.7868, -66.1401, 41.3149
5.136, 7, 35.5888, 52.732, -15.0199, 94.7864, -66.1421, 41.3143
5.14, 7, 35.5881, 52.7341, -15.02, 94.786, -66.1434, 41.3139
5.144, 7, 35.5875, 52.7355, -15.0201, 94.7858, -66.1443, 41.3137
5.148, 7, 35.5871, 52.7366, -15.0201, 94.7857, -66.1449, 41.3135
5.152, 7, 35.5865, 52.7375, -15.0201, 94.7856, -66.1454, 41.3133
5.156, 7, 35.5857, 52.7386, -15.0201, 94.7854, -66.1458, 41.3132
5.16, 7, 35.5846, 52.74, -15.02, 94.7853, -66.1464, 41.3131
5.164, 7, 35.5832, 52.7418, -15.0199, 94.7849, -66.1474, 41.3128
5.168, 7, 35.5814, 52.7443, -15.0195, 94.7843, -66.149, 41.3124
5.172, 7, 35.5792, 52.7475, -15.019, 94.7833, -66.1518, 41.3118
5.176, 7, 35.5766, 52.7515, -15.0181, 94.7817, -66.1563, 41.3108
5.18, 7, 35.5736, 52.7565, -15.0168, 94.7792, -66.163, 41.3093
5.184, 7, 35.5702, 52.7627, -15.015, 94.7756, -66.1727, 41.307
5.188, 7, 35.5662, 52.7702, -15.0124, 94.7706, -66.1863, 41.3039
5.192, 7, 35.5617, 52.7792, -15.009, 94.7638, -66.2047, 41.2997
5.196, 7, 35.5566, 52.7898, -15.0045, 94.7548, -66.229, 41.2942
5.2, 7, 35.5509, 52.8021, -14.9986, 94.7432, -66.2603, 41.287
5.204, 7, 35.5446, 52.8159, -14.9912, 94.7286, -66.2999, 41.278
5.208, 7, 35.5376, 52.8315, -14.982, 94.7104, -66.3488, 41.2668
5.212, 7, 35.53, 52.8488, -14.9708, 94.6884, -66.4083, 41.2532
5.216, 7, 35.5216, 52.868, -14.9573, 94.662, -66.4792, 41.237
5.22, 7, 35.5124, 52.8893, -14.9414, 94.631, -66.5626, 41.218
5.224, 7, 35.5022, 52.9127, -14.923, 94.595, -66.6593, 41.1959
5.228, 7, 35.4912, 52.9384, -14.9022, 94.5538, -66.77, 41.1707
5.232, 7, 35.4793, 52.9663, -14.8791, 94.5071, -66.8951, 41.1422
5.236, 7, 35.4665, 52.9961, -14.8536, 94.4548, -67.0351, 41.1103
5.24, 7, 35.4531, 53.0277, -14.826, 94.3969, -67.1901, 41.075
5.244, 7, 35.4391, 53.0608, -14.7963, 94.3334, -67.3598, 41.0364
5.248, 7, 35.4246, 53.0954, -14.7644, 94.2645, -67.5438, 40.9947
5.252, 7, 35.4096, 53.1313, -14.7303, 94.1904, -67.7412, 40.9499
5.256, 7, 35.3941, 53.1687, -14.6941, 94.1116, -67.9509, 40.9023
5.26, 7, 35.3782, 53.2073, -14.6558, 94.0286, -68.1716, 40.8523
5.264, 7, 35.3619, 53.2472, -14.6157, 93.9419, -68.4015, 40.8003
5.268, 7, 35.3456, 53.2879, -14.5741, 93.8523, -68.639, 40.7466
5.272, 7, 35.3294, 53.329, -14.5314, 93.7604, -68.8822, 40.6917
5.276, 7, 35.3135, 53.3703, -14.4879, 93.667, -69.1291, 40.636
5.28, 7, 35.2978, 53.4116, -14.4441, 93.5729, -69.3774, 40.58
5.284, 7, 35.2822, 53.4529, -14.4004, 93.4788, -69.6252, 40.5242
5.288, 7, 35.2665, 53.4942, -14.3572, 93.3857, -69.8703, 40.4691
5.292, 7, 35.2505, 53.5356, -14.3148, 93.2943, -70.1106, 40.4151
5.296, 7, 35.2341, 53.5772, -14.2736, 93.2052, -70.3443, 40.3626
5.3, 7, 35.2175, 53.6186, -14.2338, 93.1192, -70.5697, 40.312
5.304, 7, 35.2006, 53.6595, -14.1958, 93.0368, -70.7853, 40.2637
5.308, 7, 35.1839, 53.6995, -14.1598, 92.9585, -70.99, 40.2179
5.312, 7, 35.1675, 53.7382, -14.1258, 92.8846, -71.1828, 40.1747
5.316, 7, 35.1515, 53.7756, -14.0942, 92.8156, -71.3628, 40.1345
5.32, 7, 35.136, 53.8113, -14.0648, 92.7516, -71.5296, 40.0972
5.324, 7, 35.121, 53.8453, -14.0379, 92.6927, -71.6828, 40.063
5.328, 7, 35.1066, 53.8776, -14.0135, 92.6391, -71.8223, 40.0318
5.332, 7, 35.093, 53.9079, -13.9914, 92.5906, -71.9481, 40.0038
5.336, 7, 35.0801, 53.9362, -13.9718, 92.5473, -72.0605, 39.9787
5.34, 7, 35.068, 53.9624, -13.9544, 92.509, -72.16, 39.9565
5.344, 7, 35.0567, 53.9866, -13.9392, 92.4754, -72.247, 39.9371
5.348, 7, 35.0462, 54.0088, -13.9261, 92.4463, -72.3224, 39.9203
5.352, 7, 35.0364, 54.0291, -13.9149, 92.4214, -72.3869, 39.9059
5.356, 7, 35.0274, 54.0475, -13.9055, 92.4003, -72.4415, 39.8938
5.36, 7, 35.0192, 54.0641, -13.8976, 92.3827, -72.487, 39.8837
5.364, 7, 35.0118, 54.0789, -13.8911, 92.3682, -72.5245, 39.8753
5.368, 7, 35.0053, 54.0921, -13.8859, 92.3565, -72.555, 39.8685
5.372, 7, 34.9994, 54.1038, -13.8817, 92.3471, -72.5793, 39.8631
5.376, 8, 34.9943, 54.1141, -13.8785, 92.3397, -72.5985, 39.8589
5.38, 8, 34.9896, 54.1232, -13.876, 92.334, -72.6132, 39.8556
5.384, 8, 34.9854, 54.1312, -13.8741, 92.3296, -72.6244, 39.8531
5.388, 8, 34.9817, 54.138, -13.8727, 92.3265, -72.6326, 39.8513
5.392, 8, 34.9784, 54.1436, -13.8717, 92.3242, -72.6385, 39.85
5.396, 8, 34.9756, 54.1481, -13.871, 92.3226, -72.6427, 39.849
5.4, 8, 34.9734, 54.1516, -13.8706, 92.3214, -72.6456, 39.8484
5.404, 8, 34.9716, 54.1541, -13.8702, 92.3207, -72.6476, 39.8479
5.408, 8, 34.9703, 54.1559, -13.87, 92.3201, -72.6489, 39.8476
5.412, 8, 34.9692, 54.1572, -13.8698, 92.3198, -72.6499, 39.8474
5.416, 8, 34.968, 54.1583, -13.8697, 92.3195, -72.6506, 39.8473
5.42, 8, 34.9664, 54.1594, -13.8694, 92.3192, -72.6512, 39.8472
5.424, 8, 34.9644, 54.1606, -13.869, 92.3188, -72.6519, 39.8471
5.428, 8, 34.9618, 54.1621, -13.8683, 92.3182, -72.6531, 39.8471
5.432, 8, 34.9585, 54.1641, -13.867, 92.3171, -72.6551, 39.847
5.436, 8, 34.9544, 54.1664, -13.8649, 92.3152, -72.6583, 39.8469
5.44, 8, 34.9496, 54.1693, -13.8617, 92.3121, -72.6633, 39.8468
5.444, 8, 34.944, 54.1726, -13.857, 92.3076, -72.6709, 39.8467
5.448, 8, 34.9374, 54.1766, -13.8501, 92.3009, -72.6818, 39.8464
5.452, 8, 34.9297, 54.1811, -13.8406, 92.2917, -72.6971, 39.8462
5.456, 8, 34.9206, 54.1862, -13.8276, 92.2791, -72.7177, 39.8458
5.46, 8, 34.9101, 54.1918, -13.8104, 92.2626, -72.7448, 39.8452
5.464, 8, 34.8981, 54.1979, -13.7882, 92.2413, -72.7797, 39.8446
5.468, 8, 34.8845, 54.2043, -13.7606, 92.2146, -72.8237, 39.8437
5.472, 8, 34.8694, 54.2107, -13.7268, 92.1815, -72.8779, 39.8427
5.476, 8, 34.8526, 54.2173, -13.6864, 92.1415, -72.9436, 39.8414
5.48, 8, 34.834, 54.2239, -13.639, 92.0938, -73.0218, 39.8398
5.484, 8, 34.8137, 54.2304, -13.5842, 92.0379, -73.1136, 39.838
5.488, 8, 34.7916, 54.2367, -13.5216, 91.9734, -73.2196, 39.8359
5.492, 8, 34.7681, 54.2426, -13.4512, 91.8999, -73.3405, 39.8334
5.496, 8, 34.7433, 54.2479, -13.3729, 91.8173, -73.4764, 39.8305
5.5, 8, 34.7174, 54.2523, -13.2868, 91.7256, -73.6274, 39.8273
5.504, 8, 34.6906, 54.2558, -13.193, 91.6252, -73.793, 39.8238
5.508, 8, 34.6631, 54.2584, -13.092, 91.5167, -73.9722, 39.8199
5.512, 8, 34.6349, 54.2604, -12.9843, 91.4007, -74.1639, 39.8156
5.516, 8, 34.606, 54.2619, -12.8705, 91.2783, -74.3664, 39.8111
5.52, 8, 34.5767, 54.2631, -12.7516, 91.1506, -74.578, 39.8062
5.524, 8, 34.547, 54.2641, -12.6286, 91.0189, -74.7966, 39.8012
5.528, 8, 34.5171, 54.2648, -12.5026, 90.8845, -75.02, 39.7959
5.532, 8, 34.4872, 54.2654, -12.3752, 90.7487, -75.246, 39.7905
5.536, 8, 34.4571, 54.266, -12.2477, 90.613, -75.4722, 39.785
5.54, 8, 34.4269, 54.2669, -12.1213, 90.4786, -75.6965, 39.7794
5.544, 8, 34.3962, 54.2685, -11.9974, 90.347, -75.9165, 39.7739
5.548, 8, 34.3652, 54.271, -11.877, 90.2193, -76.1304, 39.7685
5.552, 8, 34.3339, 54.2748, -11.7613, 90.0966, -76.3361, 39.7632
5.556, 8, 34.3024, 54.28, -11.651, 89.9798, -76.5323, 39.7581
5.56, 8, 34.2712, 54.2862, -11.5469, 89.8696, -76.7177, 39.7532
5.564, 8, 34.2407, 54.2934, -11.4493, 89.7664, -76.8914, 39.7485
5.568, 8, 34.2111, 54.3011, -11.3588, 89.6707, -77.0528, 39.7441
5.572, 8, 34.1828, 54.3092, -11.2754, 89.5826, -77.2016, 39.7401
5.576, 8, 34.156, 54.3175, -11.1993, 89.5022, -77.3375, 39.7363
5.58, 8, 34.1308, 54.3258, -11.1304, 89.4295, -77.4606, 39.7329
5.584, 8, 34.1073, 54.3342, -11.0686, 89.3643, -77.571, 39.7298
5.588, 8, 34.0853, 54.3425, -11.0137, 89.3064, -77.6692, 39.727
5.592, 8, 34.0649, 54.3508, -10.9655, 89.2556, -77.7554, 39.7245
5.596, 8, 34.046, 54.3591, -10.9235, 89.2115, -77.8304, 39.7224
5.6, 8, 34.0286, 54.3673, -10.8874, 89.1736, -77.8948, 39.7205
5.604, 8, 34.0128, 54.3753, -10.8568, 89.1414, -77.9496, 39.7189
5.608, 8, 33.9986, 54.383, -10.831, 89.1144, -77.9955, 39.7176
5.612, 8, 33.986, 54.3904, -10.8096, 89.0921, -78.0336, 39.7165
5.616, 8, 33.9749, 54.3974, -10.7922, 89.0739, -78.0646, 39.7156
5.62, 9, 33.9652, 54.404, -10.7781, 89.0592, -78.0896, 39.7148
5.624, 9, 33.9567, 54.4101, -10.7669, 89.0477, -78.1094, 39.7142
5.628, 9, 33.9492, 54.4158, -10.7583, 89.0387, -78.1247, 39.7138
5.632, 9, 33.9425, 54.4209, -10.7517, 89.0319, -78.1363, 39.7134
5.636, 9, 33.9365, 54.4254, -10.7468, 89.0269, -78.1449, 39.7132
5.64, 9, 33.9313, 54.4292, -10.7432, 89.0233, -78.1511, 39.713
5.644, 9, 33.927, 54.4322, -10.7406, 89.0207, -78.1555, 39.7129
5.648, 9, 33.9235, 54.4346, -10.7388, 89.019, -78.1585, 39.7128
5.652, 9, 33.9208, 54.4363, -10.7376, 89.0177, -78.1606, 39.7127
5.656, 9, 33.9187, 54.4376, -10.7368, 89.0169, -78.1621, 39.7127
5.66, 9, 33.9171, 54.4384, -10.7362, 89.0163, -78.1631, 39.7127
5.664, 9, 33.9156, 54.439, -10.7357, 89.0159, -78.1637, 39.7126
5.668, 9, 33.9139, 54.4395, -10.7352, 89.0156, -78.1643, 39.7127
5.672, 9, 33.9119, 54.4398, -10.7346, 89.0152, -78.1649, 39.7128
5.676, 9, 33.9093, 54.44, -10.7336, 89.0146, -78.1656, 39.713
5.68, 9, 33.9061, 54.44, -10.732, 89.0136, -78.1667, 39.7134
5.684, 9, 33.9022, 54.4399, -10.7295, 89.0119, -78.1684, 39.7141
5.688, 9, 33.8977, 54.4396, -10.7256, 89.0094, -78.171, 39.7152
5.692, 9, 33.8923, 54.4388, -10.7199, 89.0055, -78.1749, 39.717
5.696, 9, 33.8861, 54.4376, -10.7119, 88.9999, -78.1805, 39.7195
5.7, 9, 33.8787, 54.4358, -10.7008, 88.992, -78.1883, 39.7231
5.704, 9, 33.87, 54.4332, -10.686, 88.9813, -78.1989, 39.7279
5.708, 9, 33.8598, 54.4295, -10.6665, 88.9672, -78.2128, 39.7343
5.712, 9, 33.8481, 54.4247, -10.6416, 88.9491, -78.2307, 39.7425
5.716, 9, 33.8349, 54.4184, -10.6104, 88.9261, -78.2532, 39.7528
5.72, 9, 33.82, 54.4105, -10.5719, 88.8977, -78.2811, 39.7657
5.724, 9, 33.8033, 54.4007, -10.5254, 88.8632, -78.315, 39.7812
5.728, 9, 33.7848, 54.3888, -10.4699, 88.822, -78.3555, 39.7998
5.732, 9, 33.7641, 54.3748, -10.4049, 88.7736, -78.4031, 39.8216
5.736, 9, 33.7413, 54.3585, -10.3297, 88.7175, -78.4584, 39.8469
5.74, 9, 33.7163, 54.3397, -10.244, 88.6532, -78.5218, 39.8758
5.744, 9, 33.689, 54.3183, -10.1476, 88.5805, -78.5937, 39.9084
5.748, 9, 33.6597, 54.2944, -10.0405, 88.4992, -78.6742, 39.9449
5.752, 9, 33.6284, 54.2678, -9.9227, 88.4091, -78.7635, 39.9853
5.756, 9, 33.5952, 54.2386, -9.79429, 88.3105, -78.8616, 40.0294
5.76, 9, 33.5602, 54.207, -9.65555, 88.2035, -78.9683, 40.0772
5.764, 9, 33.5234, 54.173, -9.50686, 88.0885, -79.0833, 40.1284
5.768, 9, 33.4847, 54.1369, -9.34876, 87.9662, -79.2061, 40.1828
5.772, 9, 33.4443, 54.0989, -9.18198, 87.8371, -79.3361, 40.2402
5.776, 9, 33.4023, 54.0593, -9.00747, 87.7021, -79.4725, 40.3
5.78, 9, 33.3592, 54.0184, -8.82637, 87.5621, -79.6145, 40.3619
5.784, 9, 33.3153, 53.9764, -8.63992, 87.4179, -79.7612, 40.4256
5.788, 9, 33.2708, 53.9338, -8.44946, 87.2706, -79.9118, 40.4904
5.792, 9, 33.2259, 53.8907, -8.25635, 87.1212, -80.065, 40.5561
5.796, 9, 33.1805, 53.8476, -8.06194, 86.9708, -80.22, 40.6221
5.8, 9, 33.1345, 53.8048, -7.86756, 86.8203, -80.3756, 40.6879
5.804, 9, 33.0879, 53.7627, -7.67449, 86.6708, -80.5308, 40.7532
5.808, 9, 33.0407, 53.7214, -7.48391, 86.5233, -80.6847, 40.8174
5.812, 9, 32.9931, 53.6813, -7.29692, 86.3784, -80.8363, 40.8804
5.816, 9, 32.9458, 53.6424, -7.11452, 86.2372, -80.9847, 40.9416
5.82, 9, 32.899, 53.605, -6.9376, 86.1001, -81.1293, 41.0009
5.824, 9, 32.8531, 53.5692, -6.76694, 85.9678, -81.2694, 41.058
5.828, 9, 32.8084, 53.5351, -6.60327, 85.8409, -81.4043, 41.1127
5.832, 9, 32.7652, 53.5028, -6.44717, 85.7199, -81.5333, 41.1647
5.836, 9, 32.7235, 53.4725, -6.29918, 85.6051, -81.6562, 41.214
5.84, 9, 32.6835, 53.4442, -6.15971, 85.4969, -81.7723, 41.2603
5.844, 9, 32.6451, 53.418, -6.02909, 85.3956, -81.8813, 41.3036
5.848, 9, 32.6087, 53.394, -5.90753, 85.3013, -81.9831, 41.3439
5.852, 9, 32.5741, 53.372, -5.79515, 85.2142, -82.0774, 41.381
5.856, 9, 32.5416, 53.3522, -5.69194, 85.1342, -82.1642, 41.415
5.86, 9, 32.5111, 53.3345, -5.59783, 85.0613, -82.2435, 41.446
5.864, 9, 32.4828, 53.3187, -5.51264, 84.9954, -82.3154, 41.474
5.868, 9, 32.4567, 53.3049, -5.43613, 84.9362, -82.3801, 41.4991
5.872, 9, 32.4327, 53.2928, -5.36797, 84.8835, -82.4378, 41.5214
5.876, 9, 32.4107, 53.2824, -5.30778, 84.8371, -82.4887, 41.541
5.88, 9, 32.3906, 53.2736, -5.25513, 84.7965, -82.5333, 41.5582
5.884, 9, 32.3724, 53.2663, -5.20952, 84.7615, -82.5719, 41.573
5.888, 9, 32.3559, 53.2604, -5.17043, 84.7315, -82.605, 41.5857
5.892, 9, 32.3412, 53.2556, -5.13728, 84.7061, -82.633, 41.5964
5.896, 9, 32.3281, 53.2517, -5.10951, 84.6849, -82.6565, 41.6053
5.9, 9, 32.3166, 53.2488, -5.08654, 84.6675, -82.6758, 41.6126
5.904, 9, 32.3067, 53.2466, -5.06779, 84.6533, -82.6916, 41.6186
5.908, 10, 32.2981, 53.2449, -5.05272, 84.6419, -82.7042, 41.6234
5.912, 10, 32.2905, 53.2438, -5.04081, 84.633, -82.7142, 41.6272
5.916, 10, 32.2838, 53.2431, -5.03157, 84.6261, -82.7218, 41.63
5.92, 10, 32.2779, 53.2427, -5.02454, 84.621, -82.7276, 41.6322
5.924, 10, 32.2727, 53.2425, -5.01931, 84.6172, -82.7319, 41.6338
5.928, 10, 32.2682, 53.2425, -5.01549, 84.6145, -82.7349, 41.635
5.932, 10, 32.2644, 53.2426, -5.01277, 84.6125, -82.7371, 41.6358
5.936, 10, 32.2614, 53.2427, -5.01086, 84.6112, -82.7386, 41.6363
5.94, 10, 32.2592, 53.2428, -5.00955, 84.6103, -82.7396, 41.6367
5.944, 10, 32.2575, 53.2429, -5.00864, 84.6097, -82.7404, 41.637
5.948, 10, 32.2561, 53.2429, -5.008, 84.6093, -82.7408, 41.6372
5.952, 10, 32.2548, 53.2429, -5.00748, 84.6089, -82.7412, 41.6373
5.956, 10, 32.2533, 53.2427, -5.00695, 84.6087, -82.7415, 41.6375
5.96, 10, 32.2514, 53.2424, -5.00625, 84.6083, -82.7418, 41.6378
5.964, 10, 32.2489, 53.2419, -5.00517, 84.6077, -82.7422, 41.6383
5.968, 10, 32.2459, 53.2411, -5.00344, 84.6068, -82.7428, 41.6392
5.972, 10, 32.2422, 53.2398, -5.00072, 84.6052, -82.7437, 41.6408
5.976, 10, 32.2378, 53.2379, -4.99659, 84.6027, -82.7451, 41.6433
5.98, 10, 32.2326, 53.2353, -4.99054, 84.5989, -82.7473, 41.6471
5.984, 10, 32.2266, 53.2317, -4.98198, 84.5933, -82.7503, 41.6526
5.988, 10, 32.2194, 53.2268, -4.97022, 84.5856, -82.7546, 41.6604
5.992, 10, 32.2108, 53.2205, -4.9545, 84.575, -82.7603, 41.671
5.996, 10, 32.2008, 53.2123, -4.93397, 84.5611, -82.7678, 41.685
6, 10, 32.1893, 53.2022, -4.90776, 84.5431, -82.7775, 41.703
6.004, 10, 32.1761, 53.1898, -4.87496, 84.5204, -82.7897, 41.7258
6.008, 10, 32.1612, 53.175, -4.83467, 84.4923, -82.8048, 41.754
6.012, 10, 32.1445, 53.1576, -4.78601, 84.4581, -82.8231, 41.7882
6.016, 10, 32.1259, 53.1373, -4.72818, 84.4172, -82.845, 41.8292
6.02, 10, 32.105, 53.114, -4.66043, 84.3692, -82.8708, 41.8773
6.024, 10, 32.0818, 53.0875, -4.58213, 84.3134, -82.9009, 41.9332
6.028, 10, 32.0561, 53.0576, -4.49273, 84.2495, -82.9353, 41.9972
6.032, 10, 32.0279, 53.0243, -4.39182, 84.1771, -82.9745, 42.0696
6.036, 10, 31.9969, 52.9873, -4.27908, 84.096, -83.0185, 42.1507
6.04, 10, 31.963, 52.9468, -4.15429, 84.006, -83.0676, 42.2408
6.044, 10, 31.9263, 52.9026, -4.01734, 83.9069, -83.1219, 42.3398
6.048, 10, 31.8864, 52.8547, -3.86816, 83.7986, -83.1815, 42.4479
6.052, 10, 31.8434, 52.8032, -3.70679, 83.6812, -83.2466, 42.5651
6.056, 10, 31.7973, 52.7481, -3.53338, 83.5548, -83.3171, 42.6912
6.06, 10, 31.7481, 52.6895, -3.34815, 83.4193, -83.3931, 42.8262
6.064, 10, 31.6961, 52.6274, -3.15141, 83.2751, -83.4746, 42.9698
6.068, 10, 31.6413, 52.5621, -2.94361, 83.1223, -83.5616, 43.1218
