hehonglu123/Motion-Primitive-Planning/ILC/recorded_data/realrobot/wood/iteration_13/run_1.csv
timestamp, cmd_num, J1, J2, J3, J4, J5, J6
0.001117, -1, 11.3757, 13.6141, 17.3366, -145.52, -97.9256, 142.516
0.004752, -1, 11.3757, 13.6141, 17.3366, -145.52, -97.9256, 142.516
0.007799, -1, 11.3757, 13.6141, 17.3366, -145.52, -97.9256, 142.515
0.028255, -1, 11.3757, 13.6141, 17.3366, -145.521, -97.9256, 142.516
0.030964, -1, 11.3757, 13.6141, 17.3366, -145.521, -97.9257, 142.516
0.033692, -1, 11.3757, 13.6141, 17.3366, -145.521, -97.9257, 142.515
0.039704, -1, 11.3757, 13.6141, 17.3366, -145.521, -97.9257, 142.516
0.047781, -1, 11.3757, 13.6141, 17.3366, -145.521, -97.9257, 142.516
0.055685, -1, 11.3755, 13.6141, 17.3366, -145.521, -97.9256, 142.516
0.063627, -1, 11.3741, 13.614, 17.3365, -145.521, -97.9256, 142.516
0.072663, -1, 11.3696, 13.6136, 17.3364, -145.521, -97.9256, 142.515
0.079686, -1, 11.3609, 13.6124, 17.3361, -145.521, -97.9256, 142.515
0.087655, -1, 11.3469, 13.61, 17.3355, -145.522, -97.9255, 142.512
0.095665, -1, 11.325, 13.6054, 17.3347, -145.524, -97.9251, 142.498
0.103635, -1, 11.2925, 13.5978, 17.334, -145.529, -97.9238, 142.468
0.111647, -1, 11.2481, 13.587, 17.3337, -145.538, -97.9213, 142.417
0.119703, -1, 11.1921, 13.5731, 17.3344, -145.553, -97.9169, 142.337
0.1277, -1, 11.1247, 13.556, 17.3372, -145.573, -97.9102, 142.224
0.135649, -1, 11.0454, 13.5349, 17.3425, -145.599, -97.9012, 142.076
0.143636, -1, 10.9542, 13.5102, 17.35, -145.63, -97.89, 141.894
0.151719, -1, 10.8519, 13.4821, 17.3595, -145.667, -97.877, 141.681
0.159641, -1, 10.7388, 13.4508, 17.3705, -145.708, -97.8626, 141.444
0.167702, -1, 10.615, 13.4165, 17.3818, -145.751, -97.8474, 141.19
0.175711, -1, 10.4811, 13.3796, 17.3928, -145.796, -97.8317, 140.924
0.183657, -1, 10.3393, 13.3408, 17.4033, -145.843, -97.8157, 140.652
0.191634, -1, 10.1919, 13.3007, 17.4134, -145.89, -97.7993, 140.376
0.199714, -1, 10.0409, 13.26, 17.4234, -145.938, -97.7825, 140.098
0.207651, -1, 9.88714, 13.2187, 17.4334, -145.986, -97.7654, 139.819
0.215637, -1, 9.73176, 13.1773, 17.4435, -146.034, -97.7481, 139.54
0.223715, -1, 9.57634, 13.136, 17.4535, -146.081, -97.7309, 139.26
0.231637, -1, 9.42141, 13.0948, 17.4634, -146.13, -97.714, 138.98
0.239639, -1, 9.26688, 13.0536, 17.4734, -146.178, -97.6973, 138.701
0.2478, -1, 9.11268, 13.0125, 17.4834, -146.225, -97.6806, 138.421
0.255646, -1, 8.95884, 12.9714, 17.4935, -146.274, -97.6639, 138.141
0.263739, -1, 8.80511, 12.9303, 17.5036, -146.322, -97.6468, 137.862
0.272999, -1, 8.6518, 12.8893, 17.5137, -146.369, -97.6295, 137.582
0.279734, -1, 8.49895, 12.8481, 17.5238, -146.417, -97.612, 137.301
0.287812, -1, 8.34609, 12.8068, 17.5341, -146.465, -97.5945, 137.021
0.295773, -1, 8.19291, 12.7654, 17.5442, -146.513, -97.5774, 136.741
0.303741, -1, 8.03927, 12.7238, 17.5544, -146.561, -97.5605, 136.461
0.31184, -1, 7.88504, 12.6822, 17.5646, -146.609, -97.5438, 136.18
0.319644, -1, 7.73032, 12.6405, 17.5746, -146.657, -97.5272, 135.9
0.327687, -1, 7.5754, 12.5988, 17.5848, -146.705, -97.5105, 135.62
0.336561, -1, 7.42036, 12.5572, 17.595, -146.753, -97.4935, 135.34
0.343714, -1, 7.26536, 12.5157, 17.6052, -146.801, -97.4762, 135.059
0.351899, -1, 7.11038, 12.4741, 17.6155, -146.849, -97.4588, 134.779
0.494164, -1, 4.39671, 11.7479, 17.7964, -147.691, -97.1598, 129.866
0.495378, -1, 4.39671, 11.7479, 17.7964, -147.691, -97.1598, 129.866
0.497487, -1, 4.31899, 11.7272, 17.8016, -147.716, -97.1512, 129.725
0.498737, -1, 4.31899, 11.7272, 17.8016, -147.716, -97.1512, 129.725
0.500006, -1, 4.31899, 11.7272, 17.8016, -147.716, -97.1512, 129.725
0.501953, -1, 4.24133, 11.7065, 17.8068, -147.74, -97.1426, 129.585
0.503257, -1, 4.24133, 11.7065, 17.8068, -147.74, -97.1426, 129.585
0.507686, -1, 4.16369, 11.6858, 17.8121, -147.764, -97.1341, 129.444
0.509937, -1, 4.08616, 11.665, 17.8173, -147.788, -97.1256, 129.304
0.511139, -1, 4.08616, 11.665, 17.8173, -147.788, -97.1256, 129.304
0.513031, -1, 4.00876, 11.6443, 17.8225, -147.812, -97.1171, 129.163
0.515231, -1, 4.00876, 11.6443, 17.8225, -147.812, -97.1171, 129.163
0.517087, -1, 3.93146, 11.6236, 17.8276, -147.836, -97.1087, 129.022
0.518626, -1, 3.93146, 11.6236, 17.8276, -147.836, -97.1087, 129.022
0.519859, -1, 3.93146, 11.6236, 17.8276, -147.836, -97.1087, 129.022
0.522117, -1, 3.85423, 11.6029, 17.8328, -147.86, -97.1003, 128.882
0.52351, -1, 3.85423, 11.6029, 17.8328, -147.86, -97.1003, 128.882
0.525504, -1, 3.77705, 11.5821, 17.8379, -147.885, -97.0919, 128.741
0.526847, -1, 3.77705, 11.5821, 17.8379, -147.885, -97.0919, 128.741
0.528064, -1, 3.77705, 11.5821, 17.8379, -147.885, -97.0919, 128.741
0.53082, -1, 3.69985, 11.5613, 17.8431, -147.909, -97.0834, 128.601
0.532015, -1, 3.69985, 11.5613, 17.8431, -147.909, -97.0834, 128.601
0.537786, -1, 3.54536, 11.5197, 17.8534, -147.957, -97.0663, 128.319
0.543624, -1, 3.46811, 11.4988, 17.8586, -147.981, -97.0577, 128.178
0.551723, -1, 3.31334, 11.4571, 17.869, -148.03, -97.0402, 127.897
0.559691, -1, 3.15828, 11.4154, 17.8795, -148.078, -97.0226, 127.615
0.567633, -1, 3.00304, 11.3736, 17.8899, -148.126, -97.0052, 127.334
0.576632, -1, 2.84759, 11.3319, 17.9003, -148.174, -96.9882, 127.052
0.582665, -1, 2.69192, 11.2901, 17.9106, -148.222, -96.9713, 126.77
0.591642, -1, 2.53593, 11.2483, 17.921, -148.271, -96.9546, 126.489
0.600635, -1, 2.37972, 11.2066, 17.9314, -148.319, -96.9378, 126.207
0.606637, -1, 2.22315, 11.1649, 17.9418, -148.367, -96.9208, 125.925
0.615662, -1, 2.06642, 11.1231, 17.9522, -148.416, -96.9036, 125.643
0.623683, -1, 1.90977, 11.0814, 17.9625, -148.464, -96.8861, 125.361
0.631648, -1, 1.75328, 11.0397, 17.9729, -148.513, -96.8686, 125.08
0.639626, -1, 1.59692, 10.9979, 17.9834, -148.561, -96.8513, 124.797
0.647689, -1, 1.4408, 10.9562, 17.9939, -148.61, -96.8344, 124.516
0.785139, -1, -1.21199, 10.2453, 18.1709, -149.434, -96.5432, 119.71
0.78704, -1, -1.21199, 10.2453, 18.1709, -149.434, -96.5432, 119.569
0.788436, -1, -1.29052, 10.2244, 18.1761, -149.458, -96.5348, 119.569
0.789722, -1, -1.29052, 10.2244, 18.1761, -149.458, -96.5348, 119.569
0.791696, -1, -1.36897, 10.2035, 18.1812, -149.483, -96.5264, 119.427
0.793012, -1, -1.36897, 10.2035, 18.1812, -149.483, -96.5264, 119.427
0.794196, -1, -1.36897, 10.2035, 18.1812, -149.483, -96.5264, 119.427
0.797709, -1, -1.44741, 10.1825, 18.1864, -149.507, -96.518, 119.285
0.800057, -1, -1.52577, 10.1616, 18.1917, -149.531, -96.5096, 119.144
0.801272, -1, -1.52577, 10.1616, 18.1917, -149.531, -96.5096, 119.144
0.80309, -1, -1.52577, 10.1616, 18.1917, -149.531, -96.5012, 119.002
0.806118, -1, -1.60398, 10.1407, 18.1969, -149.555, -96.5012, 119.002
0.808902, -1, -1.68205, 10.1198, 18.2022, -149.58, -96.4927, 118.861
0.81012, -1, -1.68205, 10.1198, 18.2022, -149.58, -96.4927, 118.861
0.812208, -1, -1.76003, 10.0989, 18.2074, -149.604, -96.4841, 118.719
0.818272, -1, -1.83794, 10.0779, 18.2126, -149.628, -96.4755, 118.577
0.820595, -1, -1.91575, 10.057, 18.2179, -149.652, -96.4667, 118.435
0.821799, -1, -1.91575, 10.057, 18.2179, -149.652, -96.4667, 118.435
0.823756, -1, -1.99347, 10.0361, 18.2231, -149.677, -96.4579, 118.294
0.825041, -1, -1.99347, 10.0361, 18.2231, -149.677, -96.4579, 118.294
0.8264, -1, -1.99347, 10.0361, 18.2231, -149.677, -96.4579, 118.294
0.829225, -1, -2.07108, 10.0151, 18.2283, -149.701, -96.4491, 118.152
0.832603, -1, -2.14866, 9.99421, 18.2335, -149.726, -96.4403, 118.01
0.839758, -1, -2.30382, 9.95236, 18.2439, -149.774, -96.4228, 117.727
0.847859, -1, -2.45919, 9.91039, 18.2544, -149.822, -96.4057, 117.443
0.856641, -1, -2.6148, 9.8684, 18.2647, -149.871, -96.3888, 117.159
0.863862, -1, -2.77081, 9.82648, 18.2751, -149.92, -96.372, 116.875
0.871919, -1, -2.92721, 9.78452, 18.2855, -149.968, -96.3551, 116.592
0.880892, -1, -3.08406, 9.74258, 18.2959, -150.017, -96.3381, 116.308
0.888065, -1, -3.24131, 9.70064, 18.3063, -150.066, -96.3207, 116.024
0.894621, -1, -3.32008, 9.67964, 18.3116, -150.09, -96.3119, 115.882
0.905034, -1, -3.5568, 9.61661, 18.3273, -150.163, -96.2855, 115.456
0.91215, -1, -3.7146, 9.57476, 18.3377, -150.212, -96.2682, 115.172
0.9202, -1, -3.87257, 9.53279, 18.348, -150.26, -96.2511, 114.888
0.929083, -1, -4.03051, 9.4908, 18.3584, -150.309, -96.2341, 114.604
0.936191, -1, -4.10947, 9.46984, 18.3636, -150.358, -96.2172, 114.32
0.944422, -1, -4.26731, 9.42791, 18.374, -150.382, -96.2, 114.035
0.951609, -1, -4.42496, 9.38591, 18.3843, -150.431, -96.1914, 113.893
0.959602, -1, -4.58219, 9.34392, 18.3947, -150.48, -96.1739, 113.608
0.967689, -1, -4.73894, 9.30185, 18.4051, -150.529, -96.1561, 113.323
0.975625, -1, -4.89533, 9.25979, 18.4156, -150.578, -96.1385, 113.039
0.983604, -1, -5.05138, 9.21772, 18.4261, -150.627, -96.1212, 112.754
0.991659, -1, -5.20725, 9.17565, 18.4366, -150.675, -96.104, 112.469
0.999606, -1, -5.36319, 9.1335, 18.4472, -150.724, -96.0871, 112.184
1.00663, -1, -5.5193, 9.09135, 18.4576, -150.773, -96.0702, 111.9
1.01562, -1, -5.67561, 9.04929, 18.468, -150.822, -96.0531, 111.615
1.02264, -1, -5.83237, 9.00709, 18.4785, -150.871, -96.0359, 111.33
1.03161, -1, -5.98955, 8.9649, 18.4889, -150.92, -96.0183, 111.045
1.03967, -1, -6.14721, 8.92277, 18.4992, -150.968, -96.0007, 110.76
1.04762, -1, -6.30538, 8.88063, 18.5096, -151.017, -95.9833, 110.474
1.05561, -1, -6.46381, 8.83852, 18.5199, -151.066, -95.9661, 110.189
1.06367, -1, -6.62229, 8.79644, 18.5304, -151.115, -95.9491, 109.904
1.07331, -1, -6.781, 8.75427, 18.541, -151.189, -95.9236, 109.476
1.07961, -1, -6.9396, 8.71216, 18.5515, -151.213, -95.915, 109.333
1.08768, -1, -7.09812, 8.67007, 18.562, -151.262, -95.8977, 109.048
1.09561, -1, -7.25652, 8.62792, 18.5723, -151.311, -95.8801, 108.762
1.1036, -1, -7.41471, 8.5857, 18.5828, -151.361, -95.8624, 108.476
1.11168, -1, -7.57248, 8.54343, 18.5933, -151.409, -95.8448, 108.19
1.11961, -1, -7.73, 8.50112, 18.6038, -151.459, -95.8274, 107.905
1.12768, -1, -7.88711, 8.45889, 18.6142, -151.508, -95.8103, 107.619
1.13564, -1, -8.04387, 8.41655, 18.6245, -151.556, -95.7933, 107.333
1.14412, -1, -8.20041, 8.37421, 18.635, -151.606, -95.7764, 107.047
1.15072, -1, -8.35701, 8.33188, 18.6455, -151.655, -95.7592, 106.762
1.1596, -1, -8.51381, 8.28949, 18.656, -151.703, -95.7419, 106.476
1.16841, -1, -8.67107, 8.24722, 18.6666, -151.753, -95.7243, 106.189
1.17564, -1, -8.82856, 8.20494, 18.677, -151.802, -95.7066, 105.903
1.18368, -1, -8.98645, 8.16257, 18.6873, -151.85, -95.6892, 105.616
1.19242, -1, -9.14477, 8.12032, 18.6978, -151.9, -95.6719, 105.33
1.1997, -1, -9.30351, 8.07804, 18.7083, -151.949, -95.6548, 105.043
1.20767, -1, -9.46257, 8.03568, 18.7187, -151.998, -95.6377, 104.756
1.21639, -1, -9.62172, 7.99345, 18.7292, -152.048, -95.6205, 104.47
1.22361, -1, -9.7809, 7.95124, 18.7397, -152.097, -95.6031, 104.183
1.23166, -1, -9.94029, 7.90893, 18.7503, -152.146, -95.5853, 103.896
1.24037, -1, -10.0995, 7.86658, 18.7609, -152.196, -95.5674, 103.609
1.24767, -1, -10.2587, 7.82412, 18.7715, -152.245, -95.5498, 103.322
1.25561, -1, -10.4177, 7.78162, 18.7821, -152.294, -95.5324, 103.035
1.26447, -1, -10.5764, 7.73912, 18.7925, -152.344, -95.5153, 102.748
1.27173, -1, -10.7347, 7.69665, 18.803, -152.393, -95.4983, 102.461
1.27971, -1, -10.8928, 7.65408, 18.8136, -152.441, -95.4812, 102.174
1.2884, -1, -11.0505, 7.61152, 18.8239, -152.491, -95.4639, 101.887
1.29576, -1, -11.2079, 7.56905, 18.8344, -152.54, -95.4464, 101.599
1.30376, -1, -11.3653, 7.52654, 18.8449, -152.59, -95.4286, 101.312
1.31249, -1, -11.5228, 7.48401, 18.8554, -152.639, -95.4109, 101.025
1.31979, -1, -11.6805, 7.44157, 18.866, -152.688, -95.3933, 100.737
1.32763, -1, -11.8386, 7.39917, 18.8766, -152.737, -95.376, 100.449
1.33648, -1, -11.9973, 7.35674, 18.8872, -152.787, -95.3588, 100.162
1.34369, -1, -12.1562, 7.31436, 18.8977, -152.836, -95.3416, 99.8739
1.35179, -1, -12.3156, 7.27195, 18.9082, -152.886, -95.3243, 99.586
1.3611, -1, -12.4753, 7.22947, 18.9187, -152.935, -95.3067, 99.2978
1.36668, -1, -12.5552, 7.20827, 18.924, -152.96, -95.2978, 99.1539
1.37598, -1, -12.7952, 7.14463, 18.9398, -153.034, -95.2708, 98.7223
1.38398, -1, -12.9553, 7.1021, 18.9504, -153.084, -95.2531, 98.4342
1.39069, -1, -13.0353, 7.08081, 18.9556, -153.108, -95.2444, 98.29
1.4001, -1, -13.2752, 7.01687, 18.9714, -153.183, -95.2185, 97.8579
1.40812, -1, -13.4349, 6.97419, 18.9821, -153.232, -95.2014, 97.5696
1.41462, -1, -13.5146, 6.95279, 18.9873, -153.257, -95.1928, 97.4253
1.4242, -1, -13.7533, 6.88863, 19.0032, -153.331, -95.1668, 96.9924
1.43224, -1, -13.9121, 6.84593, 19.0136, -153.38, -95.1491, 96.7039
1.44029, -1, -13.9914, 6.80318, 19.0241, -153.429, -95.1313, 96.4152
1.44759, -1, -14.1497, 6.78185, 19.0294, -153.454, -95.1224, 96.2708
1.4556, -1, -14.3078, 6.73922, 19.04, -153.504, -95.1047, 95.9817
1.46261, -1, -14.4661, 6.69651, 19.0504, -153.553, -95.0875, 95.6926
1.47278, -1, -14.7038, 6.63259, 19.0663, -153.628, -95.0616, 95.2588
1.4796, -1, -14.7833, 6.61132, 19.0716, -153.652, -95.0531, 95.1141
1.48661, -1, -14.9424, 6.56872, 19.0822, -153.702, -95.0358, 94.8247
1.4956, -1, -15.102, 6.52605, 19.093, -153.751, -95.0182, 94.5357
1.50362, -1, -15.2619, 6.48349, 19.1036, -153.801, -95.0003, 94.2467
1.51061, -1, -15.4222, 6.44086, 19.1143, -153.851, -94.9823, 93.9574
1.51961, -1, -15.5828, 6.39813, 19.1249, -153.9, -94.9645, 93.668
1.52766, -1, -15.7435, 6.35542, 19.1355, -153.95, -94.9471, 93.3788
1.53559, -1, -15.9043, 6.31263, 19.1461, -154, -94.9298, 93.0894
1.54361, -1, -16.0652, 6.26971, 19.1567, -154.05, -94.9126, 92.7996
1.55166, -1, -16.226, 6.22689, 19.1673, -154.099, -94.8955, 92.51
1.5596, -1, -16.3866, 6.18388, 19.1778, -154.149, -94.878, 92.2205
1.56759, -1, -16.547, 6.14089, 19.1883, -154.198, -94.8604, 91.9306
1.57663, -1, -16.7071, 6.09794, 19.1989, -154.248, -94.8425, 91.6403
1.58362, -1, -16.8667, 6.05495, 19.2095, -154.298, -94.8247, 91.3503
1.5926, -1, -17.0261, 6.01198, 19.2202, -154.348, -94.8071, 91.0602
1.59966, -1, -17.1853, 5.96903, 19.2308, -154.397, -94.7897, 90.7699
1.6076, -1, -17.3443, 5.92618, 19.2413, -154.447, -94.7724, 90.4794
1.61559, -1, -17.5035, 5.88335, 19.252, -154.497, -94.755, 90.1892
1.62367, -1, -17.6629, 5.84052, 19.2627, -154.546, -94.7376, 89.8991
1.6316, -1, -17.8223, 5.79773, 19.2734, -154.596, -94.7198, 89.6088
1.63968, -1, -17.9821, 5.75491, 19.284, -154.646, -94.7017, 89.3181
1.64759, -1, -18.1424, 5.71217, 19.2946, -154.696, -94.6837, 89.0278
1.65557, -1, -18.3031, 5.66941, 19.3052, -154.746, -94.666, 88.7372
1.66367, -1, -18.4643, 5.62655, 19.316, -154.796, -94.6485, 88.4462
1.67157, -1, -18.6257, 5.58361, 19.3267, -154.846, -94.6312, 88.1552
1.67963, -1, -18.7873, 5.54065, 19.3373, -154.896, -94.6139, 87.8645
1.68765, -1, -18.949, 5.49762, 19.3479, -154.946, -94.5965, 87.5736
1.69562, -1, -19.1106, 5.45452, 19.3585, -154.996, -94.5789, 87.2822
1.70361, -1, -19.2722, 5.41135, 19.3691, -155.046, -94.5609, 86.9908
1.71166, -1, -19.4337, 5.36822, 19.3797, -155.096, -94.5427, 86.6995
1.71959, -1, -19.5947, 5.32497, 19.3903, -155.145, -94.5249, 86.4078
1.7276, -1, -19.7555, 5.28177, 19.401, -155.196, -94.5072, 86.1159
1.73572, -1, -19.9161, 5.23861, 19.4116, -155.246, -94.4897, 85.8244
1.74362, -1, -20.0764, 5.19539, 19.4224, -155.295, -94.4724, 85.533
1.75159, -1, -20.2362, 5.15232, 19.4332, -155.346, -94.4549, 85.2414
1.75965, -1, -20.396, 5.1094, 19.4441, -155.396, -94.4372, 84.9494
1.76762, -1, -20.5561, 5.0663, 19.4548, -155.445, -94.4192, 84.6578
1.77567, -1, -20.7162, 5.02334, 19.4655, -155.496, -94.401, 84.3661
1.78376, -1, -20.8768, 4.98042, 19.4762, -155.546, -94.3831, 84.0739
1.79168, -1, -21.0376, 4.93735, 19.4869, -155.596, -94.3656, 83.7818
1.79969, -1, -21.1988, 4.89432, 19.4976, -155.647, -94.3482, 83.4899
1.80779, -1, -21.3606, 4.85119, 19.5082, -155.697, -94.331, 83.1977
1.8157, -1, -21.5227, 4.80797, 19.5189, -155.747, -94.3138, 82.9053
1.82361, -1, -21.6848, 4.76481, 19.5297, -155.797, -94.2962, 82.6127
1.83168, -1, -21.8471, 4.72155, 19.5404, -155.847, -94.2784, 82.3201
1.83962, -1, -22.0096, 4.67814, 19.5512, -155.897, -94.2604, 82.0275
1.84768, -1, -22.1721, 4.63479, 19.5619, -155.948, -94.2425, 81.7345
1.85584, -1, -22.3345, 4.59143, 19.5725, -155.998, -94.2248, 81.4417
1.86393, -1, -22.4968, 4.54801, 19.5833, -156.048, -94.2073, 81.1492
1.87064, -1, -22.5778, 4.52632, 19.5887, -156.073, -94.1985, 81.0029
1.87993, -1, -22.8203, 4.46117, 19.6046, -156.148, -94.1723, 80.5634
1.88665, -1, -22.9009, 4.43948, 19.61, -156.173, -94.1635, 80.4169
1.89614, -1, -23.1426, 4.37455, 19.626, -156.249, -94.1366, 79.9774
1.90418, -1, -23.3036, 4.3312, 19.6368, -156.299, -94.1183, 79.6841
1.91247, -1, -23.4645, 4.28795, 19.6477, -156.35, -94.1001, 79.3906
1.92014, -1, -23.6255, 4.24468, 19.6585, -156.4, -94.0822, 79.0973
1.92822, -1, -23.7866, 4.20139, 19.6693, -156.45, -94.0646, 78.8039
1.93617, -1, -23.8671, 4.17978, 19.68, -156.501, -94.0471, 78.5102
1.94414, -1, -24.0286, 4.13646, 19.6853, -156.526, -94.0297, 78.2163
1.9523, -1, -24.1905, 4.09307, 19.696, -156.576, -94.021, 77.9224
1.95958, -1, -24.3529, 4.04968, 19.7068, -156.627, -94.0033, 77.7754
1.96758, -1, -24.5157, 4.00623, 19.7174, -156.678, -93.9853, 77.4812
1.97566, -1, -24.6787, 3.96268, 19.728, -156.727, -93.9671, 77.1869
1.98359, -1, -24.842, 3.91913, 19.7387, -156.778, -93.9491, 76.893
1.9916, -1, -25.0054, 3.87557, 19.7495, -156.829, -93.9314, 76.599
1.99958, -1, -25.1688, 3.83196, 19.7605, -156.879, -93.9138, 76.3047
2.00759, -1, -25.332, 3.78837, 19.7713, -156.93, -93.8964, 76.0102
2.01568, -1, -25.495, 3.74472, 19.7821, -156.98, -93.8788, 75.7159
2.02359, -1, -25.6577, 3.70102, 19.7928, -157.03, -93.8611, 75.4216
2.0316, -1, -25.8204, 3.65748, 19.8035, -157.081, -93.8429, 75.1269
2.03968, -1, -25.9827, 3.61398, 19.8144, -157.131, -93.8245, 74.8321
2.0476, -1, -26.1448, 3.57041, 19.8251, -157.181, -93.8063, 74.5377
2.05558, -1, -26.3063, 3.52702, 19.8359, -157.233, -93.7883, 74.2431
2.06367, -1, -26.4679, 3.48364, 19.8466, -157.283, -93.7705, 73.9479
2.07158, -1, -26.6297, 3.44009, 19.8573, -157.333, -93.7529, 73.6528
2.08059, -1, -26.7917, 3.39663, 19.8682, -157.384, -93.7353, 73.3578
2.08951, -1, -27.0355, 3.33129, 19.8845, -157.46, -93.7085, 72.9146
2.09558, -1, -27.1168, 3.30946, 19.8899, -157.486, -93.6994, 72.7668
2.10365, -1, -27.2799, 3.26592, 19.9007, -157.536, -93.6812, 72.4715
2.11157, -1, -27.4433, 3.22222, 19.9114, -157.586, -93.6629, 72.1762
2.11958, -1, -27.607, 3.17841, 19.9222, -157.637, -93.6449, 71.8808
2.12765, -1, -27.771, 3.13478, 19.9329, -157.688, -93.6271, 71.585
2.13558, -1, -27.9352, 3.09109, 19.9437, -157.738, -93.6094, 71.2895
2.14359, -1, -28.0994, 3.04738, 19.9545, -157.789, -93.5917, 70.9938
2.15165, -1, -28.2637, 3.00368, 19.9653, -157.84, -93.5738, 70.6977
2.15958, -1, -28.428, 2.95993, 19.9761, -157.89, -93.5556, 70.4015
2.16759, -1, -28.5919, 2.91622, 19.987, -157.942, -93.5372, 70.1058
2.17564, -1, -28.7555, 2.87256, 19.9979, -157.992, -93.5188, 69.8098
2.18362, -1, -28.9188, 2.82881, 20.0086, -158.043, -93.5007, 69.5134
2.19158, -1, -29.0817, 2.78512, 20.0194, -158.094, -93.4829, 69.2169
2.19966, -1, -29.2445, 2.74148, 20.0301, -158.145, -93.4652, 68.9205
2.20762, -1, -29.4071, 2.69778, 20.041, -158.196, -93.4476, 68.6238
2.21558, -1, -29.5698, 2.65406, 20.0518, -158.247, -93.4297, 68.3268
2.22365, -1, -29.7327, 2.61025, 20.0626, -158.298, -93.4116, 68.0302
2.23157, -1, -29.8957, 2.56646, 20.0734, -158.349, -93.3932, 67.7336
2.23959, -1, -30.0588, 2.52268, 20.0844, -158.4, -93.3748, 67.4368
2.24765, -1, -30.2224, 2.47868, 20.0954, -158.45, -93.3567, 67.1397
2.25557, -1, -30.3865, 2.43474, 20.1063, -158.502, -93.3388, 66.8428
2.26385, -1, -30.551, 2.39075, 20.1172, -158.553, -93.321, 66.5458
2.27161, -1, -30.7159, 2.34669, 20.128, -158.603, -93.3034, 66.2484
2.27964, -1, -30.881, 2.30277, 20.1389, -158.655, -93.2855, 65.9509
2.28791, -1, -31.046, 2.25876, 20.1498, -158.706, -93.2672, 65.6538
2.29567, -1, -31.2112, 2.21475, 20.1606, -158.756, -93.2487, 65.3566
2.30373, -1, -31.3762, 2.1709, 20.1714, -158.808, -93.2303, 65.059
2.31211, -1, -31.541, 2.12697, 20.1822, -158.859, -93.2121, 64.761
2.31963, -1, -31.7056, 2.08293, 20.1931, -158.91, -93.1942, 64.4634
2.32758, -1, -31.87, 2.03902, 20.2041, -158.961, -93.1766, 64.1654
2.33613, -1, -32.0341, 1.99507, 20.215, -159.012, -93.159, 63.8671
2.34368, -1, -32.1979, 1.95104, 20.226, -159.063, -93.1413, 63.5692
2.35166, -1, -32.3614, 1.90704, 20.2369, -159.115, -93.1233, 63.2713
2.36054, -1, -32.5249, 1.86299, 20.2478, -159.166, -93.1049, 62.9732
2.3678, -1, -32.6886, 1.81886, 20.2588, -159.217, -93.0865, 62.6748
2.37593, -1, -32.8525, 1.77483, 20.2697, -159.268, -93.0683, 62.3765
2.38396, -1, -33.0167, 1.73063, 20.2806, -159.319, -93.0504, 62.0781
2.39062, -1, -33.0989, 1.7085, 20.286, -159.345, -93.0415, 61.9288
2.40029, -1, -33.346, 1.64223, 20.3023, -159.422, -93.0148, 61.4806
2.40808, -1, -33.5113, 1.59795, 20.3133, -159.473, -92.9969, 61.1823
2.41611, -1, -33.6769, 1.55367, 20.3243, -159.525, -92.9786, 60.8837
2.42427, -1, -33.8427, 1.50947, 20.3352, -159.575, -92.96, 60.5846
2.43213, -1, -34.0086, 1.46524, 20.3461, -159.627, -92.9413, 60.2854
2.4402, -1, -34.0916, 1.44316, 20.357, -159.678, -92.923, 59.9863
2.44822, -1, -34.2577, 1.39901, 20.3625, -159.73, -92.9049, 59.6869
2.45556, -1, -34.4238, 1.3548, 20.3734, -159.755, -92.896, 59.537
2.46365, -1, -34.5897, 1.31062, 20.3843, -159.807, -92.8781, 59.2373
2.47161, -1, -34.7552, 1.26645, 20.3953, -159.858, -92.8603, 58.9381
2.4786, -1, -34.9202, 1.22224, 20.4062, -159.909, -92.8423, 58.6385
2.48756, -1, -35.0851, 1.17799, 20.4173, -159.961, -92.8239, 58.3389
2.49562, -1, -35.2497, 1.1337, 20.4284, -160.012, -92.8054, 58.0391
2.50362, -1, -35.4141, 1.08942, 20.4394, -160.064, -92.7869, 57.7393
2.51156, -1, -35.5773, 1.04544, 20.4507, -160.115, -92.7687, 57.4394
2.51965, -1, -35.7384, 1.00183, 20.462, -160.166, -92.7507, 57.1399
2.52756, -1, -35.896, 0.959125, 20.4737, -160.217, -92.7329, 56.8428
2.53558, -1, -36.0493, 0.917774, 20.4857, -160.267, -92.7153, 56.5502
2.54375, -1, -36.1962, 0.878299, 20.4976, -160.316, -92.698, 56.2654
2.55156, -1, -36.3343, 0.841455, 20.5094, -160.362, -92.6811, 55.9937
2.55959, -1, -36.462, 0.807667, 20.5205, -160.405, -92.6652, 55.7417
2.5676, -1, -36.5778, 0.776991, 20.5306, -160.443, -92.6509, 55.5154
2.57556, -1, -36.6799, 0.750005, 20.5389, -160.476, -92.6388, 55.3198
2.5846, -1, -36.7673, 0.726794, 20.5451, -160.503, -92.6289, 55.1589
2.59169, -1, -36.8404, 0.707454, 20.5491, -160.525, -92.6213, 55.0329
2.59956, -1, -36.9001, 0.691746, 20.5511, -160.541, -92.6159, 54.9412
2.60759, -1, -36.9467, 0.679371, 20.552, -160.552, -92.6123, 54.8775
2.6156, -1, -36.9815, 0.670077, 20.552, -160.559, -92.61, 54.8365
2.62363, -1, -37.0063, 0.663696, 20.5516, -160.564, -92.6088, 54.8126
2.63159, -1, -37.0225, 0.65973, 20.5512, -160.566, -92.6081, 54.7997
2.63961, -1, -37.0317, 0.657483, 20.551, -160.567, -92.6078, 54.7935
2.64756, 2, -37.036, 0.656409, 20.5509, -160.568, -92.6076, 54.7906
2.6557, 2, -37.0368, 0.655928, 20.5509, -160.568, -92.6075, 54.7893
2.66368, 2, -37.0362, 0.655749, 20.5508, -160.568, -92.6075, 54.7887
2.67156, 2, -37.0357, 0.655687, 20.5508, -160.568, -92.6076, 54.7884
2.67959, 2, -37.0358, 0.655628, 20.5508, -160.568, -92.6076, 54.7883
2.68763, 2, -37.0366, 0.65559, 20.5507, -160.568, -92.6076, 54.7883
2.69556, 2, -37.0377, 0.655505, 20.5506, -160.569, -92.6076, 54.7883
2.70368, 2, -37.039, 0.655353, 20.5504, -160.569, -92.6076, 54.7884
2.71164, 2, -37.0405, 0.655122, 20.5503, -160.569, -92.6076, 54.7884
2.71958, 2, -37.0417, 0.654835, 20.5501, -160.569, -92.6077, 54.7885
2.72759, 2, -37.0428, 0.654583, 20.5499, -160.568, -92.6077, 54.7886
2.73561, 2, -37.0435, 0.654417, 20.5497, -160.568, -92.6077, 54.7886
2.74362, 2, -37.0437, 0.654341, 20.5495, -160.568, -92.6078, 54.7887
2.75161, 2, -37.0435, 0.654335, 20.5493, -160.568, -92.6078, 54.7888
2.75961, 2, -37.0428, 0.65437, 20.5492, -160.568, -92.6079, 54.789
2.76756, 2, -37.042, 0.654425, 20.5492, -160.568, -92.6079, 54.7892
2.77562, 2, -37.0406, 0.654527, 20.5491, -160.568, -92.608, 54.7894
2.78376, 2, -37.039, 0.654619, 20.549, -160.568, -92.608, 54.7895
2.79166, 2, -37.0378, 0.654678, 20.5489, -160.568, -92.608, 54.7897
2.79969, 2, -37.037, 0.654698, 20.5488, -160.568, -92.608, 54.7899
2.8077, 2, -37.0366, 0.65469, 20.5488, -160.568, -92.6081, 54.79
2.81566, 2, -37.0366, 0.654676, 20.5488, -160.568, -92.6081, 54.79
2.82377, 2, -37.0368, 0.654613, 20.5488, -160.568, -92.6081, 54.7901
2.83175, 2, -37.037, 0.654534, 20.5487, -160.568, -92.608, 54.7901
2.83959, 2, -37.0373, 0.654463, 20.5487, -160.568, -92.6081, 54.7901
2.84764, 2, -37.038, 0.654423, 20.5487, -160.568, -92.6081, 54.7901
2.85576, 2, -37.0388, 0.654423, 20.5487, -160.568, -92.6081, 54.7901
2.86377, 2, -37.0395, 0.654423, 20.5487, -160.568, -92.6081, 54.7902
2.87179, 2, -37.04, 0.654454, 20.5487, -160.568, -92.6081, 54.7903
2.88021, 2, -37.0403, 0.65448, 20.5487, -160.568, -92.6081, 54.7903
2.88786, 2, -37.0404, 0.654522, 20.5487, -160.568, -92.6081, 54.7903
2.89596, 2, -37.0404, 0.654548, 20.5487, -160.568, -92.6081, 54.7903
2.90419, 2, -37.0401, 0.65456, 20.5487, -160.568, -92.6082, 54.7904
2.91207, 2, -37.0397, 0.654547, 20.5487, -160.568, -92.6082, 54.7904
2.92011, 2, -37.0394, 0.654549, 20.5486, -160.568, -92.6082, 54.7905
2.92845, 2, -37.0392, 0.654524, 20.5486, -160.568, -92.6081, 54.7905
2.93611, 2, -37.039, 0.654512, 20.5486, -160.568, -92.6081, 54.7906
2.94421, 2, -37.039, 0.654487, 20.5486, -160.568, -92.6082, 54.7906
2.9522, 2, -37.039, 0.654478, 20.5486, -160.568, -92.6082, 54.7906
2.95955, 2, -37.039, 0.654448, 20.5486, -160.568, -92.6082, 54.7907
2.96762, 2, -37.0391, 0.654473, 20.5486, -160.568, -92.6082, 54.7908
2.97558, 2, -37.0392, 0.654489, 20.5485, -160.568, -92.6083, 54.7908
2.98362, 2, -37.0392, 0.654496, 20.5485, -160.568, -92.6083, 54.7908
2.99157, 2, -37.0395, 0.6545, 20.5485, -160.568, -92.6083, 54.7909
2.99958, 2, -37.0396, 0.654501, 20.5485, -160.568, -92.6083, 54.7909
3.00756, 2, -37.0397, 0.654513, 20.5485, -160.568, -92.6082, 54.7909
3.01557, 2, -37.0398, 0.654533, 20.5485, -160.568, -92.6083, 54.791
3.02369, 2, -37.0398, 0.654517, 20.5485, -160.568, -92.6083, 54.791
3.03156, 2, -37.0398, 0.654509, 20.5485, -160.568, -92.6083, 54.7911
3.0396, 2, -37.0398, 0.654505, 20.5485, -160.568, -92.6083, 54.7912
3.04762, 2, -37.0397, 0.654497, 20.5485, -160.568, -92.6083, 54.7912
3.05555, 2, -37.0397, 0.654495, 20.5484, -160.568, -92.6083, 54.7912
3.06365, 2, -37.0396, 0.654499, 20.5484, -160.568, -92.6083, 54.7913
3.07158, 2, -37.0396, 0.654494, 20.5484, -160.568, -92.6084, 54.7914
3.08109, 2, -37.0396, 0.654493, 20.5484, -160.568, -92.6083, 54.7914
3.08759, 2, -37.0396, 0.654498, 20.5484, -160.568, -92.6084, 54.7914
3.09568, 2, -37.0396, 0.654501, 20.5484, -160.568, -92.6083, 54.7915
3.10458, 2, -37.0396, 0.65452, 20.5484, -160.568, -92.6083, 54.7915
3.11158, 2, -37.0396, 0.65454, 20.5484, -160.568, -92.6083, 54.7916
3.11959, 2, -37.0396, 0.654545, 20.5484, -160.568, -92.6083, 54.7916
3.12755, 2, -37.0396, 0.654541, 20.5484, -160.568, -92.6083, 54.7916
3.13558, 2, -37.0396, 0.654538, 20.5484, -160.568, -92.6084, 54.7917
3.14366, 2, -37.0396, 0.654519, 20.5484, -160.568, -92.6084, 54.7917
3.15155, 2, -37.0396, 0.65451, 20.5484, -160.568, -92.6084, 54.7917
3.15958, 2, -37.0395, 0.654506, 20.5483, -160.568, -92.6084, 54.7918
3.16759, 2, -37.0395, 0.654504, 20.5483, -160.568, -92.6084, 54.7918
3.17555, 2, -37.0395, 0.654503, 20.5483, -160.568, -92.6084, 54.7919
3.18364, 2, -37.0395, 0.654503, 20.5483, -160.568, -92.6084, 54.7919
3.19162, 2, -37.0395, 0.654503, 20.5483, -160.568, -92.6084, 54.7919
3.19955, 2, -37.0395, 0.654503, 20.5483, -160.568, -92.6083, 54.7919
3.2076, 2, -37.0395, 0.654514, 20.5483, -160.568, -92.6083, 54.792
3.21562, 2, -37.0395, 0.654515, 20.5483, -160.568, -92.6084, 54.792
3.22362, 2, -37.0394, 0.654527, 20.5483, -160.568, -92.6084, 54.7921
3.23157, 2, -37.0394, 0.654543, 20.5483, -160.568, -92.6084, 54.7921
3.2396, 2, -37.0394, 0.654547, 20.5483, -160.568, -92.6084, 54.7922
3.24755, 2, -37.0394, 0.654534, 20.5483, -160.568, -92.6084, 54.7922
3.25559, 2, -37.0394, 0.654524, 20.5483, -160.568, -92.6084, 54.7922
3.26368, 2, -37.0394, 0.654513, 20.5483, -160.568, -92.6084, 54.7922
3.27157, 2, -37.0394, 0.654507, 20.5482, -160.568, -92.6084, 54.7922
3.27964, 2, -37.0393, 0.654505, 20.5482, -160.568, -92.6084, 54.7923
3.28769, 2, -37.0393, 0.654503, 20.5482, -160.568, -92.6084, 54.7924
3.29565, 2, -37.0393, 0.654503, 20.5481, -160.568, -92.6084, 54.7924
3.30374, 2, -37.0393, 0.654503, 20.5481, -160.568, -92.6085, 54.7924
3.31169, 2, -37.0393, 0.654521, 20.5481, -160.568, -92.6084, 54.7924
3.31966, 2, -37.0392, 0.654511, 20.5481, -160.568, -92.6084, 54.7924
3.32769, 2, -37.0392, 0.654517, 20.5481, -160.568, -92.6084, 54.7925
3.3356, 2, -37.0392, 0.654517, 20.5481, -160.568, -92.6085, 54.7925
3.34364, 2, -37.0392, 0.65452, 20.5481, -160.568, -92.6085, 54.7925
3.35168, 2, -37.0392, 0.654518, 20.5481, -160.568, -92.6085, 54.7926
3.35974, 2, -37.0392, 0.65451, 20.5481, -160.568, -92.6085, 54.7926
3.36773, 2, -37.0392, 0.654524, 20.5481, -160.567, -92.6085, 54.7926
3.37579, 2, -37.0392, 0.654531, 20.5481, -160.567, -92.6086, 54.7926
3.38435, 2, -37.0392, 0.654526, 20.5481, -160.567, -92.6085, 54.7927
3.39186, 2, -37.0391, 0.654521, 20.548, -160.567, -92.6085, 54.7926
3.39995, 2, -37.0391, 0.654522, 20.548, -160.567, -92.6085, 54.7926
3.40846, 2, -37.0391, 0.65453, 20.548, -160.567, -92.6085, 54.7927
3.41604, 2, -37.0391, 0.654533, 20.548, -160.567, -92.6086, 54.7928
3.42417, 2, -37.0391, 0.654553, 20.548, -160.567, -92.6086, 54.7928
3.43254, 2, -37.039, 0.654563, 20.548, -160.567, -92.6086, 54.7928
3.4401, 2, -37.039, 0.654548, 20.548, -160.567, -92.6086, 54.7928
3.44816, 2, -37.039, 0.654545, 20.548, -160.567, -92.6085, 54.7928
3.45643, 2, -37.039, 0.654546, 20.548, -160.567, -92.6086, 54.7928
3.46411, 2, -37.039, 0.654543, 20.548, -160.567, -92.6086, 54.7929
3.47156, 2, -37.039, 0.654547, 20.548, -160.567, -92.6086, 54.7929
3.47957, 2, -37.039, 0.654552, 20.548, -160.567, -92.6086, 54.7929
3.48754, 2, -37.039, 0.654544, 20.548, -160.567, -92.6085, 54.7929
3.49556, 2, -37.039, 0.654547, 20.548, -160.567, -92.6085, 54.793
3.50364, 2, -37.039, 0.654523, 20.5479, -160.567, -92.6086, 54.7929
3.51154, 2, -37.039, 0.654512, 20.5479, -160.567, -92.6086, 54.7929
3.51956, 2, -37.0389, 0.654525, 20.5479, -160.567, -92.6086, 54.7929
3.5276, 2, -37.0389, 0.654542, 20.5479, -160.567, -92.6086, 54.7929
3.53554, 2, -37.0389, 0.654546, 20.5479, -160.567, -92.6086, 54.793
3.54364, 2, -37.0389, 0.654534, 20.5479, -160.567, -92.6086, 54.793
3.55159, 2, -37.0389, 0.654566, 20.5479, -160.567, -92.6086, 54.793
3.55954, 2, -37.0389, 0.654568, 20.5479, -160.567, -92.6086, 54.793
3.56756, 2, -37.0389, 0.654551, 20.5479, -160.567, -92.6086, 54.793
3.57557, 2, -37.0389, 0.654543, 20.5479, -160.567, -92.6086, 54.7931
3.5836, 2, -37.0389, 0.654547, 20.5479, -160.567, -92.6086, 54.7931
3.59254, 2, -37.0388, 0.654541, 20.5479, -160.567, -92.6086, 54.793
3.59956, 2, -37.0388, 0.654539, 20.5479, -160.567, -92.6087, 54.7931
3.60753, 2, -37.0388, 0.65453, 20.5479, -160.567, -92.6086, 54.7931
3.61566, 2, -37.0388, 0.654534, 20.5478, -160.567, -92.6087, 54.7931
3.62364, 2, -37.0388, 0.654553, 20.5478, -160.567, -92.6087, 54.7931
3.63154, 2, -37.0388, 0.654563, 20.5478, -160.567, -92.6087, 54.7931
3.63956, 2, -37.0388, 0.654567, 20.5478, -160.567, -92.6086, 54.7931
3.6487, 2, -37.0388, 0.654576, 20.5478, -160.567, -92.6087, 54.7932
3.65584, 2, -37.0388, 0.654578, 20.5478, -160.567, -92.6086, 54.7932
3.66366, 2, -37.0388, 0.654586, 20.5478, -160.567, -92.6087, 54.7932
3.67153, 2, -37.0388, 0.654585, 20.5478, -160.567, -92.6086, 54.7932
3.67953, 2, -37.0387, 0.654583, 20.5478, -160.567, -92.6086, 54.7932
3.68757, 2, -37.0387, 0.654569, 20.5478, -160.567, -92.6086, 54.7932
3.69556, 2, -37.0386, 0.654551, 20.5478, -160.567, -92.6087, 54.7932
3.7036, 2, -37.0387, 0.654562, 20.5478, -160.567, -92.6087, 54.7932
3.71159, 4, -37.0387, 0.654566, 20.5478, -160.567, -92.6086, 54.7932
3.71957, 4, -37.0387, 0.654539, 20.5477, -160.567, -92.6087, 54.7932
3.72753, 4, -37.0387, 0.65455, 20.5477, -160.567, -92.6086, 54.7931
3.7356, 4, -37.0387, 0.654554, 20.5477, -160.567, -92.6087, 54.7932
3.74372, 4, -37.0386, 0.654552, 20.5477, -160.567, -92.6087, 54.7932
3.75154, 4, -37.0386, 0.654554, 20.5477, -160.567, -92.6087, 54.7932
3.75961, 4, -37.0386, 0.654552, 20.5477, -160.567, -92.6087, 54.7932
3.76753, 4, -37.0386, 0.654567, 20.5477, -160.567, -92.6087, 54.7932
3.77557, 4, -37.0386, 0.654569, 20.5477, -160.567, -92.6087, 54.7932
3.78371, 4, -37.0386, 0.65457, 20.5477, -160.567, -92.6087, 54.7932
3.79162, 4, -37.0386, 0.654582, 20.5477, -160.567, -92.6086, 54.7932
3.79963, 4, -37.0386, 0.654576, 20.5477, -160.567, -92.6086, 54.7932
3.80772, 4, -37.0386, 0.654585, 20.5476, -160.567, -92.6087, 54.7932
3.81579, 4, -37.0385, 0.654584, 20.5476, -160.567, -92.6087, 54.7932
3.8378, 4, -37.0385, 0.65459, 20.5476, -160.567, -92.6087, 54.7932
3.84047, 4, -37.0385, 0.654591, 20.5476, -160.567, -92.6087, 54.7932
3.84229, 4, -37.0385, 0.654591, 20.5476, -160.567, -92.6087, 54.7932
3.84795, 4, -37.0385, 0.654585, 20.5476, -160.567, -92.6087, 54.7932
3.85699, 4, -37.0384, 0.654589, 20.5476, -160.567, -92.6087, 54.7932
3.86401, 4, -37.0376, 0.654435, 20.5476, -160.567, -92.6087, 54.7932
3.87178, 4, -37.035, 0.653492, 20.5477, -160.567, -92.6087, 54.7931
3.8801, 4, -37.0292, 0.650621, 20.5486, -160.567, -92.6087, 54.7932
3.8887, 4, -37.0195, 0.644702, 20.551, -160.567, -92.6088, 54.7932
3.89661, 4, -37.006, 0.635143, 20.5565, -160.566, -92.6088, 54.7932
3.90457, 5, -36.9878, 0.621442, 20.5662, -160.564, -92.6088, 54.7932
3.91201, 5, -36.964, 0.603159, 20.5817, -160.561, -92.6087, 54.7932
3.92002, 5, -36.9348, 0.580494, 20.6036, -160.557, -92.6085, 54.7931
3.92814, 5, -36.9008, 0.553232, 20.6324, -160.551, -92.6081, 54.7931
3.93685, 5, -36.862, 0.521654, 20.6678, -160.543, -92.6074, 54.793
3.94501, 5, -36.8181, 0.485193, 20.7091, -160.534, -92.6063, 54.793
3.95221, 5, -36.7942, 0.444242, 20.7555, -160.523, -92.6049, 54.793
3.96107, 5, -36.7149, 0.399279, 20.8056, -160.512, -92.6033, 54.793
3.96751, 5, -36.6862, 0.37552, 20.8317, -160.506, -92.6024, 54.793
3.97558, 5, -36.6258, 0.326031, 20.8853, -160.494, -92.6007, 54.7929
3.98352, 5, -36.5616, 0.274425, 20.9401, -160.482, -92.5989, 54.7929
3.99152, 5, -36.4949, 0.221425, 20.9955, -160.469, -92.597, 54.7928
3.99958, 5, -36.427, 0.167845, 21.0509, -160.457, -92.5952, 54.7929
4.00784, 5, -36.3583, 0.114013, 21.1064, -160.445, -92.5933, 54.7929
4.0155, 5, -36.2896, 0.060112, 21.1618, -160.433, -92.5914, 54.7929
4.02353, 5, -36.2206, 0.00633011, 21.2173, -160.421, -92.5895, 54.793
4.03303, 5, -36.1174, -0.0739382, 21.3003, -160.403, -92.5866, 54.7931
4.04104, 5, -36.0831, -0.100598, 21.328, -160.397, -92.5846, 54.7931
4.04755, 5, -36.0145, -0.153742, 21.3832, -160.384, -92.5837, 54.7932
4.05562, 5, -35.9459, -0.206684, 21.4384, -160.371, -92.5816, 54.7934
4.06352, 5, -35.8773, -0.259423, 21.4935, -160.358, -92.5796, 54.7937
4.07152, 5, -35.8085, -0.312068, 21.5485, -160.346, -92.5776, 54.7941
4.08236, 5, -35.705, -0.390989, 21.6308, -160.327, -92.5746, 54.7952
4.0904, 5, -35.6356, -0.443633, 21.6854, -160.314, -92.5726, 54.7962
4.09555, 5, -35.6008, -0.470015, 21.7126, -160.308, -92.5716, 54.7968
4.10352, 5, -35.531, -0.522779, 21.767, -160.295, -92.5696, 54.798
4.11167, 5, -35.4609, -0.57549, 21.8212, -160.283, -92.5675, 54.7994
4.11958, 5, -35.3906, -0.628202, 21.8751, -160.27, -92.5654, 54.8008
4.12752, 5, -35.3201, -0.680905, 21.9291, -160.257, -92.5634, 54.8025
4.13573, 5, -35.2495, -0.733555, 21.983, -160.244, -92.5613, 54.8042
4.14597, 5, -35.1436, -0.811961, 22.0635, -160.224, -92.5582, 54.8073
4.15152, 5, -35.1083, -0.838053, 22.0903, -160.217, -92.5571, 54.8083
4.1598, 5, -35.0376, -0.890155, 22.1438, -160.204, -92.555, 54.8105
4.16774, 5, -34.9671, -0.941873, 22.1971, -160.191, -92.5528, 54.8128
4.17558, 5, -34.8966, -0.993461, 22.2504, -160.178, -92.5506, 54.8152
4.18404, 5, -34.8261, -1.04482, 22.3036, -160.165, -92.5484, 54.8179
4.19334, 5, -34.7556, -1.09615, 22.3565, -160.152, -92.5463, 54.8206
4.19955, 5, -34.6849, -1.14753, 22.4093, -160.14, -92.544, 54.8234
4.20828, 5, -34.6139, -1.19873, 22.4619, -160.127, -92.5419, 54.8263
4.21555, 5, -34.5429, -1.25005, 22.5143, -160.114, -92.5396, 54.8292
4.22355, 5, -34.4717, -1.30135, 22.5666, -160.1, -92.5374, 54.8324
4.23363, 5, -34.4003, -1.35262, 22.6188, -160.086, -92.5351, 54.8356
4.23977, 5, -34.3287, -1.40392, 22.6708, -160.073, -92.5328, 54.8389
4.24856, 5, -34.2569, -1.45511, 22.7226, -160.059, -92.5305, 54.8424
4.25552, 5, -34.185, -1.50612, 22.7744, -160.045, -92.5283, 54.846
4.26359, 5, -34.113, -1.55691, 22.8261, -160.032, -92.5259, 54.8496
4.27155, 5, -34.0409, -1.60753, 22.8776, -160.018, -92.5236, 54.8534
4.27956, 5, -33.9687, -1.65794, 22.929, -160.005, -92.5213, 54.8573
4.28784, 5, -33.8964, -1.70804, 22.9803, -159.991, -92.519, 54.8614
4.29653, 5, -33.8243, -1.75804, 23.0314, -159.978, -92.5167, 54.8655
4.30367, 5, -33.7521, -1.808, 23.0824, -159.964, -92.5144, 54.8697
4.31184, 5, -33.6799, -1.85781, 23.1332, -159.95, -92.5121, 54.8741
4.32002, 5, -33.6075, -1.90759, 23.1837, -159.935, -92.5098, 54.8783
4.32762, 5, -33.5349, -1.95763, 23.2343, -159.921, -92.5075, 54.8826
4.33569, 5, -33.4621, -2.00799, 23.2847, -159.907, -92.5052, 54.8865
4.34437, 5, -33.3894, -2.05867, 23.3351, -159.893, -92.5029, 54.8896
4.35156, 5, -33.3169, -2.10981, 23.3855, -159.879, -92.5006, 54.8913
4.3599, 6, -33.2446, -2.16152, 23.4362, -159.864, -92.498, 54.8916
4.36876, 6, -33.1726, -2.21412, 23.4873, -159.849, -92.4949, 54.8898
4.37579, 6, -33.1011, -2.2676, 23.5391, -159.834, -92.4912, 54.8849
4.38408, 7, -33.03, -2.32205, 23.5918, -159.817, -92.4864, 54.8745
4.39267, 7, -32.9594, -2.3777, 23.6457, -159.799, -92.4803, 54.8604
4.39995, 7, -32.8893, -2.43454, 23.7007, -159.78, -92.4724, 54.8439
4.409, 7, -32.8197, -2.49287, 23.7572, -159.759, -92.4626, 54.8265
4.41689, 7, -32.7507, -2.55269, 23.8149, -159.737, -92.4508, 54.8091
4.42411, 7, -32.6824, -2.61414, 23.874, -159.715, -92.4372, 54.7921
4.43627, 8, -32.5813, -2.70936, 23.9649, -159.678, -92.4132, 54.767
4.44034, 8, -32.5479, -2.74196, 23.9958, -159.665, -92.4042, 54.7584
4.44891, 8, -32.5147, -2.77496, 24.0582, -159.638, -92.3849, 54.7404
4.45619, 8, -32.4488, -2.87629, 24.1216, -159.61, -92.364, 54.721
4.46352, 8, -32.3837, -2.91081, 24.1537, -159.596, -92.3532, 54.7107
4.47151, 9, -32.319, -2.98082, 24.2185, -159.568, -92.3307, 54.6888
4.47956, 9, -32.2549, -3.05213, 24.2845, -159.538, -92.3072, 54.6651
4.48771, 9, -32.1915, -3.12477, 24.3514, -159.506, -92.2822, 54.6397
4.49548, 9, -32.1285, -3.19864, 24.4192, -159.474, -92.2556, 54.6131
4.50352, 9, -32.0662, -3.27385, 24.4881, -159.442, -92.2271, 54.5853
4.51151, 10, -32.0044, -3.35033, 24.5579, -159.408, -92.1974, 54.5559
4.51952, 10, -31.9432, -3.42818, 24.6288, -159.373, -92.1668, 54.5247
4.52755, 10, -31.8826, -3.50755, 24.7007, -159.337, -92.1348, 54.4914
4.53706, 10, -31.7926, -3.62916, 24.8106, -159.282, -92.0832, 54.4385
4.54495, 10, -31.763, -3.67044, 24.8478, -159.264, -92.0472, 54.4019
4.55152, 11, -31.704, -3.75408, 24.9227, -159.225, -92.0289, 54.383
4.56235, 11, -31.6166, -3.88238, 25.0369, -159.165, -91.9722, 54.3236
4.56771, 11, -31.5877, -3.92583, 25.0755, -159.145, -91.9522, 54.3028
4.57549, 11, -31.5303, -4.01384, 25.1533, -159.104, -91.9112, 54.2602
4.58352, 11, -31.4735, -4.10337, 25.2321, -159.061, -91.8696, 54.2167
4.59157, 12, -31.4173, -4.19439, 25.312, -159.018, -91.8263, 54.1716
4.60056, 12, -31.3614, -4.2868, 25.393, -158.975, -91.7809, 54.1244
4.6075, 12, -31.3061, -4.38062, 25.4751, -158.929, -91.735, 54.0755
4.61567, 12, -31.2514, -4.47574, 25.5582, -158.883, -91.6878, 54.0257
4.62357, 12, -31.197, -4.57226, 25.6423, -158.836, -91.6384, 53.9745
4.63148, 13, -31.1433, -4.67022, 25.7274, -158.788, -91.5885, 53.921
4.63951, 13, -31.09, -4.76957, 25.8133, -158.739, -91.5371, 53.8664
4.64757, 13, -31.0373, -4.87035, 25.9003, -158.69, -91.4834, 53.8108
4.6555, 13, -30.9851, -4.97274, 25.9884, -158.639, -91.4295, 53.7531
4.66372, 13, -30.9334, -5.07656, 26.0776, -158.588, -91.3736, 53.6939
4.67148, 14, -30.8822, -5.18176, 26.1678, -158.535, -91.3164, 53.634
4.67952, 14, -30.8317, -5.28852, 26.2592, -158.481, -91.2587, 53.5719
4.6876, 14, -30.7816, -5.3967, 26.3514, -158.428, -91.1984, 53.5085
4.69555, 14, -30.7321, -5.5063, 26.4445, -158.373, -91.1381, 53.4444
4.70354, 14, -30.6831, -5.61754, 26.5386, -158.316, -91.0755, 53.3778
4.71173, 15, -30.6346, -5.73022, 26.6337, -158.26, -91.0117, 53.3101
4.7196, 15, -30.5865, -5.84428, 26.7301, -158.201, -90.9467, 53.2413
4.72753, 15, -30.5391, -5.95954, 26.8276, -158.143, -90.8798, 53.1704
4.7368, 15, -30.4922, -6.07622, 26.9262, -158.083, -90.8126, 53.0987
4.74365, 15, -30.4456, -6.19437, 27.0256, -158.023, -90.7431, 53.0252
4.75252, 15, -30.3997, -6.31386, 27.1259, -157.961, -90.6729, 52.9497
4.75951, 16, -30.3542, -6.43501, 27.2272, -157.898, -90.6006, 52.8736
4.76753, 16, -30.3093, -6.55758, 27.3296, -157.835, -90.5279, 52.7949
4.77557, 16, -30.2649, -6.68154, 27.4332, -157.771, -90.4532, 52.7157
4.78354, 16, -30.2209, -6.80701, 27.538, -157.706, -90.3777, 52.6348
4.79265, 16, -30.1775, -6.93401, 27.6438, -157.64, -90.3004, 52.5526
4.79966, 17, -30.1344, -7.06263, 27.7504, -157.573, -90.2221, 52.4692
4.8076, 17, -30.0919, -7.19283, 27.8578, -157.505, -90.1424, 52.3843
4.8158, 17, -30.0499, -7.32445, 27.9661, -157.436, -90.0611, 52.2987
4.82398, 17, -30.0084, -7.45731, 28.0757, -157.367, -89.9788, 52.2107
4.83167, 17, -29.9674, -7.59155, 28.1866, -157.296, -89.8951, 52.1223
4.83954, 18, -29.9269, -7.72728, 28.2986, -157.225, -89.8101, 52.0319
4.84754, 18, -29.8869, -7.86442, 28.4114, -157.152, -89.7236, 51.9409
4.85558, 18, -29.8474, -8.00294, 28.5249, -157.079, -89.6364, 51.8477
4.86402, 18, -29.8083, -8.14262, 28.6395, -157.005, -89.5476, 51.7537
4.87266, 18, -29.7697, -8.28367, 28.7553, -156.93, -89.4574, 51.6578
4.87972, 19, -29.7316, -8.42611, 28.8723, -156.854, -89.3664, 51.5615
4.88942, 19, -29.694, -8.5702, 28.9904, -156.777, -89.274, 51.4634
4.89999, 19, -29.6567, -8.78915, 29.169, -156.66, -89.1328, 51.3144
4.90471, 19, -29.62, -8.86271, 29.2289, -156.621, -89.0854, 51.2644
4.91207, 19, -29.5838, -9.01081, 29.3494, -156.541, -88.9895, 51.1634
4.92009, 20, -29.5481, -9.16043, 29.471, -156.461, -88.8922, 51.0609
4.92885, 20, -29.5128, -9.3116, 29.594, -156.38, -88.7943, 50.9573
4.93605, 20, -29.4779, -9.46423, 29.7179, -156.298, -88.6952, 50.8527
4.94504, 20, -29.4435, -9.61786, 29.8425, -156.215, -88.5947, 50.7464
4.95261, 20, -29.4096, -9.7727, 29.9681, -156.131, -88.4935, 50.6393
4.96059, 21, -29.3761, -9.92894, 30.0947, -156.046, -88.391, 50.5307
4.96897, 21, -29.3596, -10.0076, 30.1583, -156.003, -88.3392, 50.4764
4.97549, 21, -29.3266, -10.1662, 30.2865, -155.917, -88.2351, 50.3663
4.98353, 21, -29.2942, -10.326, 30.4157, -155.83, -88.13, 50.2554
4.99293, 21, -29.2464, -10.5673, 30.611, -155.699, -87.9703, 50.0878
4.9995, 21, -29.2306, -10.6484, 30.6765, -155.654, -87.9167, 50.0313
5.00749, 22, -29.1995, -10.8117, 30.8083, -155.564, -87.8085, 49.918
5.0155, 22, -29.1686, -10.9764, 30.941, -155.474, -87.6992, 49.8038
5.0235, 22, -29.1383, -11.1419, 31.0747, -155.383, -87.5891, 49.6886
5.03154, 22, -29.1083, -11.3085, 31.2092, -155.291, -87.4779, 49.5726
5.03966, 22, -29.0786, -11.4765, 31.3448, -155.197, -87.3658, 49.4556
5.04761, 23, -29.0493, -11.6462, 31.4812, -155.103, -87.2528, 49.338
5.05557, 23, -29.0203, -11.8171, 31.6183, -155.009, -87.1386, 49.2195
5.06381, 23, -28.9918, -11.9886, 31.7562, -154.913, -87.0239, 49.1006
5.07394, 23, -28.9497, -12.2482, 31.9648, -154.768, -86.8499, 48.9211
5.07949, 23, -28.9359, -12.3356, 32.0348, -154.719, -86.7914, 48.8609
5.08757, 24, -28.9085, -12.5111, 32.1755, -154.621, -86.6739, 48.7403
5.09654, 24, -28.8814, -12.6871, 32.3169, -154.522, -86.5553, 48.6192
5.10351, 24, -28.8546, -12.8637, 32.4589, -154.422, -86.4361, 48.4972
5.11386, 24, -28.8152, -13.1315, 32.6736, -154.271, -86.2554, 48.3133
5.11963, 24, -28.8022, -13.2214, 32.7457, -154.22, -86.195, 48.2519
5.12848, 25, -28.7764, -13.4017, 32.8904, -154.118, -86.0734, 48.1286
5.13551, 25, -28.751, -13.5825, 33.0356, -154.015, -85.951, 48.0051
5.1435, 25, -28.7257, -13.7645, 33.1814, -153.911, -85.8281, 47.8817
5.15149, 25, -28.7006, -13.9481, 33.3279, -153.807, -85.7041, 47.7578
5.15955, 25, -28.6759, -14.1323, 33.4754, -153.701, -85.5798, 47.6338
5.16764, 26, -28.6514, -14.3169, 33.6235, -153.595, -85.4549, 47.51
5.17648, 26, -28.6273, -14.5026, 33.7721, -153.488, -85.3293, 47.3856
5.18355, 26, -28.6035, -14.69, 33.9213, -153.38, -85.2033, 47.2612
5.19156, 26, -28.5799, -14.8778, 34.0715, -153.271, -85.0763, 47.137
5.19949, 26, -28.5562, -15.0657, 34.2222, -153.162, -84.9491, 47.0128
5.20753, 27, -28.5328, -15.2543, 34.3733, -153.052, -84.8212, 46.8889
5.21574, 27, -28.5098, -15.444, 34.5249, -152.942, -84.6929, 46.7657
5.22454, 27, -28.4869, -15.6342, 34.6773, -152.83, -84.564, 46.6422
5.23153, 27, -28.4642, -15.8246, 34.8304, -152.718, -84.4348, 46.5191
5.23988, 27, -28.4418, -16.0161, 34.9839, -152.605, -84.3051, 46.3966
5.24785, 28, -28.4196, -16.209, 35.1374, -152.492, -84.175, 46.274
5.25551, 28, -28.3972, -16.4027, 35.2915, -152.378, -84.0445, 46.1519
5.26563, 28, -28.375, -16.5966, 35.4465, -152.263, -83.9135, 46.0304
5.27198, 28, -28.3529, -16.7914, 35.6019, -152.148, -83.7826, 45.9097
5.27964, 28, -28.3309, -16.9872, 35.7574, -152.032, -83.651, 45.7896
5.28773, 29, -28.3089, -17.1831, 35.9133, -151.915, -83.5194, 45.6706
5.29588, 29, -28.287, -17.3789, 36.0699, -151.797, -83.3874, 45.5523
5.30357, 29, -28.2652, -17.5756, 36.2269, -151.679, -83.2551, 45.435
5.31183, 29, -28.2434, -17.773, 36.3839, -151.561, -83.1224, 45.319
5.31976, 29, -28.2216, -17.9702, 36.5408, -151.442, -82.9896, 45.2034
5.32871, 30, -28.2001, -18.1675, 36.6985, -151.322, -82.8565, 45.0893
5.3361, 30, -28.1785, -18.3658, 36.8569, -151.202, -82.7234, 44.9762
5.34383, 30, -28.1569, -18.5644, 37.0151, -151.081, -82.5903, 44.8644
5.35264, 30, -28.1354, -18.763, 37.1732, -150.959, -82.4566, 44.7541
5.35952, 30, -28.1139, -18.9623, 37.3316, -150.837, -82.3233, 44.6453
5.36766, 30, -28.0922, -19.1626, 37.4906, -150.715, -82.1893, 44.5383
5.37652, 31, -28.0705, -19.3631, 37.6497, -150.592, -82.0556, 44.4324
5.38368, 31, -28.0489, -19.5635, 37.8085, -150.468, -81.9215, 44.3283
5.39292, 31, -28.0274, -19.7642, 37.9678, -150.344, -81.7875, 44.2257
5.40384, 31, -28.0058, -19.9654, 38.2081, -150.155, -81.5861, 44.0745
5.40795, 31, -27.9841, -20.1663, 38.2882, -150.093, -81.519, 44.025
5.41682, 32, -27.9625, -20.3671, 38.448, -149.966, -81.3846, 43.9271
5.424, 32, -27.9406, -20.5687, 38.6079, -149.84, -81.2502, 43.8312
5.43259, 32, -27.9184, -20.7706, 38.7683, -149.712, -81.1158, 43.7371
5.44097, 32, -27.8961, -20.9719, 38.9288, -149.584, -80.9813, 43.6456
5.4489, 32, -27.8735, -21.1731, 39.0887, -149.456, -80.8472, 43.5565
5.4561, 33, -27.8621, -21.3745, 39.2482, -149.328, -80.7134, 43.4705
5.46414, 33, -27.839, -21.475, 39.328, -149.264, -80.6467, 43.3875
5.47278, 33, -27.8036, -21.7748, 39.5671, -149.071, -80.4469, 43.3078
5.47945, 33, -27.7915, -21.8745, 39.6463, -149.007, -80.3807, 43.2694
5.48749, 33, -27.7669, -22.0741, 39.8038, -148.879, -80.2487, 43.1947
5.4955, 34, -27.742, -22.2731, 39.9609, -148.752, -80.117, 43.1238
5.50348, 34, -27.7166, -22.4709, 40.1177, -148.624, -79.9861, 43.0566
5.51147, 34, -27.6906, -22.6681, 40.2741, -148.496, -79.8552, 42.9919
5.52335, 34, -27.6509, -22.9636, 40.507, -148.305, -79.6595, 42.9022
5.52888, 34, -27.6237, -23.1596, 40.6621, -148.177, -79.5292, 42.8463
5.53549, 35, -27.61, -23.2574, 40.7397, -148.112, -79.4641, 42.8193
5.54351, 35, -27.5826, -23.4532, 40.8948, -147.984, -79.3339, 42.7681
5.55148, 35, -27.5549, -23.6495, 41.0491, -147.855, -79.2041, 42.7209
5.5611, 35, -27.5128, -23.9428, 41.2802, -147.661, -79.0093, 42.6559
5.57063, 35, -27.4844, -24.1378, 41.4342, -147.531, -78.8798, 42.6165
5.57544, 36, -27.4701, -24.2355, 41.5113, -147.466, -78.815, 42.5982
5.58355, 36, -27.441, -24.4304, 41.6648, -147.335, -78.6854, 42.5649
5.59172, 36, -27.4117, -24.6244, 41.8177, -147.205, -78.5565, 42.5358
5.60588, 36, -27.3668, -25.0109, 42.1226, -146.943, -78.2992, 42.4905
5.60745, 36, -27.3515, -25.0109, 42.1226, -146.943, -78.2992, 42.4905
5.61552, 37, -27.3203, -25.2035, 42.2739, -146.812, -78.1713, 42.4745
5.62353, 37, -27.2882, -25.3948, 42.424, -146.682, -78.0438, 42.463
5.63148, 37, -27.2554, -25.585, 42.5733, -146.552, -77.9168, 42.4564
5.64059, 37, -27.2217, -25.7747, 42.7217, -146.422, -77.7901, 42.4535
5.64764, 37, -27.187, -25.9632, 42.8691, -146.293, -77.664, 42.4539
5.65646, 37, -27.1514, -26.1497, 43.0151, -146.165, -77.5382, 42.4599
5.66439, 38, -27.115, -26.3349, 43.1598, -146.038, -77.4132, 42.4724
5.67148, 38, -27.0777, -26.5194, 43.3037, -145.911, -77.2887, 42.4898
5.67947, 38, -27.0396, -26.7028, 43.4468, -145.784, -77.1646, 42.513
5.69095, 38, -26.9809, -26.975, 43.6595, -145.595, -76.9795, 42.5579
5.6958, 38, -26.961, -27.0654, 43.7299, -145.532, -76.918, 42.5759
5.70347, 39, -26.9206, -27.2463, 43.8702, -145.406, -76.7954, 42.6164
5.71157, 39, -26.8796, -27.4261, 44.0096, -145.28, -76.6726, 42.6628
5.71967, 39, -26.8376, -27.6046, 44.1483, -145.154, -76.5503, 42.7143
5.72751, 39, -26.7949, -27.7824, 44.2862, -145.028, -76.428, 42.7719
5.73551, 39, -26.7515, -27.96, 44.423, -144.903, -76.3056, 42.8363
5.74351, 40, -26.7071, -28.1368, 44.5589, -144.778, -76.1834, 42.906
5.75151, 40, -26.6617, -28.3117, 44.6938, -144.653, -76.0612, 42.9828
5.75947, 40, -26.6155, -28.4854, 44.8275, -144.529, -75.9397, 43.0659
5.76762, 40, -26.5683, -28.658, 44.9598, -144.406, -75.8181, 43.1549
5.77549, 40, -26.5198, -28.8292, 45.0907, -144.284, -75.6974, 43.2513
5.7835, 41, -26.4701, -28.9983, 45.22, -144.162, -75.5771, 43.3539
5.79199, 41, -26.4193, -29.1654, 45.3478, -144.042, -75.4572, 43.4634
5.80127, 41, -26.3672, -29.3315, 45.4741, -143.923, -75.338, 43.5794
5.80786, 41, -26.3137, -29.4963, 45.5987, -143.805, -75.2191, 43.7026
5.81594, 41, -26.259, -29.6589, 45.7216, -143.689, -75.101, 43.8329
5.82379, 42, -26.2028, -29.8198, 45.8428, -143.573, -74.9833, 43.9705
5.83215, 42, -26.1453, -29.9791, 45.9622, -143.459, -74.8659, 44.1154
5.84149, 42, -26.0863, -30.1368, 46.0799, -143.346, -74.7493, 44.2672
5.84823, 42, -26.0259, -30.2926, 46.1958, -143.235, -74.6326, 44.4266
5.85554, 42, -25.9641, -30.4461, 46.31, -143.125, -74.5167, 44.5933
5.86382, 43, -25.9008, -30.5975, 46.4223, -143.017, -74.4011, 44.7674
5.87584, 43, -25.8028, -30.8209, 46.5867, -142.859, -74.2285, 45.0436
5.87994, 43, -25.7693, -30.8944, 46.6405, -142.806, -74.1712, 45.1395
5.89182, 43, -25.6663, -31.1111, 46.7987, -142.653, -73.9996, 45.4388
5.89601, 43, -25.6311, -31.1821, 46.8505, -142.603, -73.9428, 45.5423
5.90387, 43, -25.5596, -31.3226, 46.9525, -142.505, -73.8294, 45.7552
5.91268, 44, -25.4862, -31.4608, 47.0521, -142.408, -73.7165, 45.9759
5.92032, 44, -25.4107, -31.5966, 47.1491, -142.314, -73.6042, 46.2047
5.92907, 44, -25.3335, -31.7299, 47.2437, -142.222, -73.4921, 46.4415
5.93657, 44, -25.2543, -31.8604, 47.3357, -142.133, -73.3807, 46.6865
5.94409, 44, -25.1733, -31.9881, 47.4254, -142.047, -73.27, 46.9396
5.95288, 45, -25.0904, -32.1131, 47.5126, -141.963, -73.1596, 47.2014
5.96005, 45, -25.0481, -32.1745, 47.5972, -141.882, -73.0503, 47.4715
5.9684, 45, -24.9621, -32.2953, 47.6789, -141.804, -72.9415, 47.7498
5.97704, 45, -24.8741, -32.4709, 47.7575, -141.73, -72.8334, 48.0362
5.98457, 45, -24.7377, -32.5841, 47.8331, -141.657, -72.7262, 48.3313
5.99147, 46, -24.6911, -32.6394, 47.8698, -141.623, -72.6729, 48.4821
5.99949, 46, -24.5963, -32.7476, 47.9409, -141.557, -72.5668, 48.7899
6.00749, 46, -24.4988, -32.8526, 48.0092, -141.493, -72.4618, 49.1061
6.01676, 46, -24.3486, -33.0031, 48.1056, -141.406, -72.3055, 49.5968
6.02517, 46, -24.2974, -33.0515, 48.1655, -141.352, -72.203, 49.9343
6.03146, 47, -24.1931, -33.1454, 48.1941, -141.328, -72.1519, 50.1061
6.04199, 47, -24.0322, -33.2786, 48.2747, -141.258, -72.0002, 50.6342
6.04754, 47, -23.9773, -33.321, 48.2997, -141.236, -71.9503, 50.8144
6.05546, 47, -23.8653, -33.4026, 48.3469, -141.198, -71.8513, 51.1808
6.06348, 47, -23.7505, -33.48, 48.3903, -141.164, -71.7533, 51.5558
6.07348, 48, -23.5731, -33.5878, 48.4479, -141.122, -71.609, 52.1338
6.07952, 48, -23.5126, -33.6214, 48.465, -141.11, -71.5617, 52.3304
6.08746, 48, -23.3898, -33.6852, 48.4961, -141.089, -71.4681, 52.7303
6.09846, 48, -23.201, -33.7718, 48.5352, -141.068, -71.3313, 53.346
6.10354, 48, -23.1366, -33.7981, 48.546, -141.064, -71.2867, 53.5554
6.1125, 49, -23.0057, -33.8469, 48.5645, -141.059, -71.1988, 53.9807
6.11962, 49, -22.872, -33.8905, 48.5786, -141.058, -71.1126, 54.4132
6.1285, 49, -22.7354, -33.9287, 48.5881, -141.062, -71.0289, 54.8535
6.13546, 49, -22.5958, -33.9612, 48.5928, -141.073, -70.9469, 55.3021
6.14369, 49, -22.4535, -33.9882, 48.593, -141.09, -70.8675, 55.7583
6.15252, 50, -22.3084, -34.0092, 48.5883, -141.113, -70.7904, 56.2234
6.15946, 50, -22.1607, -34.024, 48.5785, -141.142, -70.7164, 56.696
6.16747, 50, -22.0103, -34.0326, 48.5634, -141.177, -70.6451, 57.1773
6.17553, 50, -21.8569, -34.0352, 48.5431, -141.218, -70.5773, 57.6677
6.18347, 50, -21.7004, -34.0316, 48.5172, -141.267, -70.5123, 58.1659
6.19164, 51, -21.5407, -34.0214, 48.4856, -141.321, -70.4519, 58.6715
6.19968, 51, -21.3782, -34.0043, 48.4489, -141.381, -70.3941, 59.1829
6.20858, 51, -21.213, -33.9804, 48.4066, -141.448, -70.3404, 59.7008
6.21738, 51, -21.0454, -33.9494, 48.3587, -141.521, -70.2904, 60.2239
6.2236, 51, -20.8753, -33.9114, 48.3054, -141.6, -70.2435, 60.7522
6.23175, 52, -20.7026, -33.866, 48.2464, -141.685, -70.201, 61.2849
6.23949, 52, -20.5272, -33.8128, 48.1816, -141.777, -70.1635, 61.8232
6.2487, 52, -20.3492, -33.7519, 48.111, -141.874, -70.1301, 62.3675
6.2566, 52, -20.1683, -33.6829, 48.0343, -141.978, -70.101, 62.918
6.26347, 52, -19.9848, -33.6056, 47.9514, -142.088, -70.0773, 63.4737
6.27169, 52, -19.7989, -33.5198, 47.8622, -142.205, -70.0589, 64.0359
6.28046, 53, -19.6109, -33.4254, 47.7666, -142.327, -70.0461, 64.6044
6.2875, 53, -19.4207, -33.3225, 47.6646, -142.457, -70.0391, 65.1789
6.29559, 53, -19.2285, -33.2115, 47.5566, -142.592, -70.037, 65.7575
6.30355, 53, -19.0345, -33.0921, 47.4424, -142.733, -70.0403, 66.3415
6.3116, 53, -18.8385, -32.9642, 47.3219, -142.879, -70.0498, 66.9292
6.32082, 54, -18.6405, -32.8278, 47.1954, -143.03, -70.0658, 67.5188
6.33236, 54, -18.3401, -32.6076, 46.9949, -143.266, -70.1022, 68.4051
6.33563, 54, -18.239, -32.5302, 46.9254, -143.347, -70.1178, 68.701
6.34346, 54, -18.0358, -32.3692, 46.7823, -143.511, -70.1531, 69.294
6.35259, 54, -17.8316, -32.1993, 46.6336, -143.68, -70.1946, 69.8876
6.35957, 55, -17.6264, -32.0202, 46.4788, -143.854, -70.2441, 70.4832
6.36752, 55, -17.4203, -31.8321, 46.3181, -144.031, -70.301, 71.0823
6.37558, 55, -17.2127, -31.6349, 46.1511, -144.214, -70.3654, 71.6857
6.38369, 55, -17.0033, -31.4275, 45.9767, -144.402, -70.4391, 72.2928
6.3918, 55, -16.7922, -31.2093, 45.7948, -144.595, -70.5209, 72.9048
6.40009, 56, -16.5795, -30.9809, 45.6063, -144.792, -70.6123, 73.5216
6.40835, 56, -16.3653, -30.7422, 45.4109, -144.994, -70.7124, 74.1423
6.41585, 56, -16.1503, -30.4921, 45.2073, -145.2, -70.8221, 74.7659
6.42426, 56, -15.9353, -30.2314, 44.9968, -145.41, -70.9414, 75.3929
6.43299, 56, -15.7204, -29.9599, 44.7802, -145.623, -71.07, 76.0227
6.43996, 57, -15.5044, -29.6771, 44.556, -145.84, -71.2086, 76.6535
6.44808, 57, -15.2873, -29.3844, 44.3247, -146.059, -71.3569, 77.2858
6.45615, 57, -15.0691, -29.0809, 44.0872, -146.281, -71.5155, 77.9196
6.46486, 57, -14.9598, -28.9256, 43.9658, -146.505, -71.6836, 78.5531
6.47336, 57, -14.6325, -28.4471, 43.5933, -146.729, -71.8615, 79.1847
6.48164, 58, -14.4151, -28.1183, 43.3396, -146.954, -72.0478, 79.8139
6.48749, 58, -14.3069, -27.9512, 43.2109, -147.066, -72.1438, 80.127
6.49546, 58, -14.0916, -27.6111, 42.9515, -147.289, -72.3414, 80.7485
6.50345, 58, -13.878, -27.2642, 42.6897, -147.511, -72.5458, 81.3623
6.5115, 58, -13.6658, -26.9107, 42.425, -147.729, -72.7567, 81.9694
6.51946, 58, -13.455, -26.5517, 42.1585, -147.946, -72.9737, 82.5694
6.5275, 59, -13.2457, -26.1865, 41.8887, -148.16, -73.1975, 83.1625
6.53546, 59, -13.0385, -25.8148, 41.6162, -148.372, -73.4281, 83.7495
6.54344, 59, -12.8329, -25.4362, 41.3406, -148.582, -73.6665, 84.3325
6.55341, 59, -12.5267, -24.8553, 40.9201, -148.893, -74.0393, 85.1996
6.5595, 59, -12.4252, -24.6576, 40.778, -148.996, -74.168, 85.4867
6.56745, 60, -12.2227, -24.2565, 40.4897, -149.201, -74.4324, 86.059
6.57565, 60, -12.0214, -23.8475, 40.1975, -149.405, -74.7062, 86.6294
6.58598, 60, -11.7218, -23.2206, 39.751, -149.708, -75.1349, 87.4805
6.59311, 60, -11.6226, -23.0084, 39.6007, -149.907, -75.4319, 88.043
6.59945, 60, -11.426, -22.5799, 39.2978, -150.005, -75.5834, 88.3228
6.60843, 61, -11.2316, -22.1469, 38.9928, -150.199, -75.8915, 88.8782
6.61547, 61, -11.0395, -21.7093, 38.6866, -150.389, -76.2053, 89.4259
6.62461, 61, -10.8496, -21.2678, 38.3798, -150.574, -76.5234, 89.9637
6.63162, 61, -10.6621, -20.8225, 38.0736, -150.753, -76.8457, 90.4921
6.64049, 61, -10.477, -20.3732, 37.7674, -150.927, -77.1715, 91.0105
6.6482, 62, -10.2945, -19.9207, 37.4622, -151.096, -77.5011, 91.5194
6.65546, 62, -10.1148, -19.4653, 37.1565, -151.26, -77.8354, 92.0197
6.66348, 62, -9.93784, -19.0077, 36.8507, -151.419, -78.1744, 92.5115
6.6749, 62, -9.67733, -18.3169, 36.3902, -151.65, -78.6932, 93.2365
6.67957, 62, -9.59168, -18.0857, 36.2367, -151.724, -78.8688, 93.4744
6.6884, 63, -9.422, -17.6221, 35.9292, -151.87, -79.2237, 93.9446
6.69643, 63, -9.2545, -17.1567, 35.6225, -152.011, -79.5832, 94.4056
6.7066, 63, -9.00768, -16.4559, 35.1641, -152.212, -80.129, 95.0793
6.71147, 63, -8.92672, -16.2217, 35.012, -152.277, -80.3125, 95.2989
6.71947, 63, -8.76673, -15.7517, 34.7089, -152.401, -80.6809, 95.7293
6.72766, 64, -8.60943, -15.281, 34.4077, -152.52, -81.0513, 96.1495
6.73549, 64, -8.45471, -14.8098, 34.1094, -152.633, -81.4235, 96.5582
6.74347, 64, -8.30263, -14.3381, 33.8121, -152.741, -81.7973, 96.9551
6.75155, 64, -8.15303, -13.867, 33.5172, -152.844, -82.173, 97.3414
6.75945, 64, -8.00594, -13.3966, 33.2237, -152.941, -82.5504, 97.716
6.76746, 64, -7.86139, -12.9276, 32.9326, -153.032, -82.9293, 98.0783
6.77608, 65, -7.71945, -12.4606, 32.6441, -153.118, -83.3093, 98.4287
6.78361, 65, -7.58027, -11.9949, 32.3584, -153.198, -83.6904, 98.7661
6.79177, 65, -7.44423, -11.531, 32.0766, -153.272, -84.0719, 99.09
6.80158, 65, -7.31084, -11.0683, 31.7977, -153.341, -84.4538, 99.4007
6.80767, 65, -7.18037, -10.6073, 31.5227, -153.403, -84.8358, 99.6974
6.8159, 66, -7.05229, -10.1488, 31.2505, -153.461, -85.2176, 99.9798
6.82354, 66, -6.92622, -9.69324, 30.9818, -153.513, -85.5994, 100.247
6.8316, 66, -6.8023, -9.24215, 30.7173, -153.559, -85.9809, 100.499
6.83954, 66, -6.68058, -8.79631, 30.4557, -153.6, -86.361, 100.735
6.84783, 67, -6.56118, -8.35556, 30.199, -153.635, -86.7387, 100.955
6.85575, 67, -6.4443, -7.92057, 29.9472, -153.665, -87.1131, 101.157
6.86443, 67, -6.3303, -7.49114, 29.7012, -153.689, -87.4833, 101.341
6.87154, 67, -6.21917, -7.06763, 29.4624, -153.707, -87.8482, 101.508
6.87981, 67, -6.11054, -6.64951, 29.2297, -153.719, -88.2079, 101.657
6.88871, 67, -6.0043, -6.2376, 29.0032, -153.727, -88.5624, 101.788
6.89582, 68, -5.90019, -5.83211, 28.7831, -153.73, -88.9126, 101.901
6.90501, 68, -5.79798, -5.43266, 28.5676, -153.729, -89.2593, 101.997
6.91192, 68, -5.69744, -5.03943, 28.356, -153.723, -89.6035, 102.076
6.91993, 68, -5.59872, -4.65204, 28.1487, -153.712, -89.9459, 102.136
6.92955, 68, -5.50164, -4.27083, 27.9448, -153.697, -90.2864, 102.178
6.93731, 69, -5.4064, -3.89433, 27.745, -153.678, -90.6251, 102.202
6.9442, 69, -5.31303, -3.52247, 27.5503, -153.654, -90.9618, 102.21
6.95205, 69, -5.2214, -3.15445, 27.36, -153.625, -91.2961, 102.198
6.96002, 69, -5.17631, -2.79053, 27.1729, -153.592, -91.6283, 102.166
6.96799, 69, -5.08738, -2.60977, 27.0809, -153.574, -91.9584, 102.113
6.97545, 70, -5.00006, -2.25026, 26.9002, -153.537, -92.1229, 102.078
6.98427, 70, -4.91397, -1.89464, 26.7231, -153.495, -92.4514, 101.943
6.99149, 70, -4.82907, -1.54312, 26.5486, -153.449, -92.7798, 101.886
6.99948, 70, -4.74504, -1.19689, 26.3773, -153.4, -93.1082, 101.755
7.00755, 70, -4.66199, -0.855252, 26.2097, -153.348, -93.4367, 101.601
7.01546, 71, -4.57996, -0.519402, 26.0452, -153.292, -93.7643, 101.425
7.02344, 71, -4.49894, -0.188929, 25.8841, -153.234, -94.0901, 101.226
7.03151, 71, -4.419, 0.135419, 25.728, -153.173, -94.4133, 101.006
7.03943, 71, -4.34002, 0.454362, 25.5774, -153.109, -94.7325, 100.764
7.04748, 71, -4.26191, 0.768298, 25.4317, -153.043, -95.0476, 100.502
7.05742, 72, -4.14647, 1.22687, 25.222, -152.942, -95.5125, 100.072
7.06351, 72, -4.1082, 1.37651, 25.1543, -152.907, -95.6656, 99.9182
7.07156, 72, -4.03184, 1.67017, 25.0218, -152.836, -95.9693, 99.5953
7.07948, 72, -3.9557, 1.95697, 24.8928, -152.764, -96.2705, 99.2512
7.08749, 72, -3.87956, 2.23745, 24.7668, -152.691, -96.5691, 98.8863
7.09544, 72, -3.80344, 2.51082, 24.6439, -152.618, -96.8652, 98.4996
7.10358, 73, -3.72743, 2.77794, 24.5243, -152.544, -97.1585, 98.0913
7.11354, 73, -3.61314, 3.16588, 24.3517, -152.433, -97.5925, 97.4387
7.11944, 73, -3.57496, 3.29169, 24.2962, -152.397, -97.7353, 97.2106
7.12971, 73, -3.45999, 3.65935, 24.1358, -152.288, -98.1575, 96.4977
7.13825, 73, -3.42151, 3.89454, 24.0343, -152.216, -98.4334, 95.9986
7.1435, 74, -3.34397, 4.00886, 23.9851, -152.181, -98.5695, 95.7428
7.1515, 74, -3.26575, 4.23123, 23.8897, -152.112, -98.8373, 95.2191
7.16054, 74, -3.18689, 4.44472, 23.7985, -152.044, -99.0993, 94.6813
7.16744, 74, -3.10733, 4.64827, 23.7114, -151.978, -99.3549, 94.1314
7.1755, 74, -3.02705, 4.8421, 23.6287, -151.915, -99.6034, 93.5698
7.18357, 75, -2.9459, 5.02661, 23.5501, -151.854, -99.8439, 92.9986
7.19399, 75, -2.82233, 5.28429, 23.4399, -151.768, -100.189, 92.1266
7.19949, 75, -2.78065, 5.36478, 23.4051, -151.741, -100.3, 91.8322
7.20761, 75, -2.69658, 5.51803, 23.3383, -151.689, -100.514, 91.2374
7.21548, 75, -2.61155, 5.66093, 23.2754, -151.64, -100.72, 90.6349
7.22347, 76, -2.52551, 5.79286, 23.2165, -151.594, -100.917, 90.0248
7.23313, 76, -2.43854, 5.91358, 23.1618, -151.553, -101.105, 89.4051
7.23942, 76, -2.35066, 6.0228, 23.1113, -151.515, -101.284, 88.7748
7.24754, 76, -2.26202, 6.11999, 23.065, -151.481, -101.454, 88.1352
7.25543, 76, -2.17256, 6.20476, 23.0232, -151.451, -101.614, 87.4878
7.26357, 77, -2.08219, 6.27674, 22.9862, -151.425, -101.763, 86.8333
7.27156, 77, -1.99098, 6.3357, 22.9546, -151.403, -101.899, 86.1761
7.27945, 77, -1.89885, 6.38128, 22.9285, -151.386, -102.022, 85.5201
7.28764, 77, -1.80584, 6.41266, 22.9083, -151.372, -102.131, 84.866
7.29546, 77, -1.71198, 6.42977, 22.894, -151.362, -102.224, 84.2154
7.30357, 78, -1.61728, 6.43236, 22.8857, -151.356, -102.303, 83.5701
7.31201, 78, -1.52191, 6.4197, 22.883, -151.353, -102.365, 82.9297
7.31952, 78, -1.42589, 6.39162, 22.886, -151.352, -102.412, 82.2929
7.32792, 78, -1.32946, 6.34765, 22.8951, -151.355, -102.442, 81.6612
7.33575, 78, -1.23271, 6.28731, 22.9105, -151.362, -102.457, 81.0353
7.34445, 79, -1.13567, 6.21062, 22.9326, -151.372, -102.457, 80.4149
7.35224, 79, -1.03862, 6.11753, 22.9618, -151.385, -102.438, 79.801
7.35946, 79, -0.941482, 6.00821, 22.9983, -151.402, -102.401, 79.1951
7.3682, 79, -0.844396, 5.88263, 23.0424, -151.421, -102.346, 78.5984
7.37549, 79, -0.747334, 5.74045, 23.0942, -151.443, -102.273, 78.0109
7.38353, 79, -0.650331, 5.58193, 23.1535, -151.468, -102.183, 77.4338
7.39264, 80, -0.553268, 5.40699, 23.2204, -151.495, -102.074, 76.8684
7.3997, 80, -0.456206, 5.21571, 23.295, -151.523, -101.946, 76.3148
7.41006, 80, -0.359233, 5.00802, 23.3777, -151.552, -101.8, 75.772
7.41623, 80, -0.26239, 4.78261, 23.4685, -151.583, -101.636, 75.2403
7.42641, 80, -0.165697, 4.53917, 23.5677, -151.616, -101.452, 74.7195
7.43277, 81, -0.0691721, 4.27913, 23.6755, -151.649, -101.25, 74.2093
7.44039, 81, 0.0270871, 4.00238, 23.7922, -151.683, -101.029, 73.7079
7.44882, 81, 0.123218, 3.70896, 23.9182, -151.718, -100.789, 73.2162
7.45604, 81, 0.219089, 3.39929, 24.0538, -151.755, -100.53, 72.7335
7.46426, 81, 0.314645, 3.07212, 24.1993, -151.791, -100.252, 72.2602
7.47283, 82, 0.362407, 2.90236, 24.2757, -151.81, -100.106, 72.0271
7.48006, 82, 0.457801, 2.55034, 24.4352, -151.847, -99.7992, 71.3417
7.48747, 82, 0.552892, 2.18234, 24.6039, -151.884, -99.4736, 71.1179
7.49541, 82, 0.647864, 1.79803, 24.7823, -151.921, -99.1305, 70.6776
7.50343, 82, 0.742618, 1.39706, 24.9701, -151.957, -98.7696, 70.2473
7.51158, 83, 0.837326, 0.979731, 25.167, -151.993, -98.3915, 69.8272
7.51959, 83, 0.932066, 0.547469, 25.3738, -152.028, -97.9968, 69.4164
7.52742, 83, 1.02676, 0.100144, 25.5915, -152.062, -97.5859, 69.0155
7.5415, 83, 1.21661, -0.83882, 26.0542, -152.126, -96.7163, 68.2416
7.54363, 83, 1.21661, -0.83882, 26.0542, -152.126, -96.7163, 68.2416
7.55161, 84, 1.31174, -1.33037, 26.3007, -152.157, -96.2577, 67.8683
7.55945, 84, 1.40711, -1.83591, 26.5571, -152.186, -95.7832, 67.5032
7.56746, 84, 1.50265, -2.35473, 26.8242, -152.214, -95.2935, 67.1456
7.57542, 84, 1.59849, -2.88732, 27.1015, -152.24, -94.7878, 66.7957
7.58345, 84, 1.69468, -3.43338, 27.3889, -152.264, -94.2671, 66.4528
7.5937, 85, 1.83977, -4.27738, 27.8396, -152.298, -93.4582, 65.9518
7.60132, 85, 1.88824, -4.56505, 28.1526, -152.318, -92.9004, 65.6282
7.60749, 85, 1.9855, -5.14828, 28.3126, -152.327, -92.6162, 65.4695
7.62184, 85, 2.18118, -6.34369, 28.975, -152.358, -91.4532, 64.8549
7.62392, 85, 2.18118, -6.34369, 28.975, -152.358, -91.4532, 64.8549
7.63405, 86, 2.32954, -7.26137, 29.4941, -152.374, -90.5544, 64.4186
7.6404, 86, 2.3793, -7.57078, 29.6709, -152.378, -90.2501, 64.2781
7.64748, 86, 2.4796, -8.1937, 30.0296, -152.383, -89.635, 64.005
7.65541, 86, 2.5809, -8.82262, 30.3948, -152.386, -89.0118, 63.7428
7.66343, 86, 2.68287, -9.45701, 30.7655, -152.387, -88.3841, 63.4921
7.67233, 86, 2.78607, -10.0956, 31.1415, -152.385, -87.7523, 63.253
7.67956, 87, 2.8903, -10.7381, 31.5231, -152.378, -87.1147, 63.0256
7.68741, 87, 2.99516, -11.3833, 31.9093, -152.368, -86.4718, 62.8103
7.69865, 87, 3.10123, -12.3563, 32.4968, -152.346, -85.4985, 62.5108
7.70342, 87, 3.208, -12.6817, 32.6951, -152.337, -85.1724, 62.4174
7.71148, 87, 3.31544, -13.3348, 33.0956, -152.315, -84.5166, 62.24
7.71941, 88, 3.42366, -13.991, 33.5016, -152.289, -83.8553, 62.0755
7.72745, 88, 3.53234, -14.6495, 33.9121, -152.26, -83.1888, 61.9242
7.73548, 88, 3.64152, -15.3091, 34.3279, -152.227, -82.5169, 61.7863
7.74342, 88, 3.75118, -15.969, 34.7488, -152.188, -81.84, 61.6628
7.75159, 88, 3.86116, -16.628, 35.1735, -152.145, -81.1613, 61.5545
7.75948, 89, 3.97138, -17.2849, 35.6015, -152.098, -80.4811, 61.463
7.76742, 89, 4.08188, -17.9389, 36.0307, -152.045, -79.8008, 61.3894
7.78053, 89, 4.24845, -18.9135, 36.6749, -151.957, -78.7803, 61.3136
7.78457, 89, 4.30421, -19.2366, 36.8894, -151.924, -78.4412, 61.2984
7.79239, 89, 4.41589, -19.8794, 37.3173, -151.856, -77.7671, 61.2823
7.79946, 90, 4.52789, -20.5172, 37.7437, -151.783, -77.097, 61.2866
7.80752, 90, 4.64054, -21.1506, 38.1698, -151.703, -76.4284, 61.3149
7.81557, 90, 4.75327, -21.7793, 38.5955, -151.619, -75.7606, 61.3665
7.82351, 90, 4.86567, -22.4037, 39.021, -151.529, -75.0945, 61.4416
7.83163, 90, 4.97765, -23.0243, 39.447, -151.432, -74.4308, 61.5428
7.84038, 91, 5.08926, -23.642, 39.8733, -151.329, -73.7671, 61.6703
7.84758, 91, 5.20053, -24.2559, 40.2999, -151.219, -73.1022, 61.8262
7.85542, 91, 5.31126, -24.8651, 40.7269, -151.102, -72.4368, 62.0109
7.86436, 91, 5.42128, -25.469, 41.1531, -150.979, -71.7704, 62.2257
7.8715, 91, 5.53066, -26.066, 41.5782, -150.849, -71.1044, 62.4707
7.88187, 92, 5.63969, -26.6551, 42.0014, -150.712, -70.4415, 62.747
7.88763, 92, 5.74889, -27.2355, 42.4211, -150.57, -69.7821, 63.0545
7.89561, 92, 5.85883, -27.8065, 42.836, -150.423, -69.1265, 63.3924
7.90455, 92, 5.96949, -28.3679, 43.2445, -150.272, -68.4759, 63.761
7.91263, 92, 6.08106, -28.9183, 43.6465, -150.116, -67.8311, 64.1605
7.91982, 92, 6.19398, -29.457, 44.0416, -149.958, -67.1942, 64.5903
7.92792, 93, 6.30855, -29.9844, 44.4296, -149.798, -66.5632, 65.0518
7.94141, 93, 6.48422, -30.7555, 45.0004, -149.554, -65.6241, 65.8027
7.94402, 93, 6.54387, -31.0083, 45.188, -149.473, -65.3123, 66.0697
7.9527, 93, 6.66464, -31.5095, 45.5603, -149.309, -64.6897, 66.6304
7.96199, 93, 6.78757, -32.0057, 45.9287, -149.145, -64.0669, 67.231
7.96828, 94, 6.91249, -32.4973, 46.2948, -148.979, -63.4405, 67.8753
7.97595, 94, 6.97564, -32.7414, 46.4771, -148.896, -63.1249, 68.57
7.9834, 94, 7.10324, -33.2253, 46.841, -148.729, -62.4887, 68.9372
7.99145, 94, 7.23276, -33.7021, 47.203, -148.564, -61.8463, 69.7108
7.99941, 94, 7.36523, -34.172, 47.562, -148.401, -61.1983, 70.5348
8.00737, 95, 7.50155, -34.6338, 47.9144, -148.245, -60.5491, 71.4117
8.01547, 95, 7.64287, -35.0852, 48.2585, -148.097, -59.9031, 72.334
8.0234, 95, 7.79016, -35.526, 48.5914, -147.962, -59.2624, 73.296
8.0314, 95, 7.94404, -35.9537, 48.9122, -147.84, -58.6288, 74.2974
8.04081, 95, 8.18768, -36.5612, 49.3649, -147.689, -57.6936, 75.8628
8.04737, 96, 8.27233, -36.7537, 49.5081, -147.648, -57.3868, 76.4019
8.057, 96, 8.53641, -37.2986, 49.9127, -147.553, -56.4875, 78.0654
8.06567, 96, 8.71958, -37.6328, 50.1618, -147.516, -55.9048, 79.2093
8.07145, 96, 8.8131, -37.7904, 50.2797, -147.505, -55.6189, 79.7899
8.0794, 96, 9.00358, -38.0863, 50.5008, -147.497, -55.0603, 80.9638
8.08899, 96, 9.19737, -38.4837, 50.7962, -147.526, -54.2608, 82.7466
8.09546, 97, 9.39295, -38.6035, 50.8849, -147.547, -54.0059, 83.345
8.10525, 97, 9.58899, -38.8243, 51.0465, -147.604, -53.5153, 85.1423
8.1114, 97, 9.78448, -39.021, 51.1878, -147.681, -53.0515, 85.737
8.11946, 97, 9.97868, -39.1931, 51.3097, -147.775, -52.6168, 86.9162
8.12741, 97, 10.1705, -39.3392, 51.412, -147.885, -52.212, 88.0751
8.13553, 97, 10.3587, -39.4598, 51.4953, -148.007, -51.8376, 89.2083
8.14365, 98, 10.5434, -39.5552, 51.5604, -148.141, -51.4936, 90.3089
8.15402, 98, 10.8161, -39.6534, 51.6248, -148.359, -51.033, 91.9031
8.16045, 98, 10.9061, -39.6748, 51.6375, -148.437, -50.8931, 92.4231
8.1674, 98, 11.0852, -39.7003, 51.65, -148.602, -50.6311, 93.4571
8.17541, 98, 11.2621, -39.7024, 51.646, -148.778, -50.3902, 94.4938
8.1834, 98, 11.4376, -39.681, 51.6246, -148.968, -50.1685, 95.5429
8.19147, 98, 11.6134, -39.636, 51.5855, -149.171, -49.966, 96.6124
8.1994, 99, 11.7885, -39.5676, 51.5286, -149.387, -49.7843, 97.7017
8.20737, 99, 11.962, -39.4767, 51.4533, -149.614, -49.626, 98.8067
8.21548, 99, 12.1327, -39.3633, 51.3594, -149.85, -49.4943, 99.9167
8.22339, 99, 12.2995, -39.2277, 51.2476, -150.092, -49.392, 101.022
8.23143, 99, 12.4608, -39.0702, 51.1184, -150.335, -49.3206, 102.11
8.23947, 99, 12.6149, -38.8908, 50.9734, -150.577, -49.28, 103.173
8.2474, 100, 12.7604, -38.6878, 50.8129, -150.816, -49.2704, 104.205
8.25545, 100, 12.8971, -38.4606, 50.6362, -151.05, -49.2924, 105.207
8.26352, 100, 13.0248, -38.2109, 50.4426, -151.279, -49.3455, 106.18
8.2714, 100, 13.144, -37.939, 50.2327, -151.501, -49.4292, 107.13
8.27941, 100, 13.2553, -37.6463, 50.0057, -151.717, -49.5439, 108.055
8.28747, 100, 13.3585, -37.331, 49.7602, -151.927, -49.689, 108.959
8.29542, 101, 13.4538, -36.9916, 49.4979, -152.13, -49.864, 109.844
8.3043, 101, 13.5415, -36.6276, 49.2182, -152.325, -50.0688, 110.705
8.31152, 101, 13.6215, -36.2382, 48.9215, -152.51, -50.3032, 111.546
8.3195, 101, 13.6936, -35.824, 48.6072, -152.687, -50.5673, 112.363
8.33917, 101, 13.8374, -34.6881, 47.7452, -153.083, -51.3642, 114.31
8.34074, 102, 13.8374, -34.6881, 47.7452, -153.083, -51.3642, 114.31
8.3435, 102, 13.8595, -34.4441, 47.5603, -153.154, -51.5476, 114.681
8.35141, 102, 13.8964, -33.9383, 47.1778, -153.286, -51.9386, 115.407
8.36017, 102, 13.9235, -33.4082, 46.7798, -153.405, -52.3613, 116.108
8.36743, 102, 13.9414, -32.8549, 46.367, -153.511, -52.816, 116.782
8.37543, 102, 13.9508, -32.2799, 45.9402, -153.603, -53.301, 117.432
8.38355, 102, 13.9524, -31.6834, 45.4994, -153.681, -53.8136, 118.055
8.39161, 103, 13.9471, -31.0675, 45.0452, -153.746, -54.3524, 118.653
8.39973, 103, 13.9353, -30.4337, 44.5785, -153.798, -54.915, 119.227
8.40767, 103, 13.9179, -29.7838, 44.1006, -153.836, -55.4987, 119.777
8.41575, 103, 13.8951, -29.1182, 43.6134, -153.863, -56.1017, 120.302
8.42391, 103, 13.8675, -28.4395, 43.1187, -153.879, -56.7215, 120.802
8.43252, 104, 13.8358, -27.7495, 42.6178, -153.885, -57.3549, 121.277
8.43993, 104, 13.8, -27.0502, 42.1129, -153.88, -58.0012, 121.728
8.44849, 104, 13.7605, -26.3434, 41.605, -153.865, -58.6613, 122.158
8.45595, 104, 13.7177, -25.631, 41.0955, -153.841, -59.3329, 122.568
8.46401, 104, 13.6728, -24.9151, 40.5852, -153.809, -60.015, 122.96
8.47205, 104, 13.6261, -24.1966, 40.0745, -153.77, -60.7034, 123.338
8.47938, 104, 13.6021, -23.8365, 39.8194, -153.747, -61.0495, 123.522
8.48739, 104, 13.5529, -23.115, 39.3101, -153.699, -61.7459, 123.885
8.49544, 104, 13.5027, -22.3927, 38.8019, -153.645, -62.4462, 124.241
8.50344, 104, 13.4518, -21.6692, 38.2951, -153.585, -63.1491, 124.594
8.5114, 104, 13.4001, -20.9457, 37.7898, -153.523, -63.8527, 124.944
8.51944, 104, 13.3481, -20.2226, 37.2858, -153.455, -64.5564, 125.293
8.52739, 104, 13.296, -19.4993, 36.7839, -153.384, -65.2616, 125.64
8.53539, 104, 13.2437, -18.7756, 36.2839, -153.308, -65.9684, 125.986
8.54346, 104, 13.1914, -18.0518, 35.7858, -153.229, -66.6759, 126.331
8.55139, 104, 13.1394, -17.3277, 35.2905, -153.145, -67.3841, 126.676
8.56096, 104, 13.0619, -16.2412, 34.5512, -153.013, -68.4451, 127.192
8.56748, 104, 13.0362, -15.8789, 34.3057, -152.966, -68.7997, 127.364
8.57539, 104, 12.9853, -15.1542, 33.8163, -152.871, -69.5101, 127.708
8.58517, 104, 12.9092, -14.0665, 33.0871, -152.721, -70.5764, 128.223
8.5915, 104, 12.8841, -13.704, 32.8452, -152.669, -70.9314, 128.395
8.59938, 104, 12.8341, -12.9784, 32.3634, -152.562, -71.6416, 128.738
8.60837, 104, 12.7843, -12.2525, 31.8842, -152.452, -72.3536, 129.082
8.61546, 104, 12.7349, -11.5273, 31.4079, -152.337, -73.0659, 129.427
8.62442, 104, 12.686, -10.8023, 30.9339, -152.219, -73.7786, 129.773
8.6314, 104, 12.6372, -10.0767, 30.4626, -152.097, -74.4916, 130.118
8.63946, 104, 12.5887, -9.35086, 29.9945, -151.97, -75.2044, 130.465
8.64744, 104, 12.5409, -8.62512, 29.5297, -151.84, -75.918, 130.813
8.65539, 104, 12.4935, -7.89899, 29.068, -151.705, -76.6324, 131.161
8.66345, 104, 12.4466, -7.17326, 28.6093, -151.567, -77.348, 131.511
8.67138, 104, 12.4004, -6.44796, 28.1539, -151.424, -78.0633, 131.862
8.67939, 104, 12.3548, -5.72326, 27.7021, -151.277, -78.7767, 132.214
8.68745, 104, 12.3096, -4.99938, 27.2539, -151.126, -79.491, 132.567
8.69538, 104, 12.2653, -4.27678, 26.8099, -150.971, -80.2062, 132.922
8.70339, 104, 12.2221, -3.5564, 26.371, -150.812, -80.9209, 133.277
8.71147, 104, 12.1798, -2.84093, 25.9372, -150.649, -81.6315, 133.633
8.71938, 104, 12.1389, -2.13119, 25.5092, -150.482, -82.3383, 133.99
8.72738, 104, 12.0991, -1.42856, 25.0883, -150.312, -83.0418, 134.345
8.73548, 104, 12.0603, -0.734372, 24.6758, -150.14, -83.7382, 134.699
8.74339, 104, 12.0226, -0.0503361, 24.2729, -149.966, -84.4246, 135.049
8.75138, 104, 11.9858, 0.623282, 23.8805, -149.79, -85.0991, 135.396
8.75948, 104, 11.9501, 1.2845, 23.5005, -149.614, -85.759, 135.738
8.76738, 104, 11.9156, 1.93261, 23.1328, -149.438, -86.4048, 136.075
8.77539, 104, 11.8823, 2.56596, 22.7777, -149.262, -87.0355, 136.405
8.78347, 104, 11.8498, 3.18314, 22.4347, -149.087, -87.6501, 136.728
8.79139, 104, 11.8187, 3.78421, 22.1053, -148.913, -88.2485, 137.045
8.79941, 104, 11.7891, 4.36812, 21.7885, -148.741, -88.829, 137.355
8.8075, 104, 11.7604, 4.93566, 21.4843, -148.569, -89.3924, 137.658
8.81547, 104, 11.7333, 5.48656, 21.1911, -148.4, -89.9406, 137.954
8.82349, 104, 11.7072, 6.02002, 20.9102, -148.232, -90.4724, 138.243
8.83155, 104, 11.6823, 6.53656, 20.6411, -148.067, -90.9877, 138.525
8.83949, 104, 11.6586, 7.03615, 20.3834, -147.904, -91.4867, 138.799
8.84748, 104, 11.636, 7.51886, 20.1375, -147.743, -91.9684, 139.066
8.85595, 104, 11.6146, 7.9852, 19.9022, -147.586, -92.4331, 139.325
8.86341, 104, 11.5943, 8.43468, 19.6779, -147.431, -92.8814, 139.577
8.87196, 104, 11.5752, 8.86698, 19.4647, -147.281, -93.3131, 139.821
8.87965, 104, 11.5572, 9.28187, 19.2616, -147.133, -93.728, 140.057
8.88747, 104, 11.5403, 9.67961, 19.0687, -146.991, -94.1257, 140.283
8.89555, 104, 11.5244, 10.0592, 18.8869, -146.852, -94.5063, 140.502
8.90371, 104, 11.5096, 10.42, 18.7155, -146.718, -94.8685, 140.711
8.91171, 104, 11.4958, 10.7615, 18.5543, -146.59, -95.2121, 140.91
8.91978, 104, 11.4831, 11.0841, 18.4039, -146.467, -95.5361, 141.098
8.92817, 104, 11.4713, 11.386, 18.2645, -146.351, -95.8398, 141.276
8.93588, 104, 11.4607, 11.6674, 18.1355, -146.242, -96.1227, 141.442
8.94446, 104, 11.451, 11.9277, 18.017, -146.139, -96.3844, 141.596
8.95198, 104, 11.4421, 12.1666, 17.9093, -146.045, -96.6244, 141.738
8.96057, 104, 11.434, 12.3845, 17.812, -145.959, -96.8425, 141.868
8.96811, 104, 11.4266, 12.5815, 17.7251, -145.88, -97.0386, 141.984
8.97618, 104, 11.4232, 12.672, 17.6855, -145.81, -97.2126, 142.088
8.98392, 104, 11.4171, 12.8371, 17.6139, -145.779, -97.2913, 142.135
8.99241, 104, 11.4089, 13.0471, 17.5249, -145.696, -97.4948, 142.257
8.99942, 104, 11.4064, 13.1075, 17.4999, -145.673, -97.552, 142.292
9.0074, 104, 11.4017, 13.2144, 17.4569, -145.633, -97.6509, 142.35
9.01542, 104, 11.3975, 13.3035, 17.422, -145.601, -97.7308, 142.398
9.02337, 104, 11.3937, 13.3768, 17.3947, -145.575, -97.7928, 142.436
9.03137, 104, 11.3901, 13.4361, 17.3744, -145.556, -97.839, 142.464
9.03943, 104, 11.387, 13.4832, 17.3596, -145.541, -97.8722, 142.484
9.04739, 104, 11.3844, 13.5191, 17.3494, -145.532, -97.8953, 142.498
9.05537, 104, 11.3823, 13.5458, 17.343, -145.526, -97.9104, 142.506
9.06342, 104, 11.3807, 13.5656, 17.339, -145.522, -97.9195, 142.511
9.07329, 104, 11.3789, 13.5845, 17.3361, -145.52, -97.9258, 142.514
9.07938, 104, 11.3785, 13.5887, 17.3356, -145.519, -97.9268, 142.515
9.08741, 105, 11.3778, 13.595, 17.3351, -145.519, -97.928, 142.515
9.09703, 105, 11.3771, 13.6005, 17.3347, -145.519, -97.9286, 142.516
9.10337, 105, 11.3769, 13.6018, 17.3347, -145.518, -97.9287, 142.516
9.11143, 105, 11.3766, 13.6039, 17.3346, -145.518, -97.9289, 142.516
9.1204, 105, 11.3764, 13.6058, 17.3346, -145.518, -97.9289, 142.516
9.12737, 105, 11.3763, 13.6074, 17.3346, -145.518, -97.9288, 142.516
9.13546, 105, 11.3761, 13.6088, 17.3346, -145.518, -97.9288, 142.516
9.14337, 105, 11.376, 13.61, 17.3346, -145.518, -97.9287, 142.516
9.15137, 105, 11.376, 13.611, 17.3347, -145.518, -97.9286, 142.516
9.15953, 105, 11.3759, 13.6119, 17.3347, -145.518, -97.9285, 142.516
9.16741, 105, 11.3759, 13.6125, 17.3347, -145.518, -97.9284, 142.516
9.17537, 105, 11.3759, 13.613, 17.3347, -145.519, -97.9283, 142.516
9.18344, 105, 11.3759, 13.6133, 17.3348, -145.519, -97.9281, 142.516
9.19137, 105, 11.3758, 13.6134, 17.3348, -145.519, -97.928, 142.516
9.19938, 105, 11.3758, 13.6135, 17.3349, -145.519, -97.9278, 142.516
9.20743, 105, 11.3759, 13.6135, 17.3349, -145.519, -97.9277, 142.516
