hehonglu123/Motion-Primitive-Planning/ILC/recorded_data/realrobot/from_NX/iteration_34/run_2.csv
timestamp, cmd_num, J1, J2, J3, J4, J5, J6
0.000362, -1, 39.6291, 32.447, 11.8316, 12.5436, 113.713, -48.8736
0.003709, -1, 39.6291, 32.447, 11.8316, 12.5436, 113.713, -48.8736
0.00799, -1, 39.6291, 32.447, 11.8316, 12.5436, 113.713, -48.8735
0.028636, -1, 39.6291, 32.447, 11.8316, 12.5436, 113.713, -48.8736
0.029911, -1, 39.6291, 32.447, 11.8316, 12.5436, 113.713, -48.8736
0.032712, -1, 39.6291, 32.447, 11.8316, 12.5436, 113.713, -48.8736
0.039803, -1, 39.6291, 32.447, 11.8316, 12.5436, 113.713, -48.8736
0.047756, -1, 39.6289, 32.447, 11.8316, 12.5437, 113.713, -48.8735
0.055799, -1, 39.6277, 32.4468, 11.8316, 12.5437, 113.713, -48.8736
0.063733, -1, 39.6239, 32.446, 11.8315, 12.5436, 113.713, -48.8736
0.071906, -1, 39.6169, 32.444, 11.8315, 12.5436, 113.713, -48.8744
0.079914, -1, 39.6061, 32.44, 11.8314, 12.5436, 113.712, -48.8769
0.088727, -1, 39.5899, 32.4331, 11.8314, 12.5436, 113.71, -48.884
0.096075, -1, 39.5659, 32.4226, 11.8316, 12.5437, 113.705, -48.8994
0.10276, -1, 39.5504, 32.4157, 11.8319, 12.5436, 113.701, -48.911
0.112931, -1, 39.4887, 32.3871, 11.836, 12.5436, 113.68, -48.9673
0.120183, -1, 39.433, 32.3601, 11.8425, 12.5436, 113.657, -49.0278
0.12833, -1, 39.3643, 32.3261, 11.8529, 12.5437, 113.624, -49.1106
0.137103, -1, 39.282, 32.2845, 11.8681, 12.5438, 113.582, -49.2175
0.142771, -1, 39.2357, 32.2607, 11.8777, 12.544, 113.558, -49.2808
0.152384, -1, 39.0759, 32.1775, 11.9129, 12.545, 113.469, -49.5081
0.161148, -1, 39.0156, 32.1458, 11.9268, 12.5463, 113.397, -49.6897
0.166785, -1, 38.885, 32.077, 11.9574, 12.5471, 113.358, -49.7885
0.176748, -1, 38.6663, 31.9618, 12.0093, 12.5501, 113.23, -50.1125
0.183682, -1, 38.5877, 31.9204, 12.0277, 12.5512, 113.184, -50.228
0.190764, -1, 38.4234, 31.8342, 12.0654, 12.5535, 113.089, -50.468
0.199742, -1, 38.2512, 31.744, 12.1043, 12.5559, 112.991, -50.7161
0.207735, -1, 38.0727, 31.6508, 12.1433, 12.5584, 112.891, -50.9694
0.214739, -1, 37.8892, 31.5554, 12.1822, 12.5608, 112.79, -51.2261
0.223691, -1, 37.7016, 31.4585, 12.221, 12.5632, 112.688, -51.4845
0.231694, -1, 37.5113, 31.3608, 12.2597, 12.5657, 112.585, -51.7441
0.239734, -1, 37.3197, 31.2628, 12.2985, 12.5682, 112.482, -52.0036
0.247687, -1, 37.1275, 31.1649, 12.3374, 12.5706, 112.38, -52.2632
0.255712, -1, 36.9353, 31.0672, 12.3761, 12.5733, 112.277, -52.5233
0.262695, -1, 36.7431, 30.9694, 12.4149, 12.5758, 112.174, -52.7837
0.271701, -1, 36.5513, 30.8716, 12.4538, 12.5784, 112.071, -53.0441
0.279707, -1, 36.3597, 30.774, 12.4926, 12.581, 111.968, -53.3045
0.287755, -1, 36.1681, 30.6761, 12.5315, 12.5835, 111.865, -53.5648
0.295757, -1, 35.9765, 30.5782, 12.5704, 12.5861, 111.762, -53.8254
0.303682, -1, 35.7849, 30.4802, 12.6093, 12.5887, 111.659, -54.0861
0.311758, -1, 35.5931, 30.3821, 12.6482, 12.5912, 111.556, -54.3463
0.32075, -1, 35.4011, 30.2839, 12.687, 12.5938, 111.453, -54.6066
0.326797, -1, 35.2087, 30.1856, 12.7258, 12.5964, 111.35, -54.8672
0.335807, -1, 35.0163, 30.0872, 12.7647, 12.5989, 111.247, -55.1281
0.343707, -1, 34.824, 29.9888, 12.8036, 12.6015, 111.144, -55.3886
0.351696, -1, 34.6318, 29.8902, 12.8424, 12.6041, 111.041, -55.6494
0.359685, -1, 34.4395, 29.7918, 12.8814, 12.6067, 110.938, -55.9103
0.367761, -1, 34.2475, 29.6934, 12.9203, 12.6093, 110.835, -56.1714
0.375791, -1, 34.0555, 29.5951, 12.9592, 12.6118, 110.732, -56.4321
0.383684, -1, 33.8638, 29.4968, 12.9982, 12.6145, 110.629, -56.6928
0.391774, -1, 33.672, 29.3985, 13.0371, 12.6172, 110.526, -56.9537
0.399683, -1, 33.48, 29.3001, 13.076, 12.6197, 110.422, -57.2148
0.407682, -1, 33.2876, 29.2017, 13.115, 12.6223, 110.319, -57.4759
0.415827, -1, 33.095, 29.1031, 13.1539, 12.6249, 110.216, -57.7367
0.423687, -1, 32.9021, 29.0046, 13.1927, 12.6276, 110.113, -57.9978
0.431717, -1, 32.7089, 28.906, 13.2317, 12.6302, 110.01, -58.2591
0.439755, -1, 32.5155, 28.8073, 13.2705, 12.6329, 109.907, -58.5205
0.447704, -1, 32.3218, 28.7086, 13.3094, 12.6356, 109.804, -58.7814
0.45574, -1, 32.1277, 28.6099, 13.3483, 12.6382, 109.701, -59.0424
0.463975, -1, 31.9338, 28.5111, 13.3872, 12.641, 109.598, -59.3036
0.471685, -1, 31.7401, 28.4122, 13.4261, 12.6436, 109.495, -59.5649
0.479775, -1, 31.5465, 28.3136, 13.4652, 12.6465, 109.392, -59.8262
0.61827, -1, 28.2631, 26.6353, 14.1279, 12.6921, 107.637, -64.2725
0.620492, -1, 28.1664, 26.586, 14.1474, 12.6933, 107.585, -64.4033
0.621808, -1, 28.1664, 26.586, 14.1474, 12.6933, 107.585, -64.4033
0.623011, -1, 28.1664, 26.586, 14.1474, 12.6933, 107.585, -64.4033
0.625712, -1, 28.0699, 26.5365, 14.1668, 12.6945, 107.533, -64.5343
0.626911, -1, 28.0699, 26.5365, 14.1668, 12.6945, 107.533, -64.5343
0.629023, -1, 27.9734, 26.4871, 14.1863, 12.6957, 107.482, -64.6652
0.632936, -1, 27.877, 26.4376, 14.2059, 12.697, 107.43, -64.7961
0.635067, -1, 27.877, 26.4376, 14.2059, 12.697, 107.43, -64.7961
0.63722, -1, 27.7806, 26.3882, 14.2254, 12.6982, 107.379, -64.9271
0.638462, -1, 27.7806, 26.3882, 14.2254, 12.6982, 107.379, -64.9271
0.640525, -1, 27.6843, 26.3388, 14.2449, 12.6995, 107.327, -65.0581
0.641792, -1, 27.6843, 26.3388, 14.2449, 12.6995, 107.327, -65.0581
0.643219, -1, 27.6843, 26.3388, 14.2449, 12.6995, 107.327, -65.0581
0.64527, -1, 27.5881, 26.2894, 14.2643, 12.7007, 107.275, -65.1889
0.650006, -1, 27.492, 26.2399, 14.2838, 12.7019, 107.223, -65.3196
0.651198, -1, 27.492, 26.2399, 14.2838, 12.7019, 107.223, -65.3196
0.653275, -1, 27.396, 26.1904, 14.3033, 12.7032, 107.172, -65.4505
0.65457, -1, 27.396, 26.1904, 14.3033, 12.7032, 107.172, -65.4505
0.656551, -1, 27.2999, 26.1409, 14.3229, 12.7044, 107.12, -65.5812
0.658888, -1, 27.2999, 26.1409, 14.3229, 12.7044, 107.12, -65.5812
0.66099, -1, 27.2038, 26.0914, 14.3424, 12.7055, 107.068, -65.712
0.665671, -1, 27.1076, 26.0419, 14.3618, 12.7066, 107.017, -65.8429
0.671671, -1, 27.0113, 25.9925, 14.3812, 12.7078, 106.965, -65.9737
0.678772, -1, 26.8188, 25.8937, 14.4202, 12.7102, 106.862, -66.2357
0.688823, -1, 26.529, 25.7454, 14.4786, 12.7135, 106.707, -66.6281
0.695729, -1, 26.4322, 25.696, 14.498, 12.7147, 106.655, -66.7591
0.702753, -1, 26.2384, 25.5971, 14.537, 12.7169, 106.552, -67.0208
0.711832, -1, 26.0443, 25.4983, 14.576, 12.7192, 106.449, -67.2828
0.719687, -1, 25.8501, 25.3994, 14.6149, 12.7215, 106.346, -67.5445
0.727725, -1, 25.6559, 25.3006, 14.6539, 12.7238, 106.243, -67.806
0.735725, -1, 25.462, 25.2018, 14.6929, 12.7261, 106.139, -68.0676
0.743671, -1, 25.2682, 25.1031, 14.7318, 12.7284, 106.036, -68.3295
0.750693, -1, 25.0748, 25.0043, 14.7709, 12.7307, 105.933, -68.5914
0.759718, -1, 24.8816, 24.9054, 14.8099, 12.733, 105.829, -68.8529
0.767666, -1, 24.6887, 24.8066, 14.8488, 12.7355, 105.726, -69.1146
0.774728, -1, 24.4961, 24.7078, 14.8878, 12.7379, 105.623, -69.3764
0.78367, -1, 24.3038, 24.6089, 14.9269, 12.7403, 105.52, -69.6381
0.791671, -1, 24.1113, 24.5101, 14.9658, 12.7426, 105.416, -69.8995
0.927624, -1, 20.829, 22.8311, 15.6278, 12.7854, 103.66, -74.3463
0.928822, -1, 20.829, 22.8311, 15.6278, 12.7854, 103.66, -74.3463
0.930948, -1, 20.7327, 22.7818, 15.6474, 12.7867, 103.609, -74.4769
0.932234, -1, 20.7327, 22.7818, 15.6474, 12.7867, 103.609, -74.4769
0.933517, -1, 20.7327, 22.7818, 15.6474, 12.7867, 103.609, -74.4769
0.93562, -1, 20.6364, 22.7325, 15.6668, 12.7881, 103.557, -74.6075
0.936885, -1, 20.6364, 22.7325, 15.6668, 12.7881, 103.557, -74.6075
0.93975, -1, 20.5401, 22.6832, 15.6863, 12.7895, 103.506, -74.7382
0.941003, -1, 20.5401, 22.6832, 15.6863, 12.7895, 103.506, -74.7382
0.943112, -1, 20.4435, 22.6339, 15.7057, 12.7908, 103.454, -74.8689
0.944421, -1, 20.4435, 22.6339, 15.7057, 12.7908, 103.454, -74.8689
0.945617, -1, 20.4435, 22.6339, 15.7057, 12.7908, 103.454, -74.8689
0.948433, -1, 20.3469, 22.5846, 15.7251, 12.7922, 103.403, -74.9996
0.949668, -1, 20.3469, 22.5846, 15.7251, 12.7922, 103.403, -74.9996
0.952468, -1, 20.2502, 22.5352, 15.7446, 12.7936, 103.351, -75.1302
0.955437, -1, 20.1534, 22.4859, 15.7641, 12.7949, 103.3, -75.2607
0.956752, -1, 20.1534, 22.4859, 15.7641, 12.7949, 103.3, -75.2607
0.958547, -1, 20.1534, 22.4859, 15.7641, 12.7949, 103.3, -75.3912
0.960022, -1, 20.0565, 22.4365, 15.7836, 12.7962, 103.248, -75.3912
0.961216, -1, 20.0565, 22.4365, 15.7836, 12.7962, 103.248, -75.3912
0.963224, -1, 19.9598, 22.3871, 15.8029, 12.7977, 103.196, -75.5218
0.967565, -1, 19.863, 22.3378, 15.8223, 12.799, 103.145, -75.6524
0.975935, -1, 19.6694, 22.2391, 15.8611, 12.8017, 103.042, -75.9136
0.983667, -1, 19.4759, 22.1406, 15.9001, 12.8044, 102.939, -76.175
0.991706, -1, 19.2827, 22.0419, 15.9389, 12.8071, 102.836, -76.4359
1.00003, -1, 19.0898, 21.9432, 15.9778, 12.8099, 102.733, -76.6968
1.00732, -1, 18.8971, 21.8446, 16.0167, 12.8127, 102.63, -76.9576
1.01584, -1, 18.7047, 21.7458, 16.0554, 12.8154, 102.527, -77.2186
1.02419, -1, 18.5128, 21.6472, 16.0942, 12.8182, 102.424, -77.4796
1.03127, -1, 18.3209, 21.5486, 16.1332, 12.8208, 102.321, -77.7402
1.03976, -1, 18.1289, 21.4501, 16.172, 12.8234, 102.219, -78.0009
1.04847, -1, 17.937, 21.3517, 16.2108, 12.826, 102.116, -78.2617
1.05573, -1, 17.7452, 21.2534, 16.2497, 12.8286, 102.012, -78.5225
1.0637, -1, 17.553, 21.1551, 16.2886, 12.8311, 101.91, -78.7829
1.07259, -1, 17.3604, 21.0567, 16.3274, 12.8336, 101.807, -79.0434
1.07977, -1, 17.1674, 20.9584, 16.3662, 12.836, 101.703, -79.3039
1.08784, -1, 16.9744, 20.8601, 16.4049, 12.8385, 101.601, -79.5647
1.09691, -1, 16.7814, 20.7619, 16.4438, 12.8408, 101.498, -79.825
1.10396, -1, 16.5884, 20.6637, 16.4825, 12.8431, 101.395, -80.0855
1.1121, -1, 16.3955, 20.5654, 16.5212, 12.8454, 101.293, -80.3461
1.11867, -1, 16.2991, 20.5163, 16.5406, 12.8466, 101.241, -80.4765
1.12673, -1, 16.1069, 20.4179, 16.5793, 12.849, 101.139, -80.7371
1.13625, -1, 15.819, 20.2702, 16.6374, 12.8524, 100.985, -81.1272
1.14508, -1, 15.6274, 20.1717, 16.6761, 12.8548, 100.882, -81.3871
1.15226, -1, 15.4362, 20.0734, 16.7147, 12.8571, 100.779, -81.6473
1.16028, -1, 15.2449, 19.9752, 16.7534, 12.8594, 100.677, -81.9074
1.16913, -1, 15.1493, 19.926, 16.7729, 12.8606, 100.574, -82.1671
1.17473, -1, 14.9581, 19.8278, 16.8115, 12.8628, 100.523, -82.2971
1.1847, -1, 14.6711, 19.6806, 16.8696, 12.8663, 100.369, -82.6871
1.19167, -1, 14.5753, 19.6315, 16.8889, 12.8674, 100.318, -82.8172
1.19873, -1, 14.3835, 19.5334, 16.9276, 12.8697, 100.215, -83.077
1.2077, -1, 14.1913, 19.4354, 16.9663, 12.872, 100.113, -83.3364
1.21572, -1, 13.999, 19.3374, 17.005, 12.8743, 100.01, -83.596
1.22371, -1, 13.8067, 19.2396, 17.0435, 12.8765, 99.9076, -83.8556
1.23165, -1, 13.6142, 19.1418, 17.0822, 12.8789, 99.8051, -84.1151
1.23966, -1, 13.4219, 19.0439, 17.1209, 12.8812, 99.7025, -84.3743
1.2467, -1, 13.2299, 18.946, 17.1594, 12.8835, 99.6004, -84.6336
1.25572, -1, 13.0383, 18.8481, 17.198, 12.8859, 99.4979, -84.893
1.26365, -1, 12.8471, 18.75, 17.2367, 12.8882, 99.3954, -85.1524
1.27173, -1, 12.656, 18.6521, 17.2752, 12.8906, 99.2933, -85.4114
1.27966, -1, 12.4653, 18.5543, 17.3137, 12.893, 99.1909, -85.6703
1.28768, -1, 12.2751, 18.4565, 17.3523, 12.8954, 99.0886, -85.9292
1.29571, -1, 12.0849, 18.3587, 17.3907, 12.8979, 98.9866, -86.1883
1.30525, -1, 11.8945, 18.2611, 17.4294, 12.9003, 98.8844, -86.4469
1.31207, -1, 11.704, 18.1635, 17.468, 12.9027, 98.7826, -86.7054
1.31965, -1, 11.5132, 18.0659, 17.5065, 12.9051, 98.6808, -86.964
1.32867, -1, 11.3222, 17.9683, 17.5451, 12.9076, 98.5787, -87.2227
1.33646, -1, 11.1309, 17.8708, 17.5836, 12.91, 98.4769, -87.4812
1.34366, -1, 10.9395, 17.7733, 17.6221, 12.9125, 98.375, -87.7393
1.35169, -1, 10.7479, 17.6759, 17.6606, 12.915, 98.2729, -87.9976
1.36044, -1, 10.5563, 17.5784, 17.699, 12.9175, 98.1711, -88.2559
1.36669, -1, 10.365, 17.4808, 17.7374, 12.9201, 98.0693, -88.5142
1.37566, -1, 10.1739, 17.3833, 17.7759, 12.9225, 97.9673, -88.7722
1.3845, -1, 9.98333, 17.2857, 17.8143, 12.9252, 97.8656, -89.0303
1.39076, -1, 9.7931, 17.1881, 17.8526, 12.9278, 97.7636, -89.2886
1.39969, -1, 9.60314, 17.0906, 17.891, 12.9304, 97.6617, -89.5468
1.40845, -1, 9.41375, 16.9933, 17.9293, 12.9332, 97.5599, -89.8045
1.41565, -1, 9.22445, 16.8959, 17.9676, 12.9359, 97.4578, -90.0622
1.42365, -1, 9.03509, 16.7986, 18.0061, 12.9386, 97.356, -90.3197
1.43246, -1, 8.84568, 16.7015, 18.0444, 12.9412, 97.2544, -90.5773
1.43965, -1, 8.65605, 16.6043, 18.0828, 12.9438, 97.1526, -90.8349
1.44767, -1, 8.46638, 16.5071, 18.1212, 12.9465, 97.051, -91.0919
1.45649, -1, 8.27636, 16.4101, 18.1595, 12.9492, 96.9497, -91.3491
1.46365, -1, 8.08589, 16.3132, 18.1979, 12.9518, 96.848, -91.6064
1.47172, -1, 7.89546, 16.2163, 18.2362, 12.9545, 96.7465, -91.8636
1.48048, -1, 7.70494, 16.1194, 18.2744, 12.9571, 96.6451, -92.1204
1.48766, -1, 7.51445, 16.0224, 18.3128, 12.9598, 96.5436, -92.3769
1.49585, -1, 7.32417, 15.9254, 18.351, 12.9623, 96.4422, -92.6338
1.50454, -1, 7.13417, 15.8284, 18.3891, 12.9649, 96.341, -92.8906
1.51175, -1, 6.94454, 15.7314, 18.4274, 12.9676, 96.2396, -93.1471
1.52012, -1, 6.75533, 15.6345, 18.4657, 12.97, 96.1386, -93.4035
1.52722, -1, 6.56663, 15.5377, 18.5037, 12.9726, 96.0378, -93.6599
1.53526, -1, 6.37831, 15.441, 18.5418, 12.9751, 95.9366, -93.9164
1.54425, -1, 6.19016, 15.3443, 18.58, 12.9776, 95.8357, -94.1726
1.5526, -1, 6.00195, 15.2476, 18.6181, 12.9801, 95.7349, -94.4285
1.5597, -1, 5.81353, 15.1509, 18.6563, 12.9824, 95.6338, -94.6844
1.56844, -1, 5.6251, 15.0542, 18.6944, 12.9847, 95.533, -94.9404
1.57657, -1, 5.4365, 14.9576, 18.7324, 12.987, 95.4323, -95.1962
1.58375, -1, 5.24753, 14.8611, 18.7707, 12.9893, 95.3315, -95.4516
1.59273, -1, 5.05823, 14.7648, 18.8088, 12.9916, 95.2309, -95.7071
1.60066, -1, 4.86884, 14.6684, 18.8467, 12.9939, 95.1302, -95.9626
1.60822, -1, 4.67947, 14.572, 18.8848, 12.9961, 95.0294, -96.2181
1.61679, -1, 4.49013, 14.4756, 18.9229, 12.9983, 94.9287, -96.4731
1.62406, -1, 4.30112, 14.3793, 18.9609, 13.0006, 94.8279, -96.728
1.63223, -1, 4.11225, 14.2828, 18.9989, 13.0027, 94.7269, -96.983
1.64101, -1, 3.92382, 14.1865, 19.0368, 13.0052, 94.6263, -97.2382
1.6482, -1, 3.73606, 14.0903, 19.0747, 13.0073, 94.5254, -97.4929
1.6568, -1, 3.54871, 13.9941, 19.1127, 13.0096, 94.4246, -97.7476
1.66424, -1, 3.45516, 13.9461, 19.1506, 13.012, 94.3242, -98.0024
1.67226, -1, 3.26821, 13.85, 19.1695, 13.0131, 94.2738, -98.2572
1.68021, -1, 3.08118, 13.754, 19.2073, 13.0154, 94.173, -98.3845
1.68769, -1, 2.89416, 13.6579, 19.2453, 13.0176, 94.0724, -98.6389
1.69563, -1, 2.70711, 13.5619, 19.2832, 13.0199, 93.9718, -98.893
1.70485, -1, 2.42612, 13.4179, 19.34, 13.0233, 93.8211, -99.2742
1.71165, -1, 2.33238, 13.37, 19.3588, 13.0245, 93.7711, -99.4014
1.71969, -1, 2.14456, 13.2742, 19.3966, 13.0267, 93.6707, -99.6554
1.7277, -1, 1.95647, 13.1783, 19.4346, 13.0289, 93.5705, -99.909
1.73564, -1, 1.76835, 13.0825, 19.4723, 13.0313, 93.4707, -100.163
1.74365, -1, 1.58004, 12.9866, 19.51, 13.0335, 93.3705, -100.416
1.75169, -1, 1.39196, 12.8908, 19.5479, 13.0357, 93.2704, -100.67
1.75964, -1, 1.20418, 12.795, 19.5856, 13.038, 93.1706, -100.923
1.76764, -1, 1.01671, 12.6993, 19.6233, 13.0404, 93.0704, -101.176
1.7757, -1, 0.82992, 12.6038, 19.661, 13.0428, 92.9705, -101.429
1.78365, -1, 0.643685, 12.5082, 19.6986, 13.0451, 92.8709, -101.682
1.79164, -1, 0.457692, 12.4127, 19.7362, 13.0475, 92.7709, -101.935
1.80063, -1, 0.271993, 12.3174, 19.774, 13.05, 92.6712, -102.188
1.80764, -1, 0.0865245, 12.222, 19.8115, 13.0525, 92.572, -102.44
1.81663, -1, -0.0988788, 12.1267, 19.8491, 13.0548, 92.4722, -102.693
1.82376, -1, -0.284431, 12.0315, 19.8867, 13.0573, 92.3727, -102.946
1.8327, -1, -0.47036, 11.9363, 19.9243, 13.0598, 92.2734, -103.198
1.83968, -1, -0.656573, 11.8412, 19.9618, 13.0622, 92.1738, -103.45
1.84764, -1, -0.842945, 11.7462, 19.9994, 13.0647, 92.0743, -103.702
1.85568, -1, -1.0296, 11.6512, 20.0368, 13.0672, 91.9751, -103.954
1.8637, -1, -1.21642, 11.5561, 20.0743, 13.0697, 91.8757, -104.206
1.87163, -1, -1.40344, 11.461, 20.1119, 13.0723, 91.7764, -104.457
1.87965, -1, -1.5901, 11.3659, 20.1493, 13.0748, 91.6774, -104.709
1.88775, -1, -1.77652, 11.2708, 20.1866, 13.0774, 91.578, -104.96
1.89563, -1, -1.96259, 11.1758, 20.2241, 13.08, 91.4789, -105.212
1.90368, -1, -2.14803, 11.0809, 20.2615, 13.0827, 91.3798, -105.463
1.91171, -1, -2.333, 10.986, 20.2989, 13.0853, 91.2806, -105.713
1.91964, -1, -2.51767, 10.8912, 20.3363, 13.0879, 91.1815, -105.965
1.92764, -1, -2.70181, 10.7965, 20.3736, 13.0906, 91.0824, -106.216
1.9357, -1, -2.88565, 10.7017, 20.4109, 13.0933, 90.9834, -106.466
1.94363, -1, -3.06963, 10.607, 20.4483, 13.0959, 90.8844, -106.717
1.95164, -1, -3.2538, 10.5123, 20.4855, 13.0985, 90.7855, -106.967
1.95971, -1, -3.43825, 10.4178, 20.5227, 13.101, 90.6866, -107.218
1.96764, -1, -3.62298, 10.3234, 20.5601, 13.1036, 90.5878, -107.469
1.97572, -1, -3.80788, 10.2291, 20.5973, 13.1062, 90.4889, -107.719
1.98363, -1, -3.9931, 10.1346, 20.6346, 13.1086, 90.3902, -107.968
1.99164, -1, -4.17845, 10.0403, 20.6718, 13.1111, 90.2916, -108.218
1.99994, -1, -4.36412, 9.94601, 20.7089, 13.1135, 90.1929, -108.469
2.00773, -1, -4.54954, 9.85164, 20.7461, 13.1159, 90.0944, -108.718
2.0158, -1, -4.73469, 9.75738, 20.7834, 13.1181, 89.996, -108.967
2.02404, -1, -4.91947, 9.66321, 20.8204, 13.1206, 89.8975, -109.217
2.03126, -1, -5.10366, 9.56922, 20.8575, 13.1231, 89.7991, -109.466
2.03985, -1, -5.28722, 9.47513, 20.8947, 13.1254, 89.7007, -109.716
2.04818, -1, -5.4704, 9.38119, 20.9317, 13.1277, 89.6023, -109.964
2.0557, -1, -5.65315, 9.28725, 20.9688, 13.13, 89.5039, -110.213
2.06374, -1, -5.83556, 9.19332, 21.006, 13.1323, 89.4059, -110.462
2.07249, -1, -6.01784, 9.09947, 21.0429, 13.1346, 89.3077, -110.711
2.07976, -1, -6.20037, 9.00559, 21.0799, 13.1368, 89.2095, -110.959
2.08789, -1, -6.38316, 8.91188, 21.117, 13.1391, 89.1118, -111.207
2.09667, -1, -6.56622, 8.81826, 21.1538, 13.1412, 89.0137, -111.456
2.10389, -1, -6.74948, 8.72457, 21.1906, 13.1433, 88.9158, -111.704
2.11207, -1, -6.93323, 8.63098, 21.2276, 13.1454, 88.818, -111.952
2.11869, -1, -7.02516, 8.58416, 21.2461, 13.1465, 88.769, -112.076
2.12674, -1, -7.20936, 8.49057, 21.2829, 13.1487, 88.6711, -112.324
2.1363, -1, -7.48553, 8.35005, 21.3383, 13.1519, 88.5245, -112.695
2.14499, -1, -7.66923, 8.25654, 21.375, 13.1541, 88.4269, -112.943
2.15218, -1, -7.85249, 8.16315, 21.4118, 13.1562, 88.3295, -113.19
2.16045, -1, -8.03547, 8.06977, 21.4486, 13.1585, 88.2322, -113.437
2.16902, -1, -8.12671, 8.02313, 21.467, 13.1608, 88.1347, -113.684
2.17627, -1, -8.30863, 7.92987, 21.5037, 13.1618, 88.086, -113.931
2.18423, -1, -8.49007, 7.8366, 21.5405, 13.1641, 87.9886, -114.055
2.19166, -1, -8.67109, 7.74341, 21.5773, 13.1664, 87.8913, -114.301
2.1987, -1, -8.85176, 7.65021, 21.6139, 13.1686, 87.7938, -114.548
2.20767, -1, -9.03251, 7.55711, 21.6507, 13.1708, 87.6964, -114.794
2.21564, -1, -9.21349, 7.46409, 21.6874, 13.1731, 87.5993, -115.041
2.22263, -1, -9.39476, 7.37125, 21.724, 13.1753, 87.5022, -115.287
2.23163, -1, -9.57641, 7.27842, 21.7607, 13.1775, 87.4051, -115.533
2.23962, -1, -9.75832, 7.18561, 21.7973, 13.1798, 87.3079, -115.779
2.24663, -1, -9.94063, 7.09284, 21.8338, 13.182, 87.2107, -116.025
2.25563, -1, -10.1231, 7.0001, 21.8704, 13.1842, 87.1135, -116.271
2.26362, -1, -10.3058, 6.90735, 21.9071, 13.1865, 87.0164, -116.517
2.27063, -1, -10.4884, 6.81457, 21.9436, 13.1886, 86.9192, -116.762
2.27963, -1, -10.6707, 6.72186, 21.9803, 13.1909, 86.8221, -117.008
2.28762, -1, -10.8525, 6.6293, 22.0167, 13.1933, 86.7254, -117.253
2.29569, -1, -11.0338, 6.5367, 22.0531, 13.1958, 86.6285, -117.498
2.30363, -1, -11.2143, 6.44418, 22.0897, 13.1982, 86.5318, -117.743
2.31262, -1, -11.3943, 6.35172, 22.1262, 13.2006, 86.4353, -117.988
2.31969, -1, -11.5739, 6.25929, 22.1626, 13.2029, 86.3384, -118.233
2.32879, -1, -11.7532, 6.16689, 22.1992, 13.2054, 86.2418, -118.478
2.33562, -1, -11.9325, 6.07458, 22.2356, 13.2079, 86.1452, -118.722
2.34371, -1, -12.1117, 5.98232, 22.272, 13.2103, 86.0485, -118.966
2.35163, -1, -12.291, 5.89024, 22.3085, 13.2128, 85.9522, -119.21
2.35972, -1, -12.4709, 5.7982, 22.3449, 13.2153, 85.8559, -119.455
2.36762, -1, -12.6512, 5.70618, 22.3811, 13.2177, 85.7596, -119.699
2.37562, -1, -12.8318, 5.6142, 22.4175, 13.2202, 85.6634, -119.942
2.38369, -1, -13.0128, 5.52235, 22.4539, 13.2227, 85.5676, -120.186
2.39168, -1, -13.1939, 5.43034, 22.4901, 13.2252, 85.4715, -120.43
2.4008, -1, -13.3752, 5.33835, 22.5264, 13.2276, 85.3756, -120.673
2.40762, -1, -13.556, 5.24649, 22.5627, 13.2301, 85.28, -120.917
2.41568, -1, -13.7365, 5.15462, 22.5988, 13.2326, 85.184, -121.16
2.42362, -1, -13.9165, 5.06277, 22.6349, 13.2352, 85.0882, -121.403
2.43163, -1, -14.0957, 4.97104, 22.6712, 13.2378, 84.9929, -121.646
2.43968, -1, -14.2742, 4.87933, 22.7073, 13.2403, 84.8971, -121.889
2.44763, -1, -14.4524, 4.78765, 22.7434, 13.2429, 84.8015, -122.131
2.45562, -1, -14.6301, 4.69599, 22.7797, 13.2454, 84.706, -122.374
2.46369, -1, -14.8078, 4.60445, 22.8158, 13.248, 84.6102, -122.616
2.47164, -1, -14.9854, 4.51295, 22.8518, 13.2504, 84.5145, -122.859
2.47964, -1, -15.1632, 4.42159, 22.888, 13.2529, 84.4189, -123.101
2.48769, -1, -15.3413, 4.33032, 22.9241, 13.2553, 84.3232, -123.342
2.49572, -1, -15.5199, 4.23898, 22.9601, 13.2577, 84.2275, -123.584
2.50366, -1, -15.699, 4.14769, 22.9962, 13.26, 84.1322, -123.826
2.51181, -1, -15.8782, 4.05649, 23.0321, 13.2623, 84.0366, -124.068
2.51995, -1, -16.0575, 3.96522, 23.0681, 13.2645, 83.9411, -124.309
2.52775, -1, -16.2374, 3.87391, 23.1042, 13.2666, 83.8459, -124.551
2.53578, -1, -16.4169, 3.78272, 23.1401, 13.2688, 83.7503, -124.792
2.54412, -1, -16.5962, 3.69153, 23.1759, 13.271, 83.6548, -125.033
2.55262, -1, -16.7749, 3.60041, 23.2118, 13.2733, 83.5596, -125.275
2.55967, -1, -16.9529, 3.50939, 23.2477, 13.2756, 83.464, -125.515
2.56832, -1, -17.1301, 3.4184, 23.2835, 13.2778, 83.3687, -125.756
2.57596, -1, -17.3068, 3.32747, 23.3195, 13.28, 83.2738, -125.997
2.58368, -1, -17.4833, 3.23662, 23.3553, 13.2821, 83.1784, -126.238
2.59254, -1, -17.6595, 3.14586, 23.391, 13.2843, 83.0836, -126.478
2.59991, -1, -17.8355, 3.05525, 23.427, 13.2864, 82.9889, -126.718
2.60786, -1, -18.0116, 2.96469, 23.4628, 13.2885, 82.894, -126.958
2.61674, -1, -18.1879, 2.87429, 23.4985, 13.2907, 82.7992, -127.199
2.62426, -1, -18.3646, 2.78388, 23.5344, 13.2928, 82.7046, -127.438
2.63213, -1, -18.5419, 2.69345, 23.5701, 13.2948, 82.6099, -127.678
2.64095, -1, -18.7194, 2.60305, 23.6057, 13.2968, 82.5153, -127.917
2.64817, -1, -18.8972, 2.51266, 23.6415, 13.2989, 82.4209, -128.157
2.65618, -1, -19.0754, 2.42218, 23.6772, 13.3009, 82.3264, -128.397
2.66501, -1, -19.2536, 2.33173, 23.7127, 13.3029, 82.232, -128.636
2.67241, -1, -19.3427, 2.24132, 23.7484, 13.3049, 82.138, -128.875
2.68015, -1, -19.5204, 2.19614, 23.7662, 13.306, 82.0911, -128.994
2.68761, -1, -19.6974, 2.10576, 23.8016, 13.3082, 81.9967, -129.234
2.69569, -1, -19.874, 2.0155, 23.837, 13.3104, 81.9024, -129.473
2.70361, -1, -20.0498, 1.92523, 23.8727, 13.3125, 81.8086, -129.712
2.71164, -1, -20.225, 1.83503, 23.9082, 13.3147, 81.7143, -129.95
2.71973, -1, -20.3999, 1.7449, 23.9436, 13.3169, 81.6202, -130.188
2.72766, -1, -20.5746, 1.65485, 23.9792, 13.3191, 81.5265, -130.427
2.73561, -1, -20.749, 1.56492, 24.0147, 13.3213, 81.4325, -130.665
2.74366, -1, -20.9236, 1.47502, 24.0501, 13.3235, 81.3388, -130.903
2.7516, -1, -21.0985, 1.38528, 24.0856, 13.3257, 81.2452, -131.141
2.7596, -1, -21.2739, 1.2955, 24.1211, 13.3278, 81.1513, -131.379
2.76761, -1, -21.4496, 1.20577, 24.1564, 13.33, 81.0574, -131.616
2.77561, -1, -21.6256, 1.11612, 24.1918, 13.3322, 80.9636, -131.854
2.78263, -1, -21.8018, 1.02647, 24.2272, 13.3344, 80.8697, -132.091
2.7916, -1, -21.9782, 0.936829, 24.2626, 13.3366, 80.7759, -132.329
2.7996, -1, -22.1547, 0.847238, 24.2979, 13.3388, 80.6824, -132.566
2.8086, -1, -22.3313, 0.757684, 24.3333, 13.3409, 80.5887, -132.803
2.8156, -1, -22.5073, 0.668191, 24.3685, 13.3431, 80.4951, -133.04
2.8246, -1, -22.6829, 0.578704, 24.4037, 13.3455, 80.4015, -133.277
2.83168, -1, -22.8579, 0.489327, 24.4389, 13.3479, 80.3079, -133.514
2.84066, -1, -23.0319, 0.399901, 24.4741, 13.3503, 80.2143, -133.751
2.84764, -1, -23.2056, 0.310556, 24.5092, 13.3528, 80.1208, -133.988
2.85568, -1, -23.3789, 0.221228, 24.5444, 13.3553, 80.0274, -134.224
2.86364, -1, -23.552, 0.132001, 24.5796, 13.3576, 79.934, -134.46
2.8716, -1, -23.7252, 0.0428726, 24.6147, 13.36, 79.8407, -134.696
2.8797, -1, -23.8986, -0.0462006, 24.6499, 13.3624, 79.7478, -134.933
2.88761, -1, -24.0721, -0.135137, 24.685, 13.3649, 79.6544, -135.169
2.89562, -1, -24.2459, -0.224166, 24.72, 13.3673, 79.5614, -135.404
2.90369, -1, -24.42, -0.313126, 24.7552, 13.3698, 79.4685, -135.64
2.9116, -1, -24.5944, -0.401956, 24.7903, 13.3722, 79.3753, -135.875
2.9196, -1, -24.7692, -0.490876, 24.8253, 13.3746, 79.2822, -136.111
2.92768, -1, -24.9443, -0.579756, 24.8603, 13.377, 79.1894, -136.346
2.9356, -1, -25.1194, -0.668576, 24.8954, 13.3794, 79.0963, -136.582
2.94361, -1, -25.2941, -0.757352, 24.9304, 13.3818, 79.0034, -136.816
2.95168, -1, -25.4684, -0.84615, 24.9655, 13.3842, 78.9109, -137.051
2.95963, -1, -25.6424, -0.934933, 25.0005, 13.3867, 78.818, -137.287
2.9676, -1, -25.8156, -1.02361, 25.0352, 13.3891, 78.7253, -137.521
2.97568, -1, -25.9883, -1.1123, 25.0702, 13.3915, 78.633, -137.756
2.98362, -1, -26.1605, -1.20099, 25.1052, 13.394, 78.5404, -137.99
2.99167, -1, -26.3324, -1.28955, 25.14, 13.3963, 78.4479, -138.225
2.99975, -1, -26.5041, -1.37806, 25.1749, 13.3987, 78.3553, -138.459
3.00764, -1, -26.6761, -1.46644, 25.2099, 13.401, 78.2629, -138.694
3.01577, -1, -26.8482, -1.55475, 25.2447, 13.4033, 78.1705, -138.928
3.02394, -1, -27.0205, -1.64296, 25.2795, 13.4055, 78.078, -139.161
3.03176, -1, -27.1931, -1.73119, 25.3144, 13.4076, 77.9861, -139.396
3.03978, -1, -27.3658, -1.8194, 25.3492, 13.4099, 77.8938, -139.63
3.04813, -1, -27.5389, -1.90746, 25.3839, 13.4121, 77.8018, -139.863
3.05561, -1, -27.712, -1.99565, 25.4187, 13.4141, 77.71, -140.096
3.06376, -1, -27.8853, -2.08377, 25.4536, 13.4162, 77.6178, -140.33
3.07241, -1, -28.0587, -2.1718, 25.4883, 13.4183, 77.5257, -140.563
3.07967, -1, -28.2318, -2.25981, 25.523, 13.4203, 77.4339, -140.797
3.08775, -1, -28.4048, -2.34789, 25.5579, 13.4224, 77.3416, -141.03
3.0967, -1, -28.5775, -2.43592, 25.5925, 13.4246, 77.2495, -141.262
3.10397, -1, -28.7497, -2.52387, 25.6272, 13.4267, 77.1577, -141.495
3.11187, -1, -28.921, -2.61188, 25.6619, 13.4289, 77.0657, -141.728
3.1208, -1, -29.0917, -2.6998, 25.6965, 13.4311, 76.9737, -141.961
3.12816, -1, -29.2623, -2.78766, 25.7311, 13.4331, 76.882, -142.193
3.13606, -1, -29.4329, -2.87542, 25.7658, 13.4352, 76.79, -142.425
3.14491, -1, -29.6037, -2.96303, 25.8004, 13.4373, 76.6982, -142.658
3.15223, -1, -29.7746, -3.05058, 25.8349, 13.4393, 76.6064, -142.891
3.16019, -1, -29.9456, -3.13808, 25.8695, 13.4414, 76.5147, -143.123
3.16819, -1, -30.0311, -3.22556, 25.9041, 13.4435, 76.4229, -143.355
3.17624, -1, -30.2021, -3.26933, 25.9214, 13.4455, 76.3311, -143.586
3.18416, -1, -30.3733, -3.35672, 25.9559, 13.4465, 76.2855, -143.702
3.19164, -1, -30.5448, -3.44416, 25.9905, 13.4486, 76.1939, -143.934
3.19964, -1, -30.7166, -3.53167, 26.025, 13.4506, 76.1025, -144.166
3.20764, -1, -30.8884, -3.61904, 26.0594, 13.4526, 76.0112, -144.397
3.2156, -1, -31.0602, -3.70644, 26.094, 13.4546, 75.9198, -144.629
3.22361, -1, -31.2319, -3.79377, 26.1285, 13.4567, 75.8283, -144.86
3.23166, -1, -31.4032, -3.88111, 26.1629, 13.4588, 75.7371, -145.092
3.23959, -1, -31.574, -3.96838, 26.1974, 13.461, 75.6459, -145.323
3.2476, -1, -31.7445, -4.05566, 26.2318, 13.4631, 75.5546, -145.554
3.25565, -1, -31.9146, -4.14293, 26.2662, 13.4653, 75.4635, -145.784
3.26358, -1, -32.0842, -4.2301, 26.3006, 13.4675, 75.3725, -146.015
3.27161, -1, -32.2536, -4.31724, 26.3351, 13.4698, 75.2813, -146.246
3.27965, -1, -32.4231, -4.40432, 26.3693, 13.4719, 75.1902, -146.477
3.28759, -1, -32.5927, -4.49124, 26.4036, 13.474, 75.0996, -146.707
3.29565, -1, -32.7624, -4.57815, 26.4381, 13.4762, 75.0086, -146.937
3.30368, -1, -32.932, -4.66506, 26.4723, 13.4784, 74.9177, -147.168
3.31159, -1, -33.1017, -4.75199, 26.5065, 13.4805, 74.8273, -147.398
3.32061, -1, -33.2715, -4.8388, 26.5409, 13.4827, 74.7364, -147.628
3.32765, -1, -33.4416, -4.92564, 26.5752, 13.4849, 74.6459, -147.858
3.3356, -1, -33.6119, -5.01258, 26.6093, 13.4871, 74.5553, -148.088
3.34402, -1, -33.7822, -5.09938, 26.6436, 13.4894, 74.4648, -148.318
3.3516, -1, -33.9524, -5.18611, 26.6778, 13.4916, 74.3742, -148.548
3.35959, -1, -34.1226, -5.27287, 26.7119, 13.4938, 74.2837, -148.777
3.36839, -1, -34.2927, -5.35957, 26.7461, 13.4961, 74.1933, -149.007
3.37559, -1, -34.4628, -5.44618, 26.7804, 13.4984, 74.1026, -149.236
3.38359, -1, -34.6324, -5.53287, 26.8144, 13.5008, 74.012, -149.465
3.39172, -1, -34.8013, -5.6195, 26.8485, 13.5032, 73.9216, -149.695
3.39961, -1, -34.9699, -5.70608, 26.8827, 13.5056, 73.831, -149.924
3.40758, -1, -35.1382, -5.79257, 26.9168, 13.5081, 73.7405, -150.152
3.41678, -1, -35.3064, -5.87899, 26.9508, 13.5106, 73.6504, -150.381
3.42359, -1, -35.4748, -5.96524, 26.985, 13.5129, 73.56, -150.61
3.43167, -1, -35.6434, -6.05143, 27.019, 13.5153, 73.4696, -150.839
3.43966, -1, -35.8119, -6.13763, 27.053, 13.5177, 73.3795, -151.068
3.44858, -1, -35.9804, -6.22379, 27.0871, 13.5201, 73.2889, -151.296
3.45565, -1, -36.1489, -6.3099, 27.1211, 13.5224, 73.1986, -151.525
3.46363, -1, -36.3175, -6.39608, 27.1551, 13.5249, 73.1082, -151.753
3.4716, -1, -36.4862, -6.48232, 27.189, 13.5273, 73.0178, -151.982
3.47967, -1, -36.6551, -6.56851, 27.223, 13.5295, 72.9275, -152.21
3.48767, -1, -36.8239, -6.65472, 27.2569, 13.5319, 72.8373, -152.438
3.49559, -1, -36.993, -6.74084, 27.2908, 13.5341, 72.7474, -152.666
3.50369, -1, -37.1619, -6.82707, 27.3248, 13.5364, 72.6572, -152.894
3.5118, -1, -37.3306, -6.91315, 27.3586, 13.5387, 72.5674, -153.122
3.51969, -1, -37.4991, -6.99919, 27.3925, 13.541, 72.4776, -153.349
3.52775, -1, -37.6671, -7.08526, 27.4265, 13.5432, 72.3875, -153.577
3.53583, -1, -37.8347, -7.17128, 27.4604, 13.5454, 72.2978, -153.804
3.5437, -1, -38.0022, -7.25725, 27.4942, 13.5477, 72.2082, -154.032
3.55176, -1, -38.1696, -7.34316, 27.5281, 13.5499, 72.1183, -154.259
3.56017, -1, -38.3369, -7.42896, 27.562, 13.5521, 72.0286, -154.486
3.56765, -1, -38.5042, -7.51467, 27.5958, 13.5542, 71.9391, -154.713
3.57568, -1, -38.6714, -7.60043, 27.6297, 13.5563, 71.8493, -154.941
3.58363, -1, -38.8388, -7.68616, 27.6636, 13.5584, 71.7598, -155.168
3.59183, -1, -39.0061, -7.77184, 27.6972, 13.5604, 71.6704, -155.395
3.59986, -1, -39.1735, -7.85747, 27.731, 13.5625, 71.5813, -155.622
3.60782, -1, -39.341, -7.94318, 27.7649, 13.5645, 71.4918, -155.848
3.61592, -1, -39.5085, -8.02882, 27.7986, 13.5665, 71.4024, -156.075
3.62405, -1, -39.6761, -8.11436, 27.8322, 13.5684, 71.3133, -156.302
3.6306, -1, -39.76, -8.15712, 27.8491, 13.5694, 71.2685, -156.415
3.6402, -1, -40.0114, -8.28533, 27.8997, 13.5723, 71.1343, -156.755
3.64823, -1, -40.179, -8.37072, 27.9333, 13.5743, 71.0452, -156.981
3.65613, -1, -40.3464, -8.45608, 27.9671, 13.5763, 70.9558, -157.207
3.66414, -1, -40.5135, -8.54148, 28.0008, 13.5782, 70.8666, -157.434
3.67224, -1, -40.6806, -8.62686, 28.0344, 13.5802, 70.7775, -157.659
3.68015, -1, -40.764, -8.66954, 28.0511, 13.5812, 70.733, -157.885
3.68834, -1, -40.9305, -8.75488, 28.0848, 13.5832, 70.6437, -157.998
3.69563, -1, -41.0968, -8.84022, 28.1185, 13.5853, 70.5545, -158.224
3.70361, -1, -41.263, -8.92545, 28.1521, 13.5872, 70.4655, -158.45
3.71157, -1, -41.4292, -9.01059, 28.1857, 13.5892, 70.3762, -158.676
3.71963, -1, -41.5955, -9.09578, 28.2194, 13.5913, 70.287, -158.901
3.72759, -1, -41.7619, -9.18091, 28.2529, 13.5933, 70.198, -159.126
3.73559, -1, -41.9283, -9.26596, 28.2865, 13.5953, 70.1089, -159.352
3.74358, -1, -42.0946, -9.35095, 28.3202, 13.5974, 70.02, -159.578
3.75158, -1, -42.2608, -9.43603, 28.3537, 13.5994, 69.931, -159.803
3.75962, -1, -42.427, -9.52104, 28.3872, 13.6014, 69.8422, -160.028
3.76759, -1, -42.5934, -9.606, 28.4208, 13.6034, 69.7531, -160.253
3.77558, -1, -42.7598, -9.69093, 28.4544, 13.6054, 69.6642, -160.478
3.78365, -1, -42.9263, -9.7759, 28.4877, 13.6074, 69.5757, -160.704
3.79157, -1, -43.0928, -9.86078, 28.5213, 13.6095, 69.4867, -160.928
3.79961, -1, -43.259, -9.94571, 28.5548, 13.6116, 69.3981, -161.153
3.80765, -1, -43.4252, -10.0306, 28.5883, 13.6136, 69.3095, -161.378
3.81559, -1, -43.5911, -10.1156, 28.6217, 13.6157, 69.2209, -161.603
3.82458, -1, -43.7569, -10.2005, 28.6553, 13.6179, 69.1323, -161.828
3.83163, -1, -43.9227, -10.2853, 28.6887, 13.62, 69.0438, -162.052
3.83958, -1, -44.0883, -10.37, 28.722, 13.6222, 68.9554, -162.276
3.84759, -1, -44.2536, -10.4547, 28.7556, 13.6243, 68.8667, -162.501
3.85566, -1, -44.4188, -10.5393, 28.7891, 13.6265, 68.778, -162.725
3.86357, -1, -44.584, -10.6238, 28.8224, 13.6287, 68.6896, -162.949
3.87161, -1, -44.7491, -10.7083, 28.8558, 13.6309, 68.6009, -163.173
3.87965, -1, -44.9144, -10.7927, 28.8894, 13.633, 68.5123, -163.397
3.88758, -1, -45.0798, -10.8772, 28.9227, 13.6352, 68.4241, -163.621
3.89558, -1, -45.2452, -10.9617, 28.9561, 13.6374, 68.3355, -163.845
3.90366, -1, -45.4104, -11.0462, 28.9896, 13.6398, 68.2471, -164.07
3.91157, -1, -45.5757, -11.1306, 29.0228, 13.642, 68.1589, -164.293
3.91957, -1, -45.7411, -11.215, 29.056, 13.6443, 68.0706, -164.517
3.92766, -1, -45.906, -11.2993, 29.0894, 13.6466, 67.9822, -164.741
3.93557, -1, -46.069, -11.3825, 29.1229, 13.6489, 67.8938, -164.964
3.94357, -1, -46.2284, -11.4635, 29.1564, 13.6512, 67.8062, -165.187
3.95164, -1, -46.3823, -11.5408, 29.1901, 13.6536, 67.7196, -165.405
3.95957, -1, -46.5282, -11.6134, 29.2231, 13.6559, 67.6359, -165.617
3.96761, -1, -46.6638, -11.6802, 29.2542, 13.6583, 67.5577, -165.815
3.97565, -1, -46.7863, -11.7399, 29.2824, 13.6604, 67.4865, -165.994
3.98358, -1, -46.8932, -11.7924, 29.3067, 13.6623, 67.4252, -166.15
3.99158, -1, -46.9836, -11.8383, 29.3262, 13.6637, 67.3749, -166.278
3.99964, -1, -47.0583, -11.8783, 29.3399, 13.6647, 67.3359, -166.376
4.00761, -1, -47.1179, -11.9114, 29.349, 13.6653, 67.3077, -166.447
4.01566, -1, -47.163, -11.9371, 29.3544, 13.6656, 67.2889, -166.494
4.02389, -1, -47.1959, -11.9557, 29.357, 13.6657, 67.2773, -166.523
4.03116, -1, -47.2185, -11.9682, 29.3582, 13.6658, 67.2708, -166.54
4.03971, -1, -47.2325, -11.976, 29.3588, 13.6659, 67.2675, -166.548
4.04772, 2, -47.2404, -11.9802, 29.359, 13.666, 67.2659, -166.552
4.05564, 2, -47.244, -11.9822, 29.3592, 13.666, 67.2651, -166.554
4.06357, 2, -47.2448, -11.983, 29.3593, 13.666, 67.2648, -166.555
4.07174, 2, -47.2446, -11.9833, 29.3594, 13.666, 67.2646, -166.555
4.07961, 2, -47.2445, -11.9834, 29.3594, 13.6661, 67.2646, -166.555
4.08767, 2, -47.2446, -11.9835, 29.3594, 13.6661, 67.2645, -166.555
4.09578, 2, -47.2453, -11.9837, 29.3594, 13.6661, 67.2645, -166.555
4.10374, 2, -47.2463, -11.984, 29.3595, 13.6661, 67.2644, -166.555
4.11216, 2, -47.248, -11.9847, 29.3595, 13.666, 67.2644, -166.555
4.12002, 2, -47.2497, -11.9855, 29.3595, 13.6661, 67.2644, -166.555
4.12657, 2, -47.2505, -11.986, 29.3595, 13.6661, 67.2644, -166.555
4.13634, 2, -47.2524, -11.9872, 29.3595, 13.666, 67.2644, -166.555
4.14415, 2, -47.253, -11.9877, 29.3595, 13.6661, 67.2644, -166.555
4.1521, 2, -47.2533, -11.988, 29.3595, 13.6661, 67.2644, -166.555
4.16036, 2, -47.2535, -11.9881, 29.3595, 13.666, 67.2644, -166.555
4.16821, 2, -47.2533, -11.9881, 29.3595, 13.6661, 67.2644, -166.555
4.17615, 2, -47.2531, -11.9881, 29.3595, 13.6661, 67.2644, -166.555
4.18439, 2, -47.2523, -11.9881, 29.3595, 13.6661, 67.2645, -166.555
4.19227, 2, -47.2521, -11.9881, 29.3596, 13.6661, 67.2644, -166.555
4.19956, 2, -47.2518, -11.988, 29.3596, 13.6661, 67.2644, -166.555
4.20845, 2, -47.2517, -11.9881, 29.3595, 13.6661, 67.2644, -166.555
4.21562, 2, -47.2517, -11.9881, 29.3595, 13.6661, 67.2644, -166.555
4.22356, 2, -47.2518, -11.9883, 29.3595, 13.6661, 67.2644, -166.555
4.23156, 2, -47.252, -11.9886, 29.3595, 13.6661, 67.2645, -166.555
4.23963, 2, -47.2527, -11.9889, 29.3595, 13.6661, 67.2645, -166.555
4.24763, 2, -47.2532, -11.9893, 29.3595, 13.666, 67.2645, -166.555
4.25556, 2, -47.2535, -11.9895, 29.3595, 13.6661, 67.2645, -166.555
4.2636, 2, -47.2537, -11.9896, 29.3595, 13.6661, 67.2645, -166.555
4.27156, 2, -47.2537, -11.9896, 29.3596, 13.6661, 67.2645, -166.555
4.27956, 2, -47.2536, -11.9896, 29.3595, 13.6661, 67.2645, -166.555
4.28763, 2, -47.2534, -11.9895, 29.3595, 13.666, 67.2645, -166.555
4.29556, 2, -47.2529, -11.9894, 29.3595, 13.6661, 67.2645, -166.555
4.30359, 2, -47.2525, -11.9894, 29.3595, 13.6661, 67.2646, -166.555
4.31162, 2, -47.2522, -11.9894, 29.3596, 13.666, 67.2645, -166.555
4.31956, 2, -47.252, -11.9894, 29.3595, 13.666, 67.2645, -166.555
4.32757, 2, -47.2519, -11.9894, 29.3595, 13.6661, 67.2645, -166.555
4.33563, 2, -47.2519, -11.9895, 29.3595, 13.6661, 67.2645, -166.555
4.34356, 2, -47.2519, -11.9896, 29.3595, 13.666, 67.2645, -166.555
4.35156, 2, -47.2519, -11.9896, 29.3595, 13.666, 67.2645, -166.555
4.35965, 2, -47.2519, -11.9897, 29.3595, 13.666, 67.2645, -166.555
4.36757, 2, -47.252, -11.9897, 29.3595, 13.666, 67.2645, -166.555
4.3756, 2, -47.2521, -11.9897, 29.3595, 13.666, 67.2645, -166.555
4.38363, 2, -47.252, -11.9896, 29.3596, 13.666, 67.2645, -166.555
4.39155, 2, -47.252, -11.9895, 29.3596, 13.666, 67.2646, -166.555
4.39956, 2, -47.2518, -11.9895, 29.3596, 13.666, 67.2646, -166.555
4.40765, 2, -47.2517, -11.9894, 29.3595, 13.666, 67.2646, -166.555
4.41556, 2, -47.2516, -11.9894, 29.3595, 13.666, 67.2645, -166.555
4.42356, 2, -47.2515, -11.9894, 29.3595, 13.666, 67.2646, -166.555
4.43162, 2, -47.2514, -11.9894, 29.3595, 13.666, 67.2646, -166.555
4.43956, 2, -47.2514, -11.9894, 29.3595, 13.666, 67.2646, -166.555
4.44757, 2, -47.2513, -11.9894, 29.3595, 13.666, 67.2646, -166.555
4.45563, 2, -47.2513, -11.9894, 29.3595, 13.666, 67.2646, -166.555
4.46355, 2, -47.2512, -11.9894, 29.3595, 13.666, 67.2645, -166.555
4.47158, 2, -47.2512, -11.9895, 29.3595, 13.666, 67.2645, -166.555
4.47965, 2, -47.2511, -11.9894, 29.3595, 13.6659, 67.2645, -166.555
4.48756, 2, -47.2511, -11.9894, 29.3595, 13.6659, 67.2646, -166.555
4.49557, 2, -47.251, -11.9894, 29.3595, 13.666, 67.2646, -166.555
4.50364, 2, -47.2509, -11.9893, 29.3595, 13.666, 67.2645, -166.555
4.51159, 2, -47.2508, -11.9892, 29.3595, 13.666, 67.2646, -166.555
4.51964, 2, -47.2507, -11.9892, 29.3595, 13.666, 67.2646, -166.555
4.52774, 2, -47.2506, -11.9892, 29.3595, 13.6659, 67.2646, -166.555
4.53566, 2, -47.2506, -11.9892, 29.3595, 13.666, 67.2646, -166.555
4.54369, 2, -47.2505, -11.9892, 29.3595, 13.666, 67.2646, -166.555
4.55172, 2, -47.2504, -11.9892, 29.3595, 13.666, 67.2646, -166.555
4.55976, 2, -47.2503, -11.9892, 29.3595, 13.666, 67.2646, -166.555
4.56757, 2, -47.2502, -11.9892, 29.3595, 13.666, 67.2646, -166.555
4.57568, 2, -47.2501, -11.9891, 29.3595, 13.6659, 67.2646, -166.555
4.58359, 2, -47.25, -11.9891, 29.3595, 13.6659, 67.2647, -166.555
4.5916, 2, -47.2499, -11.9891, 29.3595, 13.6659, 67.2646, -166.555
4.59979, 2, -47.2498, -11.9891, 29.3595, 13.666, 67.2646, -166.555
4.60787, 2, -47.2497, -11.989, 29.3595, 13.6659, 67.2646, -166.555
4.61582, 2, -47.2496, -11.9889, 29.3595, 13.6659, 67.2646, -166.555
4.624, 2, -47.2495, -11.9889, 29.3595, 13.6659, 67.2647, -166.555
4.63267, 2, -47.2494, -11.9888, 29.3595, 13.6659, 67.2647, -166.555
4.64003, 2, -47.2493, -11.9888, 29.3595, 13.6659, 67.2647, -166.555
4.64655, 2, -47.2492, -11.9888, 29.3595, 13.6659, 67.2647, -166.555
4.65632, 2, -47.2491, -11.9888, 29.3595, 13.6659, 67.2647, -166.555
4.66409, 2, -47.249, -11.9888, 29.3595, 13.6659, 67.2647, -166.555
4.67225, 2, -47.2489, -11.9888, 29.3595, 13.6659, 67.2647, -166.555
4.68012, 2, -47.2489, -11.9888, 29.3595, 13.6659, 67.2647, -166.555
4.68809, 2, -47.2488, -11.9888, 29.3595, 13.6659, 67.2647, -166.555
4.69631, 2, -47.2488, -11.9888, 29.3595, 13.6658, 67.2647, -166.555
4.70355, 2, -47.2487, -11.9887, 29.3595, 13.6658, 67.2647, -166.555
4.71158, 2, -47.2486, -11.9887, 29.3595, 13.6658, 67.2647, -166.555
4.7196, 2, -47.2486, -11.9886, 29.3595, 13.6658, 67.2647, -166.555
4.72756, 2, -47.2484, -11.9886, 29.3595, 13.6658, 67.2647, -166.555
4.73555, 2, -47.2484, -11.9885, 29.3595, 13.6658, 67.2647, -166.555
4.74362, 2, -47.2483, -11.9885, 29.3595, 13.6658, 67.2647, -166.555
4.75154, 2, -47.2483, -11.9885, 29.3595, 13.6658, 67.2647, -166.555
4.75955, 2, -47.2483, -11.9885, 29.3595, 13.6658, 67.2648, -166.555
4.76761, 2, -47.2482, -11.9885, 29.3595, 13.6658, 67.2648, -166.555
4.77555, 2, -47.2482, -11.9885, 29.3595, 13.6658, 67.2647, -166.555
4.78354, 2, -47.2482, -11.9885, 29.3595, 13.6657, 67.2648, -166.555
4.79159, 2, -47.2482, -11.9885, 29.3595, 13.6658, 67.2648, -166.555
4.79954, 2, -47.2482, -11.9885, 29.3595, 13.6658, 67.2647, -166.555
4.80758, 2, -47.2481, -11.9884, 29.3595, 13.6657, 67.2648, -166.554
4.81721, 2, -47.2481, -11.9883, 29.3595, 13.6657, 67.2648, -166.555
4.82355, 2, -47.248, -11.9883, 29.3595, 13.6657, 67.2648, -166.555
4.83255, 2, -47.2479, -11.9882, 29.3595, 13.6657, 67.2648, -166.554
4.83961, 2, -47.2479, -11.9882, 29.3595, 13.6656, 67.2647, -166.554
4.84755, 2, -47.2478, -11.9882, 29.3595, 13.6656, 67.2648, -166.554
4.85555, 2, -47.2477, -11.9882, 29.3595, 13.6656, 67.2648, -166.554
4.86363, 2, -47.2477, -11.9882, 29.3595, 13.6656, 67.2648, -166.554
4.87154, 2, -47.2477, -11.9882, 29.3595, 13.6656, 67.2648, -166.554
4.87958, 2, -47.2477, -11.9882, 29.3595, 13.6656, 67.2648, -166.554
4.88763, 2, -47.2476, -11.9882, 29.3595, 13.6656, 67.2648, -166.554
4.89555, 2, -47.2476, -11.9881, 29.3595, 13.6656, 67.2649, -166.554
4.90354, 2, -47.2476, -11.9881, 29.3595, 13.6655, 67.2649, -166.554
4.91163, 2, -47.2476, -11.988, 29.3595, 13.6656, 67.265, -166.554
4.91954, 2, -47.2475, -11.988, 29.3595, 13.6656, 67.2649, -166.554
4.92755, 2, -47.2475, -11.9879, 29.3595, 13.6655, 67.265, -166.554
4.93562, 2, -47.2474, -11.9879, 29.3595, 13.6656, 67.2649, -166.554
4.94354, 2, -47.2473, -11.9878, 29.3595, 13.6655, 67.2649, -166.554
4.95154, 2, -47.2472, -11.9878, 29.3595, 13.6655, 67.265, -166.554
4.95961, 2, -47.2472, -11.9878, 29.3595, 13.6655, 67.2649, -166.554
4.96755, 2, -47.2471, -11.9878, 29.3595, 13.6654, 67.265, -166.554
4.97557, 2, -47.2471, -11.9878, 29.3595, 13.6654, 67.265, -166.554
4.98362, 2, -47.2471, -11.9878, 29.3595, 13.6655, 67.265, -166.554
4.99154, 2, -47.247, -11.9877, 29.3595, 13.6654, 67.265, -166.554
4.99954, 2, -47.2471, -11.9877, 29.3595, 13.6654, 67.265, -166.554
5.00764, 2, -47.2471, -11.9877, 29.3595, 13.6654, 67.265, -166.554
5.01558, 2, -47.247, -11.9877, 29.3595, 13.6654, 67.2651, -166.554
5.02362, 2, -47.2469, -11.9876, 29.3595, 13.6654, 67.2651, -166.554
5.03173, 2, -47.2468, -11.9875, 29.3595, 13.6653, 67.2651, -166.554
5.03964, 2, -47.2467, -11.9875, 29.3595, 13.6654, 67.2651, -166.554
5.04786, 2, -47.2467, -11.9875, 29.3595, 13.6653, 67.2651, -166.554
5.056, 2, -47.2466, -11.9874, 29.3595, 13.6653, 67.2651, -166.554
5.06354, 2, -47.2465, -11.9875, 29.3595, 13.6653, 67.2651, -166.554
5.07154, 2, -47.2465, -11.9875, 29.3595, 13.6653, 67.2651, -166.554
5.07966, 2, -47.2465, -11.9875, 29.3595, 13.6653, 67.2652, -166.554
5.08802, 2, -47.2465, -11.9874, 29.3595, 13.6652, 67.2651, -166.554
5.09562, 2, -47.2465, -11.9874, 29.3595, 13.6653, 67.2652, -166.554
5.10373, 2, -47.2464, -11.9874, 29.3595, 13.6652, 67.2651, -166.554
5.11207, 4, -47.2464, -11.9874, 29.3595, 13.6652, 67.2652, -166.554
5.11979, 4, -47.2464, -11.9873, 29.3595, 13.6652, 67.2652, -166.554
5.12795, 4, -47.2463, -11.9873, 29.3595, 13.6652, 67.2652, -166.554
5.13619, 4, -47.2462, -11.9872, 29.3595, 13.6651, 67.2652, -166.554
5.14404, 4, -47.2461, -11.9872, 29.3595, 13.6652, 67.2653, -166.554
5.15053, 4, -47.2461, -11.9872, 29.3595, 13.6652, 67.2652, -166.554
5.16019, 4, -47.246, -11.9871, 29.3595, 13.6652, 67.2653, -166.554
5.1681, 4, -47.246, -11.9871, 29.3595, 13.6651, 67.2653, -166.554
5.17616, 4, -47.246, -11.9871, 29.3595, 13.6651, 67.2652, -166.554
5.18415, 4, -47.2459, -11.9871, 29.3595, 13.6651, 67.2652, -166.554
5.19153, 4, -47.2459, -11.9871, 29.3595, 13.6651, 67.2652, -166.554
5.20049, 4, -47.2459, -11.9871, 29.3595, 13.6651, 67.2652, -166.554
5.20754, 4, -47.2459, -11.9871, 29.3595, 13.6651, 67.2652, -166.554
5.21627, 4, -47.2459, -11.9871, 29.3595, 13.6651, 67.2652, -166.554
5.22878, 4, -47.2458, -11.987, 29.3595, 13.6651, 67.2653, -166.554
5.23166, 4, -47.2458, -11.987, 29.3595, 13.6651, 67.2653, -166.554
5.24471, 4, -47.2457, -11.9869, 29.3595, 13.6651, 67.2653, -166.554
5.2477, 4, -47.2457, -11.9869, 29.3595, 13.6651, 67.2653, -166.554
5.25892, 4, -47.2456, -11.9869, 29.3595, 13.665, 67.2653, -166.554
5.26665, 4, -47.2456, -11.9868, 29.3595, 13.665, 67.2653, -166.553
5.27568, 4, -47.2455, -11.9868, 29.3595, 13.665, 67.2653, -166.553
5.27965, 4, -47.2455, -11.9868, 29.3595, 13.665, 67.2653, -166.553
5.28797, 4, -47.2454, -11.9868, 29.3595, 13.665, 67.2653, -166.553
5.29811, 4, -47.2454, -11.9868, 29.3595, 13.665, 67.2653, -166.553
5.30537, 4, -47.2454, -11.9868, 29.3595, 13.6649, 67.2653, -166.553
5.31629, 4, -47.2454, -11.9868, 29.3595, 13.665, 67.2653, -166.553
5.31967, 4, -47.2453, -11.9868, 29.3595, 13.665, 67.2653, -166.553
5.33115, 4, -47.2453, -11.9867, 29.3595, 13.665, 67.2653, -166.553
5.34051, 4, -47.2453, -11.9867, 29.3595, 13.665, 67.2653, -166.553
5.34732, 4, -47.2452, -11.9866, 29.3595, 13.6649, 67.2653, -166.553
5.35199, 4, -47.2452, -11.9866, 29.3595, 13.6649, 67.2653, -166.553
5.36303, 4, -47.2451, -11.9866, 29.3595, 13.6648, 67.2653, -166.553
5.36769, 4, -47.2451, -11.9866, 29.3595, 13.6648, 67.2653, -166.553
5.37607, 4, -47.245, -11.9866, 29.3595, 13.6649, 67.2653, -166.553
5.38799, 4, -47.2455, -11.9868, 29.3596, 13.6649, 67.2653, -166.553
5.39431, 4, -47.247, -11.9878, 29.3605, 13.6654, 67.2656, -166.553
5.40308, 4, -47.2484, -11.9889, 29.3618, 13.6668, 67.2661, -166.553
5.40804, 4, -47.2526, -11.9934, 29.3673, 13.6765, 67.2684, -166.552
5.41965, 4, -47.2649, -12.0089, 29.3903, 13.7223, 67.2805, -166.543
5.42404, 4, -47.2715, -12.0175, 29.4045, 13.7507, 67.2884, -166.536
5.43169, 5, -47.2897, -12.0418, 29.4472, 13.8387, 67.313, -166.517
5.43968, 5, -47.3167, -12.0772, 29.514, 13.979, 67.3527, -166.485
5.44848, 5, -47.3543, -12.1255, 29.6116, 14.1867, 67.4099, -166.437
5.45567, 5, -47.4042, -12.1882, 29.7442, 14.4729, 67.489, -166.371
5.46373, 5, -47.467, -12.2659, 29.9141, 14.843, 67.5893, -166.287
5.47517, 5, -47.5423, -12.3588, 30.1228, 15.2966, 67.7114, -166.183
5.48168, 5, -47.6298, -12.4663, 30.3684, 15.8257, 67.8519, -166.063
5.48766, 5, -47.7281, -12.5869, 30.6462, 16.4169, 68.0074, -165.93
5.49575, 5, -47.8354, -12.7191, 30.9516, 17.0556, 68.1725, -165.788
5.50679, 5, -47.9497, -12.8604, 31.2777, 17.7269, 68.4294, -165.566
5.51179, 5, -48.0686, -13.0085, 31.6187, 18.4153, 68.5153, -165.492
5.52039, 5, -48.19, -13.1601, 31.9676, 19.1107, 68.6858, -165.344
5.52776, 5, -48.3114, -13.3116, 32.3202, 19.8016, 68.8527, -165.198
5.5358, 5, -48.4299, -13.4597, 32.672, 20.4783, 69.0154, -165.05
5.54798, 5, -48.5926, -13.6696, 33.1862, 21.4442, 69.2542, -164.808
5.5553, 6, -48.6842, -13.7976, 33.5122, 22.0391, 69.4132, -164.616
5.55981, 6, -48.7233, -13.858, 33.6684, 22.3196, 69.4935, -164.505
5.5684, 7, -48.786, -13.9724, 33.9661, 22.8434, 69.6574, -164.246
5.57763, 7, -48.8266, -14.0791, 34.2439, 23.3179, 69.8272, -163.926
5.58461, 7, -48.8451, -14.1773, 34.5024, 23.7492, 70.005, -163.539
5.59257, 8, -48.8435, -14.2659, 34.7451, 24.1458, 70.1921, -163.084
5.6006, 8, -48.8249, -14.3457, 34.9762, 24.5177, 70.389, -162.566
5.60801, 9, -48.7922, -14.419, 35.198, 24.8749, 70.596, -161.996
5.61851, 10, -48.7481, -14.4879, 35.4151, 25.2262, 70.8124, -161.389
5.63058, 10, -48.6641, -14.5866, 35.7379, 25.7529, 71.1521, -160.438
5.63324, 10, -48.6317, -14.6186, 35.8451, 25.9298, 71.2683, -160.116
5.64029, 11, -48.5615, -14.6817, 36.0592, 26.2864, 71.5034, -159.47
5.65277, 12, -48.4471, -14.7751, 36.3793, 26.831, 71.8592, -158.507
5.65774, 12, -48.4078, -14.8061, 36.4848, 27.0157, 71.9785, -158.186
5.66841, 13, -48.2885, -14.8974, 36.7985, 27.5811, 72.3391, -157.219
5.67322, 13, -48.2485, -14.927, 36.9022, 27.7736, 72.4605, -156.895
5.68438, 13, -48.1266, -15.0141, 37.2101, 28.3623, 72.8285, -155.918
5.68826, 14, -48.1266, -15.0433, 37.312, 28.5618, 72.9524, -155.59
5.70167, 15, -47.9546, -15.1334, 37.6172, 29.1663, 73.3257, -154.607
5.70442, 15, -47.9546, -15.1334, 37.6172, 29.3688, 73.45, -154.28
5.71223, 15, -47.8625, -15.1939, 37.8188, 29.5712, 73.5737, -153.954
5.7217, 16, -47.7142, -15.2828, 38.1184, 30.175, 73.9394, -152.983
5.76781, 19, -47.0551, -15.6326, 39.164, 32.3212, 75.1836, -149.537
5.77056, 19, -46.9871, -15.6672, 39.2545, 32.5124, 75.2894, -149.233
5.77378, 19, -46.9177, -15.7026, 39.3448, 32.7033, 75.3941, -148.93
5.77954, 19, -46.8469, -15.7385, 39.4348, 32.8941, 75.4977, -148.629
5.78218, 20, -46.7748, -15.7748, 39.5245, 33.0846, 75.6003, -148.329
5.78416, 20, -46.7748, -15.7748, 39.5245, 33.0846, 75.6003, -148.329
5.78679, 20, -46.7016, -15.8114, 39.6138, 33.2749, 75.7019, -148.032
5.79022, 20, -46.6273, -15.8481, 39.7024, 33.4649, 75.8023, -147.736
5.79552, 20, -46.552, -15.8851, 39.7904, 33.6547, 75.9017, -147.442
5.80132, 21, -46.3989, -15.9602, 39.9648, 34.0336, 76.0972, -146.859
5.8077, 22, -46.3209, -15.9985, 40.0516, 34.2227, 76.1935, -146.57
5.82283, 22, -45.9989, -16.156, 40.394, 34.9761, 76.5678, -145.43
5.82539, 22, -45.9989, -16.156, 40.394, 34.9761, 76.659, -145.148
5.8317, 23, -45.8308, -16.2373, 40.5607, 35.3499, 76.7492, -144.868
5.8429, 24, -45.5659, -16.3636, 40.8058, 35.9041, 77.0123, -144.035
5.84872, 24, -45.4737, -16.4069, 40.8857, 36.0864, 77.0972, -143.76
5.85831, 24, -45.1855, -16.5401, 41.1183, 36.6224, 77.3422, -142.944
5.86381, 25, -45.0858, -16.5852, 41.1935, 36.7966, 77.4202, -142.674
5.87185, 25, -44.8812, -16.6758, 41.3409, 37.1378, 77.5704, -142.139
5.87966, 26, -44.6701, -16.7669, 41.4836, 37.4693, 77.7133, -141.609
5.89037, 26, -44.4519, -16.8591, 41.6213, 37.7918, 77.8502, -141.083
5.89807, 27, -44.1112, -16.999, 41.8178, 38.2612, 78.0473, -140.298
5.90641, 27, -43.8758, -17.0922, 41.9416, 38.5652, 78.1748, -139.775
5.91504, 28, -43.6336, -17.1842, 42.059, 38.8625, 78.2998, -139.253
5.92236, 28, -43.3842, -17.2745, 42.1697, 39.1525, 78.4226, -138.731
5.93104, 29, -43.1281, -17.3631, 42.2735, 39.4354, 78.544, -138.209
5.93568, 29, -42.9978, -17.4066, 42.3227, 39.574, 78.6036, -137.947
5.94515, 30, -42.7321, -17.4916, 42.4157, 39.8453, 78.7211, -137.425
5.95352, 30, -42.4588, -17.5739, 42.5014, 40.1083, 78.8366, -136.902
5.96086, 31, -42.1773, -17.6535, 42.5798, 40.363, 78.9487, -136.381
5.96869, 31, -41.888, -17.7309, 42.6512, 40.6089, 79.0583, -135.86
5.97672, 32, -41.5915, -17.806, 42.7156, 40.8459, 79.1648, -135.339
5.98377, 32, -41.2883, -17.8783, 42.7733, 41.0742, 79.2679, -134.82
5.99209, 33, -40.9784, -17.9476, 42.8239, 41.2939, 79.368, -134.303
6.00385, 34, -40.5005, -18.0463, 42.8863, 41.6082, 79.5126, -133.528
6.00765, 34, -40.3382, -18.078, 42.9035, 41.7087, 79.5596, -133.27
6.01809, 34, -40.0103, -18.1395, 42.9324, 41.904, 79.6513, -132.755
6.02375, 35, -39.6772, -18.1981, 42.9543, 42.0917, 79.741, -132.242
6.03295, 35, -39.3383, -18.2534, 42.9691, 42.2721, 79.8281, -131.73
6.04081, 36, -38.9924, -18.3052, 42.977, 42.4447, 79.9135, -131.218
6.04971, 36, -38.6392, -18.3536, 42.9782, 42.6096, 79.9968, -130.708
6.05578, 37, -38.28, -18.3987, 42.9727, 42.7671, 80.0778, -130.2
6.06495, 37, -37.9151, -18.44, 42.9604, 42.9171, 80.1573, -129.693
6.07177, 38, -37.545, -18.4777, 42.9413, 43.0597, 80.2342, -129.187
6.08081, 38, -37.1704, -18.5119, 42.9157, 43.1949, 80.3096, -128.683
6.08968, 39, -36.7911, -18.5428, 42.8832, 43.3226, 80.3819, -128.181
6.09666, 39, -36.4072, -18.5699, 42.8441, 43.4432, 80.453, -127.682
6.10469, 40, -36.0174, -18.5932, 42.7983, 43.5563, 80.5219, -127.183
6.11272, 40, -35.6216, -18.6127, 42.7461, 43.6623, 80.5894, -126.687
6.12411, 41, -35.22, -18.6282, 42.6872, 43.8074, 80.686, -125.946
6.12886, 41, -34.813, -18.6402, 42.6219, 43.8524, 80.7176, -125.7
6.13707, 42, -34.4024, -18.6488, 42.5502, 43.9369, 80.779, -125.21
6.14435, 42, -33.9889, -18.6542, 42.4721, 44.0143, 80.8379, -124.722
6.15421, 43, -33.5722, -18.6565, 42.388, 44.0843, 80.8961, -124.237
6.1608, 43, -33.1507, -18.6553, 42.2979, 44.1477, 80.9515, -123.753
6.17061, 44, -32.7231, -18.6503, 42.2022, 44.2036, 81.0061, -123.273
6.17702, 44, -32.2891, -18.6415, 42.1007, 44.252, 81.0589, -122.795
6.18573, 45, -31.849, -18.629, 41.9932, 44.2936, 81.1094, -122.319
6.19284, 45, -31.4045, -18.6129, 41.8798, 44.3277, 81.1591, -121.845
6.20055, 46, -30.9574, -18.5934, 41.7603, 44.354, 81.2067, -121.373
6.20837, 46, -30.7333, -18.5824, 41.6984, 44.3642, 81.252, -120.905
6.21565, 47, -30.2828, -18.5573, 41.5702, 44.3789, 81.2745, -120.671
6.22705, 47, -29.5978, -18.5114, 41.3669, 44.3878, 81.3408, -119.973
6.23764, 48, -28.8983, -18.4557, 41.1498, 44.3791, 81.4037, -119.279
6.24106, 48, -28.6623, -18.435, 41.0744, 44.3719, 81.4246, -119.049
6.2505, 49, -28.187, -18.3903, 40.9194, 44.3509, 81.4664, -118.59
6.25771, 49, -27.7097, -18.3411, 40.7583, 44.3204, 81.5072, -118.132
6.2653, 50, -27.2296, -18.2872, 40.5906, 44.28, 81.5478, -117.675
6.27168, 50, -26.9882, -18.2582, 40.5043, 44.2566, 81.5686, -117.446
6.27968, 51, -26.5001, -18.196, 40.3269, 44.2032, 81.611, -116.99
6.28766, 51, -26.004, -18.1283, 40.1429, 44.1391, 81.6533, -116.536
6.29755, 52, -25.2475, -18.0164, 39.853, 44.0252, 81.718, -115.855
6.30372, 52, -24.9936, -17.9764, 39.7529, 43.9818, 81.7403, -115.628
6.31572, 53, -24.229, -17.8478, 39.4435, 43.8367, 81.8076, -114.949
6.31969, 53, -23.9724, -17.8019, 39.3365, 43.7832, 81.8303, -114.723
6.32773, 54, -23.4545, -17.7053, 39.1164, 43.6681, 81.8779, -114.271
6.33564, 54, -22.9287, -17.6026, 38.8894, 43.5421, 81.9279, -113.819
6.34369, 55, -22.3951, -17.4941, 38.6548, 43.4047, 81.9793, -113.367
6.35351, 55, -21.8565, -17.3793, 38.4123, 43.1768, 82.0623, -112.688
6.3597, 56, -21.3156, -17.2586, 38.1638, 43.0952, 82.0903, -112.462
6.36766, 56, -20.7718, -17.132, 37.9087, 42.9238, 82.1474, -112.011
6.37916, 57, -19.9426, -16.9315, 37.514, 42.6457, 82.2366, -111.334
6.38693, 58, -19.3781, -16.7906, 37.2425, 42.4453, 82.2975, -110.884
6.39175, 58, -19.0931, -16.7178, 37.1041, 42.3402, 82.3292, -110.659
6.39982, 58, -18.5205, -16.5676, 36.823, 42.1204, 82.3934, -110.208
6.40766, 59, -17.9455, -16.4121, 36.5345, 41.8876, 82.4605, -109.759
6.41565, 59, -17.3661, -16.2522, 36.2393, 41.6417, 82.5306, -109.309
6.4272, 60, -16.4798, -16.0041, 35.785, 41.2491, 82.6398, -108.635
6.43425, 60, -15.8782, -15.8315, 35.4762, 40.9716, 82.714, -108.185
6.43966, 61, -15.5756, -15.7431, 35.3197, 40.8281, 82.7517, -107.961
6.45048, 62, -14.6642, -15.4718, 34.8429, 40.3796, 82.867, -107.289
6.45574, 62, -14.3584, -15.3795, 34.6814, 40.2238, 82.9066, -107.064
6.46649, 62, -13.7407, -15.1915, 34.3551, 39.9027, 83.028, -106.392
6.47611, 63, -12.7953, -14.8975, 33.8564, 39.3963, 83.1122, -105.942
6.47968, 63, -12.4762, -14.7961, 33.6875, 39.2208, 83.1553, -105.717
6.4898, 64, -11.835, -14.5891, 33.345, 38.8593, 83.2446, -105.267
6.49759, 64, -11.1889, -14.3754, 32.9955, 38.4828, 83.3383, -104.814
6.50535, 65, -10.5325, -14.1544, 32.6386, 38.0895, 83.4379, -104.36
6.51264, 65, -9.86443, -13.9266, 32.2753, 37.6776, 83.5439, -103.903
6.52128, 66, -9.18643, -13.692, 31.9064, 37.2462, 83.6565, -103.445
6.52795, 66, -8.50233, -13.4498, 31.532, 36.796, 83.776, -102.984
6.53708, 67, -7.81259, -13.2005, 31.1506, 36.327, 83.9019, -102.522
6.54536, 67, -7.11363, -12.9442, 30.7635, 35.8411, 84.0352, -102.057
6.55178, 68, -6.40634, -12.6806, 30.3726, 35.3402, 84.1744, -101.59
6.55982, 68, -5.69306, -12.4115, 29.9786, 34.8271, 84.3198, -101.121
6.56804, 69, -4.97571, -12.1369, 29.5819, 34.303, 84.4701, -100.652
6.57642, 69, -4.25296, -11.8562, 29.1836, 33.77, 84.6249, -100.18
6.58444, 70, -3.52297, -11.5691, 28.7864, 33.2281, 84.7834, -99.7077
6.59197, 70, -2.78635, -11.2733, 28.3903, 32.6757, 84.9463, -99.2339
6.60005, 71, -2.04434, -10.9701, 27.9935, 32.1116, 85.1144, -98.7598
6.6104, 71, -1.29579, -10.6606, 27.5947, 31.5334, 85.2908, -98.2839
6.61607, 72, -0.541163, -10.3457, 27.1935, 30.9385, 85.4769, -97.8061
6.62565, 73, 0.218563, -10.0257, 26.79, 30.3264, 85.6727, -97.3265
6.6327, 73, 0.982241, -9.69851, 26.3843, 29.7017, 85.8776, -96.8454
6.64114, 73, 1.75034, -9.36441, 25.9777, 29.0652, 86.0908, -96.3634
6.64836, 74, 2.52262, -9.02425, 25.5726, 28.4204, 86.3119, -95.8798
6.65721, 74, 3.29798, -8.67869, 25.171, 27.768, 86.5398, -95.3948
6.66433, 75, 4.07544, -8.32601, 24.7745, 27.1096, 86.7737, -94.9078
6.67453, 75, 4.85513, -7.96718, 24.3824, 26.4492, 87.0129, -94.4197
6.68035, 76, 5.63668, -7.60235, 23.9949, 25.7874, 87.2583, -93.9292
6.69238, 76, 6.81158, -7.04467, 23.4232, 24.7914, 87.638, -93.1891
6.69859, 77, 7.2038, -6.85497, 23.2343, 24.4597, 87.7683, -92.9413
6.71387, 78, 8.77835, -6.07215, 22.4873, 23.126, 88.3139, -91.9455
6.72519, 78, 9.96406, -5.46015, 21.9358, 22.1109, 88.7553, -91.189
6.7267, 79, 9.96406, -5.46015, 21.9358, 22.1109, 88.7553, -91.189
6.72875, 79, 10.3602, -5.25241, 21.7533, 21.769, 88.9093, -90.9346
6.73548, 79, 10.7565, -5.04312, 21.5715, 21.4258, 89.067, -90.6788
6.74473, 80, 11.9429, -4.40066, 21.0302, 20.391, 89.5591, -89.9028
6.75155, 80, 12.3363, -4.18088, 20.852, 20.0453, 89.7285, -89.6409
6.75945, 81, 13.1182, -3.73418, 20.4989, 19.3591, 90.0749, -89.1121
6.7675, 81, 13.8942, -3.28097, 20.152, 18.6829, 90.4291, -88.5782
6.7755, 82, 14.6633, -2.82196, 19.8135, 18.0216, 90.7891, -88.0403
6.78348, 82, 15.4241, -2.35477, 19.4861, 17.3766, 91.1526, -87.4999
6.7917, 83, 16.1748, -1.87979, 19.1689, 16.7501, 91.5195, -86.957
6.79953, 83, 16.9129, -1.39894, 18.8622, 16.1441, 91.8897, -86.413
6.80749, 83, 17.6373, -0.913331, 18.5648, 15.5575, 92.2641, -85.8689
6.81548, 84, 18.3462, -0.424149, 18.2768, 14.9908, 92.6438, -85.3267
6.825, 84, 19.038, 0.0684163, 17.996, 14.4444, 93.0301, -84.7856
6.83148, 85, 19.7113, 0.565978, 17.721, 13.918, 93.4243, -84.2471
6.84048, 85, 20.3657, 1.06829, 17.4527, 13.4114, 93.8259, -83.7116
6.84755, 86, 21.002, 1.57453, 17.1903, 12.925, 94.2335, -83.1792
6.85548, 86, 21.623, 2.08618, 16.9349, 12.4578, 94.6467, -82.6477
6.86344, 87, 22.2309, 2.60584, 16.6856, 12.0104, 95.0659, -82.1153
6.87155, 87, 22.8272, 3.13512, 16.4408, 11.5814, 95.4919, -81.5798
6.87951, 87, 23.4137, 3.67219, 16.1998, 11.1696, 95.9251, -81.04
6.88755, 88, 23.9899, 4.21399, 15.9611, 10.7735, 96.3649, -80.4928
6.8955, 88, 24.5553, 4.76282, 15.7261, 10.3937, 96.8105, -79.9366
6.90354, 89, 25.1101, 5.32345, 15.4975, 10.0294, 97.2611, -79.3701
6.91148, 89, 25.657, 5.89667, 15.2739, 9.6827, 97.7156, -78.7927
6.91955, 90, 26.2006, 6.48107, 15.0554, 9.35183, 98.1736, -78.2024
6.92748, 90, 26.7381, 7.07536, 14.8431, 9.03695, 98.6364, -77.5977
6.93549, 91, 27.2651, 7.67991, 14.6366, 8.73896, 99.1056, -76.9786
6.94355, 91, 27.78, 8.29494, 14.4341, 8.45788, 99.5821, -76.3469
6.95148, 92, 28.2861, 8.91881, 14.2345, 8.19553, 100.066, -75.7012
6.95949, 92, 28.7859, 9.55139, 14.0378, 7.95243, 100.558, -75.0446
6.96754, 93, 29.2775, 10.1925, 13.8444, 7.73008, 101.055, -74.3796
6.97549, 93, 29.7568, 10.8423, 13.6567, 7.5297, 101.554, -73.7059
6.98348, 94, 30.2219, 11.4991, 13.476, 7.35252, 102.052, -73.0251
6.9916, 94, 30.6724, 12.1607, 13.3022, 7.19924, 102.548, -72.3394
6.99948, 95, 31.1098, 12.8256, 13.1355, 7.06985, 103.041, -71.649
7.0077, 95, 31.5342, 13.4925, 12.9768, 6.96456, 103.53, -70.9524
7.0155, 96, 31.9446, 14.1613, 12.8253, 6.88226, 104.016, -70.2508
7.02352, 96, 32.3388, 14.8305, 12.6795, 6.82466, 104.499, -69.5442
7.03247, 97, 32.716, 15.4987, 12.54, 6.78885, 104.977, -68.8311
7.03957, 97, 33.0772, 16.1641, 12.4078, 6.7738, 105.449, -68.1142
7.0476, 98, 33.4231, 16.8253, 12.2845, 6.7805, 105.913, -67.3972
7.05566, 98, 33.7543, 17.4801, 12.1706, 6.80842, 106.365, -66.679
7.06434, 99, 34.0706, 18.1267, 12.0668, 6.85548, 106.804, -65.9633
7.07154, 99, 34.3734, 18.7641, 11.9734, 6.92282, 107.228, -65.2536
7.07961, 100, 34.6648, 19.3917, 11.8902, 7.00717, 107.636, -64.5489
7.08751, 100, 34.9443, 20.0091, 11.8165, 7.10856, 108.029, -63.8513
7.09586, 101, 35.2103, 20.6138, 11.7509, 7.22502, 108.407, -63.1638
7.10363, 101, 35.4627, 21.205, 11.6927, 7.35469, 108.77, -62.4849
7.11165, 101, 35.7022, 21.7818, 11.6421, 7.49528, 109.118, -61.8163
7.11969, 102, 35.9283, 22.3435, 11.5986, 7.64458, 109.451, -61.1612
7.12781, 102, 36.1422, 22.8902, 11.5622, 7.80061, 109.77, -60.5199
7.13583, 103, 36.3469, 23.4215, 11.533, 7.96204, 110.072, -59.8922
7.14405, 103, 36.5453, 23.9381, 11.512, 8.12938, 110.359, -59.279
7.15193, 104, 36.7384, 24.4415, 11.4995, 8.30325, 110.628, -58.6801
7.1608, 104, 36.9265, 24.9317, 11.4942, 8.4851, 110.88, -58.0916
7.1681, 104, 37.1105, 25.4089, 11.4952, 8.67616, 111.113, -57.5119
7.17606, 104, 37.2884, 25.8735, 11.5021, 8.87612, 111.328, -56.94
7.18412, 104, 37.4562, 26.3243, 11.5136, 9.08459, 111.526, -56.3759
7.19213, 104, 37.6142, 26.7617, 11.5281, 9.30012, 111.71, -55.8188
7.19999, 104, 37.6906, 26.9757, 11.5364, 9.40941, 111.797, -55.5441
7.20747, 104, 37.8407, 27.3946, 11.5549, 9.62987, 111.963, -55.0045
7.21555, 104, 37.9894, 27.7999, 11.5747, 9.85046, 112.119, -54.481
7.22353, 104, 38.1358, 28.191, 11.5949, 10.0681, 112.268, -53.9764
7.23148, 104, 38.2784, 28.5682, 11.6148, 10.2817, 112.409, -53.4923
7.23951, 104, 38.4154, 28.9312, 11.6337, 10.4894, 112.543, -53.0311
7.24747, 104, 38.5456, 29.2777, 11.6518, 10.69, 112.668, -52.5934
7.25548, 104, 38.6681, 29.6068, 11.669, 10.8826, 112.787, -52.1809
7.26359, 104, 38.7826, 29.9169, 11.6849, 11.0664, 112.898, -51.7931
7.27154, 104, 38.8892, 30.2087, 11.6998, 11.2408, 113.001, -51.4297
7.27947, 104, 38.9882, 30.4817, 11.7136, 11.4051, 113.096, -51.0922
7.28752, 104, 39.0793, 30.7346, 11.7261, 11.5592, 113.185, -50.7803
7.29549, 104, 39.1623, 30.9683, 11.7375, 11.7022, 113.265, -50.4931
7.30351, 104, 39.2369, 31.1822, 11.7479, 11.8338, 113.339, -50.2313
7.31152, 104, 39.303, 31.3759, 11.7575, 11.9539, 113.405, -49.9947
7.31943, 104, 39.3614, 31.5505, 11.7662, 12.0621, 113.464, -49.7832
7.32752, 104, 39.4128, 31.7056, 11.7736, 12.158, 113.517, -49.5969
7.33651, 104, 39.4576, 31.8415, 11.7804, 12.2421, 113.561, -49.4354
7.34352, 104, 39.4967, 31.9595, 11.7866, 12.3135, 113.599, -49.2983
7.3525, 104, 39.5296, 32.0606, 11.7921, 12.3737, 113.631, -49.1846
7.35953, 104, 39.5565, 32.1454, 11.797, 12.4218, 113.656, -49.0926
7.36747, 104, 39.5786, 32.2155, 11.8013, 12.459, 113.675, -49.0205
7.37548, 104, 39.5963, 32.2727, 11.8053, 12.4876, 113.689, -48.9672
7.3836, 104, 39.6103, 32.3184, 11.8089, 12.5084, 113.699, -48.9291
7.39147, 104, 39.6212, 32.3537, 11.8122, 12.523, 113.706, -48.9031
7.3995, 104, 39.6293, 32.38, 11.8151, 12.5326, 113.71, -48.8864
7.40753, 104, 39.6349, 32.3997, 11.8177, 12.5386, 113.712, -48.8768
7.41547, 104, 39.6383, 32.4137, 11.8197, 12.5418, 113.713, -48.8719
7.42352, 104, 39.6403, 32.423, 11.8212, 12.5435, 113.714, -48.8696
7.43149, 105, 39.6412, 32.4288, 11.8224, 12.5444, 113.714, -48.8686
7.43946, 105, 39.6412, 32.4325, 11.8233, 12.5447, 113.714, -48.8682
7.44746, 105, 39.6405, 32.4351, 11.8242, 12.545, 113.714, -48.8682
7.45554, 105, 39.6395, 32.4369, 11.8249, 12.5451, 113.714, -48.8684
7.46355, 105, 39.6382, 32.4384, 11.8255, 12.5452, 113.714, -48.8686
7.47146, 105, 39.6369, 32.4397, 11.826, 12.5452, 113.714, -48.8688
7.47961, 105, 39.6359, 32.4409, 11.8265, 12.5452, 113.714, -48.869
7.48746, 105, 39.6353, 32.442, 11.8271, 12.5452, 113.714, -48.8693
7.49553, 105, 39.6349, 32.4432, 11.8277, 12.5452, 113.714, -48.8696
7.50358, 105, 39.6346, 32.4442, 11.8283, 12.5452, 113.714, -48.8699
7.51147, 105, 39.6344, 32.4451, 11.8288, 12.5452, 113.714, -48.8701
7.51948, 105, 39.6341, 32.4459, 11.8291, 12.5452, 113.714, -48.8703
7.52769, 105, 39.6338, 32.4464, 11.8295, 12.5452, 113.714, -48.8705
7.53556, 105, 39.6335, 32.4468, 11.8297, 12.5451, 113.714, -48.8707
7.54361, 105, 39.6333, 32.447, 11.83, 12.5451, 113.714, -48.8709
