hehonglu123/Motion-Primitive-Planning/ILC/recorded_data/realrobot/from_NX/iteration_34/run_1.csv
timestamp, cmd_num, J1, J2, J3, J4, J5, J6
0.000361, -1, 39.629, 32.447, 11.8316, 12.5437, 113.713, -48.8736
0.005194, -1, 39.629, 32.447, 11.8316, 12.5437, 113.713, -48.8736
0.00798, -1, 39.629, 32.447, 11.8316, 12.5436, 113.713, -48.8736
0.03109, -1, 39.629, 32.447, 11.8316, 12.5436, 113.713, -48.8736
0.032453, -1, 39.629, 32.447, 11.8316, 12.5436, 113.713, -48.8736
0.035226, -1, 39.629, 32.447, 11.8316, 12.5436, 113.713, -48.8736
0.039382, -1, 39.629, 32.447, 11.8316, 12.5436, 113.713, -48.8736
0.04806, -1, 39.629, 32.447, 11.8316, 12.5436, 113.713, -48.8736
0.055957, -1, 39.6285, 32.4469, 11.8316, 12.5437, 113.713, -48.8736
0.064015, -1, 39.6261, 32.4465, 11.8316, 12.5437, 113.713, -48.8736
0.072305, -1, 39.6208, 32.4452, 11.8316, 12.5436, 113.713, -48.8739
0.079554, -1, 39.6119, 32.4423, 11.8315, 12.5436, 113.713, -48.8754
0.088018, -1, 39.5987, 32.437, 11.8314, 12.5436, 113.711, -48.8796
0.096133, -1, 39.5789, 32.4285, 11.8315, 12.5436, 113.708, -48.8906
0.103535, -1, 39.5658, 32.4227, 11.8316, 12.5436, 113.701, -48.911
0.11192, -1, 39.5118, 32.3983, 11.834, 12.5435, 113.688, -48.9443
0.120017, -1, 39.4624, 32.3746, 11.8388, 12.5436, 113.67, -48.9947
0.126928, -1, 39.433, 32.3602, 11.8425, 12.5436, 113.657, -49.0277
0.136001, -1, 39.3248, 32.3064, 11.8599, 12.5437, 113.605, -49.1605
0.142919, -1, 39.282, 32.2845, 11.8682, 12.5438, 113.582, -49.2172
0.152159, -1, 39.1327, 32.2072, 11.9001, 12.5446, 113.501, -49.4259
0.159085, -1, 39.0759, 32.1775, 11.913, 12.545, 113.469, -49.5079
0.168551, -1, 38.885, 32.077, 11.9574, 12.5471, 113.358, -49.7883
0.176298, -1, 38.7422, 32.0017, 11.9914, 12.549, 113.274, -50.0002
0.18296, -1, 38.6663, 31.9617, 12.0093, 12.55, 113.23, -50.1124
0.192607, -1, 38.4234, 31.8342, 12.0655, 12.5534, 113.089, -50.4678
0.200919, -1, 38.2511, 31.744, 12.1043, 12.5558, 112.991, -50.7162
0.20854, -1, 38.0727, 31.6508, 12.1433, 12.5582, 112.891, -50.9696
0.216571, -1, 37.8891, 31.5554, 12.1822, 12.5607, 112.79, -51.2263
0.224524, -1, 37.7958, 31.5071, 12.221, 12.5631, 112.688, -51.4848
0.232705, -1, 37.6067, 31.4097, 12.2404, 12.5656, 112.585, -51.7443
0.239925, -1, 37.4156, 31.3119, 12.2792, 12.5668, 112.534, -51.8741
0.247911, -1, 37.2237, 31.2139, 12.318, 12.5693, 112.431, -52.1337
0.255958, -1, 37.0314, 31.1161, 12.3568, 12.5718, 112.328, -52.3937
0.263982, -1, 36.8392, 31.0183, 12.3955, 12.5745, 112.225, -52.6539
0.271915, -1, 36.6473, 30.9205, 12.4343, 12.577, 112.122, -52.9145
0.279974, -1, 36.4557, 30.8228, 12.4732, 12.5796, 112.019, -53.1746
0.287903, -1, 36.2641, 30.725, 12.5121, 12.5822, 111.917, -53.435
0.295928, -1, 36.0725, 30.6272, 12.5509, 12.5847, 111.814, -53.6955
0.30395, -1, 35.8809, 30.5292, 12.5899, 12.5874, 111.711, -53.9562
0.311904, -1, 35.6893, 30.4311, 12.6288, 12.5899, 111.608, -54.2166
0.319924, -1, 35.4973, 30.333, 12.6676, 12.5925, 111.505, -54.4768
0.327997, -1, 35.3051, 30.2347, 12.7064, 12.5952, 111.401, -54.7373
0.335933, -1, 35.1126, 30.1364, 12.7453, 12.5977, 111.298, -54.998
0.343934, -1, 34.9203, 30.038, 12.7842, 12.6003, 111.196, -55.2588
0.351944, -1, 34.7281, 29.9396, 12.823, 12.6028, 111.092, -55.5194
0.360054, -1, 34.5358, 29.841, 12.8619, 12.6053, 110.989, -55.7803
0.496181, -1, 31.2568, 28.1657, 13.5236, 12.6506, 109.237, -60.2184
0.497384, -1, 31.2568, 28.1657, 13.5236, 12.6506, 109.237, -60.2184
0.499543, -1, 31.1604, 28.1165, 13.5432, 12.652, 109.186, -60.349
0.500821, -1, 31.1604, 28.1165, 13.5432, 12.652, 109.186, -60.349
0.502684, -1, 31.1604, 28.1165, 13.5432, 12.652, 109.186, -60.349
0.504128, -1, 31.0642, 28.0672, 13.5627, 12.6534, 109.134, -60.4798
0.505345, -1, 31.0642, 28.0672, 13.5627, 12.6534, 109.134, -60.4798
0.50896, -1, 30.968, 28.0179, 13.5822, 12.6548, 109.083, -60.6106
0.511754, -1, 30.8719, 27.9686, 13.6017, 12.6562, 109.031, -60.7412
0.513056, -1, 30.8719, 27.9686, 13.6017, 12.6562, 109.031, -60.7412
0.514934, -1, 30.7759, 27.9193, 13.6212, 12.6576, 108.979, -60.8719
0.516366, -1, 30.7759, 27.9193, 13.6212, 12.6576, 108.979, -60.8719
0.517685, -1, 30.7759, 27.9193, 13.6212, 12.6576, 108.979, -60.8719
0.520415, -1, 30.6799, 27.8701, 13.6407, 12.659, 108.928, -61.0026
0.521728, -1, 30.6799, 27.8701, 13.6407, 12.659, 108.928, -61.0026
0.524048, -1, 30.584, 27.8208, 13.6602, 12.6604, 108.876, -61.1332
0.525355, -1, 30.584, 27.8208, 13.6602, 12.6604, 108.876, -61.1332
0.527467, -1, 30.488, 27.7715, 13.6797, 12.6619, 108.824, -61.2639
0.528838, -1, 30.488, 27.7715, 13.6797, 12.6619, 108.824, -61.2639
0.530035, -1, 30.488, 27.7715, 13.6797, 12.6619, 108.824, -61.2639
0.532129, -1, 30.3921, 27.7221, 13.6992, 12.6633, 108.773, -61.3947
0.536026, -1, 30.2961, 27.6728, 13.7187, 12.6647, 108.721, -61.5255
0.544011, -1, 30.1038, 27.574, 13.7577, 12.6674, 108.618, -61.7873
0.55194, -1, 29.9114, 27.4753, 13.7967, 12.6702, 108.515, -62.0486
0.56067, -1, 29.7183, 27.3766, 13.8356, 12.6728, 108.412, -62.3104
0.568059, -1, 29.5248, 27.2777, 13.8745, 12.6755, 108.309, -62.5721
0.575986, -1, 29.3308, 27.1789, 13.9135, 12.6781, 108.205, -62.834
0.585163, -1, 29.1366, 27.0801, 13.9524, 12.6807, 108.102, -63.0955
0.592308, -1, 28.9421, 26.9812, 13.9914, 12.6832, 107.998, -63.3569
0.599533, -1, 28.7479, 26.8823, 14.0304, 12.6858, 107.895, -63.6184
0.607974, -1, 28.5538, 26.7834, 14.0693, 12.6882, 107.791, -63.8803
0.615969, -1, 28.3599, 26.6847, 14.1084, 12.6908, 107.688, -64.1421
0.623991, -1, 28.1665, 26.586, 14.1474, 12.6932, 107.585, -64.4036
0.630967, -1, 28.0699, 26.5365, 14.1669, 12.6944, 107.533, -64.5345
0.640045, -1, 27.7806, 26.3883, 14.2255, 12.6982, 107.378, -64.9272
0.6469, -1, 27.6843, 26.3388, 14.2449, 12.6995, 107.327, -65.0583
0.789076, -1, 24.2075, 24.5595, 14.9464, 12.7415, 105.468, -69.7691
0.79049, -1, 24.2075, 24.5595, 14.9464, 12.7415, 105.468, -69.7691
0.791811, -1, 24.2075, 24.5595, 14.9464, 12.7415, 105.468, -69.7691
0.79393, -1, 24.1112, 24.5101, 14.9659, 12.7426, 105.416, -69.8999
0.795139, -1, 24.1112, 24.5101, 14.9659, 12.7426, 105.416, -69.8999
0.796322, -1, 24.1112, 24.5101, 14.9659, 12.7426, 105.416, -69.8999
0.799149, -1, 24.0149, 24.4607, 14.9854, 12.7437, 105.365, -70.0305
0.802743, -1, 23.9184, 24.4113, 15.0049, 12.7449, 105.313, -70.1613
0.804068, -1, 23.9184, 24.4113, 15.0049, 12.7449, 105.313, -70.1613
0.806088, -1, 23.822, 24.3619, 15.0243, 12.7461, 105.261, -70.2921
0.807379, -1, 23.822, 24.3619, 15.0243, 12.7461, 105.261, -70.2921
0.809189, -1, 23.822, 24.3124, 15.0438, 12.7474, 105.209, -70.4229
0.810716, -1, 23.7256, 24.3124, 15.0438, 12.7474, 105.209, -70.4229
0.812073, -1, 23.7256, 24.3124, 15.0438, 12.7474, 105.209, -70.4229
0.814248, -1, 23.6291, 24.263, 15.0632, 12.7486, 105.158, -70.5538
0.819739, -1, 23.5325, 24.2136, 15.0827, 12.7497, 105.106, -70.6847
0.822402, -1, 23.4358, 24.1641, 15.1022, 12.7509, 105.054, -70.8155
0.823678, -1, 23.4358, 24.1641, 15.1022, 12.7509, 105.054, -70.8155
0.82641, -1, 23.339, 24.1147, 15.1217, 12.7521, 105.003, -70.9463
0.827786, -1, 23.339, 24.1147, 15.1217, 12.7521, 105.003, -70.9463
0.829637, -1, 23.2421, 24.0652, 15.1411, 12.7533, 104.951, -71.0772
0.831038, -1, 23.2421, 24.0652, 15.1411, 12.7533, 104.951, -71.0772
0.834105, -1, 23.1452, 24.0157, 15.1605, 12.7546, 104.899, -71.2081
0.839977, -1, 23.0483, 23.9663, 15.1799, 12.7557, 104.848, -71.339
0.847898, -1, 22.8544, 23.8674, 15.2189, 12.7582, 104.744, -71.601
0.855884, -1, 22.6604, 23.7686, 15.2579, 12.7607, 104.641, -71.8628
0.863961, -1, 22.4667, 23.67, 15.2968, 12.7631, 104.538, -72.1242
0.874586, -1, 22.2733, 23.5713, 15.3553, 12.7669, 104.382, -72.5163
0.879889, -1, 22.0801, 23.4726, 15.3747, 12.7682, 104.331, -72.6471
0.88798, -1, 21.887, 23.3739, 15.4137, 12.7708, 104.228, -72.9088
0.896944, -1, 21.6945, 23.2752, 15.4527, 12.7734, 104.124, -73.1701
0.902992, -1, 21.5023, 23.1764, 15.4916, 12.7761, 104.021, -73.4316
0.911948, -1, 21.31, 23.0777, 15.5306, 12.7787, 103.918, -73.6931
0.919889, -1, 21.1176, 22.9791, 15.5695, 12.7813, 103.815, -73.9547
0.927895, -1, 20.9252, 22.8804, 15.6084, 12.784, 103.712, -74.216
0.935952, -1, 20.7327, 22.7818, 15.6474, 12.7867, 103.609, -74.4771
0.943909, -1, 20.54, 22.6832, 15.6863, 12.7895, 103.506, -74.7383
0.951949, -1, 20.3469, 22.5845, 15.7251, 12.7922, 103.403, -74.9996
0.959886, -1, 20.1533, 22.4858, 15.7641, 12.7949, 103.3, -75.2609
0.967894, -1, 19.9597, 22.3871, 15.803, 12.7977, 103.197, -75.522
0.975945, -1, 19.7661, 22.2884, 15.8417, 12.8003, 103.094, -75.7832
0.983882, -1, 19.5725, 22.1897, 15.8806, 12.8031, 102.991, -76.0445
0.991883, -1, 19.3791, 22.0911, 15.9195, 12.8058, 102.887, -76.3057
1.00009, -1, 19.1861, 21.9925, 15.9584, 12.8085, 102.785, -76.5666
1.00696, -1, 18.9933, 21.8938, 15.9973, 12.8113, 102.681, -76.8274
1.01501, -1, 18.8007, 21.7952, 16.0361, 12.814, 102.578, -77.0884
1.02305, -1, 18.6086, 21.6964, 16.0749, 12.8168, 102.475, -77.3493
1.03115, -1, 18.4168, 21.5979, 16.1138, 12.8195, 102.373, -77.61
1.03927, -1, 18.2249, 21.4993, 16.1527, 12.8222, 102.27, -77.8708
1.04721, -1, 18.033, 21.4009, 16.1915, 12.8248, 102.167, -78.1315
1.0554, -1, 17.8412, 21.3025, 16.2304, 12.8273, 102.064, -78.3924
1.064, -1, 17.6492, 21.2042, 16.2693, 12.8298, 101.961, -78.653
1.07197, -1, 17.4568, 21.1059, 16.3081, 12.8324, 101.858, -78.9133
1.07998, -1, 17.264, 21.0075, 16.3469, 12.8348, 101.755, -79.1739
1.08805, -1, 17.0709, 20.9092, 16.3857, 12.8373, 101.652, -79.4346
1.09599, -1, 16.8779, 20.811, 16.4245, 12.8397, 101.549, -79.6952
1.10398, -1, 16.6848, 20.7128, 16.4634, 12.842, 101.447, -79.9555
1.11205, -1, 16.4919, 20.6146, 16.502, 12.8444, 101.344, -80.216
1.11989, -1, 16.299, 20.5163, 16.5408, 12.8467, 101.241, -80.4766
1.12793, -1, 16.1068, 20.4179, 16.5795, 12.849, 101.139, -80.7372
1.136, -1, 15.9147, 20.3195, 16.6183, 12.8513, 101.036, -80.9973
1.1429, -1, 15.8188, 20.2702, 16.6376, 12.8524, 100.985, -81.1273
1.1521, -1, 15.5316, 20.1225, 16.6956, 12.856, 100.831, -81.5174
1.15894, -1, 15.436, 20.0734, 16.7149, 12.8572, 100.779, -81.6475
1.16825, -1, 15.1492, 19.926, 16.7731, 12.8606, 100.625, -82.0375
1.17488, -1, 15.0537, 19.8769, 16.7924, 12.8617, 100.574, -82.1674
1.18427, -1, 14.7667, 19.7297, 16.8504, 12.8652, 100.421, -82.5573
1.19238, -1, 14.5752, 19.6316, 16.8892, 12.8675, 100.318, -82.8174
1.20058, -1, 14.3834, 19.5334, 16.9278, 12.8697, 100.215, -83.0771
1.20843, -1, 14.1912, 19.4354, 16.9665, 12.872, 100.113, -83.3366
1.21646, -1, 13.9989, 19.3374, 17.0053, 12.8742, 100.01, -83.5961
1.22462, -1, 13.8065, 19.2395, 17.0438, 12.8766, 99.9076, -83.8559
1.23239, -1, 13.7103, 19.1907, 17.0631, 12.8777, 99.8051, -84.1154
1.23988, -1, 13.5179, 19.0928, 17.1018, 12.88, 99.7538, -84.245
1.24793, -1, 13.3257, 18.9949, 17.1404, 12.8823, 99.6513, -84.5043
1.25587, -1, 13.1339, 18.897, 17.1789, 12.8847, 99.5492, -84.7635
1.26386, -1, 12.9425, 18.799, 17.2176, 12.8871, 99.4467, -85.0229
1.27192, -1, 12.7514, 18.701, 17.2562, 12.8893, 99.3443, -85.2822
1.27988, -1, 12.5605, 18.6031, 17.2947, 12.8918, 99.2421, -85.541
1.28789, -1, 12.3701, 18.5054, 17.3333, 12.8942, 99.1397, -85.8
1.29586, -1, 12.1799, 18.4076, 17.3718, 12.8966, 99.0376, -86.059
1.30387, -1, 11.9896, 18.3099, 17.4103, 12.899, 98.9355, -86.3179
1.31131, -1, 11.7992, 18.2123, 17.449, 12.9014, 98.8335, -86.5765
1.31987, -1, 11.6085, 18.1146, 17.4875, 12.9039, 98.7317, -86.8352
1.32787, -1, 11.4176, 18.0169, 17.526, 12.9063, 98.6298, -87.0938
1.33573, -1, 11.2264, 17.9194, 17.5646, 12.9088, 98.5278, -87.3525
1.3439, -1, 11.0351, 17.8219, 17.6031, 12.9112, 98.426, -87.6107
1.35187, -1, 10.8435, 17.7245, 17.6416, 12.9137, 98.3239, -87.8689
1.36153, -1, 10.6519, 17.627, 17.68, 12.9175, 98.1711, -88.2563
1.36788, -1, 10.4605, 17.5295, 17.7184, 12.9187, 98.1203, -88.3856
1.37688, -1, 10.2694, 17.432, 17.7568, 12.9212, 98.0183, -88.6437
1.38369, -1, 10.0785, 17.3344, 17.7953, 12.9238, 97.9164, -88.9018
1.39189, -1, 9.8881, 17.2368, 17.8336, 12.9265, 97.8147, -89.1599
1.39987, -1, 9.69793, 17.1393, 17.8719, 12.9291, 97.7126, -89.418
1.40795, -1, 9.50828, 17.0419, 17.9102, 12.9318, 97.6106, -89.6761
1.41587, -1, 9.31898, 16.9446, 17.9486, 12.9346, 97.5088, -89.9337
1.42388, -1, 9.12964, 16.8472, 17.987, 12.9373, 97.407, -90.1911
1.43187, -1, 8.94027, 16.75, 18.0253, 12.9399, 97.3051, -90.4488
1.43987, -1, 8.7507, 16.6528, 18.0636, 12.9426, 97.2035, -90.7063
1.44794, -1, 8.56109, 16.5556, 18.1021, 12.9452, 97.1018, -90.9635
1.45588, -1, 8.37126, 16.4586, 18.1404, 12.9479, 97.0004, -91.2207
1.46388, -1, 8.18101, 16.3616, 18.1786, 12.9506, 96.8989, -91.4778
1.47193, -1, 7.99054, 16.2647, 18.217, 12.9532, 96.7972, -91.7352
1.47987, -1, 7.80008, 16.1678, 18.2553, 12.9559, 96.6958, -91.992
1.48787, -1, 7.60954, 16.0709, 18.2935, 12.9585, 96.5943, -92.2487
1.49593, -1, 7.41915, 15.9739, 18.3319, 12.9611, 96.4929, -92.5055
1.50393, -1, 7.22905, 15.877, 18.37, 12.9637, 96.3916, -92.7623
1.51189, -1, 7.03916, 15.78, 18.4082, 12.9663, 96.2902, -93.0191
1.51994, -1, 6.84971, 15.6831, 18.4466, 12.9688, 96.1889, -93.2754
1.52788, -1, 6.66076, 15.5862, 18.4846, 12.9713, 96.0883, -93.5318
1.53588, -1, 6.47226, 15.4893, 18.5227, 12.974, 95.9871, -93.7882
1.54395, -1, 6.28406, 15.3926, 18.5609, 12.9764, 95.886, -94.0446
1.55213, -1, 6.09595, 15.2959, 18.599, 12.979, 95.7853, -94.3006
1.55931, -1, 5.90759, 15.1991, 18.6372, 12.9813, 95.6842, -94.5565
1.56743, -1, 5.7192, 15.1025, 18.6754, 12.9836, 95.5833, -94.8124
1.57675, -1, 5.53071, 15.0058, 18.7134, 12.986, 95.4827, -95.0684
1.584, -1, 5.34189, 14.9093, 18.7515, 12.9884, 95.3818, -95.324
1.59197, -1, 5.15277, 14.8128, 18.7897, 12.9906, 95.2811, -95.5794
1.60072, -1, 4.96343, 14.7165, 18.8277, 12.9929, 95.1806, -95.8349
1.60797, -1, 4.77406, 14.6202, 18.8658, 12.9951, 95.0797, -96.0905
1.61587, -1, 4.58464, 14.5237, 18.9038, 12.9972, 94.9789, -96.3456
1.6252, -1, 4.39547, 14.4274, 18.9418, 12.9995, 94.8783, -96.6005
1.63092, -1, 4.30099, 14.3792, 18.9608, 13.0006, 94.8278, -96.7279
1.64016, -1, 4.01781, 14.2346, 19.0178, 13.004, 94.6765, -97.1107
1.64688, -1, 3.9237, 14.1864, 19.0368, 13.0052, 94.6262, -97.2382
1.65687, -1, 3.64225, 14.0422, 19.0937, 13.0085, 94.475, -97.6204
1.66496, -1, 3.45508, 13.946, 19.1316, 13.0109, 94.3745, -97.8751
1.67222, -1, 3.26816, 13.85, 19.1694, 13.0132, 94.2738, -98.1298
1.67892, -1, 3.17463, 13.802, 19.1883, 13.0143, 94.2234, -98.2573
1.68922, -1, 2.89404, 13.6579, 19.2452, 13.0176, 94.0724, -98.639
1.69493, -1, 2.80051, 13.6098, 19.2642, 13.0187, 94.0221, -98.7661
1.7046, -1, 2.51965, 13.4659, 19.321, 13.0222, 93.8713, -99.1472
1.71326, -1, 2.33219, 13.3699, 19.3587, 13.0244, 93.771, -99.4015
1.71898, -1, 2.23835, 13.3221, 19.3776, 13.0256, 93.7209, -99.5286
1.72898, -1, 1.95629, 13.1783, 19.4344, 13.0289, 93.5705, -99.9091
1.7374, -1, 1.86226, 13.1304, 19.4533, 13.0301, 93.5205, -100.163
1.74295, -1, 1.67408, 13.0346, 19.491, 13.0323, 93.4206, -100.29
1.7529, -1, 1.39188, 12.8908, 19.5478, 13.0357, 93.2704, -100.67
1.75987, -1, 1.29794, 12.8429, 19.5666, 13.0368, 93.2205, -100.797
1.76695, -1, 1.1103, 12.7471, 19.6043, 13.0391, 93.1205, -101.05
1.77591, -1, 0.923114, 12.6514, 19.642, 13.0416, 93.0204, -101.303
1.78385, -1, 0.736629, 12.5559, 19.6797, 13.0439, 92.9207, -101.556
1.79191, -1, 0.550527, 12.4603, 19.7173, 13.0463, 92.8209, -101.809
1.79985, -1, 0.364728, 12.365, 19.755, 13.0487, 92.7211, -102.062
1.80786, -1, 0.179138, 12.2696, 19.7926, 13.0512, 92.6217, -102.314
1.81487, -1, -0.00624376, 12.1742, 19.8301, 13.0537, 92.5221, -102.567
1.82386, -1, -0.191778, 12.0789, 19.8678, 13.0561, 92.4224, -102.82
1.83185, -1, -0.377491, 11.9837, 19.9055, 13.0585, 92.323, -103.072
1.83892, -1, -0.56357, 11.8886, 19.9429, 13.061, 92.2236, -103.324
1.84785, -1, -0.74989, 11.7936, 19.9805, 13.0635, 92.1241, -103.576
1.85586, -1, -0.936427, 11.6986, 20.018, 13.066, 92.0247, -103.828
1.86541, -1, -1.12311, 11.6035, 20.0554, 13.0685, 91.9254, -104.08
1.87089, -1, -1.3101, 11.5085, 20.093, 13.071, 91.826, -104.331
1.87986, -1, -1.49692, 11.4134, 20.1305, 13.0735, 91.7269, -104.583
1.88792, -1, -1.68349, 11.3182, 20.1678, 13.0761, 91.6277, -104.835
1.89588, -1, -1.8697, 11.2232, 20.2053, 13.0787, 91.5285, -105.086
1.90385, -1, -2.0555, 11.1282, 20.2427, 13.0814, 91.4294, -105.337
1.91192, -1, -2.24063, 11.0333, 20.28, 13.084, 91.3302, -105.588
1.91985, -1, -2.42546, 10.9385, 20.3175, 13.0867, 91.2309, -105.839
1.92787, -1, -2.60989, 10.8437, 20.3548, 13.0893, 91.132, -106.09
1.9359, -1, -2.79376, 10.749, 20.392, 13.092, 91.0328, -106.341
1.94385, -1, -2.97779, 10.6542, 20.4294, 13.0946, 90.9337, -106.592
1.95193, -1, -3.16189, 10.5595, 20.4668, 13.0971, 90.8351, -106.842
1.95985, -1, -3.34617, 10.465, 20.504, 13.0998, 90.736, -107.093
1.96785, -1, -3.53076, 10.3705, 20.5413, 13.1023, 90.637, -107.344
1.97593, -1, -3.71551, 10.2762, 20.5785, 13.1049, 90.5384, -107.594
1.98385, -1, -3.90062, 10.1818, 20.6158, 13.1073, 90.4395, -107.844
1.99189, -1, -4.08588, 10.0875, 20.6531, 13.1099, 90.3408, -108.094
1.99992, -1, -4.27141, 9.99319, 20.6902, 13.1123, 90.2423, -108.344
2.0079, -1, -4.45703, 9.89884, 20.7274, 13.1146, 90.1436, -108.594
2.01593, -1, -4.64229, 9.80452, 20.7647, 13.1171, 90.0451, -108.843
2.02385, -1, -4.82724, 9.7103, 20.8018, 13.1194, 89.9468, -109.092
2.03185, -1, -5.0118, 9.61619, 20.8389, 13.1218, 89.8482, -109.342
2.03994, -1, -5.19562, 9.52215, 20.8761, 13.1242, 89.7498, -109.591
2.04785, -1, -5.37893, 9.42809, 20.9132, 13.1265, 89.6516, -109.84
2.05586, -1, -5.56191, 9.33421, 20.9503, 13.1288, 89.553, -110.089
2.06397, -1, -5.74448, 9.24026, 20.9874, 13.1311, 89.4548, -110.338
2.07194, -1, -5.92675, 9.14635, 21.0244, 13.1335, 89.3568, -110.586
2.07996, -1, -6.10915, 9.05251, 21.0614, 13.1357, 89.2585, -110.835
2.088, -1, -6.29186, 8.95871, 21.0985, 13.1379, 89.1606, -111.083
2.09595, -1, -6.47478, 8.86509, 21.1355, 13.1401, 89.0628, -111.332
2.10397, -1, -6.65795, 8.77144, 21.1723, 13.1423, 88.9648, -111.58
2.11203, -1, -6.84145, 8.6778, 21.2092, 13.1445, 88.8668, -111.828
2.11986, -1, -7.02535, 8.58413, 21.2461, 13.1466, 88.769, -112.076
2.12788, -1, -7.20955, 8.49059, 21.283, 13.1487, 88.6711, -112.324
2.13595, -1, -7.39373, 8.39696, 21.32, 13.1508, 88.5733, -112.571
2.14393, -1, -7.57757, 8.3033, 21.3568, 13.153, 88.4758, -112.819
2.1509, -1, -7.66939, 8.25657, 21.3752, 13.154, 88.4268, -112.943
2.16009, -1, -7.94419, 8.11647, 21.4305, 13.1574, 88.2807, -113.314
2.16686, -1, -8.03562, 8.06976, 21.4489, 13.1585, 88.2321, -113.437
2.1763, -1, -8.30871, 7.92983, 21.504, 13.1618, 88.086, -113.808
2.18288, -1, -8.39948, 7.88319, 21.5224, 13.163, 88.0372, -113.932
2.19231, -1, -8.67112, 7.74336, 21.5777, 13.1663, 87.8912, -114.302
2.19891, -1, -8.7615, 7.69676, 21.596, 13.1675, 87.8425, -114.425
2.20843, -1, -9.03256, 7.55709, 21.6511, 13.1709, 87.6963, -114.794
2.2164, -1, -9.21356, 7.46407, 21.6879, 13.1732, 87.5993, -115.041
2.22448, -1, -9.39487, 7.37125, 21.7245, 13.1753, 87.5021, -115.287
2.23246, -1, -9.48568, 7.27843, 21.7612, 13.1775, 87.405, -115.533
2.24041, -1, -9.66746, 7.23199, 21.7796, 13.1786, 87.3566, -115.779
2.24857, -1, -9.84958, 7.1392, 21.8161, 13.1809, 87.2106, -116.025
2.25585, -1, -10.032, 7.04647, 21.8526, 13.1831, 87.162, -116.148
2.26384, -1, -10.2146, 6.95369, 21.8892, 13.1853, 87.065, -116.394
2.27184, -1, -10.3972, 6.86092, 21.9258, 13.1875, 86.9677, -116.64
2.27984, -1, -10.5797, 6.76819, 21.9624, 13.1897, 86.8706, -116.885
2.28789, -1, -10.7617, 6.67555, 21.9989, 13.192, 86.7738, -117.131
2.29584, -1, -10.9433, 6.58298, 22.0353, 13.1945, 86.6768, -117.376
2.30386, -1, -11.1242, 6.49046, 22.0718, 13.1969, 86.58, -117.621
2.31189, -1, -11.3044, 6.39798, 22.1084, 13.1993, 86.4835, -117.866
2.31984, -1, -11.4843, 6.30549, 22.1449, 13.2017, 86.3867, -118.111
2.32785, -1, -11.6637, 6.21307, 22.1812, 13.2042, 86.29, -118.356
2.33589, -1, -11.8429, 6.12069, 22.2178, 13.2067, 86.1936, -118.6
2.34391, -1, -12.0221, 6.02843, 22.2542, 13.2091, 86.0969, -118.844
2.35184, -1, -12.2014, 5.9363, 22.2905, 13.2116, 86.0003, -119.089
2.3599, -1, -12.3811, 5.84429, 22.327, 13.2141, 85.9041, -119.333
2.36794, -1, -12.5612, 5.75225, 22.3632, 13.2165, 85.8077, -119.577
2.37585, -1, -12.7416, 5.66027, 22.3995, 13.219, 85.7114, -119.821
2.38392, -1, -12.9224, 5.56836, 22.4359, 13.2215, 85.6156, -120.064
2.3929, -1, -13.1035, 5.47642, 22.4722, 13.224, 85.5195, -120.308
2.39986, -1, -13.2847, 5.38443, 22.5084, 13.2263, 85.4235, -120.552
2.40791, -1, -13.4658, 5.29248, 22.5447, 13.2288, 85.3278, -120.795
2.41585, -1, -13.6465, 5.2006, 22.5809, 13.2313, 85.2319, -121.038
2.42386, -1, -13.8267, 5.10877, 22.617, 13.2339, 85.1361, -121.281
2.43184, -1, -14.0063, 5.01696, 22.6532, 13.2365, 85.0405, -121.524
2.43984, -1, -14.1851, 4.92524, 22.6894, 13.239, 84.9448, -121.767
2.44792, -1, -14.3634, 4.83356, 22.7254, 13.2416, 84.8493, -122.01
2.45584, -1, -14.5413, 4.74191, 22.7617, 13.2442, 84.7538, -122.252
2.46385, -1, -14.719, 4.65031, 22.7979, 13.2467, 84.6581, -122.495
2.4719, -1, -14.8967, 4.55882, 22.8339, 13.2492, 84.5623, -122.738
2.47984, -1, -15.0743, 4.46735, 22.8701, 13.2517, 84.4667, -122.98
2.48783, -1, -15.2523, 4.37605, 22.9063, 13.2542, 84.371, -123.222
2.49591, -1, -15.4307, 4.28473, 22.9423, 13.2566, 84.2753, -123.463
2.50385, -1, -15.6096, 4.19343, 22.9783, 13.2589, 84.1798, -123.705
2.51188, -1, -15.7888, 4.10217, 23.0143, 13.2612, 84.0843, -123.947
2.51991, -1, -15.9679, 4.01098, 23.0502, 13.2634, 83.9889, -124.189
2.52783, -1, -16.1476, 3.91969, 23.0863, 13.2655, 83.8934, -124.43
2.53584, -1, -16.3274, 3.82845, 23.1223, 13.2677, 83.798, -124.672
2.54398, -1, -16.5067, 3.73723, 23.1581, 13.2699, 83.7026, -124.913
2.55187, -1, -16.6857, 3.6461, 23.194, 13.2722, 83.6071, -125.154
2.5599, -1, -16.8641, 3.55499, 23.2298, 13.2744, 83.5117, -125.395
2.56932, -1, -17.0417, 3.46394, 23.2657, 13.2766, 83.4164, -125.636
2.57549, -1, -17.2187, 3.37297, 23.3015, 13.2789, 83.3211, -125.877
2.58402, -1, -17.3952, 3.28206, 23.3374, 13.2811, 83.2262, -126.117
2.59193, -1, -17.5716, 3.1912, 23.3731, 13.2832, 83.131, -126.358
2.59994, -1, -17.7476, 3.10055, 23.409, 13.2853, 83.0362, -126.598
2.60801, -1, -17.9237, 3.00993, 23.4449, 13.2875, 82.9415, -126.838
2.61589, -1, -18.0999, 2.91946, 23.4806, 13.2896, 82.8466, -127.078
2.62401, -1, -18.2763, 2.82909, 23.5163, 13.2918, 82.7518, -127.319
2.63195, -1, -18.4533, 2.73866, 23.5522, 13.2938, 82.6573, -127.558
2.63987, -1, -18.6307, 2.64826, 23.5878, 13.2958, 82.5626, -127.798
2.64794, -1, -18.8083, 2.55795, 23.6235, 13.2979, 82.468, -128.037
2.65622, -1, -18.9863, 2.46751, 23.6592, 13.2999, 82.3737, -128.277
2.66284, -1, -19.0755, 2.42225, 23.677, 13.3009, 82.3264, -128.397
2.67221, -1, -19.3428, 2.28661, 23.7304, 13.3039, 82.1848, -128.756
2.67893, -1, -19.4318, 2.24138, 23.7482, 13.3049, 82.1379, -128.875
2.68819, -1, -19.6976, 2.10578, 23.8014, 13.3082, 81.9966, -129.234
2.69486, -1, -19.786, 2.06061, 23.8191, 13.3092, 81.9495, -129.353
2.70448, -1, -20.05, 1.92518, 23.8725, 13.3125, 81.8085, -129.712
2.71238, -1, -20.2252, 1.83493, 23.9079, 13.3147, 81.7142, -129.95
2.71891, -1, -20.3127, 1.78987, 23.9256, 13.3159, 81.6673, -130.069
2.72839, -1, -20.5746, 1.65474, 23.9789, 13.3191, 81.5265, -130.427
2.7364, -1, -20.6619, 1.60974, 23.9967, 13.3213, 81.4324, -130.665
2.74289, -1, -20.8364, 1.51982, 24.0321, 13.3224, 81.3856, -130.784
2.75182, -1, -21.0112, 1.43004, 24.0675, 13.3246, 81.2919, -131.022
2.75983, -1, -21.1863, 1.34031, 24.1031, 13.3267, 81.1982, -131.26
2.76788, -1, -21.3618, 1.25051, 24.1385, 13.3289, 81.1042, -131.498
2.77582, -1, -21.5377, 1.16081, 24.1738, 13.3311, 81.0104, -131.736
2.78384, -1, -21.7138, 1.07122, 24.2092, 13.3333, 80.9167, -131.973
2.79183, -1, -21.89, 0.981544, 24.2447, 13.3354, 80.8228, -132.21
2.79984, -1, -22.0665, 0.891937, 24.28, 13.3376, 80.729, -132.447
2.80788, -1, -22.2431, 0.802382, 24.3154, 13.3398, 80.6356, -132.685
2.81485, -1, -22.4195, 0.712911, 24.3507, 13.342, 80.5418, -132.922
2.82383, -1, -22.5953, 0.623398, 24.3859, 13.3443, 80.4482, -133.159
2.83187, -1, -22.7707, 0.533983, 24.4211, 13.3467, 80.3548, -133.396
2.83889, -1, -22.9452, 0.444553, 24.4564, 13.3491, 80.261, -133.632
2.84787, -1, -23.119, 0.355124, 24.4915, 13.3516, 80.1674, -133.869
2.85589, -1, -23.2924, 0.265782, 24.5267, 13.3541, 80.0741, -134.106
2.86286, -1, -23.4656, 0.176502, 24.5619, 13.3565, 79.9805, -134.342
2.87182, -1, -23.6388, 0.0873252, 24.5971, 13.3589, 79.8873, -134.578
2.87992, -1, -23.8121, -0.0017849, 24.6323, 13.3612, 79.7941, -134.815
2.88888, -1, -23.9855, -0.0907751, 24.6675, 13.3637, 79.7009, -135.051
2.89582, -1, -24.1591, -0.179721, 24.7025, 13.3662, 79.6078, -135.287
2.9039, -1, -24.3331, -0.268659, 24.7376, 13.3686, 79.5149, -135.522
2.91182, -1, -24.5073, -0.357577, 24.7728, 13.371, 79.4218, -135.758
2.91983, -1, -24.6819, -0.446445, 24.8078, 13.3735, 79.3287, -135.993
2.92794, -1, -24.8569, -0.535355, 24.8427, 13.3758, 79.2357, -136.229
2.93583, -1, -25.032, -0.624221, 24.8779, 13.3782, 79.1427, -136.464
2.94382, -1, -25.2069, -0.713036, 24.9129, 13.3806, 79.0497, -136.699
2.95189, -1, -25.3815, -0.801778, 24.9478, 13.383, 78.957, -136.934
2.95982, -1, -25.5557, -0.890615, 24.9829, 13.3854, 78.8644, -137.169
2.96791, -1, -25.7293, -0.979355, 25.0177, 13.3879, 78.7716, -137.404
2.97583, -1, -25.9021, -1.06802, 25.0525, 13.3903, 78.679, -137.639
2.98384, -1, -26.0745, -1.15675, 25.0876, 13.3928, 78.5868, -137.873
2.99189, -1, -26.2466, -1.24541, 25.1225, 13.3952, 78.494, -138.108
2.99989, -1, -26.4184, -1.33394, 25.1572, 13.3976, 78.4015, -138.342
3.00782, -1, -26.5902, -1.42238, 25.1922, 13.3999, 78.3092, -138.577
3.01594, -1, -26.7622, -1.51074, 25.2271, 13.4022, 78.2166, -138.811
3.02382, -1, -26.9344, -1.59894, 25.2619, 13.4044, 78.1241, -139.045
3.03182, -1, -27.1069, -1.68714, 25.2968, 13.4067, 78.0321, -139.279
3.03989, -1, -27.2795, -1.7754, 25.3317, 13.4088, 77.9398, -139.513
3.04783, -1, -27.4523, -1.86347, 25.3664, 13.411, 77.8478, -139.747
3.05583, -1, -27.6255, -1.95154, 25.4012, 13.4131, 77.7559, -139.98
3.0639, -1, -27.7987, -2.03978, 25.4361, 13.4151, 77.6638, -140.213
3.07187, -1, -27.9721, -2.12783, 25.4709, 13.4172, 77.5718, -140.447
3.07994, -1, -28.1453, -2.21585, 25.5055, 13.4193, 77.4798, -140.68
3.08794, -1, -28.3185, -2.30391, 25.5404, 13.4213, 77.3877, -140.913
3.09592, -1, -28.4913, -2.392, 25.5751, 13.4235, 77.2956, -141.146
3.10399, -1, -28.6637, -2.47996, 25.6097, 13.4257, 77.2036, -141.379
3.11194, -1, -28.8355, -2.56797, 25.6444, 13.4278, 77.1116, -141.612
3.11982, -1, -29.0065, -2.65594, 25.6791, 13.43, 77.0197, -141.845
3.12795, -1, -29.1771, -2.7438, 25.7137, 13.4321, 76.9277, -142.077
3.13587, -1, -29.3477, -2.83161, 25.7484, 13.4342, 76.8361, -142.31
3.14385, -1, -29.5184, -2.9193, 25.7831, 13.4363, 76.7441, -142.542
3.15205, -1, -29.6892, -3.00687, 25.8176, 13.4382, 76.6522, -142.774
3.15887, -1, -29.7747, -3.05064, 25.8348, 13.4392, 76.6064, -142.891
3.16801, -1, -30.0312, -3.18185, 25.8868, 13.4424, 76.4686, -143.239
3.17698, -1, -30.2021, -3.26936, 25.9214, 13.4445, 76.3769, -143.471
3.18422, -1, -30.3733, -3.35676, 25.9559, 13.4465, 76.2855, -143.703
3.1923, -1, -30.5448, -3.44416, 25.9905, 13.4485, 76.1938, -143.935
3.19891, -1, -30.6307, -3.48794, 26.0078, 13.4495, 76.1481, -144.051
3.20689, -1, -30.8026, -3.57538, 26.0422, 13.4517, 76.0567, -144.282
3.2164, -1, -31.0604, -3.70643, 26.0941, 13.4546, 75.9197, -144.629
3.22524, -1, -31.232, -3.79378, 26.1286, 13.4567, 75.8283, -144.86
3.23089, -1, -31.3177, -3.83744, 26.1458, 13.4578, 75.7826, -144.976
3.24044, -1, -31.4888, -3.96845, 26.1975, 13.461, 75.6458, -145.323
3.2492, -1, -31.6595, -4.01206, 26.2147, 13.4621, 75.6001, -145.438
3.25489, -1, -31.8297, -4.09935, 26.2491, 13.4643, 75.5089, -145.669
3.26486, -1, -32.0843, -4.23014, 26.3008, 13.4675, 75.3724, -146.015
3.27183, -1, -32.1691, -4.27368, 26.318, 13.4686, 75.3267, -146.131
3.27896, -1, -32.3384, -4.36074, 26.3523, 13.4708, 75.2357, -146.362
3.28786, -1, -32.5079, -4.44773, 26.3866, 13.4729, 75.1449, -146.592
3.29582, -1, -32.6776, -4.53464, 26.421, 13.4751, 75.054, -146.822
3.30283, -1, -32.8472, -4.62155, 26.4554, 13.4773, 74.9631, -147.053
3.31181, -1, -33.0168, -4.70846, 26.4896, 13.4794, 74.8724, -147.283
3.31983, -1, -33.1866, -4.79536, 26.5239, 13.4816, 74.7819, -147.513
3.32682, -1, -33.3565, -4.8822, 26.5582, 13.4839, 74.6911, -147.743
3.3358, -1, -33.5268, -4.96916, 26.5924, 13.4861, 74.6005, -147.973
3.34381, -1, -33.6972, -5.05607, 26.6266, 13.4882, 74.5102, -148.203
3.35082, -1, -33.8673, -5.14281, 26.6609, 13.4905, 74.4194, -148.433
3.35981, -1, -34.0376, -5.22956, 26.695, 13.4927, 74.329, -148.663
3.36783, -1, -34.2077, -5.31633, 26.7291, 13.495, 74.2386, -148.892
3.37682, -1, -34.3779, -5.40298, 26.7634, 13.4973, 74.1479, -149.121
3.38382, -1, -34.5477, -5.48962, 26.7976, 13.4996, 74.0573, -149.351
3.39283, -1, -34.7169, -5.57632, 26.8316, 13.502, 73.9668, -149.58
3.39887, -1, -34.8857, -5.66292, 26.8658, 13.5044, 73.8762, -149.809
3.40782, -1, -35.0542, -5.74943, 26.9, 13.5069, 73.7858, -150.038
3.4158, -1, -35.2223, -5.83588, 26.934, 13.5093, 73.6955, -150.267
3.42382, -1, -35.3906, -5.92224, 26.9681, 13.5117, 73.6051, -150.496
3.43186, -1, -35.5592, -6.0084, 27.0023, 13.514, 73.5148, -150.725
3.44008, -1, -35.7277, -6.09462, 27.0362, 13.5164, 73.4244, -150.953
3.44781, -1, -35.8963, -6.18081, 27.0703, 13.5189, 73.3343, -151.182
3.45581, -1, -36.0648, -6.26697, 27.1044, 13.5213, 73.2437, -151.41
3.46461, -1, -36.2333, -6.35308, 27.1384, 13.5237, 73.1533, -151.639
3.47288, -1, -36.402, -6.4393, 27.1723, 13.526, 73.0631, -151.868
3.47981, -1, -36.5708, -6.52551, 27.2063, 13.5284, 72.9725, -152.096
3.48866, -1, -36.7396, -6.61169, 27.2402, 13.5307, 72.8823, -152.324
3.49688, -1, -36.9086, -6.69784, 27.2741, 13.533, 72.7923, -152.552
3.50481, -1, -37.0776, -6.78401, 27.3081, 13.5353, 72.7022, -152.78
3.51553, -1, -37.3307, -6.91318, 27.3589, 13.5387, 72.5672, -153.122
3.51993, -1, -37.415, -6.95618, 27.3758, 13.5398, 72.5224, -153.236
3.5278, -1, -37.5831, -7.04225, 27.4098, 13.5421, 72.4325, -153.463
3.5358, -1, -37.751, -7.12829, 27.4438, 13.5443, 72.3426, -153.691
3.54388, -1, -37.9186, -7.21426, 27.4776, 13.5466, 72.2529, -153.918
3.55182, -1, -38.086, -7.3002, 27.5114, 13.5488, 72.1632, -154.146
3.55983, -1, -38.2534, -7.38609, 27.5454, 13.551, 72.0734, -154.373
3.56791, -1, -38.4206, -7.47182, 27.5792, 13.5532, 71.9837, -154.6
3.57614, -1, -38.5878, -7.55756, 27.6131, 13.5552, 71.8943, -154.827
3.58347, -1, -38.7552, -7.64331, 27.647, 13.5573, 71.8045, -155.055
3.59197, -1, -38.9225, -7.72901, 27.6807, 13.5594, 71.715, -155.282
3.6002, -1, -39.0899, -7.81464, 27.7144, 13.5615, 71.6259, -155.508
3.60742, -1, -39.2573, -7.90029, 27.7483, 13.5635, 71.5364, -155.735
3.61598, -1, -39.4248, -7.98599, 27.7821, 13.5655, 71.4471, -155.962
3.62467, -1, -39.5925, -8.07156, 27.8157, 13.5674, 71.3578, -156.189
3.63182, -1, -39.7601, -8.15708, 27.8494, 13.5695, 71.2684, -156.415
3.63994, -1, -39.9277, -8.24258, 27.8832, 13.5714, 71.179, -156.642
3.64878, -1, -40.0953, -8.32803, 27.9169, 13.5733, 71.0896, -156.868
3.65594, -1, -40.2628, -8.4134, 27.9505, 13.5753, 71.0005, -157.094
3.66402, -1, -40.43, -8.4988, 27.9843, 13.5773, 70.911, -157.321
3.67081, -1, -40.5136, -8.54151, 28.0011, 13.5782, 70.8665, -157.434
3.67893, -1, -40.6807, -8.62686, 28.0346, 13.5802, 70.7774, -157.66
3.68825, -1, -40.9306, -8.7549, 28.0851, 13.5832, 70.6436, -157.998
3.69481, -1, -41.0138, -8.79756, 28.102, 13.5843, 70.5991, -158.111
3.70287, -1, -41.1801, -8.88285, 28.1355, 13.5863, 70.5099, -158.337
3.71238, -1, -41.4294, -9.0106, 28.1858, 13.5893, 70.3762, -158.676
3.72133, -1, -41.5957, -9.09577, 28.2195, 13.5912, 70.287, -158.901
3.72688, -1, -41.6789, -9.13833, 28.2363, 13.5922, 70.2424, -159.014
3.73642, -1, -41.9283, -9.26592, 28.2866, 13.5953, 70.1088, -159.352
3.74534, -1, -42.0115, -9.30841, 28.3034, 13.5973, 70.0199, -159.578
3.75092, -1, -42.1778, -9.39347, 28.337, 13.5983, 69.9753, -159.69
3.75986, -1, -42.344, -9.47855, 28.3705, 13.6003, 69.8866, -159.915
3.7678, -1, -42.5102, -9.56351, 28.404, 13.6024, 69.7976, -160.141
3.7758, -1, -42.6766, -9.64849, 28.4376, 13.6044, 69.7087, -160.366
3.78386, -1, -42.8431, -9.73346, 28.471, 13.6064, 69.6199, -160.591
3.79181, -1, -43.0096, -9.81843, 28.5043, 13.6085, 69.5311, -160.816
3.7998, -1, -43.176, -9.90338, 28.5379, 13.6106, 69.4423, -161.041
3.8068, -1, -43.3422, -9.98833, 28.5714, 13.6126, 69.3536, -161.266
3.8158, -1, -43.5082, -10.0732, 28.6048, 13.6147, 69.2652, -161.49
3.82383, -1, -43.6741, -10.1582, 28.6383, 13.6168, 69.1764, -161.715
3.8308, -1, -43.84, -10.243, 28.6718, 13.6189, 69.088, -161.94
3.8398, -1, -44.0057, -10.3278, 28.7051, 13.6211, 68.9997, -162.164
3.8478, -1, -44.1711, -10.4125, 28.7386, 13.6232, 68.9109, -162.388
3.85591, -1, -44.3362, -10.4971, 28.7721, 13.6255, 68.8223, -162.613
3.86382, -1, -44.5015, -10.5817, 28.8055, 13.6276, 68.7337, -162.837
3.87179, -1, -44.6666, -10.6663, 28.8388, 13.6298, 68.6451, -163.061
3.8808, -1, -44.8319, -10.7507, 28.8724, 13.632, 68.5566, -163.285
3.88781, -1, -44.9973, -10.8352, 28.9058, 13.6342, 68.4681, -163.509
3.8968, -1, -45.1626, -10.9198, 28.9391, 13.6364, 68.3798, -163.734
3.90387, -1, -45.3279, -11.0043, 28.9726, 13.6386, 68.2913, -163.958
3.91179, -1, -45.4931, -11.0887, 29.0059, 13.6409, 68.2029, -164.182
3.91981, -1, -45.6585, -11.1731, 29.0391, 13.6432, 68.1149, -164.405
3.92787, -1, -45.8238, -11.2576, 29.0725, 13.6454, 68.0263, -164.629
3.93579, -1, -45.988, -11.3414, 29.106, 13.6477, 67.9379, -164.853
3.9438, -1, -46.1493, -11.4237, 29.1394, 13.65, 67.8499, -165.076
3.95186, -1, -46.3063, -11.5031, 29.173, 13.6524, 67.7624, -165.297
3.9598, -1, -46.4565, -11.5781, 29.2065, 13.6547, 67.6773, -165.512
3.9678, -1, -46.5976, -11.6479, 29.2388, 13.6571, 67.5958, -165.718
3.97588, -1, -46.7271, -11.7112, 29.2686, 13.6593, 67.5213, -165.907
3.98385, -1, -46.8419, -11.7672, 29.2949, 13.6613, 67.4544, -166.076
3.99182, -1, -46.9405, -11.8163, 29.317, 13.663, 67.3987, -166.218
3.99986, -1, -47.0229, -11.8592, 29.3335, 13.6643, 67.354, -166.33
4.0078, -1, -47.09, -11.8959, 29.3447, 13.665, 67.3205, -166.415
4.01579, -1, -47.1422, -11.9253, 29.3519, 13.6655, 67.2972, -166.473
4.02392, -1, -47.181, -11.9474, 29.3558, 13.6657, 67.2823, -166.511
4.0318, -1, -47.2085, -11.9627, 29.3576, 13.6658, 67.2736, -166.533
4.0398, -1, -47.2265, -11.9726, 29.3584, 13.6658, 67.2689, -166.545
4.04812, -1, -47.2373, -11.9785, 29.3588, 13.6659, 67.2665, -166.55
4.05513, 2, -47.2428, -11.9813, 29.359, 13.666, 67.2654, -166.553
4.0632, 2, -47.2447, -11.9827, 29.3591, 13.666, 67.2649, -166.554
4.07145, 2, -47.2448, -11.9832, 29.3592, 13.6661, 67.2647, -166.555
4.07987, 2, -47.2446, -11.9834, 29.3593, 13.666, 67.2646, -166.555
4.08788, 2, -47.2445, -11.9835, 29.3593, 13.6661, 67.2645, -166.555
4.09596, 2, -47.2449, -11.9836, 29.3594, 13.6662, 67.2645, -166.555
4.10392, 2, -47.2458, -11.9838, 29.3594, 13.6661, 67.2645, -166.555
4.1119, 2, -47.2471, -11.9843, 29.3594, 13.6662, 67.2645, -166.555
4.11998, 2, -47.2489, -11.9851, 29.3594, 13.6662, 67.2645, -166.555
4.1278, 2, -47.2505, -11.986, 29.3594, 13.6661, 67.2645, -166.555
4.13581, 2, -47.2519, -11.9868, 29.3594, 13.6661, 67.2644, -166.555
4.14392, 2, -47.2528, -11.9875, 29.3594, 13.6661, 67.2644, -166.555
4.15184, 2, -47.2532, -11.9879, 29.3594, 13.6661, 67.2644, -166.555
4.15991, 2, -47.2534, -11.9881, 29.3594, 13.6661, 67.2645, -166.555
4.16807, 2, -47.2534, -11.9881, 29.3594, 13.6661, 67.2645, -166.555
4.17479, 2, -47.2533, -11.9881, 29.3594, 13.6661, 67.2645, -166.555
4.18409, 2, -47.2526, -11.9881, 29.3594, 13.6661, 67.2645, -166.555
4.19076, 2, -47.2523, -11.9881, 29.3594, 13.6661, 67.2645, -166.555
4.20021, 2, -47.2518, -11.9881, 29.3594, 13.6661, 67.2645, -166.555
4.20829, 2, -47.2516, -11.9881, 29.3594, 13.666, 67.2645, -166.555
4.21644, 2, -47.2516, -11.9882, 29.3594, 13.666, 67.2645, -166.555
4.22439, 2, -47.2518, -11.9883, 29.3594, 13.6661, 67.2645, -166.555
4.23234, 2, -47.252, -11.9886, 29.3594, 13.666, 67.2645, -166.555
4.24055, 2, -47.2527, -11.989, 29.3594, 13.666, 67.2645, -166.555
4.24838, 2, -47.2529, -11.9892, 29.3594, 13.666, 67.2645, -166.555
4.25579, 2, -47.2534, -11.9894, 29.3594, 13.6661, 67.2645, -166.555
4.26385, 2, -47.2536, -11.9896, 29.3594, 13.6661, 67.2645, -166.555
4.27178, 2, -47.2537, -11.9896, 29.3595, 13.6661, 67.2645, -166.555
4.27979, 2, -47.2537, -11.9896, 29.3595, 13.6661, 67.2645, -166.555
4.28784, 2, -47.2535, -11.9895, 29.3595, 13.666, 67.2645, -166.555
4.29578, 2, -47.2531, -11.9895, 29.3595, 13.6661, 67.2645, -166.555
4.30379, 2, -47.2527, -11.9894, 29.3595, 13.666, 67.2645, -166.555
4.31188, 2, -47.2524, -11.9894, 29.3595, 13.666, 67.2645, -166.555
4.31979, 2, -47.2522, -11.9894, 29.3595, 13.666, 67.2645, -166.555
4.3278, 2, -47.252, -11.9895, 29.3595, 13.666, 67.2645, -166.555
4.33584, 2, -47.2519, -11.9895, 29.3595, 13.6661, 67.2645, -166.555
4.34379, 2, -47.2519, -11.9895, 29.3595, 13.666, 67.2645, -166.555
4.35178, 2, -47.252, -11.9896, 29.3595, 13.6661, 67.2645, -166.555
4.35886, 2, -47.2519, -11.9897, 29.3595, 13.6661, 67.2645, -166.555
4.36778, 2, -47.252, -11.9897, 29.3594, 13.666, 67.2646, -166.555
4.37579, 2, -47.252, -11.9897, 29.3594, 13.666, 67.2646, -166.555
4.38386, 2, -47.252, -11.9897, 29.3594, 13.666, 67.2646, -166.555
4.39284, 2, -47.252, -11.9896, 29.3595, 13.666, 67.2646, -166.555
4.39978, 2, -47.2519, -11.9895, 29.3595, 13.666, 67.2646, -166.555
4.40785, 2, -47.2518, -11.9895, 29.3594, 13.666, 67.2646, -166.555
4.41578, 2, -47.2517, -11.9894, 29.3595, 13.666, 67.2646, -166.555
4.42379, 2, -47.2515, -11.9894, 29.3594, 13.666, 67.2646, -166.555
4.43186, 2, -47.2514, -11.9894, 29.3594, 13.666, 67.2646, -166.555
4.43979, 2, -47.2513, -11.9894, 29.3594, 13.666, 67.2646, -166.555
4.44778, 2, -47.2512, -11.9895, 29.3594, 13.6661, 67.2646, -166.555
4.45585, 2, -47.2512, -11.9895, 29.3594, 13.666, 67.2646, -166.555
4.46379, 2, -47.2512, -11.9895, 29.3594, 13.666, 67.2646, -166.555
4.47178, 2, -47.2511, -11.9895, 29.3595, 13.666, 67.2646, -166.555
4.47987, 2, -47.2511, -11.9895, 29.3595, 13.666, 67.2646, -166.555
4.48777, 2, -47.251, -11.9895, 29.3594, 13.666, 67.2646, -166.555
4.4958, 2, -47.251, -11.9894, 29.3594, 13.666, 67.2646, -166.555
4.50386, 2, -47.2509, -11.9894, 29.3594, 13.6659, 67.2646, -166.555
4.51178, 2, -47.2508, -11.9893, 29.3595, 13.6659, 67.2646, -166.555
4.51978, 2, -47.2508, -11.9893, 29.3595, 13.666, 67.2646, -166.555
4.52789, 2, -47.2506, -11.9892, 29.3595, 13.6659, 67.2646, -166.555
4.53578, 2, -47.2506, -11.9892, 29.3595, 13.6659, 67.2646, -166.555
4.54379, 2, -47.2505, -11.9892, 29.3594, 13.6659, 67.2646, -166.555
4.55186, 2, -47.2505, -11.9892, 29.3594, 13.666, 67.2646, -166.555
4.5598, 2, -47.2504, -11.9893, 29.3594, 13.666, 67.2646, -166.555
4.56778, 2, -47.2503, -11.9892, 29.3594, 13.6659, 67.2646, -166.555
4.57589, 2, -47.2501, -11.9892, 29.3594, 13.6659, 67.2646, -166.555
4.58387, 2, -47.25, -11.9893, 29.3594, 13.6659, 67.2647, -166.555
4.59188, 2, -47.2499, -11.9892, 29.3595, 13.6659, 67.2646, -166.555
4.59994, 2, -47.2498, -11.9892, 29.3594, 13.6659, 67.2646, -166.555
4.60788, 2, -47.2497, -11.9891, 29.3594, 13.6659, 67.2646, -166.555
4.61589, 2, -47.2496, -11.9891, 29.3594, 13.6659, 67.2647, -166.555
4.62397, 2, -47.2495, -11.989, 29.3594, 13.6659, 67.2647, -166.555
4.63179, 2, -47.2494, -11.989, 29.3594, 13.6659, 67.2647, -166.555
4.63985, 2, -47.2493, -11.989, 29.3595, 13.6659, 67.2647, -166.555
4.6479, 2, -47.2492, -11.989, 29.3594, 13.6659, 67.2647, -166.555
4.65582, 2, -47.2491, -11.989, 29.3594, 13.6659, 67.2647, -166.555
4.6639, 2, -47.249, -11.9889, 29.3594, 13.6659, 67.2647, -166.555
4.67232, 2, -47.249, -11.9889, 29.3594, 13.6659, 67.2647, -166.555
4.67887, 2, -47.2489, -11.9889, 29.3594, 13.6659, 67.2647, -166.555
4.68824, 2, -47.2488, -11.989, 29.3594, 13.6658, 67.2647, -166.555
4.69478, 2, -47.2488, -11.9889, 29.3594, 13.6659, 67.2647, -166.555
4.70424, 2, -47.2487, -11.9889, 29.3594, 13.6658, 67.2647, -166.555
4.71225, 2, -47.2486, -11.9888, 29.3594, 13.6658, 67.2647, -166.555
4.72069, 2, -47.2486, -11.9887, 29.3594, 13.6658, 67.2647, -166.555
4.72832, 2, -47.2485, -11.9887, 29.3594, 13.6658, 67.2647, -166.555
4.73648, 2, -47.2484, -11.9886, 29.3594, 13.6659, 67.2647, -166.555
4.74468, 2, -47.2483, -11.9886, 29.3594, 13.6658, 67.2647, -166.555
4.75231, 2, -47.2483, -11.9886, 29.3594, 13.6658, 67.2648, -166.554
4.75978, 2, -47.2483, -11.9886, 29.3594, 13.6658, 67.2648, -166.554
4.76871, 2, -47.2483, -11.9886, 29.3594, 13.6658, 67.2647, -166.555
4.77577, 2, -47.2482, -11.9886, 29.3594, 13.6658, 67.2647, -166.555
4.78378, 2, -47.2482, -11.9886, 29.3594, 13.6657, 67.2647, -166.555
4.79182, 2, -47.2482, -11.9886, 29.3594, 13.6657, 67.2647, -166.555
4.79977, 2, -47.2482, -11.9886, 29.3594, 13.6657, 67.2648, -166.555
4.80777, 2, -47.2481, -11.9885, 29.3594, 13.6657, 67.2648, -166.554
4.81584, 2, -47.2481, -11.9885, 29.3594, 13.6657, 67.2648, -166.554
4.82378, 2, -47.248, -11.9884, 29.3594, 13.6657, 67.2648, -166.554
4.83179, 2, -47.248, -11.9883, 29.3594, 13.6657, 67.2648, -166.554
4.83983, 2, -47.2479, -11.9883, 29.3594, 13.6656, 67.2648, -166.554
4.84777, 2, -47.2478, -11.9882, 29.3594, 13.6656, 67.2648, -166.554
4.85576, 2, -47.2477, -11.9883, 29.3594, 13.6657, 67.2648, -166.554
4.86277, 2, -47.2477, -11.9882, 29.3594, 13.6657, 67.2648, -166.554
4.87177, 2, -47.2477, -11.9882, 29.3594, 13.6656, 67.2648, -166.554
4.87977, 2, -47.2476, -11.9882, 29.3594, 13.6656, 67.2648, -166.554
4.88963, 2, -47.2475, -11.9882, 29.3594, 13.6656, 67.2648, -166.554
4.89578, 2, -47.2475, -11.9882, 29.3594, 13.6656, 67.2648, -166.554
4.90477, 2, -47.2475, -11.9882, 29.3594, 13.6656, 67.2648, -166.554
4.91183, 2, -47.2475, -11.9881, 29.3594, 13.6656, 67.2648, -166.554
4.92084, 2, -47.2475, -11.9881, 29.3594, 13.6656, 67.2649, -166.554
4.92776, 2, -47.2474, -11.988, 29.3594, 13.6655, 67.2649, -166.554
4.93584, 2, -47.2473, -11.9879, 29.3594, 13.6655, 67.2649, -166.554
4.94378, 2, -47.2472, -11.9879, 29.3594, 13.6655, 67.2649, -166.554
4.95177, 2, -47.2472, -11.9879, 29.3594, 13.6656, 67.265, -166.554
4.95985, 2, -47.2471, -11.9879, 29.3594, 13.6655, 67.265, -166.554
4.96777, 2, -47.247, -11.9879, 29.3594, 13.6655, 67.265, -166.554
4.97576, 2, -47.247, -11.9879, 29.3594, 13.6655, 67.265, -166.554
4.98386, 2, -47.2469, -11.9878, 29.3594, 13.6655, 67.265, -166.554
4.99177, 2, -47.247, -11.9878, 29.3594, 13.6655, 67.265, -166.554
4.99979, 2, -47.2469, -11.9878, 29.3594, 13.6654, 67.265, -166.554
5.00783, 2, -47.247, -11.9878, 29.3594, 13.6654, 67.265, -166.554
5.01577, 2, -47.2469, -11.9878, 29.3594, 13.6654, 67.2651, -166.554
5.02378, 2, -47.2468, -11.9877, 29.3594, 13.6654, 67.2651, -166.554
5.03189, 2, -47.2468, -11.9876, 29.3594, 13.6654, 67.265, -166.554
5.03977, 2, -47.2467, -11.9876, 29.3594, 13.6654, 67.2651, -166.554
5.04782, 2, -47.2466, -11.9876, 29.3594, 13.6654, 67.265, -166.554
5.05599, 2, -47.2466, -11.9875, 29.3594, 13.6654, 67.265, -166.554
5.06317, 2, -47.2465, -11.9875, 29.3594, 13.6654, 67.265, -166.554
5.07184, 2, -47.2464, -11.9875, 29.3594, 13.6654, 67.265, -166.554
5.07987, 2, -47.2464, -11.9875, 29.3594, 13.6654, 67.265, -166.554
5.08785, 2, -47.2464, -11.9875, 29.3594, 13.6653, 67.2651, -166.554
5.09593, 2, -47.2463, -11.9875, 29.3594, 13.6653, 67.2651, -166.554
5.10387, 2, -47.2463, -11.9875, 29.3594, 13.6653, 67.2651, -166.554
5.11209, 2, -47.2463, -11.9874, 29.3594, 13.6653, 67.2651, -166.554
5.12, 4, -47.2463, -11.9874, 29.3594, 13.6652, 67.2651, -166.554
5.12782, 4, -47.2462, -11.9874, 29.3594, 13.6652, 67.2651, -166.554
5.13577, 4, -47.2462, -11.9873, 29.3594, 13.6653, 67.2651, -166.554
5.14386, 4, -47.2462, -11.9873, 29.3594, 13.6652, 67.2651, -166.554
5.15182, 4, -47.2461, -11.9872, 29.3594, 13.6652, 67.2651, -166.554
5.15999, 4, -47.246, -11.9872, 29.3594, 13.6652, 67.2652, -166.554
5.168, 4, -47.2459, -11.9872, 29.3594, 13.6652, 67.2651, -166.554
5.17477, 4, -47.2459, -11.9872, 29.3594, 13.6652, 67.2651, -166.554
5.18408, 4, -47.2459, -11.9872, 29.3594, 13.6651, 67.2652, -166.554
5.19083, 4, -47.2459, -11.9872, 29.3594, 13.6651, 67.2652, -166.554
5.20022, 4, -47.2458, -11.9871, 29.3594, 13.6651, 67.2652, -166.554
5.20826, 4, -47.2458, -11.9871, 29.3594, 13.6651, 67.2652, -166.554
5.21669, 4, -47.2457, -11.9871, 29.3594, 13.6651, 67.2652, -166.554
5.23149, 4, -47.2457, -11.987, 29.3594, 13.6651, 67.2653, -166.554
5.23417, 4, -47.2457, -11.987, 29.3594, 13.6651, 67.2653, -166.554
5.24066, 4, -47.2457, -11.987, 29.3594, 13.6651, 67.2653, -166.554
5.24879, 4, -47.2456, -11.9869, 29.3594, 13.665, 67.2653, -166.554
5.25708, 4, -47.2456, -11.9869, 29.3594, 13.665, 67.2653, -166.553
5.26458, 4, -47.2455, -11.9869, 29.3594, 13.665, 67.2652, -166.553
5.27742, 4, -47.2454, -11.9869, 29.3594, 13.665, 67.2653, -166.553
5.28255, 4, -47.2454, -11.9869, 29.3594, 13.665, 67.2653, -166.553
5.2909, 4, -47.2454, -11.9869, 29.3594, 13.665, 67.2652, -166.554
5.29598, 4, -47.2453, -11.9868, 29.3594, 13.665, 67.2652, -166.553
5.30664, 4, -47.2453, -11.9868, 29.3594, 13.665, 67.2653, -166.553
5.31089, 4, -47.2453, -11.9868, 29.3594, 13.665, 67.2653, -166.553
5.32171, 4, -47.2453, -11.9868, 29.3594, 13.6649, 67.2653, -166.553
5.33087, 4, -47.2453, -11.9867, 29.3594, 13.6649, 67.2653, -166.553
5.33714, 4, -47.2453, -11.9867, 29.3594, 13.6649, 67.2653, -166.553
5.34389, 4, -47.2452, -11.9867, 29.3594, 13.6649, 67.2653, -166.553
5.3519, 4, -47.2452, -11.9867, 29.3594, 13.6649, 67.2653, -166.553
5.36001, 4, -47.2451, -11.9866, 29.3594, 13.6649, 67.2653, -166.553
5.36767, 4, -47.2451, -11.9866, 29.3594, 13.6648, 67.2653, -166.553
5.37598, 4, -47.245, -11.9866, 29.3594, 13.6648, 67.2653, -166.553
5.38692, 4, -47.2452, -11.9866, 29.3594, 13.6648, 67.2654, -166.553
5.39096, 4, -47.2455, -11.9868, 29.3595, 13.6649, 67.2654, -166.553
5.40164, 4, -47.247, -11.9877, 29.3605, 13.6653, 67.266, -166.553
5.41162, 4, -47.2526, -11.9934, 29.3673, 13.6764, 67.2684, -166.552
5.41695, 4, -47.2557, -11.9972, 29.3724, 13.6866, 67.2709, -166.55
5.42605, 4, -47.2715, -12.0174, 29.4046, 13.7506, 67.2884, -166.537
5.4319, 5, -47.2797, -12.0283, 29.4233, 13.7889, 67.299, -166.528
5.44047, 5, -47.302, -12.058, 29.4773, 13.9013, 67.3308, -166.503
5.44789, 5, -47.3341, -12.0996, 29.5588, 14.0736, 67.3789, -166.464
5.45596, 5, -47.3777, -12.1549, 29.6735, 14.3194, 67.4467, -166.407
5.46395, 5, -47.4341, -12.2251, 29.8246, 14.6473, 67.5366, -166.332
5.47468, 5, -47.5424, -12.3587, 30.1232, 15.2965, 67.7114, -166.184
5.484, 5, -47.6299, -12.4662, 30.3687, 15.8256, 67.8519, -166.064
5.48791, 5, -47.6779, -12.525, 30.5038, 16.1144, 67.928, -165.999
5.49723, 5, -47.7809, -12.6516, 30.7962, 16.7312, 68.0892, -165.861
5.50393, 5, -47.8919, -12.7887, 31.1127, 17.3882, 68.2575, -165.716
5.5119, 5, -48.0088, -12.9338, 31.4473, 18.0698, 68.4295, -165.567
5.51976, 5, -48.1292, -13.084, 31.7928, 18.7626, 68.6009, -165.418
5.53196, 5, -48.3116, -13.3117, 32.3208, 19.8018, 68.8527, -165.198
5.53918, 5, -48.43, -13.4596, 32.6725, 20.4781, 69.0154, -165.051
5.5439, 5, -48.4868, -13.5316, 32.8465, 20.8081, 69.0954, -164.974
5.55292, 6, -48.5926, -13.6696, 33.1866, 21.4442, 69.2543, -164.809
5.55998, 6, -48.6842, -13.7976, 33.5125, 22.0391, 69.4132, -164.616
5.56853, 6, -48.7574, -13.9162, 33.82, 22.5878, 69.5749, -164.383
5.5793, 7, -48.8267, -14.0791, 34.2443, 23.3179, 69.8273, -163.927
5.58394, 7, -48.8386, -14.1293, 34.3759, 23.5385, 69.915, -163.742
5.59293, 8, -48.8466, -14.2228, 34.6259, 23.9512, 70.0974, -163.32
5.60187, 8, -48.8362, -14.3067, 34.8624, 24.3342, 70.2893, -162.832
5.61159, 9, -48.7923, -14.4189, 35.1985, 24.8749, 70.5961, -161.996
5.616, 9, -48.7715, -14.4538, 35.3073, 25.0509, 70.7031, -161.696
5.62405, 10, -48.7224, -14.5212, 35.5234, 25.4014, 70.924, -161.076
5.63539, 10, -48.6641, -14.5865, 35.7383, 25.753, 71.1521, -160.116
5.6401, 11, -48.5974, -14.6502, 35.9526, 26.1076, 71.3856, -159.793
5.6487, 11, -48.5243, -14.7128, 36.1668, 26.4665, 71.6216, -159.149
5.66032, 12, -48.4077, -14.806, 36.4852, 27.0157, 71.9785, -158.186
5.66919, 12, -48.3284, -14.8673, 36.6946, 27.3906, 72.2184, -157.542
5.67232, 13, -48.2885, -14.8973, 36.7988, 27.5812, 72.3391, -157.219
5.68034, 13, -48.2084, -14.956, 37.0057, 27.968, 72.5826, -156.571
5.68843, 14, -48.1267, -15.014, 37.2104, 28.3624, 72.8286, -155.918
5.6978, 14, -48.0424, -15.0729, 37.4142, 28.7625, 73.0768, -155.262
5.70472, 15, -47.9546, -15.1333, 37.6176, 29.1664, 73.3258, -154.607
5.71319, 15, -47.8626, -15.1939, 37.8192, 29.5712, 73.5737, -153.954
5.72068, 16, -47.7653, -15.2533, 38.0192, 29.9745, 73.8185, -153.305
5.73087, 16, -47.6615, -15.3125, 38.2179, 30.3749, 74.0592, -152.662
5.73658, 17, -47.5509, -15.3734, 38.4137, 30.7716, 74.2948, -152.026
5.74529, 17, -47.4345, -15.4366, 38.606, 31.1641, 74.5249, -151.394
5.75284, 18, -47.3131, -15.5009, 38.7952, 31.5527, 74.7495, -150.768
5.76145, 18, -47.1867, -15.5658, 38.9814, 31.9382, 74.969, -150.149
5.77061, 19, -47.0551, -15.6326, 39.1642, 32.3213, 75.1836, -149.537
5.77776, 19, -46.9177, -15.7025, 39.345, 32.7033, 75.3941, -148.93
5.78477, 19, -46.8469, -15.7384, 39.435, 32.8941, 75.6004, -148.329
5.79098, 20, -46.7016, -15.8112, 39.614, 33.2748, 75.7019, -148.032
5.80002, 21, -46.5521, -15.885, 39.7906, 33.6547, 75.9018, -147.442
5.80789, 21, -46.3989, -15.9601, 39.965, 34.0335, 76.0973, -146.859
5.81603, 22, -46.242, -16.0371, 40.1382, 34.4116, 76.2886, -146.282
5.82583, 22, -46.0811, -16.1158, 40.3096, 34.9761, 76.5678, -145.43
5.83189, 23, -45.9157, -16.1963, 40.4778, 35.1633, 76.659, -145.148
5.84316, 23, -45.6563, -16.3208, 40.7251, 35.7204, 76.9257, -144.311
5.84788, 24, -45.5661, -16.3635, 40.806, 35.9041, 77.0122, -144.035
5.85595, 24, -45.3797, -16.4507, 40.9646, 36.2671, 77.1806, -143.486
5.86399, 25, -45.1857, -16.54, 41.1184, 36.6223, 77.3422, -142.944
5.8775, 25, -44.8814, -16.7211, 41.4131, 37.3048, 77.6428, -141.873
5.87988, 26, -44.7766, -16.7211, 41.4131, 37.3048, 77.6428, -141.873
5.89052, 26, -44.4521, -16.859, 41.6215, 37.7918, 77.8503, -141.083
5.896, 27, -44.3403, -16.9054, 41.6884, 37.9501, 77.9171, -140.821
5.9069, 27, -43.9947, -17.0455, 41.8806, 38.414, 78.1113, -140.036
5.91198, 28, -43.8761, -17.092, 41.9417, 38.5652, 78.1747, -139.775
5.92292, 28, -43.51, -17.2294, 42.1153, 39.0083, 78.3614, -138.992
5.93101, 29, -43.2571, -17.3189, 42.2226, 39.2948, 78.4836, -138.47
5.93588, 29, -43.1283, -17.3629, 42.2737, 39.4353, 78.5441, -138.209
5.94488, 30, -42.8659, -17.4493, 42.3703, 39.7106, 78.6627, -137.686
5.9519, 30, -42.5965, -17.5329, 42.4596, 39.9778, 78.7793, -137.163
5.96276, 31, -42.319, -17.6138, 42.5417, 40.2368, 78.9488, -136.381
5.96789, 31, -42.0336, -17.6923, 42.6165, 40.487, 79.0038, -136.12
5.97626, 32, -41.7406, -17.7686, 42.6844, 40.7286, 79.1121, -135.599
5.98461, 32, -41.4408, -17.8423, 42.7455, 40.9611, 79.2167, -135.079
5.99195, 33, -41.1343, -17.9131, 42.7996, 41.185, 79.3183, -134.561
6.00399, 33, -40.6616, -18.0138, 42.8675, 41.5055, 79.4651, -133.786
6.00793, 34, -40.5006, -18.0461, 42.8865, 41.6081, 79.5125, -133.528
6.01685, 34, -40.175, -18.1088, 42.919, 41.8074, 79.6056, -133.013
6.02582, 35, -39.8446, -18.169, 42.9444, 41.9988, 79.6965, -132.498
6.03537, 35, -39.5086, -18.2259, 42.9628, 42.272, 79.8281, -131.73
6.04004, 36, -39.1664, -18.2795, 42.9741, 42.3593, 79.8711, -131.474
6.05185, 36, -38.6393, -18.3534, 42.9784, 42.6097, 79.9968, -130.708
6.05534, 37, -38.4604, -18.3764, 42.9765, 42.6894, 80.0377, -130.454
6.06523, 37, -38.0983, -18.4197, 42.9676, 42.8431, 80.1177, -129.946
6.07376, 38, -37.7307, -18.4591, 42.9517, 42.9893, 80.1961, -129.44
6.08057, 38, -37.3582, -18.495, 42.9294, 43.1283, 80.272, -128.935
6.08988, 39, -36.9813, -18.5276, 42.9003, 43.2596, 80.3461, -128.432
6.09766, 39, -36.5996, -18.5566, 42.8645, 43.3838, 80.4176, -127.931
6.10399, 40, -36.2129, -18.5818, 42.822, 43.5006, 80.4878, -127.432
6.11232, 40, -35.8202, -18.6032, 42.773, 43.6101, 80.5558, -126.935
6.12, 41, -35.4216, -18.6206, 42.7175, 43.7126, 80.6224, -126.439
6.12889, 41, -35.0173, -18.6343, 42.6554, 43.8074, 80.686, -125.946
6.13864, 42, -34.6085, -18.6446, 42.5868, 43.8957, 80.7488, -125.455
6.14475, 42, -34.1963, -18.6516, 42.5119, 43.9765, 80.8085, -124.966
6.15451, 43, -33.7812, -18.6554, 42.4308, 44.0503, 80.8673, -124.479
6.16262, 43, -33.3624, -18.656, 42.3436, 44.1168, 80.9241, -123.995
6.16986, 44, -32.9379, -18.653, 42.2507, 44.1767, 80.9787, -123.513
6.1769, 44, -32.5072, -18.6462, 42.1521, 44.2286, 81.0328, -123.034
6.18577, 45, -32.0699, -18.6356, 42.0476, 44.2737, 81.0843, -122.556
6.19308, 45, -31.6274, -18.6212, 41.9372, 44.3117, 81.1344, -122.082
6.204, 46, -31.1813, -18.6035, 41.8207, 44.3419, 81.2067, -121.373
6.20926, 46, -30.7335, -18.5822, 41.6984, 44.3642, 81.2295, -121.139
6.21813, 47, -30.283, -18.5572, 41.5702, 44.3789, 81.2745, -120.671
6.2229, 47, -30.0562, -18.543, 41.5039, 44.3835, 81.297, -120.438
6.23487, 48, -29.3665, -18.4939, 41.2961, 44.3871, 81.362, -119.741
6.23889, 48, -29.1333, -18.4753, 41.2238, 44.3843, 81.3829, -119.51
6.24959, 49, -28.4253, -18.4132, 40.9977, 44.3625, 81.4455, -118.819
6.25728, 49, -27.9489, -18.3662, 40.8396, 44.3369, 81.4869, -118.361
6.26507, 50, -27.4701, -18.3148, 40.6753, 44.3013, 81.5274, -117.903
6.27329, 50, -27.2297, -18.2872, 40.5906, 44.28, 81.5685, -117.446
6.28071, 51, -26.7451, -18.2278, 40.3269, 44.2032, 81.6109, -116.99
6.29488, 52, -25.7533, -18.0924, 40.0483, 44.1037, 81.6745, -116.309
6.3, 52, -25.501, -18.055, 39.9517, 44.0659, 81.696, -116.082
6.30295, 52, -25.2478, -18.0164, 39.8532, 44.0252, 81.718, -115.855
6.31473, 53, -24.4846, -17.8922, 39.5485, 43.8875, 81.7852, -115.175
6.31886, 53, -24.2291, -17.8479, 39.4436, 43.8366, 81.8076, -114.949
6.32991, 54, -23.4549, -17.7054, 39.1166, 43.6681, 81.8779, -114.271
6.33495, 54, -23.1931, -17.6548, 39.0039, 43.6065, 81.9028, -114.045
6.34573, 55, -22.3953, -17.4941, 38.6549, 43.4048, 81.9794, -113.367
6.35087, 55, -22.1263, -17.4375, 38.5346, 43.3317, 82.0064, -113.141
6.36395, 56, -21.3159, -17.2587, 38.164, 43.0953, 82.0904, -112.462
6.36787, 56, -21.0445, -17.1961, 38.0373, 43.0109, 82.1186, -112.236
6.37996, 57, -20.2217, -16.9998, 37.6471, 42.7413, 82.2068, -111.56
6.38721, 57, -19.6617, -16.8619, 37.3793, 42.547, 82.2667, -111.109
6.39398, 58, -19.0934, -16.7179, 37.1043, 42.3402, 82.3292, -110.659
6.40063, 58, -18.8073, -16.6435, 36.9644, 42.2319, 82.3613, -110.433
6.40788, 59, -18.2333, -16.4905, 36.6797, 42.0056, 82.4264, -109.984
6.41594, 59, -17.6567, -16.3328, 36.3877, 41.7663, 82.4954, -109.534
6.43053, 60, -16.778, -16.0883, 35.938, 41.3831, 82.6028, -108.635
6.43516, 60, -16.1798, -15.9186, 35.6313, 41.112, 82.6768, -108.41
6.44032, 61, -15.8783, -15.8316, 35.4763, 40.9717, 82.714, -108.185
6.45174, 61, -14.969, -15.5633, 35.0032, 40.5322, 82.8281, -107.513
6.45586, 62, -14.6645, -15.4719, 34.8431, 40.3796, 82.867, -107.289
6.46532, 62, -14.0509, -15.2863, 34.5187, 40.0648, 82.9466, -106.84
6.47193, 63, -13.4278, -15.0954, 34.1903, 39.7373, 83.028, -106.392
6.47973, 63, -12.7951, -14.8976, 33.8564, 39.3963, 83.1121, -105.942
6.48794, 64, -12.1559, -14.6936, 33.5172, 39.0418, 83.1996, -105.492
6.49895, 64, -11.1888, -14.3755, 32.9955, 38.4828, 83.3384, -104.814
6.50391, 65, -10.8622, -14.2659, 32.8181, 38.2883, 83.3874, -104.587
6.51156, 65, -10.2001, -14.0415, 32.4579, 37.8861, 83.4902, -104.132
6.52001, 66, -9.52695, -13.8105, 32.0919, 37.4642, 83.5992, -103.674
6.52788, 66, -8.84536, -13.572, 31.7202, 37.0235, 83.7153, -103.215
6.53515, 67, -8.15872, -13.3261, 31.3422, 36.5636, 83.8381, -102.753
6.54542, 67, -7.46464, -13.0735, 30.9578, 36.0861, 83.9678, -102.289
6.55481, 68, -6.76109, -12.8134, 30.5683, 35.3401, 84.1745, -101.59
6.56185, 68, -6.05024, -12.5468, 30.176, 35.085, 84.2465, -101.356
6.5673, 69, -5.33469, -12.2751, 29.7806, 34.5665, 84.3945, -100.887
6.57632, 69, -4.61507, -11.9973, 29.3828, 34.0375, 84.547, -100.416
6.5858, 70, -3.88893, -11.7138, 28.985, 33.5004, 84.7037, -99.944
6.59261, 70, -3.15552, -11.4224, 28.5883, 32.9533, 84.8643, -99.4708
6.59999, 71, -2.41599, -11.1225, 28.1922, 32.3953, 85.0295, -98.9969
6.60805, 71, -1.6707, -10.816, 27.7943, 31.8244, 85.2016, -98.522
6.61785, 72, -0.91899, -10.5037, 27.3944, 31.2382, 85.3827, -98.0451
6.62592, 72, -0.161625, -10.1866, 26.992, 30.6341, 85.5736, -97.5666
6.63614, 73, 0.982561, -9.69859, 26.3842, 29.7016, 85.8777, -96.8453
6.64004, 73, 1.366, -9.53234, 26.181, 29.3846, 85.9832, -96.6046
6.65005, 74, 2.13621, -9.19513, 25.7747, 28.7436, 86.2005, -96.1218
6.65537, 74, 2.52282, -9.02435, 25.5725, 28.4202, 86.312, -95.8798
6.66547, 75, 3.68632, -8.50356, 24.9722, 27.4395, 86.6561, -95.1516
6.67391, 75, 4.46469, -8.1476, 24.5777, 26.7795, 86.8926, -94.6639
6.68431, 76, 5.63667, -7.60253, 23.9948, 25.7873, 87.2583, -93.9292
6.69386, 76, 6.41983, -7.23231, 23.6126, 25.1232, 87.5097, -93.4362
6.69669, 76, 6.81158, -7.04486, 23.4231, 24.7915, 87.638, -93.1891
6.70445, 77, 7.59656, -6.66343, 23.0464, 24.1276, 87.9009, -92.693
6.71888, 78, 8.77839, -6.07242, 22.4873, 23.1261, 88.314, -91.9454
6.73372, 79, 10.3603, -5.25253, 21.7533, 21.769, 88.9094, -90.9345
6.73497, 79, 10.3603, -5.25253, 21.7533, 21.769, 88.9094, -90.9345
6.73701, 79, 10.7566, -5.04322, 21.5714, 21.4258, 89.0671, -90.6786
6.74544, 80, 11.5482, -4.61758, 21.2094, 20.7369, 89.3923, -90.1627
6.7523, 80, 11.9431, -4.1809, 20.8518, 20.0453, 89.7286, -89.6408
6.76127, 80, 12.7283, -3.73422, 20.4988, 19.3591, 90.0749, -89.1121
6.76771, 81, 13.5069, -3.50847, 20.3247, 19.0195, 90.2511, -88.8458
6.77571, 81, 14.2795, -3.05258, 19.9817, 18.3504, 90.6086, -88.3094
6.78376, 82, 15.0444, -2.58962, 19.6486, 17.6968, 90.9705, -87.7702
6.79171, 82, 15.8007, -2.11842, 19.3263, 17.061, 91.3358, -87.2285
6.79974, 83, 16.5451, -1.64018, 19.0143, 16.4446, 91.704, -86.6851
6.80776, 83, 17.2766, -1.15703, 18.7124, 15.8484, 92.0765, -86.1407
6.81571, 84, 17.9937, -0.669484, 18.4195, 15.2715, 92.4532, -85.5976
6.82376, 84, 18.6944, -0.17854, 18.1356, 14.7152, 92.8361, -85.056
6.8317, 85, 19.3771, 0.316218, 17.8577, 14.1788, 93.226, -84.516
6.83874, 85, 20.0406, 0.816129, 17.5861, 13.6623, 93.6242, -83.979
6.84793, 86, 20.6857, 1.32066, 17.3207, 13.1658, 94.029, -83.4451
6.85576, 86, 21.3141, 1.82936, 17.0617, 12.689, 94.4393, -82.9136
6.86372, 86, 21.9283, 2.3446, 16.8095, 12.2318, 94.8554, -82.3818
6.87173, 87, 22.5304, 2.86915, 16.5626, 11.7937, 95.278, -81.8481
6.87976, 87, 23.122, 3.40301, 16.3198, 11.3735, 95.7075, -81.3106
6.88672, 88, 23.7036, 3.94252, 16.0801, 10.9694, 96.1442, -80.7676
6.89573, 88, 24.2747, 4.48721, 15.8428, 10.5815, 96.5869, -80.2159
6.9047, 89, 24.8344, 5.04149, 15.611, 10.2093, 97.0352, -79.6547
6.91172, 89, 25.3844, 5.60857, 15.3851, 9.85394, 97.4878, -79.0829
6.91994, 90, 25.9293, 6.18752, 15.1639, 9.51524, 97.944, -78.4994
6.92871, 90, 26.4706, 6.77703, 14.9485, 9.19231, 98.4043, -77.9018
6.93477, 90, 27.0035, 7.37652, 14.7392, 8.88584, 98.87, -77.2899
6.94378, 91, 27.5243, 7.98623, 14.5349, 8.59612, 99.3428, -76.6646
6.95167, 92, 28.0345, 8.6058, 14.3338, 8.32432, 99.8233, -76.0257
6.95971, 92, 28.5372, 9.23378, 14.1357, 8.07161, 100.311, -75.3743
6.96772, 93, 29.0334, 9.87072, 13.9406, 7.8386, 100.806, -74.7131
6.97571, 93, 29.5191, 10.5163, 13.7498, 7.62712, 101.304, -74.0439
6.98368, 94, 29.9915, 11.17, 13.5656, 7.43815, 101.803, -73.3664
6.9917, 94, 30.4492, 11.8294, 13.3883, 7.27294, 102.3, -72.6829
6.99977, 95, 30.8931, 12.4927, 13.2177, 7.13161, 102.795, -71.9953
7.00771, 95, 31.3241, 13.1586, 13.0551, 7.01423, 103.286, -71.3016
7.01569, 96, 31.7418, 13.8266, 12.9003, 6.92036, 103.774, -70.6022
7.02377, 96, 32.1443, 14.4958, 12.7517, 6.85047, 104.258, -69.8983
7.03191, 97, 32.5299, 15.1649, 12.609, 6.80415, 104.739, -69.1885
7.03971, 97, 32.899, 15.8318, 12.4729, 6.77871, 105.214, -68.4729
7.04792, 98, 33.2525, 16.4951, 12.345, 6.77434, 105.682, -67.7559
7.05571, 98, 33.5911, 17.1535, 12.2263, 6.79202, 106.14, -67.038
7.06368, 99, 33.9147, 17.8043, 12.1174, 6.82946, 106.586, -66.3205
7.07178, 99, 34.2239, 18.4466, 12.0189, 6.8867, 107.018, -65.6078
7.07975, 99, 34.5208, 19.0791, 11.9306, 6.96289, 107.434, -64.9005
7.08807, 100, 34.8064, 19.7019, 11.8522, 7.05582, 107.835, -64.199
7.09578, 100, 35.0793, 20.3131, 11.7828, 7.16511, 108.22, -63.5065
7.1038, 101, 35.3383, 20.9113, 11.7208, 7.28838, 108.59, -62.8231
7.11209, 101, 35.5843, 21.4956, 11.6665, 7.42378, 108.946, -62.1491
7.11982, 102, 35.8171, 22.0647, 11.6195, 7.56895, 109.286, -61.4871
7.12781, 102, 36.0367, 22.619, 11.5795, 7.7219, 109.613, -60.8388
7.13588, 103, 36.2456, 23.1579, 11.5467, 7.88068, 109.923, -60.2044
7.14435, 103, 36.4468, 23.6818, 11.5214, 8.04501, 110.218, -59.5837
7.15173, 103, 36.6425, 24.1917, 11.5047, 8.21547, 110.496, -58.9781
7.15982, 104, 36.833, 24.6884, 11.496, 8.39301, 110.756, -58.3847
7.16781, 104, 37.019, 25.1719, 11.4939, 8.57946, 110.999, -57.8007
7.17584, 104, 37.2005, 25.643, 11.498, 8.7751, 111.223, -57.225
7.18463, 104, 37.3736, 26.1007, 11.5074, 8.97929, 111.429, -56.6571
7.19196, 104, 37.5363, 26.545, 11.5205, 9.19176, 111.62, -56.0962
7.19874, 104, 37.6142, 26.762, 11.5281, 9.30014, 111.71, -55.8188
7.20886, 104, 37.8407, 27.3949, 11.5549, 9.62992, 111.963, -55.0042
7.21617, 104, 37.9894, 27.8002, 11.5747, 9.85043, 112.119, -54.4809
7.22494, 104, 38.1358, 28.1915, 11.5949, 10.0681, 112.268, -53.9762
7.23221, 104, 38.2784, 28.5687, 11.6148, 10.2817, 112.409, -53.4922
7.24027, 104, 38.4154, 28.9317, 11.6337, 10.4893, 112.543, -53.0312
7.24834, 104, 38.5456, 29.2782, 11.6518, 10.69, 112.669, -52.5934
7.25627, 104, 38.6078, 29.4451, 11.669, 10.8825, 112.787, -52.1809
7.26435, 104, 38.7264, 29.7648, 11.6849, 11.0664, 112.898, -51.7932
7.2717, 104, 38.8368, 30.0656, 11.6924, 11.1547, 112.95, -51.6084
7.28031, 104, 38.9396, 30.3482, 11.7068, 11.3243, 113.05, -51.2579
7.28778, 104, 39.0347, 30.6112, 11.72, 11.4835, 113.141, -50.9332
7.29573, 104, 39.1218, 30.8544, 11.7319, 11.632, 113.226, -50.6335
7.30372, 104, 39.2005, 31.0783, 11.7428, 11.7694, 113.303, -50.359
7.3127, 104, 39.2708, 31.282, 11.7528, 11.8953, 113.373, -50.1097
7.31971, 104, 39.333, 31.4661, 11.762, 12.0095, 113.435, -49.8859
7.32769, 104, 39.3877, 31.631, 11.77, 12.1117, 113.491, -49.687
7.33577, 104, 39.4358, 31.7764, 11.7771, 12.2017, 113.54, -49.5132
7.34369, 104, 39.4778, 31.9032, 11.7836, 12.2794, 113.581, -49.3641
7.35171, 104, 39.5138, 32.0127, 11.7895, 12.345, 113.615, -49.2386
7.35976, 104, 39.5435, 32.1054, 11.7946, 12.3993, 113.644, -49.1361
7.36769, 104, 39.568, 32.1826, 11.7992, 12.4415, 113.666, -49.0543
7.3757, 104, 39.5879, 32.246, 11.8033, 12.4743, 113.683, -48.992
7.38376, 104, 39.6036, 32.2972, 11.8071, 12.4989, 113.695, -48.9465
7.39169, 104, 39.616, 32.3376, 11.8106, 12.5164, 113.703, -48.9148
7.40071, 104, 39.6255, 32.368, 11.8137, 12.5284, 113.708, -48.8938
7.40776, 104, 39.6323, 32.3908, 11.8165, 12.536, 113.711, -48.8809
7.41571, 104, 39.6367, 32.4075, 11.8188, 12.5405, 113.713, -48.8741
7.42369, 104, 39.6394, 32.419, 11.8205, 12.5427, 113.714, -48.8707
7.43177, 104, 39.6409, 32.4263, 11.8219, 12.5439, 113.714, -48.8692
7.4397, 105, 39.6413, 32.431, 11.8229, 12.5445, 113.714, -48.8685
7.44774, 105, 39.6409, 32.4341, 11.8238, 12.5448, 113.714, -48.8683
7.45576, 105, 39.64, 32.4362, 11.8246, 12.545, 113.714, -48.8683
7.4637, 105, 39.6389, 32.4378, 11.8253, 12.5451, 113.714, -48.8684
7.47169, 105, 39.6375, 32.4391, 11.8258, 12.5451, 113.714, -48.8686
7.47977, 105, 39.6363, 32.4403, 11.8263, 12.5452, 113.714, -48.8689
7.48769, 105, 39.6355, 32.4415, 11.8269, 12.5452, 113.714, -48.8692
7.49569, 105, 39.635, 32.4427, 11.8275, 12.5452, 113.714, -48.8695
7.50378, 105, 39.6347, 32.4438, 11.8281, 12.5451, 113.714, -48.8698
7.51169, 105, 39.6345, 32.4448, 11.8286, 12.5451, 113.714, -48.87
7.51972, 105, 39.6342, 32.4456, 11.829, 12.5451, 113.714, -48.8702
7.52776, 105, 39.634, 32.4461, 11.8293, 12.5451, 113.714, -48.8705
7.53566, 105, 39.6337, 32.4466, 11.8296, 12.5451, 113.714, -48.8707
7.54369, 105, 39.6334, 32.4469, 11.8299, 12.5451, 113.714, -48.8708
7.55175, 105, 39.6332, 32.4471, 11.8301, 12.5451, 113.714, -48.871
