hehonglu123/Motion-Primitive-Planning/ILC/recorded_data/realrobot/from_NX/iteration_34/run_3.csv
timestamp, cmd_num, J1, J2, J3, J4, J5, J6
0.000369, -1, 39.629, 32.447, 11.8316, 12.5436, 113.713, -48.8735
0.004304, -1, 39.629, 32.447, 11.8316, 12.5436, 113.713, -48.8735
0.007928, -1, 39.629, 32.447, 11.8316, 12.5436, 113.713, -48.8735
0.030619, -1, 39.629, 32.447, 11.8316, 12.5436, 113.713, -48.8735
0.034299, -1, 39.629, 32.447, 11.8316, 12.5436, 113.713, -48.8735
0.035695, -1, 39.629, 32.447, 11.8316, 12.5436, 113.713, -48.8735
0.03972, -1, 39.629, 32.447, 11.8316, 12.5436, 113.713, -48.8735
0.047826, -1, 39.629, 32.447, 11.8316, 12.5436, 113.713, -48.8736
0.055773, -1, 39.6285, 32.447, 11.8316, 12.5436, 113.713, -48.8735
0.063796, -1, 39.6261, 32.4465, 11.8316, 12.5436, 113.713, -48.8737
0.0717, -1, 39.6208, 32.4452, 11.8315, 12.5436, 113.713, -48.874
0.079798, -1, 39.6119, 32.4423, 11.8315, 12.5436, 113.713, -48.8753
0.087712, -1, 39.5986, 32.437, 11.8314, 12.5436, 113.711, -48.8798
0.09572, -1, 39.5789, 32.4285, 11.8315, 12.5436, 113.708, -48.8909
0.103806, -1, 39.5502, 32.4158, 11.8319, 12.5436, 113.701, -48.9113
0.111738, -1, 39.5118, 32.3983, 11.834, 12.5436, 113.689, -48.9448
0.119716, -1, 39.4623, 32.3746, 11.8388, 12.5436, 113.67, -48.9952
0.127789, -1, 39.4002, 32.3442, 11.8471, 12.5436, 113.642, -49.0668
0.135713, -1, 39.3248, 32.3064, 11.8599, 12.5437, 113.605, -49.1611
0.143727, -1, 39.2356, 32.2607, 11.8777, 12.5439, 113.558, -49.281
0.151794, -1, 39.1326, 32.2072, 11.9002, 12.5444, 113.501, -49.4263
0.159714, -1, 39.0154, 32.1459, 11.9269, 12.5454, 113.434, -49.5963
0.167719, -1, 38.8849, 32.0771, 11.9575, 12.547, 113.358, -49.7887
0.175992, -1, 38.742, 32.0017, 11.9915, 12.5488, 113.274, -50.0006
0.18376, -1, 38.5876, 31.9205, 12.0277, 12.5509, 113.184, -50.2283
0.191837, -1, 38.4232, 31.8343, 12.0655, 12.5533, 113.089, -50.4683
0.200571, -1, 38.251, 31.7441, 12.1043, 12.5557, 112.991, -50.7166
0.207805, -1, 38.0725, 31.6508, 12.1434, 12.5581, 112.891, -50.97
0.215815, -1, 37.8889, 31.5555, 12.1822, 12.5606, 112.79, -51.2266
0.22508, -1, 37.7014, 31.4586, 12.2211, 12.563, 112.688, -51.4851
0.231607, -1, 37.6065, 31.3609, 12.2598, 12.5654, 112.585, -51.7446
0.239891, -1, 37.3195, 31.2629, 12.2986, 12.5679, 112.483, -52.0042
0.247741, -1, 37.1273, 31.1649, 12.3374, 12.5703, 112.38, -52.2639
0.255747, -1, 36.9351, 31.0672, 12.3761, 12.5729, 112.277, -52.5239
0.2639, -1, 36.743, 30.9694, 12.4149, 12.5755, 112.174, -52.7843
0.271821, -1, 36.5513, 30.8717, 12.4538, 12.5781, 112.071, -53.0447
0.280145, -1, 36.3597, 30.7739, 12.4927, 12.5807, 111.968, -53.3049
0.286759, -1, 36.2639, 30.7251, 12.5121, 12.582, 111.917, -53.4351
0.296087, -1, 35.9765, 30.5782, 12.5704, 12.5858, 111.762, -53.826
0.302783, -1, 35.8808, 30.5292, 12.5899, 12.5872, 111.711, -53.9564
0.312267, -1, 35.5931, 30.3822, 12.6482, 12.591, 111.556, -54.3467
0.320229, -1, 35.4011, 30.284, 12.687, 12.5936, 111.453, -54.607
0.32677, -1, 35.305, 30.2348, 12.7064, 12.5949, 111.402, -54.7374
0.336278, -1, 35.0163, 30.0873, 12.7648, 12.5987, 111.247, -55.1284
0.344293, -1, 34.824, 29.9889, 12.8036, 12.6013, 111.144, -55.389
0.352373, -1, 34.6317, 29.8903, 12.8424, 12.6039, 111.041, -55.6498
0.360587, -1, 34.4394, 29.7919, 12.8814, 12.6064, 110.938, -55.9106
0.499199, -1, 31.1604, 28.1165, 13.5432, 12.6518, 109.186, -60.3493
0.500504, -1, 31.1604, 28.1165, 13.5432, 12.6518, 109.186, -60.3493
0.502558, -1, 31.0642, 28.0672, 13.5627, 12.6533, 109.134, -60.48
0.503751, -1, 31.0642, 28.0672, 13.5627, 12.6533, 109.134, -60.48
0.505618, -1, 31.0642, 28.0179, 13.5823, 12.6547, 109.083, -60.6109
0.507042, -1, 30.968, 28.0179, 13.5823, 12.6547, 109.083, -60.6109
0.508243, -1, 30.968, 28.0179, 13.5823, 12.6547, 109.083, -60.6109
0.511943, -1, 30.8718, 27.9687, 13.6018, 12.6561, 109.031, -60.7416
0.514721, -1, 30.7757, 27.9194, 13.6212, 12.6576, 108.979, -60.8722
0.515986, -1, 30.7757, 27.9194, 13.6212, 12.6576, 108.979, -60.8722
0.518783, -1, 30.6798, 27.8701, 13.6407, 12.6589, 108.928, -61.0028
0.520035, -1, 30.6798, 27.8701, 13.6407, 12.6589, 108.928, -61.0028
0.522225, -1, 30.5839, 27.8208, 13.6602, 12.6603, 108.876, -61.1333
0.523492, -1, 30.5839, 27.8208, 13.6602, 12.6603, 108.876, -61.1333
0.52477, -1, 30.5839, 27.8208, 13.6602, 12.6603, 108.876, -61.1333
0.527634, -1, 30.4879, 27.7715, 13.6798, 12.6618, 108.824, -61.264
0.528908, -1, 30.4879, 27.7715, 13.6798, 12.6618, 108.824, -61.264
0.530976, -1, 30.392, 27.7222, 13.6993, 12.6632, 108.773, -61.3947
0.532213, -1, 30.392, 27.7222, 13.6993, 12.6632, 108.773, -61.3947
0.534196, -1, 30.2959, 27.6728, 13.7187, 12.6645, 108.721, -61.5254
0.535507, -1, 30.2959, 27.6728, 13.7187, 12.6645, 108.721, -61.5254
0.536769, -1, 30.2959, 27.6728, 13.7187, 12.6645, 108.721, -61.5254
0.544707, -1, 30.1037, 27.5741, 13.7577, 12.6672, 108.618, -61.7872
0.551763, -1, 29.9112, 27.4754, 13.7967, 12.67, 108.515, -62.0488
0.559749, -1, 29.7182, 27.3766, 13.8356, 12.6727, 108.412, -62.3105
0.567704, -1, 29.5247, 27.2778, 13.8745, 12.6753, 108.309, -62.5721
0.575771, -1, 29.3307, 27.179, 13.9135, 12.678, 108.205, -62.834
0.583717, -1, 29.1365, 27.0801, 13.9524, 12.6805, 108.102, -63.0956
0.591719, -1, 28.9421, 26.9812, 13.9914, 12.6831, 107.998, -63.357
0.599764, -1, 28.7479, 26.8823, 14.0304, 12.6857, 107.895, -63.6185
0.607702, -1, 28.5538, 26.7834, 14.0693, 12.6882, 107.791, -63.8802
0.615788, -1, 28.3599, 26.6847, 14.1084, 12.6907, 107.688, -64.142
0.623696, -1, 28.1665, 26.586, 14.1474, 12.6931, 107.585, -64.4034
0.631761, -1, 27.9735, 26.4872, 14.1864, 12.6956, 107.482, -64.6653
0.639768, -1, 27.7807, 26.3883, 14.2254, 12.6981, 107.378, -64.9271
0.647719, -1, 27.5881, 26.2895, 14.2643, 12.7006, 107.275, -65.189
0.655699, -1, 27.396, 26.1905, 14.3033, 12.703, 107.172, -65.4505
0.789843, -1, 24.2075, 24.5596, 14.9464, 12.7413, 105.468, -69.7691
0.791668, -1, 24.2075, 24.5596, 14.9464, 12.7413, 105.468, -69.7691
0.793162, -1, 24.1113, 24.5102, 14.9659, 12.7425, 105.416, -69.8998
0.794357, -1, 24.1113, 24.5102, 14.9659, 12.7425, 105.416, -69.8998
0.797136, -1, 24.0149, 24.4608, 14.9854, 12.7436, 105.365, -70.0305
0.798455, -1, 24.0149, 24.4608, 14.9854, 12.7436, 105.365, -70.0305
0.800538, -1, 23.9185, 24.4114, 15.0049, 12.7447, 105.313, -70.1613
0.804192, -1, 23.8221, 24.362, 15.0243, 12.746, 105.261, -70.2921
0.806459, -1, 23.8221, 24.362, 15.0243, 12.746, 105.261, -70.2921
0.808586, -1, 23.7256, 24.3125, 15.0438, 12.7472, 105.209, -70.423
0.809861, -1, 23.7256, 24.3125, 15.0438, 12.7472, 105.209, -70.423
0.811042, -1, 23.7256, 24.3125, 15.0438, 12.7472, 105.209, -70.423
0.813265, -1, 23.6291, 24.2631, 15.0632, 12.7484, 105.158, -70.5539
0.814539, -1, 23.6291, 24.2631, 15.0632, 12.7484, 105.158, -70.5539
0.816336, -1, 23.5325, 24.2137, 15.0827, 12.7495, 105.106, -70.6848
0.8218, -1, 23.4358, 24.1642, 15.1022, 12.7507, 105.054, -70.8156
0.823008, -1, 23.4358, 24.1642, 15.1022, 12.7507, 105.054, -70.8156
0.825091, -1, 23.339, 24.1148, 15.1217, 12.7519, 105.003, -70.9464
0.826332, -1, 23.339, 24.1148, 15.1217, 12.7519, 105.003, -70.9464
0.8282, -1, 23.2421, 24.0653, 15.1411, 12.7531, 104.951, -71.0773
0.830438, -1, 23.2421, 24.0653, 15.1411, 12.7531, 104.951, -71.0773
0.83269, -1, 23.1453, 24.0159, 15.1605, 12.7544, 104.899, -71.2082
0.841761, -1, 22.9514, 23.917, 15.1994, 12.7568, 104.796, -71.47
0.848357, -1, 22.7573, 23.8182, 15.2383, 12.7592, 104.693, -71.7319
0.856313, -1, 22.6604, 23.7688, 15.2578, 12.7617, 104.589, -71.9936
0.864334, -1, 22.4667, 23.6701, 15.2968, 12.763, 104.486, -72.255
0.872316, -1, 22.2732, 23.5715, 15.3358, 12.7654, 104.434, -72.3856
0.879676, -1, 22.0801, 23.4728, 15.3747, 12.7681, 104.331, -72.6471
0.887688, -1, 21.887, 23.374, 15.4137, 12.7706, 104.228, -72.9089
0.895862, -1, 21.6944, 23.2753, 15.4527, 12.7733, 104.124, -73.1701
0.903691, -1, 21.5022, 23.1765, 15.4915, 12.7759, 104.021, -73.4316
0.911697, -1, 21.31, 23.0778, 15.5305, 12.7786, 103.918, -73.6932
0.919739, -1, 21.1176, 22.9792, 15.5695, 12.7812, 103.815, -73.9548
0.927685, -1, 20.9252, 22.8805, 15.6084, 12.7839, 103.712, -74.2159
0.935683, -1, 20.7327, 22.7819, 15.6473, 12.7866, 103.609, -74.477
0.943689, -1, 20.54, 22.6832, 15.6863, 12.7893, 103.506, -74.7383
0.951725, -1, 20.347, 22.5846, 15.7251, 12.7921, 103.403, -74.9997
0.959741, -1, 20.1533, 22.4859, 15.7641, 12.7947, 103.3, -75.2609
0.967683, -1, 19.9597, 22.3871, 15.803, 12.7975, 103.196, -75.522
0.975688, -1, 19.7661, 22.2885, 15.8416, 12.8003, 103.094, -75.7831
0.98269, -1, 19.5725, 22.1899, 15.8806, 12.803, 102.991, -76.0444
0.99169, -1, 19.3791, 22.0913, 15.9195, 12.8057, 102.887, -76.3058
1.00074, -1, 19.186, 21.9926, 15.9583, 12.8084, 102.785, -76.5665
1.00672, -1, 18.9932, 21.894, 15.9972, 12.8112, 102.681, -76.8273
1.01568, -1, 18.8008, 21.7953, 16.036, 12.8139, 102.578, -77.0882
1.02369, -1, 18.6086, 21.6966, 16.0748, 12.8167, 102.476, -77.3492
1.03177, -1, 18.4168, 21.598, 16.1137, 12.8195, 102.373, -77.6099
1.03968, -1, 18.2248, 21.4995, 16.1526, 12.822, 102.27, -77.8707
1.04771, -1, 18.0329, 21.401, 16.1914, 12.8246, 102.167, -78.1315
1.05568, -1, 17.8412, 21.3026, 16.2303, 12.8271, 102.064, -78.3924
1.06373, -1, 17.6491, 21.2042, 16.2692, 12.8297, 101.961, -78.6529
1.07178, -1, 17.4567, 21.1059, 16.308, 12.8322, 101.858, -78.9133
1.07968, -1, 17.2638, 21.0075, 16.3469, 12.8346, 101.755, -79.174
1.08768, -1, 17.0708, 20.9093, 16.3856, 12.8371, 101.652, -79.4346
1.09576, -1, 16.8778, 20.8111, 16.4244, 12.8395, 101.549, -79.6952
1.10368, -1, 16.6848, 20.7129, 16.4632, 12.8418, 101.447, -79.9555
1.11169, -1, 16.4918, 20.6147, 16.5019, 12.8442, 101.344, -80.216
1.11978, -1, 16.299, 20.5164, 16.5407, 12.8465, 101.241, -80.4767
1.12768, -1, 16.1068, 20.418, 16.5794, 12.8489, 101.139, -80.7372
1.13568, -1, 15.9148, 20.3196, 16.6182, 12.8512, 101.036, -80.9973
1.14378, -1, 15.723, 20.2211, 16.6569, 12.8535, 100.933, -81.2573
1.1517, -1, 15.5317, 20.1227, 16.6955, 12.8558, 100.831, -81.5174
1.15968, -1, 15.3405, 20.0243, 16.7341, 12.8582, 100.728, -81.7777
1.16783, -1, 15.1493, 19.9261, 16.773, 12.8605, 100.625, -82.0375
1.17569, -1, 14.9581, 19.8279, 16.8116, 12.8628, 100.523, -82.2973
1.18376, -1, 14.7668, 19.7297, 16.8503, 12.8651, 100.42, -82.5573
1.19255, -1, 14.5753, 19.6316, 16.8891, 12.8673, 100.318, -82.8174
1.1998, -1, 14.3834, 19.5335, 16.9277, 12.8696, 100.215, -83.0772
1.20784, -1, 14.1912, 19.4354, 16.9664, 12.8719, 100.113, -83.3366
1.21659, -1, 13.9988, 19.3374, 17.0052, 12.8742, 100.01, -83.5962
1.22379, -1, 13.8066, 19.2396, 17.0437, 12.8765, 99.9076, -83.8558
1.23191, -1, 13.6141, 19.1418, 17.0824, 12.8788, 99.8051, -84.1153
1.24058, -1, 13.4218, 19.0439, 17.1211, 12.8811, 99.7025, -84.3745
1.24782, -1, 13.2298, 18.946, 17.1595, 12.8834, 99.6004, -84.6337
1.25577, -1, 13.0381, 18.8481, 17.1982, 12.8858, 99.4979, -84.8932
1.26456, -1, 12.8469, 18.7501, 17.2368, 12.8881, 99.3954, -85.1527
1.27181, -1, 12.6559, 18.6521, 17.2753, 12.8905, 99.2933, -85.4116
1.27992, -1, 12.4652, 18.5543, 17.3139, 12.8929, 99.1908, -85.6704
1.28922, -1, 12.2749, 18.4565, 17.3524, 12.8954, 99.0885, -85.9293
1.29473, -1, 12.1799, 18.4076, 17.3717, 12.8966, 99.0376, -86.0588
1.30486, -1, 11.8944, 18.2612, 17.4296, 12.9001, 98.8844, -86.4471
1.31206, -1, 11.7039, 18.1635, 17.4682, 12.9025, 98.7825, -86.7056
1.32021, -1, 11.5131, 18.0659, 17.5066, 12.905, 98.6808, -86.9643
1.32903, -1, 11.322, 17.9683, 17.5452, 12.9074, 98.5787, -87.223
1.33622, -1, 11.1307, 17.8707, 17.5838, 12.9098, 98.4768, -87.4814
1.34447, -1, 10.9393, 17.7733, 17.6222, 12.9123, 98.375, -87.7396
1.35308, -1, 10.7477, 17.6759, 17.6607, 12.9148, 98.2729, -87.9979
1.35875, -1, 10.6519, 17.6271, 17.6799, 12.916, 98.2219, -88.1271
1.3684, -1, 10.4605, 17.5296, 17.7375, 12.9199, 98.0693, -88.5146
1.37567, -1, 10.2693, 17.432, 17.7567, 12.9211, 98.0183, -88.6436
1.38274, -1, 10.0785, 17.3345, 17.7952, 12.9237, 97.9163, -88.9016
1.39172, -1, 9.8881, 17.2368, 17.8334, 12.9264, 97.8147, -89.1597
1.39972, -1, 9.69801, 17.1393, 17.8718, 12.9289, 97.7125, -89.4179
1.40768, -1, 9.50832, 17.0419, 17.9101, 12.9317, 97.6106, -89.6761
1.41691, -1, 9.22439, 16.8959, 17.9676, 12.9358, 97.4579, -90.0623
1.42369, -1, 9.12972, 16.8472, 17.9868, 12.9372, 97.4069, -90.1911
1.43071, -1, 8.94032, 16.75, 18.0251, 12.9398, 97.3051, -90.4486
1.43967, -1, 8.75081, 16.6529, 18.0634, 12.9425, 97.2035, -90.7063
1.44767, -1, 8.56118, 16.5556, 18.1019, 12.945, 97.1018, -90.9634
1.45468, -1, 8.37137, 16.4585, 18.1402, 12.9478, 97.0004, -91.2207
1.46368, -1, 8.18102, 16.3615, 18.1785, 12.9504, 96.8988, -91.4779
1.47168, -1, 7.99061, 16.2647, 18.2169, 12.9531, 96.7972, -91.7352
1.47867, -1, 7.80015, 16.1678, 18.2552, 12.9558, 96.6958, -91.9921
1.48767, -1, 7.60954, 16.0709, 18.2934, 12.9584, 96.5943, -92.2488
1.49667, -1, 7.41915, 15.9739, 18.3318, 12.961, 96.4928, -92.5056
1.50267, -1, 7.22901, 15.877, 18.3699, 12.9636, 96.3917, -92.7624
1.51167, -1, 7.03916, 15.78, 18.4081, 12.9662, 96.2902, -93.019
1.51968, -1, 6.84975, 15.6831, 18.4464, 12.9687, 96.1889, -93.2754
1.52774, -1, 6.66083, 15.5862, 18.4845, 12.9712, 96.0883, -93.5318
1.5357, -1, 6.47231, 15.4894, 18.5226, 12.9738, 95.9872, -93.7884
1.54368, -1, 6.28405, 15.3927, 18.5608, 12.9763, 95.886, -94.0448
1.55167, -1, 6.096, 15.2959, 18.5989, 12.9788, 95.7854, -94.3006
1.55968, -1, 5.9077, 15.1993, 18.6371, 12.9811, 95.6842, -94.5567
1.56779, -1, 5.71931, 15.1026, 18.6753, 12.9835, 95.5832, -94.8125
1.57568, -1, 5.53079, 15.006, 18.7133, 12.9858, 95.4826, -95.0685
1.58367, -1, 5.34205, 14.9094, 18.7514, 12.9882, 95.3818, -95.3241
1.59173, -1, 5.15291, 14.813, 18.7896, 12.9905, 95.2811, -95.5795
1.59966, -1, 4.96356, 14.7167, 18.8276, 12.9927, 95.1806, -95.835
1.60767, -1, 4.77418, 14.6203, 18.8656, 12.995, 95.0797, -96.0906
1.61575, -1, 4.58478, 14.5239, 18.9037, 12.9972, 94.9789, -96.3457
1.62369, -1, 4.39559, 14.4275, 18.9418, 12.9994, 94.8783, -96.6006
1.63166, -1, 4.20662, 14.3312, 18.9798, 13.0015, 94.7774, -96.8556
1.63979, -1, 4.01784, 14.2348, 19.0178, 13.0039, 94.6766, -97.1107
1.64769, -1, 3.82979, 14.1386, 19.0557, 13.0062, 94.5758, -97.3658
1.65568, -1, 3.64226, 14.0424, 19.0937, 13.0083, 94.475, -97.6204
1.66376, -1, 3.45503, 13.9462, 19.1316, 13.0107, 94.3744, -97.8751
1.67168, -1, 3.26804, 13.8501, 19.1694, 13.013, 94.2737, -98.13
1.67967, -1, 3.08106, 13.7541, 19.2073, 13.0153, 94.173, -98.3848
1.68791, -1, 2.89417, 13.658, 19.2452, 13.0176, 94.0724, -98.6392
1.69573, -1, 2.70706, 13.562, 19.2831, 13.0198, 93.9717, -98.8934
1.7038, -1, 2.5198, 13.466, 19.321, 13.0221, 93.8713, -99.1474
1.71206, -1, 2.33233, 13.3701, 19.3587, 13.0243, 93.7709, -99.4017
1.71986, -1, 2.14445, 13.2744, 19.3965, 13.0266, 93.6707, -99.6557
1.72777, -1, 1.95636, 13.1786, 19.4344, 13.0288, 93.5705, -99.9092
1.73631, -1, 1.76825, 13.0827, 19.4722, 13.0311, 93.4707, -100.163
1.74368, -1, 1.58, 12.9868, 19.5099, 13.0333, 93.3705, -100.416
1.75168, -1, 1.39195, 12.891, 19.5477, 13.0356, 93.2704, -100.67
1.76047, -1, 1.20414, 12.7952, 19.5854, 13.0379, 93.1705, -100.923
1.7677, -1, 1.01667, 12.6995, 19.6231, 13.0403, 93.0704, -101.176
1.77583, -1, 0.829876, 12.6039, 19.6609, 13.0427, 92.9704, -101.429
1.78472, -1, 0.643491, 12.5082, 19.6985, 13.045, 92.8708, -101.682
1.79195, -1, 0.457549, 12.4128, 19.736, 13.0475, 92.7709, -101.935
1.80004, -1, 0.271824, 12.3174, 19.7738, 13.0499, 92.6712, -102.188
1.80666, -1, 0.179081, 12.2697, 19.7926, 13.0511, 92.6216, -102.314
1.81471, -1, -0.00624504, 12.1744, 19.8301, 13.0536, 92.522, -102.567
1.82426, -1, -0.284609, 12.0315, 19.8866, 13.0572, 92.3726, -102.946
1.83302, -1, -0.470533, 11.9363, 19.9242, 13.0597, 92.2734, -103.198
1.8402, -1, -0.656727, 11.8412, 19.9617, 13.0622, 92.1737, -103.45
1.84835, -1, -0.843052, 11.7463, 19.9993, 13.0646, 92.0743, -103.702
1.85706, -1, -0.936326, 11.6512, 20.0367, 13.0671, 91.9751, -103.954
1.86273, -1, -1.12309, 11.6037, 20.0554, 13.0684, 91.9254, -104.08
1.87242, -1, -1.31001, 11.5086, 20.1117, 13.0722, 91.7764, -104.457
1.87966, -1, -1.49684, 11.4136, 20.1305, 13.0734, 91.7269, -104.583
1.88672, -1, -1.6834, 11.3184, 20.1678, 13.076, 91.6277, -104.835
1.89572, -1, -1.86961, 11.2233, 20.2053, 13.0786, 91.5284, -105.086
1.90371, -1, -2.05547, 11.1283, 20.2427, 13.0813, 91.4294, -105.337
1.91077, -1, -2.24061, 11.0334, 20.28, 13.0838, 91.3301, -105.588
1.91968, -1, -2.42542, 10.9385, 20.3174, 13.0865, 91.2309, -105.839
1.92769, -1, -2.6099, 10.8437, 20.3547, 13.0893, 91.132, -106.09
1.9347, -1, -2.79386, 10.7489, 20.392, 13.0919, 91.0329, -106.341
1.94366, -1, -2.9777, 10.6542, 20.4294, 13.0945, 90.9338, -106.592
1.95165, -1, -3.16178, 10.5595, 20.4667, 13.0972, 90.835, -106.842
1.95973, -1, -3.34617, 10.4649, 20.5039, 13.0997, 90.736, -107.093
1.96766, -1, -3.53082, 10.3705, 20.5412, 13.1022, 90.6371, -107.344
1.97573, -1, -3.71554, 10.2762, 20.5785, 13.1049, 90.5384, -107.594
1.98372, -1, -3.90059, 10.1818, 20.6157, 13.1073, 90.4395, -107.844
1.99166, -1, -4.08585, 10.0874, 20.653, 13.1098, 90.3408, -108.094
2.00066, -1, -4.27133, 9.99315, 20.6901, 13.1122, 90.2424, -108.344
2.00668, -1, -4.45692, 9.89881, 20.7272, 13.1146, 90.1436, -108.594
2.01588, -1, -4.64222, 9.80445, 20.7646, 13.1169, 90.0451, -108.843
2.0247, -1, -4.82713, 9.71025, 20.8017, 13.1193, 89.9468, -109.092
2.03165, -1, -5.0117, 9.61614, 20.8387, 13.1218, 89.8482, -109.342
2.04051, -1, -5.19554, 9.52203, 20.8759, 13.1242, 89.7498, -109.591
2.04766, -1, -5.37884, 9.42797, 20.913, 13.1265, 89.6516, -109.84
2.05567, -1, -5.56186, 9.33406, 20.95, 13.1288, 89.5531, -110.089
2.06448, -1, -5.74443, 9.24014, 20.9872, 13.1311, 89.4549, -110.338
2.0707, -1, -5.92678, 9.14622, 21.0242, 13.1334, 89.3569, -110.587
2.07965, -1, -6.1092, 9.05237, 21.0611, 13.1356, 89.2586, -110.835
2.08846, -1, -6.29195, 8.95857, 21.0982, 13.1378, 89.1605, -111.084
2.09567, -1, -6.47487, 8.86494, 21.1352, 13.1401, 89.0628, -111.332
2.10373, -1, -6.658, 8.77131, 21.1719, 13.1422, 88.9648, -111.58
2.11244, -1, -6.84154, 8.67769, 21.2089, 13.1444, 88.8668, -111.828
2.11965, -1, -7.02536, 8.58411, 21.2458, 13.1465, 88.769, -112.076
2.12767, -1, -7.20954, 8.49055, 21.2826, 13.1487, 88.6711, -112.324
2.13646, -1, -7.39376, 8.39691, 21.3196, 13.1508, 88.5732, -112.571
2.14365, -1, -7.57756, 8.30324, 21.3564, 13.1529, 88.4758, -112.819
2.15165, -1, -7.76105, 8.20979, 21.393, 13.155, 88.3781, -113.066
2.16047, -1, -7.94415, 8.11639, 21.4299, 13.1573, 88.2807, -113.313
2.16773, -1, -8.12681, 8.02301, 21.4666, 13.1596, 88.1834, -113.561
2.17566, -1, -8.30873, 7.92973, 21.5033, 13.1618, 88.0859, -113.808
2.18444, -1, -8.49017, 7.83647, 21.5402, 13.164, 87.9886, -114.055
2.19169, -1, -8.67121, 7.7433, 21.577, 13.1663, 87.8913, -114.302
2.19973, -1, -8.85193, 7.65013, 21.6137, 13.1686, 87.7938, -114.548
2.20857, -1, -9.03269, 7.55705, 21.6504, 13.1708, 87.6964, -114.794
2.21576, -1, -9.2137, 7.46403, 21.6872, 13.1731, 87.5993, -115.041
2.22375, -1, -9.39491, 7.37125, 21.7238, 13.1753, 87.5021, -115.287
2.23258, -1, -9.57655, 7.27842, 21.7606, 13.1775, 87.4049, -115.533
2.2398, -1, -9.75849, 7.18557, 21.7973, 13.1798, 87.3079, -115.779
2.24766, -1, -9.94081, 7.09284, 21.8338, 13.1819, 87.2106, -116.025
2.2566, -1, -10.1233, 7.00014, 21.8704, 13.1841, 87.1134, -116.271
2.26376, -1, -10.306, 6.90732, 21.907, 13.1864, 87.0164, -116.517
2.27175, -1, -10.4885, 6.81454, 21.9436, 13.1886, 86.9192, -116.762
2.28063, -1, -10.6708, 6.72184, 21.9802, 13.1908, 86.8221, -117.008
2.28781, -1, -10.8526, 6.62924, 22.0167, 13.1932, 86.7254, -117.253
2.29623, -1, -11.0339, 6.53665, 22.0531, 13.1956, 86.6284, -117.499
2.30483, -1, -11.2144, 6.44413, 22.0897, 13.198, 86.5317, -117.743
2.31212, -1, -11.3944, 6.35164, 22.1263, 13.2004, 86.4353, -117.988
2.32017, -1, -11.574, 6.25923, 22.1627, 13.2028, 86.3384, -118.233
2.32814, -1, -11.7533, 6.16683, 22.1992, 13.2053, 86.2418, -118.478
2.33618, -1, -11.9325, 6.07453, 22.2357, 13.2078, 86.1452, -118.722
2.34427, -1, -12.1118, 5.98232, 22.2721, 13.2103, 86.0486, -118.966
2.3522, -1, -12.2913, 5.89028, 22.3086, 13.2128, 85.9522, -119.211
2.35872, -1, -12.3812, 5.84428, 22.3269, 13.214, 85.9042, -119.333
2.36831, -1, -12.5613, 5.75222, 22.3813, 13.2177, 85.7596, -119.699
2.37622, -1, -12.7417, 5.66022, 22.3994, 13.2189, 85.7114, -119.821
2.38364, -1, -12.9225, 5.56829, 22.4359, 13.2214, 85.6156, -120.064
2.39169, -1, -13.1036, 5.47634, 22.4721, 13.2239, 85.5195, -120.308
2.39964, -1, -13.2848, 5.38429, 22.5083, 13.2263, 85.4235, -120.552
2.40905, -1, -13.5562, 5.24639, 22.5628, 13.23, 85.2799, -120.917
2.41565, -1, -13.6464, 5.20043, 22.5809, 13.2313, 85.2319, -121.038
2.42369, -1, -13.8267, 5.10858, 22.617, 13.2338, 85.1361, -121.281
2.43164, -1, -14.0063, 5.01679, 22.6533, 13.2364, 85.0405, -121.524
2.43974, -1, -14.1851, 4.92508, 22.6895, 13.239, 84.9448, -121.767
2.44776, -1, -14.3633, 4.83339, 22.7255, 13.2416, 84.8492, -122.01
2.45464, -1, -14.5413, 4.74173, 22.7618, 13.2441, 84.7537, -122.252
2.46366, -1, -14.719, 4.65013, 22.7981, 13.2466, 84.6581, -122.495
2.47172, -1, -14.8966, 4.55864, 22.8341, 13.2491, 84.5623, -122.738
2.47864, -1, -15.0743, 4.46719, 22.8703, 13.2516, 84.4667, -122.98
2.48765, -1, -15.2523, 4.3759, 22.9064, 13.254, 84.371, -123.222
2.49571, -1, -15.4307, 4.28457, 22.9425, 13.2564, 84.2753, -123.463
2.50544, -1, -15.6096, 4.19328, 22.9785, 13.2588, 84.1798, -123.705
2.51164, -1, -15.7887, 4.10202, 23.0145, 13.2611, 84.0843, -123.947
2.51971, -1, -15.968, 4.01078, 23.0504, 13.2633, 83.9889, -124.189
2.52766, -1, -16.1476, 3.91949, 23.0864, 13.2655, 83.8935, -124.43
2.53564, -1, -16.3273, 3.82826, 23.1225, 13.2677, 83.798, -124.671
2.54375, -1, -16.5067, 3.73705, 23.1583, 13.2698, 83.7026, -124.913
2.55165, -1, -16.6857, 3.64594, 23.1941, 13.2721, 83.6071, -125.154
2.55971, -1, -16.8641, 3.55485, 23.23, 13.2743, 83.5117, -125.395
2.56766, -1, -17.0417, 3.46382, 23.2658, 13.2766, 83.4164, -125.636
2.57569, -1, -17.2186, 3.37286, 23.3017, 13.2788, 83.3211, -125.877
2.58371, -1, -17.3952, 3.28201, 23.3375, 13.281, 83.2262, -126.117
2.59164, -1, -17.5716, 3.19115, 23.3732, 13.2831, 83.131, -126.358
2.59964, -1, -17.7476, 3.10053, 23.4091, 13.2853, 83.0362, -126.598
2.60773, -1, -17.9236, 3.00994, 23.445, 13.2874, 82.9415, -126.838
2.61565, -1, -18.0998, 2.91947, 23.4807, 13.2896, 82.8466, -127.079
2.62364, -1, -18.2764, 2.82908, 23.5164, 13.2917, 82.7519, -127.319
2.63174, -1, -18.4533, 2.73865, 23.5522, 13.2938, 82.6574, -127.558
2.63964, -1, -18.6308, 2.64822, 23.5879, 13.2958, 82.5625, -127.798
2.64768, -1, -18.8084, 2.55787, 23.6236, 13.2978, 82.468, -128.037
2.65571, -1, -18.9865, 2.46743, 23.6593, 13.2999, 82.3737, -128.277
2.66364, -1, -19.1648, 2.3769, 23.6949, 13.3019, 82.2791, -128.517
2.67165, -1, -19.3428, 2.28656, 23.7305, 13.3038, 82.1849, -128.756
2.67971, -1, -19.5205, 2.19618, 23.7661, 13.306, 82.091, -128.995
2.68766, -1, -19.6975, 2.10577, 23.8016, 13.3082, 81.9966, -129.234
2.69568, -1, -19.8741, 2.01551, 23.837, 13.3104, 81.9024, -129.473
2.70378, -1, -20.0499, 1.92524, 23.8726, 13.3125, 81.8085, -129.712
2.71175, -1, -20.2251, 1.835, 23.9081, 13.3147, 81.7142, -129.95
2.7198, -1, -20.4001, 1.74486, 23.9435, 13.3169, 81.6202, -130.188
2.72776, -1, -20.5746, 1.65481, 23.9791, 13.3191, 81.5265, -130.427
2.73575, -1, -20.749, 1.56482, 24.0146, 13.3213, 81.4325, -130.665
2.74387, -1, -20.9236, 1.47491, 24.05, 13.3235, 81.3388, -130.903
2.75165, -1, -21.0987, 1.38519, 24.0855, 13.3257, 81.2451, -131.141
2.75967, -1, -21.274, 1.29541, 24.121, 13.3279, 81.1512, -131.379
2.76778, -1, -21.4497, 1.20565, 24.1563, 13.33, 81.0573, -131.617
2.77568, -1, -21.6257, 1.11599, 24.1917, 13.3322, 80.9635, -131.854
2.78451, -1, -21.8019, 1.02634, 24.2272, 13.3343, 80.8697, -132.092
2.79188, -1, -21.9782, 0.936705, 24.2625, 13.3365, 80.7759, -132.329
2.79992, -1, -22.1548, 0.847138, 24.2979, 13.3387, 80.6823, -132.566
2.80882, -1, -22.3314, 0.75762, 24.3333, 13.3408, 80.5886, -132.803
2.81606, -1, -22.5075, 0.668132, 24.3684, 13.3431, 80.495, -133.04
2.82263, -1, -22.5953, 0.623378, 24.386, 13.3443, 80.4482, -133.159
2.83297, -1, -22.8581, 0.48927, 24.4389, 13.3479, 80.3078, -133.514
2.84022, -1, -23.0321, 0.399824, 24.4741, 13.3503, 80.2143, -133.751
2.84822, -1, -23.2058, 0.310483, 24.5092, 13.3528, 80.1207, -133.988
2.85703, -1, -23.379, 0.221142, 24.5444, 13.3552, 80.0273, -134.224
2.86273, -1, -23.4656, 0.176506, 24.562, 13.3564, 79.9805, -134.342
2.87232, -1, -23.6387, 0.0427505, 24.6148, 13.3599, 79.8406, -134.696
2.87966, -1, -23.812, -0.00178691, 24.6324, 13.3611, 79.7941, -134.815
2.88671, -1, -23.9854, -0.0907906, 24.6675, 13.3636, 79.7009, -135.051
2.89666, -1, -24.2461, -0.224263, 24.7201, 13.3674, 79.5613, -135.404
2.90364, -1, -24.3331, -0.268752, 24.7377, 13.3686, 79.5149, -135.522
2.9107, -1, -24.5074, -0.35763, 24.7729, 13.371, 79.4218, -135.758
2.91968, -1, -24.682, -0.446525, 24.8079, 13.3734, 79.3287, -135.993
2.92763, -1, -24.8569, -0.535422, 24.8429, 13.3758, 79.2357, -136.229
2.9357, -1, -25.032, -0.624238, 24.8781, 13.3781, 79.1428, -136.464
2.94363, -1, -25.2069, -0.713069, 24.9131, 13.3805, 79.0498, -136.699
2.95163, -1, -25.3814, -0.801786, 24.948, 13.3829, 78.957, -136.934
2.95864, -1, -25.5555, -0.89061, 24.9831, 13.3853, 78.8644, -137.169
2.96765, -1, -25.7291, -0.979384, 25.0179, 13.3879, 78.7716, -137.404
2.97563, -1, -25.9021, -1.06806, 25.0528, 13.3903, 78.679, -137.639
2.98371, -1, -26.0745, -1.15677, 25.0878, 13.3928, 78.5867, -137.873
2.99167, -1, -26.2466, -1.24542, 25.1227, 13.3952, 78.4941, -138.108
2.99965, -1, -26.4184, -1.33392, 25.1575, 13.3975, 78.4015, -138.342
3.00862, -1, -26.5903, -1.42237, 25.1924, 13.3998, 78.3092, -138.577
3.01563, -1, -26.7623, -1.51071, 25.2274, 13.4021, 78.2165, -138.811
3.02463, -1, -26.9345, -1.59895, 25.2621, 13.4044, 78.1241, -139.045
3.0317, -1, -27.107, -1.68712, 25.2969, 13.4066, 78.032, -139.279
3.03964, -1, -27.2794, -1.77539, 25.3318, 13.4088, 77.9398, -139.513
3.04766, -1, -27.4523, -1.86348, 25.3665, 13.4109, 77.8478, -139.746
3.05565, -1, -27.6255, -1.95157, 25.4013, 13.413, 77.7558, -139.98
3.0637, -1, -27.7987, -2.03977, 25.4361, 13.4151, 77.6638, -140.213
3.07163, -1, -27.9721, -2.12783, 25.4709, 13.4172, 77.5717, -140.447
3.07969, -1, -28.1453, -2.21585, 25.5055, 13.4193, 77.4798, -140.68
3.08769, -1, -28.3185, -2.30389, 25.5404, 13.4213, 77.3877, -140.913
3.09563, -1, -28.4913, -2.39196, 25.5751, 13.4234, 77.2955, -141.146
3.10364, -1, -28.6636, -2.47988, 25.6097, 13.4256, 77.2035, -141.379
3.11169, -1, -28.8354, -2.56788, 25.6444, 13.4277, 77.1116, -141.612
3.11963, -1, -29.0065, -2.65586, 25.6791, 13.4299, 77.0197, -141.845
3.12764, -1, -29.1771, -2.74371, 25.7136, 13.432, 76.9277, -142.077
3.13573, -1, -29.3477, -2.83152, 25.7483, 13.4341, 76.836, -142.31
3.14363, -1, -29.5184, -2.91922, 25.783, 13.4363, 76.7441, -142.542
3.15164, -1, -29.6892, -3.00678, 25.8175, 13.4382, 76.6522, -142.775
3.1597, -1, -29.8603, -3.09433, 25.8521, 13.4403, 76.5606, -143.007
3.16762, -1, -30.0312, -3.18178, 25.8867, 13.4424, 76.4686, -143.239
3.17638, -1, -30.2021, -3.26929, 25.9213, 13.4444, 76.377, -143.471
3.18363, -1, -30.3733, -3.35672, 25.9558, 13.4466, 76.2855, -143.703
3.19163, -1, -30.5448, -3.44416, 25.9904, 13.4485, 76.1938, -143.935
3.20104, -1, -30.7166, -3.5317, 26.0249, 13.4506, 76.1024, -144.166
3.20771, -1, -30.8885, -3.619, 26.0593, 13.4527, 76.0111, -144.398
3.21583, -1, -31.0604, -3.70637, 26.094, 13.4547, 75.9197, -144.629
3.22399, -1, -31.232, -3.79367, 26.1284, 13.4567, 75.8283, -144.86
3.23174, -1, -31.4033, -3.88094, 26.1628, 13.4588, 75.7371, -145.092
3.23979, -1, -31.5742, -3.96821, 26.1973, 13.461, 75.6458, -145.323
3.24822, -1, -31.7447, -4.05544, 26.2318, 13.4631, 75.5546, -145.554
3.25565, -1, -31.9147, -4.14269, 26.2661, 13.4653, 75.4634, -145.785
3.26373, -1, -32.0844, -4.22988, 26.3005, 13.4675, 75.3724, -146.015
3.2732, -1, -32.2538, -4.31699, 26.335, 13.4697, 75.2812, -146.246
3.27982, -1, -32.4231, -4.404, 26.3692, 13.4719, 75.1902, -146.477
3.2878, -1, -32.5928, -4.49097, 26.4035, 13.474, 75.0996, -146.707
3.29743, -1, -32.7625, -4.57791, 26.438, 13.4762, 75.0085, -146.938
3.30391, -1, -32.9321, -4.66483, 26.4722, 13.4783, 74.9177, -147.168
3.312, -1, -33.1018, -4.75176, 26.5065, 13.4804, 74.8272, -147.399
3.32172, -1, -33.2716, -4.8386, 26.5408, 13.4827, 74.7364, -147.628
3.32834, -1, -33.4417, -4.92549, 26.5751, 13.4849, 74.6458, -147.858
3.33613, -1, -33.612, -5.01248, 26.6093, 13.4871, 74.5553, -148.088
3.34493, -1, -33.7823, -5.09928, 26.6436, 13.4894, 74.4647, -148.318
3.35225, -1, -33.9525, -5.18603, 26.6778, 13.4915, 74.3743, -148.548
3.36018, -1, -34.1227, -5.27276, 26.7119, 13.4938, 74.2837, -148.777
3.36898, -1, -34.2928, -5.35951, 26.7462, 13.4961, 74.1933, -149.007
3.37643, -1, -34.3778, -5.40282, 26.7633, 13.4973, 74.1478, -149.236
3.38366, -1, -34.5477, -5.48945, 26.7975, 13.4996, 74.0572, -149.351
3.39167, -1, -34.717, -5.57617, 26.8316, 13.5019, 73.9669, -149.58
3.39962, -1, -34.8857, -5.66277, 26.8658, 13.5043, 73.8762, -149.809
3.40761, -1, -35.0542, -5.74934, 26.8999, 13.5068, 73.7857, -150.038
3.41573, -1, -35.2224, -5.83584, 26.934, 13.5093, 73.6954, -150.267
3.42268, -1, -35.3907, -5.92222, 26.9681, 13.5117, 73.605, -150.496
3.43167, -1, -35.5592, -6.00843, 27.0023, 13.5141, 73.5147, -150.725
3.43961, -1, -35.7277, -6.09466, 27.0362, 13.5164, 73.4244, -150.954
3.44768, -1, -35.8962, -6.18086, 27.0703, 13.5188, 73.3341, -151.182
3.45561, -1, -36.0647, -6.26701, 27.1044, 13.5212, 73.2436, -151.411
3.46361, -1, -36.2332, -6.35311, 27.1384, 13.5236, 73.1532, -151.639
3.47172, -1, -36.4019, -6.43932, 27.1723, 13.526, 73.063, -151.868
3.47962, -1, -36.5707, -6.52555, 27.2063, 13.5284, 72.9725, -152.096
3.48761, -1, -36.7396, -6.61173, 27.2402, 13.5307, 72.8823, -152.324
3.49562, -1, -36.9086, -6.69791, 27.2741, 13.533, 72.7923, -152.552
3.50368, -1, -37.0776, -6.78409, 27.3081, 13.5352, 72.7022, -152.78
3.51265, -1, -37.2465, -6.87022, 27.342, 13.5375, 72.6122, -153.008
3.51961, -1, -37.415, -6.95623, 27.3759, 13.5398, 72.5224, -153.236
3.52768, -1, -37.5831, -7.04232, 27.4099, 13.542, 72.4325, -153.463
3.53561, -1, -37.7509, -7.12836, 27.4438, 13.5443, 72.3426, -153.691
3.54361, -1, -37.9185, -7.21436, 27.4776, 13.5466, 72.2528, -153.918
3.55172, -1, -38.0859, -7.3003, 27.5115, 13.5488, 72.1632, -154.146
3.55967, -1, -38.2533, -7.38623, 27.5454, 13.551, 72.0733, -154.373
3.56762, -1, -38.4206, -7.47198, 27.5792, 13.5532, 71.9837, -154.6
3.57569, -1, -38.5879, -7.55772, 27.613, 13.5552, 71.8942, -154.827
3.58366, -1, -38.7551, -7.64347, 27.6469, 13.5573, 71.8045, -155.055
3.59161, -1, -38.9225, -7.72916, 27.6807, 13.5594, 71.7149, -155.282
3.59969, -1, -39.0899, -7.81476, 27.7144, 13.5615, 71.6259, -155.508
3.60761, -1, -39.2573, -7.90041, 27.7483, 13.5635, 71.5363, -155.735
3.61562, -1, -39.4249, -7.9861, 27.7821, 13.5655, 71.447, -155.962
3.6237, -1, -39.5924, -8.07165, 27.8157, 13.5674, 71.3577, -156.189
3.63161, -1, -39.7601, -8.1572, 27.8494, 13.5694, 71.2683, -156.415
3.63963, -1, -39.9277, -8.24269, 27.8832, 13.5713, 71.179, -156.642
3.64771, -1, -40.0953, -8.32815, 27.9169, 13.5732, 71.0896, -156.868
3.65561, -1, -40.2628, -8.41354, 27.9505, 13.5752, 71.0006, -157.094
3.66363, -1, -40.43, -8.49894, 27.9843, 13.5772, 70.9111, -157.321
3.6717, -1, -40.597, -8.58433, 28.0179, 13.5792, 70.8219, -157.547
3.67961, -1, -40.7639, -8.66975, 28.0514, 13.5812, 70.7329, -157.772
3.68771, -1, -40.9305, -8.75509, 28.0851, 13.5832, 70.6436, -157.998
3.69581, -1, -41.0968, -8.84039, 28.1188, 13.5853, 70.5545, -158.224
3.70366, -1, -41.2631, -8.92563, 28.1524, 13.5873, 70.4655, -158.45
3.7117, -1, -41.4293, -9.01075, 28.1859, 13.5893, 70.3762, -158.676
3.72001, -1, -41.5956, -9.09592, 28.2196, 13.5913, 70.287, -158.901
3.72771, -1, -41.7619, -9.18102, 28.2532, 13.5932, 70.1979, -159.127
3.73572, -1, -41.9283, -9.26607, 28.2867, 13.5952, 70.1089, -159.352
3.74436, -1, -42.0947, -9.35108, 28.3204, 13.5973, 70.0198, -159.578
3.75176, -1, -42.2609, -9.43618, 28.3539, 13.5993, 69.9309, -159.803
3.75962, -1, -42.4271, -9.52121, 28.3874, 13.6013, 69.8422, -160.028
3.7684, -1, -42.5935, -9.60619, 28.421, 13.6034, 69.7531, -160.253
3.77565, -1, -42.76, -9.69114, 28.4545, 13.6054, 69.6642, -160.478
3.78373, -1, -42.9265, -9.7761, 28.4879, 13.6075, 69.5756, -160.704
3.7918, -1, -43.0929, -9.86098, 28.5214, 13.6095, 69.4866, -160.928
3.80064, -1, -43.2591, -9.94591, 28.5549, 13.6116, 69.3979, -161.153
3.80795, -1, -43.4252, -10.0308, 28.5883, 13.6137, 69.3094, -161.378
3.81602, -1, -43.5912, -10.1158, 28.6218, 13.6157, 69.2207, -161.603
3.82485, -1, -43.757, -10.2007, 28.6553, 13.6179, 69.1322, -161.828
3.83209, -1, -43.9229, -10.2855, 28.6887, 13.62, 69.0438, -162.052
3.83859, -1, -44.0057, -10.3279, 28.7054, 13.621, 68.9997, -162.164
3.8488, -1, -44.2538, -10.4549, 28.7557, 13.6243, 68.8666, -162.501
3.85621, -1, -44.4189, -10.5395, 28.7891, 13.6266, 68.7779, -162.725
3.86423, -1, -44.5841, -10.624, 28.8224, 13.6287, 68.6895, -162.949
3.87285, -1, -44.6667, -10.6663, 28.8391, 13.6309, 68.6007, -163.173
3.88017, -1, -44.8319, -10.7508, 28.8726, 13.632, 68.5565, -163.285
3.88832, -1, -44.9973, -10.8352, 28.906, 13.6342, 68.4681, -163.621
3.8956, -1, -45.1626, -10.9197, 28.9393, 13.6364, 68.3798, -163.733
3.9036, -1, -45.328, -11.0042, 28.9728, 13.6386, 68.2913, -163.958
3.91165, -1, -45.4932, -11.0887, 29.0061, 13.6409, 68.2029, -164.182
3.91966, -1, -45.6585, -11.173, 29.0392, 13.6432, 68.1149, -164.405
3.92761, -1, -45.8238, -11.2575, 29.0726, 13.6455, 68.0263, -164.629
3.93566, -1, -45.9879, -11.3413, 29.106, 13.6478, 67.9379, -164.853
3.94364, -1, -46.1493, -11.4236, 29.1394, 13.65, 67.8499, -165.076
3.95161, -1, -46.3063, -11.5029, 29.173, 13.6524, 67.7625, -165.297
3.95967, -1, -46.4566, -11.5779, 29.2065, 13.6548, 67.6773, -165.512
3.96759, -1, -46.5976, -11.6477, 29.2387, 13.6571, 67.5959, -165.718
3.97562, -1, -46.7271, -11.711, 29.2686, 13.6594, 67.5212, -165.907
3.98367, -1, -46.8419, -11.7671, 29.2949, 13.6614, 67.4544, -166.076
3.9916, -1, -46.9405, -11.8162, 29.3169, 13.663, 67.3987, -166.218
3.99961, -1, -47.0229, -11.8591, 29.3335, 13.6643, 67.354, -166.33
4.00767, -1, -47.09, -11.8958, 29.3447, 13.6651, 67.3205, -166.415
4.01668, -1, -47.1422, -11.9252, 29.3519, 13.6655, 67.2973, -166.473
4.02359, -1, -47.181, -11.9472, 29.3557, 13.6657, 67.2824, -166.51
4.03166, -1, -47.2085, -11.9626, 29.3575, 13.6658, 67.2736, -166.533
4.03961, -1, -47.2264, -11.9726, 29.3583, 13.6659, 67.2689, -166.545
4.04761, -1, -47.2372, -11.9784, 29.3587, 13.6659, 67.2665, -166.55
4.05571, 2, -47.2428, -11.9813, 29.3589, 13.6659, 67.2654, -166.553
4.06359, 2, -47.2448, -11.9826, 29.3591, 13.666, 67.2649, -166.554
4.07165, 2, -47.2448, -11.9831, 29.3591, 13.666, 67.2647, -166.555
4.07968, 2, -47.2446, -11.9833, 29.3592, 13.6661, 67.2646, -166.555
4.08764, 2, -47.2445, -11.9834, 29.3592, 13.6661, 67.2645, -166.555
4.0956, 2, -47.2449, -11.9835, 29.3593, 13.6661, 67.2644, -166.555
4.10366, 2, -47.2458, -11.9838, 29.3593, 13.6661, 67.2644, -166.555
4.1116, 2, -47.247, -11.9843, 29.3593, 13.6661, 67.2644, -166.555
4.11961, 2, -47.2488, -11.985, 29.3593, 13.6661, 67.2645, -166.555
4.12768, 2, -47.2504, -11.9859, 29.3593, 13.6661, 67.2645, -166.555
4.1356, 2, -47.2518, -11.9867, 29.3593, 13.6661, 67.2645, -166.555
4.14361, 2, -47.2528, -11.9874, 29.3593, 13.6661, 67.2644, -166.555
4.15166, 2, -47.2532, -11.9878, 29.3593, 13.6661, 67.2644, -166.555
4.15961, 2, -47.2534, -11.988, 29.3593, 13.6661, 67.2645, -166.555
4.1676, 2, -47.2534, -11.988, 29.3593, 13.6661, 67.2644, -166.555
4.17567, 2, -47.2531, -11.988, 29.3593, 13.6661, 67.2645, -166.555
4.1836, 2, -47.2525, -11.988, 29.3594, 13.6661, 67.2645, -166.555
4.1916, 2, -47.2521, -11.988, 29.3593, 13.6661, 67.2645, -166.555
4.19974, 2, -47.2517, -11.988, 29.3593, 13.6661, 67.2644, -166.555
4.20764, 2, -47.2516, -11.988, 29.3594, 13.6661, 67.2645, -166.555
4.21569, 2, -47.2517, -11.9881, 29.3594, 13.6661, 67.2645, -166.555
4.22378, 2, -47.2518, -11.9883, 29.3594, 13.6661, 67.2645, -166.555
4.2317, 2, -47.252, -11.9885, 29.3593, 13.6661, 67.2645, -166.555
4.23971, 2, -47.2526, -11.9889, 29.3594, 13.6661, 67.2645, -166.555
4.24778, 2, -47.2531, -11.9892, 29.3594, 13.6661, 67.2645, -166.555
4.25578, 2, -47.2535, -11.9894, 29.3594, 13.666, 67.2645, -166.555
4.26361, 2, -47.2536, -11.9894, 29.3594, 13.666, 67.2645, -166.555
4.2717, 2, -47.2536, -11.9895, 29.3594, 13.666, 67.2645, -166.555
4.27965, 2, -47.2535, -11.9895, 29.3594, 13.666, 67.2645, -166.555
4.28773, 2, -47.2533, -11.9894, 29.3594, 13.666, 67.2645, -166.555
4.29592, 2, -47.2529, -11.9893, 29.3594, 13.666, 67.2645, -166.555
4.30379, 2, -47.2525, -11.9893, 29.3594, 13.666, 67.2645, -166.555
4.31197, 2, -47.2522, -11.9893, 29.3594, 13.666, 67.2645, -166.555
4.31999, 2, -47.252, -11.9893, 29.3594, 13.666, 67.2645, -166.555
4.32803, 2, -47.252, -11.9893, 29.3594, 13.666, 67.2645, -166.555
4.33613, 2, -47.2519, -11.9894, 29.3594, 13.6661, 67.2645, -166.555
4.34438, 2, -47.2519, -11.9895, 29.3594, 13.6661, 67.2645, -166.555
4.35213, 2, -47.2519, -11.9895, 29.3594, 13.666, 67.2645, -166.555
4.36021, 2, -47.2519, -11.9896, 29.3594, 13.666, 67.2645, -166.555
4.36827, 2, -47.252, -11.9896, 29.3594, 13.666, 67.2645, -166.555
4.37616, 2, -47.2521, -11.9895, 29.3594, 13.666, 67.2645, -166.555
4.38431, 2, -47.2521, -11.9895, 29.3594, 13.666, 67.2646, -166.555
4.39241, 2, -47.252, -11.9895, 29.3594, 13.666, 67.2645, -166.555
4.39959, 2, -47.2519, -11.9894, 29.3594, 13.666, 67.2645, -166.555
4.4076, 2, -47.2518, -11.9894, 29.3594, 13.666, 67.2645, -166.555
4.41564, 2, -47.2517, -11.9893, 29.3594, 13.666, 67.2645, -166.555
4.42363, 2, -47.2516, -11.9893, 29.3594, 13.666, 67.2645, -166.555
4.43159, 2, -47.2515, -11.9893, 29.3594, 13.666, 67.2646, -166.555
4.43964, 2, -47.2514, -11.9893, 29.3594, 13.666, 67.2646, -166.555
4.4476, 2, -47.2514, -11.9893, 29.3594, 13.666, 67.2646, -166.555
4.4556, 2, -47.2513, -11.9894, 29.3594, 13.666, 67.2646, -166.555
4.46363, 2, -47.2513, -11.9894, 29.3594, 13.666, 67.2646, -166.555
4.47159, 2, -47.2513, -11.9894, 29.3593, 13.666, 67.2646, -166.555
4.47961, 2, -47.2512, -11.9894, 29.3593, 13.666, 67.2646, -166.555
4.48766, 2, -47.2512, -11.9893, 29.3594, 13.666, 67.2646, -166.555
4.49559, 2, -47.2511, -11.9893, 29.3594, 13.666, 67.2646, -166.555
4.50358, 2, -47.251, -11.9892, 29.3594, 13.666, 67.2646, -166.555
4.51259, 2, -47.2509, -11.9892, 29.3594, 13.666, 67.2646, -166.555
4.51958, 2, -47.2508, -11.9892, 29.3594, 13.666, 67.2645, -166.555
4.5276, 2, -47.2507, -11.9891, 29.3594, 13.666, 67.2645, -166.555
4.53565, 2, -47.2506, -11.9891, 29.3594, 13.666, 67.2646, -166.555
4.54358, 2, -47.2505, -11.9891, 29.3594, 13.6659, 67.2646, -166.555
4.55159, 2, -47.2505, -11.9891, 29.3594, 13.666, 67.2646, -166.555
4.55968, 2, -47.2503, -11.9891, 29.3594, 13.666, 67.2646, -166.555
4.56759, 2, -47.2502, -11.9891, 29.3594, 13.666, 67.2646, -166.555
4.57569, 2, -47.2501, -11.9891, 29.3594, 13.666, 67.2646, -166.555
4.58365, 2, -47.25, -11.9891, 29.3594, 13.6659, 67.2647, -166.555
4.59163, 2, -47.2499, -11.9891, 29.3594, 13.6659, 67.2647, -166.555
4.59959, 2, -47.2498, -11.9891, 29.3594, 13.6659, 67.2646, -166.555
4.60766, 2, -47.2496, -11.989, 29.3594, 13.6659, 67.2647, -166.555
4.6156, 2, -47.2496, -11.9889, 29.3594, 13.6659, 67.2647, -166.555
4.62358, 2, -47.2495, -11.9889, 29.3594, 13.6659, 67.2646, -166.555
4.63166, 2, -47.2493, -11.9889, 29.3594, 13.6659, 67.2647, -166.555
4.63959, 2, -47.2492, -11.9889, 29.3594, 13.6659, 67.2647, -166.555
4.64763, 2, -47.2491, -11.9888, 29.3594, 13.6659, 67.2647, -166.555
4.65565, 2, -47.249, -11.9888, 29.3594, 13.6659, 67.2647, -166.555
4.66358, 2, -47.249, -11.9889, 29.3594, 13.6659, 67.2647, -166.555
4.6716, 2, -47.2489, -11.9889, 29.3594, 13.6659, 67.2647, -166.555
4.67965, 2, -47.2488, -11.9889, 29.3594, 13.6659, 67.2647, -166.555
4.68759, 2, -47.2488, -11.9889, 29.3594, 13.6659, 67.2647, -166.555
4.6956, 2, -47.2487, -11.9888, 29.3594, 13.6658, 67.2647, -166.555
4.70368, 2, -47.2487, -11.9888, 29.3594, 13.6658, 67.2647, -166.555
4.71166, 2, -47.2487, -11.9887, 29.3594, 13.6658, 67.2647, -166.555
4.71968, 2, -47.2486, -11.9887, 29.3594, 13.6658, 67.2648, -166.555
4.72779, 2, -47.2485, -11.9886, 29.3594, 13.6658, 67.2648, -166.555
4.73569, 2, -47.2484, -11.9886, 29.3594, 13.6658, 67.2647, -166.555
4.74369, 2, -47.2483, -11.9885, 29.3594, 13.6658, 67.2647, -166.555
4.75175, 2, -47.2483, -11.9885, 29.3594, 13.6658, 67.2648, -166.555
4.75969, 2, -47.2483, -11.9886, 29.3594, 13.6658, 67.2648, -166.555
4.76762, 2, -47.2482, -11.9886, 29.3594, 13.6658, 67.2648, -166.555
4.77569, 2, -47.2482, -11.9886, 29.3594, 13.6658, 67.2648, -166.555
4.78362, 2, -47.2482, -11.9886, 29.3594, 13.6657, 67.2648, -166.555
4.79171, 2, -47.2482, -11.9885, 29.3594, 13.6657, 67.2648, -166.555
4.79983, 2, -47.2482, -11.9885, 29.3594, 13.6657, 67.2648, -166.554
4.8078, 2, -47.2482, -11.9885, 29.3594, 13.6657, 67.2648, -166.554
4.81626, 2, -47.2482, -11.9884, 29.3594, 13.6658, 67.2648, -166.554
4.82402, 2, -47.2481, -11.9883, 29.3594, 13.6657, 67.2648, -166.554
4.83057, 2, -47.248, -11.9883, 29.3594, 13.6657, 67.2648, -166.554
4.84039, 2, -47.2479, -11.9883, 29.3594, 13.6657, 67.2648, -166.554
4.8482, 2, -47.2479, -11.9882, 29.3594, 13.6657, 67.2648, -166.554
4.85614, 2, -47.2478, -11.9882, 29.3594, 13.6657, 67.2648, -166.554
4.86441, 2, -47.2477, -11.9882, 29.3594, 13.6656, 67.2648, -166.554
4.87223, 2, -47.2477, -11.9882, 29.3594, 13.6656, 67.2648, -166.554
4.88009, 2, -47.2477, -11.9882, 29.3594, 13.6656, 67.2648, -166.554
4.88841, 2, -47.2476, -11.9882, 29.3594, 13.6656, 67.2648, -166.554
4.89633, 2, -47.2476, -11.9882, 29.3594, 13.6656, 67.2648, -166.554
4.90357, 2, -47.2476, -11.9882, 29.3594, 13.6655, 67.2648, -166.554
4.91236, 2, -47.2476, -11.9882, 29.3594, 13.6655, 67.2649, -166.554
4.91962, 2, -47.2476, -11.9881, 29.3594, 13.6655, 67.2649, -166.554
4.92763, 2, -47.2475, -11.988, 29.3594, 13.6656, 67.2649, -166.554
4.93557, 2, -47.2474, -11.988, 29.3594, 13.6656, 67.2649, -166.554
4.94362, 2, -47.2473, -11.9879, 29.3594, 13.6655, 67.2649, -166.554
4.95156, 2, -47.2472, -11.9879, 29.3594, 13.6655, 67.2649, -166.554
4.95957, 2, -47.2472, -11.9879, 29.3593, 13.6655, 67.2649, -166.554
4.96763, 2, -47.2471, -11.9879, 29.3594, 13.6655, 67.265, -166.554
4.97558, 2, -47.2471, -11.9879, 29.3593, 13.6655, 67.265, -166.554
4.98359, 2, -47.2471, -11.9879, 29.3593, 13.6654, 67.265, -166.554
4.99163, 2, -47.2471, -11.9879, 29.3594, 13.6654, 67.265, -166.554
4.99957, 2, -47.2471, -11.9879, 29.3593, 13.6654, 67.265, -166.554
5.00758, 2, -47.247, -11.9879, 29.3594, 13.6654, 67.265, -166.554
5.01568, 2, -47.247, -11.9878, 29.3594, 13.6654, 67.265, -166.554
5.02461, 2, -47.247, -11.9878, 29.3594, 13.6654, 67.265, -166.554
5.03157, 2, -47.2469, -11.9877, 29.3594, 13.6654, 67.2651, -166.554
5.03963, 2, -47.2468, -11.9877, 29.3594, 13.6654, 67.265, -166.554
5.04757, 2, -47.2467, -11.9876, 29.3594, 13.6653, 67.265, -166.554
5.05643, 2, -47.2466, -11.9876, 29.3593, 13.6653, 67.265, -166.554
5.06392, 2, -47.2466, -11.9876, 29.3593, 13.6653, 67.265, -166.554
5.07257, 2, -47.2465, -11.9876, 29.3593, 13.6653, 67.2651, -166.554
5.07964, 2, -47.2465, -11.9876, 29.3593, 13.6653, 67.265, -166.554
5.08759, 2, -47.2464, -11.9876, 29.3594, 13.6653, 67.2651, -166.554
5.09562, 2, -47.2464, -11.9875, 29.3594, 13.6652, 67.2651, -166.554
5.10363, 2, -47.2464, -11.9875, 29.3594, 13.6652, 67.2651, -166.554
5.11158, 2, -47.2464, -11.9875, 29.3594, 13.6652, 67.2651, -166.554
5.11957, 4, -47.2464, -11.9875, 29.3594, 13.6652, 67.2651, -166.554
5.12764, 4, -47.2463, -11.9874, 29.3593, 13.6652, 67.2651, -166.554
5.13557, 4, -47.2463, -11.9874, 29.3593, 13.6652, 67.2651, -166.554
5.14357, 4, -47.2462, -11.9874, 29.3593, 13.6651, 67.2652, -166.554
5.15165, 4, -47.2461, -11.9873, 29.3593, 13.6651, 67.2652, -166.554
5.15957, 4, -47.2461, -11.9873, 29.3593, 13.6651, 67.2652, -166.554
5.16758, 4, -47.246, -11.9873, 29.3593, 13.6651, 67.2652, -166.554
5.1757, 4, -47.2459, -11.9873, 29.3593, 13.6651, 67.2652, -166.554
5.18357, 4, -47.2459, -11.9873, 29.3594, 13.6651, 67.2652, -166.554
5.19157, 4, -47.2459, -11.9873, 29.3594, 13.665, 67.2652, -166.553
5.19964, 4, -47.2459, -11.9873, 29.3593, 13.665, 67.2653, -166.554
5.20761, 4, -47.2458, -11.9873, 29.3594, 13.665, 67.2653, -166.554
5.21584, 4, -47.2458, -11.9872, 29.3594, 13.665, 67.2653, -166.554
5.231, 4, -47.2458, -11.9872, 29.3593, 13.665, 67.2653, -166.554
5.23306, 4, -47.2458, -11.9871, 29.3593, 13.665, 67.2653, -166.554
5.23989, 4, -47.2457, -11.9871, 29.3593, 13.665, 67.2652, -166.554
5.24784, 4, -47.2456, -11.9871, 29.3593, 13.665, 67.2653, -166.553
5.2559, 4, -47.2455, -11.987, 29.3593, 13.665, 67.2652, -166.553
5.26394, 4, -47.2455, -11.987, 29.3593, 13.665, 67.2652, -166.553
5.27405, 4, -47.2454, -11.987, 29.3593, 13.665, 67.2653, -166.553
5.2817, 4, -47.2454, -11.987, 29.3593, 13.665, 67.2653, -166.553
5.28983, 4, -47.2453, -11.987, 29.3594, 13.665, 67.2653, -166.553
5.29605, 4, -47.2453, -11.987, 29.3594, 13.665, 67.2652, -166.553
5.30505, 4, -47.2452, -11.987, 29.3593, 13.665, 67.2653, -166.553
5.31273, 4, -47.2452, -11.9869, 29.3593, 13.6649, 67.2653, -166.553
5.32033, 4, -47.2452, -11.9869, 29.3593, 13.6649, 67.2653, -166.553
5.33083, 4, -47.2452, -11.9869, 29.3593, 13.6649, 67.2653, -166.553
5.33643, 4, -47.2452, -11.9868, 29.3593, 13.6649, 67.2653, -166.553
5.34664, 4, -47.2451, -11.9868, 29.3593, 13.6648, 67.2653, -166.553
5.35472, 4, -47.2451, -11.9868, 29.3593, 13.6648, 67.2653, -166.553
5.36174, 4, -47.245, -11.9867, 29.3593, 13.6648, 67.2653, -166.553
5.36914, 4, -47.245, -11.9867, 29.3593, 13.6648, 67.2653, -166.553
5.37664, 4, -47.2451, -11.9868, 29.3594, 13.6648, 67.2653, -166.553
5.38846, 4, -47.247, -11.9879, 29.3604, 13.6653, 67.2656, -166.553
5.39233, 4, -47.247, -11.9879, 29.3604, 13.6666, 67.266, -166.553
5.40099, 4, -47.2526, -11.9935, 29.3672, 13.6765, 67.2684, -166.552
5.40954, 5, -47.2598, -12.0024, 29.3799, 13.7016, 67.2748, -166.547
5.41782, 5, -47.2715, -12.0175, 29.4046, 13.7507, 67.2884, -166.537
5.42667, 5, -47.2897, -12.0418, 29.4473, 13.8387, 67.313, -166.517
5.43342, 5, -47.3167, -12.0772, 29.5142, 13.979, 67.3527, -166.485
5.43971, 5, -47.3341, -12.0996, 29.5589, 14.0737, 67.3789, -166.463
5.44774, 5, -47.3777, -12.155, 29.6736, 14.3195, 67.4467, -166.407
5.4557, 5, -47.4341, -12.225, 29.8247, 14.6474, 67.5366, -166.332
5.46569, 5, -47.5425, -12.3586, 30.1234, 15.2967, 67.7114, -166.183
5.47451, 5, -47.63, -12.4661, 30.3691, 15.8257, 67.8519, -166.063
5.47974, 5, -47.6779, -12.5248, 30.5042, 16.1144, 67.928, -165.998
5.48773, 5, -47.7809, -12.6515, 30.7966, 16.7312, 68.0892, -165.86
5.49835, 5, -47.9498, -12.8603, 31.2787, 17.7269, 68.3434, -165.641
5.50683, 5, -48.0688, -13.0083, 31.6197, 18.4153, 68.5153, -165.492
5.51447, 5, -48.1901, -13.16, 31.9686, 19.1106, 68.6858, -165.344
5.51984, 5, -48.251, -13.236, 32.1448, 19.4575, 68.7698, -165.271
5.53101, 5, -48.43, -13.4595, 32.6732, 20.4783, 69.0154, -165.05
5.53569, 5, -48.4868, -13.5315, 32.8473, 20.8083, 69.0954, -164.974
5.5447, 6, -48.5927, -13.6695, 33.1874, 21.4442, 69.2542, -164.809
5.5517, 6, -48.6843, -13.7975, 33.5133, 22.0391, 69.4131, -164.616
5.55973, 6, -48.7575, -13.9161, 33.8209, 22.5878, 69.5749, -164.382
5.57055, 7, -48.8268, -14.079, 34.2452, 23.318, 69.8272, -163.926
5.57578, 7, -48.8387, -14.1292, 34.3768, 23.5385, 69.915, -163.742
5.58873, 8, -48.8436, -14.2658, 34.7465, 24.1458, 70.1921, -163.084
5.59169, 8, -48.8363, -14.3067, 34.8634, 24.3342, 70.2893, -162.832
5.60289, 9, -48.7923, -14.4189, 35.1995, 24.8749, 70.5961, -161.996
5.60774, 9, -48.7715, -14.4538, 35.3084, 25.0509, 70.7031, -161.696
5.61609, 10, -48.7224, -14.5212, 35.5244, 25.4013, 70.924, -161.076
5.6237, 10, -48.664, -14.5865, 35.7392, 25.753, 71.1521, -160.438
5.63452, 11, -48.5973, -14.6816, 36.0606, 26.2864, 71.5034, -159.471
5.64311, 11, -48.486, -14.7439, 36.2744, 26.648, 71.7402, -158.828
5.65039, 12, -48.4471, -14.775, 36.3806, 26.831, 71.8592, -158.507
5.65966, 12, -48.3283, -14.8673, 36.6956, 27.3906, 72.2183, -157.542
5.6637, 13, -48.2884, -14.8973, 36.7998, 27.5811, 72.3391, -157.219
5.67569, 13, -48.2083, -14.956, 37.0067, 27.968, 72.5826, -156.245
5.67971, 14, -48.1266, -15.014, 37.2114, 28.3624, 72.8285, -155.918
5.6893, 14, -48.0422, -15.0729, 37.4151, 28.7625, 73.0767, -155.262
5.69759, 15, -47.9545, -15.1332, 37.6185, 29.1663, 73.3257, -154.607
5.70558, 15, -47.8624, -15.1938, 37.8201, 29.5712, 73.5736, -153.954
5.71371, 16, -47.7652, -15.2532, 38.0202, 29.9745, 73.8185, -153.306
5.72175, 16, -47.6614, -15.3125, 38.2189, 30.3749, 74.0591, -152.662
5.72779, 17, -47.5508, -15.3734, 38.4148, 30.7716, 74.2948, -152.026
5.73723, 17, -47.4343, -15.4366, 38.6069, 31.1642, 74.5249, -151.394
5.74383, 18, -47.3129, -15.5009, 38.7962, 31.5528, 74.7495, -150.768
5.75232, 18, -47.1866, -15.5658, 38.9824, 31.9382, 74.969, -150.15
5.75981, 19, -47.0551, -15.6325, 39.1652, 32.3213, 75.1836, -149.537
5.76849, 19, -46.9176, -15.7025, 39.3459, 32.7034, 75.3941, -148.93
5.77692, 20, -46.7747, -15.7748, 39.5256, 33.0847, 75.6003, -148.329
5.78666, 20, -46.6272, -15.8481, 39.7034, 33.4649, 75.8023, -147.736
5.79207, 21, -46.4759, -15.9224, 39.8789, 33.8442, 76, -147.15
5.80072, 21, -46.3208, -15.9984, 40.0527, 34.2227, 76.1935, -146.57
5.80933, 22, -46.162, -16.0763, 40.2251, 34.6001, 76.3826, -145.996
5.81678, 22, -45.9989, -16.1559, 40.3949, 34.9761, 76.5678, -145.43
5.82512, 23, -45.8308, -16.2373, 40.5616, 35.3498, 76.7492, -144.868
5.83294, 23, -45.6561, -16.3209, 40.7257, 35.7203, 76.9258, -144.311
5.84049, 24, -45.4737, -16.4069, 40.8866, 36.0865, 77.0973, -143.76
5.8502, 24, -45.2835, -16.4953, 41.0427, 36.4458, 77.2623, -143.214
5.86019, 25, -44.9843, -16.6305, 41.2686, 36.9684, 77.4963, -142.406
5.8681, 25, -44.8812, -16.6758, 41.3417, 37.3047, 77.6428, -141.874
5.87252, 25, -44.6701, -16.7669, 41.4844, 37.4692, 77.7134, -141.609
5.88128, 26, -44.452, -16.8591, 41.622, 37.7918, 77.8503, -141.083
5.88854, 26, -44.3402, -16.9522, 41.7543, 38.1066, 77.9827, -140.559
5.89714, 27, -44.1114, -16.999, 41.881, 38.4141, 78.1113, -140.036
5.90862, 28, -43.6336, -17.1842, 42.0595, 38.8624, 78.2998, -139.253
5.91326, 28, -43.6336, -17.1842, 42.0595, 38.8624, 78.2998, -139.253
5.92101, 29, -43.2569, -17.3191, 42.223, 39.2949, 78.4836, -138.47
5.92771, 29, -43.1281, -17.3631, 42.274, 39.4354, 78.5441, -138.209
5.9358, 30, -42.8657, -17.4495, 42.3706, 39.7107, 78.6627, -137.686
5.94587, 30, -42.4586, -17.5739, 42.5018, 40.1084, 78.8366, -136.902
5.95384, 31, -42.1772, -17.6535, 42.5803, 40.3631, 78.9488, -136.381
5.95976, 31, -42.0335, -17.6925, 42.6168, 40.4871, 79.0039, -136.12
5.9677, 32, -41.7405, -17.7688, 42.6847, 40.7285, 79.112, -135.599
5.98168, 32, -41.2881, -17.8783, 42.7737, 41.1851, 79.3182, -134.561
5.98375, 33, -41.1339, -17.9134, 42.7999, 41.1851, 79.3182, -134.561
5.9918, 33, -40.8206, -17.9812, 42.8469, 41.4008, 79.417, -134.044
5.9997, 34, -40.5003, -18.0463, 42.8867, 41.6081, 79.5126, -133.528
6.00773, 34, -40.1746, -18.1091, 42.9192, 41.8074, 79.6056, -133.013
6.01576, 35, -39.8443, -18.1692, 42.9445, 41.9987, 79.6965, -132.498
6.0237, 35, -39.5083, -18.2262, 42.9629, 42.1828, 79.7847, -131.986
6.03385, 36, -38.9922, -18.3052, 42.9773, 42.4446, 79.9135, -131.219
6.03979, 36, -38.8165, -18.3298, 42.9787, 42.5281, 79.9553, -130.963
6.048, 37, -38.46, -18.3766, 42.9767, 42.6894, 80.0377, -130.454
6.05573, 37, -38.0978, -18.4199, 42.9678, 42.843, 80.1177, -129.946
6.06369, 38, -37.7302, -18.4593, 42.952, 42.9893, 80.1961, -129.44
6.07482, 38, -37.1699, -18.5119, 42.916, 43.1949, 80.3095, -128.684
6.08253, 39, -36.9809, -18.5278, 42.8835, 43.3226, 80.382, -128.181
6.09065, 39, -36.5993, -18.5568, 42.8648, 43.4431, 80.453, -127.681
6.0967, 40, -36.2125, -18.582, 42.8222, 43.5005, 80.4878, -127.432
6.10385, 40, -35.8197, -18.6035, 42.7732, 43.6101, 80.5558, -126.935
6.11276, 41, -35.421, -18.6209, 42.7177, 43.7126, 80.6224, -126.439
6.12075, 41, -35.0166, -18.6346, 42.6556, 43.8074, 80.686, -125.946
6.12769, 42, -34.6079, -18.6449, 42.5871, 43.8957, 80.7488, -125.455
6.13579, 42, -34.1958, -18.6518, 42.5121, 43.9764, 80.8086, -124.966
6.14477, 43, -33.7808, -18.6557, 42.431, 44.0503, 80.8673, -124.479
6.15177, 43, -33.3619, -18.6563, 42.3439, 44.1167, 80.9241, -123.995
6.16281, 44, -32.723, -18.6503, 42.2023, 44.2035, 81.006, -123.273
6.17059, 44, -32.5068, -18.6416, 42.1008, 44.252, 81.0589, -122.795
6.17579, 45, -32.0695, -18.6358, 42.0479, 44.2737, 81.0842, -122.556
6.18571, 45, -31.627, -18.6214, 41.9374, 44.3117, 81.1343, -122.081
6.19169, 46, -31.1809, -18.6037, 41.8209, 44.3419, 81.1833, -121.609
6.20314, 46, -30.5082, -18.5704, 41.6352, 44.3725, 81.252, -120.905
6.20771, 47, -30.2824, -18.5574, 41.5704, 44.3789, 81.2745, -120.671
6.21667, 47, -29.8275, -18.5279, 41.4363, 44.3864, 81.3192, -120.205
6.22385, 48, -29.3659, -18.494, 41.2962, 44.3871, 81.362, -119.741
6.23232, 48, -28.898, -18.4558, 41.1499, 44.3792, 81.4037, -119.279
6.23986, 49, -28.4247, -18.4133, 40.9978, 44.3625, 81.4455, -118.819
6.24878, 49, -27.9483, -18.3663, 40.8398, 44.3369, 81.487, -118.361
6.26003, 50, -27.4697, -18.3149, 40.6754, 44.3013, 81.5274, -117.674
6.26444, 50, -26.9878, -18.2583, 40.5044, 44.2566, 81.5685, -117.446
6.27548, 51, -26.4997, -18.1961, 40.327, 44.2032, 81.6322, -116.763
6.28064, 51, -26.0038, -18.1284, 40.1431, 44.1391, 81.6533, -116.536
6.28982, 52, -25.5007, -18.0551, 39.9517, 44.0659, 81.696, -116.082
6.29855, 52, -24.9935, -17.9764, 39.7531, 43.9818, 81.7404, -115.628
6.30509, 53, -24.4842, -17.8922, 39.5485, 43.8874, 81.7852, -115.175
6.31465, 53, -23.9721, -17.8019, 39.3366, 43.7832, 81.8303, -114.723
6.3225, 54, -23.4544, -17.7054, 39.1166, 43.6681, 81.8779, -114.271
6.32907, 54, -22.9286, -17.6027, 38.8894, 43.542, 81.9279, -113.819
6.33778, 55, -22.3948, -17.4941, 38.6549, 43.4047, 81.9794, -113.367
6.34506, 55, -21.8562, -17.3794, 38.4124, 43.2557, 82.0342, -112.914
6.35232, 56, -21.3153, -17.2587, 38.164, 43.0952, 82.0904, -112.462
6.36113, 56, -20.7715, -17.132, 37.9088, 42.9239, 82.1474, -112.011
6.36845, 57, -20.2212, -16.9998, 37.6471, 42.7413, 82.2068, -111.56
6.37736, 57, -19.6611, -16.8619, 37.3792, 42.5471, 82.2667, -111.109
6.38434, 58, -19.0927, -16.7178, 37.104, 42.3402, 82.3292, -110.659
6.39307, 58, -18.5201, -16.5676, 36.823, 42.1203, 82.3935, -110.208
6.40041, 59, -18.2329, -16.4905, 36.6798, 41.8876, 82.4606, -109.759
6.41073, 59, -17.3657, -16.2523, 36.2394, 41.6417, 82.5306, -109.309
6.41627, 60, -17.0729, -16.1709, 36.0894, 41.5139, 82.5662, -109.084
6.42368, 60, -16.4796, -16.0042, 35.785, 41.249, 82.6399, -108.635
6.43174, 61, -15.8778, -15.8314, 35.4762, 40.9716, 82.714, -108.185
6.44182, 61, -14.9685, -15.5632, 35.0032, 40.5322, 82.8281, -107.513
6.45074, 62, -14.3583, -15.3796, 34.6816, 40.2239, 82.9066, -107.064
6.45803, 62, -13.7404, -15.1916, 34.355, 39.9028, 82.987, -106.616
6.46375, 63, -13.4275, -15.0954, 34.1902, 39.7374, 83.0281, -106.391
6.47343, 63, -12.4758, -14.7963, 33.6875, 39.2208, 83.1553, -105.717
6.47972, 64, -12.1556, -14.6936, 33.5172, 39.0418, 83.1996, -105.492
6.4895, 64, -11.1884, -14.3755, 32.9954, 38.4828, 83.3384, -104.814
6.49862, 65, -10.5322, -14.1546, 32.6388, 38.0895, 83.438, -104.36
6.50365, 65, -10.1996, -14.0416, 32.4578, 37.886, 83.4902, -104.132
6.51475, 66, -9.18645, -13.6923, 31.9067, 37.2462, 83.6565, -103.445
6.52515, 67, -8.50239, -13.45, 31.5322, 36.7959, 83.776, -102.984
6.53084, 67, -7.81229, -13.2007, 31.1506, 36.3269, 83.902, -102.521
6.53568, 67, -7.46404, -13.0735, 30.9577, 36.0861, 83.9678, -102.289
6.54368, 68, -6.7604, -12.8134, 30.5683, 35.5923, 84.1042, -101.824
6.55174, 68, -6.04959, -12.5469, 30.1761, 35.0851, 84.2465, -101.356
6.56155, 69, -5.33427, -12.2753, 29.7807, 34.5665, 84.3946, -100.652
6.57183, 69, -4.25249, -11.8564, 29.1837, 33.77, 84.6249, -100.18
6.57607, 70, -3.88855, -11.7138, 28.985, 33.5004, 84.7037, -99.9441
6.59044, 71, -2.41596, -11.1226, 28.1923, 32.3954, 85.0294, -98.9969
6.59239, 71, -2.41596, -11.1226, 28.1923, 32.3954, 85.0294, -98.9969
6.60361, 71, -1.67086, -10.6607, 27.5948, 31.5334, 85.2908, -98.2835
6.60773, 72, -0.918988, -10.5038, 27.3944, 31.2382, 85.3826, -98.0449
6.61973, 73, 0.219043, -10.0258, 26.7898, 30.3264, 85.6726, -97.3264
6.62605, 73, 0.60039, -9.86314, 26.5871, 30.0157, 85.8776, -96.8453
6.63517, 73, 1.75075, -9.36455, 25.9774, 29.0652, 86.0907, -96.3634
6.6398, 74, 2.13634, -9.19515, 25.7746, 28.7437, 86.2004, -96.1219
6.64942, 74, 2.90998, -8.85238, 25.3711, 28.0951, 86.425, -95.6376
6.65568, 75, 3.68624, -8.50353, 24.9723, 27.4394, 86.6561, -95.1514
6.66731, 75, 4.46471, -8.14745, 24.5778, 26.4492, 87.013, -94.4196
6.67174, 76, 5.24544, -7.78565, 24.188, 26.1187, 87.135, -94.1748
6.67973, 76, 6.02805, -7.41797, 23.803, 25.4552, 87.3831, -93.6828
6.68865, 77, 6.81147, -7.0448, 23.4231, 24.7916, 87.6381, -93.1891
6.70786, 78, 8.77825, -6.07224, 22.4874, 23.1261, 88.314, -91.9453
6.70958, 78, 8.77825, -6.07224, 22.4874, 23.1261, 88.314, -91.9453
6.72307, 79, 10.3599, -5.25246, 21.7533, 21.7691, 88.9094, -90.9346
6.72448, 79, 10.3599, -5.25246, 21.7533, 21.7691, 88.9094, -90.9346
6.72761, 79, 10.7563, -5.0431, 21.5714, 21.4258, 89.0671, -90.6786
6.73631, 80, 11.5482, -4.61728, 21.2094, 20.7368, 89.3922, -90.1627
6.74371, 80, 12.3364, -4.1807, 20.8519, 20.0454, 89.7285, -89.6408
6.75221, 81, 13.1181, -3.73413, 20.499, 19.359, 90.0749, -89.1121
6.75973, 81, 13.8937, -3.28111, 20.1523, 18.6831, 90.4291, -88.5782
6.76768, 82, 14.6625, -2.82209, 19.8138, 18.0217, 90.7891, -88.0401
6.77559, 82, 15.4235, -2.35476, 19.4862, 17.3766, 91.1527, -87.4998
6.78362, 82, 16.1742, -1.8798, 19.1689, 16.7502, 91.5195, -86.957
6.79178, 83, 16.9123, -1.399, 18.8621, 16.144, 91.8897, -86.413
6.79971, 83, 17.6369, -0.91338, 18.5647, 15.5574, 92.2641, -85.8689
6.80855, 84, 18.3459, -0.424118, 18.2766, 14.9907, 92.6437, -85.3266
6.81582, 84, 19.0377, 0.0684402, 17.9959, 14.4444, 93.0301, -84.7856
6.82466, 85, 19.7107, 0.565849, 17.7211, 13.9181, 93.4241, -84.2472
6.83192, 85, 20.3649, 1.06816, 17.4528, 13.4115, 93.8258, -83.7115
6.84107, 86, 21.0012, 1.5746, 17.1904, 12.9251, 94.2335, -83.1792
6.84798, 86, 21.6223, 2.0863, 16.9349, 12.4579, 94.6466, -82.6477
6.85689, 86, 22.2303, 2.60589, 16.6857, 12.0103, 95.0659, -82.1153
6.86412, 87, 22.8271, 3.13535, 16.4408, 11.5814, 95.4919, -81.5798
6.87292, 87, 23.4139, 3.6725, 16.1997, 11.1697, 95.9251, -81.0401
6.88009, 88, 23.7034, 3.94279, 16.0801, 10.7734, 96.365, -80.4927
6.8889, 88, 24.2743, 4.48755, 15.8428, 10.5816, 96.8104, -79.9366
6.89606, 89, 24.8339, 5.04179, 15.6111, 10.2095, 97.0352, -79.6547
6.90351, 89, 25.3838, 5.60878, 15.3853, 9.85396, 97.4879, -79.0828
6.91158, 89, 25.9288, 6.18776, 15.1641, 9.51527, 97.9441, -78.4994
6.91956, 90, 26.4701, 6.77729, 14.9486, 9.19231, 98.4044, -77.9016
6.92854, 91, 27.003, 7.37673, 14.7393, 8.88583, 98.8701, -76.9787
6.93551, 91, 27.5238, 7.98636, 14.5349, 8.59613, 99.3428, -76.6645
6.9436, 92, 28.0341, 8.60593, 14.3339, 8.32426, 99.8234, -76.0254
6.95152, 92, 28.5369, 9.234, 14.1357, 8.07157, 100.311, -75.3741
6.95953, 93, 29.033, 9.87087, 13.9406, 7.83856, 100.806, -74.7128
6.96751, 93, 29.5185, 10.5164, 13.7499, 7.62713, 101.304, -74.0437
6.97556, 94, 29.9908, 11.1701, 13.5656, 7.43813, 101.803, -73.3662
6.98351, 94, 30.4484, 11.8296, 13.3884, 7.27291, 102.301, -72.6827
6.99158, 95, 30.8924, 12.493, 13.2179, 7.13164, 102.795, -71.995
6.99953, 95, 31.3232, 13.1587, 13.0553, 7.01426, 103.286, -71.3015
7.00748, 96, 31.7409, 13.8267, 12.9003, 6.92034, 103.774, -70.602
7.01558, 96, 32.1433, 14.4959, 12.7517, 6.8505, 104.258, -69.8984
7.02347, 97, 32.5289, 15.1649, 12.609, 6.80414, 104.739, -69.1883
7.0325, 97, 32.8981, 15.832, 12.4729, 6.77873, 105.214, -68.4728
7.03954, 98, 33.2515, 16.4953, 12.3451, 6.77439, 105.682, -67.7561
7.04859, 98, 33.5902, 17.1536, 12.2263, 6.79208, 106.14, -67.0382
7.05548, 99, 33.9139, 17.8045, 12.1175, 6.82947, 106.586, -66.3206
7.06354, 99, 34.2231, 18.4467, 12.0189, 6.88672, 107.018, -65.608
7.07173, 100, 34.52, 19.079, 11.9306, 6.96289, 107.434, -64.9008
7.07962, 100, 34.8056, 19.7018, 11.8522, 7.05589, 107.835, -64.1991
7.08751, 100, 35.0786, 20.3133, 11.7828, 7.16509, 108.22, -63.5066
7.09551, 101, 35.3377, 20.9114, 11.7209, 7.28841, 108.59, -62.8233
7.10358, 101, 35.5837, 21.4955, 11.6665, 7.42379, 108.946, -62.1492
7.11155, 102, 35.8166, 22.0648, 11.6195, 7.56899, 109.287, -61.4871
7.1195, 102, 36.0363, 22.6192, 11.5795, 7.72186, 109.613, -60.839
7.12763, 103, 36.2452, 23.1581, 11.5467, 7.88075, 109.923, -60.2044
7.13552, 103, 36.4465, 23.6819, 11.5214, 8.04504, 110.218, -59.5838
7.14351, 103, 36.6422, 24.1919, 11.5047, 8.21553, 110.496, -58.9781
7.15157, 104, 36.8328, 24.6884, 11.496, 8.39309, 110.756, -58.3849
7.15951, 104, 37.0187, 25.172, 11.4939, 8.57952, 110.999, -57.8007
7.16754, 104, 37.2002, 25.6431, 11.498, 8.77516, 111.223, -57.2251
7.17558, 104, 37.3734, 26.1006, 11.5074, 8.97938, 111.429, -56.6571
7.18351, 104, 37.536, 26.5449, 11.5205, 9.19178, 111.62, -56.0962
7.1915, 104, 37.6904, 26.9757, 11.5365, 9.40948, 111.797, -55.5442
7.19967, 104, 37.8405, 27.3946, 11.5549, 9.62991, 111.963, -55.0042
7.20752, 104, 37.9892, 27.7999, 11.5748, 9.8505, 112.119, -54.4809
7.2156, 104, 38.1356, 28.1911, 11.5949, 10.0681, 112.268, -53.9764
7.22358, 104, 38.2782, 28.5682, 11.6148, 10.2818, 112.409, -53.4921
7.2316, 104, 38.4153, 28.9312, 11.6338, 10.4894, 112.543, -53.0311
7.23966, 104, 38.5454, 29.2778, 11.6518, 10.69, 112.669, -52.5934
7.24765, 104, 38.6679, 29.6069, 11.6691, 10.8825, 112.787, -52.181
7.25562, 104, 38.7825, 29.9169, 11.685, 11.0663, 112.898, -51.7931
7.26367, 104, 38.8891, 30.2087, 11.6998, 11.2406, 113.001, -51.4298
7.27152, 104, 38.9881, 30.4816, 11.7137, 11.405, 113.096, -51.0922
7.27958, 104, 39.0792, 30.7345, 11.7262, 11.559, 113.185, -50.78
7.28762, 104, 39.1621, 30.9681, 11.7375, 11.7022, 113.265, -50.4928
7.29568, 104, 39.2367, 31.182, 11.7479, 11.8338, 113.339, -50.2312
7.30367, 104, 39.3027, 31.3757, 11.7576, 11.9539, 113.405, -49.9945
7.31175, 104, 39.3611, 31.5503, 11.7662, 12.0621, 113.464, -49.7833
7.31973, 104, 39.4124, 31.7054, 11.7737, 12.158, 113.517, -49.597
7.3279, 104, 39.4572, 31.8413, 11.7804, 12.2422, 113.561, -49.4354
7.33598, 104, 39.4963, 31.9594, 11.7866, 12.3135, 113.599, -49.2983
7.34408, 104, 39.5292, 32.0605, 11.7921, 12.3738, 113.63, -49.1845
7.35204, 104, 39.5561, 32.1453, 11.797, 12.4218, 113.656, -49.0927
7.36009, 104, 39.5783, 32.2154, 11.8013, 12.4591, 113.675, -49.0207
7.36805, 104, 39.596, 32.2726, 11.8053, 12.4876, 113.689, -48.9674
7.3763, 104, 39.61, 32.3183, 11.8089, 12.5084, 113.699, -48.9293
7.38412, 104, 39.621, 32.3536, 11.8122, 12.523, 113.706, -48.9033
7.39235, 104, 39.6254, 32.3678, 11.8151, 12.5326, 113.71, -48.8866
7.40046, 104, 39.6347, 32.3996, 11.8177, 12.5385, 113.712, -48.8769
7.40756, 104, 39.6366, 32.4073, 11.8188, 12.5405, 113.713, -48.874
7.41553, 104, 39.6393, 32.4189, 11.8205, 12.5428, 113.714, -48.8707
7.42347, 105, 39.6408, 32.4262, 11.8218, 12.544, 113.714, -48.8691
7.43154, 105, 39.6412, 32.4307, 11.8229, 12.5446, 113.714, -48.8684
7.4395, 105, 39.6409, 32.4338, 11.8237, 12.5449, 113.714, -48.8682
7.44755, 105, 39.64, 32.436, 11.8246, 12.545, 113.714, -48.8682
7.45557, 105, 39.6389, 32.4376, 11.8252, 12.5451, 113.714, -48.8684
7.46349, 105, 39.6375, 32.439, 11.8258, 12.5451, 113.714, -48.8686
7.4715, 105, 39.6363, 32.4403, 11.8263, 12.5451, 113.714, -48.8689
7.47955, 105, 39.6356, 32.4415, 11.8268, 12.5452, 113.714, -48.8691
7.48751, 105, 39.6351, 32.4427, 11.8274, 12.5452, 113.714, -48.8694
7.4955, 105, 39.6348, 32.4438, 11.828, 12.5452, 113.714, -48.8697
7.50506, 105, 39.6344, 32.4452, 11.8288, 12.5452, 113.714, -48.8701
7.51149, 105, 39.6343, 32.4455, 11.829, 12.5452, 113.714, -48.8703
7.5196, 105, 39.634, 32.4462, 11.8293, 12.5452, 113.714, -48.8704
7.52756, 105, 39.6337, 32.4466, 11.8296, 12.5452, 113.714, -48.8706
7.53653, 105, 39.6334, 32.4468, 11.8299, 12.5452, 113.714, -48.8707
7.54351, 105, 39.6332, 32.447, 11.8301, 12.5451, 113.714, -48.8709
