hehonglu123/Motion-Primitive-Planning/ILC/recorded_data/realrobot/wood/iteration_20/run_3.csv
timestamp, cmd_num, J1, J2, J3, J4, J5, J6
0.001051, -1, 11.3762, 13.6154, 17.3341, -145.52, -97.9263, 142.517
0.004299, -1, 11.3762, 13.6154, 17.3341, -145.52, -97.9263, 142.517
0.007726, -1, 11.3762, 13.6154, 17.3341, -145.52, -97.9263, 142.517
0.028354, -1, 11.3762, 13.6154, 17.3342, -145.52, -97.9262, 142.517
0.031052, -1, 11.3762, 13.6154, 17.3342, -145.52, -97.9262, 142.517
0.033512, -1, 11.3762, 13.6154, 17.3342, -145.52, -97.9262, 142.517
0.039593, -1, 11.3762, 13.6154, 17.3342, -145.52, -97.9262, 142.517
0.047552, -1, 11.3761, 13.6154, 17.3342, -145.52, -97.9263, 142.517
0.055611, -1, 11.3756, 13.6154, 17.3341, -145.52, -97.9263, 142.517
0.190922, -1, 10.117, 13.2818, 17.4159, -145.914, -97.7916, 140.238
0.192311, -1, 10.117, 13.2818, 17.4159, -145.914, -97.7916, 140.238
0.193569, -1, 10.117, 13.2818, 17.4159, -145.914, -97.7916, 140.238
0.195541, -1, 10.0412, 13.2614, 17.4209, -145.937, -97.7832, 140.099
0.196865, -1, 10.0412, 13.2614, 17.4209, -145.937, -97.7832, 140.099
0.200334, -1, 9.96462, 13.2407, 17.426, -145.961, -97.7747, 139.96
0.201585, -1, 9.96462, 13.2407, 17.426, -145.961, -97.7747, 139.96
0.205644, -1, 9.88749, 13.2201, 17.431, -145.986, -97.766, 139.82
0.207656, -1, 9.80997, 13.1994, 17.436, -146.01, -97.7574, 139.68
0.20895, -1, 9.80997, 13.1994, 17.436, -146.01, -97.7574, 139.68
0.21076, -1, 9.80997, 13.1994, 17.4411, -146.034, -97.7488, 139.541
0.212229, -1, 9.73221, 13.1787, 17.4411, -146.034, -97.7488, 139.541
0.213424, -1, 9.73221, 13.1787, 17.4411, -146.034, -97.7488, 139.541
0.215451, -1, 9.65441, 13.1579, 17.4461, -146.057, -97.7402, 139.401
0.21667, -1, 9.65441, 13.1579, 17.4461, -146.057, -97.7402, 139.401
0.219031, -1, 9.57671, 13.1373, 17.4511, -146.081, -97.7317, 139.261
0.220472, -1, 9.57671, 13.1373, 17.4511, -146.081, -97.7317, 139.261
0.221704, -1, 9.57671, 13.1373, 17.4511, -146.081, -97.7317, 139.261
0.225135, -1, 9.49915, 13.1167, 17.4561, -146.105, -97.7232, 139.121
0.227033, -1, 9.42175, 13.096, 17.461, -146.129, -97.7148, 138.982
0.228492, -1, 9.42175, 13.096, 17.461, -146.129, -97.7148, 138.982
0.231617, -1, 9.34442, 13.0754, 17.466, -146.154, -97.7064, 138.842
0.239679, -1, 9.19003, 13.0343, 17.476, -146.201, -97.6896, 138.562
0.249173, -1, 9.03612, 12.9933, 17.486, -146.249, -97.6729, 138.282
0.255632, -1, 8.88236, 12.9522, 17.4962, -146.297, -97.656, 138.002
0.26373, -1, 8.72879, 12.9112, 17.5064, -146.345, -97.6388, 137.723
0.27216, -1, 8.57579, 12.87, 17.5165, -146.393, -97.6214, 137.443
0.279589, -1, 8.42304, 12.8288, 17.5266, -146.441, -97.6039, 137.162
0.287651, -1, 8.27005, 12.7874, 17.5368, -146.489, -97.5866, 136.882
0.296161, -1, 8.11663, 12.7459, 17.5469, -146.537, -97.5696, 136.602
0.303646, -1, 7.96273, 12.7042, 17.5572, -146.585, -97.5527, 136.322
0.311785, -1, 7.80821, 12.6625, 17.5673, -146.633, -97.5361, 136.041
0.32134, -1, 7.6533, 12.6208, 17.5774, -146.68, -97.5194, 135.761
0.32797, -1, 7.49834, 12.5792, 17.5876, -146.729, -97.5026, 135.481
0.334522, -1, 7.42083, 12.5584, 17.5927, -146.753, -97.4941, 135.341
0.343989, -1, 7.18825, 12.496, 17.608, -146.824, -97.4681, 134.92
0.352087, -1, 7.03322, 12.4545, 17.6184, -146.873, -97.4508, 134.64
0.360131, -1, 6.87805, 12.4132, 17.6286, -146.921, -97.4337, 134.36
0.368072, -1, 6.72309, 12.372, 17.639, -146.969, -97.4168, 134.079
0.376244, -1, 6.56846, 12.3307, 17.6494, -147.017, -97.4001, 133.799
0.384229, -1, 6.41398, 12.2894, 17.6598, -147.065, -97.3834, 133.518
0.392147, -1, 6.33686, 12.2687, 17.665, -147.089, -97.3665, 133.238
0.399516, -1, 6.18262, 12.2273, 17.6753, -147.138, -97.3579, 133.098
0.40757, -1, 6.02827, 12.1858, 17.6856, -147.186, -97.3407, 132.817
0.415515, -1, 5.87369, 12.1443, 17.6959, -147.233, -97.3232, 132.536
0.423575, -1, 5.71895, 12.1027, 17.7062, -147.282, -97.3056, 132.255
0.43154, -1, 5.56407, 12.061, 17.7164, -147.33, -97.2884, 131.975
0.439514, -1, 5.40893, 12.0193, 17.7267, -147.378, -97.2714, 131.693
0.448852, -1, 5.17584, 11.9567, 17.7422, -147.45, -97.2462, 131.272
0.455545, -1, 5.09799, 11.9359, 17.7474, -147.474, -97.2378, 131.132
0.463525, -1, 4.94222, 11.8943, 17.7579, -147.522, -97.221, 130.851
0.471569, -1, 4.7865, 11.8526, 17.7683, -147.57, -97.2039, 130.569
0.47952, -1, 4.63077, 11.8111, 17.7787, -147.619, -97.1865, 130.288
0.487509, -1, 4.4751, 11.7696, 17.7892, -147.667, -97.169, 130.007
0.495581, -1, 4.31953, 11.7281, 17.7995, -147.715, -97.1517, 129.727
0.503531, -1, 4.16421, 11.6867, 17.81, -147.764, -97.1346, 129.445
0.641395, -1, 1.51948, 10.978, 17.9867, -148.585, -96.8434, 124.658
0.643473, -1, 1.44146, 10.9572, 17.9919, -148.609, -96.8349, 124.517
0.644731, -1, 1.44146, 10.9572, 17.9919, -148.609, -96.8349, 124.517
0.646779, -1, 1.36352, 10.9363, 17.9971, -148.633, -96.8264, 124.376
0.647992, -1, 1.36352, 10.9363, 17.9971, -148.633, -96.8264, 124.376
0.6493, -1, 1.36352, 10.9363, 17.9971, -148.633, -96.8264, 124.376
0.651348, -1, 1.2856, 10.9155, 18.0023, -148.658, -96.818, 124.235
0.654814, -1, 1.20775, 10.8947, 18.0075, -148.682, -96.8096, 124.094
0.656055, -1, 1.20775, 10.8947, 18.0075, -148.682, -96.8096, 124.094
0.657389, -1, 1.20775, 10.8947, 18.0075, -148.682, -96.8096, 124.094
0.660071, -1, 1.13, 10.8737, 18.0127, -148.706, -96.8012, 123.953
0.663071, -1, 1.05235, 10.8529, 18.0178, -148.73, -96.7927, 123.811
0.66442, -1, 1.05235, 10.8529, 18.0178, -148.73, -96.7927, 123.811
0.665643, -1, 1.05235, 10.8529, 18.0178, -148.73, -96.7927, 123.811
0.667863, -1, 0.974818, 10.832, 18.023, -148.755, -96.7842, 123.67
0.671479, -1, 0.89733, 10.8111, 18.0282, -148.779, -96.7756, 123.529
0.672764, -1, 0.89733, 10.8111, 18.0282, -148.779, -96.7756, 123.529
0.67459, -1, 0.819877, 10.7902, 18.0334, -148.803, -96.767, 123.388
0.67604, -1, 0.819877, 10.7902, 18.0334, -148.803, -96.767, 123.388
0.677308, -1, 0.819877, 10.7902, 18.0334, -148.803, -96.767, 123.388
0.67943, -1, 0.742494, 10.7693, 18.0386, -148.827, -96.7582, 123.247
0.680647, -1, 0.742494, 10.7693, 18.0386, -148.827, -96.7582, 123.247
0.689521, -1, 0.587896, 10.7275, 18.049, -148.876, -96.7406, 122.964
0.695513, -1, 0.433138, 10.6857, 18.0595, -148.924, -96.7229, 122.681
0.703515, -1, 0.27802, 10.6439, 18.0698, -148.972, -96.7056, 122.398
0.711594, -1, 0.122416, 10.602, 18.0803, -149.021, -96.6887, 122.116
0.719555, -1, -0.0335565, 10.5601, 18.0908, -149.069, -96.6719, 121.833
0.727613, -1, -0.18986, 10.5183, 18.1013, -149.118, -96.6552, 121.55
0.73567, -1, -0.346459, 10.4764, 18.1118, -149.167, -96.6383, 121.267
0.743609, -1, -0.503432, 10.4345, 18.1222, -149.215, -96.6213, 120.985
0.751613, -1, -0.660661, 10.3927, 18.1326, -149.263, -96.6039, 120.702
0.759692, -1, -0.818067, 10.3508, 18.1431, -149.312, -96.5864, 120.419
0.767596, -1, -0.975458, 10.309, 18.1535, -149.36, -96.5691, 120.136
0.775516, -1, -1.1327, 10.2671, 18.1638, -149.409, -96.552, 119.853
0.783549, -1, -1.28979, 10.2252, 18.1742, -149.458, -96.5352, 119.57
0.791586, -1, -1.44667, 10.1834, 18.1845, -149.506, -96.5184, 119.286
0.799644, -1, -1.60325, 10.1416, 18.195, -149.555, -96.5016, 119.003
0.807709, -1, -1.75936, 10.0997, 18.2056, -149.604, -96.4845, 118.72
0.815708, -1, -1.91508, 10.0578, 18.216, -149.652, -96.4671, 118.437
0.823872, -1, -2.07045, 10.0159, 18.2265, -149.701, -96.4496, 118.153
0.831913, -1, -2.22551, 9.97405, 18.2368, -149.75, -96.4319, 117.87
0.839897, -1, -2.38073, 9.93215, 18.2472, -149.798, -96.4146, 117.586
0.848036, -1, -2.53634, 9.89014, 18.2577, -149.846, -96.3976, 117.302
0.856161, -1, -2.69217, 9.84822, 18.2681, -149.895, -96.3807, 117.018
0.864035, -1, -2.84839, 9.80626, 18.2785, -149.944, -96.3639, 116.735
0.872126, -1, -3.00501, 9.76427, 18.2889, -149.992, -96.347, 116.451
0.88015, -1, -3.16199, 9.72234, 18.2993, -150.041, -96.3299, 116.167
0.888085, -1, -3.24063, 9.70134, 18.3045, -150.09, -96.3124, 115.883
0.896228, -1, -3.39824, 9.65933, 18.315, -150.138, -96.2947, 115.6
0.903506, -1, -3.55605, 9.61733, 18.3255, -150.163, -96.286, 115.458
0.911499, -1, -3.71389, 9.57544, 18.3359, -150.211, -96.2687, 115.173
0.91956, -1, -3.87192, 9.53345, 18.3463, -150.26, -96.2516, 114.889
0.927505, -1, -4.02983, 9.49143, 18.3567, -150.309, -96.2346, 114.605
0.935516, -1, -4.18766, 9.44949, 18.3671, -150.358, -96.2176, 114.321
0.943541, -1, -4.34541, 9.40749, 18.3774, -150.406, -96.2005, 114.036
0.951506, -1, -4.50289, 9.36547, 18.3878, -150.455, -96.1832, 113.752
0.959541, -1, -4.65987, 9.32342, 18.3982, -150.504, -96.1655, 113.467
0.967541, -1, -4.81644, 9.28136, 18.4086, -150.553, -96.1477, 113.182
0.975459, -1, -4.97273, 9.23929, 18.4191, -150.602, -96.1302, 112.897
0.983502, -1, -5.12868, 9.19728, 18.4297, -150.651, -96.113, 112.612
0.991562, -1, -5.28451, 9.15517, 18.4402, -150.699, -96.096, 112.328
0.999517, -1, -5.44048, 9.11297, 18.4508, -150.748, -96.0791, 112.043
1.0075, -1, -5.59667, 9.07087, 18.4612, -150.797, -96.0621, 111.758
1.01558, -1, -5.75317, 9.02874, 18.4716, -150.846, -96.045, 111.473
1.02352, -1, -5.91014, 8.98654, 18.4821, -150.895, -96.0275, 111.189
1.0325, -1, -6.06756, 8.94438, 18.4925, -150.944, -96.0099, 110.904
1.03951, -1, -6.22553, 8.90224, 18.5028, -150.992, -95.9923, 110.618
1.0485, -1, -6.38386, 8.86009, 18.5132, -151.042, -95.9751, 110.333
1.05556, -1, -6.54226, 8.81801, 18.5235, -151.09, -95.9581, 110.048
1.06353, -1, -6.70085, 8.77586, 18.5341, -151.139, -95.941, 109.763
1.07152, -1, -6.85956, 8.73371, 18.5446, -151.189, -95.924, 109.477
1.07957, -1, -7.01812, 8.69161, 18.5552, -151.237, -95.9069, 109.192
1.08749, -1, -7.17661, 8.64946, 18.5656, -151.286, -95.8894, 108.906
1.09557, -1, -7.33494, 8.60726, 18.576, -151.336, -95.8718, 108.62
1.10352, -1, -7.49292, 8.565, 18.5865, -151.385, -95.854, 108.334
1.1115, -1, -7.65055, 8.52266, 18.597, -151.434, -95.8364, 108.049
1.11958, -1, -7.8078, 8.48037, 18.6074, -151.483, -95.8192, 107.763
1.12752, -1, -7.96469, 8.43812, 18.6178, -151.531, -95.8021, 107.477
1.1355, -1, -8.12138, 8.39577, 18.6282, -151.58, -95.7852, 107.191
1.14397, -1, -8.27794, 8.35343, 18.6387, -151.63, -95.7683, 106.906
1.15149, -1, -8.43466, 8.31106, 18.6493, -151.678, -95.751, 106.62
1.15951, -1, -8.59164, 8.26871, 18.6599, -151.728, -95.7336, 106.333
1.16832, -1, -8.74899, 8.22645, 18.6704, -151.777, -95.7158, 106.047
1.17549, -1, -8.90668, 8.18412, 18.6807, -151.826, -95.6982, 105.761
1.18353, -1, -9.06479, 8.14179, 18.6912, -151.875, -95.681, 105.474
1.19231, -1, -9.22333, 8.09954, 18.7017, -151.924, -95.6637, 105.188
1.19951, -1, -9.38223, 8.0572, 18.7121, -151.973, -95.6467, 104.901
1.20765, -1, -9.54134, 8.01485, 18.7226, -152.023, -95.6295, 104.614
1.21631, -1, -9.70051, 7.97261, 18.7331, -152.072, -95.6123, 104.327
1.22353, -1, -9.85977, 7.93036, 18.7436, -152.121, -95.5947, 104.04
1.23181, -1, -10.0192, 7.88796, 18.7542, -152.17, -95.5768, 103.753
1.24039, -1, -10.1784, 7.84551, 18.7649, -152.22, -95.559, 103.466
1.24759, -1, -10.3375, 7.80301, 18.7755, -152.269, -95.5415, 103.18
1.25599, -1, -10.4964, 7.76049, 18.786, -152.318, -95.5242, 102.893
1.2644, -1, -10.6549, 7.71803, 18.7964, -152.368, -95.5071, 102.606
1.27158, -1, -10.8129, 7.67549, 18.807, -152.416, -95.4901, 102.319
1.28024, -1, -10.9708, 7.63289, 18.8174, -152.466, -95.473, 102.032
1.28843, -1, -11.1284, 7.59037, 18.8279, -152.515, -95.4557, 101.744
1.29567, -1, -11.2858, 7.54793, 18.8384, -152.564, -95.4379, 101.457
1.30439, -1, -11.4432, 7.50547, 18.8489, -152.614, -95.4201, 101.17
1.31251, -1, -11.6008, 7.463, 18.8594, -152.663, -95.4025, 100.882
1.31972, -1, -11.7587, 7.4206, 18.8701, -152.712, -95.3851, 100.594
1.32878, -1, -11.9171, 7.37816, 18.8806, -152.762, -95.3678, 100.306
1.33666, -1, -12.0758, 7.33577, 18.8912, -152.811, -95.3507, 100.019
1.34406, -1, -12.235, 7.29338, 18.9017, -152.86, -95.3334, 99.7309
1.3528, -1, -12.3946, 7.25097, 18.9122, -152.91, -95.316, 99.4428
1.36006, -1, -12.5545, 7.20854, 18.9228, -152.96, -95.2982, 99.1547
1.36814, -1, -12.7144, 7.16609, 18.9333, -153.009, -95.2802, 98.8669
1.37605, -1, -12.8745, 7.12361, 18.9439, -153.059, -95.2623, 98.5789
1.38484, -1, -13.0345, 7.08106, 18.9544, -153.108, -95.2448, 98.2907
1.39228, -1, -13.1145, 7.03844, 18.9649, -153.157, -95.2275, 98.0027
1.40006, -1, -13.2744, 7.01714, 18.9702, -153.182, -95.2189, 97.8587
1.40749, -1, -13.4341, 6.97452, 18.9809, -153.232, -95.2018, 97.5704
1.41553, -1, -13.5934, 6.93176, 18.9915, -153.281, -95.1846, 97.2818
1.42348, -1, -13.7525, 6.88903, 19.0021, -153.33, -95.1673, 96.9931
1.43148, -1, -13.9113, 6.84635, 19.0125, -153.38, -95.1496, 96.7048
1.43956, -1, -14.0696, 6.80362, 19.023, -153.429, -95.1317, 96.4161
1.44748, -1, -14.2279, 6.761, 19.0336, -153.479, -95.1139, 96.1272
1.45548, -1, -14.3861, 6.71833, 19.0441, -153.528, -95.0965, 95.8382
1.46366, -1, -14.5443, 6.67565, 19.0546, -153.577, -95.0792, 95.5493
1.47148, -1, -14.703, 6.6331, 19.0652, -153.627, -95.062, 95.26
1.47949, -1, -14.8621, 6.59055, 19.0758, -153.677, -95.0448, 94.9707
1.48748, -1, -15.0214, 6.54784, 19.0865, -153.726, -95.0274, 94.6816
1.49548, -1, -15.1811, 6.50523, 19.0972, -153.776, -95.0097, 94.3926
1.50355, -1, -15.3412, 6.46265, 19.1079, -153.825, -94.9917, 94.1033
1.51148, -1, -15.5017, 6.41996, 19.1186, -153.875, -94.9737, 93.8139
1.52104, -1, -15.6624, 6.37726, 19.1292, -153.925, -94.956, 93.3801
1.52756, -1, -15.8231, 6.3345, 19.1398, -153.975, -94.9387, 93.2354
1.53654, -1, -15.9838, 6.29161, 19.1505, -154.024, -94.9215, 92.9458
1.54348, -1, -16.1448, 6.24874, 19.161, -154.074, -94.9043, 92.6559
1.55155, -1, -16.3055, 6.20582, 19.1716, -154.123, -94.887, 92.3664
1.55949, -1, -16.466, 6.16281, 19.1821, -154.173, -94.8696, 92.0769
1.56749, -1, -16.6263, 6.11985, 19.1926, -154.223, -94.8517, 91.7867
1.57554, -1, -16.7861, 6.07688, 19.2033, -154.272, -94.8339, 91.4966
1.58349, -1, -16.9456, 6.03388, 19.2139, -154.322, -94.8162, 91.2065
1.59148, -1, -17.1049, 5.9909, 19.2246, -154.372, -94.7987, 90.9163
1.59956, -1, -17.264, 5.94793, 19.2352, -154.421, -94.7814, 90.6259
1.6075, -1, -17.4231, 5.90507, 19.2458, -154.471, -94.7641, 90.3355
1.61549, -1, -17.5824, 5.86225, 19.2565, -154.521, -94.7467, 90.0455
1.62353, -1, -17.7418, 5.81943, 19.2672, -154.571, -94.7291, 89.7552
1.63151, -1, -17.9012, 5.77666, 19.2779, -154.621, -94.7111, 89.4647
1.63959, -1, -18.0613, 5.73386, 19.2885, -154.671, -94.693, 89.1741
1.64748, -1, -18.2218, 5.69107, 19.2991, -154.72, -94.6751, 88.8836
1.65557, -1, -18.3827, 5.64825, 19.3098, -154.771, -94.6575, 88.5928
1.66355, -1, -18.5441, 5.60531, 19.3206, -154.821, -94.6402, 88.3017
1.67146, -1, -18.7057, 5.56232, 19.3312, -154.87, -94.6229, 88.0109
1.67949, -1, -18.8673, 5.51937, 19.3419, -154.921, -94.6056, 87.7202
1.68757, -1, -19.029, 5.4763, 19.3524, -154.971, -94.5881, 87.429
1.69549, -1, -19.1906, 5.43311, 19.3631, -155.02, -94.5703, 87.1376
1.70348, -1, -19.3521, 5.38994, 19.3737, -155.07, -94.5522, 86.8463
1.71155, -1, -19.5135, 5.34672, 19.3843, -155.12, -94.5341, 86.5548
1.71958, -1, -19.6743, 5.30345, 19.3949, -155.17, -94.5163, 86.2631
1.72761, -1, -19.8349, 5.26028, 19.4055, -155.22, -94.4988, 85.9712
1.73558, -1, -19.9955, 5.21708, 19.4163, -155.27, -94.4814, 85.6798
1.74357, -1, -20.1555, 5.17391, 19.4271, -155.32, -94.4639, 85.3883
1.75199, -1, -20.3152, 5.13096, 19.438, -155.37, -94.4464, 85.0965
1.75964, -1, -20.4751, 5.08793, 19.4488, -155.42, -94.4286, 84.8047
1.76758, -1, -20.6352, 5.04482, 19.4595, -155.47, -94.4105, 84.5129
1.77622, -1, -20.7955, 5.00189, 19.4702, -155.521, -94.3924, 84.2211
1.78351, -1, -20.9561, 4.9589, 19.4809, -155.57, -94.3746, 83.9288
1.79151, -1, -21.1172, 4.9158, 19.4916, -155.621, -94.3572, 83.6368
1.8005, -1, -21.2787, 4.87274, 19.5022, -155.671, -94.3399, 83.3449
1.80755, -1, -21.4407, 4.82952, 19.5129, -155.721, -94.3227, 83.0526
1.81564, -1, -21.6028, 4.78624, 19.5236, -155.772, -94.3053, 82.76
1.82461, -1, -21.765, 4.74302, 19.5344, -155.822, -94.2877, 82.4674
1.83175, -1, -21.9275, 4.69962, 19.5451, -155.872, -94.2698, 82.1749
1.83995, -1, -22.09, 4.65624, 19.5559, -155.922, -94.2517, 81.8821
1.84877, -1, -22.2526, 4.61292, 19.5666, -155.972, -94.2339, 81.589
1.85596, -1, -22.4149, 4.56948, 19.5773, -156.022, -94.2163, 81.2964
1.8641, -1, -22.5769, 4.52608, 19.588, -156.073, -94.1988, 81.0037
1.87293, -1, -22.7387, 4.48264, 19.5987, -156.123, -94.1814, 80.711
1.88009, -1, -22.9, 4.43924, 19.6094, -156.173, -94.1638, 80.418
1.88809, -1, -23.0612, 4.39593, 19.6201, -156.224, -94.1459, 80.125
1.89692, -1, -23.1418, 4.37428, 19.6254, -156.249, -94.1278, 79.832
1.90401, -1, -23.3027, 4.33097, 19.6362, -156.299, -94.1186, 79.6853
1.91154, -1, -23.4635, 4.28773, 19.6471, -156.35, -94.1004, 79.3917
1.91954, -1, -23.6245, 4.24445, 19.6579, -156.4, -94.0825, 79.0984
1.92747, -1, -23.7856, 4.20118, 19.6687, -156.45, -94.0649, 78.8051
1.93552, -1, -23.9469, 4.1579, 19.6794, -156.501, -94.0474, 78.5113
1.94349, -1, -24.1085, 4.11452, 19.6901, -156.551, -94.03, 78.2174
1.95151, -1, -24.2707, 4.07114, 19.7009, -156.601, -94.0124, 77.9235
1.95952, -1, -24.4334, 4.02773, 19.7115, -156.652, -93.9946, 77.6294
1.9675, -1, -24.5963, 3.98419, 19.7222, -156.702, -93.9765, 77.3352
1.97555, -1, -24.7596, 3.94062, 19.7328, -156.752, -93.9584, 77.0408
1.98347, -1, -24.9229, 3.89705, 19.7436, -156.803, -93.9405, 76.7469
1.99148, -1, -25.0863, 3.85349, 19.7545, -156.853, -93.9229, 76.4528
1.99958, -1, -25.2496, 3.8099, 19.7654, -156.904, -93.9054, 76.1583
2.00746, -1, -25.4127, 3.76631, 19.7762, -156.954, -93.8879, 75.864
2.0155, -1, -25.5756, 3.72264, 19.787, -157.004, -93.8702, 75.5698
2.02355, -1, -25.7383, 3.67902, 19.7977, -157.055, -93.8523, 75.2753
2.03305, -1, -25.9008, 3.63556, 19.8085, -157.106, -93.8339, 74.9805
2.03954, -1, -26.0629, 3.592, 19.8193, -157.156, -93.8156, 74.6858
2.04849, -1, -26.2248, 3.5485, 19.83, -157.207, -93.7975, 74.3912
2.05548, -1, -26.3863, 3.50513, 19.8408, -157.257, -93.7797, 74.0963
2.0635, -1, -26.5479, 3.46167, 19.8516, -157.308, -93.762, 73.8011
2.07148, -1, -26.7098, 3.41816, 19.8624, -157.359, -93.7444, 73.506
2.07952, -1, -26.8721, 3.37465, 19.8733, -157.409, -93.7267, 73.2107
2.0888, -1, -27.0347, 3.33103, 19.8841, -157.46, -93.7088, 72.9154
2.09547, -1, -27.1975, 3.28741, 19.895, -157.511, -93.6905, 72.6199
2.10353, -1, -27.3607, 3.24377, 19.9056, -157.561, -93.6723, 72.3248
2.11148, -1, -27.5244, 3.19996, 19.9164, -157.611, -93.6542, 72.0294
2.11963, -1, -27.6883, 3.15621, 19.9273, -157.662, -93.6363, 71.7337
2.12753, -1, -27.8523, 3.11257, 19.938, -157.713, -93.6185, 71.4381
2.1355, -1, -28.0165, 3.06884, 19.9489, -157.763, -93.6009, 71.1426
2.14346, -1, -28.1807, 3.02508, 19.9596, -157.815, -93.5831, 70.847
2.15153, -1, -28.345, 2.98132, 19.9705, -157.865, -93.565, 70.5509
2.15952, -1, -28.5091, 2.93757, 19.9814, -157.916, -93.5467, 70.255
2.16747, -1, -28.6728, 2.8939, 19.9923, -157.967, -93.5282, 69.959
2.1756, -1, -28.8363, 2.85021, 20.0031, -158.017, -93.51, 69.6628
2.18347, -1, -28.9994, 2.80645, 20.0138, -158.068, -93.492, 69.3663
2.19149, -1, -29.1622, 2.76282, 20.0246, -158.119, -93.4743, 69.0698
2.1996, -1, -29.3249, 2.71912, 20.0354, -158.17, -93.4567, 68.7731
2.20746, -1, -29.4876, 2.67543, 20.0462, -158.221, -93.439, 68.4762
2.21547, -1, -29.6504, 2.63165, 20.0571, -158.272, -93.421, 68.1792
2.22356, -1, -29.8134, 2.58785, 20.0679, -158.323, -93.4027, 67.8827
2.23154, -1, -29.9765, 2.54411, 20.0788, -158.374, -93.3842, 67.586
2.23962, -1, -30.1398, 2.50019, 20.0898, -158.425, -93.366, 67.2889
2.24763, -1, -30.3036, 2.45619, 20.1008, -158.475, -93.348, 66.9918
2.25556, -1, -30.4679, 2.41227, 20.1117, -158.527, -93.3303, 66.695
2.26357, -1, -30.6326, 2.36824, 20.1225, -158.577, -93.3125, 66.3977
2.27164, -1, -30.7977, 2.32426, 20.1333, -158.628, -93.2947, 66.1002
2.27963, -1, -30.9627, 2.28033, 20.1442, -158.68, -93.2766, 65.8029
2.28749, -1, -31.1278, 2.23626, 20.155, -158.73, -93.2583, 65.5057
2.29556, -1, -31.2929, 2.19233, 20.1659, -158.782, -93.2397, 65.2083
2.30353, -1, -31.4578, 2.14847, 20.1767, -158.833, -93.2213, 64.9105
2.31192, -1, -31.6225, 2.10442, 20.1875, -158.884, -93.2033, 64.6127
2.31968, -1, -31.787, 2.06044, 20.1984, -158.935, -93.1856, 64.3149
2.3277, -1, -31.9512, 2.01656, 20.2094, -158.986, -93.168, 64.0168
2.33584, -1, -32.1152, 1.97253, 20.2204, -159.037, -93.1504, 63.7186
2.34381, -1, -32.2788, 1.92856, 20.2313, -159.089, -93.1325, 63.4208
2.35188, -1, -32.4423, 1.88457, 20.2422, -159.14, -93.1143, 63.1229
2.36038, -1, -32.606, 1.84041, 20.2531, -159.191, -93.0959, 62.8246
2.36885, -1, -32.7699, 1.79631, 20.2641, -159.243, -93.0776, 62.5262
2.37603, -1, -32.9339, 1.75219, 20.275, -159.294, -93.0596, 62.228
2.38408, -1, -33.0982, 1.70794, 20.2859, -159.344, -93.0417, 61.9294
2.39287, -1, -33.1805, 1.66376, 20.2967, -159.396, -93.0239, 61.6306
2.40007, -1, -33.3453, 1.64168, 20.3077, -159.447, -93.0061, 61.332
2.40831, -1, -33.5105, 1.59746, 20.3132, -159.473, -92.9971, 61.0334
2.41546, -1, -33.6762, 1.55318, 20.3242, -159.524, -92.9788, 60.884
2.42345, -1, -33.8419, 1.50897, 20.3351, -159.575, -92.9602, 60.5849
2.43152, -1, -34.0078, 1.46477, 20.346, -159.626, -92.9416, 60.2856
2.43951, -1, -34.1738, 1.42061, 20.3569, -159.678, -92.9232, 59.9866
2.44747, -1, -34.3399, 1.37643, 20.3679, -159.729, -92.9052, 59.687
2.4555, -1, -34.5059, 1.3322, 20.3788, -159.781, -92.8873, 59.3874
2.46345, -1, -34.6717, 1.28803, 20.3897, -159.832, -92.8695, 59.088
2.47149, -1, -34.8369, 1.24382, 20.4007, -159.883, -92.8516, 58.7888
2.47957, -1, -35.002, 1.19959, 20.4116, -159.935, -92.8334, 58.4891
2.48745, -1, -35.1667, 1.15527, 20.4228, -159.986, -92.8148, 58.1893
2.49545, -1, -35.3312, 1.11095, 20.4338, -160.037, -92.7964, 57.8897
2.50352, -1, -35.4952, 1.06681, 20.445, -160.089, -92.778, 57.59
2.51146, -1, -35.6575, 1.02298, 20.4562, -160.14, -92.76, 57.2901
2.51951, -1, -35.8169, 0.97973, 20.4677, -160.191, -92.7421, 56.9915
2.52753, -1, -35.9725, 0.937623, 20.4796, -160.242, -92.7243, 56.6963
2.53708, -1, -36.1228, 0.897145, 20.4915, -160.291, -92.7069, 56.2661
2.54345, -1, -36.2655, 0.858887, 20.5034, -160.339, -92.6897, 56.1282
2.55153, -1, -36.3987, 0.823565, 20.515, -160.384, -92.6732, 55.8655
2.56054, -1, -36.5207, 0.791282, 20.5256, -160.424, -92.658, 55.6258
2.56745, -1, -36.6298, 0.762423, 20.5349, -160.46, -92.6448, 55.4142
2.57553, -1, -36.7245, 0.737337, 20.5422, -160.49, -92.6338, 55.2358
2.58345, -1, -36.8045, 0.716126, 20.5473, -160.515, -92.625, 55.0927
2.59146, -1, -36.8708, 0.69864, 20.5502, -160.533, -92.6186, 54.9843
2.59956, -1, -36.9239, 0.684623, 20.5515, -160.547, -92.6141, 54.9076
2.60745, -1, -36.9644, 0.673787, 20.5519, -160.556, -92.6112, 54.8559
2.61543, -1, -36.994, 0.666036, 20.5517, -160.561, -92.6096, 54.8244
2.62352, -1, -37.0143, 0.66097, 20.5512, -160.565, -92.6086, 54.8064
2.63146, -1, -37.0267, 0.657933, 20.551, -160.566, -92.6081, 54.7974
2.63955, 2, -37.0334, 0.656309, 20.5508, -160.567, -92.6079, 54.7931
2.64752, 2, -37.0355, 0.655581, 20.5507, -160.568, -92.6078, 54.7912
2.65545, 2, -37.0354, 0.655262, 20.5507, -160.568, -92.6078, 54.7903
2.66345, 2, -37.0347, 0.65512, 20.5506, -160.568, -92.6077, 54.7899
2.67152, 2, -37.0344, 0.655048, 20.5506, -160.568, -92.6078, 54.7897
2.67951, 2, -37.0348, 0.654992, 20.5506, -160.568, -92.6078, 54.7897
2.68745, 2, -37.0359, 0.654948, 20.5506, -160.568, -92.6078, 54.7896
2.69553, 2, -37.037, 0.654844, 20.5504, -160.568, -92.6078, 54.7897
2.70347, 2, -37.0385, 0.654646, 20.5503, -160.568, -92.6078, 54.7898
2.71146, 2, -37.0399, 0.654386, 20.5501, -160.568, -92.6079, 54.7898
2.71958, 2, -37.0411, 0.654137, 20.5499, -160.568, -92.608, 54.7898
2.72747, 2, -37.042, 0.653919, 20.5498, -160.568, -92.608, 54.7899
2.73552, 2, -37.0425, 0.653795, 20.5496, -160.568, -92.6081, 54.7899
2.74362, 2, -37.0425, 0.653749, 20.5494, -160.568, -92.6081, 54.79
2.75156, 2, -37.042, 0.653753, 20.5493, -160.568, -92.6081, 54.7902
2.7596, 2, -37.0412, 0.653803, 20.5492, -160.568, -92.6081, 54.7903
2.76762, 2, -37.0401, 0.653827, 20.5491, -160.568, -92.6082, 54.7905
2.77551, 2, -37.0386, 0.653886, 20.5491, -160.568, -92.6082, 54.7906
2.78348, 2, -37.0371, 0.653967, 20.549, -160.568, -92.6083, 54.7908
2.79156, 2, -37.0361, 0.654012, 20.5489, -160.568, -92.6083, 54.7909
2.79954, 2, -37.0355, 0.654014, 20.5489, -160.568, -92.6083, 54.791
2.80752, 2, -37.0352, 0.653992, 20.5489, -160.568, -92.6083, 54.791
2.81568, 2, -37.0353, 0.653967, 20.5489, -160.568, -92.6083, 54.791
2.82394, 2, -37.0355, 0.653891, 20.5488, -160.568, -92.6083, 54.791
2.83176, 2, -37.0358, 0.653818, 20.5488, -160.568, -92.6083, 54.7911
2.83991, 2, -37.0363, 0.653784, 20.5488, -160.568, -92.6083, 54.7911
2.84808, 2, -37.037, 0.653769, 20.5487, -160.568, -92.6084, 54.7912
2.85585, 2, -37.0378, 0.653762, 20.5487, -160.568, -92.6084, 54.7912
2.86405, 2, -37.0385, 0.653769, 20.5487, -160.568, -92.6084, 54.7912
2.87241, 2, -37.0388, 0.65378, 20.5487, -160.568, -92.6084, 54.7913
2.88007, 2, -37.039, 0.653823, 20.5487, -160.568, -92.6084, 54.7913
2.88808, 2, -37.039, 0.653848, 20.5487, -160.568, -92.6084, 54.7914
2.89629, 2, -37.039, 0.653859, 20.5487, -160.568, -92.6084, 54.7915
2.90399, 2, -37.0388, 0.653855, 20.5487, -160.568, -92.6084, 54.7915
2.91217, 2, -37.0383, 0.65385, 20.5487, -160.568, -92.6084, 54.7916
2.92039, 2, -37.0379, 0.653848, 20.5487, -160.568, -92.6084, 54.7916
2.92743, 2, -37.0378, 0.653847, 20.5487, -160.568, -92.6084, 54.7916
2.93549, 2, -37.0377, 0.653823, 20.5487, -160.568, -92.6084, 54.7917
2.94344, 2, -37.0377, 0.653798, 20.5487, -160.568, -92.6084, 54.7917
2.95145, 2, -37.0377, 0.653801, 20.5487, -160.568, -92.6085, 54.7918
2.95956, 2, -37.0377, 0.653795, 20.5486, -160.568, -92.6084, 54.7918
2.96743, 2, -37.0377, 0.653774, 20.5486, -160.568, -92.6084, 54.7918
2.97547, 2, -37.0378, 0.653775, 20.5486, -160.568, -92.6084, 54.7919
2.98356, 2, -37.0379, 0.653813, 20.5486, -160.568, -92.6084, 54.7919
2.99144, 2, -37.0381, 0.653839, 20.5486, -160.568, -92.6085, 54.792
2.99951, 2, -37.0383, 0.653855, 20.5486, -160.568, -92.6085, 54.792
3.0075, 2, -37.0383, 0.653862, 20.5486, -160.568, -92.6084, 54.7921
3.01543, 2, -37.0384, 0.653866, 20.5486, -160.568, -92.6085, 54.7921
3.02344, 2, -37.0384, 0.653848, 20.5486, -160.568, -92.6085, 54.7921
3.03151, 2, -37.0383, 0.653836, 20.5486, -160.568, -92.6085, 54.7922
3.04129, 2, -37.0383, 0.653804, 20.5486, -160.568, -92.6085, 54.7923
3.04743, 2, -37.0383, 0.65381, 20.5485, -160.568, -92.6085, 54.7924
3.05549, 2, -37.0383, 0.653818, 20.5485, -160.568, -92.6085, 54.7924
3.06346, 2, -37.0383, 0.653821, 20.5485, -160.568, -92.6085, 54.7925
3.07143, 2, -37.0383, 0.653822, 20.5485, -160.568, -92.6085, 54.7925
3.07959, 2, -37.0382, 0.653823, 20.5485, -160.567, -92.6085, 54.7925
3.08743, 2, -37.0382, 0.653831, 20.5485, -160.567, -92.6085, 54.7925
3.09543, 2, -37.0382, 0.653851, 20.5485, -160.567, -92.6085, 54.7926
3.1035, 2, -37.0382, 0.653861, 20.5485, -160.567, -92.6085, 54.7927
3.11143, 2, -37.0382, 0.653865, 20.5485, -160.567, -92.6086, 54.7927
3.11952, 2, -37.0382, 0.653855, 20.5485, -160.567, -92.6086, 54.7927
3.12749, 2, -37.0382, 0.653862, 20.5484, -160.567, -92.6086, 54.7928
3.13543, 2, -37.0382, 0.653866, 20.5484, -160.567, -92.6087, 54.7928
3.14346, 2, -37.0382, 0.65386, 20.5484, -160.567, -92.6087, 54.7929
3.1515, 2, -37.0382, 0.65384, 20.5484, -160.567, -92.6087, 54.793
3.1595, 2, -37.0382, 0.653839, 20.5484, -160.567, -92.6087, 54.793
3.16743, 2, -37.0382, 0.653806, 20.5484, -160.567, -92.6087, 54.7931
3.17549, 2, -37.0382, 0.653815, 20.5484, -160.567, -92.6087, 54.7931
3.18344, 2, -37.0382, 0.653837, 20.5484, -160.567, -92.6087, 54.7931
3.19144, 2, -37.0382, 0.65383, 20.5484, -160.567, -92.6087, 54.7931
3.19958, 2, -37.0381, 0.653846, 20.5484, -160.567, -92.6087, 54.7932
3.20745, 2, -37.0381, 0.653858, 20.5484, -160.567, -92.6087, 54.7932
3.21543, 2, -37.0381, 0.653864, 20.5484, -160.567, -92.6087, 54.7932
3.2235, 2, -37.0381, 0.653867, 20.5484, -160.567, -92.6087, 54.7932
3.23146, 2, -37.0381, 0.653868, 20.5483, -160.567, -92.6087, 54.7933
3.23958, 2, -37.0381, 0.653856, 20.5484, -160.567, -92.6087, 54.7933
3.24761, 2, -37.0381, 0.653851, 20.5484, -160.567, -92.6087, 54.7933
3.25552, 2, -37.0381, 0.653848, 20.5483, -160.567, -92.6087, 54.7934
3.26354, 2, -37.0381, 0.653847, 20.5483, -160.567, -92.6086, 54.7934
3.2716, 2, -37.0381, 0.653852, 20.5483, -160.567, -92.6087, 54.7935
3.27961, 2, -37.038, 0.653836, 20.5483, -160.567, -92.6087, 54.7935
3.28745, 2, -37.038, 0.65383, 20.5483, -160.567, -92.6087, 54.7936
3.29552, 2, -37.0379, 0.653846, 20.5483, -160.567, -92.6087, 54.7935
3.30346, 2, -37.038, 0.653877, 20.5483, -160.567, -92.6087, 54.7936
3.31157, 2, -37.038, 0.653872, 20.5482, -160.567, -92.6087, 54.7936
3.31966, 2, -37.038, 0.653871, 20.5482, -160.567, -92.6087, 54.7937
3.32772, 2, -37.038, 0.653857, 20.5482, -160.567, -92.6087, 54.7936
3.33577, 2, -37.038, 0.653864, 20.5482, -160.567, -92.6087, 54.7937
3.3438, 2, -37.0379, 0.653885, 20.5482, -160.567, -92.6088, 54.7937
3.35179, 2, -37.0379, 0.653876, 20.5482, -160.567, -92.6088, 54.7937
3.36, 2, -37.0379, 0.653865, 20.5482, -160.567, -92.6088, 54.7938
3.36851, 2, -37.0379, 0.65385, 20.5482, -160.567, -92.6088, 54.7938
3.37626, 2, -37.0379, 0.653848, 20.5482, -160.567, -92.6087, 54.7939
3.38403, 2, -37.0378, 0.653847, 20.5482, -160.567, -92.6088, 54.7939
3.39204, 2, -37.0378, 0.653859, 20.5482, -160.567, -92.6088, 54.7939
3.40009, 2, -37.0378, 0.653864, 20.5482, -160.567, -92.6088, 54.7939
3.408, 2, -37.0378, 0.653858, 20.5481, -160.567, -92.6088, 54.7939
3.41602, 2, -37.0378, 0.653859, 20.5481, -160.567, -92.6088, 54.7939
3.42342, 2, -37.0377, 0.653864, 20.5481, -160.567, -92.6088, 54.7939
3.43142, 2, -37.0377, 0.653878, 20.5481, -160.567, -92.6088, 54.794
3.43954, 2, -37.0377, 0.653891, 20.5481, -160.567, -92.6088, 54.794
3.44742, 2, -37.0377, 0.653905, 20.5481, -160.567, -92.6088, 54.794
3.45544, 2, -37.0377, 0.653896, 20.5481, -160.567, -92.6088, 54.794
3.46347, 2, -37.0377, 0.653889, 20.5481, -160.567, -92.6088, 54.794
3.47141, 2, -37.0377, 0.653871, 20.5481, -160.567, -92.6088, 54.794
3.47953, 2, -37.0377, 0.653865, 20.5481, -160.567, -92.6088, 54.7941
3.48747, 2, -37.0377, 0.653867, 20.5481, -160.567, -92.6088, 54.7941
3.49542, 2, -37.0377, 0.653886, 20.548, -160.567, -92.6088, 54.7941
3.50504, 2, -37.0377, 0.653862, 20.548, -160.567, -92.6088, 54.7941
3.51148, 2, -37.0377, 0.653864, 20.548, -160.567, -92.6088, 54.7941
3.52124, 2, -37.0376, 0.653867, 20.548, -160.567, -92.6088, 54.7941
3.52742, 2, -37.0376, 0.653868, 20.548, -160.567, -92.6088, 54.7941
3.53642, 2, -37.0376, 0.653898, 20.548, -160.567, -92.6088, 54.7942
3.54448, 2, -37.0376, 0.653919, 20.548, -160.567, -92.6089, 54.7942
3.55142, 2, -37.0376, 0.653899, 20.548, -160.567, -92.6089, 54.7942
3.55956, 2, -37.0376, 0.653883, 20.548, -160.567, -92.6088, 54.7942
3.56847, 2, -37.0376, 0.653875, 20.548, -160.567, -92.6088, 54.7942
3.57542, 2, -37.0376, 0.653872, 20.548, -160.567, -92.6088, 54.7942
3.5835, 2, -37.0376, 0.65387, 20.548, -160.567, -92.6088, 54.7942
3.59142, 2, -37.0376, 0.65387, 20.548, -160.567, -92.6088, 54.7943
3.5995, 2, -37.0376, 0.65388, 20.5479, -160.567, -92.6089, 54.7943
3.60748, 2, -37.0375, 0.653881, 20.5479, -160.567, -92.6088, 54.7943
3.61541, 2, -37.0375, 0.653875, 20.5479, -160.567, -92.6089, 54.7943
3.62344, 2, -37.0375, 0.653872, 20.5479, -160.567, -92.6088, 54.7943
3.63148, 2, -37.0375, 0.65387, 20.5479, -160.567, -92.6088, 54.7943
3.63968, 2, -37.0375, 0.653869, 20.5479, -160.567, -92.6088, 54.7943
3.64841, 2, -37.0375, 0.653888, 20.5479, -160.567, -92.6088, 54.7943
3.65646, 2, -37.0375, 0.653896, 20.5479, -160.567, -92.6088, 54.7943
3.66449, 2, -37.0375, 0.653881, 20.5479, -160.567, -92.6088, 54.7943
3.67241, 2, -37.0375, 0.653893, 20.5479, -160.567, -92.6088, 54.7943
3.68039, 2, -37.0375, 0.653898, 20.5479, -160.567, -92.6088, 54.7943
3.68742, 2, -37.0375, 0.653893, 20.5479, -160.567, -92.6089, 54.7943
3.69542, 2, -37.0375, 0.653888, 20.5478, -160.567, -92.6088, 54.7943
3.70347, 4, -37.0375, 0.653877, 20.5478, -160.567, -92.6088, 54.7943
3.71143, 4, -37.0375, 0.653891, 20.5478, -160.567, -92.6089, 54.7943
3.71959, 4, -37.0374, 0.653897, 20.5478, -160.567, -92.6088, 54.7943
3.72749, 4, -37.0374, 0.653911, 20.5478, -160.567, -92.6088, 54.7943
3.73546, 4, -37.0374, 0.653896, 20.5478, -160.567, -92.6088, 54.7944
3.7435, 4, -37.0374, 0.653911, 20.5478, -160.567, -92.6088, 54.7944
3.75158, 4, -37.0374, 0.653925, 20.5478, -160.566, -92.6089, 54.7943
3.75957, 4, -37.0374, 0.653902, 20.5478, -160.567, -92.6088, 54.7943
3.76752, 4, -37.0374, 0.653902, 20.5478, -160.567, -92.6088, 54.7943
3.77558, 4, -37.0373, 0.653903, 20.5478, -160.567, -92.6088, 54.7944
3.78348, 4, -37.0373, 0.653914, 20.5478, -160.566, -92.6089, 54.7943
3.79156, 4, -37.0373, 0.653926, 20.5478, -160.566, -92.6089, 54.7943
3.79964, 4, -37.0373, 0.653932, 20.5477, -160.566, -92.6089, 54.7943
3.80777, 4, -37.0373, 0.653905, 20.5477, -160.566, -92.6089, 54.7944
3.83799, 4, -37.0372, 0.653923, 20.5477, -160.566, -92.6089, 54.7944
3.84174, 4, -37.0372, 0.653927, 20.5477, -160.566, -92.6089, 54.7944
3.84439, 4, -37.0372, 0.653927, 20.5477, -160.567, -92.6089, 54.7944
3.84564, 4, -37.0372, 0.653919, 20.5477, -160.567, -92.6089, 54.7944
3.84784, 4, -37.0372, 0.653903, 20.5477, -160.566, -92.6089, 54.7944
3.85582, 4, -37.0364, 0.653763, 20.5477, -160.566, -92.6089, 54.7944
3.86465, 4, -37.0338, 0.652805, 20.5479, -160.566, -92.6089, 54.7944
3.87328, 4, -37.028, 0.649963, 20.5487, -160.566, -92.6089, 54.7944
3.88005, 4, -37.0185, 0.644045, 20.5512, -160.566, -92.6089, 54.7944
3.88915, 4, -37.005, 0.634536, 20.5566, -160.565, -92.6089, 54.7944
3.89625, 4, -36.9869, 0.620829, 20.5663, -160.564, -92.609, 54.7943
3.90453, 5, -36.963, 0.602555, 20.5818, -160.561, -92.6088, 54.7944
3.9114, 5, -36.9491, 0.591776, 20.592, -160.559, -92.6087, 54.7944
3.92017, 5, -36.9175, 0.566756, 20.6173, -160.553, -92.6085, 54.7943
3.92745, 5, -36.8811, 0.537288, 20.6495, -160.546, -92.608, 54.7943
3.9354, 5, -36.8399, 0.503281, 20.6881, -160.538, -92.607, 54.7943
3.94358, 5, -36.7934, 0.464464, 20.7321, -160.528, -92.6057, 54.7942
3.95138, 5, -36.7418, 0.421384, 20.7807, -160.517, -92.6041, 54.7941
3.95952, 5, -36.6854, 0.374567, 20.8323, -160.505, -92.6024, 54.7941
3.96882, 5, -36.6251, 0.325031, 20.886, -160.487, -92.5997, 54.7941
3.97687, 5, -36.5277, 0.246947, 20.9687, -160.475, -92.5978, 54.794
3.98349, 5, -36.4942, 0.220316, 20.9965, -160.469, -92.5968, 54.794
3.99141, 5, -36.4264, 0.166683, 21.052, -160.457, -92.5949, 54.7941
3.99946, 5, -36.3578, 0.11279, 21.1077, -160.445, -92.593, 54.7942
4.00746, 5, -36.2891, 0.0587905, 21.1632, -160.433, -92.591, 54.7942
4.01929, 5, -36.1858, -0.0218802, 21.2465, -160.415, -92.5881, 54.7943
4.0234, 5, -36.1514, -0.0486958, 21.2742, -160.409, -92.5871, 54.7943
4.03297, 5, -36.0828, -0.102161, 21.3297, -160.396, -92.584, 54.7944
4.04592, 5, -35.98, -0.181842, 21.4404, -160.371, -92.5809, 54.7946
4.04744, 5, -35.9457, -0.208336, 21.4404, -160.371, -92.5809, 54.7946
4.05541, 5, -35.8771, -0.261174, 21.4956, -160.358, -92.5788, 54.7949
4.0646, 5, -35.8083, -0.313848, 21.5507, -160.345, -92.5767, 54.7953
4.07442, 5, -35.7048, -0.392884, 21.6332, -160.326, -92.5737, 54.7964
4.07946, 5, -35.6702, -0.419226, 21.6606, -160.32, -92.5726, 54.7969
4.09087, 5, -35.5658, -0.498375, 21.7425, -160.301, -92.5695, 54.7986
4.09555, 5, -35.5309, -0.524771, 21.7698, -160.295, -92.5684, 54.7992
4.1044, 5, -35.4608, -0.577609, 21.8241, -160.283, -92.5663, 54.8006
4.11148, 5, -35.3906, -0.630428, 21.8782, -160.27, -92.5642, 54.8022
4.11963, 5, -35.3202, -0.683153, 21.9322, -160.257, -92.5621, 54.8038
4.12837, 5, -35.2496, -0.735877, 21.9862, -160.244, -92.5599, 54.8056
4.13642, 5, -35.1791, -0.788316, 22.04, -160.23, -92.5577, 54.8076
4.14737, 5, -35.0732, -0.866684, 22.1206, -160.21, -92.5544, 54.8107
4.15144, 5, -35.0379, -0.892724, 22.1473, -160.204, -92.5533, 54.8118
4.15947, 5, -34.9673, -0.944508, 22.2009, -160.191, -92.5511, 54.8141
4.16782, 5, -34.8969, -0.996142, 22.2542, -160.178, -92.5489, 54.8165
4.17623, 5, -34.8264, -1.0476, 22.3075, -160.165, -92.5466, 54.8191
4.18343, 5, -34.7559, -1.099, 22.3606, -160.152, -92.5443, 54.8217
4.19221, 5, -34.6852, -1.15043, 22.4135, -160.139, -92.542, 54.8245
4.19946, 5, -34.6143, -1.20172, 22.4662, -160.126, -92.5398, 54.8274
4.20744, 5, -34.5433, -1.25307, 22.5187, -160.113, -92.5374, 54.8304
4.21755, 5, -34.4722, -1.30441, 22.5712, -160.1, -92.5352, 54.8335
4.22355, 5, -34.4007, -1.35577, 22.6234, -160.086, -92.5328, 54.8368
4.2334, 5, -34.3292, -1.4071, 22.6756, -160.072, -92.5304, 54.8402
4.23951, 5, -34.2575, -1.45831, 22.7275, -160.058, -92.5281, 54.8437
4.24749, 5, -34.1857, -1.50939, 22.7794, -160.045, -92.5257, 54.8472
4.25594, 5, -34.1137, -1.56022, 22.8311, -160.031, -92.5234, 54.8509
4.2635, 5, -34.0416, -1.61087, 22.8827, -160.018, -92.5211, 54.8547
4.27175, 5, -33.9695, -1.66125, 22.9342, -160.004, -92.5187, 54.8586
4.28046, 5, -33.8973, -1.71144, 22.9856, -159.991, -92.5163, 54.8626
4.2874, 5, -33.8252, -1.76149, 23.0368, -159.977, -92.5139, 54.8666
4.29583, 5, -33.753, -1.81142, 23.0879, -159.963, -92.5116, 54.8708
4.30343, 5, -33.6807, -1.8613, 23.1388, -159.949, -92.5092, 54.875
4.31226, 5, -33.6083, -1.91108, 23.1894, -159.935, -92.5069, 54.8794
4.31965, 5, -33.5357, -1.9611, 23.24, -159.92, -92.5046, 54.8837
4.32753, 5, -33.4629, -2.01142, 23.2905, -159.906, -92.5023, 54.8876
4.33648, 5, -33.39, -2.06201, 23.3409, -159.892, -92.5, 54.8907
4.34425, 5, -33.3174, -2.11301, 23.3912, -159.878, -92.4976, 54.8923
4.35202, 6, -33.2449, -2.16456, 23.4417, -159.864, -92.4952, 54.8925
4.36066, 6, -33.1729, -2.21697, 23.4924, -159.849, -92.4924, 54.8908
4.36788, 6, -33.1012, -2.27021, 23.5436, -159.834, -92.489, 54.8858
4.37603, 6, -33.03, -2.32446, 23.5956, -159.817, -92.4847, 54.8753
4.3848, 7, -32.9592, -2.37983, 23.6488, -159.799, -92.4789, 54.8611
4.39243, 7, -32.889, -2.43641, 23.7031, -159.779, -92.4714, 54.8443
4.40162, 7, -32.8193, -2.49452, 23.759, -159.759, -92.462, 54.8265
4.40795, 7, -32.7847, -2.52415, 23.7875, -159.748, -92.4504, 54.809
4.4154, 7, -32.716, -2.58461, 23.8455, -159.726, -92.4439, 54.8004
4.42345, 8, -32.6479, -2.64664, 23.9049, -159.702, -92.4294, 54.7835
4.4314, 8, -32.5806, -2.71046, 23.9656, -159.677, -92.4129, 54.7668
4.44275, 8, -32.4809, -2.80942, 24.0587, -159.637, -92.3846, 54.74
4.44751, 8, -32.448, -2.84319, 24.0903, -159.623, -92.3743, 54.7306
4.45536, 8, -32.3828, -2.91187, 24.1542, -159.596, -92.3529, 54.7105
4.46546, 9, -32.2861, -3.01738, 24.2518, -159.552, -92.3188, 54.6769
4.4716, 9, -32.2542, -3.05322, 24.2848, -159.537, -92.3068, 54.6648
4.47936, 9, -32.1907, -3.12593, 24.3517, -159.506, -92.282, 54.6395
4.48741, 9, -32.1277, -3.19986, 24.4195, -159.474, -92.2553, 54.6129
4.49539, 9, -32.0654, -3.27512, 24.4883, -159.441, -92.2267, 54.5851
4.50496, 10, -31.9729, -3.39047, 24.5935, -159.39, -92.1819, 54.5404
4.51143, 10, -31.9424, -3.42964, 24.6291, -159.373, -92.1664, 54.5245
4.52127, 10, -31.8516, -3.54922, 24.7374, -159.318, -92.1176, 54.4738
4.52822, 10, -31.8217, -3.58976, 24.7741, -159.3, -92.1004, 54.456
4.5372, 10, -31.7622, -3.67197, 24.8481, -159.263, -92.0467, 54.4015
4.54344, 11, -31.7032, -3.75561, 24.9232, -159.224, -92.0285, 54.3826
4.55241, 11, -31.6448, -3.84079, 24.9992, -159.185, -91.9911, 54.3436
4.55939, 11, -31.5869, -3.9274, 25.0761, -159.145, -91.9516, 54.3024
4.56965, 11, -31.5011, -4.06007, 25.1932, -159.082, -91.8899, 54.2381
4.58214, 11, -31.4446, -4.19611, 25.3128, -159.018, -91.8256, 54.1711
4.58362, 12, -31.4165, -4.19611, 25.3128, -159.018, -91.8256, 54.1711
4.59142, 12, -31.3606, -4.28856, 25.3938, -158.974, -91.7802, 54.1238
4.59958, 12, -31.3053, -4.38241, 25.476, -158.928, -91.7343, 54.0749
4.60738, 12, -31.2505, -4.47756, 25.5591, -158.882, -91.6871, 54.025
4.61545, 12, -31.1962, -4.5741, 25.6433, -158.836, -91.6377, 53.9735
4.62335, 13, -31.1425, -4.67207, 25.7284, -158.787, -91.5877, 53.9198
4.6314, 13, -31.0892, -4.77147, 25.8144, -158.738, -91.5362, 53.8652
4.63948, 13, -31.0365, -4.87227, 25.9014, -158.689, -91.4826, 53.8096
4.6476, 13, -30.9843, -4.97465, 25.9896, -158.638, -91.4286, 53.7517
4.65725, 13, -30.9326, -5.07847, 26.0788, -158.587, -91.3729, 53.6926
4.66435, 14, -30.8814, -5.18369, 26.1691, -158.535, -91.3156, 53.6326
4.67239, 14, -30.8309, -5.29041, 26.2604, -158.481, -91.2579, 53.5704
4.67938, 14, -30.7809, -5.3986, 26.3527, -158.427, -91.1976, 53.507
4.68738, 14, -30.7314, -5.50827, 26.4458, -158.372, -91.1372, 53.4429
4.69579, 14, -30.6824, -5.61951, 26.54, -158.315, -91.0745, 53.3763
4.70434, 14, -30.6339, -5.73222, 26.6352, -158.259, -91.0107, 53.3086
4.71141, 15, -30.5859, -5.84631, 26.7316, -158.201, -90.9457, 53.24
4.72162, 15, -30.5384, -5.96157, 26.8291, -158.142, -90.8788, 53.169
4.72757, 15, -30.4915, -6.07828, 26.9277, -158.082, -90.8115, 53.0974
4.74047, 15, -30.4219, -6.2561, 27.0773, -157.991, -90.707, 52.986
4.7435, 15, -30.399, -6.31603, 27.1276, -157.96, -90.6718, 52.9483
4.75149, 16, -30.3536, -6.43714, 27.2288, -157.897, -90.5995, 52.8721
4.75954, 16, -30.3087, -6.55978, 27.3314, -157.834, -90.5267, 52.7934
4.76752, 16, -30.2642, -6.68371, 27.435, -157.77, -90.4521, 52.7143
4.77658, 16, -30.2202, -6.8092, 27.5398, -157.705, -90.3765, 52.6332
4.78349, 16, -30.1768, -6.93623, 27.6456, -157.639, -90.2991, 52.551
4.7915, 17, -30.1337, -7.06486, 27.7522, -157.572, -90.2209, 52.4676
4.79945, 17, -30.0912, -7.19504, 27.8596, -157.504, -90.1411, 52.3827
4.80742, 17, -30.0492, -7.3267, 27.968, -157.435, -90.0598, 52.297
4.8155, 17, -30.0077, -7.45957, 28.0776, -157.366, -89.9776, 52.2091
4.824, 17, -29.9668, -7.59382, 28.1885, -157.295, -89.8938, 52.1207
4.83158, 18, -29.9263, -7.72959, 28.3004, -157.224, -89.8088, 52.0303
4.8397, 18, -29.8864, -7.86679, 28.4133, -157.151, -89.7223, 51.9392
4.84815, 18, -29.8469, -8.00531, 28.5268, -157.078, -89.6351, 51.8459
4.85673, 18, -29.8077, -8.14501, 28.6414, -157.004, -89.5463, 51.752
4.86383, 18, -29.7691, -8.28609, 28.7573, -156.929, -89.4561, 51.6562
4.87194, 19, -29.731, -8.42851, 28.8743, -156.853, -89.3651, 51.5598
4.88053, 19, -29.6934, -8.57263, 28.9924, -156.776, -89.2726, 51.4616
4.88798, 19, -29.6561, -8.71824, 29.1113, -156.698, -89.1786, 51.3628
4.89682, 19, -29.6194, -8.86508, 29.231, -156.62, -89.0839, 51.2626
4.90481, 19, -29.5832, -9.01323, 29.3515, -156.54, -88.9879, 51.1616
4.91197, 20, -29.5653, -9.08789, 29.4122, -156.5, -88.8907, 51.0591
4.92271, 20, -29.5122, -9.31405, 29.5962, -156.379, -88.7928, 50.9554
4.92882, 20, -29.4773, -9.4667, 29.7201, -156.296, -88.6936, 50.8507
4.93837, 20, -29.4429, -9.62042, 29.8448, -156.213, -88.5932, 50.7444
4.94343, 20, -29.4259, -9.69774, 29.9074, -156.172, -88.5427, 50.6911
4.95157, 21, -29.3923, -9.85328, 30.0335, -156.087, -88.4408, 50.5833
4.95937, 21, -29.359, -10.0104, 30.1606, -156.002, -88.3376, 50.4745
4.96743, 21, -29.3261, -10.169, 30.2888, -155.916, -88.2335, 50.3645
4.97543, 21, -29.2938, -10.3287, 30.418, -155.829, -88.1284, 50.2537
4.98335, 21, -29.2618, -10.4894, 30.548, -155.741, -88.022, 50.1422
4.99167, 22, -29.2302, -10.6512, 30.6789, -155.653, -87.915, 50.0296
4.99962, 22, -29.199, -10.8146, 30.8107, -155.563, -87.8068, 49.9163
5.00914, 22, -29.1529, -11.0619, 31.0102, -155.427, -87.6426, 49.7445
5.01537, 22, -29.1378, -11.1448, 31.0772, -155.381, -87.5874, 49.6867
5.02482, 22, -29.1078, -11.3113, 31.2117, -155.289, -87.476, 49.5123
5.03298, 22, -29.0781, -11.4793, 31.3473, -155.196, -87.364, 49.3951
5.03937, 23, -29.0489, -11.649, 31.4837, -155.102, -87.251, 49.3362
5.05024, 23, -29.0056, -11.9055, 31.6897, -154.96, -87.0796, 49.1584
5.05558, 23, -28.9914, -11.9914, 31.7588, -154.912, -87.0222, 49.0988
5.06637, 23, -28.9493, -12.251, 31.9674, -154.767, -86.8482, 48.9193
5.07137, 23, -28.9355, -12.3383, 32.0374, -154.718, -86.7897, 48.8591
5.07942, 24, -28.9081, -12.5138, 32.1781, -154.62, -86.6721, 48.7386
5.08739, 24, -28.881, -12.6898, 32.3195, -154.521, -86.5535, 48.6175
5.0954, 24, -28.8542, -12.8664, 32.4615, -154.421, -86.4343, 48.4955
5.10361, 24, -28.8279, -13.0445, 32.6043, -154.32, -86.314, 48.3731
5.11241, 24, -28.8018, -13.2241, 32.7483, -154.219, -86.1931, 48.2501
5.12047, 25, -28.7761, -13.4044, 32.893, -154.116, -86.0716, 48.1268
5.12852, 25, -28.7507, -13.5852, 33.0382, -154.013, -85.949, 48.0033
5.13542, 25, -28.7254, -13.7674, 33.184, -153.909, -85.8263, 47.88
5.14338, 25, -28.7004, -13.951, 33.3305, -153.805, -85.7023, 47.7562
5.15138, 25, -28.6756, -14.1352, 33.478, -153.699, -85.578, 47.6323
5.15946, 26, -28.6512, -14.3198, 33.6262, -153.593, -85.4529, 47.5085
5.16738, 26, -28.627, -14.5056, 33.7747, -153.486, -85.3273, 47.3841
5.17638, 26, -28.6032, -14.6929, 33.9239, -153.378, -85.2013, 47.2597
5.18339, 26, -28.5795, -14.8807, 34.0741, -153.27, -85.0743, 47.1354
5.1914, 26, -28.5558, -15.0687, 34.2249, -153.16, -84.9471, 47.0112
5.20041, 27, -28.5325, -15.2574, 34.376, -153.05, -84.8192, 46.8873
5.20919, 27, -28.5095, -15.4471, 34.5275, -152.94, -84.691, 46.764
5.21636, 27, -28.4866, -15.6373, 34.6799, -152.828, -84.562, 46.6406
5.2268, 27, -28.4527, -15.9232, 34.9098, -152.66, -84.368, 46.4562
5.23158, 27, -28.4415, -16.0192, 34.9865, -152.604, -84.3031, 46.3949
5.23936, 28, -28.4192, -16.2122, 35.1401, -152.49, -84.173, 46.2724
5.24771, 28, -28.3969, -16.4058, 35.2943, -152.376, -84.0425, 46.1504
5.25562, 28, -28.3746, -16.5997, 35.4492, -152.261, -83.9116, 46.029
5.26439, 28, -28.3526, -16.7947, 35.6046, -152.146, -83.7806, 45.9082
5.27148, 28, -28.3306, -16.9904, 35.7601, -152.03, -83.649, 45.7881
5.27967, 29, -28.3085, -17.1862, 35.916, -151.913, -83.5174, 45.669
5.28802, 29, -28.2867, -17.3821, 36.0725, -151.796, -83.3854, 45.5508
5.29643, 29, -28.2649, -17.5789, 36.2295, -151.678, -83.253, 45.4334
5.30443, 29, -28.2431, -17.7763, 36.3865, -151.559, -83.1203, 45.3171
5.31356, 29, -28.2214, -17.9736, 36.5436, -151.44, -82.9875, 45.2015
5.31947, 29, -28.2, -18.1713, 36.7015, -151.32, -82.8543, 45.0872
5.32839, 30, -28.1787, -18.37, 36.8599, -151.2, -82.7211, 44.9737
5.33553, 30, -28.1573, -18.5691, 37.0184, -151.078, -82.5878, 44.8615
5.34449, 30, -28.136, -18.7682, 37.1768, -150.956, -82.454, 44.7506
5.35201, 30, -28.1148, -18.9681, 37.3356, -150.834, -82.3203, 44.6409
5.36085, 30, -28.0934, -19.1691, 37.4951, -150.711, -82.186, 44.5331
5.36863, 31, -28.0719, -19.3703, 37.6548, -150.587, -82.052, 44.4263
5.37692, 31, -28.0507, -19.5713, 37.8141, -150.463, -81.9175, 44.3214
5.3839, 31, -28.0295, -19.7727, 37.9738, -150.338, -81.7833, 44.2182
5.39248, 31, -28.0081, -19.9742, 38.1342, -150.212, -81.6489, 44.1164
5.39994, 31, -27.9866, -20.1753, 38.2944, -150.086, -81.5145, 44.0167
5.40959, 32, -27.9649, -20.3762, 38.4542, -149.96, -81.3802, 43.9186
5.41599, 32, -27.954, -20.477, 38.534, -149.897, -81.313, 43.8231
5.42665, 32, -27.9206, -20.7795, 38.7739, -149.706, -81.1121, 43.7295
5.43223, 32, -27.9094, -20.8801, 38.854, -149.642, -81.045, 43.639
5.44021, 32, -27.8868, -21.081, 39.0136, -149.515, -80.9114, 43.551
5.44738, 33, -27.8639, -21.282, 39.1725, -149.388, -80.7782, 43.5081
5.45687, 33, -27.829, -21.5828, 39.4108, -149.196, -80.5793, 43.3844
5.46336, 33, -27.8171, -21.6826, 39.4902, -149.132, -80.5131, 43.3445
5.47136, 33, -27.793, -21.8817, 39.6485, -149.005, -80.3812, 43.2676
5.47952, 33, -27.7683, -22.0809, 39.8058, -148.877, -80.2497, 43.1935
5.48733, 34, -27.7432, -22.2795, 39.9627, -148.75, -80.1185, 43.123
5.49697, 34, -27.7047, -22.5755, 40.1977, -148.558, -79.9224, 43.0235
5.50548, 34, -27.6784, -22.7724, 40.3536, -148.43, -79.7918, 42.9607
5.51423, 34, -27.6518, -22.9691, 40.5088, -148.303, -79.6611, 42.9018
5.51936, 34, -27.6382, -23.0672, 40.5863, -148.239, -79.5957, 42.8735
5.52739, 35, -27.6107, -23.2627, 40.7415, -148.111, -79.4651, 42.8188
5.53708, 35, -27.5831, -23.5563, 40.9739, -147.918, -79.269, 42.7436
5.54336, 35, -27.5553, -23.6543, 41.051, -147.853, -79.2039, 42.7203
5.55388, 35, -27.513, -23.947, 41.2821, -147.659, -79.0086, 42.6554
5.55962, 35, -27.4988, -24.0444, 41.3592, -147.594, -78.9436, 42.6352
5.56733, 36, -27.47, -24.2392, 41.5133, -147.464, -78.8138, 42.5977
5.57536, 36, -27.4409, -24.4338, 41.6669, -147.333, -78.6839, 42.5645
5.58352, 36, -27.4115, -24.6275, 41.8197, -147.203, -78.5549, 42.5354
5.59141, 36, -27.3816, -24.8206, 41.9723, -147.072, -78.4258, 42.5108
5.59938, 36, -27.3511, -25.0138, 42.1245, -146.941, -78.2974, 42.4904
5.60757, 37, -27.3199, -25.2063, 42.2758, -146.81, -78.1695, 42.4743
5.61542, 37, -27.2878, -25.3976, 42.426, -146.68, -78.0419, 42.463
5.62337, 37, -27.2549, -25.5879, 42.5753, -146.55, -77.9149, 42.4565
5.63156, 37, -27.2212, -25.7777, 42.7238, -146.42, -77.7882, 42.4537
5.63937, 37, -27.1868, -25.9664, 42.8712, -146.291, -77.6622, 42.4539
5.64736, 37, -27.1513, -26.1532, 43.0174, -146.163, -77.5364, 42.46
5.65542, 38, -27.1151, -26.3387, 43.1623, -146.036, -77.4113, 42.4723
5.66337, 38, -27.0781, -26.5239, 43.3065, -145.908, -77.2867, 42.4897
5.67135, 38, -27.0403, -26.7078, 43.45, -145.781, -77.1625, 42.5127
5.67978, 38, -27.0017, -26.89, 43.5925, -145.654, -77.0388, 42.541
5.69063, 39, -26.9423, -27.1621, 43.8046, -145.464, -76.8541, 42.5948
5.69634, 39, -26.9222, -27.2527, 43.8748, -145.401, -76.7927, 42.6158
5.70562, 39, -26.8813, -27.4328, 44.0146, -145.275, -76.6699, 42.6622
5.7116, 39, -26.8395, -27.6116, 44.1535, -145.149, -76.5475, 42.714
5.71938, 39, -26.7968, -27.7895, 44.2915, -145.023, -76.4252, 42.7718
5.72742, 39, -26.7534, -27.9672, 44.4282, -144.897, -76.3029, 42.8365
5.73536, 40, -26.7089, -28.1439, 44.5637, -144.773, -76.1808, 42.9065
5.74341, 40, -26.6634, -28.3187, 44.6983, -144.648, -76.0589, 42.9836
5.75149, 40, -26.617, -28.4923, 44.8317, -144.525, -75.9375, 43.0669
5.75946, 40, -26.5697, -28.6649, 44.9638, -144.402, -75.8162, 43.1562
5.76751, 40, -26.5213, -28.8362, 45.0945, -144.28, -75.6957, 43.2529
5.77547, 41, -26.4719, -29.0056, 45.224, -144.159, -75.5755, 43.3558
5.78368, 41, -26.4213, -29.1733, 45.3522, -144.038, -75.4555, 43.4657
5.79237, 41, -26.3696, -29.34, 45.4791, -143.918, -75.3363, 43.5821
5.79997, 41, -26.3165, -29.5054, 45.6045, -143.8, -75.2171, 43.7058
5.81255, 41, -26.2347, -29.7497, 45.7895, -143.624, -75.0399, 43.9048
5.81545, 42, -26.2066, -29.8301, 45.8503, -143.566, -74.9808, 43.9748
5.82424, 42, -26.1494, -29.9898, 45.9703, -143.451, -74.8633, 44.1204
5.83154, 42, -26.0906, -30.1476, 46.0882, -143.338, -74.7466, 44.2729
5.84031, 42, -26.03, -30.3032, 46.2039, -143.227, -74.6299, 44.4326
5.84766, 42, -25.9679, -30.4563, 46.3175, -143.118, -74.5142, 44.5993
5.85614, 43, -25.904, -30.6071, 46.4288, -143.011, -74.3989, 44.7734
5.86482, 43, -25.8384, -30.7557, 46.538, -142.906, -74.2839, 44.9553
5.87197, 43, -25.7711, -30.9022, 46.645, -142.802, -74.1696, 45.1447
5.88085, 43, -25.7022, -31.0462, 46.7501, -142.7, -74.0553, 45.3418
5.8889, 43, -25.6318, -31.188, 46.8533, -142.601, -73.9417, 45.5466
5.89594, 43, -25.5598, -31.3277, 46.9547, -142.503, -73.8288, 45.7591
5.90479, 44, -25.4861, -31.4654, 47.0539, -142.407, -73.7162, 45.9795
5.91201, 44, -25.4486, -31.601, 47.1506, -142.313, -73.6044, 46.2083
5.92071, 44, -25.3722, -31.668, 47.198, -142.267, -73.5488, 46.3256
5.92976, 44, -25.2544, -31.8647, 47.3368, -142.133, -73.3826, 46.6899
5.94039, 44, -25.1735, -31.9926, 47.4263, -142.005, -73.218, 47.0726
5.94531, 45, -25.0908, -32.1177, 47.5134, -141.964, -73.1633, 47.2045
5.95136, 45, -25.0487, -32.1793, 47.556, -141.923, -73.1089, 47.3385
5.96308, 45, -24.919, -32.3595, 47.6795, -141.805, -72.9461, 47.7526
5.96735, 45, -24.8747, -32.4181, 47.7192, -141.767, -72.892, 47.8948
5.97674, 45, -24.7382, -32.5889, 47.8336, -141.659, -72.7307, 48.3341
5.98334, 46, -24.6916, -32.6441, 47.8703, -141.624, -72.6772, 48.485
5.99276, 46, -24.5479, -32.8047, 47.9761, -141.525, -72.5176, 48.9501
5.99941, 46, -24.4988, -32.8566, 48.0098, -141.494, -72.4647, 49.1094
6.00749, 46, -24.399, -32.9575, 48.0749, -141.435, -72.3597, 49.4345
6.0154, 46, -24.2969, -33.0546, 48.1366, -141.379, -72.2556, 49.7683
6.02493, 47, -24.1393, -33.1932, 48.2226, -141.304, -72.1017, 50.284
6.03135, 47, -24.0856, -33.2374, 48.2495, -141.28, -72.0509, 50.4602
6.04095, 47, -23.9761, -33.3228, 48.3004, -141.216, -71.9004, 51.0014
6.04895, 47, -23.864, -33.404, 48.3476, -141.198, -71.8508, 51.3725
6.05729, 47, -23.7492, -33.4812, 48.3909, -141.164, -71.7039, 51.7524
6.0636, 48, -23.6315, -33.5541, 48.4302, -141.135, -71.6558, 51.9453
6.07135, 48, -23.5111, -33.6226, 48.4653, -141.109, -71.5609, 52.3374
6.08026, 48, -23.3883, -33.6864, 48.4962, -141.089, -71.4675, 52.7385
6.08834, 48, -23.263, -33.7454, 48.5231, -141.074, -71.3759, 53.1488
6.09539, 48, -23.1351, -33.7994, 48.5456, -141.064, -71.2866, 53.5673
6.10437, 49, -23.0043, -33.8483, 48.5637, -141.059, -71.1991, 53.9946
6.11152, 49, -22.8706, -33.8919, 48.5775, -141.058, -71.1133, 54.4294
6.12034, 49, -22.7338, -33.9301, 48.5865, -141.063, -71.03, 54.872
6.13095, 49, -22.5234, -33.9767, 48.5914, -141.082, -70.9086, 55.5503
6.13548, 49, -22.4518, -33.9894, 48.5908, -141.091, -70.8693, 55.7803
6.1433, 50, -22.3066, -34.0102, 48.5857, -141.115, -70.7924, 56.2462
6.15143, 50, -22.1587, -34.0248, 48.5756, -141.145, -70.7186, 56.7189
6.15934, 50, -22.0081, -34.0332, 48.5603, -141.18, -70.6473, 57.1999
6.16742, 50, -21.8547, -34.0355, 48.5399, -141.221, -70.5796, 57.689
6.17534, 50, -21.6982, -34.0319, 48.5139, -141.269, -70.5145, 58.1854
6.18354, 51, -21.5385, -34.0214, 48.4824, -141.323, -70.4539, 58.6889
6.19185, 51, -21.376, -34.0042, 48.4456, -141.384, -70.3959, 59.1984
6.19934, 51, -21.2108, -33.9801, 48.4032, -141.45, -70.3421, 59.7143
6.20756, 51, -21.0431, -33.9488, 48.3552, -141.523, -70.2921, 60.2362
6.21639, 51, -20.8728, -33.9104, 48.3016, -141.602, -70.2454, 60.764
6.2234, 51, -20.7001, -33.8645, 48.2422, -141.688, -70.2031, 61.297
6.23605, 52, -20.4358, -33.781, 48.1419, -141.828, -70.1489, 62.1091
6.23952, 52, -20.3463, -33.7492, 48.1055, -141.878, -70.133, 62.3831
6.24756, 52, -20.1651, -33.6795, 48.028, -141.982, -70.1044, 62.936
6.25543, 52, -19.9813, -33.6016, 47.9443, -142.093, -70.081, 63.4946
6.26349, 52, -19.7949, -33.5152, 47.8543, -142.211, -70.063, 64.0595
6.27146, 53, -19.6065, -33.4203, 47.7582, -142.334, -70.0506, 64.6301
6.27945, 53, -19.4162, -33.3171, 47.6561, -142.464, -70.0436, 65.2055
6.28769, 53, -19.2239, -33.2059, 47.5481, -142.599, -70.0415, 65.7843
6.29643, 53, -19.0298, -33.0865, 47.4342, -142.74, -70.0444, 66.3668
6.30334, 53, -18.834, -32.9586, 47.3143, -142.886, -70.0536, 66.9521
6.31167, 54, -18.6365, -32.8226, 47.1887, -143.036, -70.0689, 67.5388
6.32437, 54, -18.3366, -32.603, 46.9895, -143.27, -70.1046, 68.4206
6.32769, 54, -18.2356, -32.5257, 46.9204, -143.351, -70.1198, 68.7151
6.33684, 54, -18.0327, -32.3649, 46.7779, -143.515, -70.1548, 69.3057
6.34389, 54, -17.8287, -32.1952, 46.6295, -143.683, -70.1959, 69.8976
6.35233, 55, -17.6238, -32.0161, 46.4747, -143.856, -70.2455, 70.4923
6.35975, 55, -17.4177, -31.8279, 46.3136, -144.034, -70.3025, 71.0913
6.36837, 55, -17.21, -31.6304, 46.1459, -144.217, -70.3674, 71.6949
6.37597, 55, -17.0005, -31.4226, 45.9705, -144.405, -70.4416, 72.3027
6.38389, 55, -16.7894, -31.2038, 45.7875, -144.598, -70.5242, 72.9157
6.39266, 56, -16.5765, -30.9747, 45.5979, -144.796, -70.6166, 73.5337
6.39997, 56, -16.3622, -30.7351, 45.4012, -144.998, -70.7175, 74.1552
6.4079, 56, -16.1471, -30.4842, 45.1964, -145.205, -70.8281, 74.7797
6.41925, 56, -15.9319, -30.223, 44.985, -145.415, -70.9481, 75.4076
6.42433, 56, -15.7168, -29.951, 44.7678, -145.629, -71.0772, 76.0377
6.43135, 57, -15.609, -29.8108, 44.6565, -145.737, -71.1455, 76.353
6.44046, 57, -15.2839, -29.3754, 44.3122, -146.065, -71.3644, 77.3006
6.44734, 57, -15.1749, -29.2251, 44.1945, -146.175, -71.4424, 77.6171
6.45719, 57, -14.8474, -28.7599, 43.8317, -146.509, -71.6904, 78.566
6.46486, 57, -14.6296, -28.4392, 43.5835, -146.733, -71.8675, 79.1961
6.47128, 58, -14.521, -28.2759, 43.4578, -146.846, -71.9592, 79.5105
6.47933, 58, -14.3043, -27.9439, 43.2029, -147.069, -72.1485, 80.1364
6.48734, 58, -14.0891, -27.6039, 42.9446, -147.292, -72.3452, 80.7567
6.49531, 58, -13.8754, -27.257, 42.6837, -147.513, -72.5491, 81.3697
6.50339, 58, -13.6632, -26.9032, 42.4194, -147.732, -72.7597, 81.9765
6.51327, 59, -13.3473, -26.3605, 42.018, -148.056, -73.0883, 82.8749
6.51938, 59, -13.2428, -26.1759, 41.8823, -148.163, -73.2015, 83.1712
6.5289, 59, -12.9321, -25.6125, 41.4702, -148.482, -73.5527, 84.0536
6.53795, 59, -12.7267, -25.2283, 41.1904, -148.692, -73.7972, 84.6375
6.54419, 59, -12.6244, -25.0337, 41.049, -148.797, -73.9227, 84.9283
6.55292, 59, -12.4204, -24.6382, 40.7633, -149.005, -74.1807, 85.795
6.55933, 60, -12.2174, -24.2351, 40.4726, -149.211, -74.4476, 86.0825
6.56742, 60, -12.0158, -23.8246, 40.1784, -149.416, -74.7236, 86.6552
6.57533, 60, -11.8156, -23.4077, 39.8804, -149.619, -75.0083, 87.2248
6.58647, 60, -11.5185, -22.771, 39.4296, -149.918, -75.4508, 88.0694
6.59155, 60, -11.4206, -22.5562, 39.2782, -150.016, -75.6018, 88.3483
6.5993, 61, -11.2267, -22.1238, 38.9747, -150.209, -75.9085, 88.9013
6.60736, 61, -11.0351, -21.6874, 38.6705, -150.397, -76.2203, 89.446
6.61547, 61, -10.8458, -21.2478, 38.366, -150.581, -76.5363, 89.9809
6.62432, 61, -10.6588, -20.8049, 38.062, -150.759, -76.8565, 90.5063
6.63239, 61, -10.4741, -20.3584, 37.7579, -150.932, -77.1802, 91.022
6.63934, 62, -10.2919, -19.9088, 37.4545, -151.1, -77.5081, 91.5287
6.6474, 62, -10.1127, -19.4561, 37.1505, -151.263, -77.8405, 92.0268
6.65532, 62, -9.9362, -19.0014, 36.8464, -151.421, -78.1777, 92.5167
6.66356, 62, -9.76232, -18.5441, 36.541, -151.575, -78.5204, 93
6.67239, 62, -9.59091, -18.0849, 36.2355, -151.724, -78.8684, 93.4757
6.68032, 63, -9.4216, -17.6239, 35.9296, -151.869, -79.221, 93.9438
6.68833, 63, -9.25445, -17.1612, 35.6246, -152.009, -79.578, 94.4024
6.69533, 63, -9.08955, -16.6969, 35.3207, -152.144, -79.9384, 94.8517
6.70332, 63, -8.92721, -16.2307, 35.0177, -152.273, -80.3017, 95.2912
6.71178, 63, -8.76746, -15.7625, 34.7164, -152.397, -80.6674, 95.7198
6.72031, 63, -8.61034, -15.2925, 34.4166, -152.515, -81.0356, 96.1384
6.72748, 64, -8.45574, -14.8215, 34.1191, -152.628, -81.4062, 96.5461
6.73723, 64, -8.3036, -14.3495, 33.8222, -152.736, -81.7795, 96.943
6.74433, 64, -8.15383, -13.8772, 33.5266, -152.839, -82.1561, 97.3303
6.75138, 64, -8.0065, -13.405, 33.2316, -152.937, -82.5357, 97.7064
6.75943, 64, -7.86161, -12.9336, 32.9385, -153.029, -82.9179, 98.0712
6.76847, 65, -7.71934, -12.4637, 32.6474, -153.116, -83.3019, 98.4243
6.77712, 65, -7.57983, -11.995, 32.3592, -153.197, -83.6872, 98.7643
6.78433, 65, -7.44341, -11.5276, 32.0748, -153.272, -84.0729, 99.0907
6.79167, 65, -7.30981, -11.0611, 31.7935, -153.342, -84.4585, 99.4033
6.80059, 66, -7.17918, -10.5963, 31.5165, -153.405, -84.8438, 99.7015
6.8081, 66, -7.051, -10.1344, 31.2428, -153.463, -85.2281, 99.9846
6.81634, 66, -6.92486, -9.67602, 30.973, -153.515, -85.6118, 100.252
6.82343, 66, -6.80085, -9.22272, 30.7074, -153.561, -85.9944, 100.504
6.83146, 66, -6.67913, -8.77565, 30.4455, -153.603, -86.3747, 100.739
6.84026, 66, -6.55966, -8.33472, 30.1889, -153.638, -86.7521, 100.958
6.85042, 67, -6.44288, -7.90036, 29.9376, -153.667, -87.1252, 101.159
6.85573, 67, -6.3292, -7.47222, 29.6928, -153.691, -87.4933, 101.342
6.86569, 67, -6.21837, -7.0503, 29.4557, -153.709, -87.8557, 101.507
6.8718, 67, -6.11009, -6.63432, 29.2249, -153.721, -88.2123, 101.655
6.87985, 67, -6.0043, -6.22474, 29.0005, -153.728, -88.5635, 101.785
6.88846, 68, -5.90064, -5.82167, 28.7824, -153.731, -88.9103, 101.899
6.8963, 68, -5.79869, -5.42425, 28.5686, -153.729, -89.254, 101.994
6.9045, 68, -5.6985, -5.03259, 28.3585, -153.723, -89.5956, 102.073
6.91189, 68, -5.64901, -4.64611, 28.152, -153.712, -89.9363, 102.133
6.9286, 69, -5.40774, -3.88668, 27.7477, -153.678, -90.616, 102.199
6.93067, 69, -5.40774, -3.88668, 27.7477, -153.678, -90.616, 102.199
6.93526, 69, -5.36079, -3.69904, 27.649, -153.666, -90.7858, 102.205
6.94444, 69, -5.22245, -3.14135, 27.3589, -153.625, -91.2942, 102.193
6.95133, 69, -5.17726, -2.95736, 27.2637, -153.609, -91.4633, 102.178
6.96048, 69, -5.04417, -2.41009, 26.9836, -153.556, -91.969, 102.102
6.96746, 70, -5.00057, -2.22933, 26.8924, -153.536, -92.1369, 102.066
6.97547, 70, -4.91433, -1.87098, 26.7127, -153.494, -92.4717, 101.977
6.98338, 70, -4.82923, -1.51721, 26.5362, -153.448, -92.8049, 101.865
6.99136, 70, -4.7452, -1.16909, 26.3638, -153.399, -93.1361, 101.732
6.99935, 70, -4.66226, -0.826063, 26.1962, -153.347, -93.4651, 101.576
7.00892, 71, -4.53986, -0.323696, 25.9517, -153.262, -93.953, 101.303
7.01789, 71, -4.45961, 0.00310231, 25.7943, -153.203, -94.2744, 101.094
7.02485, 71, -4.41984, 0.163771, 25.7177, -153.14, -94.5919, 100.865
7.03368, 71, -4.30182, 0.636694, 25.4959, -153.076, -94.9054, 100.615
7.04176, 71, -4.22417, 0.943698, 25.3539, -153.009, -95.215, 100.346
7.05141, 72, -4.14736, 1.24403, 25.2165, -152.942, -95.521, 100.057
7.05527, 72, -4.10904, 1.39172, 25.1494, -152.907, -95.6727, 99.9043
7.06434, 72, -4.0326, 1.68153, 25.0182, -152.836, -95.9735, 99.5849
7.07236, 72, -3.95652, 1.96502, 24.8903, -152.764, -96.2719, 99.2446
7.07932, 72, -3.88049, 2.24267, 24.7657, -152.692, -96.5675, 98.8839
7.08737, 72, -3.80451, 2.51378, 24.6441, -152.619, -96.8609, 98.5017
7.09542, 73, -3.72871, 2.77915, 24.5256, -152.545, -97.1517, 98.0975
7.10567, 73, -3.61448, 3.16547, 24.3542, -152.434, -97.5831, 97.4495
7.1114, 73, -3.57626, 3.29097, 24.2989, -152.398, -97.7255, 97.2224
7.11954, 73, -3.49958, 3.53732, 24.1912, -152.325, -98.0079, 96.7527
7.12841, 73, -3.4225, 3.77663, 24.0874, -152.253, -98.2867, 96.2623
7.13531, 74, -3.34478, 4.00762, 23.9877, -152.182, -98.5614, 95.7527
7.14332, 74, -3.26646, 4.23047, 23.8919, -152.113, -98.8308, 95.226
7.15137, 74, -3.18748, 4.44488, 23.8001, -152.045, -99.0946, 94.6845
7.15932, 74, -3.1078, 4.64964, 23.7126, -151.979, -99.3519, 94.1308
7.16746, 74, -3.02745, 4.84484, 23.6293, -151.916, -99.6021, 93.565
7.17919, 75, -2.9052, 5.12004, 23.5124, -151.825, -99.9623, 92.6979
7.18438, 75, -2.86395, 5.20663, 23.4754, -151.797, -100.078, 92.4048
7.19523, 75, -2.73879, 5.44991, 23.3701, -151.715, -100.413, 91.5135
7.19955, 75, -2.69661, 5.52571, 23.3369, -151.689, -100.519, 91.2125
7.20842, 75, -2.61157, 5.66929, 23.2735, -151.641, -100.726, 90.6047
7.21533, 76, -2.52556, 5.80167, 23.2142, -151.595, -100.924, 89.9897
7.22338, 76, -2.43855, 5.92262, 23.1592, -151.554, -101.112, 89.3661
7.23211, 76, -2.35075, 6.03187, 23.1087, -151.517, -101.292, 88.733
7.24036, 76, -2.26215, 6.12893, 23.0625, -151.483, -101.461, 88.0925
7.24755, 76, -2.17277, 6.21339, 23.0211, -151.453, -101.62, 87.4458
7.25635, 77, -2.08253, 6.28483, 22.9847, -151.427, -101.768, 86.7938
7.26367, 77, -1.99137, 6.34304, 22.9537, -151.405, -101.903, 86.1406
7.27141, 77, -1.89929, 6.38773, 22.9284, -151.388, -102.025, 85.4892
7.27968, 77, -1.80633, 6.41818, 22.9088, -151.374, -102.132, 84.8406
7.28747, 77, -1.71253, 6.43451, 22.8951, -151.364, -102.224, 84.1954
7.29557, 78, -1.61795, 6.43635, 22.8872, -151.358, -102.302, 83.5553
7.30732, 78, -1.47469, 6.41063, 22.8856, -151.354, -102.389, 82.6025
7.31139, 78, -1.4267, 6.39442, 22.8879, -151.354, -102.41, 82.2868
7.32139, 78, -1.33045, 6.3502, 22.8972, -151.356, -102.441, 81.6586
7.32772, 78, -1.2339, 6.28987, 22.9125, -151.363, -102.456, 81.0359
7.3355, 78, -1.13713, 6.21344, 22.9344, -151.373, -102.455, 80.4184
7.34638, 79, -1.04028, 6.12085, 22.9633, -151.385, -102.436, 79.8076
7.35154, 79, -0.943257, 6.01218, 22.9996, -151.401, -102.4, 79.2053
7.36033, 79, -0.8463, 5.8873, 23.0433, -151.42, -102.346, 78.6124
7.36777, 79, -0.749302, 5.74587, 23.0946, -151.442, -102.274, 78.029
7.3764, 79, -0.652291, 5.58795, 23.1534, -151.466, -102.185, 77.4555
7.38461, 80, -0.555217, 5.41349, 23.2197, -151.492, -102.077, 76.8931
7.39204, 80, -0.458152, 5.22257, 23.2939, -151.52, -101.95, 76.3413
7.40087, 80, -0.361133, 5.01492, 23.3762, -151.549, -101.805, 75.7988
7.40787, 80, -0.264322, 4.7895, 23.4667, -151.58, -101.641, 75.2659
7.41587, 80, -0.215942, 4.66985, 23.5657, -151.613, -101.458, 74.7425
7.42517, 81, -0.0710908, 4.28513, 23.6735, -151.647, -101.256, 74.2291
7.43345, 81, 0.0252901, 4.00758, 23.7904, -151.681, -101.035, 73.7242
7.43928, 81, 0.07341, 3.86236, 23.8524, -151.699, -100.917, 73.4754
7.44938, 81, 0.217447, 3.40203, 24.0527, -151.754, -100.534, 72.7428
7.4555, 81, 0.265328, 3.23981, 24.1244, -151.772, -100.397, 72.5037
7.46526, 82, 0.408692, 2.72796, 24.3542, -151.828, -99.9567, 71.8003
7.47277, 82, 0.503965, 2.36604, 24.519, -151.866, -99.6392, 71.3431
7.4793, 82, 0.551501, 2.17936, 24.6049, -151.885, -99.4734, 71.1182
7.48921, 82, 0.693858, 1.59447, 24.8772, -151.94, -98.9497, 70.4577
7.49544, 82, 0.741228, 1.39131, 24.9727, -151.959, -98.7663, 70.2429
7.50525, 83, 0.83597, 0.973022, 25.1704, -151.994, -98.1912, 69.6137
7.51128, 83, 0.9307, 0.540169, 25.3778, -152.03, -97.9914, 69.4089
7.52083, 83, 1.07282, -0.136443, 25.7081, -152.081, -97.3687, 68.8107
7.53613, 83, 1.21512, -0.845372, 26.0578, -152.128, -96.7113, 68.2348
7.53839, 83, 1.26259, -1.08891, 26.1793, -152.143, -96.4846, 68.0477
7.54326, 84, 1.31013, -1.33581, 26.3033, -152.158, -96.2541, 67.8631
7.55296, 84, 1.40541, -1.83978, 26.5584, -152.187, -95.5399, 67.3212
7.55937, 84, 1.50093, -2.35677, 26.8241, -152.215, -95.2942, 67.1443
7.56836, 84, 1.59676, -2.88739, 27.1001, -152.24, -94.7909, 66.7963
7.57532, 84, 1.69295, -3.43162, 27.3863, -152.264, -94.2724, 66.4552
7.58346, 84, 1.78957, -3.98919, 27.6832, -152.287, -93.7392, 66.1208
7.59141, 85, 1.88645, -4.55931, 27.9899, -152.308, -93.1906, 65.794
7.59936, 85, 1.98368, -5.14082, 28.3069, -152.327, -92.6272, 65.4751
7.61091, 85, 2.13016, -6.03238, 28.7993, -152.351, -91.7604, 65.0114
7.6155, 85, 2.17917, -6.33411, 28.9681, -152.358, -91.4661, 64.8611
7.62448, 86, 2.27787, -6.94321, 29.3118, -152.369, -90.8697, 64.5679
7.6314, 86, 2.37721, -7.5596, 29.6635, -152.378, -90.2639, 64.2844
7.63934, 86, 2.47745, -8.18207, 30.0221, -152.383, -89.649, 64.0112
7.64729, 86, 2.57872, -8.8109, 30.3872, -152.386, -89.0259, 63.7488
7.65536, 86, 2.68071, -9.4452, 30.7577, -152.387, -88.3984, 63.4979
7.66345, 86, 2.78379, -10.0836, 31.1334, -152.385, -87.7668, 63.2586
7.67228, 87, 2.8879, -10.7259, 31.515, -152.378, -87.1292, 63.0309
7.67935, 87, 2.99269, -11.3713, 31.9011, -152.368, -86.4865, 62.8154
7.68729, 87, 3.09864, -12.0194, 32.2917, -152.355, -85.839, 62.6121
7.69536, 87, 3.20549, -12.67, 32.6869, -152.337, -85.1871, 62.4218
7.70331, 87, 3.31297, -13.3234, 33.0875, -152.316, -84.5315, 62.244
7.71131, 88, 3.42121, -13.9799, 33.4933, -152.29, -83.8701, 62.0791
7.71951, 88, 3.53001, -14.6397, 33.9043, -152.261, -83.2027, 61.9274
7.72732, 88, 3.63937, -15.3013, 34.3209, -152.228, -82.5297, 61.7889
7.73743, 88, 3.74914, -15.9638, 34.7427, -152.189, -81.8516, 61.6649
7.74349, 88, 3.8593, -16.6266, 35.1691, -152.146, -81.1702, 61.5559
7.75557, 89, 4.02498, -17.6182, 35.8155, -152.072, -80.1438, 61.4239
7.75937, 89, 4.08031, -17.9476, 36.032, -152.045, -79.801, 61.3888
7.76927, 89, 4.19122, -18.6037, 36.4654, -151.986, -79.1141, 61.3326
7.77555, 89, 4.30232, -19.2561, 36.8994, -151.923, -78.4274, 61.2962
7.78429, 89, 4.41344, -19.9028, 37.3319, -151.854, -77.7464, 61.2796
7.79146, 90, 4.52465, -20.543, 37.7621, -151.78, -77.0702, 61.2835
7.79942, 90, 4.63659, -21.1776, 38.1905, -151.7, -76.3973, 61.3119
7.80757, 90, 4.74892, -21.8063, 38.6165, -151.615, -75.7288, 61.3638
7.81532, 90, 4.86141, -22.4293, 39.0402, -151.525, -75.0655, 61.4395
7.82366, 90, 4.97377, -23.0468, 39.4623, -151.429, -74.4081, 61.5413
7.83232, 91, 5.08604, -23.6601, 39.883, -151.327, -73.7529, 61.6691
7.83947, 91, 5.198, -24.2689, 40.3035, -151.219, -73.0978, 61.8245
7.84751, 91, 5.3093, -24.8718, 40.7242, -151.104, -72.4424, 62.0085
7.85647, 91, 5.41973, -25.4696, 41.1449, -150.982, -71.7848, 62.2215
7.86361, 91, 5.52933, -26.0608, 41.5655, -150.853, -71.1261, 62.4647
7.87306, 92, 5.63845, -26.6454, 41.9855, -150.718, -70.4684, 62.7393
7.88034, 92, 5.7476, -27.2229, 42.4036, -150.577, -69.8117, 63.0453
7.88786, 92, 5.8574, -27.7929, 42.8184, -150.43, -69.157, 63.3825
7.89688, 92, 5.96779, -28.3546, 43.2282, -150.279, -68.5054, 63.7508
7.90452, 92, 6.07897, -28.9066, 43.6325, -150.123, -67.8583, 64.1507
7.91202, 92, 6.19137, -29.448, 44.0305, -149.964, -67.2179, 64.5818
7.91989, 93, 6.24815, -29.7146, 44.4218, -149.803, -66.5829, 65.0452
7.92913, 93, 6.42139, -30.4992, 44.8073, -149.639, -65.9518, 65.5401
7.93531, 93, 6.48029, -30.756, 44.9978, -149.557, -65.6375, 65.7996
7.94493, 93, 6.66023, -31.5156, 45.5617, -149.31, -64.6978, 66.6312
7.95355, 93, 6.78307, -32.0146, 45.9321, -149.145, -64.0722, 67.234
7.95929, 94, 6.84528, -32.2622, 46.1163, -149.062, -63.7586, 67.5515
7.96854, 94, 7.03529, -32.9977, 46.6654, -148.811, -62.8086, 68.5772
7.9753, 94, 7.09959, -33.2397, 46.8477, -148.728, -62.4888, 68.9455
7.98333, 94, 7.22987, -33.7181, 47.2105, -148.562, -61.8444, 69.7219
7.9933, 94, 7.43137, -34.422, 47.7479, -148.319, -60.867, 70.9846
7.99928, 95, 7.50058, -34.6523, 47.9237, -148.242, -60.5411, 71.4324
8.00876, 95, 7.71631, -35.3272, 48.4371, -148.024, -59.5684, 72.8408
8.01528, 95, 7.79124, -35.5465, 48.6027, -147.958, -59.2467, 73.3311
8.02485, 95, 8.02589, -36.1825, 49.0794, -147.782, -58.2939, 74.8571
8.03133, 95, 8.10753, -36.3851, 49.2305, -147.731, -57.9807, 75.3826
8.0409, 96, 8.27589, -36.9628, 49.6603, -147.609, -57.0587, 77.0079
8.04736, 96, 8.45105, -37.1445, 49.7951, -147.577, -56.7586, 77.5647
8.05754, 96, 8.6322, -37.4906, 50.0522, -147.515, -55.8795, 79.275
8.06332, 96, 8.81851, -37.8119, 50.2921, -147.504, -55.5942, 79.8559
8.07232, 96, 9.00943, -38.1072, 50.5125, -147.498, -55.0371, 81.0288
8.08143, 96, 9.30165, -38.5035, 50.8068, -147.529, -54.2401, 82.8097
8.08736, 97, 9.39972, -38.6228, 50.8951, -147.55, -53.9861, 83.4075
8.09528, 97, 9.59602, -38.8425, 51.056, -147.608, -53.4968, 84.6058
8.10329, 97, 9.79154, -39.0377, 51.1965, -147.686, -53.0343, 85.7983
8.1114, 97, 9.9856, -39.2082, 51.3176, -147.781, -52.6006, 86.9781
8.11929, 97, 10.1771, -39.3528, 51.419, -147.892, -52.1968, 88.1372
8.12736, 97, 10.365, -39.472, 51.5013, -148.015, -51.8237, 89.2694
8.13532, 98, 10.5492, -39.566, 51.5653, -148.148, -51.4813, 90.3679
8.1433, 98, 10.731, -39.6358, 51.6114, -148.292, -51.1692, 91.434
8.1514, 98, 10.9111, -39.6829, 51.64, -148.445, -50.8851, 92.4744
8.15928, 98, 11.0895, -39.7069, 51.6513, -148.609, -50.6254, 93.5039
8.16728, 98, 11.2658, -39.7075, 51.646, -148.786, -50.3865, 94.5368
8.17535, 98, 11.441, -39.6847, 51.6235, -148.975, -50.1663, 95.5836
8.18329, 98, 11.6165, -39.638, 51.5832, -149.179, -49.9652, 96.6519
8.19135, 99, 11.7917, -39.568, 51.5252, -149.395, -49.7845, 97.7408
8.19932, 99, 11.9654, -39.4755, 51.4487, -149.623, -49.6268, 98.8469
8.20727, 99, 12.1363, -39.3603, 51.3537, -149.86, -49.4957, 99.9583
8.21528, 99, 12.3035, -39.2227, 51.2407, -150.102, -49.3938, 101.065
8.22337, 99, 12.4655, -39.063, 51.1102, -150.346, -49.3229, 102.155
8.23134, 99, 12.6201, -38.881, 50.9638, -150.589, -49.2828, 103.221
8.23935, 100, 12.7662, -38.6751, 50.8019, -150.829, -49.2741, 104.255
8.24729, 100, 12.9034, -38.4449, 50.6232, -151.064, -49.2975, 105.262
8.25534, 100, 13.0316, -38.1921, 50.4275, -151.293, -49.3523, 106.239
8.26341, 100, 13.1513, -37.9171, 50.2154, -151.516, -49.4382, 107.193
8.27173, 100, 13.263, -37.6213, 49.9856, -151.734, -49.5555, 108.123
8.27941, 100, 13.3664, -37.3026, 49.7375, -151.944, -49.7034, 109.031
8.28743, 101, 13.4617, -36.9602, 49.473, -152.147, -49.8813, 109.918
8.29539, 101, 13.549, -36.5927, 49.191, -152.342, -50.0891, 110.78
8.30348, 101, 13.6286, -36.1996, 48.8923, -152.527, -50.3265, 111.621
8.31225, 101, 13.6999, -35.7814, 48.5758, -152.703, -50.5938, 112.438
8.32998, 101, 13.8176, -34.8759, 47.8899, -153.024, -51.2226, 114.006
8.33239, 102, 13.8415, -34.6356, 47.7077, -153.097, -51.4001, 114.383
8.33544, 102, 13.8632, -34.3895, 47.5213, -153.168, -51.5857, 114.754
8.3434, 102, 13.8994, -33.8797, 47.1357, -153.299, -51.9814, 115.48
8.35229, 102, 13.9261, -33.3459, 46.7342, -153.417, -52.4094, 116.181
8.35979, 102, 13.9437, -32.7896, 46.3183, -153.522, -52.8694, 116.856
8.36761, 102, 13.953, -32.2118, 45.8884, -153.613, -53.3591, 117.506
8.37568, 102, 13.9548, -31.6132, 45.4448, -153.69, -53.8757, 118.129
8.38434, 103, 13.9497, -30.9956, 44.9887, -153.754, -54.4172, 118.725
8.39189, 103, 13.9382, -30.3607, 44.5211, -153.804, -54.9811, 119.296
8.40037, 103, 13.9209, -29.7103, 44.0433, -153.842, -55.5642, 119.842
8.40804, 103, 13.8981, -29.0453, 43.5574, -153.868, -56.1648, 120.362
8.41588, 103, 13.8705, -28.3676, 43.0645, -153.882, -56.7812, 120.857
8.42377, 104, 13.8551, -28.0247, 42.8158, -153.886, -57.0944, 121.326
8.43228, 104, 13.8028, -26.9821, 42.0636, -153.881, -58.053, 121.773
8.4393, 104, 13.7834, -26.6305, 41.8112, -153.874, -58.38, 121.989
8.44831, 104, 13.7205, -25.5659, 41.0502, -153.841, -59.3802, 122.605
8.45533, 104, 13.6983, -25.2091, 40.7957, -153.826, -59.7194, 122.802
8.46337, 104, 13.6527, -24.4933, 40.2863, -153.789, -60.4041, 123.185
8.47134, 104, 13.6053, -23.7748, 39.7765, -153.745, -61.0949, 123.555
8.47931, 104, 13.5562, -23.0538, 39.2672, -153.696, -61.7916, 123.917
8.48727, 104, 13.5059, -22.3316, 38.7591, -153.642, -62.4921, 124.273
8.49665, 104, 13.429, -21.2467, 37.9997, -153.551, -63.5471, 124.8
8.50327, 104, 13.4031, -20.8851, 37.7473, -153.519, -63.8991, 124.975
8.51132, 104, 13.3509, -20.1621, 37.2434, -153.451, -64.603, 125.323
8.52077, 104, 13.2723, -19.0769, 36.4914, -153.341, -65.6623, 125.843
8.52903, 104, 13.2198, -18.3531, 35.9922, -153.264, -66.3695, 126.189
8.53525, 104, 13.1937, -17.9914, 35.7438, -153.223, -66.7234, 126.361
8.54333, 104, 13.1415, -17.2674, 35.2487, -153.139, -67.4319, 126.706
8.55308, 104, 13.0896, -16.181, 34.5094, -153.006, -68.4934, 127.222
8.5593, 104, 13.0381, -15.8189, 34.2641, -152.96, -68.8481, 127.394
8.56827, 104, 12.987, -15.0942, 33.7749, -152.864, -69.5589, 127.737
8.57526, 104, 12.936, -14.3689, 33.2879, -152.764, -70.2705, 128.08
8.58431, 104, 12.8854, -13.6436, 32.8037, -152.661, -70.9807, 128.424
8.59144, 104, 12.8352, -12.9181, 32.3223, -152.554, -71.691, 128.767
8.59928, 104, 12.7853, -12.1926, 31.8434, -152.443, -72.4033, 129.111
8.60728, 104, 12.7357, -11.4676, 31.3672, -152.329, -73.1161, 129.456
8.61532, 104, 12.6867, -10.7425, 30.8935, -152.21, -73.829, 129.802
8.62328, 104, 12.6378, -10.0169, 30.4226, -152.087, -74.5421, 130.147
8.63132, 104, 12.5893, -9.29121, 29.9546, -151.96, -75.2551, 130.494
8.6394, 104, 12.5414, -8.56542, 29.4897, -151.829, -75.9692, 130.842
8.6473, 104, 12.4939, -7.83932, 29.0281, -151.695, -76.6839, 131.19
8.6553, 104, 12.4469, -7.11369, 28.5698, -151.556, -77.3997, 131.54
8.66332, 104, 12.4006, -6.38852, 28.1148, -151.413, -78.1149, 131.891
8.67133, 104, 12.3547, -5.66373, 27.6632, -151.265, -78.8287, 132.243
8.67927, 104, 12.3094, -4.93946, 27.2151, -151.114, -79.5437, 132.596
8.68734, 104, 12.265, -4.21656, 26.7714, -150.958, -80.2592, 132.951
8.69526, 104, 12.2217, -3.49611, 26.3327, -150.799, -80.9743, 133.307
8.70326, 104, 12.1794, -2.78051, 25.8988, -150.635, -81.6856, 133.663
8.71138, 104, 12.1383, -2.07105, 25.4709, -150.468, -82.3928, 134.02
8.71928, 104, 12.0985, -1.36868, 25.0504, -150.298, -83.0968, 134.376
8.72726, 104, 12.0597, -0.674949, 24.6382, -150.125, -83.7933, 134.729
8.73533, 104, 12.022, 0.00872765, 24.2357, -149.95, -84.4798, 135.08
8.74326, 104, 11.9852, 0.6817, 23.844, -149.775, -85.1535, 135.427
8.75133, 104, 11.9494, 1.34217, 23.4649, -149.599, -85.8125, 135.769
8.75938, 104, 11.915, 1.9896, 23.0981, -149.422, -86.4576, 136.105
8.76737, 104, 11.8817, 2.62185, 22.744, -149.247, -87.0872, 136.434
8.77537, 104, 11.8492, 3.23792, 22.4023, -149.072, -87.7007, 136.757
8.78342, 104, 11.8182, 3.83763, 22.074, -148.898, -88.2979, 137.073
8.79144, 104, 11.7884, 4.42018, 21.7584, -148.726, -88.8771, 137.383
8.79939, 104, 11.7599, 4.98628, 21.4552, -148.554, -89.4392, 137.685
8.80783, 104, 11.7328, 5.53539, 21.1631, -148.385, -89.9861, 137.981
8.8153, 104, 11.7067, 6.06716, 20.8832, -148.217, -90.5166, 138.269
8.82329, 104, 11.6818, 6.58219, 20.615, -148.052, -91.0308, 138.55
8.83142, 104, 11.6581, 7.08027, 20.3583, -147.889, -91.5286, 138.824
8.83941, 104, 11.6355, 7.56144, 20.1135, -147.729, -92.0088, 139.09
8.8481, 104, 11.6142, 8.02633, 19.8792, -147.572, -92.4721, 139.349
8.85558, 104, 11.5939, 8.47448, 19.6558, -147.418, -92.9192, 139.6
8.86429, 104, 11.5748, 8.90526, 19.4436, -147.267, -93.3495, 139.843
8.87163, 104, 11.5568, 9.31877, 19.2414, -147.12, -93.763, 140.078
8.87975, 104, 11.5399, 9.71494, 19.0496, -146.978, -94.1594, 140.304
8.88841, 104, 11.5241, 10.0929, 18.8688, -146.84, -94.5385, 140.521
8.89576, 104, 11.5093, 10.4521, 18.6984, -146.706, -94.8992, 140.729
8.90436, 104, 11.4956, 10.792, 18.538, -146.578, -95.2412, 140.927
8.91208, 104, 11.483, 11.1127, 18.3888, -146.456, -95.5634, 141.115
8.91986, 104, 11.4713, 11.4127, 18.2503, -146.341, -95.8655, 141.292
8.92794, 104, 11.4607, 11.6921, 18.1222, -146.232, -96.1466, 141.457
8.93644, 104, 11.4511, 11.9505, 18.0047, -146.13, -96.4065, 141.61
8.9439, 104, 11.4466, 12.0716, 17.95, -146.083, -96.5283, 141.75
8.95138, 104, 11.438, 12.298, 17.8485, -145.993, -96.7554, 141.816
8.96047, 104, 11.4267, 12.5986, 17.7156, -145.873, -97.055, 141.995
8.96725, 104, 11.4233, 12.6881, 17.6764, -145.838, -97.1438, 142.048
8.97676, 104, 11.4143, 12.9254, 17.5742, -145.744, -97.3772, 142.187
8.98338, 104, 11.4115, 12.9945, 17.545, -145.717, -97.444, 142.227
8.99139, 104, 11.4065, 13.1184, 17.4936, -145.669, -97.5619, 142.298
8.9993, 104, 11.4018, 13.2238, 17.4513, -145.63, -97.659, 142.356
9.00725, 104, 11.3977, 13.3114, 17.417, -145.598, -97.7374, 142.402
9.01676, 104, 11.392, 13.4142, 17.3797, -145.563, -97.8221, 142.454
9.02481, 104, 11.3887, 13.4662, 17.3629, -145.546, -97.8603, 142.478
9.03296, 104, 11.3859, 13.5066, 17.3509, -145.535, -97.8874, 142.494
9.04088, 104, 11.3837, 13.5367, 17.3432, -145.528, -97.9056, 142.504
9.04897, 104, 11.3819, 13.5592, 17.3383, -145.523, -97.9169, 142.51
9.05526, 104, 11.3811, 13.568, 17.3366, -145.522, -97.9206, 142.512
9.06427, 104, 11.3799, 13.5813, 17.3344, -145.52, -97.9252, 142.514
9.07225, 104, 11.3789, 13.5903, 17.3333, -145.519, -97.9275, 142.516
9.08032, 105, 11.3783, 13.5963, 17.3328, -145.518, -97.9286, 142.516
9.08828, 105, 11.3778, 13.6002, 17.3325, -145.518, -97.9291, 142.516
9.09532, 105, 11.3774, 13.6029, 17.3324, -145.518, -97.9293, 142.516
9.10325, 105, 11.3771, 13.605, 17.3323, -145.518, -97.9294, 142.516
9.11142, 105, 11.3769, 13.6068, 17.3323, -145.518, -97.9294, 142.517
9.11931, 105, 11.3767, 13.6084, 17.3323, -145.518, -97.9294, 142.517
9.12726, 105, 11.3766, 13.6098, 17.3324, -145.518, -97.9294, 142.517
9.13525, 105, 11.3765, 13.611, 17.3324, -145.518, -97.9293, 142.517
9.14334, 105, 11.3764, 13.6121, 17.3324, -145.518, -97.9293, 142.517
9.15133, 105, 11.3764, 13.6129, 17.3324, -145.518, -97.9291, 142.517
9.15925, 105, 11.3763, 13.6135, 17.3324, -145.518, -97.929, 142.517
9.16731, 105, 11.3763, 13.614, 17.3324, -145.518, -97.9289, 142.517
9.17528, 105, 11.3763, 13.6143, 17.3325, -145.518, -97.9287, 142.517
9.18324, 105, 11.3763, 13.6145, 17.3325, -145.518, -97.9286, 142.517
9.19138, 105, 11.3763, 13.6146, 17.3325, -145.518, -97.9285, 142.517
9.19925, 105, 11.3763, 13.6146, 17.3326, -145.518, -97.9283, 142.517
