hehonglu123/Motion-Primitive-Planning/ILC/recorded_data/realrobot/wood/iteration_20/run_2.csv
timestamp, cmd_num, J1, J2, J3, J4, J5, J6
0.000357, -1, 11.3762, 13.6154, 17.3342, -145.52, -97.9262, 142.516
0.004306, -1, 11.3762, 13.6154, 17.3342, -145.52, -97.9262, 142.516
0.00816, -1, 11.3762, 13.6154, 17.3342, -145.52, -97.9262, 142.516
0.028406, -1, 11.3762, 13.6155, 17.3342, -145.52, -97.9262, 142.516
0.032794, -1, 11.3762, 13.6155, 17.3342, -145.52, -97.9262, 142.516
0.034936, -1, 11.3762, 13.6155, 17.3342, -145.52, -97.9262, 142.516
0.040006, -1, 11.3762, 13.6155, 17.3342, -145.52, -97.9262, 142.516
0.047969, -1, 11.3761, 13.6154, 17.3342, -145.52, -97.9262, 142.516
0.056056, -1, 11.3756, 13.6154, 17.3342, -145.52, -97.9262, 142.516
0.186352, -1, 10.2665, 13.3223, 17.4059, -145.866, -97.8085, 140.515
0.188547, -1, 10.1922, 13.3021, 17.411, -145.89, -97.8002, 140.377
0.189762, -1, 10.1922, 13.3021, 17.411, -145.89, -97.8002, 140.377
0.191737, -1, 10.117, 13.2818, 17.416, -145.914, -97.7919, 140.238
0.192979, -1, 10.117, 13.2818, 17.416, -145.914, -97.7919, 140.238
0.194248, -1, 10.117, 13.2818, 17.416, -145.914, -97.7919, 140.238
0.196225, -1, 10.0411, 13.2614, 17.421, -145.937, -97.7835, 140.099
0.20108, -1, 9.96456, 13.2408, 17.426, -145.961, -97.775, 139.96
0.202359, -1, 9.96456, 13.2408, 17.426, -145.961, -97.775, 139.96
0.204483, -1, 9.88743, 13.2201, 17.4311, -145.985, -97.7663, 139.82
0.205743, -1, 9.88743, 13.2201, 17.4311, -145.985, -97.7663, 139.82
0.207821, -1, 9.80987, 13.1994, 17.4361, -146.01, -97.7577, 139.681
0.209062, -1, 9.80987, 13.1994, 17.4361, -146.01, -97.7577, 139.681
0.210327, -1, 9.80987, 13.1994, 17.4361, -146.01, -97.7577, 139.681
0.212299, -1, 9.73209, 13.1787, 17.4412, -146.034, -97.749, 139.541
0.213769, -1, 9.73209, 13.1787, 17.4412, -146.034, -97.749, 139.541
0.215579, -1, 9.65433, 13.158, 17.4462, -146.057, -97.7404, 139.401
0.21702, -1, 9.65433, 13.158, 17.4462, -146.057, -97.7404, 139.401
0.21831, -1, 9.65433, 13.158, 17.4462, -146.057, -97.7404, 139.401
0.220363, -1, 9.57667, 13.1373, 17.4512, -146.081, -97.7319, 139.261
0.225022, -1, 9.4991, 13.1167, 17.4562, -146.105, -97.7234, 139.122
0.232039, -1, 9.34436, 13.0755, 17.466, -146.153, -97.7066, 138.842
0.240136, -1, 9.18999, 13.0344, 17.476, -146.201, -97.6898, 138.562
0.246942, -1, 9.11298, 13.0138, 17.4811, -146.225, -97.6814, 138.422
0.256047, -1, 8.88233, 12.9523, 17.4963, -146.297, -97.6562, 138.003
0.262942, -1, 8.80548, 12.9317, 17.5014, -146.321, -97.6477, 137.863
0.2728, -1, 8.57578, 12.8701, 17.5165, -146.393, -97.6216, 137.443
0.280162, -1, 8.42305, 12.8288, 17.5266, -146.441, -97.6041, 137.162
0.286948, -1, 8.34663, 12.8082, 17.5317, -146.465, -97.5954, 137.022
0.296807, -1, 8.1166, 12.7459, 17.547, -146.537, -97.5697, 136.602
0.304342, -1, 7.9627, 12.7043, 17.5572, -146.585, -97.5529, 136.322
0.310974, -1, 7.88552, 12.6835, 17.5623, -146.609, -97.5446, 136.182
0.321221, -1, 7.6533, 12.6209, 17.5774, -146.681, -97.5196, 135.761
0.326933, -1, 7.57584, 12.6, 17.5825, -146.705, -97.5112, 135.621
0.336501, -1, 7.34323, 12.5377, 17.5978, -146.777, -97.4856, 135.2
0.344495, -1, 7.18828, 12.4961, 17.608, -146.825, -97.4682, 134.92
0.352581, -1, 7.03326, 12.4546, 17.6183, -146.873, -97.4509, 134.64
0.360536, -1, 6.95568, 12.4339, 17.6235, -146.921, -97.4338, 134.36
0.368505, -1, 6.80061, 12.3927, 17.6338, -146.945, -97.4253, 134.079
0.376582, -1, 6.64579, 12.3514, 17.6442, -146.993, -97.4086, 133.939
0.383918, -1, 6.49124, 12.3101, 17.6546, -147.041, -97.3919, 133.658
0.39193, -1, 6.33689, 12.2688, 17.665, -147.089, -97.3751, 133.378
0.400036, -1, 6.18266, 12.2274, 17.6753, -147.138, -97.3581, 133.098
0.407965, -1, 6.02835, 12.1859, 17.6855, -147.186, -97.3409, 132.817
0.415949, -1, 5.87378, 12.1444, 17.6959, -147.233, -97.3233, 132.536
0.422943, -1, 5.71908, 12.1028, 17.7062, -147.282, -97.3058, 132.255
0.431924, -1, 5.56417, 12.0611, 17.7164, -147.33, -97.2885, 131.974
0.440008, -1, 5.40903, 12.0195, 17.7267, -147.378, -97.2715, 131.693
0.44794, -1, 5.25368, 11.9777, 17.737, -147.426, -97.2547, 131.412
0.455924, -1, 5.09802, 11.936, 17.7474, -147.474, -97.2379, 131.131
0.463979, -1, 4.94219, 11.8944, 17.7579, -147.522, -97.2211, 130.85
0.471919, -1, 4.78653, 11.8528, 17.7683, -147.57, -97.204, 130.569
0.479941, -1, 4.63077, 11.8112, 17.7787, -147.619, -97.1866, 130.288
0.48799, -1, 4.47504, 11.7697, 17.7892, -147.667, -97.1691, 130.007
0.49594, -1, 4.31953, 11.7282, 17.7995, -147.715, -97.1518, 129.726
0.503939, -1, 4.16427, 11.6868, 17.81, -147.764, -97.1347, 129.445
0.511986, -1, 4.00939, 11.6453, 17.8204, -147.812, -97.1177, 129.164
0.521003, -1, 3.85487, 11.6039, 17.8307, -147.86, -97.1008, 128.883
0.52794, -1, 3.70051, 11.5624, 17.841, -147.908, -97.084, 128.602
0.535982, -1, 3.54609, 11.5207, 17.8514, -147.957, -97.0669, 128.32
0.543927, -1, 3.39143, 11.479, 17.8617, -148.005, -97.0496, 128.039
0.551922, -1, 3.23647, 11.4373, 17.8722, -148.054, -97.0321, 127.757
0.560097, -1, 3.08135, 11.3955, 17.8826, -148.101, -97.0145, 127.476
0.566975, -1, 2.92602, 11.3537, 17.893, -148.15, -96.9972, 127.194
0.575938, -1, 2.77045, 11.3119, 17.9034, -148.198, -96.9803, 126.912
0.58402, -1, 2.61457, 11.2702, 17.9137, -148.246, -96.9635, 126.631
0.591915, -1, 2.45846, 11.2284, 17.9242, -148.295, -96.9467, 126.349
0.59993, -1, 2.30212, 11.1867, 17.9346, -148.343, -96.9299, 126.067
0.607994, -1, 2.14547, 11.1449, 17.945, -148.391, -96.9127, 125.785
0.615913, -1, 1.98869, 11.1031, 17.9554, -148.44, -96.8954, 125.504
0.623927, -1, 1.83214, 11.0615, 17.9657, -148.488, -96.8779, 125.222
0.631981, -1, 1.67566, 11.0198, 17.9762, -148.536, -96.8605, 124.94
0.64, -1, 1.51941, 10.978, 17.9867, -148.585, -96.8435, 124.658
0.773172, -1, -1.05411, 10.2882, 18.1586, -149.384, -96.5606, 119.995
0.774393, -1, -1.05411, 10.2882, 18.1586, -149.384, -96.5606, 119.995
0.776436, -1, -1.13271, 10.2672, 18.1638, -149.409, -96.5521, 119.853
0.777803, -1, -1.13271, 10.2672, 18.1638, -149.409, -96.5521, 119.853
0.77901, -1, -1.13271, 10.2672, 18.1638, -149.409, -96.5521, 119.853
0.783099, -1, -1.2113, 10.2463, 18.169, -149.433, -96.5437, 119.711
0.785188, -1, -1.28982, 10.2254, 18.1742, -149.458, -96.5353, 119.57
0.788422, -1, -1.36827, 10.2044, 18.1793, -149.482, -96.5269, 119.428
0.789739, -1, -1.36827, 10.2044, 18.1793, -149.482, -96.5269, 119.428
0.791026, -1, -1.36827, 10.2044, 18.1793, -149.482, -96.5269, 119.428
0.793003, -1, -1.44669, 10.1835, 18.1845, -149.506, -96.5185, 119.286
0.794324, -1, -1.44669, 10.1835, 18.1845, -149.506, -96.5185, 119.286
0.796166, -1, -1.52503, 10.1626, 18.1897, -149.53, -96.5101, 119.145
0.797697, -1, -1.52503, 10.1626, 18.1897, -149.53, -96.5101, 119.145
0.798892, -1, -1.52503, 10.1626, 18.1897, -149.53, -96.5101, 119.145
0.801227, -1, -1.60324, 10.1417, 18.195, -149.555, -96.5016, 119.003
0.802437, -1, -1.60324, 10.1417, 18.195, -149.555, -96.5016, 119.003
0.80519, -1, -1.68136, 10.1208, 18.2003, -149.579, -96.4932, 118.862
0.807348, -1, -1.68136, 10.1208, 18.2003, -149.579, -96.4932, 118.862
0.80942, -1, -1.75938, 10.0999, 18.2055, -149.604, -96.4846, 118.72
0.810671, -1, -1.75938, 10.0999, 18.2055, -149.604, -96.4846, 118.72
0.815051, -1, -1.83729, 10.0789, 18.2108, -149.628, -96.476, 118.578
0.824448, -1, -2.07044, 10.0161, 18.2265, -149.701, -96.4496, 118.153
0.832505, -1, -2.22561, 9.97417, 18.2368, -149.75, -96.432, 117.869
0.840477, -1, -2.38085, 9.93229, 18.2472, -149.798, -96.4147, 117.586
0.84849, -1, -2.53635, 9.89032, 18.2577, -149.846, -96.3977, 117.302
0.856522, -1, -2.69209, 9.84839, 18.2681, -149.895, -96.3808, 117.018
0.864662, -1, -2.77011, 9.82742, 18.2733, -149.92, -96.364, 116.735
0.872511, -1, -2.92658, 9.78542, 18.2837, -149.968, -96.3471, 116.451
0.879923, -1, -3.08341, 9.74344, 18.2941, -150.017, -96.3386, 116.309
0.887914, -1, -3.24056, 9.7015, 18.3045, -150.066, -96.3212, 116.025
0.895972, -1, -3.39821, 9.65947, 18.315, -150.114, -96.3036, 115.742
0.903917, -1, -3.55602, 9.61746, 18.3255, -150.163, -96.2861, 115.458
0.911931, -1, -3.71386, 9.5756, 18.336, -150.211, -96.2688, 115.174
0.919993, -1, -3.8719, 9.53362, 18.3463, -150.26, -96.2517, 114.889
0.927924, -1, -4.02987, 9.49161, 18.3567, -150.309, -96.2347, 114.605
0.935915, -1, -4.18767, 9.44969, 18.3671, -150.358, -96.2177, 114.321
0.943976, -1, -4.34543, 9.4077, 18.3775, -150.406, -96.2006, 114.036
0.951915, -1, -4.50293, 9.36569, 18.3878, -150.455, -96.1833, 113.752
0.9599, -1, -4.65986, 9.32366, 18.3982, -150.504, -96.1656, 113.467
0.967967, -1, -4.81643, 9.28159, 18.4086, -150.553, -96.1479, 113.182
0.975914, -1, -4.97266, 9.23948, 18.4192, -150.602, -96.1304, 112.897
0.983917, -1, -5.12864, 9.19746, 18.4297, -150.651, -96.1131, 112.612
0.991967, -1, -5.28448, 9.15534, 18.4403, -150.699, -96.0961, 112.328
1.00164, -1, -5.44044, 9.11315, 18.4508, -150.748, -96.0707, 111.901
1.00805, -1, -5.59663, 9.07104, 18.4613, -150.797, -96.0622, 111.758
1.01693, -1, -5.75317, 9.02893, 18.4717, -150.846, -96.045, 111.473
1.02391, -1, -5.91014, 8.98673, 18.4822, -150.895, -96.0276, 111.188
1.03197, -1, -6.06758, 8.94456, 18.4925, -150.944, -96.0099, 110.903
1.03991, -1, -6.22553, 8.90244, 18.5029, -150.992, -95.9924, 110.618
1.04798, -1, -6.38384, 8.8603, 18.5133, -151.042, -95.9751, 110.333
1.05591, -1, -6.54226, 8.81819, 18.5236, -151.09, -95.958, 110.048
1.06392, -1, -6.70078, 8.77602, 18.5342, -151.139, -95.941, 109.762
1.07198, -1, -6.8595, 8.73384, 18.5447, -151.189, -95.924, 109.477
1.07992, -1, -7.01807, 8.69174, 18.5553, -151.237, -95.9068, 109.191
1.08795, -1, -7.17661, 8.64958, 18.5657, -151.286, -95.8894, 108.906
1.09599, -1, -7.33489, 8.60738, 18.5761, -151.336, -95.8716, 108.62
1.1039, -1, -7.49284, 8.56506, 18.5866, -151.385, -95.8539, 108.334
1.1119, -1, -7.65048, 8.52275, 18.5971, -151.434, -95.8364, 108.048
1.11997, -1, -7.80782, 8.48045, 18.6075, -151.483, -95.8192, 107.763
1.1279, -1, -7.96477, 8.43817, 18.618, -151.532, -95.8022, 107.477
1.13592, -1, -8.12144, 8.3958, 18.6283, -151.58, -95.7852, 107.191
1.14444, -1, -8.27801, 8.35344, 18.6388, -151.63, -95.7682, 106.905
1.15107, -1, -8.43468, 8.31106, 18.6494, -151.679, -95.751, 106.619
1.15985, -1, -8.59168, 8.26869, 18.6599, -151.728, -95.7335, 106.333
1.16875, -1, -8.74903, 8.22642, 18.6704, -151.777, -95.7158, 106.046
1.17591, -1, -8.90672, 8.18409, 18.6808, -151.826, -95.6982, 105.76
1.18407, -1, -9.06484, 8.14176, 18.6912, -151.875, -95.6809, 105.474
1.19281, -1, -9.2234, 8.09951, 18.7017, -151.924, -95.6638, 105.187
1.19998, -1, -9.38231, 8.05718, 18.7122, -151.973, -95.6467, 104.901
1.20825, -1, -9.54139, 8.01482, 18.7227, -152.022, -95.6296, 104.614
1.21545, -1, -9.70051, 7.97259, 18.7331, -152.072, -95.6123, 104.327
1.22354, -1, -9.85978, 7.93035, 18.7436, -152.121, -95.5947, 104.04
1.23243, -1, -10.0192, 7.88794, 18.7543, -152.17, -95.5769, 103.753
1.23949, -1, -10.0988, 7.86673, 18.7596, -152.22, -95.5591, 103.466
1.24792, -1, -10.3375, 7.803, 18.7755, -152.269, -95.5415, 103.18
1.25682, -1, -10.4964, 7.76049, 18.7861, -152.318, -95.5243, 102.893
1.26483, -1, -10.6549, 7.71803, 18.7965, -152.368, -95.5072, 102.606
1.27199, -1, -10.813, 7.6755, 18.807, -152.416, -95.4902, 102.319
1.2789, -1, -10.892, 7.6542, 18.8123, -152.441, -95.4817, 102.175
1.28691, -1, -11.0497, 7.61163, 18.8227, -152.491, -95.4644, 101.888
1.29616, -1, -11.2858, 7.5479, 18.8385, -152.564, -95.438, 101.457
1.3029, -1, -11.3646, 7.52667, 18.8437, -152.589, -95.4291, 101.313
1.31099, -1, -11.5221, 7.48415, 18.8541, -152.639, -95.4114, 101.026
1.31893, -1, -11.6798, 7.44168, 18.8648, -152.688, -95.3938, 100.738
1.32931, -1, -11.9171, 7.37802, 18.8806, -152.762, -95.3679, 100.306
1.33495, -1, -11.9964, 7.35681, 18.8859, -152.787, -95.3593, 100.163
1.3445, -1, -12.2351, 7.29323, 18.9017, -152.86, -95.3335, 99.7309
1.3533, -1, -12.3946, 7.25078, 18.9122, -152.91, -95.3161, 99.4427
1.35897, -1, -12.4745, 7.22953, 18.9175, -152.935, -95.3073, 99.2986
1.36897, -1, -12.7144, 7.1659, 18.9333, -153.009, -95.2804, 98.8668
1.37589, -1, -12.7945, 7.14469, 18.9386, -153.034, -95.2714, 98.7229
1.38389, -1, -12.9546, 7.10215, 18.9491, -153.083, -95.2537, 98.4348
1.3909, -1, -13.1145, 7.05956, 18.9596, -153.133, -95.2363, 98.1466
1.3999, -1, -13.2744, 7.01694, 18.9702, -153.182, -95.2191, 97.8586
1.4079, -1, -13.4341, 6.97429, 18.9808, -153.232, -95.2019, 97.5704
1.4149, -1, -13.5934, 6.93149, 18.9914, -153.281, -95.1847, 97.2817
1.42392, -1, -13.7525, 6.88875, 19.002, -153.33, -95.1674, 96.9931
1.43189, -1, -13.9114, 6.84604, 19.0124, -153.38, -95.1497, 96.7046
1.43995, -1, -14.0697, 6.8033, 19.0229, -153.429, -95.1318, 96.4161
1.44789, -1, -14.2279, 6.76065, 19.0335, -153.479, -95.1141, 96.1271
1.45589, -1, -14.3861, 6.71797, 19.044, -153.528, -95.0966, 95.8382
1.46293, -1, -14.5444, 6.67525, 19.0545, -153.577, -95.0793, 95.5492
1.47189, -1, -14.7031, 6.63272, 19.0651, -153.627, -95.0621, 95.2599
1.47892, -1, -14.8621, 6.59018, 19.0756, -153.677, -95.0449, 94.9705
1.48792, -1, -15.0214, 6.54747, 19.0864, -153.726, -95.0275, 94.6813
1.4959, -1, -15.1811, 6.50486, 19.0971, -153.776, -95.0098, 94.3923
1.50397, -1, -15.3412, 6.46227, 19.1077, -153.825, -94.9917, 94.1032
1.51296, -1, -15.5017, 6.41959, 19.1184, -153.875, -94.9737, 93.8138
1.51988, -1, -15.6624, 6.37692, 19.129, -153.925, -94.956, 93.5246
1.52795, -1, -15.8231, 6.33415, 19.1396, -153.975, -94.9386, 93.2352
1.5359, -1, -15.9839, 6.29128, 19.1503, -154.024, -94.9215, 92.9456
1.54388, -1, -16.1447, 6.2484, 19.1609, -154.074, -94.9043, 92.6557
1.55195, -1, -16.3055, 6.2055, 19.1714, -154.123, -94.887, 92.3663
1.55989, -1, -16.466, 6.16249, 19.1819, -154.173, -94.8696, 92.0766
1.5679, -1, -16.6264, 6.11954, 19.1924, -154.223, -94.8518, 91.7865
1.57596, -1, -16.7862, 6.07658, 19.2031, -154.272, -94.8338, 91.4964
1.58391, -1, -16.9457, 6.03358, 19.2138, -154.322, -94.8162, 91.2062
1.59198, -1, -17.105, 5.99061, 19.2244, -154.372, -94.7987, 90.9162
1.59988, -1, -17.2641, 5.94766, 19.235, -154.421, -94.7813, 90.6257
1.6079, -1, -17.4231, 5.90481, 19.2456, -154.471, -94.764, 90.3352
1.61596, -1, -17.5825, 5.862, 19.2563, -154.521, -94.7466, 90.0452
1.62388, -1, -17.7419, 5.81917, 19.267, -154.571, -94.729, 89.7548
1.63188, -1, -17.9014, 5.77639, 19.2777, -154.621, -94.7111, 89.4644
1.63996, -1, -18.0614, 5.7336, 19.2884, -154.671, -94.693, 89.1739
1.64789, -1, -18.222, 5.69081, 19.299, -154.72, -94.6752, 88.8834
1.65591, -1, -18.3828, 5.64799, 19.3097, -154.771, -94.6575, 88.5927
1.66395, -1, -18.5441, 5.60505, 19.3204, -154.821, -94.6402, 88.3015
1.67191, -1, -18.7057, 5.56209, 19.3311, -154.87, -94.6229, 88.0107
1.67989, -1, -18.8673, 5.5191, 19.3418, -154.921, -94.6057, 87.7199
1.68796, -1, -19.029, 5.47606, 19.3523, -154.971, -94.5881, 87.4287
1.69598, -1, -19.1906, 5.43289, 19.3629, -155.02, -94.5703, 87.1373
1.70405, -1, -19.3521, 5.38973, 19.3736, -155.07, -94.5522, 86.846
1.71197, -1, -19.5134, 5.34656, 19.3841, -155.12, -94.5343, 86.5544
1.72003, -1, -19.6744, 5.3033, 19.3948, -155.17, -94.5165, 86.2627
1.728, -1, -19.835, 5.26016, 19.4054, -155.22, -94.4989, 85.971
1.73603, -1, -19.9955, 5.21699, 19.4162, -155.27, -94.4815, 85.6796
1.74407, -1, -20.1556, 5.17383, 19.427, -155.32, -94.4641, 85.3881
1.7525, -1, -20.3153, 5.13089, 19.4378, -155.37, -94.4465, 85.0964
1.76006, -1, -20.4752, 5.08786, 19.4486, -155.42, -94.4287, 84.8046
1.76689, -1, -20.5553, 5.0663, 19.454, -155.445, -94.4196, 84.6587
1.7768, -1, -20.7956, 5.00187, 19.4701, -155.521, -94.3925, 84.2211
1.78413, -1, -20.9562, 4.95891, 19.4808, -155.571, -94.3747, 83.9289
1.79089, -1, -21.0367, 4.93736, 19.4862, -155.596, -94.3659, 83.7827
1.80103, -1, -21.2787, 4.87278, 19.5021, -155.671, -94.3399, 83.3448
1.80821, -1, -21.4407, 4.82959, 19.5128, -155.721, -94.3226, 83.0526
1.81496, -1, -21.5217, 4.80796, 19.5181, -155.746, -94.314, 82.9063
1.82535, -1, -21.765, 4.74317, 19.5343, -155.822, -94.2877, 82.4673
1.83095, -1, -21.8463, 4.7215, 19.5396, -155.847, -94.2787, 82.3211
1.84048, -1, -22.09, 4.6564, 19.5558, -155.922, -94.2516, 81.8819
1.84928, -1, -22.2525, 4.61308, 19.5665, -155.972, -94.2339, 81.5889
1.85495, -1, -22.3337, 4.59137, 19.5718, -155.997, -94.225, 81.4426
1.86449, -1, -22.577, 4.52627, 19.5879, -156.073, -94.1987, 81.0036
1.8733, -1, -22.658, 4.50456, 19.5933, -156.098, -94.19, 80.7107
1.87895, -1, -22.8195, 4.46112, 19.6039, -156.148, -94.1726, 80.5642
1.88892, -1, -23.0612, 4.39613, 19.62, -156.224, -94.1459, 80.1249
1.89591, -1, -23.1418, 4.37448, 19.6253, -156.249, -94.1369, 79.9785
1.9029, -1, -23.3028, 4.33115, 19.6361, -156.299, -94.1186, 79.6852
1.91188, -1, -23.4636, 4.28791, 19.647, -156.35, -94.1004, 79.3916
1.91991, -1, -23.6245, 4.24464, 19.6578, -156.4, -94.0825, 79.0984
1.92689, -1, -23.7856, 4.20137, 19.6686, -156.45, -94.0649, 78.8051
1.93589, -1, -23.9468, 4.15813, 19.6793, -156.501, -94.0475, 78.5113
1.94389, -1, -24.1085, 4.11475, 19.69, -156.551, -94.0301, 78.2174
1.95089, -1, -24.2708, 4.07136, 19.7008, -156.601, -94.0126, 77.9234
1.95988, -1, -24.4334, 4.02797, 19.7115, -156.652, -93.9947, 77.6294
1.9679, -1, -24.5964, 3.98441, 19.7221, -156.702, -93.9766, 77.3351
1.97488, -1, -24.7595, 3.94082, 19.7328, -156.752, -93.9584, 77.0409
1.98388, -1, -24.9229, 3.89727, 19.7435, -156.803, -93.9406, 76.747
1.99212, -1, -25.0864, 3.85369, 19.7545, -156.853, -93.923, 76.4528
1.99988, -1, -25.2496, 3.81009, 19.7654, -156.904, -93.9054, 76.1584
2.00889, -1, -25.4128, 3.7665, 19.7763, -156.954, -93.888, 75.864
2.01676, -1, -25.5757, 3.72282, 19.787, -157.004, -93.8702, 75.5698
2.02288, -1, -25.7383, 3.67917, 19.7977, -157.055, -93.8523, 75.2752
2.03189, -1, -25.9008, 3.63571, 19.8085, -157.106, -93.8341, 74.9803
2.04067, -1, -26.063, 3.59212, 19.8193, -157.156, -93.8157, 74.6857
2.04688, -1, -26.2248, 3.54865, 19.83, -157.207, -93.7976, 74.3912
2.05588, -1, -26.3864, 3.50528, 19.8408, -157.257, -93.7797, 74.0964
2.06467, -1, -26.5481, 3.46175, 19.8516, -157.308, -93.7621, 73.801
2.07096, -1, -26.71, 3.41824, 19.8624, -157.359, -93.7445, 73.5059
2.07988, -1, -26.8722, 3.37475, 19.8733, -157.409, -93.7268, 73.2108
2.0916, -1, -27.1162, 3.3093, 19.8896, -157.485, -93.6997, 72.7676
2.09591, -1, -27.1976, 3.28751, 19.895, -157.511, -93.6906, 72.6199
2.10387, -1, -27.3608, 3.24391, 19.9057, -157.561, -93.6722, 72.3247
2.11194, -1, -27.5244, 3.2001, 19.9165, -157.611, -93.6542, 72.0294
2.11987, -1, -27.6883, 3.15635, 19.9273, -157.662, -93.6362, 71.7339
2.1279, -1, -27.8523, 3.11272, 19.9381, -157.713, -93.6185, 71.4383
2.13594, -1, -28.0165, 3.06899, 19.9489, -157.763, -93.6009, 71.1429
2.14387, -1, -28.1808, 3.02523, 19.9597, -157.815, -93.5831, 70.847
2.15187, -1, -28.3451, 2.98149, 19.9705, -157.865, -93.565, 70.5508
2.15995, -1, -28.5091, 2.93774, 19.9814, -157.916, -93.5467, 70.2549
2.16789, -1, -28.6728, 2.89407, 19.9923, -157.967, -93.5282, 69.9591
2.17592, -1, -28.8363, 2.85036, 20.0031, -158.017, -93.5099, 69.6628
2.18391, -1, -28.9994, 2.80665, 20.0138, -158.068, -93.492, 69.3662
2.19188, -1, -29.1622, 2.76298, 20.0246, -158.119, -93.4743, 69.0698
2.19998, -1, -29.3249, 2.71926, 20.0354, -158.17, -93.4567, 68.7732
2.20798, -1, -29.4876, 2.67557, 20.0463, -158.221, -93.439, 68.4763
2.21597, -1, -29.6504, 2.6318, 20.0571, -158.272, -93.4211, 68.1793
2.22404, -1, -29.8134, 2.588, 20.0679, -158.323, -93.4028, 67.8827
2.23198, -1, -29.9765, 2.54424, 20.0788, -158.374, -93.3843, 67.586
2.24001, -1, -30.1397, 2.50036, 20.0898, -158.425, -93.366, 67.289
2.24806, -1, -30.3036, 2.45637, 20.1008, -158.475, -93.3481, 66.9918
2.2559, -1, -30.4678, 2.41245, 20.1118, -158.527, -93.3303, 66.6949
2.26394, -1, -30.6326, 2.36841, 20.1226, -158.577, -93.3126, 66.3976
2.27087, -1, -30.7151, 2.3464, 20.128, -158.603, -93.3037, 66.2488
2.27993, -1, -30.9627, 2.2805, 20.1443, -158.68, -93.2767, 65.8027
2.28693, -1, -31.0452, 2.25847, 20.1497, -158.705, -93.2675, 65.6542
2.29611, -1, -31.2929, 2.1925, 20.166, -158.782, -93.2397, 65.2081
2.3029, -1, -31.3754, 2.17056, 20.1715, -158.807, -93.2305, 65.0592
2.31234, -1, -31.6225, 2.10457, 20.1876, -158.884, -93.2034, 64.6126
2.31891, -1, -31.7048, 2.08257, 20.1931, -158.909, -93.1944, 64.4638
2.32842, -1, -31.9513, 2.01668, 20.2096, -158.986, -93.168, 64.0166
2.33651, -1, -32.1153, 1.97267, 20.2205, -159.037, -93.1503, 63.7184
2.34439, -1, -32.2789, 1.92869, 20.2315, -159.089, -93.1324, 63.4206
2.35244, -1, -32.4423, 1.88467, 20.2423, -159.14, -93.1143, 63.1226
2.36058, -1, -32.606, 1.84054, 20.2533, -159.191, -93.0959, 62.8245
2.36934, -1, -32.6879, 1.81848, 20.2643, -159.243, -93.0775, 62.526
2.37493, -1, -32.8518, 1.77441, 20.2697, -159.268, -93.0685, 62.3769
2.38488, -1, -33.0982, 1.70809, 20.2861, -159.344, -93.0417, 61.9293
2.39197, -1, -33.1805, 1.68599, 20.2915, -159.37, -93.0328, 61.7799
2.39896, -1, -33.3452, 1.64185, 20.3024, -159.422, -93.015, 61.4811
2.40793, -1, -33.5105, 1.59762, 20.3134, -159.473, -92.997, 61.1825
2.41586, -1, -33.6762, 1.55336, 20.3244, -159.524, -92.9788, 60.8838
2.42289, -1, -33.842, 1.50916, 20.3353, -159.575, -92.9602, 60.5847
2.43191, -1, -34.0078, 1.46496, 20.3462, -159.626, -92.9415, 60.2856
2.43987, -1, -34.1738, 1.4208, 20.3571, -159.678, -92.9232, 59.9866
2.44689, -1, -34.3399, 1.37662, 20.3681, -159.729, -92.9051, 59.687
2.4559, -1, -34.506, 1.33241, 20.379, -159.781, -92.8872, 59.3873
2.46388, -1, -34.6717, 1.28822, 20.39, -159.832, -92.8695, 59.088
2.47189, -1, -34.837, 1.24401, 20.4009, -159.883, -92.8516, 58.7887
2.47989, -1, -35.002, 1.19975, 20.4119, -159.935, -92.8334, 58.4892
2.48788, -1, -35.1667, 1.15545, 20.4229, -159.986, -92.8149, 58.1893
2.4959, -1, -35.3312, 1.11112, 20.434, -160.038, -92.7963, 57.8896
2.50389, -1, -35.4952, 1.06698, 20.4452, -160.089, -92.778, 57.5899
2.51346, -1, -35.6574, 1.02314, 20.4564, -160.14, -92.7599, 57.29
2.51994, -1, -35.817, 0.979898, 20.4679, -160.191, -92.742, 56.9914
2.52896, -1, -35.9725, 0.937808, 20.4798, -160.242, -92.7243, 56.6963
2.53588, -1, -36.1229, 0.897327, 20.4917, -160.291, -92.7068, 56.4072
2.5439, -1, -36.2656, 0.859047, 20.5036, -160.339, -92.6897, 56.1282
2.55188, -1, -36.3987, 0.823714, 20.5152, -160.384, -92.6732, 55.8656
2.55987, -1, -36.5206, 0.791404, 20.5258, -160.424, -92.6581, 55.6259
2.56788, -1, -36.6298, 0.762551, 20.5351, -160.46, -92.6448, 55.4143
2.5759, -1, -36.7245, 0.737463, 20.5424, -160.49, -92.6338, 55.2358
2.58401, -1, -36.8046, 0.716212, 20.5475, -160.514, -92.6251, 55.0925
2.5919, -1, -36.8708, 0.698723, 20.5504, -160.533, -92.6186, 54.9841
2.59992, -1, -36.924, 0.684692, 20.5517, -160.547, -92.6141, 54.9075
2.60796, -1, -36.9645, 0.673819, 20.5521, -160.556, -92.6112, 54.8558
2.61588, -1, -36.994, 0.666051, 20.5518, -160.561, -92.6095, 54.8243
2.6239, -1, -37.0143, 0.660948, 20.5514, -160.565, -92.6086, 54.8064
2.63187, -1, -37.0268, 0.657908, 20.551, -160.566, -92.6082, 54.7974
2.63989, -1, -37.0334, 0.656281, 20.5509, -160.567, -92.6079, 54.793
2.64796, 2, -37.0355, 0.655568, 20.5508, -160.568, -92.6078, 54.791
2.65587, 2, -37.0353, 0.655249, 20.5508, -160.568, -92.6078, 54.7901
2.66391, 2, -37.0347, 0.655102, 20.5507, -160.568, -92.6078, 54.7897
2.67189, 2, -37.0344, 0.655047, 20.5507, -160.568, -92.6078, 54.7896
2.67989, 2, -37.0349, 0.65501, 20.5507, -160.568, -92.6078, 54.7895
2.6879, 2, -37.036, 0.654956, 20.5506, -160.568, -92.6079, 54.7895
2.69591, 2, -37.0371, 0.654841, 20.5505, -160.568, -92.6078, 54.7895
2.70392, 2, -37.0386, 0.654627, 20.5503, -160.568, -92.6079, 54.7895
2.71197, 2, -37.04, 0.654367, 20.5501, -160.568, -92.608, 54.7896
2.71999, 2, -37.0411, 0.654102, 20.5499, -160.568, -92.608, 54.7896
2.72798, 2, -37.042, 0.653892, 20.5497, -160.568, -92.608, 54.7897
2.73599, 2, -37.0425, 0.653775, 20.5495, -160.568, -92.608, 54.7898
2.74403, 2, -37.0425, 0.653714, 20.5493, -160.568, -92.6081, 54.7899
2.75195, 2, -37.042, 0.653731, 20.5492, -160.568, -92.6081, 54.7901
2.75991, 2, -37.0412, 0.653763, 20.5491, -160.568, -92.6082, 54.7902
2.76797, 2, -37.0401, 0.653826, 20.5491, -160.568, -92.6082, 54.7904
2.77574, 2, -37.0393, 0.653862, 20.549, -160.568, -92.6083, 54.7907
2.78395, 2, -37.0371, 0.653952, 20.5489, -160.568, -92.6083, 54.7908
2.79205, 2, -37.0361, 0.653964, 20.5489, -160.568, -92.6083, 54.7909
2.80061, 2, -37.0354, 0.653966, 20.5489, -160.568, -92.6083, 54.7909
2.8069, 2, -37.0353, 0.653957, 20.5489, -160.568, -92.6083, 54.791
2.81622, 2, -37.0352, 0.653932, 20.5488, -160.568, -92.6083, 54.791
2.82289, 2, -37.0354, 0.653904, 20.5488, -160.568, -92.6083, 54.791
2.83232, 2, -37.0357, 0.653807, 20.5488, -160.568, -92.6083, 54.791
2.83889, 2, -37.0359, 0.65379, 20.5488, -160.568, -92.6083, 54.791
2.84895, 2, -37.037, 0.653767, 20.5487, -160.568, -92.6083, 54.7911
2.85643, 2, -37.0377, 0.653761, 20.5487, -160.568, -92.6083, 54.7912
2.86444, 2, -37.0383, 0.653787, 20.5487, -160.568, -92.6084, 54.7912
2.87272, 2, -37.0387, 0.653807, 20.5487, -160.568, -92.6084, 54.7913
2.88038, 2, -37.0388, 0.65382, 20.5487, -160.568, -92.6084, 54.7913
2.88788, 2, -37.0388, 0.653827, 20.5487, -160.568, -92.6084, 54.7914
2.89688, 2, -37.0389, 0.653871, 20.5487, -160.568, -92.6084, 54.7914
2.90288, 2, -37.0385, 0.65387, 20.5487, -160.568, -92.6084, 54.7914
2.91189, 2, -37.0381, 0.653888, 20.5487, -160.568, -92.6084, 54.7915
2.91986, 2, -37.0378, 0.653858, 20.5487, -160.568, -92.6084, 54.7915
2.9279, 2, -37.0375, 0.653839, 20.5487, -160.568, -92.6084, 54.7916
2.9359, 2, -37.0374, 0.653831, 20.5487, -160.568, -92.6084, 54.7916
2.94387, 2, -37.0374, 0.653827, 20.5487, -160.568, -92.6084, 54.7917
2.95187, 2, -37.0374, 0.653807, 20.5486, -160.568, -92.6084, 54.7917
2.95987, 2, -37.0374, 0.653816, 20.5486, -160.568, -92.6084, 54.7918
2.96786, 2, -37.0375, 0.653809, 20.5486, -160.568, -92.6084, 54.7918
2.97587, 2, -37.0375, 0.65381, 20.5486, -160.568, -92.6084, 54.7919
2.98388, 2, -37.0377, 0.653817, 20.5486, -160.568, -92.6084, 54.792
2.99186, 2, -37.0379, 0.653821, 20.5486, -160.568, -92.6085, 54.792
2.99988, 2, -37.038, 0.653822, 20.5486, -160.568, -92.6084, 54.7921
3.0094, 2, -37.0381, 0.653823, 20.5486, -160.568, -92.6085, 54.7921
3.01588, 2, -37.0381, 0.653823, 20.5486, -160.568, -92.6085, 54.7921
3.02388, 2, -37.0381, 0.653831, 20.5486, -160.568, -92.6085, 54.7922
3.03187, 2, -37.0381, 0.653832, 20.5486, -160.568, -92.6085, 54.7922
3.03986, 2, -37.0381, 0.653827, 20.5486, -160.568, -92.6085, 54.7923
3.04787, 2, -37.0381, 0.653825, 20.5485, -160.568, -92.6085, 54.7923
3.05587, 2, -37.038, 0.653824, 20.5485, -160.568, -92.6085, 54.7924
3.06387, 2, -37.038, 0.653824, 20.5485, -160.568, -92.6085, 54.7924
3.07187, 2, -37.038, 0.653824, 20.5485, -160.568, -92.6086, 54.7925
3.07989, 2, -37.038, 0.653824, 20.5485, -160.568, -92.6085, 54.7925
3.08787, 2, -37.038, 0.653824, 20.5485, -160.568, -92.6086, 54.7926
3.0959, 2, -37.038, 0.653824, 20.5485, -160.568, -92.6086, 54.7926
3.10391, 2, -37.038, 0.653831, 20.5485, -160.568, -92.6086, 54.7927
3.11186, 2, -37.038, 0.653832, 20.5485, -160.568, -92.6086, 54.7927
3.11987, 2, -37.038, 0.653827, 20.5485, -160.567, -92.6085, 54.7928
3.12793, 2, -37.038, 0.653825, 20.5485, -160.568, -92.6085, 54.7928
3.13586, 2, -37.038, 0.653837, 20.5484, -160.567, -92.6085, 54.7929
3.14388, 2, -37.038, 0.65383, 20.5484, -160.567, -92.6086, 54.7929
3.15187, 2, -37.038, 0.653826, 20.5484, -160.567, -92.6086, 54.7929
3.15985, 2, -37.038, 0.653825, 20.5484, -160.567, -92.6086, 54.793
3.1679, 2, -37.038, 0.653824, 20.5484, -160.567, -92.6086, 54.793
3.17587, 2, -37.0379, 0.653824, 20.5484, -160.567, -92.6087, 54.793
3.18389, 2, -37.0379, 0.653824, 20.5483, -160.567, -92.6087, 54.7931
3.19187, 2, -37.0379, 0.653824, 20.5483, -160.567, -92.6087, 54.7931
3.1999, 2, -37.0379, 0.653836, 20.5483, -160.567, -92.6087, 54.7931
3.20792, 2, -37.0379, 0.653829, 20.5483, -160.567, -92.6087, 54.7931
3.21595, 2, -37.0379, 0.653834, 20.5483, -160.567, -92.6086, 54.7932
3.22398, 2, -37.0379, 0.653833, 20.5483, -160.567, -92.6087, 54.7933
3.23196, 2, -37.0379, 0.65384, 20.5483, -160.567, -92.6086, 54.7933
3.23998, 2, -37.0379, 0.653831, 20.5483, -160.567, -92.6087, 54.7933
3.24801, 2, -37.0378, 0.653839, 20.5483, -160.567, -92.6087, 54.7933
3.25593, 2, -37.0379, 0.653831, 20.5483, -160.567, -92.6087, 54.7934
3.26391, 2, -37.0378, 0.653827, 20.5483, -160.567, -92.6087, 54.7934
3.27195, 2, -37.0378, 0.653825, 20.5482, -160.567, -92.6087, 54.7935
3.27995, 2, -37.0378, 0.653824, 20.5482, -160.567, -92.6087, 54.7935
3.28799, 2, -37.0378, 0.653824, 20.5482, -160.567, -92.6087, 54.7935
3.29487, 2, -37.0378, 0.653824, 20.5482, -160.567, -92.6087, 54.7936
3.30411, 2, -37.0378, 0.653824, 20.5482, -160.567, -92.6087, 54.7937
3.31088, 2, -37.0378, 0.653824, 20.5482, -160.567, -92.6087, 54.7937
3.32022, 2, -37.0378, 0.653824, 20.5482, -160.567, -92.6087, 54.7937
3.32688, 2, -37.0378, 0.653831, 20.5482, -160.567, -92.6088, 54.7937
3.33641, 2, -37.0378, 0.653857, 20.5482, -160.567, -92.6088, 54.7937
3.34439, 2, -37.0377, 0.653851, 20.5482, -160.567, -92.6088, 54.7938
3.35242, 2, -37.0377, 0.653849, 20.5482, -160.567, -92.6088, 54.7938
3.36047, 2, -37.0377, 0.653852, 20.5482, -160.567, -92.6088, 54.7939
3.36842, 2, -37.0377, 0.653849, 20.5481, -160.567, -92.6088, 54.7939
3.37645, 2, -37.0377, 0.653848, 20.5481, -160.567, -92.6087, 54.7939
3.38448, 2, -37.0377, 0.65384, 20.5481, -160.567, -92.6087, 54.7939
3.39186, 2, -37.0377, 0.653831, 20.5481, -160.567, -92.6087, 54.7939
3.39985, 2, -37.0376, 0.653827, 20.5481, -160.567, -92.6087, 54.794
3.40786, 2, -37.0376, 0.653832, 20.5481, -160.567, -92.6087, 54.794
3.41587, 2, -37.0376, 0.65384, 20.5481, -160.567, -92.6087, 54.794
3.42386, 2, -37.0376, 0.653843, 20.5481, -160.567, -92.6087, 54.794
3.43187, 2, -37.0376, 0.653857, 20.5481, -160.567, -92.6087, 54.794
3.43989, 2, -37.0375, 0.653863, 20.5481, -160.567, -92.6088, 54.794
3.44785, 2, -37.0375, 0.653854, 20.5481, -160.567, -92.6088, 54.794
3.45585, 2, -37.0375, 0.653855, 20.5481, -160.567, -92.6088, 54.794
3.46387, 2, -37.0376, 0.653857, 20.5481, -160.567, -92.6088, 54.794
3.47184, 2, -37.0376, 0.653844, 20.5481, -160.567, -92.6088, 54.7941
3.47985, 2, -37.0375, 0.653833, 20.548, -160.567, -92.6088, 54.7941
3.48787, 2, -37.0375, 0.653848, 20.548, -160.567, -92.6088, 54.7941
3.49584, 2, -37.0375, 0.653859, 20.548, -160.567, -92.6088, 54.7942
3.50388, 2, -37.0375, 0.653857, 20.548, -160.567, -92.6088, 54.7942
3.51285, 2, -37.0375, 0.653846, 20.548, -160.567, -92.6088, 54.7942
3.51986, 2, -37.0374, 0.653846, 20.548, -160.567, -92.6088, 54.7942
3.52887, 2, -37.0374, 0.653846, 20.5479, -160.567, -92.6088, 54.7943
3.53586, 2, -37.0374, 0.653846, 20.548, -160.567, -92.6088, 54.7943
3.54385, 2, -37.0374, 0.653869, 20.5479, -160.567, -92.6088, 54.7942
3.55285, 2, -37.0374, 0.653877, 20.5479, -160.567, -92.6088, 54.7942
3.55985, 2, -37.0374, 0.653872, 20.5479, -160.567, -92.6088, 54.7942
3.56785, 2, -37.0374, 0.653858, 20.5479, -160.567, -92.6088, 54.7942
3.57586, 2, -37.0374, 0.653864, 20.5479, -160.567, -92.6088, 54.7943
3.58388, 2, -37.0374, 0.653867, 20.5479, -160.567, -92.6088, 54.7943
3.59184, 2, -37.0374, 0.653868, 20.5479, -160.567, -92.6088, 54.7943
3.59988, 2, -37.0374, 0.653856, 20.5479, -160.567, -92.6088, 54.7943
3.60796, 2, -37.0374, 0.653843, 20.5479, -160.567, -92.6088, 54.7943
3.61584, 2, -37.0374, 0.653863, 20.5478, -160.567, -92.6088, 54.7944
3.62386, 2, -37.0374, 0.653874, 20.5478, -160.567, -92.6088, 54.7944
3.63185, 2, -37.0374, 0.653871, 20.5478, -160.567, -92.6088, 54.7944
3.63985, 2, -37.0374, 0.653881, 20.5478, -160.567, -92.6089, 54.7943
3.64909, 2, -37.0374, 0.653893, 20.5478, -160.567, -92.6088, 54.7943
3.65585, 2, -37.0373, 0.653887, 20.5478, -160.567, -92.6088, 54.7943
3.66386, 2, -37.0373, 0.653877, 20.5478, -160.567, -92.6088, 54.7944
3.67187, 2, -37.0373, 0.653884, 20.5478, -160.567, -92.6088, 54.7943
3.67985, 2, -37.0373, 0.653901, 20.5478, -160.567, -92.6088, 54.7943
3.68787, 2, -37.0373, 0.653884, 20.5478, -160.567, -92.6089, 54.7943
3.69588, 2, -37.0373, 0.653876, 20.5478, -160.567, -92.6088, 54.7944
3.70403, 2, -37.0373, 0.65386, 20.5478, -160.567, -92.6089, 54.7944
3.71128, 2, -37.0373, 0.653876, 20.5477, -160.567, -92.6089, 54.7944
3.71961, 2, -37.0373, 0.653872, 20.5477, -160.567, -92.6089, 54.7944
3.72793, 4, -37.0373, 0.653865, 20.5477, -160.567, -92.6089, 54.7944
3.73595, 4, -37.0373, 0.653886, 20.5477, -160.567, -92.6089, 54.7944
3.74397, 4, -37.0373, 0.653877, 20.5477, -160.567, -92.6089, 54.7944
3.75199, 4, -37.0373, 0.653872, 20.5477, -160.567, -92.6089, 54.7944
3.75985, 4, -37.0372, 0.653881, 20.5477, -160.566, -92.6089, 54.7944
3.7679, 4, -37.0372, 0.653893, 20.5477, -160.567, -92.6089, 54.7944
3.77593, 4, -37.0372, 0.653887, 20.5477, -160.567, -92.6089, 54.7944
3.7839, 4, -37.0372, 0.653888, 20.5477, -160.567, -92.6089, 54.7944
3.79197, 4, -37.0372, 0.653885, 20.5477, -160.567, -92.6089, 54.7944
3.79886, 4, -37.0372, 0.65388, 20.5477, -160.567, -92.6089, 54.7944
3.80806, 4, -37.0372, 0.653891, 20.5477, -160.566, -92.6089, 54.7944
3.81486, 4, -37.0372, 0.653895, 20.5477, -160.566, -92.6089, 54.7944
3.82422, 4, -37.0372, 0.6539, 20.5476, -160.566, -92.6089, 54.7944
3.83102, 4, -37.0372, 0.65389, 20.5476, -160.566, -92.6089, 54.7944
3.85469, 4, -37.0372, 0.653875, 20.5476, -160.566, -92.6089, 54.7944
3.85751, 4, -37.0372, 0.653884, 20.5476, -160.566, -92.6089, 54.7944
3.85926, 4, -37.0372, 0.653884, 20.5476, -160.566, -92.6089, 54.7944
3.86994, 4, -37.0371, 0.653909, 20.5476, -160.566, -92.6089, 54.7944
3.87257, 4, -37.0371, 0.653896, 20.5476, -160.566, -92.6089, 54.7944
3.88061, 4, -37.0369, 0.65376, 20.5476, -160.566, -92.6089, 54.7944
3.88698, 4, -37.0354, 0.653455, 20.5476, -160.566, -92.6089, 54.7944
3.89582, 4, -37.0314, 0.651696, 20.5481, -160.566, -92.6089, 54.7945
3.9056, 4, -37.0186, 0.643936, 20.5512, -160.566, -92.6089, 54.7944
3.91335, 4, -37.0124, 0.634346, 20.5566, -160.565, -92.609, 54.7944
3.91991, 4, -36.9969, 0.628058, 20.5609, -160.565, -92.609, 54.7944
3.92782, 5, -36.976, 0.612029, 20.5733, -160.562, -92.609, 54.7943
3.9359, 5, -36.9494, 0.591634, 20.5921, -160.559, -92.6088, 54.7943
3.94386, 5, -36.9177, 0.566732, 20.6174, -160.553, -92.6085, 54.7943
3.95182, 5, -36.8813, 0.537371, 20.6498, -160.546, -92.608, 54.7943
3.95998, 5, -36.8399, 0.503459, 20.6884, -160.538, -92.607, 54.7942
3.96783, 5, -36.7933, 0.464721, 20.7324, -160.528, -92.6057, 54.7942
3.97588, 5, -36.7417, 0.421701, 20.781, -160.517, -92.6041, 54.7942
3.9844, 5, -36.6853, 0.374969, 20.8326, -160.505, -92.6024, 54.7942
3.9918, 5, -36.625, 0.32545, 20.8864, -160.493, -92.6006, 54.7941
3.99884, 5, -36.5608, 0.273784, 20.9413, -160.481, -92.5988, 54.7941
4.00783, 5, -36.4941, 0.220716, 20.9967, -160.469, -92.5968, 54.7942
4.01681, 5, -36.4263, 0.167038, 21.0522, -160.457, -92.595, 54.7942
4.0239, 5, -36.3578, 0.113094, 21.1078, -160.445, -92.593, 54.7942
4.03297, 5, -36.2892, 0.0591063, 21.1633, -160.433, -92.5911, 54.7942
4.03988, 5, -36.2203, 0.00520993, 21.2189, -160.421, -92.5891, 54.7942
4.04782, 5, -36.1515, -0.0484378, 21.2744, -160.409, -92.5871, 54.7943
4.05598, 5, -36.0829, -0.101842, 21.3298, -160.396, -92.5851, 54.7944
4.06763, 5, -35.98, -0.18154, 21.4128, -160.377, -92.582, 54.7945
4.07181, 5, -35.9457, -0.208007, 21.4405, -160.371, -92.581, 54.7946
4.07981, 5, -35.8771, -0.260771, 21.4957, -160.358, -92.5789, 54.7949
4.08793, 5, -35.8084, -0.313438, 21.5508, -160.345, -92.5768, 54.7953
4.09582, 5, -35.7394, -0.36616, 21.6059, -160.333, -92.5747, 54.7959
4.10511, 5, -35.6701, -0.418831, 21.6607, -160.32, -92.5726, 54.7968
4.11201, 5, -35.6006, -0.471583, 21.7153, -160.308, -92.5705, 54.7979
4.11988, 5, -35.5309, -0.524406, 21.7698, -160.295, -92.5684, 54.7991
4.13124, 5, -35.4257, -0.603667, 21.8512, -160.276, -92.5652, 54.8013
4.13598, 5, -35.3906, -0.630083, 21.8782, -160.27, -92.5642, 54.8021
4.1438, 5, -35.3201, -0.682886, 21.9323, -160.257, -92.562, 54.8038
4.15189, 5, -35.2496, -0.735612, 21.9862, -160.244, -92.5598, 54.8056
4.15997, 5, -35.1791, -0.788028, 22.0399, -160.23, -92.5577, 54.8075
4.167, 5, -35.1084, -0.840283, 22.0937, -160.217, -92.5554, 54.8095
4.17502, 5, -35.0379, -0.89246, 22.1473, -160.204, -92.5532, 54.8117
4.18413, 5, -34.9674, -0.944257, 22.2008, -160.191, -92.551, 54.814
4.19183, 5, -34.897, -0.9959, 22.2542, -160.178, -92.5487, 54.8165
4.19982, 5, -34.8264, -1.04734, 22.3075, -160.165, -92.5465, 54.8191
4.20969, 5, -34.7559, -1.0987, 22.3605, -160.152, -92.5442, 54.8217
4.21605, 5, -34.6852, -1.15009, 22.4134, -160.139, -92.542, 54.8245
4.22405, 5, -34.6142, -1.20138, 22.4662, -160.126, -92.5397, 54.8273
4.23214, 5, -34.5433, -1.25279, 22.5186, -160.113, -92.5374, 54.8304
4.23986, 5, -34.4722, -1.30415, 22.571, -160.1, -92.5351, 54.8335
4.24742, 5, -34.4365, -1.32985, 22.6233, -160.086, -92.5327, 54.8366
4.25644, 5, -34.3291, -1.40691, 22.6754, -160.072, -92.5304, 54.8398
4.26405, 5, -34.2575, -1.45816, 22.7273, -160.058, -92.528, 54.8433
4.27184, 5, -34.1856, -1.50926, 22.7793, -160.045, -92.5257, 54.8469
4.28076, 5, -34.1137, -1.56008, 22.831, -160.031, -92.5233, 54.8505
4.28825, 5, -34.0416, -1.6108, 22.8826, -160.018, -92.521, 54.8543
4.29645, 5, -33.9694, -1.66126, 22.9342, -160.004, -92.5186, 54.8582
4.30403, 5, -33.8973, -1.71143, 22.9856, -159.991, -92.5162, 54.8622
4.31231, 5, -33.8252, -1.76144, 23.0368, -159.977, -92.5138, 54.8663
4.32109, 5, -33.753, -1.8114, 23.0878, -159.963, -92.5115, 54.8705
4.3268, 5, -33.7169, -1.83636, 23.1133, -159.956, -92.5104, 54.8725
4.33704, 5, -33.6083, -1.91111, 23.1894, -159.935, -92.5069, 54.8789
4.34284, 5, -33.572, -1.93609, 23.2147, -159.928, -92.5057, 54.881
4.35234, 5, -33.4628, -2.01147, 23.2905, -159.906, -92.5023, 54.8871
4.36128, 5, -33.3899, -2.06209, 23.3409, -159.892, -92.5, 54.8902
4.36687, 5, -33.3536, -2.08754, 23.366, -159.885, -92.4988, 54.8912
4.37637, 6, -33.2811, -2.13878, 23.4418, -159.864, -92.4951, 54.8921
4.38695, 6, -33.1728, -2.21703, 23.4924, -159.849, -92.4923, 54.8904
4.39096, 6, -33.1369, -2.24355, 23.518, -159.842, -92.4907, 54.8885
4.39978, 6, -33.0655, -2.29727, 23.5696, -159.825, -92.4869, 54.881
4.4078, 7, -32.9945, -2.35209, 23.6221, -159.808, -92.4819, 54.8683
4.41496, 7, -32.924, -2.40802, 23.6759, -159.789, -92.4754, 54.8529
4.42387, 7, -32.8541, -2.46536, 23.731, -159.769, -92.4669, 54.8354
4.43081, 7, -32.7847, -2.52422, 23.7877, -159.748, -92.4564, 54.8178
4.43981, 7, -32.716, -2.58466, 23.8457, -159.726, -92.4439, 54.8004
4.44784, 8, -32.6479, -2.64676, 23.9052, -159.702, -92.4293, 54.7836
4.4548, 8, -32.5806, -2.71061, 23.9659, -159.677, -92.4128, 54.7668
4.46402, 8, -32.514, -2.77621, 24.0278, -159.651, -92.3945, 54.7493
4.47184, 8, -32.4481, -2.84337, 24.0907, -159.623, -92.3744, 54.7309
4.4798, 8, -32.3829, -2.91206, 24.1547, -159.596, -92.3529, 54.7107
4.4878, 9, -32.3182, -2.98207, 24.2196, -159.567, -92.3305, 54.6889
4.49589, 9, -32.2542, -3.0534, 24.2855, -159.537, -92.3069, 54.6652
4.50388, 9, -32.1906, -3.12612, 24.3524, -159.506, -92.2819, 54.6398
4.51199, 9, -32.1278, -3.20004, 24.4203, -159.474, -92.2553, 54.6132
4.52217, 9, -32.0654, -3.27528, 24.5239, -159.425, -92.212, 54.571
4.52783, 10, -32.0035, -3.35183, 24.559, -159.408, -92.1971, 54.556
4.53755, 10, -31.9423, -3.42977, 24.6299, -159.373, -92.1664, 54.5248
4.54295, 10, -31.8817, -3.50915, 24.7019, -159.336, -92.1344, 54.4914
4.55281, 10, -31.8216, -3.58992, 24.775, -159.3, -92.1003, 54.4564
4.56058, 10, -31.762, -3.67216, 24.849, -159.263, -92.0648, 54.4204
4.56681, 11, -31.7031, -3.75581, 24.924, -159.224, -92.0284, 54.383
4.57582, 11, -31.6446, -3.84103, 25, -159.185, -91.9911, 54.344
4.58664, 11, -31.5581, -3.97152, 25.1157, -159.124, -91.9312, 54.2817
4.59202, 11, -31.5294, -4.01574, 25.1547, -159.103, -91.9106, 54.2602
4.59894, 11, -31.4727, -4.1053, 25.2336, -159.06, -91.869, 54.2166
4.60778, 12, -31.4165, -4.19639, 25.3136, -159.018, -91.8257, 54.1716
4.61588, 12, -31.3606, -4.28883, 25.3945, -158.974, -91.7803, 54.1244
4.62389, 12, -31.3053, -4.38268, 25.4766, -158.928, -91.7344, 54.0755
4.63183, 12, -31.2505, -4.47784, 25.5598, -158.882, -91.6872, 54.0257
4.63995, 12, -31.1963, -4.57439, 25.6439, -158.836, -91.6379, 53.9743
4.64769, 13, -31.1426, -4.67237, 25.729, -158.787, -91.5878, 53.9207
4.65582, 13, -31.0893, -4.77177, 25.815, -158.738, -91.5363, 53.8661
4.66408, 13, -31.0366, -4.87253, 25.902, -158.689, -91.4828, 53.8103
4.67206, 13, -30.9844, -4.97492, 25.99, -158.638, -91.4288, 53.7524
4.67905, 13, -30.9326, -5.07879, 26.0792, -158.587, -91.3729, 53.6931
4.68715, 13, -30.8815, -5.18397, 26.1695, -158.535, -91.3157, 53.633
4.69589, 14, -30.8309, -5.2907, 26.2609, -158.481, -91.2579, 53.5706
4.70386, 14, -30.7808, -5.39888, 26.3531, -158.427, -91.1975, 53.5072
4.71195, 14, -30.7313, -5.50852, 26.4462, -158.372, -91.1371, 53.443
4.7232, 14, -30.6822, -5.61973, 26.5403, -158.315, -91.0425, 53.3424
4.7279, 14, -30.6337, -5.73241, 26.6356, -158.259, -91.0107, 53.3086
4.73635, 15, -30.5857, -5.84646, 26.7319, -158.2, -90.9457, 53.2399
4.74341, 15, -30.5383, -5.96172, 26.8295, -158.142, -90.8788, 53.1688
4.7519, 15, -30.4914, -6.07839, 26.928, -158.082, -90.8115, 53.0972
4.76271, 15, -30.4448, -6.19658, 27.0275, -158.022, -90.7419, 53.0236
4.76813, 15, -30.3989, -6.31602, 27.1278, -157.96, -90.6717, 52.9481
4.77584, 16, -30.3536, -6.43713, 27.2291, -157.897, -90.5994, 52.872
4.78416, 16, -30.3087, -6.55973, 27.3316, -157.834, -90.5267, 52.7933
4.79164, 16, -30.2864, -6.62152, 27.3833, -157.802, -90.4896, 52.7538
4.80091, 16, -30.2203, -6.8092, 27.54, -157.705, -90.3764, 52.6331
4.80799, 16, -30.1769, -6.9362, 27.6457, -157.639, -90.2991, 52.5509
4.81479, 17, -30.1553, -7.00029, 27.6989, -157.605, -90.2602, 52.5095
4.8242, 17, -30.0914, -7.19501, 27.8597, -157.504, -90.1411, 52.3825
4.83086, 17, -30.0703, -7.26067, 27.9138, -157.47, -90.1007, 52.34
4.84056, 17, -30.0079, -7.45952, 28.0777, -157.366, -89.9776, 52.2089
4.8493, 17, -29.9668, -7.59377, 28.1886, -157.295, -89.8938, 52.1204
4.85475, 18, -29.9465, -7.66148, 28.2445, -157.26, -89.8515, 52.0753
4.86569, 18, -29.8863, -7.86665, 28.4133, -157.151, -89.7223, 51.9389
4.87101, 18, -29.8665, -7.93576, 28.47, -157.115, -89.6789, 51.8924
4.88286, 18, -29.8077, -8.14488, 28.6415, -157.004, -89.5463, 51.7518
4.88776, 18, -29.7883, -8.21523, 28.6992, -156.966, -89.5014, 51.7039
4.89482, 19, -29.75, -8.35693, 28.8156, -156.891, -89.4107, 51.608
4.90445, 19, -29.7122, -8.50021, 28.9332, -156.814, -89.319, 51.5105
4.9118, 19, -29.6748, -8.64511, 29.0517, -156.737, -89.2258, 51.4123
4.91994, 19, -29.6378, -8.79142, 29.1709, -156.659, -89.1314, 51.3126
4.92779, 19, -29.6014, -8.93888, 29.2909, -156.58, -89.0361, 51.2125
4.93579, 20, -29.5654, -9.08778, 29.412, -156.5, -88.9395, 51.1104
4.94384, 20, -29.53, -9.23822, 29.5344, -156.419, -88.8418, 51.0075
4.95183, 20, -29.4948, -9.39018, 29.6579, -156.338, -88.7433, 50.9032
4.95983, 20, -29.4602, -9.54338, 29.7821, -156.255, -88.6435, 50.7979
4.96792, 20, -29.4261, -9.69766, 29.9072, -156.172, -88.5427, 50.6912
4.97603, 21, -29.3924, -9.85324, 30.0333, -156.087, -88.4408, 50.5833
4.98384, 21, -29.3591, -10.0103, 30.1604, -156.002, -88.3376, 50.4745
4.99081, 21, -29.3262, -10.1689, 30.2886, -155.916, -88.2335, 50.3645
4.99979, 21, -29.2937, -10.3286, 30.4178, -155.829, -88.1285, 50.2537
5.00679, 21, -29.2618, -10.4892, 30.5478, -155.741, -88.022, 50.1422
5.01598, 22, -29.2302, -10.6512, 30.6786, -155.653, -87.915, 50.0296
5.02303, 22, -29.199, -10.8146, 30.8105, -155.563, -87.8068, 49.9164
5.03383, 22, -29.1529, -11.0619, 31.01, -155.427, -87.6427, 49.7447
5.04006, 22, -29.1378, -11.1448, 31.0769, -155.381, -87.5874, 49.6868
5.04858, 22, -29.1078, -11.3113, 31.2115, -155.289, -87.4761, 49.5707
5.05486, 22, -29.0782, -11.4795, 31.3471, -155.196, -87.364, 49.4537
5.06392, 23, -29.0489, -11.6493, 31.4835, -155.102, -87.251, 49.3361
5.0718, 23, -29.0199, -11.8201, 31.6206, -155.007, -87.1369, 49.2177
5.07979, 23, -28.9914, -11.9917, 31.7585, -154.912, -87.0222, 49.0988
5.09019, 23, -28.9633, -12.2514, 31.9671, -154.767, -86.8481, 48.9195
5.09596, 23, -28.9355, -12.3388, 32.0371, -154.718, -86.7897, 48.8593
5.1039, 24, -28.9082, -12.5143, 32.1778, -154.62, -86.6721, 48.7387
5.11179, 24, -28.881, -12.6902, 32.3192, -154.521, -86.5534, 48.6177
5.11997, 24, -28.8543, -12.8669, 32.4611, -154.421, -86.4342, 48.4957
5.1278, 24, -28.8279, -13.0451, 32.604, -154.32, -86.3139, 48.3732
5.13587, 24, -28.8019, -13.2247, 32.748, -154.219, -86.1931, 48.2503
5.14384, 25, -28.7761, -13.4049, 32.8927, -154.116, -86.0716, 48.1269
5.15178, 25, -28.7506, -13.5858, 33.038, -154.013, -85.949, 48.0035
5.15985, 25, -28.7254, -13.7679, 33.1838, -153.909, -85.8263, 47.88
5.16803, 25, -28.7002, -13.9514, 33.3303, -153.805, -85.7023, 47.7562
5.17579, 25, -28.6755, -14.1357, 33.4778, -153.699, -85.578, 47.6322
5.18385, 26, -28.6511, -14.3203, 33.626, -153.593, -85.453, 47.5084
5.19192, 26, -28.6269, -14.5061, 33.7745, -153.486, -85.3274, 47.384
5.19981, 26, -28.6031, -14.6933, 33.9237, -153.378, -85.2014, 47.2596
5.20797, 26, -28.5794, -14.8812, 34.0739, -153.27, -85.0744, 47.1354
5.21626, 26, -28.5558, -15.0692, 34.2247, -153.16, -84.9472, 47.0111
5.22413, 27, -28.5325, -15.2579, 34.3758, -153.05, -84.8193, 46.8872
5.23213, 27, -28.5094, -15.4477, 34.5274, -152.94, -84.691, 46.764
5.23937, 27, -28.4865, -15.6379, 34.6796, -152.828, -84.5621, 46.6405
5.24854, 27, -28.4638, -15.8282, 34.8327, -152.716, -84.4327, 46.5174
5.25593, 27, -28.4414, -16.0197, 34.9862, -152.604, -84.303, 46.3948
5.26398, 28, -28.4191, -16.2128, 35.1397, -152.49, -84.173, 46.2723
5.2725, 28, -28.3968, -16.4064, 35.2938, -152.376, -84.0425, 46.1502
5.27985, 28, -28.3746, -16.6004, 35.4488, -152.261, -83.9115, 46.0288
5.29182, 28, -28.3416, -16.8931, 35.6819, -152.088, -83.7148, 45.848
5.29492, 28, -28.3416, -16.8931, 35.6819, -152.088, -83.7148, 45.848
5.30402, 28, -28.3085, -17.1868, 35.9155, -151.913, -83.5174, 45.669
5.31077, 29, -28.2975, -17.2846, 35.9937, -151.854, -83.4514, 45.6097
5.31893, 29, -28.2758, -17.4809, 36.1505, -151.737, -83.3192, 45.492
5.32923, 29, -28.243, -17.7768, 36.386, -151.559, -83.1202, 45.3172
5.33482, 29, -28.2322, -17.8755, 36.4645, -151.499, -83.0538, 45.2593
5.34438, 29, -28.2, -18.1718, 36.7009, -151.32, -82.8544, 45.0874
5.35316, 30, -28.1786, -18.3704, 36.8593, -151.199, -82.7211, 44.9738
5.35883, 30, -28.1679, -18.4699, 36.9386, -151.139, -82.6545, 44.9176
5.36942, 30, -28.1359, -18.7686, 37.1763, -150.956, -82.454, 44.7507
5.37723, 30, -28.1147, -18.9684, 37.3351, -150.834, -82.3203, 44.6411
5.38276, 30, -28.104, -19.0688, 37.4148, -150.772, -82.2531, 44.5871
5.39327, 31, -28.0826, -19.27, 37.5746, -150.649, -82.052, 44.4267
5.39885, 31, -28.0612, -19.471, 37.734, -150.525, -81.9848, 44.374
5.4088, 31, -28.0294, -19.7728, 37.9734, -150.338, -81.7833, 44.2186
5.41722, 31, -28.008, -19.9743, 38.1338, -150.212, -81.649, 44.1168
5.42528, 31, -27.9973, -20.1754, 38.2942, -150.086, -81.5144, 44.017
5.43184, 32, -27.9757, -20.2759, 38.3742, -150.023, -81.4473, 43.9678
5.44255, 32, -27.9429, -20.578, 38.6138, -149.833, -81.246, 43.8234
5.44797, 32, -27.9318, -20.6789, 38.6938, -149.77, -81.1791, 43.7764
5.45477, 32, -27.9093, -20.8803, 38.8539, -149.642, -81.045, 43.6841
5.46392, 32, -27.8868, -21.0811, 39.0136, -149.515, -80.9114, 43.595
5.47187, 33, -27.8639, -21.2822, 39.1725, -149.388, -80.7782, 43.5083
5.47977, 33, -27.8407, -21.4829, 39.3314, -149.26, -80.6455, 43.4252
5.48779, 33, -27.8171, -21.6828, 39.4904, -149.132, -80.5131, 43.3445
5.49948, 33, -27.7807, -21.9816, 39.7274, -148.941, -80.3155, 43.2303
5.50387, 33, -27.7683, -22.0812, 39.806, -148.877, -80.2497, 43.1936
5.51177, 34, -27.7432, -22.2798, 39.9628, -148.75, -80.1185, 43.1232
5.52076, 34, -27.7177, -22.4772, 40.1196, -148.622, -79.9879, 43.0562
5.52784, 34, -27.6916, -22.6742, 40.2759, -148.494, -79.8571, 42.9916
5.53682, 34, -27.6652, -22.8712, 40.4314, -148.366, -79.7265, 42.9309
5.54398, 34, -27.6383, -23.0674, 40.5865, -148.239, -79.5957, 42.8736
5.552, 35, -27.6108, -23.2629, 40.7417, -148.111, -79.4651, 42.8189
5.5608, 35, -27.5832, -23.4586, 40.8968, -147.982, -79.3343, 42.7677
5.56821, 35, -27.5554, -23.6545, 41.0512, -147.853, -79.2039, 42.7205
5.57649, 35, -27.5272, -23.8499, 41.2052, -147.724, -79.0738, 42.6765
5.58389, 35, -27.4988, -24.0446, 41.3594, -147.594, -78.9435, 42.6355
5.59277, 36, -27.4701, -24.2394, 41.5136, -147.464, -78.8138, 42.598
5.59978, 36, -27.4409, -24.434, 41.6671, -147.334, -78.6838, 42.5647
5.60784, 36, -27.4114, -24.6277, 41.8199, -147.203, -78.5548, 42.5358
5.61927, 36, -27.3665, -24.9173, 42.0488, -147.007, -78.3615, 42.5003
5.62402, 36, -27.3512, -25.0138, 42.1248, -146.941, -78.2975, 42.4907
5.63203, 37, -27.3199, -25.2064, 42.2762, -146.81, -78.1695, 42.4747
5.63978, 37, -27.2878, -25.3977, 42.4264, -146.68, -78.042, 42.4633
5.64876, 37, -27.255, -25.588, 42.5756, -146.55, -77.915, 42.4568
5.65675, 37, -27.2213, -25.7778, 42.7241, -146.42, -77.7882, 42.4538
5.66384, 37, -27.1868, -25.9664, 42.8715, -146.291, -77.6622, 42.454
5.67193, 37, -27.1513, -26.1532, 43.0176, -146.163, -77.5364, 42.4599
5.67894, 38, -27.1151, -26.3389, 43.1626, -146.036, -77.4113, 42.4722
5.68704, 38, -27.0782, -26.524, 43.3068, -145.908, -77.2868, 42.4895
5.69535, 38, -27.0404, -26.7078, 43.4502, -145.781, -77.1626, 42.5124
5.70409, 38, -27.0018, -26.8901, 43.5928, -145.654, -77.0389, 42.5407
5.71186, 38, -26.9624, -27.0714, 43.7344, -145.527, -76.9155, 42.5749
5.71984, 39, -26.9222, -27.2526, 43.875, -145.401, -76.7928, 42.6154
5.72787, 39, -26.8813, -27.4327, 44.0148, -145.275, -76.6699, 42.6618
5.73592, 39, -26.8395, -27.6115, 44.1538, -145.149, -76.5475, 42.7136
5.74421, 39, -26.7968, -27.7894, 44.2917, -145.023, -76.4251, 42.7714
5.75272, 39, -26.7534, -27.967, 44.4284, -144.897, -76.3029, 42.8362
5.75989, 40, -26.709, -28.1436, 44.564, -144.773, -76.1807, 42.9063
5.76982, 40, -26.6635, -28.3184, 44.6985, -144.648, -76.0588, 42.9834
5.77675, 40, -26.6171, -28.4919, 44.8319, -144.525, -75.9375, 43.0667
5.78388, 40, -26.5698, -28.6645, 44.964, -144.402, -75.8161, 43.1561
5.79184, 40, -26.5213, -28.8358, 45.0947, -144.28, -75.6957, 43.2527
5.80036, 41, -26.4718, -29.0052, 45.2241, -144.159, -75.5755, 43.3555
5.80676, 41, -26.4467, -29.0892, 45.2883, -144.098, -75.5153, 43.4097
5.81597, 41, -26.3696, -29.3396, 45.4791, -143.918, -75.3363, 43.5819
5.82492, 41, -26.3166, -29.505, 45.6045, -143.8, -75.2171, 43.7056
5.83213, 41, -26.2624, -29.6683, 45.7283, -143.682, -75.0988, 43.8366
5.83872, 42, -26.2347, -29.7492, 45.7895, -143.624, -75.0398, 43.9048
5.84997, 42, -26.1495, -29.9894, 45.9703, -143.451, -74.8632, 44.1205
5.85644, 42, -26.0906, -30.1473, 46.0882, -143.338, -74.7465, 44.2729
5.86514, 42, -26.03, -30.3029, 46.2039, -143.227, -74.63, 44.4325
5.87261, 42, -25.9679, -30.4559, 46.3175, -143.118, -74.5142, 44.5993
5.88036, 42, -25.904, -30.6067, 46.4288, -143.011, -74.3989, 44.7734
5.88911, 43, -25.8714, -30.6813, 46.4836, -142.906, -74.284, 44.9552
5.89503, 43, -25.8049, -30.8288, 46.5917, -142.854, -74.2268, 45.0489
5.90596, 43, -25.7022, -31.0459, 46.7501, -142.7, -74.0553, 45.3418
5.91179, 43, -25.6671, -31.117, 46.8019, -142.65, -73.9985, 45.4432
5.91978, 43, -25.5959, -31.2578, 46.9043, -142.551, -73.8852, 45.6518
5.92778, 44, -25.5232, -31.3965, 47.0045, -142.454, -73.7724, 45.8683
5.93478, 44, -25.4486, -31.5332, 47.1025, -142.36, -73.6604, 46.0929
5.9439, 44, -25.3722, -31.6677, 47.198, -142.267, -73.5489, 46.3254
5.95318, 44, -25.2942, -31.7996, 47.3367, -142.133, -73.3827, 46.6897
5.95875, 44, -25.2143, -31.9289, 47.3818, -142.089, -73.3277, 46.8151
5.96778, 45, -25.1325, -32.0554, 47.4701, -142.005, -73.218, 47.0725
5.97474, 45, -25.0487, -32.1791, 47.556, -141.923, -73.1088, 47.3385
5.98376, 45, -24.9628, -32.3, 47.6391, -141.844, -73.0003, 47.6126
5.99431, 45, -24.8299, -32.4756, 47.758, -141.731, -72.8381, 48.0391
6, 45, -24.7843, -32.5326, 47.7962, -141.694, -72.7843, 48.1855
6.00775, 46, -24.6916, -32.6439, 47.8703, -141.624, -72.6772, 48.4852
6.01481, 46, -24.5965, -32.7518, 47.9414, -141.557, -72.5705, 48.7931
6.02392, 46, -24.4989, -32.8563, 48.0096, -141.494, -72.4648, 49.1094
6.03189, 46, -24.399, -32.9572, 48.0747, -141.435, -72.3597, 49.4346
6.0408, 46, -24.2969, -33.0543, 48.1364, -141.379, -72.2556, 49.7684
6.04777, 47, -24.1924, -33.1477, 48.1946, -141.328, -72.1528, 50.11
6.05584, 47, -24.0856, -33.2371, 48.2492, -141.28, -72.0508, 50.4601
6.06375, 47, -23.976, -33.3225, 48.3002, -141.236, -71.9501, 50.8189
6.07175, 47, -23.8639, -33.4038, 48.3474, -141.198, -71.8507, 51.1856
6.07982, 47, -23.7491, -33.481, 48.3906, -141.164, -71.7525, 51.5612
6.08773, 48, -23.6315, -33.5539, 48.43, -141.135, -71.6558, 51.9451
6.09592, 48, -23.5111, -33.6224, 48.4651, -141.109, -71.5609, 52.3372
6.10321, 48, -23.3883, -33.6862, 48.496, -141.089, -71.4675, 52.7384
6.11112, 48, -23.263, -33.7453, 48.5229, -141.074, -71.3758, 53.1485
6.11917, 48, -23.135, -33.7992, 48.5454, -141.064, -71.2865, 53.5668
6.12803, 49, -23.0042, -33.8482, 48.5634, -141.059, -71.199, 53.9943
6.13578, 49, -22.8705, -33.8918, 48.5772, -141.058, -71.1133, 54.4291
6.14476, 49, -22.7339, -33.93, 48.5862, -141.063, -71.03, 54.8716
6.15176, 49, -22.5943, -33.9626, 48.5905, -141.074, -70.9484, 55.3221
6.15976, 49, -22.4519, -33.9894, 48.5904, -141.092, -70.8693, 55.7802
6.16874, 50, -22.3066, -34.0103, 48.5855, -141.115, -70.7924, 56.2461
6.17593, 50, -22.1587, -34.025, 48.5754, -141.145, -70.7187, 56.719
6.18473, 50, -22.0081, -34.0333, 48.5602, -141.18, -70.6474, 57.1998
6.19524, 50, -21.7768, -34.0347, 48.5275, -141.244, -70.5465, 57.936
6.19997, 50, -21.6982, -34.032, 48.5138, -141.269, -70.5145, 58.1853
6.20821, 50, -21.5385, -34.0215, 48.4823, -141.323, -70.4538, 58.6889
6.21597, 51, -21.376, -34.0042, 48.4455, -141.384, -70.3958, 59.1982
6.22406, 51, -21.2109, -33.9801, 48.4031, -141.45, -70.3421, 59.7142
6.23214, 51, -21.0431, -33.9488, 48.3551, -141.523, -70.2921, 60.2362
6.23931, 51, -20.8728, -33.9104, 48.3015, -141.602, -70.2454, 60.764
6.24803, 51, -20.7, -33.8645, 48.2422, -141.688, -70.2031, 61.2969
6.2565, 52, -20.5245, -33.8107, 48.1768, -141.78, -70.1659, 61.8366
6.26393, 52, -20.3463, -33.7492, 48.1055, -141.878, -70.133, 62.3829
6.27327, 52, -20.1651, -33.6794, 48.028, -141.982, -70.1044, 62.9359
6.28477, 52, -19.8885, -33.5593, 47.9001, -142.151, -70.0714, 63.7763
6.28787, 52, -19.795, -33.5151, 47.8544, -142.211, -70.063, 64.0596
6.29582, 53, -19.6065, -33.4202, 47.7582, -142.334, -70.0506, 64.63
6.30395, 53, -19.4162, -33.317, 47.6561, -142.464, -70.0436, 65.2054
6.31197, 53, -19.2238, -33.2058, 47.5481, -142.599, -70.0415, 65.7842
6.31873, 53, -19.127, -33.1471, 47.4919, -142.669, -70.0422, 66.0751
6.33269, 54, -18.7354, -32.8915, 47.2523, -142.96, -70.0605, 67.2454
6.33619, 54, -18.6364, -32.8224, 47.1887, -143.036, -70.069, 67.5388
6.34273, 54, -18.5369, -32.7513, 47.1237, -143.113, -70.0791, 67.8323
6.35231, 54, -18.2356, -32.5256, 46.9205, -143.351, -70.1198, 68.7152
6.36045, 54, -18.0327, -32.3648, 46.778, -143.515, -70.1547, 69.3057
6.36831, 54, -17.8286, -32.1951, 46.6296, -143.683, -70.196, 69.8977
6.37658, 55, -17.6238, -32.0162, 46.4748, -143.856, -70.2454, 70.4923
6.38462, 55, -17.4176, -31.8278, 46.3137, -144.034, -70.3025, 71.0914
6.39292, 55, -17.2098, -31.6302, 46.1459, -144.217, -70.3674, 71.695
6.40123, 55, -17.0005, -31.4225, 45.9705, -144.405, -70.4416, 72.3027
6.4092, 55, -16.8951, -31.2039, 45.7876, -144.598, -70.5242, 72.9158
6.41496, 56, -16.6831, -31.0906, 45.6936, -144.697, -70.5694, 73.2243
6.42376, 56, -16.4694, -30.8563, 45.5006, -144.897, -70.6659, 73.8443
6.43191, 56, -16.2546, -30.611, 45.2999, -145.101, -70.7715, 74.4673
6.44182, 56, -15.9319, -30.2228, 44.9851, -145.415, -70.948, 75.4077
6.4478, 56, -15.8244, -30.0883, 44.8773, -145.522, -71.0114, 75.7226
6.45594, 57, -15.6091, -29.8108, 44.6566, -145.737, -71.1454, 76.3531
6.46378, 57, -15.3925, -29.5232, 44.4286, -145.955, -71.289, 76.9844
6.4718, 57, -15.1749, -29.2253, 44.1947, -146.175, -71.4424, 77.6169
6.47974, 57, -14.9566, -28.9173, 43.9544, -146.398, -71.6053, 78.25
6.4878, 57, -14.7385, -28.6009, 43.7082, -146.621, -71.7778, 78.8812
6.4957, 58, -14.5209, -28.2761, 43.4579, -146.846, -71.9592, 79.5104
6.50391, 58, -14.3043, -27.9443, 43.203, -147.069, -72.1485, 80.1362
6.5118, 58, -14.0891, -27.6044, 42.9447, -147.292, -72.3453, 80.7567
6.51976, 58, -13.8755, -27.2575, 42.6838, -147.513, -72.5491, 81.3697
6.52873, 58, -13.6634, -26.9036, 42.4196, -147.732, -72.7597, 81.9765
6.53582, 58, -13.4524, -26.5436, 42.153, -147.949, -72.9771, 82.5771
6.54381, 59, -13.2428, -26.1762, 41.8825, -148.163, -73.2015, 83.1714
6.55409, 59, -12.9321, -25.6127, 41.4703, -148.482, -73.5527, 84.0537
6.55972, 59, -12.8293, -25.4215, 41.331, -148.587, -73.674, 84.3461
6.56774, 59, -12.6243, -25.0339, 41.0491, -148.797, -73.9227, 84.9284
6.57574, 59, -12.4204, -24.6384, 40.7635, -149.005, -74.1807, 85.507
6.58381, 60, -12.2174, -24.2352, 40.4728, -149.211, -74.4477, 86.0826
6.59175, 60, -12.0159, -23.8246, 40.1786, -149.416, -74.7237, 86.6553
6.60096, 60, -11.8157, -23.4078, 39.8806, -149.619, -75.0084, 87.225
6.60791, 60, -11.6171, -22.9846, 39.5805, -149.819, -75.3015, 87.7891
6.6158, 60, -11.4207, -22.5562, 39.2783, -150.016, -75.6018, 88.3484
6.62452, 61, -11.2267, -22.1238, 38.9748, -150.209, -75.9085, 88.9013
6.6318, 61, -11.0351, -21.6875, 38.6707, -150.397, -76.2204, 89.4459
6.6398, 61, -10.8458, -21.2478, 38.3661, -150.581, -76.5364, 89.9809
6.65117, 61, -10.5662, -20.5822, 37.91, -150.846, -77.0179, 90.7651
6.65587, 61, -10.4741, -20.3586, 37.7581, -150.932, -77.1802, 91.0218
6.66283, 62, -10.292, -19.9091, 37.4547, -151.1, -77.5081, 91.5287
6.67185, 62, -10.1129, -19.4565, 37.1507, -151.263, -77.8404, 92.0267
6.67994, 62, -9.93637, -19.0019, 36.8466, -151.421, -78.1778, 92.5167
6.688, 62, -9.7624, -18.5445, 36.5412, -151.575, -78.5205, 93.0001
6.69578, 62, -9.59088, -18.085, 36.2355, -151.725, -78.8684, 93.4757
6.70378, 63, -9.4216, -17.6242, 35.9297, -151.869, -79.221, 93.9438
6.71187, 63, -9.25439, -17.1617, 35.6247, -152.009, -79.5781, 94.4025
6.71977, 63, -9.08948, -16.6973, 35.3208, -152.144, -79.9384, 94.8516
6.72803, 63, -8.9272, -16.231, 35.018, -152.273, -80.3017, 95.2911
6.73532, 63, -8.76747, -15.7626, 34.7167, -152.397, -80.6674, 95.7198
6.74391, 63, -8.61037, -15.2926, 34.4168, -152.515, -81.0356, 96.1385
6.75227, 64, -8.4558, -14.8217, 34.1192, -152.628, -81.4061, 96.5461
6.76254, 64, -8.3036, -14.3497, 33.8223, -152.736, -81.7796, 96.9433
6.76827, 64, -8.22841, -14.1135, 33.6743, -152.788, -81.9675, 97.1382
6.77752, 64, -8.0065, -13.4051, 33.2318, -152.937, -82.5357, 97.7064
6.78359, 64, -7.93377, -13.1695, 32.9387, -153.029, -82.9179, 98.0712
6.79261, 65, -7.71928, -12.4641, 32.6476, -153.116, -83.302, 98.4244
6.7998, 65, -7.5798, -11.9952, 32.3593, -153.197, -83.6872, 98.7643
6.80879, 65, -7.44348, -11.528, 32.075, -153.272, -84.0729, 99.0906
6.81604, 65, -7.30986, -11.0615, 31.7938, -153.342, -84.4586, 99.4032
6.82273, 65, -7.24419, -10.8288, 31.6547, -153.374, -84.6513, 99.5542
6.83306, 66, -7.05094, -10.1346, 31.2428, -153.463, -85.2281, 99.9847
6.84019, 66, -6.92482, -9.67609, 30.9729, -153.515, -85.6118, 100.252
6.84672, 66, -6.86254, -9.44885, 30.8398, -153.539, -85.8033, 100.38
6.85661, 66, -6.67911, -8.77597, 30.4457, -153.602, -86.3747, 100.739
6.86538, 66, -6.55967, -8.33488, 30.1889, -153.638, -86.7521, 100.958
6.87226, 67, -6.44295, -7.9005, 29.9378, -153.667, -87.1251, 101.159
6.88144, 67, -6.32925, -7.47252, 29.6931, -153.691, -87.4933, 101.342
6.88841, 67, -6.21838, -7.05054, 29.4559, -153.709, -87.8558, 101.507
6.89636, 67, -6.1639, -6.84156, 29.3397, -153.721, -88.2124, 101.655
6.90373, 67, -6.05686, -6.42873, 29.1118, -153.725, -88.3886, 101.723
6.91388, 68, -5.90058, -5.82178, 28.7825, -153.731, -88.9103, 101.899
6.91978, 68, -5.84941, -5.62251, 28.6752, -153.731, -89.0825, 101.949
6.9278, 68, -5.74838, -5.22792, 28.4632, -153.727, -89.425, 102.036
6.93573, 68, -5.64898, -4.83884, 28.255, -153.718, -89.7661, 102.105
6.94373, 68, -5.55121, -4.4549, 28.0501, -153.705, -90.1065, 102.157
6.9518, 69, -5.45515, -4.07541, 27.8477, -153.688, -90.4462, 102.189
6.95987, 69, -5.36081, -3.69919, 27.6491, -153.666, -90.7858, 102.205
6.96783, 69, -5.26815, -3.32648, 27.4549, -153.64, -91.1249, 102.202
6.97573, 69, -5.17726, -2.95728, 27.2638, -153.609, -91.4633, 102.178
6.98765, 69, -5.04419, -2.41001, 26.9837, -153.556, -91.9691, 102.102
6.99175, 70, -5.00058, -2.22921, 26.8925, -153.536, -92.137, 102.065
6.99974, 70, -4.91428, -1.87085, 26.7128, -153.494, -92.4717, 101.977
7.00792, 70, -4.82922, -1.51725, 26.5363, -153.448, -92.8049, 101.865
7.01573, 70, -4.74524, -1.16914, 26.3639, -153.399, -93.1362, 101.732
7.02524, 70, -4.66234, -0.826038, 26.1962, -153.347, -93.4651, 101.576
7.03191, 71, -4.58046, -0.489611, 26.0322, -153.291, -93.7912, 101.399
7.03984, 71, -4.49961, -0.159576, 25.8723, -153.233, -94.1141, 101.201
7.04873, 71, -4.41978, 0.163514, 25.7176, -153.172, -94.4338, 100.982
7.05583, 71, -4.34091, 0.480377, 25.5684, -153.108, -94.7491, 100.743
7.06374, 71, -4.26287, 0.790963, 25.4242, -153.043, -95.0607, 100.483
7.07178, 71, -4.18561, 1.09442, 25.2846, -152.976, -95.3685, 100.204
7.08084, 72, -4.10893, 1.39143, 25.1493, -152.907, -95.6726, 99.9044
7.08794, 72, -4.03252, 1.68138, 25.0181, -152.836, -95.9736, 99.5847
7.09572, 72, -3.95641, 1.96504, 24.8902, -152.764, -96.2718, 99.2446
7.10727, 72, -3.84246, 2.37899, 24.7044, -152.655, -96.7144, 98.6957
7.11221, 72, -3.80448, 2.51376, 24.644, -152.619, -96.8609, 98.5018
7.11971, 73, -3.72865, 2.77924, 24.5255, -152.545, -97.1517, 98.0976
7.12784, 73, -3.65263, 3.03851, 24.4104, -152.471, -97.44, 97.6714
7.13578, 73, -3.57629, 3.29104, 24.2989, -152.398, -97.7256, 97.2225
7.14379, 73, -3.49962, 3.53737, 24.1911, -152.325, -98.008, 96.7527
7.15172, 73, -3.42254, 3.77678, 24.0874, -152.253, -98.2868, 96.2622
7.1599, 74, -3.34487, 4.0077, 23.9877, -152.182, -98.5614, 95.7527
7.16721, 74, -3.26652, 4.2305, 23.8918, -152.113, -98.8308, 95.2258
7.17574, 74, -3.1875, 4.44494, 23.8001, -152.045, -99.0946, 94.6845
7.18389, 74, -3.10782, 4.64966, 23.7126, -151.979, -99.3519, 94.1308
7.19193, 74, -3.02747, 4.84483, 23.6293, -151.916, -99.6022, 93.565
7.19989, 75, -2.94618, 5.03076, 23.5503, -151.854, -99.8444, 92.9892
7.2098, 75, -2.86393, 5.2066, 23.4754, -151.797, -100.078, 92.405
7.21589, 75, -2.78067, 5.37144, 23.4043, -151.741, -100.303, 91.8127
7.22382, 75, -2.69655, 5.52566, 23.337, -151.689, -100.519, 91.2125
7.23181, 75, -2.61153, 5.66925, 23.2736, -151.641, -100.726, 90.6048
7.23982, 76, -2.52552, 5.80164, 23.2143, -151.595, -100.924, 89.9897
7.24794, 76, -2.43852, 5.92265, 23.1593, -151.554, -101.112, 89.366
7.25582, 76, -2.35068, 6.03188, 23.1088, -151.517, -101.292, 88.7332
7.26422, 76, -2.26212, 6.12891, 23.0626, -151.483, -101.461, 88.0924
7.27136, 76, -2.21752, 6.17275, 23.0413, -151.467, -101.542, 87.4458
7.27974, 77, -2.08248, 6.28477, 22.9849, -151.427, -101.768, 86.7937
7.28879, 77, -1.99139, 6.34296, 22.9539, -151.405, -101.903, 86.1406
7.29469, 77, -1.94548, 6.36707, 22.9405, -151.396, -101.966, 85.8145
7.30464, 77, -1.8063, 6.41809, 22.909, -151.374, -102.132, 84.8404
7.31222, 77, -1.71252, 6.43439, 22.8952, -151.364, -102.224, 84.1955
7.32055, 78, -1.61794, 6.43624, 22.8874, -151.358, -102.302, 83.5553
7.32892, 78, -1.52263, 6.42296, 22.8849, -151.354, -102.364, 82.9194
7.33616, 78, -1.42675, 6.39435, 22.8881, -151.354, -102.41, 82.2868
7.3427, 78, -1.37866, 6.37425, 22.8919, -151.355, -102.427, 81.9721
7.35076, 78, -1.28222, 6.32202, 22.9041, -151.359, -102.45, 81.3465
7.36134, 78, -1.13716, 6.21342, 22.9345, -151.373, -102.455, 80.4184
7.36931, 79, -1.04024, 6.12083, 22.9634, -151.386, -102.436, 79.8075
7.37471, 79, -0.99171, 6.06852, 22.9806, -151.393, -102.42, 79.5052
7.38695, 79, -0.846245, 5.88734, 23.0433, -151.42, -102.346, 78.6124
7.39236, 79, -0.797747, 5.8187, 23.0946, -151.442, -102.274, 78.0289
7.40026, 79, -0.70073, 5.66898, 23.1231, -151.454, -102.232, 77.4555
7.40921, 80, -0.603672, 5.50279, 23.1856, -151.479, -102.133, 77.1729
7.4149, 80, -0.506588, 5.32005, 23.2558, -151.506, -102.016, 76.616
7.42369, 80, -0.409528, 5.12078, 23.334, -151.534, -101.88, 76.0688
7.43072, 80, -0.312642, 4.90443, 23.4204, -151.564, -101.726, 75.5312
7.43988, 80, -0.215887, 4.6698, 23.515, -151.596, -101.552, 75.003
7.44787, 81, -0.119263, 4.41752, 23.6185, -151.63, -101.36, 74.4848
7.45472, 81, -0.0227553, 4.14857, 23.7308, -151.664, -101.148, 73.9755
7.46374, 81, 0.0734738, 3.86238, 23.8523, -151.699, -100.917, 73.4754
7.47073, 81, 0.169538, 3.55988, 23.9834, -151.735, -100.666, 72.9848
7.47971, 81, 0.265421, 3.23999, 24.1243, -151.772, -100.397, 72.5038
7.48786, 82, 0.361028, 2.90288, 24.2752, -151.81, -100.108, 72.0326
7.49594, 82, 0.456448, 2.5491, 24.4354, -151.847, -99.8003, 71.5705
7.50372, 82, 0.551552, 2.17942, 24.6049, -151.885, -99.4734, 71.1181
7.5153, 82, 0.69387, 1.59469, 24.8773, -151.94, -98.9496, 70.4577
7.52151, 82, 0.788574, 1.18439, 25.0704, -151.976, -98.5787, 70.0307
7.53053, 83, 0.883367, 0.758715, 25.2728, -152.012, -98.1912, 69.6136
7.53475, 83, 0.930723, 0.540518, 25.3778, -152.03, -97.9914, 69.4089
7.5455, 83, 1.02547, 0.0931392, 25.5957, -152.064, -97.58, 68.8107
7.55188, 83, 1.12027, -0.368695, 25.8223, -152.097, -97.1534, 68.6163
7.55877, 83, 1.21515, -0.844825, 26.0578, -152.128, -96.7112, 68.2346
7.56804, 84, 1.31021, -1.33517, 26.3034, -152.158, -96.2542, 67.8631
7.57678, 84, 1.40548, -1.83908, 26.5584, -152.187, -95.7816, 67.5
7.5837, 84, 1.50095, -2.35609, 26.8242, -152.215, -95.2942, 67.1443
7.59668, 84, 1.64484, -3.15723, 27.2418, -152.253, -94.5336, 66.625
7.59995, 84, 1.69296, -3.43093, 27.3863, -152.264, -94.2725, 66.4553
7.608, 84, 1.78956, -3.98851, 27.6832, -152.287, -93.7391, 66.1208
7.61569, 85, 1.88642, -4.55896, 27.99, -152.308, -93.1906, 65.794
7.62371, 85, 1.98364, -5.14052, 28.307, -152.327, -92.6273, 65.4752
7.63178, 85, 2.0812, -5.73246, 28.6328, -152.343, -92.0519, 65.1641
7.63974, 85, 2.17918, -6.33382, 28.9681, -152.358, -91.466, 64.8613
7.64812, 85, 2.27777, -6.94287, 29.3117, -152.369, -90.8699, 64.5681
7.65586, 86, 2.37712, -7.55934, 29.6634, -152.378, -90.2639, 64.2845
7.6647, 86, 2.47742, -8.18203, 30.0221, -152.383, -89.6489, 64.0114
7.6727, 86, 2.57865, -8.8108, 30.3873, -152.386, -89.026, 63.7488
7.68079, 86, 2.68059, -9.44485, 30.7578, -152.387, -88.3987, 63.498
7.68772, 86, 2.78374, -10.0833, 31.1336, -152.385, -87.7667, 63.2586
7.70196, 87, 2.94021, -11.0479, 31.7074, -152.374, -86.8086, 62.9217
7.70472, 87, 2.99273, -11.3709, 31.9009, -152.368, -86.4867, 62.8154
7.71274, 87, 3.09867, -12.0192, 32.2915, -152.355, -85.8389, 62.6122
7.71973, 87, 3.20548, -12.6699, 32.6869, -152.337, -85.187, 62.4219
7.7278, 87, 3.31294, -13.3233, 33.0874, -152.316, -84.5315, 62.2441
7.73583, 88, 3.42115, -13.9799, 33.4934, -152.29, -83.87, 62.0791
7.74385, 88, 3.52999, -14.6397, 33.9044, -152.261, -83.2026, 61.9273
7.75216, 88, 3.63933, -15.3013, 34.321, -152.228, -82.5299, 61.789
7.76062, 88, 3.7491, -15.9637, 34.7426, -152.189, -81.8517, 61.6649
7.76781, 88, 3.85928, -16.6264, 35.169, -152.146, -81.1702, 61.556
7.7759, 89, 3.96973, -17.2881, 35.5993, -152.098, -80.4863, 61.4636
7.78376, 89, 4.08027, -17.9474, 36.0318, -152.045, -79.801, 61.389
7.79175, 89, 4.19119, -18.6036, 36.4654, -151.986, -79.114, 61.3327
7.80843, 89, 4.41345, -19.9027, 37.3319, -151.854, -77.7464, 61.2797
7.81021, 89, 4.41345, -19.9027, 37.3319, -151.854, -77.7464, 61.2797
7.81786, 90, 4.52469, -20.5432, 37.7623, -151.78, -77.0701, 61.2835
7.824, 90, 4.63664, -21.1778, 38.1906, -151.7, -76.3974, 61.3118
7.8323, 90, 4.749, -21.8063, 38.6164, -151.615, -75.7291, 61.3638
7.84011, 90, 4.86146, -22.4291, 39.0399, -151.525, -75.0657, 61.4394
7.8481, 90, 4.97381, -23.0468, 39.4621, -151.429, -74.408, 61.5412
7.85472, 90, 5.02992, -23.354, 39.6726, -151.379, -74.0804, 61.6018
7.86464, 91, 5.19802, -24.2687, 40.3033, -151.219, -73.098, 61.8245
7.87225, 91, 5.30932, -24.8717, 40.7242, -151.104, -72.4422, 62.0083
7.88128, 91, 5.41974, -25.4695, 41.1449, -150.982, -71.7849, 62.2215
7.89301, 91, 5.58389, -26.3538, 41.7756, -150.786, -70.7973, 62.5979
7.89655, 92, 5.63842, -26.6452, 41.9855, -150.718, -70.4685, 62.7392
7.90421, 92, 5.69298, -26.935, 42.1949, -150.648, -70.1399, 62.8883
7.91172, 92, 5.80242, -27.5089, 42.6115, -150.504, -69.4839, 63.2099
7.91975, 92, 5.9125, -28.0747, 43.0237, -150.355, -68.831, 63.5624
7.92671, 92, 6.02322, -28.6319, 43.431, -150.201, -68.1811, 63.9468
7.94279, 93, 6.24815, -29.7148, 44.2271, -149.884, -66.9, 64.8093
7.94479, 93, 6.30535, -29.979, 44.4218, -149.803, -66.5831, 65.0451
7.95174, 93, 6.36309, -30.2404, 44.6152, -149.721, -66.267, 65.2886
7.9597, 93, 6.48032, -30.7561, 44.9978, -149.557, -65.6374, 65.7994
7.96772, 93, 6.5997, -31.2639, 45.3749, -149.393, -65.0108, 66.3447
7.97578, 93, 6.72132, -31.7657, 45.7472, -149.228, -64.385, 66.9272
7.98365, 94, 6.84526, -32.2622, 46.1163, -149.061, -63.7584, 67.5514
7.9917, 94, 6.97143, -32.7539, 46.4828, -148.895, -63.1268, 68.2223
7.99975, 94, 7.09965, -33.24, 46.8478, -148.728, -62.4887, 68.9457
8.00669, 94, 7.22995, -33.7183, 47.2106, -148.562, -61.8445, 69.7218
8.01571, 94, 7.36324, -34.1893, 47.5704, -148.399, -61.1937, 70.5498
8.02374, 95, 7.50055, -34.6522, 47.9236, -148.242, -60.5412, 71.4323
8.0333, 95, 7.64294, -35.1048, 48.2686, -148.094, -59.5683, 72.8409
8.0397, 95, 7.79125, -35.5465, 48.6026, -147.958, -59.2468, 73.3311
8.04779, 95, 7.94596, -35.9746, 48.9242, -147.837, -58.6096, 74.3402
8.05569, 95, 8.10753, -36.3849, 49.2305, -147.731, -57.9808, 75.3827
8.06415, 96, 8.27594, -36.7752, 49.5214, -147.645, -57.3625, 76.4592
8.0717, 96, 8.45111, -37.1444, 49.7951, -147.577, -56.7588, 77.5647
8.07971, 96, 8.63223, -37.4905, 50.0521, -147.531, -56.1691, 78.6993
8.08911, 96, 8.81851, -37.8117, 50.292, -147.504, -55.5943, 79.856
8.09569, 96, 9.00949, -38.1071, 50.5124, -147.498, -55.0372, 81.0291
8.10376, 96, 9.20378, -38.3778, 50.7134, -147.513, -54.5002, 82.2134
8.11169, 97, 9.39966, -38.6228, 50.895, -147.55, -53.986, 83.4073
8.11971, 97, 9.59595, -38.8425, 51.0559, -147.608, -53.4968, 84.606
8.12777, 97, 9.79152, -39.0378, 51.1965, -147.686, -53.0344, 85.7987
8.13569, 97, 9.98558, -39.2082, 51.3175, -147.781, -52.6005, 86.9779
8.1447, 97, 10.1771, -39.3528, 51.4189, -147.892, -52.1968, 88.1369
8.15177, 97, 10.365, -39.472, 51.5012, -148.015, -51.8237, 89.2697
8.15964, 98, 10.5492, -39.566, 51.5653, -148.148, -51.4813, 90.3682
8.16777, 98, 10.7309, -39.6359, 51.6113, -148.292, -51.1693, 91.4337
8.17569, 98, 10.9109, -39.683, 51.64, -148.445, -50.8851, 92.4742
8.18369, 98, 11.0894, -39.7069, 51.6513, -148.609, -50.6254, 93.5041
8.1917, 98, 11.2658, -39.7075, 51.646, -148.786, -50.3864, 94.5369
8.19978, 98, 11.441, -39.6848, 51.6234, -148.975, -50.1664, 95.5836
8.20774, 98, 11.6164, -39.6381, 51.5832, -149.179, -49.9653, 96.6517
8.21573, 99, 11.7916, -39.5681, 51.5251, -149.395, -49.7846, 97.7409
8.22376, 99, 11.9654, -39.4755, 51.4486, -149.623, -49.6269, 98.847
8.23193, 99, 12.1362, -39.3603, 51.3537, -149.86, -49.4958, 99.9581
8.23977, 99, 12.3034, -39.2228, 51.2407, -150.102, -49.3938, 101.065
8.24785, 99, 12.4654, -39.0631, 51.1102, -150.346, -49.323, 102.155
8.25583, 99, 12.62, -38.8811, 50.9638, -150.589, -49.2828, 103.221
8.26414, 100, 12.766, -38.6752, 50.8018, -150.829, -49.2741, 104.255
8.27135, 100, 12.9033, -38.445, 50.6232, -151.064, -49.2974, 105.262
8.27991, 100, 13.0316, -38.1921, 50.4275, -151.293, -49.3522, 106.239
8.28777, 100, 13.1513, -37.9172, 50.2154, -151.516, -49.4381, 107.193
8.29651, 100, 13.2629, -37.6215, 49.9857, -151.733, -49.5553, 108.123
8.30377, 100, 13.3663, -37.3029, 49.7376, -151.944, -49.7032, 109.031
8.31189, 101, 13.4616, -36.9603, 49.4729, -152.147, -49.8812, 109.918
8.31873, 101, 13.5062, -36.7798, 49.3341, -152.245, -49.9814, 110.352
8.32797, 101, 13.6285, -36.1996, 48.8923, -152.527, -50.3264, 111.621
8.33693, 101, 13.6999, -35.7814, 48.5757, -152.703, -50.5938, 112.437
8.34401, 101, 13.7631, -35.3399, 48.2416, -152.869, -50.8922, 113.232
8.35069, 101, 13.7914, -35.1106, 48.0679, -152.948, -51.0533, 113.622
8.36912, 102, 13.8992, -33.8798, 47.1358, -153.299, -51.9812, 115.48
8.37038, 102, 13.8992, -33.8798, 47.1358, -153.299, -51.9812, 115.48
8.377, 102, 13.9259, -33.3459, 46.7341, -153.417, -52.4093, 116.181
8.38268, 102, 13.9358, -33.0704, 46.5278, -153.471, -52.6354, 116.522
8.39227, 102, 13.9492, -32.212, 45.8884, -153.613, -53.359, 117.506
8.40029, 102, 13.9547, -31.9152, 45.6684, -153.69, -53.8757, 118.129
8.4084, 103, 13.953, -31.3067, 45.2181, -153.723, -54.4173, 118.725
8.4157, 103, 13.9446, -30.6801, 44.7562, -153.781, -54.6965, 119.014
8.42368, 103, 13.9302, -30.0374, 44.2836, -153.825, -55.2702, 119.572
8.43173, 103, 13.9101, -29.3798, 43.8015, -153.856, -55.8621, 120.106
8.43968, 103, 13.8849, -28.7082, 43.3117, -153.876, -56.4711, 120.613
8.44768, 104, 13.8551, -28.025, 42.8158, -153.886, -57.0943, 121.095
8.45576, 104, 13.8213, -27.332, 42.3153, -153.886, -57.7298, 121.552
8.46368, 104, 13.7836, -26.6308, 41.8112, -153.874, -58.3799, 121.989
8.47168, 104, 13.7422, -25.9225, 41.3042, -153.854, -59.0436, 122.404
8.47976, 104, 13.6984, -25.2096, 40.7957, -153.826, -59.7192, 122.802
8.48771, 104, 13.6528, -24.4937, 40.2862, -153.789, -60.404, 123.185
8.49568, 104, 13.6053, -23.775, 39.7764, -153.745, -61.0947, 123.555
8.50269, 104, 13.5563, -23.0541, 39.2671, -153.696, -61.7914, 123.917
8.51176, 104, 13.506, -22.332, 38.759, -153.642, -62.492, 124.273
8.5197, 104, 13.4549, -21.6087, 38.2524, -153.582, -63.195, 124.625
8.52775, 104, 13.4031, -20.8853, 37.7472, -153.519, -63.8992, 124.975
8.5357, 104, 13.3509, -20.1622, 37.2433, -153.451, -64.6031, 125.324
8.54467, 104, 13.2986, -19.439, 36.7415, -153.379, -65.3086, 125.67
8.55173, 104, 13.2461, -18.7154, 36.2415, -153.303, -66.0157, 126.016
8.56078, 104, 13.1936, -17.9917, 35.7438, -153.223, -66.7235, 126.361
8.5677, 104, 13.1415, -17.2676, 35.2486, -153.139, -67.4319, 126.706
8.57575, 104, 13.0896, -16.5431, 34.7553, -153.051, -68.1394, 127.05
8.58371, 104, 13.0381, -15.8191, 34.2641, -152.96, -68.8481, 127.394
8.59168, 104, 12.987, -15.0944, 33.7748, -152.864, -69.559, 127.737
8.59972, 104, 12.9359, -14.3691, 33.2878, -152.764, -70.2705, 128.08
8.6077, 104, 12.8853, -13.6439, 32.8038, -152.661, -70.9806, 128.424
8.61575, 104, 12.8352, -12.9182, 32.3224, -152.554, -71.6911, 128.768
8.62376, 104, 12.7852, -12.1926, 31.8434, -152.443, -72.4035, 129.111
8.63168, 104, 12.7356, -11.4675, 31.3671, -152.329, -73.116, 129.456
8.63967, 104, 12.6866, -10.7424, 30.8935, -152.21, -73.8289, 129.802
8.64778, 104, 12.6378, -10.0169, 30.4225, -152.087, -74.5421, 130.147
8.65567, 104, 12.5893, -9.29126, 29.9546, -151.96, -75.2551, 130.494
8.66367, 104, 12.5414, -8.56526, 29.4896, -151.829, -75.9693, 130.842
8.67174, 104, 12.494, -7.83901, 29.0282, -151.695, -76.6839, 131.19
8.67969, 104, 12.4469, -7.11351, 28.5699, -151.556, -77.3996, 131.54
8.6877, 104, 12.4006, -6.3883, 28.1147, -151.413, -78.1149, 131.891
8.69578, 104, 12.3547, -5.66356, 27.6632, -151.265, -78.8286, 132.243
8.70372, 104, 12.3094, -4.93949, 27.2153, -151.114, -79.5436, 132.596
8.71169, 104, 12.265, -4.21659, 26.7715, -150.958, -80.2592, 132.951
8.71974, 104, 12.2217, -3.49611, 26.3327, -150.799, -80.9743, 133.307
8.72771, 104, 12.1793, -2.78073, 25.899, -150.635, -81.6853, 133.663
8.7358, 104, 12.1383, -2.07123, 25.471, -150.468, -82.3928, 134.02
8.74377, 104, 12.0986, -1.36896, 25.0504, -150.298, -83.0968, 134.376
8.75179, 104, 12.0597, -0.675165, 24.6382, -150.125, -83.7933, 134.729
8.75984, 104, 12.0219, 0.0083976, 24.2358, -149.951, -84.4797, 135.08
8.76778, 104, 11.9851, 0.681345, 23.8441, -149.775, -85.1535, 135.427
8.77577, 104, 11.9494, 1.34204, 23.4648, -149.599, -85.8127, 135.768
8.78386, 104, 11.9149, 1.98949, 23.0981, -149.423, -86.4576, 136.105
8.79216, 104, 11.8816, 2.62173, 22.7441, -149.247, -87.0871, 136.434
8.79978, 104, 11.8491, 3.23779, 22.4024, -149.072, -87.7007, 136.757
8.80778, 104, 11.8182, 3.83756, 22.0742, -148.898, -88.298, 137.073
8.8158, 104, 11.7884, 4.42032, 21.7585, -148.725, -88.8772, 137.383
8.82389, 104, 11.7599, 4.98642, 21.4552, -148.554, -89.4392, 137.685
8.83273, 104, 11.7328, 5.53553, 21.1631, -148.385, -89.9861, 137.981
8.83994, 104, 11.7067, 6.06746, 20.8832, -148.217, -90.5168, 138.269
8.8467, 104, 11.6941, 6.32721, 20.7477, -148.134, -90.7758, 138.411
8.85616, 104, 11.6581, 7.08065, 20.3584, -147.889, -91.5285, 138.824
8.86416, 104, 11.6355, 7.56188, 20.1135, -147.729, -92.0088, 139.09
8.87298, 104, 11.6141, 8.02675, 19.8792, -147.572, -92.4721, 139.349
8.88026, 104, 11.5938, 8.47493, 19.6559, -147.418, -92.9192, 139.6
8.88895, 104, 11.5747, 8.90561, 19.4437, -147.267, -93.3494, 139.843
8.89642, 104, 11.5656, 9.31912, 19.2415, -147.12, -93.763, 140.078
8.90431, 104, 11.5482, 9.51954, 19.0496, -146.978, -94.1595, 140.304
8.91167, 104, 11.5319, 9.90662, 18.9578, -146.908, -94.3513, 140.414
8.91968, 104, 11.5166, 10.2754, 18.7823, -146.772, -94.7211, 140.626
8.9277, 104, 11.5024, 10.6248, 18.6169, -146.641, -95.0726, 140.83
8.93567, 104, 11.4892, 10.9554, 18.462, -146.516, -95.4048, 141.023
8.94371, 104, 11.477, 11.2658, 18.3182, -146.398, -95.7169, 141.205
8.95168, 104, 11.4658, 11.5556, 18.1849, -146.285, -96.0087, 141.375
8.9597, 104, 11.4557, 11.8247, 18.0621, -146.18, -96.2792, 141.535
8.96769, 104, 11.4465, 12.0723, 17.95, -146.083, -96.5283, 141.682
8.97567, 104, 11.438, 12.2988, 17.8484, -145.993, -96.7555, 141.816
8.98371, 104, 11.4302, 12.5045, 17.7572, -145.911, -96.9607, 141.938
8.9917, 104, 11.4233, 12.6889, 17.6764, -145.838, -97.1439, 142.048
8.99967, 104, 11.4171, 12.8522, 17.6058, -145.773, -97.305, 142.144
9.00768, 104, 11.4115, 12.9953, 17.5449, -145.717, -97.4442, 142.227
9.01575, 104, 11.4065, 13.1192, 17.4935, -145.669, -97.562, 142.298
9.02369, 104, 11.4018, 13.2245, 17.4512, -145.63, -97.6592, 142.356
9.03167, 104, 11.3976, 13.312, 17.417, -145.598, -97.7374, 142.402
9.03972, 104, 11.3938, 13.3839, 17.3904, -145.573, -97.798, 142.44
9.04873, 104, 11.3903, 13.4421, 17.3706, -145.554, -97.8428, 142.467
9.05567, 104, 11.3872, 13.4881, 17.3562, -145.54, -97.8751, 142.486
9.06372, 104, 11.3847, 13.523, 17.3465, -145.531, -97.8975, 142.499
9.07168, 104, 11.3827, 13.549, 17.3404, -145.525, -97.912, 142.507
9.07968, 104, 11.3811, 13.5681, 17.3365, -145.522, -97.9206, 142.512
9.08779, 104, 11.3799, 13.5814, 17.3344, -145.52, -97.9252, 142.514
9.09567, 104, 11.379, 13.5904, 17.3333, -145.519, -97.9275, 142.516
9.10364, 105, 11.3783, 13.5964, 17.3328, -145.518, -97.9286, 142.516
9.1117, 105, 11.3779, 13.6004, 17.3325, -145.518, -97.9291, 142.516
9.11966, 105, 11.3775, 13.6031, 17.3324, -145.518, -97.9293, 142.516
9.12769, 105, 11.3772, 13.6052, 17.3323, -145.518, -97.9294, 142.517
9.1357, 105, 11.377, 13.607, 17.3323, -145.518, -97.9294, 142.517
9.14371, 105, 11.3768, 13.6086, 17.3323, -145.518, -97.9294, 142.517
9.1517, 105, 11.3767, 13.61, 17.3323, -145.518, -97.9294, 142.517
9.1597, 105, 11.3766, 13.6112, 17.3323, -145.518, -97.9293, 142.517
9.16768, 105, 11.3765, 13.6122, 17.3323, -145.518, -97.9292, 142.517
9.17566, 105, 11.3764, 13.613, 17.3323, -145.518, -97.9291, 142.517
9.18371, 105, 11.3764, 13.6136, 17.3324, -145.518, -97.9289, 142.517
9.19168, 105, 11.3764, 13.614, 17.3324, -145.518, -97.9288, 142.517
9.19966, 105, 11.3764, 13.6144, 17.3325, -145.518, -97.9287, 142.517
9.20777, 105, 11.3764, 13.6145, 17.3325, -145.518, -97.9285, 142.517
9.2157, 105, 11.3763, 13.6146, 17.3325, -145.518, -97.9285, 142.517
