hehonglu123/Motion-Primitive-Planning/ILC/recorded_data/realrobot/wood/iteration_20/run_0.csv
timestamp, cmd_num, J1, J2, J3, J4, J5, J6
0.000361, -1, 11.3766, 13.6142, 17.335, -145.52, -97.9264, 142.516
0.003657, -1, 11.3766, 13.6142, 17.335, -145.52, -97.9264, 142.516
0.025623, -1, 11.3766, 13.6143, 17.3351, -145.52, -97.9265, 142.516
0.028267, -1, 11.3766, 13.6143, 17.3351, -145.52, -97.9265, 142.516
0.029545, -1, 11.3766, 13.6143, 17.3351, -145.52, -97.9265, 142.516
0.033649, -1, 11.3766, 13.6143, 17.3351, -145.52, -97.9265, 142.516
0.03994, -1, 11.3766, 13.6143, 17.335, -145.52, -97.9265, 142.516
0.047769, -1, 11.3764, 13.6142, 17.3351, -145.52, -97.9265, 142.516
0.054828, -1, 11.3759, 13.6142, 17.335, -145.52, -97.9265, 142.516
0.064423, -1, 11.3707, 13.6137, 17.3348, -145.52, -97.9265, 142.516
0.198841, -1, 9.96667, 13.2385, 17.4247, -145.959, -97.7757, 139.96
0.200907, -1, 9.88952, 13.2178, 17.4297, -145.983, -97.767, 139.82
0.202265, -1, 9.88952, 13.2178, 17.4297, -145.983, -97.767, 139.82
0.203584, -1, 9.88952, 13.2178, 17.4297, -145.983, -97.767, 139.82
0.205655, -1, 9.81194, 13.197, 17.4347, -146.008, -97.7583, 139.681
0.206956, -1, 9.81194, 13.197, 17.4347, -146.008, -97.7583, 139.681
0.208788, -1, 9.81194, 13.1763, 17.4397, -146.032, -97.7497, 139.541
0.21329, -1, 9.65637, 13.1555, 17.4448, -146.056, -97.7411, 139.401
0.214557, -1, 9.65637, 13.1555, 17.4448, -146.056, -97.7411, 139.401
0.215922, -1, 9.65637, 13.1555, 17.4448, -146.056, -97.7411, 139.401
0.217922, -1, 9.57869, 13.1348, 17.4498, -146.079, -97.7325, 139.261
0.220031, -1, 9.57869, 13.1348, 17.4498, -146.079, -97.7325, 139.261
0.222821, -1, 9.50116, 13.1141, 17.4548, -146.103, -97.724, 139.121
0.224038, -1, 9.50116, 13.1141, 17.4548, -146.103, -97.724, 139.121
0.226305, -1, 9.42375, 13.0935, 17.4597, -146.128, -97.7156, 138.982
0.230028, -1, 9.3464, 13.0728, 17.4646, -146.152, -97.7072, 138.842
0.231306, -1, 9.3464, 13.0728, 17.4646, -146.152, -97.7072, 138.842
0.233163, -1, 9.26912, 13.0522, 17.4696, -146.176, -97.6988, 138.702
0.234632, -1, 9.26912, 13.0522, 17.4696, -146.176, -97.6988, 138.702
0.235895, -1, 9.26912, 13.0522, 17.4696, -146.176, -97.6988, 138.702
0.237956, -1, 9.19193, 13.0316, 17.4746, -146.2, -97.6904, 138.562
0.239768, -1, 9.19193, 13.0316, 17.4746, -146.2, -97.6904, 138.562
0.247754, -1, 9.03794, 12.9904, 17.4846, -146.248, -97.6736, 138.282
0.255813, -1, 8.8842, 12.9493, 17.4947, -146.296, -97.6568, 138.002
0.263826, -1, 8.73062, 12.9082, 17.5049, -146.344, -97.6396, 137.722
0.271803, -1, 8.57757, 12.867, 17.515, -146.392, -97.6222, 137.442
0.279822, -1, 8.42484, 12.8257, 17.5251, -146.44, -97.6046, 137.162
0.287752, -1, 8.27186, 12.7843, 17.5353, -146.488, -97.5872, 136.882
0.295816, -1, 8.11845, 12.7426, 17.5455, -146.536, -97.5702, 136.602
0.30476, -1, 7.96452, 12.701, 17.5558, -146.584, -97.5533, 136.321
0.311769, -1, 7.80999, 12.6593, 17.5659, -146.632, -97.5366, 136.041
0.320769, -1, 7.65512, 12.6176, 17.576, -146.68, -97.52, 135.761
0.327816, -1, 7.50015, 12.5759, 17.5863, -146.728, -97.5032, 135.481
0.335814, -1, 7.34509, 12.5344, 17.5965, -146.776, -97.486, 135.2
0.343822, -1, 7.19006, 12.4928, 17.6067, -146.824, -97.4687, 134.92
0.351769, -1, 7.03499, 12.4513, 17.6171, -146.872, -97.4513, 134.64
0.359779, -1, 6.87981, 12.41, 17.6274, -146.92, -97.4342, 134.359
0.36782, -1, 6.72486, 12.3688, 17.6378, -146.968, -97.4173, 134.079
0.375815, -1, 6.57011, 12.3275, 17.6483, -147.017, -97.4005, 133.799
0.383752, -1, 6.41553, 12.2862, 17.6587, -147.065, -97.3838, 133.518
0.391851, -1, 6.26125, 12.2449, 17.6691, -147.113, -97.3669, 133.238
0.399767, -1, 6.10705, 12.2034, 17.6794, -147.161, -97.3498, 132.957
0.407749, -1, 5.95257, 12.162, 17.6896, -147.209, -97.3324, 132.676
0.415826, -1, 5.79785, 12.1204, 17.7, -147.257, -97.3147, 132.395
0.42379, -1, 5.64302, 12.0787, 17.7103, -147.305, -97.2973, 132.115
0.431804, -1, 5.48797, 12.0371, 17.7206, -147.353, -97.2802, 131.834
0.439787, -1, 5.33271, 11.9954, 17.7309, -147.401, -97.2633, 131.553
0.447814, -1, 5.1772, 11.9537, 17.7412, -147.45, -97.2465, 131.272
0.45581, -1, 5.02146, 11.912, 17.7517, -147.498, -97.2297, 130.991
0.463862, -1, 4.86573, 11.8705, 17.7622, -147.546, -97.2128, 130.71
0.471768, -1, 4.70996, 11.8289, 17.7727, -147.594, -97.1955, 130.428
0.479752, -1, 4.55421, 11.7874, 17.7832, -147.642, -97.1781, 130.148
0.488546, -1, 4.39853, 11.7459, 17.7936, -147.691, -97.1607, 129.867
0.495853, -1, 4.24309, 11.7045, 17.8041, -147.739, -97.1434, 129.586
0.503513, -1, 4.08796, 11.6631, 17.8146, -147.787, -97.1264, 129.305
0.512658, -1, 3.93327, 11.6217, 17.8249, -147.835, -97.1095, 129.024
0.649346, -1, 1.28643, 10.9133, 18.0022, -148.657, -96.8183, 124.234
0.65069, -1, 1.28643, 10.9133, 18.0022, -148.657, -96.8183, 124.234
0.652587, -1, 1.2086, 10.8924, 18.0074, -148.681, -96.8099, 124.093
0.653926, -1, 1.2086, 10.8924, 18.0074, -148.681, -96.8099, 124.093
0.65511, -1, 1.2086, 10.8924, 18.0074, -148.681, -96.8099, 124.093
0.657919, -1, 1.13086, 10.8715, 18.0126, -148.706, -96.8015, 123.952
0.660869, -1, 1.0532, 10.8507, 18.0177, -148.73, -96.793, 123.811
0.66438, -1, 1.0532, 10.8298, 18.0229, -148.755, -96.7845, 123.669
0.665874, -1, 0.975644, 10.8298, 18.0229, -148.755, -96.7845, 123.669
0.667098, -1, 0.975644, 10.8298, 18.0229, -148.755, -96.7845, 123.669
0.66918, -1, 0.898167, 10.8089, 18.0281, -148.779, -96.776, 123.528
0.670603, -1, 0.898167, 10.8089, 18.0281, -148.779, -96.776, 123.528
0.672476, -1, 0.898167, 10.8089, 18.0333, -148.803, -96.7673, 123.387
0.673925, -1, 0.820713, 10.788, 18.0333, -148.803, -96.7673, 123.387
0.675126, -1, 0.820713, 10.788, 18.0333, -148.803, -96.7673, 123.387
0.678544, -1, 0.743287, 10.7671, 18.0385, -148.827, -96.7585, 123.246
0.681185, -1, 0.743287, 10.7671, 18.0385, -148.827, -96.7585, 123.105
0.683303, -1, 0.665918, 10.7462, 18.0437, -148.851, -96.7497, 123.105
0.685693, -1, 0.588579, 10.7253, 18.0489, -148.876, -96.7409, 122.964
0.686918, -1, 0.588579, 10.7253, 18.0489, -148.876, -96.7409, 122.964
0.688867, -1, 0.511221, 10.7045, 18.0542, -148.9, -96.7321, 122.822
0.69021, -1, 0.511221, 10.7045, 18.0542, -148.9, -96.7321, 122.822
0.699739, -1, 0.356287, 10.6627, 18.0646, -148.948, -96.7146, 122.539
0.703754, -1, 0.278683, 10.6418, 18.0698, -148.972, -96.7061, 122.398
0.71075, -1, 0.123118, 10.5999, 18.0803, -149.021, -96.6891, 122.115
0.719742, -1, -0.032905, 10.558, 18.0908, -149.069, -96.6722, 121.833
0.727813, -1, -0.18923, 10.5162, 18.1013, -149.118, -96.6555, 121.55
0.734751, -1, -0.34586, 10.4744, 18.1118, -149.166, -96.6387, 121.267
0.743741, -1, -0.502873, 10.4325, 18.1223, -149.215, -96.6216, 120.984
0.751785, -1, -0.660115, 10.3907, 18.1327, -149.263, -96.6042, 120.702
0.758776, -1, -0.817435, 10.3489, 18.1432, -149.312, -96.5867, 120.419
0.767849, -1, -0.974793, 10.3071, 18.1536, -149.36, -96.5694, 120.136
0.775882, -1, -1.13204, 10.2653, 18.1639, -149.409, -96.5524, 119.853
0.785301, -1, -1.28916, 10.2235, 18.1795, -149.482, -96.5271, 119.428
0.791802, -1, -1.44604, 10.1817, 18.1846, -149.506, -96.5188, 119.286
0.799737, -1, -1.60265, 10.1399, 18.1952, -149.555, -96.5019, 119.003
0.807735, -1, -1.75877, 10.098, 18.2057, -149.604, -96.4848, 118.72
0.815864, -1, -1.91455, 10.0562, 18.2161, -149.652, -96.4675, 118.436
0.824794, -1, -2.0699, 10.0143, 18.2266, -149.7, -96.4498, 118.153
0.830863, -1, -2.22505, 9.97243, 18.237, -149.749, -96.4322, 117.869
0.839803, -1, -2.3803, 9.93055, 18.2474, -149.798, -96.4149, 117.586
0.847732, -1, -2.53587, 9.88855, 18.2579, -149.846, -96.3979, 117.302
0.855817, -1, -2.69165, 9.84665, 18.2683, -149.895, -96.381, 117.018
0.863812, -1, -2.84785, 9.80472, 18.2787, -149.944, -96.3643, 116.735
0.871791, -1, -3.0045, 9.76274, 18.2891, -149.992, -96.3474, 116.451
0.879746, -1, -3.16148, 9.72084, 18.2995, -150.041, -96.3302, 116.167
0.887803, -1, -3.31892, 9.67887, 18.31, -150.089, -96.3127, 115.883
0.895913, -1, -3.47672, 9.63685, 18.3205, -150.138, -96.295, 115.599
0.903753, -1, -3.63449, 9.59497, 18.331, -150.187, -96.2776, 115.315
0.911799, -1, -3.79239, 9.55313, 18.3414, -150.235, -96.2603, 115.031
0.919742, -1, -3.95045, 9.51109, 18.3518, -150.284, -96.2433, 114.747
0.927732, -1, -4.10829, 9.46918, 18.3622, -150.334, -96.2263, 114.463
0.935877, -1, -4.2661, 9.42725, 18.3725, -150.382, -96.2093, 114.178
0.943767, -1, -4.42378, 9.38525, 18.3829, -150.431, -96.1921, 113.894
0.951732, -1, -4.58101, 9.34328, 18.3933, -150.48, -96.1746, 113.609
0.959813, -1, -4.7378, 9.30125, 18.4037, -150.528, -96.1568, 113.324
0.967733, -1, -4.89424, 9.25919, 18.4141, -150.577, -96.1392, 113.04
0.9758, -1, -5.05036, 9.21717, 18.4247, -150.626, -96.1218, 112.755
0.983803, -1, -5.2062, 9.17516, 18.4352, -150.675, -96.1047, 112.47
0.99177, -1, -5.36209, 9.13303, 18.4458, -150.724, -96.0877, 112.185
0.999792, -1, -5.51815, 9.0909, 18.4563, -150.773, -96.0709, 111.901
1.00788, -1, -5.67446, 9.04886, 18.4667, -150.821, -96.0538, 111.616
1.01588, -1, -5.83122, 9.00668, 18.4772, -150.87, -96.0365, 111.331
1.02392, -1, -5.98841, 8.9645, 18.4876, -150.919, -96.019, 111.046
1.03185, -1, -6.14614, 8.9224, 18.4979, -150.968, -96.0013, 110.761
1.03984, -1, -6.30433, 8.88025, 18.5083, -151.017, -95.9839, 110.475
1.04791, -1, -6.46268, 8.83814, 18.5187, -151.066, -95.9668, 110.19
1.0558, -1, -6.62112, 8.79609, 18.5292, -151.115, -95.9497, 109.905
1.06378, -1, -6.77981, 8.75393, 18.5397, -151.164, -95.9327, 109.619
1.07188, -1, -6.93847, 8.71182, 18.5502, -151.213, -95.9156, 109.334
1.07979, -1, -7.09696, 8.66975, 18.5608, -151.262, -95.8984, 109.048
1.08799, -1, -7.25542, 8.62758, 18.5712, -151.311, -95.8807, 108.763
1.09622, -1, -7.41367, 8.58535, 18.5816, -151.36, -95.8629, 108.477
1.10401, -1, -7.57143, 8.54309, 18.5921, -151.409, -95.8453, 108.191
1.11224, -1, -7.72884, 8.50079, 18.6026, -151.458, -95.828, 107.906
1.12015, -1, -7.88595, 8.45857, 18.613, -151.507, -95.8109, 107.62
1.12818, -1, -8.04275, 8.41622, 18.6234, -151.556, -95.7939, 107.334
1.13475, -1, -8.12105, 8.39504, 18.6287, -151.58, -95.7854, 107.191
1.14471, -1, -8.35591, 8.33154, 18.6444, -151.654, -95.7599, 106.762
1.15231, -1, -8.51274, 8.28911, 18.655, -151.703, -95.7426, 106.476
1.16037, -1, -8.66994, 8.24681, 18.6656, -151.752, -95.7249, 106.19
1.16832, -1, -8.74868, 8.22567, 18.6708, -151.801, -95.7072, 105.903
1.17633, -1, -8.90637, 8.18334, 18.6811, -151.826, -95.6898, 105.617
1.18377, -1, -9.06449, 8.14102, 18.6916, -151.875, -95.6811, 105.474
1.19175, -1, -9.22307, 8.09876, 18.7021, -151.924, -95.664, 105.187
1.19972, -1, -9.382, 8.05641, 18.7125, -151.973, -95.6469, 104.901
1.20778, -1, -9.54116, 8.01406, 18.7231, -152.022, -95.6297, 104.614
1.21581, -1, -9.70026, 7.97181, 18.7335, -152.072, -95.6124, 104.327
1.22373, -1, -9.85954, 7.92951, 18.744, -152.121, -95.5949, 104.04
1.23175, -1, -10.0189, 7.88709, 18.7547, -152.17, -95.577, 103.753
1.23975, -1, -10.1782, 7.84465, 18.7653, -152.22, -95.5591, 103.466
1.24779, -1, -10.3372, 7.80212, 18.7759, -152.269, -95.5416, 103.18
1.25579, -1, -10.4961, 7.75959, 18.7865, -152.318, -95.5244, 102.893
1.26374, -1, -10.6546, 7.71712, 18.7969, -152.368, -95.5073, 102.606
1.27182, -1, -10.8127, 7.67458, 18.8074, -152.416, -95.4903, 102.319
1.27975, -1, -10.9705, 7.63199, 18.8179, -152.466, -95.4732, 102.032
1.28773, -1, -11.1281, 7.58947, 18.8283, -152.515, -95.4558, 101.744
1.29585, -1, -11.2856, 7.54697, 18.8388, -152.564, -95.4381, 101.457
1.30374, -1, -11.443, 7.50448, 18.8493, -152.614, -95.4203, 101.169
1.31274, -1, -11.6006, 7.46197, 18.8598, -152.663, -95.4026, 100.882
1.31979, -1, -11.7585, 7.41954, 18.8705, -152.712, -95.3852, 100.594
1.32773, -1, -11.9169, 7.37711, 18.881, -152.762, -95.368, 100.306
1.33581, -1, -12.0756, 7.33472, 18.8916, -152.811, -95.3508, 100.019
1.3438, -1, -12.2347, 7.29232, 18.9022, -152.86, -95.3336, 99.7307
1.35173, -1, -12.3943, 7.24989, 18.9127, -152.91, -95.3162, 99.4425
1.35996, -1, -12.5542, 7.20746, 18.9232, -152.959, -95.2984, 99.1547
1.36772, -1, -12.7141, 7.165, 18.9338, -153.009, -95.2804, 98.8667
1.37579, -1, -12.8743, 7.12252, 18.9443, -153.059, -95.2626, 98.5789
1.38457, -1, -13.0344, 7.07996, 18.9549, -153.108, -95.245, 98.2907
1.39083, -1, -13.1943, 7.03733, 18.9654, -153.157, -95.2277, 98.0027
1.39975, -1, -13.3541, 6.9947, 18.976, -153.207, -95.2105, 97.7146
1.40852, -1, -13.5135, 6.95197, 18.9866, -153.256, -95.1934, 97.426
1.41579, -1, -13.6728, 6.9092, 18.9972, -153.305, -95.1761, 97.1372
1.42373, -1, -13.8318, 6.86652, 19.0078, -153.355, -95.1586, 96.8488
1.4325, -1, -13.9904, 6.82383, 19.0182, -153.404, -95.1408, 96.5604
1.43974, -1, -14.1486, 6.78114, 19.0288, -153.454, -95.1229, 96.2716
1.44776, -1, -14.3067, 6.73854, 19.0393, -153.504, -95.1054, 95.9827
1.45657, -1, -14.4649, 6.69581, 19.0498, -153.553, -95.088, 95.6936
1.46374, -1, -14.6234, 6.65316, 19.0604, -153.602, -95.0708, 95.4045
1.47172, -1, -14.7823, 6.61066, 19.0709, -153.652, -95.0536, 95.1152
1.48053, -1, -14.9415, 6.56803, 19.0815, -153.701, -95.0364, 94.8259
1.48772, -1, -15.101, 6.52536, 19.0923, -153.751, -95.0188, 94.5369
1.49581, -1, -15.2609, 6.48277, 19.103, -153.801, -95.0009, 94.2478
1.50477, -1, -15.4212, 6.44015, 19.1137, -153.85, -94.9828, 93.9585
1.51181, -1, -15.5819, 6.39745, 19.1243, -153.9, -94.965, 93.6692
1.51985, -1, -15.7426, 6.35474, 19.1349, -153.95, -94.9476, 93.38
1.52905, -1, -15.9033, 6.31194, 19.1455, -153.999, -94.9303, 93.0905
1.53587, -1, -16.0642, 6.26904, 19.1562, -154.049, -94.9131, 92.8007
1.5439, -1, -16.225, 6.2262, 19.1667, -154.099, -94.8959, 92.511
1.5523, -1, -16.3856, 6.18318, 19.1772, -154.148, -94.8785, 92.2216
1.55929, -1, -16.4658, 6.16168, 19.1825, -154.173, -94.8697, 92.0768
1.56793, -1, -16.7061, 6.09727, 19.1983, -154.248, -94.8429, 91.6414
1.57745, -1, -16.8657, 6.05428, 19.209, -154.297, -94.8252, 91.3513
1.58381, -1, -17.0251, 6.01133, 19.2196, -154.347, -94.8076, 91.0613
1.59197, -1, -17.1843, 5.96837, 19.2303, -154.397, -94.7902, 90.771
1.60151, -1, -17.3434, 5.92545, 19.2408, -154.446, -94.7729, 90.4805
1.60799, -1, -17.5026, 5.88264, 19.2515, -154.496, -94.7556, 90.1903
1.61631, -1, -17.6619, 5.83983, 19.2622, -154.546, -94.738, 89.9002
1.62569, -1, -17.8214, 5.797, 19.2729, -154.596, -94.7203, 89.6098
1.63219, -1, -17.9812, 5.75422, 19.2836, -154.646, -94.7022, 89.3193
1.63874, -1, -18.0613, 5.73284, 19.2889, -154.671, -94.6932, 89.1741
1.64984, -1, -18.3021, 5.66867, 19.3048, -154.746, -94.6664, 88.7385
1.65644, -1, -18.4633, 5.62582, 19.3156, -154.796, -94.6489, 88.4475
1.66428, -1, -18.544, 5.58286, 19.3263, -154.846, -94.6316, 88.1566
1.67311, -1, -18.7056, 5.56137, 19.3316, -154.87, -94.6144, 87.8658
1.68045, -1, -18.8672, 5.51842, 19.3475, -154.946, -94.597, 87.5747
1.68771, -1, -19.0289, 5.47539, 19.3528, -154.97, -94.5882, 87.4291
1.6958, -1, -19.1905, 5.43222, 19.3634, -155.02, -94.5704, 87.1375
1.70376, -1, -19.352, 5.38907, 19.3741, -155.07, -94.5523, 86.8461
1.71171, -1, -19.5132, 5.34592, 19.3846, -155.12, -94.5342, 86.5547
1.71972, -1, -19.6741, 5.30269, 19.3953, -155.17, -94.5164, 86.2629
1.72771, -1, -19.8348, 5.25953, 19.4059, -155.22, -94.4989, 85.9711
1.73578, -1, -19.9954, 5.21638, 19.4166, -155.27, -94.4815, 85.6795
1.74378, -1, -20.1553, 5.17322, 19.4275, -155.32, -94.4641, 85.3881
1.75173, -1, -20.3151, 5.13027, 19.4383, -155.37, -94.4465, 85.0963
1.75971, -1, -20.475, 5.08724, 19.4491, -155.42, -94.4287, 84.8044
1.76776, -1, -20.6351, 5.04419, 19.4598, -155.47, -94.4106, 84.5127
1.7758, -1, -20.7954, 5.00128, 19.4705, -155.521, -94.3926, 84.2209
1.78378, -1, -20.9561, 4.95833, 19.4812, -155.571, -94.3748, 83.9287
1.79179, -1, -21.1171, 4.91523, 19.4919, -155.621, -94.3573, 83.6367
1.79971, -1, -21.2785, 4.87217, 19.5025, -155.671, -94.34, 83.3448
1.80771, -1, -21.4406, 4.82899, 19.5132, -155.721, -94.3228, 83.0525
1.81584, -1, -21.6027, 4.78578, 19.5239, -155.772, -94.3055, 82.7599
1.82477, -1, -21.765, 4.74259, 19.5347, -155.822, -94.2878, 82.4672
1.83172, -1, -21.9274, 4.69922, 19.5454, -155.872, -94.2699, 82.1747
1.83978, -1, -22.0899, 4.65582, 19.5562, -155.922, -94.2518, 81.882
1.84775, -1, -22.2524, 4.61249, 19.5669, -155.972, -94.234, 81.589
1.8558, -1, -22.4148, 4.56905, 19.5776, -156.022, -94.2165, 81.2963
1.86375, -1, -22.5768, 4.52564, 19.5883, -156.073, -94.199, 81.0038
1.87173, -1, -22.7385, 4.48219, 19.5989, -156.123, -94.1815, 80.7109
1.87978, -1, -22.8999, 4.43877, 19.6097, -156.173, -94.164, 80.4178
1.88771, -1, -23.061, 4.39545, 19.6204, -156.224, -94.1461, 80.125
1.89579, -1, -23.2221, 4.35214, 19.631, -156.274, -94.1279, 79.8318
1.9038, -1, -23.3829, 4.30884, 19.6419, -156.324, -94.1096, 79.5384
1.91173, -1, -23.5438, 4.2656, 19.6528, -156.375, -94.0916, 79.245
1.91972, -1, -23.7049, 4.22233, 19.6635, -156.425, -94.0738, 78.9516
1.92777, -1, -23.8661, 4.17909, 19.6743, -156.475, -94.0562, 78.6581
1.93576, -1, -24.0275, 4.13577, 19.6849, -156.526, -94.0388, 78.3643
1.94374, -1, -24.1895, 4.09238, 19.6957, -156.576, -94.0214, 78.0702
1.95179, -1, -24.3518, 4.049, 19.7064, -156.627, -94.0036, 77.7764
1.95971, -1, -24.5147, 4.00557, 19.717, -156.677, -93.9856, 77.4822
1.96786, -1, -24.6778, 3.962, 19.7277, -156.727, -93.9674, 77.1878
1.97577, -1, -24.841, 3.91847, 19.7384, -156.778, -93.9495, 76.8939
1.98371, -1, -25.0045, 3.87489, 19.7492, -156.828, -93.9318, 76.5999
1.99191, -1, -25.1678, 3.83133, 19.7601, -156.878, -93.9142, 76.3057
1.99974, -1, -25.331, 3.78776, 19.771, -156.929, -93.8968, 76.0112
2.00777, -1, -25.4941, 3.74413, 19.7819, -156.979, -93.8792, 75.7169
2.0163, -1, -25.6569, 3.70044, 19.7925, -157.029, -93.8614, 75.4226
2.02381, -1, -25.8194, 3.65692, 19.8033, -157.08, -93.8432, 75.1279
2.03183, -1, -25.9817, 3.61345, 19.8141, -157.131, -93.8249, 74.8332
2.04029, -1, -26.1438, 3.56989, 19.8248, -157.181, -93.8066, 74.5387
2.04728, -1, -26.2246, 3.54817, 19.8302, -157.232, -93.7886, 74.244
2.05587, -1, -26.4669, 3.48307, 19.8463, -157.282, -93.7709, 73.949
2.06457, -1, -26.6287, 3.43955, 19.8571, -157.333, -93.7533, 73.6537
2.07174, -1, -26.7908, 3.39607, 19.868, -157.384, -93.7356, 73.3587
2.07977, -1, -26.9532, 3.35257, 19.8788, -157.434, -93.7178, 73.0634
2.0886, -1, -27.1158, 3.30895, 19.8896, -157.485, -93.6997, 72.7678
2.09601, -1, -27.2789, 3.26541, 19.9004, -157.536, -93.6814, 72.4724
2.10272, -1, -27.3606, 3.24358, 19.9057, -157.561, -93.6723, 72.3248
2.11292, -1, -27.6062, 3.1779, 19.922, -157.637, -93.6452, 71.8818
2.12014, -1, -27.7702, 3.13427, 19.9327, -157.688, -93.6274, 71.5861
2.12672, -1, -27.8522, 3.11245, 19.9381, -157.713, -93.6186, 71.4382
2.13703, -1, -28.0985, 3.04687, 19.9543, -157.789, -93.5921, 70.9949
2.14273, -1, -28.1807, 3.02501, 19.9596, -157.815, -93.5832, 70.847
2.15224, -1, -28.427, 2.95943, 19.9759, -157.89, -93.556, 70.4028
2.16118, -1, -28.5909, 2.91572, 19.9868, -157.941, -93.5375, 70.107
2.16671, -1, -28.6727, 2.89391, 19.9922, -157.967, -93.5283, 69.959
2.17625, -1, -28.8362, 2.8502, 20.003, -158.017, -93.5011, 69.5145
2.18515, -1, -28.9992, 2.80649, 20.0138, -158.068, -93.4921, 69.3662
2.1907, -1, -29.162, 2.76282, 20.0245, -158.119, -93.4744, 69.0697
2.19971, -1, -29.3247, 2.71913, 20.0354, -158.17, -93.4568, 68.7731
2.20771, -1, -29.4873, 2.67545, 20.0462, -158.221, -93.439, 68.4762
2.21575, -1, -29.6501, 2.63171, 20.057, -158.272, -93.421, 68.1792
2.2237, -1, -29.8132, 2.58792, 20.0678, -158.323, -93.4028, 67.8827
2.2317, -1, -29.9763, 2.54418, 20.0787, -158.374, -93.3843, 67.586
2.23873, -1, -30.1396, 2.50032, 20.0897, -158.425, -93.366, 67.2889
2.24771, -1, -30.3034, 2.45635, 20.1007, -158.475, -93.3481, 66.9919
2.2557, -1, -30.4677, 2.41242, 20.1117, -158.527, -93.3303, 66.6951
2.26375, -1, -30.6325, 2.36838, 20.1225, -158.577, -93.3125, 66.3979
2.2717, -1, -30.7975, 2.32439, 20.1333, -158.628, -93.2947, 66.1003
2.2797, -1, -30.9626, 2.28044, 20.1442, -158.68, -93.2767, 65.803
2.28777, -1, -31.1277, 2.23636, 20.1551, -158.73, -93.2583, 65.5058
2.29569, -1, -31.2928, 2.19238, 20.1659, -158.781, -93.2397, 65.2085
2.30372, -1, -31.4577, 2.1485, 20.1767, -158.833, -93.2213, 64.9107
2.3127, -1, -31.6223, 2.10444, 20.1875, -158.884, -93.2034, 64.6129
2.31969, -1, -31.7868, 2.06046, 20.1985, -158.935, -93.1857, 64.3152
2.3277, -1, -31.9511, 2.01652, 20.2094, -158.986, -93.168, 64.0169
2.33576, -1, -32.115, 1.97249, 20.2204, -159.037, -93.1504, 63.7188
2.34372, -1, -32.2786, 1.9285, 20.2313, -159.089, -93.1326, 63.421
2.35173, -1, -32.4421, 1.88448, 20.2422, -159.14, -93.1143, 63.123
2.35971, -1, -32.6058, 1.84035, 20.2532, -159.191, -93.0959, 62.8247
2.36772, -1, -32.7697, 1.79628, 20.2641, -159.242, -93.0777, 62.5264
2.37576, -1, -32.9336, 1.75215, 20.275, -159.293, -93.0597, 62.2282
2.38369, -1, -33.098, 1.70789, 20.286, -159.344, -93.0418, 61.9297
2.3917, -1, -33.2626, 1.66371, 20.2969, -159.396, -93.024, 61.6309
2.39976, -1, -33.4276, 1.61952, 20.3078, -159.447, -93.0062, 61.3323
2.4077, -1, -33.5932, 1.57525, 20.3188, -159.498, -92.9881, 61.0337
2.41574, -1, -33.7589, 1.53103, 20.3298, -159.55, -92.9696, 60.7349
2.42376, -1, -33.9247, 1.48678, 20.3406, -159.601, -92.9509, 60.4357
2.43169, -1, -34.0907, 1.44256, 20.3515, -159.652, -92.9324, 60.1367
2.4397, -1, -34.2567, 1.39842, 20.3625, -159.704, -92.9142, 59.8374
2.44776, -1, -34.4228, 1.35417, 20.3735, -159.755, -92.8962, 59.5377
2.4557, -1, -34.5887, 1.30998, 20.3843, -159.807, -92.8784, 59.2382
2.46369, -1, -34.7541, 1.2658, 20.3953, -159.858, -92.8606, 58.939
2.47179, -1, -34.9193, 1.22158, 20.4062, -159.909, -92.8426, 58.6395
2.4797, -1, -35.0842, 1.17733, 20.4173, -159.961, -92.8242, 58.3398
2.48775, -1, -35.2488, 1.13303, 20.4284, -160.012, -92.8056, 58.04
2.49578, -1, -35.4131, 1.08878, 20.4395, -160.063, -92.7872, 57.7403
2.50373, -1, -35.5764, 1.04483, 20.4507, -160.115, -92.769, 57.4404
2.5118, -1, -35.7374, 1.00124, 20.462, -160.166, -92.751, 57.141
2.51988, -1, -35.8951, 0.958524, 20.4738, -160.217, -92.7332, 56.8438
2.5278, -1, -36.0484, 0.917189, 20.4857, -160.267, -92.7156, 56.5512
2.53582, -1, -36.1953, 0.877735, 20.4976, -160.315, -92.6982, 56.2665
2.54386, -1, -36.3334, 0.840906, 20.5094, -160.361, -92.6813, 55.9947
2.55179, -1, -36.4611, 0.807122, 20.5206, -160.405, -92.6654, 55.7428
2.5597, -1, -36.5768, 0.77648, 20.5306, -160.443, -92.6512, 55.5163
2.56789, -1, -36.6789, 0.749522, 20.539, -160.476, -92.639, 55.3209
2.57574, -1, -36.7662, 0.726315, 20.5452, -160.503, -92.6291, 55.16
2.58378, -1, -36.8393, 0.706987, 20.5491, -160.525, -92.6215, 55.0341
2.59192, -1, -36.899, 0.691305, 20.5512, -160.541, -92.6161, 54.9424
2.59994, -1, -36.9458, 0.678887, 20.552, -160.552, -92.6126, 54.8788
2.60675, -1, -36.9645, 0.673849, 20.552, -160.556, -92.6113, 54.8558
2.61612, -1, -37.0053, 0.663236, 20.5516, -160.563, -92.609, 54.8139
2.62269, -1, -37.0144, 0.660984, 20.5514, -160.565, -92.6086, 54.8063
2.63211, -1, -37.0307, 0.656994, 20.5509, -160.567, -92.608, 54.7947
2.64031, 2, -37.035, 0.655903, 20.5508, -160.567, -92.6078, 54.7918
2.64822, 2, -37.0357, 0.655433, 20.5507, -160.568, -92.6077, 54.7904
2.65649, 2, -37.0351, 0.655237, 20.5507, -160.568, -92.6077, 54.7899
2.66437, 2, -37.0346, 0.65515, 20.5507, -160.568, -92.6077, 54.7896
2.67224, 2, -37.0346, 0.65512, 20.5507, -160.568, -92.6078, 54.7895
2.68056, 2, -37.0354, 0.655041, 20.5506, -160.568, -92.6078, 54.7894
2.68842, 2, -37.036, 0.655028, 20.5506, -160.568, -92.6078, 54.7894
2.69569, 2, -37.0371, 0.654912, 20.5504, -160.568, -92.6079, 54.7894
2.7037, 2, -37.0385, 0.654665, 20.5502, -160.568, -92.6079, 54.7894
2.71173, 2, -37.0399, 0.654436, 20.5501, -160.568, -92.6079, 54.7896
2.71968, 2, -37.0411, 0.654187, 20.5499, -160.568, -92.6079, 54.7897
2.7277, 2, -37.0421, 0.653959, 20.5497, -160.568, -92.608, 54.7898
2.73574, 2, -37.0425, 0.653837, 20.5495, -160.568, -92.608, 54.7899
2.74368, 2, -37.0425, 0.653788, 20.5493, -160.568, -92.6081, 54.79
2.75175, 2, -37.0421, 0.653781, 20.5492, -160.568, -92.6081, 54.7901
2.75974, 2, -37.0412, 0.653812, 20.5491, -160.568, -92.6081, 54.7903
2.76775, 2, -37.0402, 0.653861, 20.5491, -160.568, -92.6082, 54.7905
2.77568, 2, -37.0386, 0.653948, 20.549, -160.568, -92.6082, 54.7907
2.78374, 2, -37.0372, 0.65404, 20.5489, -160.568, -92.6083, 54.7909
2.79168, 2, -37.0361, 0.654071, 20.5489, -160.568, -92.6083, 54.791
2.79968, 2, -37.0354, 0.654041, 20.5488, -160.568, -92.6083, 54.791
2.80926, 2, -37.0352, 0.654017, 20.5488, -160.568, -92.6084, 54.7912
2.81569, 2, -37.0353, 0.653991, 20.5488, -160.568, -92.6083, 54.7912
2.82468, 2, -37.0355, 0.653913, 20.5488, -160.568, -92.6084, 54.7912
2.83174, 2, -37.0358, 0.653865, 20.5487, -160.568, -92.6084, 54.7912
2.8397, 2, -37.0363, 0.653842, 20.5487, -160.568, -92.6084, 54.7912
2.84772, 2, -37.0369, 0.653832, 20.5487, -160.568, -92.6084, 54.7913
2.85578, 2, -37.0377, 0.653828, 20.5487, -160.568, -92.6084, 54.7913
2.86368, 2, -37.0384, 0.653825, 20.5487, -160.568, -92.6084, 54.7913
2.8717, 2, -37.0388, 0.653832, 20.5487, -160.568, -92.6084, 54.7914
2.87975, 2, -37.039, 0.653863, 20.5487, -160.568, -92.6084, 54.7915
2.88769, 2, -37.039, 0.653884, 20.5487, -160.568, -92.6084, 54.7916
2.89568, 2, -37.039, 0.653902, 20.5487, -160.568, -92.6084, 54.7916
2.90387, 2, -37.0386, 0.653902, 20.5487, -160.568, -92.6084, 54.7916
2.91168, 2, -37.0382, 0.653903, 20.5486, -160.568, -92.6085, 54.7916
2.91969, 2, -37.0379, 0.653872, 20.5486, -160.568, -92.6084, 54.7917
2.92776, 2, -37.0377, 0.653851, 20.5486, -160.568, -92.6084, 54.7917
2.93568, 2, -37.0376, 0.653836, 20.5486, -160.568, -92.6085, 54.7917
2.94368, 2, -37.0376, 0.653829, 20.5486, -160.568, -92.6085, 54.7918
2.95174, 2, -37.0376, 0.653826, 20.5486, -160.568, -92.6085, 54.7918
2.95968, 2, -37.0376, 0.653825, 20.5486, -160.568, -92.6085, 54.7919
2.9677, 2, -37.0377, 0.653831, 20.5485, -160.568, -92.6084, 54.792
2.97577, 2, -37.0378, 0.653832, 20.5486, -160.568, -92.6085, 54.792
2.98368, 2, -37.038, 0.653835, 20.5485, -160.568, -92.6085, 54.7921
2.99171, 2, -37.0382, 0.653853, 20.5485, -160.568, -92.6085, 54.7921
2.99975, 2, -37.0383, 0.653873, 20.5485, -160.568, -92.6085, 54.7922
3.00776, 2, -37.0384, 0.653878, 20.5485, -160.568, -92.6085, 54.7922
3.0158, 2, -37.0384, 0.653884, 20.5485, -160.568, -92.6085, 54.7923
3.02386, 2, -37.0383, 0.653883, 20.5485, -160.568, -92.6085, 54.7924
3.03178, 2, -37.0383, 0.653856, 20.5485, -160.568, -92.6085, 54.7924
3.0398, 2, -37.0383, 0.653838, 20.5485, -160.568, -92.6085, 54.7924
3.04786, 2, -37.0382, 0.653838, 20.5485, -160.568, -92.6085, 54.7924
3.05574, 2, -37.0382, 0.653835, 20.5484, -160.568, -92.6085, 54.7925
3.06368, 2, -37.0382, 0.653829, 20.5484, -160.568, -92.6085, 54.7926
3.07177, 2, -37.0382, 0.653833, 20.5484, -160.568, -92.6085, 54.7927
3.0798, 2, -37.0382, 0.65384, 20.5484, -160.568, -92.6085, 54.7928
3.08782, 2, -37.0382, 0.653844, 20.5484, -160.568, -92.6086, 54.7928
3.09589, 2, -37.0382, 0.653857, 20.5484, -160.568, -92.6086, 54.7928
3.10386, 2, -37.0382, 0.653874, 20.5484, -160.567, -92.6085, 54.7929
3.11224, 2, -37.0382, 0.653908, 20.5484, -160.567, -92.6085, 54.7929
3.11867, 2, -37.0382, 0.653906, 20.5484, -160.567, -92.6086, 54.7929
3.12822, 2, -37.0382, 0.653881, 20.5484, -160.567, -92.6086, 54.7929
3.13631, 2, -37.0382, 0.653862, 20.5484, -160.567, -92.6086, 54.793
3.14425, 2, -37.0382, 0.653864, 20.5484, -160.567, -92.6086, 54.7931
3.15218, 2, -37.0382, 0.653855, 20.5483, -160.567, -92.6086, 54.7931
3.16046, 2, -37.0381, 0.653838, 20.5483, -160.567, -92.6086, 54.7932
3.1683, 2, -37.0381, 0.65383, 20.5483, -160.567, -92.6086, 54.7932
3.17644, 2, -37.0381, 0.653828, 20.5483, -160.567, -92.6087, 54.7932
3.18449, 2, -37.0381, 0.653837, 20.5483, -160.567, -92.6087, 54.7933
3.19227, 2, -37.0381, 0.65384, 20.5483, -160.567, -92.6087, 54.7932
3.19967, 2, -37.0381, 0.653885, 20.5483, -160.567, -92.6087, 54.7933
3.20854, 2, -37.0381, 0.653902, 20.5483, -160.567, -92.6087, 54.7933
3.21573, 2, -37.0381, 0.653895, 20.5483, -160.567, -92.6087, 54.7933
3.22367, 2, -37.0381, 0.653907, 20.5483, -160.567, -92.6087, 54.7933
3.23167, 2, -37.0381, 0.653886, 20.5483, -160.567, -92.6087, 54.7933
3.23972, 2, -37.0381, 0.653877, 20.5483, -160.567, -92.6087, 54.7934
3.24768, 2, -37.0381, 0.653873, 20.5483, -160.567, -92.6087, 54.7935
3.25568, 2, -37.038, 0.653889, 20.5482, -160.567, -92.6087, 54.7935
3.26371, 2, -37.038, 0.653871, 20.5482, -160.567, -92.6087, 54.7936
3.27166, 2, -37.038, 0.653865, 20.5482, -160.567, -92.6087, 54.7936
3.27967, 2, -37.038, 0.653878, 20.5482, -160.567, -92.6087, 54.7937
3.28775, 2, -37.038, 0.653856, 20.5482, -160.567, -92.6087, 54.7937
3.29573, 2, -37.038, 0.653863, 20.5482, -160.567, -92.6087, 54.7937
3.30366, 2, -37.038, 0.653885, 20.5482, -160.567, -92.6087, 54.7937
3.31175, 2, -37.0379, 0.653876, 20.5482, -160.567, -92.6087, 54.7938
3.32072, 2, -37.0379, 0.653891, 20.5482, -160.567, -92.6087, 54.7938
3.32768, 2, -37.0379, 0.65389, 20.5482, -160.567, -92.6088, 54.7938
3.33573, 2, -37.0379, 0.653915, 20.5481, -160.567, -92.6087, 54.7939
3.34367, 2, -37.0379, 0.653908, 20.5481, -160.567, -92.6087, 54.7939
3.35169, 2, -37.0379, 0.653913, 20.5481, -160.567, -92.6087, 54.7939
3.35977, 2, -37.0379, 0.653882, 20.5481, -160.567, -92.6087, 54.7939
3.36768, 2, -37.0379, 0.65387, 20.5481, -160.567, -92.6087, 54.794
3.37568, 2, -37.0379, 0.653869, 20.5481, -160.567, -92.6087, 54.794
3.38373, 2, -37.0378, 0.653869, 20.5481, -160.567, -92.6087, 54.794
3.39166, 2, -37.0378, 0.653857, 20.5481, -160.567, -92.6087, 54.7941
3.39967, 2, -37.0378, 0.653863, 20.5481, -160.567, -92.6088, 54.7941
3.40775, 2, -37.0378, 0.653896, 20.548, -160.567, -92.6088, 54.7941
3.41567, 2, -37.0378, 0.653918, 20.548, -160.567, -92.6087, 54.7941
3.42368, 2, -37.0378, 0.653928, 20.548, -160.567, -92.6087, 54.7941
3.43173, 2, -37.0377, 0.653933, 20.548, -160.567, -92.6088, 54.7941
3.43966, 2, -37.0377, 0.653935, 20.548, -160.567, -92.6088, 54.7941
3.44767, 2, -37.0377, 0.653936, 20.548, -160.567, -92.6088, 54.7941
3.45573, 2, -37.0377, 0.653936, 20.548, -160.567, -92.6088, 54.7942
3.46366, 2, -37.0377, 0.653937, 20.548, -160.567, -92.6088, 54.7942
3.47167, 2, -37.0377, 0.653926, 20.548, -160.567, -92.6088, 54.7942
3.47975, 2, -37.0376, 0.653895, 20.548, -160.567, -92.6088, 54.7942
3.48768, 2, -37.0376, 0.65391, 20.548, -160.567, -92.6088, 54.7942
3.49567, 2, -37.0377, 0.653925, 20.548, -160.567, -92.6088, 54.7942
3.50374, 2, -37.0377, 0.653913, 20.548, -160.567, -92.6088, 54.7942
3.5117, 2, -37.0377, 0.653926, 20.548, -160.567, -92.6088, 54.7942
3.51976, 2, -37.0377, 0.653932, 20.5479, -160.567, -92.6088, 54.7942
3.52786, 2, -37.0377, 0.653934, 20.5479, -160.567, -92.6088, 54.7942
3.53585, 2, -37.0376, 0.653943, 20.5479, -160.567, -92.6089, 54.7942
3.54379, 2, -37.0377, 0.653945, 20.5479, -160.567, -92.6088, 54.7942
3.55183, 2, -37.0376, 0.653922, 20.5479, -160.567, -92.6088, 54.7942
3.55967, 2, -37.0376, 0.65393, 20.5479, -160.567, -92.6088, 54.7943
3.56772, 2, -37.0376, 0.653915, 20.5479, -160.567, -92.6088, 54.7943
3.57576, 2, -37.0376, 0.653927, 20.5479, -160.567, -92.6088, 54.7943
3.5837, 2, -37.0376, 0.653921, 20.5479, -160.567, -92.6088, 54.7943
3.59174, 2, -37.0376, 0.653922, 20.5479, -160.567, -92.6088, 54.7943
3.60011, 2, -37.0376, 0.653912, 20.5478, -160.567, -92.6088, 54.7943
3.60667, 2, -37.0375, 0.65392, 20.5478, -160.567, -92.6089, 54.7943
3.61593, 2, -37.0375, 0.653913, 20.5478, -160.567, -92.6089, 54.7943
3.62413, 2, -37.0375, 0.653926, 20.5478, -160.567, -92.6089, 54.7943
3.63209, 2, -37.0375, 0.653932, 20.5478, -160.567, -92.6089, 54.7943
3.64043, 2, -37.0374, 0.653934, 20.5478, -160.567, -92.6089, 54.7943
3.64826, 2, -37.0374, 0.653936, 20.5478, -160.567, -92.6089, 54.7943
3.65623, 2, -37.0375, 0.653936, 20.5478, -160.567, -92.6088, 54.7943
3.66425, 2, -37.0375, 0.653937, 20.5478, -160.567, -92.6088, 54.7943
3.6723, 2, -37.0375, 0.653937, 20.5478, -160.567, -92.6089, 54.7944
3.68052, 2, -37.0374, 0.653926, 20.5478, -160.567, -92.6089, 54.7943
3.68822, 2, -37.0374, 0.653924, 20.5478, -160.567, -92.6089, 54.7943
3.69629, 2, -37.0374, 0.653943, 20.5478, -160.567, -92.6089, 54.7943
3.70366, 2, -37.0374, 0.65394, 20.5478, -160.567, -92.6089, 54.7944
3.71167, 4, -37.0374, 0.653938, 20.5478, -160.567, -92.6089, 54.7944
3.7197, 4, -37.0374, 0.653937, 20.5478, -160.567, -92.6089, 54.7943
3.72772, 4, -37.0374, 0.653937, 20.5477, -160.566, -92.6089, 54.7944
3.73566, 4, -37.0374, 0.653937, 20.5477, -160.566, -92.6089, 54.7944
3.7437, 4, -37.0374, 0.653937, 20.5477, -160.566, -92.6089, 54.7944
3.75166, 4, -37.0374, 0.653937, 20.5477, -160.567, -92.6089, 54.7944
3.75967, 4, -37.0374, 0.653937, 20.5477, -160.567, -92.6089, 54.7944
3.76771, 4, -37.0373, 0.653937, 20.5477, -160.567, -92.6089, 54.7944
3.77565, 4, -37.0373, 0.653937, 20.5477, -160.566, -92.6089, 54.7944
3.78366, 4, -37.0373, 0.653937, 20.5477, -160.566, -92.609, 54.7944
3.79064, 4, -37.0373, 0.653944, 20.5477, -160.566, -92.6089, 54.7944
3.79965, 4, -37.0373, 0.653945, 20.5477, -160.566, -92.609, 54.7943
3.80782, 4, -37.0373, 0.653941, 20.5477, -160.566, -92.609, 54.7944
3.83431, 4, -37.0373, 0.653937, 20.5476, -160.566, -92.609, 54.7944
3.83615, 4, -37.0373, 0.653937, 20.5476, -160.566, -92.609, 54.7944
3.83889, 4, -37.0373, 0.653937, 20.5476, -160.566, -92.609, 54.7944
3.84071, 4, -37.0373, 0.653937, 20.5476, -160.566, -92.609, 54.7944
3.84781, 4, -37.0373, 0.653937, 20.5476, -160.566, -92.6089, 54.7944
3.86086, 4, -37.0365, 0.653793, 20.5477, -160.566, -92.6089, 54.7944
3.86384, 4, -37.0355, 0.653493, 20.5477, -160.566, -92.609, 54.7944
3.87165, 4, -37.0315, 0.651793, 20.5481, -160.566, -92.609, 54.7944
3.88075, 4, -37.0238, 0.647491, 20.5496, -160.566, -92.609, 54.7944
3.8907, 4, -37.005, 0.634545, 20.5567, -160.565, -92.609, 54.7944
3.89567, 4, -36.9966, 0.628251, 20.5609, -160.565, -92.609, 54.7944
3.90377, 5, -36.9756, 0.612198, 20.5734, -160.562, -92.609, 54.7944
3.91165, 5, -36.949, 0.591725, 20.5921, -160.559, -92.6088, 54.7943
3.91965, 5, -36.9174, 0.566771, 20.6174, -160.553, -92.6085, 54.7943
3.93036, 5, -36.881, 0.520932, 20.6683, -160.542, -92.6076, 54.7943
3.9358, 5, -36.8398, 0.5033, 20.6883, -160.538, -92.6071, 54.7943
3.94372, 5, -36.7933, 0.464482, 20.7324, -160.528, -92.6057, 54.7943
3.95165, 5, -36.7417, 0.421408, 20.7809, -160.517, -92.6041, 54.7942
3.96081, 5, -36.6854, 0.374646, 20.8325, -160.505, -92.6024, 54.7942
3.96774, 5, -36.6251, 0.325106, 20.8862, -160.493, -92.6006, 54.7941
3.97565, 5, -36.5609, 0.273435, 20.9412, -160.481, -92.5988, 54.7941
3.98367, 5, -36.4943, 0.220403, 20.9967, -160.469, -92.5969, 54.7941
3.99182, 5, -36.4264, 0.166762, 21.0522, -160.457, -92.595, 54.7941
3.9997, 5, -36.3578, 0.11283, 21.1078, -160.445, -92.593, 54.7941
4.00787, 5, -36.2891, 0.0588542, 21.1633, -160.433, -92.5911, 54.7942
4.01607, 5, -36.2203, 0.0049877, 21.2189, -160.421, -92.5891, 54.7942
4.02321, 5, -36.1514, -0.0486915, 21.2744, -160.409, -92.5871, 54.7943
4.03201, 5, -36.0828, -0.102121, 21.3299, -160.396, -92.5851, 54.7943
4.04005, 5, -36.0142, -0.155288, 21.3852, -160.384, -92.583, 54.7944
4.04745, 5, -35.9457, -0.208301, 21.4405, -160.371, -92.5809, 54.7946
4.05582, 5, -35.8771, -0.261142, 21.4957, -160.358, -92.5789, 54.7949
4.06422, 5, -35.8084, -0.313839, 21.5508, -160.345, -92.5768, 54.7953
4.07166, 5, -35.7394, -0.366505, 21.6058, -160.332, -92.5748, 54.7959
4.07999, 5, -35.6702, -0.419146, 21.6607, -160.32, -92.5726, 54.7967
4.08887, 5, -35.6007, -0.471919, 21.7153, -160.307, -92.5705, 54.7979
4.09608, 5, -35.531, -0.524719, 21.7697, -160.295, -92.5684, 54.7991
4.10506, 5, -35.4609, -0.577526, 21.824, -160.282, -92.5663, 54.8005
4.11351, 5, -35.3906, -0.630332, 21.8782, -160.27, -92.5642, 54.802
4.11997, 5, -35.3202, -0.683076, 21.9322, -160.257, -92.5621, 54.8036
4.12798, 5, -35.2497, -0.735804, 21.9862, -160.244, -92.5599, 54.8054
4.13795, 5, -35.1791, -0.788223, 22.04, -160.23, -92.5578, 54.8074
4.14445, 5, -35.1084, -0.840471, 22.0937, -160.217, -92.5556, 54.8094
4.15216, 5, -35.0378, -0.89267, 22.1474, -160.204, -92.5533, 54.8117
4.1612, 5, -34.9673, -0.944439, 22.2008, -160.19, -92.5511, 54.814
4.1682, 5, -34.8969, -0.996064, 22.2542, -160.178, -92.5489, 54.8164
4.17622, 5, -34.8264, -1.04752, 22.3075, -160.165, -92.5466, 54.8189
4.18955, 5, -34.7207, -1.12464, 22.387, -160.146, -92.5432, 54.823
4.19161, 5, -34.7207, -1.12464, 22.387, -160.146, -92.5432, 54.823
4.19968, 5, -34.6498, -1.17593, 22.4399, -160.133, -92.5409, 54.8259
4.20767, 5, -34.5789, -1.22725, 22.4924, -160.12, -92.5386, 54.8288
4.21566, 5, -34.5078, -1.27865, 22.5449, -160.107, -92.5363, 54.8318
4.22368, 5, -34.4365, -1.32998, 22.5973, -160.093, -92.534, 54.835
4.23181, 5, -34.365, -1.38133, 22.6495, -160.079, -92.5316, 54.8384
4.24127, 5, -34.2934, -1.43266, 22.7275, -160.058, -92.5281, 54.8435
4.24763, 5, -34.2216, -1.48385, 22.7535, -160.052, -92.5269, 54.8452
4.25565, 5, -34.1497, -1.53481, 22.8054, -160.038, -92.5246, 54.8489
4.26374, 5, -34.0776, -1.58556, 22.857, -160.025, -92.5222, 54.8526
4.27164, 5, -34.0055, -1.63616, 22.9086, -160.011, -92.5199, 54.8564
4.28138, 5, -33.8973, -1.71158, 22.9858, -159.991, -92.5163, 54.8624
4.28779, 5, -33.8612, -1.73664, 23.0114, -159.984, -92.5151, 54.8644
4.29561, 5, -33.7891, -1.78667, 23.0626, -159.97, -92.5128, 54.8685
4.3072, 5, -33.6807, -1.86154, 23.139, -159.949, -92.5092, 54.875
4.31425, 5, -33.6083, -1.91135, 23.1898, -159.935, -92.5069, 54.8793
4.31963, 5, -33.572, -1.93635, 23.2151, -159.928, -92.5057, 54.8814
4.32774, 5, -33.4993, -1.98655, 23.2656, -159.913, -92.5035, 54.8856
4.33671, 5, -33.4264, -2.03703, 23.3161, -159.899, -92.5012, 54.8893
4.34365, 5, -33.3537, -2.08784, 23.3664, -159.885, -92.4989, 54.8917
4.3517, 6, -33.2811, -2.13907, 23.4168, -159.871, -92.4965, 54.8927
4.35982, 6, -33.2088, -2.19101, 23.4674, -159.857, -92.4939, 54.892
4.36994, 6, -33.1012, -2.27063, 23.544, -159.834, -92.489, 54.8857
4.37563, 6, -33.0655, -2.29757, 23.5699, -159.826, -92.487, 54.8812
4.38368, 7, -32.9946, -2.35238, 23.6224, -159.808, -92.4819, 54.8685
4.39164, 7, -32.924, -2.40835, 23.6762, -159.789, -92.4753, 54.8529
4.39964, 7, -32.8541, -2.46568, 23.7313, -159.769, -92.4669, 54.8355
4.40777, 7, -32.7846, -2.52454, 23.7879, -159.748, -92.4564, 54.8177
4.41569, 7, -32.7159, -2.58499, 23.846, -159.726, -92.4439, 54.8004
4.42364, 8, -32.6479, -2.64708, 23.9054, -159.702, -92.4294, 54.7834
4.43293, 8, -32.5805, -2.7109, 23.9662, -159.677, -92.4129, 54.7665
4.44152, 8, -32.5139, -2.77648, 24.028, -159.651, -92.3945, 54.749
4.44769, 8, -32.448, -2.84364, 24.091, -159.623, -92.3743, 54.7305
4.45642, 8, -32.3828, -2.91233, 24.1549, -159.596, -92.3529, 54.7103
4.46365, 9, -32.3182, -2.98233, 24.2198, -159.567, -92.3305, 54.6883
4.4717, 9, -32.2542, -3.05365, 24.2857, -159.537, -92.3069, 54.6645
4.48174, 9, -32.1907, -3.12633, 24.3526, -159.506, -92.2819, 54.6391
4.48789, 9, -32.1277, -3.20025, 24.4204, -159.474, -92.2553, 54.6125
4.4957, 9, -32.0653, -3.27552, 24.4893, -159.441, -92.2267, 54.5847
4.50364, 10, -32.0035, -3.35204, 24.5591, -159.408, -92.1971, 54.5554
4.51186, 10, -31.9424, -3.42997, 24.63, -159.372, -92.1664, 54.5241
4.51981, 10, -31.8818, -3.50937, 24.702, -159.336, -92.1343, 54.4907
4.52799, 10, -31.8217, -3.59012, 24.775, -159.3, -92.1003, 54.4557
4.53591, 10, -31.7623, -3.67235, 24.849, -159.263, -92.0647, 54.4197
4.54381, 11, -31.7034, -3.756, 24.924, -159.224, -92.0284, 54.3824
4.55216, 11, -31.645, -3.84117, 25, -159.184, -91.991, 54.3433
4.55991, 11, -31.5871, -3.92776, 25.0768, -159.145, -91.9515, 54.3022
4.56882, 11, -31.5297, -4.01581, 25.1546, -159.103, -91.9106, 54.2595
4.5757, 11, -31.4729, -4.10533, 25.2335, -159.06, -91.8689, 54.216
4.58368, 12, -31.4166, -4.19636, 25.3135, -159.018, -91.8257, 54.1709
4.59249, 12, -31.3607, -4.2888, 25.3944, -158.974, -91.7803, 54.1236
4.59984, 12, -31.3054, -4.38266, 25.4765, -158.928, -91.7343, 54.0746
4.6089, 12, -31.2506, -4.47782, 25.5596, -158.882, -91.6871, 54.0248
4.61619, 12, -31.1962, -4.57438, 25.6438, -158.836, -91.6377, 53.9734
4.62262, 12, -31.1693, -4.62322, 25.6862, -158.812, -91.6128, 53.9468
4.63286, 13, -31.0892, -4.77172, 25.8148, -158.738, -91.5362, 53.8652
4.64006, 13, -31.0365, -4.87253, 25.9017, -158.689, -91.4826, 53.8095
4.64662, 13, -31.0104, -4.92353, 25.9457, -158.664, -91.4557, 53.7809
4.65712, 13, -30.9326, -5.07872, 26.079, -158.587, -91.3728, 53.6926
4.66507, 13, -30.8814, -5.1839, 26.1693, -158.535, -91.3156, 53.6326
4.67304, 14, -30.8309, -5.29058, 26.2607, -158.481, -91.2578, 53.5704
4.68022, 14, -30.8059, -5.39874, 26.3529, -158.427, -91.1976, 53.5069
4.68847, 14, -30.7314, -5.50837, 26.446, -158.372, -91.1371, 53.4429
4.69674, 14, -30.6824, -5.61959, 26.5401, -158.315, -91.0745, 53.3763
4.70367, 14, -30.6581, -5.67574, 26.5875, -158.287, -91.0426, 53.3425
4.7117, 15, -30.6098, -5.78911, 26.6832, -158.23, -90.9787, 53.2745
4.71965, 15, -30.562, -5.9038, 26.7802, -158.171, -90.9122, 53.2047
4.72763, 15, -30.5148, -6.01975, 26.8783, -158.113, -90.8455, 53.1332
4.73948, 15, -30.4448, -6.19645, 27.0271, -158.022, -90.742, 53.0237
4.74265, 15, -30.4218, -6.25603, 27.0772, -157.991, -90.7071, 52.986
4.75167, 16, -30.3761, -6.37628, 27.1779, -157.929, -90.6358, 52.9105
4.75962, 16, -30.331, -6.49816, 27.2798, -157.866, -90.5633, 52.833
4.76763, 16, -30.2863, -6.62145, 27.3829, -157.802, -90.4896, 52.754
4.77564, 16, -30.2421, -6.74613, 27.4871, -157.737, -90.4144, 52.674
4.78377, 16, -30.1983, -6.87234, 27.5924, -157.672, -90.3379, 52.592
4.79159, 17, -30.1551, -7.00014, 27.6986, -157.605, -90.2602, 52.5097
4.7987, 17, -30.1123, -7.12953, 27.8056, -157.538, -90.1811, 52.4254
4.80783, 17, -30.0701, -7.26045, 27.9134, -157.47, -90.1007, 52.3404
4.81641, 17, -30.0283, -7.39276, 28.0224, -157.401, -90.0188, 52.2535
4.82261, 17, -29.9872, -7.5263, 28.1327, -157.33, -89.9359, 52.1654
4.83165, 18, -29.9464, -7.66138, 28.2442, -157.26, -89.8514, 52.0759
4.8397, 18, -29.9063, -7.7978, 28.3566, -157.188, -89.7656, 51.9854
4.84762, 18, -29.8666, -7.93572, 28.4697, -157.115, -89.679, 51.8931
4.85791, 18, -29.8078, -8.14487, 28.6412, -157.004, -89.5463, 51.7526
4.8638, 18, -29.7885, -8.21523, 28.699, -156.966, -89.5014, 51.7047
4.87169, 19, -29.7501, -8.35699, 28.8154, -156.891, -89.4107, 51.6087
4.87962, 19, -29.7122, -8.50028, 28.9331, -156.814, -89.319, 51.5112
4.88779, 19, -29.6748, -8.64515, 29.0516, -156.737, -89.2258, 51.4129
4.89562, 19, -29.6378, -8.79147, 29.1708, -156.659, -89.1313, 51.3132
4.90369, 19, -29.6013, -8.9389, 29.2909, -156.58, -89.0361, 51.2129
4.91187, 20, -29.5654, -9.08783, 29.412, -156.5, -88.9395, 51.1107
4.91964, 20, -29.5299, -9.23825, 29.5344, -156.419, -88.8418, 51.0078
4.92768, 20, -29.4947, -9.39019, 29.6578, -156.338, -88.7434, 50.9034
4.93578, 20, -29.4601, -9.54342, 29.7821, -156.255, -88.6435, 50.798
4.94367, 20, -29.426, -9.69768, 29.9072, -156.172, -88.5427, 50.6914
4.95163, 20, -29.3924, -9.85325, 30.0333, -156.087, -88.4408, 50.5835
4.95963, 21, -29.3591, -10.0103, 30.1604, -156.002, -88.3375, 50.4747
4.96775, 21, -29.3262, -10.1689, 30.2886, -155.916, -88.2334, 50.3647
4.97561, 21, -29.2938, -10.3287, 30.4178, -155.829, -88.1284, 50.2539
4.98376, 21, -29.2618, -10.4893, 30.5478, -155.741, -88.022, 50.1424
4.99122, 21, -29.2302, -10.6511, 30.6787, -155.653, -87.9149, 50.0298
4.99894, 22, -29.199, -10.8145, 30.8105, -155.563, -87.8067, 49.9166
5.00842, 22, -29.1681, -10.9792, 30.9433, -155.473, -87.6975, 49.8023
5.01647, 22, -29.1378, -11.1447, 31.077, -155.381, -87.5873, 49.687
5.02392, 22, -29.1078, -11.3113, 31.2115, -155.289, -87.476, 49.5709
5.03246, 22, -29.0781, -11.4793, 31.3471, -155.196, -87.3639, 49.4539
5.0398, 23, -29.0489, -11.6491, 31.4835, -155.102, -87.2509, 49.3364
5.04772, 23, -29.0199, -11.8199, 31.6206, -155.007, -87.1369, 49.2179
5.05785, 23, -28.9914, -11.9915, 31.7585, -154.912, -87.0222, 49.099
5.06394, 23, -28.9633, -12.1642, 31.8974, -154.815, -86.9064, 48.9796
5.07171, 23, -28.9356, -12.3385, 32.0371, -154.718, -86.7897, 48.8593
5.07971, 24, -28.9082, -12.514, 32.1778, -154.62, -86.6721, 48.7386
5.0877, 24, -28.8811, -12.69, 32.3192, -154.521, -86.5535, 48.6177
5.09573, 24, -28.8543, -12.8665, 32.4611, -154.421, -86.4343, 48.4956
5.10377, 24, -28.8279, -13.0448, 32.604, -154.32, -86.3139, 48.373
5.11225, 24, -28.8019, -13.2244, 32.7478, -154.219, -86.1931, 48.2501
5.11993, 25, -28.7761, -13.4046, 32.8925, -154.117, -86.0716, 48.1267
5.12802, 25, -28.7507, -13.5854, 33.0377, -154.014, -85.9491, 48.0032
5.13478, 25, -28.7381, -13.6762, 33.1105, -153.962, -85.8878, 47.9416
5.14492, 25, -28.7003, -13.9511, 33.33, -153.805, -85.7022, 47.756
5.15211, 25, -28.6756, -14.1354, 33.4775, -153.699, -85.578, 47.632
5.16077, 26, -28.6512, -14.3199, 33.6257, -153.593, -85.4529, 47.5082
5.169, 26, -28.627, -14.5057, 33.7742, -153.486, -85.3273, 47.3838
5.17616, 26, -28.6033, -14.693, 33.9234, -153.378, -85.2013, 47.2595
5.18502, 26, -28.5914, -14.7869, 34.0737, -153.27, -85.0743, 47.1351
5.19218, 26, -28.5677, -14.9748, 34.149, -153.161, -84.9471, 47.0109
5.20057, 27, -28.5326, -15.2576, 34.3756, -153.05, -84.8192, 46.887
5.20943, 27, -28.5211, -15.3524, 34.4513, -152.995, -84.691, 46.7638
5.2171, 27, -28.4982, -15.6375, 34.6796, -152.828, -84.562, 46.6404
5.22262, 27, -28.4753, -15.7326, 34.7561, -152.772, -84.4974, 46.5788
5.23289, 27, -28.4417, -16.0195, 34.9863, -152.604, -84.3031, 46.3948
5.24139, 27, -28.4306, -16.2125, 35.1398, -152.49, -84.173, 46.2722
5.24761, 28, -28.4082, -16.3093, 35.2168, -152.433, -84.1078, 46.2111
5.25461, 28, -28.3859, -16.503, 35.3715, -152.319, -83.9771, 46.0894
5.26666, 28, -28.3528, -16.7949, 35.6045, -152.146, -83.7806, 45.9078
5.27161, 28, -28.3417, -16.8928, 35.6822, -152.088, -83.7148, 45.8477
5.27966, 28, -28.3197, -17.0887, 35.8378, -151.971, -83.5832, 45.7282
5.28991, 29, -28.2868, -17.3824, 36.0724, -151.796, -83.3854, 45.5506
5.29562, 29, -28.276, -17.4806, 36.151, -151.737, -83.3193, 45.4919
5.30359, 29, -28.2542, -17.6778, 36.308, -151.618, -83.1868, 45.375
5.31181, 29, -28.2324, -17.8752, 36.4649, -151.499, -83.054, 45.2591
5.31977, 29, -28.2108, -18.0726, 36.6223, -151.38, -82.921, 45.144
5.32762, 30, -28.1895, -18.2708, 36.7806, -151.26, -82.7877, 45.0301
5.33739, 30, -28.1681, -18.4697, 36.9392, -151.139, -82.6546, 44.9176
5.34452, 30, -28.1467, -18.6688, 37.0976, -151.017, -82.5209, 44.8059
5.3516, 30, -28.1255, -18.8681, 37.2562, -150.895, -82.3872, 44.6958
5.35967, 30, -28.1041, -19.0686, 37.4153, -150.772, -82.2532, 44.587
5.36769, 31, -28.0827, -19.2698, 37.575, -150.649, -82.1189, 44.4797
5.37565, 31, -28.0613, -19.4707, 37.7343, -150.525, -81.9848, 44.374
5.3845, 31, -28.0401, -19.6717, 37.8937, -150.4, -81.8503, 44.2697
5.39164, 31, -28.0188, -19.8732, 38.0539, -150.275, -81.7163, 44.1675
5.39972, 31, -27.9973, -20.0747, 38.2144, -150.149, -81.5816, 44.0664
5.40865, 32, -27.9757, -20.2755, 38.3744, -150.023, -81.4474, 43.9676
5.41577, 32, -27.954, -20.4767, 38.5341, -149.897, -81.313, 43.8706
5.42367, 32, -27.9318, -20.6785, 38.6939, -149.77, -81.1791, 43.7763
5.435, 32, -27.8981, -20.9804, 38.9339, -149.579, -80.9781, 43.6392
5.43981, 32, -27.8867, -21.0807, 39.0136, -149.515, -80.9114, 43.5949
5.4476, 33, -27.8638, -21.2817, 39.1724, -149.388, -80.7782, 43.5083
5.45569, 33, -27.8406, -21.4825, 39.3312, -149.26, -80.6455, 43.4252
5.46384, 33, -27.817, -21.6823, 39.4901, -149.132, -80.5131, 43.3446
5.4718, 33, -27.7929, -21.8815, 39.6483, -149.005, -80.3811, 43.2678
5.47966, 33, -27.7682, -22.0807, 39.8056, -148.877, -80.2497, 43.1938
5.48766, 34, -27.7431, -22.2793, 39.9624, -148.75, -80.1185, 43.1232
5.4957, 34, -27.7175, -22.4767, 40.1192, -148.622, -79.9879, 43.0564
5.50362, 34, -27.6914, -22.6737, 40.2755, -148.494, -79.8571, 42.9918
5.51201, 34, -27.665, -22.8707, 40.4309, -148.367, -79.7265, 42.9312
5.52052, 34, -27.6381, -23.067, 40.5859, -148.239, -79.5957, 42.8738
5.52772, 34, -27.6106, -23.2625, 40.7413, -148.111, -79.4651, 42.8192
5.53602, 35, -27.583, -23.4582, 40.8964, -147.982, -79.3344, 42.768
5.54373, 35, -27.5552, -23.6542, 41.0508, -147.853, -79.2039, 42.7208
5.55214, 35, -27.527, -23.8496, 41.2048, -147.724, -79.0737, 42.6768
5.56109, 35, -27.4987, -24.0442, 41.3589, -147.594, -78.9435, 42.6358
5.5685, 35, -27.47, -24.2391, 41.5131, -147.464, -78.8137, 42.5983
5.57661, 36, -27.4408, -24.4337, 41.6668, -147.334, -78.6838, 42.5651
5.58363, 36, -27.4113, -24.6274, 41.8197, -147.203, -78.5548, 42.5361
5.59204, 36, -27.3815, -24.8204, 41.9723, -147.072, -78.4258, 42.5114
5.59972, 36, -27.351, -25.0134, 42.1246, -146.941, -78.2975, 42.4908
5.60774, 36, -27.3197, -25.206, 42.2759, -146.81, -78.1695, 42.4748
5.61592, 37, -27.2877, -25.3973, 42.4261, -146.68, -78.0419, 42.4633
5.62389, 37, -27.2548, -25.5876, 42.5754, -146.55, -77.9149, 42.4567
5.63192, 37, -27.2212, -25.7773, 42.7239, -146.42, -77.7883, 42.4538
5.64048, 37, -27.1867, -25.9659, 42.8714, -146.291, -77.6622, 42.4539
5.64809, 37, -27.1512, -26.1528, 43.0175, -146.163, -77.5364, 42.4598
5.65611, 38, -27.1149, -26.3384, 43.1624, -146.036, -77.4113, 42.472
5.66424, 38, -27.078, -26.5235, 43.3066, -145.908, -77.2867, 42.4893
5.67216, 38, -27.0402, -26.7075, 43.4501, -145.781, -77.1625, 42.5122
5.6802, 38, -27.0016, -26.8898, 43.5927, -145.654, -77.0388, 42.5405
5.68849, 38, -26.9622, -27.0712, 43.7342, -145.527, -76.9155, 42.5748
5.69639, 39, -26.9423, -27.2525, 43.8749, -145.401, -76.7927, 42.6152
5.70463, 39, -26.8813, -27.4326, 44.0147, -145.275, -76.6699, 42.6617
5.71245, 39, -26.8605, -27.5222, 44.0843, -145.149, -76.5475, 42.7134
5.72119, 39, -26.8182, -27.7003, 44.2915, -145.023, -76.4252, 42.7713
5.72762, 39, -26.7752, -27.8782, 44.36, -144.96, -76.364, 42.8029
5.73559, 40, -26.7313, -28.0555, 44.4961, -144.835, -76.2419, 42.8704
5.7436, 40, -26.6863, -28.2312, 44.6312, -144.71, -76.1197, 42.9437
5.75161, 40, -26.6403, -28.4053, 44.7652, -144.586, -75.9981, 43.0245
5.76209, 40, -26.5697, -28.6646, 44.9638, -144.402, -75.8161, 43.1562
5.76784, 40, -26.5456, -28.7505, 45.0293, -144.341, -75.7558, 43.2039
5.77717, 41, -26.4718, -29.0053, 45.224, -144.159, -75.5754, 43.3559
5.78359, 41, -26.4466, -29.0894, 45.2883, -144.098, -75.5153, 43.4101
5.79369, 41, -26.3695, -29.3397, 45.4791, -143.918, -75.3362, 43.5823
5.79959, 41, -26.3432, -29.4227, 45.542, -143.859, -75.2766, 43.6431
5.80659, 41, -26.2896, -29.5871, 45.6667, -143.741, -75.1578, 43.7703
5.81572, 42, -26.2346, -29.7494, 45.7896, -143.624, -75.0398, 43.9048
5.82359, 42, -26.1782, -29.9099, 45.9107, -143.509, -74.9218, 44.0465
5.83262, 42, -26.1202, -30.0687, 46.0297, -143.395, -74.8048, 44.1956
5.84246, 42, -26.03, -30.3031, 46.2041, -143.227, -74.6299, 44.4324
5.84767, 42, -25.9992, -30.3799, 46.2612, -143.172, -74.5719, 44.515
5.85559, 42, -25.9361, -30.5318, 46.3737, -143.064, -74.4566, 44.6852
5.86384, 43, -25.8714, -30.6815, 46.4839, -142.958, -74.3413, 44.8632
5.87246, 43, -25.8049, -30.829, 46.592, -142.854, -74.2267, 45.0488
5.88058, 43, -25.7368, -30.9744, 46.6981, -142.751, -74.1124, 45.2422
5.88714, 43, -25.6671, -31.1172, 46.8023, -142.65, -73.9985, 45.4431
5.89567, 43, -25.596, -31.2579, 46.9046, -142.551, -73.8852, 45.6517
5.90359, 44, -25.5232, -31.3966, 47.0049, -142.454, -73.7724, 45.8681
5.91284, 44, -25.4486, -31.5332, 47.1028, -142.36, -73.6603, 46.0928
5.92309, 44, -25.3334, -31.7341, 47.2451, -142.222, -73.4931, 46.4448
5.9276, 44, -25.2942, -31.7997, 47.2914, -142.177, -73.4377, 46.5663
5.93635, 44, -25.2142, -31.9289, 47.3821, -142.089, -73.3276, 46.8151
5.94361, 45, -25.1325, -32.0555, 47.4704, -142.005, -73.218, 47.0724
5.95159, 45, -25.0487, -32.1791, 47.5562, -141.923, -73.1088, 47.3383
5.96168, 45, -24.9628, -32.3001, 47.6393, -141.844, -73.0003, 47.6123
5.96777, 45, -24.8747, -32.4179, 47.7193, -141.767, -72.8919, 47.8945
5.97563, 45, -24.7843, -32.5326, 47.7964, -141.694, -72.7843, 48.1852
5.98359, 46, -24.6916, -32.644, 47.8705, -141.624, -72.6772, 48.4848
5.99164, 46, -24.5965, -32.7519, 47.9417, -141.557, -72.5704, 48.7929
5.99964, 46, -24.4988, -32.8564, 48.0098, -141.494, -72.4647, 49.1093
6.00769, 46, -24.399, -32.9573, 48.0749, -141.435, -72.3597, 49.4346
6.01576, 46, -24.2969, -33.0544, 48.1366, -141.379, -72.2555, 49.7684
6.0237, 47, -24.1924, -33.1479, 48.1948, -141.328, -72.1527, 50.1102
6.03198, 47, -24.0856, -33.2373, 48.2494, -141.28, -72.0508, 50.4604
6.03974, 47, -23.9761, -33.3227, 48.3004, -141.236, -71.9501, 50.819
6.04797, 47, -23.864, -33.404, 48.3475, -141.198, -71.8507, 51.1858
6.05569, 47, -23.7492, -33.4812, 48.3908, -141.164, -71.7526, 51.5613
6.06395, 48, -23.6315, -33.5541, 48.4301, -141.134, -71.6558, 51.9454
6.0722, 48, -23.5112, -33.6225, 48.4652, -141.109, -71.5609, 52.3374
6.07961, 48, -23.3884, -33.6863, 48.4961, -141.089, -71.4675, 52.7385
6.08837, 48, -23.2631, -33.7454, 48.523, -141.074, -71.3759, 53.1486
6.09562, 48, -23.1352, -33.7994, 48.5456, -141.064, -71.2866, 53.5672
6.10375, 49, -23.0043, -33.8483, 48.5636, -141.059, -71.1991, 53.9944
6.11286, 49, -22.8706, -33.892, 48.5773, -141.058, -71.1133, 54.4293
6.12418, 49, -22.7339, -33.9471, 48.589, -141.068, -70.9889, 55.0962
6.12882, 49, -22.5943, -33.9627, 48.5906, -141.074, -70.9484, 55.3223
6.13702, 49, -22.4519, -33.9896, 48.5906, -141.092, -70.8692, 55.7803
6.14489, 49, -22.3067, -34.0104, 48.5856, -141.115, -70.7924, 56.2463
6.15293, 50, -22.1588, -34.025, 48.5755, -141.145, -70.7186, 56.719
6.16007, 50, -22.0082, -34.0334, 48.5602, -141.18, -70.6474, 57.2
6.16894, 50, -21.8547, -34.0358, 48.5398, -141.221, -70.5796, 57.689
6.17635, 50, -21.6982, -34.032, 48.5138, -141.269, -70.5145, 58.1855
6.1842, 50, -21.5386, -34.0216, 48.4822, -141.323, -70.4539, 58.689
6.19341, 51, -21.3761, -34.0043, 48.4454, -141.384, -70.3959, 59.1984
6.20009, 51, -21.2938, -33.9931, 48.425, -141.416, -70.3684, 59.4556
6.20759, 51, -21.1274, -33.9654, 48.3797, -141.486, -70.3168, 59.9745
6.21668, 51, -20.8729, -33.9106, 48.3014, -141.602, -70.2454, 60.7641
6.22453, 51, -20.7868, -33.8886, 48.2725, -141.644, -70.2236, 61.0299
6.23165, 52, -20.6126, -33.8388, 48.2101, -141.733, -70.1839, 61.566
6.24112, 52, -20.3463, -33.7493, 48.1053, -141.878, -70.1329, 62.383
6.25135, 52, -20.1652, -33.6796, 48.0279, -141.982, -70.1044, 62.936
6.25553, 52, -20.0735, -33.6417, 47.9868, -142.037, -70.092, 63.2146
6.2637, 52, -19.8885, -33.5595, 47.8999, -142.151, -70.0714, 63.7763
6.27159, 53, -19.701, -33.4689, 47.8069, -142.272, -70.0561, 64.3441
6.27958, 53, -19.5117, -33.3698, 47.7077, -142.398, -70.0464, 64.9173
6.28915, 53, -19.2238, -33.2059, 47.5479, -142.599, -70.0415, 65.7842
6.29576, 53, -19.127, -33.1472, 47.4917, -142.669, -70.0423, 66.075
6.30515, 53, -18.8341, -32.9587, 47.3143, -142.886, -70.0536, 66.9521
6.31499, 54, -18.6365, -32.8226, 47.1886, -143.036, -70.0691, 67.5388
6.32184, 54, -18.4371, -32.6782, 47.0572, -143.191, -70.0911, 68.1262
6.33156, 54, -18.2357, -32.5257, 46.9203, -143.351, -70.1199, 68.7151
6.33653, 54, -18.1344, -32.4465, 46.8498, -143.432, -70.1366, 69.0101
6.34675, 54, -17.8287, -32.1953, 46.6293, -143.683, -70.196, 69.8976
6.35178, 55, -17.7263, -32.107, 46.5528, -143.769, -70.2196, 70.1945
6.36057, 55, -17.5209, -31.9234, 46.3949, -143.945, -70.2732, 70.7912
6.36759, 55, -17.314, -31.7306, 46.2306, -144.125, -70.3337, 71.3925
6.37564, 55, -17.1055, -31.5281, 46.0592, -144.31, -70.4036, 71.9983
6.38371, 55, -16.8951, -31.3148, 45.8799, -144.501, -70.4817, 72.6085
6.39172, 55, -16.6831, -31.0908, 45.6935, -144.697, -70.5693, 73.2241
6.40076, 56, -16.4695, -30.8565, 45.5005, -144.897, -70.6659, 73.8443
6.40757, 56, -16.2546, -30.6112, 45.2998, -145.101, -70.7715, 74.4672
6.41854, 56, -15.9319, -30.2231, 44.985, -145.415, -70.948, 75.4078
6.42373, 56, -15.8244, -30.0885, 44.8773, -145.522, -71.0114, 75.7226
6.43414, 57, -15.6091, -29.6684, 44.5434, -145.845, -71.2161, 76.6685
6.4396, 57, -15.3926, -29.5234, 44.4286, -145.955, -71.289, 76.9843
6.44759, 57, -15.175, -29.2254, 44.1947, -146.175, -71.4424, 77.617
6.45564, 57, -14.9567, -28.9174, 43.9544, -146.398, -71.6052, 78.25
6.46361, 57, -14.7387, -28.6011, 43.7081, -146.621, -71.7778, 78.8813
6.47175, 58, -14.5211, -28.2764, 43.4579, -146.846, -71.9591, 79.5105
6.48164, 58, -14.3044, -27.9445, 43.203, -147.069, -72.1485, 80.1365
6.48678, 58, -14.0892, -27.6046, 42.9448, -147.292, -72.3452, 80.7567
6.49557, 58, -13.8756, -27.2577, 42.6839, -147.513, -72.5491, 81.3696
6.50363, 58, -13.6634, -26.9039, 42.4196, -147.732, -72.7597, 81.9765
6.51161, 58, -13.4525, -26.5439, 42.153, -147.949, -72.9769, 82.5769
6.5196, 59, -13.243, -26.1766, 41.8825, -148.163, -73.2015, 83.1712
6.52774, 59, -13.0353, -25.8026, 41.6086, -148.376, -73.4335, 83.7603
6.5357, 59, -12.8294, -25.4217, 41.331, -148.587, -73.6739, 84.3458
6.54388, 59, -12.6245, -25.0341, 41.0491, -148.797, -73.9227, 84.9282
6.55213, 59, -12.4205, -24.6386, 40.7634, -149.005, -74.1807, 85.5069
6.55913, 60, -12.3189, -24.4379, 40.4727, -149.211, -74.4476, 86.0824
6.5691, 60, -12.016, -23.825, 40.1786, -149.416, -74.7236, 86.6552
6.57679, 60, -11.8157, -23.4081, 39.8807, -149.619, -75.0083, 87.2248
6.58439, 60, -11.6171, -22.9848, 39.5806, -149.819, -75.3014, 87.789
6.5916, 60, -11.4208, -22.5565, 39.2784, -150.016, -75.6018, 88.3483
6.59961, 61, -11.2269, -22.1242, 38.975, -150.209, -75.9085, 88.9013
6.60855, 61, -11.0352, -21.6881, 38.6708, -150.397, -76.2203, 89.446
6.61575, 61, -10.8458, -21.2485, 38.3664, -150.581, -76.5363, 89.9809
6.62487, 61, -10.6588, -20.8055, 38.0624, -150.759, -76.8565, 90.5061
6.63192, 61, -10.4742, -20.3592, 37.7582, -150.932, -77.1802, 91.0219
6.64002, 61, -10.292, -19.9096, 37.4548, -151.1, -77.508, 91.5286
6.64884, 62, -10.1128, -19.4572, 37.1508, -151.263, -77.8404, 92.0267
6.65609, 62, -9.93623, -19.0024, 36.8466, -151.421, -78.1778, 92.5166
6.66495, 62, -9.76234, -18.545, 36.5413, -151.575, -78.5204, 93
6.6725, 62, -9.59089, -18.0856, 36.2357, -151.724, -78.8684, 93.4757
6.68017, 62, -9.42159, -17.6247, 35.9298, -151.869, -79.221, 93.9438
6.6889, 63, -9.33773, -17.1619, 35.6248, -152.009, -79.5781, 94.4025
6.6962, 63, -9.17161, -16.93, 35.4728, -152.144, -79.9384, 94.8517
6.70357, 63, -9.00805, -16.4645, 35.1691, -152.209, -80.1197, 95.0727
6.71162, 63, -8.84705, -15.9974, 34.8673, -152.336, -80.4843, 95.5067
6.72044, 63, -8.68856, -15.5283, 34.5665, -152.457, -80.8512, 96.1384
6.7276, 64, -8.53273, -15.0577, 34.268, -152.572, -81.2205, 96.3437
6.73562, 64, -8.37934, -14.5863, 33.9708, -152.683, -81.5925, 96.7458
6.74358, 64, -8.22844, -14.114, 33.6744, -152.788, -81.9674, 97.1379
6.75161, 64, -8.07987, -13.6417, 33.3792, -152.889, -82.3456, 97.5198
6.75956, 64, -7.93373, -13.1701, 33.0849, -152.983, -82.7265, 97.8902
6.76787, 65, -7.79013, -12.6994, 32.7929, -153.073, -83.1097, 98.2492
6.77752, 65, -7.64917, -12.2301, 32.3594, -153.197, -83.6872, 98.7643
6.78356, 65, -7.51122, -11.762, 32.2168, -153.235, -83.8801, 98.9291
6.79056, 65, -7.3762, -11.2949, 31.9339, -153.308, -84.2657, 99.2487
6.79975, 65, -7.2441, -10.829, 31.6547, -153.374, -84.6513, 99.5543
6.80997, 66, -7.05092, -10.1348, 31.2429, -153.463, -85.228, 99.9847
6.81563, 66, -6.98755, -9.90502, 31.1074, -153.49, -85.4199, 100.12
6.82363, 66, -6.86249, -9.44913, 30.8399, -153.539, -85.8033, 100.38
6.83156, 66, -6.7396, -8.99871, 30.5761, -153.583, -86.1848, 100.624
6.84058, 66, -6.61898, -8.55468, 30.3166, -153.621, -86.5639, 100.851
6.84774, 67, -6.50087, -8.11696, 30.0626, -153.653, -86.9391, 101.06
6.85556, 67, -6.38564, -7.68577, 29.8144, -153.68, -87.3099, 101.252
6.86362, 67, -6.27341, -7.26099, 29.5734, -153.701, -87.6752, 101.427
6.87378, 67, -6.11, -6.63463, 29.225, -153.721, -88.2123, 101.655
6.87971, 67, -6.05682, -6.42911, 29.1119, -153.725, -88.3885, 101.722
6.88762, 68, -5.95217, -6.02263, 28.8909, -153.73, -88.7373, 101.844
6.89558, 68, -5.84944, -5.62264, 28.6751, -153.731, -89.0824, 101.948
6.90356, 68, -5.74838, -5.22806, 28.4631, -153.727, -89.4249, 102.036
6.91155, 68, -5.649, -4.83902, 28.2548, -153.718, -89.7661, 102.105
6.91962, 68, -5.5512, -4.45506, 28.0499, -153.705, -90.1065, 102.157
6.92769, 69, -5.45511, -4.07555, 27.8476, -153.688, -90.4461, 102.189
6.93558, 69, -5.36075, -3.69928, 27.6491, -153.666, -90.7858, 102.205
6.94364, 69, -5.26801, -3.32646, 27.4548, -153.64, -91.1248, 102.202
6.95158, 69, -5.17718, -2.95724, 27.2637, -153.609, -91.4632, 102.178
6.95961, 69, -5.0881, -2.59185, 27.0759, -153.574, -91.8007, 102.133
6.96756, 70, -5.00051, -2.22932, 26.8925, -153.536, -92.1369, 102.065
6.97577, 70, -4.91428, -1.87096, 26.7128, -153.494, -92.4716, 101.977
6.98359, 70, -4.82921, -1.51733, 26.5363, -153.448, -92.8049, 101.865
6.99158, 70, -4.74517, -1.16923, 26.3639, -153.399, -93.1361, 101.732
6.9997, 70, -4.6623, -0.826226, 26.1962, -153.347, -93.4651, 101.577
7.00851, 71, -4.58045, -0.489767, 26.0322, -153.291, -93.7912, 101.399
7.01566, 71, -4.49961, -0.159588, 25.8722, -153.233, -94.1142, 101.201
7.02413, 71, -4.41983, 0.163428, 25.7176, -153.172, -94.4337, 100.982
7.03103, 71, -4.34092, 0.480198, 25.5685, -153.109, -94.7491, 100.743
7.03915, 71, -4.26283, 0.790824, 25.4242, -153.043, -95.0608, 100.483
7.04868, 71, -4.18561, 1.09435, 25.2846, -152.976, -95.3685, 100.204
7.05584, 72, -4.10892, 1.39121, 25.1494, -152.907, -95.6726, 99.9043
7.06366, 72, -4.03258, 1.68105, 25.0181, -152.836, -95.9736, 99.5847
7.07359, 72, -3.95647, 1.96466, 24.8903, -152.764, -96.2718, 99.2446
7.08057, 72, -3.88045, 2.24235, 24.7656, -152.692, -96.5676, 98.8839
7.08761, 72, -3.80447, 2.51345, 24.644, -152.619, -96.8609, 98.5016
7.09567, 73, -3.72862, 2.77885, 24.5255, -152.545, -97.1517, 98.0974
7.10396, 73, -3.65261, 3.038, 24.4104, -152.471, -97.44, 97.6714
7.11356, 73, -3.57621, 3.29054, 24.2988, -152.398, -97.7256, 97.2226
7.11975, 73, -3.49953, 3.53695, 24.1911, -152.325, -98.008, 96.753
7.12811, 73, -3.42254, 3.77631, 24.0874, -152.253, -98.2868, 96.2625
7.1359, 74, -3.34482, 4.00732, 23.9877, -152.182, -98.5614, 95.7528
7.14426, 74, -3.26648, 4.23017, 23.8918, -152.113, -98.8308, 95.2262
7.15205, 74, -3.18745, 4.44455, 23.8001, -152.045, -99.0946, 94.6847
7.16007, 74, -3.10772, 4.64935, 23.7126, -151.979, -99.3519, 94.1309
7.16808, 74, -3.02732, 4.8446, 23.6293, -151.916, -99.6022, 93.5651
7.17643, 75, -2.94606, 5.03055, 23.5504, -151.854, -99.8444, 92.9893
7.18416, 75, -2.86387, 5.20638, 23.4755, -151.797, -100.078, 92.4051
7.19227, 75, -2.82237, 5.37127, 23.4043, -151.741, -100.303, 91.8129
7.20116, 75, -2.69651, 5.52559, 23.337, -151.689, -100.519, 91.2126
7.21464, 76, -2.56863, 5.73683, 23.2433, -151.618, -100.826, 90.2983
7.21751, 76, -2.52549, 5.80158, 23.2142, -151.595, -100.924, 89.9898
7.22359, 76, -2.48211, 5.86351, 23.1862, -151.574, -101.019, 89.6792
7.23152, 76, -2.39468, 5.9787, 23.1335, -151.535, -101.203, 89.0507
7.23954, 76, -2.30651, 6.08191, 23.0851, -151.499, -101.378, 88.4137
7.2476, 76, -2.21752, 6.17274, 23.0413, -151.467, -101.542, 87.7702
7.25572, 77, -2.12773, 6.25075, 23.0024, -151.439, -101.696, 87.1203
7.26354, 77, -2.03705, 6.31561, 22.9687, -151.415, -101.837, 86.4671
7.27054, 77, -1.94548, 6.36717, 22.9405, -151.396, -101.966, 85.8144
7.27957, 77, -1.85294, 6.40475, 22.9181, -151.38, -102.08, 85.1646
7.2876, 77, -1.75952, 6.42819, 22.9014, -151.369, -102.18, 84.5175
7.29555, 77, -1.66522, 6.43735, 22.8906, -151.36, -102.265, 83.8747
7.30369, 78, -1.57027, 6.43171, 22.8855, -151.356, -102.335, 83.2371
7.3116, 78, -1.47469, 6.41072, 22.8858, -151.354, -102.389, 82.6027
7.31954, 78, -1.37863, 6.37443, 22.8919, -151.355, -102.427, 81.9721
7.32771, 78, -1.28221, 6.32221, 22.9041, -151.359, -102.45, 81.3466
7.33644, 78, -1.18551, 6.25386, 22.9227, -151.367, -102.458, 80.7264
7.34354, 79, -1.08871, 6.16934, 22.948, -151.379, -102.448, 80.1121
7.3525, 79, -0.99177, 6.06873, 22.9805, -151.393, -102.42, 79.5051
7.35954, 79, -0.894731, 5.95196, 23.0205, -151.41, -102.375, 78.9076
7.36758, 79, -0.79776, 5.8189, 23.0679, -151.431, -102.313, 78.3194
7.37562, 79, -0.700765, 5.66923, 23.123, -151.454, -102.232, 77.7409
7.38354, 80, -0.603698, 5.50309, 23.1855, -151.479, -102.133, 77.1729
7.39159, 80, -0.50655, 5.32035, 23.2557, -151.506, -102.016, 76.6159
7.40417, 80, -0.361022, 5.01521, 23.3761, -151.549, -101.805, 75.7987
7.4077, 80, -0.312609, 4.9049, 23.4203, -151.564, -101.726, 75.5312
7.41651, 80, -0.215843, 4.67031, 23.515, -151.596, -101.552, 75.0029
7.42354, 81, -0.11921, 4.41798, 23.6184, -151.63, -101.36, 74.4847
7.43178, 81, -0.022717, 4.14913, 23.7307, -151.664, -101.148, 73.9756
7.44057, 81, 0.0735364, 3.86312, 23.8522, -151.699, -100.917, 73.4754
7.44757, 81, 0.169635, 3.56056, 23.9833, -151.735, -100.666, 72.9847
7.45589, 81, 0.265492, 3.24055, 24.1243, -151.772, -100.397, 72.5037
7.46395, 82, 0.361087, 2.9034, 24.2751, -151.81, -100.108, 72.0326
7.47154, 82, 0.456582, 2.54975, 24.4354, -151.847, -99.8004, 71.5705
7.47955, 82, 0.551691, 2.1801, 24.6048, -151.885, -99.4735, 71.1181
7.48763, 82, 0.646612, 1.79431, 24.784, -151.922, -99.1287, 70.6752
7.49554, 82, 0.741349, 1.3921, 24.9727, -151.959, -98.7664, 70.2426
7.50497, 83, 0.836065, 0.973928, 25.1702, -151.994, -98.3871, 69.8206
7.51188, 83, 0.930774, 0.541233, 25.3776, -152.03, -97.9915, 69.4085
7.51957, 83, 1.02547, 0.0937814, 25.5955, -152.064, -97.5801, 69.0071
7.52784, 83, 1.12033, -0.368265, 25.8222, -152.097, -97.1534, 68.6159
7.53667, 83, 1.21516, -0.844236, 26.0576, -152.128, -96.7114, 68.2344
7.54486, 84, 1.31022, -1.33461, 26.3032, -152.158, -96.2541, 67.8628
7.55172, 84, 1.40552, -1.83876, 26.5585, -152.187, -95.7816, 67.4996
7.55967, 84, 1.50095, -2.35582, 26.8242, -152.215, -95.2944, 67.1442
7.56821, 84, 1.5968, -2.8864, 27.1, -152.24, -94.791, 66.7963
7.57595, 84, 1.693, -3.43048, 27.386, -152.264, -94.2726, 66.4552
7.58816, 85, 1.83807, -4.27169, 27.835, -152.297, -93.4668, 65.9564
7.59183, 85, 1.88652, -4.55841, 27.9897, -152.308, -93.1907, 65.794
7.60042, 85, 1.98376, -5.14001, 28.3067, -152.327, -92.6273, 65.4753
7.60851, 85, 2.08134, -5.73202, 28.6327, -152.344, -92.0518, 65.1641
7.61637, 85, 2.17932, -6.33324, 28.9681, -152.358, -91.4661, 64.8614
7.62628, 85, 2.27793, -6.94205, 29.3117, -152.369, -90.87, 64.5681
7.63258, 86, 2.37723, -7.55841, 29.6632, -152.378, -90.264, 64.2846
7.63997, 86, 2.47745, -8.18097, 30.0217, -152.383, -89.6491, 64.0114
7.64653, 86, 2.52795, -8.49453, 30.2036, -152.385, -89.3386, 63.8788
7.65605, 86, 2.68062, -9.44377, 30.7572, -152.387, -88.3985, 63.498
7.66806, 86, 2.78375, -10.0822, 31.3234, -152.382, -87.4488, 63.1434
7.6725, 87, 2.88795, -10.7247, 31.5149, -152.378, -87.1293, 63.0309
7.68012, 87, 2.99276, -11.3699, 31.901, -152.368, -86.4866, 62.8154
7.68822, 87, 3.0987, -12.0179, 32.2914, -152.355, -85.8392, 62.6121
7.69634, 87, 3.20552, -12.6685, 32.6866, -152.337, -85.1871, 62.4217
7.70417, 87, 3.25916, -12.9949, 32.8862, -152.327, -84.5313, 62.2439
7.71155, 88, 3.36709, -13.6504, 33.2895, -152.303, -84.2013, 62.1597
7.72097, 88, 3.53012, -14.6386, 33.9039, -152.261, -83.2029, 61.9272
7.73107, 88, 3.63945, -15.3002, 34.3205, -152.228, -82.5298, 61.7888
7.73554, 88, 3.6943, -15.6314, 34.5308, -152.209, -82.1911, 61.7248
7.74353, 88, 3.80423, -16.2942, 34.955, -152.168, -81.5113, 61.6083
7.75148, 89, 3.91457, -16.9566, 35.3835, -152.123, -80.8286, 61.5072
7.75954, 89, 4.02502, -17.6171, 35.8148, -152.072, -80.1439, 61.4237
7.7676, 89, 4.13572, -18.275, 36.2482, -152.016, -79.4576, 61.358
7.77897, 89, 4.30223, -19.2551, 36.899, -151.923, -78.4277, 61.2958
7.78373, 89, 4.35779, -19.5793, 37.1154, -151.889, -78.0864, 61.2851
7.7917, 90, 4.46887, -20.2228, 37.547, -151.817, -77.4078, 61.2783
7.79953, 90, 4.58051, -20.8604, 37.9763, -151.741, -76.7332, 61.2946
7.80763, 90, 4.69282, -21.492, 38.4034, -151.658, -76.0626, 61.3349
7.81552, 90, 4.80519, -22.1176, 38.8282, -151.571, -75.3968, 61.3988
7.82354, 90, 4.91769, -22.7379, 39.2508, -151.478, -74.7362, 61.4873
7.8357, 91, 5.08612, -23.6596, 39.8826, -151.327, -73.7529, 61.6693
7.83947, 91, 5.14214, -23.9647, 40.093, -151.274, -73.4254, 61.7435
7.84853, 91, 5.2538, -24.5703, 40.5133, -151.162, -72.7703, 61.9132
7.85561, 91, 5.36471, -25.1707, 40.9343, -151.044, -72.114, 62.1115
7.86354, 91, 5.47467, -25.7654, 41.3551, -150.918, -71.4554, 62.3396
7.87155, 91, 5.58398, -26.3532, 41.7751, -150.787, -70.7974, 62.5983
7.87979, 92, 5.69299, -26.9342, 42.1944, -150.649, -70.1399, 62.8886
7.88759, 92, 5.80243, -27.5081, 42.6111, -150.504, -69.4839, 63.2102
7.89556, 92, 5.91255, -28.074, 43.0236, -150.355, -68.8308, 63.5626
7.9036, 92, 6.02323, -28.6313, 43.4309, -150.201, -68.1812, 63.9468
7.91153, 92, 6.13499, -29.1781, 43.8321, -150.044, -67.5372, 64.3623
7.9196, 93, 6.24816, -29.7143, 44.227, -149.884, -66.8999, 64.8094
7.93659, 93, 6.48024, -30.7556, 44.9974, -149.557, -65.6376, 65.7993
7.93869, 93, 6.53968, -31.0103, 45.1865, -149.475, -65.324, 66.0676
7.94353, 93, 6.59964, -31.2634, 45.3745, -149.393, -65.0107, 66.3448
7.9516, 93, 6.72133, -31.7655, 45.747, -149.228, -64.3848, 66.9272
7.96056, 94, 6.84523, -32.262, 46.1162, -149.061, -63.7584, 67.5516
7.96852, 94, 6.97136, -32.7536, 46.4827, -148.895, -63.1269, 68.2223
7.97655, 94, 7.09962, -33.2396, 46.8477, -148.728, -62.4887, 68.9458
7.98434, 94, 7.22991, -33.718, 47.2106, -148.561, -61.8442, 69.7222
7.99155, 94, 7.36318, -34.189, 47.5703, -148.399, -61.1937, 70.55
7.99956, 95, 7.50054, -34.6519, 47.9234, -148.242, -60.5412, 71.4326
8.0085, 95, 7.64288, -35.1044, 48.2685, -148.094, -59.8914, 72.3617
8.01555, 95, 7.79121, -35.5461, 48.6025, -147.958, -59.2467, 73.3314
8.0237, 95, 7.94596, -35.9744, 48.9242, -147.837, -58.6095, 74.3406
8.03279, 95, 8.10749, -36.3848, 49.2305, -147.732, -57.9807, 75.3829
8.03989, 95, 8.27586, -36.7752, 49.5212, -147.645, -57.3624, 76.4593
8.04766, 96, 8.45105, -37.1445, 49.7951, -147.577, -56.7586, 77.565
8.05562, 96, 8.63218, -37.4906, 50.0522, -147.531, -56.1689, 78.6995
8.06372, 96, 8.81842, -37.8117, 50.2919, -147.504, -55.5944, 79.8557
8.07162, 96, 9.00938, -38.1071, 50.5123, -147.498, -55.0371, 81.0293
8.08013, 96, 9.20371, -38.3778, 50.7133, -147.513, -54.5002, 82.2135
8.08776, 97, 9.3996, -38.6229, 50.8949, -147.55, -53.9859, 83.4074
8.09556, 97, 9.59587, -38.8426, 51.0558, -147.608, -53.4967, 84.6061
8.10356, 97, 9.79137, -39.0379, 51.1964, -147.686, -53.0343, 85.7985
8.11184, 97, 9.98547, -39.2083, 51.3175, -147.781, -52.6005, 86.9779
8.11969, 97, 10.177, -39.3528, 51.4189, -147.892, -52.1967, 88.1371
8.12777, 97, 10.3648, -39.472, 51.5012, -148.015, -51.8236, 89.2696
8.13581, 97, 10.549, -39.5661, 51.5652, -148.148, -51.4813, 90.368
8.14398, 98, 10.7308, -39.636, 51.6114, -148.292, -51.1692, 91.4339
8.15189, 98, 10.9109, -39.6831, 51.64, -148.445, -50.8851, 92.4744
8.16011, 98, 11.0893, -39.7071, 51.6513, -148.609, -50.6253, 93.504
8.16835, 98, 11.2657, -39.7077, 51.646, -148.786, -50.3864, 94.5369
8.17604, 98, 11.4409, -39.6849, 51.6234, -148.975, -50.1662, 95.5836
8.18413, 98, 11.6164, -39.6383, 51.5832, -149.179, -49.9652, 96.6517
8.19213, 99, 11.7916, -39.5683, 51.5251, -149.395, -49.7845, 97.7409
8.20011, 99, 11.8787, -39.5248, 51.4487, -149.623, -49.6269, 98.847
8.20903, 99, 12.0511, -39.3605, 51.3537, -149.86, -49.4958, 99.9582
8.21609, 99, 12.2203, -39.2945, 51.2994, -149.98, -49.4409, 100.513
8.22351, 99, 12.3852, -39.1458, 51.1776, -150.224, -49.3547, 101.613
8.23155, 99, 12.5436, -38.9751, 51.039, -150.468, -49.299, 102.692
8.23954, 100, 12.6941, -38.7815, 50.8848, -150.709, -49.2745, 103.742
8.24757, 100, 12.8358, -38.5633, 50.7148, -150.947, -49.2815, 104.762
8.25558, 100, 12.9685, -38.3218, 50.5276, -151.179, -49.3209, 105.754
8.26353, 100, 13.0924, -38.0577, 50.3236, -151.405, -49.3908, 106.719
8.27151, 100, 13.2081, -37.7724, 50.103, -151.626, -49.4925, 107.661
8.27952, 100, 13.3156, -37.4656, 49.8639, -151.84, -49.6251, 108.579
8.28756, 101, 13.4149, -37.135, 49.6074, -152.047, -49.7882, 109.478
8.29558, 101, 13.5062, -36.7803, 49.3343, -152.245, -49.9812, 110.352
8.30351, 101, 13.5897, -36.3999, 49.0439, -152.435, -50.2039, 111.204
8.31151, 101, 13.6653, -35.9942, 48.7366, -152.616, -50.4562, 112.033
8.31958, 101, 13.7325, -35.5643, 48.411, -152.787, -50.739, 112.837
8.33755, 102, 13.8632, -34.3903, 47.5216, -153.168, -51.5857, 114.754
8.33893, 102, 13.8632, -34.3903, 47.5216, -153.168, -51.5857, 114.754
8.34352, 102, 13.8825, -34.1385, 47.3309, -153.235, -51.7796, 115.119
8.3516, 102, 13.9138, -33.6164, 46.9373, -153.36, -52.1913, 115.834
8.35953, 102, 13.936, -33.0711, 46.5281, -153.471, -52.6354, 116.522
8.3685, 102, 13.9494, -32.5041, 46.1053, -153.569, -53.1107, 117.184
8.37562, 102, 13.9548, -31.9157, 45.6685, -153.653, -53.614, 117.821
8.38351, 103, 13.9532, -31.3075, 45.2185, -153.723, -54.1434, 118.43
8.39152, 103, 13.9448, -30.681, 44.7566, -153.781, -54.6966, 119.014
8.39961, 103, 13.9303, -30.0382, 44.2838, -153.825, -55.2704, 119.572
8.40758, 103, 13.9102, -29.3804, 43.8016, -153.856, -55.8623, 120.106
8.41553, 103, 13.8849, -28.7088, 43.3119, -153.876, -56.4713, 120.613
8.42354, 104, 13.8552, -28.0255, 42.8158, -153.886, -57.0945, 121.095
8.43151, 104, 13.8213, -27.3325, 42.3154, -153.886, -57.7299, 121.552
8.43952, 104, 13.7836, -26.6314, 41.8115, -153.874, -58.3799, 121.989
8.44763, 104, 13.7423, -25.923, 41.3046, -153.854, -59.0438, 122.404
8.45555, 104, 13.6985, -25.2102, 40.7961, -153.826, -59.7194, 122.802
8.46352, 104, 13.6528, -24.4942, 40.2866, -153.789, -60.4042, 123.185
8.47158, 104, 13.6054, -23.7756, 39.7766, -153.745, -61.0949, 123.555
8.47952, 104, 13.5563, -23.0549, 39.2675, -153.696, -61.7913, 123.916
8.48758, 104, 13.5061, -22.3329, 38.7593, -153.642, -62.4921, 124.273
8.49559, 104, 13.455, -21.6097, 38.2528, -153.582, -63.1952, 124.625
8.50352, 104, 13.4032, -20.8863, 37.7476, -153.519, -63.8991, 124.975
8.51151, 104, 13.3511, -20.1632, 37.2436, -153.451, -64.6031, 125.323
8.51961, 104, 13.2987, -19.44, 36.7417, -153.379, -65.3087, 125.67
8.52781, 104, 13.2462, -18.7163, 36.2417, -153.303, -66.0158, 126.016
8.53557, 104, 13.1938, -17.9925, 35.7439, -153.223, -66.7235, 126.361
8.5437, 104, 13.1416, -17.2683, 35.2488, -153.139, -67.4319, 126.706
8.55186, 104, 13.0897, -16.5438, 34.7555, -153.051, -68.1395, 127.05
8.55961, 104, 13.0382, -15.8195, 34.2642, -152.96, -68.8482, 127.394
8.5678, 104, 12.9871, -15.095, 33.7751, -152.864, -69.5588, 127.737
8.57563, 104, 12.9361, -14.3699, 33.2881, -152.764, -70.2704, 128.08
8.58352, 104, 12.8855, -13.6445, 32.804, -152.661, -70.9809, 128.424
8.59165, 104, 12.8353, -12.9189, 32.3225, -152.554, -71.6912, 128.768
8.59954, 104, 12.7853, -12.1933, 31.8436, -152.443, -72.4034, 129.112
8.60764, 104, 12.7358, -11.4684, 31.3673, -152.329, -73.1161, 129.456
8.61569, 104, 12.6868, -10.7433, 30.8935, -152.21, -73.8291, 129.802
8.62363, 104, 12.6379, -10.0176, 30.4225, -152.087, -74.5424, 130.147
8.63178, 104, 12.5894, -9.29195, 29.9547, -151.96, -75.255, 130.494
8.63985, 104, 12.5415, -8.56607, 29.4898, -151.829, -75.9693, 130.842
8.64793, 104, 12.494, -7.83979, 29.0282, -151.695, -76.684, 131.19
8.65673, 104, 12.4469, -7.11422, 28.57, -151.556, -77.3996, 131.54
8.66408, 104, 12.4006, -6.38886, 28.1148, -151.413, -78.1149, 131.891
8.67312, 104, 12.3548, -5.66405, 27.6632, -151.265, -78.8287, 132.243
8.68004, 104, 12.3095, -4.93991, 27.2153, -151.114, -79.5436, 132.596
8.68822, 104, 12.2651, -4.21719, 26.7716, -150.958, -80.2591, 132.951
8.69608, 104, 12.2218, -3.49677, 26.3329, -150.799, -80.9743, 133.307
8.70411, 104, 12.2005, -3.1382, 26.1154, -150.635, -81.6857, 133.663
8.71228, 104, 12.1587, -2.07143, 25.4711, -150.468, -82.3929, 134.02
8.71949, 104, 12.1184, -1.71935, 25.2597, -150.383, -82.7454, 134.198
8.72757, 104, 12.0791, -1.02108, 24.8433, -150.212, -83.4463, 134.553
8.73559, 104, 12.0408, -0.3324, 24.4358, -150.038, -84.1379, 134.905
8.74349, 104, 12.0035, 0.34595, 24.0386, -149.863, -84.8184, 135.254
8.75149, 104, 11.9672, 1.01298, 23.6532, -149.687, -85.4849, 135.598
8.75955, 104, 11.932, 1.66724, 23.28, -149.511, -86.1371, 135.937
8.76757, 104, 11.8982, 2.30737, 22.9197, -149.335, -86.7745, 136.27
8.77549, 104, 11.8652, 2.93137, 22.5715, -149.159, -87.3958, 136.596
8.78355, 104, 11.8335, 3.53941, 22.2367, -148.985, -88.0014, 136.916
8.79149, 104, 11.8032, 4.13087, 21.9147, -148.812, -88.59, 137.229
8.79949, 104, 11.7739, 4.70542, 21.6053, -148.639, -89.1603, 137.535
8.80761, 104, 11.7462, 5.26323, 21.3077, -148.469, -89.7146, 137.834
8.81549, 104, 11.7196, 5.80353, 21.0217, -148.301, -90.2535, 138.125
8.82349, 104, 11.6941, 6.32708, 20.7479, -148.134, -90.7759, 138.41
8.83315, 104, 11.6698, 6.83377, 20.4852, -147.97, -91.5287, 138.824
8.83949, 104, 11.6466, 7.32349, 20.2346, -147.809, -91.7709, 138.958
8.84849, 104, 11.6247, 7.7965, 19.9951, -147.65, -92.2426, 139.22
8.85558, 104, 11.6038, 8.25297, 19.7661, -147.494, -92.6978, 139.475
8.8635, 104, 11.5842, 8.69259, 19.5485, -147.342, -93.1364, 139.722
8.87149, 104, 11.5656, 9.11448, 19.3415, -147.193, -93.5585, 139.961
8.87959, 104, 11.5482, 9.5196, 19.1443, -147.049, -93.9634, 140.192
8.88759, 104, 11.5319, 9.90659, 18.958, -146.908, -94.3513, 140.414
8.89549, 104, 11.5165, 10.2754, 18.7824, -146.772, -94.7212, 140.626
8.90361, 104, 11.5023, 10.6248, 18.617, -146.641, -95.0726, 140.83
8.91149, 104, 11.4891, 10.9553, 18.462, -146.516, -95.4048, 141.023
8.91949, 104, 11.4769, 11.2657, 18.3182, -146.398, -95.717, 141.205
8.92763, 104, 11.4658, 11.5554, 18.185, -146.285, -96.0088, 141.376
8.93548, 104, 11.4557, 11.8245, 18.0621, -146.18, -96.2792, 141.535
8.94349, 104, 11.4465, 12.072, 17.95, -146.083, -96.5284, 141.682
8.95162, 104, 11.438, 12.2985, 17.8485, -145.993, -96.7555, 141.816
8.95949, 104, 11.4302, 12.5042, 17.7573, -145.911, -96.9607, 141.938
8.96757, 104, 11.4233, 12.6885, 17.6765, -145.838, -97.1438, 142.048
8.97561, 104, 11.4171, 12.8517, 17.6058, -145.773, -97.3049, 142.144
8.98349, 104, 11.4115, 12.9948, 17.5449, -145.717, -97.4441, 142.227
8.9915, 104, 11.4064, 13.1187, 17.4935, -145.669, -97.5619, 142.298
8.99956, 104, 11.4018, 13.2239, 17.4512, -145.63, -97.6592, 142.356
9.00757, 104, 11.3976, 13.3115, 17.417, -145.598, -97.7375, 142.403
9.01549, 104, 11.3937, 13.3834, 17.3903, -145.573, -97.798, 142.44
9.02359, 104, 11.3902, 13.4416, 17.3705, -145.554, -97.8428, 142.467
9.03155, 104, 11.3872, 13.4876, 17.3562, -145.54, -97.8752, 142.486
9.03955, 104, 11.3847, 13.5226, 17.3465, -145.531, -97.8975, 142.499
9.04775, 104, 11.3827, 13.5487, 17.3403, -145.525, -97.9121, 142.507
9.05559, 104, 11.3811, 13.5679, 17.3365, -145.522, -97.9207, 142.512
9.0636, 104, 11.3799, 13.5813, 17.3343, -145.52, -97.9253, 142.514
9.0717, 104, 11.379, 13.5903, 17.3333, -145.519, -97.9276, 142.516
9.0796, 105, 11.3783, 13.5964, 17.3327, -145.518, -97.9287, 142.516
9.08767, 105, 11.3778, 13.6004, 17.3325, -145.518, -97.9291, 142.516
9.09565, 105, 11.3775, 13.6031, 17.3324, -145.518, -97.9294, 142.517
9.10353, 105, 11.3772, 13.6052, 17.3323, -145.518, -97.9295, 142.517
9.11153, 105, 11.377, 13.607, 17.3323, -145.518, -97.9295, 142.517
9.11997, 105, 11.3768, 13.6086, 17.3323, -145.518, -97.9295, 142.517
9.12782, 105, 11.3767, 13.61, 17.3323, -145.518, -97.9295, 142.517
9.13573, 105, 11.3765, 13.6112, 17.3323, -145.518, -97.9294, 142.517
9.14414, 105, 11.3765, 13.6122, 17.3323, -145.518, -97.9293, 142.517
9.15183, 105, 11.3764, 13.613, 17.3323, -145.518, -97.9291, 142.517
9.15988, 105, 11.3764, 13.6136, 17.3324, -145.518, -97.929, 142.517
9.16843, 105, 11.3764, 13.6141, 17.3324, -145.518, -97.9289, 142.517
9.17678, 105, 11.3763, 13.6144, 17.3324, -145.518, -97.9287, 142.517
9.18404, 105, 11.3763, 13.6146, 17.3325, -145.518, -97.9286, 142.517
9.19208, 105, 11.3763, 13.6147, 17.3325, -145.518, -97.9285, 142.517
9.20048, 105, 11.3763, 13.6147, 17.3326, -145.518, -97.9283, 142.517
