hehonglu123/Motion-Primitive-Planning/ILC/recorded_data/realrobot/from_NX/iteration_27/run_1.csv
timestamp, cmd_num, J1, J2, J3, J4, J5, J6
0.00037, -1, 39.6291, 32.4471, 11.8315, 12.5437, 113.713, -48.8736
0.003092, -1, 39.6291, 32.4471, 11.8315, 12.5437, 113.713, -48.8736
0.00794, -1, 39.6291, 32.447, 11.8315, 12.5437, 113.713, -48.8735
0.030425, -1, 39.6291, 32.4471, 11.8315, 12.5436, 113.713, -48.8736
0.031873, -1, 39.6291, 32.4471, 11.8315, 12.5436, 113.713, -48.8736
0.03462, -1, 39.6291, 32.4471, 11.8315, 12.5436, 113.713, -48.8736
0.039736, -1, 39.6291, 32.4471, 11.8315, 12.5436, 113.713, -48.8737
0.047814, -1, 39.629, 32.447, 11.8315, 12.5436, 113.713, -48.8737
0.189056, -1, 38.4234, 31.8342, 12.0656, 12.5533, 113.089, -50.4682
0.190277, -1, 38.4234, 31.8342, 12.0656, 12.5533, 113.089, -50.4682
0.192331, -1, 38.3382, 31.7895, 12.0849, 12.5545, 113.04, -50.5914
0.193632, -1, 38.3382, 31.7895, 12.0849, 12.5545, 113.04, -50.5914
0.19496, -1, 38.3382, 31.7895, 12.0849, 12.5545, 113.04, -50.5914
0.197123, -1, 38.2512, 31.744, 12.1044, 12.5557, 112.991, -50.7163
0.198362, -1, 38.2512, 31.744, 12.1044, 12.5557, 112.991, -50.7163
0.201853, -1, 38.1626, 31.6977, 12.1239, 12.5569, 112.941, -50.8426
0.203093, -1, 38.1626, 31.6977, 12.1239, 12.5569, 112.941, -50.8426
0.205146, -1, 38.0727, 31.6508, 12.1434, 12.5582, 112.891, -50.9697
0.206335, -1, 38.0727, 31.6508, 12.1434, 12.5582, 112.891, -50.9697
0.20904, -1, 37.9815, 31.6034, 12.1629, 12.5594, 112.84, -51.0977
0.210515, -1, 37.9815, 31.6034, 12.1629, 12.5594, 112.84, -51.0977
0.212629, -1, 37.8892, 31.5555, 12.1823, 12.5606, 112.79, -51.2264
0.213843, -1, 37.8892, 31.5555, 12.1823, 12.5606, 112.79, -51.2264
0.217554, -1, 37.7958, 31.5072, 12.2018, 12.5618, 112.739, -51.3555
0.218823, -1, 37.7958, 31.5072, 12.2018, 12.5618, 112.739, -51.3555
0.220871, -1, 37.7016, 31.4586, 12.2212, 12.563, 112.688, -51.4848
0.222172, -1, 37.7016, 31.4586, 12.2212, 12.563, 112.688, -51.4848
0.223354, -1, 37.7016, 31.4586, 12.2212, 12.563, 112.688, -51.4848
0.22665, -1, 37.6067, 31.4098, 12.2405, 12.5643, 112.636, -51.6145
0.228708, -1, 37.5113, 31.3609, 12.2599, 12.5655, 112.585, -51.7443
0.234876, -1, 37.4156, 31.3119, 12.2793, 12.5667, 112.534, -51.8741
0.240343, -1, 37.2237, 31.214, 12.3181, 12.5692, 112.431, -52.1337
0.248322, -1, 37.0315, 31.1162, 12.357, 12.5717, 112.328, -52.3934
0.257178, -1, 36.9354, 31.0184, 12.3957, 12.5744, 112.225, -52.6535
0.262799, -1, 36.7433, 30.9695, 12.4151, 12.5756, 112.174, -52.7838
0.271744, -1, 36.5516, 30.8718, 12.454, 12.5782, 112.071, -53.0442
0.279749, -1, 36.3601, 30.7741, 12.4928, 12.5808, 111.968, -53.3045
0.28771, -1, 36.1685, 30.6762, 12.5317, 12.5834, 111.865, -53.565
0.295743, -1, 35.9769, 30.5783, 12.5705, 12.5859, 111.762, -53.8256
0.303749, -1, 35.7854, 30.4804, 12.6095, 12.5886, 111.659, -54.0862
0.311776, -1, 35.5936, 30.3823, 12.6484, 12.5911, 111.556, -54.3464
0.319713, -1, 35.4015, 30.2841, 12.6872, 12.5938, 111.453, -54.6068
0.327712, -1, 35.2092, 30.1858, 12.726, 12.5963, 111.35, -54.8673
0.335711, -1, 35.0168, 30.0875, 12.765, 12.5988, 111.247, -55.1281
0.343763, -1, 34.8246, 29.989, 12.8038, 12.6015, 111.144, -55.3887
0.350756, -1, 34.6323, 29.8905, 12.8427, 12.604, 111.041, -55.6495
0.35977, -1, 34.44, 29.7921, 12.8816, 12.6066, 110.938, -55.9103
0.367817, -1, 34.2479, 29.6936, 12.9206, 12.6092, 110.835, -56.1714
0.374813, -1, 34.056, 29.5954, 12.9594, 12.6117, 110.732, -56.4321
0.38371, -1, 33.8642, 29.4971, 12.9984, 12.6144, 110.629, -56.6928
0.394039, -1, 33.6724, 29.3987, 13.0372, 12.6171, 110.526, -56.9537
0.398711, -1, 33.4804, 29.3003, 13.0761, 12.6196, 110.422, -57.2148
0.407709, -1, 33.288, 29.2019, 13.1152, 12.6223, 110.319, -57.4759
0.415773, -1, 33.0954, 29.1032, 13.154, 12.6249, 110.216, -57.7368
0.424784, -1, 32.9026, 29.0047, 13.1928, 12.6275, 110.113, -57.9979
0.431734, -1, 32.7094, 28.9061, 13.2318, 12.6302, 110.01, -58.2592
0.43978, -1, 32.516, 28.8074, 13.2707, 12.6329, 109.907, -58.5205
0.447721, -1, 32.3223, 28.7087, 13.3095, 12.6355, 109.804, -58.7815
0.455708, -1, 32.1282, 28.61, 13.3485, 12.6382, 109.701, -59.0426
0.463766, -1, 31.9342, 28.5112, 13.3873, 12.641, 109.598, -59.3037
0.471709, -1, 31.7405, 28.4124, 13.4263, 12.6436, 109.495, -59.5652
0.479745, -1, 31.5469, 28.3137, 13.4654, 12.6464, 109.392, -59.8264
0.487782, -1, 31.3537, 28.2151, 13.5042, 12.6493, 109.289, -60.0877
0.49571, -1, 31.1609, 28.1166, 13.5433, 12.652, 109.186, -60.349
0.503775, -1, 30.9684, 28.0181, 13.5824, 12.6548, 109.083, -60.6107
0.64077, -1, 27.6847, 26.339, 14.2449, 12.6995, 107.327, -65.0582
0.641997, -1, 27.6847, 26.339, 14.2449, 12.6995, 107.327, -65.0582
0.644064, -1, 27.5886, 26.2895, 14.2644, 12.7007, 107.275, -65.189
0.645278, -1, 27.5886, 26.2895, 14.2644, 12.7007, 107.275, -65.189
0.64656, -1, 27.5886, 26.2895, 14.2644, 12.7007, 107.275, -65.189
0.64929, -1, 27.4925, 26.24, 14.2838, 12.7019, 107.223, -65.3197
0.650489, -1, 27.4925, 26.24, 14.2838, 12.7019, 107.223, -65.3197
0.653773, -1, 27.3964, 26.1905, 14.3034, 12.7031, 107.172, -65.4505
0.655765, -1, 27.3003, 26.141, 14.3229, 12.7043, 107.12, -65.5813
0.657116, -1, 27.3003, 26.141, 14.3229, 12.7043, 107.12, -65.5813
0.65848, -1, 27.3003, 26.141, 14.3229, 12.7043, 107.12, -65.5813
0.661291, -1, 27.2042, 26.0915, 14.3424, 12.7055, 107.068, -65.7121
0.662663, -1, 27.2042, 26.0915, 14.3424, 12.7055, 107.068, -65.7121
0.664721, -1, 27.1081, 26.0421, 14.3618, 12.7066, 107.017, -65.843
0.665914, -1, 27.1081, 26.0421, 14.3618, 12.7066, 107.017, -65.843
0.66829, -1, 27.0118, 25.9926, 14.3813, 12.7078, 106.965, -65.9738
0.669641, -1, 27.0118, 25.9926, 14.3813, 12.7078, 106.965, -65.9738
0.670833, -1, 27.0118, 25.9926, 14.3813, 12.7078, 106.965, -65.9738
0.673553, -1, 26.9155, 25.9432, 14.4007, 12.7089, 106.913, -66.1048
0.675765, -1, 26.9155, 25.9432, 14.4202, 12.7101, 106.862, -66.2358
0.677133, -1, 26.8192, 25.8938, 14.4202, 12.7101, 106.862, -66.2358
0.680015, -1, 26.7227, 25.8444, 14.4398, 12.7112, 106.81, -66.3665
0.687976, -1, 26.5294, 25.7455, 14.4786, 12.7135, 106.707, -66.6281
0.696788, -1, 26.3357, 25.6467, 14.5175, 12.7158, 106.604, -66.8898
0.704042, -1, 26.1417, 25.5478, 14.5565, 12.7181, 106.5, -67.1518
0.710741, -1, 26.0446, 25.4984, 14.576, 12.7192, 106.449, -67.2828
0.720995, -1, 25.7532, 25.3501, 14.6344, 12.7226, 106.294, -67.6752
0.728357, -1, 25.5592, 25.2513, 14.6735, 12.7249, 106.191, -67.9367
0.736307, -1, 25.3653, 25.1527, 14.7124, 12.7272, 106.088, -68.1984
0.745086, -1, 25.1717, 25.0539, 14.7514, 12.7295, 105.984, -68.4603
0.750769, -1, 25.075, 25.0045, 14.771, 12.7306, 105.933, -68.5912
0.760451, -1, 24.7853, 24.8563, 14.8294, 12.7342, 105.778, -68.9836
0.769143, -1, 24.6889, 24.8069, 14.8488, 12.7354, 105.726, -69.2454
0.774831, -1, 24.4963, 24.708, 14.8879, 12.7378, 105.623, -69.3763
0.784739, -1, 24.2077, 24.5596, 14.9464, 12.7414, 105.468, -69.7687
0.79173, -1, 24.1114, 24.5102, 14.9659, 12.7425, 105.416, -69.8995
0.798764, -1, 23.9187, 24.4114, 15.0049, 12.7448, 105.313, -70.1609
0.80776, -1, 23.7258, 24.3125, 15.0438, 12.7473, 105.209, -70.4227
0.815816, -1, 23.5327, 24.2137, 15.0827, 12.7497, 105.106, -70.6846
0.823753, -1, 23.3392, 24.1148, 15.1216, 12.752, 105.003, -70.9462
0.831695, -1, 23.1454, 24.0159, 15.1605, 12.7545, 104.899, -71.208
0.839695, -1, 22.9516, 23.917, 15.1994, 12.757, 104.796, -71.4698
0.846693, -1, 22.7576, 23.8182, 15.2384, 12.7594, 104.693, -71.7318
0.855696, -1, 22.5637, 23.7194, 15.2773, 12.7619, 104.589, -71.9935
0.863694, -1, 22.3701, 23.6208, 15.3163, 12.7643, 104.486, -72.2548
0.871871, -1, 22.1769, 23.5221, 15.3552, 12.7669, 104.382, -72.5162
0.879698, -1, 21.9837, 23.4234, 15.3941, 12.7695, 104.279, -72.7777
0.887742, -1, 21.7909, 23.3247, 15.4332, 12.7721, 104.176, -73.0393
0.897258, -1, 21.5986, 23.2259, 15.4721, 12.7748, 104.073, -73.3006
0.903698, -1, 21.4064, 23.1271, 15.5109, 12.7775, 103.97, -73.5621
0.911735, -1, 21.2141, 23.0284, 15.5499, 12.78, 103.867, -73.8237
0.919717, -1, 21.0217, 22.9298, 15.5889, 12.7827, 103.763, -74.0852
0.927733, -1, 20.8292, 22.8311, 15.6277, 12.7854, 103.66, -74.3463
0.935773, -1, 20.6367, 22.7325, 15.6667, 12.7881, 103.557, -74.6073
0.943758, -1, 20.4438, 22.6338, 15.7055, 12.7909, 103.454, -74.8688
0.952146, -1, 20.2504, 22.5351, 15.7444, 12.7936, 103.351, -75.1303
0.959691, -1, 20.0567, 22.4364, 15.7834, 12.7962, 103.248, -75.3913
0.967706, -1, 19.8631, 22.3377, 15.8221, 12.7991, 103.145, -75.6524
0.976519, -1, 19.6695, 22.239, 15.8609, 12.8017, 103.042, -75.9136
0.982799, -1, 19.476, 22.1405, 15.8999, 12.8045, 102.939, -76.175
0.991689, -1, 19.2827, 22.0418, 15.9387, 12.8072, 102.836, -76.436
1.00047, -1, 19.0899, 21.9432, 15.9776, 12.81, 102.733, -76.6968
1.0077, -1, 18.8972, 21.8446, 16.0166, 12.8127, 102.63, -76.9576
1.01569, -1, 18.7049, 21.7458, 16.0553, 12.8154, 102.527, -77.2187
1.02447, -1, 18.513, 21.6472, 16.0942, 12.8182, 102.424, -77.4797
1.03169, -1, 18.3211, 21.5486, 16.1331, 12.8208, 102.321, -77.7403
1.03972, -1, 18.1292, 21.4501, 16.1719, 12.8234, 102.219, -78.0011
1.04849, -1, 17.9373, 21.3517, 16.2108, 12.826, 102.116, -78.2619
1.05574, -1, 17.7454, 21.2533, 16.2497, 12.8286, 102.012, -78.5227
1.06369, -1, 17.5532, 21.155, 16.2885, 12.8311, 101.91, -78.7831
1.07251, -1, 17.3606, 21.0567, 16.3274, 12.8335, 101.807, -79.0435
1.07969, -1, 17.1676, 20.9584, 16.3662, 12.836, 101.703, -79.3041
1.08771, -1, 16.9746, 20.8601, 16.4049, 12.8384, 101.601, -79.5648
1.09674, -1, 16.7815, 20.7619, 16.4438, 12.8407, 101.498, -79.8251
1.1038, -1, 16.5885, 20.6637, 16.4825, 12.8431, 101.395, -80.0856
1.11184, -1, 16.3955, 20.5655, 16.5212, 12.8454, 101.293, -80.3462
1.12082, -1, 16.203, 20.4671, 16.56, 12.8477, 101.19, -80.6068
1.1278, -1, 16.0109, 20.3688, 16.5987, 12.8501, 101.087, -80.8672
1.13592, -1, 15.819, 20.2703, 16.6375, 12.8524, 100.985, -81.1273
1.14426, -1, 15.6275, 20.1718, 16.6761, 12.8548, 100.882, -81.3872
1.15126, -1, 15.5319, 20.1226, 16.6954, 12.8559, 100.831, -81.5174
1.15979, -1, 15.2451, 19.9752, 16.7535, 12.8594, 100.677, -81.9076
1.16944, -1, 15.0539, 19.8769, 16.7923, 12.8616, 100.574, -82.1673
1.17581, -1, 14.8627, 19.7787, 16.831, 12.864, 100.472, -82.4272
1.18395, -1, 14.6714, 19.6806, 16.8697, 12.8663, 100.369, -82.6872
1.1935, -1, 14.4797, 19.5825, 16.9084, 12.8686, 100.266, -82.9472
1.19999, -1, 14.2876, 19.4844, 16.9471, 12.8709, 100.164, -83.2067
1.20668, -1, 14.1915, 19.4354, 16.9665, 12.872, 100.113, -83.3364
1.21766, -1, 13.9029, 19.2885, 17.0245, 12.8754, 99.9587, -83.7258
1.2242, -1, 13.7105, 19.1907, 17.0631, 12.8777, 99.8564, -83.9855
1.2323, -1, 13.5181, 19.0928, 17.1018, 12.88, 99.7538, -84.2448
1.24171, -1, 13.3259, 18.9949, 17.1404, 12.8823, 99.6514, -84.5041
1.24828, -1, 13.1341, 18.897, 17.1789, 12.8847, 99.5493, -84.7634
1.25629, -1, 12.9427, 18.799, 17.2176, 12.8871, 99.4466, -85.023
1.26624, -1, 12.8471, 18.75, 17.2562, 12.8894, 99.3441, -85.2822
1.27238, -1, 12.656, 18.652, 17.2754, 12.8918, 99.2421, -85.541
1.27968, -1, 12.4653, 18.5543, 17.314, 12.893, 99.1909, -85.6704
1.28768, -1, 12.275, 18.4565, 17.3525, 12.8954, 99.0886, -85.9293
1.29573, -1, 12.0849, 18.3588, 17.391, 12.8978, 98.9867, -86.1884
1.30372, -1, 11.8945, 18.2612, 17.4296, 12.9002, 98.8845, -86.4471
1.31168, -1, 11.704, 18.1635, 17.4683, 12.9026, 98.7826, -86.7056
1.32094, -1, 11.4178, 18.017, 17.526, 12.9063, 98.6298, -87.0935
1.32768, -1, 11.3222, 17.9683, 17.5453, 12.9075, 98.5788, -87.2229
1.33569, -1, 11.1309, 17.8708, 17.5839, 12.9099, 98.4769, -87.4813
1.34513, -1, 10.8438, 17.7246, 17.6416, 12.9136, 98.3239, -87.8687
1.35069, -1, 10.7479, 17.6759, 17.6609, 12.9149, 98.2729, -87.9979
1.35969, -1, 10.5564, 17.5784, 17.6992, 12.9174, 98.1711, -88.2561
1.36774, -1, 10.3651, 17.4809, 17.7376, 12.92, 98.0693, -88.5146
1.37571, -1, 10.174, 17.3834, 17.7761, 12.9225, 97.9674, -88.7724
1.38368, -1, 9.98345, 17.2857, 17.8144, 12.9252, 97.8656, -89.0305
1.39175, -1, 9.79315, 17.1882, 17.8527, 12.9278, 97.7636, -89.2887
1.3997, -1, 9.60317, 17.0907, 17.8911, 12.9305, 97.6616, -89.5469
1.40868, -1, 9.41374, 16.9933, 17.9294, 12.9333, 97.5599, -89.8046
1.41469, -1, 9.22448, 16.896, 17.9677, 12.936, 97.4579, -90.0621
1.42369, -1, 9.03509, 16.7987, 18.0061, 12.9386, 97.3561, -90.3196
1.4317, -1, 8.84558, 16.7015, 18.0444, 12.9412, 97.2545, -90.5772
1.43975, -1, 8.65601, 16.6043, 18.0828, 12.9439, 97.1527, -90.8347
1.44771, -1, 8.46631, 16.5072, 18.1212, 12.9466, 97.0511, -91.0918
1.4558, -1, 8.27629, 16.4102, 18.1595, 12.9493, 96.9498, -91.349
1.46368, -1, 8.08587, 16.3133, 18.1979, 12.9519, 96.8481, -91.6062
1.47168, -1, 7.89541, 16.2165, 18.2362, 12.9546, 96.7465, -91.8634
1.47975, -1, 7.70491, 16.1196, 18.2744, 12.9572, 96.6452, -92.1202
1.4877, -1, 7.51444, 16.0226, 18.3127, 12.9598, 96.5435, -92.3768
1.49569, -1, 7.32421, 15.9257, 18.351, 12.9624, 96.4422, -92.6337
1.50374, -1, 7.13428, 15.8287, 18.3891, 12.9649, 96.341, -92.8905
1.51168, -1, 6.94464, 15.7317, 18.4274, 12.9676, 96.2396, -93.147
1.51972, -1, 6.75542, 15.6348, 18.4656, 12.9701, 96.1386, -93.4034
1.52774, -1, 6.56672, 15.538, 18.5036, 12.9727, 96.0378, -93.6598
1.53569, -1, 6.3784, 15.4412, 18.5418, 12.9752, 95.9366, -93.9164
1.54372, -1, 6.19022, 15.3445, 18.58, 12.9777, 95.8356, -94.1725
1.55176, -1, 6.00204, 15.2478, 18.6181, 12.9801, 95.7348, -94.4283
1.55968, -1, 5.81364, 15.1511, 18.6563, 12.9825, 95.6338, -94.6843
1.56777, -1, 5.62517, 15.0544, 18.6944, 12.9848, 95.533, -94.9403
1.57573, -1, 5.43648, 14.9579, 18.7324, 12.9871, 95.4323, -95.1962
1.58372, -1, 5.24756, 14.8614, 18.7706, 12.9894, 95.3315, -95.4516
1.5919, -1, 5.05825, 14.765, 18.8088, 12.9917, 95.2309, -95.7071
1.59974, -1, 4.86885, 14.6687, 18.8467, 12.994, 95.1302, -95.9627
1.60778, -1, 4.67949, 14.5723, 18.8848, 12.9962, 95.0293, -96.2182
1.61598, -1, 4.49018, 14.4759, 18.9229, 12.9983, 94.9287, -96.4732
1.62378, -1, 4.30113, 14.3795, 18.9609, 13.0006, 94.8279, -96.7281
1.63186, -1, 4.11227, 14.2831, 18.9989, 13.0028, 94.7269, -96.983
1.64019, -1, 3.92387, 14.1867, 19.0368, 13.0052, 94.6262, -97.2383
1.64757, -1, 3.82994, 14.1386, 19.0557, 13.0073, 94.5254, -97.493
1.65583, -1, 3.5488, 13.9944, 19.1127, 13.0097, 94.4246, -97.7478
1.66371, -1, 3.36179, 13.8982, 19.1505, 13.012, 94.3242, -98.0026
1.67172, -1, 3.1748, 13.8022, 19.1883, 13.0143, 94.2234, -98.2572
1.67983, -1, 2.9878, 13.7062, 19.2263, 13.0165, 94.1226, -98.5118
1.68788, -1, 2.80081, 13.6101, 19.2642, 13.0187, 94.0222, -98.7658
1.69601, -1, 2.61362, 13.5141, 19.3021, 13.021, 93.9215, -99.02
1.70268, -1, 2.51996, 13.4661, 19.321, 13.0221, 93.8713, -99.1471
1.71214, -1, 2.23865, 13.3223, 19.3776, 13.0256, 93.7209, -99.5283
1.72012, -1, 2.05058, 13.2265, 19.4155, 13.0277, 93.6206, -99.7821
1.72668, -1, 1.9565, 13.1786, 19.4345, 13.0289, 93.5705, -99.9088
1.73624, -1, 1.67423, 13.0348, 19.491, 13.0323, 93.4207, -100.289
1.74437, -1, 1.48601, 12.939, 19.5288, 13.0345, 93.3205, -100.543
1.75229, -1, 1.29805, 12.8431, 19.5666, 13.0368, 93.2205, -100.796
1.76028, -1, 1.20419, 12.7473, 19.6042, 13.0392, 93.1205, -101.049
1.7683, -1, 1.01676, 12.6994, 19.642, 13.0416, 93.0205, -101.302
1.77652, -1, 0.73682, 12.5561, 19.6797, 13.0439, 92.9207, -101.556
1.78366, -1, 0.643738, 12.5083, 19.6985, 13.0451, 92.8708, -101.682
1.79166, -1, 0.45778, 12.4128, 19.7361, 13.0476, 92.771, -101.935
1.79971, -1, 0.272107, 12.3174, 19.7738, 13.05, 92.6713, -102.188
1.80768, -1, 0.0866774, 12.222, 19.8113, 13.0525, 92.5721, -102.44
1.81566, -1, -0.0987279, 12.1267, 19.8489, 13.0549, 92.4723, -102.693
1.82369, -1, -0.284321, 12.0315, 19.8866, 13.0573, 92.3727, -102.946
1.83167, -1, -0.470201, 11.9363, 19.9242, 13.0598, 92.2735, -103.198
1.83974, -1, -0.656444, 11.8413, 19.9617, 13.0623, 92.1739, -103.45
1.84768, -1, -0.842864, 11.7463, 19.9993, 13.0647, 92.0744, -103.702
1.85567, -1, -1.02948, 11.6512, 20.0367, 13.0672, 91.9752, -103.954
1.86373, -1, -1.21638, 11.5561, 20.0741, 13.0697, 91.8757, -104.206
1.87167, -1, -1.4034, 11.4611, 20.1117, 13.0722, 91.7765, -104.457
1.8797, -1, -1.59009, 11.366, 20.1491, 13.0748, 91.6774, -104.709
1.88774, -1, -1.77656, 11.2708, 20.1865, 13.0773, 91.5782, -104.96
1.89567, -1, -1.96263, 11.1758, 20.224, 13.08, 91.479, -105.212
1.90378, -1, -2.148, 11.081, 20.2613, 13.0827, 91.3798, -105.462
1.91266, -1, -2.33298, 10.986, 20.2987, 13.0853, 91.2806, -105.713
1.91966, -1, -2.51767, 10.8912, 20.3361, 13.088, 91.1815, -105.964
1.92767, -1, -2.70174, 10.7965, 20.3733, 13.0907, 91.0824, -106.216
1.93575, -1, -2.88561, 10.7017, 20.4107, 13.0933, 90.9834, -106.466
1.94369, -1, -3.06959, 10.6069, 20.4481, 13.0959, 90.8844, -106.717
1.9517, -1, -3.2537, 10.5123, 20.4853, 13.0986, 90.7855, -106.967
1.95968, -1, -3.43818, 10.4178, 20.5225, 13.1011, 90.6866, -107.218
1.96767, -1, -3.62292, 10.3234, 20.5599, 13.1037, 90.5878, -107.468
1.97573, -1, -3.80789, 10.229, 20.5971, 13.1062, 90.489, -107.718
1.98366, -1, -3.99309, 10.1347, 20.6344, 13.1086, 90.3903, -107.968
1.99214, -1, -4.17849, 10.0403, 20.6716, 13.1111, 90.2916, -108.218
1.99906, -1, -4.36413, 9.94604, 20.7087, 13.1135, 90.193, -108.468
2.00766, -1, -4.54954, 9.85168, 20.746, 13.1159, 90.0945, -108.718
2.01695, -1, -4.73463, 9.75741, 20.7833, 13.1182, 89.996, -108.967
2.02367, -1, -4.91942, 9.66319, 20.8203, 13.1207, 89.8975, -109.217
2.03173, -1, -5.10366, 9.56915, 20.8574, 13.123, 89.799, -109.466
2.03967, -1, -5.28717, 9.47506, 20.8946, 13.1254, 89.7008, -109.715
2.04771, -1, -5.47037, 9.38111, 20.9317, 13.1276, 89.6023, -109.964
2.05579, -1, -5.65306, 9.28719, 20.9688, 13.13, 89.504, -110.213
2.06366, -1, -5.83547, 9.19324, 21.0059, 13.1324, 89.406, -110.462
2.07171, -1, -6.01779, 9.09938, 21.0428, 13.1347, 89.3078, -110.711
2.07969, -1, -6.2003, 9.00553, 21.0798, 13.1368, 89.2096, -110.959
2.08766, -1, -6.38314, 8.91182, 21.1169, 13.139, 89.1119, -111.208
2.09598, -1, -6.56616, 8.81822, 21.1537, 13.1412, 89.0139, -111.456
2.10318, -1, -6.74954, 8.72457, 21.1906, 13.1434, 88.9158, -111.704
2.11176, -1, -6.93327, 8.63097, 21.2276, 13.1455, 88.8181, -111.952
2.12006, -1, -7.11728, 8.53739, 21.2644, 13.1476, 88.72, -112.2
2.12776, -1, -7.30158, 8.44384, 21.3013, 13.1498, 88.6222, -112.447
2.13578, -1, -7.48555, 8.35017, 21.3382, 13.1518, 88.5247, -112.695
2.14425, -1, -7.66924, 8.25665, 21.375, 13.154, 88.427, -112.943
2.15124, -1, -7.76094, 8.20992, 21.3933, 13.1551, 88.3782, -113.066
2.15968, -1, -8.03546, 8.06981, 21.4487, 13.1585, 88.2322, -113.437
2.16848, -1, -8.21768, 7.97652, 21.4854, 13.1607, 88.1348, -113.684
2.17574, -1, -8.39927, 7.88321, 21.5222, 13.163, 88.0373, -113.931
2.18375, -1, -8.5805, 7.78996, 21.5591, 13.1652, 87.9401, -114.178
2.19265, -1, -8.76136, 7.69677, 21.5958, 13.1675, 87.8426, -114.424
2.1999, -1, -8.94199, 7.60363, 21.6325, 13.1697, 87.7451, -114.671
2.20795, -1, -9.12281, 7.51059, 21.6693, 13.172, 87.648, -114.917
2.217, -1, -9.304, 7.41767, 21.706, 13.1743, 87.5507, -115.164
2.22426, -1, -9.48545, 7.32488, 21.7426, 13.1764, 87.4535, -115.41
2.23223, -1, -9.66727, 7.23203, 21.7794, 13.1786, 87.3566, -115.656
2.23865, -1, -9.75828, 7.18565, 21.7977, 13.1798, 87.308, -115.779
2.24673, -1, -9.94062, 7.09293, 21.8342, 13.182, 87.2107, -116.025
2.25624, -1, -10.2144, 6.95384, 21.8891, 13.1853, 87.065, -116.394
2.26265, -1, -10.3058, 6.90746, 21.9074, 13.1865, 87.0164, -116.517
2.27272, -1, -10.5796, 6.76833, 21.9623, 13.1897, 86.8706, -116.885
2.28028, -1, -10.6707, 6.72198, 21.9806, 13.1909, 86.8221, -117.13
2.28672, -1, -10.8524, 6.6294, 22.0171, 13.1933, 86.7254, -117.253
2.29675, -1, -11.1241, 6.4905, 22.0717, 13.1969, 86.5801, -117.621
2.30369, -1, -11.2143, 6.44424, 22.0901, 13.1981, 86.5318, -117.743
2.31065, -1, -11.3942, 6.35179, 22.1266, 13.2005, 86.4353, -117.988
2.31965, -1, -11.5738, 6.25934, 22.163, 13.2029, 86.3384, -118.233
2.32769, -1, -11.7531, 6.16689, 22.1995, 13.2054, 86.2419, -118.478
2.33469, -1, -11.9323, 6.0746, 22.236, 13.2079, 86.1453, -118.722
2.3437, -1, -12.1116, 5.98237, 22.2724, 13.2103, 86.0486, -118.966
2.35165, -1, -12.2911, 5.89031, 22.3089, 13.2128, 85.9522, -119.21
2.35965, -1, -12.471, 5.7983, 22.3452, 13.2153, 85.856, -119.455
2.36771, -1, -12.6513, 5.70625, 22.3814, 13.2178, 85.7596, -119.699
2.37571, -1, -12.8319, 5.61429, 22.4178, 13.2202, 85.6634, -119.942
2.38368, -1, -13.0128, 5.52243, 22.4541, 13.2226, 85.5676, -120.186
2.39175, -1, -13.194, 5.4304, 22.4903, 13.2251, 85.4715, -120.43
2.39965, -1, -13.3752, 5.33839, 22.5266, 13.2275, 85.3756, -120.673
2.40973, -1, -13.6463, 5.20054, 22.581, 13.2313, 85.2319, -121.038
2.41572, -1, -13.7365, 5.15463, 22.599, 13.2326, 85.1841, -121.16
2.4247, -1, -13.9165, 5.06279, 22.6352, 13.2352, 85.0882, -121.403
2.43072, -1, -14.0957, 4.97101, 22.6714, 13.2378, 84.9929, -121.646
2.43973, -1, -14.2741, 4.87932, 22.7075, 13.2404, 84.8971, -121.889
2.44768, -1, -14.4523, 4.78767, 22.7436, 13.2429, 84.8016, -122.131
2.45565, -1, -14.63, 4.69604, 22.7799, 13.2455, 84.7061, -122.374
2.46371, -1, -14.8076, 4.60452, 22.816, 13.248, 84.6102, -122.616
2.47165, -1, -14.9853, 4.51304, 22.8521, 13.2504, 84.5145, -122.859
2.4797, -1, -15.1631, 4.42168, 22.8883, 13.2529, 84.4189, -123.101
2.48766, -1, -15.3413, 4.33039, 22.9243, 13.2553, 84.3232, -123.342
2.49565, -1, -15.52, 4.23905, 22.9604, 13.2577, 84.2275, -123.584
2.50371, -1, -15.699, 4.1478, 22.9964, 13.26, 84.1321, -123.826
2.51164, -1, -15.8782, 4.0566, 23.0323, 13.2623, 84.0366, -124.068
2.51965, -1, -16.0576, 3.96534, 23.0683, 13.2645, 83.9411, -124.309
2.52772, -1, -16.2373, 3.87408, 23.1043, 13.2667, 83.8459, -124.551
2.53565, -1, -16.417, 3.78285, 23.1402, 13.2688, 83.7503, -124.792
2.54365, -1, -16.5962, 3.69166, 23.176, 13.271, 83.6548, -125.034
2.55175, -1, -16.7749, 3.60055, 23.2119, 13.2733, 83.5596, -125.275
2.55968, -1, -16.953, 3.50951, 23.2477, 13.2755, 83.464, -125.516
2.56778, -1, -17.1301, 3.41851, 23.2835, 13.2777, 83.3687, -125.756
2.57565, -1, -17.3068, 3.32758, 23.3194, 13.28, 83.2738, -125.997
2.58365, -1, -17.4833, 3.23669, 23.3552, 13.2821, 83.1785, -126.238
2.5918, -1, -17.6595, 3.1459, 23.3909, 13.2843, 83.0836, -126.478
2.59969, -1, -17.8354, 3.05527, 23.4269, 13.2865, 82.989, -126.718
2.60777, -1, -18.0115, 2.96472, 23.4627, 13.2885, 82.894, -126.958
2.61621, -1, -18.188, 2.8743, 23.4984, 13.2907, 82.7992, -127.199
2.62323, -1, -18.3647, 2.78389, 23.5342, 13.2928, 82.7047, -127.438
2.63175, -1, -18.5418, 2.69349, 23.5698, 13.2948, 82.6099, -127.678
2.64018, -1, -18.7194, 2.60309, 23.6055, 13.2969, 82.5153, -127.918
2.64724, -1, -18.8082, 2.55793, 23.6233, 13.2989, 82.4209, -128.157
2.65565, -1, -19.0754, 2.42223, 23.6769, 13.3009, 82.3264, -128.397
2.66467, -1, -19.2536, 2.33177, 23.7124, 13.3029, 82.232, -128.636
2.67168, -1, -19.4316, 2.24139, 23.748, 13.3049, 82.138, -128.875
2.67972, -1, -19.609, 2.15098, 23.7836, 13.3071, 82.0438, -129.114
2.6886, -1, -19.7858, 2.06064, 23.819, 13.3093, 81.9496, -129.353
2.69587, -1, -19.962, 1.97035, 23.8545, 13.3114, 81.8554, -129.592
2.70387, -1, -20.1374, 1.88011, 23.8901, 13.3136, 81.7615, -129.831
2.71292, -1, -20.3124, 1.78993, 23.9255, 13.3159, 81.6674, -130.069
2.72007, -1, -20.4873, 1.6998, 23.961, 13.318, 81.5733, -130.307
2.72667, -1, -20.5745, 1.65477, 23.9788, 13.3192, 81.5266, -130.427
2.73691, -1, -20.8363, 1.51982, 24.0319, 13.3224, 81.3856, -130.784
2.74418, -1, -21.0111, 1.43003, 24.0673, 13.3246, 81.2919, -131.022
2.75221, -1, -21.1862, 1.3403, 24.1029, 13.3268, 81.1983, -131.26
2.76116, -1, -21.3617, 1.25052, 24.1382, 13.329, 81.1044, -131.498
2.76669, -1, -21.4496, 1.20566, 24.1559, 13.3301, 81.0574, -131.617
2.7763, -1, -21.6257, 1.11603, 24.209, 13.3333, 80.9168, -131.973
2.78365, -1, -21.8018, 1.02642, 24.2267, 13.3344, 80.8698, -132.092
2.7917, -1, -21.9782, 0.936781, 24.2621, 13.3365, 80.776, -132.329
2.79967, -1, -22.1548, 0.847231, 24.2975, 13.3387, 80.6824, -132.566
2.80766, -1, -22.3313, 0.757709, 24.3329, 13.3408, 80.5887, -132.803
2.81564, -1, -22.5074, 0.668241, 24.3681, 13.3431, 80.4951, -133.04
2.82367, -1, -22.6829, 0.578756, 24.4033, 13.3455, 80.4015, -133.277
2.83164, -1, -22.8579, 0.489333, 24.4386, 13.3479, 80.3079, -133.514
2.83963, -1, -23.0319, 0.399896, 24.4737, 13.3504, 80.2144, -133.751
2.8477, -1, -23.2056, 0.310516, 24.5088, 13.3528, 80.1208, -133.988
2.85564, -1, -23.3789, 0.221191, 24.5441, 13.3552, 80.0274, -134.224
2.86365, -1, -23.552, 0.131946, 24.5793, 13.3576, 79.934, -134.46
2.87169, -1, -23.7253, 0.0427837, 24.6144, 13.36, 79.8406, -134.696
2.87962, -1, -23.8986, -0.046261, 24.6497, 13.3625, 79.7477, -134.932
2.88768, -1, -24.0721, -0.135182, 24.6847, 13.3649, 79.6544, -135.168
2.89573, -1, -24.2459, -0.224194, 24.7198, 13.3674, 79.5614, -135.404
2.90365, -1, -24.42, -0.313119, 24.755, 13.3697, 79.4685, -135.64
2.91263, -1, -24.5945, -0.401942, 24.7901, 13.3722, 79.3753, -135.875
2.9197, -1, -24.7692, -0.490824, 24.8252, 13.3746, 79.2822, -136.111
2.92764, -1, -24.9443, -0.579728, 24.8603, 13.3769, 79.1894, -136.346
2.93564, -1, -25.1194, -0.668561, 24.8954, 13.3793, 79.0962, -136.581
2.94373, -1, -25.2941, -0.757309, 24.9304, 13.3818, 79.0034, -136.816
2.95165, -1, -25.4684, -0.846118, 24.9654, 13.3842, 78.9109, -137.051
2.95968, -1, -25.6423, -0.934897, 25.0005, 13.3867, 78.818, -137.287
2.96764, -1, -25.8156, -1.02359, 25.0353, 13.3891, 78.7253, -137.521
2.97563, -1, -25.9882, -1.11231, 25.0703, 13.3916, 78.6331, -137.756
2.98371, -1, -26.1605, -1.20099, 25.1053, 13.394, 78.5404, -137.99
2.99163, -1, -26.3324, -1.28956, 25.1401, 13.3964, 78.4479, -138.225
2.99965, -1, -26.5042, -1.37805, 25.175, 13.3987, 78.3554, -138.46
3.00771, -1, -26.6761, -1.4664, 25.21, 13.4009, 78.263, -138.694
3.01563, -1, -26.8481, -1.55469, 25.2449, 13.4032, 78.1705, -138.928
3.02364, -1, -27.0205, -1.64285, 25.2797, 13.4055, 78.078, -139.162
3.03171, -1, -27.193, -1.73106, 25.3146, 13.4077, 77.9861, -139.396
3.03964, -1, -27.3656, -1.81926, 25.3494, 13.4099, 77.8939, -139.63
3.04764, -1, -27.5387, -1.90731, 25.3841, 13.412, 77.8018, -139.863
3.05576, -1, -27.712, -1.99551, 25.419, 13.4141, 77.7099, -140.096
3.06366, -1, -27.8853, -2.08364, 25.4539, 13.4162, 77.6178, -140.33
3.07165, -1, -28.0586, -2.17163, 25.4886, 13.4182, 77.5258, -140.563
3.07977, -1, -28.2318, -2.25965, 25.5233, 13.4203, 77.4339, -140.797
3.08763, -1, -28.4048, -2.34773, 25.5581, 13.4223, 77.3417, -141.03
3.09586, -1, -28.5774, -2.43574, 25.5928, 13.4245, 77.2495, -141.262
3.1045, -1, -28.7496, -2.52367, 25.6274, 13.4267, 77.1577, -141.495
3.11173, -1, -28.9209, -2.6117, 25.6621, 13.4288, 77.0656, -141.728
3.12016, -1, -29.0917, -2.69963, 25.6967, 13.431, 76.9738, -141.961
3.12717, -1, -29.2623, -2.78747, 25.7313, 13.4331, 76.8821, -142.193
3.13523, -1, -29.4328, -2.87522, 25.766, 13.4352, 76.7901, -142.426
3.14423, -1, -29.6035, -2.96284, 25.8006, 13.4372, 76.6983, -142.658
3.15122, -1, -29.689, -3.00664, 25.8179, 13.4382, 76.6065, -142.891
3.15925, -1, -29.8601, -3.09416, 25.8524, 13.4402, 76.5607, -143.123
3.16773, -1, -30.1165, -3.22538, 25.9043, 13.4434, 76.4229, -143.355
3.17653, -1, -30.2875, -3.3129, 25.9388, 13.4454, 76.3312, -143.587
3.18375, -1, -30.459, -3.40031, 25.9734, 13.4476, 76.2398, -143.819
3.19185, -1, -30.6306, -3.48782, 26.0079, 13.4496, 76.1482, -144.05
3.20118, -1, -30.8025, -3.57529, 26.0423, 13.4517, 76.0569, -144.282
3.20668, -1, -30.8883, -3.61895, 26.0596, 13.4527, 76.0113, -144.397
3.21602, -1, -31.146, -3.75005, 26.1114, 13.4557, 75.8741, -144.744
3.22263, -1, -31.2318, -3.79373, 26.1286, 13.4568, 75.8284, -144.86
3.23268, -1, -31.4886, -3.92469, 26.1802, 13.4599, 75.6916, -145.207
3.24024, -1, -31.6593, -4.01194, 26.2148, 13.4621, 75.6001, -145.438
3.24819, -1, -31.8296, -4.09923, 26.2491, 13.4642, 75.5089, -145.669
3.25469, -1, -31.9145, -4.14286, 26.2663, 13.4653, 75.4634, -145.784
3.26428, -1, -32.1689, -4.2736, 26.3179, 13.4686, 75.3268, -146.131
3.27225, -1, -32.2536, -4.31716, 26.3522, 13.4708, 75.2357, -146.362
3.28017, -1, -32.423, -4.40422, 26.3693, 13.4718, 75.1902, -146.477
3.28826, -1, -32.5927, -4.4912, 26.4037, 13.4739, 75.0996, -146.707
3.29563, -1, -32.7623, -4.57813, 26.4382, 13.4761, 75.0086, -146.937
3.30362, -1, -32.932, -4.66504, 26.4724, 13.4783, 74.9178, -147.168
3.31167, -1, -33.1017, -4.75199, 26.5066, 13.4805, 74.8274, -147.398
3.31962, -1, -33.2715, -4.83883, 26.5409, 13.4827, 74.7365, -147.628
3.32662, -1, -33.4415, -4.92572, 26.5751, 13.485, 74.6459, -147.858
3.33562, -1, -33.6118, -5.01267, 26.6093, 13.4871, 74.5554, -148.088
3.34364, -1, -33.7821, -5.09943, 26.6436, 13.4893, 74.4648, -148.318
3.3531, -1, -34.0374, -5.22953, 26.6948, 13.4927, 74.329, -148.662
3.35878, -1, -34.1225, -5.27289, 26.7118, 13.4938, 74.2838, -148.777
3.36762, -1, -34.2927, -5.35957, 26.7461, 13.496, 74.1933, -149.006
3.37562, -1, -34.4627, -5.44622, 26.7804, 13.4984, 74.1026, -149.236
3.38367, -1, -34.6322, -5.53285, 26.8144, 13.5007, 74.012, -149.465
3.39167, -1, -34.8011, -5.61948, 26.8485, 13.5031, 73.9216, -149.694
3.39965, -1, -34.9697, -5.70606, 26.8828, 13.5057, 73.831, -149.923
3.40862, -1, -35.1381, -5.79255, 26.9168, 13.5081, 73.7406, -150.152
3.41562, -1, -35.3063, -5.87901, 26.9509, 13.5105, 73.6505, -150.381
3.42471, -1, -35.4748, -5.96523, 26.9851, 13.5129, 73.5599, -150.61
3.43169, -1, -35.6434, -6.05147, 27.0191, 13.5153, 73.4696, -150.839
3.43962, -1, -35.8119, -6.13772, 27.0531, 13.5176, 73.3795, -151.068
3.44768, -1, -35.9804, -6.22387, 27.0872, 13.5201, 73.2889, -151.296
3.45562, -1, -36.1489, -6.31002, 27.1213, 13.5225, 73.1986, -151.525
3.46362, -1, -36.3174, -6.39618, 27.1552, 13.5248, 73.1082, -151.753
3.47168, -1, -36.4862, -6.48242, 27.1891, 13.5272, 73.0177, -151.982
3.47961, -1, -36.655, -6.56862, 27.2231, 13.5296, 72.9275, -152.21
3.48763, -1, -36.8239, -6.65482, 27.257, 13.5319, 72.8373, -152.438
3.49564, -1, -36.993, -6.74095, 27.2909, 13.5342, 72.7474, -152.666
3.50368, -1, -37.1619, -6.82713, 27.3249, 13.5364, 72.6572, -152.894
3.51164, -1, -37.3306, -6.91323, 27.3587, 13.5387, 72.5673, -153.122
3.51961, -1, -37.4989, -6.99925, 27.3926, 13.5409, 72.4777, -153.349
3.52769, -1, -37.6668, -7.08532, 27.4267, 13.5431, 72.3876, -153.577
3.53562, -1, -37.8345, -7.17134, 27.4605, 13.5454, 72.2978, -153.804
3.54361, -1, -38.0021, -7.25729, 27.4943, 13.5477, 72.2082, -154.032
3.55168, -1, -38.1695, -7.3432, 27.5282, 13.5498, 72.1183, -154.259
3.55966, -1, -38.3369, -7.42903, 27.5621, 13.552, 72.0286, -154.486
3.56766, -1, -38.5042, -7.51472, 27.5959, 13.5541, 71.9391, -154.714
3.57568, -1, -38.6714, -7.60046, 27.6298, 13.5563, 71.8495, -154.941
3.58361, -1, -38.8387, -7.68615, 27.6637, 13.5583, 71.7598, -155.168
3.59162, -1, -39.006, -7.77181, 27.6973, 13.5604, 71.6705, -155.395
3.5997, -1, -39.1734, -7.8574, 27.7311, 13.5625, 71.5813, -155.622
3.60766, -1, -39.341, -7.94309, 27.765, 13.5645, 71.4918, -155.848
3.61571, -1, -39.5084, -8.02871, 27.7987, 13.5665, 71.4023, -156.075
3.62379, -1, -39.6761, -8.11426, 27.8323, 13.5685, 71.3133, -156.302
3.63171, -1, -39.8438, -8.19975, 27.8661, 13.5703, 71.2237, -156.528
3.63977, -1, -40.0113, -8.28521, 27.8998, 13.5723, 71.1344, -156.755
3.6478, -1, -40.1789, -8.37064, 27.9334, 13.5742, 71.0452, -156.981
3.65562, -1, -40.3463, -8.45603, 27.9671, 13.5762, 70.9558, -157.207
3.66362, -1, -40.5135, -8.54145, 28.0008, 13.5782, 70.8666, -157.433
3.67171, -1, -40.6805, -8.62686, 28.0344, 13.5802, 70.7774, -157.659
3.67988, -1, -40.8472, -8.71224, 28.068, 13.5822, 70.6883, -157.885
3.68772, -1, -41.0137, -8.79761, 28.1018, 13.5843, 70.5991, -158.111
3.69586, -1, -41.18, -8.88289, 28.1353, 13.5863, 70.51, -158.337
3.70382, -1, -41.3461, -8.96807, 28.1689, 13.5883, 70.421, -158.563
3.71186, -1, -41.5123, -9.05324, 28.2025, 13.5903, 70.3317, -158.788
3.72008, -1, -41.6786, -9.13835, 28.2361, 13.5923, 70.2425, -159.014
3.72661, -1, -41.7618, -9.18089, 28.2529, 13.5933, 70.1981, -159.126
3.73608, -1, -42.0114, -9.30846, 28.3033, 13.5963, 70.0644, -159.465
3.74264, -1, -42.0945, -9.35098, 28.3202, 13.5973, 70.0199, -159.577
3.75215, -1, -42.3438, -9.47858, 28.3705, 13.6004, 69.8867, -159.915
3.76017, -1, -42.5101, -9.56353, 28.404, 13.6024, 69.7976, -160.14
3.76827, -1, -42.6765, -9.6485, 28.4376, 13.6044, 69.7087, -160.366
3.77642, -1, -42.7598, -9.69098, 28.4543, 13.6064, 69.6199, -160.591
3.7836, -1, -42.9263, -9.77596, 28.4877, 13.6074, 69.5756, -160.704
3.79221, -1, -43.0927, -9.86088, 28.5212, 13.6096, 69.4866, -160.928
3.79961, -1, -43.2589, -9.94583, 28.5548, 13.6116, 69.398, -161.153
3.80765, -1, -43.425, -10.0308, 28.5883, 13.6137, 69.3095, -161.378
3.81565, -1, -43.591, -10.1157, 28.6218, 13.6157, 69.2208, -161.603
3.8236, -1, -43.7569, -10.2007, 28.6553, 13.6179, 69.1324, -161.828
3.8316, -1, -43.9227, -10.2854, 28.6887, 13.62, 69.0439, -162.052
3.83965, -1, -44.0883, -10.3702, 28.7221, 13.6221, 68.9554, -162.276
3.84763, -1, -44.2536, -10.4549, 28.7556, 13.6243, 68.8667, -162.501
3.8556, -1, -44.4187, -10.5395, 28.7891, 13.6265, 68.778, -162.725
3.86365, -1, -44.5839, -10.624, 28.8224, 13.6287, 68.6896, -162.949
3.87162, -1, -44.7491, -10.7085, 28.8559, 13.6309, 68.6008, -163.173
3.87958, -1, -44.9144, -10.7929, 28.8894, 13.6331, 68.5123, -163.397
3.8866, -1, -45.0797, -10.8773, 28.9227, 13.6353, 68.4241, -163.621
3.89564, -1, -45.245, -10.9618, 28.9561, 13.6375, 68.3355, -163.845
3.90364, -1, -45.4104, -11.0462, 28.9895, 13.6398, 68.2471, -164.069
3.91166, -1, -45.5757, -11.1307, 29.0228, 13.642, 68.159, -164.293
3.92147, -1, -45.741, -11.2151, 29.056, 13.6443, 68.0707, -164.629
3.92761, -1, -45.9059, -11.2994, 29.0894, 13.6466, 67.9823, -164.74
3.93574, -1, -46.0689, -11.3826, 29.1229, 13.6489, 67.8938, -164.964
3.94465, -1, -46.2284, -11.4636, 29.1564, 13.6512, 67.8062, -165.186
3.9516, -1, -46.3823, -11.5409, 29.19, 13.6537, 67.7196, -165.405
3.95968, -1, -46.5282, -11.6135, 29.2231, 13.6559, 67.6359, -165.616
3.96761, -1, -46.6638, -11.6802, 29.2543, 13.6582, 67.5578, -165.815
3.9756, -1, -46.7863, -11.7399, 29.2825, 13.6603, 67.4866, -165.994
3.98366, -1, -46.8931, -11.7925, 29.3068, 13.6622, 67.4251, -166.15
3.99165, -1, -46.9836, -11.8384, 29.3262, 13.6636, 67.3749, -166.278
3.99961, -1, -47.0583, -11.8783, 29.3399, 13.6647, 67.3359, -166.376
4.00768, -1, -47.1179, -11.9115, 29.349, 13.6653, 67.3077, -166.447
4.01562, -1, -47.1631, -11.9372, 29.3544, 13.6656, 67.2888, -166.494
4.0236, -1, -47.196, -11.9558, 29.3571, 13.6658, 67.2772, -166.523
4.03166, -1, -47.2185, -11.9683, 29.3583, 13.6658, 67.2708, -166.54
4.0396, -1, -47.2327, -11.976, 29.3588, 13.6659, 67.2675, -166.548
4.04762, -1, -47.2405, -11.9802, 29.3591, 13.666, 67.2659, -166.552
4.05569, 2, -47.2442, -11.9822, 29.3593, 13.666, 67.2651, -166.554
4.06363, 2, -47.245, -11.983, 29.3594, 13.666, 67.2648, -166.555
4.07164, 2, -47.2448, -11.9834, 29.3594, 13.6661, 67.2646, -166.555
4.07967, 2, -47.2446, -11.9835, 29.3595, 13.6661, 67.2645, -166.555
4.0876, 2, -47.2447, -11.9835, 29.3595, 13.6661, 67.2645, -166.555
4.09561, 2, -47.2454, -11.9837, 29.3595, 13.6661, 67.2645, -166.555
4.10369, 2, -47.2464, -11.9841, 29.3595, 13.6661, 67.2645, -166.555
4.11163, 2, -47.2481, -11.9848, 29.3595, 13.6661, 67.2645, -166.555
4.1197, 2, -47.2498, -11.9856, 29.3595, 13.666, 67.2645, -166.555
4.12778, 2, -47.2513, -11.9865, 29.3595, 13.666, 67.2645, -166.555
4.1357, 2, -47.2525, -11.9872, 29.3595, 13.6661, 67.2645, -166.555
4.1437, 2, -47.2532, -11.9878, 29.3595, 13.6661, 67.2645, -166.555
4.15177, 2, -47.2535, -11.988, 29.3595, 13.6661, 67.2645, -166.555
4.1596, 2, -47.2536, -11.9881, 29.3595, 13.6661, 67.2645, -166.555
4.16762, 2, -47.2535, -11.9882, 29.3595, 13.6661, 67.2645, -166.555
4.17569, 2, -47.253, -11.9881, 29.3595, 13.6661, 67.2645, -166.555
4.18365, 2, -47.2525, -11.9881, 29.3596, 13.6661, 67.2645, -166.555
4.19168, 2, -47.2521, -11.9881, 29.3596, 13.6661, 67.2645, -166.555
4.19983, 2, -47.2518, -11.9881, 29.3596, 13.6661, 67.2645, -166.555
4.20824, 2, -47.2517, -11.9881, 29.3596, 13.6661, 67.2645, -166.555
4.21586, 2, -47.2518, -11.9883, 29.3596, 13.666, 67.2645, -166.555
4.224, 2, -47.2519, -11.9885, 29.3596, 13.666, 67.2645, -166.555
4.23059, 2, -47.2521, -11.9887, 29.3596, 13.6661, 67.2645, -166.555
4.24006, 2, -47.253, -11.9892, 29.3596, 13.6661, 67.2645, -166.555
4.24822, 2, -47.2535, -11.9894, 29.3596, 13.666, 67.2645, -166.555
4.25666, 2, -47.2537, -11.9896, 29.3596, 13.666, 67.2645, -166.555
4.26423, 2, -47.2538, -11.9896, 29.3596, 13.666, 67.2645, -166.555
4.27222, 2, -47.2537, -11.9896, 29.3596, 13.6661, 67.2645, -166.555
4.28052, 2, -47.2536, -11.9896, 29.3596, 13.666, 67.2645, -166.555
4.28812, 2, -47.2535, -11.9896, 29.3596, 13.666, 67.2645, -166.555
4.29566, 2, -47.253, -11.9895, 29.3596, 13.6661, 67.2645, -166.555
4.30451, 2, -47.2526, -11.9894, 29.3596, 13.6661, 67.2645, -166.555
4.31158, 2, -47.2524, -11.9894, 29.3596, 13.6661, 67.2645, -166.555
4.31967, 2, -47.2521, -11.9895, 29.3596, 13.666, 67.2645, -166.555
4.3276, 2, -47.252, -11.9895, 29.3596, 13.666, 67.2645, -166.555
4.3356, 2, -47.252, -11.9895, 29.3596, 13.666, 67.2645, -166.555
4.34364, 2, -47.252, -11.9896, 29.3596, 13.6661, 67.2645, -166.555
4.35161, 2, -47.252, -11.9897, 29.3596, 13.666, 67.2645, -166.555
4.35959, 2, -47.252, -11.9897, 29.3596, 13.666, 67.2645, -166.555
4.36765, 2, -47.2521, -11.9897, 29.3596, 13.666, 67.2645, -166.555
4.37558, 2, -47.2521, -11.9897, 29.3596, 13.666, 67.2645, -166.555
4.38369, 2, -47.252, -11.9896, 29.3596, 13.666, 67.2645, -166.555
4.39165, 2, -47.252, -11.9896, 29.3596, 13.666, 67.2645, -166.555
4.39962, 2, -47.2519, -11.9895, 29.3596, 13.666, 67.2645, -166.555
4.40763, 2, -47.2518, -11.9894, 29.3596, 13.666, 67.2645, -166.555
4.41659, 2, -47.2516, -11.9894, 29.3596, 13.666, 67.2645, -166.555
4.42358, 2, -47.2515, -11.9894, 29.3596, 13.666, 67.2646, -166.555
4.43159, 2, -47.2514, -11.9894, 29.3596, 13.6659, 67.2646, -166.555
4.43964, 2, -47.2513, -11.9895, 29.3596, 13.6659, 67.2646, -166.555
4.4476, 2, -47.2513, -11.9895, 29.3596, 13.666, 67.2646, -166.555
4.45559, 2, -47.2513, -11.9895, 29.3596, 13.6659, 67.2646, -166.555
4.46367, 2, -47.2512, -11.9895, 29.3596, 13.6659, 67.2647, -166.555
4.47158, 2, -47.2511, -11.9895, 29.3595, 13.6659, 67.2646, -166.555
4.47959, 2, -47.2511, -11.9894, 29.3596, 13.666, 67.2646, -166.555
4.48765, 2, -47.2511, -11.9894, 29.3596, 13.6659, 67.2646, -166.555
4.49558, 2, -47.251, -11.9894, 29.3596, 13.6659, 67.2646, -166.555
4.50358, 2, -47.251, -11.9893, 29.3596, 13.6659, 67.2646, -166.555
4.51165, 2, -47.2509, -11.9893, 29.3596, 13.6659, 67.2646, -166.555
4.5196, 2, -47.2508, -11.9892, 29.3596, 13.6659, 67.2646, -166.555
4.52759, 2, -47.2507, -11.9892, 29.3596, 13.6659, 67.2646, -166.555
4.53565, 2, -47.2506, -11.9892, 29.3596, 13.6659, 67.2646, -166.555
4.54358, 2, -47.2505, -11.9892, 29.3596, 13.6659, 67.2646, -166.555
4.55158, 2, -47.2504, -11.9892, 29.3596, 13.666, 67.2646, -166.555
4.55965, 2, -47.2503, -11.9892, 29.3596, 13.6659, 67.2647, -166.555
4.56763, 2, -47.2502, -11.9892, 29.3595, 13.6659, 67.2647, -166.555
4.57562, 2, -47.2501, -11.9892, 29.3596, 13.6659, 67.2647, -166.555
4.58365, 2, -47.25, -11.9892, 29.3596, 13.6659, 67.2647, -166.555
4.59158, 2, -47.2499, -11.9892, 29.3596, 13.6659, 67.2647, -166.555
4.59959, 2, -47.2498, -11.9891, 29.3596, 13.6659, 67.2647, -166.555
4.60769, 2, -47.2497, -11.989, 29.3596, 13.6659, 67.2647, -166.555
4.61563, 2, -47.2496, -11.989, 29.3596, 13.666, 67.2647, -166.555
4.62367, 2, -47.2495, -11.9889, 29.3596, 13.6659, 67.2647, -166.555
4.63176, 2, -47.2494, -11.9889, 29.3596, 13.6659, 67.2647, -166.555
4.63968, 2, -47.2493, -11.9889, 29.3596, 13.6659, 67.2647, -166.555
4.64771, 2, -47.2492, -11.9889, 29.3596, 13.6659, 67.2647, -166.555
4.65575, 2, -47.2492, -11.9889, 29.3596, 13.6658, 67.2647, -166.555
4.66359, 2, -47.2491, -11.9889, 29.3596, 13.6658, 67.2647, -166.555
4.6716, 2, -47.249, -11.9889, 29.3596, 13.6658, 67.2647, -166.555
4.67968, 2, -47.249, -11.9889, 29.3596, 13.6658, 67.2647, -166.555
4.68765, 2, -47.2489, -11.9888, 29.3595, 13.6658, 67.2647, -166.555
4.69605, 2, -47.2488, -11.9888, 29.3596, 13.6658, 67.2647, -166.555
4.70382, 2, -47.2488, -11.9888, 29.3596, 13.6658, 67.2647, -166.555
4.71179, 2, -47.2487, -11.9887, 29.3596, 13.6658, 67.2647, -166.555
4.71992, 2, -47.2487, -11.9886, 29.3596, 13.6658, 67.2647, -166.555
4.72798, 2, -47.2485, -11.9886, 29.3595, 13.6659, 67.2647, -166.555
4.73601, 2, -47.2484, -11.9885, 29.3595, 13.6659, 67.2648, -166.555
4.7444, 2, -47.2484, -11.9885, 29.3595, 13.6658, 67.2648, -166.555
4.75217, 2, -47.2483, -11.9885, 29.3596, 13.6658, 67.2647, -166.555
4.76014, 2, -47.2483, -11.9885, 29.3595, 13.6658, 67.2647, -166.555
4.76819, 2, -47.2484, -11.9885, 29.3595, 13.6658, 67.2647, -166.555
4.77619, 2, -47.2483, -11.9885, 29.3596, 13.6658, 67.2648, -166.555
4.7841, 2, -47.2483, -11.9885, 29.3596, 13.6658, 67.2648, -166.555
4.79157, 2, -47.2482, -11.9885, 29.3595, 13.6658, 67.2648, -166.555
4.80035, 2, -47.2482, -11.9884, 29.3595, 13.6658, 67.2648, -166.555
4.80758, 2, -47.2482, -11.9884, 29.3596, 13.6658, 67.2648, -166.555
4.81557, 2, -47.2481, -11.9883, 29.3595, 13.6658, 67.2648, -166.554
4.82365, 2, -47.248, -11.9883, 29.3595, 13.6657, 67.2648, -166.554
4.83157, 2, -47.248, -11.9882, 29.3595, 13.6657, 67.2648, -166.554
4.83957, 2, -47.2478, -11.9882, 29.3595, 13.6657, 67.2648, -166.554
4.84763, 2, -47.2478, -11.9882, 29.3595, 13.6657, 67.2649, -166.554
4.85559, 2, -47.2477, -11.9882, 29.3595, 13.6657, 67.2649, -166.554
4.86358, 2, -47.2477, -11.9882, 29.3595, 13.6657, 67.2649, -166.554
4.87162, 2, -47.2477, -11.9882, 29.3595, 13.6656, 67.2649, -166.554
4.87953, 2, -47.2476, -11.9881, 29.3596, 13.6656, 67.2649, -166.554
4.88758, 2, -47.2476, -11.9881, 29.3595, 13.6656, 67.2649, -166.554
4.89564, 2, -47.2476, -11.9881, 29.3595, 13.6656, 67.2649, -166.554
4.9036, 2, -47.2475, -11.9881, 29.3595, 13.6656, 67.2649, -166.554
4.9116, 2, -47.2475, -11.988, 29.3595, 13.6656, 67.2649, -166.554
4.92061, 2, -47.2474, -11.988, 29.3595, 13.6656, 67.265, -166.554
4.92758, 2, -47.2474, -11.9879, 29.3595, 13.6656, 67.2649, -166.554
4.93558, 2, -47.2473, -11.9879, 29.3595, 13.6655, 67.265, -166.554
4.94364, 2, -47.2472, -11.9878, 29.3595, 13.6655, 67.265, -166.554
4.95157, 2, -47.2471, -11.9878, 29.3596, 13.6655, 67.265, -166.554
4.95957, 2, -47.2471, -11.9878, 29.3596, 13.6654, 67.265, -166.554
4.96765, 2, -47.2471, -11.9878, 29.3595, 13.6654, 67.265, -166.554
4.97556, 2, -47.247, -11.9878, 29.3595, 13.6654, 67.265, -166.554
4.98357, 2, -47.247, -11.9878, 29.3595, 13.6654, 67.265, -166.554
4.99163, 2, -47.2469, -11.9878, 29.3595, 13.6654, 67.265, -166.554
4.99957, 2, -47.2469, -11.9878, 29.3595, 13.6654, 67.265, -166.554
5.00758, 2, -47.2469, -11.9877, 29.3595, 13.6654, 67.265, -166.554
5.01563, 2, -47.2468, -11.9877, 29.3595, 13.6654, 67.265, -166.554
5.02359, 2, -47.2468, -11.9876, 29.3595, 13.6654, 67.265, -166.554
5.03157, 2, -47.2467, -11.9876, 29.3595, 13.6654, 67.265, -166.554
5.03963, 2, -47.2466, -11.9875, 29.3595, 13.6654, 67.265, -166.554
5.04757, 2, -47.2465, -11.9875, 29.3595, 13.6654, 67.265, -166.554
5.05685, 2, -47.2465, -11.9875, 29.3595, 13.6654, 67.2651, -166.554
5.06363, 2, -47.2464, -11.9875, 29.3595, 13.6654, 67.2651, -166.554
5.0716, 2, -47.2464, -11.9875, 29.3595, 13.6653, 67.2651, -166.554
5.0796, 2, -47.2463, -11.9875, 29.3595, 13.6653, 67.2651, -166.554
5.08765, 2, -47.2463, -11.9875, 29.3595, 13.6653, 67.265, -166.554
5.09556, 2, -47.2463, -11.9874, 29.3595, 13.6653, 67.265, -166.554
5.10357, 2, -47.2463, -11.9874, 29.3595, 13.6653, 67.2651, -166.554
5.11178, 2, -47.2463, -11.9874, 29.3595, 13.6653, 67.2651, -166.554
5.11964, 2, -47.2462, -11.9873, 29.3595, 13.6652, 67.2651, -166.554
5.12767, 2, -47.2462, -11.9873, 29.3595, 13.6652, 67.2651, -166.554
5.13572, 4, -47.2461, -11.9872, 29.3595, 13.6652, 67.2652, -166.554
5.14369, 4, -47.246, -11.9872, 29.3595, 13.6652, 67.2651, -166.554
5.15167, 4, -47.246, -11.9872, 29.3595, 13.6652, 67.2651, -166.554
5.15974, 4, -47.2459, -11.9872, 29.3595, 13.6651, 67.2651, -166.554
5.16758, 4, -47.2459, -11.9871, 29.3595, 13.6651, 67.2652, -166.554
5.1756, 4, -47.2458, -11.9871, 29.3595, 13.6651, 67.2652, -166.554
5.18366, 4, -47.2458, -11.9871, 29.3595, 13.6651, 67.2652, -166.554
5.19163, 4, -47.2458, -11.9871, 29.3595, 13.6651, 67.2652, -166.554
5.20002, 4, -47.2458, -11.9871, 29.3595, 13.6651, 67.2653, -166.554
5.20785, 4, -47.2458, -11.9871, 29.3595, 13.6651, 67.2652, -166.554
5.21582, 4, -47.2458, -11.987, 29.3595, 13.665, 67.2652, -166.554
5.22422, 4, -47.2457, -11.987, 29.3595, 13.6651, 67.2652, -166.554
5.23197, 4, -47.2457, -11.987, 29.3595, 13.665, 67.2652, -166.553
5.24703, 4, -47.2456, -11.9869, 29.3595, 13.665, 67.2653, -166.553
5.2505, 4, -47.2456, -11.9869, 29.3595, 13.6651, 67.2653, -166.553
5.25652, 4, -47.2455, -11.9869, 29.3595, 13.665, 67.2653, -166.553
5.26484, 4, -47.2454, -11.9869, 29.3595, 13.665, 67.2653, -166.553
5.2737, 4, -47.2454, -11.9868, 29.3595, 13.665, 67.2653, -166.553
5.2805, 4, -47.2454, -11.9868, 29.3595, 13.665, 67.2653, -166.553
5.28841, 4, -47.2454, -11.9868, 29.3595, 13.665, 67.2653, -166.553
5.29662, 4, -47.2454, -11.9868, 29.3595, 13.665, 67.2653, -166.553
5.30763, 4, -47.2453, -11.9868, 29.3595, 13.665, 67.2653, -166.553
5.31236, 4, -47.2453, -11.9868, 29.3595, 13.665, 67.2653, -166.553
5.32212, 4, -47.2453, -11.9867, 29.3595, 13.665, 67.2653, -166.553
5.32972, 4, -47.2452, -11.9867, 29.3595, 13.6649, 67.2653, -166.553
5.3397, 4, -47.2452, -11.9867, 29.3595, 13.6649, 67.2653, -166.553
5.34376, 4, -47.2452, -11.9866, 29.3595, 13.6649, 67.2653, -166.553
5.35335, 4, -47.2451, -11.9866, 29.3595, 13.665, 67.2653, -166.553
5.35974, 4, -47.2451, -11.9866, 29.3595, 13.665, 67.2653, -166.553
5.3739, 4, -47.245, -11.9866, 29.3595, 13.6649, 67.2653, -166.553
5.37916, 4, -47.245, -11.9865, 29.3595, 13.6649, 67.2654, -166.553
5.38543, 4, -47.245, -11.9865, 29.3595, 13.6649, 67.2654, -166.553
5.39233, 4, -47.2449, -11.9865, 29.3595, 13.6648, 67.2654, -166.553
5.39976, 4, -47.2451, -11.9866, 29.3595, 13.6648, 67.2654, -166.553
5.40838, 4, -47.246, -11.9871, 29.3599, 13.665, 67.2655, -166.553
5.41575, 4, -47.2483, -11.9888, 29.3618, 13.6667, 67.266, -166.553
5.4237, 4, -47.2525, -11.9933, 29.3673, 13.6765, 67.2683, -166.552
5.43565, 5, -47.2647, -12.0088, 29.3903, 13.722, 67.2804, -166.543
5.44001, 5, -47.2712, -12.0174, 29.4045, 13.7503, 67.2883, -166.537
5.45018, 5, -47.3014, -12.0579, 29.4769, 13.9004, 67.3305, -166.503
5.45809, 5, -47.3332, -12.0996, 29.5583, 14.0721, 67.3784, -166.464
5.46398, 5, -47.3532, -12.1255, 29.6111, 14.1847, 67.4093, -166.437
5.47274, 5, -47.4028, -12.1882, 29.7434, 14.4698, 67.488, -166.372
5.48076, 5, -47.4651, -12.2659, 29.913, 14.8387, 67.5878, -166.287
5.48772, 5, -47.5399, -12.3589, 30.1213, 15.2908, 67.7093, -166.183
5.49668, 5, -47.6269, -12.4665, 30.3665, 15.8183, 67.8493, -166.064
5.50505, 5, -47.7246, -12.5872, 30.6439, 16.4081, 68.0042, -165.93
5.5153, 5, -47.8873, -12.7893, 31.1099, 17.3772, 68.2535, -165.715
5.52274, 5, -48.0034, -12.9345, 31.4441, 18.0572, 68.4249, -165.566
5.53446, 5, -48.1232, -13.085, 31.7896, 18.7492, 68.5958, -165.343
5.53669, 5, -48.1838, -13.1612, 31.9648, 19.0967, 68.6805, -165.343
5.54481, 5, -48.3045, -13.3131, 32.3176, 19.7873, 68.8471, -165.197
5.55273, 5, -48.4224, -13.4615, 32.6697, 20.4636, 69.0095, -165.049
5.56018, 5, -48.5333, -13.6038, 33.0163, 21.1169, 69.1689, -164.892
5.56877, 6, -48.6326, -13.7364, 33.3507, 21.7349, 69.3277, -164.714
5.57944, 6, -48.7504, -13.916, 33.8202, 22.5803, 69.5707, -164.376
5.58562, 7, -48.7795, -13.9717, 33.9665, 22.838, 69.6542, -164.238
5.59473, 7, -48.8217, -14.0778, 34.2436, 23.5383, 69.9147, -163.731
5.60171, 8, -48.842, -14.1751, 34.4998, 23.7497, 70.0054, -163.529
5.61102, 8, -48.8355, -14.3027, 34.8532, 24.3317, 70.2886, -162.832
5.61631, 8, -48.8251, -14.341, 34.9648, 24.5124, 70.3868, -162.572
5.62379, 9, -48.7941, -14.4128, 35.181, 24.8614, 70.589, -162.019
5.63212, 9, -48.7519, -14.4798, 35.3919, 25.2019, 70.7986, -161.432
5.64113, 10, -48.6999, -14.5438, 35.6019, 25.541, 71.0157, -160.823
5.64871, 10, -48.6388, -14.6067, 35.812, 25.8834, 71.2395, -160.2
5.65669, 11, -48.5705, -14.6693, 36.0231, 26.2316, 71.4687, -159.568
5.66778, 11, -48.4582, -14.7634, 36.3413, 26.7679, 71.8189, -158.617
5.67271, 12, -48.419, -14.795, 36.4467, 26.9506, 71.937, -158.298
5.68112, 12, -48.3397, -14.858, 36.6562, 27.3221, 72.1747, -157.658
5.68872, 13, -48.26, -14.919, 36.8646, 27.7014, 72.4144, -157.014
5.69672, 13, -48.1798, -14.9776, 37.071, 28.0885, 72.6565, -156.368
5.70407, 14, -48.0976, -15.0359, 37.2753, 28.4829, 72.901, -155.715
5.71439, 14, -48.0121, -15.0953, 37.4791, 28.8829, 73.1479, -155.061
5.7202, 15, -47.9229, -15.1554, 37.682, 29.2865, 73.396, -154.407
5.72895, 15, -47.8298, -15.2145, 37.8827, 29.6916, 73.6436, -153.755
5.73627, 16, -47.7309, -15.273, 38.0818, 30.096, 73.889, -153.106
5.7507, 16, -47.5693, -15.3631, 38.3765, 30.6977, 74.2502, -152.143
5.75342, 17, -47.5124, -15.394, 38.473, 30.8965, 74.3681, -151.825
5.76208, 17, -47.3949, -15.4568, 38.6633, 31.2902, 74.599, -151.192
5.76838, 18, -47.2727, -15.5202, 38.8511, 31.6791, 74.8235, -150.567
5.77825, 18, -47.1454, -15.5848, 39.0361, 32.064, 75.0421, -149.95
5.78652, 19, -47.0124, -15.652, 39.2183, 32.4463, 75.255, -149.339
5.79372, 19, -46.8737, -15.7226, 39.3992, 32.8274, 75.4632, -148.735
5.80044, 20, -46.8024, -15.7587, 39.579, 33.2073, 75.667, -148.138
5.80946, 20, -46.5809, -15.8694, 39.7566, 33.5864, 75.8668, -147.548
5.81569, 21, -46.5048, -15.9071, 39.8445, 33.7756, 75.9651, -147.256
5.82558, 21, -46.2705, -16.0232, 40.1054, 34.342, 76.2537, -146.388
5.83167, 22, -46.1903, -16.0629, 40.1916, 34.5303, 76.3478, -146.101
5.83974, 22, -46.0269, -16.1432, 40.3618, 34.9054, 76.5327, -145.534
5.84774, 23, -45.8587, -16.2247, 40.5286, 35.278, 76.7133, -144.972
5.85811, 23, -45.595, -16.3504, 40.774, 35.8307, 76.9753, -144.139
5.86553, 24, -45.4098, -16.4372, 40.9332, 36.1935, 77.1436, -143.59
5.8717, 24, -45.3144, -16.4815, 41.0111, 36.3727, 77.2255, -143.317
5.87976, 25, -45.1184, -16.5708, 41.1635, 36.7251, 77.3847, -142.776
5.88773, 25, -44.9158, -16.6606, 41.3118, 37.069, 77.5371, -142.24
5.89756, 26, -44.5994, -16.7966, 41.5257, 37.5685, 77.7538, -141.443
5.90586, 26, -44.3794, -16.8887, 41.6618, 37.8912, 77.8917, -140.916
5.91366, 27, -44.2667, -16.9809, 41.7924, 38.2058, 78.0249, -140.392
5.91976, 27, -44.0365, -17.027, 41.8554, 38.3602, 78.0901, -140.13
5.92772, 28, -43.7996, -17.1188, 41.977, 38.6636, 78.2184, -139.606
5.93578, 28, -43.5554, -17.21, 42.0919, 38.9594, 78.3436, -139.083
5.94368, 29, -43.3038, -17.2998, 42.2001, 39.2472, 78.4663, -138.561
5.95169, 29, -43.0456, -17.3875, 42.3013, 39.5271, 78.5861, -138.039
5.96276, 30, -42.6457, -17.515, 42.4398, 39.9316, 78.76, -137.256
5.97076, 30, -42.3693, -17.5971, 42.5233, 40.1907, 78.8726, -136.735
5.9767, 31, -42.2279, -17.6371, 42.5624, 40.3171, 78.9277, -136.475
5.98454, 31, -41.9396, -17.7154, 42.6354, 40.5634, 79.036, -135.955
5.99169, 32, -41.6442, -17.7913, 42.7014, 40.8013, 79.1421, -135.435
5.99975, 32, -41.3423, -17.8649, 42.7608, 41.031, 79.2453, -134.916
6.01102, 33, -40.877, -17.9697, 42.8366, 41.3603, 79.3958, -134.14
6.0157, 33, -40.7184, -18.003, 42.8583, 41.466, 79.4446, -133.881
6.02509, 34, -40.3966, -18.0674, 42.8962, 41.6711, 79.5402, -133.365
6.03483, 34, -39.9047, -18.1593, 42.9393, 41.9639, 79.6789, -132.592
6.04261, 35, -39.5701, -18.2166, 42.9591, 42.1495, 79.7681, -132.079
6.04775, 35, -39.4005, -18.244, 42.9664, 42.2396, 79.8118, -131.823
6.05672, 36, -39.0562, -18.2962, 42.9756, 42.4138, 79.8979, -131.312
6.06371, 36, -38.7046, -18.345, 42.9781, 42.5802, 79.9817, -130.801
6.07263, 37, -38.3465, -18.3906, 42.974, 42.739, 80.0632, -130.292
6.07973, 37, -37.9828, -18.4326, 42.9629, 42.8903, 80.1429, -129.785
6.0878, 38, -37.6135, -18.4708, 42.945, 43.0343, 80.2202, -129.279
6.09723, 38, -37.2396, -18.5057, 42.9207, 43.1709, 80.296, -128.775
6.10576, 39, -36.861, -18.5372, 42.8895, 43.2999, 80.3689, -128.273
6.11374, 39, -36.478, -18.565, 42.8515, 43.4217, 80.4402, -127.772
6.11973, 40, -36.0895, -18.5891, 42.807, 43.5362, 80.5095, -127.274
6.12834, 40, -35.6948, -18.6094, 42.7559, 43.6435, 80.5772, -126.777
6.13994, 41, -35.0919, -18.6323, 42.667, 43.7906, 80.6745, -126.035
6.1443, 41, -34.8884, -18.6382, 42.6342, 43.8362, 80.7062, -125.789
6.15697, 42, -34.2725, -18.6508, 42.5259, 43.9623, 80.7978, -125.055
6.16067, 42, -34.0655, -18.6534, 42.4867, 44.0008, 80.8272, -124.811
6.16877, 43, -33.6493, -18.6562, 42.4037, 44.0721, 80.8857, -124.325
6.17668, 43, -33.2287, -18.6557, 42.3147, 44.1366, 80.9416, -123.841
6.1861, 44, -32.8024, -18.6514, 42.22, 44.194, 80.9962, -123.36
6.19301, 44, -32.3695, -18.6433, 42.1196, 44.2437, 81.0495, -122.882
6.20131, 45, -31.9303, -18.6315, 42.0132, 44.2866, 81.1003, -122.405
6.20872, 45, -31.4863, -18.616, 41.9009, 44.3222, 81.1502, -121.931
6.21852, 46, -31.0397, -18.5972, 41.7825, 44.3499, 81.1984, -121.459
6.22483, 46, -30.5912, -18.5748, 41.6583, 44.3698, 81.2439, -120.99
6.23224, 47, -30.1394, -18.5484, 41.5282, 44.3821, 81.2889, -120.523
6.24113, 47, -29.6827, -18.5176, 41.3923, 44.3875, 81.333, -120.057
6.24839, 48, -29.2192, -18.4823, 41.2503, 44.3857, 81.3753, -119.594
6.25864, 48, -28.7495, -18.4428, 41.1022, 44.3748, 81.417, -119.132
6.26454, 49, -28.2748, -18.3988, 40.9481, 44.3555, 81.4589, -118.673
6.27306, 49, -27.7977, -18.3505, 40.7882, 44.3268, 81.4999, -118.215
6.28037, 50, -27.3181, -18.2975, 40.6218, 44.2881, 81.5404, -117.758
6.28917, 50, -26.8346, -18.2391, 40.4486, 44.2408, 81.5819, -117.301
6.29837, 51, -26.3439, -18.1752, 40.2692, 44.184, 81.6245, -116.845
6.30437, 51, -26.0956, -18.1411, 40.0831, 44.1169, 81.6668, -116.391
6.31247, 52, -25.5937, -18.0688, 39.9871, 44.08, 81.71, -115.937
6.32032, 52, -25.087, -17.9913, 39.7897, 43.9979, 81.7322, -115.711
6.33002, 53, -24.3229, -17.8649, 39.4823, 43.8557, 81.7993, -115.031
6.3357, 53, -24.0668, -17.8199, 39.3763, 43.8033, 81.8218, -114.805
6.34365, 54, -23.5505, -17.7253, 39.1583, 43.6907, 81.8684, -114.354
6.35168, 54, -23.0269, -17.6243, 38.9334, 43.5675, 81.9173, -113.902
6.35967, 55, -22.4947, -17.517, 38.7014, 43.4333, 81.9673, -113.45
6.37042, 55, -21.6872, -17.3443, 38.3388, 43.2101, 82.0479, -112.772
6.37902, 56, -21.1458, -17.222, 38.0892, 43.0466, 82.1035, -112.32
6.38553, 56, -20.6002, -17.094, 37.832, 42.8713, 82.1614, -111.869
6.39196, 57, -20.3245, -17.028, 37.7009, 42.7794, 82.1913, -111.643
6.40146, 57, -19.4835, -16.8209, 37.2983, 42.486, 82.2821, -110.968
6.40767, 58, -19.1991, -16.7487, 37.1604, 42.3819, 82.3137, -110.742
6.41581, 58, -18.627, -16.5997, 36.8803, 42.1642, 82.3782, -110.292
6.42369, 59, -18.0525, -16.4449, 36.5932, 41.9339, 82.4443, -109.843
6.43183, 59, -17.4746, -16.2853, 36.2993, 41.6909, 82.5139, -109.393
6.44279, 60, -16.5912, -16.0375, 35.8462, 41.3021, 82.6224, -108.718
6.44935, 60, -16.2916, -15.9522, 35.6925, 41.166, 82.6597, -108.493
6.45856, 61, -15.3845, -15.6887, 35.2235, 40.7381, 82.7732, -107.82
6.46375, 61, -15.0807, -15.5987, 35.0646, 40.5893, 82.812, -107.595
6.47251, 62, -14.4705, -15.4159, 34.7434, 40.2822, 82.8908, -107.147
6.47973, 62, -13.8534, -15.2284, 34.4172, 39.9619, 82.9717, -106.698
6.49042, 63, -13.2259, -15.0346, 34.0872, 39.6285, 83.0548, -106.024
6.49869, 64, -12.2699, -14.7319, 33.5823, 39.1015, 83.1852, -105.574
6.50374, 64, -11.9489, -14.6285, 33.4111, 38.9186, 83.2305, -105.349
6.51196, 64, -11.3032, -14.4172, 33.0634, 38.5416, 83.3245, -104.897
6.52715, 65, -9.98321, -13.9728, 32.3482, 37.7398, 83.5283, -103.988
6.53091, 66, -9.64685, -13.8575, 32.1659, 37.5284, 83.5826, -103.759
6.53574, 66, -9.30834, -13.7406, 31.9823, 37.3128, 83.6386, -103.53
6.54649, 66, -8.28501, -13.3787, 31.4233, 36.6412, 83.8154, -102.841
6.55501, 67, -7.94141, -13.2544, 31.2335, 36.4087, 83.8772, -102.378
6.55966, 67, -7.24775, -13.0003, 30.8497, 35.932, 84.0064, -102.147
6.56918, 68, -6.54538, -12.7386, 30.461, 35.4398, 84.1423, -101.682
6.57957, 68, -5.47994, -12.3357, 29.8714, 34.6767, 84.3588, -100.982
6.58367, 69, -5.12271, -12.1983, 29.6732, 34.4161, 84.4339, -100.749
6.5927, 69, -4.40368, -11.9182, 29.2748, 33.8865, 84.5881, -100.28
6.60163, 70, -3.67643, -11.6314, 28.8762, 33.3466, 84.7471, -99.8094
6.60866, 70, -2.94066, -11.3363, 28.4779, 32.7936, 84.9114, -99.337
6.61669, 71, -2.19755, -11.0333, 28.0789, 32.2275, 85.081, -98.863
6.62405, 71, -1.44673, -10.7235, 27.6773, 31.6465, 85.2587, -98.386
6.63185, 72, -0.688317, -10.4071, 27.2728, 31.0492, 85.4451, -97.9051
6.6414, 72, 0.0766405, -10.0851, 26.8659, 30.4342, 85.6407, -97.4213
6.64971, 73, 0.847019, -9.7558, 26.4566, 29.8065, 85.8452, -96.9346
6.65913, 73, 1.62265, -9.41933, 26.0463, 28.8432, 86.1673, -96.2015
6.66398, 74, 2.40258, -9.0762, 25.6365, 28.5175, 86.2787, -95.9561
6.67362, 74, 3.18529, -8.728, 25.23, 27.8606, 86.507, -95.4645
6.68173, 75, 3.96992, -8.37349, 24.8286, 27.1969, 86.7421, -94.9716
6.69055, 75, 4.75693, -8.01277, 24.4316, 26.53, 86.983, -94.4783
6.69583, 76, 5.54479, -7.64626, 24.0398, 25.8628, 87.2299, -93.9841
6.71311, 77, 7.11981, -6.89546, 23.2734, 24.5274, 87.7417, -92.9915
6.71566, 77, 7.11981, -6.89546, 23.2734, 24.5274, 87.8744, -92.7426
6.72641, 78, 8.30401, -6.31105, 22.7096, 23.5258, 88.1469, -92.2443
6.72861, 78, 8.69934, -6.11132, 22.5236, 23.1902, 88.2873, -91.9944
6.73588, 78, 9.49035, -5.70598, 22.1548, 22.514, 88.5777, -91.4918
6.74407, 79, 10.2818, -5.29359, 21.7888, 21.8311, 88.8821, -90.9848
6.75196, 79, 11.0733, -4.87473, 21.4258, 21.1429, 89.2, -90.4727
6.76061, 80, 11.8622, -4.44669, 21.0663, 20.4522, 89.5296, -89.9557
6.7681, 80, 12.6458, -4.00806, 20.7124, 19.764, 89.8685, -89.4322
6.77622, 81, 13.422, -3.5613, 20.3645, 19.0855, 90.2148, -88.9032
6.78422, 81, 14.1922, -3.10804, 20.0241, 18.4204, 90.5672, -88.3694
6.79302, 82, 14.5747, -2.87911, 19.8572, 18.0942, 90.7449, -88.1013
6.79951, 82, 15.3336, -2.41484, 19.532, 17.4544, 91.1031, -87.5637
6.80914, 83, 16.4539, -1.70407, 19.0624, 16.5274, 91.648, -86.7527
6.81556, 83, 16.8214, -1.46416, 18.9105, 16.228, 91.832, -86.4817
6.82357, 83, 17.5465, -0.980169, 18.6129, 15.6417, 92.2046, -85.9395
6.83156, 84, 18.2565, -0.492284, 18.3236, 15.0724, 92.5837, -85.3988
6.83951, 84, 18.9499, -0.000577988, 18.0415, 14.5219, 92.9708, -84.8587
6.84751, 85, 19.6257, 0.496825, 17.765, 13.9902, 93.366, -84.3204
6.85556, 85, 20.2832, 0.999731, 17.495, 13.4779, 93.7694, -83.7839
6.865, 86, 21.2379, 1.7623, 17.1013, 12.7471, 94.3855, -82.9828
6.87151, 86, 21.549, 2.01926, 16.9735, 12.5134, 94.5937, -82.7155
6.8797, 87, 22.1619, 2.53945, 16.7227, 12.0614, 95.0145, -82.1795
6.88751, 87, 22.7634, 3.07017, 16.4764, 11.6282, 95.4419, -81.6397
6.89559, 87, 23.355, 3.61059, 16.2341, 11.213, 95.8766, -81.0955
6.90357, 88, 23.9367, 4.1576, 15.9946, 10.8133, 96.3186, -80.5439
6.91151, 88, 24.5077, 4.71234, 15.7582, 10.4292, 96.7673, -79.9831
6.91968, 89, 25.0679, 5.27828, 15.5273, 10.06, 97.2229, -79.4119
6.92754, 89, 25.6202, 5.85574, 15.3007, 9.70688, 97.6838, -78.8296
6.9365, 90, 26.1688, 6.44328, 15.0779, 9.36954, 98.1495, -78.2344
6.94365, 90, 26.7112, 7.03967, 14.8605, 9.04852, 98.6196, -77.6251
6.95256, 91, 27.2414, 7.64492, 14.6491, 8.74536, 99.0946, -77.0025
6.9595, 91, 27.7584, 8.26091, 14.4426, 8.46058, 99.5749, -76.368
6.96758, 92, 28.2656, 8.8877, 14.2404, 8.19648, 100.06, -75.7213
6.97551, 92, 28.7658, 9.52422, 14.0426, 7.95335, 100.55, -75.0649
6.98371, 93, 29.2581, 10.169, 13.8495, 7.73184, 101.044, -74.4009
6.99151, 93, 29.7386, 10.8207, 13.6625, 7.53279, 101.54, -73.7291
6.99957, 94, 30.2052, 11.4773, 13.4826, 7.35647, 102.036, -73.0498
7.0075, 94, 30.6572, 12.1374, 13.3091, 7.20343, 102.531, -72.3653
7.01557, 95, 31.0954, 12.8003, 13.1422, 7.07377, 103.023, -71.6755
7.02357, 95, 31.5201, 13.4656, 12.9831, 6.96785, 103.512, -70.9794
7.03154, 96, 31.9305, 14.1327, 12.8313, 6.88489, 103.997, -70.2783
7.03955, 96, 32.3247, 14.8004, 12.6855, 6.82656, 104.48, -69.5721
7.04754, 97, 32.7022, 15.4675, 12.5463, 6.79028, 104.957, -68.8598
7.05556, 97, 33.0634, 16.1322, 12.4142, 6.7749, 105.428, -68.1438
7.06361, 98, 33.4088, 16.7929, 12.2905, 6.78122, 105.892, -67.4274
7.0715, 98, 33.7393, 17.4471, 12.1759, 6.80843, 106.345, -66.7095
7.07954, 99, 34.0548, 18.0934, 12.071, 6.85439, 106.788, -65.9938
7.08753, 99, 34.3573, 18.7308, 11.9762, 6.92, 107.216, -65.2841
7.09555, 100, 34.6484, 19.3581, 11.8911, 7.00213, 107.629, -64.5797
7.10363, 100, 34.928, 19.9749, 11.8156, 7.10116, 108.027, -63.8824
7.11152, 101, 35.1949, 20.5794, 11.7487, 7.2153, 108.407, -63.1959
7.11955, 101, 35.4487, 21.1708, 11.6898, 7.34327, 108.771, -62.5184
7.12763, 101, 35.6891, 21.7477, 11.639, 7.48272, 109.117, -61.8517
7.13563, 102, 35.9151, 22.3094, 11.5958, 7.63166, 109.447, -61.198
7.14365, 102, 36.1283, 22.8566, 11.56, 7.78791, 109.762, -60.5574
7.15169, 103, 36.3325, 23.3885, 11.5314, 7.94967, 110.061, -59.9303
7.15965, 103, 36.5308, 23.9056, 11.5109, 8.11729, 110.345, -59.3168
7.16754, 104, 36.7244, 24.4096, 11.4987, 8.29123, 110.614, -58.7175
7.17629, 104, 36.9135, 24.9006, 11.4935, 8.47281, 110.866, -58.1286
7.18366, 104, 37.0983, 25.3786, 11.4945, 8.66349, 111.099, -57.5485
7.19153, 104, 37.2772, 25.8441, 11.5012, 8.86298, 111.315, -56.9763
7.19964, 104, 37.4461, 26.2959, 11.5126, 9.07097, 111.514, -56.4115
7.20765, 104, 37.6048, 26.7343, 11.5269, 9.28613, 111.699, -55.854
7.21567, 104, 37.7568, 27.1602, 11.544, 9.50523, 111.87, -55.3071
7.22388, 104, 37.9063, 27.5731, 11.5633, 9.7262, 112.032, -54.7737
7.23187, 104, 38.0545, 27.9725, 11.5834, 9.94567, 112.185, -54.2585
7.23994, 104, 38.1995, 28.3576, 11.6034, 10.1619, 112.33, -53.7624
7.24793, 104, 38.3399, 28.7289, 11.623, 10.3731, 112.468, -53.2882
7.25666, 104, 38.474, 29.0847, 11.6415, 10.5777, 112.598, -52.8372
7.26422, 104, 38.6007, 29.4239, 11.6592, 10.775, 112.721, -52.4103
7.27308, 104, 38.7195, 29.7448, 11.6759, 10.9638, 112.836, -52.0088
7.28008, 104, 38.8303, 30.0469, 11.6913, 11.1436, 112.944, -51.6314
7.28811, 104, 38.9335, 30.3308, 11.7058, 11.3136, 113.044, -51.2793
7.29613, 104, 38.9823, 30.4655, 11.719, 11.4736, 113.136, -50.9529
7.30427, 104, 39.0738, 30.7198, 11.7252, 11.6229, 113.221, -50.6515
7.31156, 104, 39.1573, 30.9546, 11.7366, 11.6934, 113.261, -50.5103
7.31961, 104, 39.2323, 31.1699, 11.747, 11.8258, 113.335, -50.2468
7.3275, 104, 39.299, 31.3649, 11.7568, 11.9467, 113.401, -50.0086
7.33554, 104, 39.358, 31.5406, 11.7655, 12.0556, 113.461, -49.7957
7.34356, 104, 39.4099, 31.6969, 11.773, 12.1523, 113.514, -49.6077
7.35149, 104, 39.4554, 31.834, 11.7798, 12.2372, 113.558, -49.4446
7.35954, 104, 39.4949, 31.9532, 11.7861, 12.3094, 113.597, -49.306
7.36751, 104, 39.5281, 32.0553, 11.7917, 12.3703, 113.629, -49.1906
7.37549, 104, 39.5553, 32.1411, 11.7966, 12.4191, 113.654, -49.0975
7.38358, 104, 39.5776, 32.212, 11.801, 12.457, 113.674, -49.0242
7.39151, 104, 39.5956, 32.2698, 11.805, 12.4861, 113.688, -48.9699
7.39951, 104, 39.6097, 32.3162, 11.8086, 12.5073, 113.699, -48.9309
7.40753, 104, 39.6207, 32.3522, 11.8119, 12.5224, 113.705, -48.9042
7.41551, 104, 39.629, 32.379, 11.8149, 12.5324, 113.71, -48.887
7.42355, 104, 39.6346, 32.399, 11.8175, 12.5384, 113.712, -48.8771
7.43157, 104, 39.6381, 32.4134, 11.8195, 12.5417, 113.713, -48.8719
7.44156, 105, 39.6408, 32.4262, 11.8217, 12.5438, 113.714, -48.8689
7.44749, 105, 39.6412, 32.4288, 11.8223, 12.5442, 113.714, -48.8685
7.45553, 105, 39.6413, 32.4326, 11.8232, 12.5447, 113.714, -48.8681
7.46358, 105, 39.6406, 32.4353, 11.8241, 12.5449, 113.714, -48.8681
7.47149, 105, 39.6397, 32.4371, 11.8249, 12.5451, 113.714, -48.8682
7.47954, 105, 39.6384, 32.4385, 11.8255, 12.5452, 113.714, -48.8684
7.48757, 105, 39.637, 32.4398, 11.826, 12.5452, 113.714, -48.8686
7.4955, 105, 39.636, 32.441, 11.8265, 12.5453, 113.714, -48.869
7.50358, 105, 39.6354, 32.4422, 11.827, 12.5452, 113.714, -48.8692
7.51152, 105, 39.635, 32.4433, 11.8277, 12.5452, 113.714, -48.8695
7.5195, 105, 39.6348, 32.4443, 11.8282, 12.5452, 113.714, -48.8698
7.52759, 105, 39.6345, 32.4452, 11.8288, 12.5452, 113.714, -48.87
7.53552, 105, 39.6342, 32.4459, 11.8291, 12.5452, 113.714, -48.8703
7.54352, 105, 39.6339, 32.4465, 11.8294, 12.5452, 113.714, -48.8705
7.55154, 105, 39.6336, 32.4469, 11.8297, 12.5452, 113.714, -48.8707
7.55953, 105, 39.6333, 32.4471, 11.8299, 12.5452, 113.714, -48.8709
