hehonglu123/Motion-Primitive-Planning/ILC/recorded_data/realrobot/from_NX/iteration_27/run_2.csv
timestamp, cmd_num, J1, J2, J3, J4, J5, J6
0.000362, -1, 39.6291, 32.447, 11.8316, 12.5436, 113.713, -48.8736
0.003827, -1, 39.6291, 32.447, 11.8316, 12.5436, 113.713, -48.8736
0.007899, -1, 39.6291, 32.447, 11.8316, 12.5436, 113.713, -48.8736
0.028567, -1, 39.629, 32.447, 11.8316, 12.5436, 113.713, -48.8736
0.029955, -1, 39.629, 32.447, 11.8316, 12.5436, 113.713, -48.8736
0.03294, -1, 39.629, 32.447, 11.8316, 12.5436, 113.713, -48.8736
0.040437, -1, 39.6291, 32.447, 11.8316, 12.5436, 113.713, -48.8736
0.04693, -1, 39.629, 32.447, 11.8316, 12.5436, 113.713, -48.8736
0.056024, -1, 39.6276, 32.4468, 11.8316, 12.5436, 113.713, -48.8736
0.06295, -1, 39.6261, 32.4465, 11.8315, 12.5436, 113.713, -48.8736
0.198941, -1, 38.2513, 31.7439, 12.1043, 12.5558, 112.991, -50.7164
0.200776, -1, 38.2513, 31.7439, 12.1043, 12.5558, 112.991, -50.7164
0.202177, -1, 38.1628, 31.6976, 12.1238, 12.557, 112.941, -50.8426
0.203428, -1, 38.1628, 31.6976, 12.1238, 12.557, 112.941, -50.8426
0.205261, -1, 38.0728, 31.6506, 12.1433, 12.5582, 112.891, -50.9697
0.206775, -1, 38.0728, 31.6506, 12.1433, 12.5582, 112.891, -50.9697
0.207965, -1, 38.0728, 31.6506, 12.1433, 12.5582, 112.891, -50.9697
0.212048, -1, 37.9816, 31.6032, 12.1628, 12.5595, 112.84, -51.0977
0.214132, -1, 37.8892, 31.5552, 12.1822, 12.5607, 112.789, -51.2264
0.215341, -1, 37.8892, 31.5552, 12.1822, 12.5607, 112.789, -51.2264
0.217323, -1, 37.7959, 31.5069, 12.2016, 12.5619, 112.738, -51.3555
0.218819, -1, 37.7959, 31.5069, 12.2016, 12.5619, 112.738, -51.3555
0.22002, -1, 37.7959, 31.5069, 12.2016, 12.5619, 112.738, -51.3555
0.223253, -1, 37.7017, 31.4584, 12.221, 12.5632, 112.687, -51.4849
0.22526, -1, 37.7017, 31.4584, 12.221, 12.5644, 112.636, -51.6145
0.229342, -1, 37.5114, 31.3607, 12.2598, 12.5656, 112.585, -51.7443
0.230793, -1, 37.5114, 31.3607, 12.2598, 12.5656, 112.585, -51.7443
0.231994, -1, 37.5114, 31.3607, 12.2598, 12.5656, 112.585, -51.7443
0.234761, -1, 37.4157, 31.3117, 12.2792, 12.5669, 112.534, -51.8741
0.236065, -1, 37.4157, 31.3117, 12.2792, 12.5669, 112.534, -51.8741
0.238145, -1, 37.3198, 31.2627, 12.2986, 12.5681, 112.482, -52.0039
0.239424, -1, 37.3198, 31.2627, 12.2986, 12.5681, 112.482, -52.0039
0.249747, -1, 37.0315, 31.1159, 12.3568, 12.5718, 112.328, -52.3936
0.255987, -1, 36.9354, 31.067, 12.3761, 12.5732, 112.277, -52.5237
0.262909, -1, 36.7432, 30.9693, 12.4149, 12.5757, 112.174, -52.7841
0.271921, -1, 36.5515, 30.8715, 12.4538, 12.5783, 112.071, -53.0444
0.27992, -1, 36.3598, 30.7738, 12.4927, 12.5809, 111.968, -53.3047
0.286932, -1, 36.1683, 30.676, 12.5315, 12.5835, 111.865, -53.5652
0.296042, -1, 35.9767, 30.5781, 12.5704, 12.586, 111.762, -53.8257
0.303915, -1, 35.7851, 30.4801, 12.6094, 12.5887, 111.659, -54.0863
0.311989, -1, 35.5933, 30.3821, 12.6483, 12.5912, 111.556, -54.3465
0.320977, -1, 35.4013, 30.2839, 12.6871, 12.5938, 111.453, -54.6068
0.327918, -1, 35.209, 30.1855, 12.7259, 12.5964, 111.35, -54.8674
0.336046, -1, 35.0165, 30.0872, 12.7648, 12.5989, 111.247, -55.1283
0.343921, -1, 34.8243, 29.9888, 12.8037, 12.6016, 111.144, -55.3888
0.351927, -1, 34.632, 29.8902, 12.8425, 12.6041, 111.041, -55.6495
0.359919, -1, 34.4397, 29.7917, 12.8815, 12.6066, 110.938, -55.9104
0.36799, -1, 34.2477, 29.6934, 12.9204, 12.6093, 110.835, -56.1714
0.376018, -1, 34.0557, 29.5951, 12.9593, 12.6118, 110.732, -56.4322
0.383069, -1, 33.8639, 29.4968, 12.9983, 12.6145, 110.629, -56.6929
0.39201, -1, 33.6722, 29.3984, 13.0371, 12.6171, 110.525, -56.9539
0.399918, -1, 33.4802, 29.3001, 13.076, 12.6197, 110.422, -57.2149
0.407951, -1, 33.2878, 29.2016, 13.115, 12.6223, 110.319, -57.4759
0.416069, -1, 33.0951, 29.103, 13.1539, 12.6249, 110.216, -57.7369
0.423915, -1, 32.9023, 29.0044, 13.1927, 12.6276, 110.113, -57.998
0.431927, -1, 32.7091, 28.9059, 13.2317, 12.6302, 110.01, -58.2592
0.440029, -1, 32.5157, 28.8072, 13.2706, 12.6329, 109.907, -58.5205
0.448012, -1, 32.322, 28.7085, 13.3095, 12.6356, 109.804, -58.7814
0.455972, -1, 32.1279, 28.6098, 13.3484, 12.6383, 109.701, -59.0424
0.464091, -1, 31.9339, 28.511, 13.3872, 12.641, 109.598, -59.3035
0.471902, -1, 31.7402, 28.4122, 13.4262, 12.6436, 109.495, -59.565
0.479983, -1, 31.5466, 28.3135, 13.4653, 12.6465, 109.392, -59.8261
0.488777, -1, 31.3533, 28.2149, 13.5042, 12.6492, 109.289, -60.0874
0.496054, -1, 31.1605, 28.1164, 13.5432, 12.652, 109.186, -60.3487
0.504071, -1, 30.9681, 28.0179, 13.5823, 12.6549, 109.082, -60.6103
0.512902, -1, 30.776, 27.9193, 13.6212, 12.6577, 108.979, -60.8717
0.520053, -1, 30.5841, 27.8207, 13.6602, 12.6605, 108.876, -61.1329
0.656681, -1, 27.3, 26.1409, 14.3229, 12.7043, 107.12, -65.5814
0.658856, -1, 27.3, 26.1409, 14.3229, 12.7043, 107.12, -65.5814
0.661089, -1, 27.2039, 26.0914, 14.3424, 12.7055, 107.068, -65.7122
0.662322, -1, 27.2039, 26.0914, 14.3424, 12.7055, 107.068, -65.7122
0.663506, -1, 27.2039, 26.0914, 14.3424, 12.7055, 107.068, -65.7122
0.665548, -1, 27.1078, 26.0419, 14.3618, 12.7066, 107.016, -65.8431
0.66684, -1, 27.1078, 26.0419, 14.3618, 12.7066, 107.016, -65.8431
0.670076, -1, 27.0115, 25.9925, 14.3812, 12.7078, 106.965, -65.9739
0.671309, -1, 27.0115, 25.9925, 14.3812, 12.7078, 106.965, -65.9739
0.6741, -1, 26.9152, 25.9431, 14.4007, 12.7089, 106.913, -66.1049
0.675316, -1, 26.9152, 25.9431, 14.4007, 12.7089, 106.913, -66.1049
0.67746, -1, 26.8189, 25.8937, 14.4202, 12.7101, 106.862, -66.2359
0.67877, -1, 26.8189, 25.8937, 14.4202, 12.7101, 106.862, -66.2359
0.679988, -1, 26.8189, 25.8937, 14.4202, 12.7101, 106.862, -66.2359
0.682854, -1, 26.7224, 25.8442, 14.4398, 12.7113, 106.81, -66.3667
0.685906, -1, 26.6259, 25.7948, 14.4592, 12.7124, 106.758, -66.4975
0.687094, -1, 26.6259, 25.7948, 14.4592, 12.7124, 106.758, -66.4975
0.689011, -1, 26.5292, 25.7454, 14.4787, 12.7135, 106.706, -66.6283
0.690377, -1, 26.5292, 25.7454, 14.4787, 12.7135, 106.706, -66.6283
0.691663, -1, 26.5292, 25.7454, 14.4787, 12.7135, 106.706, -66.6283
0.693748, -1, 26.4324, 25.696, 14.4981, 12.7146, 106.655, -66.7592
0.695915, -1, 26.4324, 25.696, 14.4981, 12.7146, 106.655, -66.7592
0.703949, -1, 26.2385, 25.5971, 14.537, 12.7169, 106.552, -67.0209
0.711915, -1, 26.0445, 25.4983, 14.576, 12.7192, 106.449, -67.2829
0.719921, -1, 25.8502, 25.3994, 14.6149, 12.7215, 106.345, -67.5447
0.726893, -1, 25.656, 25.3006, 14.654, 12.7238, 106.243, -67.8061
0.735959, -1, 25.4621, 25.2018, 14.693, 12.726, 106.139, -68.0677
0.743932, -1, 25.2683, 25.1032, 14.7319, 12.7284, 106.036, -68.3296
0.750906, -1, 25.0748, 25.0044, 14.771, 12.7307, 105.933, -68.5914
0.759907, -1, 24.8816, 24.9055, 14.81, 12.7331, 105.829, -68.8528
0.767905, -1, 24.6886, 24.8067, 14.8489, 12.7355, 105.726, -69.1146
0.774896, -1, 24.4961, 24.7079, 14.8879, 12.7378, 105.623, -69.3765
0.783907, -1, 24.3038, 24.6089, 14.9269, 12.7402, 105.519, -69.6382
0.791899, -1, 24.1113, 24.5101, 14.9659, 12.7426, 105.416, -69.8996
0.800902, -1, 23.9185, 24.4113, 15.0049, 12.7449, 105.313, -70.1612
0.806928, -1, 23.7256, 24.3124, 15.0438, 12.7473, 105.209, -70.4228
0.815959, -1, 23.5326, 24.2136, 15.0827, 12.7497, 105.106, -70.6847
0.823966, -1, 23.3391, 24.1147, 15.1217, 12.7521, 105.003, -70.9463
0.831959, -1, 23.1453, 24.0158, 15.1606, 12.7545, 104.899, -71.208
0.839906, -1, 22.9514, 23.9169, 15.1994, 12.757, 104.796, -71.4698
0.847901, -1, 22.7574, 23.8181, 15.2384, 12.7594, 104.692, -71.7318
0.855964, -1, 22.5636, 23.7194, 15.2774, 12.7619, 104.589, -71.9934
0.864012, -1, 22.3699, 23.6208, 15.3164, 12.7643, 104.486, -72.2548
0.871905, -1, 22.1767, 23.5221, 15.3553, 12.7669, 104.382, -72.5163
0.8799, -1, 21.9835, 23.4233, 15.3942, 12.7694, 104.279, -72.7779
0.887965, -1, 21.7907, 23.3246, 15.4332, 12.7721, 104.176, -73.0394
0.895962, -1, 21.5984, 23.2259, 15.4722, 12.7748, 104.073, -73.3006
0.9039, -1, 21.4062, 23.1271, 15.511, 12.7774, 103.97, -73.5621
0.912004, -1, 21.2139, 23.0284, 15.5501, 12.78, 103.867, -73.8237
0.919992, -1, 21.0215, 22.9298, 15.5889, 12.7827, 103.763, -74.0853
0.927902, -1, 20.829, 22.8311, 15.6279, 12.7854, 103.66, -74.3464
0.936018, -1, 20.6365, 22.7325, 15.6668, 12.7881, 103.557, -74.6074
0.943895, -1, 20.4436, 22.6339, 15.7056, 12.7908, 103.454, -74.8687
0.951986, -1, 20.2503, 22.5352, 15.7446, 12.7936, 103.351, -75.1302
0.959939, -1, 20.0565, 22.4364, 15.7836, 12.7962, 103.248, -75.3912
0.967897, -1, 19.863, 22.3377, 15.8223, 12.799, 103.145, -75.6524
0.976141, -1, 19.6694, 22.2391, 15.8611, 12.8017, 103.042, -75.9136
0.983246, -1, 19.4759, 22.1405, 15.9, 12.8045, 102.939, -76.1749
0.991365, -1, 19.2827, 22.0419, 15.9389, 12.8072, 102.836, -76.4359
1.00032, -1, 19.0897, 21.9432, 15.9778, 12.81, 102.733, -76.6967
1.0074, -1, 18.897, 21.8446, 16.0167, 12.8127, 102.63, -76.9576
1.01604, -1, 18.7047, 21.7458, 16.0554, 12.8154, 102.527, -77.2186
1.02444, -1, 18.5128, 21.6472, 16.0943, 12.8181, 102.424, -77.4795
1.03147, -1, 18.4169, 21.5486, 16.1332, 12.8208, 102.321, -77.7402
1.03996, -1, 18.129, 21.4501, 16.172, 12.8234, 102.218, -78.001
1.04874, -1, 17.9371, 21.3517, 16.2109, 12.826, 102.115, -78.2618
1.05598, -1, 17.7452, 21.2533, 16.2498, 12.8285, 102.012, -78.5226
1.06293, -1, 17.6492, 21.2041, 16.2692, 12.8298, 101.961, -78.6529
1.07278, -1, 17.3604, 21.0567, 16.3274, 12.8336, 101.806, -79.0434
1.08004, -1, 17.1674, 20.9584, 16.3663, 12.836, 101.703, -79.304
1.08693, -1, 17.0709, 20.9092, 16.3856, 12.8372, 101.652, -79.4343
1.09721, -1, 16.7814, 20.7619, 16.4438, 12.8408, 101.498, -79.825
1.10293, -1, 16.6849, 20.7128, 16.4633, 12.8419, 101.446, -79.9553
1.11233, -1, 16.3955, 20.5655, 16.5213, 12.8454, 101.293, -80.3461
1.11889, -1, 16.2991, 20.5163, 16.5406, 12.8466, 101.241, -80.4765
1.12694, -1, 16.1068, 20.4179, 16.5794, 12.8489, 101.138, -80.737
1.13649, -1, 15.819, 20.2702, 16.6375, 12.8524, 100.985, -81.1272
1.1454, -1, 15.6274, 20.1717, 16.6761, 12.8548, 100.882, -81.3872
1.15098, -1, 15.5318, 20.1225, 16.6954, 12.856, 100.831, -81.5174
1.16052, -1, 15.2449, 19.9751, 16.7534, 12.8594, 100.677, -81.9075
1.1693, -1, 15.1493, 19.926, 16.7729, 12.8605, 100.625, -82.1672
1.17494, -1, 14.9581, 19.8278, 16.8115, 12.8628, 100.523, -82.2972
1.18495, -1, 14.6711, 19.6806, 16.8696, 12.8662, 100.369, -82.6872
1.19191, -1, 14.5753, 19.6315, 16.889, 12.8674, 100.318, -82.8173
1.19995, -1, 14.3835, 19.5334, 16.9276, 12.8697, 100.215, -83.0769
1.20792, -1, 14.1913, 19.4353, 16.9664, 12.872, 100.113, -83.3364
1.21591, -1, 13.9989, 19.3374, 17.0051, 12.8743, 100.01, -83.596
1.22394, -1, 13.8066, 19.2395, 17.0436, 12.8766, 99.9074, -83.8557
1.23189, -1, 13.6141, 19.1417, 17.0823, 12.8789, 99.805, -84.1152
1.2399, -1, 13.4218, 19.0438, 17.121, 12.8812, 99.7024, -84.3746
1.24798, -1, 13.2298, 18.9459, 17.1595, 12.8835, 99.6003, -84.6338
1.25591, -1, 13.0382, 18.848, 17.1981, 12.8859, 99.4978, -84.8932
1.26389, -1, 12.8469, 18.75, 17.2368, 12.8882, 99.3952, -85.1525
1.27088, -1, 12.6559, 18.652, 17.2753, 12.8906, 99.2932, -85.4115
1.27998, -1, 12.4653, 18.5542, 17.3139, 12.893, 99.1907, -85.6705
1.28791, -1, 12.275, 18.4565, 17.3524, 12.8954, 99.0884, -85.9293
1.29808, -1, 11.9897, 18.3099, 17.4102, 12.899, 98.9354, -86.3178
1.3029, -1, 11.8945, 18.2611, 17.4295, 12.9002, 98.8844, -86.4471
1.31231, -1, 11.704, 18.1635, 17.4681, 12.9027, 98.7825, -86.7055
1.31988, -1, 11.5132, 18.0658, 17.5066, 12.9051, 98.6807, -86.9641
1.3279, -1, 11.3222, 17.9682, 17.5452, 12.9076, 98.5787, -87.2228
1.33674, -1, 11.1309, 17.8707, 17.5837, 12.91, 98.4768, -87.4813
1.34388, -1, 10.9395, 17.7732, 17.6222, 12.9125, 98.375, -87.7395
1.3519, -1, 10.7478, 17.6758, 17.6607, 12.915, 98.2729, -87.9977
1.36071, -1, 10.5562, 17.5783, 17.6991, 12.9175, 98.171, -88.2561
1.36691, -1, 10.365, 17.4808, 17.7375, 12.9201, 98.0692, -88.5144
1.37589, -1, 10.174, 17.3833, 17.776, 12.9225, 97.9673, -88.7725
1.38469, -1, 9.98334, 17.2856, 17.8143, 12.9252, 97.8655, -89.0306
1.39189, -1, 9.79306, 17.1881, 17.8526, 12.9278, 97.7634, -89.2886
1.39989, -1, 9.60314, 17.0906, 17.891, 12.9305, 97.6615, -89.5468
1.40869, -1, 9.41374, 16.9933, 17.9293, 12.9333, 97.5597, -89.8045
1.41592, -1, 9.22446, 16.8959, 17.9677, 12.9359, 97.4577, -90.0621
1.42391, -1, 9.03507, 16.7987, 18.006, 12.9386, 97.3559, -90.3196
1.4327, -1, 8.84562, 16.7015, 18.0443, 12.9413, 97.2543, -90.5772
1.43988, -1, 8.65606, 16.6043, 18.0827, 12.9438, 97.1525, -90.8347
1.4479, -1, 8.46638, 16.5072, 18.1212, 12.9466, 97.0509, -91.0918
1.45668, -1, 8.2764, 16.4102, 18.1594, 12.9492, 96.9496, -91.349
1.46388, -1, 8.08593, 16.3132, 18.1978, 12.9518, 96.8479, -91.6063
1.47194, -1, 7.89542, 16.2164, 18.2361, 12.9545, 96.7464, -91.8634
1.48069, -1, 7.70489, 16.1194, 18.2743, 12.9571, 96.645, -92.1204
1.48791, -1, 7.51439, 16.0225, 18.3127, 12.9598, 96.5434, -92.3769
1.49613, -1, 7.32416, 15.9256, 18.3509, 12.9624, 96.4421, -92.6337
1.50339, -1, 7.13416, 15.8286, 18.389, 12.9649, 96.3409, -92.8907
1.51143, -1, 6.94448, 15.7316, 18.4273, 12.9675, 96.2395, -93.1471
1.52032, -1, 6.75524, 15.6348, 18.4655, 12.97, 96.1385, -93.4035
1.52748, -1, 6.5666, 15.5379, 18.5035, 12.9726, 96.0377, -93.6599
1.53549, -1, 6.37825, 15.4412, 18.5417, 12.9751, 95.9365, -93.9164
1.54451, -1, 6.19008, 15.3444, 18.5799, 12.9777, 95.8356, -94.1726
1.55279, -1, 6.00191, 15.2477, 18.618, 12.9801, 95.7347, -94.4285
1.55991, -1, 5.81355, 15.1511, 18.6562, 12.9824, 95.6337, -94.6844
1.56872, -1, 5.62513, 15.0544, 18.6943, 12.9847, 95.5329, -94.9403
1.57685, -1, 5.43646, 14.9579, 18.7323, 12.9871, 95.4322, -95.1962
1.58404, -1, 5.24754, 14.8614, 18.7705, 12.9894, 95.3314, -95.4516
1.59087, -1, 5.15293, 14.8132, 18.7896, 12.9905, 95.2811, -95.5793
1.59904, -1, 4.96351, 14.7169, 18.8276, 12.9928, 95.1805, -95.8349
1.6083, -1, 4.67942, 14.5723, 18.8847, 12.9961, 95.0292, -96.2182
1.61486, -1, 4.58468, 14.5241, 18.9037, 12.9972, 94.9788, -96.3457
1.62293, -1, 4.39548, 14.4277, 18.9417, 12.9995, 94.8782, -96.6007
1.63297, -1, 4.11218, 14.2831, 18.9987, 13.0028, 94.7268, -96.9831
1.64137, -1, 3.92377, 14.1867, 19.0366, 13.0051, 94.6261, -97.2382
1.64697, -1, 3.82984, 14.1387, 19.0556, 13.0062, 94.5757, -97.3657
1.6565, -1, 3.54869, 13.9943, 19.1125, 13.0096, 94.4245, -97.7477
1.66452, -1, 3.45515, 13.9463, 19.1504, 13.012, 94.3241, -98.0024
1.67241, -1, 3.26821, 13.8502, 19.1692, 13.0131, 94.2737, -98.1297
1.68046, -1, 3.08118, 13.7542, 19.2071, 13.0153, 94.1729, -98.3846
1.68788, -1, 2.89415, 13.6581, 19.2451, 13.0176, 94.0724, -98.6389
1.69587, -1, 2.70713, 13.5621, 19.283, 13.0198, 93.9717, -98.8929
1.70496, -1, 2.42611, 13.4182, 19.3398, 13.0233, 93.821, -99.2741
1.71187, -1, 2.33238, 13.3702, 19.3586, 13.0244, 93.7709, -99.4012
1.71987, -1, 2.14458, 13.2745, 19.3964, 13.0266, 93.6707, -99.6553
1.72917, -1, 1.86243, 13.1307, 19.4533, 13.03, 93.5205, -100.036
1.73487, -1, 1.76832, 13.0827, 19.4721, 13.0312, 93.4706, -100.163
1.74389, -1, 1.58002, 12.9869, 19.5099, 13.0333, 93.3704, -100.416
1.75333, -1, 1.29802, 12.8431, 19.5666, 13.0368, 93.2205, -100.796
1.75888, -1, 1.20416, 12.7952, 19.5854, 13.0379, 93.1705, -100.923
1.76787, -1, 1.01673, 12.6995, 19.6231, 13.0404, 93.0704, -101.176
1.77594, -1, 0.83008, 12.6039, 19.6609, 13.0427, 92.9704, -101.429
1.78389, -1, 0.643706, 12.5083, 19.6985, 13.0451, 92.8708, -101.682
1.79188, -1, 0.457759, 12.4128, 19.7361, 13.0475, 92.7709, -101.935
1.80086, -1, 0.272062, 12.3175, 19.7738, 13.0499, 92.6712, -102.188
1.80788, -1, 0.0865649, 12.2221, 19.8114, 13.0524, 92.572, -102.44
1.81686, -1, -0.0988028, 12.1268, 19.849, 13.0548, 92.4722, -102.693
1.82397, -1, -0.284394, 12.0316, 19.8867, 13.0573, 92.3725, -102.946
1.83187, -1, -0.470287, 11.9365, 19.9243, 13.0598, 92.2732, -103.198
1.83987, -1, -0.656469, 11.8414, 19.9617, 13.0623, 92.1737, -103.45
1.84787, -1, -0.842892, 11.7464, 19.9993, 13.0647, 92.0743, -103.702
1.85587, -1, -1.02958, 11.6513, 20.0368, 13.0672, 91.9751, -103.954
1.86393, -1, -1.21644, 11.5562, 20.0742, 13.0697, 91.8757, -104.206
1.87191, -1, -1.40342, 11.4612, 20.1118, 13.0722, 91.7764, -104.457
1.87988, -1, -1.59017, 11.366, 20.1492, 13.0748, 91.6773, -104.709
1.88793, -1, -1.77651, 11.2708, 20.1866, 13.0774, 91.578, -104.96
1.89587, -1, -1.96257, 11.1758, 20.2241, 13.08, 91.4789, -105.212
1.90388, -1, -2.14801, 11.081, 20.2615, 13.0827, 91.3797, -105.463
1.91193, -1, -2.33297, 10.986, 20.2988, 13.0853, 91.2805, -105.713
1.91991, -1, -2.51767, 10.8912, 20.3363, 13.088, 91.1814, -105.964
1.92789, -1, -2.70181, 10.7965, 20.3735, 13.0907, 91.0824, -106.215
1.93591, -1, -2.88562, 10.7017, 20.4108, 13.0933, 90.9833, -106.466
1.94393, -1, -3.06961, 10.6069, 20.4483, 13.0959, 90.8843, -106.717
1.9519, -1, -3.25376, 10.5123, 20.4855, 13.0985, 90.7854, -106.967
1.95993, -1, -3.43825, 10.4178, 20.5227, 13.1011, 90.6865, -107.218
1.96787, -1, -3.62298, 10.3234, 20.5601, 13.1037, 90.5877, -107.469
1.97594, -1, -3.80789, 10.229, 20.5973, 13.1061, 90.4889, -107.718
1.98325, -1, -3.99316, 10.1346, 20.6346, 13.1086, 90.3902, -107.968
1.99126, -1, -4.17851, 10.0403, 20.6718, 13.1111, 90.2915, -108.218
2.00009, -1, -4.36415, 9.946, 20.7089, 13.1134, 90.1929, -108.468
2.00741, -1, -4.54959, 9.85161, 20.7462, 13.1158, 90.0943, -108.718
2.01596, -1, -4.73473, 9.75736, 20.7834, 13.1182, 89.9959, -108.967
2.02426, -1, -4.91951, 9.66321, 20.8204, 13.1206, 89.8975, -109.217
2.03141, -1, -5.10368, 9.5692, 20.8575, 13.123, 89.799, -109.466
2.04017, -1, -5.28719, 9.47513, 20.8947, 13.1254, 89.7007, -109.715
2.04825, -1, -5.37886, 9.42814, 20.9132, 13.1277, 89.6022, -109.964
2.05489, -1, -5.56187, 9.33425, 20.9502, 13.1288, 89.553, -110.089
2.06399, -1, -5.83553, 9.19339, 21.0059, 13.1324, 89.4058, -110.462
2.0709, -1, -5.92666, 9.14643, 21.0244, 13.1336, 89.3568, -110.586
2.07885, -1, -6.10904, 9.05257, 21.0613, 13.1357, 89.2586, -110.835
2.08806, -1, -6.38317, 8.91192, 21.1169, 13.139, 89.1117, -111.208
2.09492, -1, -6.47464, 8.86511, 21.1353, 13.1401, 89.0628, -111.332
2.10292, -1, -6.65778, 8.77145, 21.1721, 13.1422, 88.9647, -111.58
2.11235, -1, -6.93327, 8.63102, 21.2275, 13.1455, 88.8179, -111.952
2.12107, -1, -7.11733, 8.53741, 21.2644, 13.1476, 88.7199, -112.2
2.12685, -1, -7.2095, 8.49064, 21.2828, 13.1487, 88.6711, -112.324
2.13641, -1, -7.48558, 8.35021, 21.3382, 13.1518, 88.5245, -112.695
2.14523, -1, -7.6693, 8.25667, 21.3749, 13.1541, 88.4268, -112.943
2.15089, -1, -7.76099, 8.20997, 21.3933, 13.1551, 88.3781, -113.067
2.16076, -1, -8.03548, 8.06994, 21.4486, 13.1586, 88.2321, -113.437
2.16923, -1, -8.12672, 8.02326, 21.4854, 13.1608, 88.1347, -113.684
2.17486, -1, -8.30861, 7.93, 21.5037, 13.1619, 88.086, -113.808
2.18495, -1, -8.5806, 7.7901, 21.559, 13.1652, 87.94, -114.178
2.19186, -1, -8.67104, 7.74353, 21.5774, 13.1664, 87.8913, -114.301
2.19884, -1, -8.85168, 7.65031, 21.6141, 13.1687, 87.7938, -114.547
2.20791, -1, -9.03245, 7.55718, 21.6509, 13.1708, 87.6964, -114.794
2.21589, -1, -9.21349, 7.46417, 21.6876, 13.1731, 87.5993, -115.04
2.22287, -1, -9.39475, 7.37134, 21.7243, 13.1753, 87.5021, -115.287
2.23194, -1, -9.57643, 7.2785, 21.761, 13.1775, 87.4049, -115.533
2.23985, -1, -9.75839, 7.18566, 21.7977, 13.1798, 87.3079, -115.779
2.24692, -1, -9.94076, 7.09291, 21.8342, 13.182, 87.2106, -116.025
2.25589, -1, -10.1232, 7.00016, 21.8708, 13.1842, 87.1134, -116.271
2.26386, -1, -10.3059, 6.90735, 21.9074, 13.1865, 87.0163, -116.517
2.27089, -1, -10.4885, 6.81458, 21.9439, 13.1886, 86.9192, -116.762
2.27986, -1, -10.6707, 6.72188, 21.9806, 13.1909, 86.8221, -117.008
2.28785, -1, -10.8525, 6.62926, 22.017, 13.1932, 86.7253, -117.253
2.2974, -1, -11.0338, 6.53666, 22.0534, 13.1958, 86.6284, -117.621
2.30386, -1, -11.2143, 6.44414, 22.09, 13.1981, 86.5317, -117.743
2.31289, -1, -11.3942, 6.35165, 22.1266, 13.2006, 86.4352, -117.988
2.31888, -1, -11.5738, 6.25917, 22.1629, 13.2029, 86.3384, -118.233
2.32787, -1, -11.7531, 6.16671, 22.1994, 13.2053, 86.2417, -118.478
2.33586, -1, -11.9323, 6.0744, 22.2359, 13.2079, 86.1452, -118.722
2.34392, -1, -12.1116, 5.98214, 22.2723, 13.2104, 86.0486, -118.966
2.35187, -1, -12.291, 5.89007, 22.3088, 13.2128, 85.9521, -119.21
2.35992, -1, -12.471, 5.798, 22.3451, 13.2153, 85.8559, -119.455
2.36786, -1, -12.6512, 5.70596, 22.3813, 13.2177, 85.7595, -119.699
2.37591, -1, -12.8318, 5.61401, 22.4177, 13.2202, 85.6634, -119.943
2.38392, -1, -13.0128, 5.52216, 22.4541, 13.2226, 85.5676, -120.186
2.39186, -1, -13.194, 5.43012, 22.4902, 13.2251, 85.4715, -120.43
2.40104, -1, -13.3753, 5.33814, 22.5265, 13.2275, 85.3755, -120.674
2.40785, -1, -13.5562, 5.24628, 22.5628, 13.23, 85.2799, -120.917
2.41592, -1, -13.7366, 5.15443, 22.5989, 13.2326, 85.1839, -121.16
2.4239, -1, -13.9166, 5.06259, 22.635, 13.2351, 85.0882, -121.403
2.43186, -1, -14.0957, 4.97087, 22.6713, 13.2377, 84.9928, -121.646
2.43992, -1, -14.2741, 4.87919, 22.7073, 13.2403, 84.8969, -121.889
2.44786, -1, -14.4523, 4.78754, 22.7435, 13.2429, 84.8014, -122.131
2.45585, -1, -14.63, 4.69587, 22.7798, 13.2455, 84.706, -122.374
2.46392, -1, -14.8076, 4.60433, 22.8159, 13.2479, 84.6102, -122.616
2.47188, -1, -14.9853, 4.51284, 22.852, 13.2504, 84.5144, -122.859
2.47995, -1, -15.1631, 4.42148, 22.8882, 13.2528, 84.4189, -123.101
2.48792, -1, -15.3413, 4.33022, 22.9243, 13.2553, 84.3232, -123.342
2.49607, -1, -15.52, 4.23892, 22.9603, 13.2576, 84.2274, -123.584
2.50392, -1, -15.6991, 4.14765, 22.9964, 13.2599, 84.1321, -123.826
2.51201, -1, -15.8782, 4.05647, 23.0323, 13.2622, 84.0365, -124.068
2.5202, -1, -16.0576, 3.9652, 23.0682, 13.2645, 83.941, -124.309
2.52743, -1, -16.2373, 3.87392, 23.1043, 13.2667, 83.8458, -124.551
2.53602, -1, -16.417, 3.78272, 23.1402, 13.2688, 83.7502, -124.792
2.54602, -1, -16.5963, 3.69156, 23.176, 13.271, 83.6548, -125.034
2.55204, -1, -16.775, 3.60044, 23.2119, 13.2733, 83.5596, -125.275
2.55986, -1, -16.953, 3.50938, 23.2478, 13.2756, 83.464, -125.516
2.56863, -1, -17.1302, 3.41838, 23.2836, 13.2777, 83.3687, -125.756
2.57595, -1, -17.3068, 3.32745, 23.3195, 13.28, 83.2737, -125.997
2.58395, -1, -17.4833, 3.23657, 23.3552, 13.2821, 83.1785, -126.238
2.59088, -1, -17.5714, 3.19114, 23.3731, 13.2832, 83.1311, -126.358
2.59883, -1, -17.7475, 3.10048, 23.409, 13.2854, 83.0362, -126.598
2.60826, -1, -18.0116, 2.96457, 23.4628, 13.2885, 82.894, -126.958
2.61701, -1, -18.1879, 2.8742, 23.4985, 13.2907, 82.7992, -127.199
2.62431, -1, -18.3646, 2.78376, 23.5343, 13.2928, 82.7046, -127.439
2.63083, -1, -18.4532, 2.73854, 23.5522, 13.2938, 82.6573, -127.558
2.64114, -1, -18.7194, 2.60299, 23.6056, 13.2969, 82.5151, -127.918
2.64684, -1, -18.8083, 2.55782, 23.6235, 13.2979, 82.4679, -128.038
2.65639, -1, -19.0754, 2.42214, 23.6771, 13.3009, 82.3263, -128.397
2.66521, -1, -19.2537, 2.33173, 23.7126, 13.3029, 82.2319, -128.636
2.67083, -1, -19.3428, 2.28654, 23.7304, 13.3039, 82.1848, -128.756
2.67985, -1, -19.5205, 2.19616, 23.7661, 13.3061, 82.0909, -128.995
2.68785, -1, -19.6975, 2.10576, 23.8015, 13.3083, 81.9966, -129.234
2.69483, -1, -19.8741, 2.01545, 23.837, 13.3104, 81.9023, -129.473
2.70384, -1, -20.0498, 1.9252, 23.8726, 13.3126, 81.8085, -129.712
2.71189, -1, -20.225, 1.83495, 23.9081, 13.3148, 81.7143, -129.95
2.71883, -1, -20.3999, 1.74482, 23.9435, 13.317, 81.6203, -130.188
2.72785, -1, -20.5746, 1.65475, 23.9791, 13.3192, 81.5265, -130.427
2.73586, -1, -20.749, 1.56481, 24.0146, 13.3214, 81.4325, -130.665
2.74284, -1, -20.9236, 1.47493, 24.05, 13.3236, 81.3387, -130.903
2.7519, -1, -21.0985, 1.38521, 24.0855, 13.3258, 81.2451, -131.141
2.75987, -1, -21.2739, 1.29546, 24.121, 13.3279, 81.1512, -131.379
2.76786, -1, -21.4496, 1.20575, 24.1563, 13.3301, 81.0574, -131.617
2.77584, -1, -21.6257, 1.11614, 24.1917, 13.3323, 80.9636, -131.854
2.7839, -1, -21.8018, 1.0265, 24.2272, 13.3344, 80.8697, -132.091
2.79184, -1, -21.9782, 0.93686, 24.2625, 13.3366, 80.7759, -132.329
2.79991, -1, -22.1548, 0.847287, 24.2979, 13.3387, 80.6824, -132.566
2.80947, -1, -22.3313, 0.757734, 24.3333, 13.3409, 80.5886, -132.803
2.81585, -1, -22.5074, 0.668245, 24.3685, 13.3432, 80.4951, -133.04
2.82483, -1, -22.683, 0.578742, 24.4037, 13.3456, 80.4014, -133.277
2.83186, -1, -22.858, 0.489307, 24.439, 13.3479, 80.3078, -133.514
2.83984, -1, -23.032, 0.399872, 24.4742, 13.3504, 80.2143, -133.751
2.84792, -1, -23.2057, 0.310512, 24.5093, 13.3528, 80.1207, -133.987
2.85584, -1, -23.379, 0.221202, 24.5445, 13.3552, 80.0274, -134.224
2.8639, -1, -23.552, 0.131996, 24.5797, 13.3576, 79.9339, -134.46
2.87184, -1, -23.7253, 0.0428472, 24.6149, 13.36, 79.8406, -134.696
2.87989, -1, -23.8986, -0.0461708, 24.6501, 13.3624, 79.7477, -134.932
2.88791, -1, -24.0721, -0.135096, 24.6852, 13.3648, 79.6544, -135.169
2.89583, -1, -24.246, -0.224102, 24.7203, 13.3674, 79.5613, -135.404
2.90386, -1, -24.4201, -0.313028, 24.7554, 13.3698, 79.4685, -135.64
2.91191, -1, -24.5945, -0.40185, 24.7906, 13.3722, 79.3752, -135.875
2.91983, -1, -24.7693, -0.490745, 24.8256, 13.3746, 79.2822, -136.111
2.92788, -1, -24.9443, -0.579648, 24.8606, 13.377, 79.1893, -136.346
2.9359, -1, -25.1194, -0.668478, 24.8958, 13.3794, 79.0962, -136.582
2.94385, -1, -25.2941, -0.757264, 24.9307, 13.3817, 79.0032, -136.817
2.95185, -1, -25.4684, -0.846058, 24.9657, 13.3842, 78.9108, -137.052
2.9599, -1, -25.6424, -0.934852, 25.0007, 13.3867, 78.818, -137.287
2.96783, -1, -25.8156, -1.02355, 25.0355, 13.3892, 78.7253, -137.521
2.97587, -1, -25.9883, -1.11228, 25.0705, 13.3915, 78.633, -137.756
2.9839, -1, -26.1605, -1.20097, 25.1055, 13.3941, 78.5404, -137.99
2.99184, -1, -26.3324, -1.28952, 25.1403, 13.3964, 78.4478, -138.225
3.00007, -1, -26.5042, -1.37802, 25.1752, 13.3987, 78.3553, -138.46
3.00791, -1, -26.6761, -1.46635, 25.2102, 13.401, 78.2629, -138.694
3.01593, -1, -26.8482, -1.55463, 25.245, 13.4033, 78.1704, -138.928
3.02425, -1, -27.0206, -1.6428, 25.2798, 13.4055, 78.078, -139.162
3.03157, -1, -27.1931, -1.731, 25.3147, 13.4077, 77.986, -139.396
3.03995, -1, -27.3658, -1.8192, 25.3495, 13.4099, 77.8938, -139.63
3.04847, -1, -27.5389, -1.90725, 25.3842, 13.4121, 77.8018, -139.863
3.05584, -1, -27.7121, -1.99544, 25.4191, 13.4141, 77.71, -140.096
3.06386, -1, -27.8853, -2.08358, 25.4539, 13.4163, 77.6178, -140.33
3.07268, -1, -28.0587, -2.17158, 25.4886, 13.4183, 77.5257, -140.563
3.08004, -1, -28.2319, -2.25964, 25.5233, 13.4203, 77.4339, -140.797
3.08687, -1, -28.3184, -2.30371, 25.5408, 13.4213, 77.3878, -140.913
3.09686, -1, -28.5775, -2.43577, 25.5928, 13.4245, 77.2495, -141.262
3.10413, -1, -28.7496, -2.52375, 25.6274, 13.4267, 77.1577, -141.495
3.11089, -1, -28.8353, -2.56778, 25.6448, 13.4277, 77.1116, -141.612
3.12104, -1, -29.0917, -2.6997, 25.6967, 13.4311, 76.9736, -141.961
3.12684, -1, -29.177, -2.74365, 25.714, 13.4321, 76.9277, -142.077
3.13634, -1, -29.4329, -2.87529, 25.766, 13.4352, 76.79, -142.425
3.14513, -1, -29.6037, -2.96296, 25.8006, 13.4373, 76.6982, -142.658
3.15086, -1, -29.6892, -3.00674, 25.8178, 13.4382, 76.6523, -142.774
3.16039, -1, -29.9456, -3.138, 25.8697, 13.4414, 76.5146, -143.123
3.16841, -1, -30.0311, -3.2255, 25.9043, 13.4435, 76.4228, -143.355
3.17669, -1, -30.2021, -3.26926, 25.9388, 13.4455, 76.3311, -143.587
3.18384, -1, -30.3732, -3.35667, 25.9561, 13.4465, 76.2855, -143.703
3.19186, -1, -30.5447, -3.4441, 25.9907, 13.4486, 76.1938, -143.934
3.19984, -1, -30.7166, -3.53165, 26.0251, 13.4506, 76.1024, -144.166
3.20787, -1, -30.8884, -3.61901, 26.0595, 13.4526, 76.0112, -144.397
3.2159, -1, -31.0602, -3.70642, 26.0941, 13.4546, 75.9198, -144.629
3.22384, -1, -31.2318, -3.79379, 26.1286, 13.4567, 75.8284, -144.86
3.23188, -1, -31.4032, -3.88112, 26.1629, 13.4588, 75.7371, -145.092
3.23984, -1, -31.5741, -3.96841, 26.1974, 13.461, 75.6458, -145.323
3.24784, -1, -31.7445, -4.05566, 26.2318, 13.4632, 75.5545, -145.553
3.25588, -1, -31.9146, -4.14294, 26.2661, 13.4653, 75.4633, -145.784
3.26386, -1, -32.0842, -4.2301, 26.3006, 13.4676, 75.3724, -146.015
3.27184, -1, -32.2536, -4.31721, 26.335, 13.4698, 75.2812, -146.246
3.27989, -1, -32.4231, -4.40427, 26.3692, 13.4719, 75.1901, -146.477
3.28782, -1, -32.5927, -4.49122, 26.4035, 13.474, 75.0996, -146.707
3.29583, -1, -32.7623, -4.57814, 26.438, 13.4762, 75.0085, -146.937
3.30538, -1, -32.932, -4.66505, 26.4722, 13.4784, 74.9177, -147.168
3.31182, -1, -33.1017, -4.752, 26.5064, 13.4805, 74.8273, -147.398
3.32089, -1, -33.2715, -4.83886, 26.5408, 13.4828, 74.7365, -147.628
3.32789, -1, -33.4415, -4.92572, 26.575, 13.4849, 74.6459, -147.858
3.33585, -1, -33.6119, -5.01268, 26.6092, 13.4871, 74.5554, -148.088
3.34425, -1, -33.7822, -5.09945, 26.6435, 13.4893, 74.4648, -148.318
3.35182, -1, -33.9524, -5.1862, 26.6777, 13.4916, 74.3743, -148.548
3.35982, -1, -34.1226, -5.27294, 26.7118, 13.4939, 74.2838, -148.777
3.36864, -1, -34.2927, -5.35966, 26.746, 13.4961, 74.1933, -149.006
3.37583, -1, -34.4627, -5.44629, 26.7803, 13.4985, 74.1026, -149.236
3.38387, -1, -34.6323, -5.53295, 26.8144, 13.5008, 74.012, -149.465
3.39196, -1, -34.8013, -5.61959, 26.8485, 13.5031, 73.9216, -149.694
3.39982, -1, -34.9698, -5.70617, 26.8827, 13.5056, 73.831, -149.924
3.40782, -1, -35.1381, -5.79265, 26.9168, 13.5081, 73.7405, -150.152
3.41701, -1, -35.3064, -5.8791, 26.9508, 13.5105, 73.6504, -150.381
3.42382, -1, -35.4748, -5.96534, 26.985, 13.513, 73.5599, -150.61
3.43194, -1, -35.6434, -6.05154, 27.019, 13.5153, 73.4696, -150.839
3.43984, -1, -35.8119, -6.13777, 27.053, 13.5176, 73.3795, -151.068
3.44782, -1, -35.9804, -6.22393, 27.0871, 13.52, 73.2889, -151.296
3.45589, -1, -36.1489, -6.31004, 27.1211, 13.5225, 73.1985, -151.525
3.46383, -1, -36.3175, -6.39619, 27.1551, 13.5248, 73.1082, -151.753
3.47183, -1, -36.4862, -6.48244, 27.189, 13.5272, 73.0178, -151.982
3.47989, -1, -36.6551, -6.56862, 27.223, 13.5295, 72.9276, -152.21
3.48792, -1, -36.824, -6.65485, 27.2569, 13.5318, 72.8373, -152.438
3.4955, -1, -36.993, -6.74096, 27.2908, 13.5341, 72.7473, -152.666
3.50394, -1, -37.1619, -6.82714, 27.3248, 13.5364, 72.6572, -152.894
3.51207, -1, -37.3307, -6.9132, 27.3586, 13.5386, 72.5673, -153.122
3.51939, -1, -37.499, -6.99923, 27.3925, 13.5409, 72.4776, -153.349
3.52799, -1, -37.667, -7.08529, 27.4266, 13.5432, 72.3876, -153.577
3.5361, -1, -37.8346, -7.17128, 27.4604, 13.5455, 72.2978, -153.804
3.54347, -1, -38.0022, -7.2572, 27.4942, 13.5477, 72.2081, -154.032
3.55204, -1, -38.1696, -7.3431, 27.5281, 13.5499, 72.1182, -154.259
3.55882, -1, -38.2533, -7.38601, 27.5451, 13.551, 72.0733, -154.373
3.56741, -1, -38.4206, -7.47172, 27.5789, 13.5531, 71.9837, -154.6
3.57593, -1, -38.6714, -7.60028, 27.6297, 13.5562, 71.8493, -154.941
3.58388, -1, -38.8388, -7.68597, 27.6635, 13.5583, 71.7598, -155.168
3.59194, -1, -39.0061, -7.77162, 27.6972, 13.5604, 71.6705, -155.395
3.60015, -1, -39.1735, -7.85725, 27.731, 13.5625, 71.5813, -155.622
3.60681, -1, -39.2572, -7.90011, 27.7479, 13.5635, 71.5365, -155.735
3.61625, -1, -39.5085, -8.02861, 27.7986, 13.5665, 71.4023, -156.075
3.62289, -1, -39.5924, -8.07138, 27.8153, 13.5675, 71.3578, -156.189
3.63228, -1, -39.8439, -8.19968, 27.8659, 13.5703, 71.2236, -156.528
3.6403, -1, -40.0115, -8.28515, 27.8996, 13.5723, 71.1343, -156.755
3.64682, -1, -40.0953, -8.32785, 27.9164, 13.5733, 71.0896, -156.868
3.6564, -1, -40.3464, -8.45593, 27.967, 13.5762, 70.9558, -157.207
3.66441, -1, -40.5135, -8.54132, 28.0007, 13.5782, 70.8666, -157.433
3.67254, -1, -40.6805, -8.62669, 28.0342, 13.5802, 70.7774, -157.659
3.68064, -1, -40.7639, -8.6694, 28.051, 13.5822, 70.6883, -157.885
3.68782, -1, -40.9305, -8.75474, 28.0847, 13.5832, 70.6437, -157.998
3.69586, -1, -41.0968, -8.84005, 28.1184, 13.5853, 70.5545, -158.224
3.70381, -1, -41.263, -8.92527, 28.152, 13.5873, 70.4655, -158.45
3.71181, -1, -41.4292, -9.01045, 28.1855, 13.5893, 70.3763, -158.676
3.71991, -1, -41.5955, -9.09561, 28.2192, 13.5912, 70.287, -158.901
3.72782, -1, -41.7618, -9.18072, 28.2528, 13.5932, 70.198, -159.126
3.73581, -1, -41.9281, -9.26576, 28.2863, 13.5952, 70.1089, -159.352
3.74382, -1, -42.0945, -9.35078, 28.32, 13.5973, 70.0199, -159.578
3.75182, -1, -42.2608, -9.43585, 28.3535, 13.5994, 69.9309, -159.803
3.75986, -1, -42.427, -9.52088, 28.387, 13.6014, 69.8422, -160.028
3.76786, -1, -42.5935, -9.60587, 28.4206, 13.6034, 69.7531, -160.253
3.77581, -1, -42.7599, -9.69079, 28.4541, 13.6054, 69.6642, -160.478
3.78387, -1, -42.9264, -9.77575, 28.4875, 13.6074, 69.5757, -160.703
3.79181, -1, -43.0928, -9.86067, 28.5209, 13.6095, 69.4867, -160.928
3.79981, -1, -43.2589, -9.94561, 28.5545, 13.6116, 69.398, -161.153
3.80931, -1, -43.4251, -10.0306, 28.588, 13.6136, 69.3095, -161.378
3.81581, -1, -43.591, -10.1155, 28.6214, 13.6157, 69.2208, -161.603
3.82485, -1, -43.7569, -10.2004, 28.655, 13.6178, 69.1323, -161.827
3.83188, -1, -43.9227, -10.2852, 28.6883, 13.62, 69.0439, -162.052
3.83982, -1, -44.0883, -10.37, 28.7217, 13.6221, 68.9554, -162.276
3.84783, -1, -44.2536, -10.4547, 28.7553, 13.6243, 68.8667, -162.501
3.85587, -1, -44.4188, -10.5392, 28.7887, 13.6265, 68.778, -162.725
3.86381, -1, -44.584, -10.6238, 28.8221, 13.6287, 68.6896, -162.949
3.87193, -1, -44.7491, -10.7083, 28.8555, 13.6309, 68.6008, -163.173
3.87987, -1, -44.9145, -10.7927, 28.889, 13.6331, 68.5123, -163.397
3.88787, -1, -45.0798, -10.8772, 28.9224, 13.6353, 68.4241, -163.621
3.89581, -1, -45.2451, -10.9617, 28.9558, 13.6375, 68.3355, -163.845
3.90387, -1, -45.4105, -11.0462, 28.9893, 13.6398, 68.2472, -164.069
3.9118, -1, -45.5757, -11.1306, 29.0225, 13.642, 68.159, -164.293
3.91981, -1, -45.741, -11.2151, 29.0557, 13.6443, 68.0706, -164.517
3.92789, -1, -45.906, -11.2993, 29.0892, 13.6466, 67.9822, -164.74
3.93584, -1, -46.0689, -11.3825, 29.1226, 13.6489, 67.8938, -164.964
3.94381, -1, -46.2283, -11.4636, 29.1561, 13.6513, 67.8062, -165.186
3.95188, -1, -46.3822, -11.5409, 29.1898, 13.6536, 67.7195, -165.405
3.95981, -1, -46.5282, -11.6134, 29.2228, 13.656, 67.6359, -165.616
3.96782, -1, -46.6639, -11.6802, 29.254, 13.6582, 67.5578, -165.815
3.97588, -1, -46.7863, -11.7399, 29.2822, 13.6603, 67.4866, -165.994
3.98381, -1, -46.8931, -11.7924, 29.3066, 13.6622, 67.4251, -166.15
3.99181, -1, -46.9836, -11.8383, 29.326, 13.6637, 67.3749, -166.278
3.99988, -1, -47.0582, -11.8783, 29.3397, 13.6647, 67.3358, -166.376
4.00788, -1, -47.1178, -11.9115, 29.3488, 13.6653, 67.3077, -166.447
4.01589, -1, -47.163, -11.9371, 29.3542, 13.6656, 67.2889, -166.494
4.02396, -1, -47.1959, -11.9558, 29.3569, 13.6658, 67.2773, -166.523
4.03199, -1, -47.2185, -11.9682, 29.3581, 13.6659, 67.2708, -166.54
4.0394, -1, -47.2326, -11.976, 29.3587, 13.6659, 67.2674, -166.548
4.04799, -1, -47.2404, -11.9802, 29.3589, 13.666, 67.2659, -166.552
4.05607, 2, -47.2441, -11.9822, 29.3591, 13.666, 67.2651, -166.554
4.06353, 2, -47.2448, -11.983, 29.3592, 13.6661, 67.2647, -166.555
4.07191, 2, -47.2447, -11.9833, 29.3593, 13.6661, 67.2645, -166.555
4.07985, 2, -47.2446, -11.9834, 29.3593, 13.6661, 67.2645, -166.555
4.08787, 2, -47.2447, -11.9835, 29.3593, 13.6661, 67.2645, -166.555
4.09645, 2, -47.2454, -11.9837, 29.3594, 13.6661, 67.2644, -166.555
4.10404, 2, -47.2464, -11.984, 29.3594, 13.6661, 67.2644, -166.555
4.11084, 2, -47.2472, -11.9844, 29.3594, 13.6661, 67.2644, -166.555
4.12058, 2, -47.2498, -11.9856, 29.3594, 13.6661, 67.2645, -166.555
4.12819, 2, -47.2513, -11.9864, 29.3594, 13.6661, 67.2644, -166.555
4.13485, 2, -47.2519, -11.9868, 29.3594, 13.6661, 67.2644, -166.555
4.14484, 2, -47.2531, -11.9877, 29.3594, 13.6661, 67.2644, -166.555
4.15231, 2, -47.2534, -11.988, 29.3594, 13.6661, 67.2644, -166.555
4.16036, 2, -47.2535, -11.9881, 29.3594, 13.6661, 67.2644, -166.555
4.16864, 2, -47.2534, -11.9881, 29.3594, 13.6661, 67.2644, -166.555
4.17637, 2, -47.2532, -11.9881, 29.3594, 13.6661, 67.2644, -166.555
4.18435, 2, -47.2527, -11.9881, 29.3594, 13.6661, 67.2644, -166.555
4.19287, 2, -47.2521, -11.9881, 29.3594, 13.6661, 67.2644, -166.555
4.1998, 2, -47.2519, -11.9881, 29.3594, 13.6661, 67.2645, -166.555
4.20781, 2, -47.2518, -11.9881, 29.3594, 13.6661, 67.2645, -166.555
4.21587, 2, -47.2518, -11.9881, 29.3594, 13.6661, 67.2644, -166.555
4.22389, 2, -47.2519, -11.9883, 29.3594, 13.6661, 67.2645, -166.555
4.2318, 2, -47.2521, -11.9887, 29.3594, 13.6661, 67.2644, -166.555
4.23985, 2, -47.2527, -11.989, 29.3594, 13.666, 67.2645, -166.555
4.24781, 2, -47.2533, -11.9893, 29.3594, 13.6661, 67.2645, -166.555
4.2558, 2, -47.2536, -11.9895, 29.3594, 13.666, 67.2645, -166.555
4.26385, 2, -47.2537, -11.9896, 29.3595, 13.6661, 67.2645, -166.555
4.27192, 2, -47.2537, -11.9896, 29.3595, 13.6661, 67.2645, -166.555
4.27979, 2, -47.2536, -11.9896, 29.3595, 13.6661, 67.2645, -166.555
4.28794, 2, -47.2535, -11.9895, 29.3595, 13.6661, 67.2645, -166.555
4.29579, 2, -47.253, -11.9894, 29.3595, 13.6661, 67.2645, -166.555
4.3038, 2, -47.2526, -11.9894, 29.3594, 13.6661, 67.2645, -166.555
4.31186, 2, -47.2524, -11.9894, 29.3594, 13.6661, 67.2645, -166.555
4.31979, 2, -47.2521, -11.9894, 29.3594, 13.6661, 67.2645, -166.555
4.32972, 2, -47.252, -11.9895, 29.3594, 13.666, 67.2645, -166.555
4.33586, 2, -47.252, -11.9895, 29.3594, 13.666, 67.2645, -166.555
4.34381, 2, -47.252, -11.9895, 29.3594, 13.6661, 67.2645, -166.555
4.35179, 2, -47.252, -11.9896, 29.3594, 13.666, 67.2645, -166.555
4.35986, 2, -47.252, -11.9897, 29.3594, 13.666, 67.2645, -166.555
4.36786, 2, -47.2521, -11.9897, 29.3594, 13.666, 67.2645, -166.555
4.37579, 2, -47.2521, -11.9897, 29.3594, 13.666, 67.2645, -166.555
4.38386, 2, -47.2521, -11.9896, 29.3594, 13.666, 67.2645, -166.555
4.39184, 2, -47.252, -11.9895, 29.3594, 13.666, 67.2645, -166.555
4.39979, 2, -47.2519, -11.9895, 29.3594, 13.666, 67.2645, -166.555
4.40787, 2, -47.2518, -11.9894, 29.3595, 13.6661, 67.2645, -166.555
4.41579, 2, -47.2517, -11.9894, 29.3595, 13.6661, 67.2645, -166.555
4.42379, 2, -47.2516, -11.9894, 29.3595, 13.666, 67.2645, -166.555
4.43186, 2, -47.2515, -11.9894, 29.3594, 13.666, 67.2645, -166.555
4.43986, 2, -47.2514, -11.9894, 29.3594, 13.666, 67.2645, -166.555
4.4478, 2, -47.2513, -11.9894, 29.3594, 13.666, 67.2645, -166.555
4.45586, 2, -47.2513, -11.9894, 29.3594, 13.666, 67.2645, -166.555
4.46379, 2, -47.2512, -11.9894, 29.3594, 13.666, 67.2645, -166.555
4.47179, 2, -47.2512, -11.9894, 29.3594, 13.666, 67.2645, -166.555
4.47986, 2, -47.2512, -11.9894, 29.3594, 13.666, 67.2645, -166.555
4.48781, 2, -47.2511, -11.9894, 29.3594, 13.666, 67.2645, -166.555
4.4958, 2, -47.2511, -11.9893, 29.3594, 13.666, 67.2646, -166.555
4.50387, 2, -47.251, -11.9892, 29.3594, 13.666, 67.2646, -166.555
4.51186, 2, -47.2508, -11.9892, 29.3594, 13.666, 67.2646, -166.555
4.51988, 2, -47.2508, -11.9892, 29.3594, 13.666, 67.2645, -166.555
4.52796, 2, -47.2507, -11.9892, 29.3594, 13.666, 67.2645, -166.555
4.53589, 2, -47.2506, -11.9891, 29.3594, 13.666, 67.2646, -166.555
4.54389, 2, -47.2505, -11.9891, 29.3594, 13.666, 67.2646, -166.555
4.55196, 2, -47.2504, -11.9892, 29.3594, 13.666, 67.2646, -166.555
4.55994, 2, -47.2503, -11.9892, 29.3594, 13.666, 67.2646, -166.555
4.56782, 2, -47.2502, -11.9892, 29.3594, 13.666, 67.2646, -166.555
4.57589, 2, -47.2501, -11.9891, 29.3594, 13.6659, 67.2646, -166.555
4.58383, 2, -47.25, -11.9891, 29.3594, 13.6659, 67.2647, -166.555
4.59185, 2, -47.2499, -11.9891, 29.3594, 13.6659, 67.2647, -166.555
4.60007, 2, -47.2498, -11.989, 29.3594, 13.6659, 67.2647, -166.555
4.60678, 2, -47.2497, -11.989, 29.3594, 13.6659, 67.2647, -166.555
4.61604, 2, -47.2495, -11.9889, 29.3594, 13.6659, 67.2647, -166.555
4.62291, 2, -47.2495, -11.9888, 29.3594, 13.6659, 67.2647, -166.555
4.6322, 2, -47.2493, -11.9888, 29.3594, 13.6659, 67.2647, -166.555
4.64023, 2, -47.2492, -11.9888, 29.3594, 13.6659, 67.2647, -166.555
4.64678, 2, -47.2491, -11.9888, 29.3594, 13.6659, 67.2647, -166.555
4.65631, 2, -47.249, -11.9888, 29.3594, 13.6659, 67.2647, -166.555
4.66437, 2, -47.249, -11.9888, 29.3594, 13.6659, 67.2647, -166.555
4.67252, 2, -47.2489, -11.9888, 29.3594, 13.6658, 67.2647, -166.555
4.68036, 2, -47.2489, -11.9888, 29.3594, 13.6658, 67.2647, -166.555
4.68831, 2, -47.2488, -11.9888, 29.3594, 13.6658, 67.2647, -166.555
4.69644, 2, -47.2488, -11.9888, 29.3594, 13.6658, 67.2647, -166.555
4.70378, 2, -47.2487, -11.9887, 29.3594, 13.6659, 67.2647, -166.555
4.71177, 2, -47.2486, -11.9887, 29.3594, 13.6658, 67.2648, -166.555
4.71983, 2, -47.2486, -11.9886, 29.3594, 13.6658, 67.2648, -166.555
4.72784, 2, -47.2485, -11.9885, 29.3594, 13.6658, 67.2648, -166.555
4.73578, 2, -47.2484, -11.9885, 29.3594, 13.6658, 67.2647, -166.555
4.74384, 2, -47.2484, -11.9885, 29.3594, 13.6658, 67.2648, -166.555
4.75178, 2, -47.2483, -11.9885, 29.3594, 13.6658, 67.2648, -166.555
4.75978, 2, -47.2483, -11.9885, 29.3594, 13.6657, 67.2648, -166.555
4.76784, 2, -47.2483, -11.9885, 29.3594, 13.6658, 67.2647, -166.555
4.77581, 2, -47.2483, -11.9885, 29.3594, 13.6657, 67.2648, -166.555
4.78378, 2, -47.2482, -11.9885, 29.3594, 13.6657, 67.2648, -166.555
4.79183, 2, -47.2482, -11.9884, 29.3594, 13.6657, 67.2648, -166.555
4.79978, 2, -47.2482, -11.9884, 29.3594, 13.6657, 67.2648, -166.555
4.80779, 2, -47.2482, -11.9884, 29.3594, 13.6657, 67.2648, -166.555
4.81585, 2, -47.2481, -11.9883, 29.3594, 13.6657, 67.2648, -166.555
4.82483, 2, -47.248, -11.9882, 29.3594, 13.6657, 67.2648, -166.555
4.83178, 2, -47.2479, -11.9882, 29.3594, 13.6657, 67.2648, -166.555
4.83984, 2, -47.2479, -11.9881, 29.3594, 13.6657, 67.2648, -166.555
4.84781, 2, -47.2478, -11.9881, 29.3594, 13.6657, 67.2648, -166.554
4.85577, 2, -47.2477, -11.9881, 29.3594, 13.6656, 67.2649, -166.554
4.86385, 2, -47.2477, -11.9881, 29.3594, 13.6656, 67.2649, -166.554
4.87178, 2, -47.2477, -11.9881, 29.3594, 13.6656, 67.2649, -166.554
4.87988, 2, -47.2477, -11.9881, 29.3594, 13.6656, 67.2649, -166.554
4.88787, 2, -47.2477, -11.9881, 29.3594, 13.6656, 67.2649, -166.554
4.89582, 2, -47.2476, -11.9881, 29.3594, 13.6656, 67.2649, -166.554
4.90378, 2, -47.2476, -11.988, 29.3594, 13.6656, 67.265, -166.554
4.91185, 2, -47.2475, -11.988, 29.3594, 13.6656, 67.265, -166.554
4.91978, 2, -47.2475, -11.9879, 29.3594, 13.6655, 67.265, -166.554
4.92778, 2, -47.2474, -11.9879, 29.3594, 13.6655, 67.265, -166.554
4.93585, 2, -47.2473, -11.9878, 29.3594, 13.6655, 67.265, -166.554
4.94381, 2, -47.2472, -11.9878, 29.3594, 13.6655, 67.265, -166.554
4.95177, 2, -47.2472, -11.9877, 29.3594, 13.6655, 67.265, -166.554
4.95985, 2, -47.2471, -11.9877, 29.3594, 13.6654, 67.265, -166.554
4.96778, 2, -47.2471, -11.9877, 29.3594, 13.6654, 67.265, -166.554
4.97577, 2, -47.2471, -11.9877, 29.3594, 13.6654, 67.265, -166.554
4.98385, 2, -47.247, -11.9877, 29.3594, 13.6654, 67.265, -166.554
4.99178, 2, -47.247, -11.9877, 29.3594, 13.6654, 67.265, -166.554
4.99978, 2, -47.247, -11.9877, 29.3594, 13.6654, 67.265, -166.554
5.00788, 2, -47.2469, -11.9877, 29.3594, 13.6654, 67.265, -166.554
5.01595, 2, -47.2469, -11.9876, 29.3594, 13.6654, 67.265, -166.554
5.02386, 2, -47.2468, -11.9876, 29.3594, 13.6654, 67.265, -166.554
5.03194, 2, -47.2468, -11.9875, 29.3594, 13.6653, 67.265, -166.554
5.03987, 2, -47.2467, -11.9875, 29.3594, 13.6653, 67.265, -166.554
5.04789, 2, -47.2466, -11.9874, 29.3594, 13.6653, 67.2651, -166.554
5.05614, 2, -47.2466, -11.9874, 29.3594, 13.6653, 67.2651, -166.554
5.06493, 2, -47.2465, -11.9874, 29.3594, 13.6652, 67.265, -166.554
5.07182, 2, -47.2465, -11.9874, 29.3594, 13.6652, 67.2651, -166.554
5.07991, 2, -47.2465, -11.9874, 29.3594, 13.6653, 67.2651, -166.554
5.08791, 2, -47.2464, -11.9874, 29.3594, 13.6653, 67.2651, -166.554
5.09587, 2, -47.2464, -11.9874, 29.3594, 13.6652, 67.2651, -166.554
5.10401, 2, -47.2464, -11.9874, 29.3594, 13.6652, 67.2651, -166.554
5.11077, 2, -47.2464, -11.9874, 29.3594, 13.6652, 67.2652, -166.554
5.12004, 2, -47.2463, -11.9873, 29.3594, 13.6652, 67.2652, -166.554
5.12681, 2, -47.2463, -11.9873, 29.3594, 13.6652, 67.2652, -166.554
5.13642, 4, -47.2462, -11.9872, 29.3594, 13.6651, 67.2652, -166.554
5.14426, 4, -47.2461, -11.9872, 29.3594, 13.6651, 67.2652, -166.554
5.15233, 4, -47.246, -11.9871, 29.3594, 13.6651, 67.2653, -166.554
5.1607, 4, -47.246, -11.9871, 29.3594, 13.6651, 67.2652, -166.554
5.16834, 4, -47.246, -11.9871, 29.3594, 13.6651, 67.2652, -166.554
5.17642, 4, -47.2459, -11.9871, 29.3594, 13.665, 67.2653, -166.554
5.18432, 4, -47.2459, -11.9871, 29.3594, 13.665, 67.2653, -166.554
5.19175, 4, -47.2458, -11.9871, 29.3594, 13.665, 67.2653, -166.554
5.20063, 4, -47.2458, -11.987, 29.3594, 13.665, 67.2653, -166.554
5.20777, 4, -47.2458, -11.987, 29.3594, 13.665, 67.2653, -166.554
5.21578, 4, -47.2458, -11.987, 29.3594, 13.665, 67.2653, -166.554
5.22381, 4, -47.2458, -11.987, 29.3594, 13.665, 67.2653, -166.554
5.23181, 4, -47.2458, -11.9869, 29.3594, 13.665, 67.2653, -166.554
5.23991, 4, -47.2457, -11.9869, 29.3594, 13.665, 67.2653, -166.553
5.25309, 4, -47.2456, -11.9869, 29.3594, 13.665, 67.2653, -166.553
5.25588, 4, -47.2456, -11.9869, 29.3594, 13.665, 67.2653, -166.553
5.26811, 4, -47.2455, -11.9868, 29.3594, 13.665, 67.2653, -166.553
5.27098, 4, -47.2455, -11.9868, 29.3594, 13.665, 67.2653, -166.553
5.2789, 4, -47.2454, -11.9868, 29.3594, 13.665, 67.2653, -166.553
5.29006, 4, -47.2454, -11.9868, 29.3594, 13.6649, 67.2653, -166.553
5.29932, 4, -47.2453, -11.9868, 29.3594, 13.6649, 67.2653, -166.553
5.30579, 4, -47.2453, -11.9868, 29.3594, 13.6649, 67.2654, -166.553
5.31385, 4, -47.2453, -11.9867, 29.3594, 13.6649, 67.2654, -166.553
5.31898, 4, -47.2453, -11.9867, 29.3594, 13.6649, 67.2654, -166.553
5.33161, 4, -47.2453, -11.9867, 29.3594, 13.6648, 67.2654, -166.553
5.33761, 4, -47.2453, -11.9867, 29.3594, 13.6648, 67.2654, -166.553
5.34637, 4, -47.2452, -11.9866, 29.3594, 13.6648, 67.2654, -166.553
5.35488, 4, -47.2452, -11.9866, 29.3594, 13.6648, 67.2654, -166.553
5.36306, 4, -47.2451, -11.9866, 29.3594, 13.6648, 67.2653, -166.553
5.36792, 4, -47.2451, -11.9866, 29.3594, 13.6648, 67.2654, -166.553
5.37652, 4, -47.2451, -11.9865, 29.3594, 13.6648, 67.2654, -166.553
5.38392, 4, -47.245, -11.9866, 29.3594, 13.6648, 67.2654, -166.553
5.39429, 4, -47.245, -11.9865, 29.3594, 13.6647, 67.2654, -166.553
5.4031, 4, -47.245, -11.9866, 29.3594, 13.6648, 67.2654, -166.553
5.40801, 4, -47.2451, -11.9866, 29.3595, 13.6648, 67.2654, -166.553
5.41627, 4, -47.246, -11.987, 29.3598, 13.6649, 67.2655, -166.553
5.42497, 4, -47.2483, -11.9888, 29.3617, 13.6666, 67.2661, -166.553
5.43362, 4, -47.2525, -11.9932, 29.3672, 13.6764, 67.2683, -166.552
5.43994, 4, -47.2595, -12.0022, 29.3799, 13.7013, 67.2747, -166.547
5.44795, 4, -47.2711, -12.0174, 29.4045, 13.7502, 67.2883, -166.536
5.45602, 5, -47.289, -12.0416, 29.4471, 13.8379, 67.3127, -166.517
5.46398, 5, -47.3158, -12.0771, 29.5139, 13.9777, 67.3523, -166.485
5.4719, 5, -47.353, -12.1255, 29.6113, 14.1847, 67.4092, -166.437
5.48189, 5, -47.4026, -12.1882, 29.7436, 14.4697, 67.4881, -166.372
5.49147, 5, -47.4649, -12.2659, 29.9133, 15.0546, 67.6461, -166.237
5.49697, 5, -47.5397, -12.3589, 30.1217, 15.2907, 67.7094, -166.183
5.50716, 5, -47.6744, -12.5253, 30.502, 16.1063, 67.9252, -165.998
5.51195, 5, -47.7244, -12.5872, 30.6445, 16.4079, 68.0043, -165.93
5.5222, 5, -47.8311, -12.7195, 30.9497, 17.0452, 68.1689, -165.788
5.52767, 5, -47.9446, -12.8611, 31.2757, 17.7152, 68.3392, -165.641
5.53617, 5, -48.0629, -13.0093, 31.6167, 18.4024, 68.5106, -165.491
5.54414, 5, -48.1836, -13.1613, 31.9655, 19.0966, 68.6806, -165.343
5.5522, 5, -48.3043, -13.3132, 32.3184, 19.7873, 68.8471, -165.197
5.5606, 5, -48.4223, -13.4617, 32.6706, 20.4637, 69.0095, -165.049
5.56814, 5, -48.5332, -13.604, 33.0171, 21.1169, 69.1689, -164.892
5.57671, 6, -48.6325, -13.7365, 33.3515, 21.7349, 69.3277, -164.714
5.58816, 6, -48.7503, -13.9161, 33.821, 22.5803, 69.5707, -164.376
5.5947, 7, -48.7795, -13.9719, 33.9674, 22.838, 69.6541, -164.238
5.60024, 7, -48.8216, -14.0779, 34.2445, 23.3163, 69.8261, -163.916
5.60901, 8, -48.8419, -14.1752, 34.5007, 23.7496, 70.0053, -163.529
5.61652, 8, -48.842, -14.2626, 34.7398, 24.1451, 70.1924, -163.079
5.6229, 8, -48.8355, -14.3028, 34.8543, 24.3316, 70.2887, -162.832
5.63486, 9, -48.7941, -14.4129, 35.1819, 24.8614, 70.589, -162.019
5.64239, 9, -48.7519, -14.4799, 35.3928, 25.2019, 70.7986, -161.432
5.64864, 10, -48.6998, -14.5438, 35.6028, 25.541, 71.0157, -160.823
5.65729, 10, -48.6387, -14.6069, 35.8131, 25.8834, 71.2395, -160.2
5.66476, 11, -48.5704, -14.6695, 36.0243, 26.2316, 71.4686, -159.568
5.67344, 11, -48.4965, -14.7321, 36.2365, 26.5872, 71.7014, -158.934
5.68495, 12, -48.3794, -14.8267, 36.5526, 27.1354, 72.0556, -157.978
5.68935, 12, -48.3396, -14.8581, 36.6572, 27.322, 72.1746, -157.658
5.69892, 13, -48.2599, -14.9191, 36.8656, 27.7014, 72.4143, -157.014
5.70536, 13, -48.2201, -14.9486, 36.9692, 27.894, 72.6565, -156.367
5.71535, 14, -48.0976, -15.036, 37.2764, 28.4829, 72.901, -155.715
5.71989, 14, -48.0553, -15.0656, 37.3783, 28.6823, 73.0242, -155.388
5.72896, 15, -47.9229, -15.1554, 37.683, 29.2865, 73.3961, -154.407
5.73594, 15, -47.8769, -15.1851, 37.7836, 29.4889, 73.52, -154.081
5.74675, 16, -47.7309, -15.273, 38.0829, 30.096, 73.889, -153.106
5.7519, 16, -47.6787, -15.3026, 38.1819, 30.2974, 74.0105, -152.783
5.76557, 17, -47.4542, -15.4253, 38.5695, 31.094, 74.4844, -151.508
5.77334, 17, -47.3949, -15.4568, 38.7584, 31.4852, 74.7121, -150.878
5.77587, 18, -47.3343, -15.4884, 38.7584, 31.4852, 74.7121, -150.878
5.78399, 18, -47.2096, -15.5522, 38.9449, 31.872, 74.9336, -150.257
5.7919, 19, -47.0795, -15.6179, 39.1283, 32.2554, 75.1491, -149.644
5.79997, 19, -46.9437, -15.6869, 39.3097, 32.637, 75.3596, -149.036
5.80689, 20, -46.8023, -15.7586, 39.4901, 33.0175, 75.5656, -148.436
5.8189, 20, -46.6559, -15.8694, 39.7574, 33.5863, 75.8667, -147.548
5.82289, 21, -46.5048, -15.9071, 39.8452, 33.7756, 75.965, -147.256
5.83472, 21, -46.2705, -16.0231, 40.1061, 34.342, 76.2537, -146.388
5.83989, 22, -46.1903, -16.0628, 40.1923, 34.5303, 76.3478, -146.101
5.84821, 22, -46.0269, -16.1431, 40.3625, 34.9054, 76.5326, -145.534
5.85886, 23, -45.7724, -16.266, 40.6119, 35.4632, 76.8018, -144.693
5.86476, 23, -45.6846, -16.3079, 40.6937, 35.6474, 76.889, -144.415
5.87192, 24, -45.5032, -16.3934, 40.8548, 36.0129, 77.0602, -143.863
5.87993, 24, -45.3143, -16.4814, 41.0117, 36.3728, 77.2255, -143.318
5.88897, 25, -45.1183, -16.5708, 41.1642, 36.7251, 77.3847, -142.776
5.8965, 25, -44.9157, -16.6607, 41.3124, 37.0691, 77.5371, -142.24
5.9073, 26, -44.5993, -16.7967, 41.5263, 37.5686, 77.7538, -141.443
5.91229, 26, -44.4902, -16.8426, 41.5951, 37.7309, 77.8233, -141.179
5.92258, 27, -44.1523, -16.9809, 41.7929, 38.2058, 78.0249, -140.392
5.92868, 27, -44.0365, -17.027, 41.856, 38.3602, 78.0901, -140.13
5.93589, 28, -43.7996, -17.1188, 41.9775, 38.6636, 78.2185, -139.606
5.94708, 28, -43.4307, -17.2551, 42.1473, 39.1043, 78.4052, -138.822
5.95356, 29, -43.304, -17.2998, 42.2005, 39.2473, 78.4663, -138.561
5.95992, 29, -43.0459, -17.3876, 42.3018, 39.5271, 78.5861, -138.039
5.96892, 30, -42.7811, -17.4731, 42.3959, 39.7989, 78.7027, -137.517
5.97591, 30, -42.5086, -17.5564, 42.4829, 40.0623, 78.8169, -136.995
5.9872, 31, -42.0846, -17.6766, 42.6001, 40.4413, 78.9822, -136.215
5.99192, 31, -41.9396, -17.7154, 42.6357, 40.5634, 79.0361, -135.955
6.00107, 32, -41.6442, -17.7914, 42.7018, 40.8015, 79.1421, -135.435
6.00813, 32, -41.3422, -17.865, 42.7612, 41.0309, 79.2452, -134.916
6.01592, 33, -41.0337, -17.9357, 42.8135, 41.2525, 79.3461, -134.398
6.02625, 33, -40.7182, -18.0031, 42.8586, 41.466, 79.4447, -133.881
6.03205, 34, -40.3962, -18.0675, 42.8965, 41.6711, 79.5402, -133.365
6.04067, 34, -40.0695, -18.1294, 42.927, 41.8683, 79.6332, -132.85
6.04802, 35, -39.7378, -18.1884, 42.9503, 42.0575, 79.724, -132.336
6.05697, 35, -39.4003, -18.244, 42.9666, 42.2396, 79.8118, -131.823
6.06775, 36, -38.8811, -18.3211, 42.9779, 42.4979, 79.9399, -131.056
6.07271, 36, -38.7043, -18.3451, 42.9784, 42.5802, 79.9817, -130.801
6.08213, 37, -38.3463, -18.3907, 42.9742, 42.739, 80.0632, -130.292
6.08984, 37, -37.9825, -18.4326, 42.9632, 42.8903, 80.1429, -129.785
6.09659, 38, -37.6132, -18.4709, 42.9453, 43.0343, 80.2203, -129.279
6.10489, 38, -37.2393, -18.5058, 42.921, 43.1709, 80.296, -128.775
6.11191, 39, -36.8608, -18.5373, 42.8898, 43.2999, 80.3689, -128.272
6.12442, 39, -36.2844, -18.5777, 42.8303, 43.4798, 80.4753, -127.523
6.12997, 40, -36.0894, -18.5893, 42.8072, 43.5362, 80.5096, -127.274
6.14022, 40, -35.4951, -18.6181, 42.7282, 43.6945, 80.6105, -126.529
6.14451, 41, -35.2942, -18.6258, 42.6986, 43.7435, 80.6428, -126.282
6.15525, 41, -34.8882, -18.6384, 42.6345, 43.8363, 80.7061, -125.789
6.1605, 42, -34.4782, -18.6476, 42.5639, 43.9222, 80.7682, -125.299
6.17018, 42, -34.0651, -18.6536, 42.487, 44.0008, 80.8272, -124.811
6.17784, 43, -33.649, -18.6565, 42.4039, 44.0722, 80.8857, -124.325
6.18592, 43, -33.2284, -18.6559, 42.3149, 44.1366, 80.9416, -123.841
6.19263, 44, -32.8021, -18.6516, 42.2202, 44.194, 80.9961, -123.36
6.20161, 44, -32.3692, -18.6435, 42.1198, 44.2437, 81.0495, -122.882
6.2086, 45, -32.1503, -18.638, 42.0673, 44.266, 81.1002, -122.405
6.2175, 45, -31.7086, -18.6243, 41.9579, 44.3053, 81.1502, -121.931
6.22392, 46, -31.2631, -18.6072, 41.8426, 44.337, 81.1747, -121.695
6.23187, 46, -30.8156, -18.5866, 41.7212, 44.3607, 81.2213, -121.224
6.24197, 47, -30.1394, -18.5486, 41.5284, 44.382, 81.2889, -120.523
6.24792, 47, -29.9117, -18.5337, 41.4611, 44.3855, 81.3112, -120.29
6.25592, 48, -29.4515, -18.5005, 41.3222, 44.3876, 81.3543, -119.826
6.26625, 48, -28.7491, -18.4428, 41.1022, 44.3748, 81.417, -119.133
6.2745, 49, -28.2745, -18.3989, 40.9482, 44.3555, 81.4589, -118.673
6.27993, 49, -28.0362, -18.3752, 40.869, 44.3424, 81.4796, -118.444
6.28794, 50, -27.5579, -18.3246, 40.7058, 44.3086, 81.5201, -117.986
6.30134, 50, -26.8342, -18.2392, 40.4487, 44.2407, 81.6032, -117.073
6.30388, 51, -26.59, -18.2079, 40.3598, 44.2137, 81.6032, -117.073
6.31193, 51, -26.0955, -18.1412, 40.1772, 44.1515, 81.6456, -116.618
6.32396, 52, -25.3407, -18.0308, 39.8894, 44.0404, 81.7099, -115.937
6.33124, 52, -24.8327, -17.9506, 39.6888, 43.953, 81.7546, -115.484
6.33586, 53, -24.5781, -17.9085, 39.5864, 43.9056, 81.777, -115.258
6.34386, 53, -24.0669, -17.82, 39.3764, 43.8033, 81.8217, -114.805
6.35193, 54, -23.5506, -17.7253, 39.1584, 43.6908, 81.8684, -114.354
6.36277, 54, -22.7616, -17.5715, 38.8184, 43.5019, 81.9421, -113.676
6.36789, 55, -22.4946, -17.517, 38.7014, 43.4334, 81.9673, -113.45
6.37847, 55, -21.6871, -17.3443, 38.3389, 43.2101, 82.0478, -112.772
6.38394, 56, -21.4168, -17.2838, 38.2149, 43.1298, 82.0756, -112.546
6.39296, 56, -20.8737, -17.1587, 37.9616, 42.9604, 82.132, -112.094
6.3999, 57, -20.3245, -17.028, 37.7011, 42.7795, 82.1912, -111.643
6.40801, 57, -19.7661, -16.8915, 37.4344, 42.5869, 82.2514, -111.193
6.41594, 58, -19.1988, -16.7487, 37.1603, 42.3818, 82.3137, -110.742
6.42377, 58, -18.6267, -16.5998, 36.8802, 42.1642, 82.3781, -110.292
6.43196, 59, -18.0523, -16.445, 36.5933, 41.9339, 82.4443, -109.843
6.44002, 59, -17.4742, -16.2853, 36.2993, 41.691, 82.5139, -109.393
6.45074, 60, -16.5908, -16.0376, 35.8462, 41.3021, 82.6224, -108.718
6.45595, 60, -16.2913, -15.9523, 35.6925, 41.166, 82.6597, -108.493
6.46517, 61, -15.6877, -15.7777, 35.3813, 40.8839, 82.7348, -108.044
6.47495, 61, -14.7762, -15.5077, 34.9047, 40.4373, 82.851, -107.371
6.48139, 62, -14.4706, -15.4158, 34.7435, 40.2822, 82.8908, -107.147
6.48804, 62, -13.8533, -15.2284, 34.4173, 39.9619, 82.9716, -106.698
6.49628, 63, -13.2259, -15.0346, 34.0872, 39.6285, 83.0548, -106.249
6.50399, 63, -12.5898, -14.834, 33.7518, 39.2807, 83.1406, -105.799
6.51289, 64, -11.9484, -14.6284, 33.411, 38.9185, 83.2304, -105.349
6.52333, 64, -10.9769, -14.3088, 32.8872, 38.3473, 83.3734, -104.671
6.52801, 65, -10.6483, -14.1986, 32.709, 38.149, 83.4235, -104.444
6.53924, 65, -9.98285, -13.9728, 32.3482, 37.5283, 83.5826, -103.759
6.54402, 66, -9.30785, -13.7405, 31.9822, 37.3129, 83.6386, -103.53
6.55621, 67, -8.28446, -13.3786, 31.4232, 36.6411, 83.8152, -102.841
6.55999, 67, -7.94083, -13.2544, 31.2333, 36.4087, 83.8772, -102.61
6.57021, 67, -7.24732, -13.0004, 30.8496, 35.9321, 84.0065, -102.147
6.57616, 68, -6.54499, -12.7387, 30.461, 35.4398, 84.1424, -101.682
6.58498, 68, -5.83572, -12.4714, 30.069, 34.9342, 84.285, -101.216
6.5929, 69, -5.12231, -12.1984, 29.6734, 34.4161, 84.4339, -100.749
6.60396, 69, -4.04091, -11.7759, 29.0753, 33.618, 84.6671, -100.045
6.60829, 70, -3.67622, -11.6316, 28.8761, 33.3466, 84.7472, -99.8094
6.61789, 70, -2.9404, -11.3364, 28.4779, 32.7936, 84.9114, -99.337
6.6269, 71, -2.19726, -11.0335, 28.0789, 32.2275, 85.0812, -98.863
6.63424, 71, -1.44637, -10.7237, 27.6773, 31.6465, 85.2587, -98.3856
6.64052, 72, -0.688018, -10.4072, 27.2729, 31.049, 85.4451, -97.9051
6.64921, 72, 0.0768468, -10.0853, 26.866, 30.4341, 85.6406, -97.4213
6.65669, 73, 0.847232, -9.75603, 26.4567, 29.8065, 85.8452, -96.9346
6.66532, 73, 1.62321, -9.41946, 26.0462, 29.1667, 86.0578, -96.4464
6.67512, 74, 2.40326, -9.07642, 25.6366, 28.5176, 86.2787, -95.9563
6.67889, 74, 2.79429, -8.90301, 25.4329, 28.19, 86.392, -95.7106
6.69087, 75, 3.97051, -8.37378, 24.8288, 27.1968, 86.7421, -94.9717
6.6973, 75, 4.75739, -8.01311, 24.4318, 26.5301, 86.9829, -94.4785
6.70284, 76, 5.15134, -7.8306, 24.2352, 26.1966, 87.1058, -94.2314
6.71396, 76, 6.33298, -7.2744, 23.6542, 25.1941, 87.4825, -93.4884
6.7301, 77, 7.9089, -6.50874, 22.8969, 23.8603, 88.0094, -92.4937
6.73181, 77, 7.9089, -6.50874, 22.8969, 23.8603, 88.0094, -92.4937
6.7438, 78, 9.09457, -5.91004, 22.3389, 22.8529, 88.4307, -91.7436
6.74581, 78, 9.49005, -5.70642, 22.155, 22.514, 88.5777, -91.4917
6.75167, 79, 9.88576, -5.50091, 21.9715, 22.1733, 88.7282, -91.2388
6.75972, 79, 10.6776, -5.08538, 21.6069, 21.4872, 89.0392, -90.7296
6.7694, 80, 11.8621, -4.44703, 21.0662, 20.4523, 89.5295, -89.9556
6.77572, 80, 12.2548, -4.22905, 20.8886, 20.1072, 89.6979, -89.6947
6.78392, 81, 13.0347, -3.78574, 20.5374, 19.4233, 90.0409, -89.1683
6.79183, 81, 13.8083, -3.33545, 20.1931, 18.7508, 90.3904, -88.6369
6.79998, 82, 14.5749, -2.87916, 19.8572, 18.0944, 90.7449, -88.1014
6.8077, 82, 15.3335, -2.41498, 19.5321, 17.4543, 91.1032, -87.5636
6.81571, 82, 16.0831, -1.94286, 19.2166, 16.8317, 91.4654, -87.0233
6.82377, 83, 16.8208, -1.46437, 18.9105, 16.2279, 91.8319, -86.4817
6.83278, 83, 17.5459, -0.980346, 18.613, 15.6416, 92.2046, -85.9395
6.8397, 84, 18.2561, -0.492339, 18.3236, 15.0723, 92.5837, -85.3987
6.84777, 84, 18.9497, -0.000669916, 18.0414, 14.5219, 92.9709, -84.8587
6.85571, 85, 19.6255, 0.496598, 17.7649, 13.9902, 93.3661, -84.3203
6.8638, 85, 20.2828, 0.999341, 17.495, 13.478, 93.7694, -83.784
6.87169, 86, 20.9229, 1.5066, 17.231, 12.9858, 94.1788, -83.2497
6.87977, 86, 21.5484, 2.01898, 16.9736, 12.5134, 94.5936, -82.7155
6.88792, 87, 22.1612, 2.53922, 16.7227, 12.0614, 95.0145, -82.1794
6.89577, 87, 22.7627, 3.06993, 16.4764, 11.6282, 95.4418, -81.6397
6.90371, 87, 23.3543, 3.61027, 16.2341, 11.213, 95.8766, -81.0954
6.91183, 88, 23.9362, 4.15744, 15.9945, 10.8133, 96.3186, -80.5439
6.9197, 88, 24.5075, 4.71237, 15.7582, 10.4293, 96.7673, -79.9831
6.92774, 89, 25.0677, 5.27813, 15.5274, 10.0601, 97.2228, -79.412
6.93575, 89, 25.62, 5.85561, 15.3008, 9.70698, 97.684, -78.8296
6.9437, 90, 26.1684, 6.44314, 15.078, 9.36958, 98.1494, -78.2344
6.95173, 90, 26.7106, 7.03952, 14.8607, 9.04863, 98.6197, -77.6252
6.95978, 91, 27.2409, 7.64497, 14.6492, 8.74536, 99.0947, -77.0025
6.96768, 91, 27.758, 8.26104, 14.4426, 8.46067, 99.5749, -76.3682
6.97573, 92, 28.2652, 8.8878, 14.2404, 8.19646, 100.06, -75.7214
6.98375, 92, 28.7654, 9.5241, 14.0427, 7.95328, 100.55, -75.065
6.9917, 93, 29.2574, 10.1688, 13.8495, 7.73178, 101.045, -74.4011
6.99991, 93, 29.7378, 10.8205, 13.6626, 7.53266, 101.54, -73.7291
7.00771, 94, 30.2044, 11.4772, 13.4826, 7.35644, 102.036, -73.0499
7.01595, 94, 30.6563, 12.1373, 13.309, 7.20348, 102.531, -72.3652
7.02385, 95, 31.0943, 12.8001, 13.1421, 7.07383, 103.023, -71.6757
7.0321, 95, 31.5191, 13.4653, 12.983, 6.96788, 103.512, -70.9793
7.03923, 96, 31.9298, 14.1327, 12.8312, 6.8849, 103.998, -70.2781
7.04782, 96, 32.3241, 14.8004, 12.6855, 6.82656, 104.48, -69.5722
7.05595, 97, 32.7015, 15.4676, 12.5462, 6.79031, 104.957, -68.8598
7.06382, 97, 33.0627, 16.1323, 12.4141, 6.77488, 105.428, -68.1438
7.0717, 98, 33.4081, 16.793, 12.2905, 6.78117, 105.892, -67.4274
7.07998, 98, 33.7386, 17.4472, 12.1759, 6.80843, 106.345, -66.7094
7.08864, 99, 34.0544, 18.0935, 12.0709, 6.85439, 106.788, -65.9937
7.09588, 99, 34.3569, 18.731, 11.9761, 6.92001, 107.216, -65.2841
7.10414, 100, 34.6479, 19.3582, 11.891, 7.0022, 107.629, -64.5795
7.11071, 100, 34.7893, 19.6681, 11.8521, 7.04966, 107.83, -64.2298
7.12017, 101, 35.1945, 20.5793, 11.7487, 7.21533, 108.407, -63.1958
7.12675, 101, 35.3231, 20.8767, 11.7182, 7.27768, 108.591, -62.8559
7.13607, 101, 35.6888, 21.7478, 11.6391, 7.48273, 109.117, -61.8516
7.14281, 102, 35.8036, 22.0306, 11.6165, 7.55613, 109.284, -61.523
7.15226, 102, 36.128, 22.8566, 11.56, 7.78794, 109.762, -60.5574
7.16024, 103, 36.3323, 23.3886, 11.5314, 7.94976, 110.061, -59.9301
7.1683, 103, 36.5306, 23.9059, 11.5109, 8.11729, 110.346, -59.3168
7.17656, 104, 36.7242, 24.4097, 11.4987, 8.29124, 110.614, -58.7176
7.18511, 104, 36.8193, 24.9005, 11.4936, 8.47285, 110.866, -58.1284
7.19074, 104, 37.0062, 25.1411, 11.4933, 8.56701, 110.985, -57.8373
7.20024, 104, 37.1885, 25.6131, 11.4972, 8.76223, 111.209, -57.2614
7.2077, 104, 37.3628, 26.0716, 11.5064, 8.96597, 111.417, -56.6929
7.21578, 104, 37.5264, 26.5168, 11.5194, 9.17794, 111.608, -56.1316
7.22369, 104, 37.6812, 26.9487, 11.5352, 9.39538, 111.786, -55.579
7.2317, 104, 37.8316, 27.3683, 11.5535, 9.61563, 111.952, -55.0383
7.23974, 104, 37.9806, 27.7743, 11.5733, 9.8363, 112.109, -54.5137
7.24775, 104, 38.1274, 28.1666, 11.5934, 10.0542, 112.259, -54.0079
7.25569, 104, 38.2703, 28.5446, 11.6133, 10.2682, 112.4, -53.5223
7.26374, 104, 38.4078, 28.9087, 11.6324, 10.4763, 112.534, -53.0598
7.27169, 104, 38.5383, 29.2562, 11.6505, 10.6774, 112.661, -52.6206
7.27969, 104, 38.661, 29.5865, 11.6678, 10.8704, 112.78, -52.2065
7.28775, 104, 38.7759, 29.8979, 11.6838, 11.0549, 112.891, -51.8171
7.29573, 104, 38.8828, 30.191, 11.6987, 11.2298, 112.995, -51.4522
7.30369, 104, 38.9822, 30.4652, 11.7126, 11.395, 113.091, -51.1129
7.31176, 104, 39.0738, 30.7195, 11.7252, 11.5496, 113.179, -50.7992
7.31969, 104, 39.1574, 30.9543, 11.7367, 11.6934, 113.261, -50.5103
7.3277, 104, 39.2325, 31.1695, 11.7471, 11.8258, 113.335, -50.2469
7.33672, 104, 39.2991, 31.3645, 11.7568, 11.9466, 113.401, -50.0086
7.3437, 104, 39.3581, 31.5403, 11.7655, 12.0555, 113.461, -49.7956
7.35279, 104, 39.4101, 31.6966, 11.773, 12.1523, 113.513, -49.6078
7.35976, 104, 39.4555, 31.8337, 11.7798, 12.2372, 113.558, -49.4447
7.36772, 104, 39.495, 31.9528, 11.7861, 12.3094, 113.597, -49.306
7.37569, 104, 39.5282, 32.055, 11.7916, 12.3703, 113.629, -49.1907
7.38376, 104, 39.5555, 32.1408, 11.7966, 12.4192, 113.654, -49.0974
7.39169, 104, 39.5778, 32.2117, 11.8009, 12.457, 113.674, -49.0242
7.39969, 104, 39.5957, 32.2697, 11.8049, 12.486, 113.688, -48.97
7.40776, 104, 39.6098, 32.3161, 11.8086, 12.5074, 113.699, -48.9309
7.41573, 104, 39.6209, 32.352, 11.8119, 12.5223, 113.706, -48.9043
7.42369, 104, 39.6291, 32.3789, 11.8149, 12.5322, 113.71, -48.8871
7.43178, 104, 39.6347, 32.3989, 11.8175, 12.5383, 113.712, -48.8771
7.43969, 104, 39.6382, 32.4134, 11.8196, 12.5416, 113.713, -48.8719
7.4477, 104, 39.6403, 32.4229, 11.8211, 12.5434, 113.714, -48.8694
7.45573, 105, 39.6413, 32.4288, 11.8223, 12.5442, 113.714, -48.8684
7.46372, 105, 39.6413, 32.4326, 11.8233, 12.5447, 113.714, -48.8681
7.47175, 105, 39.6406, 32.4352, 11.8241, 12.5449, 113.714, -48.868
7.47975, 105, 39.6397, 32.437, 11.8249, 12.5451, 113.714, -48.8682
7.4877, 105, 39.6384, 32.4385, 11.8255, 12.5451, 113.714, -48.8684
7.4957, 105, 39.637, 32.4397, 11.826, 12.5451, 113.714, -48.8686
7.50376, 105, 39.636, 32.4409, 11.8266, 12.5452, 113.714, -48.8689
7.51169, 105, 39.6354, 32.4421, 11.8271, 12.5451, 113.714, -48.8692
7.51973, 105, 39.635, 32.4433, 11.8277, 12.5451, 113.714, -48.8694
7.52785, 105, 39.6347, 32.4444, 11.8283, 12.5451, 113.714, -48.8697
7.53579, 105, 39.6344, 32.4453, 11.8288, 12.5451, 113.714, -48.87
7.54379, 105, 39.6342, 32.446, 11.8292, 12.5451, 113.714, -48.8702
7.55186, 105, 39.6339, 32.4465, 11.8294, 12.5451, 113.714, -48.8704
7.55979, 105, 39.6336, 32.4469, 11.8297, 12.5451, 113.714, -48.8706
7.56781, 105, 39.6333, 32.4471, 11.83, 12.5451, 113.714, -48.8708
7.57608, 105, 39.633, 32.4472, 11.8302, 12.5451, 113.714, -48.8709
