hehonglu123/Motion-Primitive-Planning/ILC/recorded_data/realrobot/from_NX/iteration_11/run_3.csv
timestamp, cmd_num, J1, J2, J3, J4, J5, J6
0.00036, -1, 39.63, 32.447, 11.8319, 12.5453, 113.713, -48.8723
0.003619, -1, 39.63, 32.447, 11.8319, 12.5453, 113.713, -48.8723
0.007906, -1, 39.63, 32.447, 11.8319, 12.5454, 113.713, -48.8723
0.028497, -1, 39.63, 32.447, 11.8319, 12.5454, 113.713, -48.8723
0.029718, -1, 39.63, 32.447, 11.8319, 12.5454, 113.713, -48.8723
0.032643, -1, 39.63, 32.447, 11.8319, 12.5454, 113.713, -48.8723
0.039796, -1, 39.63, 32.4471, 11.8319, 12.5454, 113.713, -48.8723
0.047802, -1, 39.6299, 32.447, 11.8319, 12.5453, 113.713, -48.8723
0.055874, -1, 39.6286, 32.4468, 11.8319, 12.5453, 113.713, -48.8723
0.063873, -1, 39.6249, 32.446, 11.8318, 12.5453, 113.713, -48.8724
0.07181, -1, 39.6179, 32.4439, 11.8318, 12.5453, 113.712, -48.873
0.07979, -1, 39.6071, 32.4399, 11.8317, 12.5453, 113.712, -48.8757
0.088481, -1, 39.5909, 32.4331, 11.8317, 12.5453, 113.709, -48.8833
0.095801, -1, 39.567, 32.4225, 11.8319, 12.5453, 113.704, -48.8988
0.103779, -1, 39.5335, 32.4076, 11.8329, 12.5453, 113.695, -48.9253
0.112649, -1, 39.4898, 32.387, 11.8363, 12.5453, 113.679, -48.9667
0.119932, -1, 39.4343, 32.3599, 11.8428, 12.5453, 113.656, -49.0272
0.126707, -1, 39.4016, 32.3439, 11.8475, 12.5453, 113.641, -49.0659
0.136957, -1, 39.2834, 32.2842, 11.8685, 12.5455, 113.582, -49.2167
0.144093, -1, 39.1874, 32.2347, 11.8887, 12.5459, 113.531, -49.3494
0.150715, -1, 39.1341, 32.2069, 11.9005, 12.5463, 113.501, -49.4251
0.161014, -1, 38.9534, 32.112, 11.9421, 12.5479, 113.397, -49.6886
0.168261, -1, 38.8165, 32.0398, 11.9744, 12.5497, 113.316, -49.8911
0.176662, -1, 38.6678, 31.9615, 12.0097, 12.5517, 113.229, -50.1114
0.185106, -1, 38.5083, 31.8776, 12.0468, 12.5539, 113.137, -50.3456
0.190792, -1, 38.4249, 31.834, 12.0658, 12.5551, 113.089, -50.4669
0.330662, -1, 35.1146, 30.1365, 12.7456, 12.5992, 111.298, -54.9964
0.331849, -1, 35.1146, 30.1365, 12.7456, 12.5992, 111.298, -54.9964
0.333912, -1, 35.0185, 30.0873, 12.7651, 12.6004, 111.247, -55.1269
0.335125, -1, 35.0185, 30.0873, 12.7651, 12.6004, 111.247, -55.1269
0.336415, -1, 35.0185, 30.0873, 12.7651, 12.6004, 111.247, -55.1269
0.338561, -1, 34.9224, 30.0381, 12.7846, 12.6018, 111.195, -55.2572
0.339765, -1, 34.9224, 30.0381, 12.7846, 12.6018, 111.195, -55.2572
0.342809, -1, 34.8263, 29.9888, 12.804, 12.6031, 111.143, -55.3874
0.344048, -1, 34.8263, 29.9888, 12.804, 12.6031, 111.143, -55.3874
0.346845, -1, 34.7302, 29.9396, 12.8234, 12.6044, 111.092, -55.5177
0.348154, -1, 34.7302, 29.9396, 12.8234, 12.6044, 111.092, -55.5177
0.350164, -1, 34.6339, 29.8903, 12.8428, 12.6057, 111.04, -55.6482
0.351485, -1, 34.6339, 29.8903, 12.8428, 12.6057, 111.04, -55.6482
0.352683, -1, 34.6339, 29.8903, 12.8428, 12.6057, 111.04, -55.6482
0.354745, -1, 34.5378, 29.841, 12.8623, 12.6069, 110.989, -55.7785
0.356466, -1, 34.5378, 29.841, 12.8623, 12.6069, 110.989, -55.7785
0.358546, -1, 34.4417, 29.7918, 12.8818, 12.6082, 110.938, -55.9089
0.359836, -1, 34.4417, 29.7918, 12.8818, 12.6082, 110.938, -55.9089
0.361682, -1, 34.4417, 29.7426, 12.9013, 12.6095, 110.886, -56.0394
0.363137, -1, 34.3456, 29.7426, 12.9013, 12.6095, 110.886, -56.0394
0.364332, -1, 34.3456, 29.7426, 12.9013, 12.6095, 110.886, -56.0394
0.367736, -1, 34.2496, 29.6934, 12.9207, 12.6108, 110.834, -56.17
0.37572, -1, 34.0576, 29.5951, 12.9596, 12.6134, 110.731, -56.4308
0.383694, -1, 33.8659, 29.4969, 12.9986, 12.6161, 110.628, -56.6915
0.391738, -1, 33.6742, 29.3985, 13.0374, 12.6188, 110.525, -56.9524
0.399694, -1, 33.4822, 29.3002, 13.0763, 12.6213, 110.422, -57.2135
0.40771, -1, 33.2898, 29.2018, 13.1153, 12.624, 110.319, -57.4747
0.415777, -1, 33.0972, 29.1031, 13.1542, 12.6265, 110.216, -57.7356
0.4237, -1, 32.9043, 29.0046, 13.193, 12.6292, 110.113, -57.9966
0.43169, -1, 32.7111, 28.906, 13.232, 12.6319, 110.01, -58.2578
0.439774, -1, 32.5177, 28.8073, 13.2708, 12.6346, 109.907, -58.5191
0.447701, -1, 32.324, 28.7086, 13.3097, 12.6372, 109.804, -58.7802
0.455692, -1, 32.1299, 28.6099, 13.3486, 12.6399, 109.701, -59.0412
0.463802, -1, 31.9359, 28.5111, 13.3875, 12.6426, 109.597, -59.3025
0.47168, -1, 31.7421, 28.4123, 13.4265, 12.6453, 109.494, -59.564
0.47977, -1, 31.5486, 28.3136, 13.4655, 12.6481, 109.391, -59.8251
0.487789, -1, 31.3553, 28.215, 13.5044, 12.6509, 109.288, -60.0864
0.49569, -1, 31.1626, 28.1165, 13.5434, 12.6537, 109.185, -60.3477
0.503704, -1, 30.9701, 28.018, 13.5825, 12.6565, 109.082, -60.6094
0.512021, -1, 30.778, 27.9194, 13.6214, 12.6593, 108.979, -60.8707
0.519697, -1, 30.5861, 27.8209, 13.6605, 12.6621, 108.876, -61.1318
0.527796, -1, 30.3941, 27.7222, 13.6994, 12.6649, 108.772, -61.3933
0.536649, -1, 30.202, 27.6234, 13.7384, 12.6677, 108.669, -61.6549
0.543788, -1, 30.0096, 27.5247, 13.7774, 12.6704, 108.566, -61.9167
0.551845, -1, 29.8168, 27.4259, 13.8164, 12.6731, 108.463, -62.1783
0.560633, -1, 29.6235, 27.3271, 13.8552, 12.6757, 108.36, -62.44
0.567809, -1, 29.4296, 27.2284, 13.8941, 12.6784, 108.256, -62.7017
0.575869, -1, 29.2355, 27.1296, 13.9331, 12.6809, 108.153, -62.9635
0.585053, -1, 29.0411, 27.0307, 13.9721, 12.6835, 108.05, -63.2249
0.591729, -1, 28.8468, 26.9317, 14.0111, 12.6861, 107.946, -63.4863
0.600577, -1, 28.6526, 26.8329, 14.05, 12.6886, 107.843, -63.7479
0.60787, -1, 28.4586, 26.7341, 14.0891, 12.6911, 107.74, -64.0097
0.615877, -1, 28.2649, 26.6354, 14.1282, 12.6935, 107.636, -64.2712
0.624711, -1, 28.0717, 26.5366, 14.1671, 12.696, 107.533, -64.5329
0.631975, -1, 27.8789, 26.4378, 14.2061, 12.6984, 107.43, -64.7947
0.640107, -1, 27.6862, 26.339, 14.2451, 12.7009, 107.326, -65.0567
0.648919, -1, 27.4939, 26.2401, 14.284, 12.7033, 107.223, -65.3183
0.656249, -1, 27.3019, 26.141, 14.3231, 12.7057, 107.12, -65.5798
0.664244, -1, 27.1096, 26.0421, 14.362, 12.7079, 107.016, -65.8415
0.673073, -1, 26.917, 25.9432, 14.4009, 12.7103, 106.913, -66.1034
0.680259, -1, 26.7241, 25.8443, 14.4399, 12.7126, 106.81, -66.3652
0.68829, -1, 26.5308, 25.7455, 14.4788, 12.7148, 106.706, -66.6269
0.697115, -1, 26.434, 25.6961, 14.5177, 12.7171, 106.603, -66.8887
0.702798, -1, 26.2401, 25.5973, 14.5372, 12.7182, 106.552, -67.0196
0.712292, -1, 26.046, 25.4984, 14.5762, 12.7205, 106.448, -67.2816
0.719756, -1, 25.8517, 25.3995, 14.6151, 12.7228, 106.345, -67.5432
0.726758, -1, 25.6575, 25.3007, 14.6541, 12.7251, 106.242, -67.8047
0.735736, -1, 25.4635, 25.202, 14.6931, 12.7273, 106.139, -68.0664
0.743688, -1, 25.2698, 25.1033, 14.732, 12.7297, 106.036, -68.3282
0.75173, -1, 25.0763, 25.0046, 14.7711, 12.732, 105.932, -68.59
0.759749, -1, 24.8831, 24.9057, 14.8101, 12.7343, 105.829, -68.8515
0.767719, -1, 24.6903, 24.807, 14.849, 12.7367, 105.726, -69.1133
0.774691, -1, 24.4978, 24.708, 14.888, 12.7391, 105.623, -69.375
0.912073, -1, 21.2154, 23.0285, 15.5502, 12.7814, 103.866, -73.8223
0.914749, -1, 21.2154, 23.0285, 15.5502, 12.7814, 103.815, -73.9531
0.916109, -1, 21.1192, 22.9792, 15.5697, 12.7827, 103.815, -73.9531
0.917304, -1, 21.1192, 22.9792, 15.5697, 12.7827, 103.815, -73.9531
0.919467, -1, 21.023, 22.9299, 15.5891, 12.7841, 103.763, -74.0837
0.920783, -1, 21.023, 22.9299, 15.5891, 12.7841, 103.763, -74.0837
0.923948, -1, 20.9267, 22.8806, 15.6086, 12.7854, 103.712, -74.2143
0.926926, -1, 20.8305, 22.8313, 15.628, 12.7868, 103.66, -74.3448
0.928161, -1, 20.8305, 22.8313, 15.628, 12.7868, 103.66, -74.3448
0.929338, -1, 20.8305, 22.8313, 15.628, 12.7868, 103.66, -74.3448
0.931405, -1, 20.7343, 22.782, 15.6475, 12.7882, 103.608, -74.4754
0.932676, -1, 20.7343, 22.782, 15.6475, 12.7882, 103.608, -74.4754
0.934698, -1, 20.6381, 22.7327, 15.667, 12.7895, 103.557, -74.606
0.936029, -1, 20.6381, 22.7327, 15.667, 12.7895, 103.557, -74.606
0.937216, -1, 20.6381, 22.7327, 15.667, 12.7895, 103.557, -74.606
0.940072, -1, 20.5417, 22.6834, 15.6864, 12.7908, 103.505, -74.7367
0.941286, -1, 20.5417, 22.6834, 15.6864, 12.7908, 103.505, -74.7367
0.943422, -1, 20.4452, 22.634, 15.7058, 12.7922, 103.454, -74.8673
0.944689, -1, 20.4452, 22.634, 15.7058, 12.7922, 103.454, -74.8673
0.946794, -1, 20.3486, 22.5847, 15.7252, 12.7936, 103.402, -74.998
0.948904, -1, 20.3486, 22.5847, 15.7252, 12.7936, 103.402, -74.998
0.951732, -1, 20.2518, 22.5353, 15.7447, 12.795, 103.351, -75.1287
0.961677, -1, 20.058, 22.4366, 15.7837, 12.7977, 103.248, -75.3899
0.9677, -1, 19.8644, 22.3379, 15.8225, 12.8005, 103.145, -75.651
0.975703, -1, 19.6707, 22.2393, 15.8613, 12.8031, 103.042, -75.9122
0.983767, -1, 19.4772, 22.1407, 15.9002, 12.8059, 102.939, -76.1735
0.991678, -1, 19.284, 22.0421, 15.9391, 12.8086, 102.836, -76.4345
0.999755, -1, 19.0911, 21.9434, 15.978, 12.8114, 102.733, -76.6953
1.00775, -1, 18.8985, 21.8448, 16.0168, 12.8142, 102.63, -76.9561
1.01569, -1, 18.7061, 21.7461, 16.0556, 12.8168, 102.527, -77.2173
1.02385, -1, 18.5143, 21.6474, 16.0944, 12.8196, 102.424, -77.4783
1.03172, -1, 18.3224, 21.5489, 16.1334, 12.8222, 102.321, -77.739
1.03989, -1, 18.1305, 21.4504, 16.1721, 12.8248, 102.218, -77.9997
1.04806, -1, 17.9386, 21.3519, 16.211, 12.8274, 102.115, -78.2606
1.05579, -1, 17.7467, 21.2536, 16.2499, 12.8299, 102.012, -78.5212
1.06378, -1, 17.5545, 21.1552, 16.2887, 12.8323, 101.909, -78.7817
1.07225, -1, 17.3619, 21.0569, 16.3276, 12.8348, 101.806, -79.0421
1.07983, -1, 17.1689, 20.9586, 16.3664, 12.8372, 101.703, -79.3027
1.08768, -1, 16.9758, 20.8603, 16.4051, 12.8397, 101.601, -79.5634
1.09648, -1, 16.7827, 20.7621, 16.444, 12.842, 101.498, -79.8238
1.10372, -1, 16.5897, 20.6639, 16.4827, 12.8443, 101.395, -80.0843
1.11176, -1, 16.3967, 20.5657, 16.5214, 12.8467, 101.293, -80.3448
1.12074, -1, 16.2041, 20.4674, 16.5602, 12.8489, 101.19, -80.6055
1.12787, -1, 16.0121, 20.369, 16.5989, 12.8513, 101.087, -80.8658
1.13603, -1, 15.8203, 20.2706, 16.6376, 12.8536, 100.985, -81.1258
1.14268, -1, 15.7244, 20.2213, 16.657, 12.8547, 100.933, -81.2558
1.15074, -1, 15.5332, 20.1229, 16.6956, 12.8571, 100.83, -81.5159
1.16025, -1, 15.2464, 19.9755, 16.7536, 12.8606, 100.677, -81.9061
1.16911, -1, 15.0553, 19.8772, 16.7924, 12.8628, 100.574, -82.1658
1.17472, -1, 14.9597, 19.8281, 16.8118, 12.864, 100.523, -82.2957
1.18427, -1, 14.6726, 19.6809, 16.8698, 12.8674, 100.369, -82.6857
1.19307, -1, 14.481, 19.5828, 16.9085, 12.8697, 100.266, -82.9456
1.2003, -1, 14.2889, 19.4847, 16.9471, 12.872, 100.164, -83.2052
1.20839, -1, 14.0966, 19.3867, 16.9859, 12.8742, 100.061, -83.4647
1.21568, -1, 14.0004, 19.3377, 17.0052, 12.8753, 100.01, -83.5945
1.22273, -1, 13.808, 19.2399, 17.0437, 12.8777, 99.9074, -83.8541
1.23173, -1, 13.6155, 19.1421, 17.0824, 12.8799, 99.805, -84.1137
1.23973, -1, 13.4231, 19.0442, 17.1211, 12.8823, 99.7024, -84.3729
1.24672, -1, 13.2311, 18.9463, 17.1596, 12.8845, 99.6003, -84.6321
1.25572, -1, 13.0395, 18.8484, 17.1982, 12.887, 99.4978, -84.8915
1.26367, -1, 12.8483, 18.7504, 17.2368, 12.8893, 99.3953, -85.1509
1.27169, -1, 12.6573, 18.6524, 17.2753, 12.8916, 99.2932, -85.4098
1.27976, -1, 12.4667, 18.5546, 17.3139, 12.8941, 99.1908, -85.6687
1.28774, -1, 12.2765, 18.4569, 17.3525, 12.8965, 99.0885, -85.9276
1.29573, -1, 12.0864, 18.3592, 17.3909, 12.899, 98.9866, -86.1866
1.30369, -1, 11.8961, 18.2615, 17.4296, 12.9013, 98.8844, -86.4453
1.31209, -1, 11.7056, 18.1639, 17.4682, 12.9037, 98.7825, -86.7038
1.31974, -1, 11.5147, 18.0662, 17.5066, 12.9062, 98.6808, -86.9625
1.32767, -1, 11.3237, 17.9686, 17.5452, 12.9087, 98.5787, -87.2212
1.33721, -1, 11.1323, 17.871, 17.5838, 12.9111, 98.4768, -87.4797
1.34367, -1, 10.9409, 17.7736, 17.6222, 12.9136, 98.375, -87.7378
1.35268, -1, 10.7492, 17.6761, 17.6607, 12.9161, 98.2729, -87.9961
1.36051, -1, 10.5576, 17.5786, 17.6991, 12.9187, 98.1711, -88.2544
1.36766, -1, 10.3663, 17.4811, 17.7375, 12.9212, 98.0693, -88.5128
1.37575, -1, 10.1753, 17.3837, 17.776, 12.9237, 97.9674, -88.7707
1.38445, -1, 9.98463, 17.2861, 17.8143, 12.9264, 97.8656, -89.0288
1.39167, -1, 9.79433, 17.1885, 17.8526, 12.929, 97.7636, -89.2871
1.39973, -1, 9.60438, 17.091, 17.891, 12.9316, 97.6616, -89.5453
1.40847, -1, 9.41504, 16.9937, 17.9293, 12.9344, 97.5599, -89.8029
1.41567, -1, 9.22576, 16.8963, 17.9677, 12.9371, 97.4578, -90.0606
1.42367, -1, 9.03646, 16.799, 18.006, 12.9398, 97.356, -90.3181
1.43257, -1, 8.847, 16.7019, 18.0443, 12.9425, 97.2544, -90.5757
1.43883, -1, 8.65746, 16.6047, 18.0828, 12.945, 97.1526, -90.8332
1.44767, -1, 8.46782, 16.5075, 18.1212, 12.9477, 97.051, -91.0902
1.45646, -1, 8.27779, 16.4104, 18.1594, 12.9505, 96.9497, -91.3474
1.46366, -1, 8.08734, 16.3135, 18.1978, 12.953, 96.848, -91.6047
1.4717, -1, 7.89685, 16.2166, 18.2361, 12.9557, 96.7464, -91.8619
1.48057, -1, 7.70633, 16.1198, 18.2743, 12.9584, 96.6451, -92.1186
1.48768, -1, 7.51577, 16.0228, 18.3127, 12.9609, 96.5435, -92.3752
1.49569, -1, 7.32551, 15.9259, 18.3509, 12.9636, 96.4422, -92.632
1.50444, -1, 7.13548, 15.829, 18.389, 12.9661, 96.341, -92.8889
1.51167, -1, 6.94577, 15.732, 18.4273, 12.9687, 96.2396, -93.1453
1.51986, -1, 6.7566, 15.6351, 18.4655, 12.9712, 96.1386, -93.4017
1.52846, -1, 6.56794, 15.5383, 18.5035, 12.9737, 96.0378, -93.6581
1.53571, -1, 6.37957, 15.4415, 18.5417, 12.9762, 95.9367, -93.9147
1.54403, -1, 6.19139, 15.3448, 18.5799, 12.9788, 95.8357, -94.1709
1.55266, -1, 6.00322, 15.2481, 18.618, 12.9812, 95.7348, -94.4267
1.55981, -1, 5.81483, 15.1514, 18.6562, 12.9834, 95.6339, -94.6826
1.56816, -1, 5.62643, 15.0547, 18.6943, 12.9858, 95.533, -94.9387
1.57622, -1, 5.53214, 15.0064, 18.7323, 12.9881, 95.4324, -95.1945
1.58373, -1, 5.24892, 14.8616, 18.7705, 12.9904, 95.3315, -95.4499
1.59239, -1, 5.05958, 14.7652, 18.8086, 12.9926, 95.231, -95.7054
1.60062, -1, 4.87021, 14.6689, 18.8466, 12.995, 95.1303, -95.9608
1.60769, -1, 4.68083, 14.5725, 18.8847, 12.9971, 95.0294, -96.2163
1.61659, -1, 4.49145, 14.4762, 18.9228, 12.9993, 94.9288, -96.4713
1.62532, -1, 4.30242, 14.3798, 18.9608, 13.0015, 94.8279, -96.7262
1.63187, -1, 4.11357, 14.2834, 18.9988, 13.0037, 94.727, -96.9814
1.64085, -1, 3.92524, 14.1871, 19.0367, 13.0061, 94.6263, -97.2364
1.64797, -1, 3.73751, 14.0909, 19.0747, 13.0082, 94.5255, -97.4911
1.65612, -1, 3.55019, 13.9948, 19.1126, 13.0105, 94.4247, -97.7457
1.66412, -1, 3.36319, 13.8987, 19.1505, 13.0128, 94.3243, -98.0005
1.67231, -1, 3.1762, 13.8027, 19.1883, 13.0151, 94.2234, -98.2553
1.67865, -1, 3.08269, 13.7547, 19.2072, 13.0162, 94.1731, -98.3827
1.68825, -1, 2.80222, 13.6106, 19.2641, 13.0196, 94.0223, -98.7641
1.69624, -1, 2.61503, 13.5146, 19.302, 13.0219, 93.9217, -99.0182
1.70429, -1, 2.42759, 13.4186, 19.3398, 13.0242, 93.8212, -99.2724
1.71242, -1, 2.33385, 13.3706, 19.3587, 13.0264, 93.721, -99.5265
1.71966, -1, 2.14601, 13.2749, 19.3965, 13.0276, 93.6708, -99.6535
1.7277, -1, 1.95786, 13.1791, 19.4344, 13.0298, 93.5706, -99.9071
1.73567, -1, 1.76978, 13.0832, 19.4721, 13.0321, 93.4708, -100.161
1.74365, -1, 1.58149, 12.9874, 19.5098, 13.0343, 93.3705, -100.414
1.75066, -1, 1.3934, 12.8916, 19.5477, 13.0365, 93.2705, -100.668
1.7597, -1, 1.2056, 12.7957, 19.5854, 13.0388, 93.1706, -100.921
1.76765, -1, 1.01818, 12.7, 19.6231, 13.0412, 93.0705, -101.174
1.77571, -1, 0.831485, 12.6044, 19.6609, 13.0436, 92.9705, -101.427
1.78365, -1, 0.645193, 12.5088, 19.6984, 13.046, 92.871, -101.68
1.79167, -1, 0.459261, 12.4134, 19.736, 13.0484, 92.7711, -101.933
1.7997, -1, 0.273531, 12.318, 19.7737, 13.0509, 92.6714, -102.186
1.80765, -1, 0.0880377, 12.2226, 19.8113, 13.0533, 92.5721, -102.439
1.81565, -1, -0.0973426, 12.1273, 19.8489, 13.0558, 92.4723, -102.691
1.82374, -1, -0.283006, 12.032, 19.8866, 13.0582, 92.3728, -102.944
1.83167, -1, -0.468931, 11.9368, 19.9242, 13.0608, 92.2736, -103.196
1.83965, -1, -0.655112, 11.8418, 19.9617, 13.0632, 92.174, -103.448
1.84772, -1, -0.841506, 11.7468, 19.9993, 13.0657, 92.0745, -103.7
1.85672, -1, -1.02815, 11.6517, 20.0367, 13.0682, 91.9753, -103.952
1.86365, -1, -1.2151, 11.5566, 20.0741, 13.0707, 91.8759, -104.204
1.87168, -1, -1.40204, 11.4616, 20.1117, 13.0732, 91.7766, -104.455
1.87971, -1, -1.58876, 11.3664, 20.1492, 13.0758, 91.6776, -104.707
1.88771, -1, -1.77513, 11.2713, 20.1866, 13.0784, 91.5783, -104.959
1.89569, -1, -1.96113, 11.1763, 20.2241, 13.081, 91.4792, -105.21
1.90366, -1, -2.14651, 11.0814, 20.2614, 13.0836, 91.3801, -105.461
1.91171, -1, -2.33145, 10.9865, 20.2988, 13.0862, 91.2808, -105.712
1.91965, -1, -2.51614, 10.8917, 20.3362, 13.0889, 91.1817, -105.963
1.92767, -1, -2.70032, 10.7969, 20.3734, 13.0915, 91.0826, -106.214
1.93571, -1, -2.88422, 10.7021, 20.4108, 13.0942, 90.9836, -106.465
1.94365, -1, -3.06819, 10.6074, 20.4482, 13.0968, 90.8847, -106.715
1.95169, -1, -3.25231, 10.5128, 20.4854, 13.0995, 90.7858, -106.966
1.95971, -1, -3.43681, 10.4182, 20.5227, 13.102, 90.6869, -107.216
1.96768, -1, -3.62157, 10.3238, 20.5599, 13.1045, 90.5881, -107.467
1.97567, -1, -3.8065, 10.2295, 20.5972, 13.1071, 90.4892, -107.717
1.98372, -1, -3.99175, 10.1351, 20.6345, 13.1095, 90.3905, -107.967
1.99167, -1, -4.17714, 10.0409, 20.6717, 13.1119, 90.2918, -108.217
1.99973, -1, -4.36283, 9.9466, 20.7088, 13.1142, 90.1932, -108.467
2.00766, -1, -4.54829, 9.85223, 20.7461, 13.1166, 90.0946, -108.716
2.01572, -1, -4.73334, 9.75801, 20.7833, 13.119, 89.9962, -108.965
2.02381, -1, -4.91812, 9.66379, 20.8203, 13.1214, 89.8977, -109.215
2.03177, -1, -5.10228, 9.56974, 20.8574, 13.1238, 89.7992, -109.464
2.03981, -1, -5.28575, 9.47566, 20.8946, 13.1261, 89.7009, -109.713
2.04796, -1, -5.46893, 9.38171, 20.9316, 13.1284, 89.6025, -109.962
2.05574, -1, -5.65163, 9.28778, 20.9687, 13.1307, 89.5041, -110.211
2.06387, -1, -5.83396, 9.19386, 21.0058, 13.133, 89.4061, -110.46
2.07209, -1, -6.01633, 9.09998, 21.0427, 13.1353, 89.3079, -110.709
2.0793, -1, -6.19891, 9.00612, 21.0797, 13.1375, 89.2098, -110.957
2.08783, -1, -6.38175, 8.91245, 21.1168, 13.1398, 89.1122, -111.205
2.09654, -1, -6.56477, 8.81879, 21.1536, 13.1419, 89.0141, -111.454
2.10375, -1, -6.74815, 8.72515, 21.1904, 13.144, 88.9161, -111.702
2.11176, -1, -6.93192, 8.63156, 21.2274, 13.1462, 88.8183, -111.95
2.1206, -1, -7.11589, 8.538, 21.2642, 13.1483, 88.7203, -112.198
2.12782, -1, -7.3002, 8.44443, 21.3011, 13.1504, 88.6226, -112.445
2.13593, -1, -7.48415, 8.35076, 21.338, 13.1526, 88.525, -112.693
2.14486, -1, -7.66786, 8.25722, 21.3748, 13.1547, 88.4272, -112.941
2.15201, -1, -7.85111, 8.16381, 21.4116, 13.1569, 88.3298, -113.188
2.15865, -1, -7.94261, 8.1171, 21.43, 13.1581, 88.2811, -113.311
2.16893, -1, -8.21622, 7.97701, 21.4852, 13.1614, 88.1351, -113.682
2.17621, -1, -8.39779, 7.88376, 21.522, 13.1637, 88.0376, -113.929
2.18424, -1, -8.57891, 7.79051, 21.5589, 13.1659, 87.9404, -114.176
2.19302, -1, -8.75979, 7.69736, 21.5957, 13.1682, 87.843, -114.422
2.20025, -1, -8.94048, 7.60425, 21.6324, 13.1704, 87.7454, -114.669
2.20828, -1, -9.12142, 7.51116, 21.6692, 13.1727, 87.6483, -114.915
2.21711, -1, -9.21199, 7.46469, 21.6875, 13.1739, 87.551, -115.162
2.22273, -1, -9.39327, 7.37188, 21.7242, 13.176, 87.5025, -115.285
2.23269, -1, -9.66586, 7.23261, 21.7792, 13.1794, 87.3569, -115.654
2.23968, -1, -9.75686, 7.18624, 21.7976, 13.1805, 87.3083, -115.777
2.24672, -1, -9.93925, 7.09348, 21.8341, 13.1827, 87.211, -116.023
2.25564, -1, -10.1217, 7.00072, 21.8707, 13.1849, 87.1138, -116.269
2.26364, -1, -10.3043, 6.90796, 21.9073, 13.1871, 87.0167, -116.515
2.27067, -1, -10.4869, 6.81517, 21.9439, 13.1893, 86.9195, -116.76
2.27964, -1, -10.6692, 6.72248, 21.9805, 13.1916, 86.8225, -117.006
2.28764, -1, -10.851, 6.62986, 22.0169, 13.194, 86.7257, -117.251
2.2957, -1, -11.0323, 6.53727, 22.0533, 13.1964, 86.6288, -117.496
2.30365, -1, -11.2127, 6.44475, 22.0899, 13.1987, 86.5321, -117.741
2.31164, -1, -11.3926, 6.35225, 22.1265, 13.2012, 86.4356, -117.986
2.31864, -1, -11.5721, 6.25984, 22.1629, 13.2036, 86.3388, -118.231
2.32765, -1, -11.7514, 6.16741, 22.1994, 13.2061, 86.2421, -118.476
2.33564, -1, -11.9307, 6.07513, 22.2359, 13.2085, 86.1455, -118.72
2.34464, -1, -12.11, 5.98288, 22.2723, 13.211, 86.0489, -118.964
2.35164, -1, -12.2895, 5.8908, 22.3087, 13.2135, 85.9525, -119.208
2.36065, -1, -12.4695, 5.7988, 22.3451, 13.216, 85.8563, -119.453
2.3677, -1, -12.6497, 5.70676, 22.3813, 13.2185, 85.7599, -119.697
2.37567, -1, -12.8304, 5.61481, 22.4177, 13.221, 85.6637, -119.94
2.3837, -1, -13.0113, 5.52292, 22.4541, 13.2234, 85.568, -120.184
2.39175, -1, -13.1926, 5.43089, 22.4903, 13.2259, 85.4719, -120.428
2.40072, -1, -13.3738, 5.33888, 22.5266, 13.2283, 85.376, -120.672
2.40763, -1, -13.5546, 5.24696, 22.5629, 13.2308, 85.2804, -120.915
2.4157, -1, -13.735, 5.15512, 22.599, 13.2333, 85.1845, -121.158
2.42434, -1, -13.915, 5.06325, 22.6351, 13.2359, 85.0887, -121.401
2.4317, -1, -14.094, 4.97149, 22.6714, 13.2385, 84.9933, -121.644
2.43963, -1, -14.2724, 4.87978, 22.7074, 13.2411, 84.8975, -121.887
2.44837, -1, -14.4506, 4.78814, 22.7435, 13.2437, 84.8019, -122.129
2.4557, -1, -14.6283, 4.69651, 22.7798, 13.2461, 84.7065, -122.372
2.46363, -1, -14.806, 4.60495, 22.8159, 13.2486, 84.6106, -122.614
2.47237, -1, -14.9836, 4.51349, 22.852, 13.2511, 84.5149, -122.857
2.47969, -1, -15.1614, 4.42215, 22.8882, 13.2535, 84.4194, -123.099
2.48764, -1, -15.3396, 4.33086, 22.9243, 13.256, 84.3237, -123.34
2.49641, -1, -15.5183, 4.23953, 22.9603, 13.2584, 84.228, -123.582
2.50367, -1, -15.6974, 4.14825, 22.9963, 13.2606, 84.1327, -123.824
2.51164, -1, -15.8766, 4.05705, 23.0323, 13.2629, 84.0371, -124.066
2.52044, -1, -16.0559, 3.96578, 23.0682, 13.2651, 83.9416, -124.307
2.52765, -1, -16.2358, 3.87447, 23.1043, 13.2672, 83.8464, -124.549
2.53566, -1, -16.4154, 3.78325, 23.1403, 13.2694, 83.7508, -124.79
2.5454, -1, -16.5946, 3.69209, 23.176, 13.2715, 83.6553, -125.031
2.55179, -1, -16.7733, 3.60097, 23.212, 13.2738, 83.5601, -125.273
2.55981, -1, -16.9513, 3.50994, 23.2478, 13.2761, 83.4645, -125.514
2.56804, -1, -17.1285, 3.41897, 23.2836, 13.2783, 83.3693, -125.754
2.57574, -1, -17.3052, 3.32803, 23.3195, 13.2805, 83.2742, -125.995
2.58382, -1, -17.4816, 3.23717, 23.3553, 13.2827, 83.179, -126.235
2.59315, -1, -17.6578, 3.14642, 23.3911, 13.2848, 83.084, -126.476
2.59966, -1, -17.8337, 3.05581, 23.4271, 13.2869, 82.9894, -126.716
2.60773, -1, -18.0098, 2.96528, 23.4629, 13.289, 82.8945, -126.956
2.61722, -1, -18.1862, 2.87489, 23.4985, 13.2912, 82.7997, -127.197
2.62372, -1, -18.3629, 2.78446, 23.5344, 13.2933, 82.7051, -127.436
2.63185, -1, -18.5402, 2.69406, 23.5701, 13.2953, 82.6103, -127.676
2.64156, -1, -18.7178, 2.60365, 23.6057, 13.2973, 82.5157, -127.915
2.64794, -1, -18.8957, 2.51327, 23.6415, 13.2994, 82.4213, -128.155
2.65603, -1, -19.0739, 2.42275, 23.6771, 13.3014, 82.3268, -128.395
2.66263, -1, -19.163, 2.37754, 23.6949, 13.3023, 82.2796, -128.514
2.67212, -1, -19.4302, 2.24194, 23.7483, 13.3054, 82.1384, -128.873
2.67862, -1, -19.5189, 2.19675, 23.7661, 13.3065, 82.0915, -128.993
2.68988, -1, -19.7843, 2.06121, 23.8192, 13.3098, 81.9501, -129.351
2.69621, -1, -19.9604, 1.97092, 23.8547, 13.3119, 81.8559, -129.59
2.7042, -1, -20.0482, 1.88069, 23.8903, 13.3141, 81.762, -129.829
2.71299, -1, -20.2233, 1.83557, 23.908, 13.3163, 81.6679, -130.067
2.72036, -1, -20.4856, 1.7004, 23.9612, 13.3185, 81.5739, -130.305
2.72764, -1, -20.5729, 1.65539, 23.979, 13.3196, 81.5271, -130.425
2.73562, -1, -20.7473, 1.56542, 24.0145, 13.3218, 81.433, -130.663
2.74262, -1, -20.9219, 1.47555, 24.0499, 13.324, 81.3393, -130.901
2.75162, -1, -21.0969, 1.38583, 24.0854, 13.3261, 81.2457, -131.139
2.75963, -1, -21.2723, 1.29607, 24.1209, 13.3284, 81.1518, -131.376
2.76767, -1, -21.4481, 1.20636, 24.1562, 13.3305, 81.0579, -131.614
2.77562, -1, -21.6241, 1.11674, 24.1916, 13.3327, 80.9642, -131.852
2.78363, -1, -21.8002, 1.02711, 24.227, 13.3349, 80.8703, -132.089
2.79162, -1, -21.9767, 0.937467, 24.2623, 13.337, 80.7765, -132.327
2.79963, -1, -22.1533, 0.847896, 24.2977, 13.3392, 80.6829, -132.564
2.80762, -1, -22.3298, 0.758376, 24.333, 13.3414, 80.5892, -132.801
2.81562, -1, -22.5058, 0.668877, 24.3682, 13.3437, 80.4957, -133.038
2.82369, -1, -22.6814, 0.579417, 24.4034, 13.346, 80.4021, -133.275
2.83163, -1, -22.8563, 0.489982, 24.4387, 13.3484, 80.3085, -133.512
2.83966, -1, -23.0303, 0.400564, 24.4738, 13.3508, 80.2149, -133.748
2.84862, -1, -23.204, 0.311222, 24.5089, 13.3533, 80.1214, -133.985
2.85563, -1, -23.3773, 0.221849, 24.5441, 13.3557, 80.028, -134.222
2.86463, -1, -23.5504, 0.132645, 24.5793, 13.3581, 79.9346, -134.458
2.87169, -1, -23.7236, 0.0435053, 24.6144, 13.3604, 79.8413, -134.694
2.87965, -1, -23.897, -0.0455455, 24.6496, 13.363, 79.7483, -134.93
2.88769, -1, -24.0705, -0.134464, 24.6847, 13.3654, 79.6549, -135.166
2.89571, -1, -24.2444, -0.223444, 24.7197, 13.3679, 79.5619, -135.402
2.90369, -1, -24.4185, -0.312372, 24.7549, 13.3703, 79.4691, -135.638
2.91169, -1, -24.5929, -0.401236, 24.7899, 13.3726, 79.3758, -135.873
2.91972, -1, -24.7677, -0.490152, 24.8249, 13.3751, 79.2828, -136.109
2.92763, -1, -24.9428, -0.57903, 24.86, 13.3775, 79.1899, -136.344
2.93568, -1, -25.1178, -0.667852, 24.895, 13.3799, 79.0968, -136.579
2.94362, -1, -25.2925, -0.756587, 24.9299, 13.3822, 79.004, -136.814
2.95166, -1, -25.4668, -0.84538, 24.9649, 13.3847, 78.9115, -137.049
2.9597, -1, -25.6407, -0.934142, 24.9999, 13.3872, 78.8186, -137.285
2.96762, -1, -25.8139, -1.02282, 25.0347, 13.3895, 78.7259, -137.519
2.97563, -1, -25.9865, -1.11154, 25.0696, 13.3919, 78.6337, -137.754
2.98377, -1, -26.1588, -1.20023, 25.1046, 13.3944, 78.541, -137.988
2.99162, -1, -26.3307, -1.28879, 25.1394, 13.3968, 78.4485, -138.223
2.99964, -1, -26.5025, -1.37726, 25.1742, 13.3991, 78.356, -138.457
3.00769, -1, -26.6744, -1.46565, 25.2092, 13.4013, 78.2636, -138.692
3.01562, -1, -26.8465, -1.55391, 25.2441, 13.4036, 78.1711, -138.926
3.02376, -1, -27.0189, -1.64207, 25.2788, 13.4059, 78.0787, -139.159
3.03162, -1, -27.1914, -1.73025, 25.3137, 13.4081, 77.9867, -139.393
3.03973, -1, -27.3641, -1.81843, 25.3486, 13.4103, 77.8945, -139.627
3.04799, -1, -27.5372, -1.90645, 25.3833, 13.4125, 77.8025, -139.861
3.05577, -1, -27.7104, -1.99466, 25.4182, 13.4146, 77.7106, -140.094
3.06378, -1, -27.8838, -2.08277, 25.453, 13.4166, 77.6185, -140.327
3.07209, -1, -28.0571, -2.17076, 25.4877, 13.4186, 77.5264, -140.561
3.07924, -1, -28.2303, -2.25879, 25.5225, 13.4207, 77.4346, -140.794
3.08785, -1, -28.4032, -2.3469, 25.5573, 13.4227, 77.3424, -141.027
3.09624, -1, -28.5758, -2.43491, 25.5919, 13.4249, 77.2502, -141.26
3.10365, -1, -28.7478, -2.52288, 25.6266, 13.427, 77.1584, -141.493
3.11172, -1, -28.9192, -2.61091, 25.6613, 13.4292, 77.0663, -141.726
3.12061, -1, -29.0899, -2.69883, 25.6959, 13.4314, 76.9743, -141.959
3.12787, -1, -29.2605, -2.7867, 25.7305, 13.4335, 76.8827, -142.191
3.13578, -1, -29.4311, -2.87449, 25.7652, 13.4355, 76.7907, -142.423
3.14468, -1, -29.6018, -2.96213, 25.7999, 13.4375, 76.699, -142.656
3.15202, -1, -29.7728, -3.04969, 25.8344, 13.4395, 76.6071, -142.888
3.15861, -1, -29.8583, -3.09344, 25.8517, 13.4406, 76.5614, -143.005
3.16837, -1, -30.1149, -3.2247, 25.9036, 13.4437, 76.4235, -143.353
3.17613, -1, -30.2859, -3.31218, 25.9381, 13.4458, 76.3318, -143.584
3.18414, -1, -30.4573, -3.39958, 25.9728, 13.4479, 76.2404, -143.816
3.19222, -1, -30.6289, -3.48711, 26.0073, 13.4498, 76.1487, -144.048
3.20023, -1, -30.8008, -3.57458, 26.0417, 13.4519, 76.0574, -144.28
3.20831, -1, -30.9726, -3.66193, 26.0763, 13.4539, 75.9662, -144.511
3.21622, -1, -31.0585, -3.70564, 26.0936, 13.4549, 75.8747, -144.742
3.22432, -1, -31.2301, -3.793, 26.1281, 13.457, 75.7833, -144.974
3.2317, -1, -31.4015, -3.88034, 26.1625, 13.459, 75.7377, -145.089
3.23962, -1, -31.5724, -3.9676, 26.197, 13.4612, 75.6465, -145.32
3.24769, -1, -31.7428, -4.05486, 26.2314, 13.4634, 75.5552, -145.551
3.25566, -1, -31.9128, -4.14213, 26.2658, 13.4656, 75.4641, -145.782
3.2636, -1, -32.0824, -4.22932, 26.3002, 13.4678, 75.3731, -146.013
3.27162, -1, -32.2518, -4.31643, 26.3347, 13.47, 75.2819, -146.244
3.27968, -1, -32.4212, -4.40346, 26.3689, 13.4722, 75.1909, -146.474
3.28766, -1, -32.591, -4.49044, 26.4033, 13.4743, 75.1004, -146.705
3.29562, -1, -32.7606, -4.57736, 26.4378, 13.4764, 75.0093, -146.935
3.30366, -1, -32.9303, -4.66429, 26.472, 13.4786, 74.9185, -147.166
3.31161, -1, -33.1001, -4.75121, 26.5062, 13.4807, 74.8281, -147.396
3.31963, -1, -33.2699, -4.83803, 26.5406, 13.483, 74.7372, -147.626
3.32772, -1, -33.4399, -4.9249, 26.5749, 13.4852, 74.6467, -147.856
3.3356, -1, -33.6102, -5.01187, 26.6091, 13.4874, 74.5561, -148.086
3.344, -1, -33.7805, -5.09864, 26.6434, 13.4897, 74.4656, -148.316
3.35161, -1, -33.9508, -5.18538, 26.6775, 13.4919, 74.375, -148.545
3.3606, -1, -34.121, -5.27211, 26.7116, 13.4941, 74.2845, -148.775
3.36841, -1, -34.2911, -5.35885, 26.7459, 13.4964, 74.1941, -149.004
3.37461, -1, -34.4611, -5.44547, 26.7801, 13.4987, 74.1034, -149.233
3.38363, -1, -34.6305, -5.53213, 26.8142, 13.501, 74.0128, -149.463
3.39178, -1, -34.7995, -5.61878, 26.8483, 13.5034, 73.9224, -149.692
3.39964, -1, -34.968, -5.70536, 26.8825, 13.5059, 73.8318, -149.921
3.40766, -1, -35.1364, -5.79185, 26.9166, 13.5083, 73.7414, -150.15
3.41678, -1, -35.3046, -5.87829, 26.9506, 13.5107, 73.6512, -150.379
3.42361, -1, -35.4732, -5.96454, 26.9848, 13.5131, 73.5607, -150.608
3.43167, -1, -35.6418, -6.05076, 27.0189, 13.5154, 73.4703, -150.837
3.43963, -1, -35.8103, -6.13696, 27.0528, 13.5178, 73.3803, -151.065
3.44766, -1, -35.9788, -6.2231, 27.087, 13.5202, 73.2897, -151.294
3.45567, -1, -36.1473, -6.30924, 27.121, 13.5226, 73.1994, -151.522
3.46361, -1, -36.3159, -6.39541, 27.1549, 13.5251, 73.1091, -151.751
3.47161, -1, -36.4846, -6.48162, 27.1889, 13.5274, 73.0187, -151.979
3.47968, -1, -36.6535, -6.56781, 27.2229, 13.5297, 72.9283, -152.207
3.48767, -1, -36.8224, -6.65404, 27.2568, 13.532, 72.838, -152.435
3.49561, -1, -36.9914, -6.74016, 27.2907, 13.5343, 72.7481, -152.663
3.50366, -1, -37.1602, -6.82635, 27.3247, 13.5366, 72.658, -152.892
3.51167, -1, -37.3289, -6.91242, 27.3585, 13.5388, 72.5681, -153.12
3.51961, -1, -37.4972, -6.99841, 27.3923, 13.5411, 72.4784, -153.347
3.52772, -1, -37.665, -7.08445, 27.4264, 13.5434, 72.3884, -153.574
3.53561, -1, -37.8328, -7.17049, 27.4602, 13.5456, 72.2985, -153.802
3.54364, -1, -38.0003, -7.25643, 27.494, 13.5479, 72.2089, -154.03
3.55177, -1, -38.1678, -7.34233, 27.5279, 13.5501, 72.119, -154.257
3.5601, -1, -38.3353, -7.42817, 27.5618, 13.5522, 72.0293, -154.484
3.56717, -1, -38.5026, -7.51386, 27.5956, 13.5543, 71.9398, -154.711
3.57577, -1, -38.6698, -7.59956, 27.6294, 13.5564, 71.8501, -154.939
3.58371, -1, -38.8371, -7.68526, 27.6633, 13.5585, 71.7606, -155.166
3.5917, -1, -39.0044, -7.77093, 27.697, 13.5606, 71.6712, -155.393
3.59978, -1, -39.1718, -7.85654, 27.7307, 13.5626, 71.582, -155.619
3.60771, -1, -39.3393, -7.94225, 27.7646, 13.5646, 71.4925, -155.846
3.61564, -1, -39.5068, -8.02787, 27.7983, 13.5666, 71.4031, -156.073
3.62376, -1, -39.6745, -8.11343, 27.8319, 13.5685, 71.3141, -156.3
3.63183, -1, -39.8422, -8.19894, 27.8657, 13.5704, 71.2245, -156.526
3.6398, -1, -40.0097, -8.28442, 27.8994, 13.5724, 71.1353, -156.752
3.648, -1, -40.1773, -8.36981, 27.933, 13.5744, 71.0461, -156.979
3.65606, -1, -40.3446, -8.45516, 27.9667, 13.5763, 70.9566, -157.205
3.66396, -1, -40.5116, -8.54053, 28.0004, 13.5783, 70.8674, -157.431
3.67213, -1, -40.6786, -8.6259, 28.034, 13.5803, 70.7783, -157.657
3.68009, -1, -40.8453, -8.71126, 28.0676, 13.5823, 70.6892, -157.883
3.68814, -1, -41.0119, -8.7966, 28.1014, 13.5843, 70.6, -158.109
3.69625, -1, -41.1782, -8.88188, 28.135, 13.5863, 70.5109, -158.335
3.70439, -1, -41.3445, -8.96706, 28.1684, 13.5883, 70.4219, -158.561
3.71222, -1, -41.5106, -9.05223, 28.2021, 13.5903, 70.3327, -158.786
3.72028, -1, -41.5938, -9.09479, 28.2357, 13.5924, 70.2434, -159.012
3.72759, -1, -41.7601, -9.1799, 28.2525, 13.5933, 70.1989, -159.124
3.73562, -1, -41.9264, -9.26495, 28.286, 13.5953, 70.1098, -159.35
3.74365, -1, -42.0928, -9.34998, 28.3197, 13.5974, 70.0208, -159.575
3.7516, -1, -42.2591, -9.43507, 28.3533, 13.5994, 69.9319, -159.801
3.75961, -1, -42.4254, -9.52009, 28.3868, 13.6014, 69.8431, -160.026
3.76761, -1, -42.5918, -9.60506, 28.4203, 13.6035, 69.754, -160.251
3.77559, -1, -42.7581, -9.69001, 28.4538, 13.6055, 69.6651, -160.476
3.78363, -1, -42.9245, -9.77495, 28.4872, 13.6075, 69.5765, -160.701
3.79166, -1, -43.0908, -9.85986, 28.5207, 13.6095, 69.4875, -160.926
3.79961, -1, -43.257, -9.94479, 28.5542, 13.6116, 69.3989, -161.151
3.80763, -1, -43.4231, -10.0297, 28.5877, 13.6137, 69.3104, -161.375
3.8156, -1, -43.5892, -10.1146, 28.6212, 13.6157, 69.2217, -161.6
3.8236, -1, -43.7551, -10.1996, 28.6548, 13.6178, 69.1331, -161.825
3.83165, -1, -43.921, -10.2844, 28.6881, 13.62, 69.0447, -162.05
3.83962, -1, -44.0866, -10.3692, 28.7215, 13.6222, 68.9562, -162.274
3.84759, -1, -44.2519, -10.4539, 28.7551, 13.6243, 68.8675, -162.498
3.85658, -1, -44.4171, -10.5385, 28.7886, 13.6266, 68.7788, -162.723
3.86361, -1, -44.5823, -10.6231, 28.8219, 13.6288, 68.6904, -162.947
3.8716, -1, -44.7475, -10.7076, 28.8554, 13.6309, 68.6017, -163.171
3.87965, -1, -44.9128, -10.792, 28.8889, 13.6331, 68.5132, -163.395
3.88763, -1, -45.0782, -10.8765, 28.9223, 13.6353, 68.4249, -163.619
3.8956, -1, -45.2435, -10.9611, 28.9557, 13.6375, 68.3364, -163.843
3.90366, -1, -45.4087, -11.0455, 28.9891, 13.6397, 68.248, -164.067
3.91161, -1, -45.5738, -11.1299, 29.0223, 13.642, 68.1599, -164.291
3.9196, -1, -45.7392, -11.2144, 29.0556, 13.6444, 68.0715, -164.515
3.92764, -1, -45.9041, -11.2987, 29.089, 13.6467, 67.9832, -164.738
3.93561, -1, -46.0672, -11.382, 29.1224, 13.6489, 67.8947, -164.962
3.94359, -1, -46.2267, -11.4631, 29.1559, 13.6513, 67.8071, -165.184
3.95168, -1, -46.3806, -11.5404, 29.1896, 13.6537, 67.7204, -165.403
3.95969, -1, -46.5267, -11.613, 29.2226, 13.656, 67.6367, -165.614
3.96759, -1, -46.6625, -11.6798, 29.2538, 13.6582, 67.5586, -165.813
3.97564, -1, -46.7851, -11.7395, 29.282, 13.6603, 67.4873, -165.993
3.98361, -1, -46.8921, -11.7921, 29.3064, 13.6622, 67.4258, -166.148
3.99159, -1, -46.9827, -11.838, 29.3259, 13.6637, 67.3755, -166.277
3.99965, -1, -47.0575, -11.878, 29.3397, 13.6647, 67.3363, -166.375
4.00761, -1, -47.1172, -11.9112, 29.3488, 13.6653, 67.308, -166.446
4.01559, -1, -47.1626, -11.9369, 29.3543, 13.6656, 67.2891, -166.494
4.02374, -1, -47.1956, -11.9556, 29.3569, 13.6658, 67.2774, -166.523
4.03162, -1, -47.2183, -11.9682, 29.3581, 13.6658, 67.2709, -166.54
4.0396, -1, -47.2325, -11.976, 29.3587, 13.6659, 67.2675, -166.548
4.04764, 2, -47.2405, -11.9802, 29.359, 13.6659, 67.2659, -166.552
4.05571, 2, -47.2443, -11.9822, 29.3591, 13.666, 67.2651, -166.554
4.06368, 2, -47.245, -11.9831, 29.3593, 13.6661, 67.2648, -166.555
4.07176, 2, -47.2448, -11.9834, 29.3593, 13.6661, 67.2647, -166.555
4.07972, 2, -47.2447, -11.9836, 29.3594, 13.6661, 67.2646, -166.556
4.08769, 2, -47.2449, -11.9836, 29.3594, 13.6661, 67.2645, -166.556
4.09584, 2, -47.2456, -11.9838, 29.3595, 13.6661, 67.2645, -166.556
4.10362, 2, -47.2466, -11.9842, 29.3595, 13.6661, 67.2645, -166.556
4.11163, 2, -47.2482, -11.9849, 29.3595, 13.6661, 67.2644, -166.556
4.11968, 2, -47.25, -11.9857, 29.3595, 13.6661, 67.2645, -166.556
4.12773, 2, -47.2514, -11.9865, 29.3595, 13.6661, 67.2644, -166.556
4.13606, 2, -47.2526, -11.9873, 29.3595, 13.6661, 67.2645, -166.556
4.14384, 2, -47.2533, -11.9878, 29.3595, 13.6661, 67.2645, -166.556
4.15188, 2, -47.2536, -11.9881, 29.3595, 13.6661, 67.2645, -166.556
4.16046, 2, -47.2538, -11.9882, 29.3595, 13.6661, 67.2644, -166.556
4.168, 2, -47.2537, -11.9882, 29.3595, 13.6661, 67.2645, -166.556
4.17604, 2, -47.2532, -11.9882, 29.3595, 13.6661, 67.2645, -166.556
4.18449, 2, -47.2527, -11.9882, 29.3595, 13.6661, 67.2645, -166.556
4.19216, 2, -47.2524, -11.9882, 29.3595, 13.6661, 67.2645, -166.556
4.20019, 2, -47.2521, -11.9882, 29.3595, 13.6661, 67.2645, -166.556
4.20854, 2, -47.252, -11.9882, 29.3595, 13.6661, 67.2645, -166.556
4.21619, 2, -47.252, -11.9883, 29.3595, 13.666, 67.2645, -166.556
4.22421, 2, -47.2521, -11.9884, 29.3595, 13.666, 67.2645, -166.556
4.23251, 2, -47.2526, -11.9889, 29.3595, 13.6661, 67.2645, -166.556
4.23965, 2, -47.2529, -11.9891, 29.3595, 13.6661, 67.2645, -166.556
4.24759, 2, -47.2535, -11.9894, 29.3595, 13.6661, 67.2645, -166.556
4.25558, 2, -47.2538, -11.9896, 29.3595, 13.6661, 67.2645, -166.556
4.26362, 2, -47.2539, -11.9897, 29.3595, 13.666, 67.2644, -166.556
4.2716, 2, -47.254, -11.9897, 29.3595, 13.666, 67.2645, -166.556
4.27959, 2, -47.2539, -11.9896, 29.3595, 13.666, 67.2645, -166.556
4.28762, 2, -47.2537, -11.9896, 29.3595, 13.6661, 67.2646, -166.556
4.29565, 2, -47.2532, -11.9896, 29.3595, 13.6661, 67.2646, -166.556
4.30357, 2, -47.2528, -11.9895, 29.3595, 13.6661, 67.2645, -166.556
4.31162, 2, -47.2526, -11.9895, 29.3595, 13.6661, 67.2645, -166.556
4.3196, 2, -47.2525, -11.9895, 29.3595, 13.666, 67.2645, -166.556
4.32758, 2, -47.2523, -11.9896, 29.3595, 13.666, 67.2645, -166.556
4.33562, 2, -47.2523, -11.9896, 29.3595, 13.666, 67.2645, -166.556
4.34359, 2, -47.2523, -11.9897, 29.3595, 13.666, 67.2645, -166.555
4.35159, 2, -47.2523, -11.9897, 29.3595, 13.6661, 67.2645, -166.555
4.35963, 2, -47.2523, -11.9897, 29.3595, 13.666, 67.2645, -166.555
4.36759, 2, -47.2523, -11.9898, 29.3595, 13.666, 67.2645, -166.555
4.37748, 2, -47.2523, -11.9897, 29.3595, 13.666, 67.2645, -166.556
4.38362, 2, -47.2523, -11.9897, 29.3595, 13.666, 67.2645, -166.556
4.39162, 2, -47.2522, -11.9896, 29.3595, 13.666, 67.2645, -166.555
4.39958, 2, -47.2521, -11.9896, 29.3595, 13.666, 67.2645, -166.555
4.40768, 2, -47.252, -11.9895, 29.3595, 13.666, 67.2645, -166.555
4.41559, 2, -47.2519, -11.9895, 29.3595, 13.666, 67.2646, -166.555
4.4236, 2, -47.2518, -11.9895, 29.3595, 13.666, 67.2646, -166.555
4.43163, 2, -47.2517, -11.9895, 29.3595, 13.666, 67.2646, -166.555
4.4396, 2, -47.2516, -11.9895, 29.3595, 13.666, 67.2646, -166.555
4.44757, 2, -47.2516, -11.9896, 29.3595, 13.666, 67.2646, -166.555
4.45562, 2, -47.2515, -11.9896, 29.3595, 13.666, 67.2646, -166.555
4.46366, 2, -47.2514, -11.9896, 29.3595, 13.666, 67.2646, -166.555
4.4716, 2, -47.2514, -11.9896, 29.3595, 13.666, 67.2646, -166.555
4.47964, 2, -47.2513, -11.9895, 29.3595, 13.666, 67.2646, -166.555
4.4876, 2, -47.2512, -11.9895, 29.3595, 13.666, 67.2646, -166.555
4.49557, 2, -47.2511, -11.9895, 29.3595, 13.666, 67.2646, -166.555
4.50362, 2, -47.251, -11.9894, 29.3595, 13.666, 67.2646, -166.555
4.5116, 2, -47.2509, -11.9893, 29.3595, 13.6661, 67.2646, -166.555
4.51964, 2, -47.2508, -11.9893, 29.3595, 13.666, 67.2646, -166.555
4.52763, 2, -47.2507, -11.9893, 29.3595, 13.666, 67.2646, -166.555
4.5356, 2, -47.2506, -11.9893, 29.3595, 13.666, 67.2646, -166.555
4.5436, 2, -47.2505, -11.9893, 29.3595, 13.666, 67.2646, -166.555
4.55168, 2, -47.2504, -11.9893, 29.3595, 13.666, 67.2646, -166.555
4.55971, 2, -47.2503, -11.9893, 29.3595, 13.666, 67.2646, -166.555
4.56766, 2, -47.2502, -11.9893, 29.3595, 13.666, 67.2646, -166.555
4.57573, 2, -47.2501, -11.9893, 29.3595, 13.666, 67.2646, -166.555
4.5837, 2, -47.25, -11.9893, 29.3595, 13.666, 67.2646, -166.555
4.59169, 2, -47.2499, -11.9893, 29.3595, 13.666, 67.2646, -166.555
4.59975, 2, -47.2499, -11.9892, 29.3595, 13.6659, 67.2646, -166.555
4.6076, 2, -47.2497, -11.9891, 29.3595, 13.6659, 67.2646, -166.555
4.6156, 2, -47.2497, -11.989, 29.3595, 13.6659, 67.2646, -166.555
4.62396, 2, -47.2496, -11.989, 29.3595, 13.6659, 67.2647, -166.555
4.63172, 2, -47.2495, -11.989, 29.3595, 13.6659, 67.2647, -166.555
4.63971, 2, -47.2494, -11.989, 29.3595, 13.6659, 67.2647, -166.555
4.64787, 2, -47.2494, -11.989, 29.3595, 13.6659, 67.2647, -166.555
4.65585, 2, -47.2493, -11.989, 29.3595, 13.6659, 67.2647, -166.555
4.66391, 2, -47.2492, -11.989, 29.3595, 13.6659, 67.2647, -166.555
4.67244, 2, -47.2492, -11.989, 29.3595, 13.6659, 67.2647, -166.555
4.68004, 2, -47.2492, -11.989, 29.3595, 13.6659, 67.2647, -166.555
4.68807, 2, -47.2491, -11.989, 29.3595, 13.6659, 67.2647, -166.555
4.69619, 2, -47.2491, -11.9889, 29.3595, 13.6659, 67.2647, -166.555
4.70413, 2, -47.2491, -11.9888, 29.3595, 13.6658, 67.2647, -166.555
4.71212, 2, -47.249, -11.9888, 29.3595, 13.6658, 67.2647, -166.555
4.72039, 2, -47.2489, -11.9887, 29.3595, 13.6658, 67.2647, -166.555
4.72813, 2, -47.2489, -11.9887, 29.3595, 13.6658, 67.2647, -166.555
4.73556, 2, -47.2488, -11.9886, 29.3595, 13.6658, 67.2647, -166.555
4.74362, 2, -47.2487, -11.9886, 29.3595, 13.6658, 67.2647, -166.555
4.75158, 2, -47.2487, -11.9886, 29.3595, 13.6658, 67.2647, -166.555
4.75957, 2, -47.2486, -11.9886, 29.3595, 13.6658, 67.2647, -166.555
4.76761, 2, -47.2486, -11.9886, 29.3595, 13.6658, 67.2648, -166.555
4.77557, 2, -47.2486, -11.9886, 29.3595, 13.6658, 67.2648, -166.555
4.78356, 2, -47.2485, -11.9886, 29.3595, 13.6658, 67.2648, -166.555
4.79161, 2, -47.2485, -11.9886, 29.3595, 13.6658, 67.2648, -166.555
4.79965, 2, -47.2485, -11.9885, 29.3595, 13.6657, 67.2648, -166.555
4.80756, 2, -47.2485, -11.9885, 29.3595, 13.6657, 67.2648, -166.555
4.81561, 2, -47.2484, -11.9884, 29.3595, 13.6657, 67.2648, -166.555
4.82358, 2, -47.2483, -11.9884, 29.3595, 13.6657, 67.2648, -166.555
4.83157, 2, -47.2482, -11.9883, 29.3595, 13.6657, 67.2648, -166.554
4.83961, 2, -47.248, -11.9883, 29.3595, 13.6657, 67.2648, -166.554
4.84757, 2, -47.248, -11.9882, 29.3595, 13.6657, 67.2648, -166.554
4.85556, 2, -47.248, -11.9882, 29.3595, 13.6657, 67.2648, -166.554
4.86456, 2, -47.2479, -11.9882, 29.3595, 13.6657, 67.2648, -166.554
4.87158, 2, -47.2478, -11.9882, 29.3595, 13.6657, 67.2648, -166.554
4.87957, 2, -47.2478, -11.9882, 29.3595, 13.6656, 67.2649, -166.554
4.88762, 2, -47.2478, -11.9882, 29.3595, 13.6656, 67.2649, -166.554
4.89559, 2, -47.2478, -11.9882, 29.3595, 13.6656, 67.2649, -166.554
4.90356, 2, -47.2477, -11.9882, 29.3595, 13.6656, 67.2649, -166.554
4.91164, 2, -47.2477, -11.9881, 29.3595, 13.6656, 67.2648, -166.554
4.91959, 2, -47.2476, -11.988, 29.3595, 13.6656, 67.2648, -166.554
4.92759, 2, -47.2475, -11.988, 29.3595, 13.6656, 67.2648, -166.554
4.93571, 2, -47.2474, -11.9879, 29.3595, 13.6656, 67.2648, -166.554
4.94358, 2, -47.2473, -11.9879, 29.3595, 13.6656, 67.2648, -166.554
4.9516, 2, -47.2473, -11.9879, 29.3595, 13.6655, 67.2649, -166.554
4.95962, 2, -47.2472, -11.9878, 29.3595, 13.6655, 67.2649, -166.554
4.96764, 2, -47.2472, -11.9878, 29.3595, 13.6655, 67.2649, -166.554
4.97555, 2, -47.2472, -11.9878, 29.3595, 13.6655, 67.265, -166.554
4.98361, 2, -47.2471, -11.9878, 29.3595, 13.6655, 67.265, -166.554
4.99159, 2, -47.2471, -11.9878, 29.3595, 13.6655, 67.265, -166.554
4.99957, 2, -47.2471, -11.9878, 29.3595, 13.6655, 67.265, -166.554
5.00761, 2, -47.2471, -11.9878, 29.3595, 13.6655, 67.265, -166.554
5.01558, 2, -47.247, -11.9877, 29.3595, 13.6654, 67.265, -166.554
5.02356, 2, -47.247, -11.9876, 29.3595, 13.6654, 67.2651, -166.554
5.03162, 2, -47.2469, -11.9876, 29.3595, 13.6654, 67.2651, -166.554
5.03959, 2, -47.2468, -11.9875, 29.3595, 13.6654, 67.2651, -166.554
5.04778, 2, -47.2467, -11.9875, 29.3595, 13.6654, 67.2651, -166.554
5.05586, 2, -47.2466, -11.9875, 29.3595, 13.6654, 67.2651, -166.554
5.06366, 2, -47.2466, -11.9875, 29.3595, 13.6654, 67.265, -166.554
5.07166, 2, -47.2465, -11.9875, 29.3595, 13.6654, 67.265, -166.554
5.07974, 2, -47.2465, -11.9875, 29.3595, 13.6653, 67.2651, -166.554
5.08766, 2, -47.2465, -11.9875, 29.3595, 13.6653, 67.265, -166.554
5.09568, 2, -47.2464, -11.9874, 29.3595, 13.6653, 67.2651, -166.554
5.10372, 2, -47.2464, -11.9874, 29.3595, 13.6652, 67.2651, -166.554
5.11191, 2, -47.2464, -11.9874, 29.3595, 13.6652, 67.2651, -166.554
5.11968, 4, -47.2464, -11.9873, 29.3595, 13.6652, 67.2651, -166.554
5.12783, 4, -47.2463, -11.9873, 29.3595, 13.6652, 67.2651, -166.554
5.13582, 4, -47.2462, -11.9872, 29.3595, 13.6652, 67.2651, -166.554
5.14371, 4, -47.2461, -11.9872, 29.3595, 13.6652, 67.2651, -166.554
5.15188, 4, -47.2461, -11.9872, 29.3595, 13.6652, 67.2652, -166.554
5.15991, 4, -47.246, -11.9871, 29.3595, 13.6652, 67.2652, -166.554
5.16791, 4, -47.2459, -11.9871, 29.3595, 13.6652, 67.2652, -166.554
5.17454, 4, -47.2459, -11.9871, 29.3595, 13.6652, 67.2652, -166.554
5.1841, 4, -47.2458, -11.9871, 29.3595, 13.6652, 67.2652, -166.553
5.19211, 4, -47.2458, -11.9871, 29.3595, 13.6651, 67.2651, -166.553
5.20015, 4, -47.2458, -11.9871, 29.3595, 13.6651, 67.2652, -166.553
5.20818, 4, -47.2458, -11.987, 29.3595, 13.6651, 67.2652, -166.553
5.21636, 4, -47.2458, -11.987, 29.3595, 13.6651, 67.2652, -166.553
5.23147, 4, -47.2458, -11.987, 29.3595, 13.6651, 67.2652, -166.553
5.23407, 4, -47.2457, -11.9869, 29.3595, 13.6651, 67.2652, -166.553
5.24043, 4, -47.2457, -11.9869, 29.3595, 13.6651, 67.2652, -166.553
5.24926, 4, -47.2456, -11.9868, 29.3595, 13.6651, 67.2652, -166.553
5.25573, 4, -47.2456, -11.9868, 29.3595, 13.6651, 67.2653, -166.553
5.26374, 4, -47.2455, -11.9868, 29.3595, 13.6651, 67.2653, -166.553
5.27179, 4, -47.2454, -11.9868, 29.3595, 13.665, 67.2653, -166.553
5.28372, 4, -47.2454, -11.9868, 29.3595, 13.665, 67.2653, -166.553
5.28776, 4, -47.2453, -11.9868, 29.3595, 13.665, 67.2653, -166.553
5.29569, 4, -47.2453, -11.9868, 29.3595, 13.665, 67.2653, -166.553
5.30652, 4, -47.2453, -11.9868, 29.3595, 13.665, 67.2653, -166.553
5.31175, 4, -47.2453, -11.9868, 29.3595, 13.665, 67.2653, -166.553
5.3212, 4, -47.2453, -11.9867, 29.3595, 13.665, 67.2653, -166.553
5.32775, 4, -47.2453, -11.9867, 29.3595, 13.665, 67.2653, -166.553
5.33735, 4, -47.2452, -11.9866, 29.3595, 13.6649, 67.2653, -166.553
5.34653, 4, -47.2451, -11.9866, 29.3595, 13.6649, 67.2652, -166.553
5.35474, 4, -47.2451, -11.9866, 29.3595, 13.665, 67.2653, -166.553
5.36149, 4, -47.2451, -11.9865, 29.3595, 13.6649, 67.2653, -166.553
5.36769, 4, -47.245, -11.9865, 29.3595, 13.6649, 67.2653, -166.553
5.37569, 4, -47.2452, -11.9866, 29.3595, 13.6649, 67.2653, -166.553
5.38564, 4, -47.2461, -11.9871, 29.3605, 13.6654, 67.2656, -166.553
5.39268, 4, -47.2483, -11.9888, 29.3617, 13.6667, 67.266, -166.553
5.4019, 4, -47.2556, -11.9972, 29.3724, 13.6865, 67.2708, -166.55
5.40769, 5, -47.2596, -12.0023, 29.3798, 13.7013, 67.2747, -166.547
5.41572, 5, -47.2712, -12.0176, 29.4045, 13.7502, 67.2883, -166.536
5.42377, 5, -47.2893, -12.0419, 29.4471, 13.8378, 67.3127, -166.517
5.43281, 5, -47.3161, -12.0774, 29.5139, 13.9776, 67.3522, -166.485
5.44309, 5, -47.3765, -12.1552, 29.673, 14.3168, 67.4457, -166.406
5.45111, 5, -47.4324, -12.2254, 29.8238, 14.6435, 67.5352, -166.332
5.45837, 5, -47.501, -12.3107, 30.0127, 15.0545, 67.646, -166.237
5.46371, 5, -47.5399, -12.359, 30.1218, 15.2906, 67.7093, -166.183
5.47181, 5, -47.6268, -12.4666, 30.367, 15.8182, 67.8493, -166.063
5.47975, 5, -47.7244, -12.5874, 30.6446, 16.4079, 68.0043, -165.93
5.48771, 5, -47.831, -12.7196, 30.9498, 17.0451, 68.1689, -165.788
5.49698, 5, -47.9446, -12.8612, 31.2758, 17.7152, 68.3392, -165.64
5.50368, 5, -48.063, -13.0097, 31.6169, 18.4026, 68.5107, -165.491
5.51458, 5, -48.1837, -13.1622, 31.9665, 19.0978, 68.7649, -165.269
5.5197, 5, -48.3037, -13.3155, 32.3206, 19.7902, 68.8479, -165.195
5.52768, 5, -48.4199, -13.4663, 32.675, 20.4694, 69.0109, -165.046
5.53667, 5, -48.5279, -13.6121, 33.0248, 21.1254, 69.1708, -164.886
5.54731, 6, -48.6233, -13.7491, 33.3635, 21.7456, 69.3291, -164.704
5.55582, 6, -48.7021, -13.9348, 33.8408, 22.5923, 69.5692, -164.359
5.55979, 7, -48.7608, -13.9919, 33.9901, 22.8496, 69.6512, -164.218
5.56803, 7, -48.798, -14.0996, 34.2734, 23.3277, 69.8205, -163.888
5.58039, 8, -48.8157, -14.2435, 34.6605, 23.9681, 70.0934, -163.262
5.58508, 8, -48.8121, -14.2865, 34.7814, 24.1659, 70.1906, -163.018
5.59798, 9, -48.7771, -14.4037, 35.1264, 24.7315, 70.5027, -162.194
5.60078, 9, -48.7584, -14.4401, 35.2372, 24.9152, 70.6133, -161.894
5.60787, 10, -48.712, -14.51, 35.4563, 25.2811, 70.8431, -161.266
5.61591, 10, -48.6555, -14.5766, 35.675, 25.6489, 71.0826, -160.613
5.62573, 11, -48.5909, -14.6403, 35.8941, 26.0205, 71.3282, -159.944
5.63192, 11, -48.5205, -14.7023, 36.115, 26.3959, 71.5759, -159.272
5.64053, 11, -48.4453, -14.7645, 36.3363, 26.7758, 71.8238, -158.602
5.64892, 12, -48.3669, -14.8276, 36.5555, 27.1602, 72.0711, -157.934
5.6586, 13, -48.2869, -14.8908, 36.7722, 27.5491, 72.3178, -157.268
5.66428, 13, -48.2056, -14.9528, 36.9862, 27.9422, 72.5644, -156.606
5.67276, 14, -48.1219, -15.0141, 37.1966, 28.3391, 72.8109, -155.947
5.68032, 14, -48.0348, -15.0759, 37.4043, 28.7391, 73.0577, -155.288
5.68867, 15, -47.9441, -15.1377, 37.61, 29.1415, 73.3048, -154.633
5.69798, 15, -47.8505, -15.1984, 37.8128, 29.5448, 73.5508, -153.981
5.70487, 16, -47.753, -15.2577, 38.0128, 29.9477, 73.7951, -153.333
5.71258, 16, -47.6497, -15.3171, 38.2108, 30.3493, 74.0371, -152.687
5.72029, 17, -47.5403, -15.3775, 38.4055, 30.749, 74.276, -152.047
5.7324, 17, -47.3669, -15.4701, 38.6903, 31.3433, 74.626, -151.094
5.73642, 18, -47.3669, -15.4701, 38.6903, 31.5398, 74.7402, -150.78
5.74523, 18, -47.2446, -15.5328, 38.969, 31.9302, 74.9647, -150.156
5.75244, 19, -47.1166, -15.5966, 39.0604, 32.1241, 75.0747, -149.539
5.75969, 19, -46.983, -15.6624, 39.2411, 32.5101, 75.2905, -149.234
5.76963, 20, -46.7731, -15.7655, 39.51, 33.085, 75.604, -148.327
5.7757, 20, -46.7005, -15.801, 39.5989, 33.2756, 75.7058, -148.03
5.78507, 21, -46.4751, -15.9119, 39.8624, 33.845, 76.0041, -147.147
5.79168, 21, -46.3977, -15.9503, 39.9493, 34.034, 76.1011, -146.857
5.79972, 22, -46.2398, -16.0293, 40.1223, 34.4104, 76.2912, -146.281
5.81003, 22, -45.9935, -16.1521, 40.3782, 34.9702, 76.5662, -145.431
5.81784, 23, -45.8225, -16.2361, 40.5452, 35.3388, 76.743, -144.873
5.82956, 23, -45.5543, -16.3658, 40.7911, 35.884, 76.9975, -144.045
5.83176, 23, -45.5543, -16.3658, 40.7911, 35.884, 76.9975, -144.045
5.84364, 24, -45.2715, -16.4989, 41.0289, 36.4182, 77.24, -143.23
5.84767, 24, -45.1739, -16.5439, 41.1059, 36.5933, 77.3183, -142.961
5.8585, 25, -44.8714, -16.6803, 41.3306, 37.1089, 77.5461, -142.157
5.86378, 26, -44.7673, -16.7261, 41.4033, 37.2774, 77.6196, -141.891
5.8718, 26, -44.5541, -16.8182, 41.5447, 37.6092, 77.7636, -141.361
5.88163, 27, -44.3335, -16.9563, 41.7464, 38.0929, 77.9718, -140.57
5.89115, 27, -43.9895, -17.0477, 41.8735, 38.4054, 78.1053, -140.044
5.89568, 28, -43.8716, -17.0932, 41.9348, 38.5587, 78.1708, -139.781
5.90631, 28, -43.6307, -17.1834, 42.0525, 38.859, 78.2989, -139.257
5.9117, 29, -43.3831, -17.2723, 42.1633, 39.1506, 78.4234, -138.735
5.92291, 29, -42.9995, -17.4028, 42.3168, 39.5724, 78.6046, -137.951
5.9277, 29, -42.8683, -17.4455, 42.3644, 39.7089, 78.6631, -137.69
5.93667, 30, -42.5997, -17.5294, 42.4541, 39.9753, 78.7786, -137.168
5.94381, 30, -42.3223, -17.611, 42.5367, 40.2332, 78.8908, -136.647
5.95518, 31, -41.8908, -17.7286, 42.6471, 40.6041, 79.054, -135.867
5.95971, 32, -41.7433, -17.7666, 42.6805, 40.7235, 79.1072, -135.607
5.96868, 32, -41.4433, -17.8409, 42.7421, 40.9559, 79.2114, -135.087
5.97872, 33, -40.981, -17.9473, 42.8215, 41.2892, 79.363, -134.311
5.98693, 33, -40.8236, -17.9811, 42.8444, 41.3963, 79.4124, -133.794
5.99491, 34, -40.3419, -18.0781, 42.9022, 41.7051, 79.5562, -133.278
5.99975, 34, -40.1789, -18.1092, 42.9178, 41.8041, 79.6027, -133.02
6.0077, 35, -39.8493, -18.1693, 42.9435, 41.9958, 79.6943, -132.506
6.01971, 35, -39.3441, -18.2531, 42.9689, 42.2696, 79.8266, -131.737
6.02687, 36, -38.9987, -18.3047, 42.977, 42.4423, 79.9122, -131.225
6.03188, 36, -38.8232, -18.3293, 42.9785, 42.5258, 79.9541, -130.97
6.04376, 37, -38.2869, -18.398, 42.973, 42.7651, 80.0767, -130.206
6.05343, 37, -37.9219, -18.4393, 42.9608, 42.9152, 80.1562, -129.7
6.05627, 38, -37.7374, -18.4585, 42.9521, 42.9875, 80.1951, -129.447
6.06383, 38, -37.3649, -18.4945, 42.9299, 43.1266, 80.2711, -128.942
6.07268, 39, -36.9876, -18.5272, 42.9009, 43.258, 80.3451, -128.439
6.08109, 39, -36.6059, -18.5563, 42.8652, 43.3822, 80.4166, -127.937
6.08782, 40, -36.2194, -18.5816, 42.8228, 43.4991, 80.4869, -127.439
6.09826, 40, -35.827, -18.6032, 42.774, 43.6087, 80.5549, -126.941
6.1038, 41, -35.4288, -18.6208, 42.7185, 43.7113, 80.6215, -126.446
6.1128, 41, -35.0248, -18.6346, 42.6565, 43.8063, 80.6852, -125.952
6.12239, 42, -34.6162, -18.6449, 42.5882, 43.8946, 80.7479, -125.461
6.12859, 42, -34.2042, -18.6519, 42.5133, 43.9755, 80.8078, -124.972
6.13834, 43, -33.7891, -18.6558, 42.4323, 44.0495, 80.8666, -124.486
6.14475, 43, -33.3701, -18.6564, 42.3453, 44.116, 80.9234, -124.001
6.15361, 44, -32.9456, -18.6534, 42.2525, 44.176, 80.9781, -123.519
6.16072, 44, -32.5149, -18.6466, 42.154, 44.228, 81.0322, -123.04
6.16873, 45, -32.0775, -18.636, 42.0496, 44.2732, 81.0836, -122.563
6.18012, 45, -31.4122, -18.6133, 41.8818, 44.3274, 81.1586, -121.851
6.18661, 46, -31.189, -18.604, 41.8229, 44.3415, 81.1828, -121.615
6.19643, 46, -30.7413, -18.5829, 41.7005, 44.364, 81.229, -120.911
6.20174, 47, -30.2908, -18.5579, 41.5725, 44.3788, 81.274, -120.677
6.2128, 47, -29.6061, -18.5121, 41.3693, 44.3878, 81.3403, -119.979
6.2164, 48, -29.3747, -18.4947, 41.2986, 44.3872, 81.3615, -119.747
6.22658, 48, -28.9072, -18.4566, 41.1524, 44.3793, 81.4032, -119.285
6.23438, 49, -28.4339, -18.4141, 41.0003, 44.3629, 81.4451, -118.825
6.24212, 49, -27.9575, -18.3672, 40.8424, 44.3375, 81.4865, -118.367
6.2484, 50, -27.7185, -18.3421, 40.7612, 44.321, 81.5269, -117.909
6.25708, 50, -27.2383, -18.2883, 40.5936, 44.2808, 81.5473, -117.68
6.2637, 51, -26.7534, -18.2289, 40.4194, 44.2321, 81.5891, -117.224
6.27178, 51, -26.2614, -18.1641, 40.239, 44.1734, 81.6317, -116.769
6.27967, 52, -25.7618, -18.0937, 40.0517, 44.1049, 81.674, -116.314
6.28781, 52, -25.2564, -18.0178, 39.8567, 44.0265, 81.7174, -115.861
6.29742, 53, -24.7482, -17.9368, 39.6552, 43.889, 81.7845, -115.181
6.30364, 53, -24.2382, -17.8503, 39.4476, 43.8384, 81.8068, -114.955
6.3118, 54, -23.7239, -17.7577, 39.2323, 43.7293, 81.8526, -114.503
6.31966, 54, -23.2028, -17.6588, 39.0096, 43.6095, 81.901, -114.051
6.33184, 55, -22.4054, -17.499, 38.663, 43.4095, 81.9759, -113.374
6.34138, 55, -21.5971, -17.3254, 38.2997, 43.1831, 82.0569, -112.696
6.34374, 56, -21.5971, -17.3254, 38.2997, 43.1831, 82.0569, -112.696
6.35399, 56, -21.0551, -17.2023, 38.0495, 43.0176, 82.141, -112.019
6.35964, 57, -20.5085, -17.0736, 37.7918, 42.8407, 82.1703, -111.794
6.36836, 57, -19.9533, -16.9395, 37.528, 42.6523, 82.23, -111.343
6.37777, 58, -19.1039, -16.7272, 37.1192, 42.3467, 82.3225, -110.668
6.38465, 58, -18.8179, -16.6534, 36.9798, 42.2386, 82.3546, -110.443
6.39173, 59, -18.2443, -16.5015, 36.6964, 42.0129, 82.4193, -109.993
6.39965, 59, -17.6682, -16.3447, 36.406, 41.7749, 82.4872, -109.544
6.41202, 60, -16.7904, -16.1009, 35.9593, 41.3941, 82.5925, -108.87
6.42058, 60, -16.1926, -15.9317, 35.6545, 41.1244, 82.6655, -108.421
6.42368, 61, -15.8912, -15.8451, 35.5003, 40.9845, 82.7023, -108.197
6.43556, 61, -14.9823, -15.5788, 35.0289, 40.5455, 82.8162, -107.524
6.43973, 62, -14.6777, -15.4879, 34.869, 40.393, 82.8551, -107.3
6.44912, 62, -14.0635, -15.3023, 34.5449, 40.078, 82.9352, -106.851
6.45671, 63, -13.439, -15.1106, 34.2162, 39.7496, 83.0175, -106.402
6.46478, 63, -12.8052, -14.9122, 33.8821, 39.4061, 83.1031, -105.952
6.47166, 64, -12.1652, -14.7086, 33.5425, 39.0474, 83.1926, -105.502
6.48122, 64, -11.5212, -14.4998, 33.1964, 38.6738, 83.2859, -105.051
6.48764, 65, -10.8705, -14.2839, 32.8443, 38.2853, 83.3837, -104.598
6.49669, 65, -10.2091, -14.0605, 32.4859, 37.8815, 83.4864, -104.144
6.50372, 66, -9.53782, -13.8305, 32.1225, 37.4611, 83.5941, -103.687
6.51176, 66, -8.85906, -13.5937, 31.754, 37.0248, 83.7075, -103.229
6.52312, 67, -7.83064, -13.2249, 31.1896, 36.3397, 83.8888, -102.537
6.52769, 67, -7.48365, -13.0985, 30.9982, 36.1033, 83.9526, -102.305
6.53666, 68, -6.78235, -12.8405, 30.6113, 35.6183, 84.0853, -101.84
6.54472, 68, -6.07338, -12.5765, 30.2209, 35.1188, 84.2241, -101.372
6.55289, 69, -5.35908, -12.3064, 29.8271, 34.6066, 84.369, -100.903
6.56514, 69, -4.27706, -11.8855, 29.2311, 33.8152, 84.5961, -100.196
6.57584, 70, -3.54571, -11.4484, 28.6332, 32.9945, 84.837, -99.4858
6.57772, 70, -3.17669, -11.4484, 28.6332, 32.9945, 84.837, -99.4858
6.589, 71, -2.05714, -10.9923, 28.0313, 32.1384, 85.0946, -98.7722
6.59185, 71, -1.6796, -10.8365, 27.8287, 31.8443, 85.1852, -98.5329
6.60201, 72, -0.918158, -10.52, 27.4208, 31.2426, 85.3743, -98.0515
6.60866, 72, -0.149869, -10.1985, 27.0096, 30.6217, 85.5734, -97.5671
6.61586, 73, 0.623996, -9.86942, 26.5959, 29.9863, 85.7814, -97.0792
6.62869, 73, 1.79339, -9.35979, 25.9748, 29.0147, 86.1071, -96.3435
6.63452, 74, 2.18466, -9.18683, 25.7685, 28.6871, 86.2192, -96.0973
6.64493, 74, 3.36136, -8.66249, 25.1558, 27.6967, 86.564, -95.3567
6.65077, 75, 3.75436, -8.48509, 24.9547, 27.3646, 86.6815, -95.1095
6.65626, 75, 4.54267, -8.12519, 24.5566, 26.6997, 86.9197, -94.6149
6.66486, 76, 5.33382, -7.75985, 24.1649, 26.0355, 87.1629, -94.12
6.67216, 76, 6.12669, -7.38914, 23.7798, 25.3694, 87.4111, -93.6231
6.68035, 77, 6.92068, -7.0114, 23.4006, 24.7026, 87.666, -93.1241
6.69805, 78, 8.51277, -6.22949, 22.6518, 23.3603, 88.2037, -92.1182
6.70061, 78, 8.91119, -6.02919, 22.4662, 23.021, 88.3456, -91.8646
6.71421, 79, 10.1065, -5.41621, 21.9131, 21.9947, 88.7912, -91.0976
6.71731, 79, 10.5047, -5.20705, 21.7298, 21.6506, 88.9462, -90.8398
6.7201, 79, 10.5047, -4.99547, 21.5471, 21.3063, 89.1044, -90.5808
6.72836, 80, 11.6951, -4.5644, 21.1834, 20.6169, 89.4299, -90.0599
6.73603, 80, 12.09, -4.34542, 21.0033, 20.2716, 89.5969, -89.7978
6.74434, 81, 13.2664, -3.67399, 20.4699, 19.2456, 90.1138, -89.0038
6.75156, 81, 13.6558, -3.44598, 20.2952, 18.9082, 90.2907, -88.737
6.75953, 81, 14.4302, -2.98436, 19.9507, 18.2425, 90.6503, -88.2004
6.76755, 82, 15.1964, -2.51491, 19.6152, 17.5909, 91.0157, -87.6618
6.7755, 82, 15.9536, -2.03815, 19.2897, 16.9547, 91.3869, -87.12
6.78355, 83, 16.7004, -1.55442, 18.9747, 16.3359, 91.7626, -86.5762
6.79151, 83, 17.4356, -1.0642, 18.6702, 15.736, 92.1433, -86.0303
6.79951, 84, 18.1555, -0.569011, 18.3754, 15.1534, 92.5291, -85.4841
6.80756, 84, 18.858, -0.0699337, 18.0898, 14.5902, 92.9219, -84.9366
6.81556, 85, 19.5432, 0.433925, 17.8106, 14.0462, 93.3222, -84.3889
6.82352, 85, 20.2109, 0.94258, 17.5379, 13.5225, 93.7307, -83.8422
6.83146, 86, 20.8619, 1.45575, 17.2704, 13.0198, 94.1455, -83.2974
6.83951, 86, 21.4976, 1.97387, 17.0087, 12.5389, 94.5653, -82.7535
6.84754, 87, 22.1197, 2.49952, 16.7533, 12.0803, 94.9905, -82.2089
6.8555, 87, 22.7297, 3.03524, 16.5026, 11.6431, 95.4211, -81.6617
6.86352, 87, 23.3301, 3.58067, 16.2566, 11.2256, 95.8577, -81.1111
6.87166, 88, 23.9209, 4.13355, 16.0146, 10.8253, 96.3004, -80.5542
6.88054, 88, 24.5011, 4.69428, 15.7766, 10.441, 96.749, -79.9888
6.88749, 89, 25.0693, 5.26586, 15.5448, 10.0716, 97.2045, -79.4131
6.89557, 89, 25.6272, 5.84839, 15.3174, 9.71776, 97.6662, -78.8266
6.90351, 90, 26.179, 6.44073, 15.093, 9.3788, 98.1341, -78.2272
6.91152, 90, 26.7236, 7.04174, 14.8731, 9.05498, 98.6086, -77.6135
6.91958, 91, 27.2562, 7.6513, 14.6585, 8.7485, 99.0894, -76.9865
6.92752, 91, 27.7752, 8.27087, 14.4481, 8.46037, 99.5764, -76.3475
6.93556, 92, 28.2838, 8.90125, 14.242, 8.19308, 100.068, -75.6967
6.94351, 92, 28.7848, 9.54178, 14.0407, 7.94772, 100.564, -75.0367
6.95159, 93, 29.2774, 10.1905, 13.8447, 7.7245, 101.063, -74.3698
6.95953, 93, 29.7581, 10.8457, 13.6559, 7.52506, 101.562, -73.6958
6.9675, 94, 30.2248, 11.5051, 13.475, 7.34898, 102.06, -73.0151
6.97557, 94, 30.677, 12.1674, 13.3012, 7.19647, 102.556, -72.3296
6.98357, 95, 31.1155, 12.8319, 13.1343, 7.06779, 103.048, -71.6392
6.9915, 95, 31.5402, 13.4982, 12.9755, 6.96296, 103.537, -70.9426
6.99957, 96, 31.9508, 14.1661, 12.824, 6.88125, 104.023, -70.2411
7.0075, 96, 32.3455, 14.8344, 12.6788, 6.82422, 104.505, -69.5347
7.01549, 97, 32.7239, 15.503, 12.5403, 6.78928, 104.982, -68.8216
7.02358, 97, 33.0865, 16.1704, 12.4092, 6.77534, 105.454, -68.104
7.0315, 98, 33.4335, 16.8359, 12.2865, 6.78374, 105.918, -67.3843
7.03951, 98, 33.7661, 17.4971, 12.1727, 6.81338, 106.375, -66.6607
7.04849, 99, 34.0846, 18.1526, 12.0681, 6.86238, 106.821, -65.9367
7.05552, 99, 34.3909, 18.8009, 11.9729, 6.93151, 107.255, -65.2149
7.06395, 100, 34.6861, 19.4409, 11.8867, 7.01765, 107.677, -64.4946
7.07159, 100, 34.9697, 20.0717, 11.8094, 7.12144, 108.085, -63.7786
7.07962, 101, 35.2413, 20.6917, 11.7404, 7.24093, 108.478, -63.0699
7.08789, 101, 35.501, 21.3008, 11.6797, 7.37512, 108.855, -62.3675
7.09562, 102, 35.7486, 21.8975, 11.6277, 7.52205, 109.216, -61.6742
7.1036, 102, 35.9825, 22.4813, 11.5839, 7.67998, 109.559, -60.9931
7.11187, 103, 36.2047, 23.051, 11.5489, 7.84683, 109.885, -60.3234
7.1201, 103, 36.4191, 23.6051, 11.5225, 8.02162, 110.194, -59.6662
7.12753, 103, 36.6271, 24.1436, 11.5053, 8.20452, 110.484, -59.0226
7.13561, 104, 36.8283, 24.6664, 11.4966, 8.39585, 110.755, -58.392
7.14363, 104, 37.0232, 25.1733, 11.4948, 8.59628, 111.007, -57.7723
7.1517, 104, 37.2126, 25.6646, 11.4994, 8.80512, 111.24, -57.1645
7.16043, 104, 37.3937, 26.1395, 11.5098, 9.0211, 111.453, -56.5693
7.16778, 104, 37.5643, 26.5983, 11.5236, 9.24264, 111.65, -55.9871
7.17584, 104, 37.7257, 27.0412, 11.54, 9.46724, 111.83, -55.4207
7.18407, 104, 37.8818, 27.469, 11.559, 9.6918, 111.998, -54.8728
7.19197, 104, 38.0344, 27.881, 11.5795, 9.91395, 112.155, -54.347
7.2001, 104, 38.1826, 28.2763, 11.6001, 10.1318, 112.303, -53.8435
7.20807, 104, 38.3248, 28.655, 11.6202, 10.3443, 112.443, -53.3635
7.21661, 104, 38.4605, 29.0166, 11.639, 10.55, 112.575, -52.9079
7.22414, 104, 38.5887, 29.3601, 11.6569, 10.7483, 112.699, -52.4764
7.23313, 104, 38.6497, 29.5251, 11.6654, 10.938, 112.816, -52.0707
7.23998, 104, 38.7653, 29.8402, 11.6815, 11.0297, 112.872, -51.877
7.24824, 104, 38.8724, 30.1365, 11.7036, 11.2901, 113.026, -51.3333
7.25552, 104, 38.9717, 30.4142, 11.7105, 11.3721, 113.074, -51.1649
7.26364, 104, 39.0634, 30.6719, 11.7233, 11.528, 113.164, -50.8472
7.27159, 104, 39.1473, 30.9103, 11.7348, 11.6732, 113.246, -50.5543
7.27952, 104, 39.2233, 31.1293, 11.7453, 11.8071, 113.322, -50.287
7.28748, 104, 39.2913, 31.3279, 11.7551, 11.9296, 113.39, -50.0448
7.29554, 104, 39.3514, 31.5072, 11.764, 12.0403, 113.45, -49.828
7.30349, 104, 39.4042, 31.6672, 11.7717, 12.1388, 113.504, -49.6361
7.3115, 104, 39.4504, 31.8078, 11.7787, 12.2253, 113.55, -49.4692
7.3196, 104, 39.491, 31.9304, 11.785, 12.2994, 113.59, -49.3268
7.32749, 104, 39.5257, 32.0357, 11.7907, 12.3621, 113.623, -49.2076
7.33549, 104, 39.5542, 32.1246, 11.7958, 12.413, 113.649, -49.1111
7.34354, 104, 39.5776, 32.1983, 11.8003, 12.4526, 113.67, -49.0348
7.35149, 104, 39.5962, 32.2586, 11.8043, 12.483, 113.686, -48.9772
7.35949, 104, 39.6105, 32.3072, 11.8081, 12.5055, 113.697, -48.9356
7.36905, 104, 39.6216, 32.3451, 11.8115, 12.5215, 113.704, -48.9067
7.37547, 104, 39.63, 32.3735, 11.8145, 12.5324, 113.709, -48.888
7.38447, 104, 39.636, 32.3948, 11.8171, 12.539, 113.711, -48.8768
7.39156, 104, 39.6398, 32.4104, 11.8194, 12.5428, 113.713, -48.8708
7.39948, 104, 39.642, 32.421, 11.821, 12.5448, 113.713, -48.868
7.40744, 105, 39.643, 32.4276, 11.8223, 12.5458, 113.714, -48.8667
7.41557, 105, 39.6429, 32.4318, 11.8233, 12.5462, 113.714, -48.8663
7.42349, 105, 39.642, 32.4347, 11.8242, 12.5465, 113.714, -48.8662
7.43152, 105, 39.6411, 32.4367, 11.825, 12.5466, 113.714, -48.8664
7.43955, 105, 39.6402, 32.4383, 11.8256, 12.5466, 113.714, -48.8666
7.44749, 105, 39.639, 32.4397, 11.8262, 12.5467, 113.714, -48.867
7.45548, 105, 39.6379, 32.4409, 11.8267, 12.5467, 113.714, -48.8673
7.46355, 105, 39.6371, 32.4421, 11.8273, 12.5467, 113.714, -48.8676
7.4715, 105, 39.6368, 32.4432, 11.8279, 12.5467, 113.714, -48.868
7.47948, 105, 39.6365, 32.4443, 11.8285, 12.5467, 113.714, -48.8682
7.4876, 105, 39.6363, 32.4452, 11.829, 12.5467, 113.714, -48.8685
7.49548, 105, 39.6361, 32.4459, 11.8293, 12.5467, 113.714, -48.8687
7.50349, 105, 39.6358, 32.4465, 11.8297, 12.5467, 113.714, -48.869
7.51156, 105, 39.6355, 32.4469, 11.83, 12.5467, 113.714, -48.8693
7.51948, 105, 39.6352, 32.4471, 11.8302, 12.5466, 113.714, -48.8695
7.52749, 105, 39.6349, 32.4472, 11.8304, 12.5466, 113.714, -48.8697
