hehonglu123/Motion-Primitive-Planning/simulation/robotstudio_sim/scripts/greedy_output/wood_0.5/curve_exe_vmax_z10.csv
timestamp, cmd_num, J1, J2, J3, J4, J5, J6
0, -1, 5.84923, -7.16989, 21.5661, 27.7695, -45.2187, 2.89185
0.003, -1, 5.84923, -7.16989, 21.5661, 27.7695, -45.2187, 2.89185
0.006, -1, 5.84923, -7.16989, 21.5661, 27.7695, -45.2187, 2.89185
0.008, -1, 5.84923, -7.16989, 21.5661, 27.7695, -45.2187, 2.89185
0.011, -1, 5.84923, -7.16989, 21.5661, 27.7695, -45.2187, 2.89185
0.016, -1, 5.84923, -7.16989, 21.5661, 27.7695, -45.2187, 2.89185
0.02, -1, 5.84923, -7.16989, 21.5661, 27.7695, -45.2187, 2.89185
0.024, -1, 5.84923, -7.16989, 21.5661, 27.7695, -45.2187, 2.89185
0.028, -1, 5.84923, -7.16989, 21.5661, 27.7695, -45.2187, 2.89185
0.032, -1, 5.84923, -7.16989, 21.5661, 27.7695, -45.2187, 2.89185
0.036, -1, 5.84922, -7.16986, 21.5661, 27.7695, -45.2187, 2.89185
0.04, -1, 5.84919, -7.16974, 21.5661, 27.7695, -45.2187, 2.89185
0.044, -1, 5.84909, -7.16943, 21.5662, 27.7695, -45.2187, 2.89185
0.048, -1, 5.84891, -7.16879, 21.5663, 27.7695, -45.2187, 2.89185
0.052, -1, 5.8486, -7.1677, 21.5666, 27.7694, -45.2188, 2.89184
0.056, -1, 5.84812, -7.16603, 21.5671, 27.7693, -45.2191, 2.89182
0.06, -1, 5.84746, -7.16364, 21.5678, 27.7689, -45.2197, 2.89179
0.064, -1, 5.84657, -7.1604, 21.5689, 27.7684, -45.2208, 2.89173
0.068, -1, 5.84544, -7.15614, 21.5703, 27.7674, -45.2226, 2.89164
0.072, -1, 5.84402, -7.1506, 21.5724, 27.766, -45.2254, 2.8915
0.076, -1, 5.84228, -7.14349, 21.5752, 27.7638, -45.2295, 2.8913
0.08, -1, 5.84017, -7.1345, 21.5788, 27.7609, -45.2353, 2.89102
0.084, -1, 5.83767, -7.1234, 21.5835, 27.7568, -45.2433, 2.89063
0.088, -1, 5.83479, -7.11011, 21.5894, 27.7514, -45.2539, 2.89012
0.092, -1, 5.83155, -7.09471, 21.5967, 27.7444, -45.2678, 2.88947
0.096, -1, 5.82799, -7.07735, 21.6055, 27.7355, -45.2853, 2.88864
0.1, -1, 5.82415, -7.05815, 21.616, 27.7245, -45.3072, 2.88762
0.104, -1, 5.82003, -7.03719, 21.6283, 27.7111, -45.3337, 2.88638
0.108, -1, 5.81563, -7.01444, 21.6426, 27.6952, -45.3654, 2.88491
0.112, -1, 5.81095, -6.98982, 21.659, 27.6766, -45.4024, 2.8832
0.116, -1, 5.80598, -6.96326, 21.6775, 27.6552, -45.4451, 2.88122
0.12, -1, 5.80073, -6.93478, 21.6982, 27.6309, -45.4935, 2.87899
0.124, -1, 5.79519, -6.90447, 21.721, 27.6038, -45.5477, 2.87649
0.128, -1, 5.7894, -6.87242, 21.746, 27.5738, -45.6075, 2.87374
0.131, -1, 5.78336, -6.83866, 21.773, 27.5412, -45.6727, 2.87074
0.136, -1, 5.77706, -6.80311, 21.802, 27.506, -45.743, 2.86751
0.139, -1, 5.77047, -6.76561, 21.8328, 27.4685, -45.818, 2.86406
0.144, -1, 5.76353, -6.72595, 21.8653, 27.4289, -45.8972, 2.86042
0.148, -1, 5.75623, -6.68399, 21.8994, 27.3874, -45.9802, 2.85661
0.152, -1, 5.74853, -6.63975, 21.9349, 27.3444, -46.0663, 2.85265
0.156, -1, 5.74046, -6.59335, 21.9717, 27.2999, -46.1551, 2.84856
0.16, -1, 5.73203, -6.54501, 22.0095, 27.2543, -46.2462, 2.84437
0.164, -1, 5.72326, -6.49496, 22.0482, 27.2078, -46.3391, 2.8401
0.168, -1, 5.71417, -6.44342, 22.0876, 27.1606, -46.4335, 2.83575
0.172, -1, 5.70479, -6.39058, 22.1277, 27.1128, -46.529, 2.83135
0.176, -1, 5.69514, -6.33661, 22.1682, 27.0645, -46.6254, 2.82691
0.18, -1, 5.68526, -6.28165, 22.2091, 27.016, -46.7223, 2.82244
0.184, -1, 5.67517, -6.22589, 22.2504, 26.9672, -46.8198, 2.81795
0.188, -1, 5.66492, -6.16949, 22.2919, 26.9182, -46.9175, 2.81344
0.192, -1, 5.65455, -6.11262, 22.3335, 26.8691, -47.0155, 2.80892
0.196, -1, 5.64409, -6.05542, 22.3753, 26.8199, -47.1137, 2.80439
0.2, -1, 5.63358, -5.99797, 22.4172, 26.7706, -47.2121, 2.79985
0.204, -1, 5.62302, -5.94035, 22.4592, 26.7213, -47.3106, 2.79531
0.208, -1, 5.61243, -5.8826, 22.5013, 26.6719, -47.4091, 2.79076
0.212, -1, 5.60181, -5.82474, 22.5433, 26.6224, -47.5078, 2.7862
0.216, -1, 5.59118, -5.76679, 22.5855, 26.5729, -47.6066, 2.78165
0.22, -1, 5.58053, -5.70878, 22.6276, 26.5234, -47.7054, 2.77708
0.224, -1, 5.56987, -5.65071, 22.6698, 26.4738, -47.8044, 2.77252
0.228, -1, 5.5592, -5.59258, 22.7121, 26.4242, -47.9034, 2.76795
0.232, -1, 5.54852, -5.5344, 22.7544, 26.3745, -48.0024, 2.76338
0.236, -1, 5.53783, -5.47618, 22.7967, 26.3248, -48.1016, 2.7588
0.24, -1, 5.52713, -5.41791, 22.839, 26.2751, -48.2008, 2.75422
0.244, -1, 5.51642, -5.35959, 22.8814, 26.2254, -48.3001, 2.74964
0.248, -1, 5.5057, -5.30123, 22.9238, 26.1756, -48.3995, 2.74505
0.252, -1, 5.49498, -5.24283, 22.9662, 26.1257, -48.4989, 2.74046
0.256, -1, 5.48425, -5.18439, 23.0087, 26.0759, -48.5984, 2.73587
0.26, -1, 5.47351, -5.12591, 23.0512, 26.026, -48.698, 2.73128
0.264, -1, 5.46276, -5.06738, 23.0937, 25.976, -48.7976, 2.72668
0.268, -1, 5.45201, -5.00882, 23.1362, 25.9261, -48.8973, 2.72208
0.272, -1, 5.44125, -4.95021, 23.1788, 25.8761, -48.9971, 2.71747
0.276, -1, 5.43048, -4.89156, 23.2214, 25.826, -49.097, 2.71286
0.28, -1, 5.4197, -4.83287, 23.264, 25.7759, -49.1969, 2.70825
0.284, -1, 5.40892, -4.77414, 23.3067, 25.7258, -49.2969, 2.70364
0.288, -1, 5.39812, -4.71537, 23.3494, 25.6757, -49.397, 2.69902
0.292, -1, 5.38732, -4.65656, 23.3921, 25.6255, -49.4971, 2.6944
0.296, -1, 5.37652, -4.59771, 23.4349, 25.5753, -49.5973, 2.68977
0.3, -1, 5.3657, -4.53882, 23.4777, 25.5251, -49.6976, 2.68515
0.304, -1, 5.35488, -4.47989, 23.5205, 25.4748, -49.7979, 2.68051
0.308, -1, 5.34405, -4.42092, 23.5633, 25.4245, -49.8983, 2.67588
0.312, -1, 5.33322, -4.3619, 23.6062, 25.3741, -49.9988, 2.67124
0.316, -1, 5.32237, -4.30285, 23.6491, 25.3237, -50.0993, 2.6666
0.32, -1, 5.31152, -4.24376, 23.692, 25.2733, -50.1999, 2.66196
0.324, -1, 5.30066, -4.18463, 23.735, 25.2229, -50.3006, 2.65731
0.328, -1, 5.2898, -4.12546, 23.778, 25.1724, -50.4013, 2.65266
0.332, -1, 5.27892, -4.06625, 23.821, 25.1219, -50.5022, 2.64801
0.336, -1, 5.26804, -4.00699, 23.8641, 25.0713, -50.603, 2.64336
0.34, -1, 5.25716, -3.9477, 23.9071, 25.0207, -50.704, 2.6387
0.344, -1, 5.24626, -3.88837, 23.9502, 24.9701, -50.805, 2.63404
0.348, -1, 5.23536, -3.829, 23.9934, 24.9194, -50.9061, 2.62937
0.352, -1, 5.22445, -3.7696, 24.0365, 24.8687, -51.0072, 2.6247
0.356, -1, 5.21354, -3.71015, 24.0797, 24.818, -51.1084, 2.62003
0.36, -1, 5.20261, -3.65066, 24.1229, 24.7673, -51.2097, 2.61536
0.364, -1, 5.19168, -3.59113, 24.1662, 24.7165, -51.3111, 2.61068
0.368, -1, 5.18074, -3.53157, 24.2095, 24.6657, -51.4125, 2.606
0.372, -1, 5.1698, -3.47196, 24.2528, 24.6148, -51.514, 2.60132
0.376, -1, 5.15885, -3.41232, 24.2961, 24.5639, -51.6155, 2.59663
0.38, -1, 5.14789, -3.35264, 24.3395, 24.513, -51.7171, 2.59194
0.384, -1, 5.13692, -3.29292, 24.3829, 24.462, -51.8188, 2.58725
0.388, -1, 5.12595, -3.23316, 24.4263, 24.411, -51.9206, 2.58255
0.392, -1, 5.11497, -3.17336, 24.4697, 24.36, -52.0224, 2.57785
0.396, -1, 5.10398, -3.11353, 24.5132, 24.309, -52.1243, 2.57315
0.4, -1, 5.09298, -3.05365, 24.5567, 24.2579, -52.2262, 2.56845
0.404, -1, 5.08198, -2.99374, 24.6002, 24.2068, -52.3282, 2.56374
0.408, -1, 5.07097, -2.93379, 24.6438, 24.1556, -52.4303, 2.55903
0.412, -1, 5.05996, -2.8738, 24.6874, 24.1044, -52.5324, 2.55431
0.416, -1, 5.04893, -2.81377, 24.731, 24.0532, -52.6346, 2.5496
0.42, -1, 5.03791, -2.75371, 24.7746, 24.002, -52.7369, 2.54488
0.424, -1, 5.02687, -2.69361, 24.8183, 23.9507, -52.8392, 2.54015
0.428, -1, 5.01583, -2.63347, 24.862, 23.8994, -52.9416, 2.53543
0.432, -1, 5.00478, -2.57329, 24.9057, 23.848, -53.0441, 2.5307
0.436, -1, 4.99372, -2.51307, 24.9494, 23.7966, -53.1466, 2.52597
0.44, -1, 4.98265, -2.45282, 24.9932, 23.7452, -53.2492, 2.52123
0.444, -1, 4.97158, -2.39253, 25.037, 23.6938, -53.3518, 2.5165
0.448, -1, 4.96051, -2.33221, 25.0808, 23.6423, -53.4545, 2.51176
0.452, -1, 4.94942, -2.27184, 25.1247, 23.5908, -53.5573, 2.50701
0.456, -1, 4.93833, -2.21144, 25.1686, 23.5393, -53.6602, 2.50227
0.46, -1, 4.92723, -2.151, 25.2125, 23.4877, -53.7631, 2.49752
0.464, -1, 4.91613, -2.09053, 25.2564, 23.4361, -53.866, 2.49277
0.468, -1, 4.90501, -2.03002, 25.3004, 23.3845, -53.9691, 2.48801
0.472, -1, 4.8939, -1.96947, 25.3444, 23.3328, -54.0721, 2.48325
0.476, -1, 4.88277, -1.90888, 25.3884, 23.2811, -54.1753, 2.47849
0.48, -1, 4.87164, -1.84826, 25.4324, 23.2294, -54.2785, 2.47373
0.484, -1, 4.8605, -1.7876, 25.4765, 23.1777, -54.3818, 2.46896
0.488, -1, 4.84936, -1.72691, 25.5206, 23.1259, -54.4851, 2.46419
0.492, -1, 4.8382, -1.66618, 25.5647, 23.0741, -54.5885, 2.45942
0.496, -1, 4.82705, -1.60541, 25.6089, 23.0222, -54.692, 2.45465
0.5, -1, 4.81588, -1.54461, 25.653, 22.9703, -54.7955, 2.44987
0.504, -1, 4.80471, -1.48377, 25.6972, 22.9184, -54.8991, 2.44509
0.508, -1, 4.79353, -1.4229, 25.7415, 22.8665, -55.0027, 2.44031
0.512, -1, 4.78235, -1.36199, 25.7857, 22.8145, -55.1064, 2.43552
0.516, -1, 4.77116, -1.30104, 25.83, 22.7625, -55.2102, 2.43073
0.52, -1, 4.75996, -1.24006, 25.8743, 22.7105, -55.314, 2.42594
0.524, -1, 4.74875, -1.17904, 25.9186, 22.6584, -55.4179, 2.42114
0.528, -1, 4.73754, -1.11799, 25.963, 22.6063, -55.5219, 2.41635
0.532, -1, 4.72633, -1.0569, 26.0074, 22.5542, -55.6259, 2.41155
0.536, -1, 4.7151, -0.995779, 26.0518, 22.5021, -55.7299, 2.40674
0.54, -1, 4.70387, -0.934621, 26.0962, 22.4499, -55.8341, 2.40194
0.544, -1, 4.69263, -0.873427, 26.1407, 22.3977, -55.9383, 2.39713
0.548, -1, 4.68139, -0.812199, 26.1851, 22.3454, -56.0425, 2.39232
0.552, -1, 4.67014, -0.750935, 26.2297, 22.2932, -56.1468, 2.3875
0.556, -1, 4.65888, -0.689637, 26.2742, 22.2409, -56.2512, 2.38269
0.56, -1, 4.64762, -0.628304, 26.3187, 22.1885, -56.3556, 2.37787
0.564, -1, 4.63635, -0.566936, 26.3633, 22.1362, -56.4601, 2.37305
0.568, -1, 4.62508, -0.505534, 26.4079, 22.0838, -56.5646, 2.36822
0.572, -1, 4.6138, -0.444097, 26.4526, 22.0314, -56.6692, 2.36339
0.576, -1, 4.60251, -0.382626, 26.4972, 21.9789, -56.7739, 2.35856
0.58, -1, 4.59121, -0.321121, 26.5419, 21.9264, -56.8786, 2.35373
0.584, -1, 4.57991, -0.259582, 26.5866, 21.8739, -56.9834, 2.3489
0.588, -1, 4.56861, -0.198009, 26.6314, 21.8214, -57.0882, 2.34406
0.592, -1, 4.55729, -0.136402, 26.6761, 21.7688, -57.1931, 2.33922
0.596, -1, 4.54597, -0.0747613, 26.7209, 21.7162, -57.2981, 2.33437
0.6, -1, 4.53465, -0.0130868, 26.7657, 21.6636, -57.4031, 2.32953
0.604, -1, 4.52332, 0.0486212, 26.8105, 21.611, -57.5081, 2.32468
0.608, -1, 4.51198, 0.110363, 26.8554, 21.5583, -57.6133, 2.31983
0.612, -1, 4.50064, 0.172138, 26.9003, 21.5056, -57.7184, 2.31497
0.616, -1, 4.48929, 0.233946, 26.9452, 21.4528, -57.8237, 2.31012
0.62, -1, 4.47793, 0.295787, 26.9901, 21.4001, -57.929, 2.30526
0.624, -1, 4.46657, 0.357661, 27.0351, 21.3473, -58.0343, 2.30039
0.628, -1, 4.4552, 0.419569, 27.0801, 21.2945, -58.1397, 2.29553
0.632, -1, 4.44383, 0.481509, 27.1251, 21.2416, -58.2452, 2.29066
0.636, -1, 4.43245, 0.543482, 27.1701, 21.1887, -58.3507, 2.28579
0.64, -1, 4.42107, 0.605487, 27.2151, 21.1358, -58.4563, 2.28092
0.644, -1, 4.40967, 0.667525, 27.2602, 21.0829, -58.5619, 2.27605
0.648, -1, 4.39828, 0.729596, 27.3053, 21.0299, -58.6676, 2.27117
0.652, -1, 4.38687, 0.791698, 27.3504, 20.9769, -58.7733, 2.26629
0.656, -1, 4.37546, 0.853833, 27.3956, 20.9239, -58.8791, 2.26141
0.66, -1, 4.36405, 0.916, 27.4407, 20.8709, -58.985, 2.25652
0.664, -1, 4.35263, 0.978198, 27.4859, 20.8178, -59.0909, 2.25163
0.668, -1, 4.3412, 1.04043, 27.5311, 20.7647, -59.1968, 2.24674
0.672, -1, 4.32977, 1.10269, 27.5764, 20.7116, -59.3028, 2.24185
0.676, -1, 4.31833, 1.16498, 27.6216, 20.6584, -59.4089, 2.23696
0.68, -1, 4.30688, 1.22731, 27.6669, 20.6053, -59.515, 2.23206
0.684, -1, 4.29543, 1.28967, 27.7122, 20.5521, -59.6212, 2.22716
0.688, -1, 4.28398, 1.35205, 27.7575, 20.4988, -59.7274, 2.22226
0.692, -1, 4.27252, 1.41447, 27.8029, 20.4456, -59.8337, 2.21735
0.696, -1, 4.26105, 1.47692, 27.8482, 20.3923, -59.94, 2.21245
0.7, -1, 4.24958, 1.5394, 27.8936, 20.339, -60.0464, 2.20754
0.704, -1, 4.2381, 1.60191, 27.9391, 20.2856, -60.1528, 2.20262
0.708, -1, 4.22661, 1.66445, 27.9845, 20.2323, -60.2593, 2.19771
0.712, -1, 4.21512, 1.72703, 28.0299, 20.1789, -60.3658, 2.19279
0.716, -1, 4.20363, 1.78963, 28.0754, 20.1255, -60.4724, 2.18787
0.72, -1, 4.19213, 1.85226, 28.1209, 20.072, -60.5791, 2.18295
0.724, -1, 4.18062, 1.91492, 28.1665, 20.0186, -60.6857, 2.17803
0.728, -1, 4.16911, 1.97762, 28.212, 19.9651, -60.7925, 2.1731
0.732, -1, 4.15759, 2.04034, 28.2576, 19.9116, -60.8993, 2.16817
0.736, -1, 4.14607, 2.10309, 28.3032, 19.858, -61.0061, 2.16324
0.74, -1, 4.13454, 2.16587, 28.3488, 19.8045, -61.113, 2.15831
0.744, -1, 4.12301, 2.22868, 28.3944, 19.7509, -61.22, 2.15337
0.748, -1, 4.11147, 2.29152, 28.4401, 19.6972, -61.3269, 2.14844
0.752, -1, 4.09992, 2.35439, 28.4857, 19.6436, -61.434, 2.1435
0.756, -1, 4.08837, 2.41729, 28.5314, 19.5899, -61.5411, 2.13855
0.76, -1, 4.07682, 2.48022, 28.5772, 19.5362, -61.6482, 2.13361
0.764, -1, 4.06526, 2.54317, 28.6229, 19.4825, -61.7554, 2.12866
0.768, -1, 4.05369, 2.60616, 28.6687, 19.4288, -61.8627, 2.12371
0.772, -1, 4.04212, 2.66917, 28.7144, 19.375, -61.9699, 2.11876
0.776, -1, 4.03055, 2.73221, 28.7602, 19.3212, -62.0773, 2.11381
0.78, -1, 4.01897, 2.79528, 28.8061, 19.2674, -62.1847, 2.10885
0.784, -1, 4.00738, 2.85838, 28.8519, 19.2136, -62.2921, 2.10389
0.788, -1, 3.99579, 2.92151, 28.8978, 19.1597, -62.3996, 2.09893
0.792, -1, 3.98419, 2.98466, 28.9437, 19.1058, -62.5071, 2.09397
0.796, -1, 3.97259, 3.04784, 28.9896, 19.0519, -62.6147, 2.08901
0.8, -1, 3.96098, 3.11105, 29.0355, 18.998, -62.7223, 2.08404
0.804, -1, 3.94937, 3.17429, 29.0814, 18.944, -62.83, 2.07907
0.808, -1, 3.93776, 3.23755, 29.1274, 18.8901, -62.9377, 2.0741
0.812, -1, 3.92613, 3.30084, 29.1734, 18.8361, -63.0454, 2.06913
0.816, -1, 3.91451, 3.36415, 29.2194, 18.782, -63.1532, 2.06415
0.82, -1, 3.90288, 3.4275, 29.2654, 18.728, -63.2611, 2.05917
0.824, -1, 3.89124, 3.49087, 29.3114, 18.6739, -63.369, 2.05419
0.828, -1, 3.8796, 3.55426, 29.3575, 18.6198, -63.4769, 2.04921
0.832, -1, 3.86795, 3.61769, 29.4036, 18.5657, -63.5849, 2.04423
0.836, -1, 3.8563, 3.68114, 29.4497, 18.5116, -63.6929, 2.03924
0.84, -1, 3.84465, 3.74462, 29.4958, 18.4574, -63.801, 2.03425
0.844, -1, 3.83298, 3.80812, 29.5419, 18.4032, -63.9091, 2.02926
0.848, -1, 3.82132, 3.87165, 29.5881, 18.349, -64.0173, 2.02427
0.852, -1, 3.80965, 3.93521, 29.6342, 18.2948, -64.1255, 2.01928
0.856, -1, 3.79797, 3.99879, 29.6804, 18.2406, -64.2338, 2.01428
0.86, -1, 3.78629, 4.0624, 29.7267, 18.1863, -64.3421, 2.00928
0.864, -1, 3.77461, 4.12604, 29.7729, 18.132, -64.4504, 2.00428
0.868, -1, 3.76292, 4.1897, 29.8191, 18.0777, -64.5588, 1.99928
0.872, -1, 3.75122, 4.25338, 29.8654, 18.0233, -64.6672, 1.99428
0.876, -1, 3.73953, 4.31709, 29.9117, 17.969, -64.7757, 1.98927
0.88, -1, 3.72782, 4.38083, 29.958, 17.9146, -64.8842, 1.98426
0.884, -1, 3.71611, 4.44459, 30.0043, 17.8602, -64.9928, 1.97925
0.888, -1, 3.7044, 4.50838, 30.0507, 17.8058, -65.1014, 1.97424
0.892, -1, 3.69268, 4.57219, 30.097, 17.7513, -65.21, 1.96923
0.896, -1, 3.68096, 4.63603, 30.1434, 17.6969, -65.3187, 1.96421
0.9, -1, 3.66923, 4.69989, 30.1898, 17.6424, -65.4274, 1.95919
0.904, -1, 3.6575, 4.76378, 30.2362, 17.5879, -65.5362, 1.95417
0.908, -1, 3.64577, 4.82769, 30.2826, 17.5333, -65.645, 1.94915
0.912, -1, 3.63403, 4.89163, 30.3291, 17.4788, -65.7539, 1.94413
0.916, -1, 3.62228, 4.95559, 30.3756, 17.4242, -65.8628, 1.9391
0.92, -1, 3.61053, 5.01958, 30.4221, 17.3696, -65.9717, 1.93407
0.924, -1, 3.59878, 5.08358, 30.4686, 17.315, -66.0807, 1.92904
0.928, -1, 3.58702, 5.14762, 30.5151, 17.2604, -66.1897, 1.92401
0.932, -1, 3.57526, 5.21168, 30.5616, 17.2057, -66.2988, 1.91898
0.936, -1, 3.56349, 5.27576, 30.6082, 17.151, -66.4079, 1.91394
0.94, -1, 3.55172, 5.33987, 30.6548, 17.0963, -66.5171, 1.90891
0.944, -1, 3.53994, 5.404, 30.7013, 17.0416, -66.6263, 1.90387
0.948, -1, 3.52816, 5.46815, 30.748, 16.9869, -66.7355, 1.89883
0.952, -1, 3.51638, 5.53233, 30.7946, 16.9321, -66.8448, 1.89378
0.956, -1, 3.50459, 5.59654, 30.8412, 16.8773, -66.9541, 1.88874
0.96, -1, 3.4928, 5.66076, 30.8879, 16.8225, -67.0634, 1.88369
0.964, -1, 3.481, 5.72501, 30.9346, 16.7677, -67.1728, 1.87864
0.968, -1, 3.4692, 5.78929, 30.9813, 16.7129, -67.2822, 1.87359
0.972, -1, 3.45739, 5.85358, 31.028, 16.658, -67.3917, 1.86854
0.976, -1, 3.44558, 5.9179, 31.0747, 16.6031, -67.5012, 1.86349
0.98, -1, 3.43376, 5.98225, 31.1215, 16.5482, -67.6108, 1.85843
0.984, -1, 3.42195, 6.04661, 31.1682, 16.4933, -67.7204, 1.85337
0.988, -1, 3.41012, 6.111, 31.215, 16.4384, -67.83, 1.84831
0.992, -1, 3.39829, 6.17542, 31.2618, 16.3834, -67.9397, 1.84325
0.996, -1, 3.38646, 6.23985, 31.3086, 16.3284, -68.0494, 1.83819
1, -1, 3.37463, 6.30431, 31.3554, 16.2734, -68.1591, 1.83312
1.004, -1, 3.36279, 6.36879, 31.4023, 16.2184, -68.2689, 1.82806
1.008, -1, 3.35094, 6.43329, 31.4491, 16.1634, -68.3787, 1.82299
1.012, -1, 3.3391, 6.49782, 31.496, 16.1083, -68.4886, 1.81792
1.016, -1, 3.32724, 6.56237, 31.5429, 16.0533, -68.5985, 1.81285
1.02, -1, 3.31539, 6.62694, 31.5898, 15.9982, -68.7084, 1.80777
1.024, -1, 3.30353, 6.69153, 31.6368, 15.9431, -68.8184, 1.8027
1.027, -1, 3.29166, 6.75614, 31.6837, 15.8879, -68.9284, 1.79762
1.032, -1, 3.27979, 6.82078, 31.7307, 15.8328, -69.0385, 1.79254
1.036, -1, 3.26792, 6.88544, 31.7776, 15.7776, -69.1485, 1.78746
1.04, -1, 3.25604, 6.95012, 31.8246, 15.7224, -69.2587, 1.78238
1.044, -1, 3.24416, 7.01482, 31.8716, 15.6672, -69.3688, 1.77729
1.048, -1, 3.23228, 7.07954, 31.9187, 15.612, -69.479, 1.77221
1.052, -1, 3.22039, 7.14428, 31.9657, 15.5568, -69.5893, 1.76712
1.055, -1, 3.2085, 7.20905, 32.0127, 15.5015, -69.6995, 1.76203
1.06, -1, 3.1966, 7.27383, 32.0598, 15.4462, -69.8098, 1.75694
1.064, -1, 3.1847, 7.33864, 32.1069, 15.3909, -69.9202, 1.75185
1.068, -1, 3.1728, 7.40347, 32.154, 15.3356, -70.0305, 1.74675
1.072, -1, 3.16089, 7.46832, 32.2011, 15.2803, -70.141, 1.74166
1.076, -1, 3.14898, 7.53319, 32.2482, 15.2249, -70.2514, 1.73656
1.08, -1, 3.13706, 7.59808, 32.2954, 15.1696, -70.3619, 1.73146
1.084, -1, 3.12514, 7.66299, 32.3425, 15.1142, -70.4724, 1.72636
1.088, -1, 3.11322, 7.72792, 32.3897, 15.0588, -70.583, 1.72126
1.091, -1, 3.10129, 7.79287, 32.4369, 15.0034, -70.6935, 1.71616
1.096, -1, 3.08936, 7.85785, 32.4841, 14.9479, -70.8042, 1.71105
1.1, -1, 3.07743, 7.92284, 32.5313, 14.8925, -70.9148, 1.70594
1.104, -1, 3.06549, 7.98785, 32.5786, 14.837, -71.0255, 1.70084
1.108, -1, 3.05355, 8.05288, 32.6258, 14.7815, -71.1362, 1.69573
1.112, -1, 3.0416, 8.11793, 32.6731, 14.726, -71.247, 1.69061
1.116, -1, 3.02965, 8.183, 32.7203, 14.6705, -71.3578, 1.6855
1.119, -1, 3.0177, 8.24809, 32.7676, 14.615, -71.4686, 1.68039
1.124, -1, 3.00575, 8.3132, 32.8149, 14.5594, -71.5795, 1.67527
1.128, -1, 2.99379, 8.37833, 32.8622, 14.5038, -71.6904, 1.67015
1.132, -1, 2.98183, 8.44348, 32.9096, 14.4483, -71.8013, 1.66503
1.136, -1, 2.96986, 8.50865, 32.9569, 14.3927, -71.9122, 1.65991
1.14, -1, 2.95789, 8.57384, 33.0043, 14.337, -72.0232, 1.65479
1.144, -1, 2.94592, 8.63904, 33.0517, 14.2814, -72.1342, 1.64967
1.147, -1, 2.93394, 8.70427, 33.099, 14.2258, -72.2453, 1.64454
1.152, -1, 2.92196, 8.76951, 33.1464, 14.1701, -72.3564, 1.63942
1.156, -1, 2.90998, 8.83477, 33.1939, 14.1144, -72.4675, 1.63429
1.16, -1, 2.89799, 8.90005, 33.2413, 14.0587, -72.5786, 1.62916
1.164, -1, 2.886, 8.96535, 33.2887, 14.003, -72.6898, 1.62403
1.168, -1, 2.87401, 9.03067, 33.3362, 13.9473, -72.801, 1.61889
1.172, -1, 2.86201, 9.096, 33.3836, 13.8915, -72.9123, 1.61376
1.175, -1, 2.85001, 9.16135, 33.4311, 13.8358, -73.0235, 1.60863
1.18, -1, 2.83801, 9.22672, 33.4786, 13.78, -73.1348, 1.60349
1.184, -1, 2.826, 9.29211, 33.5261, 13.7242, -73.2461, 1.59835
1.188, -1, 2.81399, 9.35752, 33.5736, 13.6684, -73.3575, 1.59321
1.192, -1, 2.80198, 9.42294, 33.6212, 13.6126, -73.4689, 1.58807
1.196, -1, 2.78996, 9.48838, 33.6687, 13.5567, -73.5803, 1.58293
1.2, -1, 2.77794, 9.55384, 33.7163, 13.5009, -73.6918, 1.57779
1.204, -1, 2.76592, 9.61932, 33.7638, 13.445, -73.8032, 1.57264
1.208, -1, 2.7539, 9.68481, 33.8114, 13.3891, -73.9147, 1.56749
1.212, -1, 2.74187, 9.75032, 33.859, 13.3332, -74.0263, 1.56235
1.216, -1, 2.72983, 9.81584, 33.9066, 13.2773, -74.1379, 1.5572
1.22, -1, 2.7178, 9.88139, 33.9542, 13.2214, -74.2494, 1.55205
1.224, -1, 2.70576, 9.94695, 34.0019, 13.1655, -74.3611, 1.5469
1.228, -1, 2.69372, 10.0125, 34.0495, 13.1095, -74.4727, 1.54174
1.232, -1, 2.68168, 10.0781, 34.0972, 13.0536, -74.5844, 1.53659
1.236, -1, 2.66963, 10.1437, 34.1448, 12.9976, -74.6961, 1.53143
1.24, -1, 2.65758, 10.2093, 34.1925, 12.9416, -74.8078, 1.52628
1.244, -1, 2.64552, 10.275, 34.2402, 12.8856, -74.9196, 1.52112
1.248, -1, 2.63347, 10.3407, 34.2879, 12.8296, -75.0314, 1.51596
1.252, -1, 2.62141, 10.4063, 34.3356, 12.7735, -75.1432, 1.5108
1.256, -1, 2.60935, 10.472, 34.3833, 12.7175, -75.255, 1.50564
1.26, -1, 2.59728, 10.5377, 34.4311, 12.6614, -75.3669, 1.50048
1.264, -1, 2.58521, 10.6035, 34.4788, 12.6053, -75.4788, 1.49531
1.267, -1, 2.57314, 10.6692, 34.5266, 12.5493, -75.5907, 1.49015
1.272, -1, 2.56106, 10.7349, 34.5744, 12.4932, -75.7027, 1.48498
1.276, -1, 2.54899, 10.8007, 34.6221, 12.437, -75.8147, 1.47981
1.28, -1, 2.53691, 10.8665, 34.6699, 12.3809, -75.9267, 1.47464
1.284, -1, 2.52482, 10.9323, 34.7177, 12.3248, -76.0387, 1.46947
1.288, -1, 2.51274, 10.9981, 34.7656, 12.2686, -76.1508, 1.4643
1.292, -1, 2.50065, 11.064, 34.8134, 12.2124, -76.2629, 1.45913
1.295, -1, 2.48856, 11.1298, 34.8612, 12.1562, -76.375, 1.45395
1.3, -1, 2.47646, 11.1957, 34.9091, 12.1, -76.4871, 1.44878
1.304, -1, 2.46436, 11.2616, 34.957, 12.0438, -76.5993, 1.4436
1.308, -1, 2.45226, 11.3275, 35.0048, 11.9876, -76.7115, 1.43842
1.312, -1, 2.44016, 11.3934, 35.0527, 11.9314, -76.8237, 1.43324
1.316, -1, 2.42805, 11.4593, 35.1006, 11.8751, -76.936, 1.42806
1.32, -1, 2.41594, 11.5253, 35.1485, 11.8188, -77.0483, 1.42288
1.324, -1, 2.40383, 11.5912, 35.1965, 11.7626, -77.1606, 1.4177
1.328, -1, 2.39171, 11.6572, 35.2444, 11.7063, -77.2729, 1.41251
1.332, -1, 2.37959, 11.7232, 35.2923, 11.65, -77.3853, 1.40733
1.336, -1, 2.36747, 11.7892, 35.3403, 11.5936, -77.4977, 1.40214
1.34, -1, 2.35535, 11.8553, 35.3883, 11.5373, -77.6101, 1.39695
1.344, -1, 2.34322, 11.9213, 35.4363, 11.481, -77.7225, 1.39176
1.348, -1, 2.33109, 11.9874, 35.4842, 11.4246, -77.835, 1.38657
1.352, -1, 2.31896, 12.0534, 35.5322, 11.3682, -77.9475, 1.38138
1.356, -1, 2.30682, 12.1195, 35.5803, 11.3118, -78.06, 1.37619
1.36, -1, 2.29468, 12.1856, 35.6283, 11.2554, -78.1726, 1.37099
1.364, -1, 2.28254, 12.2518, 35.6763, 11.199, -78.2852, 1.3658
1.368, -1, 2.2704, 12.3179, 35.7244, 11.1426, -78.3978, 1.3606
1.372, -1, 2.25825, 12.3841, 35.7724, 11.0861, -78.5104, 1.3554
1.376, -1, 2.2461, 12.4502, 35.8205, 11.0297, -78.6231, 1.3502
1.38, -1, 2.23394, 12.5164, 35.8686, 10.9732, -78.7357, 1.345
1.384, -1, 2.22179, 12.5826, 35.9167, 10.9167, -78.8485, 1.3398
1.388, -1, 2.20963, 12.6488, 35.9648, 10.8602, -78.9612, 1.3346
1.392, -1, 2.19747, 12.7151, 36.0129, 10.8037, -79.074, 1.32939
1.396, -1, 2.1853, 12.7813, 36.0611, 10.7472, -79.1868, 1.32419
1.4, -1, 2.17313, 12.8476, 36.1092, 10.6907, -79.2996, 1.31898
1.404, -1, 2.16096, 12.9139, 36.1573, 10.6341, -79.4124, 1.31377
1.408, -1, 2.14879, 12.9802, 36.2055, 10.5775, -79.5253, 1.30856
1.412, -1, 2.13661, 13.0465, 36.2537, 10.521, -79.6382, 1.30335
1.416, -1, 2.12443, 13.1128, 36.3019, 10.4644, -79.7511, 1.29814
1.42, -1, 2.11225, 13.1791, 36.3501, 10.4078, -79.8641, 1.29293
1.424, -1, 2.10007, 13.2455, 36.3983, 10.3512, -79.977, 1.28771
1.428, -1, 2.08788, 13.3119, 36.4465, 10.2945, -80.09, 1.2825
1.432, -1, 2.07569, 13.3783, 36.4947, 10.2379, -80.2031, 1.27728
1.436, -1, 2.0635, 13.4447, 36.543, 10.1812, -80.3161, 1.27206
1.44, -1, 2.0513, 13.5111, 36.5912, 10.1246, -80.4292, 1.26684
1.444, -1, 2.0391, 13.5775, 36.6395, 10.0679, -80.5423, 1.26162
1.448, -1, 2.0269, 13.644, 36.6878, 10.0112, -80.6555, 1.2564
1.452, -1, 2.01469, 13.7104, 36.7361, 9.95447, -80.7686, 1.25118
1.456, -1, 2.00249, 13.7769, 36.7844, 9.89775, -80.8818, 1.24596
1.46, -1, 1.99028, 13.8434, 36.8327, 9.84102, -80.995, 1.24073
1.464, -1, 1.97806, 13.9099, 36.881, 9.78427, -81.1083, 1.23551
1.468, -1, 1.96585, 13.9765, 36.9293, 9.72751, -81.2215, 1.23028
1.472, -1, 1.95363, 14.043, 36.9777, 9.67074, -81.3348, 1.22505
1.476, -1, 1.94141, 14.1095, 37.026, 9.61395, -81.4481, 1.21982
1.48, -1, 1.92918, 14.1761, 37.0744, 9.55716, -81.5615, 1.21459
1.484, -1, 1.91696, 14.2427, 37.1227, 9.50035, -81.6748, 1.20936
1.488, -1, 1.90473, 14.3093, 37.1711, 9.44352, -81.7882, 1.20412
1.492, -1, 1.8925, 14.3759, 37.2195, 9.38668, -81.9016, 1.19889
1.496, -1, 1.88026, 14.4426, 37.2679, 9.32984, -82.0151, 1.19366
1.5, -1, 1.86802, 14.5092, 37.3164, 9.27297, -82.1285, 1.18842
1.504, -1, 1.85578, 14.5759, 37.3648, 9.2161, -82.242, 1.18318
1.508, -1, 1.84354, 14.6425, 37.4132, 9.15921, -82.3556, 1.17794
1.512, -1, 1.83129, 14.7092, 37.4617, 9.10231, -82.4691, 1.1727
1.516, -1, 1.81905, 14.7759, 37.5101, 9.0454, -82.5827, 1.16746
1.52, -1, 1.80679, 14.8426, 37.5586, 8.98847, -82.6963, 1.16222
1.524, -1, 1.79454, 14.9094, 37.6071, 8.93154, -82.8099, 1.15697
1.528, -1, 1.78228, 14.9761, 37.6556, 8.87459, -82.9235, 1.15173
1.532, -1, 1.77002, 15.0429, 37.7041, 8.81762, -83.0372, 1.14648
1.536, -1, 1.75776, 15.1097, 37.7526, 8.76065, -83.1509, 1.14124
1.54, -1, 1.7455, 15.1765, 37.8011, 8.70366, -83.2646, 1.13599
1.544, -1, 1.73323, 15.2433, 37.8497, 8.64666, -83.3783, 1.13074
1.548, -1, 1.72096, 15.3101, 37.8982, 8.58965, -83.4921, 1.12549
1.552, -1, 1.70869, 15.3769, 37.9468, 8.53262, -83.6059, 1.12024
1.556, -1, 1.69641, 15.4438, 37.9953, 8.47558, -83.7197, 1.11498
1.56, -1, 1.68413, 15.5107, 38.0439, 8.41853, -83.8336, 1.10973
1.564, -1, 1.67185, 15.5775, 38.0925, 8.36147, -83.9474, 1.10447
1.568, -1, 1.65957, 15.6444, 38.1411, 8.3044, -84.0613, 1.09922
1.572, -1, 1.64728, 15.7113, 38.1897, 8.24731, -84.1752, 1.09396
1.576, -1, 1.63499, 15.7783, 38.2383, 8.19021, -84.2892, 1.0887
1.58, -1, 1.6227, 15.8452, 38.287, 8.1331, -84.4032, 1.08344
1.584, -1, 1.61041, 15.9122, 38.3356, 8.07598, -84.5172, 1.07818
1.588, -1, 1.59811, 15.9791, 38.3843, 8.01884, -84.6312, 1.07292
1.592, -1, 1.58581, 16.0461, 38.4329, 7.96169, -84.7452, 1.06766
1.596, -1, 1.57351, 16.1131, 38.4816, 7.90453, -84.8593, 1.06239
1.6, -1, 1.56121, 16.1801, 38.5303, 7.84736, -84.9734, 1.05713
1.604, -1, 1.5489, 16.2471, 38.579, 7.79017, -85.0875, 1.05186
1.608, -1, 1.53659, 16.3142, 38.6277, 7.73298, -85.2016, 1.04659
1.612, -1, 1.52428, 16.3812, 38.6764, 7.67577, -85.3158, 1.04132
1.616, -1, 1.51196, 16.4483, 38.7251, 7.61855, -85.4299, 1.03605
1.62, -1, 1.49965, 16.5154, 38.7738, 7.56131, -85.5442, 1.03078
1.624, -1, 1.48733, 16.5825, 38.8226, 7.50407, -85.6584, 1.02551
1.628, -1, 1.475, 16.6496, 38.8713, 7.44681, -85.7726, 1.02024
1.632, -1, 1.46268, 16.7167, 38.9201, 7.38954, -85.8869, 1.01496
1.636, -1, 1.45035, 16.7838, 38.9689, 7.33226, -86.0012, 1.00969
1.64, -1, 1.43802, 16.851, 39.0177, 7.27497, -86.1156, 1.00441
1.644, -1, 1.42568, 16.9181, 39.0665, 7.21766, -86.2299, 0.999136
1.648, -1, 1.41335, 16.9853, 39.1153, 7.16035, -86.3443, 0.993857
1.652, -1, 1.40101, 17.0525, 39.1641, 7.10302, -86.4587, 0.988577
1.656, -1, 1.38867, 17.1197, 39.2129, 7.04568, -86.5731, 0.983297
1.66, -1, 1.37632, 17.187, 39.2617, 6.98832, -86.6876, 0.978015
1.664, -1, 1.36398, 17.2542, 39.3106, 6.93096, -86.802, 0.972732
1.668, -1, 1.35163, 17.3214, 39.3595, 6.87358, -86.9165, 0.967447
1.672, -1, 1.33927, 17.3887, 39.4083, 6.81619, -87.0311, 0.962162
1.676, -1, 1.32692, 17.456, 39.4572, 6.75879, -87.1456, 0.956875
1.68, -1, 1.31456, 17.5233, 39.5061, 6.70137, -87.2602, 0.951588
1.684, -1, 1.3022, 17.5906, 39.555, 6.64394, -87.3748, 0.946299
1.688, -1, 1.28984, 17.6579, 39.6039, 6.5865, -87.4894, 0.941009
1.692, -1, 1.27747, 17.7253, 39.6528, 6.52904, -87.604, 0.935718
1.696, -1, 1.2651, 17.7926, 39.7018, 6.47158, -87.7187, 0.930425
1.7, -1, 1.25273, 17.86, 39.7507, 6.4141, -87.8334, 0.925131
1.704, -1, 1.24036, 17.9274, 39.7997, 6.3566, -87.9481, 0.919837
1.708, -1, 1.22798, 17.9948, 39.8486, 6.29909, -88.0629, 0.914541
1.712, -1, 1.2156, 18.0622, 39.8976, 6.24157, -88.1777, 0.909243
1.716, -1, 1.20322, 18.1297, 39.9466, 6.18404, -88.2925, 0.903945
1.72, -1, 1.19083, 18.1971, 39.9956, 6.12649, -88.4073, 0.898645
1.724, -1, 1.17844, 18.2646, 40.0446, 6.06893, -88.5222, 0.893344
1.728, -1, 1.16605, 18.332, 40.0936, 6.01136, -88.6371, 0.888042
1.732, -1, 1.15366, 18.3995, 40.1427, 5.95377, -88.752, 0.882738
1.736, -1, 1.14126, 18.4671, 40.1917, 5.89617, -88.8669, 0.877433
1.74, -1, 1.12886, 18.5346, 40.2408, 5.83856, -88.9819, 0.872127
1.744, -1, 1.11646, 18.6021, 40.2898, 5.78093, -89.0969, 0.86682
1.748, -1, 1.10405, 18.6697, 40.3389, 5.72328, -89.2119, 0.861512
1.752, -1, 1.09164, 18.7373, 40.388, 5.66563, -89.327, 0.856202
1.756, -1, 1.07923, 18.8049, 40.4371, 5.60796, -89.4421, 0.850891
1.76, -1, 1.06681, 18.8725, 40.4863, 5.55027, -89.5572, 0.845578
1.764, -1, 1.0544, 18.9401, 40.5354, 5.49258, -89.6723, 0.840265
1.768, -1, 1.04197, 19.0077, 40.5845, 5.43487, -89.7875, 0.83495
1.772, -1, 1.02955, 19.0754, 40.6337, 5.37714, -89.9027, 0.829634
1.776, -1, 1.01712, 19.1431, 40.6828, 5.3194, -90.0179, 0.824316
1.78, -1, 1.00469, 19.2108, 40.732, 5.26165, -90.1331, 0.818997
1.784, -1, 0.99226, 19.2785, 40.7812, 5.20388, -90.2484, 0.813677
1.788, -1, 0.979824, 19.3462, 40.8304, 5.1461, -90.3637, 0.808356
1.792, -1, 0.967384, 19.414, 40.8796, 5.0883, -90.479, 0.803033
1.796, -1, 0.954942, 19.4817, 40.9288, 5.03049, -90.5944, 0.797709
1.8, -1, 0.942496, 19.5495, 40.9781, 4.97266, -90.7098, 0.792384
1.804, -1, 0.930048, 19.6173, 41.0273, 4.91483, -90.8252, 0.787057
1.808, -1, 0.917596, 19.6851, 41.0766, 4.85697, -90.9407, 0.781729
1.812, -1, 0.905141, 19.7529, 41.1259, 4.7991, -91.0561, 0.7764
1.816, -1, 0.892683, 19.8208, 41.1752, 4.74122, -91.1716, 0.771069
1.82, -1, 0.880222, 19.8886, 41.2245, 4.68332, -91.2872, 0.765737
1.824, -1, 0.867757, 19.9565, 41.2738, 4.62541, -91.4027, 0.760403
1.828, -1, 0.85529, 20.0244, 41.3231, 4.56748, -91.5183, 0.755069
1.832, -1, 0.842819, 20.0923, 41.3724, 4.50954, -91.634, 0.749732
1.836, -1, 0.830345, 20.1602, 41.4218, 4.45158, -91.7496, 0.744395
1.84, -1, 0.817868, 20.2282, 41.4712, 4.39361, -91.8653, 0.739056
1.844, -1, 0.805388, 20.2962, 41.5205, 4.33562, -91.981, 0.733716
1.848, -1, 0.792904, 20.3641, 41.5699, 4.27762, -92.0967, 0.728374
1.852, -1, 0.780417, 20.4321, 41.6193, 4.21961, -92.2125, 0.723031
1.856, -1, 0.767927, 20.5002, 41.6687, 4.16157, -92.3283, 0.717687
1.86, -1, 0.755434, 20.5682, 41.7182, 4.10353, -92.4441, 0.712341
1.864, -1, 0.742938, 20.6362, 41.7676, 4.04547, -92.56, 0.706994
1.868, -1, 0.730438, 20.7043, 41.8171, 3.98739, -92.6759, 0.701645
1.872, -1, 0.717935, 20.7724, 41.8665, 3.9293, -92.7918, 0.696295
1.876, -1, 0.705428, 20.8405, 41.916, 3.87119, -92.9078, 0.690944
1.88, -1, 0.692918, 20.9086, 41.9655, 3.81306, -93.0238, 0.685591
1.884, -1, 0.680405, 20.9768, 42.015, 3.75493, -93.1398, 0.680237
1.888, -1, 0.667889, 21.0449, 42.0645, 3.69677, -93.2558, 0.674881
1.892, -1, 0.655369, 21.1131, 42.114, 3.6386, -93.3719, 0.669524
1.896, -1, 0.642846, 21.1813, 42.1636, 3.58042, -93.488, 0.664165
1.9, -1, 0.630319, 21.2495, 42.2132, 3.52221, -93.6041, 0.658805
1.904, -1, 0.617789, 21.3178, 42.2627, 3.464, -93.7203, 0.653444
1.908, -1, 0.605256, 21.386, 42.3123, 3.40577, -93.8365, 0.648081
1.912, -1, 0.592719, 21.4543, 42.3619, 3.34752, -93.9528, 0.642717
1.916, -1, 0.580179, 21.5226, 42.4115, 3.28925, -94.069, 0.637351
1.92, -1, 0.567636, 21.5909, 42.4612, 3.23097, -94.1853, 0.631983
1.924, -1, 0.555089, 21.6592, 42.5108, 3.17268, -94.3017, 0.626615
1.928, -1, 0.542538, 21.7276, 42.5604, 3.11436, -94.418, 0.621244
1.932, -1, 0.529984, 21.7959, 42.6101, 3.05603, -94.5344, 0.615873
1.936, -1, 0.517427, 21.8643, 42.6598, 2.99769, -94.6508, 0.610499
1.94, -1, 0.504866, 21.9327, 42.7095, 2.93933, -94.7673, 0.605125
1.944, -1, 0.492301, 22.0012, 42.7592, 2.88095, -94.8838, 0.599748
1.948, -1, 0.479733, 22.0696, 42.8089, 2.82256, -95.0003, 0.594371
1.952, -1, 0.467162, 22.1381, 42.8587, 2.76415, -95.1169, 0.588992
1.956, -1, 0.454587, 22.2065, 42.9084, 2.70572, -95.2335, 0.583611
1.96, -1, 0.442008, 22.275, 42.9582, 2.64728, -95.3501, 0.578229
1.964, -1, 0.429426, 22.3436, 43.0079, 2.58882, -95.4667, 0.572845
1.968, -1, 0.416841, 22.4121, 43.0577, 2.53034, -95.5834, 0.567459
1.972, -1, 0.404251, 22.4807, 43.1075, 2.47185, -95.7001, 0.562073
1.976, -1, 0.391659, 22.5492, 43.1574, 2.41334, -95.8169, 0.556684
1.98, -1, 0.379062, 22.6178, 43.2072, 2.35482, -95.9337, 0.551294
1.984, -1, 0.366462, 22.6864, 43.2571, 2.29627, -96.0505, 0.545903
1.988, -1, 0.353858, 22.7551, 43.3069, 2.23771, -96.1674, 0.54051
1.992, -1, 0.341251, 22.8237, 43.3568, 2.17914, -96.2843, 0.535115
1.996, -1, 0.32864, 22.8924, 43.4067, 2.12054, -96.4012, 0.529719
1.999, -1, 0.316025, 22.9611, 43.4566, 2.06193, -96.5181, 0.524321
2.004, -1, 0.303407, 23.0298, 43.5065, 2.0033, -96.6351, 0.518922
2.008, -1, 0.290784, 23.0986, 43.5565, 1.94466, -96.7522, 0.513521
2.012, -1, 0.278158, 23.1673, 43.6064, 1.886, -96.8692, 0.508119
2.015, -1, 0.265528, 23.2361, 43.6564, 1.82732, -96.9863, 0.502714
2.019, -1, 0.252894, 23.3049, 43.7064, 1.76862, -97.1034, 0.497309
2.024, -1, 0.240256, 23.3737, 43.7563, 1.7099, -97.2206, 0.491901
2.028, -1, 0.227615, 23.4426, 43.8064, 1.65117, -97.3378, 0.486492
2.031, -1, 0.214969, 23.5114, 43.8564, 1.59242, -97.455, 0.481082
2.036, -1, 0.202319, 23.5803, 43.9064, 1.53365, -97.5723, 0.475669
2.04, -1, 0.189666, 23.6492, 43.9565, 1.47486, -97.6896, 0.470256
2.044, -1, 0.177008, 23.7181, 44.0066, 1.41606, -97.807, 0.46484
2.048, -1, 0.164347, 23.7871, 44.0567, 1.35723, -97.9244, 0.459422
2.051, -1, 0.151682, 23.8561, 44.1068, 1.29839, -98.0418, 0.454003
2.055, -1, 0.139012, 23.9251, 44.1569, 1.23953, -98.1592, 0.448582
2.06, -1, 0.126339, 23.9941, 44.207, 1.18065, -98.2767, 0.44316
2.064, -1, 0.113662, 24.0631, 44.2572, 1.12175, -98.3943, 0.437735
2.068, -1, 0.10098, 24.1322, 44.3073, 1.06283, -98.5118, 0.432309
2.071, -1, 0.0882945, 24.2012, 44.3575, 1.00389, -98.6295, 0.426881
2.076, -1, 0.0756048, 24.2704, 44.4077, 0.944931, -98.7471, 0.421452
2.08, -1, 0.0629109, 24.3395, 44.458, 0.885954, -98.8648, 0.41602
2.084, -1, 0.0502128, 24.4086, 44.5082, 0.826956, -98.9825, 0.410587
2.087, -1, 0.0375105, 24.4778, 44.5584, 0.76794, -99.1003, 0.405152
2.092, -1, 0.024804, 24.547, 44.6087, 0.708903, -99.2181, 0.399715
2.096, -1, 0.0120931, 24.6162, 44.659, 0.649846, -99.3359, 0.394276
2.1, -1, -0.000621998, 24.6855, 44.7093, 0.59077, -99.4538, 0.388835
2.104, -1, -0.0133397, 24.7547, 44.7596, 0.531673, -99.5718, 0.383393
2.107, -1, -0.0260491, 24.824, 44.81, 0.472557, -99.6897, 0.377949
2.111, -1, -0.0387191, 24.8932, 44.8603, 0.413423, -99.8077, 0.372503
2.116, -1, -0.0512952, 24.9621, 44.9106, 0.354279, -99.9258, 0.367056
2.12, -1, -0.0637104, 25.0308, 44.9609, 0.295145, -100.044, 0.361611
2.124, -1, -0.0759018, 25.0989, 45.0111, 0.236059, -100.162, 0.35617
2.127, -1, -0.0878227, 25.1663, 45.0611, 0.177087, -100.279, 0.35074
2.132, -1, -0.0994466, 25.2329, 45.1108, 0.118325, -100.397, 0.34533
2.136, -1, -0.110769, 25.2985, 45.1602, 0.0599036, -100.513, 0.339952
2.14, -1, -0.1218, 25.363, 45.2091, 0.0019841, -100.629, 0.334621
2.143, -1, -0.132543, 25.4262, 45.2573, -0.0552408, -100.743, 0.329353
2.148, -1, -0.142986, 25.4879, 45.3047, -0.111552, -100.856, 0.32417
2.152, -1, -0.153102, 25.5478, 45.3511, -0.166705, -100.966, 0.319095
2.156, -1, -0.162864, 25.6058, 45.3962, -0.220433, -101.073, 0.31415
2.16, -1, -0.172262, 25.6616, 45.4398, -0.272452, -101.177, 0.309363
2.163, -1, -0.181305, 25.7152, 45.4817, -0.322469, -101.277, 0.30476
2.168, -1, -0.190012, 25.7665, 45.5218, -0.370198, -101.372, 0.300368
2.172, -1, -0.198402, 25.8155, 45.5597, -0.415373, -101.462, 0.296211
2.176, -1, -0.206473, 25.862, 45.5954, -0.457767, -101.547, 0.292309
2.179, -1, -0.214199, 25.9059, 45.6286, -0.497195, -101.626, 0.28868
2.184, -1, -0.221538, 25.9471, 45.6594, -0.533525, -101.698, 0.285335
2.188, -1, -0.228453, 25.9853, 45.6875, -0.566674, -101.764, 0.282283
2.192, -1, -0.234933, 26.0206, 45.713, -0.596603, -101.824, 0.279526
2.196, -1, -0.240993, 26.0529, 45.7358, -0.623321, -101.877, 0.277065
2.199, -1, -0.246659, 26.0824, 45.7561, -0.646886, -101.924, 0.274894
2.204, -1, -0.251952, 26.1093, 45.7739, -0.667403, -101.965, 0.273002
2.208, -1, -0.256877, 26.1335, 45.7893, -0.685028, -102, 0.271377
2.212, -1, -0.261424, 26.1551, 45.8025, -0.69996, -102.03, 0.269999
2.216, -1, -0.265576, 26.1741, 45.8137, -0.712431, -102.055, 0.268847
2.219, -1, -0.269319, 26.1907, 45.823, -0.72269, -102.075, 0.267899
2.224, -1, -0.272661, 26.2049, 45.8306, -0.730995, -102.092, 0.267131
2.228, -1, -0.275638, 26.217, 45.8367, -0.7376, -102.105, 0.26652
2.232, -1, -0.278294, 26.2271, 45.8416, -0.74275, -102.115, 0.266043
2.235, -1, -0.280662, 26.2356, 45.8454, -0.746678, -102.123, 0.265678
2.24, -1, -0.28275, 26.2427, 45.8484, -0.749605, -102.129, 0.265406
2.244, -1, -0.284551, 26.2484, 45.8506, -0.751735, -102.133, 0.265208
2.248, 2, -0.286055, 26.253, 45.8522, -0.75325, -102.136, 0.265066
2.252, 2, -0.287259, 26.2565, 45.8534, -0.754306, -102.138, 0.264967
2.255, 2, -0.288176, 26.2591, 45.8542, -0.755031, -102.139, 0.264899
2.259, 2, -0.288839, 26.2609, 45.8548, -0.755526, -102.14, 0.264853
2.264, 2, -0.289301, 26.2622, 45.8552, -0.755861, -102.141, 0.264821
2.268, 2, -0.289616, 26.2631, 45.8555, -0.756088, -102.141, 0.2648
2.272, 2, -0.289829, 26.2637, 45.8556, -0.756242, -102.142, 0.264786
2.275, 2, -0.289973, 26.2641, 45.8558, -0.756346, -102.142, 0.264776
2.28, 2, -0.290071, 26.2644, 45.8559, -0.756416, -102.142, 0.264769
2.284, 2, -0.290137, 26.2645, 45.8559, -0.756464, -102.142, 0.264765
2.288, 2, -0.290182, 26.2647, 45.8559, -0.756496, -102.142, 0.264762
2.291, 2, -0.290213, 26.2648, 45.856, -0.756518, -102.142, 0.26476
2.296, 2, -0.290233, 26.2648, 45.856, -0.756533, -102.142, 0.264758
2.3, 2, -0.290247, 26.2648, 45.856, -0.756543, -102.142, 0.264757
2.304, 2, -0.290257, 26.2649, 45.856, -0.75655, -102.142, 0.264757
2.308, 2, -0.290263, 26.2649, 45.856, -0.756555, -102.142, 0.264756
2.311, 2, -0.290267, 26.2649, 45.856, -0.756558, -102.142, 0.264756
2.316, 2, -0.29027, 26.2649, 45.856, -0.75656, -102.142, 0.264756
2.32, 2, -0.290272, 26.2649, 45.856, -0.756561, -102.142, 0.264755
2.324, 2, -0.290274, 26.2649, 45.856, -0.756562, -102.142, 0.264755
2.328, 2, -0.290275, 26.2649, 45.856, -0.756563, -102.142, 0.264755
2.331, 2, -0.290275, 26.2649, 45.856, -0.756563, -102.142, 0.264755
2.336, 2, -0.290276, 26.2649, 45.856, -0.756564, -102.142, 0.264755
2.34, 2, -0.290276, 26.2649, 45.856, -0.756564, -102.142, 0.264755
2.344, 2, -0.290276, 26.2649, 45.856, -0.756564, -102.142, 0.264755
2.347, 2, -0.290276, 26.2649, 45.856, -0.756564, -102.142, 0.264755
2.352, 2, -0.290276, 26.2649, 45.856, -0.756564, -102.142, 0.264755
2.356, 2, -0.290276, 26.2649, 45.856, -0.756564, -102.142, 0.264755
2.36, 2, -0.290276, 26.2649, 45.856, -0.756564, -102.142, 0.264755
2.364, 2, -0.290276, 26.2649, 45.856, -0.756564, -102.142, 0.264755
2.367, 2, -0.290276, 26.2649, 45.856, -0.756564, -102.142, 0.264755
2.372, 2, -0.290276, 26.2649, 45.856, -0.756564, -102.142, 0.264755
2.376, 2, -0.290276, 26.2649, 45.856, -0.756564, -102.142, 0.264755
2.38, 2, -0.290276, 26.2649, 45.856, -0.756564, -102.142, 0.264755
2.383, 2, -0.290276, 26.2649, 45.856, -0.756564, -102.142, 0.264755
2.388, 2, -0.290276, 26.2649, 45.856, -0.756564, -102.142, 0.264755
2.392, 2, -0.290276, 26.2649, 45.856, -0.756564, -102.142, 0.264755
2.396, 2, -0.290276, 26.2649, 45.856, -0.756564, -102.142, 0.264755
2.4, 2, -0.290276, 26.2649, 45.856, -0.756564, -102.142, 0.264755
2.403, 2, -0.290276, 26.2649, 45.856, -0.756564, -102.142, 0.264755
2.408, 2, -0.290276, 26.2649, 45.856, -0.756564, -102.142, 0.264755
2.412, 2, -0.290276, 26.2649, 45.856, -0.756564, -102.142, 0.264755
2.416, 2, -0.290276, 26.2649, 45.856, -0.756564, -102.142, 0.264755
2.42, 2, -0.290276, 26.2649, 45.856, -0.756564, -102.142, 0.264755
2.423, 2, -0.290276, 26.2649, 45.856, -0.756564, -102.142, 0.264755
2.428, 2, -0.290276, 26.2649, 45.856, -0.756564, -102.142, 0.264755
2.432, 2, -0.290276, 26.2649, 45.856, -0.756564, -102.142, 0.264755
2.436, 2, -0.290276, 26.2649, 45.856, -0.756564, -102.142, 0.264755
2.439, 2, -0.290276, 26.2649, 45.856, -0.756564, -102.142, 0.264755
2.444, 2, -0.290276, 26.2649, 45.856, -0.756564, -102.142, 0.264755
2.448, 2, -0.290276, 26.2649, 45.856, -0.756564, -102.142, 0.264755
2.452, 2, -0.290276, 26.2649, 45.856, -0.756564, -102.142, 0.264755
2.456, 2, -0.290276, 26.2649, 45.856, -0.756564, -102.142, 0.264755
2.459, 2, -0.290276, 26.2649, 45.856, -0.756564, -102.142, 0.264755
2.464, 2, -0.290276, 26.2649, 45.856, -0.756564, -102.142, 0.264755
2.468, 2, -0.290276, 26.2649, 45.856, -0.756564, -102.142, 0.264755
2.472, 2, -0.290276, 26.2649, 45.856, -0.756564, -102.142, 0.264755
2.476, 2, -0.290276, 26.2649, 45.856, -0.756564, -102.142, 0.264755
2.479, 2, -0.290276, 26.2649, 45.856, -0.756564, -102.142, 0.264755
2.484, 2, -0.290276, 26.2649, 45.856, -0.756564, -102.142, 0.264755
2.488, 2, -0.290276, 26.2649, 45.856, -0.756564, -102.142, 0.264755
2.492, 2, -0.290276, 26.2649, 45.856, -0.756564, -102.142, 0.264755
2.495, 2, -0.290276, 26.2649, 45.856, -0.756564, -102.142, 0.264755
2.5, 2, -0.290276, 26.2649, 45.856, -0.756564, -102.142, 0.264755
2.504, 2, -0.290276, 26.2649, 45.856, -0.756564, -102.142, 0.264755
2.508, 2, -0.290276, 26.2649, 45.856, -0.756564, -102.142, 0.264755
2.512, 2, -0.290276, 26.2649, 45.856, -0.756564, -102.142, 0.264755
2.515, 2, -0.290276, 26.2649, 45.856, -0.756564, -102.142, 0.264755
2.52, 2, -0.290276, 26.2649, 45.856, -0.756564, -102.142, 0.264755
2.524, 2, -0.290276, 26.2649, 45.856, -0.756564, -102.142, 0.264755
2.528, 2, -0.290276, 26.2649, 45.856, -0.756564, -102.142, 0.264755
2.531, 2, -0.290276, 26.2649, 45.856, -0.756564, -102.142, 0.264755
2.536, 2, -0.290276, 26.2649, 45.856, -0.756564, -102.142, 0.264755
2.54, 2, -0.290276, 26.2649, 45.856, -0.756564, -102.142, 0.264755
2.544, 2, -0.290276, 26.2649, 45.856, -0.756564, -102.142, 0.264755
2.548, 2, -0.290276, 26.2649, 45.856, -0.756564, -102.142, 0.264755
2.551, 2, -0.290276, 26.2649, 45.856, -0.756564, -102.142, 0.264755
2.556, 2, -0.290276, 26.2649, 45.856, -0.756564, -102.142, 0.264755
2.56, 2, -0.290276, 26.2649, 45.856, -0.756564, -102.142, 0.264755
2.564, 2, -0.290276, 26.2649, 45.856, -0.756564, -102.142, 0.264755
2.568, 2, -0.290276, 26.2649, 45.856, -0.756564, -102.142, 0.264755
2.571, 2, -0.290276, 26.2649, 45.856, -0.756564, -102.142, 0.264755
2.576, 2, -0.290276, 26.2649, 45.856, -0.756564, -102.142, 0.264755
2.58, 2, -0.290276, 26.2649, 45.856, -0.756564, -102.142, 0.264755
2.584, 2, -0.290276, 26.2649, 45.856, -0.756564, -102.142, 0.264755
2.587, 2, -0.290276, 26.2649, 45.856, -0.756564, -102.142, 0.264755
2.592, 2, -0.290276, 26.2649, 45.856, -0.756564, -102.142, 0.264755
2.596, 2, -0.290276, 26.2649, 45.856, -0.756564, -102.142, 0.264755
2.6, 2, -0.290276, 26.2649, 45.856, -0.756564, -102.142, 0.264755
2.604, 2, -0.290276, 26.2649, 45.856, -0.756564, -102.142, 0.264755
2.607, 2, -0.290276, 26.2649, 45.856, -0.756564, -102.142, 0.264755
2.612, 2, -0.290276, 26.2649, 45.856, -0.756564, -102.142, 0.264755
2.616, 2, -0.290276, 26.2649, 45.856, -0.756564, -102.142, 0.264755
2.62, 2, -0.290276, 26.2649, 45.856, -0.756564, -102.142, 0.264755
2.624, 2, -0.290276, 26.2649, 45.856, -0.756564, -102.142, 0.264755
2.627, 2, -0.290276, 26.2649, 45.856, -0.756564, -102.142, 0.264755
2.632, 2, -0.290276, 26.2649, 45.856, -0.756564, -102.142, 0.264755
2.636, 2, -0.290276, 26.2649, 45.856, -0.756564, -102.142, 0.264755
2.64, 2, -0.290276, 26.2649, 45.856, -0.756564, -102.142, 0.264755
2.643, 2, -0.290276, 26.2649, 45.856, -0.756564, -102.142, 0.264755
2.648, 2, -0.290276, 26.2649, 45.856, -0.756564, -102.142, 0.264755
2.652, 2, -0.290276, 26.2649, 45.856, -0.756564, -102.142, 0.264755
2.656, 2, -0.290276, 26.2649, 45.856, -0.756564, -102.142, 0.264755
2.66, 2, -0.290276, 26.2649, 45.856, -0.756564, -102.142, 0.264755
2.663, 2, -0.290276, 26.2649, 45.856, -0.756564, -102.142, 0.264755
2.668, 2, -0.290276, 26.2649, 45.856, -0.756564, -102.142, 0.264755
2.672, 2, -0.290276, 26.2649, 45.856, -0.756564, -102.142, 0.264755
2.676, 2, -0.290276, 26.2649, 45.856, -0.756564, -102.142, 0.264755
2.679, 2, -0.290276, 26.2649, 45.856, -0.756564, -102.142, 0.264755
2.684, 2, -0.290276, 26.2649, 45.856, -0.756564, -102.142, 0.264755
2.688, 2, -0.290276, 26.2649, 45.856, -0.756564, -102.142, 0.264755
2.692, 2, -0.290276, 26.2649, 45.856, -0.756564, -102.142, 0.264755
2.696, 2, -0.290276, 26.2649, 45.856, -0.756564, -102.142, 0.264755
2.699, 2, -0.290276, 26.2649, 45.856, -0.756564, -102.142, 0.264755
2.704, 2, -0.290276, 26.2649, 45.856, -0.756564, -102.142, 0.264755
2.708, 2, -0.290276, 26.2649, 45.856, -0.756564, -102.142, 0.264755
2.712, 2, -0.290276, 26.2649, 45.856, -0.756564, -102.142, 0.264755
2.716, 2, -0.290276, 26.2649, 45.856, -0.756564, -102.142, 0.264755
2.719, 2, -0.290276, 26.2649, 45.856, -0.756564, -102.142, 0.264755
2.724, 2, -0.290276, 26.2649, 45.856, -0.756564, -102.142, 0.264755
2.728, 2, -0.290276, 26.2649, 45.856, -0.756564, -102.142, 0.264755
2.732, 2, -0.290276, 26.2649, 45.856, -0.756564, -102.142, 0.264755
2.735, 2, -0.290276, 26.2649, 45.856, -0.756564, -102.142, 0.264755
2.74, 2, -0.290276, 26.2649, 45.856, -0.756564, -102.142, 0.264755
2.744, 2, -0.290276, 26.2649, 45.856, -0.756564, -102.142, 0.264755
2.748, 2, -0.290276, 26.2649, 45.856, -0.756564, -102.142, 0.264755
2.752, 2, -0.290276, 26.2649, 45.856, -0.756564, -102.142, 0.264755
2.755, 2, -0.290276, 26.2649, 45.856, -0.756564, -102.142, 0.264755
2.76, 2, -0.290276, 26.2649, 45.856, -0.756564, -102.142, 0.264755
2.764, 2, -0.290276, 26.2649, 45.856, -0.756564, -102.142, 0.264755
2.768, 2, -0.290276, 26.2649, 45.856, -0.756564, -102.142, 0.264755
2.772, 2, -0.290276, 26.2649, 45.856, -0.756564, -102.142, 0.264755
2.775, 2, -0.290276, 26.2649, 45.856, -0.756564, -102.142, 0.264755
2.78, 2, -0.290276, 26.2649, 45.856, -0.756564, -102.142, 0.264755
2.784, 2, -0.290276, 26.2649, 45.856, -0.756564, -102.142, 0.264755
2.788, 2, -0.290276, 26.2649, 45.856, -0.756564, -102.142, 0.264755
2.791, 2, -0.290276, 26.2649, 45.856, -0.756564, -102.142, 0.264755
2.796, 2, -0.290276, 26.2649, 45.856, -0.756564, -102.142, 0.264755
2.8, 2, -0.290276, 26.2649, 45.856, -0.756564, -102.142, 0.264755
2.804, 2, -0.290276, 26.2649, 45.856, -0.756564, -102.142, 0.264755
2.808, 2, -0.290276, 26.2649, 45.856, -0.756564, -102.142, 0.264755
2.811, 2, -0.290276, 26.2649, 45.856, -0.756564, -102.142, 0.264755
2.816, 2, -0.290276, 26.2649, 45.856, -0.756564, -102.142, 0.264755
2.82, 2, -0.290276, 26.2649, 45.856, -0.756564, -102.142, 0.264755
2.824, 2, -0.290276, 26.2649, 45.856, -0.756564, -102.142, 0.264755
2.828, 2, -0.290276, 26.2649, 45.856, -0.756564, -102.142, 0.264755
2.831, 2, -0.290276, 26.2649, 45.856, -0.756564, -102.142, 0.264755
2.836, 2, -0.290276, 26.2649, 45.856, -0.756564, -102.142, 0.264755
2.84, 2, -0.290276, 26.2649, 45.856, -0.756564, -102.142, 0.264755
2.844, 2, -0.290276, 26.2649, 45.856, -0.756564, -102.142, 0.264755
2.847, 2, -0.290276, 26.2649, 45.856, -0.756564, -102.142, 0.264755
2.852, 2, -0.290276, 26.2649, 45.856, -0.756564, -102.142, 0.264755
2.856, 2, -0.290276, 26.2649, 45.856, -0.756564, -102.142, 0.264755
2.86, 2, -0.290276, 26.2649, 45.856, -0.756564, -102.142, 0.264755
2.864, 2, -0.290276, 26.2649, 45.856, -0.756564, -102.142, 0.264755
2.867, 2, -0.290276, 26.2649, 45.856, -0.756564, -102.142, 0.264755
2.872, 2, -0.290276, 26.2649, 45.856, -0.756564, -102.142, 0.264755
2.876, 2, -0.290276, 26.2649, 45.856, -0.756564, -102.142, 0.264755
2.88, 2, -0.290276, 26.2649, 45.856, -0.756564, -102.142, 0.264755
2.883, 2, -0.290276, 26.2649, 45.856, -0.756564, -102.142, 0.264755
2.888, 2, -0.290276, 26.2649, 45.856, -0.756564, -102.142, 0.264755
2.892, 2, -0.290276, 26.2649, 45.856, -0.756564, -102.142, 0.264755
2.896, 2, -0.290276, 26.2649, 45.856, -0.756564, -102.142, 0.264755
2.9, 2, -0.290276, 26.2649, 45.856, -0.756564, -102.142, 0.264755
2.903, 2, -0.290276, 26.2649, 45.856, -0.756564, -102.142, 0.264755
2.908, 2, -0.290276, 26.2649, 45.856, -0.756564, -102.142, 0.264755
2.912, 2, -0.290276, 26.2649, 45.856, -0.756564, -102.142, 0.264755
2.916, 2, -0.290276, 26.2649, 45.856, -0.756564, -102.142, 0.264755
2.92, 2, -0.290276, 26.2649, 45.856, -0.756564, -102.142, 0.264755
2.923, 2, -0.290276, 26.2649, 45.856, -0.756564, -102.142, 0.264755
2.928, 2, -0.290276, 26.2649, 45.856, -0.756564, -102.142, 0.264755
2.932, 2, -0.290276, 26.2649, 45.856, -0.756564, -102.142, 0.264755
2.936, 2, -0.290276, 26.2649, 45.856, -0.756564, -102.142, 0.264755
2.939, 2, -0.290276, 26.2649, 45.856, -0.756564, -102.142, 0.264755
2.944, 2, -0.290276, 26.2649, 45.856, -0.756564, -102.142, 0.264755
2.948, 2, -0.290276, 26.2649, 45.856, -0.756564, -102.142, 0.264755
2.952, 2, -0.290276, 26.2649, 45.856, -0.756564, -102.142, 0.264755
2.956, 2, -0.290276, 26.2649, 45.856, -0.756564, -102.142, 0.264755
2.959, 2, -0.290276, 26.2649, 45.856, -0.756564, -102.142, 0.264755
2.964, 2, -0.290276, 26.2649, 45.856, -0.756564, -102.142, 0.264755
2.968, 2, -0.290276, 26.2649, 45.856, -0.756564, -102.142, 0.264755
2.972, 2, -0.290276, 26.2649, 45.856, -0.756564, -102.142, 0.264755
2.976, 2, -0.290276, 26.2649, 45.856, -0.756564, -102.142, 0.264755
2.98, 2, -0.290276, 26.2649, 45.856, -0.756564, -102.142, 0.264755
2.984, 2, -0.290276, 26.2649, 45.856, -0.756564, -102.142, 0.264755
2.988, 2, -0.290276, 26.2649, 45.856, -0.756564, -102.142, 0.264755
2.992, 2, -0.290276, 26.2649, 45.856, -0.756564, -102.142, 0.264755
2.995, 2, -0.290276, 26.2649, 45.856, -0.756564, -102.142, 0.264755
3, 2, -0.290276, 26.2649, 45.856, -0.756564, -102.142, 0.264755
3.004, 2, -0.290276, 26.2649, 45.856, -0.756564, -102.142, 0.264755
3.008, 2, -0.290276, 26.2649, 45.856, -0.756564, -102.142, 0.264755
3.012, 2, -0.290276, 26.2649, 45.856, -0.756564, -102.142, 0.264755
3.015, 2, -0.290276, 26.2649, 45.856, -0.756564, -102.142, 0.264755
3.02, 2, -0.290276, 26.2649, 45.856, -0.756564, -102.142, 0.264755
3.024, 2, -0.290276, 26.2649, 45.856, -0.756564, -102.142, 0.264755
3.028, 2, -0.290276, 26.2649, 45.856, -0.756564, -102.142, 0.264755
3.031, 2, -0.290276, 26.2649, 45.856, -0.756564, -102.142, 0.264755
3.036, 2, -0.290276, 26.2649, 45.856, -0.756564, -102.142, 0.264755
3.04, 2, -0.290276, 26.2649, 45.856, -0.756564, -102.142, 0.264755
3.044, 2, -0.290276, 26.2649, 45.856, -0.756564, -102.142, 0.264755
3.048, 2, -0.290276, 26.2649, 45.856, -0.756564, -102.142, 0.264755
3.051, 2, -0.290276, 26.2649, 45.856, -0.756564, -102.142, 0.264755
3.056, 2, -0.290276, 26.2649, 45.856, -0.756564, -102.142, 0.264755
3.06, 2, -0.290276, 26.2649, 45.856, -0.756564, -102.142, 0.264755
3.064, 2, -0.290276, 26.2649, 45.856, -0.756564, -102.142, 0.264755
3.068, 2, -0.290276, 26.2649, 45.856, -0.756564, -102.142, 0.264755
3.071, 2, -0.290276, 26.2649, 45.856, -0.756564, -102.142, 0.264755
3.076, 2, -0.290276, 26.2649, 45.856, -0.756564, -102.142, 0.264755
3.08, 2, -0.290276, 26.2649, 45.856, -0.756564, -102.142, 0.264755
3.084, 2, -0.290276, 26.2649, 45.856, -0.756564, -102.142, 0.264755
3.087, 2, -0.290276, 26.2649, 45.856, -0.756564, -102.142, 0.264755
3.092, 2, -0.290276, 26.2649, 45.856, -0.756564, -102.142, 0.264755
3.096, 2, -0.290276, 26.2649, 45.856, -0.756564, -102.142, 0.264755
3.1, 2, -0.290276, 26.2649, 45.856, -0.756564, -102.142, 0.264755
3.104, 2, -0.290276, 26.2649, 45.856, -0.756564, -102.142, 0.264755
3.107, 2, -0.290276, 26.2649, 45.856, -0.756564, -102.142, 0.264755
3.112, 2, -0.290276, 26.2649, 45.856, -0.756564, -102.142, 0.264755
3.116, 2, -0.290276, 26.2649, 45.856, -0.756564, -102.142, 0.264755
3.12, 2, -0.290276, 26.2649, 45.856, -0.756564, -102.142, 0.264755
3.124, 2, -0.290276, 26.2649, 45.856, -0.756564, -102.142, 0.264755
3.128, 2, -0.290276, 26.2649, 45.856, -0.756564, -102.142, 0.264755
3.132, 2, -0.290276, 26.2649, 45.856, -0.756564, -102.142, 0.264755
3.136, 2, -0.290276, 26.2649, 45.856, -0.756564, -102.142, 0.264755
3.14, 2, -0.290276, 26.2649, 45.856, -0.756564, -102.142, 0.264755
3.143, 2, -0.290276, 26.2649, 45.856, -0.756564, -102.142, 0.264755
3.148, 2, -0.290276, 26.2649, 45.856, -0.756564, -102.142, 0.264755
3.152, 2, -0.290276, 26.2649, 45.856, -0.756564, -102.142, 0.264755
3.156, 2, -0.290276, 26.2649, 45.856, -0.756564, -102.142, 0.264755
3.16, 2, -0.290276, 26.2649, 45.856, -0.756564, -102.142, 0.264755
3.163, 2, -0.290276, 26.2649, 45.856, -0.756564, -102.142, 0.264755
3.168, 2, -0.290276, 26.2649, 45.856, -0.756564, -102.142, 0.264755
3.172, 2, -0.290276, 26.2649, 45.856, -0.756564, -102.142, 0.264755
3.176, 2, -0.290276, 26.2649, 45.856, -0.756564, -102.142, 0.264755
3.179, 2, -0.290276, 26.2649, 45.856, -0.756564, -102.142, 0.264755
3.184, 2, -0.290276, 26.2649, 45.856, -0.756564, -102.142, 0.264755
3.188, 2, -0.290276, 26.2649, 45.856, -0.756564, -102.142, 0.264755
3.192, 2, -0.290276, 26.2649, 45.856, -0.756564, -102.142, 0.264755
3.196, 2, -0.290276, 26.2649, 45.856, -0.756564, -102.142, 0.264755
3.199, 2, -0.290276, 26.2649, 45.856, -0.756564, -102.142, 0.264755
3.204, 2, -0.290276, 26.2649, 45.856, -0.756564, -102.142, 0.264755
3.208, 2, -0.290276, 26.2649, 45.856, -0.756564, -102.142, 0.264755
3.212, 2, -0.290276, 26.2649, 45.856, -0.756564, -102.142, 0.264755
3.216, 2, -0.290276, 26.2649, 45.856, -0.756564, -102.142, 0.264755
3.22, 2, -0.290276, 26.2649, 45.856, -0.756564, -102.142, 0.264755
3.224, 2, -0.290276, 26.2649, 45.856, -0.756564, -102.142, 0.264755
3.228, 2, -0.290276, 26.2649, 45.856, -0.756564, -102.142, 0.264755
3.232, 2, -0.290276, 26.2649, 45.856, -0.756564, -102.142, 0.264755
3.235, 2, -0.290276, 26.2649, 45.856, -0.756564, -102.142, 0.264755
3.24, 2, -0.290276, 26.2649, 45.856, -0.756564, -102.142, 0.264755
3.244, 2, -0.290276, 26.2649, 45.856, -0.756564, -102.142, 0.264755
3.248, 2, -0.290276, 26.2649, 45.856, -0.756564, -102.142, 0.264755
3.252, 2, -0.290276, 26.2649, 45.856, -0.756564, -102.142, 0.264755
3.255, 2, -0.290276, 26.2649, 45.856, -0.756564, -102.142, 0.264755
3.26, 2, -0.290276, 26.2649, 45.856, -0.756564, -102.142, 0.264755
3.264, 2, -0.290276, 26.2649, 45.856, -0.756564, -102.142, 0.264755
3.268, 2, -0.290276, 26.2649, 45.856, -0.756564, -102.142, 0.264755
3.272, 2, -0.290276, 26.2649, 45.856, -0.756564, -102.142, 0.264755
3.276, 2, -0.290276, 26.2649, 45.856, -0.756564, -102.142, 0.264755
3.28, 2, -0.290276, 26.2649, 45.856, -0.756564, -102.142, 0.264755
3.284, 2, -0.290276, 26.2649, 45.856, -0.756564, -102.142, 0.264755
3.288, 2, -0.290276, 26.2649, 45.856, -0.756564, -102.142, 0.264755
3.291, 2, -0.290276, 26.2649, 45.856, -0.756564, -102.142, 0.264755
3.296, 2, -0.290276, 26.2649, 45.856, -0.756564, -102.142, 0.264755
3.3, 2, -0.290276, 26.2649, 45.856, -0.756564, -102.142, 0.264755
3.304, 4, -0.290276, 26.2649, 45.856, -0.756564, -102.142, 0.264755
3.308, 4, -0.290276, 26.2649, 45.856, -0.756564, -102.142, 0.264755
3.312, 4, -0.290276, 26.2649, 45.856, -0.756564, -102.142, 0.264755
3.316, 4, -0.290276, 26.2649, 45.856, -0.756564, -102.142, 0.264755
3.32, 4, -0.290276, 26.2649, 45.856, -0.756564, -102.142, 0.264755
3.324, 4, -0.290276, 26.2649, 45.856, -0.756564, -102.142, 0.264755
3.328, 4, -0.290276, 26.2649, 45.856, -0.756564, -102.142, 0.264755
3.332, 4, -0.290276, 26.2649, 45.856, -0.756564, -102.142, 0.264755
3.336, 4, -0.290276, 26.2649, 45.856, -0.756564, -102.142, 0.264755
3.34, 4, -0.290276, 26.2649, 45.856, -0.756564, -102.142, 0.264755
3.344, 4, -0.290276, 26.2649, 45.856, -0.756564, -102.142, 0.264755
3.347, 4, -0.290276, 26.2649, 45.856, -0.756564, -102.142, 0.264755
3.352, 4, -0.290276, 26.2649, 45.856, -0.756564, -102.142, 0.264755
3.356, 4, -0.290276, 26.2649, 45.856, -0.756564, -102.142, 0.264755
3.36, 4, -0.290276, 26.2649, 45.856, -0.756564, -102.142, 0.264755
3.364, 4, -0.290276, 26.2649, 45.856, -0.756564, -102.142, 0.264755
3.368, 4, -0.290276, 26.2649, 45.856, -0.756564, -102.142, 0.264755
3.372, 4, -0.290276, 26.2649, 45.856, -0.756564, -102.142, 0.264755
3.376, 4, -0.290276, 26.2649, 45.856, -0.756564, -102.142, 0.264755
3.38, 4, -0.290276, 26.2649, 45.856, -0.756564, -102.142, 0.264755
3.383, 4, -0.290276, 26.2649, 45.856, -0.756564, -102.142, 0.264755
3.388, 4, -0.290276, 26.2649, 45.856, -0.756564, -102.142, 0.264755
3.392, 4, -0.290276, 26.2649, 45.856, -0.756564, -102.142, 0.264755
3.396, 4, -0.290276, 26.2649, 45.856, -0.756564, -102.142, 0.264755
3.4, 4, -0.290276, 26.2649, 45.856, -0.756564, -102.142, 0.264755
3.403, 4, -0.290276, 26.2649, 45.856, -0.756564, -102.142, 0.264755
3.408, 4, -0.290276, 26.2649, 45.856, -0.756564, -102.142, 0.264755
3.414, 4, -0.290276, 26.2649, 45.856, -0.756564, -102.142, 0.264755
3.418, 4, -0.290276, 26.2649, 45.856, -0.756564, -102.142, 0.264755
3.422, 4, -0.290276, 26.2649, 45.856, -0.756564, -102.142, 0.264755
3.426, 4, -0.290276, 26.2649, 45.856, -0.756564, -102.142, 0.264755
3.428, 4, -0.290276, 26.2649, 45.856, -0.756564, -102.142, 0.264755
3.432, 4, -0.290276, 26.2649, 45.856, -0.756564, -102.142, 0.264755
3.436, 4, -0.290276, 26.2649, 45.856, -0.756564, -102.142, 0.264755
3.439, 4, -0.290275, 26.2649, 45.856, -0.756564, -102.142, 0.264755
3.444, 4, -0.29026, 26.2649, 45.856, -0.756564, -102.142, 0.264755
3.448, 4, -0.290202, 26.2648, 45.856, -0.756563, -102.142, 0.264751
3.452, 4, -0.290053, 26.2645, 45.8561, -0.756556, -102.142, 0.264737
3.456, 4, -0.289752, 26.2638, 45.8561, -0.756537, -102.142, 0.264694
3.46, 4, -0.289245, 26.2627, 45.8562, -0.756489, -102.142, 0.26459
3.464, 4, -0.288491, 26.2609, 45.8563, -0.756385, -102.142, 0.264368
3.468, 4, -0.287458, 26.2584, 45.8565, -0.756187, -102.141, 0.263951
3.472, 4, -0.286124, 26.2549, 45.8568, -0.755841, -102.141, 0.263228
3.476, 5, -0.284472, 26.2503, 45.8571, -0.755282, -102.139, 0.262063
3.48, 5, -0.282482, 26.2443, 45.8575, -0.754425, -102.137, 0.260287
3.484, 5, -0.280124, 26.2366, 45.8581, -0.753173, -102.134, 0.257697
3.488, 5, -0.277361, 26.2269, 45.8588, -0.751411, -102.129, 0.254059
3.492, 5, -0.274151, 26.2149, 45.8596, -0.749008, -102.123, 0.249105
3.495, 5, -0.270466, 26.2004, 45.8606, -0.74582, -102.115, 0.242537
3.5, 5, -0.266298, 26.1829, 45.8618, -0.74169, -102.105, 0.234034
3.504, 5, -0.261641, 26.1625, 45.8632, -0.736453, -102.091, 0.223259
3.508, 5, -0.256481, 26.1387, 45.8648, -0.729945, -102.074, 0.209872
3.512, 5, -0.250785, 26.1113, 45.8666, -0.722005, -102.054, 0.19354
3.516, 5, -0.244509, 26.08, 45.8686, -0.712481, -102.029, 0.173946
3.52, 5, -0.237604, 26.0444, 45.8709, -0.701231, -102, 0.150792
3.524, 5, -0.230023, 26.0043, 45.8734, -0.688126, -101.966, 0.123805
3.528, 5, -0.221718, 25.9594, 45.8762, -0.67305, -101.926, 0.0927383
3.531, 5, -0.212648, 25.9095, 45.8792, -0.655905, -101.882, 0.0573743
3.536, 5, -0.202773, 25.8543, 45.8825, -0.636604, -101.831, 0.0175251
3.54, 5, -0.192057, 25.7936, 45.8861, -0.61508, -101.775, -0.0269665
3.544, 5, -0.180456, 25.7273, 45.8898, -0.59128, -101.712, -0.0762281
3.548, 5, -0.167922, 25.6551, 45.8938, -0.565166, -101.644, -0.130361
3.552, 5, -0.154406, 25.577, 45.898, -0.53671, -101.569, -0.189442
3.556, 5, -0.139868, 25.4927, 45.9025, -0.505896, -101.488, -0.253535
3.56, 5, -0.124283, 25.4022, 45.907, -0.472714, -101.401, -0.322687
3.564, 5, -0.107633, 25.3055, 45.9117, -0.437158, -101.308, -0.396937
3.568, 5, -0.0899084, 25.2026, 45.9165, -0.399229, -101.208, -0.476317
3.572, 5, -0.071108, 25.0934, 45.9214, -0.358931, -101.101, -0.560851
3.576, 5, -0.0512502, 24.9782, 45.9263, -0.316273, -100.989, -0.650557
3.58, 5, -0.0303872, 24.8569, 45.9312, -0.271268, -100.87, -0.745442
3.584, 5, -0.00860421, 24.73, 45.9359, -0.223938, -100.744, -0.845495
3.587, 5, 0.0139964, 24.5979, 45.9406, -0.174322, -100.613, -0.950671
3.592, 5, 0.0373123, 24.4609, 45.9449, -0.122478, -100.475, -1.06088
3.596, 5, 0.061249, 24.3194, 45.949, -0.0684917, -100.331, -1.17599
3.6, 5, 0.0857239, 24.1737, 45.9528, -0.0124805, -100.182, -1.29576
3.604, 5, 0.110667, 24.0244, 45.9562, 0.0454065, -100.028, -1.41993
3.608, 5, 0.136009, 23.8715, 45.9592, 0.10499, -99.8687, -1.54813
3.612, 5, 0.161668, 23.7158, 45.9618, 0.166065, -99.7053, -1.67995
3.616, 5, 0.18755, 23.5578, 45.9638, 0.228405, -99.5383, -1.81493
3.62, 5, 0.213565, 23.3982, 45.9653, 0.291762, -99.3684, -1.95255
3.624, 5, 0.239655, 23.2378, 45.9663, 0.355871, -99.1962, -2.09226
3.628, 5, 0.265802, 23.077, 45.9668, 0.420449, -99.0225, -2.23343
3.632, 5, 0.292059, 22.9165, 45.9667, 0.485201, -98.8482, -2.37544
3.636, 5, 0.318591, 22.7563, 45.9661, 0.549832, -98.674, -2.51763
3.64, 5, 0.345707, 22.5966, 45.965, 0.614075, -98.5007, -2.65936
3.644, 5, 0.373799, 22.4377, 45.9635, 0.677729, -98.3292, -2.80004
3.648, 5, 0.403207, 22.2797, 45.9617, 0.740717, -98.1601, -2.9392
3.652, 5, 0.434136, 22.1231, 45.9596, 0.803139, -97.994, -3.07647
3.656, 5, 0.46668, 21.9685, 45.9572, 0.865308, -97.8312, -3.2117
3.66, 5, 0.500871, 21.8162, 45.9546, 0.927778, -97.6721, -3.34488
3.664, 5, 0.53669, 21.6667, 45.9517, 0.99134, -97.5169, -3.47618
3.668, 5, 0.574132, 21.5202, 45.9485, 1.057, -97.3656, -3.60594
3.672, 6, 0.613311, 21.3765, 45.945, 1.12596, -97.2183, -3.73464
3.676, 6, 0.654528, 21.2356, 45.9411, 1.19955, -97.0747, -3.86293
3.679, 6, 0.698221, 21.0969, 45.9369, 1.27918, -96.9347, -3.99153
3.684, 6, 0.744839, 20.96, 45.9321, 1.36633, -96.7979, -4.12131
3.688, 6, 0.794736, 20.8246, 45.9268, 1.46249, -96.6639, -4.25323
3.692, 6, 0.848163, 20.6907, 45.9207, 1.56908, -96.532, -4.38831
3.696, 6, 0.905319, 20.5579, 45.9139, 1.68739, -96.4016, -4.5276
3.7, 6, 0.966418, 20.4262, 45.9061, 1.81855, -96.2721, -4.67216
3.704, 6, 1.03171, 20.2953, 45.8972, 1.96346, -96.1426, -4.82298
3.708, 6, 1.10147, 20.1649, 45.8871, 2.12278, -96.0124, -4.98099
3.712, 6, 1.17601, 20.0344, 45.8756, 2.2969, -95.8808, -5.14706
3.716, 6, 1.25565, 19.9032, 45.8628, 2.48606, -95.747, -5.32196
3.72, 6, 1.3406, 19.7707, 45.8484, 2.69028, -95.6104, -5.50642
3.724, 6, 1.43098, 19.6365, 45.8323, 2.90951, -95.4703, -5.70111
3.728, 6, 1.52674, 19.5003, 45.8143, 3.14357, -95.3261, -5.90665
3.732, 6, 1.62772, 19.3623, 45.7943, 3.39223, -95.1773, -6.12358
3.735, 6, 1.7337, 19.2222, 45.772, 3.65518, -95.0234, -6.35234
3.74, 6, 1.84444, 19.0802, 45.7473, 3.93203, -94.8643, -6.59325
3.744, 6, 1.95958, 18.9364, 45.7201, 4.2223, -94.6997, -6.84645
3.748, 6, 2.07876, 18.7908, 45.6902, 4.52536, -94.5297, -7.1119
3.752, 6, 2.20151, 18.6435, 45.6576, 4.84044, -94.3547, -7.38933
3.756, 6, 2.32735, 18.4948, 45.6221, 5.16661, -94.1751, -7.67824
3.76, 6, 2.45574, 18.3449, 45.5838, 5.50271, -93.9915, -7.97791
3.764, 6, 2.58623, 18.1941, 45.5426, 5.84742, -93.8045, -8.28738
3.768, 6, 2.71854, 18.0428, 45.4988, 6.19927, -93.6152, -8.60551
3.772, 6, 2.8525, 17.8911, 45.4524, 6.55664, -93.4244, -8.93104
3.776, 6, 2.98804, 17.7394, 45.4036, 6.91789, -93.2329, -9.2626
3.78, 6, 3.1251, 17.5879, 45.3525, 7.28141, -93.0418, -9.59883
3.784, 6, 3.2636, 17.437, 45.2995, 7.64569, -92.8518, -9.93839
3.788, 6, 3.40345, 17.2871, 45.2445, 8.00943, -92.6637, -10.28
3.792, 6, 3.54458, 17.1384, 45.1879, 8.37156, -92.4783, -10.6225
3.796, 6, 3.68703, 16.9913, 45.1297, 8.73135, -92.2962, -10.9647
3.8, 6, 3.83092, 16.8461, 45.07, 9.08843, -92.1176, -11.3059
3.804, 6, 3.97638, 16.7031, 45.0088, 9.44287, -91.9432, -11.6452
3.808, 6, 4.12348, 16.5625, 44.9461, 9.79522, -91.7729, -11.9822
3.812, 7, 4.27222, 16.4246, 44.8817, 10.1464, -91.607, -12.3167
3.816, 7, 4.42255, 16.2893, 44.8153, 10.4979, -91.4454, -12.6486
3.82, 7, 4.57439, 16.157, 44.7468, 10.8513, -91.2878, -12.9783
3.824, 7, 4.7277, 16.0275, 44.6756, 11.2086, -91.1341, -13.3063
3.828, 7, 4.88268, 15.9007, 44.6014, 11.5718, -90.9839, -13.6334
3.832, 7, 5.03972, 15.7766, 44.5238, 11.943, -90.8369, -13.9605
3.836, 7, 5.19934, 15.6551, 44.4422, 12.3241, -90.6927, -14.2887
3.84, 7, 5.36201, 15.5362, 44.3562, 12.7172, -90.5508, -14.6194
3.844, 7, 5.5281, 15.4198, 44.2653, 13.1237, -90.4108, -14.9541
3.848, 7, 5.6979, 15.3061, 44.1689, 13.5452, -90.2723, -15.2941
3.852, 7, 5.87158, 15.1952, 44.0665, 13.9828, -90.1348, -15.6411
3.856, 7, 6.04922, 15.0871, 43.9579, 14.4371, -89.9982, -15.9964
3.86, 7, 6.23074, 14.982, 43.8426, 14.9086, -89.8621, -16.3614
3.864, 7, 6.41601, 14.8798, 43.7204, 15.3972, -89.7264, -16.7372
3.868, 7, 6.6048, 14.7808, 43.5911, 15.9024, -89.5911, -17.1245
3.872, 7, 6.79678, 14.685, 43.4547, 16.4231, -89.4563, -17.5238
3.876, 7, 6.99145, 14.5925, 43.3112, 16.9582, -89.3223, -17.9351
3.88, 7, 7.18832, 14.5036, 43.1609, 17.5058, -89.1895, -18.3578
3.884, 7, 7.38695, 14.418, 43.004, 18.0639, -89.0584, -18.7913
3.888, 7, 7.58698, 14.3358, 42.841, 18.6304, -88.9296, -19.2342
3.892, 7, 7.78797, 14.2567, 42.6724, 19.2027, -88.8036, -19.6851
3.896, 7, 7.9894, 14.1808, 42.4989, 19.7785, -88.6812, -20.1422
3.9, 7, 8.19072, 14.1079, 42.321, 20.3551, -88.5629, -20.6038
3.904, 7, 8.39134, 14.038, 42.1396, 20.93, -88.4491, -21.0678
3.908, 7, 8.59063, 13.9714, 41.9555, 21.5007, -88.3406, -21.5322
3.912, 7, 8.7879, 13.9079, 41.7696, 22.0646, -88.2375, -21.995
3.916, 7, 8.98246, 13.8477, 41.5828, 22.6196, -88.1402, -22.454
3.92, 7, 9.17364, 13.7908, 41.396, 23.1634, -88.049, -22.9075
3.924, 7, 9.36083, 13.7374, 41.2101, 23.6941, -87.964, -23.3537
3.928, 7, 9.54349, 13.6875, 41.0257, 24.2103, -87.8852, -23.7908
3.932, 7, 9.72125, 13.6409, 40.8434, 24.7104, -87.8125, -24.2176
3.936, 7, 9.89389, 13.5975, 40.6635, 25.1935, -87.7458, -24.6327
3.94, 7, 10.0613, 13.5569, 40.4862, 25.6589, -87.6849, -25.035
3.944, 7, 10.2236, 13.5186, 40.3119, 26.1064, -87.6296, -25.4236
3.948, 7, 10.3809, 13.4822, 40.1405, 26.5362, -87.5796, -25.7975
3.952, 7, 10.5333, 13.4474, 39.9722, 26.949, -87.5345, -26.1558
3.956, 7, 10.681, 13.414, 39.8068, 27.346, -87.494, -26.4975
3.96, 7, 10.8239, 13.3819, 39.6442, 27.7285, -87.4578, -26.8213
3.964, 8, 10.9624, 13.3513, 39.4839, 28.0986, -87.4253, -27.126
3.968, 8, 11.0968, 13.3221, 39.3253, 28.4583, -87.3962, -27.4102
3.972, 8, 11.2277, 13.2944, 39.1675, 28.8096, -87.3701, -27.6724
3.976, 8, 11.3556, 13.268, 39.0098, 29.1549, -87.3465, -27.9116
3.98, 8, 11.4808, 13.2429, 38.8513, 29.4962, -87.3252, -28.127
3.984, 8, 11.603, 13.2191, 38.6912, 29.8357, -87.3058, -28.3184
3.988, 8, 11.7222, 13.1965, 38.5291, 30.1749, -87.2879, -28.4858
3.992, 8, 11.8378, 13.1752, 38.3644, 30.5152, -87.2713, -28.6298
3.996, 8, 11.9499, 13.1552, 38.1971, 30.8574, -87.2558, -28.7514
3.999, 8, 12.0584, 13.1367, 38.0272, 31.2017, -87.2411, -28.8519
4.004, 8, 12.1635, 13.1196, 37.8551, 31.5475, -87.2273, -28.9329
4.008, 8, 12.2659, 13.1035, 37.6811, 31.8938, -87.2141, -28.9966
4.012, 8, 12.366, 13.0881, 37.506, 32.2392, -87.2016, -29.0452
4.016, 8, 12.4642, 13.0726, 37.3306, 32.5818, -87.1898, -29.0812
4.02, 8, 12.5607, 13.0564, 37.1558, 32.9197, -87.1786, -29.107
4.024, 8, 12.6551, 13.0392, 36.9825, 33.2512, -87.168, -29.1247
4.028, 8, 12.7472, 13.0206, 36.8117, 33.5744, -87.1579, -29.1359
4.032, 8, 12.8367, 13.0001, 36.6442, 33.8879, -87.1481, -29.1415
4.036, 8, 12.9233, 12.9779, 36.4807, 34.1903, -87.1385, -29.1418
4.04, 8, 13.0068, 12.9539, 36.322, 34.4807, -87.1287, -29.1365
4.044, 9, 13.0872, 12.928, 36.1684, 34.7582, -87.1185, -29.1248
4.048, 9, 13.1644, 12.9001, 36.0202, 35.0226, -87.1075, -29.1054
4.052, 9, 13.2386, 12.87, 35.8775, 35.2738, -87.0954, -29.0771
4.056, 9, 13.3098, 12.8375, 35.7402, 35.5122, -87.0818, -29.0385
4.06, 9, 13.3779, 12.8029, 35.608, 35.7385, -87.0663, -28.9882
4.064, 9, 13.4426, 12.7664, 35.4805, 35.954, -87.0486, -28.925
4.068, 9, 13.5038, 12.7286, 35.3574, 36.16, -87.0282, -28.848
4.072, 9, 13.5613, 12.6899, 35.2381, 36.3577, -87.0051, -28.7567
4.076, 9, 13.6149, 12.6509, 35.1223, 36.5484, -86.979, -28.6511
4.08, 9, 13.665, 12.6116, 35.0095, 36.7332, -86.9501, -28.5317
4.084, 9, 13.7117, 12.5722, 34.8993, 36.9127, -86.9185, -28.3997
4.088, 9, 13.7557, 12.5323, 34.7915, 37.0875, -86.8845, -28.2567
4.092, 9, 13.797, 12.4915, 34.686, 37.2577, -86.8484, -28.1046
4.096, 9, 13.8359, 12.4495, 34.5828, 37.4234, -86.8108, -27.9456
4.1, 9, 13.8724, 12.4061, 34.4821, 37.5845, -86.772, -27.7819
4.104, 9, 13.9064, 12.3614, 34.3844, 37.7405, -86.7323, -27.6157
4.108, 9, 13.9378, 12.3152, 34.2899, 37.891, -86.6921, -27.4487
4.112, 9, 13.9668, 12.2673, 34.1991, 38.0351, -86.6513, -27.2824
4.116, 9, 13.9934, 12.2174, 34.1124, 38.172, -86.6101, -27.1179
4.12, 9, 14.0178, 12.1654, 34.0301, 38.3006, -86.5683, -26.9557
4.124, 9, 14.04, 12.1111, 33.9526, 38.4201, -86.5256, -26.7957
4.128, 10, 14.06, 12.0543, 33.8805, 38.5295, -86.4816, -26.6376
4.132, 10, 14.0776, 11.9949, 33.814, 38.6283, -86.4357, -26.4805
4.136, 10, 14.0926, 11.9331, 33.7536, 38.716, -86.3873, -26.3231
4.14, 10, 14.1046, 11.869, 33.6996, 38.7923, -86.3358, -26.164
4.144, 10, 14.1135, 11.8028, 33.6521, 38.857, -86.2803, -26.0015
4.148, 10, 14.1192, 11.7343, 33.6111, 38.9103, -86.2202, -25.8339
4.152, 10, 14.1215, 11.6633, 33.5765, 38.9521, -86.155, -25.6596
4.156, 10, 14.1204, 11.5897, 33.548, 38.9829, -86.0839, -25.4771
4.16, 10, 14.116, 11.513, 33.5254, 39.003, -86.0067, -25.2852
4.164, 10, 14.1081, 11.433, 33.5084, 39.0128, -85.9229, -25.0828
4.168, 10, 14.0968, 11.3493, 33.4965, 39.0129, -85.8324, -24.869
4.172, 10, 14.0822, 11.2617, 33.4893, 39.004, -85.735, -24.6431
4.176, 10, 14.0645, 11.1702, 33.4864, 38.9867, -85.6307, -24.4047
4.18, 10, 14.0438, 11.075, 33.4873, 38.9616, -85.5196, -24.1534
4.184, 10, 14.0203, 10.976, 33.4915, 38.9295, -85.4018, -23.8891
4.188, 10, 13.9942, 10.8736, 33.4987, 38.8911, -85.2775, -23.6122
4.192, 10, 13.9655, 10.7678, 33.5084, 38.8471, -85.147, -23.3229
4.196, 10, 13.9344, 10.6587, 33.5201, 38.7983, -85.0109, -23.0218
4.2, 10, 13.9008, 10.5464, 33.5336, 38.7452, -84.8696, -22.7099
4.204, 10, 13.8646, 10.4309, 33.5486, 38.6883, -84.7236, -22.3881
4.208, 10, 13.8258, 10.3124, 33.5651, 38.6279, -84.5733, -22.0576
4.212, 10, 13.7844, 10.191, 33.583, 38.5638, -84.419, -21.7196
4.216, 10, 13.7403, 10.0665, 33.6024, 38.4958, -84.261, -21.3757
4.22, 10, 13.6936, 9.939, 33.6235, 38.4232, -84.0995, -21.0271
4.224, 10, 13.6443, 9.80842, 33.6467, 38.3452, -83.9344, -20.6752
4.228, 10, 13.5923, 9.67467, 33.6724, 38.2606, -83.7656, -20.3212
4.232, 11, 13.5373, 9.53763, 33.701, 38.1683, -83.5929, -19.9661
4.236, 11, 13.4792, 9.3972, 33.7332, 38.0669, -83.4158, -19.6105
4.24, 11, 13.4177, 9.25334, 33.7694, 37.9551, -83.2338, -19.255
4.244, 11, 13.3525, 9.10606, 33.8102, 37.8315, -83.0464, -18.8997
4.248, 11, 13.2834, 8.95537, 33.856, 37.6947, -82.8529, -18.5444
4.252, 11, 13.2103, 8.80128, 33.9071, 37.5437, -82.6526, -18.1887
4.256, 11, 13.1328, 8.64378, 33.9638, 37.3772, -82.445, -17.8321
4.26, 11, 13.0509, 8.48279, 34.0262, 37.1947, -82.2296, -17.4736
4.264, 11, 12.9643, 8.31827, 34.0944, 36.9957, -82.0059, -17.1122
4.268, 11, 12.8728, 8.15009, 34.1681, 36.7799, -81.7737, -16.7467
4.272, 11, 12.7759, 7.97812, 34.2473, 36.5475, -81.5329, -16.3759
4.276, 11, 12.6736, 7.80226, 34.3316, 36.2986, -81.2834, -15.9985
4.28, 11, 12.5656, 7.62244, 34.4205, 36.0335, -81.0253, -15.6131
4.284, 11, 12.4519, 7.43864, 34.5136, 35.7528, -80.7587, -15.2186
4.288, 11, 12.3324, 7.25086, 34.6104, 35.4566, -80.4836, -14.8137
4.292, 11, 12.207, 7.05919, 34.7105, 35.1455, -80.2004, -14.3973
4.296, 11, 12.0757, 6.86375, 34.8134, 34.8197, -79.9092, -13.9683
4.3, 11, 11.9385, 6.66469, 34.9186, 34.4796, -79.6102, -13.5259
4.304, 11, 11.7954, 6.4622, 35.0257, 34.1253, -79.3037, -13.069
4.308, 11, 11.6463, 6.25652, 35.1343, 33.7569, -78.9898, -12.5971
4.312, 11, 11.4911, 6.04797, 35.2442, 33.3745, -78.669, -12.1096
4.316, 11, 11.3298, 5.83689, 35.3551, 32.978, -78.3415, -11.606
4.32, 11, 11.1622, 5.62361, 35.4667, 32.567, -78.0075, -11.0864
4.324, 11, 10.9883, 5.40849, 35.5788, 32.1412, -77.6674, -10.5508
4.328, 11, 10.808, 5.19183, 35.6913, 31.6999, -77.3215, -9.99963
4.332, 11, 10.6212, 4.97389, 35.804, 31.2426, -76.9702, -9.43358
4.336, 11, 10.4279, 4.75491, 35.9169, 30.7685, -76.614, -8.85349
4.34, 12, 10.2281, 4.53515, 36.0298, 30.2768, -76.2531, -8.26033
4.344, 12, 10.0217, 4.31498, 36.1427, 29.7666, -75.8882, -7.65516
4.348, 12, 9.80893, 4.09489, 36.2555, 29.2373, -75.5197, -7.03901
4.352, 12, 9.58976, 3.87542, 36.368, 28.6883, -75.148, -6.41292
4.356, 12, 9.36435, 3.65709, 36.4801, 28.1192, -74.7738, -5.77785
4.36, 12, 9.1329, 3.44037, 36.5915, 27.5297, -74.3978, -5.1347
4.364, 12, 8.89563, 3.22563, 36.702, 26.9201, -74.0207, -4.48429
4.368, 12, 8.6528, 3.01317, 36.8112, 26.2908, -73.6432, -3.82727
4.372, 12, 8.40469, 2.80328, 36.9187, 25.6425, -73.2662, -3.16418
4.376, 12, 8.15171, 2.59624, 37.0242, 24.9764, -72.8907, -2.49536
4.38, 12, 7.8943, 2.3924, 37.1271, 24.2938, -72.5175, -1.82104
4.384, 12, 7.63291, 2.19222, 37.2271, 23.5962, -72.1475, -1.14134
4.388, 12, 7.36792, 1.99617, 37.3236, 22.8853, -71.7818, -0.456311
4.392, 12, 7.09959, 1.80466, 37.4162, 22.1628, -71.4211, 0.233947
4.396, 12, 6.82818, 1.618, 37.5045, 21.4307, -71.0664, 0.9293
4.4, 12, 6.55391, 1.43645, 37.5881, 20.6904, -70.7185, 1.62954
4.404, 12, 6.27703, 1.2602, 37.6667, 19.9438, -70.3781, 2.3344
4.408, 12, 5.99784, 1.08942, 37.7402, 19.192, -70.046, 3.04355
4.412, 12, 5.71674, 0.924261, 37.8082, 18.4364, -69.7225, 3.75666
4.416, 12, 5.43422, 0.764889, 37.8706, 17.6779, -69.4082, 4.47334
4.42, 12, 5.15075, 0.611459, 37.9276, 16.9172, -69.1035, 5.19325
4.424, 12, 4.86675, 0.464104, 37.9789, 16.155, -68.8085, 5.916
4.428, 12, 4.58254, 0.322914, 38.0246, 15.3917, -68.5235, 6.6412
4.432, 12, 4.29837, 0.187945, 38.0648, 14.6277, -68.2487, 7.36844
4.436, 12, 4.01442, 0.0592267, 38.0996, 13.8632, -67.9842, 8.09728
4.44, 12, 3.73086, -0.0632216, 38.1289, 13.0984, -67.73, 8.82724
4.444, 12, 3.44779, -0.179388, 38.1528, 12.3335, -67.4864, 9.55779
4.448, 12, 3.16532, -0.28927, 38.1714, 11.5684, -67.2533, 10.2884
4.452, 12, 2.88354, -0.392873, 38.1847, 10.8033, -67.031, 11.0183
4.456, 12, 2.60249, -0.490212, 38.1928, 10.0382, -66.8194, 11.747
4.46, 12, 2.32226, -0.58131, 38.1957, 9.27314, -66.6186, 12.4736
4.464, 13, 2.04288, -0.666202, 38.1934, 8.50803, -66.4287, 13.1974
4.468, 13, 1.76437, -0.744937, 38.186, 7.74293, -66.2498, 13.9175
4.472, 13, 1.48674, -0.817588, 38.1735, 6.97782, -66.0819, 14.6332
4.476, 13, 1.20998, -0.884243, 38.156, 6.21269, -65.9251, 15.3435
4.48, 13, 0.934095, -0.945, 38.1333, 5.44755, -65.7794, 16.0479
4.484, 13, 0.659079, -0.999953, 38.1057, 4.68238, -65.6447, 16.7457
4.488, 13, 0.384926, -1.04919, 38.0731, 3.91717, -65.5211, 17.4366
4.492, 13, 0.111623, -1.09281, 38.0355, 3.15191, -65.4083, 18.1202
4.496, 13, -0.160851, -1.13089, 37.993, 2.38659, -65.3062, 18.7967
4.5, 13, -0.43253, -1.16351, 37.9457, 1.6212, -65.2146, 19.4661
4.504, 13, -0.703456, -1.19078, 37.8936, 0.855732, -65.1332, 20.1288
4.508, 13, -0.973677, -1.21283, 37.8367, 0.0901833, -65.0619, 20.7854
4.512, 13, -1.24324, -1.22981, 37.7751, -0.675454, -65.0003, 21.4365
4.516, 13, -1.51217, -1.24183, 37.7088, -1.44119, -64.9482, 22.0827
4.52, 13, -1.7805, -1.24899, 37.6379, -2.20701, -64.9053, 22.725
4.524, 13, -2.04821, -1.2513, 37.5623, -2.97293, -64.8713, 23.364
4.528, 13, -2.31519, -1.24879, 37.4823, -3.7389, -64.846, 24.0006
4.532, 13, -2.5813, -1.24152, 37.3977, -4.50485, -64.8291, 24.6354
4.536, 13, -2.84635, -1.22953, 37.3088, -5.2706, -64.8205, 25.2691
4.54, 13, -3.11017, -1.21296, 37.2156, -6.03588, -64.8199, 25.902
4.544, 13, -3.37258, -1.19195, 37.1181, -6.80027, -64.8273, 26.534
4.548, 13, -3.63342, -1.16672, 37.0165, -7.56319, -64.8424, 27.1652
4.552, 13, -3.89257, -1.13746, 36.9109, -8.32391, -64.865, 27.795
4.556, 13, -4.14991, -1.10431, 36.8014, -9.08155, -64.8952, 28.4228
4.56, 13, -4.40536, -1.06736, 36.6881, -9.83516, -64.9325, 29.048
4.564, 13, -4.65884, -1.02662, 36.5712, -10.5837, -64.977, 29.6696
4.568, 13, -4.91022, -0.982112, 36.4508, -11.3262, -65.0284, 30.2866
4.572, 13, -5.15939, -0.933801, 36.327, -12.0616, -65.0865, 30.8981
4.576, 13, -5.40629, -0.881663, 36.2, -12.7891, -65.1513, 31.5029
4.58, 13, -5.65085, -0.825658, 36.0698, -13.5081, -65.2227, 32.0997
4.584, 13, -5.89304, -0.765738, 35.9366, -14.218, -65.3009, 32.6872
4.588, 13, -6.13283, -0.701854, 35.8003, -14.9188, -65.386, 33.264
4.592, 13, -6.37024, -0.633944, 35.6609, -15.6103, -65.4784, 33.8285
4.596, 13, -6.60537, -0.561935, 35.5184, -16.2929, -65.5783, 34.3791
4.6, 14, -6.83837, -0.485744, 35.3725, -16.9671, -65.6863, 34.9141
4.604, 14, -7.06941, -0.405318, 35.2231, -17.6338, -65.803, 35.4316
4.608, 14, -7.29866, -0.320665, 35.07, -18.294, -65.929, 35.9299
4.612, 14, -7.52629, -0.231853, 34.9128, -18.9487, -66.0651, 36.4071
4.616, 14, -7.75239, -0.13895, 34.7513, -19.5992, -66.2119, 36.8613
4.62, 14, -7.97706, -0.0419806, 34.5851, -20.2468, -66.3702, 37.2912
4.624, 14, -8.20038, 0.0590795, 34.4138, -20.8927, -66.5405, 37.6954
4.628, 14, -8.42242, 0.164252, 34.2371, -21.538, -66.723, 38.0733
4.632, 14, -8.64314, 0.273501, 34.0547, -22.1837, -66.9179, 38.4248
4.636, 14, -8.86235, 0.386718, 33.8664, -22.8305, -67.125, 38.7501
4.64, 14, -9.07977, 0.50375, 33.6721, -23.479, -67.3441, 39.0502
4.644, 14, -9.29511, 0.62442, 33.4717, -24.1294, -67.5744, 39.3264
4.648, 14, -9.50812, 0.748517, 33.2654, -24.7818, -67.8151, 39.5801
4.652, 14, -9.71862, 0.875821, 33.0533, -25.4355, -68.0652, 39.8128
4.656, 14, -9.92652, 1.00615, 32.8357, -26.0898, -68.3235, 40.0261
4.66, 14, -10.1318, 1.13937, 32.613, -26.7434, -68.5887, 40.2209
4.664, 14, -10.3345, 1.27525, 32.3858, -27.3948, -68.8594, 40.3979
4.668, 14, -10.5345, 1.41341, 32.1546, -28.0423, -69.1343, 40.557
4.672, 14, -10.7316, 1.55333, 31.9202, -28.6839, -69.4119, 40.6977
4.676, 15, -10.9252, 1.69443, 31.6834, -29.3178, -69.6913, 40.8184
4.68, 15, -11.1151, 1.8361, 31.4449, -29.942, -69.9713, 40.9172
4.684, 15, -11.3009, 1.97773, 31.2056, -30.5546, -70.2509, 40.9919
4.688, 15, -11.4823, 2.11877, 30.9662, -31.1539, -70.5294, 41.0399
4.692, 15, -11.659, 2.25867, 30.7277, -31.7383, -70.8059, 41.059
4.696, 15, -11.8307, 2.39691, 30.4908, -32.3065, -71.0797, 41.0475
4.7, 15, -11.9971, 2.533, 30.2563, -32.8574, -71.35, 41.0046
4.704, 15, -12.1579, 2.66647, 30.025, -33.3902, -71.6161, 40.9303
4.708, 15, -12.3127, 2.79682, 29.7976, -33.9043, -71.8772, 40.8257
4.712, 15, -12.4611, 2.92363, 29.5748, -34.3992, -72.1324, 40.6931
4.716, 15, -12.603, 3.04647, 29.3571, -34.8747, -72.3811, 40.5354
4.72, 15, -12.7382, 3.16498, 29.1451, -35.3305, -72.6222, 40.3561
4.724, 15, -12.8669, 3.27884, 28.9392, -35.7665, -72.8549, 40.1592
4.728, 15, -12.989, 3.38778, 28.7399, -36.1828, -73.0786, 39.9488
4.732, 15, -13.1048, 3.4916, 28.5473, -36.5794, -73.2923, 39.7288
4.736, 15, -13.2143, 3.59014, 28.3617, -36.9567, -73.4956, 39.5025
4.74, 15, -13.3177, 3.68325, 28.1833, -37.3151, -73.688, 39.2727
4.744, 15, -13.4153, 3.77088, 28.0122, -37.6551, -73.8691, 39.0415
4.748, 15, -13.5071, 3.85294, 27.8482, -37.9774, -74.0388, 38.81
4.752, 15, -13.5933, 3.9294, 27.6914, -38.2829, -74.197, 38.5786
4.756, 15, -13.6742, 4.00019, 27.5416, -38.5724, -74.344, 38.3469
4.76, 16, -13.7498, 4.06529, 27.3985, -38.8467, -74.4798, 38.114
4.764, 16, -13.8204, 4.1247, 27.262, -39.1069, -74.6047, 37.8787
4.768, 16, -13.886, 4.17849, 27.132, -39.3537, -74.719, 37.6395
4.772, 16, -13.9469, 4.22686, 27.0082, -39.5881, -74.8229, 37.395
4.776, 16, -14.0034, 4.27007, 26.8903, -39.8107, -74.9167, 37.144
4.78, 16, -14.0559, 4.30845, 26.7782, -40.0222, -75.0006, 36.8854
4.784, 16, -14.1045, 4.34228, 26.6716, -40.223, -75.075, 36.6187
4.788, 16, -14.1498, 4.37182, 26.5703, -40.4138, -75.1401, 36.3436
4.792, 16, -14.192, 4.39725, 26.4739, -40.5949, -75.1963, 36.0603
4.796, 16, -14.2313, 4.41871, 26.3822, -40.7669, -75.2443, 35.7693
4.8, 16, -14.2679, 4.43626, 26.2951, -40.9303, -75.2846, 35.4712
4.804, 16, -14.3017, 4.45, 26.2121, -41.0859, -75.3177, 35.1668
4.808, 16, -14.333, 4.46008, 26.133, -41.2343, -75.3445, 34.8571
4.812, 16, -14.3619, 4.46672, 26.0576, -41.3761, -75.3656, 34.5431
4.816, 16, -14.3886, 4.47015, 25.9854, -41.5121, -75.3816, 34.2256
4.82, 16, -14.4131, 4.47052, 25.9162, -41.6429, -75.3931, 33.9057
4.824, 16, -14.4354, 4.46791, 25.8498, -41.7691, -75.4007, 33.5841
4.828, 16, -14.4555, 4.46232, 25.7858, -41.8913, -75.4048, 33.2617
4.832, 16, -14.4732, 4.45374, 25.7242, -42.0099, -75.4057, 32.939
4.836, 16, -14.4886, 4.44218, 25.6649, -42.1251, -75.4035, 32.6165
4.84, 16, -14.5016, 4.42766, 25.6079, -42.2371, -75.3982, 32.2945
4.844, 16, -14.5124, 4.41022, 25.5531, -42.3456, -75.3895, 31.9732
4.848, 16, -14.521, 4.38998, 25.5008, -42.4505, -75.3771, 31.6527
4.852, 16, -14.5275, 4.36702, 25.451, -42.5512, -75.3604, 31.3329
4.856, 16, -14.5322, 4.3414, 25.404, -42.6473, -75.3388, 31.0139
4.86, 16, -14.535, 4.31308, 25.36, -42.738, -75.3117, 30.6955
4.864, 16, -14.5358, 4.28198, 25.3193, -42.8228, -75.2784, 30.3777
4.868, 16, -14.5346, 4.24796, 25.2823, -42.9009, -75.2384, 30.0605
4.872, 17, -14.5313, 4.21082, 25.2492, -42.9718, -75.1912, 29.7439
4.876, 17, -14.5257, 4.17028, 25.2204, -43.0347, -75.1362, 29.4281
4.88, 17, -14.5177, 4.12607, 25.196, -43.0893, -75.0732, 29.1131
4.884, 17, -14.5069, 4.07791, 25.1763, -43.1348, -75.0018, 28.799
4.888, 17, -14.4932, 4.02555, 25.1615, -43.171, -74.9217, 28.4859
4.892, 17, -14.4766, 3.96882, 25.1518, -43.1975, -74.8327, 28.1736
4.896, 17, -14.4569, 3.90755, 25.1471, -43.2139, -74.7348, 27.8621
4.9, 17, -14.4339, 3.84164, 25.1476, -43.22, -74.6277, 27.5511
4.904, 17, -14.4077, 3.77097, 25.1533, -43.2158, -74.5113, 27.24
4.908, 17, -14.3781, 3.69544, 25.1641, -43.2011, -74.3856, 26.9284
4.912, 17, -14.3451, 3.61492, 25.1799, -43.1761, -74.2504, 26.6152
4.916, 17, -14.3084, 3.52931, 25.2006, -43.1409, -74.1057, 26.2996
4.92, 17, -14.2681, 3.43857, 25.226, -43.0957, -73.9514, 25.9802
4.924, 17, -14.224, 3.34274, 25.2559, -43.0406, -73.7874, 25.6557
4.928, 17, -14.1762, 3.24188, 25.2903, -42.976, -73.6136, 25.3246
4.932, 17, -14.1246, 3.13609, 25.3287, -42.9022, -73.4299, 24.9853
4.936, 17, -14.0693, 3.02544, 25.3711, -42.8193, -73.2361, 24.6363
4.94, 17, -14.0101, 2.90999, 25.4171, -42.7275, -73.0323, 24.276
4.944, 17, -13.9472, 2.78977, 25.4664, -42.6272, -72.8182, 23.9031
4.948, 17, -13.8803, 2.66476, 25.519, -42.5184, -72.594, 23.516
4.952, 17, -13.8094, 2.53496, 25.5746, -42.4014, -72.3595, 23.1136
4.956, 17, -13.7343, 2.40038, 25.633, -42.276, -72.1149, 22.6945
4.96, 17, -13.6548, 2.26105, 25.6941, -42.1423, -71.86, 22.258
4.964, 17, -13.5705, 2.11704, 25.758, -42.0001, -71.5948, 21.8032
4.968, 17, -13.4814, 1.96845, 25.8246, -41.8488, -71.3194, 21.3298
4.972, 17, -13.3872, 1.81536, 25.8941, -41.6878, -71.0334, 20.8379
4.976, 17, -13.2877, 1.65788, 25.9664, -41.5161, -70.7369, 20.328
4.98, 17, -13.1828, 1.49608, 26.0419, -41.3325, -70.4296, 19.801
4.984, 17, -13.0722, 1.32998, 26.1205, -41.1356, -70.1113, 19.2582
4.988, 17, -12.9558, 1.15962, 26.2026, -40.9238, -69.7818, 18.7013
4.992, 18, -12.8334, 0.985066, 26.2884, -40.6955, -69.441, 18.1321
4.996, 18, -12.7048, 0.806422, 26.378, -40.449, -69.0886, 17.5522
5, 18, -12.5697, 0.623841, 26.4716, -40.1826, -68.7247, 16.9636
5.004, 18, -12.4279, 0.437514, 26.5695, -39.8949, -68.349, 16.3678
5.008, 18, -12.2794, 0.247673, 26.6714, -39.5844, -67.9617, 15.7661
5.012, 18, -12.1242, 0.0545715, 26.7775, -39.25, -67.5629, 15.1598
5.016, 18, -11.962, -0.14152, 26.8874, -38.8909, -67.1528, 14.5493
5.02, 18, -11.793, -0.340286, 27.001, -38.5065, -66.7319, 13.935
5.024, 18, -11.6171, -0.541313, 27.1178, -38.0967, -66.3008, 13.3164
5.028, 18, -11.4345, -0.744078, 27.2374, -37.6617, -65.8602, 12.6929
5.032, 18, -11.2455, -0.947969, 27.3592, -37.2022, -65.411, 12.0634
5.036, 18, -11.0501, -1.15232, 27.4827, -36.7189, -64.9542, 11.4267
5.04, 18, -10.8488, -1.35645, 27.6071, -36.213, -64.491, 10.7815
5.044, 18, -10.6418, -1.55973, 27.7318, -35.686, -64.0228, 10.1268
5.048, 18, -10.4295, -1.76164, 27.8561, -35.1394, -63.5511, 9.46188
5.052, 18, -10.2123, -1.96177, 27.9793, -34.5748, -63.0773, 8.78612
5.056, 18, -9.9905, -2.15978, 28.1008, -33.9941, -62.6031, 8.09941
5.06, 18, -9.76477, -2.35533, 28.22, -33.3989, -62.1301, 7.40192
5.064, 18, -9.53561, -2.54811, 28.3364, -32.7909, -61.6598, 6.69411
5.068, 18, -9.30353, -2.73779, 28.4495, -32.1718, -61.1935, 5.97673
5.072, 18, -9.06891, -2.92409, 28.5589, -31.543, -60.7327, 5.2507
5.076, 18, -8.83203, -3.10667, 28.6643, -30.9059, -60.2786, 4.51707
5.08, 18, -8.59307, -3.28523, 28.7655, -30.2619, -59.8323, 3.77697
5.084, 18, -8.35221, -3.45946, 28.8624, -29.612, -59.3947, 3.03147
5.088, 18, -8.10965, -3.62909, 28.9548, -28.9571, -58.9666, 2.28156
5.092, 18, -7.86568, -3.79384, 29.0427, -28.2977, -58.5486, 1.52813
5.096, 18, -7.62065, -3.95345, 29.1262, -27.6343, -58.141, 0.771903
5.1, 18, -7.37494, -4.10768, 29.2051, -26.9668, -57.7443, 0.0134676
5.104, 18, -7.1289, -4.25632, 29.2796, -26.2952, -57.3586, -0.746689
5.108, 18, -6.88277, -4.39926, 29.3497, -25.6193, -56.9839, -1.50816
5.112, 18, -6.63671, -4.53643, 29.4155, -24.9387, -56.6203, -2.27058
5.116, 19, -6.39079, -4.66782, 29.477, -24.253, -56.2679, -3.03361
5.12, 19, -6.14509, -4.79346, 29.5344, -23.562, -55.9266, -3.79691
5.124, 19, -5.89969, -4.91342, 29.5877, -22.8651, -55.5964, -4.56014
5.128, 19, -5.65468, -5.02778, 29.637, -22.1623, -55.2775, -5.32295
5.132, 19, -5.41016, -5.13664, 29.6825, -21.4532, -54.9696, -6.085
5.136, 19, -5.1662, -5.24014, 29.7241, -20.7378, -54.6729, -6.84597
5.14, 19, -4.92287, -5.33839, 29.7619, -20.0162, -54.3874, -7.60556
5.144, 19, -4.68016, -5.43151, 29.7959, -19.2885, -54.113, -8.36353
5.148, 19, -4.43799, -5.51963, 29.8263, -18.555, -53.8496, -9.11969
5.152, 19, -4.19627, -5.6029, 29.8531, -17.8162, -53.5972, -9.87393
5.156, 19, -3.9549, -5.68146, 29.8764, -17.0726, -53.3556, -10.6262
5.16, 19, -3.71384, -5.75543, 29.8962, -16.3248, -53.1248, -11.3765
5.164, 19, -3.47308, -5.82491, 29.9125, -15.5733, -52.9046, -12.125
5.168, 19, -3.23269, -5.88998, 29.9254, -14.8187, -52.6948, -12.8718
5.172, 19, -2.99275, -5.95069, 29.935, -14.0614, -52.4952, -13.6171
5.176, 19, -2.75334, -6.00706, 29.9412, -13.3019, -52.3057, -14.3612
5.18, 19, -2.51455, -6.0591, 29.9442, -12.5407, -52.1259, -15.1045
5.184, 19, -2.27644, -6.10684, 29.9439, -11.7781, -51.9557, -15.8471
5.188, 19, -2.03903, -6.15034, 29.9404, -11.0145, -51.7949, -16.5894
5.192, 19, -1.80234, -6.18968, 29.9337, -10.25, -51.6433, -17.3316
5.196, 19, -1.56636, -6.225, 29.9239, -9.48498, -51.5007, -18.0739
5.2, 19, -1.33111, -6.25642, 29.911, -8.71953, -51.3671, -18.8165
5.204, 19, -1.09656, -6.28406, 29.895, -7.95379, -51.2421, -19.5595
5.208, 19, -0.862708, -6.30804, 29.876, -7.18786, -51.1258, -20.3031
5.212, 19, -0.62952, -6.32848, 29.8539, -6.4218, -51.0181, -21.0471
5.216, 19, -0.396972, -6.34545, 29.8289, -5.65565, -50.9188, -21.7918
5.22, 19, -0.165043, -6.35903, 29.8009, -4.88945, -50.828, -22.537
5.224, 19, 0.0662802, -6.36929, 29.7699, -4.12322, -50.7455, -23.2828
5.228, 19, 0.297003, -6.37626, 29.7359, -3.357, -50.6713, -24.0291
5.232, 19, 0.527137, -6.37999, 29.699, -2.5908, -50.6053, -24.776
5.236, 19, 0.756709, -6.38049, 29.6592, -1.82468, -50.5475, -25.5234
5.24, 19, 0.985745, -6.37774, 29.6165, -1.05865, -50.4979, -26.2714
5.244, 19, 1.21422, -6.37172, 29.5709, -0.292778, -50.4563, -27.0197
5.248, 19, 1.44203, -6.36238, 29.5224, 0.472883, -50.4229, -27.7684
5.252, 19, 1.66894, -6.34972, 29.4709, 1.23824, -50.3976, -28.517
5.256, 19, 1.89475, -6.33372, 29.4166, 2.00311, -50.3806, -29.2652
5.26, 19, 2.11929, -6.31437, 29.3593, 2.76722, -50.372, -30.0122
5.264, 19, 2.3425, -6.29167, 29.2992, 3.53015, -50.3719, -30.7571
5.268, 19, 2.56441, -6.26559, 29.2363, 4.29136, -50.3807, -31.4988
5.272, 19, 2.78512, -6.23606, 29.1707, 5.05016, -50.3985, -32.2356
5.276, 19, 3.00479, -6.20301, 29.1025, 5.80582, -50.4256, -32.966
5.28, 19, 3.22353, -6.16632, 29.0317, 6.55761, -50.4624, -33.6882
5.284, 19, 3.44135, -6.1259, 28.9584, 7.30482, -50.5092, -34.4004
5.288, 20, 3.65817, -6.08168, 28.8828, 8.04684, -50.5664, -35.1008
5.292, 20, 3.87396, -6.03358, 28.8048, 8.78317, -50.6343, -35.7875
5.296, 20, 4.08882, -5.98156, 28.7244, 9.51347, -50.7134, -36.459
5.3, 20, 4.303, -5.92559, 28.6417, 10.2376, -50.804, -37.1136
5.304, 20, 4.5168, -5.86565, 28.5566, 10.9555, -50.9066, -37.75
5.308, 20, 4.73048, -5.80172, 28.4691, 11.6675, -51.0215, -38.3672
5.312, 20, 4.94418, -5.73377, 28.3789, 12.3743, -51.1492, -38.9646
5.316, 20, 5.158, -5.66173, 28.2858, 13.0767, -51.29, -39.542
5.32, 20, 5.37195, -5.58552, 28.1896, 13.7759, -51.4441, -40.0997
5.324, 20, 5.58597, -5.50504, 28.0899, 14.4733, -51.6117, -40.6385
5.328, 20, 5.8, -5.42025, 27.9863, 15.1701, -51.7931, -41.1594
5.332, 20, 6.01402, -5.33118, 27.8786, 15.8679, -51.9881, -41.664
5.336, 20, 6.22808, -5.23793, 27.7663, 16.5676, -52.1965, -42.1535
5.34, 20, 6.44225, -5.14069, 27.6491, 17.2702, -52.4182, -42.6296
5.344, 20, 6.65656, -5.03965, 27.5268, 17.9762, -52.6526, -43.0936
5.348, 20, 6.87094, -4.9349, 27.3993, 18.6855, -52.8991, -43.5469
5.352, 20, 7.08526, -4.82648, 27.2665, 19.3979, -53.1567, -43.9904
5.356, 20, 7.29934, -4.71428, 27.1284, 20.1124, -53.4245, -44.4252
5.36, 20, 7.51307, -4.59816, 26.9853, 20.8279, -53.7012, -44.852
5.364, 20, 7.72633, -4.47795, 26.8373, 21.543, -53.9857, -45.2709
5.368, 20, 7.93899, -4.35355, 26.6848, 22.2561, -54.2769, -45.6819
5.372, 20, 8.15094, -4.22502, 26.5279, 22.9657, -54.5739, -46.0844
5.376, 20, 8.36214, -4.09245, 26.3672, 23.6699, -54.876, -46.4771
5.38, 20, 8.57255, -3.95605, 26.2027, 24.3675, -55.1826, -46.8583
5.384, 20, 8.782, -3.81606, 26.0349, 25.057, -55.4938, -47.2256
5.388, 20, 8.99018, -3.67282, 25.864, 25.7374, -55.8095, -47.5763
5.392, 20, 9.19665, -3.52668, 25.6902, 26.408, -56.1303, -47.9073
5.396, 21, 9.401, -3.37801, 25.5137, 27.068, -56.4565, -48.2153
5.4, 21, 9.60282, -3.22721, 25.3346, 27.7171, -56.7888, -48.497
5.404, 21, 9.80175, -3.0747, 25.1532, 28.3548, -57.1278, -48.7489
5.408, 21, 9.99746, -2.92091, 24.9696, 28.9809, -57.4738, -48.9682
5.412, 21, 10.1897, -2.76626, 24.7841, 29.595, -57.8269, -49.1523
5.416, 21, 10.3782, -2.61111, 24.5971, 30.1966, -58.1869, -49.2994
5.42, 21, 10.5627, -2.45579, 24.4087, 30.7854, -58.5533, -49.4087
5.424, 21, 10.743, -2.30063, 24.2195, 31.3606, -58.925, -49.4803
5.428, 21, 10.919, -2.14594, 24.03, 31.9217, -59.3007, -49.5151
5.432, 21, 11.0903, -1.99199, 23.8406, 32.468, -59.6786, -49.5151
5.436, 21, 11.2569, -1.83901, 23.6519, 32.9989, -60.0569, -49.4832
5.44, 21, 11.4188, -1.68723, 23.4644, 33.5136, -60.4334, -49.4225
5.444, 21, 11.5759, -1.53686, 23.2787, 34.0116, -60.806, -49.3372
5.448, 21, 11.7281, -1.38816, 23.0953, 34.4925, -61.1727, -49.2313
5.452, 21, 11.8752, -1.24137, 22.9146, 34.9562, -61.5317, -49.1091
5.456, 21, 12.0172, -1.09675, 22.7369, 35.4027, -61.8812, -48.9748
5.46, 21, 12.154, -0.954624, 22.5625, 35.8321, -62.2202, -48.8321
5.464, 21, 12.2855, -0.815351, 22.3916, 36.2449, -62.5477, -48.6838
5.468, 21, 12.4119, -0.679284, 22.2243, 36.6416, -62.8633, -48.5322
5.472, 21, 12.533, -0.546753, 22.0606, 37.023, -63.1667, -48.3785
5.476, 21, 12.6493, -0.418037, 21.9005, 37.3898, -63.4581, -48.2231
5.48, 21, 12.7607, -0.293339, 21.744, 37.7428, -63.7379, -48.066
5.484, 21, 12.8676, -0.172777, 21.5909, 38.0829, -64.0065, -47.9063
5.488, 21, 12.97, -0.0563944, 21.4412, 38.4108, -64.2643, -47.743
5.492, 22, 13.0682, 0.0558087, 21.2947, 38.7275, -64.512, -47.575
5.496, 22, 13.1624, 0.163842, 21.1513, 39.0339, -64.7501, -47.4007
5.5, 22, 13.2527, 0.267741, 21.0109, 39.3305, -64.9792, -47.2186
5.504, 22, 13.3391, 0.367621, 20.8733, 39.6182, -65.1998, -47.0273
5.508, 22, 13.4221, 0.4637, 20.7383, 39.8977, -65.4123, -46.8255
5.512, 22, 13.5019, 0.55627, 20.606, 40.1696, -65.617, -46.6118
5.516, 22, 13.5789, 0.645652, 20.476, 40.4344, -65.8145, -46.3852
5.52, 22, 13.6535, 0.732179, 20.3482, 40.693, -66.0051, -46.1447
5.524, 22, 13.7259, 0.816166, 20.2222, 40.9462, -66.1893, -45.8896
5.528, 22, 13.7967, 0.897832, 20.0978, 41.1949, -66.3678, -45.619
5.532, 22, 13.8657, 0.97726, 19.9744, 41.4403, -66.5411, -45.3325
5.536, 22, 13.9329, 1.05447, 19.8517, 41.6836, -66.7101, -45.0298
5.54, 22, 13.9983, 1.12948, 19.7293, 41.9256, -66.8753, -44.7109
5.544, 22, 14.0618, 1.20241, 19.6069, 42.1675, -67.0375, -44.3764
5.548, 22, 14.1234, 1.27334, 19.4841, 42.4098, -67.1969, -44.0274
5.552, 22, 14.183, 1.34233, 19.3609, 42.6527, -67.3539, -43.6656
5.556, 22, 14.2407, 1.40933, 19.2375, 42.8961, -67.5086, -43.2935
5.56, 22, 14.2967, 1.47421, 19.1138, 43.1397, -67.6606, -42.9138
5.564, 22, 14.3509, 1.53676, 18.9903, 43.3825, -67.8098, -42.5297
5.568, 22, 14.4034, 1.59669, 18.8676, 43.6236, -67.9555, -42.1444
5.572, 22, 14.454, 1.6537, 18.7461, 43.8617, -68.0969, -41.7611
5.576, 22, 14.5027, 1.70758, 18.6267, 44.0953, -68.2332, -41.3825
5.58, 22, 14.5496, 1.75822, 18.51, 44.323, -68.3633, -41.011
5.584, 22, 14.5944, 1.80557, 18.3969, 44.5434, -68.486, -40.6488
5.588, 22, 14.6373, 1.84955, 18.2881, 44.7552, -68.6005, -40.2971
5.592, 22, 14.6781, 1.89, 18.184, 44.9574, -68.7057, -39.9567
5.596, 22, 14.7167, 1.92668, 18.0851, 45.1494, -68.8008, -39.6274
5.6, 22, 14.7529, 1.95932, 17.9917, 45.3309, -68.8853, -39.3087
5.604, 23, 14.7865, 1.98765, 17.904, 45.5019, -68.9589, -38.999
5.608, 23, 14.817, 2.0114, 17.822, 45.6627, -69.0212, -38.6967
5.612, 23, 14.8444, 2.03037, 17.7456, 45.8138, -69.0722, -38.3998
5.616, 23, 14.8685, 2.04442, 17.6748, 45.9557, -69.1119, -38.1063
5.62, 23, 14.889, 2.05345, 17.6095, 46.0888, -69.1403, -37.8144
5.624, 23, 14.9062, 2.05737, 17.5496, 46.2136, -69.1573, -37.5229
5.628, 23, 14.9199, 2.05608, 17.4948, 46.3303, -69.163, -37.2306
5.632, 23, 14.9303, 2.04947, 17.4451, 46.439, -69.1573, -36.9367
5.636, 23, 14.9375, 2.03745, 17.4004, 46.5399, -69.1403, -36.6405
5.64, 23, 14.9416, 2.01994, 17.3605, 46.6332, -69.1121, -36.3414
5.644, 23, 14.9427, 1.99699, 17.3254, 46.7189, -69.0725, -36.0384
5.648, 23, 14.9409, 1.96873, 17.2948, 46.7976, -69.0217, -35.7306
5.652, 23, 14.9361, 1.93538, 17.2687, 46.8696, -68.9599, -35.4167
5.656, 23, 14.9285, 1.8972, 17.2466, 46.9356, -68.887, -35.0955
5.66, 23, 14.9181, 1.85445, 17.2285, 46.996, -68.8035, -34.7656
5.664, 23, 14.9051, 1.80741, 17.2139, 47.0516, -68.7096, -34.4258
5.668, 23, 14.8897, 1.75634, 17.2024, 47.103, -68.6058, -34.075
5.672, 23, 14.8718, 1.70153, 17.1937, 47.1511, -68.4926, -33.7124
5.676, 23, 14.8517, 1.64336, 17.1874, 47.1964, -68.3707, -33.3372
5.68, 23, 14.8296, 1.58227, 17.1832, 47.2395, -68.2407, -32.9493
5.684, 23, 14.8057, 1.5187, 17.1807, 47.2811, -68.1035, -32.5488
5.688, 23, 14.7799, 1.45292, 17.1796, 47.3215, -67.96, -32.1364
5.692, 23, 14.7524, 1.38507, 17.1796, 47.3609, -67.8111, -31.7136
5.696, 23, 14.7231, 1.31513, 17.1807, 47.3993, -67.6578, -31.2821
5.7, 23, 14.692, 1.24296, 17.1825, 47.4365, -67.501, -30.8442
5.704, 23, 14.6591, 1.16841, 17.1852, 47.472, -67.3414, -30.4025
5.708, 23, 14.6244, 1.09142, 17.1888, 47.5052, -67.1795, -29.9595
5.712, 23, 14.5879, 1.01206, 17.1935, 47.5353, -67.0156, -29.5176
5.716, 23, 14.5497, 0.930498, 17.1997, 47.5613, -66.8496, -29.0789
5.72, 23, 14.5097, 0.846857, 17.2077, 47.5823, -66.6813, -28.6454
5.724, 23, 14.468, 0.761137, 17.2179, 47.5973, -66.5104, -28.2185
5.728, 23, 14.4243, 0.673181, 17.2308, 47.6053, -66.3362, -27.7994
5.732, 23, 14.3783, 0.58279, 17.2467, 47.6051, -66.1579, -27.3887
5.736, 24, 14.33, 0.489833, 17.2663, 47.5958, -65.9747, -26.9868
5.74, 24, 14.279, 0.394268, 17.2898, 47.5764, -65.7856, -26.5937
5.744, 24, 14.2253, 0.296112, 17.3176, 47.5462, -65.5896, -26.2088
5.748, 24, 14.1685, 0.195403, 17.3502, 47.5043, -65.3856, -25.8314
5.752, 24, 14.1086, 0.092154, 17.3877, 47.4502, -65.1728, -25.4606
5.756, 24, 14.0454, -0.0137238, 17.4304, 47.3835, -64.9504, -25.0952
5.76, 24, 13.9784, -0.122469, 17.4782, 47.3038, -64.7178, -24.7341
5.764, 24, 13.9075, -0.234415, 17.5311, 47.2109, -64.4747, -24.3762
5.768, 24, 13.8325, -0.349886, 17.5891, 47.1049, -64.2207, -24.0201
5.772, 24, 13.753, -0.469131, 17.6518, 46.9856, -63.9557, -23.6646
5.776, 24, 13.669, -0.592307, 17.7191, 46.8531, -63.6796, -23.3084
5.78, 24, 13.5803, -0.719494, 17.7909, 46.7074, -63.3922, -22.95
5.784, 24, 13.4868, -0.850703, 17.8667, 46.5486, -63.0936, -22.588
5.788, 24, 13.3884, -0.985905, 17.9465, 46.3767, -62.7835, -22.2208
5.792, 24, 13.2849, -1.12507, 18.0298, 46.1916, -62.462, -21.8469
5.796, 24, 13.1762, -1.26815, 18.1165, 45.9933, -62.129, -21.4645
5.8, 24, 13.0623, -1.41508, 18.2064, 45.7818, -61.7842, -21.0721
5.804, 24, 12.9429, -1.56572, 18.2991, 45.5568, -61.4278, -20.668
5.808, 24, 12.8183, -1.7198, 18.3945, 45.3182, -61.0595, -20.2505
5.812, 24, 12.6883, -1.87698, 18.4923, 45.0657, -60.6793, -19.8181
5.816, 24, 12.5532, -2.03689, 18.5925, 44.7992, -60.2873, -19.3695
5.82, 24, 12.4129, -2.19917, 18.6946, 44.5185, -59.8836, -18.9034
5.824, 24, 12.2676, -2.36346, 18.7985, 44.2234, -59.4687, -18.4191
5.828, 24, 12.1174, -2.52942, 18.9038, 43.9142, -59.043, -17.9161
5.832, 24, 11.9623, -2.69675, 19.0102, 43.5907, -58.6075, -17.3941
5.836, 24, 11.8026, -2.86512, 19.1173, 43.2534, -58.1631, -16.8534
5.84, 24, 11.6386, -3.03412, 19.2248, 42.9025, -57.7109, -16.2944
5.844, 24, 11.4707, -3.20323, 19.3321, 42.5385, -57.2524, -15.7181
5.848, 24, 11.2994, -3.37185, 19.439, 42.162, -56.7889, -15.1256
5.852, 24, 11.1251, -3.53946, 19.545, 41.7735, -56.322, -14.5183
5.856, 24, 10.9481, -3.70567, 19.6497, 41.3739, -55.8534, -13.898
5.86, 24, 10.7686, -3.87021, 19.7527, 40.9639, -55.3847, -13.2667
5.864, 24, 10.5868, -4.03284, 19.8537, 40.5442, -54.9176, -12.6265
5.868, 24, 10.4031, -4.1933, 19.9524, 40.1156, -54.4537, -11.9796
