hehonglu123/Motion-Primitive-Planning/ILC/recorded_data/realrobot/wood/iteration_27/run_2.csv
timestamp, cmd_num, J1, J2, J3, J4, J5, J6
0.000448, -1, 11.3758, 13.6162, 17.3334, -145.52, -97.9263, 142.516
0.004284, -1, 11.3758, 13.6162, 17.3334, -145.52, -97.9263, 142.516
0.007686, -1, 11.3758, 13.6162, 17.3334, -145.52, -97.9264, 142.516
0.028435, -1, 11.3758, 13.6162, 17.3334, -145.52, -97.9263, 142.516
0.031119, -1, 11.3758, 13.6162, 17.3334, -145.52, -97.9263, 142.516
0.034403, -1, 11.3758, 13.6162, 17.3335, -145.52, -97.9264, 142.516
0.039629, -1, 11.3758, 13.6162, 17.3335, -145.52, -97.9263, 142.516
0.047604, -1, 11.3757, 13.6162, 17.3335, -145.52, -97.9263, 142.516
0.05562, -1, 11.3751, 13.6162, 17.3334, -145.52, -97.9263, 142.516
0.06356, -1, 11.3724, 13.616, 17.3334, -145.52, -97.9263, 142.516
0.071555, -1, 11.3659, 13.6153, 17.3332, -145.52, -97.9263, 142.516
0.079624, -1, 11.3548, 13.6136, 17.3327, -145.521, -97.9263, 142.515
0.087557, -1, 11.3373, 13.6102, 17.332, -145.523, -97.9261, 142.507
0.095552, -1, 11.3103, 13.6043, 17.3311, -145.526, -97.9255, 142.486
0.103651, -1, 11.2719, 13.5952, 17.3306, -145.533, -97.9237, 142.446
0.111601, -1, 11.2217, 13.5829, 17.3307, -145.545, -97.9203, 142.381
0.119593, -1, 11.16, 13.5675, 17.3324, -145.562, -97.9148, 142.286
0.12801, -1, 11.0867, 13.5485, 17.3364, -145.585, -97.907, 142.155
0.135552, -1, 11.0014, 13.5255, 17.3429, -145.614, -97.8968, 141.99
0.143565, -1, 10.9046, 13.4992, 17.3515, -145.648, -97.8846, 141.792
0.152358, -1, 10.7969, 13.4695, 17.3619, -145.687, -97.8709, 141.566
0.159584, -1, 10.6784, 13.4366, 17.3732, -145.729, -97.856, 141.319
0.167589, -1, 10.5493, 13.4009, 17.3844, -145.774, -97.8405, 141.059
0.176348, -1, 10.4112, 13.363, 17.3951, -145.819, -97.8247, 140.789
0.183579, -1, 10.2663, 13.3234, 17.4053, -145.867, -97.8085, 140.515
0.322366, -1, 7.65302, 12.6217, 17.577, -146.681, -97.5196, 135.761
0.324452, -1, 7.57554, 12.6009, 17.5821, -146.705, -97.5112, 135.62
0.325681, -1, 7.57554, 12.6009, 17.5821, -146.705, -97.5112, 135.62
0.326949, -1, 7.57554, 12.6009, 17.5821, -146.705, -97.5112, 135.62
0.328945, -1, 7.49803, 12.5801, 17.5872, -146.729, -97.5028, 135.48
0.330316, -1, 7.49803, 12.5801, 17.5872, -146.729, -97.5028, 135.48
0.333122, -1, 7.42049, 12.5593, 17.5923, -146.753, -97.4943, 135.34
0.336303, -1, 7.34296, 12.5385, 17.5974, -146.777, -97.4857, 135.2
0.33762, -1, 7.34296, 12.5385, 17.5974, -146.777, -97.4857, 135.2
0.338924, -1, 7.34296, 12.5385, 17.5974, -146.777, -97.4857, 135.2
0.340904, -1, 7.26545, 12.5177, 17.6025, -146.801, -97.477, 135.06
0.342187, -1, 7.26545, 12.5177, 17.6025, -146.801, -97.477, 135.06
0.344008, -1, 7.18798, 12.497, 17.6076, -146.825, -97.4683, 134.92
0.346269, -1, 7.18798, 12.497, 17.6076, -146.825, -97.4683, 134.92
0.348141, -1, 7.11046, 12.4762, 17.6128, -146.849, -97.4596, 134.779
0.350389, -1, 7.11046, 12.4762, 17.6128, -146.849, -97.4596, 134.779
0.35226, -1, 7.03288, 12.4554, 17.618, -146.873, -97.451, 134.639
0.353689, -1, 7.03288, 12.4554, 17.618, -146.873, -97.451, 134.639
0.354885, -1, 7.03288, 12.4554, 17.618, -146.873, -97.451, 134.639
0.357805, -1, 6.95528, 12.4347, 17.6231, -146.897, -97.4424, 134.499
0.359036, -1, 6.95528, 12.4347, 17.6231, -146.897, -97.4424, 134.499
0.361281, -1, 6.87772, 12.4141, 17.6282, -146.921, -97.4339, 134.359
0.369481, -1, 6.72281, 12.3728, 17.6386, -146.969, -97.417, 134.079
0.376164, -1, 6.56813, 12.3315, 17.649, -147.018, -97.4003, 133.798
0.384251, -1, 6.49083, 12.3109, 17.6594, -147.066, -97.3836, 133.518
0.391536, -1, 6.33642, 12.2695, 17.6646, -147.09, -97.3752, 133.377
0.398634, -1, 6.18219, 12.2281, 17.675, -147.138, -97.3582, 133.097
0.408737, -1, 5.95065, 12.1659, 17.6903, -147.21, -97.3322, 132.676
0.415549, -1, 5.87338, 12.1452, 17.6955, -147.234, -97.3233, 132.535
0.423586, -1, 5.71874, 12.1035, 17.7058, -147.282, -97.3058, 132.255
0.431543, -1, 5.5638, 12.0617, 17.716, -147.33, -97.2885, 131.974
0.439578, -1, 5.40867, 12.0201, 17.7263, -147.378, -97.2716, 131.693
0.447596, -1, 5.25333, 11.9784, 17.7366, -147.426, -97.2547, 131.411
0.455583, -1, 5.09765, 11.9366, 17.747, -147.475, -97.238, 131.131
0.46354, -1, 4.94188, 11.895, 17.7575, -147.522, -97.2211, 130.85
0.471595, -1, 4.78619, 11.8534, 17.7679, -147.571, -97.2039, 130.568
0.479544, -1, 4.63042, 11.8118, 17.7784, -147.619, -97.1866, 130.287
0.487541, -1, 4.47467, 11.7703, 17.7888, -147.667, -97.1691, 130.007
0.495665, -1, 4.31917, 11.7288, 17.7992, -147.716, -97.1518, 129.726
0.503569, -1, 4.16385, 11.6873, 17.8097, -147.764, -97.1347, 129.445
0.511541, -1, 4.00891, 11.6459, 17.8201, -147.812, -97.1177, 129.164
0.519626, -1, 3.85436, 11.6044, 17.8304, -147.86, -97.1009, 128.882
0.528599, -1, 3.69999, 11.5628, 17.8408, -147.909, -97.084, 128.601
0.535549, -1, 3.5456, 11.5212, 17.8511, -147.957, -97.067, 128.319
0.543569, -1, 3.39095, 11.4795, 17.8614, -148.006, -97.0497, 128.038
0.551544, -1, 3.23602, 11.4378, 17.8719, -148.054, -97.0321, 127.757
0.559631, -1, 3.08087, 11.396, 17.8823, -148.102, -97.0146, 127.475
0.567551, -1, 2.92557, 11.3542, 17.8928, -148.15, -96.9974, 127.193
0.575554, -1, 2.7701, 11.3124, 17.9031, -148.198, -96.9803, 126.912
0.583601, -1, 2.61425, 11.2706, 17.9134, -148.246, -96.9635, 126.63
0.59154, -1, 2.45818, 11.2288, 17.9239, -148.295, -96.9467, 126.348
0.599551, -1, 2.30181, 11.1871, 17.9343, -148.343, -96.9299, 126.066
0.607606, -1, 2.14518, 11.1454, 17.9447, -148.391, -96.9128, 125.784
0.615549, -1, 1.9884, 11.1036, 17.9551, -148.44, -96.8954, 125.503
0.623573, -1, 1.83181, 11.0619, 17.9655, -148.488, -96.8779, 125.221
0.631688, -1, 1.67533, 11.0202, 17.9759, -148.536, -96.8605, 124.939
0.639607, -1, 1.51904, 10.9784, 17.9865, -148.585, -96.8434, 124.657
0.77805, -1, -1.1331, 10.2675, 18.1637, -149.409, -96.5522, 119.853
0.782255, -1, -1.21164, 10.2465, 18.1689, -149.434, -96.5438, 119.711
0.784331, -1, -1.29015, 10.2256, 18.1741, -149.458, -96.5353, 119.569
0.785562, -1, -1.29015, 10.2256, 18.1741, -149.458, -96.5353, 119.569
0.787433, -1, -1.29015, 10.2256, 18.1741, -149.458, -96.5269, 119.428
0.788793, -1, -1.36862, 10.2046, 18.1792, -149.482, -96.5269, 119.428
0.790033, -1, -1.36862, 10.2046, 18.1792, -149.482, -96.5269, 119.428
0.793676, -1, -1.44708, 10.1837, 18.1844, -149.507, -96.5185, 119.286
0.79566, -1, -1.52546, 10.1628, 18.1896, -149.531, -96.5101, 119.144
0.797102, -1, -1.52546, 10.1628, 18.1896, -149.531, -96.5101, 119.144
0.798414, -1, -1.52546, 10.1628, 18.1896, -149.531, -96.5101, 119.144
0.80045, -1, -1.6037, 10.1418, 18.1949, -149.555, -96.5017, 119.003
0.801643, -1, -1.6037, 10.1418, 18.1949, -149.555, -96.5017, 119.003
0.804269, -1, -1.6037, 10.1418, 18.1949, -149.58, -96.4932, 118.861
0.806361, -1, -1.6818, 10.1209, 18.2002, -149.58, -96.4932, 118.861
0.808772, -1, -1.7598, 10.0999, 18.2054, -149.604, -96.4846, 118.72
0.809979, -1, -1.7598, 10.0999, 18.2054, -149.604, -96.4846, 118.72
0.811911, -1, -1.83769, 10.079, 18.2106, -149.628, -96.476, 118.578
0.813337, -1, -1.83769, 10.079, 18.2106, -149.628, -96.476, 118.578
0.814602, -1, -1.83769, 10.079, 18.2106, -149.628, -96.476, 118.578
0.81661, -1, -1.91549, 10.058, 18.2158, -149.652, -96.4673, 118.436
0.817901, -1, -1.91549, 10.058, 18.2158, -149.652, -96.4673, 118.436
0.825534, -1, -2.07086, 10.0161, 18.2263, -149.701, -96.4497, 118.152
0.832075, -1, -2.22596, 9.97426, 18.2367, -149.75, -96.432, 117.869
0.840039, -1, -2.38118, 9.93237, 18.2472, -149.798, -96.4147, 117.585
0.848095, -1, -2.53676, 9.89038, 18.2577, -149.847, -96.3976, 117.301
0.856138, -1, -2.69259, 9.84844, 18.268, -149.896, -96.3808, 117.018
0.864118, -1, -2.84874, 9.80648, 18.2784, -149.944, -96.3641, 116.734
0.872146, -1, -3.00531, 9.76451, 18.2888, -149.992, -96.3471, 116.45
0.880147, -1, -3.08374, 9.74355, 18.2992, -150.042, -96.3299, 116.167
0.888088, -1, -3.24099, 9.70161, 18.3044, -150.066, -96.3212, 116.025
0.896298, -1, -3.39868, 9.65958, 18.3149, -150.114, -96.2948, 115.599
0.903529, -1, -3.55648, 9.61758, 18.3254, -150.163, -96.286, 115.457
0.911523, -1, -3.71431, 9.57571, 18.3358, -150.212, -96.2687, 115.173
0.91958, -1, -3.87236, 9.53371, 18.3462, -150.26, -96.2516, 114.888
0.927533, -1, -4.03033, 9.49167, 18.3566, -150.309, -96.2346, 114.604
0.935534, -1, -4.18817, 9.44974, 18.367, -150.358, -96.2177, 114.32
0.943575, -1, -4.34589, 9.40776, 18.3773, -150.406, -96.2006, 114.036
0.951527, -1, -4.5034, 9.36577, 18.3877, -150.456, -96.1832, 113.751
0.95957, -1, -4.66035, 9.32373, 18.3981, -150.504, -96.1655, 113.466
0.967578, -1, -4.81689, 9.28168, 18.4085, -150.553, -96.1477, 113.181
0.975533, -1, -4.97318, 9.23958, 18.419, -150.602, -96.1303, 112.897
0.983521, -1, -5.12919, 9.19754, 18.4296, -150.651, -96.113, 112.611
0.991584, -1, -5.285, 9.15544, 18.4401, -150.699, -96.096, 112.327
0.999574, -1, -5.44097, 9.11327, 18.4507, -150.749, -96.0791, 112.042
1.00754, -1, -5.59716, 9.07118, 18.4611, -150.797, -96.0621, 111.757
1.01653, -1, -5.75365, 9.02906, 18.4715, -150.846, -96.045, 111.472
1.02355, -1, -5.9106, 8.98686, 18.482, -150.895, -96.0275, 111.188
1.03252, -1, -6.06801, 8.94468, 18.4924, -150.944, -96.0099, 110.903
1.03953, -1, -6.22598, 8.90255, 18.5027, -150.992, -95.9923, 110.617
1.04753, -1, -6.38429, 8.86042, 18.5131, -151.042, -95.9751, 110.332
1.05559, -1, -6.54275, 8.81834, 18.5235, -151.091, -95.958, 110.047
1.06352, -1, -6.70133, 8.77618, 18.5341, -151.139, -95.9409, 109.761
1.07153, -1, -6.86004, 8.73402, 18.5446, -151.189, -95.924, 109.476
1.0796, -1, -7.01858, 8.69189, 18.5551, -151.238, -95.9069, 109.19
1.08753, -1, -7.17706, 8.64972, 18.5655, -151.286, -95.8894, 108.905
1.0956, -1, -7.33542, 8.60753, 18.5759, -151.336, -95.8716, 108.619
1.10352, -1, -7.49341, 8.56521, 18.5864, -151.385, -95.8539, 108.333
1.11154, -1, -7.65103, 8.52285, 18.5969, -151.434, -95.8364, 108.048
1.11961, -1, -7.8083, 8.48054, 18.6074, -151.483, -95.8192, 107.762
1.12755, -1, -7.96521, 8.43824, 18.6178, -151.532, -95.8022, 107.476
1.13553, -1, -8.12186, 8.39585, 18.6282, -151.581, -95.7852, 107.19
1.144, -1, -8.27839, 8.35349, 18.6387, -151.63, -95.7682, 106.904
1.15153, -1, -8.43508, 8.31111, 18.6492, -151.679, -95.751, 106.619
1.15954, -1, -8.59216, 8.26871, 18.6598, -151.728, -95.7335, 106.332
1.16835, -1, -8.74956, 8.22645, 18.6703, -151.777, -95.7157, 106.046
1.17553, -1, -8.90723, 8.18411, 18.6807, -151.826, -95.6982, 105.759
1.18364, -1, -9.06531, 8.14175, 18.6911, -151.875, -95.6809, 105.473
1.19235, -1, -9.22386, 8.09946, 18.7016, -151.925, -95.6637, 105.187
1.19952, -1, -9.38271, 8.05712, 18.712, -151.973, -95.6466, 104.9
1.20771, -1, -9.54178, 8.01474, 18.7225, -152.023, -95.6294, 104.613
1.21636, -1, -9.70095, 7.97248, 18.733, -152.072, -95.6122, 104.326
1.2236, -1, -9.86029, 7.9302, 18.7434, -152.121, -95.5946, 104.039
1.23208, -1, -10.0197, 7.88781, 18.7541, -152.171, -95.5767, 103.752
1.24043, -1, -10.1789, 7.84537, 18.7648, -152.22, -95.5589, 103.465
1.24762, -1, -10.3379, 7.80284, 18.7753, -152.269, -95.5413, 103.179
1.25608, -1, -10.4968, 7.76031, 18.7859, -152.319, -95.5241, 102.892
1.26443, -1, -10.6554, 7.71784, 18.7963, -152.368, -95.5071, 102.605
1.27152, -1, -10.8135, 7.67529, 18.8068, -152.417, -95.4901, 102.318
1.28049, -1, -10.9714, 7.63268, 18.8174, -152.466, -95.4729, 102.031
1.28846, -1, -11.129, 7.59018, 18.8277, -152.515, -95.4556, 101.743
1.29561, -1, -11.2864, 7.54769, 18.8383, -152.565, -95.4379, 101.456
1.30445, -1, -11.4437, 7.5052, 18.8488, -152.614, -95.4201, 101.169
1.31263, -1, -11.6013, 7.46269, 18.8593, -152.663, -95.4025, 100.881
1.31979, -1, -11.7592, 7.42024, 18.87, -152.712, -95.385, 100.593
1.32893, -1, -11.9176, 7.37785, 18.8805, -152.762, -95.3678, 100.305
1.33598, -1, -12.0763, 7.33547, 18.8911, -152.811, -95.3506, 100.018
1.34409, -1, -12.2356, 7.29304, 18.9017, -152.861, -95.3334, 99.7297
1.35286, -1, -12.3952, 7.25057, 18.9122, -152.911, -95.3159, 99.4415
1.36006, -1, -12.555, 7.20813, 18.9228, -152.96, -95.2982, 99.1536
1.36816, -1, -12.7148, 7.16567, 18.9333, -153.009, -95.2802, 98.8658
1.37629, -1, -12.8749, 7.12315, 18.9438, -153.059, -95.2623, 98.5779
1.38486, -1, -12.955, 7.10187, 18.9491, -153.108, -95.2447, 98.2897
1.39216, -1, -13.115, 7.05925, 18.9597, -153.133, -95.2274, 98.0017
1.39953, -1, -13.2749, 7.01665, 18.9703, -153.183, -95.2188, 97.8577
1.40751, -1, -13.4346, 6.974, 18.9809, -153.232, -95.2017, 97.5694
1.41556, -1, -13.5939, 6.93122, 18.9915, -153.281, -95.1844, 97.2806
1.42352, -1, -13.753, 6.88848, 19.0021, -153.331, -95.1671, 96.992
1.43151, -1, -13.9118, 6.84582, 19.0126, -153.38, -95.1494, 96.7037
1.43956, -1, -14.0702, 6.80308, 19.023, -153.429, -95.1316, 96.4151
1.4475, -1, -14.2284, 6.76045, 19.0337, -153.479, -95.1139, 96.1261
1.45551, -1, -14.3866, 6.71778, 19.0442, -153.528, -95.0964, 95.837
1.46363, -1, -14.5449, 6.67504, 19.0547, -153.577, -95.0792, 95.548
1.47151, -1, -14.7035, 6.63248, 19.0653, -153.627, -95.0619, 95.2588
1.47952, -1, -14.8625, 6.58995, 19.0759, -153.677, -95.0447, 94.9693
1.48751, -1, -15.0219, 6.54724, 19.0866, -153.726, -95.0273, 94.6801
1.49551, -1, -15.1816, 6.50464, 19.0974, -153.776, -95.0095, 94.3911
1.50361, -1, -15.3417, 6.46206, 19.1081, -153.826, -94.9915, 94.1019
1.51152, -1, -15.5022, 6.41934, 19.1188, -153.875, -94.9736, 93.8124
1.51951, -1, -15.6629, 6.37665, 19.1293, -153.925, -94.9559, 93.5232
1.52852, -1, -15.8236, 6.33387, 19.1399, -153.975, -94.9386, 93.2338
1.5355, -1, -15.9844, 6.29097, 19.1506, -154.024, -94.9214, 92.9442
1.54351, -1, -16.1453, 6.24811, 19.1612, -154.074, -94.9043, 92.6544
1.55157, -1, -16.306, 6.2052, 19.1718, -154.124, -94.887, 92.365
1.55952, -1, -16.4665, 6.16217, 19.1822, -154.173, -94.8695, 92.0754
1.56751, -1, -16.6269, 6.11921, 19.1928, -154.223, -94.8517, 91.7851
1.57556, -1, -16.7867, 6.07624, 19.2035, -154.273, -94.8337, 91.495
1.58352, -1, -16.9461, 6.03323, 19.2142, -154.322, -94.8161, 91.2051
1.59151, -1, -17.1055, 5.99024, 19.2248, -154.372, -94.7985, 90.9149
1.59958, -1, -17.2646, 5.94729, 19.2354, -154.422, -94.7813, 90.6246
1.60751, -1, -17.4237, 5.90447, 19.246, -154.472, -94.764, 90.3341
1.61555, -1, -17.583, 5.86165, 19.2567, -154.522, -94.7465, 90.044
1.62354, -1, -17.7423, 5.81882, 19.2674, -154.571, -94.7289, 89.7538
1.63154, -1, -17.9019, 5.77602, 19.2781, -154.621, -94.711, 89.4633
1.63958, -1, -18.062, 5.73321, 19.2887, -154.671, -94.6929, 89.1728
1.6475, -1, -18.2225, 5.69041, 19.2993, -154.721, -94.675, 88.8824
1.6555, -1, -18.3833, 5.64761, 19.3101, -154.771, -94.6573, 88.5916
1.66358, -1, -18.5448, 5.60467, 19.3208, -154.821, -94.6399, 88.3005
1.67154, -1, -18.7063, 5.56169, 19.3315, -154.871, -94.6226, 88.0098
1.67952, -1, -18.8679, 5.51875, 19.3422, -154.921, -94.6053, 87.7188
1.68757, -1, -19.0296, 5.47569, 19.3527, -154.971, -94.5878, 87.4276
1.69552, -1, -19.1912, 5.43248, 19.3633, -155.02, -94.57, 87.136
1.7035, -1, -19.3526, 5.38934, 19.374, -155.071, -94.5519, 86.8447
1.71159, -1, -19.5139, 5.34615, 19.3846, -155.12, -94.5339, 86.553
1.71963, -1, -19.6749, 5.30291, 19.3952, -155.17, -94.5161, 86.2614
1.72767, -1, -19.8356, 5.25977, 19.4059, -155.221, -94.4986, 85.9695
1.73559, -1, -19.9961, 5.2166, 19.4166, -155.27, -94.4812, 85.6782
1.7436, -1, -20.1561, 5.17347, 19.4274, -155.32, -94.4638, 85.3867
1.75205, -1, -20.3159, 5.13048, 19.4382, -155.371, -94.4462, 85.0949
1.75969, -1, -20.4758, 5.08745, 19.4491, -155.42, -94.4283, 84.803
1.76752, -1, -20.6359, 5.04438, 19.4598, -155.471, -94.4102, 84.5114
1.77639, -1, -20.7962, 5.00148, 19.4705, -155.521, -94.3922, 84.2194
1.78354, -1, -20.9569, 4.95851, 19.4813, -155.571, -94.3745, 83.9272
1.79154, -1, -21.118, 4.91539, 19.4919, -155.621, -94.357, 83.635
1.80058, -1, -21.2794, 4.87228, 19.5026, -155.671, -94.3397, 83.3432
1.80769, -1, -21.4413, 4.82908, 19.5132, -155.721, -94.3225, 83.0509
1.81581, -1, -21.6035, 4.78579, 19.5239, -155.772, -94.3051, 82.7582
1.82463, -1, -21.7658, 4.74257, 19.5347, -155.822, -94.2875, 82.4656
1.83185, -1, -21.9282, 4.69921, 19.5454, -155.872, -94.2695, 82.1731
1.84027, -1, -22.0906, 4.6558, 19.5563, -155.922, -94.2515, 81.8803
1.84882, -1, -22.2532, 4.61245, 19.567, -155.973, -94.2337, 81.5873
1.85608, -1, -22.4155, 4.56899, 19.5777, -156.023, -94.2161, 81.2946
1.8641, -1, -22.5776, 4.52557, 19.5884, -156.073, -94.1986, 81.0021
1.87298, -1, -22.7394, 4.48214, 19.5991, -156.123, -94.1812, 80.7092
1.88016, -1, -22.9007, 4.43867, 19.6098, -156.173, -94.1636, 80.416
1.88812, -1, -22.9813, 4.39538, 19.6205, -156.224, -94.1457, 80.1231
1.89693, -1, -23.1425, 4.37372, 19.6258, -156.249, -94.1367, 79.9767
1.90351, -1, -23.3034, 4.33035, 19.6366, -156.299, -94.1184, 79.6834
1.91155, -1, -23.4643, 4.28707, 19.6475, -156.35, -94.1002, 79.3898
1.91956, -1, -23.6253, 4.24377, 19.6583, -156.4, -94.0823, 79.0964
1.92749, -1, -23.7864, 4.20048, 19.6691, -156.45, -94.0646, 78.8031
1.93555, -1, -23.9476, 4.1572, 19.6798, -156.501, -94.0471, 78.5094
1.9435, -1, -24.1092, 4.11379, 19.6905, -156.551, -94.0298, 78.2154
1.95154, -1, -24.2714, 4.07038, 19.7013, -156.601, -94.0122, 77.9217
1.95956, -1, -24.434, 4.02696, 19.712, -156.652, -93.9944, 77.6276
1.96754, -1, -24.5969, 3.98343, 19.7227, -156.702, -93.9762, 77.3333
1.97555, -1, -24.7602, 3.93982, 19.7333, -156.753, -93.9581, 77.0391
1.98349, -1, -24.9236, 3.89626, 19.7441, -156.803, -93.9402, 76.7452
1.9915, -1, -25.087, 3.85273, 19.755, -156.853, -93.9226, 76.4511
1.99961, -1, -25.2503, 3.80914, 19.7659, -156.904, -93.9051, 76.1567
2.00749, -1, -25.4134, 3.76553, 19.7768, -156.955, -93.8877, 75.8623
2.01553, -1, -25.5763, 3.72187, 19.7875, -157.005, -93.87, 75.5682
2.02449, -1, -25.739, 3.67825, 19.7982, -157.055, -93.852, 75.2737
2.03151, -1, -25.9015, 3.63477, 19.8091, -157.106, -93.8337, 74.9788
2.04051, -1, -26.0637, 3.59122, 19.8198, -157.156, -93.8153, 74.6842
2.04755, -1, -26.2255, 3.54776, 19.8306, -157.207, -93.7972, 74.3896
2.0555, -1, -26.387, 3.50441, 19.8414, -157.258, -93.7794, 74.0947
2.0635, -1, -26.5486, 3.46092, 19.8521, -157.308, -93.7617, 73.7995
2.07153, -1, -26.7105, 3.41743, 19.863, -157.359, -93.7442, 73.5044
2.07954, -1, -26.8728, 3.37393, 19.8739, -157.409, -93.7264, 73.2092
2.08878, -1, -27.0353, 3.33034, 19.8847, -157.46, -93.7085, 72.9139
2.09552, -1, -27.1982, 3.28673, 19.8955, -157.511, -93.6903, 72.6183
2.10355, -1, -27.3615, 3.24313, 19.9062, -157.561, -93.6719, 72.3231
2.11149, -1, -27.5252, 3.19931, 19.917, -157.611, -93.6539, 72.0277
2.11955, -1, -27.689, 3.15558, 19.9279, -157.663, -93.636, 71.7321
2.12756, -1, -27.853, 3.11196, 19.9386, -157.713, -93.6182, 71.4363
2.13553, -1, -28.0172, 3.0682, 19.9494, -157.764, -93.6006, 71.1407
2.14349, -1, -28.1815, 3.02448, 19.9602, -157.815, -93.5828, 70.845
2.15155, -1, -28.3458, 2.98078, 19.971, -157.865, -93.5647, 70.5489
2.15955, -1, -28.5098, 2.93703, 19.982, -157.916, -93.5463, 70.2528
2.1675, -1, -28.6736, 2.89337, 19.9929, -157.967, -93.5278, 69.957
2.17562, -1, -28.8371, 2.84962, 20.0037, -158.017, -93.5096, 69.6607
2.18351, -1, -29.0001, 2.80587, 20.0144, -158.068, -93.4917, 69.3642
2.19149, -1, -29.1629, 2.7622, 20.0252, -158.119, -93.474, 69.0677
2.19964, -1, -29.3256, 2.71847, 20.036, -158.17, -93.4563, 68.771
2.20749, -1, -29.4882, 2.67477, 20.0469, -158.221, -93.4386, 68.4742
2.21552, -1, -29.651, 2.63099, 20.0577, -158.272, -93.4206, 68.1772
2.22362, -1, -29.8141, 2.58715, 20.0685, -158.323, -93.4023, 67.8806
2.23158, -1, -29.9772, 2.54337, 20.0795, -158.374, -93.3839, 67.5839
2.23966, -1, -30.1405, 2.49943, 20.0905, -158.425, -93.3656, 67.2868
2.24765, -1, -30.3043, 2.45542, 20.1014, -158.476, -93.3477, 66.9898
2.25559, -1, -30.4686, 2.4115, 20.1124, -158.527, -93.3299, 66.6928
2.26359, -1, -30.6334, 2.36744, 20.1232, -158.578, -93.3121, 66.3956
2.27169, -1, -30.7984, 2.32345, 20.134, -158.629, -93.2943, 66.0981
2.27956, -1, -30.9635, 2.27951, 20.1449, -158.68, -93.2763, 65.8008
2.28752, -1, -31.1285, 2.23543, 20.1558, -158.731, -93.2578, 65.5036
2.29578, -1, -31.2936, 2.1915, 20.1666, -158.782, -93.2394, 65.2062
2.3036, -1, -31.4585, 2.14762, 20.1775, -158.833, -93.221, 64.9083
2.31172, -1, -31.6232, 2.10357, 20.1883, -158.884, -93.203, 64.6105
2.31984, -1, -31.7878, 2.05958, 20.1993, -158.935, -93.1852, 64.3127
2.32777, -1, -31.952, 2.01566, 20.2102, -158.987, -93.1677, 64.0146
2.33587, -1, -32.116, 1.97163, 20.2212, -159.037, -93.15, 63.7164
2.34424, -1, -32.2796, 1.9276, 20.2321, -159.089, -93.1321, 63.4186
2.35202, -1, -32.4431, 1.88354, 20.243, -159.14, -93.1139, 63.1206
2.36019, -1, -32.6067, 1.83938, 20.254, -159.191, -93.0955, 62.8223
2.36887, -1, -32.7706, 1.7953, 20.2649, -159.243, -93.0773, 62.524
2.37604, -1, -32.9346, 1.75117, 20.2759, -159.294, -93.0593, 62.2257
2.38411, -1, -33.0989, 1.70686, 20.2868, -159.345, -93.0413, 61.9272
2.39303, -1, -33.1812, 1.68475, 20.2922, -159.371, -93.0235, 61.6283
2.4001, -1, -33.346, 1.64062, 20.3031, -159.422, -93.0146, 61.3298
2.40808, -1, -33.5112, 1.59635, 20.3141, -159.473, -92.9967, 61.1805
2.41548, -1, -33.6769, 1.55207, 20.3251, -159.524, -92.9784, 60.8818
2.42348, -1, -33.8427, 1.50785, 20.336, -159.575, -92.9598, 60.5827
2.43154, -1, -34.0086, 1.46363, 20.3469, -159.626, -92.9411, 60.2836
2.43952, -1, -34.1746, 1.41949, 20.3578, -159.678, -92.9227, 59.9845
2.44749, -1, -34.3406, 1.3753, 20.3688, -159.729, -92.9047, 59.685
2.45551, -1, -34.5067, 1.33106, 20.3797, -159.781, -92.8869, 59.3853
2.46348, -1, -34.6724, 1.28688, 20.3907, -159.833, -92.8692, 59.086
2.47164, -1, -34.8376, 1.24267, 20.4016, -159.883, -92.8512, 58.7867
2.47959, -1, -35.0027, 1.19841, 20.4126, -159.935, -92.833, 58.4871
2.48749, -1, -35.1674, 1.15408, 20.4237, -159.987, -92.8145, 58.1873
2.49548, -1, -35.332, 1.10974, 20.4348, -160.038, -92.7959, 57.8875
2.50352, -1, -35.496, 1.06557, 20.446, -160.089, -92.7776, 57.5878
2.5115, -1, -35.6582, 1.02172, 20.4572, -160.141, -92.7595, 57.2879
2.51958, -1, -35.8177, 0.978486, 20.4688, -160.191, -92.7416, 56.9893
2.52752, -1, -35.9732, 0.936384, 20.4807, -160.242, -92.7239, 56.6942
2.53729, -1, -36.1235, 0.895931, 20.4926, -160.291, -92.7064, 56.405
2.54348, -1, -36.2662, 0.857695, 20.5045, -160.339, -92.6892, 56.1262
2.55153, -1, -36.3992, 0.822403, 20.5161, -160.384, -92.6728, 55.8638
2.55954, -1, -36.521, 0.790149, 20.5267, -160.424, -92.6576, 55.6242
2.56748, -1, -36.6299, 0.761352, 20.536, -160.46, -92.6444, 55.413
2.57556, -1, -36.7245, 0.73629, 20.5433, -160.49, -92.6334, 55.235
2.58349, -1, -36.8044, 0.715072, 20.5484, -160.514, -92.6246, 55.0921
2.59149, -1, -36.8706, 0.697633, 20.5513, -160.533, -92.6183, 54.9839
2.5996, -1, -36.9236, 0.683633, 20.5526, -160.546, -92.6139, 54.9076
2.60749, -1, -36.9639, 0.672783, 20.553, -160.555, -92.611, 54.8563
2.61548, -1, -36.9934, 0.665038, 20.5527, -160.561, -92.6093, 54.825
2.62352, -1, -37.0136, 0.659978, 20.5523, -160.564, -92.6084, 54.8073
2.63151, -1, -37.026, 0.657, 20.552, -160.566, -92.6079, 54.7983
2.63958, -1, -37.0325, 0.655398, 20.5518, -160.567, -92.6077, 54.794
2.64751, 2, -37.0347, 0.654687, 20.5518, -160.567, -92.6076, 54.792
2.65549, 2, -37.0345, 0.654371, 20.5517, -160.567, -92.6076, 54.7912
2.66348, 2, -37.0338, 0.654223, 20.5517, -160.568, -92.6075, 54.7908
2.67154, 2, -37.0336, 0.654159, 20.5517, -160.568, -92.6076, 54.7906
2.67956, 2, -37.0339, 0.654118, 20.5516, -160.568, -92.6076, 54.7906
2.68749, 2, -37.035, 0.654078, 20.5516, -160.568, -92.6076, 54.7905
2.69552, 2, -37.0361, 0.653988, 20.5514, -160.568, -92.6076, 54.7905
2.70351, 2, -37.0376, 0.653795, 20.5512, -160.568, -92.6076, 54.7905
2.71149, 2, -37.039, 0.653543, 20.551, -160.568, -92.6076, 54.7906
2.71961, 2, -37.0401, 0.653274, 20.5509, -160.568, -92.6077, 54.7906
2.72761, 2, -37.0412, 0.65302, 20.5507, -160.568, -92.6077, 54.7907
2.73557, 2, -37.0416, 0.652903, 20.5505, -160.568, -92.6077, 54.7908
2.74365, 2, -37.0416, 0.652856, 20.5503, -160.568, -92.6078, 54.7909
2.75161, 2, -37.0412, 0.65286, 20.5502, -160.568, -92.6078, 54.791
2.75962, 2, -37.0403, 0.65288, 20.5501, -160.568, -92.6078, 54.7911
2.76764, 2, -37.0393, 0.652918, 20.55, -160.568, -92.6079, 54.7912
2.7755, 2, -37.0377, 0.652973, 20.55, -160.568, -92.6079, 54.7914
2.7835, 2, -37.0363, 0.653037, 20.5499, -160.568, -92.608, 54.7915
2.79158, 2, -37.0352, 0.653063, 20.5498, -160.568, -92.6081, 54.7917
2.79995, 2, -37.0346, 0.653071, 20.5497, -160.568, -92.6081, 54.7918
2.8076, 2, -37.0344, 0.653063, 20.5497, -160.568, -92.6081, 54.7918
2.81571, 2, -37.0345, 0.653026, 20.5497, -160.567, -92.6081, 54.7918
2.82411, 2, -37.0348, 0.652974, 20.5497, -160.567, -92.6081, 54.7919
2.83177, 2, -37.035, 0.652939, 20.5497, -160.567, -92.6081, 54.792
2.83994, 2, -37.0356, 0.652896, 20.5497, -160.567, -92.6081, 54.792
2.84836, 2, -37.0363, 0.652891, 20.5496, -160.567, -92.6081, 54.792
2.856, 2, -37.0371, 0.652894, 20.5496, -160.567, -92.6081, 54.7921
2.86406, 2, -37.0378, 0.652895, 20.5496, -160.567, -92.6081, 54.7921
2.87249, 2, -37.0382, 0.652895, 20.5496, -160.567, -92.6081, 54.7921
2.88007, 2, -37.0384, 0.652914, 20.5496, -160.567, -92.6081, 54.7921
2.88806, 2, -37.0384, 0.652933, 20.5496, -160.567, -92.6081, 54.7921
2.89638, 2, -37.0383, 0.65295, 20.5496, -160.567, -92.6082, 54.7922
2.90346, 2, -37.0382, 0.652954, 20.5496, -160.567, -92.6082, 54.7922
2.91155, 2, -37.0377, 0.65293, 20.5496, -160.567, -92.6082, 54.7922
2.92045, 2, -37.0373, 0.652917, 20.5496, -160.567, -92.6082, 54.7924
2.92746, 2, -37.0372, 0.652921, 20.5496, -160.567, -92.6081, 54.7924
2.9355, 2, -37.037, 0.652908, 20.5496, -160.567, -92.6081, 54.7925
2.94348, 2, -37.037, 0.652889, 20.5496, -160.567, -92.6081, 54.7925
2.95148, 2, -37.037, 0.652893, 20.5496, -160.567, -92.6082, 54.7925
2.95955, 2, -37.037, 0.652894, 20.5495, -160.567, -92.6082, 54.7925
2.96747, 2, -37.0371, 0.652895, 20.5495, -160.567, -92.6082, 54.7926
2.97549, 2, -37.0371, 0.652914, 20.5495, -160.567, -92.6082, 54.7927
2.98356, 2, -37.0373, 0.652904, 20.5495, -160.567, -92.6082, 54.7927
2.99149, 2, -37.0375, 0.6529, 20.5494, -160.567, -92.6082, 54.7928
2.99952, 2, -37.0376, 0.652898, 20.5494, -160.567, -92.6082, 54.7928
3.00751, 2, -37.0377, 0.652915, 20.5494, -160.567, -92.6082, 54.7929
3.01547, 2, -37.0378, 0.652916, 20.5495, -160.567, -92.6082, 54.7929
3.02348, 2, -37.0378, 0.652923, 20.5495, -160.567, -92.6083, 54.7929
3.03246, 2, -37.0377, 0.652916, 20.5494, -160.567, -92.6082, 54.793
3.03955, 2, -37.0377, 0.652905, 20.5494, -160.567, -92.6083, 54.7931
3.04746, 2, -37.0377, 0.6529, 20.5494, -160.567, -92.6083, 54.7931
3.0555, 2, -37.0377, 0.652898, 20.5494, -160.567, -92.6083, 54.7931
3.06348, 2, -37.0377, 0.652908, 20.5494, -160.567, -92.6083, 54.7932
3.07148, 2, -37.0376, 0.652909, 20.5494, -160.567, -92.6084, 54.7932
3.07961, 2, -37.0376, 0.652902, 20.5494, -160.567, -92.6083, 54.7933
3.08747, 2, -37.0376, 0.652928, 20.5493, -160.567, -92.6084, 54.7933
3.09546, 2, -37.0376, 0.652936, 20.5493, -160.567, -92.6084, 54.7934
3.1035, 2, -37.0376, 0.652933, 20.5493, -160.567, -92.6084, 54.7934
3.11149, 2, -37.0376, 0.652913, 20.5493, -160.567, -92.6084, 54.7934
3.11951, 2, -37.0376, 0.652922, 20.5493, -160.567, -92.6084, 54.7935
3.12751, 2, -37.0376, 0.652908, 20.5493, -160.567, -92.6084, 54.7936
3.13548, 2, -37.0376, 0.652901, 20.5493, -160.567, -92.6084, 54.7936
3.14349, 2, -37.0376, 0.652898, 20.5493, -160.567, -92.6084, 54.7937
3.15152, 2, -37.0376, 0.652897, 20.5493, -160.567, -92.6084, 54.7937
3.15954, 2, -37.0376, 0.652896, 20.5493, -160.567, -92.6084, 54.7937
3.16747, 2, -37.0375, 0.652896, 20.5493, -160.567, -92.6084, 54.7938
3.17551, 2, -37.0375, 0.652896, 20.5493, -160.567, -92.6084, 54.7938
3.18348, 2, -37.0375, 0.652896, 20.5493, -160.567, -92.6084, 54.7938
3.19149, 2, -37.0375, 0.652896, 20.5492, -160.567, -92.6084, 54.7939
3.19956, 2, -37.0375, 0.652925, 20.5492, -160.567, -92.6084, 54.7939
3.2075, 2, -37.0375, 0.652935, 20.5492, -160.567, -92.6084, 54.794
3.21545, 2, -37.0375, 0.652914, 20.5492, -160.567, -92.6084, 54.794
3.22354, 2, -37.0374, 0.652922, 20.5492, -160.567, -92.6084, 54.794
3.23157, 2, -37.0374, 0.652919, 20.5492, -160.567, -92.6084, 54.7941
3.23965, 2, -37.0374, 0.652914, 20.5492, -160.567, -92.6084, 54.7941
3.24764, 2, -37.0374, 0.652922, 20.5492, -160.567, -92.6084, 54.7942
3.25558, 2, -37.0374, 0.652908, 20.5492, -160.567, -92.6085, 54.7942
3.26357, 2, -37.0374, 0.65292, 20.5492, -160.567, -92.6084, 54.7942
3.27163, 2, -37.0374, 0.652907, 20.5491, -160.567, -92.6084, 54.7942
3.27959, 2, -37.0374, 0.652912, 20.5491, -160.567, -92.6085, 54.7943
3.28748, 2, -37.0373, 0.652911, 20.5491, -160.567, -92.6085, 54.7943
3.29554, 2, -37.0373, 0.652921, 20.5491, -160.567, -92.6085, 54.7943
3.30365, 2, -37.0373, 0.652918, 20.5491, -160.567, -92.6085, 54.7943
3.31192, 2, -37.0373, 0.652943, 20.5491, -160.567, -92.6084, 54.7944
3.31975, 2, -37.0372, 0.652936, 20.5491, -160.567, -92.6085, 54.7944
3.32774, 2, -37.0372, 0.65294, 20.5491, -160.567, -92.6085, 54.7944
3.33584, 2, -37.0372, 0.652939, 20.5491, -160.567, -92.6085, 54.7945
3.34387, 2, -37.0372, 0.652952, 20.5491, -160.567, -92.6085, 54.7945
3.35192, 2, -37.0372, 0.652959, 20.5491, -160.567, -92.6085, 54.7945
3.36036, 2, -37.0371, 0.652943, 20.5491, -160.567, -92.6085, 54.7945
3.36809, 2, -37.0371, 0.652936, 20.5491, -160.567, -92.6085, 54.7945
3.37601, 2, -37.0371, 0.652922, 20.549, -160.567, -92.6085, 54.7945
3.38407, 2, -37.0371, 0.652937, 20.549, -160.567, -92.6085, 54.7945
3.39207, 2, -37.0371, 0.652933, 20.549, -160.567, -92.6085, 54.7945
3.40009, 2, -37.0371, 0.652943, 20.549, -160.567, -92.6085, 54.7946
3.40745, 2, -37.0371, 0.652936, 20.549, -160.567, -92.6085, 54.7946
3.41551, 2, -37.0371, 0.652922, 20.549, -160.567, -92.6085, 54.7947
3.42345, 2, -37.0371, 0.652926, 20.549, -160.567, -92.6086, 54.7947
3.43147, 2, -37.037, 0.652939, 20.549, -160.567, -92.6085, 54.7947
3.43952, 2, -37.037, 0.652941, 20.549, -160.567, -92.6085, 54.7947
3.44746, 2, -37.037, 0.652946, 20.5489, -160.567, -92.6085, 54.7947
3.45545, 2, -37.037, 0.652956, 20.5489, -160.567, -92.6085, 54.7947
3.46349, 2, -37.037, 0.652967, 20.5489, -160.567, -92.6085, 54.7947
3.47147, 2, -37.037, 0.652952, 20.5489, -160.567, -92.6086, 54.7947
3.47955, 2, -37.037, 0.652947, 20.5489, -160.566, -92.6085, 54.7948
3.48748, 2, -37.037, 0.652949, 20.5489, -160.566, -92.6085, 54.7948
3.49546, 2, -37.037, 0.652928, 20.5489, -160.566, -92.6085, 54.7948
3.50345, 2, -37.037, 0.652921, 20.5489, -160.566, -92.6085, 54.7949
3.51151, 2, -37.0369, 0.652946, 20.5489, -160.566, -92.6086, 54.7949
3.51953, 2, -37.0369, 0.652948, 20.5488, -160.566, -92.6086, 54.7949
3.52747, 2, -37.0369, 0.652964, 20.5488, -160.566, -92.6085, 54.7949
3.53646, 2, -37.0369, 0.652969, 20.5488, -160.566, -92.6085, 54.795
3.54347, 2, -37.0369, 0.652966, 20.5488, -160.566, -92.6086, 54.795
3.55146, 2, -37.0369, 0.652965, 20.5488, -160.566, -92.6085, 54.795
3.55956, 2, -37.0368, 0.652953, 20.5488, -160.566, -92.6085, 54.795
3.56746, 2, -37.0368, 0.652922, 20.5488, -160.566, -92.6086, 54.795
3.57545, 2, -37.0368, 0.652937, 20.5488, -160.566, -92.6086, 54.795
3.58352, 2, -37.0368, 0.652952, 20.5488, -160.566, -92.6085, 54.795
3.59147, 2, -37.0368, 0.652959, 20.5488, -160.566, -92.6085, 54.795
3.59951, 2, -37.0368, 0.652936, 20.5488, -160.566, -92.6085, 54.795
3.60749, 2, -37.0368, 0.652951, 20.5487, -160.566, -92.6086, 54.795
3.61545, 2, -37.0368, 0.652958, 20.5487, -160.566, -92.6086, 54.795
3.62346, 2, -37.0368, 0.65295, 20.5487, -160.566, -92.6086, 54.795
3.63151, 2, -37.0367, 0.652962, 20.5487, -160.566, -92.6086, 54.795
3.63952, 2, -37.0367, 0.652952, 20.5487, -160.566, -92.6086, 54.795
3.64874, 2, -37.0367, 0.652971, 20.5487, -160.566, -92.6086, 54.7951
3.65549, 2, -37.0367, 0.652972, 20.5487, -160.566, -92.6086, 54.795
3.66346, 2, -37.0367, 0.652967, 20.5487, -160.566, -92.6086, 54.7951
3.67146, 2, -37.0366, 0.652965, 20.5487, -160.566, -92.6087, 54.7951
3.67954, 2, -37.0366, 0.652966, 20.5487, -160.566, -92.6086, 54.7951
3.68745, 2, -37.0366, 0.652964, 20.5487, -160.566, -92.6086, 54.7951
3.69546, 2, -37.0367, 0.652969, 20.5487, -160.566, -92.6086, 54.7951
3.70366, 2, -37.0366, 0.652973, 20.5487, -160.566, -92.6086, 54.7951
3.71149, 2, -37.0366, 0.652985, 20.5487, -160.566, -92.6086, 54.7951
3.71951, 2, -37.0365, 0.652974, 20.5486, -160.566, -92.6086, 54.7951
3.7275, 4, -37.0365, 0.65298, 20.5486, -160.566, -92.6086, 54.7952
3.73555, 4, -37.0366, 0.652971, 20.5486, -160.566, -92.6086, 54.7952
3.74353, 4, -37.0366, 0.652974, 20.5486, -160.566, -92.6085, 54.7951
3.75163, 4, -37.0365, 0.652993, 20.5486, -160.566, -92.6086, 54.7951
3.75962, 4, -37.0365, 0.652994, 20.5486, -160.566, -92.6086, 54.7951
3.76755, 4, -37.0365, 0.652978, 20.5486, -160.566, -92.6086, 54.7951
3.77561, 4, -37.0365, 0.652977, 20.5486, -160.566, -92.6087, 54.7951
3.78347, 4, -37.0365, 0.652982, 20.5486, -160.566, -92.6087, 54.7951
3.79155, 4, -37.0364, 0.652977, 20.5486, -160.566, -92.6086, 54.7951
3.79959, 4, -37.0364, 0.65297, 20.5486, -160.566, -92.6087, 54.7952
3.80757, 4, -37.0364, 0.652955, 20.5486, -160.566, -92.6086, 54.7952
3.81595, 4, -37.0364, 0.652965, 20.5485, -160.566, -92.6087, 54.7952
3.82368, 4, -37.0364, 0.652964, 20.5485, -160.566, -92.6087, 54.7952
3.83207, 4, -37.0363, 0.652971, 20.5485, -160.566, -92.6087, 54.7952
3.85335, 4, -37.0363, 0.653015, 20.5485, -160.566, -92.6086, 54.7952
3.85571, 4, -37.0363, 0.653015, 20.5485, -160.566, -92.6086, 54.7952
3.85779, 4, -37.0363, 0.653016, 20.5485, -160.566, -92.6086, 54.7952
3.86682, 4, -37.0363, 0.652988, 20.5485, -160.566, -92.6087, 54.7952
3.87216, 4, -37.0363, 0.652987, 20.5485, -160.566, -92.6087, 54.7952
3.88006, 4, -37.0355, 0.65286, 20.5485, -160.566, -92.6087, 54.7952
3.88804, 4, -37.033, 0.651944, 20.5487, -160.566, -92.6087, 54.7952
3.89609, 4, -37.0306, 0.649073, 20.5495, -160.566, -92.6087, 54.7952
3.90396, 4, -37.023, 0.646525, 20.5504, -160.566, -92.6087, 54.7952
3.91144, 4, -37.0115, 0.638783, 20.5542, -160.566, -92.6087, 54.7952
3.92047, 4, -36.9959, 0.619851, 20.567, -160.563, -92.6088, 54.7952
3.92741, 5, -36.9749, 0.611267, 20.5739, -160.562, -92.6087, 54.7952
3.93543, 5, -36.9483, 0.590892, 20.5926, -160.558, -92.6086, 54.7951
3.94363, 5, -36.9166, 0.566006, 20.618, -160.553, -92.6083, 54.7951
3.95294, 5, -36.8802, 0.520314, 20.6689, -160.542, -92.6073, 54.7951
3.9595, 5, -36.8389, 0.502732, 20.6889, -160.538, -92.6067, 54.7951
3.96923, 5, -36.7672, 0.443001, 20.7567, -160.522, -92.6046, 54.795
3.97676, 5, -36.7408, 0.398043, 20.8069, -160.511, -92.6029, 54.795
3.98354, 5, -36.6845, 0.37426, 20.833, -160.505, -92.602, 54.795
3.99306, 5, -36.5926, 0.299083, 20.9142, -160.487, -92.5993, 54.795
3.99963, 5, -36.5601, 0.272982, 20.9418, -160.481, -92.5984, 54.795
4.00747, 5, -36.4934, 0.219853, 20.9972, -160.468, -92.5965, 54.795
4.01825, 5, -36.3914, 0.139197, 21.0805, -160.45, -92.5936, 54.795
4.02366, 5, -36.3571, 0.112193, 21.1083, -160.444, -92.5925, 54.795
4.03146, 5, -36.2884, 0.058143, 21.1639, -160.432, -92.5905, 54.795
4.04043, 5, -36.2195, 0.00424862, 21.2195, -160.42, -92.5885, 54.7951
4.04765, 5, -36.1508, -0.049447, 21.275, -160.408, -92.5865, 54.7951
4.0554, 5, -36.0822, -0.102897, 21.3306, -160.396, -92.5845, 54.7952
4.06343, 5, -36.0136, -0.156075, 21.3859, -160.383, -92.5824, 54.7955
4.07151, 5, -35.945, -0.209072, 21.4412, -160.37, -92.5803, 54.7959
4.07948, 5, -35.8764, -0.26188, 21.4965, -160.357, -92.5781, 54.7964
4.08742, 5, -35.8077, -0.314541, 21.5517, -160.345, -92.576, 54.7971
4.09553, 5, -35.7387, -0.367263, 21.6068, -160.332, -92.574, 54.7981
4.10441, 5, -35.6695, -0.419989, 21.6617, -160.319, -92.5719, 54.7991
4.11243, 5, -35.6, -0.472781, 21.7163, -160.307, -92.5697, 54.8003
4.12194, 5, -35.5302, -0.552082, 21.798, -160.288, -92.5665, 54.8025
4.12756, 5, -35.4602, -0.57852, 21.8252, -160.282, -92.5654, 54.8033
4.13564, 5, -35.3899, -0.631386, 21.8793, -160.269, -92.5632, 54.8049
4.14342, 5, -35.3195, -0.68424, 21.9334, -160.256, -92.5611, 54.8067
4.15327, 5, -35.2489, -0.737019, 21.9874, -160.243, -92.5589, 54.8086
4.16043, 5, -35.1784, -0.789471, 22.0412, -160.229, -92.5567, 54.8107
4.16743, 5, -35.1078, -0.841768, 22.095, -160.216, -92.5544, 54.8128
4.17558, 5, -35.0373, -0.893959, 22.1487, -160.203, -92.5521, 54.8151
4.18352, 5, -34.9667, -0.945785, 22.2022, -160.19, -92.5499, 54.8175
4.19144, 5, -34.8963, -0.997444, 22.2556, -160.177, -92.5476, 54.8202
4.19977, 5, -34.8257, -1.04893, 22.309, -160.164, -92.5453, 54.8229
4.20847, 5, -34.7553, -1.10037, 22.3621, -160.151, -92.543, 54.8256
4.21544, 5, -34.6846, -1.15179, 22.415, -160.138, -92.5406, 54.8285
4.22351, 5, -34.6138, -1.20313, 22.4678, -160.125, -92.5383, 54.8315
4.23147, 5, -34.5428, -1.25456, 22.5203, -160.112, -92.536, 54.8345
4.23957, 5, -34.4717, -1.30596, 22.5727, -160.099, -92.5336, 54.8378
4.24778, 5, -34.4002, -1.35736, 22.625, -160.085, -92.5312, 54.8411
4.25593, 5, -34.3287, -1.40875, 22.6772, -160.071, -92.5289, 54.8444
4.2636, 5, -34.2571, -1.46003, 22.7292, -160.057, -92.5265, 54.8479
4.27169, 5, -34.1852, -1.51113, 22.7811, -160.044, -92.5242, 54.8517
4.28039, 5, -34.1132, -1.56201, 22.8329, -160.03, -92.5217, 54.8554
4.28756, 5, -34.0411, -1.61274, 22.8845, -160.017, -92.5193, 54.8593
4.29633, 5, -33.969, -1.66316, 22.9361, -160.003, -92.5169, 54.8634
4.30537, 5, -33.8968, -1.71338, 22.9875, -159.99, -92.5145, 54.8675
4.31346, 5, -33.8247, -1.76348, 23.0388, -159.976, -92.5121, 54.8717
4.32257, 5, -33.7525, -1.81347, 23.0898, -159.962, -92.5097, 54.8759
4.32818, 5, -33.6802, -1.86339, 23.1408, -159.948, -92.5074, 54.8801
4.3367, 5, -33.6079, -1.91325, 23.1915, -159.933, -92.5051, 54.8844
4.34376, 5, -33.5353, -1.9633, 23.2421, -159.919, -92.5028, 54.8888
4.3519, 5, -33.4624, -2.01359, 23.2926, -159.905, -92.5004, 54.8928
4.36087, 5, -33.3894, -2.06416, 23.343, -159.891, -92.4982, 54.896
4.36796, 5, -33.3168, -2.11515, 23.3933, -159.877, -92.4959, 54.8977
4.37857, 6, -33.2443, -2.16666, 23.4438, -159.863, -92.4935, 54.8979
4.38477, 6, -33.1722, -2.219, 23.4944, -159.848, -92.4908, 54.8961
4.39204, 6, -33.1004, -2.27223, 23.5456, -159.833, -92.4876, 54.8907
4.4, 6, -33.0648, -2.29916, 23.5714, -159.825, -92.4835, 54.8795
4.40742, 7, -32.9938, -2.35394, 23.6239, -159.807, -92.4809, 54.8724
4.41546, 7, -32.9232, -2.40981, 23.6775, -159.789, -92.4746, 54.8559
4.42518, 7, -32.8532, -2.4671, 23.7325, -159.769, -92.4663, 54.8283
4.4314, 7, -32.7837, -2.52591, 23.7891, -159.748, -92.4559, 54.8192
4.43939, 7, -32.7148, -2.58635, 23.8471, -159.725, -92.4434, 54.8013
4.44745, 8, -32.6467, -2.64842, 23.9066, -159.702, -92.429, 54.7841
4.45543, 8, -32.5794, -2.71226, 23.9674, -159.677, -92.4125, 54.767
4.46343, 8, -32.5127, -2.77784, 24.0292, -159.65, -92.3941, 54.7494
4.47162, 8, -32.4468, -2.84503, 24.0921, -159.623, -92.374, 54.7308
4.48087, 8, -32.3816, -2.94861, 24.1883, -159.581, -92.3414, 54.6998
4.48748, 9, -32.317, -2.98379, 24.2209, -159.567, -92.33, 54.6886
4.49717, 9, -32.2211, -3.09132, 24.3202, -159.521, -92.2941, 54.6524
4.50698, 9, -32.1579, -3.16464, 24.3875, -159.489, -92.2683, 54.6263
4.51297, 9, -32.0953, -3.23921, 24.4558, -159.457, -92.2406, 54.5991
4.52115, 9, -32.0642, -3.27702, 24.4904, -159.441, -92.2261, 54.5704
4.52742, 10, -32.0023, -3.35358, 24.5602, -159.407, -92.1965, 54.5554
4.53642, 10, -31.9412, -3.43151, 24.6312, -159.372, -92.1658, 54.5242
4.5462, 10, -31.8505, -3.55113, 24.7395, -159.318, -92.117, 54.4733
4.55164, 10, -31.8205, -3.5917, 24.7762, -159.3, -92.0997, 54.4556
4.55941, 10, -31.761, -3.67394, 24.8502, -159.262, -92.0641, 54.4195
4.56742, 11, -31.7021, -3.75758, 24.9252, -159.223, -92.0277, 54.3821
4.57542, 11, -31.6436, -3.84275, 25.0011, -159.184, -91.9903, 54.343
4.58349, 11, -31.5857, -3.92938, 25.078, -159.144, -91.9508, 54.3017
4.59145, 11, -31.5284, -4.01743, 25.1558, -159.103, -91.9098, 54.2589
4.59972, 11, -31.4716, -4.107, 25.2347, -159.06, -91.8681, 54.2153
4.60846, 12, -31.4154, -4.19809, 25.3146, -159.017, -91.8248, 54.1701
4.61643, 12, -31.3595, -4.29055, 25.3956, -158.973, -91.7794, 54.1228
4.62351, 12, -31.3042, -4.3844, 25.4777, -158.927, -91.7333, 54.0739
4.63435, 12, -31.2222, -4.52762, 25.6028, -158.858, -91.6616, 53.9986
4.63941, 12, -31.1952, -4.57609, 25.645, -158.835, -91.6367, 53.9727
4.64746, 13, -31.1414, -4.67408, 25.73, -158.786, -91.5867, 53.9191
4.65555, 13, -31.0882, -4.77348, 25.816, -158.737, -91.5351, 53.8645
4.66341, 13, -31.0355, -4.87432, 25.9031, -158.688, -91.4816, 53.8087
4.67438, 13, -30.9574, -5.02845, 26.0357, -158.611, -91.4, 53.7213
4.67963, 13, -30.9316, -5.08054, 26.0805, -158.586, -91.3717, 53.6917
4.68937, 14, -30.8804, -5.18577, 26.1708, -158.533, -91.3145, 53.6317
4.69642, 14, -30.8299, -5.29253, 26.2622, -158.479, -91.2566, 53.5696
4.7036, 14, -30.7799, -5.40073, 26.3545, -158.426, -91.1963, 53.5062
4.71168, 14, -30.7304, -5.51044, 26.4477, -158.371, -91.1359, 53.442
4.71943, 14, -30.6814, -5.62169, 26.5418, -158.314, -91.0733, 53.3754
4.72746, 14, -30.633, -5.73445, 26.637, -158.258, -91.0095, 53.3077
4.73573, 15, -30.5849, -5.84855, 26.7334, -158.199, -90.9445, 53.2391
4.7435, 15, -30.5375, -5.96385, 26.831, -158.141, -90.8776, 53.168
4.75173, 15, -30.4905, -6.08058, 26.9296, -158.081, -90.8103, 53.0962
4.76059, 15, -30.444, -6.19881, 27.0292, -158.02, -90.7406, 53.0226
4.76755, 15, -30.3981, -6.31832, 27.1295, -157.959, -90.6704, 52.9471
4.77557, 16, -30.3527, -6.43946, 27.2308, -157.896, -90.5981, 52.8709
4.78341, 16, -30.3078, -6.56207, 27.3333, -157.833, -90.5254, 52.7921
4.79146, 16, -30.2633, -6.68607, 27.437, -157.768, -90.4507, 52.7129
4.79979, 16, -30.2194, -6.81158, 27.5418, -157.704, -90.3751, 52.6319
4.80848, 16, -30.1759, -6.93866, 27.6476, -157.637, -90.2977, 52.5496
4.8155, 17, -30.1329, -7.06737, 27.7542, -157.571, -90.2194, 52.4662
4.8253, 17, -30.0904, -7.19761, 27.8616, -157.503, -90.1395, 52.3813
4.83323, 17, -30.0484, -7.32927, 27.97, -157.434, -90.0583, 52.2955
4.83983, 17, -30.007, -7.46219, 28.0797, -157.364, -89.976, 52.2076
4.8478, 17, -29.966, -7.59646, 28.1905, -157.294, -89.8922, 52.1191
4.85597, 18, -29.9255, -7.73224, 28.3025, -157.222, -89.8072, 52.0287
4.86449, 18, -29.8856, -7.86944, 28.4153, -157.15, -89.7207, 51.9375
4.87194, 18, -29.8461, -8.00798, 28.5289, -157.077, -89.6334, 51.8442
4.88046, 18, -29.807, -8.14768, 28.6435, -157.002, -89.5447, 51.7502
4.88799, 18, -29.7684, -8.28873, 28.7593, -156.927, -89.4544, 51.6543
4.89596, 19, -29.7493, -8.35977, 28.8177, -156.851, -89.3633, 51.5578
4.90447, 19, -29.6927, -8.57536, 28.9945, -156.774, -89.2708, 51.4597
4.91141, 19, -29.674, -8.64802, 29.0539, -156.736, -89.224, 51.4105
4.91941, 19, -29.6371, -8.79432, 29.1731, -156.658, -89.1296, 51.3107
4.92755, 19, -29.6007, -8.94181, 29.2932, -156.578, -89.0342, 51.2104
4.93542, 20, -29.5647, -9.09073, 29.4143, -156.498, -88.9376, 51.1083
4.9434, 20, -29.5292, -9.24115, 29.5367, -156.418, -88.8399, 51.0055
4.95156, 20, -29.494, -9.39315, 29.6602, -156.336, -88.7414, 50.901
4.95938, 20, -29.4595, -9.54639, 29.7844, -156.253, -88.6415, 50.7956
4.96745, 20, -29.4254, -9.70064, 29.9095, -156.17, -88.5407, 50.689
4.97536, 21, -29.3918, -9.8562, 30.0356, -156.086, -88.4388, 50.581
4.9834, 21, -29.3585, -10.0133, 30.1627, -156, -88.3355, 50.4723
4.99153, 21, -29.3256, -10.172, 30.291, -155.914, -88.2314, 50.3623
4.99964, 21, -29.2932, -10.3317, 30.4202, -155.827, -88.1264, 50.2515
5.00761, 21, -29.2612, -10.4923, 30.5502, -155.74, -88.02, 50.1399
5.017, 22, -29.214, -10.7357, 30.7468, -155.606, -87.8589, 49.9706
5.02343, 22, -29.1985, -10.8176, 30.8128, -155.561, -87.8046, 49.9139
5.03145, 22, -29.1676, -10.9823, 30.9456, -155.471, -87.6954, 49.7996
5.03942, 22, -29.1372, -11.1479, 31.0793, -155.379, -87.5853, 49.6843
5.04981, 22, -29.0923, -11.3983, 31.2816, -155.241, -87.4179, 49.51
5.05561, 22, -29.0776, -11.4826, 31.3496, -155.194, -87.3618, 49.4513
5.06341, 23, -29.0483, -11.6523, 31.486, -155.1, -87.2488, 49.3337
5.07141, 23, -29.0193, -11.8232, 31.6231, -155.005, -87.1346, 49.2152
5.07954, 23, -28.9908, -11.9947, 31.761, -154.91, -87.0199, 49.0963
5.08738, 23, -28.9627, -12.1675, 31.8999, -154.813, -86.9041, 48.9769
5.09546, 23, -28.935, -12.3418, 32.0397, -154.716, -86.7874, 48.8566
5.10339, 24, -28.9076, -12.5172, 32.1804, -154.618, -86.6697, 48.736
5.1114, 24, -28.8805, -12.6932, 32.3218, -154.519, -86.5511, 48.615
5.11946, 24, -28.8537, -12.8698, 32.4638, -154.419, -86.4319, 48.4929
5.12762, 24, -28.8274, -13.0481, 32.6067, -154.318, -86.3116, 48.3704
5.13644, 24, -28.8013, -13.2277, 32.7507, -154.217, -86.1908, 48.2475
5.14442, 25, -28.7755, -13.4079, 32.8954, -154.114, -86.0692, 48.1241
5.15141, 25, -28.7501, -13.5888, 33.0406, -154.011, -85.9467, 48.0006
5.15953, 25, -28.7249, -13.771, 33.1865, -153.907, -85.8239, 47.8772
5.16741, 25, -28.6997, -13.9546, 33.333, -153.803, -85.6998, 47.7535
5.17556, 25, -28.675, -14.1388, 33.4805, -153.697, -85.5756, 47.6296
5.18366, 26, -28.6505, -14.3234, 33.6288, -153.591, -85.4505, 47.5057
5.19141, 26, -28.6264, -14.5093, 33.7773, -153.484, -85.3249, 47.3813
5.20063, 26, -28.6026, -14.6966, 33.9265, -153.376, -85.1989, 47.2569
5.2084, 26, -28.5789, -14.8844, 34.0767, -153.267, -85.0718, 47.1327
5.21543, 26, -28.5553, -15.0725, 34.2275, -153.158, -84.9447, 47.0086
5.22338, 27, -28.5319, -15.2611, 34.3786, -153.048, -84.8167, 46.8846
5.23494, 27, -28.4974, -15.5459, 34.6063, -152.882, -84.6241, 46.6997
5.23946, 27, -28.486, -15.641, 34.6827, -152.826, -84.5595, 46.6381
5.24787, 27, -28.4633, -15.8314, 34.8359, -152.714, -84.4301, 46.515
5.25566, 27, -28.441, -16.023, 34.9893, -152.601, -84.3005, 46.3924
5.26444, 28, -28.4187, -16.216, 35.1429, -152.488, -84.1705, 46.2698
5.27185, 28, -28.3963, -16.4095, 35.2971, -152.374, -84.0399, 46.1479
5.27972, 28, -28.3742, -16.6036, 35.4521, -152.259, -83.909, 46.0265
5.2886, 28, -28.3523, -16.7987, 35.6076, -152.144, -83.7781, 45.9057
5.29544, 28, -28.3304, -16.9948, 35.7631, -152.027, -83.6464, 45.7856
5.30382, 29, -28.3085, -17.191, 35.9191, -151.911, -83.5149, 45.6663
5.31235, 29, -28.287, -17.3873, 36.0759, -151.793, -83.3827, 45.5476
5.3195, 29, -28.2655, -17.5846, 36.2333, -151.675, -83.2502, 45.4297
5.32865, 29, -28.2439, -17.7826, 36.3907, -151.556, -83.1173, 45.3128
5.33658, 29, -28.2225, -17.9804, 36.5483, -151.436, -82.9842, 45.1963
5.34402, 29, -28.2013, -18.1786, 36.7067, -151.316, -82.8509, 45.0811
5.35264, 30, -28.1802, -18.3776, 36.8657, -151.195, -82.7174, 44.9671
5.35981, 30, -28.1588, -18.5769, 37.0245, -151.073, -82.5839, 44.8546
5.36871, 30, -28.1376, -18.7761, 37.1829, -150.951, -82.4501, 44.7437
5.37682, 30, -28.1164, -18.976, 37.3416, -150.829, -82.3165, 44.6344
5.38481, 30, -28.0949, -19.1769, 37.5008, -150.706, -82.1823, 44.5272
5.39291, 31, -28.0733, -19.3777, 37.6599, -150.583, -82.0485, 44.4212
5.39995, 31, -28.0626, -19.478, 37.8188, -150.459, -81.9144, 44.3171
5.40887, 31, -28.0304, -19.7792, 37.9781, -150.334, -81.7804, 44.2148
5.41538, 31, -28.0196, -19.8797, 38.058, -150.272, -81.7134, 44.1642
5.42343, 31, -27.9978, -20.0806, 38.2182, -150.146, -81.5789, 44.0637
5.43662, 32, -27.954, -20.4817, 38.5374, -149.894, -81.3104, 43.8687
5.43933, 32, -27.954, -20.4817, 38.5374, -149.894, -81.3104, 43.8687
5.44739, 32, -27.9317, -20.6832, 38.6972, -149.767, -81.1765, 43.7746
5.45753, 32, -27.8978, -20.9846, 38.9371, -149.576, -80.9756, 43.6377
5.46467, 32, -27.875, -21.1854, 39.0963, -149.449, -80.8423, 43.5498
5.47143, 33, -27.8635, -21.2859, 39.1756, -149.385, -80.7757, 43.5068
5.48089, 33, -27.8286, -21.5866, 39.414, -149.194, -80.5767, 43.3831
5.489, 33, -27.8047, -21.786, 39.5727, -149.066, -80.4444, 43.3044
5.49544, 33, -27.7926, -21.8856, 39.6517, -149.002, -80.3786, 43.2665
5.50355, 33, -27.7679, -22.0849, 39.8089, -148.875, -80.2472, 43.1924
5.51157, 34, -27.7427, -22.2835, 39.9658, -148.747, -80.116, 43.122
5.52099, 34, -27.7042, -22.5795, 40.2008, -148.556, -79.9199, 43.0224
5.52922, 34, -27.678, -22.7766, 40.3567, -148.428, -79.7892, 42.9597
5.53619, 34, -27.6647, -22.8751, 40.4343, -148.364, -79.724, 42.9298
5.54341, 34, -27.6378, -23.0715, 40.5894, -148.236, -79.5932, 42.8726
5.55239, 35, -27.6104, -23.2672, 40.7447, -148.108, -79.4626, 42.8179
5.55948, 35, -27.5829, -23.463, 40.8998, -147.98, -79.332, 42.7669
5.56739, 35, -27.5552, -23.6591, 41.0543, -147.851, -79.2017, 42.7197
5.5777, 35, -27.5131, -23.9523, 41.2856, -147.657, -79.0064, 42.6548
5.58353, 35, -27.499, -24.0498, 41.3627, -147.592, -78.9415, 42.6346
5.59163, 36, -27.4705, -24.2451, 41.5171, -147.461, -78.812, 42.5971
5.59938, 36, -27.4416, -24.4402, 41.6709, -147.331, -78.6823, 42.5638
5.60754, 36, -27.4125, -24.6345, 41.824, -147.2, -78.5536, 42.5349
5.61867, 36, -27.3679, -24.9248, 42.0533, -147.003, -78.3606, 42.4992
5.62339, 36, -27.3527, -25.0215, 42.1294, -146.938, -78.2967, 42.4895
5.6314, 36, -27.3215, -25.2142, 42.2809, -146.807, -78.1691, 42.4735
5.63945, 37, -27.2895, -25.4055, 42.4311, -146.677, -78.042, 42.4622
5.64739, 37, -27.2566, -25.5955, 42.5801, -146.547, -77.9154, 42.4559
5.65553, 37, -27.2227, -25.7849, 42.7282, -146.418, -77.7891, 42.4532
5.66351, 37, -27.1878, -25.973, 42.875, -146.29, -77.6635, 42.4535
5.67141, 37, -27.1519, -26.1592, 43.0204, -146.163, -77.5381, 42.46
5.67938, 38, -27.1152, -26.344, 43.1644, -146.036, -77.4136, 42.4728
5.68745, 38, -27.0778, -26.5282, 43.3077, -145.909, -77.2893, 42.4906
5.69538, 38, -27.0395, -26.7112, 43.4504, -145.783, -77.1654, 42.514
5.70353, 38, -27.0004, -26.8927, 43.5923, -145.657, -77.0419, 42.5427
5.71554, 39, -26.9407, -27.1639, 43.8038, -145.467, -76.8571, 42.5965
5.72038, 39, -26.9204, -27.2542, 43.8739, -145.404, -76.7956, 42.6176
5.72831, 39, -26.8794, -27.4341, 44.0137, -145.277, -76.6725, 42.6638
5.73623, 39, -26.8375, -27.6128, 44.1528, -145.151, -76.5496, 42.7154
5.74352, 39, -26.7949, -27.7909, 44.291, -145.024, -76.4267, 42.773
5.75226, 39, -26.7515, -27.9688, 44.4281, -144.898, -76.3038, 42.8376
5.75949, 40, -26.7073, -28.1457, 44.5642, -144.773, -76.181, 42.9074
5.76748, 40, -26.6619, -28.3208, 44.6992, -144.648, -76.0584, 42.9844
5.77737, 40, -26.6157, -28.4946, 44.833, -144.524, -75.9365, 43.0678
5.78438, 40, -26.5685, -28.6675, 44.9654, -144.401, -75.8148, 43.1572
5.7915, 40, -26.5202, -28.839, 45.0964, -144.278, -75.6939, 43.254
5.79943, 41, -26.4708, -29.0085, 45.226, -144.157, -75.5736, 43.357
5.80775, 41, -26.4203, -29.1764, 45.3543, -144.036, -75.4534, 43.4672
5.8164, 41, -26.3686, -29.3432, 45.4812, -143.916, -75.3342, 43.584
5.82785, 41, -26.2887, -29.5906, 45.6688, -143.739, -75.1557, 43.7725
5.83219, 41, -26.2614, -29.672, 45.7305, -143.68, -75.0967, 43.839
5.83997, 42, -26.2057, -29.8334, 45.8525, -143.564, -74.9786, 43.9773
5.84858, 42, -26.1485, -29.993, 45.9725, -143.449, -74.8611, 44.1231
5.85583, 42, -26.0896, -30.1508, 46.0903, -143.336, -74.7444, 44.2757
5.86468, 42, -26.029, -30.3064, 46.2061, -143.225, -74.6278, 44.4355
5.8719, 42, -25.9669, -30.4594, 46.3197, -143.116, -74.5121, 44.6024
5.88064, 42, -25.9029, -30.6101, 46.431, -143.009, -74.3969, 44.7766
5.88888, 43, -25.8372, -30.7586, 46.5401, -142.904, -74.2819, 44.9587
5.89598, 43, -25.77, -30.905, 46.6471, -142.8, -74.1675, 45.1483
5.90499, 43, -25.701, -31.049, 46.7521, -142.699, -74.0532, 45.3457
5.91287, 43, -25.666, -31.1908, 46.8554, -142.599, -73.9398, 45.5507
5.91996, 43, -25.5946, -31.2608, 46.9063, -142.55, -73.8832, 45.656
5.92737, 44, -25.5218, -31.3995, 47.0065, -142.453, -73.7703, 45.8727
5.93538, 44, -25.4473, -31.5361, 47.1044, -142.358, -73.6583, 46.0973
5.9434, 44, -25.3709, -31.6706, 47.1998, -142.265, -73.5467, 46.3301
5.95269, 44, -25.2531, -31.8673, 47.3385, -142.131, -73.3807, 46.6946
5.96176, 44, -25.1722, -31.9952, 47.4279, -142.045, -73.2708, 46.9478
5.96737, 45, -25.131, -32.0581, 47.4717, -142.003, -73.216, 47.0776
5.97823, 45, -25.0044, -32.2425, 47.5994, -141.882, -73.0526, 47.4798
5.98358, 45, -24.9612, -32.3026, 47.6405, -141.842, -72.9984, 47.6179
5.99135, 45, -24.8732, -32.4204, 47.7205, -141.766, -72.89, 47.9003
6.0009, 45, -24.7366, -32.5911, 47.8348, -141.657, -72.7289, 48.3395
6.00893, 46, -24.6426, -32.7006, 47.9073, -141.589, -72.622, 48.6431
6.01706, 46, -24.5462, -32.8067, 47.9769, -141.524, -72.5161, 48.9549
6.02337, 46, -24.4971, -32.8585, 48.0105, -141.493, -72.4634, 49.1139
6.03438, 46, -24.3464, -33.0083, 48.1066, -141.406, -72.3067, 49.6038
6.03942, 46, -24.295, -33.0563, 48.1369, -141.379, -72.255, 49.7711
6.04838, 47, -24.1905, -33.1496, 48.1949, -141.328, -72.1527, 50.1117
6.05722, 47, -24.0837, -33.239, 48.2493, -141.281, -72.0512, 50.6382
6.06441, 47, -23.9742, -33.3244, 48.3001, -141.237, -71.9509, 50.818
6.07141, 47, -23.8621, -33.4057, 48.3472, -141.199, -71.8519, 51.1836
6.07961, 47, -23.7473, -33.4829, 48.3904, -141.165, -71.7539, 51.5581
6.08734, 48, -23.6297, -33.5558, 48.4297, -141.136, -71.6572, 51.9414
6.09537, 48, -23.5093, -33.6242, 48.4649, -141.11, -71.5623, 52.3334
6.10338, 48, -23.3865, -33.688, 48.4959, -141.09, -71.4687, 52.7347
6.11143, 48, -23.2612, -33.747, 48.5228, -141.075, -71.3768, 53.1459
6.11937, 48, -23.1331, -33.8009, 48.5454, -141.065, -71.2872, 53.5658
6.12751, 49, -23.0022, -33.8497, 48.5636, -141.06, -71.1993, 53.9948
6.1362, 49, -22.8684, -33.8932, 48.5773, -141.059, -71.1131, 54.4314
6.14337, 49, -22.7316, -33.9312, 48.5862, -141.064, -71.0295, 54.8757
6.15421, 49, -22.5209, -33.9775, 48.591, -141.082, -70.9077, 55.5564
6.15954, 49, -22.4493, -33.9901, 48.5903, -141.092, -70.8683, 55.7869
6.16747, 50, -22.3039, -34.0108, 48.5852, -141.116, -70.7913, 56.2539
6.17539, 50, -22.156, -34.0252, 48.575, -141.145, -70.7175, 56.7274
6.18447, 50, -22.0053, -34.0334, 48.5597, -141.18, -70.6462, 57.2087
6.19236, 50, -21.8518, -34.0356, 48.5391, -141.222, -70.5784, 57.6981
6.19944, 50, -21.6952, -34.0317, 48.5131, -141.27, -70.5134, 58.1948
6.20753, 51, -21.5355, -34.0211, 48.4814, -141.324, -70.4528, 58.6983
6.21569, 51, -21.373, -34.0037, 48.4445, -141.385, -70.3948, 59.208
6.22337, 51, -21.2077, -33.9794, 48.4021, -141.452, -70.3411, 59.7241
6.23195, 51, -21.04, -33.9479, 48.354, -141.525, -70.2912, 60.2461
6.2427, 51, -20.8696, -33.8873, 48.2713, -141.646, -70.2229, 61.0399
6.24747, 51, -20.6967, -33.8633, 48.2408, -141.689, -70.2024, 61.3072
6.25589, 52, -20.5211, -33.8094, 48.1753, -141.781, -70.1653, 61.847
6.26434, 52, -20.3428, -33.7476, 48.1038, -141.88, -70.1324, 62.3934
6.27154, 52, -20.1616, -33.6777, 48.0262, -141.984, -70.104, 62.9465
6.28084, 52, -19.9778, -33.5996, 47.9425, -142.095, -70.0807, 63.5052
6.28933, 52, -19.7914, -33.5131, 47.8523, -142.213, -70.0628, 64.0704
6.29637, 53, -19.6029, -33.4179, 47.7561, -142.336, -70.0505, 64.641
6.3034, 53, -19.4125, -33.3146, 47.6538, -142.466, -70.0436, 65.2166
6.31162, 53, -19.2202, -33.2032, 47.5457, -142.602, -70.0416, 65.7954
6.31952, 53, -19.026, -33.0836, 47.4317, -142.742, -70.0447, 66.378
6.32749, 53, -18.8302, -32.9556, 47.3117, -142.888, -70.0539, 66.9633
6.33595, 54, -18.6326, -32.8194, 47.1859, -143.039, -70.0694, 67.5499
6.34374, 54, -18.4331, -32.6749, 47.0544, -143.194, -70.0916, 68.1375
6.35174, 54, -18.2317, -32.5222, 46.9174, -143.354, -70.1205, 68.7264
6.36032, 54, -18.0289, -32.3613, 46.7748, -143.518, -70.1555, 69.317
6.36818, 54, -17.8247, -32.1914, 46.6262, -143.687, -70.1969, 69.909
6.37646, 55, -17.6197, -32.0121, 46.4713, -143.86, -70.2465, 70.5036
6.38393, 55, -17.4135, -31.8236, 46.3101, -144.038, -70.3037, 71.1028
6.39193, 55, -17.2058, -31.6258, 46.1422, -144.221, -70.3688, 71.7064
6.40047, 55, -16.9964, -31.4178, 45.9667, -144.409, -70.4432, 72.3142
6.40889, 55, -16.7852, -31.1989, 45.7836, -144.602, -70.5259, 72.9274
6.41613, 56, -16.679, -31.0856, 45.5938, -144.8, -70.6184, 73.5455
6.42341, 56, -16.4654, -30.851, 45.4963, -144.901, -70.6679, 73.8561
6.43136, 56, -16.2506, -30.6054, 45.2954, -145.105, -70.7737, 74.4791
6.44152, 56, -15.9279, -30.217, 44.9805, -145.419, -70.9504, 75.4197
6.44892, 56, -15.7128, -29.9448, 44.7631, -145.633, -71.0798, 76.0498
6.45667, 57, -15.4968, -29.6618, 44.5385, -145.85, -71.2188, 76.6806
6.46336, 57, -15.3884, -29.5166, 44.4236, -145.959, -71.2918, 76.9963
6.47137, 57, -15.1708, -29.2185, 44.1896, -146.18, -71.4454, 77.629
6.48368, 57, -14.8434, -28.7532, 43.8266, -146.514, -71.6936, 78.5779
6.48748, 57, -14.7344, -28.594, 43.703, -146.625, -71.7812, 78.8932
6.49559, 58, -14.5169, -28.2691, 43.4526, -146.85, -71.9627, 79.5225
6.50342, 58, -14.3002, -27.9369, 43.1975, -147.074, -72.1522, 80.1484
6.51142, 58, -14.085, -27.5967, 42.9392, -147.296, -72.349, 80.7685
6.52174, 58, -13.7652, -27.0736, 42.5463, -147.627, -72.6576, 81.6855
6.52735, 58, -13.6593, -26.8959, 42.4139, -147.736, -72.7639, 81.9881
6.53542, 58, -13.4484, -26.5358, 42.1473, -147.953, -72.9812, 82.5883
6.54589, 59, -13.239, -26.1685, 41.8767, -148.167, -73.2059, 83.4774
6.55138, 59, -13.0314, -25.7945, 41.6027, -148.38, -73.4381, 83.7715
6.56199, 59, -12.8255, -25.4139, 41.3252, -148.591, -73.8018, 84.6482
6.56815, 59, -12.6207, -25.0267, 41.0435, -148.801, -73.9272, 84.9388
6.57542, 59, -12.4169, -24.6321, 40.7581, -149.008, -74.1848, 85.5167
6.58344, 60, -12.2142, -24.2304, 40.4681, -149.214, -74.451, 86.0909
6.59136, 60, -12.0131, -23.8219, 40.1752, -149.418, -74.7256, 86.6615
6.59943, 60, -11.8134, -23.4075, 39.879, -149.62, -75.0082, 87.228
6.61062, 60, -11.5174, -22.7743, 39.4314, -149.916, -75.4464, 88.0671
6.61834, 60, -11.4199, -22.5605, 39.1306, -150.109, -75.7468, 88.6196
6.62435, 61, -11.2265, -22.1302, 38.9799, -150.205, -75.8994, 88.8932
6.63235, 61, -11.0353, -21.6958, 38.6778, -150.392, -76.2083, 89.4345
6.63949, 61, -10.8463, -21.2579, 38.3749, -150.574, -76.5219, 89.9668
6.64757, 61, -10.6595, -20.8164, 38.072, -150.752, -76.8405, 90.4905
6.65645, 61, -10.4749, -20.3711, 37.7684, -150.924, -77.1636, 91.0059
6.66433, 62, -10.2928, -19.9216, 37.4647, -151.092, -77.4917, 91.5133
6.67237, 62, -10.1135, -19.4686, 37.16, -151.256, -77.8251, 92.0129
6.68042, 62, -9.93678, -19.013, 36.8546, -151.415, -78.164, 92.5048
6.68849, 62, -9.76265, -18.5549, 36.5479, -151.57, -78.5085, 92.9904
6.6954, 62, -9.59091, -18.0952, 36.2409, -151.72, -78.8582, 93.468
6.70331, 63, -9.42145, -17.6347, 35.9344, -151.866, -79.2118, 93.9374
6.71144, 63, -9.25425, -17.1733, 35.6295, -152.006, -79.5688, 94.3964
6.71937, 63, -9.08953, -16.7104, 35.3265, -152.14, -79.9277, 94.8448
6.72748, 63, -8.92756, -16.2457, 35.0252, -152.269, -80.2881, 95.2823
6.73589, 63, -8.76816, -15.7787, 34.7264, -152.391, -80.6499, 95.7081
6.74429, 63, -8.61128, -15.3097, 34.4291, -152.508, -81.0138, 96.1239
6.75168, 64, -8.45682, -14.8388, 34.1337, -152.621, -81.3809, 96.5293
6.76142, 64, -8.3047, -14.3666, 33.838, -152.728, -81.7523, 96.9251
6.76835, 64, -8.1548, -13.894, 33.5422, -152.831, -82.129, 97.3129
6.77548, 64, -8.00711, -13.4215, 33.2458, -152.93, -82.5109, 97.6912
6.78366, 65, -7.86177, -12.9495, 32.9502, -153.023, -82.897, 98.059
6.79351, 65, -7.71902, -12.4789, 32.6565, -153.111, -83.2856, 98.4156
6.80041, 65, -7.57914, -12.009, 32.3655, -153.194, -83.6751, 98.7586
6.81212, 65, -7.37526, -11.3056, 31.9374, -153.305, -84.2575, 99.2457
6.81577, 65, -7.30881, -11.0715, 31.7969, -153.34, -84.4508, 99.4008
6.82437, 65, -7.17823, -10.6044, 31.5197, -153.403, -84.8362, 99.6993
6.83242, 66, -7.05005, -10.1403, 31.2463, -153.461, -85.2196, 99.982
6.8397, 66, -6.92396, -9.68026, 30.977, -153.513, -85.6024, 100.249
6.84768, 66, -6.8, -9.22591, 30.712, -153.56, -85.9845, 100.501
6.8558, 66, -6.67816, -8.77823, 30.4501, -153.601, -86.3649, 100.737
6.86431, 66, -6.55847, -8.33661, 30.1929, -153.636, -86.7433, 100.956
6.87196, 67, -6.44153, -7.90149, 29.9406, -153.666, -87.1181, 101.157
6.88044, 67, -6.32764, -7.47251, 29.6947, -153.69, -87.4884, 101.341
6.88801, 67, -6.21666, -7.04967, 29.4563, -153.708, -87.8529, 101.507
6.8961, 67, -6.10834, -6.63256, 29.2243, -153.72, -88.2116, 101.656
6.90396, 67, -6.00248, -6.2218, 28.999, -153.727, -88.5646, 101.786
6.91214, 68, -5.89882, -5.81763, 28.7802, -153.73, -88.913, 101.899
6.92087, 68, -5.84766, -5.41918, 28.5657, -153.729, -89.258, 101.995
6.92741, 68, -5.7466, -5.22213, 28.4599, -153.726, -89.4295, 102.036
6.93782, 68, -5.59817, -4.63955, 28.1484, -153.712, -89.942, 102.134
6.9442, 68, -5.54946, -4.44804, 28.0462, -153.705, -90.1124, 102.157
6.95255, 69, -5.40599, -3.87909, 27.7439, -153.677, -90.6225, 102.199
6.95937, 69, -5.35905, -3.69124, 27.6453, -153.666, -90.7924, 102.204
6.96862, 69, -5.2207, -3.13315, 27.3553, -153.624, -91.3009, 102.192
6.97534, 69, -5.1755, -2.94906, 27.2601, -153.608, -91.4701, 102.177
6.98475, 69, -5.04242, -2.40183, 26.98, -153.555, -91.9758, 102.101
6.99148, 70, -4.99879, -2.22114, 26.8889, -153.536, -92.1438, 102.064
6.99932, 70, -4.91246, -1.86307, 26.7093, -153.493, -92.4784, 101.975
7.0089, 70, -4.78526, -1.33497, 26.4461, -153.423, -92.9775, 101.799
7.01777, 70, -4.70182, -0.989484, 26.2763, -153.373, -93.3076, 101.654
7.02347, 70, -4.66052, -0.81882, 26.193, -153.346, -93.4718, 101.573
7.0313, 71, -4.57869, -0.482624, 26.0291, -153.29, -93.7978, 101.396
7.04193, 71, -4.49791, 0.00971736, 25.7912, -153.202, -94.281, 101.09
7.04744, 71, -4.41824, 0.170292, 25.7147, -153.17, -94.4402, 100.978
7.05638, 71, -4.33944, 0.486933, 25.5657, -153.107, -94.7555, 100.738
7.06352, 71, -4.26138, 0.797285, 25.4215, -153.042, -95.067, 100.478
7.07236, 71, -4.18412, 1.10063, 25.282, -152.974, -95.3747, 100.198
7.07935, 72, -4.10751, 1.39752, 25.1469, -152.905, -95.6788, 99.8981
7.08832, 72, -4.03117, 1.68726, 25.0157, -152.834, -95.9796, 99.5781
7.09638, 72, -3.95505, 1.97074, 24.8878, -152.763, -96.2779, 99.2375
7.10335, 72, -3.87898, 2.24844, 24.7632, -152.69, -96.5736, 98.8763
7.11237, 72, -3.80304, 2.51959, 24.6417, -152.617, -96.8669, 98.4934
7.11946, 73, -3.72718, 2.78509, 24.5231, -152.544, -97.1579, 98.0882
7.12739, 73, -3.65109, 3.04453, 24.4079, -152.47, -97.4464, 97.6609
7.13857, 73, -3.5364, 3.42169, 24.2417, -152.36, -97.8741, 96.9773
7.14335, 73, -3.498, 3.54438, 24.1882, -152.323, -98.0152, 96.7391
7.15143, 73, -3.42092, 3.78428, 24.0842, -152.251, -98.2946, 96.2465
7.15935, 74, -3.34318, 4.01584, 23.9841, -152.18, -98.5699, 95.7344
7.16915, 74, -3.26476, 4.23926, 23.8879, -152.111, -98.8401, 95.2048
7.17546, 74, -3.18575, 4.45414, 23.7959, -152.043, -99.1047, 94.6602
7.18334, 74, -3.10604, 4.65925, 23.708, -151.977, -99.3627, 94.1035
7.19147, 74, -3.0257, 4.85457, 23.6246, -151.914, -99.6134, 93.5348
7.1994, 75, -2.94441, 5.04044, 23.5455, -151.853, -99.856, 92.9568
7.20739, 75, -2.86216, 5.21593, 23.4707, -151.796, -100.09, 92.3715
7.21548, 75, -2.77893, 5.38032, 23.3998, -151.74, -100.314, 91.7791
7.22516, 75, -2.6948, 5.53406, 23.3329, -151.689, -100.53, 91.18
7.2324, 75, -2.6098, 5.67691, 23.2701, -151.64, -100.735, 90.5745
7.23938, 76, -2.52381, 5.8084, 23.2115, -151.595, -100.932, 89.9622
7.24752, 76, -2.43678, 5.92847, 23.1571, -151.553, -101.119, 89.3415
7.25542, 76, -2.34889, 6.03672, 23.1072, -151.516, -101.297, 88.7117
7.26771, 76, -2.21579, 6.17596, 23.0403, -151.467, -101.546, 87.7525
7.27251, 76, -2.17097, 6.2161, 23.0204, -151.452, -101.624, 87.4292
7.27949, 77, -2.08074, 6.28664, 22.9844, -151.427, -101.771, 86.7788
7.28796, 77, -1.98965, 6.34411, 22.9535, -151.405, -101.905, 86.1269
7.29633, 77, -1.89759, 6.3882, 22.9283, -151.387, -102.027, 85.4764
7.30398, 77, -1.80464, 6.41816, 22.9088, -151.374, -102.134, 84.8283
7.31233, 77, -1.71089, 6.43413, 22.8952, -151.364, -102.226, 84.1836
7.31984, 78, -1.61632, 6.43567, 22.8875, -151.358, -102.303, 83.5437
7.32853, 78, -1.52099, 6.42212, 22.8851, -151.354, -102.365, 82.908
7.33549, 78, -1.42506, 6.39326, 22.8883, -151.354, -102.411, 82.2754
7.34445, 78, -1.3288, 6.34884, 22.8976, -151.357, -102.441, 81.6475
7.35161, 78, -1.2322, 6.28828, 22.913, -151.363, -102.456, 81.0248
7.3598, 78, -1.1354, 6.21159, 22.9351, -151.373, -102.455, 80.4074
7.36884, 79, -1.0385, 6.11877, 22.9641, -151.386, -102.436, 79.7967
7.37683, 79, -0.941463, 6.00981, 23.0006, -151.402, -102.399, 79.1944
7.38464, 79, -0.844476, 5.88466, 23.0443, -151.421, -102.345, 78.6018
7.39191, 79, -0.747518, 5.74295, 23.0957, -151.442, -102.273, 78.0185
7.40043, 79, -0.650515, 5.58471, 23.1547, -151.467, -102.183, 77.4453
7.40879, 80, -0.601964, 5.49939, 23.1869, -151.493, -102.075, 76.8832
7.41793, 80, -0.456291, 5.2186, 23.2954, -151.52, -101.948, 76.3316
7.42821, 80, -0.35932, 5.0106, 23.3779, -151.55, -101.802, 75.5218
7.43128, 80, -0.310905, 4.90003, 23.4221, -151.565, -101.723, 75.5218
7.44035, 80, -0.165821, 4.54087, 23.5677, -151.614, -101.455, 74.7334
7.44923, 81, -0.117559, 4.41248, 23.6206, -151.647, -101.252, 74.2202
7.45529, 81, -0.0210773, 4.14326, 23.733, -151.665, -101.144, 73.9667
7.46866, 81, 0.171193, 3.55397, 23.986, -151.736, -100.662, 72.9762
7.47166, 81, 0.171193, 3.55397, 23.986, -151.736, -100.662, 72.9762
7.48068, 81, 0.314872, 3.06707, 24.2015, -151.792, -100.25, 72.2586
7.48732, 82, 0.362672, 2.8963, 24.2782, -151.81, -100.103, 72.0242
7.49533, 82, 0.45808, 2.54219, 24.4386, -151.847, -99.7946, 71.5623
7.50482, 82, 0.600679, 1.98132, 24.6966, -151.904, -99.297, 70.8876
7.51292, 82, 0.695563, 1.5869, 24.8808, -151.941, -98.9432, 70.45
7.52143, 82, 0.790295, 1.17623, 25.0742, -151.977, -98.5719, 70.0233
7.52755, 83, 0.83768, 0.965026, 25.1743, -151.995, -98.38, 69.8135
7.53532, 83, 0.932401, 0.531926, 25.3819, -152.03, -97.9842, 69.4016
7.5498, 83, 1.07453, -0.144867, 25.7124, -152.081, -97.3611, 68.6094
7.55183, 83, 1.12197, -0.377865, 25.8268, -152.098, -97.1456, 68.6094
7.56031, 83, 1.21689, -0.854339, 26.0625, -152.129, -96.7033, 68.2281
7.56834, 84, 1.3119, -1.34512, 26.3083, -152.159, -96.2459, 67.8566
7.57532, 84, 1.40716, -1.84935, 26.5635, -152.188, -95.7731, 67.4936
7.58338, 84, 1.50267, -2.36664, 26.8294, -152.215, -95.2854, 67.1381
7.59132, 84, 1.59847, -2.89767, 27.1056, -152.241, -94.7819, 66.7904
7.60063, 84, 1.69464, -3.44222, 27.392, -152.265, -94.2631, 66.4493
7.60833, 84, 1.79129, -4.00007, 27.6891, -152.287, -93.7295, 66.1151
7.6154, 85, 1.88818, -4.57078, 27.996, -152.308, -93.1807, 65.7884
7.62332, 85, 1.98538, -5.15244, 28.3131, -152.327, -92.6172, 65.4699
7.63138, 85, 2.08295, -5.74442, 28.6392, -152.344, -92.0416, 65.1587
7.63934, 85, 2.18091, -6.34593, 28.9748, -152.358, -91.4554, 64.8561
7.64734, 85, 2.27957, -6.95521, 29.3185, -152.369, -90.8592, 64.5629
7.65648, 86, 2.37885, -7.57161, 29.6702, -152.378, -90.2532, 64.2795
7.66376, 86, 2.47912, -8.19429, 30.0289, -152.384, -89.6379, 64.0065
7.67132, 86, 2.5804, -8.8233, 30.3943, -152.386, -89.0147, 63.7441
7.68031, 86, 2.6824, -9.45756, 30.7649, -152.387, -88.3875, 63.4935
7.69069, 87, 2.83758, -10.4169, 31.331, -152.382, -87.4374, 63.1392
7.69533, 87, 2.88971, -10.7384, 31.5225, -152.378, -87.1179, 63.0269
7.70516, 87, 2.9944, -11.383, 31.9082, -152.368, -86.4754, 62.8116
7.71131, 87, 3.10027, -12.03, 32.2985, -152.355, -85.8279, 62.6087
7.7194, 87, 3.20691, -12.6787, 32.6933, -152.337, -85.1765, 62.4188
7.72734, 87, 3.31412, -13.3291, 33.0927, -152.315, -84.5226, 62.2417
7.73532, 88, 3.42211, -13.9813, 33.4967, -152.29, -83.8642, 62.0779
7.74342, 88, 3.53079, -14.6357, 33.9047, -152.261, -83.2017, 61.9278
7.75139, 88, 3.64013, -15.2914, 34.3169, -152.228, -82.5358, 61.7916
7.75956, 88, 3.75019, -15.9478, 34.7332, -152.19, -81.8662, 61.6698
7.76862, 88, 3.86066, -16.6051, 35.1536, -152.147, -81.1944, 61.5634
7.77638, 89, 3.97148, -17.2617, 35.5781, -152.1, -80.5204, 61.4729
7.78826, 89, 4.13801, -18.2433, 36.2201, -152.019, -79.5038, 61.3698
7.79157, 89, 4.19352, -18.5692, 36.4353, -151.99, -79.163, 61.3444
7.80053, 89, 4.30471, -19.2193, 36.8674, -151.927, -78.4794, 61.3076
7.80737, 89, 4.4158, -19.8654, 37.2999, -151.858, -77.7979, 61.29
7.81536, 90, 4.52693, -20.5066, 37.7319, -151.785, -77.1186, 61.2925
7.8235, 90, 4.63871, -21.1436, 38.1635, -151.705, -76.4404, 61.3191
7.83146, 90, 4.75084, -21.7762, 38.5939, -151.619, -75.7648, 61.3697
7.84019, 90, 4.86308, -22.4043, 39.0223, -151.529, -75.0937, 61.4441
7.85046, 90, 4.97531, -23.0278, 39.4493, -151.432, -74.4283, 61.5452
7.85628, 91, 5.0874, -23.6471, 39.8747, -151.329, -73.7658, 61.6725
7.86386, 91, 5.19931, -24.2613, 40.2994, -151.22, -73.1042, 61.8279
7.87242, 91, 5.31058, -24.8691, 40.7235, -151.104, -72.4434, 62.012
7.8807, 91, 5.42106, -25.4708, 41.1468, -150.981, -71.7813, 62.2257
7.89282, 91, 5.58541, -26.3601, 41.7803, -150.785, -70.7892, 62.6031
7.89597, 91, 5.63996, -26.6527, 41.9908, -150.716, -70.4595, 62.7446
7.90392, 92, 5.74923, -27.232, 42.4099, -150.575, -69.8017, 63.0513
7.91189, 92, 5.80404, -27.5184, 42.8252, -150.428, -69.1465, 63.3889
7.92104, 92, 5.96946, -28.3649, 43.2353, -150.276, -68.4946, 63.758
7.92894, 92, 6.08074, -28.9172, 43.6398, -150.12, -67.8471, 64.1585
7.93634, 92, 6.19333, -29.4584, 44.0377, -149.961, -67.2069, 64.5901
7.94738, 93, 6.30748, -29.9888, 44.4289, -149.8, -66.5719, 65.054
7.95127, 93, 6.36529, -30.2501, 44.6222, -149.718, -66.256, 65.2978
7.96055, 93, 6.54204, -31.02, 45.1937, -149.472, -65.3129, 66.0777
7.96731, 93, 6.60199, -31.2731, 45.3817, -149.39, -64.9997, 66.3551
7.97539, 93, 6.72358, -31.7748, 45.754, -149.225, -64.374, 66.9381
7.98328, 94, 6.84745, -32.2712, 46.1231, -149.059, -63.7476, 67.5631
7.99131, 94, 6.97364, -32.763, 46.4895, -148.892, -63.1157, 68.2349
8.00172, 94, 7.16671, -33.489, 47.0361, -148.641, -62.1562, 69.3413
8.00731, 94, 7.23222, -33.7273, 47.2172, -148.559, -61.833, 69.7364
8.01688, 94, 7.43383, -34.4309, 47.7543, -148.317, -60.8557, 71.0002
8.0233, 95, 7.50309, -34.661, 47.9299, -148.239, -60.5296, 71.4486
8.03289, 95, 7.71896, -35.3356, 48.4431, -148.022, -59.557, 72.8585
8.04105, 95, 7.79392, -35.5547, 48.6086, -147.893, -58.916, 73.8495
8.04735, 95, 7.94872, -35.9825, 48.9299, -147.835, -58.5984, 74.3587
8.05633, 95, 8.11042, -36.3924, 49.236, -147.73, -57.9696, 75.402
8.06357, 96, 8.27892, -36.7824, 49.5265, -147.643, -57.3519, 76.4787
8.07132, 96, 8.45427, -37.1511, 49.8, -147.576, -56.7484, 77.585
8.07938, 96, 8.63555, -37.4967, 50.0568, -147.53, -56.1587, 78.7202
8.08732, 96, 8.82188, -37.8174, 50.2962, -147.504, -55.5843, 79.877
8.09532, 96, 9.01289, -38.1123, 50.5162, -147.498, -55.0275, 81.0503
8.1034, 96, 9.20719, -38.3825, 50.7168, -147.513, -54.491, 82.235
8.11131, 97, 9.4031, -38.6272, 50.898, -147.551, -53.9772, 83.4291
8.11934, 97, 9.59935, -38.8465, 51.0586, -147.609, -53.4884, 84.6274
8.12738, 97, 9.79481, -39.0413, 51.1988, -147.688, -53.0266, 85.8196
8.13536, 97, 9.98889, -39.2113, 51.3195, -147.783, -52.5933, 86.999
8.14364, 97, 10.1804, -39.3553, 51.4205, -147.894, -52.1899, 88.1576
8.15131, 97, 10.3682, -39.474, 51.5025, -148.017, -51.8174, 89.2895
8.15928, 98, 10.5523, -39.5675, 51.5662, -148.151, -51.4756, 90.3873
8.16815, 98, 10.734, -39.6369, 51.612, -148.295, -51.164, 91.4526
8.17531, 98, 10.914, -39.6836, 51.6403, -148.448, -50.8804, 92.4929
8.18337, 98, 11.0925, -39.7071, 51.6512, -148.612, -50.621, 93.5225
8.1921, 98, 11.2688, -39.7073, 51.6457, -148.789, -50.3825, 94.5552
8.20037, 98, 11.444, -39.6841, 51.6228, -148.979, -50.1627, 95.6023
8.20734, 98, 11.6195, -39.637, 51.5822, -149.182, -49.9619, 96.6709
8.2163, 99, 11.7948, -39.5666, 51.5238, -149.399, -49.7816, 97.7604
8.22437, 99, 11.9684, -39.4736, 51.447, -149.627, -49.6244, 98.8665
8.23145, 99, 12.1392, -39.3579, 51.3517, -149.864, -49.4937, 99.9781
8.23933, 99, 12.3063, -39.2199, 51.2384, -150.106, -49.3924, 101.085
8.24736, 99, 12.4681, -39.0598, 51.1076, -150.351, -49.3221, 102.174
8.25547, 99, 12.6226, -38.8773, 50.9609, -150.593, -49.2825, 103.24
8.26527, 100, 12.7685, -38.6708, 50.7986, -150.833, -49.2743, 104.273
8.2723, 100, 12.9056, -38.4401, 50.6197, -151.068, -49.2981, 105.28
8.2795, 100, 13.0337, -38.1868, 50.4236, -151.297, -49.3534, 106.256
8.28742, 100, 13.1533, -37.9114, 50.2112, -151.52, -49.4398, 107.21
8.29613, 100, 13.2648, -37.6153, 49.981, -151.737, -49.5576, 108.139
8.30402, 100, 13.368, -37.296, 49.7326, -151.948, -49.7061, 109.047
8.31367, 101, 13.4631, -36.9527, 49.4675, -152.151, -49.8847, 109.934
8.31942, 101, 13.5501, -36.5837, 49.1851, -152.345, -50.0931, 110.795
8.32737, 101, 13.6294, -36.1883, 48.8857, -152.53, -50.3314, 111.636
8.33627, 101, 13.7005, -35.7672, 48.5679, -152.706, -50.6, 112.453
8.3488, 101, 13.7917, -35.0909, 48.0569, -152.952, -51.0629, 113.641
8.35238, 101, 13.8179, -34.8538, 47.8773, -153.028, -51.2337, 114.026
8.35973, 102, 13.8636, -34.3619, 47.5052, -153.172, -51.6007, 114.779
8.36778, 102, 13.9, -33.8461, 47.1152, -153.304, -52.0011, 115.51
8.37659, 102, 13.9272, -33.3062, 46.7084, -153.423, -52.4348, 116.218
8.38457, 102, 13.9456, -32.7436, 46.2866, -153.528, -52.9007, 116.898
8.39214, 102, 13.9557, -32.1589, 45.851, -153.619, -53.3965, 117.554
8.39988, 102, 13.9578, -31.553, 45.4015, -153.696, -53.9191, 118.182
8.40865, 103, 13.9528, -30.9281, 44.9398, -153.759, -54.4662, 118.782
8.41593, 103, 13.9412, -30.2862, 44.4672, -153.809, -55.0355, 119.355
8.42448, 103, 13.9234, -29.6297, 43.9852, -153.846, -55.6233, 119.902
8.43267, 103, 13.9123, -29.2963, 43.7414, -153.859, -55.9237, 120.165
8.43937, 103, 13.8862, -28.6198, 43.2485, -153.878, -56.5369, 120.671
8.44726, 104, 13.8556, -27.9324, 42.7502, -153.886, -57.1635, 121.151
8.45732, 104, 13.8018, -26.8846, 41.9956, -153.879, -58.1272, 121.827
8.46335, 104, 13.7819, -26.5315, 41.7425, -153.871, -58.4556, 122.041
8.47258, 104, 13.7176, -25.4639, 40.9801, -153.836, -59.4593, 122.654
8.47931, 104, 13.6951, -25.1063, 40.7253, -153.82, -59.7995, 122.85
8.48737, 104, 13.6487, -24.3891, 40.2154, -153.783, -60.4856, 123.231
8.49529, 104, 13.6007, -23.6693, 39.7054, -153.738, -61.1778, 123.6
8.50481, 104, 13.5259, -22.5866, 38.9421, -153.662, -62.226, 124.139
8.5128, 104, 13.475, -21.8637, 38.4348, -153.603, -62.9287, 124.493
8.52085, 104, 13.4233, -21.1401, 37.9289, -153.542, -63.6331, 124.844
8.52896, 104, 13.3712, -20.417, 37.4242, -153.475, -64.3374, 125.193
8.53539, 104, 13.345, -20.0555, 37.1726, -153.44, -64.6898, 125.367
8.5433, 104, 13.2926, -19.3322, 36.6707, -153.368, -65.3962, 125.714
8.55137, 104, 13.24, -18.6087, 36.1708, -153.291, -66.1035, 126.06
8.56029, 104, 13.1875, -17.885, 35.6732, -153.211, -66.812, 126.405
8.56731, 104, 13.1354, -17.1607, 35.1783, -153.127, -67.5208, 126.749
8.5753, 104, 13.0836, -16.4363, 34.6851, -153.039, -68.2288, 127.094
8.58336, 104, 13.0321, -15.712, 34.1939, -152.946, -68.9382, 127.438
8.59135, 104, 12.981, -14.9874, 33.705, -152.85, -69.6493, 127.781
8.59932, 104, 12.93, -14.2622, 33.2183, -152.75, -70.3612, 128.124
8.60732, 104, 12.8794, -13.5368, 32.7343, -152.647, -71.0721, 128.468
8.6153, 104, 12.8293, -12.8114, 32.2532, -152.539, -71.7827, 128.812
8.62336, 104, 12.7793, -12.0858, 31.7747, -152.428, -72.4955, 129.157
8.63135, 104, 12.7298, -11.3609, 31.2986, -152.312, -73.2086, 129.502
8.63931, 104, 12.6808, -10.6359, 30.825, -152.193, -73.922, 129.847
8.64736, 104, 12.6319, -9.91018, 30.3544, -152.07, -74.6356, 130.193
8.6553, 104, 12.5834, -9.18458, 29.8869, -151.942, -75.3487, 130.54
8.66329, 104, 12.5355, -8.45872, 29.4225, -151.811, -76.0632, 130.888
8.67141, 104, 12.4881, -7.73275, 28.9613, -151.676, -76.7785, 131.237
8.67932, 104, 12.441, -7.00707, 28.5033, -151.536, -77.4947, 131.587
8.68736, 104, 12.3947, -6.28164, 28.0485, -151.392, -78.2103, 131.939
8.69539, 104, 12.3489, -5.55677, 27.5974, -151.244, -78.9243, 132.291
8.70329, 104, 12.3036, -4.83269, 27.1498, -151.092, -79.6399, 132.644
8.71135, 104, 12.2593, -4.1098, 26.7064, -150.936, -80.3563, 133
8.71937, 104, 12.2161, -3.38966, 26.2682, -150.776, -81.0716, 133.356
8.7273, 104, 12.174, -2.67448, 25.8348, -150.612, -81.7831, 133.713
8.73538, 104, 12.1332, -1.96543, 25.4073, -150.444, -82.491, 134.07
8.7433, 104, 12.0934, -1.26387, 24.9875, -150.273, -83.195, 134.426
8.7514, 104, 12.0547, -0.571315, 24.5763, -150.1, -83.8908, 134.779
8.75946, 104, 12.017, 0.111136, 24.1751, -149.925, -84.5764, 135.13
8.76738, 104, 11.9803, 0.782922, 23.7849, -149.749, -85.2488, 135.476
8.77542, 104, 11.9446, 1.44197, 23.4075, -149.573, -85.9061, 135.817
8.78346, 104, 11.9103, 2.08742, 23.0427, -149.397, -86.5494, 136.152
8.79145, 104, 11.877, 2.71751, 22.6903, -149.221, -87.177, 136.481
8.79935, 104, 11.8446, 3.33142, 22.3505, -149.046, -87.7885, 136.803
8.80742, 104, 11.8138, 3.92865, 22.0242, -148.873, -88.3832, 137.118
8.81592, 104, 11.7841, 4.50881, 21.7104, -148.7, -88.96, 137.427
8.82428, 104, 11.7557, 5.07251, 21.4088, -148.529, -89.52, 137.728
8.8322, 104, 11.7288, 5.61896, 21.1185, -148.36, -90.0647, 138.023
8.83942, 104, 11.7029, 6.1481, 20.8406, -148.193, -90.5929, 138.31
8.84816, 104, 11.6782, 6.66079, 20.5741, -148.028, -91.1049, 138.591
8.85569, 104, 11.6546, 7.15648, 20.3192, -147.865, -91.6002, 138.863
8.86369, 104, 11.6322, 7.63512, 20.076, -147.706, -92.0779, 139.128
8.87194, 104, 11.6109, 8.0976, 19.8432, -147.549, -92.5391, 139.386
8.88044, 104, 11.5908, 8.54318, 19.6217, -147.395, -92.9836, 139.636
8.88789, 104, 11.5719, 8.97109, 19.4112, -147.245, -93.4117, 139.878
8.89643, 104, 11.554, 9.38207, 19.2105, -147.099, -93.8229, 140.111
8.90385, 104, 11.5373, 9.77545, 19.0203, -146.957, -94.2168, 140.336
8.91239, 104, 11.5216, 10.1507, 18.8412, -146.82, -94.5931, 140.552
8.92093, 104, 11.5142, 10.3312, 18.6724, -146.687, -94.9512, 140.759
8.92838, 104, 11.4934, 10.8438, 18.5137, -146.56, -95.2904, 140.956
8.93595, 104, 11.487, 11.0052, 18.4385, -146.498, -95.4526, 141.05
8.94407, 104, 11.4749, 11.3124, 18.2963, -146.38, -95.7619, 141.231
8.95136, 104, 11.4639, 11.5989, 18.1647, -146.269, -96.0504, 141.4
8.95936, 104, 11.454, 11.8647, 18.0435, -146.165, -96.3179, 141.557
8.96732, 104, 11.4449, 12.1089, 17.9331, -146.069, -96.5638, 141.702
8.97561, 104, 11.4364, 12.3322, 17.8331, -145.98, -96.7877, 141.835
8.98332, 104, 11.4288, 12.5347, 17.7435, -145.9, -96.9895, 141.955
8.99278, 104, 11.4188, 12.7984, 17.6285, -145.795, -97.251, 142.111
9.00077, 104, 11.413, 12.9484, 17.5643, -145.736, -97.3979, 142.199
9.0088, 104, 11.4078, 13.0788, 17.5097, -145.685, -97.5231, 142.274
9.01688, 104, 11.403, 13.1904, 17.4643, -145.643, -97.6275, 142.336
9.02525, 104, 11.3987, 13.2839, 17.4273, -145.609, -97.712, 142.387
9.03138, 104, 11.3967, 13.3244, 17.4118, -145.594, -97.7476, 142.408
9.04097, 104, 11.3911, 13.4238, 17.3761, -145.56, -97.8287, 142.458
9.04921, 104, 11.3878, 13.4738, 17.36, -145.545, -97.8651, 142.48
9.05535, 104, 11.3864, 13.4945, 17.3539, -145.539, -97.8791, 142.488
9.06434, 104, 11.384, 13.5279, 17.3448, -145.53, -97.9001, 142.5
9.07136, 104, 11.382, 13.5528, 17.339, -145.525, -97.9136, 142.508
9.07934, 104, 11.3805, 13.571, 17.3355, -145.521, -97.9215, 142.512
9.08729, 104, 11.3793, 13.5835, 17.3335, -145.52, -97.9257, 142.514
9.09529, 104, 11.3784, 13.592, 17.3325, -145.519, -97.9278, 142.515
9.10332, 105, 11.3778, 13.5977, 17.332, -145.519, -97.9287, 142.516
9.11137, 105, 11.3773, 13.6013, 17.3318, -145.518, -97.9292, 142.516
9.11928, 105, 11.377, 13.6039, 17.3317, -145.518, -97.9293, 142.516
9.12733, 105, 11.3767, 13.606, 17.3316, -145.518, -97.9294, 142.516
9.1353, 105, 11.3765, 13.6078, 17.3316, -145.518, -97.9295, 142.516
9.14329, 105, 11.3764, 13.6094, 17.3316, -145.518, -97.9294, 142.516
9.15138, 105, 11.3763, 13.6108, 17.3316, -145.518, -97.9294, 142.516
9.15931, 105, 11.3761, 13.6119, 17.3317, -145.518, -97.9294, 142.516
9.16728, 105, 11.3761, 13.6129, 17.3317, -145.518, -97.9293, 142.516
9.17533, 105, 11.376, 13.6138, 17.3317, -145.518, -97.9292, 142.516
9.1833, 105, 11.376, 13.6144, 17.3317, -145.518, -97.929, 142.516
9.19139, 105, 11.376, 13.6149, 17.3317, -145.518, -97.9288, 142.516
9.19931, 105, 11.376, 13.6152, 17.3318, -145.518, -97.9287, 142.516
9.2073, 105, 11.376, 13.6153, 17.3318, -145.518, -97.9286, 142.516
9.21529, 105, 11.376, 13.6154, 17.3318, -145.518, -97.9285, 142.516
