hehonglu123/Motion-Primitive-Planning/ILC/recorded_data/realrobot/wood/iteration_27/run_3.csv
timestamp, cmd_num, J1, J2, J3, J4, J5, J6
0.00104, -1, 11.3758, 13.6163, 17.3334, -145.52, -97.9262, 142.516
0.004926, -1, 11.3758, 13.6163, 17.3334, -145.52, -97.9262, 142.516
0.007292, -1, 11.3758, 13.6163, 17.3334, -145.52, -97.9262, 142.516
0.029787, -1, 11.3758, 13.6163, 17.3334, -145.52, -97.9263, 142.516
0.031135, -1, 11.3758, 13.6163, 17.3334, -145.52, -97.9263, 142.516
0.034149, -1, 11.3758, 13.6163, 17.3334, -145.52, -97.9263, 142.516
0.039148, -1, 11.3758, 13.6163, 17.3334, -145.52, -97.9263, 142.516
0.178982, -1, 10.3393, 13.3433, 17.4002, -145.843, -97.8167, 140.653
0.180198, -1, 10.3393, 13.3433, 17.4002, -145.843, -97.8167, 140.653
0.181451, -1, 10.3393, 13.3433, 17.4002, -145.843, -97.8167, 140.653
0.18362, -1, 10.2662, 13.3233, 17.4053, -145.867, -97.8086, 140.515
0.18493, -1, 10.2662, 13.3233, 17.4053, -145.867, -97.8086, 140.515
0.18698, -1, 10.1919, 13.3032, 17.4103, -145.89, -97.8003, 140.377
0.188267, -1, 10.1919, 13.3032, 17.4103, -145.89, -97.8003, 140.377
0.196154, -1, 10.0408, 13.2624, 17.4204, -145.938, -97.7836, 140.099
0.199069, -1, 10.0408, 13.2624, 17.4204, -145.961, -97.7751, 139.96
0.2012, -1, 9.96429, 13.2417, 17.4254, -145.961, -97.7751, 139.96
0.203366, -1, 9.8871, 13.2211, 17.4304, -145.986, -97.7665, 139.82
0.204568, -1, 9.8871, 13.2211, 17.4304, -145.986, -97.7665, 139.82
0.206452, -1, 9.8871, 13.2004, 17.4354, -146.01, -97.7578, 139.681
0.207869, -1, 9.80948, 13.2004, 17.4354, -146.01, -97.7578, 139.681
0.20915, -1, 9.80948, 13.2004, 17.4354, -146.01, -97.7578, 139.681
0.211961, -1, 9.73167, 13.1796, 17.4405, -146.034, -97.7491, 139.541
0.213166, -1, 9.73167, 13.1796, 17.4405, -146.034, -97.7491, 139.541
0.215201, -1, 9.65389, 13.1589, 17.4456, -146.057, -97.7405, 139.401
0.216419, -1, 9.65389, 13.1589, 17.4456, -146.057, -97.7405, 139.401
0.217701, -1, 9.65389, 13.1589, 17.4456, -146.057, -97.7405, 139.401
0.219761, -1, 9.57624, 13.1383, 17.4506, -146.081, -97.732, 139.261
0.221045, -1, 9.57624, 13.1383, 17.4506, -146.081, -97.732, 139.261
0.225195, -1, 9.49872, 13.1176, 17.4556, -146.105, -97.7235, 139.122
0.232159, -1, 9.344, 13.0764, 17.4655, -146.154, -97.7067, 138.842
0.239323, -1, 9.18957, 13.0353, 17.4755, -146.201, -97.6899, 138.562
0.247572, -1, 9.03566, 12.9942, 17.4855, -146.249, -97.6731, 138.282
0.256159, -1, 8.88192, 12.9531, 17.4957, -146.298, -97.6563, 138.002
0.263227, -1, 8.72839, 12.912, 17.5059, -146.345, -97.6392, 137.723
0.271799, -1, 8.57538, 12.8709, 17.5159, -146.393, -97.6218, 137.442
0.280156, -1, 8.42265, 12.8296, 17.5261, -146.441, -97.6042, 137.162
0.287289, -1, 8.2697, 12.7883, 17.5363, -146.489, -97.5869, 136.882
0.295752, -1, 8.11631, 12.7467, 17.5465, -146.537, -97.5699, 136.602
0.304159, -1, 7.96242, 12.705, 17.5567, -146.585, -97.553, 136.322
0.311358, -1, 7.80786, 12.6633, 17.5668, -146.633, -97.5363, 136.041
0.320193, -1, 7.65293, 12.6216, 17.5769, -146.681, -97.5197, 135.761
0.328263, -1, 7.49797, 12.5799, 17.5872, -146.729, -97.5028, 135.481
0.335691, -1, 7.34287, 12.5384, 17.5973, -146.777, -97.4856, 135.2
0.344202, -1, 7.18785, 12.4968, 17.6076, -146.825, -97.4683, 134.92
0.351709, -1, 7.0328, 12.4553, 17.6179, -146.873, -97.4509, 134.639
0.360325, -1, 6.87768, 12.414, 17.6281, -146.921, -97.4339, 134.359
0.367683, -1, 6.72276, 12.3727, 17.6385, -146.969, -97.417, 134.079
0.376281, -1, 6.56804, 12.3314, 17.6489, -147.018, -97.4003, 133.798
0.384015, -1, 6.49079, 12.2901, 17.6593, -147.066, -97.3836, 133.518
0.391791, -1, 6.33645, 12.2694, 17.6697, -147.114, -97.3667, 133.237
0.400181, -1, 6.10512, 12.2072, 17.68, -147.162, -97.3496, 132.956
0.40715, -1, 6.02792, 12.1865, 17.6851, -147.186, -97.3409, 132.816
0.416211, -1, 5.79603, 12.1242, 17.7006, -147.258, -97.3146, 132.395
0.424276, -1, 5.64121, 12.0824, 17.7108, -147.306, -97.2971, 132.114
0.431145, -1, 5.56371, 12.0616, 17.7159, -147.33, -97.2886, 131.974
0.439212, -1, 5.4086, 12.0199, 17.7262, -147.378, -97.2715, 131.693
0.448487, -1, 5.17548, 11.9574, 17.7417, -147.451, -97.2463, 131.271
0.455146, -1, 5.09759, 11.9365, 17.7469, -147.475, -97.2379, 131.131
0.464576, -1, 4.86394, 11.8742, 17.7627, -147.546, -97.2126, 130.709
0.471142, -1, 4.7861, 11.8533, 17.7679, -147.571, -97.204, 130.569
0.481063, -1, 4.55251, 11.791, 17.7835, -147.643, -97.1779, 130.147
0.488682, -1, 4.39686, 11.7495, 17.7939, -147.691, -97.1604, 129.866
0.496978, -1, 4.24143, 11.7081, 17.8043, -147.74, -97.1432, 129.585
0.636851, -1, 1.59709, 10.9993, 17.9811, -148.561, -96.8519, 124.798
0.638976, -1, 1.519, 10.9784, 17.9863, -148.585, -96.8434, 124.657
0.640189, -1, 1.519, 10.9784, 17.9863, -148.585, -96.8434, 124.657
0.642099, -1, 1.44101, 10.9576, 17.9915, -148.61, -96.8349, 124.516
0.643633, -1, 1.44101, 10.9576, 17.9915, -148.61, -96.8349, 124.516
0.644987, -1, 1.44101, 10.9576, 17.9915, -148.61, -96.8349, 124.516
0.647019, -1, 1.36308, 10.9368, 17.9967, -148.634, -96.8265, 124.375
0.651271, -1, 1.28518, 10.9159, 18.002, -148.658, -96.8181, 124.234
0.652503, -1, 1.28518, 10.9159, 18.002, -148.658, -96.8181, 124.234
0.654559, -1, 1.20735, 10.8951, 18.0072, -148.682, -96.8097, 124.092
0.655772, -1, 1.20735, 10.8951, 18.0072, -148.682, -96.8097, 124.092
0.657057, -1, 1.20735, 10.8951, 18.0072, -148.682, -96.8097, 124.092
0.659776, -1, 1.12961, 10.8742, 18.0123, -148.706, -96.8013, 123.951
0.662679, -1, 1.05194, 10.8533, 18.0175, -148.731, -96.7928, 123.81
0.664095, -1, 1.05194, 10.8533, 18.0175, -148.731, -96.7928, 123.81
0.667134, -1, 0.974372, 10.8324, 18.0227, -148.755, -96.7843, 123.669
0.668355, -1, 0.974372, 10.8324, 18.0227, -148.755, -96.7843, 123.669
0.670331, -1, 0.896889, 10.8115, 18.0279, -148.779, -96.7758, 123.528
0.671679, -1, 0.896889, 10.8115, 18.0279, -148.779, -96.7758, 123.528
0.672975, -1, 0.896889, 10.8115, 18.0279, -148.779, -96.7758, 123.528
0.67517, -1, 0.819444, 10.7906, 18.0331, -148.803, -96.7671, 123.387
0.676377, -1, 0.819444, 10.7906, 18.0331, -148.803, -96.7671, 123.387
0.681148, -1, 0.742071, 10.7697, 18.0383, -148.827, -96.7584, 123.246
0.687205, -1, 0.587509, 10.7279, 18.0487, -148.876, -96.7408, 122.963
0.695132, -1, 0.432763, 10.6861, 18.0591, -148.924, -96.7231, 122.68
0.70314, -1, 0.277625, 10.6443, 18.0695, -148.972, -96.7058, 122.398
0.711317, -1, 0.122019, 10.6024, 18.0799, -149.021, -96.6888, 122.115
0.719184, -1, -0.0339842, 10.5605, 18.0905, -149.07, -96.672, 121.832
0.727279, -1, -0.190286, 10.5187, 18.101, -149.118, -96.6553, 121.549
0.735294, -1, -0.346948, 10.4768, 18.1115, -149.167, -96.6385, 121.266
0.743235, -1, -0.503972, 10.4349, 18.122, -149.215, -96.6214, 120.984
0.751243, -1, -0.661184, 10.393, 18.1324, -149.263, -96.6041, 120.701
0.759319, -1, -0.818528, 10.3511, 18.1428, -149.312, -96.5865, 120.418
0.767137, -1, -0.975885, 10.3093, 18.1532, -149.361, -96.5693, 120.136
0.775162, -1, -1.1331, 10.2674, 18.1636, -149.409, -96.5522, 119.853
0.783163, -1, -1.29018, 10.2256, 18.174, -149.458, -96.5353, 119.569
0.791209, -1, -1.44707, 10.1837, 18.1843, -149.506, -96.5185, 119.286
0.800207, -1, -1.60367, 10.1419, 18.1948, -149.555, -96.5017, 119.003
0.807327, -1, -1.75979, 10.1, 18.2053, -149.604, -96.4846, 118.72
0.815374, -1, -1.91547, 10.058, 18.2158, -149.652, -96.4673, 118.436
0.823452, -1, -2.07082, 10.0162, 18.2263, -149.701, -96.4496, 118.152
0.831516, -1, -2.22589, 9.97432, 18.2367, -149.75, -96.4321, 117.869
0.840173, -1, -2.38116, 9.93244, 18.2471, -149.798, -96.4147, 117.585
0.847625, -1, -2.53674, 9.89044, 18.2576, -149.847, -96.3977, 117.301
0.856297, -1, -2.69252, 9.84848, 18.2679, -149.896, -96.3808, 117.018
0.863697, -1, -2.84872, 9.80654, 18.2784, -149.944, -96.364, 116.734
0.872246, -1, -3.00535, 9.76457, 18.2888, -149.992, -96.3471, 116.45
0.87973, -1, -3.16238, 9.72266, 18.2991, -150.041, -96.33, 116.167
0.888242, -1, -3.31979, 9.68067, 18.3096, -150.09, -96.3125, 115.883
0.895823, -1, -3.39868, 9.63865, 18.3201, -150.138, -96.2948, 115.599
0.904298, -1, -3.63541, 9.59672, 18.3306, -150.187, -96.2774, 115.315
0.911122, -1, -3.71434, 9.57578, 18.3358, -150.212, -96.2687, 115.173
0.920198, -1, -3.95133, 9.51278, 18.3514, -150.285, -96.2432, 114.746
0.927136, -1, -4.03027, 9.49179, 18.3566, -150.309, -96.2346, 114.604
0.936315, -1, -4.26702, 9.42884, 18.3722, -150.382, -96.2092, 114.178
0.943187, -1, -4.3459, 9.40781, 18.3774, -150.406, -96.2006, 114.035
0.95253, -1, -4.58188, 9.34479, 18.3929, -150.48, -96.1744, 113.608
0.959137, -1, -4.66031, 9.32375, 18.3981, -150.504, -96.1655, 113.466
0.968554, -1, -4.89502, 9.26063, 18.4138, -150.578, -96.139, 113.039
0.975123, -1, -4.97313, 9.23958, 18.419, -150.602, -96.1303, 112.896
0.984693, -1, -5.20703, 9.17652, 18.4348, -150.675, -96.1045, 112.469
0.99266, -1, -5.36297, 9.13438, 18.4454, -150.724, -96.0875, 112.185
1.00084, -1, -5.519, 9.09223, 18.4559, -150.773, -96.0706, 111.9
1.00872, -1, -5.5971, 9.05018, 18.4663, -150.821, -96.0536, 111.615
1.01668, -1, -5.75364, 9.02909, 18.4716, -150.846, -96.0363, 111.33
1.02472, -1, -5.91055, 8.98688, 18.4821, -150.895, -96.0275, 111.188
1.03119, -1, -6.06796, 8.94471, 18.4924, -150.944, -96.0099, 110.903
1.04019, -1, -6.22597, 8.90255, 18.5028, -150.992, -95.9923, 110.617
1.04815, -1, -6.38429, 8.86042, 18.5131, -151.042, -95.975, 110.332
1.05613, -1, -6.54271, 8.81833, 18.5235, -151.09, -95.958, 110.047
1.06414, -1, -6.70127, 8.77614, 18.5341, -151.139, -95.941, 109.761
1.07214, -1, -6.85997, 8.73394, 18.5446, -151.189, -95.9239, 109.476
1.08017, -1, -7.01853, 8.6918, 18.5551, -151.237, -95.9068, 109.19
1.08816, -1, -7.17705, 8.64962, 18.5656, -151.286, -95.8894, 108.905
1.0952, -1, -7.33539, 8.60742, 18.576, -151.336, -95.8717, 108.619
1.10318, -1, -7.49339, 8.56509, 18.5865, -151.385, -95.854, 108.333
1.11114, -1, -7.65105, 8.52278, 18.597, -151.434, -95.8364, 108.047
1.1192, -1, -7.80833, 8.48047, 18.6074, -151.483, -95.8192, 107.762
1.12712, -1, -7.96519, 8.4382, 18.6178, -151.532, -95.8022, 107.476
1.13514, -1, -8.12184, 8.39584, 18.6282, -151.581, -95.7853, 107.19
1.14362, -1, -8.27838, 8.3535, 18.6387, -151.63, -95.7682, 106.904
1.15122, -1, -8.4351, 8.31113, 18.6493, -151.679, -95.751, 106.618
1.15913, -1, -8.59214, 8.26873, 18.6598, -151.728, -95.7335, 106.332
1.16799, -1, -8.74953, 8.22645, 18.6704, -151.777, -95.7158, 106.045
1.17619, -1, -8.90724, 8.18409, 18.6808, -151.826, -95.6982, 105.759
1.18313, -1, -9.06529, 8.14174, 18.6912, -151.875, -95.6809, 105.473
1.19191, -1, -9.2238, 8.09945, 18.7017, -151.925, -95.6637, 105.186
1.20021, -1, -9.3827, 8.05708, 18.7121, -151.973, -95.6466, 104.9
1.20741, -1, -9.54178, 8.01471, 18.7226, -152.023, -95.6295, 104.613
1.21601, -1, -9.70093, 7.97245, 18.7331, -152.072, -95.6122, 104.326
1.22413, -1, -9.86024, 7.93015, 18.7435, -152.121, -95.5946, 104.039
1.2315, -1, -10.0196, 7.88775, 18.7542, -152.171, -95.5768, 103.752
1.24002, -1, -10.1788, 7.84531, 18.7648, -152.22, -95.5589, 103.465
1.24812, -1, -10.3379, 7.80281, 18.7754, -152.269, -95.5413, 103.179
1.25577, -1, -10.4968, 7.76028, 18.786, -152.319, -95.5241, 102.892
1.26421, -1, -10.6554, 7.71782, 18.7965, -152.368, -95.5071, 102.605
1.27113, -1, -10.8135, 7.67529, 18.807, -152.417, -95.4901, 102.318
1.27988, -1, -10.9714, 7.63269, 18.8175, -152.466, -95.4729, 102.031
1.2882, -1, -11.1289, 7.59018, 18.8279, -152.516, -95.4556, 101.743
1.29515, -1, -11.2863, 7.54769, 18.8384, -152.565, -95.4379, 101.456
1.30417, -1, -11.4438, 7.50523, 18.8489, -152.614, -95.4201, 101.168
1.31208, -1, -11.6013, 7.46271, 18.8594, -152.663, -95.4024, 100.881
1.31941, -1, -11.7592, 7.42024, 18.8701, -152.712, -95.385, 100.593
1.32835, -1, -11.9175, 7.37783, 18.8807, -152.762, -95.3678, 100.305
1.33629, -1, -12.0763, 7.33543, 18.8913, -152.811, -95.3506, 100.018
1.34362, -1, -12.2355, 7.293, 18.9018, -152.861, -95.3333, 99.7298
1.35255, -1, -12.395, 7.25057, 18.9123, -152.91, -95.3159, 99.4417
1.35963, -1, -12.5549, 7.2081, 18.9229, -152.96, -95.2982, 99.1537
1.36822, -1, -12.7148, 7.16565, 18.9334, -153.009, -95.2802, 98.866
1.37567, -1, -12.8748, 7.12316, 18.944, -153.059, -95.2623, 98.5781
1.3846, -1, -13.035, 7.08056, 18.9545, -153.108, -95.2447, 98.2898
1.39173, -1, -13.1149, 7.03796, 18.9651, -153.157, -95.2274, 98.0018
1.40031, -1, -13.3547, 6.99535, 18.9757, -153.207, -95.2102, 97.7137
1.40712, -1, -13.4345, 6.97402, 18.981, -153.232, -95.2017, 97.5695
1.41516, -1, -13.5938, 6.93123, 18.9916, -153.281, -95.1845, 97.2809
1.42424, -1, -13.8325, 6.86715, 19.0075, -153.355, -95.1583, 96.8481
1.43111, -1, -13.9118, 6.84582, 19.0127, -153.38, -95.1494, 96.7039
1.43916, -1, -14.0702, 6.80311, 19.0232, -153.429, -95.1315, 96.4153
1.44867, -1, -14.3074, 6.73917, 19.0391, -153.504, -95.105, 95.9817
1.4551, -1, -14.3865, 6.71782, 19.0443, -153.528, -95.0964, 95.8372
1.46317, -1, -14.5447, 6.67509, 19.0548, -153.577, -95.0791, 95.5482
1.47264, -1, -14.7829, 6.61127, 19.0707, -153.652, -95.0533, 95.1142
1.48214, -1, -14.9421, 6.56867, 19.0813, -153.701, -95.036, 94.8247
1.48717, -1, -15.0218, 6.5473, 19.0867, -153.726, -95.0273, 94.6802
1.49689, -1, -15.2616, 6.48338, 19.1028, -153.801, -95.0006, 94.2465
1.50625, -1, -15.4219, 6.44075, 19.1135, -153.85, -94.9826, 93.9572
1.51113, -1, -15.5022, 6.41939, 19.1189, -153.875, -94.9736, 93.8124
1.52065, -1, -15.6629, 6.37668, 19.1294, -153.925, -94.9559, 93.3785
1.52812, -1, -15.8236, 6.33392, 19.14, -153.975, -94.9386, 93.2338
1.53511, -1, -15.9844, 6.29102, 19.1507, -154.024, -94.9214, 92.9442
1.54411, -1, -16.1453, 6.24816, 19.1613, -154.074, -94.9043, 92.6544
1.55117, -1, -16.3061, 6.20526, 19.1719, -154.124, -94.887, 92.3648
1.55911, -1, -16.4665, 6.16226, 19.1824, -154.173, -94.8695, 92.0753
1.56719, -1, -16.6268, 6.11928, 19.1929, -154.223, -94.8517, 91.7851
1.57517, -1, -16.7866, 6.07635, 19.2036, -154.272, -94.8338, 91.495
1.58312, -1, -16.946, 6.03337, 19.2142, -154.322, -94.8161, 91.2049
1.59116, -1, -17.1053, 5.99039, 19.2248, -154.372, -94.7986, 90.9148
1.5992, -1, -17.2644, 5.94744, 19.2354, -154.422, -94.7813, 90.6244
1.60717, -1, -17.4236, 5.9046, 19.2461, -154.472, -94.764, 90.3341
1.61519, -1, -17.5829, 5.86178, 19.2568, -154.522, -94.7466, 90.0441
1.62311, -1, -17.7423, 5.81895, 19.2675, -154.571, -94.729, 89.7538
1.6311, -1, -17.9018, 5.77616, 19.2782, -154.621, -94.711, 89.4635
1.63917, -1, -18.0619, 5.73334, 19.2888, -154.671, -94.6929, 89.1729
1.64711, -1, -18.2223, 5.69053, 19.2994, -154.721, -94.6749, 88.8823
1.65513, -1, -18.3833, 5.64774, 19.3101, -154.771, -94.6573, 88.5916
1.66318, -1, -18.5447, 5.60479, 19.3209, -154.821, -94.64, 88.3004
1.6711, -1, -18.7063, 5.56181, 19.3316, -154.871, -94.6227, 88.0095
1.6791, -1, -18.8679, 5.51885, 19.3422, -154.921, -94.6054, 87.7186
1.68811, -1, -19.0296, 5.47578, 19.3527, -154.971, -94.5878, 87.4274
1.69618, -1, -19.1912, 5.43259, 19.3634, -155.02, -94.57, 87.136
1.70311, -1, -19.3526, 5.38944, 19.374, -155.071, -94.5519, 86.8445
1.71117, -1, -19.5139, 5.34625, 19.3846, -155.12, -94.5339, 86.553
1.71919, -1, -19.6748, 5.30299, 19.3952, -155.17, -94.5162, 86.2614
1.72724, -1, -19.8355, 5.25983, 19.4059, -155.221, -94.4986, 85.9696
1.73525, -1, -19.996, 5.21665, 19.4166, -155.27, -94.481, 85.678
1.74321, -1, -20.1561, 5.17347, 19.4274, -155.32, -94.4637, 85.3866
1.75158, -1, -20.3157, 5.13053, 19.4383, -155.371, -94.4462, 85.0949
1.75926, -1, -20.4757, 5.08749, 19.4491, -155.42, -94.4284, 84.803
1.7672, -1, -20.6358, 5.0444, 19.4598, -155.471, -94.4102, 84.5113
1.7758, -1, -20.7961, 5.00148, 19.4705, -155.521, -94.3922, 84.2195
1.78422, -1, -20.9568, 4.95851, 19.4813, -155.571, -94.3744, 83.9273
1.79114, -1, -21.1178, 4.91541, 19.4919, -155.621, -94.357, 83.6351
1.80008, -1, -21.2794, 4.87233, 19.5026, -155.671, -94.3397, 83.3432
1.80818, -1, -21.4414, 4.82911, 19.5132, -155.721, -94.3225, 83.0509
1.81525, -1, -21.6034, 4.78586, 19.524, -155.772, -94.3051, 82.7583
1.82422, -1, -21.7657, 4.74265, 19.5348, -155.822, -94.2875, 82.4656
1.83144, -1, -21.9281, 4.69928, 19.5455, -155.872, -94.2695, 82.1731
1.83957, -1, -22.0906, 4.65589, 19.5563, -155.922, -94.2515, 81.8803
1.84846, -1, -22.2531, 4.61254, 19.567, -155.973, -94.2337, 81.5874
1.85563, -1, -22.4155, 4.56911, 19.5777, -156.023, -94.2161, 81.2947
1.86421, -1, -22.5776, 4.52569, 19.5885, -156.073, -94.1986, 81.0021
1.8725, -1, -22.7393, 4.48226, 19.5991, -156.123, -94.1812, 80.7093
1.87971, -1, -22.9006, 4.43887, 19.6098, -156.173, -94.1636, 80.4162
1.88823, -1, -23.0618, 4.39556, 19.6205, -156.224, -94.1457, 80.1233
1.89652, -1, -23.1424, 4.37391, 19.6259, -156.249, -94.1276, 79.83
1.9038, -1, -23.3034, 4.33055, 19.6366, -156.299, -94.1093, 79.5364
1.91215, -1, -23.5447, 4.26566, 19.653, -156.375, -94.0912, 79.243
1.91917, -1, -23.6252, 4.24402, 19.6584, -156.4, -94.0822, 79.0964
1.92709, -1, -23.7864, 4.20074, 19.6692, -156.45, -94.0646, 78.803
1.93622, -1, -24.0284, 4.13577, 19.6852, -156.526, -94.0385, 78.3624
1.9431, -1, -24.1092, 4.11407, 19.6906, -156.551, -94.0298, 78.2155
1.95115, -1, -24.2714, 4.07067, 19.7014, -156.601, -94.0122, 77.9216
1.96046, -1, -24.5155, 4.00545, 19.7174, -156.677, -93.9853, 77.4806
1.9671, -1, -24.597, 3.98364, 19.7227, -156.702, -93.9762, 77.3334
1.97518, -1, -24.7602, 3.94006, 19.7333, -156.753, -93.9581, 77.0392
1.98467, -1, -25.0053, 3.87472, 19.7496, -156.828, -93.9314, 76.5982
1.99352, -1, -25.1687, 3.83114, 19.7605, -156.878, -93.9138, 76.3039
1.99922, -1, -25.2503, 3.80935, 19.766, -156.904, -93.9051, 76.1567
2.00874, -1, -25.4948, 3.7439, 19.7822, -156.98, -93.8788, 75.7153
2.01752, -1, -25.5762, 3.72206, 19.7929, -157.03, -93.861, 75.4209
2.02316, -1, -25.7389, 3.67843, 19.7983, -157.055, -93.852, 75.2735
2.03268, -1, -25.9014, 3.63494, 19.8091, -157.106, -93.8337, 74.9786
2.0401, -1, -26.0636, 3.59138, 19.8199, -157.156, -93.8153, 74.684
2.04716, -1, -26.2255, 3.54789, 19.8307, -157.207, -93.7972, 74.3895
2.05511, -1, -26.387, 3.5045, 19.8415, -157.258, -93.7794, 74.0947
2.0631, -1, -26.5486, 3.461, 19.8522, -157.308, -93.7618, 73.7994
2.07121, -1, -26.7105, 3.41748, 19.863, -157.359, -93.7442, 73.5043
2.07915, -1, -26.8727, 3.37398, 19.8739, -157.409, -93.7265, 73.2092
2.0884, -1, -27.0353, 3.33036, 19.8848, -157.46, -93.7085, 72.9138
2.0961, -1, -27.1982, 3.28673, 19.8956, -157.511, -93.6902, 72.6182
2.10411, -1, -27.3613, 3.24311, 19.9063, -157.561, -93.6719, 72.3231
2.1122, -1, -27.525, 3.1993, 19.9171, -157.611, -93.6539, 72.0277
2.12011, -1, -27.689, 3.15553, 19.9279, -157.662, -93.636, 71.7321
2.1281, -1, -27.8529, 3.11186, 19.9387, -157.713, -93.6182, 71.4364
2.13509, -1, -28.0172, 3.0681, 19.9495, -157.764, -93.6006, 71.1409
2.14309, -1, -28.1814, 3.02435, 19.9602, -157.815, -93.5828, 70.8451
2.1521, -1, -28.3457, 2.98059, 19.9711, -157.865, -93.5647, 70.5489
2.16024, -1, -28.5098, 2.93681, 19.982, -157.916, -93.5464, 70.2531
2.1681, -1, -28.6736, 2.8931, 19.9929, -157.967, -93.5279, 69.9573
2.17616, -1, -28.8371, 2.84934, 20.0037, -158.017, -93.5097, 69.6611
2.18309, -1, -29.0002, 2.80559, 20.0145, -158.068, -93.4917, 69.3646
2.19109, -1, -29.1629, 2.76191, 20.0252, -158.119, -93.474, 69.0682
2.20011, -1, -29.3256, 2.71821, 20.0361, -158.17, -93.4564, 68.7715
2.20709, -1, -29.4882, 2.67449, 20.0469, -158.221, -93.4386, 68.4746
2.21515, -1, -29.651, 2.63068, 20.0577, -158.272, -93.4206, 68.1776
2.22321, -1, -29.814, 2.58684, 20.0685, -158.323, -93.4024, 67.881
2.23117, -1, -29.9771, 2.54306, 20.0795, -158.374, -93.3839, 67.5843
2.2393, -1, -30.1404, 2.49914, 20.0905, -158.425, -93.3656, 67.2871
2.24725, -1, -30.3043, 2.45511, 20.1015, -158.476, -93.3477, 66.9901
2.2552, -1, -30.4685, 2.41118, 20.1124, -158.527, -93.3299, 66.6931
2.2632, -1, -30.6333, 2.36711, 20.1232, -158.578, -93.3121, 66.3958
2.27128, -1, -30.7984, 2.32308, 20.134, -158.629, -93.2944, 66.0982
2.2792, -1, -30.9634, 2.27913, 20.145, -158.68, -93.2763, 65.8009
2.28715, -1, -31.1286, 2.235, 20.1558, -158.731, -93.2579, 65.5039
2.2952, -1, -31.2936, 2.19104, 20.1667, -158.782, -93.2394, 65.2063
2.30313, -1, -31.4586, 2.14715, 20.1775, -158.833, -93.2211, 64.9085
2.31125, -1, -31.6232, 2.10311, 20.1883, -158.884, -93.203, 64.6107
2.31962, -1, -31.7877, 2.05912, 20.1993, -158.935, -93.1852, 64.3129
2.32732, -1, -31.952, 2.01521, 20.2103, -158.987, -93.1676, 64.0147
2.33543, -1, -32.1159, 1.97118, 20.2213, -159.037, -93.15, 63.7164
2.34351, -1, -32.2796, 1.92716, 20.2322, -159.089, -93.1321, 63.4186
2.35151, -1, -32.443, 1.88312, 20.2431, -159.14, -93.1139, 63.1206
2.36018, -1, -32.6067, 1.83897, 20.2541, -159.191, -93.0956, 62.8223
2.36857, -1, -32.7705, 1.79486, 20.265, -159.243, -93.0773, 62.5239
2.37564, -1, -32.9346, 1.75072, 20.2759, -159.294, -93.0593, 62.2257
2.38419, -1, -33.0988, 1.70645, 20.2868, -159.345, -93.0414, 61.9272
2.39251, -1, -33.2635, 1.66225, 20.2976, -159.396, -93.0236, 61.6284
2.39971, -1, -33.3459, 1.64014, 20.3086, -159.447, -93.0057, 61.3297
2.4081, -1, -33.5941, 1.57371, 20.3196, -159.499, -92.9876, 61.0312
2.41508, -1, -33.6769, 1.55157, 20.3251, -159.524, -92.9784, 60.8818
2.42413, -1, -33.9256, 1.48525, 20.3414, -159.601, -92.9504, 60.4331
2.43114, -1, -34.0086, 1.46313, 20.3469, -159.626, -92.9411, 60.2835
2.44087, -1, -34.2575, 1.3969, 20.3633, -159.704, -92.9137, 59.8347
2.44826, -1, -34.4236, 1.35268, 20.3743, -159.755, -92.8959, 59.535
2.45515, -1, -34.5066, 1.33056, 20.3797, -159.781, -92.8869, 59.3852
2.46458, -1, -34.755, 1.2643, 20.3961, -159.858, -92.8602, 58.9363
2.47109, -1, -34.8377, 1.24218, 20.4016, -159.883, -92.8512, 58.7867
2.48059, -1, -35.0851, 1.17582, 20.4182, -159.961, -92.8238, 58.3372
2.48873, -1, -35.2497, 1.13153, 20.4293, -160.012, -92.8052, 58.0374
2.49669, -1, -35.414, 1.08727, 20.4404, -160.063, -92.7867, 57.7377
2.50465, -1, -35.5773, 1.04326, 20.4516, -160.115, -92.7686, 57.4379
2.5129, -1, -35.7383, 0.999645, 20.4629, -160.166, -92.7506, 57.1384
2.52069, -1, -35.8175, 0.978137, 20.4687, -160.217, -92.7327, 56.8414
2.52864, -1, -35.9731, 0.936046, 20.4806, -160.242, -92.7151, 56.5487
2.53673, -1, -36.1234, 0.895567, 20.4925, -160.292, -92.7064, 56.2641
2.54488, -1, -36.2661, 0.857329, 20.5044, -160.339, -92.6893, 56.1263
2.55212, -1, -36.3991, 0.822068, 20.516, -160.384, -92.6728, 55.8641
2.56018, -1, -36.5209, 0.789841, 20.5267, -160.424, -92.6577, 55.6243
2.56809, -1, -36.6299, 0.761066, 20.5359, -160.46, -92.6445, 55.4132
2.5761, -1, -36.7245, 0.736031, 20.5432, -160.49, -92.6334, 55.2352
2.58413, -1, -36.8044, 0.714857, 20.5483, -160.514, -92.6247, 55.0923
2.59113, -1, -36.8705, 0.697468, 20.5512, -160.533, -92.6183, 54.9842
2.5992, -1, -36.9236, 0.683503, 20.5525, -160.546, -92.6138, 54.9078
2.60707, -1, -36.9639, 0.672675, 20.5529, -160.555, -92.611, 54.8564
2.61504, -1, -36.9934, 0.664969, 20.5526, -160.561, -92.6093, 54.825
2.62408, -1, -37.0137, 0.659916, 20.5522, -160.564, -92.6084, 54.8071
2.63214, -1, -37.026, 0.656922, 20.5519, -160.566, -92.6079, 54.7982
2.64006, 2, -37.0326, 0.655326, 20.5517, -160.567, -92.6077, 54.794
2.64808, 2, -37.0347, 0.654599, 20.5516, -160.567, -92.6076, 54.7921
2.65616, 2, -37.0345, 0.654324, 20.5516, -160.568, -92.6075, 54.7912
2.66308, 2, -37.0338, 0.654194, 20.5515, -160.568, -92.6075, 54.7908
2.67209, 2, -37.0336, 0.654165, 20.5515, -160.568, -92.6075, 54.7906
2.67915, 2, -37.034, 0.654128, 20.5515, -160.568, -92.6075, 54.7905
2.68708, 2, -37.0351, 0.654075, 20.5514, -160.568, -92.6075, 54.7905
2.6961, 2, -37.0362, 0.653969, 20.5513, -160.568, -92.6076, 54.7905
2.70415, 2, -37.0377, 0.653762, 20.5511, -160.568, -92.6077, 54.7905
2.71109, 2, -37.039, 0.653515, 20.5509, -160.568, -92.6077, 54.7906
2.72014, 2, -37.0402, 0.653243, 20.5508, -160.568, -92.6077, 54.7907
2.7271, 2, -37.0411, 0.653017, 20.5506, -160.568, -92.6078, 54.7907
2.73518, 2, -37.0416, 0.652898, 20.5504, -160.568, -92.6078, 54.7908
2.7433, 2, -37.0416, 0.652865, 20.5502, -160.568, -92.6078, 54.7908
2.75119, 2, -37.0411, 0.652877, 20.5501, -160.568, -92.6078, 54.7909
2.75923, 2, -37.0403, 0.652905, 20.55, -160.568, -92.6079, 54.791
2.76725, 2, -37.0392, 0.652991, 20.55, -160.568, -92.6079, 54.7912
2.77514, 2, -37.0377, 0.653068, 20.5499, -160.568, -92.608, 54.7914
2.78309, 2, -37.0363, 0.653141, 20.5498, -160.568, -92.608, 54.7915
2.79138, 2, -37.0352, 0.65318, 20.5497, -160.568, -92.608, 54.7916
2.79921, 2, -37.0346, 0.65319, 20.5497, -160.568, -92.608, 54.7917
2.80712, 2, -37.0344, 0.653179, 20.5497, -160.568, -92.6081, 54.7917
2.81525, 2, -37.0345, 0.653141, 20.5497, -160.568, -92.6081, 54.7917
2.82361, 2, -37.0347, 0.653088, 20.5497, -160.568, -92.6081, 54.7917
2.8321, 2, -37.035, 0.652991, 20.5496, -160.568, -92.6081, 54.7918
2.83952, 2, -37.0354, 0.652958, 20.5496, -160.568, -92.6081, 54.7918
2.84793, 2, -37.0361, 0.652924, 20.5496, -160.567, -92.6081, 54.7918
2.85613, 2, -37.0369, 0.65292, 20.5496, -160.567, -92.6081, 54.7918
2.86365, 2, -37.0375, 0.652944, 20.5496, -160.567, -92.6081, 54.792
2.87223, 2, -37.0379, 0.652962, 20.5496, -160.567, -92.6081, 54.7919
2.88018, 2, -37.0381, 0.653006, 20.5496, -160.567, -92.6081, 54.792
2.88951, 2, -37.0381, 0.653007, 20.5496, -160.567, -92.6081, 54.7921
2.89609, 2, -37.0381, 0.653038, 20.5495, -160.567, -92.6081, 54.7921
2.9036, 2, -37.0379, 0.65305, 20.5495, -160.567, -92.6081, 54.7921
2.91209, 2, -37.0373, 0.653069, 20.5495, -160.567, -92.6081, 54.7922
2.92006, 2, -37.037, 0.653062, 20.5495, -160.567, -92.6082, 54.7922
2.92707, 2, -37.0369, 0.653045, 20.5495, -160.567, -92.6082, 54.7922
2.9362, 2, -37.0367, 0.653, 20.5495, -160.567, -92.6081, 54.7923
2.94307, 2, -37.0367, 0.652995, 20.5495, -160.567, -92.6081, 54.7924
2.95108, 2, -37.0367, 0.652967, 20.5495, -160.567, -92.6081, 54.7924
2.96036, 2, -37.0368, 0.65296, 20.5495, -160.567, -92.6082, 54.7925
2.96706, 2, -37.0368, 0.652961, 20.5495, -160.567, -92.6082, 54.7925
2.97507, 2, -37.0369, 0.652982, 20.5494, -160.567, -92.6082, 54.7925
2.98453, 2, -37.0371, 0.653011, 20.5495, -160.567, -92.6082, 54.7926
2.99108, 2, -37.0372, 0.65301, 20.5494, -160.567, -92.6082, 54.7927
2.99913, 2, -37.0373, 0.653028, 20.5494, -160.567, -92.6082, 54.7928
3.00862, 2, -37.0375, 0.653014, 20.5494, -160.567, -92.6082, 54.7928
3.01713, 2, -37.0375, 0.653029, 20.5494, -160.567, -92.6082, 54.7928
3.02313, 2, -37.0375, 0.653034, 20.5494, -160.567, -92.6082, 54.7928
3.03257, 2, -37.0374, 0.653039, 20.5494, -160.567, -92.6082, 54.7929
3.041, 2, -37.0374, 0.652978, 20.5494, -160.567, -92.6083, 54.7929
3.04707, 2, -37.0373, 0.652981, 20.5494, -160.567, -92.6083, 54.793
3.05609, 2, -37.0373, 0.652976, 20.5494, -160.567, -92.6083, 54.7931
3.06415, 2, -37.0373, 0.652982, 20.5494, -160.567, -92.6083, 54.7931
3.07108, 2, -37.0373, 0.652979, 20.5493, -160.567, -92.6083, 54.7931
3.08007, 2, -37.0373, 0.652976, 20.5493, -160.567, -92.6083, 54.7932
3.08812, 2, -37.0373, 0.652977, 20.5493, -160.567, -92.6083, 54.7932
3.09609, 2, -37.0373, 0.652994, 20.5493, -160.567, -92.6083, 54.7932
3.10407, 2, -37.0373, 0.653031, 20.5493, -160.567, -92.6083, 54.7933
3.11211, 2, -37.0373, 0.653056, 20.5493, -160.567, -92.6083, 54.7934
3.12007, 2, -37.0373, 0.653049, 20.5493, -160.567, -92.6083, 54.7934
3.12807, 2, -37.0373, 0.653053, 20.5493, -160.567, -92.6083, 54.7934
3.13615, 2, -37.0373, 0.653059, 20.5493, -160.567, -92.6084, 54.7934
3.14407, 2, -37.0373, 0.653039, 20.5493, -160.567, -92.6084, 54.7934
3.15207, 2, -37.0373, 0.653023, 20.5493, -160.567, -92.6084, 54.7935
3.16013, 2, -37.0373, 0.652996, 20.5493, -160.567, -92.6084, 54.7936
3.16808, 2, -37.0372, 0.652998, 20.5493, -160.567, -92.6084, 54.7937
3.17608, 2, -37.0373, 0.653004, 20.5492, -160.567, -92.6083, 54.7937
3.18425, 2, -37.0372, 0.653007, 20.5492, -160.567, -92.6083, 54.7938
3.19108, 2, -37.0372, 0.653008, 20.5492, -160.567, -92.6083, 54.7939
3.20007, 2, -37.0372, 0.653008, 20.5492, -160.567, -92.6084, 54.7939
3.20813, 2, -37.0372, 0.653038, 20.5492, -160.567, -92.6084, 54.7939
3.21507, 2, -37.0372, 0.653059, 20.5492, -160.567, -92.6084, 54.7939
3.22407, 2, -37.0372, 0.653069, 20.5492, -160.567, -92.6084, 54.794
3.23113, 2, -37.0372, 0.653062, 20.5492, -160.567, -92.6084, 54.794
3.2392, 2, -37.0372, 0.653052, 20.5492, -160.567, -92.6084, 54.7939
3.24732, 2, -37.0371, 0.653029, 20.5492, -160.567, -92.6084, 54.7939
3.25516, 2, -37.0371, 0.653029, 20.5492, -160.567, -92.6084, 54.794
3.26316, 2, -37.0371, 0.653026, 20.5492, -160.567, -92.6084, 54.7941
3.27125, 2, -37.0371, 0.653004, 20.5491, -160.567, -92.6084, 54.7942
3.27923, 2, -37.0371, 0.653, 20.5491, -160.567, -92.6084, 54.7943
3.28711, 2, -37.0371, 0.653, 20.5491, -160.567, -92.6084, 54.7943
3.29518, 2, -37.0371, 0.653016, 20.5491, -160.567, -92.6084, 54.7943
3.3031, 2, -37.0371, 0.653038, 20.5491, -160.567, -92.6084, 54.7943
3.31128, 2, -37.037, 0.653041, 20.5491, -160.567, -92.6084, 54.7943
3.31929, 2, -37.0371, 0.653042, 20.5491, -160.567, -92.6084, 54.7944
3.32724, 2, -37.037, 0.653053, 20.5491, -160.567, -92.6085, 54.7944
3.33556, 2, -37.037, 0.653055, 20.5491, -160.567, -92.6085, 54.7944
3.34345, 2, -37.037, 0.65303, 20.5491, -160.567, -92.6085, 54.7943
3.35143, 2, -37.037, 0.65303, 20.5491, -160.567, -92.6085, 54.7944
3.36014, 2, -37.037, 0.653044, 20.549, -160.567, -92.6085, 54.7944
3.36762, 2, -37.037, 0.653025, 20.549, -160.567, -92.6085, 54.7944
3.37624, 2, -37.037, 0.653046, 20.549, -160.567, -92.6085, 54.7944
3.38384, 2, -37.0369, 0.653033, 20.549, -160.567, -92.6085, 54.7945
3.39215, 2, -37.0369, 0.653031, 20.549, -160.567, -92.6085, 54.7945
3.39968, 2, -37.0369, 0.653033, 20.549, -160.567, -92.6086, 54.7945
3.40807, 2, -37.0369, 0.65302, 20.549, -160.567, -92.6086, 54.7945
3.41569, 2, -37.0369, 0.653016, 20.549, -160.567, -92.6086, 54.7945
3.42416, 2, -37.0369, 0.653035, 20.549, -160.567, -92.6085, 54.7946
3.43107, 2, -37.0369, 0.653048, 20.549, -160.567, -92.6085, 54.7946
3.44017, 2, -37.0369, 0.653068, 20.5489, -160.567, -92.6085, 54.7947
3.44705, 2, -37.0369, 0.653071, 20.5489, -160.567, -92.6085, 54.7947
3.45636, 2, -37.0369, 0.653046, 20.5489, -160.567, -92.6086, 54.7947
3.46311, 2, -37.0369, 0.653045, 20.5489, -160.567, -92.6085, 54.7948
3.47244, 2, -37.0368, 0.653074, 20.5489, -160.567, -92.6085, 54.7948
3.47912, 2, -37.0368, 0.653082, 20.5489, -160.567, -92.6085, 54.7948
3.4871, 2, -37.0368, 0.653061, 20.5489, -160.566, -92.6085, 54.7948
3.49661, 2, -37.0368, 0.653059, 20.5489, -160.566, -92.6086, 54.7948
3.5047, 2, -37.0368, 0.653058, 20.5489, -160.566, -92.6085, 54.7948
3.5126, 2, -37.0368, 0.653061, 20.5489, -160.566, -92.6086, 54.7948
3.52069, 2, -37.0368, 0.653069, 20.5489, -160.566, -92.6087, 54.7949
3.52896, 2, -37.0368, 0.653073, 20.5489, -160.566, -92.6086, 54.7949
3.53658, 2, -37.0368, 0.653064, 20.5488, -160.566, -92.6086, 54.7949
3.54411, 2, -37.0367, 0.653063, 20.5488, -160.566, -92.6086, 54.7949
3.55205, 2, -37.0367, 0.653071, 20.5488, -160.566, -92.6085, 54.795
3.56006, 2, -37.0367, 0.653074, 20.5488, -160.566, -92.6086, 54.7949
3.56812, 2, -37.0368, 0.653065, 20.5488, -160.566, -92.6086, 54.7949
3.57607, 2, -37.0367, 0.653064, 20.5488, -160.566, -92.6086, 54.7949
3.58405, 2, -37.0367, 0.653053, 20.5488, -160.566, -92.6086, 54.7949
3.5921, 2, -37.0367, 0.653066, 20.5488, -160.566, -92.6087, 54.795
3.60006, 2, -37.0367, 0.653053, 20.5488, -160.566, -92.6087, 54.795
3.60805, 2, -37.0367, 0.653066, 20.5488, -160.566, -92.6087, 54.7951
3.61611, 2, -37.0367, 0.653043, 20.5487, -160.566, -92.6087, 54.7951
3.62406, 2, -37.0367, 0.653054, 20.5487, -160.566, -92.6086, 54.7951
3.63117, 2, -37.0366, 0.653066, 20.5487, -160.566, -92.6086, 54.795
3.63926, 2, -37.0366, 0.653072, 20.5487, -160.566, -92.6086, 54.795
3.64803, 2, -37.0366, 0.653075, 20.5487, -160.566, -92.6086, 54.795
3.65607, 2, -37.0366, 0.653057, 20.5487, -160.566, -92.6086, 54.7951
3.66508, 2, -37.0366, 0.653068, 20.5487, -160.566, -92.6087, 54.7951
3.67207, 2, -37.0366, 0.653073, 20.5487, -160.566, -92.6086, 54.7951
3.68004, 2, -37.0366, 0.653075, 20.5487, -160.566, -92.6086, 54.7951
3.68829, 2, -37.0366, 0.653076, 20.5487, -160.566, -92.6087, 54.7951
3.69607, 2, -37.0366, 0.653066, 20.5487, -160.566, -92.6087, 54.7951
3.70308, 4, -37.0366, 0.653064, 20.5487, -160.566, -92.6087, 54.7951
3.71212, 4, -37.0366, 0.653053, 20.5487, -160.566, -92.6086, 54.7951
3.71911, 4, -37.0366, 0.653066, 20.5487, -160.566, -92.6086, 54.7951
3.72805, 4, -37.0366, 0.653072, 20.5486, -160.566, -92.6087, 54.7951
3.73615, 4, -37.0365, 0.653075, 20.5486, -160.566, -92.6087, 54.7951
3.74314, 4, -37.0365, 0.653076, 20.5486, -160.566, -92.6087, 54.7951
3.75136, 4, -37.0365, 0.653076, 20.5486, -160.566, -92.6086, 54.7951
3.7592, 4, -37.0365, 0.653077, 20.5486, -160.566, -92.6087, 54.7951
3.76716, 4, -37.0365, 0.653077, 20.5486, -160.566, -92.6086, 54.7951
3.77522, 4, -37.0365, 0.653066, 20.5486, -160.566, -92.6086, 54.7951
3.78306, 4, -37.0364, 0.653077, 20.5486, -160.566, -92.6087, 54.7951
3.79118, 4, -37.0364, 0.653077, 20.5486, -160.566, -92.6086, 54.7951
3.79932, 4, -37.0364, 0.653066, 20.5486, -160.566, -92.6086, 54.7951
3.8074, 4, -37.0364, 0.653053, 20.5486, -160.566, -92.6087, 54.7951
3.82964, 4, -37.0364, 0.653071, 20.5485, -160.566, -92.6087, 54.7952
3.83239, 4, -37.0364, 0.65308, 20.5485, -160.566, -92.6087, 54.7952
3.83415, 4, -37.0364, 0.65308, 20.5485, -160.566, -92.6087, 54.7952
3.84128, 4, -37.0364, 0.653091, 20.5485, -160.566, -92.6087, 54.7952
3.84904, 4, -37.0363, 0.653088, 20.5485, -160.566, -92.6087, 54.7952
3.85615, 4, -37.0356, 0.652938, 20.5485, -160.566, -92.6087, 54.7951
3.86358, 4, -37.033, 0.652015, 20.5487, -160.566, -92.6087, 54.7951
3.87376, 4, -37.0273, 0.649186, 20.5495, -160.566, -92.6087, 54.7951
3.8803, 4, -37.0177, 0.643252, 20.552, -160.566, -92.6087, 54.7951
3.88822, 4, -37.0042, 0.63368, 20.5575, -160.565, -92.6087, 54.7951
3.89565, 4, -36.986, 0.619958, 20.5672, -160.563, -92.6088, 54.7951
3.9044, 5, -36.9621, 0.601654, 20.5827, -160.56, -92.6086, 54.7951
3.91169, 5, -36.9481, 0.590867, 20.5929, -160.558, -92.6085, 54.795
3.92007, 5, -36.8989, 0.551616, 20.6335, -160.55, -92.608, 54.795
3.92704, 5, -36.8801, 0.536354, 20.6505, -160.546, -92.6077, 54.795
3.93613, 5, -36.8163, 0.483458, 20.7104, -160.533, -92.606, 54.7951
3.94309, 5, -36.7924, 0.463501, 20.7331, -160.528, -92.6053, 54.795
3.95255, 5, -36.7132, 0.397405, 20.8071, -160.511, -92.6028, 54.7949
3.96038, 5, -36.6549, 0.349121, 20.8599, -160.499, -92.601, 54.7949
3.96706, 5, -36.6243, 0.324063, 20.887, -160.493, -92.6001, 54.7949
3.97681, 5, -36.5271, 0.24601, 20.9697, -160.475, -92.5973, 54.7949
3.98502, 5, -36.4598, 0.192585, 21.0252, -160.462, -92.5954, 54.795
3.99263, 5, -36.3915, 0.138793, 21.0808, -160.45, -92.5934, 54.795
4.00102, 5, -36.3228, 0.0848369, 21.1364, -160.438, -92.5914, 54.795
4.00851, 5, -36.2884, 0.0578589, 21.1642, -160.433, -92.5894, 54.795
4.01668, 5, -36.1851, -0.0228354, 21.2475, -160.414, -92.5874, 54.7951
4.02614, 5, -36.1163, -0.0763839, 21.303, -160.402, -92.5854, 54.7952
4.03126, 5, -36.082, -0.103076, 21.3308, -160.396, -92.5843, 54.7953
4.04106, 5, -35.9792, -0.182785, 21.4138, -160.377, -92.5812, 54.7957
4.04704, 5, -35.9449, -0.209281, 21.4415, -160.37, -92.5802, 54.7959
4.05605, 5, -35.8764, -0.262109, 21.4967, -160.357, -92.5781, 54.7964
4.06406, 5, -35.8077, -0.314801, 21.5518, -160.344, -92.576, 54.7972
4.07205, 5, -35.7388, -0.367519, 21.6069, -160.332, -92.5739, 54.7981
4.08019, 5, -35.6697, -0.420188, 21.6618, -160.319, -92.5718, 54.7992
4.088, 5, -35.6002, -0.472952, 21.7164, -160.307, -92.5696, 54.8004
4.09609, 5, -35.5304, -0.525805, 21.771, -160.294, -92.5675, 54.8018
4.1043, 5, -35.4604, -0.578614, 21.8253, -160.282, -92.5653, 54.8032
4.11489, 5, -35.3549, -0.657857, 21.9065, -160.262, -92.5621, 54.8058
4.12008, 5, -35.3197, -0.68425, 21.9335, -160.256, -92.561, 54.8067
4.12819, 5, -35.2492, -0.736977, 21.9875, -160.243, -92.5588, 54.8087
4.13588, 5, -35.1787, -0.789391, 22.0413, -160.229, -92.5566, 54.8108
4.1441, 5, -35.108, -0.841655, 22.0952, -160.216, -92.5544, 54.813
4.15236, 5, -35.0374, -0.893817, 22.1488, -160.203, -92.5522, 54.8152
4.15927, 5, -34.9669, -0.94565, 22.2023, -160.19, -92.5499, 54.8176
4.16804, 5, -34.8964, -0.9973, 22.2557, -160.177, -92.5476, 54.8201
4.17957, 5, -34.7907, -1.07446, 22.3356, -160.157, -92.5442, 54.8241
4.18419, 5, -34.7554, -1.10018, 22.3621, -160.151, -92.543, 54.8256
4.19132, 5, -34.6848, -1.15162, 22.4151, -160.138, -92.5407, 54.8285
4.20011, 5, -34.6139, -1.20292, 22.4679, -160.125, -92.5384, 54.8315
4.20704, 5, -34.5429, -1.25433, 22.5204, -160.112, -92.536, 54.8345
4.21604, 5, -34.4718, -1.30571, 22.5729, -160.099, -92.5336, 54.8376
4.2241, 5, -34.4004, -1.3571, 22.6252, -160.085, -92.5312, 54.8408
4.23217, 5, -34.3289, -1.40851, 22.6774, -160.071, -92.5289, 54.8442
4.23958, 5, -34.2572, -1.45979, 22.7293, -160.057, -92.5265, 54.8477
4.24721, 5, -34.1853, -1.51088, 22.7813, -160.044, -92.5241, 54.8514
4.25592, 5, -34.1134, -1.56174, 22.833, -160.03, -92.5217, 54.8551
4.26403, 5, -34.0412, -1.61243, 22.8847, -160.017, -92.5193, 54.8591
4.27204, 5, -33.9691, -1.66291, 22.9363, -160.003, -92.5169, 54.863
4.28026, 5, -33.8969, -1.71315, 22.9877, -159.99, -92.5145, 54.8671
4.28821, 5, -33.8248, -1.76324, 23.0389, -159.976, -92.5121, 54.8712
4.29604, 5, -33.7526, -1.81324, 23.0901, -159.962, -92.5098, 54.8754
4.30462, 5, -33.6803, -1.86314, 23.141, -159.948, -92.5073, 54.8796
4.31515, 5, -33.5716, -1.938, 23.217, -159.926, -92.5039, 54.8859
4.32003, 5, -33.5353, -1.96307, 23.2423, -159.919, -92.5028, 54.8881
4.3288, 5, -33.4625, -2.0134, 23.2929, -159.905, -92.5005, 54.8922
4.33618, 5, -33.3895, -2.06399, 23.3432, -159.891, -92.4982, 54.8953
4.34338, 5, -33.3168, -2.11499, 23.3935, -159.877, -92.4958, 54.897
4.35153, 6, -33.2443, -2.1665, 23.444, -159.863, -92.4934, 54.8974
4.36056, 6, -33.1722, -2.21887, 23.4946, -159.848, -92.4908, 54.8956
4.36812, 6, -33.1005, -2.27209, 23.5458, -159.833, -92.4876, 54.8905
4.37597, 7, -33.0292, -2.3263, 23.5977, -159.816, -92.4835, 54.8796
4.38448, 7, -32.9584, -2.38165, 23.6507, -159.798, -92.478, 54.8648
4.3916, 7, -32.8881, -2.4382, 23.705, -159.779, -92.4707, 54.8472
4.40066, 7, -32.8183, -2.49624, 23.7608, -159.758, -92.4615, 54.8287
4.40791, 7, -32.7492, -2.55586, 23.8181, -159.737, -92.45, 54.8105
4.415, 7, -32.7149, -2.58631, 23.8472, -159.725, -92.4434, 54.8016
4.42482, 8, -32.613, -2.68008, 23.9369, -159.69, -92.421, 54.7761
4.43236, 8, -32.546, -2.74484, 23.9982, -159.664, -92.4035, 54.7589
4.44118, 8, -32.4797, -2.81124, 24.0606, -159.637, -92.3842, 54.7408
4.44702, 8, -32.4469, -2.84505, 24.0922, -159.623, -92.374, 54.7313
4.45624, 8, -32.3492, -2.94863, 24.1884, -159.581, -92.3415, 54.7003
4.4651, 9, -32.2849, -3.01934, 24.2537, -159.552, -92.3184, 54.6774
4.47105, 9, -32.253, -3.0552, 24.2868, -159.537, -92.3064, 54.6653
4.48085, 9, -32.158, -3.16477, 24.3875, -159.489, -92.2684, 54.6266
4.48717, 9, -32.1266, -3.20189, 24.4216, -159.473, -92.2547, 54.6132
4.49685, 9, -32.0331, -3.31534, 24.5252, -159.424, -92.2115, 54.5708
4.50457, 10, -31.9717, -3.39258, 24.5956, -159.39, -92.1813, 54.5405
4.51266, 10, -31.9109, -3.47122, 24.667, -159.354, -92.15, 54.5082
4.52062, 10, -31.8505, -3.55131, 24.7395, -159.318, -92.117, 54.4738
4.53045, 10, -31.7907, -3.63279, 24.8131, -159.281, -92.082, 54.4381
4.53687, 10, -31.7315, -3.71576, 24.8876, -159.243, -92.046, 54.4014
4.54398, 11, -31.7021, -3.75777, 24.9253, -159.223, -92.0277, 54.3826
4.55202, 11, -31.6437, -3.84295, 25.0013, -159.184, -91.9903, 54.3435
4.5628, 11, -31.557, -3.97342, 25.1169, -159.124, -91.9304, 54.281
4.56802, 11, -31.5284, -4.01764, 25.156, -159.103, -91.9098, 54.2596
4.57609, 11, -31.4716, -4.1072, 25.2349, -159.06, -91.8681, 54.216
4.58401, 12, -31.4153, -4.19828, 25.3148, -159.017, -91.8248, 54.1709
4.59201, 12, -31.3595, -4.29074, 25.3958, -158.973, -91.7794, 54.1236
4.60013, 12, -31.3042, -4.38464, 25.478, -158.927, -91.7334, 54.0747
4.60816, 12, -31.2495, -4.47978, 25.5611, -158.881, -91.6861, 54.0249
4.61523, 12, -31.1952, -4.57633, 25.6453, -158.835, -91.6368, 53.9735
4.62401, 13, -31.1415, -4.67433, 25.7303, -158.786, -91.5868, 53.92
4.63202, 13, -31.0882, -4.77369, 25.8163, -158.737, -91.5352, 53.8653
4.64011, 13, -31.0355, -4.87451, 25.9033, -158.688, -91.4816, 53.8095
4.64805, 13, -30.9833, -4.97692, 25.9915, -158.637, -91.4276, 53.7515
4.65618, 13, -30.9317, -5.08073, 26.0807, -158.586, -91.3717, 53.6922
4.66316, 14, -30.8805, -5.18595, 26.171, -158.533, -91.3146, 53.632
4.67307, 14, -30.83, -5.29269, 26.2624, -158.479, -91.2567, 53.5698
4.68186, 14, -30.78, -5.40087, 26.3546, -158.399, -91.1662, 53.4742
4.68719, 14, -30.7304, -5.51055, 26.4478, -158.371, -91.1359, 53.4418
4.69509, 14, -30.6814, -5.62178, 26.5419, -158.314, -91.0732, 53.3753
4.70303, 14, -30.633, -5.73445, 26.6371, -158.258, -91.0094, 53.3073
4.71201, 15, -30.585, -5.84852, 26.7334, -158.199, -90.9443, 53.2387
4.72014, 15, -30.5375, -5.96381, 26.831, -158.141, -90.8775, 53.1675
4.72702, 15, -30.4905, -6.08052, 26.9295, -158.081, -90.8102, 53.0959
4.73521, 15, -30.444, -6.19876, 27.0291, -158.02, -90.7406, 53.0222
4.74319, 15, -30.3981, -6.31828, 27.1294, -157.959, -90.6704, 52.9467
4.75112, 16, -30.3526, -6.43945, 27.2308, -157.896, -90.598, 52.8706
4.75917, 16, -30.3077, -6.56208, 27.3332, -157.833, -90.5253, 52.7919
4.76718, 16, -30.2633, -6.68604, 27.4369, -157.768, -90.4507, 52.7127
4.77512, 16, -30.2193, -6.81158, 27.5416, -157.704, -90.375, 52.6316
4.78335, 16, -30.1759, -6.93864, 27.6474, -157.637, -90.2977, 52.5493
4.79216, 17, -30.1328, -7.06736, 27.754, -157.571, -90.2194, 52.4659
4.79905, 17, -30.0903, -7.19761, 27.8615, -157.503, -90.1395, 52.381
4.80742, 17, -30.0483, -7.32925, 27.9699, -157.434, -90.0583, 52.2953
4.81617, 17, -30.0069, -7.46217, 28.0794, -157.364, -89.976, 52.2073
4.82324, 17, -29.9659, -7.59651, 28.1903, -157.294, -89.8922, 52.1188
4.83125, 18, -29.9255, -7.73233, 28.3023, -157.222, -89.8072, 52.0285
4.83935, 18, -29.8855, -7.86957, 28.4152, -157.15, -89.7207, 51.9372
4.8473, 18, -29.8461, -8.00815, 28.5288, -157.077, -89.6334, 51.844
4.85646, 18, -29.807, -8.14786, 28.6434, -157.002, -89.5447, 51.75
4.86498, 18, -29.7684, -8.28896, 28.7592, -156.927, -89.4543, 51.6542
4.87211, 19, -29.7303, -8.43145, 28.8762, -156.851, -89.3633, 51.5577
4.8823, 19, -29.6927, -8.57555, 28.9944, -156.774, -89.2707, 51.4596
4.8879, 19, -29.6554, -8.72116, 29.1133, -156.697, -89.1768, 51.3607
4.89624, 19, -29.6188, -8.86807, 29.233, -156.618, -89.082, 51.2606
4.90366, 19, -29.5825, -9.0162, 29.3535, -156.539, -88.9861, 51.1596
4.91221, 20, -29.5468, -9.16588, 29.4753, -156.458, -88.8888, 51.0571
4.91901, 20, -29.5291, -9.24128, 29.5366, -156.418, -88.8399, 51.0055
4.92805, 20, -29.4766, -9.46975, 29.7222, -156.295, -88.6917, 50.8487
4.9371, 20, -29.4423, -9.62344, 29.8469, -156.212, -88.5912, 50.7424
4.94413, 20, -29.4084, -9.77834, 29.9725, -156.128, -88.49, 50.6354
4.95103, 21, -29.3916, -9.85629, 30.0357, -156.086, -88.4389, 50.5812
4.96121, 21, -29.3418, -10.0925, 30.2268, -155.957, -88.2836, 50.4175
4.96707, 21, -29.3254, -10.172, 30.291, -155.914, -88.2315, 50.3623
4.97718, 21, -29.277, -10.4119, 30.4852, -155.784, -88.0734, 50.1957
4.98534, 21, -29.2452, -10.5731, 30.6156, -155.696, -87.9665, 50.0838
4.9925, 21, -29.2139, -10.7357, 30.7469, -155.606, -87.8589, 49.9707
5.0014, 22, -29.1829, -10.8998, 30.8793, -155.516, -87.7501, 49.8569
5.00724, 22, -29.1675, -10.9823, 30.9458, -155.471, -87.6954, 49.7997
5.01724, 22, -29.1372, -11.1477, 31.0795, -155.379, -87.5852, 49.6264
5.02302, 22, -29.1072, -11.3143, 31.2141, -155.287, -87.4738, 49.5685
5.03264, 22, -29.0629, -11.5672, 31.4178, -155.147, -87.3054, 49.3926
5.0414, 23, -29.0483, -11.6522, 31.4861, -155.1, -87.2488, 49.3337
5.04702, 23, -29.0194, -11.8231, 31.6232, -155.005, -87.1346, 49.2152
5.05813, 23, -28.9768, -12.0808, 31.8305, -154.862, -86.9622, 49.0366
5.06315, 23, -28.9628, -12.1674, 31.9, -154.813, -86.9041, 48.9768
5.072, 23, -28.935, -12.3416, 32.0398, -154.716, -86.7874, 48.8566
5.08002, 24, -28.9076, -12.517, 32.1805, -154.618, -86.6698, 48.7359
5.08702, 24, -28.8805, -12.6929, 32.3219, -154.519, -86.5512, 48.6149
5.096, 24, -28.8537, -12.8695, 32.4639, -154.419, -86.432, 48.4928
5.10639, 24, -28.8143, -13.1373, 32.6787, -154.268, -86.2512, 48.3089
5.1139, 24, -28.8013, -13.2273, 32.7508, -154.217, -86.1302, 48.1858
5.119, 25, -28.7756, -13.4075, 32.8955, -154.115, -86.0692, 48.1241
5.12808, 25, -28.7502, -13.5883, 33.0407, -154.012, -85.9467, 48.0007
5.13812, 25, -28.7123, -13.862, 33.2597, -153.855, -85.7619, 47.8154
5.1431, 25, -28.6998, -13.9539, 33.3332, -153.803, -85.6998, 47.7535
5.15101, 25, -28.6751, -14.1381, 33.4806, -153.697, -85.5756, 47.6295
5.16014, 26, -28.6507, -14.3227, 33.6288, -153.591, -85.4505, 47.5057
5.1678, 26, -28.6265, -14.5084, 33.7774, -153.484, -85.3249, 47.3813
5.17606, 26, -28.6026, -14.6957, 33.9266, -153.376, -85.1989, 47.2571
5.18502, 26, -28.579, -14.8836, 34.0768, -153.268, -85.0718, 47.1327
5.19207, 26, -28.5553, -15.0716, 34.2276, -153.158, -84.9446, 47.0086
5.20006, 27, -28.532, -15.2604, 34.3787, -153.048, -84.8167, 46.8848
5.20726, 27, -28.509, -15.4502, 34.5303, -152.938, -84.6885, 46.7616
5.21605, 27, -28.4861, -15.6404, 34.6827, -152.826, -84.5595, 46.6382
5.22399, 27, -28.4634, -15.8309, 34.8359, -152.714, -84.4301, 46.5152
5.23217, 27, -28.441, -16.0225, 34.9893, -152.601, -84.3005, 46.3926
5.24293, 28, -28.4075, -16.3124, 35.2199, -152.431, -84.1052, 46.209
5.24802, 28, -28.3964, -16.4093, 35.2971, -152.374, -84.0399, 46.148
5.25722, 28, -28.3742, -16.6034, 35.4521, -152.259, -83.909, 46.0266
5.26372, 28, -28.3523, -16.7986, 35.6075, -152.144, -83.7781, 45.9058
5.2746, 28, -28.3195, -17.0929, 35.841, -151.969, -83.5807, 45.7259
5.28076, 29, -28.3086, -17.191, 35.9191, -151.91, -83.5149, 45.6664
5.28801, 29, -28.287, -17.3874, 36.0759, -151.793, -83.3827, 45.5478
5.29601, 29, -28.2655, -17.5848, 36.2332, -151.675, -83.2502, 45.4299
5.30742, 29, -28.2332, -17.8817, 36.4694, -151.496, -83.0507, 45.2544
5.31214, 29, -28.2225, -17.9806, 36.5482, -151.436, -82.9842, 45.1961
5.31938, 29, -28.2013, -18.1788, 36.7066, -151.316, -82.8508, 45.0811
5.32809, 30, -28.1801, -18.3778, 36.8655, -151.195, -82.7174, 44.9672
5.33623, 30, -28.1588, -18.577, 37.0242, -151.073, -82.584, 44.8545
5.34422, 30, -28.1376, -18.7763, 37.1827, -150.951, -82.4501, 44.7435
5.35135, 30, -28.1164, -18.9763, 37.3415, -150.829, -82.3165, 44.6341
5.35942, 30, -28.0949, -19.1772, 37.5007, -150.706, -82.1823, 44.5268
5.36847, 31, -28.0734, -19.378, 37.6598, -150.583, -82.0486, 44.4209
5.37609, 31, -28.052, -19.5786, 37.8187, -150.459, -81.9143, 44.3168
5.3845, 31, -28.0305, -19.7795, 37.978, -150.334, -81.7804, 44.2144
5.39158, 31, -28.0088, -19.9805, 38.1379, -150.209, -81.6461, 44.1133
5.40017, 31, -27.987, -20.181, 38.298, -150.083, -81.5118, 44.0141
5.4085, 32, -27.9652, -20.3815, 38.4576, -149.957, -81.3776, 43.9164
5.41691, 32, -27.943, -20.5826, 38.6171, -149.831, -81.2435, 43.8211
5.42424, 32, -27.9205, -20.7839, 38.7771, -149.704, -81.1095, 43.7277
5.43345, 32, -27.8979, -20.9846, 38.937, -149.576, -80.9756, 43.6374
5.44222, 32, -27.8752, -21.1853, 39.0962, -149.449, -80.8422, 43.5494
5.44702, 33, -27.8637, -21.2858, 39.1755, -149.385, -80.7757, 43.5066
5.45619, 33, -27.8286, -21.5865, 39.4139, -149.194, -80.5767, 43.3829
5.46313, 33, -27.8167, -21.6862, 39.4933, -149.13, -80.5105, 43.3431
5.47097, 33, -27.7926, -21.8854, 39.6515, -149.002, -80.3786, 43.2664
5.48035, 33, -27.7554, -22.1839, 39.8872, -148.811, -80.1815, 43.1565
5.48696, 34, -27.7428, -22.2831, 39.9656, -148.747, -80.116, 43.1219
5.4965, 34, -27.7043, -22.5791, 40.2005, -148.556, -79.9199, 43.0224
5.50465, 34, -27.678, -22.7761, 40.3565, -148.428, -79.7892, 42.9597
5.51332, 34, -27.6515, -22.9728, 40.5116, -148.3, -79.6586, 42.901
5.52128, 34, -27.6243, -23.1687, 40.6668, -148.172, -79.5279, 42.845
5.52696, 35, -27.6105, -23.2664, 40.7444, -148.108, -79.4626, 42.818
5.53674, 35, -27.583, -23.5603, 40.9768, -147.915, -79.2667, 42.743
5.54459, 35, -27.5553, -23.6584, 41.054, -147.851, -79.1367, 42.6974
5.55203, 35, -27.5272, -23.854, 41.2081, -147.722, -79.0716, 42.6758
5.561, 35, -27.4991, -24.0491, 41.3624, -147.592, -78.9416, 42.6155
5.56711, 36, -27.4706, -24.2444, 41.5168, -147.461, -78.812, 42.5973
5.57604, 36, -27.4417, -24.4395, 41.6707, -147.331, -78.6823, 42.5641
5.58499, 36, -27.4126, -24.6337, 41.8238, -147.2, -78.4892, 42.5221
5.59596, 36, -27.368, -24.924, 42.0531, -147.003, -78.3607, 42.4993
5.59902, 36, -27.3528, -25.0207, 42.1293, -146.938, -78.2968, 42.4896
5.60795, 37, -27.3216, -25.2134, 42.2809, -146.807, -78.1691, 42.4735
5.61599, 37, -27.2896, -25.4047, 42.4311, -146.677, -78.0419, 42.4623
5.62299, 37, -27.2566, -25.5947, 42.5802, -146.547, -77.9154, 42.4559
5.63442, 37, -27.2055, -25.8784, 42.8018, -146.354, -77.7262, 42.4529
5.64017, 37, -27.1879, -25.9722, 42.8751, -146.29, -77.6635, 42.4537
5.64993, 38, -27.1337, -26.251, 43.0926, -146.099, -77.4758, 42.4659
5.65672, 38, -27.1153, -26.3433, 43.1645, -146.036, -77.4136, 42.473
5.66302, 38, -27.0779, -26.5276, 43.3078, -145.909, -77.2893, 42.4908
5.67101, 38, -27.0395, -26.7106, 43.4505, -145.783, -77.1655, 42.5142
5.68349, 38, -26.9807, -26.9826, 43.6631, -145.593, -76.9801, 42.5592
5.68837, 38, -26.9607, -27.073, 43.7335, -145.53, -76.9185, 42.577
5.69595, 39, -26.9204, -27.2537, 43.874, -145.404, -76.7956, 42.6177
5.70418, 39, -26.8794, -27.4336, 44.0138, -145.277, -76.6725, 42.664
5.7112, 39, -26.8374, -27.6124, 44.1528, -145.151, -76.5495, 42.7156
5.71999, 39, -26.7948, -27.7904, 44.2911, -145.024, -76.4267, 42.7734
5.72798, 39, -26.7515, -27.9683, 44.4282, -144.898, -76.3038, 42.8381
5.73601, 40, -26.7072, -28.1453, 44.5642, -144.773, -76.181, 42.9079
5.74406, 40, -26.6618, -28.3205, 44.6993, -144.648, -76.0585, 42.9848
5.75115, 40, -26.6156, -28.4943, 44.833, -144.524, -75.9366, 43.0681
5.75939, 40, -26.5684, -28.6672, 44.9655, -144.401, -75.8147, 43.1574
5.76802, 40, -26.5201, -28.8387, 45.0965, -144.278, -75.694, 43.2541
5.77597, 41, -26.4707, -29.0083, 45.2261, -144.157, -75.5736, 43.357
5.78509, 41, -26.4203, -29.1761, 45.3543, -144.036, -75.4535, 43.4671
5.79198, 41, -26.3685, -29.3429, 45.4813, -143.916, -75.3342, 43.5838
5.80007, 41, -26.3155, -29.5083, 45.6068, -143.798, -75.215, 43.7076
5.80797, 41, -26.2612, -29.6716, 45.7306, -143.68, -75.0967, 43.8387
5.81712, 42, -26.2056, -29.8329, 45.8525, -143.564, -74.9787, 43.9772
5.82413, 42, -26.1483, -29.9925, 45.9725, -143.449, -74.8611, 44.123
5.83111, 42, -26.0895, -30.1503, 46.0904, -143.336, -74.7444, 44.2756
5.83994, 42, -26.0289, -30.3059, 46.2061, -143.225, -74.6278, 44.4355
5.84798, 42, -25.9668, -30.4589, 46.3197, -143.116, -74.5121, 44.6024
5.85603, 43, -25.9028, -30.6097, 46.431, -143.009, -74.3968, 44.7765
5.86451, 43, -25.8371, -30.7583, 46.5401, -142.904, -74.2818, 44.9585
5.87211, 43, -25.7698, -30.9046, 46.6471, -142.8, -74.1675, 45.1482
5.88029, 43, -25.7009, -31.0487, 46.7522, -142.699, -74.0533, 45.3456
5.8877, 43, -25.6305, -31.1905, 46.8554, -142.599, -73.9398, 45.5505
5.89669, 43, -25.5584, -31.3302, 46.9567, -142.501, -73.8267, 45.7632
5.90458, 44, -25.4848, -31.4679, 47.0558, -142.405, -73.7141, 45.9838
5.9128, 44, -25.4092, -31.6034, 47.1525, -142.312, -73.6024, 46.2126
5.9249, 44, -25.2927, -31.8022, 47.2929, -142.175, -73.4357, 46.571
5.92799, 44, -25.253, -31.8671, 47.3386, -142.131, -73.3806, 46.6945
5.93709, 45, -25.1721, -31.995, 47.428, -142.045, -73.2708, 46.9476
5.94298, 45, -25.131, -32.0578, 47.4718, -142.003, -73.216, 47.0775
5.95103, 45, -25.0471, -32.1815, 47.5576, -141.922, -73.1069, 47.3435
5.96241, 45, -24.9174, -32.3617, 47.681, -141.804, -72.9441, 47.758
5.96712, 45, -24.8731, -32.4202, 47.7206, -141.766, -72.89, 47.9002
5.97496, 45, -24.7827, -32.5348, 47.7976, -141.693, -72.7825, 48.1908
5.98441, 46, -24.6426, -32.7004, 47.9075, -141.589, -72.622, 48.6432
5.99098, 46, -24.5947, -32.7539, 47.9426, -141.557, -72.5689, 48.7981
6.00046, 46, -24.4473, -32.9092, 48.0434, -141.464, -72.411, 49.275
6.00857, 46, -24.3463, -33.0081, 48.1067, -141.406, -72.3066, 49.6038
6.01928, 47, -24.2429, -33.1034, 48.1664, -141.353, -72.2038, 49.9404
6.02522, 47, -24.1373, -33.1947, 48.2226, -141.304, -72.1018, 50.285
6.03104, 47, -24.0835, -33.2389, 48.2493, -141.281, -72.0512, 50.4605
6.04085, 47, -23.9184, -33.3655, 48.3241, -141.217, -71.9014, 50.9997
6.04868, 47, -23.862, -33.4056, 48.3472, -141.199, -71.8027, 51.3697
6.05602, 47, -23.7471, -33.4828, 48.3904, -141.165, -71.7539, 51.5582
6.0649, 48, -23.6295, -33.5557, 48.4297, -141.136, -71.6572, 51.9414
6.0718, 48, -23.5092, -33.6242, 48.4648, -141.11, -71.5622, 52.3334
6.07897, 48, -23.3864, -33.6881, 48.4958, -141.09, -71.4687, 52.7348
6.08932, 48, -23.1974, -33.7747, 48.5346, -141.069, -71.3318, 53.3547
6.09738, 48, -23.133, -33.8261, 48.5549, -141.062, -71.2429, 53.7793
6.10319, 49, -23.0022, -33.8499, 48.5634, -141.06, -71.1992, 53.9949
6.11098, 49, -22.8684, -33.8934, 48.5771, -141.059, -71.1131, 54.4315
6.12002, 49, -22.7316, -33.9314, 48.586, -141.063, -71.0294, 54.8758
6.12796, 49, -22.5918, -33.9637, 48.5903, -141.075, -70.9476, 55.3278
6.13597, 49, -22.4492, -33.9903, 48.5901, -141.092, -70.8683, 55.7869
6.14595, 50, -22.2302, -34.019, 48.5806, -141.13, -70.7542, 56.4897
6.15197, 50, -22.1559, -34.0255, 48.5749, -141.145, -70.7175, 56.7273
6.15996, 50, -22.0053, -34.0337, 48.5596, -141.18, -70.6462, 57.2088
6.17101, 50, -21.7739, -34.0347, 48.5267, -141.245, -70.5453, 57.9455
6.17597, 50, -21.6952, -34.0319, 48.513, -141.27, -70.5133, 58.1949
6.18399, 51, -21.5355, -34.0213, 48.4813, -141.324, -70.4528, 58.6986
6.19213, 51, -21.373, -34.0039, 48.4445, -141.385, -70.3949, 59.2081
6.19903, 51, -21.2077, -33.9795, 48.402, -141.452, -70.3411, 59.7242
6.20811, 51, -21.0399, -33.9481, 48.3539, -141.525, -70.2912, 60.2462
6.21618, 51, -20.8696, -33.9095, 48.3002, -141.604, -70.2446, 60.7741
6.22389, 51, -20.6967, -33.8634, 48.2407, -141.689, -70.2024, 61.3073
6.23205, 52, -20.5212, -33.8095, 48.1752, -141.781, -70.1653, 61.8471
6.24018, 52, -20.3429, -33.7477, 48.1038, -141.88, -70.1324, 62.3935
6.2488, 52, -20.1617, -33.6778, 48.0262, -141.984, -70.104, 62.9467
6.2552, 52, -19.9778, -33.5996, 47.9424, -142.095, -70.0807, 63.5053
6.26527, 53, -19.7914, -33.5131, 47.8523, -142.213, -70.0629, 64.0704
6.27138, 53, -19.6029, -33.418, 47.7561, -142.336, -70.0504, 64.641
6.27908, 53, -19.4126, -33.3147, 47.6538, -142.466, -70.0435, 65.2166
6.28708, 53, -19.2202, -33.2033, 47.5457, -142.602, -70.0415, 65.7954
6.29598, 53, -19.0261, -33.0837, 47.4317, -142.742, -70.0446, 66.3778
6.30403, 53, -18.8303, -32.9557, 47.3118, -142.888, -70.0538, 66.9633
6.31102, 54, -18.6326, -32.8195, 47.186, -143.039, -70.0694, 67.5499
6.31933, 54, -18.4332, -32.6749, 47.0545, -143.194, -70.0915, 68.1373
6.32797, 54, -18.2317, -32.5223, 46.9176, -143.354, -70.1205, 68.7264
6.33604, 54, -18.0288, -32.3613, 46.775, -143.518, -70.1554, 69.3169
6.34419, 54, -17.8248, -32.1914, 46.6265, -143.687, -70.1968, 69.9089
6.35196, 55, -17.6199, -32.0122, 46.4716, -143.86, -70.2465, 70.5037
6.3601, 55, -17.4137, -31.8237, 46.3104, -144.038, -70.3037, 71.1028
6.36739, 55, -17.206, -31.6259, 46.1426, -144.221, -70.3688, 71.7065
6.3761, 55, -16.9965, -31.4179, 45.9671, -144.409, -70.4432, 72.3144
6.3838, 55, -16.7852, -31.1989, 45.7839, -144.602, -70.5259, 72.9274
6.39242, 56, -16.5724, -30.9696, 45.5942, -144.8, -70.6184, 73.5453
6.40021, 56, -16.3581, -30.7297, 45.3973, -145.002, -70.7196, 74.1671
6.4076, 56, -16.143, -30.4785, 45.1924, -145.209, -70.8303, 74.7917
6.41889, 56, -15.9278, -30.2169, 44.9808, -145.419, -70.9504, 75.4195
6.42431, 56, -15.7128, -29.9448, 44.7635, -145.633, -71.0798, 76.0496
6.43244, 57, -15.4969, -29.6618, 44.5389, -145.85, -71.2188, 76.6804
6.43907, 57, -15.3885, -29.5166, 44.4239, -145.959, -71.2918, 76.9962
6.44809, 57, -15.0616, -29.0654, 44.0705, -146.29, -71.5258, 77.9455
6.45496, 57, -14.9525, -28.9102, 43.9495, -146.402, -71.6085, 78.262
6.46301, 57, -14.7344, -28.5938, 43.7032, -146.626, -71.7812, 78.8931
6.47252, 58, -14.4084, -28.1038, 43.3257, -146.962, -72.0565, 79.8359
6.48132, 58, -14.1924, -27.7677, 43.0687, -147.185, -72.2496, 80.4592
6.48706, 58, -14.085, -27.5967, 42.9393, -147.296, -72.349, 80.7683
6.4972, 58, -13.7653, -27.0737, 42.5465, -147.627, -72.6576, 81.6854
6.50302, 58, -13.6594, -26.8959, 42.4139, -147.736, -72.7639, 81.9879
6.51255, 58, -13.3434, -26.353, 42.0125, -148.06, -73.0926, 82.8862
6.52135, 59, -13.1349, -25.9822, 41.74, -148.274, -73.3209, 83.4772
6.52704, 59, -13.0314, -25.7945, 41.6027, -148.38, -73.438, 83.7712
6.53739, 59, -12.723, -25.2211, 41.1847, -148.696, -73.8018, 84.648
6.54324, 59, -12.6207, -25.0267, 41.0434, -148.801, -73.9273, 84.9386
6.55462, 59, -12.3155, -24.4321, 40.6136, -149.112, -74.3168, 85.804
6.55995, 60, -12.2143, -24.2304, 40.4681, -149.214, -74.451, 86.0908
6.56941, 60, -11.9131, -23.6154, 40.0273, -149.519, -74.866, 86.9454
6.57752, 60, -11.8135, -23.1976, 39.73, -149.719, -75.1525, 87.5092
6.58399, 60, -11.6155, -22.9865, 39.5809, -149.818, -75.2986, 87.7888
6.592, 60, -11.4198, -22.5604, 39.281, -150.013, -75.5959, 88.344
6.59896, 61, -11.2265, -22.1301, 38.9799, -150.205, -75.8994, 88.8931
6.60795, 61, -11.0354, -21.6959, 38.6779, -150.392, -76.2083, 89.4344
6.61601, 61, -10.8464, -21.2581, 38.3749, -150.574, -76.5219, 89.9667
6.62412, 61, -10.6595, -20.8165, 38.0719, -150.752, -76.8405, 90.4905
6.63113, 61, -10.475, -20.371, 37.7683, -150.924, -77.1636, 91.0059
6.63893, 62, -10.2928, -19.9216, 37.4646, -151.092, -77.4918, 91.5133
6.64795, 62, -10.1134, -19.4685, 37.1597, -151.256, -77.8251, 92.0129
6.65595, 62, -9.93664, -19.0131, 36.8544, -151.415, -78.164, 92.5049
6.66296, 62, -9.76251, -18.5549, 36.5477, -151.57, -78.5086, 92.9905
6.67213, 62, -9.5909, -18.0952, 36.241, -151.72, -78.8582, 93.4681
6.68023, 63, -9.42147, -17.6348, 35.9345, -151.866, -79.2118, 93.9376
6.68801, 63, -9.25422, -17.1732, 35.6293, -152.006, -79.5688, 94.3966
6.69699, 63, -9.08959, -16.7103, 35.3263, -152.14, -79.9277, 94.8448
6.70398, 63, -8.92761, -16.2457, 35.0251, -152.269, -80.2882, 95.2823
6.71202, 63, -8.76818, -15.7787, 34.7262, -152.391, -80.6498, 95.7082
6.72013, 63, -8.61134, -15.3097, 34.429, -152.508, -81.0138, 96.1239
6.72732, 64, -8.4568, -14.839, 34.1336, -152.621, -81.3809, 96.5292
6.73597, 64, -8.30467, -14.3667, 33.8378, -152.728, -81.7523, 96.9251
6.74685, 64, -8.08066, -13.6577, 33.3938, -152.881, -82.3194, 97.5031
6.75215, 64, -8.0071, -13.4215, 33.2455, -152.93, -82.511, 97.691
6.75927, 65, -7.86178, -12.9495, 32.9499, -153.023, -82.8971, 98.0589
6.76744, 65, -7.719, -12.4788, 32.6561, -153.111, -83.2857, 98.4155
6.77512, 65, -7.5791, -12.0089, 32.3652, -153.194, -83.675, 98.7585
6.78353, 65, -7.4424, -11.5399, 32.0789, -153.27, -84.0638, 99.087
6.79106, 65, -7.30878, -11.0715, 31.7967, -153.34, -84.4508, 99.4007
6.79929, 65, -7.1782, -10.6044, 31.5196, -153.403, -84.8362, 99.6992
6.80855, 66, -7.05006, -10.1404, 31.2462, -153.461, -85.2196, 99.9821
6.81499, 66, -6.92401, -9.68023, 30.9768, -153.513, -85.6023, 100.249
6.82394, 66, -6.80002, -9.22589, 30.7116, -153.559, -85.9843, 100.501
6.83195, 66, -6.6782, -8.77831, 30.4498, -153.601, -86.3649, 100.737
6.84022, 67, -6.55853, -8.33685, 30.1927, -153.636, -86.7433, 100.956
6.84766, 67, -6.44157, -7.9017, 29.9405, -153.666, -87.1181, 101.157
6.85681, 67, -6.32772, -7.47269, 29.6946, -153.69, -87.4883, 101.341
6.86399, 67, -6.21666, -7.04959, 29.456, -153.708, -87.853, 101.508
6.87333, 67, -6.1083, -6.63241, 29.224, -153.72, -88.2116, 101.656
6.88345, 67, -6.00246, -6.22167, 28.9987, -153.729, -88.7394, 101.845
6.88817, 68, -5.8988, -5.81752, 28.7799, -153.73, -88.9131, 101.9
6.89554, 68, -5.79695, -5.41915, 28.5655, -153.729, -89.258, 101.995
6.90596, 68, -5.69674, -5.02674, 28.3551, -153.723, -89.6005, 102.074
6.91156, 68, -5.64725, -4.83252, 28.1484, -153.712, -89.9421, 102.134
6.91995, 68, -5.5012, -4.25753, 27.9444, -153.697, -90.2826, 102.176
6.92838, 69, -5.40597, -3.87914, 27.7438, -153.677, -90.6225, 102.199
6.93893, 69, -5.31255, -3.50453, 27.5476, -153.653, -90.9621, 102.206
6.94397, 69, -5.22068, -3.13326, 27.355, -153.624, -91.3009, 102.192
6.95242, 69, -5.13082, -2.76614, 27.1654, -153.592, -91.639, 102.157
6.96013, 69, -5.04252, -2.40207, 26.9798, -153.555, -91.9759, 102.1
6.96697, 70, -4.99888, -2.22136, 26.8886, -153.536, -92.1438, 102.064
6.97626, 70, -4.86988, -1.68581, 26.6204, -153.471, -92.6453, 101.921
6.98301, 70, -4.82751, -1.50978, 26.5326, -153.447, -92.8117, 101.862
6.9932, 70, -4.70187, -0.989613, 26.276, -153.373, -93.3076, 101.653
6.99914, 70, -4.66056, -0.818856, 26.1927, -153.346, -93.4718, 101.573
7.00704, 71, -4.57871, -0.482568, 26.0288, -153.29, -93.7978, 101.395
7.01729, 71, -4.45797, 0.00981167, 25.7909, -153.202, -94.281, 101.09
7.02446, 71, -4.41824, 0.329337, 25.6393, -153.139, -94.5983, 100.86
7.0334, 71, -4.30027, 0.643032, 25.4928, -153.075, -94.9117, 100.61
7.03895, 71, -4.26133, 0.797393, 25.4212, -153.042, -95.067, 100.477
7.04888, 72, -4.14584, 1.25008, 25.2136, -152.94, -95.5271, 100.05
7.05986, 72, -4.06931, 1.54344, 25.0805, -152.87, -95.8296, 99.7405
7.0639, 72, -4.03115, 1.6875, 25.0153, -152.834, -95.9797, 99.5779
7.07504, 72, -3.91703, 2.11085, 24.8249, -152.726, -96.426, 99.0595
7.08099, 72, -3.87901, 2.38527, 24.7018, -152.654, -96.7205, 98.6876
7.08698, 72, -3.80302, 2.52014, 24.6414, -152.617, -96.867, 98.4934
7.09595, 73, -3.72718, 2.78573, 24.5229, -152.544, -97.1579, 98.0884
7.10295, 73, -3.65111, 3.04519, 24.4077, -152.47, -97.4464, 97.6609
7.11193, 73, -3.57474, 3.29816, 24.296, -152.396, -97.7323, 97.2105
7.11904, 73, -3.49801, 3.54503, 24.188, -152.323, -98.0151, 96.7391
7.12708, 73, -3.4209, 3.78495, 24.084, -152.251, -98.2945, 96.2463
7.13592, 74, -3.34315, 4.01652, 23.984, -152.18, -98.5699, 95.7342
7.14294, 74, -3.26471, 4.2399, 23.8878, -152.111, -98.8401, 95.2047
7.15194, 74, -3.18568, 4.45465, 23.7958, -152.043, -99.1045, 94.6603
7.15897, 74, -3.10603, 4.65961, 23.708, -151.977, -99.3626, 94.1034
7.16799, 74, -3.02564, 4.85488, 23.6246, -151.914, -99.6134, 93.5348
7.17609, 75, -2.94438, 5.0407, 23.5455, -151.853, -99.856, 92.9568
7.18868, 75, -2.82067, 5.29968, 23.4348, -151.768, -100.203, 92.0763
7.19089, 75, -2.77893, 5.3805, 23.3998, -151.74, -100.314, 91.7792
7.2001, 75, -2.69478, 5.53416, 23.3329, -151.689, -100.53, 91.1801
7.21024, 75, -2.6098, 5.67697, 23.2402, -151.617, -100.835, 90.2692
7.21494, 76, -2.52379, 5.80846, 23.2115, -151.595, -100.932, 89.9622
7.22607, 76, -2.43678, 5.98411, 23.1317, -151.534, -101.209, 89.0277
7.23101, 76, -2.34898, 6.03671, 23.1072, -151.516, -101.297, 88.7117
7.24, 76, -2.26038, 6.13271, 23.0615, -151.483, -101.465, 88.0736
7.24799, 76, -2.17102, 6.21618, 23.0204, -151.452, -101.624, 87.4292
7.25858, 77, -2.03532, 6.31713, 22.9683, -151.415, -101.84, 86.4527
7.26403, 77, -1.98965, 6.34426, 22.9536, -151.405, -101.906, 86.1267
7.27104, 77, -1.89759, 6.38835, 22.9284, -151.387, -102.027, 85.4764
7.27993, 77, -1.80466, 6.41833, 22.9089, -151.374, -102.134, 84.8282
7.28798, 77, -1.71088, 6.43429, 22.8953, -151.364, -102.226, 84.1834
7.29597, 78, -1.61626, 6.43584, 22.8875, -151.358, -102.303, 83.5436
7.30412, 78, -1.52095, 6.42222, 22.8852, -151.354, -102.365, 82.9079
7.31271, 78, -1.42506, 6.39333, 22.8884, -151.354, -102.411, 82.2754
7.32, 78, -1.32881, 6.34886, 22.8977, -151.357, -102.441, 81.6473
7.32824, 78, -1.23221, 6.28823, 22.913, -151.363, -102.456, 81.0247
7.33612, 79, -1.13542, 6.21156, 22.9351, -151.373, -102.455, 80.4073
7.34393, 79, -1.03849, 6.11869, 22.9641, -151.386, -102.436, 79.7966
7.35194, 79, -0.941478, 6.00971, 23.0005, -151.402, -102.399, 79.1944
7.36001, 79, -0.844508, 5.88457, 23.0443, -151.421, -102.345, 78.6016
7.36801, 79, -0.747533, 5.74282, 23.0957, -151.442, -102.273, 78.0184
7.37547, 79, -0.650516, 5.58459, 23.1547, -151.467, -102.183, 77.4453
7.38432, 80, -0.553409, 5.40976, 23.2211, -151.493, -102.075, 76.8831
7.39146, 80, -0.456297, 5.21846, 23.2955, -151.52, -101.948, 76.3316
7.40438, 80, -0.310984, 4.89996, 23.4222, -151.565, -101.723, 75.5217
7.40824, 80, -0.262553, 4.78472, 23.4685, -151.581, -101.638, 75.2565
7.4161, 80, -0.16584, 4.5406, 23.5677, -151.614, -101.455, 74.7334
7.42429, 81, -0.117549, 4.41214, 23.6207, -151.63, -101.356, 74.2201
7.43177, 81, -0.0210707, 4.14291, 23.7928, -151.682, -101.031, 73.7155
7.44085, 81, 0.123243, 3.70715, 23.9192, -151.717, -100.79, 73.2204
7.4483, 81, 0.219292, 3.3956, 24.0554, -151.754, -100.529, 72.7345
7.45599, 81, 0.315029, 3.06636, 24.2015, -151.792, -100.25, 72.2587
7.46557, 82, 0.410588, 2.72079, 24.3573, -151.829, -99.9511, 71.7922
7.47218, 82, 0.505808, 2.35855, 24.5222, -151.866, -99.6332, 71.335
7.47896, 82, 0.553346, 2.17168, 24.6083, -151.885, -99.4674, 71.1102
7.48839, 82, 0.695649, 1.5863, 24.8809, -151.941, -98.9432, 70.45
7.49646, 82, 0.790394, 1.17555, 25.0743, -151.977, -98.5718, 70.0231
7.50473, 83, 0.885113, 0.74963, 25.2769, -152.013, -98.1841, 69.6061
7.51477, 83, 0.979801, 0.309311, 25.4898, -152.048, -97.7803, 69.1995
7.5189, 83, 1.02717, 0.0837611, 25.6, -152.065, -97.5726, 69.0003
7.53383, 83, 1.21684, -0.854994, 26.0626, -152.129, -96.7033, 68.2278
7.5365, 83, 1.21684, -0.854994, 26.0626, -152.129, -96.4765, 68.0409
7.5447, 84, 1.31183, -1.34571, 26.3083, -152.159, -96.2459, 67.674
7.55259, 84, 1.40712, -1.85004, 26.5636, -152.202, -95.5312, 67.3149
7.55998, 84, 1.50268, -2.36741, 26.8296, -152.215, -95.2854, 67.1381
7.56798, 84, 1.59848, -2.89839, 27.1057, -152.241, -94.7819, 66.7903
7.57592, 84, 1.6947, -3.4429, 27.3921, -152.265, -94.263, 66.4493
7.586, 85, 1.83975, -4.28449, 27.8413, -152.298, -93.457, 65.9508
7.59117, 85, 1.88821, -4.57125, 27.996, -152.308, -93.1808, 65.7885
7.60125, 85, 2.03414, -5.44772, 28.4751, -152.336, -92.3304, 65.3132
7.607, 85, 2.08297, -5.74504, 28.6394, -152.344, -92.0414, 65.1587
7.61616, 85, 2.18092, -6.34631, 28.9749, -152.358, -91.4555, 64.8561
7.62292, 85, 2.27958, -6.95541, 29.3186, -152.369, -90.8592, 64.5631
7.63197, 86, 2.37889, -7.57204, 29.6704, -152.378, -90.253, 64.2796
7.64156, 86, 2.47917, -8.50823, 30.2111, -152.385, -89.3273, 63.8738
7.65013, 86, 2.58042, -8.82346, 30.3943, -152.386, -89.0148, 63.6173
7.65499, 86, 2.68242, -9.45792, 30.765, -152.387, -88.3871, 63.4935
7.664, 86, 2.78554, -10.0964, 31.141, -152.385, -87.7555, 63.2544
7.67191, 87, 2.8897, -10.7386, 31.5225, -152.378, -87.1181, 63.0269
7.679, 87, 2.99443, -11.3833, 31.9084, -152.368, -86.4752, 62.8116
7.69126, 87, 3.15348, -12.3543, 32.4953, -152.346, -85.5026, 62.5121
7.69494, 87, 3.20688, -12.6788, 32.6933, -152.337, -85.1767, 62.4187
7.70394, 87, 3.31413, -13.3292, 33.0927, -152.315, -84.5225, 62.2418
7.71198, 88, 3.42209, -13.9814, 33.4968, -152.29, -83.8641, 62.0781
7.7202, 88, 3.53069, -14.6357, 33.9047, -152.261, -83.2018, 61.9279
7.72789, 88, 3.64003, -15.2914, 34.317, -152.228, -82.5357, 61.7918
7.73593, 88, 3.75006, -15.9479, 34.7334, -152.19, -81.866, 61.67
7.74398, 88, 3.86049, -16.605, 35.1536, -152.147, -81.1946, 61.5635
7.75191, 89, 3.97134, -17.2615, 35.5779, -152.1, -80.5204, 61.4731
7.75993, 89, 4.08241, -17.9165, 36.0053, -152.048, -79.8434, 61.4
7.77461, 89, 4.30464, -19.2194, 36.8675, -151.927, -78.4794, 61.3076
7.77663, 89, 4.30464, -19.2194, 36.8675, -151.927, -78.4794, 61.3076
7.7845, 89, 4.41572, -19.8654, 37.3, -151.858, -77.7979, 61.29
7.79191, 90, 4.52685, -20.5066, 37.732, -151.785, -77.1185, 61.2924
7.79998, 90, 4.63869, -21.1437, 38.1636, -151.705, -76.4404, 61.3192
7.80791, 90, 4.75075, -21.7762, 38.5938, -151.619, -75.7649, 61.3696
7.81592, 90, 4.863, -22.4043, 39.0222, -151.529, -75.0936, 61.4441
7.82494, 90, 4.97523, -23.0279, 39.4492, -151.432, -74.4283, 61.5452
7.83594, 91, 5.1433, -23.955, 40.0872, -151.275, -73.4349, 61.7467
7.83992, 91, 5.19919, -24.2612, 40.2994, -151.22, -73.1042, 61.828
7.84804, 91, 5.31049, -24.8691, 40.7237, -151.104, -72.4432, 62.012
7.85606, 91, 5.42099, -25.4709, 41.1469, -150.981, -71.7814, 62.2256
7.8633, 91, 5.53067, -26.0655, 41.5695, -150.852, -71.1195, 62.4694
7.87603, 92, 5.63986, -26.6525, 41.9907, -150.716, -70.1303, 62.894
7.87996, 92, 5.74915, -27.2318, 42.4098, -150.575, -69.8016, 63.0513
7.88814, 92, 5.85901, -27.8029, 42.8252, -150.428, -69.1463, 63.3889
7.89639, 92, 5.96947, -28.3652, 43.2354, -150.276, -68.4945, 63.7579
7.90431, 92, 6.08076, -28.9174, 43.6398, -150.12, -67.8471, 64.1585
7.91158, 92, 6.19334, -29.4585, 44.0377, -149.961, -67.2069, 64.59
7.92002, 93, 6.30744, -29.9889, 44.4288, -149.8, -66.572, 65.0539
7.93271, 93, 6.42357, -30.7656, 45.0044, -149.554, -65.6266, 65.8091
7.93597, 93, 6.54193, -31.0201, 45.1934, -149.472, -65.313, 66.0776
7.94295, 93, 6.60189, -31.2732, 45.3815, -149.39, -64.9998, 66.355
7.95106, 93, 6.7235, -31.7748, 45.7539, -149.225, -64.3741, 66.938
7.96004, 94, 6.91017, -32.5176, 46.3066, -148.975, -63.4324, 67.8928
7.96698, 94, 6.97358, -32.7629, 46.4895, -148.892, -63.1156, 68.235
7.97717, 94, 7.16668, -33.4889, 47.0362, -148.641, -62.1561, 69.3413
7.98298, 94, 7.23215, -33.7272, 47.2173, -148.559, -61.8331, 69.7364
7.99235, 94, 7.43379, -34.4307, 47.7543, -148.317, -60.8556, 71.0003
8.00036, 95, 7.57358, -34.8883, 48.1037, -148.164, -60.2044, 71.9085
8.00837, 95, 7.71894, -35.3354, 48.4431, -148.022, -59.5571, 72.8583
8.01491, 95, 7.79394, -35.5546, 48.6086, -147.956, -59.2355, 73.349
8.02452, 95, 8.02875, -36.19, 49.085, -147.78, -58.2828, 74.8758
8.03254, 95, 8.1938, -36.5899, 49.3833, -147.684, -57.659, 75.9362
8.04051, 96, 8.27892, -36.9696, 49.6655, -147.607, -57.048, 77.0281
8.04854, 96, 8.45428, -37.1511, 49.8001, -147.576, -56.4517, 78.1495
8.0572, 96, 8.63549, -37.6603, 50.1787, -147.514, -55.8695, 79.2958
8.06291, 96, 8.82189, -37.8174, 50.2961, -147.504, -55.5843, 79.877
8.07191, 96, 9.01296, -38.1124, 50.5162, -147.498, -55.0275, 81.0505
8.0799, 96, 9.20725, -38.3826, 50.7168, -147.513, -54.4909, 82.2347
8.08791, 97, 9.40318, -38.6272, 50.8981, -147.551, -53.9771, 83.4291
8.09492, 97, 9.5994, -38.8464, 51.0586, -147.609, -53.4884, 84.6274
8.10393, 97, 9.79487, -39.0412, 51.1989, -147.688, -53.0263, 85.8196
8.1119, 97, 9.98888, -39.2111, 51.3196, -147.783, -52.5932, 86.999
8.11896, 97, 10.1804, -39.3552, 51.4206, -147.894, -52.1899, 88.1577
8.12792, 97, 10.3683, -39.4739, 51.5026, -148.017, -51.8174, 89.2896
8.13489, 98, 10.5524, -39.5674, 51.5663, -148.151, -51.4757, 90.3872
8.1439, 98, 10.7341, -39.6369, 51.612, -148.295, -51.164, 91.4527
8.15191, 98, 10.9142, -39.6835, 51.6403, -148.448, -50.8804, 92.493
8.15997, 98, 11.0926, -39.7071, 51.6513, -148.612, -50.621, 93.5224
8.16791, 98, 11.2689, -39.7073, 51.6457, -148.789, -50.3825, 94.5554
8.17591, 98, 11.444, -39.684, 51.6228, -148.979, -50.1627, 95.6024
8.18491, 98, 11.6195, -39.6369, 51.5822, -149.182, -49.9619, 96.6711
8.1919, 99, 11.7947, -39.5665, 51.5239, -149.399, -49.7817, 97.7605
8.20088, 99, 11.9684, -39.4735, 51.4471, -149.627, -49.6244, 98.8665
8.20799, 99, 12.1392, -39.3578, 51.3517, -149.864, -49.4937, 99.9781
8.2159, 99, 12.3064, -39.2199, 51.2383, -150.106, -49.3924, 101.085
8.22395, 99, 12.4682, -39.0597, 51.1076, -150.35, -49.3221, 102.174
8.2319, 99, 12.6227, -38.8773, 50.9609, -150.593, -49.2824, 103.24
8.23991, 100, 12.7687, -38.6708, 50.7985, -150.833, -49.2743, 104.274
8.24877, 100, 12.9058, -38.4401, 50.6196, -151.068, -49.2981, 105.279
8.25496, 100, 13.0338, -38.1868, 50.4235, -151.297, -49.3534, 106.256
8.2639, 100, 13.1534, -37.9114, 50.2111, -151.52, -49.4399, 107.21
8.27328, 100, 13.2648, -37.6152, 49.9809, -151.737, -49.5577, 108.139
8.2799, 100, 13.368, -37.2959, 49.7325, -151.948, -49.7061, 109.047
8.28799, 101, 13.4631, -36.9526, 49.4675, -152.151, -49.8847, 109.933
8.2959, 101, 13.5502, -36.5836, 49.1851, -152.345, -50.0931, 110.796
8.30398, 101, 13.6295, -36.1882, 48.8857, -152.53, -50.3314, 111.637
8.31198, 101, 13.7005, -35.767, 48.5679, -152.706, -50.6001, 112.454
8.31989, 101, 13.7634, -35.3221, 48.2318, -152.872, -50.9005, 113.25
8.33319, 102, 13.8418, -34.6109, 47.6936, -153.101, -51.413, 114.406
8.33586, 102, 13.8636, -34.362, 47.5053, -153.172, -51.6008, 114.779
8.34396, 102, 13.8999, -33.846, 47.1151, -153.304, -52.0011, 115.51
8.35194, 102, 13.9272, -33.3061, 46.7085, -153.423, -52.4347, 116.218
8.35999, 102, 13.9456, -32.7436, 46.2869, -153.528, -52.9008, 116.898
8.36791, 102, 13.9556, -32.159, 45.851, -153.619, -53.3965, 117.554
8.37595, 103, 13.9578, -31.553, 45.4015, -153.696, -53.9191, 118.182
8.38422, 103, 13.9528, -30.9279, 44.9397, -153.759, -54.4663, 118.782
8.39141, 103, 13.9411, -30.2861, 44.4672, -153.809, -55.0354, 119.355
8.39999, 103, 13.9234, -29.6297, 43.9852, -153.845, -55.6232, 119.902
8.40837, 103, 13.8999, -28.9594, 43.4957, -153.87, -56.2284, 120.421
8.41562, 103, 13.8714, -28.2773, 43, -153.883, -56.8487, 120.915
8.42401, 104, 13.8386, -27.585, 42.4995, -153.887, -57.4815, 121.382
8.43261, 104, 13.8016, -26.8844, 41.9955, -153.879, -58.1272, 121.827
8.43993, 104, 13.761, -26.1767, 41.4887, -153.861, -58.7872, 122.25
8.44695, 104, 13.7396, -25.8207, 41.2345, -153.85, -59.1217, 122.454
8.45678, 104, 13.6721, -24.7482, 40.4705, -153.802, -60.1418, 123.042
8.46416, 104, 13.625, -24.0297, 39.9603, -153.761, -60.8311, 123.416
8.47095, 104, 13.6008, -23.6695, 39.7055, -153.738, -61.1778, 123.6
8.48022, 104, 13.526, -22.5866, 38.942, -153.662, -62.2262, 124.139
8.4869, 104, 13.5006, -22.2253, 38.688, -153.633, -62.5772, 124.317
8.49628, 104, 13.4233, -21.1402, 37.9286, -153.542, -63.633, 124.844
8.50292, 104, 13.3973, -20.7786, 37.6762, -153.509, -63.9852, 125.019
8.51273, 104, 13.3188, -19.6939, 36.9214, -153.405, -65.0427, 125.541
8.52041, 104, 13.2663, -18.9704, 36.4206, -153.33, -65.7499, 125.887
8.5285, 104, 13.2137, -18.2467, 35.9216, -153.252, -66.4577, 126.232
8.53646, 104, 13.1615, -17.523, 35.4255, -153.17, -67.1664, 126.577
8.54451, 104, 13.1095, -16.7987, 34.9315, -153.083, -67.8749, 126.922
8.55262, 104, 13.0578, -16.0744, 34.4391, -152.993, -68.5833, 127.266
8.56076, 104, 13.0321, -15.7121, 34.1938, -152.946, -68.9382, 127.438
8.56789, 104, 12.981, -14.9875, 33.7048, -152.85, -69.6494, 127.781
8.57594, 104, 12.93, -14.2622, 33.218, -152.75, -70.3612, 128.124
8.58291, 104, 12.8795, -13.5371, 32.7342, -152.647, -71.0719, 128.468
8.59195, 104, 12.8294, -12.8117, 32.2531, -152.539, -71.7827, 128.812
8.59993, 104, 12.7793, -12.0859, 31.7746, -152.428, -72.4957, 129.156
8.60692, 104, 12.7298, -11.3608, 31.2985, -152.312, -73.2087, 129.501
8.61589, 104, 12.6807, -10.6356, 30.8248, -152.193, -73.922, 129.847
8.62399, 104, 12.6319, -9.91013, 30.3543, -152.07, -74.6354, 130.193
8.6309, 104, 12.5833, -9.1845, 29.8867, -151.942, -75.3487, 130.54
8.63989, 104, 12.5355, -8.45837, 29.4221, -151.811, -76.0635, 130.888
8.64794, 104, 12.488, -7.73232, 28.9611, -151.676, -76.7785, 131.237
8.6549, 104, 12.441, -7.00661, 28.5031, -151.536, -77.4947, 131.587
8.66391, 104, 12.3947, -6.28137, 28.0485, -151.392, -78.2101, 131.939
8.67202, 104, 12.3489, -5.55641, 27.5973, -151.244, -78.9243, 132.291
8.67994, 104, 12.3036, -4.83213, 27.1497, -151.092, -79.6399, 132.644
8.68789, 104, 12.2593, -4.10919, 26.7064, -150.936, -80.3562, 133
8.6969, 104, 12.2161, -3.38902, 26.268, -150.776, -81.0717, 133.356
8.70389, 104, 12.174, -2.674, 25.8346, -150.612, -81.783, 133.713
8.71197, 104, 12.1332, -1.96512, 25.4072, -150.444, -82.4909, 134.07
8.71995, 104, 12.0935, -1.26369, 24.9876, -150.273, -83.1948, 134.426
8.7279, 104, 12.0547, -0.571141, 24.5763, -150.1, -83.8908, 134.779
8.73589, 104, 12.017, 0.111332, 24.1751, -149.925, -84.5764, 135.13
8.74396, 104, 11.9802, 0.783005, 23.7848, -149.749, -85.2487, 135.476
8.75194, 104, 11.9446, 1.44208, 23.4072, -149.573, -85.9062, 135.817
8.75903, 104, 11.9102, 2.08759, 23.0423, -149.397, -86.5495, 136.152
8.76789, 104, 11.8769, 2.71764, 22.69, -149.221, -87.1769, 136.481
8.7759, 104, 11.8446, 3.33157, 22.3503, -149.046, -87.7883, 136.803
8.78396, 104, 11.8137, 3.92885, 22.0241, -148.873, -88.3831, 137.118
8.79199, 104, 11.7841, 4.50893, 21.7104, -148.7, -88.96, 137.427
8.79988, 104, 11.7557, 5.07253, 21.409, -148.529, -89.5199, 137.729
8.80796, 104, 11.7288, 5.61899, 21.1185, -148.36, -90.0647, 138.023
8.8159, 104, 11.7029, 6.14818, 20.8404, -148.193, -90.5929, 138.31
8.82391, 104, 11.6782, 6.66069, 20.5739, -148.028, -91.1048, 138.591
8.832, 104, 11.6547, 7.15627, 20.3192, -147.865, -91.6001, 138.864
8.83988, 104, 11.6323, 7.63498, 20.0759, -147.706, -92.0778, 139.129
8.84789, 104, 11.611, 8.09736, 19.8432, -147.549, -92.539, 139.386
8.85595, 104, 11.5909, 8.54283, 19.6217, -147.395, -92.9836, 139.636
8.8639, 104, 11.5719, 8.97091, 19.4112, -147.245, -93.4117, 139.878
8.87194, 104, 11.5541, 9.382, 19.2105, -147.099, -93.8228, 140.112
8.88001, 104, 11.5373, 9.77535, 19.0204, -146.957, -94.2168, 140.336
8.88797, 104, 11.5216, 10.1507, 18.8412, -146.819, -94.5932, 140.552
8.89647, 104, 11.507, 10.5069, 18.6722, -146.687, -94.9513, 140.759
8.904, 104, 11.4934, 10.8439, 18.5136, -146.56, -95.2905, 140.956
8.91203, 104, 11.4808, 11.1614, 18.3661, -146.439, -95.6098, 141.142
8.92006, 104, 11.4692, 11.4582, 18.2292, -146.324, -95.9087, 141.317
8.92798, 104, 11.4587, 11.7346, 18.1028, -146.216, -96.1869, 141.48
8.93589, 104, 11.4493, 11.9896, 17.987, -146.116, -96.4435, 141.631
8.94413, 104, 11.4405, 12.2233, 17.8818, -146.024, -96.6783, 141.77
8.95189, 104, 11.4325, 12.4361, 17.787, -145.939, -96.8913, 141.897
8.96, 104, 11.4252, 12.628, 17.7027, -145.863, -97.0822, 142.011
8.96688, 104, 11.422, 12.7158, 17.6644, -145.828, -97.1694, 142.063
8.97612, 104, 11.4131, 12.9483, 17.5644, -145.736, -97.3979, 142.199
8.98301, 104, 11.4104, 13.0159, 17.5359, -145.709, -97.463, 142.238
8.99235, 104, 11.403, 13.1904, 17.4644, -145.643, -97.6276, 142.337
8.9989, 104, 11.4008, 13.2393, 17.4449, -145.625, -97.6721, 142.363
9.00836, 104, 11.3947, 13.361, 17.3982, -145.581, -97.7788, 142.427
9.01488, 104, 11.3928, 13.3941, 17.3864, -145.57, -97.8056, 142.444
9.02447, 104, 11.3878, 13.4738, 17.3601, -145.545, -97.8652, 142.48
9.03248, 104, 11.3851, 13.5124, 17.3489, -145.534, -97.8907, 142.495
9.04054, 104, 11.3829, 13.5412, 17.3416, -145.527, -97.9078, 142.505
9.04898, 104, 11.3812, 13.5626, 17.3371, -145.523, -97.9182, 142.51
9.05641, 104, 11.3805, 13.5709, 17.3355, -145.521, -97.9215, 142.513
9.06465, 104, 11.3793, 13.5834, 17.3336, -145.52, -97.927, 142.515
9.07307, 105, 11.3781, 13.5951, 17.3323, -145.519, -97.9284, 142.515
9.07896, 105, 11.3778, 13.5976, 17.3321, -145.519, -97.9287, 142.516
9.08902, 105, 11.3771, 13.6027, 17.3318, -145.518, -97.9293, 142.516
9.09488, 105, 11.377, 13.6039, 17.3318, -145.518, -97.9294, 142.516
9.10389, 105, 11.3767, 13.6061, 17.3317, -145.518, -97.9295, 142.516
9.112, 105, 11.3765, 13.6079, 17.3317, -145.518, -97.9295, 142.516
9.11987, 105, 11.3764, 13.6094, 17.3317, -145.518, -97.9295, 142.516
9.12791, 105, 11.3762, 13.6108, 17.3317, -145.518, -97.9294, 142.516
9.13592, 105, 11.3761, 13.612, 17.3317, -145.518, -97.9294, 142.516
9.14389, 105, 11.376, 13.6129, 17.3317, -145.518, -97.9293, 142.516
9.15193, 105, 11.376, 13.6138, 17.3317, -145.518, -97.9292, 142.516
9.15993, 105, 11.376, 13.6144, 17.3317, -145.518, -97.929, 142.516
9.16787, 105, 11.376, 13.6148, 17.3318, -145.518, -97.9288, 142.516
9.17584, 105, 11.376, 13.6151, 17.3318, -145.518, -97.9287, 142.516
9.18395, 105, 11.376, 13.6153, 17.3319, -145.518, -97.9286, 142.516
9.19193, 105, 11.376, 13.6154, 17.3319, -145.518, -97.9285, 142.516
