hehonglu123/Motion-Primitive-Planning/ILC/recorded_data/realrobot/wood/iteration_35/run_0.csv
timestamp, cmd_num, J1, J2, J3, J4, J5, J6
0.000472, -1, 11.3766, 13.6164, 17.3324, -145.52, -97.9269, 142.517
0.006452, -1, 11.3766, 13.6164, 17.3324, -145.52, -97.9269, 142.517
0.009195, -1, 11.3766, 13.6164, 17.3324, -145.52, -97.9269, 142.517
0.030653, -1, 11.3766, 13.6164, 17.3324, -145.52, -97.927, 142.517
0.03482, -1, 11.3766, 13.6164, 17.3324, -145.52, -97.927, 142.517
0.036886, -1, 11.3766, 13.6164, 17.3324, -145.52, -97.927, 142.517
0.040331, -1, 11.3766, 13.6164, 17.3324, -145.52, -97.927, 142.517
0.047034, -1, 11.3766, 13.6164, 17.3324, -145.52, -97.927, 142.517
0.055492, -1, 11.3764, 13.6163, 17.3324, -145.52, -97.9269, 142.517
0.063032, -1, 11.375, 13.6163, 17.3323, -145.52, -97.9269, 142.517
0.072699, -1, 11.3669, 13.6153, 17.3318, -145.52, -97.9269, 142.517
0.080628, -1, 11.3558, 13.6135, 17.3311, -145.52, -97.9269, 142.515
0.088616, -1, 11.3384, 13.6101, 17.3302, -145.521, -97.9268, 142.508
0.096646, -1, 11.3116, 13.6042, 17.3291, -145.525, -97.9263, 142.487
0.105391, -1, 11.2733, 13.595, 17.3284, -145.531, -97.9247, 142.447
0.11103, -1, 11.2497, 13.5891, 17.3282, -145.536, -97.9233, 142.418
0.120912, -1, 11.1938, 13.5752, 17.3289, -145.56, -97.916, 142.286
0.1299, -1, 11.0884, 13.5479, 17.3337, -145.583, -97.9082, 142.155
0.136045, -1, 11.0473, 13.5367, 17.3366, -145.597, -97.9035, 142.077
0.144118, -1, 10.9562, 13.5119, 17.344, -145.628, -97.8922, 141.895
0.154859, -1, 10.7989, 13.4684, 17.3586, -145.684, -97.8722, 141.566
0.160179, -1, 10.741, 13.4524, 17.3641, -145.705, -97.8649, 141.445
0.168038, -1, 10.6172, 13.4179, 17.3754, -145.749, -97.8497, 141.191
0.176035, -1, 10.4833, 13.3809, 17.3862, -145.794, -97.8339, 140.925
0.183029, -1, 10.3416, 13.3419, 17.3966, -145.841, -97.8179, 140.653
0.192043, -1, 10.1942, 13.3017, 17.4065, -145.888, -97.8015, 140.377
0.200164, -1, 10.0431, 13.2608, 17.4165, -145.936, -97.7847, 140.099
0.207067, -1, 9.88939, 13.2193, 17.4265, -145.984, -97.7675, 139.82
0.21604, -1, 9.73405, 13.1778, 17.4366, -146.032, -97.7502, 139.541
0.224103, -1, 9.57865, 13.1363, 17.4467, -146.08, -97.733, 139.261
0.232041, -1, 9.42369, 13.0949, 17.4566, -146.128, -97.716, 138.982
0.240109, -1, 9.26908, 13.0537, 17.4665, -146.176, -97.6993, 138.702
0.248095, -1, 9.11486, 13.0125, 17.4765, -146.224, -97.6825, 138.422
0.256051, -1, 8.96109, 12.9713, 17.4867, -146.272, -97.6657, 138.142
0.264106, -1, 8.80737, 12.9301, 17.4968, -146.32, -97.6487, 137.863
0.272035, -1, 8.65402, 12.889, 17.507, -146.368, -97.6314, 137.583
0.280111, -1, 8.5012, 12.8477, 17.5171, -146.416, -97.6138, 137.302
0.287031, -1, 8.34842, 12.8064, 17.5273, -146.464, -97.5964, 137.022
0.296036, -1, 8.19525, 12.7649, 17.5375, -146.512, -97.5791, 136.742
0.304037, -1, 8.0416, 12.7232, 17.5477, -146.56, -97.5622, 136.462
0.312133, -1, 7.88739, 12.6815, 17.558, -146.608, -97.5455, 136.181
0.319061, -1, 7.73265, 12.6397, 17.5681, -146.656, -97.5288, 135.901
0.327181, -1, 7.57769, 12.598, 17.5783, -146.704, -97.5121, 135.621
0.335397, -1, 7.42266, 12.5564, 17.5886, -146.752, -97.4951, 135.341
0.343163, -1, 7.26761, 12.5148, 17.5988, -146.8, -97.4778, 135.06
0.351202, -1, 7.11262, 12.4733, 17.6091, -146.848, -97.4604, 134.78
0.489222, -1, 4.47638, 11.7679, 17.7859, -147.666, -97.1698, 130.008
0.490488, -1, 4.47638, 11.7679, 17.7859, -147.666, -97.1698, 130.008
0.492465, -1, 4.39857, 11.7472, 17.7911, -147.691, -97.1611, 129.867
0.494643, -1, 4.39857, 11.7472, 17.7911, -147.691, -97.1611, 129.867
0.496775, -1, 4.32081, 11.7265, 17.7963, -147.715, -97.1524, 129.727
0.497967, -1, 4.32081, 11.7265, 17.7963, -147.715, -97.1524, 129.727
0.499902, -1, 4.24311, 11.7058, 17.8015, -147.739, -97.1439, 129.586
0.504403, -1, 4.24311, 11.7058, 17.8015, -147.739, -97.1439, 129.586
0.505817, -1, 4.1655, 11.685, 17.8068, -147.763, -97.1354, 129.446
0.507018, -1, 4.1655, 11.685, 17.8068, -147.763, -97.1354, 129.446
0.50922, -1, 4.08801, 11.6643, 17.812, -147.787, -97.1269, 129.305
0.510568, -1, 4.08801, 11.6643, 17.812, -147.787, -97.1269, 129.305
0.512734, -1, 4.01064, 11.6436, 17.8173, -147.811, -97.1184, 129.164
0.514008, -1, 4.01064, 11.6436, 17.8173, -147.811, -97.1184, 129.164
0.515933, -1, 3.93337, 11.6229, 17.8224, -147.835, -97.11, 129.024
0.521779, -1, 3.85617, 11.6022, 17.8276, -147.86, -97.1015, 128.883
0.523067, -1, 3.85617, 11.6022, 17.8276, -147.86, -97.1015, 128.883
0.525053, -1, 3.77901, 11.5815, 17.8328, -147.884, -97.0931, 128.743
0.526352, -1, 3.77901, 11.5815, 17.8328, -147.884, -97.0931, 128.743
0.529046, -1, 3.70183, 11.5607, 17.838, -147.908, -97.0847, 128.602
0.530307, -1, 3.70183, 11.5607, 17.838, -147.908, -97.0847, 128.602
0.532239, -1, 3.6246, 11.5399, 17.8432, -147.932, -97.0762, 128.461
0.53702, -1, 3.54734, 11.5191, 17.8483, -147.956, -97.0676, 128.32
0.543063, -1, 3.47002, 11.4982, 17.8535, -147.981, -97.059, 128.18
0.553172, -1, 3.23767, 11.4357, 17.8692, -148.053, -97.0328, 127.758
0.559085, -1, 3.16009, 11.4149, 17.8745, -148.077, -97.0239, 127.617
0.568542, -1, 2.92719, 11.3521, 17.8902, -148.15, -96.9979, 127.194
0.57736, -1, 2.77163, 11.3104, 17.9006, -148.198, -96.9809, 126.912
0.583076, -1, 2.69374, 11.2896, 17.9057, -148.222, -96.9725, 126.772
0.592804, -1, 2.4596, 11.2269, 17.9214, -148.294, -96.9474, 126.349
0.601341, -1, 2.30314, 11.1852, 17.9318, -148.343, -96.9305, 126.067
0.607097, -1, 2.22483, 11.1644, 17.9371, -148.367, -96.922, 125.926
0.616725, -1, 2.06809, 11.1018, 17.9528, -148.439, -96.8961, 125.504
0.625458, -1, 1.91138, 11.0809, 17.958, -148.464, -96.8873, 125.363
0.631086, -1, 1.75484, 11.0393, 17.9684, -148.512, -96.8698, 125.081
0.640103, -1, 1.59843, 10.9975, 17.9789, -148.56, -96.8525, 124.799
0.779581, -1, -1.13195, 10.2662, 18.1619, -149.408, -96.5528, 119.854
0.781114, -1, -1.13195, 10.2662, 18.1619, -149.408, -96.5528, 119.854
0.785188, -1, -1.21049, 10.2452, 18.1671, -149.433, -96.5443, 119.712
0.78729, -1, -1.289, 10.2243, 18.1723, -149.458, -96.5359, 119.57
0.78855, -1, -1.289, 10.2243, 18.1723, -149.458, -96.5359, 119.57
0.790521, -1, -1.36746, 10.2034, 18.1774, -149.482, -96.5275, 119.428
0.791778, -1, -1.36746, 10.2034, 18.1774, -149.482, -96.5275, 119.428
0.797022, -1, -1.44587, 10.1825, 18.1826, -149.506, -96.5191, 119.287
0.799266, -1, -1.52419, 10.1616, 18.1878, -149.53, -96.5107, 119.145
0.800537, -1, -1.52419, 10.1616, 18.1878, -149.53, -96.5107, 119.145
0.802415, -1, -1.60239, 10.1407, 18.1931, -149.554, -96.5022, 119.004
0.803789, -1, -1.60239, 10.1407, 18.1931, -149.554, -96.5022, 119.004
0.805051, -1, -1.60239, 10.1407, 18.1931, -149.554, -96.5022, 119.004
0.808495, -1, -1.68052, 10.1197, 18.1984, -149.579, -96.4937, 118.862
0.810919, -1, -1.75858, 10.0988, 18.2037, -149.603, -96.4852, 118.721
0.815341, -1, -1.83649, 10.0779, 18.2089, -149.628, -96.4766, 118.579
0.816576, -1, -1.83649, 10.0779, 18.2089, -149.628, -96.4766, 118.579
0.818519, -1, -1.91427, 10.0569, 18.2141, -149.652, -96.4679, 118.437
0.820019, -1, -1.91427, 10.0569, 18.2141, -149.652, -96.4679, 118.437
0.821224, -1, -1.91427, 10.0569, 18.2141, -149.652, -96.4679, 118.437
0.82327, -1, -1.99197, 10.036, 18.2194, -149.676, -96.4591, 118.295
0.824487, -1, -1.99197, 10.036, 18.2194, -149.676, -96.4591, 118.295
0.827056, -1, -2.06959, 10.015, 18.2246, -149.7, -96.4502, 118.153
0.832824, -1, -2.14717, 9.9941, 18.2298, -149.725, -96.4414, 118.012
0.839104, -1, -2.30235, 9.95225, 18.2402, -149.774, -96.4239, 117.728
0.84718, -1, -2.45775, 9.91033, 18.2507, -149.822, -96.4068, 117.444
0.85544, -1, -2.61343, 9.8684, 18.2612, -149.871, -96.3899, 117.16
0.86315, -1, -2.76944, 9.82648, 18.2715, -149.919, -96.373, 116.877
0.871189, -1, -2.92591, 9.78452, 18.282, -149.967, -96.3562, 116.593
0.88075, -1, -3.08275, 9.74259, 18.2924, -150.016, -96.3392, 116.31
0.888021, -1, -3.23999, 9.70067, 18.3028, -150.065, -96.3218, 116.026
0.896036, -1, -3.39761, 9.65869, 18.3133, -150.113, -96.3042, 115.742
0.904794, -1, -3.55543, 9.61672, 18.3238, -150.162, -96.2866, 115.458
0.912028, -1, -3.71325, 9.57485, 18.3343, -150.211, -96.2693, 115.174
0.920075, -1, -3.87122, 9.53286, 18.3447, -150.26, -96.2522, 114.889
0.928848, -1, -4.02917, 9.49087, 18.3551, -150.309, -96.2351, 114.605
0.936038, -1, -4.18696, 9.44895, 18.3655, -150.358, -96.2182, 114.321
0.943661, -1, -4.34472, 9.40695, 18.3758, -150.406, -96.2011, 114.036
0.952956, -1, -4.50215, 9.36497, 18.3862, -150.455, -96.1837, 113.752
0.960157, -1, -4.65917, 9.32295, 18.3966, -150.504, -96.1661, 113.467
0.967569, -1, -4.81578, 9.2809, 18.407, -150.553, -96.1483, 113.182
0.976331, -1, -4.97207, 9.23882, 18.4175, -150.602, -96.1307, 112.897
0.983576, -1, -5.12805, 9.1968, 18.4281, -150.65, -96.1135, 112.612
0.992125, -1, -5.28391, 9.15472, 18.4387, -150.699, -96.0965, 112.328
1.00053, -1, -5.36192, 9.13366, 18.444, -150.723, -96.088, 112.186
1.007, -1, -5.51797, 9.09154, 18.4545, -150.772, -96.0711, 111.901
1.01683, -1, -5.7526, 9.02837, 18.4701, -150.845, -96.0455, 111.473
1.02536, -1, -5.90952, 8.98619, 18.4806, -150.895, -96.0281, 111.189
1.03106, -1, -5.98814, 8.96509, 18.4858, -150.919, -96.0193, 111.046
1.04126, -1, -6.2249, 8.9019, 18.5014, -150.992, -95.9928, 110.618
1.04708, -1, -6.30404, 8.88083, 18.5066, -151.017, -95.9841, 110.476
1.05637, -1, -6.54158, 8.81772, 18.5221, -151.09, -95.9585, 110.048
1.06303, -1, -6.62083, 8.79666, 18.5274, -151.114, -95.95, 109.905
1.07105, -1, -6.77952, 8.75448, 18.538, -151.164, -95.933, 109.62
1.08056, -1, -7.01737, 8.69132, 18.5538, -151.237, -95.9073, 109.191
1.08955, -1, -7.17584, 8.6492, 18.5643, -151.286, -95.8899, 108.906
1.09506, -1, -7.25502, 8.6281, 18.5695, -151.311, -95.881, 108.763
1.10478, -1, -7.49211, 8.56471, 18.5852, -151.384, -95.8544, 108.335
1.11343, -1, -7.57097, 8.5224, 18.5957, -151.433, -95.8369, 108.049
1.11907, -1, -7.72851, 8.50124, 18.6009, -151.458, -95.8283, 107.906
1.1286, -1, -7.88565, 8.45899, 18.6114, -151.507, -95.8112, 107.478
1.13601, -1, -8.04247, 8.4167, 18.6218, -151.556, -95.7942, 107.335
1.14307, -1, -8.19906, 8.37434, 18.6322, -151.605, -95.7772, 107.049
1.15209, -1, -8.35568, 8.33199, 18.6428, -151.654, -95.7602, 106.763
1.16001, -1, -8.51252, 8.2896, 18.6534, -151.703, -95.7428, 106.477
1.16706, -1, -8.6697, 8.24728, 18.6639, -151.752, -95.7252, 106.19
1.175, -1, -8.82719, 8.20499, 18.6744, -151.801, -95.7075, 105.904
1.18306, -1, -8.9851, 8.1626, 18.6848, -151.85, -95.69, 105.618
1.19206, -1, -9.14345, 8.12033, 18.6953, -151.899, -95.6728, 105.331
1.20001, -1, -9.30214, 8.07809, 18.7057, -151.949, -95.6557, 105.044
1.20801, -1, -9.4611, 8.0357, 18.7162, -151.997, -95.6386, 104.757
1.21504, -1, -9.62026, 7.9934, 18.7267, -152.047, -95.6213, 104.471
1.223, -1, -9.77945, 7.95119, 18.7372, -152.096, -95.6039, 104.184
1.232, -1, -9.93882, 7.90888, 18.7477, -152.145, -95.5862, 103.897
1.23904, -1, -10.0981, 7.86646, 18.7585, -152.195, -95.5683, 103.61
1.24699, -1, -10.2573, 7.82396, 18.7691, -152.244, -95.5506, 103.323
1.25601, -1, -10.4164, 7.78145, 18.7797, -152.293, -95.5332, 103.036
1.26501, -1, -10.5751, 7.73895, 18.7902, -152.343, -95.5161, 102.749
1.271, -1, -10.7334, 7.69648, 18.8006, -152.392, -95.4991, 102.462
1.28002, -1, -10.8913, 7.65392, 18.8112, -152.441, -95.482, 102.175
1.28801, -1, -11.049, 7.61135, 18.8217, -152.49, -95.4648, 101.888
1.29601, -1, -11.2065, 7.5689, 18.8321, -152.539, -95.4473, 101.6
1.30408, -1, -11.3639, 7.52642, 18.8427, -152.589, -95.4295, 101.313
1.312, -1, -11.5214, 7.48392, 18.8531, -152.638, -95.4117, 101.026
1.32011, -1, -11.6791, 7.44147, 18.8638, -152.687, -95.3942, 100.738
1.32705, -1, -11.8372, 7.39908, 18.8744, -152.737, -95.3769, 100.45
1.33514, -1, -11.9957, 7.35667, 18.885, -152.786, -95.3597, 100.163
1.34316, -1, -12.1547, 7.3143, 18.8956, -152.835, -95.3424, 99.8748
1.35111, -1, -12.3141, 7.2719, 18.9061, -152.885, -95.3251, 99.587
1.3591, -1, -12.4738, 7.22946, 18.9166, -152.935, -95.3075, 99.2988
1.36801, -1, -12.6337, 7.18707, 18.9272, -152.984, -95.2896, 99.0109
1.37608, -1, -12.7937, 7.14463, 18.9378, -153.033, -95.2717, 98.7232
1.38304, -1, -12.9539, 7.1021, 18.9484, -153.083, -95.254, 98.4351
1.39111, -1, -13.1139, 7.05952, 18.9589, -153.132, -95.2365, 98.1469
1.39906, -1, -13.2738, 7.01691, 18.9695, -153.182, -95.2192, 97.8588
1.40708, -1, -13.4334, 6.97426, 18.9801, -153.231, -95.2021, 97.5705
1.41527, -1, -13.5928, 6.9315, 18.9907, -153.28, -95.185, 97.2819
1.42327, -1, -13.752, 6.88875, 19.0013, -153.33, -95.1676, 96.9932
1.43133, -1, -13.9108, 6.84606, 19.0118, -153.38, -95.15, 96.7049
1.43945, -1, -14.0692, 6.80334, 19.0223, -153.429, -95.1321, 96.4163
1.4481, -1, -14.2274, 6.76072, 19.0329, -153.479, -95.1143, 96.1273
1.45609, -1, -14.3855, 6.71806, 19.0434, -153.528, -95.0968, 95.8382
1.46361, -1, -14.5438, 6.67533, 19.0539, -153.577, -95.0796, 95.5492
1.47213, -1, -14.7025, 6.63281, 19.0645, -153.627, -95.0624, 95.2601
1.47956, -1, -14.8615, 6.59027, 19.0751, -153.676, -95.0452, 94.9706
1.48821, -1, -15.0208, 6.54761, 19.0859, -153.726, -95.0278, 94.6814
1.49559, -1, -15.1006, 6.52629, 19.0913, -153.751, -95.01, 94.3924
1.50403, -1, -15.3406, 6.46242, 19.1073, -153.825, -94.992, 94.1032
1.51101, -1, -15.4208, 6.44107, 19.1126, -153.85, -94.983, 93.9585
1.52004, -1, -15.6617, 6.377, 19.1285, -153.925, -94.9564, 93.5244
1.52704, -1, -15.7421, 6.35563, 19.1338, -153.95, -94.9477, 93.3798
1.53624, -1, -15.9832, 6.29132, 19.1499, -154.024, -94.9218, 92.9456
1.54299, -1, -16.0637, 6.26987, 19.1552, -154.049, -94.9132, 92.8007
1.55223, -1, -16.3048, 6.20556, 19.171, -154.123, -94.8874, 92.3663
1.559, -1, -16.3851, 6.18404, 19.1762, -154.148, -94.8787, 92.2215
1.56845, -1, -16.6257, 6.11955, 19.192, -154.223, -94.8521, 91.7866
1.57642, -1, -16.7856, 6.07658, 19.2027, -154.272, -94.8342, 91.4964
1.583, -1, -16.8653, 6.05507, 19.208, -154.297, -94.8253, 91.3514
1.59254, -1, -17.1043, 5.99063, 19.224, -154.372, -94.799, 90.9163
1.60056, -1, -17.2634, 5.9477, 19.2346, -154.421, -94.7816, 90.6258
1.60865, -1, -17.4225, 5.90488, 19.2452, -154.471, -94.7644, 90.3354
1.61659, -1, -17.5022, 5.88347, 19.2559, -154.521, -94.7469, 90.0453
1.62467, -1, -17.6615, 5.84065, 19.2666, -154.57, -94.7293, 89.7551
1.63274, -1, -17.8209, 5.79782, 19.2719, -154.596, -94.7204, 89.4646
1.63999, -1, -17.9807, 5.75502, 19.2826, -154.646, -94.7023, 89.3193
1.64804, -1, -18.141, 5.71222, 19.2932, -154.695, -94.6842, 89.0289
1.65604, -1, -18.3016, 5.66939, 19.3039, -154.745, -94.6666, 88.7383
1.664, -1, -18.4629, 5.62651, 19.3146, -154.796, -94.649, 88.4475
1.67207, -1, -18.6244, 5.58352, 19.3253, -154.845, -94.6317, 88.1565
1.68, -1, -18.786, 5.54055, 19.336, -154.895, -94.6145, 87.8658
1.68801, -1, -18.9477, 5.49752, 19.3466, -154.946, -94.5971, 87.5748
1.69607, -1, -19.1093, 5.45438, 19.3572, -154.995, -94.5794, 87.2834
1.70399, -1, -19.2708, 5.41122, 19.3679, -155.045, -94.5615, 86.992
1.71204, -1, -19.4323, 5.36805, 19.3785, -155.095, -94.5434, 86.7007
1.72003, -1, -19.5934, 5.32482, 19.3891, -155.145, -94.5255, 86.409
1.72802, -1, -19.7542, 5.28162, 19.3997, -155.195, -94.5078, 86.1171
1.73605, -1, -19.9147, 5.23848, 19.4104, -155.245, -94.4903, 85.8256
1.74399, -1, -20.075, 5.19527, 19.4212, -155.295, -94.4729, 85.534
1.75199, -1, -20.2347, 5.15222, 19.432, -155.345, -94.4555, 85.2425
1.76098, -1, -20.3946, 5.10927, 19.4429, -155.395, -94.4379, 84.9505
1.768, -1, -20.5546, 5.06617, 19.4537, -155.445, -94.4199, 84.6587
1.777, -1, -20.7148, 5.02317, 19.4644, -155.495, -94.4017, 84.367
1.78303, -1, -20.8753, 4.98024, 19.4751, -155.545, -94.3838, 84.0749
1.79199, -1, -21.0362, 4.93714, 19.4858, -155.595, -94.3661, 83.7826
1.8, -1, -21.1974, 4.89407, 19.4964, -155.646, -94.3488, 83.4907
1.80801, -1, -21.3592, 4.85091, 19.5071, -155.696, -94.3315, 83.1988
1.81599, -1, -21.5213, 4.80763, 19.5177, -155.746, -94.3144, 82.9063
1.82407, -1, -21.6834, 4.76439, 19.5285, -155.797, -94.2968, 82.6137
1.83105, -1, -21.8459, 4.72111, 19.5393, -155.846, -94.2789, 82.3212
1.84, -1, -22.0084, 4.67766, 19.5501, -155.896, -94.2609, 82.0284
1.84808, -1, -22.1709, 4.63429, 19.5609, -155.947, -94.243, 81.7354
1.85599, -1, -22.3333, 4.5909, 19.5715, -155.997, -94.2253, 81.4426
1.86399, -1, -22.4955, 4.54746, 19.5823, -156.047, -94.2078, 81.15
1.87207, -1, -22.6575, 4.50402, 19.593, -156.098, -94.1902, 80.8572
1.87999, -1, -22.819, 4.46055, 19.6037, -156.148, -94.1728, 80.5642
1.88707, -1, -22.9802, 4.41717, 19.6144, -156.198, -94.1551, 80.2711
1.89651, -1, -23.1413, 4.37386, 19.6251, -156.249, -94.1371, 79.9782
1.90312, -1, -23.3022, 4.33052, 19.6358, -156.299, -94.1188, 79.685
1.91134, -1, -23.463, 4.28723, 19.6468, -156.349, -94.1006, 79.3913
1.91914, -1, -23.6239, 4.24395, 19.6576, -156.4, -94.0827, 79.0981
1.92733, -1, -23.785, 4.20068, 19.6684, -156.45, -94.065, 78.8047
1.93526, -1, -23.9463, 4.1574, 19.6791, -156.5, -94.0475, 78.511
1.94332, -1, -24.1081, 4.11399, 19.6898, -156.551, -94.0302, 78.2172
1.95154, -1, -24.2703, 4.07058, 19.7006, -156.601, -94.0126, 77.9233
1.96013, -1, -24.4329, 4.02715, 19.7113, -156.652, -93.9948, 77.6292
1.9675, -1, -24.5959, 3.98361, 19.722, -156.702, -93.9767, 77.335
1.97558, -1, -24.7591, 3.94001, 19.7326, -156.752, -93.9586, 77.0408
1.98421, -1, -24.9225, 3.89647, 19.7434, -156.803, -93.9408, 76.7469
1.99155, -1, -25.0042, 3.85289, 19.7543, -156.853, -93.923, 76.4528
2.00005, -1, -25.2492, 3.8093, 19.7652, -156.903, -93.9055, 76.1584
2.00832, -1, -25.4123, 3.7657, 19.7761, -156.954, -93.8881, 75.864
2.01498, -1, -25.4937, 3.74388, 19.7815, -156.979, -93.8793, 75.7169
2.02409, -1, -25.7378, 3.67839, 19.7976, -157.055, -93.8525, 75.2753
2.03098, -1, -25.8191, 3.65664, 19.803, -157.08, -93.8434, 75.1278
2.04009, -1, -26.0624, 3.59136, 19.8192, -157.155, -93.8158, 74.6858
2.04829, -1, -26.2241, 3.54789, 19.8299, -157.206, -93.7977, 74.3913
2.05498, -1, -26.3049, 3.5262, 19.8354, -157.232, -93.7887, 74.2439
2.06432, -1, -26.5474, 3.46101, 19.8515, -157.307, -93.7622, 73.8012
2.07101, -1, -26.6283, 3.43925, 19.8569, -157.333, -93.7534, 73.6536
2.08045, -1, -26.8715, 3.37406, 19.8733, -157.409, -93.7269, 73.2108
2.08848, -1, -27.0341, 3.33042, 19.8841, -157.459, -93.7089, 72.9153
2.09494, -1, -27.1155, 3.30859, 19.8895, -157.485, -93.6998, 72.7675
2.10303, -1, -27.2786, 3.26505, 19.9003, -157.536, -93.6815, 72.4722
2.11259, -1, -27.5239, 3.1994, 19.9165, -157.611, -93.6542, 72.0293
2.1206, -1, -27.6058, 3.15568, 19.9273, -157.662, -93.6363, 71.7335
2.12866, -1, -27.7698, 3.13388, 19.938, -157.712, -93.6186, 71.4378
2.13661, -1, -27.934, 3.09018, 19.9434, -157.738, -93.6098, 71.1422
2.14404, -1, -28.0982, 3.04644, 19.9543, -157.789, -93.5921, 70.9944
2.15198, -1, -28.2624, 3.00271, 19.965, -157.84, -93.5742, 70.6984
2.16003, -1, -28.4266, 2.95896, 19.9759, -157.89, -93.556, 70.4023
2.16798, -1, -28.5905, 2.91525, 19.9868, -157.941, -93.5375, 70.1066
2.17602, -1, -28.7541, 2.87158, 19.9977, -157.992, -93.5192, 69.8107
2.18407, -1, -28.9174, 2.82783, 20.0084, -158.042, -93.5011, 69.5142
2.19198, -1, -29.0803, 2.78413, 20.0192, -158.094, -93.4833, 69.2177
2.19999, -1, -29.243, 2.74048, 20.03, -158.144, -93.4656, 68.9213
2.20802, -1, -29.4057, 2.69677, 20.0409, -158.195, -93.4479, 68.6246
2.21598, -1, -29.5684, 2.65304, 20.0517, -158.246, -93.4301, 68.3275
2.22405, -1, -29.7313, 2.60923, 20.0625, -158.297, -93.4119, 68.0308
2.23203, -1, -29.8944, 2.56544, 20.0733, -158.348, -93.3935, 67.7342
2.23999, -1, -30.0575, 2.52165, 20.0843, -158.399, -93.3751, 67.4374
2.24798, -1, -30.2212, 2.47766, 20.0953, -158.45, -93.357, 67.1402
2.25696, -1, -30.3853, 2.43375, 20.1062, -158.501, -93.3391, 66.8434
2.26403, -1, -30.5498, 2.38978, 20.1171, -158.552, -93.3213, 66.5463
2.27198, -1, -30.7147, 2.34571, 20.1279, -158.602, -93.3036, 66.249
2.28007, -1, -30.8798, 2.30179, 20.1388, -158.654, -93.2857, 65.9514
2.28797, -1, -31.0449, 2.25776, 20.1497, -158.705, -93.2674, 65.6544
2.29597, -1, -31.21, 2.21374, 20.1605, -158.756, -93.2489, 65.3571
2.30408, -1, -31.375, 2.16986, 20.1714, -158.807, -93.2305, 65.0594
2.31115, -1, -31.5397, 2.12591, 20.1821, -158.858, -93.2122, 64.7616
2.31897, -1, -31.7043, 2.08186, 20.193, -158.909, -93.1944, 64.4639
2.32807, -1, -31.8687, 2.03792, 20.204, -158.961, -93.1767, 64.1659
2.33514, -1, -32.0328, 1.99396, 20.215, -159.011, -93.1592, 63.8676
2.34308, -1, -32.1965, 1.94991, 20.226, -159.063, -93.1414, 63.5696
2.35108, -1, -32.36, 1.90592, 20.2369, -159.114, -93.1234, 63.2717
2.35998, -1, -32.5236, 1.86187, 20.2478, -159.165, -93.105, 62.9736
2.36804, -1, -32.6874, 1.81771, 20.2588, -159.217, -93.0866, 62.6752
2.37598, -1, -32.8513, 1.77368, 20.2697, -159.268, -93.0685, 62.377
2.38402, -1, -33.0155, 1.72952, 20.2806, -159.318, -93.0506, 62.0785
2.39208, -1, -33.18, 1.68529, 20.2915, -159.37, -93.0328, 61.7798
2.39997, -1, -33.3448, 1.64117, 20.3024, -159.421, -93.015, 61.481
2.40797, -1, -33.5101, 1.59694, 20.3134, -159.472, -92.997, 61.1826
2.41605, -1, -33.6757, 1.55268, 20.3244, -159.524, -92.9788, 60.8839
2.42402, -1, -33.8415, 1.5085, 20.3354, -159.575, -92.9602, 60.5848
2.43201, -1, -34.0074, 1.46426, 20.3462, -159.626, -92.9415, 60.2855
2.44001, -1, -34.1733, 1.4201, 20.3571, -159.678, -92.9231, 59.9865
2.44801, -1, -34.3394, 1.37592, 20.3681, -159.729, -92.9051, 59.687
2.45609, -1, -34.5054, 1.33167, 20.3791, -159.78, -92.8872, 59.3872
2.4641, -1, -34.6712, 1.2875, 20.39, -159.832, -92.8694, 59.0879
2.47251, -1, -34.8365, 1.24328, 20.4009, -159.883, -92.8515, 58.7886
2.47954, -1, -35.0015, 1.19904, 20.4119, -159.935, -92.8334, 58.4891
2.48807, -1, -35.1662, 1.15474, 20.423, -159.986, -92.8148, 58.1892
2.49614, -1, -35.3308, 1.11042, 20.4341, -160.037, -92.7962, 57.8895
2.50353, -1, -35.4129, 1.08831, 20.4396, -160.089, -92.7779, 57.5897
2.5121, -1, -35.657, 1.02247, 20.4565, -160.14, -92.7598, 57.2898
2.51999, -1, -35.8165, 0.979244, 20.468, -160.191, -92.7419, 56.9914
2.52801, -1, -35.972, 0.937158, 20.4799, -160.242, -92.7242, 56.6961
2.53504, -1, -36.048, 0.916685, 20.4859, -160.267, -92.7154, 56.5506
2.54427, -1, -36.2651, 0.858434, 20.5037, -160.338, -92.6896, 56.1281
2.55096, -1, -36.333, 0.840387, 20.5096, -160.361, -92.6813, 55.9944
2.56029, -1, -36.52, 0.79081, 20.5259, -160.424, -92.658, 55.626
2.56698, -1, -36.5762, 0.775907, 20.5308, -160.443, -92.6511, 55.5164
2.57638, -1, -36.7237, 0.736859, 20.5425, -160.49, -92.6336, 55.2364
2.58454, -1, -36.8037, 0.715613, 20.5476, -160.514, -92.6249, 55.0933
2.59285, -1, -36.8699, 0.69815, 20.5505, -160.533, -92.6185, 54.985
2.60056, -1, -36.9231, 0.684133, 20.5518, -160.546, -92.614, 54.9086
2.60857, -1, -36.9634, 0.673258, 20.5522, -160.555, -92.6112, 54.857
2.61698, -1, -36.9929, 0.665507, 20.5519, -160.561, -92.6095, 54.8255
2.62457, -1, -37.0042, 0.662683, 20.5515, -160.564, -92.6086, 54.8077
2.63273, -1, -37.0203, 0.65873, 20.5513, -160.566, -92.6081, 54.7988
2.64001, -1, -37.0295, 0.656482, 20.5511, -160.566, -92.608, 54.7962
2.64794, 2, -37.0337, 0.655399, 20.551, -160.567, -92.6079, 54.7934
2.65596, 2, -37.0343, 0.654912, 20.5509, -160.567, -92.6078, 54.7921
2.665, 2, -37.0337, 0.654716, 20.5509, -160.567, -92.6077, 54.7913
2.67198, 2, -37.0332, 0.65463, 20.5508, -160.567, -92.6077, 54.7912
2.68, 2, -37.0332, 0.654568, 20.5508, -160.567, -92.6077, 54.7911
2.68801, 2, -37.034, 0.654513, 20.5508, -160.568, -92.6077, 54.7911
2.69596, 2, -37.0351, 0.654435, 20.5507, -160.568, -92.6078, 54.7911
2.70401, 2, -37.0364, 0.654252, 20.5505, -160.567, -92.6078, 54.7911
2.71203, 2, -37.0379, 0.654003, 20.5503, -160.567, -92.6079, 54.7911
2.71996, 2, -37.0391, 0.653718, 20.5502, -160.567, -92.6079, 54.7912
2.728, 2, -37.0403, 0.653462, 20.55, -160.568, -92.6079, 54.7913
2.73602, 2, -37.041, 0.653296, 20.5498, -160.567, -92.608, 54.7913
2.74401, 2, -37.0412, 0.653209, 20.5496, -160.567, -92.6081, 54.7913
2.75198, 2, -37.041, 0.653192, 20.5495, -160.567, -92.6081, 54.7914
2.76096, 2, -37.0403, 0.653191, 20.5494, -160.567, -92.6081, 54.7915
2.76796, 2, -37.0394, 0.653221, 20.5494, -160.567, -92.6082, 54.7917
2.7779, 2, -37.038, 0.653273, 20.5493, -160.567, -92.6081, 54.7919
2.78409, 2, -37.0364, 0.653325, 20.5492, -160.567, -92.6082, 54.792
2.79198, 2, -37.0352, 0.653363, 20.5492, -160.567, -92.6082, 54.7921
2.79996, 2, -37.0343, 0.653355, 20.5491, -160.567, -92.6083, 54.7921
2.80803, 2, -37.0339, 0.653344, 20.5491, -160.567, -92.6083, 54.7922
2.81595, 2, -37.0338, 0.653329, 20.5491, -160.567, -92.6084, 54.7922
2.82401, 2, -37.0339, 0.653283, 20.5491, -160.567, -92.6083, 54.7922
2.83204, 2, -37.0341, 0.653233, 20.5491, -160.567, -92.6082, 54.7923
2.83996, 2, -37.0344, 0.653191, 20.549, -160.567, -92.6083, 54.7923
2.848, 2, -37.0351, 0.653161, 20.549, -160.567, -92.6083, 54.7923
2.85603, 2, -37.0358, 0.65314, 20.549, -160.567, -92.6083, 54.7923
2.864, 2, -37.0365, 0.653149, 20.549, -160.567, -92.6083, 54.7924
2.87197, 2, -37.0371, 0.653164, 20.549, -160.567, -92.6083, 54.7924
2.88003, 2, -37.0373, 0.653185, 20.549, -160.567, -92.6084, 54.7925
2.88795, 2, -37.0373, 0.653205, 20.549, -160.567, -92.6084, 54.7925
2.8961, 2, -37.0374, 0.653209, 20.549, -160.567, -92.6083, 54.7925
2.90301, 2, -37.0372, 0.653211, 20.549, -160.567, -92.6083, 54.7925
2.91104, 2, -37.0367, 0.653207, 20.5489, -160.567, -92.6084, 54.7926
2.91913, 2, -37.0364, 0.653215, 20.5489, -160.567, -92.6083, 54.7927
2.9274, 2, -37.0362, 0.653214, 20.5489, -160.567, -92.6083, 54.7927
2.93521, 2, -37.036, 0.653201, 20.5489, -160.567, -92.6084, 54.7928
2.94331, 2, -37.0359, 0.653184, 20.5489, -160.567, -92.6084, 54.7928
2.95139, 2, -37.0359, 0.653161, 20.5489, -160.567, -92.6084, 54.7929
2.96, 2, -37.036, 0.653177, 20.5489, -160.567, -92.6084, 54.793
2.96754, 2, -37.036, 0.653184, 20.5489, -160.567, -92.6084, 54.7931
2.97612, 2, -37.0361, 0.653194, 20.5488, -160.567, -92.6084, 54.7931
2.98349, 2, -37.0362, 0.653197, 20.5489, -160.567, -92.6084, 54.7932
2.99207, 2, -37.0365, 0.653205, 20.5489, -160.567, -92.6084, 54.7932
3.00012, 2, -37.0366, 0.653197, 20.5489, -160.567, -92.6084, 54.7932
3.00757, 2, -37.0367, 0.653202, 20.5488, -160.567, -92.6084, 54.7932
3.01601, 2, -37.0367, 0.653218, 20.5488, -160.567, -92.6085, 54.7932
3.02301, 2, -37.0367, 0.653209, 20.5488, -160.567, -92.6085, 54.7933
3.03201, 2, -37.0367, 0.653203, 20.5488, -160.567, -92.6085, 54.7934
3.039, 2, -37.0367, 0.653206, 20.5488, -160.567, -92.6085, 54.7934
3.04822, 2, -37.0367, 0.653195, 20.5488, -160.567, -92.6085, 54.7935
3.05495, 2, -37.0366, 0.653193, 20.5488, -160.567, -92.6085, 54.7936
3.06429, 2, -37.0366, 0.653203, 20.5487, -160.567, -92.6085, 54.7936
3.07095, 2, -37.0366, 0.653199, 20.5487, -160.567, -92.6085, 54.7936
3.08034, 2, -37.0367, 0.653193, 20.5487, -160.567, -92.6085, 54.7937
3.0871, 2, -37.0366, 0.653192, 20.5487, -160.567, -92.6085, 54.7937
3.09666, 2, -37.0366, 0.65321, 20.5487, -160.567, -92.6085, 54.7938
3.1045, 2, -37.0366, 0.653216, 20.5487, -160.567, -92.6086, 54.7938
3.11251, 2, -37.0366, 0.653202, 20.5487, -160.567, -92.6086, 54.7939
3.12084, 2, -37.0366, 0.653208, 20.5487, -160.567, -92.6085, 54.7939
3.12848, 2, -37.0366, 0.653202, 20.5487, -160.567, -92.6085, 54.794
3.13646, 2, -37.0366, 0.653208, 20.5487, -160.567, -92.6085, 54.794
3.14468, 2, -37.0366, 0.653198, 20.5487, -160.567, -92.6085, 54.7941
3.15198, 2, -37.0366, 0.653194, 20.5487, -160.567, -92.6085, 54.7941
3.15995, 2, -37.0366, 0.653192, 20.5487, -160.567, -92.6086, 54.7941
3.168, 2, -37.0366, 0.653191, 20.5487, -160.567, -92.6086, 54.7942
3.17595, 2, -37.0366, 0.65319, 20.5486, -160.567, -92.6086, 54.7943
3.18404, 2, -37.0366, 0.65319, 20.5486, -160.567, -92.6085, 54.7944
3.19202, 2, -37.0366, 0.653202, 20.5486, -160.567, -92.6085, 54.7944
3.19994, 2, -37.0366, 0.653208, 20.5486, -160.567, -92.6085, 54.7944
3.20795, 2, -37.0366, 0.653218, 20.5486, -160.567, -92.6086, 54.7944
3.21602, 2, -37.0366, 0.65322, 20.5486, -160.567, -92.6087, 54.7944
3.22399, 2, -37.0365, 0.653223, 20.5486, -160.567, -92.6086, 54.7944
3.232, 2, -37.0365, 0.65321, 20.5486, -160.567, -92.6086, 54.7945
3.24, 2, -37.0365, 0.653199, 20.5486, -160.567, -92.6086, 54.7945
3.24795, 2, -37.0365, 0.653214, 20.5486, -160.567, -92.6087, 54.7946
3.25595, 2, -37.0365, 0.653206, 20.5486, -160.567, -92.6087, 54.7945
3.26495, 2, -37.0365, 0.653197, 20.5486, -160.567, -92.6087, 54.7946
3.27196, 2, -37.0365, 0.653193, 20.5485, -160.567, -92.6087, 54.7947
3.28094, 2, -37.0364, 0.653204, 20.5485, -160.567, -92.6087, 54.7947
3.28802, 2, -37.0364, 0.653204, 20.5485, -160.567, -92.6087, 54.7947
3.29594, 2, -37.0364, 0.653213, 20.5485, -160.567, -92.6087, 54.7948
3.30399, 2, -37.0364, 0.653201, 20.5485, -160.567, -92.6087, 54.7948
3.31203, 2, -37.0364, 0.653207, 20.5485, -160.567, -92.6087, 54.7948
3.31994, 2, -37.0364, 0.65321, 20.5485, -160.567, -92.6087, 54.7948
3.32794, 2, -37.0364, 0.653211, 20.5485, -160.567, -92.6087, 54.7948
3.33602, 2, -37.0364, 0.653212, 20.5485, -160.567, -92.6087, 54.7948
3.34399, 2, -37.0364, 0.653212, 20.5485, -160.567, -92.6087, 54.7948
3.352, 2, -37.0364, 0.653212, 20.5485, -160.567, -92.6087, 54.7949
3.36002, 2, -37.0364, 0.65322, 20.5484, -160.566, -92.6087, 54.795
3.36794, 2, -37.0363, 0.653221, 20.5484, -160.567, -92.6087, 54.795
3.37594, 2, -37.0363, 0.653204, 20.5484, -160.567, -92.6087, 54.7951
3.38406, 2, -37.0363, 0.653204, 20.5484, -160.566, -92.6088, 54.7951
3.39196, 2, -37.0363, 0.653214, 20.5484, -160.566, -92.6088, 54.7951
3.39998, 2, -37.0363, 0.653201, 20.5484, -160.566, -92.6088, 54.7951
3.40801, 2, -37.0363, 0.653215, 20.5484, -160.566, -92.6088, 54.7951
3.41594, 2, -37.0363, 0.653218, 20.5484, -160.566, -92.6088, 54.7952
3.42399, 2, -37.0363, 0.653223, 20.5484, -160.566, -92.6088, 54.7952
3.43204, 2, -37.0363, 0.653229, 20.5484, -160.566, -92.6088, 54.7952
3.43994, 2, -37.0362, 0.653244, 20.5484, -160.566, -92.6088, 54.7952
3.44795, 2, -37.0362, 0.653246, 20.5484, -160.566, -92.6088, 54.7953
3.45607, 2, -37.0362, 0.65324, 20.5483, -160.566, -92.6088, 54.7953
3.46342, 2, -37.0362, 0.653238, 20.5483, -160.566, -92.6088, 54.7952
3.47205, 2, -37.0362, 0.653236, 20.5483, -160.566, -92.6088, 54.7953
3.48011, 2, -37.0362, 0.653236, 20.5483, -160.566, -92.6087, 54.7953
3.48804, 2, -37.0362, 0.653235, 20.5483, -160.566, -92.6087, 54.7954
3.49554, 2, -37.0362, 0.653235, 20.5483, -160.566, -92.6087, 54.7954
3.50416, 2, -37.0362, 0.653235, 20.5483, -160.566, -92.6088, 54.7954
3.51144, 2, -37.0362, 0.653235, 20.5483, -160.566, -92.6087, 54.7954
3.52, 2, -37.0361, 0.653235, 20.5483, -160.566, -92.6087, 54.7954
3.52804, 2, -37.0361, 0.653235, 20.5482, -160.566, -92.6087, 54.7954
3.53494, 2, -37.0361, 0.653235, 20.5482, -160.566, -92.6087, 54.7954
3.54406, 2, -37.0361, 0.653235, 20.5482, -160.566, -92.6088, 54.7954
3.55093, 2, -37.0361, 0.653235, 20.5482, -160.566, -92.6088, 54.7954
3.56017, 2, -37.0361, 0.653235, 20.5482, -160.566, -92.6088, 54.7954
3.56699, 2, -37.0361, 0.653235, 20.5482, -160.566, -92.6088, 54.7955
3.57673, 2, -37.036, 0.653235, 20.5482, -160.566, -92.6088, 54.7955
3.58437, 2, -37.036, 0.653235, 20.5482, -160.566, -92.6088, 54.7955
3.59252, 2, -37.036, 0.653235, 20.5482, -160.566, -92.6088, 54.7955
3.60093, 2, -37.036, 0.653235, 20.5481, -160.566, -92.6088, 54.7955
3.60847, 2, -37.036, 0.653235, 20.5481, -160.566, -92.6088, 54.7955
3.61648, 2, -37.036, 0.653235, 20.5481, -160.566, -92.6088, 54.7955
3.62504, 2, -37.036, 0.653235, 20.5481, -160.566, -92.6088, 54.7955
3.63254, 2, -37.036, 0.653235, 20.5481, -160.566, -92.6088, 54.7955
3.63993, 2, -37.036, 0.653235, 20.5481, -160.566, -92.6088, 54.7955
3.64904, 2, -37.036, 0.653254, 20.5481, -160.566, -92.6088, 54.7955
3.65508, 2, -37.036, 0.653248, 20.5481, -160.566, -92.6088, 54.7955
3.66402, 2, -37.036, 0.653241, 20.5481, -160.566, -92.6088, 54.7956
3.67194, 2, -37.036, 0.653238, 20.5481, -160.566, -92.6088, 54.7956
3.67994, 2, -37.036, 0.653236, 20.5481, -160.566, -92.6088, 54.7956
3.68804, 2, -37.0359, 0.653236, 20.5481, -160.566, -92.6088, 54.7955
3.69593, 2, -37.0359, 0.653235, 20.5481, -160.566, -92.6088, 54.7955
3.70399, 2, -37.0359, 0.653235, 20.548, -160.566, -92.6088, 54.7955
3.71093, 2, -37.0359, 0.653235, 20.548, -160.566, -92.6088, 54.7956
3.71995, 2, -37.0359, 0.653235, 20.548, -160.566, -92.6088, 54.7955
3.72796, 2, -37.0359, 0.653254, 20.548, -160.566, -92.6088, 54.7956
3.73603, 4, -37.0359, 0.653244, 20.548, -160.566, -92.6088, 54.7956
3.74403, 4, -37.0359, 0.653239, 20.548, -160.566, -92.6088, 54.7956
3.75195, 4, -37.0359, 0.653237, 20.548, -160.566, -92.6088, 54.7955
3.76147, 4, -37.0359, 0.653236, 20.548, -160.566, -92.6088, 54.7956
3.76793, 4, -37.0359, 0.653236, 20.548, -160.566, -92.6088, 54.7957
3.77693, 4, -37.0359, 0.653235, 20.548, -160.566, -92.6088, 54.7957
3.78406, 4, -37.0359, 0.653235, 20.548, -160.566, -92.6088, 54.7956
3.7939, 4, -37.0359, 0.653235, 20.5479, -160.566, -92.6089, 54.7957
3.79993, 4, -37.0359, 0.653254, 20.5479, -160.566, -92.6089, 54.7957
3.808, 4, -37.0359, 0.653244, 20.5479, -160.566, -92.6088, 54.7956
3.81592, 4, -37.0358, 0.653239, 20.5479, -160.566, -92.6088, 54.7957
3.82397, 4, -37.0358, 0.653237, 20.5479, -160.566, -92.6088, 54.7957
3.83214, 4, -37.0358, 0.653236, 20.5479, -160.566, -92.6088, 54.7957
3.85706, 4, -37.0358, 0.653235, 20.5479, -160.566, -92.6088, 54.7957
3.85968, 4, -37.0358, 0.653235, 20.5479, -160.566, -92.6088, 54.7957
3.86142, 4, -37.0358, 0.653235, 20.5479, -160.566, -92.6088, 54.7957
3.86429, 4, -37.0358, 0.653235, 20.5479, -160.566, -92.6089, 54.7957
3.87209, 4, -37.0358, 0.653235, 20.5478, -160.566, -92.6089, 54.7957
3.8791, 4, -37.0356, 0.65321, 20.5478, -160.566, -92.6088, 54.7957
3.88798, 4, -37.0341, 0.652794, 20.5479, -160.566, -92.6088, 54.7957
3.89596, 4, -37.0301, 0.65105, 20.5483, -160.566, -92.6089, 54.7957
3.90435, 4, -37.0225, 0.646764, 20.5498, -160.566, -92.6089, 54.7957
3.91276, 4, -37.0111, 0.63901, 20.5537, -160.565, -92.6089, 54.7957
3.91994, 4, -36.9955, 0.627509, 20.5611, -160.564, -92.6089, 54.7957
3.92994, 5, -36.9746, 0.611518, 20.5736, -160.562, -92.6089, 54.7956
3.93608, 5, -36.948, 0.591139, 20.5923, -160.558, -92.6088, 54.7956
3.94423, 5, -36.9164, 0.56629, 20.6177, -160.553, -92.6084, 54.7956
3.95124, 5, -36.88, 0.536939, 20.6501, -160.546, -92.6079, 54.7955
3.95937, 5, -36.8387, 0.503035, 20.6887, -160.537, -92.607, 54.7955
3.96824, 5, -36.7921, 0.464315, 20.7327, -160.527, -92.6056, 54.7955
3.97543, 5, -36.7405, 0.421299, 20.7813, -160.516, -92.6039, 54.7955
3.9873, 5, -36.6842, 0.374539, 20.8329, -160.505, -92.6022, 54.7955
3.99233, 5, -36.6239, 0.324965, 20.8867, -160.493, -92.6003, 54.7955
3.99952, 5, -36.5597, 0.273277, 20.9417, -160.48, -92.5984, 54.7955
4.0087, 5, -36.4931, 0.220162, 20.9971, -160.468, -92.5965, 54.7955
4.01652, 5, -36.4253, 0.166451, 21.0527, -160.456, -92.5945, 54.7955
4.0241, 5, -36.3567, 0.11246, 21.1083, -160.444, -92.5926, 54.7955
4.03175, 5, -36.3225, 0.0854404, 21.1361, -160.438, -92.5906, 54.7955
4.03889, 5, -36.2537, 0.0314684, 21.1917, -160.426, -92.5896, 54.7956
4.047, 5, -36.1848, -0.0223155, 21.2473, -160.414, -92.5875, 54.7957
4.05635, 5, -36.0818, -0.102541, 21.3306, -160.395, -92.5843, 54.7958
4.06596, 5, -36.0132, -0.155718, 21.3859, -160.383, -92.5822, 54.7961
4.07224, 5, -35.9446, -0.208711, 21.4413, -160.37, -92.5801, 54.7965
4.07892, 5, -35.9104, -0.235144, 21.4689, -160.363, -92.579, 54.7968
4.08932, 5, -35.8074, -0.314196, 21.5517, -160.344, -92.5759, 54.7979
4.09497, 5, -35.7729, -0.340572, 21.5793, -160.338, -92.5748, 54.7983
4.10579, 5, -35.6692, -0.419699, 21.6617, -160.319, -92.5716, 54.8
4.11112, 5, -35.6345, -0.446071, 21.6891, -160.313, -92.5706, 54.8006
4.12052, 5, -35.5299, -0.525292, 21.7709, -160.294, -92.5672, 54.8027
4.1285, 5, -35.495, -0.578143, 21.8252, -160.281, -92.5651, 54.8041
4.13509, 5, -35.4248, -0.604573, 21.8523, -160.275, -92.564, 54.805
4.1445, 5, -35.3545, -0.657408, 21.9064, -160.262, -92.5618, 54.8067
4.15197, 5, -35.284, -0.710219, 21.9605, -160.249, -92.5596, 54.8086
4.16146, 5, -35.2135, -0.762833, 22.0144, -160.236, -92.5574, 54.8106
4.16788, 5, -35.1428, -0.815156, 22.0682, -160.222, -92.5552, 54.8128
4.17597, 5, -35.0722, -0.867418, 22.1219, -160.209, -92.5529, 54.8151
4.18413, 5, -35.0017, -0.919428, 22.1755, -160.196, -92.5506, 54.8174
4.19176, 5, -34.9312, -0.971145, 22.229, -160.183, -92.5483, 54.82
4.19991, 5, -34.8608, -1.02272, 22.2823, -160.17, -92.546, 54.8226
4.20839, 5, -34.7902, -1.07414, 22.3356, -160.157, -92.5437, 54.8253
4.21507, 5, -34.7197, -1.12561, 22.3885, -160.144, -92.5413, 54.8281
4.22791, 5, -34.6133, -1.20262, 22.4678, -160.125, -92.5377, 54.8325
4.2334, 5, -34.5778, -1.22832, 22.4941, -160.118, -92.5366, 54.8356
4.23997, 5, -34.5068, -1.27973, 22.5466, -160.105, -92.5342, 54.8373
4.24791, 5, -34.4355, -1.33106, 22.5989, -160.091, -92.5318, 54.8405
4.25868, 5, -34.3283, -1.4081, 22.6772, -160.071, -92.5282, 54.8457
4.26414, 5, -34.2925, -1.43374, 22.7032, -160.064, -92.527, 54.8475
4.27109, 5, -34.2207, -1.48492, 22.7552, -160.05, -92.5246, 54.8511
4.27992, 5, -34.1488, -1.53588, 22.8071, -160.036, -92.5222, 54.8548
4.28877, 5, -34.0768, -1.58665, 22.8587, -160.023, -92.5197, 54.8588
4.2971, 5, -34.0047, -1.63726, 22.9104, -160.01, -92.5173, 54.8626
4.30401, 5, -33.9325, -1.68758, 22.9619, -159.996, -92.5149, 54.8666
4.31431, 5, -33.8243, -1.76274, 23.0387, -159.976, -92.5113, 54.8728
4.32005, 5, -33.7883, -1.78775, 23.0643, -159.969, -92.5101, 54.8749
4.32798, 5, -33.716, -1.83768, 23.1153, -159.955, -92.5078, 54.8792
4.33592, 5, -33.6437, -1.88752, 23.1661, -159.94, -92.5054, 54.8835
4.34391, 5, -33.5712, -1.93741, 23.2168, -159.926, -92.5031, 54.8878
4.35198, 5, -33.4984, -1.98758, 23.2673, -159.912, -92.5008, 54.8921
4.35995, 5, -33.4255, -2.03799, 23.3178, -159.898, -92.4985, 54.8957
4.36711, 5, -33.3527, -2.08877, 23.368, -159.884, -92.4962, 54.8982
4.37507, 6, -33.2801, -2.13998, 23.4185, -159.869, -92.4939, 54.8992
4.38302, 6, -33.2078, -2.1919, 23.469, -159.855, -92.4915, 54.8984
4.39207, 6, -33.1359, -2.24475, 23.5198, -159.84, -92.4887, 54.8951
4.39893, 6, -33.0644, -2.29845, 23.5714, -159.824, -92.4852, 54.8867
4.40791, 7, -32.9934, -2.3533, 23.6239, -159.807, -92.4805, 54.873
4.41614, 7, -32.9229, -2.40925, 23.6775, -159.788, -92.4742, 54.8565
4.42388, 7, -32.8528, -2.46664, 23.7326, -159.768, -92.4662, 54.8379
4.43191, 7, -32.7834, -2.52558, 23.7893, -159.747, -92.4559, 54.8192
4.43998, 7, -32.7146, -2.58611, 23.8473, -159.725, -92.4435, 54.8013
4.44791, 8, -32.6466, -2.64823, 23.9068, -159.702, -92.429, 54.784
4.45591, 8, -32.5792, -2.71211, 23.9675, -159.677, -92.4125, 54.767
4.46415, 8, -32.5126, -2.77775, 24.0294, -159.65, -92.3941, 54.7493
4.47287, 8, -32.4467, -2.845, 24.0923, -159.623, -92.374, 54.7305
4.48005, 8, -32.3815, -2.9137, 24.1562, -159.595, -92.3525, 54.7104
4.48802, 9, -32.3168, -2.98377, 24.2211, -159.566, -92.33, 54.6884
4.49604, 9, -32.2528, -3.05513, 24.287, -159.537, -92.3064, 54.6647
4.50405, 9, -32.1893, -3.12786, 24.3539, -159.505, -92.2814, 54.6393
4.51332, 9, -32.1264, -3.20181, 24.4217, -159.473, -92.2546, 54.6127
4.52201, 9, -32.064, -3.2771, 24.4906, -159.44, -92.2261, 54.5848
4.52816, 10, -32.0021, -3.35368, 24.5604, -159.407, -92.1964, 54.5554
4.53494, 10, -31.9715, -3.39246, 24.5958, -159.39, -92.1812, 54.5399
4.54437, 10, -31.8804, -3.51101, 24.7034, -159.336, -92.1336, 54.4906
4.55305, 10, -31.8203, -3.59184, 24.7764, -159.299, -92.0996, 54.4555
4.55897, 10, -31.7905, -3.63277, 24.8133, -159.281, -92.0819, 54.4376
4.5683, 11, -31.702, -3.75776, 24.9254, -159.223, -92.0276, 54.382
4.5749, 11, -31.6727, -3.80019, 24.9633, -159.203, -92.0091, 54.3626
4.58296, 11, -31.6146, -3.88614, 25.0397, -159.164, -91.9707, 54.3224
4.59338, 11, -31.5283, -4.01774, 25.1562, -159.102, -91.9097, 54.2589
4.60043, 11, -31.4715, -4.1073, 25.2351, -159.059, -91.868, 54.2151
4.60888, 12, -31.4153, -4.19839, 25.3151, -159.017, -91.8246, 54.17
4.61735, 12, -31.3594, -4.29085, 25.3961, -158.973, -91.7791, 54.1227
4.62296, 12, -31.3317, -4.33763, 25.437, -158.95, -91.7562, 54.0984
4.63339, 12, -31.2493, -4.47993, 25.5614, -158.881, -91.6859, 54.024
4.63904, 12, -31.2221, -4.52803, 25.6034, -158.858, -91.6614, 53.9985
4.64713, 12, -31.1681, -4.62536, 25.6881, -158.81, -91.6115, 53.9461
4.65595, 13, -31.1146, -4.72412, 25.7737, -158.761, -91.561, 53.8917
4.66404, 13, -31.0616, -4.82424, 25.8602, -158.713, -91.5082, 53.8367
4.67376, 13, -30.9831, -4.97733, 25.9919, -158.637, -91.4274, 53.7507
4.6799, 13, -30.9572, -5.02912, 26.0364, -158.611, -91.3997, 53.7211
4.68794, 14, -30.9058, -5.13366, 26.1263, -158.56, -91.3428, 53.6617
4.69492, 14, -30.8549, -5.23966, 26.2171, -158.506, -91.2856, 53.6007
4.70389, 14, -30.8047, -5.34724, 26.3091, -158.453, -91.2265, 53.5376
4.71437, 14, -30.7303, -5.5112, 26.4484, -158.37, -91.1357, 53.4417
4.72007, 14, -30.7057, -5.56664, 26.4954, -158.342, -91.1048, 53.4087
4.72693, 14, -30.657, -5.67868, 26.5901, -158.286, -91.041, 53.3412
4.73815, 15, -30.6088, -5.79213, 26.6858, -158.228, -90.977, 53.2386
4.74292, 15, -30.5611, -5.90685, 26.7828, -158.17, -90.9106, 53.2033
4.75189, 15, -30.5139, -6.02287, 26.8809, -158.111, -90.8439, 53.1318
4.76333, 15, -30.4439, -6.19968, 27.0298, -158.02, -90.7403, 53.0223
4.76806, 15, -30.4208, -6.25928, 27.0799, -157.99, -90.7054, 52.9845
4.77495, 16, -30.3752, -6.37962, 27.1807, -157.927, -90.6341, 52.9089
4.78399, 16, -30.33, -6.50163, 27.2826, -157.864, -90.5616, 52.8312
4.79305, 16, -30.2853, -6.62494, 27.3857, -157.801, -90.4879, 52.7521
4.79906, 16, -30.2411, -6.74973, 27.4899, -157.736, -90.4128, 52.6723
4.80691, 16, -30.1974, -6.87606, 27.5952, -157.671, -90.3362, 52.5902
4.81588, 17, -30.1541, -7.00389, 27.7014, -157.604, -90.2585, 52.5078
4.82399, 17, -30.1114, -7.13336, 27.8084, -157.537, -90.1793, 52.4233
4.83189, 17, -30.0692, -7.26432, 27.9163, -157.468, -90.0989, 52.3384
4.84007, 17, -30.0274, -7.39666, 28.0253, -157.399, -90.0169, 52.2514
4.84791, 17, -29.9863, -7.53019, 28.1356, -157.329, -89.934, 52.1633
4.85593, 18, -29.9455, -7.66528, 28.2471, -157.258, -89.8495, 52.0738
4.86396, 18, -29.9053, -7.80172, 28.3595, -157.186, -89.7636, 51.9832
4.87201, 18, -29.8657, -7.93964, 28.4726, -157.113, -89.6769, 51.8909
4.87989, 18, -29.8264, -8.07878, 28.5867, -157.039, -89.5888, 51.7974
4.88835, 18, -29.7876, -8.21919, 28.7019, -156.965, -89.4993, 51.7023
4.89603, 19, -29.7493, -8.36097, 28.8184, -156.889, -89.4086, 51.6063
4.90393, 19, -29.7114, -8.50425, 28.936, -156.813, -89.3168, 51.5087
4.91459, 19, -29.6739, -8.64914, 29.0545, -156.735, -89.2236, 51.4104
4.92002, 19, -29.637, -8.79547, 29.1738, -156.657, -89.1291, 51.3106
4.92701, 19, -29.6005, -8.94296, 29.2939, -156.578, -89.0339, 51.2104
4.93509, 19, -29.5645, -9.09189, 29.415, -156.498, -88.9371, 51.1081
4.944, 20, -29.529, -9.24227, 29.5374, -156.417, -88.8395, 51.0053
4.95189, 20, -29.4938, -9.39429, 29.6609, -156.336, -88.741, 50.9009
4.95992, 20, -29.4592, -9.54747, 29.7852, -156.253, -88.6411, 50.7954
4.96775, 20, -29.4251, -9.70177, 29.9102, -156.17, -88.5402, 50.6886
4.97604, 20, -29.3915, -9.85737, 30.0364, -156.085, -88.4384, 50.5807
4.984, 21, -29.3583, -10.0145, 30.1634, -156, -88.3351, 50.4718
4.99205, 21, -29.3254, -10.1731, 30.2917, -155.914, -88.231, 50.3617
5.00001, 21, -29.293, -10.3329, 30.4209, -155.827, -88.1259, 50.2509
5.008, 21, -29.261, -10.4936, 30.5509, -155.739, -88.0195, 50.1393
5.01671, 21, -29.2295, -10.6555, 30.6817, -155.651, -87.9123, 50.0266
5.02424, 22, -29.1983, -10.8189, 30.8135, -155.561, -87.8042, 49.9132
5.03193, 22, -29.1674, -10.9836, 30.9464, -155.47, -87.6948, 49.7989
5.04027, 22, -29.1371, -11.149, 31.08, -155.379, -87.5847, 49.6836
5.04888, 22, -29.1071, -11.3155, 31.2147, -155.287, -87.4734, 49.5676
5.05634, 22, -29.0775, -11.4836, 31.3503, -155.194, -87.3613, 49.4506
5.06289, 23, -29.0628, -11.5683, 31.4184, -155.147, -87.3049, 49.392
5.07227, 23, -29.0192, -11.8242, 31.6238, -155.005, -87.1341, 49.2146
5.0789, 23, -29.0049, -11.9098, 31.6927, -154.957, -87.0769, 49.1552
5.08933, 23, -28.9626, -12.1685, 31.9007, -154.813, -86.9037, 48.9763
5.10018, 23, -28.9348, -12.3428, 32.0405, -154.716, -86.7869, 48.856
5.10476, 24, -28.9074, -12.5183, 32.1812, -154.617, -86.6693, 48.7354
5.11248, 24, -28.8803, -12.6943, 32.3226, -154.518, -86.5507, 48.6143
5.12072, 24, -28.8536, -12.871, 32.4645, -154.418, -86.4315, 48.4923
5.12904, 24, -28.8272, -13.0493, 32.6075, -154.318, -86.3111, 48.3697
5.13651, 24, -28.8141, -13.139, 32.7514, -154.216, -86.1903, 48.2469
5.14447, 25, -28.7882, -13.319, 32.8237, -154.165, -86.0687, 48.1235
5.15188, 25, -28.7627, -13.4996, 32.9687, -154.063, -86.0074, 48.0618
5.1599, 25, -28.7374, -13.681, 33.1142, -153.959, -85.8849, 47.9384
5.17006, 25, -28.6997, -13.9559, 33.3338, -153.802, -85.6993, 47.7529
5.17701, 25, -28.6749, -14.1402, 33.4813, -153.697, -85.575, 47.6289
5.1831, 26, -28.6627, -14.2324, 33.5553, -153.644, -85.5126, 47.5671
5.19188, 26, -28.6383, -14.4175, 33.7037, -153.537, -85.3871, 47.4429
5.1989, 26, -28.6144, -14.6042, 33.8525, -153.43, -85.2614, 47.3186
5.20788, 26, -28.5907, -14.7919, 34.0023, -153.321, -85.1349, 47.1944
5.21507, 26, -28.567, -14.9798, 34.1528, -153.213, -85.0078, 47.0701
5.22413, 27, -28.5435, -15.1681, 34.3038, -153.103, -84.8801, 46.9462
5.23194, 27, -28.5203, -15.3575, 34.4552, -152.993, -84.752, 46.8226
5.24013, 27, -28.4974, -15.5475, 34.6072, -152.882, -84.6236, 46.6993
5.25037, 27, -28.4746, -15.833, 34.8366, -152.714, -84.4296, 46.5146
5.25492, 27, -28.4521, -15.9286, 34.9134, -152.657, -84.3649, 46.4533
5.26399, 27, -28.4298, -16.1209, 35.0668, -152.544, -84.2349, 46.3307
5.27191, 28, -28.4075, -16.3143, 35.2205, -152.43, -84.1048, 46.2085
5.28093, 28, -28.3852, -16.5081, 35.3753, -152.316, -83.9739, 46.0867
5.28898, 28, -28.3632, -16.7027, 35.5306, -152.201, -83.843, 45.9655
5.29602, 28, -28.3413, -16.8983, 35.6862, -152.085, -83.7117, 45.8452
5.30387, 28, -28.3194, -17.0946, 35.8419, -151.969, -83.5801, 45.7253
5.31267, 29, -28.2977, -17.2907, 35.9982, -151.851, -83.4483, 45.6063
5.31888, 29, -28.2762, -17.4875, 36.1554, -151.733, -83.3159, 45.4882
5.32787, 29, -28.2546, -17.6853, 36.3128, -151.615, -83.1833, 45.3705
5.3393, 29, -28.2225, -17.9821, 36.549, -151.435, -82.9836, 45.1955
5.34403, 29, -28.2119, -18.0811, 36.6282, -151.375, -82.9171, 45.1378
5.3521, 30, -28.1907, -18.2797, 36.7869, -151.255, -82.7835, 45.0232
5.35897, 30, -28.1694, -18.4789, 36.9459, -151.133, -82.6502, 44.9099
5.36803, 30, -28.1481, -18.6782, 37.1044, -151.012, -82.5164, 44.7979
5.37536, 30, -28.1269, -18.8776, 37.2629, -150.89, -82.3829, 44.6879
5.38299, 30, -28.1056, -19.0781, 37.4219, -150.767, -82.2488, 44.5796
5.39187, 31, -28.084, -19.2791, 37.5812, -150.644, -82.1148, 44.4729
5.39994, 31, -28.0625, -19.4798, 37.7401, -150.52, -81.9809, 44.3679
5.40798, 31, -28.0411, -19.6805, 37.8991, -150.396, -81.8467, 44.2646
5.41606, 31, -28.0196, -19.8815, 38.0588, -150.271, -81.7128, 44.1631
5.42393, 31, -27.9978, -20.0824, 38.2189, -150.146, -81.5784, 44.0626
5.43199, 32, -27.9759, -20.2827, 38.3787, -150.02, -81.4442, 43.9643
5.4408, 32, -27.9539, -20.4835, 38.5382, -149.893, -81.3099, 43.8677
5.4487, 32, -27.9316, -20.6849, 38.698, -149.767, -81.1759, 43.7736
5.45603, 32, -27.909, -20.886, 38.8581, -149.639, -81.0418, 43.6814
5.46467, 32, -27.8864, -21.0867, 39.0177, -149.512, -80.9083, 43.5925
5.47196, 33, -27.8635, -21.2875, 39.1765, -149.384, -80.7751, 43.5059
5.48027, 33, -27.8402, -21.4882, 39.3354, -149.257, -80.6423, 43.4228
5.48744, 33, -27.8165, -21.6881, 39.4943, -149.129, -80.5099, 43.3424
5.49648, 33, -27.7924, -21.8873, 39.6525, -149.002, -80.378, 43.2656
5.50405, 33, -27.7677, -22.0865, 39.8097, -148.874, -80.2466, 43.1916
5.51195, 34, -27.7426, -22.2851, 39.9665, -148.747, -80.1154, 43.1212
5.52044, 34, -27.717, -22.4825, 40.1232, -148.619, -79.9847, 43.0543
5.52687, 34, -27.7041, -22.581, 40.2014, -148.555, -79.9193, 43.0217
5.54003, 34, -27.6645, -22.9747, 40.5125, -148.3, -79.658, 42.9003
5.54421, 34, -27.6377, -23.0728, 40.5901, -148.236, -79.5926, 42.8721
5.55207, 34, -27.6103, -23.2684, 40.7455, -148.108, -79.4621, 42.8175
5.55887, 35, -27.5965, -23.3662, 40.8231, -148.043, -79.3968, 42.7914
5.56703, 35, -27.569, -23.5622, 40.9779, -147.915, -79.2662, 42.7425
5.57485, 35, -27.5411, -23.7581, 41.132, -147.786, -79.136, 42.697
5.58292, 35, -27.513, -23.9534, 41.2862, -147.656, -79.0059, 42.6544
5.59236, 35, -27.4704, -24.2461, 41.5177, -147.461, -78.8115, 42.5968
5.60124, 36, -27.4415, -24.4412, 41.6715, -147.33, -78.6819, 42.5636
5.60694, 36, -27.4269, -24.5385, 41.7482, -147.265, -78.6174, 42.5485
5.61685, 36, -27.3828, -24.829, 41.9776, -147.068, -78.4243, 42.5096
5.62678, 36, -27.3525, -25.0224, 42.1301, -146.937, -78.2963, 42.4891
5.63255, 36, -27.3214, -25.2151, 42.2816, -146.807, -78.1686, 42.473
5.64047, 37, -27.3055, -25.3109, 42.3569, -146.676, -78.0414, 42.4618
5.64848, 37, -27.273, -25.5015, 42.5064, -146.611, -77.9781, 42.4555
5.65592, 37, -27.2396, -25.6913, 42.655, -146.482, -77.8516, 42.4539
5.66539, 37, -27.1876, -25.974, 42.8757, -146.29, -77.663, 42.4536
5.67332, 37, -27.1698, -26.1602, 43.021, -146.162, -77.5376, 42.4604
5.67883, 38, -27.1336, -26.2528, 43.0932, -146.099, -77.4752, 42.4662
5.68786, 38, -27.0966, -26.4375, 43.2368, -145.972, -77.3508, 42.4816
5.696, 38, -27.0588, -26.6214, 43.38, -145.845, -77.2266, 42.5025
5.70315, 38, -27.0203, -26.8039, 43.5225, -145.719, -77.1028, 42.5285
5.71193, 38, -26.9811, -26.9853, 43.6642, -145.592, -76.9791, 42.5598
5.71982, 39, -26.9413, -27.1664, 43.8053, -145.465, -76.8559, 42.5973
5.72786, 39, -26.9009, -27.3472, 43.9457, -145.339, -76.7326, 42.6407
5.73591, 39, -26.8597, -27.527, 44.0856, -145.211, -76.6092, 42.6894
5.74403, 39, -26.8177, -27.7057, 44.2248, -145.084, -76.4861, 42.7439
5.75084, 39, -26.7749, -27.884, 44.3629, -144.957, -76.3627, 42.8051
5.75982, 40, -26.7313, -28.0618, 44.4999, -144.831, -76.2397, 42.8723
5.76696, 40, -26.6866, -28.2379, 44.6357, -144.706, -76.1167, 42.9455
5.77593, 40, -26.6408, -28.4123, 44.7702, -144.581, -75.9945, 43.0262
5.78491, 40, -26.5941, -28.5855, 44.9032, -144.457, -75.8727, 43.1122
5.79202, 40, -26.5462, -28.7576, 45.0345, -144.335, -75.7516, 43.2059
5.80013, 41, -26.4971, -28.9278, 45.1644, -144.214, -75.6314, 43.3057
5.80789, 41, -26.4468, -29.0961, 45.2928, -144.093, -75.5114, 43.4126
5.81682, 41, -26.3955, -29.2629, 45.4199, -143.974, -75.3922, 43.5259
5.82385, 41, -26.3429, -29.4286, 45.5456, -143.855, -75.2733, 43.6462
5.83188, 41, -26.289, -29.5925, 45.6699, -143.737, -75.1547, 43.7737
5.84088, 42, -26.2338, -29.7544, 45.7925, -143.621, -75.037, 43.9083
5.848, 42, -26.1772, -29.9145, 45.9134, -143.506, -74.919, 44.0503
5.85502, 42, -26.119, -30.073, 46.0323, -143.392, -74.8021, 44.1995
5.86721, 42, -26.0287, -30.307, 46.2066, -143.225, -74.6273, 44.4363
5.87104, 42, -25.9979, -30.3838, 46.2636, -143.17, -74.5694, 44.5189
5.87993, 42, -25.9348, -30.5356, 46.3761, -143.062, -74.4539, 44.6894
5.88788, 43, -25.87, -30.6852, 46.4862, -142.956, -74.3387, 44.8675
5.9007, 43, -25.7695, -30.9055, 46.6475, -142.8, -74.167, 45.1492
5.90393, 43, -25.7353, -30.9778, 46.7003, -142.749, -74.1099, 45.247
5.91187, 43, -25.6656, -31.1207, 46.8044, -142.648, -73.9959, 45.4481
5.91928, 43, -25.5944, -31.2613, 46.9067, -142.549, -73.8827, 45.6569
5.92793, 44, -25.5216, -31.4, 47.0069, -142.452, -73.7698, 45.8735
5.9359, 44, -25.447, -31.5366, 47.1048, -142.358, -73.6578, 46.0981
5.94409, 44, -25.3705, -31.671, 47.2002, -142.265, -73.5463, 46.331
5.9521, 44, -25.2924, -31.8029, 47.2932, -142.175, -73.4352, 46.572
5.95922, 44, -25.2124, -31.932, 47.3839, -142.087, -73.3252, 46.8211
5.96797, 45, -25.1306, -32.0585, 47.4722, -142.003, -73.2156, 47.0785
5.97596, 45, -25.0468, -32.1821, 47.5579, -141.921, -73.1064, 47.3446
5.98404, 45, -24.9608, -32.303, 47.6409, -141.842, -72.9979, 47.6188
5.99237, 45, -24.8727, -32.4208, 47.7209, -141.766, -72.8895, 47.9014
6.00075, 45, -24.7822, -32.5353, 47.7978, -141.693, -72.782, 48.192
6.0081, 46, -24.6894, -32.6465, 47.8718, -141.623, -72.6749, 48.4916
6.01641, 46, -24.5942, -32.7543, 47.9428, -141.556, -72.5684, 48.7993
6.02402, 46, -24.4966, -32.8587, 48.0108, -141.493, -72.463, 49.1152
6.0326, 46, -24.3967, -32.9595, 48.0756, -141.435, -72.3583, 49.4399
6.04138, 46, -24.2944, -33.0565, 48.1371, -141.379, -72.2545, 49.7728
6.04982, 47, -24.1899, -33.1498, 48.1951, -141.328, -72.1522, 50.1134
6.05687, 47, -24.083, -33.2391, 48.2495, -141.281, -72.0507, 50.4624
6.06402, 47, -23.9735, -33.3244, 48.3003, -141.237, -71.9504, 50.8198
6.07303, 47, -23.8615, -33.4057, 48.3473, -141.199, -71.8514, 51.1856
6.08016, 47, -23.7466, -33.4829, 48.3905, -141.165, -71.7534, 51.5601
6.0869, 47, -23.6882, -33.5198, 48.4107, -141.15, -71.7049, 51.7508
6.09812, 48, -23.5087, -33.6242, 48.4649, -141.11, -71.5619, 52.3356
6.10438, 48, -23.3858, -33.688, 48.4959, -141.09, -71.4683, 52.737
6.11319, 48, -23.2605, -33.7469, 48.5228, -141.075, -71.3764, 53.148
6.12093, 48, -23.1325, -33.8008, 48.5454, -141.065, -71.2868, 53.5679
6.12683, 48, -23.0674, -33.8258, 48.5549, -141.062, -71.2426, 53.7814
6.13721, 49, -22.935, -33.893, 48.5771, -141.059, -71.1128, 54.4335
6.14289, 49, -22.7997, -33.9127, 48.5822, -141.06, -71.0707, 54.6547
6.15344, 49, -22.5912, -33.9632, 48.5903, -141.075, -70.9472, 55.33
6.15989, 49, -22.5203, -33.9772, 48.5908, -141.083, -70.9074, 55.5587
6.16895, 49, -22.3763, -34.0009, 48.5882, -141.103, -70.791, 56.2562
6.18006, 50, -22.1553, -34.0248, 48.5748, -141.145, -70.7172, 56.7296
6.18386, 50, -22.0803, -34.0296, 48.5677, -141.162, -70.681, 56.9693
6.19187, 50, -21.9282, -34.0347, 48.5498, -141.2, -70.6117, 57.455
6.19885, 50, -21.7732, -34.034, 48.5265, -141.246, -70.545, 57.9479
6.20791, 50, -21.6151, -34.0268, 48.4976, -141.297, -70.4823, 58.4484
6.21601, 51, -21.4539, -34.0128, 48.4633, -141.354, -70.4231, 58.9549
6.22525, 51, -21.29, -33.992, 48.4017, -141.452, -70.3408, 59.7267
6.23086, 51, -21.1235, -33.9642, 48.3784, -141.487, -70.3155, 59.9869
6.24406, 51, -20.8689, -33.9091, 48.2999, -141.604, -70.2443, 60.7767
6.24698, 51, -20.7828, -33.8871, 48.2709, -141.646, -70.2226, 61.0424
6.25511, 52, -20.6086, -33.8371, 48.2084, -141.735, -70.1831, 61.5788
6.26393, 52, -20.4316, -33.7792, 48.1399, -141.83, -70.1482, 62.122
6.27205, 52, -20.2519, -33.7134, 48.0655, -141.932, -70.1175, 62.6719
6.27906, 52, -20.0693, -33.6395, 47.9848, -142.04, -70.0916, 63.2278
6.28797, 52, -19.8842, -33.5571, 47.8978, -142.154, -70.071, 63.7898
6.297, 53, -19.6966, -33.4662, 47.8046, -142.275, -70.0559, 64.3576
6.30399, 53, -19.5073, -33.3669, 47.7054, -142.401, -70.0463, 64.9311
6.31185, 53, -19.3159, -33.2595, 47.6001, -142.534, -70.042, 65.5082
6.31987, 53, -19.1226, -33.144, 47.4891, -142.672, -70.0424, 66.0888
6.32797, 53, -18.9275, -33.0201, 47.3721, -142.816, -70.0485, 66.6732
6.33584, 54, -18.7308, -32.8879, 47.2492, -142.964, -70.0609, 67.2594
6.34633, 54, -18.4324, -32.6742, 47.054, -143.195, -70.0917, 68.1403
6.352, 54, -18.3319, -32.5988, 46.9862, -143.274, -70.1054, 68.4346
6.35918, 54, -18.1297, -32.4421, 46.8464, -143.436, -70.1375, 69.0242
6.36695, 54, -17.9261, -32.2766, 46.7009, -143.602, -70.1755, 69.6156
6.37603, 55, -17.7216, -32.1021, 46.5491, -143.773, -70.2208, 70.2085
6.38392, 55, -17.5161, -31.9181, 46.3909, -143.949, -70.2746, 70.8056
6.39184, 55, -17.3091, -31.7249, 46.2264, -144.129, -70.3353, 71.4069
6.39984, 55, -17.1005, -31.5221, 46.0547, -144.315, -70.4054, 72.0126
6.40797, 55, -16.8902, -31.3085, 45.8752, -144.506, -70.4836, 72.6229
6.41607, 56, -16.6781, -31.0842, 45.6886, -144.701, -70.5715, 73.2385
6.42405, 56, -16.4645, -30.8497, 45.4954, -144.901, -70.6683, 73.8585
6.43189, 56, -16.2497, -30.6041, 45.2944, -145.106, -70.774, 74.4815
6.43989, 56, -16.0346, -30.3476, 45.0858, -145.314, -70.8894, 75.1074
6.44806, 56, -15.8197, -30.081, 44.8716, -145.526, -71.0139, 75.736
6.45707, 57, -15.6045, -29.8035, 44.6508, -145.741, -71.1478, 76.3659
6.46408, 57, -15.3881, -29.5158, 44.4228, -145.959, -71.291, 76.996
6.47194, 57, -15.1707, -29.218, 44.189, -146.179, -71.4438, 77.627
6.47995, 57, -14.9528, -28.9103, 43.9491, -146.4, -71.6058, 78.2581
6.48809, 57, -14.735, -28.5943, 43.7034, -146.623, -71.7775, 78.8873
6.49674, 57, -14.5176, -28.2697, 43.4535, -146.846, -71.9579, 79.5145
6.50417, 58, -14.3013, -27.9378, 43.1989, -147.07, -72.1464, 80.1387
6.51195, 58, -14.0862, -27.5978, 42.9409, -147.292, -72.3427, 80.7581
6.52071, 58, -13.8726, -27.2508, 42.6799, -147.513, -72.5466, 81.3708
6.52796, 58, -13.6604, -26.8969, 42.4153, -147.732, -72.7578, 81.9785
6.53587, 58, -13.4493, -26.5366, 42.1483, -147.949, -72.976, 82.5803
6.54408, 59, -13.2396, -26.1688, 41.8771, -148.164, -73.2018, 83.1764
6.55088, 59, -13.1354, -25.9824, 41.7402, -148.271, -73.3175, 83.4724
6.55994, 59, -12.8257, -25.4133, 41.3244, -148.59, -73.6768, 84.3546
6.57032, 59, -12.6207, -25.0258, 41.0423, -148.8, -73.9265, 84.9381
6.57654, 59, -12.4167, -24.6307, 40.7566, -149.009, -74.1849, 85.5172
6.58288, 60, -12.3152, -24.4304, 40.612, -149.112, -74.3172, 85.8051
6.59232, 60, -12.0126, -23.8195, 40.1734, -149.419, -74.7264, 86.6632
6.60439, 60, -11.8129, -23.4049, 39.7284, -149.72, -75.1536, 87.5114
6.60929, 60, -11.6148, -22.9839, 39.5792, -149.819, -75.2998, 87.7912
6.61489, 60, -11.5166, -22.7714, 39.4295, -149.917, -75.4476, 88.0695
6.62449, 61, -11.2258, -22.1273, 38.9783, -150.205, -75.9006, 88.8954
6.63329, 61, -11.0347, -21.6932, 38.6763, -150.392, -76.2095, 89.4368
6.63891, 61, -10.94, -21.4749, 38.5248, -150.484, -76.3658, 89.7042
6.6496, 61, -10.752, -20.8142, 38.0703, -150.752, -76.8417, 90.4928
6.65732, 61, -10.5664, -20.3687, 37.7667, -150.925, -77.165, 91.0083
6.66284, 61, -10.3829, -20.1444, 37.6149, -151.01, -77.3284, 91.2628
6.67382, 62, -10.1128, -19.4662, 37.1581, -151.256, -77.8265, 92.015
6.67984, 62, -10.0241, -19.2389, 37.0055, -151.337, -77.9952, 92.2618
6.68787, 62, -9.84859, -18.7818, 36.6996, -151.494, -78.337, 92.7505
6.69718, 62, -9.59024, -18.0929, 36.2394, -151.721, -78.8596, 93.4701
6.70566, 62, -9.50521, -17.6323, 35.9328, -151.866, -79.2133, 93.9395
6.71182, 63, -9.33687, -17.4015, 35.7799, -151.937, -79.3915, 94.1704
6.71888, 63, -9.17087, -16.9394, 35.4759, -152.074, -79.7495, 94.6238
6.72788, 63, -9.00759, -16.4756, 35.1737, -152.206, -80.1092, 95.0668
6.73485, 63, -8.84686, -16.01, 34.8739, -152.331, -80.4704, 95.4983
6.74383, 63, -8.68872, -15.5418, 34.5757, -152.451, -80.833, 95.9189
6.75436, 64, -8.45621, -14.8362, 34.1322, -152.621, -81.3824, 96.5307
6.75884, 64, -8.37987, -14.6002, 33.9843, -152.675, -81.5675, 96.7297
6.76783, 64, -8.22886, -14.1272, 33.6883, -152.781, -81.9416, 97.1216
6.77609, 64, -8.08007, -13.6538, 33.3921, -152.882, -82.3212, 97.5047
6.7869, 65, -7.86112, -12.9438, 32.9476, -153.024, -82.8996, 98.0608
6.79089, 65, -7.78938, -12.7074, 32.8001, -153.069, -83.0942, 98.2408
6.79989, 65, -7.64803, -12.2351, 32.5064, -153.154, -83.4846, 98.5913
6.80785, 65, -7.5097, -11.7637, 32.2164, -153.234, -83.8757, 98.9279
6.81585, 65, -7.37436, -11.2925, 31.9303, -153.307, -84.2658, 99.2499
6.82421, 65, -7.24209, -10.8224, 31.6487, -153.375, -84.6546, 99.5571
6.83268, 66, -7.11258, -10.3547, 31.3716, -153.435, -85.0415, 99.8486
6.83982, 66, -6.98531, -9.89029, 31.0983, -153.491, -85.4268, 100.124
6.85091, 66, -6.79852, -9.20426, 30.6973, -153.563, -86.0025, 100.508
6.85585, 66, -6.73733, -8.97903, 30.5655, -153.584, -86.1933, 100.627
6.86388, 66, -6.6166, -8.53357, 30.3055, -153.622, -86.5734, 100.854
6.87184, 67, -6.49843, -8.09486, 30.0511, -153.655, -86.9496, 101.064
6.87999, 67, -6.38319, -7.6633, 29.8027, -153.681, -87.3213, 101.255
6.88699, 67, -6.27094, -7.23846, 29.5619, -153.702, -87.6876, 101.43
6.89584, 67, -6.16138, -6.81945, 29.3282, -153.716, -88.0478, 101.586
6.90405, 67, -6.05442, -6.40751, 29.1011, -153.726, -88.4019, 101.724
6.91107, 68, -5.94984, -6.00217, 28.8808, -153.73, -88.751, 101.846
6.91967, 68, -5.84717, -5.60348, 28.6659, -153.731, -89.096, 101.949
6.92783, 68, -5.74624, -5.2101, 28.4547, -153.727, -89.4382, 102.036
6.93589, 68, -5.64696, -4.82241, 28.2475, -153.718, -89.7787, 102.105
6.94388, 68, -5.54923, -4.43977, 28.0433, -153.705, -90.1184, 102.156
6.95219, 69, -5.45322, -4.06134, 27.8415, -153.688, -90.4572, 102.189
6.96012, 69, -5.35893, -3.68599, 27.6435, -153.666, -90.7959, 102.204
6.96783, 69, -5.26631, -3.31409, 27.4497, -153.64, -91.1342, 102.201
6.9796, 69, -5.13078, -2.76321, 27.1647, -153.591, -91.6405, 102.156
6.98416, 69, -5.08645, -2.58117, 27.0715, -153.574, -91.8088, 102.131
6.99219, 70, -4.99885, -2.21925, 26.8882, -153.536, -92.1446, 102.063
7.00019, 70, -4.91254, -1.86145, 26.7086, -153.493, -92.4792, 101.974
7.00751, 70, -4.82744, -1.50836, 26.5322, -153.447, -92.8122, 101.863
7.01601, 70, -4.74341, -1.16072, 26.36, -153.398, -93.1433, 101.728
7.02389, 70, -4.66049, -0.818072, 26.1924, -153.345, -93.4721, 101.573
7.03214, 71, -4.57858, -0.481993, 26.0286, -153.289, -93.7981, 101.395
7.04002, 71, -4.49777, -0.152114, 25.8687, -153.232, -94.121, 101.197
7.04787, 71, -4.41808, 0.170795, 25.7142, -153.17, -94.4404, 100.977
7.05486, 71, -4.37858, 0.329746, 25.6391, -153.139, -94.5985, 100.86
7.06398, 71, -4.26117, 0.797642, 25.421, -153.041, -95.0674, 100.477
7.07086, 71, -4.22247, 0.95014, 25.3507, -153.008, -95.2216, 100.34
7.08045, 72, -4.10741, 1.39781, 25.1464, -152.905, -95.679, 99.8976
7.08858, 72, -4.03106, 1.68755, 25.0152, -152.834, -95.9799, 99.5774
7.09619, 72, -3.95499, 1.97113, 24.8874, -152.763, -96.2782, 99.2366
7.10433, 72, -3.87899, 2.24877, 24.7628, -152.69, -96.5738, 98.8754
7.11277, 72, -3.80308, 2.51999, 24.6412, -152.617, -96.8672, 98.4925
7.1204, 73, -3.72724, 2.78566, 24.5227, -152.543, -97.1582, 98.0874
7.1294, 73, -3.6512, 3.04507, 24.4075, -152.47, -97.4466, 97.6601
7.13655, 73, -3.57478, 3.29794, 24.2959, -152.396, -97.7326, 97.2096
7.14445, 73, -3.53644, 3.54476, 24.1879, -152.323, -98.0154, 96.7382
7.15244, 73, -3.45953, 3.66567, 24.1354, -152.287, -98.2947, 96.2455
7.16203, 74, -3.34312, 4.01618, 23.9839, -152.18, -98.5702, 95.7334
7.16786, 74, -3.30397, 4.12892, 23.9353, -152.145, -98.7059, 95.4706
7.17581, 74, -3.22526, 4.34822, 23.8412, -152.077, -98.9733, 94.9332
7.18392, 74, -3.14584, 4.55825, 23.7512, -152.01, -99.2347, 94.3825
7.19183, 74, -3.06584, 4.75834, 23.6656, -151.945, -99.4892, 93.8195
7.19983, 75, -2.98498, 4.9489, 23.5844, -151.883, -99.7361, 93.246
7.21019, 75, -2.86199, 5.21603, 23.4707, -151.796, -100.09, 92.3707
7.21491, 75, -2.8205, 5.29959, 23.4348, -151.768, -100.204, 92.0755
7.22381, 75, -2.73688, 5.45853, 23.3659, -151.714, -100.423, 91.4796
7.23718, 75, -2.60981, 5.67685, 23.2403, -151.617, -100.835, 90.2683
7.23996, 76, -2.56693, 5.74402, 23.2403, -151.617, -100.835, 90.2683
7.24783, 76, -2.48042, 5.86977, 23.1838, -151.573, -101.026, 89.6522
7.25599, 76, -2.39298, 5.98392, 23.1317, -151.534, -101.209, 89.0269
7.26381, 76, -2.30482, 6.08604, 23.0839, -151.499, -101.383, 88.3927
7.27089, 76, -2.21575, 6.17581, 23.0404, -151.467, -101.546, 87.7514
7.28168, 77, -2.12592, 6.25281, 23.0019, -151.427, -101.771, 86.7781
7.28698, 77, -2.0353, 6.31677, 22.9684, -151.415, -101.84, 86.4521
7.29581, 77, -1.94362, 6.36761, 22.9404, -151.396, -101.968, 85.8002
7.30792, 77, -1.80442, 6.41782, 22.909, -151.374, -102.134, 84.8267
7.31097, 77, -1.7576, 6.42751, 22.9015, -151.368, -102.182, 84.5035
7.32006, 77, -1.66328, 6.43617, 22.8908, -151.36, -102.267, 83.8601
7.32683, 78, -1.5682, 6.43008, 22.8859, -151.356, -102.336, 83.2214
7.33588, 78, -1.47251, 6.40866, 22.8862, -151.354, -102.39, 82.585
7.34381, 78, -1.37641, 6.3719, 22.8925, -151.355, -102.428, 81.9519
7.35182, 78, -1.27995, 6.31918, 22.9049, -151.36, -102.45, 81.3235
7.36004, 78, -1.18327, 6.25032, 22.9237, -151.369, -102.457, 80.7002
7.36778, 79, -1.08653, 6.16531, 22.9494, -151.381, -102.447, 80.0832
7.37581, 79, -0.989625, 6.0643, 22.9823, -151.395, -102.418, 79.4748
7.38382, 79, -0.892666, 5.94721, 23.0225, -151.413, -102.373, 78.8772
7.3919, 79, -0.795725, 5.81378, 23.0702, -151.433, -102.31, 78.29
7.39981, 79, -0.698673, 5.66366, 23.1255, -151.456, -102.228, 77.7138
7.40781, 80, -0.601622, 5.49721, 23.1881, -151.481, -102.129, 77.1492
7.41588, 80, -0.504576, 5.31435, 23.2583, -151.508, -102.012, 76.5956
7.42381, 80, -0.40752, 5.11495, 23.3366, -151.536, -101.876, 76.0515
7.43504, 80, -0.262214, 4.7833, 23.4692, -151.581, -101.637, 75.2524
7.44002, 80, -0.213856, 4.6636, 23.5176, -151.597, -101.548, 74.9904
7.44706, 81, -0.117238, 4.41124, 23.6211, -151.631, -101.355, 74.4736
7.45515, 81, -0.0207835, 4.14231, 23.7335, -151.665, -101.143, 73.9654
7.46354, 81, 0.0753915, 3.85617, 23.8551, -151.7, -100.912, 73.4658
7.47195, 81, 0.171408, 3.55337, 23.9864, -151.736, -100.661, 72.9754
7.47986, 81, 0.267222, 3.23306, 24.1276, -151.773, -100.391, 72.4948
7.4881, 82, 0.362785, 2.89565, 24.2786, -151.81, -100.102, 72.0237
7.49616, 82, 0.458219, 2.54158, 24.439, -151.848, -99.7943, 71.5617
7.50391, 82, 0.553349, 2.17155, 24.6087, -151.885, -99.467, 71.1097
7.51237, 82, 0.648266, 1.78544, 24.7881, -151.923, -99.122, 70.6671
7.51944, 82, 0.695661, 1.5862, 24.977, -151.959, -98.7593, 70.2347
7.52779, 83, 0.837685, 0.964142, 25.1749, -151.995, -98.3797, 69.813
7.53682, 83, 0.932369, 0.531062, 25.3824, -152.03, -97.9838, 69.4011
7.54434, 83, 0.979683, 0.308991, 25.6005, -152.065, -97.5721, 68.9999
7.55083, 83, 1.07446, -0.145775, 25.7129, -152.081, -97.3606, 68.8032
7.56472, 83, 1.26427, -1.09901, 26.1847, -152.144, -96.4761, 68.0407
7.5683, 83, 1.3118, -1.34606, 26.3088, -152.159, -96.2455, 67.8563
7.57667, 84, 1.40714, -1.85042, 26.5642, -152.188, -95.7726, 67.4933
7.5841, 84, 1.50263, -2.36779, 26.8302, -152.215, -95.285, 67.1379
7.59087, 84, 1.55049, -2.6317, 26.9671, -152.228, -95.0351, 66.9631
7.6009, 84, 1.69463, -3.44341, 27.3926, -152.265, -94.2626, 66.4492
7.60829, 84, 1.79124, -4.00117, 27.6896, -152.287, -93.7291, 66.115
7.61745, 85, 1.88813, -4.57176, 27.9965, -152.308, -93.1802, 65.7883
7.62753, 85, 1.98537, -5.15361, 28.3138, -152.327, -92.6164, 65.4697
7.63075, 85, 2.03414, -5.44845, 28.4757, -152.336, -92.3299, 65.3132
7.6388, 85, 2.13187, -6.04528, 28.8066, -152.351, -91.7493, 65.0062
7.64874, 85, 2.27958, -6.95608, 29.3192, -152.37, -90.8585, 64.563
7.65561, 86, 2.32914, -7.2635, 29.4943, -152.374, -90.5566, 64.42
7.66289, 86, 2.42889, -7.88346, 29.8496, -152.381, -89.9459, 64.1417
7.67314, 86, 2.58046, -8.82437, 30.395, -152.386, -89.0143, 63.7443
7.68254, 86, 2.68242, -9.45872, 30.7656, -152.387, -88.3867, 63.4936
7.68781, 86, 2.73381, -9.77754, 30.953, -152.386, -88.0714, 63.3727
7.69584, 87, 2.83761, -10.4181, 31.3317, -152.382, -87.4369, 63.1394
7.7038, 87, 2.94205, -11.0617, 31.7156, -152.373, -86.7967, 62.9179
7.7118, 87, 3.04738, -11.7077, 32.1038, -152.362, -86.1515, 62.7088
7.72232, 87, 3.20703, -12.6802, 32.6943, -152.337, -85.176, 62.4191
7.72683, 87, 3.26052, -13.0052, 32.8935, -152.326, -84.8494, 62.3291
7.73576, 88, 3.3682, -13.6568, 33.2953, -152.303, -84.1931, 62.1585
7.7438, 88, 3.47653, -14.3103, 33.7012, -152.276, -83.5325, 62.0017
7.75565, 88, 3.64037, -15.2945, 34.3182, -152.228, -82.5342, 61.7919
7.75982, 88, 3.69538, -15.6232, 34.5259, -152.209, -82.1994, 61.729
7.76781, 88, 3.80577, -16.2814, 34.9449, -152.169, -81.5281, 61.6148
7.77602, 89, 3.91654, -16.94, 35.3682, -152.124, -80.854, 61.5158
7.78391, 89, 4.02762, -17.598, 35.7954, -152.074, -80.1766, 61.434
7.79179, 89, 4.13872, -18.2541, 36.2258, -152.019, -79.4955, 61.3694
7.80484, 89, 4.30525, -19.2332, 36.8759, -151.926, -78.4664, 61.307
7.80796, 89, 4.36073, -19.5577, 37.0931, -151.892, -78.1235, 61.2958
7.81608, 90, 4.47156, -20.2029, 37.5276, -151.82, -77.4398, 61.2873
7.82485, 90, 4.58276, -20.843, 37.9609, -151.743, -76.7584, 61.3017
7.83183, 90, 4.69463, -21.4783, 38.3928, -151.66, -76.0797, 61.3404
7.83988, 90, 4.80673, -22.1086, 38.8225, -151.572, -75.4061, 61.403
7.84779, 90, 4.91908, -22.734, 39.2492, -151.478, -74.7395, 61.491
7.85592, 90, 5.03142, -23.3543, 39.6738, -151.378, -74.0789, 61.6058
7.86405, 91, 5.14369, -23.9699, 40.097, -151.273, -73.4201, 61.7473
7.87179, 91, 5.25558, -24.5791, 40.5192, -151.16, -72.7621, 61.9172
7.87979, 91, 5.36658, -25.1819, 40.9412, -151.042, -72.1042, 62.116
7.88786, 91, 5.47656, -25.7777, 41.3624, -150.916, -71.4446, 62.3446
7.89578, 91, 5.58586, -26.3663, 41.7831, -150.784, -70.7856, 62.6038
7.90715, 92, 5.74963, -27.2357, 42.4115, -150.574, -69.7995, 63.0519
7.91083, 92, 5.80444, -27.5216, 42.6196, -150.501, -69.4718, 63.2169
7.91979, 92, 5.91455, -28.0874, 43.0321, -150.352, -68.8188, 63.5701
7.92786, 92, 6.02528, -28.6442, 43.4394, -150.198, -68.1691, 63.9549
7.93935, 92, 6.19363, -29.4597, 44.0388, -149.961, -67.2058, 64.5907
7.94294, 93, 6.25045, -29.7262, 44.2353, -149.881, -66.8878, 64.8186
7.95184, 93, 6.36555, -30.2515, 44.6231, -149.718, -66.2551, 65.2985
7.96018, 93, 6.48272, -30.7668, 45.0053, -149.554, -65.6259, 65.8099
7.96718, 93, 6.60211, -31.2744, 45.3823, -149.39, -64.9991, 66.3559
7.97521, 93, 6.72373, -31.7762, 45.7548, -149.224, -64.3731, 66.9392
7.98413, 94, 6.84758, -32.2729, 46.124, -149.058, -63.7466, 67.5642
7.99138, 94, 6.97379, -32.7646, 46.4904, -148.892, -63.1149, 68.2361
8.00001, 94, 7.10211, -33.2506, 46.8554, -148.724, -62.4766, 68.9604
8.00789, 94, 7.23242, -33.7287, 47.2182, -148.558, -61.8322, 69.7376
8.01625, 94, 7.36586, -34.1995, 47.5777, -148.396, -61.1814, 70.5666
8.02366, 95, 7.50329, -34.6622, 47.9307, -148.239, -60.5288, 71.4503
8.03179, 95, 7.64572, -35.1144, 48.2756, -148.091, -59.8791, 72.3802
8.03981, 95, 7.79414, -35.5558, 48.6093, -147.955, -59.2347, 73.3507
8.04856, 95, 7.94894, -35.9835, 48.9306, -147.834, -58.5976, 74.3604
8.05598, 95, 8.11071, -36.3934, 49.2368, -147.73, -57.9687, 75.404
8.06284, 95, 8.19412, -36.5909, 49.3841, -147.684, -57.6581, 75.9385
8.07083, 96, 8.36604, -36.9704, 49.6661, -147.607, -57.0476, 77.0297
8.08006, 96, 8.6358, -37.4975, 50.0573, -147.53, -56.1579, 78.7222
8.0868, 96, 8.72833, -37.6611, 50.1794, -147.515, -55.8686, 79.2979
8.09614, 96, 9.0132, -38.1132, 50.5168, -147.498, -55.0268, 81.0524
8.10282, 96, 9.11007, -38.2514, 50.6194, -147.503, -54.7559, 81.6431
8.11234, 97, 9.40343, -38.628, 50.8985, -147.551, -53.9766, 83.431
8.12043, 97, 9.5997, -38.8472, 51.0591, -147.61, -53.4878, 84.6296
8.12835, 97, 9.79519, -39.0419, 51.1992, -147.688, -53.0258, 85.8217
8.1364, 97, 9.9892, -39.2117, 51.3198, -147.783, -52.5927, 87.0009
8.14441, 97, 10.1807, -39.3557, 51.4208, -147.894, -52.1894, 88.1596
8.15261, 97, 10.2751, -39.4182, 51.4641, -147.954, -51.817, 89.2916
8.16039, 97, 10.461, -39.5242, 51.5368, -148.083, -51.6422, 90.3893
8.16784, 98, 10.6438, -39.6054, 51.5914, -148.222, -51.3158, 90.9253
8.17581, 98, 10.8245, -39.6634, 51.6284, -148.37, -51.0187, 91.9768
8.18379, 98, 11.0038, -39.6985, 51.6479, -148.529, -50.7476, 93.0094
8.19178, 98, 11.1813, -39.7103, 51.6506, -148.699, -50.499, 94.0396
8.19981, 98, 11.3567, -39.6988, 51.6364, -148.882, -50.27, 95.0775
8.20783, 98, 11.532, -39.6636, 51.6046, -149.079, -50.0597, 96.1357
8.21577, 99, 11.7074, -39.6046, 51.5552, -149.289, -49.8688, 97.2145
8.22378, 99, 11.882, -39.5228, 51.4876, -149.512, -49.6998, 98.3139
8.23192, 99, 12.0543, -39.4184, 51.4015, -149.745, -49.5555, 99.4235
8.2388, 99, 12.2235, -39.2915, 51.2971, -149.985, -49.4391, 100.534
8.24778, 99, 12.3883, -39.1423, 51.1748, -150.229, -49.3534, 101.633
8.25726, 99, 12.5467, -38.971, 50.9606, -150.594, -49.2825, 103.241
8.26301, 100, 12.6969, -38.7767, 50.8814, -150.714, -49.2745, 103.762
8.27178, 100, 12.8385, -38.5578, 50.7108, -150.951, -49.2822, 104.781
8.27986, 100, 12.9711, -38.3155, 50.5232, -151.183, -49.3222, 105.772
8.28782, 100, 13.0947, -38.0505, 50.3187, -151.41, -49.3929, 106.737
8.29679, 100, 13.2101, -37.7641, 50.0974, -151.63, -49.4954, 107.679
8.30651, 100, 13.368, -37.2928, 49.7307, -151.948, -49.7074, 109.051
8.31174, 101, 13.4166, -37.1236, 49.5999, -152.051, -49.7933, 109.498
8.31986, 101, 13.5077, -36.7665, 49.3254, -152.25, -49.9879, 110.374
8.3278, 101, 13.591, -36.3827, 49.0332, -152.441, -50.2127, 111.228
8.33581, 101, 13.6663, -35.9728, 48.7233, -152.622, -50.468, 112.06
8.34378, 101, 13.7333, -35.5382, 48.3944, -152.794, -50.7547, 112.87
8.35178, 101, 13.792, -35.0797, 48.0475, -152.955, -51.074, 113.66
8.36514, 102, 13.8636, -34.3484, 47.4934, -153.176, -51.6159, 114.801
8.36775, 102, 13.8828, -34.0927, 47.2997, -153.244, -51.8134, 115.17
8.37584, 102, 13.9143, -33.5628, 46.8997, -153.369, -52.233, 115.892
8.38379, 102, 13.9367, -33.0096, 46.4838, -153.481, -52.6857, 116.587
8.39184, 102, 13.9505, -32.4347, 46.054, -153.579, -53.1693, 117.256
8.39987, 102, 13.9562, -31.8381, 45.6105, -153.663, -53.681, 117.898
8.40777, 103, 13.9545, -31.2213, 45.1538, -153.733, -54.218, 118.512
8.41578, 103, 13.9458, -30.5866, 44.686, -153.789, -54.7779, 119.097
8.42384, 103, 13.9308, -29.9365, 44.2084, -153.831, -55.3578, 119.657
8.43177, 103, 13.91, -29.2721, 43.7224, -153.861, -55.9551, 120.189
8.43979, 103, 13.8837, -28.5949, 43.2297, -153.879, -56.5684, 120.694
8.44781, 104, 13.8528, -27.907, 42.7318, -153.886, -57.1949, 121.172
8.45583, 104, 13.8178, -27.2101, 42.2303, -153.884, -57.8335, 121.626
8.46379, 104, 13.7788, -26.5056, 41.7254, -153.87, -58.4866, 122.059
8.47185, 104, 13.7364, -25.7947, 41.218, -153.848, -59.1527, 122.471
8.47982, 104, 13.6919, -25.0801, 40.7093, -153.818, -59.8302, 122.866
8.48784, 104, 13.6456, -24.3627, 40.1996, -153.78, -60.5162, 123.246
8.49594, 104, 13.5975, -23.6427, 39.6898, -153.735, -61.2083, 123.614
8.5042, 104, 13.5479, -22.9208, 39.1807, -153.685, -61.9061, 123.975
8.51143, 104, 13.4973, -22.1984, 38.6727, -153.63, -62.6073, 124.33
8.51996, 104, 13.446, -21.4751, 38.1664, -153.569, -63.3106, 124.682
8.52835, 104, 13.394, -20.7521, 37.6614, -153.506, -64.0147, 125.032
8.53578, 104, 13.3418, -20.029, 37.1575, -153.437, -64.7194, 125.38
8.54387, 104, 13.2894, -19.3054, 36.6558, -153.364, -65.4256, 125.727
8.55263, 104, 13.2368, -18.582, 36.156, -153.288, -66.1326, 126.073
8.55987, 104, 13.1845, -17.8585, 35.6585, -153.207, -66.8409, 126.418
8.56798, 104, 13.1324, -17.1342, 35.1634, -153.123, -67.5497, 126.762
8.57679, 104, 13.0806, -16.4096, 34.6701, -153.034, -68.2573, 127.107
8.58406, 104, 13.0293, -15.6851, 34.179, -152.942, -68.9666, 127.451
8.59078, 104, 13.0037, -15.3228, 33.9343, -152.894, -69.3219, 127.622
8.60016, 104, 12.9273, -14.2352, 33.2036, -152.746, -70.3892, 128.137
8.60832, 104, 12.8768, -13.5099, 32.7197, -152.642, -71.0999, 128.481
8.61625, 104, 12.8266, -12.7842, 32.2387, -152.534, -71.8102, 128.825
8.62433, 104, 12.7767, -12.0585, 31.7602, -152.423, -72.523, 129.169
8.63258, 104, 12.7272, -11.3335, 31.2841, -152.307, -73.2361, 129.514
8.64037, 104, 12.6782, -10.6084, 30.8105, -152.188, -73.9492, 129.859
8.64836, 104, 12.6538, -9.88291, 30.3401, -152.064, -74.6625, 130.205
8.65649, 104, 12.6052, -9.52013, 29.8727, -151.937, -75.3757, 130.552
8.66379, 104, 12.557, -8.79449, 29.6401, -151.872, -75.7328, 130.726
8.6718, 104, 12.5095, -8.06824, 29.1771, -151.738, -76.4476, 131.075
8.67983, 104, 12.4622, -7.3425, 28.7176, -151.601, -77.1631, 131.424
8.68777, 104, 12.4157, -6.61714, 28.2615, -151.459, -77.8792, 131.775
8.69577, 104, 12.3698, -5.89228, 27.8085, -151.313, -78.5934, 132.127
8.70382, 104, 12.3242, -5.16785, 27.3591, -151.163, -79.308, 132.48
8.71177, 104, 12.2795, -4.44461, 26.9139, -151.009, -80.0237, 132.834
8.71978, 104, 12.2359, -3.72318, 26.4733, -150.85, -80.7396, 133.19
8.72777, 104, 12.1932, -3.00582, 26.0376, -150.688, -81.4527, 133.546
8.73578, 104, 12.1518, -2.29416, 25.6075, -150.522, -82.1614, 133.903
8.74382, 104, 12.1117, -1.58937, 25.1841, -150.353, -82.8669, 134.26
8.75176, 104, 12.0725, -0.892624, 24.769, -150.181, -83.5666, 134.614
8.75977, 104, 12.0343, -0.205548, 24.3629, -150.007, -84.2568, 134.966
8.76783, 104, 11.9972, 0.471043, 23.9675, -149.832, -84.935, 135.314
8.77578, 104, 11.961, 1.13573, 23.5843, -149.656, -85.599, 135.658
8.78376, 104, 11.9261, 1.7875, 23.2133, -149.479, -86.249, 135.996
8.79188, 104, 11.8924, 2.42489, 22.8552, -149.303, -86.884, 136.327
8.80083, 104, 11.8596, 3.04599, 22.5091, -149.128, -87.5026, 136.652
8.80776, 104, 11.8281, 3.65098, 22.1766, -148.954, -88.1054, 136.971
8.81585, 104, 11.798, 4.2392, 21.8567, -148.781, -88.6908, 137.282
8.82376, 104, 11.769, 4.81075, 21.5495, -148.609, -89.2584, 137.587
8.83178, 104, 11.7415, 5.3654, 21.2538, -148.439, -89.8102, 137.885
8.83981, 104, 11.7151, 5.90247, 20.9699, -148.271, -90.3463, 138.176
8.84776, 104, 11.6898, 6.4229, 20.6981, -148.105, -90.8658, 138.46
8.85579, 104, 11.6657, 6.92656, 20.4375, -147.941, -91.3691, 138.736
8.86378, 104, 11.6428, 7.41313, 20.189, -147.78, -91.8549, 139.005
8.87181, 104, 11.621, 7.88337, 19.9512, -147.622, -92.3239, 139.266
8.87978, 104, 11.6003, 8.3368, 19.7242, -147.467, -92.7762, 139.519
8.88777, 104, 11.5808, 8.77329, 19.5086, -147.315, -93.212, 139.765
8.89582, 104, 11.5625, 9.19202, 19.3032, -147.167, -93.6313, 140.003
8.90378, 104, 11.5452, 9.59386, 19.1078, -147.023, -94.0333, 140.232
8.91176, 104, 11.5291, 9.9775, 18.9236, -146.884, -94.4182, 140.452
8.91981, 104, 11.514, 10.3428, 18.7499, -146.748, -94.7848, 140.663
8.92779, 104, 11.4999, 10.6888, 18.5862, -146.619, -95.133, 140.865
8.93578, 104, 11.4869, 11.0158, 18.4332, -146.495, -95.4618, 141.056
8.94381, 104, 11.4748, 11.3224, 18.2913, -146.377, -95.7704, 141.236
8.95178, 104, 11.4639, 11.6085, 18.1599, -146.266, -96.0586, 141.405
8.95981, 104, 11.454, 11.8736, 18.0389, -146.162, -96.3253, 141.562
8.96781, 104, 11.4449, 12.1172, 17.9287, -146.066, -96.5706, 141.707
8.97581, 104, 11.4365, 12.3399, 17.829, -145.978, -96.794, 141.839
8.98379, 104, 11.4289, 12.5418, 17.7396, -145.898, -96.9952, 141.959
8.99188, 104, 11.4221, 12.7223, 17.6606, -145.825, -97.1745, 142.066
8.99989, 104, 11.4161, 12.8817, 17.5917, -145.763, -97.3317, 142.16
9.00789, 104, 11.4106, 13.0212, 17.5326, -145.708, -97.467, 142.241
9.01593, 104, 11.4056, 13.1416, 17.4829, -145.661, -97.5812, 142.309
9.02389, 104, 11.401, 13.2435, 17.4421, -145.624, -97.6748, 142.365
9.03183, 104, 11.3969, 13.328, 17.4092, -145.593, -97.75, 142.41
9.03988, 104, 11.3931, 13.3973, 17.384, -145.569, -97.8075, 142.445
9.04781, 104, 11.3897, 13.4531, 17.3653, -145.551, -97.8499, 142.471
9.05582, 104, 11.3867, 13.4969, 17.3519, -145.538, -97.8801, 142.489
9.06386, 104, 11.3843, 13.53, 17.3429, -145.53, -97.9009, 142.501
9.07203, 104, 11.3824, 13.5546, 17.3372, -145.524, -97.9143, 142.508
9.07882, 104, 11.3815, 13.5644, 17.3352, -145.522, -97.9188, 142.511
9.08805, 104, 11.3797, 13.5849, 17.3317, -145.519, -97.9262, 142.515
9.09482, 104, 11.3792, 13.5895, 17.3311, -145.519, -97.9274, 142.515
9.10415, 105, 11.3781, 13.5989, 17.3302, -145.518, -97.9292, 142.516
9.11079, 105, 11.3779, 13.6009, 17.3301, -145.518, -97.9294, 142.516
9.12081, 105, 11.3774, 13.6051, 17.3299, -145.518, -97.9298, 142.517
9.12832, 105, 11.3771, 13.6072, 17.3298, -145.518, -97.9299, 142.517
9.13633, 105, 11.3769, 13.6089, 17.3298, -145.518, -97.9299, 142.517
9.14464, 105, 11.3768, 13.6105, 17.3298, -145.518, -97.9299, 142.517
9.15232, 105, 11.3767, 13.6112, 17.3298, -145.518, -97.9298, 142.517
9.16033, 105, 11.3766, 13.6125, 17.3298, -145.518, -97.9298, 142.517
9.16891, 105, 11.3765, 13.6141, 17.3298, -145.518, -97.9297, 142.517
9.1758, 105, 11.3765, 13.6145, 17.3298, -145.518, -97.9296, 142.517
9.18378, 105, 11.3764, 13.6153, 17.3298, -145.518, -97.9295, 142.517
9.19177, 105, 11.3764, 13.6158, 17.3299, -145.518, -97.9294, 142.517
9.201, 105, 11.3764, 13.6162, 17.3299, -145.518, -97.9292, 142.517
9.20678, 105, 11.3764, 13.6164, 17.3299, -145.518, -97.9291, 142.517
9.21578, 105, 11.3764, 13.6165, 17.33, -145.518, -97.929, 142.517
9.22375, 105, 11.3764, 13.6165, 17.33, -145.518, -97.9289, 142.517
