hehonglu123/Motion-Primitive-Planning/ILC/recorded_data/realrobot/wood/iteration_35/run_3.csv
timestamp, cmd_num, J1, J2, J3, J4, J5, J6
0.000377, -1, 11.3762, 13.6174, 17.3315, -145.52, -97.9268, 142.517
0.005754, -1, 11.3762, 13.6174, 17.3314, -145.52, -97.9268, 142.517
0.007929, -1, 11.3762, 13.6174, 17.3314, -145.52, -97.9268, 142.517
0.031103, -1, 11.3762, 13.6175, 17.3314, -145.52, -97.9267, 142.517
0.034001, -1, 11.3762, 13.6175, 17.3314, -145.52, -97.9268, 142.517
0.035402, -1, 11.3762, 13.6175, 17.3314, -145.52, -97.9268, 142.517
0.039573, -1, 11.3762, 13.6175, 17.3314, -145.52, -97.9267, 142.517
0.047484, -1, 11.3762, 13.6175, 17.3314, -145.52, -97.9267, 142.517
0.055553, -1, 11.3756, 13.6174, 17.3314, -145.52, -97.9268, 142.517
0.06345, -1, 11.3728, 13.6172, 17.3314, -145.52, -97.9268, 142.517
0.071466, -1, 11.3662, 13.6165, 17.3312, -145.52, -97.9268, 142.517
0.079527, -1, 11.3551, 13.6148, 17.3307, -145.52, -97.9267, 142.515
0.087469, -1, 11.3375, 13.6115, 17.3299, -145.522, -97.9265, 142.508
0.095487, -1, 11.3106, 13.6056, 17.3291, -145.526, -97.9257, 142.487
0.105155, -1, 11.2722, 13.5966, 17.3286, -145.533, -97.924, 142.448
0.111481, -1, 11.2219, 13.5842, 17.3287, -145.544, -97.9204, 142.382
0.119572, -1, 11.1602, 13.5687, 17.3304, -145.561, -97.915, 142.287
0.127485, -1, 11.0869, 13.5498, 17.3344, -145.585, -97.9071, 142.156
0.135464, -1, 11.0016, 13.5268, 17.3409, -145.613, -97.8969, 141.991
0.143529, -1, 10.9048, 13.5005, 17.3496, -145.647, -97.8848, 141.793
0.151523, -1, 10.7972, 13.4708, 17.3599, -145.686, -97.8709, 141.567
0.159468, -1, 10.6786, 13.438, 17.3712, -145.729, -97.8561, 141.321
0.167575, -1, 10.5495, 13.4023, 17.3824, -145.773, -97.8406, 141.06
0.17581, -1, 10.4114, 13.3643, 17.3931, -145.819, -97.8247, 140.79
0.183559, -1, 10.2664, 13.3248, 17.4034, -145.866, -97.8085, 140.516
0.191634, -1, 10.117, 13.2843, 17.4134, -145.914, -97.7919, 140.238
0.19994, -1, 9.96454, 13.2432, 17.4235, -145.961, -97.775, 139.96
0.207583, -1, 9.80984, 13.2017, 17.4335, -146.009, -97.7578, 139.681
0.215632, -1, 9.65423, 13.1603, 17.4436, -146.057, -97.7405, 139.401
0.224107, -1, 9.49899, 13.1189, 17.4536, -146.105, -97.7235, 139.122
0.231499, -1, 9.34424, 13.0777, 17.4635, -146.153, -97.7067, 138.842
0.239565, -1, 9.18987, 13.0366, 17.4735, -146.201, -97.6899, 138.563
0.249566, -1, 9.03593, 12.9955, 17.4836, -146.249, -97.6732, 138.283
0.255701, -1, 8.88219, 12.9543, 17.4938, -146.297, -97.6564, 138.003
0.263738, -1, 8.72869, 12.9133, 17.504, -146.345, -97.6392, 137.723
0.272478, -1, 8.57567, 12.8722, 17.5141, -146.393, -97.6218, 137.443
0.279887, -1, 8.42296, 12.8309, 17.5242, -146.441, -97.6043, 137.162
0.287923, -1, 8.27, 12.7896, 17.5344, -146.489, -97.587, 136.882
0.296521, -1, 8.11658, 12.7481, 17.5446, -146.537, -97.5699, 136.602
0.30404, -1, 7.96268, 12.7064, 17.5549, -146.585, -97.5531, 136.322
0.312062, -1, 7.80817, 12.6647, 17.5651, -146.633, -97.5365, 136.041
0.320789, -1, 7.6533, 12.623, 17.5751, -146.68, -97.5198, 135.761
0.328097, -1, 7.49835, 12.5813, 17.5854, -146.729, -97.503, 135.481
0.336229, -1, 7.42084, 12.5397, 17.5955, -146.777, -97.4859, 135.201
0.343964, -1, 7.26579, 12.5189, 17.6006, -146.8, -97.4772, 135.06
0.351504, -1, 7.11082, 12.4773, 17.6109, -146.849, -97.4598, 134.78
0.359416, -1, 6.95568, 12.4359, 17.6213, -146.897, -97.4426, 134.5
0.3675, -1, 6.80061, 12.3946, 17.6315, -146.945, -97.4257, 134.219
0.507569, -1, 4.08688, 11.6675, 17.8131, -147.787, -97.1265, 129.305
0.50947, -1, 4.08688, 11.6468, 17.8183, -147.811, -97.118, 129.164
0.510864, -1, 4.00951, 11.6468, 17.8183, -147.811, -97.118, 129.164
0.512171, -1, 4.00951, 11.6468, 17.8183, -147.811, -97.118, 129.164
0.514118, -1, 3.93225, 11.6261, 17.8235, -147.836, -97.1096, 129.024
0.516272, -1, 3.93225, 11.6261, 17.8235, -147.836, -97.1096, 129.024
0.518438, -1, 3.85504, 11.6053, 17.8286, -147.86, -97.1012, 128.883
0.520603, -1, 3.85504, 11.6053, 17.8286, -147.86, -97.1012, 128.883
0.522653, -1, 3.77788, 11.5846, 17.8338, -147.884, -97.0928, 128.743
0.523938, -1, 3.77788, 11.5846, 17.8338, -147.884, -97.0928, 128.743
0.526584, -1, 3.7007, 11.5638, 17.839, -147.908, -97.0843, 128.602
0.527855, -1, 3.7007, 11.5638, 17.839, -147.908, -97.0843, 128.602
0.529789, -1, 3.62347, 11.5429, 17.8442, -147.932, -97.0758, 128.461
0.531196, -1, 3.62347, 11.5429, 17.8442, -147.932, -97.0758, 128.461
0.53248, -1, 3.62347, 11.5429, 17.8442, -147.932, -97.0758, 128.461
0.534874, -1, 3.54621, 11.5221, 17.8493, -147.957, -97.0673, 128.321
0.536242, -1, 3.54621, 11.5221, 17.8493, -147.957, -97.0673, 128.321
0.539083, -1, 3.46891, 11.5013, 17.8545, -147.981, -97.0587, 128.18
0.540396, -1, 3.46891, 11.5013, 17.8545, -147.981, -97.0587, 128.18
0.54247, -1, 3.39154, 11.4804, 17.8597, -148.005, -97.05, 128.039
0.543678, -1, 3.39154, 11.4804, 17.8597, -148.005, -97.05, 128.039
0.544944, -1, 3.39154, 11.4804, 17.8597, -148.005, -97.05, 128.039
0.5541, -1, 3.15896, 11.4179, 17.8754, -148.077, -97.0237, 127.617
0.559605, -1, 3.08135, 11.3969, 17.8806, -148.101, -97.0149, 127.476
0.56746, -1, 2.92602, 11.3551, 17.8911, -148.15, -96.9976, 127.194
0.575458, -1, 2.77052, 11.3134, 17.9014, -148.198, -96.9807, 126.913
0.583515, -1, 2.6147, 11.2716, 17.9117, -148.246, -96.9639, 126.631
0.591451, -1, 2.45855, 11.2298, 17.9221, -148.295, -96.9471, 126.349
0.599468, -1, 2.30216, 11.1881, 17.9326, -148.343, -96.9302, 126.067
0.607524, -1, 2.14553, 11.1463, 17.943, -148.391, -96.9131, 125.785
0.61549, -1, 1.98876, 11.1045, 17.9534, -148.44, -96.8958, 125.504
0.623495, -1, 1.8322, 11.0629, 17.9638, -148.488, -96.8783, 125.222
0.631542, -1, 1.67582, 11.0212, 17.9742, -148.536, -96.8609, 124.94
0.639522, -1, 1.51957, 10.9794, 17.9847, -148.585, -96.8438, 124.658
0.647457, -1, 1.36368, 10.9377, 17.9952, -148.633, -96.8269, 124.376
0.655452, -1, 1.20798, 10.896, 18.0056, -148.681, -96.81, 124.093
0.663525, -1, 1.05263, 10.8542, 18.0159, -148.73, -96.7932, 123.811
0.801034, -1, -1.60306, 10.1428, 18.1932, -149.555, -96.5019, 119.004
0.802313, -1, -1.60306, 10.1428, 18.1932, -149.555, -96.5019, 119.004
0.804929, -1, -1.68116, 10.1219, 18.1985, -149.579, -96.4935, 118.862
0.807839, -1, -1.68116, 10.101, 18.2038, -149.604, -96.4849, 118.72
0.809369, -1, -1.75917, 10.101, 18.2038, -149.604, -96.4849, 118.72
0.810578, -1, -1.75917, 10.101, 18.2038, -149.604, -96.4849, 118.72
0.812658, -1, -1.83708, 10.08, 18.209, -149.628, -96.4763, 118.579
0.81662, -1, -1.91489, 10.059, 18.2142, -149.652, -96.4676, 118.437
0.81801, -1, -1.91489, 10.059, 18.2142, -149.652, -96.4676, 118.437
0.819854, -1, -1.91489, 10.059, 18.2142, -149.652, -96.4676, 118.437
0.821325, -1, -1.9926, 10.0381, 18.2194, -149.676, -96.4587, 118.295
0.822527, -1, -1.9926, 10.0381, 18.2194, -149.676, -96.4587, 118.295
0.82471, -1, -2.07022, 10.0172, 18.2247, -149.701, -96.4499, 118.153
0.825946, -1, -2.07022, 10.0172, 18.2247, -149.701, -96.4499, 118.153
0.827226, -1, -2.07022, 10.0172, 18.2247, -149.701, -96.4499, 118.153
0.831262, -1, -2.14779, 9.9962, 18.2299, -149.725, -96.4411, 118.012
0.833379, -1, -2.22535, 9.97528, 18.2351, -149.75, -96.4323, 117.87
0.834611, -1, -2.22535, 9.97528, 18.2351, -149.75, -96.4323, 117.87
0.836659, -1, -2.30292, 9.95434, 18.2403, -149.774, -96.4237, 117.728
0.837947, -1, -2.30292, 9.95434, 18.2403, -149.774, -96.4237, 117.728
0.839257, -1, -2.30292, 9.95434, 18.2403, -149.774, -96.4237, 117.728
0.841306, -1, -2.38057, 9.93336, 18.2455, -149.798, -96.415, 117.586
0.849446, -1, -2.53616, 9.89137, 18.256, -149.846, -96.398, 117.302
0.855442, -1, -2.61403, 9.87039, 18.2612, -149.871, -96.3896, 117.16
0.863437, -1, -2.77005, 9.82847, 18.2715, -149.92, -96.3728, 116.877
0.871517, -1, -2.92648, 9.78647, 18.2819, -149.968, -96.3559, 116.593
0.879456, -1, -3.08329, 9.74451, 18.2923, -150.017, -96.3389, 116.31
0.887436, -1, -3.24046, 9.70256, 18.3027, -150.065, -96.3216, 116.026
0.895493, -1, -3.39807, 9.66055, 18.3133, -150.114, -96.3039, 115.742
0.903442, -1, -3.55587, 9.61852, 18.3238, -150.162, -96.2864, 115.458
0.911434, -1, -3.71363, 9.57664, 18.3342, -150.211, -96.2691, 115.174
0.921013, -1, -3.95058, 9.51357, 18.3498, -150.284, -96.2434, 114.747
0.929029, -1, -4.10842, 9.47159, 18.3602, -150.333, -96.2265, 114.463
0.935467, -1, -4.18734, 9.45061, 18.3654, -150.358, -96.218, 114.321
0.944977, -1, -4.4239, 9.38756, 18.3809, -150.431, -96.1922, 113.894
0.951458, -1, -4.5026, 9.36656, 18.3861, -150.455, -96.1835, 113.752
0.96116, -1, -4.65959, 9.3035, 18.4017, -150.528, -96.1569, 113.325
0.967435, -1, -4.81617, 9.28248, 18.4069, -150.553, -96.148, 113.182
0.977017, -1, -4.9725, 9.24037, 18.4174, -150.602, -96.1306, 112.897
0.983558, -1, -5.12849, 9.19833, 18.428, -150.651, -96.1133, 112.612
0.992498, -1, -5.28434, 9.15622, 18.4385, -150.699, -96.0963, 112.328
0.999437, -1, -5.44034, 9.11403, 18.4491, -150.748, -96.0794, 112.043
1.00752, -1, -5.59652, 9.07193, 18.4595, -150.797, -96.0625, 111.758
1.01545, -1, -5.75297, 9.02983, 18.47, -150.846, -96.0453, 111.473
1.02368, -1, -5.9099, 8.98761, 18.4805, -150.895, -96.0279, 111.189
1.03144, -1, -6.06728, 8.94543, 18.4909, -150.943, -96.0102, 110.904
1.03947, -1, -6.22526, 8.90324, 18.5012, -150.992, -95.9927, 110.618
1.04822, -1, -6.38354, 8.86111, 18.5116, -151.041, -95.9753, 110.333
1.05544, -1, -6.5419, 8.81904, 18.522, -151.09, -95.9584, 110.048
1.06344, -1, -6.70047, 8.77689, 18.5325, -151.139, -95.9413, 109.763
1.07221, -1, -6.85917, 8.73472, 18.5431, -151.188, -95.9244, 109.477
1.07943, -1, -7.01768, 8.69262, 18.5536, -151.237, -95.9072, 109.191
1.08744, -1, -7.17621, 8.65045, 18.5641, -151.286, -95.8897, 108.906
1.09625, -1, -7.33449, 8.60826, 18.5745, -151.336, -95.8721, 108.62
1.10345, -1, -7.49252, 8.56595, 18.5849, -151.384, -95.8543, 108.334
1.11144, -1, -7.65021, 8.52364, 18.5955, -151.433, -95.8367, 108.049
1.12026, -1, -7.80752, 8.48135, 18.6059, -151.483, -95.8195, 107.763
1.12746, -1, -7.96446, 8.43909, 18.6164, -151.531, -95.8025, 107.477
1.13546, -1, -8.12117, 8.39673, 18.6268, -151.58, -95.7855, 107.192
1.14484, -1, -8.2777, 8.3544, 18.6373, -151.63, -95.7685, 106.906
1.15243, -1, -8.43439, 8.31204, 18.6478, -151.678, -95.7513, 106.62
1.15972, -1, -8.59137, 8.26965, 18.6584, -151.727, -95.7338, 106.334
1.16746, -1, -8.74869, 8.22739, 18.6689, -151.777, -95.7161, 106.047
1.1755, -1, -8.90636, 8.18505, 18.6793, -151.826, -95.6986, 105.761
1.18384, -1, -9.06446, 8.14273, 18.6897, -151.875, -95.6812, 105.475
1.19153, -1, -9.22301, 8.10047, 18.7002, -151.924, -95.664, 105.188
1.19961, -1, -9.38184, 8.05816, 18.7107, -151.973, -95.6469, 104.901
1.20801, -1, -9.54085, 8.01583, 18.7212, -152.022, -95.6298, 104.614
1.21555, -1, -9.70003, 7.9736, 18.7317, -152.072, -95.6125, 104.327
1.22343, -1, -9.85934, 7.93137, 18.7422, -152.121, -95.595, 104.041
1.23234, -1, -10.0187, 7.88902, 18.7528, -152.17, -95.5771, 103.753
1.23951, -1, -10.178, 7.84662, 18.7635, -152.22, -95.5593, 103.467
1.24747, -1, -10.3371, 7.80411, 18.7741, -152.269, -95.5417, 103.18
1.2564, -1, -10.4961, 7.76161, 18.7847, -152.318, -95.5245, 102.893
1.26361, -1, -10.6545, 7.71913, 18.7951, -152.368, -95.5074, 102.606
1.27167, -1, -10.8127, 7.6766, 18.8056, -152.416, -95.4904, 102.319
1.28063, -1, -10.9706, 7.63401, 18.8161, -152.466, -95.4733, 102.032
1.28779, -1, -11.1282, 7.5915, 18.8265, -152.515, -95.4559, 101.744
1.29616, -1, -11.2855, 7.54906, 18.8371, -152.564, -95.4383, 101.457
1.30479, -1, -11.443, 7.5066, 18.8476, -152.614, -95.4204, 101.17
1.31195, -1, -11.6005, 7.46411, 18.8581, -152.663, -95.4028, 100.882
1.32001, -1, -11.7583, 7.42167, 18.8687, -152.712, -95.3854, 100.594
1.32896, -1, -11.9167, 7.37928, 18.8793, -152.762, -95.3681, 100.306
1.33602, -1, -12.0754, 7.33689, 18.8899, -152.811, -95.3509, 100.019
1.34408, -1, -12.155, 7.31571, 18.9005, -152.86, -95.3336, 99.731
1.35142, -1, -12.3143, 7.27331, 18.9057, -152.885, -95.325, 99.587
1.35942, -1, -12.474, 7.23084, 18.9163, -152.935, -95.3074, 99.2988
1.36749, -1, -12.6339, 7.18844, 18.9269, -152.984, -95.2894, 99.011
1.37547, -1, -12.794, 7.14596, 18.9374, -153.034, -95.2715, 98.7232
1.38342, -1, -12.9542, 7.10343, 18.948, -153.083, -95.2538, 98.4352
1.39147, -1, -13.1141, 7.06083, 18.9585, -153.132, -95.2364, 98.147
1.39941, -1, -13.274, 7.0182, 18.9691, -153.182, -95.2191, 97.8589
1.40742, -1, -13.4337, 6.97556, 18.9797, -153.231, -95.202, 97.5706
1.41549, -1, -13.5931, 6.93279, 18.9903, -153.281, -95.1848, 97.2819
1.42342, -1, -13.7522, 6.89006, 19.0009, -153.33, -95.1674, 96.9932
1.43142, -1, -13.9111, 6.84739, 19.0114, -153.38, -95.1497, 96.7049
1.43945, -1, -14.0694, 6.80467, 19.0219, -153.429, -95.1319, 96.4162
1.44742, -1, -14.2276, 6.76204, 19.0325, -153.479, -95.1142, 96.1272
1.45848, -1, -14.4649, 6.69804, 19.0482, -153.552, -95.088, 95.6937
1.46345, -1, -14.544, 6.67668, 19.0535, -153.577, -95.0794, 95.5492
1.47141, -1, -14.7026, 6.63412, 19.0641, -153.627, -95.0622, 95.26
1.47948, -1, -14.8616, 6.59156, 19.0747, -153.676, -95.0451, 94.9705
1.48742, -1, -15.021, 6.54886, 19.0854, -153.726, -95.0276, 94.6814
1.49642, -1, -15.1807, 6.50624, 19.0962, -153.776, -95.0099, 94.3923
1.50348, -1, -15.3408, 6.46361, 19.1068, -153.825, -94.9919, 94.1031
1.51142, -1, -15.5013, 6.42087, 19.1175, -153.875, -94.9739, 93.8136
1.51942, -1, -15.662, 6.37815, 19.1281, -153.925, -94.9563, 93.5244
1.52748, -1, -15.8227, 6.33537, 19.1387, -153.974, -94.9389, 93.2351
1.53544, -1, -15.9835, 6.29243, 19.1494, -154.024, -94.9217, 92.9456
1.54345, -1, -16.1444, 6.24955, 19.16, -154.074, -94.9045, 92.6557
1.55148, -1, -16.3051, 6.20663, 19.1705, -154.123, -94.8873, 92.3663
1.55942, -1, -16.4657, 6.1636, 19.1811, -154.173, -94.8698, 92.0767
1.56748, -1, -16.626, 6.12063, 19.1916, -154.223, -94.8519, 91.7865
1.57543, -1, -16.7859, 6.07767, 19.2023, -154.272, -94.834, 91.4963
1.58342, -1, -16.9453, 6.03466, 19.2129, -154.322, -94.8163, 91.2063
1.59148, -1, -17.1047, 5.99165, 19.2236, -154.372, -94.7989, 90.9162
1.59941, -1, -17.2638, 5.94869, 19.2342, -154.421, -94.7815, 90.6257
1.60743, -1, -17.4228, 5.90584, 19.2448, -154.471, -94.7642, 90.3353
1.6155, -1, -17.5821, 5.86299, 19.2555, -154.521, -94.7468, 90.0452
1.62343, -1, -17.7415, 5.82013, 19.2662, -154.571, -94.7293, 89.755
1.63155, -1, -17.9011, 5.7773, 19.2769, -154.621, -94.7114, 89.4646
1.63949, -1, -18.0611, 5.73445, 19.2876, -154.671, -94.6932, 89.1739
1.64742, -1, -18.2216, 5.69161, 19.2981, -154.72, -94.6753, 88.8835
1.65542, -1, -18.3825, 5.64879, 19.3089, -154.771, -94.6577, 88.5927
1.66349, -1, -18.5439, 5.60584, 19.3196, -154.821, -94.6403, 88.3016
1.67145, -1, -18.7054, 5.56284, 19.3303, -154.87, -94.623, 88.0109
1.67949, -1, -18.8671, 5.51987, 19.3409, -154.921, -94.6057, 87.72
1.68757, -1, -19.0288, 5.47681, 19.3515, -154.97, -94.5881, 87.4288
1.69563, -1, -19.1903, 5.43361, 19.3621, -155.02, -94.5703, 87.1373
1.70359, -1, -19.3518, 5.39046, 19.3728, -155.07, -94.5522, 86.8461
1.71156, -1, -19.5131, 5.3473, 19.3833, -155.12, -94.5341, 86.5545
1.71947, -1, -19.674, 5.30406, 19.394, -155.17, -94.5164, 86.2628
1.72742, -1, -19.8346, 5.26089, 19.4047, -155.22, -94.4989, 85.9709
1.73545, -1, -19.9951, 5.21771, 19.4154, -155.27, -94.4815, 85.6795
1.74358, -1, -20.1551, 5.17454, 19.4263, -155.32, -94.4641, 85.3881
1.75231, -1, -20.3149, 5.13155, 19.4371, -155.37, -94.4466, 85.0963
1.75952, -1, -20.4747, 5.08851, 19.4479, -155.42, -94.4287, 84.8045
1.76768, -1, -20.6349, 5.04541, 19.4587, -155.47, -94.4105, 84.5128
1.77654, -1, -20.7953, 5.00245, 19.4694, -155.521, -94.3926, 84.2209
1.7837, -1, -20.9559, 4.95947, 19.4801, -155.57, -94.3748, 83.9287
1.79217, -1, -21.117, 4.91637, 19.4908, -155.621, -94.3572, 83.6366
1.80075, -1, -21.2785, 4.87323, 19.5014, -155.671, -94.34, 83.3447
1.80792, -1, -21.4404, 4.83, 19.5121, -155.721, -94.3228, 83.0525
1.81657, -1, -21.6025, 4.78669, 19.5228, -155.771, -94.3054, 82.7599
1.8249, -1, -21.7648, 4.7435, 19.5336, -155.822, -94.2878, 82.4673
1.83199, -1, -21.9272, 4.70011, 19.5443, -155.871, -94.2698, 82.1747
1.84058, -1, -22.0897, 4.6567, 19.5552, -155.922, -94.2518, 81.8819
1.84886, -1, -22.171, 4.63503, 19.5605, -155.947, -94.2428, 81.5889
1.85541, -1, -22.3335, 4.59163, 19.5712, -155.997, -94.2252, 81.4425
1.86444, -1, -22.5767, 4.52646, 19.5873, -156.073, -94.1988, 81.0035
1.87141, -1, -22.6576, 4.50473, 19.5926, -156.098, -94.1902, 80.8571
1.87944, -1, -22.8191, 4.4613, 19.6033, -156.148, -94.1727, 80.564
1.88755, -1, -22.9803, 4.41795, 19.614, -156.198, -94.155, 80.271
1.89542, -1, -23.1415, 4.37461, 19.6247, -156.249, -94.137, 79.9781
1.90346, -1, -23.3024, 4.33121, 19.6355, -156.299, -94.1187, 79.6847
1.91141, -1, -23.4632, 4.28792, 19.6464, -156.349, -94.1005, 79.3912
1.91942, -1, -23.6242, 4.24461, 19.6572, -156.4, -94.0826, 79.0978
1.92746, -1, -23.7853, 4.2013, 19.668, -156.45, -94.0649, 78.8044
1.93726, -1, -24.0274, 4.13629, 19.684, -156.526, -94.0388, 78.3639
1.94341, -1, -24.1083, 4.11456, 19.6894, -156.551, -94.0301, 78.2169
1.95151, -1, -24.2705, 4.07116, 19.7002, -156.601, -94.0125, 77.9231
1.95942, -1, -24.4331, 4.02772, 19.7109, -156.652, -93.9947, 77.6292
1.96745, -1, -24.5961, 3.98416, 19.7215, -156.702, -93.9765, 77.3348
1.97547, -1, -24.7593, 3.94054, 19.7322, -156.752, -93.9584, 77.0406
1.98518, -1, -24.9226, 3.89696, 19.7429, -156.803, -93.9406, 76.7468
1.99159, -1, -25.0861, 3.85338, 19.7539, -156.853, -93.9229, 76.4526
2.00152, -1, -25.3309, 3.78798, 19.7703, -156.929, -93.8967, 76.0109
2.00745, -1, -25.4124, 3.76616, 19.7757, -156.954, -93.8879, 75.8638
2.01623, -1, -25.5753, 3.72248, 19.7865, -157.004, -93.8702, 75.5696
2.0234, -1, -25.738, 3.67884, 19.7972, -157.055, -93.8523, 75.275
2.03141, -1, -25.9005, 3.63534, 19.808, -157.106, -93.834, 74.9801
2.0402, -1, -26.0627, 3.59175, 19.8188, -157.156, -93.8156, 74.6856
2.04745, -1, -26.2245, 3.54823, 19.8296, -157.206, -93.7975, 74.391
2.0554, -1, -26.386, 3.50482, 19.8404, -157.257, -93.7797, 74.0961
2.06423, -1, -26.5477, 3.46129, 19.8511, -157.307, -93.762, 73.8009
2.07139, -1, -26.7096, 3.41775, 19.862, -157.358, -93.7445, 73.5057
2.0794, -1, -26.8719, 3.37421, 19.8729, -157.409, -93.7268, 73.2106
2.09114, -1, -27.1158, 3.30871, 19.8892, -157.485, -93.6997, 72.7673
2.0954, -1, -27.1973, 3.28691, 19.8946, -157.51, -93.6906, 72.6196
2.1034, -1, -27.3605, 3.24327, 19.9053, -157.561, -93.6723, 72.3244
2.11146, -1, -27.5241, 3.19942, 19.9161, -157.611, -93.6542, 72.0291
2.1194, -1, -27.688, 3.15564, 19.927, -157.662, -93.6363, 71.7333
2.12742, -1, -27.8521, 3.11196, 19.9377, -157.713, -93.6185, 71.4377
2.1355, -1, -28.0163, 3.06819, 19.9485, -157.763, -93.6009, 71.1421
2.1434, -1, -28.1806, 3.02441, 19.9593, -157.814, -93.5831, 70.8463
2.15143, -1, -28.3448, 2.98064, 19.9701, -157.865, -93.5651, 70.5502
2.15944, -1, -28.5089, 2.93688, 19.9811, -157.916, -93.5467, 70.2543
2.1674, -1, -28.6726, 2.8932, 19.9919, -157.967, -93.5282, 69.9585
2.17552, -1, -28.8361, 2.84943, 20.0028, -158.017, -93.51, 69.6623
2.18355, -1, -28.9991, 2.80568, 20.0136, -158.068, -93.4921, 69.3657
2.19149, -1, -29.1619, 2.76201, 20.0243, -158.119, -93.4743, 69.0693
2.19955, -1, -29.3246, 2.71829, 20.0352, -158.17, -93.4566, 68.7728
2.20759, -1, -29.4873, 2.67458, 20.046, -158.221, -93.4389, 68.476
2.21554, -1, -29.6501, 2.63075, 20.0568, -158.272, -93.421, 68.179
2.22363, -1, -29.8131, 2.5869, 20.0677, -158.323, -93.4026, 67.8824
2.2314, -1, -29.9762, 2.54313, 20.0786, -158.374, -93.3842, 67.5857
2.23943, -1, -30.1395, 2.4992, 20.0896, -158.425, -93.3659, 67.2886
2.2475, -1, -30.3033, 2.45518, 20.1005, -158.475, -93.3479, 66.9915
2.25545, -1, -30.4677, 2.4112, 20.1115, -158.527, -93.3302, 66.6946
2.26363, -1, -30.6323, 2.36715, 20.1223, -158.577, -93.3124, 66.3974
2.27172, -1, -30.7974, 2.32314, 20.1331, -158.628, -93.2947, 66.0998
2.27964, -1, -30.9625, 2.27917, 20.1441, -158.68, -93.2766, 65.8025
2.28782, -1, -31.1276, 2.23505, 20.155, -158.73, -93.2582, 65.5054
2.29583, -1, -31.2926, 2.19108, 20.1658, -158.781, -93.2396, 65.2078
2.3045, -1, -31.4575, 2.14719, 20.1766, -158.833, -93.2213, 64.9101
2.31203, -1, -31.6222, 2.1031, 20.1874, -158.883, -93.2033, 64.6124
2.31996, -1, -31.7868, 2.05911, 20.1984, -158.935, -93.1855, 64.3144
2.32793, -1, -31.951, 2.01516, 20.2094, -158.986, -93.1679, 64.0163
2.3365, -1, -32.115, 1.97113, 20.2204, -159.037, -93.1502, 63.7181
2.34402, -1, -32.1968, 1.94913, 20.2313, -159.088, -93.1323, 63.4203
2.35194, -1, -32.3603, 1.90512, 20.2367, -159.114, -93.1233, 63.2714
2.3604, -1, -32.6057, 1.83895, 20.2532, -159.191, -93.0958, 62.824
2.36738, -1, -32.6876, 1.81688, 20.2587, -159.217, -93.0866, 62.6748
2.37539, -1, -32.8516, 1.7728, 20.2696, -159.268, -93.0685, 62.3766
2.38455, -1, -33.0979, 1.70648, 20.286, -159.344, -93.0416, 61.9288
2.39139, -1, -33.1802, 1.68438, 20.2914, -159.37, -93.0328, 61.7794
2.39944, -1, -33.3449, 1.64026, 20.3023, -159.421, -93.015, 61.4807
2.40741, -1, -33.5102, 1.59598, 20.3133, -159.472, -92.997, 61.1824
2.41539, -1, -33.6758, 1.55171, 20.3243, -159.524, -92.9787, 60.8838
2.42344, -1, -33.8415, 1.50752, 20.3353, -159.575, -92.9601, 60.5848
2.43139, -1, -34.0075, 1.46328, 20.3461, -159.626, -92.9415, 60.2854
2.44156, -1, -34.2565, 1.39704, 20.3626, -159.703, -92.914, 59.8367
2.44744, -1, -34.3396, 1.37493, 20.3681, -159.729, -92.905, 59.6869
2.45699, -1, -34.5885, 1.30864, 20.3845, -159.806, -92.8783, 59.2373
2.46515, -1, -34.754, 1.26442, 20.3954, -159.858, -92.8604, 58.938
2.47149, -1, -34.8367, 1.2423, 20.4009, -159.883, -92.8515, 58.7883
2.48111, -1, -35.0017, 1.19806, 20.4119, -159.935, -92.8241, 58.3388
2.48739, -1, -35.1665, 1.15378, 20.423, -159.986, -92.8148, 58.1888
2.49642, -1, -35.331, 1.10947, 20.4341, -160.037, -92.7962, 57.8892
2.50339, -1, -35.495, 1.06531, 20.4453, -160.089, -92.7779, 57.5893
2.51241, -1, -35.6573, 1.02149, 20.4565, -160.14, -92.7598, 57.2895
2.51946, -1, -35.8166, 0.978271, 20.4681, -160.191, -92.7419, 56.991
2.52738, -1, -35.9721, 0.936169, 20.48, -160.242, -92.7241, 56.6958
2.53538, -1, -36.1225, 0.895707, 20.4919, -160.291, -92.7066, 56.4066
2.54345, -1, -36.2652, 0.857463, 20.5038, -160.338, -92.6895, 56.1277
2.55142, -1, -36.3982, 0.8222, 20.5154, -160.383, -92.6731, 55.8651
2.5594, -1, -36.52, 0.789965, 20.526, -160.424, -92.6579, 55.6255
2.56745, -1, -36.6291, 0.761152, 20.5353, -160.46, -92.6447, 55.4141
2.57538, -1, -36.7237, 0.736103, 20.5426, -160.49, -92.6337, 55.236
2.58338, -1, -36.8037, 0.714925, 20.5477, -160.514, -92.625, 55.0931
2.59146, -1, -36.8699, 0.697535, 20.5506, -160.533, -92.6185, 54.9848
2.59945, -1, -36.923, 0.683569, 20.5519, -160.546, -92.614, 54.9083
2.60738, -1, -36.9635, 0.672754, 20.5523, -160.555, -92.6112, 54.8568
2.61552, -1, -36.9929, 0.665072, 20.552, -160.561, -92.6095, 54.8255
2.62338, -1, -37.0132, 0.66007, 20.5516, -160.564, -92.6086, 54.8077
2.63141, -1, -37.0256, 0.65707, 20.5512, -160.566, -92.6081, 54.7987
2.63947, 2, -37.0322, 0.655492, 20.5511, -160.567, -92.6079, 54.7945
2.64748, 2, -37.0342, 0.654773, 20.551, -160.567, -92.6078, 54.7926
2.65538, 2, -37.034, 0.65448, 20.551, -160.567, -92.6077, 54.7917
2.66346, 2, -37.0333, 0.654369, 20.5509, -160.567, -92.6077, 54.7913
2.6714, 2, -37.0331, 0.654337, 20.5509, -160.567, -92.6077, 54.7911
2.67945, 2, -37.0334, 0.654285, 20.5509, -160.568, -92.6077, 54.7911
2.68753, 2, -37.0345, 0.654237, 20.5508, -160.568, -92.6077, 54.7911
2.69548, 2, -37.0356, 0.654096, 20.5507, -160.568, -92.6077, 54.7912
2.70348, 2, -37.0372, 0.653906, 20.5505, -160.568, -92.6078, 54.7912
2.71156, 2, -37.0385, 0.653685, 20.5503, -160.568, -92.6078, 54.7913
2.71954, 2, -37.0397, 0.653436, 20.5501, -160.568, -92.6079, 54.7913
2.72739, 2, -37.0407, 0.653217, 20.55, -160.567, -92.6079, 54.7913
2.73551, 2, -37.0411, 0.653123, 20.5498, -160.567, -92.608, 54.7913
2.74341, 2, -37.0411, 0.653091, 20.5496, -160.568, -92.6081, 54.7915
2.75143, 2, -37.0407, 0.65309, 20.5495, -160.567, -92.6081, 54.7916
2.75971, 2, -37.0398, 0.653137, 20.5494, -160.567, -92.6081, 54.7917
2.76751, 2, -37.0388, 0.653185, 20.5494, -160.567, -92.6081, 54.7918
2.77595, 2, -37.0372, 0.653249, 20.5493, -160.567, -92.6082, 54.792
2.78369, 2, -37.0358, 0.653321, 20.5492, -160.567, -92.6082, 54.7921
2.79169, 2, -37.0347, 0.653365, 20.5492, -160.567, -92.6083, 54.7921
2.8001, 2, -37.034, 0.653356, 20.5492, -160.567, -92.6083, 54.7922
2.80843, 2, -37.0338, 0.65334, 20.5492, -160.567, -92.6082, 54.7922
2.8159, 2, -37.0338, 0.653309, 20.5491, -160.567, -92.6082, 54.7922
2.82462, 2, -37.0341, 0.653239, 20.5491, -160.567, -92.6082, 54.7923
2.832, 2, -37.0343, 0.653194, 20.5491, -160.567, -92.6082, 54.7923
2.83997, 2, -37.0348, 0.653135, 20.5491, -160.567, -92.6082, 54.7923
2.84819, 2, -37.0355, 0.653104, 20.5491, -160.567, -92.6083, 54.7923
2.85615, 2, -37.0359, 0.653102, 20.5491, -160.567, -92.6082, 54.7924
2.86337, 2, -37.0367, 0.653142, 20.5491, -160.567, -92.6083, 54.7924
2.87221, 2, -37.0371, 0.653168, 20.549, -160.567, -92.6083, 54.7925
2.87944, 2, -37.0374, 0.65318, 20.549, -160.567, -92.6083, 54.7925
2.88741, 2, -37.0375, 0.653185, 20.5491, -160.567, -92.6083, 54.7926
2.89538, 2, -37.0374, 0.6532, 20.549, -160.567, -92.6083, 54.7927
2.90343, 2, -37.0372, 0.653195, 20.5491, -160.567, -92.6083, 54.7927
2.91138, 2, -37.0367, 0.653212, 20.5491, -160.567, -92.6083, 54.7928
2.91938, 2, -37.0364, 0.653217, 20.549, -160.567, -92.6084, 54.7928
2.92742, 2, -37.0362, 0.653202, 20.549, -160.567, -92.6084, 54.7928
2.93692, 2, -37.036, 0.653183, 20.549, -160.567, -92.6084, 54.7929
2.94536, 2, -37.0359, 0.65315, 20.549, -160.567, -92.6084, 54.7929
2.95143, 2, -37.036, 0.653141, 20.549, -160.567, -92.6084, 54.7929
2.95938, 2, -37.036, 0.653131, 20.5489, -160.567, -92.6084, 54.793
2.96921, 2, -37.0361, 0.653167, 20.5489, -160.567, -92.6084, 54.7931
2.97547, 2, -37.0361, 0.653174, 20.5489, -160.567, -92.6084, 54.7931
2.98507, 2, -37.0363, 0.65319, 20.5489, -160.567, -92.6084, 54.7932
2.99138, 2, -37.0365, 0.653207, 20.5489, -160.567, -92.6084, 54.7932
2.99945, 2, -37.0367, 0.65321, 20.5489, -160.567, -92.6084, 54.7932
3.0074, 2, -37.0368, 0.653211, 20.5489, -160.567, -92.6084, 54.7932
3.01538, 2, -37.0368, 0.6532, 20.5489, -160.567, -92.6084, 54.7933
3.02344, 2, -37.0368, 0.653194, 20.5489, -160.567, -92.6084, 54.7933
3.03138, 2, -37.0367, 0.653192, 20.5489, -160.567, -92.6085, 54.7933
3.03938, 2, -37.0367, 0.653191, 20.5488, -160.567, -92.6085, 54.7934
3.04744, 2, -37.0367, 0.65319, 20.5488, -160.567, -92.6085, 54.7934
3.0554, 2, -37.0366, 0.653161, 20.5488, -160.567, -92.6084, 54.7935
3.06337, 2, -37.0367, 0.653158, 20.5488, -160.567, -92.6085, 54.7936
3.07144, 2, -37.0367, 0.65315, 20.5488, -160.567, -92.6085, 54.7935
3.07938, 2, -37.0366, 0.653153, 20.5488, -160.567, -92.6085, 54.7936
3.08742, 2, -37.0366, 0.653173, 20.5487, -160.567, -92.6085, 54.7938
3.09545, 2, -37.0366, 0.65319, 20.5487, -160.567, -92.6085, 54.7938
3.10337, 2, -37.0366, 0.653202, 20.5487, -160.567, -92.6085, 54.7938
3.11137, 2, -37.0366, 0.653208, 20.5487, -160.567, -92.6085, 54.7939
3.11945, 2, -37.0366, 0.653215, 20.5487, -160.567, -92.6085, 54.7939
3.12737, 2, -37.0366, 0.653202, 20.5487, -160.567, -92.6085, 54.7939
3.13539, 2, -37.0366, 0.653203, 20.5487, -160.567, -92.6086, 54.7939
3.14347, 2, -37.0366, 0.653201, 20.5487, -160.567, -92.6086, 54.794
3.15138, 2, -37.0366, 0.653177, 20.5487, -160.567, -92.6085, 54.7941
3.15938, 2, -37.0366, 0.653184, 20.5487, -160.567, -92.6085, 54.7941
3.16744, 2, -37.0365, 0.653187, 20.5487, -160.567, -92.6085, 54.7942
3.17539, 2, -37.0365, 0.653189, 20.5487, -160.567, -92.6086, 54.7942
3.18342, 2, -37.0365, 0.653189, 20.5486, -160.567, -92.6086, 54.7942
3.19152, 2, -37.0365, 0.653197, 20.5486, -160.567, -92.6087, 54.7943
3.19947, 2, -37.0365, 0.653218, 20.5486, -160.567, -92.6087, 54.7943
3.20747, 2, -37.0365, 0.653215, 20.5486, -160.567, -92.6087, 54.7944
3.21554, 2, -37.0365, 0.653206, 20.5486, -160.567, -92.6087, 54.7944
3.22351, 2, -37.0365, 0.653198, 20.5486, -160.567, -92.6087, 54.7944
3.23138, 2, -37.0365, 0.653193, 20.5486, -160.567, -92.6087, 54.7944
3.23945, 2, -37.0365, 0.653192, 20.5486, -160.567, -92.6087, 54.7944
3.2474, 2, -37.0365, 0.653191, 20.5486, -160.567, -92.6086, 54.7944
3.25537, 2, -37.0365, 0.65319, 20.5486, -160.567, -92.6087, 54.7945
3.2636, 2, -37.0365, 0.65319, 20.5486, -160.567, -92.6087, 54.7945
3.2715, 2, -37.0365, 0.65319, 20.5485, -160.567, -92.6087, 54.7946
3.27967, 2, -37.0365, 0.653179, 20.5485, -160.567, -92.6087, 54.7946
3.28781, 2, -37.0365, 0.65319, 20.5485, -160.567, -92.6087, 54.7947
3.29569, 2, -37.0364, 0.65319, 20.5485, -160.567, -92.6087, 54.7948
3.30376, 2, -37.0364, 0.65319, 20.5485, -160.567, -92.6087, 54.7948
3.31201, 2, -37.0364, 0.65319, 20.5485, -160.567, -92.6087, 54.7948
3.32052, 2, -37.0364, 0.65321, 20.5485, -160.567, -92.6087, 54.7948
3.32791, 2, -37.0364, 0.653216, 20.5485, -160.567, -92.6087, 54.7948
3.33647, 2, -37.0364, 0.653209, 20.5485, -160.567, -92.6087, 54.7949
3.34402, 2, -37.0364, 0.653216, 20.5485, -160.566, -92.6087, 54.7949
3.35196, 2, -37.0364, 0.653208, 20.5485, -160.566, -92.6087, 54.7949
3.36036, 2, -37.0363, 0.653204, 20.5485, -160.566, -92.6087, 54.7949
3.36733, 2, -37.0363, 0.653207, 20.5484, -160.566, -92.6087, 54.795
3.37639, 2, -37.0363, 0.653199, 20.5484, -160.566, -92.6087, 54.795
3.3834, 2, -37.0363, 0.653196, 20.5484, -160.566, -92.6087, 54.795
3.3914, 2, -37.0363, 0.653193, 20.5484, -160.566, -92.6087, 54.795
3.39937, 2, -37.0362, 0.653198, 20.5484, -160.566, -92.6087, 54.795
3.40748, 2, -37.0362, 0.653206, 20.5484, -160.566, -92.6087, 54.795
3.41535, 2, -37.0362, 0.65321, 20.5484, -160.566, -92.6087, 54.795
3.42336, 2, -37.0362, 0.653211, 20.5484, -160.566, -92.6088, 54.795
3.4329, 2, -37.0362, 0.653208, 20.5484, -160.566, -92.6088, 54.7951
3.44091, 2, -37.0362, 0.653198, 20.5484, -160.566, -92.6088, 54.7952
3.44888, 2, -37.0362, 0.653201, 20.5483, -160.566, -92.6088, 54.7952
3.45702, 2, -37.0362, 0.65322, 20.5483, -160.566, -92.6088, 54.7952
3.46336, 2, -37.0362, 0.653217, 20.5483, -160.566, -92.6088, 54.7952
3.47139, 2, -37.0362, 0.653215, 20.5483, -160.566, -92.6088, 54.7952
3.48107, 2, -37.0362, 0.653221, 20.5483, -160.566, -92.6088, 54.7952
3.48735, 2, -37.0362, 0.653216, 20.5483, -160.566, -92.6088, 54.7952
3.49639, 2, -37.0361, 0.653219, 20.5483, -160.566, -92.6088, 54.7952
3.50342, 2, -37.0361, 0.653203, 20.5483, -160.566, -92.6087, 54.7953
3.5124, 2, -37.0361, 0.653227, 20.5483, -160.566, -92.6088, 54.7953
3.51938, 2, -37.036, 0.653239, 20.5482, -160.566, -92.6088, 54.7953
3.52743, 2, -37.0361, 0.653237, 20.5482, -160.566, -92.6088, 54.7954
3.53536, 2, -37.0361, 0.653236, 20.5482, -160.566, -92.6088, 54.7954
3.54335, 2, -37.0361, 0.653236, 20.5482, -160.566, -92.6088, 54.7954
3.55143, 2, -37.0361, 0.653223, 20.5482, -160.566, -92.6088, 54.7954
3.5594, 2, -37.036, 0.653217, 20.5482, -160.566, -92.6088, 54.7955
3.56735, 2, -37.036, 0.653227, 20.5482, -160.566, -92.6088, 54.7955
3.57543, 2, -37.036, 0.653219, 20.5482, -160.566, -92.6088, 54.7955
3.58335, 2, -37.036, 0.653228, 20.5482, -160.566, -92.6087, 54.7955
3.59136, 2, -37.036, 0.653232, 20.5482, -160.566, -92.6088, 54.7955
3.59944, 2, -37.036, 0.653234, 20.5481, -160.566, -92.6088, 54.7955
3.60735, 2, -37.036, 0.653215, 20.5481, -160.566, -92.6088, 54.7955
3.61535, 2, -37.036, 0.653221, 20.5481, -160.566, -92.6088, 54.7955
3.62342, 2, -37.036, 0.653247, 20.5481, -160.566, -92.6088, 54.7955
3.63136, 2, -37.036, 0.653241, 20.5481, -160.566, -92.6088, 54.7955
3.63954, 2, -37.036, 0.653256, 20.5481, -160.566, -92.6088, 54.7955
3.64745, 2, -37.036, 0.653263, 20.5481, -160.566, -92.6088, 54.7955
3.65536, 2, -37.036, 0.653248, 20.5481, -160.566, -92.6088, 54.7955
3.66336, 2, -37.036, 0.653252, 20.5481, -160.566, -92.6088, 54.7955
3.67143, 2, -37.036, 0.653238, 20.5481, -160.566, -92.6088, 54.7955
3.6795, 2, -37.036, 0.653237, 20.5481, -160.566, -92.6088, 54.7956
3.68743, 2, -37.036, 0.653236, 20.5481, -160.566, -92.6088, 54.7956
3.69551, 2, -37.036, 0.653228, 20.5481, -160.566, -92.6088, 54.7955
3.70341, 4, -37.036, 0.653227, 20.5481, -160.566, -92.6087, 54.7956
3.71145, 4, -37.036, 0.653231, 20.548, -160.566, -92.6087, 54.7956
3.71954, 4, -37.0359, 0.653234, 20.548, -160.566, -92.6087, 54.7955
3.7275, 4, -37.0359, 0.653233, 20.548, -160.566, -92.6088, 54.7955
3.73535, 4, -37.0359, 0.653242, 20.548, -160.566, -92.6088, 54.7956
3.7435, 4, -37.0359, 0.653257, 20.548, -160.566, -92.6088, 54.7955
3.75139, 4, -37.0359, 0.653263, 20.548, -160.566, -92.6088, 54.7955
3.7594, 4, -37.0359, 0.653248, 20.548, -160.566, -92.6088, 54.7956
3.76782, 4, -37.0359, 0.65326, 20.548, -160.566, -92.6088, 54.7956
3.77563, 4, -37.0359, 0.653265, 20.548, -160.566, -92.6088, 54.7957
3.78359, 4, -37.0359, 0.653267, 20.548, -160.566, -92.6088, 54.7957
3.79201, 4, -37.0359, 0.65325, 20.5479, -160.566, -92.6089, 54.7957
3.80042, 4, -37.0359, 0.65323, 20.5479, -160.566, -92.6089, 54.7956
3.80813, 4, -37.0359, 0.653233, 20.5479, -160.566, -92.6089, 54.7956
3.82991, 4, -37.0358, 0.65326, 20.5479, -160.566, -92.6088, 54.7957
3.83261, 4, -37.0358, 0.653263, 20.5479, -160.566, -92.6088, 54.7957
3.83444, 4, -37.0358, 0.653263, 20.5479, -160.566, -92.6088, 54.7957
3.84009, 4, -37.0358, 0.653277, 20.5479, -160.566, -92.6088, 54.7957
3.84793, 4, -37.0358, 0.653262, 20.5479, -160.566, -92.6089, 54.7957
3.85642, 4, -37.035, 0.653095, 20.5479, -160.566, -92.6089, 54.7956
3.86334, 4, -37.034, 0.652801, 20.5479, -160.566, -92.6089, 54.7956
3.8728, 4, -37.0267, 0.649395, 20.5489, -160.566, -92.6089, 54.7957
3.88133, 4, -37.0172, 0.643519, 20.5514, -160.566, -92.609, 54.7957
3.88737, 4, -37.011, 0.639218, 20.5537, -160.565, -92.609, 54.7956
3.89822, 4, -36.9856, 0.620266, 20.5667, -160.563, -92.6089, 54.7957
3.90638, 5, -36.9617, 0.601982, 20.5822, -160.56, -92.6089, 54.7956
3.91297, 5, -36.9325, 0.57933, 20.6042, -160.556, -92.6086, 54.7956
3.92116, 5, -36.8985, 0.552081, 20.633, -160.55, -92.6082, 54.7956
3.9274, 5, -36.8798, 0.536852, 20.65, -160.546, -92.6079, 54.7956
3.93691, 5, -36.816, 0.484039, 20.71, -160.533, -92.6063, 54.7956
3.94497, 5, -36.767, 0.443077, 20.7565, -160.522, -92.6048, 54.7955
3.95325, 5, -36.7129, 0.398054, 20.8067, -160.511, -92.603, 54.7955
3.95933, 5, -36.6842, 0.374267, 20.8329, -160.505, -92.6021, 54.7955
3.9691, 5, -36.5923, 0.299104, 20.914, -160.487, -92.5994, 54.7955
3.97573, 5, -36.5597, 0.27304, 20.9416, -160.48, -92.5984, 54.7955
3.98335, 5, -36.4931, 0.219978, 20.9971, -160.468, -92.5965, 54.7955
3.99236, 5, -36.4253, 0.166323, 21.0527, -160.456, -92.5946, 54.7955
4.00311, 5, -36.3224, 0.0854025, 21.1361, -160.438, -92.5916, 54.7955
4.00834, 5, -36.288, 0.0583953, 21.1638, -160.432, -92.5906, 54.7955
4.01639, 5, -36.2191, 0.00450759, 21.2194, -160.42, -92.5885, 54.7956
4.0235, 5, -36.1503, -0.0491824, 21.275, -160.408, -92.5865, 54.7957
4.03215, 5, -36.0817, -0.102619, 21.3305, -160.396, -92.5844, 54.7958
4.03936, 5, -36.0131, -0.155841, 21.3858, -160.383, -92.5823, 54.796
4.0474, 5, -35.9445, -0.208867, 21.4412, -160.37, -92.5801, 54.7965
4.05534, 5, -35.876, -0.261714, 21.4964, -160.357, -92.578, 54.797
4.06338, 5, -35.8073, -0.314412, 21.5516, -160.344, -92.5759, 54.7978
4.07258, 5, -35.7384, -0.367119, 21.6067, -160.332, -92.5738, 54.7988
4.08271, 5, -35.6345, -0.446191, 21.6889, -160.313, -92.5706, 54.8005
4.08739, 5, -35.5997, -0.472598, 21.7163, -160.306, -92.5695, 54.8012
4.09869, 5, -35.495, -0.551836, 21.798, -160.288, -92.5663, 54.8033
4.10459, 5, -35.4599, -0.578255, 21.8251, -160.281, -92.5652, 54.8041
4.11236, 5, -35.3896, -0.631082, 21.8793, -160.269, -92.563, 54.8058
4.12033, 5, -35.3192, -0.683839, 21.9334, -160.256, -92.5608, 54.8076
4.1292, 5, -35.2487, -0.736586, 21.9874, -160.243, -92.5586, 54.8095
4.13634, 5, -35.1782, -0.789027, 22.0413, -160.229, -92.5563, 54.8116
4.14342, 5, -35.1076, -0.841271, 22.0951, -160.216, -92.554, 54.8137
4.15158, 5, -35.037, -0.893458, 22.1487, -160.202, -92.5518, 54.8161
4.16039, 5, -34.9663, -0.945275, 22.2023, -160.189, -92.5495, 54.8185
4.16744, 5, -34.8959, -0.996952, 22.2557, -160.176, -92.5472, 54.821
4.17577, 5, -34.8254, -1.04844, 22.309, -160.164, -92.5448, 54.8236
4.18447, 5, -34.7549, -1.0999, 22.3621, -160.151, -92.5425, 54.8265
4.19142, 5, -34.6843, -1.15136, 22.4151, -160.138, -92.5401, 54.8294
4.20021, 5, -34.6134, -1.20268, 22.4678, -160.125, -92.5377, 54.8324
4.20744, 5, -34.5425, -1.25411, 22.5204, -160.112, -92.5354, 54.8354
4.21549, 5, -34.4713, -1.30547, 22.5728, -160.098, -92.533, 54.8386
4.22563, 5, -34.3999, -1.35684, 22.6251, -160.085, -92.5307, 54.842
4.23712, 5, -34.3284, -1.4082, 22.6773, -160.071, -92.5282, 54.8473
4.24015, 5, -34.2569, -1.45946, 22.7293, -160.057, -92.5258, 54.8491
4.24736, 5, -34.185, -1.51053, 22.7812, -160.043, -92.5234, 54.8528
4.25639, 5, -34.113, -1.56135, 22.833, -160.03, -92.521, 54.8566
4.26341, 5, -34.0409, -1.61202, 22.8846, -160.016, -92.5185, 54.8605
4.27148, 5, -33.9687, -1.6625, 22.9362, -160.003, -92.5161, 54.8644
4.27989, 5, -33.8964, -1.71273, 22.9877, -159.989, -92.5137, 54.8685
4.28767, 5, -33.8243, -1.76285, 23.0389, -159.976, -92.5113, 54.8726
4.29566, 5, -33.7522, -1.81286, 23.09, -159.962, -92.509, 54.8769
4.30423, 5, -33.6799, -1.86277, 23.141, -159.947, -92.5066, 54.8812
4.31344, 5, -33.6075, -1.91258, 23.1917, -159.933, -92.5043, 54.8855
4.31993, 5, -33.5349, -1.96262, 23.2423, -159.919, -92.5019, 54.8899
4.32848, 5, -33.462, -2.01295, 23.2929, -159.905, -92.4995, 54.8939
4.3368, 5, -33.3891, -2.06357, 23.3432, -159.891, -92.4973, 54.8971
4.34395, 5, -33.3165, -2.11456, 23.3936, -159.877, -92.4949, 54.8988
4.35218, 6, -33.244, -2.16609, 23.4441, -159.862, -92.4926, 54.899
4.36322, 6, -33.1719, -2.21849, 23.4947, -159.848, -92.4901, 54.8972
4.36839, 6, -33.1001, -2.27177, 23.5459, -159.832, -92.487, 54.8918
4.37535, 6, -33.0644, -2.29875, 23.5717, -159.824, -92.4852, 54.8868
4.38337, 7, -32.9935, -2.35359, 23.6242, -159.807, -92.4805, 54.8733
4.39132, 7, -32.9229, -2.40957, 23.6779, -159.788, -92.4743, 54.8568
4.40249, 7, -32.8181, -2.49621, 23.7611, -159.758, -92.4612, 54.829
4.40753, 7, -32.7834, -2.52584, 23.7896, -159.747, -92.4558, 54.8197
4.4153, 7, -32.7146, -2.58639, 23.8476, -159.725, -92.4435, 54.8017
4.42332, 8, -32.6465, -2.6485, 23.9071, -159.702, -92.429, 54.7844
4.433, 8, -32.5458, -2.74503, 23.9986, -159.664, -92.4035, 54.7586
4.43936, 8, -32.5125, -2.77803, 24.0296, -159.65, -92.3941, 54.7496
4.44732, 8, -32.4466, -2.84523, 24.0925, -159.623, -92.374, 54.7309
4.45687, 8, -32.349, -2.94881, 24.1887, -159.581, -92.3414, 54.6998
4.46339, 9, -32.3168, -2.984, 24.2213, -159.566, -92.33, 54.6886
4.47134, 9, -32.2527, -3.05536, 24.2872, -159.537, -92.3063, 54.6649
4.48194, 9, -32.1577, -3.16487, 24.3879, -159.489, -92.2683, 54.6262
4.48812, 9, -32.1264, -3.20199, 24.422, -159.473, -92.2546, 54.6128
4.49634, 9, -32.064, -3.27727, 24.4908, -159.441, -92.226, 54.5849
4.5044, 10, -32.0023, -3.35379, 24.5607, -159.407, -92.1964, 54.5555
4.51233, 10, -31.9411, -3.43175, 24.6316, -159.372, -92.1656, 54.5241
4.52035, 10, -31.8805, -3.51116, 24.7036, -159.336, -92.1336, 54.4907
4.52966, 10, -31.7907, -3.63287, 24.8135, -159.281, -92.0818, 54.4377
4.53772, 10, -31.7611, -3.71586, 24.888, -159.243, -92.0459, 54.4011
4.54339, 11, -31.7021, -3.75789, 24.9257, -159.223, -92.0276, 54.3822
4.55134, 11, -31.6437, -3.84314, 25.0017, -159.184, -91.9902, 54.3431
4.55948, 11, -31.5858, -3.92978, 25.0785, -159.144, -91.9506, 54.3019
4.56748, 11, -31.5283, -4.01791, 25.1563, -159.102, -91.9096, 54.2592
4.57539, 11, -31.4715, -4.1075, 25.2352, -159.059, -91.8679, 54.2155
4.58332, 12, -31.4152, -4.19861, 25.3152, -159.017, -91.8245, 54.1703
4.59134, 12, -31.3594, -4.29106, 25.3962, -158.973, -91.7791, 54.123
4.59939, 12, -31.304, -4.38492, 25.4783, -158.927, -91.7331, 54.0741
4.60749, 12, -31.2493, -4.48013, 25.5614, -158.881, -91.6859, 54.0241
4.61558, 12, -31.1949, -4.57671, 25.6455, -158.835, -91.6365, 53.9727
4.62343, 13, -31.1412, -4.67474, 25.7306, -158.786, -91.5865, 53.919
4.63136, 13, -31.088, -4.77411, 25.8166, -158.737, -91.535, 53.8644
4.63937, 13, -31.0352, -4.87499, 25.9036, -158.688, -91.4814, 53.8088
4.64741, 13, -30.9831, -4.97738, 25.9917, -158.637, -91.4275, 53.7509
4.65551, 13, -30.9314, -5.08121, 26.0809, -158.586, -91.3715, 53.6917
4.6643, 14, -30.8803, -5.18642, 26.1712, -158.533, -91.3143, 53.6316
4.67147, 14, -30.8298, -5.29321, 26.2626, -158.479, -91.2565, 53.5694
4.68012, 14, -30.7799, -5.40141, 26.355, -158.426, -91.1961, 53.5061
4.69173, 14, -30.7058, -5.56655, 26.495, -158.342, -91.1047, 53.4089
4.69542, 14, -30.6814, -5.62237, 26.5422, -158.314, -91.073, 53.3753
4.70439, 15, -30.6329, -5.73508, 26.6375, -158.258, -91.0091, 53.3075
4.71168, 15, -30.5848, -5.84914, 26.7338, -158.199, -90.9442, 53.2389
4.71943, 15, -30.5374, -5.96443, 26.8314, -158.141, -90.8773, 53.1679
4.72962, 15, -30.4904, -6.08115, 26.93, -158.081, -90.81, 53.0962
4.73567, 15, -30.4439, -6.19941, 27.0295, -158.02, -90.7403, 53.0226
4.74439, 15, -30.398, -6.31894, 27.1299, -157.959, -90.6702, 52.9472
4.75135, 16, -30.3526, -6.44007, 27.2312, -157.896, -90.5978, 52.871
4.75942, 16, -30.3076, -6.5627, 27.3337, -157.833, -90.525, 52.7922
4.76741, 16, -30.2631, -6.6867, 27.4374, -157.768, -90.4504, 52.713
4.77546, 16, -30.2191, -6.81225, 27.5421, -157.704, -90.3747, 52.6318
4.78393, 16, -30.1757, -6.93937, 27.648, -157.637, -90.2974, 52.5495
4.79173, 17, -30.1327, -7.06807, 27.7546, -157.57, -90.2191, 52.466
4.80034, 17, -30.0902, -7.19831, 27.862, -157.502, -90.1392, 52.3811
4.80818, 17, -30.0483, -7.32998, 27.9705, -157.434, -90.0579, 52.2953
4.81813, 17, -30.0068, -7.46291, 28.0801, -157.364, -89.9757, 52.2074
4.82388, 17, -29.9658, -7.59725, 28.1911, -157.293, -89.8918, 52.1188
4.83243, 18, -29.9253, -7.73305, 28.3031, -157.222, -89.8068, 52.0285
4.84021, 18, -29.8854, -7.87023, 28.4159, -157.15, -89.7203, 51.9372
4.84794, 18, -29.8459, -8.00878, 28.5295, -157.076, -89.633, 51.8438
4.85672, 18, -29.8068, -8.14849, 28.6441, -157.002, -89.5442, 51.7497
4.86531, 18, -29.7682, -8.28959, 28.76, -156.927, -89.454, 51.6538
4.87133, 19, -29.7491, -8.36066, 28.8183, -156.889, -89.4086, 51.6057
4.87931, 19, -29.7113, -8.50397, 28.936, -156.813, -89.3169, 51.5082
4.88881, 19, -29.6553, -8.72188, 29.1141, -156.697, -89.1764, 51.3601
4.89647, 19, -29.6186, -8.86878, 29.2337, -156.618, -89.0817, 51.26
4.90336, 19, -29.6004, -8.94269, 29.2938, -156.578, -89.0338, 51.2098
4.91261, 20, -29.5467, -9.16668, 29.476, -156.458, -88.8883, 51.0563
4.91931, 20, -29.529, -9.24209, 29.5374, -156.417, -88.8394, 51.0047
4.9274, 20, -29.4938, -9.39407, 29.6608, -156.336, -88.7409, 50.9003
4.9355, 20, -29.4592, -9.54731, 29.7852, -156.253, -88.6411, 50.7949
4.94883, 20, -29.3915, -9.85718, 30.0363, -156.085, -88.4383, 50.5803
4.95292, 21, -29.3748, -9.93554, 30.0998, -156.043, -88.3868, 50.5259
4.96169, 21, -29.3417, -10.0934, 30.2274, -155.957, -88.2831, 50.4166
4.96744, 21, -29.3254, -10.1729, 30.2916, -155.914, -88.2309, 50.3615
4.97768, 21, -29.277, -10.4128, 30.4857, -155.783, -88.0729, 50.195
4.98348, 21, -29.2611, -10.4933, 30.5508, -155.739, -88.0195, 50.1393
4.99155, 22, -29.2295, -10.6553, 30.6817, -155.651, -87.9124, 50.0266
4.9994, 22, -29.1983, -10.8187, 30.8135, -155.561, -87.8042, 49.9133
5.00769, 22, -29.1674, -10.9833, 30.9463, -155.47, -87.6949, 49.799
5.01611, 22, -29.1371, -11.1488, 31.08, -155.379, -87.5847, 49.6838
5.02337, 22, -29.1071, -11.3154, 31.2146, -155.287, -87.4734, 49.5679
5.0314, 22, -29.0775, -11.4835, 31.3503, -155.194, -87.3613, 49.4507
5.03931, 23, -29.0482, -11.6532, 31.4867, -155.1, -87.2483, 49.3332
5.04738, 23, -29.0192, -11.8239, 31.6238, -155.005, -87.1341, 49.2147
5.05648, 23, -28.9907, -11.9955, 31.7618, -154.909, -87.0194, 49.0957
5.06348, 23, -28.9627, -12.1682, 31.9007, -154.813, -86.9037, 48.9763
5.07277, 23, -28.9349, -12.3424, 32.0405, -154.716, -86.7869, 48.856
5.08007, 24, -28.9076, -12.5179, 32.1813, -154.617, -86.6693, 48.7353
5.08986, 24, -28.867, -12.782, 32.3936, -154.468, -86.4912, 48.5533
5.09633, 24, -28.8537, -12.8705, 32.4646, -154.418, -86.4315, 48.4923
5.10675, 24, -28.8142, -13.1384, 32.6794, -154.267, -86.2506, 48.3083
5.11145, 24, -28.8012, -13.2284, 32.7515, -154.216, -86.1902, 48.2468
5.11931, 25, -28.7755, -13.4087, 32.8962, -154.114, -86.0686, 48.1234
5.12743, 25, -28.7501, -13.5896, 33.0414, -154.011, -85.9461, 47.9999
5.13553, 25, -28.7248, -13.7717, 33.1872, -153.907, -85.8234, 47.8766
5.14435, 25, -28.6997, -13.9552, 33.3338, -153.802, -85.6993, 47.7528
5.15133, 25, -28.675, -14.1396, 33.4813, -153.697, -85.575, 47.6289
5.15941, 26, -28.6505, -14.3242, 33.6295, -153.59, -85.45, 47.505
5.16737, 26, -28.6263, -14.51, 33.7781, -153.483, -85.3243, 47.3806
5.17531, 26, -28.6026, -14.6972, 33.9273, -153.376, -85.1983, 47.2563
5.18347, 26, -28.5789, -14.8851, 34.0775, -153.267, -85.0713, 47.132
5.19134, 26, -28.5553, -15.0731, 34.2283, -153.158, -84.9441, 47.0078
5.19943, 27, -28.5319, -15.2619, 34.3795, -153.048, -84.8161, 46.8839
5.20794, 27, -28.5089, -15.4516, 34.5311, -152.937, -84.6879, 46.7606
5.21626, 27, -28.486, -15.6419, 34.6835, -152.826, -84.559, 46.6374
5.22377, 27, -28.4633, -15.8323, 34.8367, -152.714, -84.4297, 46.5143
5.2327, 27, -28.441, -16.0238, 34.9902, -152.601, -84.3, 46.3917
5.24044, 28, -28.4186, -16.2169, 35.1437, -152.487, -84.1699, 46.2693
5.24833, 28, -28.3963, -16.4106, 35.2979, -152.373, -84.0394, 46.1474
5.25531, 28, -28.3742, -16.6047, 35.4529, -152.259, -83.9084, 46.0259
5.26448, 28, -28.3522, -16.7999, 35.6084, -152.143, -83.7775, 45.905
5.27172, 28, -28.3303, -16.996, 35.764, -152.027, -83.6459, 45.7849
5.27945, 28, -28.3085, -17.1922, 35.9201, -151.91, -83.5143, 45.6657
5.28842, 29, -28.2869, -17.3886, 36.0768, -151.792, -83.3821, 45.547
5.29559, 29, -28.2654, -17.5859, 36.2341, -151.674, -83.2497, 45.4292
5.30443, 29, -28.2438, -17.7838, 36.3915, -151.555, -83.1167, 45.3122
5.31248, 29, -28.2225, -17.9817, 36.5491, -151.435, -82.9837, 45.1957
5.31984, 29, -28.2013, -18.1799, 36.7075, -151.315, -82.8503, 45.0805
5.32877, 30, -28.1801, -18.3789, 36.8664, -151.194, -82.7168, 44.9665
5.33624, 30, -28.1588, -18.5782, 37.0252, -151.073, -82.5834, 44.8538
5.34518, 30, -28.1375, -18.7774, 37.1837, -150.951, -82.4495, 44.7431
5.35186, 30, -28.1163, -18.9773, 37.3423, -150.828, -82.3159, 44.6337
5.3604, 30, -28.0948, -19.1782, 37.5015, -150.705, -82.1817, 44.5265
5.36888, 31, -28.0733, -19.379, 37.6607, -150.582, -82.0479, 44.4205
5.37638, 31, -28.0518, -19.5796, 37.8195, -150.458, -81.9137, 44.3164
5.38648, 31, -28.0303, -19.7805, 37.9788, -150.334, -81.7798, 44.2141
5.39213, 31, -28.0195, -19.8811, 38.0588, -150.271, -81.7128, 44.1635
5.40039, 31, -27.9868, -20.1822, 38.2989, -150.083, -81.5112, 44.0138
5.40733, 32, -27.9759, -20.2824, 38.3787, -150.02, -81.4442, 43.9648
5.41542, 32, -27.9539, -20.4833, 38.5382, -149.893, -81.3099, 43.8682
5.42327, 32, -27.9316, -20.6846, 38.6979, -149.767, -81.1759, 43.7742
5.43278, 32, -27.8977, -20.986, 38.9378, -149.576, -80.975, 43.6373
5.43931, 32, -27.8863, -21.0864, 39.0175, -149.512, -80.9082, 43.5931
5.44877, 33, -27.8518, -21.3877, 39.2557, -149.321, -80.7086, 43.4647
5.45696, 33, -27.8284, -21.5881, 39.4147, -149.193, -80.5762, 43.3829
5.46706, 33, -27.8045, -21.7875, 39.5734, -149.065, -80.4439, 43.3042
5.4734, 33, -27.7801, -21.9867, 39.731, -148.938, -80.3123, 43.2288
5.4793, 33, -27.7677, -22.0863, 39.8096, -148.874, -80.2466, 43.1921
5.4889, 34, -27.7425, -22.2848, 39.9664, -148.747, -80.1154, 43.088
5.49539, 34, -27.7169, -22.4823, 40.1231, -148.619, -79.9848, 43.0548
5.50435, 34, -27.6909, -22.6793, 40.2794, -148.491, -79.854, 42.9902
5.51319, 34, -27.6645, -22.8764, 40.4349, -148.363, -79.7234, 42.9005
5.52307, 34, -27.6239, -23.1705, 40.6676, -148.172, -79.5274, 42.8445
5.52838, 35, -27.6102, -23.2682, 40.7452, -148.107, -79.4622, 42.8175
5.53644, 35, -27.5827, -23.464, 40.9003, -147.979, -79.3314, 42.7665
5.54637, 35, -27.541, -23.758, 41.1318, -147.786, -79.1362, 42.6968
5.55129, 35, -27.527, -23.8557, 41.2088, -147.721, -79.0711, 42.6752
5.5601, 35, -27.4988, -24.0507, 41.3631, -147.591, -78.941, 42.6341
5.56749, 36, -27.4703, -24.2459, 41.5174, -147.461, -78.8116, 42.5966
5.57535, 36, -27.4414, -24.441, 41.6713, -147.33, -78.6818, 42.5634
5.58605, 36, -27.3976, -24.7321, 41.9009, -147.134, -78.4887, 42.5214
5.59143, 36, -27.3827, -24.8288, 41.9774, -147.068, -78.4243, 42.5095
5.59936, 36, -27.3525, -25.0223, 42.1299, -146.937, -78.2962, 42.489
5.60749, 37, -27.3213, -25.2149, 42.2815, -146.806, -78.1686, 42.473
5.61629, 37, -27.2892, -25.4062, 42.4316, -146.676, -78.0414, 42.4617
5.62335, 37, -27.2563, -25.5964, 42.5807, -146.546, -77.9148, 42.4554
5.63129, 37, -27.2224, -25.7859, 42.7288, -146.417, -77.7886, 42.4527
5.63943, 37, -27.1876, -25.974, 42.8756, -146.29, -77.663, 42.4532
5.64851, 37, -27.1518, -26.1602, 43.021, -146.162, -77.5377, 42.4599
5.65532, 38, -27.1151, -26.3451, 43.1651, -146.035, -77.413, 42.4729
5.66355, 38, -27.0778, -26.5295, 43.3084, -145.909, -77.2886, 42.4908
5.67233, 38, -27.0397, -26.7126, 43.4512, -145.782, -77.1647, 42.5142
5.6793, 38, -27.0007, -26.8945, 43.5934, -145.655, -77.041, 42.5429
5.68739, 38, -26.9612, -27.0756, 43.7347, -145.529, -76.9175, 42.5772
5.69533, 39, -26.9211, -27.2567, 43.8755, -145.402, -76.7943, 42.6176
5.7035, 39, -26.8803, -27.437, 44.0157, -145.275, -76.6709, 42.6639
5.71152, 39, -26.8387, -27.6162, 44.1552, -145.148, -76.5477, 42.7154
5.72028, 39, -26.7963, -27.7947, 44.2939, -145.021, -76.4243, 42.773
5.72745, 39, -26.7533, -27.9729, 44.4314, -144.894, -76.3012, 42.8375
5.7354, 40, -26.7092, -28.1499, 44.5678, -144.768, -76.1781, 42.9074
5.74339, 40, -26.6639, -28.3251, 44.703, -144.643, -76.0555, 42.9844
5.75136, 40, -26.6176, -28.4989, 44.8367, -144.519, -75.9336, 43.0679
5.7609, 40, -26.5703, -28.6716, 44.9689, -144.396, -75.812, 43.1574
5.77031, 40, -26.5217, -28.8428, 45.0995, -144.274, -75.6915, 43.2545
5.77629, 41, -26.472, -29.0121, 45.2286, -144.153, -75.5714, 43.3578
5.78347, 41, -26.4213, -29.1795, 45.3563, -144.033, -75.4518, 43.468
5.79229, 41, -26.3693, -29.3459, 45.4827, -143.914, -75.3329, 43.5849
5.80039, 41, -26.3161, -29.5108, 45.6078, -143.796, -75.214, 43.7087
5.80777, 41, -26.2616, -29.6736, 45.7312, -143.679, -75.0959, 43.8398
5.81653, 42, -26.2057, -29.8347, 45.8529, -143.563, -74.978, 43.978
5.82457, 42, -26.1483, -29.994, 45.9729, -143.449, -74.8605, 44.1237
5.83191, 42, -26.0894, -30.1516, 46.0907, -143.336, -74.7438, 44.2762
5.84228, 42, -26.0287, -30.3071, 46.2064, -143.225, -74.6273, 44.4362
5.84842, 42, -25.9666, -30.46, 46.32, -143.116, -74.5116, 44.6031
5.85627, 42, -25.9026, -30.6108, 46.4312, -143.009, -74.3963, 44.7774
5.86488, 43, -25.8369, -30.7593, 46.5403, -142.904, -74.2813, 44.9595
5.87128, 43, -25.8035, -30.8328, 46.5941, -142.852, -74.2241, 45.0534
5.88092, 43, -25.7006, -31.0498, 46.7524, -142.698, -74.0528, 45.3466
5.8929, 43, -25.6301, -31.1915, 46.9065, -142.549, -73.8827, 45.657
5.89677, 44, -25.5581, -31.3312, 46.9569, -142.5, -73.8262, 45.7644
5.90333, 44, -25.5214, -31.4002, 47.0068, -142.452, -73.7697, 45.8736
5.91152, 44, -25.4468, -31.5368, 47.1047, -142.358, -73.6578, 46.0982
5.92148, 44, -25.3704, -31.7374, 47.2468, -142.22, -73.4906, 46.4505
5.92728, 44, -25.2923, -31.803, 47.293, -142.175, -73.4351, 46.5721
5.93672, 44, -25.1717, -31.9957, 47.4281, -142.045, -73.2703, 46.9488
5.94333, 45, -25.1305, -32.0586, 47.4719, -142.003, -73.2155, 47.0788
5.95129, 45, -25.0467, -32.1823, 47.5576, -141.921, -73.1064, 47.3449
5.96111, 45, -24.917, -32.3624, 47.6809, -141.803, -72.9437, 47.7594
5.96742, 45, -24.8727, -32.4209, 47.7205, -141.766, -72.8895, 47.9016
5.97686, 45, -24.7361, -32.5915, 47.8348, -141.657, -72.7284, 48.341
5.98404, 46, -24.6893, -32.6466, 47.8714, -141.623, -72.6749, 48.4918
5.99131, 46, -24.5942, -32.7545, 47.9424, -141.556, -72.5684, 48.7994
6.00027, 46, -24.4965, -32.8588, 48.0104, -141.493, -72.4629, 49.1153
6.01075, 46, -24.3458, -33.0085, 48.1064, -141.406, -72.3061, 49.6054
6.01716, 46, -24.2944, -33.0565, 48.1367, -141.379, -72.2033, 49.942
6.02424, 47, -24.1899, -33.1498, 48.1946, -141.328, -72.1521, 50.1133
6.03228, 47, -24.083, -33.2392, 48.249, -141.281, -72.0507, 50.4623
6.03943, 47, -23.9735, -33.3245, 48.2998, -141.237, -71.9504, 50.8197
6.0473, 47, -23.8614, -33.4058, 48.3468, -141.199, -71.8514, 51.1855
6.05532, 47, -23.7466, -33.4829, 48.39, -141.165, -71.7534, 51.5601
6.06342, 48, -23.629, -33.5558, 48.4293, -141.135, -71.6568, 51.9436
6.07226, 48, -23.5087, -33.6242, 48.4645, -141.11, -71.5619, 52.3356
6.08029, 48, -23.3858, -33.688, 48.4954, -141.09, -71.4683, 52.737
6.08829, 48, -23.2605, -33.747, 48.5223, -141.075, -71.3764, 53.1481
6.09633, 48, -23.1325, -33.8008, 48.5449, -141.065, -71.2868, 53.568
6.10328, 49, -23.0016, -33.8496, 48.5629, -141.06, -71.1989, 53.997
6.11147, 49, -22.8678, -33.893, 48.5766, -141.059, -71.1127, 54.4336
6.11929, 49, -22.7309, -33.931, 48.5856, -141.064, -71.0291, 54.8779
6.12729, 49, -22.5912, -33.9633, 48.5898, -141.075, -70.9472, 55.3299
6.13575, 49, -22.4487, -33.9899, 48.5897, -141.092, -70.868, 55.7891
6.14452, 50, -22.3033, -34.0105, 48.5847, -141.116, -70.791, 56.2561
6.1513, 50, -22.1553, -34.0249, 48.5746, -141.146, -70.7172, 56.7297
6.16134, 50, -22.0047, -34.0331, 48.5593, -141.181, -70.6459, 57.2111
6.16741, 50, -21.8511, -34.0352, 48.5388, -141.222, -70.5781, 57.7006
6.17528, 50, -21.6945, -34.0313, 48.5128, -141.271, -70.5132, 58.1974
6.18348, 51, -21.5348, -34.0207, 48.4812, -141.324, -70.4525, 58.701
6.19316, 51, -21.3722, -34.0033, 48.4443, -141.385, -70.3946, 59.2106
6.20034, 51, -21.207, -33.9789, 48.4019, -141.452, -70.3409, 59.7268
6.20767, 51, -21.0391, -33.9475, 48.3538, -141.525, -70.2911, 60.2487
6.21651, 51, -20.8688, -33.909, 48.3001, -141.604, -70.2445, 60.7767
6.22483, 52, -20.6959, -33.8629, 48.2407, -141.69, -70.2023, 61.3097
6.23232, 52, -20.5204, -33.809, 48.1752, -141.782, -70.1652, 61.8497
6.23954, 52, -20.3421, -33.7472, 48.1038, -141.88, -70.1323, 62.3962
6.24827, 52, -20.1609, -33.6773, 48.0262, -141.985, -70.104, 62.9494
6.25535, 52, -19.977, -33.5991, 47.9425, -142.096, -70.0807, 63.508
6.26367, 52, -19.7906, -33.5125, 47.8524, -142.214, -70.0628, 64.0732
6.27168, 53, -19.6021, -33.4174, 47.7561, -142.337, -70.0505, 64.6439
6.27948, 53, -19.4116, -33.314, 47.6539, -142.467, -70.0436, 65.2195
6.2876, 53, -19.2193, -33.2026, 47.5457, -142.602, -70.0416, 65.7982
6.29557, 53, -19.0251, -33.0829, 47.4317, -142.743, -70.0447, 66.381
6.30359, 53, -18.8294, -32.9548, 47.3117, -142.889, -70.0539, 66.9662
6.3128, 54, -18.6318, -32.8186, 47.1859, -143.04, -70.0695, 67.5527
6.3221, 54, -18.4324, -32.674, 47.0544, -143.195, -70.0917, 68.1404
6.3278, 54, -18.2309, -32.5212, 46.9174, -143.355, -70.1207, 68.7293
6.33987, 54, -18.028, -32.3602, 46.7747, -143.603, -70.1755, 69.6157
6.34438, 54, -17.8239, -32.1902, 46.626, -143.687, -70.1971, 69.9118
6.35247, 55, -17.619, -32.011, 46.471, -143.86, -70.2468, 70.5066
6.35996, 55, -17.4128, -31.8224, 46.3098, -144.038, -70.3041, 71.1058
6.36852, 55, -17.205, -31.6245, 46.1418, -144.221, -70.3691, 71.7094
6.37527, 55, -17.1005, -31.5217, 46.055, -144.315, -70.4054, 72.0127
6.38429, 55, -16.7844, -31.1974, 45.783, -144.603, -70.5264, 72.9302
6.39141, 56, -16.6782, -31.084, 45.6888, -144.701, -70.5715, 73.2385
6.39943, 56, -16.4645, -30.8494, 45.4955, -144.901, -70.6682, 73.8587
6.4084, 56, -16.1421, -30.4768, 45.191, -145.21, -70.8306, 74.7941
6.41687, 56, -15.9271, -30.2152, 44.9796, -145.42, -70.9506, 75.4215
6.42696, 56, -15.7122, -29.9432, 44.7623, -145.633, -71.0797, 76.051
6.43128, 57, -15.6044, -29.8031, 44.6509, -145.741, -71.1479, 76.366
6.43935, 57, -15.388, -29.5154, 44.4229, -145.959, -71.291, 76.9961
6.44727, 57, -15.1706, -29.2175, 44.1892, -146.178, -71.4437, 77.6271
6.45758, 57, -14.8438, -28.7529, 43.8268, -146.511, -71.6904, 78.573
6.46606, 57, -14.6262, -28.4326, 43.579, -146.735, -71.8665, 79.2011
6.47151, 58, -14.5176, -28.2693, 43.4535, -146.846, -71.9577, 79.5145
6.47924, 58, -14.3013, -27.9375, 43.199, -147.07, -72.1463, 80.1387
6.48727, 58, -14.0861, -27.5976, 42.9411, -147.292, -72.3427, 80.758
6.49759, 58, -13.8726, -27.2505, 42.68, -147.513, -72.5466, 81.371
6.5033, 58, -13.6603, -26.8964, 42.4152, -147.732, -72.7578, 81.9786
6.51232, 58, -13.4492, -26.536, 42.1481, -147.949, -72.976, 82.5804
6.51933, 59, -13.2396, -26.1685, 41.8771, -148.164, -73.2018, 83.1765
6.52834, 59, -13.0318, -25.7942, 41.6025, -148.378, -73.4352, 83.7676
6.53626, 59, -12.8256, -25.413, 41.3244, -148.59, -73.6768, 84.3548
6.5434, 59, -12.6206, -25.0253, 41.0423, -148.8, -73.9265, 84.9383
6.5513, 59, -12.4167, -24.6301, 40.7566, -149.009, -74.1849, 85.5173
6.55927, 60, -12.2139, -24.2281, 40.4665, -149.215, -74.4515, 86.0922
6.56741, 60, -12.0126, -23.8193, 40.1734, -149.419, -74.7266, 86.6633
6.57623, 60, -11.8129, -23.4047, 39.8771, -149.62, -75.0094, 87.2302
6.58426, 60, -11.6148, -22.9836, 39.5791, -149.819, -75.2998, 87.7911
6.59233, 60, -11.419, -22.5574, 39.2792, -150.014, -75.5972, 88.3465
6.60035, 61, -11.2257, -22.1271, 38.9781, -150.205, -75.9007, 88.8954
6.6083, 61, -11.0346, -21.6929, 38.6761, -150.392, -76.2096, 89.4367
6.6165, 61, -10.8456, -21.2551, 38.3732, -150.575, -76.5233, 89.969
6.62808, 61, -10.5662, -20.5914, 37.9184, -150.839, -77.0029, 90.7515
6.63127, 61, -10.4742, -20.3681, 37.7666, -150.925, -77.165, 91.0081
6.6401, 62, -10.2921, -19.9187, 37.4629, -151.093, -77.4931, 91.5153
6.64832, 62, -10.1128, -19.4659, 37.1581, -151.257, -77.8265, 92.0148
6.65527, 62, -9.93604, -19.0103, 36.8528, -151.416, -78.1655, 92.5067
6.66658, 62, -9.67577, -18.3225, 36.3926, -151.646, -78.6842, 93.2319
6.67246, 62, -9.59025, -18.0924, 36.2393, -151.721, -78.8596, 93.4697
6.67924, 63, -9.42078, -17.632, 35.9328, -151.866, -79.2133, 93.9391
6.68746, 63, -9.25358, -17.1704, 35.6277, -152.006, -79.5703, 94.3982
6.69529, 63, -9.08896, -16.7076, 35.3247, -152.141, -79.9291, 94.8465
6.70356, 63, -8.92696, -16.2429, 35.0236, -152.269, -80.2897, 95.2841
6.71136, 63, -8.76757, -15.7758, 34.7247, -152.392, -80.6514, 95.7098
6.71952, 63, -8.61072, -15.3066, 34.4275, -152.509, -81.0154, 96.1256
6.72828, 64, -8.45623, -14.8359, 34.1322, -152.621, -81.3824, 96.5308
6.73536, 64, -8.30411, -14.3635, 33.8363, -152.729, -81.7539, 96.9268
6.74379, 64, -8.15418, -13.8904, 33.5404, -152.832, -82.1308, 97.3144
6.75231, 64, -8.00649, -13.4169, 33.2438, -152.93, -82.5129, 97.6928
6.75968, 65, -7.86116, -12.9434, 32.9478, -153.024, -82.8996, 98.0608
6.76869, 65, -7.71838, -12.4711, 32.6531, -153.112, -83.2891, 98.4179
6.77686, 65, -7.57851, -11.9991, 32.361, -153.195, -83.6802, 98.7615
6.78431, 65, -7.4417, -11.5277, 32.073, -153.271, -84.0709, 99.0908
6.79341, 65, -7.30789, -11.057, 31.7889, -153.342, -84.4604, 99.4055
6.80145, 66, -7.17705, -10.5877, 31.5098, -153.406, -84.8484, 99.705
6.80842, 66, -7.04869, -10.1216, 31.2344, -153.464, -85.2343, 99.9885
6.81561, 66, -6.92256, -9.65973, 30.9636, -153.517, -85.6191, 100.256
6.82412, 66, -6.79861, -9.2041, 30.6975, -153.563, -86.0025, 100.508
6.8321, 66, -6.67674, -8.75533, 30.435, -153.604, -86.3837, 100.743
6.83981, 66, -6.5572, -8.31312, 30.1778, -153.639, -86.762, 100.961
6.84805, 67, -6.44045, -7.87814, 29.9262, -153.669, -87.136, 101.162
6.8559, 67, -6.32671, -7.45012, 29.6814, -153.692, -87.5052, 101.345
6.86442, 67, -6.21583, -7.02849, 29.4443, -153.71, -87.8684, 101.51
6.8724, 67, -6.16137, -6.61313, 29.2138, -153.722, -88.2255, 101.657
6.88072, 67, -6.05441, -6.20458, 28.9902, -153.729, -88.577, 101.787
6.8873, 68, -5.94986, -6.00282, 28.8809, -153.731, -88.751, 101.845
6.89527, 68, -5.84725, -5.60415, 28.6661, -153.731, -89.096, 101.949
6.90432, 68, -5.69645, -5.01642, 28.3508, -153.723, -89.6086, 102.072
6.91125, 68, -5.64702, -4.82314, 28.2475, -153.718, -89.7788, 102.105
6.91942, 68, -5.54931, -4.44053, 28.0432, -153.705, -90.1184, 102.156
6.92747, 69, -5.45329, -4.06206, 27.8415, -153.688, -90.4573, 102.188
6.93525, 69, -5.35899, -3.6867, 27.6436, -153.666, -90.796, 102.203
6.94481, 69, -5.22069, -3.13016, 27.3541, -153.624, -91.303, 102.191
6.95282, 69, -5.13082, -2.76382, 27.1647, -153.591, -91.6405, 102.157
6.95931, 69, -5.08647, -2.58172, 27.0714, -153.574, -91.8088, 102.131
6.97007, 70, -4.95556, -2.04027, 26.798, -153.515, -92.312, 102.022
6.97548, 70, -4.91255, -1.86181, 26.7086, -153.493, -92.4791, 101.975
6.98322, 70, -4.82749, -1.50864, 26.5323, -153.447, -92.8121, 101.863
6.9962, 70, -4.74342, -1.1609, 26.3601, -153.372, -93.308, 101.654
6.99948, 70, -4.66052, -0.818198, 26.1925, -153.345, -93.4721, 101.573
7.00731, 71, -4.57863, -0.481933, 26.0285, -153.289, -93.7982, 101.395
7.01631, 71, -4.49782, -0.152039, 25.8687, -153.232, -94.121, 101.197
7.02626, 71, -4.37871, 0.329791, 25.6391, -153.139, -94.5986, 100.86
7.03124, 71, -4.33939, 0.487421, 25.5652, -153.107, -94.7557, 100.738
7.03933, 71, -4.26131, 0.797818, 25.421, -153.041, -95.0673, 100.477
7.04741, 71, -4.18415, 1.10115, 25.2815, -152.974, -95.375, 100.197
7.05536, 72, -4.1075, 1.39807, 25.1464, -152.905, -95.6791, 99.8976
7.06325, 72, -4.03106, 1.68801, 25.0153, -152.834, -95.9799, 99.5776
7.0722, 72, -3.955, 1.97162, 24.8875, -152.763, -96.2781, 99.237
7.07925, 72, -3.87897, 2.24927, 24.7629, -152.69, -96.5738, 98.8756
7.08728, 72, -3.80299, 2.52047, 24.6413, -152.617, -96.8672, 98.4927
7.09625, 73, -3.72712, 2.78608, 24.5228, -152.543, -97.1582, 98.0877
7.10646, 73, -3.6129, 3.17278, 24.3513, -152.433, -97.59, 97.4379
7.11127, 73, -3.57467, 3.29842, 24.2959, -152.396, -97.7326, 97.2099
7.12261, 73, -3.45943, 3.66609, 24.1354, -152.287, -98.1556, 96.4947
7.12912, 73, -3.42082, 3.78501, 24.084, -152.251, -98.2948, 96.2456
7.13524, 74, -3.34306, 4.01656, 23.9839, -152.18, -98.5702, 95.7335
7.14331, 74, -3.26465, 4.23998, 23.8877, -152.111, -98.8403, 95.204
7.15125, 74, -3.18563, 4.45477, 23.7957, -152.043, -99.1048, 94.6595
7.15933, 74, -3.1059, 4.65985, 23.7079, -151.977, -99.3629, 94.1026
7.16727, 74, -3.0256, 4.85511, 23.6245, -151.914, -99.6137, 93.534
7.17543, 75, -2.94435, 5.04089, 23.5455, -151.853, -99.8562, 92.956
7.1833, 75, -2.8621, 5.21639, 23.4706, -151.796, -100.09, 92.3705
7.19125, 75, -2.77885, 5.38077, 23.3998, -151.74, -100.315, 91.7783
7.19957, 75, -2.6948, 5.53436, 23.3329, -151.688, -100.53, 91.1792
7.20914, 75, -2.60981, 5.67718, 23.2701, -151.64, -100.735, 90.5735
7.21627, 76, -2.52382, 5.80863, 23.2114, -151.594, -100.932, 89.9613
7.22541, 76, -2.43683, 5.9286, 23.1572, -151.553, -101.119, 89.3406
7.23224, 76, -2.34899, 6.03678, 23.1072, -151.516, -101.297, 88.7107
7.2397, 76, -2.26037, 6.13274, 23.0615, -151.482, -101.466, 88.0728
7.2473, 76, -2.17093, 6.21616, 23.0205, -151.452, -101.624, 87.4282
7.25574, 77, -2.08066, 6.28667, 22.9844, -151.426, -101.771, 86.7778
7.26432, 77, -1.98952, 6.34413, 22.9536, -151.405, -101.906, 86.1257
7.27129, 77, -1.89741, 6.3882, 22.9285, -151.387, -102.027, 85.4751
7.28015, 77, -1.80443, 6.41809, 22.909, -151.374, -102.134, 84.8266
7.28741, 77, -1.71057, 6.4339, 22.8954, -151.364, -102.226, 84.1813
7.29581, 78, -1.61591, 6.43529, 22.8877, -151.358, -102.303, 83.5403
7.30459, 78, -1.52052, 6.42149, 22.8853, -151.355, -102.365, 82.9027
7.31226, 78, -1.42457, 6.39242, 22.8886, -151.354, -102.411, 82.268
7.32043, 78, -1.32829, 6.3477, 22.898, -151.357, -102.441, 81.637
7.32807, 78, -1.23176, 6.28686, 22.9135, -151.364, -102.456, 81.0113
7.33838, 79, -1.13497, 6.20988, 22.9358, -151.374, -102.454, 80.3908
7.34468, 79, -1.0381, 6.11681, 22.965, -151.388, -102.435, 79.7779
7.35287, 79, -0.941123, 6.00774, 23.0016, -151.404, -102.398, 79.1746
7.3607, 79, -0.844208, 5.88254, 23.0455, -151.423, -102.343, 78.5822
7.36787, 79, -0.747223, 5.74073, 23.097, -151.444, -102.271, 78.0006
7.37642, 79, -0.650212, 5.58248, 23.1559, -151.468, -102.181, 77.43
7.38323, 80, -0.601675, 5.49716, 23.1882, -151.481, -102.129, 77.149
7.39128, 80, -0.504569, 5.31417, 23.2584, -151.508, -102.012, 76.5956
7.40528, 80, -0.31062, 4.89806, 23.423, -151.566, -101.721, 75.5166
7.40743, 80, -0.31062, 4.89806, 23.423, -151.566, -101.721, 75.5166
7.4164, 80, -0.165534, 4.53911, 23.5683, -151.614, -101.454, 74.7308
7.42326, 81, -0.117207, 4.41082, 23.6211, -151.631, -101.355, 74.4736
7.43139, 81, -0.0207538, 4.14177, 23.7335, -151.665, -101.143, 73.9653
7.44146, 81, 0.0754408, 3.70637, 23.9196, -151.718, -100.789, 73.2196
7.44731, 81, 0.171528, 3.55293, 23.9864, -151.736, -100.661, 72.9755
7.45543, 81, 0.267338, 3.23263, 24.1276, -151.773, -100.392, 72.4948
7.46658, 82, 0.410707, 2.7202, 24.3577, -151.829, -99.9508, 71.7916
7.47333, 82, 0.505881, 2.35792, 24.5227, -151.866, -99.633, 71.3345
7.48001, 82, 0.553391, 2.17109, 24.6087, -151.885, -99.4671, 71.1097
7.48723, 82, 0.648247, 1.78503, 24.7881, -151.923, -99.122, 70.6671
7.49686, 82, 0.74304, 1.38234, 24.977, -151.977, -98.5715, 70.0227
7.50598, 83, 0.88506, 0.748888, 25.2774, -152.013, -98.1838, 69.6057
7.51149, 83, 0.932388, 0.530466, 25.3826, -152.031, -97.9838, 69.4009
7.51921, 83, 1.02705, 0.082756, 25.6008, -152.065, -97.5721, 68.9999
7.52723, 83, 1.1219, -0.379601, 25.8276, -152.098, -97.1452, 68.6089
7.53567, 83, 1.21683, -0.856003, 26.0633, -152.129, -96.7029, 68.2275
7.54636, 84, 1.35951, -1.59727, 26.4355, -152.173, -96.0108, 67.6738
7.55124, 84, 1.40718, -1.85122, 26.5644, -152.188, -95.7727, 67.4933
7.55931, 84, 1.5027, -2.36875, 26.8304, -152.215, -95.2847, 67.1379
7.56724, 84, 1.59855, -2.89983, 27.1066, -152.241, -94.7813, 66.7902
7.57535, 84, 1.69474, -3.44423, 27.3928, -152.265, -94.2626, 66.4492
7.58816, 85, 1.83979, -4.28594, 27.8421, -152.298, -93.4565, 65.9505
7.59141, 85, 1.88824, -4.57283, 27.9968, -152.308, -93.1802, 65.7883
7.59947, 85, 1.9854, -5.15471, 28.314, -152.327, -92.6164, 65.4696
7.60723, 85, 2.08291, -5.74676, 28.6402, -152.344, -92.0409, 65.1587
7.61582, 85, 2.18087, -6.34807, 28.9758, -152.358, -91.4549, 64.856
7.62449, 86, 2.27954, -6.95729, 29.3196, -152.37, -90.8585, 64.5629
7.63223, 86, 2.37885, -7.57392, 29.6714, -152.378, -90.2525, 64.2795
7.64314, 86, 2.52969, -8.51035, 30.2121, -152.385, -89.3267, 63.8739
7.64739, 86, 2.58044, -8.82558, 30.3952, -152.386, -89.0142, 63.7442
7.65622, 86, 2.68242, -9.45999, 30.7659, -152.387, -88.3867, 63.4935
7.66339, 86, 2.78561, -10.0985, 31.1418, -152.385, -87.755, 63.2544
7.67127, 87, 2.88979, -10.7408, 31.5234, -152.378, -87.1175, 63.027
7.67926, 87, 2.99455, -11.3855, 31.9094, -152.368, -86.4747, 62.8117
7.6873, 87, 3.10045, -12.0325, 32.2998, -152.355, -85.8272, 62.6088
7.69537, 87, 3.20702, -12.681, 32.6944, -152.337, -85.1761, 62.4191
7.70326, 87, 3.31427, -13.3315, 33.0939, -152.315, -84.5219, 62.242
7.71132, 88, 3.42226, -13.9841, 33.4981, -152.29, -83.8632, 62.0783
7.71967, 88, 3.53095, -14.6389, 33.9061, -152.261, -83.2008, 61.9282
7.73227, 88, 3.69528, -15.6239, 34.5263, -152.209, -82.1995, 61.7291
7.73537, 88, 3.75037, -15.9528, 34.7353, -152.19, -81.8641, 61.6701
7.74342, 88, 3.86097, -16.6115, 35.1562, -152.147, -81.1914, 61.5636
7.7513, 89, 3.97191, -17.2699, 35.5815, -152.1, -80.5158, 61.473
7.75927, 89, 4.08306, -17.9272, 36.0104, -152.047, -79.8365, 61.3998
7.7764, 89, 4.30518, -19.234, 36.8761, -151.926, -78.4665, 61.3072
7.77826, 89, 4.30518, -19.234, 36.8761, -151.926, -78.4665, 61.3072
7.7851, 89, 4.41606, -19.8817, 37.3108, -151.856, -77.7814, 61.2893
7.79223, 90, 4.52702, -20.5244, 37.7448, -151.783, -77.0987, 61.2913
7.79959, 90, 4.63863, -21.1622, 38.1775, -151.702, -76.4184, 61.3179
7.80746, 90, 4.75063, -21.795, 38.6083, -151.617, -75.7423, 61.3686
7.81565, 90, 4.86288, -22.4227, 39.0363, -151.526, -75.072, 61.4433
7.8275, 90, 4.97523, -23.0453, 39.4619, -151.429, -74.0789, 61.6054
7.83251, 91, 5.08751, -23.6632, 39.8855, -151.326, -73.7494, 61.6726
7.84032, 91, 5.19967, -24.2757, 40.3081, -151.217, -73.091, 61.8284
7.8478, 91, 5.31117, -24.8817, 40.7303, -151.102, -72.4333, 62.0128
7.85709, 91, 5.42171, -25.4812, 41.1519, -150.98, -71.7744, 62.2265
7.86387, 91, 5.53133, -26.0731, 41.5731, -150.851, -71.1151, 62.4701
7.87239, 92, 5.64044, -26.6582, 41.9934, -150.716, -70.4566, 62.7453
7.87975, 92, 5.69501, -26.9481, 42.2031, -150.646, -70.1277, 62.8947
7.8883, 92, 5.85946, -27.806, 42.8267, -150.427, -69.1449, 63.3896
7.89522, 92, 5.91457, -28.0878, 43.0322, -150.352, -68.8188, 63.57
7.905, 92, 6.08106, -28.9189, 43.6408, -150.12, -67.8463, 64.159
7.91233, 92, 6.19358, -29.46, 44.0389, -149.961, -67.2059, 64.5905
7.91925, 93, 6.25041, -29.7265, 44.2354, -149.881, -66.8878, 64.8185
7.93536, 93, 6.48275, -30.767, 45.0056, -149.554, -65.6257, 65.81
7.93757, 93, 6.5422, -31.0216, 45.1946, -149.472, -65.3122, 66.0785
7.94323, 93, 6.60215, -31.2746, 45.3826, -149.39, -64.999, 66.356
7.95128, 93, 6.72374, -31.7763, 45.755, -149.224, -64.3732, 66.939
7.96061, 94, 6.8476, -32.2728, 46.1241, -148.975, -63.4316, 67.8938
7.96722, 94, 6.97383, -32.7645, 46.4905, -148.891, -63.1149, 68.2361
7.97777, 94, 7.16691, -33.4905, 47.037, -148.641, -62.1553, 69.3426
7.98501, 94, 7.29868, -33.965, 47.3985, -148.477, -61.5075, 70.1455
7.99123, 94, 7.36582, -34.1994, 47.5777, -148.396, -61.1814, 70.5668
8.00073, 95, 7.50327, -34.6621, 47.9309, -148.239, -60.5288, 71.4505
8.00892, 95, 7.64576, -35.1144, 48.2757, -148.022, -59.5561, 72.8603
8.01628, 95, 7.79417, -35.5558, 48.6094, -147.955, -59.2347, 73.3509
8.02422, 95, 7.94896, -35.9836, 48.9307, -147.834, -58.5975, 74.3607
8.03395, 95, 8.19409, -36.5909, 49.3841, -147.684, -57.6581, 75.9384
8.04018, 96, 8.27921, -36.7834, 49.5273, -147.643, -57.3509, 76.4806
8.04829, 96, 8.45457, -37.1521, 49.8007, -147.576, -56.7475, 77.5871
8.05629, 96, 8.63575, -37.4976, 50.0573, -147.53, -56.158, 78.722
8.06322, 96, 8.82215, -37.8183, 50.2968, -147.504, -55.5835, 79.8791
8.07122, 96, 9.01321, -38.1133, 50.5168, -147.498, -55.0267, 81.0526
8.07929, 96, 9.20751, -38.3834, 50.7174, -147.513, -54.4903, 82.2367
8.08721, 97, 9.40344, -38.6278, 50.8985, -147.551, -53.9767, 83.431
8.09526, 97, 9.59969, -38.847, 51.0591, -147.61, -53.4879, 84.6293
8.10329, 97, 9.79519, -39.0417, 51.1992, -147.688, -53.0259, 85.8219
8.11121, 97, 9.98922, -39.2115, 51.3199, -147.783, -52.5927, 87.0012
8.11924, 97, 10.1806, -39.3555, 51.4209, -147.894, -52.1895, 88.1595
8.12728, 97, 10.3684, -39.4741, 51.5028, -148.017, -51.817, 89.2916
8.13523, 98, 10.5526, -39.5676, 51.5664, -148.151, -51.4752, 90.3893
8.14328, 98, 10.7345, -39.637, 51.6121, -148.295, -51.1637, 91.4544
8.15121, 98, 10.9145, -39.6836, 51.6404, -148.448, -50.8801, 92.4944
8.15923, 98, 11.0929, -39.7071, 51.6513, -148.613, -50.6208, 93.5238
8.16727, 98, 11.2692, -39.7073, 51.6457, -148.789, -50.3822, 94.5568
8.17524, 98, 11.4443, -39.684, 51.6228, -148.979, -50.1624, 95.604
8.18331, 98, 11.6198, -39.6368, 51.5822, -149.183, -49.9617, 96.6724
8.19121, 99, 11.7949, -39.5663, 51.5237, -149.399, -49.7814, 97.7619
8.19925, 99, 11.9685, -39.4732, 51.4469, -149.628, -49.6242, 98.8683
8.20738, 99, 12.1394, -39.3575, 51.3515, -149.864, -49.4937, 99.9797
8.21531, 99, 12.3066, -39.2194, 51.2381, -150.107, -49.3924, 101.086
8.22331, 99, 12.4685, -39.0591, 51.1073, -150.351, -49.3221, 102.176
8.23131, 99, 12.6229, -38.8765, 50.9605, -150.594, -49.2826, 103.241
8.23956, 100, 12.7689, -38.67, 50.7981, -150.833, -49.2744, 104.275
8.24739, 100, 12.9059, -38.4391, 50.6191, -151.068, -49.2983, 105.281
8.25538, 100, 13.0339, -38.1854, 50.4229, -151.297, -49.3537, 106.258
8.26325, 100, 13.1534, -37.9095, 50.2102, -151.521, -49.4404, 107.212
8.27218, 100, 13.2648, -37.6125, 49.9796, -151.738, -49.5584, 108.141
8.28006, 100, 13.368, -37.2924, 49.7306, -151.949, -49.7074, 109.05
8.28739, 101, 13.4632, -36.9479, 49.4648, -152.152, -49.8869, 109.939
8.29539, 101, 13.5503, -36.5775, 49.1812, -152.347, -50.0966, 110.803
8.30341, 101, 13.6296, -36.1805, 48.8804, -152.533, -50.3366, 111.647
8.31234, 101, 13.7008, -35.7578, 48.5608, -152.709, -50.6074, 112.468
8.3196, 101, 13.7637, -35.3113, 48.2231, -152.876, -50.9103, 113.267
8.33809, 102, 13.8636, -34.3478, 47.4932, -153.176, -51.616, 114.801
8.34019, 102, 13.8828, -34.0921, 47.2994, -153.244, -51.8134, 115.171
8.34387, 102, 13.8997, -33.8301, 47.1015, -153.308, -52.0191, 115.535
8.35262, 102, 13.9265, -33.2884, 46.6933, -153.427, -52.4553, 116.243
8.36058, 102, 13.9446, -32.7244, 46.2705, -153.532, -52.9239, 116.924
8.36787, 102, 13.9543, -32.1385, 45.8337, -153.623, -53.4219, 117.58
8.37643, 103, 13.9562, -31.5313, 45.3833, -153.699, -53.9465, 118.208
8.3832, 103, 13.9544, -31.2205, 45.1535, -153.732, -54.2181, 118.512
8.39125, 103, 13.9458, -30.5858, 44.6856, -153.789, -54.7781, 119.097
8.4003, 103, 13.9211, -29.6052, 43.9658, -153.847, -55.6543, 119.926
8.40721, 103, 13.9099, -29.2713, 43.7221, -153.861, -55.955, 120.189
8.41525, 103, 13.8837, -28.5942, 43.2296, -153.879, -56.5683, 120.694
8.42445, 104, 13.8358, -27.5588, 42.4813, -153.886, -57.5127, 121.402
8.43123, 104, 13.8177, -27.2092, 42.2301, -153.884, -57.8337, 121.626
8.43926, 104, 13.7788, -26.5047, 41.7252, -153.87, -58.4866, 122.059
8.44864, 104, 13.7144, -25.4367, 40.9634, -153.834, -59.4902, 122.67
8.45522, 104, 13.6919, -25.079, 40.7088, -153.818, -59.8303, 122.866
8.46473, 104, 13.6218, -24.0018, 39.9442, -153.758, -60.8616, 123.431
8.4728, 104, 13.5728, -23.2807, 39.4348, -153.711, -61.5566, 123.795
8.4808, 104, 13.5226, -22.5586, 38.9264, -153.659, -62.2564, 124.153
8.48881, 104, 13.4716, -21.8356, 38.4193, -153.6, -62.9588, 124.506
8.49682, 104, 13.42, -21.1122, 37.9135, -153.538, -63.6628, 124.857
8.50484, 104, 13.3939, -20.7507, 37.661, -153.506, -64.3671, 125.206
8.5122, 104, 13.3417, -20.0276, 37.1572, -153.437, -64.7194, 125.38
8.52025, 104, 13.2893, -19.3043, 36.6555, -153.364, -65.4255, 125.727
8.52822, 104, 13.2368, -18.5808, 36.1557, -153.288, -66.1329, 126.073
8.53527, 104, 13.1844, -17.8573, 35.6582, -153.207, -66.841, 126.418
8.54318, 104, 13.1324, -17.133, 35.1632, -153.123, -67.5497, 126.762
8.55121, 104, 13.0806, -16.4086, 34.67, -153.034, -68.2574, 127.107
8.55928, 104, 13.0292, -15.6845, 34.179, -152.942, -68.9665, 127.45
8.56721, 104, 12.9781, -14.9597, 33.6901, -152.846, -69.6778, 127.794
8.5752, 104, 12.9271, -14.2343, 33.2034, -152.746, -70.3893, 128.137
8.5832, 104, 12.8766, -13.5091, 32.7196, -152.642, -71.0998, 128.481
8.59129, 104, 12.8265, -12.7836, 32.2386, -152.534, -71.8102, 128.825
8.59931, 104, 12.7766, -12.0579, 31.76, -152.423, -72.5233, 129.169
8.6072, 104, 12.7271, -11.3328, 31.2838, -152.307, -73.2363, 129.514
8.6152, 104, 12.6781, -10.6076, 30.8104, -152.188, -73.9492, 129.86
8.62329, 104, 12.6292, -9.88239, 30.3401, -152.064, -74.6624, 130.206
8.6312, 104, 12.5808, -9.15698, 29.8726, -151.937, -75.3758, 130.553
8.63921, 104, 12.533, -8.43097, 29.4081, -151.805, -76.0904, 130.901
8.64727, 104, 12.4856, -7.70478, 28.947, -151.67, -76.8053, 131.249
8.6552, 104, 12.4387, -6.9793, 28.4891, -151.53, -77.5213, 131.6
8.66319, 104, 12.3925, -6.25425, 28.0343, -151.386, -78.2366, 131.951
8.67139, 104, 12.3468, -5.52964, 27.5833, -151.239, -78.9505, 132.303
8.67923, 104, 12.3016, -4.80577, 27.136, -151.086, -79.6659, 132.657
8.68723, 104, 12.2574, -4.08325, 26.6929, -150.93, -80.3819, 133.012
8.69527, 104, 12.2142, -3.36359, 26.2549, -150.77, -81.0967, 133.368
8.70323, 104, 12.1721, -2.64899, 25.8219, -150.606, -81.8075, 133.725
8.71133, 104, 12.1314, -1.94063, 25.3948, -150.438, -82.5146, 134.082
8.71935, 104, 12.0917, -1.23978, 24.9756, -150.267, -83.2177, 134.437
8.72729, 104, 12.053, -0.547618, 24.5647, -150.094, -83.913, 134.79
8.73536, 104, 12.0155, 0.134278, 24.1639, -149.919, -84.5976, 135.141
8.7433, 104, 11.9788, 0.805164, 23.7743, -149.744, -85.2689, 135.487
8.7513, 104, 11.9432, 1.46338, 23.3972, -149.568, -85.9256, 135.827
8.75945, 104, 11.9089, 2.10814, 23.0327, -149.391, -86.5685, 136.162
8.76725, 104, 11.8757, 2.7374, 22.6806, -149.216, -87.1953, 136.491
8.77523, 104, 11.8434, 3.35064, 22.3412, -149.041, -87.8061, 136.812
8.78331, 104, 11.8128, 3.9473, 22.0151, -148.867, -88.4004, 137.127
8.79204, 104, 11.7832, 4.52697, 21.7016, -148.695, -88.9767, 137.436
8.8002, 104, 11.755, 5.09019, 21.4003, -148.524, -89.5361, 137.737
8.80833, 104, 11.7281, 5.63617, 21.1102, -148.355, -90.0803, 138.031
8.81547, 104, 11.7022, 6.16482, 20.8325, -148.188, -90.6081, 138.319
8.82427, 104, 11.6776, 6.67703, 20.5663, -148.023, -91.1195, 138.599
8.83159, 104, 11.6541, 7.17214, 20.3118, -147.861, -91.6142, 138.871
8.83979, 104, 11.6317, 7.65037, 20.0688, -147.701, -92.0914, 139.136
8.84836, 104, 11.6105, 8.11241, 19.8363, -147.544, -92.5522, 139.394
8.85591, 104, 11.5904, 8.55753, 19.615, -147.391, -92.9962, 139.643
8.86433, 104, 11.5715, 8.98493, 19.4046, -147.241, -93.4238, 139.885
8.87179, 104, 11.5625, 9.3953, 19.2041, -147.095, -93.8345, 140.118
8.88062, 104, 11.537, 9.78813, 19.0142, -146.953, -94.228, 140.343
8.88779, 104, 11.5291, 9.97778, 18.9234, -146.884, -94.4182, 140.559
8.89719, 104, 11.5068, 10.5183, 18.6667, -146.683, -94.9612, 140.765
8.90319, 104, 11.4999, 10.6888, 18.5861, -146.619, -95.1329, 140.865
8.91124, 104, 11.4868, 11.0158, 18.4332, -146.495, -95.4618, 141.056
8.92038, 104, 11.4692, 11.468, 18.2242, -146.321, -95.917, 141.322
8.92719, 104, 11.4639, 11.6085, 18.1598, -146.266, -96.0585, 141.405
8.93647, 104, 11.4494, 11.9981, 17.9824, -146.113, -96.4507, 141.636
8.94318, 104, 11.445, 12.1174, 17.9287, -146.066, -96.5706, 141.707
8.95298, 104, 11.4327, 12.4436, 17.783, -145.937, -96.8973, 141.901
8.9607, 104, 11.4255, 12.6348, 17.6989, -145.86, -97.0876, 142.014
8.96719, 104, 11.4222, 12.7224, 17.6607, -145.825, -97.1745, 142.066
8.97713, 104, 11.4133, 12.9541, 17.5611, -145.734, -97.4022, 142.202
8.98325, 104, 11.4106, 13.0214, 17.5327, -145.708, -97.467, 142.241
8.99283, 104, 11.4033, 13.195, 17.4616, -145.642, -97.6305, 142.338
8.99927, 104, 11.4011, 13.2437, 17.4422, -145.624, -97.6748, 142.365
9.00727, 104, 11.397, 13.3282, 17.4093, -145.593, -97.75, 142.41
9.01682, 104, 11.3931, 13.3974, 17.384, -145.569, -97.8303, 142.459
9.02516, 104, 11.3882, 13.4765, 17.358, -145.544, -97.8664, 142.481
9.03125, 104, 11.3867, 13.497, 17.3519, -145.538, -97.8802, 142.489
9.03926, 104, 11.3843, 13.53, 17.3429, -145.53, -97.9009, 142.501
9.04819, 104, 11.3824, 13.5546, 17.3372, -145.524, -97.9143, 142.508
9.05525, 104, 11.3809, 13.5726, 17.3337, -145.521, -97.9221, 142.512
9.06324, 104, 11.3797, 13.5848, 17.3318, -145.519, -97.9262, 142.515
9.07119, 104, 11.3788, 13.5932, 17.3308, -145.519, -97.9282, 142.516
9.07932, 105, 11.3782, 13.5989, 17.3303, -145.518, -97.9291, 142.516
9.08718, 105, 11.3777, 13.6025, 17.33, -145.518, -97.9295, 142.516
9.09519, 105, 11.3774, 13.6051, 17.3299, -145.518, -97.9297, 142.516
9.10328, 105, 11.3771, 13.6071, 17.3298, -145.518, -97.9298, 142.517
9.11126, 105, 11.3769, 13.6089, 17.3298, -145.518, -97.9298, 142.517
9.11926, 105, 11.3768, 13.6105, 17.3298, -145.518, -97.9298, 142.517
9.12727, 105, 11.3766, 13.6119, 17.3298, -145.518, -97.9297, 142.517
9.13518, 105, 11.3765, 13.613, 17.3298, -145.518, -97.9297, 142.517
9.14318, 105, 11.3764, 13.614, 17.3299, -145.518, -97.9296, 142.517
9.15125, 105, 11.3764, 13.6149, 17.3299, -145.518, -97.9296, 142.517
9.15926, 105, 11.3764, 13.6155, 17.3299, -145.518, -97.9295, 142.517
9.16718, 105, 11.3764, 13.616, 17.3299, -145.518, -97.9293, 142.517
9.17524, 105, 11.3764, 13.6163, 17.3299, -145.518, -97.9292, 142.517
9.1832, 105, 11.3764, 13.6164, 17.33, -145.518, -97.9291, 142.517
9.19121, 105, 11.3764, 13.6165, 17.33, -145.518, -97.929, 142.517
