hehonglu123/Motion-Primitive-Planning/ILC/recorded_data/realrobot/from_NX/iteration_8/run_3.csv
timestamp, cmd_num, J1, J2, J3, J4, J5, J6
0.000399, -1, 39.6303, 32.4471, 11.8319, 12.5453, 113.713, -48.8723
0.003017, -1, 39.6303, 32.4471, 11.8319, 12.5453, 113.713, -48.8724
0.028036, -1, 39.6303, 32.4471, 11.8319, 12.5453, 113.713, -48.8725
0.030153, -1, 39.6303, 32.4471, 11.8319, 12.5453, 113.713, -48.8725
0.031368, -1, 39.6303, 32.4471, 11.8319, 12.5453, 113.713, -48.8725
0.032587, -1, 39.6303, 32.4471, 11.8319, 12.5453, 113.713, -48.8725
0.039464, -1, 39.6303, 32.4471, 11.8319, 12.5453, 113.713, -48.8724
0.047406, -1, 39.6302, 32.447, 11.8319, 12.5453, 113.713, -48.8724
0.055393, -1, 39.6289, 32.4468, 11.8319, 12.5453, 113.713, -48.8724
0.063504, -1, 39.6252, 32.446, 11.8318, 12.5453, 113.713, -48.8724
0.07139, -1, 39.6182, 32.444, 11.8318, 12.5453, 113.712, -48.8729
0.079399, -1, 39.6074, 32.44, 11.8317, 12.5453, 113.711, -48.8757
0.087467, -1, 39.5913, 32.4331, 11.8317, 12.5453, 113.709, -48.8836
0.095409, -1, 39.5674, 32.4226, 11.8319, 12.5453, 113.704, -48.8991
0.10342, -1, 39.534, 32.4077, 11.833, 12.5453, 113.695, -48.9258
0.111467, -1, 39.4903, 32.3872, 11.8363, 12.5452, 113.679, -48.9672
0.119434, -1, 39.4348, 32.3602, 11.8428, 12.5453, 113.656, -49.0278
0.127409, -1, 39.3661, 32.3262, 11.8532, 12.5453, 113.624, -49.1107
0.135471, -1, 39.2839, 32.2845, 11.8685, 12.5454, 113.582, -49.2175
0.143397, -1, 39.1879, 32.2349, 11.8887, 12.5459, 113.531, -49.3503
0.151386, -1, 39.0778, 32.1775, 11.9133, 12.5465, 113.468, -49.508
0.159507, -1, 38.9537, 32.1123, 11.942, 12.5478, 113.397, -49.6896
0.167388, -1, 38.8169, 32.0401, 11.9744, 12.5495, 113.316, -49.8919
0.175386, -1, 38.6681, 31.9618, 12.0097, 12.5515, 113.229, -50.1122
0.183641, -1, 38.5085, 31.8779, 12.0468, 12.5537, 113.136, -50.3463
0.191451, -1, 38.3399, 31.7895, 12.0851, 12.556, 113.04, -50.5907
0.199546, -1, 38.1645, 31.6978, 12.1241, 12.5584, 112.941, -50.8418
0.207839, -1, 37.9833, 31.6034, 12.1631, 12.5609, 112.84, -51.0969
0.215487, -1, 37.7976, 31.5072, 12.202, 12.5633, 112.738, -51.3545
0.223554, -1, 37.6087, 31.4098, 12.2407, 12.5657, 112.636, -51.6134
0.231902, -1, 37.4175, 31.312, 12.2795, 12.5681, 112.533, -51.873
0.240389, -1, 37.2256, 31.214, 12.3183, 12.5706, 112.43, -52.1326
0.247468, -1, 37.0334, 31.1162, 12.3571, 12.5731, 112.328, -52.3923
0.256196, -1, 36.8413, 31.0185, 12.3958, 12.5757, 112.225, -52.6526
0.263788, -1, 36.6495, 30.9207, 12.4347, 12.5782, 112.122, -52.9131
0.271597, -1, 36.4579, 30.823, 12.4736, 12.5808, 112.019, -53.1732
0.280334, -1, 36.2663, 30.7253, 12.5124, 12.5834, 111.916, -53.4337
0.287676, -1, 36.0747, 30.6274, 12.5513, 12.5859, 111.813, -53.6941
0.295774, -1, 35.8832, 30.5295, 12.5902, 12.5886, 111.71, -53.9548
0.304547, -1, 35.6916, 30.4315, 12.6291, 12.5912, 111.607, -54.2152
0.311942, -1, 35.4996, 30.3334, 12.668, 12.5937, 111.504, -54.4754
0.320805, -1, 35.3075, 30.2351, 12.7067, 12.5964, 111.401, -54.7358
0.327986, -1, 35.115, 30.1368, 12.7456, 12.5989, 111.298, -54.9966
0.33648, -1, 34.9226, 30.0384, 12.7846, 12.6015, 111.195, -55.2575
0.344802, -1, 34.7304, 29.9399, 12.8234, 12.6041, 111.092, -55.5179
0.351973, -1, 34.6343, 29.8414, 12.8622, 12.6066, 110.989, -55.7788
0.360592, -1, 34.3459, 29.7429, 12.9012, 12.6092, 110.886, -56.0396
0.367383, -1, 34.2499, 29.6937, 12.9207, 12.6105, 110.834, -56.1702
0.499792, -1, 31.0665, 28.0675, 13.5629, 12.6549, 109.134, -60.4788
0.501926, -1, 30.9703, 28.0182, 13.5825, 12.6563, 109.082, -60.6096
0.503179, -1, 30.9703, 28.0182, 13.5825, 12.6563, 109.082, -60.6096
0.504423, -1, 30.9703, 28.0182, 13.5825, 12.6563, 109.082, -60.6096
0.506556, -1, 30.8742, 27.9689, 13.6019, 12.6577, 109.03, -60.7402
0.507836, -1, 30.8742, 27.9689, 13.6019, 12.6577, 109.03, -60.7402
0.510609, -1, 30.7782, 27.9196, 13.6214, 12.6591, 108.979, -60.8708
0.514346, -1, 30.6822, 27.8704, 13.6409, 12.6605, 108.927, -61.0014
0.515619, -1, 30.6822, 27.8704, 13.6409, 12.6605, 108.927, -61.0014
0.517555, -1, 30.5863, 27.8211, 13.6604, 12.662, 108.876, -61.132
0.518967, -1, 30.5863, 27.8211, 13.6604, 12.662, 108.876, -61.132
0.520258, -1, 30.5863, 27.8211, 13.6604, 12.662, 108.876, -61.132
0.522388, -1, 30.4903, 27.7718, 13.68, 12.6634, 108.824, -61.2627
0.52363, -1, 30.4903, 27.7718, 13.68, 12.6634, 108.824, -61.2627
0.525522, -1, 30.3944, 27.7224, 13.6994, 12.6647, 108.772, -61.3935
0.527137, -1, 30.3944, 27.7224, 13.6994, 12.6647, 108.772, -61.3935
0.528394, -1, 30.3944, 27.7224, 13.6994, 12.6647, 108.772, -61.3935
0.530393, -1, 30.2983, 27.673, 13.7189, 12.6661, 108.721, -61.5242
0.531695, -1, 30.2983, 27.673, 13.7189, 12.6661, 108.721, -61.5242
0.534482, -1, 30.2022, 27.6236, 13.7384, 12.6675, 108.669, -61.655
0.535812, -1, 30.2022, 27.6236, 13.7384, 12.6675, 108.669, -61.655
0.54568, -1, 29.9135, 27.4755, 13.7969, 12.6717, 108.514, -62.0474
0.551392, -1, 29.8171, 27.4262, 13.8163, 12.673, 108.463, -62.1782
0.559446, -1, 29.6237, 27.3274, 13.8552, 12.6756, 108.36, -62.44
0.567382, -1, 29.4299, 27.2286, 13.8942, 12.6783, 108.256, -62.7018
0.575367, -1, 29.2358, 27.1298, 13.9331, 12.6808, 108.153, -62.9637
0.583782, -1, 29.0414, 27.0309, 13.9721, 12.6834, 108.05, -63.225
0.591374, -1, 28.8471, 26.932, 14.0111, 12.6859, 107.946, -63.4864
0.599408, -1, 28.6529, 26.8331, 14.05, 12.6883, 107.843, -63.748
0.608828, -1, 28.4588, 26.7343, 14.0891, 12.6909, 107.739, -64.0099
0.615369, -1, 28.2652, 26.6355, 14.1281, 12.6933, 107.636, -64.2715
0.623505, -1, 28.072, 26.5367, 14.1671, 12.6958, 107.533, -64.533
0.631395, -1, 27.8792, 26.4379, 14.2061, 12.6982, 107.43, -64.7948
0.639373, -1, 27.6866, 26.3391, 14.2451, 12.7007, 107.326, -65.0568
0.647486, -1, 27.4943, 26.2402, 14.284, 12.7032, 107.223, -65.3183
0.788866, -1, 24.1133, 24.5105, 14.966, 12.7437, 105.416, -69.8981
0.790182, -1, 24.1133, 24.5105, 14.966, 12.7437, 105.416, -69.8981
0.793034, -1, 24.017, 24.4611, 14.9855, 12.7448, 105.364, -70.0288
0.794267, -1, 24.017, 24.4611, 14.9855, 12.7448, 105.364, -70.0288
0.796476, -1, 23.9206, 24.4117, 15.005, 12.746, 105.313, -70.1596
0.797719, -1, 23.9206, 24.4117, 15.005, 12.746, 105.313, -70.1596
0.799613, -1, 23.8242, 24.3622, 15.0244, 12.7472, 105.261, -70.2905
0.806342, -1, 23.7277, 24.3128, 15.0439, 12.7485, 105.209, -70.4213
0.808433, -1, 23.6312, 24.2634, 15.0633, 12.7497, 105.157, -70.5523
0.809664, -1, 23.6312, 24.2634, 15.0633, 12.7497, 105.157, -70.5523
0.811511, -1, 23.6312, 24.2634, 15.0633, 12.7497, 105.157, -70.6833
0.812921, -1, 23.5345, 24.2139, 15.0828, 12.7509, 105.106, -70.6833
0.814285, -1, 23.5345, 24.2139, 15.0828, 12.7509, 105.106, -70.6833
0.816996, -1, 23.4379, 24.1645, 15.1023, 12.752, 105.054, -70.8141
0.818242, -1, 23.4379, 24.1645, 15.1023, 12.752, 105.054, -70.8141
0.820769, -1, 23.3411, 24.1151, 15.1218, 12.7532, 105.002, -70.9448
0.821962, -1, 23.3411, 24.1151, 15.1218, 12.7532, 105.002, -70.9448
0.823932, -1, 23.2441, 24.0656, 15.1412, 12.7544, 104.951, -71.0757
0.826167, -1, 23.2441, 24.0656, 15.1412, 12.7544, 104.951, -71.0757
0.827993, -1, 23.1472, 24.0161, 15.1606, 12.7557, 104.899, -71.2067
0.829425, -1, 23.1472, 24.0161, 15.1606, 12.7557, 104.899, -71.2067
0.830636, -1, 23.1472, 24.0161, 15.1606, 12.7557, 104.899, -71.2067
0.834405, -1, 23.0502, 23.9667, 15.1801, 12.7569, 104.847, -71.3376
0.840872, -1, 22.8561, 23.8678, 15.219, 12.7593, 104.744, -71.5995
0.84795, -1, 22.6621, 23.7691, 15.258, 12.7618, 104.641, -71.8613
0.856073, -1, 22.4683, 23.6704, 15.297, 12.7642, 104.537, -72.1227
0.864819, -1, 22.3715, 23.6211, 15.3165, 12.7655, 104.485, -72.3841
0.871369, -1, 22.1782, 23.5224, 15.3554, 12.7681, 104.382, -72.5148
0.880471, -1, 21.8885, 23.3743, 15.4138, 12.7719, 104.227, -72.9073
0.887368, -1, 21.7922, 23.325, 15.4333, 12.7732, 104.176, -73.038
0.895362, -1, 21.6, 23.2262, 15.4722, 12.7759, 104.072, -73.2992
0.903413, -1, 21.4079, 23.1274, 15.5111, 12.7786, 103.969, -73.5607
0.911358, -1, 21.2156, 23.0287, 15.5501, 12.7812, 103.866, -73.8223
0.919358, -1, 21.0233, 22.9301, 15.5891, 12.7839, 103.763, -74.0838
0.92742, -1, 20.8309, 22.8314, 15.628, 12.7866, 103.66, -74.345
0.935383, -1, 20.6384, 22.7328, 15.6669, 12.7893, 103.557, -74.606
0.943436, -1, 20.4455, 22.6341, 15.7057, 12.792, 103.454, -74.8674
0.953011, -1, 20.1552, 22.4861, 15.7642, 12.7961, 103.299, -75.2593
0.959359, -1, 20.0583, 22.4367, 15.7836, 12.7975, 103.248, -75.3898
0.968915, -1, 19.7678, 22.2887, 15.8417, 12.8016, 103.093, -75.7816
0.975361, -1, 19.671, 22.2394, 15.8612, 12.803, 103.042, -75.9122
0.984978, -1, 19.4774, 22.1408, 15.9002, 12.8071, 102.887, -76.3041
0.991535, -1, 19.2841, 22.0422, 15.939, 12.8084, 102.836, -76.4345
1.00041, -1, 19.0912, 21.9435, 15.9779, 12.8112, 102.733, -76.6954
1.00737, -1, 18.8986, 21.8449, 16.0168, 12.8139, 102.629, -76.9562
1.01542, -1, 18.7063, 21.7462, 16.0555, 12.8166, 102.527, -77.2173
1.02342, -1, 18.5144, 21.6475, 16.0944, 12.8193, 102.424, -77.4781
1.03135, -1, 18.3226, 21.549, 16.1333, 12.822, 102.321, -77.7387
1.03942, -1, 18.1307, 21.4504, 16.1721, 12.8246, 102.218, -77.9994
1.04739, -1, 17.9388, 21.352, 16.211, 12.8271, 102.115, -78.2603
1.05543, -1, 17.747, 21.2536, 16.2499, 12.8297, 102.012, -78.521
1.06336, -1, 17.5547, 21.1553, 16.2887, 12.8322, 101.909, -78.7815
1.07136, -1, 17.3621, 21.0569, 16.3276, 12.8346, 101.806, -79.0418
1.07943, -1, 17.1691, 20.9586, 16.3664, 12.8371, 101.703, -79.3025
1.08736, -1, 16.976, 20.8604, 16.4052, 12.8395, 101.601, -79.5633
1.09536, -1, 16.783, 20.7621, 16.444, 12.8419, 101.498, -79.8236
1.10344, -1, 16.5899, 20.664, 16.4828, 12.8441, 101.395, -80.084
1.11138, -1, 16.3969, 20.5658, 16.5215, 12.8465, 101.293, -80.3446
1.11936, -1, 16.2043, 20.4675, 16.5602, 12.8488, 101.19, -80.6053
1.12747, -1, 16.0123, 20.3691, 16.5989, 12.8511, 101.087, -80.8657
1.13538, -1, 15.8205, 20.2706, 16.6377, 12.8534, 100.984, -81.1258
1.14337, -1, 15.629, 20.1721, 16.6763, 12.8557, 100.882, -81.3859
1.15142, -1, 15.4378, 20.0737, 16.7149, 12.8581, 100.779, -81.646
1.15935, -1, 15.2466, 19.9755, 16.7536, 12.8604, 100.677, -81.9061
1.16745, -1, 15.0554, 19.8772, 16.7924, 12.8626, 100.574, -82.1659
1.17536, -1, 14.8642, 19.779, 16.831, 12.8649, 100.472, -82.4258
1.18342, -1, 14.6727, 19.6809, 16.8697, 12.8672, 100.369, -82.6858
1.19168, -1, 14.4811, 19.5827, 16.9084, 12.8695, 100.266, -82.9458
1.19943, -1, 14.2891, 19.4846, 16.9471, 12.8718, 100.164, -83.2053
1.20746, -1, 14.0967, 19.3866, 16.9858, 12.874, 100.061, -83.4647
1.21581, -1, 13.9043, 19.2887, 17.0244, 12.8763, 99.9585, -83.7243
1.22346, -1, 13.7119, 19.1909, 17.063, 12.8786, 99.8562, -83.9842
1.23145, -1, 13.5194, 19.0931, 17.1018, 12.8809, 99.7536, -84.2435
1.24, -1, 13.3273, 18.9952, 17.1403, 12.8832, 99.6512, -84.5027
1.24842, -1, 13.1356, 18.8974, 17.1788, 12.8856, 99.549, -84.762
1.25538, -1, 12.9441, 18.7994, 17.2175, 12.888, 99.4465, -85.0213
1.264, -1, 12.7531, 18.7014, 17.2561, 12.8903, 99.3441, -85.2806
1.27245, -1, 12.5622, 18.6036, 17.2946, 12.8928, 99.242, -85.5394
1.27964, -1, 12.3718, 18.5058, 17.3332, 12.8952, 99.1396, -85.7982
1.2884, -1, 12.1817, 18.408, 17.3717, 12.8976, 99.0375, -86.0572
1.29561, -1, 11.9915, 18.3103, 17.4102, 12.9, 98.9354, -86.3162
1.30375, -1, 11.8011, 18.2127, 17.4489, 12.9024, 98.8334, -86.5748
1.31175, -1, 11.6105, 18.115, 17.4874, 12.9049, 98.7316, -86.8334
1.31978, -1, 11.4195, 18.0174, 17.5259, 12.9073, 98.6297, -87.0921
1.32831, -1, 11.2283, 17.9198, 17.5645, 12.9097, 98.5277, -87.3508
1.33593, -1, 11.0369, 17.8223, 17.603, 12.9122, 98.4259, -87.609
1.34389, -1, 10.8453, 17.7249, 17.6414, 12.9147, 98.3239, -87.8672
1.35247, -1, 10.6536, 17.6274, 17.6799, 12.9171, 98.2219, -88.1255
1.35997, -1, 10.5578, 17.5299, 17.7183, 12.9198, 98.1202, -88.3839
1.36789, -1, 10.3665, 17.4811, 17.7375, 12.921, 98.0692, -88.6421
1.37644, -1, 10.0801, 17.3348, 17.7952, 12.9249, 97.9164, -88.9001
1.38335, -1, 9.98491, 17.286, 17.8143, 12.9262, 97.8656, -89.0291
1.39135, -1, 9.7946, 17.1885, 17.8526, 12.9288, 97.7636, -89.2872
1.40049, -1, 9.50997, 17.0423, 17.9101, 12.9329, 97.6106, -89.6743
1.40736, -1, 9.41532, 16.9936, 17.9293, 12.9343, 97.5598, -89.8031
1.41534, -1, 9.22607, 16.8962, 17.9676, 12.9369, 97.4578, -90.0607
1.42498, -1, 8.94205, 16.7503, 18.0252, 12.9409, 97.3051, -90.447
1.43274, -1, 8.75253, 16.6532, 18.0635, 12.9436, 97.2035, -90.7045
1.43939, -1, 8.65775, 16.6046, 18.0827, 12.9448, 97.1525, -90.8333
1.44893, -1, 8.37317, 16.459, 18.1403, 12.9489, 97.0004, -91.2189
1.45692, -1, 8.18286, 16.362, 18.1785, 12.9515, 96.8988, -91.4762
1.4634, -1, 8.08758, 16.3136, 18.1977, 12.9529, 96.8479, -91.6048
1.47313, -1, 7.80185, 16.1683, 18.2552, 12.9569, 96.6958, -91.9903
1.47936, -1, 7.70655, 16.1198, 18.2743, 12.9582, 96.6451, -92.1187
1.48741, -1, 7.51596, 16.0229, 18.3126, 12.9607, 96.5435, -92.3753
1.49706, -1, 7.3257, 15.926, 18.3509, 12.9633, 96.4422, -92.7605
1.50336, -1, 7.13569, 15.829, 18.389, 12.9659, 96.341, -92.889
1.5114, -1, 6.94603, 15.732, 18.4273, 12.9685, 96.2396, -93.1454
1.51935, -1, 6.75685, 15.6351, 18.4655, 12.9709, 96.1386, -93.4017
1.5274, -1, 6.56817, 15.5383, 18.5035, 12.9735, 96.0378, -93.6581
1.53538, -1, 6.37987, 15.4415, 18.5417, 12.976, 95.9366, -93.9145
1.54334, -1, 6.19178, 15.3448, 18.5799, 12.9785, 95.8358, -94.1708
1.55141, -1, 6.00366, 15.248, 18.618, 12.981, 95.7348, -94.4267
1.55933, -1, 5.81531, 15.1513, 18.6562, 12.9832, 95.6339, -94.6825
1.56736, -1, 5.62689, 15.0546, 18.6943, 12.9855, 95.533, -94.9386
1.57542, -1, 5.43825, 14.9581, 18.7323, 12.9879, 95.4323, -95.1945
1.58334, -1, 5.24931, 14.8616, 18.7705, 12.9902, 95.3315, -95.4499
1.59134, -1, 5.05995, 14.7652, 18.8085, 12.9924, 95.2309, -95.7055
1.59942, -1, 4.87056, 14.6689, 18.8465, 12.9947, 95.1302, -95.9609
1.60735, -1, 4.68113, 14.5726, 18.8846, 12.9968, 95.0293, -96.2165
1.61537, -1, 4.49175, 14.4762, 18.9227, 12.999, 94.9288, -96.4714
1.62372, -1, 4.30261, 14.3798, 18.9607, 13.0013, 94.8279, -96.7263
1.63133, -1, 4.11376, 14.2834, 18.9987, 13.0034, 94.7269, -96.9814
1.63937, -1, 3.92542, 14.1871, 19.0366, 13.0058, 94.6263, -97.2364
1.64814, -1, 3.7377, 14.0909, 19.0745, 13.008, 94.5254, -97.4913
1.65533, -1, 3.55034, 13.9947, 19.1125, 13.0103, 94.4247, -97.7459
1.66334, -1, 3.36335, 13.8986, 19.1503, 13.0127, 94.3243, -98.0005
1.67217, -1, 3.17642, 13.8026, 19.1881, 13.0149, 94.2235, -98.2552
1.67935, -1, 2.98944, 13.7065, 19.226, 13.0171, 94.1227, -98.5099
1.68735, -1, 2.80243, 13.6104, 19.264, 13.0194, 94.0222, -98.7641
1.69623, -1, 2.61524, 13.5144, 19.3018, 13.0216, 93.9216, -99.0181
1.70349, -1, 2.42788, 13.4184, 19.3397, 13.0239, 93.8212, -99.2722
1.71143, -1, 2.24024, 13.3227, 19.3774, 13.0262, 93.721, -99.5264
1.72025, -1, 2.05221, 13.2269, 19.4153, 13.0284, 93.6207, -99.7803
1.72745, -1, 1.86411, 13.1311, 19.4531, 13.0307, 93.5206, -100.034
1.73545, -1, 1.67585, 13.0353, 19.4908, 13.033, 93.4207, -100.287
1.74432, -1, 1.48763, 12.9395, 19.5286, 13.0352, 93.3205, -100.541
1.75134, -1, 1.29965, 12.8436, 19.5664, 13.0376, 93.2206, -100.794
1.75937, -1, 1.11198, 12.7478, 19.6041, 13.0399, 93.1205, -101.047
1.76828, -1, 0.924914, 12.6522, 19.6418, 13.0423, 93.0205, -101.3
1.7754, -1, 0.738412, 12.5567, 19.6796, 13.0447, 92.9208, -101.554
1.7838, -1, 0.552301, 12.461, 19.7171, 13.0471, 92.821, -101.807
1.79156, -1, 0.366513, 12.3657, 19.7548, 13.0496, 92.7211, -102.059
1.79963, -1, 0.180971, 12.2703, 19.7925, 13.052, 92.6218, -102.312
1.80781, -1, -0.0043665, 12.1749, 19.83, 13.0544, 92.5222, -102.565
1.81667, -1, -0.189875, 12.0797, 19.8677, 13.0569, 92.4226, -102.817
1.82379, -1, -0.375665, 11.9845, 19.9054, 13.0594, 92.3233, -103.07
1.83242, -1, -0.561785, 11.8893, 19.9429, 13.0619, 92.2238, -103.322
1.83988, -1, -0.7481, 11.7944, 19.9805, 13.0644, 92.1243, -103.574
1.84791, -1, -0.934613, 11.6993, 20.018, 13.0669, 92.025, -103.826
1.85645, -1, -1.12137, 11.6043, 20.0554, 13.0694, 91.9256, -104.078
1.86398, -1, -1.21485, 11.5093, 20.0929, 13.0719, 91.8262, -104.329
1.87234, -1, -1.49524, 11.4141, 20.1305, 13.0745, 91.7272, -104.581
1.87939, -1, -1.58856, 11.3666, 20.1491, 13.0758, 91.6776, -104.707
1.88732, -1, -1.77494, 11.2715, 20.1865, 13.0783, 91.5783, -104.958
1.89533, -1, -1.96101, 11.1765, 20.224, 13.081, 91.4791, -105.21
1.90456, -1, -2.23886, 11.0341, 20.2801, 13.0849, 91.3304, -105.586
1.91133, -1, -2.33125, 10.9866, 20.2987, 13.0863, 91.2808, -105.712
1.91938, -1, -2.5159, 10.8918, 20.3362, 13.0889, 91.1817, -105.963
1.92733, -1, -2.70006, 10.7971, 20.3734, 13.0916, 91.0826, -106.214
1.93533, -1, -2.8839, 10.7023, 20.4107, 13.0943, 90.9835, -106.464
1.94477, -1, -3.15999, 10.5603, 20.4668, 13.0982, 90.8353, -106.84
1.95295, -1, -3.3443, 10.4657, 20.504, 13.1008, 90.7363, -107.091
1.96087, -1, -3.52889, 10.3713, 20.5413, 13.1033, 90.6373, -107.342
1.96738, -1, -3.62127, 10.3241, 20.5599, 13.1046, 90.588, -107.467
1.977, -1, -3.89878, 10.1825, 20.6158, 13.1083, 90.4398, -107.842
1.98333, -1, -3.99143, 10.1354, 20.6345, 13.1096, 90.3905, -107.966
1.99138, -1, -4.17682, 10.041, 20.6717, 13.112, 90.2918, -108.217
2.00033, -1, -4.36252, 9.94675, 20.7088, 13.1144, 90.1932, -108.467
2.00741, -1, -4.54801, 9.85237, 20.7461, 13.1168, 90.0946, -108.716
2.01632, -1, -4.73313, 9.7581, 20.7833, 13.1191, 89.9963, -108.965
2.0234, -1, -4.91786, 9.66393, 20.8204, 13.1215, 89.8977, -109.215
2.03137, -1, -5.102, 9.56984, 20.8575, 13.1239, 89.7992, -109.464
2.03934, -1, -5.28546, 9.47573, 20.8947, 13.1262, 89.7009, -109.713
2.04742, -1, -5.4686, 9.38177, 20.9317, 13.1286, 89.6025, -109.962
2.05532, -1, -5.65132, 9.28781, 20.9688, 13.1308, 89.5042, -110.211
2.06332, -1, -5.83366, 9.19391, 21.006, 13.1332, 89.4062, -110.46
2.0714, -1, -6.01602, 9.10001, 21.0429, 13.1354, 89.3079, -110.709
2.07933, -1, -6.19859, 9.00616, 21.0799, 13.1376, 89.2098, -110.957
2.08732, -1, -6.38146, 8.91245, 21.117, 13.1399, 89.1121, -111.205
2.09541, -1, -6.56449, 8.81879, 21.1539, 13.1421, 89.014, -111.454
2.10332, -1, -6.74783, 8.72517, 21.1908, 13.1442, 88.9161, -111.702
2.11133, -1, -6.93163, 8.63159, 21.2278, 13.1464, 88.8183, -111.95
2.11942, -1, -7.11566, 8.53799, 21.2646, 13.1486, 88.7203, -112.198
2.12732, -1, -7.3, 8.4444, 21.3016, 13.1507, 88.6225, -112.445
2.13533, -1, -7.48394, 8.35076, 21.3385, 13.1528, 88.525, -112.693
2.14342, -1, -7.66764, 8.25721, 21.3753, 13.1549, 88.4273, -112.94
2.15132, -1, -7.85092, 8.1638, 21.4121, 13.1571, 88.3298, -113.188
2.15932, -1, -8.03376, 8.07041, 21.449, 13.1594, 88.2326, -113.435
2.1674, -1, -8.21599, 7.9771, 21.4857, 13.1616, 88.1351, -113.682
2.17535, -1, -8.39757, 7.88383, 21.5225, 13.1639, 88.0377, -113.929
2.18332, -1, -8.57876, 7.79059, 21.5593, 13.1661, 87.9404, -114.176
2.19153, -1, -8.75955, 7.69742, 21.5961, 13.1684, 87.8429, -114.422
2.19942, -1, -8.94024, 7.60428, 21.6328, 13.1706, 87.7454, -114.669
2.20741, -1, -9.12113, 7.51121, 21.6696, 13.1728, 87.6483, -114.915
2.21572, -1, -9.3023, 7.4183, 21.7062, 13.175, 87.5511, -115.162
2.22342, -1, -9.48376, 7.32549, 21.7429, 13.1772, 87.4539, -115.408
2.23145, -1, -9.66553, 7.23267, 21.7796, 13.1795, 87.357, -115.654
2.23988, -1, -9.84768, 7.13994, 21.8161, 13.1817, 87.2596, -115.9
2.24733, -1, -10.0302, 7.04722, 21.8526, 13.1839, 87.1625, -116.146
2.25533, -1, -10.2128, 6.95445, 21.8892, 13.1861, 87.0655, -116.392
2.26414, -1, -10.3955, 6.86167, 21.9258, 13.1883, 86.9681, -116.637
2.27141, -1, -10.5779, 6.76894, 21.9623, 13.1905, 86.8711, -116.883
2.27945, -1, -10.7599, 6.67631, 21.9989, 13.1928, 86.7743, -117.128
2.28828, -1, -10.9415, 6.5837, 22.0352, 13.1953, 86.6772, -117.374
2.29567, -1, -11.1223, 6.49116, 22.0717, 13.1976, 86.5804, -117.619
2.30369, -1, -11.3024, 6.39867, 22.1083, 13.2, 86.4839, -117.863
2.3125, -1, -11.4822, 6.30617, 22.1447, 13.2024, 86.3871, -118.108
2.3197, -1, -11.6616, 6.21375, 22.1811, 13.2049, 86.2904, -118.353
2.32786, -1, -11.8409, 6.12138, 22.2176, 13.2074, 86.1939, -118.598
2.33666, -1, -12.0201, 6.02911, 22.254, 13.2098, 86.0972, -118.842
2.34403, -1, -12.1995, 5.93696, 22.2904, 13.2123, 86.0007, -119.086
2.35207, -1, -12.3792, 5.845, 22.3269, 13.2147, 85.9045, -119.331
2.36052, -1, -12.4692, 5.75297, 22.3631, 13.2172, 85.8081, -119.575
2.36795, -1, -12.6494, 5.66098, 22.3993, 13.2197, 85.7118, -119.819
2.37632, -1, -12.9206, 5.56907, 22.4357, 13.2221, 85.616, -120.062
2.38331, -1, -13.0111, 5.52313, 22.4539, 13.2233, 85.568, -120.184
2.39132, -1, -13.1923, 5.43113, 22.49, 13.2258, 85.4719, -120.428
2.39933, -1, -13.3736, 5.3391, 22.5263, 13.2282, 85.3759, -120.672
2.40843, -1, -13.6447, 5.20122, 22.5806, 13.232, 85.2324, -121.036
2.41531, -1, -13.7349, 5.1553, 22.5986, 13.2333, 85.1845, -121.158
2.42333, -1, -13.9148, 5.06344, 22.6348, 13.2359, 85.0886, -121.401
2.43263, -1, -14.183, 4.92583, 22.689, 13.2397, 84.9453, -121.765
2.43931, -1, -14.2722, 4.87998, 22.7071, 13.241, 84.8974, -121.887
2.44734, -1, -14.4503, 4.78835, 22.7432, 13.2436, 84.8019, -122.129
2.4568, -1, -14.717, 4.65091, 22.7976, 13.2473, 84.6585, -122.493
2.46331, -1, -14.8058, 4.60516, 22.8156, 13.2486, 84.6106, -122.614
2.4732, -1, -15.0723, 4.46798, 22.8698, 13.2523, 84.4672, -122.978
2.47941, -1, -15.1613, 4.42235, 22.8879, 13.2535, 84.4194, -123.099
2.48908, -1, -15.4288, 4.28537, 22.9419, 13.2571, 84.2758, -123.461
2.49532, -1, -15.5182, 4.23973, 22.9599, 13.2583, 84.228, -123.582
2.5043, -1, -15.6973, 4.14847, 22.996, 13.2605, 84.1327, -123.824
2.51238, -1, -15.8765, 4.05725, 23.0319, 13.2628, 84.0371, -124.065
2.52032, -1, -16.0559, 3.96598, 23.0678, 13.265, 83.9415, -124.307
2.52739, -1, -16.2356, 3.8747, 23.1039, 13.2671, 83.8463, -124.548
2.53543, -1, -16.4152, 3.78348, 23.1398, 13.2693, 83.7507, -124.79
2.54432, -1, -16.5945, 3.69228, 23.1756, 13.2716, 83.6553, -125.031
2.55131, -1, -16.7732, 3.60113, 23.2115, 13.2738, 83.56, -125.273
2.55931, -1, -16.9513, 3.51006, 23.2473, 13.2761, 83.4645, -125.513
2.56811, -1, -17.1283, 3.41906, 23.2831, 13.2782, 83.3692, -125.754
2.5753, -1, -17.3049, 3.32816, 23.319, 13.2805, 83.2742, -125.995
2.58331, -1, -17.4814, 3.23729, 23.3547, 13.2827, 83.1791, -126.235
2.59211, -1, -17.6575, 3.14655, 23.3905, 13.2848, 83.0841, -126.476
2.59931, -1, -17.8336, 3.05593, 23.4265, 13.2869, 82.9895, -126.716
2.60732, -1, -18.0097, 2.96534, 23.4623, 13.289, 82.8946, -126.956
2.61611, -1, -18.1861, 2.87494, 23.4979, 13.2911, 82.7997, -127.196
2.62333, -1, -18.3628, 2.78449, 23.5337, 13.2932, 82.7051, -127.436
2.63131, -1, -18.5401, 2.69408, 23.5694, 13.2952, 82.6104, -127.676
2.64015, -1, -18.7177, 2.60373, 23.605, 13.2973, 82.5158, -127.915
2.64734, -1, -18.8955, 2.51334, 23.6408, 13.2994, 82.4214, -128.155
2.65531, -1, -19.0737, 2.42286, 23.6764, 13.3013, 82.3269, -128.395
2.6641, -1, -19.2519, 2.33246, 23.7119, 13.3033, 82.2326, -128.634
2.67131, -1, -19.4299, 2.24207, 23.7475, 13.3054, 82.1385, -128.873
2.67934, -1, -19.6073, 2.15171, 23.7831, 13.3075, 82.0444, -129.112
2.68826, -1, -19.784, 2.06138, 23.8185, 13.3097, 81.9502, -129.351
2.69533, -1, -19.9601, 1.9711, 23.854, 13.3119, 81.856, -129.59
2.70342, -1, -20.1355, 1.88085, 23.8896, 13.314, 81.762, -129.829
2.71238, -1, -20.3106, 1.79069, 23.925, 13.3163, 81.6679, -130.067
2.7194, -1, -20.4854, 1.70059, 23.9605, 13.3185, 81.5739, -130.305
2.72753, -1, -20.6598, 1.61059, 23.9961, 13.3207, 81.4802, -130.544
2.73583, -1, -20.8344, 1.52066, 24.0315, 13.3228, 81.3862, -130.782
2.7443, -1, -21.0092, 1.43088, 24.0669, 13.325, 81.2925, -131.02
2.75148, -1, -21.1844, 1.34115, 24.1025, 13.3272, 81.1988, -131.257
2.76067, -1, -21.3599, 1.25141, 24.1379, 13.3294, 81.1049, -131.495
2.7674, -1, -21.5358, 1.16179, 24.1732, 13.3315, 81.011, -131.733
2.77543, -1, -21.7119, 1.07214, 24.2087, 13.3338, 80.9173, -131.971
2.78344, -1, -21.8882, 0.982459, 24.2442, 13.336, 80.8235, -132.208
2.79156, -1, -22.0647, 0.892885, 24.2795, 13.3381, 80.7297, -132.445
2.79966, -1, -22.2412, 0.803327, 24.3149, 13.3402, 80.6362, -132.682
2.80778, -1, -22.4176, 0.713817, 24.3502, 13.3425, 80.5425, -132.92
2.81638, -1, -22.5934, 0.624267, 24.3854, 13.3448, 80.4489, -133.156
2.82373, -1, -22.7687, 0.534854, 24.4207, 13.3472, 80.3555, -133.393
2.83188, -1, -22.9431, 0.445465, 24.4559, 13.3496, 80.2616, -133.63
2.84046, -1, -23.1169, 0.356061, 24.491, 13.3521, 80.1682, -133.867
2.84792, -1, -23.2904, 0.266741, 24.5262, 13.3545, 80.0749, -134.104
2.85593, -1, -23.4635, 0.177458, 24.5614, 13.3569, 79.9813, -134.34
2.86449, -1, -23.6367, 0.0882633, 24.5966, 13.3593, 79.888, -134.576
2.87197, -1, -23.7234, 0.04371, 24.6318, 13.3616, 79.7948, -134.812
2.88032, -1, -23.9835, -0.0898019, 24.667, 13.3641, 79.7016, -135.048
2.8873, -1, -24.0703, -0.134271, 24.6845, 13.3654, 79.655, -135.166
2.8953, -1, -24.2441, -0.223271, 24.7195, 13.3678, 79.5619, -135.402
2.90441, -1, -24.5055, -0.356636, 24.7723, 13.3714, 79.4224, -135.755
2.9113, -1, -24.5928, -0.401059, 24.7898, 13.3727, 79.3758, -135.873
2.9193, -1, -24.7675, -0.489973, 24.8248, 13.3751, 79.2828, -136.109
2.9273, -1, -24.9426, -0.578889, 24.8598, 13.3774, 79.19, -136.344
2.93662, -1, -25.205, -0.7121, 24.9124, 13.381, 79.0504, -136.697
2.94471, -1, -25.3795, -0.800826, 24.9473, 13.3834, 78.9577, -136.932
2.9513, -1, -25.4666, -0.845261, 24.9649, 13.3847, 78.9115, -137.049
2.96082, -1, -25.7272, -0.978407, 25.0173, 13.3884, 78.7723, -137.402
2.96889, -1, -25.9001, -1.06708, 25.0521, 13.3907, 78.6797, -137.636
2.9778, -1, -26.0725, -1.15577, 25.0872, 13.3932, 78.5875, -137.871
2.98332, -1, -26.1586, -1.20012, 25.1047, 13.3944, 78.5411, -137.988
2.99292, -1, -26.3304, -1.28871, 25.1569, 13.398, 78.4022, -138.34
3.002, -1, -26.5022, -1.3772, 25.1743, 13.4002, 78.31, -138.574
3.0083, -1, -26.6742, -1.4656, 25.2093, 13.4013, 78.2636, -138.691
3.01541, -1, -26.8464, -1.5539, 25.2443, 13.4036, 78.1712, -138.925
3.02437, -1, -27.0188, -1.64206, 25.2791, 13.4058, 78.0787, -139.159
3.0313, -1, -27.1913, -1.73027, 25.314, 13.408, 77.9868, -139.393
3.03942, -1, -27.364, -1.8185, 25.3488, 13.4102, 77.8945, -139.627
3.04732, -1, -27.5371, -1.90653, 25.3836, 13.4124, 77.8026, -139.861
3.0553, -1, -27.7102, -1.99474, 25.4184, 13.4145, 77.7107, -140.094
3.06336, -1, -27.8835, -2.08288, 25.4533, 13.4166, 77.6186, -140.327
3.0713, -1, -28.0568, -2.1709, 25.4881, 13.4186, 77.5264, -140.561
3.07948, -1, -28.23, -2.25893, 25.5228, 13.4206, 77.4346, -140.794
3.08729, -1, -28.403, -2.34703, 25.5577, 13.4227, 77.3424, -141.027
3.09532, -1, -28.5757, -2.43505, 25.5924, 13.4248, 77.2502, -141.26
3.10336, -1, -28.7477, -2.52296, 25.627, 13.427, 77.1585, -141.493
3.11129, -1, -28.919, -2.61097, 25.6618, 13.4291, 77.0663, -141.726
3.1193, -1, -29.0898, -2.69885, 25.6964, 13.4314, 76.9745, -141.958
3.12738, -1, -29.2603, -2.78669, 25.731, 13.4334, 76.8828, -142.191
3.13531, -1, -29.431, -2.87445, 25.7658, 13.4355, 76.7908, -142.423
3.1433, -1, -29.6019, -2.96205, 25.8004, 13.4375, 76.699, -142.656
3.15138, -1, -29.7728, -3.0496, 25.8349, 13.4395, 76.6072, -142.888
3.15929, -1, -29.9439, -3.13709, 25.8696, 13.4416, 76.5154, -143.12
3.16729, -1, -30.1147, -3.22455, 25.9042, 13.4437, 76.4237, -143.352
3.17537, -1, -30.2857, -3.31205, 25.9387, 13.4458, 76.3319, -143.584
3.18331, -1, -30.4571, -3.39946, 25.9733, 13.4478, 76.2405, -143.816
3.19136, -1, -30.6288, -3.48698, 26.0079, 13.4498, 76.1488, -144.048
3.1994, -1, -30.8006, -3.57439, 26.0423, 13.4519, 76.0575, -144.28
3.2074, -1, -30.9725, -3.66176, 26.0769, 13.4539, 75.9662, -144.511
3.21538, -1, -31.1442, -3.74916, 26.1114, 13.4559, 75.8747, -144.742
3.22345, -1, -31.3157, -3.83645, 26.1458, 13.4581, 75.7833, -144.974
3.23145, -1, -31.4868, -3.92377, 26.1802, 13.4601, 75.6922, -145.205
3.23939, -1, -31.6574, -4.01102, 26.2148, 13.4623, 75.6008, -145.436
3.24747, -1, -31.8276, -4.09828, 26.2491, 13.4644, 75.5096, -145.667
3.2553, -1, -31.9974, -4.18552, 26.2835, 13.4667, 75.4187, -145.897
3.26353, -1, -32.1669, -4.27265, 26.318, 13.4689, 75.3275, -146.128
3.27151, -1, -32.3363, -4.35969, 26.3523, 13.471, 75.2365, -146.359
3.27934, -1, -32.5059, -4.44668, 26.3866, 13.4732, 75.1457, -146.59
3.28739, -1, -32.6756, -4.53359, 26.421, 13.4753, 75.0549, -146.82
3.29559, -1, -32.8453, -4.62052, 26.4554, 13.4774, 74.964, -147.05
3.30352, -1, -33.015, -4.70743, 26.4895, 13.4796, 74.8732, -147.281
3.31174, -1, -33.1847, -4.79434, 26.5238, 13.4818, 74.7828, -147.511
3.32031, -1, -33.3547, -4.88122, 26.5581, 13.4841, 74.692, -147.741
3.32784, -1, -33.5248, -4.96818, 26.5924, 13.4863, 74.6013, -147.97
3.33639, -1, -33.6952, -5.05513, 26.6266, 13.4885, 74.511, -148.2
3.34383, -1, -33.8655, -5.14192, 26.6608, 13.4907, 74.4203, -148.43
3.35245, -1, -34.0357, -5.22862, 26.6949, 13.4929, 74.3298, -148.66
3.36005, -1, -34.2058, -5.31539, 26.7291, 13.4952, 74.2395, -148.889
3.36791, -1, -34.2909, -5.40206, 26.7634, 13.4975, 74.1488, -149.118
3.3759, -1, -34.4609, -5.44539, 26.7805, 13.4998, 74.0581, -149.348
3.3843, -1, -34.7149, -5.5754, 26.8316, 13.5021, 73.9677, -149.577
3.39129, -1, -34.7992, -5.61871, 26.8487, 13.5033, 73.9224, -149.692
3.39928, -1, -34.9678, -5.70527, 26.8828, 13.5058, 73.8319, -149.921
3.40849, -1, -35.2203, -5.83501, 26.9339, 13.5095, 73.6963, -150.264
3.41528, -1, -35.3044, -5.8782, 26.951, 13.5107, 73.6512, -150.379
3.4245, -1, -35.5572, -6.00754, 27.0022, 13.5142, 73.5156, -150.722
3.43128, -1, -35.6415, -6.05067, 27.0192, 13.5154, 73.4704, -150.837
3.4393, -1, -35.81, -6.13692, 27.0531, 13.5178, 73.3804, -151.065
3.44868, -1, -36.0628, -6.26617, 27.1042, 13.5214, 73.2446, -151.408
3.45711, -1, -36.2313, -6.35232, 27.1382, 13.5238, 73.1542, -151.636
3.46331, -1, -36.3157, -6.39544, 27.1551, 13.525, 73.1091, -151.751
3.47288, -1, -36.5689, -6.5248, 27.2061, 13.5286, 72.9734, -152.093
3.48091, -1, -36.7378, -6.61097, 27.24, 13.5309, 72.8832, -152.321
3.4894, -1, -36.9067, -6.69713, 27.2739, 13.5331, 72.7932, -152.549
3.49532, -1, -36.9913, -6.74018, 27.2908, 13.5343, 72.7482, -152.663
3.50507, -1, -37.1601, -6.82634, 27.3248, 13.5366, 72.6581, -153.006
3.51128, -1, -37.3287, -6.91242, 27.3586, 13.5389, 72.5682, -153.119
3.51934, -1, -37.497, -6.99844, 27.3925, 13.5411, 72.4785, -153.347
3.52734, -1, -37.6648, -7.08447, 27.4265, 13.5434, 72.3884, -153.574
3.53536, -1, -37.8325, -7.17049, 27.4603, 13.5456, 72.2986, -153.802
3.54335, -1, -38, -7.25643, 27.4941, 13.5478, 72.209, -154.029
3.55131, -1, -38.1675, -7.34232, 27.5281, 13.55, 72.119, -154.257
3.55929, -1, -38.335, -7.42816, 27.5619, 13.5522, 72.0294, -154.484
3.56735, -1, -38.5023, -7.51387, 27.5957, 13.5543, 71.9399, -154.711
3.57528, -1, -38.6695, -7.59959, 27.6296, 13.5564, 71.8502, -154.938
3.58328, -1, -38.8368, -7.68527, 27.6635, 13.5585, 71.7607, -155.165
3.59139, -1, -39.0041, -7.77093, 27.6971, 13.5606, 71.6714, -155.392
3.59928, -1, -39.1716, -7.85656, 27.7309, 13.5626, 71.5822, -155.619
3.60734, -1, -39.3392, -7.94225, 27.7648, 13.5646, 71.4927, -155.846
3.61534, -1, -39.5067, -8.02782, 27.7985, 13.5665, 71.4033, -156.073
3.62328, -1, -39.6744, -8.11335, 27.8322, 13.5685, 71.3141, -156.299
3.63129, -1, -39.842, -8.19882, 27.8659, 13.5704, 71.2245, -156.526
3.63934, -1, -40.0095, -8.28428, 27.8997, 13.5724, 71.1353, -156.752
3.64729, -1, -40.177, -8.36965, 27.9333, 13.5743, 71.0461, -156.978
3.6553, -1, -40.3443, -8.45503, 27.967, 13.5763, 70.9567, -157.205
3.66334, -1, -40.5114, -8.54043, 28.0007, 13.5783, 70.8675, -157.431
3.67128, -1, -40.6783, -8.6258, 28.0343, 13.5803, 70.7784, -157.657
3.67929, -1, -40.845, -8.71117, 28.0679, 13.5822, 70.6893, -157.883
3.68737, -1, -41.0115, -8.7965, 28.1017, 13.5842, 70.6001, -158.109
3.69528, -1, -41.1779, -8.8818, 28.1352, 13.5863, 70.511, -158.335
3.70338, -1, -41.3441, -8.96695, 28.1688, 13.5883, 70.4219, -158.56
3.71141, -1, -41.5104, -9.05212, 28.2025, 13.5903, 70.3326, -158.786
3.71937, -1, -41.6767, -9.13724, 28.2361, 13.5923, 70.2434, -159.011
3.72744, -1, -41.8431, -9.22234, 28.2696, 13.5943, 70.1545, -159.237
3.73538, -1, -42.0095, -9.30733, 28.3032, 13.5963, 70.0654, -159.462
3.74338, -1, -42.1758, -9.3924, 28.3369, 13.5983, 69.9764, -159.688
3.75145, -1, -42.3421, -9.4775, 28.3703, 13.6004, 69.8877, -159.913
3.75928, -1, -42.5084, -9.56247, 28.4039, 13.6024, 69.7985, -160.138
3.76731, -1, -42.6748, -9.64743, 28.4374, 13.6044, 69.7097, -160.363
3.77537, -1, -42.8411, -9.7324, 28.4709, 13.6065, 69.6208, -160.588
3.78337, -1, -43.0075, -9.81736, 28.5042, 13.6085, 69.5321, -160.814
3.79144, -1, -43.1738, -9.90229, 28.5378, 13.6105, 69.4433, -161.038
3.79956, -1, -43.3399, -9.98725, 28.5712, 13.6127, 69.3545, -161.263
3.80754, -1, -43.506, -10.0722, 28.6047, 13.6147, 69.2662, -161.488
3.81564, -1, -43.672, -10.1572, 28.6382, 13.6168, 69.1774, -161.712
3.82377, -1, -43.8379, -10.2421, 28.6717, 13.619, 69.089, -161.937
3.83246, -1, -44.0036, -10.3268, 28.705, 13.6212, 69.0006, -162.161
3.83984, -1, -44.169, -10.4116, 28.7385, 13.6232, 68.9119, -162.386
3.84838, -1, -44.3343, -10.4962, 28.772, 13.6255, 68.8233, -162.61
3.85586, -1, -44.4995, -10.5808, 28.8054, 13.6277, 68.7347, -162.834
3.86438, -1, -44.6646, -10.6653, 28.8387, 13.6298, 68.6461, -163.059
3.8719, -1, -44.8299, -10.7498, 28.8723, 13.632, 68.5575, -163.283
3.88081, -1, -44.9126, -10.792, 28.889, 13.6331, 68.5133, -163.395
3.88728, -1, -45.0779, -10.8765, 28.9224, 13.6353, 68.425, -163.619
3.89634, -1, -45.3259, -11.0033, 28.9725, 13.6387, 68.2923, -163.955
3.90327, -1, -45.4085, -11.0455, 28.9892, 13.6398, 68.2481, -164.067
3.91127, -1, -45.5737, -11.1299, 29.0224, 13.642, 68.16, -164.291
3.91932, -1, -45.739, -11.2144, 29.0556, 13.6443, 68.0716, -164.514
3.92728, -1, -45.904, -11.2987, 29.089, 13.6466, 67.9832, -164.738
3.93527, -1, -46.067, -11.3819, 29.1225, 13.6488, 67.8948, -164.961
3.94336, -1, -46.2265, -11.463, 29.1559, 13.6512, 67.8073, -165.184
3.95127, -1, -46.3805, -11.5403, 29.1896, 13.6536, 67.7205, -165.403
3.95926, -1, -46.5266, -11.613, 29.2226, 13.6559, 67.6369, -165.614
3.96882, -1, -46.7255, -11.7106, 29.2683, 13.6593, 67.5222, -165.905
3.97693, -1, -46.8406, -11.7667, 29.2947, 13.6614, 67.4551, -166.074
3.98488, -1, -46.9394, -11.8159, 29.3168, 13.663, 67.3993, -166.216
3.99136, -1, -46.9827, -11.838, 29.3259, 13.6637, 67.3754, -166.277
3.99926, -1, -47.0575, -11.878, 29.3396, 13.6648, 67.3363, -166.375
4.00891, -1, -47.1173, -11.9113, 29.3488, 13.6654, 67.308, -166.473
4.01533, -1, -47.1627, -11.937, 29.3542, 13.6657, 67.289, -166.494
4.02493, -1, -47.1957, -11.9557, 29.3569, 13.6658, 67.2773, -166.523
4.03127, -1, -47.2183, -11.9683, 29.3581, 13.6659, 67.2709, -166.54
4.03933, -1, -47.2326, -11.9761, 29.3587, 13.666, 67.2675, -166.549
4.04729, -1, -47.2406, -11.9804, 29.359, 13.666, 67.2659, -166.553
4.05523, 2, -47.2444, -11.9824, 29.3592, 13.666, 67.2652, -166.554
4.06333, 2, -47.2452, -11.9832, 29.3593, 13.6661, 67.2648, -166.555
4.07126, 2, -47.245, -11.9835, 29.3593, 13.666, 67.2646, -166.556
4.0793, 2, -47.2448, -11.9837, 29.3594, 13.6661, 67.2645, -166.556
4.08734, 2, -47.2449, -11.9837, 29.3594, 13.6661, 67.2645, -166.556
4.09526, 2, -47.2456, -11.9839, 29.3594, 13.6661, 67.2645, -166.556
4.10327, 2, -47.2466, -11.9842, 29.3594, 13.6661, 67.2644, -166.556
4.11138, 2, -47.2483, -11.9849, 29.3594, 13.6661, 67.2644, -166.556
4.11926, 2, -47.25, -11.9857, 29.3594, 13.6661, 67.2644, -166.556
4.12727, 2, -47.2515, -11.9866, 29.3594, 13.6661, 67.2644, -166.556
4.13535, 2, -47.2526, -11.9873, 29.3595, 13.6661, 67.2645, -166.556
4.14326, 2, -47.2533, -11.9879, 29.3594, 13.6661, 67.2644, -166.556
4.15127, 2, -47.2536, -11.9882, 29.3595, 13.6661, 67.2645, -166.556
4.15935, 2, -47.2537, -11.9883, 29.3595, 13.6661, 67.2645, -166.556
4.16727, 2, -47.2537, -11.9883, 29.3595, 13.6661, 67.2645, -166.556
4.17526, 2, -47.2532, -11.9883, 29.3595, 13.6661, 67.2645, -166.556
4.18334, 2, -47.2528, -11.9883, 29.3595, 13.6661, 67.2645, -166.556
4.19129, 2, -47.2523, -11.9883, 29.3595, 13.6662, 67.2645, -166.556
4.19926, 2, -47.2521, -11.9883, 29.3595, 13.6661, 67.2645, -166.556
4.20739, 2, -47.252, -11.9883, 29.3595, 13.6661, 67.2645, -166.556
4.21535, 2, -47.2521, -11.9884, 29.3595, 13.6661, 67.2645, -166.556
4.22335, 2, -47.2522, -11.9887, 29.3595, 13.6661, 67.2645, -166.556
4.23144, 2, -47.2526, -11.989, 29.3595, 13.6661, 67.2645, -166.556
4.23937, 2, -47.2532, -11.9893, 29.3595, 13.6661, 67.2645, -166.556
4.24737, 2, -47.2536, -11.9896, 29.3595, 13.6661, 67.2645, -166.556
4.25544, 2, -47.2539, -11.9897, 29.3595, 13.666, 67.2645, -166.556
4.26326, 2, -47.2539, -11.9897, 29.3595, 13.6661, 67.2644, -166.556
4.27129, 2, -47.2538, -11.9897, 29.3595, 13.6661, 67.2644, -166.556
4.27973, 2, -47.2537, -11.9897, 29.3595, 13.666, 67.2645, -166.556
4.28738, 2, -47.2534, -11.9896, 29.3595, 13.6661, 67.2645, -166.556
4.2954, 2, -47.253, -11.9896, 29.3595, 13.6661, 67.2645, -166.556
4.30386, 2, -47.2527, -11.9896, 29.3595, 13.6661, 67.2645, -166.556
4.3124, 2, -47.2525, -11.9896, 29.3595, 13.6661, 67.2645, -166.556
4.31959, 2, -47.2523, -11.9896, 29.3595, 13.666, 67.2645, -166.556
4.32818, 2, -47.2522, -11.9897, 29.3595, 13.6661, 67.2645, -166.556
4.33569, 2, -47.2522, -11.9897, 29.3595, 13.666, 67.2645, -166.556
4.34436, 2, -47.2522, -11.9898, 29.3595, 13.6661, 67.2645, -166.556
4.35227, 2, -47.2522, -11.9899, 29.3595, 13.666, 67.2645, -166.556
4.35984, 2, -47.2522, -11.9899, 29.3595, 13.666, 67.2645, -166.556
4.36837, 2, -47.2522, -11.9898, 29.3595, 13.666, 67.2645, -166.556
4.3763, 2, -47.2522, -11.9898, 29.3595, 13.666, 67.2645, -166.556
4.38376, 2, -47.2522, -11.9898, 29.3595, 13.666, 67.2645, -166.556
4.39235, 2, -47.252, -11.9897, 29.3595, 13.666, 67.2645, -166.556
4.40012, 2, -47.2519, -11.9896, 29.3595, 13.666, 67.2645, -166.556
4.40726, 2, -47.2519, -11.9896, 29.3595, 13.666, 67.2646, -166.556
4.41636, 2, -47.2517, -11.9896, 29.3595, 13.666, 67.2645, -166.556
4.4233, 2, -47.2517, -11.9896, 29.3595, 13.666, 67.2645, -166.556
4.43126, 2, -47.2516, -11.9896, 29.3595, 13.666, 67.2645, -166.556
4.43925, 2, -47.2515, -11.9896, 29.3595, 13.666, 67.2645, -166.556
4.44896, 2, -47.2515, -11.9896, 29.3595, 13.666, 67.2645, -166.556
4.4567, 2, -47.2514, -11.9896, 29.3595, 13.666, 67.2646, -166.556
4.46325, 2, -47.2514, -11.9896, 29.3595, 13.666, 67.2646, -166.556
4.47332, 2, -47.2512, -11.9896, 29.3595, 13.6661, 67.2645, -166.556
4.47926, 2, -47.2512, -11.9896, 29.3595, 13.666, 67.2645, -166.556
4.48907, 2, -47.2511, -11.9896, 29.3595, 13.666, 67.2646, -166.555
4.49533, 2, -47.2511, -11.9895, 29.3595, 13.666, 67.2646, -166.556
4.50324, 2, -47.251, -11.9895, 29.3595, 13.666, 67.2646, -166.556
4.51285, 2, -47.2509, -11.9894, 29.3595, 13.666, 67.2646, -166.556
4.52123, 2, -47.2507, -11.9893, 29.3595, 13.666, 67.2646, -166.555
4.52727, 2, -47.2507, -11.9893, 29.3595, 13.666, 67.2646, -166.555
4.53532, 2, -47.2506, -11.9893, 29.3595, 13.666, 67.2646, -166.555
4.54331, 2, -47.2505, -11.9893, 29.3595, 13.666, 67.2646, -166.555
4.55244, 2, -47.2504, -11.9893, 29.3595, 13.666, 67.2646, -166.555
4.55925, 2, -47.2503, -11.9893, 29.3595, 13.666, 67.2646, -166.555
4.56733, 2, -47.2502, -11.9893, 29.3595, 13.666, 67.2646, -166.555
4.57525, 2, -47.2501, -11.9893, 29.3595, 13.666, 67.2646, -166.555
4.58325, 2, -47.25, -11.9893, 29.3595, 13.666, 67.2646, -166.555
4.59132, 2, -47.2498, -11.9893, 29.3595, 13.666, 67.2646, -166.555
4.59925, 2, -47.2498, -11.9892, 29.3595, 13.6659, 67.2646, -166.555
4.60726, 2, -47.2497, -11.9891, 29.3595, 13.6659, 67.2646, -166.555
4.61537, 2, -47.2496, -11.989, 29.3595, 13.6659, 67.2646, -166.555
4.62325, 2, -47.2495, -11.989, 29.3595, 13.666, 67.2646, -166.555
4.63125, 2, -47.2494, -11.989, 29.3595, 13.666, 67.2646, -166.555
4.63933, 2, -47.2493, -11.989, 29.3595, 13.6659, 67.2646, -166.555
4.64726, 2, -47.2492, -11.989, 29.3595, 13.6659, 67.2646, -166.555
4.65525, 2, -47.2492, -11.9889, 29.3595, 13.6659, 67.2646, -166.555
4.66333, 2, -47.2491, -11.9889, 29.3595, 13.6659, 67.2647, -166.555
4.67125, 2, -47.2491, -11.9889, 29.3595, 13.6659, 67.2646, -166.555
4.67925, 2, -47.2491, -11.9889, 29.3595, 13.6659, 67.2646, -166.555
4.68732, 2, -47.249, -11.9889, 29.3595, 13.6659, 67.2647, -166.555
4.69527, 2, -47.249, -11.9889, 29.3595, 13.6659, 67.2647, -166.555
4.70325, 2, -47.2489, -11.9888, 29.3595, 13.6659, 67.2647, -166.555
4.71136, 2, -47.2489, -11.9888, 29.3595, 13.6658, 67.2647, -166.555
4.71933, 2, -47.2488, -11.9887, 29.3595, 13.6658, 67.2647, -166.555
4.72734, 2, -47.2487, -11.9886, 29.3595, 13.6658, 67.2647, -166.555
4.73541, 2, -47.2486, -11.9886, 29.3595, 13.6658, 67.2647, -166.555
4.74335, 2, -47.2486, -11.9886, 29.3595, 13.6658, 67.2647, -166.555
4.75136, 2, -47.2485, -11.9886, 29.3595, 13.6658, 67.2647, -166.555
4.75942, 2, -47.2485, -11.9886, 29.3595, 13.6658, 67.2648, -166.555
4.76726, 2, -47.2485, -11.9885, 29.3595, 13.6658, 67.2648, -166.555
4.77529, 2, -47.2484, -11.9885, 29.3595, 13.6658, 67.2647, -166.555
4.78341, 2, -47.2484, -11.9886, 29.3595, 13.6657, 67.2647, -166.555
4.79138, 2, -47.2484, -11.9885, 29.3595, 13.6657, 67.2648, -166.555
4.7994, 2, -47.2484, -11.9885, 29.3595, 13.6658, 67.2648, -166.555
4.80757, 2, -47.2483, -11.9884, 29.3595, 13.6657, 67.2648, -166.555
4.81559, 2, -47.2483, -11.9883, 29.3595, 13.6657, 67.2648, -166.554
4.82361, 2, -47.2482, -11.9882, 29.3595, 13.6657, 67.2648, -166.555
4.83174, 2, -47.2481, -11.9882, 29.3595, 13.6657, 67.2648, -166.554
4.84038, 2, -47.248, -11.9882, 29.3595, 13.6656, 67.2648, -166.554
4.84779, 2, -47.2479, -11.9882, 29.3595, 13.6657, 67.2648, -166.554
4.85636, 2, -47.2479, -11.9881, 29.3595, 13.6657, 67.2648, -166.554
4.86389, 2, -47.2479, -11.9882, 29.3595, 13.6657, 67.2648, -166.554
4.87242, 2, -47.2478, -11.9882, 29.3595, 13.6656, 67.2648, -166.554
4.8799, 2, -47.2478, -11.9882, 29.3595, 13.6656, 67.2648, -166.554
4.88846, 2, -47.2478, -11.9881, 29.3595, 13.6656, 67.2648, -166.554
4.89524, 2, -47.2478, -11.9881, 29.3595, 13.6656, 67.2649, -166.554
4.90429, 2, -47.2478, -11.9881, 29.3595, 13.6655, 67.2649, -166.554
4.91124, 2, -47.2478, -11.988, 29.3595, 13.6655, 67.2649, -166.554
4.91924, 2, -47.2477, -11.988, 29.3595, 13.6655, 67.2649, -166.554
4.92844, 2, -47.2476, -11.9879, 29.3595, 13.6655, 67.2649, -166.554
4.93524, 2, -47.2475, -11.9878, 29.3595, 13.6655, 67.2649, -166.554
4.94324, 2, -47.2474, -11.9878, 29.3595, 13.6655, 67.2649, -166.554
4.9527, 2, -47.2473, -11.9877, 29.3595, 13.6655, 67.265, -166.554
4.95924, 2, -47.2473, -11.9877, 29.3595, 13.6654, 67.265, -166.554
4.96875, 2, -47.2472, -11.9877, 29.3595, 13.6655, 67.265, -166.554
4.97681, 2, -47.2472, -11.9877, 29.3595, 13.6654, 67.2651, -166.554
4.98488, 2, -47.2472, -11.9877, 29.3595, 13.6654, 67.2651, -166.554
4.99287, 2, -47.2471, -11.9877, 29.3595, 13.6654, 67.265, -166.554
4.99931, 2, -47.2471, -11.9877, 29.3595, 13.6654, 67.265, -166.554
5.00895, 2, -47.2471, -11.9877, 29.3594, 13.6654, 67.265, -166.554
5.01624, 2, -47.2471, -11.9876, 29.3594, 13.6654, 67.265, -166.554
5.02425, 2, -47.247, -11.9875, 29.3595, 13.6654, 67.2651, -166.554
5.03236, 2, -47.2469, -11.9875, 29.3595, 13.6654, 67.2651, -166.554
5.03924, 2, -47.2468, -11.9874, 29.3595, 13.6654, 67.2651, -166.554
5.04732, 2, -47.2467, -11.9874, 29.3595, 13.6653, 67.2651, -166.554
5.05538, 2, -47.2466, -11.9874, 29.3595, 13.6653, 67.2651, -166.554
5.06322, 2, -47.2466, -11.9874, 29.3595, 13.6654, 67.2651, -166.554
5.07134, 2, -47.2465, -11.9873, 29.3595, 13.6653, 67.2651, -166.554
5.07924, 2, -47.2465, -11.9873, 29.3594, 13.6653, 67.2651, -166.554
5.08725, 2, -47.2465, -11.9873, 29.3594, 13.6653, 67.2651, -166.554
5.0953, 2, -47.2465, -11.9873, 29.3595, 13.6653, 67.2651, -166.554
5.10323, 2, -47.2465, -11.9873, 29.3595, 13.6653, 67.2651, -166.554
5.11124, 2, -47.2464, -11.9873, 29.3595, 13.6652, 67.2651, -166.554
5.11935, 2, -47.2464, -11.9872, 29.3594, 13.6652, 67.2651, -166.554
5.12724, 2, -47.2463, -11.9872, 29.3595, 13.6652, 67.2651, -166.554
5.13524, 2, -47.2463, -11.9871, 29.3595, 13.6652, 67.2651, -166.554
5.14331, 4, -47.2462, -11.9871, 29.3595, 13.6652, 67.2651, -166.554
5.15123, 4, -47.2461, -11.9871, 29.3595, 13.6652, 67.2651, -166.554
5.15923, 4, -47.2461, -11.987, 29.3595, 13.6652, 67.2651, -166.554
5.16733, 4, -47.246, -11.987, 29.3595, 13.6651, 67.2651, -166.554
5.17523, 4, -47.2459, -11.987, 29.3595, 13.6651, 67.2651, -166.554
5.18323, 4, -47.2459, -11.987, 29.3595, 13.6651, 67.2652, -166.554
5.1913, 4, -47.2459, -11.987, 29.3595, 13.6652, 67.2652, -166.554
5.19925, 4, -47.2459, -11.987, 29.3595, 13.6651, 67.2652, -166.554
5.20727, 4, -47.2458, -11.9869, 29.3595, 13.6651, 67.2652, -166.553
5.21537, 4, -47.2458, -11.9869, 29.3595, 13.6651, 67.2653, -166.553
5.22337, 4, -47.2458, -11.9869, 29.3595, 13.6651, 67.2653, -166.553
5.23132, 4, -47.2458, -11.9868, 29.3595, 13.665, 67.2653, -166.553
5.23958, 4, -47.2457, -11.9868, 29.3595, 13.6651, 67.2652, -166.553
5.25485, 4, -47.2456, -11.9867, 29.3595, 13.665, 67.2652, -166.553
5.25684, 4, -47.2455, -11.9867, 29.3595, 13.665, 67.2652, -166.553
5.26356, 4, -47.2455, -11.9867, 29.3595, 13.665, 67.2652, -166.553
5.2725, 4, -47.2454, -11.9867, 29.3595, 13.665, 67.2653, -166.553
5.28131, 4, -47.2454, -11.9867, 29.3595, 13.665, 67.2653, -166.553
5.28866, 4, -47.2453, -11.9867, 29.3595, 13.6649, 67.2653, -166.553
5.2964, 4, -47.2453, -11.9866, 29.3594, 13.6649, 67.2653, -166.553
5.30484, 4, -47.2453, -11.9866, 29.3595, 13.6649, 67.2653, -166.553
5.31174, 4, -47.2453, -11.9866, 29.3595, 13.6649, 67.2653, -166.553
5.32016, 4, -47.2452, -11.9866, 29.3595, 13.6649, 67.2653, -166.553
5.33135, 4, -47.2452, -11.9866, 29.3595, 13.6649, 67.2653, -166.553
5.33643, 4, -47.2452, -11.9865, 29.3594, 13.6649, 67.2653, -166.553
5.34447, 4, -47.2451, -11.9865, 29.3594, 13.6649, 67.2653, -166.553
5.35436, 4, -47.2451, -11.9865, 29.3595, 13.6649, 67.2653, -166.553
5.36044, 4, -47.245, -11.9864, 29.3595, 13.6649, 67.2653, -166.553
5.37406, 4, -47.245, -11.9864, 29.3595, 13.6648, 67.2653, -166.553
5.37671, 4, -47.2449, -11.9864, 29.3595, 13.6648, 67.2653, -166.553
5.38666, 4, -47.2449, -11.9864, 29.3595, 13.6648, 67.2653, -166.553
5.39266, 4, -47.2449, -11.9864, 29.3594, 13.6648, 67.2653, -166.553
5.40092, 4, -47.2449, -11.9864, 29.3595, 13.6648, 67.2653, -166.553
5.40789, 4, -47.245, -11.9864, 29.3595, 13.6648, 67.2653, -166.553
5.42045, 4, -47.2482, -11.9886, 29.3617, 13.6666, 67.2659, -166.553
5.42475, 4, -47.25, -11.9904, 29.3638, 13.67, 67.2668, -166.552
5.43261, 4, -47.2555, -11.997, 29.3723, 13.6865, 67.2708, -166.55
5.44423, 4, -47.2595, -12.0021, 29.3798, 13.7219, 67.2804, -166.542
5.44851, 4, -47.2709, -12.0174, 29.4044, 13.7502, 67.2989, -166.527
5.45846, 5, -47.3011, -12.058, 29.4769, 13.9002, 67.3305, -166.502
5.46548, 5, -47.3329, -12.0996, 29.5583, 14.0718, 67.3783, -166.463
5.47378, 5, -47.3761, -12.1551, 29.6728, 14.3167, 67.4458, -166.406
5.47945, 5, -47.4025, -12.1883, 29.7435, 14.4695, 67.488, -166.371
5.48896, 5, -47.4649, -12.2661, 30.0125, 15.0544, 67.646, -166.237
5.49536, 5, -47.5397, -12.3591, 30.1216, 15.2905, 67.7093, -166.183
5.50553, 5, -47.6742, -12.5254, 30.5017, 16.1061, 67.9252, -165.998
5.51453, 5, -47.7766, -12.6522, 30.7938, 16.7214, 68.0858, -165.859
5.51936, 5, -47.8309, -12.7196, 30.9494, 17.0451, 68.1689, -165.787
5.53072, 5, -47.9445, -12.8612, 31.2753, 17.7152, 68.425, -165.565
5.53783, 5, -48.063, -13.0097, 31.6164, 18.4026, 68.5107, -165.416
5.54436, 5, -48.1837, -13.1622, 31.9661, 19.0978, 68.681, -165.342
5.55138, 5, -48.3037, -13.3154, 32.3202, 19.7902, 68.8479, -165.195
5.55944, 5, -48.4197, -13.4662, 32.6744, 20.4693, 69.011, -165.045
5.56744, 5, -48.5276, -13.612, 33.0242, 21.1254, 69.1708, -164.886
5.57546, 6, -48.623, -13.749, 33.3629, 21.7457, 69.3292, -164.704
5.58858, 6, -48.7018, -13.8753, 33.6858, 22.3222, 69.5692, -164.359
5.59376, 7, -48.7606, -14.0466, 34.1337, 23.0945, 69.7349, -164.061
5.59937, 7, -48.798, -14.099, 34.2727, 23.3277, 69.8205, -163.888
5.6114, 8, -48.8169, -14.2403, 34.6591, 23.9687, 70.094, -163.261
5.61941, 8, -48.8065, -14.3214, 34.8966, 24.3601, 70.2931, -162.754
5.62341, 9, -48.7951, -14.3593, 35.0107, 24.5493, 70.3985, -162.477
5.63503, 9, -48.7394, -14.4669, 35.3407, 25.1064, 70.7359, -161.571
5.64211, 10, -48.7149, -14.5011, 35.449, 25.2913, 70.8544, -160.923
5.64916, 10, -48.6585, -14.5668, 35.6656, 25.6628, 71.098, -160.591
5.65639, 11, -48.5939, -14.6299, 35.883, 26.0371, 71.3467, -159.919
5.66364, 11, -48.5231, -14.692, 36.1029, 26.4136, 71.5957, -159.245
5.67558, 12, -48.4088, -14.786, 36.4353, 26.9831, 71.9649, -158.244
5.67949, 12, -48.3693, -14.8176, 36.5454, 27.1742, 72.0868, -157.912
5.69058, 13, -48.2479, -14.9123, 36.8723, 27.7531, 72.4503, -156.924
5.69636, 13, -48.2063, -14.9439, 36.9796, 27.9482, 72.5713, -156.597
5.70685, 14, -48.0776, -15.039, 37.2954, 28.5398, 72.936, -155.613
5.71139, 14, -48.0329, -15.0709, 37.3991, 28.7389, 73.0582, -155.286
5.72155, 15, -47.9413, -15.1344, 37.6046, 29.1393, 73.3033, -154.632
5.72758, 15, -47.8468, -15.1961, 37.8066, 29.5413, 73.5481, -153.981
5.73639, 16, -47.7485, -15.2561, 38.0061, 29.9436, 73.7918, -153.332
5.74346, 16, -47.645, -15.3159, 38.204, 30.345, 74.0336, -152.687
5.75245, 17, -47.536, -15.3766, 38.3991, 30.7451, 74.2728, -152.047
5.7641, 17, -47.3633, -15.4698, 38.6854, 31.3403, 74.6236, -151.094
5.76749, 18, -47.3032, -15.5011, 38.7796, 31.5372, 74.7382, -150.78
5.77819, 18, -47.1786, -15.5644, 38.966, 31.9284, 74.9633, -150.156
5.78358, 19, -47.0485, -15.6292, 39.1491, 32.3161, 75.1823, -149.54
5.79438, 19, -46.913, -15.6962, 39.3298, 32.7013, 75.3956, -148.931
5.80129, 20, -46.7722, -15.7654, 39.5092, 33.0842, 75.6034, -148.329
5.8094, 20, -46.6263, -15.8371, 39.6867, 33.4649, 75.806, -147.735
5.81582, 21, -46.4753, -15.9117, 39.8619, 33.8442, 76.0037, -147.149
5.82543, 21, -46.3199, -15.9894, 40.0355, 34.2216, 76.1964, -146.569
5.83196, 22, -46.1599, -16.0697, 40.208, 34.597, 76.3838, -145.997
5.84246, 22, -45.9944, -16.1521, 40.378, 34.9694, 76.5658, -145.432
5.84824, 22, -45.8232, -16.2361, 40.545, 35.3381, 76.7425, -144.874
5.85748, 23, -45.6458, -16.3222, 40.7096, 35.7028, 76.9136, -144.321
5.86844, 24, -45.3678, -16.4543, 40.9505, 36.2408, 77.1601, -143.502
5.87633, 24, -45.1743, -16.5439, 41.1056, 36.5926, 77.3179, -142.962
5.88205, 24, -45.0751, -16.5892, 41.1816, 36.7661, 77.3951, -142.693
5.89077, 25, -44.872, -16.6803, 41.3304, 37.1082, 77.5457, -142.158
5.89662, 26, -44.6623, -16.772, 41.4745, 37.4436, 77.6918, -141.627
5.90579, 26, -44.4454, -16.8641, 41.6132, 37.7717, 77.8337, -141.098
5.91254, 27, -44.2212, -16.9561, 41.7463, 38.0923, 77.9715, -140.571
5.92187, 27, -43.9903, -17.0475, 41.8734, 38.4048, 78.105, -140.045
5.92741, 28, -43.8724, -17.0929, 41.9346, 38.558, 78.1705, -139.782
5.93736, 28, -43.5087, -17.2278, 42.1086, 39.0052, 78.3613, -138.997
5.94636, 29, -43.2579, -17.316, 42.2162, 39.2927, 78.4845, -138.474
5.95413, 29, -43.0007, -17.4027, 42.3168, 39.5719, 78.6044, -137.952
5.95948, 30, -42.8694, -17.4453, 42.3644, 39.7084, 78.663, -137.691
5.9699, 30, -42.463, -17.5704, 42.4963, 40.1048, 78.835, -136.908
5.97545, 30, -42.3231, -17.6108, 42.5366, 40.2328, 78.8907, -136.648
5.98337, 31, -42.0373, -17.6898, 42.612, 40.4822, 79, -136.128
5.99147, 32, -41.744, -17.7664, 42.6804, 40.723, 79.1071, -135.608
6.0018, 32, -41.2916, -17.877, 42.7704, 41.0685, 79.2624, -134.829
6.00995, 33, -40.982, -17.9471, 42.8215, 41.2887, 79.3629, -134.312
6.02111, 33, -40.6656, -18.0139, 42.8655, 41.5008, 79.4608, -133.537
6.02338, 34, -40.505, -18.0463, 42.8848, 41.6037, 79.5087, -133.537
6.03393, 34, -40.1802, -18.1091, 42.9316, 41.9004, 79.6486, -132.764
6.04201, 35, -39.6839, -18.198, 42.9538, 42.0885, 79.7389, -132.25
6.04745, 35, -39.5155, -18.2259, 42.9622, 42.1798, 79.7828, -131.994
6.05604, 36, -39.1737, -18.2792, 42.9738, 42.3566, 79.8696, -131.482
6.06337, 36, -38.8244, -18.3292, 42.9785, 42.5255, 79.9539, -130.971
6.07129, 37, -38.4681, -18.3758, 42.9766, 42.687, 80.0364, -130.461
6.08399, 37, -37.9228, -18.4392, 42.9608, 42.9149, 80.1561, -129.701
6.08735, 38, -37.7383, -18.4585, 42.9522, 42.9872, 80.1949, -129.448
6.09985, 38, -37.1777, -18.5113, 42.9163, 43.193, 80.3084, -128.691
6.10435, 39, -36.9886, -18.5272, 42.901, 43.2578, 80.345, -128.44
6.11208, 39, -36.607, -18.5563, 42.8653, 43.382, 80.4165, -127.939
6.12045, 40, -36.2208, -18.5817, 42.8229, 43.4989, 80.4867, -127.44
6.1291, 40, -35.8286, -18.6033, 42.7741, 43.6085, 80.5547, -126.942
6.13635, 41, -35.4303, -18.6208, 42.7186, 43.7111, 80.6214, -126.447
6.14517, 41, -35.0263, -18.6347, 42.6567, 43.8061, 80.6851, -125.953
6.15235, 42, -34.6176, -18.6451, 42.5883, 43.8945, 80.7479, -125.462
6.16043, 42, -34.2056, -18.6521, 42.5134, 43.9754, 80.8077, -124.973
6.16932, 43, -33.7903, -18.656, 42.4324, 44.0494, 80.8665, -124.487
6.1769, 43, -33.3712, -18.6566, 42.3454, 44.1158, 80.9233, -124.002
6.18767, 44, -32.9466, -18.6535, 42.2526, 44.2028, 81.0053, -123.28
6.19235, 44, -32.5159, -18.6467, 42.1541, 44.2279, 81.0321, -123.041
6.20045, 45, -32.0787, -18.636, 42.0498, 44.2731, 81.0836, -122.563
6.20895, 45, -31.6363, -18.6216, 41.9395, 44.3112, 81.1336, -122.089
6.21864, 46, -31.1904, -18.5937, 41.7626, 44.3538, 81.2062, -121.38
6.22436, 46, -30.7429, -18.5827, 41.7008, 44.364, 81.2289, -121.146
6.23262, 47, -30.2925, -18.5577, 41.5727, 44.3788, 81.2739, -120.678
6.24342, 47, -29.6076, -18.5119, 41.3696, 44.3878, 81.3402, -119.98
6.24963, 48, -29.3761, -18.4944, 41.2989, 44.3873, 81.3614, -119.748
6.25908, 48, -28.9084, -18.4356, 41.0774, 44.3722, 81.424, -119.056
6.26609, 49, -28.4352, -18.4138, 41.0007, 44.3629, 81.445, -118.826
6.27212, 49, -27.9587, -18.3669, 40.8428, 44.3376, 81.4864, -118.367
6.28074, 50, -27.4799, -18.3155, 40.6786, 44.3021, 81.5268, -117.91
6.28837, 50, -26.9977, -18.2591, 40.5077, 44.2575, 81.5679, -117.453
6.29641, 51, -26.5096, -18.197, 40.3305, 44.2043, 81.6103, -116.997
6.30446, 51, -26.0139, -18.1294, 40.1468, 44.1404, 81.6527, -116.542
6.31194, 52, -25.5109, -18.0562, 39.9556, 44.0673, 81.6954, -116.088
6.3205, 52, -25.0039, -17.9778, 39.7572, 43.9834, 81.7396, -115.635
6.32837, 53, -24.4947, -17.894, 39.5528, 43.8893, 81.7844, -115.182
6.33954, 53, -23.9829, -17.8045, 39.3415, 43.7296, 81.8525, -114.504
6.34534, 54, -23.4655, -17.7088, 39.1223, 43.6711, 81.8764, -114.278
6.35436, 54, -22.94, -17.6068, 38.8965, 43.546, 81.9256, -113.826
6.36137, 55, -22.4064, -17.4987, 38.6636, 43.4098, 81.9758, -113.375
6.37184, 55, -21.5982, -17.325, 38.3004, 43.1835, 82.0568, -112.697
6.37625, 56, -21.3277, -17.2642, 38.1762, 43.1022, 82.0845, -112.471
6.38483, 56, -20.784, -17.1383, 37.9222, 42.9311, 82.1409, -112.02
6.39205, 57, -20.5099, -17.0733, 37.6613, 42.7484, 82.2, -111.569
6.40423, 57, -19.3902, -16.7992, 37.2579, 42.4522, 82.2907, -110.894
6.4081, 58, -19.3902, -16.7992, 37.2579, 42.4522, 82.2907, -110.669
6.41867, 58, -18.5329, -16.5778, 36.8397, 42.1277, 82.3866, -110.219
6.42468, 59, -17.9583, -16.4233, 36.5527, 41.896, 82.4527, -109.77
6.43349, 59, -17.3796, -16.2643, 36.2594, 41.6517, 82.5217, -109.32
6.43935, 60, -17.0871, -16.1831, 36.1106, 41.5248, 82.5566, -109.095
6.4494, 60, -16.1941, -15.9314, 35.6553, 41.1249, 82.6654, -108.422
6.45936, 61, -15.5906, -15.7571, 35.3454, 40.8418, 82.7396, -107.973
6.46604, 61, -14.9837, -15.5786, 35.0296, 40.5461, 82.8161, -107.525
6.47332, 62, -14.3731, -15.3957, 34.7084, 40.2378, 82.8948, -107.076
6.48197, 62, -13.7542, -15.2074, 34.3818, 39.9163, 82.9758, -106.628
6.48742, 63, -13.4406, -15.1108, 34.2169, 39.7503, 83.0174, -106.403
6.49695, 63, -12.487, -14.8112, 33.7136, 39.2294, 83.1471, -105.728
6.50332, 64, -12.1665, -14.7089, 33.5432, 39.0482, 83.1924, -105.503
6.51303, 64, -11.5226, -14.5002, 33.1972, 38.6746, 83.2857, -104.826
6.51932, 65, -10.8722, -14.2844, 32.8451, 38.2861, 83.3835, -104.599
6.52735, 65, -10.2108, -14.061, 32.4867, 37.8822, 83.4862, -104.144
6.54198, 66, -9.20099, -13.5943, 31.7549, 37.0256, 83.7075, -103.23
6.54398, 66, -8.86083, -13.5943, 31.7549, 37.0256, 83.7075, -103.23
6.55133, 67, -8.17672, -13.3502, 31.3805, 36.5729, 83.8268, -102.769
6.56242, 67, -7.13421, -12.9704, 30.8064, 35.8632, 84.0181, -102.074
6.56842, 68, -6.78171, -12.84, 30.6123, 35.6181, 84.0854, -101.841
6.57621, 68, -6.07037, -12.5742, 30.2216, 35.1164, 84.225, -101.373
6.58334, 69, -5.35268, -12.3022, 29.8267, 34.6, 84.3715, -100.903
6.59239, 69, -4.62833, -12.0216, 29.4278, 34.0684, 84.5241, -100.431
6.60452, 70, -3.52646, -11.5871, 28.8251, 33.2458, 84.7652, -99.7181
6.60802, 70, -3.15474, -11.4383, 28.6234, 32.9639, 84.8491, -99.4791
6.6185, 71, -2.02797, -10.9794, 28.015, 32.0968, 85.1111, -98.7596
6.62568, 71, -1.64847, -10.8228, 27.8105, 31.8003, 85.2965, -98.2763
6.63145, 72, -0.884127, -10.5048, 27.3995, 31.1957, 85.3927, -98.0335
6.64037, 72, -0.113602, -10.1816, 26.9864, 30.5745, 85.5914, -97.5457
6.64733, 73, 0.661943, -9.85072, 26.5722, 29.9415, 85.7982, -97.0553
6.65542, 73, 1.44223, -9.51128, 26.1583, 29.2986, 86.0121, -96.564
6.66448, 74, 2.2258, -9.16609, 25.7458, 28.6477, 86.2333, -96.0713
6.67232, 74, 3.01134, -8.81747, 25.3367, 27.9902, 86.4612, -95.5773
6.67979, 75, 3.79849, -8.46431, 24.9334, 27.3278, 86.6947, -95.083
6.6875, 75, 4.58821, -8.10408, 24.5357, 26.6629, 86.9331, -94.5883
6.70133, 76, 5.77614, -7.5527, 23.9503, 25.664, 87.3011, -93.8448
6.70466, 76, 6.17272, -7.36612, 23.7582, 25.3293, 87.4269, -93.596
6.71242, 77, 6.96623, -6.98757, 23.3781, 24.6594, 87.6841, -93.097
6.72277, 77, 8.16014, -6.40375, 22.8139, 23.6482, 88.0877, -92.3433
6.72748, 78, 8.55841, -6.20507, 22.6271, 23.3088, 88.2277, -92.0908
6.74468, 79, 10.152, -5.39041, 21.8875, 21.9397, 88.8189, -91.0695
6.74767, 79, 10.5505, -5.1808, 21.7043, 21.5957, 88.9741, -90.8115
6.76132, 80, 11.7435, -4.53643, 21.1593, 20.565, 89.4568, -90.0307
6.76335, 80, 12.1395, -4.31675, 20.9801, 20.2213, 89.6231, -89.768
6.76718, 80, 12.5342, -4.09459, 20.8021, 19.8787, 89.7922, -89.5038
6.77526, 81, 13.32, -3.64343, 20.4499, 19.1993, 90.1379, -88.9714
6.78321, 81, 14.1008, -3.18409, 20.104, 18.5288, 90.4928, -88.4343
6.79208, 82, 14.8743, -2.71709, 19.7654, 17.8694, 90.8554, -87.8936
6.79941, 82, 15.6391, -2.2414, 19.4361, 17.2225, 91.2251, -87.3499
6.80828, 83, 16.3935, -1.75815, 19.1157, 16.5907, 91.6013, -86.8033
6.81541, 83, 17.1369, -1.26834, 18.805, 15.977, 91.9837, -86.2546
6.82383, 84, 17.8668, -0.772146, 18.5029, 15.3809, 92.3719, -85.7048
6.83233, 84, 18.5802, -0.270874, 18.2102, 14.8044, 92.7668, -85.1545
6.83963, 84, 19.2767, 0.235143, 17.9246, 14.2483, 93.1686, -84.6031
6.84773, 85, 19.9565, 0.746671, 17.6453, 13.7137, 93.5782, -84.0523
6.85641, 85, 20.6195, 1.26293, 17.3721, 13.2002, 93.994, -83.5026
6.86382, 86, 21.2658, 1.78322, 17.1044, 12.7095, 94.4145, -82.9542
6.87235, 86, 21.8964, 2.3093, 16.8442, 12.2407, 94.8396, -82.4054
6.87979, 87, 22.5135, 2.84428, 16.59, 11.7944, 95.2703, -81.8552
6.88829, 87, 23.1194, 3.38904, 16.3409, 11.3681, 95.7065, -81.3024
6.89515, 88, 23.4186, 3.66446, 16.2183, 11.1621, 95.927, -81.0248
6.90426, 88, 24.3013, 4.50135, 15.8562, 10.5692, 96.5968, -80.1808
6.91123, 88, 24.5901, 4.7848, 15.7382, 10.3797, 96.8231, -79.8955
6.91918, 89, 25.1586, 5.35983, 15.5071, 10.0122, 97.2803, -79.3171
6.92871, 90, 25.994, 6.24131, 15.1677, 9.49047, 97.9772, -78.4286
6.9364, 90, 26.5426, 6.83991, 14.9461, 9.16118, 98.4496, -77.8195
6.94318, 90, 26.8131, 7.14223, 14.8372, 9.00278, 98.6882, -77.5098
6.95119, 91, 27.3436, 7.75342, 14.6232, 8.69919, 99.1702, -76.8806
6.95919, 91, 27.8604, 8.37478, 14.4135, 8.41428, 99.6582, -76.2397
6.9672, 92, 28.3673, 9.00694, 14.2082, 8.1506, 100.151, -75.587
6.97717, 93, 29.1137, 9.97324, 13.9094, 7.79623, 100.897, -74.5926
6.98317, 93, 29.3577, 10.299, 13.8127, 7.68957, 101.146, -74.2578
6.99147, 94, 29.8363, 10.955, 13.6252, 7.49411, 101.645, -73.5825
6.99917, 94, 30.3008, 11.6151, 13.4455, 7.32195, 102.143, -72.9008
7.00739, 95, 30.7509, 12.278, 13.2728, 7.17344, 102.638, -72.2148
7.01527, 95, 31.1871, 12.9429, 13.1072, 7.04861, 103.13, -71.5234
7.02513, 96, 31.8154, 13.9433, 12.8737, 6.90568, 103.862, -70.4751
7.0312, 96, 32.0175, 14.2773, 12.7993, 6.86997, 104.104, -70.1234
7.03923, 96, 32.4097, 14.9459, 12.6551, 6.81692, 104.585, -69.416
7.04829, 97, 32.7857, 15.6147, 12.5177, 6.78555, 105.061, -68.7022
7.05638, 98, 33.1456, 16.2819, 12.388, 6.77522, 105.532, -67.9841
7.06323, 98, 33.4902, 16.9467, 12.2669, 6.78733, 105.995, -67.2637
7.07119, 98, 33.8206, 17.6071, 12.1545, 6.82023, 106.45, -66.5396
7.08162, 99, 34.2907, 18.5867, 12.0035, 6.90657, 107.112, -65.4548
7.08724, 99, 34.4414, 18.9094, 11.9577, 6.9448, 107.327, -65.094
7.0952, 100, 34.7343, 19.5483, 11.8727, 7.03395, 107.747, -64.3736
7.10317, 100, 35.0154, 20.1779, 11.7964, 7.14047, 108.154, -63.658
7.11124, 101, 35.2845, 20.7965, 11.7281, 7.2622, 108.545, -62.9498
7.11917, 101, 35.542, 21.404, 11.6683, 7.39822, 108.922, -62.2479
7.12717, 102, 35.7873, 21.9991, 11.617, 7.54666, 109.282, -61.5557
7.13528, 102, 36.0192, 22.5812, 11.5742, 7.70578, 109.624, -60.8758
7.14323, 103, 36.2404, 23.1488, 11.5403, 7.8739, 109.949, -60.2076
7.15119, 103, 36.4541, 23.7003, 11.5155, 8.05015, 110.255, -59.5517
7.15947, 104, 36.6612, 24.2364, 11.5001, 8.23488, 110.541, -58.9101
7.16716, 104, 36.8609, 24.7569, 11.493, 8.42853, 110.808, -58.2807
7.17518, 104, 37.0546, 25.261, 11.4928, 8.63115, 111.055, -57.6629
7.18326, 104, 37.2427, 25.7495, 11.4992, 8.84212, 111.283, -57.0568
7.19118, 104, 37.4224, 26.2218, 11.5109, 9.05976, 111.492, -56.4639
7.19917, 104, 37.5917, 26.6776, 11.5256, 9.28246, 111.684, -55.8842
7.20724, 104, 37.7528, 27.1181, 11.5428, 9.50749, 111.862, -55.3207
7.21521, 104, 37.9089, 27.5432, 11.5624, 9.73193, 112.027, -54.7766
7.22329, 104, 38.0612, 27.9523, 11.583, 9.95339, 112.182, -54.2548
7.23127, 104, 38.2085, 28.3445, 11.6037, 10.1704, 112.329, -53.7554
7.23932, 104, 38.3498, 28.7204, 11.6236, 10.3818, 112.468, -53.2798
7.24739, 104, 38.4842, 29.0788, 11.6422, 10.5862, 112.598, -52.8285
7.25527, 104, 38.611, 29.4191, 11.6599, 10.783, 112.721, -52.4018
7.26402, 104, 38.7294, 29.7405, 11.6764, 10.9713, 112.836, -52.0004
7.27225, 104, 38.8394, 30.0427, 11.6917, 11.1505, 112.944, -51.6235
7.2792, 104, 38.9412, 30.3267, 11.706, 11.3199, 113.043, -51.2718
7.28728, 104, 39.0354, 30.5909, 11.7193, 11.4792, 113.136, -50.946
7.2952, 104, 39.1218, 30.8355, 11.7312, 11.6279, 113.221, -50.6452
7.30331, 104, 39.2002, 31.0607, 11.742, 11.7655, 113.298, -50.3697
7.3114, 104, 39.2707, 31.2659, 11.7519, 11.8916, 113.369, -50.1195
7.31941, 104, 39.3334, 31.4513, 11.7612, 12.006, 113.431, -49.8944
7.3277, 104, 39.3884, 31.6176, 11.7692, 12.1087, 113.488, -49.6944
7.3359, 104, 39.4367, 31.7643, 11.7764, 12.1989, 113.536, -49.5195
7.34428, 104, 39.4789, 31.8924, 11.7829, 12.277, 113.578, -49.3694
7.35169, 104, 39.5155, 32.0032, 11.7889, 12.3433, 113.613, -49.2428
7.36027, 104, 39.546, 32.0972, 11.7941, 12.3981, 113.642, -49.1394
7.36801, 104, 39.571, 32.1756, 11.7987, 12.441, 113.664, -49.0565
7.37589, 104, 39.5911, 32.2401, 11.8029, 12.4743, 113.681, -48.9933
7.38428, 104, 39.6068, 32.2923, 11.8068, 12.4991, 113.694, -48.947
7.39179, 104, 39.6132, 32.3142, 11.8086, 12.5089, 113.702, -48.9145
7.40018, 104, 39.628, 32.3648, 11.8134, 12.5294, 113.707, -48.8929
7.40775, 104, 39.6316, 32.3773, 11.8148, 12.5337, 113.709, -48.8854
7.41628, 104, 39.6392, 32.4056, 11.8185, 12.5418, 113.712, -48.872
7.42316, 104, 39.6406, 32.4123, 11.8195, 12.5433, 113.713, -48.8699
7.43127, 104, 39.6426, 32.4221, 11.8211, 12.545, 113.714, -48.8675
7.43913, 105, 39.6434, 32.4282, 11.8223, 12.5459, 113.714, -48.8664
7.44841, 105, 39.6426, 32.4336, 11.8238, 12.5464, 113.714, -48.8661
7.45521, 105, 39.6421, 32.4349, 11.8242, 12.5465, 113.714, -48.8661
7.46315, 105, 39.6411, 32.4369, 11.8249, 12.5466, 113.714, -48.8663
7.47273, 105, 39.6396, 32.4391, 11.8259, 12.5467, 113.714, -48.8667
7.48101, 105, 39.6384, 32.4404, 11.8264, 12.5467, 113.714, -48.867
7.48875, 105, 39.6376, 32.4416, 11.827, 12.5467, 113.714, -48.8674
7.49672, 105, 39.6371, 32.4428, 11.8276, 12.5467, 113.714, -48.8677
7.50497, 105, 39.6367, 32.4439, 11.8282, 12.5468, 113.714, -48.868
7.51116, 105, 39.6366, 32.4444, 11.8285, 12.5468, 113.714, -48.8682
7.52097, 105, 39.6364, 32.4453, 11.8289, 12.5468, 113.714, -48.8686
7.52903, 105, 39.636, 32.4463, 11.8295, 12.5468, 113.714, -48.8689
7.53515, 105, 39.6358, 32.4466, 11.8297, 12.5468, 113.714, -48.869
7.54416, 105, 39.6355, 32.4469, 11.83, 12.5468, 113.714, -48.8692
7.55217, 105, 39.6352, 32.4471, 11.8302, 12.5467, 113.714, -48.8694
7.56023, 105, 39.635, 32.4472, 11.8304, 12.5467, 113.714, -48.8697
