hehonglu123/Motion-Primitive-Planning/ILC/recorded_data/realrobot/from_NX/iteration_8/run_2.csv
timestamp, cmd_num, J1, J2, J3, J4, J5, J6
0.000373, -1, 39.6302, 32.4471, 11.8319, 12.5453, 113.713, -48.8723
0.003142, -1, 39.6302, 32.4471, 11.8319, 12.5453, 113.713, -48.8724
0.007888, -1, 39.6302, 32.4471, 11.8319, 12.5453, 113.713, -48.8724
0.028796, -1, 39.6302, 32.447, 11.8319, 12.5453, 113.713, -48.8724
0.03162, -1, 39.6302, 32.447, 11.8319, 12.5453, 113.713, -48.8724
0.032858, -1, 39.6302, 32.447, 11.8319, 12.5453, 113.713, -48.8724
0.039692, -1, 39.6302, 32.447, 11.8319, 12.5453, 113.713, -48.8724
0.047677, -1, 39.6302, 32.4471, 11.8319, 12.5453, 113.713, -48.8724
0.055676, -1, 39.6297, 32.447, 11.8319, 12.5453, 113.713, -48.8724
0.06374, -1, 39.6273, 32.4466, 11.8319, 12.5453, 113.713, -48.8724
0.071687, -1, 39.6221, 32.4452, 11.8318, 12.5453, 113.713, -48.8726
0.079681, -1, 39.6132, 32.4422, 11.8318, 12.5453, 113.712, -48.8738
0.087739, -1, 39.6, 32.4369, 11.8317, 12.5452, 113.711, -48.8788
0.095693, -1, 39.5803, 32.4283, 11.8318, 12.5452, 113.707, -48.8902
0.103693, -1, 39.5517, 32.4157, 11.8322, 12.5452, 113.7, -48.9108
0.111738, -1, 39.5133, 32.398, 11.8343, 12.5452, 113.688, -48.9443
0.11968, -1, 39.4639, 32.3743, 11.8392, 12.5452, 113.669, -48.9948
0.127679, -1, 39.4018, 32.3438, 11.8475, 12.5453, 113.641, -49.0665
0.135759, -1, 39.3264, 32.3061, 11.8602, 12.5453, 113.604, -49.1608
0.143686, -1, 39.2373, 32.2605, 11.878, 12.5456, 113.558, -49.2808
0.151823, -1, 39.1343, 32.2069, 11.9005, 12.5461, 113.501, -49.4261
0.159728, -1, 39.0172, 32.1455, 11.9272, 12.547, 113.433, -49.5961
0.167701, -1, 38.8867, 32.0768, 11.9578, 12.5485, 113.358, -49.7883
0.176538, -1, 38.7438, 32.0015, 11.9918, 12.5503, 113.274, -50.0001
0.183908, -1, 38.5894, 31.9202, 12.028, 12.5524, 113.184, -50.2276
0.191769, -1, 38.4251, 31.834, 12.0658, 12.5547, 113.089, -50.4674
0.20055, -1, 38.2528, 31.7438, 12.1046, 12.5571, 112.991, -50.7157
0.207808, -1, 38.0744, 31.6506, 12.1436, 12.5595, 112.891, -50.969
0.21578, -1, 37.8908, 31.5552, 12.1825, 12.5619, 112.789, -51.2255
0.225002, -1, 37.7033, 31.4583, 12.2213, 12.5643, 112.687, -51.4839
0.231674, -1, 37.5131, 31.3607, 12.2601, 12.5667, 112.585, -51.7433
0.239774, -1, 37.3215, 31.2628, 12.2989, 12.5692, 112.482, -52.0029
0.247721, -1, 37.1294, 31.1649, 12.3377, 12.5717, 112.379, -52.2625
0.255772, -1, 36.9372, 31.0672, 12.3764, 12.5743, 112.276, -52.5226
0.264084, -1, 36.7453, 30.9695, 12.4152, 12.5769, 112.173, -52.7829
0.270687, -1, 36.6495, 30.9206, 12.4346, 12.5782, 112.122, -52.9131
0.279957, -1, 36.362, 30.7741, 12.4929, 12.5821, 111.967, -53.3034
0.288155, -1, 36.1705, 30.6763, 12.5317, 12.5846, 111.865, -53.5638
0.29608, -1, 35.979, 30.5784, 12.5706, 12.5872, 111.762, -53.8244
0.30272, -1, 35.8832, 30.5294, 12.5901, 12.5886, 111.71, -53.9548
0.312331, -1, 35.5957, 30.3824, 12.6485, 12.5923, 111.556, -54.3452
0.320211, -1, 35.4036, 30.2841, 12.6872, 12.595, 111.453, -54.6055
0.328273, -1, 35.2113, 30.1859, 12.726, 12.5976, 111.349, -54.8662
0.336363, -1, 35.0188, 30.0875, 12.765, 12.6001, 111.247, -55.127
0.344288, -1, 34.9227, 30.0383, 12.7844, 12.6027, 111.143, -55.3875
0.478732, -1, 31.6456, 28.3632, 13.4458, 12.6465, 109.443, -59.6947
0.479944, -1, 31.6456, 28.3632, 13.4458, 12.6465, 109.443, -59.6947
0.482002, -1, 31.5488, 28.3138, 13.4653, 12.648, 109.391, -59.8253
0.483224, -1, 31.5488, 28.3138, 13.4653, 12.648, 109.391, -59.8253
0.484503, -1, 31.5488, 28.3138, 13.4653, 12.648, 109.391, -59.8253
0.486612, -1, 31.4521, 28.2645, 13.4848, 12.6494, 109.34, -59.9558
0.487883, -1, 31.4521, 28.2645, 13.4848, 12.6494, 109.34, -59.9558
0.490819, -1, 31.3555, 28.2152, 13.5042, 12.6507, 109.288, -60.0864
0.492179, -1, 31.3555, 28.2152, 13.5042, 12.6507, 109.288, -60.0864
0.495129, -1, 31.2591, 28.166, 13.5237, 12.6521, 109.237, -60.2171
0.496456, -1, 31.2591, 28.166, 13.5237, 12.6521, 109.237, -60.2171
0.498555, -1, 31.1627, 28.1168, 13.5433, 12.6535, 109.185, -60.3478
0.499841, -1, 31.1627, 28.1168, 13.5433, 12.6535, 109.185, -60.3478
0.501635, -1, 31.0665, 28.0675, 13.5629, 12.655, 109.134, -60.4786
0.503095, -1, 31.0665, 28.0675, 13.5629, 12.655, 109.134, -60.4786
0.507458, -1, 30.9703, 28.0183, 13.5824, 12.6564, 109.082, -60.6094
0.508766, -1, 30.9703, 28.0183, 13.5824, 12.6564, 109.082, -60.6094
0.510752, -1, 30.8742, 27.969, 13.6019, 12.6578, 109.031, -60.7401
0.512032, -1, 30.8742, 27.969, 13.6019, 12.6578, 109.031, -60.7401
0.5148, -1, 30.7782, 27.9197, 13.6213, 12.6592, 108.979, -60.8707
0.516073, -1, 30.7782, 27.9197, 13.6213, 12.6592, 108.979, -60.8707
0.521994, -1, 30.5863, 27.8212, 13.6603, 12.662, 108.876, -61.1319
0.527716, -1, 30.4903, 27.7719, 13.6799, 12.6634, 108.824, -61.2626
0.535656, -1, 30.2983, 27.6731, 13.7188, 12.6661, 108.721, -61.524
0.543676, -1, 30.1061, 27.5744, 13.7578, 12.6689, 108.618, -61.7858
0.551724, -1, 29.9135, 27.4756, 13.7968, 12.6716, 108.514, -62.0474
0.559665, -1, 29.7205, 27.3769, 13.8357, 12.6743, 108.411, -62.309
0.567663, -1, 29.5268, 27.2781, 13.8746, 12.6769, 108.308, -62.5708
0.575752, -1, 29.3329, 27.1793, 13.9136, 12.6795, 108.205, -62.8327
0.583663, -1, 29.1387, 27.0804, 13.9525, 12.6821, 108.101, -63.0942
0.591677, -1, 28.9442, 26.9815, 13.9916, 12.6846, 107.998, -63.3556
0.599736, -1, 28.75, 26.8826, 14.0305, 12.6872, 107.894, -63.6172
0.60768, -1, 28.5559, 26.7838, 14.0694, 12.6897, 107.791, -63.879
0.615785, -1, 28.362, 26.685, 14.1085, 12.6922, 107.688, -64.1408
0.623669, -1, 28.1686, 26.5863, 14.1475, 12.6946, 107.584, -64.4022
0.631697, -1, 27.9756, 26.4875, 14.1865, 12.6971, 107.481, -64.6639
0.639745, -1, 27.7828, 26.3887, 14.2255, 12.6995, 107.378, -64.9257
0.647657, -1, 27.5903, 26.2897, 14.2645, 12.7019, 107.275, -65.1876
0.655699, -1, 27.3982, 26.1908, 14.3034, 12.7043, 107.171, -65.449
0.663767, -1, 27.2061, 26.0918, 14.3425, 12.7067, 107.068, -65.7106
0.798801, -1, 24.0168, 24.461, 14.9855, 12.7449, 105.364, -70.0287
0.800844, -1, 23.9205, 24.4116, 15.005, 12.7461, 105.313, -70.1595
0.802042, -1, 23.9205, 24.4116, 15.005, 12.7461, 105.313, -70.1595
0.803913, -1, 23.9205, 24.4116, 15.005, 12.7461, 105.261, -70.2904
0.806139, -1, 23.824, 24.3622, 15.0244, 12.7473, 105.261, -70.2904
0.807984, -1, 23.824, 24.3622, 15.0244, 12.7473, 105.209, -70.4212
0.809484, -1, 23.7276, 24.3128, 15.0438, 12.7486, 105.209, -70.4212
0.812834, -1, 23.631, 24.2633, 15.0633, 12.7498, 105.158, -70.5522
0.814079, -1, 23.631, 24.2633, 15.0633, 12.7498, 105.158, -70.5522
0.815951, -1, 23.631, 24.2633, 15.0633, 12.7498, 105.158, -70.6832
0.817522, -1, 23.5344, 24.2139, 15.0828, 12.751, 105.106, -70.6832
0.818842, -1, 23.5344, 24.2139, 15.0828, 12.751, 105.106, -70.6832
0.821662, -1, 23.4377, 24.1645, 15.1022, 12.7522, 105.054, -70.814
0.822878, -1, 23.4377, 24.1645, 15.1022, 12.7522, 105.054, -70.814
0.825098, -1, 23.3409, 24.115, 15.1217, 12.7534, 105.002, -70.9447
0.83003, -1, 23.244, 24.0656, 15.1412, 12.7546, 104.951, -71.0756
0.831433, -1, 23.244, 24.0656, 15.1412, 12.7546, 104.951, -71.0756
0.833551, -1, 23.147, 24.0161, 15.1606, 12.7558, 104.899, -71.2065
0.834755, -1, 23.147, 24.0161, 15.1606, 12.7558, 104.899, -71.2065
0.836825, -1, 23.0501, 23.9667, 15.18, 12.757, 104.848, -71.3374
0.838038, -1, 23.0501, 23.9667, 15.18, 12.757, 104.848, -71.3374
0.840072, -1, 23.0501, 23.9667, 15.18, 12.757, 104.848, -71.3374
0.849668, -1, 22.759, 23.8184, 15.2385, 12.7607, 104.692, -71.7303
0.855646, -1, 22.6621, 23.769, 15.258, 12.7619, 104.641, -71.8611
0.863644, -1, 22.4683, 23.6704, 15.297, 12.7644, 104.537, -72.1226
0.8717, -1, 22.2749, 23.5717, 15.3359, 12.7669, 104.434, -72.384
0.879649, -1, 22.0816, 23.473, 15.3748, 12.7695, 104.33, -72.6455
0.887644, -1, 21.8886, 23.3743, 15.4138, 12.7721, 104.227, -72.9072
0.895668, -1, 21.6961, 23.2756, 15.4528, 12.7748, 104.124, -73.1685
0.903659, -1, 21.504, 23.1768, 15.4917, 12.7774, 104.021, -73.4299
0.911695, -1, 21.3117, 23.0781, 15.5307, 12.78, 103.918, -73.6914
0.919689, -1, 21.1194, 22.9794, 15.5697, 12.7827, 103.815, -73.9531
0.927648, -1, 20.927, 22.8808, 15.6086, 12.7854, 103.712, -74.2143
0.935692, -1, 20.7346, 22.7822, 15.6476, 12.7882, 103.608, -74.4754
0.943677, -1, 20.542, 22.6835, 15.6865, 12.7909, 103.505, -74.7367
0.951647, -1, 20.3488, 22.5849, 15.7253, 12.7936, 103.402, -74.9981
0.959708, -1, 20.1551, 22.4861, 15.7643, 12.7963, 103.299, -75.2594
0.96764, -1, 19.9614, 22.3874, 15.8032, 12.7991, 103.196, -75.5204
0.975666, -1, 19.7677, 22.2887, 15.8419, 12.8018, 103.093, -75.7815
0.984648, -1, 19.5741, 22.1901, 15.8808, 12.8045, 102.99, -76.0428
0.991648, -1, 19.3807, 22.0916, 15.9197, 12.8072, 102.887, -76.3041
1.00065, -1, 19.1877, 21.9929, 15.9585, 12.8099, 102.784, -76.5649
1.00667, -1, 18.9949, 21.8943, 15.9975, 12.8127, 102.681, -76.8257
1.01564, -1, 18.8024, 21.7956, 16.0363, 12.8153, 102.578, -77.0867
1.02366, -1, 18.6103, 21.6969, 16.075, 12.818, 102.475, -77.3477
1.03165, -1, 18.4185, 21.5983, 16.114, 12.8207, 102.372, -77.6084
1.03964, -1, 18.2266, 21.4997, 16.1528, 12.8234, 102.27, -77.8691
1.0477, -1, 18.0347, 21.4012, 16.1916, 12.8259, 102.167, -78.1299
1.05563, -1, 17.8429, 21.3028, 16.2305, 12.8285, 102.064, -78.3908
1.06365, -1, 17.6508, 21.2045, 16.2694, 12.831, 101.961, -78.6512
1.07172, -1, 17.4583, 21.1061, 16.3082, 12.8335, 101.858, -78.9117
1.07964, -1, 17.2656, 21.0078, 16.347, 12.836, 101.755, -79.1722
1.08766, -1, 17.0725, 20.9095, 16.3858, 12.8384, 101.652, -79.433
1.09577, -1, 16.8795, 20.8113, 16.4246, 12.8408, 101.549, -79.6934
1.10367, -1, 16.6863, 20.7131, 16.4634, 12.8431, 101.446, -79.9539
1.11166, -1, 16.4933, 20.6149, 16.502, 12.8455, 101.344, -80.2143
1.11972, -1, 16.3005, 20.5167, 16.5408, 12.8478, 101.241, -80.475
1.12764, -1, 16.1083, 20.4183, 16.5795, 12.8501, 101.138, -80.7356
1.13564, -1, 15.9163, 20.3199, 16.6182, 12.8524, 101.036, -80.9957
1.14375, -1, 15.7246, 20.2213, 16.657, 12.8548, 100.933, -81.2557
1.15164, -1, 15.5333, 20.1229, 16.6955, 12.8571, 100.83, -81.5159
1.15971, -1, 15.3421, 20.0246, 16.7341, 12.8594, 100.728, -81.7761
1.16787, -1, 15.1509, 19.9263, 16.773, 12.8617, 100.625, -82.036
1.17568, -1, 14.9597, 19.8281, 16.8116, 12.864, 100.523, -82.2958
1.18378, -1, 14.7684, 19.7299, 16.8503, 12.8663, 100.42, -82.5556
1.19256, -1, 14.5769, 19.6318, 16.889, 12.8685, 100.318, -82.8158
1.19974, -1, 14.385, 19.5337, 16.9277, 12.8708, 100.215, -83.0754
1.2078, -1, 14.1929, 19.4357, 16.9664, 12.8731, 100.113, -83.3348
1.21657, -1, 14.0005, 19.3377, 17.0051, 12.8753, 100.01, -83.5945
1.22376, -1, 13.8081, 19.2399, 17.0436, 12.8777, 99.9074, -83.8542
1.23182, -1, 13.6155, 19.1421, 17.0823, 12.8799, 99.8049, -84.1136
1.24056, -1, 13.4232, 19.0442, 17.121, 12.8823, 99.7024, -84.3729
1.24767, -1, 13.2313, 18.9463, 17.1595, 12.8845, 99.6003, -84.6321
1.25578, -1, 13.0397, 18.8484, 17.1981, 12.8869, 99.4978, -84.8915
1.26464, -1, 12.8485, 18.7504, 17.2368, 12.8892, 99.3953, -85.1509
1.2719, -1, 12.6576, 18.6524, 17.2753, 12.8916, 99.2932, -85.4099
1.27999, -1, 12.4669, 18.5546, 17.3139, 12.894, 99.1908, -85.6688
1.28928, -1, 12.2767, 18.4568, 17.3524, 12.8965, 99.0885, -85.9276
1.29613, -1, 12.0865, 18.3591, 17.3909, 12.8988, 98.9866, -86.1867
1.30264, -1, 11.9914, 18.3103, 17.4102, 12.9, 98.9355, -86.3162
1.3107, -1, 11.801, 18.2126, 17.4489, 12.9024, 98.8335, -86.5748
1.32074, -1, 11.5149, 18.0662, 17.5066, 12.9061, 98.6808, -86.9627
1.32904, -1, 11.3239, 17.9686, 17.5451, 12.9085, 98.5788, -87.2213
1.33623, -1, 11.1326, 17.8711, 17.5837, 12.9109, 98.4769, -87.4798
1.34426, -1, 10.941, 17.7736, 17.6222, 12.9134, 98.375, -87.738
1.3531, -1, 10.8452, 17.7249, 17.6414, 12.9146, 98.3239, -87.9962
1.35877, -1, 10.6534, 17.6275, 17.6799, 12.9171, 98.2219, -88.1254
1.36768, -1, 10.462, 17.5299, 17.7183, 12.9197, 98.1203, -88.3839
1.37563, -1, 10.2709, 17.4324, 17.7567, 12.9222, 98.0184, -88.6419
1.3827, -1, 10.08, 17.3349, 17.7952, 12.9248, 97.9165, -88.8999
1.39169, -1, 9.88956, 17.2372, 17.8334, 12.9274, 97.8147, -89.158
1.39964, -1, 9.69952, 17.1397, 17.8718, 12.93, 97.7126, -89.4162
1.40664, -1, 9.5099, 17.0423, 17.9101, 12.9328, 97.6106, -89.6743
1.41563, -1, 9.32065, 16.9449, 17.9484, 12.9355, 97.5089, -89.9318
1.4237, -1, 9.13138, 16.8476, 17.9868, 12.9381, 97.4069, -90.1893
1.43065, -1, 8.94197, 16.7504, 18.0252, 12.9408, 97.3051, -90.4469
1.43964, -1, 8.75253, 16.6533, 18.0635, 12.9435, 97.2036, -90.7045
1.44764, -1, 8.56297, 16.5561, 18.102, 12.9461, 97.1018, -90.9616
1.45463, -1, 8.37315, 16.4591, 18.1403, 12.9488, 97.0004, -91.2188
1.46362, -1, 8.18283, 16.3621, 18.1786, 12.9514, 96.8988, -91.4761
1.47162, -1, 7.99226, 16.2652, 18.217, 12.954, 96.7972, -91.7334
1.48118, -1, 7.8017, 16.1683, 18.2552, 12.9568, 96.6958, -92.1188
1.48763, -1, 7.61109, 16.0714, 18.2935, 12.9594, 96.5943, -92.247
1.49663, -1, 7.4207, 15.9745, 18.3319, 12.962, 96.4929, -92.5037
1.50266, -1, 7.23051, 15.8776, 18.37, 12.9645, 96.3917, -92.7606
1.51163, -1, 7.04067, 15.7806, 18.4081, 12.9671, 96.2904, -93.0173
1.51962, -1, 6.85124, 15.6836, 18.4465, 12.9696, 96.189, -93.2736
1.52762, -1, 6.66233, 15.5868, 18.4846, 12.9721, 96.0884, -93.5299
1.53564, -1, 6.47386, 15.49, 18.5226, 12.9747, 95.9873, -93.7863
1.54369, -1, 6.28567, 15.3932, 18.5609, 12.9772, 95.8862, -94.0428
1.55163, -1, 6.09763, 15.2965, 18.599, 12.9797, 95.7854, -94.2988
1.55963, -1, 5.90937, 15.1998, 18.6371, 12.9821, 95.6843, -94.5546
1.56769, -1, 5.721, 15.1031, 18.6753, 12.9844, 95.5833, -94.8105
1.57565, -1, 5.53246, 15.0065, 18.7134, 12.9867, 95.4828, -95.0665
1.58362, -1, 5.34371, 14.91, 18.7515, 12.9891, 95.3818, -95.3222
1.59173, -1, 5.15451, 14.8135, 18.7897, 12.9913, 95.2812, -95.5776
1.59962, -1, 4.96509, 14.7172, 18.8277, 12.9936, 95.1807, -95.833
1.60764, -1, 4.77572, 14.6208, 18.8658, 12.9959, 95.0798, -96.0886
1.61571, -1, 4.58633, 14.5244, 18.9038, 12.998, 94.979, -96.3439
1.62362, -1, 4.39711, 14.428, 18.9419, 13.0002, 94.8783, -96.5988
1.63164, -1, 4.20812, 14.3316, 18.9799, 13.0024, 94.7774, -96.8536
1.63969, -1, 4.01942, 14.2352, 19.0178, 13.0047, 94.6766, -97.1088
1.64765, -1, 3.8314, 14.139, 19.0557, 13.007, 94.5759, -97.3637
1.65562, -1, 3.6439, 14.0428, 19.0937, 13.0092, 94.4751, -97.6183
1.66373, -1, 3.45672, 13.9466, 19.1316, 13.0115, 94.3746, -97.8731
1.67167, -1, 3.26976, 13.8505, 19.1694, 13.0139, 94.2739, -98.1278
1.67966, -1, 3.08282, 13.7545, 19.2073, 13.0161, 94.1731, -98.3827
1.68793, -1, 2.89584, 13.6585, 19.2453, 13.0184, 94.0726, -98.6371
1.69572, -1, 2.7088, 13.5625, 19.2832, 13.0206, 93.9718, -98.8911
1.70372, -1, 2.52148, 13.4665, 19.3211, 13.0229, 93.8714, -99.1452
1.7121, -1, 2.33405, 13.3706, 19.3588, 13.0251, 93.7711, -99.3993
1.71925, -1, 2.14615, 13.2748, 19.3966, 13.0274, 93.6708, -99.6533
1.7277, -1, 1.95801, 13.179, 19.4346, 13.0296, 93.5706, -99.907
1.73638, -1, 1.76983, 13.0831, 19.4723, 13.0319, 93.4708, -100.161
1.74368, -1, 1.5816, 12.9873, 19.51, 13.0341, 93.3706, -100.414
1.75166, -1, 1.39351, 12.8915, 19.5479, 13.0364, 93.2705, -100.668
1.76051, -1, 1.20566, 12.7956, 19.5856, 13.0387, 93.1707, -100.921
1.76775, -1, 1.01826, 12.6999, 19.6233, 13.0411, 93.0705, -101.174
1.77593, -1, 0.831563, 12.6043, 19.6611, 13.0435, 92.9706, -101.427
1.78469, -1, 0.645182, 12.5087, 19.6987, 13.0458, 92.871, -101.68
1.79207, -1, 0.459255, 12.4132, 19.7363, 13.0483, 92.7711, -101.933
1.79869, -1, 0.366423, 12.3656, 19.7551, 13.0495, 92.7212, -102.06
1.80889, -1, 0.0881716, 12.2225, 19.8116, 13.0532, 92.5722, -102.439
1.81618, -1, -0.0972252, 12.1272, 19.8492, 13.0556, 92.4724, -102.691
1.82423, -1, -0.282877, 12.032, 19.8869, 13.0581, 92.3729, -102.944
1.83298, -1, -0.468778, 11.9368, 19.9244, 13.0606, 92.2736, -103.196
1.84035, -1, -0.655027, 11.8417, 19.962, 13.0631, 92.1741, -103.448
1.84826, -1, -0.841467, 11.7467, 19.9995, 13.0655, 92.0746, -103.7
1.85701, -1, -0.934725, 11.6992, 20.0183, 13.0668, 92.025, -103.826
1.86363, -1, -1.12149, 11.6041, 20.0557, 13.0694, 91.9256, -104.078
1.87167, -1, -1.3085, 11.5091, 20.0932, 13.0719, 91.8263, -104.329
1.87961, -1, -1.49532, 11.414, 20.1308, 13.0744, 91.7272, -104.581
1.88669, -1, -1.68193, 11.3188, 20.1681, 13.077, 91.628, -104.833
1.89566, -1, -1.86819, 11.2237, 20.2056, 13.0796, 91.5287, -105.084
1.90362, -1, -2.05383, 11.1288, 20.243, 13.0823, 91.4297, -105.335
1.91164, -1, -2.23891, 11.0339, 20.2803, 13.0849, 91.3304, -105.586
1.91962, -1, -2.42372, 10.939, 20.3178, 13.0876, 91.2311, -105.837
1.92763, -1, -2.60811, 10.8443, 20.3551, 13.0903, 91.1323, -106.088
1.93463, -1, -2.79207, 10.7495, 20.3923, 13.0929, 91.0331, -106.339
1.94364, -1, -2.976, 10.6548, 20.4298, 13.0955, 90.934, -106.59
1.95163, -1, -3.16008, 10.5601, 20.4671, 13.0981, 90.8353, -106.84
1.95969, -1, -3.3444, 10.4655, 20.5043, 13.1007, 90.7363, -107.091
1.96761, -1, -3.52905, 10.3711, 20.5416, 13.1032, 90.6373, -107.342
1.97561, -1, -3.71385, 10.2767, 20.5788, 13.1058, 90.5387, -107.592
1.98536, -1, -3.89893, 10.1823, 20.616, 13.1082, 90.4398, -107.842
1.99163, -1, -4.08426, 10.088, 20.6533, 13.1107, 90.3411, -108.091
1.99969, -1, -4.26984, 9.9937, 20.6905, 13.1132, 90.2426, -108.342
2.00867, -1, -4.45547, 9.89937, 20.7276, 13.1155, 90.1439, -108.591
2.01596, -1, -4.64074, 9.80503, 20.7649, 13.1178, 90.0454, -108.841
2.02468, -1, -4.82561, 9.71083, 20.8021, 13.1201, 89.9471, -109.09
2.03161, -1, -5.01015, 9.61672, 20.8391, 13.1226, 89.8485, -109.34
2.04042, -1, -5.19386, 9.52266, 20.8763, 13.125, 89.75, -109.589
2.04761, -1, -5.37718, 9.42864, 20.9134, 13.1273, 89.6518, -109.838
2.05562, -1, -5.56012, 9.33476, 20.9504, 13.1296, 89.5533, -110.087
2.06441, -1, -5.74262, 9.24083, 20.9876, 13.1319, 89.4551, -110.336
2.07161, -1, -5.92494, 9.14691, 21.0246, 13.1342, 89.3572, -110.584
2.07961, -1, -6.10736, 9.05306, 21.0615, 13.1363, 89.2589, -110.833
2.08844, -1, -6.29008, 8.95928, 21.0986, 13.1386, 89.1609, -111.081
2.09564, -1, -6.473, 8.86563, 21.1356, 13.1409, 89.0632, -111.33
2.10361, -1, -6.65617, 8.77199, 21.1723, 13.143, 88.965, -111.578
2.11246, -1, -6.83977, 8.67836, 21.2093, 13.1451, 88.8672, -111.826
2.11963, -1, -7.02374, 8.58473, 21.2462, 13.1472, 88.7694, -112.074
2.12761, -1, -7.20797, 8.49119, 21.2831, 13.1494, 88.6715, -112.322
2.13652, -1, -7.39219, 8.39751, 21.32, 13.1514, 88.5737, -112.569
2.14361, -1, -7.57603, 8.30387, 21.3568, 13.1536, 88.4762, -112.817
2.15163, -1, -7.75947, 8.21046, 21.3935, 13.1558, 88.3785, -113.064
2.16043, -1, -7.94249, 8.11707, 21.4304, 13.1581, 88.2811, -113.311
2.16761, -1, -8.12504, 8.02372, 21.4673, 13.1603, 88.1839, -113.558
2.17565, -1, -8.30688, 7.93047, 21.504, 13.1625, 88.0864, -113.805
2.18444, -1, -8.48829, 7.83722, 21.5408, 13.1648, 87.989, -114.052
2.19172, -1, -8.66929, 7.74404, 21.5776, 13.167, 87.8917, -114.299
2.19971, -1, -8.84998, 7.65085, 21.6143, 13.1693, 87.7942, -114.545
2.20849, -1, -9.03072, 7.55774, 21.6511, 13.1715, 87.6968, -114.792
2.21571, -1, -9.21176, 7.46473, 21.6878, 13.1738, 87.5997, -115.038
2.22371, -1, -9.393, 7.37191, 21.7244, 13.176, 87.5026, -115.285
2.23258, -1, -9.57464, 7.27904, 21.7612, 13.1781, 87.4054, -115.531
2.23961, -1, -9.75667, 7.1862, 21.7978, 13.1804, 87.3083, -115.777
2.24764, -1, -9.93903, 7.09349, 21.8343, 13.1826, 87.2111, -116.023
2.25656, -1, -10.1216, 7.00072, 21.8709, 13.1849, 87.1139, -116.269
2.26381, -1, -10.3043, 6.90794, 21.9075, 13.1871, 87.0169, -116.515
2.27184, -1, -10.4869, 6.81518, 21.9441, 13.1893, 86.9196, -116.76
2.28078, -1, -10.6691, 6.72246, 21.9807, 13.1916, 86.8225, -117.006
2.2879, -1, -10.8509, 6.6299, 22.0171, 13.1939, 86.7257, -117.251
2.29608, -1, -11.0321, 6.53732, 22.0535, 13.1964, 86.6288, -117.496
2.30263, -1, -11.1225, 6.49107, 22.0718, 13.1976, 86.5804, -117.619
2.31205, -1, -11.3925, 6.35235, 22.1267, 13.2012, 86.4356, -117.986
2.31868, -1, -11.4823, 6.30612, 22.1448, 13.2024, 86.3871, -118.108
2.32816, -1, -11.7513, 6.16747, 22.1995, 13.2061, 86.2421, -118.476
2.33468, -1, -11.841, 6.1213, 22.2178, 13.2074, 86.1938, -118.598
2.34432, -1, -12.1099, 5.98295, 22.2724, 13.211, 86.0489, -118.964
2.35217, -1, -12.1996, 5.93691, 22.2906, 13.2135, 85.9525, -119.209
2.35873, -1, -12.3793, 5.8449, 22.3271, 13.2147, 85.9044, -119.331
2.36822, -1, -12.5595, 5.75285, 22.3633, 13.2172, 85.808, -119.575
2.3756, -1, -12.7399, 5.66088, 22.3995, 13.2196, 85.7118, -119.819
2.38359, -1, -12.9208, 5.56898, 22.436, 13.2221, 85.616, -120.062
2.39166, -1, -13.1019, 5.47703, 22.4722, 13.2245, 85.52, -120.306
2.3996, -1, -13.2832, 5.38501, 22.5084, 13.227, 85.4239, -120.55
2.40759, -1, -13.4642, 5.2931, 22.5447, 13.2294, 85.3282, -120.793
2.41559, -1, -13.6448, 5.20123, 22.5809, 13.232, 85.2324, -121.036
2.42365, -1, -13.825, 5.10935, 22.617, 13.2345, 85.1366, -121.279
2.43162, -1, -14.0045, 5.01753, 22.6532, 13.2371, 85.041, -121.522
2.43959, -1, -14.1832, 4.92584, 22.6893, 13.2397, 84.9454, -121.765
2.4477, -1, -14.3615, 4.83416, 22.7253, 13.2423, 84.8497, -122.008
2.45459, -1, -14.5394, 4.74249, 22.7616, 13.2448, 84.7543, -122.25
2.46359, -1, -14.7171, 4.65091, 22.7978, 13.2474, 84.6586, -122.493
2.47165, -1, -14.8946, 4.55944, 22.8338, 13.2498, 84.5628, -122.735
2.47959, -1, -15.0723, 4.46798, 22.87, 13.2522, 84.4672, -122.978
2.48859, -1, -15.2504, 4.37669, 22.9061, 13.2547, 84.3716, -123.219
2.49566, -1, -15.4289, 4.28535, 22.9421, 13.257, 84.2759, -123.461
2.50465, -1, -15.6078, 4.19409, 22.9781, 13.2593, 84.1804, -123.703
2.51162, -1, -15.787, 4.10285, 23.0141, 13.2616, 84.0848, -123.945
2.51966, -1, -15.9663, 4.0116, 23.05, 13.2639, 83.9894, -124.186
2.52761, -1, -16.1459, 3.92031, 23.086, 13.2661, 83.894, -124.428
2.53565, -1, -16.3257, 3.82905, 23.1221, 13.2683, 83.7985, -124.669
2.54366, -1, -16.5051, 3.73783, 23.1578, 13.2704, 83.7031, -124.911
2.55159, -1, -16.684, 3.64671, 23.1936, 13.2726, 83.6076, -125.152
2.55966, -1, -16.8625, 3.55562, 23.2295, 13.2749, 83.5123, -125.393
2.5676, -1, -17.04, 3.46459, 23.2653, 13.2772, 83.4169, -125.634
2.57562, -1, -17.2167, 3.37361, 23.3012, 13.2793, 83.3216, -125.874
2.58366, -1, -17.3933, 3.28272, 23.337, 13.2816, 83.2266, -126.115
2.5916, -1, -17.5696, 3.19187, 23.3727, 13.2837, 83.1315, -126.356
2.59962, -1, -17.7457, 3.10122, 23.4085, 13.2859, 83.0367, -126.596
2.60767, -1, -17.9217, 3.01059, 23.4445, 13.2879, 82.942, -126.836
2.61561, -1, -18.098, 2.92012, 23.4802, 13.29, 82.8471, -127.076
2.62362, -1, -18.2745, 2.82976, 23.5159, 13.2922, 82.7523, -127.316
2.63166, -1, -18.4514, 2.73933, 23.5517, 13.2943, 82.6578, -127.556
2.63959, -1, -18.6289, 2.64892, 23.5873, 13.2963, 82.563, -127.796
2.64761, -1, -18.8066, 2.55858, 23.623, 13.2984, 82.4684, -128.035
2.65568, -1, -18.9847, 2.46811, 23.6588, 13.3004, 82.3742, -128.275
2.6636, -1, -19.1629, 2.37764, 23.6943, 13.3024, 82.2797, -128.514
2.67159, -1, -19.341, 2.28729, 23.7299, 13.3043, 82.1853, -128.753
2.67971, -1, -19.5187, 2.19687, 23.7656, 13.3065, 82.0916, -128.993
2.68765, -1, -19.6957, 2.10649, 23.8011, 13.3087, 81.9972, -129.231
2.69568, -1, -19.8722, 2.01621, 23.8365, 13.3109, 81.9031, -129.471
2.70375, -1, -20.048, 1.92595, 23.8721, 13.313, 81.8092, -129.71
2.71168, -1, -20.2232, 1.83569, 23.9076, 13.3152, 81.7149, -129.948
2.71976, -1, -20.3981, 1.7456, 23.943, 13.3174, 81.6209, -130.186
2.72771, -1, -20.5727, 1.65552, 23.9787, 13.3196, 81.5271, -130.425
2.73559, -1, -20.7472, 1.56551, 24.0142, 13.3217, 81.4331, -130.663
2.74373, -1, -20.9218, 1.47566, 24.0496, 13.3239, 81.3394, -130.901
2.75163, -1, -21.0968, 1.38592, 24.0851, 13.3262, 81.2457, -131.139
2.75974, -1, -21.2722, 1.29617, 24.1206, 13.3284, 81.1518, -131.376
2.7678, -1, -21.4479, 1.20649, 24.156, 13.3305, 81.0579, -131.614
2.77572, -1, -21.624, 1.11685, 24.1914, 13.3326, 80.9641, -131.852
2.78463, -1, -21.8001, 1.02717, 24.2269, 13.3348, 80.8703, -132.089
2.79194, -1, -21.9764, 0.93754, 24.2622, 13.337, 80.7765, -132.327
2.79871, -1, -22.0647, 0.89275, 24.2799, 13.3381, 80.7297, -132.445
2.80899, -1, -22.3296, 0.758413, 24.333, 13.3413, 80.5893, -132.801
2.81608, -1, -22.5056, 0.668962, 24.3682, 13.3436, 80.4957, -133.038
2.82259, -1, -22.5935, 0.624214, 24.3858, 13.3448, 80.4489, -133.156
2.83308, -1, -22.8562, 0.490054, 24.4387, 13.3483, 80.3085, -133.512
2.84028, -1, -23.0302, 0.400675, 24.4738, 13.3508, 80.215, -133.748
2.84823, -1, -23.2038, 0.311318, 24.5089, 13.3533, 80.1215, -133.985
2.85714, -1, -23.2906, 0.266643, 24.5265, 13.3545, 80.028, -134.222
2.86268, -1, -23.4637, 0.177354, 24.5617, 13.3569, 79.9812, -134.34
2.87266, -1, -23.7235, 0.0436717, 24.6145, 13.3605, 79.8413, -134.694
2.87958, -1, -23.8102, -0.000878203, 24.6321, 13.3617, 79.7948, -134.812
2.88758, -1, -23.9836, -0.0898386, 24.6672, 13.3641, 79.7016, -135.048
2.89563, -1, -24.1573, -0.178809, 24.7022, 13.3666, 79.6085, -135.284
2.90358, -1, -24.3313, -0.267749, 24.7373, 13.369, 79.5155, -135.52
2.91166, -1, -24.5055, -0.356625, 24.7725, 13.3715, 79.4224, -135.755
2.91958, -1, -24.6801, -0.44546, 24.8075, 13.3738, 79.3294, -135.991
2.92768, -1, -24.855, -0.534356, 24.8425, 13.3763, 79.2363, -136.227
2.93459, -1, -25.0302, -0.623198, 24.8776, 13.3787, 79.1434, -136.462
2.94358, -1, -25.2051, -0.712014, 24.9126, 13.381, 79.0504, -136.697
2.95161, -1, -25.3796, -0.800752, 24.9476, 13.3834, 78.9577, -136.932
2.95967, -1, -25.5538, -0.889586, 24.9826, 13.3859, 78.8651, -137.167
2.96757, -1, -25.7273, -0.978302, 25.0174, 13.3883, 78.7723, -137.402
2.97558, -1, -25.9002, -1.06698, 25.0523, 13.3907, 78.6797, -137.636
2.98517, -1, -26.0726, -1.15571, 25.0873, 13.3932, 78.5876, -137.988
2.99162, -1, -26.2447, -1.24433, 25.1222, 13.3955, 78.4948, -138.105
3.00058, -1, -26.4164, -1.33285, 25.157, 13.398, 78.4022, -138.34
3.00765, -1, -26.5883, -1.42128, 25.192, 13.4003, 78.31, -138.574
3.0156, -1, -26.7603, -1.50962, 25.2269, 13.4025, 78.2173, -138.808
3.02358, -1, -26.9326, -1.59785, 25.2617, 13.4047, 78.1249, -139.042
3.03166, -1, -27.105, -1.68603, 25.2966, 13.407, 78.0328, -139.276
3.03957, -1, -27.2776, -1.77429, 25.3315, 13.4091, 77.9405, -139.51
3.04758, -1, -27.4505, -1.86242, 25.3662, 13.4113, 77.8485, -139.744
3.05559, -1, -27.6236, -1.95054, 25.4009, 13.4134, 77.7566, -139.977
3.06358, -1, -27.7969, -2.03877, 25.4359, 13.4155, 77.6645, -140.211
3.07165, -1, -27.9703, -2.12678, 25.4706, 13.4176, 77.5725, -140.444
3.07959, -1, -28.1435, -2.21483, 25.5053, 13.4197, 77.4805, -140.678
3.08758, -1, -28.3166, -2.30286, 25.5401, 13.4217, 77.3884, -140.911
3.09564, -1, -28.4894, -2.3909, 25.5749, 13.4238, 77.2963, -141.144
3.10361, -1, -28.6618, -2.47887, 25.6095, 13.426, 77.2042, -141.377
3.11159, -1, -28.8335, -2.56688, 25.6442, 13.4281, 77.1123, -141.61
3.11967, -1, -29.0044, -2.65484, 25.6789, 13.4302, 77.0204, -141.842
3.12761, -1, -29.1752, -2.74274, 25.7134, 13.4324, 76.9284, -142.075
3.13558, -1, -29.3458, -2.83055, 25.7481, 13.4344, 76.8368, -142.307
3.14364, -1, -29.5165, -2.91826, 25.7828, 13.4365, 76.7448, -142.54
3.15164, -1, -29.6873, -3.00584, 25.8173, 13.4385, 76.6529, -142.772
3.15961, -1, -29.8584, -3.0934, 25.8519, 13.4406, 76.5613, -143.004
3.16758, -1, -30.0293, -3.18085, 25.8865, 13.4427, 76.4694, -143.236
3.17655, -1, -30.2002, -3.2684, 25.9211, 13.4447, 76.3777, -143.468
3.18363, -1, -30.3715, -3.35585, 25.9556, 13.4468, 76.2863, -143.7
3.19164, -1, -30.543, -3.4433, 25.9902, 13.4488, 76.1946, -143.932
3.20111, -1, -30.7149, -3.53085, 26.0247, 13.4508, 76.1032, -144.164
3.20718, -1, -30.8867, -3.61821, 26.0591, 13.4529, 76.0119, -144.395
3.21574, -1, -31.0585, -3.70561, 26.0937, 13.4549, 75.9204, -144.626
3.22403, -1, -31.2301, -3.79295, 26.1281, 13.457, 75.8291, -144.858
3.23168, -1, -31.4015, -3.88027, 26.1625, 13.459, 75.7378, -145.089
3.2398, -1, -31.5723, -3.96755, 26.197, 13.4612, 75.6465, -145.32
3.24906, -1, -31.7427, -4.0548, 26.2314, 13.4633, 75.5552, -145.551
3.25562, -1, -31.9127, -4.14206, 26.2657, 13.4655, 75.4641, -145.782
3.2637, -1, -32.0824, -4.22929, 26.3001, 13.4677, 75.3731, -146.013
3.2733, -1, -32.2517, -4.3164, 26.3345, 13.47, 75.2819, -146.244
3.27978, -1, -32.4211, -4.40347, 26.3687, 13.4721, 75.1909, -146.474
3.28795, -1, -32.5908, -4.49047, 26.4031, 13.4742, 75.1004, -146.705
3.29742, -1, -32.7605, -4.57737, 26.4375, 13.4764, 75.0093, -146.935
3.30394, -1, -32.9302, -4.6643, 26.4717, 13.4786, 74.9185, -147.166
3.3121, -1, -33.0999, -4.75122, 26.5059, 13.4808, 74.8282, -147.396
3.32167, -1, -33.2698, -4.83804, 26.5402, 13.4831, 74.7373, -147.626
3.32821, -1, -33.4398, -4.92491, 26.5745, 13.4852, 74.6467, -147.856
3.33615, -1, -33.6101, -5.01187, 26.6087, 13.4874, 74.5562, -148.085
3.34496, -1, -33.7804, -5.09865, 26.6429, 13.4896, 74.4656, -148.315
3.35217, -1, -33.8655, -5.1854, 26.6771, 13.4918, 74.3751, -148.545
3.3602, -1, -34.0358, -5.22877, 26.6942, 13.4929, 74.2846, -148.775
3.36897, -1, -34.206, -5.31553, 26.7283, 13.4952, 74.2394, -149.004
3.37557, -1, -34.3761, -5.40218, 26.7626, 13.4974, 74.1487, -149.119
3.38357, -1, -34.5458, -5.48883, 26.7967, 13.4998, 74.0581, -149.348
3.39163, -1, -34.715, -5.57554, 26.8307, 13.5021, 73.9677, -149.577
3.39857, -1, -34.8837, -5.66213, 26.8649, 13.5046, 73.8771, -149.806
3.40757, -1, -35.0521, -5.74867, 26.899, 13.5071, 73.7866, -150.035
3.41562, -1, -35.2203, -5.83516, 26.9331, 13.5095, 73.6963, -150.264
3.42357, -1, -35.3887, -5.92152, 26.9672, 13.512, 73.606, -150.493
3.43162, -1, -35.5573, -6.00772, 27.0013, 13.5143, 73.5156, -150.722
3.43958, -1, -35.7258, -6.09399, 27.0353, 13.5166, 73.4253, -150.951
3.44763, -1, -35.8943, -6.18018, 27.0693, 13.519, 73.3351, -151.18
3.4557, -1, -36.0629, -6.26631, 27.1034, 13.5215, 73.2446, -151.408
3.46356, -1, -36.2314, -6.35242, 27.1374, 13.5239, 73.1541, -151.637
3.47163, -1, -36.4001, -6.43862, 27.1713, 13.5263, 73.0639, -151.865
3.47956, -1, -36.569, -6.52485, 27.2053, 13.5286, 72.9734, -152.093
3.48758, -1, -36.7378, -6.61102, 27.2393, 13.5309, 72.8832, -152.321
3.49656, -1, -36.9068, -6.69719, 27.2732, 13.5331, 72.7932, -152.549
3.50363, -1, -37.0758, -6.78337, 27.3072, 13.5354, 72.703, -152.778
3.51263, -1, -37.2446, -6.8695, 27.3411, 13.5376, 72.6131, -153.005
3.51959, -1, -37.413, -6.95549, 27.3749, 13.54, 72.5233, -153.233
3.52766, -1, -37.5811, -7.04155, 27.4089, 13.5422, 72.4334, -153.461
3.53556, -1, -37.7489, -7.12758, 27.4429, 13.5445, 72.3435, -153.688
3.54356, -1, -37.9165, -7.21354, 27.4767, 13.5467, 72.2537, -153.916
3.55163, -1, -38.0839, -7.29944, 27.5106, 13.5489, 72.164, -154.143
3.55956, -1, -38.2514, -7.38531, 27.5445, 13.5511, 72.0742, -154.37
3.56757, -1, -38.4188, -7.47106, 27.5783, 13.5533, 71.9845, -154.598
3.57567, -1, -38.586, -7.55674, 27.6122, 13.5554, 71.8951, -154.825
3.58356, -1, -38.7533, -7.64247, 27.6461, 13.5575, 71.8053, -155.052
3.59156, -1, -38.9206, -7.72814, 27.6799, 13.5595, 71.7159, -155.279
3.59964, -1, -39.088, -7.81374, 27.7136, 13.5616, 71.6268, -155.506
3.6076, -1, -39.2554, -7.89942, 27.7475, 13.5636, 71.5372, -155.732
3.61556, -1, -39.423, -7.98514, 27.7814, 13.5655, 71.4479, -155.959
3.62365, -1, -39.5906, -8.07069, 27.815, 13.5675, 71.3587, -156.186
3.63156, -1, -39.7583, -8.15623, 27.8488, 13.5695, 71.2694, -156.413
3.63966, -1, -39.9259, -8.24171, 27.8826, 13.5714, 71.18, -156.639
3.64766, -1, -40.0934, -8.32715, 27.9162, 13.5734, 71.0906, -156.865
3.65556, -1, -40.2609, -8.41252, 27.9499, 13.5753, 71.0015, -157.092
3.66358, -1, -40.428, -8.4979, 27.9837, 13.5773, 70.912, -157.318
3.67171, -1, -40.595, -8.58324, 28.0173, 13.5793, 70.8228, -157.544
3.67957, -1, -40.7619, -8.66864, 28.0509, 13.5812, 70.7339, -157.77
3.68764, -1, -40.9285, -8.75399, 28.0846, 13.5833, 70.6446, -157.996
3.69584, -1, -41.0949, -8.83929, 28.1183, 13.5853, 70.5554, -158.222
3.70365, -1, -41.2612, -8.92451, 28.1519, 13.5873, 70.4665, -158.448
3.71166, -1, -41.4274, -9.00963, 28.1854, 13.5893, 70.3772, -158.673
3.72008, -1, -41.5936, -9.09475, 28.2192, 13.5913, 70.288, -158.899
3.72769, -1, -41.7599, -9.17986, 28.2527, 13.5933, 70.1989, -159.124
3.73563, -1, -41.9263, -9.26494, 28.2862, 13.5953, 70.1099, -159.35
3.74436, -1, -42.0927, -9.34995, 28.3199, 13.5974, 70.0209, -159.575
3.75159, -1, -42.259, -9.43504, 28.3535, 13.5994, 69.9319, -159.801
3.7596, -1, -42.4252, -9.52005, 28.3869, 13.6014, 69.8432, -160.026
3.76845, -1, -42.5916, -9.605, 28.4205, 13.6034, 69.754, -160.251
3.77581, -1, -42.758, -9.68995, 28.454, 13.6054, 69.6651, -160.476
3.78373, -1, -42.9244, -9.77491, 28.4873, 13.6075, 69.5765, -160.701
3.79191, -1, -43.0908, -9.85981, 28.5208, 13.6096, 69.4875, -160.926
3.80076, -1, -43.2569, -9.94475, 28.5543, 13.6117, 69.3989, -161.151
3.80794, -1, -43.423, -10.0297, 28.5878, 13.6137, 69.3104, -161.375
3.81605, -1, -43.589, -10.1146, 28.6212, 13.6158, 69.2217, -161.6
3.82262, -1, -43.672, -10.1571, 28.638, 13.6169, 69.1774, -161.713
3.83211, -1, -43.9209, -10.2843, 28.6881, 13.62, 69.0447, -162.049
3.84015, -1, -44.0865, -10.3691, 28.7214, 13.6222, 68.9563, -162.274
3.84884, -1, -44.2518, -10.4538, 28.755, 13.6243, 68.8676, -162.498
3.8562, -1, -44.417, -10.5383, 28.7884, 13.6265, 68.7789, -162.722
3.8642, -1, -44.4996, -10.5806, 28.8217, 13.6287, 68.6904, -162.947
3.87155, -1, -44.6647, -10.6651, 28.8384, 13.6298, 68.646, -163.059
3.87955, -1, -44.8299, -10.7495, 28.8719, 13.632, 68.5575, -163.283
3.88762, -1, -44.9954, -10.834, 28.9053, 13.6342, 68.469, -163.507
3.89555, -1, -45.1607, -10.9185, 28.9386, 13.6364, 68.3807, -163.731
3.90355, -1, -45.326, -11.003, 28.9721, 13.6386, 68.2922, -163.955
3.9116, -1, -45.4912, -11.0874, 29.0054, 13.6409, 68.2038, -164.179
3.91955, -1, -45.6565, -11.1718, 29.0386, 13.6432, 68.1159, -164.403
3.92757, -1, -45.8217, -11.2563, 29.0719, 13.6455, 68.0273, -164.626
3.93562, -1, -45.986, -11.3401, 29.1054, 13.6477, 67.939, -164.85
3.94355, -1, -46.1474, -11.4224, 29.1388, 13.65, 67.8509, -165.073
3.95155, -1, -46.3044, -11.5018, 29.1724, 13.6524, 67.7634, -165.294
3.95962, -1, -46.4547, -11.5769, 29.206, 13.6547, 67.6782, -165.51
3.96756, -1, -46.596, -11.6468, 29.2382, 13.6571, 67.5968, -165.715
3.97555, -1, -46.7256, -11.7102, 29.2681, 13.6594, 67.5222, -165.905
3.98361, -1, -46.8406, -11.7663, 29.2945, 13.6614, 67.4551, -166.074
3.99155, -1, -46.9395, -11.8156, 29.3166, 13.663, 67.3993, -166.216
3.99957, -1, -47.022, -11.8585, 29.3332, 13.6643, 67.3545, -166.329
4.00765, -1, -47.0893, -11.8954, 29.3445, 13.6651, 67.3209, -166.414
4.01664, -1, -47.1417, -11.9249, 29.3517, 13.6655, 67.2975, -166.473
4.02357, -1, -47.1806, -11.9471, 29.3557, 13.6657, 67.2824, -166.511
4.03252, -1, -47.2082, -11.9626, 29.3575, 13.6658, 67.2737, -166.533
4.03954, -1, -47.2264, -11.9727, 29.3583, 13.6658, 67.2689, -166.545
4.04756, -1, -47.2373, -11.9786, 29.3587, 13.6659, 67.2666, -166.551
4.05562, 2, -47.2429, -11.9815, 29.3589, 13.666, 67.2655, -166.553
4.06355, 2, -47.2449, -11.9829, 29.3591, 13.666, 67.2649, -166.555
4.07155, 2, -47.245, -11.9834, 29.3592, 13.6661, 67.2648, -166.555
4.07962, 2, -47.2448, -11.9836, 29.3592, 13.6661, 67.2646, -166.556
4.08757, 2, -47.2448, -11.9836, 29.3593, 13.6661, 67.2645, -166.556
4.09554, 2, -47.2452, -11.9838, 29.3593, 13.6661, 67.2645, -166.556
4.10361, 2, -47.2461, -11.984, 29.3593, 13.6661, 67.2645, -166.556
4.11155, 2, -47.2474, -11.9845, 29.3593, 13.6662, 67.2645, -166.556
4.11955, 2, -47.2492, -11.9853, 29.3593, 13.6662, 67.2645, -166.556
4.12765, 2, -47.2508, -11.9862, 29.3593, 13.6661, 67.2645, -166.556
4.13555, 2, -47.2521, -11.987, 29.3593, 13.6661, 67.2645, -166.556
4.14355, 2, -47.2531, -11.9877, 29.3593, 13.6661, 67.2645, -166.556
4.15167, 2, -47.2535, -11.9881, 29.3593, 13.6662, 67.2645, -166.556
4.15954, 2, -47.2537, -11.9883, 29.3593, 13.6661, 67.2645, -166.556
4.16758, 2, -47.2538, -11.9883, 29.3594, 13.6661, 67.2645, -166.556
4.17564, 2, -47.2535, -11.9883, 29.3594, 13.6661, 67.2645, -166.556
4.18355, 2, -47.253, -11.9883, 29.3594, 13.6661, 67.2645, -166.556
4.19162, 2, -47.2526, -11.9883, 29.3594, 13.6661, 67.2645, -166.556
4.19971, 2, -47.2522, -11.9883, 29.3594, 13.6661, 67.2644, -166.556
4.20765, 2, -47.252, -11.9883, 29.3594, 13.6661, 67.2645, -166.556
4.21564, 2, -47.252, -11.9884, 29.3594, 13.6661, 67.2644, -166.556
4.2237, 2, -47.2522, -11.9885, 29.3594, 13.6661, 67.2645, -166.556
4.23165, 2, -47.2524, -11.9888, 29.3594, 13.666, 67.2645, -166.556
4.2396, 2, -47.253, -11.9892, 29.3594, 13.666, 67.2645, -166.556
4.24773, 2, -47.2535, -11.9895, 29.3594, 13.6661, 67.2646, -166.556
4.25564, 2, -47.2538, -11.9897, 29.3594, 13.6661, 67.2645, -166.556
4.26359, 2, -47.254, -11.9897, 29.3594, 13.666, 67.2645, -166.556
4.27166, 2, -47.254, -11.9897, 29.3594, 13.6661, 67.2645, -166.556
4.27969, 2, -47.2538, -11.9897, 29.3594, 13.6661, 67.2645, -166.556
4.28781, 2, -47.2537, -11.9897, 29.3594, 13.666, 67.2645, -166.556
4.29589, 2, -47.2533, -11.9896, 29.3594, 13.666, 67.2646, -166.556
4.30388, 2, -47.2529, -11.9896, 29.3594, 13.666, 67.2645, -166.556
4.31198, 2, -47.2527, -11.9896, 29.3594, 13.6661, 67.2645, -166.556
4.32005, 2, -47.2524, -11.9896, 29.3594, 13.6661, 67.2645, -166.556
4.32808, 2, -47.2523, -11.9896, 29.3594, 13.666, 67.2645, -166.556
4.33618, 2, -47.2523, -11.9897, 29.3594, 13.666, 67.2645, -166.556
4.34426, 2, -47.2523, -11.9897, 29.3594, 13.666, 67.2645, -166.556
4.35211, 2, -47.2523, -11.9898, 29.3594, 13.666, 67.2645, -166.556
4.3602, 2, -47.2523, -11.9898, 29.3594, 13.666, 67.2645, -166.556
4.3682, 2, -47.2523, -11.9898, 29.3594, 13.666, 67.2645, -166.555
4.37553, 2, -47.2523, -11.9898, 29.3594, 13.666, 67.2645, -166.555
4.38353, 2, -47.2523, -11.9898, 29.3594, 13.666, 67.2646, -166.555
4.39158, 2, -47.2522, -11.9897, 29.3594, 13.666, 67.2645, -166.555
4.39953, 2, -47.2521, -11.9897, 29.3594, 13.666, 67.2646, -166.555
4.40755, 2, -47.252, -11.9896, 29.3594, 13.666, 67.2646, -166.555
4.41559, 2, -47.2519, -11.9896, 29.3594, 13.666, 67.2646, -166.555
4.42353, 2, -47.2518, -11.9895, 29.3594, 13.666, 67.2645, -166.555
4.43154, 2, -47.2517, -11.9895, 29.3594, 13.666, 67.2645, -166.555
4.43958, 2, -47.2516, -11.9895, 29.3594, 13.666, 67.2646, -166.555
4.44755, 2, -47.2516, -11.9896, 29.3594, 13.666, 67.2646, -166.555
4.45553, 2, -47.2515, -11.9896, 29.3594, 13.666, 67.2646, -166.555
4.46361, 2, -47.2515, -11.9896, 29.3594, 13.666, 67.2646, -166.555
4.47161, 2, -47.2514, -11.9896, 29.3594, 13.666, 67.2646, -166.555
4.47952, 2, -47.2513, -11.9896, 29.3594, 13.666, 67.2646, -166.555
4.48908, 2, -47.2513, -11.9896, 29.3594, 13.666, 67.2646, -166.555
4.49553, 2, -47.2511, -11.9896, 29.3594, 13.666, 67.2646, -166.555
4.50453, 2, -47.2511, -11.9895, 29.3594, 13.666, 67.2646, -166.555
4.51162, 2, -47.251, -11.9894, 29.3594, 13.666, 67.2646, -166.555
4.52058, 2, -47.2508, -11.9893, 29.3594, 13.666, 67.2645, -166.555
4.52758, 2, -47.2507, -11.9893, 29.3594, 13.666, 67.2646, -166.555
4.53562, 2, -47.2506, -11.9893, 29.3594, 13.666, 67.2646, -166.555
4.54353, 2, -47.2506, -11.9893, 29.3594, 13.666, 67.2646, -166.555
4.55153, 2, -47.2505, -11.9893, 29.3594, 13.666, 67.2646, -166.555
4.5596, 2, -47.2504, -11.9893, 29.3594, 13.666, 67.2646, -166.555
4.56754, 2, -47.2503, -11.9893, 29.3594, 13.666, 67.2646, -166.555
4.57556, 2, -47.2502, -11.9893, 29.3594, 13.666, 67.2646, -166.555
4.5836, 2, -47.2501, -11.9893, 29.3594, 13.666, 67.2646, -166.555
4.59153, 2, -47.2499, -11.9893, 29.3594, 13.6659, 67.2646, -166.555
4.59953, 2, -47.2498, -11.9892, 29.3594, 13.6659, 67.2646, -166.555
4.60761, 2, -47.2498, -11.9891, 29.3594, 13.666, 67.2646, -166.555
4.61553, 2, -47.2496, -11.9891, 29.3594, 13.6659, 67.2646, -166.555
4.62353, 2, -47.2496, -11.989, 29.3594, 13.6659, 67.2646, -166.555
4.63162, 2, -47.2495, -11.989, 29.3594, 13.6659, 67.2646, -166.555
4.63953, 2, -47.2494, -11.989, 29.3594, 13.6659, 67.2646, -166.555
4.64755, 2, -47.2493, -11.9889, 29.3594, 13.6659, 67.2646, -166.555
4.65569, 2, -47.2493, -11.9889, 29.3594, 13.6659, 67.2646, -166.555
4.66353, 2, -47.2492, -11.9889, 29.3594, 13.6659, 67.2646, -166.555
4.67156, 2, -47.2492, -11.9889, 29.3594, 13.6659, 67.2646, -166.555
4.67961, 2, -47.2491, -11.9889, 29.3594, 13.6659, 67.2647, -166.555
4.68755, 2, -47.2491, -11.9889, 29.3594, 13.6658, 67.2646, -166.555
4.69561, 2, -47.249, -11.9889, 29.3594, 13.6658, 67.2646, -166.555
4.7037, 2, -47.249, -11.9888, 29.3594, 13.6658, 67.2646, -166.555
4.71162, 2, -47.249, -11.9888, 29.3594, 13.6658, 67.2647, -166.555
4.71962, 2, -47.2489, -11.9887, 29.3594, 13.6658, 67.2647, -166.555
4.72771, 2, -47.2488, -11.9886, 29.3594, 13.6658, 67.2647, -166.555
4.73563, 2, -47.2487, -11.9885, 29.3594, 13.6658, 67.2647, -166.555
4.74368, 2, -47.2487, -11.9885, 29.3594, 13.6658, 67.2647, -166.555
4.75154, 2, -47.2486, -11.9885, 29.3594, 13.6658, 67.2647, -166.555
4.75956, 2, -47.2486, -11.9885, 29.3594, 13.6658, 67.2647, -166.555
4.76764, 2, -47.2486, -11.9885, 29.3594, 13.6658, 67.2647, -166.555
4.77559, 2, -47.2486, -11.9885, 29.3594, 13.6658, 67.2647, -166.555
4.78375, 2, -47.2485, -11.9885, 29.3594, 13.6658, 67.2647, -166.555
4.79227, 2, -47.2485, -11.9885, 29.3594, 13.6657, 67.2647, -166.555
4.79983, 2, -47.2485, -11.9885, 29.3594, 13.6657, 67.2648, -166.555
4.80785, 2, -47.2484, -11.9884, 29.3594, 13.6657, 67.2647, -166.555
4.8163, 2, -47.2484, -11.9883, 29.3594, 13.6657, 67.2648, -166.554
4.82398, 2, -47.2483, -11.9883, 29.3594, 13.6657, 67.2648, -166.554
4.83203, 2, -47.2482, -11.9882, 29.3594, 13.6657, 67.2648, -166.554
4.84061, 2, -47.2481, -11.9882, 29.3594, 13.6656, 67.2648, -166.554
4.84814, 2, -47.2481, -11.9881, 29.3594, 13.6656, 67.2648, -166.554
4.85609, 2, -47.248, -11.9881, 29.3594, 13.6657, 67.2648, -166.554
4.86438, 2, -47.2479, -11.9881, 29.3594, 13.6656, 67.2648, -166.554
4.87207, 2, -47.2479, -11.9881, 29.3594, 13.6656, 67.2648, -166.554
4.87951, 2, -47.2479, -11.9881, 29.3594, 13.6656, 67.2648, -166.554
4.88854, 2, -47.2479, -11.9881, 29.3594, 13.6656, 67.2648, -166.554
4.89553, 2, -47.2479, -11.9881, 29.3594, 13.6655, 67.2648, -166.554
4.90352, 2, -47.2479, -11.988, 29.3594, 13.6655, 67.2648, -166.554
4.91158, 2, -47.2479, -11.988, 29.3594, 13.6656, 67.2648, -166.554
4.91952, 2, -47.2478, -11.988, 29.3594, 13.6656, 67.2648, -166.554
4.92754, 2, -47.2477, -11.9879, 29.3594, 13.6655, 67.2648, -166.554
4.93556, 2, -47.2476, -11.9878, 29.3594, 13.6655, 67.2649, -166.554
4.94353, 2, -47.2475, -11.9878, 29.3594, 13.6655, 67.2649, -166.554
4.95151, 2, -47.2474, -11.9877, 29.3594, 13.6655, 67.2649, -166.554
4.95962, 2, -47.2474, -11.9877, 29.3594, 13.6655, 67.2649, -166.554
4.96755, 2, -47.2473, -11.9877, 29.3594, 13.6655, 67.2649, -166.554
4.97552, 2, -47.2473, -11.9877, 29.3594, 13.6655, 67.265, -166.554
4.98369, 2, -47.2472, -11.9877, 29.3594, 13.6655, 67.265, -166.554
4.99152, 2, -47.2472, -11.9877, 29.3594, 13.6655, 67.265, -166.554
4.99952, 2, -47.2472, -11.9877, 29.3594, 13.6655, 67.265, -166.554
5.00761, 2, -47.2472, -11.9877, 29.3594, 13.6654, 67.265, -166.554
5.01554, 2, -47.2471, -11.9876, 29.3594, 13.6654, 67.265, -166.554
5.02352, 2, -47.2471, -11.9876, 29.3594, 13.6654, 67.265, -166.554
5.0316, 2, -47.247, -11.9875, 29.3594, 13.6654, 67.265, -166.554
5.04056, 2, -47.2469, -11.9874, 29.3594, 13.6654, 67.265, -166.554
5.04753, 2, -47.2468, -11.9874, 29.3594, 13.6654, 67.265, -166.554
5.05572, 2, -47.2468, -11.9874, 29.3594, 13.6654, 67.265, -166.554
5.0645, 2, -47.2467, -11.9874, 29.3594, 13.6654, 67.265, -166.554
5.07259, 2, -47.2467, -11.9874, 29.3594, 13.6654, 67.2651, -166.554
5.07951, 2, -47.2466, -11.9873, 29.3594, 13.6654, 67.2651, -166.554
5.08761, 2, -47.2466, -11.9873, 29.3594, 13.6653, 67.2651, -166.554
5.09551, 2, -47.2465, -11.9873, 29.3594, 13.6653, 67.2651, -166.554
5.10351, 2, -47.2465, -11.9873, 29.3594, 13.6653, 67.2651, -166.554
5.11158, 2, -47.2465, -11.9872, 29.3594, 13.6653, 67.2651, -166.554
5.11951, 2, -47.2465, -11.9872, 29.3594, 13.6652, 67.2651, -166.554
5.12753, 2, -47.2465, -11.9872, 29.3594, 13.6652, 67.2651, -166.554
5.13561, 2, -47.2464, -11.9871, 29.3594, 13.6652, 67.2651, -166.554
5.14351, 4, -47.2463, -11.9871, 29.3594, 13.6652, 67.2651, -166.554
5.15151, 4, -47.2462, -11.9871, 29.3594, 13.6652, 67.2651, -166.554
5.15958, 4, -47.2462, -11.987, 29.3594, 13.6652, 67.2651, -166.554
5.16753, 4, -47.2461, -11.987, 29.3594, 13.6652, 67.2652, -166.554
5.17554, 4, -47.246, -11.987, 29.3594, 13.6652, 67.2652, -166.554
5.1836, 4, -47.246, -11.987, 29.3594, 13.6652, 67.2652, -166.554
5.19154, 4, -47.2459, -11.9869, 29.3594, 13.6652, 67.2652, -166.554
5.19959, 4, -47.2459, -11.987, 29.3593, 13.6652, 67.2652, -166.553
5.20769, 4, -47.2459, -11.9869, 29.3594, 13.6651, 67.2653, -166.553
5.21561, 4, -47.2459, -11.9869, 29.3594, 13.6651, 67.2652, -166.553
5.22361, 4, -47.2459, -11.9869, 29.3594, 13.6651, 67.2652, -166.554
5.23168, 4, -47.2458, -11.9868, 29.3594, 13.6651, 67.2652, -166.554
5.23978, 4, -47.2458, -11.9868, 29.3594, 13.6651, 67.2652, -166.554
5.25529, 4, -47.2457, -11.9868, 29.3594, 13.6651, 67.2652, -166.553
5.25731, 4, -47.2456, -11.9868, 29.3594, 13.665, 67.2652, -166.553
5.27007, 4, -47.2455, -11.9867, 29.3594, 13.6651, 67.2653, -166.553
5.27278, 4, -47.2455, -11.9867, 29.3594, 13.665, 67.2653, -166.553
5.28068, 4, -47.2454, -11.9867, 29.3593, 13.665, 67.2653, -166.553
5.28802, 4, -47.2454, -11.9867, 29.3594, 13.665, 67.2653, -166.553
5.29608, 4, -47.2454, -11.9867, 29.3594, 13.665, 67.2653, -166.553
5.30424, 4, -47.2453, -11.9866, 29.3593, 13.6649, 67.2654, -166.553
5.31232, 4, -47.2453, -11.9866, 29.3594, 13.665, 67.2653, -166.553
5.32034, 4, -47.2453, -11.9866, 29.3594, 13.6649, 67.2654, -166.553
5.33243, 4, -47.2453, -11.9866, 29.3593, 13.6649, 67.2654, -166.553
5.33642, 4, -47.2453, -11.9865, 29.3594, 13.6649, 67.2654, -166.553
5.34555, 4, -47.2452, -11.9865, 29.3594, 13.6649, 67.2653, -166.553
5.35235, 4, -47.2451, -11.9865, 29.3594, 13.6649, 67.2654, -166.553
5.36078, 4, -47.2451, -11.9865, 29.3593, 13.6649, 67.2654, -166.553
5.37142, 4, -47.245, -11.9865, 29.3593, 13.6649, 67.2654, -166.553
5.37634, 4, -47.245, -11.9864, 29.3593, 13.6649, 67.2654, -166.553
5.38428, 4, -47.245, -11.9864, 29.3593, 13.6649, 67.2653, -166.553
5.39314, 4, -47.2449, -11.9864, 29.3593, 13.6649, 67.2653, -166.553
5.40064, 4, -47.2451, -11.9865, 29.3594, 13.6649, 67.2654, -166.553
5.41258, 4, -47.2459, -11.9869, 29.3598, 13.6651, 67.2656, -166.553
5.4157, 4, -47.2469, -11.9876, 29.3604, 13.6654, 67.2656, -166.553
5.42543, 4, -47.2524, -11.9932, 29.3672, 13.6764, 67.2683, -166.552
5.43164, 5, -47.2555, -11.9971, 29.3723, 13.6865, 67.2708, -166.55
5.44154, 5, -47.2711, -12.0174, 29.4044, 13.7502, 67.2882, -166.536
5.45029, 5, -47.2791, -12.0283, 29.4231, 13.7883, 67.2988, -166.517
5.45746, 5, -47.3012, -12.058, 29.4771, 13.9776, 67.3522, -166.485
5.46366, 5, -47.333, -12.0997, 29.5585, 14.0719, 67.3783, -166.463
5.47171, 5, -47.3762, -12.1552, 29.673, 14.3167, 67.4458, -166.406
5.47971, 5, -47.4322, -12.2254, 29.8238, 14.6434, 67.5352, -166.332
5.48961, 5, -47.5397, -12.3591, 30.122, 15.2905, 67.7093, -166.183
5.49868, 5, -47.6266, -12.4666, 30.3674, 15.8182, 67.8494, -166.063
5.50371, 5, -47.6742, -12.5254, 30.5023, 16.1062, 67.9252, -165.998
5.51174, 5, -47.7766, -12.6521, 30.7945, 16.7213, 68.0858, -165.86
5.51973, 5, -47.887, -12.7893, 31.1109, 17.377, 68.2536, -165.715
5.53274, 5, -48.0629, -13.0096, 31.6174, 18.4025, 68.5107, -165.491
5.53608, 5, -48.1232, -13.0855, 31.7913, 18.7497, 68.5961, -165.417
5.54642, 5, -48.3037, -13.3153, 32.3212, 19.7903, 68.848, -165.195
5.55165, 5, -48.3624, -13.3911, 32.4984, 20.132, 68.93, -165.121
5.55978, 5, -48.475, -13.5399, 32.8515, 20.8011, 69.0911, -164.968
5.57275, 6, -48.6231, -13.7489, 33.3641, 21.7459, 69.3291, -164.704
5.57576, 6, -48.6648, -13.8134, 33.528, 22.0399, 69.4084, -164.601
5.58697, 7, -48.7605, -13.9917, 33.9906, 22.8497, 69.6512, -164.218
5.59165, 7, -48.7818, -14.0465, 34.1349, 23.0947, 69.7348, -164.062
5.60246, 7, -48.809, -14.1488, 34.4075, 23.5504, 69.9085, -163.697
5.60784, 8, -48.8168, -14.2402, 34.6603, 23.9688, 70.0939, -163.261
5.61898, 8, -48.8064, -14.3213, 34.8979, 24.3603, 70.2932, -162.755
5.62364, 9, -48.7798, -14.396, 35.1235, 24.7361, 70.5075, -162.187
5.63312, 9, -48.7394, -14.4669, 35.3419, 25.1064, 70.7359, -161.572
5.63974, 10, -48.6878, -14.5343, 35.5584, 25.4766, 70.9753, -160.924
5.64867, 10, -48.627, -14.5986, 35.7752, 25.8496, 71.222, -160.256
5.65968, 11, -48.5232, -14.692, 36.1041, 26.4136, 71.5957, -159.245
5.66773, 12, -48.4477, -14.7545, 36.326, 26.7925, 71.8425, -158.577
5.67264, 12, -48.4088, -14.786, 36.4365, 26.983, 71.9649, -158.244
5.68338, 13, -48.2888, -14.8808, 36.765, 27.5591, 72.3292, -157.253
5.69278, 13, -48.2479, -14.9123, 36.8733, 27.9481, 72.5713, -156.597
5.69805, 13, -48.1642, -14.9754, 37.087, 28.1443, 72.6926, -156.269
5.70389, 14, -48.0776, -15.0389, 37.2967, 28.5397, 72.936, -155.613
5.71225, 14, -47.9874, -15.1027, 37.5035, 28.9386, 73.1807, -154.959
5.71977, 15, -47.8943, -15.1655, 37.7072, 29.3402, 73.4258, -154.307
5.72807, 15, -47.7981, -15.2263, 37.9077, 29.7425, 73.6701, -153.656
5.73911, 16, -47.6974, -15.2859, 38.1064, 30.1444, 73.913, -153.009
5.74741, 17, -47.536, -15.3766, 38.4002, 30.745, 74.2728, -152.047
5.75176, 17, -47.4797, -15.4075, 38.4964, 30.9442, 74.3909, -151.728
5.76064, 17, -47.3633, -15.4698, 38.6865, 31.3403, 74.6236, -151.094
5.7679, 18, -47.2416, -15.5326, 38.8744, 31.7331, 74.8514, -150.467
5.77593, 18, -47.1142, -15.5965, 39.0591, 32.1225, 75.0735, -149.847
5.78561, 19, -46.9814, -15.6623, 39.2407, 32.5089, 75.2897, -149.235
5.79194, 19, -46.8433, -15.7304, 39.4207, 32.893, 75.5001, -148.629
5.80006, 20, -46.6999, -15.8008, 39.5993, 33.2748, 75.7053, -148.031
5.81164, 20, -46.5514, -15.8739, 39.7756, 33.6548, 75.9055, -147.149
5.81685, 21, -46.3982, -15.9501, 39.9499, 34.0331, 76.1007, -146.858
5.82693, 22, -46.2405, -16.0292, 40.123, 34.4096, 76.2908, -146.282
5.83333, 22, -46.0777, -16.1107, 40.2944, 34.7836, 76.4755, -145.714
5.84503, 22, -45.8232, -16.2361, 40.546, 35.3382, 76.7426, -144.874
5.84851, 23, -45.7353, -16.2789, 40.6285, 35.5209, 76.8288, -144.597
5.85933, 23, -45.5547, -16.3658, 40.7917, 35.8833, 76.9971, -144.047
5.8643, 24, -45.3678, -16.4543, 40.9514, 36.2408, 77.1601, -143.502
5.87363, 24, -45.1743, -16.5439, 41.1064, 36.5926, 77.3179, -142.962
5.88033, 25, -45.0751, -16.5891, 41.2574, 36.9379, 77.471, -142.425
5.88896, 25, -44.768, -16.726, 41.4039, 37.2768, 77.6194, -141.892
5.89563, 26, -44.6623, -16.772, 41.4752, 37.4435, 77.6918, -141.627
5.9067, 27, -44.3343, -16.9101, 41.6811, 37.9329, 77.9031, -140.834
5.91164, 27, -44.2213, -16.956, 41.7469, 38.0923, 77.9715, -140.571
5.92066, 27, -43.9903, -17.0475, 41.874, 38.558, 78.1705, -139.782
5.92913, 28, -43.6316, -17.1831, 42.0529, 38.8582, 78.2986, -139.258
5.93569, 28, -43.5086, -17.2278, 42.1092, 39.0052, 78.3613, -138.997
5.94687, 29, -43.1301, -17.3595, 42.2679, 39.4333, 78.545, -138.213
5.95464, 30, -42.8694, -17.4454, 42.3648, 39.7084, 78.663, -137.691
5.96256, 30, -42.6007, -17.5293, 42.4545, 39.9749, 78.7783, -137.169
5.96766, 30, -42.463, -17.5704, 42.4966, 40.1048, 78.835, -136.908
5.9777, 31, -42.0372, -17.6899, 42.6124, 40.4821, 79, -136.128
5.98369, 31, -41.8915, -17.7284, 42.6475, 40.6036, 79.0538, -135.868
5.99497, 32, -41.5948, -17.8039, 42.7125, 40.8403, 79.1595, -135.088
6.00165, 32, -41.2915, -17.877, 42.7972, 41.1795, 79.3129, -134.57
6.01, 33, -40.8244, -17.9809, 42.8448, 41.3958, 79.4123, -134.053
6.01573, 33, -40.6654, -18.0139, 42.8659, 41.5008, 79.4608, -133.795
6.02364, 34, -40.3429, -18.0779, 42.9026, 41.7046, 79.556, -133.279
6.03173, 34, -40.0159, -18.1394, 42.932, 41.9004, 79.6486, -132.764
6.04197, 35, -39.5154, -18.2258, 42.9626, 42.1798, 79.7828, -131.994
6.05125, 36, -39.1736, -18.2791, 42.9742, 42.3566, 79.8695, -131.482
6.05672, 36, -39, -18.3045, 42.9773, 42.442, 79.912, -131.226
6.06365, 36, -38.6471, -18.3528, 42.9787, 42.6072, 79.9955, -130.716
6.07171, 37, -38.2879, -18.3978, 42.9734, 42.7648, 80.0766, -130.207
6.08381, 38, -37.7383, -18.4584, 42.9524, 42.9872, 80.1949, -129.448
6.08862, 38, -37.5525, -18.4768, 42.9421, 43.0577, 80.2331, -129.195
6.09795, 38, -37.1778, -18.5111, 42.9166, 43.193, 80.3085, -128.691
6.10372, 39, -36.7984, -18.5421, 42.8842, 43.3208, 80.3809, -128.189
6.11208, 39, -36.4147, -18.5693, 42.8451, 43.4414, 80.452, -127.689
6.12405, 40, -35.8285, -18.6031, 42.7743, 43.6086, 80.5547, -126.942
6.13047, 41, -35.4302, -18.6207, 42.7188, 43.7112, 80.6214, -126.447
6.13571, 41, -35.2289, -18.628, 42.6886, 43.7595, 80.6534, -126.2
6.14769, 42, -34.6175, -18.6448, 42.5885, 43.8944, 80.7479, -125.462
6.15701, 42, -34.2055, -18.6518, 42.5137, 43.9753, 80.8077, -124.973
6.1606, 42, -33.9983, -18.6541, 42.4739, 44.0133, 80.8371, -124.73
6.16762, 43, -33.5813, -18.6564, 42.3899, 44.0834, 80.8954, -124.244
6.17751, 43, -33.1596, -18.6553, 42.3, 44.1468, 80.9507, -123.761
6.18486, 44, -32.7321, -18.6504, 42.2043, 44.2028, 81.0053, -123.28
6.19559, 45, -32.0786, -18.6359, 42.05, 44.2731, 81.0835, -122.564
6.19974, 45, -31.8579, -18.6292, 41.9956, 44.293, 81.1086, -122.326
6.20787, 45, -31.4136, -18.6132, 41.8822, 44.3273, 81.1585, -121.852
6.21983, 46, -30.7427, -18.5828, 41.701, 44.3638, 81.2289, -121.146
6.22382, 46, -30.518, -18.5709, 41.6377, 44.3721, 81.2514, -120.912
6.23385, 47, -30.0657, -18.5438, 41.5067, 44.3833, 81.2964, -120.445
6.2398, 47, -29.6079, -18.5121, 41.3697, 44.3877, 81.3402, -119.98
6.24782, 48, -29.1432, -18.4762, 41.2267, 44.3845, 81.3823, -119.517
6.25578, 48, -28.6725, -18.4359, 41.0776, 44.3722, 81.424, -119.056
6.2638, 49, -28.1972, -18.3913, 40.9227, 44.3515, 81.4659, -118.597
6.27587, 50, -27.4799, -18.3159, 40.6787, 44.3022, 81.5269, -117.91
6.28454, 50, -26.9978, -18.2594, 40.5078, 44.2577, 81.5679, -117.453
6.28797, 50, -26.7546, -18.229, 40.4199, 44.2323, 81.5891, -117.225
6.29701, 51, -26.2627, -18.1642, 40.2395, 44.1737, 81.6316, -116.77
6.30532, 51, -25.7632, -18.0938, 40.0522, 44.1052, 81.6739, -116.315
6.31228, 52, -25.2578, -18.0179, 39.8572, 44.0269, 81.7173, -115.862
6.32029, 52, -24.7497, -17.9369, 39.6558, 43.9378, 81.7621, -115.409
6.32828, 53, -24.2395, -17.8504, 39.4482, 43.8388, 81.8068, -114.956
6.33792, 54, -23.7252, -17.7578, 39.2329, 43.7297, 81.8525, -114.504
6.34454, 54, -23.204, -17.6589, 39.0102, 43.6099, 81.9009, -114.052
6.35371, 55, -22.6742, -17.5539, 38.7811, 43.4795, 81.9504, -113.601
6.36529, 55, -21.8685, -17.3847, 38.4231, 43.2619, 82.0293, -112.923
6.37262, 56, -21.5984, -17.2645, 38.1763, 43.1022, 82.0845, -112.471
6.37676, 56, -21.0564, -17.2023, 38.0503, 43.0181, 82.1123, -112.245
6.38584, 57, -20.5099, -17.0736, 37.7926, 42.8411, 82.1702, -111.795
6.39232, 57, -20.2335, -17.0073, 37.6614, 42.6527, 82.2299, -111.344
6.40061, 57, -19.3901, -16.7995, 37.2579, 42.4522, 82.2907, -110.894
6.40901, 58, -18.8193, -16.6534, 36.9805, 42.239, 82.3544, -110.443
6.41565, 58, -18.5327, -16.5781, 36.8397, 42.1278, 82.3865, -110.219
6.42371, 59, -17.9583, -16.4236, 36.5528, 41.896, 82.4527, -109.77
6.43575, 60, -17.0871, -16.1833, 36.1107, 41.5248, 82.5566, -109.096
6.43963, 60, -16.792, -16.1009, 35.9602, 41.3947, 82.5924, -108.871
6.44969, 61, -15.8928, -15.845, 35.5012, 40.9852, 82.7022, -108.197
6.4574, 61, -15.2874, -15.6686, 35.1883, 40.6955, 82.7776, -107.749
6.46362, 61, -14.9839, -15.5788, 35.0298, 40.5462, 82.8161, -107.525
6.47165, 62, -14.3733, -15.3959, 34.7085, 40.2378, 82.8948, -107.076
6.48008, 62, -13.7544, -15.2075, 34.382, 39.9162, 82.9758, -106.628
6.4876, 63, -13.1249, -15.0125, 34.0508, 39.5804, 83.0598, -106.178
6.49562, 63, -12.4874, -14.8113, 33.7138, 39.2293, 83.1471, -105.728
6.50692, 64, -11.5229, -14.5004, 33.1974, 38.6745, 83.2858, -105.052
6.51462, 65, -10.8722, -14.2845, 32.8453, 38.2859, 83.3837, -104.599
6.52451, 65, -10.2107, -14.0611, 32.4868, 37.8821, 83.4863, -104.144
6.52771, 65, -9.87616, -13.9469, 32.3058, 37.6741, 83.5394, -103.916
6.53879, 66, -8.86051, -13.5945, 31.755, 37.0256, 83.7075, -103.23
6.54473, 66, -8.51923, -13.4733, 31.5688, 36.8014, 83.7664, -103
6.5516, 67, -7.8316, -13.2255, 31.1907, 36.3402, 83.8886, -102.538
6.56397, 68, -6.78161, -12.84, 30.6124, 35.6179, 84.0854, -101.841
6.56859, 68, -6.42703, -12.7079, 30.4175, 35.369, 84.1543, -101.607
6.57804, 69, -5.35289, -12.3023, 29.8268, 34.5999, 84.3715, -100.903
6.58379, 69, -4.99171, -12.1631, 29.6279, 34.3359, 84.447, -100.667
6.59625, 70, -3.89591, -11.7338, 29.0264, 33.5237, 84.6833, -99.9564
6.59968, 70, -3.52634, -11.5872, 28.8252, 33.2458, 84.7653, -99.7181
6.61184, 71, -2.40573, -11.1344, 28.219, 32.3895, 85.0218, -99
6.61561, 71, -2.02832, -10.9796, 28.0153, 32.0967, 85.1111, -98.7596
6.62644, 72, -1.26733, -10.5048, 27.3997, 31.1957, 85.3927, -98.0333
6.63163, 72, -0.499695, -10.344, 27.1933, 30.8871, 85.491, -97.7898
6.64064, 73, 0.273537, -10.0173, 26.7794, 30.259, 85.6938, -97.3007
6.65241, 73, 1.44222, -9.51134, 26.1583, 29.2986, 86.012, -96.564
6.65655, 74, 1.8338, -9.33933, 25.9517, 28.9739, 86.1217, -96.3179
6.66543, 74, 2.61852, -8.99208, 25.5409, 28.3196, 86.3464, -95.8245
6.67224, 74, 3.4046, -8.6418, 25.1345, 27.6595, 86.5772, -95.3303
6.68452, 75, 4.58807, -8.10412, 24.5358, 26.6628, 86.9331, -94.5883
6.68865, 76, 4.98388, -7.9218, 24.3392, 26.3304, 87.0544, -94.3411
6.69988, 76, 6.17283, -7.36602, 23.7583, 25.3293, 87.4268, -93.596
6.70367, 76, 6.56942, -7.17791, 23.5678, 24.9945, 87.5544, -93.3469
6.71606, 77, 7.76171, -6.60055, 23.0015, 23.9864, 87.9504, -92.5952
6.7217, 77, 8.16003, -6.40395, 22.8142, 23.6482, 88.0877, -92.3433
6.73669, 78, 9.75356, -5.59775, 22.0718, 22.2834, 88.6664, -91.3264
6.75439, 79, 10.9489, -4.9688, 21.3401, 20.9087, 89.2933, -90.292
6.7567, 80, 11.7438, -4.53654, 21.1594, 20.565, 89.4568, -90.0308
6.75788, 80, 11.7438, -4.53654, 21.1594, 20.565, 89.4568, -90.0308
6.76004, 80, 12.1398, -4.31687, 20.9802, 20.2213, 89.6231, -89.7681
6.76822, 80, 12.9279, -3.87009, 20.6254, 19.5381, 89.9638, -89.2383
6.77563, 81, 13.7114, -3.41474, 20.2764, 18.8628, 90.3142, -88.7036
6.78351, 81, 14.4888, -2.95169, 19.9338, 18.1977, 90.6732, -88.1644
6.79169, 82, 15.2582, -2.48002, 19.5998, 17.5441, 91.0393, -87.6223
6.79965, 82, 16.0178, -2.0006, 19.275, 16.9046, 91.4125, -87.0771
6.80779, 83, 16.7667, -1.51402, 18.9595, 16.2816, 91.7917, -86.5294
6.81582, 83, 17.5036, -1.02085, 18.6533, 15.6769, 92.1771, -85.9798
6.82478, 84, 18.2254, -0.522024, 18.3559, 15.0901, 92.5684, -85.4299
6.83203, 84, 18.9301, -0.0185325, 18.067, 14.524, 92.9667, -84.8789
6.84082, 85, 19.6183, 0.490436, 17.7842, 13.9783, 93.3725, -84.3277
6.848, 85, 20.2897, 1.00446, 17.5081, 13.4542, 93.7856, -83.7772
6.85708, 86, 20.9441, 1.52244, 17.2376, 12.9522, 94.2036, -83.2286
6.86463, 86, 21.5821, 2.04519, 16.9737, 12.4723, 94.6265, -82.68
6.87296, 86, 21.8956, 2.30917, 16.7167, 12.0149, 95.0543, -82.1307
6.88012, 87, 22.5128, 2.8443, 16.4649, 11.5788, 95.4877, -81.5792
6.88748, 87, 23.1186, 3.38915, 16.341, 11.3681, 95.7066, -81.3025
6.89557, 88, 23.7146, 3.94183, 16.0967, 10.9604, 96.1491, -80.7455
6.9035, 88, 24.3006, 4.5016, 15.8563, 10.5691, 96.5968, -80.1808
6.91143, 89, 24.8752, 5.07121, 15.6219, 10.194, 97.051, -79.6076
6.91946, 89, 25.4384, 5.65146, 15.3933, 9.83432, 97.5112, -79.024
6.9287, 90, 26.2691, 6.53971, 15.0563, 9.32378, 98.2127, -78.1257
6.93545, 90, 26.5424, 6.84011, 14.9461, 9.16112, 98.4498, -77.8195
6.94349, 91, 27.08, 7.4468, 14.7298, 8.84869, 98.9285, -77.1965
6.95361, 91, 27.8604, 8.37495, 14.4136, 8.41446, 99.6582, -76.2396
6.95947, 92, 28.1149, 8.68962, 14.3104, 8.27978, 99.904, -75.9146
6.9675, 92, 28.6179, 9.32681, 14.1074, 8.02705, 100.399, -75.2572
6.97551, 93, 29.1139, 9.97327, 13.9094, 7.79624, 100.897, -74.5925
6.98345, 93, 29.5988, 10.6266, 13.7179, 7.58893, 101.396, -73.9211
6.99144, 94, 30.0705, 11.2848, 13.5344, 7.40505, 101.894, -73.2424
6.99953, 94, 30.5277, 11.9463, 13.3583, 7.24465, 102.391, -72.5583
7.00902, 95, 30.971, 12.6103, 13.189, 7.10808, 102.885, -71.87
7.01545, 95, 31.4003, 13.2762, 13.0275, 6.99528, 103.375, -71.1754
7.02351, 96, 31.8157, 13.9436, 12.8737, 6.90572, 103.862, -70.4751
7.0325, 96, 32.2159, 14.6118, 12.7264, 6.84062, 104.345, -69.7707
7.03943, 97, 32.6, 15.2807, 12.5855, 6.79859, 104.824, -69.0597
7.04757, 97, 32.968, 15.949, 12.4518, 6.77762, 105.297, -68.3434
7.05544, 98, 33.32, 16.6152, 12.3263, 6.77846, 105.765, -67.6245
7.06345, 98, 33.6575, 17.2779, 12.2095, 6.80134, 106.224, -66.9019
7.07243, 99, 33.9808, 17.9355, 12.1018, 6.84385, 106.674, -66.1772
7.08057, 99, 34.2909, 18.5869, 12.0035, 6.90655, 107.112, -65.4546
7.08742, 100, 34.5895, 19.23, 11.9142, 6.98711, 107.539, -64.7335
7.09552, 100, 34.8766, 19.8647, 11.8335, 7.0852, 107.952, -64.0147
7.10365, 101, 35.1517, 20.4888, 11.7613, 7.19936, 108.351, -63.303
7.11147, 101, 35.4148, 21.1018, 11.6972, 7.32849, 108.736, -62.5979
7.11971, 102, 35.6665, 21.7033, 11.6416, 7.47096, 109.104, -61.9001
7.12745, 102, 35.9052, 22.292, 11.5945, 7.62494, 109.455, -61.2141
7.13545, 102, 36.1312, 22.8671, 11.5562, 7.78874, 109.789, -60.54
7.14352, 103, 36.3484, 23.4268, 11.5268, 7.96096, 110.104, -59.8779
7.15147, 103, 36.5588, 23.9706, 11.5067, 8.14144, 110.4, -59.2289
7.15945, 104, 36.7623, 24.499, 11.4957, 8.33057, 110.677, -58.5941
7.16762, 104, 36.9587, 25.0116, 11.4921, 8.52874, 110.934, -57.9702
7.17546, 104, 37.1497, 25.5077, 11.4953, 8.73566, 111.171, -57.3583
7.18346, 104, 37.334, 25.9882, 11.5046, 8.95017, 111.389, -56.7587
7.19155, 104, 37.5085, 26.4524, 11.5179, 9.17059, 111.59, -56.1722
7.19949, 104, 37.6733, 26.9004, 11.5338, 9.39482, 111.775, -55.6002
7.20773, 104, 37.8316, 27.3332, 11.5524, 9.61981, 111.946, -55.046
7.21558, 104, 37.9858, 27.7503, 11.5727, 9.84314, 112.106, -54.5128
7.22369, 104, 38.1358, 28.1512, 11.5934, 10.0625, 112.257, -54.0023
7.2316, 104, 38.2802, 28.535, 11.6138, 10.2769, 112.399, -53.5145
7.23956, 104, 38.4181, 28.9024, 11.633, 10.4848, 112.534, -53.0512
7.24766, 104, 38.5489, 29.2517, 11.6512, 10.6855, 112.66, -52.6118
7.25559, 104, 38.6714, 29.5828, 11.6683, 10.8782, 112.779, -52.1979
7.26347, 104, 38.7856, 29.8945, 11.6842, 11.0621, 112.891, -51.8087
7.27152, 104, 38.8914, 30.1877, 11.6989, 11.2364, 112.994, -51.4444
7.27954, 104, 38.9894, 30.462, 11.7128, 11.4009, 113.09, -51.1057
7.28761, 104, 39.0797, 30.7162, 11.7254, 11.5549, 113.179, -50.7923
7.29562, 104, 39.1622, 30.9511, 11.7367, 11.6982, 113.26, -50.5042
7.3037, 104, 39.2367, 31.1664, 11.7471, 11.83, 113.334, -50.2414
7.31181, 104, 39.3032, 31.3614, 11.7567, 11.9505, 113.401, -50.0037
7.31983, 104, 39.362, 31.5373, 11.7653, 12.059, 113.46, -49.7913
7.32799, 104, 39.4135, 31.6937, 11.7729, 12.1553, 113.513, -49.604
7.336, 104, 39.4586, 31.8309, 11.7797, 12.2397, 113.558, -49.4414
7.34403, 104, 39.4981, 31.9502, 11.786, 12.3115, 113.596, -49.3033
7.35206, 104, 39.5316, 32.0525, 11.7915, 12.3723, 113.628, -49.1885
7.36043, 104, 39.5591, 32.1384, 11.7965, 12.4208, 113.654, -49.0955
7.36816, 104, 39.5817, 32.2096, 11.8009, 12.4587, 113.673, -49.0226
7.37611, 104, 39.5912, 32.2677, 11.8049, 12.4876, 113.688, -48.9682
7.38445, 104, 39.6132, 32.3142, 11.8086, 12.5089, 113.698, -48.9292
7.39202, 104, 39.6188, 32.3335, 11.8103, 12.517, 113.702, -48.9144
7.3995, 104, 39.6279, 32.3648, 11.8134, 12.5293, 113.707, -48.8927
7.40851, 104, 39.6372, 32.3975, 11.8174, 12.5398, 113.712, -48.8749
7.41546, 104, 39.6391, 32.4056, 11.8185, 12.5418, 113.712, -48.8718
7.42346, 104, 39.6418, 32.4177, 11.8203, 12.5444, 113.713, -48.8682
7.43146, 104, 39.6431, 32.4255, 11.8217, 12.5456, 113.714, -48.8666
7.43946, 105, 39.6434, 32.4304, 11.8229, 12.5462, 113.714, -48.8661
7.44754, 105, 39.6427, 32.4336, 11.8238, 12.5464, 113.714, -48.866
7.45545, 105, 39.6417, 32.4359, 11.8246, 12.5466, 113.714, -48.8661
7.46345, 105, 39.6407, 32.4377, 11.8252, 12.5467, 113.714, -48.8664
7.47147, 105, 39.6396, 32.4392, 11.8259, 12.5468, 113.714, -48.8667
7.47945, 105, 39.6385, 32.4404, 11.8264, 12.5468, 113.714, -48.8671
7.48753, 105, 39.6376, 32.4416, 11.827, 12.5468, 113.714, -48.8674
7.49555, 105, 39.6371, 32.4427, 11.8276, 12.5468, 113.714, -48.8677
7.50347, 105, 39.6367, 32.4438, 11.8282, 12.5468, 113.714, -48.868
7.51246, 105, 39.6365, 32.4448, 11.8287, 12.5468, 113.714, -48.8682
7.51946, 105, 39.6362, 32.4457, 11.8292, 12.5468, 113.714, -48.8685
7.52754, 105, 39.636, 32.4463, 11.8295, 12.5468, 113.714, -48.8688
7.53643, 105, 39.6357, 32.4467, 11.8299, 12.5468, 113.714, -48.8691
7.54347, 105, 39.6354, 32.447, 11.8301, 12.5468, 113.714, -48.8693
7.55151, 105, 39.6351, 32.4471, 11.8303, 12.5467, 113.714, -48.8696
