hehonglu123/Motion-Primitive-Planning/ILC/recorded_data/realrobot/from_NX/iteration_8/run_4.csv
timestamp, cmd_num, J1, J2, J3, J4, J5, J6
0.000418, -1, 39.6302, 32.4471, 11.8318, 12.5453, 113.713, -48.8723
0.005423, -1, 39.6302, 32.4471, 11.8318, 12.5453, 113.713, -48.8723
0.008096, -1, 39.6302, 32.4471, 11.8318, 12.5453, 113.713, -48.8723
0.029608, -1, 39.6302, 32.4471, 11.8318, 12.5453, 113.713, -48.8723
0.032425, -1, 39.6302, 32.4471, 11.8318, 12.5453, 113.713, -48.8724
0.035723, -1, 39.6302, 32.4471, 11.8318, 12.5453, 113.713, -48.8723
0.039657, -1, 39.6302, 32.4471, 11.8318, 12.5453, 113.713, -48.8723
0.048136, -1, 39.6302, 32.4471, 11.8318, 12.5453, 113.713, -48.8723
0.055612, -1, 39.6297, 32.447, 11.8318, 12.5453, 113.713, -48.8724
0.063633, -1, 39.6274, 32.4466, 11.8318, 12.5453, 113.713, -48.8724
0.072418, -1, 39.6221, 32.4452, 11.8318, 12.5452, 113.713, -48.8725
0.079986, -1, 39.6132, 32.4423, 11.8317, 12.5452, 113.712, -48.8738
0.087705, -1, 39.6, 32.4369, 11.8317, 12.5453, 113.71, -48.8787
0.095929, -1, 39.5803, 32.4284, 11.8317, 12.5453, 113.707, -48.8899
0.104756, -1, 39.5517, 32.4157, 11.8322, 12.5453, 113.7, -48.9105
0.111887, -1, 39.5133, 32.3981, 11.8343, 12.5452, 113.688, -48.944
0.120074, -1, 39.4639, 32.3744, 11.8391, 12.5452, 113.669, -48.9944
0.128051, -1, 39.4018, 32.3439, 11.8474, 12.5453, 113.641, -49.0661
0.136022, -1, 39.3265, 32.3061, 11.8602, 12.5453, 113.604, -49.1605
0.144132, -1, 39.2374, 32.2605, 11.878, 12.5455, 113.557, -49.2805
0.152117, -1, 39.1344, 32.207, 11.9005, 12.5461, 113.501, -49.4259
0.160099, -1, 39.0775, 32.1456, 11.9272, 12.547, 113.433, -49.5959
0.168236, -1, 38.9536, 32.1121, 11.9579, 12.5485, 113.357, -49.7882
0.175502, -1, 38.8167, 32.04, 11.9745, 12.5493, 113.316, -49.8917
0.183523, -1, 38.6679, 31.9616, 12.0097, 12.5513, 113.229, -50.1118
0.191577, -1, 38.5083, 31.8778, 12.0468, 12.5535, 113.137, -50.3459
0.199508, -1, 38.3397, 31.7894, 12.0852, 12.5559, 113.04, -50.5902
0.207591, -1, 38.1642, 31.6976, 12.1242, 12.5582, 112.941, -50.8413
0.215517, -1, 37.9831, 31.6034, 12.1632, 12.5607, 112.84, -51.0963
0.223501, -1, 37.7974, 31.5071, 12.202, 12.5631, 112.738, -51.354
0.231577, -1, 37.6083, 31.4098, 12.2408, 12.5655, 112.636, -51.6131
0.239509, -1, 37.4173, 31.3119, 12.2795, 12.568, 112.533, -51.8726
0.247521, -1, 37.2254, 31.214, 12.3183, 12.5704, 112.431, -52.1322
0.257026, -1, 36.9372, 31.0673, 12.3765, 12.5743, 112.276, -52.5219
0.263502, -1, 36.8411, 31.0184, 12.3959, 12.5756, 112.225, -52.652
0.271501, -1, 36.6493, 30.9207, 12.4347, 12.5781, 112.122, -52.9125
0.281089, -1, 36.3619, 30.7742, 12.493, 12.582, 111.967, -53.3029
0.287539, -1, 36.2662, 30.7253, 12.5124, 12.5833, 111.916, -53.4331
0.295505, -1, 36.0746, 30.6274, 12.5513, 12.5858, 111.813, -53.6935
0.305537, -1, 35.7874, 30.4804, 12.6097, 12.5898, 111.659, -54.0846
0.311532, -1, 35.6915, 30.4314, 12.6291, 12.591, 111.607, -54.2147
0.3205, -1, 35.4996, 30.3333, 12.668, 12.5936, 111.504, -54.4751
0.327587, -1, 35.3074, 30.235, 12.7067, 12.5963, 111.401, -54.7354
0.335511, -1, 35.115, 30.1367, 12.7456, 12.5989, 111.298, -54.9961
0.3435, -1, 34.9226, 30.0383, 12.7845, 12.6014, 111.195, -55.2569
0.479869, -1, 31.6455, 28.3632, 13.446, 12.6464, 109.443, -59.6944
0.481301, -1, 31.6455, 28.3632, 13.446, 12.6464, 109.443, -59.6944
0.483397, -1, 31.5488, 28.3138, 13.4655, 12.6479, 109.391, -59.8249
0.484611, -1, 31.5488, 28.3138, 13.4655, 12.6479, 109.391, -59.8249
0.485795, -1, 31.5488, 28.3138, 13.4655, 12.6479, 109.391, -59.8249
0.487842, -1, 31.4521, 28.2645, 13.4849, 12.6493, 109.34, -59.9555
0.489025, -1, 31.4521, 28.2645, 13.4849, 12.6493, 109.34, -59.9555
0.49242, -1, 31.3555, 28.2152, 13.5044, 12.6507, 109.288, -60.0862
0.493819, -1, 31.3555, 28.2152, 13.5044, 12.6507, 109.288, -60.0862
0.496561, -1, 31.2591, 28.166, 13.5238, 12.652, 109.237, -60.2169
0.497873, -1, 31.2591, 28.166, 13.5238, 12.652, 109.237, -60.2169
0.499927, -1, 31.1627, 28.1167, 13.5434, 12.6534, 109.185, -60.3476
0.501122, -1, 31.1627, 28.1167, 13.5434, 12.6534, 109.185, -60.3476
0.503071, -1, 31.0665, 28.0675, 13.563, 12.6549, 109.134, -60.4784
0.504549, -1, 31.0665, 28.0675, 13.563, 12.6549, 109.134, -60.4784
0.510149, -1, 30.9703, 28.0182, 13.5825, 12.6564, 109.082, -60.6093
0.51225, -1, 30.8742, 27.9689, 13.602, 12.6578, 109.03, -60.74
0.51352, -1, 30.8742, 27.9689, 13.602, 12.6578, 109.03, -60.74
0.516384, -1, 30.7782, 27.9196, 13.6214, 12.6592, 108.979, -60.8705
0.517716, -1, 30.7782, 27.9196, 13.6214, 12.6592, 108.979, -60.8705
0.520594, -1, 30.6822, 27.8703, 13.6409, 12.6606, 108.927, -61.0011
0.521799, -1, 30.6822, 27.8703, 13.6409, 12.6606, 108.927, -61.0011
0.52949, -1, 30.4903, 27.7718, 13.6799, 12.6634, 108.824, -61.2624
0.535596, -1, 30.2983, 27.673, 13.7189, 12.6662, 108.721, -61.5239
0.544204, -1, 30.106, 27.5742, 13.7579, 12.6689, 108.618, -61.7857
0.551503, -1, 29.9135, 27.4755, 13.7969, 12.6717, 108.514, -62.0473
0.559529, -1, 29.7205, 27.3768, 13.8357, 12.6743, 108.411, -62.3089
0.568331, -1, 29.5268, 27.278, 13.8746, 12.677, 108.308, -62.5706
0.575609, -1, 29.3328, 27.1793, 13.9136, 12.6796, 108.205, -62.8325
0.583632, -1, 29.1386, 27.0804, 13.9526, 12.6821, 108.101, -63.0941
0.592591, -1, 28.9442, 26.9815, 13.9916, 12.6847, 107.998, -63.3555
0.599753, -1, 28.75, 26.8826, 14.0305, 12.6872, 107.894, -63.617
0.607905, -1, 28.5559, 26.7837, 14.0695, 12.6897, 107.791, -63.8788
0.616046, -1, 28.3619, 26.685, 14.1086, 12.6922, 107.688, -64.1406
0.623952, -1, 28.1685, 26.5863, 14.1476, 12.6947, 107.584, -64.402
0.632112, -1, 27.9755, 26.4874, 14.1866, 12.6971, 107.481, -64.6638
0.766246, -1, 24.7869, 24.8565, 14.8294, 12.7355, 105.777, -68.9821
0.767531, -1, 24.7869, 24.8565, 14.8294, 12.7355, 105.777, -68.9821
0.769515, -1, 24.6905, 24.8071, 14.8489, 12.7367, 105.726, -69.113
0.77084, -1, 24.6905, 24.8071, 14.8489, 12.7367, 105.726, -69.113
0.772021, -1, 24.6905, 24.8071, 14.8489, 12.7367, 105.726, -69.113
0.774924, -1, 24.5942, 24.7577, 14.8684, 12.7379, 105.674, -69.2439
0.776118, -1, 24.5942, 24.7577, 14.8684, 12.7379, 105.674, -69.2439
0.785121, -1, 24.4019, 24.6093, 14.927, 12.7415, 105.519, -69.6364
0.786581, -1, 24.3057, 24.6093, 14.927, 12.7415, 105.519, -69.6364
0.787771, -1, 24.3057, 24.6093, 14.927, 12.7415, 105.519, -69.6364
0.789809, -1, 24.2094, 24.5598, 14.9464, 12.7427, 105.468, -69.7672
0.791012, -1, 24.2094, 24.5598, 14.9464, 12.7427, 105.468, -69.7672
0.792319, -1, 24.2094, 24.5598, 14.9464, 12.7427, 105.468, -69.7672
0.794358, -1, 24.1131, 24.5104, 14.9659, 12.7438, 105.416, -69.8979
0.795618, -1, 24.1131, 24.5104, 14.9659, 12.7438, 105.416, -69.8979
0.798991, -1, 24.0168, 24.461, 14.9854, 12.745, 105.364, -70.0286
0.800285, -1, 24.0168, 24.461, 14.9854, 12.745, 105.364, -70.0286
0.802306, -1, 23.9204, 24.4116, 15.0049, 12.7462, 105.313, -70.1593
0.803591, -1, 23.9204, 24.4116, 15.0049, 12.7462, 105.313, -70.1593
0.806363, -1, 23.824, 24.3622, 15.0244, 12.7474, 105.261, -70.2902
0.807609, -1, 23.824, 24.3622, 15.0244, 12.7474, 105.261, -70.2902
0.80969, -1, 23.7276, 24.3128, 15.0438, 12.7486, 105.209, -70.4211
0.817791, -1, 23.5345, 24.214, 15.0827, 12.7509, 105.106, -70.6831
0.823563, -1, 23.4378, 24.1645, 15.1022, 12.7521, 105.054, -70.8139
0.832498, -1, 23.2441, 24.0657, 15.1411, 12.7545, 104.951, -71.0754
0.83956, -1, 23.0501, 23.9667, 15.18, 12.7569, 104.848, -71.3373
0.847508, -1, 22.856, 23.8679, 15.219, 12.7594, 104.744, -71.5992
0.855521, -1, 22.6621, 23.7691, 15.258, 12.7619, 104.641, -71.8611
0.863501, -1, 22.4683, 23.6705, 15.2969, 12.7643, 104.537, -72.1226
0.871489, -1, 22.2749, 23.5718, 15.3359, 12.7668, 104.434, -72.3839
0.879599, -1, 22.0817, 23.4731, 15.3748, 12.7694, 104.33, -72.6455
0.887487, -1, 21.8886, 23.3743, 15.4138, 12.772, 104.227, -72.9072
0.895495, -1, 21.6961, 23.2756, 15.4528, 12.7746, 104.124, -73.1684
0.903575, -1, 21.5039, 23.1767, 15.4917, 12.7773, 104.021, -73.4298
0.911478, -1, 21.3117, 23.078, 15.5306, 12.78, 103.918, -73.6914
0.919488, -1, 21.1194, 22.9794, 15.5696, 12.7826, 103.815, -73.9531
0.927809, -1, 20.9269, 22.8807, 15.6085, 12.7853, 103.712, -74.2142
0.935474, -1, 20.7345, 22.7821, 15.6475, 12.788, 103.608, -74.4753
0.943488, -1, 20.5419, 22.6835, 15.6864, 12.7907, 103.505, -74.7366
0.952301, -1, 20.3487, 22.5849, 15.7252, 12.7935, 103.402, -74.998
0.959501, -1, 20.1551, 22.4861, 15.7642, 12.7962, 103.299, -75.2592
0.96756, -1, 19.9613, 22.3874, 15.8031, 12.7989, 103.196, -75.5202
0.976289, -1, 19.7677, 22.2887, 15.8418, 12.8016, 103.094, -75.7814
0.983486, -1, 19.5741, 22.1901, 15.8807, 12.8043, 102.99, -76.0427
0.991586, -1, 19.3807, 22.0915, 15.9196, 12.8071, 102.887, -76.304
1.00032, -1, 19.1876, 21.9928, 15.9584, 12.8098, 102.784, -76.5648
1.00759, -1, 18.9948, 21.8941, 15.9974, 12.8126, 102.681, -76.8256
1.01564, -1, 18.8024, 21.7954, 16.0362, 12.8152, 102.578, -77.0866
1.02437, -1, 18.6103, 21.6967, 16.0749, 12.818, 102.475, -77.3477
1.03158, -1, 18.4185, 21.5982, 16.1139, 12.8207, 102.372, -77.6084
1.03965, -1, 18.2266, 21.4996, 16.1527, 12.8233, 102.27, -77.8691
1.04842, -1, 18.0347, 21.4011, 16.1915, 12.8259, 102.167, -78.1297
1.05549, -1, 17.8429, 21.3028, 16.2305, 12.8284, 102.064, -78.3906
1.06359, -1, 17.6509, 21.2045, 16.2693, 12.831, 101.961, -78.6511
1.07242, -1, 17.4584, 21.1061, 16.3082, 12.8334, 101.858, -78.9115
1.0796, -1, 17.2656, 21.0078, 16.347, 12.8359, 101.755, -79.1721
1.0877, -1, 17.0725, 20.9095, 16.3858, 12.8383, 101.652, -79.4328
1.09663, -1, 16.8795, 20.8113, 16.4246, 12.8407, 101.549, -79.6933
1.10387, -1, 16.6864, 20.7131, 16.4634, 12.843, 101.446, -79.9537
1.11187, -1, 16.4934, 20.6149, 16.5021, 12.8454, 101.344, -80.2143
1.11997, -1, 16.3006, 20.5166, 16.5408, 12.8477, 101.241, -80.475
1.12826, -1, 16.1082, 20.4182, 16.5796, 12.85, 101.138, -80.7355
1.13599, -1, 15.9163, 20.3198, 16.6183, 12.8523, 101.036, -80.9955
1.14403, -1, 15.7245, 20.2212, 16.657, 12.8546, 100.933, -81.2556
1.1521, -1, 15.5332, 20.1228, 16.6956, 12.857, 100.83, -81.5157
1.16009, -1, 15.342, 20.0245, 16.7343, 12.8593, 100.728, -81.776
1.16808, -1, 15.2464, 19.9754, 16.7537, 12.8616, 100.625, -82.0358
1.17657, -1, 14.9598, 19.8281, 16.8118, 12.8638, 100.523, -82.2956
1.18347, -1, 14.8641, 19.779, 16.8311, 12.865, 100.472, -82.4255
1.19148, -1, 14.6727, 19.6809, 16.8698, 12.8673, 100.369, -82.6856
1.19951, -1, 14.481, 19.5827, 16.9084, 12.8695, 100.266, -82.9456
1.20747, -1, 14.289, 19.4847, 16.9471, 12.8719, 100.164, -83.2052
1.21552, -1, 14.0967, 19.3867, 16.9859, 12.874, 100.061, -83.4646
1.22349, -1, 13.9044, 19.2888, 17.0244, 12.8764, 99.9585, -83.7242
1.23146, -1, 13.7118, 19.191, 17.063, 12.8787, 99.8563, -83.9839
1.23952, -1, 13.5194, 19.0931, 17.1018, 12.881, 99.7537, -84.2432
1.24899, -1, 13.2312, 18.9463, 17.1595, 12.8844, 99.6003, -84.6322
1.25697, -1, 13.0397, 18.8484, 17.1982, 12.8868, 99.4978, -84.8915
1.26351, -1, 12.944, 18.7994, 17.2175, 12.888, 99.4465, -85.0213
1.27147, -1, 12.7529, 18.7014, 17.2561, 12.8903, 99.3442, -85.2804
1.27947, -1, 12.562, 18.6035, 17.2945, 12.8928, 99.242, -85.5392
1.28912, -1, 12.2766, 18.4569, 17.3524, 12.8964, 99.0886, -85.9277
1.2955, -1, 12.1815, 18.408, 17.3716, 12.8976, 99.0376, -86.0572
1.30347, -1, 11.9912, 18.3103, 17.4102, 12.9, 98.9355, -86.3162
1.31246, -1, 11.8008, 18.2127, 17.4488, 12.9024, 98.8335, -86.5748
1.32051, -1, 11.6102, 18.1151, 17.4873, 12.9049, 98.7317, -86.8333
1.32757, -1, 11.4193, 18.0174, 17.5258, 12.9073, 98.6298, -87.092
1.33547, -1, 11.2282, 17.9199, 17.5644, 12.9097, 98.5278, -87.3506
1.34348, -1, 11.0368, 17.8223, 17.6029, 12.9121, 98.426, -87.6089
1.35153, -1, 10.8452, 17.7249, 17.6414, 12.9146, 98.324, -87.8671
1.35947, -1, 10.6536, 17.6275, 17.6799, 12.9171, 98.222, -88.1254
1.36747, -1, 10.4621, 17.53, 17.7182, 12.9197, 98.1203, -88.3838
1.37554, -1, 10.2709, 17.4325, 17.7567, 12.9222, 98.0184, -88.6419
1.3835, -1, 10.0801, 17.3349, 17.7951, 12.9248, 97.9165, -88.8999
1.39156, -1, 9.8897, 17.2373, 17.8334, 12.9275, 97.8148, -89.1581
1.39953, -1, 9.69953, 17.1397, 17.8718, 12.9301, 97.7126, -89.4163
1.40748, -1, 9.50989, 17.0423, 17.9101, 12.9328, 97.6107, -89.6743
1.41548, -1, 9.32068, 16.945, 17.9484, 12.9355, 97.5089, -89.9318
1.42353, -1, 9.1314, 16.8477, 17.9868, 12.9382, 97.407, -90.1893
1.43147, -1, 8.94194, 16.7505, 18.0251, 12.9409, 97.3051, -90.4469
1.43947, -1, 8.7524, 16.6533, 18.0635, 12.9435, 97.2036, -90.7046
1.44753, -1, 8.5628, 16.5561, 18.102, 12.9461, 97.1018, -90.9618
1.45548, -1, 8.37308, 16.4591, 18.1403, 12.9488, 97.0004, -91.219
1.46348, -1, 8.18281, 16.3621, 18.1786, 12.9515, 96.8988, -91.4762
1.47162, -1, 7.99228, 16.2652, 18.217, 12.9541, 96.7972, -91.7335
1.47947, -1, 7.80174, 16.1683, 18.2552, 12.9569, 96.6958, -91.9903
1.48754, -1, 7.61119, 16.0715, 18.2934, 12.9594, 96.5943, -92.2469
1.4955, -1, 7.42073, 15.9745, 18.3318, 12.962, 96.4928, -92.5037
1.50353, -1, 7.2306, 15.8776, 18.3699, 12.9645, 96.3917, -92.7605
1.51164, -1, 7.04083, 15.7806, 18.4081, 12.9671, 96.2903, -93.0173
1.51961, -1, 6.85141, 15.6836, 18.4464, 12.9697, 96.189, -93.2736
1.52756, -1, 6.66247, 15.5867, 18.4845, 12.9721, 96.0884, -93.5301
1.53564, -1, 6.47404, 15.4899, 18.5226, 12.9747, 95.9873, -93.7864
1.54357, -1, 6.28579, 15.3931, 18.5608, 12.9772, 95.8862, -94.0427
1.5516, -1, 6.09768, 15.2965, 18.5989, 12.9797, 95.7855, -94.2986
1.55973, -1, 5.9094, 15.1998, 18.6371, 12.982, 95.6843, -94.5546
1.56751, -1, 5.72092, 15.1031, 18.6753, 12.9843, 95.5834, -94.8105
1.57555, -1, 5.53243, 15.0065, 18.7133, 12.9866, 95.4828, -95.0666
1.58388, -1, 5.34371, 14.9099, 18.7514, 12.989, 95.3819, -95.3221
1.59165, -1, 5.15453, 14.8135, 18.7896, 12.9912, 95.2812, -95.5774
1.59985, -1, 4.96513, 14.7172, 18.8276, 12.9935, 95.1807, -95.833
1.60775, -1, 4.77581, 14.6208, 18.8657, 12.9958, 95.0798, -96.0886
1.61579, -1, 4.58637, 14.5244, 18.9038, 12.9979, 94.9791, -96.3438
1.62397, -1, 4.39717, 14.4281, 18.9418, 13.0001, 94.8784, -96.5987
1.63262, -1, 4.2082, 14.3317, 18.9798, 13.0023, 94.7775, -96.8536
1.64001, -1, 4.01946, 14.2352, 19.0178, 13.0046, 94.6767, -97.1087
1.64807, -1, 3.83142, 14.139, 19.0557, 13.0069, 94.5759, -97.3639
1.65604, -1, 3.64396, 14.0429, 19.0936, 13.0091, 94.4751, -97.6184
1.66482, -1, 3.55028, 13.9467, 19.1315, 13.0114, 94.3745, -97.8732
1.67211, -1, 3.36325, 13.8506, 19.1693, 13.0137, 94.2738, -98.1278
1.68032, -1, 3.17627, 13.8026, 19.1882, 13.0149, 94.2234, -98.2552
1.68746, -1, 2.98931, 13.7065, 19.2261, 13.0171, 94.1227, -98.5098
1.69551, -1, 2.80232, 13.6105, 19.2641, 13.0194, 94.0223, -98.7641
1.70346, -1, 2.61512, 13.5145, 19.302, 13.0216, 93.9216, -99.0182
1.71147, -1, 2.42775, 13.4186, 19.3398, 13.0239, 93.8212, -99.2723
1.71956, -1, 2.24012, 13.3228, 19.3775, 13.0262, 93.7211, -99.5265
1.72749, -1, 2.05204, 13.227, 19.4154, 13.0284, 93.6206, -99.7803
1.73545, -1, 1.86394, 13.1311, 19.4533, 13.0307, 93.5207, -100.034
1.74354, -1, 1.67574, 13.0352, 19.491, 13.033, 93.4207, -100.287
1.75146, -1, 1.48753, 12.9394, 19.5288, 13.0352, 93.3206, -100.541
1.75946, -1, 1.29955, 12.8436, 19.5666, 13.0375, 93.2206, -100.795
1.76751, -1, 1.1119, 12.7478, 19.6043, 13.0398, 93.1206, -101.048
1.77546, -1, 0.924816, 12.6521, 19.642, 13.0422, 93.0206, -101.301
1.78345, -1, 0.738378, 12.5565, 19.6797, 13.0446, 92.9208, -101.554
1.79152, -1, 0.552298, 12.461, 19.7173, 13.047, 92.8211, -101.807
1.80107, -1, 0.366509, 12.3656, 19.755, 13.0507, 92.6715, -102.186
1.80747, -1, 0.180987, 12.2703, 19.7926, 13.0519, 92.6219, -102.312
1.81644, -1, -0.00449705, 12.1749, 19.8302, 13.0544, 92.5222, -102.565
1.82346, -1, -0.190048, 12.0796, 19.8678, 13.0568, 92.4227, -102.817
1.83248, -1, -0.375757, 11.9844, 19.9055, 13.0593, 92.3233, -103.07
1.83962, -1, -0.56187, 11.8893, 19.943, 13.0618, 92.2238, -103.322
1.84747, -1, -0.748206, 11.7942, 19.9806, 13.0643, 92.1243, -103.574
1.85552, -1, -0.934702, 11.6992, 20.0181, 13.0668, 92.0249, -103.826
1.86346, -1, -1.12145, 11.6041, 20.0555, 13.0693, 91.9256, -104.078
1.87147, -1, -1.30848, 11.509, 20.093, 13.0718, 91.8262, -104.329
1.87952, -1, -1.49535, 11.414, 20.1305, 13.0744, 91.7272, -104.581
1.8875, -1, -1.68194, 11.3188, 20.1679, 13.077, 91.6279, -104.833
1.89549, -1, -1.86812, 11.2238, 20.2054, 13.0795, 91.5287, -105.084
1.90354, -1, -2.05385, 11.1288, 20.2428, 13.0822, 91.4297, -105.335
1.91148, -1, -2.23897, 11.0339, 20.2801, 13.0849, 91.3304, -105.586
1.91946, -1, -2.42377, 10.9391, 20.3176, 13.0876, 91.2312, -105.837
1.92752, -1, -2.60818, 10.8444, 20.3549, 13.0902, 91.1323, -106.088
1.93545, -1, -2.79208, 10.7496, 20.3921, 13.0929, 91.0331, -106.339
1.94347, -1, -2.97604, 10.6549, 20.4295, 13.0955, 90.9341, -106.59
1.95153, -1, -3.16009, 10.5602, 20.4669, 13.0982, 90.8354, -106.84
1.95945, -1, -3.34442, 10.4656, 20.504, 13.1008, 90.7364, -107.091
1.96755, -1, -3.52908, 10.3711, 20.5413, 13.1033, 90.6374, -107.341
1.97545, -1, -3.71382, 10.2768, 20.5786, 13.1059, 90.5387, -107.592
1.98344, -1, -3.8989, 10.1825, 20.6158, 13.1083, 90.4398, -107.842
1.99231, -1, -4.08426, 10.0881, 20.6531, 13.1107, 90.3411, -108.091
1.99949, -1, -4.26986, 9.99382, 20.6902, 13.1132, 90.2426, -108.341
2.00752, -1, -4.45545, 9.89951, 20.7274, 13.1155, 90.1439, -108.591
2.01678, -1, -4.64076, 9.80519, 20.7647, 13.1179, 90.0454, -108.841
2.0236, -1, -4.82564, 9.71098, 20.8019, 13.1203, 89.9471, -109.09
2.03161, -1, -5.01015, 9.6169, 20.8389, 13.1227, 89.8485, -109.34
2.03957, -1, -5.1939, 9.52279, 20.8761, 13.125, 89.7501, -109.589
2.04756, -1, -5.37715, 9.42876, 20.9132, 13.1274, 89.6519, -109.838
2.05575, -1, -5.56008, 9.33483, 20.9503, 13.1296, 89.5533, -110.087
2.0636, -1, -5.74261, 9.24086, 20.9874, 13.1319, 89.4551, -110.335
2.07149, -1, -5.92498, 9.14697, 21.0244, 13.1343, 89.3571, -110.584
2.07964, -1, -6.10738, 9.05314, 21.0614, 13.1365, 89.2588, -110.833
2.0876, -1, -6.2901, 8.95933, 21.0986, 13.1387, 89.1609, -111.081
2.09561, -1, -6.47304, 8.86569, 21.1355, 13.1409, 89.0632, -111.329
2.10385, -1, -6.65623, 8.77204, 21.1723, 13.143, 88.9651, -111.578
2.11176, -1, -6.83987, 8.6784, 21.2093, 13.1452, 88.8671, -111.826
2.11992, -1, -7.02373, 8.58479, 21.2462, 13.1473, 88.7695, -112.074
2.128, -1, -7.20801, 8.49123, 21.2831, 13.1494, 88.6715, -112.322
2.13734, -1, -7.39222, 8.39756, 21.3201, 13.1515, 88.5737, -112.569
2.14395, -1, -7.576, 8.30393, 21.3569, 13.1537, 88.4762, -112.817
2.15207, -1, -7.75953, 8.21047, 21.3936, 13.1558, 88.3785, -113.064
2.16004, -1, -7.94255, 8.11708, 21.4305, 13.1581, 88.2812, -113.311
2.16857, -1, -8.12512, 8.02369, 21.4673, 13.1604, 88.1839, -113.558
2.17612, -1, -8.21609, 7.97707, 21.504, 13.1626, 88.0864, -113.805
2.18344, -1, -8.39766, 7.88382, 21.5225, 13.1637, 88.0377, -113.929
2.19145, -1, -8.57878, 7.79054, 21.5593, 13.1659, 87.9404, -114.176
2.19949, -1, -8.75958, 7.69739, 21.5961, 13.1683, 87.8429, -114.422
2.20745, -1, -8.94021, 7.60428, 21.6328, 13.1705, 87.7454, -114.668
2.21546, -1, -9.12117, 7.5112, 21.6696, 13.1727, 87.6483, -114.915
2.22351, -1, -9.30231, 7.41828, 21.7062, 13.1749, 87.5511, -115.162
2.23146, -1, -9.4838, 7.32547, 21.7429, 13.1771, 87.4539, -115.408
2.2395, -1, -9.66562, 7.23261, 21.7796, 13.1793, 87.357, -115.654
2.24748, -1, -9.84781, 7.13985, 21.8161, 13.1815, 87.2596, -115.9
2.25546, -1, -10.0303, 7.04711, 21.8526, 13.1837, 87.1624, -116.146
2.26495, -1, -10.3043, 6.90794, 21.9076, 13.1871, 87.0168, -116.515
2.27144, -1, -10.3956, 6.86154, 21.9258, 13.1882, 86.9681, -116.637
2.27944, -1, -10.578, 6.7688, 21.9624, 13.1904, 86.871, -116.883
2.28902, -1, -10.8509, 6.62985, 22.0171, 13.194, 86.7257, -117.251
2.29546, -1, -10.9416, 6.58351, 22.0353, 13.1952, 86.6772, -117.374
2.30346, -1, -11.1225, 6.49094, 22.0718, 13.1976, 86.5804, -117.619
2.31346, -1, -11.3924, 6.35224, 22.1266, 13.2012, 86.4356, -117.986
2.31944, -1, -11.4823, 6.30599, 22.1448, 13.2024, 86.3871, -118.108
2.3275, -1, -11.6617, 6.21356, 22.1812, 13.2048, 86.2904, -118.353
2.33651, -1, -11.8409, 6.12121, 22.2177, 13.2074, 86.1939, -118.598
2.34345, -1, -12.0201, 6.02891, 22.2541, 13.2098, 86.0972, -118.842
2.3515, -1, -12.1995, 5.93675, 22.2905, 13.2122, 86.0007, -119.086
2.35944, -1, -12.3792, 5.84473, 22.327, 13.2147, 85.9045, -119.33
2.36745, -1, -12.5593, 5.75268, 22.3632, 13.2172, 85.8081, -119.575
2.37552, -1, -12.7398, 5.66068, 22.3995, 13.2197, 85.7117, -119.819
2.38343, -1, -12.9207, 5.56876, 22.4359, 13.2221, 85.6159, -120.062
2.39147, -1, -13.1018, 5.47682, 22.4721, 13.2246, 85.5199, -120.306
2.39958, -1, -13.2831, 5.38481, 22.5083, 13.227, 85.4239, -120.55
2.4075, -1, -13.4642, 5.29288, 22.5446, 13.2294, 85.3282, -120.793
2.41548, -1, -13.6448, 5.20099, 22.5808, 13.232, 85.2324, -121.036
2.42343, -1, -13.825, 5.10915, 22.6169, 13.2346, 85.1365, -121.279
2.4315, -1, -14.0045, 5.01738, 22.6531, 13.2372, 85.041, -121.522
2.43943, -1, -14.1832, 4.92568, 22.6893, 13.2397, 84.9453, -121.765
2.44744, -1, -14.3615, 4.83401, 22.7253, 13.2423, 84.8497, -122.008
2.45552, -1, -14.5395, 4.74238, 22.7616, 13.2448, 84.7542, -122.25
2.46342, -1, -14.7171, 4.65076, 22.7978, 13.2474, 84.6586, -122.493
2.47146, -1, -14.8946, 4.55929, 22.8338, 13.2498, 84.5628, -122.735
2.47951, -1, -15.0723, 4.46784, 22.87, 13.2523, 84.4672, -122.977
2.48744, -1, -15.2504, 4.37654, 22.9061, 13.2547, 84.3716, -123.219
2.49546, -1, -15.4288, 4.28521, 22.9421, 13.257, 84.2759, -123.461
2.50354, -1, -15.6078, 4.19394, 22.9781, 13.2594, 84.1804, -123.703
2.51151, -1, -15.787, 4.10267, 23.0141, 13.2617, 84.0848, -123.945
2.51952, -1, -15.9662, 4.01148, 23.05, 13.2639, 83.9894, -124.186
2.5276, -1, -16.1458, 3.92019, 23.086, 13.2661, 83.894, -124.428
2.53555, -1, -16.3256, 3.82895, 23.1221, 13.2683, 83.7985, -124.669
2.54354, -1, -16.505, 3.73775, 23.1578, 13.2705, 83.7031, -124.911
2.55154, -1, -16.684, 3.64665, 23.1937, 13.2727, 83.6076, -125.152
2.55947, -1, -16.8624, 3.55555, 23.2296, 13.275, 83.5123, -125.393
2.56755, -1, -17.04, 3.46451, 23.2654, 13.2772, 83.4169, -125.634
2.57549, -1, -17.2168, 3.37358, 23.3012, 13.2794, 83.3216, -125.874
2.58351, -1, -17.3933, 3.28273, 23.337, 13.2816, 83.2267, -126.115
2.5916, -1, -17.5696, 3.19184, 23.3727, 13.2837, 83.1315, -126.356
2.59978, -1, -17.7456, 3.1012, 23.4086, 13.2859, 83.0367, -126.596
2.60767, -1, -17.9216, 3.0106, 23.4445, 13.288, 82.942, -126.836
2.61579, -1, -18.0979, 2.92013, 23.4802, 13.2901, 82.8471, -127.076
2.62384, -1, -18.2744, 2.82976, 23.5159, 13.2922, 82.7524, -127.317
2.63242, -1, -18.4514, 2.73935, 23.5517, 13.2942, 82.6578, -127.556
2.64002, -1, -18.6289, 2.64897, 23.5873, 13.2963, 82.563, -127.796
2.64825, -1, -18.8066, 2.55861, 23.6229, 13.2983, 82.4685, -128.035
2.65599, -1, -18.9846, 2.46814, 23.6587, 13.3003, 82.3742, -128.275
2.66457, -1, -19.1629, 2.37764, 23.6942, 13.3023, 82.2797, -128.514
2.67206, -1, -19.252, 2.33248, 23.7297, 13.3043, 82.1854, -128.753
2.67996, -1, -19.43, 2.24211, 23.7476, 13.3054, 82.1385, -128.992
2.68803, -1, -19.6073, 2.15169, 23.7832, 13.3076, 82.0444, -129.231
2.69545, -1, -19.7841, 2.06132, 23.8185, 13.3097, 81.9502, -129.351
2.70342, -1, -19.9603, 1.97106, 23.854, 13.3119, 81.856, -129.59
2.71149, -1, -20.1357, 1.88084, 23.8896, 13.3141, 81.7621, -129.829
2.71943, -1, -20.3107, 1.79067, 23.9251, 13.3163, 81.668, -130.067
2.72746, -1, -20.4854, 1.70058, 23.9606, 13.3185, 81.5739, -130.305
2.73551, -1, -20.6598, 1.61058, 23.9962, 13.3208, 81.4802, -130.544
2.74343, -1, -20.8344, 1.52067, 24.0316, 13.3228, 81.3862, -130.782
2.75147, -1, -21.0092, 1.43087, 24.067, 13.3251, 81.2925, -131.02
2.76087, -1, -21.2722, 1.29626, 24.1203, 13.3283, 81.1519, -131.376
2.76744, -1, -21.36, 1.25138, 24.138, 13.3294, 81.105, -131.495
2.77696, -1, -21.6239, 1.11691, 24.1911, 13.3327, 80.9642, -131.852
2.78584, -1, -21.8002, 1.02725, 24.2265, 13.3348, 80.8704, -132.089
2.79165, -1, -21.8884, 0.982432, 24.2442, 13.3359, 80.8235, -132.208
2.79942, -1, -22.0648, 0.892816, 24.2796, 13.3381, 80.7297, -132.445
2.80841, -1, -22.2415, 0.803222, 24.315, 13.3402, 80.6363, -132.682
2.81623, -1, -22.4178, 0.713733, 24.3503, 13.3424, 80.5425, -132.92
2.82342, -1, -22.5935, 0.624229, 24.3855, 13.3448, 80.4489, -133.156
2.83143, -1, -22.7689, 0.53478, 24.4208, 13.3472, 80.3554, -133.393
2.84045, -1, -22.9432, 0.445389, 24.4561, 13.3495, 80.2617, -133.63
2.84743, -1, -23.117, 0.355983, 24.4912, 13.352, 80.1682, -133.867
2.85542, -1, -23.2904, 0.266667, 24.5263, 13.3545, 80.0748, -134.104
2.86421, -1, -23.4636, 0.177382, 24.5616, 13.3569, 79.9812, -134.34
2.87141, -1, -23.6368, 0.0882408, 24.5968, 13.3593, 79.888, -134.576
2.87949, -1, -23.8102, -0.000882209, 24.632, 13.3616, 79.7948, -134.812
2.88822, -1, -23.9836, -0.0898332, 24.6672, 13.3641, 79.7016, -135.048
2.89546, -1, -24.1573, -0.17883, 24.7022, 13.3665, 79.6085, -135.284
2.90351, -1, -24.3313, -0.267816, 24.7373, 13.369, 79.5155, -135.52
2.91224, -1, -24.5056, -0.356692, 24.7725, 13.3714, 79.4224, -135.755
2.91945, -1, -24.6802, -0.44559, 24.8076, 13.3738, 79.3294, -135.991
2.92751, -1, -24.8551, -0.534501, 24.8426, 13.3762, 79.2363, -136.227
2.93622, -1, -25.0302, -0.623371, 24.8777, 13.3786, 79.1434, -136.462
2.94342, -1, -25.2051, -0.712189, 24.9128, 13.381, 79.0504, -136.697
2.9515, -1, -25.3796, -0.800936, 24.9478, 13.3834, 78.9577, -136.932
2.96032, -1, -25.5537, -0.889757, 24.9828, 13.3859, 78.8652, -137.167
2.96743, -1, -25.7272, -0.978481, 25.0177, 13.3883, 78.7723, -137.402
2.97551, -1, -25.9001, -1.06715, 25.0525, 13.3907, 78.6798, -137.636
2.98416, -1, -26.0726, -1.15585, 25.0876, 13.3932, 78.5876, -137.871
2.99147, -1, -26.2446, -1.24449, 25.1225, 13.3956, 78.4948, -138.106
2.99945, -1, -26.4164, -1.333, 25.1573, 13.398, 78.4022, -138.34
3.00822, -1, -26.5883, -1.42141, 25.1923, 13.4002, 78.31, -138.574
3.01556, -1, -26.7603, -1.50976, 25.2272, 13.4024, 78.2173, -138.808
3.02352, -1, -26.9326, -1.59796, 25.262, 13.4047, 78.1249, -139.042
3.03223, -1, -27.1051, -1.68617, 25.2969, 13.4069, 78.0328, -139.276
3.03959, -1, -27.2777, -1.77442, 25.3318, 13.4091, 77.9406, -139.51
3.04752, -1, -27.4505, -1.8625, 25.3665, 13.4113, 77.8486, -139.744
3.05624, -1, -27.6237, -1.95065, 25.4012, 13.4134, 77.7567, -139.977
3.06364, -1, -27.797, -2.03885, 25.4362, 13.4155, 77.6646, -140.211
3.07147, -1, -27.9703, -2.12687, 25.4709, 13.4176, 77.5725, -140.444
3.08033, -1, -28.1436, -2.21492, 25.5056, 13.4196, 77.4805, -140.678
3.0876, -1, -28.3167, -2.30296, 25.5404, 13.4216, 77.3885, -140.911
3.09556, -1, -28.4894, -2.391, 25.5752, 13.4237, 77.2963, -141.144
3.10449, -1, -28.6618, -2.47896, 25.6098, 13.4259, 77.2043, -141.376
3.11173, -1, -28.8335, -2.567, 25.6445, 13.428, 77.1124, -141.609
3.11971, -1, -29.0045, -2.65497, 25.6791, 13.4302, 77.0204, -141.842
3.12793, -1, -29.1751, -2.74287, 25.7136, 13.4324, 76.9285, -142.075
3.13588, -1, -29.3457, -2.83071, 25.7483, 13.4344, 76.8369, -142.307
3.14453, -1, -29.5165, -2.91844, 25.783, 13.4365, 76.7448, -142.54
3.1529, -1, -29.6874, -3.00603, 25.8174, 13.4385, 76.6529, -142.772
3.15996, -1, -29.8584, -3.09356, 25.852, 13.4406, 76.5614, -143.004
3.16798, -1, -30.0294, -3.18104, 25.8866, 13.4427, 76.4694, -143.236
3.17752, -1, -30.2004, -3.26858, 25.9211, 13.4447, 76.3777, -143.468
3.18393, -1, -30.2859, -3.31233, 25.9383, 13.4458, 76.3318, -143.584
3.19141, -1, -30.4573, -3.39972, 25.9729, 13.4479, 76.2404, -143.816
3.19947, -1, -30.6289, -3.48727, 26.0074, 13.4498, 76.1488, -144.048
3.20747, -1, -30.8007, -3.5747, 26.0418, 13.4519, 76.0575, -144.279
3.21541, -1, -30.9726, -3.66207, 26.0764, 13.4539, 75.9663, -144.511
3.22348, -1, -31.1443, -3.74944, 26.1109, 13.4559, 75.8747, -144.742
3.23145, -1, -31.3158, -3.83676, 26.1453, 13.458, 75.7834, -144.974
3.23944, -1, -31.4869, -3.92409, 26.1797, 13.4601, 75.6922, -145.205
3.24747, -1, -31.6575, -4.01132, 26.2142, 13.4623, 75.6008, -145.436
3.25544, -1, -31.8277, -4.0986, 26.2486, 13.4644, 75.5096, -145.667
3.26341, -1, -31.9976, -4.18586, 26.2829, 13.4667, 75.4187, -145.898
3.27379, -1, -32.2518, -4.31654, 26.3346, 13.47, 75.282, -146.244
3.27942, -1, -32.3365, -4.36008, 26.3517, 13.4711, 75.2365, -146.359
3.28898, -1, -32.5909, -4.49056, 26.4031, 13.4743, 75.1004, -146.705
3.29547, -1, -32.6758, -4.534, 26.4204, 13.4753, 75.0548, -146.82
3.30341, -1, -32.8454, -4.62091, 26.4547, 13.4774, 74.9639, -147.05
3.31239, -1, -33.0151, -4.70782, 26.4889, 13.4796, 74.8732, -147.281
3.31948, -1, -33.1848, -4.79471, 26.5232, 13.4818, 74.7828, -147.511
3.32845, -1, -33.3547, -4.88153, 26.5575, 13.4841, 74.692, -147.741
3.33541, -1, -33.5249, -4.96846, 26.5917, 13.4863, 74.6013, -147.971
3.34348, -1, -33.6952, -5.05531, 26.6259, 13.4885, 74.511, -148.2
3.35141, -1, -33.8654, -5.14206, 26.6602, 13.4907, 74.4202, -148.43
3.35948, -1, -34.0357, -5.2288, 26.6944, 13.493, 74.3298, -148.66
3.36741, -1, -34.2059, -5.31553, 26.7285, 13.4953, 74.2395, -148.889
3.37541, -1, -34.376, -5.40216, 26.7628, 13.4975, 74.1487, -149.119
3.38347, -1, -34.5458, -5.4888, 26.797, 13.4999, 74.0582, -149.348
3.3914, -1, -34.7149, -5.57547, 26.8311, 13.5022, 73.9678, -149.577
3.39944, -1, -34.8836, -5.6621, 26.8652, 13.5046, 73.8771, -149.806
3.40751, -1, -35.0521, -5.74864, 26.8994, 13.507, 73.7866, -150.035
3.41563, -1, -35.2204, -5.8351, 26.9335, 13.5095, 73.6963, -150.264
3.42352, -1, -35.3887, -5.92143, 26.9676, 13.5119, 73.6059, -150.493
3.43141, -1, -35.5573, -6.00767, 27.0017, 13.5143, 73.5156, -150.722
3.4394, -1, -35.7258, -6.09391, 27.0356, 13.5166, 73.4252, -150.951
3.44747, -1, -35.8943, -6.18008, 27.0697, 13.519, 73.3351, -151.179
3.45541, -1, -36.0628, -6.2662, 27.1038, 13.5214, 73.2446, -151.408
3.4634, -1, -36.2313, -6.3523, 27.1378, 13.5238, 73.1541, -151.636
3.47148, -1, -36.4, -6.43848, 27.1717, 13.5262, 73.064, -151.865
3.47942, -1, -36.5689, -6.5247, 27.2057, 13.5286, 72.9734, -152.093
3.48742, -1, -36.7377, -6.6109, 27.2396, 13.5309, 72.8832, -152.321
3.49548, -1, -36.9067, -6.69706, 27.2735, 13.5332, 72.7932, -152.549
3.50341, -1, -37.0757, -6.78322, 27.3074, 13.5355, 72.703, -152.777
3.51146, -1, -37.2444, -6.86935, 27.3413, 13.5377, 72.6132, -153.005
3.51956, -1, -37.413, -6.95538, 27.3751, 13.54, 72.5233, -153.233
3.5275, -1, -37.5811, -7.04144, 27.4091, 13.5423, 72.4334, -153.461
3.5355, -1, -37.7488, -7.12746, 27.4431, 13.5445, 72.3435, -153.688
3.54357, -1, -37.9165, -7.21341, 27.4769, 13.5467, 72.2537, -153.916
3.55153, -1, -38.0839, -7.29933, 27.5107, 13.5489, 72.1641, -154.143
3.55946, -1, -38.2515, -7.38522, 27.5447, 13.5511, 72.0742, -154.371
3.56768, -1, -38.4188, -7.47094, 27.5785, 13.5532, 71.9845, -154.598
3.57618, -1, -38.5859, -7.55663, 27.6123, 13.5553, 71.8952, -154.825
3.58344, -1, -38.7533, -7.64236, 27.6463, 13.5574, 71.8053, -155.052
3.59159, -1, -38.9206, -7.72805, 27.68, 13.5596, 71.7159, -155.279
3.60038, -1, -39.0879, -7.81365, 27.7137, 13.5616, 71.6269, -155.506
3.60761, -1, -39.2554, -7.89931, 27.7476, 13.5636, 71.5373, -155.732
3.61594, -1, -39.4229, -7.985, 27.7814, 13.5655, 71.4479, -155.959
3.62455, -1, -39.5905, -8.07054, 27.8151, 13.5675, 71.3587, -156.186
3.63187, -1, -39.7582, -8.15608, 27.8488, 13.5694, 71.2693, -156.412
3.63997, -1, -39.9258, -8.24157, 27.8825, 13.5714, 71.18, -156.639
3.64876, -1, -40.0934, -8.32701, 27.9162, 13.5733, 71.0906, -156.865
3.65594, -1, -40.2609, -8.41236, 27.9499, 13.5753, 71.0015, -157.092
3.66449, -1, -40.428, -8.49775, 27.9837, 13.5773, 70.912, -157.318
3.67286, -1, -40.595, -8.58313, 28.0173, 13.5793, 70.8229, -157.544
3.68, -1, -40.6785, -8.62583, 28.0341, 13.5813, 70.7338, -157.77
3.68799, -1, -40.8452, -8.71121, 28.0677, 13.5823, 70.6446, -157.996
3.69539, -1, -41.0117, -8.79654, 28.1014, 13.5843, 70.6001, -158.109
3.70339, -1, -41.1781, -8.88182, 28.135, 13.5863, 70.5109, -158.335
3.71269, -1, -41.4273, -9.00958, 28.1854, 13.5893, 70.3772, -158.673
3.7194, -1, -41.5104, -9.05217, 28.2022, 13.5903, 70.3326, -158.786
3.72741, -1, -41.6767, -9.13728, 28.2359, 13.5923, 70.2434, -159.011
3.73548, -1, -41.8431, -9.22238, 28.2694, 13.5943, 70.1545, -159.237
3.74341, -1, -42.0095, -9.30741, 28.303, 13.5964, 70.0654, -159.462
3.75288, -1, -42.259, -9.43505, 28.3534, 13.5994, 69.9319, -159.8
3.75942, -1, -42.3422, -9.4776, 28.3702, 13.6004, 69.8876, -159.913
3.76739, -1, -42.5085, -9.56257, 28.4037, 13.6024, 69.7985, -160.138
3.77544, -1, -42.6749, -9.64753, 28.4373, 13.6045, 69.7096, -160.363
3.78496, -1, -42.9244, -9.77496, 28.4874, 13.6075, 69.5766, -160.701
3.7914, -1, -43.0076, -9.81741, 28.5041, 13.6086, 69.5321, -160.814
3.79946, -1, -43.1738, -9.90232, 28.5377, 13.6106, 69.4433, -161.038
3.8074, -1, -43.34, -9.98727, 28.5712, 13.6127, 69.3545, -161.263
3.81541, -1, -43.5061, -10.0722, 28.6047, 13.6147, 69.2661, -161.488
3.82346, -1, -43.6721, -10.1572, 28.6382, 13.6168, 69.1774, -161.713
3.83242, -1, -43.838, -10.242, 28.6717, 13.6189, 69.0889, -161.937
3.8394, -1, -44.0037, -10.3268, 28.7051, 13.6212, 69.0006, -162.162
3.84745, -1, -44.1691, -10.4116, 28.7385, 13.6233, 68.9118, -162.386
3.85539, -1, -44.3343, -10.4962, 28.7721, 13.6255, 68.8232, -162.61
3.86339, -1, -44.4995, -10.5808, 28.8054, 13.6276, 68.7347, -162.835
3.87147, -1, -44.6647, -10.6653, 28.8388, 13.6298, 68.6461, -163.059
3.8794, -1, -44.83, -10.7498, 28.8723, 13.632, 68.5575, -163.283
3.88741, -1, -44.9954, -10.8342, 28.9057, 13.6342, 68.4691, -163.507
3.89546, -1, -45.1607, -10.9188, 28.9391, 13.6364, 68.3808, -163.731
3.90342, -1, -45.326, -11.0033, 28.9725, 13.6386, 68.2923, -163.955
3.91142, -1, -45.4912, -11.0877, 29.0059, 13.6409, 68.2039, -164.179
3.91946, -1, -45.6564, -11.1722, 29.039, 13.6432, 68.1159, -164.403
3.92742, -1, -45.8217, -11.2566, 29.0724, 13.6455, 68.0274, -164.626
3.93539, -1, -45.9859, -11.3405, 29.1058, 13.6478, 67.939, -164.85
3.94345, -1, -46.1473, -11.4228, 29.1392, 13.65, 67.8509, -165.073
3.95142, -1, -46.3044, -11.5022, 29.1728, 13.6525, 67.7635, -165.294
3.9594, -1, -46.4547, -11.5772, 29.2063, 13.6548, 67.6783, -165.51
3.96746, -1, -46.5959, -11.6471, 29.2386, 13.6571, 67.5967, -165.716
3.9754, -1, -46.7256, -11.7105, 29.2684, 13.6593, 67.5221, -165.905
3.98341, -1, -46.8406, -11.7666, 29.2948, 13.6613, 67.4551, -166.074
3.99147, -1, -46.9394, -11.8157, 29.3169, 13.663, 67.3992, -166.216
3.99941, -1, -47.022, -11.8587, 29.3335, 13.6643, 67.3544, -166.329
4.00742, -1, -47.0893, -11.8955, 29.3448, 13.6651, 67.3208, -166.414
4.01566, -1, -47.1417, -11.9249, 29.352, 13.6655, 67.2975, -166.473
4.02349, -1, -47.1806, -11.9471, 29.3559, 13.6657, 67.2824, -166.511
4.03149, -1, -47.2082, -11.9626, 29.3577, 13.6658, 67.2737, -166.533
4.03956, -1, -47.2263, -11.9727, 29.3585, 13.6659, 67.2689, -166.545
4.0475, -1, -47.2372, -11.9785, 29.3589, 13.6659, 67.2665, -166.551
4.0557, -1, -47.2429, -11.9815, 29.3591, 13.666, 67.2654, -166.554
4.06356, 2, -47.2449, -11.9828, 29.3593, 13.666, 67.2649, -166.555
4.07144, 2, -47.245, -11.9833, 29.3593, 13.666, 67.2646, -166.555
4.07945, 2, -47.2448, -11.9835, 29.3594, 13.6661, 67.2645, -166.556
4.08749, 2, -47.2448, -11.9836, 29.3594, 13.6661, 67.2645, -166.556
4.09556, 2, -47.2451, -11.9837, 29.3595, 13.6661, 67.2645, -166.556
4.10359, 2, -47.2461, -11.984, 29.3595, 13.6661, 67.2644, -166.556
4.11167, 2, -47.2474, -11.9845, 29.3595, 13.6661, 67.2645, -166.556
4.11969, 2, -47.2492, -11.9852, 29.3595, 13.6661, 67.2645, -166.556
4.12779, 2, -47.2508, -11.9861, 29.3595, 13.6661, 67.2644, -166.556
4.13585, 2, -47.2522, -11.987, 29.3595, 13.6661, 67.2644, -166.556
4.14389, 2, -47.2531, -11.9876, 29.3595, 13.6661, 67.2644, -166.556
4.15248, 2, -47.2536, -11.988, 29.3595, 13.6661, 67.2644, -166.556
4.15996, 2, -47.2537, -11.9882, 29.3595, 13.6661, 67.2644, -166.556
4.16855, 2, -47.2538, -11.9883, 29.3595, 13.6661, 67.2645, -166.556
4.17599, 2, -47.2536, -11.9883, 29.3595, 13.6661, 67.2644, -166.556
4.18402, 2, -47.2532, -11.9883, 29.3595, 13.666, 67.2644, -166.556
4.19191, 2, -47.2527, -11.9883, 29.3595, 13.666, 67.2645, -166.556
4.19939, 2, -47.2523, -11.9883, 29.3595, 13.666, 67.2645, -166.556
4.20744, 2, -47.2521, -11.9883, 29.3595, 13.6661, 67.2645, -166.556
4.21538, 2, -47.252, -11.9883, 29.3595, 13.6661, 67.2645, -166.556
4.22338, 2, -47.252, -11.9884, 29.3595, 13.666, 67.2645, -166.556
4.23143, 2, -47.2522, -11.9886, 29.3595, 13.6661, 67.2645, -166.556
4.23942, 2, -47.2526, -11.989, 29.3595, 13.6661, 67.2645, -166.556
4.2474, 2, -47.2532, -11.9893, 29.3595, 13.6661, 67.2645, -166.556
4.25678, 2, -47.2538, -11.9897, 29.3595, 13.6661, 67.2645, -166.556
4.26341, 2, -47.2539, -11.9897, 29.3595, 13.6661, 67.2645, -166.556
4.27139, 2, -47.254, -11.9898, 29.3595, 13.666, 67.2645, -166.556
4.2809, 2, -47.2538, -11.9897, 29.3595, 13.666, 67.2645, -166.556
4.28936, 2, -47.2537, -11.9897, 29.3596, 13.666, 67.2645, -166.556
4.29538, 2, -47.2535, -11.9897, 29.3596, 13.666, 67.2645, -166.556
4.30496, 2, -47.253, -11.9896, 29.3596, 13.666, 67.2645, -166.556
4.3114, 2, -47.2527, -11.9896, 29.3595, 13.666, 67.2645, -166.556
4.31941, 2, -47.2525, -11.9896, 29.3595, 13.6661, 67.2645, -166.556
4.32744, 2, -47.2523, -11.9896, 29.3595, 13.666, 67.2645, -166.556
4.33538, 2, -47.2523, -11.9897, 29.3595, 13.666, 67.2645, -166.556
4.34337, 2, -47.2523, -11.9898, 29.3595, 13.666, 67.2645, -166.556
4.35145, 2, -47.2522, -11.9898, 29.3595, 13.6661, 67.2645, -166.556
4.36043, 2, -47.2522, -11.9899, 29.3595, 13.6661, 67.2645, -166.556
4.36739, 2, -47.2523, -11.9899, 29.3595, 13.666, 67.2645, -166.556
4.37543, 2, -47.2523, -11.9899, 29.3595, 13.666, 67.2645, -166.556
4.38338, 2, -47.2522, -11.9899, 29.3595, 13.666, 67.2645, -166.556
4.39139, 2, -47.2522, -11.9898, 29.3595, 13.666, 67.2645, -166.556
4.39945, 2, -47.2521, -11.9897, 29.3595, 13.666, 67.2646, -166.555
4.40741, 2, -47.252, -11.9897, 29.3595, 13.666, 67.2645, -166.555
4.41539, 2, -47.2519, -11.9896, 29.3595, 13.666, 67.2645, -166.555
4.42344, 2, -47.2518, -11.9896, 29.3595, 13.6659, 67.2646, -166.555
4.43146, 2, -47.2518, -11.9896, 29.3595, 13.666, 67.2646, -166.555
4.43938, 2, -47.2517, -11.9896, 29.3595, 13.666, 67.2645, -166.555
4.44745, 2, -47.2516, -11.9897, 29.3595, 13.666, 67.2645, -166.555
4.45537, 2, -47.2515, -11.9897, 29.3595, 13.666, 67.2645, -166.555
4.46337, 2, -47.2515, -11.9897, 29.3595, 13.666, 67.2646, -166.555
4.47145, 2, -47.2514, -11.9897, 29.3595, 13.666, 67.2646, -166.555
4.47938, 2, -47.2513, -11.9897, 29.3595, 13.666, 67.2646, -166.555
4.4874, 2, -47.2512, -11.9897, 29.3595, 13.666, 67.2646, -166.555
4.49544, 2, -47.2511, -11.9896, 29.3595, 13.666, 67.2646, -166.555
4.50338, 2, -47.2511, -11.9896, 29.3595, 13.666, 67.2646, -166.555
4.51142, 2, -47.251, -11.9895, 29.3595, 13.666, 67.2646, -166.555
4.51951, 2, -47.2509, -11.9894, 29.3595, 13.666, 67.2646, -166.555
4.52748, 2, -47.2508, -11.9894, 29.3595, 13.666, 67.2646, -166.555
4.53547, 2, -47.2507, -11.9894, 29.3595, 13.666, 67.2646, -166.555
4.54353, 2, -47.2506, -11.9894, 29.3595, 13.666, 67.2646, -166.555
4.55149, 2, -47.2505, -11.9894, 29.3595, 13.666, 67.2646, -166.555
4.55948, 2, -47.2504, -11.9894, 29.3595, 13.666, 67.2646, -166.555
4.56755, 2, -47.2503, -11.9894, 29.3595, 13.666, 67.2646, -166.555
4.57544, 2, -47.2502, -11.9894, 29.3595, 13.666, 67.2646, -166.555
4.58349, 2, -47.2501, -11.9894, 29.3595, 13.666, 67.2646, -166.555
4.59148, 2, -47.25, -11.9894, 29.3595, 13.666, 67.2646, -166.555
4.59982, 2, -47.2499, -11.9894, 29.3595, 13.6659, 67.2646, -166.555
4.60756, 2, -47.2498, -11.9893, 29.3595, 13.6659, 67.2646, -166.555
4.61564, 2, -47.2497, -11.9891, 29.3595, 13.6659, 67.2646, -166.555
4.62393, 2, -47.2495, -11.9891, 29.3595, 13.6659, 67.2646, -166.555
4.63235, 2, -47.2495, -11.9891, 29.3595, 13.6659, 67.2646, -166.555
4.63989, 2, -47.2494, -11.9891, 29.3595, 13.6659, 67.2646, -166.555
4.64853, 2, -47.2493, -11.9891, 29.3595, 13.6659, 67.2647, -166.555
4.6559, 2, -47.2493, -11.9891, 29.3595, 13.6659, 67.2647, -166.555
4.66446, 2, -47.2492, -11.9891, 29.3595, 13.6659, 67.2647, -166.555
4.67222, 2, -47.2492, -11.989, 29.3595, 13.6659, 67.2647, -166.555
4.68013, 2, -47.2491, -11.989, 29.3595, 13.6659, 67.2647, -166.555
4.688, 2, -47.2491, -11.989, 29.3595, 13.6658, 67.2647, -166.555
4.69633, 2, -47.2491, -11.989, 29.3595, 13.6658, 67.2647, -166.555
4.70336, 2, -47.249, -11.989, 29.3595, 13.6658, 67.2647, -166.555
4.71239, 2, -47.2489, -11.9889, 29.3595, 13.6658, 67.2648, -166.555
4.72018, 2, -47.2489, -11.9888, 29.3595, 13.6658, 67.2648, -166.555
4.72737, 2, -47.2488, -11.9888, 29.3595, 13.6659, 67.2647, -166.555
4.73541, 2, -47.2487, -11.9887, 29.3595, 13.6659, 67.2647, -166.555
4.7434, 2, -47.2487, -11.9887, 29.3595, 13.6658, 67.2647, -166.555
4.75139, 2, -47.2486, -11.9886, 29.3595, 13.6658, 67.2647, -166.555
4.76078, 2, -47.2485, -11.9886, 29.3595, 13.6658, 67.2647, -166.555
4.7674, 2, -47.2485, -11.9887, 29.3595, 13.6658, 67.2648, -166.555
4.77536, 2, -47.2485, -11.9886, 29.3595, 13.6658, 67.2648, -166.555
4.78488, 2, -47.2485, -11.9886, 29.3595, 13.6658, 67.2647, -166.555
4.79327, 2, -47.2485, -11.9886, 29.3595, 13.6657, 67.2647, -166.555
4.79937, 2, -47.2485, -11.9886, 29.3595, 13.6657, 67.2648, -166.555
4.80743, 2, -47.2484, -11.9886, 29.3595, 13.6657, 67.2648, -166.555
4.81728, 2, -47.2484, -11.9885, 29.3595, 13.6658, 67.2648, -166.554
4.82344, 2, -47.2483, -11.9884, 29.3595, 13.6657, 67.2648, -166.554
4.83235, 2, -47.2482, -11.9884, 29.3595, 13.6657, 67.2648, -166.554
4.84125, 2, -47.2482, -11.9883, 29.3595, 13.6657, 67.2647, -166.554
4.84737, 2, -47.2481, -11.9883, 29.3595, 13.6657, 67.2647, -166.554
4.85543, 2, -47.248, -11.9883, 29.3595, 13.6656, 67.2647, -166.554
4.86336, 2, -47.2479, -11.9883, 29.3595, 13.6656, 67.2648, -166.554
4.87137, 2, -47.2479, -11.9882, 29.3595, 13.6656, 67.2648, -166.554
4.87946, 2, -47.2479, -11.9882, 29.3595, 13.6656, 67.2648, -166.554
4.88736, 2, -47.2478, -11.9882, 29.3595, 13.6656, 67.2648, -166.554
4.89536, 2, -47.2478, -11.9882, 29.3595, 13.6656, 67.2649, -166.554
4.90342, 2, -47.2478, -11.9882, 29.3595, 13.6656, 67.2649, -166.554
4.9114, 2, -47.2478, -11.9882, 29.3595, 13.6656, 67.2649, -166.554
4.91938, 2, -47.2477, -11.9881, 29.3595, 13.6656, 67.265, -166.554
4.92744, 2, -47.2476, -11.988, 29.3595, 13.6656, 67.265, -166.554
4.9354, 2, -47.2475, -11.988, 29.3595, 13.6656, 67.265, -166.554
4.94337, 2, -47.2474, -11.9879, 29.3595, 13.6655, 67.2649, -166.554
4.95144, 2, -47.2474, -11.9879, 29.3595, 13.6655, 67.2649, -166.554
4.95936, 2, -47.2473, -11.9879, 29.3595, 13.6655, 67.265, -166.554
4.96736, 2, -47.2473, -11.9878, 29.3595, 13.6655, 67.265, -166.554
4.97542, 2, -47.2472, -11.9878, 29.3595, 13.6655, 67.265, -166.554
4.98336, 2, -47.2472, -11.9878, 29.3595, 13.6654, 67.265, -166.554
4.99139, 2, -47.2472, -11.9878, 29.3595, 13.6654, 67.265, -166.554
4.99943, 2, -47.2471, -11.9878, 29.3595, 13.6655, 67.265, -166.554
5.00737, 2, -47.2471, -11.9878, 29.3595, 13.6655, 67.265, -166.554
5.0154, 2, -47.2471, -11.9878, 29.3595, 13.6654, 67.265, -166.554
5.02351, 2, -47.247, -11.9877, 29.3595, 13.6654, 67.2651, -166.554
5.03145, 2, -47.2469, -11.9876, 29.3595, 13.6654, 67.265, -166.554
5.03946, 2, -47.2469, -11.9876, 29.3595, 13.6654, 67.265, -166.554
5.04752, 2, -47.2468, -11.9875, 29.3595, 13.6654, 67.2651, -166.554
5.05546, 2, -47.2467, -11.9875, 29.3595, 13.6654, 67.2651, -166.554
5.06362, 2, -47.2466, -11.9875, 29.3595, 13.6654, 67.2651, -166.554
5.07541, 2, -47.2466, -11.9875, 29.3595, 13.6653, 67.2651, -166.554
5.07946, 2, -47.2465, -11.9875, 29.3595, 13.6653, 67.2651, -166.554
5.08782, 2, -47.2465, -11.9875, 29.3595, 13.6653, 67.2651, -166.554
5.09549, 2, -47.2465, -11.9874, 29.3595, 13.6653, 67.2651, -166.554
5.10353, 2, -47.2465, -11.9874, 29.3595, 13.6653, 67.2651, -166.554
5.11191, 2, -47.2464, -11.9874, 29.3595, 13.6653, 67.2651, -166.554
5.11967, 2, -47.2464, -11.9874, 29.3595, 13.6653, 67.2651, -166.554
5.12766, 2, -47.2463, -11.9873, 29.3595, 13.6652, 67.2651, -166.554
5.13574, 2, -47.2463, -11.9872, 29.3595, 13.6652, 67.2651, -166.554
5.14388, 4, -47.2462, -11.9872, 29.3595, 13.6652, 67.2652, -166.554
5.15249, 4, -47.2461, -11.9872, 29.3595, 13.6652, 67.2651, -166.554
5.16022, 4, -47.2461, -11.9872, 29.3595, 13.6652, 67.2651, -166.554
5.16793, 4, -47.246, -11.9871, 29.3595, 13.6652, 67.2651, -166.554
5.17652, 4, -47.246, -11.9871, 29.3595, 13.6652, 67.2652, -166.554
5.18423, 4, -47.2459, -11.9871, 29.3595, 13.6652, 67.2652, -166.554
5.192, 4, -47.2459, -11.9871, 29.3595, 13.6652, 67.2652, -166.554
5.19936, 4, -47.2459, -11.9871, 29.3595, 13.6652, 67.2652, -166.554
5.20841, 4, -47.2458, -11.987, 29.3595, 13.6651, 67.2652, -166.554
5.2154, 4, -47.2458, -11.987, 29.3595, 13.6651, 67.2652, -166.554
5.22447, 4, -47.2458, -11.987, 29.3595, 13.6651, 67.2652, -166.553
5.23136, 4, -47.2457, -11.987, 29.3595, 13.6651, 67.2652, -166.553
5.2396, 4, -47.2457, -11.987, 29.3595, 13.6651, 67.2652, -166.553
5.2551, 4, -47.2456, -11.9869, 29.3595, 13.6651, 67.2653, -166.553
5.25784, 4, -47.2455, -11.9868, 29.3595, 13.6651, 67.2653, -166.553
5.26523, 4, -47.2455, -11.9868, 29.3595, 13.665, 67.2653, -166.553
5.27376, 4, -47.2454, -11.9868, 29.3595, 13.665, 67.2653, -166.553
5.28136, 4, -47.2454, -11.9868, 29.3595, 13.665, 67.2653, -166.553
5.28873, 4, -47.2454, -11.9868, 29.3595, 13.665, 67.2653, -166.553
5.29554, 4, -47.2454, -11.9868, 29.3595, 13.665, 67.2653, -166.553
5.30576, 4, -47.2453, -11.9867, 29.3595, 13.665, 67.2653, -166.553
5.3116, 4, -47.2453, -11.9867, 29.3595, 13.665, 67.2653, -166.553
5.31949, 4, -47.2453, -11.9867, 29.3595, 13.6649, 67.2653, -166.553
5.33211, 4, -47.2452, -11.9867, 29.3595, 13.6649, 67.2653, -166.553
5.33555, 4, -47.2452, -11.9867, 29.3595, 13.6649, 67.2653, -166.553
5.34538, 4, -47.2452, -11.9866, 29.3595, 13.6649, 67.2653, -166.553
5.35447, 4, -47.2451, -11.9866, 29.3595, 13.6649, 67.2653, -166.553
5.35992, 4, -47.2451, -11.9866, 29.3595, 13.6649, 67.2653, -166.553
5.37396, 4, -47.245, -11.9865, 29.3595, 13.6649, 67.2653, -166.553
5.37596, 4, -47.245, -11.9865, 29.3595, 13.6649, 67.2653, -166.553
5.38757, 4, -47.2449, -11.9865, 29.3595, 13.6649, 67.2653, -166.553
5.39249, 4, -47.2449, -11.9865, 29.3595, 13.6649, 67.2653, -166.553
5.40091, 4, -47.2449, -11.9865, 29.3595, 13.6648, 67.2653, -166.553
5.40845, 4, -47.2453, -11.9866, 29.3596, 13.6649, 67.2654, -166.553
5.41562, 4, -47.2468, -11.9876, 29.3605, 13.6654, 67.2655, -166.553
5.42697, 4, -47.25, -11.9905, 29.3639, 13.67, 67.2668, -166.552
5.43287, 4, -47.2555, -11.997, 29.3724, 13.6865, 67.2708, -166.55
5.43955, 5, -47.2646, -12.0088, 29.3903, 13.7219, 67.2803, -166.542
5.44756, 5, -47.2791, -12.0282, 29.4231, 13.7883, 67.2988, -166.528
5.45557, 5, -47.3012, -12.058, 29.477, 13.9002, 67.3304, -166.502
5.4665, 5, -47.353, -12.1255, 29.6112, 14.1845, 67.4092, -166.437
5.4744, 5, -47.3762, -12.155, 29.7436, 14.4696, 67.488, -166.371
5.47963, 5, -47.4321, -12.2252, 29.8236, 14.6435, 67.5353, -166.331
5.48847, 5, -47.5008, -12.3106, 30.0125, 15.0545, 67.646, -166.237
5.49965, 5, -47.6266, -12.4665, 30.3668, 15.8182, 67.8494, -166.063
5.50467, 5, -47.6742, -12.5253, 30.5017, 16.1062, 67.9252, -165.998
5.5136, 5, -47.7766, -12.652, 30.7939, 16.7214, 68.0858, -165.859
5.52059, 5, -47.887, -12.7892, 31.1101, 17.377, 68.2536, -165.714
5.52859, 5, -48.0033, -12.9346, 31.4445, 18.0574, 68.425, -165.566
5.53958, 5, -48.1837, -13.162, 31.966, 19.0978, 68.681, -165.343
5.5445, 5, -48.2439, -13.2388, 32.1429, 19.4452, 68.765, -165.269
5.55312, 5, -48.3625, -13.3911, 32.4975, 20.132, 68.93, -165.121
5.56095, 5, -48.475, -13.5398, 32.8504, 20.8011, 69.0911, -164.968
5.56818, 6, -48.5773, -13.6817, 33.1951, 21.4408, 69.2501, -164.798
5.57561, 6, -48.6648, -13.8133, 33.5266, 22.0398, 69.4085, -164.6
5.59029, 7, -48.7606, -13.9916, 33.9892, 22.8497, 69.6512, -164.218
5.59294, 7, -48.7819, -14.0464, 34.1335, 23.0947, 69.7349, -164.062
5.6016, 7, -48.8091, -14.1488, 34.4061, 23.5504, 69.9086, -163.697
5.6079, 8, -48.8169, -14.2401, 34.6589, 23.9688, 70.094, -163.261
5.61695, 8, -48.8065, -14.3213, 34.8965, 24.3601, 70.2932, -162.755
5.62386, 9, -48.7799, -14.3959, 35.1221, 24.7361, 70.5076, -162.187
5.6328, 9, -48.7395, -14.4668, 35.3405, 25.1064, 70.7358, -161.571
5.64135, 10, -48.6879, -14.5342, 35.5571, 25.4766, 70.9753, -160.923
5.64893, 10, -48.6271, -14.5985, 35.7738, 25.8497, 71.2221, -160.256
5.65667, 11, -48.5592, -14.6609, 35.9924, 26.2251, 71.4715, -159.582
5.66505, 11, -48.486, -14.7231, 36.2138, 26.6027, 71.7195, -158.91
5.67361, 12, -48.4089, -14.7859, 36.4353, 26.983, 71.965, -158.244
5.68013, 12, -48.3294, -14.8491, 36.6547, 27.3662, 72.2081, -157.582
5.68813, 13, -48.2479, -14.9122, 36.872, 27.7531, 72.4502, -156.924
5.69711, 13, -48.2064, -14.9753, 37.0857, 28.1443, 72.6926, -156.269
5.70836, 14, -48.0776, -15.0708, 37.3991, 28.7388, 73.0582, -155.286
5.71499, 14, -47.9875, -15.1026, 37.5022, 28.9387, 73.1808, -154.959
5.72341, 15, -47.8944, -15.1654, 37.7061, 29.3402, 73.4258, -154.307
5.73226, 16, -47.7981, -15.2262, 37.9065, 29.7426, 73.6702, -153.656
5.73856, 16, -47.6974, -15.2858, 38.1052, 30.1444, 73.9131, -153.009
5.74757, 17, -47.5912, -15.346, 38.302, 30.5453, 74.1537, -152.366
5.75157, 17, -47.536, -15.3765, 38.3991, 30.745, 74.2728, -152.047
5.76322, 17, -47.3633, -15.4696, 38.6855, 31.3403, 74.6236, -151.094
5.76753, 18, -47.3032, -15.501, 38.7797, 31.5372, 74.7382, -150.78
5.77779, 18, -47.1142, -15.5964, 39.0581, 32.1225, 75.0735, -149.847
5.78356, 19, -47.0485, -15.629, 39.1491, 32.316, 75.1823, -149.54
5.79148, 19, -46.9131, -15.6959, 39.3298, 32.7013, 75.3957, -148.931
5.80288, 20, -46.6999, -15.8007, 39.5984, 33.2747, 75.7053, -148.031
5.81162, 21, -46.5514, -15.8737, 39.7747, 33.6547, 75.9054, -147.441
5.81547, 21, -46.4753, -15.9114, 39.862, 33.8441, 76.0037, -147.149
5.82524, 21, -46.3199, -15.9891, 40.0357, 34.2216, 76.2908, -146.282
5.83493, 22, -46.0777, -16.1105, 40.2934, 34.7836, 76.4755, -145.714
5.83945, 22, -45.9943, -16.1519, 40.378, 34.9694, 76.5658, -145.432
5.85046, 23, -45.7352, -16.2787, 40.6276, 35.5209, 76.8288, -144.597
5.85556, 23, -45.6457, -16.322, 40.7097, 35.7027, 76.9136, -144.321
5.86447, 24, -45.462, -16.4097, 40.8713, 36.0628, 77.0794, -143.773
5.87443, 24, -45.1742, -16.5438, 41.1056, 36.5926, 77.3179, -142.962
5.88175, 25, -44.9743, -16.6345, 41.2566, 36.9379, 77.4709, -142.426
5.88749, 25, -44.872, -16.6801, 41.3304, 37.1082, 77.5457, -142.158
5.89857, 26, -44.5547, -16.8179, 41.5446, 37.6084, 77.7632, -141.362
5.90766, 27, -44.3343, -16.91, 41.6805, 37.9329, 77.9032, -140.834
5.91427, 27, -44.1066, -17.0018, 41.8106, 38.2496, 78.0387, -140.307
5.92248, 27, -43.8724, -17.0928, 41.9347, 38.558, 78.1704, -139.782
5.92849, 28, -43.7528, -17.1381, 41.9944, 38.7092, 78.2351, -139.52
5.93559, 28, -43.5086, -17.2278, 42.1087, 39.0052, 78.3613, -138.997
5.94624, 29, -43.2579, -17.316, 42.2674, 39.4333, 78.545, -138.213
5.95311, 29, -43.0006, -17.4027, 42.3168, 39.5719, 78.6044, -137.952
5.95947, 30, -42.7361, -17.4876, 42.4101, 39.8427, 78.7209, -137.43
5.96746, 30, -42.463, -17.5704, 42.4962, 40.1048, 78.8349, -136.908
5.97919, 31, -42.0372, -17.6899, 42.612, 40.4821, 79, -136.128
5.98696, 31, -41.744, -17.7665, 42.6804, 40.723, 79.107, -135.608
5.99447, 32, -41.5948, -17.8039, 42.7421, 40.9554, 79.2111, -135.088
6.00046, 32, -41.2915, -17.877, 42.7704, 41.0685, 79.2623, -134.829
6.00848, 33, -40.9818, -17.9471, 42.8216, 41.2886, 79.3628, -134.312
6.0189, 33, -40.5047, -18.0463, 42.8849, 41.6037, 79.5086, -133.537
6.02486, 34, -40.3428, -18.078, 42.9023, 41.7046, 79.556, -133.279
6.03249, 34, -40.0158, -18.1395, 42.9316, 41.9004, 79.6486, -132.764
6.03959, 35, -39.6836, -18.1979, 42.9538, 42.0885, 79.7388, -132.25
6.05145, 35, -39.1734, -18.2792, 42.9739, 42.3565, 79.8695, -131.482
6.05563, 36, -38.9998, -18.3046, 42.9771, 42.442, 79.912, -131.226
6.06585, 36, -38.6469, -18.3529, 42.9785, 42.6072, 79.9955, -130.716
6.07245, 37, -38.2878, -18.3979, 42.9731, 42.7648, 80.0765, -130.207
6.08196, 37, -37.9229, -18.4393, 42.9609, 42.9148, 80.156, -129.701
6.08781, 38, -37.5526, -18.477, 42.9419, 43.0576, 80.233, -129.195
6.09923, 38, -37.1778, -18.5113, 42.9163, 43.1928, 80.3084, -128.691
6.1038, 39, -36.7985, -18.5423, 42.884, 43.3208, 80.3809, -128.189
6.11257, 39, -36.4145, -18.5695, 42.8449, 43.4414, 80.452, -127.689
6.12203, 40, -36.0253, -18.5931, 42.7993, 43.5546, 80.5209, -127.191
6.12867, 42, -35.63, -18.6127, 42.7471, 43.6607, 80.5885, -126.694
6.15353, 42, -34.412, -18.649, 42.5516, 43.9357, 80.7782, -125.218
6.15673, 42, -34.2056, -18.6521, 42.5134, 43.9753, 80.8077, -124.973
6.15862, 42, -34.2056, -18.6521, 42.5134, 43.9753, 80.8077, -124.973
6.1658, 44, -33.9984, -18.6545, 42.4324, 44.0494, 80.8665, -124.486
6.1848, 44, -32.7321, -18.6506, 42.2041, 44.2029, 81.0053, -123.28
6.18664, 44, -32.7321, -18.6506, 42.2041, 44.2029, 81.0053, -123.28
6.1899, 44, -32.5158, -18.6467, 42.1541, 44.228, 81.0321, -123.041
6.19723, 45, -32.0785, -18.636, 42.0498, 44.2731, 81.0836, -122.564
6.20023, 45, -31.8578, -18.6293, 41.9953, 44.2931, 81.1086, -122.326
6.21075, 45, -31.636, -18.6217, 41.9394, 44.3112, 81.1585, -121.852
6.2182, 46, -30.9667, -18.5938, 41.7626, 44.3538, 81.2062, -121.38
6.22597, 46, -30.518, -18.5707, 41.6375, 44.3722, 81.2515, -120.912
6.23276, 47, -30.0655, -18.5436, 41.5065, 44.3834, 81.2964, -120.445
6.24112, 47, -29.6076, -18.5119, 41.3696, 44.3878, 81.3402, -119.98
6.2495, 48, -29.143, -18.4759, 41.2266, 44.3845, 81.3823, -119.517
6.25884, 48, -28.9083, -18.4563, 41.1528, 44.3794, 81.4031, -119.056
6.26349, 49, -28.4349, -18.4138, 41.0007, 44.3629, 81.445, -118.826
6.27148, 49, -27.9584, -18.3669, 40.8429, 44.3375, 81.4864, -118.368
6.28125, 50, -27.2393, -18.288, 40.5941, 44.2808, 81.5472, -117.681
6.29064, 51, -26.7545, -18.2287, 40.4199, 44.2322, 81.5891, -117.225
6.29737, 51, -26.2625, -18.1639, 40.2396, 44.1736, 81.6315, -116.77
6.30493, 51, -26.0136, -18.0935, 40.0523, 44.1051, 81.6739, -116.315
6.31149, 52, -25.5108, -18.0562, 39.9557, 44.0673, 81.6954, -116.088
6.31959, 52, -25.0038, -17.9778, 39.7573, 43.9833, 81.7397, -115.635
6.32745, 53, -24.4946, -17.894, 39.5529, 43.8892, 81.7845, -115.182
6.33742, 53, -23.725, -17.7574, 39.233, 43.7296, 81.8525, -114.504
6.34789, 54, -23.4655, -17.7087, 39.1224, 43.671, 81.8764, -114.278
6.35146, 54, -22.94, -17.6067, 38.8966, 43.546, 81.9255, -113.827
6.3624, 55, -22.1376, -17.4422, 38.5441, 43.3373, 82.0021, -113.149
6.36749, 55, -21.868, -17.3843, 38.4229, 43.2619, 82.0292, -112.923
6.37785, 56, -21.0561, -17.2019, 38.0502, 43.018, 82.1123, -112.245
6.3835, 56, -20.7837, -17.1383, 37.9222, 42.931, 82.1408, -112.02
6.3925, 57, -20.2334, -17.0069, 37.6613, 42.7484, 82.2, -111.569
6.40477, 58, -19.3902, -16.7992, 37.2579, 42.4521, 82.2906, -110.894
6.41068, 58, -18.8195, -16.6531, 36.9805, 42.239, 82.3544, -110.443
6.41645, 58, -18.533, -16.5778, 36.8396, 42.1278, 82.3865, -110.219
6.42492, 59, -17.9582, -16.4233, 36.5525, 41.896, 82.4527, -109.769
6.43148, 59, -17.3795, -16.2643, 36.2593, 41.6516, 82.5217, -109.32
6.43952, 60, -16.7919, -16.1006, 35.96, 41.3947, 82.5924, -108.871
6.44853, 60, -16.1941, -15.9313, 35.6552, 41.1249, 82.6654, -108.422
6.45557, 61, -15.5904, -15.757, 35.3453, 40.8419, 82.7395, -107.973
6.4645, 61, -14.9837, -15.5785, 35.0295, 40.5461, 82.8161, -107.525
6.47246, 62, -14.3734, -15.3956, 34.7084, 40.2379, 82.8947, -107.076
6.48312, 63, -13.441, -15.1107, 34.2169, 39.7503, 83.0174, -106.403
6.48887, 63, -13.125, -15.0123, 34.0505, 39.5805, 83.0598, -106.178
6.49546, 63, -12.4874, -14.8111, 33.7136, 39.2294, 83.1471, -105.728
6.5035, 64, -11.8454, -14.6053, 33.371, 38.8633, 83.2386, -105.278
6.51545, 65, -10.8721, -14.2844, 32.8449, 38.2861, 83.3835, -104.599
6.51949, 65, -10.5428, -14.1736, 32.6664, 38.0863, 83.4341, -104.372
6.53119, 66, -9.53936, -13.8311, 32.1233, 37.4619, 83.5938, -103.688
6.53562, 66, -9.2007, -13.7136, 31.9397, 37.2458, 83.6499, -103.459
6.54446, 66, -8.51914, -13.4731, 31.5685, 36.8014, 83.7664, -103
6.55162, 67, -7.83148, -13.2254, 31.1903, 36.3405, 83.8887, -102.538
6.56414, 67, -7.13401, -12.9703, 30.8063, 35.8632, 84.0854, -101.841
6.56765, 68, -6.42692, -12.7079, 30.4172, 35.3691, 84.1543, -101.607
6.57793, 69, -5.71202, -12.4391, 30.0244, 34.8601, 84.2975, -101.138
6.58445, 69, -4.99123, -12.163, 29.6276, 34.336, 84.447, -100.667
6.59327, 69, -4.26317, -11.8786, 29.227, 33.7978, 84.6029, -100.194
6.59971, 70, -3.5265, -11.5873, 28.825, 33.2459, 84.7654, -99.7181
6.60848, 70, -2.78122, -11.2875, 28.4213, 32.6785, 84.9348, -99.2395
6.61593, 71, -2.02803, -10.9796, 28.0148, 32.0967, 85.1112, -98.7595
6.62393, 71, -1.26691, -10.6646, 27.6051, 31.5, 85.2965, -98.2761
6.63275, 72, -0.499244, -10.3441, 27.1929, 30.8871, 85.491, -97.79
6.64066, 72, 0.274038, -10.0175, 26.7791, 30.2591, 85.6939, -97.3007
6.65079, 73, 1.0521, -9.68196, 26.3649, 29.6214, 85.9042, -96.8098
6.65618, 73, 1.83413, -9.33947, 25.9515, 28.9741, 86.1217, -96.3179
6.66592, 74, 2.61874, -8.99229, 25.5407, 28.3196, 86.3465, -95.8243
6.67321, 74, 3.40523, -8.64184, 25.1341, 27.6594, 86.5772, -95.3302
6.68085, 75, 4.19351, -8.2851, 24.7337, 26.9954, 86.8133, -94.8356
6.6882, 75, 4.98434, -7.922, 24.339, 26.3306, 87.0544, -94.341
6.69624, 76, 5.7767, -7.55279, 23.9501, 25.6639, 87.3011, -93.8449
6.70419, 76, 6.17324, -7.36622, 23.7581, 24.9944, 87.5544, -93.3467
6.71889, 77, 7.76232, -6.60065, 23.0012, 23.9864, 87.9504, -92.5952
6.72488, 78, 8.55882, -6.20538, 22.627, 23.3088, 88.2277, -92.0908
6.73833, 78, 9.75362, -5.59802, 22.0715, 22.2835, 88.6665, -91.3264
6.74046, 79, 10.1521, -5.39074, 21.8875, 21.9397, 88.8188, -91.0696
6.74339, 79, 10.1521, -5.39074, 21.8875, 21.9397, 88.8188, -91.0696
6.75129, 79, 10.9488, -4.96902, 21.5218, 21.2521, 89.1322, -90.5523
6.75939, 80, 11.7433, -4.53689, 21.1594, 20.5651, 89.4569, -90.0308
6.76734, 80, 12.5341, -4.09505, 20.8021, 19.8787, 89.7922, -89.5039
6.77535, 81, 13.3201, -3.64371, 20.4498, 19.1991, 90.1379, -88.9715
6.78516, 81, 14.4892, -2.95188, 19.9334, 18.1978, 90.6732, -88.1644
6.7913, 82, 14.8749, -2.71724, 19.7652, 17.8694, 90.8554, -87.8936
6.80083, 82, 16.0181, -2.00083, 19.2746, 16.9045, 91.4125, -87.077
6.80937, 83, 16.7668, -1.51429, 18.9592, 16.2816, 91.7917, -86.5293
6.81528, 83, 17.1368, -1.26858, 18.8051, 15.9771, 91.9836, -86.2546
6.82335, 84, 17.8665, -0.772359, 18.5031, 15.3809, 92.372, -85.7048
6.83287, 84, 18.5799, -0.270915, 18.2104, 14.8044, 92.7667, -85.1545
6.83928, 85, 19.2764, 0.23515, 17.9247, 14.2483, 93.1686, -84.6031
6.84742, 85, 19.9562, 0.746545, 17.6453, 13.7137, 93.5783, -84.0523
6.85807, 86, 20.6191, 1.26267, 17.3721, 13.2004, 93.994, -83.5026
6.86329, 86, 21.2655, 1.78293, 17.1045, 12.7095, 94.4145, -82.9542
6.87136, 86, 21.8962, 2.30922, 16.8442, 12.2409, 94.8396, -82.4054
6.8793, 87, 22.513, 2.84409, 16.5901, 11.7944, 95.2702, -81.8551
6.88729, 87, 23.1185, 3.38868, 16.341, 11.3681, 95.7065, -81.3024
6.8953, 88, 23.7143, 3.94124, 16.0965, 10.9605, 96.1489, -80.7455
6.90329, 88, 24.3003, 4.50102, 15.8562, 10.5692, 96.5968, -80.1808
6.91131, 89, 24.8748, 5.07062, 15.6219, 10.194, 97.051, -79.6076
6.91929, 89, 25.438, 5.65101, 15.3932, 9.83434, 97.5112, -79.0239
6.92738, 90, 25.9934, 6.24111, 15.1676, 9.49035, 97.9773, -78.4286
6.93531, 90, 26.5421, 6.83972, 14.9459, 9.1612, 98.4496, -77.8196
6.94327, 91, 27.0797, 7.44634, 14.7295, 8.84879, 98.9284, -77.1966
6.9514, 91, 27.603, 8.0625, 14.5178, 8.55428, 99.4135, -76.5617
6.95929, 92, 28.1144, 8.68944, 14.3103, 8.27971, 99.904, -75.9146
6.96729, 92, 28.6175, 9.32679, 14.1074, 8.027, 100.399, -75.2575
6.97531, 93, 29.1134, 9.97316, 13.9095, 7.79623, 100.897, -74.5926
6.98329, 93, 29.5983, 10.6262, 13.718, 7.58894, 101.396, -73.9212
6.9913, 94, 30.0701, 11.2844, 13.5344, 7.40507, 101.894, -73.2424
6.99938, 94, 30.5274, 11.946, 13.3583, 7.24467, 102.391, -72.5583
7.00732, 95, 30.9706, 12.61, 13.1889, 7.10811, 102.884, -71.8699
7.01529, 95, 31.3998, 13.2757, 13.0274, 6.99532, 103.375, -71.1752
7.02339, 96, 31.8152, 13.943, 12.8737, 6.90568, 103.862, -70.4752
7.03139, 96, 32.2154, 14.6112, 12.7263, 6.84057, 104.345, -69.7706
7.03939, 97, 32.5995, 15.2802, 12.5855, 6.79853, 104.824, -69.0598
7.04745, 97, 32.9675, 15.9484, 12.4518, 6.77761, 105.297, -68.3433
7.0554, 98, 33.3195, 16.6146, 12.3263, 6.77851, 105.765, -67.6244
7.06347, 98, 33.657, 17.2775, 12.2095, 6.80138, 106.224, -66.9018
7.07209, 99, 33.9803, 17.9352, 12.1019, 6.84383, 106.674, -66.1773
7.08028, 99, 34.2905, 18.5865, 12.0035, 6.90656, 107.112, -65.4548
7.08825, 100, 34.5891, 19.2296, 11.9142, 6.98707, 107.539, -64.7334
7.09536, 100, 34.8762, 19.8642, 11.8335, 7.08518, 107.952, -64.0149
7.10366, 101, 35.1512, 20.4882, 11.7613, 7.19936, 108.351, -63.3032
7.11148, 101, 35.4144, 21.1013, 11.6972, 7.32852, 108.736, -62.5978
7.11957, 101, 35.6661, 21.7028, 11.6416, 7.47097, 109.104, -61.9003
7.12829, 102, 35.9047, 22.2914, 11.5946, 7.625, 109.455, -61.2143
7.13564, 102, 36.1308, 22.8666, 11.5562, 7.78882, 109.789, -60.5401
7.14368, 103, 36.348, 23.4263, 11.5268, 7.96097, 110.104, -59.878
7.1518, 103, 36.5585, 23.97, 11.5067, 8.14143, 110.4, -59.2291
7.16043, 104, 36.762, 24.4983, 11.4956, 8.33055, 110.677, -58.5942
7.16855, 104, 36.9585, 25.0109, 11.4921, 8.52878, 110.934, -57.9703
7.17588, 104, 37.1495, 25.5072, 11.4953, 8.73572, 111.171, -57.3583
7.18445, 104, 37.3337, 25.9876, 11.5045, 8.95018, 111.389, -56.7589
7.19191, 104, 37.4223, 26.4517, 11.5179, 9.17068, 111.59, -56.1722
7.20037, 104, 37.6731, 26.8998, 11.5338, 9.3949, 111.775, -55.6003
7.20727, 104, 37.7528, 27.1183, 11.5428, 9.5075, 111.862, -55.3209
7.21528, 104, 37.9089, 27.5433, 11.5624, 9.7319, 112.027, -54.7766
7.22491, 104, 38.1356, 28.1509, 11.5934, 10.0625, 112.257, -54.0024
7.23241, 104, 38.2799, 28.5347, 11.6138, 10.2769, 112.399, -53.5145
7.23928, 104, 38.3497, 28.7207, 11.6236, 10.3817, 112.468, -53.2798
7.24861, 104, 38.5486, 29.2516, 11.6512, 10.6856, 112.66, -52.6118
7.25528, 104, 38.6109, 29.4196, 11.6599, 10.783, 112.721, -52.4017
7.26467, 104, 38.7854, 29.8945, 11.6841, 11.0621, 112.891, -51.8088
7.27137, 104, 38.8393, 30.0433, 11.6916, 11.1505, 112.944, -51.6234
7.27928, 104, 38.9411, 30.3273, 11.706, 11.3201, 113.043, -51.2718
7.28888, 104, 39.0795, 30.7163, 11.7254, 11.555, 113.179, -50.7925
7.29533, 104, 39.1217, 30.8362, 11.7312, 11.6281, 113.221, -50.6452
7.30489, 104, 39.2364, 31.1666, 11.747, 11.83, 113.334, -50.2414
7.31342, 104, 39.303, 31.3617, 11.7567, 11.9503, 113.401, -50.0037
7.31936, 104, 39.3333, 31.4521, 11.7612, 12.0061, 113.431, -49.8944
7.32901, 104, 39.3883, 31.6183, 11.7729, 12.1552, 113.513, -49.604
7.33527, 104, 39.4365, 31.765, 11.7764, 12.1988, 113.536, -49.5197
7.34336, 104, 39.4787, 31.8931, 11.7829, 12.277, 113.578, -49.3694
7.35235, 104, 39.5153, 32.0039, 11.7888, 12.3432, 113.613, -49.2429
7.36052, 104, 39.5457, 32.0979, 11.7941, 12.3981, 113.642, -49.1395
7.36735, 104, 39.5707, 32.1762, 11.7987, 12.4409, 113.664, -49.0564
7.37537, 104, 39.5909, 32.2406, 11.8029, 12.4742, 113.681, -48.9933
7.38328, 104, 39.6066, 32.2927, 11.8067, 12.4992, 113.694, -48.9469
7.39136, 104, 39.6186, 32.3339, 11.8102, 12.5171, 113.702, -48.9144
7.39928, 104, 39.6278, 32.3651, 11.8133, 12.5292, 113.707, -48.8929
7.40729, 104, 39.6346, 32.3885, 11.8161, 12.5373, 113.711, -48.8795
7.41535, 104, 39.6391, 32.4058, 11.8185, 12.5419, 113.712, -48.872
7.42327, 104, 39.6417, 32.418, 11.8203, 12.5444, 113.713, -48.8683
7.43132, 104, 39.6431, 32.4257, 11.8217, 12.5455, 113.714, -48.8666
7.43937, 105, 39.6433, 32.4305, 11.8228, 12.5461, 113.714, -48.866
7.44727, 105, 39.6426, 32.4338, 11.8238, 12.5464, 113.714, -48.8659
7.45531, 105, 39.6416, 32.4361, 11.8246, 12.5466, 113.714, -48.8661
7.46335, 105, 39.6406, 32.4378, 11.8253, 12.5466, 113.714, -48.8663
7.47128, 105, 39.6395, 32.4392, 11.8259, 12.5466, 113.714, -48.8666
7.47928, 105, 39.6384, 32.4405, 11.8264, 12.5466, 113.714, -48.867
7.48736, 105, 39.6376, 32.4417, 11.827, 12.5467, 113.714, -48.8674
7.49527, 105, 39.637, 32.4428, 11.8276, 12.5467, 113.714, -48.8677
7.50336, 105, 39.6367, 32.4439, 11.8282, 12.5467, 113.714, -48.8679
7.51138, 105, 39.6365, 32.4449, 11.8287, 12.5467, 113.714, -48.8682
7.51928, 105, 39.6362, 32.4457, 11.8292, 12.5467, 113.714, -48.8685
7.52731, 105, 39.636, 32.4463, 11.8295, 12.5467, 113.714, -48.8688
7.53543, 105, 39.6357, 32.4468, 11.8298, 12.5467, 113.714, -48.8691
7.54337, 105, 39.6354, 32.4471, 11.8301, 12.5467, 113.714, -48.8693
7.55139, 105, 39.6351, 32.4472, 11.8303, 12.5467, 113.714, -48.8696
