hehonglu123/Motion-Primitive-Planning/ILC/recorded_data/realrobot/wood/iteration_33/run_4.csv
timestamp, cmd_num, J1, J2, J3, J4, J5, J6
0.000405, -1, 11.3762, 13.6175, 17.3314, -145.52, -97.9268, 142.517
0.004492, -1, 11.3762, 13.6175, 17.3314, -145.52, -97.9268, 142.517
0.007797, -1, 11.3762, 13.6175, 17.3314, -145.52, -97.9268, 142.517
0.029857, -1, 11.3762, 13.6175, 17.3315, -145.52, -97.9268, 142.517
0.031868, -1, 11.3762, 13.6175, 17.3314, -145.52, -97.9268, 142.517
0.03506, -1, 11.3762, 13.6175, 17.3315, -145.52, -97.9268, 142.517
0.039666, -1, 11.3762, 13.6175, 17.3315, -145.52, -97.9268, 142.517
0.047718, -1, 11.376, 13.6175, 17.3315, -145.52, -97.9268, 142.517
0.05571, -1, 11.3746, 13.6174, 17.3314, -145.52, -97.9268, 142.517
0.064032, -1, 11.3701, 13.617, 17.3313, -145.52, -97.9268, 142.517
0.07178, -1, 11.3614, 13.6158, 17.331, -145.52, -97.9268, 142.516
0.079592, -1, 11.3473, 13.6135, 17.3303, -145.521, -97.9267, 142.513
0.088475, -1, 11.3255, 13.609, 17.3295, -145.524, -97.9263, 142.5
0.09578, -1, 11.293, 13.6016, 17.3288, -145.529, -97.925, 142.471
0.104272, -1, 11.2486, 13.5909, 17.3285, -145.538, -97.9224, 142.42
0.111788, -1, 11.1926, 13.577, 17.3293, -145.552, -97.918, 142.34
0.119828, -1, 11.125, 13.5599, 17.3321, -145.573, -97.9113, 142.227
0.128841, -1, 11.0457, 13.5389, 17.3373, -145.599, -97.9023, 142.079
0.136289, -1, 10.9545, 13.5141, 17.3449, -145.63, -97.891, 141.897
0.144061, -1, 10.8522, 13.4862, 17.3545, -145.666, -97.8779, 141.684
0.152096, -1, 10.7391, 13.4549, 17.3655, -145.707, -97.8635, 141.447
0.160065, -1, 10.6152, 13.4206, 17.3768, -145.751, -97.8484, 141.193
0.168143, -1, 10.4814, 13.3837, 17.3878, -145.796, -97.8327, 140.927
0.177223, -1, 10.3396, 13.3448, 17.3983, -145.843, -97.8166, 140.654
0.18427, -1, 10.2665, 13.3249, 17.4033, -145.867, -97.8002, 140.378
0.192126, -1, 10.117, 13.2844, 17.4133, -145.914, -97.7919, 140.101
0.199542, -1, 9.96457, 13.2433, 17.4234, -145.961, -97.775, 139.961
0.207554, -1, 9.80987, 13.2019, 17.4335, -146.01, -97.7577, 139.682
0.215648, -1, 9.6543, 13.1604, 17.4436, -146.057, -97.7405, 139.402
0.223535, -1, 9.49911, 13.1191, 17.4536, -146.105, -97.7235, 139.123
0.231593, -1, 9.34431, 13.0779, 17.4635, -146.154, -97.7066, 138.843
0.239638, -1, 9.18984, 13.0367, 17.4735, -146.201, -97.6899, 138.563
0.247534, -1, 9.03591, 12.9956, 17.4836, -146.249, -97.6732, 138.283
0.255667, -1, 8.8822, 12.9545, 17.4937, -146.298, -97.6564, 138.003
0.263503, -1, 8.72862, 12.9135, 17.504, -146.345, -97.6392, 137.724
0.271533, -1, 8.57559, 12.8723, 17.5141, -146.393, -97.6218, 137.443
0.27959, -1, 8.42289, 12.8311, 17.5242, -146.441, -97.6043, 137.163
0.287533, -1, 8.26993, 12.7897, 17.5344, -146.489, -97.587, 136.883
0.295621, -1, 8.1165, 12.7481, 17.5446, -146.537, -97.5699, 136.603
0.303597, -1, 7.96258, 12.7065, 17.5548, -146.585, -97.5531, 136.323
0.311528, -1, 7.80803, 12.6648, 17.565, -146.633, -97.5364, 136.042
0.319539, -1, 7.65316, 12.623, 17.5751, -146.681, -97.5198, 135.762
0.328525, -1, 7.49822, 12.5813, 17.5854, -146.729, -97.503, 135.482
0.335592, -1, 7.34317, 12.5398, 17.5955, -146.777, -97.4858, 135.201
0.344596, -1, 7.18822, 12.4982, 17.6057, -146.825, -97.4685, 134.92
0.351593, -1, 7.03321, 12.4567, 17.6161, -146.873, -97.4512, 134.64
0.35953, -1, 6.87803, 12.4153, 17.6264, -146.921, -97.4341, 134.36
0.367532, -1, 6.72313, 12.3741, 17.6367, -146.969, -97.4173, 134.08
0.375615, -1, 6.56845, 12.3327, 17.6472, -147.017, -97.4005, 133.799
0.383528, -1, 6.41396, 12.2914, 17.6576, -147.065, -97.3839, 133.519
0.391596, -1, 6.25975, 12.2501, 17.668, -147.113, -97.367, 133.238
0.399531, -1, 6.10556, 12.2086, 17.6783, -147.162, -97.3498, 132.957
0.40758, -1, 5.95106, 12.1671, 17.6885, -147.21, -97.3324, 132.677
0.415661, -1, 5.7964, 12.1255, 17.6989, -147.257, -97.3148, 132.396
0.42355, -1, 5.64158, 12.0838, 17.7091, -147.306, -97.2974, 132.115
0.431591, -1, 5.48656, 12.0422, 17.7193, -147.354, -97.2803, 131.834
0.439524, -1, 5.33137, 12.0005, 17.7297, -147.402, -97.2634, 131.553
0.447527, -1, 5.17589, 11.9587, 17.74, -147.45, -97.2467, 131.272
0.455659, -1, 5.02017, 11.9171, 17.7504, -147.498, -97.2299, 130.991
0.463546, -1, 4.86443, 11.8754, 17.7609, -147.546, -97.2129, 130.71
0.47153, -1, 4.70873, 11.8338, 17.7713, -147.595, -97.1957, 130.429
0.479607, -1, 4.55298, 11.7923, 17.7818, -147.643, -97.1782, 130.148
0.487525, -1, 4.39732, 11.7508, 17.7922, -147.691, -97.1608, 129.867
0.495705, -1, 4.2419, 11.7093, 17.8026, -147.74, -97.1435, 129.586
0.634739, -1, 1.59775, 11.0004, 17.9794, -148.561, -96.8523, 124.799
0.63872, -1, 1.51965, 10.9795, 17.9846, -148.585, -96.8438, 124.658
0.640827, -1, 1.44164, 10.9587, 17.9899, -148.609, -96.8354, 124.517
0.642033, -1, 1.44164, 10.9587, 17.9899, -148.609, -96.8354, 124.517
0.643886, -1, 1.44164, 10.9587, 17.9951, -148.633, -96.8269, 124.376
0.645271, -1, 1.36371, 10.9379, 17.9951, -148.633, -96.8269, 124.376
0.646539, -1, 1.36371, 10.9379, 17.9951, -148.633, -96.8269, 124.376
0.649643, -1, 1.2858, 10.917, 18.0003, -148.657, -96.8184, 124.235
0.650891, -1, 1.2858, 10.917, 18.0003, -148.657, -96.8184, 124.235
0.652962, -1, 1.20795, 10.8962, 18.0055, -148.682, -96.81, 124.094
0.654169, -1, 1.20795, 10.8962, 18.0055, -148.682, -96.81, 124.094
0.65692, -1, 1.1302, 10.8752, 18.0107, -148.706, -96.8015, 123.952
0.658201, -1, 1.1302, 10.8752, 18.0107, -148.706, -96.8015, 123.952
0.660121, -1, 1.05255, 10.8543, 18.0159, -148.73, -96.7931, 123.811
0.662356, -1, 1.05255, 10.8543, 18.0159, -148.73, -96.7931, 123.811
0.665008, -1, 0.975008, 10.8335, 18.021, -148.755, -96.7846, 123.67
0.666333, -1, 0.975008, 10.8335, 18.021, -148.755, -96.7846, 123.67
0.668354, -1, 0.897515, 10.8126, 18.0262, -148.779, -96.776, 123.529
0.66973, -1, 0.897515, 10.8126, 18.0262, -148.779, -96.776, 123.529
0.670932, -1, 0.897515, 10.8126, 18.0262, -148.779, -96.776, 123.529
0.672978, -1, 0.820062, 10.7917, 18.0314, -148.803, -96.7673, 123.388
0.674302, -1, 0.820062, 10.7917, 18.0314, -148.803, -96.7673, 123.388
0.681542, -1, 0.66534, 10.7498, 18.0419, -148.852, -96.7499, 123.106
0.688154, -1, 0.58803, 10.7289, 18.047, -148.876, -96.7323, 122.823
0.696108, -1, 0.433287, 10.6871, 18.0574, -148.924, -96.7235, 122.54
0.703516, -1, 0.278141, 10.6452, 18.0679, -148.972, -96.7062, 122.399
0.711556, -1, 0.122595, 10.6033, 18.0783, -149.021, -96.6892, 122.116
0.719572, -1, -0.0333453, 10.5614, 18.0888, -149.07, -96.6723, 121.833
0.727517, -1, -0.189662, 10.5196, 18.0994, -149.118, -96.6556, 121.55
0.73556, -1, -0.346212, 10.4777, 18.1099, -149.166, -96.6388, 121.268
0.743583, -1, -0.503148, 10.4358, 18.1203, -149.215, -96.6217, 120.985
0.751531, -1, -0.660381, 10.394, 18.1307, -149.263, -96.6043, 120.702
0.759601, -1, -0.817729, 10.3521, 18.1412, -149.312, -96.5869, 120.419
0.767513, -1, -0.975147, 10.3102, 18.1516, -149.36, -96.5695, 120.136
0.775518, -1, -1.13236, 10.2684, 18.162, -149.409, -96.5525, 119.854
0.783592, -1, -1.28948, 10.2265, 18.1724, -149.458, -96.5356, 119.57
0.791514, -1, -1.44636, 10.1847, 18.1827, -149.506, -96.5189, 119.287
0.928602, -1, -4.10848, 9.47165, 18.3602, -150.333, -96.2264, 114.463
0.930527, -1, -4.18739, 9.45067, 18.3654, -150.358, -96.2179, 114.321
0.931873, -1, -4.18739, 9.45067, 18.3654, -150.358, -96.2179, 114.321
0.933119, -1, -4.18739, 9.45067, 18.3654, -150.358, -96.2179, 114.321
0.935171, -1, -4.2663, 9.42968, 18.3706, -150.382, -96.2094, 114.179
0.936382, -1, -4.2663, 9.42968, 18.3706, -150.382, -96.2094, 114.179
0.938385, -1, -4.34516, 9.40866, 18.3757, -150.406, -96.2009, 114.036
0.942723, -1, -4.42394, 9.38762, 18.3809, -150.431, -96.1922, 113.894
0.944054, -1, -4.42394, 9.38762, 18.3809, -150.431, -96.1922, 113.894
0.945251, -1, -4.42394, 9.38762, 18.3809, -150.431, -96.1922, 113.894
0.947979, -1, -4.50261, 9.3666, 18.3861, -150.455, -96.1835, 113.752
0.949298, -1, -4.50261, 9.3666, 18.3861, -150.455, -96.1835, 113.752
0.951996, -1, -4.58116, 9.34558, 18.3913, -150.48, -96.1747, 113.609
0.953363, -1, -4.58116, 9.34558, 18.3913, -150.48, -96.1747, 113.609
0.955459, -1, -4.65958, 9.32456, 18.3965, -150.504, -96.1658, 113.467
0.959225, -1, -4.7379, 9.30355, 18.4017, -150.528, -96.1569, 113.325
0.960441, -1, -4.7379, 9.30355, 18.4017, -150.528, -96.1569, 113.325
0.962323, -1, -4.7379, 9.30355, 18.4017, -150.528, -96.148, 113.182
0.96373, -1, -4.81614, 9.28252, 18.4069, -150.553, -96.148, 113.182
0.964999, -1, -4.81614, 9.28252, 18.4069, -150.553, -96.148, 113.182
0.966955, -1, -4.89433, 9.26145, 18.4121, -150.577, -96.1393, 113.04
0.968391, -1, -4.89433, 9.26145, 18.4121, -150.577, -96.1393, 113.04
0.97751, -1, -5.05048, 9.21938, 18.4227, -150.626, -96.1219, 112.755
0.983526, -1, -5.20628, 9.17735, 18.4333, -150.675, -96.1047, 112.47
0.991574, -1, -5.36216, 9.13519, 18.4438, -150.724, -96.0878, 112.186
0.999517, -1, -5.51827, 9.09302, 18.4543, -150.773, -96.071, 111.901
1.00758, -1, -5.67459, 9.05095, 18.4647, -150.821, -96.0539, 111.616
1.01555, -1, -5.83132, 9.00878, 18.4752, -150.87, -96.0367, 111.331
1.02433, -1, -5.98849, 8.9666, 18.4856, -150.919, -96.0191, 111.047
1.03161, -1, -6.1462, 8.92447, 18.496, -150.968, -96.0015, 110.761
1.03966, -1, -6.30439, 8.88231, 18.5064, -151.017, -95.984, 110.476
1.04843, -1, -6.46272, 8.84021, 18.5167, -151.066, -95.9669, 110.191
1.05562, -1, -6.62112, 8.79809, 18.5272, -151.115, -95.9498, 109.906
1.06362, -1, -6.77981, 8.7559, 18.5378, -151.164, -95.9328, 109.62
1.07243, -1, -6.93845, 8.71375, 18.5483, -151.213, -95.9157, 109.334
1.07959, -1, -7.09705, 8.67167, 18.5588, -151.262, -95.8985, 109.049
1.08754, -1, -7.25546, 8.62952, 18.5693, -151.311, -95.8808, 108.763
1.09646, -1, -7.41364, 8.58726, 18.5797, -151.36, -95.8631, 108.478
1.10379, -1, -7.57145, 8.54493, 18.5902, -151.409, -95.8454, 108.192
1.11174, -1, -7.72888, 8.50261, 18.6007, -151.458, -95.8281, 107.906
1.12063, -1, -7.88599, 8.46035, 18.6111, -151.507, -95.811, 107.62
1.1278, -1, -8.04283, 8.41805, 18.6215, -151.556, -95.794, 107.335
1.136, -1, -8.1994, 8.37572, 18.632, -151.605, -95.7771, 107.049
1.14589, -1, -8.35602, 8.33339, 18.6425, -151.654, -95.76, 106.763
1.15237, -1, -8.51278, 8.29097, 18.6531, -151.703, -95.7426, 106.477
1.16005, -1, -8.66998, 8.24864, 18.6636, -151.752, -95.725, 106.19
1.16805, -1, -8.82749, 8.20636, 18.6741, -151.801, -95.7074, 105.904
1.17611, -1, -8.98538, 8.16397, 18.6844, -151.85, -95.6898, 105.618
1.18414, -1, -9.0645, 8.14279, 18.695, -151.9, -95.6726, 105.331
1.19216, -1, -9.22311, 8.1005, 18.7002, -151.924, -95.664, 105.188
1.20032, -1, -9.38199, 8.05815, 18.7106, -151.973, -95.6469, 104.758
1.2075, -1, -9.54108, 8.01576, 18.7211, -152.022, -95.6298, 104.614
1.21551, -1, -9.70019, 7.9735, 18.7316, -152.072, -95.6125, 104.327
1.22356, -1, -9.85947, 7.93122, 18.7421, -152.121, -95.595, 104.04
1.23151, -1, -10.0188, 7.8888, 18.7528, -152.17, -95.5771, 103.753
1.2395, -1, -10.1781, 7.84631, 18.7634, -152.22, -95.5592, 103.467
1.24892, -1, -10.4167, 7.78254, 18.7793, -152.293, -95.5331, 103.036
1.2555, -1, -10.4961, 7.76127, 18.7846, -152.318, -95.5244, 102.893
1.26351, -1, -10.6546, 7.71878, 18.795, -152.368, -95.5073, 102.606
1.27155, -1, -10.8127, 7.67624, 18.8055, -152.416, -95.4904, 102.319
1.27951, -1, -10.9705, 7.63364, 18.816, -152.466, -95.4732, 102.032
1.2875, -1, -11.1281, 7.59113, 18.8265, -152.515, -95.4559, 101.744
1.29719, -1, -11.3642, 7.52741, 18.8423, -152.589, -95.4293, 101.313
1.30354, -1, -11.443, 7.50616, 18.8475, -152.614, -95.4204, 101.17
1.3115, -1, -11.6006, 7.46366, 18.858, -152.663, -95.4028, 100.882
1.31957, -1, -11.7585, 7.42121, 18.8686, -152.712, -95.3853, 100.594
1.3275, -1, -11.9169, 7.37876, 18.8792, -152.762, -95.3681, 100.306
1.33649, -1, -12.0756, 7.33632, 18.8899, -152.811, -95.3508, 100.019
1.34358, -1, -12.2347, 7.29391, 18.9004, -152.86, -95.3336, 99.7311
1.3515, -1, -12.3943, 7.25146, 18.9108, -152.91, -95.3162, 99.4429
1.3595, -1, -12.5541, 7.20906, 18.9214, -152.959, -95.2985, 99.1549
1.3675, -1, -12.714, 7.16659, 18.932, -153.009, -95.2805, 98.8671
1.3755, -1, -12.8742, 7.12412, 18.9426, -153.059, -95.2626, 98.5793
1.38366, -1, -13.0343, 7.08153, 18.9531, -153.108, -95.245, 98.2912
1.3915, -1, -13.1942, 7.03889, 18.9637, -153.157, -95.2277, 98.0031
1.3995, -1, -13.3539, 6.99627, 18.9743, -153.207, -95.2105, 97.7149
1.40758, -1, -13.5135, 6.95354, 18.9849, -153.256, -95.1934, 97.4263
1.41554, -1, -13.6726, 6.91077, 18.9955, -153.305, -95.1761, 97.1375
1.42351, -1, -13.8317, 6.86809, 19.0061, -153.355, -95.1586, 96.8491
1.43159, -1, -13.9902, 6.82539, 19.0165, -153.404, -95.1408, 96.5606
1.4395, -1, -14.1485, 6.7827, 19.0271, -153.454, -95.123, 96.2718
1.4475, -1, -14.3066, 6.74008, 19.0377, -153.503, -95.1054, 95.9827
1.45558, -1, -14.4648, 6.69738, 19.0482, -153.553, -95.0881, 95.6938
1.46351, -1, -14.6233, 6.65475, 19.0588, -153.602, -95.0708, 95.4047
1.47151, -1, -14.7821, 6.61222, 19.0693, -153.652, -95.0537, 95.1153
1.47959, -1, -14.9413, 6.5696, 19.08, -153.701, -95.0364, 94.8259
1.4875, -1, -15.1008, 6.52691, 19.0908, -153.751, -95.0188, 94.5369
1.49556, -1, -15.2607, 6.4843, 19.1015, -153.801, -95.001, 94.2479
1.50356, -1, -15.4211, 6.44161, 19.1122, -153.85, -94.9829, 93.9586
1.51155, -1, -15.5817, 6.39887, 19.1229, -153.9, -94.9651, 93.6691
1.51961, -1, -15.7424, 6.35613, 19.1334, -153.95, -94.9476, 93.3798
1.52776, -1, -15.9031, 6.31329, 19.1441, -153.999, -94.9303, 93.0904
1.53559, -1, -16.064, 6.27039, 19.1548, -154.049, -94.9131, 92.8007
1.54366, -1, -16.2248, 6.22755, 19.1653, -154.099, -94.896, 92.5109
1.55193, -1, -16.3854, 6.18455, 19.1759, -154.148, -94.8786, 92.2214
1.55961, -1, -16.5458, 6.14153, 19.1864, -154.198, -94.8609, 91.9315
1.56767, -1, -16.706, 6.09862, 19.197, -154.248, -94.843, 91.6414
1.57637, -1, -16.8656, 6.05563, 19.2077, -154.297, -94.8252, 91.3512
1.58359, -1, -17.025, 6.01266, 19.2184, -154.347, -94.8077, 91.0612
1.5916, -1, -17.1842, 5.96971, 19.229, -154.397, -94.7902, 90.771
1.60043, -1, -17.3432, 5.92678, 19.2396, -154.446, -94.7729, 90.4805
1.60774, -1, -17.5024, 5.88396, 19.2503, -154.496, -94.7556, 90.1903
1.61571, -1, -17.6617, 5.84112, 19.261, -154.546, -94.7381, 89.9002
1.62457, -1, -17.8212, 5.79829, 19.2717, -154.596, -94.7203, 89.6099
1.63194, -1, -17.9809, 5.75548, 19.2824, -154.646, -94.7022, 89.3192
1.64002, -1, -18.1413, 5.71267, 19.293, -154.696, -94.6842, 89.0287
1.64873, -1, -18.302, 5.66983, 19.3036, -154.745, -94.6664, 88.7381
1.65612, -1, -18.4631, 5.62693, 19.3144, -154.796, -94.6489, 88.4472
1.66402, -1, -18.6247, 5.58391, 19.3251, -154.845, -94.6317, 88.1561
1.67279, -1, -18.7862, 5.54092, 19.3358, -154.896, -94.6144, 87.8654
1.68017, -1, -18.9479, 5.49793, 19.3464, -154.946, -94.597, 87.5744
1.68807, -1, -19.0288, 5.47637, 19.3516, -154.97, -94.5792, 87.2831
1.69686, -1, -19.1903, 5.43319, 19.3623, -155.02, -94.5703, 87.1373
1.70413, -1, -19.3518, 5.39003, 19.373, -155.07, -94.5521, 86.846
1.71148, -1, -19.5131, 5.34689, 19.3835, -155.12, -94.5342, 86.5545
1.71952, -1, -19.674, 5.30363, 19.3942, -155.17, -94.5164, 86.2628
1.72749, -1, -19.8346, 5.26049, 19.4048, -155.22, -94.4989, 85.971
1.73549, -1, -19.9951, 5.21732, 19.4155, -155.27, -94.4815, 85.6796
1.74353, -1, -20.1551, 5.17414, 19.4264, -155.32, -94.4641, 85.3881
1.75154, -1, -20.3149, 5.13117, 19.4372, -155.37, -94.4465, 85.0963
1.7595, -1, -20.4748, 5.08814, 19.448, -155.42, -94.4287, 84.8044
1.76896, -1, -20.715, 5.02355, 19.4641, -155.496, -94.4015, 84.3668
1.7755, -1, -20.7952, 5.00209, 19.4695, -155.521, -94.3926, 84.2208
1.78348, -1, -20.9559, 4.95909, 19.4802, -155.57, -94.3748, 83.9286
1.79302, -1, -21.1976, 4.89445, 19.4962, -155.646, -94.3486, 83.4905
1.7995, -1, -21.2784, 4.87289, 19.5015, -155.671, -94.34, 83.3446
1.80757, -1, -21.4404, 4.82967, 19.5122, -155.721, -94.3228, 83.0524
1.81548, -1, -21.6026, 4.78638, 19.5229, -155.772, -94.3055, 82.7597
1.82514, -1, -21.7648, 4.74317, 19.5337, -155.822, -94.2878, 82.4672
1.83156, -1, -21.9272, 4.69977, 19.5444, -155.872, -94.2699, 82.1746
1.84053, -1, -22.0898, 4.65638, 19.5553, -155.922, -94.2518, 81.8819
1.84756, -1, -22.2523, 4.61305, 19.566, -155.972, -94.234, 81.5889
1.85555, -1, -22.4146, 4.56963, 19.5766, -156.022, -94.2165, 81.2962
1.86348, -1, -22.5767, 4.52623, 19.5875, -156.073, -94.1989, 81.0037
1.87189, -1, -22.7385, 4.4828, 19.5981, -156.123, -94.1815, 80.7108
1.88053, -1, -22.8998, 4.43938, 19.6088, -156.173, -94.1639, 80.4177
1.8875, -1, -23.061, 4.39607, 19.6195, -156.224, -94.146, 80.1248
1.89627, -1, -23.222, 4.35276, 19.6302, -156.274, -94.1278, 79.8318
1.90348, -1, -23.3828, 4.30945, 19.6411, -156.324, -94.1095, 79.5384
1.91148, -1, -23.5437, 4.26617, 19.6519, -156.375, -94.0915, 79.2448
1.92033, -1, -23.7047, 4.22288, 19.6627, -156.425, -94.0737, 78.9517
1.92748, -1, -23.8658, 4.1796, 19.6735, -156.475, -94.0561, 78.6582
1.93551, -1, -24.0274, 4.13621, 19.6842, -156.526, -94.0388, 78.3643
1.94423, -1, -24.1894, 4.0928, 19.6949, -156.576, -94.0213, 78.0704
1.95148, -1, -24.3518, 4.04941, 19.7057, -156.627, -94.0036, 77.7766
1.95949, -1, -24.5146, 4.00594, 19.7164, -156.677, -93.9856, 77.4823
1.96864, -1, -24.6776, 3.96236, 19.727, -156.727, -93.9675, 77.1878
1.97647, -1, -24.8409, 3.9188, 19.7377, -156.778, -93.9495, 76.8939
1.98355, -1, -25.0043, 3.87523, 19.7486, -156.828, -93.9317, 76.5999
1.99149, -1, -25.1677, 3.8316, 19.7595, -156.878, -93.9141, 76.3056
1.9995, -1, -25.3309, 3.788, 19.7704, -156.929, -93.8967, 76.0111
2.00755, -1, -25.4939, 3.74436, 19.7812, -156.979, -93.8791, 75.7169
2.0156, -1, -25.6566, 3.70067, 19.7919, -157.029, -93.8613, 75.4225
2.02352, -1, -25.8193, 3.65712, 19.8027, -157.08, -93.8431, 75.1277
2.03163, -1, -25.9816, 3.6136, 19.8135, -157.131, -93.8248, 74.8329
2.03981, -1, -26.1437, 3.56999, 19.8243, -157.181, -93.8065, 74.5384
2.04757, -1, -26.3053, 3.52657, 19.8351, -157.232, -93.7886, 74.2437
2.05568, -1, -26.4668, 3.48315, 19.8458, -157.282, -93.7708, 73.9486
2.06398, -1, -26.6286, 3.43956, 19.8566, -157.333, -93.7532, 73.6533
2.07149, -1, -26.7907, 3.39606, 19.8675, -157.384, -93.7356, 73.3582
2.07954, -1, -26.9531, 3.35253, 19.8783, -157.434, -93.7178, 73.0628
2.08834, -1, -27.1158, 3.30887, 19.8892, -157.485, -93.6997, 72.7672
2.09553, -1, -27.2788, 3.26528, 19.9, -157.536, -93.6814, 72.4719
2.10358, -1, -27.4423, 3.22153, 19.9107, -157.586, -93.6631, 72.1767
2.11248, -1, -27.606, 3.17773, 19.9216, -157.637, -93.6452, 71.8812
2.11993, -1, -27.7699, 3.13407, 19.9324, -157.687, -93.6274, 71.5855
2.12777, -1, -27.9341, 3.09035, 19.9431, -157.738, -93.6096, 71.2899
2.13665, -1, -28.0984, 3.04658, 19.954, -157.789, -93.592, 70.9943
2.14396, -1, -28.2627, 3.00282, 19.9647, -157.84, -93.5741, 70.6982
2.15254, -1, -28.4268, 2.95902, 19.9756, -157.89, -93.5559, 70.4019
2.16089, -1, -28.5908, 2.91527, 19.9866, -157.941, -93.5374, 70.1061
2.16817, -1, -28.7544, 2.87159, 19.9974, -157.992, -93.519, 69.81
2.17605, -1, -28.9177, 2.82783, 20.0082, -158.043, -93.501, 69.5136
2.18487, -1, -28.9991, 2.78412, 20.0189, -158.094, -93.4831, 69.217
2.19207, -1, -29.1619, 2.76229, 20.0243, -158.144, -93.4654, 68.9206
2.20005, -1, -29.3247, 2.71856, 20.0352, -158.17, -93.4479, 68.6239
2.2075, -1, -29.4873, 2.67483, 20.046, -158.221, -93.439, 68.4755
2.21547, -1, -29.6501, 2.63104, 20.0568, -158.272, -93.4209, 68.1785
2.22354, -1, -29.8132, 2.5872, 20.0677, -158.323, -93.4026, 67.882
2.23148, -1, -29.9763, 2.54345, 20.0786, -158.374, -93.3842, 67.5853
2.23947, -1, -30.1395, 2.49953, 20.0896, -158.425, -93.3659, 67.2882
2.24751, -1, -30.3033, 2.45551, 20.1006, -158.475, -93.3479, 66.9912
2.25551, -1, -30.4676, 2.41157, 20.1116, -158.527, -93.3301, 66.6944
2.26351, -1, -30.6324, 2.3675, 20.1224, -158.577, -93.3124, 66.3972
2.2715, -1, -30.7974, 2.3235, 20.1331, -158.628, -93.2946, 66.0997
2.27948, -1, -30.9625, 2.27952, 20.1441, -158.68, -93.2765, 65.8024
2.28753, -1, -31.1276, 2.23541, 20.1549, -158.73, -93.2581, 65.5053
2.29559, -1, -31.2927, 2.19144, 20.1658, -158.781, -93.2396, 65.2079
2.30347, -1, -31.4576, 2.14752, 20.1766, -158.833, -93.2213, 64.91
2.31155, -1, -31.6221, 2.10346, 20.1874, -158.883, -93.2032, 64.6123
2.31947, -1, -31.7867, 2.05945, 20.1984, -158.935, -93.1855, 64.3145
2.32847, -1, -31.951, 2.0155, 20.2094, -158.986, -93.168, 64.0164
2.33561, -1, -32.115, 1.97146, 20.2204, -159.037, -93.1504, 63.7181
2.34451, -1, -32.2786, 1.92747, 20.2313, -159.089, -93.1324, 63.4204
2.35146, -1, -32.4421, 1.88346, 20.2422, -159.14, -93.1143, 63.1224
2.35953, -1, -32.6058, 1.83932, 20.2532, -159.191, -93.0958, 62.8242
2.36749, -1, -32.7696, 1.79521, 20.2641, -159.242, -93.0776, 62.5258
2.37546, -1, -32.9336, 1.7511, 20.2751, -159.293, -93.0595, 62.2276
2.38353, -1, -33.0979, 1.70683, 20.286, -159.344, -93.0417, 61.929
2.39149, -1, -33.2625, 1.66264, 20.2968, -159.396, -93.0239, 61.6301
2.39959, -1, -33.4275, 1.61846, 20.3078, -159.447, -93.006, 61.3315
2.40748, -1, -33.5931, 1.57419, 20.3188, -159.498, -92.9879, 61.0329
2.41547, -1, -33.7588, 1.52994, 20.3298, -159.55, -92.9695, 60.734
2.42358, -1, -33.9246, 1.48573, 20.3407, -159.6, -92.9508, 60.4348
2.43146, -1, -34.0906, 1.44152, 20.3516, -159.652, -92.9322, 60.1357
2.43949, -1, -34.2566, 1.39734, 20.3626, -159.704, -92.914, 59.8363
2.44755, -1, -34.4227, 1.35309, 20.3736, -159.755, -92.8961, 59.5366
2.45546, -1, -34.5887, 1.30888, 20.3845, -159.806, -92.8783, 59.237
2.46349, -1, -34.7541, 1.26473, 20.3955, -159.858, -92.8604, 58.9378
2.47153, -1, -34.9193, 1.2205, 20.4064, -159.909, -92.8425, 58.6384
2.4795, -1, -35.0842, 1.17623, 20.4175, -159.961, -92.8241, 58.3386
2.48761, -1, -35.2488, 1.13194, 20.4286, -160.012, -92.8055, 58.0388
2.49553, -1, -35.4131, 1.08769, 20.4397, -160.063, -92.787, 57.7391
2.50347, -1, -35.5764, 1.04369, 20.451, -160.115, -92.7688, 57.4392
2.51147, -1, -35.7374, 1.00012, 20.4623, -160.166, -92.7508, 57.1397
2.51956, -1, -35.895, 0.957426, 20.4741, -160.217, -92.733, 56.8427
2.52768, -1, -36.0482, 0.916095, 20.486, -160.267, -92.7154, 56.5501
2.53556, -1, -36.195, 0.87666, 20.498, -160.315, -92.698, 56.2653
2.54362, -1, -36.3331, 0.839843, 20.5098, -160.361, -92.6812, 55.9939
2.55157, -1, -36.4607, 0.80608, 20.521, -160.404, -92.6653, 55.742
2.55959, -1, -36.5764, 0.775453, 20.531, -160.443, -92.651, 55.5159
2.56765, -1, -36.6784, 0.748503, 20.5394, -160.475, -92.6388, 55.3207
2.57547, -1, -36.7656, 0.725364, 20.5455, -160.503, -92.629, 55.1602
2.58348, -1, -36.8386, 0.706082, 20.5495, -160.524, -92.6214, 55.0345
2.59162, -1, -36.8982, 0.690419, 20.5515, -160.54, -92.6161, 54.9431
2.59951, -1, -36.9448, 0.678023, 20.5523, -160.551, -92.6124, 54.8798
2.60759, -1, -36.9794, 0.668767, 20.5522, -160.558, -92.6102, 54.8392
2.61572, -1, -37.0041, 0.66247, 20.5518, -160.563, -92.609, 54.8152
2.62371, -1, -37.0202, 0.658541, 20.5514, -160.565, -92.6084, 54.8025
2.63173, -1, -37.0294, 0.656308, 20.5512, -160.566, -92.608, 54.7962
2.63989, 2, -37.0336, 0.655209, 20.551, -160.567, -92.6079, 54.7934
2.64794, 2, -37.0342, 0.654741, 20.551, -160.567, -92.6078, 54.792
2.65638, 2, -37.0336, 0.654538, 20.5509, -160.567, -92.6078, 54.7914
2.66404, 2, -37.0331, 0.654469, 20.5509, -160.567, -92.6077, 54.7911
2.67201, 2, -37.0332, 0.654426, 20.5509, -160.567, -92.6077, 54.791
2.68025, 2, -37.034, 0.654352, 20.5509, -160.568, -92.6078, 54.7909
2.68809, 2, -37.0351, 0.654281, 20.5508, -160.567, -92.6078, 54.7909
2.69608, 2, -37.0357, 0.654213, 20.5507, -160.567, -92.6078, 54.7909
2.70432, 2, -37.0379, 0.653887, 20.5504, -160.567, -92.6079, 54.791
2.7115, 2, -37.0385, 0.653753, 20.5503, -160.567, -92.6079, 54.791
2.71946, 2, -37.0397, 0.653493, 20.5501, -160.567, -92.6079, 54.7911
2.72749, 2, -37.0407, 0.653273, 20.5499, -160.567, -92.608, 54.7912
2.7355, 2, -37.0411, 0.653156, 20.5498, -160.567, -92.608, 54.7913
2.74345, 2, -37.0411, 0.653095, 20.5496, -160.567, -92.6081, 54.7914
2.75146, 2, -37.0407, 0.653109, 20.5494, -160.567, -92.6081, 54.7915
2.75955, 2, -37.0398, 0.653153, 20.5494, -160.567, -92.6082, 54.7916
2.76747, 2, -37.0388, 0.653197, 20.5493, -160.567, -92.6082, 54.7918
2.77547, 2, -37.0372, 0.653278, 20.5492, -160.567, -92.6083, 54.7919
2.78351, 2, -37.0358, 0.653371, 20.5491, -160.567, -92.6083, 54.7921
2.79145, 2, -37.0347, 0.653406, 20.5491, -160.567, -92.6083, 54.7922
2.79945, 2, -37.0341, 0.653438, 20.549, -160.567, -92.6083, 54.7923
2.80901, 2, -37.0339, 0.653381, 20.549, -160.567, -92.6083, 54.7924
2.81547, 2, -37.034, 0.653363, 20.549, -160.567, -92.6083, 54.7924
2.82346, 2, -37.0342, 0.653283, 20.549, -160.567, -92.6083, 54.7924
2.83248, 2, -37.0344, 0.653214, 20.5489, -160.567, -92.6083, 54.7924
2.83945, 2, -37.0349, 0.653183, 20.5489, -160.567, -92.6083, 54.7925
2.84845, 2, -37.0356, 0.653179, 20.5489, -160.567, -92.6083, 54.7924
2.85552, 2, -37.0364, 0.653185, 20.5489, -160.567, -92.6083, 54.7924
2.86345, 2, -37.037, 0.653169, 20.5489, -160.567, -92.6083, 54.7925
2.87145, 2, -37.0375, 0.653188, 20.5489, -160.567, -92.6083, 54.7925
2.87952, 2, -37.0376, 0.653224, 20.5489, -160.567, -92.6083, 54.7925
2.88747, 2, -37.0376, 0.653238, 20.5489, -160.567, -92.6083, 54.7926
2.89547, 2, -37.0376, 0.653255, 20.5489, -160.567, -92.6083, 54.7927
2.90352, 2, -37.0372, 0.653244, 20.5489, -160.567, -92.6083, 54.7928
2.91145, 2, -37.0368, 0.653239, 20.5489, -160.567, -92.6083, 54.7928
2.91946, 2, -37.0365, 0.653237, 20.5489, -160.567, -92.6083, 54.7929
2.92758, 2, -37.0364, 0.653229, 20.5488, -160.567, -92.6084, 54.7929
2.93545, 2, -37.0363, 0.653208, 20.5488, -160.567, -92.6083, 54.7929
2.94347, 2, -37.0362, 0.653198, 20.5488, -160.567, -92.6084, 54.793
2.95151, 2, -37.0362, 0.653175, 20.5488, -160.567, -92.6083, 54.793
2.95945, 2, -37.0363, 0.653185, 20.5488, -160.567, -92.6084, 54.7931
2.96747, 2, -37.0364, 0.653192, 20.5487, -160.567, -92.6084, 54.7932
2.97552, 2, -37.0364, 0.653211, 20.5488, -160.567, -92.6084, 54.7932
2.98347, 2, -37.0366, 0.653224, 20.5487, -160.567, -92.6084, 54.7933
2.99146, 2, -37.0368, 0.65323, 20.5487, -160.567, -92.6084, 54.7933
2.99952, 2, -37.037, 0.653233, 20.5487, -160.567, -92.6084, 54.7934
3.00747, 2, -37.037, 0.653234, 20.5487, -160.567, -92.6084, 54.7935
3.01546, 2, -37.037, 0.653235, 20.5487, -160.567, -92.6084, 54.7934
3.02371, 2, -37.037, 0.653228, 20.5487, -160.567, -92.6084, 54.7935
3.03155, 2, -37.037, 0.653215, 20.5487, -160.567, -92.6084, 54.7936
3.03963, 2, -37.0369, 0.653206, 20.5487, -160.567, -92.6085, 54.7936
3.04755, 2, -37.0369, 0.653205, 20.5487, -160.567, -92.6085, 54.7937
3.05555, 2, -37.0369, 0.653214, 20.5487, -160.567, -92.6085, 54.7938
3.06364, 2, -37.0369, 0.653201, 20.5487, -160.567, -92.6085, 54.7938
3.07151, 2, -37.0369, 0.653195, 20.5486, -160.567, -92.6085, 54.7939
3.07947, 2, -37.0369, 0.653212, 20.5486, -160.567, -92.6085, 54.7939
3.08769, 2, -37.0369, 0.653224, 20.5486, -160.567, -92.6085, 54.7939
3.09568, 2, -37.0369, 0.65323, 20.5486, -160.567, -92.6085, 54.7939
3.10349, 2, -37.0368, 0.653233, 20.5486, -160.567, -92.6085, 54.794
3.11166, 2, -37.0368, 0.653245, 20.5486, -160.567, -92.6085, 54.794
3.11964, 2, -37.0369, 0.653258, 20.5486, -160.567, -92.6085, 54.7941
3.12767, 2, -37.0368, 0.653253, 20.5486, -160.567, -92.6085, 54.7941
3.13627, 2, -37.0368, 0.653243, 20.5486, -160.567, -92.6086, 54.7942
3.1438, 2, -37.0369, 0.653239, 20.5486, -160.567, -92.6086, 54.7942
3.15187, 2, -37.0369, 0.653225, 20.5486, -160.567, -92.6085, 54.7942
3.16047, 2, -37.0368, 0.653223, 20.5486, -160.567, -92.6086, 54.7943
3.16797, 2, -37.0368, 0.653225, 20.5486, -160.567, -92.6086, 54.7943
3.17598, 2, -37.0368, 0.65323, 20.5485, -160.567, -92.6086, 54.7944
3.18456, 2, -37.0368, 0.653233, 20.5485, -160.567, -92.6086, 54.7944
3.19208, 2, -37.0367, 0.653234, 20.5485, -160.567, -92.6086, 54.7944
3.19997, 2, -37.0367, 0.653235, 20.5485, -160.567, -92.6086, 54.7944
3.20829, 2, -37.0367, 0.653235, 20.5485, -160.567, -92.6086, 54.7945
3.21544, 2, -37.0367, 0.653235, 20.5485, -160.567, -92.6086, 54.7945
3.22344, 2, -37.0367, 0.653235, 20.5485, -160.567, -92.6087, 54.7945
3.23247, 2, -37.0367, 0.653235, 20.5485, -160.567, -92.6086, 54.7945
3.23945, 2, -37.0367, 0.653235, 20.5485, -160.567, -92.6087, 54.7945
3.24744, 2, -37.0367, 0.653235, 20.5485, -160.567, -92.6087, 54.7946
3.25549, 2, -37.0367, 0.653235, 20.5485, -160.567, -92.6087, 54.7947
3.26348, 2, -37.0366, 0.653228, 20.5485, -160.567, -92.6087, 54.7947
3.27143, 2, -37.0366, 0.653227, 20.5485, -160.567, -92.6087, 54.7948
3.28144, 2, -37.0366, 0.653233, 20.5484, -160.567, -92.6087, 54.7948
3.28745, 2, -37.0366, 0.653233, 20.5484, -160.567, -92.6087, 54.7948
3.29543, 2, -37.0366, 0.653234, 20.5484, -160.567, -92.6087, 54.7948
3.30527, 2, -37.0365, 0.653235, 20.5484, -160.567, -92.6087, 54.7948
3.31144, 2, -37.0366, 0.653235, 20.5484, -160.567, -92.6087, 54.7948
3.32101, 2, -37.0366, 0.653235, 20.5484, -160.567, -92.6087, 54.7949
3.3275, 2, -37.0366, 0.653235, 20.5484, -160.567, -92.6087, 54.7949
3.33543, 2, -37.0366, 0.653235, 20.5484, -160.567, -92.6087, 54.795
3.34444, 2, -37.0365, 0.653265, 20.5484, -160.567, -92.6087, 54.795
3.35151, 2, -37.0365, 0.653256, 20.5484, -160.567, -92.6088, 54.7951
3.35945, 2, -37.0365, 0.653256, 20.5484, -160.567, -92.6087, 54.7951
3.36744, 2, -37.0365, 0.653252, 20.5484, -160.567, -92.6087, 54.7951
3.37551, 2, -37.0365, 0.653243, 20.5484, -160.567, -92.6087, 54.7951
3.38344, 2, -37.0365, 0.653239, 20.5483, -160.566, -92.6087, 54.7951
3.39143, 2, -37.0364, 0.653237, 20.5483, -160.566, -92.6087, 54.7951
3.39952, 2, -37.0364, 0.653236, 20.5483, -160.566, -92.6087, 54.7952
3.40744, 2, -37.0364, 0.653236, 20.5483, -160.566, -92.6087, 54.7952
3.41544, 2, -37.0364, 0.653235, 20.5483, -160.566, -92.6087, 54.7952
3.4235, 2, -37.0364, 0.653246, 20.5483, -160.566, -92.6087, 54.7952
3.43148, 2, -37.0364, 0.653259, 20.5483, -160.566, -92.6088, 54.7953
3.43945, 2, -37.0364, 0.653264, 20.5483, -160.566, -92.6088, 54.7952
3.44753, 2, -37.0364, 0.653256, 20.5483, -160.566, -92.6087, 54.7953
3.45543, 2, -37.0364, 0.653245, 20.5483, -160.566, -92.6088, 54.7953
3.46349, 2, -37.0363, 0.65324, 20.5483, -160.566, -92.6088, 54.7954
3.4715, 2, -37.0363, 0.653256, 20.5482, -160.566, -92.6088, 54.7953
3.47945, 2, -37.0363, 0.653256, 20.5482, -160.566, -92.6088, 54.7953
3.48746, 2, -37.0363, 0.653252, 20.5482, -160.566, -92.6088, 54.7953
3.4955, 2, -37.0363, 0.653243, 20.5482, -160.566, -92.6088, 54.7954
3.50343, 2, -37.0362, 0.653239, 20.5482, -160.566, -92.6088, 54.7954
3.51144, 2, -37.0362, 0.653237, 20.5482, -160.566, -92.6087, 54.7954
3.51951, 2, -37.0362, 0.653236, 20.5482, -160.566, -92.6088, 54.7955
3.52747, 2, -37.0362, 0.653254, 20.5482, -160.566, -92.6088, 54.7955
3.53552, 2, -37.0362, 0.653262, 20.5482, -160.566, -92.6088, 54.7955
3.54359, 2, -37.0362, 0.653277, 20.5482, -160.566, -92.6088, 54.7954
3.55153, 2, -37.0362, 0.65328, 20.5482, -160.566, -92.6088, 54.7955
3.55954, 2, -37.0361, 0.653267, 20.5481, -160.566, -92.6088, 54.7955
3.56762, 2, -37.0362, 0.653268, 20.5481, -160.566, -92.6088, 54.7955
3.57549, 2, -37.0362, 0.653269, 20.5481, -160.566, -92.6088, 54.7955
3.58344, 2, -37.0362, 0.653258, 20.5481, -160.566, -92.6088, 54.7955
3.59153, 2, -37.0362, 0.653264, 20.5481, -160.566, -92.6088, 54.7955
3.59951, 2, -37.0362, 0.653267, 20.5481, -160.566, -92.6088, 54.7955
3.60751, 2, -37.0362, 0.653261, 20.5481, -160.566, -92.6088, 54.7955
3.61565, 2, -37.0361, 0.653284, 20.5481, -160.566, -92.6088, 54.7956
3.62368, 2, -37.0361, 0.653294, 20.548, -160.566, -92.6088, 54.7956
3.63167, 2, -37.0361, 0.653299, 20.5481, -160.566, -92.6088, 54.7955
3.6402, 2, -37.0361, 0.653301, 20.548, -160.566, -92.6088, 54.7956
3.64881, 2, -37.0361, 0.653273, 20.548, -160.566, -92.6088, 54.7956
3.65586, 2, -37.0361, 0.653282, 20.548, -160.566, -92.6088, 54.7956
3.66427, 2, -37.0361, 0.653282, 20.548, -160.566, -92.6088, 54.7956
3.67195, 2, -37.0361, 0.653275, 20.548, -160.566, -92.6088, 54.7956
3.68001, 2, -37.0361, 0.653277, 20.548, -160.566, -92.6088, 54.7956
3.68807, 2, -37.0361, 0.653262, 20.548, -160.566, -92.6088, 54.7956
3.69601, 2, -37.0361, 0.653264, 20.548, -160.566, -92.6089, 54.7956
3.70338, 2, -37.0361, 0.653285, 20.548, -160.566, -92.6089, 54.7956
3.71201, 2, -37.0361, 0.653284, 20.548, -160.566, -92.6089, 54.7956
3.71943, 2, -37.0361, 0.653269, 20.548, -160.566, -92.6088, 54.7956
3.72743, 4, -37.036, 0.653299, 20.548, -160.566, -92.6088, 54.7957
3.73549, 4, -37.036, 0.653301, 20.5479, -160.566, -92.6088, 54.7957
3.74341, 4, -37.036, 0.653284, 20.548, -160.566, -92.6088, 54.7957
3.75142, 4, -37.036, 0.653276, 20.5479, -160.566, -92.6088, 54.7956
3.75948, 4, -37.036, 0.653291, 20.5479, -160.566, -92.6088, 54.7957
3.76747, 4, -37.036, 0.653297, 20.5479, -160.566, -92.6088, 54.7957
3.77542, 4, -37.036, 0.6533, 20.5479, -160.566, -92.6088, 54.7956
3.78492, 4, -37.036, 0.653292, 20.5479, -160.566, -92.6088, 54.7957
3.79337, 4, -37.036, 0.653298, 20.5479, -160.566, -92.6088, 54.7957
3.79943, 4, -37.036, 0.6533, 20.5479, -160.566, -92.6088, 54.7957
3.80901, 4, -37.0359, 0.653291, 20.5479, -160.566, -92.6088, 54.7957
3.81541, 4, -37.0359, 0.653284, 20.5479, -160.566, -92.6089, 54.7957
3.82344, 4, -37.0359, 0.653302, 20.5479, -160.566, -92.6089, 54.7957
3.85002, 4, -37.0359, 0.653289, 20.5478, -160.566, -92.6089, 54.7957
3.85202, 4, -37.0358, 0.653313, 20.5478, -160.566, -92.6089, 54.7957
3.85469, 4, -37.0358, 0.65331, 20.5478, -160.566, -92.6089, 54.7957
3.85719, 4, -37.0358, 0.65331, 20.5478, -160.566, -92.6089, 54.7957
3.86355, 4, -37.0358, 0.653314, 20.5478, -160.566, -92.6088, 54.7957
3.8714, 4, -37.0358, 0.653302, 20.5478, -160.566, -92.6088, 54.7957
3.8795, 4, -37.0351, 0.653144, 20.5478, -160.566, -92.6088, 54.7958
3.88744, 4, -37.0325, 0.652168, 20.548, -160.566, -92.6088, 54.7958
3.89564, 4, -37.0268, 0.649268, 20.5489, -160.566, -92.6089, 54.7957
3.90439, 4, -37.0173, 0.643271, 20.5514, -160.566, -92.6089, 54.7958
3.91246, 4, -37.0038, 0.6337, 20.5569, -160.565, -92.6089, 54.7957
3.92064, 4, -36.9857, 0.619992, 20.5666, -160.563, -92.6089, 54.7957
3.93031, 5, -36.948, 0.591023, 20.5924, -160.558, -92.6088, 54.7956
3.93552, 5, -36.9328, 0.579175, 20.6042, -160.556, -92.6087, 54.7957
3.94355, 5, -36.8987, 0.551972, 20.633, -160.549, -92.6083, 54.7956
3.95143, 5, -36.8599, 0.52046, 20.6687, -160.542, -92.6075, 54.7956
3.9594, 5, -36.816, 0.484062, 20.7101, -160.533, -92.6063, 54.7955
3.97019, 5, -36.7668, 0.443126, 20.7566, -160.522, -92.6048, 54.7956
3.97558, 5, -36.7127, 0.398116, 20.8069, -160.511, -92.603, 54.7956
3.98348, 5, -36.6544, 0.349809, 20.8597, -160.499, -92.6012, 54.7955
3.99141, 5, -36.5921, 0.299147, 20.9142, -160.486, -92.5994, 54.7955
4.00353, 5, -36.4929, 0.219938, 20.9973, -160.468, -92.5965, 54.7955
4.00749, 5, -36.4592, 0.193117, 21.0251, -160.462, -92.5955, 54.7955
4.01541, 5, -36.3909, 0.139271, 21.0806, -160.45, -92.5936, 54.7956
4.02357, 5, -36.3223, 0.0852547, 21.1362, -160.438, -92.5916, 54.7957
4.03148, 5, -36.2535, 0.0312901, 21.1918, -160.426, -92.5895, 54.7957
4.03958, 5, -36.1846, -0.0224769, 21.2474, -160.414, -92.5875, 54.7957
4.04775, 5, -36.116, -0.0759991, 21.3029, -160.402, -92.5854, 54.7958
4.0565, 5, -36.0474, -0.129273, 21.3584, -160.389, -92.5834, 54.796
4.06352, 5, -35.9788, -0.182305, 21.4137, -160.376, -92.5812, 54.7963
4.0717, 5, -35.9103, -0.23517, 21.469, -160.363, -92.5791, 54.7968
4.07948, 5, -35.8416, -0.287875, 21.5242, -160.351, -92.5769, 54.7974
4.08741, 5, -35.7727, -0.340575, 21.5793, -160.338, -92.5748, 54.7983
4.09578, 5, -35.7037, -0.393283, 21.6343, -160.325, -92.5727, 54.7993
4.10412, 5, -35.6343, -0.445994, 21.6891, -160.313, -92.5705, 54.8005
4.11241, 5, -35.5647, -0.498822, 21.7436, -160.3, -92.5684, 54.8018
4.12081, 5, -35.4949, -0.551645, 21.7981, -160.288, -92.5663, 54.8033
4.1285, 5, -35.4247, -0.604493, 21.8523, -160.275, -92.564, 54.8049
4.13593, 5, -35.3544, -0.657298, 21.9064, -160.262, -92.5619, 54.8066
4.14374, 5, -35.2839, -0.710076, 21.9604, -160.249, -92.5597, 54.8085
4.15332, 5, -35.2134, -0.762681, 22.0143, -160.236, -92.5574, 54.8105
4.15996, 5, -35.1427, -0.814935, 22.0681, -160.222, -92.5552, 54.8127
4.17066, 5, -35.0721, -0.867189, 22.1219, -160.209, -92.5529, 54.8148
4.17636, 5, -35.0016, -0.91917, 22.1754, -160.196, -92.5506, 54.8173
4.18396, 5, -34.9311, -0.970836, 22.2289, -160.183, -92.5483, 54.8197
4.19198, 5, -34.8606, -1.02236, 22.2823, -160.17, -92.546, 54.8224
4.20892, 5, -34.7548, -1.12524, 22.3885, -160.144, -92.5413, 54.828
4.21021, 5, -34.7195, -1.12524, 22.3885, -160.144, -92.5413, 54.828
4.2154, 5, -34.6841, -1.15093, 22.415, -160.138, -92.5401, 54.8294
4.22446, 5, -34.5777, -1.22794, 22.494, -160.118, -92.5366, 54.8339
4.2314, 5, -34.5422, -1.25367, 22.5203, -160.112, -92.5354, 54.8355
4.23942, 5, -34.4711, -1.30506, 22.5728, -160.098, -92.533, 54.8388
4.24757, 5, -34.3997, -1.35643, 22.6251, -160.085, -92.5306, 54.8421
4.25772, 5, -34.3281, -1.43344, 22.7032, -160.064, -92.5271, 54.8473
4.2634, 5, -34.2565, -1.45906, 22.7292, -160.057, -92.5258, 54.8491
4.27153, 5, -34.1846, -1.51013, 22.7812, -160.043, -92.5234, 54.8528
4.2794, 5, -34.1127, -1.56098, 22.8329, -160.03, -92.521, 54.8567
4.28889, 5, -34.0045, -1.63693, 22.9104, -160.01, -92.5173, 54.8625
4.29741, 5, -33.9323, -1.68726, 22.9619, -159.996, -92.5149, 54.8666
4.30354, 5, -33.8963, -1.71236, 22.9876, -159.989, -92.5137, 54.8686
4.31138, 5, -33.8242, -1.76243, 23.0388, -159.976, -92.5113, 54.8726
4.32293, 5, -33.7158, -1.8374, 23.1155, -159.955, -92.5077, 54.8791
4.32927, 5, -33.6435, -1.88724, 23.1663, -159.94, -92.5054, 54.8833
4.33886, 5, -33.571, -1.93716, 23.2169, -159.926, -92.503, 54.8877
4.34347, 5, -33.5347, -1.96225, 23.2422, -159.919, -92.5019, 54.8899
4.35246, 5, -33.4618, -2.01259, 23.2927, -159.905, -92.4996, 54.8939
4.35939, 5, -33.389, -2.06323, 23.3431, -159.891, -92.4973, 54.8971
4.36749, 5, -33.3163, -2.11426, 23.3934, -159.877, -92.495, 54.8988
4.37657, 6, -33.2438, -2.16582, 23.444, -159.862, -92.4926, 54.899
4.38344, 6, -33.1718, -2.21826, 23.4946, -159.848, -92.4901, 54.8971
4.39141, 6, -33.1, -2.27153, 23.5457, -159.832, -92.487, 54.8915
4.39936, 7, -33.0288, -2.32579, 23.5977, -159.816, -92.483, 54.8801
4.40756, 7, -32.958, -2.38119, 23.6508, -159.798, -92.4776, 54.865
4.41539, 7, -32.8877, -2.43782, 23.7051, -159.778, -92.4705, 54.8472
4.42363, 7, -32.818, -2.49601, 23.761, -159.758, -92.4613, 54.8284
4.43245, 7, -32.7488, -2.55569, 23.8184, -159.736, -92.4499, 54.8101
4.44037, 8, -32.6804, -2.61702, 23.8771, -159.714, -92.4365, 54.7924
4.4475, 8, -32.6126, -2.68, 23.9373, -159.689, -92.421, 54.7754
4.4554, 8, -32.5456, -2.7448, 23.9986, -159.664, -92.4035, 54.7581
4.4634, 8, -32.4794, -2.8112, 24.0609, -159.637, -92.3842, 54.74
4.4719, 8, -32.4138, -2.87917, 24.1244, -159.609, -92.3633, 54.7206
4.47967, 9, -32.349, -2.94858, 24.1887, -159.581, -92.3413, 54.6995
4.4884, 9, -32.2846, -3.01929, 24.2541, -159.552, -92.3183, 54.6766
4.49756, 9, -32.2209, -3.09133, 24.3205, -159.521, -92.2941, 54.652
4.50378, 9, -32.1577, -3.16464, 24.3879, -159.489, -92.2683, 54.6259
4.5125, 9, -32.0951, -3.23925, 24.4562, -159.457, -92.2405, 54.5988
4.51941, 9, -32.033, -3.3152, 24.5255, -159.424, -92.2113, 54.5701
4.5276, 10, -31.9715, -3.39241, 24.5958, -159.389, -92.1812, 54.5399
4.53546, 10, -31.9106, -3.47108, 24.6673, -159.354, -92.1498, 54.5075
4.54356, 10, -31.8502, -3.55115, 24.7398, -159.318, -92.1168, 54.4731
4.55253, 10, -31.7905, -3.63263, 24.8134, -159.281, -92.0818, 54.4375
4.55967, 10, -31.7313, -3.7156, 24.8879, -159.243, -92.0459, 54.4008
4.56751, 11, -31.6725, -3.80002, 24.9634, -159.203, -92.0091, 54.3625
4.57568, 11, -31.6144, -3.88595, 25.0398, -159.164, -91.9707, 54.3223
4.58438, 11, -31.5568, -3.97328, 25.1171, -159.123, -91.9302, 54.2803
4.59154, 11, -31.4997, -4.06212, 25.1955, -159.081, -91.8889, 54.2372
4.59942, 11, -31.4432, -4.15246, 25.2749, -159.038, -91.8466, 54.1929
4.60748, 12, -31.3872, -4.24425, 25.3554, -158.995, -91.802, 54.1467
4.61559, 12, -31.3316, -4.33741, 25.437, -158.95, -91.7563, 54.0984
4.62446, 12, -31.2766, -4.43198, 25.5197, -158.904, -91.7099, 54.049
4.63342, 12, -31.2221, -4.52785, 25.6033, -158.858, -91.6614, 53.9985
4.63971, 12, -31.1681, -4.62521, 25.688, -158.81, -91.6116, 53.9459
4.64863, 13, -31.1146, -4.72395, 25.7736, -158.761, -91.5611, 53.8916
4.65593, 13, -31.0616, -4.82406, 25.86, -158.713, -91.5082, 53.8365
4.66456, 13, -31.0092, -4.92572, 25.9476, -158.663, -91.4545, 53.7798
4.67204, 13, -30.9573, -5.02891, 26.0362, -158.611, -91.3998, 53.7211
4.68041, 13, -30.9058, -5.13347, 26.126, -158.56, -91.3429, 53.6616
4.68794, 14, -30.855, -5.23941, 26.2168, -158.506, -91.2856, 53.6006
4.69651, 14, -30.8048, -5.34696, 26.3087, -158.453, -91.2264, 53.5374
4.70435, 14, -30.755, -5.4559, 26.4014, -158.398, -91.1659, 53.4737
4.71294, 14, -30.7058, -5.5664, 26.495, -158.342, -91.1048, 53.4084
4.72043, 14, -30.6571, -5.67839, 26.5896, -158.286, -91.0411, 53.3409
4.72742, 15, -30.6329, -5.73493, 26.6374, -158.258, -91.0092, 53.3069
4.73538, 15, -30.5849, -5.84905, 26.7336, -158.199, -90.9441, 53.2382
4.74348, 15, -30.5375, -5.96442, 26.8312, -158.141, -90.8772, 53.1672
4.75154, 15, -30.4905, -6.08119, 26.9297, -158.081, -90.8101, 53.0956
4.7608, 15, -30.444, -6.19946, 27.0792, -157.99, -90.7054, 52.9842
4.76759, 16, -30.398, -6.31905, 27.1294, -157.959, -90.6701, 52.9465
4.77542, 16, -30.3526, -6.44024, 27.2307, -157.896, -90.5978, 52.8703
4.78484, 16, -30.2854, -6.62476, 27.3848, -157.801, -90.4879, 52.752
4.79139, 16, -30.2632, -6.68695, 27.4367, -157.768, -90.4504, 52.7124
4.80187, 16, -30.1974, -6.87583, 27.5943, -157.671, -90.3362, 52.5902
4.80765, 17, -30.1757, -6.93957, 27.6473, -157.637, -90.2974, 52.5492
4.81538, 17, -30.1327, -7.06827, 27.7538, -157.57, -90.2191, 52.4658
4.82346, 17, -30.0902, -7.19851, 27.8613, -157.502, -90.1392, 52.3809
4.83529, 17, -30.0275, -7.39649, 28.0244, -157.399, -90.0168, 52.2511
4.83939, 17, -30.0068, -7.4631, 28.0794, -157.364, -89.9756, 52.2071
4.84746, 17, -29.9658, -7.59743, 28.1904, -157.293, -89.8917, 52.1185
4.85537, 18, -29.9254, -7.73322, 28.3024, -157.222, -89.8068, 52.0282
4.86346, 18, -29.8854, -7.87041, 28.4153, -157.15, -89.7203, 51.937
4.87146, 18, -29.8459, -8.00898, 28.529, -157.076, -89.633, 51.8436
4.87963, 18, -29.8068, -8.14872, 28.6437, -157.002, -89.5442, 51.7495
4.88735, 18, -29.7683, -8.28983, 28.7595, -156.927, -89.4539, 51.6536
4.8954, 19, -29.7302, -8.43232, 28.8766, -156.851, -89.363, 51.557
4.90359, 19, -29.6925, -8.5764, 28.9948, -156.774, -89.2704, 51.4588
4.91693, 19, -29.6369, -8.79537, 29.1734, -156.657, -89.1292, 51.3099
4.91933, 19, -29.6186, -8.86894, 29.2334, -156.618, -89.0817, 51.26
4.92739, 19, -29.5824, -9.01711, 29.354, -156.538, -88.9857, 51.1589
4.93545, 20, -29.5467, -9.16681, 29.4758, -156.458, -88.8884, 51.0565
4.94348, 20, -29.5113, -9.31802, 29.5988, -156.377, -88.7904, 50.9527
4.95263, 20, -29.4764, -9.47068, 29.7227, -156.295, -88.6912, 50.8479
4.95958, 20, -29.4421, -9.62441, 29.8475, -156.211, -88.5908, 50.7416
4.96742, 20, -29.4082, -9.77934, 29.9731, -156.128, -88.4894, 50.6347
4.97627, 21, -29.3748, -9.9357, 30.0997, -156.043, -88.3869, 50.526
4.98346, 21, -29.3417, -10.0936, 30.2273, -155.957, -88.2831, 50.4167
4.99142, 21, -29.3091, -10.2528, 30.3561, -155.871, -88.1786, 50.3063
5.00272, 21, -29.261, -10.4934, 30.5508, -155.739, -88.0196, 50.1392
5.00762, 21, -29.2451, -10.5742, 30.6162, -155.695, -87.9661, 50.0831
5.01646, 22, -29.2138, -10.7368, 30.7475, -155.606, -87.8584, 49.9702
5.02376, 22, -29.1827, -10.9009, 30.8799, -155.516, -87.7496, 49.8563
5.03157, 22, -29.1521, -11.066, 31.0132, -155.425, -87.64, 49.7418
5.04047, 22, -29.122, -11.2319, 31.1473, -155.333, -87.5292, 49.626
5.04748, 22, -29.0922, -11.3992, 31.2825, -155.241, -87.4174, 49.5097
5.05545, 23, -29.0628, -11.5681, 31.4185, -155.147, -87.3049, 49.3924
5.06393, 23, -29.0337, -11.7384, 31.5553, -155.052, -87.1914, 49.2743
5.0715, 23, -29.0049, -11.9096, 31.6929, -154.957, -87.0769, 49.1557
5.08031, 23, -28.9766, -12.0817, 31.8313, -154.861, -86.9618, 49.0365
5.08782, 23, -28.9487, -12.2552, 31.9706, -154.764, -86.8453, 48.9165
5.09571, 24, -28.9211, -12.4302, 32.1109, -154.667, -86.7282, 48.7962
5.10431, 24, -28.8939, -12.6059, 32.252, -154.568, -86.6101, 48.6755
5.11145, 24, -28.8669, -12.7821, 32.3937, -154.468, -86.4912, 48.5538
5.12042, 24, -28.8404, -12.9595, 32.5361, -154.368, -86.3715, 48.4318
5.12789, 24, -28.8142, -13.1386, 32.6796, -154.267, -86.2507, 48.309
5.13663, 24, -28.7883, -13.3185, 32.824, -154.165, -86.1296, 48.1858
5.14457, 25, -28.7627, -13.499, 32.969, -154.063, -86.0074, 48.0624
5.15324, 25, -28.7373, -13.6804, 33.1144, -153.959, -85.8849, 47.939
5.16217, 25, -28.7121, -13.8634, 33.2606, -153.855, -85.7614, 47.8153
5.16822, 25, -28.6872, -14.0474, 33.4077, -153.75, -85.6371, 47.6916
5.17593, 25, -28.6626, -14.2317, 33.5555, -153.644, -85.5126, 47.5677
5.18391, 26, -28.6383, -14.4168, 33.704, -153.537, -85.3871, 47.4435
5.19201, 26, -28.6144, -14.6034, 33.8527, -153.43, -85.2615, 47.3192
5.19995, 26, -28.6025, -14.7911, 34.0025, -153.321, -85.1349, 47.1947
5.20851, 26, -28.567, -14.9791, 34.153, -153.213, -85.0077, 47.0704
5.21538, 26, -28.5552, -15.0732, 34.2285, -153.158, -84.9441, 47.0085
5.22338, 27, -28.5318, -15.2619, 34.3796, -153.048, -84.8161, 46.8846
5.23229, 27, -28.5088, -15.4517, 34.5313, -152.937, -84.6236, 46.6996
5.23934, 27, -28.4859, -15.6419, 34.6837, -152.826, -84.5589, 46.6379
5.24851, 27, -28.4521, -15.9279, 34.9136, -152.657, -84.3648, 46.4536
5.25551, 27, -28.4409, -16.0239, 34.9903, -152.601, -84.2999, 46.3923
5.2634, 28, -28.4186, -16.217, 35.1438, -152.487, -84.1699, 46.2697
5.27137, 28, -28.3963, -16.4107, 35.2981, -152.373, -84.0394, 46.1477
5.27957, 28, -28.3741, -16.6048, 35.4531, -152.259, -83.9085, 46.0262
5.2887, 28, -28.3522, -16.898, 35.6864, -152.085, -83.7117, 45.8452
5.29545, 28, -28.3303, -16.9961, 35.7642, -152.027, -83.6459, 45.7852
5.30502, 29, -28.2977, -17.2904, 35.9985, -151.851, -83.4483, 45.6064
5.31138, 29, -28.2869, -17.3887, 36.077, -151.792, -83.3822, 45.5473
5.31943, 29, -28.2655, -17.586, 36.2343, -151.674, -83.2497, 45.4293
5.3292, 29, -28.2332, -17.883, 36.4705, -151.495, -83.0502, 45.254
5.33719, 29, -28.2225, -17.9819, 36.6284, -151.375, -82.9171, 45.1381
5.34434, 30, -28.2013, -18.18, 36.7076, -151.315, -82.8503, 45.0807
5.35418, 30, -28.1694, -18.4786, 36.946, -151.133, -82.6502, 44.9102
5.35958, 30, -28.1587, -18.5783, 37.0253, -151.073, -82.5834, 44.854
5.36738, 30, -28.1375, -18.7775, 37.1838, -150.951, -82.4496, 44.7432
5.37542, 30, -28.1163, -18.9775, 37.3425, -150.828, -82.316, 44.6339
5.38363, 31, -28.0948, -19.1784, 37.5017, -150.705, -82.1818, 44.5266
5.39237, 31, -28.0733, -19.3792, 37.6608, -150.582, -82.048, 44.4206
5.39946, 31, -28.0518, -19.5799, 37.8196, -150.458, -81.9138, 44.3164
5.40737, 31, -28.0304, -19.7808, 37.9789, -150.334, -81.7798, 44.2141
5.41543, 31, -28.0087, -19.9819, 38.1389, -150.208, -81.6455, 44.1129
5.42359, 32, -27.9869, -20.1824, 38.299, -150.083, -81.5112, 44.0137
5.43156, 32, -27.9651, -20.3829, 38.4586, -149.957, -81.377, 43.916
5.44284, 32, -27.9317, -20.6848, 38.6981, -149.767, -81.176, 43.7739
5.4474, 32, -27.9204, -20.7854, 38.7781, -149.703, -81.1089, 43.7275
5.45551, 32, -27.8978, -20.9862, 38.9379, -149.576, -80.975, 43.637
5.46345, 32, -27.875, -21.1869, 39.0971, -149.448, -80.8417, 43.5491
5.47137, 33, -27.8519, -21.3878, 39.2559, -149.321, -80.7086, 43.4644
5.48069, 33, -27.8284, -21.5881, 39.4149, -149.193, -80.5761, 43.3825
5.48938, 33, -27.8046, -21.7875, 39.5735, -149.065, -80.4438, 43.3039
5.49543, 33, -27.7802, -21.9867, 39.7312, -148.938, -80.3123, 43.2285
5.50336, 33, -27.7553, -22.1857, 39.8881, -148.81, -80.1809, 43.1561
5.5114, 34, -27.73, -22.3837, 40.0448, -148.683, -80.0501, 43.0877
5.51943, 34, -27.7041, -22.5808, 40.2015, -148.555, -79.9194, 43.0219
5.52737, 34, -27.6779, -22.7778, 40.3574, -148.427, -79.7887, 42.9593
5.53559, 34, -27.6513, -22.9745, 40.5125, -148.3, -79.658, 42.9005
5.54349, 34, -27.6241, -23.1704, 40.6677, -148.172, -79.5274, 42.8445
5.55147, 35, -27.5966, -23.3659, 40.823, -148.043, -79.3968, 42.7916
5.55951, 35, -27.569, -23.562, 40.9777, -147.915, -79.2661, 42.7426
5.56753, 35, -27.5411, -23.7579, 41.132, -147.786, -79.1361, 42.6971
5.57548, 35, -27.513, -23.9532, 41.2861, -147.656, -79.0059, 42.6545
5.58369, 35, -27.4847, -24.1483, 41.4404, -147.526, -78.8762, 42.615
5.59315, 36, -27.456, -24.3436, 41.5945, -147.396, -78.7466, 42.5796
5.59939, 36, -27.427, -24.5383, 41.748, -147.265, -78.6174, 42.5485
5.60772, 36, -27.3977, -24.7321, 41.901, -147.134, -78.4887, 42.5215
5.61665, 36, -27.3678, -24.9256, 42.0538, -147.003, -78.3602, 42.4989
5.62359, 36, -27.3371, -25.1188, 42.2059, -146.872, -78.2325, 42.4806
5.63159, 37, -27.3055, -25.3109, 42.3568, -146.741, -78.1049, 42.4668
5.64038, 37, -27.273, -25.5015, 42.5063, -146.611, -77.9781, 42.4581
5.64778, 37, -27.2396, -25.6913, 42.6549, -146.482, -77.8516, 42.4538
5.65675, 37, -27.2052, -25.8802, 42.8023, -146.353, -77.7257, 42.4526
5.66625, 37, -27.1699, -26.0674, 42.9485, -146.226, -77.6002, 42.4559
5.67195, 37, -27.1336, -26.253, 43.0932, -146.099, -77.4752, 42.4659
5.68078, 38, -27.0966, -26.4377, 43.2369, -145.972, -77.3508, 42.4813
5.68794, 38, -27.0589, -26.6216, 43.38, -145.845, -77.2265, 42.502
5.69682, 38, -27.0203, -26.804, 43.5224, -145.719, -77.1028, 42.5279
5.70575, 38, -26.9812, -26.9854, 43.6642, -145.592, -76.9791, 42.5593
5.71219, 38, -26.9413, -27.1666, 43.8053, -145.465, -76.8559, 42.5967
5.72125, 39, -26.9009, -27.3474, 43.9458, -145.338, -76.7326, 42.6402
5.72735, 39, -26.8804, -27.4374, 44.0158, -145.275, -76.6709, 42.6639
5.74223, 39, -26.7964, -27.795, 44.2941, -145.021, -76.4244, 42.773
5.74356, 39, -26.7964, -27.795, 44.2941, -145.021, -76.4244, 42.773
5.75141, 39, -26.7532, -27.9731, 44.4316, -144.894, -76.3012, 42.8375
5.75935, 40, -26.7091, -28.1501, 44.568, -144.768, -76.1781, 42.9074
5.7674, 40, -26.6638, -28.3254, 44.7032, -144.643, -76.0554, 42.9844
5.77535, 40, -26.6176, -28.4991, 44.8369, -144.519, -75.9336, 43.0679
5.78353, 40, -26.5703, -28.6718, 44.9692, -144.396, -75.812, 43.1574
5.79133, 40, -26.5218, -28.8431, 45.0998, -144.274, -75.6915, 43.2545
5.80167, 41, -26.4469, -29.0962, 45.2929, -144.093, -75.5114, 43.412
5.80745, 41, -26.4214, -29.1797, 45.3566, -144.033, -75.4517, 43.4678
5.81699, 41, -26.3428, -29.4287, 45.5457, -143.855, -75.2734, 43.6458
5.82335, 41, -26.316, -29.5109, 45.6081, -143.796, -75.214, 43.7086
5.83155, 41, -26.2615, -29.6738, 45.7316, -143.679, -75.0959, 43.8397
5.83951, 42, -26.2057, -29.8348, 45.8533, -143.563, -74.9781, 43.978
5.84738, 42, -26.1483, -29.994, 45.9732, -143.449, -74.8605, 44.1237
5.85625, 42, -26.0894, -30.1516, 46.091, -143.336, -74.7438, 44.2762
5.8644, 42, -26.0287, -30.3071, 46.2067, -143.225, -74.6273, 44.436
5.87135, 42, -25.9665, -30.46, 46.3203, -143.116, -74.5116, 44.6031
5.88033, 43, -25.9025, -30.6107, 46.4315, -143.009, -74.3963, 44.7773
5.88751, 43, -25.8368, -30.7593, 46.5406, -142.904, -74.2813, 44.9595
5.89541, 43, -25.7696, -30.9056, 46.6476, -142.8, -74.167, 45.1491
5.90689, 43, -25.6656, -31.1207, 46.8044, -142.648, -73.9959, 45.4482
5.91148, 43, -25.6302, -31.1913, 46.8558, -142.598, -73.9392, 45.5516
5.92033, 44, -25.5581, -31.3311, 46.9571, -142.5, -73.8262, 45.7644
5.92836, 44, -25.4843, -31.4687, 47.0562, -142.405, -73.7137, 45.9849
5.93931, 44, -25.3704, -31.6712, 47.2002, -142.265, -73.5463, 46.331
5.94334, 44, -25.3316, -31.7374, 47.247, -142.22, -73.4907, 46.4504
5.95138, 44, -25.2526, -31.8679, 47.3389, -142.131, -73.3801, 46.6955
5.95938, 45, -25.1717, -31.9957, 47.4282, -142.045, -73.2703, 46.9485
5.96737, 45, -25.089, -32.1207, 47.5152, -141.962, -73.1608, 47.2104
5.97534, 45, -25.0041, -32.243, 47.5997, -141.881, -73.0521, 47.4807
5.98359, 45, -24.9171, -32.3623, 47.6812, -141.803, -72.9437, 47.759
5.99242, 45, -24.8278, -32.4785, 47.7597, -141.729, -72.8357, 48.0456
5.99936, 45, -24.7361, -32.5914, 47.835, -141.657, -72.7285, 48.3406
6.00743, 46, -24.6421, -32.7009, 47.9075, -141.589, -72.6216, 48.6445
6.01537, 46, -24.5457, -32.8071, 47.977, -141.524, -72.5157, 48.9563
6.02341, 46, -24.4468, -32.9097, 48.0434, -141.463, -72.4106, 49.2763
6.03181, 46, -24.3458, -33.0086, 48.1066, -141.406, -72.3062, 49.6053
6.0403, 46, -24.2425, -33.1037, 48.1663, -141.352, -72.2034, 49.942
6.04835, 47, -24.1368, -33.1951, 48.2225, -141.304, -72.1013, 50.2867
6.05741, 47, -24.0286, -33.2823, 48.2751, -141.258, -72.0004, 50.64
6.06435, 47, -23.9178, -33.3656, 48.324, -141.217, -71.9009, 51.0016
6.07151, 47, -23.8044, -33.4448, 48.3691, -141.181, -71.8023, 51.3716
6.07946, 47, -23.6882, -33.5198, 48.4104, -141.15, -71.7048, 51.7507
6.08946, 48, -23.5692, -33.5905, 48.4476, -141.122, -71.6092, 52.1383
6.09537, 48, -23.4476, -33.6565, 48.4806, -141.1, -71.515, 52.5348
6.10337, 48, -23.3235, -33.718, 48.5095, -141.082, -71.422, 52.9412
6.11237, 48, -23.1969, -33.7744, 48.5342, -141.069, -71.3314, 53.3568
6.11949, 48, -23.0674, -33.8258, 48.5545, -141.062, -71.2426, 53.7814
6.12755, 49, -22.935, -33.8719, 48.5704, -141.058, -71.1556, 54.2144
6.13613, 49, -22.7997, -33.9127, 48.5817, -141.06, -71.0707, 54.6548
6.14377, 49, -22.6614, -33.9478, 48.5883, -141.068, -70.9879, 55.1033
6.15236, 49, -22.5202, -33.9772, 48.5904, -141.083, -70.9074, 55.5586
6.16052, 49, -22.3763, -34.0009, 48.5879, -141.103, -70.829, 56.0218
6.16779, 50, -22.2296, -34.0183, 48.5803, -141.13, -70.7538, 56.4922
6.17646, 50, -22.0802, -34.0296, 48.5676, -141.162, -70.681, 56.9694
6.18427, 50, -21.9281, -34.0347, 48.5498, -141.2, -70.6118, 57.4551
6.19195, 50, -21.7731, -34.034, 48.5266, -141.246, -70.5452, 57.948
6.20045, 50, -21.615, -34.0268, 48.4977, -141.297, -70.4824, 58.4484
6.20825, 51, -21.4538, -34.0128, 48.4635, -141.354, -70.4232, 58.955
6.22081, 51, -21.2899, -33.979, 48.402, -141.452, -70.3409, 59.7268
6.22336, 51, -21.207, -33.979, 48.402, -141.452, -70.3409, 59.7268
6.23462, 51, -20.9543, -33.9292, 48.3278, -141.564, -70.2672, 60.512
6.2395, 51, -20.8688, -33.9091, 48.3002, -141.604, -70.2444, 60.7767
6.2473, 52, -20.696, -33.863, 48.2407, -141.69, -70.2023, 61.3098
6.25656, 52, -20.4316, -33.7792, 48.1403, -141.83, -70.1482, 62.122
6.26352, 52, -20.3421, -33.7473, 48.1039, -141.88, -70.1323, 62.396
6.27344, 52, -20.0692, -33.6394, 47.9852, -142.04, -70.0916, 63.2278
6.27939, 52, -19.977, -33.5993, 47.9425, -142.096, -70.0807, 63.5078
6.28752, 53, -19.7906, -33.5127, 47.8524, -142.214, -70.0628, 64.0731
6.29744, 53, -19.6021, -33.4176, 47.7561, -142.337, -70.0463, 64.9311
6.30341, 53, -19.4117, -33.3142, 47.6539, -142.467, -70.0436, 65.2193
6.31368, 53, -19.1224, -33.144, 47.4894, -142.672, -70.0424, 66.0891
6.31935, 53, -19.0251, -33.0831, 47.4317, -142.743, -70.0447, 66.3808
6.32763, 54, -18.8293, -32.9551, 47.3118, -142.889, -70.0539, 66.9661
6.33552, 54, -18.6317, -32.8188, 47.186, -143.04, -70.0695, 67.5529
6.34332, 54, -18.4323, -32.6742, 47.0544, -143.195, -70.0917, 68.1402
6.35234, 54, -18.2308, -32.5215, 46.9175, -143.355, -70.1207, 68.7291
6.35979, 54, -18.0279, -32.3605, 46.7748, -143.519, -70.1557, 69.3197
6.36923, 54, -17.8238, -32.1906, 46.6261, -143.687, -70.2207, 70.2085
6.37634, 55, -17.6189, -32.0114, 46.4713, -143.86, -70.2467, 70.5064
6.3844, 55, -17.4127, -31.8229, 46.31, -144.038, -70.304, 71.1056
6.39133, 55, -17.2049, -31.625, 46.142, -144.221, -70.3691, 71.7093
6.39934, 55, -16.9955, -31.4169, 45.9664, -144.41, -70.4435, 72.3172
6.41082, 55, -16.6781, -31.0844, 45.6891, -144.701, -70.5715, 73.2386
6.41549, 56, -16.5715, -30.9685, 45.5933, -144.801, -70.6188, 73.5482
6.42619, 56, -16.2496, -30.6042, 45.2946, -145.106, -70.774, 74.4816
6.4314, 56, -16.142, -30.4772, 45.1912, -145.21, -70.8306, 74.7941
6.43958, 56, -15.927, -30.2156, 44.9796, -145.42, -70.9505, 75.4216
6.44844, 56, -15.7121, -29.9436, 44.7624, -145.633, -71.0796, 76.0511
6.45636, 57, -15.4964, -29.661, 44.5378, -145.85, -71.2183, 76.6808
6.4634, 57, -15.2795, -29.3685, 44.3068, -146.068, -71.3661, 77.3114
6.47134, 57, -15.0616, -29.0655, 44.0701, -146.289, -71.5237, 77.9428
6.47934, 57, -14.8437, -28.7537, 43.8269, -146.511, -71.6904, 78.5731
6.48747, 57, -14.6262, -28.4332, 43.579, -146.735, -71.8666, 79.2012
6.49663, 58, -14.4092, -28.105, 43.3268, -146.958, -72.0511, 79.8272
6.50334, 58, -14.1934, -27.7692, 43.0702, -147.181, -72.2435, 80.4491
6.51135, 58, -13.979, -27.4256, 42.8109, -147.403, -72.4437, 81.0651
6.51947, 58, -13.7661, -27.0752, 42.548, -147.623, -72.6513, 81.6754
6.52733, 58, -13.5545, -26.7178, 42.2822, -147.841, -72.866, 82.2801
6.53532, 59, -13.3441, -26.354, 42.0133, -148.057, -73.0879, 82.8791
6.54363, 59, -13.1354, -25.9828, 41.7402, -148.271, -73.3175, 83.4723
6.55141, 59, -12.9285, -25.6051, 41.4639, -148.484, -73.555, 84.0616
6.56189, 59, -12.7229, -25.2207, 41.1836, -148.695, -73.8006, 84.647
6.57011, 59, -12.5184, -24.8294, 40.8999, -148.905, -74.0547, 85.2284
6.57567, 60, -12.315, -24.4306, 40.6119, -149.112, -74.3172, 85.8051
6.58385, 60, -12.1129, -24.025, 40.3203, -149.317, -74.5881, 86.3783
6.59169, 60, -11.9124, -23.6134, 40.0255, -149.52, -74.867, 86.9474
6.60041, 60, -11.7135, -23.1953, 39.7282, -149.72, -75.1537, 87.5114
6.60736, 60, -11.5166, -22.7717, 39.4294, -149.917, -75.4476, 88.0695
6.61547, 60, -11.3221, -22.3432, 39.1287, -150.11, -75.7481, 88.6218
6.62344, 61, -11.1299, -21.9111, 38.8273, -150.3, -76.0545, 89.1672
6.63152, 61, -10.9399, -21.475, 38.5245, -150.484, -76.3658, 89.7042
6.63993, 61, -10.752, -21.0352, 38.2218, -150.664, -76.6819, 90.2319
6.64867, 61, -10.5663, -20.592, 37.9184, -150.839, -77.0029, 90.7516
6.6557, 61, -10.3828, -20.1444, 37.6146, -151.01, -77.3284, 91.2627
6.66378, 62, -10.202, -19.6931, 37.3104, -151.175, -77.6591, 91.7661
6.67188, 62, -10.0241, -19.2388, 37.0054, -151.337, -77.9952, 92.2616
6.6805, 62, -9.84862, -18.7817, 36.6995, -151.494, -78.337, 92.7503
6.6891, 62, -9.67579, -18.3226, 36.3924, -151.646, -78.6842, 93.232
6.69675, 62, -9.5052, -17.8624, 36.0858, -151.794, -79.036, 93.7056
6.70445, 63, -9.3368, -17.4013, 35.7797, -151.937, -79.3915, 94.1701
6.71196, 63, -9.25349, -17.1705, 35.6275, -152.074, -79.7495, 94.6234
6.72037, 63, -9.00754, -16.4756, 35.1737, -152.205, -80.1092, 95.0667
6.72732, 63, -8.92687, -16.2431, 35.0234, -152.269, -80.2897, 95.284
6.73532, 63, -8.76748, -15.7761, 34.7246, -152.392, -80.6514, 95.7097
6.74541, 64, -8.5331, -15.0716, 34.2794, -152.566, -81.1985, 96.3296
6.75132, 64, -8.45619, -14.836, 34.1318, -152.621, -81.3825, 96.5309
6.75933, 64, -8.30414, -14.3635, 33.8359, -152.729, -81.7539, 96.9268
6.76872, 64, -8.0801, -13.6539, 33.3919, -152.882, -82.3212, 97.505
6.77533, 64, -8.00655, -13.4173, 33.2435, -152.93, -82.5129, 97.6929
6.78473, 65, -7.78945, -12.7073, 32.8, -153.069, -83.0942, 98.2411
6.79152, 65, -7.71839, -12.4712, 32.6528, -153.112, -83.2892, 98.418
6.79956, 65, -7.57849, -11.9992, 32.3608, -153.195, -83.6801, 98.7617
6.80735, 65, -7.44166, -11.5278, 32.0727, -153.271, -84.0708, 99.091
6.81554, 65, -7.30786, -11.057, 31.7885, -153.342, -84.4604, 99.4056
6.82649, 66, -7.1126, -10.3544, 31.3715, -153.435, -85.0415, 99.8487
6.83129, 66, -7.04867, -10.1217, 31.2343, -153.464, -85.2343, 99.9885
6.84109, 66, -6.86024, -9.4312, 30.83, -153.54, -85.8111, 100.384
6.84731, 66, -6.79852, -9.20405, 30.6973, -153.563, -86.0025, 100.508
6.85633, 66, -6.67674, -8.75533, 30.4348, -153.604, -86.3837, 100.743
6.86603, 67, -6.49844, -8.09486, 30.0511, -153.655, -86.9496, 101.064
6.87155, 67, -6.44042, -7.87822, 29.926, -153.669, -87.1361, 101.162
6.87931, 67, -6.32672, -7.45002, 29.6812, -153.692, -87.5053, 101.344
6.88731, 67, -6.21587, -7.02826, 29.4441, -153.71, -87.8684, 101.51
6.89556, 67, -6.10763, -6.6128, 29.2138, -153.722, -88.2255, 101.657
6.90377, 67, -6.00193, -6.20403, 28.9901, -153.729, -88.5771, 101.787
6.91131, 68, -5.89836, -5.80207, 28.7727, -153.731, -88.924, 101.899
6.91932, 68, -5.79661, -5.40598, 28.5598, -153.73, -89.2674, 101.994
6.92738, 68, -5.6965, -5.01564, 28.3506, -153.723, -89.6086, 102.072
6.93533, 68, -5.59804, -4.63033, 28.145, -153.712, -89.9487, 102.132
6.94348, 68, -5.50115, -4.24989, 27.942, -153.697, -90.2879, 102.174
6.95156, 69, -5.40596, -3.87296, 27.742, -153.677, -90.6265, 102.198
6.95933, 69, -5.31251, -3.49959, 27.5462, -153.653, -90.9651, 102.205
6.96845, 69, -5.2207, -3.12943, 27.3539, -153.625, -91.303, 102.191
6.97633, 69, -5.13082, -2.76325, 27.1646, -153.592, -91.6405, 102.156
6.98432, 69, -5.04253, -2.3998, 26.9792, -153.555, -91.9769, 102.1
6.99133, 70, -4.9556, -2.03991, 26.7979, -153.515, -92.3121, 102.022
7.00123, 70, -4.86991, -1.68426, 26.6199, -153.47, -92.6458, 101.922
7.00832, 70, -4.78537, -1.33401, 26.4454, -153.423, -92.978, 101.799
7.01533, 70, -4.70189, -0.98882, 26.2756, -153.372, -93.308, 101.654
7.0235, 70, -4.61951, -0.649262, 26.11, -153.318, -93.6355, 101.487
7.03139, 71, -4.53812, -0.31616, 25.9479, -153.261, -93.9599, 101.299
7.03948, 71, -4.45791, 0.0103179, 25.7906, -153.202, -94.2812, 101.09
7.04743, 71, -4.37865, 0.329884, 25.639, -153.139, -94.5986, 100.86
7.05573, 71, -4.30016, 0.643526, 25.4924, -153.075, -94.912, 100.61
7.06341, 71, -4.2225, 0.95035, 25.3506, -153.008, -95.2216, 100.34
7.07165, 72, -4.14573, 1.2504, 25.2134, -152.94, -95.5274, 100.05
7.08044, 72, -4.06917, 1.54369, 25.0803, -152.87, -95.8299, 99.7403
7.08741, 72, -3.99294, 1.83026, 24.9508, -152.799, -96.1294, 99.41
7.09587, 72, -3.91691, 2.11099, 24.8247, -152.726, -96.4264, 99.0591
7.10432, 72, -3.84093, 2.38527, 24.7016, -152.654, -96.7208, 98.6871
7.1114, 73, -3.76506, 2.65357, 24.5816, -152.58, -97.013, 98.2931
7.12045, 73, -3.68916, 2.91621, 24.4647, -152.507, -97.3027, 97.8769
7.12777, 73, -3.6129, 3.17235, 24.3512, -152.433, -97.5901, 97.438
7.13628, 73, -3.53634, 3.42219, 24.2413, -152.36, -97.8745, 96.977
7.14476, 73, -3.45942, 3.66567, 24.1353, -152.287, -98.1556, 96.495
7.15288, 74, -3.38204, 3.90142, 24.0334, -152.216, -98.4331, 95.9921
7.16056, 74, -3.30391, 4.12892, 23.9353, -152.145, -98.7059, 95.4712
7.16772, 74, -3.22522, 4.34819, 23.8411, -152.077, -98.9733, 94.9337
7.1766, 74, -3.14582, 4.55823, 23.7512, -152.01, -99.2347, 94.3829
7.18382, 74, -3.06585, 4.75843, 23.6656, -151.945, -99.4892, 93.8198
7.19238, 75, -2.98505, 4.94903, 23.5843, -151.883, -99.736, 93.2464
7.20237, 75, -2.90333, 5.1298, 23.5074, -151.824, -99.9741, 92.6644
7.20842, 75, -2.8206, 5.29972, 23.4346, -151.768, -100.203, 92.0756
7.21676, 75, -2.77888, 5.38057, 23.3657, -151.714, -100.423, 91.4797
7.22459, 75, -2.65242, 5.60701, 23.3009, -151.664, -100.634, 90.8775
7.23271, 75, -2.56696, 5.74419, 23.2402, -151.617, -100.835, 90.2685
7.2393, 76, -2.52388, 5.80849, 23.2114, -151.595, -100.932, 89.9615
7.24732, 76, -2.43686, 5.92851, 23.1571, -151.553, -101.119, 89.3407
7.25536, 76, -2.34899, 6.03674, 23.1072, -151.516, -101.297, 88.7108
7.2633, 76, -2.26046, 6.13268, 23.0615, -151.483, -101.465, 88.0728
7.27149, 76, -2.17102, 6.21616, 23.0205, -151.452, -101.624, 87.4282
7.27952, 77, -2.08077, 6.28669, 22.9844, -151.426, -101.771, 86.778
7.28731, 77, -1.98968, 6.3442, 22.9536, -151.405, -101.906, 86.126
7.29708, 77, -1.85127, 6.405, 22.918, -151.38, -102.082, 85.1512
7.30358, 77, -1.80468, 6.41823, 22.909, -151.374, -102.134, 84.8274
7.31141, 77, -1.71088, 6.43414, 22.8953, -151.364, -102.226, 84.1827
7.3211, 78, -1.56869, 6.43077, 22.8857, -151.356, -102.336, 83.2249
7.32748, 78, -1.52095, 6.42205, 22.8852, -151.354, -102.365, 82.9073
7.33689, 78, -1.42502, 6.37294, 22.8924, -151.355, -102.428, 81.9602
7.34686, 78, -1.2805, 6.32042, 22.9046, -151.359, -102.45, 81.3347
7.35146, 78, -1.23219, 6.28809, 22.9131, -151.363, -102.456, 81.0241
7.35931, 79, -1.13541, 6.2114, 22.9352, -151.373, -102.455, 80.4068
7.36738, 79, -1.0385, 6.11853, 22.9642, -151.386, -102.436, 79.7962
7.3753, 79, -0.941429, 6.00953, 23.0006, -151.402, -102.399, 79.1939
7.38337, 79, -0.844467, 5.88436, 23.0444, -151.421, -102.345, 78.6013
7.39131, 79, -0.747514, 5.74259, 23.0958, -151.442, -102.273, 78.0181
7.39951, 80, -0.650468, 5.58433, 23.1548, -151.467, -102.183, 77.445
7.40737, 80, -0.55342, 5.40954, 23.2212, -151.493, -102.075, 76.8827
7.4153, 80, -0.456274, 5.21825, 23.2956, -151.521, -101.948, 76.331
7.42402, 80, -0.359278, 5.01026, 23.378, -151.55, -101.802, 75.7888
7.43695, 80, -0.214073, 4.66459, 23.5172, -151.597, -101.549, 74.9932
7.43926, 80, -0.165738, 4.54034, 23.5679, -151.614, -101.455, 74.733
7.45011, 81, -0.0209034, 4.14261, 23.7333, -151.665, -101.144, 73.9663
7.45545, 81, 0.0272039, 4.00154, 23.7929, -151.682, -101.03, 73.7151
7.46339, 81, 0.123385, 3.70677, 23.9195, -151.717, -100.789, 73.2198
7.4713, 81, 0.219369, 3.39524, 24.0557, -151.755, -100.529, 72.7341
7.48051, 82, 0.315051, 3.0661, 24.2018, -151.792, -100.249, 72.2582
7.48831, 82, 0.410604, 2.72035, 24.3577, -151.829, -99.9508, 71.7916
7.49532, 82, 0.505832, 2.35801, 24.5227, -151.866, -99.6329, 71.3346
7.5033, 82, 0.600866, 1.98016, 24.6973, -151.904, -99.2967, 70.8872
7.5113, 82, 0.695692, 1.58573, 24.8815, -151.941, -98.9428, 70.4495
7.51936, 82, 0.790414, 1.17488, 25.0749, -151.977, -98.5714, 70.0225
7.52758, 83, 0.885131, 0.748907, 25.2774, -152.013, -98.1837, 69.6056
7.53629, 83, 0.979806, 0.308502, 25.4903, -152.048, -97.7798, 69.199
7.5434, 83, 1.07464, -0.146441, 25.7131, -152.081, -97.3605, 68.8031
7.55515, 83, 1.21689, -0.855919, 26.0631, -152.129, -96.7028, 68.2275
7.55962, 83, 1.26437, -1.09954, 26.1848, -152.144, -96.476, 68.0406
7.5685, 84, 1.35958, -1.59706, 26.4354, -152.173, -96.0107, 67.6737
7.5754, 84, 1.45493, -2.1081, 26.696, -152.202, -95.5307, 67.3146
7.58349, 84, 1.55054, -2.63239, 26.9673, -152.228, -95.035, 66.9631
7.59146, 84, 1.64654, -3.17023, 27.2483, -152.253, -94.5236, 66.6188
7.5993, 84, 1.74291, -3.72137, 27.5402, -152.276, -93.9977, 66.2811
7.60757, 85, 1.83975, -4.28577, 27.8422, -152.298, -93.4564, 65.9506
7.61629, 85, 1.93673, -4.86229, 28.1543, -152.318, -92.9, 65.628
7.62343, 85, 2.03415, -5.44925, 28.4759, -152.336, -92.3299, 65.3133
7.63404, 85, 2.13186, -6.04606, 28.8068, -152.351, -91.7493, 65.0063
7.63983, 85, 2.23014, -6.65138, 29.1465, -152.364, -91.1578, 64.7083
7.64792, 86, 2.32912, -7.26447, 29.4947, -152.374, -90.5565, 64.4201
7.65575, 86, 2.42886, -7.88424, 29.8499, -152.381, -89.946, 64.1417
7.66408, 86, 2.52968, -8.50991, 30.2121, -152.385, -89.3266, 63.874
7.67262, 86, 2.63133, -9.14169, 30.5799, -152.387, -88.7008, 63.6174
7.6798, 86, 2.7338, -9.77826, 30.9533, -152.386, -88.0714, 63.3724
7.6884, 86, 2.83759, -10.4189, 31.3319, -152.382, -87.4368, 63.1392
7.69675, 87, 2.94199, -11.0624, 31.7157, -152.374, -86.7966, 62.9178
7.70389, 87, 3.04728, -11.7083, 32.104, -152.362, -86.1515, 62.7087
7.71292, 87, 3.15363, -12.3563, 32.4964, -152.346, -85.5017, 62.5122
7.72037, 87, 3.26046, -13.0059, 32.8938, -152.326, -84.8493, 62.3288
7.72796, 87, 3.31419, -13.3314, 33.0941, -152.315, -84.5218, 62.1582
7.73715, 88, 3.47644, -14.3109, 33.7015, -152.276, -83.5324, 62.0014
7.74327, 88, 3.53087, -14.6385, 33.906, -152.261, -83.2007, 61.9279
7.75322, 88, 3.69536, -15.6236, 34.5262, -152.209, -82.1994, 61.7287
7.76075, 88, 3.80574, -16.2818, 34.9452, -152.169, -81.528, 61.6145
7.76946, 88, 3.9165, -16.9404, 35.3684, -152.124, -80.854, 61.5155
7.77526, 89, 3.97199, -17.2695, 35.5816, -152.1, -80.5156, 61.4725
7.79163, 89, 4.19412, -18.5816, 36.4421, -151.989, -79.1531, 61.3433
7.79503, 89, 4.24964, -18.908, 36.659, -151.958, -78.8097, 61.3224
7.80123, 89, 4.36064, -19.5583, 37.0935, -151.892, -78.1233, 61.2951
7.80729, 89, 4.41606, -19.8814, 37.3108, -151.856, -77.7813, 61.2886
7.81763, 90, 4.58271, -20.8434, 37.9611, -151.743, -76.7582, 61.3014
7.82329, 90, 4.63862, -21.1617, 38.1774, -151.702, -76.4183, 61.3179
7.83381, 90, 4.80665, -22.109, 38.8226, -151.572, -75.4062, 61.403
7.84319, 90, 4.91898, -22.7343, 39.2493, -151.478, -74.7395, 61.4911
7.84742, 90, 4.97514, -23.045, 39.462, -151.429, -74.4086, 61.5452
7.85627, 91, 5.08749, -23.6631, 39.8857, -151.326, -73.7493, 61.673
7.86339, 91, 5.19962, -24.2755, 40.3082, -151.217, -73.0911, 61.8287
7.87235, 91, 5.31109, -24.8814, 40.7304, -151.102, -72.4333, 62.0129
7.87928, 91, 5.42159, -25.4808, 41.152, -150.98, -71.7744, 62.2265
7.88735, 91, 5.53129, -26.073, 41.5731, -150.851, -71.1148, 62.4702
7.89525, 92, 5.6404, -26.6582, 41.9933, -150.716, -70.4565, 62.7453
7.90336, 92, 5.74957, -27.2359, 42.4117, -150.574, -69.7995, 63.0519
7.91128, 92, 5.85935, -27.8057, 42.8267, -150.427, -69.1449, 63.3895
7.91929, 92, 5.9697, -28.3672, 43.2365, -150.276, -68.4934, 63.7585
7.92735, 92, 6.08094, -28.9189, 43.6409, -150.12, -67.8461, 64.1591
7.93549, 93, 6.19351, -29.46, 44.0389, -149.961, -67.2058, 64.5907
7.94998, 93, 6.42378, -30.5104, 44.8151, -149.636, -65.94, 65.5501
7.95231, 93, 6.42378, -30.5104, 44.8151, -149.636, -65.94, 65.5501
7.96029, 93, 6.54213, -31.0216, 45.1946, -149.472, -65.3122, 66.0785
7.96833, 93, 6.66262, -31.5264, 45.5693, -149.307, -64.6859, 66.6425
7.97633, 93, 6.78534, -32.0252, 45.9397, -149.141, -64.0604, 67.2462
7.98436, 94, 6.91038, -32.5193, 46.3074, -148.975, -63.4316, 67.894
7.99229, 94, 7.03768, -33.0086, 46.6731, -148.808, -62.7964, 68.5916
8.00031, 94, 7.16686, -33.4905, 47.037, -148.641, -62.1552, 69.3427
8.00728, 94, 7.29863, -33.9651, 47.3985, -148.477, -61.5074, 70.1457
8.01529, 94, 7.43399, -34.4321, 47.7551, -148.316, -60.8548, 71.0019
8.02406, 95, 7.57379, -34.8895, 48.1044, -148.164, -60.2035, 71.9101
8.03236, 95, 7.71919, -35.3366, 48.4439, -148.022, -59.556, 72.8601
8.03929, 95, 7.87076, -35.7715, 48.7717, -147.893, -58.915, 73.8515
8.04918, 95, 8.02896, -36.1909, 49.0856, -147.78, -58.2821, 74.8778
8.05537, 95, 8.19408, -36.5908, 49.384, -147.684, -57.6581, 75.9385
8.06343, 96, 8.36609, -36.9705, 49.6662, -147.607, -57.0474, 77.0302
8.07138, 96, 8.54451, -37.3278, 49.9311, -147.55, -56.4509, 78.1515
8.07955, 96, 8.72828, -37.6611, 50.1793, -147.514, -55.8686, 79.2976
8.08745, 96, 8.91712, -37.9688, 50.4091, -147.498, -55.3028, 80.4642
8.09535, 96, 9.11009, -38.2514, 50.6194, -147.503, -54.7558, 81.643
8.10349, 96, 9.30543, -38.5089, 50.8104, -147.529, -54.2303, 82.8333
8.11209, 97, 9.50167, -38.7406, 50.9814, -147.578, -53.7289, 84.0301
8.11944, 97, 9.69764, -38.9474, 51.1316, -147.646, -53.2531, 85.2271
8.12734, 97, 9.89248, -39.1299, 51.262, -147.734, -52.8055, 86.4132
8.13604, 97, 10.0854, -39.2867, 51.3728, -147.837, -52.3871, 87.5835
8.14553, 97, 10.2752, -39.418, 51.4641, -147.954, -51.9993, 88.7294
8.15238, 97, 10.461, -39.5241, 51.5369, -148.083, -51.6422, 89.8451
8.16037, 98, 10.6438, -39.6053, 51.5915, -148.222, -51.3157, 90.9253
8.16808, 98, 10.8246, -39.6632, 51.6285, -148.37, -51.0186, 91.9769
8.1764, 98, 11.0039, -39.6984, 51.6479, -148.529, -50.7475, 93.0095
8.1846, 98, 11.1813, -39.7101, 51.6506, -148.699, -50.4989, 94.0395
8.19185, 98, 11.3567, -39.6986, 51.6364, -148.882, -50.2699, 95.0777
8.2007, 98, 11.532, -39.6634, 51.6046, -149.079, -50.0596, 96.1358
8.20782, 98, 11.7075, -39.6044, 51.5552, -149.29, -49.8687, 97.2147
8.2164, 99, 11.8821, -39.5227, 51.4876, -149.512, -49.6998, 98.3142
8.2238, 99, 11.9687, -39.4733, 51.4469, -149.628, -49.6242, 98.8684
8.2323, 99, 12.2236, -39.2913, 51.297, -149.985, -49.4391, 100.535
8.23932, 99, 12.3067, -39.2195, 51.2381, -150.107, -49.3924, 101.086
8.24727, 99, 12.4685, -39.0592, 51.1073, -150.351, -49.3221, 102.176
8.2564, 99, 12.697, -38.7765, 50.8813, -150.714, -49.2746, 103.762
8.26329, 100, 12.7688, -38.6701, 50.7982, -150.833, -49.2744, 104.275
8.27127, 100, 12.9059, -38.4394, 50.6192, -151.068, -49.2984, 105.281
8.28057, 100, 13.0947, -38.0509, 50.3188, -151.41, -49.393, 106.737
8.28726, 100, 13.1535, -37.9105, 50.2105, -151.52, -49.4403, 107.211
8.29673, 100, 13.3175, -37.4577, 49.8582, -151.844, -49.6285, 108.597
8.30483, 100, 13.4167, -37.1263, 49.6013, -152.05, -49.7921, 109.495
8.31131, 101, 13.4633, -36.9515, 49.4667, -152.151, -49.8852, 109.935
8.32085, 101, 13.5909, -36.3873, 49.0365, -152.439, -50.209, 111.22
8.32887, 101, 13.6661, -35.9783, 48.7279, -152.62, -50.4625, 112.049
8.33686, 101, 13.7329, -35.5447, 48.4006, -152.791, -50.7472, 112.855
8.35089, 101, 13.8179, -34.8496, 47.875, -153.028, -51.2355, 114.029
8.3528, 101, 13.8179, -34.8496, 47.875, -153.028, -51.2355, 114.029
8.35938, 102, 13.8636, -34.3565, 47.502, -153.173, -51.6035, 114.783
8.3673, 102, 13.9, -33.8394, 47.111, -153.305, -52.005, 115.515
8.37629, 102, 13.9273, -33.298, 46.703, -153.424, -52.4401, 116.225
8.38336, 102, 13.9456, -32.7335, 46.2798, -153.529, -52.908, 116.907
8.39128, 102, 13.9555, -32.1467, 45.8424, -153.621, -53.4059, 117.564
8.39927, 103, 13.9576, -31.538, 45.3912, -153.697, -53.9311, 118.195
8.40734, 103, 13.9523, -30.91, 44.9274, -153.761, -54.4812, 118.796
8.41527, 103, 13.9403, -30.2651, 44.4527, -153.811, -55.0539, 119.371
8.42334, 103, 13.9222, -29.6054, 43.9684, -153.847, -55.6457, 119.92
8.43135, 103, 13.8983, -28.9319, 43.4766, -153.871, -56.2552, 120.442
8.43927, 103, 13.8695, -28.2465, 42.9787, -153.883, -56.8799, 120.937
8.44727, 104, 13.8364, -27.5515, 42.4763, -153.886, -57.5166, 121.405
8.45534, 104, 13.7991, -26.8484, 41.9707, -153.878, -58.1662, 121.851
8.46327, 104, 13.7582, -26.1384, 41.4625, -153.859, -58.8294, 122.274
8.4713, 104, 13.7144, -25.4234, 40.953, -153.833, -59.5038, 122.678
8.47934, 104, 13.6686, -24.7057, 40.4429, -153.799, -60.1876, 123.066
8.48729, 104, 13.6211, -23.9857, 39.9324, -153.757, -60.8778, 123.44
8.49527, 104, 13.5719, -23.264, 39.4227, -153.709, -61.5734, 123.804
8.50336, 104, 13.5215, -22.5414, 38.9141, -153.657, -62.2736, 124.162
8.51128, 104, 13.4704, -21.8182, 38.4069, -153.598, -62.976, 124.515
8.51933, 104, 13.4187, -21.0948, 37.9011, -153.537, -63.6801, 124.866
8.52727, 104, 13.3666, -20.372, 37.3966, -153.47, -64.3843, 125.215
8.5353, 104, 13.3142, -19.6489, 36.894, -153.399, -65.0896, 125.562
8.54365, 104, 13.2618, -18.9254, 36.3934, -153.324, -65.7966, 125.908
8.55133, 104, 13.2093, -18.2018, 35.8945, -153.246, -66.5042, 126.254
8.55935, 104, 13.157, -17.4781, 35.3983, -153.163, -67.2129, 126.599
8.56771, 104, 13.1051, -16.7536, 34.9043, -153.077, -67.9211, 126.943
8.57537, 104, 13.0535, -16.0293, 34.4121, -152.986, -68.6292, 127.287
8.58337, 104, 13.0023, -15.3048, 33.9222, -152.892, -69.3397, 127.631
8.59144, 104, 12.9513, -14.5799, 33.4346, -152.794, -70.0511, 127.974
8.59988, 104, 12.9006, -13.8545, 32.9495, -152.692, -70.7624, 128.318
8.60829, 104, 12.8503, -13.1289, 32.4671, -152.586, -71.4725, 128.662
8.61548, 104, 12.8003, -12.4032, 31.9872, -152.476, -72.1841, 129.006
8.62415, 104, 12.7505, -11.678, 31.5102, -152.363, -72.8973, 129.35
8.63132, 104, 12.7013, -10.9529, 31.0353, -152.245, -73.6105, 129.696
8.63957, 104, 12.6525, -10.2277, 30.5633, -152.123, -74.3236, 130.041
8.64829, 104, 12.6038, -9.5023, 30.0946, -151.998, -75.0365, 130.388
8.65555, 104, 12.5557, -8.77662, 29.6287, -151.868, -75.7506, 130.735
8.66373, 104, 12.5081, -8.05029, 29.1658, -151.735, -76.4654, 131.084
8.6726, 104, 12.4609, -7.32449, 28.7063, -151.597, -77.1809, 131.433
8.67973, 104, 12.4144, -6.59917, 28.2502, -151.455, -77.8968, 131.784
8.6879, 104, 12.3686, -5.87425, 27.7972, -151.309, -78.6112, 132.136
8.69643, 104, 12.323, -5.14962, 27.3479, -151.159, -79.3259, 132.489
8.70387, 104, 12.2783, -4.42637, 26.9029, -151.005, -80.0415, 132.843
8.71239, 104, 12.2347, -3.70493, 26.4625, -150.846, -80.7573, 133.199
8.72086, 104, 12.2133, -3.34562, 26.027, -150.684, -81.4703, 133.555
8.72828, 104, 12.1507, -2.27617, 25.5971, -150.518, -82.1789, 133.912
8.73598, 104, 12.1305, -1.92286, 25.3844, -150.349, -82.8843, 134.268
8.7444, 104, 12.0714, -0.875114, 24.759, -150.177, -83.5837, 134.622
8.75126, 104, 12.0522, -0.530399, 24.5548, -150.09, -83.9301, 134.799
8.76039, 104, 11.9962, 0.487867, 23.9581, -149.827, -84.9515, 135.323
8.76727, 104, 11.978, 0.821663, 23.765, -149.739, -85.2851, 135.495
8.77649, 104, 11.9251, 1.80354, 23.2044, -149.475, -86.2646, 136.004
8.78331, 104, 11.9082, 2.12393, 23.024, -149.387, -86.5839, 136.17
8.79126, 104, 11.875, 2.75262, 22.6723, -149.211, -87.2104, 136.499
8.79926, 104, 11.8428, 3.36553, 22.3331, -149.036, -87.8208, 136.82
8.80881, 104, 11.7972, 4.25344, 21.8491, -148.777, -88.7048, 137.29
8.81689, 104, 11.7683, 4.82463, 21.5422, -148.605, -89.2721, 137.595
8.82484, 104, 11.7408, 5.37887, 21.2466, -148.435, -89.8234, 137.892
8.83285, 104, 11.7144, 5.91549, 20.9632, -148.267, -90.359, 138.183
8.83927, 104, 11.7016, 6.1775, 20.8261, -148.184, -90.6206, 138.326
8.84886, 104, 11.677, 6.68926, 20.5601, -147.937, -91.3811, 138.743
8.85532, 104, 11.6535, 7.18411, 20.3059, -147.857, -91.6261, 138.878
8.86431, 104, 11.6312, 7.66188, 20.0631, -147.697, -92.1028, 139.143
8.87129, 104, 11.61, 8.12325, 19.8308, -147.54, -92.563, 139.4
8.87932, 104, 11.59, 8.56773, 19.6098, -147.387, -93.0068, 139.649
8.88727, 104, 11.5711, 8.99481, 19.3997, -147.237, -93.4339, 139.891
8.89525, 104, 11.5533, 9.40484, 19.1995, -147.091, -93.8441, 140.124
8.90333, 104, 11.5366, 9.79716, 19.0098, -146.95, -94.2372, 140.348
8.91125, 104, 11.521, 10.1714, 18.8311, -146.812, -94.6125, 140.564
8.91932, 104, 11.5065, 10.5265, 18.6627, -146.68, -94.9697, 140.77
8.92732, 104, 11.493, 10.8625, 18.5045, -146.553, -95.3079, 140.966
8.93525, 104, 11.4804, 11.1789, 18.3575, -146.432, -95.6261, 141.152
8.94326, 104, 11.4689, 11.4747, 18.221, -146.318, -95.924, 141.326
8.95132, 104, 11.4586, 11.75, 18.095, -146.211, -96.2011, 141.489
8.95924, 104, 11.4492, 12.0038, 17.9797, -146.111, -96.4566, 141.639
8.96725, 104, 11.4405, 12.2363, 17.875, -146.019, -96.6904, 141.778
8.97534, 104, 11.4325, 12.448, 17.7808, -145.935, -96.9022, 141.904
8.98326, 104, 11.4253, 12.6387, 17.6969, -145.859, -97.092, 142.017
8.99127, 104, 11.4189, 12.808, 17.6232, -145.791, -97.2596, 142.117
8.99932, 104, 11.4132, 12.9568, 17.5595, -145.733, -97.4054, 142.204
9.00727, 104, 11.408, 13.0862, 17.5053, -145.682, -97.5293, 142.278
9.01525, 104, 11.4032, 13.1969, 17.4604, -145.641, -97.6329, 142.34
9.02334, 104, 11.3989, 13.2894, 17.4239, -145.607, -97.7164, 142.39
9.03126, 104, 11.395, 13.3657, 17.395, -145.58, -97.7822, 142.43
9.03928, 104, 11.3913, 13.4277, 17.3734, -145.559, -97.8313, 142.46
9.04734, 104, 11.3881, 13.4771, 17.3576, -145.544, -97.8671, 142.481
9.05532, 104, 11.3854, 13.5152, 17.3466, -145.533, -97.8922, 142.496
9.06335, 104, 11.3833, 13.5435, 17.3395, -145.526, -97.9088, 142.505
9.07141, 104, 11.3815, 13.5645, 17.335, -145.522, -97.919, 142.511
9.07935, 104, 11.3802, 13.5794, 17.3325, -145.52, -97.9245, 142.514
9.08736, 104, 11.3792, 13.5895, 17.3311, -145.519, -97.9274, 142.515
9.09538, 105, 11.3784, 13.5964, 17.3304, -145.518, -97.9288, 142.516
9.10332, 105, 11.3779, 13.6008, 17.33, -145.518, -97.9295, 142.516
9.11126, 105, 11.3775, 13.6038, 17.3299, -145.518, -97.9297, 142.516
9.11935, 105, 11.3772, 13.6061, 17.3298, -145.518, -97.9298, 142.517
9.12729, 105, 11.377, 13.608, 17.3298, -145.518, -97.9299, 142.517
9.13546, 105, 11.3769, 13.6097, 17.3298, -145.518, -97.9299, 142.517
9.14347, 105, 11.3768, 13.6112, 17.3298, -145.518, -97.9299, 142.517
9.15144, 105, 11.3766, 13.6125, 17.3298, -145.518, -97.9298, 142.517
9.15985, 105, 11.3765, 13.6135, 17.3298, -145.518, -97.9297, 142.517
9.16826, 105, 11.3765, 13.6145, 17.3298, -145.518, -97.9296, 142.517
9.17565, 105, 11.3765, 13.6152, 17.3298, -145.518, -97.9295, 142.517
9.18417, 105, 11.3764, 13.6157, 17.3298, -145.518, -97.9294, 142.517
9.19185, 105, 11.3764, 13.6161, 17.3299, -145.518, -97.9292, 142.517
9.20042, 105, 11.3764, 13.6164, 17.3299, -145.518, -97.9291, 142.517
9.20783, 105, 11.3764, 13.6165, 17.3299, -145.518, -97.9289, 142.517
9.21663, 105, 11.3764, 13.6165, 17.33, -145.518, -97.9288, 142.517
