hehonglu123/Motion-Primitive-Planning/ILC/recorded_data/realrobot/wood/iteration_33/run_3.csv
timestamp, cmd_num, J1, J2, J3, J4, J5, J6
0.000366, -1, 11.3762, 13.6175, 17.3313, -145.52, -97.9267, 142.517
0.002234, -1, 11.3762, 13.6175, 17.3313, -145.52, -97.9267, 142.517
0.007854, -1, 11.3762, 13.6175, 17.3313, -145.52, -97.9267, 142.517
0.030022, -1, 11.3762, 13.6175, 17.3313, -145.52, -97.9268, 142.517
0.032159, -1, 11.3762, 13.6175, 17.3314, -145.52, -97.9267, 142.517
0.03341, -1, 11.3762, 13.6175, 17.3314, -145.52, -97.9267, 142.517
0.039744, -1, 11.3762, 13.6175, 17.3313, -145.52, -97.9268, 142.517
0.048328, -1, 11.376, 13.6175, 17.3313, -145.52, -97.9268, 142.517
0.055836, -1, 11.3746, 13.6174, 17.3313, -145.52, -97.9267, 142.517
0.064521, -1, 11.3702, 13.617, 17.3312, -145.52, -97.9267, 142.517
0.071887, -1, 11.3614, 13.6158, 17.3309, -145.52, -97.9267, 142.516
0.080437, -1, 11.3474, 13.6134, 17.3302, -145.521, -97.9266, 142.513
0.088618, -1, 11.3376, 13.6115, 17.3299, -145.522, -97.9265, 142.508
0.095914, -1, 11.3107, 13.6056, 17.3291, -145.526, -97.9257, 142.47
0.10427, -1, 11.2486, 13.5908, 17.3285, -145.538, -97.9224, 142.419
0.111272, -1, 11.2221, 13.5842, 17.3287, -145.544, -97.9204, 142.383
0.120463, -1, 11.1252, 13.5599, 17.332, -145.572, -97.9114, 142.226
0.127233, -1, 11.087, 13.5499, 17.3343, -145.585, -97.9071, 142.156
0.135353, -1, 11.0017, 13.5269, 17.3408, -145.614, -97.8968, 141.991
0.143236, -1, 10.9048, 13.5006, 17.3493, -145.647, -97.8847, 141.793
0.152668, -1, 10.7393, 13.4548, 17.3653, -145.707, -97.8636, 141.446
0.160709, -1, 10.6154, 13.4206, 17.3767, -145.751, -97.8484, 141.192
0.167218, -1, 10.5496, 13.4024, 17.3822, -145.773, -97.8406, 141.06
0.17682, -1, 10.3398, 13.3448, 17.3981, -145.843, -97.8166, 140.654
0.18485, -1, 10.1924, 13.3046, 17.4081, -145.89, -97.8003, 140.378
0.191221, -1, 10.1172, 13.2843, 17.4131, -145.914, -97.792, 140.239
0.201061, -1, 9.96472, 13.2432, 17.4282, -145.985, -97.7665, 139.821
0.207289, -1, 9.81, 13.2018, 17.4333, -146.009, -97.7578, 139.682
0.216803, -1, 9.65444, 13.1603, 17.4434, -146.057, -97.7406, 139.402
0.224228, -1, 9.49923, 13.119, 17.4534, -146.105, -97.7235, 139.122
0.231286, -1, 9.3445, 13.0778, 17.4633, -146.153, -97.7067, 138.843
0.239246, -1, 9.19011, 13.0366, 17.4733, -146.201, -97.6899, 138.563
0.24754, -1, 9.03618, 12.9955, 17.4834, -146.249, -97.6732, 138.283
0.256277, -1, 8.88242, 12.9544, 17.4935, -146.297, -97.6563, 138.003
0.264218, -1, 8.72882, 12.9134, 17.5038, -146.345, -97.6392, 137.723
0.272235, -1, 8.57583, 12.8722, 17.5139, -146.393, -97.6218, 137.443
0.280282, -1, 8.42311, 12.831, 17.524, -146.441, -97.6043, 137.163
0.288218, -1, 8.27018, 12.7896, 17.5342, -146.489, -97.5869, 136.883
0.296223, -1, 8.11674, 12.748, 17.5444, -146.537, -97.5699, 136.603
0.304289, -1, 7.96279, 12.7063, 17.5546, -146.585, -97.5532, 136.322
0.312252, -1, 7.80822, 12.6646, 17.5648, -146.633, -97.5365, 136.042
0.32025, -1, 7.65331, 12.6229, 17.5749, -146.68, -97.5199, 135.762
0.328285, -1, 7.49835, 12.5812, 17.5851, -146.729, -97.503, 135.481
0.335285, -1, 7.34328, 12.5397, 17.5953, -146.777, -97.4859, 135.201
0.344044, -1, 7.18836, 12.4981, 17.6055, -146.824, -97.4685, 134.92
0.480719, -1, 4.55302, 11.7924, 17.7816, -147.643, -97.1782, 130.148
0.481993, -1, 4.55302, 11.7924, 17.7816, -147.643, -97.1782, 130.148
0.483946, -1, 4.4752, 11.7717, 17.7869, -147.667, -97.1694, 130.008
0.485238, -1, 4.4752, 11.7717, 17.7869, -147.667, -97.1694, 130.008
0.487062, -1, 4.4752, 11.7717, 17.7869, -147.667, -97.1607, 129.867
0.489285, -1, 4.39739, 11.7509, 17.7921, -147.691, -97.1607, 129.867
0.491232, -1, 4.39739, 11.7509, 17.7921, -147.715, -97.1521, 129.727
0.494322, -1, 4.31963, 11.7301, 17.7973, -147.715, -97.1521, 129.727
0.496373, -1, 4.24193, 11.7094, 17.8025, -147.74, -97.1435, 129.586
0.497665, -1, 4.24193, 11.7094, 17.8025, -147.74, -97.1435, 129.586
0.500413, -1, 4.16432, 11.6886, 17.8077, -147.764, -97.1349, 129.446
0.501665, -1, 4.16432, 11.6886, 17.8077, -147.764, -97.1349, 129.446
0.503925, -1, 4.08682, 11.6679, 17.813, -147.788, -97.1265, 129.305
0.505152, -1, 4.08682, 11.6679, 17.813, -147.788, -97.1265, 129.305
0.506419, -1, 4.08682, 11.6679, 17.813, -147.788, -97.1265, 129.305
0.511562, -1, 3.93222, 11.6264, 17.8233, -147.836, -97.1096, 129.024
0.513805, -1, 3.93222, 11.6264, 17.8233, -147.836, -97.1096, 129.024
0.515932, -1, 3.85502, 11.6057, 17.8284, -147.86, -97.1012, 128.883
0.517176, -1, 3.85502, 11.6057, 17.8284, -147.86, -97.1012, 128.883
0.518451, -1, 3.85502, 11.6057, 17.8284, -147.86, -97.1012, 128.883
0.520488, -1, 3.77788, 11.5849, 17.8336, -147.884, -97.0928, 128.743
0.521806, -1, 3.77788, 11.5849, 17.8336, -147.884, -97.0928, 128.743
0.531639, -1, 3.54623, 11.5225, 17.8491, -147.957, -97.0673, 128.32
0.535741, -1, 3.46893, 11.5017, 17.8542, -147.981, -97.0587, 128.179
0.543698, -1, 3.31415, 11.46, 17.8647, -148.029, -97.0412, 127.898
0.551866, -1, 3.15906, 11.4183, 17.8752, -148.077, -97.0237, 127.617
0.561133, -1, 3.00385, 11.3764, 17.8856, -148.125, -97.0063, 127.335
0.567805, -1, 2.84855, 11.3347, 17.896, -148.174, -96.9892, 127.053
0.576098, -1, 2.69277, 11.2929, 17.9063, -148.222, -96.9722, 126.772
0.583807, -1, 2.61481, 11.272, 17.9115, -148.27, -96.9555, 126.49
0.592219, -1, 2.38055, 11.2094, 17.9272, -148.319, -96.9387, 126.208
0.599262, -1, 2.30233, 11.1885, 17.9324, -148.343, -96.9302, 126.067
0.608322, -1, 2.06726, 11.1258, 17.948, -148.415, -96.9045, 125.645
0.615273, -1, 1.98885, 11.1049, 17.9532, -148.44, -96.8958, 125.504
0.623251, -1, 1.83231, 11.0632, 17.9636, -148.488, -96.8783, 125.222
0.631219, -1, 1.67592, 11.0215, 17.974, -148.536, -96.8608, 124.94
0.640586, -1, 1.44165, 10.9588, 17.9898, -148.609, -96.8353, 124.517
0.780306, -1, -1.21108, 10.2475, 18.1671, -149.433, -96.544, 119.712
0.782378, -1, -1.28958, 10.2266, 18.1723, -149.458, -96.5356, 119.57
0.783608, -1, -1.28958, 10.2266, 18.1723, -149.458, -96.5356, 119.57
0.785463, -1, -1.28958, 10.2266, 18.1723, -149.458, -96.5356, 119.57
0.786834, -1, -1.36803, 10.2056, 18.1775, -149.482, -96.5271, 119.428
0.788145, -1, -1.36803, 10.2056, 18.1775, -149.482, -96.5271, 119.428
0.790149, -1, -1.44647, 10.1847, 18.1826, -149.506, -96.5188, 119.287
0.793839, -1, -1.52483, 10.1638, 18.1878, -149.53, -96.5104, 119.145
0.795389, -1, -1.52483, 10.1638, 18.1878, -149.53, -96.5104, 119.145
0.796581, -1, -1.52483, 10.1638, 18.1878, -149.53, -96.5104, 119.145
0.798568, -1, -1.60305, 10.1428, 18.1931, -149.555, -96.5019, 119.004
0.799778, -1, -1.60305, 10.1428, 18.1931, -149.555, -96.5019, 119.004
0.802446, -1, -1.68116, 10.1219, 18.1984, -149.579, -96.4934, 118.862
0.804586, -1, -1.68116, 10.1219, 18.1984, -149.579, -96.4934, 118.862
0.806709, -1, -1.75917, 10.1009, 18.2036, -149.604, -96.4849, 118.72
0.809548, -1, -1.75917, 10.1009, 18.2036, -149.604, -96.4849, 118.579
0.810979, -1, -1.83705, 10.08, 18.2089, -149.628, -96.4763, 118.579
0.812243, -1, -1.83705, 10.08, 18.2089, -149.628, -96.4763, 118.579
0.814285, -1, -1.91483, 10.059, 18.2141, -149.652, -96.4675, 118.437
0.815718, -1, -1.91483, 10.059, 18.2141, -149.652, -96.4675, 118.437
0.816933, -1, -1.91483, 10.059, 18.2141, -149.652, -96.4675, 118.437
0.819123, -1, -1.99255, 10.0381, 18.2193, -149.676, -96.4588, 118.295
0.826702, -1, -2.14776, 9.9961, 18.2298, -149.725, -96.4411, 118.012
0.831201, -1, -2.2253, 9.97515, 18.235, -149.75, -96.4323, 117.87
0.839266, -1, -2.3805, 9.93325, 18.2453, -149.798, -96.415, 117.586
0.847198, -1, -2.53603, 9.89124, 18.2559, -149.846, -96.398, 117.302
0.855263, -1, -2.69185, 9.8493, 18.2663, -149.895, -96.3811, 117.019
0.863269, -1, -2.84808, 9.80735, 18.2767, -149.944, -96.3644, 116.735
0.871226, -1, -3.00475, 9.76537, 18.2871, -149.992, -96.3474, 116.451
0.879202, -1, -3.16168, 9.72345, 18.2975, -150.041, -96.3303, 116.168
0.887278, -1, -3.31908, 9.68147, 18.3079, -150.089, -96.3128, 115.883
0.895267, -1, -3.47685, 9.63942, 18.3185, -150.138, -96.2951, 115.6
0.903207, -1, -3.63464, 9.5975, 18.3289, -150.187, -96.2777, 115.316
0.911317, -1, -3.79258, 9.55562, 18.3393, -150.235, -96.2605, 115.031
0.919319, -1, -3.9506, 9.51354, 18.3497, -150.284, -96.2434, 114.747
0.927375, -1, -4.10847, 9.47158, 18.3602, -150.333, -96.2264, 114.463
0.935383, -1, -4.26627, 9.42961, 18.3705, -150.382, -96.2094, 114.179
0.9433, -1, -4.4239, 9.38757, 18.3808, -150.43, -96.1923, 113.894
0.951385, -1, -4.58114, 9.34556, 18.3912, -150.48, -96.1747, 113.609
0.959265, -1, -4.73792, 9.30351, 18.4016, -150.528, -96.1569, 113.325
0.967206, -1, -4.89434, 9.26143, 18.4121, -150.577, -96.1393, 113.04
0.975474, -1, -5.0505, 9.21938, 18.4226, -150.626, -96.1219, 112.755
0.983248, -1, -5.20635, 9.17735, 18.4332, -150.675, -96.1048, 112.47
0.991243, -1, -5.36224, 9.13522, 18.4438, -150.723, -96.0879, 112.186
0.999438, -1, -5.51827, 9.09305, 18.4543, -150.773, -96.071, 111.901
1.00743, -1, -5.67457, 9.05098, 18.4647, -150.821, -96.0539, 111.616
1.01563, -1, -5.83134, 9.00881, 18.4752, -150.87, -96.0367, 111.331
1.02357, -1, -5.98856, 8.96663, 18.4856, -150.919, -96.0191, 111.047
1.03221, -1, -6.14623, 8.92452, 18.496, -150.968, -96.0014, 110.761
1.03975, -1, -6.30442, 8.88237, 18.5064, -151.017, -95.984, 110.476
1.04836, -1, -6.46278, 8.84025, 18.5167, -151.066, -95.9669, 110.191
1.05577, -1, -6.62121, 8.79814, 18.5272, -151.115, -95.9498, 109.906
1.0643, -1, -6.77986, 8.75595, 18.5378, -151.164, -95.9328, 109.62
1.07181, -1, -6.93853, 8.71381, 18.5483, -151.213, -95.9158, 109.334
1.0803, -1, -7.09706, 8.6717, 18.5588, -151.262, -95.8985, 109.049
1.08794, -1, -7.17631, 8.62956, 18.5693, -151.311, -95.8809, 108.763
1.09646, -1, -7.4137, 8.58732, 18.5796, -151.36, -95.8631, 108.478
1.10319, -1, -7.49266, 8.56616, 18.5849, -151.384, -95.8543, 108.334
1.11223, -1, -7.72891, 8.50268, 18.6006, -151.458, -95.8281, 107.906
1.1192, -1, -7.80748, 8.48155, 18.6059, -151.483, -95.8195, 107.763
1.12837, -1, -8.04279, 8.41811, 18.6215, -151.556, -95.794, 107.334
1.13524, -1, -8.12112, 8.39693, 18.6267, -151.58, -95.7855, 107.191
1.1432, -1, -8.27765, 8.35461, 18.6372, -151.63, -95.7685, 106.906
1.15257, -1, -8.51283, 8.29104, 18.6531, -151.703, -95.7426, 106.477
1.15921, -1, -8.59137, 8.26986, 18.6583, -151.727, -95.7338, 106.333
1.16868, -1, -8.82748, 8.20642, 18.6741, -151.801, -95.7073, 105.904
1.17676, -1, -8.9854, 8.16403, 18.6844, -151.85, -95.6899, 105.617
1.18483, -1, -9.14376, 8.12171, 18.6949, -151.9, -95.6726, 105.331
1.19282, -1, -9.30247, 8.07945, 18.7054, -151.949, -95.6555, 105.044
1.20094, -1, -9.38194, 8.03704, 18.7159, -151.997, -95.6384, 104.757
1.20722, -1, -9.54102, 8.01587, 18.7212, -152.022, -95.6298, 104.614
1.21677, -1, -9.7002, 7.97363, 18.7316, -152.072, -95.6125, 104.327
1.22419, -1, -9.85951, 7.93135, 18.7421, -152.121, -95.5949, 104.04
1.23226, -1, -10.0189, 7.88893, 18.7528, -152.17, -95.5771, 103.753
1.24019, -1, -10.178, 7.84649, 18.7634, -152.22, -95.5592, 103.467
1.24819, -1, -10.3371, 7.80398, 18.774, -152.269, -95.5416, 103.18
1.2562, -1, -10.4961, 7.76145, 18.7846, -152.318, -95.5244, 102.893
1.26326, -1, -10.6546, 7.71897, 18.795, -152.367, -95.5073, 102.606
1.27119, -1, -10.8127, 7.67642, 18.8056, -152.416, -95.4904, 102.319
1.27919, -1, -10.9705, 7.6338, 18.8161, -152.466, -95.4732, 102.032
1.28727, -1, -11.1281, 7.59127, 18.8265, -152.515, -95.4559, 101.744
1.29519, -1, -11.2854, 7.54879, 18.837, -152.564, -95.4382, 101.457
1.30321, -1, -11.4429, 7.50628, 18.8475, -152.614, -95.4204, 101.17
1.31126, -1, -11.6005, 7.46375, 18.858, -152.663, -95.4027, 100.882
1.3192, -1, -11.7583, 7.4213, 18.8687, -152.712, -95.3854, 100.594
1.32725, -1, -11.9167, 7.37884, 18.8793, -152.762, -95.3681, 100.307
1.33526, -1, -12.0755, 7.33638, 18.8899, -152.811, -95.3509, 100.019
1.3432, -1, -12.2346, 7.29398, 18.9004, -152.86, -95.3337, 99.7311
1.3512, -1, -12.3942, 7.25154, 18.9109, -152.91, -95.3163, 99.443
1.3596, -1, -12.5541, 7.20911, 18.9215, -152.959, -95.2985, 99.1551
1.36718, -1, -12.714, 7.16664, 18.932, -153.009, -95.2805, 98.8671
1.37521, -1, -12.8742, 7.12414, 18.9426, -153.059, -95.2626, 98.5792
1.38397, -1, -13.0342, 7.08157, 18.9532, -153.108, -95.245, 98.2911
1.39226, -1, -13.1942, 7.03893, 18.9637, -153.157, -95.2277, 98.003
1.39918, -1, -13.3539, 6.99628, 18.9743, -153.207, -95.2105, 97.7149
1.40808, -1, -13.5135, 6.95356, 18.9849, -153.256, -95.1934, 97.4263
1.41625, -1, -13.6726, 6.91079, 18.9955, -153.305, -95.1761, 97.1375
1.42331, -1, -13.8316, 6.8681, 19.0061, -153.355, -95.1586, 96.849
1.43227, -1, -13.9902, 6.82542, 19.0166, -153.404, -95.1408, 96.5606
1.43928, -1, -14.1484, 6.78272, 19.0271, -153.454, -95.123, 96.2718
1.44735, -1, -14.3065, 6.74011, 19.0377, -153.503, -95.1054, 95.9826
1.45657, -1, -14.4648, 6.69741, 19.0482, -153.552, -95.0881, 95.6937
1.46338, -1, -14.6232, 6.65473, 19.0588, -153.602, -95.0708, 95.4046
1.47132, -1, -14.7821, 6.61222, 19.0694, -153.652, -95.0536, 95.1152
1.48073, -1, -14.9412, 6.5696, 19.08, -153.701, -95.0364, 94.8259
1.48828, -1, -15.1007, 6.52691, 19.0908, -153.751, -95.0188, 94.537
1.49553, -1, -15.2607, 6.48432, 19.1015, -153.801, -95.0009, 94.2479
1.50494, -1, -15.421, 6.44165, 19.1122, -153.85, -94.9829, 93.9586
1.51219, -1, -15.5816, 6.3989, 19.1228, -153.9, -94.965, 93.6691
1.51952, -1, -15.7424, 6.35617, 19.1334, -153.95, -94.9476, 93.38
1.5291, -1, -15.9031, 6.31332, 19.1441, -153.999, -94.9303, 93.0905
1.53629, -1, -16.0639, 6.27042, 19.1547, -154.049, -94.9131, 92.8008
1.54397, -1, -16.2247, 6.22757, 19.1653, -154.099, -94.8959, 92.511
1.55323, -1, -16.3853, 6.18456, 19.1758, -154.148, -94.8786, 92.2216
1.55978, -1, -16.5458, 6.14155, 19.1863, -154.198, -94.861, 91.9318
1.56834, -1, -16.7059, 6.0986, 19.1969, -154.247, -94.843, 91.6415
1.57727, -1, -16.8656, 6.0556, 19.2076, -154.297, -94.8253, 91.3514
1.58383, -1, -17.025, 6.01263, 19.2183, -154.347, -94.8076, 91.0613
1.59238, -1, -17.1842, 5.96968, 19.2289, -154.397, -94.7902, 90.7711
1.60066, -1, -17.2637, 5.9482, 19.2342, -154.421, -94.7815, 90.4805
1.60723, -1, -17.4227, 5.90536, 19.2448, -154.471, -94.7642, 90.3353
1.61629, -1, -17.6617, 5.8411, 19.2609, -154.546, -94.7381, 89.9001
1.62318, -1, -17.7414, 5.81966, 19.2662, -154.571, -94.7293, 89.7549
1.63122, -1, -17.901, 5.77685, 19.277, -154.621, -94.7114, 89.4645
1.64067, -1, -18.1412, 5.71259, 19.2929, -154.696, -94.6841, 89.0288
1.64717, -1, -18.2215, 5.69116, 19.2982, -154.72, -94.6752, 88.8836
1.65524, -1, -18.3824, 5.64834, 19.3089, -154.771, -94.6576, 88.5928
1.66471, -1, -18.6245, 5.58386, 19.325, -154.845, -94.6316, 88.1562
1.67419, -1, -18.7861, 5.54086, 19.3357, -154.896, -94.6143, 87.8654
1.67922, -1, -18.867, 5.51935, 19.341, -154.921, -94.6057, 87.7199
1.68895, -1, -19.1095, 5.4547, 19.3568, -154.995, -94.5793, 87.2831
1.69837, -1, -19.271, 5.41154, 19.3675, -155.045, -94.5613, 86.9916
1.70318, -1, -19.3518, 5.38997, 19.3728, -155.07, -94.5522, 86.846
1.71276, -1, -19.5131, 5.34679, 19.3834, -155.12, -94.5254, 86.4088
1.72017, -1, -19.674, 5.30352, 19.3941, -155.17, -94.5166, 86.2629
1.72817, -1, -19.8346, 5.26036, 19.4047, -155.22, -94.499, 85.971
1.73623, -1, -19.995, 5.21717, 19.4154, -155.27, -94.4815, 85.6796
1.74318, -1, -20.1551, 5.17399, 19.4263, -155.32, -94.4641, 85.3881
1.7512, -1, -20.3149, 5.13101, 19.4371, -155.37, -94.4466, 85.0963
1.75928, -1, -20.4748, 5.08798, 19.448, -155.42, -94.4287, 84.8046
1.76717, -1, -20.6349, 5.04488, 19.4587, -155.47, -94.4106, 84.5129
1.7752, -1, -20.7953, 5.00192, 19.4694, -155.521, -94.3926, 84.221
1.78324, -1, -20.9559, 4.95892, 19.4801, -155.57, -94.3749, 83.9288
1.79118, -1, -21.1169, 4.9158, 19.4908, -155.621, -94.3573, 83.6366
1.79919, -1, -21.2784, 4.87269, 19.5014, -155.671, -94.3401, 83.3447
1.80724, -1, -21.4404, 4.82947, 19.5121, -155.721, -94.3228, 83.0524
1.81517, -1, -21.6025, 4.78617, 19.5228, -155.772, -94.3054, 82.7598
1.82319, -1, -21.7648, 4.74295, 19.5336, -155.822, -94.2878, 82.4673
1.83126, -1, -21.9272, 4.69955, 19.5443, -155.871, -94.2698, 82.1747
1.83918, -1, -22.0897, 4.65616, 19.5551, -155.922, -94.2518, 81.882
1.84718, -1, -22.2522, 4.61283, 19.5658, -155.972, -94.234, 81.589
1.85524, -1, -22.4146, 4.56936, 19.5765, -156.022, -94.2164, 81.2963
1.86317, -1, -22.5766, 4.52598, 19.5873, -156.073, -94.1989, 81.0037
1.87119, -1, -22.7384, 4.48255, 19.5979, -156.123, -94.1814, 80.7109
1.87925, -1, -22.8998, 4.43912, 19.6086, -156.173, -94.1639, 80.4178
1.88717, -1, -23.0608, 4.39582, 19.6193, -156.223, -94.146, 80.1248
1.89531, -1, -23.2219, 4.35253, 19.63, -156.274, -94.1279, 79.8317
1.90317, -1, -23.3828, 4.3092, 19.6409, -156.324, -94.1096, 79.5381
1.91119, -1, -23.5437, 4.26594, 19.6518, -156.375, -94.0915, 79.2448
1.91956, -1, -23.7047, 4.22265, 19.6626, -156.425, -94.0738, 78.9515
1.92729, -1, -23.8659, 4.17938, 19.6734, -156.475, -94.0561, 78.658
1.93528, -1, -24.0273, 4.13603, 19.684, -156.526, -94.0388, 78.3643
1.94373, -1, -24.1893, 4.09267, 19.6948, -156.576, -94.0213, 78.0704
1.95127, -1, -24.3517, 4.0493, 19.7055, -156.627, -94.0036, 77.7765
1.95933, -1, -24.5145, 4.00587, 19.7162, -156.677, -93.9856, 77.4823
1.96783, -1, -24.6775, 3.9623, 19.7268, -156.727, -93.9674, 77.1879
1.97623, -1, -24.8409, 3.91877, 19.7376, -156.778, -93.9494, 76.8938
1.9832, -1, -25.0043, 3.87521, 19.7484, -156.828, -93.9317, 76.5999
1.99208, -1, -25.1677, 3.83162, 19.7593, -156.878, -93.9141, 76.3056
2.0002, -1, -25.3308, 3.78806, 19.7702, -156.929, -93.8967, 76.011
2.00738, -1, -25.4938, 3.74445, 19.7811, -156.979, -93.8792, 75.7167
2.01626, -1, -25.6565, 3.70078, 19.7918, -157.029, -93.8613, 75.4223
2.02349, -1, -25.8192, 3.65725, 19.8025, -157.08, -93.8432, 75.1276
2.03158, -1, -25.9816, 3.61377, 19.8134, -157.13, -93.8248, 74.8328
2.04051, -1, -26.1436, 3.57022, 19.8241, -157.181, -93.8066, 74.5384
2.0477, -1, -26.3052, 3.5268, 19.835, -157.232, -93.7886, 74.2437
2.05627, -1, -26.4668, 3.48341, 19.8457, -157.282, -93.7708, 73.9486
2.06459, -1, -26.6286, 3.43988, 19.8565, -157.333, -93.7532, 73.6533
2.07176, -1, -26.7906, 3.39643, 19.8674, -157.384, -93.7356, 73.3584
2.08032, -1, -26.953, 3.35291, 19.8783, -157.434, -93.7178, 73.063
2.08887, -1, -27.1158, 3.30924, 19.8891, -157.485, -93.6997, 72.7673
2.0962, -1, -27.2787, 3.26568, 19.8999, -157.536, -93.6814, 72.472
2.10321, -1, -27.3604, 3.24385, 19.9053, -157.561, -93.6722, 72.3244
2.11307, -1, -27.6059, 3.17813, 19.9215, -157.637, -93.6452, 71.8812
2.12029, -1, -27.7699, 3.13445, 19.9323, -157.688, -93.6274, 71.5855
2.12721, -1, -27.8519, 3.11261, 19.9377, -157.713, -93.6185, 71.4377
2.13725, -1, -28.0983, 3.04698, 19.9539, -157.789, -93.592, 70.9943
2.14321, -1, -28.1805, 3.0251, 19.9593, -157.814, -93.5831, 70.8464
2.1525, -1, -28.4268, 2.95944, 19.9756, -157.89, -93.5559, 70.4021
2.15917, -1, -28.5088, 2.93756, 19.981, -157.916, -93.5467, 70.2542
2.16864, -1, -28.7544, 2.87201, 19.9973, -157.992, -93.5191, 69.8103
2.17674, -1, -28.9177, 2.82827, 20.0082, -158.043, -93.501, 69.5138
2.18561, -1, -29.0805, 2.78455, 20.0189, -158.094, -93.4832, 69.2173
2.19123, -1, -29.1619, 2.76272, 20.0243, -158.119, -93.4743, 69.0691
2.20078, -1, -29.4059, 2.69715, 20.0406, -158.195, -93.4478, 68.6241
2.20964, -1, -29.4872, 2.67529, 20.0514, -158.247, -93.43, 68.3271
2.21523, -1, -29.65, 2.6315, 20.0568, -158.272, -93.4209, 68.1787
2.22474, -1, -29.813, 2.58764, 20.0677, -158.323, -93.4026, 67.8822
2.23374, -1, -29.9761, 2.54387, 20.0786, -158.374, -93.3842, 67.5855
2.24016, -1, -30.1395, 2.49993, 20.0896, -158.425, -93.366, 67.2884
2.24715, -1, -30.3032, 2.45592, 20.1006, -158.475, -93.348, 66.9914
2.25518, -1, -30.4676, 2.41197, 20.1115, -158.527, -93.3301, 66.6945
2.26321, -1, -30.6323, 2.36792, 20.1223, -158.577, -93.3124, 66.3975
2.27118, -1, -30.7973, 2.32392, 20.1332, -158.628, -93.2946, 66.1
2.27922, -1, -30.9624, 2.27993, 20.1441, -158.679, -93.2766, 65.8026
2.28717, -1, -31.1275, 2.2358, 20.155, -158.73, -93.2582, 65.5055
2.29515, -1, -31.2926, 2.19185, 20.1658, -158.781, -93.2396, 65.2081
2.30323, -1, -31.4575, 2.14793, 20.1766, -158.833, -93.2213, 64.9102
2.31116, -1, -31.6222, 2.10387, 20.1874, -158.883, -93.2033, 64.6125
2.31915, -1, -31.7868, 2.05988, 20.1984, -158.935, -93.1855, 64.3146
2.32725, -1, -31.951, 2.01594, 20.2094, -158.986, -93.1679, 64.0165
2.33516, -1, -32.115, 1.9719, 20.2204, -159.037, -93.1503, 63.7183
2.34321, -1, -32.2787, 1.92788, 20.2313, -159.088, -93.1324, 63.4205
2.35122, -1, -32.4421, 1.88385, 20.2422, -159.14, -93.1142, 63.1225
2.35916, -1, -32.6057, 1.83969, 20.2532, -159.191, -93.0958, 62.8242
2.36718, -1, -32.7695, 1.7956, 20.2642, -159.242, -93.0776, 62.5259
2.37522, -1, -32.9335, 1.75148, 20.2751, -159.293, -93.0596, 62.2275
2.38315, -1, -33.0978, 1.7072, 20.286, -159.344, -93.0417, 61.929
2.39118, -1, -33.2625, 1.66299, 20.2969, -159.396, -93.0239, 61.6302
2.39922, -1, -33.4275, 1.61878, 20.3079, -159.447, -93.0061, 61.3316
2.40717, -1, -33.593, 1.5745, 20.3189, -159.498, -92.9878, 61.033
2.41557, -1, -33.7587, 1.53025, 20.3298, -159.549, -92.9694, 60.7341
2.42323, -1, -33.9245, 1.48605, 20.3407, -159.6, -92.9508, 60.4349
2.43127, -1, -34.0905, 1.44182, 20.3516, -159.652, -92.9323, 60.1357
2.43934, -1, -34.2566, 1.39765, 20.3626, -159.703, -92.914, 59.8363
2.44728, -1, -34.4226, 1.35344, 20.3736, -159.755, -92.896, 59.5366
2.45526, -1, -34.5886, 1.30923, 20.3845, -159.806, -92.8783, 59.2371
2.46334, -1, -34.7541, 1.26505, 20.3955, -159.858, -92.8605, 58.9378
2.47117, -1, -34.9192, 1.22083, 20.4065, -159.909, -92.8425, 58.6384
2.47916, -1, -35.0841, 1.17658, 20.4175, -159.961, -92.824, 58.3386
2.48727, -1, -35.2487, 1.13227, 20.4286, -160.012, -92.8055, 58.0389
2.4952, -1, -35.413, 1.08798, 20.4398, -160.063, -92.787, 57.7393
2.50325, -1, -35.5763, 1.04397, 20.451, -160.115, -92.7689, 57.4394
2.51157, -1, -35.7372, 1.00039, 20.4624, -160.166, -92.7509, 57.1399
2.51941, -1, -35.8949, 0.95764, 20.4741, -160.217, -92.733, 56.8428
2.5275, -1, -36.048, 0.91632, 20.4861, -160.267, -92.7154, 56.5503
2.53595, -1, -36.1949, 0.876855, 20.498, -160.315, -92.6981, 56.2655
2.54425, -1, -36.333, 0.839995, 20.5099, -160.361, -92.6812, 55.994
2.55168, -1, -36.4606, 0.806202, 20.521, -160.404, -92.6653, 55.7422
2.56025, -1, -36.5763, 0.775571, 20.531, -160.443, -92.6511, 55.5159
2.56777, -1, -36.6783, 0.74861, 20.5394, -160.475, -92.6389, 55.3208
2.57625, -1, -36.7655, 0.725468, 20.5455, -160.503, -92.6291, 55.1602
2.58379, -1, -36.8385, 0.706171, 20.5495, -160.524, -92.6215, 55.0347
2.59234, -1, -36.8981, 0.690486, 20.5515, -160.54, -92.6161, 54.9432
2.59975, -1, -36.9231, 0.683893, 20.552, -160.546, -92.6124, 54.8798
2.60823, -1, -36.9794, 0.668829, 20.5523, -160.558, -92.6102, 54.8391
2.61518, -1, -36.9929, 0.665331, 20.5521, -160.561, -92.6095, 54.8255
2.62419, -1, -37.0202, 0.658556, 20.5515, -160.565, -92.6084, 54.8024
2.6312, -1, -37.0256, 0.657278, 20.5513, -160.566, -92.6082, 54.7987
2.6404, 2, -37.0336, 0.655234, 20.5511, -160.567, -92.6079, 54.7933
2.64716, 2, -37.0342, 0.654947, 20.5511, -160.567, -92.6078, 54.7925
2.65698, 2, -37.0336, 0.654529, 20.551, -160.567, -92.6078, 54.7914
2.66458, 2, -37.0332, 0.654452, 20.551, -160.567, -92.6078, 54.7912
2.67115, 2, -37.0331, 0.654443, 20.551, -160.567, -92.6078, 54.7912
2.68094, 2, -37.034, 0.654378, 20.5509, -160.567, -92.6079, 54.7911
2.68715, 2, -37.0346, 0.654356, 20.5509, -160.568, -92.6079, 54.7911
2.6967, 2, -37.0364, 0.654127, 20.5506, -160.567, -92.6079, 54.7911
2.70524, 2, -37.0379, 0.653901, 20.5504, -160.567, -92.6079, 54.7911
2.71114, 2, -37.0386, 0.653773, 20.5503, -160.567, -92.6079, 54.7912
2.7207, 2, -37.0398, 0.653513, 20.5501, -160.568, -92.6079, 54.7913
2.72904, 2, -37.041, 0.653228, 20.5498, -160.567, -92.608, 54.7913
2.73516, 2, -37.0411, 0.653194, 20.5497, -160.567, -92.608, 54.7914
2.74414, 2, -37.0411, 0.653143, 20.5496, -160.567, -92.6081, 54.7915
2.75215, 2, -37.0406, 0.653161, 20.5494, -160.567, -92.6081, 54.7916
2.75916, 2, -37.0398, 0.653196, 20.5494, -160.567, -92.6081, 54.7917
2.76718, 2, -37.0388, 0.653228, 20.5493, -160.567, -92.6082, 54.7918
2.77521, 2, -37.0372, 0.653288, 20.5492, -160.567, -92.6082, 54.792
2.78317, 2, -37.0358, 0.653321, 20.5492, -160.567, -92.6083, 54.7921
2.79114, 2, -37.0347, 0.653336, 20.5491, -160.567, -92.6083, 54.7923
2.79921, 2, -37.034, 0.653335, 20.5491, -160.567, -92.6082, 54.7922
2.80715, 2, -37.0338, 0.653318, 20.5491, -160.567, -92.6083, 54.7923
2.81514, 2, -37.0339, 0.653281, 20.5491, -160.567, -92.6083, 54.7922
2.82321, 2, -37.0341, 0.653226, 20.5491, -160.567, -92.6083, 54.7923
2.83115, 2, -37.0343, 0.65317, 20.549, -160.567, -92.6083, 54.7924
2.83914, 2, -37.0349, 0.653132, 20.549, -160.567, -92.6083, 54.7924
2.84722, 2, -37.0356, 0.653114, 20.549, -160.567, -92.6083, 54.7924
2.85514, 2, -37.0363, 0.653118, 20.549, -160.567, -92.6083, 54.7925
2.86318, 2, -37.037, 0.65312, 20.549, -160.567, -92.6083, 54.7925
2.87123, 2, -37.0373, 0.653121, 20.549, -160.567, -92.6083, 54.7925
2.87914, 2, -37.0375, 0.65314, 20.549, -160.567, -92.6083, 54.7926
2.88715, 2, -37.0375, 0.65316, 20.549, -160.567, -92.6084, 54.7926
2.89521, 2, -37.0374, 0.653176, 20.5489, -160.567, -92.6084, 54.7926
2.90316, 2, -37.037, 0.653184, 20.5489, -160.567, -92.6084, 54.7927
2.91114, 2, -37.0366, 0.653187, 20.5489, -160.567, -92.6084, 54.7928
2.91925, 2, -37.0364, 0.653178, 20.5489, -160.567, -92.6084, 54.7928
2.92734, 2, -37.0362, 0.653166, 20.5489, -160.567, -92.6084, 54.7928
2.93526, 2, -37.0361, 0.65313, 20.5489, -160.567, -92.6084, 54.7929
2.9433, 2, -37.0361, 0.653113, 20.5489, -160.567, -92.6084, 54.793
2.9513, 2, -37.0361, 0.653136, 20.5489, -160.567, -92.6084, 54.793
2.95924, 2, -37.0361, 0.653129, 20.5489, -160.567, -92.6084, 54.7931
2.96732, 2, -37.0362, 0.653143, 20.5489, -160.567, -92.6084, 54.7931
2.97514, 2, -37.0363, 0.653132, 20.5488, -160.567, -92.6084, 54.7932
2.98316, 2, -37.0365, 0.653156, 20.5488, -160.567, -92.6084, 54.7931
2.99148, 2, -37.0366, 0.653156, 20.5488, -160.567, -92.6085, 54.7932
2.99921, 2, -37.0368, 0.653163, 20.5488, -160.567, -92.6084, 54.7932
3.00725, 2, -37.0368, 0.65317, 20.5488, -160.567, -92.6084, 54.7933
3.01573, 2, -37.0368, 0.653181, 20.5488, -160.567, -92.6084, 54.7933
3.0242, 2, -37.0368, 0.653175, 20.5488, -160.567, -92.6085, 54.7934
3.03147, 2, -37.0368, 0.653165, 20.5488, -160.567, -92.6085, 54.7935
3.03997, 2, -37.0368, 0.653134, 20.5488, -160.567, -92.6085, 54.7935
3.04824, 2, -37.0368, 0.653141, 20.5488, -160.567, -92.6085, 54.7935
3.05567, 2, -37.0367, 0.653131, 20.5487, -160.567, -92.6085, 54.7936
3.06424, 2, -37.0367, 0.653126, 20.5487, -160.567, -92.6085, 54.7937
3.07171, 2, -37.0367, 0.653124, 20.5487, -160.567, -92.6085, 54.7937
3.08023, 2, -37.0366, 0.653141, 20.5487, -160.567, -92.6086, 54.7938
3.08802, 2, -37.0367, 0.65316, 20.5487, -160.567, -92.6085, 54.7938
3.09567, 2, -37.0367, 0.65317, 20.5487, -160.567, -92.6085, 54.7939
3.10416, 2, -37.0367, 0.653192, 20.5487, -160.567, -92.6085, 54.7939
3.11207, 2, -37.0367, 0.653191, 20.5487, -160.567, -92.6085, 54.794
3.11916, 2, -37.0367, 0.653191, 20.5487, -160.567, -92.6085, 54.7939
3.12821, 2, -37.0366, 0.653178, 20.5487, -160.567, -92.6086, 54.794
3.13517, 2, -37.0366, 0.653171, 20.5487, -160.567, -92.6086, 54.794
3.14313, 2, -37.0366, 0.653174, 20.5487, -160.567, -92.6086, 54.7941
3.15241, 2, -37.0366, 0.653167, 20.5487, -160.567, -92.6085, 54.7942
3.15917, 2, -37.0366, 0.653174, 20.5486, -160.567, -92.6085, 54.7942
3.16715, 2, -37.0366, 0.653183, 20.5486, -160.567, -92.6085, 54.7942
3.17659, 2, -37.0366, 0.653157, 20.5486, -160.567, -92.6086, 54.7943
3.18516, 2, -37.0365, 0.653175, 20.5486, -160.567, -92.6087, 54.7943
3.19113, 2, -37.0365, 0.65318, 20.5486, -160.567, -92.6086, 54.7943
3.2007, 2, -37.0365, 0.653187, 20.5486, -160.567, -92.6087, 54.7944
3.20899, 2, -37.0365, 0.653189, 20.5486, -160.567, -92.6087, 54.7944
3.21512, 2, -37.0365, 0.653196, 20.5486, -160.567, -92.6087, 54.7944
3.22466, 2, -37.0365, 0.653198, 20.5486, -160.567, -92.6086, 54.7945
3.23301, 2, -37.0365, 0.653192, 20.5485, -160.567, -92.6087, 54.7946
3.23914, 2, -37.0365, 0.653192, 20.5485, -160.567, -92.6087, 54.7946
3.24813, 2, -37.0365, 0.653191, 20.5485, -160.567, -92.6087, 54.7946
3.25612, 2, -37.0365, 0.65319, 20.5485, -160.567, -92.6087, 54.7946
3.26314, 2, -37.0365, 0.653179, 20.5485, -160.567, -92.6086, 54.7946
3.27115, 2, -37.0364, 0.653167, 20.5485, -160.567, -92.6086, 54.7947
3.27919, 2, -37.0364, 0.653172, 20.5485, -160.567, -92.6086, 54.7947
3.28715, 2, -37.0364, 0.653182, 20.5485, -160.567, -92.6087, 54.7948
3.29512, 2, -37.0364, 0.653186, 20.5485, -160.567, -92.6087, 54.7948
3.30319, 2, -37.0364, 0.653188, 20.5484, -160.567, -92.6087, 54.7948
3.31113, 2, -37.0364, 0.653189, 20.5484, -160.567, -92.6087, 54.7948
3.31912, 2, -37.0364, 0.65319, 20.5484, -160.567, -92.6087, 54.7949
3.3272, 2, -37.0363, 0.65319, 20.5484, -160.567, -92.6087, 54.7949
3.33514, 2, -37.0364, 0.65319, 20.5484, -160.567, -92.6087, 54.795
3.34313, 2, -37.0363, 0.65319, 20.5484, -160.567, -92.6086, 54.795
3.35118, 2, -37.0363, 0.65319, 20.5484, -160.567, -92.6087, 54.795
3.35912, 2, -37.0363, 0.65319, 20.5484, -160.567, -92.6088, 54.795
3.36714, 2, -37.0363, 0.65319, 20.5484, -160.566, -92.6087, 54.7951
3.3752, 2, -37.0363, 0.65319, 20.5483, -160.567, -92.6087, 54.7951
3.38312, 2, -37.0363, 0.65319, 20.5483, -160.566, -92.6087, 54.7951
3.39112, 2, -37.0363, 0.653172, 20.5483, -160.566, -92.6087, 54.7951
3.39919, 2, -37.0362, 0.653182, 20.5483, -160.566, -92.6087, 54.7951
3.40716, 2, -37.0362, 0.653186, 20.5483, -160.566, -92.6087, 54.7952
3.41512, 2, -37.0362, 0.653188, 20.5483, -160.566, -92.6088, 54.7952
3.42322, 2, -37.0362, 0.653189, 20.5483, -160.566, -92.6087, 54.7952
3.43123, 2, -37.0362, 0.653197, 20.5483, -160.566, -92.6088, 54.7952
3.43925, 2, -37.0362, 0.65321, 20.5483, -160.566, -92.6087, 54.7952
3.44729, 2, -37.0362, 0.653199, 20.5483, -160.566, -92.6087, 54.7952
3.45524, 2, -37.0362, 0.653194, 20.5483, -160.566, -92.6088, 54.7953
3.46323, 2, -37.0362, 0.653192, 20.5483, -160.566, -92.6088, 54.7953
3.4713, 2, -37.0362, 0.653203, 20.5483, -160.566, -92.6088, 54.7954
3.47922, 2, -37.0361, 0.653196, 20.5482, -160.566, -92.6088, 54.7954
3.48716, 2, -37.0361, 0.6532, 20.5482, -160.566, -92.6088, 54.7954
3.49521, 2, -37.0362, 0.6532, 20.5482, -160.566, -92.6088, 54.7954
3.50325, 2, -37.0361, 0.653207, 20.5482, -160.566, -92.6088, 54.7954
3.51123, 2, -37.0361, 0.653198, 20.5482, -160.566, -92.6088, 54.7954
3.51935, 2, -37.0361, 0.653213, 20.5482, -160.566, -92.6088, 54.7954
3.52769, 2, -37.0361, 0.653206, 20.5482, -160.566, -92.6088, 54.7954
3.53614, 2, -37.0361, 0.653209, 20.5482, -160.566, -92.6088, 54.7954
3.54354, 2, -37.0361, 0.653199, 20.5482, -160.566, -92.6088, 54.7954
3.55161, 2, -37.036, 0.653194, 20.5482, -160.566, -92.6088, 54.7954
3.56022, 2, -37.036, 0.653199, 20.5482, -160.566, -92.6088, 54.7954
3.56773, 2, -37.036, 0.653219, 20.5482, -160.566, -92.6088, 54.7955
3.57629, 2, -37.036, 0.65322, 20.5482, -160.566, -92.6088, 54.7955
3.58368, 2, -37.036, 0.653216, 20.5482, -160.566, -92.6088, 54.7955
3.59223, 2, -37.036, 0.653202, 20.5481, -160.566, -92.6088, 54.7955
3.59976, 2, -37.036, 0.653198, 20.5481, -160.566, -92.6088, 54.7955
3.60814, 2, -37.036, 0.6532, 20.5481, -160.566, -92.6088, 54.7955
3.61516, 2, -37.036, 0.653204, 20.5481, -160.566, -92.6088, 54.7955
3.62457, 2, -37.0359, 0.653214, 20.5481, -160.566, -92.6088, 54.7955
3.63111, 2, -37.036, 0.653221, 20.5481, -160.566, -92.6088, 54.7955
3.64043, 2, -37.036, 0.65321, 20.5481, -160.566, -92.6088, 54.7955
3.64936, 2, -37.0359, 0.653204, 20.5481, -160.566, -92.6088, 54.7955
3.65517, 2, -37.0359, 0.653207, 20.5481, -160.566, -92.6088, 54.7955
3.66449, 2, -37.0359, 0.653207, 20.548, -160.566, -92.6088, 54.7955
3.67113, 2, -37.0359, 0.653201, 20.548, -160.566, -92.6088, 54.7955
3.67917, 2, -37.0359, 0.653207, 20.548, -160.566, -92.6088, 54.7955
3.68878, 2, -37.0359, 0.653195, 20.548, -160.566, -92.6088, 54.7956
3.69669, 2, -37.0359, 0.6532, 20.548, -160.566, -92.6088, 54.7956
3.70497, 2, -37.0359, 0.653212, 20.548, -160.566, -92.6088, 54.7955
3.71111, 2, -37.0359, 0.653205, 20.548, -160.566, -92.6088, 54.7955
3.72091, 2, -37.0358, 0.653197, 20.548, -160.566, -92.6088, 54.7956
3.7272, 2, -37.0359, 0.6532, 20.5479, -160.566, -92.6088, 54.7956
3.73616, 4, -37.0359, 0.653212, 20.5479, -160.566, -92.6088, 54.7956
3.74411, 4, -37.0359, 0.653212, 20.5479, -160.566, -92.6088, 54.7957
3.75213, 4, -37.0359, 0.653212, 20.5479, -160.566, -92.6088, 54.7957
3.76018, 4, -37.0359, 0.653213, 20.5479, -160.566, -92.6089, 54.7957
3.76811, 4, -37.0359, 0.653238, 20.5479, -160.566, -92.6089, 54.7956
3.77521, 4, -37.0359, 0.653229, 20.5479, -160.566, -92.6089, 54.7956
3.78312, 4, -37.0358, 0.653208, 20.5479, -160.566, -92.6088, 54.7956
3.79113, 4, -37.0358, 0.653218, 20.5479, -160.566, -92.6088, 54.7956
3.79918, 4, -37.0358, 0.653208, 20.5479, -160.566, -92.6088, 54.7956
3.80712, 4, -37.0358, 0.653205, 20.5479, -160.566, -92.6089, 54.7956
3.81515, 4, -37.0358, 0.653214, 20.5478, -160.566, -92.6088, 54.7956
3.82313, 4, -37.0358, 0.653201, 20.5479, -160.566, -92.6088, 54.7957
3.83125, 4, -37.0358, 0.653202, 20.5478, -160.566, -92.6088, 54.7957
3.85634, 4, -37.0358, 0.653224, 20.5478, -160.566, -92.6088, 54.7957
3.85914, 4, -37.0358, 0.65322, 20.5478, -160.566, -92.6088, 54.7957
3.86097, 4, -37.0358, 0.65322, 20.5478, -160.566, -92.6088, 54.7957
3.86377, 4, -37.0358, 0.653218, 20.5478, -160.566, -92.6088, 54.7957
3.87246, 4, -37.0358, 0.65322, 20.5478, -160.566, -92.6089, 54.7957
3.88014, 4, -37.0355, 0.653175, 20.5478, -160.566, -92.6089, 54.7957
3.88719, 4, -37.034, 0.652752, 20.5479, -160.566, -92.6089, 54.7956
3.89512, 4, -37.0301, 0.650993, 20.5483, -160.566, -92.6089, 54.7956
3.90334, 4, -37.0225, 0.646691, 20.5498, -160.566, -92.6089, 54.7957
3.91218, 4, -37.0111, 0.63895, 20.5537, -160.565, -92.6089, 54.7957
3.92007, 5, -36.9955, 0.627435, 20.5611, -160.564, -92.6089, 54.7957
3.92826, 5, -36.9746, 0.611477, 20.5736, -160.562, -92.6089, 54.7956
3.93529, 5, -36.9481, 0.591133, 20.5923, -160.558, -92.6087, 54.7956
3.94351, 5, -36.9164, 0.566276, 20.6177, -160.553, -92.6084, 54.7956
3.9512, 5, -36.88, 0.536977, 20.65, -160.546, -92.6079, 54.7956
3.95935, 5, -36.8386, 0.503093, 20.6887, -160.537, -92.6069, 54.7955
3.96761, 5, -36.792, 0.464356, 20.7328, -160.527, -92.6055, 54.7955
3.97544, 5, -36.7403, 0.421308, 20.7813, -160.516, -92.6039, 54.7955
3.98416, 5, -36.684, 0.37452, 20.833, -160.505, -92.6021, 54.7955
3.99188, 5, -36.6237, 0.324974, 20.8868, -160.492, -92.6002, 54.7956
4.00026, 5, -36.5596, 0.273256, 20.9417, -160.48, -92.5984, 54.7956
4.00832, 5, -36.493, 0.220147, 20.9972, -160.468, -92.5965, 54.7956
4.01604, 5, -36.4252, 0.166417, 21.0527, -160.456, -92.5945, 54.7956
4.02371, 5, -36.3567, 0.112454, 21.1083, -160.444, -92.5925, 54.7955
4.03209, 5, -36.2881, 0.0584611, 21.1639, -160.432, -92.5904, 54.7956
4.04029, 5, -36.2192, 0.00460395, 21.2195, -160.42, -92.5884, 54.7957
4.04919, 5, -36.1505, -0.0490329, 21.2751, -160.408, -92.5864, 54.7957
4.05714, 5, -36.0818, -0.102428, 21.3306, -160.395, -92.5843, 54.7959
4.06454, 5, -36.0133, -0.155569, 21.3859, -160.383, -92.5822, 54.7962
4.07165, 5, -35.9447, -0.208535, 21.4413, -160.37, -92.5801, 54.7966
4.0802, 5, -35.8761, -0.261353, 21.4965, -160.357, -92.578, 54.7972
4.08849, 5, -35.8073, -0.314052, 21.5517, -160.344, -92.5759, 54.7979
4.0957, 5, -35.7728, -0.340409, 21.5792, -160.332, -92.5738, 54.7988
4.10445, 5, -35.6691, -0.419551, 21.6616, -160.319, -92.5716, 54.7999
4.11112, 5, -35.6344, -0.445934, 21.689, -160.313, -92.5705, 54.8005
4.11913, 5, -35.5647, -0.498767, 21.7435, -160.3, -92.5683, 54.8018
4.13262, 5, -35.4599, -0.60452, 21.8522, -160.275, -92.564, 54.8049
4.13511, 5, -35.4248, -0.60452, 21.8522, -160.275, -92.564, 54.8049
4.1431, 5, -35.3544, -0.657333, 21.9063, -160.262, -92.5619, 54.8067
4.15267, 5, -35.2486, -0.736498, 21.9873, -160.243, -92.5585, 54.8095
4.15909, 5, -35.2134, -0.762737, 22.0143, -160.236, -92.5574, 54.8105
4.16715, 5, -35.1428, -0.815002, 22.0681, -160.222, -92.5552, 54.8127
4.17696, 5, -35.037, -0.893305, 22.1486, -160.202, -92.5518, 54.8162
4.18542, 5, -35.0017, -0.94511, 22.2021, -160.189, -92.5495, 54.8185
4.1911, 5, -34.9312, -0.970959, 22.2289, -160.183, -92.5483, 54.8198
4.20157, 5, -34.8254, -1.04828, 22.3089, -160.164, -92.5449, 54.8237
4.21475, 5, -34.7196, -1.12551, 22.3884, -160.144, -92.5413, 54.828
4.21688, 5, -34.6842, -1.15121, 22.4149, -160.138, -92.5401, 54.8295
4.22471, 5, -34.6488, -1.17688, 22.4414, -160.132, -92.539, 54.8324
4.23211, 5, -34.5779, -1.22831, 22.494, -160.118, -92.5366, 54.834
4.24016, 5, -34.5068, -1.27978, 22.5465, -160.105, -92.5343, 54.8371
4.2481, 5, -34.4355, -1.33118, 22.5989, -160.091, -92.5318, 54.8404
4.25624, 5, -34.364, -1.38257, 22.6511, -160.078, -92.5294, 54.8438
4.26532, 5, -34.2565, -1.45955, 22.7292, -160.057, -92.5258, 54.8491
4.27112, 5, -34.2206, -1.48512, 22.7552, -160.05, -92.5246, 54.851
4.27912, 5, -34.1488, -1.53608, 22.8071, -160.036, -92.5222, 54.8547
4.2871, 5, -34.0767, -1.58684, 22.8588, -160.023, -92.5198, 54.8585
4.29513, 5, -34.0046, -1.63742, 22.9104, -160.01, -92.5174, 54.8625
4.30324, 5, -33.9325, -1.68773, 22.9619, -159.996, -92.5149, 54.8666
4.31207, 5, -33.8603, -1.73788, 23.0133, -159.983, -92.5125, 54.8707
4.3201, 5, -33.7882, -1.78793, 23.0644, -159.969, -92.5102, 54.8748
4.32826, 5, -33.7159, -1.83791, 23.1155, -159.955, -92.5077, 54.8791
4.33591, 5, -33.6436, -1.88778, 23.1663, -159.94, -92.5054, 54.8833
4.34587, 5, -33.5347, -1.96281, 23.2423, -159.919, -92.5019, 54.8898
4.35213, 5, -33.4983, -1.98796, 23.2675, -159.912, -92.5007, 54.8919
4.36017, 5, -33.4254, -2.03844, 23.318, -159.898, -92.4984, 54.8956
4.36809, 5, -33.3526, -2.08927, 23.3683, -159.884, -92.4962, 54.8981
4.37725, 6, -33.28, -2.14051, 23.4188, -159.87, -92.4939, 54.8992
4.38323, 6, -33.2077, -2.19246, 23.4693, -159.855, -92.4914, 54.8983
4.39209, 6, -33.1358, -2.24532, 23.5202, -159.84, -92.4886, 54.8949
4.40093, 6, -33.0643, -2.29903, 23.5717, -159.824, -92.4851, 54.8865
4.40812, 7, -32.9934, -2.35387, 23.6242, -159.807, -92.4805, 54.8729
4.41518, 7, -32.9228, -2.40983, 23.6779, -159.788, -92.4743, 54.8562
4.42311, 7, -32.8528, -2.4672, 23.733, -159.768, -92.4661, 54.8376
4.4313, 7, -32.7834, -2.52608, 23.7896, -159.747, -92.4558, 54.8191
4.44009, 7, -32.7146, -2.58658, 23.8477, -159.725, -92.4434, 54.8011
4.44817, 8, -32.6465, -2.6487, 23.9072, -159.702, -92.4289, 54.7839
4.45534, 8, -32.5791, -2.71259, 23.9679, -159.677, -92.4124, 54.7667
4.46413, 8, -32.5125, -2.77824, 24.0297, -159.65, -92.394, 54.7491
4.47127, 8, -32.4466, -2.84548, 24.0926, -159.623, -92.3739, 54.7304
4.47909, 8, -32.3814, -2.9142, 24.1565, -159.595, -92.3524, 54.7101
4.48711, 9, -32.3167, -2.98426, 24.2214, -159.566, -92.33, 54.6882
4.49539, 9, -32.2527, -3.05562, 24.2873, -159.537, -92.3064, 54.6644
4.50396, 9, -32.1892, -3.12833, 24.3542, -159.505, -92.2814, 54.6389
4.51306, 9, -32.1263, -3.20231, 24.422, -159.473, -92.2546, 54.6123
4.51926, 9, -32.0639, -3.27758, 24.4909, -159.441, -92.2261, 54.5844
4.52818, 10, -32.0021, -3.35413, 24.5607, -159.407, -92.1964, 54.555
4.53549, 10, -31.941, -3.43206, 24.6316, -159.372, -92.1657, 54.5237
4.54359, 10, -31.8804, -3.51145, 24.7036, -159.336, -92.1336, 54.4904
4.55557, 10, -31.7904, -3.63315, 24.8135, -159.281, -92.0819, 54.4374
4.56037, 10, -31.7607, -3.67446, 24.8506, -159.262, -92.064, 54.4193
4.5682, 11, -31.7018, -3.75812, 24.9256, -159.223, -92.0276, 54.3819
4.57642, 11, -31.6434, -3.84336, 25.0016, -159.184, -91.9902, 54.3428
4.58407, 11, -31.5856, -3.93004, 25.0784, -159.144, -91.9507, 54.3016
4.59259, 11, -31.5568, -3.97389, 25.1562, -159.103, -91.9097, 54.2589
4.59978, 11, -31.4997, -4.06275, 25.1955, -159.06, -91.868, 54.2152
4.60809, 12, -31.4151, -4.19883, 25.3151, -159.017, -91.8246, 54.17
4.61508, 12, -31.3871, -4.2449, 25.3554, -158.995, -91.802, 54.1466
4.62308, 12, -31.3316, -4.33806, 25.437, -158.95, -91.7563, 54.0983
4.63321, 12, -31.2493, -4.48034, 25.5614, -158.881, -91.6859, 54.0238
4.63929, 12, -31.2221, -4.52845, 25.6033, -158.858, -91.6614, 53.9983
4.64864, 13, -31.1413, -4.67493, 25.7306, -158.786, -91.5865, 53.9187
4.65509, 13, -31.1146, -4.72447, 25.7735, -158.761, -91.5611, 53.8915
4.66316, 13, -31.0616, -4.82457, 25.86, -158.713, -91.5082, 53.8364
4.67326, 13, -30.9831, -4.97761, 25.9918, -158.637, -91.4274, 53.7506
4.68049, 13, -30.9314, -5.08146, 26.081, -158.586, -91.3715, 53.6914
4.68971, 13, -30.8803, -5.1867, 26.1713, -158.533, -91.3142, 53.6313
4.69745, 14, -30.8297, -5.29344, 26.2627, -158.479, -91.2564, 53.5691
4.70598, 14, -30.7797, -5.4017, 26.355, -158.426, -91.1961, 53.5057
4.71128, 14, -30.7549, -5.45634, 26.4014, -158.398, -91.1659, 53.4739
4.72071, 14, -30.6813, -5.62267, 26.5423, -158.314, -91.073, 53.3749
4.72865, 14, -30.657, -5.67885, 26.5898, -158.286, -91.041, 53.3071
4.73515, 15, -30.6087, -5.79227, 26.6855, -158.228, -90.977, 53.273
4.74413, 15, -30.561, -5.90698, 26.7825, -158.17, -90.9106, 53.2031
4.75208, 15, -30.5138, -6.02296, 26.8806, -158.111, -90.8439, 53.1316
4.76023, 15, -30.4671, -6.14049, 26.9797, -158.05, -90.7753, 53.0593
4.76719, 15, -30.4209, -6.25938, 27.0796, -157.99, -90.7054, 52.9843
4.7751, 16, -30.3751, -6.37968, 27.1804, -157.927, -90.6341, 52.9087
4.7831, 16, -30.33, -6.5016, 27.2823, -157.864, -90.5615, 52.8311
4.79115, 16, -30.2853, -6.6249, 27.3854, -157.801, -90.4878, 52.7519
4.7991, 16, -30.2412, -6.74967, 27.4896, -157.736, -90.4127, 52.6721
4.80823, 16, -30.1974, -6.8759, 27.5949, -157.671, -90.3361, 52.59
4.81528, 17, -30.1542, -7.00375, 27.7011, -157.604, -90.2584, 52.5076
4.82309, 17, -30.1114, -7.13326, 27.8081, -157.537, -90.1792, 52.423
4.83232, 17, -30.0692, -7.2642, 27.916, -157.468, -90.0988, 52.338
4.84295, 17, -30.0068, -7.46309, 28.08, -157.364, -89.9757, 52.207
4.84809, 17, -29.9862, -7.53007, 28.1353, -157.329, -89.934, 52.1629
4.85614, 18, -29.9455, -7.66512, 28.2468, -157.258, -89.8495, 52.0734
4.8641, 18, -29.9053, -7.80158, 28.3592, -157.186, -89.7636, 51.9828
4.87208, 18, -29.8656, -7.93951, 28.4724, -157.113, -89.6769, 51.8903
4.88255, 18, -29.8069, -8.14864, 28.644, -157.002, -89.5442, 51.7495
4.88824, 18, -29.7875, -8.21904, 28.7017, -156.965, -89.4993, 51.7017
4.89611, 19, -29.7492, -8.36079, 28.8181, -156.889, -89.4086, 51.6056
4.9041, 19, -29.7113, -8.50411, 28.9357, -156.813, -89.3168, 51.508
4.91221, 19, -29.6739, -8.64902, 29.0543, -156.735, -89.2236, 51.4096
4.9252, 19, -29.6187, -8.8689, 29.2334, -156.618, -89.0817, 51.2599
4.92809, 19, -29.6005, -8.9428, 29.2936, -156.578, -89.0338, 51.2097
4.93627, 20, -29.5646, -9.09173, 29.4147, -156.498, -88.9371, 51.1075
4.94345, 20, -29.5291, -9.24216, 29.537, -156.417, -88.8395, 51.0048
4.95125, 20, -29.4939, -9.39414, 29.6605, -156.336, -88.741, 50.9004
4.95941, 20, -29.4593, -9.5473, 29.7848, -156.253, -88.6411, 50.795
4.96812, 20, -29.4251, -9.70162, 29.91, -156.17, -88.5402, 50.6883
4.97527, 20, -29.3915, -9.85724, 30.0361, -156.085, -88.4383, 50.5805
4.98325, 21, -29.3582, -10.0143, 30.1631, -156, -88.335, 50.4717
4.9911, 21, -29.3253, -10.173, 30.2914, -155.914, -88.231, 50.3618
4.99912, 21, -29.2929, -10.3327, 30.4206, -155.827, -88.1259, 50.2512
5.00755, 21, -29.2609, -10.4934, 30.5506, -155.739, -88.0195, 50.1397
5.01635, 21, -29.2294, -10.6553, 30.6815, -155.651, -87.9124, 50.0272
5.0233, 22, -29.1983, -10.8188, 30.8133, -155.561, -87.8042, 49.9139
5.03355, 22, -29.1674, -10.9834, 30.9461, -155.47, -87.6949, 49.7996
5.04021, 22, -29.1371, -11.1489, 31.0798, -155.379, -87.5848, 49.6843
5.04815, 22, -29.1071, -11.3155, 31.2144, -155.287, -87.4734, 49.5682
5.0555, 22, -29.0774, -11.4836, 31.35, -155.194, -87.3613, 49.4513
5.06363, 23, -29.0482, -11.6533, 31.4864, -155.1, -87.2482, 49.3337
5.07225, 23, -29.0192, -11.8241, 31.6235, -155.005, -87.134, 49.2153
5.07963, 23, -28.9907, -11.9957, 31.7615, -154.909, -87.0194, 49.0963
5.09091, 23, -28.9626, -12.1685, 31.9004, -154.813, -86.9036, 48.977
5.09567, 23, -28.9487, -12.2554, 31.9702, -154.716, -86.7869, 48.8567
5.10421, 24, -28.9075, -12.5183, 32.1809, -154.617, -86.6693, 48.7361
5.11107, 24, -28.8939, -12.6062, 32.2516, -154.568, -86.61, 48.6757
5.12015, 24, -28.8536, -12.871, 32.4644, -154.418, -86.4315, 48.493
5.12712, 24, -28.8404, -12.9599, 32.5357, -154.368, -86.3715, 48.4319
5.13654, 24, -28.8012, -13.2289, 32.7512, -154.216, -86.1903, 48.2475
5.14426, 25, -28.7755, -13.4091, 32.896, -154.114, -86.0686, 48.1242
5.15109, 25, -28.7628, -13.4995, 32.9685, -154.063, -86.0074, 48.0625
5.16068, 25, -28.7248, -13.7722, 33.187, -153.907, -85.8233, 47.8773
5.17258, 25, -28.6997, -13.9558, 33.4072, -153.75, -85.6371, 47.6916
5.17653, 25, -28.6749, -14.14, 33.4811, -153.697, -85.575, 47.6296
5.18315, 26, -28.6627, -14.2323, 33.5551, -153.644, -85.5126, 47.5678
5.19336, 26, -28.6263, -14.5104, 33.7779, -153.483, -85.3244, 47.3814
5.19908, 26, -28.6143, -14.6039, 33.8524, -153.43, -85.2615, 47.3192
5.20944, 26, -28.5788, -14.8855, 34.0774, -153.267, -85.0714, 47.1327
5.21506, 26, -28.567, -14.9794, 34.1527, -153.213, -85.0078, 47.0705
5.22519, 27, -28.5318, -15.2622, 34.3794, -153.048, -84.8161, 46.8845
5.23343, 27, -28.5203, -15.3569, 34.4551, -152.993, -84.752, 46.8229
5.24158, 27, -28.4974, -15.642, 34.6833, -152.826, -84.5589, 46.6378
5.24706, 27, -28.4745, -15.7371, 34.7599, -152.77, -84.4942, 46.5763
5.2585, 27, -28.4409, -16.024, 34.9901, -152.601, -84.3, 46.392
5.26428, 27, -28.4298, -16.1203, 35.0669, -152.544, -84.2349, 46.3307
5.27106, 28, -28.4074, -16.3137, 35.2207, -152.43, -84.1047, 46.2085
5.27913, 28, -28.3851, -16.5076, 35.3754, -152.316, -83.9739, 46.0867
5.28721, 28, -28.3632, -16.7022, 35.5306, -152.201, -83.8431, 45.9655
5.29755, 28, -28.3303, -16.996, 35.764, -152.027, -83.6458, 45.7849
5.30308, 28, -28.3194, -17.0941, 35.8419, -151.969, -83.5801, 45.7252
5.31206, 29, -28.2977, -17.2903, 35.9983, -151.851, -83.4483, 45.6062
5.31906, 29, -28.2762, -17.4871, 36.1555, -151.733, -83.3159, 45.488
5.32706, 29, -28.2547, -17.6849, 36.313, -151.615, -83.1833, 45.3704
5.33622, 29, -28.2332, -17.8827, 36.4703, -151.495, -83.0502, 45.2537
5.34334, 29, -28.2119, -18.0806, 36.6282, -151.375, -82.9171, 45.1378
5.35111, 30, -28.1908, -18.2792, 36.787, -151.255, -82.7835, 45.0232
5.36035, 30, -28.1695, -18.4784, 36.9459, -151.134, -82.6502, 44.9099
5.36886, 30, -28.1482, -18.6776, 37.1044, -151.012, -82.5164, 44.798
5.37511, 30, -28.127, -18.877, 37.263, -150.89, -82.3828, 44.688
5.38385, 30, -28.1056, -19.0775, 37.422, -150.767, -82.2488, 44.5797
5.39207, 31, -28.0841, -19.2784, 37.5812, -150.644, -82.1149, 44.4731
5.3991, 31, -28.0626, -19.4791, 37.7402, -150.52, -81.9809, 44.3681
5.40897, 31, -28.0412, -19.6798, 37.8991, -150.396, -81.8467, 44.2648
5.41506, 31, -28.0196, -19.8809, 38.0588, -150.271, -81.7128, 44.1634
5.42406, 31, -27.9979, -20.0817, 38.2189, -150.146, -81.5783, 44.0629
5.43111, 32, -27.976, -20.282, 38.3787, -150.02, -81.4441, 43.9647
5.43928, 32, -27.954, -20.4828, 38.5383, -149.893, -81.3098, 43.8681
5.44721, 32, -27.9317, -20.6843, 38.6981, -149.767, -81.1759, 43.7738
5.45537, 32, -27.9091, -20.8855, 38.8581, -149.639, -81.0418, 43.6818
5.46419, 32, -27.8865, -21.0861, 39.0177, -149.512, -80.9082, 43.5929
5.47305, 33, -27.8635, -21.287, 39.1765, -149.384, -80.775, 43.5063
5.48014, 33, -27.8403, -21.4877, 39.3354, -149.257, -80.6423, 43.4234
5.48735, 33, -27.8166, -21.6875, 39.4942, -149.129, -80.5099, 43.3428
5.49621, 33, -27.7925, -21.8867, 39.6524, -149.001, -80.378, 43.266
5.50315, 33, -27.7678, -22.0859, 39.8097, -148.874, -80.2466, 43.1919
5.51165, 34, -27.7427, -22.2845, 39.9665, -148.747, -80.1154, 43.1214
5.52009, 34, -27.7171, -22.482, 40.1231, -148.619, -79.9848, 43.0546
5.52728, 34, -27.6911, -22.6789, 40.2794, -148.491, -79.854, 42.99
5.53633, 34, -27.6647, -22.8759, 40.4349, -148.364, -79.7234, 42.9294
5.54428, 34, -27.6378, -23.0723, 40.59, -148.236, -79.5926, 42.8721
5.55152, 34, -27.6103, -23.268, 40.7453, -148.107, -79.4621, 42.8175
5.56047, 35, -27.5828, -23.4637, 40.9004, -147.979, -79.3314, 42.7665
5.56814, 35, -27.5551, -23.6599, 41.0549, -147.85, -79.2011, 42.7194
5.57653, 35, -27.527, -23.8556, 41.2091, -147.721, -79.071, 42.6754
5.58455, 35, -27.4989, -24.0506, 41.3633, -147.591, -78.941, 42.6342
5.59316, 35, -27.4704, -24.2459, 41.5176, -147.461, -78.8114, 42.5968
5.60043, 36, -27.4415, -24.441, 41.6714, -147.33, -78.6818, 42.5635
5.60985, 36, -27.427, -24.5382, 41.7481, -147.265, -78.6173, 42.5345
5.61637, 36, -27.3828, -24.8287, 41.9775, -147.068, -78.4243, 42.5097
5.62427, 36, -27.3525, -25.0222, 42.1301, -146.937, -78.2963, 42.4892
5.63107, 36, -27.3371, -25.1187, 42.2059, -146.872, -78.2325, 42.4806
5.64012, 37, -27.2893, -25.4061, 42.4317, -146.676, -78.0414, 42.4619
5.64705, 37, -27.2729, -25.5013, 42.5063, -146.611, -77.9781, 42.4582
5.6564, 37, -27.2225, -25.7856, 42.7287, -146.418, -77.7886, 42.4529
5.66318, 37, -27.2052, -25.8799, 42.8023, -146.353, -77.7257, 42.4526
5.67104, 37, -27.1699, -26.0671, 42.9484, -146.226, -77.6003, 42.4558
5.68045, 38, -27.1152, -26.345, 43.165, -146.035, -77.413, 42.4729
5.68721, 38, -27.0966, -26.4373, 43.2368, -145.972, -77.3508, 42.4813
5.69658, 38, -27.0397, -26.7126, 43.4512, -145.782, -77.1647, 42.5143
5.70499, 38, -27.0007, -26.8944, 43.5933, -145.655, -77.041, 42.543
5.71129, 38, -26.9811, -26.985, 43.6641, -145.592, -76.9792, 42.5594
5.71919, 39, -26.9413, -27.1661, 43.8052, -145.465, -76.8559, 42.5967
5.72712, 39, -26.9008, -27.347, 43.9457, -145.338, -76.7326, 42.6402
5.73698, 39, -26.8387, -27.6162, 44.1552, -145.148, -76.5477, 42.7155
5.74389, 39, -26.8176, -27.7055, 44.2247, -145.084, -76.4861, 42.7434
5.75214, 39, -26.7749, -27.8838, 44.3628, -144.957, -76.3627, 42.8045
5.76004, 40, -26.7313, -28.0616, 44.4997, -144.831, -76.2396, 42.8717
5.76805, 40, -26.6865, -28.2377, 44.6355, -144.706, -76.1167, 42.9449
5.77611, 40, -26.6408, -28.4122, 44.77, -144.581, -75.9945, 43.0258
5.78554, 40, -26.5702, -28.6715, 44.9688, -144.396, -75.812, 43.1577
5.79352, 40, -26.5461, -28.8427, 45.0994, -144.274, -75.6915, 43.2547
5.79934, 41, -26.497, -28.9276, 45.1641, -144.214, -75.6314, 43.3054
5.80707, 41, -26.4469, -29.0959, 45.2926, -144.093, -75.5115, 43.4122
5.81615, 41, -26.3955, -29.2627, 45.4196, -143.974, -75.3924, 43.5256
5.82404, 41, -26.3429, -29.4284, 45.5454, -143.855, -75.2734, 43.6459
5.83106, 41, -26.2889, -29.5924, 45.6698, -143.737, -75.1547, 43.7734
5.83921, 42, -26.2338, -29.7542, 45.7923, -143.621, -75.0369, 43.908
5.84713, 42, -26.1772, -29.9144, 45.9132, -143.506, -74.919, 44.0499
5.8551, 42, -26.119, -30.0729, 46.0321, -143.392, -74.8021, 44.199
5.86304, 42, -26.0592, -30.2296, 46.1488, -143.28, -74.6856, 44.3551
5.87205, 42, -25.9978, -30.3838, 46.2635, -143.17, -74.5694, 44.5185
5.88018, 42, -25.9348, -30.5356, 46.376, -143.062, -74.4539, 44.6891
5.88819, 43, -25.87, -30.6852, 46.4861, -142.956, -74.3387, 44.8672
5.89604, 43, -25.8035, -30.8327, 46.5942, -142.852, -74.2241, 45.0531
5.90411, 43, -25.7353, -30.9779, 46.7002, -142.749, -74.1098, 45.2467
5.91121, 43, -25.6656, -31.1207, 46.8043, -142.648, -73.9959, 45.4479
5.92002, 43, -25.5944, -31.2613, 46.9066, -142.549, -73.8826, 45.6568
5.92804, 44, -25.5216, -31.4, 47.0069, -142.452, -73.7698, 45.8734
5.93622, 44, -25.447, -31.5366, 47.1047, -142.358, -73.6578, 46.0982
5.94841, 44, -25.3317, -31.7373, 47.247, -142.22, -73.4906, 46.4505
5.95114, 44, -25.2924, -31.8029, 47.2932, -142.175, -73.4352, 46.572
5.96, 44, -25.2125, -31.932, 47.3838, -142.087, -73.3252, 46.8211
5.96811, 45, -25.1307, -32.0584, 47.472, -142.003, -73.2155, 47.0785
5.97518, 45, -25.0469, -32.1821, 47.5578, -141.921, -73.1064, 47.3446
5.98527, 45, -24.9609, -32.303, 47.6407, -141.842, -72.9978, 47.6188
5.99195, 45, -24.8728, -32.4208, 47.7207, -141.766, -72.8895, 47.9012
6.00104, 45, -24.7824, -32.5354, 47.7976, -141.693, -72.782, 48.192
6.00883, 46, -24.6895, -32.6466, 47.8715, -141.623, -72.675, 48.4916
6.01606, 46, -24.5943, -32.7545, 47.9425, -141.556, -72.5684, 48.7994
6.02325, 46, -24.4966, -32.8589, 48.0105, -141.493, -72.463, 49.1151
6.0353, 46, -24.3459, -33.0086, 48.1065, -141.406, -72.3061, 49.6052
6.04024, 46, -24.2945, -33.0567, 48.1368, -141.379, -72.2546, 49.7725
6.04745, 47, -24.19, -33.15, 48.1948, -141.328, -72.1522, 50.1134
6.05628, 47, -24.0831, -33.2393, 48.2492, -141.281, -72.0507, 50.4623
6.06359, 47, -23.9736, -33.3247, 48.3, -141.237, -71.9504, 50.8197
6.07238, 47, -23.8615, -33.4059, 48.347, -141.199, -71.8513, 51.1855
6.07958, 47, -23.7467, -33.4831, 48.3902, -141.165, -71.7534, 51.5601
6.08832, 48, -23.629, -33.5559, 48.4295, -141.135, -71.6567, 51.9434
6.0966, 48, -23.5087, -33.6244, 48.4647, -141.11, -71.5619, 52.3354
6.10363, 48, -23.4476, -33.6569, 48.4807, -141.09, -71.4683, 52.7368
6.11278, 48, -23.2605, -33.7472, 48.5226, -141.075, -71.3765, 53.148
6.12007, 48, -23.1325, -33.8011, 48.5451, -141.065, -71.2868, 53.5678
6.12786, 48, -23.0674, -33.8261, 48.5547, -141.062, -71.2426, 53.7813
6.13518, 49, -22.9351, -33.8722, 48.5706, -141.059, -71.1556, 54.2143
6.14511, 49, -22.7309, -33.9313, 48.5859, -141.064, -71.0291, 54.878
6.15109, 49, -22.6614, -33.9481, 48.5885, -141.068, -70.9879, 55.1032
6.16042, 49, -22.4486, -33.9902, 48.59, -141.092, -70.8679, 55.7893
6.16941, 49, -22.3033, -34.0108, 48.5849, -141.116, -70.791, 56.2563
6.17503, 50, -22.2296, -34.0188, 48.5805, -141.13, -70.7539, 56.4922
6.18567, 50, -22.0046, -34.0334, 48.5594, -141.181, -70.6459, 57.2113
6.19324, 50, -21.851, -34.0355, 48.5389, -141.222, -70.5781, 57.7007
6.19903, 50, -21.7731, -34.0343, 48.5266, -141.246, -70.5451, 57.9481
6.20861, 50, -21.5348, -34.0209, 48.4812, -141.324, -70.4525, 58.7011
6.2213, 51, -21.29, -33.9921, 48.4238, -141.418, -70.3672, 59.468
6.22351, 51, -21.29, -33.9921, 48.4238, -141.418, -70.3672, 59.468
6.23103, 51, -21.1234, -33.9641, 48.3785, -141.487, -70.3156, 59.987
6.24714, 51, -20.7827, -33.8868, 48.271, -141.646, -70.2228, 61.0426
6.24903, 51, -20.6959, -33.8628, 48.2405, -141.69, -70.2023, 61.31
6.25503, 52, -20.6084, -33.8368, 48.2085, -141.735, -70.1831, 61.579
6.26548, 52, -20.342, -33.747, 48.1036, -141.88, -70.1323, 62.3961
6.27201, 52, -20.2518, -33.713, 48.0656, -141.932, -70.1175, 62.672
6.28008, 52, -20.0692, -33.639, 47.985, -142.04, -70.0916, 63.2279
6.28828, 52, -19.8841, -33.5566, 47.898, -142.154, -70.0711, 63.7899
6.29921, 53, -19.6021, -33.4171, 47.7559, -142.337, -70.0505, 64.6439
6.30299, 53, -19.5071, -33.3665, 47.7055, -142.401, -70.0464, 64.9313
6.31204, 53, -19.3156, -33.2591, 47.6002, -142.534, -70.042, 65.5084
6.32003, 53, -19.1224, -33.1435, 47.4891, -142.672, -70.0424, 66.089
6.32804, 53, -18.9274, -33.0197, 47.3721, -142.816, -70.0485, 66.6733
6.33848, 54, -18.6317, -32.8184, 47.1856, -143.04, -70.0695, 67.5528
6.34425, 54, -18.5323, -32.7472, 47.1205, -143.117, -70.0797, 67.8464
6.35372, 54, -18.2309, -32.5212, 46.917, -143.355, -70.1207, 68.7293
6.36003, 54, -18.1296, -32.4418, 46.8464, -143.436, -70.1375, 69.0243
6.3688, 54, -17.926, -32.2763, 46.7008, -143.602, -70.1756, 69.6157
6.37625, 55, -17.7215, -32.1018, 46.549, -143.773, -70.2208, 70.2087
6.38409, 55, -17.516, -31.9179, 46.3909, -143.949, -70.2747, 70.8055
6.39203, 55, -17.309, -31.7247, 46.2264, -144.129, -70.3354, 71.4069
6.4001, 55, -17.1004, -31.5218, 46.0547, -144.315, -70.4055, 72.0126
6.40709, 55, -16.8901, -31.3083, 45.8752, -144.506, -70.4837, 72.623
6.41623, 56, -16.6781, -31.084, 45.6887, -144.701, -70.5716, 73.2386
6.42428, 56, -16.4645, -30.8494, 45.4954, -144.901, -70.6683, 73.8586
6.4311, 56, -16.2497, -30.6038, 45.2944, -145.106, -70.7741, 74.4815
6.44259, 56, -15.9271, -30.2155, 44.9795, -145.42, -70.9506, 75.4214
6.4474, 56, -15.8197, -30.0809, 44.8717, -145.526, -71.014, 75.736
6.45633, 57, -15.6044, -29.8033, 44.6509, -145.741, -71.1479, 76.3659
6.46338, 57, -15.3881, -29.5156, 44.4229, -145.959, -71.291, 76.9959
6.4712, 57, -15.1707, -29.2179, 44.1892, -146.178, -71.4437, 77.627
6.47917, 57, -14.9527, -28.9102, 43.9492, -146.4, -71.6058, 78.2582
6.48719, 57, -14.7349, -28.5942, 43.7035, -146.623, -71.7774, 78.8873
6.49534, 57, -14.5176, -28.2696, 43.4537, -146.846, -71.9578, 79.5146
6.50403, 58, -14.3012, -27.9377, 43.199, -147.07, -72.1464, 80.1387
6.51209, 58, -14.086, -27.5977, 42.941, -147.292, -72.3427, 80.758
6.52002, 58, -13.8725, -27.2507, 42.68, -147.513, -72.5466, 81.3709
6.5276, 58, -13.6603, -26.8967, 42.4155, -147.732, -72.7578, 81.9785
6.53523, 58, -13.4492, -26.5363, 42.1485, -147.949, -72.976, 82.5804
6.5433, 59, -13.2395, -26.1685, 41.8774, -148.164, -73.2018, 83.1765
6.55147, 59, -13.0317, -25.7943, 41.6028, -148.378, -73.4352, 83.7675
6.5595, 59, -12.8256, -25.4131, 41.3247, -148.59, -73.6768, 84.3549
6.56832, 59, -12.6205, -25.0254, 41.0425, -148.8, -73.9265, 84.9383
6.57667, 59, -12.4166, -24.6302, 40.7569, -149.009, -74.1849, 85.5173
6.58421, 60, -12.2138, -24.2281, 40.4667, -149.215, -74.4515, 86.0924
6.59348, 60, -12.0126, -23.8194, 40.1737, -149.419, -74.7265, 86.6634
6.60207, 60, -11.8129, -23.4049, 39.8775, -149.62, -75.0093, 87.2304
6.60843, 60, -11.7136, -23.1949, 39.7286, -149.72, -75.1537, 87.7913
6.61555, 60, -11.5167, -22.7713, 39.4298, -149.917, -75.4477, 88.0696
6.62419, 61, -11.2258, -22.1272, 38.9785, -150.205, -75.9006, 88.8956
6.63102, 61, -11.1299, -21.9107, 38.8277, -150.3, -76.0545, 89.1672
6.63903, 61, -10.9399, -21.4747, 38.5249, -150.484, -76.3659, 89.7043
6.65084, 61, -10.6588, -20.8139, 38.0706, -150.752, -76.8418, 90.4927
6.65498, 61, -10.5663, -20.5917, 37.9188, -150.839, -77.0029, 90.7516
6.66451, 62, -10.292, -19.919, 37.4632, -151.093, -77.493, 91.5154
6.67102, 62, -10.2021, -19.6929, 37.3109, -151.175, -77.6591, 91.7662
6.68038, 62, -9.93604, -19.0106, 36.853, -151.416, -78.1654, 92.5067
6.68712, 62, -9.84862, -18.7817, 36.6998, -151.494, -78.337, 92.7502
6.70284, 62, -9.5052, -17.8627, 36.0862, -151.794, -79.036, 93.7055
6.70514, 63, -9.42073, -17.6323, 35.9329, -151.866, -79.2133, 93.939
6.71107, 63, -9.33684, -17.4016, 35.78, -151.937, -79.3915, 94.17
6.71904, 63, -9.17085, -16.9395, 35.4761, -152.074, -79.7496, 94.6235
6.72942, 63, -9.00752, -16.2432, 35.0237, -152.269, -80.2897, 95.284
6.73502, 63, -8.84682, -16.01, 34.8741, -152.331, -80.4703, 95.4982
6.74487, 63, -8.6887, -15.5418, 34.4275, -152.509, -81.0154, 96.1255
6.75125, 64, -8.53307, -15.0716, 34.2798, -152.566, -81.1985, 96.3295
6.75903, 64, -8.37987, -14.6, 33.9843, -152.675, -81.5676, 96.7299
6.77011, 64, -8.15424, -13.8904, 33.5402, -152.832, -82.1307, 97.3145
6.77501, 64, -8.08009, -13.6536, 33.392, -152.882, -82.3212, 97.5049
6.78403, 64, -7.93358, -13.1802, 33.0954, -152.978, -82.7058, 97.8782
6.79231, 65, -7.78948, -12.7072, 32.8002, -153.069, -83.0941, 98.2409
6.80188, 65, -7.64806, -12.235, 32.5065, -153.154, -83.6802, 98.7616
6.80708, 65, -7.50972, -11.7635, 32.2165, -153.234, -83.8757, 98.9281
6.81915, 65, -7.30788, -11.0571, 31.7889, -153.342, -84.4603, 99.4055
6.82318, 65, -7.24212, -10.8222, 31.6488, -153.374, -84.6546, 99.5572
6.83202, 66, -7.11258, -10.3545, 31.3716, -153.435, -85.0415, 99.8487
6.83904, 66, -6.9853, -9.89012, 31.0983, -153.491, -85.4268, 100.124
6.84801, 66, -6.86025, -9.43136, 30.8301, -153.54, -85.8111, 100.384
6.85504, 66, -6.73734, -8.97895, 30.5656, -153.584, -86.1935, 100.627
6.86306, 66, -6.61661, -8.53351, 30.3056, -153.622, -86.5734, 100.854
6.87219, 67, -6.49848, -8.09492, 30.0513, -153.655, -86.9496, 101.064
6.87923, 67, -6.38316, -7.66324, 29.8027, -153.681, -87.3213, 101.256
6.88702, 67, -6.27094, -7.23841, 29.5619, -153.702, -87.6875, 101.43
6.89624, 67, -6.16141, -6.81954, 29.3282, -153.717, -88.0477, 101.586
6.90649, 67, -6.05439, -6.40748, 29.1011, -153.729, -88.5771, 101.787
6.91102, 68, -5.9499, -6.0021, 28.8809, -153.731, -88.751, 101.846
6.92095, 68, -5.84723, -5.60342, 28.6661, -153.731, -89.096, 101.949
6.92801, 68, -5.74631, -5.21008, 28.4549, -153.727, -89.4383, 102.036
6.93602, 68, -5.64705, -4.82234, 28.2475, -153.718, -89.7788, 102.105
6.94502, 68, -5.54932, -4.43969, 28.0433, -153.705, -90.1184, 102.156
6.95127, 69, -5.45332, -4.06126, 27.8416, -153.688, -90.4572, 102.188
6.96006, 69, -5.35903, -3.68596, 27.6436, -153.666, -90.7959, 102.204
6.97058, 69, -5.22077, -3.12951, 27.3541, -153.625, -91.3031, 102.191
6.97601, 69, -5.17562, -2.94597, 27.2591, -153.608, -91.4719, 102.176
6.98408, 69, -5.08658, -2.58131, 27.0715, -153.574, -91.8088, 102.131
6.99198, 70, -4.99899, -2.21948, 26.8882, -153.536, -92.1446, 102.064
7.00183, 70, -4.91272, -1.86171, 26.7087, -153.493, -92.4791, 101.974
7.00808, 70, -4.82759, -1.50852, 26.5323, -153.447, -92.8122, 101.863
7.01613, 70, -4.74353, -1.16081, 26.36, -153.398, -93.1433, 101.729
7.02354, 70, -4.66062, -0.818217, 26.1925, -153.346, -93.4721, 101.573
7.0326, 71, -4.5787, -0.482039, 26.0286, -153.289, -93.7982, 101.395
7.03921, 71, -4.49792, -0.152059, 25.8687, -153.232, -94.1211, 101.197
7.04732, 71, -4.41828, 0.170833, 25.7143, -153.17, -94.4404, 100.978
7.05538, 71, -4.33938, 0.487366, 25.5653, -153.107, -94.7558, 100.738
7.06352, 71, -4.26132, 0.79779, 25.4211, -153.041, -95.0673, 100.477
7.07231, 71, -4.1841, 1.10117, 25.2816, -152.974, -95.375, 100.197
7.08009, 72, -4.10738, 1.39812, 25.1465, -152.905, -95.6791, 99.8976
7.08766, 72, -4.03101, 1.68797, 25.0153, -152.834, -95.9799, 99.5776
7.09615, 72, -3.95499, 1.97145, 24.8875, -152.763, -96.2781, 99.2369
7.10372, 72, -3.879, 2.24902, 24.7629, -152.69, -96.5738, 98.8756
7.11218, 72, -3.803, 2.52027, 24.6414, -152.617, -96.8672, 98.4927
7.11976, 73, -3.7651, 2.65379, 24.5228, -152.543, -97.1582, 98.0876
7.12916, 73, -3.65111, 3.04535, 24.4076, -152.47, -97.4468, 97.6602
7.13616, 73, -3.57468, 3.29822, 24.2959, -152.396, -97.7326, 97.21
7.14547, 73, -3.49791, 3.54501, 24.188, -152.323, -98.0155, 96.7385
7.15482, 73, -3.42079, 3.7849, 24.084, -152.251, -98.2948, 96.2459
7.16036, 74, -3.34305, 4.01647, 23.984, -152.18, -98.5702, 95.7336
7.16701, 74, -3.30391, 4.12917, 23.9354, -152.145, -98.7059, 95.471
7.17805, 74, -3.18562, 4.45466, 23.7957, -152.043, -99.1049, 94.6596
7.183, 74, -3.14584, 4.55844, 23.7513, -152.01, -99.2347, 94.3827
7.19252, 74, -3.02553, 4.85499, 23.6245, -151.914, -99.6136, 93.5342
7.20093, 75, -2.9443, 5.04074, 23.5455, -151.853, -99.8561, 92.9562
7.20858, 75, -2.86203, 5.21624, 23.4706, -151.796, -100.09, 92.3708
7.21657, 75, -2.77882, 5.38064, 23.3998, -151.74, -100.315, 91.7785
7.2318, 75, -2.65237, 5.60707, 23.3009, -151.664, -100.634, 90.8774
7.23389, 75, -2.60976, 5.6771, 23.27, -151.64, -100.735, 90.5737
7.24057, 76, -2.56688, 5.74427, 23.2402, -151.617, -100.932, 89.9614
7.24907, 76, -2.43674, 5.92855, 23.1571, -151.553, -101.119, 89.3407
7.25509, 76, -2.3929, 5.98415, 23.1316, -151.534, -101.209, 89.0268
7.26405, 76, -2.30467, 6.08629, 23.0838, -151.499, -101.383, 88.3926
7.27104, 76, -2.21566, 6.17603, 23.0404, -151.467, -101.546, 87.7515
7.28018, 77, -2.12583, 6.25304, 23.0018, -151.439, -101.699, 87.1036
7.28809, 77, -2.03517, 6.31703, 22.9683, -151.415, -101.84, 86.452
7.29501, 77, -1.94362, 6.36786, 22.9403, -151.396, -101.968, 85.8005
7.30404, 77, -1.85111, 6.40486, 22.918, -151.38, -102.082, 85.1512
7.31101, 77, -1.75774, 6.42782, 22.9014, -151.368, -102.182, 84.5046
7.32, 77, -1.66357, 6.43659, 22.8908, -151.36, -102.267, 83.8622
7.32814, 78, -1.56861, 6.43062, 22.8857, -151.356, -102.336, 83.2248
7.33605, 78, -1.47297, 6.40937, 22.8861, -151.354, -102.39, 82.5905
7.344, 78, -1.37691, 6.37282, 22.8923, -151.355, -102.428, 81.9603
7.35118, 78, -1.28053, 6.32033, 22.9046, -151.359, -102.45, 81.3349
7.35905, 78, -1.18385, 6.25171, 22.9233, -151.368, -102.458, 80.7149
7.36808, 79, -1.08702, 6.16692, 22.9488, -151.379, -102.448, 80.1007
7.37701, 79, -0.990016, 6.06601, 22.9815, -151.393, -102.419, 79.4939
7.38403, 79, -0.89295, 5.94895, 23.0216, -151.411, -102.374, 78.8966
7.39303, 79, -0.795967, 5.81559, 23.0692, -151.431, -102.311, 78.3085
7.40003, 79, -0.698981, 5.66555, 23.1244, -151.454, -102.23, 77.7302
7.40803, 80, -0.601921, 5.4991, 23.1871, -151.48, -102.131, 77.1625
7.41504, 80, -0.504825, 5.31615, 23.2574, -151.507, -102.013, 76.6059
7.42714, 80, -0.359274, 5.0106, 23.3781, -151.55, -101.802, 75.7889
7.43212, 80, -0.310865, 4.90006, 23.4224, -151.565, -101.723, 75.5213
7.44004, 80, -0.214085, 4.6651, 23.5172, -151.597, -101.549, 74.9931
7.44799, 81, -0.117397, 4.41251, 23.6208, -151.631, -101.356, 74.4751
7.45532, 81, -0.0209047, 4.14323, 23.7333, -151.665, -101.144, 73.9662
7.46407, 81, 0.0753342, 3.85679, 23.855, -151.7, -100.912, 73.4662
7.47205, 81, 0.17136, 3.55387, 23.9864, -151.736, -100.661, 72.9757
7.47932, 81, 0.267191, 3.23349, 24.1275, -151.773, -100.392, 72.4949
7.48805, 82, 0.362803, 2.89589, 24.2786, -151.81, -100.103, 72.0238
7.496, 82, 0.458221, 2.5416, 24.439, -151.848, -99.7943, 71.562
7.50406, 82, 0.553315, 2.17153, 24.6087, -151.885, -99.4671, 71.1098
7.51201, 82, 0.648193, 1.78538, 24.788, -151.923, -99.1219, 70.6671
7.52, 82, 0.74296, 1.38255, 24.977, -151.959, -98.7592, 70.2346
7.52815, 83, 0.837658, 0.963737, 25.1748, -151.995, -98.3797, 69.8129
7.53626, 83, 0.932397, 0.530584, 25.3824, -152.031, -97.9838, 69.401
7.54402, 83, 1.02715, 0.0827902, 25.6005, -152.065, -97.5721, 68.9998
7.55821, 83, 1.16946, -0.61599, 25.944, -152.113, -96.9258, 68.4169
7.56087, 83, 1.21692, -0.855981, 26.063, -152.129, -96.7027, 68.2275
7.56785, 83, 1.31193, -1.34678, 26.3089, -152.159, -96.2453, 67.8562
7.57607, 84, 1.40725, -1.85124, 26.5644, -152.188, -95.7725, 67.4932
7.58351, 84, 1.50276, -2.36858, 26.8303, -152.215, -95.2849, 67.1377
7.59258, 84, 1.59863, -2.89972, 27.1066, -152.241, -94.7812, 66.79
7.6003, 84, 1.6948, -3.44418, 27.3929, -152.265, -94.2626, 66.4492
7.60998, 84, 1.79144, -4.00203, 27.69, -152.287, -93.729, 66.1149
7.61625, 85, 1.88828, -4.57277, 27.9969, -152.308, -93.18, 65.7883
7.62473, 85, 1.98547, -5.15458, 28.314, -152.327, -92.6165, 65.4697
7.63735, 85, 2.08301, -5.74656, 28.6402, -152.351, -91.7493, 65.0063
7.64055, 85, 2.18099, -6.34785, 28.9757, -152.358, -91.4549, 64.8561
7.6484, 85, 2.27963, -6.95714, 29.3196, -152.369, -90.8584, 64.5629
7.65691, 86, 2.37889, -7.5738, 29.6715, -152.378, -90.2524, 64.2795
7.66489, 86, 2.47916, -8.19632, 30.0301, -152.383, -89.6375, 64.0065
7.67378, 86, 2.58049, -8.8251, 30.3953, -152.386, -89.0142, 63.7442
7.68038, 86, 2.6825, -9.4596, 30.766, -152.387, -88.3865, 63.4935
7.68701, 86, 2.73389, -9.77847, 30.9534, -152.386, -88.0713, 63.3725
7.69645, 87, 2.88978, -10.7405, 31.5235, -152.378, -87.1176, 63.027
7.7046, 87, 2.99452, -11.3851, 31.9093, -152.368, -86.4747, 62.8116
7.71462, 87, 3.10043, -12.0323, 32.2999, -152.354, -85.827, 62.6087
7.72071, 87, 3.20705, -12.6811, 32.6946, -152.337, -85.1759, 62.4188
7.72858, 87, 3.31425, -13.3315, 33.094, -152.315, -84.522, 62.2417
7.7367, 88, 3.36816, -13.6574, 33.2955, -152.303, -83.8632, 62.0779
7.74464, 88, 3.47652, -14.311, 33.7015, -152.261, -83.2007, 61.9277
7.75258, 88, 3.58552, -14.9668, 34.1119, -152.245, -82.868, 61.8578
7.75998, 88, 3.69535, -15.6238, 34.5264, -152.209, -82.1995, 61.7286
7.77182, 88, 3.86109, -16.6113, 35.1563, -152.147, -81.1914, 61.563
7.7762, 89, 3.91652, -16.9406, 35.3686, -152.124, -80.854, 61.5154
7.78399, 89, 4.02755, -17.5985, 35.7957, -152.074, -80.1767, 61.4336
7.79793, 89, 4.19415, -18.5818, 36.4422, -151.958, -78.8098, 61.3223
7.79994, 89, 4.24965, -18.9082, 36.659, -151.958, -78.8098, 61.3223
7.80831, 89, 4.36063, -19.5585, 37.0935, -151.892, -78.1234, 61.2951
7.81521, 90, 4.47143, -20.2035, 37.5279, -151.82, -77.4399, 61.2868
7.82306, 90, 4.58267, -20.8436, 37.9611, -151.743, -76.7583, 61.3014
7.8321, 90, 4.69454, -21.4788, 38.393, -151.66, -76.0796, 61.3404
7.83998, 90, 4.80664, -22.1092, 38.8227, -151.572, -75.4061, 61.403
7.8481, 90, 4.919, -22.7346, 39.2495, -151.478, -74.7393, 61.491
7.85513, 90, 5.03127, -23.3549, 39.6741, -151.378, -74.0788, 61.6057
7.86401, 91, 5.14355, -23.9703, 40.0971, -151.273, -73.4201, 61.7473
7.87216, 91, 5.25535, -24.5793, 40.5192, -151.16, -72.7621, 61.9174
7.88007, 91, 5.36633, -25.182, 40.9412, -151.041, -72.1041, 62.1161
7.89001, 91, 5.5312, -26.0731, 41.573, -150.851, -71.1149, 62.4704
7.89949, 92, 5.64034, -26.6583, 41.9934, -150.716, -70.4565, 62.7453
7.90299, 92, 5.69491, -26.9481, 42.2031, -150.646, -70.1278, 62.8947
7.91205, 92, 5.80437, -27.5219, 42.6199, -150.501, -69.4718, 63.2169
7.92005, 92, 5.91442, -28.0875, 43.0323, -150.352, -68.8188, 63.5698
7.928, 92, 6.02518, -28.6444, 43.4396, -150.198, -68.1688, 63.9547
7.93599, 92, 6.13706, -29.191, 43.8407, -150.041, -67.525, 64.3707
7.94407, 93, 6.25035, -29.7267, 44.2354, -149.88, -66.8878, 64.8185
7.95464, 93, 6.42376, -30.5107, 44.8153, -149.636, -65.94, 65.5501
7.96008, 93, 6.48267, -30.7672, 45.0056, -149.554, -65.6258, 65.81
7.96798, 93, 6.60211, -31.2749, 45.3826, -149.39, -64.999, 66.356
7.97515, 93, 6.7237, -31.7766, 45.7548, -149.224, -64.3732, 66.9391
7.98338, 94, 6.84751, -32.2731, 46.1239, -149.058, -63.7467, 67.5643
7.99106, 94, 6.97372, -32.7647, 46.4903, -148.891, -63.1148, 68.236
7.99901, 94, 7.10196, -33.2505, 46.8553, -148.724, -62.4767, 68.9603
8.00717, 94, 7.23236, -33.7286, 47.2181, -148.558, -61.8321, 69.7378
8.01579, 94, 7.36582, -34.1996, 47.5778, -148.396, -61.181, 70.567
8.02396, 95, 7.50325, -34.6622, 47.9308, -148.239, -60.5289, 71.4502
8.03205, 95, 7.64573, -35.1144, 48.2756, -148.091, -59.8793, 72.3801
8.04005, 95, 7.79418, -35.5557, 48.6094, -147.955, -59.2346, 73.351
8.04799, 95, 7.94898, -35.9836, 48.9307, -147.834, -58.5973, 74.3611
8.05533, 95, 8.11068, -36.3935, 49.2367, -147.73, -57.9688, 75.4041
8.06419, 95, 8.27917, -36.7835, 49.5272, -147.643, -57.3508, 76.4811
8.07153, 96, 8.45449, -37.1522, 49.8007, -147.576, -56.7474, 77.5874
8.08013, 96, 8.63571, -37.4978, 50.0574, -147.53, -56.1579, 78.7222
8.0876, 96, 8.82206, -37.8184, 50.2968, -147.504, -55.5835, 79.8792
8.09614, 96, 9.01316, -38.1134, 50.5168, -147.498, -55.0268, 81.0526
8.10432, 96, 9.20748, -38.3835, 50.7173, -147.513, -54.4902, 82.2368
8.11164, 97, 9.30535, -38.628, 50.8985, -147.551, -53.9766, 83.4313
8.12016, 97, 9.59973, -38.8471, 51.059, -147.61, -53.4879, 84.6296
8.12761, 97, 9.69757, -38.9475, 51.1315, -147.646, -53.2533, 85.8216
8.13601, 97, 9.98922, -39.2116, 51.3198, -147.783, -52.5926, 87.0013
8.14298, 97, 10.0853, -39.2868, 51.3728, -147.837, -52.3872, 87.5838
8.15214, 97, 10.3685, -39.4743, 51.5027, -148.017, -51.8168, 89.2917
8.15904, 97, 10.461, -39.5241, 51.5368, -148.083, -51.6422, 89.8453
8.16831, 98, 10.7344, -39.6371, 51.6121, -148.295, -51.1637, 91.4545
8.17501, 98, 10.8246, -39.6633, 51.6284, -148.37, -51.0187, 91.9769
8.18433, 98, 11.0929, -39.7072, 51.6513, -148.613, -50.6207, 93.5241
8.19112, 98, 11.1813, -39.7102, 51.6506, -148.699, -50.4989, 94.0397
8.20046, 98, 11.4443, -39.6841, 51.6227, -148.979, -50.1624, 95.6038
8.20857, 98, 11.6197, -39.6369, 51.5821, -149.183, -49.9617, 96.6725
8.21656, 99, 11.795, -39.5664, 51.5237, -149.4, -49.7813, 97.7623
8.22451, 99, 11.9686, -39.4733, 51.4468, -149.628, -49.6242, 98.8682
8.23333, 99, 12.1394, -39.3576, 51.3515, -149.864, -49.4936, 99.9794
8.23898, 99, 12.2235, -39.2914, 51.297, -149.985, -49.4391, 100.534
8.2491, 99, 12.4685, -39.0592, 51.1073, -150.351, -49.3221, 102.176
8.255, 99, 12.5467, -38.9708, 51.0358, -150.473, -49.2983, 102.713
8.2657, 100, 12.7688, -38.6701, 50.7981, -150.833, -49.2744, 104.275
8.27205, 100, 12.8385, -38.5576, 50.7108, -150.951, -49.2823, 104.782
8.28005, 100, 12.9711, -38.3155, 50.5232, -151.183, -49.3223, 105.773
8.28797, 100, 13.0948, -38.051, 50.3188, -151.41, -49.393, 106.737
8.29597, 100, 13.2102, -37.7651, 50.0977, -151.63, -49.4953, 107.679
8.30303, 100, 13.3176, -37.4578, 49.8582, -151.844, -49.6285, 108.596
8.31205, 101, 13.4167, -37.1264, 49.6013, -152.05, -49.7921, 109.495
8.32045, 101, 13.5078, -36.7702, 49.3276, -152.249, -49.9857, 110.369
8.32697, 101, 13.5909, -36.3873, 49.0365, -152.439, -50.209, 111.22
8.33599, 101, 13.6661, -35.9782, 48.7279, -152.62, -50.4624, 112.049
8.34299, 101, 13.733, -35.5445, 48.4004, -152.791, -50.7471, 112.856
8.35606, 101, 13.8179, -34.8495, 47.875, -153.028, -51.2355, 114.029
8.35992, 102, 13.8419, -34.606, 47.6908, -153.102, -51.4152, 114.409
8.36799, 102, 13.883, -34.1012, 47.3088, -153.24, -51.8, 115.151
8.37605, 102, 13.9147, -33.5718, 46.9092, -153.366, -52.2183, 115.873
8.38644, 102, 13.9375, -33.0186, 46.4931, -153.478, -52.6701, 116.569
8.39107, 102, 13.9516, -32.4429, 46.0626, -153.577, -53.1535, 117.239
8.39898, 102, 13.9575, -31.8448, 45.6182, -153.661, -53.6652, 117.883
8.40797, 103, 13.9558, -31.2264, 45.1605, -153.731, -54.2031, 118.499
8.41598, 103, 13.9471, -30.5896, 44.6912, -153.788, -54.765, 119.087
8.42403, 103, 13.932, -29.937, 44.2116, -153.83, -55.3476, 119.649
8.43202, 103, 13.9109, -29.2702, 43.7235, -153.86, -55.9483, 120.185
8.43905, 103, 13.8845, -28.5904, 43.2283, -153.878, -56.5659, 120.693
8.44802, 104, 13.8534, -27.8999, 42.7277, -153.886, -57.1968, 121.174
8.45598, 104, 13.8183, -27.2008, 42.2237, -153.883, -57.8395, 121.631
8.46397, 104, 13.7791, -26.4942, 41.7168, -153.869, -58.4962, 122.065
8.47209, 104, 13.7365, -25.7812, 41.2078, -153.847, -59.1653, 122.478
8.47907, 104, 13.6917, -25.0648, 40.6981, -153.817, -59.8446, 122.874
8.48715, 104, 13.6451, -24.3461, 40.1877, -153.779, -60.532, 123.254
8.49504, 104, 13.5967, -23.6252, 39.6775, -153.734, -61.2249, 123.623
8.50298, 104, 13.5468, -22.9029, 39.1683, -153.684, -61.923, 123.983
8.51203, 104, 13.496, -22.1801, 38.6602, -153.628, -62.6245, 124.339
8.52003, 104, 13.4446, -21.4564, 38.1537, -153.568, -63.3282, 124.69
8.52797, 104, 13.3927, -20.7333, 37.6486, -153.504, -64.0323, 125.04
8.536, 104, 13.3404, -20.0103, 37.145, -153.435, -64.7366, 125.389
8.54403, 104, 13.288, -19.2872, 36.6435, -153.363, -65.4429, 125.735
8.55203, 104, 13.2355, -18.5636, 36.1437, -153.286, -66.1503, 126.081
8.56003, 104, 13.1832, -17.8399, 35.6462, -153.205, -66.8586, 126.426
8.568, 104, 13.1311, -17.1155, 35.1511, -153.121, -67.5672, 126.771
8.57601, 104, 13.0793, -16.3915, 34.6579, -153.032, -68.2746, 127.115
8.58412, 104, 13.0279, -15.6672, 34.1668, -152.94, -68.9842, 127.459
8.59149, 104, 12.9768, -14.9423, 33.678, -152.843, -69.6955, 127.803
8.60007, 104, 12.9259, -14.217, 33.1916, -152.743, -70.4069, 128.146
8.60814, 104, 12.8755, -13.4919, 32.708, -152.639, -71.1173, 128.49
8.61558, 104, 12.8504, -13.1291, 32.2269, -152.531, -71.828, 128.834
8.62397, 104, 12.7754, -12.0406, 31.7484, -152.42, -72.5409, 129.178
8.6322, 104, 12.7259, -11.3157, 31.2725, -152.304, -73.2537, 129.523
8.63897, 104, 12.7013, -10.9531, 31.0355, -152.245, -73.6102, 129.696
8.64805, 104, 12.6281, -9.86485, 30.3284, -152.061, -74.6803, 130.214
8.65497, 104, 12.6038, -9.50213, 30.0944, -151.998, -75.0367, 130.388
8.66413, 104, 12.5319, -8.41352, 29.3968, -151.802, -76.108, 130.909
8.67102, 104, 12.5082, -8.05034, 29.1658, -151.735, -76.4655, 131.084
8.68035, 104, 12.4376, -6.96212, 28.478, -151.527, -77.5389, 131.608
8.68697, 104, 12.4145, -6.59942, 28.2503, -151.455, -77.8969, 131.784
8.69731, 104, 12.3457, -5.51191, 27.5723, -151.235, -78.9684, 132.312
8.70296, 104, 12.323, -5.14982, 27.3481, -151.159, -79.3258, 132.489
8.71253, 104, 12.2563, -4.06571, 26.682, -150.926, -80.3995, 133.021
8.7205, 104, 12.2132, -3.34608, 26.2442, -150.766, -81.1144, 133.377
8.72858, 104, 12.1711, -2.63176, 25.8114, -150.602, -81.8249, 133.734
8.73654, 104, 12.1506, -1.92361, 25.3846, -150.434, -82.5321, 134.09
8.74449, 104, 12.1106, -1.57223, 25.1739, -150.349, -83.2351, 134.446
8.75287, 104, 12.0714, -0.530976, 24.5546, -150.09, -83.9302, 134.799
8.75999, 104, 12.0333, -0.188945, 24.3531, -150.003, -84.2738, 134.974
8.76796, 104, 11.9961, 0.487308, 23.9579, -149.827, -84.9515, 135.323
8.77601, 104, 11.96, 1.15171, 23.575, -149.651, -85.6151, 135.666
8.78397, 104, 11.9251, 1.80312, 23.2044, -149.475, -86.2648, 136.004
8.79203, 104, 11.8914, 2.44004, 22.8467, -149.299, -86.8993, 136.335
8.8, 104, 11.8587, 3.06066, 22.5011, -149.124, -87.5175, 136.66
8.80801, 104, 11.8272, 3.66531, 22.1688, -148.95, -88.12, 136.978
8.816, 104, 11.7972, 4.25322, 21.8491, -148.777, -88.705, 137.29
8.82297, 104, 11.7682, 4.82444, 21.5422, -148.605, -89.2722, 137.595
8.83096, 104, 11.7408, 5.37862, 21.2467, -148.435, -89.8235, 137.892
8.84001, 104, 11.7145, 5.91534, 20.9631, -148.267, -90.3592, 138.183
8.84795, 104, 11.6892, 6.43554, 20.6915, -148.101, -90.8783, 138.467
8.85503, 104, 11.6652, 6.93888, 20.4313, -147.937, -91.3811, 138.743
8.86403, 104, 11.6423, 7.42492, 20.1831, -147.777, -91.8666, 139.011
8.87204, 104, 11.6205, 7.89464, 19.9456, -147.618, -92.335, 139.272
8.87995, 104, 11.5999, 8.34767, 19.7189, -147.463, -92.7871, 139.525
8.88802, 104, 11.5804, 8.78374, 19.5035, -147.312, -93.2225, 139.771
8.89701, 104, 11.5621, 9.20203, 19.2982, -147.164, -93.6413, 140.008
8.90396, 104, 11.5449, 9.60331, 19.1031, -147.02, -94.0428, 140.237
8.91207, 104, 11.5287, 9.98647, 18.919, -146.88, -94.4273, 140.457
8.91994, 104, 11.5136, 10.3513, 18.7456, -146.745, -94.7934, 140.668
8.92795, 104, 11.4996, 10.6967, 18.5822, -146.616, -95.1412, 140.87
8.93602, 104, 11.4866, 11.0231, 18.4295, -146.492, -95.4696, 141.06
8.94396, 104, 11.4746, 11.3292, 18.2878, -146.374, -95.7776, 141.24
8.95212, 104, 11.4637, 11.6147, 18.1566, -146.264, -96.0653, 141.409
8.95905, 104, 11.4538, 11.8792, 18.0359, -146.16, -96.3316, 141.566
8.96705, 104, 11.4448, 12.1223, 17.926, -146.064, -96.5764, 141.71
8.97595, 104, 11.4364, 12.3443, 17.8266, -145.976, -96.7991, 141.842
8.98408, 104, 11.4288, 12.5455, 17.7375, -145.896, -96.9999, 141.962
8.992, 104, 11.4221, 12.7255, 17.6587, -145.824, -97.1786, 142.068
8.99997, 104, 11.416, 12.8844, 17.5901, -145.761, -97.3353, 142.162
9.00802, 104, 11.4106, 13.0235, 17.5312, -145.706, -97.47, 142.243
9.01601, 104, 11.4056, 13.1434, 17.4817, -145.66, -97.5838, 142.311
9.02396, 104, 11.401, 13.2448, 17.4411, -145.623, -97.6769, 142.366
9.03207, 104, 11.3969, 13.329, 17.4085, -145.592, -97.7516, 142.411
9.03997, 104, 11.3931, 13.3979, 17.3834, -145.569, -97.8087, 142.446
9.04796, 104, 11.3896, 13.4535, 17.3648, -145.551, -97.8508, 142.472
9.05602, 104, 11.3867, 13.4971, 17.3515, -145.538, -97.8809, 142.489
9.06396, 104, 11.3843, 13.53, 17.3426, -145.529, -97.9014, 142.501
9.07205, 104, 11.3824, 13.5546, 17.337, -145.524, -97.9146, 142.508
9.0801, 104, 11.3808, 13.5725, 17.3336, -145.521, -97.9222, 142.513
9.08804, 104, 11.3797, 13.5847, 17.3316, -145.519, -97.9263, 142.515
9.0959, 104, 11.3788, 13.5931, 17.3307, -145.519, -97.9282, 142.516
9.10412, 105, 11.3782, 13.5987, 17.3302, -145.518, -97.9292, 142.516
9.11161, 105, 11.3777, 13.6024, 17.33, -145.518, -97.9296, 142.516
9.12007, 105, 11.3774, 13.6049, 17.3298, -145.518, -97.9298, 142.517
9.12812, 105, 11.3771, 13.607, 17.3298, -145.518, -97.9298, 142.517
9.13496, 105, 11.377, 13.608, 17.3298, -145.518, -97.9298, 142.517
9.144, 105, 11.3768, 13.6105, 17.3298, -145.518, -97.9298, 142.517
9.15095, 105, 11.3767, 13.6112, 17.3298, -145.518, -97.9298, 142.517
9.16007, 105, 11.3766, 13.613, 17.3298, -145.518, -97.9298, 142.517
9.167, 105, 11.3765, 13.6135, 17.3298, -145.518, -97.9297, 142.517
9.17624, 105, 11.3764, 13.6149, 17.3298, -145.518, -97.9296, 142.517
9.18297, 105, 11.3764, 13.6152, 17.3298, -145.518, -97.9295, 142.517
9.19241, 105, 11.3764, 13.616, 17.3299, -145.518, -97.9294, 142.517
9.19935, 105, 11.3764, 13.6161, 17.3299, -145.518, -97.9292, 142.517
9.20695, 105, 11.3764, 13.6164, 17.3299, -145.518, -97.9291, 142.517
9.21644, 105, 11.3764, 13.6165, 17.3299, -145.518, -97.9289, 142.517
9.22517, 105, 11.3764, 13.6166, 17.33, -145.518, -97.9287, 142.517
