hehonglu123/Motion-Primitive-Planning/simulation/robotstudio_sim/scripts/fitting_output_new/threshold0.1/curve_exe_v500_z10.csv
timestamp, cmd_num, J1, J2, J3, J4, J5, J6
0, 1, -21.7614, 43.4119, 24.4195, -31.2436, -59.9914, 143.185
0.002, 1, -21.7614, 43.4119, 24.4195, -31.2436, -59.9914, 143.185
0.004, 1, -21.7614, 43.4119, 24.4195, -31.2436, -59.9914, 143.185
0.008, 1, -21.7614, 43.4119, 24.4195, -31.2436, -59.9914, 143.185
0.011, 1, -21.7614, 43.4119, 24.4195, -31.2436, -59.9914, 143.185
0.016, 1, -21.7614, 43.4119, 24.4195, -31.2436, -59.9914, 143.185
0.02, 1, -21.7614, 43.4119, 24.4195, -31.2436, -59.9914, 143.185
0.024, 1, -21.7614, 43.4119, 24.4195, -31.2436, -59.9914, 143.185
0.028, 1, -21.7614, 43.4119, 24.4195, -31.2436, -59.9914, 143.185
0.032, 1, -21.7614, 43.4119, 24.4195, -31.2436, -59.9914, 143.185
0.036, 1, -21.7613, 43.4119, 24.4195, -31.2436, -59.9914, 143.185
0.04, 1, -21.7611, 43.4119, 24.4195, -31.2436, -59.9914, 143.185
0.044, 1, -21.7606, 43.4118, 24.4195, -31.2436, -59.9914, 143.185
0.048, 1, -21.7596, 43.4118, 24.4195, -31.2435, -59.9914, 143.185
0.052, 1, -21.758, 43.4117, 24.4195, -31.2433, -59.9914, 143.184
0.056, 1, -21.7558, 43.4116, 24.4194, -31.2428, -59.9914, 143.184
0.06, 1, -21.7528, 43.4114, 24.4192, -31.2419, -59.9914, 143.183
0.064, 1, -21.7491, 43.4112, 24.4188, -31.2403, -59.9914, 143.182
0.068, 1, -21.7444, 43.411, 24.4182, -31.2377, -59.9913, 143.18
0.072, 1, -21.7388, 43.4108, 24.4171, -31.2338, -59.9911, 143.177
0.076, 1, -21.732, 43.4106, 24.4156, -31.228, -59.9908, 143.172
0.08, 1, -21.7238, 43.4104, 24.4134, -31.2199, -59.9904, 143.166
0.084, 1, -21.7138, 43.4103, 24.4103, -31.2089, -59.9898, 143.158
0.088, 1, -21.7019, 43.4103, 24.4062, -31.1943, -59.9889, 143.146
0.092, 1, -21.688, 43.4103, 24.4008, -31.1754, -59.9878, 143.132
0.096, 1, -21.6719, 43.4106, 24.3939, -31.1514, -59.9863, 143.113
0.1, 1, -21.6536, 43.4111, 24.3853, -31.1217, -59.9844, 143.091
0.104, 1, -21.6327, 43.4119, 24.3748, -31.0855, -59.9821, 143.063
0.108, 1, -21.6093, 43.4129, 24.3621, -31.0424, -59.9793, 143.03
0.112, 1, -21.5832, 43.4143, 24.3472, -30.9916, -59.9759, 142.99
0.116, 1, -21.5543, 43.4161, 24.3298, -30.9328, -59.972, 142.945
0.12, 1, -21.5227, 43.4183, 24.3099, -30.8656, -59.9675, 142.894
0.124, 1, -21.4884, 43.4209, 24.2875, -30.7899, -59.9624, 142.836
0.128, 1, -21.4514, 43.424, 24.2624, -30.7057, -59.9566, 142.771
0.131, 1, -21.4118, 43.4275, 24.2348, -30.613, -59.9503, 142.7
0.136, 1, -21.3697, 43.4314, 24.2047, -30.5123, -59.9433, 142.623
0.139, 1, -21.325, 43.4357, 24.1723, -30.4039, -59.9358, 142.539
0.144, 1, -21.2777, 43.4403, 24.1377, -30.2884, -59.9279, 142.451
0.148, 1, -21.2279, 43.4452, 24.1013, -30.1666, -59.9194, 142.357
0.152, 1, -21.1757, 43.4503, 24.0631, -30.039, -59.9106, 142.26
0.156, 1, -21.1215, 43.4556, 24.0235, -29.9065, -59.9015, 142.158
0.16, 1, -21.0652, 43.461, 23.9826, -29.7698, -59.892, 142.053
0.164, 1, -21.0073, 43.4665, 23.9406, -29.6295, -59.8824, 141.945
0.168, 1, -20.9477, 43.4721, 23.8978, -29.4865, -59.8725, 141.836
0.172, 1, -20.8867, 43.4778, 23.8544, -29.3411, -59.8626, 141.724
0.176, 1, -20.8242, 43.4834, 23.8105, -29.1941, -59.8525, 141.611
0.18, 1, -20.7604, 43.489, 23.7663, -29.0458, -59.8423, 141.497
0.184, 1, -20.6955, 43.4945, 23.7218, -28.8966, -59.8322, 141.383
0.188, 1, -20.6296, 43.5, 23.6771, -28.7468, -59.8219, 141.268
0.192, 1, -20.5629, 43.5055, 23.6323, -28.5965, -59.8117, 141.152
0.196, 1, -20.4958, 43.511, 23.5874, -28.4458, -59.8015, 141.037
0.2, 1, -20.4283, 43.5164, 23.5425, -28.2948, -59.7912, 140.921
0.204, 1, -20.3605, 43.5219, 23.4975, -28.1436, -59.7809, 140.805
0.208, 1, -20.2926, 43.5273, 23.4524, -27.9923, -59.7706, 140.689
0.212, 1, -20.2245, 43.5328, 23.4073, -27.8408, -59.7604, 140.572
0.216, 1, -20.1562, 43.5382, 23.3622, -27.6891, -59.7501, 140.456
0.22, 1, -20.0879, 43.5437, 23.317, -27.5374, -59.7398, 140.339
0.224, 1, -20.0196, 43.5491, 23.2718, -27.3855, -59.7294, 140.223
0.228, 1, -19.9511, 43.5546, 23.2265, -27.2335, -59.7191, 140.106
0.232, 1, -19.8826, 43.56, 23.1812, -27.0814, -59.7088, 139.989
0.236, 1, -19.8141, 43.5655, 23.1359, -26.9292, -59.6984, 139.873
0.24, 1, -19.7454, 43.5709, 23.0906, -26.7769, -59.6881, 139.756
0.244, 1, -19.6768, 43.5764, 23.0452, -26.6245, -59.6778, 139.639
0.248, 1, -19.6081, 43.5819, 22.9998, -26.472, -59.6674, 139.522
0.252, 1, -19.5393, 43.5873, 22.9544, -26.3194, -59.657, 139.405
0.256, 1, -19.4705, 43.5928, 22.909, -26.1667, -59.6467, 139.287
0.26, 1, -19.4017, 43.5983, 22.8635, -26.0139, -59.6363, 139.17
0.264, 1, -19.3328, 43.6038, 22.818, -25.861, -59.6259, 139.053
0.268, 1, -19.2639, 43.6092, 22.7724, -25.708, -59.6155, 138.935
0.272, 1, -19.1949, 43.6147, 22.7268, -25.5549, -59.6051, 138.818
0.276, 1, -19.1259, 43.6202, 22.6812, -25.4018, -59.5947, 138.7
0.28, 1, -19.0568, 43.6257, 22.6356, -25.2485, -59.5843, 138.582
0.284, 1, -18.9877, 43.6312, 22.5899, -25.0951, -59.5739, 138.465
0.288, 1, -18.9186, 43.6367, 22.5443, -24.9416, -59.5635, 138.347
0.292, 1, -18.8494, 43.6422, 22.4985, -24.788, -59.553, 138.229
0.296, 1, -18.7801, 43.6477, 22.4528, -24.6343, -59.5426, 138.111
0.3, 1, -18.7108, 43.6532, 22.407, -24.4805, -59.5322, 137.993
0.304, 1, -18.6415, 43.6588, 22.3612, -24.3266, -59.5217, 137.875
0.308, 1, -18.5721, 43.6643, 22.3154, -24.1726, -59.5113, 137.757
0.312, 1, -18.5027, 43.6698, 22.2695, -24.0185, -59.5008, 137.638
0.316, 1, -18.4332, 43.6753, 22.2236, -23.8643, -59.4903, 137.52
0.32, 1, -18.3637, 43.6809, 22.1777, -23.71, -59.4798, 137.401
0.324, 1, -18.2942, 43.6864, 22.1317, -23.5557, -59.4694, 137.283
0.328, 1, -18.2245, 43.6919, 22.0857, -23.4012, -59.4589, 137.164
0.332, 1, -18.1549, 43.6975, 22.0397, -23.2466, -59.4484, 137.046
0.336, 1, -18.0852, 43.703, 21.9936, -23.0919, -59.4379, 136.927
0.34, 1, -18.0154, 43.7086, 21.9476, -22.9371, -59.4274, 136.808
0.344, 1, -17.9457, 43.7141, 21.9014, -22.7822, -59.4168, 136.689
0.348, 1, -17.8758, 43.7197, 21.8553, -22.6272, -59.4063, 136.57
0.352, 1, -17.8059, 43.7252, 21.8091, -22.4721, -59.3958, 136.451
0.356, 1, -17.736, 43.7308, 21.7629, -22.3169, -59.3852, 136.332
0.36, 1, -17.666, 43.7364, 21.7167, -22.1616, -59.3747, 136.213
0.364, 1, -17.596, 43.7419, 21.6704, -22.0062, -59.3641, 136.093
0.368, 1, -17.526, 43.7475, 21.6241, -21.8506, -59.3536, 135.974
0.372, 1, -17.4559, 43.7531, 21.5778, -21.695, -59.343, 135.855
0.376, 1, -17.3857, 43.7587, 21.5315, -21.5393, -59.3324, 135.735
0.38, 1, -17.3155, 43.7643, 21.4851, -21.3835, -59.3219, 135.615
0.384, 1, -17.2452, 43.7699, 21.4387, -21.2276, -59.3113, 135.496
0.388, 1, -17.1749, 43.7754, 21.3922, -21.0716, -59.3007, 135.376
0.392, 1, -17.1046, 43.781, 21.3458, -20.9154, -59.2901, 135.256
0.396, 1, -17.0342, 43.7866, 21.2992, -20.7592, -59.2795, 135.136
0.4, 1, -16.9638, 43.7922, 21.2527, -20.6029, -59.2689, 135.016
0.404, 1, -16.8933, 43.7979, 21.2061, -20.4464, -59.2582, 134.896
0.408, 1, -16.8228, 43.8035, 21.1595, -20.2899, -59.2476, 134.776
0.412, 1, -16.7522, 43.8091, 21.1129, -20.1333, -59.237, 134.656
0.416, 1, -16.6816, 43.8147, 21.0663, -19.9765, -59.2263, 134.535
0.42, 1, -16.6109, 43.8203, 21.0196, -19.8197, -59.2157, 134.415
0.424, 1, -16.5402, 43.826, 20.9728, -19.6627, -59.205, 134.294
0.428, 1, -16.4695, 43.8316, 20.9261, -19.5057, -59.1943, 134.174
0.432, 1, -16.3987, 43.8372, 20.8793, -19.3485, -59.1837, 134.053
0.436, 1, -16.3278, 43.8428, 20.8325, -19.1912, -59.173, 133.933
0.44, 1, -16.2569, 43.8485, 20.7857, -19.0339, -59.1623, 133.812
0.444, 1, -16.186, 43.8541, 20.7388, -18.8764, -59.1516, 133.691
0.448, 1, -16.115, 43.8598, 20.6919, -18.7188, -59.1409, 133.57
0.452, 1, -16.0439, 43.8654, 20.6449, -18.5612, -59.1302, 133.449
0.456, 1, -15.9729, 43.8711, 20.598, -18.4034, -59.1195, 133.328
0.46, 1, -15.9017, 43.8768, 20.551, -18.2455, -59.1088, 133.207
0.464, 1, -15.8306, 43.8824, 20.5039, -18.0875, -59.098, 133.085
0.468, 1, -15.7593, 43.8881, 20.4569, -17.9294, -59.0873, 132.964
0.472, 1, -15.6881, 43.8938, 20.4098, -17.7713, -59.0766, 132.842
0.476, 1, -15.6168, 43.8994, 20.3627, -17.613, -59.0658, 132.721
0.48, 1, -15.5454, 43.9051, 20.3155, -17.4546, -59.0551, 132.599
0.484, 1, -15.474, 43.9108, 20.2683, -17.2961, -59.0443, 132.478
0.488, 1, -15.4025, 43.9165, 20.2211, -17.1375, -59.0335, 132.356
0.492, 1, -15.331, 43.9222, 20.1739, -16.9788, -59.0228, 132.234
0.496, 1, -15.2595, 43.9279, 20.1266, -16.82, -59.012, 132.112
0.5, 1, -15.1879, 43.9336, 20.0793, -16.6611, -59.0012, 131.99
0.504, 1, -15.1163, 43.9393, 20.032, -16.5021, -58.9904, 131.868
0.508, 1, -15.0446, 43.945, 19.9846, -16.3429, -58.9796, 131.746
0.512, 1, -14.9729, 43.9507, 19.9372, -16.1837, -58.9688, 131.624
0.516, 1, -14.9011, 43.9564, 19.8898, -16.0244, -58.958, 131.501
0.52, 1, -14.8293, 43.9621, 19.8423, -15.865, -58.9471, 131.379
0.524, 1, -14.7574, 43.9678, 19.7949, -15.7055, -58.9363, 131.257
0.528, 1, -14.6855, 43.9735, 19.7473, -15.5458, -58.9254, 131.134
0.532, 1, -14.6135, 43.9793, 19.6998, -15.3861, -58.9146, 131.012
0.536, 1, -14.5415, 43.985, 19.6522, -15.2263, -58.9038, 130.889
0.54, 1, -14.4695, 43.9907, 19.6046, -15.0663, -58.8929, 130.766
0.544, 1, -14.3974, 43.9965, 19.557, -14.9063, -58.882, 130.643
0.548, 1, -14.3252, 44.0022, 19.5093, -14.7462, -58.8712, 130.52
0.552, 1, -14.253, 44.0079, 19.4616, -14.5859, -58.8603, 130.397
0.556, 1, -14.1808, 44.0137, 19.4139, -14.4256, -58.8494, 130.274
0.56, 1, -14.1085, 44.0194, 19.3661, -14.2651, -58.8385, 130.151
0.564, 1, -14.0362, 44.0252, 19.3183, -14.1046, -58.8276, 130.028
0.568, 1, -13.9638, 44.031, 19.2705, -13.944, -58.8167, 129.904
0.572, 1, -13.8914, 44.0367, 19.2226, -13.7832, -58.8058, 129.781
0.576, 1, -13.8189, 44.0425, 19.1747, -13.6223, -58.7948, 129.658
0.58, 1, -13.7464, 44.0483, 19.1268, -13.4614, -58.7839, 129.534
0.584, 1, -13.6738, 44.054, 19.0789, -13.3003, -58.773, 129.41
0.588, 1, -13.6012, 44.0598, 19.0309, -13.1392, -58.762, 129.287
0.592, 1, -13.5286, 44.0656, 18.9829, -12.9779, -58.7511, 129.163
0.596, 1, -13.4559, 44.0714, 18.9349, -12.8165, -58.7401, 129.039
0.6, 1, -13.3831, 44.0772, 18.8868, -12.6551, -58.7292, 128.915
0.604, 1, -13.3103, 44.083, 18.8387, -12.4935, -58.7182, 128.791
0.608, 1, -13.2375, 44.0887, 18.7906, -12.3318, -58.7072, 128.667
0.612, 1, -13.1646, 44.0945, 18.7424, -12.17, -58.6962, 128.543
0.616, 1, -13.0917, 44.1003, 18.6942, -12.0082, -58.6852, 128.418
0.62, 1, -13.0187, 44.1062, 18.646, -11.8462, -58.6742, 128.294
0.624, 1, -12.9457, 44.112, 18.5978, -11.6841, -58.6632, 128.17
0.628, 1, -12.8726, 44.1178, 18.5495, -11.5219, -58.6522, 128.045
0.632, 1, -12.7995, 44.1236, 18.5012, -11.3596, -58.6412, 127.921
0.636, 1, -12.7264, 44.1294, 18.4528, -11.1972, -58.6302, 127.796
0.64, 1, -12.6532, 44.1352, 18.4045, -11.0347, -58.6191, 127.671
0.644, 1, -12.5799, 44.1411, 18.3561, -10.8722, -58.6081, 127.546
0.648, 1, -12.5066, 44.1469, 18.3076, -10.7095, -58.597, 127.421
0.652, 1, -12.4333, 44.1527, 18.2592, -10.5467, -58.586, 127.296
0.656, 1, -12.3599, 44.1586, 18.2107, -10.3838, -58.5749, 127.171
0.66, 1, -12.2865, 44.1644, 18.1622, -10.2208, -58.5639, 127.046
0.664, 1, -12.213, 44.1703, 18.1136, -10.0577, -58.5528, 126.921
0.668, 1, -12.1395, 44.1761, 18.065, -9.89453, -58.5417, 126.796
0.672, 1, -12.066, 44.182, 18.0164, -9.73124, -58.5306, 126.671
0.676, 1, -11.9924, 44.1878, 17.9678, -9.56786, -58.5195, 126.545
0.68, 1, -11.9187, 44.1937, 17.9191, -9.40438, -58.5084, 126.42
0.684, 1, -11.845, 44.1996, 17.8704, -9.24081, -58.4973, 126.294
0.688, 1, -11.7713, 44.2054, 17.8217, -9.07713, -58.4862, 126.168
0.692, 1, -11.6975, 44.2113, 17.773, -8.91336, -58.4751, 126.043
0.696, 1, -11.6237, 44.2172, 17.7242, -8.7495, -58.4639, 125.917
0.7, 1, -11.5498, 44.223, 17.6754, -8.58554, -58.4528, 125.791
0.704, 1, -11.4759, 44.2289, 17.6266, -8.42148, -58.4417, 125.665
0.708, 1, -11.402, 44.2348, 17.5777, -8.25733, -58.4305, 125.539
0.712, 1, -11.328, 44.2407, 17.5288, -8.09308, -58.4194, 125.413
0.716, 1, -11.254, 44.2466, 17.4799, -7.92874, -58.4082, 125.287
0.72, 1, -11.1799, 44.2525, 17.4309, -7.76431, -58.397, 125.161
0.724, 1, -11.1058, 44.2584, 17.3819, -7.59978, -58.3859, 125.034
0.728, 1, -11.0316, 44.2643, 17.3329, -7.43516, -58.3747, 124.908
0.732, 1, -10.9574, 44.2702, 17.2839, -7.27044, -58.3635, 124.781
0.736, 1, -10.8832, 44.2761, 17.2348, -7.10564, -58.3523, 124.655
0.74, 1, -10.8089, 44.282, 17.1858, -6.94074, -58.3411, 124.528
0.744, 1, -10.7346, 44.2879, 17.1366, -6.77575, -58.3299, 124.402
0.748, 1, -10.6602, 44.2938, 17.0875, -6.61067, -58.3187, 124.275
0.752, 1, -10.5858, 44.2998, 17.0383, -6.44549, -58.3075, 124.148
0.756, 1, -10.5114, 44.3057, 16.9891, -6.28023, -58.2963, 124.021
0.76, 1, -10.4369, 44.3116, 16.9399, -6.11488, -58.285, 123.894
0.764, 1, -10.3623, 44.3176, 16.8907, -5.94943, -58.2738, 123.767
0.768, 1, -10.2878, 44.3235, 16.8414, -5.7839, -58.2626, 123.64
0.772, 1, -10.2132, 44.3294, 16.7921, -5.61828, -58.2513, 123.513
0.776, 1, -10.1385, 44.3354, 16.7428, -5.45257, -58.2401, 123.386
0.78, 1, -10.0638, 44.3413, 16.6934, -5.28677, -58.2288, 123.259
0.784, 1, -9.98911, 44.3473, 16.644, -5.12088, -58.2175, 123.131
0.788, 1, -9.91434, 44.3532, 16.5946, -4.95491, -58.2063, 123.004
0.792, 1, -9.83954, 44.3592, 16.5452, -4.78884, -58.195, 122.876
0.796, 1, -9.76469, 44.3651, 16.4957, -4.6227, -58.1837, 122.749
0.8, 1, -9.68981, 44.3711, 16.4462, -4.45646, -58.1724, 122.621
0.804, 1, -9.61489, 44.377, 16.3967, -4.29014, -58.1611, 122.494
0.808, 1, -9.53993, 44.383, 16.3472, -4.12374, -58.1498, 122.366
0.812, 1, -9.46493, 44.389, 16.2976, -3.95725, -58.1385, 122.238
0.816, 1, -9.3899, 44.3949, 16.248, -3.79067, -58.1272, 122.11
0.82, 1, -9.31482, 44.4009, 16.1984, -3.62401, -58.1159, 121.982
0.824, 1, -9.23971, 44.4069, 16.1488, -3.45727, -58.1046, 121.854
0.828, 1, -9.16456, 44.4129, 16.0991, -3.29045, -58.0932, 121.726
0.832, 1, -9.08937, 44.4189, 16.0494, -3.12354, -58.0819, 121.598
0.836, 1, -9.01415, 44.4249, 15.9997, -2.95655, -58.0706, 121.47
0.84, 1, -8.93889, 44.4308, 15.95, -2.78947, -58.0592, 121.342
0.844, 1, -8.86359, 44.4368, 15.9002, -2.62232, -58.0479, 121.213
0.848, 1, -8.78825, 44.4428, 15.8505, -2.45508, -58.0365, 121.085
0.852, 1, -8.71288, 44.4488, 15.8007, -2.28776, -58.0252, 120.956
0.856, 1, -8.63747, 44.4548, 15.7508, -2.12037, -58.0138, 120.828
0.86, 1, -8.56203, 44.4608, 15.701, -1.95289, -58.0024, 120.699
0.864, 1, -8.48655, 44.4668, 15.6511, -1.78533, -57.991, 120.571
0.868, 1, -8.41104, 44.4728, 15.6012, -1.61769, -57.9796, 120.442
0.872, 1, -8.33549, 44.4789, 15.5513, -1.44998, -57.9683, 120.313
0.876, 1, -8.25991, 44.4849, 15.5013, -1.28218, -57.9569, 120.185
0.88, 1, -8.18429, 44.4909, 15.4513, -1.11431, -57.9455, 120.056
0.884, 1, -8.10864, 44.4969, 15.4013, -0.946359, -57.9341, 119.927
0.888, 1, -8.03296, 44.5029, 15.3513, -0.778332, -57.9227, 119.798
0.892, 1, -7.95725, 44.509, 15.3013, -0.61023, -57.9112, 119.669
0.896, 1, -7.8815, 44.515, 15.2512, -0.442053, -57.8998, 119.54
0.9, 1, -7.80572, 44.521, 15.2011, -0.273801, -57.8884, 119.41
0.904, 1, -7.7299, 44.5271, 15.151, -0.105477, -57.877, 119.281
0.908, 1, -7.65405, 44.5331, 15.1009, 0.0629208, -57.8655, 119.152
0.912, 1, -7.57818, 44.5392, 15.0507, 0.23139, -57.8541, 119.023
0.916, 1, -7.50227, 44.5452, 15.0006, 0.39993, -57.8426, 118.893
0.92, 1, -7.42632, 44.5512, 14.9504, 0.568541, -57.8312, 118.764
0.924, 1, -7.35035, 44.5573, 14.9002, 0.737221, -57.8197, 118.634
0.928, 1, -7.27435, 44.5633, 14.8499, 0.905969, -57.8083, 118.505
0.932, 1, -7.19831, 44.5694, 14.7997, 1.07478, -57.7968, 118.375
0.936, 1, -7.12225, 44.5754, 14.7494, 1.24367, -57.7854, 118.246
0.94, 1, -7.04616, 44.5815, 14.6991, 1.41261, -57.7739, 118.116
0.944, 1, -6.97004, 44.5876, 14.6488, 1.58163, -57.7624, 117.986
0.948, 1, -6.89389, 44.5936, 14.5985, 1.7507, -57.7509, 117.856
0.952, 1, -6.81771, 44.5997, 14.5481, 1.91984, -57.7394, 117.726
0.956, 1, -6.7415, 44.6058, 14.4977, 2.08904, -57.7279, 117.597
0.96, 1, -6.66527, 44.6118, 14.4474, 2.2583, -57.7164, 117.467
0.964, 1, -6.58901, 44.6179, 14.3969, 2.42762, -57.705, 117.337
0.968, 1, -6.51272, 44.624, 14.3465, 2.597, -57.6935, 117.207
0.972, 1, -6.43641, 44.63, 14.2961, 2.76644, -57.6819, 117.077
0.976, 1, -6.36007, 44.6361, 14.2456, 2.93594, -57.6704, 116.946
0.98, 1, -6.2837, 44.6422, 14.1952, 3.10549, -57.6589, 116.816
0.984, 1, -6.20731, 44.6483, 14.1447, 3.2751, -57.6474, 116.686
0.988, 1, -6.1309, 44.6544, 14.0942, 3.44477, -57.6359, 116.556
0.992, 1, -6.05446, 44.6605, 14.0436, 3.61448, -57.6244, 116.426
0.996, 1, -5.978, 44.6665, 13.9931, 3.78425, -57.6128, 116.295
1, 1, -5.90151, 44.6726, 13.9425, 3.95408, -57.6013, 116.165
1.004, 1, -5.825, 44.6787, 13.892, 4.12395, -57.5898, 116.034
1.008, 1, -5.74847, 44.6848, 13.8414, 4.29387, -57.5782, 115.904
1.012, 1, -5.67192, 44.6909, 13.7908, 4.46384, -57.5667, 115.774
1.016, 1, -5.59535, 44.697, 13.7402, 4.63386, -57.5551, 115.643
1.02, 1, -5.51875, 44.7031, 13.6896, 4.80393, -57.5436, 115.512
1.024, 1, -5.44214, 44.7092, 13.6389, 4.97404, -57.532, 115.382
1.027, 1, -5.3655, 44.7153, 13.5883, 5.1442, -57.5205, 115.251
1.032, 1, -5.28885, 44.7214, 13.5376, 5.3144, -57.5089, 115.121
1.036, 1, -5.21217, 44.7275, 13.4869, 5.48465, -57.4974, 114.99
1.04, 1, -5.13548, 44.7336, 13.4362, 5.65494, -57.4858, 114.859
1.044, 1, -5.05876, 44.7397, 13.3855, 5.82527, -57.4742, 114.728
1.048, 1, -4.98203, 44.7458, 13.3348, 5.99564, -57.4627, 114.598
1.052, 1, -4.90528, 44.7519, 13.2841, 6.16605, -57.4511, 114.467
1.055, 1, -4.82852, 44.7581, 13.2333, 6.3365, -57.4395, 114.336
1.06, 1, -4.75174, 44.7642, 13.1826, 6.50698, -57.4279, 114.205
1.064, 1, -4.67494, 44.7703, 13.1318, 6.6775, -57.4164, 114.074
1.068, 1, -4.59812, 44.7764, 13.081, 6.84806, -57.4048, 113.943
1.072, 1, -4.52129, 44.7825, 13.0303, 7.01865, -57.3932, 113.812
1.076, 1, -4.44445, 44.7886, 12.9795, 7.18928, -57.3816, 113.681
1.08, 1, -4.36759, 44.7948, 12.9287, 7.35994, -57.37, 113.55
1.084, 1, -4.29071, 44.8009, 12.8778, 7.53063, -57.3584, 113.419
1.088, 1, -4.21383, 44.807, 12.827, 7.70135, -57.3468, 113.288
1.091, 1, -4.13693, 44.8131, 12.7762, 7.87209, -57.3352, 113.157
1.096, 1, -4.06001, 44.8192, 12.7254, 8.04287, -57.3236, 113.026
1.1, 1, -3.98308, 44.8254, 12.6745, 8.21368, -57.312, 112.895
1.104, 1, -3.90615, 44.8315, 12.6236, 8.38451, -57.3004, 112.764
1.108, 1, -3.82919, 44.8376, 12.5728, 8.55537, -57.2888, 112.633
1.112, 1, -3.75223, 44.8438, 12.5219, 8.72625, -57.2772, 112.501
1.116, 1, -3.67526, 44.8499, 12.471, 8.89716, -57.2656, 112.37
1.119, 1, -3.59828, 44.856, 12.4202, 9.06809, -57.254, 112.239
1.124, 1, -3.52129, 44.8621, 12.3693, 9.23904, -57.2424, 112.108
1.128, 1, -3.44428, 44.8683, 12.3184, 9.41001, -57.2308, 111.977
1.132, 1, -3.36728, 44.8744, 12.2675, 9.58101, -57.2192, 111.845
1.136, 1, -3.29026, 44.8805, 12.2166, 9.75202, -57.2076, 111.714
1.14, 1, -3.21324, 44.8867, 12.1656, 9.92305, -57.196, 111.583
1.144, 1, -3.13621, 44.8928, 12.1147, 10.0941, -57.1843, 111.451
1.147, 1, -3.05917, 44.8989, 12.0638, 10.2652, -57.1727, 111.32
1.152, 1, -2.98213, 44.9051, 12.0129, 10.4362, -57.1611, 111.189
1.156, 1, -2.90508, 44.9112, 11.9619, 10.6073, -57.1495, 111.057
1.16, 1, -2.82803, 44.9174, 11.911, 10.7784, -57.1379, 110.926
1.164, 1, -2.75098, 44.9235, 11.8601, 10.9495, -57.1263, 110.795
1.168, 1, -2.67392, 44.9296, 11.8091, 11.1207, -57.1146, 110.663
1.172, 1, -2.59686, 44.9358, 11.7582, 11.2918, -57.103, 110.532
1.175, 1, -2.51979, 44.9419, 11.7072, 11.4629, -57.0914, 110.401
1.18, 1, -2.44273, 44.948, 11.6563, 11.6341, -57.0798, 110.269
1.184, 1, -2.36566, 44.9542, 11.6053, 11.8052, -57.0682, 110.138
1.188, 1, -2.28859, 44.9603, 11.5544, 11.9764, -57.0565, 110.007
1.192, 1, -2.21152, 44.9665, 11.5034, 12.1475, -57.0449, 109.875
1.196, 1, -2.13445, 44.9726, 11.4525, 12.3187, -57.0333, 109.744
1.2, 1, -2.05738, 44.9787, 11.4015, 12.4898, -57.0217, 109.612
1.204, 1, -1.98031, 44.9849, 11.3506, 12.6609, -57.01, 109.481
1.208, 1, -1.90325, 44.991, 11.2996, 12.8321, -56.9984, 109.35
1.212, 1, -1.82619, 44.9971, 11.2487, 13.0032, -56.9868, 109.218
1.216, 1, -1.74913, 45.0033, 11.1977, 13.1743, -56.9752, 109.087
1.22, 1, -1.67207, 45.0094, 11.1468, 13.3455, -56.9636, 108.956
1.224, 1, -1.59502, 45.0156, 11.0959, 13.5166, -56.9519, 108.824
1.228, 1, -1.51797, 45.0217, 11.0449, 13.6877, -56.9403, 108.693
1.232, 1, -1.44093, 45.0278, 10.994, 13.8588, -56.9287, 108.561
1.236, 1, -1.3639, 45.034, 10.9431, 14.0298, -56.9171, 108.43
1.24, 1, -1.28687, 45.0401, 10.8922, 14.2009, -56.9055, 108.299
1.244, 1, -1.20986, 45.0462, 10.8412, 14.3719, -56.8939, 108.168
1.248, 1, -1.13284, 45.0524, 10.7903, 14.5429, -56.8823, 108.036
1.252, 1, -1.05584, 45.0585, 10.7394, 14.7139, -56.8706, 107.905
1.256, 1, -0.97885, 45.0646, 10.6885, 14.8849, -56.859, 107.774
1.26, 1, -0.901868, 45.0708, 10.6376, 15.0559, -56.8474, 107.643
1.264, 1, -0.824897, 45.0769, 10.5867, 15.2268, -56.8358, 107.511
1.267, 1, -0.747936, 45.083, 10.5359, 15.3977, -56.8242, 107.38
1.272, 1, -0.670988, 45.0892, 10.485, 15.5686, -56.8126, 107.249
1.276, 1, -0.594052, 45.0953, 10.4341, 15.7394, -56.801, 107.118
1.28, 1, -0.517129, 45.1014, 10.3833, 15.9103, -56.7894, 106.987
1.284, 1, -0.44022, 45.1075, 10.3324, 16.0811, -56.7778, 106.856
1.288, 1, -0.363325, 45.1137, 10.2816, 16.2518, -56.7662, 106.724
1.292, 1, -0.286445, 45.1198, 10.2308, 16.4226, -56.7546, 106.593
1.295, 1, -0.209581, 45.1259, 10.1799, 16.5933, -56.743, 106.462
1.3, 1, -0.132733, 45.132, 10.1291, 16.7639, -56.7314, 106.331
1.304, 1, -0.0559013, 45.1382, 10.0784, 16.9345, -56.7198, 106.2
1.308, 1, 0.0209127, 45.1443, 10.0276, 17.1051, -56.7083, 106.069
1.312, 1, 0.0977087, 45.1504, 9.9768, 17.2757, -56.6967, 105.938
1.316, 1, 0.174486, 45.1565, 9.92604, 17.4462, -56.6851, 105.808
1.32, 1, 0.251245, 45.1626, 9.87529, 17.6166, -56.6735, 105.677
1.324, 1, 0.327983, 45.1687, 9.82456, 17.787, -56.662, 105.546
1.328, 1, 0.404702, 45.1749, 9.77384, 17.9574, -56.6504, 105.415
1.332, 1, 0.4814, 45.181, 9.72314, 18.1277, -56.6388, 105.284
1.336, 1, 0.558076, 45.1871, 9.67245, 18.298, -56.6273, 105.154
1.34, 1, 0.63473, 45.1932, 9.62177, 18.4682, -56.6157, 105.023
1.344, 1, 0.711361, 45.1993, 9.57111, 18.6384, -56.6041, 104.892
1.348, 1, 0.787969, 45.2054, 9.52046, 18.8085, -56.5926, 104.762
1.352, 1, 0.864554, 45.2115, 9.46983, 18.9786, -56.581, 104.631
1.356, 1, 0.941114, 45.2176, 9.41922, 19.1486, -56.5695, 104.501
1.36, 1, 1.01765, 45.2237, 9.36862, 19.3186, -56.558, 104.37
1.364, 1, 1.09416, 45.2298, 9.31804, 19.4885, -56.5464, 104.24
1.368, 1, 1.17064, 45.2359, 9.26747, 19.6583, -56.5349, 104.109
1.372, 1, 1.2471, 45.242, 9.21693, 19.8281, -56.5234, 103.979
1.376, 1, 1.32353, 45.2481, 9.1664, 19.9979, -56.5118, 103.849
1.38, 1, 1.39994, 45.2541, 9.11589, 20.1675, -56.5003, 103.719
1.384, 1, 1.47631, 45.2602, 9.0654, 20.3371, -56.4888, 103.588
1.388, 1, 1.55266, 45.2663, 9.01493, 20.5067, -56.4773, 103.458
1.392, 1, 1.62898, 45.2724, 8.96447, 20.6762, -56.4658, 103.328
1.396, 1, 1.70526, 45.2785, 8.91404, 20.8456, -56.4543, 103.198
1.4, 1, 1.78152, 45.2845, 8.86363, 21.0149, -56.4428, 103.068
1.404, 1, 1.85774, 45.2906, 8.81324, 21.1842, -56.4313, 102.938
1.408, 1, 1.93393, 45.2967, 8.76287, 21.3534, -56.4198, 102.808
1.412, 1, 2.01009, 45.3027, 8.71251, 21.5225, -56.4083, 102.678
1.416, 1, 2.08622, 45.3088, 8.66219, 21.6916, -56.3968, 102.549
1.42, 1, 2.16231, 45.3149, 8.61188, 21.8605, -56.3853, 102.419
1.424, 1, 2.23837, 45.3209, 8.56159, 22.0295, -56.3739, 102.289
1.428, 1, 2.31439, 45.327, 8.51133, 22.1983, -56.3624, 102.16
1.432, 1, 2.39038, 45.333, 8.46109, 22.367, -56.351, 102.03
1.436, 1, 2.46633, 45.3391, 8.41088, 22.5357, -56.3395, 101.901
1.44, 1, 2.54225, 45.3451, 8.36069, 22.7043, -56.3281, 101.771
1.444, 1, 2.61812, 45.3512, 8.31052, 22.8728, -56.3166, 101.642
1.448, 1, 2.69397, 45.3572, 8.26038, 23.0412, -56.3052, 101.512
1.452, 1, 2.76977, 45.3633, 8.21026, 23.2096, -56.2937, 101.383
1.456, 1, 2.84553, 45.3693, 8.16017, 23.3779, -56.2823, 101.254
1.46, 1, 2.92126, 45.3753, 8.11011, 23.546, -56.2709, 101.125
1.464, 1, 2.99695, 45.3814, 8.06007, 23.7141, -56.2595, 100.996
1.468, 1, 3.07259, 45.3874, 8.01006, 23.8821, -56.2481, 100.867
1.472, 1, 3.1482, 45.3934, 7.96007, 24.05, -56.2367, 100.738
1.476, 1, 3.22376, 45.3994, 7.91011, 24.2178, -56.2253, 100.609
1.48, 1, 3.29928, 45.4055, 7.86019, 24.3855, -56.2139, 100.481
1.484, 1, 3.37476, 45.4115, 7.81028, 24.5532, -56.2025, 100.352
1.488, 1, 3.45019, 45.4175, 7.76041, 24.7207, -56.1911, 100.223
1.492, 1, 3.52558, 45.4235, 7.71057, 24.8881, -56.1798, 100.095
1.496, 1, 3.60093, 45.4295, 7.66075, 25.0554, -56.1684, 99.9663
1.5, 1, 3.67623, 45.4355, 7.61097, 25.2227, -56.1571, 99.8379
1.504, 1, 3.75149, 45.4415, 7.56121, 25.3898, -56.1457, 99.7096
1.508, 1, 3.8267, 45.4475, 7.51149, 25.5568, -56.1344, 99.5814
1.512, 1, 3.90186, 45.4535, 7.4618, 25.7237, -56.123, 99.4533
1.516, 1, 3.97698, 45.4595, 7.41213, 25.8905, -56.1117, 99.3252
1.52, 1, 4.05205, 45.4654, 7.3625, 26.0573, -56.1004, 99.1972
1.524, 1, 4.12707, 45.4714, 7.31291, 26.2239, -56.0891, 99.0693
1.528, 1, 4.20204, 45.4774, 7.26334, 26.3904, -56.0778, 98.9415
1.532, 1, 4.27697, 45.4834, 7.21381, 26.5567, -56.0665, 98.8138
1.536, 1, 4.35184, 45.4893, 7.16431, 26.723, -56.0552, 98.6862
1.54, 1, 4.42666, 45.4953, 7.11484, 26.8892, -56.0439, 98.5586
1.544, 1, 4.50143, 45.5012, 7.06541, 27.0552, -56.0326, 98.4311
1.548, 1, 4.57615, 45.5072, 7.01601, 27.2212, -56.0213, 98.3038
1.552, 1, 4.65082, 45.5132, 6.96664, 27.387, -56.0101, 98.1765
1.556, 1, 4.72544, 45.5191, 6.91731, 27.5527, -55.9988, 98.0493
1.56, 1, 4.8, 45.525, 6.86802, 27.7183, -55.9876, 97.9221
1.564, 1, 4.87451, 45.531, 6.81876, 27.8837, -55.9764, 97.7951
1.568, 1, 4.94897, 45.5369, 6.76953, 28.0491, -55.9651, 97.6682
1.572, 1, 5.02337, 45.5428, 6.72035, 28.2143, -55.9539, 97.5414
1.576, 1, 5.09772, 45.5488, 6.67119, 28.3794, -55.9427, 97.4146
1.58, 1, 5.17201, 45.5547, 6.62208, 28.5444, -55.9315, 97.288
1.584, 1, 5.24624, 45.5606, 6.573, 28.7092, -55.9203, 97.1614
1.588, 1, 5.32042, 45.5665, 6.52396, 28.874, -55.9091, 97.035
1.592, 1, 5.39455, 45.5724, 6.47496, 29.0386, -55.8979, 96.9086
1.596, 1, 5.46861, 45.5783, 6.42599, 29.203, -55.8868, 96.7823
1.6, 1, 5.54262, 45.5842, 6.37707, 29.3674, -55.8756, 96.6562
1.604, 1, 5.61657, 45.5901, 6.32818, 29.5316, -55.8645, 96.5301
1.608, 1, 5.69046, 45.596, 6.27933, 29.6957, -55.8533, 96.4042
1.612, 1, 5.76429, 45.6019, 6.23052, 29.8596, -55.8422, 96.2783
1.616, 1, 5.83806, 45.6077, 6.18175, 30.0235, -55.8311, 96.1525
1.62, 1, 5.91178, 45.6136, 6.13302, 30.1872, -55.8199, 96.0269
1.624, 1, 5.98543, 45.6195, 6.08433, 30.3507, -55.8088, 95.9013
1.628, 1, 6.05902, 45.6254, 6.03568, 30.5141, -55.7977, 95.7759
1.632, 1, 6.13255, 45.6312, 5.98707, 30.6774, -55.7867, 95.6505
1.636, 1, 6.20602, 45.6371, 5.9385, 30.8406, -55.7756, 95.5253
1.64, 1, 6.27943, 45.6429, 5.88997, 31.0036, -55.7645, 95.4002
1.644, 1, 6.35278, 45.6488, 5.84148, 31.1664, -55.7535, 95.2751
1.648, 1, 6.42606, 45.6546, 5.79304, 31.3292, -55.7424, 95.1502
1.652, 1, 6.49929, 45.6604, 5.74463, 31.4917, -55.7314, 95.0254
1.656, 1, 6.57244, 45.6663, 5.69627, 31.6542, -55.7203, 94.9007
1.66, 1, 6.64554, 45.6721, 5.64795, 31.8165, -55.7093, 94.7761
1.664, 1, 6.71857, 45.6779, 5.59968, 31.9786, -55.6983, 94.6516
1.668, 1, 6.79153, 45.6837, 5.55145, 32.1407, -55.6873, 94.5273
1.672, 1, 6.86444, 45.6895, 5.50325, 32.3025, -55.6763, 94.403
1.676, 1, 6.93727, 45.6953, 5.45511, 32.4643, -55.6653, 94.2788
1.68, 1, 7.01004, 45.7011, 5.407, 32.6259, -55.6544, 94.1548
1.684, 1, 7.08274, 45.7069, 5.35894, 32.7873, -55.6434, 94.0309
1.688, 1, 7.15538, 45.7127, 5.31093, 32.9486, -55.6324, 93.9071
1.692, 1, 7.22795, 45.7185, 5.26295, 33.1097, -55.6215, 93.7834
1.696, 1, 7.30045, 45.7243, 5.21503, 33.2707, -55.6106, 93.6598
1.7, 1, 7.37289, 45.73, 5.16714, 33.4316, -55.5996, 93.5363
1.704, 1, 7.44526, 45.7358, 5.1193, 33.5922, -55.5887, 93.4129
1.708, 1, 7.51756, 45.7416, 5.07151, 33.7528, -55.5778, 93.2897
1.712, 1, 7.58979, 45.7473, 5.02376, 33.9132, -55.5669, 93.1666
1.716, 1, 7.66195, 45.7531, 4.97606, 34.0734, -55.5561, 93.0436
1.72, 1, 7.73405, 45.7588, 4.9284, 34.2335, -55.5452, 92.9207
1.724, 1, 7.80608, 45.7645, 4.88078, 34.3934, -55.5343, 92.7979
1.728, 1, 7.87803, 45.7703, 4.83322, 34.5532, -55.5235, 92.6752
1.732, 1, 7.94992, 45.776, 4.7857, 34.7128, -55.5126, 92.5527
1.736, 1, 8.02174, 45.7817, 4.73822, 34.8723, -55.5018, 92.4303
1.74, 1, 8.09349, 45.7874, 4.6908, 35.0316, -55.491, 92.308
1.744, 1, 8.16516, 45.7932, 4.64342, 35.1908, -55.4802, 92.1858
1.748, 1, 8.23677, 45.7989, 4.59608, 35.3498, -55.4694, 92.0638
1.752, 1, 8.3083, 45.8046, 4.5488, 35.5086, -55.4586, 91.9418
1.756, 1, 8.37977, 45.8103, 4.50156, 35.6673, -55.4478, 91.82
1.76, 1, 8.45116, 45.8159, 4.45436, 35.8258, -55.4371, 91.6983
1.764, 1, 8.52248, 45.8216, 4.40722, 35.9841, -55.4263, 91.5768
1.768, 1, 8.59373, 45.8273, 4.36012, 36.1423, -55.4156, 91.4553
1.772, 1, 8.6649, 45.833, 4.31308, 36.3004, -55.4048, 91.334
1.776, 1, 8.736, 45.8386, 4.26608, 36.4583, -55.3941, 91.2128
1.78, 1, 8.80703, 45.8443, 4.21912, 36.616, -55.3834, 91.0918
1.784, 1, 8.87799, 45.85, 4.17222, 36.7735, -55.3727, 90.9708
1.788, 1, 8.94887, 45.8556, 4.12537, 36.9309, -55.362, 90.85
1.792, 1, 9.01968, 45.8612, 4.07856, 37.0881, -55.3514, 90.7293
1.796, 1, 9.09041, 45.8669, 4.0318, 37.2452, -55.3407, 90.6087
1.8, 1, 9.16107, 45.8725, 3.9851, 37.4021, -55.33, 90.4883
1.804, 1, 9.23166, 45.8781, 3.93844, 37.5588, -55.3194, 90.368
1.808, 1, 9.30217, 45.8837, 3.89183, 37.7154, -55.3088, 90.2478
1.812, 1, 9.37261, 45.8894, 3.84527, 37.8717, -55.2981, 90.1277
1.816, 1, 9.44297, 45.895, 3.79876, 38.028, -55.2875, 90.0078
1.82, 1, 9.51325, 45.9006, 3.75231, 38.184, -55.2769, 89.888
1.824, 1, 9.58346, 45.9062, 3.7059, 38.3399, -55.2663, 89.7683
1.828, 1, 9.6536, 45.9117, 3.65954, 38.4956, -55.2558, 89.6488
1.832, 1, 9.72365, 45.9173, 3.61323, 38.6512, -55.2452, 89.5294
1.836, 1, 9.79364, 45.9229, 3.56697, 38.8066, -55.2347, 89.4101
1.84, 1, 9.86354, 45.9285, 3.52077, 38.9618, -55.2241, 89.291
1.844, 1, 9.93337, 45.934, 3.47461, 39.1168, -55.2136, 89.172
1.848, 1, 10.0031, 45.9396, 3.4285, 39.2717, -55.2031, 89.0531
1.852, 1, 10.0728, 45.9451, 3.38245, 39.4264, -55.1926, 88.9343
1.856, 1, 10.1424, 45.9507, 3.33645, 39.5809, -55.1821, 88.8157
1.86, 1, 10.2119, 45.9562, 3.2905, 39.7353, -55.1716, 88.6972
1.864, 1, 10.2814, 45.9618, 3.2446, 39.8894, -55.1611, 88.5788
1.868, 1, 10.3507, 45.9673, 3.19875, 40.0434, -55.1507, 88.4606
1.872, 1, 10.42, 45.9728, 3.15295, 40.1973, -55.1402, 88.3425
1.876, 1, 10.4892, 45.9783, 3.1072, 40.3509, -55.1298, 88.2246
1.88, 1, 10.5583, 45.9838, 3.06151, 40.5044, -55.1194, 88.1068
1.884, 1, 10.6274, 45.9893, 3.01587, 40.6577, -55.109, 87.9891
1.888, 1, 10.6964, 45.9948, 2.97028, 40.8109, -55.0986, 87.8715
1.892, 1, 10.7653, 46.0003, 2.92474, 40.9638, -55.0882, 87.7541
1.896, 1, 10.8341, 46.0058, 2.87926, 41.1166, -55.0778, 87.6368
1.9, 1, 10.9028, 46.0113, 2.83383, 41.2692, -55.0674, 87.5196
1.904, 1, 10.9715, 46.0167, 2.78845, 41.4217, -55.0571, 87.4026
1.908, 1, 11.0401, 46.0222, 2.74312, 41.5739, -55.0468, 87.2858
1.912, 1, 11.1085, 46.0277, 2.69785, 41.726, -55.0364, 87.169
1.916, 1, 11.177, 46.0331, 2.65262, 41.8779, -55.0261, 87.0524
1.92, 1, 11.2453, 46.0386, 2.60745, 42.0296, -55.0158, 86.9359
1.924, 1, 11.3136, 46.044, 2.56234, 42.1812, -55.0055, 86.8196
1.928, 1, 11.3817, 46.0494, 2.51728, 42.3325, -54.9952, 86.7034
1.932, 1, 11.4499, 46.0548, 2.47227, 42.4837, -54.985, 86.5873
1.936, 1, 11.5179, 46.0603, 2.42731, 42.6347, -54.9747, 86.4714
1.94, 1, 11.5858, 46.0657, 2.38241, 42.7856, -54.9645, 86.3556
1.944, 1, 11.6537, 46.0711, 2.33756, 42.9362, -54.9543, 86.24
1.948, 1, 11.7215, 46.0765, 2.29276, 43.0867, -54.944, 86.1244
1.952, 1, 11.7892, 46.0819, 2.24801, 43.237, -54.9338, 86.0091
1.956, 1, 11.8568, 46.0873, 2.20332, 43.3871, -54.9236, 85.8938
1.96, 1, 11.9243, 46.0926, 2.15869, 43.537, -54.9134, 85.7787
1.964, 1, 11.9918, 46.098, 2.1141, 43.6868, -54.9033, 85.6638
1.968, 1, 12.0592, 46.1034, 2.06957, 43.8364, -54.8931, 85.5489
1.972, 1, 12.1265, 46.1087, 2.0251, 43.9858, -54.883, 85.4342
1.976, 1, 12.1937, 46.1141, 1.98067, 44.135, -54.8728, 85.3197
1.98, 1, 12.2608, 46.1194, 1.9363, 44.2841, -54.8627, 85.2053
1.984, 1, 12.3279, 46.1248, 1.89198, 44.4329, -54.8526, 85.091
1.988, 1, 12.3948, 46.1301, 1.84772, 44.5816, -54.8425, 84.9769
1.992, 1, 12.4617, 46.1354, 1.80351, 44.7301, -54.8324, 84.8629
1.996, 1, 12.5286, 46.1408, 1.75935, 44.8784, -54.8224, 84.749
1.999, 1, 12.5953, 46.1461, 1.71525, 45.0266, -54.8123, 84.6353
2.004, 1, 12.6619, 46.1514, 1.6712, 45.1745, -54.8023, 84.5217
2.008, 1, 12.7285, 46.1567, 1.6272, 45.3223, -54.7922, 84.4082
2.012, 1, 12.795, 46.162, 1.58326, 45.4699, -54.7822, 84.2949
2.015, 1, 12.8614, 46.1673, 1.53937, 45.6174, -54.7722, 84.1818
2.019, 1, 12.9277, 46.1726, 1.49553, 45.7646, -54.7622, 84.0687
2.024, 1, 12.994, 46.1778, 1.45175, 45.9117, -54.7522, 83.9558
2.028, 1, 13.0602, 46.1831, 1.40802, 46.0586, -54.7422, 83.8431
2.031, 1, 13.1263, 46.1884, 1.36434, 46.2053, -54.7323, 83.7304
2.036, 1, 13.1923, 46.1936, 1.32072, 46.3518, -54.7223, 83.618
2.04, 1, 13.2582, 46.1989, 1.27715, 46.4982, -54.7124, 83.5056
2.044, 1, 13.324, 46.2041, 1.23364, 46.6443, -54.7025, 83.3934
2.048, 1, 13.3898, 46.2094, 1.19017, 46.7903, -54.6925, 83.2813
2.051, 1, 13.4555, 46.2146, 1.14677, 46.9361, -54.6826, 83.1694
2.055, 1, 13.5211, 46.2198, 1.10341, 47.0818, -54.6728, 83.0576
2.06, 1, 13.5866, 46.225, 1.06011, 47.2272, -54.6629, 82.9459
2.064, 1, 13.6521, 46.2303, 1.01686, 47.3725, -54.653, 82.8344
2.068, 1, 13.7174, 46.2355, 0.973664, 47.5176, -54.6432, 82.723
2.071, 1, 13.7827, 46.2407, 0.930522, 47.6625, -54.6333, 82.6118
2.076, 1, 13.8479, 46.2459, 0.887434, 47.8073, -54.6235, 82.5007
2.08, 1, 13.913, 46.251, 0.844398, 47.9518, -54.6137, 82.3897
2.084, 1, 13.9781, 46.2562, 0.801417, 48.0962, -54.6039, 82.2789
2.087, 1, 14.043, 46.2614, 0.758488, 48.2404, -54.5941, 82.1682
2.092, 1, 14.1079, 46.2666, 0.715613, 48.3844, -54.5843, 82.0576
2.096, 1, 14.1727, 46.2717, 0.672791, 48.5283, -54.5745, 81.9472
2.1, 1, 14.2374, 46.2769, 0.630022, 48.6719, -54.5648, 81.8369
2.104, 1, 14.302, 46.282, 0.587307, 48.8154, -54.555, 81.7268
2.107, 1, 14.3666, 46.2872, 0.544645, 48.9587, -54.5453, 81.6167
2.111, 1, 14.4311, 46.2923, 0.502036, 49.1018, -54.5356, 81.5069
2.116, 1, 14.4955, 46.2974, 0.45948, 49.2448, -54.5259, 81.3971
2.12, 1, 14.5598, 46.3026, 0.416977, 49.3876, -54.5162, 81.2875
2.124, 1, 14.624, 46.3077, 0.374528, 49.5301, -54.5065, 81.1781
2.127, 1, 14.6882, 46.3128, 0.332132, 49.6726, -54.4968, 81.0688
2.132, 1, 14.7523, 46.3179, 0.289788, 49.8148, -54.4872, 80.9596
2.136, 1, 14.8162, 46.323, 0.247498, 49.9568, -54.4775, 80.8505
2.14, 1, 14.8802, 46.3281, 0.205261, 50.0987, -54.4679, 80.7416
2.143, 1, 14.944, 46.3332, 0.163077, 50.2404, -54.4583, 80.6328
2.148, 1, 15.0077, 46.3382, 0.120946, 50.3819, -54.4487, 80.5242
2.152, 1, 15.0714, 46.3433, 0.0788673, 50.5233, -54.4391, 80.4157
2.156, 1, 15.135, 46.3484, 0.036842, 50.6645, -54.4295, 80.3073
2.16, 1, 15.1985, 46.3534, -0.00513047, 50.8054, -54.4199, 80.1991
2.163, 1, 15.262, 46.3585, -0.0470501, 50.9463, -54.4103, 80.091
2.168, 1, 15.3253, 46.3635, -0.0889169, 51.0869, -54.4008, 79.983
2.172, 1, 15.3886, 46.3686, -0.130731, 51.2273, -54.3913, 79.8752
2.176, 1, 15.4518, 46.3736, -0.172492, 51.3676, -54.3817, 79.7675
2.179, 1, 15.5149, 46.3786, -0.214201, 51.5077, -54.3722, 79.66
2.184, 1, 15.5779, 46.3836, -0.255857, 51.6477, -54.3627, 79.5526
2.188, 1, 15.6409, 46.3887, -0.29746, 51.7874, -54.3532, 79.4453
2.192, 1, 15.7038, 46.3937, -0.339011, 51.927, -54.3438, 79.3381
2.196, 1, 15.7666, 46.3987, -0.380509, 52.0664, -54.3343, 79.2311
2.199, 1, 15.8293, 46.4037, -0.421955, 52.2056, -54.3248, 79.1243
2.204, 1, 15.8919, 46.4086, -0.463348, 52.3446, -54.3154, 79.0175
2.208, 1, 15.9545, 46.4136, -0.504689, 52.4835, -54.306, 78.9109
2.212, 1, 16.017, 46.4186, -0.545977, 52.6222, -54.2965, 78.8044
2.216, 1, 16.0794, 46.4236, -0.587213, 52.7607, -54.2871, 78.6981
2.219, 1, 16.1417, 46.4285, -0.628397, 52.899, -54.2777, 78.5919
2.224, 1, 16.2039, 46.4335, -0.669528, 53.0372, -54.2684, 78.4859
2.228, 1, 16.2661, 46.4384, -0.710608, 53.1752, -54.259, 78.3799
2.232, 1, 16.3282, 46.4434, -0.751635, 53.313, -54.2496, 78.2741
2.235, 1, 16.3902, 46.4483, -0.79261, 53.4506, -54.2403, 78.1685
2.24, 1, 16.4521, 46.4533, -0.833533, 53.5881, -54.231, 78.063
2.244, 1, 16.514, 46.4582, -0.874404, 53.7254, -54.2216, 77.9576
2.248, 1, 16.5757, 46.4631, -0.915223, 53.8625, -54.2123, 77.8523
2.252, 1, 16.6374, 46.468, -0.95599, 53.9995, -54.203, 77.7472
2.255, 1, 16.699, 46.4729, -0.996706, 54.1362, -54.1937, 77.6422
2.259, 1, 16.7606, 46.4778, -1.03737, 54.2728, -54.1845, 77.5373
2.264, 1, 16.822, 46.4827, -1.07798, 54.4092, -54.1752, 77.4326
2.268, 1, 16.8834, 46.4876, -1.11854, 54.5455, -54.1659, 77.328
2.272, 1, 16.9447, 46.4925, -1.15905, 54.6816, -54.1567, 77.2236
2.275, 1, 17.006, 46.4974, -1.19951, 54.8175, -54.1475, 77.1192
2.28, 1, 17.0671, 46.5022, -1.23992, 54.9532, -54.1383, 77.015
2.284, 1, 17.1282, 46.5071, -1.28027, 55.0888, -54.1291, 76.911
2.288, 1, 17.1892, 46.512, -1.32058, 55.2241, -54.1199, 76.807
2.291, 1, 17.2501, 46.5168, -1.36083, 55.3594, -54.1107, 76.7032
2.296, 1, 17.3109, 46.5217, -1.40103, 55.4944, -54.1015, 76.5996
2.3, 1, 17.3717, 46.5265, -1.44119, 55.6293, -54.0924, 76.496
2.304, 1, 17.4324, 46.5313, -1.48129, 55.764, -54.0832, 76.3926
2.308, 1, 17.493, 46.5362, -1.52134, 55.8985, -54.0741, 76.2893
2.311, 1, 17.5535, 46.541, -1.56134, 56.0329, -54.0649, 76.1862
2.316, 1, 17.614, 46.5458, -1.60129, 56.1671, -54.0558, 76.0832
2.32, 1, 17.6744, 46.5506, -1.64119, 56.3011, -54.0467, 75.9803
2.324, 1, 17.7347, 46.5554, -1.68104, 56.435, -54.0376, 75.8775
2.328, 1, 17.7949, 46.5602, -1.72084, 56.5687, -54.0286, 75.7749
2.331, 1, 17.8551, 46.565, -1.76059, 56.7022, -54.0195, 75.6724
2.336, 1, 17.9152, 46.5698, -1.80029, 56.8355, -54.0104, 75.57
2.34, 1, 17.9752, 46.5745, -1.83994, 56.9687, -54.0014, 75.4678
2.344, 1, 18.0351, 46.5793, -1.87954, 57.1018, -53.9924, 75.3657
2.347, 1, 18.095, 46.5841, -1.91909, 57.2346, -53.9833, 75.2637
2.352, 1, 18.1547, 46.5888, -1.95859, 57.3673, -53.9743, 75.1618
2.356, 1, 18.2144, 46.5936, -1.99804, 57.4998, -53.9653, 75.0601
2.36, 1, 18.2741, 46.5984, -2.03745, 57.6322, -53.9563, 74.9585
2.364, 1, 18.3336, 46.6031, -2.0768, 57.7644, -53.9474, 74.857
2.367, 1, 18.3931, 46.6078, -2.1161, 57.8964, -53.9384, 74.7557
2.372, 1, 18.4525, 46.6126, -2.15536, 58.0283, -53.9295, 74.6544
2.376, 1, 18.5119, 46.6173, -2.19456, 58.16, -53.9205, 74.5533
2.38, 1, 18.5711, 46.622, -2.23372, 58.2915, -53.9116, 74.4524
2.383, 1, 18.6303, 46.6267, -2.27283, 58.4229, -53.9027, 74.3515
2.388, 1, 18.6894, 46.6314, -2.31189, 58.5541, -53.8937, 74.2508
2.392, 1, 18.7485, 46.6361, -2.3509, 58.6851, -53.8848, 74.1502
2.396, 1, 18.8074, 46.6408, -2.38987, 58.816, -53.876, 74.0497
2.4, 1, 18.8663, 46.6455, -2.42878, 58.9467, -53.8671, 73.9494
2.403, 1, 18.9251, 46.6502, -2.46765, 59.0773, -53.8582, 73.8492
2.408, 1, 18.9839, 46.6549, -2.50647, 59.2077, -53.8494, 73.749
2.412, 1, 19.0426, 46.6595, -2.54524, 59.3379, -53.8405, 73.6491
2.416, 1, 19.1012, 46.6642, -2.58396, 59.468, -53.8317, 73.5492
2.42, 1, 19.1597, 46.6689, -2.62263, 59.5979, -53.8229, 73.4495
2.423, 1, 19.2182, 46.6735, -2.66126, 59.7276, -53.8141, 73.3499
2.428, 1, 19.2765, 46.6782, -2.69984, 59.8572, -53.8053, 73.2504
2.432, 1, 19.3349, 46.6828, -2.73837, 59.9867, -53.7965, 73.1511
2.436, 1, 19.3931, 46.6875, -2.77685, 60.1159, -53.7877, 73.0518
2.439, 1, 19.4513, 46.6921, -2.81529, 60.245, -53.7789, 72.9527
2.444, 1, 19.5094, 46.6967, -2.85368, 60.374, -53.7702, 72.8537
2.448, 1, 19.5674, 46.7013, -2.89202, 60.5028, -53.7614, 72.7548
2.452, 1, 19.6254, 46.7059, -2.93031, 60.6314, -53.7527, 72.6561
2.456, 1, 19.6832, 46.7106, -2.96856, 60.7599, -53.744, 72.5575
2.459, 1, 19.7411, 46.7152, -3.00676, 60.8882, -53.7353, 72.459
2.464, 1, 19.7988, 46.7198, -3.04492, 61.0164, -53.7265, 72.3606
2.468, 1, 19.8565, 46.7243, -3.08302, 61.1444, -53.7179, 72.2623
2.472, 1, 19.9141, 46.7289, -3.12108, 61.2722, -53.7092, 72.1642
2.476, 1, 19.9716, 46.7335, -3.1591, 61.3999, -53.7005, 72.0661
2.479, 1, 20.0291, 46.7381, -3.19706, 61.5275, -53.6918, 71.9682
2.484, 1, 20.0864, 46.7427, -3.23498, 61.6549, -53.6832, 71.8705
2.488, 1, 20.1438, 46.7472, -3.27286, 61.7821, -53.6746, 71.7728
2.492, 1, 20.201, 46.7518, -3.31069, 61.9091, -53.6659, 71.6752
2.495, 1, 20.2582, 46.7563, -3.34847, 62.0361, -53.6573, 71.5778
2.5, 1, 20.3153, 46.7609, -3.3862, 62.1628, -53.6487, 71.4805
2.504, 1, 20.3723, 46.7654, -3.42389, 62.2894, -53.6401, 71.3833
2.508, 1, 20.4293, 46.77, -3.46154, 62.4159, -53.6315, 71.2862
2.512, 1, 20.4862, 46.7745, -3.49914, 62.5422, -53.6229, 71.1893
2.515, 1, 20.5431, 46.779, -3.53669, 62.6683, -53.6144, 71.0925
2.52, 1, 20.5998, 46.7835, -3.5742, 62.7943, -53.6058, 70.9957
2.524, 1, 20.6565, 46.7881, -3.61166, 62.9201, -53.5973, 70.8991
2.528, 1, 20.7131, 46.7926, -3.64908, 63.0458, -53.5887, 70.8027
2.531, 1, 20.7697, 46.7971, -3.68645, 63.1714, -53.5802, 70.7063
2.536, 1, 20.8262, 46.8016, -3.72377, 63.2967, -53.5717, 70.61
2.54, 1, 20.8826, 46.8061, -3.76105, 63.422, -53.5632, 70.5139
2.544, 1, 20.939, 46.8105, -3.79829, 63.5471, -53.5547, 70.4179
2.548, 1, 20.9953, 46.815, -3.83548, 63.672, -53.5462, 70.322
2.551, 1, 21.0515, 46.8195, -3.87262, 63.7968, -53.5378, 70.2262
2.556, 1, 21.1076, 46.824, -3.90973, 63.9214, -53.5293, 70.1305
2.56, 1, 21.1637, 46.8284, -3.94678, 64.0459, -53.5208, 70.035
2.564, 1, 21.2197, 46.8329, -3.98379, 64.1702, -53.5124, 69.9395
2.568, 1, 21.2757, 46.8373, -4.02076, 64.2944, -53.504, 69.8442
2.571, 1, 21.3315, 46.8418, -4.05768, 64.4184, -53.4955, 69.749
2.576, 1, 21.3874, 46.8462, -4.09456, 64.5423, -53.4871, 69.6539
2.58, 1, 21.4431, 46.8507, -4.1314, 64.666, -53.4787, 69.5589
2.584, 1, 21.4988, 46.8551, -4.16819, 64.7896, -53.4703, 69.464
2.587, 1, 21.5544, 46.8595, -4.20493, 64.913, -53.462, 69.3693
2.592, 1, 21.6099, 46.864, -4.24164, 65.0363, -53.4536, 69.2746
2.596, 1, 21.6654, 46.8684, -4.27829, 65.1595, -53.4452, 69.1801
2.6, 1, 21.7208, 46.8728, -4.31491, 65.2824, -53.4369, 69.0857
2.604, 1, 21.7762, 46.8772, -4.35148, 65.4053, -53.4285, 68.9914
2.607, 1, 21.8315, 46.8816, -4.38801, 65.528, -53.4202, 68.8972
2.612, 1, 21.8867, 46.886, -4.42449, 65.6506, -53.4119, 68.8031
2.616, 1, 21.9418, 46.8904, -4.46093, 65.773, -53.4036, 68.7091
2.62, 1, 21.9969, 46.8948, -4.49733, 65.8952, -53.3953, 68.6153
2.624, 1, 22.052, 46.8992, -4.53368, 66.0173, -53.387, 68.5215
2.627, 1, 22.1069, 46.9035, -4.57, 66.1393, -53.3787, 68.4279
2.632, 1, 22.1618, 46.9079, -4.60627, 66.2612, -53.3704, 68.3344
2.636, 1, 22.2166, 46.9123, -4.64249, 66.3829, -53.3621, 68.241
2.64, 1, 22.2714, 46.9166, -4.67868, 66.5044, -53.3539, 68.1477
2.643, 1, 22.3261, 46.921, -4.71482, 66.6258, -53.3456, 68.0545
2.648, 1, 22.3807, 46.9253, -4.75092, 66.7471, -53.3374, 67.9614
2.652, 1, 22.4353, 46.9297, -4.78697, 66.8682, -53.3292, 67.8684
2.656, 1, 22.4898, 46.934, -4.82299, 66.9892, -53.321, 67.7755
2.66, 1, 22.5443, 46.9384, -4.85896, 67.11, -53.3128, 67.6828
2.663, 1, 22.5986, 46.9427, -4.89489, 67.2307, -53.3046, 67.5901
2.668, 1, 22.653, 46.947, -4.93078, 67.3512, -53.2964, 67.4976
2.672, 1, 22.7072, 46.9513, -4.96663, 67.4717, -53.2882, 67.4051
2.676, 1, 22.7614, 46.9556, -5.00243, 67.5919, -53.28, 67.3128
2.679, 1, 22.8155, 46.9599, -5.0382, 67.7121, -53.2719, 67.2206
2.684, 1, 22.8696, 46.9643, -5.07392, 67.8321, -53.2637, 67.1285
2.688, 1, 22.9236, 46.9686, -5.1096, 67.9519, -53.2556, 67.0364
2.692, 1, 22.9776, 46.9728, -5.14524, 68.0716, -53.2475, 66.9445
2.696, 1, 23.0314, 46.9771, -5.18084, 68.1912, -53.2393, 66.8527
2.699, 1, 23.0853, 46.9814, -5.2164, 68.3107, -53.2312, 66.761
2.704, 1, 23.139, 46.9857, -5.25191, 68.43, -53.2231, 66.6695
2.708, 1, 23.1927, 46.99, -5.28739, 68.5492, -53.215, 66.578
2.712, 1, 23.2463, 46.9942, -5.32283, 68.6682, -53.207, 66.4866
2.716, 1, 23.2999, 46.9985, -5.35822, 68.7871, -53.1989, 66.3953
2.719, 1, 23.3534, 47.0028, -5.39358, 68.9059, -53.1908, 66.3042
2.724, 1, 23.4069, 47.007, -5.42889, 69.0245, -53.1828, 66.2131
2.728, 1, 23.4603, 47.0113, -5.46417, 69.143, -53.1747, 66.1221
2.732, 1, 23.5136, 47.0155, -5.4994, 69.2613, -53.1667, 66.0313
2.735, 1, 23.5668, 47.0198, -5.5346, 69.3796, -53.1587, 65.9405
2.74, 1, 23.6201, 47.024, -5.56975, 69.4977, -53.1506, 65.8499
2.744, 1, 23.6732, 47.0282, -5.60487, 69.6156, -53.1426, 65.7593
2.748, 1, 23.7263, 47.0325, -5.63994, 69.7334, -53.1346, 65.6689
2.752, 1, 23.7793, 47.0367, -5.67498, 69.8511, -53.1266, 65.5785
2.755, 1, 23.8323, 47.0409, -5.70998, 69.9687, -53.1187, 65.4883
2.76, 1, 23.8852, 47.0451, -5.74493, 70.0861, -53.1107, 65.3981
2.764, 1, 23.938, 47.0493, -5.77985, 70.2034, -53.1027, 65.3081
2.768, 1, 23.9908, 47.0535, -5.81473, 70.3206, -53.0948, 65.2181
2.772, 1, 24.0436, 47.0577, -5.84957, 70.4376, -53.0868, 65.1283
2.775, 1, 24.0962, 47.0619, -5.88437, 70.5545, -53.0789, 65.0386
2.78, 1, 24.1488, 47.0661, -5.91913, 70.6713, -53.0709, 64.9489
2.784, 1, 24.2014, 47.0703, -5.95385, 70.7879, -53.063, 64.8594
2.788, 1, 24.2539, 47.0745, -5.98854, 70.9044, -53.0551, 64.7699
2.791, 1, 24.3063, 47.0786, -6.02318, 71.0208, -53.0472, 64.6806
2.796, 1, 24.3587, 47.0828, -6.05779, 71.1371, -53.0393, 64.5914
2.8, 1, 24.411, 47.087, -6.09236, 71.2532, -53.0314, 64.5022
2.804, 1, 24.4633, 47.0911, -6.12689, 71.3692, -53.0236, 64.4132
2.808, 1, 24.5155, 47.0953, -6.16138, 71.485, -53.0157, 64.3242
2.811, 1, 24.5676, 47.0994, -6.19584, 71.6008, -53.0078, 64.2354
2.816, 1, 24.6197, 47.1036, -6.23025, 71.7164, -53, 64.1466
2.82, 1, 24.6718, 47.1077, -6.26463, 71.8319, -52.9921, 64.058
2.824, 1, 24.7237, 47.1119, -6.29897, 71.9472, -52.9843, 63.9694
2.828, 1, 24.7756, 47.116, -6.33328, 72.0625, -52.9765, 63.881
2.831, 1, 24.8275, 47.1201, -6.36754, 72.1776, -52.9687, 63.7926
2.836, 1, 24.8793, 47.1243, -6.40177, 72.2925, -52.9609, 63.7043
2.84, 1, 24.9311, 47.1284, -6.43596, 72.4074, -52.9531, 63.6162
2.844, 1, 24.9827, 47.1325, -6.47011, 72.5221, -52.9453, 63.5281
2.847, 1, 25.0344, 47.1366, -6.50423, 72.6367, -52.9375, 63.4401
2.852, 1, 25.086, 47.1407, -6.53831, 72.7512, -52.9297, 63.3523
2.856, 1, 25.1375, 47.1448, -6.57235, 72.8655, -52.9219, 63.2645
2.86, 1, 25.1889, 47.1489, -6.60635, 72.9798, -52.9142, 63.1768
2.864, 1, 25.2404, 47.153, -6.64032, 73.0939, -52.9064, 63.0892
2.867, 1, 25.2917, 47.1571, -6.67425, 73.2078, -52.8987, 63.0017
2.872, 1, 25.343, 47.1612, -6.70815, 73.3217, -52.891, 62.9143
2.876, 1, 25.3943, 47.1652, -6.742, 73.4354, -52.8832, 62.827
2.88, 1, 25.4454, 47.1693, -6.77583, 73.549, -52.8755, 62.7398
2.883, 1, 25.4966, 47.1734, -6.80961, 73.6625, -52.8678, 62.6527
2.888, 1, 25.5477, 47.1775, -6.84336, 73.7759, -52.8601, 62.5656
2.892, 1, 25.5987, 47.1815, -6.87707, 73.8891, -52.8524, 62.4787
2.896, 1, 25.6496, 47.1856, -6.91075, 74.0023, -52.8448, 62.3919
2.9, 1, 25.7006, 47.1896, -6.94439, 74.1153, -52.8371, 62.3051
2.903, 1, 25.7514, 47.1937, -6.97799, 74.2281, -52.8294, 62.2185
2.908, 1, 25.8022, 47.1977, -7.01156, 74.3409, -52.8218, 62.1319
2.912, 1, 25.853, 47.2018, -7.04509, 74.4536, -52.8141, 62.0454
2.916, 1, 25.9037, 47.2058, -7.07859, 74.5661, -52.8065, 61.9591
2.92, 1, 25.9543, 47.2098, -7.11205, 74.6785, -52.7988, 61.8728
2.923, 1, 26.0049, 47.2139, -7.14547, 74.7908, -52.7912, 61.7866
2.928, 1, 26.0554, 47.2179, -7.17886, 74.9029, -52.7836, 61.7005
2.932, 1, 26.1059, 47.2219, -7.21222, 75.015, -52.776, 61.6145
2.936, 1, 26.1563, 47.2259, -7.24554, 75.1269, -52.7684, 61.5285
2.939, 1, 26.2067, 47.2299, -7.27882, 75.2387, -52.7608, 61.4427
2.944, 1, 26.257, 47.2339, -7.31207, 75.3504, -52.7532, 61.357
2.948, 1, 26.3073, 47.2379, -7.34529, 75.462, -52.7456, 61.2713
2.952, 1, 26.3575, 47.2419, -7.37847, 75.5734, -52.7381, 61.1858
2.956, 1, 26.4077, 47.2459, -7.41161, 75.6847, -52.7305, 61.1003
2.959, 1, 26.4578, 47.2499, -7.44472, 75.796, -52.723, 61.0149
2.964, 1, 26.5079, 47.2539, -7.47779, 75.9071, -52.7154, 60.9296
2.968, 1, 26.5579, 47.2579, -7.51083, 76.0181, -52.7079, 60.8444
2.972, 1, 26.6078, 47.2619, -7.54384, 76.1289, -52.7003, 60.7593
2.976, 1, 26.6577, 47.2658, -7.57681, 76.2397, -52.6928, 60.6743
2.98, 1, 26.7076, 47.2698, -7.60975, 76.3503, -52.6853, 60.5894
2.984, 1, 26.7574, 47.2738, -7.64265, 76.4609, -52.6778, 60.5045
2.988, 1, 26.8071, 47.2777, -7.67552, 76.5713, -52.6703, 60.4197
2.992, 1, 26.8568, 47.2817, -7.70835, 76.6816, -52.6628, 60.3351
2.995, 1, 26.9065, 47.2856, -7.74115, 76.7917, -52.6553, 60.2505
3, 1, 26.9561, 47.2896, -7.77392, 76.9018, -52.6479, 60.166
3.004, 1, 27.0056, 47.2935, -7.80665, 77.0118, -52.6404, 60.0816
3.008, 1, 27.0551, 47.2975, -7.83935, 77.1216, -52.6329, 59.9973
3.012, 1, 27.1045, 47.3014, -7.87202, 77.2313, -52.6255, 59.913
3.015, 1, 27.1539, 47.3053, -7.90465, 77.341, -52.618, 59.8289
3.02, 1, 27.2033, 47.3093, -7.93725, 77.4505, -52.6106, 59.7448
3.024, 1, 27.2526, 47.3132, -7.96981, 77.5599, -52.6032, 59.6609
3.028, 1, 27.3018, 47.3171, -8.00235, 77.6691, -52.5958, 59.577
3.031, 1, 27.351, 47.321, -8.03485, 77.7783, -52.5883, 59.4932
3.036, 1, 27.4001, 47.3249, -8.06731, 77.8874, -52.5809, 59.4094
3.04, 1, 27.4492, 47.3288, -8.09974, 77.9963, -52.5735, 59.3258
3.044, 1, 27.4982, 47.3327, -8.13214, 78.1052, -52.5662, 59.2422
3.048, 1, 27.5472, 47.3367, -8.16451, 78.2139, -52.5588, 59.1588
3.051, 1, 27.5962, 47.3405, -8.19685, 78.3225, -52.5514, 59.0754
3.056, 1, 27.6451, 47.3444, -8.22915, 78.431, -52.544, 58.9921
3.06, 1, 27.6939, 47.3483, -8.26142, 78.5394, -52.5367, 58.9089
3.064, 1, 27.7427, 47.3522, -8.29366, 78.6477, -52.5293, 58.8258
3.068, 1, 27.7914, 47.3561, -8.32586, 78.7559, -52.522, 58.7427
3.071, 1, 27.8401, 47.36, -8.35804, 78.864, -52.5146, 58.6597
3.076, 1, 27.8888, 47.3638, -8.39018, 78.9719, -52.5073, 58.5769
3.08, 1, 27.9374, 47.3677, -8.42229, 79.0798, -52.5, 58.4941
3.084, 1, 27.9859, 47.3716, -8.45436, 79.1875, -52.4927, 58.4114
3.087, 1, 28.0344, 47.3754, -8.48641, 79.2952, -52.4853, 58.3287
3.092, 1, 28.0829, 47.3793, -8.51842, 79.4027, -52.478, 58.2462
3.096, 1, 28.1313, 47.3831, -8.5504, 79.5102, -52.4707, 58.1637
3.1, 1, 28.1796, 47.387, -8.58235, 79.6175, -52.4635, 58.0813
3.104, 1, 28.228, 47.3908, -8.61427, 79.7247, -52.4562, 57.999
3.107, 1, 28.2762, 47.3947, -8.64616, 79.8318, -52.4489, 57.9168
3.112, 1, 28.3244, 47.3985, -8.67801, 79.9388, -52.4416, 57.8346
3.116, 1, 28.3726, 47.4024, -8.70984, 80.0457, -52.4344, 57.7526
3.12, 1, 28.4207, 47.4062, -8.74163, 80.1525, -52.4271, 57.6706
3.124, 1, 28.4688, 47.41, -8.77339, 80.2592, -52.4199, 57.5887
3.128, 1, 28.5168, 47.4138, -8.80513, 80.3658, -52.4126, 57.5068
3.132, 1, 28.5648, 47.4177, -8.83683, 80.4723, -52.4054, 57.4251
3.136, 1, 28.6127, 47.4215, -8.8685, 80.5787, -52.3982, 57.3434
3.14, 1, 28.6606, 47.4253, -8.90014, 80.685, -52.391, 57.2618
3.143, 1, 28.7085, 47.4291, -8.93174, 80.7911, -52.3838, 57.1803
3.148, 1, 28.7562, 47.4329, -8.96332, 80.8972, -52.3766, 57.0989
3.152, 1, 28.804, 47.4367, -8.99487, 81.0032, -52.3694, 57.0175
3.156, 1, 28.8517, 47.4405, -9.02639, 81.1091, -52.3622, 56.9363
3.16, 1, 28.8993, 47.4443, -9.05787, 81.2148, -52.355, 56.8551
3.163, 1, 28.947, 47.4481, -9.08933, 81.3205, -52.3478, 56.774
3.168, 1, 28.9945, 47.4519, -9.12075, 81.4261, -52.3406, 56.6929
3.172, 1, 29.042, 47.4556, -9.15215, 81.5315, -52.3335, 56.612
3.176, 1, 29.0895, 47.4594, -9.18352, 81.6369, -52.3263, 56.5311
3.179, 1, 29.1369, 47.4632, -9.21485, 81.7422, -52.3192, 56.4503
3.184, 1, 29.1843, 47.467, -9.24616, 81.8473, -52.312, 56.3695
3.188, 1, 29.2317, 47.4707, -9.27744, 81.9524, -52.3049, 56.2889
3.192, 1, 29.279, 47.4745, -9.30868, 82.0574, -52.2978, 56.2083
3.196, 1, 29.3262, 47.4783, -9.3399, 82.1622, -52.2907, 56.1278
3.199, 1, 29.3734, 47.482, -9.37109, 82.267, -52.2835, 56.0474
3.204, 1, 29.4206, 47.4858, -9.40224, 82.3717, -52.2764, 55.967
3.208, 1, 29.4677, 47.4895, -9.43337, 82.4762, -52.2693, 55.8868
3.212, 1, 29.5147, 47.4933, -9.46447, 82.5807, -52.2622, 55.8066
3.216, 1, 29.5618, 47.497, -9.49554, 82.6851, -52.2552, 55.7265
3.22, 1, 29.6087, 47.5008, -9.52658, 82.7893, -52.2481, 55.6464
3.224, 1, 29.6557, 47.5045, -9.5576, 82.8935, -52.241, 55.5664
3.228, 1, 29.7026, 47.5082, -9.58858, 82.9976, -52.2339, 55.4865
3.232, 1, 29.7494, 47.512, -9.61953, 83.1016, -52.2269, 55.4067
3.235, 1, 29.7962, 47.5157, -9.65046, 83.2054, -52.2198, 55.327
3.24, 1, 29.843, 47.5194, -9.68135, 83.3092, -52.2128, 55.2473
3.244, 1, 29.8897, 47.5231, -9.71222, 83.4129, -52.2057, 55.1677
3.248, 1, 29.9364, 47.5268, -9.74306, 83.5165, -52.1987, 55.0882
3.252, 1, 29.983, 47.5306, -9.77387, 83.62, -52.1917, 55.0087
3.255, 1, 30.0296, 47.5343, -9.80465, 83.7234, -52.1846, 54.9294
3.26, 1, 30.0762, 47.538, -9.83541, 83.8267, -52.1776, 54.85
3.264, 1, 30.1227, 47.5417, -9.86613, 83.9299, -52.1706, 54.7708
3.268, 1, 30.1691, 47.5454, -9.89683, 84.0331, -52.1636, 54.6917
3.272, 1, 30.2155, 47.5491, -9.9275, 84.1361, -52.1566, 54.6126
3.276, 1, 30.2619, 47.5528, -9.95814, 84.239, -52.1496, 54.5336
3.28, 1, 30.3082, 47.5564, -9.98875, 84.3418, -52.1427, 54.4546
3.284, 1, 30.3545, 47.5601, -10.0193, 84.4446, -52.1357, 54.3757
3.288, 1, 30.4008, 47.5638, -10.0499, 84.5472, -52.1287, 54.2969
3.291, 1, 30.447, 47.5675, -10.0804, 84.6498, -52.1217, 54.2182
3.296, 1, 30.4931, 47.5712, -10.1109, 84.7522, -52.1148, 54.1396
3.3, 1, 30.5393, 47.5748, -10.1414, 84.8546, -52.1078, 54.061
3.304, 1, 30.5853, 47.5785, -10.1718, 84.9569, -52.1009, 53.9825
3.308, 1, 30.6314, 47.5822, -10.2023, 85.0591, -52.0939, 53.904
3.312, 1, 30.6774, 47.5858, -10.2327, 85.1611, -52.087, 53.8257
3.316, 1, 30.7233, 47.5895, -10.263, 85.2631, -52.0801, 53.7474
3.32, 1, 30.7692, 47.5931, -10.2934, 85.365, -52.0732, 53.6691
3.324, 1, 30.8151, 47.5968, -10.3237, 85.4669, -52.0663, 53.591
3.328, 1, 30.8609, 47.6004, -10.3539, 85.5686, -52.0594, 53.5129
3.332, 1, 30.9067, 47.6041, -10.3842, 85.6702, -52.0524, 53.4349
3.336, 1, 30.9525, 47.6077, -10.4144, 85.7717, -52.0456, 53.3569
3.34, 1, 30.9982, 47.6114, -10.4446, 85.8732, -52.0387, 53.2791
3.344, 1, 31.0439, 47.615, -10.4748, 85.9745, -52.0318, 53.2013
3.347, 1, 31.0895, 47.6186, -10.5049, 86.0758, -52.0249, 53.1235
3.352, 1, 31.1351, 47.6223, -10.5351, 86.177, -52.018, 53.0458
3.356, 1, 31.1806, 47.6259, -10.5652, 86.2781, -52.0112, 52.9683
3.36, 1, 31.2261, 47.6295, -10.5952, 86.3791, -52.0043, 52.8907
3.364, 1, 31.2716, 47.6331, -10.6253, 86.48, -51.9975, 52.8133
3.368, 1, 31.317, 47.6367, -10.6553, 86.5808, -51.9906, 52.7359
3.372, 1, 31.3624, 47.6404, -10.6853, 86.6815, -51.9838, 52.6585
3.376, 1, 31.4077, 47.644, -10.7152, 86.7822, -51.9769, 52.5813
3.38, 1, 31.453, 47.6476, -10.7452, 86.8827, -51.9701, 52.5041
3.383, 1, 31.4983, 47.6512, -10.7751, 86.9832, -51.9633, 52.427
3.388, 1, 31.5435, 47.6548, -10.8049, 87.0836, -51.9565, 52.3499
3.392, 1, 31.5887, 47.6584, -10.8348, 87.1838, -51.9497, 52.2729
3.396, 1, 31.6339, 47.662, -10.8646, 87.284, -51.9429, 52.196
3.4, 1, 31.679, 47.6656, -10.8944, 87.3842, -51.9361, 52.1192
3.403, 1, 31.724, 47.6692, -10.9242, 87.4842, -51.9293, 52.0424
3.408, 1, 31.7691, 47.6727, -10.954, 87.5841, -51.9225, 51.9656
3.412, 1, 31.814, 47.6763, -10.9837, 87.684, -51.9157, 51.889
3.416, 1, 31.859, 47.6799, -11.0134, 87.7837, -51.9089, 51.8124
3.42, 1, 31.9039, 47.6835, -11.0431, 87.8834, -51.9022, 51.7359
3.424, 1, 31.9488, 47.687, -11.0727, 87.983, -51.8954, 51.6594
3.428, 1, 31.9936, 47.6906, -11.1023, 88.0825, -51.8886, 51.583
3.432, 1, 32.0384, 47.6942, -11.1319, 88.1819, -51.8819, 51.5067
3.436, 1, 32.0832, 47.6977, -11.1615, 88.2813, -51.8751, 51.4305
3.439, 1, 32.1279, 47.7013, -11.191, 88.3805, -51.8684, 51.3543
3.444, 1, 32.1726, 47.7049, -11.2206, 88.4797, -51.8617, 51.2782
3.448, 1, 32.2172, 47.7084, -11.25, 88.5788, -51.8549, 51.2021
3.452, 1, 32.2618, 47.712, -11.2795, 88.6778, -51.8482, 51.1261
3.456, 1, 32.3064, 47.7155, -11.309, 88.7767, -51.8415, 51.0502
3.46, 1, 32.3509, 47.7191, -11.3384, 88.8755, -51.8348, 50.9743
3.464, 1, 32.3954, 47.7226, -11.3678, 88.9742, -51.8281, 50.8985
3.468, 1, 32.4398, 47.7261, -11.3972, 89.0729, -51.8214, 50.8228
3.472, 1, 32.4843, 47.7297, -11.4265, 89.1715, -51.8147, 50.7471
3.476, 1, 32.5286, 47.7332, -11.4558, 89.27, -51.808, 50.6715
3.48, 1, 32.573, 47.7367, -11.4851, 89.3684, -51.8013, 50.5959
3.484, 1, 32.6173, 47.7403, -11.5144, 89.4667, -51.7946, 50.5205
3.488, 1, 32.6615, 47.7438, -11.5436, 89.565, -51.788, 50.445
3.492, 1, 32.7058, 47.7473, -11.5729, 89.6631, -51.7813, 50.3697
3.495, 1, 32.75, 47.7508, -11.6021, 89.7612, -51.7747, 50.2944
3.5, 1, 32.7941, 47.7543, -11.6312, 89.8592, -51.768, 50.2192
3.504, 1, 32.8382, 47.7578, -11.6604, 89.9571, -51.7613, 50.144
3.508, 1, 32.8823, 47.7614, -11.6895, 90.055, -51.7547, 50.0689
3.512, 1, 32.9264, 47.7649, -11.7186, 90.1527, -51.7481, 49.9938
3.516, 1, 32.9704, 47.7684, -11.7477, 90.2504, -51.7414, 49.9189
3.52, 1, 33.0143, 47.7719, -11.7767, 90.348, -51.7348, 49.8439
3.524, 1, 33.0583, 47.7754, -11.8058, 90.4455, -51.7282, 49.7691
3.528, 1, 33.1022, 47.7789, -11.8348, 90.543, -51.7216, 49.6943
3.531, 1, 33.146, 47.7823, -11.8637, 90.6403, -51.715, 49.6196
3.536, 1, 33.1899, 47.7858, -11.8927, 90.7376, -51.7084, 49.5449
3.54, 1, 33.2337, 47.7893, -11.9216, 90.8348, -51.7018, 49.4703
3.544, 1, 33.2774, 47.7928, -11.9506, 90.9319, -51.6952, 49.3957
3.548, 1, 33.3211, 47.7963, -11.9794, 91.0289, -51.6886, 49.3212
3.552, 1, 33.3648, 47.7998, -12.0083, 91.1259, -51.682, 49.2468
3.556, 1, 33.4085, 47.8032, -12.0371, 91.2228, -51.6754, 49.1724
3.56, 1, 33.4521, 47.8067, -12.066, 91.3196, -51.6688, 49.0981
3.564, 1, 33.4957, 47.8102, -12.0947, 91.4163, -51.6623, 49.0239
3.568, 1, 33.5392, 47.8136, -12.1235, 91.5129, -51.6557, 48.9497
3.572, 1, 33.5827, 47.8171, -12.1523, 91.6095, -51.6491, 48.8756
3.576, 1, 33.6262, 47.8206, -12.181, 91.706, -51.6426, 48.8015
3.58, 1, 33.6696, 47.824, -12.2097, 91.8024, -51.636, 48.7275
3.584, 1, 33.713, 47.8275, -12.2384, 91.8987, -51.6295, 48.6535
3.587, 1, 33.7564, 47.8309, -12.267, 91.995, -51.623, 48.5796
3.592, 1, 33.7997, 47.8344, -12.2956, 92.0911, -51.6164, 48.5058
3.596, 1, 33.843, 47.8378, -12.3243, 92.1872, -51.6099, 48.432
3.6, 1, 33.8863, 47.8413, -12.3528, 92.2833, -51.6034, 48.3583
3.604, 1, 33.9295, 47.8447, -12.3814, 92.3792, -51.5969, 48.2847
3.608, 1, 33.9727, 47.8482, -12.4099, 92.4751, -51.5904, 48.2111
3.612, 1, 34.0159, 47.8516, -12.4385, 92.5709, -51.5839, 48.1375
3.616, 1, 34.059, 47.855, -12.467, 92.6666, -51.5774, 48.0641
3.62, 1, 34.1021, 47.8584, -12.4954, 92.7622, -51.5709, 47.9906
3.624, 1, 34.1451, 47.8619, -12.5239, 92.8578, -51.5644, 47.9173
3.628, 1, 34.1882, 47.8653, -12.5523, 92.9533, -51.5579, 47.844
3.632, 1, 34.2311, 47.8687, -12.5807, 93.0487, -51.5514, 47.7707
3.636, 1, 34.2741, 47.8721, -12.6091, 93.144, -51.5449, 47.6975
3.64, 1, 34.317, 47.8756, -12.6374, 93.2393, -51.5385, 47.6244
3.644, 1, 34.3599, 47.879, -12.6658, 93.3345, -51.532, 47.5513
3.648, 1, 34.4028, 47.8824, -12.6941, 93.4296, -51.5256, 47.4783
3.652, 1, 34.4456, 47.8858, -12.7224, 93.5247, -51.5191, 47.4054
3.656, 1, 34.4884, 47.8892, -12.7507, 93.6196, -51.5126, 47.3325
3.66, 1, 34.5311, 47.8926, -12.7789, 93.7145, -51.5062, 47.2596
3.664, 1, 34.5738, 47.896, -12.8071, 93.8093, -51.4998, 47.1868
3.668, 1, 34.6165, 47.8994, -12.8353, 93.9041, -51.4933, 47.1141
3.672, 1, 34.6592, 47.9028, -12.8635, 93.9987, -51.4869, 47.0414
3.676, 1, 34.7018, 47.9062, -12.8917, 94.0933, -51.4805, 46.9688
3.679, 1, 34.7444, 47.9096, -12.9198, 94.1879, -51.4741, 46.8962
3.684, 1, 34.7869, 47.913, -12.9479, 94.2823, -51.4676, 46.8237
3.688, 1, 34.8295, 47.9164, -12.976, 94.3767, -51.4612, 46.7513
3.692, 1, 34.872, 47.9197, -13.0041, 94.471, -51.4548, 46.6789
3.696, 1, 34.9144, 47.9231, -13.0322, 94.5653, -51.4484, 46.6065
3.7, 1, 34.9568, 47.9265, -13.0602, 94.6594, -51.442, 46.5343
3.704, 1, 34.9992, 47.9299, -13.0882, 94.7535, -51.4357, 46.462
3.708, 1, 35.0413, 47.9333, -13.1162, 94.8475, -51.4293, 46.3899
3.712, 1, 35.083, 47.9367, -13.1442, 94.9414, -51.4229, 46.3178
3.716, 1, 35.1243, 47.9402, -13.1723, 95.0352, -51.4166, 46.2457
3.72, 1, 35.1649, 47.9437, -13.2003, 95.1288, -51.4102, 46.1739
3.724, 1, 35.2049, 47.9474, -13.2284, 95.2221, -51.4039, 46.1022
3.728, 1, 35.244, 47.9511, -13.2564, 95.3151, -51.3977, 46.0308
3.732, 1, 35.2825, 47.9549, -13.2843, 95.4074, -51.3915, 45.9599
3.735, 1, 35.3202, 47.9588, -13.3121, 95.4989, -51.3854, 45.8896
3.74, 1, 35.3571, 47.9627, -13.3397, 95.5894, -51.3794, 45.8201
3.744, 1, 35.3929, 47.9667, -13.3669, 95.6785, -51.3734, 45.7516
3.748, 1, 35.4277, 47.9707, -13.3938, 95.7659, -51.3677, 45.6845
3.752, 1, 35.4612, 47.9747, -13.42, 95.8512, -51.362, 45.6189
3.756, 1, 35.4933, 47.9787, -13.4456, 95.934, -51.3566, 45.5553
3.76, 1, 35.5242, 47.9825, -13.4703, 96.0138, -51.3513, 45.494
3.764, 1, 35.5539, 47.9862, -13.4939, 96.0901, -51.3463, 45.4353
3.768, 1, 35.5825, 47.9897, -13.5163, 96.1627, -51.3415, 45.3795
3.772, 1, 35.6099, 47.9928, -13.5373, 96.231, -51.337, 45.327
3.776, 1, 35.636, 47.9956, -13.5568, 96.2949, -51.3327, 45.2779
3.78, 1, 35.6607, 47.9982, -13.5748, 96.354, -51.3288, 45.2325
3.784, 1, 35.6839, 48.0004, -13.5912, 96.4082, -51.3251, 45.1909
3.788, 1, 35.7056, 48.0022, -13.6059, 96.4574, -51.3218, 45.1532
3.792, 1, 35.7259, 48.0037, -13.619, 96.5015, -51.3188, 45.1193
3.796, 1, 35.745, 48.0049, -13.6304, 96.5406, -51.3161, 45.0893
3.8, 1, 35.7627, 48.0057, -13.6401, 96.5748, -51.3137, 45.0631
3.804, 1, 35.7793, 48.0061, -13.6483, 96.6044, -51.3116, 45.0404
3.808, 1, 35.7945, 48.0062, -13.6551, 96.6296, -51.3097, 45.0212
3.812, 1, 35.8084, 48.0062, -13.6606, 96.6507, -51.3081, 45.005
3.816, 2, 35.8207, 48.0059, -13.665, 96.6682, -51.3068, 44.9916
3.82, 2, 35.8316, 48.0056, -13.6684, 96.6825, -51.3057, 44.9807
3.824, 2, 35.8412, 48.0051, -13.671, 96.6939, -51.3048, 44.972
3.828, 2, 35.8497, 48.0047, -13.6729, 96.7029, -51.304, 44.9652
3.832, 2, 35.8572, 48.0041, -13.6742, 96.7098, -51.3034, 44.9599
3.836, 2, 35.8639, 48.0036, -13.675, 96.715, -51.3029, 44.956
3.84, 2, 35.8698, 48.003, -13.6755, 96.7188, -51.3026, 44.9531
3.844, 2, 35.8749, 48.0026, -13.6758, 96.7216, -51.3023, 44.9511
3.848, 2, 35.8791, 48.0021, -13.6759, 96.7235, -51.302, 44.9496
3.852, 2, 35.8824, 48.0018, -13.676, 96.7248, -51.3019, 44.9486
3.856, 2, 35.8849, 48.0016, -13.676, 96.7258, -51.3018, 44.948
3.86, 2, 35.8866, 48.0014, -13.676, 96.7264, -51.3017, 44.9475
3.864, 2, 35.8878, 48.0013, -13.676, 96.7268, -51.3017, 44.9472
3.868, 2, 35.8886, 48.0012, -13.676, 96.7271, -51.3016, 44.947
3.872, 2, 35.8892, 48.0012, -13.676, 96.7273, -51.3016, 44.9468
3.876, 2, 35.8896, 48.0011, -13.676, 96.7274, -51.3016, 44.9467
3.88, 2, 35.8898, 48.0011, -13.676, 96.7275, -51.3016, 44.9467
3.884, 2, 35.89, 48.0011, -13.676, 96.7276, -51.3016, 44.9466
3.888, 2, 35.8901, 48.0011, -13.676, 96.7276, -51.3016, 44.9466
3.892, 2, 35.8902, 48.0011, -13.676, 96.7276, -51.3016, 44.9466
3.896, 2, 35.8902, 48.0011, -13.676, 96.7276, -51.3016, 44.9466
3.9, 2, 35.8903, 48.001, -13.676, 96.7277, -51.3016, 44.9465
3.904, 2, 35.8903, 48.001, -13.676, 96.7277, -51.3016, 44.9465
3.908, 2, 35.8903, 48.001, -13.676, 96.7277, -51.3016, 44.9465
3.912, 2, 35.8903, 48.001, -13.676, 96.7277, -51.3016, 44.9465
3.916, 2, 35.8903, 48.001, -13.676, 96.7277, -51.3016, 44.9465
3.92, 2, 35.8903, 48.001, -13.676, 96.7277, -51.3016, 44.9465
3.924, 2, 35.8903, 48.001, -13.676, 96.7277, -51.3016, 44.9465
3.928, 2, 35.8903, 48.001, -13.676, 96.7277, -51.3016, 44.9465
3.932, 2, 35.8903, 48.001, -13.676, 96.7277, -51.3016, 44.9465
3.936, 2, 35.8903, 48.001, -13.676, 96.7277, -51.3016, 44.9465
3.94, 2, 35.8903, 48.001, -13.676, 96.7277, -51.3016, 44.9465
3.944, 2, 35.8903, 48.001, -13.676, 96.7277, -51.3016, 44.9465
3.948, 2, 35.8903, 48.001, -13.676, 96.7277, -51.3016, 44.9465
3.952, 2, 35.8903, 48.001, -13.676, 96.7277, -51.3016, 44.9465
3.956, 2, 35.8903, 48.001, -13.676, 96.7277, -51.3016, 44.9465
3.96, 2, 35.8903, 48.001, -13.676, 96.7277, -51.3016, 44.9465
3.964, 2, 35.8903, 48.001, -13.676, 96.7277, -51.3016, 44.9465
3.968, 2, 35.8903, 48.001, -13.676, 96.7277, -51.3016, 44.9465
3.972, 2, 35.8903, 48.001, -13.676, 96.7277, -51.3016, 44.9465
3.976, 2, 35.8903, 48.001, -13.676, 96.7277, -51.3016, 44.9465
3.98, 2, 35.8903, 48.001, -13.676, 96.7277, -51.3016, 44.9465
3.984, 2, 35.8903, 48.001, -13.676, 96.7277, -51.3016, 44.9465
3.988, 2, 35.8903, 48.001, -13.676, 96.7277, -51.3016, 44.9465
3.992, 2, 35.8903, 48.001, -13.676, 96.7277, -51.3016, 44.9465
3.996, 2, 35.8903, 48.001, -13.676, 96.7277, -51.3016, 44.9465
3.999, 2, 35.8903, 48.001, -13.676, 96.7277, -51.3016, 44.9465
4.004, 2, 35.8903, 48.001, -13.676, 96.7277, -51.3016, 44.9465
4.008, 2, 35.8903, 48.001, -13.676, 96.7277, -51.3016, 44.9465
4.012, 2, 35.8903, 48.001, -13.676, 96.7277, -51.3016, 44.9465
4.016, 2, 35.8903, 48.001, -13.676, 96.7277, -51.3016, 44.9465
4.02, 2, 35.8903, 48.001, -13.676, 96.7277, -51.3016, 44.9465
4.024, 2, 35.8903, 48.001, -13.676, 96.7277, -51.3016, 44.9465
4.028, 2, 35.8903, 48.001, -13.676, 96.7277, -51.3016, 44.9465
4.032, 2, 35.8903, 48.001, -13.676, 96.7277, -51.3016, 44.9465
4.036, 2, 35.8903, 48.001, -13.676, 96.7277, -51.3016, 44.9465
4.04, 2, 35.8903, 48.001, -13.676, 96.7277, -51.3016, 44.9465
4.044, 2, 35.8903, 48.001, -13.676, 96.7277, -51.3016, 44.9465
4.048, 2, 35.8903, 48.001, -13.676, 96.7277, -51.3016, 44.9465
4.052, 2, 35.8903, 48.001, -13.676, 96.7277, -51.3016, 44.9465
4.056, 2, 35.8903, 48.001, -13.676, 96.7277, -51.3016, 44.9465
4.06, 2, 35.8903, 48.001, -13.676, 96.7277, -51.3016, 44.9465
4.064, 2, 35.8903, 48.001, -13.676, 96.7277, -51.3016, 44.9465
4.068, 2, 35.8903, 48.001, -13.676, 96.7277, -51.3016, 44.9465
4.072, 2, 35.8903, 48.001, -13.676, 96.7277, -51.3016, 44.9465
4.076, 2, 35.8903, 48.001, -13.676, 96.7277, -51.3016, 44.9465
4.08, 2, 35.8903, 48.001, -13.676, 96.7277, -51.3016, 44.9465
4.084, 2, 35.8903, 48.001, -13.676, 96.7277, -51.3016, 44.9465
4.088, 2, 35.8903, 48.001, -13.676, 96.7277, -51.3016, 44.9465
4.092, 2, 35.8903, 48.001, -13.676, 96.7277, -51.3016, 44.9465
4.096, 2, 35.8903, 48.001, -13.676, 96.7277, -51.3016, 44.9465
4.1, 2, 35.8903, 48.001, -13.676, 96.7277, -51.3016, 44.9465
4.104, 2, 35.8903, 48.001, -13.676, 96.7277, -51.3016, 44.9465
4.108, 2, 35.8903, 48.001, -13.676, 96.7277, -51.3016, 44.9465
4.112, 2, 35.8903, 48.001, -13.676, 96.7277, -51.3016, 44.9465
4.116, 2, 35.8903, 48.001, -13.676, 96.7277, -51.3016, 44.9465
4.12, 2, 35.8903, 48.001, -13.676, 96.7277, -51.3016, 44.9465
4.124, 2, 35.8903, 48.001, -13.676, 96.7277, -51.3016, 44.9465
4.128, 2, 35.8903, 48.001, -13.676, 96.7277, -51.3016, 44.9465
4.132, 2, 35.8903, 48.001, -13.676, 96.7277, -51.3016, 44.9465
4.136, 2, 35.8903, 48.001, -13.676, 96.7277, -51.3016, 44.9465
4.14, 2, 35.8903, 48.001, -13.676, 96.7277, -51.3016, 44.9465
4.144, 2, 35.8903, 48.001, -13.676, 96.7277, -51.3016, 44.9465
4.148, 2, 35.8903, 48.001, -13.676, 96.7277, -51.3016, 44.9465
4.152, 2, 35.8903, 48.001, -13.676, 96.7277, -51.3016, 44.9465
4.156, 2, 35.8903, 48.001, -13.676, 96.7277, -51.3016, 44.9465
4.16, 2, 35.8903, 48.001, -13.676, 96.7277, -51.3016, 44.9465
4.164, 2, 35.8903, 48.001, -13.676, 96.7277, -51.3016, 44.9465
4.168, 2, 35.8903, 48.001, -13.676, 96.7277, -51.3016, 44.9465
4.172, 2, 35.8903, 48.001, -13.676, 96.7277, -51.3016, 44.9465
4.176, 2, 35.8903, 48.001, -13.676, 96.7277, -51.3016, 44.9465
4.18, 2, 35.8903, 48.001, -13.676, 96.7277, -51.3016, 44.9465
4.184, 2, 35.8903, 48.001, -13.676, 96.7277, -51.3016, 44.9465
4.188, 2, 35.8903, 48.001, -13.676, 96.7277, -51.3016, 44.9465
4.192, 2, 35.8903, 48.001, -13.676, 96.7277, -51.3016, 44.9465
4.196, 2, 35.8903, 48.001, -13.676, 96.7277, -51.3016, 44.9465
4.2, 2, 35.8903, 48.001, -13.676, 96.7277, -51.3016, 44.9465
4.204, 2, 35.8903, 48.001, -13.676, 96.7277, -51.3016, 44.9465
4.208, 2, 35.8903, 48.001, -13.676, 96.7277, -51.3016, 44.9465
4.212, 2, 35.8903, 48.001, -13.676, 96.7277, -51.3016, 44.9465
4.216, 2, 35.8903, 48.001, -13.676, 96.7277, -51.3016, 44.9465
4.22, 2, 35.8903, 48.001, -13.676, 96.7277, -51.3016, 44.9465
4.224, 2, 35.8903, 48.001, -13.676, 96.7277, -51.3016, 44.9465
4.228, 2, 35.8903, 48.001, -13.676, 96.7277, -51.3016, 44.9465
4.232, 2, 35.8903, 48.001, -13.676, 96.7277, -51.3016, 44.9465
4.236, 2, 35.8903, 48.001, -13.676, 96.7277, -51.3016, 44.9465
4.24, 2, 35.8903, 48.001, -13.676, 96.7277, -51.3016, 44.9465
4.244, 2, 35.8903, 48.001, -13.676, 96.7277, -51.3016, 44.9465
4.248, 2, 35.8903, 48.001, -13.676, 96.7277, -51.3016, 44.9465
4.252, 2, 35.8903, 48.001, -13.676, 96.7277, -51.3016, 44.9465
4.256, 2, 35.8903, 48.001, -13.676, 96.7277, -51.3016, 44.9465
4.26, 2, 35.8903, 48.001, -13.676, 96.7277, -51.3016, 44.9465
4.264, 2, 35.8903, 48.001, -13.676, 96.7277, -51.3016, 44.9465
4.268, 2, 35.8903, 48.001, -13.676, 96.7277, -51.3016, 44.9465
4.272, 2, 35.8903, 48.001, -13.676, 96.7277, -51.3016, 44.9465
4.276, 2, 35.8903, 48.001, -13.676, 96.7277, -51.3016, 44.9465
4.28, 2, 35.8903, 48.001, -13.676, 96.7277, -51.3016, 44.9465
4.284, 2, 35.8903, 48.001, -13.676, 96.7277, -51.3016, 44.9465
4.288, 2, 35.8903, 48.001, -13.676, 96.7277, -51.3016, 44.9465
4.292, 2, 35.8903, 48.001, -13.676, 96.7277, -51.3016, 44.9465
4.296, 2, 35.8903, 48.001, -13.676, 96.7277, -51.3016, 44.9465
4.3, 2, 35.8903, 48.001, -13.676, 96.7277, -51.3016, 44.9465
4.304, 2, 35.8903, 48.001, -13.676, 96.7277, -51.3016, 44.9465
4.308, 2, 35.8903, 48.001, -13.676, 96.7277, -51.3016, 44.9465
4.312, 2, 35.8903, 48.001, -13.676, 96.7277, -51.3016, 44.9465
4.316, 2, 35.8903, 48.001, -13.676, 96.7277, -51.3016, 44.9465
4.32, 2, 35.8903, 48.001, -13.676, 96.7277, -51.3016, 44.9465
4.324, 2, 35.8903, 48.001, -13.676, 96.7277, -51.3016, 44.9465
4.328, 2, 35.8903, 48.001, -13.676, 96.7277, -51.3016, 44.9465
4.332, 2, 35.8903, 48.001, -13.676, 96.7277, -51.3016, 44.9465
4.336, 2, 35.8903, 48.001, -13.676, 96.7277, -51.3016, 44.9465
4.34, 2, 35.8903, 48.001, -13.676, 96.7277, -51.3016, 44.9465
4.344, 2, 35.8903, 48.001, -13.676, 96.7277, -51.3016, 44.9465
4.348, 2, 35.8903, 48.001, -13.676, 96.7277, -51.3016, 44.9465
4.352, 2, 35.8903, 48.001, -13.676, 96.7277, -51.3016, 44.9465
4.356, 2, 35.8903, 48.001, -13.676, 96.7277, -51.3016, 44.9465
4.36, 2, 35.8903, 48.001, -13.676, 96.7277, -51.3016, 44.9465
4.364, 2, 35.8903, 48.001, -13.676, 96.7277, -51.3016, 44.9465
4.368, 2, 35.8903, 48.001, -13.676, 96.7277, -51.3016, 44.9465
4.372, 2, 35.8903, 48.001, -13.676, 96.7277, -51.3016, 44.9465
4.376, 2, 35.8903, 48.001, -13.676, 96.7277, -51.3016, 44.9465
4.38, 2, 35.8903, 48.001, -13.676, 96.7277, -51.3016, 44.9465
4.384, 2, 35.8903, 48.001, -13.676, 96.7277, -51.3016, 44.9465
4.388, 2, 35.8903, 48.001, -13.676, 96.7277, -51.3016, 44.9465
4.392, 2, 35.8903, 48.001, -13.676, 96.7277, -51.3016, 44.9465
4.396, 2, 35.8903, 48.001, -13.676, 96.7277, -51.3016, 44.9465
4.4, 2, 35.8903, 48.001, -13.676, 96.7277, -51.3016, 44.9465
4.404, 2, 35.8903, 48.001, -13.676, 96.7277, -51.3016, 44.9465
4.408, 2, 35.8903, 48.001, -13.676, 96.7277, -51.3016, 44.9465
4.412, 2, 35.8903, 48.001, -13.676, 96.7277, -51.3016, 44.9465
4.416, 2, 35.8903, 48.001, -13.676, 96.7277, -51.3016, 44.9465
4.42, 2, 35.8903, 48.001, -13.676, 96.7277, -51.3016, 44.9465
4.424, 2, 35.8903, 48.001, -13.676, 96.7277, -51.3016, 44.9465
4.428, 2, 35.8903, 48.001, -13.676, 96.7277, -51.3016, 44.9465
4.432, 2, 35.8903, 48.001, -13.676, 96.7277, -51.3016, 44.9465
4.436, 2, 35.8903, 48.001, -13.676, 96.7277, -51.3016, 44.9465
4.44, 2, 35.8903, 48.001, -13.676, 96.7277, -51.3016, 44.9465
4.444, 2, 35.8903, 48.001, -13.676, 96.7277, -51.3016, 44.9465
4.448, 2, 35.8903, 48.001, -13.676, 96.7277, -51.3016, 44.9465
4.452, 2, 35.8903, 48.001, -13.676, 96.7277, -51.3016, 44.9465
4.456, 2, 35.8903, 48.001, -13.676, 96.7277, -51.3016, 44.9465
4.46, 2, 35.8903, 48.001, -13.676, 96.7277, -51.3016, 44.9465
4.464, 2, 35.8903, 48.001, -13.676, 96.7277, -51.3016, 44.9465
4.468, 2, 35.8903, 48.001, -13.676, 96.7277, -51.3016, 44.9465
4.472, 2, 35.8903, 48.001, -13.676, 96.7277, -51.3016, 44.9465
4.476, 2, 35.8903, 48.001, -13.676, 96.7277, -51.3016, 44.9465
4.48, 2, 35.8903, 48.001, -13.676, 96.7277, -51.3016, 44.9465
4.484, 2, 35.8903, 48.001, -13.676, 96.7277, -51.3016, 44.9465
4.488, 2, 35.8903, 48.001, -13.676, 96.7277, -51.3016, 44.9465
4.492, 2, 35.8903, 48.001, -13.676, 96.7277, -51.3016, 44.9465
4.496, 2, 35.8903, 48.001, -13.676, 96.7277, -51.3016, 44.9465
4.5, 2, 35.8903, 48.001, -13.676, 96.7277, -51.3016, 44.9465
4.504, 2, 35.8903, 48.001, -13.676, 96.7277, -51.3016, 44.9465
4.508, 2, 35.8903, 48.001, -13.676, 96.7277, -51.3016, 44.9465
4.512, 2, 35.8903, 48.001, -13.676, 96.7277, -51.3016, 44.9465
4.516, 2, 35.8903, 48.001, -13.676, 96.7277, -51.3016, 44.9465
4.52, 2, 35.8903, 48.001, -13.676, 96.7277, -51.3016, 44.9465
4.524, 2, 35.8903, 48.001, -13.676, 96.7277, -51.3016, 44.9465
4.528, 2, 35.8903, 48.001, -13.676, 96.7277, -51.3016, 44.9465
4.532, 2, 35.8903, 48.001, -13.676, 96.7277, -51.3016, 44.9465
4.536, 2, 35.8903, 48.001, -13.676, 96.7277, -51.3016, 44.9465
4.54, 2, 35.8903, 48.001, -13.676, 96.7277, -51.3016, 44.9465
4.544, 2, 35.8903, 48.001, -13.676, 96.7277, -51.3016, 44.9465
4.548, 2, 35.8903, 48.001, -13.676, 96.7277, -51.3016, 44.9465
4.552, 2, 35.8903, 48.001, -13.676, 96.7277, -51.3016, 44.9465
4.556, 2, 35.8903, 48.001, -13.676, 96.7277, -51.3016, 44.9465
4.56, 2, 35.8903, 48.001, -13.676, 96.7277, -51.3016, 44.9465
4.564, 2, 35.8903, 48.001, -13.676, 96.7277, -51.3016, 44.9465
4.568, 2, 35.8903, 48.001, -13.676, 96.7277, -51.3016, 44.9465
4.572, 2, 35.8903, 48.001, -13.676, 96.7277, -51.3016, 44.9465
4.576, 2, 35.8903, 48.001, -13.676, 96.7277, -51.3016, 44.9465
4.58, 2, 35.8903, 48.001, -13.676, 96.7277, -51.3016, 44.9465
4.584, 2, 35.8903, 48.001, -13.676, 96.7277, -51.3016, 44.9465
4.588, 2, 35.8903, 48.001, -13.676, 96.7277, -51.3016, 44.9465
4.592, 2, 35.8903, 48.001, -13.676, 96.7277, -51.3016, 44.9465
4.596, 2, 35.8903, 48.001, -13.676, 96.7277, -51.3016, 44.9465
4.6, 2, 35.8903, 48.001, -13.676, 96.7277, -51.3016, 44.9465
4.604, 2, 35.8903, 48.001, -13.676, 96.7277, -51.3016, 44.9465
4.608, 2, 35.8903, 48.001, -13.676, 96.7277, -51.3016, 44.9465
4.612, 2, 35.8903, 48.001, -13.676, 96.7277, -51.3016, 44.9465
4.616, 2, 35.8903, 48.001, -13.676, 96.7277, -51.3016, 44.9465
4.62, 2, 35.8903, 48.001, -13.676, 96.7277, -51.3016, 44.9465
4.624, 2, 35.8903, 48.001, -13.676, 96.7277, -51.3016, 44.9465
4.628, 2, 35.8903, 48.001, -13.676, 96.7277, -51.3016, 44.9465
4.632, 2, 35.8903, 48.001, -13.676, 96.7277, -51.3016, 44.9465
4.636, 2, 35.8903, 48.001, -13.676, 96.7277, -51.3016, 44.9465
4.64, 2, 35.8903, 48.001, -13.676, 96.7277, -51.3016, 44.9465
4.644, 2, 35.8903, 48.001, -13.676, 96.7277, -51.3016, 44.9465
4.648, 2, 35.8903, 48.001, -13.676, 96.7277, -51.3016, 44.9465
4.652, 2, 35.8903, 48.001, -13.676, 96.7277, -51.3016, 44.9465
4.656, 2, 35.8903, 48.001, -13.676, 96.7277, -51.3016, 44.9465
4.66, 2, 35.8903, 48.001, -13.676, 96.7277, -51.3016, 44.9465
4.664, 2, 35.8903, 48.001, -13.676, 96.7277, -51.3016, 44.9465
4.668, 2, 35.8903, 48.001, -13.676, 96.7277, -51.3016, 44.9465
4.672, 2, 35.8903, 48.001, -13.676, 96.7277, -51.3016, 44.9465
4.676, 2, 35.8903, 48.001, -13.676, 96.7277, -51.3016, 44.9465
4.68, 2, 35.8903, 48.001, -13.676, 96.7277, -51.3016, 44.9465
4.684, 2, 35.8903, 48.001, -13.676, 96.7277, -51.3016, 44.9465
4.688, 2, 35.8903, 48.001, -13.676, 96.7277, -51.3016, 44.9465
4.692, 2, 35.8903, 48.001, -13.676, 96.7277, -51.3016, 44.9465
4.696, 2, 35.8903, 48.001, -13.676, 96.7277, -51.3016, 44.9465
4.7, 2, 35.8903, 48.001, -13.676, 96.7277, -51.3016, 44.9465
4.704, 2, 35.8903, 48.001, -13.676, 96.7277, -51.3016, 44.9465
4.708, 2, 35.8903, 48.001, -13.676, 96.7277, -51.3016, 44.9465
4.712, 2, 35.8903, 48.001, -13.676, 96.7277, -51.3016, 44.9465
4.716, 2, 35.8903, 48.001, -13.676, 96.7277, -51.3016, 44.9465
4.72, 2, 35.8903, 48.001, -13.676, 96.7277, -51.3016, 44.9465
4.724, 2, 35.8903, 48.001, -13.676, 96.7277, -51.3016, 44.9465
4.728, 2, 35.8903, 48.001, -13.676, 96.7277, -51.3016, 44.9465
4.732, 2, 35.8903, 48.001, -13.676, 96.7277, -51.3016, 44.9465
4.736, 2, 35.8903, 48.001, -13.676, 96.7277, -51.3016, 44.9465
4.74, 2, 35.8903, 48.001, -13.676, 96.7277, -51.3016, 44.9465
4.744, 2, 35.8903, 48.001, -13.676, 96.7277, -51.3016, 44.9465
4.748, 2, 35.8903, 48.001, -13.676, 96.7277, -51.3016, 44.9465
4.752, 2, 35.8903, 48.001, -13.676, 96.7277, -51.3016, 44.9465
4.756, 2, 35.8903, 48.001, -13.676, 96.7277, -51.3016, 44.9465
4.76, 2, 35.8903, 48.001, -13.676, 96.7277, -51.3016, 44.9465
4.764, 2, 35.8903, 48.001, -13.676, 96.7277, -51.3016, 44.9465
4.768, 2, 35.8903, 48.001, -13.676, 96.7277, -51.3016, 44.9465
4.772, 2, 35.8903, 48.001, -13.676, 96.7277, -51.3016, 44.9465
4.776, 2, 35.8903, 48.001, -13.676, 96.7277, -51.3016, 44.9465
4.78, 2, 35.8903, 48.001, -13.676, 96.7277, -51.3016, 44.9465
4.784, 2, 35.8903, 48.001, -13.676, 96.7277, -51.3016, 44.9465
4.788, 2, 35.8903, 48.001, -13.676, 96.7277, -51.3016, 44.9465
4.792, 2, 35.8903, 48.001, -13.676, 96.7277, -51.3016, 44.9465
4.796, 2, 35.8903, 48.001, -13.676, 96.7277, -51.3016, 44.9465
4.8, 2, 35.8903, 48.001, -13.676, 96.7277, -51.3016, 44.9465
4.804, 2, 35.8903, 48.001, -13.676, 96.7277, -51.3016, 44.9465
4.808, 2, 35.8903, 48.001, -13.676, 96.7277, -51.3016, 44.9465
4.812, 2, 35.8903, 48.001, -13.676, 96.7277, -51.3016, 44.9465
4.816, 3, 35.8903, 48.001, -13.676, 96.7277, -51.3016, 44.9465
4.82, 3, 35.8903, 48.001, -13.676, 96.7277, -51.3016, 44.9465
4.824, 3, 35.8903, 48.001, -13.676, 96.7277, -51.3016, 44.9465
4.828, 3, 35.8903, 48.001, -13.676, 96.7277, -51.3016, 44.9465
4.832, 3, 35.8903, 48.001, -13.676, 96.7277, -51.3016, 44.9465
4.836, 3, 35.8903, 48.001, -13.676, 96.7277, -51.3016, 44.9465
4.84, 3, 35.8903, 48.001, -13.676, 96.7277, -51.3016, 44.9465
4.844, 3, 35.8903, 48.001, -13.676, 96.7277, -51.3016, 44.9465
4.848, 3, 35.8903, 48.001, -13.676, 96.7277, -51.3016, 44.9465
4.852, 3, 35.8903, 48.001, -13.676, 96.7277, -51.3016, 44.9465
4.856, 4, 35.8903, 48.001, -13.676, 96.7277, -51.3016, 44.9465
4.86, 4, 35.8903, 48.001, -13.676, 96.7277, -51.3016, 44.9465
4.864, 4, 35.8903, 48.001, -13.676, 96.7277, -51.3016, 44.9465
4.868, 4, 35.8903, 48.001, -13.676, 96.7277, -51.3016, 44.9465
4.872, 4, 35.8903, 48.001, -13.676, 96.7277, -51.3016, 44.9465
4.876, 4, 35.8903, 48.001, -13.676, 96.7277, -51.3016, 44.9465
4.88, 4, 35.8903, 48.001, -13.676, 96.7277, -51.3016, 44.9465
4.884, 4, 35.8903, 48.001, -13.676, 96.7277, -51.3016, 44.9465
4.888, 4, 35.8903, 48.001, -13.676, 96.7277, -51.3016, 44.9465
4.892, 4, 35.8903, 48.001, -13.676, 96.7277, -51.3016, 44.9465
4.896, 4, 35.8903, 48.001, -13.676, 96.7277, -51.3016, 44.9465
4.9, 4, 35.8903, 48.001, -13.676, 96.7277, -51.3016, 44.9465
4.904, 4, 35.8903, 48.001, -13.676, 96.7277, -51.3016, 44.9465
4.908, 4, 35.8903, 48.001, -13.676, 96.7277, -51.3016, 44.9465
4.912, 4, 35.8903, 48.001, -13.676, 96.7277, -51.3016, 44.9465
4.916, 4, 35.8903, 48.001, -13.676, 96.7277, -51.3016, 44.9465
4.92, 4, 35.8903, 48.001, -13.676, 96.7277, -51.3016, 44.9465
4.924, 4, 35.8903, 48.001, -13.676, 96.7277, -51.3016, 44.9465
4.928, 4, 35.8903, 48.001, -13.676, 96.7277, -51.3016, 44.9465
4.932, 4, 35.8903, 48.001, -13.676, 96.7277, -51.3016, 44.9465
4.936, 4, 35.8903, 48.001, -13.676, 96.7277, -51.3016, 44.9465
4.94, 4, 35.8903, 48.001, -13.676, 96.7277, -51.3016, 44.9465
4.944, 4, 35.8903, 48.001, -13.676, 96.7277, -51.3016, 44.9465
4.948, 4, 35.8903, 48.001, -13.676, 96.7277, -51.3016, 44.9465
4.952, 4, 35.8903, 48.001, -13.676, 96.7277, -51.3016, 44.9465
4.956, 5, 35.8903, 48.001, -13.676, 96.7277, -51.3016, 44.9465
4.959, 5, 35.8903, 48.001, -13.676, 96.7277, -51.3016, 44.9465
4.964, 6, 35.8903, 48.001, -13.676, 96.7277, -51.3016, 44.9465
4.968, 6, 35.8903, 48.001, -13.676, 96.7277, -51.3016, 44.9465
4.972, 6, 35.8903, 48.001, -13.676, 96.7277, -51.3016, 44.9465
4.976, 7, 35.8903, 48.001, -13.676, 96.7277, -51.3016, 44.9465
4.98, 7, 35.8903, 48.001, -13.676, 96.7277, -51.3016, 44.9465
4.984, 7, 35.8903, 48.001, -13.676, 96.7277, -51.3016, 44.9465
4.988, 7, 35.8903, 48.001, -13.676, 96.7277, -51.3016, 44.9465
4.992, 7, 35.8903, 48.0011, -13.676, 96.7277, -51.3016, 44.9465
4.996, 7, 35.8903, 48.0012, -13.676, 96.7277, -51.3016, 44.9465
5, 7, 35.8902, 48.0016, -13.6761, 96.7277, -51.3016, 44.9465
5.004, 7, 35.89, 48.0024, -13.6761, 96.7277, -51.3018, 44.9464
5.008, 7, 35.8896, 48.0036, -13.6762, 96.7278, -51.3021, 44.9461
5.012, 7, 35.8891, 48.0055, -13.6765, 96.728, -51.3029, 44.9455
5.016, 7, 35.8883, 48.0082, -13.6768, 96.7282, -51.3043, 44.9445
5.02, 7, 35.8874, 48.0117, -13.6774, 96.7287, -51.3067, 44.9426
5.024, 7, 35.8862, 48.0163, -13.6783, 96.7294, -51.3107, 44.9397
5.028, 7, 35.8849, 48.022, -13.6796, 96.7305, -51.3167, 44.9352
5.032, 7, 35.8833, 48.0293, -13.6815, 96.732, -51.3254, 44.9286
5.036, 7, 35.8815, 48.0382, -13.684, 96.7342, -51.3377, 44.9194
5.04, 7, 35.8796, 48.0491, -13.6873, 96.7371, -51.3544, 44.9069
5.044, 7, 35.8774, 48.0619, -13.6916, 96.741, -51.3765, 44.8904
5.048, 7, 35.8751, 48.0768, -13.6971, 96.7459, -51.4051, 44.8691
5.052, 7, 35.8727, 48.0936, -13.7038, 96.752, -51.4411, 44.8423
5.056, 7, 35.8704, 48.1121, -13.712, 96.7595, -51.4855, 44.8093
5.06, 7, 35.8682, 48.1325, -13.7217, 96.7684, -51.5391, 44.7695
5.064, 7, 35.866, 48.1546, -13.733, 96.7788, -51.6024, 44.7226
5.068, 7, 35.8638, 48.1786, -13.746, 96.7908, -51.6758, 44.6682
5.072, 7, 35.8617, 48.2046, -13.7607, 96.8042, -51.7595, 44.6065
5.076, 7, 35.8596, 48.2325, -13.777, 96.8191, -51.8532, 44.5374
5.08, 7, 35.8576, 48.2625, -13.7949, 96.8353, -51.9567, 44.4613
5.084, 7, 35.8555, 48.2945, -13.8142, 96.8527, -52.0695, 44.3786
5.088, 7, 35.8533, 48.3283, -13.8349, 96.8712, -52.1907, 44.2898
5.092, 7, 35.8511, 48.3638, -13.8567, 96.8904, -52.3197, 44.1957
5.096, 7, 35.8488, 48.4011, -13.8796, 96.9104, -52.4554, 44.0969
5.1, 7, 35.8464, 48.4402, -13.9033, 96.9307, -52.5968, 43.9943
5.104, 7, 35.8436, 48.4811, -13.9276, 96.9514, -52.743, 43.8885
5.108, 7, 35.8406, 48.5237, -13.9524, 96.9721, -52.8929, 43.7803
5.112, 7, 35.8373, 48.5678, -13.9776, 96.9927, -53.0459, 43.6704
5.116, 7, 35.8337, 48.6133, -14.003, 97.0132, -53.2011, 43.5592
5.12, 7, 35.8298, 48.6599, -14.0285, 97.0333, -53.3579, 43.4471
5.124, 7, 35.8256, 48.7074, -14.054, 97.0531, -53.5161, 43.3346
5.128, 7, 35.8213, 48.7555, -14.0794, 97.0724, -53.6751, 43.2219
5.132, 7, 35.8167, 48.8041, -14.1048, 97.0913, -53.8347, 43.1091
5.136, 7, 35.812, 48.853, -14.13, 97.1096, -53.9948, 42.9964
5.14, 7, 35.8071, 48.9022, -14.155, 97.1274, -54.1552, 42.8839
5.144, 7, 35.8021, 48.9515, -14.1798, 97.1447, -54.3158, 42.7717
5.148, 7, 35.797, 49.0009, -14.2044, 97.1614, -54.4764, 42.6599
5.152, 7, 35.7917, 49.0502, -14.2287, 97.1776, -54.6371, 42.5484
5.156, 7, 35.7864, 49.0996, -14.2529, 97.1931, -54.7979, 42.4373
5.16, 7, 35.7809, 49.1488, -14.2767, 97.2082, -54.9586, 42.3266
5.164, 7, 35.7754, 49.198, -14.3003, 97.2227, -55.1193, 42.2163
5.168, 7, 35.7697, 49.2471, -14.3237, 97.2366, -55.28, 42.1064
5.172, 7, 35.764, 49.2961, -14.3468, 97.2499, -55.4406, 41.9969
5.176, 7, 35.7582, 49.3449, -14.3696, 97.2628, -55.6012, 41.8879
5.18, 7, 35.7523, 49.3936, -14.3922, 97.275, -55.7617, 41.7792
5.184, 7, 35.7463, 49.4422, -14.4145, 97.2868, -55.9222, 41.671
5.188, 8, 35.7402, 49.4907, -14.4365, 97.298, -56.0826, 41.5631
5.192, 8, 35.734, 49.5391, -14.4583, 97.3086, -56.243, 41.4557
5.196, 8, 35.7278, 49.5872, -14.4798, 97.3188, -56.4033, 41.3486
5.2, 8, 35.7214, 49.6353, -14.5011, 97.3284, -56.5636, 41.2419
5.204, 8, 35.715, 49.6832, -14.5221, 97.3375, -56.7237, 41.1357
5.208, 8, 35.7085, 49.731, -14.5428, 97.3461, -56.8839, 41.0298
5.212, 8, 35.7019, 49.7787, -14.5632, 97.3541, -57.0439, 40.9243
5.216, 8, 35.6952, 49.8262, -14.5834, 97.3617, -57.2039, 40.8191
5.22, 8, 35.6885, 49.8736, -14.6033, 97.3687, -57.3639, 40.7144
5.224, 8, 35.6816, 49.9208, -14.623, 97.3753, -57.5237, 40.61
5.228, 8, 35.6747, 49.9679, -14.6423, 97.3813, -57.6835, 40.506
5.232, 8, 35.6677, 50.0148, -14.6614, 97.3869, -57.8433, 40.4023
5.236, 8, 35.6606, 50.0616, -14.6802, 97.3919, -58.0029, 40.299
5.24, 8, 35.6534, 50.1083, -14.6988, 97.3965, -58.1625, 40.1961
5.244, 8, 35.6461, 50.1548, -14.717, 97.4006, -58.3221, 40.0935
5.248, 8, 35.6387, 50.2012, -14.735, 97.4042, -58.4815, 39.9912
5.252, 8, 35.6313, 50.2474, -14.7527, 97.4073, -58.6409, 39.8893
5.256, 8, 35.6238, 50.2935, -14.7702, 97.41, -58.8003, 39.7877
5.26, 8, 35.6162, 50.3394, -14.7873, 97.4122, -58.9595, 39.6865
5.264, 8, 35.6085, 50.3852, -14.8042, 97.4139, -59.1187, 39.5856
5.268, 8, 35.6007, 50.4308, -14.8208, 97.4151, -59.2778, 39.485
5.272, 8, 35.5928, 50.4763, -14.8371, 97.4159, -59.4368, 39.3848
5.276, 8, 35.5849, 50.5216, -14.8532, 97.4163, -59.5958, 39.2849
5.28, 8, 35.5769, 50.5668, -14.8689, 97.4162, -59.7547, 39.1853
5.284, 8, 35.5687, 50.6118, -14.8844, 97.4156, -59.9135, 39.086
5.288, 8, 35.5606, 50.6567, -14.8996, 97.4146, -60.0723, 38.987
5.292, 8, 35.5523, 50.7014, -14.9145, 97.4131, -60.2309, 38.8884
5.296, 8, 35.5439, 50.746, -14.9291, 97.4112, -60.3895, 38.79
5.3, 8, 35.5355, 50.7904, -14.9435, 97.4088, -60.548, 38.692
5.304, 8, 35.5269, 50.8346, -14.9575, 97.4061, -60.7065, 38.5942
5.309, 9, 35.5183, 50.8787, -14.9713, 97.4028, -60.8649, 38.4967
5.312, 9, 35.5096, 50.9227, -14.9848, 97.3992, -61.0232, 38.3996
5.316, 9, 35.5009, 50.9664, -14.998, 97.3951, -61.1814, 38.3027
5.32, 9, 35.492, 51.0101, -15.0109, 97.3906, -61.3395, 38.2061
5.324, 9, 35.4831, 51.0535, -15.0235, 97.3857, -61.4976, 38.1098
5.328, 9, 35.4741, 51.0968, -15.0358, 97.3804, -61.6556, 38.0138
5.332, 9, 35.465, 51.14, -15.0479, 97.3746, -61.8135, 37.9181
5.336, 9, 35.4558, 51.1829, -15.0596, 97.3684, -61.9713, 37.8226
5.34, 9, 35.4465, 51.2257, -15.0711, 97.3619, -62.1291, 37.7274
5.344, 9, 35.4372, 51.2684, -15.0822, 97.3549, -62.2868, 37.6325
5.348, 9, 35.4277, 51.3109, -15.0931, 97.3475, -62.4444, 37.5378
5.352, 9, 35.4182, 51.3532, -15.1037, 97.3397, -62.6019, 37.4434
5.356, 9, 35.4086, 51.3954, -15.114, 97.3315, -62.7594, 37.3493
5.36, 9, 35.3989, 51.4374, -15.124, 97.3229, -62.9167, 37.2554
5.364, 9, 35.3892, 51.4792, -15.1337, 97.3139, -63.074, 37.1618
5.368, 9, 35.3794, 51.5209, -15.1431, 97.3045, -63.2312, 37.0684
5.372, 9, 35.3694, 51.5624, -15.1522, 97.2948, -63.3884, 36.9753
5.376, 9, 35.3594, 51.6037, -15.161, 97.2846, -63.5454, 36.8824
5.38, 9, 35.3494, 51.6449, -15.1696, 97.2741, -63.7024, 36.7898
5.384, 9, 35.3392, 51.6859, -15.1778, 97.2632, -63.8593, 36.6974
5.388, 9, 35.329, 51.7267, -15.1857, 97.2519, -64.0161, 36.6053
5.392, 9, 35.3186, 51.7674, -15.1934, 97.2402, -64.1728, 36.5134
5.396, 9, 35.3082, 51.8079, -15.2007, 97.2281, -64.3295, 36.4217
5.4, 9, 35.2978, 51.8482, -15.2078, 97.2157, -64.486, 36.3303
5.404, 9, 35.2872, 51.8883, -15.2145, 97.2029, -64.6425, 36.2391
5.408, 9, 35.2766, 51.9283, -15.221, 97.1897, -64.7989, 36.1481
5.412, 9, 35.2658, 51.9681, -15.2271, 97.1762, -64.9552, 36.0573
5.416, 9, 35.255, 52.0077, -15.2329, 97.1623, -65.1115, 35.9668
5.42, 9, 35.2441, 52.0471, -15.2383, 97.148, -65.2676, 35.8766
5.424, 9, 35.2331, 52.0863, -15.2434, 97.1332, -65.4236, 35.7867
5.428, 9, 35.2219, 52.1252, -15.2479, 97.118, -65.5795, 35.6973
5.432, 9, 35.2106, 52.1638, -15.2518, 97.1021, -65.7352, 35.6085
5.436, 9, 35.1993, 52.202, -15.2551, 97.0854, -65.8906, 35.5206
5.44, 9, 35.1878, 52.2398, -15.2575, 97.0678, -66.0456, 35.434
5.444, 9, 35.1763, 52.2771, -15.2589, 97.049, -66.2002, 35.349
5.448, 9, 35.1647, 52.3138, -15.259, 97.0288, -66.3541, 35.266
5.452, 9, 35.1529, 52.35, -15.2578, 97.0069, -66.5072, 35.1856
5.456, 9, 35.141, 52.3856, -15.2549, 96.983, -66.6594, 35.1082
5.46, 9, 35.129, 52.4206, -15.2501, 96.9568, -66.8104, 35.0344
5.464, 9, 35.1167, 52.4549, -15.2433, 96.9281, -66.9601, 34.9646
5.468, 9, 35.1043, 52.4885, -15.2341, 96.8965, -67.1084, 34.8993
5.472, 9, 35.0917, 52.5213, -15.2225, 96.8619, -67.2552, 34.839
5.476, 9, 35.079, 52.5532, -15.2083, 96.8239, -67.4005, 34.784
5.48, 9, 35.0663, 52.5841, -15.1913, 96.7825, -67.5442, 34.7344
5.484, 9, 35.0534, 52.6141, -15.1715, 96.7375, -67.6863, 34.6904
5.488, 9, 35.0404, 52.6431, -15.1489, 96.6891, -67.827, 34.652
5.492, 9, 35.0273, 52.6712, -15.1235, 96.6372, -67.9662, 34.6189
5.496, 9, 35.0141, 52.6984, -15.0954, 96.5821, -68.1041, 34.5908
5.501, 10, 35.0007, 52.7247, -15.0648, 96.5239, -68.2408, 34.5674
5.504, 10, 34.9872, 52.7501, -15.0318, 96.4629, -68.3765, 34.5483
5.508, 10, 34.9737, 52.7747, -14.9965, 96.3994, -68.5114, 34.5329
5.512, 10, 34.9601, 52.7984, -14.9593, 96.3336, -68.6456, 34.5207
5.516, 10, 34.9464, 52.8213, -14.9203, 96.2659, -68.7792, 34.5113
5.52, 10, 34.9325, 52.8435, -14.8797, 96.1967, -68.9122, 34.5042
5.524, 10, 34.9185, 52.8649, -14.8378, 96.1262, -69.0449, 34.4987
5.528, 10, 34.9042, 52.8858, -14.7948, 96.0547, -69.1771, 34.4946
5.532, 10, 34.8897, 52.9061, -14.7508, 95.9827, -69.309, 34.4913
5.536, 10, 34.8749, 52.9257, -14.706, 95.9102, -69.4404, 34.4886
5.54, 10, 34.8598, 52.9448, -14.6605, 95.8376, -69.5714, 34.4862
5.544, 10, 34.8446, 52.9632, -14.6144, 95.765, -69.702, 34.4838
5.548, 10, 34.8291, 52.981, -14.5678, 95.6927, -69.832, 34.4811
5.552, 10, 34.8135, 52.9982, -14.5208, 95.6209, -69.9613, 34.4782
5.556, 10, 34.7976, 53.0148, -14.4733, 95.5497, -70.09, 34.4747
5.56, 10, 34.7817, 53.0307, -14.4255, 95.4791, -70.2178, 34.4706
5.564, 10, 34.7655, 53.0462, -14.3773, 95.4095, -70.3447, 34.4658
5.568, 10, 34.7492, 53.0612, -14.3287, 95.3409, -70.4706, 34.4602
5.572, 10, 34.7327, 53.0758, -14.2798, 95.2734, -70.5954, 34.4537
5.576, 10, 34.7161, 53.0901, -14.2306, 95.2071, -70.719, 34.4462
5.58, 10, 34.6994, 53.1042, -14.1811, 95.142, -70.8415, 34.4378
5.584, 10, 34.6825, 53.1179, -14.1313, 95.0782, -70.9627, 34.4284
5.588, 10, 34.6656, 53.1314, -14.0812, 95.0156, -71.0828, 34.4181
5.592, 10, 34.6485, 53.1445, -14.0309, 94.9542, -71.2018, 34.4068
5.596, 10, 34.6312, 53.1571, -13.9803, 94.894, -71.3197, 34.3947
5.6, 10, 34.6138, 53.1692, -13.9295, 94.8347, -71.4367, 34.3817
5.604, 10, 34.5963, 53.1808, -13.8784, 94.7764, -71.5527, 34.3681
5.608, 10, 34.5786, 53.1918, -13.8272, 94.7189, -71.668, 34.3538
5.612, 10, 34.5608, 53.2023, -13.7757, 94.6622, -71.7825, 34.3389
5.616, 10, 34.5428, 53.2123, -13.724, 94.606, -71.8965, 34.3236
5.621, 11, 34.5247, 53.2218, -13.6722, 94.5502, -72.01, 34.3078
5.623, 11, 34.5065, 53.2308, -13.6202, 94.4948, -72.1231, 34.2918
5.628, 11, 34.4881, 53.2394, -13.568, 94.4397, -72.2359, 34.2755
5.632, 11, 34.4695, 53.2476, -13.5156, 94.3847, -72.3485, 34.259
5.636, 11, 34.4508, 53.2555, -13.463, 94.3299, -72.4609, 34.2424
5.64, 11, 34.432, 53.263, -13.4103, 94.2751, -72.5731, 34.2257
5.644, 11, 34.413, 53.2702, -13.3574, 94.2204, -72.6853, 34.2088
5.648, 11, 34.394, 53.2772, -13.3043, 94.1656, -72.7973, 34.1919
5.652, 11, 34.3748, 53.284, -13.251, 94.1108, -72.9093, 34.175
5.656, 11, 34.3556, 53.2906, -13.1976, 94.0561, -73.0213, 34.1579
5.66, 11, 34.3363, 53.297, -13.1439, 94.0012, -73.1332, 34.1409
5.664, 11, 34.3169, 53.3033, -13.0901, 93.9464, -73.245, 34.1238
5.668, 11, 34.2975, 53.3094, -13.0361, 93.8914, -73.3568, 34.1066
5.672, 11, 34.278, 53.3154, -12.9819, 93.8365, -73.4686, 34.0894
5.676, 11, 34.2584, 53.3212, -12.9275, 93.7815, -73.5803, 34.0722
5.68, 11, 34.2387, 53.3269, -12.873, 93.7264, -73.692, 34.0549
5.684, 11, 34.219, 53.3324, -12.8182, 93.6713, -73.8037, 34.0376
5.688, 11, 34.1993, 53.3378, -12.7633, 93.6161, -73.9154, 34.0202
5.692, 11, 34.1794, 53.343, -12.7082, 93.5609, -74.027, 34.0028
5.696, 11, 34.1595, 53.3481, -12.6529, 93.5057, -74.1385, 33.9854
5.7, 11, 34.1396, 53.3531, -12.5974, 93.4503, -74.2501, 33.9679
5.704, 11, 34.1196, 53.3579, -12.5418, 93.395, -74.3616, 33.9504
5.708, 11, 34.0995, 53.3626, -12.4859, 93.3396, -74.473, 33.9328
5.712, 11, 34.0793, 53.3671, -12.4299, 93.2841, -74.5845, 33.9152
5.716, 11, 34.0591, 53.3715, -12.3737, 93.2286, -74.6959, 33.8976
5.72, 11, 34.0388, 53.3757, -12.3173, 93.173, -74.8073, 33.8799
5.724, 11, 34.0185, 53.3799, -12.2607, 93.1173, -74.9186, 33.8621
5.728, 11, 33.9982, 53.3838, -12.204, 93.0617, -75.03, 33.8444
5.732, 11, 33.9779, 53.3876, -12.1471, 93.0059, -75.1412, 33.8265
5.736, 11, 33.9577, 53.3912, -12.09, 92.9502, -75.2525, 33.8087
5.74, 11, 33.9378, 53.3946, -12.0328, 92.8944, -75.3636, 33.7908
5.744, 11, 33.9181, 53.3977, -11.9754, 92.8386, -75.4746, 33.7728
5.748, 11, 33.8985, 53.4004, -11.9179, 92.7828, -75.5854, 33.7549
5.752, 11, 33.8791, 53.4025, -11.8603, 92.7271, -75.6959, 33.737
5.756, 11, 33.8593, 53.4037, -11.8026, 92.6715, -75.8059, 33.7192
5.76, 11, 33.8391, 53.4038, -11.7445, 92.6159, -75.9152, 33.7018
5.764, 11, 33.8182, 53.4025, -11.686, 92.5604, -76.0233, 33.6851
5.768, 11, 33.7965, 53.3996, -11.6267, 92.5047, -76.1299, 33.6695
5.772, 11, 33.7741, 53.395, -11.5662, 92.4488, -76.2343, 33.6557
5.776, 11, 33.7511, 53.3887, -11.504, 92.3922, -76.3359, 33.6444
5.78, 11, 33.7275, 53.3808, -11.4395, 92.3347, -76.4339, 33.6368
5.784, 11, 33.7037, 53.3713, -11.3721, 92.2757, -76.5276, 33.6336
5.788, 11, 33.6798, 53.3602, -11.3012, 92.215, -76.6164, 33.6358
5.792, 11, 33.6557, 53.3475, -11.2263, 92.1522, -76.6997, 33.6441
5.796, 11, 33.6316, 53.3332, -11.1469, 92.087, -76.7773, 33.6591
5.8, 11, 33.6075, 53.3171, -11.0627, 92.0193, -76.849, 33.6808
5.804, 11, 33.5833, 53.2992, -10.9739, 91.949, -76.9152, 33.7093
5.808, 11, 33.5592, 53.2797, -10.8803, 91.8765, -76.9763, 33.7439
5.812, 12, 33.5351, 53.2586, -10.7825, 91.8019, -77.0328, 33.7839
5.818, 12, 33.5112, 53.236, -10.6808, 91.7256, -77.0857, 33.8283
5.82, 12, 33.4874, 53.2121, -10.5761, 91.6482, -77.1356, 33.876
5.824, 12, 33.4638, 53.187, -10.4689, 91.5702, -77.1838, 33.9256
5.828, 12, 33.4402, 53.1607, -10.3602, 91.4921, -77.231, 33.9759
5.832, 12, 33.4166, 53.1331, -10.2508, 91.4145, -77.2782, 34.0257
5.836, 12, 33.3927, 53.1044, -10.1413, 91.3379, -77.3262, 34.0739
5.84, 12, 33.3683, 53.0746, -10.0325, 91.2626, -77.3757, 34.1195
5.844, 12, 33.3431, 53.0441, -9.92475, 91.189, -77.4271, 34.1619
5.848, 12, 33.3171, 53.0129, -9.81843, 91.1172, -77.4806, 34.2009
5.852, 12, 33.2903, 52.9816, -9.7137, 91.0472, -77.5362, 34.2365
5.856, 12, 33.2629, 52.9504, -9.61057, 90.9788, -77.5937, 34.2688
5.86, 12, 33.2351, 52.9194, -9.50895, 90.9118, -77.6529, 34.2984
5.864, 12, 33.2072, 52.889, -9.40866, 90.846, -77.7135, 34.3258
5.868, 12, 33.1795, 52.8591, -9.30946, 90.7811, -77.7751, 34.3513
5.872, 12, 33.1519, 52.8296, -9.21113, 90.7168, -77.8375, 34.3756
5.876, 12, 33.1246, 52.8006, -9.11345, 90.653, -77.9006, 34.3989
5.88, 12, 33.0976, 52.772, -9.01623, 90.5895, -77.964, 34.4215
5.884, 12, 33.0708, 52.7436, -8.91936, 90.5263, -78.0277, 34.4436
5.888, 12, 33.044, 52.7153, -8.82272, 90.4632, -78.0917, 34.4654
5.892, 12, 33.0173, 52.6871, -8.72625, 90.4002, -78.1558, 34.4868
5.896, 12, 32.9906, 52.659, -8.62992, 90.3373, -78.2201, 34.508
5.9, 12, 32.9638, 52.631, -8.53368, 90.2745, -78.2844, 34.5291
5.904, 12, 32.937, 52.6029, -8.43753, 90.2117, -78.3489, 34.55
5.908, 12, 32.9102, 52.5749, -8.34145, 90.149, -78.4134, 34.5707
5.912, 12, 32.8833, 52.5469, -8.24543, 90.0863, -78.478, 34.5914
5.916, 12, 32.8563, 52.5189, -8.14947, 90.0236, -78.5426, 34.6119
5.92, 12, 32.8293, 52.4909, -8.05356, 89.961, -78.6073, 34.6323
5.924, 12, 32.8023, 52.4629, -7.95771, 89.8984, -78.672, 34.6526
5.928, 12, 32.7752, 52.4349, -7.8619, 89.8358, -78.7368, 34.6728
5.932, 12, 32.748, 52.4069, -7.76614, 89.7732, -78.8017, 34.6929
5.936, 12, 32.7208, 52.3789, -7.67043, 89.7107, -78.8665, 34.7129
5.94, 12, 32.6936, 52.3508, -7.57476, 89.6482, -78.9315, 34.7327
5.944, 12, 32.6663, 52.3228, -7.47914, 89.5857, -78.9965, 34.7525
5.948, 12, 32.6389, 52.2948, -7.38356, 89.5232, -79.0615, 34.7722
5.952, 12, 32.6115, 52.2667, -7.28803, 89.4608, -79.1265, 34.7918
5.956, 12, 32.584, 52.2386, -7.19255, 89.3984, -79.1916, 34.8113
5.96, 12, 32.5565, 52.2106, -7.0971, 89.336, -79.2568, 34.8307
5.964, 12, 32.5289, 52.1825, -7.00171, 89.2736, -79.322, 34.85
5.968, 12, 32.5013, 52.1544, -6.90635, 89.2112, -79.3872, 34.8692
5.972, 12, 32.4736, 52.1263, -6.81105, 89.1489, -79.4525, 34.8882
5.976, 12, 32.4459, 52.0981, -6.71578, 89.0866, -79.5178, 34.9072
5.981, 13, 32.4181, 52.07, -6.62056, 89.0243, -79.5832, 34.9261
5.984, 13, 32.3903, 52.0419, -6.52538, 88.962, -79.6486, 34.9449
5.988, 13, 32.3624, 52.0137, -6.43025, 88.8998, -79.7141, 34.9636
5.992, 13, 32.3345, 51.9855, -6.33516, 88.8375, -79.7795, 34.9822
5.996, 13, 32.3065, 51.9574, -6.24011, 88.7753, -79.8451, 35.0007
6, 13, 32.2784, 51.9292, -6.14511, 88.7131, -79.9107, 35.0191
6.004, 13, 32.2503, 51.901, -6.05015, 88.6509, -79.9763, 35.0374
6.008, 13, 32.2222, 51.8728, -5.95524, 88.5887, -80.0419, 35.0556
6.012, 13, 32.1939, 51.8445, -5.86036, 88.5266, -80.1077, 35.0737
6.016, 13, 32.1657, 51.8163, -5.76553, 88.4645, -80.1734, 35.0917
6.02, 13, 32.1374, 51.7881, -5.67074, 88.4023, -80.2392, 35.1096
6.024, 13, 32.109, 51.7598, -5.576, 88.3402, -80.305, 35.1274
6.028, 13, 32.0806, 51.7315, -5.4813, 88.2782, -80.3709, 35.1451
6.032, 13, 32.0521, 51.7032, -5.38664, 88.2161, -80.4368, 35.1626
6.036, 13, 32.0235, 51.6749, -5.29202, 88.154, -80.5028, 35.1801
6.04, 13, 31.9949, 51.6465, -5.19743, 88.092, -80.5688, 35.1975
6.044, 13, 31.9662, 51.618, -5.10287, 88.03, -80.6348, 35.2148
