hehonglu123/Motion-Primitive-Planning/ILC/recorded_data/realrobot/wood/iteration_19/run_4.csv
timestamp, cmd_num, J1, J2, J3, J4, J5, J6
0.000374, -1, 11.3762, 13.6155, 17.3342, -145.52, -97.9262, 142.516
0.005146, -1, 11.3762, 13.6155, 17.3342, -145.52, -97.9262, 142.517
0.00798, -1, 11.3762, 13.6155, 17.3342, -145.52, -97.9262, 142.517
0.028508, -1, 11.3762, 13.6155, 17.3342, -145.52, -97.9262, 142.517
0.03122, -1, 11.3762, 13.6155, 17.3342, -145.52, -97.9262, 142.517
0.033686, -1, 11.3762, 13.6155, 17.3342, -145.52, -97.9262, 142.517
0.039826, -1, 11.3762, 13.6155, 17.3342, -145.52, -97.9262, 142.517
0.048812, -1, 11.3762, 13.6155, 17.3342, -145.52, -97.9262, 142.516
0.184311, -1, 10.2665, 13.3222, 17.406, -145.866, -97.8081, 140.516
0.185608, -1, 10.2665, 13.3222, 17.406, -145.866, -97.8081, 140.516
0.187796, -1, 10.1922, 13.3021, 17.411, -145.89, -97.7999, 140.377
0.188997, -1, 10.1922, 13.3021, 17.411, -145.89, -97.7999, 140.377
0.19086, -1, 10.117, 13.2818, 17.416, -145.914, -97.7915, 140.238
0.192212, -1, 10.117, 13.2818, 17.416, -145.914, -97.7915, 140.238
0.193529, -1, 10.117, 13.2818, 17.416, -145.914, -97.7915, 140.238
0.200643, -1, 9.96461, 13.2407, 17.4261, -145.961, -97.7746, 139.96
0.201897, -1, 9.96461, 13.2407, 17.4261, -145.961, -97.7746, 139.96
0.204034, -1, 9.88749, 13.22, 17.4311, -145.985, -97.766, 139.821
0.205281, -1, 9.88749, 13.22, 17.4311, -145.985, -97.766, 139.821
0.207285, -1, 9.80994, 13.1993, 17.4362, -146.01, -97.7574, 139.681
0.208613, -1, 9.80994, 13.1993, 17.4362, -146.01, -97.7574, 139.681
0.209803, -1, 9.80994, 13.1993, 17.4362, -146.01, -97.7574, 139.681
0.211821, -1, 9.73216, 13.1786, 17.4412, -146.034, -97.7487, 139.541
0.213372, -1, 9.73216, 13.1786, 17.4412, -146.034, -97.7487, 139.541
0.215417, -1, 9.65439, 13.1579, 17.4463, -146.057, -97.7401, 139.401
0.216658, -1, 9.65439, 13.1579, 17.4463, -146.057, -97.7401, 139.401
0.218012, -1, 9.65439, 13.1579, 17.4463, -146.057, -97.7401, 139.401
0.220033, -1, 9.57673, 13.1372, 17.4513, -146.081, -97.7316, 139.262
0.221385, -1, 9.57673, 13.1372, 17.4513, -146.081, -97.7316, 139.262
0.224746, -1, 9.49919, 13.1166, 17.4563, -146.105, -97.7231, 139.122
0.233765, -1, 9.34444, 13.0754, 17.4662, -146.153, -97.7063, 138.842
0.23979, -1, 9.19, 13.0342, 17.4762, -146.201, -97.6895, 138.563
0.249261, -1, 9.03607, 12.9931, 17.4862, -146.249, -97.6728, 138.283
0.255325, -1, 8.88229, 12.9521, 17.4964, -146.297, -97.6559, 138.003
0.26393, -1, 8.72874, 12.9111, 17.5066, -146.345, -97.6388, 137.723
0.272221, -1, 8.57577, 12.87, 17.5167, -146.393, -97.6213, 137.443
0.279553, -1, 8.42305, 12.8288, 17.5268, -146.441, -97.6037, 137.162
0.287936, -1, 8.27007, 12.7874, 17.537, -146.489, -97.5865, 136.882
0.296198, -1, 8.11671, 12.7458, 17.5472, -146.537, -97.5694, 136.602
0.302805, -1, 8.03986, 12.725, 17.5523, -146.561, -97.561, 136.462
0.311852, -1, 7.80829, 12.6625, 17.5676, -146.633, -97.536, 136.042
0.321385, -1, 7.6534, 12.6208, 17.5777, -146.68, -97.5193, 135.761
0.328025, -1, 7.49848, 12.5791, 17.5879, -146.729, -97.5025, 135.481
0.334866, -1, 7.42091, 12.5584, 17.593, -146.753, -97.494, 135.341
0.344039, -1, 7.1884, 12.496, 17.6083, -146.824, -97.468, 134.92
0.350796, -1, 7.11092, 12.4752, 17.6134, -146.849, -97.4593, 134.78
0.360259, -1, 6.87823, 12.4132, 17.6289, -146.921, -97.4336, 134.36
0.368266, -1, 6.72327, 12.3719, 17.6393, -146.969, -97.4167, 134.079
0.374801, -1, 6.6459, 12.3513, 17.6445, -146.993, -97.4083, 133.939
0.384395, -1, 6.41409, 12.2893, 17.6601, -147.065, -97.3833, 133.518
0.392322, -1, 6.25986, 12.248, 17.6705, -147.113, -97.3664, 133.238
0.400354, -1, 6.10565, 12.2065, 17.6808, -147.162, -97.3493, 132.957
0.408419, -1, 6.02845, 12.165, 17.691, -147.21, -97.3318, 132.676
0.416272, -1, 5.87388, 12.1443, 17.6962, -147.233, -97.323, 132.536
0.424586, -1, 5.71916, 12.1026, 17.7065, -147.282, -97.3055, 132.115
0.431752, -1, 5.56421, 12.0609, 17.7168, -147.33, -97.2882, 131.974
0.439747, -1, 5.40906, 12.0193, 17.7271, -147.378, -97.2711, 131.693
0.447801, -1, 5.25371, 11.9775, 17.7374, -147.426, -97.2543, 131.412
0.455746, -1, 5.09809, 11.9358, 17.7477, -147.474, -97.2376, 131.131
0.463763, -1, 4.94232, 11.8941, 17.7582, -147.522, -97.2207, 130.85
0.471817, -1, 4.78663, 11.8525, 17.7687, -147.57, -97.2037, 130.569
0.479772, -1, 4.63088, 11.811, 17.7791, -147.619, -97.1863, 130.288
0.487747, -1, 4.47514, 11.7695, 17.7896, -147.667, -97.1688, 130.007
0.495801, -1, 4.31963, 11.7281, 17.8, -147.715, -97.1515, 129.726
0.503763, -1, 4.16435, 11.6866, 17.8104, -147.764, -97.1344, 129.445
0.511746, -1, 4.0095, 11.6452, 17.8208, -147.811, -97.1175, 129.164
0.649588, -1, 1.36353, 10.9361, 17.9977, -148.633, -96.8261, 124.375
0.651642, -1, 1.28562, 10.9153, 18.0029, -148.657, -96.8177, 124.234
0.652845, -1, 1.28562, 10.9153, 18.0029, -148.657, -96.8177, 124.234
0.65488, -1, 1.20778, 10.8944, 18.0081, -148.682, -96.8093, 124.093
0.656112, -1, 1.20778, 10.8944, 18.0081, -148.682, -96.8093, 124.093
0.657311, -1, 1.20778, 10.8944, 18.0081, -148.682, -96.8093, 124.093
0.660103, -1, 1.13002, 10.8735, 18.0133, -148.706, -96.8009, 123.952
0.664811, -1, 1.05238, 10.8526, 18.0185, -148.73, -96.7924, 123.81
0.667036, -1, 0.974858, 10.8317, 18.0236, -148.755, -96.7839, 123.669
0.668283, -1, 0.974858, 10.8317, 18.0236, -148.755, -96.7839, 123.669
0.66957, -1, 0.974858, 10.8317, 18.0236, -148.755, -96.7839, 123.669
0.671566, -1, 0.897403, 10.8108, 18.0289, -148.779, -96.7754, 123.528
0.672836, -1, 0.897403, 10.8108, 18.0289, -148.779, -96.7754, 123.528
0.674667, -1, 0.819969, 10.7899, 18.0341, -148.803, -96.7667, 123.387
0.676123, -1, 0.819969, 10.7899, 18.0341, -148.803, -96.7667, 123.387
0.679755, -1, 0.742542, 10.769, 18.0393, -148.827, -96.758, 123.246
0.68095, -1, 0.742542, 10.769, 18.0393, -148.827, -96.758, 123.246
0.683696, -1, 0.665182, 10.7481, 18.0445, -148.851, -96.7491, 123.105
0.685816, -1, 0.665182, 10.7481, 18.0445, -148.851, -96.7491, 123.105
0.687964, -1, 0.58789, 10.7271, 18.0497, -148.876, -96.7403, 122.963
0.689203, -1, 0.58789, 10.7271, 18.0497, -148.876, -96.7403, 122.963
0.691229, -1, 0.510565, 10.7062, 18.0549, -148.9, -96.7316, 122.822
0.696827, -1, 0.433135, 10.6854, 18.0601, -148.924, -96.7228, 122.68
0.703798, -1, 0.277979, 10.6436, 18.0705, -148.972, -96.7055, 122.398
0.711816, -1, 0.122428, 10.6016, 18.081, -149.021, -96.6886, 122.115
0.719746, -1, -0.0335509, 10.5597, 18.0915, -149.069, -96.6717, 121.832
0.727743, -1, -0.189943, 10.5179, 18.102, -149.118, -96.655, 121.549
0.735832, -1, -0.346504, 10.476, 18.1125, -149.166, -96.6381, 121.267
0.743811, -1, -0.503494, 10.4341, 18.1229, -149.215, -96.621, 120.984
0.751833, -1, -0.660718, 10.3923, 18.1333, -149.263, -96.6036, 120.701
0.759922, -1, -0.818093, 10.3504, 18.1438, -149.312, -96.5861, 120.418
0.767842, -1, -0.975436, 10.3086, 18.1542, -149.36, -96.5688, 120.136
0.77588, -1, -1.13269, 10.2668, 18.1645, -149.409, -96.5518, 119.853
0.783858, -1, -1.28977, 10.2249, 18.1749, -149.458, -96.5349, 119.569
0.791747, -1, -1.44667, 10.1831, 18.1852, -149.506, -96.5181, 119.286
0.799818, -1, -1.60326, 10.1412, 18.1958, -149.555, -96.5013, 119.003
0.807807, -1, -1.75941, 10.0993, 18.2063, -149.604, -96.4842, 118.72
0.815776, -1, -1.91518, 10.0574, 18.2167, -149.652, -96.4669, 118.436
0.823896, -1, -2.07048, 10.0155, 18.2272, -149.701, -96.4493, 118.153
0.831959, -1, -2.22561, 9.97362, 18.2376, -149.75, -96.4317, 117.869
0.838906, -1, -2.30321, 9.95266, 18.2428, -149.774, -96.423, 117.727
0.848087, -1, -2.53634, 9.88967, 18.2585, -149.846, -96.3973, 117.302
0.854742, -1, -2.61418, 9.8687, 18.2637, -149.871, -96.3888, 117.16
0.864243, -1, -2.84833, 9.8058, 18.2793, -149.944, -96.3637, 116.734
0.872318, -1, -3.00494, 9.7638, 18.2897, -149.992, -96.3467, 116.451
0.880335, -1, -3.16192, 9.72186, 18.3001, -150.041, -96.3296, 116.167
0.88829, -1, -3.31931, 9.6799, 18.3106, -150.09, -96.312, 115.883
0.89634, -1, -3.4771, 9.63786, 18.3211, -150.138, -96.2945, 115.599
0.904402, -1, -3.63491, 9.59596, 18.3315, -150.187, -96.277, 115.315
0.912279, -1, -3.71387, 9.57504, 18.3367, -150.212, -96.2598, 115.031
0.920338, -1, -3.87193, 9.53306, 18.3471, -150.26, -96.2428, 114.746
0.92776, -1, -4.02991, 9.49104, 18.3575, -150.309, -96.2343, 114.604
0.935731, -1, -4.1877, 9.44911, 18.3679, -150.358, -96.2173, 114.32
0.943789, -1, -4.34545, 9.40711, 18.3782, -150.406, -96.2002, 114.036
0.951744, -1, -4.50292, 9.36507, 18.3886, -150.455, -96.1828, 113.751
0.959731, -1, -4.65991, 9.32305, 18.399, -150.504, -96.1651, 113.466
0.967803, -1, -4.81649, 9.28096, 18.4094, -150.553, -96.1473, 113.182
0.975751, -1, -4.97279, 9.23884, 18.42, -150.602, -96.1298, 112.897
0.983736, -1, -5.12876, 9.19681, 18.4305, -150.651, -96.1127, 112.612
0.991777, -1, -5.28461, 9.15471, 18.4411, -150.699, -96.0956, 112.327
0.999732, -1, -5.44059, 9.11253, 18.4516, -150.748, -96.0787, 112.043
1.00773, -1, -5.59675, 9.07043, 18.462, -150.797, -96.0618, 111.758
1.0159, -1, -5.7533, 9.02833, 18.4725, -150.846, -96.0446, 111.473
1.02377, -1, -5.91021, 8.98614, 18.483, -150.895, -96.0272, 111.188
1.03181, -1, -6.06764, 8.94401, 18.4933, -150.944, -96.0095, 110.903
1.03977, -1, -6.22565, 8.90187, 18.5038, -150.992, -95.9919, 110.618
1.04773, -1, -6.38393, 8.85974, 18.5142, -151.042, -95.9747, 110.332
1.05672, -1, -6.54231, 8.81766, 18.5245, -151.09, -95.9577, 110.047
1.06374, -1, -6.70084, 8.77548, 18.5351, -151.139, -95.9406, 109.762
1.07174, -1, -6.85958, 8.73333, 18.5456, -151.189, -95.9236, 109.476
1.07979, -1, -7.01818, 8.69123, 18.5561, -151.237, -95.9064, 109.19
1.08773, -1, -7.17669, 8.64907, 18.5666, -151.286, -95.8889, 108.905
1.09575, -1, -7.33503, 8.60687, 18.577, -151.336, -95.8712, 108.619
1.1038, -1, -7.49301, 8.56458, 18.5875, -151.385, -95.8535, 108.334
1.11173, -1, -7.65064, 8.52225, 18.598, -151.434, -95.836, 108.048
1.1198, -1, -7.80792, 8.47996, 18.6085, -151.483, -95.8188, 107.762
1.12773, -1, -7.96483, 8.43767, 18.6189, -151.532, -95.8018, 107.476
1.13573, -1, -8.12149, 8.39529, 18.6293, -151.58, -95.7848, 107.19
1.14424, -1, -8.27807, 8.35293, 18.6398, -151.63, -95.7678, 106.905
1.15083, -1, -8.43474, 8.31054, 18.6504, -151.679, -95.7506, 106.619
1.15973, -1, -8.59173, 8.26816, 18.661, -151.728, -95.7331, 106.332
1.16853, -1, -8.74912, 8.22586, 18.6715, -151.777, -95.7153, 106.046
1.17572, -1, -8.9068, 8.18349, 18.6818, -151.826, -95.6978, 105.76
1.18375, -1, -9.06491, 8.14117, 18.6923, -151.875, -95.6804, 105.473
1.19255, -1, -9.22345, 8.0989, 18.7028, -151.924, -95.6632, 105.187
1.19973, -1, -9.38236, 8.05652, 18.7132, -151.973, -95.6462, 104.9
1.20778, -1, -9.54147, 8.01415, 18.7237, -152.023, -95.6291, 104.614
1.21653, -1, -9.70062, 7.9719, 18.7342, -152.072, -95.6117, 104.327
1.22374, -1, -9.85992, 7.9296, 18.7447, -152.121, -95.5942, 104.04
1.23189, -1, -10.0193, 7.88717, 18.7554, -152.17, -95.5763, 103.753
1.24054, -1, -10.1785, 7.84473, 18.766, -152.22, -95.5585, 103.466
1.24779, -1, -10.3376, 7.8022, 18.7766, -152.269, -95.5409, 103.179
1.25607, -1, -10.4966, 7.75967, 18.7872, -152.318, -95.5237, 102.892
1.26464, -1, -10.6551, 7.71718, 18.7976, -152.368, -95.5066, 102.605
1.27183, -1, -10.8132, 7.67464, 18.8081, -152.417, -95.4896, 102.318
1.28023, -1, -10.971, 7.632, 18.8187, -152.466, -95.4725, 102.031
1.28732, -1, -11.0498, 7.61071, 18.8239, -152.515, -95.4551, 101.743
1.29551, -1, -11.2072, 7.56821, 18.8343, -152.564, -95.4374, 101.456
1.30447, -1, -11.4434, 7.50446, 18.8501, -152.614, -95.4196, 101.169
1.31271, -1, -11.601, 7.46195, 18.8606, -152.663, -95.402, 100.881
1.31976, -1, -11.7588, 7.4195, 18.8713, -152.712, -95.3845, 100.593
1.32877, -1, -11.9172, 7.37706, 18.8818, -152.762, -95.3673, 100.305
1.33669, -1, -12.076, 7.33464, 18.8924, -152.811, -95.3501, 100.018
1.34413, -1, -12.2352, 7.29223, 18.9029, -152.861, -95.3328, 99.73
1.35288, -1, -12.3948, 7.2498, 18.9135, -152.91, -95.3154, 99.4418
1.36132, -1, -12.5547, 7.20734, 18.9241, -152.96, -95.2977, 99.1538
1.36817, -1, -12.7146, 7.16489, 18.9346, -153.009, -95.2797, 98.8661
1.37474, -1, -12.7947, 7.14367, 18.9399, -153.034, -95.2708, 98.7221
1.38577, -1, -13.0348, 7.07981, 18.9557, -153.108, -95.2443, 98.2899
1.39248, -1, -13.1948, 7.03716, 18.9663, -153.157, -95.2269, 98.0018
1.40029, -1, -13.3546, 6.99455, 18.9769, -153.207, -95.2098, 97.7137
1.4099, -1, -13.4344, 6.95178, 18.9875, -153.256, -95.1926, 97.4252
1.41638, -1, -13.5937, 6.90896, 18.9981, -153.306, -95.1753, 97.1365
1.42371, -1, -13.7528, 6.8876, 19.0034, -153.33, -95.1665, 96.9922
1.43173, -1, -13.9117, 6.84489, 19.0139, -153.38, -95.1489, 96.7038
1.43978, -1, -14.07, 6.80218, 19.0244, -153.429, -95.1311, 96.4152
1.44771, -1, -14.2281, 6.75954, 19.035, -153.479, -95.1133, 96.1263
1.45578, -1, -14.3863, 6.71686, 19.0455, -153.528, -95.0959, 95.8373
1.46377, -1, -14.5446, 6.67415, 19.056, -153.577, -95.0786, 95.5483
1.47176, -1, -14.7032, 6.6316, 19.0666, -153.627, -95.0614, 95.259
1.47978, -1, -14.8623, 6.58907, 19.0772, -153.677, -95.0443, 94.9695
1.48776, -1, -15.0216, 6.54638, 19.088, -153.726, -95.0268, 94.6803
1.49571, -1, -15.1814, 6.50374, 19.0987, -153.776, -95.0091, 94.3914
1.50371, -1, -15.3415, 6.46116, 19.1094, -153.826, -94.9911, 94.1021
1.51171, -1, -15.5019, 6.41843, 19.12, -153.875, -94.9731, 93.8127
1.51972, -1, -15.6627, 6.37571, 19.1306, -153.925, -94.9555, 93.5235
1.5278, -1, -15.8234, 6.33298, 19.1412, -153.975, -94.9381, 93.2343
1.53573, -1, -15.9842, 6.29006, 19.1519, -154.024, -94.9209, 92.9447
1.54375, -1, -16.1451, 6.24722, 19.1625, -154.074, -94.9037, 92.6547
1.55271, -1, -16.3058, 6.2043, 19.173, -154.123, -94.8865, 92.3652
1.55971, -1, -16.4663, 6.16126, 19.1835, -154.173, -94.8689, 92.0757
1.5687, -1, -16.6266, 6.11831, 19.1941, -154.223, -94.8511, 91.7855
1.57578, -1, -16.7864, 6.07536, 19.2048, -154.272, -94.8332, 91.4954
1.58371, -1, -16.9459, 6.03236, 19.2154, -154.322, -94.8155, 91.2054
1.59171, -1, -17.1053, 5.98941, 19.2261, -154.372, -94.798, 90.9151
1.5998, -1, -17.2644, 5.94645, 19.2367, -154.421, -94.7807, 90.6247
1.60771, -1, -17.4234, 5.90362, 19.2473, -154.471, -94.7634, 90.3343
1.61572, -1, -17.5827, 5.86078, 19.258, -154.522, -94.7459, 90.0442
1.62378, -1, -17.7421, 5.81793, 19.2687, -154.571, -94.7284, 89.7539
1.63172, -1, -17.9016, 5.77516, 19.2794, -154.621, -94.7105, 89.4634
1.63973, -1, -18.0618, 5.73235, 19.29, -154.671, -94.6923, 89.1728
1.64777, -1, -18.2222, 5.68955, 19.3006, -154.721, -94.6745, 88.8826
1.65571, -1, -18.3831, 5.64675, 19.3114, -154.771, -94.6568, 88.5918
1.6638, -1, -18.5445, 5.6038, 19.3222, -154.821, -94.6394, 88.3006
1.67173, -1, -18.706, 5.56083, 19.3328, -154.871, -94.6222, 88.0099
1.67971, -1, -18.8677, 5.51787, 19.3435, -154.921, -94.6049, 87.7189
1.68778, -1, -19.0294, 5.47481, 19.3541, -154.971, -94.5873, 87.4278
1.69572, -1, -19.1909, 5.43167, 19.3647, -155.02, -94.5695, 87.1363
1.70371, -1, -19.3524, 5.38851, 19.3754, -155.07, -94.5514, 86.8449
1.71183, -1, -19.5138, 5.34534, 19.3859, -155.12, -94.5334, 86.5534
1.71971, -1, -19.6747, 5.3021, 19.3966, -155.17, -94.5156, 86.2616
1.72779, -1, -19.8354, 5.25893, 19.4072, -155.22, -94.4981, 85.9698
1.73571, -1, -19.9958, 5.21575, 19.418, -155.27, -94.4806, 85.6783
1.74374, -1, -20.1559, 5.17259, 19.4288, -155.32, -94.4632, 85.3869
1.75206, -1, -20.3156, 5.12963, 19.4397, -155.37, -94.4457, 85.0951
1.7598, -1, -20.4756, 5.0866, 19.4505, -155.42, -94.4279, 84.8031
1.76782, -1, -20.6357, 5.0435, 19.4612, -155.47, -94.4097, 84.5114
1.77625, -1, -20.7959, 5.00058, 19.472, -155.521, -94.3917, 84.2197
1.78329, -1, -20.8762, 4.95756, 19.4827, -155.571, -94.3739, 83.9273
1.79183, -1, -21.1176, 4.91446, 19.4934, -155.621, -94.3565, 83.6352
1.80047, -1, -21.2791, 4.87141, 19.504, -155.671, -94.3392, 83.3432
1.80773, -1, -21.4411, 4.82819, 19.5147, -155.721, -94.322, 83.051
1.81576, -1, -21.6032, 4.7849, 19.5254, -155.772, -94.3046, 82.7584
1.82461, -1, -21.7654, 4.74169, 19.5362, -155.822, -94.2869, 82.4658
1.83183, -1, -21.9279, 4.6983, 19.5469, -155.872, -94.2689, 82.1732
1.83987, -1, -22.0904, 4.65491, 19.5578, -155.922, -94.2509, 81.8804
1.84881, -1, -22.2529, 4.61157, 19.5685, -155.973, -94.2331, 81.5876
1.85605, -1, -22.4153, 4.56813, 19.5791, -156.023, -94.2156, 81.2949
1.8627, -1, -22.4964, 4.54644, 19.5846, -156.048, -94.2068, 81.1487
1.87303, -1, -22.7391, 4.48126, 19.6006, -156.123, -94.1806, 80.7095
1.88024, -1, -22.9004, 4.43783, 19.6113, -156.173, -94.1631, 80.4165
1.8883, -1, -23.0616, 4.3945, 19.622, -156.224, -94.1452, 80.1234
1.89714, -1, -23.2227, 4.35121, 19.6326, -156.274, -94.127, 79.8304
1.90278, -1, -23.3031, 4.32955, 19.6381, -156.299, -94.1178, 79.6837
1.91233, -1, -23.5444, 4.26464, 19.6544, -156.375, -94.0906, 79.2433
1.92118, -1, -23.6249, 4.24301, 19.6598, -156.4, -94.0817, 78.9502
1.92679, -1, -23.786, 4.19973, 19.6706, -156.45, -94.0641, 78.8035
1.93673, -1, -24.0281, 4.13478, 19.6866, -156.526, -94.0379, 78.3628
1.94371, -1, -24.109, 4.11308, 19.692, -156.551, -94.0292, 78.2159
1.95077, -1, -24.2712, 4.0697, 19.7028, -156.601, -94.0116, 77.922
1.95975, -1, -24.4338, 4.02629, 19.7134, -156.652, -93.9937, 77.6279
1.96771, -1, -24.5968, 3.98277, 19.7241, -156.702, -93.9756, 77.3337
1.97469, -1, -24.76, 3.9392, 19.7348, -156.752, -93.9575, 77.0394
1.98372, -1, -24.9233, 3.89566, 19.7456, -156.803, -93.9396, 76.7456
1.9917, -1, -25.0868, 3.85209, 19.7565, -156.853, -93.922, 76.4513
1.99873, -1, -25.2501, 3.8085, 19.7674, -156.904, -93.9045, 76.157
2.0077, -1, -25.4132, 3.76489, 19.7783, -156.955, -93.8871, 75.8625
2.01571, -1, -25.576, 3.72123, 19.789, -157.005, -93.8694, 75.5684
2.02378, -1, -25.7387, 3.67762, 19.7997, -157.055, -93.8514, 75.2738
2.0317, -1, -25.9012, 3.63415, 19.8106, -157.106, -93.8331, 74.979
2.03971, -1, -26.0634, 3.59058, 19.8213, -157.156, -93.8147, 74.6843
2.04782, -1, -26.2252, 3.5471, 19.8321, -157.207, -93.7966, 74.3897
2.05573, -1, -26.3868, 3.5037, 19.8429, -157.258, -93.7787, 74.095
2.0647, -1, -26.5485, 3.46021, 19.8536, -157.308, -93.761, 73.7998
2.07068, -1, -26.7104, 3.4167, 19.8645, -157.359, -93.7435, 73.5045
2.0797, -1, -26.8727, 3.3732, 19.8753, -157.409, -93.7258, 73.2094
2.09045, -1, -27.0352, 3.3296, 19.8862, -157.46, -93.7079, 72.9139
2.09571, -1, -27.198, 3.28596, 19.897, -157.511, -93.6896, 72.6184
2.1038, -1, -27.3612, 3.24234, 19.9077, -157.561, -93.6713, 72.323
2.11172, -1, -27.5248, 3.19854, 19.9186, -157.611, -93.6532, 72.0277
2.11971, -1, -27.6888, 3.15482, 19.9294, -157.662, -93.6354, 71.7321
2.12777, -1, -27.8529, 3.1112, 19.9401, -157.713, -93.6175, 71.4363
2.13569, -1, -28.0171, 3.06748, 19.951, -157.764, -93.5999, 71.1408
2.1437, -1, -28.1814, 3.02373, 19.9618, -157.815, -93.5821, 70.8449
2.15179, -1, -28.3456, 2.98002, 19.9726, -157.865, -93.5641, 70.5488
2.15971, -1, -28.5097, 2.93627, 19.9835, -157.916, -93.5457, 70.2528
2.16769, -1, -28.6735, 2.89258, 19.9944, -157.967, -93.5272, 69.957
2.17576, -1, -28.837, 2.84887, 20.0052, -158.017, -93.509, 69.6607
2.18369, -1, -29.0001, 2.80511, 20.0159, -158.068, -93.4911, 69.3641
2.1917, -1, -29.1628, 2.76146, 20.0267, -158.119, -93.4734, 69.0677
2.19977, -1, -29.3254, 2.71775, 20.0376, -158.17, -93.4558, 68.7711
2.20769, -1, -29.4881, 2.67401, 20.0484, -158.221, -93.438, 68.4742
2.21571, -1, -29.6509, 2.63026, 20.0592, -158.272, -93.42, 68.1773
2.22376, -1, -29.8139, 2.58643, 20.0701, -158.323, -93.4017, 67.8807
2.23169, -1, -29.977, 2.54266, 20.081, -158.374, -93.3833, 67.5841
2.2397, -1, -30.1403, 2.49876, 20.092, -158.425, -93.365, 67.287
2.24787, -1, -30.3042, 2.45476, 20.103, -158.476, -93.3471, 66.9899
2.25578, -1, -30.4684, 2.41084, 20.114, -158.527, -93.3292, 66.693
2.26386, -1, -30.6332, 2.3668, 20.1247, -158.577, -93.3116, 66.3959
2.27187, -1, -30.7982, 2.32281, 20.1356, -158.628, -93.2937, 66.0984
2.27988, -1, -30.9633, 2.27887, 20.1465, -158.68, -93.2757, 65.8011
2.2878, -1, -31.1284, 2.2348, 20.1574, -158.731, -93.2572, 65.504
2.29588, -1, -31.2936, 2.19084, 20.1683, -158.782, -93.2387, 65.2066
2.3037, -1, -31.4584, 2.14696, 20.1791, -158.833, -93.2204, 64.9088
2.31186, -1, -31.6231, 2.1029, 20.1899, -158.884, -93.2024, 64.611
2.31986, -1, -31.7876, 2.05889, 20.2009, -158.935, -93.1846, 64.3132
2.32774, -1, -31.9519, 2.01496, 20.2119, -158.987, -93.167, 64.015
2.33586, -1, -32.1159, 1.97093, 20.2229, -159.037, -93.1494, 63.7168
2.34394, -1, -32.2795, 1.9269, 20.2338, -159.089, -93.1314, 63.419
2.35193, -1, -32.443, 1.88287, 20.2446, -159.14, -93.1132, 63.121
2.36053, -1, -32.6066, 1.83873, 20.2556, -159.191, -93.0948, 62.8228
2.36892, -1, -32.7705, 1.79464, 20.2665, -159.243, -93.0766, 62.5244
2.37612, -1, -32.9345, 1.7505, 20.2774, -159.294, -93.0586, 62.2261
2.38271, -1, -33.0165, 1.72837, 20.2829, -159.319, -93.0496, 62.0769
2.39304, -1, -33.2634, 1.66204, 20.2992, -159.396, -93.0229, 61.6286
2.40028, -1, -33.4284, 1.61784, 20.3102, -159.447, -93.0051, 61.3301
2.40845, -1, -33.5939, 1.57355, 20.3212, -159.499, -92.9869, 61.0314
2.41718, -1, -33.6768, 1.55141, 20.3267, -159.55, -92.9685, 60.7325
2.42285, -1, -33.8426, 1.5072, 20.3376, -159.575, -92.9591, 60.5829
2.43232, -1, -34.0085, 1.46294, 20.3485, -159.626, -92.9405, 60.1342
2.43974, -1, -34.1745, 1.41875, 20.3594, -159.678, -92.9221, 59.9846
2.44772, -1, -34.3406, 1.37455, 20.3704, -159.729, -92.9041, 59.6851
2.45573, -1, -34.5066, 1.3303, 20.3813, -159.781, -92.8863, 59.3854
2.46368, -1, -34.6724, 1.28611, 20.3922, -159.832, -92.8685, 59.086
2.4717, -1, -34.8376, 1.24186, 20.4032, -159.883, -92.8505, 58.7868
2.47982, -1, -35.0026, 1.19763, 20.4142, -159.935, -92.8323, 58.4871
2.48771, -1, -35.1674, 1.15331, 20.4253, -159.987, -92.8138, 58.1873
2.49568, -1, -35.3319, 1.10899, 20.4364, -160.038, -92.7953, 57.8876
2.50376, -1, -35.4959, 1.06485, 20.4475, -160.089, -92.7769, 57.5878
2.51172, -1, -35.6582, 1.02102, 20.4587, -160.141, -92.7588, 57.2879
2.51974, -1, -35.8176, 0.977796, 20.4703, -160.191, -92.7409, 56.9894
2.52775, -1, -35.9731, 0.935693, 20.4821, -160.242, -92.7232, 56.6943
2.53568, -1, -36.1235, 0.895248, 20.494, -160.292, -92.7057, 56.4051
2.54368, -1, -36.2661, 0.857015, 20.506, -160.339, -92.6886, 56.1262
2.55347, -1, -36.3991, 0.821725, 20.5176, -160.384, -92.6721, 55.7408
2.55975, -1, -36.521, 0.78947, 20.5282, -160.425, -92.6569, 55.6243
2.56768, -1, -36.63, 0.76063, 20.5375, -160.46, -92.6437, 55.4129
2.57575, -1, -36.7247, 0.735576, 20.5448, -160.49, -92.6326, 55.2348
2.58368, -1, -36.8046, 0.714374, 20.5499, -160.515, -92.6239, 55.0919
2.59169, -1, -36.8708, 0.696929, 20.5528, -160.533, -92.6175, 54.9836
2.59982, -1, -36.9239, 0.682919, 20.5541, -160.547, -92.6131, 54.9072
2.60768, -1, -36.9642, 0.67207, 20.5544, -160.556, -92.6102, 54.8556
2.61566, -1, -36.9936, 0.664374, 20.5542, -160.561, -92.6086, 54.8242
2.62374, -1, -37.0139, 0.65932, 20.5538, -160.564, -92.6076, 54.8064
2.63169, -1, -37.0263, 0.656324, 20.5534, -160.566, -92.6072, 54.7974
2.63971, 2, -37.0329, 0.654734, 20.5533, -160.567, -92.607, 54.7931
2.64774, 2, -37.035, 0.653995, 20.5532, -160.567, -92.6069, 54.7911
2.6557, 2, -37.0348, 0.6537, 20.5531, -160.568, -92.6068, 54.7903
2.66368, 2, -37.0342, 0.653558, 20.5531, -160.568, -92.6068, 54.7898
2.67178, 2, -37.0339, 0.653518, 20.5531, -160.568, -92.6067, 54.7897
2.67977, 2, -37.0343, 0.653459, 20.5531, -160.568, -92.6067, 54.7897
2.68764, 2, -37.0354, 0.653399, 20.553, -160.568, -92.6068, 54.7897
2.69574, 2, -37.0365, 0.653274, 20.5529, -160.568, -92.6068, 54.7897
2.70368, 2, -37.038, 0.653063, 20.5527, -160.568, -92.6069, 54.7897
2.71169, 2, -37.0393, 0.652844, 20.5525, -160.568, -92.607, 54.7898
2.71982, 2, -37.0405, 0.652592, 20.5524, -160.568, -92.607, 54.7899
2.72768, 2, -37.0415, 0.652365, 20.5522, -160.568, -92.607, 54.79
2.73568, 2, -37.0419, 0.652248, 20.552, -160.568, -92.607, 54.7901
2.74377, 2, -37.042, 0.652194, 20.5518, -160.568, -92.6071, 54.7902
2.75174, 2, -37.0415, 0.652206, 20.5517, -160.568, -92.6071, 54.7903
2.75982, 2, -37.0407, 0.652237, 20.5516, -160.568, -92.6071, 54.7905
2.76785, 2, -37.0396, 0.652299, 20.5516, -160.568, -92.6072, 54.7906
2.77577, 2, -37.038, 0.65237, 20.5515, -160.568, -92.6073, 54.7908
2.78378, 2, -37.0366, 0.652447, 20.5514, -160.568, -92.6073, 54.791
2.79186, 2, -37.0356, 0.65247, 20.5514, -160.568, -92.6073, 54.7912
2.79984, 2, -37.035, 0.65246, 20.5514, -160.568, -92.6073, 54.7913
2.80769, 2, -37.0347, 0.652451, 20.5513, -160.568, -92.6074, 54.7913
2.81577, 2, -37.0348, 0.652405, 20.5513, -160.568, -92.6074, 54.7913
2.82373, 2, -37.035, 0.652333, 20.5513, -160.568, -92.6074, 54.7913
2.83176, 2, -37.0353, 0.652277, 20.5513, -160.568, -92.6073, 54.7914
2.83997, 2, -37.0359, 0.65225, 20.5512, -160.568, -92.6074, 54.7914
2.84823, 2, -37.0366, 0.652232, 20.5512, -160.568, -92.6074, 54.7914
2.85594, 2, -37.0373, 0.652231, 20.5512, -160.568, -92.6074, 54.7914
2.86411, 2, -37.0379, 0.652236, 20.5512, -160.568, -92.6074, 54.7916
2.87251, 2, -37.0383, 0.65225, 20.5512, -160.568, -92.6073, 54.7916
2.88017, 2, -37.0385, 0.652268, 20.5512, -160.568, -92.6074, 54.7917
2.88671, 2, -37.0385, 0.652277, 20.5512, -160.568, -92.6074, 54.7917
2.89662, 2, -37.0384, 0.652308, 20.5512, -160.568, -92.6074, 54.7918
2.90424, 2, -37.038, 0.65232, 20.5512, -160.568, -92.6075, 54.7918
2.91233, 2, -37.0376, 0.652314, 20.5512, -160.568, -92.6075, 54.7919
2.92057, 2, -37.0374, 0.652286, 20.5512, -160.568, -92.6075, 54.7919
2.92823, 2, -37.0373, 0.652278, 20.5512, -160.568, -92.6075, 54.7919
2.93628, 2, -37.0372, 0.65227, 20.5512, -160.568, -92.6075, 54.792
2.94461, 2, -37.0371, 0.652266, 20.5511, -160.568, -92.6075, 54.792
2.95168, 2, -37.0371, 0.652251, 20.5511, -160.568, -92.6075, 54.792
2.95978, 2, -37.0372, 0.65225, 20.5511, -160.568, -92.6075, 54.7921
2.96767, 2, -37.0372, 0.652252, 20.5511, -160.568, -92.6075, 54.7922
2.97567, 2, -37.0373, 0.652257, 20.5511, -160.568, -92.6075, 54.7922
2.98372, 2, -37.0374, 0.65226, 20.5511, -160.567, -92.6075, 54.7922
2.99174, 2, -37.0376, 0.652272, 20.5511, -160.567, -92.6075, 54.7923
2.99973, 2, -37.0377, 0.652285, 20.5511, -160.567, -92.6075, 54.7923
3.00774, 2, -37.0378, 0.652309, 20.5511, -160.567, -92.6075, 54.7924
3.01569, 2, -37.0379, 0.652302, 20.551, -160.567, -92.6076, 54.7925
3.02366, 2, -37.0379, 0.652288, 20.551, -160.567, -92.6076, 54.7924
3.03175, 2, -37.0378, 0.652274, 20.551, -160.567, -92.6076, 54.7925
3.03972, 2, -37.0378, 0.652268, 20.551, -160.567, -92.6076, 54.7926
3.04767, 2, -37.0378, 0.652265, 20.551, -160.567, -92.6076, 54.7927
3.0558, 2, -37.0378, 0.652263, 20.551, -160.567, -92.6076, 54.7928
3.06367, 2, -37.0377, 0.652255, 20.551, -160.567, -92.6076, 54.7928
3.07173, 2, -37.0377, 0.652254, 20.551, -160.567, -92.6076, 54.7929
3.07979, 2, -37.0377, 0.652258, 20.5509, -160.567, -92.6076, 54.7929
3.08767, 2, -37.0377, 0.652279, 20.5509, -160.567, -92.6076, 54.7929
3.0967, 2, -37.0377, 0.652299, 20.5509, -160.567, -92.6076, 54.7929
3.10375, 2, -37.0377, 0.652287, 20.5509, -160.567, -92.6076, 54.793
3.11168, 2, -37.0377, 0.652284, 20.5509, -160.567, -92.6076, 54.7931
3.11974, 2, -37.0377, 0.652291, 20.5509, -160.567, -92.6076, 54.7931
3.12773, 2, -37.0377, 0.652283, 20.5509, -160.567, -92.6076, 54.7931
3.13566, 2, -37.0377, 0.65229, 20.5509, -160.567, -92.6076, 54.7932
3.14367, 2, -37.0376, 0.652275, 20.5509, -160.567, -92.6076, 54.7932
3.15174, 2, -37.0376, 0.652268, 20.5509, -160.567, -92.6076, 54.7933
3.15975, 2, -37.0376, 0.652265, 20.5508, -160.567, -92.6076, 54.7933
3.16766, 2, -37.0376, 0.652263, 20.5508, -160.567, -92.6076, 54.7933
3.17575, 2, -37.0376, 0.652274, 20.5508, -160.567, -92.6076, 54.7933
3.18371, 2, -37.0376, 0.652304, 20.5508, -160.567, -92.6076, 54.7933
3.19167, 2, -37.0375, 0.652318, 20.5508, -160.567, -92.6076, 54.7934
3.19979, 2, -37.0376, 0.652325, 20.5508, -160.567, -92.6076, 54.7934
3.20766, 2, -37.0376, 0.652328, 20.5508, -160.567, -92.6077, 54.7935
3.21566, 2, -37.0376, 0.652329, 20.5508, -160.567, -92.6077, 54.7935
3.22374, 2, -37.0375, 0.652311, 20.5508, -160.567, -92.6077, 54.7936
3.23168, 2, -37.0375, 0.65231, 20.5508, -160.567, -92.6077, 54.7936
3.23972, 2, -37.0375, 0.652314, 20.5508, -160.567, -92.6077, 54.7937
3.24776, 2, -37.0374, 0.652293, 20.5508, -160.567, -92.6077, 54.7937
3.25571, 2, -37.0374, 0.652306, 20.5508, -160.567, -92.6077, 54.7937
3.26375, 2, -37.0374, 0.65229, 20.5507, -160.567, -92.6077, 54.7938
3.27185, 2, -37.0374, 0.652275, 20.5507, -160.567, -92.6077, 54.7938
3.27981, 2, -37.0374, 0.652268, 20.5507, -160.567, -92.6077, 54.7938
3.28777, 2, -37.0374, 0.652265, 20.5507, -160.567, -92.6077, 54.7938
3.29584, 2, -37.0374, 0.652263, 20.5507, -160.567, -92.6077, 54.7939
3.30366, 2, -37.0374, 0.652274, 20.5507, -160.567, -92.6077, 54.7939
3.31168, 2, -37.0374, 0.652293, 20.5507, -160.567, -92.6077, 54.7939
3.31987, 2, -37.0373, 0.652306, 20.5506, -160.567, -92.6077, 54.7939
3.32785, 2, -37.0373, 0.652308, 20.5506, -160.567, -92.6077, 54.7939
3.33579, 2, -37.0374, 0.652283, 20.5506, -160.567, -92.6077, 54.794
3.34388, 2, -37.0373, 0.652272, 20.5506, -160.567, -92.6077, 54.794
3.35189, 2, -37.0373, 0.652267, 20.5506, -160.567, -92.6077, 54.794
3.36005, 2, -37.0373, 0.652264, 20.5506, -160.567, -92.6077, 54.794
3.36667, 2, -37.0372, 0.652264, 20.5506, -160.567, -92.6077, 54.7941
3.37619, 2, -37.0373, 0.652263, 20.5506, -160.567, -92.6077, 54.7941
3.38418, 2, -37.0372, 0.652262, 20.5506, -160.567, -92.6077, 54.7941
3.39224, 2, -37.0372, 0.652262, 20.5506, -160.567, -92.6078, 54.7942
3.40022, 2, -37.0372, 0.652281, 20.5505, -160.567, -92.6078, 54.7941
3.40828, 2, -37.0372, 0.6523, 20.5505, -160.567, -92.6078, 54.7941
3.41625, 2, -37.0372, 0.652316, 20.5505, -160.567, -92.6078, 54.7942
3.42444, 2, -37.0372, 0.652321, 20.5505, -160.567, -92.6078, 54.7942
3.43223, 2, -37.0372, 0.652326, 20.5505, -160.567, -92.6078, 54.7942
3.44038, 2, -37.0371, 0.652328, 20.5505, -160.567, -92.6078, 54.7943
3.44765, 2, -37.0371, 0.652311, 20.5505, -160.567, -92.6078, 54.7943
3.45565, 2, -37.0371, 0.652321, 20.5505, -160.567, -92.6078, 54.7943
3.4637, 2, -37.0371, 0.652326, 20.5505, -160.567, -92.6079, 54.7942
3.47166, 2, -37.0371, 0.652328, 20.5505, -160.567, -92.6078, 54.7942
3.47974, 2, -37.0371, 0.652311, 20.5505, -160.567, -92.6078, 54.7942
3.4877, 2, -37.0371, 0.652292, 20.5505, -160.567, -92.6078, 54.7942
3.49567, 2, -37.0371, 0.652287, 20.5505, -160.567, -92.6079, 54.7943
3.50366, 2, -37.037, 0.65231, 20.5505, -160.567, -92.6078, 54.7943
3.51173, 2, -37.037, 0.65231, 20.5504, -160.567, -92.6079, 54.7943
3.51973, 2, -37.037, 0.652313, 20.5504, -160.567, -92.6079, 54.7943
3.52765, 2, -37.037, 0.652322, 20.5504, -160.567, -92.6079, 54.7944
3.53572, 2, -37.037, 0.652327, 20.5504, -160.567, -92.6079, 54.7944
3.54365, 2, -37.037, 0.652328, 20.5504, -160.567, -92.6079, 54.7944
3.55167, 2, -37.037, 0.652329, 20.5504, -160.567, -92.6079, 54.7944
3.56121, 2, -37.037, 0.65233, 20.5504, -160.567, -92.6079, 54.7944
3.56766, 2, -37.037, 0.65233, 20.5504, -160.567, -92.6079, 54.7944
3.57673, 2, -37.037, 0.65233, 20.5504, -160.567, -92.6079, 54.7944
3.58372, 2, -37.0369, 0.652331, 20.5504, -160.566, -92.6079, 54.7944
3.59166, 2, -37.037, 0.65233, 20.5504, -160.566, -92.6079, 54.7944
3.59972, 2, -37.037, 0.652335, 20.5504, -160.567, -92.6079, 54.7944
3.60773, 2, -37.037, 0.652314, 20.5503, -160.566, -92.6079, 54.7945
3.61565, 2, -37.037, 0.652335, 20.5503, -160.566, -92.6079, 54.7945
3.62367, 2, -37.037, 0.652332, 20.5503, -160.566, -92.6079, 54.7945
3.63173, 2, -37.037, 0.652338, 20.5503, -160.566, -92.6079, 54.7945
3.63985, 2, -37.037, 0.652339, 20.5503, -160.566, -92.6079, 54.7945
3.64764, 2, -37.0369, 0.652334, 20.5503, -160.566, -92.6079, 54.7945
3.65572, 2, -37.0368, 0.652344, 20.5503, -160.566, -92.6079, 54.7945
3.66367, 2, -37.0369, 0.652337, 20.5503, -160.566, -92.6079, 54.7945
3.67166, 2, -37.0369, 0.652345, 20.5503, -160.566, -92.608, 54.7945
3.67983, 2, -37.0369, 0.652337, 20.5503, -160.566, -92.6079, 54.7944
3.68767, 2, -37.0369, 0.652333, 20.5503, -160.566, -92.608, 54.7944
3.69565, 2, -37.0368, 0.652339, 20.5503, -160.566, -92.6079, 54.7944
3.70368, 4, -37.0368, 0.652339, 20.5502, -160.566, -92.6079, 54.7945
3.71166, 4, -37.0369, 0.652334, 20.5502, -160.566, -92.6079, 54.7945
3.71971, 4, -37.0369, 0.652321, 20.5502, -160.566, -92.6079, 54.7945
3.72773, 4, -37.0369, 0.652338, 20.5502, -160.566, -92.6079, 54.7945
3.73565, 4, -37.0368, 0.652339, 20.5502, -160.566, -92.6079, 54.7945
3.74365, 4, -37.0368, 0.652334, 20.5502, -160.566, -92.6079, 54.7945
3.75182, 4, -37.0368, 0.65237, 20.5502, -160.566, -92.6079, 54.7945
3.75977, 4, -37.0368, 0.652353, 20.5502, -160.566, -92.6079, 54.7945
3.76774, 4, -37.0368, 0.65236, 20.5502, -160.566, -92.6079, 54.7945
3.77582, 4, -37.0367, 0.652356, 20.5502, -160.566, -92.6079, 54.7945
3.78375, 4, -37.0367, 0.652347, 20.5502, -160.566, -92.6079, 54.7945
3.79176, 4, -37.0368, 0.652338, 20.5502, -160.566, -92.6079, 54.7946
3.79987, 4, -37.0368, 0.652341, 20.5501, -160.566, -92.608, 54.7946
3.8079, 4, -37.0367, 0.652329, 20.5501, -160.566, -92.608, 54.7947
3.83008, 4, -37.0367, 0.65234, 20.5501, -160.566, -92.608, 54.7945
3.83285, 4, -37.0366, 0.652344, 20.5501, -160.566, -92.608, 54.7945
3.83461, 4, -37.0366, 0.652344, 20.5501, -160.566, -92.608, 54.7945
3.84186, 4, -37.0366, 0.652361, 20.5501, -160.566, -92.608, 54.7946
3.84949, 4, -37.0366, 0.652361, 20.5501, -160.566, -92.6079, 54.7946
3.85589, 4, -37.0358, 0.652201, 20.5501, -160.566, -92.608, 54.7946
3.86398, 4, -37.0332, 0.65128, 20.5503, -160.566, -92.608, 54.7946
3.87207, 4, -37.0275, 0.648444, 20.5511, -160.566, -92.608, 54.7946
3.88242, 4, -37.018, 0.642489, 20.5537, -160.566, -92.6081, 54.7946
3.88812, 4, -37.0045, 0.632908, 20.5591, -160.565, -92.6081, 54.7946
3.89631, 4, -36.9863, 0.619189, 20.5689, -160.563, -92.608, 54.7945
3.90459, 5, -36.9625, 0.600901, 20.5844, -160.561, -92.608, 54.7945
3.91224, 5, -36.9334, 0.57822, 20.6064, -160.556, -92.6077, 54.7945
3.92039, 5, -36.8994, 0.55089, 20.6353, -160.55, -92.6072, 54.7944
3.92825, 5, -36.8806, 0.535632, 20.6523, -160.546, -92.6065, 54.7944
3.93564, 5, -36.8395, 0.501597, 20.6909, -160.538, -92.6059, 54.7944
3.94371, 5, -36.7931, 0.462726, 20.735, -160.528, -92.6045, 54.7944
3.95254, 5, -36.7415, 0.419608, 20.7837, -160.517, -92.6029, 54.7943
3.95969, 5, -36.6852, 0.372808, 20.8353, -160.505, -92.601, 54.7943
3.96765, 5, -36.625, 0.323196, 20.8891, -160.493, -92.5992, 54.7944
3.97578, 5, -36.5608, 0.271505, 20.9441, -160.481, -92.5972, 54.7943
3.98388, 5, -36.4942, 0.21841, 20.9997, -160.469, -92.5953, 54.7944
3.99164, 5, -36.4264, 0.164721, 21.0553, -160.457, -92.5933, 54.7944
3.9999, 5, -36.3579, 0.110813, 21.111, -160.445, -92.5913, 54.7944
4.00902, 5, -36.2892, 0.0567937, 21.1944, -160.427, -92.5883, 54.7945
4.01465, 5, -36.2203, 0.00287518, 21.2222, -160.421, -92.5872, 54.7945
4.02671, 5, -36.1172, -0.0776295, 21.3056, -160.402, -92.5841, 54.7946
4.03184, 5, -36.083, -0.104343, 21.3334, -160.396, -92.5831, 54.7947
4.04176, 5, -35.9801, -0.184117, 21.4164, -160.377, -92.5799, 54.7951
4.04763, 5, -35.9458, -0.210633, 21.4441, -160.371, -92.5788, 54.7952
4.05574, 5, -35.8773, -0.263529, 21.4994, -160.358, -92.5767, 54.7958
4.06366, 5, -35.8086, -0.316305, 21.5546, -160.345, -92.5745, 54.7964
4.07263, 5, -35.7397, -0.369079, 21.6098, -160.332, -92.5723, 54.7973
4.07988, 5, -35.6705, -0.421804, 21.6647, -160.32, -92.5702, 54.7983
4.08771, 5, -35.601, -0.47464, 21.7195, -160.307, -92.568, 54.7996
4.09565, 5, -35.5312, -0.527522, 21.774, -160.295, -92.5659, 54.8009
4.10386, 5, -35.4612, -0.580371, 21.8284, -160.282, -92.5637, 54.8024
4.11164, 5, -35.391, -0.633236, 21.8827, -160.269, -92.5615, 54.804
4.11975, 5, -35.3205, -0.686085, 21.9369, -160.256, -92.5591, 54.8058
4.12778, 5, -35.25, -0.738871, 21.991, -160.243, -92.5569, 54.8077
4.13575, 5, -35.1796, -0.791339, 22.0449, -160.23, -92.5547, 54.8097
4.1437, 5, -35.1089, -0.843691, 22.0988, -160.216, -92.5525, 54.8119
4.15177, 5, -35.0384, -0.895908, 22.1525, -160.203, -92.5502, 54.8142
4.16059, 5, -34.9679, -0.947774, 22.2061, -160.19, -92.5479, 54.8166
4.16674, 5, -34.8975, -0.999467, 22.2596, -160.177, -92.5456, 54.8192
4.17828, 5, -34.8271, -1.05098, 22.3131, -160.158, -92.5421, 54.8232
4.18382, 5, -34.7566, -1.10248, 22.3662, -160.151, -92.5409, 54.8246
4.19097, 5, -34.686, -1.15394, 22.4193, -160.139, -92.5385, 54.8274
4.1997, 5, -34.6151, -1.20529, 22.4721, -160.126, -92.5361, 54.8303
4.20762, 5, -34.5441, -1.25673, 22.5247, -160.112, -92.5338, 54.8334
4.2157, 5, -34.4729, -1.30812, 22.5772, -160.099, -92.5313, 54.8365
4.22363, 5, -34.4016, -1.35954, 22.6296, -160.085, -92.5289, 54.8398
4.2318, 5, -34.33, -1.41096, 22.6819, -160.071, -92.5265, 54.8431
4.23969, 5, -34.2584, -1.46228, 22.7339, -160.058, -92.524, 54.8467
4.2477, 5, -34.1865, -1.51342, 22.7859, -160.044, -92.5215, 54.8504
4.25617, 5, -34.1146, -1.56429, 22.8377, -160.03, -92.5191, 54.8541
4.26371, 5, -34.0426, -1.61503, 22.8895, -160.017, -92.5167, 54.858
4.27173, 5, -33.9704, -1.66548, 22.9411, -160.004, -92.5143, 54.862
4.28009, 5, -33.8983, -1.71573, 22.9926, -159.99, -92.5119, 54.866
4.28795, 5, -33.8262, -1.76583, 23.0439, -159.976, -92.5095, 54.87
4.29575, 5, -33.7541, -1.81588, 23.0951, -159.962, -92.5071, 54.8742
4.30411, 5, -33.6819, -1.86579, 23.1461, -159.948, -92.5047, 54.8785
4.31313, 5, -33.6095, -1.9156, 23.1969, -159.934, -92.5024, 54.8828
4.31869, 5, -33.5732, -1.9406, 23.2223, -159.927, -92.5013, 54.8849
4.32852, 5, -33.464, -2.01593, 23.2982, -159.905, -92.4978, 54.8911
4.33664, 5, -33.391, -2.06648, 23.3486, -159.891, -92.4956, 54.8943
4.34388, 5, -33.3182, -2.11733, 23.3988, -159.877, -92.4933, 54.8961
4.35404, 6, -33.2456, -2.16865, 23.449, -159.863, -92.491, 54.8963
4.36095, 6, -33.1733, -2.22081, 23.4992, -159.848, -92.4886, 54.8946
4.36795, 6, -33.1014, -2.27379, 23.5498, -159.833, -92.4857, 54.8896
4.37608, 6, -33.03, -2.32771, 23.601, -159.816, -92.4819, 54.8787
4.38501, 7, -32.9591, -2.38273, 23.6533, -159.798, -92.4768, 54.8638
4.39227, 7, -32.8887, -2.43899, 23.7069, -159.779, -92.4699, 54.8463
4.40101, 7, -32.8188, -2.49682, 23.7621, -159.758, -92.461, 54.8278
4.4085, 7, -32.7495, -2.55619, 23.8189, -159.737, -92.4498, 54.8097
4.4162, 7, -32.681, -2.61726, 23.8773, -159.714, -92.4364, 54.7922
4.42502, 8, -32.6469, -2.6484, 23.9373, -159.689, -92.421, 54.7752
4.43088, 8, -32.5795, -2.71212, 23.9677, -159.677, -92.4125, 54.7667
4.44204, 8, -32.4796, -2.81104, 24.0608, -159.637, -92.3843, 54.7399
4.44768, 8, -32.4467, -2.8448, 24.0924, -159.623, -92.374, 54.7305
4.45564, 8, -32.3815, -2.91349, 24.1563, -159.595, -92.3526, 54.7102
4.46364, 9, -32.3169, -2.98356, 24.2212, -159.567, -92.3301, 54.6883
4.47166, 9, -32.2528, -3.05493, 24.2871, -159.537, -92.3064, 54.6645
4.4798, 9, -32.1893, -3.12766, 24.354, -159.505, -92.2815, 54.6391
4.48934, 9, -32.1265, -3.20159, 24.4562, -159.457, -92.2406, 54.5988
4.49564, 9, -32.0641, -3.27689, 24.4907, -159.441, -92.2262, 54.5847
4.50371, 10, -32.0023, -3.35345, 24.5605, -159.407, -92.1965, 54.5552
4.51162, 10, -31.9412, -3.43141, 24.6315, -159.372, -92.1658, 54.5239
4.51964, 10, -31.8806, -3.51083, 24.7034, -159.336, -92.1337, 54.4906
4.53022, 10, -31.7906, -3.63256, 24.8134, -159.281, -92.0819, 54.4376
4.53587, 10, -31.761, -3.67388, 24.8505, -159.262, -92.064, 54.4194
4.54362, 11, -31.7021, -3.75755, 24.9255, -159.223, -92.0277, 54.3821
4.55163, 11, -31.6437, -3.84275, 25.0014, -159.184, -91.9903, 54.343
4.56261, 11, -31.5571, -3.97325, 25.1171, -159.124, -91.9303, 54.2807
4.56763, 11, -31.5284, -4.0175, 25.1561, -159.103, -91.9098, 54.2592
4.5757, 11, -31.4716, -4.10706, 25.235, -159.06, -91.8681, 54.2157
4.58467, 12, -31.4153, -4.19813, 25.3149, -159.017, -91.8247, 54.1705
4.59163, 12, -31.3595, -4.2906, 25.396, -158.973, -91.7793, 54.1232
4.59969, 12, -31.3042, -4.38447, 25.4781, -158.927, -91.7333, 54.0743
4.60778, 12, -31.2494, -4.47963, 25.5612, -158.881, -91.6861, 54.0245
4.6166, 12, -31.1952, -4.57623, 25.6453, -158.835, -91.6367, 53.9731
4.62358, 13, -31.1414, -4.67428, 25.7304, -158.786, -91.5867, 53.9195
4.63162, 13, -31.0882, -4.77368, 25.8164, -158.737, -91.5351, 53.8648
4.63969, 13, -31.0354, -4.87451, 25.9033, -158.688, -91.4815, 53.809
4.64762, 13, -30.9832, -4.97691, 25.9915, -158.637, -91.4275, 53.751
4.65586, 13, -30.9315, -5.08077, 26.0807, -158.586, -91.3717, 53.6916
4.66386, 14, -30.8804, -5.18598, 26.171, -158.534, -91.3145, 53.6315
4.67166, 14, -30.8299, -5.29272, 26.2624, -158.479, -91.2566, 53.5692
4.68091, 14, -30.7799, -5.40093, 26.3546, -158.426, -91.1963, 53.5057
4.68786, 14, -30.7304, -5.51063, 26.4478, -158.371, -91.1359, 53.4415
4.69563, 14, -30.6814, -5.62192, 26.5419, -158.314, -91.0732, 53.3747
4.70462, 15, -30.6329, -5.73463, 26.6371, -158.258, -91.0094, 53.307
4.71164, 15, -30.5849, -5.84875, 26.7335, -158.199, -90.9444, 53.2383
4.71963, 15, -30.5375, -5.96409, 26.8311, -158.141, -90.8775, 53.1673
4.72979, 15, -30.4905, -6.08084, 26.9296, -158.081, -90.8102, 53.0956
4.73578, 15, -30.444, -6.19906, 27.0291, -158.02, -90.7406, 53.0219
4.74368, 15, -30.3981, -6.31863, 27.1295, -157.959, -90.6703, 52.9465
4.75164, 16, -30.3526, -6.43983, 27.2308, -157.896, -90.598, 52.8702
4.75965, 16, -30.3078, -6.56245, 27.3332, -157.833, -90.5253, 52.7915
4.76777, 16, -30.2633, -6.68646, 27.4369, -157.768, -90.4505, 52.7123
4.77574, 16, -30.2193, -6.812, 27.5417, -157.704, -90.375, 52.6312
4.7839, 16, -30.1759, -6.93906, 27.6475, -157.637, -90.2976, 52.5489
4.79195, 17, -30.1328, -7.06773, 27.7541, -157.571, -90.2193, 52.4654
4.79973, 17, -30.0903, -7.19799, 27.8615, -157.503, -90.1394, 52.3805
4.80791, 17, -30.0483, -7.32966, 27.9699, -157.434, -90.0581, 52.2947
4.81612, 17, -30.0069, -7.46252, 28.0795, -157.364, -89.9759, 52.2069
4.82265, 17, -29.9863, -7.5295, 28.1348, -157.329, -89.9342, 52.1629
4.8317, 18, -29.9254, -7.73266, 28.3024, -157.222, -89.807, 52.0281
4.83977, 18, -29.8854, -7.86984, 28.4152, -157.15, -89.7205, 51.9368
4.8478, 18, -29.8459, -8.00841, 28.5287, -157.076, -89.6333, 51.8436
4.85628, 18, -29.8069, -8.14814, 28.6433, -157.002, -89.5445, 51.7497
4.86647, 18, -29.7683, -8.28924, 28.7591, -156.927, -89.4542, 51.6538
4.87198, 19, -29.7303, -8.43173, 28.8762, -156.851, -89.3632, 51.5574
4.88155, 19, -29.6927, -8.57588, 28.9943, -156.774, -89.2707, 51.4593
4.89043, 19, -29.6554, -8.72153, 29.1132, -156.697, -89.1767, 51.3605
4.89625, 19, -29.6187, -8.86841, 29.2328, -156.618, -89.082, 51.2606
4.90416, 19, -29.5825, -9.01657, 29.3534, -156.539, -88.986, 51.1594
4.91065, 20, -29.5646, -9.09122, 29.4141, -156.498, -88.9375, 51.1082
4.92039, 20, -29.5114, -9.31739, 29.5981, -156.377, -88.7907, 50.9533
4.9282, 20, -29.4939, -9.39359, 29.7221, -156.295, -88.6915, 50.8487
4.93747, 20, -29.4422, -9.62378, 29.8468, -156.212, -88.5911, 50.7424
4.94358, 20, -29.4252, -9.70109, 29.9095, -156.17, -88.5406, 50.6891
4.95161, 21, -29.3916, -9.85666, 30.0357, -156.086, -88.4388, 50.5811
4.95963, 21, -29.3584, -10.0137, 30.1627, -156, -88.3354, 50.4723
4.96665, 21, -29.3255, -10.1724, 30.291, -155.914, -88.2314, 50.3624
4.97563, 21, -29.2931, -10.3322, 30.4202, -155.827, -88.1263, 50.2516
4.98499, 21, -29.2611, -10.5735, 30.6156, -155.696, -87.9664, 50.084
4.9919, 22, -29.2296, -10.6547, 30.6812, -155.651, -87.9128, 50.0276
4.99963, 22, -29.1985, -10.8181, 30.8131, -155.561, -87.8046, 49.9144
5.00672, 22, -29.1676, -10.9827, 30.9459, -155.471, -87.6953, 49.8001
5.01794, 22, -29.1223, -11.2314, 31.1468, -155.333, -87.5296, 49.6269
5.02368, 22, -29.1073, -11.3148, 31.2142, -155.287, -87.4738, 49.569
5.03161, 22, -29.0777, -11.4829, 31.3499, -155.194, -87.3617, 49.4518
5.0396, 23, -29.0484, -11.6526, 31.4862, -155.1, -87.2486, 49.3343
5.04661, 23, -29.0194, -11.8235, 31.6233, -155.005, -87.1345, 49.2158
5.05593, 23, -28.9909, -11.9949, 31.7613, -154.91, -87.0198, 49.0968
5.06741, 23, -28.9489, -12.2547, 31.9699, -154.765, -86.8458, 48.9173
5.07162, 23, -28.935, -12.3421, 32.0399, -154.716, -86.7873, 48.8571
5.07968, 24, -28.9077, -12.5175, 32.1805, -154.618, -86.6696, 48.7366
5.08866, 24, -28.8806, -12.6935, 32.3219, -154.519, -86.5511, 48.6155
5.0956, 24, -28.8538, -12.8701, 32.4638, -154.419, -86.4319, 48.4935
5.10594, 24, -28.8144, -13.1381, 32.6786, -154.268, -86.2511, 48.3095
5.11176, 24, -28.8014, -13.228, 32.7506, -154.217, -86.1907, 48.248
5.11968, 25, -28.7757, -13.4082, 32.8953, -154.114, -86.069, 48.1245
5.12761, 25, -28.7503, -13.5891, 33.0405, -154.011, -85.9466, 48.001
5.13559, 25, -28.725, -13.7712, 33.1863, -153.907, -85.8238, 47.8776
5.1436, 25, -28.6999, -13.9549, 33.3329, -153.803, -85.6997, 47.7537
5.15168, 25, -28.6752, -14.139, 33.4803, -153.697, -85.5755, 47.6298
5.15979, 26, -28.6507, -14.3236, 33.6286, -153.591, -85.4503, 47.5059
5.16762, 26, -28.6265, -14.5094, 33.7771, -153.484, -85.3247, 47.3815
5.17569, 26, -28.6027, -14.6967, 33.9264, -153.376, -85.1988, 47.2571
5.18361, 26, -28.579, -14.8845, 34.0767, -153.268, -85.0717, 47.1329
5.19169, 26, -28.5554, -15.0725, 34.2275, -153.158, -84.9446, 47.0087
5.1996, 27, -28.5321, -15.2612, 34.3787, -153.048, -84.8166, 46.8849
5.20777, 27, -28.5091, -15.451, 34.5303, -152.938, -84.6884, 46.7615
5.21566, 27, -28.4862, -15.6412, 34.6827, -152.826, -84.5594, 46.6381
5.2236, 27, -28.4635, -15.8317, 34.8359, -152.714, -84.4301, 46.515
5.23174, 27, -28.4411, -16.0233, 34.9894, -152.601, -84.3004, 46.3924
5.24058, 28, -28.4188, -16.2164, 35.1429, -152.488, -84.1703, 46.27
5.24775, 28, -28.3964, -16.41, 35.2972, -152.374, -84.0398, 46.1479
5.2564, 28, -28.3742, -16.604, 35.4522, -152.259, -83.9088, 46.0264
5.26543, 28, -28.3522, -16.799, 35.6076, -152.144, -83.7779, 45.9056
5.27169, 28, -28.3301, -16.9949, 35.7632, -152.027, -83.6463, 45.7856
5.28069, 29, -28.3081, -17.1907, 35.9191, -151.911, -83.5147, 45.6666
5.288, 29, -28.2862, -17.3865, 36.0756, -151.793, -83.3826, 45.5483
5.2957, 29, -28.2645, -17.5833, 36.2327, -151.675, -83.2503, 45.431
5.30751, 29, -28.2318, -17.8793, 36.4681, -151.497, -83.0512, 45.2568
5.3119, 29, -28.221, -17.978, 36.5466, -151.437, -82.9848, 45.1991
5.31988, 30, -28.1996, -18.1757, 36.7045, -151.318, -82.8516, 45.0848
5.32848, 30, -28.1782, -18.3744, 36.8631, -151.197, -82.7184, 44.9715
5.33975, 30, -28.1462, -18.673, 37.1008, -151.015, -82.5181, 44.8036
5.34467, 30, -28.1355, -18.7725, 37.18, -150.954, -82.4513, 44.7485
5.35174, 30, -28.1143, -18.9724, 37.3389, -150.831, -82.3176, 44.6389
5.36014, 30, -28.0929, -19.1734, 37.4984, -150.708, -82.1832, 44.5311
5.36661, 31, -28.0822, -19.2739, 37.5782, -150.646, -82.1162, 44.4776
5.37592, 31, -28.0502, -19.5755, 37.8173, -150.46, -81.9147, 44.3195
5.38262, 31, -28.0396, -19.6761, 37.8971, -150.398, -81.8476, 44.2677
5.39202, 31, -28.0075, -19.9784, 38.1375, -150.21, -81.6462, 44.1147
5.3986, 31, -27.9968, -20.079, 38.2177, -150.147, -81.5789, 44.0644
5.40937, 32, -27.9644, -20.3803, 38.4576, -149.957, -81.3774, 43.9169
5.41702, 32, -27.9424, -20.5819, 38.6173, -149.831, -81.2433, 43.8215
5.42422, 32, -27.9201, -20.7835, 38.7774, -149.704, -81.1094, 43.728
5.43302, 32, -27.8976, -20.9846, 38.9374, -149.576, -80.9754, 43.6375
5.44113, 32, -27.8863, -21.1854, 39.0966, -149.449, -80.8421, 43.5495
5.44819, 33, -27.8634, -21.286, 39.176, -149.385, -80.7755, 43.5067
5.45859, 33, -27.8284, -21.5869, 39.4144, -149.193, -80.5766, 43.3829
5.46378, 33, -27.8165, -21.6867, 39.4938, -149.13, -80.5104, 43.3431
5.47157, 33, -27.7924, -21.8858, 39.652, -149.002, -80.3785, 43.2663
5.47963, 33, -27.7677, -22.085, 39.8092, -148.874, -80.2471, 43.1922
5.48762, 34, -27.7427, -22.2835, 39.966, -148.747, -80.1159, 43.1217
5.49569, 34, -27.7171, -22.481, 40.1228, -148.619, -79.9852, 43.0548
5.50363, 34, -27.691, -22.678, 40.279, -148.492, -79.8544, 42.9903
5.51176, 34, -27.6646, -22.8749, 40.4345, -148.364, -79.7238, 42.9296
5.51957, 34, -27.6376, -23.0712, 40.5896, -148.236, -79.593, 42.8726
5.52656, 35, -27.6102, -23.2667, 40.7449, -148.108, -79.4625, 42.8179
5.53559, 35, -27.5826, -23.4623, 40.8999, -147.979, -79.3317, 42.7669
5.54359, 35, -27.5547, -23.6583, 41.0542, -147.851, -79.2013, 42.7198
5.55166, 35, -27.5265, -23.8535, 41.2082, -147.721, -79.0712, 42.6759
5.55974, 35, -27.4982, -24.0482, 41.3623, -147.592, -78.9409, 42.6349
5.56755, 36, -27.4694, -24.243, 41.5165, -147.461, -78.8111, 42.5976
5.57568, 36, -27.4402, -24.4376, 41.6701, -147.331, -78.6812, 42.5645
5.58545, 36, -27.4108, -24.6313, 41.823, -147.2, -78.4877, 42.5228
5.59817, 36, -27.3658, -24.9208, 42.1279, -146.938, -78.2948, 42.4906
5.59963, 36, -27.3505, -25.0174, 42.1279, -146.938, -78.2948, 42.4906
5.60858, 37, -27.3192, -25.21, 42.2791, -146.807, -78.1669, 42.4746
5.61559, 37, -27.2871, -25.4012, 42.4292, -146.677, -78.0393, 42.4632
5.6236, 37, -27.2542, -25.5914, 42.5785, -146.547, -77.9124, 42.4568
5.63499, 37, -27.2033, -25.8755, 42.8007, -146.353, -77.7226, 42.4535
5.63976, 37, -27.1858, -25.9695, 42.8742, -146.289, -77.6596, 42.4541
5.64861, 37, -27.1502, -26.156, 43.0202, -146.161, -77.5338, 42.4601
5.65565, 38, -27.1137, -26.3412, 43.1649, -146.033, -77.4088, 42.4725
5.66362, 38, -27.0764, -26.5257, 43.3088, -145.906, -77.2843, 42.49
5.67159, 38, -27.0383, -26.7089, 43.4518, -145.78, -77.1603, 42.5133
5.67969, 38, -26.9993, -26.8905, 43.5938, -145.653, -77.0368, 42.542
5.68814, 38, -26.9596, -27.0714, 43.7348, -145.527, -76.9137, 42.5765
5.69569, 39, -26.9193, -27.2521, 43.875, -145.401, -76.7911, 42.6173
5.70359, 39, -26.8782, -27.4319, 44.0144, -145.276, -76.6683, 42.6638
5.7118, 39, -26.8362, -27.6105, 44.1531, -145.15, -76.546, 42.7157
5.71964, 39, -26.7935, -27.7882, 44.2909, -145.024, -76.4237, 42.7736
5.72758, 39, -26.75, -27.966, 44.4278, -144.899, -76.3013, 42.8383
5.73565, 40, -26.7057, -28.1428, 44.5636, -144.773, -76.1791, 42.9083
5.74359, 40, -26.6604, -28.3181, 44.6986, -144.649, -76.0571, 42.9853
5.75167, 40, -26.6143, -28.492, 44.8323, -144.525, -75.9356, 43.0686
5.76003, 40, -26.5673, -28.6651, 44.9648, -144.401, -75.8141, 43.1579
5.76854, 40, -26.5191, -28.837, 45.0959, -144.279, -75.6935, 43.2547
5.77568, 41, -26.4698, -29.0069, 45.2257, -144.157, -75.5732, 43.3576
5.78568, 41, -26.4196, -29.1751, 45.3541, -144.036, -75.4531, 43.4675
5.79179, 41, -26.368, -29.3422, 45.4812, -143.916, -75.3338, 43.5842
5.80002, 41, -26.3151, -29.5079, 45.6068, -143.798, -75.2146, 43.708
5.80725, 41, -26.261, -29.6715, 45.7307, -143.68, -75.0964, 43.8389
5.81592, 42, -26.2054, -29.833, 45.8528, -143.564, -74.9783, 43.9774
5.82473, 42, -26.1482, -29.9927, 45.9729, -143.449, -74.8607, 44.1232
5.83165, 42, -26.0894, -30.1507, 46.0908, -143.336, -74.7441, 44.2759
5.84043, 42, -26.0288, -30.3063, 46.2065, -143.225, -74.6276, 44.4357
5.84777, 42, -25.9667, -30.4594, 46.3201, -143.116, -74.5118, 44.6026
5.85608, 43, -25.9027, -30.6101, 46.4314, -143.009, -74.3965, 44.7768
5.86274, 43, -25.8701, -30.6846, 46.4862, -142.956, -74.3389, 44.8668
5.87188, 43, -25.7697, -30.9051, 46.6475, -142.8, -74.1672, 45.1484
5.88075, 43, -25.7007, -31.0491, 46.7526, -142.698, -74.0529, 45.3458
5.88838, 43, -25.6303, -31.1908, 46.8559, -142.599, -73.9394, 45.5507
5.89721, 43, -25.5583, -31.3305, 46.9572, -142.501, -73.8265, 45.7635
5.90501, 44, -25.4846, -31.4681, 47.0563, -142.405, -73.7139, 45.9841
5.91251, 44, -25.409, -31.6037, 47.1529, -142.311, -73.6022, 46.2128
5.92505, 44, -25.2926, -31.8024, 47.2933, -142.175, -73.4355, 46.5712
5.92653, 44, -25.2926, -31.8024, 47.2933, -142.175, -73.4355, 46.5712
5.93622, 44, -25.2126, -31.9316, 47.384, -142.045, -73.2706, 46.948
5.94505, 45, -25.1308, -32.0581, 47.4722, -142.003, -73.2158, 47.2098
5.95157, 45, -25.0469, -32.1817, 47.558, -141.921, -73.1066, 47.3439
5.96275, 45, -24.9172, -32.3619, 47.6814, -141.803, -72.9439, 47.7583
5.96777, 45, -24.8729, -32.4204, 47.721, -141.766, -72.8897, 47.9006
5.97757, 45, -24.7363, -32.5911, 47.8354, -141.657, -72.7285, 48.3403
5.98358, 46, -24.6897, -32.6463, 47.872, -141.623, -72.675, 48.4913
5.99173, 46, -24.5946, -32.7541, 47.9431, -141.556, -72.5683, 48.7994
5.99959, 46, -24.4969, -32.8586, 48.0113, -141.493, -72.4626, 49.1159
6.00757, 46, -24.397, -32.9594, 48.0763, -141.434, -72.3576, 49.4412
6.0156, 46, -24.2948, -33.0564, 48.1379, -141.378, -72.2535, 49.7752
6.02362, 47, -24.1902, -33.1498, 48.196, -141.327, -72.1507, 50.1171
6.03158, 47, -24.0834, -33.2391, 48.2506, -141.279, -72.0487, 50.4675
6.03957, 47, -23.9738, -33.3244, 48.3015, -141.235, -71.948, 50.8263
6.04765, 47, -23.8617, -33.4056, 48.3485, -141.197, -71.8487, 51.1934
6.05562, 47, -23.7468, -33.4828, 48.3917, -141.163, -71.7505, 51.5691
6.06373, 48, -23.6291, -33.5555, 48.4309, -141.134, -71.6538, 51.9532
6.07163, 48, -23.5087, -33.6239, 48.4659, -141.109, -71.559, 52.3455
6.08065, 48, -23.3858, -33.6877, 48.4967, -141.089, -71.4656, 52.7468
6.08785, 48, -23.2604, -33.7466, 48.5235, -141.074, -71.374, 53.157
6.09642, 48, -23.1324, -33.8005, 48.5459, -141.064, -71.2848, 53.5758
6.10265, 49, -23.0015, -33.8493, 48.5639, -141.059, -71.1973, 54.0033
6.11257, 49, -22.8677, -33.8929, 48.5775, -141.058, -71.1115, 54.4383
6.11957, 49, -22.731, -33.931, 48.5864, -141.063, -71.0283, 54.8812
6.12759, 49, -22.5913, -33.9633, 48.5906, -141.074, -70.9467, 55.3318
6.13658, 49, -22.4489, -33.9901, 48.5905, -141.092, -70.8677, 55.7899
6.14371, 50, -22.3036, -34.0108, 48.5853, -141.116, -70.7908, 56.2561
6.15159, 50, -22.1556, -34.0252, 48.5751, -141.145, -70.7172, 56.7291
6.16204, 50, -21.9286, -34.0353, 48.5502, -141.2, -70.6118, 57.4539
6.16761, 50, -21.8514, -34.0357, 48.5392, -141.222, -70.5782, 57.6994
6.17565, 50, -21.6949, -34.0318, 48.5132, -141.27, -70.5132, 58.196
6.18355, 51, -21.5352, -34.0212, 48.4815, -141.324, -70.4527, 58.6995
6.19339, 51, -21.3726, -34.0038, 48.4446, -141.385, -70.3947, 59.2089
6.19858, 51, -21.2074, -33.9794, 48.4021, -141.452, -70.341, 59.725
6.20757, 51, -21.0395, -33.948, 48.354, -141.525, -70.2912, 60.2469
6.21571, 51, -20.8693, -33.9094, 48.3003, -141.604, -70.2445, 60.7749
6.22477, 52, -20.6964, -33.8634, 48.2407, -141.69, -70.2024, 61.3081
6.23261, 52, -20.5208, -33.8094, 48.1752, -141.781, -70.1652, 61.8479
6.24031, 52, -20.3425, -33.7476, 48.1038, -141.88, -70.1323, 62.3944
6.24939, 52, -20.1612, -33.6777, 48.0262, -141.985, -70.1039, 62.9475
6.25554, 52, -19.9774, -33.5995, 47.9424, -142.096, -70.0807, 63.5061
6.26377, 52, -19.791, -33.513, 47.8523, -142.213, -70.0627, 64.0713
6.27163, 53, -19.6026, -33.418, 47.7561, -142.337, -70.0503, 64.642
6.27966, 53, -19.4122, -33.3146, 47.6538, -142.466, -70.0435, 65.2176
6.2887, 53, -19.2198, -33.2032, 47.5456, -142.602, -70.0415, 65.7965
6.29593, 53, -19.0257, -33.0836, 47.4316, -142.743, -70.0446, 66.379
6.30378, 53, -18.8299, -32.9557, 47.3117, -142.889, -70.0539, 66.9644
6.3144, 54, -18.6323, -32.8194, 47.1859, -143.039, -70.0694, 67.5511
6.3199, 54, -18.4328, -32.6749, 47.0545, -143.194, -70.0916, 68.1384
6.32761, 54, -18.2313, -32.5222, 46.9175, -143.354, -70.1206, 68.7275
6.3356, 54, -18.0285, -32.3612, 46.7749, -143.518, -70.1555, 69.3179
6.34464, 54, -17.8244, -32.1914, 46.6263, -143.687, -70.1968, 69.91
6.35174, 55, -17.6195, -32.0121, 46.4714, -143.86, -70.2466, 70.5047
6.35987, 55, -17.4133, -31.8237, 46.3102, -144.038, -70.3038, 71.1038
6.36781, 55, -17.2055, -31.626, 46.1423, -144.221, -70.3688, 71.7076
6.37613, 55, -16.996, -31.4179, 45.9668, -144.409, -70.4432, 72.3154
6.38394, 55, -16.7849, -31.199, 45.7837, -144.602, -70.526, 72.9285
6.39082, 56, -16.6787, -31.0857, 45.6897, -144.701, -70.5712, 73.2368
6.40052, 56, -16.3578, -30.7299, 45.3971, -145.003, -70.7197, 74.1684
6.40807, 56, -16.1426, -30.4787, 45.1922, -145.209, -70.8304, 74.7929
6.41704, 56, -15.9275, -30.2171, 44.9806, -145.42, -70.9505, 75.4207
6.42738, 56, -15.7125, -29.945, 44.7633, -145.633, -71.0799, 76.0508
6.43219, 57, -15.4965, -29.662, 44.5387, -145.85, -71.219, 76.6815
6.44017, 57, -15.388, -29.5168, 44.4238, -145.959, -71.3675, 77.3135
6.44756, 57, -15.1703, -29.2187, 44.1898, -146.18, -71.4456, 77.6299
6.45561, 57, -14.9521, -28.9105, 43.9494, -146.402, -71.6087, 78.263
6.46358, 57, -14.734, -28.594, 43.7031, -146.626, -71.7814, 78.8941
6.47174, 58, -14.5164, -28.2691, 43.4526, -146.85, -71.963, 79.5234
6.47958, 58, -14.2999, -27.937, 43.1977, -147.074, -72.1524, 80.1492
6.48758, 58, -14.0847, -27.597, 42.9394, -147.297, -72.3493, 80.7693
6.4956, 58, -13.8711, -27.25, 42.6783, -147.518, -72.5533, 81.3823
6.50358, 58, -13.6589, -26.8961, 42.414, -147.736, -72.7641, 81.989
6.51158, 58, -13.448, -26.536, 42.1474, -147.953, -72.9815, 82.5893
6.51961, 59, -13.2386, -26.1686, 41.8768, -148.167, -73.2062, 83.1834
6.52758, 59, -13.031, -25.7945, 41.6028, -148.38, -73.4384, 83.7724
6.53556, 59, -12.825, -25.4134, 41.3251, -148.592, -73.679, 84.3579
6.54371, 59, -12.6201, -25.0257, 41.0431, -148.801, -73.9279, 84.9402
6.55163, 59, -12.4162, -24.63, 40.7574, -149.009, -74.1861, 85.5188
6.55956, 60, -12.2132, -24.2268, 40.4666, -149.216, -74.4532, 86.0943
6.56773, 60, -12.0116, -23.8162, 40.1724, -149.421, -74.7294, 86.6669
6.57553, 60, -11.8115, -23.3991, 39.8744, -149.623, -75.0144, 87.2366
6.58363, 60, -11.6129, -22.9757, 39.5743, -149.823, -75.3076, 87.8006
6.59262, 60, -11.4167, -22.5474, 39.2721, -150.02, -75.6081, 88.3598
6.59958, 61, -11.2228, -22.115, 38.9686, -150.213, -75.9149, 88.9125
6.60763, 61, -11.0312, -21.6786, 38.6643, -150.401, -76.2268, 89.457
6.61607, 61, -10.8419, -21.2389, 38.3599, -150.585, -76.5428, 89.9916
6.62668, 61, -10.5624, -20.5731, 37.9037, -150.85, -77.0246, 90.7758
6.63163, 61, -10.4704, -20.3494, 37.7518, -150.935, -77.187, 91.0323
6.64032, 62, -10.2883, -19.8999, 37.4484, -151.103, -77.5149, 91.5389
6.64757, 62, -10.1091, -19.4473, 37.1444, -151.266, -77.8473, 92.0369
6.65562, 62, -9.93259, -18.9926, 36.8403, -151.424, -78.1847, 92.5267
6.66717, 62, -9.67278, -18.3056, 36.382, -151.653, -78.701, 93.2487
6.6717, 62, -9.58738, -18.0756, 36.2293, -151.727, -78.8755, 93.4854
6.68052, 63, -9.41811, -17.6147, 35.9234, -151.872, -79.2284, 93.9534
6.68765, 63, -9.25097, -17.1519, 35.6183, -152.012, -79.5855, 94.4119
6.69563, 63, -9.08611, -16.6874, 35.3144, -152.147, -79.9459, 94.8608
6.70357, 63, -8.9239, -16.2212, 35.0117, -152.276, -80.3092, 95.3001
6.71155, 63, -8.76426, -15.7529, 34.7105, -152.399, -80.675, 95.7285
6.7198, 64, -8.60721, -15.2831, 34.4108, -152.518, -81.0432, 96.1469
6.72863, 64, -8.45265, -14.8121, 34.1132, -152.631, -81.4139, 96.5544
6.73559, 64, -8.3005, -14.34, 33.8162, -152.738, -81.7873, 96.9511
6.7449, 64, -8.15083, -13.868, 33.5207, -152.841, -82.1639, 97.3381
6.7517, 64, -8.0035, -13.3965, 33.2259, -152.939, -82.5433, 97.714
6.75986, 65, -7.85867, -12.9259, 32.9331, -153.031, -82.9252, 98.0783
6.76784, 65, -7.7165, -12.457, 32.6426, -153.117, -83.3086, 98.4308
6.77564, 65, -7.57713, -11.9896, 32.3551, -153.198, -83.6929, 98.7701
6.78399, 65, -7.44083, -11.5236, 32.0716, -153.273, -84.0772, 99.0955
6.79165, 65, -7.30743, -11.0588, 31.7914, -153.342, -84.461, 99.4069
6.79984, 65, -7.17708, -10.596, 31.5159, -153.405, -84.8441, 99.7039
6.80833, 66, -7.04906, -10.1363, 31.2436, -153.463, -85.226, 99.986
6.81568, 66, -6.92322, -9.68007, 30.9752, -153.514, -85.607, 100.252
6.82355, 66, -6.79946, -9.22869, 30.7113, -153.56, -85.987, 100.503
6.83159, 66, -6.67793, -8.78298, 30.4507, -153.601, -86.3651, 100.738
6.83998, 67, -6.55875, -8.34274, 30.195, -153.636, -86.7405, 100.956
6.84797, 67, -6.44211, -7.90883, 29.9443, -153.665, -87.1125, 101.157
6.85667, 67, -6.32839, -7.48059, 29.6994, -153.689, -87.4807, 101.34
6.8638, 67, -6.21736, -7.05803, 29.4615, -153.707, -87.844, 101.506
6.87298, 67, -6.10894, -6.641, 29.2297, -153.719, -88.2023, 101.655
6.8808, 67, -6.00296, -6.2301, 29.0039, -153.726, -88.556, 101.785
6.88806, 68, -5.89904, -5.82547, 28.7842, -153.729, -88.9056, 101.899
6.89604, 68, -5.79702, -5.42639, 28.5689, -153.728, -89.2521, 101.995
6.90417, 68, -5.69664, -5.03279, 28.3573, -153.722, -89.5962, 102.074
6.91208, 68, -5.59798, -4.64431, 28.1498, -153.711, -89.939, 102.134
6.92011, 68, -5.50094, -4.2611, 27.9454, -153.696, -90.2806, 102.176
6.92893, 69, -5.40574, -3.88182, 27.7444, -153.677, -90.6212, 102.199
6.93619, 69, -5.3588, -3.50644, 27.5479, -153.653, -90.9614, 102.206
6.9441, 69, -5.26618, -3.32006, 27.4512, -153.64, -91.1311, 102.192
6.95363, 69, -5.13052, -2.76707, 27.1656, -153.591, -91.6389, 102.157
6.9596, 69, -5.08615, -2.58449, 27.0721, -153.574, -91.8076, 102.132
6.96753, 70, -4.99858, -2.22173, 26.8887, -153.536, -92.144, 102.064
6.97569, 70, -4.9123, -1.86351, 26.7091, -153.493, -92.4787, 101.975
6.98361, 70, -4.82723, -1.50994, 26.5326, -153.447, -92.812, 101.863
6.99154, 70, -4.74327, -1.16189, 26.3603, -153.398, -93.1431, 101.729
6.99968, 70, -4.66044, -0.819124, 26.1927, -153.346, -93.472, 101.573
7.00752, 71, -4.57869, -0.482843, 26.0288, -153.289, -93.7981, 101.395
7.0156, 71, -4.49795, -0.152881, 25.8689, -153.232, -94.121, 101.197
7.02359, 71, -4.41823, 0.17004, 25.7144, -153.17, -94.4405, 100.977
7.03159, 71, -4.3394, 0.486711, 25.5654, -153.107, -94.7557, 100.738
7.03954, 71, -4.26131, 0.797214, 25.4212, -153.041, -95.0674, 100.477
7.04772, 72, -4.18413, 1.10062, 25.2816, -152.974, -95.3749, 100.198
7.0558, 72, -4.10748, 1.39748, 25.1465, -152.905, -95.679, 99.8979
7.06355, 72, -4.03108, 1.68716, 25.0153, -152.834, -95.9798, 99.5779
7.07252, 72, -3.95492, 1.97064, 24.8875, -152.763, -96.2782, 99.2374
7.07857, 72, -3.87879, 2.24832, 24.7629, -152.69, -96.5738, 98.8763
7.08754, 72, -3.80277, 2.51928, 24.6414, -152.617, -96.867, 98.4937
7.09653, 73, -3.7269, 2.78443, 24.523, -152.544, -97.1578, 98.089
7.10373, 73, -3.65082, 3.04344, 24.4079, -152.47, -97.4461, 97.6622
7.1146, 73, -3.53621, 3.41977, 24.2421, -152.36, -97.8732, 96.9803
7.12297, 73, -3.45943, 3.66279, 24.1364, -152.287, -98.1537, 96.4999
7.12767, 73, -3.42085, 3.78137, 24.0852, -152.252, -98.2926, 96.2518
7.13553, 74, -3.34316, 4.01214, 23.9855, -152.181, -98.5672, 95.7417
7.14356, 74, -3.26483, 4.23482, 23.8897, -152.111, -98.8365, 95.2148
7.15156, 74, -3.18586, 4.44903, 23.7981, -152.043, -99.1002, 94.673
7.15955, 74, -3.10618, 4.65356, 23.7107, -151.977, -99.3573, 94.1189
7.16753, 74, -3.02584, 4.84859, 23.6275, -151.914, -99.6074, 93.5528
7.17575, 75, -2.94459, 5.03437, 23.5486, -151.853, -99.8494, 92.977
7.18461, 75, -2.86235, 5.20995, 23.4738, -151.796, -100.083, 92.3925
7.19156, 75, -2.77905, 5.37462, 23.4027, -151.74, -100.308, 91.8001
7.19983, 75, -2.69486, 5.52864, 23.3355, -151.688, -100.524, 91.1998
7.211, 75, -2.56682, 5.73949, 23.242, -151.617, -100.83, 90.2852
7.21553, 76, -2.52366, 5.80413, 23.2129, -151.594, -100.928, 89.9766
7.22524, 76, -2.43665, 5.92487, 23.1581, -151.553, -101.116, 89.3527
7.23154, 76, -2.34879, 6.0339, 23.1076, -151.516, -101.295, 88.7196
7.23966, 76, -2.26017, 6.13069, 23.0616, -151.482, -101.465, 88.0788
7.24754, 76, -2.17083, 6.21491, 23.0203, -151.452, -101.624, 87.4321
7.25766, 77, -2.08055, 6.28607, 22.9841, -151.426, -101.771, 86.7799
7.26375, 77, -1.98938, 6.34404, 22.9532, -151.405, -101.906, 86.1267
7.27159, 77, -1.89726, 6.38845, 22.928, -151.387, -102.027, 85.4755
7.27993, 77, -1.80432, 6.41857, 22.9085, -151.374, -102.134, 84.8269
7.28763, 77, -1.71053, 6.43459, 22.8949, -151.364, -102.226, 84.1817
7.29567, 78, -1.61593, 6.43615, 22.8872, -151.357, -102.303, 83.5417
7.3043, 78, -1.52063, 6.42253, 22.8848, -151.354, -102.365, 82.906
7.3136, 78, -1.42469, 6.39356, 22.8881, -151.354, -102.411, 82.2734
7.32011, 78, -1.32843, 6.34904, 22.8974, -151.357, -102.441, 81.6456
7.32738, 78, -1.28016, 6.32072, 22.9128, -151.363, -102.456, 81.0228
7.33587, 79, -1.13506, 6.21156, 22.935, -151.373, -102.455, 80.4056
7.34454, 79, -1.03821, 6.11864, 22.964, -151.386, -102.436, 79.7949
7.35162, 79, -0.94119, 6.00964, 23.0004, -151.402, -102.399, 79.1926
7.36045, 79, -0.844214, 5.88444, 23.0443, -151.421, -102.345, 78.6
7.36778, 79, -0.74721, 5.74269, 23.0957, -151.442, -102.273, 78.0166
7.37576, 79, -0.65019, 5.58452, 23.1547, -151.467, -102.183, 77.4435
7.38464, 80, -0.553107, 5.40971, 23.2212, -151.493, -102.074, 76.8812
7.39211, 80, -0.45607, 5.21844, 23.2955, -151.521, -101.947, 76.3298
7.40223, 80, -0.35905, 5.01048, 23.378, -151.55, -101.802, 75.7874
7.40855, 80, -0.2622, 4.7846, 23.4686, -151.581, -101.638, 75.2547
7.41608, 80, -0.1655, 4.54044, 23.5678, -151.614, -101.454, 74.7316
7.42486, 81, -0.068903, 4.2795, 23.6759, -151.648, -101.252, 74.2184
7.43232, 81, 0.0274234, 4.00172, 23.7929, -151.682, -101.03, 73.7137
7.44108, 81, 0.0755543, 3.85634, 23.855, -151.718, -100.789, 73.2185
7.44815, 81, 0.171687, 3.55333, 23.9863, -151.755, -100.528, 72.7327
7.45633, 81, 0.267547, 3.23292, 24.1274, -151.792, -100.249, 72.2569
7.4635, 82, 0.363156, 2.89543, 24.2786, -151.81, -100.102, 72.0226
7.47225, 82, 0.458602, 2.54133, 24.439, -151.848, -99.7936, 71.5606
7.47961, 82, 0.553667, 2.17139, 24.6086, -151.885, -99.4663, 71.1085
7.48754, 82, 0.648541, 1.78538, 24.7879, -151.923, -99.1212, 70.6659
7.49554, 82, 0.743287, 1.38281, 24.9768, -151.959, -98.7585, 70.2336
7.50373, 83, 0.837988, 0.96415, 25.1747, -151.995, -98.3788, 69.8118
7.51167, 83, 0.932684, 0.531163, 25.3822, -152.031, -97.9829, 69.3999
7.51953, 83, 1.02745, 0.0835376, 25.6004, -152.065, -97.5711, 68.9987
7.53356, 83, 1.21718, -0.855074, 26.063, -152.129, -96.7018, 68.2264
7.53566, 83, 1.21718, -0.855074, 26.063, -152.129, -96.7018, 68.2264
7.54384, 84, 1.31221, -1.34574, 26.3087, -152.159, -96.2442, 67.855
7.55153, 84, 1.40754, -1.85012, 26.5641, -152.188, -95.7714, 67.4921
7.55953, 84, 1.50306, -2.36749, 26.8301, -152.215, -95.2838, 67.1366
7.5676, 84, 1.59886, -2.89863, 27.1063, -152.241, -94.78, 66.789
7.57556, 84, 1.6951, -3.44303, 27.3926, -152.265, -94.2614, 66.4481
7.58449, 85, 1.79174, -4.00071, 27.6897, -152.287, -93.7277, 66.1139
7.59369, 85, 1.93716, -4.86119, 28.154, -152.318, -92.8987, 65.6269
7.59953, 85, 1.98581, -5.15339, 28.3137, -152.327, -92.6152, 65.4684
7.61222, 85, 2.13225, -6.04497, 28.8065, -152.351, -91.7479, 65.0052
7.61567, 85, 2.18129, -6.34663, 28.9754, -152.358, -91.4534, 64.855
7.62412, 85, 2.27993, -6.95591, 29.3193, -152.369, -90.857, 64.5619
7.63153, 86, 2.37925, -7.57264, 29.6712, -152.378, -90.2509, 64.2785
7.63961, 86, 2.47946, -8.19525, 30.0298, -152.383, -89.636, 64.0056
7.64752, 86, 2.58074, -8.82394, 30.3948, -152.386, -89.0129, 63.7433
7.65555, 86, 2.68272, -9.45827, 30.7655, -152.387, -88.3852, 63.4926
7.66364, 86, 2.78593, -10.0971, 31.1415, -152.385, -87.7532, 63.2536
7.67179, 87, 2.89015, -10.7397, 31.5233, -152.378, -87.1158, 63.0262
7.67952, 87, 2.99494, -11.3848, 31.9092, -152.368, -86.4731, 62.811
7.68849, 87, 3.10094, -12.0327, 32.2998, -152.354, -85.8254, 62.6079
7.6966, 87, 3.20775, -12.6833, 32.6951, -152.337, -85.1733, 62.4179
7.70352, 87, 3.31527, -13.3369, 33.0958, -152.315, -84.5173, 62.2403
7.7116, 88, 3.42357, -13.9936, 33.5019, -152.289, -83.8558, 62.0757
7.71952, 88, 3.53227, -14.6527, 33.9129, -152.26, -83.1888, 61.9242
7.72753, 88, 3.6415, -15.3135, 34.3294, -152.227, -82.5159, 61.7862
7.73882, 88, 3.80616, -16.3054, 34.9634, -152.167, -81.4981, 61.6064
7.74377, 88, 3.86117, -16.6357, 35.1767, -152.145, -81.1578, 61.554
7.7526, 89, 3.97146, -17.2948, 35.6057, -152.098, -80.4757, 61.462
7.75953, 89, 4.0819, -17.9511, 36.0363, -152.045, -79.7931, 61.388
7.76991, 89, 4.19271, -18.6042, 36.4675, -151.986, -79.1103, 61.3326
7.77577, 89, 4.30395, -19.2535, 36.8986, -151.923, -78.4288, 61.2972
7.7846, 89, 4.41537, -19.8975, 37.328, -151.854, -77.753, 61.2812
7.79167, 90, 4.52708, -20.5359, 37.7554, -151.781, -77.0814, 61.286
7.79969, 90, 4.63952, -21.1693, 38.1817, -151.702, -76.4122, 61.3147
7.80765, 90, 4.7521, -21.7971, 38.6067, -151.617, -75.7456, 61.3668
7.81563, 90, 4.86448, -22.4201, 39.0308, -151.527, -75.0815, 61.4423
7.82388, 90, 4.97663, -23.0383, 39.4544, -151.431, -74.4212, 61.5439
7.8336, 91, 5.0885, -23.6529, 39.8776, -151.328, -73.7618, 61.6715
7.83957, 91, 5.20007, -24.2637, 40.3011, -151.219, -73.1017, 61.827
7.84762, 91, 5.31111, -24.8693, 40.7247, -151.103, -72.4414, 62.0113
7.85652, 91, 5.42135, -25.4697, 41.1477, -150.981, -71.7798, 62.2251
7.86372, 91, 5.5309, -26.0636, 41.5702, -150.852, -71.118, 62.4691
7.87313, 92, 5.64012, -26.6505, 41.9914, -150.716, -70.4582, 62.7444
7.87858, 92, 5.69475, -26.9412, 42.2013, -150.646, -70.129, 62.8939
7.88791, 92, 5.8594, -27.8005, 42.825, -150.428, -69.1456, 63.3887
7.89703, 92, 5.96991, -28.3623, 43.2342, -150.276, -68.4943, 63.7574
7.90466, 92, 6.08125, -28.9135, 43.6376, -150.121, -67.8478, 64.1574
7.91218, 92, 6.19378, -29.4536, 44.0345, -149.962, -67.2086, 64.5882
7.92016, 93, 6.30783, -29.9826, 44.4244, -149.801, -66.5749, 65.0509
7.92937, 93, 6.42399, -30.5005, 44.8079, -149.638, -65.9458, 65.5447
7.93611, 93, 6.5425, -31.0093, 45.1854, -149.475, -65.3201, 66.0709
7.94485, 93, 6.60255, -31.2611, 45.3725, -149.311, -64.6961, 66.632
7.95375, 93, 6.78607, -32.0082, 45.9266, -149.146, -64.0731, 67.2322
7.96051, 94, 6.91099, -32.5, 46.2924, -148.981, -63.4471, 67.8757
7.96752, 94, 6.97422, -32.744, 46.4744, -148.898, -63.1317, 68.2157
7.97552, 94, 7.10193, -33.2278, 46.8377, -148.731, -62.4963, 68.9354
7.98356, 94, 7.23142, -33.7042, 47.1992, -148.566, -61.8549, 69.7072
7.99159, 94, 7.36367, -34.1737, 47.5579, -148.404, -61.2073, 70.53
7.99948, 95, 7.49978, -34.6354, 47.9103, -148.247, -60.5579, 71.4071
8.0076, 95, 7.64077, -35.087, 48.2549, -148.099, -59.9113, 72.3303
8.01551, 95, 7.78777, -35.5281, 48.5885, -147.963, -59.2696, 73.2941
8.02351, 95, 7.94127, -35.9564, 48.91, -147.841, -58.6348, 74.2979
8.03159, 95, 8.10177, -36.3672, 49.2164, -147.736, -58.0078, 75.3358
8.03947, 96, 8.26913, -36.758, 49.5076, -147.648, -57.3904, 76.4084
8.0476, 96, 8.44336, -37.1277, 49.7822, -147.58, -56.787, 77.5113
8.05554, 96, 8.6237, -37.4743, 50.0398, -147.532, -56.1974, 78.6434
8.06351, 96, 8.80945, -37.7965, 50.2805, -147.505, -55.6221, 79.7987
8.07311, 96, 9.0001, -38.0932, 50.5019, -147.502, -54.7925, 81.5613
8.08107, 96, 9.19408, -38.365, 50.7038, -147.512, -54.5262, 82.1545
8.08759, 97, 9.38989, -38.6113, 50.8865, -147.547, -54.011, 83.3482
8.09658, 97, 9.58618, -38.8322, 51.0485, -147.605, -53.5204, 84.5466
8.10351, 97, 9.78181, -39.0286, 51.19, -147.682, -53.0566, 85.7396
8.11163, 97, 9.97602, -39.2004, 51.312, -147.776, -52.6213, 86.9198
8.11951, 97, 10.1677, -39.3462, 51.4143, -147.886, -52.2161, 88.0798
8.12759, 97, 10.3557, -39.4667, 51.4976, -148.008, -51.8413, 89.214
8.13547, 98, 10.5401, -39.5619, 51.5625, -148.142, -51.4976, 90.3143
8.14354, 98, 10.7219, -39.633, 51.6095, -148.285, -51.1841, 91.3812
8.15163, 98, 10.902, -39.6812, 51.639, -148.437, -50.8987, 92.4229
8.15953, 98, 11.0806, -39.7063, 51.6511, -148.601, -50.6378, 93.453
8.16751, 98, 11.2571, -39.7081, 51.6466, -148.777, -50.3979, 94.4854
8.1756, 98, 11.4322, -39.6865, 51.625, -148.966, -50.1768, 95.5309
8.18352, 98, 11.6077, -39.641, 51.5856, -149.168, -49.9747, 96.5979
8.19156, 99, 11.7829, -39.5722, 51.5285, -149.384, -49.793, 97.6861
8.19957, 99, 11.9567, -39.4807, 51.453, -149.612, -49.6341, 98.7916
8.20751, 99, 12.1278, -39.3666, 51.3589, -149.848, -49.5015, 99.9032
8.21551, 99, 12.2952, -39.2301, 51.2467, -150.09, -49.3982, 101.01
8.22359, 99, 12.4575, -39.0715, 51.1171, -150.334, -49.3258, 102.102
8.23156, 99, 12.6126, -38.8906, 50.9715, -150.577, -49.2841, 103.169
8.23958, 100, 12.7591, -38.686, 50.8103, -150.817, -49.2738, 104.205
8.24755, 100, 12.8967, -38.457, 50.6326, -151.052, -49.2954, 105.212
8.25558, 100, 13.0254, -38.2052, 50.4377, -151.282, -49.3486, 106.191
8.26359, 100, 13.1455, -37.9314, 50.2264, -151.505, -49.4329, 107.146
8.27322, 100, 13.2575, -37.6367, 49.9976, -151.723, -49.5487, 108.077
8.27966, 100, 13.3613, -37.3193, 49.7504, -151.934, -49.6951, 108.986
8.28767, 101, 13.457, -36.9779, 49.4865, -152.137, -49.8717, 109.875
8.29561, 101, 13.5448, -36.6116, 49.2054, -152.332, -50.078, 110.738
8.30361, 101, 13.6247, -36.2197, 48.9076, -152.518, -50.3139, 111.58
8.31174, 101, 13.6965, -35.8028, 48.592, -152.694, -50.5798, 112.398
8.31961, 101, 13.7601, -35.3625, 48.2587, -152.861, -50.8767, 113.193
8.3331, 102, 13.8391, -34.6597, 47.7261, -153.09, -51.382, 114.345
8.33551, 102, 13.861, -34.4142, 47.5402, -153.161, -51.567, 114.717
8.34364, 102, 13.8976, -33.9055, 47.1554, -153.293, -51.961, 115.444
8.35248, 102, 13.9249, -33.3729, 46.7546, -153.411, -52.3873, 116.147
8.35975, 102, 13.9429, -32.8177, 46.3394, -153.517, -52.8458, 116.823
8.36778, 102, 13.9527, -32.2412, 45.9101, -153.609, -53.3341, 117.474
8.37604, 103, 13.9548, -31.6437, 45.4672, -153.686, -53.8494, 118.099
8.38379, 103, 13.9501, -31.0271, 45.0117, -153.751, -54.3899, 118.696
8.39201, 103, 13.9389, -30.393, 44.5446, -153.802, -54.9527, 119.268
8.39989, 103, 13.9219, -29.7433, 44.0673, -153.84, -55.5348, 119.816
8.40812, 103, 13.8994, -29.0791, 43.5817, -153.867, -56.1347, 120.337
8.41639, 103, 13.872, -28.402, 43.0891, -153.882, -56.7504, 120.833
8.42404, 104, 13.8404, -27.714, 42.5908, -153.887, -57.3791, 121.304
8.43204, 104, 13.8047, -27.0171, 42.0887, -153.882, -58.0208, 121.752
8.44014, 104, 13.7652, -26.3125, 41.5833, -153.866, -58.6774, 122.178
8.44809, 104, 13.7442, -25.9576, 41.3295, -153.855, -59.3467, 122.585
8.4555, 104, 13.7005, -25.2449, 40.8211, -153.827, -59.6856, 122.783
8.46357, 104, 13.655, -24.5292, 40.3116, -153.791, -60.37, 123.166
8.4715, 104, 13.6077, -23.8108, 39.8017, -153.748, -61.0604, 123.537
8.47965, 104, 13.5587, -23.09, 39.2925, -153.699, -61.7568, 123.899
8.48755, 104, 13.5085, -22.3678, 38.7843, -153.645, -62.4574, 124.255
8.49551, 104, 13.4575, -21.6446, 38.2776, -153.585, -63.1603, 124.607
8.50351, 104, 13.4057, -20.9213, 37.7724, -153.522, -63.8642, 124.958
8.51157, 104, 13.3536, -20.1983, 37.2683, -153.454, -64.5681, 125.306
8.5195, 104, 13.3012, -19.475, 36.7664, -153.383, -65.2737, 125.653
8.5275, 104, 13.2487, -18.7514, 36.2665, -153.307, -65.9807, 125.999
8.53557, 104, 13.1963, -18.0277, 35.7686, -153.227, -66.6885, 126.344
8.54355, 104, 13.1441, -17.3037, 35.2732, -153.144, -67.3971, 126.689
8.55151, 104, 13.0922, -16.5791, 34.7796, -153.056, -68.1045, 127.033
8.55956, 104, 13.0406, -15.8548, 34.2882, -152.964, -68.813, 127.377
8.5675, 104, 12.9895, -15.1304, 33.7991, -152.869, -69.5236, 127.72
8.5755, 104, 12.9384, -14.405, 33.312, -152.77, -70.2351, 128.063
8.58362, 104, 12.8878, -13.6799, 32.828, -152.667, -70.9455, 128.407
8.59315, 104, 12.8377, -12.9545, 32.3464, -152.56, -71.6557, 128.751
8.59949, 104, 12.7878, -12.2289, 31.8673, -152.449, -72.3679, 129.095
8.60757, 104, 12.7382, -11.5038, 31.3909, -152.334, -73.0807, 129.439
8.61549, 104, 12.6891, -10.7788, 30.917, -152.216, -73.7936, 129.785
8.62361, 104, 12.6403, -10.0533, 30.4459, -152.093, -74.5067, 130.13
8.63156, 104, 12.5918, -9.32756, 29.9777, -151.967, -75.2199, 130.477
8.63949, 104, 12.5438, -8.60156, 29.5127, -151.836, -75.9339, 130.825
8.64749, 104, 12.4963, -7.87542, 29.0511, -151.701, -76.6483, 131.173
8.6556, 104, 12.4492, -7.1499, 28.5926, -151.563, -77.3641, 131.523
8.66351, 104, 12.4029, -6.42457, 28.1374, -151.42, -78.0796, 131.874
8.6715, 104, 12.357, -5.69956, 27.6857, -151.273, -78.7933, 132.226
8.67959, 104, 12.3116, -4.97538, 27.2376, -151.122, -79.508, 132.579
8.6875, 104, 12.2671, -4.25252, 26.7936, -150.966, -80.2237, 132.934
8.69549, 104, 12.2238, -3.53177, 26.3546, -150.807, -80.939, 133.29
8.70358, 104, 12.1814, -2.81585, 25.9205, -150.643, -81.6504, 133.646
8.71151, 104, 12.1404, -2.10599, 25.4923, -150.476, -82.3578, 134.003
8.71951, 104, 12.1006, -1.40346, 25.0713, -150.306, -83.062, 134.358
8.72762, 104, 12.0617, -0.709431, 24.6587, -150.134, -83.7589, 134.712
8.73549, 104, 12.0239, -0.0251988, 24.2557, -149.959, -84.446, 135.063
8.74349, 104, 11.987, 0.648376, 23.8634, -149.784, -85.1205, 135.41
8.7516, 104, 11.9512, 1.30955, 23.4836, -149.608, -85.7803, 135.752
8.7595, 104, 11.9167, 1.95767, 23.1161, -149.431, -86.4262, 136.088
8.76753, 104, 11.8833, 2.59078, 22.7614, -149.256, -87.0564, 136.418
8.77556, 104, 11.8507, 3.2076, 22.419, -149.08, -87.6706, 136.741
8.78355, 104, 11.8197, 3.80819, 22.0902, -148.907, -88.2686, 137.057
8.79161, 104, 11.7899, 4.39171, 21.7739, -148.734, -88.8489, 137.367
8.79964, 104, 11.7612, 4.95884, 21.47, -148.563, -89.4118, 137.67
8.80784, 104, 11.7341, 5.50893, 21.1773, -148.393, -89.9593, 137.966
8.81562, 104, 11.7079, 6.04147, 20.8969, -148.225, -90.4906, 138.255
8.82364, 104, 11.683, 6.55748, 20.6281, -148.06, -91.0057, 138.537
8.83159, 104, 11.6592, 7.05656, 20.3709, -147.897, -91.5043, 138.811
8.83955, 104, 11.6366, 7.53858, 20.1255, -147.737, -91.9854, 139.077
8.84825, 104, 11.6151, 8.00429, 19.8906, -147.58, -92.4495, 139.336
8.85557, 104, 11.5948, 8.45322, 19.6667, -147.425, -92.8973, 139.588
8.86431, 104, 11.5757, 8.88486, 19.454, -147.275, -93.3285, 139.831
8.87173, 104, 11.5577, 9.29913, 19.2513, -147.128, -93.7429, 140.066
8.87981, 104, 11.5408, 9.69624, 19.059, -146.985, -94.1402, 140.293
8.88785, 104, 11.5249, 10.0753, 18.8776, -146.846, -94.52, 140.511
8.89588, 104, 11.5101, 10.4354, 18.7066, -146.713, -94.8816, 140.719
8.90399, 104, 11.4963, 10.7761, 18.5458, -146.584, -95.2244, 140.918
8.91209, 104, 11.4835, 11.0978, 18.3959, -146.462, -95.5478, 141.106
8.9201, 104, 11.4718, 11.3989, 18.2569, -146.346, -95.8508, 141.283
8.92808, 104, 11.4611, 11.6794, 18.1283, -146.237, -96.1332, 141.449
8.93612, 104, 11.4515, 11.9387, 18.0103, -146.135, -96.3941, 141.602
8.94411, 104, 11.4426, 12.1766, 17.903, -146.041, -96.6334, 141.744
8.95214, 104, 11.4384, 12.2878, 17.8061, -145.955, -96.8507, 141.873
8.95948, 104, 11.4305, 12.4945, 17.7615, -145.915, -96.951, 141.933
8.96754, 104, 11.4235, 12.6799, 17.6802, -145.841, -97.1353, 142.043
8.97555, 104, 11.4174, 12.8441, 17.609, -145.776, -97.2974, 142.14
8.98349, 104, 11.4118, 12.9883, 17.5477, -145.72, -97.4378, 142.224
8.99151, 104, 11.4067, 13.1131, 17.4958, -145.671, -97.5565, 142.295
8.99952, 104, 11.402, 13.2193, 17.4531, -145.632, -97.6548, 142.353
9.00749, 104, 11.3978, 13.3077, 17.4185, -145.6, -97.7339, 142.4
9.01554, 104, 11.394, 13.3804, 17.3915, -145.574, -97.7954, 142.438
9.0235, 104, 11.3904, 13.4393, 17.3714, -145.555, -97.8409, 142.466
9.03148, 104, 11.3874, 13.4859, 17.3568, -145.541, -97.8738, 142.485
9.03953, 104, 11.3849, 13.5214, 17.3469, -145.531, -97.8966, 142.498
9.04752, 104, 11.3829, 13.5478, 17.3406, -145.525, -97.9115, 142.507
9.05553, 104, 11.3812, 13.5673, 17.3367, -145.522, -97.9203, 142.512
9.06351, 104, 11.38, 13.5808, 17.3345, -145.52, -97.9251, 142.514
9.07151, 104, 11.379, 13.59, 17.3333, -145.519, -97.9275, 142.515
9.07945, 105, 11.3783, 13.5962, 17.3327, -145.518, -97.9286, 142.516
9.08849, 105, 11.3778, 13.6002, 17.3325, -145.518, -97.9291, 142.516
9.09552, 105, 11.3774, 13.6029, 17.3324, -145.518, -97.9293, 142.516
9.10348, 105, 11.3771, 13.6051, 17.3323, -145.518, -97.9294, 142.516
9.11152, 105, 11.3769, 13.6069, 17.3323, -145.518, -97.9295, 142.516
9.11952, 105, 11.3767, 13.6085, 17.3323, -145.518, -97.9295, 142.516
9.12759, 105, 11.3766, 13.6099, 17.3323, -145.518, -97.9294, 142.516
9.13554, 105, 11.3765, 13.6111, 17.3323, -145.518, -97.9294, 142.516
9.14351, 105, 11.3764, 13.6121, 17.3323, -145.518, -97.9292, 142.516
9.15148, 105, 11.3764, 13.613, 17.3323, -145.518, -97.9291, 142.516
9.15951, 105, 11.3764, 13.6136, 17.3323, -145.518, -97.929, 142.516
9.16753, 105, 11.3763, 13.6141, 17.3324, -145.518, -97.9288, 142.516
9.17549, 105, 11.3763, 13.6144, 17.3324, -145.518, -97.9287, 142.516
9.18354, 105, 11.3763, 13.6146, 17.3325, -145.518, -97.9286, 142.516
9.19162, 105, 11.3763, 13.6147, 17.3325, -145.518, -97.9285, 142.516
9.19949, 105, 11.3763, 13.6147, 17.3326, -145.518, -97.9284, 142.516
