hehonglu123/Motion-Primitive-Planning/ILC/recorded_data/realrobot/wood/iteration_19/run_2.csv
timestamp, cmd_num, J1, J2, J3, J4, J5, J6
0.000372, -1, 11.3762, 13.6155, 17.3342, -145.52, -97.9262, 142.517
0.004207, -1, 11.3762, 13.6155, 17.3342, -145.52, -97.9262, 142.517
0.007894, -1, 11.3762, 13.6155, 17.3342, -145.52, -97.9262, 142.517
0.029591, -1, 11.3762, 13.6155, 17.3342, -145.52, -97.9262, 142.517
0.033583, -1, 11.3762, 13.6155, 17.3342, -145.52, -97.9262, 142.517
0.035647, -1, 11.3762, 13.6155, 17.3342, -145.52, -97.9262, 142.517
0.039745, -1, 11.3762, 13.6155, 17.3342, -145.52, -97.9262, 142.516
0.048015, -1, 11.3762, 13.6155, 17.3342, -145.52, -97.9262, 142.516
0.05575, -1, 11.3756, 13.6154, 17.3342, -145.52, -97.9262, 142.516
0.06377, -1, 11.3728, 13.6152, 17.3342, -145.52, -97.9262, 142.516
0.201021, -1, 9.96467, 13.2405, 17.4262, -145.961, -97.7749, 139.959
0.202277, -1, 9.96467, 13.2405, 17.4262, -145.961, -97.7749, 139.959
0.204164, -1, 9.96467, 13.2405, 17.4262, -145.985, -97.7663, 139.82
0.205568, -1, 9.88749, 13.2198, 17.4312, -145.985, -97.7663, 139.82
0.206844, -1, 9.88749, 13.2198, 17.4312, -145.985, -97.7663, 139.82
0.208814, -1, 9.8099, 13.1991, 17.4362, -146.01, -97.7576, 139.68
0.210098, -1, 9.8099, 13.1991, 17.4362, -146.01, -97.7576, 139.68
0.212981, -1, 9.73211, 13.1783, 17.4413, -146.033, -97.749, 139.54
0.214217, -1, 9.73211, 13.1783, 17.4413, -146.033, -97.749, 139.54
0.215511, -1, 9.73211, 13.1783, 17.4413, -146.033, -97.749, 139.54
0.217489, -1, 9.65433, 13.1577, 17.4463, -146.057, -97.7404, 139.401
0.218872, -1, 9.65433, 13.1577, 17.4463, -146.057, -97.7404, 139.401
0.220891, -1, 9.57668, 13.137, 17.4513, -146.081, -97.7318, 139.261
0.223049, -1, 9.57668, 13.137, 17.4513, -146.081, -97.7318, 139.261
0.225781, -1, 9.49916, 13.1164, 17.4563, -146.105, -97.7233, 139.121
0.227577, -1, 9.49916, 13.1164, 17.4563, -146.105, -97.7233, 139.121
0.229606, -1, 9.42174, 13.0958, 17.4612, -146.129, -97.7149, 138.981
0.23089, -1, 9.42174, 13.0958, 17.4612, -146.129, -97.7149, 138.981
0.232851, -1, 9.34441, 13.0752, 17.4662, -146.153, -97.7065, 138.842
0.234161, -1, 9.34441, 13.0752, 17.4662, -146.153, -97.7065, 138.842
0.235358, -1, 9.34441, 13.0752, 17.4662, -146.153, -97.7065, 138.842
0.238813, -1, 9.26714, 13.0546, 17.4712, -146.177, -97.6981, 138.702
0.24774, -1, 9.11292, 13.0135, 17.4812, -146.225, -97.6813, 138.422
0.254793, -1, 8.95916, 12.9724, 17.4913, -146.273, -97.6646, 138.142
0.263803, -1, 8.80548, 12.9314, 17.5015, -146.321, -97.6476, 137.862
0.271734, -1, 8.65217, 12.8903, 17.5116, -146.369, -97.6303, 137.582
0.278809, -1, 8.49934, 12.8491, 17.5217, -146.417, -97.6128, 137.302
0.287723, -1, 8.34649, 12.8078, 17.5319, -146.465, -97.5953, 137.022
0.295831, -1, 8.19337, 12.7663, 17.5421, -146.513, -97.5781, 136.742
0.302761, -1, 8.03982, 12.7247, 17.5523, -146.561, -97.5612, 136.462
0.311745, -1, 7.88559, 12.6831, 17.5625, -146.609, -97.5444, 136.181
0.319723, -1, 7.73085, 12.6413, 17.5726, -146.656, -97.5278, 135.901
0.326767, -1, 7.57585, 12.5996, 17.5828, -146.705, -97.5111, 135.621
0.335725, -1, 7.42078, 12.5581, 17.593, -146.753, -97.4941, 135.341
0.344125, -1, 7.26582, 12.5165, 17.6031, -146.8, -97.4768, 135.06
0.351731, -1, 7.11088, 12.475, 17.6135, -146.849, -97.4594, 134.78
0.359726, -1, 6.95573, 12.4336, 17.6238, -146.897, -97.4422, 134.499
0.36933, -1, 6.80065, 12.3923, 17.6341, -146.945, -97.4252, 134.219
0.375722, -1, 6.64579, 12.351, 17.6445, -146.993, -97.4085, 133.939
0.384724, -1, 6.49118, 12.3097, 17.6549, -147.041, -97.3918, 133.658
0.392514, -1, 6.33686, 12.2684, 17.6653, -147.089, -97.375, 133.378
0.398787, -1, 6.18262, 12.227, 17.6757, -147.138, -97.358, 133.097
0.407759, -1, 6.02831, 12.1855, 17.6859, -147.186, -97.3407, 132.816
0.417792, -1, 5.87379, 12.144, 17.6962, -147.233, -97.3144, 132.395
0.423721, -1, 5.71911, 12.1023, 17.7066, -147.282, -97.3056, 132.255
0.431852, -1, 5.56416, 12.0606, 17.7168, -147.33, -97.2883, 131.974
0.439721, -1, 5.40901, 12.019, 17.7271, -147.378, -97.2714, 131.693
0.447728, -1, 5.25365, 11.9773, 17.7374, -147.426, -97.2545, 131.412
0.455802, -1, 5.09796, 11.9356, 17.7478, -147.474, -97.2378, 131.131
0.463715, -1, 4.94221, 11.894, 17.7583, -147.522, -97.2209, 130.85
0.471747, -1, 4.78655, 11.8524, 17.7687, -147.57, -97.2038, 130.569
0.479814, -1, 4.6308, 11.8108, 17.7792, -147.619, -97.1864, 130.288
0.487718, -1, 4.47513, 11.7694, 17.7896, -147.667, -97.1689, 130.007
0.495721, -1, 4.31959, 11.7279, 17.8, -147.715, -97.1516, 129.726
0.503803, -1, 4.16427, 11.6864, 17.8105, -147.764, -97.1345, 129.445
0.511733, -1, 4.00939, 11.645, 17.8209, -147.811, -97.1176, 129.164
0.519719, -1, 3.8549, 11.6036, 17.8312, -147.86, -97.1007, 128.883
0.5278, -1, 3.70052, 11.562, 17.8416, -147.908, -97.0839, 128.602
0.535715, -1, 3.54608, 11.5203, 17.8519, -147.957, -97.0668, 128.32
0.543721, -1, 3.39143, 11.4787, 17.8622, -148.005, -97.0494, 128.038
0.551926, -1, 3.23642, 11.437, 17.8727, -148.054, -97.0318, 127.757
0.559751, -1, 3.08119, 11.3952, 17.8832, -148.101, -97.0143, 127.476
0.567781, -1, 2.92581, 11.3534, 17.8937, -148.15, -96.997, 127.194
0.576171, -1, 2.77034, 11.3116, 17.904, -148.198, -96.9801, 126.912
0.583261, -1, 2.61446, 11.2699, 17.9143, -148.246, -96.9632, 126.63
0.591826, -1, 2.45831, 11.2281, 17.9247, -148.295, -96.9465, 126.349
0.600135, -1, 2.30195, 11.1864, 17.9351, -148.343, -96.9296, 126.067
0.607315, -1, 2.22368, 11.1655, 17.9403, -148.391, -96.9126, 125.785
0.615725, -1, 1.98857, 11.1029, 17.956, -148.44, -96.8951, 125.503
0.624507, -1, 1.83203, 11.0612, 17.9664, -148.488, -96.8777, 125.221
0.631766, -1, 1.67564, 11.0195, 17.9768, -148.536, -96.8603, 124.939
0.639835, -1, 1.51941, 10.9777, 17.9873, -148.585, -96.8432, 124.657
0.647929, -1, 1.36349, 10.9361, 17.9978, -148.634, -96.8263, 124.375
0.782732, -1, -1.21134, 10.2458, 18.1698, -149.433, -96.5434, 119.711
0.783959, -1, -1.21134, 10.2458, 18.1698, -149.433, -96.5434, 119.711
0.786034, -1, -1.28981, 10.2248, 18.175, -149.458, -96.535, 119.569
0.78732, -1, -1.28981, 10.2248, 18.175, -149.458, -96.535, 119.569
0.789369, -1, -1.36824, 10.2039, 18.1801, -149.482, -96.5266, 119.428
0.790686, -1, -1.36824, 10.2039, 18.1801, -149.482, -96.5266, 119.428
0.791891, -1, -1.36824, 10.2039, 18.1801, -149.482, -96.5266, 119.428
0.795779, -1, -1.44672, 10.1829, 18.1853, -149.506, -96.5182, 119.286
0.797862, -1, -1.52511, 10.162, 18.1905, -149.53, -96.5098, 119.144
0.799195, -1, -1.52511, 10.162, 18.1905, -149.53, -96.5098, 119.144
0.801077, -1, -1.60334, 10.1411, 18.1958, -149.555, -96.5014, 119.003
0.803954, -1, -1.60334, 10.1411, 18.1958, -149.555, -96.5014, 119.003
0.80671, -1, -1.68144, 10.1201, 18.2011, -149.579, -96.4929, 118.861
0.807949, -1, -1.68144, 10.1201, 18.2011, -149.579, -96.4929, 118.861
0.810077, -1, -1.75946, 10.0992, 18.2064, -149.604, -96.4843, 118.72
0.811484, -1, -1.75946, 10.0992, 18.2064, -149.604, -96.4843, 118.72
0.813303, -1, -1.83738, 10.0783, 18.2116, -149.628, -96.4757, 118.578
0.814731, -1, -1.83738, 10.0783, 18.2116, -149.628, -96.4757, 118.578
0.815955, -1, -1.83738, 10.0783, 18.2116, -149.628, -96.4757, 118.578
0.818075, -1, -1.91521, 10.0573, 18.2168, -149.652, -96.4669, 118.436
0.819369, -1, -1.91521, 10.0573, 18.2168, -149.652, -96.4669, 118.436
0.82384, -1, -1.99293, 10.0364, 18.222, -149.676, -96.4581, 118.294
0.831724, -1, -2.14811, 9.99445, 18.2325, -149.725, -96.4404, 118.011
0.839712, -1, -2.30327, 9.95254, 18.2428, -149.774, -96.423, 117.727
0.847783, -1, -2.45864, 9.91057, 18.2533, -149.822, -96.4059, 117.444
0.855715, -1, -2.61426, 9.86856, 18.2638, -149.871, -96.389, 117.16
0.863703, -1, -2.77028, 9.82663, 18.2742, -149.92, -96.3722, 116.876
0.872729, -1, -2.92665, 9.78467, 18.2846, -149.968, -96.3553, 116.592
0.879718, -1, -3.08347, 9.7427, 18.2949, -150.017, -96.3383, 116.309
0.888711, -1, -3.24068, 9.70075, 18.3054, -150.065, -96.321, 116.025
0.895771, -1, -3.39829, 9.65874, 18.3159, -150.114, -96.3033, 115.741
0.903714, -1, -3.55609, 9.61672, 18.3264, -150.163, -96.2858, 115.457
0.911807, -1, -3.71389, 9.57485, 18.3368, -150.211, -96.2685, 115.173
0.919706, -1, -3.87191, 9.53284, 18.3472, -150.26, -96.2513, 114.888
0.92771, -1, -4.02987, 9.49082, 18.3576, -150.309, -96.2342, 114.604
0.935864, -1, -4.18774, 9.44888, 18.368, -150.358, -96.2173, 114.32
0.943701, -1, -4.34547, 9.40689, 18.3783, -150.406, -96.2002, 114.035
0.951724, -1, -4.50297, 9.3649, 18.3887, -150.455, -96.1829, 113.751
0.959806, -1, -4.65998, 9.32286, 18.3991, -150.504, -96.1652, 113.466
0.967701, -1, -4.81647, 9.28083, 18.4095, -150.553, -96.1474, 113.182
0.975733, -1, -4.97279, 9.23874, 18.4201, -150.602, -96.1299, 112.897
0.98379, -1, -5.12877, 9.1967, 18.4306, -150.651, -96.1127, 112.612
0.991707, -1, -5.28461, 9.15462, 18.4412, -150.699, -96.0957, 112.327
0.999711, -1, -5.44063, 9.11247, 18.4517, -150.748, -96.0788, 112.043
1.00777, -1, -5.59681, 9.07039, 18.4622, -150.797, -96.0619, 111.758
1.01571, -1, -5.75332, 9.02829, 18.4726, -150.846, -96.0447, 111.473
1.02371, -1, -5.9103, 8.98608, 18.4831, -150.895, -96.0272, 111.188
1.03178, -1, -6.0677, 8.94395, 18.4934, -150.944, -96.0096, 110.903
1.0398, -1, -6.22566, 8.90183, 18.5038, -150.992, -95.992, 110.618
1.04771, -1, -6.3839, 8.85971, 18.5142, -151.042, -95.9747, 110.332
1.05577, -1, -6.54235, 8.81763, 18.5246, -151.09, -95.9577, 110.047
1.06397, -1, -6.70087, 8.77548, 18.5352, -151.139, -95.9406, 109.762
1.07177, -1, -6.85957, 8.73335, 18.5457, -151.189, -95.9236, 109.476
1.07993, -1, -7.01814, 8.69125, 18.5562, -151.237, -95.9065, 109.191
1.08807, -1, -7.1767, 8.64909, 18.5667, -151.286, -95.889, 108.905
1.09532, -1, -7.33505, 8.60692, 18.577, -151.336, -95.8713, 108.62
1.1039, -1, -7.49308, 8.56463, 18.5875, -151.385, -95.8536, 108.333
1.11247, -1, -7.65071, 8.52233, 18.598, -151.434, -95.8361, 108.048
1.11981, -1, -7.80802, 8.48006, 18.6085, -151.483, -95.8189, 107.762
1.12779, -1, -7.96497, 8.43778, 18.619, -151.532, -95.8018, 107.476
1.13652, -1, -8.12163, 8.39543, 18.6293, -151.581, -95.7849, 107.19
1.14383, -1, -8.27814, 8.3531, 18.6398, -151.63, -95.7678, 106.905
1.15187, -1, -8.43484, 8.31073, 18.6504, -151.679, -95.7506, 106.619
1.16085, -1, -8.59182, 8.2684, 18.661, -151.728, -95.733, 106.333
1.16802, -1, -8.74919, 8.22613, 18.6715, -151.777, -95.7153, 106.046
1.1747, -1, -8.82796, 8.20496, 18.6767, -151.801, -95.7065, 105.903
1.18483, -1, -9.06495, 8.14141, 18.6923, -151.875, -95.6805, 105.473
1.1922, -1, -9.22349, 8.09914, 18.7028, -151.924, -95.6634, 105.187
1.20019, -1, -9.3824, 8.0568, 18.7132, -151.973, -95.6463, 104.9
1.20916, -1, -9.54155, 8.01445, 18.7237, -152.023, -95.6291, 104.614
1.21472, -1, -9.62112, 7.99333, 18.729, -152.047, -95.6205, 104.47
1.22426, -1, -9.86004, 7.92993, 18.7447, -152.121, -95.5942, 104.04
1.23305, -1, -9.93975, 7.88751, 18.7554, -152.17, -95.5763, 103.753
1.23875, -1, -10.099, 7.8663, 18.7608, -152.195, -95.5674, 103.609
1.24772, -1, -10.2582, 7.8238, 18.7713, -152.244, -95.5497, 103.322
1.25569, -1, -10.4172, 7.78128, 18.7819, -152.294, -95.5323, 103.035
1.26375, -1, -10.5759, 7.73878, 18.7924, -152.343, -95.5152, 102.748
1.27173, -1, -10.7342, 7.6963, 18.8029, -152.392, -95.4982, 102.461
1.27969, -1, -10.8921, 7.65373, 18.8134, -152.441, -95.4811, 102.174
1.28671, -1, -11.0499, 7.61115, 18.8239, -152.491, -95.4639, 101.887
1.29569, -1, -11.2074, 7.56869, 18.8343, -152.54, -95.4463, 101.6
1.30374, -1, -11.3648, 7.52621, 18.8449, -152.589, -95.4286, 101.312
1.31072, -1, -11.5223, 7.48367, 18.8554, -152.639, -95.4108, 101.025
1.31971, -1, -11.68, 7.44119, 18.866, -152.688, -95.3933, 100.737
1.32774, -1, -11.8381, 7.39877, 18.8766, -152.737, -95.376, 100.449
1.33473, -1, -11.9967, 7.35634, 18.8871, -152.787, -95.3588, 100.162
1.34369, -1, -12.1556, 7.31392, 18.8977, -152.836, -95.3416, 99.8739
1.35069, -1, -12.315, 7.27151, 18.9082, -152.885, -95.3242, 99.586
1.3597, -1, -12.4747, 7.22903, 18.9188, -152.935, -95.3067, 99.2977
1.36775, -1, -12.6346, 7.18662, 18.9293, -152.984, -95.2887, 99.0099
1.3773, -1, -12.7946, 7.14415, 18.9399, -153.034, -95.2708, 98.5779
1.38369, -1, -12.9548, 7.10161, 18.9505, -153.083, -95.253, 98.4338
1.39177, -1, -13.1148, 7.05902, 18.961, -153.133, -95.2356, 98.1457
1.39969, -1, -13.2747, 7.01638, 18.9716, -153.182, -95.2184, 97.8575
1.4087, -1, -13.4344, 6.97373, 18.9822, -153.232, -95.2013, 97.5693
1.41469, -1, -13.5937, 6.93094, 18.9928, -153.281, -95.1841, 97.2806
1.42369, -1, -13.7528, 6.8882, 19.0034, -153.33, -95.1667, 96.9919
1.43173, -1, -13.9116, 6.84549, 19.0139, -153.38, -95.149, 96.7036
1.43972, -1, -14.07, 6.80277, 19.0244, -153.429, -95.1311, 96.415
1.44769, -1, -14.2282, 6.76014, 19.035, -153.479, -95.1134, 96.1261
1.45577, -1, -14.3864, 6.71746, 19.0455, -153.528, -95.0959, 95.837
1.4637, -1, -14.5446, 6.67473, 19.056, -153.577, -95.0786, 95.5481
1.47167, -1, -14.7032, 6.63215, 19.0666, -153.627, -95.0615, 95.2588
1.47977, -1, -14.8623, 6.58959, 19.0772, -153.677, -95.0443, 94.9694
1.48771, -1, -15.0217, 6.54689, 19.0879, -153.726, -95.0269, 94.6804
1.49569, -1, -15.1814, 6.50424, 19.0987, -153.776, -95.0091, 94.3914
1.50376, -1, -15.3415, 6.46164, 19.1094, -153.826, -94.9911, 94.1022
1.5117, -1, -15.502, 6.41889, 19.12, -153.875, -94.9731, 93.8127
1.51968, -1, -15.6627, 6.37617, 19.1306, -153.925, -94.9554, 93.5235
1.52781, -1, -15.8234, 6.33339, 19.1412, -153.975, -94.9381, 93.2342
1.53569, -1, -15.9842, 6.29046, 19.1519, -154.024, -94.9209, 92.9445
1.54373, -1, -16.1451, 6.2476, 19.1625, -154.074, -94.9038, 92.6546
1.5525, -1, -16.3058, 6.20467, 19.173, -154.124, -94.8865, 92.3652
1.55969, -1, -16.4663, 6.16161, 19.1836, -154.173, -94.869, 92.0756
1.56779, -1, -16.6267, 6.11861, 19.1941, -154.223, -94.8512, 91.7855
1.57658, -1, -16.7865, 6.0756, 19.2048, -154.272, -94.8332, 91.4952
1.5838, -1, -16.946, 6.03258, 19.2154, -154.322, -94.8156, 91.2053
1.59186, -1, -17.1053, 5.9896, 19.2261, -154.372, -94.7981, 90.9151
1.60067, -1, -17.2644, 5.94664, 19.2367, -154.422, -94.7809, 90.6247
1.60783, -1, -17.4235, 5.90378, 19.2473, -154.472, -94.7635, 90.3343
1.61586, -1, -17.5828, 5.86098, 19.2581, -154.522, -94.7461, 90.0442
1.62459, -1, -17.7422, 5.81814, 19.2687, -154.571, -94.7285, 89.7538
1.63173, -1, -17.9017, 5.77534, 19.2794, -154.621, -94.7105, 89.4635
1.63979, -1, -18.0618, 5.73253, 19.29, -154.671, -94.6924, 89.173
1.64865, -1, -18.2223, 5.68971, 19.3007, -154.721, -94.6745, 88.8826
1.65594, -1, -18.3832, 5.64687, 19.3114, -154.771, -94.6568, 88.5918
1.66396, -1, -18.5446, 5.60389, 19.3221, -154.821, -94.6394, 88.3007
1.67074, -1, -18.6254, 5.58239, 19.3275, -154.846, -94.6308, 88.1552
1.67868, -1, -18.7869, 5.53939, 19.3382, -154.896, -94.6136, 87.8646
1.68807, -1, -19.0295, 5.47481, 19.354, -154.971, -94.5874, 87.428
1.69612, -1, -19.1911, 5.4316, 19.3647, -155.02, -94.5695, 87.1365
1.70269, -1, -19.2718, 5.41001, 19.37, -155.045, -94.5605, 86.9907
1.71227, -1, -19.5139, 5.34523, 19.3859, -155.12, -94.5334, 86.5535
1.72024, -1, -19.6748, 5.30197, 19.3966, -155.17, -94.5157, 86.2617
1.72672, -1, -19.7551, 5.28038, 19.4019, -155.195, -94.5069, 86.1157
1.7363, -1, -19.9157, 5.23723, 19.4179, -155.27, -94.4807, 85.6783
1.74433, -1, -20.076, 5.194, 19.4233, -155.32, -94.4633, 85.3868
1.75314, -1, -20.2358, 5.15093, 19.4342, -155.345, -94.4545, 85.0951
1.75868, -1, -20.3956, 5.10801, 19.445, -155.395, -94.4368, 84.9491
1.76768, -1, -20.5557, 5.06487, 19.4558, -155.445, -94.4188, 84.6574
1.77575, -1, -20.7158, 5.02187, 19.4666, -155.496, -94.4007, 84.3656
1.78268, -1, -20.8762, 4.97894, 19.4773, -155.546, -94.3828, 84.0736
1.79169, -1, -21.0372, 4.93586, 19.488, -155.596, -94.3652, 83.7812
1.8018, -1, -21.2792, 4.87123, 19.504, -155.671, -94.3393, 83.3434
1.80767, -1, -21.3602, 4.84965, 19.5093, -155.696, -94.3307, 83.1973
1.81567, -1, -21.5222, 4.80637, 19.5199, -155.747, -94.3134, 82.9047
1.82591, -1, -21.7656, 4.74154, 19.5361, -155.822, -94.287, 82.4658
1.83169, -1, -21.8469, 4.71987, 19.5415, -155.847, -94.278, 82.3196
1.83968, -1, -22.0092, 4.67646, 19.5522, -155.897, -94.2599, 82.027
1.84773, -1, -22.1717, 4.6331, 19.563, -155.947, -94.242, 81.7341
1.85468, -1, -22.3343, 4.58971, 19.5736, -155.997, -94.2243, 81.4412
1.86368, -1, -22.4965, 4.54631, 19.5844, -156.048, -94.2068, 81.1487
1.87399, -1, -22.6584, 4.50292, 19.5951, -156.098, -94.1893, 80.8559
1.87867, -1, -22.8199, 4.45947, 19.6058, -156.148, -94.1719, 80.563
1.88767, -1, -22.9811, 4.41613, 19.6166, -156.198, -94.1542, 80.27
1.89568, -1, -23.1422, 4.37283, 19.6272, -156.249, -94.1361, 79.977
1.90367, -1, -23.3032, 4.32949, 19.638, -156.299, -94.1179, 79.6837
1.91175, -1, -23.464, 4.28623, 19.6489, -156.35, -94.0997, 79.3901
1.91969, -1, -23.625, 4.24298, 19.6597, -156.4, -94.0818, 79.0968
1.92769, -1, -23.7861, 4.1997, 19.6705, -156.45, -94.064, 78.8034
1.93574, -1, -23.9474, 4.15642, 19.6812, -156.501, -94.0466, 78.5097
1.94373, -1, -24.109, 4.11302, 19.6919, -156.551, -94.0292, 78.2157
1.95168, -1, -24.2712, 4.06961, 19.7027, -156.601, -94.0116, 77.9218
1.95974, -1, -24.4338, 4.02618, 19.7134, -156.652, -93.9938, 77.6278
1.96768, -1, -24.5968, 3.98263, 19.724, -156.702, -93.9757, 77.3335
1.97567, -1, -24.76, 3.93908, 19.7347, -156.752, -93.9575, 77.0392
1.98374, -1, -24.9234, 3.89553, 19.7455, -156.803, -93.9397, 76.7453
1.99169, -1, -25.0869, 3.85197, 19.7564, -156.853, -93.9221, 76.4511
1.99975, -1, -25.2502, 3.80841, 19.7673, -156.904, -93.9046, 76.1567
2.00768, -1, -25.4133, 3.76481, 19.7782, -156.955, -93.8871, 75.8623
2.01567, -1, -25.5761, 3.72114, 19.7889, -157.005, -93.8694, 75.5681
2.02374, -1, -25.7388, 3.67752, 19.7997, -157.055, -93.8514, 75.2735
2.03168, -1, -25.9014, 3.63404, 19.8105, -157.106, -93.8331, 74.9787
2.03968, -1, -26.0636, 3.59047, 19.8213, -157.156, -93.8147, 74.6841
2.0478, -1, -26.2253, 3.54698, 19.832, -157.207, -93.7966, 74.3895
2.05568, -1, -26.3869, 3.5036, 19.8428, -157.258, -93.7788, 74.0947
2.06375, -1, -26.5485, 3.46011, 19.8535, -157.308, -93.7611, 73.7994
2.07179, -1, -26.7104, 3.41661, 19.8644, -157.359, -93.7435, 73.5044
2.07976, -1, -26.8727, 3.37309, 19.8753, -157.409, -93.7258, 73.2091
2.08779, -1, -27.0353, 3.32948, 19.8861, -157.46, -93.7078, 72.9137
2.09578, -1, -27.1981, 3.28587, 19.8969, -157.511, -93.6897, 72.6181
2.10389, -1, -27.3613, 3.24227, 19.9076, -157.561, -93.6714, 72.3229
2.11184, -1, -27.525, 3.19846, 19.9185, -157.611, -93.6533, 72.0275
2.11968, -1, -27.6889, 3.15473, 19.9293, -157.662, -93.6354, 71.732
2.12787, -1, -27.8529, 3.11108, 19.94, -157.713, -93.6176, 71.4362
2.13571, -1, -28.0171, 3.06732, 19.9508, -157.764, -93.5999, 71.1406
2.14378, -1, -28.1814, 3.02356, 19.9616, -157.815, -93.5821, 70.8448
2.1518, -1, -28.3457, 2.97983, 19.9725, -157.865, -93.5641, 70.5487
2.15982, -1, -28.5098, 2.93604, 19.9834, -157.916, -93.5457, 70.2527
2.16799, -1, -28.6736, 2.89236, 19.9943, -157.967, -93.5272, 69.9568
2.17605, -1, -28.837, 2.84863, 20.0051, -158.017, -93.509, 69.6606
2.18282, -1, -28.9186, 2.82675, 20.0105, -158.043, -93.5, 69.5124
2.19215, -1, -29.1629, 2.76126, 20.0266, -158.119, -93.4734, 69.0676
2.20012, -1, -29.3256, 2.71754, 20.0375, -158.17, -93.4557, 68.7711
2.20819, -1, -29.4883, 2.67388, 20.0483, -158.221, -93.438, 68.4742
2.21629, -1, -29.6511, 2.63011, 20.0592, -158.272, -93.4201, 68.1772
2.22456, -1, -29.8141, 2.58631, 20.07, -158.323, -93.4017, 67.8807
2.23223, -1, -29.9771, 2.54254, 20.0809, -158.374, -93.3833, 67.5839
2.24035, -1, -30.1404, 2.49862, 20.092, -158.425, -93.365, 67.2869
2.2482, -1, -30.2223, 2.47662, 20.0975, -158.45, -93.356, 67.1384
2.25569, -1, -30.3863, 2.43267, 20.1084, -158.501, -93.3382, 66.8414
2.26377, -1, -30.5509, 2.38871, 20.1193, -158.552, -93.3204, 66.5444
2.27166, -1, -30.7158, 2.34467, 20.1301, -158.603, -93.3027, 66.2471
2.27973, -1, -30.8808, 2.30073, 20.141, -158.654, -93.2847, 65.9496
2.2877, -1, -31.0459, 2.25668, 20.1519, -158.705, -93.2664, 65.6524
2.29567, -1, -31.2111, 2.21261, 20.1628, -158.756, -93.2479, 65.3552
2.30372, -1, -31.3761, 2.16873, 20.1736, -158.808, -93.2295, 65.0575
2.31167, -1, -31.5409, 2.12479, 20.1844, -158.858, -93.2114, 64.7597
2.31967, -1, -31.7055, 2.08072, 20.1953, -158.909, -93.1935, 64.462
2.32773, -1, -31.8699, 2.03678, 20.2063, -158.961, -93.1758, 64.1639
2.33567, -1, -32.034, 1.99283, 20.2173, -159.012, -93.1583, 63.8656
2.3437, -1, -32.1978, 1.9488, 20.2283, -159.063, -93.1405, 63.5677
2.35172, -1, -32.3613, 1.90479, 20.2392, -159.115, -93.1224, 63.2699
2.35968, -1, -32.5248, 1.86069, 20.2501, -159.166, -93.104, 62.9717
2.36766, -1, -32.6886, 1.81655, 20.2611, -159.217, -93.0857, 62.6732
2.37666, -1, -32.8525, 1.77246, 20.272, -159.268, -93.0675, 62.375
2.38371, -1, -33.0167, 1.72824, 20.2829, -159.319, -93.0496, 62.0766
2.39166, -1, -33.1812, 1.68399, 20.2938, -159.37, -93.0318, 61.7779
2.39974, -1, -33.346, 1.63981, 20.3047, -159.422, -93.014, 61.4791
2.40766, -1, -33.5113, 1.59553, 20.3158, -159.473, -92.996, 61.1806
2.41566, -1, -33.6769, 1.55124, 20.3267, -159.524, -92.9778, 60.8819
2.42372, -1, -33.8426, 1.50701, 20.3376, -159.575, -92.9591, 60.5828
2.43166, -1, -34.0086, 1.46277, 20.3485, -159.626, -92.9405, 60.2836
2.43974, -1, -34.1745, 1.41859, 20.3594, -159.678, -92.9222, 59.9846
2.44772, -1, -34.3407, 1.3744, 20.3704, -159.729, -92.9041, 59.6851
2.45566, -1, -34.5067, 1.33017, 20.3813, -159.781, -92.8863, 59.3853
2.46377, -1, -34.6724, 1.28598, 20.3923, -159.833, -92.8685, 59.0861
2.47166, -1, -34.8377, 1.24178, 20.4032, -159.883, -92.8506, 58.7867
2.47965, -1, -35.0027, 1.19755, 20.4142, -159.935, -92.8324, 58.4872
2.48773, -1, -35.1675, 1.15327, 20.4253, -159.987, -92.8138, 58.1873
2.49568, -1, -35.332, 1.10892, 20.4364, -160.038, -92.7952, 57.8876
2.50369, -1, -35.4959, 1.0648, 20.4475, -160.089, -92.7769, 57.5879
2.51172, -1, -35.6582, 1.02099, 20.4588, -160.141, -92.7589, 57.2879
2.51967, -1, -35.8178, 0.977755, 20.4703, -160.191, -92.7409, 56.9894
2.52765, -1, -35.9733, 0.935658, 20.4822, -160.242, -92.7232, 56.6942
2.53573, -1, -36.1236, 0.895162, 20.4941, -160.292, -92.7057, 56.405
2.54369, -1, -36.2663, 0.856923, 20.506, -160.339, -92.6885, 56.1262
2.55166, -1, -36.3992, 0.82163, 20.5176, -160.384, -92.672, 55.8637
2.55974, -1, -36.521, 0.789378, 20.5282, -160.425, -92.6569, 55.6242
2.56768, -1, -36.6301, 0.76054, 20.5375, -160.46, -92.6437, 55.4128
2.57572, -1, -36.7247, 0.735481, 20.5448, -160.49, -92.6327, 55.2347
2.58385, -1, -36.8046, 0.714287, 20.5499, -160.515, -92.624, 55.0918
2.59177, -1, -36.8708, 0.696866, 20.5529, -160.533, -92.6175, 54.9836
2.59977, -1, -36.9239, 0.682852, 20.5542, -160.547, -92.6131, 54.9072
2.60782, -1, -36.9642, 0.672016, 20.5545, -160.556, -92.6102, 54.8556
2.61598, -1, -36.9936, 0.664289, 20.5543, -160.561, -92.6086, 54.8243
2.62381, -1, -37.0139, 0.659266, 20.5539, -160.564, -92.6076, 54.8063
2.63181, -1, -37.0262, 0.656258, 20.5535, -160.566, -92.6071, 54.7974
2.63991, 2, -37.0328, 0.654633, 20.5534, -160.567, -92.6069, 54.7931
2.6477, 2, -37.0349, 0.653914, 20.5533, -160.567, -92.6068, 54.7912
2.65584, 2, -37.0348, 0.653603, 20.5533, -160.568, -92.6068, 54.7903
2.66393, 2, -37.0341, 0.653465, 20.5532, -160.568, -92.6068, 54.79
2.6707, 2, -37.0339, 0.653427, 20.5532, -160.568, -92.6068, 54.7898
2.68003, 2, -37.0343, 0.653353, 20.5532, -160.568, -92.6068, 54.7897
2.68665, 2, -37.0348, 0.653345, 20.5532, -160.568, -92.6068, 54.7897
2.69609, 2, -37.0365, 0.653213, 20.553, -160.568, -92.6068, 54.7897
2.70265, 2, -37.0372, 0.65314, 20.5529, -160.568, -92.6068, 54.7897
2.71225, 2, -37.0393, 0.652793, 20.5526, -160.568, -92.6069, 54.7898
2.72019, 2, -37.0405, 0.652531, 20.5525, -160.568, -92.607, 54.7899
2.72827, 2, -37.0415, 0.652305, 20.5523, -160.568, -92.607, 54.7899
2.73629, 2, -37.0419, 0.652208, 20.5521, -160.568, -92.6071, 54.79
2.74428, 2, -37.042, 0.652171, 20.5519, -160.568, -92.6071, 54.7902
2.75234, 2, -37.0417, 0.652164, 20.5518, -160.568, -92.6072, 54.7903
2.7597, 2, -37.041, 0.652185, 20.5517, -160.568, -92.6071, 54.7904
2.76765, 2, -37.0402, 0.652222, 20.5517, -160.568, -92.6071, 54.7906
2.77569, 2, -37.0388, 0.652293, 20.5516, -160.568, -92.6072, 54.7908
2.78374, 2, -37.0373, 0.652367, 20.5515, -160.568, -92.6073, 54.791
2.79164, 2, -37.036, 0.652408, 20.5514, -160.568, -92.6073, 54.7912
2.79971, 2, -37.0352, 0.652427, 20.5514, -160.568, -92.6073, 54.7913
2.80765, 2, -37.0349, 0.652394, 20.5513, -160.568, -92.6073, 54.7914
2.81565, 2, -37.0348, 0.652364, 20.5513, -160.568, -92.6073, 54.7914
2.82379, 2, -37.035, 0.652328, 20.5513, -160.568, -92.6073, 54.7915
2.83166, 2, -37.0352, 0.652275, 20.5513, -160.568, -92.6074, 54.7915
2.83966, 2, -37.0357, 0.652219, 20.5513, -160.568, -92.6074, 54.7915
2.84771, 2, -37.0364, 0.652181, 20.5512, -160.568, -92.6074, 54.7915
2.85571, 2, -37.0371, 0.652175, 20.5512, -160.568, -92.6074, 54.7916
2.86369, 2, -37.0378, 0.652168, 20.5512, -160.568, -92.6074, 54.7917
2.87171, 2, -37.0383, 0.652194, 20.5512, -160.568, -92.6074, 54.7917
2.87965, 2, -37.0386, 0.652242, 20.5512, -160.568, -92.6075, 54.7917
2.88871, 2, -37.0387, 0.652248, 20.5512, -160.568, -92.6075, 54.7918
2.89571, 2, -37.0387, 0.652285, 20.5512, -160.568, -92.6075, 54.7918
2.90368, 2, -37.0384, 0.652309, 20.5512, -160.568, -92.6075, 54.7919
2.91164, 2, -37.0379, 0.652302, 20.5512, -160.568, -92.6075, 54.7919
2.91972, 2, -37.0376, 0.652288, 20.5512, -160.568, -92.6075, 54.792
2.92766, 2, -37.0375, 0.652262, 20.5511, -160.568, -92.6075, 54.792
2.93565, 2, -37.0373, 0.652242, 20.5511, -160.568, -92.6075, 54.792
2.94375, 2, -37.0373, 0.652241, 20.5511, -160.568, -92.6075, 54.7921
2.95177, 2, -37.0373, 0.652217, 20.5511, -160.568, -92.6075, 54.7922
2.95965, 2, -37.0373, 0.652191, 20.5511, -160.568, -92.6075, 54.7922
2.96771, 2, -37.0374, 0.652205, 20.5511, -160.568, -92.6076, 54.7922
2.97564, 2, -37.0375, 0.652224, 20.5511, -160.568, -92.6076, 54.7923
2.98369, 2, -37.0376, 0.65224, 20.551, -160.568, -92.6076, 54.7923
2.99171, 2, -37.0379, 0.652281, 20.551, -160.567, -92.6075, 54.7923
2.99967, 2, -37.038, 0.652289, 20.551, -160.567, -92.6075, 54.7923
3.00764, 2, -37.0381, 0.652311, 20.551, -160.568, -92.6076, 54.7924
3.01572, 2, -37.038, 0.65231, 20.551, -160.567, -92.6076, 54.7925
3.02368, 2, -37.038, 0.652303, 20.551, -160.567, -92.6076, 54.7925
3.03163, 2, -37.038, 0.652281, 20.551, -160.567, -92.6076, 54.7926
3.03972, 2, -37.038, 0.652271, 20.551, -160.567, -92.6076, 54.7927
3.04765, 2, -37.0379, 0.652259, 20.551, -160.567, -92.6076, 54.7927
3.05565, 2, -37.0379, 0.652218, 20.551, -160.567, -92.6076, 54.7928
3.06375, 2, -37.0379, 0.652217, 20.5509, -160.567, -92.6076, 54.7928
3.07167, 2, -37.0379, 0.652217, 20.5509, -160.567, -92.6076, 54.7929
3.07972, 2, -37.0379, 0.652237, 20.5509, -160.567, -92.6077, 54.793
3.08779, 2, -37.0379, 0.65225, 20.5509, -160.567, -92.6077, 54.793
3.09576, 2, -37.0379, 0.652286, 20.5509, -160.567, -92.6077, 54.7931
3.10377, 2, -37.0379, 0.65231, 20.5509, -160.567, -92.6076, 54.7931
3.1118, 2, -37.0378, 0.652302, 20.5509, -160.567, -92.6076, 54.7931
3.11982, 2, -37.0378, 0.652299, 20.5509, -160.567, -92.6076, 54.7932
3.12765, 2, -37.0379, 0.652297, 20.5509, -160.567, -92.6076, 54.7932
3.13572, 2, -37.0379, 0.652286, 20.5509, -160.567, -92.6076, 54.7932
3.14395, 2, -37.0378, 0.652273, 20.5509, -160.567, -92.6077, 54.7932
3.15168, 2, -37.0378, 0.652255, 20.5509, -160.567, -92.6077, 54.7933
3.1598, 2, -37.0378, 0.652247, 20.5509, -160.567, -92.6077, 54.7933
3.16788, 2, -37.0378, 0.652235, 20.5508, -160.567, -92.6077, 54.7933
3.17586, 2, -37.0378, 0.652245, 20.5508, -160.567, -92.6077, 54.7933
3.18401, 2, -37.0378, 0.652254, 20.5508, -160.567, -92.6077, 54.7934
3.19064, 2, -37.0378, 0.652257, 20.5508, -160.567, -92.6077, 54.7934
3.20004, 2, -37.0378, 0.652279, 20.5508, -160.567, -92.6077, 54.7935
3.20664, 2, -37.0377, 0.652284, 20.5508, -160.567, -92.6077, 54.7935
3.21624, 2, -37.0377, 0.652303, 20.5508, -160.567, -92.6077, 54.7936
3.22419, 2, -37.0377, 0.652307, 20.5508, -160.567, -92.6077, 54.7937
3.2322, 2, -37.0377, 0.652312, 20.5508, -160.567, -92.6077, 54.7937
3.2405, 2, -37.0378, 0.652292, 20.5508, -160.567, -92.6077, 54.7936
3.24818, 2, -37.0378, 0.652283, 20.5508, -160.567, -92.6077, 54.7937
3.25623, 2, -37.0377, 0.652272, 20.5507, -160.567, -92.6077, 54.7938
3.2637, 2, -37.0377, 0.652267, 20.5507, -160.567, -92.6077, 54.7938
3.27164, 2, -37.0377, 0.652263, 20.5507, -160.567, -92.6077, 54.7938
3.27968, 2, -37.0376, 0.65227, 20.5507, -160.567, -92.6077, 54.7938
3.28769, 2, -37.0376, 0.652253, 20.5507, -160.567, -92.6077, 54.7939
3.29563, 2, -37.0376, 0.652258, 20.5507, -160.567, -92.6077, 54.7939
3.30372, 2, -37.0376, 0.65229, 20.5506, -160.567, -92.6077, 54.7939
3.31164, 2, -37.0376, 0.652293, 20.5507, -160.567, -92.6076, 54.794
3.31964, 2, -37.0376, 0.652295, 20.5506, -160.567, -92.6077, 54.794
3.32768, 2, -37.0375, 0.652285, 20.5506, -160.567, -92.6077, 54.794
3.3357, 2, -37.0375, 0.652302, 20.5506, -160.567, -92.6077, 54.794
3.34367, 2, -37.0375, 0.652306, 20.5506, -160.567, -92.6077, 54.794
3.3517, 2, -37.0375, 0.652312, 20.5506, -160.567, -92.6077, 54.794
3.35964, 2, -37.0375, 0.652322, 20.5506, -160.567, -92.6077, 54.794
3.36763, 2, -37.0374, 0.652297, 20.5506, -160.567, -92.6078, 54.7941
3.3757, 2, -37.0375, 0.652289, 20.5506, -160.567, -92.6078, 54.7941
3.38549, 2, -37.0374, 0.652293, 20.5506, -160.567, -92.6078, 54.7942
3.39162, 2, -37.0374, 0.652284, 20.5506, -160.567, -92.6077, 54.7942
3.3997, 2, -37.0374, 0.65229, 20.5506, -160.567, -92.6078, 54.7941
3.40763, 2, -37.0374, 0.652286, 20.5505, -160.567, -92.6078, 54.7942
3.41563, 2, -37.0374, 0.65231, 20.5505, -160.567, -92.6078, 54.7942
3.42374, 2, -37.0374, 0.652291, 20.5505, -160.567, -92.6078, 54.7943
3.43164, 2, -37.0374, 0.652294, 20.5505, -160.567, -92.6078, 54.7943
3.43963, 2, -37.0373, 0.652306, 20.5505, -160.567, -92.6078, 54.7943
3.4477, 2, -37.0373, 0.652308, 20.5505, -160.567, -92.6078, 54.7943
3.4557, 2, -37.0373, 0.652302, 20.5505, -160.567, -92.6078, 54.7943
3.46368, 2, -37.0373, 0.652299, 20.5505, -160.567, -92.6078, 54.7943
3.47169, 2, -37.0373, 0.652279, 20.5505, -160.567, -92.6078, 54.7944
3.47964, 2, -37.0373, 0.65227, 20.5505, -160.567, -92.6079, 54.7944
3.48762, 2, -37.0373, 0.652277, 20.5505, -160.567, -92.6079, 54.7943
3.49569, 2, -37.0373, 0.652276, 20.5505, -160.567, -92.6079, 54.7943
3.50369, 2, -37.0373, 0.652287, 20.5505, -160.567, -92.6078, 54.7943
3.51162, 2, -37.0373, 0.652303, 20.5504, -160.567, -92.6078, 54.7943
3.5197, 2, -37.0373, 0.652307, 20.5504, -160.567, -92.6079, 54.7944
3.52763, 2, -37.0373, 0.652301, 20.5504, -160.567, -92.6079, 54.7944
3.53563, 2, -37.0372, 0.652309, 20.5504, -160.567, -92.6078, 54.7944
3.54374, 2, -37.0372, 0.652302, 20.5504, -160.567, -92.6079, 54.7945
3.55165, 2, -37.0372, 0.652306, 20.5504, -160.567, -92.6079, 54.7944
3.55963, 2, -37.0372, 0.652282, 20.5504, -160.567, -92.6079, 54.7944
3.56769, 2, -37.0372, 0.65229, 20.5504, -160.567, -92.6079, 54.7944
3.57567, 2, -37.0372, 0.652304, 20.5504, -160.567, -92.6079, 54.7944
3.58375, 2, -37.0372, 0.652289, 20.5504, -160.567, -92.6079, 54.7945
3.59178, 2, -37.0372, 0.652304, 20.5504, -160.567, -92.6079, 54.7945
3.59976, 2, -37.0372, 0.652307, 20.5503, -160.566, -92.6079, 54.7944
3.60773, 2, -37.0371, 0.652294, 20.5503, -160.566, -92.6079, 54.7944
3.6158, 2, -37.0371, 0.652284, 20.5503, -160.566, -92.6079, 54.7944
3.62383, 2, -37.0371, 0.652291, 20.5503, -160.566, -92.6079, 54.7945
3.63162, 2, -37.0371, 0.652294, 20.5503, -160.566, -92.6079, 54.7945
3.64002, 2, -37.0371, 0.652295, 20.5503, -160.566, -92.608, 54.7945
3.64857, 2, -37.0371, 0.652296, 20.5503, -160.566, -92.6079, 54.7945
3.65575, 2, -37.0371, 0.652307, 20.5503, -160.566, -92.608, 54.7945
3.66405, 2, -37.0371, 0.652319, 20.5503, -160.566, -92.6079, 54.7945
3.67187, 2, -37.037, 0.652307, 20.5503, -160.566, -92.6079, 54.7945
3.68032, 2, -37.037, 0.652308, 20.5503, -160.566, -92.6079, 54.7945
3.688, 2, -37.037, 0.652313, 20.5503, -160.566, -92.6079, 54.7945
3.696, 2, -37.037, 0.652304, 20.5502, -160.566, -92.6079, 54.7945
3.70268, 2, -37.037, 0.652312, 20.5503, -160.566, -92.6079, 54.7945
3.71217, 4, -37.037, 0.652312, 20.5502, -160.566, -92.6079, 54.7946
3.72024, 4, -37.0369, 0.652322, 20.5502, -160.566, -92.6079, 54.7945
3.72825, 4, -37.0369, 0.652326, 20.5502, -160.566, -92.608, 54.7946
3.73619, 4, -37.0369, 0.652328, 20.5502, -160.566, -92.6079, 54.7946
3.74426, 4, -37.0369, 0.652311, 20.5502, -160.566, -92.6079, 54.7946
3.75224, 4, -37.0369, 0.652306, 20.5502, -160.566, -92.6079, 54.7946
3.75962, 4, -37.0369, 0.652312, 20.5502, -160.566, -92.6079, 54.7946
3.76849, 4, -37.0368, 0.652301, 20.5501, -160.566, -92.6079, 54.7946
3.77567, 4, -37.0368, 0.652299, 20.5501, -160.566, -92.608, 54.7946
3.78371, 4, -37.0368, 0.652316, 20.5501, -160.566, -92.6079, 54.7946
3.79167, 4, -37.0368, 0.652313, 20.5502, -160.566, -92.6079, 54.7946
3.79967, 4, -37.0368, 0.652296, 20.5501, -160.566, -92.6079, 54.7947
3.80775, 4, -37.0368, 0.652304, 20.5501, -160.566, -92.6079, 54.7946
3.83153, 4, -37.0367, 0.652326, 20.5501, -160.566, -92.608, 54.7946
3.83422, 4, -37.0367, 0.652327, 20.5501, -160.566, -92.608, 54.7946
3.83599, 4, -37.0367, 0.652327, 20.5501, -160.566, -92.608, 54.7946
3.84187, 4, -37.0367, 0.652329, 20.5501, -160.566, -92.6079, 54.7947
3.84961, 4, -37.0366, 0.652329, 20.5501, -160.566, -92.6079, 54.7946
3.85561, 4, -37.0364, 0.6523, 20.5501, -160.566, -92.6079, 54.7946
3.86372, 4, -37.035, 0.651897, 20.5501, -160.566, -92.6079, 54.7946
3.87162, 4, -37.0309, 0.65018, 20.5505, -160.566, -92.6079, 54.7946
3.87977, 4, -37.0232, 0.645906, 20.5521, -160.566, -92.608, 54.7945
3.88761, 4, -37.0118, 0.638186, 20.5559, -160.566, -92.608, 54.7946
3.89568, 4, -36.9961, 0.626647, 20.5633, -160.565, -92.608, 54.7946
3.90477, 5, -36.9751, 0.610594, 20.5757, -160.562, -92.608, 54.7945
3.9117, 5, -36.9485, 0.590163, 20.5944, -160.558, -92.6078, 54.7945
3.91962, 5, -36.9169, 0.565117, 20.6198, -160.553, -92.6075, 54.7945
3.92768, 5, -36.8806, 0.535676, 20.6522, -160.546, -92.6069, 54.7945
3.93563, 5, -36.8394, 0.501649, 20.6907, -160.538, -92.6059, 54.7944
3.94366, 5, -36.793, 0.462793, 20.7348, -160.528, -92.6045, 54.7944
3.95181, 5, -36.7413, 0.419663, 20.7834, -160.517, -92.6028, 54.7944
3.95958, 5, -36.6851, 0.372864, 20.8351, -160.505, -92.601, 54.7944
3.96764, 5, -36.6247, 0.323269, 20.8889, -160.493, -92.5991, 54.7944
3.97584, 5, -36.5606, 0.271569, 20.9439, -160.481, -92.5972, 54.7944
3.98481, 5, -36.494, 0.218491, 20.9994, -160.469, -92.5952, 54.7944
3.99163, 5, -36.4262, 0.164801, 21.055, -160.457, -92.5933, 54.7944
3.99973, 5, -36.3577, 0.110835, 21.1108, -160.445, -92.5913, 54.7944
4.0085, 5, -36.289, 0.0568233, 21.1664, -160.433, -92.5893, 54.7945
4.01562, 5, -36.2202, 0.00291693, 21.222, -160.421, -92.5872, 54.7945
4.02677, 5, -36.1171, -0.0775544, 21.3055, -160.402, -92.5841, 54.7946
4.03183, 5, -36.0829, -0.104274, 21.3332, -160.396, -92.583, 54.7947
4.03962, 5, -36.0143, -0.157524, 21.3887, -160.383, -92.5809, 54.7949
4.04762, 5, -35.9458, -0.2106, 21.4441, -160.37, -92.5788, 54.7952
4.05568, 5, -35.8773, -0.263482, 21.4994, -160.358, -92.5766, 54.7957
4.06389, 5, -35.8085, -0.316236, 21.5546, -160.345, -92.5745, 54.7964
4.07161, 5, -35.7396, -0.369016, 21.6098, -160.332, -92.5724, 54.7973
4.07981, 5, -35.6704, -0.421777, 21.6647, -160.32, -92.5702, 54.7984
4.08799, 5, -35.601, -0.474583, 21.7195, -160.307, -92.568, 54.7996
4.0957, 5, -35.5312, -0.52745, 21.7741, -160.294, -92.5659, 54.8009
4.10393, 5, -35.4612, -0.580336, 21.8285, -160.282, -92.5637, 54.8025
4.11292, 5, -35.391, -0.633186, 21.8827, -160.269, -92.5614, 54.804
4.11978, 5, -35.3205, -0.686013, 21.9369, -160.256, -92.5593, 54.8058
4.12789, 5, -35.2501, -0.738785, 21.991, -160.243, -92.557, 54.8077
4.13676, 5, -35.1796, -0.791239, 22.0449, -160.23, -92.5548, 54.8097
4.14385, 5, -35.109, -0.843538, 22.0988, -160.216, -92.5525, 54.8119
4.15248, 5, -35.0384, -0.895719, 22.1525, -160.203, -92.5502, 54.8141
4.16147, 5, -34.9679, -0.947578, 22.2061, -160.19, -92.5479, 54.8166
4.16774, 5, -34.8975, -0.99926, 22.2596, -160.177, -92.5456, 54.8191
4.17878, 5, -34.827, -1.05077, 22.313, -160.164, -92.5432, 54.8219
4.18499, 5, -34.7566, -1.10227, 22.3662, -160.151, -92.5408, 54.8246
4.19203, 5, -34.6859, -1.15375, 22.4192, -160.139, -92.5385, 54.8273
4.19861, 5, -34.6504, -1.17943, 22.4457, -160.132, -92.5373, 54.8288
4.20818, 5, -34.5441, -1.25657, 22.5246, -160.112, -92.5337, 54.8335
4.21619, 5, -34.4729, -1.30803, 22.5772, -160.099, -92.5312, 54.8367
4.22413, 5, -34.4015, -1.35947, 22.6296, -160.085, -92.5288, 54.84
4.23237, 5, -34.33, -1.4109, 22.6818, -160.071, -92.5264, 54.8434
4.24072, 5, -34.2584, -1.46221, 22.7338, -160.058, -92.524, 54.8469
4.24819, 5, -34.2225, -1.48782, 22.7859, -160.044, -92.5216, 54.8505
4.25742, 5, -34.1506, -1.53882, 22.8118, -160.037, -92.5203, 54.8523
4.26437, 5, -34.0785, -1.58964, 22.8635, -160.024, -92.518, 54.8582
4.27162, 5, -34.0065, -1.64027, 22.9153, -160.01, -92.5155, 54.8602
4.28051, 5, -33.9343, -1.69062, 22.9669, -159.997, -92.5119, 54.8663
4.28778, 5, -33.8622, -1.7408, 23.0183, -159.983, -92.5107, 54.8683
4.2956, 5, -33.7902, -1.79089, 23.0695, -159.969, -92.5083, 54.8725
4.30375, 5, -33.718, -1.84084, 23.1206, -159.955, -92.506, 54.8767
4.31381, 5, -33.6457, -1.89073, 23.1969, -159.934, -92.5024, 54.8832
4.31961, 5, -33.5731, -1.94068, 23.2223, -159.927, -92.5013, 54.8853
4.32762, 5, -33.5004, -1.9909, 23.2729, -159.912, -92.4989, 54.8895
4.33573, 5, -33.4274, -2.04132, 23.3234, -159.898, -92.4967, 54.8932
4.34362, 5, -33.3545, -2.09203, 23.3736, -159.884, -92.4945, 54.8957
4.3536, 6, -33.2455, -2.16885, 23.4489, -159.863, -92.4911, 54.8968
4.36205, 6, -33.1733, -2.22097, 23.4991, -159.848, -92.4886, 54.8949
4.36761, 6, -33.1373, -2.24736, 23.5243, -159.841, -92.4872, 54.8929
4.37461, 6, -33.0656, -2.30075, 23.5751, -159.825, -92.484, 54.8847
4.3836, 7, -32.9945, -2.35526, 23.6268, -159.807, -92.4796, 54.8714
4.3916, 7, -32.9239, -2.41085, 23.6797, -159.789, -92.4736, 54.8551
4.4038, 7, -32.8188, -2.49697, 23.7619, -159.758, -92.461, 54.8275
4.40775, 7, -32.7841, -2.52645, 23.7902, -159.748, -92.4557, 54.8183
4.41557, 7, -32.7152, -2.58667, 23.8477, -159.725, -92.4433, 54.8005
4.42367, 8, -32.6469, -2.64858, 23.9069, -159.702, -92.429, 54.7833
4.43174, 8, -32.5795, -2.7123, 23.9675, -159.677, -92.4126, 54.7663
4.44059, 8, -32.5128, -2.77785, 24.0293, -159.65, -92.3941, 54.7487
4.44761, 8, -32.4468, -2.84503, 24.0922, -159.623, -92.3741, 54.73
4.4556, 8, -32.3815, -2.91371, 24.1561, -159.595, -92.3526, 54.7099
4.46367, 9, -32.3169, -2.98374, 24.221, -159.567, -92.3301, 54.688
4.47165, 9, -32.2528, -3.05514, 24.2869, -159.537, -92.3064, 54.6643
4.47984, 9, -32.1893, -3.12787, 24.3538, -159.505, -92.2815, 54.6388
4.48865, 9, -32.1264, -3.20181, 24.4216, -159.473, -92.2548, 54.6122
4.49559, 9, -32.0641, -3.27711, 24.4905, -159.441, -92.2262, 54.5844
4.50367, 10, -32.0022, -3.35367, 24.5603, -159.407, -92.1966, 54.555
4.51162, 10, -31.9412, -3.43158, 24.6313, -159.372, -92.1658, 54.5237
4.51961, 10, -31.8805, -3.51095, 24.7032, -159.336, -92.1337, 54.4902
4.52881, 10, -31.8204, -3.59171, 24.7763, -159.3, -92.0996, 54.4552
4.53886, 10, -31.761, -3.67395, 24.8877, -159.243, -92.046, 54.4007
4.5436, 11, -31.7021, -3.75763, 24.9253, -159.223, -92.0277, 54.3819
4.55371, 11, -31.6437, -3.84284, 25.0013, -159.184, -91.9903, 54.3428
4.55974, 11, -31.5858, -3.92947, 25.0781, -159.144, -91.9508, 54.3016
4.56779, 11, -31.5284, -4.01758, 25.1559, -159.103, -91.9098, 54.2589
4.5756, 11, -31.4717, -4.10712, 25.2348, -159.06, -91.8682, 54.2154
4.58364, 12, -31.4154, -4.19817, 25.3147, -159.017, -91.8248, 54.1703
4.59202, 12, -31.3595, -4.29064, 25.3957, -158.973, -91.7793, 54.1229
4.5997, 12, -31.3042, -4.38449, 25.4778, -158.927, -91.7334, 54.0739
4.60832, 12, -31.2495, -4.47964, 25.561, -158.881, -91.6862, 54.024
4.61759, 12, -31.1952, -4.57613, 25.6451, -158.835, -91.6367, 53.9726
4.62345, 13, -31.1414, -4.67415, 25.7302, -158.786, -91.5867, 53.9189
4.63223, 13, -31.0882, -4.77354, 25.8161, -158.737, -91.5351, 53.8642
4.63961, 13, -31.0354, -4.87436, 25.9032, -158.688, -91.4814, 53.8084
4.64833, 13, -30.9833, -4.97676, 25.9913, -158.637, -91.4275, 53.7506
4.6601, 13, -30.9316, -5.08065, 26.1255, -158.56, -91.3431, 53.6616
4.66374, 13, -30.8804, -5.18589, 26.1708, -158.533, -91.3145, 53.6314
4.6725, 14, -30.8299, -5.29267, 26.2621, -158.479, -91.2567, 53.5691
4.68016, 14, -30.78, -5.40087, 26.3544, -158.426, -91.1964, 53.5058
4.68883, 14, -30.7304, -5.51059, 26.4476, -158.371, -91.1359, 53.4416
4.69603, 14, -30.6815, -5.62185, 26.5417, -158.314, -91.0732, 53.375
4.7026, 14, -30.6572, -5.678, 26.5892, -158.286, -91.0413, 53.3412
4.71285, 15, -30.585, -5.8486, 26.7334, -158.199, -90.9444, 53.2385
4.72016, 15, -30.5376, -5.9639, 26.8309, -158.141, -90.8775, 53.1676
4.7285, 15, -30.4906, -6.08064, 26.9295, -158.081, -90.8102, 53.0959
4.73712, 15, -30.4441, -6.19889, 27.0291, -158.02, -90.7406, 53.0223
4.74414, 15, -30.3981, -6.31843, 27.1294, -157.959, -90.6703, 52.9468
4.75218, 16, -30.3753, -6.37882, 27.1799, -157.896, -90.598, 52.8706
4.76032, 16, -30.3302, -6.5008, 27.2818, -157.833, -90.5252, 52.7918
4.76759, 16, -30.2855, -6.62415, 27.3849, -157.801, -90.488, 52.7523
4.7781, 16, -30.2194, -6.8119, 27.5416, -157.704, -90.375, 52.6315
4.78449, 16, -30.1976, -6.87524, 27.5945, -157.671, -90.3364, 52.5902
4.79155, 17, -30.1543, -7.00311, 27.7007, -157.604, -90.2586, 52.5078
4.79959, 17, -30.1115, -7.13258, 27.8077, -157.537, -90.1795, 52.4232
4.80773, 17, -30.0693, -7.26356, 27.9156, -157.468, -90.0991, 52.3382
4.81768, 17, -30.0069, -7.46245, 28.0796, -157.364, -89.9759, 52.2071
4.82364, 17, -29.9863, -7.52939, 28.1349, -157.329, -89.9342, 52.1631
4.83169, 18, -29.9456, -7.66445, 28.2464, -157.258, -89.8498, 52.0736
4.8396, 18, -29.9054, -7.80091, 28.3589, -157.186, -89.7638, 51.9829
4.84765, 18, -29.8657, -7.93886, 28.4721, -157.113, -89.6772, 51.8906
4.85572, 18, -29.8265, -8.07798, 28.5861, -157.039, -89.589, 51.7972
4.8637, 18, -29.7876, -8.21838, 28.7013, -156.965, -89.4995, 51.7022
4.87154, 19, -29.7493, -8.3601, 28.8177, -156.889, -89.4088, 51.6061
4.87867, 19, -29.7114, -8.50342, 28.9353, -156.813, -89.3171, 51.5086
4.88764, 19, -29.674, -8.64839, 29.0539, -156.735, -89.224, 51.4104
4.8972, 19, -29.637, -8.79469, 29.1731, -156.658, -89.1295, 51.3106
4.90373, 19, -29.6006, -8.94216, 29.2931, -156.578, -89.0341, 51.2104
4.91172, 20, -29.5646, -9.0911, 29.4143, -156.498, -88.9375, 51.1082
4.9196, 20, -29.5291, -9.2415, 29.5367, -156.418, -88.8398, 51.0055
4.92878, 20, -29.4939, -9.39348, 29.6601, -156.336, -88.7412, 50.9011
4.93857, 20, -29.4422, -9.62369, 29.8469, -156.212, -88.5911, 50.7424
4.9436, 20, -29.4252, -9.70097, 29.9096, -156.17, -88.5406, 50.6891
4.95259, 21, -29.3915, -9.85652, 30.0357, -156.085, -88.4387, 50.5811
4.95959, 21, -29.3583, -10.0136, 30.1628, -156, -88.3354, 50.4725
4.96758, 21, -29.3254, -10.1723, 30.2911, -155.914, -88.2314, 50.3624
4.97886, 21, -29.277, -10.4121, 30.4852, -155.784, -88.0733, 50.1959
4.98358, 21, -29.261, -10.4925, 30.5503, -155.74, -88.0199, 50.1401
4.99164, 21, -29.2295, -10.6545, 30.6812, -155.651, -87.9127, 50.0274
4.99959, 22, -29.1983, -10.8178, 30.813, -155.561, -87.8045, 49.9142
5.01067, 22, -29.1674, -11.0652, 31.0126, -155.425, -87.6404, 49.7424
5.01566, 22, -29.1371, -11.1481, 31.0796, -155.379, -87.5852, 49.6846
5.02358, 22, -29.1071, -11.3147, 31.2142, -155.287, -87.4738, 49.5685
5.03273, 22, -29.0775, -11.4828, 31.3498, -155.194, -87.3618, 49.4514
5.03966, 23, -29.0483, -11.6526, 31.4862, -155.1, -87.2486, 49.3339
5.04758, 23, -29.0193, -11.8235, 31.6233, -155.005, -87.1345, 49.2155
5.05579, 23, -28.9908, -11.995, 31.7613, -154.91, -87.0198, 49.0965
5.06381, 23, -28.9627, -12.1678, 31.9002, -154.813, -86.9041, 48.9771
5.07161, 23, -28.935, -12.3422, 32.04, -154.716, -86.7873, 48.8569
5.07965, 24, -28.9076, -12.5176, 32.1807, -154.618, -86.6697, 48.7363
5.08764, 24, -28.8804, -12.6936, 32.3221, -154.519, -86.551, 48.6152
5.09573, 24, -28.8537, -12.8703, 32.4641, -154.419, -86.4319, 48.4931
5.10399, 24, -28.8273, -13.0485, 32.607, -154.318, -86.3114, 48.3707
5.11255, 24, -28.8013, -13.2282, 32.751, -154.217, -86.1906, 48.2477
5.11969, 25, -28.7756, -13.4083, 32.8957, -154.114, -86.0691, 48.1244
5.1296, 25, -28.7502, -13.5891, 33.0409, -154.011, -85.9465, 48.0009
5.13664, 25, -28.7249, -13.7712, 33.1867, -153.907, -85.8238, 47.8775
5.1442, 25, -28.6998, -13.9548, 33.3333, -153.803, -85.6997, 47.7537
5.15161, 25, -28.6751, -14.139, 33.4807, -153.697, -85.5754, 47.6298
5.15995, 26, -28.6506, -14.3235, 33.629, -153.591, -85.4503, 47.506
5.16851, 26, -28.6265, -14.5093, 33.7776, -153.484, -85.3248, 47.3815
5.17585, 26, -28.6027, -14.6966, 33.9267, -153.376, -85.1988, 47.2572
5.18468, 26, -28.579, -14.8844, 34.0769, -153.267, -85.0718, 47.133
5.19186, 26, -28.5554, -15.0724, 34.2277, -153.158, -84.9446, 47.0087
5.20007, 27, -28.532, -15.2612, 34.3788, -153.048, -84.8166, 46.8847
5.20672, 27, -28.5205, -15.356, 34.4545, -152.993, -84.7525, 46.823
5.21604, 27, -28.4862, -15.6413, 34.6829, -152.826, -84.5594, 46.638
5.2251, 27, -28.4635, -15.8317, 34.8361, -152.714, -84.4301, 46.515
5.23252, 27, -28.4411, -16.0232, 34.9896, -152.601, -84.3004, 46.3923
5.24013, 27, -28.4188, -16.2162, 35.1431, -152.488, -84.1703, 46.2698
5.24895, 28, -28.4076, -16.4098, 35.2972, -152.374, -84.0398, 46.1478
5.25635, 28, -28.3742, -16.6038, 35.4523, -152.259, -83.9088, 46.0264
5.26578, 28, -28.3632, -16.7987, 35.6077, -152.143, -83.7778, 45.9057
5.27157, 28, -28.3412, -16.8966, 35.6854, -152.086, -83.7121, 45.8456
5.27966, 28, -28.3192, -17.0925, 35.841, -151.969, -83.5805, 45.7259
5.28761, 29, -28.2972, -17.2882, 35.9972, -151.852, -83.4488, 45.6072
5.29557, 29, -28.2755, -17.4844, 36.1541, -151.734, -83.3165, 45.4895
5.30373, 29, -28.2537, -17.6816, 36.3111, -151.616, -83.1841, 45.3727
5.31298, 29, -28.2211, -17.9777, 36.5466, -151.437, -82.9847, 45.1992
5.31957, 29, -28.2104, -18.0765, 36.6255, -151.378, -82.9183, 45.1419
5.32758, 30, -28.1891, -18.2747, 36.7837, -151.257, -82.7849, 45.0279
5.33563, 30, -28.1677, -18.4737, 36.9423, -151.136, -82.6518, 44.9155
5.34356, 30, -28.1463, -18.6728, 37.1007, -151.015, -82.5181, 44.8037
5.35406, 30, -28.1145, -18.9722, 37.3388, -150.831, -82.3176, 44.6391
5.35978, 30, -28.1038, -19.0726, 37.4185, -150.77, -82.2504, 44.585
5.36763, 31, -28.0824, -19.2738, 37.5781, -150.646, -82.1162, 44.4777
5.37558, 31, -28.061, -19.4748, 37.7375, -150.522, -81.9821, 44.3721
5.38357, 31, -28.0398, -19.6758, 37.8969, -150.398, -81.8476, 44.2678
5.39156, 31, -28.0184, -19.8774, 38.057, -150.273, -81.7134, 44.1656
5.39963, 31, -27.9969, -20.0788, 38.2175, -150.147, -81.5789, 44.0646
5.41175, 32, -27.9646, -20.3801, 38.4573, -149.957, -81.3774, 43.9169
5.41553, 32, -27.9536, -20.4809, 38.5371, -149.894, -81.3103, 43.8688
5.42363, 32, -27.9315, -20.6827, 38.697, -149.767, -81.1764, 43.7744
5.43172, 32, -27.909, -20.8841, 38.8571, -149.64, -81.0423, 43.6822
5.44056, 32, -27.8865, -21.0849, 39.0167, -149.513, -80.9087, 43.5932
5.44758, 33, -27.8636, -21.286, 39.1756, -149.385, -80.7755, 43.5066
5.45559, 33, -27.8403, -21.4868, 39.3345, -149.257, -80.6427, 43.4235
5.46363, 33, -27.8166, -21.6867, 39.4935, -149.13, -80.5103, 43.3431
5.47156, 33, -27.7925, -21.8858, 39.6517, -149.002, -80.3784, 43.2663
5.47971, 33, -27.7678, -22.0851, 39.8089, -148.875, -80.247, 43.1923
5.49039, 34, -27.7299, -22.3825, 40.0441, -148.683, -80.0506, 43.0883
5.49558, 34, -27.7171, -22.481, 40.1225, -148.619, -79.9852, 43.0551
5.50481, 34, -27.691, -22.678, 40.2788, -148.492, -79.8544, 42.9906
5.51172, 34, -27.6646, -22.8749, 40.4343, -148.364, -79.7238, 42.93
5.52058, 34, -27.6377, -23.0712, 40.5894, -148.236, -79.593, 42.8728
5.52835, 35, -27.6102, -23.2667, 40.7447, -148.108, -79.4624, 42.8182
5.53565, 35, -27.5826, -23.4622, 40.8997, -147.979, -79.3317, 42.7671
5.5436, 35, -27.5548, -23.6581, 41.0541, -147.851, -79.2013, 42.72
5.55489, 35, -27.5124, -23.9508, 41.2851, -147.657, -79.0059, 42.6552
5.55982, 35, -27.4982, -24.0481, 41.3622, -147.592, -78.9409, 42.6351
5.56882, 36, -27.4694, -24.2429, 41.5164, -147.461, -78.8111, 42.5977
5.57576, 36, -27.4402, -24.4376, 41.67, -147.331, -78.6812, 42.5645
5.58375, 36, -27.4108, -24.6313, 41.8228, -147.2, -78.5522, 42.5357
5.59169, 36, -27.3809, -24.8243, 41.9754, -147.069, -78.4232, 42.511
5.59966, 36, -27.3504, -25.0174, 42.1276, -146.938, -78.2949, 42.4908
5.60773, 36, -27.3192, -25.21, 42.2789, -146.807, -78.1669, 42.4749
5.61569, 37, -27.287, -25.4013, 42.4291, -146.677, -78.0393, 42.4636
5.62367, 37, -27.2542, -25.5915, 42.5783, -146.547, -77.9124, 42.4571
5.63189, 37, -27.2205, -25.7811, 42.7267, -146.418, -77.7856, 42.4542
5.63983, 37, -27.1858, -25.9695, 42.8741, -146.289, -77.6596, 42.4543
5.64757, 37, -27.1501, -26.156, 43.0201, -146.161, -77.5338, 42.4601
5.65569, 38, -27.1136, -26.3412, 43.1647, -146.033, -77.4088, 42.4724
5.66364, 38, -27.0764, -26.5257, 43.3086, -145.906, -77.2843, 42.4899
5.67165, 38, -27.0382, -26.709, 43.4517, -145.78, -77.1603, 42.513
5.68009, 38, -26.9993, -26.8906, 43.5937, -145.653, -77.0368, 42.5416
5.69281, 39, -26.9395, -27.1619, 43.8049, -145.464, -76.8523, 42.5955
5.69591, 39, -26.9192, -27.2522, 43.8749, -145.401, -76.791, 42.6167
5.70554, 39, -26.8781, -27.432, 44.0142, -145.276, -76.6684, 42.6632
5.71352, 39, -26.836, -27.6105, 44.1529, -145.15, -76.5461, 42.7151
5.72012, 39, -26.7933, -27.7883, 44.2908, -145.024, -76.4237, 42.773
5.72812, 39, -26.75, -27.966, 44.4276, -144.899, -76.3014, 42.8377
5.73609, 40, -26.7057, -28.1428, 44.5635, -144.773, -76.1792, 42.9077
5.74418, 40, -26.6603, -28.318, 44.6984, -144.649, -76.0571, 42.985
5.75219, 40, -26.6374, -28.4919, 44.8322, -144.525, -75.9356, 43.0684
5.76019, 40, -26.5908, -28.5785, 44.9647, -144.401, -75.8141, 43.1578
5.76755, 40, -26.5433, -28.7511, 45.0304, -144.34, -75.7537, 43.2055
5.77552, 41, -26.4945, -28.922, 45.1608, -144.218, -75.6333, 43.3051
5.78662, 41, -26.4195, -29.1749, 45.354, -144.036, -75.4531, 43.4677
5.79053, 41, -26.3939, -29.2586, 45.4177, -143.976, -75.3935, 43.5252
5.79955, 41, -26.3416, -29.4251, 45.5441, -143.857, -75.2742, 43.6454
5.80767, 41, -26.2882, -29.5898, 45.6689, -143.739, -75.1554, 43.7728
5.81562, 42, -26.2334, -29.7522, 45.7918, -143.622, -75.0374, 43.9074
5.82355, 42, -26.177, -29.9128, 45.9129, -143.506, -74.9194, 44.0494
5.83062, 42, -26.119, -30.0716, 46.0319, -143.392, -74.8024, 44.1986
5.83955, 42, -26.0593, -30.2284, 46.1487, -143.28, -74.6857, 44.3549
5.8476, 42, -25.9979, -30.3827, 46.2634, -143.17, -74.5696, 44.5185
5.85574, 42, -25.9348, -30.5346, 46.3759, -143.062, -74.4542, 44.6889
5.86362, 43, -25.87, -30.6842, 46.486, -142.956, -74.3389, 44.867
5.87057, 43, -25.8035, -30.8317, 46.5941, -142.852, -74.2243, 45.0528
5.87978, 43, -25.7354, -30.977, 46.7001, -142.749, -74.1101, 45.2463
5.89137, 43, -25.6303, -31.1905, 46.8556, -142.599, -73.9395, 45.5507
5.89555, 43, -25.5945, -31.2606, 46.9065, -142.549, -73.8829, 45.656
5.90357, 44, -25.5217, -31.3993, 47.0067, -142.452, -73.77, 45.8727
5.91161, 44, -25.4471, -31.5359, 47.1046, -142.358, -73.658, 46.0974
5.91955, 44, -25.3706, -31.6704, 47.2001, -142.265, -73.5465, 46.3302
5.92983, 44, -25.2528, -31.8671, 47.3387, -142.131, -73.3804, 46.6946
5.9357, 44, -25.2126, -31.9314, 47.3837, -142.088, -73.3254, 46.8201
5.94361, 45, -25.1308, -32.0579, 47.472, -142.003, -73.2158, 47.0776
5.95159, 45, -25.0469, -32.1815, 47.5578, -141.921, -73.1066, 47.3438
5.95971, 45, -24.9609, -32.3023, 47.6408, -141.842, -72.9982, 47.618
5.97264, 45, -24.828, -32.4779, 47.7597, -141.729, -72.8358, 48.0448
5.97557, 45, -24.7824, -32.5348, 47.7978, -141.693, -72.7821, 48.1914
5.98355, 46, -24.6896, -32.646, 47.8718, -141.623, -72.675, 48.4913
5.99155, 46, -24.5945, -32.7538, 47.9429, -141.556, -72.5683, 48.7995
5.99961, 46, -24.4968, -32.8583, 48.0111, -141.493, -72.4626, 49.116
6.00774, 46, -24.397, -32.9591, 48.0761, -141.434, -72.3576, 49.4415
6.01595, 46, -24.2948, -33.0561, 48.1377, -141.378, -72.2534, 49.7754
6.02357, 47, -24.1902, -33.1494, 48.1959, -141.327, -72.1506, 50.1174
6.03158, 47, -24.0833, -33.2388, 48.2504, -141.279, -72.0487, 50.4676
6.03965, 47, -23.9737, -33.3241, 48.3013, -141.235, -71.948, 50.8264
6.0476, 47, -23.8615, -33.4053, 48.3484, -141.197, -71.8487, 51.1934
6.05571, 47, -23.7467, -33.4824, 48.3916, -141.163, -71.7506, 51.5691
6.06454, 48, -23.629, -33.5552, 48.4308, -141.134, -71.6538, 51.9533
6.07165, 48, -23.5086, -33.6236, 48.4659, -141.109, -71.559, 52.3455
6.08014, 48, -23.3857, -33.6873, 48.4967, -141.089, -71.4656, 52.7469
6.0878, 48, -23.2604, -33.7463, 48.5235, -141.074, -71.374, 53.1573
6.09562, 48, -23.1324, -33.8001, 48.546, -141.064, -71.2848, 53.5759
6.10463, 49, -23.0015, -33.849, 48.564, -141.059, -71.1973, 54.0034
6.11358, 49, -22.8678, -33.8925, 48.5777, -141.058, -71.1116, 54.4385
6.11967, 49, -22.731, -33.9305, 48.5866, -141.063, -71.0283, 54.8812
6.13137, 49, -22.5205, -33.977, 48.5913, -141.082, -70.907, 55.5598
6.13588, 49, -22.4489, -33.9897, 48.5907, -141.092, -70.8677, 55.7898
6.14387, 50, -22.3036, -34.0104, 48.5855, -141.116, -70.7909, 56.256
6.15226, 50, -22.1556, -34.0249, 48.5753, -141.145, -70.7172, 56.7289
6.16163, 50, -22.0051, -34.0332, 48.5599, -141.18, -70.646, 57.2101
6.16856, 50, -21.8515, -34.0355, 48.5393, -141.222, -70.5782, 57.6993
6.17565, 50, -21.6949, -34.0316, 48.5132, -141.27, -70.5132, 58.1958
6.1841, 50, -21.5352, -34.0211, 48.4815, -141.324, -70.4527, 58.6994
6.19283, 51, -21.3727, -34.0037, 48.4446, -141.385, -70.3947, 59.2089
6.19985, 51, -21.2074, -33.9795, 48.4021, -141.452, -70.3411, 59.7251
6.209, 51, -21.0396, -33.9481, 48.354, -141.525, -70.2912, 60.247
6.21693, 51, -20.8693, -33.9096, 48.3003, -141.604, -70.2445, 60.7749
6.22402, 51, -20.6964, -33.8636, 48.2408, -141.69, -70.2023, 61.3081
6.23712, 52, -20.4321, -33.7799, 48.1403, -141.83, -70.1482, 62.1204
6.24061, 52, -20.3426, -33.748, 48.1038, -141.88, -70.1323, 62.3943
6.24878, 52, -20.1614, -33.6781, 48.0263, -141.985, -70.1039, 62.9475
6.25614, 52, -20.0698, -33.6, 47.9425, -142.096, -70.0807, 63.5062
6.26418, 52, -19.8846, -33.5578, 47.8524, -142.213, -70.0628, 64.0713
6.27151, 53, -19.6971, -33.4669, 47.8051, -142.274, -70.0559, 64.356
6.27954, 53, -19.5077, -33.3677, 47.7058, -142.401, -70.0463, 64.9293
6.28857, 53, -19.3163, -33.2603, 47.6006, -142.534, -70.0415, 65.7964
6.301, 53, -19.0257, -33.021, 47.3726, -142.815, -70.0484, 66.6713
6.3035, 53, -18.928, -33.021, 47.3726, -142.815, -70.0484, 66.6713
6.3117, 54, -18.7313, -32.8889, 47.2497, -142.963, -70.0608, 67.2575
6.31968, 54, -18.5329, -32.7485, 47.121, -143.116, -70.0796, 67.8444
6.32754, 54, -18.3323, -32.5998, 46.9867, -143.274, -70.1053, 68.4327
6.33811, 54, -18.0285, -32.3616, 46.775, -143.518, -70.1556, 69.3178
6.34372, 54, -17.9266, -32.2778, 46.7015, -143.602, -70.1753, 69.6137
6.35366, 55, -17.6195, -32.0125, 46.4714, -143.86, -70.2466, 70.5048
6.35954, 55, -17.5166, -31.9194, 46.3916, -143.948, -70.2744, 70.8037
6.36966, 55, -17.2055, -31.6263, 46.1423, -144.221, -70.3689, 71.7075
6.3756, 55, -17.101, -31.5237, 46.0556, -144.314, -70.4052, 72.0108
6.38361, 55, -16.8906, -31.3103, 45.8761, -144.505, -70.4835, 72.6211
6.3917, 56, -16.6786, -31.0861, 45.6896, -144.701, -70.5713, 73.2368
6.39951, 56, -16.465, -30.8516, 45.4965, -144.901, -70.668, 73.8571
6.40761, 56, -16.2502, -30.6061, 45.2956, -145.106, -70.7738, 74.4801
6.41669, 56, -16.035, -30.3497, 45.0871, -145.314, -70.8894, 75.1064
6.42361, 56, -15.82, -30.0831, 44.8728, -145.526, -71.0141, 75.7356
6.43175, 57, -15.6046, -29.8053, 44.6518, -145.741, -71.1483, 76.3661
6.43954, 57, -15.388, -29.5174, 44.4237, -145.959, -71.292, 76.9973
6.4476, 57, -15.1703, -29.2192, 44.1897, -146.18, -71.4457, 77.6301
6.45555, 57, -14.952, -28.9111, 43.9494, -146.402, -71.6087, 78.263
6.46368, 57, -14.734, -28.5947, 43.7032, -146.626, -71.7815, 78.8942
6.4725, 58, -14.5164, -28.2697, 43.4527, -146.85, -71.963, 79.5235
6.4796, 58, -14.2998, -27.9376, 43.1975, -147.074, -72.1525, 80.1493
6.48754, 58, -14.0847, -27.5975, 42.9393, -147.297, -72.3493, 80.7694
6.49549, 58, -13.8711, -27.2505, 42.6784, -147.518, -72.5533, 81.3823
6.50361, 58, -13.659, -26.8967, 42.4141, -147.736, -72.7641, 81.9889
6.51154, 58, -13.448, -26.5365, 42.1474, -147.953, -72.9816, 82.5894
6.5196, 59, -13.2385, -26.169, 41.8768, -148.168, -73.2062, 83.1835
6.52753, 59, -13.031, -25.7949, 41.6028, -148.38, -73.4385, 83.7725
6.53679, 59, -12.825, -25.4139, 41.3252, -148.592, -73.679, 84.358
6.54376, 59, -12.6202, -25.0264, 41.0433, -148.801, -73.928, 84.9403
6.55254, 59, -12.4162, -24.6307, 40.7574, -149.009, -74.1861, 85.519
6.56035, 60, -12.2132, -24.2273, 40.4666, -149.216, -74.4532, 86.0945
6.56819, 60, -12.0117, -23.8165, 40.1724, -149.421, -74.7295, 86.667
6.5756, 60, -11.8115, -23.3995, 39.8744, -149.623, -75.0144, 87.2365
6.58698, 60, -11.5145, -22.7628, 39.4235, -149.922, -75.457, 88.0808
6.5918, 60, -11.4166, -22.548, 39.2722, -150.02, -75.608, 88.3597
6.59961, 61, -11.2227, -22.1154, 38.9686, -150.213, -75.9149, 88.9126
6.60795, 61, -11.0312, -21.6789, 38.6644, -150.401, -76.2268, 89.4571
6.61577, 61, -10.8418, -21.2391, 38.3599, -150.585, -76.5429, 89.9917
6.62455, 61, -10.6548, -20.7961, 38.0558, -150.763, -76.8631, 90.5168
6.63164, 61, -10.4703, -20.3498, 37.7517, -150.935, -77.1869, 91.0322
6.63959, 62, -10.2882, -19.9003, 37.4484, -151.103, -77.5148, 91.5388
6.64843, 62, -10.109, -19.4477, 37.1445, -151.266, -77.8473, 92.0368
6.65556, 62, -9.93255, -18.993, 36.8404, -151.424, -78.1848, 92.5266
6.66465, 62, -9.75873, -18.5354, 36.535, -151.578, -78.5276, 93.0099
6.67204, 62, -9.58738, -18.076, 36.2293, -151.727, -78.8756, 93.4855
6.68, 63, -9.41811, -17.615, 35.9234, -151.872, -79.2283, 93.9533
6.68877, 63, -9.251, -17.1524, 35.6184, -152.012, -79.5854, 94.4118
6.69581, 63, -9.08613, -16.688, 35.3145, -152.147, -79.9459, 94.8609
6.70466, 63, -8.92389, -16.2217, 35.0118, -152.276, -80.3092, 95.3
6.71229, 63, -8.76421, -15.7534, 34.7106, -152.399, -80.675, 95.7284
6.72096, 63, -8.60711, -15.2834, 34.4107, -152.518, -81.0432, 96.1471
6.72892, 64, -8.45257, -14.8123, 34.1131, -152.63, -81.4138, 96.5543
6.7371, 64, -8.30051, -14.3402, 33.8162, -152.738, -81.7873, 96.9512
6.74488, 64, -8.15081, -13.8682, 33.5207, -152.841, -82.1639, 97.3381
6.75216, 64, -8.00351, -13.3967, 33.2259, -152.939, -82.5432, 97.714
6.76014, 64, -7.93077, -12.9262, 32.9331, -153.031, -82.9252, 98.0783
6.76946, 65, -7.7165, -12.4573, 32.6425, -153.117, -83.3085, 98.4309
6.77551, 65, -7.6464, -12.2233, 32.4982, -153.158, -83.5005, 98.6023
6.78352, 65, -7.50859, -11.7567, 32.2128, -153.236, -83.8851, 98.9346
6.7924, 65, -7.37381, -11.2913, 31.931, -153.308, -84.2691, 99.4071
6.7995, 65, -7.2419, -10.8273, 31.653, -153.374, -84.6528, 99.5575
6.80752, 66, -7.11272, -10.3659, 31.3793, -153.434, -85.0352, 99.847
6.81553, 66, -6.98577, -9.9077, 31.1088, -153.489, -85.4166, 100.121
6.82357, 66, -6.86099, -9.45394, 30.8429, -153.538, -85.7973, 100.38
6.83152, 66, -6.73836, -9.00521, 30.5806, -153.581, -86.1762, 100.623
6.83966, 66, -6.61799, -8.56244, 30.3223, -153.619, -86.5532, 100.849
6.84773, 67, -6.50009, -8.12537, 30.0692, -153.651, -86.9269, 101.058
6.85552, 67, -6.38487, -7.6942, 29.8211, -153.678, -87.2972, 101.251
6.86507, 67, -6.21737, -7.05836, 29.4617, -153.707, -87.8439, 101.506
6.87152, 67, -6.16284, -6.84908, 29.3451, -153.713, -88.0237, 101.582
6.8796, 67, -6.05572, -6.43533, 29.1161, -153.723, -88.3797, 101.722
6.88917, 68, -5.95077, -6.02754, 28.8935, -153.728, -88.9055, 101.899
6.89573, 68, -5.8478, -5.626, 28.6762, -153.73, -89.0791, 101.949
6.90352, 68, -5.74665, -5.2295, 28.4628, -153.726, -89.4243, 102.037
6.91494, 68, -5.59808, -4.64508, 28.1501, -153.712, -89.939, 102.135
6.91967, 68, -5.54936, -4.45291, 28.0475, -153.705, -90.11, 102.158
6.92753, 69, -5.45325, -4.07178, 27.8445, -153.687, -90.451, 102.19
6.93559, 69, -5.35895, -3.69425, 27.6456, -153.666, -90.7914, 102.205
6.94352, 69, -5.2663, -3.32069, 27.4512, -153.639, -91.1311, 102.202
6.95158, 69, -5.17541, -2.95092, 27.26, -153.608, -91.47, 102.177
6.95954, 69, -5.08621, -2.58499, 27.0722, -153.574, -91.8076, 102.132
6.96765, 70, -4.99864, -2.22222, 26.8889, -153.536, -92.1439, 102.064
6.97587, 70, -4.91231, -1.86385, 26.7093, -153.493, -92.4787, 101.974
6.98351, 70, -4.82726, -1.5101, 26.5327, -153.447, -92.812, 101.863
6.99158, 70, -4.74325, -1.16207, 26.3604, -153.398, -93.1431, 101.729
6.99952, 70, -4.6604, -0.819197, 26.1928, -153.346, -93.472, 101.573
7.00748, 71, -4.57863, -0.482952, 26.029, -153.29, -93.798, 101.395
7.01575, 71, -4.4979, -0.152924, 25.8691, -153.232, -94.121, 101.197
7.02457, 71, -4.41824, 0.170033, 25.7146, -153.17, -94.4404, 100.977
7.03254, 71, -4.33943, 0.48664, 25.5656, -153.107, -94.7557, 100.738
7.04069, 71, -4.26137, 0.797093, 25.4214, -153.041, -95.0673, 100.477
7.04849, 71, -4.1842, 1.10053, 25.2818, -152.974, -95.375, 100.198
7.05652, 72, -4.10756, 1.39741, 25.1467, -152.905, -95.679, 99.8979
7.06549, 72, -4.03112, 1.68715, 25.0155, -152.834, -95.9799, 99.5777
7.07152, 72, -3.95495, 1.97067, 24.8877, -152.763, -96.2782, 99.2372
7.07959, 72, -3.87885, 2.2484, 24.7631, -152.69, -96.5738, 98.876
7.08752, 72, -3.80281, 2.51943, 24.6416, -152.617, -96.867, 98.4934
7.09574, 73, -3.72691, 2.78463, 24.5232, -152.543, -97.1578, 98.0887
7.10367, 73, -3.65079, 3.04369, 24.4081, -152.47, -97.4461, 97.662
7.11161, 73, -3.57442, 3.29615, 24.2966, -152.396, -97.7315, 97.2127
7.11968, 73, -3.4978, 3.54239, 24.189, -152.323, -98.0139, 96.7427
7.12772, 73, -3.42079, 3.78158, 24.0853, -152.252, -98.2926, 96.2518
7.13565, 74, -3.34313, 4.01233, 23.9857, -152.181, -98.5671, 95.7419
7.14385, 74, -3.26479, 4.23489, 23.8899, -152.111, -98.8365, 95.2148
7.15152, 74, -3.18581, 4.4491, 23.7982, -152.043, -99.1001, 94.673
7.15963, 74, -3.10616, 4.6536, 23.7108, -151.977, -99.3573, 94.119
7.16793, 74, -3.02584, 4.84852, 23.6276, -151.914, -99.6074, 93.553
7.17563, 75, -2.94459, 5.03424, 23.5487, -151.853, -99.8495, 92.9769
7.18369, 75, -2.86235, 5.20982, 23.4739, -151.796, -100.083, 92.3926
7.19271, 75, -2.77911, 5.37441, 23.4028, -151.74, -100.308, 91.8003
7.20236, 75, -2.69491, 5.52845, 23.3356, -151.688, -100.524, 91.1998
7.20802, 75, -2.60972, 5.67186, 23.2722, -151.64, -100.731, 90.5919
7.21615, 76, -2.52366, 5.80398, 23.213, -151.594, -100.928, 89.9767
7.224, 76, -2.4366, 5.92473, 23.1582, -151.553, -101.116, 89.3528
7.23203, 76, -2.34871, 6.03376, 23.1077, -151.516, -101.295, 88.7197
7.2448, 76, -2.21552, 6.17426, 23.0404, -151.467, -101.545, 87.7565
7.24879, 76, -2.17072, 6.21476, 23.0204, -151.452, -101.624, 87.4322
7.25628, 77, -2.08049, 6.2859, 22.9842, -151.426, -101.771, 86.7802
7.26495, 77, -2.03504, 6.31653, 22.9681, -151.405, -101.906, 86.1268
7.27205, 77, -1.94341, 6.36783, 22.94, -151.395, -101.968, 85.8008
7.2795, 77, -1.85086, 6.40512, 22.9176, -151.38, -102.082, 85.1508
7.28755, 77, -1.75751, 6.42822, 22.9011, -151.368, -102.182, 84.5038
7.29567, 77, -1.66334, 6.43707, 22.8904, -151.36, -102.267, 83.861
7.30363, 78, -1.5684, 6.43111, 22.8854, -151.356, -102.336, 83.2235
7.31166, 78, -1.47273, 6.4098, 22.8858, -151.354, -102.39, 82.5892
7.31952, 78, -1.37668, 6.37318, 22.8921, -151.355, -102.428, 81.959
7.32757, 78, -1.28025, 6.3206, 22.9044, -151.359, -102.451, 81.3335
7.33551, 78, -1.18355, 6.25193, 22.9231, -151.367, -102.458, 80.7136
7.34364, 79, -1.08669, 6.16712, 22.9486, -151.379, -102.448, 80.0992
7.35302, 79, -0.989716, 6.06619, 23.0004, -151.402, -102.399, 79.1926
7.3595, 79, -0.892705, 5.94915, 23.0214, -151.411, -102.374, 78.8952
7.36904, 79, -0.747188, 5.74279, 23.0956, -151.442, -102.273, 78.0167
7.3755, 79, -0.698696, 5.66575, 23.1242, -151.454, -102.23, 77.7288
7.38355, 80, -0.601625, 5.49929, 23.1869, -151.48, -102.131, 77.1609
7.39509, 80, -0.455966, 5.21856, 23.2954, -151.521, -101.947, 76.3297
7.40232, 80, -0.359038, 5.01066, 23.3779, -151.55, -101.802, 75.7873
7.40827, 80, -0.310607, 4.9001, 23.4222, -151.565, -101.722, 75.5198
7.41557, 80, -0.213808, 4.66506, 23.5171, -151.597, -101.548, 74.9917
7.42365, 81, -0.117177, 4.41249, 23.6207, -151.631, -101.355, 74.4738
7.4315, 81, -0.0206656, 4.14332, 23.7332, -151.665, -101.143, 73.9648
7.43957, 81, 0.075573, 3.85683, 23.8549, -151.7, -100.912, 73.4648
7.44775, 81, 0.171671, 3.55398, 23.9861, -151.736, -100.661, 72.9744
7.45561, 81, 0.267577, 3.23372, 24.1273, -151.773, -100.391, 72.4936
7.46352, 82, 0.363179, 2.89623, 24.2784, -151.81, -100.102, 72.0225
7.47152, 82, 0.458622, 2.54224, 24.4388, -151.848, -99.7937, 71.5607
7.47957, 82, 0.553715, 2.17228, 24.6084, -151.885, -99.4663, 71.1084
7.48751, 82, 0.648585, 1.78605, 24.7879, -151.923, -99.1212, 70.6659
7.49668, 82, 0.743321, 1.38337, 24.9768, -151.959, -98.7584, 70.2337
7.50593, 83, 0.838014, 0.964853, 25.1746, -151.995, -98.3787, 69.6047
7.51251, 83, 0.932697, 0.53184, 25.3821, -152.031, -97.9828, 69.4
7.5269, 83, 1.07478, -0.145058, 25.7125, -152.082, -97.3597, 68.6078
7.52884, 83, 1.12221, -0.378038, 25.827, -152.098, -97.1442, 68.6078
7.537, 83, 1.21717, -0.854501, 26.0627, -152.129, -96.7017, 68.2264
7.5437, 84, 1.31222, -1.34531, 26.3087, -152.159, -96.2443, 67.8551
7.55163, 84, 1.40748, -1.84957, 26.564, -152.188, -95.7715, 67.4921
7.5595, 84, 1.50297, -2.36679, 26.8299, -152.215, -95.2837, 67.1367
7.56758, 84, 1.59876, -2.89778, 27.1059, -152.241, -94.78, 66.789
7.57786, 84, 1.69499, -3.44231, 27.3923, -152.265, -94.2613, 66.4482
7.58371, 84, 1.79164, -4.00028, 27.6895, -152.287, -93.7276, 66.1139
7.59257, 85, 1.88854, -4.57111, 27.9966, -152.308, -93.1788, 65.7873
7.59976, 85, 1.98569, -5.15289, 28.3137, -152.327, -92.6152, 65.4687
7.60786, 85, 2.08325, -5.74486, 28.6398, -152.344, -92.0397, 65.1578
7.61561, 85, 2.18121, -6.34633, 28.9753, -152.358, -91.4534, 64.8552
7.62366, 85, 2.27993, -6.95568, 29.3191, -152.37, -90.8571, 64.5621
7.63234, 86, 2.37921, -7.57229, 29.6708, -152.378, -90.2511, 64.2786
7.63981, 86, 2.47945, -8.19499, 30.0296, -152.383, -89.6359, 64.0055
7.64769, 86, 2.58074, -8.82392, 30.3949, -152.386, -89.0127, 63.7434
7.65746, 86, 2.68269, -9.4581, 30.7655, -152.387, -88.3854, 63.4927
7.66382, 86, 2.78584, -10.0966, 31.1414, -152.384, -87.7535, 63.2535
7.67161, 87, 2.89007, -10.7391, 31.5231, -152.378, -87.1157, 63.0261
7.67965, 87, 2.9949, -11.3843, 31.9091, -152.368, -86.473, 62.8108
7.68775, 87, 3.10095, -12.0325, 32.2997, -152.354, -85.8253, 62.6077
7.69573, 87, 3.20777, -12.6831, 32.6951, -152.337, -85.1732, 62.4178
7.70385, 87, 3.31525, -13.3365, 33.0958, -152.315, -84.5175, 62.2403
7.71195, 88, 3.42353, -13.9931, 33.5018, -152.289, -83.8559, 62.0756
7.71999, 88, 3.53229, -14.6524, 33.9128, -152.26, -83.1886, 61.9241
7.72796, 88, 3.64154, -15.3133, 34.3293, -152.227, -82.5159, 61.7861
7.7365, 88, 3.7512, -15.9748, 34.7509, -152.188, -81.838, 61.6623
7.74711, 88, 3.86118, -16.6358, 35.1767, -152.145, -81.1577, 61.5537
7.75209, 89, 3.97146, -17.2947, 35.6058, -152.098, -80.4759, 61.4618
7.76547, 89, 4.13727, -18.2777, 36.2518, -152.016, -79.4519, 61.3576
7.76834, 89, 4.19271, -18.6038, 36.4673, -151.986, -79.1103, 61.3322
7.77637, 89, 4.24829, -18.929, 36.683, -151.923, -78.4286, 61.2966
7.7835, 89, 4.35975, -19.5761, 37.1132, -151.889, -78.09, 61.2864
7.79242, 90, 4.4712, -20.2172, 37.7553, -151.781, -77.0815, 61.2858
7.79951, 90, 4.58321, -20.853, 37.9686, -151.742, -76.7466, 61.2973
7.8075, 90, 4.6958, -21.4835, 38.3944, -151.66, -76.0784, 61.3378
7.81737, 90, 4.86449, -22.4199, 39.0307, -151.527, -75.0815, 61.4425
7.82508, 90, 4.97666, -23.0383, 39.4544, -151.431, -74.4211, 61.544
7.83156, 90, 5.03261, -23.3461, 39.6661, -151.38, -74.0915, 61.6045
7.83949, 91, 5.14435, -23.959, 40.0894, -151.275, -73.4318, 61.7458
7.8475, 91, 5.25564, -24.5669, 40.5127, -151.162, -72.7717, 61.9158
7.85553, 91, 5.36634, -25.1701, 40.9364, -151.043, -72.1109, 62.1146
7.8635, 91, 5.47628, -25.7677, 41.3593, -150.917, -71.4485, 62.3435
7.87147, 91, 5.58564, -26.3582, 41.781, -150.785, -70.7878, 62.6029
7.8795, 92, 5.69475, -26.9411, 42.2012, -150.646, -70.1292, 62.8941
7.8891, 92, 5.85941, -27.8002, 42.8249, -150.428, -69.1455, 63.3891
7.89549, 92, 5.91461, -28.0822, 43.0301, -150.353, -68.8195, 63.5694
7.90452, 92, 6.02546, -28.639, 43.4366, -150.199, -68.1703, 63.9538
7.91155, 92, 6.13733, -29.1846, 43.8367, -150.042, -67.5273, 64.3691
7.92456, 93, 6.30789, -29.982, 44.4243, -149.801, -66.5751, 65.0511
7.92751, 93, 6.36569, -30.2423, 44.6168, -149.72, -66.26, 65.2942
7.93549, 93, 6.48301, -30.7554, 44.9974, -149.557, -65.6325, 65.8038
7.94355, 93, 6.60257, -31.2606, 45.3725, -149.393, -65.0079, 66.3471
7.9515, 93, 6.7244, -31.7602, 45.7428, -149.229, -64.3847, 66.927
7.9597, 94, 6.84836, -32.2544, 46.1098, -149.063, -63.7608, 67.5483
7.96757, 94, 6.9743, -32.7437, 46.4744, -148.898, -63.1318, 68.2158
7.97549, 94, 7.10202, -33.2275, 46.8377, -148.731, -62.4964, 68.9354
7.98348, 94, 7.23152, -33.704, 47.1992, -148.566, -61.8549, 69.7073
7.99155, 94, 7.36387, -34.1736, 47.5579, -148.404, -61.2072, 70.5303
7.99948, 95, 7.49994, -34.6354, 47.9103, -148.247, -60.5579, 71.4071
8.00753, 95, 7.64086, -35.0869, 48.2547, -148.099, -59.9115, 72.3301
8.01551, 95, 7.78785, -35.5281, 48.5884, -147.963, -59.2696, 73.2942
8.02348, 95, 7.94125, -35.9564, 48.91, -147.841, -58.6348, 74.2978
8.03152, 95, 8.10172, -36.3671, 49.2163, -147.736, -58.008, 75.3355
8.03974, 96, 8.26909, -36.7579, 49.5075, -147.648, -57.3904, 76.4084
8.04749, 96, 8.44337, -37.1276, 49.782, -147.58, -56.787, 77.5111
8.05559, 96, 8.62383, -37.4743, 50.0398, -147.532, -56.1973, 78.6436
8.06349, 96, 8.8096, -37.7965, 50.2805, -147.505, -55.622, 79.7988
8.07233, 96, 9.00018, -38.0931, 50.502, -147.498, -55.0641, 80.9711
8.07968, 96, 9.19417, -38.3649, 50.7039, -147.512, -54.5262, 82.1547
8.08749, 97, 9.38997, -38.6112, 50.8865, -147.547, -54.0108, 83.3483
8.0963, 97, 9.58617, -38.8321, 51.0484, -147.605, -53.5204, 84.5464
8.10354, 97, 9.78174, -39.0286, 51.19, -147.682, -53.0563, 85.7396
8.11157, 97, 9.97594, -39.2004, 51.312, -147.776, -52.6212, 86.92
8.12084, 97, 10.1676, -39.3462, 51.4144, -147.886, -52.216, 88.0801
8.12759, 97, 10.3557, -39.4667, 51.4976, -148.008, -51.8414, 89.214
8.13591, 98, 10.5401, -39.5619, 51.5625, -148.142, -51.4976, 90.3142
8.14359, 98, 10.722, -39.6329, 51.6095, -148.285, -51.1841, 91.3815
8.15149, 98, 10.9021, -39.6811, 51.639, -148.437, -50.8986, 92.4231
8.15958, 98, 11.0806, -39.7063, 51.6511, -148.601, -50.6377, 93.4529
8.16754, 98, 11.257, -39.7081, 51.6467, -148.777, -50.3978, 94.4854
8.17568, 98, 11.4322, -39.6865, 51.625, -148.966, -50.1768, 95.5311
8.18433, 98, 11.6076, -39.641, 51.5856, -149.168, -49.9748, 96.5982
8.19176, 99, 11.7829, -39.5722, 51.5285, -149.384, -49.7929, 97.6862
8.19975, 99, 11.9567, -39.4808, 51.4529, -149.612, -49.6341, 98.7918
8.20855, 99, 12.1278, -39.3666, 51.3588, -149.848, -49.5015, 99.903
8.21586, 99, 12.2953, -39.2302, 51.2467, -150.09, -49.3982, 101.01
8.22415, 99, 12.4575, -39.0715, 51.1172, -150.334, -49.3258, 102.101
8.23202, 99, 12.6126, -38.8907, 50.9715, -150.577, -49.284, 103.169
8.24249, 100, 12.7591, -38.6859, 50.8103, -150.817, -49.2738, 104.205
8.24805, 100, 12.8968, -38.4569, 50.6326, -151.052, -49.2954, 105.213
8.25626, 100, 13.0255, -38.2051, 50.4376, -151.282, -49.3486, 106.191
8.26417, 100, 13.0865, -37.9312, 50.2263, -151.505, -49.4329, 107.146
8.27321, 100, 13.2026, -37.7866, 49.9975, -151.723, -49.5487, 108.077
8.27949, 100, 13.3106, -37.4809, 49.8761, -151.829, -49.6181, 108.534
8.28748, 101, 13.4103, -37.1515, 49.6206, -152.036, -49.7796, 109.434
8.29659, 101, 13.5448, -36.6117, 49.2056, -152.332, -50.078, 110.738
8.30349, 101, 13.5858, -36.4189, 49.0587, -152.426, -50.1923, 111.162
8.31153, 101, 13.6617, -36.0144, 48.7522, -152.607, -50.443, 111.992
8.3196, 101, 13.7293, -35.5857, 48.4275, -152.779, -50.7242, 112.797
8.32748, 101, 13.7886, -35.1339, 48.0856, -152.94, -51.0369, 113.583
8.33553, 102, 13.8392, -34.66, 47.7262, -153.09, -51.3821, 114.346
8.34954, 102, 13.9125, -33.6423, 46.957, -153.354, -52.1701, 115.799
8.35149, 102, 13.9125, -33.6423, 46.957, -153.354, -52.1701, 115.799
8.35949, 102, 13.9351, -33.098, 46.5485, -153.466, -52.6126, 116.489
8.36748, 102, 13.9489, -32.5322, 46.1265, -153.564, -53.0863, 117.152
8.37554, 102, 13.9548, -31.9451, 45.6904, -153.649, -53.5885, 117.79
8.38348, 103, 13.9534, -31.3379, 45.2409, -153.72, -54.1166, 118.401
8.39153, 103, 13.9454, -30.7122, 44.7796, -153.778, -54.6687, 118.986
8.39955, 103, 13.9311, -30.0699, 44.3073, -153.823, -55.2415, 119.545
8.40909, 103, 13.9113, -29.4132, 43.8256, -153.855, -55.8323, 120.337
8.41549, 103, 13.8863, -28.7424, 43.3363, -153.875, -56.4407, 120.588
8.4235, 104, 13.8567, -28.0598, 42.8406, -153.886, -57.0632, 121.071
8.43147, 104, 13.823, -27.367, 42.3403, -153.886, -57.6981, 121.53
8.43949, 104, 13.7854, -26.6661, 41.8365, -153.875, -58.3473, 121.967
8.44755, 104, 13.7442, -25.958, 41.3295, -153.855, -59.0105, 122.384
8.4555, 104, 13.7005, -25.2454, 40.8211, -153.827, -59.6855, 122.783
8.46348, 104, 13.655, -24.5297, 40.3116, -153.791, -60.3699, 123.166
8.47156, 104, 13.6077, -23.8112, 39.8018, -153.748, -61.0603, 123.537
8.47949, 104, 13.5587, -23.0903, 39.2927, -153.699, -61.7567, 123.899
8.48754, 104, 13.5085, -22.3682, 38.7846, -153.645, -62.4573, 124.255
8.49548, 104, 13.4574, -21.6448, 38.2778, -153.585, -63.1603, 124.608
8.5035, 104, 13.4057, -20.9215, 37.7725, -153.523, -63.8641, 124.958
8.51169, 104, 13.3536, -20.1987, 37.2686, -153.454, -64.5679, 125.306
8.51948, 104, 13.3013, -19.4753, 36.7666, -153.383, -65.2736, 125.653
8.52748, 104, 13.2487, -18.7517, 36.2666, -153.307, -65.9807, 125.999
8.53555, 104, 13.1962, -18.0282, 35.7689, -153.227, -66.6882, 126.344
8.54347, 104, 13.144, -17.3042, 35.2735, -153.143, -67.3968, 126.689
8.55147, 104, 13.0922, -16.5797, 34.7799, -153.056, -68.1045, 127.033
8.5596, 104, 13.0406, -15.8553, 34.2885, -152.964, -68.813, 127.377
8.56747, 104, 12.9895, -15.1307, 33.7993, -152.869, -69.5236, 127.72
8.57556, 104, 12.9384, -14.4054, 33.3122, -152.769, -70.235, 128.063
8.58358, 104, 12.8878, -13.6801, 32.828, -152.667, -70.9456, 128.407
8.59147, 104, 12.8377, -12.9545, 32.3464, -152.56, -71.6558, 128.751
8.59951, 104, 12.7878, -12.229, 31.8674, -152.449, -72.3677, 129.095
8.60779, 104, 12.7382, -11.5039, 31.3911, -152.334, -73.0807, 129.439
8.61558, 104, 12.6891, -10.7787, 30.9171, -152.216, -73.7938, 129.785
8.62359, 104, 12.6403, -10.0531, 30.4459, -152.093, -74.5068, 130.13
8.63185, 104, 12.5918, -9.3276, 29.9779, -151.967, -75.2196, 130.477
8.63961, 104, 12.5438, -8.60188, 29.5129, -151.836, -75.9338, 130.825
8.64754, 104, 12.4963, -7.87558, 29.051, -151.701, -76.6486, 131.173
8.65627, 104, 12.4492, -7.14982, 28.5925, -151.563, -77.3641, 131.523
8.66351, 104, 12.4028, -6.42474, 28.1374, -151.42, -78.0793, 131.874
8.67234, 104, 12.3569, -5.70007, 27.6857, -151.273, -78.7932, 132.226
8.67964, 104, 12.3116, -4.97597, 27.2374, -151.121, -79.5082, 132.579
8.68759, 104, 12.2671, -4.25301, 26.7935, -150.966, -80.2237, 132.933
8.69566, 104, 12.2238, -3.5323, 26.3545, -150.807, -80.9389, 133.289
8.70383, 104, 12.1814, -2.81648, 25.9204, -150.643, -81.6504, 133.646
8.71175, 104, 12.1404, -2.10659, 25.4922, -150.476, -82.3579, 134.003
8.71985, 104, 12.1006, -1.40398, 25.0711, -150.306, -83.0619, 134.358
8.72805, 104, 12.0617, -0.70976, 24.6585, -150.134, -83.7589, 134.712
8.73599, 104, 12.024, -0.0254805, 24.2556, -149.959, -84.446, 135.063
8.74399, 104, 11.9871, 0.648139, 23.8632, -149.784, -85.1204, 135.41
8.75208, 104, 11.9512, 1.30936, 23.4834, -149.608, -85.7803, 135.752
8.76006, 104, 11.9167, 1.95735, 23.1161, -149.431, -86.426, 136.088
8.76865, 104, 11.8999, 2.2759, 22.7615, -149.256, -87.0564, 136.418
8.77613, 104, 11.8669, 2.9009, 22.419, -149.08, -87.6708, 136.741
8.78347, 104, 11.835, 3.5099, 22.253, -148.993, -87.9718, 136.9
8.79148, 104, 11.8047, 4.10191, 21.9304, -148.82, -88.5609, 137.213
8.79952, 104, 11.7753, 4.67697, 21.6204, -148.648, -89.1323, 137.52
8.80749, 104, 11.7475, 5.23552, 21.3221, -148.478, -89.6874, 137.819
8.81548, 104, 11.7209, 5.77688, 21.0355, -148.309, -90.2271, 138.111
8.82351, 104, 11.6952, 6.30119, 20.7611, -148.142, -90.7503, 138.397
8.83147, 104, 11.6709, 6.80853, 20.498, -147.978, -91.2572, 138.675
8.83948, 104, 11.6477, 7.299, 20.2467, -147.817, -91.7471, 138.945
8.84751, 104, 11.6257, 7.77277, 20.0067, -147.658, -92.2195, 139.208
8.85548, 104, 11.6048, 8.23009, 19.7771, -147.502, -92.6756, 139.463
8.86347, 104, 11.5851, 8.67064, 19.559, -147.35, -93.115, 139.71
8.87152, 104, 11.5665, 9.09348, 19.3514, -147.201, -93.538, 139.95
8.87947, 104, 11.549, 9.49942, 19.1537, -147.056, -93.9436, 140.181
8.88747, 104, 11.5327, 9.88726, 18.9668, -146.915, -94.3324, 140.403
8.89707, 104, 11.5173, 10.257, 18.7066, -146.712, -94.8817, 140.719
8.90347, 104, 11.503, 10.6074, 18.6249, -146.648, -95.0556, 140.82
8.91152, 104, 11.4897, 10.9388, 18.4694, -146.523, -95.3888, 141.013
8.92057, 104, 11.4775, 11.2501, 18.3251, -146.403, -95.7021, 141.196
8.92746, 104, 11.4662, 11.5408, 18.1913, -146.291, -95.9947, 141.367
8.93554, 104, 11.4561, 11.8109, 18.0679, -146.185, -96.2663, 141.527
8.94346, 104, 11.4469, 12.0595, 17.9553, -146.087, -96.5165, 141.675
8.95146, 104, 11.4383, 12.2869, 17.8533, -145.997, -96.7447, 141.81
8.95955, 104, 11.4305, 12.4936, 17.7616, -145.915, -96.9509, 141.932
8.96745, 104, 11.4236, 12.6791, 17.6802, -145.841, -97.1352, 142.042
8.97549, 104, 11.4174, 12.8434, 17.6091, -145.776, -97.2974, 142.139
8.98353, 104, 11.4118, 12.9875, 17.5477, -145.72, -97.4377, 142.223
8.99146, 104, 11.4067, 13.1124, 17.4959, -145.671, -97.5565, 142.294
8.99947, 104, 11.4021, 13.2187, 17.4531, -145.632, -97.6548, 142.353
9.00755, 104, 11.3979, 13.3072, 17.4185, -145.599, -97.7339, 142.4
9.01547, 104, 11.394, 13.3799, 17.3915, -145.574, -97.7954, 142.438
9.02346, 104, 11.3904, 13.4389, 17.3714, -145.555, -97.8409, 142.466
9.03153, 104, 11.3873, 13.4855, 17.3569, -145.541, -97.8738, 142.486
9.03946, 104, 11.3848, 13.5211, 17.347, -145.531, -97.8966, 142.499
9.04746, 104, 11.3828, 13.5476, 17.3407, -145.525, -97.9115, 142.507
9.05554, 104, 11.3812, 13.5671, 17.3367, -145.522, -97.9203, 142.512
9.06351, 104, 11.3799, 13.5807, 17.3345, -145.52, -97.9251, 142.514
9.07146, 104, 11.3789, 13.5899, 17.3333, -145.519, -97.9275, 142.515
9.07955, 105, 11.3782, 13.5961, 17.3328, -145.518, -97.9286, 142.516
9.08747, 105, 11.3777, 13.6001, 17.3325, -145.518, -97.9291, 142.516
9.09548, 105, 11.3774, 13.6028, 17.3324, -145.518, -97.9294, 142.516
9.10356, 105, 11.3771, 13.605, 17.3323, -145.518, -97.9294, 142.516
9.11154, 105, 11.3769, 13.6069, 17.3323, -145.518, -97.9295, 142.517
9.11956, 105, 11.3767, 13.6085, 17.3323, -145.518, -97.9295, 142.517
9.12764, 105, 11.3766, 13.6099, 17.3323, -145.518, -97.9294, 142.517
9.13557, 105, 11.3765, 13.6111, 17.3323, -145.518, -97.9294, 142.517
9.14359, 105, 11.3764, 13.6121, 17.3323, -145.518, -97.9293, 142.517
9.15164, 105, 11.3764, 13.613, 17.3323, -145.518, -97.9291, 142.517
9.15947, 105, 11.3763, 13.6136, 17.3324, -145.518, -97.929, 142.517
9.16749, 105, 11.3763, 13.6141, 17.3324, -145.518, -97.9288, 142.517
9.17559, 105, 11.3763, 13.6144, 17.3325, -145.518, -97.9287, 142.517
9.18353, 105, 11.3763, 13.6146, 17.3325, -145.518, -97.9286, 142.517
9.19171, 105, 11.3763, 13.6147, 17.3325, -145.518, -97.9284, 142.517
9.20003, 105, 11.3763, 13.6147, 17.3326, -145.518, -97.9283, 142.517
