MoveAbsJ [[35.95329301236273,10.337228909321356,29.754670037564196,91.95996561485549,-51.18917126835061,52.5913090009324],[9E+09,9E+09,9E+09,9E+09,9E+09,9E+09]],v50,fine,Paintgun;
MoveL [[2322.06782003,1010.60518694,719.98691742],[0.35991047480016375,0.6497915216353263,0.4308718820163074,0.5124303365606816],[1,2,1,0],[9E+09,9E+09,9E+09,9E+09,9E+09,9E+09]],v50,fine,Paintgun;
MoveL [[2312.6732753,947.95304069,698.37401085],[0.40362818914869103,0.6500011032595849,0.42592012032153365,0.48288187146667777],[1,2,1,0],[9E+09,9E+09,9E+09,9E+09,9E+09,9E+09]],v50,fine,Paintgun;
MoveL [[2300.17328763,886.79354827,684.24773989],[0.45694433004493407,0.6315032183044926,0.44360859923834933,0.44228607845222095],[1,2,1,0],[9E+09,9E+09,9E+09,9E+09,9E+09,9E+09]],v50,fine,Paintgun;
MoveL [[2281.53336073,813.65023806,675.26138119],[0.4942724781144963,0.6235826717193589,0.4387536735809515,0.41753393015313234],[1,1,1,0],[9E+09,9E+09,9E+09,9E+09,9E+09,9E+09]],v50,fine,Paintgun;
MoveL [[2258.89228377,737.89417786,673.51510496],[0.5375304505831366,0.598455180186508,0.45326757803411205,0.38400639930463953],[1,1,1,0],[9E+09,9E+09,9E+09,9E+09,9E+09,9E+09]],v50,fine,Paintgun;
MoveL [[2228.1945969,645.60842059,679.19915343],[0.5680731455773056,0.579853690717112,0.4511648422460225,0.3708272964019381],[1,1,1,0],[9E+09,9E+09,9E+09,9E+09,9E+09,9E+09]],v50,fine,Paintgun;
MoveL [[2184.88295041,523.18101129,694.33978429],[0.6071481872648474,0.5398948589421952,0.453187103695165,0.36675069056947207],[1,1,1,0],[9E+09,9E+09,9E+09,9E+09,9E+09,9E+09]],v50,fine,Paintgun;
MoveL [[2118.55122157,331.0078705,727.54452389],[0.6295667915224417,0.49419749901660204,0.4452849762060322,0.40141721057157903],[1,1,1,0],[9E+09,9E+09,9E+09,9E+09,9E+09,9E+09]],v50,fine,Paintgun;
MoveL [[2088.1513584,224.75379248,743.86369153],[0.6216189296855947,0.47934260126870054,0.4295822624630063,0.44640750065680584],[1,1,1,0],[9E+09,9E+09,9E+09,9E+09,9E+09,9E+09]],v50,fine,Paintgun;
MoveL [[2068.17787223,137.64059016,751.84048614],[0.6144975486282611,0.46162812577104967,0.419761256064257,0.48279677311921115],[1,1,1,0],[9E+09,9E+09,9E+09,9E+09,9E+09,9E+09]],v50,fine,Paintgun;
MoveL [[2055.10243038,59.31250652,753.69321755],[0.5856112306339755,0.45966371104113246,0.391789928426546,0.5406194699516259],[1,1,1,0],[9E+09,9E+09,9E+09,9E+09,9E+09,9E+09]],v50,fine,Paintgun;
MoveL [[2048.81509332,-7.28009097,749.6329061],[0.5672321701464386,0.449533895729993,0.3729270634376162,0.5805965441652006],[1,1,1,0],[9E+09,9E+09,9E+09,9E+09,9E+09,9E+09]],v50,fine,Paintgun;
MoveL [[2047.11625468,-75.0609423,739.7179789],[0.5477800297111631,0.43764113257334514,0.3493431966447057,0.6215839517616389],[1,1,2,0],[9E+09,9E+09,9E+09,9E+09,9E+09,9E+09]],v50,fine,Paintgun;
MoveL [[2050.88979453,-134.52582113,724.34433073],[0.4996624339634465,0.44118997201705834,0.30038497691477023,0.682244623519471],[1,1,2,0],[9E+09,9E+09,9E+09,9E+09,9E+09,9E+09]],v50,fine,Paintgun;
MoveL [[2058.1778096,-184.98301415,706.08828116],[0.47430463131856243,0.43412360417587054,0.2629742662673066,0.719316584188274],[1,1,2,0],[9E+09,9E+09,9E+09,9E+09,9E+09,9E+09]],v50,fine,Paintgun;
MoveL [[2071.20811454,-240.06587415,679.60153246],[0.42405152083365166,0.4295401060009608,0.19766574471916334,0.7724013583493811],[1,1,2,0],[9E+09,9E+09,9E+09,9E+09,9E+09,9E+09]],v50,fine,Paintgun;
MoveL [[2088.98281584,-289.45173281,648.27773235],[0.40991956269583885,0.4138230265329121,0.1409619864169041,0.8005286835684238],[0,1,2,0],[9E+09,9E+09,9E+09,9E+09,9E+09,9E+09]],v50,fine,Paintgun;
MoveL [[2114.48756731,-342.06403583,607.31079849],[0.3718782250964248,0.3953954900124975,0.052575405013966375,0.8382152581315417],[0,1,2,0],[9E+09,9E+09,9E+09,9E+09,9E+09,9E+09]],v50,fine,Paintgun;
MoveL [[2148.55562339,-393.5735675,557.29504334],[0.37603427568294057,0.3696444098975935,-0.034548228151282286,0.8489803611831508],[0,1,2,0],[9E+09,9E+09,9E+09,9E+09,9E+09,9E+09]],v50,fine,Paintgun;
MoveL [[2188.44913076,-446.50034091,499.93940423],[0.35699043001993763,0.3538553539349889,-0.11259301309340088,0.8571271987098957],[0,1,2,0],[9E+09,9E+09,9E+09,9E+09,9E+09,9E+09]],v50,fine,Paintgun;
MoveL [[2215.82720436,-474.50965714,463.04696369],[0.3746240648092646,0.3241841837259663,-0.15310351366044272,0.8550559859988932],[0,1,2,0],[9E+09,9E+09,9E+09,9E+09,9E+09,9E+09]],v50,fine,Paintgun;