MoveAbsJ [[35.953105655163725,10.299017781006286,29.771508694205288,91.97702887095228,-51.18976198783739,52.563891251562005],[9E+09,9E+09,9E+09,9E+09,9E+09,9E+09]],v50,z10,Paintgun;
MoveL [[2322.06782003,1010.60518694,719.98691742],[0.3599104748001637,0.6497915216353263,0.4308718820163073,0.5124303365606815],[1,2,1,0],[9E+09,9E+09,9E+09,9E+09,9E+09,9E+09]],v50,z10,Paintgun;
MoveL [[2312.6732753,947.95304069,698.37401085],[0.40362818914869103,0.6500011032595849,0.42592012032153354,0.48288187146667777],[1,2,1,0],[9E+09,9E+09,9E+09,9E+09,9E+09,9E+09]],v50,z10,Paintgun;
MoveL [[2300.17328763,886.79354827,684.24773989],[0.45694433004493407,0.6315032183044926,0.44360859923834933,0.44228607845222095],[1,2,1,0],[9E+09,9E+09,9E+09,9E+09,9E+09,9E+09]],v50,z10,Paintgun;
MoveL [[2281.53336073,813.65023806,675.26138119],[0.49427247811449637,0.6235826717193587,0.4387536735809517,0.4175339301531325],[1,1,1,0],[9E+09,9E+09,9E+09,9E+09,9E+09,9E+09]],v50,z10,Paintgun;
MoveL [[2258.89228377,737.89417786,673.51510496],[0.5375304505831368,0.5984551801865079,0.45326757803411194,0.3840063993046396],[1,1,1,0],[9E+09,9E+09,9E+09,9E+09,9E+09,9E+09]],v50,z10,Paintgun;
MoveL [[2228.1945969,645.60842059,679.19915343],[0.5680731455773056,0.5798536907171119,0.4511648422460226,0.3708272964019382],[1,1,1,0],[9E+09,9E+09,9E+09,9E+09,9E+09,9E+09]],v50,z10,Paintgun;
MoveL [[2184.88295041,523.18101129,694.33978429],[0.6071481872648474,0.5398948589421951,0.453187103695165,0.3667506905694721],[1,1,1,0],[9E+09,9E+09,9E+09,9E+09,9E+09,9E+09]],v50,z10,Paintgun;
MoveL [[2118.55122157,331.0078705,727.54452389],[0.6295667915224417,0.49419749901660204,0.4452849762060322,0.40141721057157903],[1,1,1,0],[9E+09,9E+09,9E+09,9E+09,9E+09,9E+09]],v50,z10,Paintgun;
MoveL [[2088.1513584,224.75379248,743.86369153],[0.6216189296855948,0.47934260126870043,0.4295822624630061,0.44640750065680573],[1,1,1,0],[9E+09,9E+09,9E+09,9E+09,9E+09,9E+09]],v50,z10,Paintgun;
MoveL [[2068.17787223,137.64059016,751.84048614],[0.6144975486282611,0.46162812577104967,0.4197612560642569,0.48279677311921126],[1,1,1,0],[9E+09,9E+09,9E+09,9E+09,9E+09,9E+09]],v50,z10,Paintgun;
MoveL [[2055.10243038,59.31250652,753.69321755],[0.5856112306339755,0.45966371104113246,0.391789928426546,0.5406194699516259],[1,1,1,0],[9E+09,9E+09,9E+09,9E+09,9E+09,9E+09]],v50,z10,Paintgun;
MoveL [[2048.81509332,-7.28009097,749.6329061],[0.5672321701464386,0.449533895729993,0.3729270634376162,0.5805965441652006],[1,1,1,0],[9E+09,9E+09,9E+09,9E+09,9E+09,9E+09]],v50,z10,Paintgun;
MoveL [[2047.11625468,-75.0609423,739.7179789],[0.5477800297111632,0.4376411325733451,0.3493431966447056,0.6215839517616388],[1,1,2,0],[9E+09,9E+09,9E+09,9E+09,9E+09,9E+09]],v50,z10,Paintgun;
MoveL [[2050.88979453,-134.52582113,724.34433073],[0.4996624339634465,0.44118997201705834,0.30038497691477023,0.682244623519471],[1,1,2,0],[9E+09,9E+09,9E+09,9E+09,9E+09,9E+09]],v50,z10,Paintgun;
MoveL [[2058.1778096,-184.98301415,706.08828116],[0.4743046313185625,0.4341236041758706,0.26297426626730663,0.7193165841882739],[1,1,2,0],[9E+09,9E+09,9E+09,9E+09,9E+09,9E+09]],v50,z10,Paintgun;
MoveL [[2071.20811454,-240.06587415,679.60153246],[0.42405152083365166,0.4295401060009608,0.19766574471916332,0.7724013583493811],[1,1,2,0],[9E+09,9E+09,9E+09,9E+09,9E+09,9E+09]],v50,z10,Paintgun;
MoveL [[2088.98281584,-289.45173281,648.27773235],[0.40991956269583885,0.4138230265329121,0.14096198641690413,0.8005286835684238],[0,1,2,0],[9E+09,9E+09,9E+09,9E+09,9E+09,9E+09]],v50,z10,Paintgun;
MoveL [[2114.48756731,-342.06403583,607.31079849],[0.37187822509642504,0.39539549001249735,0.05257540501396651,0.8382152581315417],[0,1,2,0],[9E+09,9E+09,9E+09,9E+09,9E+09,9E+09]],v50,z10,Paintgun;
MoveL [[2148.55562339,-393.5735675,557.29504334],[0.3760342756829407,0.36964440989759345,-0.034548228151282126,0.8489803611831507],[0,1,2,0],[9E+09,9E+09,9E+09,9E+09,9E+09,9E+09]],v50,z10,Paintgun;
MoveL [[2188.44913076,-446.50034091,499.93940423],[0.3569904300199374,0.3538553539349888,-0.11259301309340095,0.8571271987098958],[0,1,2,0],[9E+09,9E+09,9E+09,9E+09,9E+09,9E+09]],v50,z10,Paintgun;
MoveL [[2215.82720436,-474.50965714,463.04696369],[0.3746240648092644,0.3241841837259662,-0.15310351366044292,0.8550559859988933],[0,1,2,0],[9E+09,9E+09,9E+09,9E+09,9E+09,9E+09]],v50,z10,Paintgun;

