MoveAbsJ [[35.95329301236273,10.337331468766683,29.754624773898374,91.95991920527408,-51.18916897651943,52.59138291248797],[9E+09,9E+09,9E+09,9E+09,9E+09,9E+09]],v500,fine,Paintgun;
MoveL [[2322.05936835,1010.51979347,719.94864916],[0.360320541261186,0.6494989294330066,0.4313081119188505,0.5121460346459986],[1,2,1,0],[9E+09,9E+09,9E+09,9E+09,9E+09,9E+09]],v5000,fine,Paintgun;
MoveL [[2309.94963738,932.89447437,694.15023076],[0.42392675063301677,0.6399157986409095,0.43912747778729194,0.46686286958770923],[1,2,1,0],[9E+09,9E+09,9E+09,9E+09,9E+09,9E+09]],v5000,fine,Paintgun;
MoveL [[2290.68008871,847.60676617,678.34126586],[0.4834023373658464,0.6220155562983298,0.4489561387310461,0.4217312099522933],[1,1,1,0],[9E+09,9E+09,9E+09,9E+09,9E+09,9E+09]],v5000,fine,Paintgun;
MoveL [[2262.18514475,748.13149004,673.17866013],[0.5361153133419574,0.5976512087554061,0.4571521259895278,0.3826295037980105],[1,1,1,0],[9E+09,9E+09,9E+09,9E+09,9E+09,9E+09]],v5000,fine,Paintgun;
MoveL [[2219.03435665,619.05417556,681.7126064],[0.579807720866923,0.569180472193109,0.45634241821077653,0.36277843684358396],[1,1,1,0],[9E+09,9E+09,9E+09,9E+09,9E+09,9E+09]],v5000,fine,Paintgun;
MoveL [[2155.35288039,439.96499884,708.29264681],[0.6185002339782314,0.5211423338609166,0.4471864076297605,0.3819586957487153],[1,1,1,0],[9E+09,9E+09,9E+09,9E+09,9E+09,9E+09]],v5000,fine,Paintgun;
MoveL [[2108.52926777,297.50361913,733.80916491],[0.626768810395617,0.49090028588079226,0.43918923660769377,0.41628185413896024],[1,1,1,0],[9E+09,9E+09,9E+09,9E+09,9E+09,9E+09]],v5000,fine,Paintgun;
MoveL [[2075.37535402,172.46326667,749.4542229],[0.6131030014676774,0.47310900338228395,0.4192708146743266,0.4737980207559691],[1,1,1,0],[9E+09,9E+09,9E+09,9E+09,9E+09,9E+09]],v5000,fine,Paintgun;
MoveL [[2055.69929564,64.39417665,753.90829959],[0.5853117132841955,0.4615821786818733,0.3917873662365975,0.539309512500016],[1,1,1,0],[9E+09,9E+09,9E+09,9E+09,9E+09,9E+09]],v5000,fine,Paintgun;
MoveL [[2047.29526384,-32.58442876,747.02782413],[0.5453881653101367,0.45391978907495767,0.35436234402203337,0.6090450749862433],[1,1,1,0],[9E+09,9E+09,9E+09,9E+09,9E+09,9E+09]],v5000,fine,Paintgun;
MoveL [[2049.06937656,-115.02902845,730.14877918],[0.5240791783120783,0.4363721769085784,0.3227740551130434,0.6563057575746896],[1,1,2,0],[9E+09,9E+09,9E+09,9E+09,9E+09,9E+09]],v5000,fine,Paintgun;
MoveL [[2057.58487227,-181.7788083,707.41152128],[0.4735126406356123,0.4355640894637013,0.26421223174682495,0.7185134652345134],[1,1,2,0],[9E+09,9E+09,9E+09,9E+09,9E+09,9E+09]],v5000,fine,Paintgun;
MoveL [[2072.61393001,-244.34802355,677.0361771],[0.42568786175203516,0.4276132774597707,0.19467065713976428,0.7733305014971708],[1,1,2,0],[9E+09,9E+09,9E+09,9E+09,9E+09,9E+09]],v5000,fine,Paintgun;
MoveL [[2097.62878605,-309.59637888,633.85645438],[0.3854107936136629,0.40903290759273864,0.10491877159986847,0.8204527116405254],[0,1,2,0],[9E+09,9E+09,9E+09,9E+09,9E+09,9E+09]],v5000,fine,Paintgun;
MoveL [[2135.55694674,-375.76590671,575.83467073],[0.36373010032615255,0.37849499458365304,-0.007108797814351781,0.8511118717216216],[0,1,2,0],[9E+09,9E+09,9E+09,9E+09,9E+09,9E+09]],v5000,fine,Paintgun;
MoveL [[2171.40702139,-422.58328499,525.24241497],[0.3892864926130811,0.36353855272476526,-0.07082127104151092,0.8433742318329707],[0,1,2,0],[9E+09,9E+09,9E+09,9E+09,9E+09,9E+09]],v5000,fine,Paintgun;
MoveL [[2188.51688705,-446.66085722,499.41292613],[0.3557802552249158,0.35333394064645934,-0.11364161582606787,0.8577068960500308],[0,1,2,0],[9E+09,9E+09,9E+09,9E+09,9E+09,9E+09]],v5000,fine,Paintgun;
MoveL [[2216.21316316,-474.29230401,462.81389509],[0.3746240648092646,0.3241841837259663,-0.15310351366044272,0.8550559859988932],[0,1,2,0],[9E+09,9E+09,9E+09,9E+09,9E+09,9E+09]],v5000,fine,Paintgun;